%
(Header)
(Generated by gcodetools from Inkscape.)
(Using default header. To add your own header create file "header" in the output dir.)
M3
(Header end.)
G21 (All units in mm)

(Start cutting path id: path240)
(Change tool to Default tool)

G00 Z3.000000
G00 X10.198233 Y102.501518

G00 Z4.875000 (Fast pre-penetrate)
G01 Z-0.125000 F400.0(Penetrate)
G03 X10.667262 Y101.915298 Z-0.125000 I289.713846 J231.316171 F800.000000
G02 X11.604353 Y100.740412 Z-0.125000 I-231.624969 J-185.705595
G02 X12.303854 Y99.855501 Z-0.125000 I-240.216843 J-190.604640
G02 X13.002208 Y98.967703 Z-0.125000 I-817.931730 J-644.114820
G02 X13.698998 Y98.078645 Z-0.125000 I-359.647178 J-282.587583
G03 X14.395307 Y97.188385 Z-0.125000 I1829.339250 J1430.085248
G02 X15.091313 Y96.297758 Z-0.125000 I-677.977526 J-530.542616
G03 X15.787713 Y95.408109 Z-0.125000 I304.215251 J237.416320
G03 X16.485854 Y94.519950 Z-0.125000 I788.660309 J619.211386
G03 X17.185255 Y93.634964 Z-0.125000 I215.904884 J169.909815
G03 X17.887792 Y92.752742 Z-0.125000 I267.778886 J212.518945
G03 X18.591963 Y91.874688 Z-0.125000 I245.365774 J196.053840
G03 X19.298904 Y90.998268 Z-0.125000 I424.178168 J341.428896
G03 X20.008148 Y90.127906 Z-0.125000 I110.533739 J89.347950
G03 X20.722648 Y89.261029 Z-0.125000 I265.018161 J217.706364
G03 X21.441433 Y88.405970 Z-0.125000 I53.459634 J44.209926
G03 X22.171332 Y87.560165 Z-0.125000 I86.815364 J74.180667
G03 X22.907923 Y86.734224 Z-0.125000 I36.550462 J31.854997
G03 X23.660870 Y85.923086 Z-0.125000 I47.973470 J43.776837
G03 X24.422141 Y85.139519 Z-0.125000 I27.901825 J26.346296
G03 X25.203706 Y84.376369 Z-0.125000 I31.885267 J31.872889
G03 X25.994073 Y83.646863 Z-0.125000 I23.209716 J24.353152
G03 X26.806496 Y82.942549 Z-0.125000 I23.656560 J26.467003
G03 X27.627016 Y82.274952 Z-0.125000 I21.138557 J25.142662
G03 X28.468746 Y81.635511 Z-0.125000 I18.974843 J24.103837
G03 X29.316937 Y81.031071 Z-0.125000 I23.168455 J31.614182
G03 X30.182147 Y80.451875 Z-0.125000 I18.585693 J26.827690
G03 X31.051922 Y79.902257 Z-0.125000 I26.834461 J41.502764
G03 X31.934278 Y79.372153 Z-0.125000 I22.259082 J36.050789
G03 X32.819972 Y78.868166 Z-0.125000 I22.336110 J38.222638
G03 X33.717222 Y78.384782 Z-0.125000 I21.163048 J38.208100
G03 X34.617260 Y77.927449 Z-0.125000 I18.946532 J36.172741
G03 X35.528244 Y77.492242 Z-0.125000 I18.445796 J37.440062
G03 X36.441607 Y77.083892 Z-0.125000 I15.976774 J34.509902
G03 X37.365262 Y76.699369 Z-0.125000 I15.489718 J35.905952
G03 X38.290907 Y76.342658 Z-0.125000 I13.327229 J33.203994
G03 X39.225974 Y76.011478 Z-0.125000 I12.667140 J34.279344
G03 X40.162655 Y75.708862 Z-0.125000 I11.025853 J32.527120
G03 X41.107564 Y75.433141 Z-0.125000 I10.148284 J33.021627
G03 X42.053719 Y75.186269 Z-0.125000 I9.023136 J32.645256
G03 X43.006611 Y74.967637 Z-0.125000 I7.642546 J31.123624
G03 X43.960418 Y74.776295 Z-0.125000 I8.253002 J38.666828
G03 X44.918867 Y74.610170 Z-0.125000 I6.389625 J34.016856
G03 X45.877909 Y74.467939 Z-0.125000 I7.359903 J46.322092
G03 X46.839884 Y74.347015 Z-0.125000 I5.583694 J40.532446
G03 X47.802211 Y74.247054 Z-0.125000 I5.634691 J49.563626
G03 X48.766374 Y74.166281 Z-0.125000 I4.430908 J47.095234
G03 X49.730733 Y74.105458 Z-0.125000 I3.415953 J46.484826
G03 X50.696153 Y74.064047 Z-0.125000 I2.606215 J49.484911
G03 X51.661630 Y74.043781 Z-0.125000 I1.318058 J39.784725
G03 X52.627345 Y74.045772 Z-0.125000 I0.391510 J44.302732
G03 X53.592975 Y74.071244 Z-0.125000 I-0.466728 J36.008721
G03 X54.557563 Y74.124287 Z-0.125000 I-1.282575 J32.121046
G03 X55.522081 Y74.197935 Z-0.125000 I-5.410739 J77.213636
G03 X56.485154 Y74.288005 Z-0.125000 I-3.691979 J44.670350
G03 X57.448140 Y74.389868 Z-0.125000 I-37.390124 J358.076036
G03 X58.410332 Y74.497681 Z-0.125000 I-10.621846 J99.144317
G03 X59.372460 Y74.610451 Z-0.125000 I-235.552346 J2013.829959
G03 X60.334293 Y74.724444 Z-0.125000 I-53.807949 J458.130237
G03 X61.296066 Y74.841816 Z-0.125000 I-23.752851 J198.634904
G03 X62.257387 Y74.961816 Z-0.125000 I-182.318745 J1464.461514
G03 X63.218542 Y75.089270 Z-0.125000 I-8.224259 J65.708864
G03 X64.178288 Y75.226618 Z-0.125000 I-22.507637 J160.697872
G03 X65.137599 Y75.379872 Z-0.125000 I-5.288486 J36.183077
G03 X66.093489 Y75.554026 Z-0.125000 I-9.749208 J56.221538
G03 X67.048526 Y75.753410 Z-0.125000 I-5.356148 J28.042537
G03 X67.997305 Y75.981480 Z-0.125000 I-8.292050 J36.582681
G03 X68.944607 Y76.242801 Z-0.125000 I-5.978035 J23.518359
G03 X69.881785 Y76.539261 Z-0.125000 I-8.271579 J27.777943
G03 X70.816574 Y76.875441 Z-0.125000 I-7.207072 J21.507903
G03 X71.736849 Y77.250412 Z-0.125000 I-9.013332 J23.437754
G03 X72.653529 Y77.669121 Z-0.125000 I-9.160919 J21.268838
G03 X73.551759 Y78.126766 Z-0.125000 I-10.451185 J21.623063
G03 X74.445021 Y78.629195 Z-0.125000 I-12.014311 J22.405375
G03 X75.317260 Y79.167687 Z-0.125000 I-12.650017 J21.465899
G03 X76.183233 Y79.749198 Z-0.125000 I-16.006180 J24.771594
G03 X77.027407 Y80.361942 Z-0.125000 I-15.842559 J22.714076
G03 X77.864317 Y81.014082 Z-0.125000 I-20.970737 J27.775432
G03 X78.679960 Y81.692406 Z-0.125000 I-20.076162 J24.969905
G03 X79.487655 Y82.406008 Z-0.125000 I-26.360046 J30.649682
G03 X80.275077 Y83.141668 Z-0.125000 I-25.022534 J27.572418
G03 X81.054082 Y83.908866 Z-0.125000 I-31.937213 J33.207776
G03 X81.814040 Y84.694379 Z-0.125000 I-31.548285 J31.282326
G03 X82.564848 Y85.509353 Z-0.125000 I-33.235825 J31.372388
G03 X83.296438 Y86.340726 Z-0.125000 I-38.559228 J34.668824
G03 X84.016549 Y87.203779 Z-0.125000 I-27.282120 J23.495499
G03 X84.712090 Y88.087094 Z-0.125000 I-34.378816 J27.786114
G03 X85.391975 Y89.007251 Z-0.125000 I-25.274113 J19.385798
G03 X86.040897 Y89.950609 Z-0.125000 I-29.453219 J20.955287
G03 X86.670012 Y90.933296 Z-0.125000 I-28.156853 J18.718701
G03 X87.264946 Y91.938133 Z-0.125000 I-28.199360 J17.374541
G03 X87.838760 Y92.978449 Z-0.125000 I-40.074906 J22.782791
G03 X88.382114 Y94.035408 Z-0.125000 I-32.104389 J17.172158
G03 X88.908149 Y95.117613 Z-0.125000 I-88.814208 J43.839433
G03 X89.415058 Y96.208491 Z-0.125000 I-47.698273 J22.827679
G02 X89.912617 Y97.311736 Z-0.125000 I9132.344556 J-4117.979271
G03 X90.404535 Y98.416775 Z-0.125000 I-112.039492 J50.537414
G02 X90.895368 Y99.523187 Z-0.125000 I152.212337 J-66.863264
G02 X91.390411 Y100.627060 Z-0.125000 I1410.500635 J-631.889778
G02 X91.889861 Y101.725333 Z-0.125000 I113.661261 J-51.025939
G02 X92.398693 Y102.818359 Z-0.125000 I135.409931 J-62.371839
G02 X92.913218 Y103.903962 Z-0.125000 I190.007959 J-89.390150
G00 Z3.000000

(End cutting path id: path240)


(Start cutting path id: path238)
(Change tool to Default tool)

G00 Z3.000000
G00 X10.198233 Y103.824433

G00 Z4.875000 (Fast pre-penetrate)
G01 Z-0.125000 F400.0(Penetrate)
G03 X10.671470 Y103.244310 Z-0.125000 I231.804546 J188.612117 F800.000000
G02 X11.616775 Y102.081038 Z-0.125000 I-185.180096 J-151.447881
G02 X12.321740 Y101.204034 Z-0.125000 I-200.246026 J-161.686124
G02 X13.025229 Y100.323233 Z-0.125000 I-465.960296 J-372.880322
G02 X13.726504 Y99.440677 Z-0.125000 I-282.585129 J-225.260796
G02 X14.426875 Y98.555829 Z-0.125000 I-1337.583991 J-1059.439201
G02 X15.126056 Y97.669941 Z-0.125000 I-414.893149 J-328.170103
G03 X15.825036 Y96.783546 Z-0.125000 I682.218899 J537.256138
G02 X16.524323 Y95.897238 Z-0.125000 I-1129.455022 J-891.845329
G03 X17.224409 Y95.012960 Z-0.125000 I214.610493 J169.188567
G03 X17.927237 Y94.131153 Z-0.125000 I366.688455 J291.541455
G03 X18.631676 Y93.253472 Z-0.125000 I199.805481 J159.644987
G03 X19.339392 Y92.378136 Z-0.125000 I319.183574 J257.338839
G03 X20.049455 Y91.508981 Z-0.125000 I117.309298 J95.112149
G03 X20.764605 Y90.643192 Z-0.125000 I256.351726 J211.020771
G03 X21.483825 Y89.788644 Z-0.125000 I57.119604 J47.344071
G03 X22.213491 Y88.942807 Z-0.125000 I91.358711 J78.073338
G03 X22.949431 Y88.115527 Z-0.125000 I39.418619 J34.325473
G03 X23.700604 Y87.301974 Z-0.125000 I51.692670 J46.975514
G03 X24.459602 Y86.514048 Z-0.125000 I30.176214 J28.308809
G03 X25.237552 Y85.744976 Z-0.125000 I34.672611 J34.294858
G03 X26.023873 Y85.007222 Z-0.125000 I25.147181 J26.014687
G03 X26.830969 Y84.292744 Z-0.125000 I25.846360 J28.383764
G03 X27.645901 Y83.612594 Z-0.125000 I22.969454 J26.692906
G03 X28.481006 Y82.958213 Z-0.125000 I21.171808 J26.158862
G03 X29.322576 Y82.337399 Z-0.125000 I23.724266 J31.279628
G03 X30.181294 Y81.741257 Z-0.125000 I19.765340 J27.554581
G03 X31.044793 Y81.174512 Z-0.125000 I27.141329 J40.411661
G03 X31.921314 Y80.627270 Z-0.125000 I23.076288 J35.985830
G03 X32.801424 Y80.106555 Z-0.125000 I22.543005 J37.097923
G03 X33.693681 Y79.606676 Z-0.125000 I21.616671 J37.538383
G03 X34.588973 Y79.133572 Z-0.125000 I19.030065 J34.928399
G03 X35.495894 Y78.683050 Z-0.125000 I18.690594 J36.486950
G03 X36.405420 Y78.260374 Z-0.125000 I15.911880 J33.049676
G03 X37.325986 Y77.862265 Z-0.125000 I15.561307 J34.719791
G03 X38.248749 Y77.493271 Z-0.125000 I13.106689 J31.438257
G03 X39.181718 Y77.150950 Z-0.125000 I12.560945 J32.791352
G03 X40.116474 Y76.838833 Z-0.125000 I10.699352 J30.487580
G03 X41.060214 Y76.555178 Z-0.125000 I9.904546 J31.241417
G03 X42.005332 Y76.302303 Z-0.125000 I8.626957 J30.350554
G03 X42.957810 Y76.079509 Z-0.125000 I7.370576 J29.362908
G03 X43.911290 Y75.886278 Z-0.125000 I7.542974 J34.771076
G03 X44.869880 Y75.720750 Z-0.125000 I5.893409 J31.270834
G03 X45.829118 Y75.581656 Z-0.125000 I6.420254 J40.899052
G03 X46.791524 Y75.466537 Z-0.125000 I4.825504 J36.261304
G03 X47.754306 Y75.374874 Z-0.125000 I4.693508 J44.195893
G03 X48.718925 Y75.304859 Z-0.125000 I3.505403 J41.614940
G03 X49.683727 Y75.256962 Z-0.125000 I2.606494 J42.763035
G03 X50.649378 Y75.230486 Z-0.125000 I1.693608 J44.145817
G03 X51.615050 Y75.226824 Z-0.125000 I0.627146 J38.055082
G03 X52.580542 Y75.246734 Z-0.125000 I-0.365125 J41.124872
G03 X53.545898 Y75.291319 Z-0.125000 I-1.133562 J35.017625
G03 X54.509644 Y75.364113 Z-0.125000 I-1.876282 J31.256833
G03 X55.473261 Y75.458437 Z-0.125000 I-6.502529 J71.398985
G03 X56.434971 Y75.570102 Z-0.125000 I-4.473358 J42.724031
G03 X57.396543 Y75.694506 Z-0.125000 I-34.082548 J267.216153
G03 X58.357036 Y75.825748 Z-0.125000 I-11.821977 J90.099369
G03 X59.317435 Y75.962822 Z-0.125000 I-107.289259 J755.144675
G03 X60.277357 Y76.101926 Z-0.125000 I-45.620567 J318.198391
G03 X61.237191 Y76.245151 Z-0.125000 I-25.974959 J177.361320
G03 X62.196370 Y76.391639 Z-0.125000 I-101.344555 J666.798857
G03 X63.155343 Y76.546133 Z-0.125000 I-9.876104 J64.356677
G03 X64.112545 Y76.710867 Z-0.125000 I-24.975570 J147.986033
G03 X65.069226 Y76.891876 Z-0.125000 I-6.311064 J35.974161
G03 X66.021858 Y77.093840 Z-0.125000 I-11.283814 J55.571792
G03 X66.973490 Y77.321406 Z-0.125000 I-6.129168 J27.734437
G03 X67.917971 Y77.577768 Z-0.125000 I-9.312162 J36.175507
G03 X68.860737 Y77.867873 Z-0.125000 I-6.646742 J23.277138
G03 X69.792260 Y78.193164 Z-0.125000 I-9.062576 J27.448532
G03 X70.721033 Y78.558720 Z-0.125000 I-7.867006 J21.350467
G03 X71.634058 Y78.962936 Z-0.125000 I-9.706811 J23.158546
G03 X72.543013 Y79.411283 Z-0.125000 I-9.937289 J21.291888
G03 X73.432380 Y79.898061 Z-0.125000 I-11.150978 J21.429252
G03 X74.316253 Y80.429536 Z-0.125000 I-13.114914 J22.811535
G03 X75.178378 Y80.995994 Z-0.125000 I-13.492502 J21.474328
G03 X76.033799 Y81.604579 Z-0.125000 I-17.777147 J25.892857
G03 X76.867425 Y82.242614 Z-0.125000 I-17.117512 J23.228499
G03 X77.693555 Y82.918339 Z-0.125000 I-23.505329 J29.580090
G03 X78.499047 Y83.618261 Z-0.125000 I-21.919382 J26.038957
G03 X79.296634 Y84.351201 Z-0.125000 I-29.830190 J33.261714
G03 X80.075298 Y85.103493 Z-0.125000 I-28.844394 J30.634700
G03 X80.845439 Y85.886024 Z-0.125000 I-31.326515 J31.600778
G03 X81.596494 Y86.686138 Z-0.125000 I-35.024757 J33.629729
G03 X82.337140 Y87.517839 Z-0.125000 I-27.484559 J25.221161
G03 X83.054771 Y88.369522 Z-0.125000 I-33.865696 J29.263558
G03 X83.758485 Y89.257192 Z-0.125000 I-25.110886 J20.629807
G03 X84.433343 Y90.167856 Z-0.125000 I-29.756891 J22.757068
G03 X85.090234 Y91.117750 Z-0.125000 I-26.654378 J19.134698
G03 X85.714052 Y92.090859 Z-0.125000 I-27.708799 J18.449416
G03 X86.317818 Y93.100996 Z-0.125000 I-35.852906 J22.115021
G03 X86.890448 Y94.129764 Z-0.125000 I-30.231916 J17.501354
G03 X87.445611 Y95.186428 Z-0.125000 I-72.078524 J38.543648
G03 X87.979780 Y96.253523 Z-0.125000 I-42.978977 J22.181809
G03 X88.503416 Y97.335752 Z-0.125000 I-476.950640 J231.439858
G03 X89.019015 Y98.421026 Z-0.125000 I-90.275288 J43.553675
G02 X89.531670 Y99.510299 Z-0.125000 I231.053175 J-108.077576
G03 X90.045704 Y100.598222 Z-0.125000 I-642.068328 J304.036957
G02 X90.562001 Y101.683105 Z-0.125000 I149.642535 J-70.549803
G02 X91.084826 Y102.763950 Z-0.125000 I198.746144 J-95.470238
G02 X91.611369 Y103.839737 Z-0.125000 I281.640956 J-137.182341
G02 X92.143376 Y104.911983 Z-0.125000 I153.957216 J-75.719478
G03 X92.676575 Y105.982587 Z-0.125000 I-269.409507 J134.843683
G02 X93.208699 Y107.053559 Z-0.125000 I512.944727 J-254.194471
G03 X93.737183 Y108.129471 Z-0.125000 I-95.824995 J47.736549
G03 X94.256215 Y109.210940 Z-0.125000 I-153.517241 J74.343330
G03 X94.768183 Y110.301716 Z-0.125000 I-106.426498 J50.617969
G03 X95.269502 Y111.397766 Z-0.125000 I-115.247091 J53.375227
G03 X95.763007 Y112.503597 Z-0.125000 I-123.079661 J55.590426
G03 X96.245776 Y113.614621 Z-0.125000 I-103.452006 J45.612982
G03 X96.722123 Y114.733328 Z-0.125000 I-278.766757 J119.360116
G03 X97.191266 Y115.855596 Z-0.125000 I-121.969997 J51.646411
G02 X97.658512 Y116.980085 Z-0.125000 I229.620672 J-94.752280
G03 X98.127010 Y118.104340 Z-0.125000 I-394.340960 J164.989102
G02 X98.600456 Y119.222728 Z-0.125000 I79.625243 J-33.048292
G00 Z3.000000

(End cutting path id: path238)


(Start cutting path id: path218)
(Change tool to Default tool)

G00 Z3.000000
G00 X10.198233 Y119.037956

G00 Z4.875000 (Fast pre-penetrate)
G01 Z-0.125000 F400.0(Penetrate)
G03 X10.772703 Y118.651687 Z-0.125000 I266.625405 J395.912973 F800.000000
G02 X11.921381 Y117.877511 Z-0.125000 I-212.957068 J-317.212563
G02 X12.781452 Y117.293927 Z-0.125000 I-222.033085 J-328.152345
G02 X13.641212 Y116.708393 Z-0.125000 I-716.884484 J-1053.549191
G02 X14.500275 Y116.122067 Z-0.125000 I-490.468728 J-719.540152
G02 X15.359094 Y115.534218 Z-0.125000 I-394.576660 J-577.378705
G02 X16.217090 Y114.945217 Z-0.125000 I-475.320145 J-693.316835
G02 X17.074793 Y114.354414 Z-0.125000 I-305.007609 J-443.714859
G02 X17.931467 Y113.762166 Z-0.125000 I-402.456153 J-583.060594
G02 X18.787756 Y113.167592 Z-0.125000 I-226.323503 J-326.858551
G02 X19.642674 Y112.571120 Z-0.125000 I-317.534321 J-456.029606
G02 X20.497058 Y111.971473 Z-0.125000 I-161.778595 J-231.412754
G02 X21.349309 Y111.367978 Z-0.125000 I-128.450503 J-182.300339
G03 X22.201216 Y110.762440 Z-0.125000 I545.212724 J766.135619
G02 X23.052720 Y110.155400 Z-0.125000 I-155.270622 J-218.701180
G03 X23.904837 Y109.552068 Z-0.125000 I58.642490 J81.920379
G03 X24.761106 Y108.954673 Z-0.125000 I170.380124 J243.299929
G03 X25.619211 Y108.368861 Z-0.125000 I35.311371 J50.803168
G03 X26.485401 Y107.796008 Z-0.125000 I45.880667 J68.433152
G03 X27.354026 Y107.239584 Z-0.125000 I34.014705 J52.143646
G03 X28.231424 Y106.698110 Z-0.125000 I32.220676 J51.228391
G03 X29.111012 Y106.172658 Z-0.125000 I44.875159 J74.120547
G03 X29.997400 Y105.658617 Z-0.125000 I36.910254 J62.625028
G03 X30.885477 Y105.158194 Z-0.125000 I47.295362 J82.894629
G03 X31.779148 Y104.666768 Z-0.125000 I49.247237 J88.499188
G03 X32.674411 Y104.189722 Z-0.125000 I29.741600 J54.736878
G03 X33.576643 Y103.725699 Z-0.125000 I36.627797 J70.108750
G03 X34.480669 Y103.279901 Z-0.125000 I21.719335 J42.904672
G03 X35.393066 Y102.851533 Z-0.125000 I25.056601 J52.183238
G03 X36.307347 Y102.445321 Z-0.125000 I17.185242 J37.447627
G03 X37.230657 Y102.059996 Z-0.125000 I18.627423 J43.335823
G03 X38.155769 Y101.700205 Z-0.125000 I13.463029 J33.247588
G03 X39.090029 Y101.364642 Z-0.125000 I14.158481 J37.951073
G03 X40.025900 Y101.058038 Z-0.125000 I10.061845 J29.130957
G03 X40.970670 Y100.779735 Z-0.125000 I10.305959 J33.243372
G03 X41.916779 Y100.534246 Z-0.125000 I7.126286 J25.518667
G03 X42.870923 Y100.323157 Z-0.125000 I6.439444 J26.844997
G03 X43.826100 Y100.146465 Z-0.125000 I5.640103 J27.819644
G03 X44.786790 Y100.003792 Z-0.125000 I4.363854 J26.078313
G03 X45.748139 Y99.893114 Z-0.125000 I4.312041 J33.223777
G03 X46.712399 Y99.812043 Z-0.125000 I2.968281 J29.530030
G03 X47.676976 Y99.759386 Z-0.125000 I2.501659 J36.964110
G03 X48.642620 Y99.732989 Z-0.125000 I1.414148 J34.056349
G03 X49.608329 Y99.732821 Z-0.125000 I0.489295 J37.182571
G03 X50.573712 Y99.757749 Z-0.125000 I-0.476652 J37.165740
G03 X51.538938 Y99.808873 Z-0.125000 I-1.328894 J34.226762
G03 X52.502421 Y99.886270 Z-0.125000 I-2.465104 J36.722951
G03 X53.465494 Y99.991742 Z-0.125000 I-2.857448 J30.541083
G03 X54.425016 Y100.125816 Z-0.125000 I-4.324571 J34.450060
G03 X55.383755 Y100.291510 Z-0.125000 I-4.034820 J26.202947
G03 X56.336263 Y100.490677 Z-0.125000 I-5.507819 J28.718070
G03 X57.287543 Y100.724764 Z-0.125000 I-5.845673 J25.805531
G03 X58.229752 Y100.993909 Z-0.125000 I-6.821906 J25.665622
G03 X59.170297 Y101.297975 Z-0.125000 I-9.037148 J29.560578
G03 X60.100200 Y101.633571 Z-0.125000 I-9.028101 J26.472123
G03 X61.028133 Y102.000459 Z-0.125000 I-14.211857 J37.301513
G03 X61.945614 Y102.392405 Z-0.125000 I-12.861422 J31.376244
G03 X62.860968 Y102.810808 Z-0.125000 I-19.863206 J44.665930
G03 X63.766692 Y103.248762 Z-0.125000 I-18.823220 J40.083471
G03 X64.670036 Y103.710695 Z-0.125000 I-20.658815 J41.514102
G03 X65.563336 Y104.190364 Z-0.125000 I-25.780872 J49.083978
G03 X66.453259 Y104.697626 Z-0.125000 I-15.258338 J27.802961
G03 X67.328639 Y105.229517 Z-0.125000 I-22.148862 J37.438623
G03 X68.198491 Y105.798146 Z-0.125000 I-12.970531 J20.791126
G03 X69.046695 Y106.399749 Z-0.125000 I-17.550971 J25.643949
G03 X69.886253 Y107.047197 Z-0.125000 I-13.491937 J18.363309
G03 X70.697244 Y107.731741 Z-0.125000 I-15.993658 J19.770638
G03 X71.496378 Y108.466016 Z-0.125000 I-16.908610 J19.204167
G03 X72.263933 Y109.234101 Z-0.125000 I-17.549783 J18.305231
G03 X73.017437 Y110.049167 Z-0.125000 I-22.947311 J21.969915
G03 X73.740346 Y110.891722 Z-0.125000 I-21.150110 J18.878132
G03 X74.448868 Y111.773827 Z-0.125000 I-33.998997 J28.034151
G03 X75.131311 Y112.676156 Z-0.125000 I-27.286506 J21.346390
G03 X75.801336 Y113.607752 Z-0.125000 I-60.236380 J44.030121
G03 X76.452914 Y114.551821 Z-0.125000 I-39.958050 J28.275122
G03 X77.095743 Y115.514361 Z-0.125000 I-134.542641 J90.549761
G03 X77.727891 Y116.483436 Z-0.125000 I-66.559894 J44.109148
G03 X78.355372 Y117.461737 Z-0.125000 I-1074.768384 J690.045805
G03 X78.978681 Y118.442522 Z-0.125000 I-131.460951 J84.234528
G02 X79.601291 Y119.424649 Z-0.125000 I189.512702 J-119.451335
G03 X80.226056 Y120.405255 Z-0.125000 I-1488.396592 J948.979218
G02 X80.853734 Y121.380206 Z-0.125000 I96.493482 J-61.433429
G02 X81.489000 Y122.349929 Z-0.125000 I168.894668 J-109.949973
G02 X82.129746 Y123.308619 Z-0.125000 I75.888582 J-50.027151
G02 X82.781300 Y124.259707 Z-0.125000 I93.267482 J-63.195190
G02 X83.439559 Y125.196525 Z-0.125000 I69.620389 J-48.219446
G02 X84.109903 Y126.124518 Z-0.125000 I73.876941 J-52.659546
G02 X84.787170 Y127.036768 Z-0.125000 I67.970081 J-49.754387
G02 X85.476640 Y127.939691 Z-0.125000 I66.988066 J-50.437184
G02 X86.172688 Y128.826524 Z-0.125000 I68.288424 J-52.880983
G02 X86.880431 Y129.704034 Z-0.125000 I65.480389 J-52.088086
G02 X87.594245 Y130.565573 Z-0.125000 I67.151181 J-54.910560
G02 X88.319230 Y131.417860 Z-0.125000 I65.785038 J-55.224489
G02 X89.049917 Y132.253962 Z-0.125000 I61.449602 J-52.964844
G02 X89.792163 Y133.079215 Z-0.125000 I55.894254 J-49.525743
G02 X90.539374 Y133.889397 Z-0.125000 I80.381071 J-73.383855
G00 Z3.000000

(End cutting path id: path218)


(Start cutting path id: path208)
(Change tool to Default tool)

G00 Z3.000000
G00 X10.198233 Y133.590021

G00 Z4.875000 (Fast pre-penetrate)
G01 Z-0.125000 F400.0(Penetrate)
G03 X10.836695 Y133.480510 Z-0.125000 I35.964757 J207.762332 F800.000000
G02 X12.113535 Y133.258480 Z-0.125000 I-28.316857 J-166.625925
G02 X13.070342 Y133.085845 Z-0.125000 I-33.975757 J-191.043988
G02 X14.027043 Y132.909093 Z-0.125000 I-52.166753 J-285.038878
G02 X14.983082 Y132.729121 Z-0.125000 I-52.603337 J-282.066960
G02 X15.939007 Y132.545066 Z-0.125000 I-37.107743 J-195.300816
G02 X16.894108 Y132.357099 Z-0.125000 I-56.316392 J-288.675107
G02 X17.849036 Y132.163487 Z-0.125000 I-23.351576 J-117.626223
G02 X18.802622 Y131.963553 Z-0.125000 I-38.466981 J-185.842660
G02 X19.755919 Y131.755024 Z-0.125000 I-16.573630 J-78.049965
G02 X20.707021 Y131.536855 Z-0.125000 I-26.687487 J-118.525758
G02 X21.657630 Y131.305937 Z-0.125000 I-12.644380 J-54.124549
G02 X22.604615 Y131.059873 Z-0.125000 I-16.823725 J-66.691964
G02 X23.550909 Y130.797710 Z-0.125000 I-14.199231 J-53.091897
G02 X24.492564 Y130.518335 Z-0.125000 I-14.693879 J-51.253578
G02 X25.433485 Y130.223451 Z-0.125000 I-23.776894 J-77.516266
G02 X26.370175 Y129.914451 Z-0.125000 I-16.978219 J-53.041290
G02 X27.306366 Y129.595617 Z-0.125000 I-213.310554 J-627.876692
G02 X28.240708 Y129.270760 Z-0.125000 I-28.452296 J-83.339654
G03 X29.175059 Y128.946076 Z-0.125000 I28.532006 J80.600534
G03 X30.111342 Y128.627008 Z-0.125000 I738.000757 J2164.080879
G03 X31.048190 Y128.319562 Z-0.125000 I14.285340 J41.949097
G03 X31.990228 Y128.030550 Z-0.125000 I17.894530 J56.647650
G03 X32.933090 Y127.758945 Z-0.125000 I15.706579 J52.752133
G03 X33.880593 Y127.504521 Z-0.125000 I14.268483 J51.245864
G03 X34.828786 Y127.266921 Z-0.125000 I16.136334 J62.384739
G03 X35.780651 Y127.044537 Z-0.125000 I13.669698 J56.361635
G03 X36.733040 Y126.837320 Z-0.125000 I15.601437 J69.413712
G03 X37.688328 Y126.643938 Z-0.125000 I13.114461 J62.327924
G03 X38.644009 Y126.464158 Z-0.125000 I15.122150 J77.756651
G03 X39.601947 Y126.296867 Z-0.125000 I12.585145 J69.238404
G03 X40.560185 Y126.141674 Z-0.125000 I14.792156 J88.298057
G03 X41.520148 Y125.997290 Z-0.125000 I12.808824 J81.898862
G03 X42.480338 Y125.864163 Z-0.125000 I12.236819 J84.729526
G03 X43.441989 Y125.740296 Z-0.125000 I15.941003 J119.964555
G03 X44.403817 Y125.630928 Z-0.125000 I5.510341 J44.176022
G03 X45.367540 Y125.539273 Z-0.125000 I6.563897 J63.904810
G03 X46.331413 Y125.468614 Z-0.125000 I2.985798 J34.120462
G03 X47.296799 Y125.422620 Z-0.125000 I2.489262 J42.093873
G03 X48.262233 Y125.402762 Z-0.125000 I1.119957 J30.970245
G03 X49.227859 Y125.411685 Z-0.125000 I0.168958 J33.969449
G03 X50.193372 Y125.449360 Z-0.125000 I-0.728802 J31.067564
G03 X51.157279 Y125.517033 Z-0.125000 I-1.693650 J31.022388
G03 X52.120885 Y125.613426 Z-0.125000 I-2.946271 J34.317601
G03 X53.081287 Y125.737727 Z-0.125000 I-3.677570 J32.186637
G03 X54.041194 Y125.888994 Z-0.125000 I-5.502880 J38.041456
G03 X54.996832 Y126.064314 Z-0.125000 I-6.534224 J38.309009
G03 X55.951645 Y126.266821 Z-0.125000 I-6.249019 J31.816095
G03 X56.900292 Y126.496655 Z-0.125000 I-7.944442 J34.863710
G03 X57.847702 Y126.756387 Z-0.125000 I-7.526513 J29.311785
G03 X58.786641 Y127.045512 Z-0.125000 I-9.225721 J31.629846
G03 X59.723786 Y127.367074 Z-0.125000 I-9.034757 J27.856891
G03 X60.649978 Y127.719212 Z-0.125000 I-10.635013 J29.366243
G03 X61.573666 Y128.105747 Z-0.125000 I-10.812303 J27.134654
G03 X62.483952 Y128.523167 Z-0.125000 I-12.203098 J27.813124
G03 X63.390899 Y128.976043 Z-0.125000 I-13.116147 J27.401475
G03 X64.282370 Y129.459083 Z-0.125000 I-13.963174 J26.833796
G03 X65.169701 Y129.976987 Z-0.125000 I-16.817825 J29.833254
G03 X66.040592 Y130.522636 Z-0.125000 I-16.216314 J26.850076
G03 X66.906961 Y131.099594 Z-0.125000 I-24.836225 J38.233440
G03 X67.758468 Y131.698182 Z-0.125000 I-21.259123 J31.146565
G03 X68.605639 Y132.322195 Z-0.125000 I-36.996351 J51.114042
G03 X69.440582 Y132.962192 Z-0.125000 I-29.242074 J39.013974
G03 X70.271769 Y133.621604 Z-0.125000 I-55.564577 J70.892464
G03 X71.093556 Y134.292354 Z-0.125000 I-41.546415 J51.740509
G03 X71.912310 Y134.977386 Z-0.125000 I-81.766351 J98.559475
G03 X72.724085 Y135.670349 Z-0.125000 I-60.062723 J71.182742
G03 X73.533479 Y136.373783 Z-0.125000 I-111.642212 J129.276382
G03 X74.337605 Y137.082962 Z-0.125000 I-85.504104 J97.762185
G03 X75.139805 Y137.800195 Z-0.125000 I-133.892215 J150.560869
G03 X75.937585 Y138.522487 Z-0.125000 I-100.675374 J111.998993
G03 X76.733917 Y139.250645 Z-0.125000 I-267.721501 J293.586667
G03 X77.527238 Y139.982691 Z-0.125000 I-114.568998 J124.954488
G02 X78.320183 Y140.716236 Z-0.125000 I190.525868 J-205.158754
G03 X79.114135 Y141.448560 Z-0.125000 I-786.113335 J853.065739
G02 X79.909136 Y142.176660 Z-0.125000 I91.318901 J-98.911466
G02 X80.708408 Y142.899970 Z-0.125000 I185.625383 J-204.316556
G02 X81.509881 Y143.614129 Z-0.125000 I62.563916 J-69.406303
G02 X82.318352 Y144.319987 Z-0.125000 I81.304023 J-92.307483
G02 X83.129688 Y145.013321 Z-0.125000 I55.928628 J-64.626036
G02 X83.949146 Y145.696597 Z-0.125000 I58.600559 J-69.447044
G02 X84.771518 Y146.366337 Z-0.125000 I59.252945 J-71.916733
G02 X85.601648 Y147.026011 Z-0.125000 I52.839065 J-65.640318
G02 X86.434250 Y147.673425 Z-0.125000 I76.288739 J-97.251419
G02 X87.273069 Y148.312438 Z-0.125000 I57.099537 J-74.083292
G02 X88.113640 Y148.942286 Z-0.125000 I136.427249 J-181.194963
G02 X88.958134 Y149.566886 Z-0.125000 I80.065679 J-107.369890
G02 X89.803638 Y150.185979 Z-0.125000 I353.084513 J-481.325579
G02 X90.651100 Y150.802621 Z-0.125000 I146.137265 J-199.948396
G02 X91.499043 Y151.416589 Z-0.125000 I1395.988192 J-1927.088872
G02 X92.347817 Y152.029480 Z-0.125000 I285.470022 J-394.443978
G03 X93.196716 Y152.641651 Z-0.125000 I-685.202996 J951.067053
G02 X94.045543 Y153.253915 Z-0.125000 I935.429440 J-1295.960022
G03 X94.894178 Y153.867233 Z-0.125000 I-244.789599 J339.603826
G03 X95.741750 Y154.482109 Z-0.125000 I-559.943196 J772.742385
G03 X96.588845 Y155.099645 Z-0.125000 I-173.768842 J239.254413
G03 X97.434045 Y155.720103 Z-0.125000 I-200.360280 J273.820591
G03 X98.278676 Y156.343738 Z-0.125000 I-256.210459 J347.886769
G03 X99.121639 Y156.969789 Z-0.125000 I-198.511559 J268.172034
G03 X99.964173 Y157.598187 Z-0.125000 I-677.256536 J908.919851
G03 X100.805640 Y158.228578 Z-0.125000 I-189.370081 J253.654349
G02 X101.647180 Y158.858544 Z-0.125000 I155.962568 J-207.465179
G00 Z3.000000

(End cutting path id: path208)


(Start cutting path id: path184)
(Change tool to Default tool)

G00 Z3.000000
G00 X10.198233 Y160.048321

G00 Z4.875000 (Fast pre-penetrate)
G01 Z-0.125000 F400.0(Penetrate)
G02 X10.823705 Y160.250229 Z-0.125000 I44.611962 J-137.129450 F800.000000
G03 X12.074378 Y160.658677 Z-0.125000 I-35.250710 J110.057156
G03 X13.010235 Y160.972302 Z-0.125000 I-77.968676 J234.211731
G03 X13.945492 Y161.295764 Z-0.125000 I-20.760466 J61.540618
G03 X14.876609 Y161.631950 Z-0.125000 I-28.042593 J79.125631
G03 X15.806861 Y161.981491 Z-0.125000 I-24.357973 J66.237675
G03 X16.732199 Y162.345036 Z-0.125000 I-22.594268 J58.869065
G03 X17.656743 Y162.720162 Z-0.125000 I-57.947032 J144.144475
G03 X18.577861 Y163.104468 Z-0.125000 I-28.626673 J69.909481
G02 X19.498664 Y163.493218 Z-0.125000 I82.096471 J-193.170839
G03 X20.419607 Y163.881229 Z-0.125000 I-117.719243 J280.693147
G02 X21.340838 Y164.265210 Z-0.125000 I35.529712 J-83.944246
G02 X22.264986 Y164.641161 Z-0.125000 I61.425765 J-149.670586
G02 X23.189772 Y165.008070 Z-0.125000 I33.354590 J-82.720775
G02 X24.118254 Y165.364216 Z-0.125000 I30.910740 J-79.196594
G02 X25.047322 Y165.711876 Z-0.125000 I74.409061 J-197.431585
G02 X25.978699 Y166.052013 Z-0.125000 I31.009672 J-83.466835
G03 X26.910204 Y166.390296 Z-0.125000 I-44.433663 J123.805247
G02 X27.840833 Y166.730282 Z-0.125000 I92.339744 J-251.314134
G03 X28.770749 Y167.079966 Z-0.125000 I-15.053757 J41.443789
G03 X29.695116 Y167.444357 Z-0.125000 I-39.569415 J101.732045
G03 X30.617521 Y167.832276 Z-0.125000 I-10.287227 J25.751905
G03 X31.528231 Y168.248723 Z-0.125000 I-15.880746 J35.932930
G03 X32.435548 Y168.699637 Z-0.125000 I-11.053474 J23.379778
G03 X33.326285 Y169.183787 Z-0.125000 I-13.751636 J26.361683
G03 X34.212162 Y169.707423 Z-0.125000 I-13.388375 J23.661337
G03 X35.078285 Y170.263760 Z-0.125000 I-14.857515 J24.083045
G03 X35.938116 Y170.860471 Z-0.125000 I-16.593681 J24.828523
G03 X36.776549 Y171.487018 Z-0.125000 I-17.421032 J24.186718
G03 X37.607328 Y172.152872 Z-0.125000 I-19.977694 J25.777200
G03 X38.415917 Y172.845188 Z-0.125000 I-21.073924 J25.431566
G03 X39.215262 Y173.576074 Z-0.125000 I-21.760019 J24.600763
G03 X39.990794 Y174.331889 Z-0.125000 I-24.239881 J25.648019
G03 X40.754712 Y175.127459 Z-0.125000 I-21.931689 J21.823668
G03 X41.491101 Y175.949142 Z-0.125000 I-24.432387 J22.637041
G03 X42.213115 Y176.811673 Z-0.125000 I-24.715650 J21.422605
G03 X42.905199 Y177.699222 Z-0.125000 I-25.046458 J20.244087
G03 X43.581400 Y178.624728 Z-0.125000 I-33.142717 J24.924809
G03 X44.230327 Y179.569276 Z-0.125000 I-30.733915 J21.810095
G03 X44.863302 Y180.546222 Z-0.125000 I-40.895262 J27.190081
G03 X45.471568 Y181.538428 Z-0.125000 I-37.573044 J23.716472
G03 X46.064218 Y182.558140 Z-0.125000 I-48.810932 J29.050669
G03 X46.634095 Y183.590752 Z-0.125000 I-43.434253 J24.644037
G03 X47.189463 Y184.646007 Z-0.125000 I-65.507861 J35.149746
G03 X47.725428 Y185.711362 Z-0.125000 I-51.341412 J26.496633
G03 X48.249827 Y186.793101 Z-0.125000 I-122.680415 J60.140274
G03 X48.762553 Y187.879350 Z-0.125000 I-90.471181 J43.367919
G03 X49.265908 Y188.977747 Z-0.125000 I-102.979600 J47.856259
G03 X49.757105 Y190.081690 Z-0.125000 I-95.849737 J43.309362
G03 X50.239433 Y191.196405 Z-0.125000 I-122.723037 J53.762995
G03 X50.710098 Y192.316636 Z-0.125000 I-91.876969 J39.261128
G03 X51.174496 Y193.444135 Z-0.125000 I-582.616812 J240.629097
G03 X51.633021 Y194.574510 Z-0.125000 I-128.766532 J52.890942
G02 X52.091379 Y195.705077 Z-0.125000 I134.979596 J-54.065518
G03 X52.554008 Y196.834390 Z-0.125000 I-996.786877 J408.997675
G02 X53.024934 Y197.953916 Z-0.125000 I56.527105 J-23.119207
G02 X53.512042 Y199.067546 Z-0.125000 I132.551154 J-57.315216
G02 X54.016869 Y200.158104 Z-0.125000 I32.331379 J-14.304311
G02 X54.553115 Y201.233795 Z-0.125000 I45.370987 J-21.946548
G02 X55.113846 Y202.272410 Z-0.125000 I25.412510 J-13.049097
G02 X55.714834 Y203.286942 Z-0.125000 I26.862574 J-15.227570
G02 X56.340326 Y204.256862 Z-0.125000 I25.993336 J-16.076196
G02 X57.003440 Y205.199584 Z-0.125000 I22.410347 J-15.058959
G02 X57.685772 Y206.099905 Z-0.125000 I32.107568 J-23.624848
G02 X58.396675 Y206.976915 Z-0.125000 I24.082661 J-18.794726
G02 X59.120675 Y207.819454 Z-0.125000 I41.565088 J-34.984848
G02 X59.864778 Y208.644696 Z-0.125000 I30.609623 J-26.851949
G02 X60.617879 Y209.442329 Z-0.125000 I43.249301 J-40.080306
G02 X61.387207 Y210.224767 Z-0.125000 I36.073338 J-34.699486
G02 X62.163530 Y210.982768 Z-0.125000 I40.588473 J-40.793019
G02 X62.954701 Y211.725029 Z-0.125000 I35.691692 J-37.250790
G02 X63.751597 Y212.444899 Z-0.125000 I43.559035 J-47.418794
G02 X64.561186 Y213.150448 Z-0.125000 I37.613477 J-42.342656
G02 X65.375388 Y213.835896 Z-0.125000 I45.464829 J-53.178601
G02 X66.200459 Y214.508712 Z-0.125000 I42.187807 J-50.892496
G02 X67.029518 Y215.162148 Z-0.125000 I38.569308 J-48.082854
G02 X67.869405 Y215.802405 Z-0.125000 I42.642911 J-55.067735
G02 X68.713293 Y216.420685 Z-0.125000 I27.428558 J-36.552137
G02 X69.570116 Y217.021028 Z-0.125000 I31.405799 J-43.911476
G02 X70.431122 Y217.595002 Z-0.125000 I21.686078 J-31.598007
G02 X71.306548 Y218.145933 Z-0.125000 I22.010296 J-34.003235
G02 X72.185849 Y218.668479 Z-0.125000 I20.947369 J-34.247616
G02 X73.078394 Y219.166750 Z-0.125000 I17.868816 J-30.959574
G02 X73.973915 Y219.639787 Z-0.125000 I27.048994 J-50.123084
G02 X74.878994 Y220.093185 Z-0.125000 I18.339958 J-35.480356
G02 X75.785866 Y220.529344 Z-0.125000 I63.784333 J-131.461223
G02 X76.697670 Y220.954660 Z-0.125000 I25.783790 J-54.085888
G03 X77.610126 Y221.373236 Z-0.125000 I-102.308652 J224.226882
G02 X78.522965 Y221.791640 Z-0.125000 I89.553357 J-194.175163
G03 X79.435569 Y222.212594 Z-0.125000 I-43.833714 J96.228663
G03 X80.345496 Y222.640692 Z-0.125000 I-75.571311 J161.808844
G03 X81.254805 Y223.075455 Z-0.125000 I-62.927873 J132.782200
G03 X82.161075 Y223.517889 Z-0.125000 I-46.332682 J96.056185
G02 X83.066984 Y223.964200 Z-0.125000 I199.607606 J-404.014726
G03 X83.972505 Y224.412036 Z-0.125000 I-84.357560 J171.709861
G02 X84.878409 Y224.855654 Z-0.125000 I34.284515 J-68.864923
G00 Z3.000000

(End cutting path id: path184)


(Start cutting path id: path136)
(Change tool to Default tool)

G00 Z3.000000
G00 X10.198233 Y213.626379

G00 Z4.875000 (Fast pre-penetrate)
G01 Z-0.125000 F400.0(Penetrate)
G03 X10.772382 Y214.015942 Z-0.125000 I-42.388132 J63.090704 F800.000000
G02 X11.922209 Y214.784646 Z-0.125000 I34.229399 J-49.955969
G02 X12.793195 Y215.344071 Z-0.125000 I40.725942 J-62.449723
G02 X13.666392 Y215.888103 Z-0.125000 I40.385291 J-63.847587
G02 X14.547135 Y216.418733 Z-0.125000 I33.056775 J-53.871564
G02 X15.429560 Y216.936833 Z-0.125000 I81.325485 J-137.502494
G02 X16.316643 Y217.446070 Z-0.125000 I39.162903 J-67.193952
G03 X17.204390 Y217.950167 Z-0.125000 I-133.184486 J235.579921
G02 X18.092422 Y218.453439 Z-0.125000 I92.695482 J-162.527741
G03 X18.979812 Y218.961666 Z-0.125000 I-34.592955 J61.429922
G03 X19.862346 Y219.478724 Z-0.125000 I-99.022281 J170.026606
G03 X20.742804 Y220.010917 Z-0.125000 I-23.500292 J39.873192
G03 X21.613633 Y220.559356 Z-0.125000 I-37.458868 J60.443968
G03 X22.480855 Y221.131360 Z-0.125000 I-20.275482 J31.683285
G03 X23.334002 Y221.724918 Z-0.125000 I-26.647191 J39.211080
G03 X24.181916 Y222.348085 Z-0.125000 I-20.376308 J28.613557
G03 X25.012013 Y222.995947 Z-0.125000 I-22.809595 J30.081360
G03 X25.835656 Y223.675199 Z-0.125000 I-25.803967 J32.128211
G03 X26.640876 Y224.377052 Z-0.125000 I-24.051777 J28.406894
G03 X27.439605 Y225.106336 Z-0.125000 I-41.439319 J46.187319
G03 X28.223127 Y225.852404 Z-0.125000 I-30.126457 J32.423300
G03 X29.001766 Y226.617028 Z-0.125000 I-119.943448 J122.920704
G03 X29.771813 Y227.390516 Z-0.125000 I-47.149146 J47.709453
G02 X30.540080 Y228.170405 Z-0.125000 I136.823884 J-134.016468
G03 X31.308533 Y228.950081 Z-0.125000 I-149.417157 J148.034984
G02 X32.078896 Y229.722902 Z-0.125000 I47.171756 J-46.251379
G02 X32.857938 Y230.487244 Z-0.125000 I134.197527 J-135.999383
G02 X33.642226 Y231.231451 Z-0.125000 I27.284902 J-27.969024
G02 X34.443348 Y231.957385 Z-0.125000 I40.092626 J-43.440105
G02 X35.251825 Y232.651325 Z-0.125000 I19.952850 J-22.428215
G02 X36.082182 Y233.318484 Z-0.125000 I23.082560 J-27.878612
G02 X36.920243 Y233.945535 Z-0.125000 I16.272914 J-20.875366
G02 X37.781478 Y234.539465 Z-0.125000 I16.175642 J-22.534311
G02 X38.649364 Y235.090153 Z-0.125000 I14.583646 J-22.024625
G02 X39.538178 Y235.605258 Z-0.125000 I12.877560 J-21.195844
G02 X40.431958 Y236.079093 Z-0.125000 I14.336058 J-25.961801
G02 X41.342273 Y236.519379 Z-0.125000 I11.504577 J-22.625140
G02 X42.255937 Y236.924057 Z-0.125000 I15.308704 J-33.329530
G02 X43.181423 Y237.300865 Z-0.125000 I11.759328 J-27.557404
G02 X44.109066 Y237.648187 Z-0.125000 I15.282259 J-39.404103
G02 X45.045372 Y237.970957 Z-0.125000 I11.545275 J-31.971541
G02 X45.983086 Y238.269975 Z-0.125000 I17.621135 J-53.639747
G02 X46.926652 Y238.549674 Z-0.125000 I12.328969 J-39.860493
G02 X47.871092 Y238.811788 Z-0.125000 I23.622965 J-83.284736
G02 X48.819161 Y239.060493 Z-0.125000 I15.086597 J-55.579096
G02 X49.767737 Y239.297298 Z-0.125000 I35.348094 J-139.576497
G02 X50.718452 Y239.525618 Z-0.125000 I21.029099 J-85.470611
G02 X51.669457 Y239.746330 Z-0.125000 I53.186503 J-227.011621
G02 X52.621725 Y239.961919 Z-0.125000 I33.008032 J-143.587336
G02 X53.574171 Y240.172322 Z-0.125000 I55.482328 J-248.895055
G02 X54.527518 Y240.379918 Z-0.125000 I94.829466 J-433.193488
G02 X55.481063 Y240.580711 Z-0.125000 I17.890536 J-82.595846
G02 X56.436431 Y240.772881 Z-0.125000 I29.775618 J-145.557786
G02 X57.392091 Y240.953326 Z-0.125000 I10.969486 J-55.474955
G02 X58.350312 Y241.118961 Z-0.125000 I12.567069 J-69.847560
G02 X59.308867 Y241.269420 Z-0.125000 I9.206240 J-55.523022
G02 X60.269774 Y241.402922 Z-0.125000 I7.876830 J-53.170360
G02 X61.230962 Y241.522026 Z-0.125000 I10.855972 J-83.671431
G02 X62.193623 Y241.627430 Z-0.125000 I6.688253 J-56.635403
G02 X63.156452 Y241.723791 Z-0.125000 I59.391953 J-588.576154
G02 X64.119790 Y241.814220 Z-0.125000 I8.956567 J-90.237779
G03 X65.083129 Y241.904375 Z-0.125000 I-8.440767 J95.385672
G02 X66.046072 Y241.998375 Z-0.125000 I45.203365 J-458.083793
G03 X67.008749 Y242.103947 Z-0.125000 I-3.588503 J37.164480
G03 X67.969304 Y242.228956 Z-0.125000 I-8.174587 J66.565477
G03 X68.929285 Y242.376713 Z-0.125000 I-4.113596 J29.918445
G03 X69.884771 Y242.553204 Z-0.125000 I-5.889954 J34.561714
G03 X70.839484 Y242.756782 Z-0.125000 I-7.019818 J35.261134
G03 X71.788144 Y242.988646 Z-0.125000 I-6.747148 J29.662170
G03 X72.736079 Y243.242633 Z-0.125000 I-20.613661 J78.830748
G03 X73.679385 Y243.514488 Z-0.125000 I-10.162288 J37.034506
G02 X74.622386 Y243.794807 Z-0.125000 I32.120123 J-106.326670
G03 X75.565457 Y244.075235 Z-0.125000 I-30.579511 J104.563959
G02 X76.508863 Y244.345973 Z-0.125000 I10.088007 J-33.373313
G02 X77.457381 Y244.596953 Z-0.125000 I19.148564 J-70.449503
G02 X78.406667 Y244.823397 Z-0.125000 I6.838803 J-26.566235
G02 X79.362480 Y245.020077 Z-0.125000 I7.795926 J-35.465341
G02 X80.319049 Y245.183526 Z-0.125000 I4.510260 J-23.514961
G02 X81.281108 Y245.310155 Z-0.125000 I3.978852 J-26.511272
G02 X82.243681 Y245.399262 Z-0.125000 I2.658241 J-23.471938
G02 X83.209025 Y245.448853 Z-0.125000 I1.690940 J-23.495439
G02 X84.174579 Y245.461008 Z-0.125000 I0.816293 J-26.488086
G02 X85.139824 Y245.435884 Z-0.125000 I-0.133368 J-23.678585
G02 X86.105016 Y245.377521 Z-0.125000 I-1.604478 J-34.544876
G02 X87.067834 Y245.289061 Z-0.125000 I-2.083951 J-27.966204
G02 X88.030381 Y245.173697 Z-0.125000 I-5.051147 J-46.217692
G02 X88.989873 Y245.036886 Z-0.125000 I-5.257219 J-40.303181
G02 X89.948836 Y244.876126 Z-0.125000 I-5.930377 J-38.316364
G02 X90.903503 Y244.691024 Z-0.125000 I-6.707672 J-37.149462
G02 X91.857500 Y244.482675 Z-0.125000 I-9.327556 J-44.997633
G02 X92.806534 Y244.252095 Z-0.125000 I-8.602303 J-37.474160
G02 X93.754904 Y244.002430 Z-0.125000 I-19.121326 J-74.559899
G02 X94.699103 Y243.736979 Z-0.125000 I-12.439894 J-46.060059
G02 X95.642863 Y243.460326 Z-0.125000 I-171.136607 J-585.555835
G02 X96.584802 Y243.177301 Z-0.125000 I-23.381778 J-79.526036
G03 X97.526707 Y242.893470 Z-0.125000 I28.085838 J91.499438
G02 X98.469981 Y242.614293 Z-0.125000 I-668.027633 J-2258.838172
G03 X99.413652 Y242.345154 Z-0.125000 I13.751535 J46.427509
G03 X100.361374 Y242.091382 Z-0.125000 I21.403183 J78.034628
G03 X101.309746 Y241.855861 Z-0.125000 I10.164922 J38.903816
G03 X102.262988 Y241.641530 Z-0.125000 I11.085921 J47.078075
G03 X103.216892 Y241.449567 Z-0.125000 I8.168829 J38.126494
G03 X104.175117 Y241.281424 Z-0.125000 I7.256476 J38.539139
G03 X105.133889 Y241.135822 Z-0.125000 I7.353640 J45.193406
G03 X106.095618 Y241.012446 Z-0.125000 I5.402658 J38.304172
G03 X107.057722 Y240.907839 Z-0.125000 I8.225127 J71.172381
G03 X108.021372 Y240.819700 Z-0.125000 I4.744268 J46.558734
G03 X108.985215 Y240.743376 Z-0.125000 I21.121393 J260.604668
G03 X109.949607 Y240.674668 Z-0.125000 I6.166178 J79.746680
G02 X110.914054 Y240.609656 Z-0.125000 I-14.117953 J-216.623642
G03 X111.878463 Y240.543495 Z-0.125000 I32.221807 J462.623334
G02 X112.842843 Y240.474703 Z-0.125000 I-8.668702 J-128.318974
G00 Z3.000000

(End cutting path id: path136)


(Start cutting path id: path138)
(Change tool to Default tool)

G00 Z3.000000
G00 X10.198233 Y210.980549

G00 Z4.875000 (Fast pre-penetrate)
G01 Z-0.125000 F400.0(Penetrate)
G03 X10.772520 Y211.369536 Z-0.125000 I-46.782792 J69.686830 F800.000000
G02 X11.922484 Y212.138091 Z-0.125000 I37.757908 J-55.251328
G02 X12.792695 Y212.699570 Z-0.125000 I48.758210 J-74.612986
G02 X13.665053 Y213.246051 Z-0.125000 I36.554480 J-57.383135
G02 X14.545344 Y213.778371 Z-0.125000 I32.918951 J-53.443654
G02 X15.427469 Y214.297012 Z-0.125000 I62.597762 J-105.459319
G02 X16.315052 Y214.805165 Z-0.125000 I34.892823 J-59.917447
G03 X17.203491 Y215.306647 Z-0.125000 I-194.959539 J346.433294
G02 X18.092881 Y215.805963 Z-0.125000 I70.022811 J-123.684244
G03 X18.981761 Y216.309255 Z-0.125000 I-34.370180 J61.738754
G03 X19.866051 Y216.821126 Z-0.125000 I-111.408600 J193.485133
G03 X20.748347 Y217.347762 Z-0.125000 I-23.237416 J39.933071
G03 X21.621153 Y217.890772 Z-0.125000 I-36.785977 J60.100812
G03 X22.490503 Y218.456868 Z-0.125000 I-20.747102 J32.811783
G03 X23.346224 Y219.044280 Z-0.125000 I-26.240760 J39.143590
G03 X24.197133 Y219.659718 Z-0.125000 I-22.224671 J31.623972
G03 X25.031767 Y220.297973 Z-0.125000 I-23.961673 J32.199030
G03 X25.860717 Y220.964887 Z-0.125000 I-28.443132 J36.202459
G03 X26.673505 Y221.651690 Z-0.125000 I-27.001161 J32.778530
G03 X27.480415 Y222.364298 Z-0.125000 I-37.877667 J43.703242
G03 X28.272537 Y223.093842 Z-0.125000 I-31.134084 J34.599490
G03 X29.059593 Y223.843362 Z-0.125000 I-72.946590 J77.387743
G03 X29.836285 Y224.603889 Z-0.125000 I-42.833985 J44.521337
G03 X30.610018 Y225.375292 Z-0.125000 I-1825.775480 J1832.060905
G03 X31.380152 Y226.149997 Z-0.125000 I-90.660121 J90.895399
G02 X32.149989 Y226.925759 Z-0.125000 I115.148776 J-113.499493
G03 X32.921959 Y227.699951 Z-0.125000 I-392.822018 J392.466143
G02 X33.696536 Y228.464609 Z-0.125000 I43.504412 J-43.294178
G02 X34.480978 Y229.219564 Z-0.125000 I98.704633 J-101.774686
G02 X35.270967 Y229.952600 Z-0.125000 I25.869528 J-27.087299
G02 X36.078533 Y230.665855 Z-0.125000 I35.463495 J-39.338896
G02 X36.893351 Y231.346492 Z-0.125000 I19.986209 J-23.098232
G02 X37.729593 Y231.999809 Z-0.125000 I21.728654 J-26.950720
G02 X38.572979 Y232.614797 Z-0.125000 I17.666940 J-23.342393
G02 X39.437414 Y233.199016 Z-0.125000 I16.753322 J-23.857256
G02 X40.307752 Y233.744190 Z-0.125000 I16.630290 J-25.581957
G02 X41.196429 Y234.257959 Z-0.125000 I14.259678 J-23.639843
G02 X42.089457 Y234.735953 Z-0.125000 I17.348751 J-31.339091
G02 X42.996641 Y235.186605 Z-0.125000 I14.313152 J-27.674666
G02 X43.906856 Y235.605632 Z-0.125000 I16.138452 J-33.857985
G02 X44.828549 Y235.998315 Z-0.125000 I13.274868 J-29.880335
G02 X45.752394 Y236.363287 Z-0.125000 I16.760330 J-41.073308
G02 X46.684883 Y236.704984 Z-0.125000 I12.843777 J-33.607316
G02 X47.618821 Y237.024239 Z-0.125000 I20.284525 J-57.814033
G02 X48.558615 Y237.325584 Z-0.125000 I14.122054 J-42.425838
G02 X49.499305 Y237.610505 Z-0.125000 I28.105483 J-91.097291
G02 X50.443648 Y237.883151 Z-0.125000 I17.783886 J-59.824892
G02 X51.388514 Y238.144835 Z-0.125000 I43.859260 J-156.526432
G02 X52.335531 Y238.398912 Z-0.125000 I25.648687 J-93.708099
G02 X53.282841 Y238.646101 Z-0.125000 I68.145673 J-259.217921
G02 X54.231392 Y238.889507 Z-0.125000 I55.112842 J-212.804159
G02 X55.180177 Y239.126830 Z-0.125000 I31.239511 J-122.876189
G02 X56.130563 Y239.358285 Z-0.125000 I49.593777 J-201.571337
G02 X57.081253 Y239.580651 Z-0.125000 I16.911844 J-70.160760
G02 X58.034429 Y239.791865 Z-0.125000 I21.862210 J-96.404328
G02 X58.987986 Y239.990349 Z-0.125000 I13.028330 J-60.200733
G02 X59.944318 Y240.174150 Z-0.125000 I12.841460 J-64.235333
G02 X60.901022 Y240.344274 Z-0.125000 I13.641533 J-73.939101
G02 X61.859927 Y240.500434 Z-0.125000 I10.134919 J-59.211757
G02 X62.819098 Y240.646100 Z-0.125000 I28.137895 J-182.049431
G02 X63.779400 Y240.783323 Z-0.125000 I11.644187 J-78.058208
G03 X64.739793 Y240.916911 Z-0.125000 I-27.117366 J198.472209
G02 X65.700148 Y241.049936 Z-0.125000 I22.690126 J-160.275552
G03 X66.660311 Y241.189889 Z-0.125000 I-6.451204 J47.622610
G03 X67.618521 Y241.343640 Z-0.125000 I-17.569578 J112.560626
G03 X68.576167 Y241.515723 Z-0.125000 I-5.480284 J33.248523
G03 X69.529440 Y241.712450 Z-0.125000 I-8.244189 J42.356531
G03 X70.481882 Y241.933709 Z-0.125000 I-7.738634 J35.472755
G03 X71.428179 Y242.181706 Z-0.125000 I-8.030780 J32.572884
G03 X72.373624 Y242.451971 Z-0.125000 I-17.432995 J62.773167
G03 X73.313703 Y242.741737 Z-0.125000 I-10.663685 J36.265780
G02 X74.253322 Y243.042669 Z-0.125000 I73.559323 J-228.061448
G03 X75.191847 Y243.347807 Z-0.125000 I-23.162412 J72.837305
G02 X76.130623 Y243.646707 Z-0.125000 I12.369820 J-37.227176
G02 X77.074124 Y243.929290 Z-0.125000 I30.642352 J-100.593369
G02 X78.018455 Y244.189583 Z-0.125000 I7.967714 J-27.063360
G02 X78.969975 Y244.421696 Z-0.125000 I9.883473 J-38.449878
G02 X79.922431 Y244.621372 Z-0.125000 I5.398813 J-23.380869
G02 X80.881666 Y244.784851 Z-0.125000 I5.131877 J-27.215980
G02 X81.841616 Y244.910485 Z-0.125000 I3.456407 J-22.679769
G02 X82.805872 Y244.995904 Z-0.125000 I2.546801 J-23.264323
G02 X83.770513 Y245.042617 Z-0.125000 I1.693337 J-24.984422
G02 X84.736172 Y245.050316 Z-0.125000 I0.664918 J-22.837216
G02 X85.701913 Y245.022853 Z-0.125000 I-0.416562 J-31.642940
G02 X86.666091 Y244.962624 Z-0.125000 I-1.128207 J-25.808744
G02 X87.630117 Y244.873887 Z-0.125000 I-3.662334 J-45.068038
G02 X88.591585 Y244.762643 Z-0.125000 I-3.901600 J-37.931527
G02 X89.552617 Y244.626788 Z-0.125000 I-4.931126 J-38.349573
G02 X90.509922 Y244.466557 Z-0.125000 I-5.752804 J-37.310089
G02 X91.466632 Y244.282338 Z-0.125000 I-7.509767 J-41.577089
G02 X92.418642 Y244.074523 Z-0.125000 I-7.418364 J-36.268462
G02 X93.370018 Y243.845975 Z-0.125000 I-14.399595 J-62.035303
G02 X94.317017 Y243.599440 Z-0.125000 I-10.498159 J-42.268151
G02 X95.263530 Y243.339298 Z-0.125000 I-55.916993 J-205.302748
G02 X96.207586 Y243.070097 Z-0.125000 I-18.090199 J-65.229983
G03 X97.151499 Y242.797265 Z-0.125000 I37.753914 J128.847897
G02 X98.095932 Y242.526181 Z-0.125000 I-74.739687 J-262.166283
G03 X99.040643 Y242.262504 Z-0.125000 I14.896070 J51.545941
G03 X99.988738 Y242.011977 Z-0.125000 I27.115136 J100.695630
G03 X100.937401 Y241.777793 Z-0.125000 I10.553587 J40.713201
G03 X101.890587 Y241.563394 Z-0.125000 I12.179613 J51.922794
G03 X102.844399 Y241.370263 Z-0.125000 I8.324420 J38.659840
G03 X103.802437 Y241.200219 Z-0.125000 I7.672143 J40.441410
G03 X104.761012 Y241.052417 Z-0.125000 I7.284610 J44.062257
G03 X105.722617 Y240.926973 Z-0.125000 I5.536515 J38.692426
G03 X106.684599 Y240.820764 Z-0.125000 I7.702537 J65.355614
G03 X107.648229 Y240.731909 Z-0.125000 I4.651667 J45.177110
G03 X108.612073 Y240.655887 Z-0.125000 I15.188172 J186.415524
G03 X109.576543 Y240.588896 Z-0.125000 I5.423198 J71.101881
G02 X110.541082 Y240.526614 Z-0.125000 I-15.788257 J-252.007342
G03 X111.505636 Y240.464008 Z-0.125000 I20.292399 J305.177065
G02 X112.470164 Y240.399352 Z-0.125000 I-8.260998 J-130.463826
G02 X113.434377 Y240.329580 Z-0.125000 I-21.300024 J-301.051154
G02 X114.398514 Y240.253699 Z-0.125000 I-7.584126 J-102.526794
G02 X115.362022 Y240.169631 Z-0.125000 I-10.617239 J-127.247585
G02 X116.325430 Y240.077672 Z-0.125000 I-10.102965 J-110.936589
G00 Z3.000000

(End cutting path id: path138)


(Start cutting path id: path140)
(Change tool to Default tool)

G00 Z3.000000
G00 X10.198233 Y205.027431

G00 Z4.875000 (Fast pre-penetrate)
G01 Z-0.125000 F400.0(Penetrate)
G03 X10.789190 Y205.367549 Z-0.125000 I-239.953731 J417.605220 F800.000000
G02 X11.971296 Y206.046224 Z-0.125000 I192.311272 J-333.596032
G03 X12.858826 Y206.554542 Z-0.125000 I-350.805083 J613.538933
G02 X13.747089 Y207.056568 Z-0.125000 I39.468954 J-68.797797
G02 X14.640208 Y207.548492 Z-0.125000 I54.652530 J-98.168512
G02 X15.534517 Y208.029948 Z-0.125000 I48.072591 J-88.223860
G02 X16.433759 Y208.500291 Z-0.125000 I34.583771 J-65.025468
G03 X17.333729 Y208.964132 Z-0.125000 I-267.196243 J519.533323
G02 X18.234803 Y209.424975 Z-0.125000 I58.052829 J-112.397901
G03 X19.135429 Y209.889794 Z-0.125000 I-29.751784 J58.751459
G03 X20.031503 Y210.364371 Z-0.125000 I-80.955734 J153.940187
G03 X20.925902 Y210.853221 Z-0.125000 I-23.447099 J43.961441
G03 X21.811954 Y211.357866 Z-0.125000 I-34.165515 J61.017751
G03 X22.695344 Y211.883089 Z-0.125000 I-22.611366 J39.036314
G03 X23.567752 Y212.426691 Z-0.125000 I-28.346393 J46.463926
G03 X24.436506 Y212.994954 Z-0.125000 I-22.148372 J34.808425
G03 X25.291683 Y213.583938 Z-0.125000 I-25.681680 J38.203938
G03 X26.142197 Y214.200156 Z-0.125000 I-24.031492 J34.063697
G03 X26.977322 Y214.837691 Z-0.125000 I-25.221993 J33.904720
G03 X27.807092 Y215.502367 Z-0.125000 I-30.023123 J38.330593
G03 X28.621472 Y216.186472 Z-0.125000 I-27.205442 J33.213026
G03 X29.430668 Y216.893804 Z-0.125000 I-48.275625 J56.044394
G03 X30.227456 Y217.615459 Z-0.125000 I-34.418190 J38.802232
G03 X31.020440 Y218.352656 Z-0.125000 I-139.465236 J150.814141
G03 X31.806858 Y219.096073 Z-0.125000 I-64.765575 J69.299465
G03 X32.591174 Y219.847542 Z-0.125000 I-370.796112 J387.788603
G03 X33.372235 Y220.602214 Z-0.125000 I-117.890564 J122.794419
G02 X34.152546 Y221.359677 Z-0.125000 I437.703948 J-450.126802
G03 X34.932614 Y222.117432 Z-0.125000 I-312.303833 J322.280223
G02 X35.713273 Y222.872985 Z-0.125000 I124.467828 J-127.822622
G02 X36.496687 Y223.626488 Z-0.125000 I5132.916687 J-5335.890156
G02 X37.282534 Y224.370605 Z-0.125000 I48.488477 J-50.420690
G02 X38.077065 Y225.105827 Z-0.125000 I98.579412 J-105.734669
G02 X38.876212 Y225.821898 Z-0.125000 I29.557868 J-32.183125
G02 X39.690154 Y226.520724 Z-0.125000 I39.672437 J-45.384191
G02 X40.510049 Y227.191925 Z-0.125000 I23.483204 J-27.849172
G02 X41.347791 Y227.839728 Z-0.125000 I24.891907 J-31.324737
G02 X42.191374 Y228.456245 Z-0.125000 I22.636441 J-30.088115
G02 X43.051738 Y229.048924 Z-0.125000 I21.558318 J-30.374381
G02 X43.917037 Y229.610060 Z-0.125000 I20.644071 J-30.886443
G02 X44.797792 Y230.146107 Z-0.125000 I18.677339 J-29.696339
G02 X45.682494 Y230.651956 Z-0.125000 I20.462803 J-34.761690
G02 X46.580273 Y231.133767 Z-0.125000 I17.382172 J-31.311592
G02 X47.480999 Y231.588543 Z-0.125000 I21.568595 J-41.599289
G02 X48.392079 Y232.021935 Z-0.125000 I17.417475 J-35.440780
G02 X49.305270 Y232.432398 Z-0.125000 I23.741893 J-51.599440
G02 X50.226338 Y232.824390 Z-0.125000 I17.887287 J-40.751858
G02 X51.148839 Y233.198472 Z-0.125000 I32.307710 J-78.347666
G02 X52.076623 Y233.558969 Z-0.125000 I21.006359 J-52.688269
G02 X53.005259 Y233.907536 Z-0.125000 I63.858026 J-168.716627
G02 X53.936812 Y234.248047 Z-0.125000 I29.380278 J-78.932634
G03 X54.868728 Y234.583093 Z-0.125000 I-288.461038 J803.804496
G02 X55.801284 Y234.916966 Z-0.125000 I87.801266 J-243.772446
G03 X56.733858 Y235.250496 Z-0.125000 I-105.207957 J295.640793
G03 X57.665884 Y235.586615 Z-0.125000 I-156.403944 J435.152710
G02 X58.597867 Y235.923431 Z-0.125000 I425.945417 J-1177.150471
G03 X59.529821 Y236.260977 Z-0.125000 I-153.397127 J424.980512
G02 X60.461917 Y236.596141 Z-0.125000 I49.667228 J-136.661473
G02 X61.395552 Y236.926939 Z-0.125000 I131.063418 J-368.426711
G02 X62.329572 Y237.250947 Z-0.125000 I30.819038 J-87.333977
G02 X63.266415 Y237.566003 Z-0.125000 I38.375414 J-112.561799
G02 X64.203761 Y237.871841 Z-0.125000 I31.878780 J-96.114149
G02 X65.144014 Y238.167173 Z-0.125000 I24.361032 J-75.914080
G02 X66.084621 Y238.455953 Z-0.125000 I514.867014 J-1675.337545
G02 X67.026286 Y238.740418 Z-0.125000 I34.117174 J-111.237479
G03 X67.967867 Y239.026317 Z-0.125000 I-24.839147 J83.498643
G03 X68.907595 Y239.318963 Z-0.125000 I-100.077300 J323.017569
G03 X69.846761 Y239.621529 Z-0.125000 I-17.729397 J56.641128
G03 X70.781782 Y239.938067 Z-0.125000 I-24.073632 J72.650145
G03 X71.715995 Y240.268307 Z-0.125000 I-23.428088 J67.762069
G03 X72.645486 Y240.613256 Z-0.125000 I-19.445828 J53.823008
G03 X73.574365 Y240.968277 Z-0.125000 I-168.929025 J443.379391
G03 X74.500991 Y241.330653 Z-0.125000 I-26.709603 J69.664620
G02 X75.427716 Y241.691401 Z-0.125000 I22.382351 J-56.127309
G02 X76.357737 Y242.043738 Z-0.125000 I206.574995 J-543.867619
G02 X77.288679 Y242.379066 Z-0.125000 I11.246495 J-29.762784
G02 X78.227554 Y242.690781 Z-0.125000 I16.663581 J-48.620220
G02 X79.167764 Y242.973224 Z-0.125000 I7.859921 J-24.458401
G02 X80.117081 Y243.223097 Z-0.125000 I8.614051 J-30.798218
G02 X81.067618 Y243.436001 Z-0.125000 I5.384302 J-21.810580
G02 X82.026042 Y243.609081 Z-0.125000 I4.805388 J-23.869418
G02 X82.985342 Y243.741784 Z-0.125000 I3.608847 J-22.554331
G02 X83.949319 Y243.832846 Z-0.125000 I2.544096 J-21.784010
G02 X84.913787 Y243.885183 Z-0.125000 I1.944340 J-26.917313
G02 X85.879430 Y243.899897 Z-0.125000 I0.832031 J-22.910811
G02 X86.845240 Y243.882035 Z-0.125000 I-0.222271 J-38.137702
G02 X87.810036 Y243.836791 Z-0.125000 I-0.958083 J-30.740305
G02 X88.774682 Y243.764798 Z-0.125000 I-2.534610 J-40.460179
G02 X89.737167 Y243.669076 Z-0.125000 I-3.285234 J-37.919746
G02 X90.699256 Y243.548128 Z-0.125000 I-4.091771 J-36.435379
G02 X91.657812 Y243.401085 Z-0.125000 I-4.795444 J-34.458752
G02 X92.615867 Y243.230232 Z-0.125000 I-7.793224 J-46.471823
G02 X93.569765 Y243.036998 Z-0.125000 I-6.919420 J-36.608881
G02 X94.523185 Y242.825372 Z-0.125000 I-18.780012 J-86.861259
G02 X95.473294 Y242.599027 Z-0.125000 I-10.893000 J-47.831912
G03 X96.423118 Y242.363180 Z-0.125000 I267.112328 J1073.707379
G02 X97.371891 Y242.122945 Z-0.125000 I-23.275027 J-93.914737
G03 X98.320705 Y241.884219 Z-0.125000 I18.659450 J72.156917
G03 X99.271296 Y241.653172 Z-0.125000 I77.755976 J317.838477
G03 X100.222236 Y241.433774 Z-0.125000 I11.241370 J46.553211
G03 X101.176644 Y241.230720 Z-0.125000 I15.133914 J68.788772
G03 X102.131536 Y241.045800 Z-0.125000 I8.577175 J41.733114
G03 X103.090075 Y240.881559 Z-0.125000 I8.552779 J47.036285
G03 X104.049070 Y240.737918 Z-0.125000 I7.099661 J44.126568
G03 X105.010914 Y240.615857 Z-0.125000 I5.741437 J41.392024
G03 X105.973104 Y240.512940 Z-0.125000 I6.856353 J59.552194
G03 X106.936951 Y240.428147 Z-0.125000 I4.429347 J44.827761
G03 X107.901012 Y240.357323 Z-0.125000 I10.113470 J131.069623
G03 X108.865755 Y240.297447 Z-0.125000 I4.385570 J62.859317
G02 X109.830581 Y240.243809 Z-0.125000 I-21.486204 J-395.195355
G03 X110.795498 Y240.191511 Z-0.125000 I10.502281 J184.842585
G02 X111.760399 Y240.138045 Z-0.125000 I-6.520225 J-126.403494
G02 X112.725054 Y240.079654 Z-0.125000 I-22.248696 J-375.561262
G02 X113.689646 Y240.015191 Z-0.125000 I-5.977679 J-96.695883
G02 X114.653679 Y239.942324 Z-0.125000 I-9.305718 J-129.528381
G02 X115.617615 Y239.860929 Z-0.125000 I-7.535153 J-94.984494
G02 X116.580728 Y239.769723 Z-0.125000 I-8.459140 J-94.457417
G02 X117.543731 Y239.670037 Z-0.125000 I-13.249256 J-132.694598
G02 X118.505891 Y239.561988 Z-0.125000 I-10.210705 J-95.262340
G02 X119.467975 Y239.448229 Z-0.125000 I-69.563199 J-592.438652
G02 X120.429611 Y239.330436 Z-0.125000 I-16.972822 J-142.545680
G03 X121.391242 Y239.211922 Z-0.125000 I22.954993 J182.298833
G03 X122.353151 Y239.096721 Z-0.125000 I73.222759 J607.321886
G03 X123.315104 Y238.984394 Z-0.125000 I26.472525 J222.532571
G03 X124.277469 Y238.876005 Z-0.125000 I28.560660 J249.256759
G03 X125.239882 Y238.770937 Z-0.125000 I35.863011 J324.041237
G03 X126.202624 Y238.668859 Z-0.125000 I32.011610 J297.325650
G03 X127.165411 Y238.569846 Z-0.125000 I32.745657 J313.681782
G03 X128.128498 Y238.473679 Z-0.125000 I34.256650 J338.203589
G03 X129.091628 Y238.380793 Z-0.125000 I24.253208 J246.439636
G03 X130.055091 Y238.291265 Z-0.125000 I29.657971 J313.938620
G03 X131.018599 Y238.205832 Z-0.125000 I16.390393 J179.373859
G03 X131.982508 Y238.124974 Z-0.125000 I20.083996 J233.634961
G03 X132.946473 Y238.049421 Z-0.125000 I11.559223 J141.295031
G03 X133.910884 Y237.980038 Z-0.125000 I12.094164 J161.369539
G03 X134.875352 Y237.916786 Z-0.125000 I9.942623 J144.219401
G03 X135.840209 Y237.859981 Z-0.125000 I8.976436 J144.244898
G03 X136.805117 Y237.809307 Z-0.125000 I8.943537 J161.087810
G03 X137.770315 Y237.764876 Z-0.125000 I6.870707 J138.750506
G03 X138.735546 Y237.725641 Z-0.125000 I10.828111 J254.489003
G03 X139.700947 Y237.691221 Z-0.125000 I6.085042 J157.118774
G02 X140.666367 Y237.659691 Z-0.125000 I-190.415381 J-5845.036450
G03 X141.631829 Y237.629859 Z-0.125000 I8.670537 J264.972617
G02 X142.597286 Y237.599210 Z-0.125000 I-5.260832 J-180.937141
G02 X143.562651 Y237.565491 Z-0.125000 I-32.012926 J-930.371167
G02 X144.527975 Y237.526793 Z-0.125000 I-3.692979 J-104.181178
G02 X145.492989 Y237.480012 Z-0.125000 I-5.765920 J-128.916581
G02 X146.457959 Y237.426527 Z-0.125000 I-7.909490 J-151.434311
G02 X147.422556 Y237.366936 Z-0.125000 I-8.984981 J-153.276844
G02 X148.387092 Y237.300572 Z-0.125000 I-8.138375 J-125.325860
G02 X149.351129 Y237.227700 Z-0.125000 I-12.070647 J-166.096667
G02 X150.315058 Y237.146220 Z-0.125000 I-6.332677 J-80.659804
G02 X151.278115 Y237.055161 Z-0.125000 I-11.000374 J-121.479999
G02 X152.240963 Y236.951595 Z-0.125000 I-5.328691 J-54.068447
G02 X153.202150 Y236.833435 Z-0.125000 I-8.957665 J-76.835637
G02 X154.162955 Y236.697617 Z-0.125000 I-5.249511 J-40.602412
G02 X155.120777 Y236.541862 Z-0.125000 I-8.248619 J-53.748229
G02 X156.077930 Y236.362744 Z-0.125000 I-5.543691 J-32.270897
G00 Z3.000000

(End cutting path id: path140)


(Start cutting path id: path142)
(Change tool to Default tool)

G00 Z3.000000
G00 X10.198233 Y203.704516

G00 Z4.875000 (Fast pre-penetrate)
G01 Z-0.125000 F400.0(Penetrate)
G02 X10.794611 Y204.026760 Z-0.125000 I204.218911 J-377.235482 F800.000000
G03 X11.987170 Y204.672974 Z-0.125000 I-162.716454 J301.709468
G03 X12.880107 Y205.162661 Z-0.125000 I-79.795440 J146.564709
G02 X13.773206 Y205.650865 Z-0.125000 I55.852349 J-101.112867
G02 X14.668925 Y206.133279 Z-0.125000 I132.958983 J-245.798222
G02 X15.565420 Y206.608550 Z-0.125000 I50.587672 J-94.339362
G02 X16.465923 Y207.074462 Z-0.125000 I44.695923 J-85.284056
G02 X17.367076 Y207.534363 Z-0.125000 I750.300608 J-1469.063569
G02 X18.269838 Y207.989654 Z-0.125000 I51.326957 J-100.649678
G03 X19.172274 Y208.447894 Z-0.125000 I-31.276027 J62.711200
G03 X20.070697 Y208.914762 Z-0.125000 I-107.051406 J207.103328
G03 X20.967534 Y209.395429 Z-0.125000 I-22.266070 J42.621483
G03 X21.856024 Y209.892566 Z-0.125000 I-32.467796 J59.069418
G03 X22.741968 Y210.409991 Z-0.125000 I-23.253711 J40.832572
G03 X23.617376 Y210.945379 Z-0.125000 I-28.106664 J46.940344
G03 X24.489425 Y211.504248 Z-0.125000 I-23.535832 J37.684650
G03 X25.348937 Y212.082559 Z-0.125000 I-26.654437 J40.542903
G03 X26.204274 Y212.686238 Z-0.125000 I-25.465465 J36.989126
G03 X27.045628 Y213.309692 Z-0.125000 I-26.748128 J36.976175
G03 X27.882193 Y213.958536 Z-0.125000 I-30.505784 J40.195327
G03 X28.704538 Y214.625832 Z-0.125000 I-28.579628 J36.060597
G03 X29.522069 Y215.315741 Z-0.125000 I-44.136812 J53.130702
G03 X30.327368 Y216.020176 Z-0.125000 I-34.797407 J40.592376
G03 X31.128690 Y216.741568 Z-0.125000 I-84.252595 J94.393459
G03 X31.921933 Y217.471144 Z-0.125000 I-56.621237 J62.358425
G03 X32.712217 Y218.212382 Z-0.125000 I-109.446635 J117.480296
G03 X33.496214 Y218.960562 Z-0.125000 I-70.648957 J74.816029
G03 X34.278345 Y219.715793 Z-0.125000 I-616.197212 J638.926447
G03 X35.057717 Y220.473989 Z-0.125000 I-121.597478 J125.773436
G02 X35.836807 Y221.233227 Z-0.125000 I169.865111 J-173.527337
G03 X36.617247 Y221.991191 Z-0.125000 I-703.985659 J725.641692
G02 X37.399194 Y222.743507 Z-0.125000 I72.179823 J-74.240205
G02 X38.186732 Y223.490567 Z-0.125000 I205.818300 J-216.181710
G02 X38.977799 Y224.223653 Z-0.125000 I37.669970 J-39.855972
G02 X39.780502 Y224.943973 Z-0.125000 I58.657362 J-64.558510
G02 X40.588506 Y225.641299 Z-0.125000 I26.872898 J-30.321349
G02 X41.412701 Y226.318743 Z-0.125000 I31.628571 J-37.639979
G02 X42.242793 Y226.967209 Z-0.125000 I23.639610 J-29.405204
G02 X43.089963 Y227.592989 Z-0.125000 I24.490465 J-32.268474
G02 X43.942633 Y228.186947 Z-0.125000 I20.520260 J-28.549263
G02 X44.812260 Y228.755053 Z-0.125000 I19.396523 J-28.741557
G02 X45.686513 Y229.291248 Z-0.125000 I20.235836 J-32.013217
G02 X46.575477 Y229.802005 Z-0.125000 I17.336768 J-29.145336
G02 X47.467931 Y230.283926 Z-0.125000 I21.859102 J-39.412895
G02 X48.371923 Y230.743435 Z-0.125000 I17.339984 J-32.993945
G02 X49.278364 Y231.178939 Z-0.125000 I25.248259 J-51.389746
G02 X50.193312 Y231.596015 Z-0.125000 I18.746698 J-39.912892
G02 X51.109893 Y231.994514 Z-0.125000 I32.647186 J-73.837953
G02 X52.032326 Y232.378984 Z-0.125000 I21.774898 J-50.944228
G02 X52.955756 Y232.750750 Z-0.125000 I59.542166 J-146.564058
G02 X53.882583 Y233.113535 Z-0.125000 I28.380634 J-71.140221
G03 X54.809835 Y233.470567 Z-0.125000 I-187.648617 J488.727845
G02 X55.737694 Y233.826406 Z-0.125000 I78.099666 J-202.259058
G03 X56.665482 Y234.183197 Z-0.125000 I-55.088443 J144.634931
G03 X57.591855 Y234.544826 Z-0.125000 I-97.980888 J252.361561
G03 X58.517960 Y234.910266 Z-0.125000 I-99.583405 J253.722634
G03 X59.442636 Y235.280294 Z-0.125000 I-61.579181 J155.222714
G02 X60.367213 Y235.651717 Z-0.125000 I113.369554 J-280.871927
G03 X61.292136 Y236.022585 Z-0.125000 I-185.172446 J463.148756
G02 X62.217336 Y236.389322 Z-0.125000 I37.472807 J-93.185552
G02 X63.145117 Y236.748975 Z-0.125000 I69.214815 J-177.173716
G02 X64.073489 Y237.099621 Z-0.125000 I29.383243 J-76.390875
G02 X65.005563 Y237.438873 Z-0.125000 I28.701568 J-77.405957
G02 X65.938222 Y237.768987 Z-0.125000 I57.922552 J-162.163596
G02 X66.873342 Y238.090795 Z-0.125000 I27.845095 J-79.393614
G03 X67.808652 Y238.409619 Z-0.125000 I-53.398837 J158.183378
G02 X68.743465 Y238.730187 Z-0.125000 I143.122395 J-415.838530
G03 X69.677939 Y239.056123 Z-0.125000 I-25.134093 J73.563255
G03 X70.609376 Y239.391790 Z-0.125000 I-42.288870 J118.806823
G03 X71.540143 Y239.737831 Z-0.125000 I-27.749471 J76.064055
G03 X72.466846 Y240.096203 Z-0.125000 I-25.414483 J67.095887
G03 X73.392975 Y240.463302 Z-0.125000 I-125.792754 J318.706060
G03 X74.316864 Y240.837620 Z-0.125000 I-30.209509 J75.890181
G02 X75.240817 Y241.210942 Z-0.125000 I26.927617 J-65.314498
G02 X76.167601 Y241.577745 Z-0.125000 I2472.083326 J-6244.752953
G02 X77.095298 Y241.928928 Z-0.125000 I12.242870 J-30.940244
G02 X78.030856 Y242.257865 Z-0.125000 I18.977035 J-52.479227
G02 X78.967821 Y242.558651 Z-0.125000 I8.561898 J-25.061037
G02 X79.914209 Y242.828134 Z-0.125000 I9.673444 J-32.175381
G02 X80.861931 Y243.061359 Z-0.125000 I5.905424 J-21.954791
G02 X81.818252 Y243.255570 Z-0.125000 I5.463554 J-24.451581
G02 X82.775572 Y243.409463 Z-0.125000 I4.058362 J-22.191349
G02 X83.738497 Y243.521546 Z-0.125000 I3.025994 J-21.804372
G02 X84.702022 Y243.594287 Z-0.125000 I2.446965 J-25.994669
G02 X85.667538 Y243.628475 Z-0.125000 I1.279585 J-22.486844
G02 X86.633301 Y243.628987 Z-0.125000 I0.501994 J-35.996531
G02 X87.598544 Y243.600447 Z-0.125000 I-0.374254 J-28.993628
G02 X88.563712 Y243.544532 Z-0.125000 I-1.916022 J-41.431754
G02 X89.527128 Y243.465191 Z-0.125000 I-2.654960 J-38.127188
G02 X90.490201 Y243.360417 Z-0.125000 I-3.384551 J-35.589131
G02 X91.450109 Y243.229104 Z-0.125000 I-4.196324 J-34.249477
G02 X92.409558 Y243.073334 Z-0.125000 I-6.629233 J-43.864834
G02 X93.365019 Y242.894176 Z-0.125000 I-6.180870 J-35.600397
G02 X94.320006 Y242.695496 Z-0.125000 I-15.265836 J-75.772106
G02 X95.271576 Y242.480667 Z-0.125000 I-9.648643 J-44.952706
G02 X96.222837 Y242.254865 Z-0.125000 I-276.636068 J-1167.534097
G02 X97.172707 Y242.023099 Z-0.125000 I-19.298980 J-81.158495
G03 X98.122577 Y241.791249 Z-0.125000 I20.541395 J82.095928
G03 X99.073802 Y241.565445 Z-0.125000 I201.085094 J844.975785
G03 X100.025320 Y241.349965 Z-0.125000 I11.466093 J48.423387
G03 X100.980036 Y241.149889 Z-0.125000 I16.306562 J75.433515
G03 X101.935200 Y240.967065 Z-0.125000 I8.684924 J42.787816
G03 X102.893851 Y240.804204 Z-0.125000 I8.875486 J49.340998
G03 X103.852939 Y240.661443 Z-0.125000 I7.079675 J44.269115
G03 X104.814823 Y240.539987 Z-0.125000 I5.832032 J42.317906
G03 X105.777048 Y240.437603 Z-0.125000 I6.685368 J58.257514
G03 X106.740934 Y240.353514 Z-0.125000 I4.400219 J44.871694
G03 X107.705032 Y240.283685 Z-0.125000 I9.240010 J120.882319
G03 X108.669830 Y240.225306 Z-0.125000 I4.185625 J61.172756
G02 X109.634716 Y240.173647 Z-0.125000 I-27.131685 J-515.800356
G03 X110.599713 Y240.123955 Z-0.125000 I8.837382 J162.221474
G02 X111.564700 Y240.073426 Z-0.125000 I-6.099113 J-125.719244
G02 X112.529464 Y240.018063 Z-0.125000 I-23.183919 J-412.438296
G02 X113.494161 Y239.956700 Z-0.125000 I-5.616398 J-95.910270
G02 X114.458333 Y239.886946 Z-0.125000 I-9.018910 J-131.362342
G02 X115.422405 Y239.808554 Z-0.125000 I-6.992975 J-91.968180
G02 X116.385660 Y239.720138 Z-0.125000 I-8.094166 J-93.472869
G02 X117.348810 Y239.622910 Z-0.125000 I-11.924311 J-122.942872
G02 X118.311084 Y239.516867 Z-0.125000 I-9.644892 J-91.940490
G02 X119.273276 Y239.404573 Z-0.125000 I-46.821362 J-405.368804
G02 X120.234951 Y239.287548 Z-0.125000 I-15.219027 J-129.074417
G03 X121.196609 Y239.169213 Z-0.125000 I25.297386 J201.615764
G03 X122.158480 Y239.053544 Z-0.125000 I157.022854 J1301.700884
G03 X123.120395 Y238.940495 Z-0.125000 I24.834397 J207.161396
G03 X124.082721 Y238.831563 Z-0.125000 I28.438048 J246.923141
G03 X125.045104 Y238.725971 Z-0.125000 I36.023534 J323.884756
G03 X126.007815 Y238.623378 Z-0.125000 I31.908215 J294.853735
G03 X126.970570 Y238.523835 Z-0.125000 I33.564988 J319.923884
G03 X127.933626 Y238.427098 Z-0.125000 I34.636697 J339.979949
G03 X128.896721 Y238.333581 Z-0.125000 I25.098920 J253.478919
G03 X129.860145 Y238.243332 Z-0.125000 I30.682313 J322.351557
G03 X130.823612 Y238.157088 Z-0.125000 I16.861332 J182.940831
G03 X131.787479 Y238.075299 Z-0.125000 I21.031083 J242.125192
G03 X132.751396 Y237.998762 Z-0.125000 I11.648993 J140.600833
G03 X133.715769 Y237.928357 Z-0.125000 I12.502072 J164.608470
G03 X134.680201 Y237.864171 Z-0.125000 I9.672437 J138.055780
G03 X135.645039 Y237.806634 Z-0.125000 I8.943796 J141.859322
G03 X136.609926 Y237.755499 Z-0.125000 I8.428820 J149.918294
G03 X137.575125 Y237.710969 Z-0.125000 I6.630616 J133.236964
G03 X138.540363 Y237.672063 Z-0.125000 I9.340276 J219.734221
G03 X139.505784 Y237.638486 Z-0.125000 I5.527233 J145.026951
G03 X140.471224 Y237.608346 Z-0.125000 I66.498130 J2114.567138
G03 X141.436725 Y237.580486 Z-0.125000 I6.999718 J225.839135
G02 X142.402222 Y237.552368 Z-0.125000 I-5.363896 J-200.775789
G02 X143.367652 Y237.521810 Z-0.125000 I-123.701956 J-3923.389541
G02 X144.333046 Y237.486582 Z-0.125000 I-3.257590 J-102.518210
G02 X145.298157 Y237.443323 Z-0.125000 I-5.509704 J-133.709018
G02 X146.263226 Y237.393274 Z-0.125000 I-6.853144 J-141.475932
G02 X147.227928 Y237.336721 Z-0.125000 I-8.007727 J-144.854056
G02 X148.192571 Y237.273222 Z-0.125000 I-7.775262 J-125.477570
G02 X149.156730 Y237.203115 Z-0.125000 I-11.180965 J-160.432821
G02 X150.120786 Y237.124434 Z-0.125000 I-6.250646 J-82.532755
G02 X151.084009 Y237.036322 Z-0.125000 I-10.697182 J-122.248253
G02 X152.047035 Y236.935948 Z-0.125000 I-5.293986 J-55.462401
G02 X153.008489 Y236.821336 Z-0.125000 I-8.906154 J-78.801632
G02 X153.969577 Y236.689446 Z-0.125000 I-5.191716 J-41.400169
G00 Z3.000000

(End cutting path id: path142)


(Start cutting path id: path144)
(Change tool to Default tool)

G00 Z3.000000
G00 X10.198233 Y203.043059

G00 Z4.875000 (Fast pre-penetrate)
G01 Z-0.125000 F400.0(Penetrate)
G02 X10.797262 Y203.356141 Z-0.125000 I99.185040 J-189.043866 F800.000000
G03 X11.994939 Y203.985736 Z-0.125000 I-78.886016 J151.518611
G03 X12.890534 Y204.465855 Z-0.125000 I-57.259020 J107.884154
G02 X13.785994 Y204.947249 Z-0.125000 I80.922936 J-149.454178
G02 X14.682711 Y205.425591 Z-0.125000 I1010.804371 J-1893.810219
G02 X15.579933 Y205.899203 Z-0.125000 I58.045436 J-108.876093
G02 X16.480323 Y206.365189 Z-0.125000 I58.715041 J-112.347735
G02 X17.381246 Y206.826196 Z-0.125000 I376.148112 J-733.977787
G02 X18.283712 Y207.282662 Z-0.125000 I56.415002 J-110.416137
G03 X19.185906 Y207.741603 Z-0.125000 I-35.508592 J70.919659
G03 X20.084610 Y208.207855 Z-0.125000 I-143.626269 J277.939899
G03 X20.981858 Y208.686818 Z-0.125000 I-23.180492 J44.504251
G03 X21.871276 Y209.181233 Z-0.125000 I-35.452453 J64.823544
G03 X22.758239 Y209.695337 Z-0.125000 I-22.791971 J40.344308
G03 X23.634742 Y210.227681 Z-0.125000 I-27.736931 J46.656473
G03 X24.507991 Y210.783088 Z-0.125000 I-24.284340 J39.145739
G03 X25.369119 Y211.357400 Z-0.125000 I-26.998005 J41.413737
G03 X26.226283 Y211.956198 Z-0.125000 I-26.498006 J38.844112
G03 X27.070147 Y212.573945 Z-0.125000 I-27.615699 J38.609326
G03 X27.909506 Y213.216042 Z-0.125000 I-31.374943 J41.883414
G03 X28.735356 Y213.875862 Z-0.125000 I-29.619091 J37.918864
G03 X29.556642 Y214.557605 Z-0.125000 I-43.675349 J53.450644
G03 X30.366071 Y215.253607 Z-0.125000 I-35.689181 J42.324095
G03 X31.171571 Y215.966732 Z-0.125000 I-73.748880 J84.113483
G03 X31.968630 Y216.688615 Z-0.125000 I-55.187697 J61.735792
G03 X32.762472 Y217.423404 Z-0.125000 I-84.144637 J91.703413
G03 X33.548951 Y218.166427 Z-0.125000 I-62.972730 J67.443467
G03 X34.333029 Y218.918621 Z-0.125000 I-209.675958 J219.348383
G03 X35.112707 Y219.675698 Z-0.125000 I-88.583229 J92.007637
G02 X35.891523 Y220.435994 Z-0.125000 I240.666211 J-245.749913
G03 X36.670538 Y221.196058 Z-0.125000 I-290.604038 J298.628599
G02 X37.450557 Y221.952390 Z-0.125000 I86.120514 J-88.037348
G02 X38.234991 Y222.704606 Z-0.125000 I331.736960 J-345.160237
G02 X39.022439 Y223.445138 Z-0.125000 I43.461598 J-45.426177
G02 X39.819944 Y224.174994 Z-0.125000 I73.822261 J-79.864092
G02 X40.622357 Y224.884237 Z-0.125000 I29.175720 J-32.199853
G02 X41.439886 Y225.575512 Z-0.125000 I36.387914 J-42.204720
G02 X42.263245 Y226.239278 Z-0.125000 I24.428960 J-29.460029
G02 X43.103577 Y226.881246 Z-0.125000 I26.498150 J-33.814900
G02 X43.949647 Y227.491575 Z-0.125000 I20.584949 J-27.644319
G02 X44.813315 Y228.075919 Z-0.125000 I19.972816 J-28.589699
G02 X45.681964 Y228.627615 Z-0.125000 I20.077610 J-30.652598
G02 X46.566185 Y229.153194 Z-0.125000 I17.385809 J-28.242856
G02 X47.454205 Y229.648932 Z-0.125000 I21.763159 J-37.941319
G02 X48.354476 Y230.121575 Z-0.125000 I17.232306 J-31.729708
G02 X49.257402 Y230.569425 Z-0.125000 I25.540174 J-50.358307
G02 X50.169271 Y230.998514 Z-0.125000 I18.791944 J-38.751804
G02 X51.082895 Y231.408589 Z-0.125000 I33.386623 J-73.160645
G02 X52.002618 Y231.804587 Z-0.125000 I22.231514 J-50.367643
G02 X52.923411 Y232.187543 Z-0.125000 I57.742632 J-137.540121
G02 X53.847836 Y232.561134 Z-0.125000 I28.230806 J-68.524646
G03 X54.772724 Y232.928727 Z-0.125000 I-190.033014 J479.482787
G02 X55.698281 Y233.294881 Z-0.125000 I72.065550 J-180.813162
G03 X56.623742 Y233.662357 Z-0.125000 I-47.535885 J121.064376
G03 X57.547445 Y234.035400 Z-0.125000 I-91.977243 J229.078219
G03 X58.470774 Y234.413532 Z-0.125000 I-65.806603 J162.003844
G03 X59.391981 Y234.797909 Z-0.125000 I-50.927672 J123.350730
G02 X60.312952 Y235.185509 Z-0.125000 I289.102367 J-685.643802
G03 X61.233542 Y235.574487 Z-0.125000 I-92.639982 J220.533555
G02 X62.154320 Y235.960885 Z-0.125000 I42.985827 J-101.144066
G02 X63.077369 Y236.341465 Z-0.125000 I111.800575 J-269.849040
G02 X64.001019 Y236.713510 Z-0.125000 I29.327430 J-71.476525
G02 X64.928658 Y237.074137 Z-0.125000 I32.133151 J-81.282522
G02 X65.856990 Y237.424659 Z-0.125000 I43.725846 J-114.400164
G02 X66.788504 Y237.765192 Z-0.125000 I26.637848 J-71.422332
G03 X67.720363 Y238.100682 Z-0.125000 I-104.203222 J290.898025
G02 X68.652496 Y238.435491 Z-0.125000 I71.944985 J-198.834844
G03 X69.584422 Y238.773368 Z-0.125000 I-31.260638 J87.676670
G03 X70.513956 Y239.118782 Z-0.125000 I-64.884779 J176.033144
G03 X71.442906 Y239.472793 Z-0.125000 I-30.760218 J82.112730
G03 X72.368197 Y239.837814 Z-0.125000 I-30.035653 J77.492615
G03 X73.292947 Y240.210766 Z-0.125000 I-115.112412 J286.759454
G03 X74.215506 Y240.590751 Z-0.125000 I-32.589851 J80.434164
G02 X75.138114 Y240.970005 Z-0.125000 I29.881984 J-71.381847
G03 X76.063301 Y241.343666 Z-0.125000 I-661.813283 J1639.985487
G02 X76.989394 Y241.702458 Z-0.125000 I12.829167 J-31.739298
G02 X77.923251 Y242.039807 Z-0.125000 I20.417557 J-55.059062
G02 X78.858543 Y242.349660 Z-0.125000 I8.936759 J-25.409156
G02 X79.803376 Y242.628897 Z-0.125000 I10.261863 J-32.984121
G02 X80.749600 Y242.872309 Z-0.125000 I6.182339 J-22.071986
G02 X81.704750 Y243.077194 Z-0.125000 I5.821230 J-24.809056
G02 X82.660966 Y243.241863 Z-0.125000 I4.289454 J-22.049814
G02 X83.623251 Y243.364735 Z-0.125000 I3.280836 J-21.864552
G02 X84.586193 Y243.447994 Z-0.125000 I2.694077 J-25.548637
G02 X85.551559 Y243.492263 Z-0.125000 I1.506765 J-22.309791
G02 X86.517218 Y243.502308 Z-0.125000 I0.846389 J-34.946844
G02 X87.482626 Y243.482466 Z-0.125000 I-0.091986 J-27.971054
G02 X88.448007 Y243.434823 Z-0.125000 I-1.588830 J-41.999225
G02 X89.411837 Y243.363882 Z-0.125000 I-2.320460 J-38.109617
G02 X90.375357 Y243.267392 Z-0.125000 I-3.043881 J-35.254255
G02 X91.335907 Y243.144193 Z-0.125000 I-3.896693 J-34.187597
G02 X92.296020 Y242.996227 Z-0.125000 I-6.081158 J-42.647858
G02 X93.252245 Y242.824364 Z-0.125000 I-5.820782 J-35.132347
G02 X94.208005 Y242.632404 Z-0.125000 I-13.771128 J-71.040999
G02 X95.160302 Y242.423557 Z-0.125000 I-9.062459 J-43.598426
G02 X96.112283 Y242.202967 Z-0.125000 I-127.701023 J-553.272998
G02 X97.062705 Y241.975569 Z-0.125000 I-17.624659 J-75.763053
G03 X98.013101 Y241.747233 Z-0.125000 I21.845114 J88.833264
G03 X98.964633 Y241.524047 Z-0.125000 I2000.330210 J8526.051993
G03 X99.916434 Y241.310465 Z-0.125000 I11.606924 J49.497285
G00 Z3.000000

(End cutting path id: path144)


(Start cutting path id: path146)
(Change tool to Default tool)

G00 Z3.000000
G00 X10.198233 Y198.412856

G00 Z4.875000 (Fast pre-penetrate)
G01 Z-0.125000 F400.0(Penetrate)
G02 X10.810917 Y198.673483 Z-0.125000 I23.529433 J-54.462787 F800.000000
G03 X12.035204 Y199.206478 Z-0.125000 I-18.394501 J43.924637
G03 X12.946075 Y199.627243 Z-0.125000 I-25.475568 J56.345829
G03 X13.855252 Y200.066307 Z-0.125000 I-23.813544 J50.471911
G03 X14.756441 Y200.522500 Z-0.125000 I-23.158623 J46.867094
G03 X15.655902 Y200.995578 Z-0.125000 I-39.428344 J76.056493
G03 X16.548730 Y201.481260 Z-0.125000 I-29.598966 J55.475147
G03 X17.440197 Y201.979070 Z-0.125000 I-82.840527 J149.396137
G03 X18.327483 Y202.483567 Z-0.125000 I-52.895322 J94.062312
G03 X19.213762 Y202.996315 Z-0.125000 I-92.395699 J160.727419
G03 X20.096754 Y203.514298 Z-0.125000 I-78.670183 J135.118523
G03 X20.978831 Y204.039372 Z-0.125000 I-83.277799 J140.902442
G03 X21.857694 Y204.569158 Z-0.125000 I-109.421004 J182.512540
G03 X22.735367 Y205.107605 Z-0.125000 I-49.520334 J81.703152
G03 X23.608139 Y205.653554 Z-0.125000 I-82.054329 J132.145439
G03 X24.478953 Y206.212731 Z-0.125000 I-32.334009 J51.311803
G03 X25.341598 Y206.784925 Z-0.125000 I-44.882454 J68.601553
G03 X26.201326 Y207.375208 Z-0.125000 I-30.034569 J44.665604
G03 X27.050314 Y207.981899 Z-0.125000 I-32.914394 J46.956979
G03 X27.895906 Y208.607826 Z-0.125000 I-40.454804 J55.536255
G03 X28.731215 Y209.247971 Z-0.125000 I-35.069515 J46.626423
G03 X29.563460 Y209.904003 Z-0.125000 I-70.282050 J90.016037
G03 X30.388291 Y210.568691 Z-0.125000 I-53.973192 J67.820997
G03 X31.210545 Y211.245677 Z-0.125000 I-76.566258 J93.833809
G03 X32.026526 Y211.929337 Z-0.125000 I-81.251232 J97.806023
G03 X32.839646 Y212.625646 Z-0.125000 I-52.438465 J62.058250
G03 X33.644302 Y213.332127 Z-0.125000 I-60.837885 J70.103620
G03 X34.445476 Y214.053045 Z-0.125000 I-55.660697 J62.662782
G03 X35.237384 Y214.784715 Z-0.125000 I-53.922937 J59.156746
G03 X36.025809 Y215.529929 Z-0.125000 I-80.376447 J85.826800
G03 X36.806321 Y216.283911 Z-0.125000 I-59.754213 J62.637728
G03 X37.584275 Y217.047355 Z-0.125000 I-237.245304 J242.532335
G03 X38.357822 Y217.815592 Z-0.125000 I-87.608693 J88.987794
G02 X39.130596 Y218.586606 Z-0.125000 I187.428730 J-187.083733
G03 X39.904016 Y219.357165 Z-0.125000 I-284.993295 J286.825125
G02 X40.678935 Y220.122259 Z-0.125000 I65.485880 J-65.551843
G02 X41.460117 Y220.881160 Z-0.125000 I172.117993 J-176.389543
G02 X42.245068 Y221.625662 Z-0.125000 I38.508455 J-39.814636
G02 X43.041760 Y222.358141 Z-0.125000 I64.011391 J-68.823429
G02 X43.844229 Y223.066248 Z-0.125000 I24.546332 J-27.008630
G02 X44.664613 Y223.752964 Z-0.125000 I30.493115 J-35.595113
G02 X45.491753 Y224.406969 Z-0.125000 I20.240536 J-24.748774
G02 X46.338955 Y225.033587 Z-0.125000 I20.359424 J-26.640380
G02 X47.192307 Y225.624940 Z-0.125000 I19.978098 J-27.918028
G02 X48.063606 Y226.188325 Z-0.125000 I17.117301 J-25.517164
G02 X48.939545 Y226.719816 Z-0.125000 I23.112988 J-37.104475
G02 X49.829076 Y227.227449 Z-0.125000 I17.266935 J-29.223879
G02 X50.721667 Y227.710259 Z-0.125000 I31.983788 J-58.063317
G02 X51.623235 Y228.175813 Z-0.125000 I20.667880 J-38.918551
G02 X52.526592 Y228.624734 Z-0.125000 I57.245986 J-114.061838
G02 X53.435094 Y229.063016 Z-0.125000 I28.673109 J-58.274963
G02 X54.344438 Y229.492767 Z-0.125000 I907.377095 J-1918.811794
G02 X55.255600 Y229.918421 Z-0.125000 I50.892075 J-107.753684
G03 X56.166767 Y230.344008 Z-0.125000 I-50.725111 J109.790106
G03 X57.076124 Y230.774017 Z-0.125000 I-363.698289 J770.303775
G03 X57.984749 Y231.211541 Z-0.125000 I-33.424620 J70.576516
G03 X58.888862 Y231.659334 Z-0.125000 I-47.699120 J97.443115
G03 X59.791819 Y232.118494 Z-0.125000 I-38.379066 J76.591405
G03 X60.689387 Y232.589500 Z-0.125000 I-33.612292 J65.143774
G03 X61.585988 Y233.069681 Z-0.125000 I-157.855523 J295.827155
G03 X62.479685 Y233.556079 Z-0.125000 I-46.119101 J85.802374
G02 X63.373267 Y234.043545 Z-0.125000 I57.821685 J-104.931287
G03 X64.268736 Y234.527286 Z-0.125000 I-1699.816101 J3147.658796
G02 X65.165103 Y235.002476 Z-0.125000 I30.228731 J-55.938411
G02 X66.067306 Y235.464866 Z-0.125000 I39.786588 J-76.519084
G02 X66.970839 Y235.914120 Z-0.125000 I36.051548 J-71.373158
G02 X67.880011 Y236.350628 Z-0.125000 I29.567195 J-60.418414
G02 X68.790202 Y236.776513 Z-0.125000 I86.603290 J-183.900904
G02 X69.703554 Y237.195264 Z-0.125000 I40.060391 J-86.171520
G03 X70.617330 Y237.609359 Z-0.125000 I-231.880009 J512.900935
G01 X72.445786 Y238.437033 Z-0.125000
G03 X73.359344 Y238.853829 Z-0.125000 I-120.072134 J264.390735
G02 X74.272994 Y239.269567 Z-0.125000 I76.710409 J-167.371407
G03 X75.187854 Y239.684286 Z-0.125000 I-159.265675 J352.552706
G02 X76.103453 Y240.089367 Z-0.125000 I19.986938 J-43.938922
G02 X77.025123 Y240.480549 Z-0.125000 I41.413808 J-96.294340
G02 X77.948250 Y240.850207 Z-0.125000 I12.215998 J-29.168875
G02 X78.880879 Y241.195037 Z-0.125000 I16.124131 J-42.175855
G02 X79.815227 Y241.508410 Z-0.125000 I8.486313 J-23.753006
G02 X80.760113 Y241.788030 Z-0.125000 I9.023700 J-28.756461
G02 X81.706519 Y242.029543 Z-0.125000 I6.085716 J-21.872684
G02 X82.662020 Y242.231122 Z-0.125000 I5.412252 J-23.289169
G02 X83.618621 Y242.392305 Z-0.125000 I4.396116 J-23.171149
G02 X84.580999 Y242.512621 Z-0.125000 I3.216972 J-21.822692
G02 X85.544039 Y242.595254 Z-0.125000 I2.941399 J-28.627374
G02 X86.509331 Y242.642149 Z-0.125000 I1.640070 J-23.800760
G02 X87.474918 Y242.658037 Z-0.125000 I1.153910 J-40.780875
G02 X88.440537 Y242.648942 Z-0.125000 I0.158535 J-34.435805
G02 X89.406078 Y242.613092 Z-0.125000 I-0.828078 J-35.322270
G02 X90.370267 Y242.550664 Z-0.125000 I-1.770877 J-34.827875
G02 X91.334182 Y242.461809 Z-0.125000 I-2.830493 J-35.978418
G02 X92.295296 Y242.345923 Z-0.125000 I-3.471012 J-32.830846
G02 X93.256041 Y242.206055 Z-0.125000 I-6.576176 J-48.540886
G02 X94.213368 Y242.043994 Z-0.125000 I-5.649621 J-36.282167
G02 X95.170344 Y241.864460 Z-0.125000 I-19.317582 J-105.608990
G02 X96.124759 Y241.671524 Z-0.125000 I-9.700492 J-50.443605
G03 X97.078998 Y241.470887 Z-0.125000 I59.464988 J280.448757
G02 X98.032782 Y241.268136 Z-0.125000 I-25.424501 J-121.946802
G03 X98.986647 Y241.068816 Z-0.125000 I13.988040 J64.559191
G03 X99.942343 Y240.879279 Z-0.125000 I33.936071 J168.610195
G03 X100.898328 Y240.702162 Z-0.125000 I9.554112 J48.899736
G03 X101.857083 Y240.541332 Z-0.125000 I11.593124 J66.171850
G03 X102.816187 Y240.397895 Z-0.125000 I7.301599 J45.544273
G03 X103.777917 Y240.274093 Z-0.125000 I6.722851 J48.427781
G03 X104.739951 Y240.168864 Z-0.125000 I6.225666 J52.466512
G03 X105.703775 Y240.082655 Z-0.125000 I4.554647 J45.490787
G03 X106.667814 Y240.012254 Z-0.125000 I6.629732 J84.148727
G03 X107.632711 Y239.955986 Z-0.125000 I3.636802 J54.063700
G03 X108.597720 Y239.909347 Z-0.125000 I22.964072 J465.141726
G03 X109.562977 Y239.868665 Z-0.125000 I4.448008 J94.065379
G02 X110.528247 Y239.829703 Z-0.125000 I-5.331524 J-144.061075
G03 X111.493416 Y239.787524 Z-0.125000 I1063.270557 J24319.544527
G02 X112.458541 Y239.740549 Z-0.125000 I-4.233037 J-96.907752
G02 X113.423291 Y239.685830 Z-0.125000 I-8.509880 J-158.569564
G02 X114.387957 Y239.622568 Z-0.125000 I-4.985940 J-83.417044
G02 X115.351927 Y239.548843 Z-0.125000 I-6.791776 J-95.142428
G02 X116.315786 Y239.465189 Z-0.125000 I-7.602721 J-93.192954
G02 X117.278717 Y239.370915 Z-0.125000 I-7.583159 J-82.420589
G02 X118.241542 Y239.268017 Z-0.125000 I-16.497121 J-158.920304
G02 X119.203555 Y239.157293 Z-0.125000 I-10.384834 J-94.461865
G03 X120.165505 Y239.041962 Z-0.125000 I158.709528 J1319.699288
G02 X121.127223 Y238.924716 Z-0.125000 I-24.432693 J-204.412957
G03 X122.088947 Y238.808161 Z-0.125000 I19.511859 J156.971118
G03 X123.051082 Y238.696231 Z-0.125000 I32.844209 J278.133837
G03 X124.013270 Y238.587586 Z-0.125000 I33.476034 J292.156798
G03 X124.975811 Y238.482219 Z-0.125000 I30.430010 J273.532807
G03 X125.938402 Y238.379915 Z-0.125000 I37.233096 J345.750652
G03 X126.901291 Y238.280332 Z-0.125000 I35.062311 J334.319227
G03 X127.864217 Y238.183718 Z-0.125000 I30.357351 J297.719675
G03 X128.827442 Y238.089953 Z-0.125000 I35.429727 J358.964344
G03 X129.790709 Y237.999688 Z-0.125000 I20.417955 J212.706006
G03 X130.754338 Y237.913192 Z-0.125000 I26.703687 J292.087358
G03 X131.718017 Y237.831386 Z-0.125000 I13.319467 J151.188478
G03 X132.682140 Y237.755009 Z-0.125000 I16.127868 J197.460484
G03 X133.646324 Y237.684763 Z-0.125000 I9.518866 J124.001497
G03 X134.610981 Y237.621521 Z-0.125000 I9.858810 J142.993936
G03 X135.575692 Y237.565414 Z-0.125000 I7.498970 J120.616479
G03 X136.540810 Y237.516986 Z-0.125000 I6.593095 J121.750422
G03 X137.505974 Y237.475755 Z-0.125000 I6.403861 J138.590257
G03 X138.471404 Y237.441937 Z-0.125000 I4.520418 J115.248865
G03 X139.436869 Y237.413941 Z-0.125000 I8.098310 J262.615561
G03 X140.402454 Y237.391099 Z-0.125000 I3.734201 J137.437223
G02 X141.368055 Y237.370872 Z-0.125000 I-12.057453 J-598.645131
G03 X142.333667 Y237.351475 Z-0.125000 I6.343765 J291.766406
G02 X143.299264 Y237.329920 Z-0.125000 I-2.287665 J-124.114780
G02 X144.264744 Y237.302902 Z-0.125000 I-7.200694 J-274.578946
G02 X145.230186 Y237.269555 Z-0.125000 I-2.996878 J-100.756931
G02 X146.195327 Y237.227633 Z-0.125000 I-4.652049 J-118.232536
G02 X147.160417 Y237.178038 Z-0.125000 I-5.953425 J-125.265287
G02 X148.125098 Y237.121358 Z-0.125000 I-7.644911 J-138.352177
G02 X149.089703 Y237.056296 Z-0.125000 I-5.806232 J-93.265237
G02 X150.053664 Y236.982565 Z-0.125000 I-9.164772 J-126.159704
G02 X151.017481 Y236.897834 Z-0.125000 I-5.146748 J-64.068498
G02 X151.980127 Y236.800721 Z-0.125000 I-8.624897 J-90.314884
G02 X152.942502 Y236.688359 Z-0.125000 I-4.944022 J-46.522722
G02 X153.902719 Y236.558504 Z-0.125000 I-7.806500 J-61.340696
G02 X154.862465 Y236.408507 Z-0.125000 I-5.388090 J-37.620644
G02 X155.818585 Y236.236887 Z-0.125000 I-8.287215 J-48.918605
G02 X156.773865 Y236.039294 Z-0.125000 I-5.483213 J-28.917064
G00 Z3.000000

(End cutting path id: path146)


(Start cutting path id: path148)
(Change tool to Default tool)

G00 Z3.000000
G00 X10.198233 Y193.782654

G00 Z4.875000 (Fast pre-penetrate)
G01 Z-0.125000 F400.0(Penetrate)
G02 X10.817236 Y194.015647 Z-0.125000 I21.019588 J-54.904840 F800.000000
G03 X12.054324 Y194.493236 Z-0.125000 I-16.367094 J44.236285
G03 X12.975697 Y194.871222 Z-0.125000 I-27.281356 J67.812540
G03 X13.895359 Y195.270020 Z-0.125000 I-14.825241 J35.448114
G03 X14.805662 Y195.690552 Z-0.125000 I-19.455584 J43.309963
G03 X15.713488 Y196.137003 Z-0.125000 I-15.806015 J33.286593
G03 X16.609444 Y196.607740 Z-0.125000 I-17.683826 J34.745716
G03 X17.502330 Y197.105776 Z-0.125000 I-20.207004 J37.276788
G03 X18.382625 Y197.626459 Z-0.125000 I-19.161324 J33.399682
G03 X19.259734 Y198.171480 Z-0.125000 I-31.333088 J51.403062
G03 X20.125846 Y198.734558 Z-0.125000 I-23.245315 J36.703010
G03 X20.989517 Y199.314330 Z-0.125000 I-101.428912 J152.028906
G03 X21.847276 Y199.902200 Z-0.125000 I-42.893932 J63.506144
G02 X22.703823 Y200.497714 Z-0.125000 I3591.863702 J-5165.374055
G03 X23.558708 Y201.094195 Z-0.125000 I-169.597217 J243.980061
G03 X24.413019 Y201.694101 Z-0.125000 I-239.413428 J341.851429
G03 X25.265936 Y202.294898 Z-0.125000 I-1361.631444 J1933.933745
G03 X26.117851 Y202.901454 Z-0.125000 I-62.328189 J88.442219
G03 X26.965370 Y203.514007 Z-0.125000 I-133.868622 J186.111054
G03 X27.810774 Y204.138091 Z-0.125000 I-39.624796 J54.561689
G03 X28.647976 Y204.773977 Z-0.125000 I-53.709814 J71.582977
G03 X29.482081 Y205.425689 Z-0.125000 I-41.341442 J53.771137
G03 X30.306322 Y206.090813 Z-0.125000 I-41.636211 J52.440139
G03 X31.127326 Y206.771350 Z-0.125000 I-64.438454 J78.574339
G03 X31.940307 Y207.461192 Z-0.125000 I-54.603027 J65.173858
G03 X32.750376 Y208.163875 Z-0.125000 I-75.684140 J88.068728
G03 X33.553373 Y208.874533 Z-0.125000 I-66.350974 J75.781190
G03 X34.353706 Y209.596240 Z-0.125000 I-89.981877 J100.589545
G03 X35.147988 Y210.324032 Z-0.125000 I-91.346974 J100.489675
G03 X35.939455 Y211.062813 Z-0.125000 I-69.643074 J75.402968
G03 X36.723458 Y211.809920 Z-0.125000 I-73.588634 J78.007686
G03 X37.504384 Y212.568427 Z-0.125000 I-84.238241 J87.509270
G03 X38.278076 Y213.334797 Z-0.125000 I-71.558576 J73.016011
G03 X39.049154 Y214.110433 Z-0.125000 I-162.904800 J162.718712
G03 X39.815211 Y214.891381 Z-0.125000 I-90.332472 J89.376137
G02 X40.579944 Y215.676899 Z-0.125000 I750.191325 J-729.576460
G03 X41.343477 Y216.463867 Z-0.125000 I-175.782874 J171.312008
G02 X42.107625 Y217.248731 Z-0.125000 I99.110218 J-95.729923
G02 X42.875355 Y218.030857 Z-0.125000 I3591.797793 J-3524.915447
G02 X43.646313 Y218.801450 Z-0.125000 I41.298347 J-40.546994
G02 X44.428310 Y219.561150 Z-0.125000 I79.415841 J-80.964282
G02 X45.216222 Y220.297868 Z-0.125000 I26.155804 J-27.183670
G02 X46.022053 Y221.014487 Z-0.125000 I33.989772 J-37.409794
G02 X46.835181 Y221.698787 Z-0.125000 I20.987885 J-24.113857
G02 X47.669282 Y222.356136 Z-0.125000 I21.594768 J-26.543430
G02 X48.510235 Y222.977744 Z-0.125000 I20.620419 J-27.017025
G02 X49.370324 Y223.571154 Z-0.125000 I17.668303 J-24.688461
G02 X50.235618 Y224.132305 Z-0.125000 I25.032379 J-37.652149
G02 X51.115137 Y224.669853 Z-0.125000 I17.977301 J-28.425600
G02 X51.997958 Y225.183488 Z-0.125000 I40.948736 J-69.365976
G02 X52.889408 Y225.681694 Z-0.125000 I23.145953 J-40.368915
G02 X53.782565 Y226.165978 Z-0.125000 I134.372628 J-246.755564
G02 X54.679598 Y226.643112 Z-0.125000 I38.958611 J-72.162136
G03 X55.577144 Y227.115804 Z-0.125000 I-112.528983 J214.757867
G02 X56.474633 Y227.588845 Z-0.125000 I134.949929 J-254.949273
G03 X57.371675 Y228.065773 Z-0.125000 I-44.136750 J84.097767
G03 X58.265230 Y228.549874 Z-0.125000 I-96.405727 J179.012902
G03 X59.157597 Y229.044032 Z-0.125000 I-36.292263 J66.590566
G03 X60.044200 Y229.549329 Z-0.125000 I-45.012216 J80.009737
G03 X60.929237 Y230.067193 Z-0.125000 I-43.845292 J75.947388
G03 X61.808092 Y230.596313 Z-0.125000 I-39.250910 J66.189187
G03 X62.685534 Y231.136124 Z-0.125000 I-91.591294 J149.861094
G03 X63.558595 Y231.683821 Z-0.125000 I-46.729137 J75.458716
G02 X64.431083 Y232.235755 Z-0.125000 I136.084519 J-214.154606
G03 X65.303598 Y232.787965 Z-0.125000 I-122.387688 J194.342967
G02 X66.176847 Y233.334780 Z-0.125000 I39.194999 J-61.622717
G02 X67.055458 Y233.871922 Z-0.125000 I73.502203 J-119.241504
G02 X67.935758 Y234.396073 Z-0.125000 I33.188171 J-54.737503
G02 X68.823461 Y234.906341 Z-0.125000 I35.153632 J-60.128784
G02 X69.712932 Y235.402115 Z-0.125000 I42.780559 J-75.707056
G02 X70.608598 Y235.885914 Z-0.125000 I33.212905 J-60.416605
G02 X71.505540 Y236.358495 Z-0.125000 I80.491037 J-151.681788
G02 X72.406218 Y236.824319 Z-0.125000 I50.464560 J-96.470325
G02 X73.307697 Y237.282580 Z-0.125000 I97.953702 J-191.576088
G02 X74.211688 Y237.737215 Z-0.125000 I115.671337 J-228.873447
G02 X75.116490 Y238.183443 Z-0.125000 I38.700479 J-77.331287
G02 X76.025524 Y238.622368 Z-0.125000 I87.910014 J-180.904881
G02 X76.935892 Y239.045688 Z-0.125000 I17.994979 J-37.508520
G02 X77.854441 Y239.451113 Z-0.125000 I27.397767 J-60.830311
G02 X78.774842 Y239.831160 Z-0.125000 I11.945528 J-27.625181
G02 X79.705941 Y240.184150 Z-0.125000 I14.386812 J-36.544338
G02 X80.638967 Y240.503516 Z-0.125000 I8.488942 J-23.277790
G02 X81.583126 Y240.787729 Z-0.125000 I8.594378 J-26.840279
G02 X82.528912 Y241.033230 Z-0.125000 I6.336256 J-22.465726
G02 X83.483861 Y241.239078 Z-0.125000 I5.441882 J-22.927436
G02 X84.439958 Y241.405686 Z-0.125000 I4.849256 J-25.001306
G02 X85.401767 Y241.533582 Z-0.125000 I3.487415 J-22.545623
G02 X86.364265 Y241.626499 Z-0.125000 I3.642660 J-32.701818
G02 X87.329200 Y241.688060 Z-0.125000 I2.208073 J-27.016960
G02 X88.294422 Y241.720701 Z-0.125000 I1.834407 J-39.957782
G02 X89.260167 Y241.729006 Z-0.125000 I0.798751 J-36.729114
G02 X90.225865 Y241.710435 Z-0.125000 I-0.149521 J-32.893607
G02 X91.190616 Y241.663383 Z-0.125000 I-1.109101 J-32.654964
G02 X92.155183 Y241.589621 Z-0.125000 I-2.396918 J-37.687585
G02 X93.117380 Y241.489196 Z-0.125000 I-2.897137 J-32.417935
G02 X94.079310 Y241.366054 Z-0.125000 I-6.790749 J-56.864764
G02 X95.038483 Y241.222760 Z-0.125000 I-5.247193 J-38.405205
G02 X95.997425 Y241.064657 Z-0.125000 I-29.979043 J-184.819181
G02 X96.954660 Y240.896441 Z-0.125000 I-10.091219 J-60.231956
G03 X97.911818 Y240.723964 Z-0.125000 I24.248486 J131.824303
G02 X98.869243 Y240.553357 Z-0.125000 I-49.966606 J-283.178927
G03 X99.826780 Y240.388967 Z-0.125000 I10.739354 J59.683539
G03 X100.786145 Y240.236403 Z-0.125000 I18.195302 J111.324472
G03 X101.745750 Y240.097334 Z-0.125000 I7.816479 J50.554716
G03 X102.707536 Y239.974870 Z-0.125000 I8.333788 J61.612813
G03 X103.669573 Y239.869184 Z-0.125000 I6.083471 J50.944746
G03 X104.633364 Y239.781919 Z-0.125000 I4.985138 J49.692035
G03 X105.597362 Y239.710936 Z-0.125000 I5.474957 J67.773198
G03 X106.562317 Y239.655835 Z-0.125000 I3.429824 J51.587035
G03 X107.527402 Y239.612681 Z-0.125000 I7.654722 J160.376214
G03 X108.492819 Y239.578938 Z-0.125000 I2.986160 J71.608962
G02 X109.458284 Y239.549935 Z-0.125000 I-7.429260 J-263.394257
G03 X110.423756 Y239.521143 Z-0.125000 I7.417770 J232.534619
G02 X111.389205 Y239.489584 Z-0.125000 I-2.711567 J-97.734376
G02 X112.354437 Y239.451075 Z-0.125000 I-8.138898 J-216.118839
G02 X113.319605 Y239.404602 Z-0.125000 I-3.387304 J-80.395366
G02 X114.284254 Y239.347808 Z-0.125000 I-5.565779 J-102.754538
G02 X115.248804 Y239.280521 Z-0.125000 I-4.993780 J-78.532370
G02 X116.212505 Y239.201395 Z-0.125000 I-5.969627 J-78.614165
G02 X117.176088 Y239.111754 Z-0.125000 I-9.040533 J-102.403738
G02 X118.138695 Y239.011655 Z-0.125000 I-7.666408 J-78.402906
G02 X119.101207 Y238.903826 Z-0.125000 I-29.377375 J-266.580926
G02 X120.063060 Y238.789880 Z-0.125000 I-12.050053 J-105.834773
G03 X121.024887 Y238.673541 Z-0.125000 I28.306589 J229.989071
G02 X121.986824 Y238.558997 Z-0.125000 I-237.019659 J-1994.582049
G03 X122.948791 Y238.446605 Z-0.125000 I23.403975 J196.143255
G03 X123.911163 Y238.338427 Z-0.125000 I28.675478 J250.767422
G03 X124.873585 Y238.233439 Z-0.125000 I39.042871 J353.439437
G03 X125.836316 Y238.131240 Z-0.125000 I33.624527 J312.162999
G03 X126.799085 Y238.031882 Z-0.125000 I36.443196 J348.417595
G03 X127.762135 Y237.935085 Z-0.125000 I38.433444 J377.540597
G03 X128.725220 Y237.841335 Z-0.125000 I25.660100 J258.609894
G03 X129.688626 Y237.750694 Z-0.125000 I33.616467 J352.137205
G03 X130.652073 Y237.664056 Z-0.125000 I16.194521 J174.689933
G03 X131.615929 Y237.581952 Z-0.125000 I21.553340 J247.324568
G03 X132.579843 Y237.505420 Z-0.125000 I10.553517 J126.812833
G03 X133.544248 Y237.435418 Z-0.125000 I12.274811 J162.428131
G03 X134.508714 Y237.372600 Z-0.125000 I7.539340 J108.318719
G03 X135.473665 Y237.317868 Z-0.125000 I7.443488 J122.699930
G03 X136.438670 Y237.271330 Z-0.125000 I5.608564 J106.270505
G03 X137.404045 Y237.233701 Z-0.125000 I4.491631 J102.828872
G03 X138.369461 Y237.203965 Z-0.125000 I4.760813 J138.880508
G03 X139.335069 Y237.182098 Z-0.125000 I2.816040 J103.019638
G03 X140.300703 Y237.165801 Z-0.125000 I8.016313 J446.389133
G03 X141.266391 Y237.153806 Z-0.125000 I2.268119 J143.715601
G02 X142.232082 Y237.142942 Z-0.125000 I-1.999468 J-220.648068
G03 X143.197761 Y237.130668 Z-0.125000 I9.406153 J702.059221
G02 X144.163416 Y237.113964 Z-0.125000 I-1.100717 J-91.556768
G00 Z3.000000

(End cutting path id: path148)


(Start cutting path id: path150)
(Change tool to Default tool)

G00 Z3.000000
G00 X10.198233 Y191.136824

G00 Z4.875000 (Fast pre-penetrate)
G01 Z-0.125000 F400.0(Penetrate)
G02 X10.820880 Y191.352674 Z-0.125000 I25.178202 J-71.623795 F800.000000
G03 X12.065565 Y191.793249 Z-0.125000 I-19.694065 J57.616887
G03 X12.994562 Y192.138471 Z-0.125000 I-35.921877 J98.088789
G03 X13.922341 Y192.500656 Z-0.125000 I-15.082618 J40.005261
G03 X14.842840 Y192.881376 Z-0.125000 I-22.352936 J55.347707
G03 X15.761359 Y193.285849 Z-0.125000 I-13.700673 J32.358126
G03 X16.669300 Y193.714292 Z-0.125000 I-17.669204 J38.620147
G03 X17.574389 Y194.171516 Z-0.125000 I-14.734380 J30.291580
G03 X18.466097 Y194.655235 Z-0.125000 I-16.572106 J31.613485
G03 X19.354208 Y195.169254 Z-0.125000 I-18.708022 J33.347605
G03 X20.227792 Y195.708850 Z-0.125000 I-17.270735 J28.937556
G03 X21.097791 Y196.274385 Z-0.125000 I-35.584978 J55.694610
G03 X21.956518 Y196.857131 Z-0.125000 I-23.900832 J36.144040
G03 X22.812697 Y197.456230 Z-0.125000 I-127.400742 J182.981254
G03 X23.663267 Y198.062376 Z-0.125000 I-47.958020 J68.196577
G03 X24.512608 Y198.675793 Z-0.125000 I-4450.928506 J6163.673469
G03 X25.360256 Y199.290199 Z-0.125000 I-186.519624 J258.218647
G03 X26.207259 Y199.908237 Z-0.125000 I-202.526202 J278.445689
G03 X27.052613 Y200.527468 Z-0.125000 I-962.590705 J1314.985055
G03 X27.896786 Y201.153063 Z-0.125000 I-59.392600 J81.026242
G03 X28.736009 Y201.785233 Z-0.125000 I-121.148289 J161.700885
G03 X29.572818 Y202.429752 Z-0.125000 I-39.293939 J51.882559
G03 X30.400767 Y203.086374 Z-0.125000 I-53.605742 J68.443058
G03 X31.225171 Y203.759920 Z-0.125000 I-39.444355 J49.120172
G03 X32.038861 Y204.446786 Z-0.125000 I-44.776096 J53.869010
G03 X32.848280 Y205.152322 Z-0.125000 I-42.344160 J49.396002
G03 X33.646000 Y205.871736 Z-0.125000 I-41.198153 J46.484406
G03 X34.439380 Y206.608611 Z-0.125000 I-60.883292 J66.347552
G03 X35.222757 Y207.356332 Z-0.125000 I-48.706588 J51.813399
G03 X36.002550 Y208.117456 Z-0.125000 I-106.691844 J110.088813
G03 X36.775452 Y208.885237 Z-0.125000 I-72.951386 J74.210889
G03 X37.545746 Y209.662243 Z-0.125000 I-159.707713 J159.098595
G03 X38.311329 Y210.443445 Z-0.125000 I-116.776886 J115.207693
G03 X39.074853 Y211.231614 Z-0.125000 I-160.541288 J156.285438
G03 X39.834010 Y212.024316 Z-0.125000 I-120.444806 J116.107782
G03 X40.591673 Y212.821940 Z-0.125000 I-501.060495 J476.715719
G03 X41.346914 Y213.622195 Z-0.125000 I-163.310351 J154.880732
G02 X42.101871 Y214.423374 Z-0.125000 I238.705280 J-224.177585
G03 X42.857603 Y215.224509 Z-0.125000 I-350.531487 J331.422660
G02 X43.615119 Y216.019709 Z-0.125000 I66.298493 J-62.398253
G02 X44.379315 Y216.808986 Z-0.125000 I189.700161 J-182.907419
G02 X45.147967 Y217.582617 Z-0.125000 I36.095327 J-35.094389
G02 X45.930196 Y218.342584 Z-0.125000 I56.024919 J-56.883449
G02 X46.719074 Y219.076807 Z-0.125000 I25.527518 J-26.636888
G02 X47.526852 Y219.789658 Z-0.125000 I30.435338 J-33.674187
G02 X48.342048 Y220.469490 Z-0.125000 I21.541373 J-25.001857
G02 X49.177893 Y221.122385 Z-0.125000 I20.947907 J-25.956307
G02 X50.020290 Y221.741028 Z-0.125000 I22.849480 J-30.230937
G02 X50.880358 Y222.333358 Z-0.125000 I18.332025 J-25.697706
G02 X51.745090 Y222.897121 Z-0.125000 I32.411852 J-48.770082
G02 X52.621763 Y223.441328 Z-0.125000 I20.771832 J-32.483440
G02 X53.501104 Y223.966872 Z-0.125000 I76.113739 J-126.355249
G02 X54.386524 Y224.482264 Z-0.125000 I32.352787 J-54.562353
G03 X55.273066 Y224.989044 Z-0.125000 I-1086.526719 J1901.761911
G01 X57.049784 Y225.996517 Z-0.125000
G03 X57.936230 Y226.504057 Z-0.125000 I-520.796940 J910.629807
G03 X58.821778 Y227.018588 Z-0.125000 I-43.352809 J75.632765
G03 X59.702548 Y227.541994 Z-0.125000 I-65.602876 J111.397265
G03 X60.581816 Y228.076576 Z-0.125000 I-43.224622 J72.085107
G03 X61.454939 Y228.621950 Z-0.125000 I-45.484467 J73.790593
G03 X62.326423 Y229.178853 Z-0.125000 I-63.475759 J100.292009
G03 X63.192425 Y229.744941 Z-0.125000 I-46.894454 J72.684644
G03 X64.057262 Y230.318867 Z-0.125000 I-300.056208 J453.086556
G03 X64.919485 Y230.896968 Z-0.125000 I-75.775729 J113.949717
G02 X65.781494 Y231.476460 Z-0.125000 I113.389290 J-167.738389
G03 X66.644608 Y232.054537 Z-0.125000 I-342.734186 J512.662882
G02 X67.508670 Y232.626266 Z-0.125000 I44.813318 J-66.788125
G02 X68.378132 Y233.189292 Z-0.125000 I82.201354 J-125.987826
G02 X69.249465 Y233.739150 Z-0.125000 I33.667592 J-52.386122
G02 X70.128733 Y234.275023 Z-0.125000 I37.020246 J-59.754025
G02 X71.010051 Y234.795527 Z-0.125000 I40.230486 J-67.111961
G02 X71.898383 Y235.303406 Z-0.125000 I34.000201 J-58.438967
G02 X72.788334 Y235.798093 Z-0.125000 I55.775708 J-99.293765
G02 X73.683341 Y236.284133 Z-0.125000 I45.752583 J-83.182950
G02 X74.579614 Y236.758860 Z-0.125000 I47.600103 J-88.784390
G02 X75.480569 Y237.226007 Z-0.125000 I63.155585 J-120.701273
G02 X76.382935 Y237.678928 Z-0.125000 I24.469567 J-47.625996
G02 X77.292476 Y238.118066 Z-0.125000 I37.333537 J-76.163659
G02 X78.203880 Y238.535386 Z-0.125000 I14.888926 J-31.312691
G02 X79.125487 Y238.929786 Z-0.125000 I19.117564 J-43.398716
G02 X80.049201 Y239.293964 Z-0.125000 I10.437580 J-25.120644
G02 X80.984529 Y239.626863 Z-0.125000 I11.306952 J-30.288094
G02 X81.921792 Y239.923336 Z-0.125000 I7.797794 J-23.022065
G02 X82.869778 Y240.182593 Z-0.125000 I7.232509 J-24.583224
G02 X83.819257 Y240.403141 Z-0.125000 I6.117432 J-24.181971
G02 X84.776598 Y240.585160 Z-0.125000 I4.851590 J-22.908691
G02 X85.734931 Y240.730880 Z-0.125000 I4.982527 J-29.543588
G02 X86.697653 Y240.842547 Z-0.125000 I3.381773 J-24.949611
G02 X87.660928 Y240.923854 Z-0.125000 I3.863362 J-40.024297
G02 X88.626042 Y240.980396 Z-0.125000 I2.551076 J-35.278938
G02 X89.591305 Y241.009740 Z-0.125000 I1.497049 J-33.354489
G02 X90.557010 Y241.011243 Z-0.125000 I0.535051 J-33.545496
G02 X91.522673 Y240.985372 Z-0.125000 I-0.444534 J-34.628218
G02 X92.487176 Y240.931187 Z-0.125000 I-1.292437 J-31.617126
G02 X93.451523 Y240.852006 Z-0.125000 I-3.273813 J-45.783743
G02 X94.413672 Y240.749308 Z-0.125000 I-3.219393 J-34.719809
G02 X95.375629 Y240.628098 Z-0.125000 I-11.329479 J-93.791672
G02 X96.335640 Y240.492262 Z-0.125000 I-6.256188 J-47.675596
G03 X97.295536 Y240.347584 Z-0.125000 I69.605707 J458.557009
G02 X98.254905 Y240.199660 Z-0.125000 I-16.188263 J-108.174959
G03 X99.214305 Y240.053638 Z-0.125000 I11.926080 J75.132188
G03 X100.174784 Y239.915759 Z-0.125000 I33.514832 J230.053764
G03 X101.135421 Y239.788181 Z-0.125000 I8.021255 J56.718251
G03 X102.097750 Y239.674659 Z-0.125000 I9.710621 J78.181297
G03 X103.060273 Y239.575941 Z-0.125000 I5.923577 J53.014399
G03 X104.024317 Y239.494303 Z-0.125000 I5.198826 J55.658692
G03 X104.988535 Y239.428280 Z-0.125000 I4.906323 J64.579498
G03 X105.953641 Y239.378217 Z-0.125000 I3.239545 J53.124209
G03 X106.918866 Y239.340645 Z-0.125000 I5.374004 J125.639230
G03 X107.884401 Y239.313700 Z-0.125000 I2.365925 J67.466579
G02 X108.849986 Y239.292824 Z-0.125000 I-11.503680 J-554.433780
G03 X109.815608 Y239.274140 Z-0.125000 I3.464749 J154.107297
G02 X110.781220 Y239.253766 Z-0.125000 I-1.603274 J-98.876988
G00 Z3.000000

(End cutting path id: path150)


(Start cutting path id: path152)
(Change tool to Default tool)

G00 Z3.000000
G00 X10.198233 Y189.813909

G00 Z4.875000 (Fast pre-penetrate)
G01 Z-0.125000 F400.0(Penetrate)
G02 X10.822339 Y190.022599 Z-0.125000 I30.285000 J-89.532210 F800.000000
G03 X12.070098 Y190.447082 Z-0.125000 I-23.768979 J71.914540
G03 X13.002457 Y190.777070 Z-0.125000 I-45.906444 J131.187990
G03 X13.933877 Y191.121131 Z-0.125000 I-16.532546 J46.188539
G03 X14.859418 Y191.480887 Z-0.125000 I-26.152097 J68.651602
