%
(Header)
(Generated by gcodetools from Inkscape.)
(Using default header. To add your own header create file "header" in the output dir.)
M3
(Header end.)
G21 (All units in mm)

(Start cutting path id: polyline454)
(Change tool to Default tool)

G00 Z3.000000
G00 X2.943209 Y221.610239

G00 Z4.875000 (Fast pre-penetrate)
G01 Z-0.125000 F400.0(Penetrate)
G01 X4.424080 Y222.055797 Z-0.125000 F800.000000
G01 X5.904951 Y222.367238 Z-0.125000
G01 X7.385848 Y222.536571 Z-0.125000
G01 X8.760939 Y222.561733 Z-0.125000
G01 X10.136030 Y222.457196 Z-0.125000
G01 X11.616901 Y222.199227 Z-0.125000
G01 X13.097772 Y221.792669 Z-0.125000
G01 X14.578669 Y221.242548 Z-0.125000
G01 X17.289190 Y219.891482 Z-0.125000
G01 X20.220082 Y218.002809 Z-0.125000
G01 X23.099565 Y215.831561 Z-0.125000
G01 X30.339402 Y209.989383 Z-0.125000
G01 X32.478450 Y208.440118 Z-0.125000
G01 X34.504362 Y207.155012 Z-0.125000
G01 X36.725669 Y206.008917 Z-0.125000
G01 X38.907314 Y205.202442 Z-0.125000
G01 X41.022867 Y204.760721 Z-0.125000
G01 X43.138393 Y204.678541 Z-0.125000
G01 X45.253920 Y204.966460 Z-0.125000
G01 X47.369472 Y205.620801 Z-0.125000
G01 X49.590779 Y206.682069 Z-0.125000
G01 X51.812086 Y208.089386 Z-0.125000
G01 X53.704304 Y209.521442 Z-0.125000
G01 X55.843351 Y211.344181 Z-0.125000
G01 X62.622471 Y217.742009 Z-0.125000
G01 X65.057693 Y219.924316 Z-0.125000
G01 X67.443543 Y221.821297 Z-0.125000
G01 X69.675142 Y223.290765 Z-0.125000
G01 X71.909678 Y224.395055 Z-0.125000
G01 X74.025204 Y225.051935 Z-0.125000
G01 X75.082981 Y225.227618 Z-0.125000
G01 X76.140757 Y225.297706 Z-0.125000
G01 X77.198507 Y225.260585 Z-0.125000
G01 X78.256283 Y225.115779 Z-0.125000
G01 X80.054495 Y224.624475 Z-0.125000
G01 X81.984919 Y223.763971 Z-0.125000
G01 X83.979981 Y222.536624 Z-0.125000
G01 X86.036743 Y220.951110 Z-0.125000
G01 X88.759911 Y218.444213 Z-0.125000
G01 X101.199281 Y205.757643 Z-0.125000
G01 X102.490922 Y204.654067 Z-0.125000
G01 X104.568269 Y203.314431 Z-0.125000
G01 X106.604473 Y202.375055 Z-0.125000
G01 X107.662223 Y202.048110 Z-0.125000
G01 X108.614219 Y201.852530 Z-0.125000
G01 X110.518211 Y201.749713 Z-0.125000
G01 X111.575961 Y201.860917 Z-0.125000
G01 X112.633738 Y202.092269 Z-0.125000
G01 X113.691514 Y202.442339 Z-0.125000
G01 X114.749264 Y202.908401 Z-0.125000
G01 X116.878046 Y204.181866 Z-0.125000
G01 X119.191904 Y206.028840 Z-0.125000
G01 X121.117036 Y207.878567 Z-0.125000
G01 X123.297967 Y210.243171 Z-0.125000
G01 X130.163843 Y218.492975 Z-0.125000
G01 X132.667857 Y221.349916 Z-0.125000
G01 X135.037250 Y223.754552 Z-0.125000
G01 X137.209212 Y225.601580 Z-0.125000
G01 X139.368818 Y227.021253 Z-0.125000
G01 X140.386933 Y227.528802 Z-0.125000
G01 X141.405022 Y227.925597 Z-0.125000
G01 X142.462799 Y228.216453 Z-0.125000
G01 X143.414795 Y228.369779 Z-0.125000
G01 X144.472545 Y228.417642 Z-0.125000
G01 X145.424541 Y228.349697 Z-0.125000
G01 X147.116972 Y227.969836 Z-0.125000
G01 X148.901955 Y227.217203 Z-0.125000
G01 X150.701622 Y226.109552 Z-0.125000
G01 X152.511582 Y224.669507 Z-0.125000
G01 X153.918422 Y223.346936 Z-0.125000
G01 X165.839474 Y211.348229 Z-0.125000
G01 X178.204760 Y199.059407 Z-0.125000
G01 X178.797109 Y198.604933 Z-0.125000
G01 X179.378900 Y198.403876 Z-0.125000
G01 X180.542431 Y198.473355 Z-0.125000
G01 X181.494427 Y198.630544 Z-0.125000
G01 X182.552203 Y198.931957 Z-0.125000
G01 X183.609953 Y199.364471 Z-0.125000
G01 X184.628068 Y199.901469 Z-0.125000
G01 X185.738708 Y200.617642 Z-0.125000
G01 X187.970307 Y202.441227 Z-0.125000
G01 X190.199869 Y204.719499 Z-0.125000
G01 X192.556907 Y207.532651 Z-0.125000
G01 X195.148444 Y210.972177 Z-0.125000
G01 X199.159152 Y216.626527 Z-0.125000
G00 Z3.000000

(End cutting path id: polyline454)


(Start cutting path id: polyline450)
(Change tool to Default tool)

G00 Z3.000000
G00 X2.943209 Y216.214545

G00 Z4.875000 (Fast pre-penetrate)
G01 Z-0.125000 F400.0(Penetrate)
G01 X4.886862 Y217.164583 Z-0.125000 F800.000000
G01 X6.751166 Y217.899754 Z-0.125000
G01 X8.549378 Y218.421749 Z-0.125000
G01 X10.241810 Y218.728772 Z-0.125000
G01 X11.934242 Y218.846035 Z-0.125000
G01 X13.626673 Y218.767083 Z-0.125000
G01 X15.319105 Y218.490038 Z-0.125000
G01 X17.117290 Y217.982039 Z-0.125000
G01 X18.584959 Y217.410566 Z-0.125000
G01 X20.158381 Y216.651160 Z-0.125000
G01 X21.731803 Y215.752980 Z-0.125000
G01 X23.397803 Y214.669063 Z-0.125000
G01 X26.554939 Y212.324170 Z-0.125000
G01 X34.288409 Y206.086784 Z-0.125000
G01 X36.448015 Y204.540005 Z-0.125000
G01 X38.484220 Y203.273844 Z-0.125000
G01 X40.705526 Y202.164447 Z-0.125000
G01 X42.926833 Y201.390674 Z-0.125000
G01 X45.042386 Y201.002981 Z-0.125000
G01 X47.052132 Y200.971098 Z-0.125000
G01 X49.061904 Y201.274681 Z-0.125000
G01 X51.164201 Y201.946457 Z-0.125000
G01 X53.292957 Y202.976558 Z-0.125000
G01 X55.514263 Y204.390093 Z-0.125000
G01 X57.406508 Y205.827360 Z-0.125000
G01 X59.545556 Y207.655470 Z-0.125000
G01 X66.324675 Y214.062189 Z-0.125000
G01 X68.677611 Y216.172979 Z-0.125000
G01 X71.063462 Y218.076098 Z-0.125000
G01 X73.192218 Y219.491353 Z-0.125000
G01 X75.413524 Y220.614746 Z-0.125000
G01 X77.515848 Y221.296259 Z-0.125000
G01 X78.573624 Y221.487526 Z-0.125000
G01 X79.631374 Y221.573383 Z-0.125000
G01 X81.641146 Y221.440694 Z-0.125000
G01 X83.545112 Y220.957513 Z-0.125000
G01 X85.501995 Y220.109471 Z-0.125000
G01 X87.517641 Y218.887998 Z-0.125000
G01 X89.574403 Y217.316957 Z-0.125000
G01 X92.388058 Y214.735156 Z-0.125000
G01 X104.901458 Y201.997813 Z-0.125000
G01 X106.193100 Y200.885850 Z-0.125000
G01 X108.270446 Y199.558437 Z-0.125000
G01 X110.306651 Y198.631602 Z-0.125000
G01 X111.364427 Y198.311536 Z-0.125000
G01 X112.316397 Y198.122254 Z-0.125000
G01 X114.220389 Y198.032216 Z-0.125000
G01 X115.278165 Y198.150458 Z-0.125000
G01 X116.335915 Y198.388689 Z-0.125000
G01 X117.393692 Y198.745426 Z-0.125000
G01 X118.451468 Y199.217892 Z-0.125000
G01 X120.580223 Y200.502972 Z-0.125000
G01 X122.894081 Y202.360344 Z-0.125000
G01 X124.819214 Y204.216553 Z-0.125000
G01 X127.000145 Y206.585841 Z-0.125000
G01 X133.798711 Y214.751904 Z-0.125000
G01 X136.154637 Y217.446788 Z-0.125000
G01 X138.443280 Y219.796999 Z-0.125000
G01 X140.582328 Y221.660378 Z-0.125000
G01 X142.608240 Y223.058963 Z-0.125000
G01 X144.578325 Y224.027787 Z-0.125000
G01 X146.482317 Y224.564758 Z-0.125000
G01 X147.434313 Y224.679375 Z-0.125000
G01 X148.386283 Y224.689535 Z-0.125000
G01 X149.338279 Y224.594682 Z-0.125000
G01 X150.290275 Y224.395187 Z-0.125000
G01 X152.141377 Y223.712404 Z-0.125000
G01 X154.074738 Y222.599647 Z-0.125000
G01 X156.131500 Y221.001936 Z-0.125000
G01 X157.546570 Y219.680424 Z-0.125000
G01 X169.541652 Y207.656105 Z-0.125000
G01 X181.906965 Y195.421470 Z-0.125000
G01 X182.499313 Y194.924107 Z-0.125000
G01 X182.869517 Y194.720034 Z-0.125000
G01 X183.186858 Y194.677171 Z-0.125000
G01 X184.667729 Y194.802954 Z-0.125000
G01 X185.619725 Y195.003217 Z-0.125000
G01 X186.571722 Y195.310371 Z-0.125000
G01 X188.422797 Y196.205985 Z-0.125000
G01 X190.356158 Y197.541097 Z-0.125000
G01 X192.347119 Y199.305416 Z-0.125000
G01 X194.379963 Y201.462217 Z-0.125000
G01 X196.601269 Y204.153873 Z-0.125000
G01 X199.159152 Y207.564189 Z-0.125000
G00 Z3.000000

(End cutting path id: polyline450)


(Start cutting path id: polyline444)
(Change tool to Default tool)

G00 Z3.000000
G00 X2.943209 Y208.144340

G00 Z4.875000 (Fast pre-penetrate)
G01 Z-0.125000 F400.0(Penetrate)
G01 X5.812400 Y210.001501 Z-0.125000 F800.000000
G01 X8.218835 Y211.374026 Z-0.125000
G01 X10.453371 Y212.430638 Z-0.125000
G01 X12.568897 Y213.191235 Z-0.125000
G01 X14.578669 Y213.665764 Z-0.125000
G01 X16.588415 Y213.876399 Z-0.125000
G01 X18.598188 Y213.809988 Z-0.125000
G01 X20.607934 Y213.462564 Z-0.125000
G01 X22.300365 Y212.955888 Z-0.125000
G01 X24.045687 Y212.237916 Z-0.125000
G01 X25.896763 Y211.276077 Z-0.125000
G01 X27.747865 Y210.131676 Z-0.125000
G01 X31.244382 Y207.582022 Z-0.125000
G01 X39.471458 Y200.947259 Z-0.125000
G01 X41.723615 Y199.355872 Z-0.125000
G01 X43.759819 Y198.122915 Z-0.125000
G01 X45.994355 Y197.054370 Z-0.125000
G01 X48.109908 Y196.363518 Z-0.125000
G01 X50.225434 Y196.018951 Z-0.125000
G01 X52.340960 Y196.041123 Z-0.125000
G01 X54.350733 Y196.407968 Z-0.125000
G01 X56.347276 Y197.099455 Z-0.125000
G01 X58.476032 Y198.175170 Z-0.125000
G01 X60.615079 Y199.572142 Z-0.125000
G01 X62.507298 Y201.032138 Z-0.125000
G01 X64.564060 Y202.806431 Z-0.125000
G01 X71.063462 Y208.965183 Z-0.125000
G01 X73.449313 Y211.117750 Z-0.125000
G01 X75.752905 Y212.975097 Z-0.125000
G01 X77.912511 Y214.436971 Z-0.125000
G01 X80.041266 Y215.548563 Z-0.125000
G01 X82.170021 Y216.282887 Z-0.125000
G01 X84.179794 Y216.597582 Z-0.125000
G01 X86.189540 Y216.527097 Z-0.125000
G01 X88.093532 Y216.101780 Z-0.125000
G01 X90.129736 Y215.270725 Z-0.125000
G01 X92.165941 Y214.074995 Z-0.125000
G01 X94.346105 Y212.433866 Z-0.125000
G01 X97.423046 Y209.604653 Z-0.125000
G01 X110.158564 Y196.667153 Z-0.125000
G01 X111.293889 Y195.757834 Z-0.125000
G01 X113.360944 Y194.475691 Z-0.125000
G01 X115.383946 Y193.597673 Z-0.125000
G01 X116.441696 Y193.300573 Z-0.125000
G01 X117.393692 Y193.132404 Z-0.125000
G01 X119.297684 Y193.085096 Z-0.125000
G01 X120.355434 Y193.227018 Z-0.125000
G01 X121.413210 Y193.488532 Z-0.125000
G01 X123.449414 Y194.321228 Z-0.125000
G01 X125.609020 Y195.652821 Z-0.125000
G01 X127.830327 Y197.454526 Z-0.125000
G01 X129.780145 Y199.342087 Z-0.125000
G01 X131.913954 Y201.664226 Z-0.125000
G01 X138.712520 Y209.821611 Z-0.125000
G01 X141.108848 Y212.554383 Z-0.125000
G01 X143.404211 Y214.898800 Z-0.125000
G01 X145.518574 Y216.728921 Z-0.125000
G01 X147.606186 Y218.154362 Z-0.125000
G01 X149.549839 Y219.092123 Z-0.125000
G01 X150.607616 Y219.432218 Z-0.125000
G01 X151.559585 Y219.631555 Z-0.125000
G01 X152.511582 Y219.727758 Z-0.125000
G01 X153.463578 Y219.719741 Z-0.125000
G01 X155.261790 Y219.419730 Z-0.125000
G01 X157.139323 Y218.714960 Z-0.125000
G01 X159.082977 Y217.582413 Z-0.125000
G01 X161.067746 Y216.035819 Z-0.125000
G01 X162.359414 Y214.837946 Z-0.125000
G01 X173.243829 Y203.978137 Z-0.125000
G01 X187.090013 Y190.341238 Z-0.125000
G01 X187.774913 Y189.855834 Z-0.125000
G01 X188.369907 Y189.719891 Z-0.125000
G01 X190.379679 Y189.976749 Z-0.125000
G01 X191.754770 Y190.410321 Z-0.125000
G01 X193.235641 Y191.119112 Z-0.125000
G01 X194.623961 Y192.001920 Z-0.125000
G01 X196.115125 Y193.171244 Z-0.125000
G01 X197.604224 Y194.549246 Z-0.125000
G01 X199.159152 Y196.188575 Z-0.125000
G00 Z3.000000

(End cutting path id: polyline444)


(Start cutting path id: polyline434)
(Change tool to Default tool)

G00 Z3.000000
G00 X2.943209 Y195.555111

G00 Z4.875000 (Fast pre-penetrate)
G01 Z-0.125000 F400.0(Penetrate)
G01 X12.568897 Y202.047872 Z-0.125000 F800.000000
G01 X14.975332 Y203.495696 Z-0.125000
G01 X17.196639 Y204.634409 Z-0.125000
G01 X19.550157 Y205.573890 Z-0.125000
G01 X21.877244 Y206.183278 Z-0.125000
G01 X24.098577 Y206.434764 Z-0.125000
G01 X26.319884 Y206.344700 Z-0.125000
G01 X28.223876 Y205.991746 Z-0.125000
G01 X30.233622 Y205.349365 Z-0.125000
G01 X32.283056 Y204.425706 Z-0.125000
G01 X34.411811 Y203.208492 Z-0.125000
G01 X36.262913 Y201.968312 Z-0.125000
G01 X38.319675 Y200.434550 Z-0.125000
G01 X44.819077 Y195.126089 Z-0.125000
G01 X47.204928 Y193.271971 Z-0.125000
G01 X49.590779 Y191.619359 Z-0.125000
G01 X51.719534 Y190.385926 Z-0.125000
G01 X53.927612 Y189.406810 Z-0.125000
G01 X56.148945 Y188.778505 Z-0.125000
G01 X58.264471 Y188.544667 Z-0.125000
G01 X60.379997 Y188.683149 Z-0.125000
G01 X62.283990 Y189.127940 Z-0.125000
G01 X64.214414 Y189.879461 Z-0.125000
G01 X66.158067 Y190.922104 Z-0.125000
G01 X68.266264 Y192.342809 Z-0.125000
G01 X70.076224 Y193.766292 Z-0.125000
G01 X72.026042 Y195.464094 Z-0.125000
G01 X78.319757 Y201.444411 Z-0.125000
G01 X80.606892 Y203.520805 Z-0.125000
G01 X82.828198 Y205.338570 Z-0.125000
G01 X84.946661 Y206.812747 Z-0.125000
G01 X87.075417 Y207.974504 Z-0.125000
G01 X89.045528 Y208.719067 Z-0.125000
G01 X91.055274 Y209.118747 Z-0.125000
G01 X92.959266 Y209.144067 Z-0.125000
G01 X94.969012 Y208.791484 Z-0.125000
G01 X97.071336 Y208.013239 Z-0.125000
G01 X99.200091 Y206.822933 Z-0.125000
G01 X101.421398 Y205.193922 Z-0.125000
G01 X104.309110 Y202.592066 Z-0.125000
G01 X117.488889 Y189.263644 Z-0.125000
G01 X118.780556 Y188.202085 Z-0.125000
G01 X120.857877 Y186.945924 Z-0.125000
G01 X122.894081 Y186.097591 Z-0.125000
G01 X123.951858 Y185.820282 Z-0.125000
G01 X124.903854 Y185.670158 Z-0.125000
G01 X125.961604 Y185.616050 Z-0.125000
G01 X126.913600 Y185.669708 Z-0.125000
G01 X127.865596 Y185.820467 Z-0.125000
G01 X128.923372 Y186.101057 Z-0.125000
G01 X129.928232 Y186.476130 Z-0.125000
G01 X131.038898 Y187.010350 Z-0.125000
G01 X133.095661 Y188.314532 Z-0.125000
G01 X135.316994 Y190.138541 Z-0.125000
G01 X137.184527 Y191.955168 Z-0.125000
G01 X139.318335 Y194.277995 Z-0.125000
G01 X145.982282 Y202.259829 Z-0.125000
G01 X148.439173 Y205.061313 Z-0.125000
G01 X150.734536 Y207.406418 Z-0.125000
G01 X152.840670 Y209.234316 Z-0.125000
G01 X154.918017 Y210.663303 Z-0.125000
G01 X156.954221 Y211.651282 Z-0.125000
G01 X158.011971 Y211.990292 Z-0.125000
G01 X158.963967 Y212.189365 Z-0.125000
G01 X159.915963 Y212.285964 Z-0.125000
G01 X160.867959 Y212.279085 Z-0.125000
G01 X161.819955 Y212.168410 Z-0.125000
G01 X162.771925 Y211.954335 Z-0.125000
G01 X164.636256 Y211.241099 Z-0.125000
G01 X166.487358 Y210.163135 Z-0.125000
G01 X168.472128 Y208.629453 Z-0.125000
G01 X169.763769 Y207.441079 Z-0.125000
G01 X184.350389 Y193.034825 Z-0.125000
G01 X195.292430 Y182.413644 Z-0.125000
G01 X195.668508 Y182.267700 Z-0.125000
G01 X197.043626 Y182.368373 Z-0.125000
G01 X198.101376 Y182.565911 Z-0.125000
G01 X199.159152 Y182.893015 Z-0.125000
G00 Z3.000000

(End cutting path id: polyline434)


(Start cutting path id: polyline194)
(Change tool to Default tool)

G00 Z3.000000
G00 X2.943209 Y182.866848

G00 Z4.875000 (Fast pre-penetrate)
G01 Z-0.125000 F400.0(Penetrate)
G01 X4.635640 Y183.337567 Z-0.125000 F800.000000
G01 X6.328072 Y183.960634 Z-0.125000
G01 X8.126284 Y184.776528 Z-0.125000
G01 X9.977359 Y185.762947 Z-0.125000
G01 X13.401883 Y187.893210 Z-0.125000
G01 X21.454150 Y193.405877 Z-0.125000
G01 X23.675456 Y194.752525 Z-0.125000
G01 X25.711660 Y195.820382 Z-0.125000
G01 X27.906535 Y196.743909 Z-0.125000
G01 X29.916281 Y197.345914 Z-0.125000
G01 X31.926054 Y197.688020 Z-0.125000
G01 X33.935800 Y197.752473 Z-0.125000
G01 X36.051352 Y197.511358 Z-0.125000
G01 X38.166879 Y196.955522 Z-0.125000
G01 X40.335295 Y196.074381 Z-0.125000
G01 X42.649179 Y194.818856 Z-0.125000
G01 X44.572248 Y193.563039 Z-0.125000
G01 X46.711296 Y191.987024 Z-0.125000
G01 X53.622045 Y186.335293 Z-0.125000
G01 X56.090181 Y184.423231 Z-0.125000
G01 X58.476032 Y182.789404 Z-0.125000
G01 X60.604787 Y181.581345 Z-0.125000
G01 X62.812865 Y180.636413 Z-0.125000
G01 X65.034198 Y180.049409 Z-0.125000
G01 X67.149724 Y179.859809 Z-0.125000
G01 X69.265250 Y180.045520 Z-0.125000
G01 X71.169242 Y180.533781 Z-0.125000
G01 X73.007115 Y181.283848 Z-0.125000
G01 X74.950768 Y182.354668 Z-0.125000
G01 X76.986973 Y183.749311 Z-0.125000
G01 X78.714647 Y185.117708 Z-0.125000
G01 X80.689150 Y186.844218 Z-0.125000
G01 X86.908835 Y192.765771 Z-0.125000
G01 X89.163056 Y194.815707 Z-0.125000
G01 X91.384363 Y196.638155 Z-0.125000
G01 X93.369132 Y198.032296 Z-0.125000
G01 X95.405336 Y199.176061 Z-0.125000
G01 X97.401880 Y199.971239 Z-0.125000
G01 X99.305872 Y200.398117 Z-0.125000
G01 X101.209837 Y200.482810 Z-0.125000
G01 X102.267614 Y200.378776 Z-0.125000
G01 X103.325390 Y200.166766 Z-0.125000
G01 X105.401256 Y199.442840 Z-0.125000
G01 X107.530011 Y198.297302 Z-0.125000
G01 X109.813018 Y196.660115 Z-0.125000
G01 X112.824132 Y193.970047 Z-0.125000
G01 X126.374141 Y180.325819 Z-0.125000
G01 X127.521823 Y179.418987 Z-0.125000
G01 X129.650579 Y178.164361 Z-0.125000
G01 X131.673554 Y177.360346 Z-0.125000
G01 X132.731330 Y177.103172 Z-0.125000
G01 X133.683326 Y176.971171 Z-0.125000
G01 X134.741076 Y176.936987 Z-0.125000
G01 X135.693072 Y177.008266 Z-0.125000
G01 X136.645068 Y177.176170 Z-0.125000
G01 X137.702845 Y177.475017 Z-0.125000
G01 X139.739049 Y178.374334 Z-0.125000
G01 X141.816369 Y179.705901 Z-0.125000
G01 X143.996560 Y181.504827 Z-0.125000
G01 X145.921692 Y183.382070 Z-0.125000
G01 X148.001659 Y185.647430 Z-0.125000
G01 X154.598268 Y193.525759 Z-0.125000
G01 X156.954221 Y196.211621 Z-0.125000
G01 X159.249558 Y198.569452 Z-0.125000
G01 X161.314575 Y200.384809 Z-0.125000
G01 X163.340488 Y201.817790 Z-0.125000
G01 X165.310573 Y202.832096 Z-0.125000
G01 X166.368349 Y203.209682 Z-0.125000
G01 X167.320345 Y203.445267 Z-0.125000
G01 X168.272341 Y203.579913 Z-0.125000
G01 X169.224311 Y203.612351 Z-0.125000
G01 X170.176307 Y203.541998 Z-0.125000
G01 X171.128303 Y203.369014 Z-0.125000
G01 X172.966176 Y202.748752 Z-0.125000
G01 X174.909829 Y201.697379 Z-0.125000
G01 X176.946033 Y200.191213 Z-0.125000
G01 X178.500935 Y198.790326 Z-0.125000
G01 X199.159152 Y178.659581 Z-0.125000
G00 Z3.000000

(End cutting path id: polyline194)


(Start cutting path id: polyline184)
(Change tool to Default tool)

G00 Z3.000000
G00 X2.943209 Y178.677388

G00 Z4.875000 (Fast pre-penetrate)
G01 Z-0.125000 F400.0(Penetrate)
G01 X5.164515 Y178.846932 Z-0.125000 F800.000000
G01 X7.385848 Y179.300004 Z-0.125000
G01 X9.712935 Y180.066925 Z-0.125000
G01 X12.106115 Y181.140470 Z-0.125000
G01 X14.142319 Y182.249708 Z-0.125000
G01 X16.456203 Y183.683166 Z-0.125000
G01 X25.804212 Y190.049430 Z-0.125000
G01 X28.025545 Y191.354882 Z-0.125000
G01 X30.154300 Y192.412473 Z-0.125000
G01 X32.031834 Y193.150845 Z-0.125000
G01 X33.935800 Y193.685409 Z-0.125000
G01 X35.839792 Y193.982959 Z-0.125000
G01 X37.638004 Y194.033494 Z-0.125000
G01 X39.753530 Y193.798544 Z-0.125000
G01 X41.869083 Y193.247524 Z-0.125000
G01 X44.037499 Y192.369822 Z-0.125000
G01 X46.351357 Y191.116334 Z-0.125000
G01 X48.356711 Y189.803526 Z-0.125000
G01 X50.495759 Y188.220658 Z-0.125000
G01 X57.324223 Y182.625178 Z-0.125000
G01 X59.792359 Y180.709755 Z-0.125000
G01 X62.178209 Y179.073019 Z-0.125000
G01 X64.306965 Y177.862816 Z-0.125000
G01 X66.515069 Y176.916376 Z-0.125000
G01 X68.736375 Y176.328631 Z-0.125000
G01 X70.851902 Y176.139084 Z-0.125000
G01 X72.967454 Y176.325642 Z-0.125000
G01 X74.871420 Y176.815147 Z-0.125000
G01 X76.709293 Y177.566827 Z-0.125000
G01 X78.652946 Y178.639605 Z-0.125000
G01 X80.689150 Y180.036471 Z-0.125000
G01 X82.416824 Y181.406720 Z-0.125000
G01 X84.391328 Y183.135135 Z-0.125000
G01 X92.782975 Y191.037462 Z-0.125000
G01 X95.004281 Y192.867424 Z-0.125000
G01 X96.978785 Y194.263496 Z-0.125000
G01 X99.014989 Y195.418983 Z-0.125000
G01 X100.998303 Y196.222786 Z-0.125000
G01 X102.902269 Y196.665169 Z-0.125000
G01 X104.806261 Y196.765895 Z-0.125000
G01 X105.864038 Y196.670857 Z-0.125000
G01 X106.921788 Y196.467869 Z-0.125000
G01 X109.010882 Y195.755374 Z-0.125000
G01 X111.139637 Y194.623990 Z-0.125000
G01 X113.432937 Y192.992254 Z-0.125000
G01 X116.452279 Y190.306842 Z-0.125000
G01 X130.076319 Y176.616842 Z-0.125000
G01 X131.224001 Y175.693368 Z-0.125000
G01 X133.352756 Y174.441864 Z-0.125000
G01 X135.375758 Y173.639119 Z-0.125000
G01 X136.433508 Y173.382341 Z-0.125000
G01 X137.385504 Y173.250499 Z-0.125000
G01 X138.443280 Y173.216236 Z-0.125000
G01 X139.395276 Y173.287250 Z-0.125000
G01 X140.347246 Y173.454651 Z-0.125000
G01 X141.405022 Y173.752678 Z-0.125000
G01 X143.441227 Y174.649667 Z-0.125000
G01 X145.518574 Y175.977847 Z-0.125000
G01 X147.739880 Y177.809767 Z-0.125000
G01 X149.623870 Y179.645126 Z-0.125000
G01 X151.703836 Y181.905406 Z-0.125000
G01 X158.300472 Y189.770215 Z-0.125000
G01 X160.656399 Y192.454119 Z-0.125000
G01 X162.951762 Y194.812426 Z-0.125000
G01 X165.016753 Y196.630588 Z-0.125000
G01 X167.042665 Y198.068755 Z-0.125000
G01 X169.012777 Y199.090548 Z-0.125000
G01 X170.916742 Y199.691998 Z-0.125000
G01 X171.868738 Y199.843498 Z-0.125000
G01 X172.820735 Y199.893399 Z-0.125000
G01 X173.772731 Y199.840985 Z-0.125000
G01 X174.724700 Y199.686363 Z-0.125000
G01 X176.575802 Y199.096634 Z-0.125000
G01 X178.426904 Y198.137864 Z-0.125000
G01 X180.401408 Y196.735442 Z-0.125000
G01 X182.203139 Y195.147494 Z-0.125000
G01 X199.159152 Y178.659581 Z-0.125000
G00 Z3.000000

(End cutting path id: polyline184)


(Start cutting path id: polyline186)
(Change tool to Default tool)

G00 Z3.000000
G00 X2.943209 Y177.468243

G00 Z4.875000 (Fast pre-penetrate)
G01 Z-0.125000 F400.0(Penetrate)
G01 X5.164515 Y177.474408 Z-0.125000 F800.000000
G01 X7.280068 Y177.745182 Z-0.125000
G01 X9.395594 Y178.271279 Z-0.125000
G01 X11.643359 Y179.095455 Z-0.125000
G01 X14.049768 Y180.249937 Z-0.125000
G01 X16.548754 Y181.696200 Z-0.125000
G01 X19.140292 Y183.389770 Z-0.125000
G01 X26.174443 Y188.242513 Z-0.125000
G01 X28.303198 Y189.561538 Z-0.125000
G01 X30.246851 Y190.621220 Z-0.125000
G01 X32.560709 Y191.649284 Z-0.125000
G01 X34.676235 Y192.324129 Z-0.125000
G01 X36.791788 Y192.712431 Z-0.125000
G01 X38.907314 Y192.792520 Z-0.125000
G01 X41.022867 Y192.554263 Z-0.125000
G01 X43.138393 Y191.999671 Z-0.125000
G01 X45.333268 Y191.105566 Z-0.125000
G01 X47.647126 Y189.844616 Z-0.125000
G01 X49.590779 Y188.569405 Z-0.125000
G01 X51.729827 Y186.986299 Z-0.125000
G01 X58.558291 Y181.388596 Z-0.125000
G01 X61.026427 Y179.472116 Z-0.125000
G01 X63.381427 Y177.853767 Z-0.125000
G01 X65.602734 Y176.592474 Z-0.125000
G01 X67.890159 Y175.627830 Z-0.125000
G01 X70.005686 Y175.082260 Z-0.125000
G01 X72.121238 Y174.898878 Z-0.125000
G01 X74.130984 Y175.073264 Z-0.125000
G01 X76.034977 Y175.551974 Z-0.125000
G01 X77.912511 Y176.312704 Z-0.125000
G01 X79.856164 Y177.381804 Z-0.125000
G01 X81.840933 Y178.737025 Z-0.125000
G01 X83.650892 Y180.169159 Z-0.125000
G01 X85.543137 Y181.823279 Z-0.125000
G01 X94.017016 Y189.801171 Z-0.125000
G01 X96.238349 Y191.630763 Z-0.125000
G01 X98.274554 Y193.065808 Z-0.125000
G01 X100.310732 Y194.211003 Z-0.125000
G01 X102.267614 Y194.995227 Z-0.125000
G01 X104.171606 Y195.430598 Z-0.125000
G01 X106.075572 Y195.524049 Z-0.125000
G01 X107.133348 Y195.424936 Z-0.125000
G01 X108.191124 Y195.217900 Z-0.125000
G01 X110.306651 Y194.486010 Z-0.125000
G01 X112.435406 Y193.342562 Z-0.125000
G01 X114.749264 Y191.683177 Z-0.125000
G01 X116.230161 Y190.424661 Z-0.125000
G01 X117.859120 Y188.894657 Z-0.125000
G01 X131.483160 Y175.213202 Z-0.125000
G01 X132.108422 Y174.687714 Z-0.125000
G01 X134.370872 Y173.310824 Z-0.125000
G01 X135.481538 Y172.797877 Z-0.125000
G01 X136.539288 Y172.420555 Z-0.125000
G01 X137.597064 Y172.155972 Z-0.125000
G01 X138.654841 Y172.007409 Z-0.125000
G01 X139.712591 Y171.976850 Z-0.125000
G01 X140.664587 Y172.051092 Z-0.125000
G01 X141.616583 Y172.221642 Z-0.125000
G01 X142.674359 Y172.523108 Z-0.125000
G01 X144.736995 Y173.440417 Z-0.125000
G01 X146.834900 Y174.793971 Z-0.125000
G01 X149.031521 Y176.615863 Z-0.125000
G01 X150.882623 Y178.422568 Z-0.125000
G01 X152.982777 Y180.706104 Z-0.125000
G01 X159.579387 Y188.568003 Z-0.125000
G01 X161.915152 Y191.225554 Z-0.125000
G01 X164.210489 Y193.581057 Z-0.125000
G01 X166.250821 Y195.376835 Z-0.125000
G01 X168.245883 Y196.798069 Z-0.125000
G01 X170.189536 Y197.817877 Z-0.125000
G01 X172.080299 Y198.431842 Z-0.125000
G01 X173.032295 Y198.593000 Z-0.125000
G01 X173.984265 Y198.652796 Z-0.125000
G01 X175.782477 Y198.487114 Z-0.125000
G01 X177.686469 Y197.917731 Z-0.125000
G01 X179.630122 Y196.933006 Z-0.125000
G01 X181.553191 Y195.583897 Z-0.125000
G01 X183.535923 Y193.841989 Z-0.125000
G01 X199.159152 Y178.659581 Z-0.125000
G00 Z3.000000

(End cutting path id: polyline186)


(Start cutting path id: polyline182)
(Change tool to Default tool)

G00 Z3.000000
G00 X2.943209 Y179.980247

G00 Z4.875000 (Fast pre-penetrate)
G01 Z-0.125000 F400.0(Penetrate)
G01 X4.952981 Y180.269119 Z-0.125000 F800.000000
G01 X7.068507 Y180.820166 Z-0.125000
G01 X9.236924 Y181.633521 Z-0.125000
G01 X11.458257 Y182.701536 Z-0.125000
G01 X13.401883 Y183.801831 Z-0.125000
G01 X15.438088 Y185.085191 Z-0.125000
G01 X24.323341 Y191.149407 Z-0.125000
G01 X26.544647 Y192.471528 Z-0.125000
G01 X28.673403 Y193.550736 Z-0.125000
G01 X30.762497 Y194.385574 Z-0.125000
G01 X32.666489 Y194.921725 Z-0.125000
G01 X34.570481 Y195.221472 Z-0.125000
G01 X36.368667 Y195.274415 Z-0.125000
G01 X38.484220 Y195.042746 Z-0.125000
G01 X40.705526 Y194.459869 Z-0.125000
G01 X42.926833 Y193.545735 Z-0.125000
G01 X45.148139 Y192.331855 Z-0.125000
G01 X47.122643 Y191.037541 Z-0.125000
G01 X49.261691 Y189.454885 Z-0.125000
G01 X56.090181 Y183.861786 Z-0.125000
G01 X58.476032 Y182.008276 Z-0.125000
G01 X60.882441 Y180.350663 Z-0.125000
G01 X63.103747 Y179.086830 Z-0.125000
G01 X65.351512 Y178.131897 Z-0.125000
G01 X67.572819 Y177.556640 Z-0.125000
G01 X69.688371 Y177.379449 Z-0.125000
G01 X71.803898 Y177.578363 Z-0.125000
G01 X73.602110 Y178.043023 Z-0.125000
G01 X75.506075 Y178.820792 Z-0.125000
G01 X77.449728 Y179.897380 Z-0.125000
G01 X79.455082 Y181.274296 Z-0.125000
G01 X81.182783 Y182.644095 Z-0.125000
G01 X83.132601 Y184.349333 Z-0.125000
G01 X91.548907 Y192.273435 Z-0.125000
G01 X93.770213 Y194.103794 Z-0.125000
G01 X95.775567 Y195.520159 Z-0.125000
G01 X97.811772 Y196.671598 Z-0.125000
G01 X99.834747 Y197.483656 Z-0.125000
G01 X101.738739 Y197.914556 Z-0.125000
G01 X103.642705 Y198.003403 Z-0.125000
G01 X104.700481 Y197.901697 Z-0.125000
G01 X105.758257 Y197.692015 Z-0.125000
G01 X107.807664 Y196.984256 Z-0.125000
G01 X110.028997 Y195.789849 Z-0.125000
G01 X112.281154 Y194.170389 Z-0.125000
G01 X113.762025 Y192.912323 Z-0.125000
G01 X115.341612 Y191.430791 Z-0.125000
G01 X128.669505 Y178.030403 Z-0.125000
G01 X129.835681 Y177.036153 Z-0.125000
G01 X132.057014 Y175.712867 Z-0.125000
G01 X134.106421 Y174.889803 Z-0.125000
G01 X135.164197 Y174.629109 Z-0.125000
G01 X136.116193 Y174.493801 Z-0.125000
G01 X137.173943 Y174.455754 Z-0.125000
G01 X138.125939 Y174.523355 Z-0.125000
G01 X139.077935 Y174.687476 Z-0.125000
G01 X140.135712 Y174.981983 Z-0.125000
G01 X141.219920 Y175.404284 Z-0.125000
G01 X142.238009 Y175.908579 Z-0.125000
G01 X144.284505 Y177.221414 Z-0.125000
G01 X146.505812 Y179.055080 Z-0.125000
G01 X148.365143 Y180.866547 Z-0.125000
G01 X150.424895 Y183.103173 Z-0.125000
G01 X157.088841 Y191.049977 Z-0.125000
G01 X159.471702 Y193.761873 Z-0.125000
G01 X161.767065 Y196.113275 Z-0.125000
G01 X163.864970 Y197.948476 Z-0.125000
G01 X165.932025 Y199.394501 Z-0.125000
G01 X167.875678 Y200.378300 Z-0.125000
G01 X169.753212 Y200.950884 Z-0.125000
G01 X170.705182 Y201.092886 Z-0.125000
G01 X171.657178 Y201.133050 Z-0.125000
G01 X173.455390 Y200.929347 Z-0.125000
G01 X175.359382 Y200.319272 Z-0.125000
G01 X177.316238 Y199.285493 Z-0.125000
G01 X179.249599 Y197.887251 Z-0.125000
G01 X181.018442 Y196.311659 Z-0.125000
G01 X199.159152 Y178.659581 Z-0.125000
G00 Z3.000000

(End cutting path id: polyline182)


(Start cutting path id: polyline188)
(Change tool to Default tool)

G00 Z3.000000
G00 X2.943209 Y176.351333

G00 Z4.875000 (Fast pre-penetrate)
G01 Z-0.125000 F400.0(Penetrate)
G01 X5.376076 Y176.195864 Z-0.125000 F800.000000
G01 X7.808943 Y176.379961 Z-0.125000
G01 X10.241810 Y176.904999 Z-0.125000
G01 X12.661448 Y177.749918 Z-0.125000
G01 X15.067883 Y178.877994 Z-0.125000
G01 X17.751972 Y180.417365 Z-0.125000
G01 X20.343483 Y182.108632 Z-0.125000
G01 X27.377660 Y186.966852 Z-0.125000
G01 X29.506416 Y188.290429 Z-0.125000
G01 X31.450069 Y189.355031 Z-0.125000
G01 X33.724266 Y190.374629 Z-0.125000
G01 X35.945572 Y191.088368 Z-0.125000
G01 X38.061098 Y191.474315 Z-0.125000
G01 X40.070871 Y191.555198 Z-0.125000
G01 X42.186397 Y191.329588 Z-0.125000
G01 X44.407704 Y190.751659 Z-0.125000
G01 X46.629037 Y189.840991 Z-0.125000
G01 X48.850343 Y188.629042 Z-0.125000
G01 X50.824847 Y187.335231 Z-0.125000
G01 X52.963868 Y185.751993 Z-0.125000
G01 X59.792359 Y180.151935 Z-0.125000
G01 X62.260495 Y178.234502 Z-0.125000
G01 X64.677196 Y176.576387 Z-0.125000
G01 X66.805951 Y175.368671 Z-0.125000
G01 X69.053716 Y174.412151 Z-0.125000
G01 X71.169242 Y173.854595 Z-0.125000
G01 X73.284769 Y173.658724 Z-0.125000
G01 X75.400321 Y173.839276 Z-0.125000
G01 X77.198507 Y174.289040 Z-0.125000
G01 X79.115728 Y175.058580 Z-0.125000
G01 X81.059381 Y176.123791 Z-0.125000
G01 X83.157286 Y177.559948 Z-0.125000
G01 X84.884961 Y178.931308 Z-0.125000
G01 X86.834778 Y180.638159 Z-0.125000
G01 X95.251084 Y188.564431 Z-0.125000
G01 X97.472391 Y190.393705 Z-0.125000
G01 X99.477745 Y191.808457 Z-0.125000
G01 X101.513949 Y192.957805 Z-0.125000
G01 X103.431170 Y193.733880 Z-0.125000
G01 X105.335136 Y194.180840 Z-0.125000
G01 X107.239128 Y194.286435 Z-0.125000
G01 X108.296878 Y194.194122 Z-0.125000
G01 X109.354655 Y193.993886 Z-0.125000
G01 X111.417317 Y193.298244 Z-0.125000
G01 X113.638624 Y192.119527 Z-0.125000
G01 X115.901073 Y190.506153 Z-0.125000
G01 X117.381944 Y189.255310 Z-0.125000
G01 X118.969760 Y187.772349 Z-0.125000
G01 X132.371682 Y174.325288 Z-0.125000
G01 X133.537885 Y173.314422 Z-0.125000
G01 X135.759191 Y171.993333 Z-0.125000
G01 X137.808625 Y171.170427 Z-0.125000
G01 X138.866375 Y170.909469 Z-0.125000
G01 X139.818371 Y170.773711 Z-0.125000
G01 X140.876147 Y170.734897 Z-0.125000
G01 X141.828143 Y170.801572 Z-0.125000
G01 X142.780113 Y170.964502 Z-0.125000
G01 X143.837889 Y171.257475 Z-0.125000
G01 X144.922098 Y171.677871 Z-0.125000
G01 X145.940213 Y172.180129 Z-0.125000
G01 X147.986683 Y173.488227 Z-0.125000
G01 X150.208016 Y175.315993 Z-0.125000
G01 X152.067320 Y177.122142 Z-0.125000
G01 X154.194409 Y179.428962 Z-0.125000
G01 X160.791019 Y187.284908 Z-0.125000
G01 X163.173880 Y189.995349 Z-0.125000
G01 X165.469243 Y192.348180 Z-0.125000
G01 X167.567148 Y194.187508 Z-0.125000
G01 X169.541652 Y195.583818 Z-0.125000
G01 X171.485305 Y196.594790 Z-0.125000
G01 X173.349609 Y197.194414 Z-0.125000
G01 X174.301606 Y197.354143 Z-0.125000
G01 X175.253602 Y197.412669 Z-0.125000
G01 X177.051814 Y197.245002 Z-0.125000
G01 X178.955779 Y196.674191 Z-0.125000
G01 X180.833313 Y195.728809 Z-0.125000
G01 X182.704973 Y194.432273 Z-0.125000
G01 X184.794650 Y192.608027 Z-0.125000
G01 X199.159152 Y178.659581 Z-0.125000
G00 Z3.000000

(End cutting path id: polyline188)


(Start cutting path id: polyline190)
(Change tool to Default tool)

G00 Z3.000000
G00 X2.943209 Y181.377087

G00 Z4.875000 (Fast pre-penetrate)
G01 Z-0.125000 F400.0(Penetrate)
G01 X4.847201 Y181.783116 Z-0.125000 F800.000000
G01 X6.751166 Y182.388958 Z-0.125000
G01 X8.681590 Y183.193449 Z-0.125000
G01 X10.717795 Y184.226963 Z-0.125000
G01 X14.419999 Y186.488513 Z-0.125000
G01 X22.935021 Y192.307275 Z-0.125000
G01 X25.156327 Y193.638366 Z-0.125000
G01 X27.192532 Y194.686696 Z-0.125000
G01 X29.281626 Y195.546935 Z-0.125000
G01 X31.291398 Y196.134256 Z-0.125000
G01 X33.301144 Y196.459958 Z-0.125000
G01 X35.205137 Y196.511472 Z-0.125000
G01 X37.320663 Y196.267130 Z-0.125000
G01 X39.436216 Y195.707775 Z-0.125000
G01 X41.631064 Y194.810204 Z-0.125000
G01 X43.852397 Y193.603467 Z-0.125000
G01 X45.796024 Y192.336167 Z-0.125000
G01 X47.945364 Y190.752744 Z-0.125000
G01 X54.856113 Y185.098552 Z-0.125000
G01 X57.324223 Y183.185406 Z-0.125000
G01 X59.679223 Y181.569915 Z-0.125000
G01 X61.900556 Y180.310870 Z-0.125000
G01 X64.187982 Y179.347788 Z-0.125000
G01 X66.303508 Y178.802959 Z-0.125000
G01 X68.419034 Y178.619576 Z-0.125000
G01 X70.534587 Y178.811902 Z-0.125000
G01 X72.438553 Y179.306222 Z-0.125000
G01 X74.302884 Y180.074703 Z-0.125000
G01 X76.246537 Y181.154916 Z-0.125000
G01 X78.221014 Y182.511989 Z-0.125000
G01 X80.030974 Y183.949839 Z-0.125000
G01 X81.923218 Y185.608245 Z-0.125000
G01 X90.314839 Y193.508879 Z-0.125000
G01 X92.536145 Y195.339661 Z-0.125000
G01 X94.572350 Y196.776479 Z-0.125000
G01 X96.608554 Y197.924002 Z-0.125000
G01 X98.565436 Y198.710872 Z-0.125000
G01 X100.469402 Y199.149047 Z-0.125000
G01 X102.373394 Y199.245409 Z-0.125000
G01 X103.431170 Y199.147883 Z-0.125000
G01 X104.488920 Y198.942435 Z-0.125000
G01 X106.604473 Y198.213429 Z-0.125000
G01 X108.733229 Y197.072415 Z-0.125000
G01 X111.047086 Y195.414961 Z-0.125000
G01 X112.527957 Y194.157239 Z-0.125000
G01 X114.156916 Y192.627712 Z-0.125000
G01 X127.706925 Y179.003962 Z-0.125000
G01 X128.488504 Y178.355522 Z-0.125000
G01 X130.761245 Y176.984718 Z-0.125000
G01 X132.837110 Y176.140857 Z-0.125000
G01 X133.894860 Y175.876194 Z-0.125000
G01 X134.952637 Y175.727816 Z-0.125000
G01 X136.010413 Y175.697680 Z-0.125000
G01 X136.962409 Y175.772557 Z-0.125000
G01 X137.914379 Y175.943954 Z-0.125000
G01 X138.972155 Y176.246611 Z-0.125000
G01 X140.942240 Y177.116665 Z-0.125000
G01 X143.050437 Y178.464028 Z-0.125000
G01 X145.255287 Y180.284174 Z-0.125000
G01 X147.106389 Y182.086751 Z-0.125000
G01 X149.213263 Y184.376003 Z-0.125000
G01 X155.877210 Y192.328336 Z-0.125000
G01 X158.212948 Y194.987580 Z-0.125000
G01 X160.508312 Y197.342131 Z-0.125000
G01 X162.548617 Y199.134548 Z-0.125000
G01 X164.636256 Y200.606688 Z-0.125000
G01 X166.579909 Y201.600144 Z-0.125000
G01 X168.483875 Y202.187651 Z-0.125000
G01 X169.435871 Y202.331558 Z-0.125000
G01 X170.387867 Y202.373441 Z-0.125000
G01 X171.339863 Y202.312719 Z-0.125000
G01 X172.291860 Y202.149445 Z-0.125000
G01 X174.169393 Y201.531062 Z-0.125000
G01 X176.113020 Y200.491039 Z-0.125000
G01 X178.097816 Y199.039087 Z-0.125000
G01 X179.833719 Y197.479291 Z-0.125000
G01 X199.159152 Y178.659581 Z-0.125000
G00 Z3.000000

(End cutting path id: polyline190)


(Start cutting path id: polyline192)
(Change tool to Default tool)

G00 Z3.000000
G00 X2.943209 Y175.323983

G00 Z4.875000 (Fast pre-penetrate)
G01 Z-0.125000 F400.0(Penetrate)
G01 X5.587636 Y174.982618 Z-0.125000 F800.000000
G01 X6.962727 Y174.960023 Z-0.125000
G01 X8.232064 Y175.036196 Z-0.125000
G01 X10.876465 Y175.494719 Z-0.125000
G01 X13.520893 Y176.344824 Z-0.125000
G01 X16.085972 Y177.508777 Z-0.125000
G01 X18.770061 Y179.024997 Z-0.125000
G01 X21.546701 Y180.827812 Z-0.125000
G01 X28.673403 Y185.751755 Z-0.125000
G01 X30.894736 Y187.127745 Z-0.125000
G01 X32.838389 Y188.182135 Z-0.125000
G01 X35.099356 Y189.181386 Z-0.125000
G01 X37.320663 Y189.878906 Z-0.125000
G01 X39.436216 Y190.247391 Z-0.125000
G01 X41.445962 Y190.310467 Z-0.125000
G01 X43.561488 Y190.065463 Z-0.125000
G01 X45.677041 Y189.503568 Z-0.125000
G01 X47.832228 Y188.620734 Z-0.125000
G01 X50.146112 Y187.357059 Z-0.125000
G01 X52.058889 Y186.101084 Z-0.125000
G01 X54.197936 Y184.517687 Z-0.125000
G01 X61.026427 Y178.915459 Z-0.125000
G01 X63.494536 Y176.996862 Z-0.125000
G01 X65.880387 Y175.357241 Z-0.125000
G01 X68.009169 Y174.144922 Z-0.125000
G01 X70.217246 Y173.196842 Z-0.125000
G01 X72.332773 Y172.627327 Z-0.125000
G01 X74.448325 Y172.418994 Z-0.125000
G01 X76.563852 Y172.587004 Z-0.125000
G01 X78.467844 Y173.060634 Z-0.125000
G01 X80.318919 Y173.804324 Z-0.125000
G01 X82.262573 Y174.865593 Z-0.125000
G01 X84.309069 Y176.260025 Z-0.125000
G01 X86.036743 Y177.624374 Z-0.125000
G01 X88.011247 Y179.348079 Z-0.125000
G01 X96.485152 Y187.327162 Z-0.125000
G01 X98.706459 Y189.156144 Z-0.125000
G01 X100.680962 Y190.550788 Z-0.125000
G01 X102.717167 Y191.704370 Z-0.125000
G01 X104.700481 Y192.506030 Z-0.125000
G01 X106.604473 Y192.946217 Z-0.125000
G01 X108.508439 Y193.044721 Z-0.125000
G01 X109.566215 Y192.948492 Z-0.125000
G01 X110.623992 Y192.744340 Z-0.125000
G01 X112.713060 Y192.029860 Z-0.125000
G01 X114.841842 Y190.896889 Z-0.125000
G01 X117.135141 Y189.264094 Z-0.125000
G01 X120.154457 Y186.578445 Z-0.125000
G01 X133.778523 Y172.914982 Z-0.125000
G01 X134.926205 Y171.973728 Z-0.125000
G01 X137.054960 Y170.723811 Z-0.125000
G01 X139.077935 Y169.920669 Z-0.125000
G01 X140.135712 Y169.663283 Z-0.125000
G01 X141.087708 Y169.530674 Z-0.125000
G01 X142.145458 Y169.495299 Z-0.125000
G01 X143.097454 Y169.565017 Z-0.125000
G01 X144.049450 Y169.730884 Z-0.125000
G01 X145.107200 Y170.026979 Z-0.125000
G01 X147.143404 Y170.919444 Z-0.125000
G01 X149.220751 Y172.242121 Z-0.125000
G01 X151.442058 Y174.067426 Z-0.125000
G01 X153.326074 Y175.896885 Z-0.125000
G01 X155.406014 Y178.150656 Z-0.125000
G01 X162.069960 Y186.079626 Z-0.125000
G01 X164.432633 Y188.763662 Z-0.125000
G01 X166.653940 Y191.043203 Z-0.125000
G01 X168.718931 Y192.865889 Z-0.125000
G01 X170.744869 Y194.311385 Z-0.125000
G01 X172.609174 Y195.297671 Z-0.125000
G01 X174.513166 Y195.932856 Z-0.125000
G01 X175.465162 Y196.102454 Z-0.125000
G01 X176.417132 Y196.171139 Z-0.125000
G01 X178.215344 Y196.023185 Z-0.125000
G01 X180.092878 Y195.483911 Z-0.125000
G01 X181.943980 Y194.579646 Z-0.125000
G01 X183.856783 Y193.280755 Z-0.125000
G01 X185.979373 Y191.447830 Z-0.125000
G01 X199.159152 Y178.659581 Z-0.125000
G00 Z3.000000

(End cutting path id: polyline192)


(Start cutting path id: polyline196)
(Change tool to Default tool)

G00 Z3.000000
G00 X2.943209 Y174.382332

G00 Z4.875000 (Fast pre-penetrate)
G01 Z-0.125000 F400.0(Penetrate)
G01 X4.424080 Y174.044433 Z-0.125000 F800.000000
G01 X5.799197 Y173.833852 Z-0.125000
G01 X7.280068 Y173.724129 Z-0.125000
G01 X8.655159 Y173.734501 Z-0.125000
G01 X10.030249 Y173.854780 Z-0.125000
G01 X11.511120 Y174.107193 Z-0.125000
G01 X12.886238 Y174.453690 Z-0.125000
G01 X14.367109 Y174.943381 Z-0.125000
G01 X17.011536 Y176.095904 Z-0.125000
G01 X19.880727 Y177.690758 Z-0.125000
G01 X22.657367 Y179.484604 Z-0.125000
G01 X30.061749 Y184.597062 Z-0.125000
G01 X32.190504 Y185.911060 Z-0.125000
G01 X34.134131 Y186.962778 Z-0.125000
G01 X36.368667 Y187.947582 Z-0.125000
G01 X38.590000 Y188.643171 Z-0.125000
G01 X40.705526 Y189.009169 Z-0.125000
G01 X42.715272 Y189.069388 Z-0.125000
G01 X44.830825 Y188.820971 Z-0.125000
G01 X46.946351 Y188.255425 Z-0.125000
G01 X49.127997 Y187.356028 Z-0.125000
G01 X51.349303 Y186.141486 Z-0.125000
G01 X53.292957 Y184.866831 Z-0.125000
G01 X55.432004 Y183.283248 Z-0.125000
G01 X62.260495 Y177.678984 Z-0.125000
G01 X64.728604 Y175.759408 Z-0.125000
G01 X67.083605 Y174.138255 Z-0.125000
G01 X69.212360 Y172.921411 Z-0.125000
G01 X71.486557 Y171.944809 Z-0.125000
G01 X73.602110 Y171.380771 Z-0.125000
G01 X75.717636 Y171.178470 Z-0.125000
G01 X77.727408 Y171.335104 Z-0.125000
G01 X79.631374 Y171.797727 Z-0.125000
G01 X81.522137 Y172.549963 Z-0.125000
G01 X83.465790 Y173.607369 Z-0.125000
G01 X85.543137 Y175.021115 Z-0.125000
G01 X87.353097 Y176.454573 Z-0.125000
G01 X89.245315 Y178.109936 Z-0.125000
G01 X97.719220 Y186.089601 Z-0.125000
G01 X99.940527 Y187.918266 Z-0.125000
G01 X101.976731 Y189.352015 Z-0.125000
G01 X104.012936 Y190.495516 Z-0.125000
G01 X105.969791 Y191.277888 Z-0.125000
G01 X107.873784 Y191.711355 Z-0.125000
G01 X109.777776 Y191.802900 Z-0.125000
G01 X110.835526 Y191.702809 Z-0.125000
G01 X111.893302 Y191.494846 Z-0.125000
G01 X114.008828 Y190.761369 Z-0.125000
G01 X116.137584 Y189.616783 Z-0.125000
G01 X118.451468 Y187.956790 Z-0.125000
G01 X121.487267 Y185.241004 Z-0.125000
G01 X135.259394 Y171.432840 Z-0.125000
G01 X135.892885 Y170.917856 Z-0.125000
G01 X138.073049 Y169.594333 Z-0.125000
G01 X140.135712 Y168.735893 Z-0.125000
G01 X141.193462 Y168.458980 Z-0.125000
G01 X142.251238 Y168.297532 Z-0.125000
G01 X143.309014 Y168.253638 Z-0.125000
G01 X144.261011 Y168.315577 Z-0.125000
G01 X145.212980 Y168.473638 Z-0.125000
G01 X146.270757 Y168.761055 Z-0.125000
G01 X148.346622 Y169.658229 Z-0.125000
G01 X150.454819 Y170.995141 Z-0.125000
G01 X152.659669 Y172.802851 Z-0.125000
G01 X154.510771 Y174.594316 Z-0.125000
G01 X156.617645 Y176.870894 Z-0.125000
G01 X163.348901 Y184.872572 Z-0.125000
G01 X165.691387 Y187.530573 Z-0.125000
G01 X167.986724 Y189.878430 Z-0.125000
G01 X170.035284 Y191.674419 Z-0.125000
G01 X172.040638 Y193.095203 Z-0.125000
G01 X173.984265 Y194.107524 Z-0.125000
G01 X175.888257 Y194.718473 Z-0.125000
G01 X177.686469 Y194.931065 Z-0.125000
G01 X179.484681 Y194.781735 Z-0.125000
G01 X181.282866 Y194.272333 Z-0.125000
G01 X183.147197 Y193.375952 Z-0.125000
G01 X185.008565 Y192.129078 Z-0.125000
G01 X187.238100 Y190.218445 Z-0.125000
G01 X199.159152 Y178.659581 Z-0.125000
G00 Z3.000000

(End cutting path id: polyline196)


(Start cutting path id: polyline198)
(Change tool to Default tool)

G00 Z3.000000
G00 X2.943209 Y173.521459

G00 Z4.875000 (Fast pre-penetrate)
G01 Z-0.125000 F400.0(Penetrate)
G01 X4.529860 Y173.063016 Z-0.125000 F800.000000
G01 X6.116511 Y172.730064 Z-0.125000
G01 X7.703163 Y172.532051 Z-0.125000
G01 X9.184034 Y172.475059 Z-0.125000
G01 X10.664905 Y172.544936 Z-0.125000
G01 X12.145802 Y172.742738 Z-0.125000
G01 X13.626673 Y173.067196 Z-0.125000
G01 X15.213325 Y173.551198 Z-0.125000
G01 X18.029625 Y174.733090 Z-0.125000
G01 X20.991367 Y176.357392 Z-0.125000
G01 X23.860585 Y178.204446 Z-0.125000
G01 X31.264940 Y183.322169 Z-0.125000
G01 X33.486247 Y184.694534 Z-0.125000
G01 X35.429900 Y185.743579 Z-0.125000
G01 X37.743784 Y186.753704 Z-0.125000
G01 X39.859310 Y187.407489 Z-0.125000
G01 X41.974837 Y187.770947 Z-0.125000
G01 X43.984609 Y187.828255 Z-0.125000
G01 X46.100135 Y187.576399 Z-0.125000
G01 X48.215688 Y187.007148 Z-0.125000
G01 X50.423766 Y186.091083 Z-0.125000
G01 X52.645072 Y184.869371 Z-0.125000
G01 X54.527025 Y183.632498 Z-0.125000
G01 X56.666072 Y182.048863 Z-0.125000
G01 X63.494536 Y176.442455 Z-0.125000
G01 X65.880387 Y174.582860 Z-0.125000
G01 X68.286822 Y172.919479 Z-0.125000
G01 X70.415578 Y171.698032 Z-0.125000
G01 X72.650113 Y170.729896 Z-0.125000
G01 X74.765640 Y170.153820 Z-0.125000
G01 X76.881192 Y169.938952 Z-0.125000
G01 X78.890938 Y170.083573 Z-0.125000
G01 X80.794931 Y170.535110 Z-0.125000
G01 X82.632804 Y171.252448 Z-0.125000
G01 X84.576457 Y172.292576 Z-0.125000
G01 X86.694920 Y173.720901 Z-0.125000
G01 X88.504879 Y175.147083 Z-0.125000
G01 X90.462926 Y176.856448 Z-0.125000
G01 X96.756641 Y182.851211 Z-0.125000
G01 X99.035547 Y184.923346 Z-0.125000
G01 X101.174595 Y186.680018 Z-0.125000
G01 X103.179949 Y188.093632 Z-0.125000
G01 X105.216153 Y189.241525 Z-0.125000
G01 X107.239128 Y190.049482 Z-0.125000
G01 X109.143094 Y190.476255 Z-0.125000
G01 X111.047086 Y190.561001 Z-0.125000
G01 X112.104863 Y190.457073 Z-0.125000
G01 X113.162613 Y190.245353 Z-0.125000
G01 X115.212046 Y189.534075 Z-0.125000
G01 X117.433353 Y188.336863 Z-0.125000
G01 X119.685536 Y186.715816 Z-0.125000
G01 X122.671964 Y184.048581 Z-0.125000
G01 X136.073886 Y170.627609 Z-0.125000
G01 X137.240062 Y169.598725 Z-0.125000
G01 X139.461369 Y168.278297 Z-0.125000
G01 X141.510803 Y167.453856 Z-0.125000
G01 X142.568579 Y167.191681 Z-0.125000
G01 X143.520549 Y167.054521 Z-0.125000
G01 X144.578325 Y167.013855 Z-0.125000
G01 X145.530321 Y167.078625 Z-0.125000
G01 X146.482317 Y167.239385 Z-0.125000
G01 X147.540067 Y167.529659 Z-0.125000
G01 X148.624302 Y167.947012 Z-0.125000
G01 X149.642391 Y168.446148 Z-0.125000
G01 X151.771146 Y169.807587 Z-0.125000
G01 X153.910194 Y171.567169 Z-0.125000
G01 X155.769524 Y173.366440 Z-0.125000
G01 X157.896586 Y175.665692 Z-0.125000
G01 X164.560533 Y183.584741 Z-0.125000
G01 X166.950114 Y186.295791 Z-0.125000
G01 X169.171421 Y188.570834 Z-0.125000
G01 X171.269326 Y190.416009 Z-0.125000
G01 X173.243829 Y191.820892 Z-0.125000
G01 X175.187482 Y192.843241 Z-0.125000
G01 X177.051814 Y193.456412 Z-0.125000
G01 X178.849999 Y193.688478 Z-0.125000
G01 X180.648211 Y193.559467 Z-0.125000
G01 X182.446423 Y193.070597 Z-0.125000
G01 X184.257837 Y192.225043 Z-0.125000
G01 X186.078089 Y191.038547 Z-0.125000
G01 X188.496854 Y188.989907 Z-0.125000
G01 X199.159152 Y178.659581 Z-0.125000
G00 Z3.000000

(End cutting path id: polyline198)


(Start cutting path id: polyline200)
(Change tool to Default tool)

G00 Z3.000000
G00 X2.943209 Y184.447255

G00 Z4.875000 (Fast pre-penetrate)
G01 Z-0.125000 F400.0(Penetrate)
G01 X4.424080 Y184.951682 Z-0.125000 F800.000000
G01 X5.997528 Y185.609330 Z-0.125000
G01 X9.236924 Y187.308799 Z-0.125000
G01 X12.383795 Y189.299204 Z-0.125000
G01 X20.065830 Y194.563295 Z-0.125000
G01 X22.287136 Y195.918198 Z-0.125000
G01 X24.323341 Y196.996929 Z-0.125000
G01 X26.637225 Y197.978665 Z-0.125000
G01 X28.752751 Y198.607023 Z-0.125000
G01 X30.868277 Y198.946721 Z-0.125000
G01 X32.878050 Y198.983948 Z-0.125000
G01 X34.993576 Y198.714311 Z-0.125000
G01 X37.109102 Y198.131170 Z-0.125000
G01 X39.317206 Y197.204997 Z-0.125000
G01 X41.538513 Y195.977729 Z-0.125000
G01 X43.420465 Y194.739454 Z-0.125000
G01 X45.559513 Y193.157539 Z-0.125000
G01 X52.387977 Y187.572007 Z-0.125000
G01 X54.773828 Y185.721804 Z-0.125000
G01 X57.180263 Y184.067208 Z-0.125000
G01 X59.309018 Y182.852190 Z-0.125000
G01 X61.543554 Y181.888975 Z-0.125000
G01 X63.764861 Y181.296045 Z-0.125000
G01 X65.880387 Y181.100148 Z-0.125000
G01 X67.995940 Y181.279217 Z-0.125000
G01 X69.899905 Y181.761420 Z-0.125000
G01 X71.803898 Y182.537363 Z-0.125000
G01 X73.747551 Y183.611808 Z-0.125000
G01 X75.752905 Y184.986369 Z-0.125000
G01 X77.480579 Y186.354184 Z-0.125000
G01 X79.430397 Y188.057411 Z-0.125000
G01 X85.650082 Y193.977111 Z-0.125000
G01 X87.928988 Y196.050410 Z-0.125000
G01 X90.068036 Y197.810310 Z-0.125000
G01 X92.073390 Y199.228687 Z-0.125000
G01 X94.109567 Y200.382904 Z-0.125000
G01 X96.132569 Y201.198216 Z-0.125000
G01 X98.036535 Y201.632529 Z-0.125000
G01 X99.940527 Y201.724975 Z-0.125000
G01 X100.998303 Y201.625253 Z-0.125000
G01 X102.056053 Y201.417582 Z-0.125000
G01 X104.105487 Y200.713421 Z-0.125000
G01 X106.326793 Y199.522480 Z-0.125000
G01 X108.578950 Y197.905772 Z-0.125000
G01 X111.565404 Y195.240627 Z-0.125000
G01 X124.967301 Y181.742899 Z-0.125000
G01 X126.226054 Y180.700865 Z-0.125000
G01 X128.354810 Y179.436952 Z-0.125000
G01 X130.404243 Y178.611956 Z-0.125000
G01 X131.462020 Y178.350548 Z-0.125000
G01 X132.413989 Y178.214764 Z-0.125000
G01 X133.471766 Y178.176400 Z-0.125000
G01 X134.423762 Y178.243974 Z-0.125000
G01 X135.375758 Y178.408227 Z-0.125000
G01 X136.433508 Y178.703184 Z-0.125000
G01 X137.517716 Y179.126200 Z-0.125000
G01 X138.535831 Y179.631421 Z-0.125000
G01 X140.582328 Y180.946875 Z-0.125000
G01 X142.803634 Y182.784377 Z-0.125000
G01 X144.662939 Y184.599655 Z-0.125000
G01 X146.722717 Y186.840858 Z-0.125000
G01 X153.386637 Y194.800785 Z-0.125000
G01 X155.769524 Y197.514903 Z-0.125000
G01 X158.064861 Y199.866226 Z-0.125000
G01 X160.162766 Y201.699098 Z-0.125000
G01 X162.229821 Y203.140414 Z-0.125000
G01 X164.173474 Y204.117519 Z-0.125000
G01 X165.204792 Y204.474997 Z-0.125000
G01 X166.156788 Y204.701745 Z-0.125000
G01 X167.108784 Y204.827343 Z-0.125000
G01 X168.060781 Y204.850441 Z-0.125000
G01 X169.012777 Y204.770563 Z-0.125000
G01 X169.964746 Y204.587974 Z-0.125000
G01 X171.855509 Y203.925379 Z-0.125000
G01 X173.799162 Y202.844028 Z-0.125000
G01 X175.794224 Y201.343605 Z-0.125000
G01 X177.242208 Y200.030506 Z-0.125000
G01 X189.533464 Y187.971792 Z-0.125000
G01 X199.159152 Y178.659581 Z-0.125000
G00 Z3.000000

(End cutting path id: polyline200)


(Start cutting path id: polyline202)
(Change tool to Default tool)

G00 Z3.000000
G00 X2.943209 Y172.735356

G00 Z4.875000 (Fast pre-penetrate)
G01 Z-0.125000 F400.0(Penetrate)
G01 X4.635640 Y172.150707 Z-0.125000 F800.000000
G01 X6.328072 Y171.699381 Z-0.125000
G01 X8.020503 Y171.394979 Z-0.125000
G01 X9.607155 Y171.252289 Z-0.125000
G01 X11.193806 Y171.253612 Z-0.125000
G01 X12.780457 Y171.401699 Z-0.125000
G01 X14.367109 Y171.696418 Z-0.125000
G01 X16.059540 Y172.168514 Z-0.125000
G01 X18.955163 Y173.329292 Z-0.125000
G01 X22.102034 Y175.025031 Z-0.125000
G01 X25.063776 Y176.924763 Z-0.125000
G01 X32.653260 Y182.167899 Z-0.125000
G01 X34.782016 Y183.478246 Z-0.125000
G01 X36.818220 Y184.570021 Z-0.125000
G01 X39.118875 Y185.559139 Z-0.125000
G01 X41.234401 Y186.197048 Z-0.125000
G01 X43.349954 Y186.542726 Z-0.125000
G01 X45.359700 Y186.581963 Z-0.125000
G01 X47.475226 Y186.310607 Z-0.125000
G01 X49.590779 Y185.722042 Z-0.125000
G01 X51.719534 Y184.825847 Z-0.125000
G01 X53.940841 Y183.597017 Z-0.125000
G01 X55.843351 Y182.340513 Z-0.125000
G01 X57.982399 Y180.750554 Z-0.125000
G01 X64.728604 Y175.206138 Z-0.125000
G01 X67.114455 Y173.345485 Z-0.125000
G01 X69.490040 Y171.700757 Z-0.125000
G01 X71.618795 Y170.474733 Z-0.125000
G01 X73.813670 Y169.515407 Z-0.125000
G01 X75.929196 Y168.927372 Z-0.125000
G01 X78.044723 Y168.699910 Z-0.125000
G01 X80.054495 Y168.832439 Z-0.125000
G01 X81.958461 Y169.272864 Z-0.125000
G01 X83.836021 Y169.998192 Z-0.125000
G01 X85.872226 Y171.090364 Z-0.125000
G01 X87.928988 Y172.481568 Z-0.125000
G01 X89.738947 Y173.907935 Z-0.125000
G01 X91.713451 Y175.632699 Z-0.125000
G01 X98.015395 Y181.636008 Z-0.125000
G01 X100.269615 Y183.684833 Z-0.125000
G01 X102.490922 Y185.504158 Z-0.125000
G01 X104.475718 Y186.893960 Z-0.125000
G01 X106.511896 Y188.032037 Z-0.125000
G01 X108.508439 Y188.820733 Z-0.125000
G01 X110.412431 Y189.240970 Z-0.125000
G01 X112.316397 Y189.318995 Z-0.125000
G01 X113.374173 Y189.211363 Z-0.125000
G01 X114.431950 Y188.995966 Z-0.125000
G01 X116.507815 Y188.266087 Z-0.125000
G01 X118.636570 Y187.115839 Z-0.125000
G01 X120.919578 Y185.475583 Z-0.125000
G01 X123.856661 Y182.856952 Z-0.125000
G01 X137.554758 Y169.146976 Z-0.125000
G01 X138.628382 Y168.260067 Z-0.125000
G01 X140.757138 Y167.010283 Z-0.125000
G01 X142.780113 Y166.205024 Z-0.125000
G01 X143.837889 Y165.946077 Z-0.125000
G01 X144.789885 Y165.811748 Z-0.125000
G01 X146.693851 Y165.829396 Z-0.125000
G01 X147.645847 Y165.982113 Z-0.125000
G01 X148.703624 Y166.263497 Z-0.125000
G01 X150.753057 Y167.134584 Z-0.125000
G01 X152.922929 Y168.498827 Z-0.125000
G01 X155.144262 Y170.315401 Z-0.125000
G01 X157.028252 Y172.137372 Z-0.125000
G01 X159.175528 Y174.459194 Z-0.125000
G01 X165.772138 Y182.295560 Z-0.125000
G01 X168.208868 Y185.059500 Z-0.125000
G01 X170.430174 Y187.332559 Z-0.125000
G01 X172.503394 Y189.156541 Z-0.125000
G01 X174.447047 Y190.545443 Z-0.125000
G01 X176.390700 Y191.578005 Z-0.125000
G01 X178.215344 Y192.193028 Z-0.125000
G01 X180.119336 Y192.448430 Z-0.125000
G01 X181.811768 Y192.336300 Z-0.125000
G01 X183.609953 Y191.868279 Z-0.125000
G01 X185.368504 Y191.072466 Z-0.125000
G01 X187.229872 Y189.885600 Z-0.125000
G01 X189.681551 Y187.833150 Z-0.125000
G01 X199.159152 Y178.659608 Z-0.125000
G00 Z3.000000

(End cutting path id: polyline202)


(Start cutting path id: polyline204)
(Change tool to Default tool)

G00 Z3.000000
G00 X2.943209 Y172.017146

G00 Z4.875000 (Fast pre-penetrate)
G01 Z-0.125000 F400.0(Penetrate)
G01 X4.847201 Y171.265201 Z-0.125000 F800.000000
G01 X6.645413 Y170.698279 Z-0.125000
G01 X8.443598 Y170.289233 Z-0.125000
G01 X10.136030 Y170.061533 Z-0.125000
G01 X11.828461 Y169.995255 Z-0.125000
G01 X13.520893 Y170.095426 Z-0.125000
G01 X15.213325 Y170.363105 Z-0.125000
G01 X16.905756 Y170.795407 Z-0.125000
G01 X18.386627 Y171.303301 Z-0.125000
G01 X19.880727 Y171.930786 Z-0.125000
G01 X23.120123 Y173.638643 Z-0.125000
G01 X26.266994 Y175.645266 Z-0.125000
G01 X33.949029 Y180.953727 Z-0.125000
G01 X36.170335 Y182.315404 Z-0.125000
G01 X38.113989 Y183.350744 Z-0.125000
G01 X40.388185 Y184.325441 Z-0.125000
G01 X42.503738 Y184.961260 Z-0.125000
G01 X44.619264 Y185.304292 Z-0.125000
G01 X46.629037 Y185.340567 Z-0.125000
G01 X48.638783 Y185.087017 Z-0.125000
G01 X50.754309 Y184.510305 Z-0.125000
G01 X52.922752 Y183.605643 Z-0.125000
G01 X55.144059 Y182.381364 Z-0.125000
G01 X57.077420 Y181.106154 Z-0.125000
G01 X59.216467 Y179.516036 Z-0.125000
G01 X65.880387 Y174.036496 Z-0.125000
G01 X68.348523 Y172.108242 Z-0.125000
G01 X70.693231 Y170.482220 Z-0.125000
G01 X72.822013 Y169.251671 Z-0.125000
G01 X74.977200 Y168.301421 Z-0.125000
G01 X77.092727 Y167.701321 Z-0.125000
G01 X79.208279 Y167.461238 Z-0.125000
G01 X81.218025 Y167.581676 Z-0.125000
G01 X83.122018 Y168.010830 Z-0.125000
G01 X85.039212 Y168.743883 Z-0.125000
G01 X87.075417 Y169.831664 Z-0.125000
G01 X89.163056 Y171.241838 Z-0.125000
G01 X90.890730 Y172.600207 Z-0.125000
G01 X92.865234 Y174.318753 Z-0.125000
G01 X99.200091 Y180.350743 Z-0.125000
G01 X101.503683 Y182.445870 Z-0.125000
G01 X103.724990 Y184.265010 Z-0.125000
G01 X105.771460 Y185.693705 Z-0.125000
G01 X107.807664 Y186.821808 Z-0.125000
G01 X109.777776 Y187.591586 Z-0.125000
G01 X111.681742 Y188.005473 Z-0.125000
G01 X113.585734 Y188.076831 Z-0.125000
G01 X115.595480 Y187.773275 Z-0.125000
G01 X117.711033 Y187.039480 Z-0.125000
G01 X119.839788 Y185.895053 Z-0.125000
G01 X122.153646 Y184.235827 Z-0.125000
G01 X125.041357 Y181.665720 Z-0.125000
G01 X138.961572 Y167.740982 Z-0.125000
G01 X140.016702 Y166.924135 Z-0.125000
G01 X142.052907 Y165.742983 Z-0.125000
G01 X144.049450 Y164.956616 Z-0.125000
G01 X145.107200 Y164.700685 Z-0.125000
G01 X146.059196 Y164.569108 Z-0.125000
G01 X147.963188 Y164.591994 Z-0.125000
G01 X148.915184 Y164.747225 Z-0.125000
G01 X149.972934 Y165.031202 Z-0.125000
G01 X152.048826 Y165.920836 Z-0.125000
G01 X154.156997 Y167.249281 Z-0.125000
G01 X156.435903 Y169.114564 Z-0.125000
G01 X158.287005 Y170.907088 Z-0.125000
G01 X160.387159 Y173.175199 Z-0.125000
G01 X167.118389 Y181.162642 Z-0.125000
G01 X169.467595 Y183.821807 Z-0.125000
G01 X171.762958 Y186.163420 Z-0.125000
G01 X173.819721 Y187.961420 Z-0.125000
G01 X175.835367 Y189.383924 Z-0.125000
G01 X177.686469 Y190.351980 Z-0.125000
G01 X179.590435 Y190.978566 Z-0.125000
G01 X181.388646 Y191.208277 Z-0.125000
G01 X183.081078 Y191.095749 Z-0.125000
G01 X184.773510 Y190.665246 Z-0.125000
G01 X186.479170 Y189.917932 Z-0.125000
G01 X188.299396 Y188.790993 Z-0.125000
G01 X189.533464 Y187.846776 Z-0.125000
G01 X190.866248 Y186.677504 Z-0.125000
G01 X199.159152 Y178.659581 Z-0.125000
G00 Z3.000000

(End cutting path id: polyline204)


(Start cutting path id: polyline206)
(Change tool to Default tool)

G00 Z3.000000
G00 X2.943209 Y171.359101

G00 Z4.875000 (Fast pre-penetrate)
G01 Z-0.125000 F400.0(Penetrate)
G01 X4.979413 Y170.461450 Z-0.125000 F800.000000
G01 X6.962727 Y169.742684 Z-0.125000
G01 X8.866719 Y169.222541 Z-0.125000
G01 X10.664905 Y168.902263 Z-0.125000
G01 X12.463117 Y168.760684 Z-0.125000
G01 X14.261328 Y168.805664 Z-0.125000
G01 X16.059540 Y169.040164 Z-0.125000
G01 X17.857752 Y169.462015 Z-0.125000
G01 X19.444404 Y169.984090 Z-0.125000
G01 X20.991367 Y170.620174 Z-0.125000
G01 X22.564816 Y171.384845 Z-0.125000
G01 X24.323341 Y172.363035 Z-0.125000
G01 X27.470211 Y174.366113 Z-0.125000
G01 X35.244798 Y179.739741 Z-0.125000
G01 X37.466104 Y181.099275 Z-0.125000
G01 X39.409757 Y182.131598 Z-0.125000
G01 X41.657522 Y183.091849 Z-0.125000
G01 X43.878829 Y183.749788 Z-0.125000
G01 X45.994355 Y184.074828 Z-0.125000
G01 X48.004128 Y184.092872 Z-0.125000
G01 X50.013874 Y183.820669 Z-0.125000
G01 X52.129426 Y183.224617 Z-0.125000
G01 X54.218521 Y182.340301 Z-0.125000
G01 X56.439827 Y181.108879 Z-0.125000
G01 X58.393746 Y179.813666 Z-0.125000
G01 X60.450535 Y178.281492 Z-0.125000
G01 X67.196740 Y172.733345 Z-0.125000
G01 X69.582591 Y170.870946 Z-0.125000
G01 X71.896449 Y169.263842 Z-0.125000
G01 X74.025204 Y168.028689 Z-0.125000
G01 X76.140757 Y167.087806 Z-0.125000
G01 X78.256283 Y166.475746 Z-0.125000
G01 X80.371810 Y166.223016 Z-0.125000
G01 X82.381582 Y166.331283 Z-0.125000
G01 X84.285548 Y166.749219 Z-0.125000
G01 X86.242430 Y167.489495 Z-0.125000
G01 X88.186083 Y168.517056 Z-0.125000
G01 X90.314839 Y169.941280 Z-0.125000
G01 X92.124798 Y171.360424 Z-0.125000
G01 X94.091073 Y173.071747 Z-0.125000
G01 X100.458819 Y179.134746 Z-0.125000
G01 X102.737725 Y181.206616 Z-0.125000
G01 X104.959058 Y183.025624 Z-0.125000
G01 X106.974678 Y184.434528 Z-0.125000
G01 X109.010882 Y185.567235 Z-0.125000
G01 X111.047086 Y186.362254 Z-0.125000
G01 X112.951078 Y186.769738 Z-0.125000
G01 X114.855044 Y186.834640 Z-0.125000
G01 X115.912821 Y186.719732 Z-0.125000
G01 X116.970597 Y186.497218 Z-0.125000
G01 X119.006801 Y185.771863 Z-0.125000
G01 X121.135557 Y184.616509 Z-0.125000
G01 X123.387714 Y182.996652 Z-0.125000
G01 X124.868585 Y181.739354 Z-0.125000
G01 X126.448198 Y180.259541 Z-0.125000
G01 X139.776064 Y166.937284 Z-0.125000
G01 X140.942240 Y165.889086 Z-0.125000
G01 X142.885893 Y164.710580 Z-0.125000
G01 X144.789885 Y163.877488 Z-0.125000
G01 X146.693851 Y163.402138 Z-0.125000
G01 X148.492063 Y163.298183 Z-0.125000
G01 X149.444059 Y163.381342 Z-0.125000
G01 X150.501836 Y163.585864 Z-0.125000
G01 X152.511582 Y164.294127 Z-0.125000
G01 X154.547786 Y165.420165 Z-0.125000
G01 X156.707392 Y167.024253 Z-0.125000
G01 X158.731266 Y168.859559 Z-0.125000
G01 X160.992975 Y171.215671 Z-0.125000
G01 X163.214281 Y173.752466 Z-0.125000
G01 X169.272412 Y180.961877 Z-0.125000
G01 X171.096579 Y182.979825 Z-0.125000
G01 X172.799568 Y184.709933 Z-0.125000
G01 X174.724700 Y186.433400 Z-0.125000
G01 X176.575802 Y187.810502 Z-0.125000
G01 X178.334353 Y188.827691 Z-0.125000
G01 X180.119336 Y189.541854 Z-0.125000
G01 X181.177086 Y189.805378 Z-0.125000
G01 X182.129082 Y189.937855 Z-0.125000
G01 X183.186858 Y189.967171 Z-0.125000
G01 X184.138854 Y189.886976 Z-0.125000
G01 X185.090851 Y189.706080 Z-0.125000
G01 X186.148600 Y189.388184 Z-0.125000
G01 X188.145144 Y188.462223 Z-0.125000
G01 X189.862552 Y187.342243 Z-0.125000
G01 X191.672511 Y185.866214 Z-0.125000
G01 X199.159152 Y178.659581 Z-0.125000
G00 Z3.000000

(End cutting path id: polyline206)


(Start cutting path id: polyline208)
(Change tool to Default tool)

G00 Z3.000000
G00 X2.943209 Y186.114789

G00 Z4.875000 (Fast pre-penetrate)
G01 Z-0.125000 F400.0(Penetrate)
G01 X5.627297 Y187.278902 Z-0.125000 F800.000000
G01 X8.496488 Y188.863886 Z-0.125000
G01 X11.365679 Y190.706257 Z-0.125000
G01 X18.770061 Y195.780377 Z-0.125000
G01 X20.991367 Y197.136788 Z-0.125000
G01 X22.935021 Y198.172868 Z-0.125000
G01 X25.262108 Y199.174977 Z-0.125000
G01 X27.483414 Y199.843419 Z-0.125000
G01 X29.598967 Y200.185366 Z-0.125000
G01 X31.714493 Y200.219418 Z-0.125000
G01 X33.724266 Y199.958751 Z-0.125000
G01 X35.839792 Y199.379102 Z-0.125000
G01 X38.021437 Y198.469651 Z-0.125000
G01 X40.242744 Y197.249421 Z-0.125000
G01 X42.186397 Y195.973390 Z-0.125000
G01 X44.325445 Y194.391686 Z-0.125000
G01 X51.071650 Y188.875237 Z-0.125000
G01 X53.539786 Y186.959814 Z-0.125000
G01 X55.884494 Y185.345144 Z-0.125000
G01 X58.105801 Y184.076283 Z-0.125000
G01 X60.379997 Y183.104496 Z-0.125000
G01 X62.601330 Y182.523948 Z-0.125000
G01 X64.716857 Y182.340275 Z-0.125000
G01 X66.832383 Y182.531515 Z-0.125000
G01 X68.736375 Y183.024275 Z-0.125000
G01 X70.600680 Y183.790825 Z-0.125000
G01 X72.544333 Y184.868709 Z-0.125000
G01 X74.518837 Y186.223295 Z-0.125000
G01 X76.328796 Y187.658949 Z-0.125000
G01 X78.221014 Y189.315212 Z-0.125000
G01 X84.391328 Y195.187870 Z-0.125000
G01 X86.694920 Y197.284505 Z-0.125000
G01 X88.833968 Y199.044987 Z-0.125000
G01 X90.870172 Y200.484027 Z-0.125000
G01 X92.998927 Y201.679149 Z-0.125000
G01 X94.969012 Y202.458028 Z-0.125000
G01 X96.873005 Y202.881361 Z-0.125000
G01 X98.776970 Y202.962297 Z-0.125000
G01 X99.834747 Y202.856199 Z-0.125000
G01 X100.892523 Y202.642152 Z-0.125000
G01 X102.994820 Y201.902404 Z-0.125000
G01 X105.123576 Y200.748134 Z-0.125000
G01 X107.427168 Y199.086130 Z-0.125000
G01 X110.454738 Y196.367672 Z-0.125000
G01 X123.412399 Y183.310342 Z-0.125000
G01 X124.786326 Y182.085217 Z-0.125000
G01 X126.966490 Y180.757751 Z-0.125000
G01 X129.029152 Y179.896851 Z-0.125000
G01 X130.086902 Y179.619647 Z-0.125000
G01 X131.144679 Y179.458622 Z-0.125000
G01 X132.202455 Y179.415945 Z-0.125000
G01 X133.154425 Y179.479683 Z-0.125000
G01 X134.106421 Y179.640179 Z-0.125000
G01 X135.164197 Y179.931141 Z-0.125000
G01 X137.240062 Y180.837602 Z-0.125000
G01 X139.348260 Y182.186922 Z-0.125000
G01 X141.553109 Y184.010190 Z-0.125000
G01 X143.404211 Y185.816022 Z-0.125000
G01 X145.511086 Y188.109481 Z-0.125000
G01 X152.175032 Y196.074461 Z-0.125000
G01 X154.510771 Y198.736086 Z-0.125000
G01 X156.806134 Y201.091060 Z-0.125000
G01 X158.928725 Y202.947084 Z-0.125000
G01 X161.026630 Y204.405756 Z-0.125000
G01 X162.983486 Y205.380215 Z-0.125000
G01 X164.041262 Y205.739149 Z-0.125000
G01 X164.993258 Y205.957218 Z-0.125000
G01 X165.945228 Y206.073793 Z-0.125000
G01 X166.897224 Y206.087684 Z-0.125000
G01 X167.849220 Y205.998493 Z-0.125000
G01 X168.801216 Y205.806458 Z-0.125000
G01 X170.652318 Y205.143413 Z-0.125000
G01 X172.595945 Y204.051347 Z-0.125000
G01 X174.560183 Y202.566243 Z-0.125000
G01 X176.057511 Y201.202582 Z-0.125000
G01 X189.533464 Y187.971792 Z-0.125000
G01 X199.159152 Y178.659581 Z-0.125000
G00 Z3.000000

(End cutting path id: polyline208)


(Start cutting path id: polyline210)
(Change tool to Default tool)

G00 Z3.000000
G00 X2.943209 Y170.752809

G00 Z4.875000 (Fast pre-penetrate)
G01 Z-0.125000 F400.0(Penetrate)
G01 X5.164515 Y169.686407 Z-0.125000 F800.000000
G01 X7.280068 Y168.829979 Z-0.125000
G01 X9.289814 Y168.193604 Z-0.125000
G01 X11.193806 Y167.773896 Z-0.125000
G01 X13.097772 Y167.549688 Z-0.125000
G01 X15.001764 Y167.532464 Z-0.125000
G01 X16.799976 Y167.711190 Z-0.125000
G01 X18.703942 Y168.106212 Z-0.125000
G01 X20.290593 Y168.592145 Z-0.125000
G01 X21.916932 Y169.229843 Z-0.125000
G01 X23.582905 Y170.017665 Z-0.125000
G01 X25.341456 Y170.979530 Z-0.125000
G01 X28.580851 Y173.024995 Z-0.125000
G01 X36.540566 Y178.525940 Z-0.125000
G01 X38.761873 Y179.883278 Z-0.125000
G01 X40.798077 Y180.957193 Z-0.125000
G01 X43.032613 Y181.896516 Z-0.125000
G01 X45.253920 Y182.537336 Z-0.125000
G01 X47.369472 Y182.844252 Z-0.125000
G01 X49.379218 Y182.843988 Z-0.125000
G01 X51.388991 Y182.553105 Z-0.125000
G01 X53.398737 Y181.975785 Z-0.125000
G01 X55.514263 Y181.074668 Z-0.125000
G01 X57.735596 Y179.836129 Z-0.125000
G01 X59.627814 Y178.579254 Z-0.125000
G01 X61.684577 Y177.047080 Z-0.125000
G01 X68.430808 Y171.497161 Z-0.125000
G01 X70.816659 Y169.633782 Z-0.125000
G01 X73.099666 Y168.045543 Z-0.125000
G01 X75.228422 Y166.805892 Z-0.125000
G01 X77.410067 Y165.835481 Z-0.125000
G01 X79.525594 Y165.228687 Z-0.125000
G01 X81.535366 Y164.985297 Z-0.125000
G01 X83.545112 Y165.081340 Z-0.125000
G01 X85.449104 Y165.487899 Z-0.125000
G01 X87.445648 Y166.235055 Z-0.125000
G01 X89.481852 Y167.313918 Z-0.125000
G01 X91.548907 Y168.701180 Z-0.125000
G01 X93.358866 Y170.120403 Z-0.125000
G01 X95.333370 Y171.839452 Z-0.125000
G01 X101.717572 Y177.918246 Z-0.125000
G01 X103.971793 Y179.966833 Z-0.125000
G01 X106.193100 Y181.785709 Z-0.125000
G01 X108.270446 Y183.233375 Z-0.125000
G01 X110.306651 Y184.356397 Z-0.125000
G01 X112.316397 Y185.132631 Z-0.125000
G01 X114.220389 Y185.533844 Z-0.125000
G01 X116.124381 Y185.592370 Z-0.125000
G01 X117.182131 Y185.473969 Z-0.125000
G01 X118.239907 Y185.247962 Z-0.125000
G01 X120.302544 Y184.504299 Z-0.125000
G01 X122.431326 Y183.338229 Z-0.125000
G01 X124.621782 Y181.758219 Z-0.125000
G01 X127.558838 Y179.142313 Z-0.125000
G01 X141.256935 Y165.459138 Z-0.125000
G01 X142.330560 Y164.552360 Z-0.125000
G01 X144.274213 Y163.394650 Z-0.125000
G01 X146.164976 Y162.592726 Z-0.125000
G01 X147.963188 Y162.158174 Z-0.125000
G01 X149.761400 Y162.058903 Z-0.125000
G01 X150.713370 Y162.144390 Z-0.125000
G01 X151.771146 Y162.351373 Z-0.125000
G01 X153.807350 Y163.075986 Z-0.125000
G01 X155.843555 Y164.210598 Z-0.125000
G01 X158.023745 Y165.839424 Z-0.125000
G01 X160.064050 Y167.699230 Z-0.125000
G01 X162.271890 Y170.004463 Z-0.125000
G01 X170.484017 Y179.668277 Z-0.125000
G01 X172.281276 Y181.659926 Z-0.125000
G01 X173.910234 Y183.324391 Z-0.125000
G01 X175.794224 Y185.033200 Z-0.125000
G01 X177.604184 Y186.411969 Z-0.125000
G01 X179.352442 Y187.462760 Z-0.125000
G01 X181.071332 Y188.200021 Z-0.125000
G01 X182.129082 Y188.499264 Z-0.125000
G01 X183.081078 Y188.664708 Z-0.125000
G01 X184.138854 Y188.731251 Z-0.125000
G01 X185.090851 Y188.684816 Z-0.125000
G01 X186.042820 Y188.537682 Z-0.125000
G01 X187.100597 Y188.257012 Z-0.125000
G01 X189.070682 Y187.413495 Z-0.125000
G01 X190.829232 Y186.324471 Z-0.125000
G01 X192.659750 Y184.881833 Z-0.125000
G01 X199.159152 Y178.659608 Z-0.125000
G00 Z3.000000

(End cutting path id: polyline210)


(Start cutting path id: polyline212)
(Change tool to Default tool)

G00 Z3.000000
G00 X2.943209 Y170.189247

G00 Z4.875000 (Fast pre-penetrate)
G01 Z-0.125000 F400.0(Penetrate)
G01 X5.442195 Y168.909512 Z-0.125000 F800.000000
G01 X7.703163 Y167.915104 Z-0.125000
G01 X9.818715 Y167.168318 Z-0.125000
G01 X11.828461 Y166.653757 Z-0.125000
G01 X13.838234 Y166.351709 Z-0.125000
G01 X15.742200 Y166.275800 Z-0.125000
G01 X17.646192 Y166.411743 Z-0.125000
G01 X19.550157 Y166.760437 Z-0.125000
G01 X21.242589 Y167.244545 Z-0.125000
G01 X22.935021 Y167.883962 Z-0.125000
G01 X24.693572 Y168.699619 Z-0.125000
G01 X26.452096 Y169.651535 Z-0.125000
G01 X29.784069 Y171.746530 Z-0.125000
G01 X37.836335 Y177.312404 Z-0.125000
G01 X40.057642 Y178.667466 Z-0.125000
G01 X42.093846 Y179.738101 Z-0.125000
G01 X44.407704 Y180.700416 Z-0.125000
G01 X46.523257 Y181.301522 Z-0.125000
G01 X48.638783 Y181.605528 Z-0.125000
G01 X50.648555 Y181.602088 Z-0.125000
G01 X52.658301 Y181.307766 Z-0.125000
G01 X54.773828 Y180.688509 Z-0.125000
G01 X56.902583 Y179.762548 Z-0.125000
G01 X59.031365 Y178.563088 Z-0.125000
G01 X60.944141 Y177.286501 Z-0.125000
G01 X63.000930 Y175.748322 Z-0.125000
G01 X69.582591 Y170.327730 Z-0.125000
G01 X71.968442 Y168.458028 Z-0.125000
G01 X74.302884 Y166.827456 Z-0.125000
G01 X76.431640 Y165.583254 Z-0.125000
G01 X78.573624 Y164.622289 Z-0.125000
G01 X80.689150 Y164.003403 Z-0.125000
G01 X82.698896 Y163.747948 Z-0.125000
G01 X84.708669 Y163.831741 Z-0.125000
G01 X86.612661 Y164.226896 Z-0.125000
G01 X88.556288 Y164.939153 Z-0.125000
G01 X90.592492 Y165.999417 Z-0.125000
G01 X92.700689 Y167.400384 Z-0.125000
G01 X94.510649 Y168.812014 Z-0.125000
G01 X96.534524 Y170.569294 Z-0.125000
G01 X102.902269 Y176.631658 Z-0.125000
G01 X105.205861 Y178.726600 Z-0.125000
G01 X107.427168 Y180.545397 Z-0.125000
G01 X109.473664 Y181.973668 Z-0.125000
G01 X111.509868 Y183.101374 Z-0.125000
G01 X113.479953 Y183.870887 Z-0.125000
G01 X115.489699 Y184.297739 Z-0.125000
G01 X117.393692 Y184.349968 Z-0.125000
G01 X119.403464 Y184.026515 Z-0.125000
G01 X121.505761 Y183.278936 Z-0.125000
G01 X123.634517 Y182.119057 Z-0.125000
G01 X125.938109 Y180.454221 Z-0.125000
G01 X128.817592 Y177.881628 Z-0.125000
G01 X142.663776 Y164.056319 Z-0.125000
G01 X143.626329 Y163.282890 Z-0.125000
G01 X145.569982 Y162.127880 Z-0.125000
G01 X147.434313 Y161.344317 Z-0.125000
G01 X149.232499 Y160.914423 Z-0.125000
G01 X151.030711 Y160.819570 Z-0.125000
G01 X151.982707 Y160.907279 Z-0.125000
G01 X153.040483 Y161.116617 Z-0.125000
G01 X154.098233 Y161.442345 Z-0.125000
G01 X155.103119 Y161.857423 Z-0.125000
G01 X157.139323 Y163.000342 Z-0.125000
G01 X159.340072 Y164.653827 Z-0.125000
G01 X161.396834 Y166.538055 Z-0.125000
G01 X163.618141 Y168.866068 Z-0.125000
G01 X171.695648 Y178.373276 Z-0.125000
G01 X175.094931 Y182.008541 Z-0.125000
G01 X176.946033 Y183.698855 Z-0.125000
G01 X178.704558 Y185.057912 Z-0.125000
G01 X180.370558 Y186.091188 Z-0.125000
G01 X182.023302 Y186.847261 Z-0.125000
G01 X183.081078 Y187.181985 Z-0.125000
G01 X184.033074 Y187.380290 Z-0.125000
G01 X184.985070 Y187.479217 Z-0.125000
G01 X185.937040 Y187.477630 Z-0.125000
G01 X187.841032 Y187.173306 Z-0.125000
G01 X189.811117 Y186.442449 Z-0.125000
G01 X191.662219 Y185.387609 Z-0.125000
G01 X193.564730 Y183.960105 Z-0.125000
G01 X194.864599 Y182.803216 Z-0.125000
G01 X199.159152 Y178.659449 Z-0.125000
G00 Z3.000000

(End cutting path id: polyline212)


(Start cutting path id: polyline214)
(Change tool to Default tool)

G00 Z3.000000
G00 X2.943209 Y169.658917

G00 Z4.875000 (Fast pre-penetrate)
G01 Z-0.125000 F400.0(Penetrate)
G01 X5.719848 Y168.164103 Z-0.125000 F800.000000
G01 X8.126284 Y167.029809 Z-0.125000
G01 X10.347590 Y166.169623 Z-0.125000
G01 X12.463117 Y165.555314 Z-0.125000
G01 X14.472889 Y165.183311 Z-0.125000
G01 X16.482635 Y165.035620 Z-0.125000
G01 X18.492408 Y165.122827 Z-0.125000
G01 X20.502154 Y165.447814 Z-0.125000
G01 X22.194585 Y165.902315 Z-0.125000
G01 X23.953136 Y166.541204 Z-0.125000
G01 X25.711660 Y167.336937 Z-0.125000
G01 X27.562763 Y168.324440 Z-0.125000
G01 X30.987287 Y170.468515 Z-0.125000
G01 X39.132104 Y176.099185 Z-0.125000
G01 X41.445962 Y177.504306 Z-0.125000
G01 X43.482166 Y178.562903 Z-0.125000
G01 X45.782821 Y179.503548 Z-0.125000
G01 X47.898347 Y180.088012 Z-0.125000
G01 X50.013874 Y180.373656 Z-0.125000
G01 X52.023646 Y180.351748 Z-0.125000
G01 X54.033392 Y180.038641 Z-0.125000
G01 X56.043165 Y179.439254 Z-0.125000
G01 X58.105801 Y178.542635 Z-0.125000
G01 X60.327107 Y177.289914 Z-0.125000
G01 X62.178209 Y176.051957 Z-0.125000
G01 X64.234972 Y174.513645 Z-0.125000
G01 X70.816659 Y169.091519 Z-0.125000
G01 X73.202510 Y167.220917 Z-0.125000
G01 X75.506075 Y165.609448 Z-0.125000
G01 X77.542280 Y164.409379 Z-0.125000
G01 X79.737154 Y163.409493 Z-0.125000
G01 X81.746927 Y162.801878 Z-0.125000
G01 X83.756673 Y162.516790 Z-0.125000
G01 X85.766445 Y162.570262 Z-0.125000
G01 X87.776191 Y162.966264 Z-0.125000
G01 X89.759505 Y163.684792 Z-0.125000
G01 X91.795710 Y164.740425 Z-0.125000
G01 X93.934757 Y166.159781 Z-0.125000
G01 X95.744717 Y167.571331 Z-0.125000
G01 X97.793251 Y169.351075 Z-0.125000
G01 X104.235053 Y175.484003 Z-0.125000
G01 X106.522188 Y177.557514 Z-0.125000
G01 X108.743494 Y179.367235 Z-0.125000
G01 X110.769433 Y180.771668 Z-0.125000
G01 X112.898188 Y181.932817 Z-0.125000
G01 X114.855044 Y182.672353 Z-0.125000
G01 X116.759036 Y183.061449 Z-0.125000
G01 X118.663029 Y183.107539 Z-0.125000
G01 X120.672775 Y182.777710 Z-0.125000
G01 X122.801530 Y182.011795 Z-0.125000
G01 X124.930285 Y180.841491 Z-0.125000
G01 X127.172177 Y179.216846 Z-0.125000
G01 X130.150376 Y176.549664 Z-0.125000
G01 X143.996560 Y162.736130 Z-0.125000
G01 X144.644444 Y162.185532 Z-0.125000
G01 X146.680649 Y160.956730 Z-0.125000
G01 X148.597843 Y160.131495 Z-0.125000
G01 X150.501836 Y159.670883 Z-0.125000
G01 X152.300021 Y159.580263 Z-0.125000
G01 X153.252017 Y159.670089 Z-0.125000
G01 X154.309793 Y159.881623 Z-0.125000
G01 X155.367570 Y160.209415 Z-0.125000
G01 X156.398888 Y160.638516 Z-0.125000
G01 X158.517351 Y161.844167 Z-0.125000
G01 X160.656399 Y163.467569 Z-0.125000
G01 X162.655588 Y165.302849 Z-0.125000
G01 X164.876895 Y167.629857 Z-0.125000
G01 X172.907280 Y177.076528 Z-0.125000
G01 X176.205598 Y180.618263 Z-0.125000
G01 X178.015557 Y182.291988 Z-0.125000
G01 X179.743231 Y183.656628 Z-0.125000
G01 X181.388646 Y184.712896 Z-0.125000
G01 X182.975298 Y185.483574 Z-0.125000
G01 X184.879290 Y186.063804 Z-0.125000
G01 X186.783256 Y186.250626 Z-0.125000
G01 X188.687248 Y186.036526 Z-0.125000
G01 X190.551553 Y185.442140 Z-0.125000
G01 X192.402655 Y184.489218 Z-0.125000
G01 X194.305165 Y183.158233 Z-0.125000
G01 X195.975266 Y181.723585 Z-0.125000
G01 X199.159152 Y178.659581 Z-0.125000
G00 Z3.000000

(End cutting path id: polyline214)


(Start cutting path id: polyline216)
(Change tool to Default tool)

G00 Z3.000000
G00 X2.943209 Y187.864715

G00 Z4.875000 (Fast pre-penetrate)
G01 Z-0.125000 F400.0(Penetrate)
G01 X5.257093 Y188.982922 Z-0.125000 F800.000000
G01 X7.663502 Y190.370289 Z-0.125000
G01 X10.255039 Y192.051900 Z-0.125000
G01 X17.381741 Y196.938033 Z-0.125000
G01 X19.603048 Y198.302276 Z-0.125000
G01 X21.639252 Y199.393919 Z-0.125000
G01 X23.992797 Y200.409891 Z-0.125000
G01 X26.214104 Y201.079895 Z-0.125000
G01 X28.435410 Y201.433219 Z-0.125000
G01 X30.550963 Y201.454306 Z-0.125000
G01 X32.560709 Y201.181653 Z-0.125000
G01 X34.676235 Y200.590152 Z-0.125000
G01 X36.818220 Y199.689141 Z-0.125000
G01 X39.039553 Y198.464492 Z-0.125000
G01 X40.952329 Y197.207246 Z-0.125000
G01 X43.091377 Y195.625887 Z-0.125000
G01 X49.919867 Y190.045778 Z-0.125000
G01 X52.305718 Y188.197772 Z-0.125000
G01 X54.681276 Y186.564633 Z-0.125000
G01 X56.810032 Y185.347234 Z-0.125000
G01 X59.110687 Y184.357006 Z-0.125000
G01 X61.331994 Y183.770505 Z-0.125000
G01 X63.447546 Y183.580507 Z-0.125000
G01 X65.563073 Y183.765028 Z-0.125000
G01 X67.467065 Y184.251596 Z-0.125000
G01 X69.304911 Y184.999598 Z-0.125000
G01 X71.248564 Y186.067958 Z-0.125000
G01 X73.284769 Y187.459876 Z-0.125000
G01 X75.012469 Y188.825998 Z-0.125000
G01 X76.986973 Y190.550153 Z-0.125000
G01 X83.206631 Y196.467869 Z-0.125000
G01 X85.460852 Y198.518308 Z-0.125000
G01 X87.682158 Y200.342370 Z-0.125000
G01 X89.666954 Y201.738839 Z-0.125000
G01 X91.703159 Y202.885780 Z-0.125000
G01 X93.699702 Y203.684714 Z-0.125000
G01 X95.709448 Y204.129664 Z-0.125000
G01 X97.613440 Y204.199302 Z-0.125000
G01 X98.671216 Y204.086854 Z-0.125000
G01 X99.728966 Y203.866483 Z-0.125000
G01 X101.791629 Y203.132583 Z-0.125000
G01 X103.920384 Y201.974212 Z-0.125000
G01 X106.193100 Y200.333056 Z-0.125000
G01 X109.121954 Y197.712229 Z-0.125000
G01 X122.671964 Y184.041914 Z-0.125000
G01 X123.819645 Y183.150587 Z-0.125000
G01 X125.948401 Y181.891357 Z-0.125000
G01 X127.971376 Y181.084326 Z-0.125000
G01 X129.029152 Y180.825749 Z-0.125000
G01 X129.981122 Y180.692663 Z-0.125000
G01 X131.038898 Y180.657500 Z-0.125000
G01 X131.990895 Y180.728038 Z-0.125000
G01 X132.942891 Y180.895440 Z-0.125000
G01 X134.000641 Y181.193969 Z-0.125000
G01 X136.036845 Y182.093472 Z-0.125000
G01 X138.114192 Y183.426256 Z-0.125000
G01 X140.294356 Y185.227537 Z-0.125000
G01 X142.219515 Y187.107637 Z-0.125000
G01 X144.299454 Y189.376701 Z-0.125000
G01 X150.896091 Y197.267069 Z-0.125000
G01 X153.252017 Y199.955629 Z-0.125000
G01 X155.547380 Y202.314360 Z-0.125000
G01 X157.694657 Y204.193852 Z-0.125000
G01 X159.823412 Y205.670092 Z-0.125000
G01 X161.819955 Y206.652383 Z-0.125000
G01 X162.877705 Y207.002135 Z-0.125000
G01 X163.829701 Y207.211606 Z-0.125000
G01 X164.781698 Y207.319344 Z-0.125000
G01 X165.733694 Y207.324212 Z-0.125000
G01 X167.531879 Y207.051904 Z-0.125000
G01 X169.449100 Y206.361898 Z-0.125000
G01 X171.392754 Y205.259354 Z-0.125000
G01 X173.408373 Y203.720195 Z-0.125000
G01 X174.798757 Y202.447233 Z-0.125000
G01 X189.533464 Y187.971792 Z-0.125000
G01 X199.159152 Y178.659581 Z-0.125000
G00 Z3.000000

(End cutting path id: polyline216)


(Start cutting path id: polyline218)
(Change tool to Default tool)

G00 Z3.000000
G00 X2.943209 Y169.152029

G00 Z4.875000 (Fast pre-penetrate)
G01 Z-0.125000 F400.0(Penetrate)
G01 X6.090079 Y167.396891 Z-0.125000 F800.000000
G01 X8.589039 Y166.153457 Z-0.125000
G01 X10.876465 Y165.196222 Z-0.125000
G01 X13.097772 Y164.477985 Z-0.125000
G01 X15.213325 Y164.020415 Z-0.125000
G01 X17.328851 Y163.807267 Z-0.125000
G01 X19.338623 Y163.844441 Z-0.125000
G01 X21.348369 Y164.119899 Z-0.125000
G01 X23.040801 Y164.534262 Z-0.125000
G01 X24.839013 Y165.149603 Z-0.125000
G01 X26.729776 Y165.976980 Z-0.125000
G01 X28.673403 Y166.998482 Z-0.125000
G01 X32.190504 Y169.190738 Z-0.125000
G01 X40.520424 Y174.945577 Z-0.125000
G01 X42.741730 Y176.288679 Z-0.125000
G01 X44.777935 Y177.343704 Z-0.125000
G01 X47.052132 Y178.270009 Z-0.125000
G01 X49.167658 Y178.852039 Z-0.125000
G01 X51.283211 Y179.134719 Z-0.125000
G01 X53.398737 Y179.100191 Z-0.125000
G01 X55.408509 Y178.768245 Z-0.125000
G01 X57.418255 Y178.150471 Z-0.125000
G01 X59.494121 Y177.229457 Z-0.125000
G01 X61.622876 Y176.016529 Z-0.125000
G01 X63.494536 Y174.758781 Z-0.125000
G01 X65.469040 Y173.279101 Z-0.125000
G01 X72.132986 Y167.788527 Z-0.125000
G01 X74.436578 Y165.983992 Z-0.125000
G01 X76.709293 Y164.391599 Z-0.125000
G01 X78.745497 Y163.187297 Z-0.125000
G01 X80.900711 Y162.197280 Z-0.125000
G01 X82.910457 Y161.578182 Z-0.125000
G01 X84.920229 Y161.281029 Z-0.125000
G01 X86.929975 Y161.322145 Z-0.125000
G01 X88.939748 Y161.705976 Z-0.125000
G01 X90.870172 Y162.390161 Z-0.125000
G01 X92.906376 Y163.426982 Z-0.125000
G01 X95.086540 Y164.858958 Z-0.125000
G01 X96.896500 Y166.262703 Z-0.125000
G01 X98.953262 Y168.043215 Z-0.125000
G01 X105.493807 Y174.266128 Z-0.125000
G01 X107.756256 Y176.316434 Z-0.125000
G01 X109.977562 Y178.126129 Z-0.125000
G01 X112.065202 Y179.569059 Z-0.125000
G01 X114.101380 Y180.677582 Z-0.125000
G01 X116.124381 Y181.441883 Z-0.125000
G01 X118.028347 Y181.824973 Z-0.125000
G01 X119.932339 Y181.865057 Z-0.125000
G01 X121.942085 Y181.528984 Z-0.125000
G01 X124.004748 Y180.787146 Z-0.125000
G01 X126.133503 Y179.623404 Z-0.125000
G01 X128.406245 Y177.980238 Z-0.125000
G01 X131.335073 Y175.362692 Z-0.125000
G01 X144.959113 Y161.778233 Z-0.125000
G01 X146.032764 Y160.850685 Z-0.125000
G01 X147.976417 Y159.690594 Z-0.125000
G01 X149.867180 Y158.883722 Z-0.125000
G01 X151.771146 Y158.427554 Z-0.125000
G01 X153.569358 Y158.340956 Z-0.125000
G01 X154.521354 Y158.432793 Z-0.125000
G01 X155.579104 Y158.646364 Z-0.125000
G01 X156.636880 Y158.976061 Z-0.125000
G01 X157.694657 Y159.419291 Z-0.125000
G01 X159.823412 Y160.639971 Z-0.125000
G01 X161.972726 Y162.280544 Z-0.125000
G01 X163.988372 Y164.139425 Z-0.125000
G01 X166.176024 Y166.436693 Z-0.125000
G01 X174.051575 Y175.700935 Z-0.125000
G01 X177.316238 Y179.225313 Z-0.125000
G01 X179.085055 Y180.881232 Z-0.125000
G01 X180.730496 Y182.211846 Z-0.125000
G01 X182.314184 Y183.273036 Z-0.125000
G01 X183.887633 Y184.091629 Z-0.125000
G01 X185.725506 Y184.727448 Z-0.125000
G01 X187.523691 Y184.998355 Z-0.125000
G01 X189.321903 Y184.913106 Z-0.125000
G01 X191.225895 Y184.435163 Z-0.125000
G01 X193.050539 Y183.613289 Z-0.125000
G01 X194.963342 Y182.391180 Z-0.125000
G01 X196.773301 Y180.923856 Z-0.125000
G01 X199.159152 Y178.659581 Z-0.125000
G00 Z3.000000

(End cutting path id: polyline218)


(Start cutting path id: polyline220)
(Change tool to Default tool)

G00 Z3.000000
G00 X2.943209 Y168.658555

G00 Z4.875000 (Fast pre-penetrate)
G01 Z-0.125000 F400.0(Penetrate)
G01 X6.460284 Y166.648677 Z-0.125000 F800.000000
G01 X9.051821 Y165.299780 Z-0.125000
G01 X11.511120 Y164.204274 Z-0.125000
G01 X13.732453 Y163.421082 Z-0.125000
G01 X15.953760 Y162.873051 Z-0.125000
G01 X18.069286 Y162.596562 Z-0.125000
G01 X20.184839 Y162.576639 Z-0.125000
G01 X22.300365 Y162.820743 Z-0.125000
G01 X24.098577 Y163.234339 Z-0.125000
G01 X25.896763 Y163.829889 Z-0.125000
G01 X27.747865 Y164.619934 Z-0.125000
G01 X29.784069 Y165.673451 Z-0.125000
G01 X33.393696 Y167.913278 Z-0.125000
G01 X41.816193 Y173.732596 Z-0.125000
G01 X44.130050 Y175.125017 Z-0.125000
G01 X46.166255 Y176.167606 Z-0.125000
G01 X48.427222 Y177.072268 Z-0.125000
G01 X50.542775 Y177.637444 Z-0.125000
G01 X52.658301 Y177.901524 Z-0.125000
G01 X54.773828 Y177.847417 Z-0.125000
G01 X56.677820 Y177.522298 Z-0.125000
G01 X58.687566 Y176.900845 Z-0.125000
G01 X60.789889 Y175.962554 Z-0.125000
G01 X62.918645 Y174.742853 Z-0.125000
G01 X64.728604 Y173.524210 Z-0.125000
G01 X66.785367 Y171.980104 Z-0.125000
G01 X73.284769 Y166.619335 Z-0.125000
G01 X75.588361 Y164.808793 Z-0.125000
G01 X77.819959 Y163.234313 Z-0.125000
G01 X79.948715 Y161.965267 Z-0.125000
G01 X82.064241 Y160.985410 Z-0.125000
G01 X84.074014 Y160.354962 Z-0.125000
G01 X86.083760 Y160.045717 Z-0.125000
G01 X88.093532 Y160.074451 Z-0.125000
G01 X90.103278 Y160.446058 Z-0.125000
G01 X92.073390 Y161.135932 Z-0.125000
G01 X94.109567 Y162.167938 Z-0.125000
G01 X96.320608 Y163.617800 Z-0.125000
G01 X98.130568 Y165.021492 Z-0.125000
G01 X100.162644 Y166.779566 Z-0.125000
G01 X106.678503 Y172.978296 Z-0.125000
G01 X108.990324 Y175.074905 Z-0.125000
G01 X111.211630 Y176.884626 Z-0.125000
G01 X113.268393 Y178.308506 Z-0.125000
G01 X115.304597 Y179.422083 Z-0.125000
G01 X117.287911 Y180.180325 Z-0.125000
G01 X119.297684 Y180.588338 Z-0.125000
G01 X121.201650 Y180.622496 Z-0.125000
G01 X123.211422 Y180.280337 Z-0.125000
G01 X125.300516 Y179.520587 Z-0.125000
G01 X127.429272 Y178.346712 Z-0.125000
G01 X129.640286 Y176.744185 Z-0.125000
G01 X132.519769 Y174.176196 Z-0.125000
G01 X146.365953 Y160.378748 Z-0.125000
G01 X147.421084 Y159.519065 Z-0.125000
G01 X149.364737 Y158.378368 Z-0.125000
G01 X151.242271 Y157.601605 Z-0.125000
G01 X153.040483 Y157.184437 Z-0.125000
G01 X154.838668 Y157.101649 Z-0.125000
G01 X155.896445 Y157.211637 Z-0.125000
G01 X156.954221 Y157.438834 Z-0.125000
G01 X158.990425 Y158.199722 Z-0.125000
G01 X161.119181 Y159.428154 Z-0.125000
G01 X163.289079 Y161.092619 Z-0.125000
G01 X165.321156 Y162.975022 Z-0.125000
G01 X167.522275 Y165.294250 Z-0.125000
G01 X175.263206 Y174.401091 Z-0.125000
G01 X178.352848 Y177.755316 Z-0.125000
G01 X180.072320 Y179.393138 Z-0.125000
G01 X181.635449 Y180.696420 Z-0.125000
G01 X183.239748 Y181.821401 Z-0.125000
G01 X184.720620 Y182.647932 Z-0.125000
G01 X186.465941 Y183.339605 Z-0.125000
G01 X188.264153 Y183.714572 Z-0.125000
G01 X189.956558 Y183.744364 Z-0.125000
G01 X191.754770 Y183.430171 Z-0.125000
G01 X193.513321 Y182.784166 Z-0.125000
G01 X195.364397 Y181.757795 Z-0.125000
G01 X197.184648 Y180.426599 Z-0.125000
G01 X199.159152 Y178.659581 Z-0.125000
G00 Z3.000000

(End cutting path id: polyline220)


(Start cutting path id: polyline222)
(Change tool to Default tool)

G00 Z3.000000
G00 X2.943209 Y168.168495

G00 Z4.875000 (Fast pre-penetrate)
G01 Z-0.125000 F400.0(Penetrate)
G01 X7.015617 Y165.811907 Z-0.125000 F800.000000
G01 X9.699706 Y164.372443 Z-0.125000
G01 X12.198692 Y163.206532 Z-0.125000
G01 X14.472889 Y162.348965 Z-0.125000
G01 X16.694196 Y161.740927 Z-0.125000
G01 X18.915502 Y161.391625 Z-0.125000
G01 X21.136809 Y161.322674 Z-0.125000
G01 X23.252362 Y161.527462 Z-0.125000
G01 X25.050573 Y161.908673 Z-0.125000
G01 X26.954539 Y162.512530 Z-0.125000
G01 X28.858531 Y163.308608 Z-0.125000
G01 X30.894736 Y164.349610 Z-0.125000
G01 X34.596913 Y166.636268 Z-0.125000
G01 X43.111935 Y172.519853 Z-0.125000
G01 X45.425819 Y173.909443 Z-0.125000
G01 X47.462024 Y174.948355 Z-0.125000
G01 X49.696559 Y175.838782 Z-0.125000
G01 X51.917866 Y176.421818 Z-0.125000
G01 X54.033392 Y176.667192 Z-0.125000
G01 X56.148945 Y176.593400 Z-0.125000
G01 X58.052911 Y176.250368 Z-0.125000
G01 X60.062683 Y175.610553 Z-0.125000
G01 X62.085658 Y174.695334 Z-0.125000
G01 X64.214414 Y173.468939 Z-0.125000
G01 X66.044931 Y172.230770 Z-0.125000
G01 X68.101720 Y170.680790 Z-0.125000
G01 X74.518837 Y165.383256 Z-0.125000
G01 X76.822429 Y163.571868 Z-0.125000
G01 X79.115728 Y161.956324 Z-0.125000
G01 X81.151933 Y160.743423 Z-0.125000
G01 X83.333578 Y159.732716 Z-0.125000
G01 X85.343324 Y159.107136 Z-0.125000
G01 X87.353097 Y158.803209 Z-0.125000
G01 X89.257062 Y158.827207 Z-0.125000
G01 X91.266835 Y159.186484 Z-0.125000
G01 X93.276581 Y159.881702 Z-0.125000
G01 X95.312785 Y160.908866 Z-0.125000
G01 X97.472391 Y162.316977 Z-0.125000
G01 X99.364636 Y163.779936 Z-0.125000
G01 X101.421398 Y165.560315 Z-0.125000
G01 X107.937257 Y171.759733 Z-0.125000
G01 X110.224392 Y173.833111 Z-0.125000
G01 X112.445699 Y175.642859 Z-0.125000
G01 X114.564162 Y177.105156 Z-0.125000
G01 X116.600366 Y178.209208 Z-0.125000
G01 X118.557248 Y178.949564 Z-0.125000
G01 X120.566994 Y179.351545 Z-0.125000
G01 X122.470987 Y179.379882 Z-0.125000
G01 X124.480733 Y179.031823 Z-0.125000
G01 X126.596285 Y178.254028 Z-0.125000
G01 X128.725041 Y177.070178 Z-0.125000
G01 X130.956640 Y175.442305 Z-0.125000
G01 X133.926610 Y172.774567 Z-0.125000
G01 X147.772794 Y158.977199 Z-0.125000
G01 X148.315771 Y158.512115 Z-0.125000
G01 X150.382826 Y157.256034 Z-0.125000
G01 X152.300021 Y156.424820 Z-0.125000
G01 X154.204013 Y155.956693 Z-0.125000
G01 X156.108005 Y155.862316 Z-0.125000
G01 X157.165755 Y155.974235 Z-0.125000
G01 X158.223532 Y156.203258 Z-0.125000
G01 X159.281308 Y156.547771 Z-0.125000
G01 X160.286194 Y156.979703 Z-0.125000
G01 X162.414950 Y158.215650 Z-0.125000
G01 X164.605406 Y159.903848 Z-0.125000
G01 X166.579909 Y161.736032 Z-0.125000
G01 X168.801216 Y164.076031 Z-0.125000
G01 X176.407528 Y173.021952 Z-0.125000
G01 X179.463514 Y176.356360 Z-0.125000
G01 X181.092472 Y177.928565 Z-0.125000
G01 X182.622714 Y179.234838 Z-0.125000
G01 X184.072735 Y180.296609 Z-0.125000
G01 X185.553606 Y181.184550 Z-0.125000
G01 X187.206377 Y181.921387 Z-0.125000
G01 X188.898808 Y182.380809 Z-0.125000
G01 X190.591240 Y182.530034 Z-0.125000
G01 X192.283672 Y182.364167 Z-0.125000
G01 X193.976077 Y181.885430 Z-0.125000
G01 X195.642077 Y181.117610 Z-0.125000
G01 X197.349193 Y180.041551 Z-0.125000
G01 X199.159152 Y178.606426 Z-0.125000
G00 Z3.000000

(End cutting path id: polyline222)


(Start cutting path id: polyline224)
(Change tool to Default tool)

G00 Z3.000000
G00 X2.943209 Y167.671820

G00 Z4.875000 (Fast pre-penetrate)
G01 Z-0.125000 F400.0(Penetrate)
G01 X10.440141 Y163.407932 Z-0.125000 F800.000000
G01 X13.031679 Y162.157619 Z-0.125000
G01 X15.319105 Y161.253036 Z-0.125000
G01 X17.646192 Y160.572952 Z-0.125000
G01 X19.867498 Y160.184570 Z-0.125000
G01 X22.088805 Y160.074610 Z-0.125000
G01 X24.204358 Y160.240001 Z-0.125000
G01 X26.108323 Y160.614968 Z-0.125000
G01 X28.012316 Y161.197527 Z-0.125000
G01 X29.969171 Y161.998525 Z-0.125000
G01 X32.005376 Y163.026695 Z-0.125000
G01 X35.707580 Y165.297637 Z-0.125000
G01 X44.407704 Y171.307375 Z-0.125000
G01 X46.721588 Y172.694055 Z-0.125000
G01 X48.850343 Y173.771384 Z-0.125000
G01 X51.071650 Y174.640195 Z-0.125000
G01 X53.187176 Y175.185686 Z-0.125000
G01 X55.302729 Y175.427885 Z-0.125000
G01 X57.418255 Y175.350495 Z-0.125000
G01 X59.322248 Y175.004050 Z-0.125000
G01 X61.331994 Y174.360451 Z-0.125000
G01 X63.381427 Y173.427929 Z-0.125000
G01 X65.510182 Y172.194866 Z-0.125000
G01 X67.361284 Y170.936959 Z-0.125000
G01 X69.335788 Y169.446060 Z-0.125000
G01 X75.752905 Y164.147309 Z-0.125000
G01 X78.056470 Y162.335180 Z-0.125000
G01 X80.318919 Y160.738951 Z-0.125000
G01 X82.355124 Y159.521790 Z-0.125000
G01 X84.497108 Y158.521296 Z-0.125000
G01 X86.506881 Y157.884233 Z-0.125000
G01 X88.516627 Y157.568189 Z-0.125000
G01 X90.420619 Y157.580359 Z-0.125000
G01 X92.430365 Y157.927307 Z-0.125000
G01 X94.479798 Y158.627473 Z-0.125000
G01 X96.516003 Y159.649584 Z-0.125000
G01 X98.706459 Y161.075316 Z-0.125000
G01 X100.516418 Y162.470779 Z-0.125000
G01 X102.573181 Y164.244120 Z-0.125000
G01 X109.195984 Y170.540561 Z-0.125000
G01 X111.540719 Y172.661961 Z-0.125000
G01 X113.762025 Y174.462660 Z-0.125000
G01 X115.859930 Y175.901118 Z-0.125000
G01 X117.896135 Y176.995777 Z-0.125000
G01 X119.932339 Y177.748675 Z-0.125000
G01 X121.836331 Y178.114567 Z-0.125000
G01 X123.740297 Y178.137268 Z-0.125000
G01 X124.798073 Y177.999208 Z-0.125000
G01 X125.855850 Y177.754072 Z-0.125000
G01 X127.892028 Y176.987522 Z-0.125000
G01 X130.020809 Y175.793936 Z-0.125000
G01 X132.190681 Y174.207496 Z-0.125000
G01 X135.037250 Y171.661943 Z-0.125000
G01 X148.661317 Y158.104260 Z-0.125000
G01 X149.734942 Y157.155122 Z-0.125000
G01 X151.771146 Y155.943755 Z-0.125000
G01 X153.675138 Y155.142650 Z-0.125000
G01 X155.579104 Y154.698786 Z-0.125000
G01 X157.377316 Y154.622983 Z-0.125000
G01 X158.435092 Y154.736701 Z-0.125000
G01 X159.492842 Y154.967391 Z-0.125000
G01 X160.550619 Y155.313412 Z-0.125000
G01 X161.581937 Y155.759261 Z-0.125000
G01 X163.700426 Y156.995472 Z-0.125000
G01 X165.921733 Y158.714283 Z-0.125000
G01 X167.912693 Y160.569433 Z-0.125000
G01 X170.080157 Y162.856409 Z-0.125000
G01 X177.619159 Y171.718828 Z-0.125000
G01 X180.574181 Y174.954916 Z-0.125000
G01 X182.129082 Y176.473782 Z-0.125000
G01 X183.609953 Y177.765767 Z-0.125000
G01 X185.008565 Y178.826083 Z-0.125000
G01 X186.386593 Y179.701747 Z-0.125000
G01 X187.960042 Y180.478616 Z-0.125000
G01 X189.533464 Y181.002278 Z-0.125000
G01 X191.120115 Y181.262469 Z-0.125000
G01 X192.706766 Y181.247335 Z-0.125000
G01 X194.293418 Y180.955923 Z-0.125000
G01 X195.919730 Y180.375323 Z-0.125000
G01 X197.493179 Y179.551967 Z-0.125000
G01 X199.159152 Y178.416297 Z-0.125000
G00 Z3.000000

(End cutting path id: polyline224)


(Start cutting path id: polyline226)
(Change tool to Default tool)

G00 Z3.000000
G00 X2.943209 Y167.158793

G00 Z4.875000 (Fast pre-penetrate)
G01 Z-0.125000 F400.0(Penetrate)
G01 X11.273128 Y162.401485 Z-0.125000 F800.000000
G01 X13.772114 Y161.158209 Z-0.125000
G01 X16.059540 Y160.204308 Z-0.125000
G01 X18.386627 Y159.464508 Z-0.125000
G01 X20.713714 Y158.997492 Z-0.125000
G01 X22.935021 Y158.833107 Z-0.125000
G01 X25.156327 Y158.958414 Z-0.125000
G01 X27.060319 Y159.298720 Z-0.125000
G01 X29.070065 Y159.884851 Z-0.125000
G01 X31.079838 Y160.689686 Z-0.125000
G01 X33.116042 Y161.704997 Z-0.125000
G01 X34.967144 Y162.776346 Z-0.125000
G01 X36.910771 Y164.021368 Z-0.125000
G01 X45.703473 Y170.095109 Z-0.125000
G01 X48.017357 Y171.478851 Z-0.125000
G01 X50.146112 Y172.552053 Z-0.125000
G01 X52.446741 Y173.440734 Z-0.125000
G01 X54.562294 Y173.968921 Z-0.125000
G01 X56.677820 Y174.192177 Z-0.125000
G01 X58.793346 Y174.094969 Z-0.125000
G01 X60.697338 Y173.730559 Z-0.125000
G01 X62.707084 Y173.068598 Z-0.125000
G01 X64.677196 Y172.160311 Z-0.125000
G01 X66.805951 Y170.920581 Z-0.125000
G01 X68.595326 Y169.702203 Z-0.125000
G01 X70.569830 Y168.211410 Z-0.125000
G01 X79.208279 Y161.160432 Z-0.125000
G01 X81.429586 Y159.582565 Z-0.125000
G01 X83.558341 Y158.300184 Z-0.125000
G01 X85.687097 Y157.299769 Z-0.125000
G01 X87.670411 Y156.661860 Z-0.125000
G01 X89.680183 Y156.333618 Z-0.125000
G01 X91.584149 Y156.333882 Z-0.125000
G01 X93.593922 Y156.668421 Z-0.125000
G01 X95.683016 Y157.373059 Z-0.125000
G01 X97.811772 Y158.443667 Z-0.125000
G01 X99.940527 Y159.833389 Z-0.125000
G01 X101.750486 Y161.228589 Z-0.125000
G01 X103.807249 Y163.001692 Z-0.125000
G01 X110.454738 Y169.320860 Z-0.125000
G01 X112.774787 Y171.419082 Z-0.125000
G01 X115.078352 Y173.281588 Z-0.125000
G01 X117.155699 Y174.696419 Z-0.125000
G01 X119.191904 Y175.781791 Z-0.125000
G01 X121.201650 Y176.517015 Z-0.125000
G01 X123.211422 Y176.887404 Z-0.125000
G01 X125.115388 Y176.885288 Z-0.125000
G01 X127.125160 Y176.505373 Z-0.125000
G01 X129.187796 Y175.721096 Z-0.125000
G01 X131.224001 Y174.578097 Z-0.125000
G01 X133.424749 Y172.973322 Z-0.125000
G01 X136.296004 Y170.405914 Z-0.125000
G01 X150.068131 Y156.708214 Z-0.125000
G01 X151.123262 Y155.825486 Z-0.125000
G01 X153.066915 Y154.680212 Z-0.125000
G01 X154.944449 Y153.896412 Z-0.125000
G01 X156.848441 Y153.456172 Z-0.125000
G01 X158.646653 Y153.383570 Z-0.125000
G01 X159.704403 Y153.499008 Z-0.125000
G01 X160.762179 Y153.731179 Z-0.125000
G01 X161.819955 Y154.078577 Z-0.125000
G01 X162.877705 Y154.538422 Z-0.125000
G01 X165.006461 Y155.788603 Z-0.125000
G01 X167.320345 Y157.595308 Z-0.125000
G01 X169.245477 Y159.401696 Z-0.125000
G01 X171.426409 Y161.709812 Z-0.125000
G01 X178.830764 Y170.413984 Z-0.125000
G01 X181.610790 Y173.474072 Z-0.125000
G01 X183.091661 Y174.944280 Z-0.125000
G01 X184.514933 Y176.220232 Z-0.125000
G01 X185.913545 Y177.322299 Z-0.125000
G01 X187.219606 Y178.199789 Z-0.125000
G01 X188.793028 Y179.044364 Z-0.125000
G01 X190.273899 Y179.612397 Z-0.125000
G01 X191.754770 Y179.949450 Z-0.125000
G01 X193.235641 Y180.048748 Z-0.125000
G01 X194.716512 Y179.907619 Z-0.125000
G01 X196.197410 Y179.527546 Z-0.125000
G01 X197.678281 Y178.914031 Z-0.125000
G01 X199.159152 Y178.076625 Z-0.125000
G00 Z3.000000

(End cutting path id: polyline226)


(Start cutting path id: polyline228)
(Change tool to Default tool)

G00 Z3.000000
G00 X2.943209 Y166.619996

G00 Z4.875000 (Fast pre-penetrate)
G01 Z-0.125000 F400.0(Penetrate)
G01 X12.383795 Y161.250099 Z-0.125000 F800.000000
G01 X14.790203 Y160.037251 Z-0.125000
G01 X17.011536 Y159.085519 Z-0.125000
G01 X19.444404 Y158.281319 Z-0.125000
G01 X21.771490 Y157.787554 Z-0.125000
G01 X23.992797 Y157.596155 Z-0.125000
G01 X26.214104 Y157.694024 Z-0.125000
G01 X28.118096 Y158.011339 Z-0.125000
G01 X30.127842 Y158.574609 Z-0.125000
G01 X32.190504 Y159.382143 Z-0.125000
G01 X34.319260 Y160.434178 Z-0.125000
G01 X36.170335 Y161.502538 Z-0.125000
G01 X38.113989 Y162.745337 Z-0.125000
G01 X47.091793 Y168.941792 Z-0.125000
G01 X49.405677 Y170.314607 Z-0.125000
G01 X51.534432 Y171.374077 Z-0.125000
G01 X53.821858 Y172.240374 Z-0.125000
G01 X55.937384 Y172.751072 Z-0.125000
G01 X58.052911 Y172.955278 Z-0.125000
G01 X60.168463 Y172.838200 Z-0.125000
G01 X62.072429 Y172.455798 Z-0.125000
G01 X63.976421 Y171.818179 Z-0.125000
G01 X65.972965 Y170.892430 Z-0.125000
G01 X68.101720 Y169.646032 Z-0.125000
G01 X69.911679 Y168.408128 Z-0.125000
G01 X71.886183 Y166.911858 Z-0.125000
G01 X80.442347 Y159.923797 Z-0.125000
G01 X82.725355 Y158.304497 Z-0.125000
G01 X84.761559 Y157.078816 Z-0.125000
G01 X86.824195 Y156.099806 Z-0.125000
G01 X88.833968 Y155.439936 Z-0.125000
G01 X90.843714 Y155.099523 Z-0.125000
G01 X92.747706 Y155.088014 Z-0.125000
G01 X94.757452 Y155.410064 Z-0.125000
G01 X96.767224 Y156.069538 Z-0.125000
G01 X98.922412 Y157.130859 Z-0.125000
G01 X101.092310 Y158.532355 Z-0.125000
G01 X102.984554 Y159.986266 Z-0.125000
G01 X105.041317 Y161.759236 Z-0.125000
G01 X111.639435 Y168.031547 Z-0.125000
G01 X114.008828 Y170.176018 Z-0.125000
G01 X116.230161 Y171.976982 Z-0.125000
G01 X118.358917 Y173.434993 Z-0.125000
G01 X120.487672 Y174.567408 Z-0.125000
G01 X122.470987 Y175.285222 Z-0.125000
G01 X124.480733 Y175.649897 Z-0.125000
G01 X126.384725 Y175.642303 Z-0.125000
G01 X128.394471 Y175.256912 Z-0.125000
G01 X130.483565 Y174.454802 Z-0.125000
G01 X132.612321 Y173.242271 Z-0.125000
G01 X134.741076 Y171.673082 Z-0.125000
G01 X137.554758 Y169.150653 Z-0.125000
G01 X151.549029 Y155.236789 Z-0.125000
G01 X152.182493 Y154.719450 Z-0.125000
G01 X154.177581 Y153.511893 Z-0.125000
G01 X156.108005 Y152.685468 Z-0.125000
G01 X158.011971 Y152.228401 Z-0.125000
G01 X159.915963 Y152.144184 Z-0.125000
G01 X160.973740 Y152.261183 Z-0.125000
G01 X162.031490 Y152.494783 Z-0.125000
G01 X164.080923 Y153.272207 Z-0.125000
G01 X166.302230 Y154.574009 Z-0.125000
G01 X168.554413 Y156.332560 Z-0.125000
G01 X170.504231 Y158.158738 Z-0.125000
G01 X172.705350 Y160.487174 Z-0.125000
G01 X179.975085 Y169.029739 Z-0.125000
G01 X182.721430 Y172.066834 Z-0.125000
G01 X185.502198 Y174.735101 Z-0.125000
G01 X186.818525 Y175.806212 Z-0.125000
G01 X188.052593 Y176.679098 Z-0.125000
G01 X189.533464 Y177.542988 Z-0.125000
G01 X190.908554 Y178.152931 Z-0.125000
G01 X192.283672 Y178.567639 Z-0.125000
G01 X193.658762 Y178.780178 Z-0.125000
G01 X195.033853 Y178.786740 Z-0.125000
G01 X196.408944 Y178.586424 Z-0.125000
G01 X197.784061 Y178.181427 Z-0.125000
G01 X199.159152 Y177.576934 Z-0.125000
G00 Z3.000000

(End cutting path id: polyline228)


(Start cutting path id: polyline230)
(Change tool to Default tool)

G00 Z3.000000
G00 X2.943209 Y166.046460

G00 Z4.875000 (Fast pre-penetrate)
G01 Z-0.125000 F400.0(Penetrate)
G01 X5.904951 Y164.458803 Z-0.125000 F800.000000
G01 X13.587012 Y160.049316 Z-0.125000
G01 X15.900870 Y158.874276 Z-0.125000
G01 X18.069286 Y157.929000 Z-0.125000
G01 X20.502154 Y157.100221 Z-0.125000
G01 X22.829240 Y156.580024 Z-0.125000
G01 X25.050573 Y156.361743 Z-0.125000
G01 X27.271880 Y156.432228 Z-0.125000
G01 X29.281626 Y156.749145 Z-0.125000
G01 X31.291398 Y157.301462 Z-0.125000
G01 X33.301144 Y158.075818 Z-0.125000
G01 X35.429900 Y159.114094 Z-0.125000
G01 X37.281002 Y160.172770 Z-0.125000
G01 X39.317206 Y161.469624 Z-0.125000
G01 X48.295010 Y167.671026 Z-0.125000
G01 X50.701419 Y169.099404 Z-0.125000
G01 X52.830201 Y170.154561 Z-0.125000
G01 X55.091168 Y171.006782 Z-0.125000
G01 X57.206695 Y171.514650 Z-0.125000
G01 X59.322248 Y171.715521 Z-0.125000
G01 X61.437774 Y171.594712 Z-0.125000
G01 X63.341766 Y171.208818 Z-0.125000
G01 X65.232529 Y170.572946 Z-0.125000
G01 X67.176156 Y169.672940 Z-0.125000
G01 X69.304911 Y168.430723 Z-0.125000
G01 X71.063462 Y167.232638 Z-0.125000
G01 X73.037966 Y165.741819 Z-0.125000
G01 X81.676389 Y158.687295 Z-0.125000
G01 X83.928572 Y157.087547 Z-0.125000
G01 X85.964777 Y155.857607 Z-0.125000
G01 X88.000981 Y154.884312 Z-0.125000
G01 X89.997498 Y154.218488 Z-0.125000
G01 X92.007270 Y153.865932 Z-0.125000
G01 X93.911236 Y153.842490 Z-0.125000
G01 X95.921008 Y154.152025 Z-0.125000
G01 X97.996874 Y154.826262 Z-0.125000
G01 X100.125629 Y155.871286 Z-0.125000
G01 X102.326378 Y157.289980 Z-0.125000
G01 X104.218596 Y158.743704 Z-0.125000
G01 X106.275385 Y160.516252 Z-0.125000
G01 X112.898188 Y166.811052 Z-0.125000
G01 X115.242896 Y168.932478 Z-0.125000
G01 X117.546488 Y170.795301 Z-0.125000
G01 X119.654686 Y172.229632 Z-0.125000
G01 X121.783441 Y173.352364 Z-0.125000
G01 X123.740297 Y174.053112 Z-0.125000
G01 X125.750069 Y174.412204 Z-0.125000
G01 X127.654035 Y174.399266 Z-0.125000
G01 X129.663808 Y174.008503 Z-0.125000
G01 X131.686783 Y173.232852 Z-0.125000
G01 X133.815538 Y172.027623 Z-0.125000
G01 X135.975144 Y170.440125 Z-0.125000
G01 X138.813485 Y167.896239 Z-0.125000
G01 X152.363494 Y154.437140 Z-0.125000
G01 X153.437146 Y153.465750 Z-0.125000
G01 X155.473350 Y152.249038 Z-0.125000
G01 X157.377316 Y151.439811 Z-0.125000
G01 X159.281308 Y150.986025 Z-0.125000
G01 X161.185274 Y150.904719 Z-0.125000
G01 X162.243050 Y151.023146 Z-0.125000
G01 X163.300827 Y151.258016 Z-0.125000
G01 X164.358576 Y151.607663 Z-0.125000
G01 X165.376692 Y152.050151 Z-0.125000
G01 X167.567148 Y153.337374 Z-0.125000
G01 X169.870740 Y155.140269 Z-0.125000
G01 X171.837015 Y156.988672 Z-0.125000
G01 X174.051575 Y159.337878 Z-0.125000
G01 X181.186717 Y167.721773 Z-0.125000
G01 X183.832097 Y170.656766 Z-0.125000
G01 X186.489436 Y173.242906 Z-0.125000
G01 X188.978130 Y175.203651 Z-0.125000
G01 X190.273899 Y176.012931 Z-0.125000
G01 X191.569668 Y176.661900 Z-0.125000
G01 X192.812547 Y177.125185 Z-0.125000
G01 X194.081857 Y177.431069 Z-0.125000
G01 X195.351194 Y177.563520 Z-0.125000
G01 X196.620505 Y177.520234 Z-0.125000
G01 X197.889841 Y177.301239 Z-0.125000
G01 X199.159152 Y176.908650 Z-0.125000
G00 Z3.000000

(End cutting path id: polyline230)


(Start cutting path id: polyline232)
(Change tool to Default tool)

G00 Z3.000000
G00 X2.943209 Y165.429849

G00 Z4.875000 (Fast pre-penetrate)
G01 Z-0.125000 F400.0(Penetrate)
G01 X6.645413 Y163.522682 Z-0.125000 F800.000000
G01 X14.975332 Y158.748758 Z-0.125000
G01 X17.104088 Y157.667645 Z-0.125000
G01 X19.047741 Y156.806322 Z-0.125000
G01 X21.454150 Y155.952698 Z-0.125000
G01 X23.781236 Y155.393554 Z-0.125000
G01 X26.002543 Y155.135136 Z-0.125000
G01 X28.223876 Y155.164320 Z-0.125000
G01 X30.233622 Y155.444222 Z-0.125000
G01 X32.243395 Y155.961244 Z-0.125000
G01 X34.319260 Y156.731207 Z-0.125000
G01 X36.540566 Y157.795042 Z-0.125000
G01 X38.484220 Y158.899782 Z-0.125000
G01 X40.520424 Y160.194360 Z-0.125000
G01 X49.590779 Y166.459368 Z-0.125000
G01 X51.997188 Y167.884306 Z-0.125000
G01 X54.125943 Y168.935098 Z-0.125000
G01 X56.360479 Y169.773270 Z-0.125000
G01 X58.476032 Y170.278253 Z-0.125000
G01 X60.591558 Y170.475738 Z-0.125000
G01 X62.707084 Y170.351172 Z-0.125000
G01 X64.611076 Y169.961733 Z-0.125000
G01 X66.515069 Y169.316944 Z-0.125000
G01 X68.471925 Y168.404873 Z-0.125000
G01 X70.600680 Y167.156068 Z-0.125000
G01 X72.379789 Y165.938404 Z-0.125000
G01 X74.354293 Y164.442267 Z-0.125000
G01 X82.910457 Y157.450740 Z-0.125000
G01 X85.131764 Y155.870651 Z-0.125000
G01 X87.167968 Y154.636477 Z-0.125000
G01 X89.296723 Y153.620663 Z-0.125000
G01 X91.266835 Y152.970212 Z-0.125000
G01 X93.170801 Y152.632763 Z-0.125000
G01 X95.074793 Y152.597415 Z-0.125000
G01 X97.084539 Y152.894356 Z-0.125000
G01 X99.200091 Y153.572139 Z-0.125000
G01 X101.328847 Y154.611712 Z-0.125000
G01 X103.478160 Y155.988893 Z-0.125000
G01 X105.370405 Y157.433622 Z-0.125000
G01 X107.509453 Y159.272870 Z-0.125000
G01 X114.156916 Y165.590133 Z-0.125000
G01 X116.559223 Y167.759291 Z-0.125000
G01 X118.862815 Y169.612774 Z-0.125000
G01 X120.950428 Y171.023636 Z-0.125000
G01 X122.986632 Y172.095938 Z-0.125000
G01 X125.009634 Y172.820816 Z-0.125000
G01 X127.019380 Y173.174352 Z-0.125000
G01 X128.923372 Y173.156228 Z-0.125000
G01 X130.933118 Y172.760227 Z-0.125000
G01 X132.982552 Y171.967113 Z-0.125000
G01 X135.018756 Y170.813425 Z-0.125000
G01 X137.209212 Y169.207883 Z-0.125000
G01 X139.998182 Y166.714400 Z-0.125000
G01 X153.770335 Y153.044719 Z-0.125000
G01 X154.825466 Y152.138072 Z-0.125000
G01 X156.861670 Y150.940120 Z-0.125000
G01 X158.752407 Y150.159997 Z-0.125000
G01 X160.656399 Y149.729573 Z-0.125000
G01 X162.454611 Y149.665227 Z-0.125000
G01 X163.512361 Y149.784950 Z-0.125000
G01 X164.570137 Y150.020932 Z-0.125000
G01 X165.627913 Y150.371584 Z-0.125000
G01 X166.672461 Y150.827619 Z-0.125000
G01 X168.883475 Y152.135374 Z-0.125000
G01 X171.187067 Y153.947026 Z-0.125000
G01 X173.169799 Y155.817575 Z-0.125000
G01 X175.330516 Y158.112436 Z-0.125000
G01 X182.398348 Y166.411981 Z-0.125000
G01 X184.942737 Y169.244316 Z-0.125000
G01 X187.476701 Y171.743699 Z-0.125000
G01 X189.862552 Y173.687193 Z-0.125000
G01 X191.106886 Y174.511264 Z-0.125000
G01 X192.310104 Y175.171107 Z-0.125000
G01 X193.447202 Y175.663470 Z-0.125000
G01 X194.610759 Y176.029758 Z-0.125000
G01 X195.774289 Y176.252484 Z-0.125000
G01 X196.937845 Y176.328949 Z-0.125000
G01 X197.995595 Y176.270450 Z-0.125000
G01 X199.159152 Y176.065530 Z-0.125000
G00 Z3.000000

(End cutting path id: polyline232)


(Start cutting path id: polyline234)
(Change tool to Default tool)

G00 Z3.000000
G00 X2.943209 Y164.762465

G00 Z4.875000 (Fast pre-penetrate)
G01 Z-0.125000 F400.0(Penetrate)
