%
(Header)
(Generated by gcodetools from Inkscape.)
(Using default header. To add your own header create file "header" in the output dir.)
M3
(Header end.)
G21 (All units in mm)

(Start cutting path id: polyline6054)
(Change tool to Default tool)

G00 Z5.000000
G00 X9.633139 Y42.047394

G00 Z4.875000 (Fast pre-penetrate)
G01 Z-0.125000 F400.0(Penetrate)
G01 X9.721919 Y43.452174 Z-0.125000 F800.000000
G01 X9.403259 Y44.861844 Z-0.125000
G01 X8.688100 Y46.084184 Z-0.125000
G01 X6.750581 Y48.289294 Z-0.125000
G01 X6.147303 Y49.174734 Z-0.125000
G01 X5.711864 Y50.333844 Z-0.125000
G01 X5.634018 Y51.466204 Z-0.125000
G01 X5.851736 Y52.737194 Z-0.125000
G01 X6.448937 Y54.381624 Z-0.125000
G01 X9.472586 Y60.088374 Z-0.125000
G01 X10.247350 Y61.815464 Z-0.125000
G01 X10.728983 Y63.600954 Z-0.125000
G01 X10.724083 Y64.961974 Z-0.125000
G01 X10.398130 Y65.977554 Z-0.125000
G01 X9.690265 Y67.008944 Z-0.125000
G01 X8.872915 Y67.793434 Z-0.125000
G01 X6.392940 Y69.744364 Z-0.125000
G01 X5.365200 Y70.819544 Z-0.125000
G01 X4.691375 Y72.061354 Z-0.125000
G01 X4.459068 Y73.509944 Z-0.125000
G01 X4.740040 Y75.396364 Z-0.125000
G01 X5.525745 Y77.518794 Z-0.125000
G01 X6.671480 Y79.810214 Z-0.125000
G01 X9.720658 Y85.333324 Z-0.125000
G01 X10.990466 Y88.073574 Z-0.125000
G01 X11.790761 Y90.592494 Z-0.125000
G01 X12.064438 Y92.863254 Z-0.125000
G01 X11.854014 Y94.907824 Z-0.125000
G01 X11.186268 Y96.931694 Z-0.125000
G01 X10.226644 Y98.818154 Z-0.125000
G01 X7.201780 Y104.018924 Z-0.125000
G01 X6.389294 Y105.780104 Z-0.125000
G01 X5.659545 Y107.774774 Z-0.125000
G01 X5.091522 Y109.844894 Z-0.125000
G01 X4.643927 Y112.166754 Z-0.125000
G01 X4.344755 Y114.559164 Z-0.125000
G01 X4.151351 Y117.390614 Z-0.125000
G01 X4.102687 Y121.263254 Z-0.125000
G01 X4.276641 Y125.241664 Z-0.125000
G01 X4.647575 Y128.922124 Z-0.125000
G01 X5.265442 Y132.718104 Z-0.125000
G01 X5.994009 Y135.983794 Z-0.125000
G01 X6.922024 Y139.340714 Z-0.125000
G01 X11.101132 Y152.213744 Z-0.125000
G01 X11.785899 Y155.262924 Z-0.125000
G01 X12.059577 Y157.924134 Z-0.125000
G01 X11.878329 Y160.565894 Z-0.125000
G01 X11.540219 Y161.965804 Z-0.125000
G01 X11.109642 Y163.126134 Z-0.125000
G01 X9.826498 Y165.445564 Z-0.125000
G01 X6.919593 Y169.338874 Z-0.125000
G01 X5.765348 Y171.134084 Z-0.125000
G01 X4.866510 Y173.244304 Z-0.125000
G01 X4.482166 Y175.400754 Z-0.125000
G01 X4.545411 Y177.573054 Z-0.125000
G01 X5.042886 Y180.144244 Z-0.125000
G01 X5.897922 Y182.884484 Z-0.125000
G01 X8.640600 Y190.016724 Z-0.125000
G01 X9.653749 Y193.025784 Z-0.125000
G01 X10.443138 Y196.318254 Z-0.125000
G01 X10.767876 Y199.392964 Z-0.125000
G01 X10.715566 Y201.706313 Z-0.125000
G01 X10.381102 Y204.276324 Z-0.125000
G01 X8.065318 Y214.096508 Z-0.125000
G01 X7.123930 Y219.888397 Z-0.125000
G01 X6.795510 Y223.435047 Z-0.125000
G01 X6.604573 Y227.240750 Z-0.125000
G01 X6.608173 Y235.229255 Z-0.125000
G00 Z5.000000

(End cutting path id: polyline6054)


(Start cutting path id: polyline6052)
(Change tool to Default tool)

G00 Z5.000000
G00 X10.693738 Y42.088714

G00 Z4.875000 (Fast pre-penetrate)
G01 Z-0.125000 F400.0(Penetrate)
G01 X10.637778 Y43.230814 Z-0.125000 F800.000000
G01 X10.252220 Y44.413014 Z-0.125000
G01 X9.575964 Y45.459024 Z-0.125000
G01 X7.851301 Y47.375884 Z-0.125000
G01 X7.123985 Y48.397534 Z-0.125000
G01 X6.683684 Y49.554214 Z-0.125000
G01 X6.608284 Y50.687794 Z-0.125000
G01 X6.830866 Y51.961224 Z-0.125000
G01 X7.441439 Y53.610514 Z-0.125000
G01 X10.493048 Y59.330614 Z-0.125000
G01 X11.259302 Y61.055284 Z-0.125000
G01 X11.716623 Y62.828624 Z-0.125000
G01 X11.678933 Y64.173834 Z-0.125000
G01 X11.320120 Y65.174824 Z-0.125000
G01 X10.574533 Y66.187974 Z-0.125000
G01 X9.730438 Y66.959104 Z-0.125000
G01 X7.375753 Y68.774974 Z-0.125000
G01 X6.335819 Y69.844084 Z-0.125000
G01 X5.658383 Y71.084684 Z-0.125000
G01 X5.434585 Y72.342294 Z-0.125000
G01 X5.671755 Y74.206874 Z-0.125000
G01 X6.434364 Y76.319524 Z-0.125000
G01 X7.577631 Y78.609774 Z-0.125000
G01 X10.668179 Y84.152334 Z-0.125000
G01 X12.055946 Y87.143134 Z-0.125000
G01 X12.771140 Y89.426094 Z-0.125000
G01 X13.038705 Y91.695644 Z-0.125000
G01 X12.844120 Y93.551654 Z-0.125000
G01 X12.173941 Y95.574354 Z-0.125000
G01 X11.279967 Y97.296584 Z-0.125000
G01 X8.071458 Y102.606844 Z-0.125000
G01 X7.166542 Y104.518834 Z-0.125000
G01 X6.486639 Y106.342004 Z-0.125000
G01 X5.866340 Y108.583594 Z-0.125000
G01 X5.452821 Y110.726674 Z-0.125000
G01 X5.149966 Y113.116644 Z-0.125000
G01 X4.943188 Y116.136654 Z-0.125000
G01 X4.888486 Y120.006814 Z-0.125000
G01 X5.069698 Y124.376894 Z-0.125000
G01 X5.462551 Y128.262894 Z-0.125000
G01 X6.047593 Y131.849704 Z-0.125000
G01 X6.835729 Y135.336754 Z-0.125000
G01 X7.857390 Y138.934504 Z-0.125000
G01 X11.020916 Y148.212214 Z-0.125000
G01 X12.080300 Y151.632344 Z-0.125000
G01 X12.772360 Y154.685214 Z-0.125000
G01 X13.035061 Y157.341534 Z-0.125000
G01 X12.997371 Y158.686754 Z-0.125000
G01 X12.824632 Y159.968674 Z-0.125000
G01 X12.516916 Y161.188614 Z-0.125000
G01 X12.081511 Y162.346504 Z-0.125000
G01 X10.878604 Y164.509034 Z-0.125000
G01 X7.839152 Y168.534884 Z-0.125000
G01 X6.683692 Y170.328914 Z-0.125000
G01 X5.800658 Y172.446434 Z-0.125000
G01 X5.456469 Y174.427764 Z-0.125000
G01 X5.519715 Y176.600024 Z-0.125000
G01 X6.026880 Y179.176074 Z-0.125000
G01 X6.985324 Y182.158384 Z-0.125000
G01 X9.597885 Y188.840604 Z-0.125000
G01 X10.630486 Y191.858174 Z-0.125000
G01 X11.430781 Y195.156684 Z-0.125000
G01 X11.738498 Y198.028332 Z-0.125000
G01 X11.687438 Y200.341682 Z-0.125000
G01 X11.335925 Y202.904369 Z-0.125000
G01 X8.854734 Y212.841328 Z-0.125000
G01 X8.276986 Y215.881996 Z-0.125000
G01 X7.873191 Y218.808347 Z-0.125000
G01 X7.553318 Y222.359863 Z-0.125000
G01 X7.358732 Y226.553556 Z-0.125000
G01 X7.397642 Y235.142900 Z-0.125000
G00 Z5.000000

(End cutting path id: polyline6052)


(Start cutting path id: polyline6050)
(Change tool to Default tool)

G00 Z5.000000
G00 X11.663088 Y42.086284

G00 Z4.875000 (Fast pre-penetrate)
G01 Z-0.125000 F400.0(Penetrate)
G01 X11.447836 Y43.154194 Z-0.125000 F800.000000
G01 X10.989298 Y44.107734 Z-0.125000
G01 X10.342219 Y44.972534 Z-0.125000
G01 X8.607832 Y46.884484 Z-0.125000
G01 X8.019142 Y47.776014 Z-0.125000
G01 X7.657897 Y48.775794 Z-0.125000
G01 X7.581267 Y49.908154 Z-0.125000
G01 X7.809929 Y51.184014 Z-0.125000
G01 X8.430225 Y52.839374 Z-0.125000
G01 X11.245916 Y58.058384 Z-0.125000
G01 X12.178795 Y60.055514 Z-0.125000
G01 X12.675054 Y61.847074 Z-0.125000
G01 X12.666554 Y63.206884 Z-0.125000
G01 X12.324797 Y64.215164 Z-0.125000
G01 X11.587719 Y65.231964 Z-0.125000
G01 X10.587943 Y66.125934 Z-0.125000
G01 X8.360977 Y67.806844 Z-0.125000
G01 X7.308887 Y68.869844 Z-0.125000
G01 X6.626554 Y70.107994 Z-0.125000
G01 X6.406403 Y71.368084 Z-0.125000
G01 X6.446553 Y72.165944 Z-0.125000
G01 X6.661842 Y73.241134 Z-0.125000
G01 X7.451195 Y75.365964 Z-0.125000
G01 X8.480150 Y77.408084 Z-0.125000
G01 X11.750730 Y83.230394 Z-0.125000
G01 X13.029011 Y85.974284 Z-0.125000
G01 X13.751465 Y88.262104 Z-0.125000
G01 X14.010554 Y90.331004 Z-0.125000
G01 X13.834205 Y92.195554 Z-0.125000
G01 X13.160380 Y94.216984 Z-0.125000
G01 X12.244522 Y95.929494 Z-0.125000
G01 X8.932608 Y101.191064 Z-0.125000
G01 X8.002161 Y103.090904 Z-0.125000
G01 X7.306455 Y104.906824 Z-0.125000
G01 X6.718980 Y106.968374 Z-0.125000
G01 X6.260444 Y109.285374 Z-0.125000
G01 X5.938137 Y111.861464 Z-0.125000
G01 X5.738689 Y114.883894 Z-0.125000
G01 X5.687594 Y119.340324 Z-0.125000
G01 X5.862728 Y123.513374 Z-0.125000
G01 X6.217893 Y127.186474 Z-0.125000
G01 X6.819956 Y130.976434 Z-0.125000
G01 X7.548487 Y134.240884 Z-0.125000
G01 X8.565285 Y137.834964 Z-0.125000
G01 X12.121665 Y148.078424 Z-0.125000
G01 X13.050895 Y151.047354 Z-0.125000
G01 X13.753898 Y154.103824 Z-0.125000
G01 X14.010555 Y156.757744 Z-0.125000
G01 X13.808641 Y159.195134 Z-0.125000
G01 X13.502138 Y160.413844 Z-0.125000
G01 X13.063088 Y161.571734 Z-0.125000
G01 X11.743400 Y163.874144 Z-0.125000
G01 X8.769632 Y167.735814 Z-0.125000
G01 X7.696876 Y169.374124 Z-0.125000
G01 X6.789527 Y171.480734 Z-0.125000
G01 X6.431965 Y173.454734 Z-0.125000
G01 X6.490325 Y175.624564 Z-0.125000
G01 X7.004820 Y178.204284 Z-0.125000
G01 X7.895149 Y180.960334 Z-0.125000
G01 X10.632962 Y187.895534 Z-0.125000
G01 X11.667995 Y190.914314 Z-0.125000
G01 X12.448875 Y194.204354 Z-0.125000
G01 X12.721301 Y197.058950 Z-0.125000
G01 X12.627701 Y199.352852 Z-0.125000
G01 X12.260367 Y201.712394 Z-0.125000
G01 X9.728079 Y211.235835 Z-0.125000
G01 X9.150368 Y214.081913 Z-0.125000
G01 X8.718575 Y216.994899 Z-0.125000
G01 X8.350037 Y220.912484 Z-0.125000
G01 X8.151804 Y225.105003 Z-0.125000
G01 X8.095847 Y229.754812 Z-0.125000
G01 X8.201691 Y235.063842 Z-0.125000
G00 Z5.000000

(End cutting path id: polyline6050)


(Start cutting path id: polyline6048)
(Change tool to Default tool)

G00 Z5.000000
G00 X12.535181 Y42.038884

G00 Z4.875000 (Fast pre-penetrate)
G01 Z-0.125000 F400.0(Penetrate)
G01 X12.240836 Y42.874424 Z-0.125000 F800.000000
G01 X11.790809 Y43.637044 Z-0.125000
G01 X9.710979 Y45.971094 Z-0.125000
G01 X9.084604 Y46.845574 Z-0.125000
G01 X8.632144 Y47.996174 Z-0.125000
G01 X8.554314 Y49.129764 Z-0.125000
G01 X8.786622 Y50.406824 Z-0.125000
G01 X9.417862 Y52.067044 Z-0.125000
G01 X12.395313 Y57.557304 Z-0.125000
G01 X13.187097 Y59.292904 Z-0.125000
G01 X13.631045 Y60.865574 Z-0.125000
G01 X13.654145 Y62.239934 Z-0.125000
G01 X13.330625 Y63.256754 Z-0.125000
G01 X12.603308 Y64.278424 Z-0.125000
G01 X11.756781 Y65.049544 Z-0.125000
G01 X9.202575 Y66.965184 Z-0.125000
G01 X8.174836 Y68.040374 Z-0.125000
G01 X7.541165 Y69.301624 Z-0.125000
G01 X7.386699 Y70.786684 Z-0.125000
G01 X7.717514 Y72.500404 Z-0.125000
G01 X8.467965 Y74.412404 Z-0.125000
G01 X9.523702 Y76.466704 Z-0.125000
G01 X12.696953 Y82.049374 Z-0.125000
G01 X14.094448 Y85.043854 Z-0.125000
G01 X14.562709 Y86.431624 Z-0.125000
G01 X14.858270 Y87.740334 Z-0.125000
G01 X14.955560 Y89.928384 Z-0.125000
G01 X14.650273 Y91.537514 Z-0.125000
G01 X13.914447 Y93.335184 Z-0.125000
G01 X13.112902 Y94.711994 Z-0.125000
G01 X9.790047 Y99.772914 Z-0.125000
G01 X8.832855 Y101.660564 Z-0.125000
G01 X8.066600 Y103.638224 Z-0.125000
G01 X7.404932 Y106.054944 Z-0.125000
G01 X6.935455 Y108.756284 Z-0.125000
G01 X6.643541 Y111.734964 Z-0.125000
G01 X6.490289 Y115.558944 Z-0.125000
G01 X6.519499 Y119.663854 Z-0.125000
G01 X6.733535 Y123.660524 Z-0.125000
G01 X7.162895 Y127.563534 Z-0.125000
G01 X7.798998 Y131.173434 Z-0.125000
G01 X8.536075 Y134.246974 Z-0.125000
G01 X9.470167 Y137.414144 Z-0.125000
G01 X13.056940 Y147.475134 Z-0.125000
G01 X13.947268 Y150.231224 Z-0.125000
G01 X14.692854 Y153.309594 Z-0.125000
G01 X14.981086 Y155.976904 Z-0.125000
G01 X14.943396 Y157.323294 Z-0.125000
G01 X14.762183 Y158.601624 Z-0.125000
G01 X14.438627 Y159.813004 Z-0.125000
G01 X13.980089 Y160.961174 Z-0.125000
G01 X12.721258 Y163.096954 Z-0.125000
G01 X9.819218 Y166.796854 Z-0.125000
G01 X8.633364 Y168.577474 Z-0.125000
G01 X7.785622 Y170.516214 Z-0.125000
G01 X7.409789 Y172.482944 Z-0.125000
G01 X7.459679 Y174.649124 Z-0.125000
G01 X7.976606 Y177.230044 Z-0.125000
G01 X8.967839 Y180.228164 Z-0.125000
G01 X11.569456 Y186.709684 Z-0.125000
G01 X12.558293 Y189.511954 Z-0.125000
G01 X13.351293 Y192.612244 Z-0.125000
G01 X13.691870 Y195.694284 Z-0.125000
G01 X13.622540 Y197.804538 Z-0.125000
G01 X13.262512 Y200.167728 Z-0.125000
G01 X10.570896 Y209.811552 Z-0.125000
G01 X9.940872 Y212.826734 Z-0.125000
G01 X9.510296 Y215.740895 Z-0.125000
G01 X9.175833 Y219.285113 Z-0.125000
G01 X8.965408 Y223.667356 Z-0.125000
G01 X8.902188 Y229.091918 Z-0.125000
G01 X9.022586 Y234.992081 Z-0.125000
G00 Z5.000000

(End cutting path id: polyline6048)


(Start cutting path id: polyline6046)
(Change tool to Default tool)

G00 Z5.000000
G00 X13.307514 Y41.945204

G00 Z4.875000 (Fast pre-penetrate)
G01 Z-0.125000 F400.0(Penetrate)
G01 X12.575299 Y43.159054 Z-0.125000 F800.000000
G01 X10.702249 Y45.199964 Z-0.125000
G01 X10.067361 Y46.070824 Z-0.125000
G01 X9.607609 Y47.218984 Z-0.125000
G01 X9.527329 Y48.350094 Z-0.125000
G01 X9.762067 Y49.629614 Z-0.125000
G01 X10.401817 Y51.293504 Z-0.125000
G01 X13.272213 Y56.538074 Z-0.125000
G01 X14.099289 Y58.290694 Z-0.125000
G01 X14.617432 Y60.093244 Z-0.125000
G01 X14.611332 Y61.453004 Z-0.125000
G01 X14.258595 Y62.456434 Z-0.125000
G01 X13.495989 Y63.461064 Z-0.125000
G01 X12.622716 Y64.220034 Z-0.125000
G01 X10.196233 Y66.000644 Z-0.125000
G01 X9.152688 Y67.068554 Z-0.125000
G01 X8.511723 Y68.326164 Z-0.125000
G01 X8.362120 Y69.813694 Z-0.125000
G01 X8.707524 Y71.534704 Z-0.125000
G01 X9.483504 Y73.457644 Z-0.125000
G01 X13.778176 Y81.125014 Z-0.125000
G01 X14.968892 Y83.632974 Z-0.125000
G01 X15.759462 Y86.148214 Z-0.125000
G01 X15.935847 Y87.399784 Z-0.125000
G01 X15.936947 Y88.568614 Z-0.125000
G01 X15.642602 Y90.183834 Z-0.125000
G01 X14.979718 Y91.819704 Z-0.125000
G01 X14.076054 Y93.343704 Z-0.125000
G01 X10.643713 Y98.353544 Z-0.125000
G01 X9.660955 Y100.229024 Z-0.125000
G01 X8.880113 Y102.199364 Z-0.125000
G01 X8.253736 Y104.437304 Z-0.125000
G01 X7.749001 Y107.317454 Z-0.125000
G01 X7.452226 Y110.489504 Z-0.125000
G01 X7.309917 Y114.318344 Z-0.125000
G01 X7.342737 Y119.009474 Z-0.125000
G01 X7.581124 Y123.406304 Z-0.125000
G01 X7.966682 Y126.899474 Z-0.125000
G01 X8.597957 Y130.508114 Z-0.125000
G01 X9.400683 Y133.806664 Z-0.125000
G01 X10.440615 Y137.218304 Z-0.125000
G01 X13.894803 Y146.632264 Z-0.125000
G01 X14.963912 Y149.862684 Z-0.125000
G01 X15.702204 Y152.936194 Z-0.125000
G01 X15.953965 Y155.393064 Z-0.125000
G01 X15.755696 Y157.831724 Z-0.125000
G01 X15.438253 Y159.045544 Z-0.125000
G01 X14.979715 Y160.194914 Z-0.125000
G01 X13.709944 Y162.324614 Z-0.125000
G01 X10.772647 Y166.008724 Z-0.125000
G01 X9.578248 Y167.785694 Z-0.125000
G01 X8.734152 Y169.725644 Z-0.125000
G01 X8.374159 Y171.699634 Z-0.125000
G01 X8.450789 Y173.878004 Z-0.125000
G01 X8.942149 Y176.252144 Z-0.125000
G01 X9.945574 Y179.256334 Z-0.125000
G01 X12.586094 Y185.756134 Z-0.125000
G01 X13.581009 Y188.562064 Z-0.125000
G01 X14.363068 Y191.656254 Z-0.125000
G01 X14.665923 Y194.526654 Z-0.125000
G01 X14.584433 Y196.630835 Z-0.125000
G01 X14.235442 Y198.804313 Z-0.125000
G01 X13.699065 Y200.890222 Z-0.125000
G01 X11.379635 Y208.566103 Z-0.125000
G01 X10.741064 Y211.577594 Z-0.125000
G01 X10.314172 Y214.492999 Z-0.125000
G01 X9.980926 Y218.233063 Z-0.125000
G01 X9.787519 Y222.817181 Z-0.125000
G01 X9.736429 Y228.637032 Z-0.125000
G01 X9.861719 Y234.928836 Z-0.125000
G00 Z5.000000

(End cutting path id: polyline6046)


(Start cutting path id: polyline6044)
(Change tool to Default tool)

G00 Z5.000000
G00 X13.984948 Y41.806574

G00 Z4.875000 (Fast pre-penetrate)
G01 Z-0.125000 F400.0(Penetrate)
G01 X13.347632 Y42.674974 Z-0.125000 F800.000000
G01 X11.694732 Y44.431284 Z-0.125000
G01 X11.051299 Y45.297274 Z-0.125000
G01 X10.583038 Y46.440574 Z-0.125000
G01 X10.517388 Y47.773594 Z-0.125000
G01 X10.806834 Y49.077444 Z-0.125000
G01 X11.383366 Y50.517524 Z-0.125000
G01 X14.279293 Y55.774254 Z-0.125000
G01 X15.102721 Y57.525674 Z-0.125000
G01 X15.569769 Y59.109264 Z-0.125000
G01 X15.601369 Y60.487304 Z-0.125000
G01 X15.271769 Y61.500454 Z-0.125000
G01 X14.522535 Y62.512404 Z-0.125000
G01 X13.650478 Y63.271334 Z-0.125000
G01 X11.196032 Y65.039824 Z-0.125000
G01 X10.134253 Y66.099194 Z-0.125000
G01 X9.483527 Y67.351954 Z-0.125000
G01 X9.344864 Y68.065894 Z-0.125000
G01 X9.336364 Y68.840654 Z-0.125000
G01 X9.697609 Y70.568964 Z-0.125000
G01 X10.495472 Y72.502874 Z-0.125000
G01 X14.574857 Y79.678884 Z-0.125000
G01 X15.934662 Y82.460514 Z-0.125000
G01 X16.449123 Y83.871364 Z-0.125000
G01 X16.779974 Y85.195884 Z-0.125000
G01 X16.912522 Y86.232124 Z-0.125000
G01 X16.905222 Y87.397354 Z-0.125000
G01 X16.638875 Y88.831304 Z-0.125000
G01 X15.969913 Y90.464764 Z-0.125000
G01 X15.144090 Y91.829444 Z-0.125000
G01 X12.377063 Y95.593814 Z-0.125000
G01 X11.226465 Y97.390244 Z-0.125000
G01 X10.131827 Y99.603864 Z-0.125000
G01 X9.376513 Y101.780984 Z-0.125000
G01 X8.756216 Y104.605174 Z-0.125000
G01 X8.351170 Y108.116544 Z-0.125000
G01 X8.152938 Y112.894084 Z-0.125000
G01 X8.178468 Y118.165394 Z-0.125000
G01 X8.334152 Y121.744904 Z-0.125000
G01 X8.641869 Y125.201544 Z-0.125000
G01 X9.101621 Y128.339514 Z-0.125000
G01 X9.681801 Y131.144264 Z-0.125000
G01 X10.384804 Y133.812744 Z-0.125000
G01 X11.327407 Y136.787764 Z-0.125000
G01 X14.887434 Y146.252804 Z-0.125000
G01 X15.907877 Y149.264304 Z-0.125000
G01 X16.705777 Y152.561584 Z-0.125000
G01 X16.929574 Y155.199714 Z-0.125000
G01 X16.680211 Y157.419384 Z-0.125000
G01 X15.912740 Y159.591624 Z-0.125000
G01 X14.712300 Y161.559584 Z-0.125000
G01 X11.738496 Y165.226634 Z-0.125000
G01 X10.621974 Y166.844274 Z-0.125000
G01 X9.741371 Y168.768414 Z-0.125000
G01 X9.354596 Y170.729074 Z-0.125000
G01 X9.414206 Y172.900114 Z-0.125000
G01 X9.901957 Y175.271854 Z-0.125000
G01 X10.823893 Y178.042514 Z-0.125000
G01 X13.593315 Y184.798904 Z-0.125000
G01 X14.596740 Y187.607294 Z-0.125000
G01 X15.369074 Y190.697844 Z-0.125000
G01 X15.640319 Y193.357824 Z-0.125000
G01 X15.547889 Y195.457104 Z-0.125000
G01 X15.176919 Y197.620854 Z-0.125000
G01 X14.610148 Y199.692178 Z-0.125000
G01 X12.332052 Y206.802494 Z-0.125000
G01 X11.618108 Y209.973358 Z-0.125000
G01 X11.155924 Y213.067555 Z-0.125000
G01 X10.831186 Y216.811214 Z-0.125000
G01 X10.643860 Y221.788228 Z-0.125000
G01 X10.603740 Y228.587191 Z-0.125000
G01 X10.721705 Y234.875305 Z-0.125000
G00 Z5.000000

(End cutting path id: polyline6044)


(Start cutting path id: polyline6042)
(Change tool to Default tool)

G00 Z5.000000
G00 X14.582148 Y41.628964

G00 Z4.875000 (Fast pre-penetrate)
G01 Z-0.125000 F400.0(Penetrate)
G01 X12.570436 Y43.800014 Z-0.125000 F800.000000
G01 X11.947706 Y44.676974 Z-0.125000
G01 X11.523245 Y45.840934 Z-0.125000
G01 X11.489175 Y46.993984 Z-0.125000
G01 X11.778655 Y48.299044 Z-0.125000
G01 X12.362447 Y49.741504 Z-0.125000
G01 X15.142845 Y54.748914 Z-0.125000
G01 X16.101288 Y56.758194 Z-0.125000
G01 X16.556179 Y58.335724 Z-0.125000
G01 X16.562279 Y59.701594 Z-0.125000
G01 X16.204681 Y60.702594 Z-0.125000
G01 X15.422622 Y61.698694 Z-0.125000
G01 X12.203137 Y64.081364 Z-0.125000
G01 X11.121872 Y65.132244 Z-0.125000
G01 X10.459026 Y66.378924 Z-0.125000
G01 X10.317931 Y67.091644 Z-0.125000
G01 X10.310631 Y67.867624 Z-0.125000
G01 X10.682815 Y69.600834 Z-0.125000
G01 X11.503778 Y71.545654 Z-0.125000
G01 X15.647628 Y78.752094 Z-0.125000
G01 X16.995278 Y81.528844 Z-0.125000
G01 X17.714080 Y83.814184 Z-0.125000
G01 X17.887994 Y85.064504 Z-0.125000
G01 X17.887994 Y86.038764 Z-0.125000
G01 X17.586359 Y87.650324 Z-0.125000
G01 X16.964849 Y89.111074 Z-0.125000
G01 X16.016168 Y90.613154 Z-0.125000
G01 X13.261298 Y94.189014 Z-0.125000
G01 X12.074230 Y95.968424 Z-0.125000
G01 X10.956457 Y98.169874 Z-0.125000
G01 X10.098989 Y100.688774 Z-0.125000
G01 X9.526140 Y103.537294 Z-0.125000
G01 X9.163679 Y107.261504 Z-0.125000
G01 X9.011645 Y112.255524 Z-0.125000
G01 X9.067605 Y118.515684 Z-0.125000
G01 X9.241521 Y122.103674 Z-0.125000
G01 X9.506654 Y124.955834 Z-0.125000
G01 X9.974952 Y128.097484 Z-0.125000
G01 X10.573332 Y130.910724 Z-0.125000
G01 X11.304331 Y133.592604 Z-0.125000
G01 X12.204350 Y136.352324 Z-0.125000
G01 X15.782646 Y145.631274 Z-0.125000
G01 X16.840815 Y148.661024 Z-0.125000
G01 X17.632601 Y151.760064 Z-0.125000
G01 X17.840558 Y153.222034 Z-0.125000
G01 X17.902588 Y154.614664 Z-0.125000
G01 X17.644752 Y156.830714 Z-0.125000
G01 X16.932015 Y158.833934 Z-0.125000
G01 X15.619656 Y160.944154 Z-0.125000
G01 X12.715184 Y164.449424 Z-0.125000
G01 X11.585253 Y166.060984 Z-0.125000
G01 X10.701040 Y167.982704 Z-0.125000
G01 X10.321560 Y169.947014 Z-0.125000
G01 X10.401840 Y172.127774 Z-0.125000
G01 X10.917550 Y174.512904 Z-0.125000
G01 X11.873527 Y177.299364 Z-0.125000
G01 X14.590673 Y183.836844 Z-0.125000
G01 X15.603825 Y186.650074 Z-0.125000
G01 X16.332392 Y189.525344 Z-0.125000
G01 X16.613365 Y192.188994 Z-0.125000
G01 X16.514795 Y194.285844 Z-0.125000
G01 X16.123157 Y196.438654 Z-0.125000
G01 X13.161546 Y205.566762 Z-0.125000
G01 X12.475564 Y208.555157 Z-0.125000
G01 X12.012164 Y211.649354 Z-0.125000
G01 X11.681348 Y215.779829 Z-0.125000
G01 X11.537822 Y220.387082 Z-0.125000
G01 X11.504952 Y228.553108 Z-0.125000
G01 X11.602272 Y234.832750 Z-0.125000
G00 Z5.000000

(End cutting path id: polyline6042)


(Start cutting path id: polyline6040)
(Change tool to Default tool)

G00 Z5.000000
G00 X15.112448 Y41.421004

G00 Z4.875000 (Fast pre-penetrate)
G01 Z-0.125000 F400.0(Penetrate)
G01 X13.566566 Y43.032564 Z-0.125000 F800.000000
G01 X12.850193 Y44.059104 Z-0.125000
G01 X12.470711 Y45.244954 Z-0.125000
G01 X12.486531 Y46.421074 Z-0.125000
G01 X12.750447 Y47.518184 Z-0.125000
G01 X13.336706 Y48.963094 Z-0.125000
G01 X16.140202 Y53.981434 Z-0.125000
G01 X17.001353 Y55.749904 Z-0.125000
G01 X17.502443 Y57.349304 Z-0.125000
G01 X17.553533 Y58.737084 Z-0.125000
G01 X17.225110 Y59.751444 Z-0.125000
G01 X16.461320 Y60.756084 Z-0.125000
G01 X15.567346 Y61.504104 Z-0.125000
G01 X13.063055 Y63.249464 Z-0.125000
G01 X12.003672 Y64.310034 Z-0.125000
G01 X11.632702 Y64.914534 Z-0.125000
G01 X11.387021 Y65.578634 Z-0.125000
G01 X11.283606 Y66.893414 Z-0.125000
G01 X11.591323 Y68.401574 Z-0.125000
G01 X12.380713 Y70.331804 Z-0.125000
G01 X13.356140 Y72.153794 Z-0.125000
G01 X16.568331 Y77.558904 Z-0.125000
G01 X17.849082 Y80.108204 Z-0.125000
G01 X18.688269 Y82.646584 Z-0.125000
G01 X18.847642 Y83.695024 Z-0.125000
G01 X18.857042 Y84.868714 Z-0.125000
G01 X18.588219 Y86.300254 Z-0.125000
G01 X17.966705 Y87.760994 Z-0.125000
G01 X16.996146 Y89.253394 Z-0.125000
G01 X14.151279 Y92.785414 Z-0.125000
G01 X12.835273 Y94.699824 Z-0.125000
G01 X11.715069 Y96.900094 Z-0.125000
G01 X10.923284 Y99.255984 Z-0.125000
G01 X10.366239 Y102.110594 Z-0.125000
G01 X10.024447 Y106.040364 Z-0.125000
G01 X9.902846 Y112.412424 Z-0.125000
G01 X9.984336 Y119.073954 Z-0.125000
G01 X10.163118 Y122.469794 Z-0.125000
G01 X10.453814 Y125.332874 Z-0.125000
G01 X10.889217 Y128.069514 Z-0.125000
G01 X11.519277 Y130.898584 Z-0.125000
G01 X12.291611 Y133.598714 Z-0.125000
G01 X13.241509 Y136.382754 Z-0.125000
G01 X16.756517 Y145.242064 Z-0.125000
G01 X17.836563 Y148.282754 Z-0.125000
G01 X18.629600 Y151.381794 Z-0.125000
G01 X18.827839 Y152.838914 Z-0.125000
G01 X18.872839 Y154.224244 Z-0.125000
G01 X18.568770 Y156.418384 Z-0.125000
G01 X17.800086 Y158.394844 Z-0.125000
G01 X16.645837 Y160.190044 Z-0.125000
G01 X13.590544 Y163.819404 Z-0.125000
G01 X12.557942 Y165.281364 Z-0.125000
G01 X11.721141 Y167.031604 Z-0.125000
G01 X11.305190 Y168.977624 Z-0.125000
G01 X11.358680 Y171.146244 Z-0.125000
G01 X11.862235 Y173.525274 Z-0.125000
G01 X12.821859 Y176.314184 Z-0.125000
G01 X15.577944 Y182.868684 Z-0.125000
G01 X16.527841 Y185.458144 Z-0.125000
G01 X17.329388 Y188.562064 Z-0.125000
G01 X17.588443 Y191.215964 Z-0.125000
G01 X17.483844 Y193.115794 Z-0.125000
G01 X17.117733 Y195.086174 Z-0.125000
G01 X16.564335 Y196.968945 Z-0.125000
G01 X14.801949 Y201.790236 Z-0.125000
G01 X14.000439 Y204.334678 Z-0.125000
G01 X13.378926 Y206.964299 Z-0.125000
G01 X12.904549 Y210.053631 Z-0.125000
G01 X12.611456 Y213.617297 Z-0.125000
G01 X12.475226 Y217.837748 Z-0.125000
G01 X12.505626 Y234.799897 Z-0.125000
G00 Z5.000000

(End cutting path id: polyline6040)


(Start cutting path id: polyline6038)
(Change tool to Default tool)

G00 Z5.000000
G00 X15.601378 Y41.193564

G00 Z4.875000 (Fast pre-penetrate)
G01 Z-0.125000 F400.0(Penetrate)
G01 X14.445918 Y42.403734 Z-0.125000 F800.000000
G01 X13.757540 Y43.443674 Z-0.125000
G01 X13.425473 Y44.651404 Z-0.125000
G01 X13.491153 Y45.850664 Z-0.125000
G01 X13.797655 Y46.969654 Z-0.125000
G01 X14.432542 Y48.436484 Z-0.125000
G01 X17.133883 Y53.211524 Z-0.125000
G01 X17.994999 Y54.980004 Z-0.125000
G01 X18.486399 Y56.575744 Z-0.125000
G01 X18.542349 Y57.770164 Z-0.125000
G01 X18.246781 Y58.800334 Z-0.125000
G01 X17.507274 Y59.815914 Z-0.125000
G01 X16.618193 Y60.567574 Z-0.125000
G01 X14.084690 Y62.298314 Z-0.125000
G01 X13.000994 Y63.347964 Z-0.125000
G01 X12.619081 Y63.947604 Z-0.125000
G01 X12.366108 Y64.606814 Z-0.125000
G01 X12.250548 Y65.331724 Z-0.125000
G01 X12.274848 Y66.123504 Z-0.125000
G01 X12.644603 Y67.660884 Z-0.125000
G01 X13.503288 Y69.622714 Z-0.125000
G01 X17.478084 Y76.360894 Z-0.125000
G01 X18.901111 Y79.171684 Z-0.125000
G01 X19.658861 Y81.476524 Z-0.125000
G01 X19.821828 Y82.526144 Z-0.125000
G01 X19.840068 Y83.508904 Z-0.125000
G01 X19.594381 Y84.952634 Z-0.125000
G01 X18.976515 Y86.414584 Z-0.125000
G01 X17.987685 Y87.898444 Z-0.125000
G01 X14.937284 Y91.529014 Z-0.125000
G01 X13.693041 Y93.281674 Z-0.125000
G01 X12.481623 Y95.635134 Z-0.125000
G01 X11.671603 Y98.175934 Z-0.125000
G01 X11.154675 Y101.244604 Z-0.125000
G01 X10.906563 Y105.023554 Z-0.125000
G01 X10.842093 Y114.343874 Z-0.125000
G01 X10.941813 Y120.235484 Z-0.125000
G01 X11.132786 Y123.246974 Z-0.125000
G01 X11.414939 Y125.717224 Z-0.125000
G01 X11.895358 Y128.474514 Z-0.125000
G01 X12.469458 Y130.887604 Z-0.125000
G01 X13.208931 Y133.377344 Z-0.125000
G01 X14.194120 Y136.178404 Z-0.125000
G01 X17.628890 Y144.610814 Z-0.125000
G01 X18.753927 Y147.672184 Z-0.125000
G01 X19.584642 Y150.789474 Z-0.125000
G01 X19.849815 Y153.445834 Z-0.125000
G01 X19.585858 Y155.660634 Z-0.125000
G01 X18.837850 Y157.645604 Z-0.125000
G01 X17.575359 Y159.584344 Z-0.125000
G01 X14.590620 Y163.051934 Z-0.125000
G01 X13.539784 Y164.506584 Z-0.125000
G01 X12.692041 Y166.250764 Z-0.125000
G01 X12.274837 Y168.197994 Z-0.125000
G01 X12.340517 Y170.371474 Z-0.125000
G01 X12.865952 Y172.761454 Z-0.125000
G01 X13.854789 Y175.563724 Z-0.125000
G01 X16.456408 Y181.656034 Z-0.125000
G01 X17.519411 Y184.492404 Z-0.125000
G01 X18.282014 Y187.383514 Z-0.125000
G01 X18.561770 Y190.047114 Z-0.125000
G01 X18.457171 Y191.946954 Z-0.125000
G01 X18.078951 Y193.911214 Z-0.125000
G01 X17.442814 Y195.949724 Z-0.125000
G01 X15.671909 Y200.571558 Z-0.125000
G01 X14.949456 Y202.764483 Z-0.125000
G01 X14.298765 Y205.380686 Z-0.125000
G01 X13.811016 Y208.463950 Z-0.125000
G01 X13.547099 Y211.650571 Z-0.125000
G01 X13.430323 Y215.296982 Z-0.125000
G01 X13.432823 Y234.778004 Z-0.125000
G00 Z5.000000

(End cutting path id: polyline6038)


(Start cutting path id: polyline6004)
(Change tool to Default tool)

G00 Z5.000000
G00 X34.704176 Y42.397654

G00 Z4.875000 (Fast pre-penetrate)
G01 Z-0.125000 F400.0(Penetrate)
G01 X35.037420 Y43.527574 Z-0.125000 F800.000000
G01 X35.101890 Y44.337604 Z-0.125000
G01 X34.977830 Y45.058884 Z-0.125000
G01 X34.668896 Y45.692544 Z-0.125000
G01 X34.193307 Y46.248384 Z-0.125000
G01 X33.577873 Y46.738554 Z-0.125000
G01 X30.739120 Y48.325774 Z-0.125000
G01 X29.618919 Y49.162574 Z-0.125000
G01 X29.164020 Y49.728144 Z-0.125000
G01 X28.934144 Y50.204904 Z-0.125000
G01 X28.790625 Y51.305654 Z-0.125000
G01 X29.168885 Y52.847884 Z-0.125000
G01 X30.067724 Y54.633374 Z-0.125000
G01 X34.179928 Y60.657574 Z-0.125000
G01 X35.596912 Y63.076734 Z-0.125000
G01 X36.282903 Y64.957104 Z-0.125000
G01 X36.388719 Y65.786584 Z-0.125000
G01 X36.335199 Y66.539454 Z-0.125000
G01 X35.880300 Y67.690074 Z-0.125000
G01 X34.887821 Y68.782264 Z-0.125000
G01 X33.734835 Y69.603254 Z-0.125000
G01 X30.291541 Y71.686734 Z-0.125000
G01 X28.711590 Y73.086664 Z-0.125000
G01 X28.094940 Y73.966024 Z-0.125000
G01 X27.727653 Y74.766344 Z-0.125000
G01 X27.462478 Y75.811104 Z-0.125000
G01 X27.377338 Y76.939814 Z-0.125000
G01 X27.547602 Y78.772754 Z-0.125000
G01 X28.126561 Y81.188254 Z-0.125000
G01 X31.202528 Y90.035434 Z-0.125000
G01 X32.429747 Y94.314274 Z-0.125000
G01 X33.175308 Y98.365704 Z-0.125000
G01 X33.425847 Y102.183564 Z-0.125000
G01 X33.242203 Y105.409124 Z-0.125000
G01 X32.640134 Y108.632254 Z-0.125000
G01 X31.509028 Y111.997664 Z-0.125000
G01 X28.711575 Y117.890514 Z-0.125000
G01 X27.945323 Y119.866944 Z-0.125000
G01 X27.621795 Y121.079594 Z-0.125000
G01 X27.426001 Y122.350614 Z-0.125000
G01 X27.382221 Y123.693354 Z-0.125000
G01 X27.483177 Y124.909644 Z-0.125000
G01 X28.024417 Y127.306914 Z-0.125000
G01 X29.142186 Y130.170014 Z-0.125000
G01 X30.714812 Y133.247184 Z-0.125000
G01 X34.023087 Y139.086524 Z-0.125000
G01 X35.380460 Y141.868144 Z-0.125000
G01 X36.110211 Y143.963764 Z-0.125000
G01 X36.389966 Y145.848974 Z-0.125000
G01 X36.173454 Y147.500694 Z-0.125000
G01 X35.481395 Y148.928604 Z-0.125000
G01 X34.257811 Y150.301774 Z-0.125000
G01 X31.211075 Y152.764714 Z-0.125000
G01 X30.016669 Y153.956634 Z-0.125000
G01 X29.496131 Y154.686434 Z-0.125000
G01 X29.109357 Y155.478204 Z-0.125000
G01 X28.788235 Y157.081264 Z-0.125000
G01 X28.930537 Y158.706204 Z-0.125000
G01 X29.446250 Y160.506284 Z-0.125000
G01 X30.503205 Y162.952214 Z-0.125000
G01 X33.016011 Y167.833094 Z-0.125000
G01 X34.043787 Y170.069824 Z-0.125000
G01 X34.818540 Y172.381974 Z-0.125000
G01 X35.098269 Y174.265994 Z-0.125000
G01 X34.968128 Y175.959054 Z-0.125000
G01 X34.406224 Y177.642344 Z-0.125000
G01 X33.633890 Y179.032544 Z-0.125000
G01 X31.558916 Y182.148664 Z-0.125000
G01 X30.691727 Y183.884264 Z-0.125000
G01 X30.180879 Y185.590684 Z-0.125000
G01 X29.961977 Y187.437004 Z-0.125000
G01 X30.016707 Y189.409804 Z-0.125000
G01 X30.326855 Y191.698844 Z-0.125000
G01 X32.280216 Y200.408578 Z-0.125000
G01 X33.028196 Y204.461184 Z-0.125000
G01 X33.469717 Y207.979874 Z-0.125000
G01 X33.749473 Y211.812335 Z-0.125000
G01 X33.911237 Y219.680401 Z-0.125000
G01 X33.738527 Y226.807784 Z-0.125000
G01 X33.297020 Y231.664360 Z-0.125000
G01 X32.499118 Y235.965073 Z-0.125000
G00 Z5.000000

(End cutting path id: polyline6004)


(Start cutting path id: polyline6000)
(Change tool to Default tool)

G00 Z5.000000
G00 X37.045487 Y42.583764

G00 Z4.875000 (Fast pre-penetrate)
G01 Z-0.125000 F400.0(Penetrate)
G01 X36.895885 Y43.682054 Z-0.125000 F800.000000
G01 X36.336414 Y44.586964 Z-0.125000
G01 X35.262432 Y45.446874 Z-0.125000
G01 X32.765438 Y46.805424 Z-0.125000
G01 X31.618493 Y47.630064 Z-0.125000
G01 X31.145363 Y48.187104 Z-0.125000
G01 X30.902122 Y48.656594 Z-0.125000
G01 X30.733060 Y49.746414 Z-0.125000
G01 X31.005491 Y51.042934 Z-0.125000
G01 X31.830138 Y52.794374 Z-0.125000
G01 X33.067087 Y54.739184 Z-0.125000
G01 X36.327900 Y59.389024 Z-0.125000
G01 X37.570930 Y61.530844 Z-0.125000
G01 X38.245962 Y63.406364 Z-0.125000
G01 X38.337182 Y64.228544 Z-0.125000
G01 X38.261782 Y64.972914 Z-0.125000
G01 X37.758259 Y66.099194 Z-0.125000
G01 X36.854555 Y67.038154 Z-0.125000
G01 X35.671135 Y67.845744 Z-0.125000
G01 X32.298398 Y69.767454 Z-0.125000
G01 X30.774408 Y70.998324 Z-0.125000
G01 X30.104229 Y71.852144 Z-0.125000
G01 X29.702859 Y72.637864 Z-0.125000
G01 X29.446239 Y73.491664 Z-0.125000
G01 X29.325828 Y74.603374 Z-0.125000
G01 X29.483944 Y76.430194 Z-0.125000
G01 X30.112783 Y78.868814 Z-0.125000
G01 X33.784696 Y88.386164 Z-0.125000
G01 X35.221127 Y92.958154 Z-0.125000
G01 X36.077384 Y97.256434 Z-0.125000
G01 X36.307259 Y99.507774 Z-0.125000
G01 X36.376589 Y101.487854 Z-0.125000
G01 X36.126049 Y105.265604 Z-0.125000
G01 X35.806130 Y107.063274 Z-0.125000
G01 X35.353676 Y108.798884 Z-0.125000
G01 X34.771095 Y110.472474 Z-0.125000
G01 X33.987829 Y112.248254 Z-0.125000
G01 X30.966608 Y117.646064 Z-0.125000
G01 X30.000874 Y119.724674 Z-0.125000
G01 X29.625033 Y120.911744 Z-0.125000
G01 X29.390306 Y122.164484 Z-0.125000
G01 X29.323406 Y123.301714 Z-0.125000
G01 X29.397596 Y124.505844 Z-0.125000
G01 X29.924256 Y126.895814 Z-0.125000
G01 X31.074850 Y129.774734 Z-0.125000
G01 X32.416385 Y132.353224 Z-0.125000
G01 X35.986172 Y138.511204 Z-0.125000
G01 X37.270529 Y141.061734 Z-0.125000
G01 X38.040442 Y143.178064 Z-0.125000
G01 X38.335997 Y145.069364 Z-0.125000
G01 X38.157218 Y146.544684 Z-0.125000
G01 X37.478525 Y147.978684 Z-0.125000
G01 X36.239143 Y149.343354 Z-0.125000
G01 X33.115741 Y151.772224 Z-0.125000
G01 X32.022312 Y152.815804 Z-0.125000
G01 X31.478639 Y153.534624 Z-0.125000
G01 X31.071200 Y154.316674 Z-0.125000
G01 X30.819446 Y155.172924 Z-0.125000
G01 X30.734306 Y155.912424 Z-0.125000
G01 X30.883907 Y157.539804 Z-0.125000
G01 X31.423932 Y159.352044 Z-0.125000
G01 X32.399370 Y161.564454 Z-0.125000
G01 X35.915625 Y168.476544 Z-0.125000
G01 X36.737799 Y170.811764 Z-0.125000
G01 X37.041867 Y172.706714 Z-0.125000
G01 X36.948217 Y174.220974 Z-0.125000
G01 X36.544428 Y175.590514 Z-0.125000
G01 X35.808556 Y176.997734 Z-0.125000
G01 X33.660647 Y180.078544 Z-0.125000
G01 X32.792201 Y181.618364 Z-0.125000
G01 X32.153671 Y183.461014 Z-0.125000
G01 X31.909214 Y185.293954 Z-0.125000
G01 X31.970024 Y187.270364 Z-0.125000
G01 X32.319080 Y189.577634 Z-0.125000
G01 X34.429341 Y198.165743 Z-0.125000
G01 X35.083667 Y201.396163 Z-0.125000
G01 X35.555581 Y204.734858 Z-0.125000
G01 X35.821958 Y207.976224 Z-0.125000
G01 X35.991020 Y214.484499 Z-0.125000
G01 X35.916830 Y227.306442 Z-0.125000
G01 X35.579895 Y232.212900 Z-0.125000
G01 X34.910972 Y236.184015 Z-0.125000
G00 Z5.000000

(End cutting path id: polyline6000)


(Start cutting path id: polyline5998)
(Change tool to Default tool)

G00 Z5.000000
G00 X37.975936 Y42.563064

G00 Z4.875000 (Fast pre-penetrate)
G01 Z-0.125000 F400.0(Penetrate)
G01 X37.662137 Y43.390144 Z-0.125000 F800.000000
G01 X36.936036 Y44.217224 Z-0.125000
G01 X35.920462 Y44.909274 Z-0.125000
G01 X33.423428 Y46.267824 Z-0.125000
G01 X32.490547 Y46.998824 Z-0.125000
G01 X31.889735 Y47.884264 Z-0.125000
G01 X31.704848 Y48.966734 Z-0.125000
G01 X32.046634 Y50.490734 Z-0.125000
G01 X32.932067 Y52.270144 Z-0.125000
G01 X37.292417 Y58.604494 Z-0.125000
G01 X38.545178 Y60.752444 Z-0.125000
G01 X39.221425 Y62.629174 Z-0.125000
G01 X39.310205 Y63.448914 Z-0.125000
G01 X39.229935 Y64.190864 Z-0.125000
G01 X38.709355 Y65.309804 Z-0.125000
G01 X37.783773 Y66.239034 Z-0.125000
G01 X36.577217 Y67.035734 Z-0.125000
G01 X33.340717 Y68.824864 Z-0.125000
G01 X32.347049 Y69.526644 Z-0.125000
G01 X31.647665 Y70.172464 Z-0.125000
G01 X31.086976 Y70.882794 Z-0.125000
G01 X30.611414 Y71.827844 Z-0.125000
G01 X30.381538 Y72.693804 Z-0.125000
G01 X30.297628 Y73.629124 Z-0.125000
G01 X30.476407 Y75.465704 Z-0.125000
G01 X31.151451 Y77.926234 Z-0.125000
G01 X34.948655 Y87.307324 Z-0.125000
G01 X36.425195 Y91.702934 Z-0.125000
G01 X37.393376 Y96.053574 Z-0.125000
G01 X37.792299 Y100.137814 Z-0.125000
G01 X37.791199 Y102.279674 Z-0.125000
G01 X37.592960 Y104.718274 Z-0.125000
G01 X37.217131 Y106.879594 Z-0.125000
G01 X36.647889 Y108.949704 Z-0.125000
G01 X35.957046 Y110.768044 Z-0.125000
G01 X35.112952 Y112.514584 Z-0.125000
G01 X32.088083 Y117.520774 Z-0.125000
G01 X31.192934 Y119.243004 Z-0.125000
G01 X30.511808 Y121.260824 Z-0.125000
G01 X30.297744 Y123.107144 Z-0.125000
G01 X30.359784 Y124.305144 Z-0.125000
G01 X30.577510 Y125.576174 Z-0.125000
G01 X31.493336 Y128.344374 Z-0.125000
G01 X32.982067 Y131.381434 Z-0.125000
G01 X36.600490 Y137.562524 Z-0.125000
G01 X37.984610 Y140.161714 Z-0.125000
G01 X38.941803 Y142.558984 Z-0.125000
G01 X39.301831 Y144.481914 Z-0.125000
G01 X39.291021 Y145.255474 Z-0.125000
G01 X39.125580 Y146.151844 Z-0.125000
G01 X38.428657 Y147.577324 Z-0.125000
G01 X37.158882 Y148.928604 Z-0.125000
G01 X34.148608 Y151.215204 Z-0.125000
G01 X32.910442 Y152.386444 Z-0.125000
G01 X32.056619 Y153.737754 Z-0.125000
G01 X31.796323 Y154.590344 Z-0.125000
G01 X31.708743 Y155.327384 Z-0.125000
G01 X31.858344 Y156.957194 Z-0.125000
G01 X32.408099 Y158.773104 Z-0.125000
G01 X33.401794 Y160.994024 Z-0.125000
G01 X35.872044 Y165.660854 Z-0.125000
G01 X36.947243 Y167.919454 Z-0.125000
G01 X37.692817 Y170.023634 Z-0.125000
G01 X38.013913 Y171.927074 Z-0.125000
G01 X37.888637 Y173.621344 Z-0.125000
G01 X37.371748 Y175.131984 Z-0.125000
G01 X36.570198 Y176.508804 Z-0.125000
G01 X34.389434 Y179.573784 Z-0.125000
G01 X33.570870 Y181.136724 Z-0.125000
G01 X33.089225 Y182.664374 Z-0.125000
G01 X32.875162 Y184.511854 Z-0.125000
G01 X32.974892 Y186.506544 Z-0.125000
G01 X33.373816 Y188.836954 Z-0.125000
G01 X35.377016 Y196.595550 Z-0.125000
G01 X36.078806 Y199.847849 Z-0.125000
G01 X36.555585 Y202.994359 Z-0.125000
G01 X36.812205 Y205.841667 Z-0.125000
G01 X36.972752 Y211.176224 Z-0.125000
G01 X36.943562 Y227.915795 Z-0.125000
G01 X36.688144 Y232.470735 Z-0.125000
G01 X36.098253 Y236.284993 Z-0.125000
G00 Z5.000000

(End cutting path id: polyline5998)


(Start cutting path id: polyline6002)
(Change tool to Default tool)

G00 Z5.000000
G00 X35.952072 Y42.526584

G00 Z4.875000 (Fast pre-penetrate)
G01 Z-0.125000 F400.0(Penetrate)
G01 X36.074915 Y43.363404 Z-0.125000 F800.000000
G01 X36.044515 Y43.933814 Z-0.125000
G01 X35.907104 Y44.453164 Z-0.125000
G01 X35.564101 Y45.072254 Z-0.125000
G01 X35.059361 Y45.613484 Z-0.125000
G01 X34.419575 Y46.092694 Z-0.125000
G01 X31.568633 Y47.673874 Z-0.125000
G01 X30.616305 Y48.395104 Z-0.125000
G01 X30.152905 Y48.957024 Z-0.125000
G01 X29.916947 Y49.430134 Z-0.125000
G01 X29.762482 Y50.526024 Z-0.125000
G01 X30.132242 Y52.063414 Z-0.125000
G01 X31.031040 Y53.850104 Z-0.125000
G01 X35.352455 Y60.166214 Z-0.125000
G01 X36.588188 Y62.305614 Z-0.125000
G01 X37.265666 Y64.182344 Z-0.125000
G01 X37.362966 Y65.006954 Z-0.125000
G01 X37.297286 Y65.756184 Z-0.125000
G01 X36.814399 Y66.892204 Z-0.125000
G01 X35.937479 Y67.844534 Z-0.125000
G01 X34.783236 Y68.664314 Z-0.125000
G01 X31.282818 Y70.721004 Z-0.125000
G01 X30.482483 Y71.318204 Z-0.125000
G01 X29.670041 Y72.106334 Z-0.125000
G01 X29.046092 Y72.980854 Z-0.125000
G01 X28.678765 Y73.782374 Z-0.125000
G01 X28.450105 Y74.648354 Z-0.125000
G01 X28.351585 Y75.770994 Z-0.125000
G01 X28.559540 Y77.817964 Z-0.125000
G01 X29.129999 Y80.032804 Z-0.125000
G01 X32.423665 Y88.983354 Z-0.125000
G01 X33.808972 Y93.531004 Z-0.125000
G01 X34.638484 Y97.817164 Z-0.125000
G01 X34.913375 Y101.841804 Z-0.125000
G01 X34.683498 Y105.434654 Z-0.125000
G01 X33.982926 Y108.807384 Z-0.125000
G01 X33.429522 Y110.494374 Z-0.125000
G01 X32.686366 Y112.288354 Z-0.125000
G01 X29.918129 Y117.610774 Z-0.125000
G01 X29.004710 Y119.713724 Z-0.125000
G01 X28.645922 Y120.908094 Z-0.125000
G01 X28.419696 Y122.165704 Z-0.125000
G01 X28.351586 Y123.497554 Z-0.125000
G01 X28.437936 Y124.706514 Z-0.125000
G01 X28.971893 Y127.100134 Z-0.125000
G01 X30.105431 Y129.970534 Z-0.125000
G01 X31.563742 Y132.799594 Z-0.125000
G01 X35.073932 Y138.928404 Z-0.125000
G01 X36.325462 Y141.465534 Z-0.125000
G01 X37.075916 Y143.570924 Z-0.125000
G01 X37.362970 Y145.458554 Z-0.125000
G01 X37.140379 Y147.107844 Z-0.125000
G01 X36.428832 Y148.526014 Z-0.125000
G01 X35.318389 Y149.758094 Z-0.125000
G01 X32.236355 Y152.205234 Z-0.125000
G01 X31.017636 Y153.385004 Z-0.125000
G01 X30.486125 Y154.109884 Z-0.125000
G01 X30.089621 Y154.896854 Z-0.125000
G01 X29.842731 Y155.755534 Z-0.125000
G01 X29.761241 Y156.496224 Z-0.125000
G01 X29.907192 Y158.123604 Z-0.125000
G01 X30.436286 Y159.929784 Z-0.125000
G01 X31.392262 Y162.132444 Z-0.125000
G01 X34.059561 Y167.282144 Z-0.125000
G01 X34.982711 Y169.274394 Z-0.125000
G01 X35.780573 Y171.597484 Z-0.125000
G01 X36.070059 Y173.487574 Z-0.125000
G01 X35.939918 Y175.178174 Z-0.125000
G01 X35.364635 Y176.856644 Z-0.125000
G01 X34.572814 Y178.237114 Z-0.125000
G01 X32.556248 Y181.185354 Z-0.125000
G01 X31.601487 Y183.074244 Z-0.125000
G01 X31.110086 Y184.791604 Z-0.125000
G01 X30.931308 Y186.460344 Z-0.125000
G01 X31.004288 Y188.442854 Z-0.125000
G01 X31.347289 Y190.746474 Z-0.125000
G01 X33.361436 Y199.290810 Z-0.125000
G01 X34.066875 Y202.933545 Z-0.125000
G01 X34.513246 Y206.260037 Z-0.125000
G01 X34.775947 Y209.500201 Z-0.125000
G01 X34.979079 Y217.387754 Z-0.125000
G01 X34.862315 Y226.683710 Z-0.125000
G01 X34.450011 Y231.944090 Z-0.125000
G01 X33.709289 Y236.076997 Z-0.125000
G00 Z5.000000

(End cutting path id: polyline6002)


(Start cutting path id: polyline5996)
(Change tool to Default tool)

G00 Z5.000000
G00 X38.743404 Y42.466994

G00 Z4.875000 (Fast pre-penetrate)
G01 Z-0.125000 F400.0(Penetrate)
G01 X38.350547 Y43.061744 Z-0.125000 F800.000000
G01 X37.643906 Y43.702724 Z-0.125000
G01 X34.446339 Y45.512544 Z-0.125000
G01 X33.500053 Y46.236224 Z-0.125000
G01 X33.045193 Y46.801774 Z-0.125000
G01 X32.816534 Y47.278584 Z-0.125000
G01 X32.686393 Y48.385384 Z-0.125000
G01 X32.998976 Y49.701394 Z-0.125000
G01 X33.871029 Y51.475934 Z-0.125000
G01 X38.244759 Y57.816354 Z-0.125000
G01 X39.509669 Y59.969174 Z-0.125000
G01 X40.194443 Y61.849504 Z-0.125000
G01 X40.283223 Y62.670514 Z-0.125000
G01 X40.200513 Y63.410004 Z-0.125000
G01 X39.670205 Y64.525324 Z-0.125000
G01 X38.727607 Y65.446044 Z-0.125000
G01 X37.501591 Y66.232954 Z-0.125000
G01 X34.227413 Y68.006284 Z-0.125000
G01 X32.666935 Y69.220144 Z-0.125000
G01 X31.989458 Y70.070314 Z-0.125000
G01 X31.594183 Y70.858454 Z-0.125000
G01 X31.357010 Y71.720774 Z-0.125000
G01 X31.270660 Y72.654874 Z-0.125000
G01 X31.461601 Y74.497534 Z-0.125000
G01 X32.175540 Y76.976334 Z-0.125000
G01 X36.171009 Y86.451064 Z-0.125000
G01 X37.716891 Y90.878324 Z-0.125000
G01 X38.301931 Y93.101674 Z-0.125000
G01 X38.768980 Y95.463664 Z-0.125000
G01 X39.063332 Y97.745404 Z-0.125000
G01 X39.193472 Y99.753464 Z-0.125000
G01 X39.177652 Y102.279674 Z-0.125000
G01 X38.980643 Y104.524914 Z-0.125000
G01 X38.562218 Y106.860134 Z-0.125000
G01 X37.972313 Y108.920524 Z-0.125000
G01 X37.255942 Y110.726674 Z-0.125000
G01 X36.379022 Y112.457414 Z-0.125000
G01 X33.109655 Y117.543874 Z-0.125000
G01 X32.175558 Y119.247864 Z-0.125000
G01 X31.517581 Y121.080804 Z-0.125000
G01 X31.271894 Y122.913734 Z-0.125000
G01 X31.324184 Y124.106874 Z-0.125000
G01 X31.538261 Y125.376694 Z-0.125000
G01 X32.466277 Y128.149794 Z-0.125000
G01 X33.987847 Y131.202614 Z-0.125000
G01 X37.510146 Y137.144114 Z-0.125000
G01 X38.925913 Y139.756674 Z-0.125000
G01 X39.906243 Y142.166124 Z-0.125000
G01 X40.274746 Y144.092714 Z-0.125000
G01 X40.262586 Y144.865034 Z-0.125000
G01 X40.092322 Y145.758994 Z-0.125000
G01 X39.835702 Y146.418224 Z-0.125000
G01 X39.375937 Y147.175954 Z-0.125000
G01 X38.078175 Y148.513864 Z-0.125000
G01 X35.030168 Y150.782184 Z-0.125000
G01 X33.919725 Y151.818454 Z-0.125000
G01 X33.042806 Y153.159994 Z-0.125000
G01 X32.814147 Y153.831394 Z-0.125000
G01 X32.681573 Y154.743604 Z-0.125000
G01 X32.831175 Y156.372184 Z-0.125000
G01 X33.390647 Y158.194144 Z-0.125000
G01 X34.401369 Y160.422354 Z-0.125000
G01 X37.870179 Y167.116744 Z-0.125000
G01 X38.643727 Y169.233034 Z-0.125000
G01 X38.983095 Y171.146244 Z-0.125000
G01 X38.901605 Y172.666584 Z-0.125000
G01 X38.490519 Y174.031264 Z-0.125000
G01 X37.729132 Y175.426314 Z-0.125000
G01 X35.610399 Y178.327114 Z-0.125000
G01 X34.712777 Y179.853534 Z-0.125000
G01 X34.068165 Y181.692554 Z-0.125000
G01 X33.846790 Y183.537644 Z-0.125000
G01 X33.933140 Y185.330414 Z-0.125000
G01 X34.284657 Y187.444284 Z-0.125000
G01 X36.467852 Y195.677254 Z-0.125000
G01 X37.135599 Y198.717958 Z-0.125000
G01 X37.534536 Y201.244129 Z-0.125000
G01 X37.810603 Y204.099938 Z-0.125000
G01 X37.948056 Y208.450570 Z-0.125000
G01 X37.870216 Y217.570181 Z-0.125000
G01 X37.935896 Y229.093133 Z-0.125000
G01 X37.754684 Y232.904959 Z-0.125000
G01 X37.269364 Y236.377416 Z-0.125000
G00 Z5.000000

(End cutting path id: polyline5996)


(Start cutting path id: polyline5994)
(Change tool to Default tool)

G00 Z5.000000
G00 X39.357621 Y42.297934

G00 Z4.875000 (Fast pre-penetrate)
G01 Z-0.125000 F400.0(Penetrate)
G01 X38.332316 Y43.179724 Z-0.125000 F800.000000
G01 X35.475293 Y44.758454 Z-0.125000
G01 X34.514451 Y45.476054 Z-0.125000
G01 X34.046186 Y46.035514 Z-0.125000
G01 X33.807771 Y46.507464 Z-0.125000
G01 X33.654519 Y47.604544 Z-0.125000
G01 X33.948858 Y48.910814 Z-0.125000
G01 X34.803897 Y50.676844 Z-0.125000
G01 X35.874230 Y52.349204 Z-0.125000
G01 X39.184923 Y57.022144 Z-0.125000
G01 X40.466889 Y59.182234 Z-0.125000
G01 X41.163813 Y61.068664 Z-0.125000
G01 X41.256253 Y61.890884 Z-0.125000
G01 X41.174763 Y62.631604 Z-0.125000
G01 X40.639590 Y63.744474 Z-0.125000
G01 X39.686045 Y64.659114 Z-0.125000
G01 X38.443029 Y65.438744 Z-0.125000
G01 X35.135970 Y67.196274 Z-0.125000
G01 X33.573033 Y68.410084 Z-0.125000
G01 X33.001398 Y69.114334 Z-0.125000
G01 X32.587880 Y69.893964 Z-0.125000
G01 X32.337301 Y70.750214 Z-0.125000
G01 X32.243651 Y71.680664 Z-0.125000
G01 X32.438268 Y73.525744 Z-0.125000
G01 X33.181383 Y76.017884 Z-0.125000
G01 X37.362969 Y85.580234 Z-0.125000
G01 X38.974490 Y90.039084 Z-0.125000
G01 X39.585071 Y92.273394 Z-0.125000
G01 X40.037526 Y94.433494 Z-0.125000
G01 X40.368338 Y96.732244 Z-0.125000
G01 X40.542291 Y98.956784 Z-0.125000
G01 X40.554451 Y101.689774 Z-0.125000
G01 X40.361037 Y104.130854 Z-0.125000
G01 X39.959680 Y106.474584 Z-0.125000
G01 X39.329651 Y108.711304 Z-0.125000
G01 X38.534223 Y110.675584 Z-0.125000
G01 X37.628085 Y112.391764 Z-0.125000
G01 X34.211590 Y117.408894 Z-0.125000
G01 X33.223963 Y119.088534 Z-0.125000
G01 X32.475955 Y121.073504 Z-0.125000
G01 X32.243647 Y122.912504 Z-0.125000
G01 X32.314187 Y124.114194 Z-0.125000
G01 X32.556226 Y125.397354 Z-0.125000
G01 X33.447767 Y127.958814 Z-0.125000
G01 X35.003366 Y131.027474 Z-0.125000
G01 X38.581640 Y136.994544 Z-0.125000
G01 X39.869672 Y139.354094 Z-0.125000
G01 X40.871881 Y141.773254 Z-0.125000
G01 X41.247722 Y143.702254 Z-0.125000
G01 X41.106622 Y145.194654 Z-0.125000
G01 X40.794039 Y146.021714 Z-0.125000
G01 X40.427942 Y146.628614 Z-0.125000
G01 X39.146003 Y147.973834 Z-0.125000
G01 X36.066402 Y150.227564 Z-0.125000
G01 X34.808750 Y151.390314 Z-0.125000
G01 X33.961007 Y152.745264 Z-0.125000
G01 X33.717752 Y153.603944 Z-0.125000
G01 X33.649642 Y154.351964 Z-0.125000
G01 X33.804109 Y155.787144 Z-0.125000
G01 X34.370919 Y157.612784 Z-0.125000
G01 X35.397439 Y159.848284 Z-0.125000
G01 X37.926084 Y164.543114 Z-0.125000
G01 X38.895425 Y166.557264 Z-0.125000
G01 X39.653177 Y168.666264 Z-0.125000
G01 X39.952380 Y170.365394 Z-0.125000
G01 X39.880620 Y171.889394 Z-0.125000
G01 X39.469532 Y173.255274 Z-0.125000
G01 X38.697200 Y174.645474 Z-0.125000
G01 X36.546817 Y177.530454 Z-0.125000
G01 X35.722184 Y178.896344 Z-0.125000
G01 X35.093371 Y180.549244 Z-0.125000
G01 X34.819723 Y182.563394 Z-0.125000
G01 X34.910943 Y184.358604 Z-0.125000
G01 X35.329327 Y186.698734 Z-0.125000
G01 X37.316729 Y193.866244 Z-0.125000
G01 X38.093914 Y197.153805 Z-0.125000
G01 X38.522069 Y199.692178 Z-0.125000
G01 X38.795704 Y202.353397 Z-0.125000
G01 X38.920979 Y206.697909 Z-0.125000
G01 X38.726361 Y218.488467 Z-0.125000
G01 X38.918547 Y230.266863 Z-0.125000
G01 X38.772594 Y233.705252 Z-0.125000
G01 X38.421078 Y236.461339 Z-0.125000
G00 Z5.000000

(End cutting path id: polyline5994)


(Start cutting path id: polyline6006)
(Change tool to Default tool)

G00 Z5.000000
G00 X33.320059 Y42.204294

G00 Z4.875000 (Fast pre-penetrate)
G01 Z-0.125000 F400.0(Penetrate)
G01 X33.838203 Y43.421774 Z-0.125000 F800.000000
G01 X34.103324 Y44.521294 Z-0.125000
G01 X34.082654 Y45.484564 Z-0.125000
G01 X33.770072 Y46.311624 Z-0.125000
G01 X33.324916 Y46.882044 Z-0.125000
G01 X32.569597 Y47.501134 Z-0.125000
G01 X29.735710 Y49.090814 Z-0.125000
G01 X28.626443 Y49.933684 Z-0.125000
G01 X28.178853 Y50.501684 Z-0.125000
G01 X27.953871 Y50.980934 Z-0.125000
G01 X27.818864 Y52.086514 Z-0.125000
G01 X28.112000 Y53.392784 Z-0.125000
G01 X28.941470 Y55.146664 Z-0.125000
G01 X30.163824 Y57.084184 Z-0.125000
G01 X33.362648 Y61.704814 Z-0.125000
G01 X34.595948 Y63.841764 Z-0.125000
G01 X35.103121 Y65.054404 Z-0.125000
G01 X35.339063 Y65.944724 Z-0.125000
G01 X35.418123 Y66.760834 Z-0.125000
G01 X35.341493 Y67.503994 Z-0.125000
G01 X34.857430 Y68.641174 Z-0.125000
G01 X34.002390 Y69.602044 Z-0.125000
G01 X32.884623 Y70.440074 Z-0.125000
G01 X29.325810 Y72.663424 Z-0.125000
G01 X27.771414 Y74.075514 Z-0.125000
G01 X27.159628 Y74.957284 Z-0.125000
G01 X26.730311 Y75.924244 Z-0.125000
G01 X26.482164 Y76.976334 Z-0.125000
G01 X26.404334 Y78.108654 Z-0.125000
G01 X26.564908 Y79.937934 Z-0.125000
G01 X27.044120 Y82.110184 Z-0.125000
G01 X29.954661 Y91.075334 Z-0.125000
G01 X31.031035 Y95.087814 Z-0.125000
G01 X31.693916 Y98.905724 Z-0.125000
G01 X31.918927 Y102.518054 Z-0.125000
G01 X31.669604 Y106.297024 Z-0.125000
G01 X30.962950 Y109.666064 Z-0.125000
G01 X29.921808 Y112.682424 Z-0.125000
G01 X27.452774 Y118.340554 Z-0.125000
G01 X26.749769 Y120.541974 Z-0.125000
G01 X26.422605 Y122.726434 Z-0.125000
G01 X26.502875 Y124.907214 Z-0.125000
G01 X27.154770 Y127.745984 Z-0.125000
G01 X28.299296 Y130.621264 Z-0.125000
G01 X29.725996 Y133.434484 Z-0.125000
G01 X33.114504 Y139.507344 Z-0.125000
G01 X34.436619 Y142.270714 Z-0.125000
G01 X35.145707 Y144.357844 Z-0.125000
G01 X35.416908 Y146.238184 Z-0.125000
G01 X35.207736 Y147.893564 Z-0.125000
G01 X34.535138 Y149.329954 Z-0.125000
G01 X33.340732 Y150.716504 Z-0.125000
G01 X30.190612 Y153.326614 Z-0.125000
G01 X29.019316 Y154.529524 Z-0.125000
G01 X28.510941 Y155.264144 Z-0.125000
G01 X28.130233 Y156.059604 Z-0.125000
G01 X27.815233 Y157.665044 Z-0.125000
G01 X27.951455 Y159.287604 Z-0.125000
G01 X28.538901 Y161.316334 Z-0.125000
G01 X29.487580 Y163.515344 Z-0.125000
G01 X32.092848 Y168.635864 Z-0.125000
G01 X33.097491 Y170.861654 Z-0.125000
G01 X33.852795 Y173.164024 Z-0.125000
G01 X34.125254 Y175.045624 Z-0.125000
G01 X34.031604 Y176.559864 Z-0.125000
G01 X33.655775 Y177.941564 Z-0.125000
G01 X32.883442 Y179.526374 Z-0.125000
G01 X30.844983 Y182.659464 Z-0.125000
G01 X29.929129 Y184.372024 Z-0.125000
G01 X29.257733 Y186.394664 Z-0.125000
G01 X28.993817 Y188.412464 Z-0.125000
G01 X29.027867 Y190.376754 Z-0.125000
G01 X29.340477 Y192.861594 Z-0.125000
G01 X31.228118 Y201.735531 Z-0.125000
G01 X31.935989 Y205.768676 Z-0.125000
G01 X32.361698 Y209.280081 Z-0.125000
G01 X32.648704 Y213.310796 Z-0.125000
G01 X32.788590 Y220.000308 Z-0.125000
G01 X32.597647 Y226.534109 Z-0.125000
G01 X32.098950 Y231.558532 Z-0.125000
G01 X31.282857 Y235.850771 Z-0.125000
G00 Z5.000000

(End cutting path id: polyline6006)


(Start cutting path id: polyline6008)
(Change tool to Default tool)

G00 Z5.000000
G00 X31.828921 Y41.961034

G00 Z4.875000 (Fast pre-penetrate)
G01 Z-0.125000 F400.0(Penetrate)
G01 X32.606107 Y43.494724 Z-0.125000 F800.000000
G01 X33.068304 Y44.881274 Z-0.125000
G01 X33.151014 Y45.894464 Z-0.125000
G01 X32.941814 Y46.768944 Z-0.125000
G01 X32.572054 Y47.374664 Z-0.125000
G01 X31.892185 Y48.028994 Z-0.125000
G01 X28.738390 Y49.858274 Z-0.125000
G01 X27.640069 Y50.706024 Z-0.125000
G01 X27.198590 Y51.277654 Z-0.125000
G01 X26.977214 Y51.758114 Z-0.125000
G01 X26.845856 Y52.864914 Z-0.125000
G01 X27.138992 Y54.171194 Z-0.125000
G01 X27.962422 Y55.922644 Z-0.125000
G01 X28.982861 Y57.570674 Z-0.125000
G01 X32.348301 Y62.463724 Z-0.125000
G01 X33.584034 Y64.603174 Z-0.125000
G01 X34.015797 Y65.584694 Z-0.125000
G01 X34.349042 Y66.715844 Z-0.125000
G01 X34.443902 Y67.539254 Z-0.125000
G01 X34.385512 Y68.292114 Z-0.125000
G01 X33.941572 Y69.446354 Z-0.125000
G01 X32.986812 Y70.556814 Z-0.125000
G01 X31.879977 Y71.399694 Z-0.125000
G01 X28.384424 Y73.652224 Z-0.125000
G01 X26.851906 Y75.075284 Z-0.125000
G01 X26.240121 Y75.955854 Z-0.125000
G01 X25.802290 Y76.919164 Z-0.125000
G01 X25.537117 Y77.963924 Z-0.125000
G01 X25.431301 Y79.277494 Z-0.125000
G01 X25.574834 Y81.098254 Z-0.125000
G01 X26.012666 Y83.252284 Z-0.125000
G01 X28.553458 Y91.653094 Z-0.125000
G01 X29.616493 Y95.854084 Z-0.125000
G01 X30.199102 Y99.439674 Z-0.125000
G01 X30.402192 Y102.846454 Z-0.125000
G01 X30.207616 Y106.261724 Z-0.125000
G01 X29.522840 Y109.835134 Z-0.125000
G01 X28.544944 Y112.881904 Z-0.125000
G01 X26.397007 Y118.301624 Z-0.125000
G01 X25.747531 Y120.528614 Z-0.125000
G01 X25.447112 Y122.725214 Z-0.125000
G01 X25.552928 Y125.112774 Z-0.125000
G01 X26.145266 Y127.727724 Z-0.125000
G01 X27.235032 Y130.578674 Z-0.125000
G01 X28.605785 Y133.365144 Z-0.125000
G01 X32.205965 Y139.926974 Z-0.125000
G01 X33.391817 Y142.432484 Z-0.125000
G01 X34.179948 Y144.750694 Z-0.125000
G01 X34.443906 Y146.627394 Z-0.125000
G01 X34.241991 Y148.286414 Z-0.125000
G01 X33.587650 Y149.732564 Z-0.125000
G01 X32.288671 Y151.263824 Z-0.125000
G01 X29.176203 Y153.892214 Z-0.125000
G01 X28.026852 Y155.104814 Z-0.125000
G01 X27.528168 Y155.844314 Z-0.125000
G01 X27.154759 Y156.643394 Z-0.125000
G01 X26.843393 Y158.250094 Z-0.125000
G01 X26.972317 Y159.868964 Z-0.125000
G01 X27.457610 Y161.655654 Z-0.125000
G01 X28.465886 Y164.077284 Z-0.125000
G01 X31.038330 Y169.181984 Z-0.125000
G01 X32.049053 Y171.410194 Z-0.125000
G01 X32.829899 Y173.725964 Z-0.125000
G01 X33.152198 Y175.825264 Z-0.125000
G01 X33.064618 Y177.341964 Z-0.125000
G01 X32.638896 Y178.895124 Z-0.125000
G01 X31.951703 Y180.325444 Z-0.125000
G01 X29.862145 Y183.628854 Z-0.125000
G01 X28.965780 Y185.351094 Z-0.125000
G01 X28.302898 Y187.376204 Z-0.125000
G01 X28.029250 Y189.390364 Z-0.125000
G01 X28.052360 Y191.544374 Z-0.125000
G01 X28.345495 Y194.019494 Z-0.125000
G01 X30.157727 Y203.052754 Z-0.125000
G01 X30.852219 Y207.275666 Z-0.125000
G01 X31.265739 Y210.975566 Z-0.125000
G01 X31.513885 Y214.793431 Z-0.125000
G01 X31.614830 Y220.879659 Z-0.125000
G01 X31.399536 Y226.622884 Z-0.125000
G01 X30.909393 Y231.263003 Z-0.125000
G01 X30.064083 Y235.735197 Z-0.125000
G00 Z5.000000

(End cutting path id: polyline6008)


(Start cutting path id: polyline5992)
(Change tool to Default tool)

G00 Z5.000000
G00 X39.840508 Y42.068054

G00 Z4.875000 (Fast pre-penetrate)
G01 Z-0.125000 F400.0(Penetrate)
G01 X38.822462 Y42.758894 Z-0.125000 F800.000000
G01 X36.506678 Y44.006794 Z-0.125000
G01 X35.532470 Y44.718304 Z-0.125000
G01 X35.052044 Y45.271734 Z-0.125000
G01 X34.801464 Y45.738774 Z-0.125000
G01 X34.657944 Y46.254464 Z-0.125000
G01 X34.638484 Y47.025584 Z-0.125000
G01 X34.982702 Y48.356214 Z-0.125000
G01 X35.888799 Y50.145334 Z-0.125000
G01 X40.114143 Y56.221804 Z-0.125000
G01 X41.414338 Y58.391674 Z-0.125000
G01 X42.129506 Y60.285384 Z-0.125000
G01 X42.229236 Y61.111254 Z-0.125000
G01 X42.151396 Y61.854374 Z-0.125000
G01 X41.723241 Y62.822544 Z-0.125000
G01 X40.817118 Y63.760274 Z-0.125000
G01 X39.594752 Y64.549634 Z-0.125000
G01 X36.063939 Y66.395934 Z-0.125000
G01 X34.497353 Y67.607364 Z-0.125000
G01 X33.929368 Y68.314014 Z-0.125000
G01 X33.525578 Y69.098494 Z-0.125000
G01 X33.289621 Y69.962084 Z-0.125000
G01 X33.216641 Y70.901034 Z-0.125000
G01 X33.455030 Y72.766784 Z-0.125000
G01 X34.168969 Y75.050974 Z-0.125000
G01 X38.522035 Y84.693584 Z-0.125000
G01 X40.269791 Y89.410284 Z-0.125000
G01 X40.939972 Y91.868374 Z-0.125000
G01 X41.416736 Y94.235214 Z-0.125000
G01 X41.722021 Y96.521834 Z-0.125000
G01 X41.877704 Y98.737874 Z-0.125000
G01 X41.877704 Y101.464764 Z-0.125000
G01 X41.661207 Y104.089484 Z-0.125000
G01 X41.247688 Y106.428344 Z-0.125000
G01 X40.545899 Y108.825624 Z-0.125000
G01 X39.712739 Y110.771684 Z-0.125000
G01 X38.670380 Y112.619204 Z-0.125000
G01 X35.303765 Y117.270224 Z-0.125000
G01 X34.265041 Y118.925554 Z-0.125000
G01 X33.519493 Y120.717144 Z-0.125000
G01 X33.290834 Y121.778934 Z-0.125000
G01 X33.217854 Y122.717904 Z-0.125000
G01 X33.282324 Y123.918364 Z-0.125000
G01 X33.473264 Y124.981404 Z-0.125000
G01 X34.329521 Y127.527054 Z-0.125000
G01 X35.876619 Y130.590864 Z-0.125000
G01 X39.502327 Y136.580984 Z-0.125000
G01 X40.815901 Y138.951504 Z-0.125000
G01 X41.840029 Y141.380394 Z-0.125000
G01 X42.220723 Y143.313044 Z-0.125000
G01 X42.073554 Y144.801794 Z-0.125000
G01 X41.829042 Y145.465854 Z-0.125000
G01 X41.375414 Y146.227254 Z-0.125000
G01 X40.064272 Y147.559054 Z-0.125000
G01 X37.105054 Y149.674184 Z-0.125000
G01 X35.820684 Y150.823554 Z-0.125000
G01 X34.948603 Y152.167524 Z-0.125000
G01 X34.695618 Y153.022544 Z-0.125000
G01 X34.622638 Y153.768144 Z-0.125000
G01 X34.774671 Y155.202144 Z-0.125000
G01 X35.348739 Y157.030174 Z-0.125000
G01 X36.260957 Y159.017574 Z-0.125000
G01 X39.808823 Y165.749634 Z-0.125000
G01 X40.598171 Y167.874474 Z-0.125000
G01 X40.933889 Y169.785244 Z-0.125000
G01 X40.860909 Y171.114634 Z-0.125000
G01 X40.452255 Y172.480504 Z-0.125000
G01 X39.671367 Y173.867034 Z-0.125000
G01 X37.592798 Y176.591504 Z-0.125000
G01 X36.658660 Y178.099654 Z-0.125000
G01 X36.038361 Y179.756244 Z-0.125000
G01 X35.793904 Y181.589184 Z-0.125000
G01 X35.885124 Y183.385614 Z-0.125000
G01 X36.270682 Y185.515274 Z-0.125000
G01 X38.320128 Y192.712004 Z-0.125000
G01 X39.077865 Y195.795254 Z-0.125000
G01 X39.553429 Y198.550086 Z-0.125000
G01 X39.797885 Y201.003321 Z-0.125000
G01 X39.884235 Y205.329602 Z-0.125000
G01 X39.531540 Y217.630995 Z-0.125000
G01 X39.891544 Y231.824908 Z-0.125000
G01 X39.794244 Y234.312172 Z-0.125000
G01 X39.549786 Y236.534316 Z-0.125000
G00 Z5.000000

(End cutting path id: polyline5992)


(Start cutting path id: polyline5990)
(Change tool to Default tool)

G00 Z5.000000
G00 X40.216350 Y41.787074

G00 Z4.875000 (Fast pre-penetrate)
G01 Z-0.125000 F400.0(Penetrate)
G01 X37.542970 Y43.257554 Z-0.125000 F800.000000
G01 X36.416688 Y44.091934 Z-0.125000
G01 X35.961787 Y44.657524 Z-0.125000
G01 X35.734346 Y45.135514 Z-0.125000
G01 X35.598150 Y45.850664 Z-0.125000
G01 X35.628560 Y46.449084 Z-0.125000
G01 X36.018984 Y47.801544 Z-0.125000
G01 X36.808330 Y49.341364 Z-0.125000
G01 X41.033675 Y55.417854 Z-0.125000
G01 X42.354547 Y57.596204 Z-0.125000
G01 X43.091622 Y59.502114 Z-0.125000
G01 X43.201087 Y60.331624 Z-0.125000
G01 X43.131747 Y61.078394 Z-0.125000
G01 X42.605089 Y62.194954 Z-0.125000
G01 X41.644247 Y63.107164 Z-0.125000
G01 X40.381769 Y63.877074 Z-0.125000
G01 X37.011465 Y65.604164 Z-0.125000
G01 X35.436404 Y66.811924 Z-0.125000
G01 X34.777172 Y67.671824 Z-0.125000
G01 X34.414709 Y68.474534 Z-0.125000
G01 X34.223781 Y69.358814 Z-0.125000
G01 X34.198241 Y70.320864 Z-0.125000
G01 X34.467009 Y72.005394 Z-0.125000
G01 X35.137189 Y74.074294 Z-0.125000
G01 X36.076151 Y76.268434 Z-0.125000
G01 X39.963344 Y84.523274 Z-0.125000
G01 X41.075031 Y87.383944 Z-0.125000
G01 X41.866825 Y89.899214 Z-0.125000
G01 X42.574682 Y92.959374 Z-0.125000
G01 X43.016202 Y96.087604 Z-0.125000
G01 X43.191333 Y99.287634 Z-0.125000
G01 X43.097683 Y102.359964 Z-0.125000
G01 X42.875106 Y104.398414 Z-0.125000
G01 X42.505345 Y106.367564 Z-0.125000
G01 X42.026147 Y108.089794 Z-0.125000
G01 X41.396118 Y109.741484 Z-0.125000
G01 X40.610406 Y111.320234 Z-0.125000
G01 X39.676322 Y112.829604 Z-0.125000
G01 X36.276800 Y117.270224 Z-0.125000
G01 X35.212588 Y118.913404 Z-0.125000
G01 X34.417120 Y120.877704 Z-0.125000
G01 X34.188460 Y122.717904 Z-0.125000
G01 X34.282110 Y123.930524 Z-0.125000
G01 X34.501012 Y125.006934 Z-0.125000
G01 X35.433933 Y127.589094 Z-0.125000
G01 X37.064941 Y130.693014 Z-0.125000
G01 X40.427922 Y136.168684 Z-0.125000
G01 X41.765849 Y138.551374 Z-0.125000
G01 X42.809383 Y140.989964 Z-0.125000
G01 X43.194941 Y142.923854 Z-0.125000
G01 X43.039259 Y144.408944 Z-0.125000
G01 X42.786287 Y145.069364 Z-0.125000
G01 X42.320455 Y145.824674 Z-0.125000
G01 X41.132130 Y147.019034 Z-0.125000
G01 X37.986876 Y149.242374 Z-0.125000
G01 X36.833850 Y150.259194 Z-0.125000
G01 X36.374099 Y150.821124 Z-0.125000
G01 X35.937443 Y151.591014 Z-0.125000
G01 X35.712433 Y152.263584 Z-0.125000
G01 X35.596888 Y153.183094 Z-0.125000
G01 X35.745272 Y154.617094 Z-0.125000
G01 X36.325422 Y156.447594 Z-0.125000
G01 X37.249789 Y158.441074 Z-0.125000
G01 X39.830745 Y163.160214 Z-0.125000
G01 X40.828047 Y165.187724 Z-0.125000
G01 X41.604070 Y167.305244 Z-0.125000
G01 X41.902030 Y169.003154 Z-0.125000
G01 X41.842430 Y170.338654 Z-0.125000
G01 X41.437384 Y171.706934 Z-0.125000
G01 X40.650456 Y173.091054 Z-0.125000
G01 X38.542669 Y175.800934 Z-0.125000
G01 X37.601274 Y177.306664 Z-0.125000
G01 X36.987057 Y178.965684 Z-0.125000
G01 X36.763263 Y180.808294 Z-0.125000
G01 X36.884890 Y182.619354 Z-0.125000
G01 X37.254651 Y184.545934 Z-0.125000
G01 X39.373410 Y191.775464 Z-0.125000
G01 X40.092228 Y194.645864 Z-0.125000
G01 X40.544681 Y197.195172 Z-0.125000
G01 X40.776989 Y199.447709 Z-0.125000
G01 X40.843889 Y203.764260 Z-0.125000
G01 X40.399950 Y212.321966 Z-0.125000
G01 X40.296566 Y216.754050 Z-0.125000
G01 X40.393866 Y221.864854 Z-0.125000
G01 X40.860915 Y231.823692 Z-0.125000
G01 X40.841455 Y234.151637 Z-0.125000
G01 X40.651703 Y236.595142 Z-0.125000
G00 Z5.000000

(End cutting path id: polyline5990)


(Start cutting path id: polyline5988)
(Change tool to Default tool)

G00 Z5.000000
G00 X40.519160 Y41.472064

G00 Z4.875000 (Fast pre-penetrate)
G01 Z-0.125000 F400.0(Penetrate)
G01 X38.222866 Y42.730934 Z-0.125000 F800.000000
G01 X37.185371 Y43.606644 Z-0.125000
G01 X36.798597 Y44.203844 Z-0.125000
G01 X36.628319 Y44.708594 Z-0.125000
G01 X36.621619 Y45.873754 Z-0.125000
G01 X37.057043 Y47.246934 Z-0.125000
G01 X37.884094 Y48.804964 Z-0.125000
G01 X41.941594 Y54.607854 Z-0.125000
G01 X43.285561 Y56.798344 Z-0.125000
G01 X44.051812 Y58.716404 Z-0.125000
G01 X44.173440 Y59.551994 Z-0.125000
G01 X44.115050 Y60.303634 Z-0.125000
G01 X43.601782 Y61.426264 Z-0.125000
G01 X42.644589 Y62.340894 Z-0.125000
G01 X41.378463 Y63.108384 Z-0.125000
G01 X37.978981 Y64.822094 Z-0.125000
G01 X36.391718 Y66.025004 Z-0.125000
G01 X35.824950 Y66.731664 Z-0.125000
G01 X35.430851 Y67.521004 Z-0.125000
G01 X35.190029 Y68.576744 Z-0.125000
G01 X35.176519 Y69.544884 Z-0.125000
G01 X35.472073 Y71.241584 Z-0.125000
G01 X36.182376 Y73.328704 Z-0.125000
G01 X41.065737 Y83.609884 Z-0.125000
G01 X42.218723 Y86.490004 Z-0.125000
G01 X43.038503 Y89.017434 Z-0.125000
G01 X43.812053 Y92.303784 Z-0.125000
G01 X44.232910 Y95.228914 Z-0.125000
G01 X44.434785 Y98.439894 Z-0.125000
G01 X44.361805 Y101.912344 Z-0.125000
G01 X44.105185 Y104.324194 Z-0.125000
G01 X43.773155 Y106.115784 Z-0.125000
G01 X43.248929 Y108.011964 Z-0.125000
G01 X42.611616 Y109.661214 Z-0.125000
G01 X41.811281 Y111.232654 Z-0.125000
G01 X40.854088 Y112.731084 Z-0.125000
G01 X37.340264 Y117.118184 Z-0.125000
G01 X36.232253 Y118.740694 Z-0.125000
G01 X35.755474 Y119.684524 Z-0.125000
G01 X35.403959 Y120.687944 Z-0.125000
G01 X35.161919 Y122.523304 Z-0.125000
G01 X35.425837 Y124.594634 Z-0.125000
G01 X36.329541 Y127.162174 Z-0.125000
G01 X37.800015 Y129.996094 Z-0.125000
G01 X41.523012 Y136.031234 Z-0.125000
G01 X42.851208 Y138.409054 Z-0.125000
G01 X43.780440 Y140.599544 Z-0.125000
G01 X44.169647 Y142.534634 Z-0.125000
G01 X44.004247 Y144.014864 Z-0.125000
G01 X43.742722 Y144.671634 Z-0.125000
G01 X43.263524 Y145.420874 Z-0.125000
G01 X42.048454 Y146.603084 Z-0.125000
G01 X38.866686 Y148.808194 Z-0.125000
G01 X37.723390 Y149.829864 Z-0.125000
G01 X37.274571 Y150.397854 Z-0.125000
G01 X36.858620 Y151.176254 Z-0.125000
G01 X36.570363 Y152.599314 Z-0.125000
G01 X36.716316 Y154.030824 Z-0.125000
G01 X37.301356 Y155.864984 Z-0.125000
G01 X38.237886 Y157.863324 Z-0.125000
G01 X41.733439 Y164.376464 Z-0.125000
G01 X42.545923 Y166.511034 Z-0.125000
G01 X42.869452 Y168.222304 Z-0.125000
G01 X42.824452 Y169.563884 Z-0.125000
G01 X42.427948 Y170.935814 Z-0.125000
G01 X41.636167 Y172.317504 Z-0.125000
G01 X39.499163 Y175.013974 Z-0.125000
G01 X38.629541 Y176.359194 Z-0.125000
G01 X37.982498 Y178.002364 Z-0.125000
G01 X37.737987 Y179.835304 Z-0.125000
G01 X37.854750 Y181.643894 Z-0.125000
G01 X38.234226 Y183.575324 Z-0.125000
G01 X40.417421 Y190.834044 Z-0.125000
G01 X41.096116 Y193.491614 Z-0.125000
G01 X41.525433 Y195.835364 Z-0.125000
G01 X41.765079 Y198.090335 Z-0.125000
G01 X41.796699 Y202.391088 Z-0.125000
G01 X41.182482 Y211.258930 Z-0.125000
G01 X41.024367 Y216.443900 Z-0.125000
G01 X41.170333 Y222.161624 Z-0.125000
G01 X41.808862 Y232.201952 Z-0.125000
G01 X41.835612 Y234.551777 Z-0.125000
G01 X41.726148 Y236.642550 Z-0.125000
G00 Z5.000000

(End cutting path id: polyline5988)


(Start cutting path id: polyline5942)
(Change tool to Default tool)

G00 Z5.000000
G00 X65.938087 Y42.901214

G00 Z4.875000 (Fast pre-penetrate)
G01 Z-0.125000 F400.0(Penetrate)
G01 X66.407555 Y44.290204 Z-0.125000 F800.000000
G01 X66.553520 Y45.527144 Z-0.125000
G01 X66.419731 Y46.439344 Z-0.125000
G01 X65.966061 Y47.394114 Z-0.125000
G01 X65.368898 Y48.087384 Z-0.125000
G01 X64.443315 Y48.820824 Z-0.125000
G01 X60.480673 Y51.050214 Z-0.125000
G01 X59.032078 Y52.121764 Z-0.125000
G01 X58.411780 Y52.804094 Z-0.125000
G01 X57.950812 Y53.561854 Z-0.125000
G01 X57.660150 Y54.399854 Z-0.125000
G01 X57.544605 Y55.318134 Z-0.125000
G01 X57.596895 Y56.317914 Z-0.125000
G01 X57.807310 Y57.390684 Z-0.125000
G01 X58.734109 Y59.969174 Z-0.125000
G01 X59.836052 Y62.239934 Z-0.125000
G01 X64.120953 Y70.292894 Z-0.125000
G01 X65.336022 Y73.006384 Z-0.125000
G01 X66.201995 Y75.361124 Z-0.125000
G01 X66.950016 Y78.050264 Z-0.125000
G01 X67.429228 Y80.612974 Z-0.125000
G01 X67.739377 Y83.485804 Z-0.125000
G01 X67.892627 Y86.869474 Z-0.125000
G01 X67.875597 Y91.536304 Z-0.125000
G01 X67.646938 Y95.130414 Z-0.125000
G01 X67.170173 Y98.022684 Z-0.125000
G01 X66.478114 Y100.230234 Z-0.125000
G01 X65.526988 Y102.121524 Z-0.125000
G01 X64.252321 Y103.859584 Z-0.125000
G01 X62.967925 Y105.203554 Z-0.125000
G01 X59.864010 Y108.030184 Z-0.125000
G01 X58.650157 Y109.408234 Z-0.125000
G01 X57.879040 Y110.798444 Z-0.125000
G01 X57.547011 Y112.395414 Z-0.125000
G01 X57.589581 Y113.390324 Z-0.125000
G01 X57.807294 Y114.466704 Z-0.125000
G01 X58.640413 Y116.610994 Z-0.125000
G01 X60.149820 Y119.268574 Z-0.125000
G01 X64.004202 Y124.975324 Z-0.125000
G01 X65.181540 Y126.892184 Z-0.125000
G01 X66.225115 Y129.136184 Z-0.125000
G01 X66.467154 Y130.028914 Z-0.125000
G01 X66.554724 Y130.849914 Z-0.125000
G01 X66.322416 Y132.105094 Z-0.125000
G01 X65.626708 Y133.141394 Z-0.125000
G01 X64.371514 Y134.109504 Z-0.125000
G01 X61.452460 Y135.659044 Z-0.125000
G01 X60.248337 Y136.456944 Z-0.125000
G01 X59.703446 Y136.979914 Z-0.125000
G01 X59.293577 Y137.566174 Z-0.125000
G01 X59.038159 Y138.225374 Z-0.125000
G01 X58.955449 Y138.771514 Z-0.125000
G01 X59.069778 Y139.993844 Z-0.125000
G01 X59.648710 Y141.629744 Z-0.125000
G01 X60.612012 Y143.445634 Z-0.125000
G01 X64.249883 Y149.441874 Z-0.125000
G01 X65.038028 Y151.369654 Z-0.125000
G01 X65.267902 Y152.841344 Z-0.125000
G01 X65.107356 Y153.934754 Z-0.125000
G01 X64.648820 Y154.888304 Z-0.125000
G01 X63.827850 Y155.866204 Z-0.125000
G01 X61.836812 Y157.657774 Z-0.125000
G01 X60.979339 Y158.618644 Z-0.125000
G01 X60.385785 Y159.702344 Z-0.125000
G01 X60.125516 Y160.944154 Z-0.125000
G01 X60.179036 Y162.138514 Z-0.125000
G01 X60.536633 Y163.669804 Z-0.125000
G01 X63.487310 Y170.900554 Z-0.125000
G01 X64.041916 Y172.913484 Z-0.125000
G01 X64.219520 Y174.555444 Z-0.125000
G01 X64.157480 Y175.696314 Z-0.125000
G01 X63.905712 Y176.940554 Z-0.125000
G01 X61.679933 Y182.517204 Z-0.125000
G01 X61.254224 Y184.266174 Z-0.125000
G01 X61.069364 Y185.931264 Z-0.125000
G01 X61.065364 Y187.878504 Z-0.125000
G01 X61.230764 Y189.904814 Z-0.125000
G01 X62.433684 Y198.260640 Z-0.125000
G01 X62.865434 Y202.359478 Z-0.125000
G01 X63.139108 Y207.358358 Z-0.125000
G01 X63.213298 Y212.652779 Z-0.125000
G01 X63.107537 Y218.057893 Z-0.125000
G01 X62.835104 Y222.215126 Z-0.125000
G01 X62.399666 Y225.711923 Z-0.125000
G01 X61.264869 Y232.191019 Z-0.125000
G01 X61.042291 Y235.203727 Z-0.125000
G00 Z5.000000

(End cutting path id: polyline5942)


(Start cutting path id: polyline5936)
(Change tool to Default tool)

G00 Z5.000000
G00 X69.425126 Y43.167554

G00 Z4.875000 (Fast pre-penetrate)
G01 Z-0.125000 F400.0(Penetrate)
G01 X69.461616 Y44.158824 Z-0.125000 F800.000000
G01 X69.335124 Y44.878844 Z-0.125000
G01 X69.077287 Y45.536864 Z-0.125000
G01 X68.581021 Y46.277594 Z-0.125000
G01 X67.125142 Y47.541284 Z-0.125000
G01 X63.465393 Y49.717194 Z-0.125000
G01 X61.913428 Y50.935914 Z-0.125000
G01 X61.220153 Y51.778784 Z-0.125000
G01 X60.807810 Y52.558424 Z-0.125000
G01 X60.554839 Y53.413434 Z-0.125000
G01 X60.461189 Y54.343884 Z-0.125000
G01 X60.728755 Y56.417654 Z-0.125000
G01 X61.505953 Y58.731004 Z-0.125000
G01 X62.766039 Y61.466394 Z-0.125000
G01 X66.819848 Y69.409864 Z-0.125000
G01 X67.983821 Y72.099034 Z-0.125000
G01 X68.826711 Y74.444034 Z-0.125000
G01 X69.574719 Y77.133234 Z-0.125000
G01 X70.103811 Y79.913634 Z-0.125000
G01 X70.410311 Y82.590614 Z-0.125000
G01 X70.580576 Y85.981584 Z-0.125000
G01 X70.550166 Y89.669334 Z-0.125000
G01 X70.286221 Y93.050574 Z-0.125000
G01 X69.797294 Y95.743404 Z-0.125000
G01 X69.088206 Y97.942404 Z-0.125000
G01 X68.229518 Y99.681704 Z-0.125000
G01 X67.003515 Y101.442864 Z-0.125000
G01 X65.643710 Y102.946174 Z-0.125000
G01 X62.662611 Y105.831194 Z-0.125000
G01 X61.606914 Y107.087584 Z-0.125000
G01 X60.772538 Y108.643204 Z-0.125000
G01 X60.463605 Y110.252324 Z-0.125000
G01 X60.513475 Y111.249674 Z-0.125000
G01 X60.731160 Y112.326084 Z-0.125000
G01 X61.677448 Y114.718494 Z-0.125000
G01 X63.217248 Y117.390614 Z-0.125000
G01 X66.867269 Y122.806704 Z-0.125000
G01 X68.196654 Y124.989914 Z-0.125000
G01 X69.114940 Y126.979744 Z-0.125000
G01 X69.370344 Y127.878534 Z-0.125000
G01 X69.471289 Y128.705624 Z-0.125000
G01 X69.266941 Y129.974214 Z-0.125000
G01 X68.595547 Y131.021404 Z-0.125000
G01 X67.358611 Y131.998084 Z-0.125000
G01 X64.246169 Y133.652194 Z-0.125000
G01 X63.062749 Y134.459834 Z-0.125000
G01 X62.537320 Y134.992554 Z-0.125000
G01 X62.152977 Y135.590934 Z-0.125000
G01 X61.926737 Y136.263544 Z-0.125000
G01 X61.867147 Y136.820594 Z-0.125000
G01 X62.033762 Y138.067264 Z-0.125000
G01 X62.555556 Y139.480604 Z-0.125000
G01 X63.523723 Y141.300114 Z-0.125000
G01 X66.139938 Y145.451274 Z-0.125000
G01 X67.193203 Y147.309734 Z-0.125000
G01 X67.908358 Y149.008864 Z-0.125000
G01 X68.184465 Y150.502464 Z-0.125000
G01 X68.053109 Y151.610464 Z-0.125000
G01 X67.610399 Y152.571304 Z-0.125000
G01 X66.790617 Y153.549204 Z-0.125000
G01 X64.766753 Y155.324954 Z-0.125000
G01 X63.893443 Y156.277284 Z-0.125000
G01 X63.292631 Y157.359804 Z-0.125000
G01 X63.040836 Y158.604064 Z-0.125000
G01 X63.113816 Y159.808134 Z-0.125000
G01 X63.428830 Y161.124144 Z-0.125000
G01 X64.034547 Y162.773434 Z-0.125000
G01 X66.442753 Y168.385294 Z-0.125000
G01 X66.948736 Y170.181754 Z-0.125000
G01 X67.138502 Y171.828574 Z-0.125000
G01 X67.043642 Y173.148224 Z-0.125000
G01 X66.687287 Y174.538424 Z-0.125000
G01 X65.022196 Y178.235894 Z-0.125000
G01 X64.468806 Y179.729464 Z-0.125000
G01 X64.137980 Y181.133064 Z-0.125000
G01 X63.978662 Y182.615704 Z-0.125000
G01 X63.984062 Y184.176174 Z-0.125000
G01 X64.175004 Y186.214674 Z-0.125000
G01 X65.483714 Y193.841894 Z-0.125000
G01 X65.983628 Y197.777753 Z-0.125000
G01 X66.249965 Y201.994583 Z-0.125000
G01 X66.330245 Y207.291463 Z-0.125000
G01 X66.307135 Y219.552719 Z-0.125000
G01 X66.104005 Y224.327806 Z-0.125000
G01 X65.591941 Y228.371898 Z-0.125000
G01 X64.134887 Y235.284001 Z-0.125000
G00 Z5.000000

(End cutting path id: polyline5936)


(Start cutting path id: polyline5934)
(Change tool to Default tool)

G00 Z5.000000
G00 X70.444362 Y43.189464

G00 Z4.875000 (Fast pre-penetrate)
G01 Z-0.125000 F400.0(Penetrate)
G01 X70.366532 Y44.127214 Z-0.125000 F800.000000
G01 X70.154927 Y44.807114 Z-0.125000
G01 X69.718272 Y45.575774 Z-0.125000
G01 X69.111339 Y46.264184 Z-0.125000
G01 X67.693178 Y47.350314 Z-0.125000
G01 X64.085714 Y49.551774 Z-0.125000
G01 X62.643201 Y50.821554 Z-0.125000
G01 X61.795460 Y52.176494 Z-0.125000
G01 X61.537623 Y53.029104 Z-0.125000
G01 X61.435454 Y53.954694 Z-0.125000
G01 X61.672627 Y56.013844 Z-0.125000
G01 X62.505746 Y58.548574 Z-0.125000
G01 X63.623515 Y61.021254 Z-0.125000
G01 X67.707772 Y69.175114 Z-0.125000
G01 X68.848635 Y71.853374 Z-0.125000
G01 X69.679323 Y74.192234 Z-0.125000
G01 X70.421262 Y76.878994 Z-0.125000
G01 X70.921177 Y79.451444 Z-0.125000
G01 X71.281167 Y82.541994 Z-0.125000
G01 X71.434417 Y85.731054 Z-0.125000
G01 X71.389417 Y89.216864 Z-0.125000
G01 X71.088984 Y92.581104 Z-0.125000
G01 X70.598813 Y95.078094 Z-0.125000
G01 X69.864197 Y97.264984 Z-0.125000
G01 X68.987238 Y98.995704 Z-0.125000
G01 X67.864646 Y100.610934 Z-0.125000
G01 X66.524327 Y102.123954 Z-0.125000
G01 X63.595530 Y105.033294 Z-0.125000
G01 X62.559252 Y106.299454 Z-0.125000
G01 X61.739511 Y107.862354 Z-0.125000
G01 X61.436645 Y109.472694 Z-0.125000
G01 X61.485295 Y110.470054 Z-0.125000
G01 X61.700576 Y111.545234 Z-0.125000
G01 X62.635889 Y113.932784 Z-0.125000
G01 X64.159892 Y116.596414 Z-0.125000
G01 X67.795318 Y122.006394 Z-0.125000
G01 X69.132001 Y124.193254 Z-0.125000
G01 X70.064868 Y126.189134 Z-0.125000
G01 X70.443142 Y127.926004 Z-0.125000
G01 X70.259499 Y129.203104 Z-0.125000
G01 X69.607590 Y130.260024 Z-0.125000
G01 X68.387654 Y131.245204 Z-0.125000
G01 X65.276403 Y132.900524 Z-0.125000
G01 X64.080834 Y133.702074 Z-0.125000
G01 X63.544458 Y134.228734 Z-0.125000
G01 X63.149170 Y134.822254 Z-0.125000
G01 X62.954553 Y135.314854 Z-0.125000
G01 X62.842655 Y136.042164 Z-0.125000
G01 X62.991040 Y137.280344 Z-0.125000
G01 X63.499416 Y138.687564 Z-0.125000
G01 X64.457865 Y140.502254 Z-0.125000
G01 X68.143184 Y146.520384 Z-0.125000
G01 X68.869285 Y148.224374 Z-0.125000
G01 X69.156327 Y149.724064 Z-0.125000
G01 X69.031049 Y150.833294 Z-0.125000
G01 X68.590759 Y151.795324 Z-0.125000
G01 X67.902336 Y152.640624 Z-0.125000
G01 X65.734952 Y154.544114 Z-0.125000
G01 X64.858032 Y155.495234 Z-0.125000
G01 X64.258397 Y156.576504 Z-0.125000
G01 X64.011493 Y157.824424 Z-0.125000
G01 X64.131904 Y159.245024 Z-0.125000
G01 X64.574601 Y160.816434 Z-0.125000
G01 X66.908654 Y166.198454 Z-0.125000
G01 X67.606795 Y168.084904 Z-0.125000
G01 X67.985015 Y169.627134 Z-0.125000
G01 X68.112724 Y171.050154 Z-0.125000
G01 X67.993529 Y172.357654 Z-0.125000
G01 X67.669960 Y173.569074 Z-0.125000
G01 X65.980599 Y177.255574 Z-0.125000
G01 X65.422302 Y178.746744 Z-0.125000
G01 X65.125518 Y179.970314 Z-0.125000
G01 X64.954036 Y181.448084 Z-0.125000
G01 X64.955136 Y183.007354 Z-0.125000
G01 X65.155834 Y185.049444 Z-0.125000
G01 X66.492517 Y192.495494 Z-0.125000
G01 X66.947403 Y195.825654 Z-0.125000
G01 X67.217430 Y199.459871 Z-0.125000
G01 X67.302570 Y203.395729 Z-0.125000
G01 X67.297170 Y220.924647 Z-0.125000
G01 X67.158501 Y224.950537 Z-0.125000
G01 X66.644018 Y229.189246 Z-0.125000
G01 X65.238007 Y235.347207 Z-0.125000
G00 Z5.000000

(End cutting path id: polyline5934)


(Start cutting path id: polyline5938)
(Change tool to Default tool)

G00 Z5.000000
G00 X68.336563 Y43.114064

G00 Z4.875000 (Fast pre-penetrate)
G01 Z-0.125000 F400.0(Penetrate)
G01 X68.495894 Y44.162474 Z-0.125000 F800.000000
G01 X68.463044 Y44.926294 Z-0.125000
G01 X68.224668 Y45.788624 Z-0.125000
G01 X67.781932 Y46.553674 Z-0.125000
G01 X67.159200 Y47.234784 Z-0.125000
G01 X66.390516 Y47.847804 Z-0.125000
G01 X62.519121 Y50.118544 Z-0.125000
G01 X60.942818 Y51.326324 Z-0.125000
G01 X60.343182 Y52.018404 Z-0.125000
G01 X59.895620 Y52.782214 Z-0.125000
G01 X59.611000 Y53.622664 Z-0.125000
G01 X59.491805 Y54.539724 Z-0.125000
G01 X59.533145 Y55.533434 Z-0.125000
G01 X59.724085 Y56.597644 Z-0.125000
G01 X60.592531 Y59.148164 Z-0.125000
G01 X61.765018 Y61.647624 Z-0.125000
G01 X65.905223 Y69.632434 Z-0.125000
G01 X67.093507 Y72.332564 Z-0.125000
G01 X68.023956 Y74.913514 Z-0.125000
G01 X68.703852 Y77.375254 Z-0.125000
G01 X69.231728 Y80.155654 Z-0.125000
G01 X69.549162 Y83.032144 Z-0.125000
G01 X69.707277 Y86.418244 Z-0.125000
G01 X69.663497 Y90.683704 Z-0.125000
G01 X69.411742 Y93.876444 Z-0.125000
G01 X68.928882 Y96.571704 Z-0.125000
G01 X68.219808 Y98.770694 Z-0.125000
G01 X67.355012 Y100.507564 Z-0.125000
G01 X66.114413 Y102.261404 Z-0.125000
G01 X64.733932 Y103.756224 Z-0.125000
G01 X61.838013 Y106.485524 Z-0.125000
G01 X60.637538 Y107.869654 Z-0.125000
G01 X59.795865 Y109.421604 Z-0.125000
G01 X59.490581 Y111.030744 Z-0.125000
G01 X59.710740 Y112.887984 Z-0.125000
G01 X60.609578 Y115.258524 Z-0.125000
G01 X62.294115 Y118.193374 Z-0.125000
G01 X65.771439 Y123.333324 Z-0.125000
G01 X67.129988 Y125.529944 Z-0.125000
G01 X68.171144 Y127.772744 Z-0.125000
G01 X68.413169 Y128.665514 Z-0.125000
G01 X68.500739 Y129.486454 Z-0.125000
G01 X68.269648 Y130.741644 Z-0.125000
G01 X67.572723 Y131.777934 Z-0.125000
G01 X66.316327 Y132.744834 Z-0.125000
G01 X63.389976 Y134.291944 Z-0.125000
G01 X62.183420 Y135.088624 Z-0.125000
G01 X61.638530 Y135.611644 Z-0.125000
G01 X61.231079 Y136.199074 Z-0.125000
G01 X60.979324 Y136.859524 Z-0.125000
G01 X60.899054 Y137.406834 Z-0.125000
G01 X61.024329 Y138.634064 Z-0.125000
G01 X61.619087 Y140.277244 Z-0.125000
G01 X62.598199 Y142.101664 Z-0.125000
G01 X66.119294 Y147.846114 Z-0.125000
G01 X66.948792 Y149.795774 Z-0.125000
G01 X67.212710 Y151.282094 Z-0.125000
G01 X67.072865 Y152.386444 Z-0.125000
G01 X66.626493 Y153.344854 Z-0.125000
G01 X65.807929 Y154.322744 Z-0.125000
G01 X63.793782 Y156.104584 Z-0.125000
G01 X62.924161 Y157.059384 Z-0.125000
G01 X62.325740 Y158.140664 Z-0.125000
G01 X62.069120 Y159.383674 Z-0.125000
G01 X62.170076 Y160.795764 Z-0.125000
G01 X62.588500 Y162.355014 Z-0.125000
G01 X64.973570 Y167.957174 Z-0.125000
G01 X65.658345 Y169.837514 Z-0.125000
G01 X66.032957 Y171.377334 Z-0.125000
G01 X66.165530 Y172.802824 Z-0.125000
G01 X66.063361 Y174.118824 Z-0.125000
G01 X65.705764 Y175.509024 Z-0.125000
G01 X63.998117 Y179.381624 Z-0.125000
G01 X63.467821 Y180.884924 Z-0.125000
G01 X63.154024 Y182.295824 Z-0.125000
G01 X63.004423 Y183.784534 Z-0.125000
G01 X63.019013 Y185.544494 Z-0.125000
G01 X63.189278 Y187.377434 Z-0.125000
G01 X64.523556 Y195.601844 Z-0.125000
G01 X65.013700 Y199.923271 Z-0.125000
G01 X65.271549 Y204.913651 Z-0.125000
G01 X65.342089 Y211.764914 Z-0.125000
G01 X65.267899 Y219.327709 Z-0.125000
G01 X64.993036 Y224.067510 Z-0.125000
G01 X64.528420 Y227.550900 Z-0.125000
G01 X63.357121 Y233.234554 Z-0.125000
G01 X63.064027 Y235.238971 Z-0.125000
G00 Z5.000000

(End cutting path id: polyline5938)


(Start cutting path id: polyline5932)
(Change tool to Default tool)

G00 Z5.000000
G00 X71.401583 Y43.182154

G00 Z4.875000 (Fast pre-penetrate)
G01 Z-0.125000 F400.0(Penetrate)
G01 X71.270225 Y43.899774 Z-0.125000 F800.000000
G01 X71.012389 Y44.557754 Z-0.125000
G01 X70.638993 Y45.161044 Z-0.125000
G01 X70.027208 Y45.847014 Z-0.125000
G01 X68.786610 Y46.822474 Z-0.125000
G01 X65.059966 Y49.162574 Z-0.125000
G01 X63.635682 Y50.440904 Z-0.125000
G01 X63.107821 Y51.167004 Z-0.125000
G01 X62.724695 Y51.959994 Z-0.125000
G01 X62.412113 Y53.566694 Z-0.125000
G01 X62.614027 Y55.610054 Z-0.125000
G01 X63.492163 Y58.360024 Z-0.125000
G01 X64.707219 Y61.073524 Z-0.125000
G01 X68.679551 Y69.173904 Z-0.125000
G01 X69.777873 Y71.832704 Z-0.125000
G01 X70.578166 Y74.156984 Z-0.125000
G01 X71.294551 Y76.831584 Z-0.125000
G01 X71.777438 Y79.396694 Z-0.125000
G01 X72.109467 Y82.279254 Z-0.125000
G01 X72.251771 Y85.073024 Z-0.125000
G01 X72.217721 Y88.369134 Z-0.125000
G01 X71.939208 Y91.549674 Z-0.125000
G01 X71.417428 Y94.226714 Z-0.125000
G01 X70.680352 Y96.412344 Z-0.125000
G01 X69.807069 Y98.145534 Z-0.125000
G01 X68.584715 Y99.907934 Z-0.125000
G01 X67.378200 Y101.288404 Z-0.125000
G01 X64.631830 Y104.088254 Z-0.125000
G01 X63.495831 Y105.502774 Z-0.125000
G01 X62.699172 Y107.076654 Z-0.125000
G01 X62.409700 Y108.693084 Z-0.125000
G01 X62.460790 Y109.691644 Z-0.125000
G01 X62.678504 Y110.768044 Z-0.125000
G01 X63.607735 Y113.153124 Z-0.125000
G01 X65.121968 Y115.811914 Z-0.125000
G01 X68.741607 Y121.214594 Z-0.125000
G01 X70.079534 Y123.401434 Z-0.125000
G01 X71.020916 Y125.402224 Z-0.125000
G01 X71.413772 Y127.146364 Z-0.125000
G01 X71.245927 Y128.430764 Z-0.125000
G01 X70.935777 Y129.064424 Z-0.125000
G01 X70.483323 Y129.629984 Z-0.125000
G01 X69.224494 Y130.596944 Z-0.125000
G01 X66.295711 Y132.142824 Z-0.125000
G01 X65.089154 Y132.939474 Z-0.125000
G01 X64.545481 Y133.463684 Z-0.125000
G01 X64.140463 Y134.052344 Z-0.125000
G01 X63.892316 Y134.714014 Z-0.125000
G01 X63.816896 Y135.263754 Z-0.125000
G01 X63.953132 Y136.495854 Z-0.125000
G01 X64.563700 Y138.146324 Z-0.125000
G01 X65.561044 Y139.979254 Z-0.125000
G01 X69.097979 Y145.732234 Z-0.125000
G01 X69.833796 Y147.442314 Z-0.125000
G01 X70.129364 Y148.944394 Z-0.125000
G01 X70.007736 Y150.054874 Z-0.125000
G01 X69.567446 Y151.018144 Z-0.125000
G01 X68.742800 Y151.993594 Z-0.125000
G01 X66.699475 Y153.759634 Z-0.125000
G01 X65.820083 Y154.710744 Z-0.125000
G01 X65.222920 Y155.793224 Z-0.125000
G01 X64.983329 Y157.044754 Z-0.125000
G01 X65.115902 Y158.470264 Z-0.125000
G01 X65.570788 Y160.047734 Z-0.125000
G01 X67.927937 Y165.440694 Z-0.125000
G01 X68.545804 Y167.094854 Z-0.125000
G01 X68.943525 Y168.645604 Z-0.125000
G01 X69.084612 Y170.075904 Z-0.125000
G01 X68.975148 Y171.388264 Z-0.125000
G01 X68.652836 Y172.599684 Z-0.125000
G01 X66.941554 Y176.276494 Z-0.125000
G01 X66.378420 Y177.763974 Z-0.125000
G01 X66.053648 Y179.169994 Z-0.125000
G01 X65.921075 Y180.471404 Z-0.125000
G01 X65.951475 Y182.238664 Z-0.125000
G01 X66.164337 Y184.092254 Z-0.125000
G01 X67.453599 Y190.931384 Z-0.125000
G01 X67.915781 Y194.070554 Z-0.125000
G01 X68.165104 Y196.915416 Z-0.125000
G01 X68.273352 Y200.277220 Z-0.125000
G01 X68.157806 Y210.937849 Z-0.125000
G01 X68.277000 Y221.706738 Z-0.125000
G01 X68.195510 Y225.564754 Z-0.125000
G01 X67.989987 Y228.000934 Z-0.125000
G01 X67.687135 Y230.000486 Z-0.125000
G01 X66.375980 Y235.423831 Z-0.125000
G00 Z5.000000

(End cutting path id: polyline5932)


(Start cutting path id: polyline5930)
(Change tool to Default tool)

G00 Z5.000000
G00 X72.304030 Y43.149324

G00 Z4.875000 (Fast pre-penetrate)
G01 Z-0.125000 F400.0(Penetrate)
G01 X71.767694 Y44.454384 Z-0.125000 F800.000000
G01 X70.809244 Y45.563604 Z-0.125000
G01 X69.547984 Y46.528144 Z-0.125000
G01 X66.206856 Y48.659024 Z-0.125000
G01 X64.636662 Y50.063844 Z-0.125000
G01 X64.111231 Y50.791154 Z-0.125000
G01 X63.723241 Y51.582954 Z-0.125000
G01 X63.479987 Y52.442844 Z-0.125000
G01 X63.381467 Y53.370894 Z-0.125000
G01 X63.597964 Y55.420294 Z-0.125000
G01 X64.463950 Y58.164234 Z-0.125000
G01 X65.647370 Y60.864354 Z-0.125000
G01 X69.512683 Y68.913634 Z-0.125000
G01 X70.587868 Y71.561444 Z-0.125000
G01 X71.377215 Y73.880874 Z-0.125000
G01 X72.088775 Y76.553044 Z-0.125000
G01 X72.575272 Y79.119374 Z-0.125000
G01 X72.908516 Y82.003174 Z-0.125000
G01 X73.045955 Y84.794524 Z-0.125000
G01 X72.986365 Y88.078434 Z-0.125000
G01 X72.710285 Y90.871034 Z-0.125000
G01 X72.207951 Y93.361944 Z-0.125000
G01 X71.468485 Y95.546364 Z-0.125000
G01 X70.600040 Y97.280784 Z-0.125000
G01 X69.391077 Y99.050464 Z-0.125000
G01 X65.519696 Y103.269694 Z-0.125000
G01 X64.515055 Y104.550444 Z-0.125000
G01 X63.706207 Y106.118204 Z-0.125000
G01 X63.473899 Y106.982954 Z-0.125000
G01 X63.380249 Y107.913444 Z-0.125000
G01 X63.441059 Y108.915654 Z-0.125000
G01 X63.662394 Y109.994494 Z-0.125000
G01 X64.595316 Y112.379584 Z-0.125000
G01 X66.102250 Y115.037144 Z-0.125000
G01 X69.887289 Y120.711044 Z-0.125000
G01 X71.040316 Y122.616954 Z-0.125000
G01 X72.066850 Y124.852474 Z-0.125000
G01 X72.392839 Y126.563754 Z-0.125000
G01 X72.165395 Y127.821404 Z-0.125000
G01 X71.475755 Y128.860074 Z-0.125000
G01 X70.226657 Y129.831894 Z-0.125000
G01 X67.112972 Y131.484794 Z-0.125000
G01 X66.088884 Y132.172004 Z-0.125000
G01 X65.539129 Y132.693774 Z-0.125000
G01 X65.128002 Y133.278804 Z-0.125000
G01 X64.872598 Y133.939254 Z-0.125000
G01 X64.791108 Y134.485364 Z-0.125000
G01 X64.917601 Y135.712574 Z-0.125000
G01 X65.519669 Y137.359394 Z-0.125000
G01 X66.512108 Y139.188684 Z-0.125000
G01 X70.059987 Y144.947744 Z-0.125000
G01 X70.801927 Y146.660264 Z-0.125000
G01 X71.102347 Y148.164764 Z-0.125000
G01 X70.980719 Y149.276454 Z-0.125000
G01 X70.540457 Y150.238514 Z-0.125000
G01 X69.712161 Y151.212764 Z-0.125000
G01 X67.659080 Y152.975134 Z-0.125000
G01 X66.778512 Y153.925034 Z-0.125000
G01 X66.184957 Y155.009934 Z-0.125000
G01 X65.955082 Y156.265134 Z-0.125000
G01 X66.099818 Y157.696694 Z-0.125000
G01 X66.570515 Y159.281494 Z-0.125000
G01 X68.846175 Y164.440914 Z-0.125000
G01 X69.557695 Y166.334674 Z-0.125000
G01 X69.938388 Y167.876904 Z-0.125000
G01 X70.057583 Y169.101704 Z-0.125000
G01 X69.956628 Y170.417714 Z-0.125000
G01 X69.636762 Y171.630334 Z-0.125000
G01 X67.833044 Y175.457924 Z-0.125000
G01 X67.336776 Y176.783674 Z-0.125000
G01 X67.013262 Y178.189704 Z-0.125000
G01 X66.890418 Y179.495934 Z-0.125000
G01 X66.922038 Y181.068614 Z-0.125000
G01 X67.138548 Y182.924644 Z-0.125000
G01 X68.438716 Y189.574004 Z-0.125000
G01 X68.868074 Y192.308204 Z-0.125000
G01 X69.114964 Y194.761394 Z-0.125000
G01 X69.245105 Y197.939545 Z-0.125000
G01 X69.005493 Y211.072854 Z-0.125000
G01 X69.246315 Y223.263566 Z-0.125000
G01 X69.196445 Y226.552341 Z-0.125000
G01 X68.998220 Y228.990979 Z-0.125000
G01 X68.686853 Y230.986897 Z-0.125000
G01 X67.537462 Y235.512660 Z-0.125000
G00 Z5.000000

(End cutting path id: polyline5930)


(Start cutting path id: polyline5940)
(Change tool to Default tool)

G00 Z5.000000
G00 X67.175036 Y43.025254

G00 Z4.875000 (Fast pre-penetrate)
G01 Z-0.125000 F400.0(Penetrate)
G01 X67.460860 Y44.133294 Z-0.125000 F800.000000
G01 X67.521670 Y45.135514 Z-0.125000
G01 X67.355053 Y46.031874 Z-0.125000
G01 X66.873409 Y46.973294 Z-0.125000
G01 X66.261625 Y47.660464 Z-0.125000
G01 X65.496590 Y48.274684 Z-0.125000
G01 X61.406266 Y50.637904 Z-0.125000
G01 X59.982024 Y51.721604 Z-0.125000
G01 X59.373888 Y52.410014 Z-0.125000
G01 X58.920204 Y53.170204 Z-0.125000
G01 X58.634367 Y54.010644 Z-0.125000
G01 X58.517604 Y54.928934 Z-0.125000
G01 X58.566254 Y55.926294 Z-0.125000
G01 X58.768169 Y56.995394 Z-0.125000
G01 X59.669441 Y59.561724 Z-0.125000
G01 X60.875956 Y62.076954 Z-0.125000
G01 X64.965077 Y69.841654 Z-0.125000
G01 X66.177701 Y72.555154 Z-0.125000
G01 X67.123962 Y75.142184 Z-0.125000
G01 X67.862253 Y77.826514 Z-0.125000
G01 X68.339017 Y80.389184 Z-0.125000
G01 X68.652816 Y83.263224 Z-0.125000
G01 X68.808498 Y86.648114 Z-0.125000
G01 X68.779308 Y91.114284 Z-0.125000
G01 X68.538487 Y94.507684 Z-0.125000
G01 X68.038585 Y97.390244 Z-0.125000
G01 X67.327079 Y99.588054 Z-0.125000
G01 X66.361331 Y101.470834 Z-0.125000
G01 X65.078191 Y103.206474 Z-0.125000
G01 X63.796226 Y104.551654 Z-0.125000
G01 X60.729990 Y107.396524 Z-0.125000
G01 X59.652372 Y108.641984 Z-0.125000
G01 X58.872742 Y110.029744 Z-0.125000
G01 X58.523698 Y111.618224 Z-0.125000
G01 X58.552888 Y112.605804 Z-0.125000
G01 X58.754802 Y113.674904 Z-0.125000
G01 X59.557528 Y115.805834 Z-0.125000
G01 X61.211673 Y118.726114 Z-0.125000
G01 X64.879937 Y124.150674 Z-0.125000
G01 X66.222715 Y126.339954 Z-0.125000
G01 X67.154380 Y128.337084 Z-0.125000
G01 X67.525356 Y130.069064 Z-0.125000
G01 X67.330726 Y131.341284 Z-0.125000
G01 X66.669060 Y132.394584 Z-0.125000
G01 X65.440665 Y133.374914 Z-0.125000
G01 X62.333062 Y135.031464 Z-0.125000
G01 X61.145994 Y135.836654 Z-0.125000
G01 X60.615686 Y136.366914 Z-0.125000
G01 X60.224059 Y136.962894 Z-0.125000
G01 X59.922411 Y138.184044 Z-0.125000
G01 X60.072012 Y139.423414 Z-0.125000
G01 X60.574318 Y140.828194 Z-0.125000
G01 X61.681154 Y142.906834 Z-0.125000
G01 X64.285207 Y147.051884 Z-0.125000
G01 X65.310511 Y148.898204 Z-0.125000
G01 X65.992839 Y150.582734 Z-0.125000
G01 X66.240959 Y152.061714 Z-0.125000
G01 X66.091358 Y153.161204 Z-0.125000
G01 X65.638891 Y154.117184 Z-0.125000
G01 X64.951696 Y154.962504 Z-0.125000
G01 X62.817125 Y156.881784 Z-0.125000
G01 X61.953585 Y157.839004 Z-0.125000
G01 X61.356409 Y158.922714 Z-0.125000
G01 X61.097330 Y160.164514 Z-0.125000
G01 X61.156920 Y161.361314 Z-0.125000
G01 X61.523032 Y162.896254 Z-0.125000
G01 X64.499238 Y170.139174 Z-0.125000
G01 X64.996707 Y171.931944 Z-0.125000
G01 X65.191297 Y173.581234 Z-0.125000
G01 X65.136567 Y174.724524 Z-0.125000
G01 X64.884772 Y175.969984 Z-0.125000
G01 X62.623721 Y181.529574 Z-0.125000
G01 X62.234513 Y183.099764 Z-0.125000
G01 X62.041113 Y184.762424 Z-0.125000
G01 X62.034413 Y186.512624 Z-0.125000
G01 X62.177948 Y188.333404 Z-0.125000
G01 X63.457479 Y196.725704 Z-0.125000
G01 X63.957354 Y201.246562 Z-0.125000
G01 X64.235894 Y206.637095 Z-0.125000
G01 X64.302794 Y212.707525 Z-0.125000
G01 X64.211554 Y218.507928 Z-0.125000
G01 X63.914769 Y223.239241 Z-0.125000
G01 X63.425801 Y226.905073 Z-0.125000
G01 X62.265477 Y232.982799 Z-0.125000
G01 X62.034386 Y235.212228 Z-0.125000
G00 Z5.000000

(End cutting path id: polyline5940)


(Start cutting path id: polyline5928)
(Change tool to Default tool)

G00 Z5.000000
G00 X73.157894 Y43.093354

G00 Z4.875000 (Fast pre-penetrate)
G01 Z-0.125000 F400.0(Penetrate)
G01 X72.598381 Y44.192894 Z-0.125000 F800.000000
G01 X71.594956 Y45.280244 Z-0.125000
G01 X70.489379 Y46.124344 Z-0.125000
G01 X67.200564 Y48.279594 Z-0.125000
G01 X65.767808 Y49.554214 Z-0.125000
G01 X65.120725 Y50.418974 Z-0.125000
G01 X64.727881 Y51.208334 Z-0.125000
G01 X64.439652 Y52.240964 Z-0.125000
G01 X64.353302 Y53.175064 Z-0.125000
G01 X64.575893 Y55.228154 Z-0.125000
G01 X65.421202 Y57.962314 Z-0.125000
G01 X66.568147 Y60.644194 Z-0.125000
G01 X70.213316 Y68.395494 Z-0.125000
G01 X71.194848 Y70.804954 Z-0.125000
G01 X72.079105 Y73.363994 Z-0.125000
G01 X72.806423 Y76.043414 Z-0.125000
G01 X73.308716 Y78.617074 Z-0.125000
G01 X73.659029 Y81.508144 Z-0.125000
G01 X73.797684 Y84.106094 Z-0.125000
G01 X73.750244 Y87.200304 Z-0.125000
G01 X73.502137 Y89.811644 Z-0.125000
G01 X73.014426 Y92.309854 Z-0.125000
G01 X72.294365 Y94.502824 Z-0.125000
G01 X71.450273 Y96.249354 Z-0.125000
G01 X70.383628 Y97.891354 Z-0.125000
G01 X69.123543 Y99.442094 Z-0.125000
G01 X66.388161 Y102.441424 Z-0.125000
G01 X65.418777 Y103.739164 Z-0.125000
G01 X64.647660 Y105.323994 Z-0.125000
G01 X64.356958 Y106.940424 Z-0.125000
G01 X64.397098 Y107.934114 Z-0.125000
G01 X64.596594 Y109.002024 Z-0.125000
G01 X65.474729 Y111.362774 Z-0.125000
G01 X67.103304 Y114.270894 Z-0.125000
G01 X70.686470 Y119.656564 Z-0.125000
G01 X72.015843 Y121.838544 Z-0.125000
G01 X73.038728 Y124.072824 Z-0.125000
G01 X73.365891 Y125.785354 Z-0.125000
G01 X73.142097 Y127.044214 Z-0.125000
G01 X72.459754 Y128.086534 Z-0.125000
G01 X71.216738 Y129.060784 Z-0.125000
G01 X68.106729 Y130.714894 Z-0.125000
G01 X66.928175 Y131.526184 Z-0.125000
G01 X66.109610 Y132.504044 Z-0.125000
G01 X65.850558 Y133.162044 Z-0.125000
G01 X65.765418 Y133.705724 Z-0.125000
G01 X65.884614 Y134.930504 Z-0.125000
G01 X66.481802 Y136.574914 Z-0.125000
G01 X67.471863 Y138.404184 Z-0.125000
G01 X71.027026 Y144.165654 Z-0.125000
G01 X71.773832 Y145.880634 Z-0.125000
G01 X72.075467 Y147.385154 Z-0.125000
G01 X71.953840 Y148.496834 Z-0.125000
G01 X71.509887 Y149.457674 Z-0.125000
G01 X70.675523 Y150.429484 Z-0.125000
G01 X68.613968 Y152.186954 Z-0.125000
G01 X67.844055 Y152.994594 Z-0.125000
G01 X67.209134 Y154.058834 Z-0.125000
G01 X66.934283 Y155.293354 Z-0.125000
G01 X67.004823 Y156.495014 Z-0.125000
G01 X67.329568 Y157.817094 Z-0.125000
G01 X67.959583 Y159.476104 Z-0.125000
G01 X70.338626 Y164.880014 Z-0.125000
G01 X70.855542 Y166.681294 Z-0.125000
G01 X71.028253 Y168.126244 Z-0.125000
G01 X70.938243 Y169.447114 Z-0.125000
G01 X70.620810 Y170.662174 Z-0.125000
G01 X68.797604 Y174.480034 Z-0.125000
G01 X68.296513 Y175.803364 Z-0.125000
G01 X67.975390 Y177.210594 Z-0.125000
G01 X67.859844 Y178.519304 Z-0.125000
G01 X67.906054 Y180.100444 Z-0.125000
G01 X68.110401 Y181.754584 Z-0.125000
G01 X69.832629 Y190.745264 Z-0.125000
G01 X70.111169 Y193.408914 Z-0.125000
G01 X70.218201 Y195.991054 Z-0.125000
G01 X69.820494 Y210.804045 Z-0.125000
G01 X69.887394 Y215.705636 Z-0.125000
G01 X70.206057 Y224.231693 Z-0.125000
G01 X70.196657 Y227.344160 Z-0.125000
G01 X70.059218 Y229.421554 Z-0.125000
G01 X69.778273 Y231.433268 Z-0.125000
G01 X68.720116 Y235.609949 Z-0.125000
G00 Z5.000000

(End cutting path id: polyline5928)


(Start cutting path id: polyline5926)
(Change tool to Default tool)

G00 Z5.000000
G00 X73.971566 Y43.017954

G00 Z4.875000 (Fast pre-penetrate)
G01 Z-0.125000 F400.0(Penetrate)
G01 X73.424244 Y43.930164 Z-0.125000 F800.000000
G01 X72.531486 Y44.873984 Z-0.125000
G01 X71.440491 Y45.724154 Z-0.125000
G01 X68.205206 Y47.904964 Z-0.125000
G01 X66.666607 Y49.324334 Z-0.125000
G01 X66.048740 Y50.202474 Z-0.125000
G01 X65.675386 Y51.001584 Z-0.125000
G01 X65.435738 Y51.862714 Z-0.125000
G01 X65.326274 Y52.980444 Z-0.125000
G01 X65.547650 Y55.032304 Z-0.125000
G01 X66.363742 Y57.753114 Z-0.125000
G01 X67.581244 Y60.663654 Z-0.125000
G01 X71.097500 Y68.354164 Z-0.125000
G01 X72.126455 Y70.981314 Z-0.125000
G01 X72.891489 Y73.288584 Z-0.125000
G01 X73.542222 Y75.736914 Z-0.125000
G01 X74.043313 Y78.310564 Z-0.125000
G01 X74.354679 Y80.794194 Z-0.125000
G01 X74.510362 Y83.399454 Z-0.125000
G01 X74.477512 Y86.306334 Z-0.125000
G01 X74.206255 Y89.100144 Z-0.125000
G01 X73.742855 Y91.414704 Z-0.125000
G01 X73.020404 Y93.607624 Z-0.125000
G01 X72.181176 Y95.356644 Z-0.125000
G01 X71.129086 Y97.004684 Z-0.125000
G01 X67.352561 Y101.463544 Z-0.125000
G01 X66.309013 Y102.920644 Z-0.125000
G01 X65.582884 Y104.527334 Z-0.125000
G01 X65.326251 Y106.160784 Z-0.125000
G01 X65.383411 Y107.160564 Z-0.125000
G01 X65.596272 Y108.234544 Z-0.125000
G01 X66.491421 Y110.603824 Z-0.125000
G01 X68.122443 Y113.513144 Z-0.125000
G01 X71.686107 Y118.889094 Z-0.125000
G01 X73.003371 Y121.066214 Z-0.125000
G01 X74.016526 Y123.295634 Z-0.125000
G01 X74.338825 Y125.005714 Z-0.125000
G01 X74.115030 Y126.264544 Z-0.125000
G01 X73.432688 Y127.306914 Z-0.125000
G01 X72.192104 Y128.282384 Z-0.125000
G01 X69.085744 Y129.940134 Z-0.125000
G01 X67.908365 Y130.748984 Z-0.125000
G01 X67.086192 Y131.726834 Z-0.125000
G01 X66.825882 Y132.383634 Z-0.125000
G01 X66.739532 Y132.927314 Z-0.125000
G01 X66.856295 Y134.150894 Z-0.125000
G01 X67.449850 Y135.794064 Z-0.125000
G01 X68.439868 Y137.622134 Z-0.125000
G01 X72.001141 Y143.387244 Z-0.125000
G01 X72.749122 Y145.102214 Z-0.125000
G01 X73.048324 Y146.606734 Z-0.125000
G01 X72.923048 Y147.715994 Z-0.125000
G01 X72.474284 Y148.674394 Z-0.125000
G01 X71.770062 Y149.512414 Z-0.125000
G01 X69.562515 Y151.396384 Z-0.125000
G01 X68.795046 Y152.205234 Z-0.125000
G01 X68.167450 Y153.273134 Z-0.125000
G01 X67.904708 Y154.513724 Z-0.125000
G01 X67.987418 Y155.721464 Z-0.125000
G01 X68.327962 Y157.049614 Z-0.125000
G01 X71.272544 Y163.887524 Z-0.125000
G01 X71.811352 Y165.699784 Z-0.125000
G01 X71.999902 Y167.151994 Z-0.125000
G01 X71.945172 Y168.295284 Z-0.125000
G01 X71.661767 Y169.524944 Z-0.125000
G01 X69.427475 Y174.319484 Z-0.125000
G01 X68.998158 Y175.870234 Z-0.125000
G01 X68.835177 Y177.352894 Z-0.125000
G01 X68.858287 Y178.727254 Z-0.125000
G01 X69.077230 Y180.583324 Z-0.125000
G01 X70.419968 Y187.057504 Z-0.125000
G01 X70.845690 Y189.595884 Z-0.125000
G01 X71.085296 Y191.850884 Z-0.125000
G01 X71.191112 Y194.238424 Z-0.125000
G01 X71.130302 Y197.715751 Z-0.125000
G01 X70.707053 Y205.893965 Z-0.125000
G01 X70.609753 Y210.717689 Z-0.125000
G01 X70.711922 Y216.220133 Z-0.125000
G01 X71.158308 Y225.196223 Z-0.125000
G01 X71.180208 Y228.323233 Z-0.125000
G01 X71.068310 Y230.218212 Z-0.125000
G01 X70.826284 Y232.052351 Z-0.125000
G01 X69.912851 Y235.713318 Z-0.125000
G00 Z5.000000

(End cutting path id: polyline5926)


(Start cutting path id: polyline5924)
(Change tool to Default tool)

G00 Z5.000000
G00 X74.753615 Y42.927954

G00 Z4.875000 (Fast pre-penetrate)
G01 Z-0.125000 F400.0(Penetrate)
G01 X74.132101 Y43.804904 Z-0.125000 F800.000000
G01 X73.331807 Y44.597914 Z-0.125000
G01 X69.220819 Y47.535214 Z-0.125000
G01 X67.695601 Y48.961874 Z-0.125000
G01 X67.166522 Y49.686804 Z-0.125000
G01 X66.692175 Y50.631834 Z-0.125000
G01 X66.402702 Y51.665644 Z-0.125000
G01 X66.299319 Y52.784644 Z-0.125000
G01 X66.557169 Y55.049344 Z-0.125000
G01 X67.294243 Y57.539064 Z-0.125000
G01 X68.353589 Y60.179584 Z-0.125000
G01 X71.851615 Y68.056154 Z-0.125000
G01 X73.604238 Y72.971134 Z-0.125000
G01 X74.246456 Y75.415834 Z-0.125000
G01 X74.709856 Y77.776624 Z-0.125000
G01 X75.011491 Y80.060764 Z-0.125000
G01 X75.184189 Y82.674544 Z-0.125000
G01 X75.154999 Y85.582664 Z-0.125000
G01 X74.899582 Y88.190344 Z-0.125000
G01 X74.436182 Y90.504924 Z-0.125000
G01 X73.780638 Y92.533664 Z-0.125000
G01 X72.966939 Y94.294824 Z-0.125000
G01 X71.947703 Y95.957484 Z-0.125000
G01 X68.291560 Y100.473484 Z-0.125000
G01 X67.275987 Y101.943954 Z-0.125000
G01 X66.562035 Y103.556744 Z-0.125000
G01 X66.300549 Y105.186544 Z-0.125000
G01 X66.347989 Y106.182664 Z-0.125000
G01 X66.546255 Y107.250574 Z-0.125000
G01 X66.988993 Y108.627394 Z-0.125000
G01 X67.522895 Y109.852194 Z-0.125000
G01 X68.990977 Y112.490274 Z-0.125000
G01 X72.704256 Y118.131344 Z-0.125000
G01 X74.005668 Y120.301174 Z-0.125000
G01 X74.921494 Y122.289774 Z-0.125000
G01 X75.305836 Y124.029044 Z-0.125000
G01 X75.142855 Y125.315864 Z-0.125000
G01 X74.840003 Y125.953184 Z-0.125000
G01 X74.396091 Y126.523634 Z-0.125000
G01 X73.155493 Y127.499054 Z-0.125000
G01 X70.053972 Y129.158084 Z-0.125000
G01 X68.877836 Y129.968094 Z-0.125000
G01 X68.357271 Y130.503274 Z-0.125000
G01 X67.977781 Y131.104094 Z-0.125000
G01 X67.758893 Y131.780364 Z-0.125000
G01 X67.705373 Y132.339844 Z-0.125000
G01 X67.886585 Y133.593804 Z-0.125000
G01 X68.425393 Y135.015654 Z-0.125000
G01 X69.416656 Y136.844934 Z-0.125000
G01 X72.982766 Y142.611264 Z-0.125000
G01 X73.727139 Y144.325014 Z-0.125000
G01 X74.021477 Y145.827104 Z-0.125000
G01 X73.891335 Y146.935104 Z-0.125000
G01 X73.435220 Y147.888694 Z-0.125000
G01 X72.586262 Y148.854404 Z-0.125000
G01 X70.649969 Y150.475694 Z-0.125000
G01 X69.742616 Y151.413414 Z-0.125000
G01 X69.123534 Y152.486174 Z-0.125000
G01 X68.875414 Y153.732844 Z-0.125000
G01 X69.015298 Y155.161984 Z-0.125000
G01 X69.494497 Y156.751664 Z-0.125000
G01 X71.817577 Y161.934194 Z-0.125000
G01 X72.453687 Y163.595604 Z-0.125000
G01 X72.812502 Y164.933544 Z-0.125000
G01 X72.976685 Y166.374804 Z-0.125000
G01 X72.868436 Y167.687144 Z-0.125000
G01 X72.529083 Y168.891274 Z-0.125000
G01 X70.729000 Y172.525494 Z-0.125000
G01 X70.219368 Y173.845154 Z-0.125000
G01 X69.931139 Y175.072374 Z-0.125000
G01 X69.805863 Y176.377434 Z-0.125000
G01 X69.839913 Y177.756694 Z-0.125000
G01 X70.077086 Y179.621234 Z-0.125000
G01 X71.792018 Y188.024464 Z-0.125000
G01 X72.158128 Y192.287494 Z-0.125000
G01 X72.102178 Y195.767254 Z-0.125000
G01 X71.498913 Y205.418377 Z-0.125000
G01 X71.387017 Y211.210306 Z-0.125000
G01 X71.508644 Y216.332017 Z-0.125000
G01 X72.098550 Y225.960042 Z-0.125000
G01 X72.160590 Y229.299914 Z-0.125000
G01 X71.866239 Y232.667785 Z-0.125000
G01 X71.109717 Y235.819160 Z-0.125000
G00 Z5.000000

(End cutting path id: polyline5924)


(Start cutting path id: polyline5922)
(Change tool to Default tool)

G00 Z5.000000
G00 X75.511367 Y42.827024

G00 Z4.875000 (Fast pre-penetrate)
G01 Z-0.125000 F400.0(Penetrate)
G01 X74.955531 Y43.539754 Z-0.125000 F800.000000
G01 X74.139398 Y44.325444 Z-0.125000
G01 X70.246123 Y47.170314 Z-0.125000
G01 X68.734283 Y48.603094 Z-0.125000
G01 X68.109120 Y49.477584 Z-0.125000
G01 X67.653017 Y50.431124 Z-0.125000
G01 X67.373301 Y51.469854 Z-0.125000
G01 X67.272346 Y52.590014 Z-0.125000
G01 X67.514370 Y54.847444 Z-0.125000
G01 X68.294001 Y57.551214 Z-0.125000
G01 X69.220841 Y59.935124 Z-0.125000
G01 X72.673812 Y67.985624 Z-0.125000
G01 X74.286589 Y72.639074 Z-0.125000
G01 X74.917835 Y75.078934 Z-0.125000
G01 X75.373937 Y77.436034 Z-0.125000
G01 X75.687735 Y79.920914 Z-0.125000
G01 X75.821525 Y82.127214 Z-0.125000
G01 X75.791115 Y84.839504 Z-0.125000
G01 X75.553941 Y87.261114 Z-0.125000
G01 X75.092975 Y89.576904 Z-0.125000
G01 X74.441026 Y91.608074 Z-0.125000
G01 X73.635866 Y93.371664 Z-0.125000
G01 X72.633658 Y95.044064 Z-0.125000
G01 X69.099170 Y99.616024 Z-0.125000
G01 X68.224684 Y100.958764 Z-0.125000
G01 X67.531408 Y102.580054 Z-0.125000
G01 X67.274748 Y104.213554 Z-0.125000
G01 X67.342858 Y105.413984 Z-0.125000
G01 X67.561801 Y106.491604 Z-0.125000
G01 X68.450909 Y108.857264 Z-0.125000
G01 X69.882435 Y111.478334 Z-0.125000
G01 X73.738033 Y117.380894 Z-0.125000
G01 X75.019997 Y119.540984 Z-0.125000
G01 X75.915146 Y121.521094 Z-0.125000
G01 X76.281258 Y123.250614 Z-0.125000
G01 X76.104913 Y124.531374 Z-0.125000
G01 X75.797182 Y125.166264 Z-0.125000
G01 X75.349593 Y125.735494 Z-0.125000
G01 X74.105346 Y126.708494 Z-0.125000
G01 X71.008717 Y128.369934 Z-0.125000
G01 X69.838676 Y129.183614 Z-0.125000
G01 X69.024976 Y130.165154 Z-0.125000
G01 X68.767141 Y130.823184 Z-0.125000
G01 X68.684431 Y131.368054 Z-0.125000
G01 X68.807275 Y132.595244 Z-0.125000
G01 X69.408126 Y134.240884 Z-0.125000
G01 X70.403037 Y136.072614 Z-0.125000
G01 X73.969148 Y141.838924 Z-0.125000
G01 X74.708656 Y143.550254 Z-0.125000
G01 X74.995668 Y145.048684 Z-0.125000
G01 X74.903238 Y145.979124 Z-0.125000
G01 X74.489719 Y146.953384 Z-0.125000
G01 X73.671154 Y147.932454 Z-0.125000
G01 X71.588896 Y149.681464 Z-0.125000
G01 X70.686449 Y150.620434 Z-0.125000
G01 X70.078312 Y151.698034 Z-0.125000
G01 X69.846005 Y152.953214 Z-0.125000
G01 X69.960334 Y154.175584 Z-0.125000
G01 X70.415233 Y155.753104 Z-0.125000
G01 X73.395115 Y162.606804 Z-0.125000
G01 X73.812282 Y164.167264 Z-0.125000
G01 X73.948505 Y165.399374 Z-0.125000
G01 X73.848775 Y166.716584 Z-0.125000
G01 X73.513097 Y167.921894 Z-0.125000
G01 X71.772638 Y171.389484 Z-0.125000
G01 X71.237478 Y172.696974 Z-0.125000
G01 X70.926113 Y173.914474 Z-0.125000
