%
(Header)
(Generated by gcodetools from Inkscape.)
(Using default header. To add your own header create file "header" in the output dir.)
M3
(Header end.)
G21 (All units in mm)

(Start cutting path id: polyline99661)
(Change tool to Default tool)

G00 Z3.000000
G00 X123.512737 Y111.619057

G00 Z4.875000 (Fast pre-penetrate)
G01 Z-0.125000 F400.0(Penetrate)
G01 X120.494676 Y115.174063 Z-0.125000 F800.000000
G01 X110.209337 Y126.244640 Z-0.125000
G01 X104.495024 Y133.319955 Z-0.125000
G01 X99.721798 Y140.595538 Z-0.125000
G01 X93.149890 Y153.006453 Z-0.125000
G01 X91.345672 Y155.685518 Z-0.125000
G01 X89.328181 Y158.169529 Z-0.125000
G01 X85.848235 Y161.468068 Z-0.125000
G01 X82.131199 Y163.861827 Z-0.125000
G01 X80.306895 Y164.622087 Z-0.125000
G01 X78.703203 Y164.996359 Z-0.125000
G01 X77.346836 Y164.991853 Z-0.125000
G01 X76.234835 Y164.629297 Z-0.125000
G01 X74.984428 Y163.506352 Z-0.125000
G01 X74.046366 Y161.586324 Z-0.125000
G01 X73.449938 Y158.861682 Z-0.125000
G01 X73.267566 Y155.643224 Z-0.125000
G01 X73.485344 Y152.660441 Z-0.125000
G01 X74.074047 Y149.783167 Z-0.125000
G01 X75.091676 Y146.829739 Z-0.125000
G01 X76.453965 Y143.995660 Z-0.125000
G01 X79.360915 Y139.389228 Z-0.125000
G01 X83.845679 Y133.598696 Z-0.125000
G01 X108.283065 Y105.434618 Z-0.125000
G01 X112.633287 Y101.013326 Z-0.125000
G01 X114.064714 Y100.016941 Z-0.125000
G01 X115.501613 Y99.475424 Z-0.125000
G01 X123.635048 Y98.537426 Z-0.125000
G01 X126.357373 Y98.452774 Z-0.125000
G01 X127.580420 Y98.642099 Z-0.125000
G01 X128.488484 Y99.021714 Z-0.125000
G01 X129.136154 Y99.622713 Z-0.125000
G01 X129.496972 Y100.455652 Z-0.125000
G01 X129.502765 Y101.987052 Z-0.125000
G01 X128.897711 Y104.045356 Z-0.125000
G01 X127.709941 Y106.495892 Z-0.125000
G01 X125.990117 Y109.256069 Z-0.125000
G01 X122.208642 Y113.999232 Z-0.125000
G01 X110.059409 Y126.901129 Z-0.125000
G01 X104.576006 Y133.694678 Z-0.125000
G01 X102.057748 Y137.315410 Z-0.125000
G01 X99.766989 Y141.052918 Z-0.125000
G01 X93.434553 Y153.200026 Z-0.125000
G01 X90.274998 Y157.679834 Z-0.125000
G01 X88.462668 Y159.672347 Z-0.125000
G01 X86.473631 Y161.479141 Z-0.125000
G01 X84.447064 Y162.971852 Z-0.125000
G01 X82.348397 Y164.190651 Z-0.125000
G01 X80.273228 Y165.071484 Z-0.125000
G01 X78.426522 Y165.529250 Z-0.125000
G01 X76.854180 Y165.565171 Z-0.125000
G01 X75.481333 Y165.151695 Z-0.125000
G01 X74.133464 Y163.985940 Z-0.125000
G01 X73.147958 Y162.132476 Z-0.125000
G01 X72.466041 Y159.535616 Z-0.125000
G01 X72.148032 Y156.286903 Z-0.125000
G01 X72.245817 Y153.249144 Z-0.125000
G01 X72.723732 Y150.316251 Z-0.125000
G01 X73.639971 Y147.321043 Z-0.125000
G01 X74.922822 Y144.461022 Z-0.125000
G01 X77.749755 Y139.830901 Z-0.125000
G01 X82.007922 Y134.275720 Z-0.125000
G01 X105.295067 Y107.606413 Z-0.125000
G01 X111.419316 Y101.034763 Z-0.125000
G01 X113.184331 Y99.603980 Z-0.125000
G01 X114.713414 Y98.862195 Z-0.125000
G01 X116.198786 Y98.593625 Z-0.125000
G01 X124.098221 Y97.972156 Z-0.125000
G01 X126.919103 Y97.923875 Z-0.125000
G01 X128.251651 Y98.135087 Z-0.125000
G01 X129.250032 Y98.542319 Z-0.125000
G01 X129.973728 Y99.178144 Z-0.125000
G01 X130.373170 Y99.975999 Z-0.125000
G01 X130.467607 Y101.544092 Z-0.125000
G01 X129.920683 Y103.643017 Z-0.125000
G01 X128.758212 Y106.130504 Z-0.125000
G01 X127.036843 Y108.920808 Z-0.125000
G01 X123.204255 Y113.690493 Z-0.125000
G01 X110.662468 Y126.747918 Z-0.125000
G01 X104.977509 Y133.690300 Z-0.125000
G01 X100.571861 Y140.262981 Z-0.125000
G01 X98.503836 Y143.987935 Z-0.125000
G01 X93.986112 Y152.972399 Z-0.125000
G01 X92.320363 Y155.653846 Z-0.125000
G01 X90.531594 Y158.029773 Z-0.125000
G01 X86.948971 Y161.645291 Z-0.125000
G01 X83.019371 Y164.303241 Z-0.125000
G01 X80.918451 Y165.274521 Z-0.125000
G01 X79.000869 Y165.880090 Z-0.125000
G01 X77.216414 Y166.135205 Z-0.125000
G01 X75.713145 Y166.002852 Z-0.125000
G01 X74.399974 Y165.453996 Z-0.125000
G01 X73.285011 Y164.432441 Z-0.125000
G01 X72.369158 Y162.894023 Z-0.125000
G01 X71.658916 Y160.823167 Z-0.125000
G01 X71.180422 Y158.253473 Z-0.125000
G01 X70.990325 Y155.288651 Z-0.125000
G01 X71.128601 Y152.543087 Z-0.125000
G01 X71.567440 Y149.965540 Z-0.125000
G01 X72.970092 Y145.799750 Z-0.125000
G01 X75.329989 Y141.446889 Z-0.125000
G01 X78.868580 Y136.516461 Z-0.125000
G01 X84.113219 Y130.254000 Z-0.125000
G01 X107.279148 Y104.147711 Z-0.125000
G01 X110.531981 Y100.759563 Z-0.125000
G01 X112.808578 Y98.859684 Z-0.125000
G01 X114.045788 Y98.212851 Z-0.125000
G01 X115.368744 Y97.914734 Z-0.125000
G01 X126.319263 Y97.367166 Z-0.125000
G01 X129.294772 Y97.759527 Z-0.125000
G01 X130.302487 Y98.268471 Z-0.125000
G01 X130.966508 Y98.951160 Z-0.125000
G01 X131.453693 Y100.545776 Z-0.125000
G01 X131.154739 Y102.669226 Z-0.125000
G01 X130.047758 Y105.379127 Z-0.125000
G01 X128.212511 Y108.466969 Z-0.125000
G01 X126.354540 Y110.980270 Z-0.125000
G01 X124.228836 Y113.415100 Z-0.125000
G01 X111.294301 Y126.620972 Z-0.125000
G01 X105.240735 Y133.930223 Z-0.125000
G01 X100.647565 Y140.780615 Z-0.125000
G01 X98.593703 Y144.516706 Z-0.125000
G01 X94.161468 Y153.441688 Z-0.125000
G01 X92.554235 Y156.057408 Z-0.125000
G01 X90.819605 Y158.383960 Z-0.125000
G01 X87.367469 Y161.895707 Z-0.125000
G01 X85.454329 Y163.344644 Z-0.125000
G01 X83.419071 Y164.580759 Z-0.125000
G01 X81.196612 Y165.617571 Z-0.125000
G01 X79.137086 Y166.291892 Z-0.125000
G01 X77.194140 Y166.628698 Z-0.125000
G01 X75.537532 Y166.589495 Z-0.125000
G01 X74.073789 Y166.151299 Z-0.125000
G01 X72.814242 Y165.255208 Z-0.125000
G01 X71.757023 Y163.847986 Z-0.125000
G01 X70.951829 Y162.045570 Z-0.125000
G01 X70.297850 Y159.600956 Z-0.125000
G01 X69.903558 Y156.699671 Z-0.125000
G01 X69.842016 Y153.721072 Z-0.125000
G01 X70.095908 Y151.100137 Z-0.125000
G01 X71.198833 Y146.896752 Z-0.125000
G01 X73.142229 Y142.790831 Z-0.125000
G01 X76.200137 Y138.190064 Z-0.125000
G01 X80.712132 Y132.616344 Z-0.125000
G01 X106.522299 Y103.721296 Z-0.125000
G01 X109.980229 Y100.131785 Z-0.125000
G01 X112.395681 Y98.112170 Z-0.125000
G01 X113.690442 Y97.435853 Z-0.125000
G01 X114.953659 Y97.165803 Z-0.125000
G01 X119.828274 Y97.175781 Z-0.125000
G01 X127.054675 Y96.863759 Z-0.125000
G01 X130.107498 Y97.336331 Z-0.125000
G01 X131.185638 Y97.900636 Z-0.125000
G01 X131.897876 Y98.641520 Z-0.125000
G01 X132.429285 Y100.340229 Z-0.125000
G01 X132.133228 Y102.563781 Z-0.125000
G01 X131.065516 Y105.219672 Z-0.125000
G01 X129.203103 Y108.357340 Z-0.125000
G01 X127.436093 Y110.733588 Z-0.125000
G01 X125.281614 Y113.174018 Z-0.125000
G01 X111.955104 Y126.521643 Z-0.125000
G01 X105.518832 Y134.209029 Z-0.125000
G01 X102.951972 Y137.813217 Z-0.125000
G01 X100.739684 Y141.334362 Z-0.125000
G01 X98.703010 Y145.074767 Z-0.125000
G01 X94.357681 Y153.927907 Z-0.125000
G01 X92.812762 Y156.470885 Z-0.125000
G01 X91.040924 Y158.862390 Z-0.125000
G01 X87.717922 Y162.241976 Z-0.125000
G01 X83.896278 Y164.846753 Z-0.125000
G01 X81.838296 Y165.831101 Z-0.125000
G01 X79.635149 Y166.604043 Z-0.125000
G01 X77.644374 Y167.037025 Z-0.125000
G01 X75.795544 Y167.149358 Z-0.125000
G01 X74.135202 Y166.892697 Z-0.125000
G01 X72.774652 Y166.268911 Z-0.125000
G01 X71.597632 Y165.223343 Z-0.125000
G01 X70.597384 Y163.714088 Z-0.125000
G01 X69.720477 Y161.561089 Z-0.125000
G01 X69.101776 Y159.074503 Z-0.125000
G01 X68.722547 Y156.210877 Z-0.125000
G01 X68.654053 Y153.351113 Z-0.125000
G01 X69.211212 Y149.102988 Z-0.125000
G01 X70.711198 Y144.794996 Z-0.125000
G01 X73.110814 Y140.548545 Z-0.125000
G01 X76.910765 Y135.457826 Z-0.125000
G01 X82.028200 Y129.528438 Z-0.125000
G01 X105.494370 Y103.547292 Z-0.125000
G01 X109.379424 Y99.515079 Z-0.125000
G01 X111.944868 Y97.362724 Z-0.125000
G01 X113.303488 Y96.649135 Z-0.125000
G01 X114.599986 Y96.391573 Z-0.125000
G01 X119.723537 Y96.594932 Z-0.125000
G01 X127.824205 Y96.384685 Z-0.125000
G01 X129.619669 Y96.579933 Z-0.125000
G01 X131.042663 Y96.979697 Z-0.125000
G01 X132.092479 Y97.565117 Z-0.125000
G01 X132.852933 Y98.368701 Z-0.125000
G01 X133.419427 Y100.074234 Z-0.125000
G01 X133.166436 Y102.377804 Z-0.125000
G01 X132.103745 Y105.100322 Z-0.125000
G01 X130.214230 Y108.287365 Z-0.125000
G01 X128.410269 Y110.684213 Z-0.125000
G01 X126.200750 Y113.135071 Z-0.125000
G01 X117.056960 Y121.934588 Z-0.125000
G01 X112.645003 Y126.451089 Z-0.125000
G01 X109.115553 Y130.414679 Z-0.125000
G01 X105.981619 Y134.305204 Z-0.125000
G01 X103.195821 Y138.185300 Z-0.125000
G01 X100.848799 Y141.925061 Z-0.125000
G01 X98.831823 Y145.662568 Z-0.125000
G01 X94.656506 Y154.281386 Z-0.125000
G01 X93.186133 Y156.756320 Z-0.125000
G01 X91.584243 Y158.985216 Z-0.125000
G01 X88.702913 Y162.075182 Z-0.125000
G01 X85.413451 Y164.543357 Z-0.125000
G01 X81.720619 Y166.374484 Z-0.125000
G01 X77.835244 Y167.454299 Z-0.125000
G01 X75.826637 Y167.633839 Z-0.125000
G01 X74.004394 Y167.462410 Z-0.125000
G01 X72.498357 Y166.937245 Z-0.125000
G01 X71.184091 Y166.006843 Z-0.125000
G01 X70.052327 Y164.622023 Z-0.125000
G01 X69.156687 Y162.900139 Z-0.125000
G01 X68.363596 Y160.575841 Z-0.125000
G01 X67.812294 Y158.024687 Z-0.125000
G01 X67.506645 Y155.417592 Z-0.125000
G01 X67.459330 Y152.694624 Z-0.125000
G01 X67.700154 Y150.188661 Z-0.125000
G01 X68.188820 Y147.908716 Z-0.125000
G01 X68.960474 Y145.615704 Z-0.125000
G01 X70.034946 Y143.289024 Z-0.125000
G01 X73.131929 Y138.422133 Z-0.125000
G01 X79.479943 Y130.777943 Z-0.125000
G01 X103.918165 Y103.927358 Z-0.125000
G01 X108.559424 Y99.074437 Z-0.125000
G01 X111.575617 Y96.532618 Z-0.125000
G01 X112.884669 Y95.853469 Z-0.125000
G01 X114.219341 Y95.601830 Z-0.125000
G01 X119.726949 Y96.020327 Z-0.125000
G01 X128.629464 Y95.930654 Z-0.125000
G01 X130.395315 Y96.161307 Z-0.125000
G01 X131.907789 Y96.616175 Z-0.125000
G01 X133.023138 Y97.262365 Z-0.125000
G01 X133.831551 Y98.133349 Z-0.125000
G01 X134.255327 Y99.025770 Z-0.125000
G01 X134.447098 Y100.058913 Z-0.125000
G01 X134.112158 Y102.625709 Z-0.125000
G01 X132.776842 Y105.768334 Z-0.125000
G01 X130.556315 Y109.218410 Z-0.125000
G01 X126.802585 Y113.469496 Z-0.125000
G01 X114.718885 Y124.999641 Z-0.125000
G01 X108.707291 Y131.644743 Z-0.125000
G01 X104.800158 Y136.672247 Z-0.125000
G01 X101.534643 Y141.605829 Z-0.125000
G01 X99.150219 Y145.940215 Z-0.125000
G01 X94.976189 Y154.647225 Z-0.125000
G01 X92.355511 Y158.834902 Z-0.125000
G01 X90.397953 Y161.181281 Z-0.125000
G01 X88.171310 Y163.256580 Z-0.125000
G01 X85.638761 Y165.030220 Z-0.125000
G01 X83.001153 Y166.379248 Z-0.125000
G01 X80.399787 Y167.318469 Z-0.125000
G01 X77.823077 Y167.902730 Z-0.125000
G01 X75.400029 Y168.096754 Z-0.125000
G01 X73.345973 Y167.874212 Z-0.125000
G01 X71.760756 Y167.305015 Z-0.125000
G01 X70.374971 Y166.330839 Z-0.125000
G01 X69.174905 Y164.899476 Z-0.125000
G01 X68.146719 Y162.974234 Z-0.125000
G01 X67.134433 Y159.974713 Z-0.125000
G01 X66.475433 Y156.589011 Z-0.125000
G01 X66.228751 Y153.133914 Z-0.125000
G01 X66.416144 Y150.115403 Z-0.125000
G01 X66.985535 Y147.339712 Z-0.125000
G01 X67.983208 Y144.552240 Z-0.125000
G01 X69.303911 Y141.950102 Z-0.125000
G01 X71.203790 Y139.008261 Z-0.125000
G01 X74.016818 Y135.365384 Z-0.125000
G01 X77.681389 Y131.134641 Z-0.125000
G01 X103.171810 Y103.362409 Z-0.125000
G01 X108.026018 Y98.323511 Z-0.125000
G01 X111.179007 Y95.696009 Z-0.125000
G01 X112.537884 Y95.012805 Z-0.125000
G01 X113.812431 Y94.796378 Z-0.125000
G01 X119.714975 Y95.454541 Z-0.125000
G01 X129.471801 Y95.502371 Z-0.125000
G01 X131.327648 Y95.796369 Z-0.125000
G01 X132.796798 Y96.280850 Z-0.125000
G01 X133.977745 Y96.992765 Z-0.125000
G01 X134.833537 Y97.935849 Z-0.125000
G01 X135.282998 Y98.890198 Z-0.125000
G01 X135.488417 Y99.984174 Z-0.125000
G01 X135.186630 Y102.527732 Z-0.125000
G01 X133.931975 Y105.589888 Z-0.125000
G01 X131.834596 Y108.912632 Z-0.125000
G01 X128.097217 Y113.166293 Z-0.125000
G01 X115.043976 Y125.438030 Z-0.125000
G01 X108.494406 Y132.709751 Z-0.125000
G01 X104.625703 Y137.764550 Z-0.125000
G01 X101.560843 Y142.465547 Z-0.125000
G01 X99.316240 Y146.590395 Z-0.125000
G01 X95.315699 Y155.026583 Z-0.125000
G01 X92.961016 Y158.917430 Z-0.125000
G01 X91.217824 Y161.125533 Z-0.125000
G01 X89.260910 Y163.093262 Z-0.125000
G01 X87.178337 Y164.720773 Z-0.125000
G01 X84.862922 Y166.096387 Z-0.125000
G01 X82.206710 Y167.245597 Z-0.125000
G01 X79.302656 Y168.082270 Z-0.125000
G01 X76.472762 Y168.502827 Z-0.125000
G01 X74.008449 Y168.482485 Z-0.125000
G01 X72.071620 Y168.080210 Z-0.125000
G01 X70.377739 Y167.256026 Z-0.125000
G01 X69.005214 Y166.044952 Z-0.125000
G01 X67.812616 Y164.354612 Z-0.125000
G01 X66.523907 Y161.436718 Z-0.125000
G01 X65.591317 Y157.967523 Z-0.125000
G01 X65.074455 Y154.268254 Z-0.125000
G01 X65.064091 Y150.711058 Z-0.125000
G01 X65.529710 Y147.659009 Z-0.125000
G01 X66.411316 Y144.850229 Z-0.125000
G01 X67.769292 Y142.005529 Z-0.125000
G01 X69.627070 Y139.064460 Z-0.125000
G01 X72.423425 Y135.424995 Z-0.125000
G01 X76.113232 Y131.186720 Z-0.125000
G01 X102.637761 Y102.533719 Z-0.125000
G01 X107.644279 Y97.397679 Z-0.125000
G01 X110.755295 Y94.853285 Z-0.125000
G01 X112.167024 Y94.163386 Z-0.125000
G01 X113.379449 Y93.975413 Z-0.125000
G01 X119.537688 Y94.887146 Z-0.125000
G01 X130.352442 Y95.100611 Z-0.125000
G01 X132.296996 Y95.465034 Z-0.125000
G01 X133.826015 Y96.029854 Z-0.125000
G01 X135.045006 Y96.832666 Z-0.125000
G01 X135.858697 Y97.776651 Z-0.125000
G01 X136.296829 Y98.687869 Z-0.125000
G01 X136.540164 Y99.832444 Z-0.125000
G01 X136.279255 Y102.467864 Z-0.125000
G01 X135.024728 Y105.602377 Z-0.125000
G01 X132.894454 Y108.967801 Z-0.125000
G01 X129.247135 Y113.068508 Z-0.125000
G01 X116.095015 Y125.195597 Z-0.125000
G01 X109.081113 Y132.869013 Z-0.125000
G01 X105.090357 Y138.027648 Z-0.125000
G01 X101.832824 Y142.983052 Z-0.125000
G01 X99.501831 Y147.271990 Z-0.125000
G01 X95.591092 Y155.581103 Z-0.125000
G01 X93.198428 Y159.552933 Z-0.125000
G01 X91.412106 Y161.800497 Z-0.125000
G01 X89.519952 Y163.677974 Z-0.125000
G01 X87.374357 Y165.317909 Z-0.125000
G01 X85.129238 Y166.609000 Z-0.125000
G01 X82.365972 Y167.750421 Z-0.125000
G01 X79.318170 Y168.563211 Z-0.125000
G01 X76.326375 Y168.953963 Z-0.125000
G01 X73.708208 Y168.911218 Z-0.125000
G01 X71.645140 Y168.500703 Z-0.125000
G01 X69.838154 Y167.681926 Z-0.125000
G01 X68.370613 Y166.486431 Z-0.125000
G01 X67.087890 Y164.816047 Z-0.125000
G01 X65.677578 Y161.915985 Z-0.125000
G01 X64.557916 Y158.212145 Z-0.125000
G01 X63.915589 Y154.443416 Z-0.125000
G01 X63.781755 Y150.813542 Z-0.125000
G01 X64.145148 Y147.715787 Z-0.125000
G01 X64.941844 Y144.883189 Z-0.125000
G01 X66.229910 Y142.031150 Z-0.125000
G01 X68.038377 Y139.094265 Z-0.125000
G01 X70.809690 Y135.464263 Z-0.125000
G01 X74.516556 Y131.226567 Z-0.125000
G01 X102.082919 Y101.697239 Z-0.125000
G01 X107.243356 Y96.464252 Z-0.125000
G01 X110.439153 Y93.922948 Z-0.125000
G01 X111.772603 Y93.305276 Z-0.125000
G01 X113.020176 Y93.142216 Z-0.125000
G01 X119.489922 Y94.333849 Z-0.125000
G01 X128.271349 Y94.482296 Z-0.125000
G01 X131.104977 Y94.702456 Z-0.125000
G01 X133.158002 Y95.125267 Z-0.125000
G01 X134.769356 Y95.757165 Z-0.125000
G01 X136.051820 Y96.636904 Z-0.125000
G01 X136.906518 Y97.656013 Z-0.125000
G01 X137.366279 Y98.629224 Z-0.125000
G01 X137.621781 Y99.840298 Z-0.125000
G01 X137.389196 Y102.445655 Z-0.125000
G01 X136.216297 Y105.496031 Z-0.125000
G01 X134.093940 Y108.897504 Z-0.125000
G01 X132.497007 Y110.869482 Z-0.125000
G01 X130.420614 Y113.007353 Z-0.125000
G01 X121.221334 Y121.173040 Z-0.125000
G01 X116.690413 Y125.470732 Z-0.125000
G01 X113.038008 Y129.261477 Z-0.125000
G01 X109.485384 Y133.313131 Z-0.125000
G01 X105.415962 Y138.555131 Z-0.125000
G01 X102.008952 Y143.731919 Z-0.125000
G01 X99.789648 Y147.817176 Z-0.125000
G01 X95.799150 Y156.319862 Z-0.125000
G01 X93.452771 Y160.209486 Z-0.125000
G01 X91.737003 Y162.369373 Z-0.125000
G01 X89.803070 Y164.279165 Z-0.125000
G01 X87.742706 Y165.835671 Z-0.125000
G01 X85.433729 Y167.135646 Z-0.125000
G01 X82.566240 Y168.266767 Z-0.125000
G01 X79.553072 Y169.017500 Z-0.125000
G01 X76.389140 Y169.393897 Z-0.125000
G01 X73.597226 Y169.343363 Z-0.125000
G01 X71.386613 Y168.940637 Z-0.125000
G01 X69.446178 Y168.148898 Z-0.125000
G01 X67.763563 Y166.896753 Z-0.125000
G01 X66.392262 Y165.245424 Z-0.125000
G01 X64.864531 Y162.365897 Z-0.125000
G01 X63.605884 Y158.655233 Z-0.125000
G01 X62.776615 Y154.590962 Z-0.125000
G01 X62.515319 Y150.886736 Z-0.125000
G01 X62.771529 Y147.741408 Z-0.125000
G01 X63.477651 Y144.884605 Z-0.125000
G01 X64.689111 Y142.026450 Z-0.125000
G01 X66.441057 Y139.096969 Z-0.125000
G01 X69.178703 Y135.482223 Z-0.125000
G01 X72.894195 Y131.253025 Z-0.125000
G01 X101.508378 Y100.853421 Z-0.125000
G01 X106.628195 Y95.703412 Z-0.125000
G01 X109.968448 Y93.067092 Z-0.125000
G01 X111.355328 Y92.438734 Z-0.125000
G01 X112.538399 Y92.292604 Z-0.125000
G01 X116.995418 Y93.404799 Z-0.125000
G01 X119.429024 Y93.787504 Z-0.125000
G01 X128.889536 Y94.047319 Z-0.125000
G01 X131.880881 Y94.322712 Z-0.125000
G01 X133.887943 Y94.761745 Z-0.125000
G01 X135.477473 Y95.378129 Z-0.125000
G01 X136.883794 Y96.297394 Z-0.125000
G01 X137.838787 Y97.359892 Z-0.125000
G01 X138.369681 Y98.371791 Z-0.125000
G01 X138.691810 Y99.627026 Z-0.125000
G01 X138.736615 Y100.997619 Z-0.125000
G01 X138.515618 Y102.460589 Z-0.125000
G01 X137.343877 Y105.584545 Z-0.125000
G01 X135.189462 Y109.029021 Z-0.125000
G01 X133.561629 Y111.010591 Z-0.125000
G01 X131.438307 Y113.150006 Z-0.125000
G01 X122.482104 Y120.938846 Z-0.125000
G01 X117.815354 Y125.280635 Z-0.125000
G01 X113.786424 Y129.404002 Z-0.125000
G01 X110.117990 Y133.548806 Z-0.125000
G01 X105.758305 Y139.128834 Z-0.125000
G01 X102.316147 Y144.331952 Z-0.125000
G01 X100.012899 Y148.563081 Z-0.125000
G01 X96.106923 Y156.920475 Z-0.125000
G01 X93.723079 Y160.887670 Z-0.125000
G01 X91.967205 Y163.084121 Z-0.125000
G01 X90.109234 Y164.897738 Z-0.125000
G01 X87.994152 Y166.465123 Z-0.125000
G01 X85.775299 Y167.678321 Z-0.125000
G01 X82.988278 Y168.742236 Z-0.125000
G01 X79.846812 Y169.483699 Z-0.125000
G01 X76.510485 Y169.837886 Z-0.125000
G01 X73.374427 Y169.752204 Z-0.125000
G01 X70.882627 Y169.282529 Z-0.125000
G01 X68.842090 Y168.453967 Z-0.125000
G01 X67.183550 Y167.277141 Z-0.125000
G01 X65.725408 Y165.642935 Z-0.125000
G01 X64.084765 Y162.786003 Z-0.125000
G01 X62.692220 Y159.074374 Z-0.125000
G01 X61.703559 Y154.963625 Z-0.125000
G01 X61.267488 Y150.931283 Z-0.125000
G01 X61.411880 Y147.736386 Z-0.125000
G01 X62.021955 Y144.854349 Z-0.125000
G01 X63.150179 Y141.990980 Z-0.125000
G01 X64.838395 Y139.071734 Z-0.125000
G01 X67.315775 Y135.744034 Z-0.125000
G01 X70.976806 Y131.560026 Z-0.125000
G01 X100.915169 Y100.002907 Z-0.125000
G01 X106.186136 Y94.758333 Z-0.125000
G01 X109.615806 Y92.124201 Z-0.125000
G01 X110.915909 Y91.564145 Z-0.125000
G01 X112.136317 Y91.435332 Z-0.125000
G01 X116.675092 Y92.760219 Z-0.125000
G01 X119.184080 Y93.226289 Z-0.125000
G01 X129.529481 Y93.625410 Z-0.125000
G01 X132.680603 Y93.960800 Z-0.125000
G01 X134.624771 Y94.411549 Z-0.125000
G01 X136.317107 Y95.077694 Z-0.125000
G01 X137.709845 Y95.969342 Z-0.125000
G01 X138.769381 Y97.078319 Z-0.125000
G01 X139.374757 Y98.131933 Z-0.125000
G01 X139.766990 Y99.434933 Z-0.125000
G01 X139.868251 Y100.851940 Z-0.125000
G01 X139.690256 Y102.357462 Z-0.125000
G01 X138.567826 Y105.547788 Z-0.125000
G01 X136.424998 Y109.031789 Z-0.125000
G01 X134.641251 Y111.188779 Z-0.125000
G01 X132.653437 Y113.161401 Z-0.125000
G01 X123.521556 Y120.961892 Z-0.125000
G01 X118.718589 Y125.369278 Z-0.125000
G01 X114.562456 Y129.579164 Z-0.125000
G01 X110.776990 Y133.820336 Z-0.125000
G01 X106.285144 Y139.518943 Z-0.125000
G01 X102.641430 Y144.974343 Z-0.125000
G01 X100.336315 Y149.175860 Z-0.125000
G01 X96.342920 Y157.711699 Z-0.125000
G01 X94.008128 Y161.588062 Z-0.125000
G01 X92.330985 Y163.689690 Z-0.125000
G01 X90.437350 Y165.534593 Z-0.125000
G01 X88.423271 Y167.016232 Z-0.125000
G01 X86.152725 Y168.238507 Z-0.125000
G01 X83.276096 Y169.290383 Z-0.125000
G01 X80.003628 Y169.995861 Z-0.125000
G01 X76.691506 Y170.290952 Z-0.125000
G01 X73.362325 Y170.174757 Z-0.125000
G01 X70.701992 Y169.692014 Z-0.125000
G01 X68.519897 Y168.872851 Z-0.125000
G01 X66.630060 Y167.628818 Z-0.125000
G01 X65.086686 Y166.009160 Z-0.125000
G01 X63.338087 Y163.176176 Z-0.125000
G01 X61.817695 Y159.469182 Z-0.125000
G01 X60.619174 Y155.062439 Z-0.125000
G01 X60.040771 Y150.947956 Z-0.125000
G01 X60.069225 Y147.701109 Z-0.125000
G01 X60.577846 Y144.792807 Z-0.125000
G01 X61.616654 Y141.924675 Z-0.125000
G01 X63.233930 Y139.018046 Z-0.125000
G01 X65.662643 Y135.714615 Z-0.125000
G01 X69.311250 Y131.555842 Z-0.125000
G01 X85.612689 Y114.717456 Z-0.125000
G01 X100.304385 Y99.146214 Z-0.125000
G01 X105.727791 Y93.807203 Z-0.125000
G01 X109.101262 Y91.256757 Z-0.125000
G01 X110.454925 Y90.681895 Z-0.125000
G01 X111.715309 Y90.567631 Z-0.125000
G01 X116.332685 Y92.108944 Z-0.125000
G01 X119.091767 Y92.688184 Z-0.125000
G01 X122.372475 Y92.973491 Z-0.125000
G01 X129.975595 Y93.201376 Z-0.125000
G01 X133.308059 Y93.580283 Z-0.125000
G01 X135.368165 Y94.073326 Z-0.125000
G01 X137.165367 Y94.792645 Z-0.125000
G01 X138.649452 Y95.746865 Z-0.125000
G01 X139.696822 Y96.809234 Z-0.125000
G01 X140.380091 Y97.907588 Z-0.125000
G01 X140.845968 Y99.261959 Z-0.125000
G01 X141.006839 Y100.729114 Z-0.125000
G01 X140.874550 Y102.280792 Z-0.125000
G01 X139.805550 Y105.543024 Z-0.125000
G01 X137.676756 Y109.069513 Z-0.125000
G01 X135.887859 Y111.238798 Z-0.125000
G01 X133.888200 Y113.208973 Z-0.125000
G01 X124.588303 Y121.015709 Z-0.125000
G01 X119.649828 Y125.488435 Z-0.125000
G01 X115.366105 Y129.786643 Z-0.125000
G01 X111.462383 Y134.127595 Z-0.125000
G01 X106.836252 Y139.949993 Z-0.125000
G01 X102.984996 Y145.659736 Z-0.125000
G01 X100.595937 Y149.986461 Z-0.125000
G01 X96.590246 Y158.531120 Z-0.125000
G01 X94.198161 Y162.462651 Z-0.125000
G01 X92.470999 Y164.579021 Z-0.125000
G01 X90.647725 Y166.305540 Z-0.125000
G01 X88.725573 Y167.682506 Z-0.125000
G01 X86.564657 Y168.817747 Z-0.125000
G01 X83.602988 Y169.857198 Z-0.125000
G01 X80.406096 Y170.496306 Z-0.125000
G01 X76.932909 Y170.757988 Z-0.125000
G01 X73.406872 Y170.600528 Z-0.125000
G01 X70.571506 Y170.092615 Z-0.125000
G01 X68.097730 Y169.203091 Z-0.125000
G01 X66.102513 Y167.953522 Z-0.125000
G01 X64.475195 Y166.344937 Z-0.125000
G01 X62.623790 Y163.536286 Z-0.125000
G01 X60.898108 Y159.609454 Z-0.125000
G01 X59.560668 Y155.135311 Z-0.125000
G01 X58.837616 Y150.937785 Z-0.125000
G01 X58.746268 Y147.636478 Z-0.125000
G01 X59.148608 Y144.700237 Z-0.125000
G01 X60.091691 Y141.827341 Z-0.125000
G01 X61.631010 Y138.935454 Z-0.125000
G01 X64.002881 Y135.660798 Z-0.125000
G01 X67.629858 Y131.534791 Z-0.125000
G01 X84.199738 Y114.586326 Z-0.125000
G01 X99.677058 Y98.283985 Z-0.125000
G01 X105.254190 Y92.850601 Z-0.125000
G01 X108.716046 Y90.302602 Z-0.125000
G01 X110.100738 Y89.761021 Z-0.125000
G01 X111.276277 Y89.689758 Z-0.125000
G01 X116.119541 Y91.497968 Z-0.125000
G01 X118.988962 Y92.154908 Z-0.125000
G01 X122.422815 Y92.489590 Z-0.125000
G01 X130.422352 Y92.783136 Z-0.125000
G01 X134.147371 Y93.247533 Z-0.125000
G01 X136.303202 Y93.806237 Z-0.125000
G01 X138.021867 Y94.521629 Z-0.125000
G01 X139.470160 Y95.439735 Z-0.125000
G01 X140.619563 Y96.550321 Z-0.125000
G01 X141.384008 Y97.696505 Z-0.125000
G01 X141.927134 Y99.106045 Z-0.125000
G01 X142.150899 Y100.627338 Z-0.125000
G01 X142.067084 Y102.228778 Z-0.125000
G01 X141.694485 Y103.883197 Z-0.125000
G01 X140.978128 Y105.738593 Z-0.125000
G01 X138.818757 Y109.310659 Z-0.125000
G01 X137.150690 Y111.323707 Z-0.125000
G01 X135.141117 Y113.292273 Z-0.125000
G01 X125.681378 Y121.100039 Z-0.125000
G01 X120.608490 Y125.637655 Z-0.125000
G01 X116.463751 Y129.747181 Z-0.125000
G01 X112.410166 Y134.196282 Z-0.125000
G01 X107.411823 Y140.422178 Z-0.125000
G01 X103.346844 Y146.388453 Z-0.125000
G01 X100.873583 Y150.827833 Z-0.125000
G01 X96.847421 Y159.379187 Z-0.125000
G01 X94.507158 Y163.211518 Z-0.125000
G01 X92.866901 Y165.226047 Z-0.125000
G01 X91.013050 Y166.982049 Z-0.125000
G01 X89.049505 Y168.368543 Z-0.125000
G01 X86.829557 Y169.494127 Z-0.125000
G01 X83.968055 Y170.444871 Z-0.125000
G01 X80.654066 Y171.044969 Z-0.125000
G01 X77.022840 Y171.243756 Z-0.125000
G01 X73.311276 Y171.010915 Z-0.125000
G01 X70.316133 Y170.444163 Z-0.125000
G01 X67.702729 Y169.515757 Z-0.125000
G01 X65.600200 Y168.253055 Z-0.125000
G01 X63.775382 Y166.519133 Z-0.125000
G01 X61.838874 Y163.685763 Z-0.125000
G01 X60.094974 Y159.954564 Z-0.125000
G01 X58.601040 Y155.448621 Z-0.125000
G01 X57.660403 Y150.901928 Z-0.125000
G01 X57.445715 Y147.543392 Z-0.125000
G01 X57.785353 Y144.335042 Z-0.125000
G01 X58.675843 Y141.460922 Z-0.125000
G01 X60.183360 Y138.580752 Z-0.125000
G01 X62.549245 Y135.323026 Z-0.125000
G01 X66.209310 Y131.206289 Z-0.125000
G01 X83.134987 Y114.070881 Z-0.125000
G01 X99.034538 Y97.416734 Z-0.125000
G01 X104.544205 Y92.082293 Z-0.125000
G01 X106.604183 Y90.416287 Z-0.125000
G01 X108.161076 Y89.425502 Z-0.125000
G01 X109.603961 Y88.864351 Z-0.125000
G01 X110.820249 Y88.801844 Z-0.125000
G01 X111.921822 Y89.118823 Z-0.125000
G01 X115.739991 Y90.836844 Z-0.125000
G01 X118.876693 Y91.625751 Z-0.125000
G01 X122.466526 Y92.009551 Z-0.125000
G01 X131.110192 Y92.388329 Z-0.125000
G01 X134.794333 Y92.885620 Z-0.125000
G01 X136.873558 Y93.427523 Z-0.125000
G01 X138.716530 Y94.176647 Z-0.125000
G01 X140.281019 Y95.137691 Z-0.125000
G01 X141.536124 Y96.299389 Z-0.125000
G01 X142.385028 Y97.496430 Z-0.125000
G01 X143.008880 Y98.964936 Z-0.125000
G01 X143.298757 Y100.544295 Z-0.125000
G01 X143.266441 Y102.199487 Z-0.125000
G01 X142.931180 Y103.900514 Z-0.125000
G01 X142.241216 Y105.796916 Z-0.125000
G01 X140.099354 Y109.416683 Z-0.125000
G01 X138.428391 Y111.442478 Z-0.125000
G01 X136.410643 Y113.410465 Z-0.125000
G01 X126.799817 Y121.214432 Z-0.125000
G01 X121.593932 Y125.816229 Z-0.125000
G01 X117.329328 Y130.011374 Z-0.125000
G01 X113.155169 Y134.567078 Z-0.125000
G01 X108.012113 Y140.935306 Z-0.125000
G01 X103.727102 Y147.160751 Z-0.125000
G01 X101.168610 Y151.699268 Z-0.125000
G01 X97.113029 Y160.256222 Z-0.125000
G01 X94.827291 Y163.983623 Z-0.125000
G01 X93.152465 Y166.028344 Z-0.125000
G01 X91.396334 Y167.678579 Z-0.125000
G01 X89.393650 Y169.075051 Z-0.125000
G01 X87.301742 Y170.115146 Z-0.125000
G01 X84.370008 Y171.055075 Z-0.125000
G01 X80.942656 Y171.614746 Z-0.125000
G01 X77.153649 Y171.745103 Z-0.125000
G01 X73.461783 Y171.456449 Z-0.125000
G01 X70.092561 Y170.791591 Z-0.125000
G01 X67.334508 Y169.813810 Z-0.125000
G01 X65.122350 Y168.529736 Z-0.125000
G01 X63.210047 Y166.798389 Z-0.125000
G01 X61.181355 Y163.988065 Z-0.125000
G01 X59.233260 Y160.042628 Z-0.125000
G01 X57.607616 Y155.476688 Z-0.125000
G01 X56.511257 Y150.841610 Z-0.125000
G01 X56.170395 Y147.423012 Z-0.125000
G01 X56.385534 Y144.180994 Z-0.125000
G01 X57.169806 Y141.303012 Z-0.125000
G01 X58.587264 Y138.442025 Z-0.125000
G01 X60.882530 Y135.221765 Z-0.125000
G01 X64.505322 Y131.151893 Z-0.125000
G01 X81.665579 Y113.951531 Z-0.125000
G01 X98.683569 Y96.234178 Z-0.125000
G01 X104.037644 Y91.118481 Z-0.125000
G01 X106.151889 Y89.441917 Z-0.125000
G01 X107.747664 Y88.461690 Z-0.125000
G01 X109.223638 Y87.933627 Z-0.125000
G01 X110.579811 Y87.946502 Z-0.125000
G01 X115.660810 Y90.285864 Z-0.125000
G01 X119.583780 Y91.234098 Z-0.125000
G01 X131.318700 Y91.958566 Z-0.125000
G01 X135.673879 Y92.578555 Z-0.125000
G01 X137.841168 Y93.187729 Z-0.125000
G01 X139.578438 Y93.923334 Z-0.125000
G01 X141.080612 Y94.838544 Z-0.125000
G01 X142.444896 Y96.053930 Z-0.125000
G01 X143.381543 Y97.304852 Z-0.125000
G01 X144.089660 Y98.836188 Z-0.125000
G01 X144.448933 Y100.477797 Z-0.125000
G01 X144.471013 Y102.190861 Z-0.125000
G01 X144.175600 Y103.942164 Z-0.125000
G01 X143.587991 Y105.706535 Z-0.125000
G01 X142.635895 Y107.641562 Z-0.125000
G01 X141.392312 Y109.554444 Z-0.125000
G01 X139.719546 Y111.594079 Z-0.125000
G01 X137.695168 Y113.562839 Z-0.125000
G01 X128.231502 Y121.119931 Z-0.125000
G01 X122.903691 Y125.747864 Z-0.125000
G01 X118.505511 Y130.014206 Z-0.125000
G01 X114.178785 Y134.683081 Z-0.125000
G01 X108.826963 Y141.238123 Z-0.125000
G01 X104.125966 Y147.976696 Z-0.125000
G01 X101.480182 Y152.600122 Z-0.125000
G01 X97.385526 Y161.162548 Z-0.125000
G01 X95.041400 Y164.937521 Z-0.125000
G01 X93.448136 Y166.853687 Z-0.125000
G01 X91.649003 Y168.513642 Z-0.125000
G01 X89.756721 Y169.802673 Z-0.125000
G01 X87.615245 Y170.834014 Z-0.125000
G01 X84.595511 Y171.736091 Z-0.125000
G01 X81.271415 Y172.208083 Z-0.125000
G01 X77.325528 Y172.265441 Z-0.125000
G01 X73.451934 Y171.888336 Z-0.125000
G01 X69.901176 Y171.138698 Z-0.125000
G01 X66.993196 Y170.100533 Z-0.125000
G01 X64.668253 Y168.786010 Z-0.125000
G01 X62.668852 Y167.051123 Z-0.125000
G01 X60.553255 Y164.261591 Z-0.125000
G01 X58.501646 Y160.338814 Z-0.125000
G01 X56.644448 Y155.481387 Z-0.125000
G01 X55.392239 Y150.758309 Z-0.125000
G01 X54.922757 Y147.276690 Z-0.125000
G01 X55.009276 Y143.998171 Z-0.125000
G01 X55.681859 Y141.115103 Z-0.125000
G01 X57.002626 Y138.274137 Z-0.125000
G01 X59.219162 Y135.094948 Z-0.125000
G01 X62.795026 Y131.078635 Z-0.125000
G01 X80.166173 Y113.841257 Z-0.125000
G01 X97.708556 Y95.669744 Z-0.125000
G01 X103.280989 Y90.354616 Z-0.125000
G01 X105.488705 Y88.603764 Z-0.125000
G01 X107.156000 Y87.577251 Z-0.125000
G01 X108.833529 Y87.000522 Z-0.125000
G01 X110.216869 Y87.072943 Z-0.125000
G01 X115.251969 Y89.618818 Z-0.125000
G01 X119.270728 Y90.689877 Z-0.125000
G01 X122.785693 Y91.075158 Z-0.125000
G01 X131.768612 Y91.549532 Z-0.125000
G01 X136.340346 Y92.230354 Z-0.125000
G01 X138.618295 Y92.889161 Z-0.125000
G01 X140.446718 Y93.679420 Z-0.125000
G01 X142.030455 Y94.657523 Z-0.125000
G01 X143.344334 Y95.811497 Z-0.125000
G01 X144.371877 Y97.119261 Z-0.125000
G01 X145.167672 Y98.717417 Z-0.125000
G01 X145.599752 Y100.425460 Z-0.125000
G01 X145.679190 Y102.200582 Z-0.125000
G01 X145.426135 Y104.006152 Z-0.125000
G01 X144.795524 Y105.994867 Z-0.125000
G01 X143.832549 Y107.963433 Z-0.125000
G01 X142.569525 Y109.896336 Z-0.125000
G01 X140.867791 Y111.944662 Z-0.125000
G01 X138.805174 Y113.911297 Z-0.125000
G01 X129.403243 Y121.290330 Z-0.125000
G01 X123.948036 Y125.977873 Z-0.125000
G01 X119.431149 Y130.330992 Z-0.125000
G01 X115.244952 Y134.816400 Z-0.125000
G01 X109.482358 Y141.826375 Z-0.125000
G01 X104.543369 Y148.836157 Z-0.125000
G01 X101.807396 Y153.529558 Z-0.125000
G01 X97.663237 Y162.098228 Z-0.125000
G01 X95.377627 Y165.759517 Z-0.125000
G01 X93.752433 Y167.702333 Z-0.125000
G01 X92.061642 Y169.252466 Z-0.125000
G01 X90.137237 Y170.551861 Z-0.125000
G01 X88.141312 Y171.500546 Z-0.125000
G01 X85.061774 Y172.394576 Z-0.125000
G01 X81.639379 Y172.827235 Z-0.125000
G01 X77.781556 Y172.822729 Z-0.125000
G01 X73.712843 Y172.373461 Z-0.125000
G01 X69.949714 Y171.548504 Z-0.125000
G01 X66.678534 Y170.379531 Z-0.125000
G01 X64.088177 Y168.921904 Z-0.125000
G01 X62.021311 Y167.146203 Z-0.125000
G01 X59.836962 Y164.328090 Z-0.125000
G01 X57.698255 Y160.376860 Z-0.125000
G01 X55.712694 Y155.463877 Z-0.125000
G01 X54.242321 Y150.373480 Z-0.125000
G01 X53.680397 Y146.842485 Z-0.125000
G01 X53.682329 Y143.541628 Z-0.125000
G01 X54.290344 Y140.661973 Z-0.125000
G01 X55.566114 Y137.841477 Z-0.125000
G01 X57.762179 Y134.692415 Z-0.125000
G01 X61.081897 Y130.986065 Z-0.125000
G01 X79.049279 Y113.327357 Z-0.125000
G01 X97.349605 Y94.468005 Z-0.125000
G01 X102.990274 Y89.180236 Z-0.125000
G01 X105.010404 Y87.623021 Z-0.125000
G01 X106.719027 Y86.605779 Z-0.125000
G01 X108.293622 Y86.084797 Z-0.125000
G01 X109.726401 Y86.162755 Z-0.125000
G01 X114.995952 Y89.013184 Z-0.125000
G01 X117.027348 Y89.710744 Z-0.125000
G01 X119.162193 Y90.179003 Z-0.125000
G01 X122.825670 Y90.603101 Z-0.125000
G01 X132.220005 Y91.140884 Z-0.125000
G01 X137.010547 Y91.884986 Z-0.125000
G01 X139.400378 Y92.595936 Z-0.125000
G01 X141.320792 Y93.443681 Z-0.125000
G01 X142.986799 Y94.487832 Z-0.125000
G01 X144.372392 Y95.714291 Z-0.125000
G01 X145.460060 Y97.097824 Z-0.125000
G01 X146.309028 Y98.779796 Z-0.125000
G01 X146.779733 Y100.566891 Z-0.125000
G01 X146.883698 Y102.412309 Z-0.125000
G01 X146.642358 Y104.276653 Z-0.125000
G01 X146.083718 Y106.130890 Z-0.125000
G01 X145.139090 Y108.137308 Z-0.125000
G01 X143.883211 Y110.095059 Z-0.125000
G01 X142.181026 Y112.158964 Z-0.125000
G01 X140.114161 Y114.127916 Z-0.125000
G01 X130.596356 Y121.488731 Z-0.125000
G01 X125.016392 Y126.234533 Z-0.125000
G01 X120.381957 Y130.675523 Z-0.125000
G01 X116.081883 Y135.270046 Z-0.125000
G01 X110.162988 Y142.453445 Z-0.125000
G01 X104.862730 Y149.918160 Z-0.125000
G01 X102.071782 Y154.633578 Z-0.125000
G01 X97.944681 Y163.063585 Z-0.125000
G01 X95.721000 Y166.605266 Z-0.125000
G01 X94.064069 Y168.574347 Z-0.125000
G01 X92.334783 Y170.132077 Z-0.125000
G01 X90.533783 Y171.323194 Z-0.125000
G01 X88.497559 Y172.265248 Z-0.125000
G01 X85.560546 Y173.080033 Z-0.125000
G01 X82.045645 Y173.474455 Z-0.125000
G01 X78.045684 Y173.395982 Z-0.125000
G01 X73.791894 Y172.844166 Z-0.125000
G01 X69.835192 Y171.912348 Z-0.125000
G01 X66.390652 Y170.654281 Z-0.125000
G01 X63.672705 Y169.143996 Z-0.125000
G01 X61.519449 Y167.351558 Z-0.125000
G01 X59.139209 Y164.367616 Z-0.125000
G01 X56.921064 Y160.389928 Z-0.125000
G01 X54.709163 Y155.142714 Z-0.125000
G01 X53.109011 Y149.958137 Z-0.125000
G01 X52.424519 Y146.113253 Z-0.125000
G01 X52.367805 Y143.056246 Z-0.125000
G01 X52.908614 Y140.182255 Z-0.125000
G01 X54.136489 Y137.385256 Z-0.125000
G01 X56.110012 Y134.517639 Z-0.125000
G01 X59.369347 Y130.873217 Z-0.125000
G01 X77.505841 Y113.229187 Z-0.125000
G01 X96.993100 Y93.256352 Z-0.125000
G01 X102.452041 Y88.206961 Z-0.125000
G01 X104.523541 Y86.639833 Z-0.125000
G01 X106.274136 Y85.632053 Z-0.125000
G01 X107.884910 Y85.143774 Z-0.125000
G01 X109.346786 Y85.280891 Z-0.125000
G01 X114.560332 Y88.331074 Z-0.125000
G01 X116.627905 Y89.102214 Z-0.125000
G01 X118.814636 Y89.625963 Z-0.125000
G01 X122.862749 Y90.130722 Z-0.125000
G01 X132.962884 Y90.760238 Z-0.125000
G01 X137.945519 Y91.606117 Z-0.125000
G01 X140.186775 Y92.306252 Z-0.125000
G01 X142.199888 Y93.214251 Z-0.125000
G01 X143.768496 Y94.194414 Z-0.125000
G01 X145.259663 Y95.477072 Z-0.125000
G01 X146.443056 Y96.923820 Z-0.125000
G01 X147.385045 Y98.680466 Z-0.125000
G01 X147.933578 Y100.542428 Z-0.125000
G01 X148.099535 Y102.458079 Z-0.125000
G01 X147.904416 Y104.384029 Z-0.125000
G01 X147.307538 Y106.476966 Z-0.125000
G01 X146.352095 Y108.519177 Z-0.125000
G01 X145.076647 Y110.497785 Z-0.125000
G01 X143.345429 Y112.570444 Z-0.125000
G01 X141.241355 Y114.536886 Z-0.125000
G01 X131.809490 Y121.713784 Z-0.125000
G01 X126.429214 Y126.228353 Z-0.125000
G01 X121.977023 Y130.424914 Z-0.125000
G01 X117.503911 Y135.127006 Z-0.125000
G01 X111.287864 Y142.574662 Z-0.125000
G01 X105.316697 Y150.861115 Z-0.125000
G01 X102.426999 Y155.613548 Z-0.125000
G01 X98.124285 Y164.245562 Z-0.125000
G01 X95.946760 Y167.638989 Z-0.125000
G01 X94.381692 Y169.469536 Z-0.125000
G01 X92.770854 Y170.914096 Z-0.125000
G01 X90.944620 Y172.116672 Z-0.125000
G01 X88.870673 Y173.052932 Z-0.125000
G01 X85.861754 Y173.833148 Z-0.125000
G01 X82.236966 Y174.157080 Z-0.125000
G01 X78.350560 Y173.997560 Z-0.125000
G01 X73.910536 Y173.337080 Z-0.125000
G01 X69.754853 Y172.288423 Z-0.125000
G01 X66.129679 Y170.928837 Z-0.125000
G01 X63.278799 Y169.354371 Z-0.125000
G01 X60.900039 Y167.400611 Z-0.125000
G01 X58.459288 Y164.381520 Z-0.125000
G01 X56.169880 Y160.379048 Z-0.125000
G01 X53.724301 Y154.792389 Z-0.125000
G01 X51.993726 Y149.513954 Z-0.125000
G01 X51.206557 Y145.617635 Z-0.125000
G01 X51.067702 Y142.543376 Z-0.125000
G01 X51.538600 Y139.677175 Z-0.125000
G01 X52.715877 Y136.906762 Z-0.125000
G01 X54.663586 Y134.074293 Z-0.125000
G01 X57.660982 Y130.739640 Z-0.125000
G01 X76.366931 Y112.715158 Z-0.125000
G01 X96.309316 Y92.361163 Z-0.125000
G01 X101.905760 Y87.231883 Z-0.125000
G01 X104.029275 Y85.654841 Z-0.125000
G01 X105.822743 Y84.656782 Z-0.125000
G01 X107.470404 Y84.201463 Z-0.125000
G01 X108.961956 Y84.398320 Z-0.125000
G01 X114.112415 Y87.636926 Z-0.125000
G01 X116.212884 Y88.483641 Z-0.125000
G01 X118.448668 Y89.064748 Z-0.125000
G01 X122.616840 Y89.633495 Z-0.125000
G01 X133.430306 Y90.350625 Z-0.125000
G01 X138.634195 Y91.266671 Z-0.125000
G01 X140.977034 Y92.018756 Z-0.125000
G01 X142.862171 Y92.871072 Z-0.125000
G01 X144.533714 Y93.894688 Z-0.125000
G01 X146.133093 Y95.235540 Z-0.125000
G01 X147.415107 Y96.748271 Z-0.125000
G01 X148.453465 Y98.583518 Z-0.125000
G01 X149.083110 Y100.524725 Z-0.125000
G01 X149.314085 Y102.515179 Z-0.125000
G01 X149.167955 Y104.507048 Z-0.125000
G01 X148.607384 Y106.658888 Z-0.125000
G01 X147.672412 Y108.743972 Z-0.125000
G01 X146.405461 Y110.750840 Z-0.125000
G01 X144.674951 Y112.841331 Z-0.125000
G01 X142.568560 Y114.812279 Z-0.125000
G01 X133.041034 Y121.964457 Z-0.125000
G01 X127.549713 Y126.529432 Z-0.125000
G01 X122.991112 Y130.806396 Z-0.125000
G01 X118.695672 Y135.299658 Z-0.125000
G01 X112.248972 Y142.979898 Z-0.125000
G01 X105.558036 Y152.187032 Z-0.125000
G01 X102.639821 Y156.899167 Z-0.125000
G01 X98.405215 Y165.272718 Z-0.125000
G01 X96.297793 Y168.534371 Z-0.125000
G01 X94.703821 Y170.387900 Z-0.125000
G01 X93.058994 Y171.838382 Z-0.125000
G01 X91.187568 Y173.029242 Z-0.125000
G01 X89.259236 Y173.864048 Z-0.125000
G01 X86.181565 Y174.609953 Z-0.125000
G01 X82.448757 Y174.861528 Z-0.125000
G01 X78.422660 Y174.598301 Z-0.125000
G01 X74.069283 Y173.855937 Z-0.125000
G01 X69.709341 Y172.680720 Z-0.125000
G01 X65.896000 Y171.207192 Z-0.125000
G01 X62.905943 Y169.556506 Z-0.125000
G01 X60.432425 Y167.566825 Z-0.125000
G01 X57.921698 Y164.554172 Z-0.125000
G01 X55.567981 Y160.583952 Z-0.125000
G01 X52.994940 Y154.998837 Z-0.125000
G01 X51.071307 Y149.632338 Z-0.125000
G01 X50.095972 Y145.636819 Z-0.125000
G01 X49.780152 Y142.252018 Z-0.125000
G01 X50.122752 Y139.379637 Z-0.125000
G01 X51.182996 Y136.634910 Z-0.125000
G01 X53.034401 Y133.852331 Z-0.125000
G01 X55.960342 Y130.584820 Z-0.125000
G01 X74.788022 Y112.629154 Z-0.125000
G01 X95.617872 Y91.464880 Z-0.125000
G01 X101.352721 Y86.255518 Z-0.125000
G01 X103.529087 Y84.668692 Z-0.125000
G01 X105.177970 Y83.761014 Z-0.125000
G01 X106.897859 Y83.270353 Z-0.125000
G01 X108.445481 Y83.465021 Z-0.125000
G01 X113.831614 Y87.022280 Z-0.125000
G01 X115.997423 Y87.927126 Z-0.125000
G01 X118.311615 Y88.547372 Z-0.125000
G01 X122.639692 Y89.155773 Z-0.125000
G01 X133.899788 Y89.937149 Z-0.125000
G01 X139.325833 Y90.925680 Z-0.125000
G01 X141.770576 Y91.731840 Z-0.125000
G01 X143.739206 Y92.642221 Z-0.125000
G01 X145.486647 Y93.732014 Z-0.125000
G01 X147.161344 Y95.154686 Z-0.125000
G01 X148.507282 Y96.753615 Z-0.125000
G01 X149.602804 Y98.684844 Z-0.125000
G01 X150.274743 Y100.716818 Z-0.125000
G01 X150.533463 Y102.788126 Z-0.125000
G01 X150.401238 Y104.847395 Z-0.125000
G01 X149.841954 Y107.055691 Z-0.125000
G01 X148.896231 Y109.179013 Z-0.125000
G01 X147.609389 Y111.207834 Z-0.125000
G01 X145.849782 Y113.307466 Z-0.125000
G01 X143.902395 Y115.115096 Z-0.125000
G01 X134.289445 Y122.239529 Z-0.125000
G01 X129.026460 Y126.558207 Z-0.125000
G01 X124.354881 Y130.887830 Z-0.125000
G01 X119.928054 Y135.480743 Z-0.125000
G01 X113.021271 Y143.693616 Z-0.125000
G01 X105.496108 Y154.005027 Z-0.125000
G01 X102.861590 Y158.197532 Z-0.125000
G01 X98.573811 Y166.521902 Z-0.125000
G01 X96.522910 Y169.620623 Z-0.125000
G01 X95.029040 Y171.329310 Z-0.125000
G01 X93.350738 Y172.784942 Z-0.125000
G01 X91.619713 Y173.867846 Z-0.125000
G01 X89.661575 Y174.698983 Z-0.125000
G01 X86.518565 Y175.411155 Z-0.125000
G01 X82.948623 Y175.595202 Z-0.125000
G01 X78.797833 Y175.258202 Z-0.125000
G01 X74.268328 Y174.404020 Z-0.125000
G01 X69.699427 Y173.093423 Z-0.125000
G01 X65.689938 Y171.493722 Z-0.125000
G01 X62.377945 Y169.636910 Z-0.125000
G01 X59.836447 Y167.577511 Z-0.125000
G01 X57.405030 Y164.703907 Z-0.125000
G01 X54.871322 Y160.529749 Z-0.125000
G01 X52.189038 Y154.900345 Z-0.125000
G01 X50.011384 Y149.144767 Z-0.125000
G01 X48.930604 Y145.093950 Z-0.125000
G01 X48.520926 Y141.688807 Z-0.125000
G01 X48.787886 Y138.826018 Z-0.125000
G01 X49.790452 Y136.111804 Z-0.125000
G01 X51.608575 Y133.370618 Z-0.125000
G01 X54.530331 Y130.145851 Z-0.125000
G01 X73.635143 Y112.116155 Z-0.125000
G01 X95.267032 Y90.230953 Z-0.125000
G01 X100.794209 Y85.278702 Z-0.125000
G01 X103.024200 Y83.682027 Z-0.125000
G01 X104.713059 Y82.782074 Z-0.125000
G01 X106.472731 Y82.322506 Z-0.125000
G01 X108.052347 Y82.575304 Z-0.125000
G01 X113.548754 Y86.407635 Z-0.125000
G01 X115.780096 Y87.369966 Z-0.125000
G01 X118.173275 Y88.028515 Z-0.125000
G01 X122.662288 Y88.674833 Z-0.125000
G01 X134.371329 Y89.518523 Z-0.125000
G01 X140.019981 Y90.581793 Z-0.125000
G01 X142.566757 Y91.444151 Z-0.125000
G01 X144.619010 Y92.414980 Z-0.125000
G01 X146.442347 Y93.573782 Z-0.125000
G01 X148.014561 Y94.904527 Z-0.125000
G01 X149.463176 Y96.575362 Z-0.125000
G01 X150.659958 Y98.592981 Z-0.125000
G01 X151.417901 Y100.712827 Z-0.125000
G01 X151.746275 Y102.867499 Z-0.125000
G01 X151.667030 Y105.000735 Z-0.125000
G01 X151.147594 Y107.275272 Z-0.125000
G01 X150.224724 Y109.447261 Z-0.125000
G01 X148.947666 Y111.508140 Z-0.125000
G01 X147.189604 Y113.628114 Z-0.125000
G01 X145.046004 Y115.603955 Z-0.125000
G01 X135.553048 Y122.537517 Z-0.125000
G01 X130.193373 Y126.898232 Z-0.125000
G01 X125.756181 Y130.977889 Z-0.125000
G01 X121.200026 Y135.667815 Z-0.125000
G01 X114.051710 Y144.138957 Z-0.125000
G01 X105.285604 Y156.055155 Z-0.125000
G01 X103.010166 Y159.648143 Z-0.125000
G01 X98.960636 Y167.414709 Z-0.125000
G01 X96.875810 Y170.564801 Z-0.125000
G01 X95.355933 Y172.293508 Z-0.125000
G01 X93.809662 Y173.632622 Z-0.125000
G01 X92.061321 Y174.728788 Z-0.125000
G01 X90.076146 Y175.557736 Z-0.125000
G01 X86.871465 Y176.237335 Z-0.125000
G01 X83.206829 Y176.353209 Z-0.125000
G01 X78.919179 Y175.907674 Z-0.125000
G01 X74.507994 Y174.984740 Z-0.125000
G01 X69.725820 Y173.530525 Z-0.125000
G01 X65.512072 Y171.792547 Z-0.125000
G01 X62.038370 Y169.829260 Z-0.125000
G01 X59.397672 Y167.714307 Z-0.125000
G01 X56.776672 Y164.651764 Z-0.125000
G01 X54.198675 Y160.454946 Z-0.125000
G01 X51.285480 Y154.487963 Z-0.125000
G01 X48.973542 Y148.633378 Z-0.125000
G01 X47.786544 Y144.527328 Z-0.125000
G01 X47.281528 Y141.102679 Z-0.125000
G01 X47.470852 Y138.250898 Z-0.125000
G01 X48.413485 Y135.569644 Z-0.125000
G01 X50.195752 Y132.872682 Z-0.125000
G01 X52.850548 Y129.953437 Z-0.125000
G01 X72.029841 Y112.041996 Z-0.125000
G01 X94.572240 Y89.328232 Z-0.125000
G01 X100.231578 Y84.301951 Z-0.125000
G01 X102.516029 Y82.695362 Z-0.125000
G01 X104.245702 Y81.803198 Z-0.125000
G01 X106.045994 Y81.374530 Z-0.125000
G01 X107.523706 Y81.627907 Z-0.125000
G01 X108.560389 Y82.222275 Z-0.125000
G01 X111.383524 Y84.567624 Z-0.125000
G01 X113.077791 Y85.688252 Z-0.125000
G01 X115.335076 Y86.729506 Z-0.125000
G01 X117.771386 Y87.447923 Z-0.125000
G01 X122.373505 Y88.159646 Z-0.125000
G01 X134.845060 Y89.093395 Z-0.125000
G01 X140.716253 Y90.233464 Z-0.125000
G01 X143.364934 Y91.154145 Z-0.125000
G01 X145.500680 Y92.187867 Z-0.125000
G01 X147.399915 Y93.418446 Z-0.125000
G01 X149.039593 Y94.827857 Z-0.125000
G01 X150.553676 Y96.591713 Z-0.125000
G01 X151.809362 Y98.713233 Z-0.125000
G01 X152.611272 Y100.931442 Z-0.125000
G01 X152.968936 Y103.173728 Z-0.125000
G01 X152.904755 Y105.379771 Z-0.125000
G01 X152.387314 Y107.715142 Z-0.125000
G01 X151.453629 Y109.927879 Z-0.125000
G01 X150.156358 Y112.012062 Z-0.125000
G01 X148.368941 Y114.141821 Z-0.125000
G01 X146.388402 Y115.955631 Z-0.125000
G01 X137.155647 Y122.612385 Z-0.125000
G01 X131.726833 Y126.957135 Z-0.125000
G01 X127.193209 Y131.075094 Z-0.125000
G01 X122.832300 Y135.511321 Z-0.125000
G01 X119.137924 Y139.662369 Z-0.125000
G01 X115.365976 Y144.281096 Z-0.125000
G01 X105.135677 Y158.010074 Z-0.125000
G01 X103.155266 Y161.117293 Z-0.125000
G01 X99.231845 Y168.528899 Z-0.125000
G01 X97.094490 Y171.701908 Z-0.125000
G01 X95.533542 Y173.425337 Z-0.125000
G01 X93.939312 Y174.743980 Z-0.125000
G01 X92.129364 Y175.800942 Z-0.125000
G01 X90.285684 Y176.506806 Z-0.125000
G01 X87.238913 Y177.089072 Z-0.125000
G01 X83.482608 Y177.136580 Z-0.125000
G01 X79.059257 Y176.579935 Z-0.125000
G01 X74.484948 Y175.517631 Z-0.125000
G01 X69.509973 Y173.891343 Z-0.125000
G01 X65.126277 Y171.990756 Z-0.125000
G01 X61.529234 Y169.895565 Z-0.125000
G01 X58.820299 Y167.695381 Z-0.125000
G01 X56.161061 Y164.579729 Z-0.125000
G01 X53.549074 Y160.360766 Z-0.125000
G01 X50.404067 Y154.052986 Z-0.125000
G01 X47.958938 Y148.099972 Z-0.125000
G01 X46.596263 Y143.658790 Z-0.125000
G01 X46.046378 Y140.247467 Z-0.125000
G01 X46.215875 Y137.430318 Z-0.125000
G01 X47.054029 Y135.009523 Z-0.125000
G01 X48.618453 Y132.585831 Z-0.125000
G01 X51.188339 Y129.739263 Z-0.125000
G01 X70.870975 Y111.530671 Z-0.125000
G01 X93.873522 Y88.426219 Z-0.125000
G01 X99.666114 Y83.325972 Z-0.125000
G01 X102.005862 Y81.709469 Z-0.125000
G01 X103.777186 Y80.824838 Z-0.125000
G01 X105.619128 Y80.426940 Z-0.125000
G01 X107.127739 Y80.732139 Z-0.125000
G01 X108.183349 Y81.379680 Z-0.125000
G01 X110.899880 Y83.755928 Z-0.125000
G01 X112.790038 Y85.066396 Z-0.125000
G01 X115.111182 Y86.164879 Z-0.125000
G01 X117.625256 Y86.920698 Z-0.125000
G01 X122.387474 Y87.667633 Z-0.125000
G01 X135.321108 Y88.660478 Z-0.125000
G01 X138.445901 Y89.157190 Z-0.125000
G01 X141.414328 Y89.879405 Z-0.125000
G01 X143.871431 Y90.738094 Z-0.125000
G01 X146.118802 Y91.810376 Z-0.125000
G01 X148.125542 Y93.090653 Z-0.125000
G01 X149.867253 Y94.559996 Z-0.125000
G01 X151.487554 Y96.401294 Z-0.125000
G01 X152.848878 Y98.616864 Z-0.125000
G01 X153.741621 Y100.931442 Z-0.125000
G01 X154.173508 Y103.265847 Z-0.125000
G01 X154.166555 Y105.554096 Z-0.125000
G01 X153.692696 Y107.963562 Z-0.125000
G01 X152.784375 Y110.231018 Z-0.125000
G01 X151.498176 Y112.351443 Z-0.125000
G01 X149.713077 Y114.504570 Z-0.125000
G01 X147.732473 Y116.329002 Z-0.125000
G01 X138.448733 Y122.951187 Z-0.125000
G01 X132.933401 Y127.329926 Z-0.125000
G01 X128.663904 Y131.177965 Z-0.125000
G01 X124.189053 Y135.694916 Z-0.125000
G01 X116.999924 Y144.073939 Z-0.125000
G01 X105.109219 Y159.775153 Z-0.125000
G01 X103.289808 Y162.612322 Z-0.125000
G01 X99.496424 Y169.671350 Z-0.125000
G01 X97.443270 Y172.693401 Z-0.125000
G01 X96.008624 Y174.288854 Z-0.125000
G01 X94.404996 Y175.635822 Z-0.125000
G01 X92.581079 Y176.707461 Z-0.125000
G01 X90.716670 Y177.412424 Z-0.125000
G01 X87.619494 Y177.966622 Z-0.125000
G01 X83.774996 Y177.946215 Z-0.125000
G01 X79.530541 Y177.339616 Z-0.125000
G01 X74.793880 Y176.164013 Z-0.125000
G01 X69.598037 Y174.379493 Z-0.125000
G01 X64.995017 Y172.318550 Z-0.125000
G01 X61.221074 Y170.091650 Z-0.125000
G01 X58.405342 Y167.814151 Z-0.125000
G01 X55.689905 Y164.674102 Z-0.125000
G01 X53.055773 Y160.488163 Z-0.125000
G01 X49.689577 Y153.905311 Z-0.125000
G01 X46.968668 Y147.546547 Z-0.125000
G01 X45.491536 Y143.047491 Z-0.125000
G01 X44.844381 Y139.620525 Z-0.125000
G01 X44.933990 Y136.819213 Z-0.125000
G01 X45.714142 Y134.432922 Z-0.125000
G01 X47.240392 Y132.054099 Z-0.125000
G01 X49.795408 Y129.256778 Z-0.125000
G01 X69.248549 Y111.467648 Z-0.125000
G01 X93.172292 Y87.525559 Z-0.125000
G01 X99.098977 Y82.351410 Z-0.125000
G01 X101.247662 Y80.872089 Z-0.125000
G01 X103.097844 Y79.928168 Z-0.125000
G01 X105.022378 Y79.482312 Z-0.125000
G01 X106.733833 Y79.836885 Z-0.125000
G01 X107.808755 Y80.537278 Z-0.125000
G01 X110.571636 Y83.061265 Z-0.125000
G01 X112.311158 Y84.325319 Z-0.125000
G01 X114.652451 Y85.504592 Z-0.125000
G01 X117.204313 Y86.321888 Z-0.125000
G01 X122.404083 Y87.169569 Z-0.125000
G01 X135.799473 Y88.218484 Z-0.125000
G01 X139.037307 Y88.748606 Z-0.125000
G01 X142.113626 Y89.518136 Z-0.125000
G01 X144.660789 Y90.431608 Z-0.125000
G01 X146.991718 Y91.570132 Z-0.125000
G01 X148.828767 Y92.745671 Z-0.125000
G01 X150.673799 Y94.275912 Z-0.125000
G01 X152.402442 Y96.196648 Z-0.125000
G01 X153.872236 Y98.509617 Z-0.125000
G01 X154.858708 Y100.924747 Z-0.125000
G01 X155.368102 Y103.356036 Z-0.125000
G01 X155.421404 Y105.731319 Z-0.125000
G01 X154.993894 Y108.219836 Z-0.125000
G01 X154.113060 Y110.546001 Z-0.125000
G01 X152.839415 Y112.705759 Z-0.125000
G01 X151.057212 Y114.884507 Z-0.125000
G01 X148.878528 Y116.881784 Z-0.125000
G01 X139.417502 Y123.554116 Z-0.125000
G01 X134.154066 Y127.718361 Z-0.125000
G01 X129.805775 Y131.626589 Z-0.125000
G01 X125.581019 Y135.877482 Z-0.125000
G01 X118.720070 Y143.811228 Z-0.125000
G01 X109.492336 Y156.007647 Z-0.125000
G01 X105.092868 Y161.509332 Z-0.125000
G01 X103.492265 Y163.991670 Z-0.125000
G01 X99.752891 Y170.841417 Z-0.125000
G01 X97.649460 Y173.879112 Z-0.125000
G01 X96.177285 Y175.466389 Z-0.125000
G01 X94.700216 Y176.669416 Z-0.125000
G01 X93.037299 Y177.635609 Z-0.125000
G01 X91.154866 Y178.341796 Z-0.125000
G01 X88.011598 Y178.870244 Z-0.125000
G01 X84.082705 Y178.782759 Z-0.125000
G01 X79.716390 Y178.070651 Z-0.125000
G01 X74.816411 Y176.748789 Z-0.125000
G01 X69.724468 Y174.903178 Z-0.125000
G01 X64.894014 Y172.671192 Z-0.125000
G01 X61.140413 Y170.441524 Z-0.125000
G01 X58.003132 Y167.930476 Z-0.125000
G01 X55.365330 Y164.936298 Z-0.125000
G01 X52.719611 Y160.831471 Z-0.125000
G01 X49.159648 Y154.054981 Z-0.125000
G01 X46.131867 Y147.296581 Z-0.125000
G01 X44.496502 Y142.703411 Z-0.125000
G01 X43.698647 Y139.223465 Z-0.125000
G01 X43.645152 Y136.412175 Z-0.125000
G01 X44.395692 Y133.841065 Z-0.125000
G01 X45.881902 Y131.509042 Z-0.125000
G01 X48.171760 Y129.005654 Z-0.125000
G01 X61.200667 Y117.372574 Z-0.125000
G01 X68.091743 Y110.958383 Z-0.125000
G01 X92.844885 Y86.272706 Z-0.125000
G01 X98.531581 Y81.378907 Z-0.125000
G01 X100.731573 Y79.889544 Z-0.125000
G01 X102.626109 Y78.950902 Z-0.125000
G01 X104.595705 Y78.532726 Z-0.125000
G01 X106.343532 Y78.942276 Z-0.125000
G01 X107.437959 Y79.695133 Z-0.125000
G01 X110.087670 Y82.226459 Z-0.125000
G01 X111.640185 Y83.441202 Z-0.125000
G01 X113.721985 Y84.622342 Z-0.125000
G01 X115.953649 Y85.474336 Z-0.125000
G01 X121.070440 Y86.512243 Z-0.125000
G01 X134.373969 Y87.542425 Z-0.125000
G01 X140.713421 Y88.572478 Z-0.125000
G01 X144.157575 Y89.603947 Z-0.125000
G01 X146.987147 Y90.845148 Z-0.125000
G01 X149.508302 Y92.381441 Z-0.125000
G01 X151.681192 Y94.185531 Z-0.125000
G01 X153.477042 Y96.209008 Z-0.125000
G01 X155.008249 Y98.637464 Z-0.125000
G01 X156.041650 Y101.162610 Z-0.125000
G01 X156.583231 Y103.692134 Z-0.125000
G01 X156.654107 Y106.149237 Z-0.125000
G01 X156.230460 Y108.706120 Z-0.125000
G01 X155.339713 Y111.078055 Z-0.125000
G01 X154.045596 Y113.264013 Z-0.125000
G01 X152.233653 Y115.454542 Z-0.125000
G01 X150.221505 Y117.292042 Z-0.125000
G01 X140.724171 Y123.928388 Z-0.125000
G01 X135.387156 Y128.120700 Z-0.125000
G01 X130.962839 Y132.087702 Z-0.125000
G01 X127.006459 Y136.056764 Z-0.125000
G01 X120.525705 Y143.488455 Z-0.125000
G01 X110.380186 Y156.876443 Z-0.125000
G01 X105.243632 Y163.002237 Z-0.125000
G01 X103.678757 Y165.400566 Z-0.125000
G01 X99.999444 Y172.038457 Z-0.125000
G01 X97.988327 Y174.915860 Z-0.125000
G01 X96.493620 Y176.518780 Z-0.125000
G01 X94.991961 Y177.723673 Z-0.125000
G01 X93.297050 Y178.677636 Z-0.125000
G01 X91.372644 Y179.355562 Z-0.125000
G01 X88.146462 Y179.812748 Z-0.125000
G01 X84.404770 Y179.646984 Z-0.125000
G01 X79.918976 Y178.828723 Z-0.125000
G01 X74.855551 Y177.357255 Z-0.125000
G01 X69.571773 Y175.329980 Z-0.125000
G01 X64.824232 Y173.052932 Z-0.125000
G01 X60.882465 Y170.672113 Z-0.125000
G01 X57.612895 Y168.048474 Z-0.125000
G01 X54.917092 Y165.005179 Z-0.125000
G01 X52.268090 Y160.921273 Z-0.125000
G01 X48.519252 Y153.888767 Z-0.125000
G01 X45.200628 Y146.713994 Z-0.125000
G01 X43.359266 Y141.772558 Z-0.125000
G01 X42.515383 Y138.315272 Z-0.125000
G01 X42.441224 Y135.548400 Z-0.125000
G01 X43.100545 Y133.235238 Z-0.125000
G01 X44.544976 Y130.951625 Z-0.125000
G01 X46.815973 Y128.497548 Z-0.125000
G01 X59.951227 Y116.918413 Z-0.125000
G01 X66.942662 Y110.447509 Z-0.125000
G01 X92.150093 Y85.370886 Z-0.125000
G01 X97.965023 Y80.409109 Z-0.125000
G01 X100.217287 Y78.909574 Z-0.125000
G01 X102.157206 Y77.975760 Z-0.125000
G01 X104.172959 Y77.584879 Z-0.125000
G01 X105.810448 Y77.972670 Z-0.125000
G01 X106.937899 Y78.736020 Z-0.125000
G01 X109.765476 Y81.522977 Z-0.125000
G01 X111.349663 Y82.796623 Z-0.125000
G01 X113.482706 Y84.031193 Z-0.125000
G01 X115.776813 Y84.918786 Z-0.125000
G01 X121.051707 Y85.994416 Z-0.125000
G01 X134.793882 Y87.065540 Z-0.125000
G01 X141.343967 Y88.158165 Z-0.125000
G01 X144.560493 Y89.125582 Z-0.125000
G01 X147.517784 Y90.405021 Z-0.125000
G01 X150.162989 Y91.995968 Z-0.125000
G01 X152.454392 Y93.870676 Z-0.125000
G01 X154.361094 Y95.978226 Z-0.125000
G01 X156.004248 Y98.510904 Z-0.125000
G01 X157.135755 Y101.144779 Z-0.125000
G01 X157.759349 Y103.779876 Z-0.125000
G01 X157.894922 Y106.332446 Z-0.125000
G01 X157.521937 Y108.976556 Z-0.125000
G01 X156.661639 Y111.413896 Z-0.125000
G01 X155.246692 Y113.837202 Z-0.125000
G01 X153.404492 Y116.039382 Z-0.125000
G01 X151.360544 Y117.877397 Z-0.125000
G01 X142.037021 Y124.317467 Z-0.125000
G01 X136.630996 Y128.534885 Z-0.125000
G01 X132.507307 Y132.205443 Z-0.125000
G01 X128.463442 Y136.230703 Z-0.125000
G01 X124.991414 Y140.047778 Z-0.125000
G01 X121.205369 Y144.603418 Z-0.125000
G01 X110.565005 Y158.691025 Z-0.125000
G01 X105.381007 Y164.502608 Z-0.125000
G01 X103.844843 Y166.842872 Z-0.125000
G01 X100.363352 Y173.052867 Z-0.125000
G01 X98.321271 Y175.973143 Z-0.125000
G01 X96.804483 Y177.591706 Z-0.125000
G01 X95.278748 Y178.798145 Z-0.125000
G01 X93.552680 Y179.739233 Z-0.125000
G01 X91.817986 Y180.330897 Z-0.125000
G01 X88.552793 Y180.765424 Z-0.125000
G01 X84.739903 Y180.539341 Z-0.125000
G01 X80.137655 Y179.614797 Z-0.125000
G01 X75.261624 Y178.115649 Z-0.125000
G01 X69.763222 Y175.924476 Z-0.125000
G01 X64.787088 Y173.468275 Z-0.125000
G01 X60.646405 Y170.923687 Z-0.125000
G01 X57.234309 Y168.172394 Z-0.125000
G01 X54.614468 Y165.248964 Z-0.125000
G01 X51.964243 Y161.222223 Z-0.125000
G01 X47.911881 Y153.714120 Z-0.125000
G01 X44.296362 Y146.117502 Z-0.125000
G01 X42.334105 Y141.112915 Z-0.125000
G01 X41.391215 Y137.640694 Z-0.125000
G01 X41.233691 Y134.892040 Z-0.125000
G01 X41.830441 Y132.616923 Z-0.125000
G01 X43.069260 Y130.589841 Z-0.125000
G01 X45.241892 Y128.210696 Z-0.125000
G01 X58.266165 Y116.859897 Z-0.125000
G01 X65.314636 Y110.397941 Z-0.125000
G01 X91.456202 Y84.472157 Z-0.125000
G01 X97.400654 Y79.442657 Z-0.125000
G01 X99.706026 Y77.932694 Z-0.125000
G01 X101.692488 Y77.003451 Z-0.125000
G01 X103.755620 Y76.639092 Z-0.125000
G01 X105.428515 Y77.074520 Z-0.125000
G01 X106.576953 Y77.888082 Z-0.125000
G01 X109.287690 Y80.664546 Z-0.125000
G01 X110.870847 Y82.008295 Z-0.125000
G01 X113.011100 Y83.319406 Z-0.125000
G01 X115.325678 Y84.267575 Z-0.125000
G01 X117.695489 Y84.909773 Z-0.125000
G01 X120.687091 Y85.423352 Z-0.125000
G01 X135.216950 Y86.576231 Z-0.125000
G01 X141.975222 Y87.732136 Z-0.125000
G01 X145.294167 Y88.756267 Z-0.125000
G01 X148.346475 Y90.109479 Z-0.125000
G01 X151.078198 Y91.789648 Z-0.125000
G01 X153.446722 Y93.765617 Z-0.125000
G01 X155.420502 Y95.981895 Z-0.125000
G01 X157.125842 Y98.637335 Z-0.125000
G01 X158.305372 Y101.388371 Z-0.125000
G01 X158.962505 Y104.128077 Z-0.125000
G01 X159.117003 Y106.767745 Z-0.125000
G01 X158.748911 Y109.484405 Z-0.125000
G01 X157.879021 Y111.970347 Z-0.125000
G01 X156.578532 Y114.228276 Z-0.125000
G01 X155.074619 Y116.104079 Z-0.125000
G01 X153.094273 Y117.992112 Z-0.125000
G01 X144.038611 Y124.232557 Z-0.125000
G01 X139.758557 Y127.431638 Z-0.125000
G01 X134.839073 Y131.619830 Z-0.125000
G01 X129.949780 Y136.397240 Z-0.125000
G01 X126.049985 Y140.688495 Z-0.125000
G01 X122.499163 Y144.983806 Z-0.125000
G01 X111.493025 Y159.640160 Z-0.125000
G01 X105.590223 Y165.898694 Z-0.125000
G01 X104.084380 Y168.156944 Z-0.125000
G01 X100.457146 Y174.510237 Z-0.125000
G01 X98.499716 Y177.226768 Z-0.125000
G01 X97.108394 Y178.684460 Z-0.125000
G01 X95.559420 Y179.892186 Z-0.125000
G01 X94.009738 Y180.731563 Z-0.125000
G01 X92.265516 Y181.328699 Z-0.125000
G01 X88.966204 Y181.744106 Z-0.125000
G01 X85.086816 Y181.460087 Z-0.125000
G01 X80.722303 Y180.525822 Z-0.125000
G01 X75.707545 Y178.921293 Z-0.125000
G01 X69.995162 Y176.564421 Z-0.125000
G01 X64.783741 Y173.921341 Z-0.125000
G01 X60.433197 Y171.200754 Z-0.125000
G01 X56.867247 Y168.306743 Z-0.125000
G01 X54.180843 Y165.307995 Z-0.125000
G01 X51.668250 Y161.503088 Z-0.125000
G01 X47.174473 Y153.218244 Z-0.125000
G01 X43.419842 Y145.509100 Z-0.125000
G01 X41.337655 Y140.441105 Z-0.125000
G01 X40.295693 Y136.954013 Z-0.125000
G01 X40.054032 Y134.223899 Z-0.125000
G01 X40.587244 Y131.987407 Z-0.125000
G01 X41.784349 Y130.006095 Z-0.125000
G01 X43.700643 Y127.902729 Z-0.125000
G01 X57.039899 Y116.400329 Z-0.125000
G01 X64.179138 Y109.889062 Z-0.125000
G01 X90.764372 Y83.577161 Z-0.125000
G01 X96.839439 Y78.480133 Z-0.125000
G01 X99.199143 Y76.959483 Z-0.125000
G01 X101.233178 Y76.034360 Z-0.125000
G01 X103.344977 Y75.695751 Z-0.125000
G01 X105.054179 Y76.177915 Z-0.125000
G01 X106.224117 Y77.040852 Z-0.125000
G01 X108.977406 Y79.951600 Z-0.125000
G01 X110.590433 Y81.353093 Z-0.125000
G01 X112.779674 Y82.716090 Z-0.125000
G01 X115.154635 Y83.698120 Z-0.125000
G01 X117.590945 Y84.360532 Z-0.125000
G01 X120.670418 Y84.887564 Z-0.125000
G01 X135.643301 Y86.073596 Z-0.125000
G01 X139.390593 Y86.600693 Z-0.125000
G01 X142.606927 Y87.293425 Z-0.125000
G01 X146.026683 Y88.375621 Z-0.125000
G01 X149.172333 Y89.804602 Z-0.125000
G01 X151.989159 Y91.576505 Z-0.125000
G01 X154.433709 Y93.656824 Z-0.125000
G01 X156.473859 Y95.984921 Z-0.125000
G01 X158.240676 Y98.766406 Z-0.125000
G01 X159.468036 Y101.637500 Z-0.125000
G01 X160.158644 Y104.484131 Z-0.125000
G01 X160.332133 Y107.212507 Z-0.125000
G01 X159.968740 Y110.002618 Z-0.125000
G01 X159.089000 Y112.537292 Z-0.125000
G01 X157.767396 Y114.822966 Z-0.125000
G01 X156.238185 Y116.710420 Z-0.125000
G01 X154.226552 Y118.601737 Z-0.125000
G01 X145.020190 Y124.887179 Z-0.125000
G01 X141.042180 Y127.851745 Z-0.125000
G01 X136.056005 Y132.083325 Z-0.125000
G01 X131.463220 Y136.554699 Z-0.125000
G01 X127.471370 Y140.931250 Z-0.125000
G01 X123.825016 Y145.348551 Z-0.125000
G01 X112.456773 Y160.611182 Z-0.125000
G01 X110.614573 Y162.656482 Z-0.125000
G01 X107.141322 Y165.801553 Z-0.125000
G01 X105.779355 Y167.311967 Z-0.125000
G01 X104.305248 Y169.498440 Z-0.125000
G01 X100.800582 Y175.570224 Z-0.125000
G01 X98.814313 Y178.325251 Z-0.125000
G01 X97.404066 Y179.796333 Z-0.125000
G01 X95.832496 Y181.005153 Z-0.125000
G01 X94.257064 Y181.833071 Z-0.125000
G01 X92.479110 Y182.405166 Z-0.125000
G01 X89.103193 Y182.748538 Z-0.125000
G01 X85.117458 Y182.353666 Z-0.125000
G01 X80.619948 Y181.274817 Z-0.125000
G01 X75.444318 Y179.488109 Z-0.125000
G01 X69.908450 Y177.081733 Z-0.125000
G01 X64.501267 Y174.234586 Z-0.125000
G01 X59.992684 Y171.327186 Z-0.125000
G01 X56.511837 Y168.456092 Z-0.125000
G01 X53.894378 Y165.553970 Z-0.125000
G01 X51.375476 Y161.767473 Z-0.125000
G01 X46.627227 Y153.029692 Z-0.125000
G01 X42.571582 Y144.890978 Z-0.125000
G01 X40.370818 Y139.759316 Z-0.125000
G01 X39.229912 Y136.257097 Z-0.125000
G01 X38.903663 Y133.545523 Z-0.125000
G01 X39.372437 Y131.348042 Z-0.125000
G01 X40.526603 Y129.413014 Z-0.125000
G01 X42.417985 Y127.358380 Z-0.125000
G01 X55.375501 Y116.334474 Z-0.125000
G01 X62.556712 Y109.847283 Z-0.125000
G01 X90.075502 Y82.686414 Z-0.125000
G01 X93.537681 Y79.645758 Z-0.125000
G01 X96.282665 Y77.522179 Z-0.125000
G01 X98.697667 Y75.990585 Z-0.125000
G01 X100.780498 Y75.069067 Z-0.125000
G01 X102.942315 Y74.755371 Z-0.125000
G01 X104.688919 Y75.283176 Z-0.125000
G01 X105.880745 Y76.194459 Z-0.125000
G01 X108.676456 Y79.237239 Z-0.125000
G01 X110.319160 Y80.695059 Z-0.125000
G01 X112.557068 Y82.108268 Z-0.125000
G01 X114.992090 Y83.122550 Z-0.125000
G01 X117.494641 Y83.803630 Z-0.125000
G01 X120.661535 Y84.342314 Z-0.125000
G01 X135.639567 Y85.509484 Z-0.125000
G01 X139.506467 Y86.036388 Z-0.125000
G01 X142.833267 Y86.735879 Z-0.125000
G01 X146.379196 Y87.837967 Z-0.125000
G01 X149.650634 Y89.303706 Z-0.125000
G01 X152.590737 Y91.131228 Z-0.125000
G01 X155.154186 Y93.285835 Z-0.125000
G01 X157.306927 Y95.704378 Z-0.125000
G01 X159.189360 Y98.599741 Z-0.125000
G01 X160.519719 Y101.591021 Z-0.125000
G01 X161.298326 Y104.555458 Z-0.125000
G01 X161.542563 Y107.391146 Z-0.125000
G01 X161.235819 Y110.280071 Z-0.125000
G01 X160.390906 Y112.889290 Z-0.125000
G01 X159.085846 Y115.225884 Z-0.125000
G01 X157.560819 Y117.143015 Z-0.125000
G01 X155.549251 Y119.055962 Z-0.125000
G01 X146.342503 Y125.310054 Z-0.125000
G01 X142.329602 Y128.278868 Z-0.125000
G01 X137.673216 Y132.195336 Z-0.125000
G01 X133.001315 Y136.701344 Z-0.125000
G01 X128.920757 Y141.157269 Z-0.125000
G01 X125.180932 Y145.694112 Z-0.125000
G01 X113.297050 Y161.790197 Z-0.125000
G01 X111.132529 Y164.098402 Z-0.125000
G01 X107.563682 Y167.022540 Z-0.125000
G01 X106.044320 Y168.619796 Z-0.125000
G01 X104.504808 Y170.868261 Z-0.125000
G01 X100.996538 Y176.864663 Z-0.125000
G01 X99.118933 Y179.442274 Z-0.125000
G01 X97.690145 Y180.926617 Z-0.125000
G01 X96.283760 Y182.016667 Z-0.125000
G01 X94.707297 Y182.864798 Z-0.125000
G01 X92.924258 Y183.446098 Z-0.125000
G01 X89.522656 Y183.775630 Z-0.125000
G01 X85.478083 Y183.325911 Z-0.125000
G01 X80.882015 Y182.150179 Z-0.125000
G01 X75.559098 Y180.218499 Z-0.125000
G01 X69.835836 Y177.625310 Z-0.125000
G01 X64.228384 Y174.567788 Z-0.125000
G01 X59.556355 Y171.465526 Z-0.125000
G01 X55.975084 Y168.437874 Z-0.125000
G01 X53.325180 Y165.430886 Z-0.125000
G01 X50.956013 Y161.804746 Z-0.125000
G01 X45.081793 Y150.877788 Z-0.125000
G01 X41.266457 Y143.233082 Z-0.125000
G01 X39.199463 Y138.483997 Z-0.125000
G01 X38.072011 Y135.069584 Z-0.125000
G01 X37.787799 Y132.653295 Z-0.125000
G01 X38.265649 Y130.511433 Z-0.125000
G01 X39.297891 Y128.811758 Z-0.125000
G01 X41.162815 Y126.806306 Z-0.125000
G01 X53.725073 Y116.261860 Z-0.125000
G01 X61.442329 Y109.339627 Z-0.125000
G01 X69.682496 Y101.384637 Z-0.125000
G01 X84.588494 Y86.380919 Z-0.125000
G01 X89.802040 Y81.425772 Z-0.125000
G01 X95.731299 Y76.569246 Z-0.125000
G01 X98.202758 Y75.026451 Z-0.125000
G01 X100.335607 Y74.108088 Z-0.125000
G01 X102.548988 Y73.818275 Z-0.125000
G01 X104.333895 Y74.390433 Z-0.125000
G01 X105.548123 Y75.349095 Z-0.125000
G01 X108.386192 Y78.521268 Z-0.125000
G01 X110.058251 Y80.033935 Z-0.125000
G01 X112.344504 Y81.495489 Z-0.125000
G01 X114.839265 Y82.540220 Z-0.125000
G01 X117.407671 Y83.238359 Z-0.125000
G01 X120.661470 Y83.786892 Z-0.125000
G01 X136.061026 Y84.975500 Z-0.125000
G01 X140.035238 Y85.527638 Z-0.125000
G01 X143.453706 Y86.263436 Z-0.125000
G01 X147.097034 Y87.423976 Z-0.125000
G01 X150.458853 Y88.967157 Z-0.125000
G01 X153.481548 Y90.889631 Z-0.125000
G01 X156.119157 Y93.152967 Z-0.125000
G01 X158.337237 Y95.688671 Z-0.125000
G01 X160.280955 Y98.716580 Z-0.125000
G01 X161.659917 Y101.834421 Z-0.125000
G01 X162.473286 Y104.911576 Z-0.125000
G01 X162.737993 Y107.840671 Z-0.125000
G01 X162.437430 Y110.806846 Z-0.125000
G01 X161.583440 Y113.467372 Z-0.125000
G01 X160.257330 Y115.833191 Z-0.125000
G01 X158.706553 Y117.763069 Z-0.125000
G01 X156.663441 Y119.680715 Z-0.125000
G01 X147.663206 Y125.740461 Z-0.125000
G01 X143.619212 Y128.711077 Z-0.125000
G01 X138.909138 Y132.660505 Z-0.125000
G01 X134.561555 Y136.835886 Z-0.125000
G01 X130.395894 Y141.364168 Z-0.125000
G01 X126.565173 Y146.016884 Z-0.125000
G01 X116.467935 Y160.024153 Z-0.125000
G01 X114.001885 Y163.181777 Z-0.125000
G01 X111.932830 Y165.313467 Z-0.125000
G01 X107.873001 Y168.341119 Z-0.125000
G01 X106.184334 Y170.075170 Z-0.125000
G01 X104.791467 Y172.088219 Z-0.125000
G01 X101.175691 Y178.181310 Z-0.125000
G01 X99.257852 Y180.756347 Z-0.125000
G01 X97.795461 Y182.223888 Z-0.125000
G01 X96.351160 Y183.285291 Z-0.125000
G01 X94.726545 Y184.089262 Z-0.125000
G01 X93.126908 Y184.560804 Z-0.125000
G01 X89.944500 Y184.827635 Z-0.125000
G01 X85.846819 Y184.326932 Z-0.125000
G01 X81.156829 Y183.056505 Z-0.125000
G01 X75.689069 Y180.979790 Z-0.125000
G01 X69.777384 Y178.196953 Z-0.125000
G01 X63.965286 Y174.923134 Z-0.125000
G01 X59.393166 Y171.822224 Z-0.125000
G01 X55.636282 Y168.622049 Z-0.125000
G01 X53.048692 Y165.698619 Z-0.125000
G01 X50.784069 Y162.265344 Z-0.125000
G01 X40.455599 Y142.587151 Z-0.125000
G01 X38.159625 Y137.494500 Z-0.125000
G01 X37.054254 Y134.358828 Z-0.125000
G01 X36.693500 Y131.962365 Z-0.125000
G01 X37.107105 Y129.860802 Z-0.125000
G01 X38.248268 Y128.015963 Z-0.125000
G01 X40.163661 Y126.037999 Z-0.125000
G01 X53.006656 Y115.399309 Z-0.125000
G01 X62.402214 Y106.896236 Z-0.125000
G01 X83.350898 Y86.027504 Z-0.125000
G01 X89.130294 Y80.539724 Z-0.125000
G01 X95.186435 Y75.621978 Z-0.125000
G01 X97.715573 Y74.067725 Z-0.125000
G01 X99.899793 Y73.151807 Z-0.125000
G01 X102.166026 Y72.884783 Z-0.125000
G01 X103.990393 Y73.499944 Z-0.125000
G01 X105.227410 Y74.504826 Z-0.125000
G01 X108.107838 Y77.803366 Z-0.125000
G01 X109.808993 Y79.369335 Z-0.125000
G01 X111.886481 Y80.740572 Z-0.125000
G01 X114.391928 Y81.845621 Z-0.125000
G01 X116.983960 Y82.586891 Z-0.125000
G01 X120.282048 Y83.170122 Z-0.125000
G01 X136.486476 Y84.425743 Z-0.125000
G01 X140.118087 Y84.925030 Z-0.125000
G01 X143.643610 Y85.663790 Z-0.125000
G01 X147.409829 Y86.840487 Z-0.125000
G01 X150.894860 Y88.417786 Z-0.125000
G01 X154.039030 Y90.394786 Z-0.125000
G01 X156.794700 Y92.733118 Z-0.125000
G01 X159.125758 Y95.362035 Z-0.125000
G01 X161.186895 Y98.509037 Z-0.125000
G01 X162.672138 Y101.753953 Z-0.125000
G01 X163.577756 Y104.956832 Z-0.125000
G01 X163.917974 Y108.001350 Z-0.125000
G01 X163.679210 Y111.074579 Z-0.125000
G01 X162.864296 Y113.816602 Z-0.125000
G01 X161.416968 Y116.444425 Z-0.125000
G01 X159.840184 Y118.387049 Z-0.125000
G01 X157.765272 Y120.309909 Z-0.125000
G01 X148.980369 Y126.176403 Z-0.125000
G01 X145.294554 Y128.849096 Z-0.125000
G01 X140.551391 Y132.766272 Z-0.125000
G01 X136.141365 Y136.957167 Z-0.125000
G01 X131.894464 Y141.549887 Z-0.125000
G01 X127.639387 Y146.746438 Z-0.125000
G01 X123.897631 Y151.809928 Z-0.125000
G01 X117.405676 Y161.171367 Z-0.125000
G01 X114.889992 Y164.407914 Z-0.125000
G01 X112.617193 Y166.674082 Z-0.125000
G01 X108.277400 Y169.576398 Z-0.125000
G01 X106.401790 Y171.422395 Z-0.125000
G01 X104.946480 Y173.510697 Z-0.125000
G01 X101.480568 Y179.300329 Z-0.125000
G01 X99.536657 Y181.909548 Z-0.125000
G01 X98.056692 Y183.389384 Z-0.125000
G01 X96.594301 Y184.450917 Z-0.125000
G01 X94.946384 Y185.242656 Z-0.125000
G01 X93.320031 Y185.691796 Z-0.125000
G01 X90.073249 Y185.892322 Z-0.125000
G01 X85.875337 Y185.279285 Z-0.125000
G01 X81.054860 Y183.859059 Z-0.125000
G01 X75.833783 Y181.773074 Z-0.125000
G01 X69.733159 Y178.798209 Z-0.125000
G01 X64.063199 Y175.524519 Z-0.125000
G01 X59.257594 Y172.221087 Z-0.125000
G01 X55.310741 Y168.834420 Z-0.125000
G01 X52.783084 Y165.990942 Z-0.125000
G01 X50.480029 Y162.510224 Z-0.125000
G01 X39.334842 Y141.243015 Z-0.125000
G01 X37.140451 Y136.501140 Z-0.125000
G01 X36.000833 Y133.409178 Z-0.125000
G01 X35.629329 Y131.068786 Z-0.125000
G01 X35.981263 Y129.204249 Z-0.125000
G01 X37.078458 Y127.406146 Z-0.125000
G01 X38.966814 Y125.477298 Z-0.125000
G01 X51.855064 Y114.925707 Z-0.125000
G01 X60.820923 Y106.861217 Z-0.125000
G01 X82.579179 Y85.225272 Z-0.125000
G01 X88.464278 Y79.659405 Z-0.125000
G01 X91.717304 Y76.878564 Z-0.125000
G01 X94.648846 Y74.680826 Z-0.125000
G01 X97.237014 Y73.114792 Z-0.125000
G01 X99.473892 Y72.200677 Z-0.125000
G01 X101.794586 Y71.955347 Z-0.125000
G01 X103.659509 Y72.612029 Z-0.125000
G01 X104.919830 Y73.661781 Z-0.125000
G01 X107.842487 Y77.083468 Z-0.125000
G01 X109.572482 Y78.701001 Z-0.125000
G01 X111.691942 Y80.112922 Z-0.125000
G01 X114.254618 Y81.245910 Z-0.125000
G01 X116.910187 Y82.001922 Z-0.125000
G01 X120.292412 Y82.592234 Z-0.125000
G01 X136.446435 Y83.809230 Z-0.125000
G01 X140.639262 Y84.380423 Z-0.125000
G01 X144.252527 Y85.154396 Z-0.125000
G01 X148.111766 Y86.389417 Z-0.125000
G01 X151.682995 Y88.045446 Z-0.125000
G01 X154.906087 Y90.119907 Z-0.125000
G01 X157.733213 Y92.570701 Z-0.125000
G01 X160.127809 Y95.321608 Z-0.125000
G01 X162.249586 Y98.606951 Z-0.125000
G01 X163.783818 Y101.984348 Z-0.125000
G01 X164.725485 Y105.305225 Z-0.125000
G01 X165.087848 Y108.447528 Z-0.125000
G01 X164.857002 Y111.601482 Z-0.125000
G01 X164.034105 Y114.397001 Z-0.125000
G01 X162.706386 Y116.849726 Z-0.125000
G01 X161.134687 Y118.826596 Z-0.125000
G01 X159.059710 Y120.775013 Z-0.125000
G01 X149.938709 Y126.858127 Z-0.125000
G01 X146.197596 Y129.582769 Z-0.125000
G01 X141.798192 Y133.225711 Z-0.125000
G01 X137.335895 Y137.471132 Z-0.125000
G01 X133.034661 Y142.149985 Z-0.125000
G01 X128.725510 Y147.469941 Z-0.125000
G01 X124.938821 Y152.674861 Z-0.125000
G01 X118.367106 Y162.327852 Z-0.125000
G01 X115.636734 Y165.842173 Z-0.125000
G01 X113.174160 Y168.162159 Z-0.125000
G01 X108.907817 Y170.659302 Z-0.125000
G01 X107.166621 Y172.129804 Z-0.125000
G01 X105.431476 Y174.404728 Z-0.125000
G01 X101.182773 Y181.306232 Z-0.125000
G01 X98.820558 Y184.106450 Z-0.125000
G01 X96.427379 Y185.855113 Z-0.125000
G01 X93.750695 Y186.792789 Z-0.125000
G01 X90.492905 Y186.990161 Z-0.125000
G01 X86.251347 Y186.331805 Z-0.125000
G01 X81.344158 Y184.819588 Z-0.125000
G01 X75.992980 Y182.599190 Z-0.125000
G01 X69.703418 Y179.430816 Z-0.125000
G01 X63.833383 Y175.944947 Z-0.125000
G01 X58.853709 Y172.436033 Z-0.125000
G01 X54.999877 Y169.079879 Z-0.125000
G01 X52.370123 Y166.107524 Z-0.125000
G01 X50.168715 Y162.761284 Z-0.125000
G01 X38.226832 Y139.891284 Z-0.125000
G01 X36.020274 Y135.227301 Z-0.125000
G01 X34.971938 Y132.462103 Z-0.125000
G01 X34.595542 Y130.371612 Z-0.125000
G01 X34.889282 Y128.543060 Z-0.125000
G01 X35.941995 Y126.790985 Z-0.125000
G01 X37.802219 Y124.910805 Z-0.125000
G01 X50.260191 Y114.843565 Z-0.125000
G01 X59.774519 Y106.334957 Z-0.125000
G01 X81.814284 Y84.427932 Z-0.125000
G01 X87.804828 Y78.785267 Z-0.125000
G01 X91.123773 Y75.968634 Z-0.125000
G01 X94.119560 Y73.746368 Z-0.125000
G01 X96.768112 Y72.168104 Z-0.125000
G01 X98.792104 Y71.332912 Z-0.125000
G01 X101.221011 Y71.008787 Z-0.125000
G01 X103.169235 Y71.620343 Z-0.125000
G01 X104.626347 Y72.820022 Z-0.125000
G01 X107.591299 Y76.361381 Z-0.125000
G01 X109.349811 Y78.028740 Z-0.125000
G01 X111.510921 Y79.479222 Z-0.125000
G01 X114.130376 Y80.638281 Z-0.125000
G01 X116.848967 Y81.407168 Z-0.125000
G01 X120.314493 Y82.002566 Z-0.125000
G01 X136.869181 Y83.224519 Z-0.125000
G01 X141.162367 Y83.818886 Z-0.125000
G01 X144.860735 Y84.628329 Z-0.125000
G01 X148.810034 Y85.922639 Z-0.125000
G01 X152.464628 Y87.658813 Z-0.125000
G01 X155.764132 Y89.832798 Z-0.125000
G01 X158.660590 Y92.398500 Z-0.125000
G01 X161.117177 Y95.273714 Z-0.125000
G01 X163.298436 Y98.700165 Z-0.125000
G01 X164.881143 Y102.212040 Z-0.125000
G01 X165.858859 Y105.652525 Z-0.125000
G01 X166.243625 Y108.893449 Z-0.125000
G01 X166.020954 Y112.128515 Z-0.125000
G01 X165.190139 Y114.977335 Z-0.125000
G01 X163.841498 Y117.460574 Z-0.125000
G01 X162.243599 Y119.451349 Z-0.125000
G01 X160.136435 Y121.406590 Z-0.125000
G01 X147.874096 Y129.720337 Z-0.125000
G01 X143.455637 Y133.320277 Z-0.125000
G01 X138.940810 Y137.565247 Z-0.125000
G01 X134.565482 Y142.294891 Z-0.125000
G01 X130.166014 Y147.729177 Z-0.125000
G01 X126.291518 Y153.099602 Z-0.125000
G01 X119.150090 Y163.776853 Z-0.125000
G01 X116.572737 Y167.103588 Z-0.125000
G01 X115.104230 Y168.590634 Z-0.125000
G01 X113.739237 Y169.650879 Z-0.125000
G01 X109.425709 Y171.840699 Z-0.125000
G01 X107.835921 Y173.013663 Z-0.125000
G01 X106.033762 Y175.142715 Z-0.125000
G01 X101.900095 Y181.809639 Z-0.125000
G01 X99.728428 Y184.623053 Z-0.125000
G01 X98.361054 Y185.914788 Z-0.125000
G01 X97.042926 Y186.829161 Z-0.125000
G01 X95.575127 Y187.517644 Z-0.125000
G01 X93.925987 Y187.958350 Z-0.125000
G01 X90.608715 Y188.090768 Z-0.125000
G01 X86.631670 Y187.412263 Z-0.125000
G01 X81.643692 Y185.811918 Z-0.125000
G01 X76.166276 Y183.458844 Z-0.125000
G01 X70.114062 Y180.334759 Z-0.125000
G01 X63.995928 Y176.644503 Z-0.125000
G01 X58.763907 Y172.917617 Z-0.125000
G01 X54.705494 Y169.362997 Z-0.125000
G01 X51.960445 Y166.248246 Z-0.125000
G01 X49.850126 Y163.025798 Z-0.125000
G01 X44.964890 Y153.303927 Z-0.125000
G01 X36.631315 Y137.538854 Z-0.125000
G01 X34.803406 Y133.700150 Z-0.125000
G01 X33.902810 Y131.299503 Z-0.125000
G01 X33.585960 Y129.296690 Z-0.125000
G01 X33.897145 Y127.707353 Z-0.125000
G01 X34.840228 Y126.171382 Z-0.125000
G01 X36.671291 Y124.339032 Z-0.125000
G01 X49.154562 Y114.361981 Z-0.125000
G01 X58.215631 Y106.305344 Z-0.125000
G01 X65.773174 Y98.994935 Z-0.125000
G01 X80.561882 Y84.120931 Z-0.125000
G01 X87.152587 Y77.917630 Z-0.125000
G01 X90.538096 Y75.065784 Z-0.125000
G01 X93.599351 Y72.818928 Z-0.125000
G01 X96.309638 Y71.228175 Z-0.125000
G01 X98.382684 Y70.392596 Z-0.125000
G01 X100.870686 Y70.085402 Z-0.125000
G01 X101.921983 Y70.299318 Z-0.125000
G01 X102.863135 Y70.733329 Z-0.125000
G01 X104.348057 Y71.979616 Z-0.125000
G01 X107.355174 Y75.636977 Z-0.125000
G01 X109.141947 Y77.352166 Z-0.125000
G01 X111.344385 Y78.839341 Z-0.125000
G01 X114.020167 Y80.022219 Z-0.125000
G01 X116.801137 Y80.802178 Z-0.125000
G01 X120.349062 Y81.400795 Z-0.125000
G01 X137.296819 Y82.622748 Z-0.125000
G01 X141.205176 Y83.155381 Z-0.125000
G01 X145.004161 Y83.961991 Z-0.125000
G01 X149.069463 Y85.266536 Z-0.125000
G01 X152.841024 Y87.032323 Z-0.125000
G01 X156.256918 Y89.258579 Z-0.125000
G01 X159.267897 Y91.899792 Z-0.125000
G01 X161.835852 Y94.871696 Z-0.125000
G01 X164.135238 Y98.424063 Z-0.125000
G01 X165.827445 Y102.072348 Z-0.125000
G01 X166.902753 Y105.649113 Z-0.125000
G01 X167.369724 Y109.016211 Z-0.125000
G01 X167.216385 Y112.369210 Z-0.125000
G01 X166.430954 Y115.308670 Z-0.125000
G01 X165.105487 Y117.855059 Z-0.125000
G01 X163.337318 Y120.073848 Z-0.125000
G01 X161.197709 Y122.036557 Z-0.125000
G01 X149.157140 Y130.153512 Z-0.125000
G01 X144.705336 Y133.767292 Z-0.125000
G01 X140.557506 Y137.643011 Z-0.125000
G01 X135.721709 Y142.865763 Z-0.125000
G01 X131.274732 Y148.419913 Z-0.125000
G01 X127.062464 Y154.379943 Z-0.125000
G01 X120.154265 Y164.949495 Z-0.125000
G01 X117.361257 Y168.569133 Z-0.125000
G01 X115.866550 Y170.029979 Z-0.125000
G01 X114.462161 Y171.046771 Z-0.125000
G01 X109.942827 Y173.034649 Z-0.125000
G01 X108.142922 Y174.258856 Z-0.125000
G01 X106.262484 Y176.422862 Z-0.125000
G01 X102.007536 Y183.201669 Z-0.125000
G01 X99.793833 Y186.001050 Z-0.125000
G01 X98.396267 Y187.269932 Z-0.125000
G01 X97.044471 Y188.152053 Z-0.125000
G01 X95.534507 Y188.794894 Z-0.125000
G01 X94.088982 Y189.138074 Z-0.125000
G01 X90.713709 Y189.205087 Z-0.125000
G01 X86.650468 Y188.422875 Z-0.125000
G01 X81.537153 Y186.670800 Z-0.125000
G01 X75.909616 Y184.134774 Z-0.125000
G01 X69.687840 Y180.795164 Z-0.125000
G01 X63.407998 Y176.874061 Z-0.125000
G01 X58.382554 Y173.194491 Z-0.125000
G01 X54.190049 Y169.447263 Z-0.125000
G01 X51.555144 Y166.417937 Z-0.125000
G01 X49.525616 Y163.311941 Z-0.125000
G01 X44.248404 Y152.496222 Z-0.125000
G01 X35.072105 Y135.262836 Z-0.125000
G01 X33.617954 Y132.212588 Z-0.125000
G01 X32.864388 Y130.158147 Z-0.125000
G01 X32.609337 Y128.421006 Z-0.125000
G01 X32.871083 Y127.044491 Z-0.125000
G01 X33.774190 Y125.548175 Z-0.125000
G01 X35.357090 Y123.952786 Z-0.125000
G01 X47.607583 Y114.265549 Z-0.125000
G01 X56.669811 Y106.276762 Z-0.125000
G01 X64.281235 Y98.943886 Z-0.125000
G01 X79.804840 Y83.340264 Z-0.125000
G01 X86.508200 Y77.056946 Z-0.125000
G01 X89.961045 Y74.170273 Z-0.125000
G01 X93.088863 Y71.898955 Z-0.125000
G01 X95.862366 Y70.295327 Z-0.125000
G01 X97.985816 Y69.458718 Z-0.125000
G01 X100.534523 Y69.167038 Z-0.125000
G01 X101.610540 Y69.396018 Z-0.125000
G01 X102.572421 Y69.849599 Z-0.125000
G01 X104.085796 Y71.140626 Z-0.125000
G01 X106.955152 Y74.705224 Z-0.125000
G01 X108.728599 Y76.485302 Z-0.125000
G01 X110.920416 Y78.038525 Z-0.125000
G01 X113.596648 Y79.280305 Z-0.125000
G01 X116.391716 Y80.101979 Z-0.125000
G01 X119.973180 Y80.733040 Z-0.125000
G01 X137.225943 Y81.950937 Z-0.125000
G01 X141.721844 Y82.555348 Z-0.125000
G01 X145.600718 Y83.396012 Z-0.125000
G01 X149.750028 Y84.758944 Z-0.125000
G01 X153.599225 Y86.605328 Z-0.125000
G01 X157.086509 Y88.932716 Z-0.125000
G01 X160.162699 Y91.691670 Z-0.125000
G01 X162.789686 Y94.791743 Z-0.125000
G01 X165.147008 Y98.489918 Z-0.125000
G01 X166.887689 Y102.277638 Z-0.125000
G01 X168.000335 Y105.978387 Z-0.125000
G01 X168.491704 Y109.447712 Z-0.125000
G01 X168.348857 Y112.884591 Z-0.125000
G01 X167.557440 Y115.879283 Z-0.125000
G01 X166.212081 Y118.457474 Z-0.125000
G01 X164.594548 Y120.501036 Z-0.125000
G01 X162.454746 Y122.493292 Z-0.125000
G01 X150.038296 Y130.881006 Z-0.125000
G01 X145.951880 Y134.206969 Z-0.125000
G01 X141.766069 Y138.119059 Z-0.125000
G01 X136.881026 Y143.422793 Z-0.125000
G01 X132.390210 Y149.095264 Z-0.125000
G01 X128.142021 Y155.213011 Z-0.125000
G01 X121.180198 Y166.120077 Z-0.125000
G01 X118.344639 Y169.852885 Z-0.125000
G01 X116.811501 Y171.344888 Z-0.125000
G01 X115.357543 Y172.363676 Z-0.125000
G01 X110.319739 Y174.301536 Z-0.125000
G01 X108.430031 Y175.513253 Z-0.125000
G01 X106.468933 Y177.719296 Z-0.125000
G01 X102.247395 Y184.384160 Z-0.125000
G01 X100.007555 Y187.217209 Z-0.125000
G01 X98.780324 Y188.350068 Z-0.125000
G01 X97.435030 Y189.264312 Z-0.125000
G01 X95.933177 Y189.933032 Z-0.125000
G01 X94.493832 Y190.291790 Z-0.125000
G01 X91.120297 Y190.366271 Z-0.125000
G01 X87.031692 Y189.552773 Z-0.125000
G01 X82.269796 Y187.891530 Z-0.125000
G01 X76.553294 Y185.280959 Z-0.125000
G01 X70.155261 Y181.796249 Z-0.125000
G01 X63.621914 Y177.666767 Z-0.125000
G01 X58.344895 Y173.772250 Z-0.125000
G01 X53.922058 Y169.806278 Z-0.125000
G01 X51.155444 Y166.621424 Z-0.125000
G01 X49.072099 Y163.402323 Z-0.125000
G01 X43.711715 Y151.996549 Z-0.125000
G01 X33.707112 Y133.373257 Z-0.125000
G01 X31.859634 Y129.039965 Z-0.125000
G01 X31.664515 Y127.553820 Z-0.125000
G01 X31.881779 Y126.380277 Z-0.125000
G01 X32.745102 Y124.922070 Z-0.125000
G01 X34.299806 Y123.367495 Z-0.125000
G01 X46.554677 Y113.774308 Z-0.125000
G01 X55.675035 Y105.751017 Z-0.125000
G01 X63.349932 Y98.352157 Z-0.125000
G01 X79.056425 Y82.564811 Z-0.125000
G01 X85.411198 Y76.608707 Z-0.125000
G01 X88.969938 Y73.614916 Z-0.125000
G01 X92.208352 Y71.237509 Z-0.125000
G01 X95.092578 Y69.533779 Z-0.125000
G01 X97.602210 Y68.531600 Z-0.125000
G01 X98.979047 Y68.260584 Z-0.125000
G01 X100.213424 Y68.253889 Z-0.125000
G01 X101.314804 Y68.497031 Z-0.125000
G01 X102.297993 Y68.969216 Z-0.125000
G01 X103.840273 Y70.303245 Z-0.125000
G01 X106.749218 Y73.970391 Z-0.125000
G01 X108.549253 Y75.795338 Z-0.125000
G01 X110.780144 Y77.382229 Z-0.125000
G01 X113.510129 Y78.644931 Z-0.125000
G01 X116.365065 Y79.475102 Z-0.125000
G01 X120.025774 Y80.106292 Z-0.125000
G01 X137.653453 Y81.312537 Z-0.125000
G01 X142.240766 Y81.937419 Z-0.125000
G01 X146.196244 Y82.812266 Z-0.125000
G01 X150.425893 Y84.234423 Z-0.125000
G01 X154.349121 Y86.162626 Z-0.125000
G01 X157.529147 Y88.299273 Z-0.125000
G01 X160.716190 Y91.132129 Z-0.125000
G01 X163.452355 Y94.329150 Z-0.125000
G01 X165.927289 Y98.156137 Z-0.125000
G01 X167.779338 Y102.085287 Z-0.125000
G01 X168.993308 Y105.928819 Z-0.125000
G01 X169.571969 Y109.531462 Z-0.125000
G01 X169.504827 Y113.094001 Z-0.125000
G01 X168.764651 Y116.186091 Z-0.125000
G01 X167.302002 Y119.053838 Z-0.125000
G01 X165.658140 Y121.112463 Z-0.125000
G01 X163.485701 Y123.113925 Z-0.125000
G01 X151.305118 Y131.304331 Z-0.125000
G01 X147.193853 Y134.637568 Z-0.125000
G01 X142.972766 Y138.582490 Z-0.125000
G01 X138.041823 Y143.963537 Z-0.125000
G01 X133.510774 Y149.752268 Z-0.125000
G01 X129.231299 Y156.028311 Z-0.125000
G01 X122.021506 Y167.594184 Z-0.125000
G01 X119.174360 Y171.337614 Z-0.125000
G01 X117.613025 Y172.805477 Z-0.125000
G01 X116.114971 Y173.782228 Z-0.125000
G01 X114.500592 Y174.447086 Z-0.125000
G01 X110.825335 Y175.509455 Z-0.125000
G01 X108.695447 Y176.776277 Z-0.125000
G01 X106.651820 Y179.031566 Z-0.125000
G01 X102.314022 Y185.806961 Z-0.125000
G01 X100.204348 Y188.445342 Z-0.125000
G01 X98.965722 Y189.586505 Z-0.125000
G01 X97.607875 Y190.500878 Z-0.125000
G01 X96.090315 Y191.160070 Z-0.125000
G01 X94.633267 Y191.501512 Z-0.125000
G01 X91.207267 Y191.513164 Z-0.125000
G01 X87.037679 Y190.597375 Z-0.125000
G01 X82.164738 Y188.797019 Z-0.125000
G01 X76.301140 Y186.003238 Z-0.125000
G01 X69.732129 Y182.299592 Z-0.125000
G01 X63.031794 Y177.933019 Z-0.125000
G01 X57.641606 Y173.833921 Z-0.125000
G01 X53.416012 Y169.948159 Z-0.125000
G01 X50.400591 Y166.371008 Z-0.125000
G01 X48.249395 Y162.821924 Z-0.125000
G01 X43.033854 Y151.182278 Z-0.125000
G01 X31.764875 Y130.293912 Z-0.125000
G01 X30.815612 Y127.573648 Z-0.125000
G01 X30.930069 Y125.715805 Z-0.125000
G01 X31.753674 Y124.293906 Z-0.125000
G01 X33.279860 Y122.778406 Z-0.125000
G01 X45.063962 Y113.660559 Z-0.125000
G01 X54.163913 Y105.721791 Z-0.125000
G01 X61.876083 Y98.314756 Z-0.125000
G01 X77.796426 Y82.304159 Z-0.125000
G01 X84.775566 Y75.767464 Z-0.125000
G01 X88.402929 Y72.738975 Z-0.125000
G01 X91.710674 Y70.336011 Z-0.125000
G01 X94.661720 Y68.617217 Z-0.125000
G01 X97.232508 Y67.611433 Z-0.125000
G01 X98.643400 Y67.344344 Z-0.125000
G01 X99.907968 Y67.346276 Z-0.125000
G01 X101.035356 Y67.602678 Z-0.125000
G01 X102.040367 Y68.092438 Z-0.125000
G01 X103.612130 Y69.467473 Z-0.125000
G01 X106.560666 Y73.233241 Z-0.125000
G01 X108.387029 Y75.100933 Z-0.125000
G01 X110.656738 Y76.719238 Z-0.125000
G01 X113.440090 Y78.000608 Z-0.125000
G01 X116.354379 Y78.837217 Z-0.125000
G01 X120.093303 Y79.466669 Z-0.125000
G01 X138.086692 Y80.656435 Z-0.125000
G01 X142.248169 Y81.211920 Z-0.125000
G01 X146.295896 Y82.077304 Z-0.125000
G01 X150.632213 Y83.502422 Z-0.125000
G01 X154.663654 Y85.454058 Z-0.125000
G01 X158.327646 Y87.932404 Z-0.125000
G01 X161.574814 Y90.885060 Z-0.125000
G01 X164.366406 Y94.213340 Z-0.125000
G01 X166.896959 Y98.190191 Z-0.125000
G01 X168.797096 Y102.262896 Z-0.125000
G01 X170.049626 Y106.234146 Z-0.125000
G01 X170.655002 Y109.941913 Z-0.125000
G01 X170.601378 Y113.590777 Z-0.125000
G01 X169.857727 Y116.739710 Z-0.125000
G01 X168.521380 Y119.419484 Z-0.125000
G01 X166.704223 Y121.716359 Z-0.125000
G01 X164.280981 Y123.898776 Z-0.125000
G01 X154.896302 Y130.036222 Z-0.125000
G01 X149.692284 Y133.986680 Z-0.125000
G01 X145.452013 Y137.777296 Z-0.125000
G01 X141.653672 Y141.680245 Z-0.125000
G01 X137.624098 Y146.421799 Z-0.125000
G01 X133.926310 Y151.388083 Z-0.125000
G01 X130.027030 Y157.304146 Z-0.125000
G01 X123.086514 Y168.759423 Z-0.125000
G01 X121.314934 Y171.292874 Z-0.125000
G01 X119.664055 Y173.196744 Z-0.125000
G01 X118.258313 Y174.397325 Z-0.125000
G01 X116.716806 Y175.283115 Z-0.125000
G01 X111.327519 Y176.724327 Z-0.125000
G01 X109.082272 Y177.932568 Z-0.125000
G01 X106.810181 Y180.359222 Z-0.125000
G01 X102.516866 Y187.015009 Z-0.125000
G01 X100.383694 Y189.684483 Z-0.125000
G01 X99.134125 Y190.834079 Z-0.125000
G01 X97.764497 Y191.749031 Z-0.125000
G01 X96.232067 Y192.398825 Z-0.125000
G01 X94.758153 Y192.723143 Z-0.125000
G01 X91.281490 Y192.671965 Z-0.125000
G01 X87.032400 Y191.653371 Z-0.125000
G01 X82.049443 Y189.712743 Z-0.125000
G01 X76.039008 Y186.734080 Z-0.125000
G01 X69.298761 Y182.809565 Z-0.125000
G01 X62.863777 Y178.515220 Z-0.125000
G01 X57.283491 Y174.200661 Z-0.125000
G01 X52.912026 Y170.116756 Z-0.125000
G01 X50.000054 Y166.632432 Z-0.125000
G01 X47.898941 Y163.181519 Z-0.125000
G01 X44.354428 Y154.572680 Z-0.125000
G01 X42.537657 Y150.688849 Z-0.125000
G01 X30.768296 Y129.117150 Z-0.125000
G01 X29.928856 Y126.699509 Z-0.125000
G01 X30.069449 Y124.896771 Z-0.125000
G01 X30.800805 Y123.664261 Z-0.125000
G01 X32.298216 Y122.186034 Z-0.125000
G01 X44.069829 Y113.157602 Z-0.125000
G01 X53.212010 Y105.191862 Z-0.125000
G01 X60.974842 Y97.726310 Z-0.125000
G01 X77.059212 Y81.545444 Z-0.125000
G01 X84.149011 Y74.933817 Z-0.125000
G01 X87.845834 Y71.871338 Z-0.125000
G01 X91.224133 Y69.443011 Z-0.125000
G01 X94.243674 Y67.708832 Z-0.125000
G01 X96.877226 Y66.698606 Z-0.125000
G01 X98.323073 Y66.434671 Z-0.125000
G01 X99.618670 Y66.444263 Z-0.125000
G01 X100.772837 Y66.712897 Z-0.125000
G01 X101.800122 Y67.219201 Z-0.125000
G01 X103.401819 Y68.633247 Z-0.125000
G01 X106.389945 Y72.493516 Z-0.125000
G01 X108.242573 Y74.401699 Z-0.125000
G01 X110.550843 Y76.049230 Z-0.125000
G01 X113.387174 Y77.347016 Z-0.125000
G01 X116.360237 Y78.188195 Z-0.125000
G01 X120.176410 Y78.813849 Z-0.125000
G01 X137.991676 Y79.929649 Z-0.125000
G01 X142.762262 Y80.554981 Z-0.125000
G01 X146.880157 Y81.452809 Z-0.125000
G01 X151.289410 Y82.935735 Z-0.125000
G01 X155.387607 Y84.968805 Z-0.125000
G01 X159.113076 Y87.550665 Z-0.125000
G01 X162.417216 Y90.624795 Z-0.125000
G01 X165.261852 Y94.085944 Z-0.125000
G01 X167.846416 Y98.214267 Z-0.125000
G01 X169.793996 Y102.431685 Z-0.125000
G01 X171.085216 Y106.531234 Z-0.125000
G01 X171.717886 Y110.344317 Z-0.125000
G01 X171.678618 Y114.079121 Z-0.125000
G01 X170.932327 Y117.284381 Z-0.125000
G01 X169.578085 Y119.996792 Z-0.125000
G01 X167.732409 Y122.311113 Z-0.125000
G01 X165.273246 Y124.504925 Z-0.125000
G01 X156.147803 Y130.451372 Z-0.125000
G01 X150.928142 Y134.391916 Z-0.125000
G01 X146.660319 Y138.199527 Z-0.125000
G01 X142.414512 Y142.605433 Z-0.125000
G01 X138.381526 Y147.454684 Z-0.125000
G01 X134.697514 Y152.533302 Z-0.125000
G01 X130.831193 Y158.578950 Z-0.125000
G01 X123.964709 Y170.234818 Z-0.125000
G01 X122.194222 Y172.786036 Z-0.125000
G01 X120.708206 Y174.503735 Z-0.125000
G01 X119.267445 Y175.736568 Z-0.125000
G01 X117.671799 Y176.629697 Z-0.125000
G01 X116.089350 Y177.135485 Z-0.125000
G01 X111.662458 Y177.993917 Z-0.125000
G01 X109.306294 Y179.208724 Z-0.125000
G01 X106.943114 Y181.701555 Z-0.125000
G01 X102.540684 Y188.463817 Z-0.125000
G01 X100.370948 Y191.112627 Z-0.125000
G01 X99.096273 Y192.238276 Z-0.125000
G01 X97.694651 Y193.116727 Z-0.125000
G01 X96.357983 Y193.648330 Z-0.125000
G01 X94.868040 Y193.955718 Z-0.125000
G01 X91.342453 Y193.841839 Z-0.125000
G01 X87.015534 Y192.720053 Z-0.125000
G01 X81.923656 Y190.638381 Z-0.125000
G01 X75.766898 Y187.473547 Z-0.125000
G01 X68.855351 Y183.326619 Z-0.125000
G01 X62.262972 Y178.807544 Z-0.125000
G01 X56.567134 Y174.284476 Z-0.125000
G01 X52.410743 Y170.314256 Z-0.125000
G01 X49.609173 Y166.939755 Z-0.125000
G01 X47.423988 Y163.341296 Z-0.125000
G01 X43.841944 Y154.115171 Z-0.125000
G01 X41.898034 Y149.875223 Z-0.125000
G01 X29.803454 Y127.967618 Z-0.125000
G01 X29.074995 Y125.836765 Z-0.125000
G01 X29.189517 Y124.237643 Z-0.125000
G01 X29.887012 Y123.033779 Z-0.125000
G01 X31.355648 Y121.590507 Z-0.125000
G01 X42.642973 Y113.023382 Z-0.125000
G01 X51.742795 Y105.157808 Z-0.125000
G01 X59.525198 Y97.698501 Z-0.125000
G01 X76.331782 Y80.791942 Z-0.125000
G01 X83.531790 Y74.107766 Z-0.125000
G01 X87.298846 Y71.012134 Z-0.125000
G01 X90.749115 Y68.558637 Z-0.125000
G01 X93.838695 Y66.808686 Z-0.125000
G01 X96.536686 Y65.793181 Z-0.125000
G01 X98.018518 Y65.531564 Z-0.125000
G01 X99.345981 Y65.548044 Z-0.125000
G01 X100.527507 Y65.827879 Z-0.125000
G01 X101.577580 Y66.349633 Z-0.125000
G01 X103.209726 Y67.800694 Z-0.125000
G01 X106.237507 Y71.751345 Z-0.125000
G01 X107.886326 Y73.492541 Z-0.125000
G01 X110.176055 Y75.202966 Z-0.125000
G01 X113.003246 Y76.557337 Z-0.125000
G01 X115.981137 Y77.438428 Z-0.125000
G01 X119.820034 Y78.094080 Z-0.125000
G01 X138.427683 Y79.237110 Z-0.125000
G01 X143.278930 Y79.880274 Z-0.125000
G01 X147.463195 Y80.810675 Z-0.125000
G01 X151.940878 Y82.351925 Z-0.125000
G01 X156.101518 Y84.467393 Z-0.125000
G01 X159.484452 Y86.828771 Z-0.125000
G01 X162.891590 Y89.973713 Z-0.125000
G01 X165.839740 Y93.531810 Z-0.125000
G01 X168.539148 Y97.792230 Z-0.125000
G01 X170.598997 Y102.157322 Z-0.125000
G01 X171.996048 Y106.407893 Z-0.125000
G01 X172.723348 Y110.363307 Z-0.125000
G01 X172.769247 Y114.233490 Z-0.125000
G01 X172.083404 Y117.544775 Z-0.125000
G01 X170.616313 Y120.563415 Z-0.125000
G01 X168.742313 Y122.895310 Z-0.125000
G01 X166.247165 Y125.101481 Z-0.125000
G01 X157.007586 Y131.118869 Z-0.125000
G01 X151.731147 Y135.135890 Z-0.125000
G01 X147.429914 Y139.023840 Z-0.125000
G01 X143.585287 Y143.052126 Z-0.125000
G01 X139.523462 Y147.972640 Z-0.125000
G01 X135.818013 Y153.151617 Z-0.125000
G01 X131.938303 Y159.347708 Z-0.125000
G01 X125.065702 Y171.380230 Z-0.125000
G01 X123.283757 Y174.025370 Z-0.125000
G01 X121.591421 Y175.990138 Z-0.125000
G01 X120.119439 Y177.201019 Z-0.125000
G01 X118.470105 Y178.052948 Z-0.125000
G01 X116.817552 Y178.506207 Z-0.125000
G01 X112.146617 Y179.212136 Z-0.125000
G01 X110.797396 Y179.707174 Z-0.125000
G01 X109.663185 Y180.375959 Z-0.125000
G01 X108.414517 Y181.449658 Z-0.125000
G01 X107.200611 Y182.859584 Z-0.125000
G01 X102.704903 Y189.693238 Z-0.125000
G01 X100.512765 Y192.372239 Z-0.125000
G01 X98.027144 Y194.275722 Z-0.125000
G01 X96.702515 Y194.836165 Z-0.125000
G01 X95.225382 Y195.166920 Z-0.125000
G01 X93.570576 Y195.250993 Z-0.125000
G01 X91.718721 Y195.076796 Z-0.125000
G01 X87.779013 Y194.073329 Z-0.125000
G01 X82.702907 Y192.008138 Z-0.125000
G01 X76.484929 Y188.790517 Z-0.125000
G01 X69.409099 Y184.508403 Z-0.125000
G01 X62.571518 Y179.791633 Z-0.125000
G01 X56.596360 Y175.037591 Z-0.125000
G01 X52.200175 Y170.851266 Z-0.125000
G01 X49.230974 Y167.297612 Z-0.125000
G01 X47.072633 Y163.794041 Z-0.125000
G01 X45.964558 Y161.283507 Z-0.125000
G01 X43.760446 Y154.765223 Z-0.125000
G01 X42.062252 Y150.688656 Z-0.125000
G01 X38.991985 Y144.756629 Z-0.125000
G01 X29.187006 Y127.494918 Z-0.125000
G01 X28.284221 Y125.154719 Z-0.125000
G01 X28.348467 Y123.580574 Z-0.125000
G01 X29.012809 Y122.402911 Z-0.125000
G01 X30.452734 Y120.992212 Z-0.125000
G01 X41.712829 Y112.506328 Z-0.125000
G01 X50.838529 Y104.620733 Z-0.125000
G01 X58.657883 Y97.110634 Z-0.125000
G01 X75.069531 Y80.575387 Z-0.125000
G01 X82.924097 Y73.289568 Z-0.125000
G01 X86.762221 Y70.161557 Z-0.125000
G01 X90.285813 Y67.683082 Z-0.125000
G01 X93.447171 Y65.916973 Z-0.125000
G01 X96.211274 Y64.895288 Z-0.125000
G01 X97.729928 Y64.635216 Z-0.125000
G01 X99.090093 Y64.657619 Z-0.125000
G01 X100.299622 Y64.947689 Z-0.125000
G01 X101.372999 Y65.483798 Z-0.125000
G01 X103.036044 Y66.969879 Z-0.125000
G01 X106.103415 Y71.006534 Z-0.125000
G01 X107.774830 Y72.780368 Z-0.125000
G01 X110.101381 Y74.516671 Z-0.125000
G01 X112.979363 Y75.884239 Z-0.125000
G01 X116.013839 Y76.767068 Z-0.125000
G01 X119.926895 Y77.415961 Z-0.125000
G01 X138.870320 Y78.527383 Z-0.125000
G01 X143.256721 Y79.094650 Z-0.125000
G01 X147.523385 Y80.008443 Z-0.125000
G01 X152.096342 Y81.544414 Z-0.125000
G01 X156.354058 Y83.675718 Z-0.125000
G01 X160.235442 Y86.404480 Z-0.125000
G01 X163.693179 Y89.671991 Z-0.125000
G01 X166.689545 Y93.364887 Z-0.125000
G01 X169.439809 Y97.779548 Z-0.125000
G01 X171.546329 Y102.292315 Z-0.125000
G01 X172.983356 Y106.673823 Z-0.125000
G01 X173.740720 Y110.736678 Z-0.125000
G01 X173.804965 Y114.694603 Z-0.125000
G01 X173.120152 Y118.063568 Z-0.125000
G01 X171.785157 Y120.885351 Z-0.125000
G01 X169.924676 Y123.268487 Z-0.125000
G01 X167.429721 Y125.513284 Z-0.125000
G01 X157.849795 Y131.779156 Z-0.125000
G01 X152.518444 Y135.873297 Z-0.125000
G01 X148.186505 Y139.841458 Z-0.125000
G01 X144.328875 Y143.955619 Z-0.125000
G01 X140.271427 Y148.982802 Z-0.125000
G01 X136.588960 Y154.274176 Z-0.125000
G01 X132.754247 Y160.601397 Z-0.125000
G01 X125.978787 Y172.843780 Z-0.125000
G01 X124.201220 Y175.510228 Z-0.125000
G01 X122.680828 Y177.287538 Z-0.125000
G01 X120.987333 Y178.660835 Z-0.125000
G01 X119.280963 Y179.472144 Z-0.125000
G01 X117.554058 Y179.873775 Z-0.125000
G01 X112.624983 Y180.431772 Z-0.125000
G01 X111.200766 Y180.896490 Z-0.125000
G01 X109.841374 Y181.661707 Z-0.125000
G01 X108.542171 Y182.770297 Z-0.125000
G01 X107.285971 Y184.224190 Z-0.125000
G01 X102.850711 Y190.930383 Z-0.125000
G01 X100.636428 Y193.639833 Z-0.125000
G01 X99.342247 Y194.781833 Z-0.125000
G01 X98.132718 Y195.552393 Z-0.125000
G01 X96.797724 Y196.106399 Z-0.125000
G01 X95.306944 Y196.422283 Z-0.125000
G01 X93.633727 Y196.482151 Z-0.125000
G01 X91.757216 Y196.273579 Z-0.125000
G01 X87.753006 Y195.180117 Z-0.125000
G01 X82.575832 Y192.978902 Z-0.125000
G01 X76.216874 Y189.578008 Z-0.125000
G01 X68.970581 Y185.073609 Z-0.125000
G01 X61.971936 Y180.129792 Z-0.125000
G01 X56.269403 Y175.511193 Z-0.125000
G01 X51.716788 Y171.127496 Z-0.125000
G01 X48.654116 Y167.414387 Z-0.125000
G01 X46.594461 Y164.041495 Z-0.125000
G01 X45.283285 Y160.937238 Z-0.125000
G01 X42.961626 Y153.504517 Z-0.125000
G01 X41.468399 Y149.906830 Z-0.125000
G01 X38.118618 Y143.472040 Z-0.125000
G01 X28.383486 Y126.587884 Z-0.125000
G01 X27.530527 Y124.478274 Z-0.125000
G01 X27.546298 Y122.926145 Z-0.125000
G01 X28.178390 Y121.772236 Z-0.125000
G01 X29.590054 Y120.391214 Z-0.125000
G01 X40.816545 Y111.981548 Z-0.125000
G01 X49.960464 Y104.077736 Z-0.125000
G01 X57.810073 Y96.519743 Z-0.125000
G01 X74.355234 Y79.837465 Z-0.125000
G01 X81.818211 Y72.916133 Z-0.125000
G01 X86.236090 Y69.319670 Z-0.125000
G01 X89.834420 Y66.816475 Z-0.125000
G01 X93.069165 Y65.033758 Z-0.125000
G01 X95.900990 Y64.004928 Z-0.125000
G01 X97.457496 Y63.745692 Z-0.125000
G01 X98.851071 Y63.773051 Z-0.125000
G01 X100.089246 Y64.072327 Z-0.125000
G01 X101.186378 Y64.621698 Z-0.125000
G01 X102.880709 Y66.140674 Z-0.125000
G01 X105.987735 Y70.259213 Z-0.125000
G01 X107.681744 Y72.063560 Z-0.125000
G01 X110.045054 Y73.823489 Z-0.125000
G01 X112.973763 Y75.201936 Z-0.125000
G01 X116.064373 Y76.084636 Z-0.125000
G01 X119.583587 Y76.670056 Z-0.125000
G01 X123.980545 Y77.047740 Z-0.125000
G01 X139.319846 Y77.800662 Z-0.125000
G01 X143.770814 Y78.382541 Z-0.125000
G01 X148.096381 Y79.326977 Z-0.125000
G01 X152.729077 Y80.919468 Z-0.125000
G01 X157.040546 Y83.132013 Z-0.125000
G01 X160.971434 Y85.965447 Z-0.125000
G01 X164.476035 Y89.356621 Z-0.125000
G01 X167.517785 Y93.185411 Z-0.125000
G01 X170.316908 Y97.755279 Z-0.125000
G01 X172.469392 Y102.416235 Z-0.125000
G01 X173.946718 Y106.928745 Z-0.125000
G01 X174.735174 Y111.098719 Z-0.125000
G01 X174.819311 Y115.143678 Z-0.125000
G01 X174.136944 Y118.569614 Z-0.125000
G01 X172.787723 Y121.424936 Z-0.125000
G01 X170.900461 Y123.827063 Z-0.125000
G01 X168.369779 Y126.086215 Z-0.125000
G01 X159.061835 Y132.160767 Z-0.125000
G01 X153.720763 Y136.237205 Z-0.125000
G01 X149.366292 Y140.214700 Z-0.125000
G01 X145.062613 Y144.850293 Z-0.125000
G01 X141.014306 Y149.983629 Z-0.125000
G01 X137.360357 Y155.387014 Z-0.125000
G01 X133.867407 Y161.319299 Z-0.125000
G01 X127.112226 Y173.954944 Z-0.125000
G01 X125.330281 Y176.724262 Z-0.125000
G01 X123.602281 Y178.762353 Z-0.125000
G01 X121.870613 Y180.113054 Z-0.125000
G01 X120.103924 Y180.884452 Z-0.125000
G01 X118.298290 Y181.235549 Z-0.125000
G01 X113.097232 Y181.651150 Z-0.125000
G01 X111.594286 Y182.087414 Z-0.125000
G01 X110.165369 Y182.835122 Z-0.125000
G01 X108.807844 Y183.937596 Z-0.125000
G01 X107.505037 Y185.396124 Z-0.125000
G01 X102.810670 Y192.410091 Z-0.125000
G01 X100.741937 Y194.914444 Z-0.125000
G01 X99.438551 Y196.065070 Z-0.125000
G01 X98.220975 Y196.836789 Z-0.125000
G01 X96.876325 Y197.384679 Z-0.125000
G01 X95.372735 Y197.686080 Z-0.125000
G01 X93.681879 Y197.722000 Z-0.125000
G01 X91.781679 Y197.479309 Z-0.125000
G01 X87.714768 Y196.296045 Z-0.125000
G01 X82.438006 Y193.958743 Z-0.125000
G01 X75.939163 Y190.374253 Z-0.125000
G01 X68.522858 Y185.647313 Z-0.125000
G01 X61.363470 Y180.476254 Z-0.125000
G01 X55.546737 Y175.659640 Z-0.125000
G01 X50.932130 Y171.102197 Z-0.125000
G01 X48.076936 Y167.562383 Z-0.125000
G01 X45.977369 Y164.056559 Z-0.125000
G01 X44.604072 Y160.600432 Z-0.125000
G01 X42.483453 Y153.074818 Z-0.125000
G01 X40.891606 Y149.127129 Z-0.125000
G01 X37.246411 Y142.171679 Z-0.125000
G01 X27.498597 Y125.484637 Z-0.125000
G01 X26.773807 Y123.642760 Z-0.125000
G01 X26.826529 Y122.132217 Z-0.125000
G01 X27.500271 Y120.998972 Z-0.125000
G01 X28.767865 Y119.787833 Z-0.125000
G01 X39.494683 Y111.814883 Z-0.125000
G01 X48.565280 Y104.029713 Z-0.125000
G01 X56.407936 Y96.497598 Z-0.125000
G01 X73.090794 Y79.651423 Z-0.125000
G01 X81.221075 Y72.117892 Z-0.125000
G01 X85.720452 Y68.486538 Z-0.125000
G01 X89.394937 Y65.958816 Z-0.125000
G01 X92.704677 Y64.159168 Z-0.125000
G01 X95.605898 Y63.122227 Z-0.125000
G01 X97.201093 Y62.862927 Z-0.125000
G01 X98.628851 Y62.894342 Z-0.125000
G01 X99.896252 Y63.201794 Z-0.125000
G01 X101.017588 Y63.763266 Z-0.125000
G01 X102.743592 Y65.313142 Z-0.125000
G01 X105.890336 Y69.509381 Z-0.125000
G01 X107.607006 Y71.342310 Z-0.125000
G01 X110.007202 Y73.123418 Z-0.125000
G01 X112.625948 Y74.377172 Z-0.125000
G01 X115.714885 Y75.298626 Z-0.125000
G01 X119.716391 Y75.967539 Z-0.125000
G01 X124.192014 Y76.330353 Z-0.125000
G01 X139.206934 Y77.004545 Z-0.125000
G01 X144.287997 Y77.653824 Z-0.125000
G01 X148.668218 Y78.629030 Z-0.125000
G01 X153.355503 Y80.278493 Z-0.125000
G01 X157.715832 Y82.572922 Z-0.125000
G01 X161.691653 Y85.511866 Z-0.125000
G01 X165.239321 Y89.027669 Z-0.125000
G01 X168.323558 Y92.993383 Z-0.125000
G01 X171.169610 Y97.719229 Z-0.125000
G01 X173.367349 Y102.528633 Z-0.125000
G01 X174.885359 Y107.172016 Z-0.125000
G01 X175.706132 Y111.448465 Z-0.125000
G01 X175.811770 Y115.579750 Z-0.125000
G01 X175.133587 Y119.062142 Z-0.125000
G01 X173.771298 Y121.950810 Z-0.125000
G01 X172.051023 Y124.167475 Z-0.125000
G01 X169.521950 Y126.468405 Z-0.125000
G01 X159.872758 Y132.798523 Z-0.125000
G01 X154.479414 Y136.949957 Z-0.125000
G01 X150.097906 Y141.005152 Z-0.125000
G01 X145.786245 Y145.734153 Z-0.125000
G01 X142.138346 Y150.432189 Z-0.125000
G01 X138.472938 Y155.931492 Z-0.125000
G01 X134.691720 Y162.540287 Z-0.125000
G01 X128.057691 Y175.393839 Z-0.125000
G01 X126.284050 Y178.187941 Z-0.125000
G01 X124.734947 Y180.036191 Z-0.125000
G01 X122.968130 Y181.439165 Z-0.125000
G01 X121.144728 Y182.230518 Z-0.125000
G01 X119.049667 Y182.589147 Z-0.125000
G01 X113.562916 Y182.868339 Z-0.125000
G01 X111.785284 Y183.351017 Z-0.125000
G01 X110.294697 Y184.127500 Z-0.125000
G01 X108.886188 Y185.272140 Z-0.125000
G01 X107.541924 Y186.780043 Z-0.125000
G01 X102.917982 Y193.662621 Z-0.125000
G01 X100.647951 Y196.376320 Z-0.125000
G01 X99.320489 Y197.498557 Z-0.125000
G01 X98.076326 Y198.234999 Z-0.125000
G01 X96.697880 Y198.736282 Z-0.125000
G01 X95.422625 Y198.957343 Z-0.125000
G01 X93.715096 Y198.969639 Z-0.125000
G01 X91.792107 Y198.693151 Z-0.125000
G01 X87.664170 Y197.420536 Z-0.125000
G01 X82.289559 Y194.947275 Z-0.125000
G01 X75.652054 Y191.179190 Z-0.125000
G01 X68.066508 Y186.229707 Z-0.125000
G01 X61.244571 Y181.222030 Z-0.125000
G01 X55.231818 Y176.196200 Z-0.125000
G01 X50.451254 Y171.436622 Z-0.125000
G01 X47.500271 Y167.743854 Z-0.125000
G01 X45.354933 Y164.100076 Z-0.125000
G01 X44.001979 Y160.536765 Z-0.125000
G01 X42.016804 Y152.656192 Z-0.125000
G01 X40.481606 Y148.682753 Z-0.125000
G01 X36.607560 Y141.264387 Z-0.125000
G01 X26.753465 Y124.612044 Z-0.125000
G01 X26.051656 Y122.820056 Z-0.125000
G01 X26.097619 Y121.486993 Z-0.125000
G01 X26.742328 Y120.372223 Z-0.125000
G01 X27.986361 Y119.182007 Z-0.125000
G01 X38.668182 Y111.272401 Z-0.125000
G01 X47.740130 Y103.474742 Z-0.125000
G01 X55.023503 Y96.475196 Z-0.125000
G01 X72.390273 Y78.927598 Z-0.125000
G01 X80.633273 Y71.327375 Z-0.125000
G01 X85.215114 Y67.662160 Z-0.125000
G01 X88.967234 Y65.110106 Z-0.125000
G01 X92.353644 Y63.293077 Z-0.125000
G01 X95.325870 Y62.247123 Z-0.125000
G01 X96.960591 Y61.986922 Z-0.125000
G01 X98.423240 Y62.021362 Z-0.125000
G01 X99.720446 Y62.335959 Z-0.125000
G01 X100.866309 Y62.908504 Z-0.125000
G01 X102.624242 Y64.487220 Z-0.125000
G01 X105.810770 Y68.757103 Z-0.125000
G01 X107.550228 Y70.616619 Z-0.125000
G01 X109.987503 Y72.416653 Z-0.125000
G01 X112.650732 Y73.676587 Z-0.125000
G01 X115.794323 Y74.595144 Z-0.125000
G01 X119.866834 Y75.252534 Z-0.125000
G01 X139.662961 Y76.244671 Z-0.125000
G01 X144.243193 Y76.813289 Z-0.125000
G01 X148.694740 Y77.764677 Z-0.125000
G01 X153.464360 Y79.399913 Z-0.125000
G01 X157.908311 Y81.701229 Z-0.125000
G01 X161.969686 Y84.674485 Z-0.125000
G01 X165.605933 Y88.255177 Z-0.125000
G01 X168.782676 Y92.315328 Z-0.125000
G01 X171.736362 Y97.174944 Z-0.125000
G01 X174.045339 Y102.137624 Z-0.125000
G01 X175.798573 Y107.402926 Z-0.125000
G01 X176.653013 Y111.785207 Z-0.125000
