%
(Header)
(Generated by gcodetools from Inkscape.)
(Using default header. To add your own header create file "header" in the output dir.)
M3
(Header end.)
G21 (All units in mm)

(Start cutting path id: polyline41005)
(Change tool to Default tool)

G00 Z3.000000
G00 X10.085817 Y227.661065

G00 Z4.875000 (Fast pre-penetrate)
G01 Z-0.125000 F400.0(Penetrate)
G01 X16.992598 Y227.310942 Z-0.125000 F800.000000
G01 X25.068227 Y227.197410 Z-0.125000
G01 X43.982180 Y227.201564 Z-0.125000
G01 X66.083910 Y227.333802 Z-0.125000
G01 X88.079356 Y227.192859 Z-0.125000
G01 X107.099566 Y227.488425 Z-0.125000
G01 X116.450300 Y227.544066 Z-0.125000
G01 X125.907290 Y227.486969 Z-0.125000
G01 X145.246297 Y227.190345 Z-0.125000
G01 X152.046821 Y227.311789 Z-0.125000
G01 X166.922973 Y227.920806 Z-0.125000
G00 Z3.000000

(End cutting path id: polyline41005)


(Start cutting path id: polyline41003)
(Change tool to Default tool)

G00 Z3.000000
G00 X10.085817 Y226.411228

G00 Z4.875000 (Fast pre-penetrate)
G01 Z-0.125000 F400.0(Penetrate)
G01 X17.736394 Y226.009670 Z-0.125000 F800.000000
G01 X26.343331 Y225.877617 Z-0.125000
G01 X64.490035 Y225.942863 Z-0.125000
G01 X84.679094 Y225.871267 Z-0.125000
G01 X104.868153 Y226.179453 Z-0.125000
G01 X114.325143 Y226.235148 Z-0.125000
G01 X124.100903 Y226.173579 Z-0.125000
G01 X142.908600 Y225.867404 Z-0.125000
G01 X148.646559 Y225.965167 Z-0.125000
G01 X160.866245 Y226.531692 Z-0.125000
G01 X166.922973 Y226.649352 Z-0.125000
G00 Z3.000000

(End cutting path id: polyline41003)


(Start cutting path id: polyline41001)
(Change tool to Default tool)

G00 Z3.000000
G00 X10.085817 Y225.156893

G00 Z4.875000 (Fast pre-penetrate)
G01 Z-0.125000 F400.0(Penetrate)
G01 X18.586472 Y224.705964 Z-0.125000 F800.000000
G01 X27.618410 Y224.557877 Z-0.125000
G01 X81.172576 Y224.551156 Z-0.125000
G01 X102.636739 Y224.872731 Z-0.125000
G01 X112.306242 Y224.928981 Z-0.125000
G01 X122.507028 Y224.862544 Z-0.125000
G01 X140.677186 Y224.544224 Z-0.125000
G01 X147.052684 Y224.668208 Z-0.125000
G01 X159.697397 Y225.276484 Z-0.125000
G01 X163.310172 Y225.326411 Z-0.125000
G01 X166.922973 Y225.273680 Z-0.125000
G00 Z3.000000

(End cutting path id: polyline41001)


(Start cutting path id: polyline40999)
(Change tool to Default tool)

G00 Z3.000000
G00 X10.085817 Y223.894885

G00 Z4.875000 (Fast pre-penetrate)
G01 Z-0.125000 F400.0(Penetrate)
G01 X16.780085 Y223.515235 Z-0.125000 F800.000000
G01 X21.349195 Y223.343494 Z-0.125000
G01 X35.375269 Y223.223108 Z-0.125000
G01 X77.984827 Y223.235173 Z-0.125000
G01 X100.299042 Y223.566035 Z-0.125000
G01 X110.287315 Y223.624296 Z-0.125000
G01 X120.806897 Y223.557145 Z-0.125000
G01 X139.508338 Y223.222659 Z-0.125000
G01 X145.140014 Y223.350717 Z-0.125000
G01 X157.891009 Y223.979736 Z-0.125000
G01 X162.141350 Y223.983308 Z-0.125000
G01 X166.922973 Y223.798973 Z-0.125000
G00 Z3.000000

(End cutting path id: polyline40999)


(Start cutting path id: polyline40997)
(Change tool to Default tool)

G00 Z3.000000
G00 X10.085817 Y222.622002

G00 Z4.875000 (Fast pre-penetrate)
G01 Z-0.125000 F400.0(Penetrate)
G01 X21.667965 Y222.053572 Z-0.125000 F800.000000
G01 X33.356368 Y221.905300 Z-0.125000
G01 X74.265795 Y221.919323 Z-0.125000
G01 X98.067629 Y222.261032 Z-0.125000
G01 X108.587184 Y222.319901 Z-0.125000
G01 X119.425536 Y222.250448 Z-0.125000
G01 X133.557866 Y221.936256 Z-0.125000
G01 X138.233233 Y221.901199 Z-0.125000
G01 X143.014857 Y222.014255 Z-0.125000
G01 X152.790616 Y222.564773 Z-0.125000
G01 X157.253470 Y222.680422 Z-0.125000
G01 X161.503784 Y222.588242 Z-0.125000
G01 X166.922973 Y222.253041 Z-0.125000
G00 Z3.000000

(End cutting path id: polyline40997)


(Start cutting path id: polyline40995)
(Change tool to Default tool)

G00 Z3.000000
G00 X10.085817 Y221.335256

G00 Z4.875000 (Fast pre-penetrate)
G01 Z-0.125000 F400.0(Penetrate)
G01 X22.518017 Y220.749257 Z-0.125000 F800.000000
G01 X33.037599 Y220.588444 Z-0.125000
G01 X70.759250 Y220.606806 Z-0.125000
G01 X95.836215 Y220.955606 Z-0.125000
G01 X106.993310 Y221.014687 Z-0.125000
G01 X118.362944 Y220.941292 Z-0.125000
G01 X132.282788 Y220.615061 Z-0.125000
G01 X136.851872 Y220.578337 Z-0.125000
G01 X141.420982 Y220.691049 Z-0.125000
G01 X150.771716 Y221.243075 Z-0.125000
G01 X155.022030 Y221.357640 Z-0.125000
G01 X159.803653 Y221.218151 Z-0.125000
G01 X166.922973 Y220.679566 Z-0.125000
G00 Z3.000000

(End cutting path id: polyline40995)


(Start cutting path id: polyline40993)
(Change tool to Default tool)

G00 Z3.000000
G00 X10.085817 Y220.031920

G00 Z4.875000 (Fast pre-penetrate)
G01 Z-0.125000 F400.0(Penetrate)
G01 X23.580609 Y219.438116 Z-0.125000 F800.000000
G01 X33.037599 Y219.272964 Z-0.125000
G01 X67.358988 Y219.295453 Z-0.125000
G01 X93.604775 Y219.649015 Z-0.125000
G01 X105.505692 Y219.707753 Z-0.125000
G01 X117.619148 Y219.628510 Z-0.125000
G01 X134.726715 Y219.252511 Z-0.125000
G01 X139.614595 Y219.351465 Z-0.125000
G01 X149.177841 Y219.931299 Z-0.125000
G01 X153.428156 Y220.033931 Z-0.125000
G01 X157.997266 Y219.862164 Z-0.125000
G01 X166.922973 Y219.128131 Z-0.125000
G00 Z3.000000

(End cutting path id: polyline40993)


(Start cutting path id: polyline40991)
(Change tool to Default tool)

G00 Z3.000000
G00 X10.085817 Y218.709799

G00 Z4.875000 (Fast pre-penetrate)
G01 Z-0.125000 F400.0(Penetrate)
G01 X13.804849 Y218.640425 Z-0.125000 F800.000000
G01 X25.386996 Y218.102422 Z-0.125000
G01 X34.525217 Y217.948937 Z-0.125000
G01 X64.277522 Y217.984048 Z-0.125000
G01 X91.267105 Y218.339515 Z-0.125000
G01 X104.124357 Y218.398464 Z-0.125000
G01 X116.769070 Y218.317845 Z-0.125000
G01 X133.664149 Y217.929596 Z-0.125000
G01 X138.339490 Y218.028233 Z-0.125000
G01 X147.583967 Y218.610448 Z-0.125000
G01 X151.728025 Y218.710196 Z-0.125000
G01 X155.872109 Y218.542926 Z-0.125000
G01 X163.522711 Y217.856016 Z-0.125000
G01 X166.922973 Y217.643476 Z-0.125000
G00 Z3.000000

(End cutting path id: polyline40991)


(Start cutting path id: polyline40989)
(Change tool to Default tool)

G00 Z3.000000
G00 X10.085817 Y217.367463

G00 Z4.875000 (Fast pre-penetrate)
G01 Z-0.125000 F400.0(Penetrate)
G01 X14.548645 Y217.333888 Z-0.125000 F800.000000
G01 X27.405897 Y216.760775 Z-0.125000
G01 X36.119091 Y216.623377 Z-0.125000
G01 X61.196030 Y216.667906 Z-0.125000
G01 X88.823152 Y217.026786 Z-0.125000
G01 X102.742996 Y217.086476 Z-0.125000
G01 X115.919017 Y217.007339 Z-0.125000
G01 X132.707814 Y216.606708 Z-0.125000
G01 X137.276924 Y216.709419 Z-0.125000
G01 X146.096349 Y217.286871 Z-0.125000
G01 X150.027894 Y217.387704 Z-0.125000
G01 X154.278234 Y217.201517 Z-0.125000
G01 X162.885146 Y216.402476 Z-0.125000
G01 X166.922973 Y216.256797 Z-0.125000
G00 Z3.000000

(End cutting path id: polyline40989)


(Start cutting path id: polyline40987)
(Change tool to Default tool)

G00 Z3.000000
G00 X10.085817 Y216.004252

G00 Z4.875000 (Fast pre-penetrate)
G01 Z-0.125000 F400.0(Penetrate)
G01 X14.867441 Y216.037722 Z-0.125000 F800.000000
G01 X27.724666 Y215.469742 Z-0.125000
G01 X37.606683 Y215.297789 Z-0.125000
G01 X57.902024 Y215.342980 Z-0.125000
G01 X86.485482 Y215.712629 Z-0.125000
G01 X101.574147 Y215.771631 Z-0.125000
G01 X115.281452 Y215.693156 Z-0.125000
G01 X131.751479 Y215.283766 Z-0.125000
G01 X136.214333 Y215.386504 Z-0.125000
G01 X144.821244 Y215.967581 Z-0.125000
G01 X148.540276 Y216.064815 Z-0.125000
G01 X152.578103 Y215.881883 Z-0.125000
G01 X161.503784 Y215.029608 Z-0.125000
G01 X164.160251 Y214.935998 Z-0.125000
G01 X166.922973 Y214.980607 Z-0.125000
G00 Z3.000000

(End cutting path id: polyline40987)


(Start cutting path id: polyline40985)
(Change tool to Default tool)

G00 Z3.000000
G00 X10.085817 Y214.620616

G00 Z4.875000 (Fast pre-penetrate)
G01 Z-0.125000 F400.0(Penetrate)
G01 X12.742257 Y214.731635 Z-0.125000 F800.000000
G01 X15.717493 Y214.723168 Z-0.125000
G01 X29.212284 Y214.141958 Z-0.125000
G01 X39.200557 Y213.971091 Z-0.125000
G01 X54.926789 Y214.011863 Z-0.125000
G01 X84.147811 Y214.395694 Z-0.125000
G01 X100.405299 Y214.454140 Z-0.125000
G01 X114.537656 Y214.380136 Z-0.125000
G01 X131.007683 Y213.960957 Z-0.125000
G01 X135.257997 Y214.064991 Z-0.125000
G01 X143.546139 Y214.642153 Z-0.125000
G01 X147.052684 Y214.742694 Z-0.125000
G01 X150.877972 Y214.575504 Z-0.125000
G01 X157.678496 Y213.858775 Z-0.125000
G01 X160.441219 Y213.658962 Z-0.125000
G01 X163.522711 Y213.621603 Z-0.125000
G01 X166.922973 Y213.807870 Z-0.125000
G00 Z3.000000

(End cutting path id: polyline40985)


(Start cutting path id: polyline40983)
(Change tool to Default tool)

G00 Z3.000000
G00 X10.085817 Y213.217955

G00 Z4.875000 (Fast pre-penetrate)
G01 Z-0.125000 F400.0(Penetrate)
G01 X13.273566 Y213.393929 Z-0.125000 F800.000000
G01 X16.673828 Y213.405545 Z-0.125000
G01 X30.806159 Y212.809862 Z-0.125000
G01 X40.688175 Y212.644921 Z-0.125000
G01 X55.776841 Y212.707972 Z-0.125000
G01 X83.297733 Y213.089262 Z-0.125000
G01 X99.342734 Y213.134294 Z-0.125000
G01 X113.900117 Y213.064629 Z-0.125000
G01 X130.157604 Y212.637989 Z-0.125000
G01 X134.407945 Y212.745728 Z-0.125000
G01 X142.377317 Y213.317280 Z-0.125000
G01 X145.777579 Y213.419938 Z-0.125000
G01 X149.496611 Y213.254441 Z-0.125000
G01 X156.297135 Y212.511545 Z-0.125000
G01 X159.272371 Y212.311229 Z-0.125000
G01 X162.778889 Y212.344196 Z-0.125000
G01 X166.922973 Y212.714930 Z-0.125000
G00 Z3.000000

(End cutting path id: polyline40983)


(Start cutting path id: polyline40981)
(Change tool to Default tool)

G00 Z3.000000
G00 X10.085817 Y211.798811

G00 Z4.875000 (Fast pre-penetrate)
G01 Z-0.125000 F400.0(Penetrate)
G01 X13.804849 Y212.049821 Z-0.125000 F800.000000
G01 X17.523880 Y212.088927 Z-0.125000
G01 X33.037599 Y211.457764 Z-0.125000
G01 X44.300950 Y211.315021 Z-0.125000
G01 X55.564328 Y211.392518 Z-0.125000
G01 X82.022628 Y211.775211 Z-0.125000
G01 X107.418362 Y211.802066 Z-0.125000
G01 X115.281452 Y211.710203 Z-0.125000
G01 X129.520065 Y211.315339 Z-0.125000
G01 X133.557866 Y211.424030 Z-0.125000
G01 X141.314726 Y211.993941 Z-0.125000
G01 X144.714988 Y212.096626 Z-0.125000
G01 X148.540276 Y211.905888 Z-0.125000
G01 X155.872109 Y211.092851 Z-0.125000
G01 X158.953601 Y210.964793 Z-0.125000
G01 X162.460120 Y211.128940 Z-0.125000
G01 X166.922973 Y211.667076 Z-0.125000
G00 Z3.000000

(End cutting path id: polyline40981)


(Start cutting path id: polyline40979)
(Change tool to Default tool)

G00 Z3.000000
G00 X10.085817 Y210.366782

G00 Z4.875000 (Fast pre-penetrate)
G01 Z-0.125000 F400.0(Penetrate)
G01 X14.017362 Y210.683038 Z-0.125000 F800.000000
G01 X17.842650 Y210.774029 Z-0.125000
G01 X21.774221 Y210.682536 Z-0.125000
G01 X33.568882 Y210.156545 Z-0.125000
G01 X41.644510 Y210.003351 Z-0.125000
G01 X53.120401 Y210.045288 Z-0.125000
G01 X79.897471 Y210.451449 Z-0.125000
G01 X101.467891 Y210.489708 Z-0.125000
G01 X113.475064 Y210.416339 Z-0.125000
G01 X128.776269 Y209.992477 Z-0.125000
G01 X132.707814 Y210.100268 Z-0.125000
G01 X140.358417 Y210.673011 Z-0.125000
G01 X143.652422 Y210.773711 Z-0.125000
G01 X146.840145 Y210.630307 Z-0.125000
G01 X153.959465 Y209.815815 Z-0.125000
G01 X157.465983 Y209.641878 Z-0.125000
G01 X161.185015 Y209.846771 Z-0.125000
G01 X166.922973 Y210.625148 Z-0.125000
G00 Z3.000000

(End cutting path id: polyline40979)


(Start cutting path id: polyline40977)
(Change tool to Default tool)

G00 Z3.000000
G00 X10.085817 Y208.926287

G00 Z4.875000 (Fast pre-penetrate)
G01 Z-0.125000 F400.0(Penetrate)
G01 X14.761184 Y209.335173 Z-0.125000 F800.000000
G01 X19.011498 Y209.451352 Z-0.125000
G01 X23.155583 Y209.356790 Z-0.125000
G01 X34.950243 Y208.828708 Z-0.125000
G01 X42.707076 Y208.679034 Z-0.125000
G01 X52.907888 Y208.720335 Z-0.125000
G01 X78.516109 Y209.130756 Z-0.125000
G01 X102.105430 Y209.166819 Z-0.125000
G01 X113.156295 Y209.091916 Z-0.125000
G01 X124.632185 Y208.718430 Z-0.125000
G01 X128.138704 Y208.669906 Z-0.125000
G01 X131.963992 Y208.780528 Z-0.125000
G01 X139.402082 Y209.348826 Z-0.125000
G01 X142.589830 Y209.451114 Z-0.125000
G01 X146.202605 Y209.268816 Z-0.125000
G01 X153.321899 Y208.436702 Z-0.125000
G01 X156.190878 Y208.319254 Z-0.125000
G01 X157.997266 Y208.380822 Z-0.125000
G01 X159.909910 Y208.553225 Z-0.125000
G01 X166.922973 Y209.551946 Z-0.125000
G00 Z3.000000

(End cutting path id: polyline40977)


(Start cutting path id: polyline40975)
(Change tool to Default tool)

G00 Z3.000000
G00 X10.085817 Y207.482510

G00 Z4.875000 (Fast pre-penetrate)
G01 Z-0.125000 F400.0(Penetrate)
G01 X15.504980 Y207.983366 Z-0.125000 F800.000000
G01 X20.286603 Y208.128437 Z-0.125000
G01 X24.536944 Y208.031758 Z-0.125000
G01 X36.331604 Y207.500290 Z-0.125000
G01 X43.663411 Y207.355537 Z-0.125000
G01 X52.907888 Y207.395304 Z-0.125000
G01 X77.453544 Y207.809773 Z-0.125000
G01 X102.211686 Y207.843931 Z-0.125000
G01 X112.625012 Y207.770138 Z-0.125000
G01 X123.994646 Y207.394245 Z-0.125000
G01 X127.501165 Y207.347414 Z-0.125000
G01 X131.220196 Y207.459730 Z-0.125000
G01 X138.445746 Y208.021704 Z-0.125000
G01 X141.633495 Y208.128225 Z-0.125000
G01 X144.714988 Y207.988737 Z-0.125000
G01 X151.621768 Y207.160857 Z-0.125000
G01 X154.915773 Y206.996339 Z-0.125000
G01 X156.615904 Y207.054918 Z-0.125000
G01 X158.422292 Y207.220838 Z-0.125000
G01 X164.479020 Y208.136903 Z-0.125000
G01 X166.922973 Y208.417229 Z-0.125000
G00 Z3.000000

(End cutting path id: polyline40975)


(Start cutting path id: polyline40973)
(Change tool to Default tool)

G00 Z3.000000
G00 X10.085817 Y206.041036

G00 Z4.875000 (Fast pre-penetrate)
G01 Z-0.125000 F400.0(Penetrate)
G01 X16.355059 Y206.634575 Z-0.125000 F800.000000
G01 X21.455452 Y206.805627 Z-0.125000
G01 X25.812022 Y206.711542 Z-0.125000
G01 X37.712939 Y206.171501 Z-0.125000
G01 X44.619746 Y206.032198 Z-0.125000
G01 X53.120401 Y206.070854 Z-0.125000
G01 X76.603465 Y206.487731 Z-0.125000
G01 X102.105430 Y206.521016 Z-0.125000
G01 X112.199986 Y206.444763 Z-0.125000
G01 X123.250824 Y206.072785 Z-0.125000
G01 X126.757342 Y206.024420 Z-0.125000
G01 X130.476400 Y206.138270 Z-0.125000
G01 X137.595694 Y206.699212 Z-0.125000
G01 X140.677186 Y206.805522 Z-0.125000
G01 X144.289961 Y206.616980 Z-0.125000
G01 X151.090485 Y205.785951 Z-0.125000
G01 X153.853208 Y205.674191 Z-0.125000
G01 X156.934700 Y205.873898 Z-0.125000
G01 X163.628968 Y206.910746 Z-0.125000
G01 X166.922973 Y207.200809 Z-0.125000
G00 Z3.000000

(End cutting path id: polyline40973)


(Start cutting path id: polyline40971)
(Change tool to Default tool)

G00 Z3.000000
G00 X10.085817 Y204.607710

G00 Z4.875000 (Fast pre-penetrate)
G01 Z-0.125000 F400.0(Penetrate)
G01 X17.205111 Y205.282211 Z-0.125000 F800.000000
G01 X22.199247 Y205.480543 Z-0.125000
G01 X26.980871 Y205.396009 Z-0.125000
G01 X39.306814 Y204.835490 Z-0.125000
G01 X45.682311 Y204.708252 Z-0.125000
G01 X53.545427 Y204.747410 Z-0.125000
G01 X75.965926 Y205.164763 Z-0.125000
G01 X101.574147 Y205.198101 Z-0.125000
G01 X111.668677 Y205.119784 Z-0.125000
G01 X125.588521 Y204.700473 Z-0.125000
G01 X129.520065 Y204.804639 Z-0.125000
G01 X136.851872 Y205.381986 Z-0.125000
G01 X139.827108 Y205.482554 Z-0.125000
G01 X142.908600 Y205.338250 Z-0.125000
G01 X149.602867 Y204.505237 Z-0.125000
G01 X152.684360 Y204.350721 Z-0.125000
G01 X154.384491 Y204.418454 Z-0.125000
G01 X156.084622 Y204.592205 Z-0.125000
G01 X163.310172 Y205.725547 Z-0.125000
G01 X165.116586 Y205.868210 Z-0.125000
G01 X166.922973 Y205.893689 Z-0.125000
G00 Z3.000000

(End cutting path id: polyline40971)


(Start cutting path id: polyline40969)
(Change tool to Default tool)

G00 Z3.000000
G00 X10.085817 Y203.188222

G00 Z4.875000 (Fast pre-penetrate)
G01 Z-0.125000 F400.0(Penetrate)
G01 X18.373959 Y203.949560 Z-0.125000 F800.000000
G01 X23.580609 Y204.157760 Z-0.125000
G01 X28.468489 Y204.069046 Z-0.125000
G01 X40.581919 Y203.510114 Z-0.125000
G01 X46.638647 Y203.385390 Z-0.125000
G01 X54.076710 Y203.423781 Z-0.125000
G01 X75.540873 Y203.840922 Z-0.125000
G01 X100.830352 Y203.875186 Z-0.125000
G01 X110.924881 Y203.797319 Z-0.125000
G01 X124.844698 Y203.377531 Z-0.125000
G01 X128.882526 Y203.488789 Z-0.125000
G01 X135.895563 Y204.049519 Z-0.125000
G01 X138.870799 Y204.159797 Z-0.125000
G01 X141.952291 Y204.022664 Z-0.125000
G01 X148.646559 Y203.180946 Z-0.125000
G01 X151.728025 Y203.028414 Z-0.125000
G01 X153.321899 Y203.095856 Z-0.125000
G01 X155.022030 Y203.275349 Z-0.125000
G01 X160.334962 Y204.177339 Z-0.125000
G01 X162.460120 Y204.454199 Z-0.125000
G01 X164.691533 Y204.574558 Z-0.125000
G01 X166.922973 Y204.497485 Z-0.125000
G00 Z3.000000

(End cutting path id: polyline40969)


(Start cutting path id: polyline40967)
(Change tool to Default tool)

G00 Z3.000000
G00 X10.085817 Y201.787758

G00 Z4.875000 (Fast pre-penetrate)
G01 Z-0.125000 F400.0(Penetrate)
G01 X19.755321 Y202.629476 Z-0.125000 F800.000000
G01 X24.855714 Y202.833946 Z-0.125000
G01 X29.212284 Y202.770049 Z-0.125000
G01 X40.900688 Y202.219875 Z-0.125000
G01 X47.701239 Y202.062051 Z-0.125000
G01 X54.714276 Y202.100019 Z-0.125000
G01 X75.328360 Y202.516208 Z-0.125000
G01 X99.767760 Y202.552271 Z-0.125000
G01 X110.074802 Y202.474933 Z-0.125000
G01 X124.100903 Y202.054616 Z-0.125000
G01 X128.032447 Y202.161746 Z-0.125000
G01 X135.151741 Y202.730573 Z-0.125000
G01 X138.126977 Y202.836830 Z-0.125000
G01 X141.102213 Y202.700067 Z-0.125000
G01 X147.690223 Y201.861153 Z-0.125000
G01 X150.665459 Y201.704811 Z-0.125000
G01 X152.259334 Y201.768576 Z-0.125000
G01 X153.853208 Y201.935025 Z-0.125000
G01 X159.378627 Y202.890011 Z-0.125000
G01 X161.716297 Y203.176766 Z-0.125000
G01 X164.266507 Y203.242594 Z-0.125000
G01 X166.922973 Y203.022673 Z-0.125000
G00 Z3.000000

(End cutting path id: polyline40967)


(Start cutting path id: polyline40965)
(Change tool to Default tool)

G00 Z3.000000
G00 X10.085817 Y200.410868

G00 Z4.875000 (Fast pre-penetrate)
G01 Z-0.125000 F400.0(Penetrate)
G01 X13.273566 Y200.601632 Z-0.125000 F800.000000
G01 X21.455452 Y201.328283 Z-0.125000
G01 X26.449588 Y201.512248 Z-0.125000
G01 X31.337468 Y201.421734 Z-0.125000
G01 X43.769667 Y200.839784 Z-0.125000
G01 X50.570191 Y200.731701 Z-0.125000
G01 X56.414406 Y200.793614 Z-0.125000
G01 X72.671921 Y201.158580 Z-0.125000
G01 X85.529146 Y201.229356 Z-0.125000
G01 X106.887053 Y201.188848 Z-0.125000
G01 X120.594384 Y200.770489 Z-0.125000
G01 X123.994646 Y200.734876 Z-0.125000
G01 X127.926191 Y200.880132 Z-0.125000
G01 X134.939228 Y201.444356 Z-0.125000
G01 X137.595694 Y201.512168 Z-0.125000
G01 X140.464673 Y201.359557 Z-0.125000
G01 X146.733888 Y200.545488 Z-0.125000
G01 X149.602867 Y200.381446 Z-0.125000
G01 X151.196742 Y200.437644 Z-0.125000
G01 X152.790616 Y200.600997 Z-0.125000
G01 X158.528575 Y201.607312 Z-0.125000
G01 X160.972502 Y201.885098 Z-0.125000
G01 X163.841481 Y201.878351 Z-0.125000
G01 X166.922973 Y201.486133 Z-0.125000
G00 Z3.000000

(End cutting path id: polyline40965)


(Start cutting path id: polyline40963)
(Change tool to Default tool)

G00 Z3.000000
G00 X10.085817 Y199.061124

G00 Z4.875000 (Fast pre-penetrate)
G01 Z-0.125000 F400.0(Penetrate)
G01 X14.017362 Y199.235855 Z-0.125000 F800.000000
G01 X23.155583 Y200.022963 Z-0.125000
G01 X27.937206 Y200.189518 Z-0.125000
G01 X32.187520 Y200.121123 Z-0.125000
G01 X43.557154 Y199.570447 Z-0.125000
G01 X49.932652 Y199.415771 Z-0.125000
G01 X56.308150 Y199.452363 Z-0.125000
G01 X75.328360 Y199.861885 Z-0.125000
G01 X96.048728 Y199.906414 Z-0.125000
G01 X107.843389 Y199.832966 Z-0.125000
G01 X122.400772 Y199.408813 Z-0.125000
G01 X126.332316 Y199.511312 Z-0.125000
G01 X133.664149 Y200.092733 Z-0.125000
G01 X136.745615 Y200.189650 Z-0.125000
G01 X139.614595 Y200.039579 Z-0.125000
G01 X145.777579 Y199.232997 Z-0.125000
G01 X148.646559 Y199.058664 Z-0.125000
G01 X150.134150 Y199.104357 Z-0.125000
G01 X151.728025 Y199.260699 Z-0.125000
G01 X157.678496 Y200.313925 Z-0.125000
G01 X160.334962 Y200.587557 Z-0.125000
G01 X161.822580 Y200.597743 Z-0.125000
G01 X163.310172 Y200.499265 Z-0.125000
G01 X166.922973 Y199.908451 Z-0.125000
G00 Z3.000000

(End cutting path id: polyline40963)


(Start cutting path id: polyline40961)
(Change tool to Default tool)

G00 Z3.000000
G00 X10.085817 Y197.740829

G00 Z4.875000 (Fast pre-penetrate)
G01 Z-0.125000 F400.0(Penetrate)
G01 X14.229875 Y197.838910 Z-0.125000 F800.000000
G01 X24.218148 Y198.673378 Z-0.125000
G01 X29.637337 Y198.867582 Z-0.125000
G01 X34.418934 Y198.770242 Z-0.125000
G01 X46.319877 Y198.194350 Z-0.125000
G01 X52.801631 Y198.085871 Z-0.125000
G01 X74.478308 Y198.518597 Z-0.125000
G01 X89.992000 Y198.583393 Z-0.125000
G01 X105.718231 Y198.524206 Z-0.125000
G01 X118.787997 Y198.124765 Z-0.125000
G01 X122.294515 Y198.089311 Z-0.125000
G01 X125.694777 Y198.200568 Z-0.125000
G01 X132.814071 Y198.767781 Z-0.125000
G01 X135.895563 Y198.867026 Z-0.125000
G01 X138.764542 Y198.719839 Z-0.125000
G01 X145.033757 Y197.899605 Z-0.125000
G01 X147.902736 Y197.735722 Z-0.125000
G01 X150.665459 Y197.916062 Z-0.125000
G01 X157.147214 Y199.058875 Z-0.125000
G01 X158.741088 Y199.232124 Z-0.125000
G01 X160.228706 Y199.283850 Z-0.125000
G01 X161.610041 Y199.228420 Z-0.125000
G01 X163.097659 Y199.063770 Z-0.125000
G01 X166.922973 Y198.311534 Z-0.125000
G00 Z3.000000

(End cutting path id: polyline40961)


(Start cutting path id: polyline40959)
(Change tool to Default tool)

G00 Z3.000000
G00 X10.085817 Y196.451013

G00 Z4.875000 (Fast pre-penetrate)
G01 Z-0.125000 F400.0(Penetrate)
G01 X12.742257 Y196.416035 Z-0.125000 F800.000000
G01 X15.398723 Y196.503930 Z-0.125000
G01 X25.599509 Y197.341388 Z-0.125000
G01 X30.699902 Y197.541704 Z-0.125000
G01 X35.269013 Y197.472806 Z-0.125000
G01 X46.319877 Y196.922765 Z-0.125000
G01 X52.376579 Y196.769862 Z-0.125000
G01 X58.433307 Y196.806322 Z-0.125000
G01 X75.753386 Y197.197216 Z-0.125000
G01 X91.160848 Y197.258494 Z-0.125000
G01 X105.186922 Y197.185178 Z-0.125000
G01 X120.594384 Y196.762983 Z-0.125000
G01 X124.738442 Y196.874663 Z-0.125000
G01 X131.857735 Y197.437193 Z-0.125000
G01 X134.832971 Y197.545222 Z-0.125000
G01 X137.808207 Y197.409359 Z-0.125000
G01 X144.289961 Y196.567668 Z-0.125000
G01 X147.265197 Y196.414262 Z-0.125000
G01 X148.752815 Y196.483901 Z-0.125000
G01 X150.346690 Y196.667415 Z-0.125000
G01 X156.509648 Y197.778373 Z-0.125000
G01 X159.166114 Y197.961094 Z-0.125000
G01 X160.759989 Y197.890424 Z-0.125000
G01 X162.353863 Y197.690373 Z-0.125000
G01 X166.922973 Y196.716575 Z-0.125000
G00 Z3.000000

(End cutting path id: polyline40959)


(Start cutting path id: polyline40957)
(Change tool to Default tool)

G00 Z3.000000
G00 X10.085817 Y195.191280

G00 Z4.875000 (Fast pre-penetrate)
G01 Z-0.125000 F400.0(Penetrate)
G01 X13.167310 Y195.090871 Z-0.125000 F800.000000
G01 X16.355059 Y195.156779 Z-0.125000
G01 X27.299640 Y196.027601 Z-0.125000
G01 X32.293777 Y196.218921 Z-0.125000
G01 X36.862887 Y196.148806 Z-0.125000
G01 X47.807495 Y195.597812 Z-0.125000
G01 X53.651684 Y195.447503 Z-0.125000
G01 X59.602155 Y195.481925 Z-0.125000
G01 X76.390952 Y195.862977 Z-0.125000
G01 X90.629539 Y195.929732 Z-0.125000
G01 X104.018100 Y195.852076 Z-0.125000
G01 X119.531792 Y195.440041 Z-0.125000
G01 X123.782133 Y195.551960 Z-0.125000
G01 X131.007683 Y196.115760 Z-0.125000
G01 X133.982919 Y196.222281 Z-0.125000
G01 X137.064411 Y196.078348 Z-0.125000
G01 X143.546139 Y195.236339 Z-0.125000
G01 X146.415119 Y195.091136 Z-0.125000
G01 X147.902736 Y195.159980 Z-0.125000
G01 X149.496611 Y195.344157 Z-0.125000
G01 X155.659596 Y196.463290 Z-0.125000
G01 X158.209779 Y196.638179 Z-0.125000
G01 X159.803653 Y196.565286 Z-0.125000
G01 X161.503784 Y196.339729 Z-0.125000
G01 X166.922973 Y195.142544 Z-0.125000
G00 Z3.000000

(End cutting path id: polyline40957)


(Start cutting path id: polyline40955)
(Change tool to Default tool)

G00 Z3.000000
G00 X10.085817 Y193.959752

G00 Z4.875000 (Fast pre-penetrate)
G01 Z-0.125000 F400.0(Penetrate)
G01 X13.804849 Y193.778301 Z-0.125000 F800.000000
G01 X17.417624 Y193.815131 Z-0.125000
G01 X20.711629 Y194.012087 Z-0.125000
G01 X28.999771 Y194.710216 Z-0.125000
G01 X33.993908 Y194.896667 Z-0.125000
G01 X38.456761 Y194.826447 Z-0.125000
G01 X49.295086 Y194.275638 Z-0.125000
G01 X55.033045 Y194.125090 Z-0.125000
G01 X60.983517 Y194.158904 Z-0.125000
G01 X77.347261 Y194.527177 Z-0.125000
G01 X90.204513 Y194.594963 Z-0.125000
G01 X102.849252 Y194.513551 Z-0.125000
G01 X118.362944 Y194.117126 Z-0.125000
G01 X122.719541 Y194.227405 Z-0.125000
G01 X130.157604 Y194.796840 Z-0.125000
G01 X133.132840 Y194.899340 Z-0.125000
G01 X136.214333 Y194.755062 Z-0.125000
G01 X142.696087 Y193.915805 Z-0.125000
G01 X145.565066 Y193.767983 Z-0.125000
G01 X147.052684 Y193.835398 Z-0.125000
G01 X148.646559 Y194.018913 Z-0.125000
G01 X154.809517 Y195.144291 Z-0.125000
G01 X157.359727 Y195.315132 Z-0.125000
G01 X158.953601 Y195.234328 Z-0.125000
G01 X160.653732 Y194.996309 Z-0.125000
G01 X166.922973 Y193.605317 Z-0.125000
G00 Z3.000000

(End cutting path id: polyline40955)


(Start cutting path id: polyline40953)
(Change tool to Default tool)

G00 Z3.000000
G00 X10.085817 Y192.753254

G00 Z4.875000 (Fast pre-penetrate)
G01 Z-0.125000 F400.0(Penetrate)
G01 X14.442388 Y192.478273 Z-0.125000 F800.000000
G01 X18.480216 Y192.474542 Z-0.125000
G01 X22.092991 Y192.671392 Z-0.125000
G01 X31.018672 Y193.409340 Z-0.125000
G01 X36.331604 Y193.576477 Z-0.125000
G01 X40.369405 Y193.494192 Z-0.125000
G01 X50.782704 Y192.956877 Z-0.125000
G01 X56.520663 Y192.802705 Z-0.125000
G01 X62.364852 Y192.833079 Z-0.125000
G01 X78.303596 Y193.184445 Z-0.125000
G01 X89.885743 Y193.251755 Z-0.125000
G01 X101.361634 Y193.173597 Z-0.125000
G01 X117.831661 Y192.796513 Z-0.125000
G01 X121.869463 Y192.918724 Z-0.125000
G01 X129.201296 Y193.474322 Z-0.125000
G01 X132.176531 Y193.576477 Z-0.125000
G01 X135.364280 Y193.429131 Z-0.125000
G01 X141.846008 Y192.594134 Z-0.125000
G01 X144.714988 Y192.444882 Z-0.125000
G01 X146.308862 Y192.519468 Z-0.125000
G01 X147.902736 Y192.708725 Z-0.125000
G01 X153.959465 Y193.822381 Z-0.125000
G01 X156.509648 Y193.992058 Z-0.125000
G01 X158.103522 Y193.906386 Z-0.125000
G01 X159.697397 Y193.678845 Z-0.125000
G01 X164.904046 Y192.472849 Z-0.125000
G01 X166.922973 Y192.117091 Z-0.125000
G00 Z3.000000

(End cutting path id: polyline40953)


(Start cutting path id: polyline40951)
(Change tool to Default tool)

G00 Z3.000000
G00 X10.085817 Y191.567314

G00 Z4.875000 (Fast pre-penetrate)
G01 Z-0.125000 F400.0(Penetrate)
G01 X15.186210 Y191.187743 Z-0.125000 F800.000000
G01 X19.755321 Y191.141414 Z-0.125000
G01 X23.580609 Y191.334110 Z-0.125000
G01 X32.825086 Y192.091135 Z-0.125000
G01 X38.137992 Y192.253562 Z-0.125000
G01 X42.175793 Y192.168049 Z-0.125000
G01 X52.482835 Y191.632983 Z-0.125000
G01 X58.114537 Y191.480583 Z-0.125000
G01 X63.852470 Y191.506116 Z-0.125000
G01 X79.472445 Y191.835971 Z-0.125000
G01 X89.566974 Y191.897460 Z-0.125000
G01 X99.980273 Y191.823615 Z-0.125000
G01 X116.344043 Y191.472857 Z-0.125000
G01 X120.594384 Y191.592687 Z-0.125000
G01 X128.244960 Y192.155640 Z-0.125000
G01 X131.326453 Y192.253245 Z-0.125000
G01 X134.514202 Y192.099655 Z-0.125000
G01 X140.995956 Y191.270531 Z-0.125000
G01 X143.864935 Y191.121862 Z-0.125000
G01 X145.458810 Y191.195283 Z-0.125000
G01 X147.052684 Y191.383164 Z-0.125000
G01 X153.109386 Y192.498461 Z-0.125000
G01 X155.659596 Y192.669064 Z-0.125000
G01 X157.147214 Y192.591514 Z-0.125000
G01 X158.634831 Y192.386463 Z-0.125000
G01 X164.372764 Y191.054790 Z-0.125000
G01 X166.922973 Y190.686358 Z-0.125000
G00 Z3.000000

(End cutting path id: polyline40951)


(Start cutting path id: polyline40949)
(Change tool to Default tool)

G00 Z3.000000
G00 X10.085817 Y190.396428

G00 Z4.875000 (Fast pre-penetrate)
G01 Z-0.125000 F400.0(Penetrate)
G01 X16.142519 Y189.899144 Z-0.125000 F800.000000
G01 X21.030399 Y189.808974 Z-0.125000
G01 X25.174483 Y189.999765 Z-0.125000
G01 X34.737730 Y190.775390 Z-0.125000
G01 X40.050636 Y190.930515 Z-0.125000
G01 X44.619746 Y190.818358 Z-0.125000
G01 X55.033045 Y190.278821 Z-0.125000
G01 X59.920925 Y190.157853 Z-0.125000
G01 X65.658857 Y190.180978 Z-0.125000
G01 X80.641266 Y190.477126 Z-0.125000
G01 X89.354461 Y190.529857 Z-0.125000
G01 X98.598911 Y190.463817 Z-0.125000
G01 X114.750169 Y190.149731 Z-0.125000
G01 X119.213023 Y190.267973 Z-0.125000
G01 X127.182395 Y190.835054 Z-0.125000
G01 X130.263861 Y190.930462 Z-0.125000
G01 X133.451610 Y190.784836 Z-0.125000
G01 X140.039621 Y189.954918 Z-0.125000
G01 X143.014857 Y189.799052 Z-0.125000
G01 X145.777579 Y189.999183 Z-0.125000
G01 X151.940564 Y191.128900 Z-0.125000
G01 X153.428156 Y191.297598 Z-0.125000
G01 X154.809517 Y191.346202 Z-0.125000
G01 X156.190878 Y191.278124 Z-0.125000
G01 X157.572240 Y191.097176 Z-0.125000
G01 X163.841481 Y189.649325 Z-0.125000
G01 X165.435355 Y189.408660 Z-0.125000
G01 X166.922973 Y189.318041 Z-0.125000
G00 Z3.000000

(End cutting path id: polyline40949)


(Start cutting path id: polyline40947)
(Change tool to Default tool)

G00 Z3.000000
G00 X10.085817 Y189.234221

G00 Z4.875000 (Fast pre-penetrate)
G01 Z-0.125000 F400.0(Penetrate)
G01 X16.886341 Y188.635178 Z-0.125000 F800.000000
G01 X21.880478 Y188.475714 Z-0.125000
G01 X26.024535 Y188.613139 Z-0.125000
G01 X35.800295 Y189.401993 Z-0.125000
G01 X40.900688 Y189.603499 Z-0.125000
G01 X45.576055 Y189.532617 Z-0.125000
G01 X56.095637 Y188.991333 Z-0.125000
G01 X61.727312 Y188.837108 Z-0.125000
G01 X66.721449 Y188.842744 Z-0.125000
G01 X80.428753 Y189.089282 Z-0.125000
G01 X89.141948 Y189.147887 Z-0.125000
G01 X97.323833 Y189.091743 Z-0.125000
G01 X112.412499 Y188.825466 Z-0.125000
G01 X117.619148 Y188.940877 Z-0.125000
G01 X126.013547 Y189.513620 Z-0.125000
G01 X129.307552 Y189.606780 Z-0.125000
G01 X132.495301 Y189.455015 Z-0.125000
G01 X139.189568 Y188.624542 Z-0.125000
G01 X142.058548 Y188.475608 Z-0.125000
G01 X144.821244 Y188.664282 Z-0.125000
G01 X151.090485 Y189.804318 Z-0.125000
G01 X152.578103 Y189.973810 Z-0.125000
G01 X153.959465 Y190.023313 Z-0.125000
G01 X155.553339 Y189.934757 Z-0.125000
G01 X157.147214 Y189.697400 Z-0.125000
G01 X162.035093 Y188.514925 Z-0.125000
G01 X163.735224 Y188.185123 Z-0.125000
G01 X165.329099 Y188.016663 Z-0.125000
G01 X166.922973 Y188.013673 Z-0.125000
G00 Z3.000000

(End cutting path id: polyline40947)


(Start cutting path id: polyline40945)
(Change tool to Default tool)

G00 Z3.000000
G00 X10.085817 Y188.073786

G00 Z4.875000 (Fast pre-penetrate)
G01 Z-0.125000 F400.0(Penetrate)
G01 X18.267703 Y187.342664 Z-0.125000 F800.000000
G01 X23.580609 Y187.152349 Z-0.125000
G01 X27.830949 Y187.284403 Z-0.125000
G01 X37.712939 Y188.077332 Z-0.125000
G01 X42.813359 Y188.280134 Z-0.125000
G01 X47.488699 Y188.212057 Z-0.125000
G01 X58.114537 Y187.671144 Z-0.125000
G01 X63.852470 Y187.515490 Z-0.125000
G01 X89.035691 Y187.752794 Z-0.125000
G01 X110.287315 Y187.502551 Z-0.125000
G01 X115.919017 Y187.618359 Z-0.125000
G01 X124.738442 Y188.192557 Z-0.125000
G01 X128.138704 Y188.283627 Z-0.125000
G01 X131.432709 Y188.127946 Z-0.125000
G01 X138.126977 Y187.310782 Z-0.125000
G01 X141.102212 Y187.152561 Z-0.125000
G01 X143.971192 Y187.347082 Z-0.125000
G01 X150.240433 Y188.481508 Z-0.125000
G01 X151.728025 Y188.650551 Z-0.125000
G01 X153.109386 Y188.700424 Z-0.125000
G01 X154.703260 Y188.612318 Z-0.125000
G01 X156.297135 Y188.374749 Z-0.125000
G01 X161.185015 Y187.184496 Z-0.125000
G01 X163.097659 Y186.823155 Z-0.125000
G01 X165.010303 Y186.672263 Z-0.125000
G01 X166.922973 Y186.771879 Z-0.125000
G00 Z3.000000

(End cutting path id: polyline40945)


(Start cutting path id: polyline40943)
(Change tool to Default tool)

G00 Z3.000000
G00 X10.085817 Y186.907875

G00 Z4.875000 (Fast pre-penetrate)
G01 Z-0.125000 F400.0(Penetrate)
G01 X19.967834 Y186.036735 Z-0.125000 F800.000000
G01 X25.493253 Y185.829408 Z-0.125000
G01 X29.849850 Y185.963155 Z-0.125000
G01 X39.731866 Y186.753940 Z-0.125000
G01 X44.832259 Y186.956849 Z-0.125000
G01 X49.613883 Y186.888004 Z-0.125000
G01 X60.239695 Y186.354896 Z-0.125000
G01 X66.083910 Y186.196146 Z-0.125000
G01 X88.929408 Y186.349393 Z-0.125000
G01 X107.737132 Y186.179636 Z-0.125000
G01 X114.006373 Y186.297561 Z-0.125000
G01 X123.357080 Y186.873135 Z-0.125000
G01 X126.863599 Y186.960447 Z-0.125000
G01 X130.263861 Y186.802094 Z-0.125000
G01 X137.170668 Y185.980300 Z-0.125000
G01 X140.145877 Y185.829752 Z-0.125000
G01 X143.014857 Y186.021257 Z-0.125000
G01 X149.390354 Y187.161398 Z-0.125000
G01 X150.877972 Y187.328535 Z-0.125000
G01 X152.259334 Y187.377509 Z-0.125000
G01 X153.746952 Y187.300013 Z-0.125000
G01 X155.340826 Y187.071546 Z-0.125000
G01 X160.547476 Y185.808797 Z-0.125000
G01 X162.566376 Y185.453991 Z-0.125000
G01 X164.691533 Y185.353317 Z-0.125000
G01 X166.922973 Y185.588611 Z-0.125000
G00 Z3.000000

(End cutting path id: polyline40943)


(Start cutting path id: polyline40941)
(Change tool to Default tool)

G00 Z3.000000
G00 X10.085817 Y185.729263

G00 Z4.875000 (Fast pre-penetrate)
G01 Z-0.125000 F400.0(Penetrate)
G01 X21.774221 Y184.731521 Z-0.125000 F800.000000
G01 X26.874614 Y184.509800 Z-0.125000
G01 X31.656237 Y184.624656 Z-0.125000
G01 X41.857023 Y185.430919 Z-0.125000
G01 X46.957416 Y185.633405 Z-0.125000
G01 X51.739040 Y185.569032 Z-0.125000
G01 X62.471108 Y185.044681 Z-0.125000
G01 X68.421580 Y184.880878 Z-0.125000
G01 X89.035691 Y184.947262 Z-0.125000
G01 X104.549383 Y184.856721 Z-0.125000
G01 X111.774933 Y184.977212 Z-0.125000
G01 X121.656949 Y185.546225 Z-0.125000
G01 X125.057211 Y185.638987 Z-0.125000
G01 X128.882526 Y185.484497 Z-0.125000
G01 X136.108076 Y184.653125 Z-0.125000
G01 X139.083312 Y184.506731 Z-0.125000
G01 X142.058548 Y184.701782 Z-0.125000
G01 X148.434019 Y185.829990 Z-0.125000
G01 X150.027894 Y186.008134 Z-0.125000
G01 X151.409255 Y186.054409 Z-0.125000
G01 X152.896873 Y185.975431 Z-0.125000
G01 X154.490747 Y185.746593 Z-0.125000
G01 X159.803653 Y184.458736 Z-0.125000
G01 X161.928837 Y184.104036 Z-0.125000
G01 X163.203915 Y184.026566 Z-0.125000
G01 X164.372764 Y184.058951 Z-0.125000
G01 X165.647868 Y184.206191 Z-0.125000
G01 X166.922973 Y184.457466 Z-0.125000
G00 Z3.000000

(End cutting path id: polyline40941)


(Start cutting path id: polyline40939)
(Change tool to Default tool)

G00 Z3.000000
G00 X10.085817 Y184.531099

G00 Z4.875000 (Fast pre-penetrate)
G01 Z-0.125000 F400.0(Penetrate)
G01 X14.654928 Y184.227808 Z-0.125000 F800.000000
G01 X24.111891 Y183.396329 Z-0.125000
G01 X28.999771 Y183.187335 Z-0.125000
G01 X33.887651 Y183.304757 Z-0.125000
G01 X44.088437 Y184.107131 Z-0.125000
G01 X49.188830 Y184.309537 Z-0.125000
G01 X54.182966 Y184.244926 Z-0.125000
G01 X64.915061 Y183.738938 Z-0.125000
G01 X70.971790 Y183.571298 Z-0.125000
G01 X100.299042 Y183.533833 Z-0.125000
G01 X109.118493 Y183.657922 Z-0.125000
G01 X119.850562 Y184.224950 Z-0.125000
G01 X123.357080 Y184.316072 Z-0.125000
G01 X127.394908 Y184.163805 Z-0.125000
G01 X134.832971 Y183.337406 Z-0.125000
G01 X137.914464 Y183.183631 Z-0.125000
G01 X140.995956 Y183.376856 Z-0.125000
G01 X147.583967 Y184.519563 Z-0.125000
G01 X149.071585 Y184.682414 Z-0.125000
G01 X150.559203 Y184.731018 Z-0.125000
G01 X152.046821 Y184.648468 Z-0.125000
G01 X153.534439 Y184.437569 Z-0.125000
G01 X159.059858 Y183.108595 Z-0.125000
G01 X161.397528 Y182.748921 Z-0.125000
G01 X162.778889 Y182.704418 Z-0.125000
G01 X164.053994 Y182.788688 Z-0.125000
G01 X165.435355 Y183.009191 Z-0.125000
G01 X166.922973 Y183.369871 Z-0.125000
G00 Z3.000000

(End cutting path id: polyline40939)


(Start cutting path id: polyline40937)
(Change tool to Default tool)

G00 Z3.000000
G00 X10.085817 Y183.307059

G00 Z4.875000 (Fast pre-penetrate)
G01 Z-0.125000 F400.0(Penetrate)
G01 X15.930006 Y182.986702 Z-0.125000 F800.000000
G01 X26.768358 Y182.047326 Z-0.125000
G01 X31.549981 Y181.862092 Z-0.125000
G01 X36.756630 Y182.016185 Z-0.125000
G01 X47.701239 Y182.856712 Z-0.125000
G01 X52.801631 Y182.993157 Z-0.125000
G01 X57.370715 Y182.902776 Z-0.125000
G01 X71.503072 Y182.318153 Z-0.125000
G01 X84.891607 Y182.210918 Z-0.125000
G01 X103.805561 Y182.290002 Z-0.125000
G01 X109.224750 Y182.463621 Z-0.125000
G01 X118.469201 Y182.931721 Z-0.125000
G01 X122.400772 Y182.986966 Z-0.125000
G01 X126.651086 Y182.769320 Z-0.125000
G01 X134.089176 Y181.966734 Z-0.125000
G01 X136.958128 Y181.862409 Z-0.125000
G01 X140.039621 Y182.074340 Z-0.125000
G01 X146.521375 Y183.185721 Z-0.125000
G01 X148.008993 Y183.351879 Z-0.125000
G01 X149.390354 Y183.408976 Z-0.125000
G01 X150.984229 Y183.338756 Z-0.125000
G01 X152.578103 Y183.123041 Z-0.125000
G01 X158.316035 Y181.756920 Z-0.125000
G01 X160.759989 Y181.408173 Z-0.125000
G01 X162.141350 Y181.388435 Z-0.125000
G01 X163.628968 Y181.526230 Z-0.125000
G01 X165.116586 Y181.815075 Z-0.125000
G01 X166.922973 Y182.315349 Z-0.125000
G00 Z3.000000

(End cutting path id: polyline40937)


(Start cutting path id: polyline40935)
(Change tool to Default tool)

G00 Z3.000000
G00 X10.085817 Y182.051771

G00 Z4.875000 (Fast pre-penetrate)
G01 Z-0.125000 F400.0(Penetrate)
G01 X16.567572 Y181.793035 Z-0.125000 F800.000000
G01 X28.681002 Y180.757960 Z-0.125000
G01 X33.993908 Y180.538833 Z-0.125000
G01 X39.094301 Y180.688851 Z-0.125000
G01 X50.251422 Y181.531971 Z-0.125000
G01 X55.564328 Y181.670242 Z-0.125000
G01 X60.133438 Y181.586396 Z-0.125000
G01 X74.584565 Y181.036566 Z-0.125000
G01 X88.185612 Y180.915043 Z-0.125000
G01 X101.786660 Y181.032280 Z-0.125000
G01 X116.025274 Y181.607880 Z-0.125000
G01 X120.381845 Y181.663205 Z-0.125000
G01 X124.844698 Y181.447278 Z-0.125000
G01 X132.707814 Y180.640565 Z-0.125000
G01 X135.683050 Y180.539970 Z-0.125000
G01 X138.870799 Y180.756823 Z-0.125000
G01 X145.565066 Y181.875453 Z-0.125000
G01 X147.052684 Y182.033727 Z-0.125000
G01 X148.540276 Y182.085849 Z-0.125000
G01 X149.921637 Y182.023937 Z-0.125000
G01 X151.409255 Y181.837538 Z-0.125000
G01 X157.891009 Y180.340448 Z-0.125000
G01 X159.378627 Y180.125395 Z-0.125000
G01 X160.866245 Y180.056710 Z-0.125000
G01 X162.141350 Y180.128729 Z-0.125000
G01 X163.522711 Y180.339946 Z-0.125000
G01 X165.010303 Y180.697874 Z-0.125000
G01 X166.922973 Y181.281597 Z-0.125000
G00 Z3.000000

(End cutting path id: polyline40935)


(Start cutting path id: polyline40933)
(Change tool to Default tool)

G00 Z3.000000
G00 X10.085817 Y180.760950

G00 Z4.875000 (Fast pre-penetrate)
G01 Z-0.125000 F400.0(Penetrate)
G01 X14.336132 Y180.696630 Z-0.125000 F800.000000
G01 X18.267703 Y180.529705 Z-0.125000
G01 X31.337468 Y179.424938 Z-0.125000
G01 X36.862887 Y179.214833 Z-0.125000
G01 X41.857023 Y179.378769 Z-0.125000
G01 X52.907888 Y180.201172 Z-0.125000
G01 X58.645820 Y180.347327 Z-0.125000
G01 X63.214930 Y180.272133 Z-0.125000
G01 X77.134748 Y179.800382 Z-0.125000
G01 X88.185613 Y179.686822 Z-0.125000
G01 X99.023964 Y179.792550 Z-0.125000
G01 X113.368808 Y180.292215 Z-0.125000
G01 X118.150431 Y180.337564 Z-0.125000
G01 X122.932054 Y180.113145 Z-0.125000
G01 X131.113940 Y179.318100 Z-0.125000
G01 X134.301689 Y179.217955 Z-0.125000
G01 X136.108076 Y179.296324 Z-0.125000
G01 X138.020720 Y179.493280 Z-0.125000
G01 X144.927501 Y180.612757 Z-0.125000
G01 X147.690223 Y180.760765 Z-0.125000
G01 X149.071585 Y180.685491 Z-0.125000
G01 X150.559203 Y180.489753 Z-0.125000
G01 X156.828444 Y179.043886 Z-0.125000
G01 X158.422292 Y178.806661 Z-0.125000
G01 X159.803653 Y178.733371 Z-0.125000
G01 X161.291271 Y178.811555 Z-0.125000
G01 X162.885146 Y179.072328 Z-0.125000
G01 X164.479020 Y179.482088 Z-0.125000
G01 X166.922973 Y180.254776 Z-0.125000
G00 Z3.000000

(End cutting path id: polyline40933)


(Start cutting path id: polyline40931)
(Change tool to Default tool)

G00 Z3.000000
G00 X10.085817 Y179.431738

G00 Z4.875000 (Fast pre-penetrate)
G01 Z-0.125000 F400.0(Penetrate)
G01 X15.717493 Y179.411894 Z-0.125000 F800.000000
G01 X20.392860 Y179.247615 Z-0.125000
G01 X24.643200 Y178.950303 Z-0.125000
G01 X33.675138 Y178.124433 Z-0.125000
G01 X38.669274 Y177.897474 Z-0.125000
G01 X43.663411 Y178.003836 Z-0.125000
G01 X54.501762 Y178.795284 Z-0.125000
G01 X60.133438 Y179.010443 Z-0.125000
G01 X65.021318 Y178.997002 Z-0.125000
G01 X79.047392 Y178.615949 Z-0.125000
G01 X88.291869 Y178.524298 Z-0.125000
G01 X97.111294 Y178.610076 Z-0.125000
G01 X113.793834 Y179.024439 Z-0.125000
G01 X119.531792 Y178.858096 Z-0.125000
G01 X128.669986 Y178.042175 Z-0.125000
G01 X132.176531 Y177.891918 Z-0.125000
G01 X134.089176 Y177.942929 Z-0.125000
G01 X135.895563 Y178.090911 Z-0.125000
G01 X143.227370 Y179.229729 Z-0.125000
G01 X144.927501 Y179.396787 Z-0.125000
G01 X146.521375 Y179.438485 Z-0.125000
G01 X148.008993 Y179.359798 Z-0.125000
G01 X149.496611 Y179.167076 Z-0.125000
G01 X155.872109 Y177.719992 Z-0.125000
G01 X157.359727 Y177.495996 Z-0.125000
G01 X158.847345 Y177.410588 Z-0.125000
G01 X160.441219 Y177.496948 Z-0.125000
G01 X162.141350 Y177.788016 Z-0.125000
G01 X163.841481 Y178.242332 Z-0.125000
G01 X166.922973 Y179.219701 Z-0.125000
G00 Z3.000000

(End cutting path id: polyline40931)


(Start cutting path id: polyline40929)
(Change tool to Default tool)

G00 Z3.000000
G00 X10.085817 Y178.062786

G00 Z4.875000 (Fast pre-penetrate)
G01 Z-0.125000 F400.0(Penetrate)
G01 X17.098854 Y178.112951 Z-0.125000 F800.000000
G01 X22.411760 Y177.975605 Z-0.125000
G01 X26.980871 Y177.674166 Z-0.125000
G01 X36.544117 Y176.795830 Z-0.125000
G01 X41.538254 Y176.574030 Z-0.125000
G01 X46.532390 Y176.678461 Z-0.125000
G01 X57.583228 Y177.454324 Z-0.125000
G01 X63.533700 Y177.680384 Z-0.125000
G01 X68.634093 Y177.687131 Z-0.125000
G01 X81.172576 Y177.453557 Z-0.125000
G01 X88.398126 Y177.401857 Z-0.125000
G01 X109.968546 Y177.701524 Z-0.125000
G01 X116.662813 Y177.530630 Z-0.125000
G01 X126.651086 Y176.713836 Z-0.125000
G01 X130.370144 Y176.569003 Z-0.125000
G01 X132.389045 Y176.622475 Z-0.125000
G01 X134.301689 Y176.773737 Z-0.125000
G01 X141.952291 Y177.913508 Z-0.125000
G01 X143.652422 Y178.073581 Z-0.125000
G01 X145.246297 Y178.116231 Z-0.125000
G01 X146.733888 Y178.045429 Z-0.125000
G01 X148.327763 Y177.849214 Z-0.125000
G01 X154.915773 Y176.387552 Z-0.125000
G01 X156.509648 Y176.159084 Z-0.125000
G01 X157.997266 Y176.087594 Z-0.125000
G01 X159.591140 Y176.186072 Z-0.125000
G01 X161.291271 Y176.485871 Z-0.125000
G01 X166.922973 Y178.160284 Z-0.125000
G00 Z3.000000

(End cutting path id: polyline40929)


(Start cutting path id: polyline40927)
(Change tool to Default tool)

G00 Z3.000000
G00 X10.085817 Y176.654384

G00 Z4.875000 (Fast pre-penetrate)
G01 Z-0.125000 F400.0(Penetrate)
G01 X18.905242 Y176.793793 Z-0.125000 F800.000000
G01 X24.643200 Y176.695156 Z-0.125000
G01 X29.531080 Y176.391891 Z-0.125000
G01 X39.519353 Y175.472042 Z-0.125000
G01 X44.513490 Y175.251776 Z-0.125000
G01 X49.613883 Y175.350863 Z-0.125000
G01 X61.089773 Y176.110639 Z-0.125000
G01 X67.358988 Y176.343181 Z-0.125000
G01 X72.671921 Y176.376545 Z-0.125000
G01 X88.823152 Y176.267537 Z-0.125000
G01 X104.868153 Y176.378582 Z-0.125000
G01 X109.224750 Y176.336567 Z-0.125000
G01 X113.156295 Y176.201471 Z-0.125000
G01 X124.419672 Y175.377930 Z-0.125000
G01 X128.244960 Y175.246088 Z-0.125000
G01 X130.370144 Y175.298052 Z-0.125000
G01 X132.495301 Y175.456590 Z-0.125000
G01 X140.570930 Y176.600541 Z-0.125000
G01 X142.377317 Y176.757651 Z-0.125000
G01 X143.971192 Y176.792602 Z-0.125000
G01 X145.565066 Y176.712777 Z-0.125000
G01 X147.158941 Y176.516430 Z-0.125000
G01 X153.853208 Y175.063870 Z-0.125000
G01 X155.447083 Y174.838630 Z-0.125000
G01 X156.934700 Y174.764600 Z-0.125000
G01 X158.634831 Y174.867390 Z-0.125000
G01 X160.334962 Y175.166951 Z-0.125000
G01 X165.435355 Y176.688198 Z-0.125000
G01 X166.922973 Y177.060175 Z-0.125000
G00 Z3.000000

(End cutting path id: polyline40927)


(Start cutting path id: polyline40925)
(Change tool to Default tool)

G00 Z3.000000
G00 X10.085817 Y175.208676

G00 Z4.875000 (Fast pre-penetrate)
G01 Z-0.125000 F400.0(Penetrate)
G01 X21.136656 Y175.459818 Z-0.125000 F800.000000
G01 X27.087127 Y175.406531 Z-0.125000
G01 X32.293777 Y175.104298 Z-0.125000
G01 X42.813359 Y174.140422 Z-0.125000
G01 X47.913752 Y173.927671 Z-0.125000
G01 X53.226658 Y174.031864 Z-0.125000
G01 X64.596292 Y174.729966 Z-0.125000
G01 X70.971790 Y174.973091 Z-0.125000
G01 X77.666057 Y175.051752 Z-0.125000
G01 X96.048728 Y175.055667 Z-0.125000
G01 X102.955509 Y175.017991 Z-0.125000
G01 X108.268415 Y174.884959 Z-0.125000
G01 X112.943782 Y174.649453 Z-0.125000
G01 X121.763206 Y174.042844 Z-0.125000
G01 X125.801034 Y173.923199 Z-0.125000
G01 X128.138704 Y173.978577 Z-0.125000
G01 X130.370144 Y174.134945 Z-0.125000
G01 X138.870799 Y175.270430 Z-0.125000
G01 X140.783443 Y175.432196 Z-0.125000
G01 X142.483574 Y175.469846 Z-0.125000
G01 X144.077448 Y175.396530 Z-0.125000
G01 X145.777579 Y175.198939 Z-0.125000
G01 X147.690223 Y174.849081 Z-0.125000
G01 X152.790616 Y173.727461 Z-0.125000
G01 X154.384491 Y173.511984 Z-0.125000
G01 X155.872109 Y173.441658 Z-0.125000
G01 X157.572240 Y173.541935 Z-0.125000
G01 X159.272371 Y173.833400 Z-0.125000
G01 X160.866245 Y174.248398 Z-0.125000
G01 X164.797790 Y175.456378 Z-0.125000
G01 X166.922973 Y175.903630 Z-0.125000
G00 Z3.000000

(End cutting path id: polyline40925)


(Start cutting path id: polyline40923)
(Change tool to Default tool)

G00 Z3.000000
G00 X10.085817 Y173.729472

G00 Z4.875000 (Fast pre-penetrate)
G01 Z-0.125000 F400.0(Penetrate)
G01 X23.899378 Y174.118515 Z-0.125000 F800.000000
G01 X29.743593 Y174.110127 Z-0.125000
G01 X35.162756 Y173.821203 Z-0.125000
G01 X46.426134 Y172.806024 Z-0.125000
G01 X52.376579 Y172.600311 Z-0.125000
G01 X57.264459 Y172.709451 Z-0.125000
G01 X68.634093 Y173.326697 Z-0.125000
G01 X75.115847 Y173.559662 Z-0.125000
G01 X84.147811 Y173.676873 Z-0.125000
G01 X95.623676 Y173.652848 Z-0.125000
G01 X105.080666 Y173.440150 Z-0.125000
G01 X118.362944 Y172.715828 Z-0.125000
G01 X122.932054 Y172.600496 Z-0.125000
G01 X125.482264 Y172.658202 Z-0.125000
G01 X128.032447 Y172.825947 Z-0.125000
G01 X137.064411 Y173.952462 Z-0.125000
G01 X138.977055 Y174.105788 Z-0.125000
G01 X140.783443 Y174.147486 Z-0.125000
G01 X142.483574 Y174.075626 Z-0.125000
G01 X144.289961 Y173.875971 Z-0.125000
G01 X146.202605 Y173.542491 Z-0.125000
G01 X151.621768 Y172.394889 Z-0.125000
G01 X153.321899 Y172.178645 Z-0.125000
G01 X154.809517 Y172.119034 Z-0.125000
G01 X156.403391 Y172.211691 Z-0.125000
G01 X158.103522 Y172.489001 Z-0.125000
G01 X159.803653 Y172.919530 Z-0.125000
G01 X164.266507 Y174.252155 Z-0.125000
G01 X165.647868 Y174.536132 Z-0.125000
G01 X166.922973 Y174.676626 Z-0.125000
G00 Z3.000000

(End cutting path id: polyline40923)


(Start cutting path id: polyline40921)
(Change tool to Default tool)

G00 Z3.000000
G00 X10.085817 Y172.222380

G00 Z4.875000 (Fast pre-penetrate)
G01 Z-0.125000 F400.0(Penetrate)
G01 X15.930006 Y172.343559 Z-0.125000 F800.000000
G01 X26.874614 Y172.769432 Z-0.125000
G01 X31.549981 Y172.821582 Z-0.125000
G01 X37.181657 Y172.610603 Z-0.125000
G01 X48.976317 Y171.570924 Z-0.125000
G01 X54.926789 Y171.292477 Z-0.125000
G01 X61.089773 Y171.353199 Z-0.125000
G01 X77.666057 Y172.019948 Z-0.125000
G01 X88.291869 Y172.147689 Z-0.125000
G01 X99.555247 Y171.997194 Z-0.125000
G01 X114.643913 Y171.366481 Z-0.125000
G01 X119.531792 Y171.278401 Z-0.125000
G01 X122.400772 Y171.343198 Z-0.125000
G01 X125.163468 Y171.510890 Z-0.125000
G01 X135.045484 Y172.639866 Z-0.125000
G01 X137.064411 Y172.786630 Z-0.125000
G01 X138.977055 Y172.823936 Z-0.125000
G01 X140.783443 Y172.747948 Z-0.125000
G01 X142.696087 Y172.543373 Z-0.125000
G01 X144.714988 Y172.204574 Z-0.125000
G01 X150.240433 Y171.079488 Z-0.125000
G01 X152.046821 Y170.855756 Z-0.125000
G01 X153.640695 Y170.796569 Z-0.125000
G01 X155.447083 Y170.914520 Z-0.125000
G01 X157.253470 Y171.228130 Z-0.125000
G01 X162.460120 Y172.724744 Z-0.125000
G01 X164.160251 Y173.129186 Z-0.125000
G01 X165.541612 Y173.325242 Z-0.125000
G01 X166.922973 Y173.368104 Z-0.125000
G00 Z3.000000

(End cutting path id: polyline40921)


(Start cutting path id: polyline40919)
(Change tool to Default tool)

G00 Z3.000000
G00 X10.085817 Y170.694546

G00 Z4.875000 (Fast pre-penetrate)
G01 Z-0.125000 F400.0(Penetrate)
G01 X16.780085 Y170.798342 Z-0.125000 F800.000000
G01 X29.849850 Y171.405401 Z-0.125000
G01 X35.269013 Y171.500333 Z-0.125000
G01 X40.794432 Y171.301658 Z-0.125000
G01 X52.907888 Y170.270552 Z-0.125000
G01 X59.283386 Y169.977949 Z-0.125000
G01 X64.808805 Y169.981759 Z-0.125000
G01 X79.366188 Y170.385910 Z-0.125000
G01 X88.291869 Y170.481953 Z-0.125000
G01 X96.154985 Y170.403293 Z-0.125000
G01 X110.074802 Y170.011022 Z-0.125000
G01 X115.175195 Y169.956809 Z-0.125000
G01 X118.575457 Y170.029437 Z-0.125000
G01 X121.763206 Y170.204591 Z-0.125000
G01 X132.495301 Y171.310654 Z-0.125000
G01 X134.726715 Y171.462048 Z-0.125000
G01 X136.745615 Y171.501789 Z-0.125000
G01 X138.764542 Y171.425536 Z-0.125000
G01 X140.783443 Y171.224479 Z-0.125000
G01 X143.014857 Y170.871314 Z-0.125000
G01 X148.859072 Y169.742920 Z-0.125000
G01 X150.665459 Y169.531915 Z-0.125000
G01 X152.259334 Y169.473257 Z-0.125000
G01 X154.065721 Y169.578720 Z-0.125000
G01 X155.978365 Y169.891589 Z-0.125000
G01 X157.678496 Y170.313785 Z-0.125000
G01 X161.610041 Y171.464350 Z-0.125000
G01 X163.416428 Y171.861119 Z-0.125000
G01 X165.222842 Y172.044581 Z-0.125000
G01 X166.922973 Y171.971556 Z-0.125000
G00 Z3.000000

(End cutting path id: polyline40919)


(Start cutting path id: polyline40917)
(Change tool to Default tool)

G00 Z3.000000
G00 X10.085817 Y169.154567

G00 Z4.875000 (Fast pre-penetrate)
G01 Z-0.125000 F400.0(Penetrate)
G01 X14.442388 Y169.153509 Z-0.125000 F800.000000
G01 X18.905242 Y169.259501 Z-0.125000
G01 X33.462625 Y170.050419 Z-0.125000
G01 X39.200557 Y170.178715 Z-0.125000
G01 X44.726003 Y169.992501 Z-0.125000
G01 X57.264459 Y168.988224 Z-0.125000
G01 X64.277522 Y168.674587 Z-0.125000
G01 X70.227967 Y168.636566 Z-0.125000
G01 X88.610639 Y168.813414 Z-0.125000
G01 X109.649776 Y168.638868 Z-0.125000
G01 X113.687577 Y168.720360 Z-0.125000
G01 X117.512892 Y168.903848 Z-0.125000
G01 X129.732578 Y170.003878 Z-0.125000
G01 X134.195432 Y170.179059 Z-0.125000
G01 X136.426846 Y170.102594 Z-0.125000
G01 X138.658286 Y169.896220 Z-0.125000
G01 X141.102213 Y169.533344 Z-0.125000
G01 X147.265197 Y168.414370 Z-0.125000
G01 X149.177841 Y168.205164 Z-0.125000
G01 X150.877972 Y168.151030 Z-0.125000
G01 X152.790616 Y168.268055 Z-0.125000
G01 X154.703260 Y168.576453 Z-0.125000
G01 X156.509648 Y169.013835 Z-0.125000
G01 X160.547476 Y170.161094 Z-0.125000
G01 X162.566376 Y170.576833 Z-0.125000
G01 X164.797790 Y170.723888 Z-0.125000
G01 X166.922973 Y170.486107 Z-0.125000
G00 Z3.000000

(End cutting path id: polyline40917)


(Start cutting path id: polyline40915)
(Change tool to Default tool)

G00 Z3.000000
G00 X10.085817 Y167.612180

G00 Z4.875000 (Fast pre-penetrate)
G01 Z-0.125000 F400.0(Penetrate)
G01 X15.611236 Y167.573551 Z-0.125000 F800.000000
G01 X21.136656 Y167.699149 Z-0.125000
G01 X26.343331 Y167.959155 Z-0.125000
G01 X37.394170 Y168.695992 Z-0.125000
G01 X43.450898 Y168.856620 Z-0.125000
G01 X49.082573 Y168.684985 Z-0.125000
G01 X62.152339 Y167.739339 Z-0.125000
G01 X69.590428 Y167.415225 Z-0.125000
G01 X78.303596 Y167.311535 Z-0.125000
G01 X102.211686 Y167.335585 Z-0.125000
G01 X107.418362 Y167.432740 Z-0.125000
G01 X112.093703 Y167.620859 Z-0.125000
G01 X116.662813 Y167.914916 Z-0.125000
G01 X126.226060 Y168.689351 Z-0.125000
G01 X131.113940 Y168.856382 Z-0.125000
G01 X133.664149 Y168.778859 Z-0.125000
G01 X136.214333 Y168.562086 Z-0.125000
G01 X138.870799 Y168.196988 Z-0.125000
G01 X145.458810 Y167.086613 Z-0.125000
G01 X147.371454 Y166.888096 Z-0.125000
G01 X149.177841 Y166.827507 Z-0.125000
G01 X151.196742 Y166.937785 Z-0.125000
G01 X153.215642 Y167.242849 Z-0.125000
G01 X155.128286 Y167.684438 Z-0.125000
G01 X159.484884 Y168.874532 Z-0.125000
G01 X161.822580 Y169.307628 Z-0.125000
G01 X163.097659 Y169.400074 Z-0.125000
G01 X164.372764 Y169.367742 Z-0.125000
G01 X165.647868 Y169.204679 Z-0.125000
G01 X166.922973 Y168.917421 Z-0.125000
G00 Z3.000000

(End cutting path id: polyline40915)


(Start cutting path id: polyline40913)
(Change tool to Default tool)

G00 Z3.000000
G00 X10.085817 Y166.077864

G00 Z4.875000 (Fast pre-penetrate)
G01 Z-0.125000 F400.0(Penetrate)
G01 X16.992598 Y165.994837 Z-0.125000 F800.000000
G01 X23.899378 Y166.146576 Z-0.125000
G01 X29.743593 Y166.461403 Z-0.125000
G01 X41.219484 Y167.314181 Z-0.125000
G01 X46.851160 Y167.526191 Z-0.125000
G01 X50.145165 Y167.515158 Z-0.125000
G01 X53.757940 Y167.395593 Z-0.125000
G01 X66.508936 Y166.616211 Z-0.125000
G01 X72.778177 Y166.332604 Z-0.125000
G01 X79.897471 Y166.164594 Z-0.125000
G01 X88.291869 Y166.109693 Z-0.125000
G01 X97.005037 Y166.172505 Z-0.125000
G01 X104.230614 Y166.355199 Z-0.125000
G01 X110.499828 Y166.652988 Z-0.125000
G01 X122.081976 Y167.392788 Z-0.125000
G01 X127.394908 Y167.533229 Z-0.125000
G01 X130.370144 Y167.450864 Z-0.125000
G01 X133.239097 Y167.231207 Z-0.125000
G01 X136.320589 Y166.846345 Z-0.125000
G01 X143.333626 Y165.765179 Z-0.125000
G01 X145.458810 Y165.561794 Z-0.125000
G01 X147.371454 Y165.504803 Z-0.125000
G01 X149.496611 Y165.615478 Z-0.125000
G01 X151.621768 Y165.919061 Z-0.125000
G01 X153.640695 Y166.361867 Z-0.125000
G01 X158.422292 Y167.605381 Z-0.125000
G01 X160.972502 Y168.022046 Z-0.125000
G01 X162.460120 Y168.079619 Z-0.125000
G01 X163.841481 Y167.985481 Z-0.125000
G01 X165.329099 Y167.722855 Z-0.125000
G01 X166.922973 Y167.277456 Z-0.125000
G00 Z3.000000

(End cutting path id: polyline40913)


(Start cutting path id: polyline40911)
(Change tool to Default tool)

G00 Z3.000000
G00 X10.085817 Y164.562464

G00 Z4.875000 (Fast pre-penetrate)
G01 Z-0.125000 F400.0(Penetrate)
G01 X18.480216 Y164.440889 Z-0.125000 F800.000000
G01 X26.874614 Y164.605935 Z-0.125000
G01 X33.356368 Y164.961138 Z-0.125000
G01 X46.213621 Y165.970655 Z-0.125000
G01 X53.120401 Y166.208779 Z-0.125000
G01 X59.602155 Y166.101068 Z-0.125000
G01 X77.028491 Y165.370818 Z-0.125000
G01 X88.079356 Y165.213286 Z-0.125000
G01 X98.705168 Y165.353118 Z-0.125000
G01 X117.406635 Y166.126256 Z-0.125000
G01 X124.207159 Y166.188592 Z-0.125000
G01 X127.288652 Y166.065402 Z-0.125000
G01 X130.263861 Y165.832516 Z-0.125000
G01 X140.783443 Y164.450202 Z-0.125000
G01 X143.014857 Y164.249304 Z-0.125000
G01 X144.927501 Y164.181624 Z-0.125000
G01 X147.371454 Y164.276027 Z-0.125000
G01 X149.709124 Y164.574159 Z-0.125000
G01 X151.940564 Y165.028527 Z-0.125000
G01 X157.147214 Y166.308897 Z-0.125000
G01 X158.634831 Y166.576285 Z-0.125000
G01 X160.016166 Y166.724743 Z-0.125000
G01 X161.716297 Y166.740909 Z-0.125000
G01 X163.310172 Y166.570279 Z-0.125000
G01 X165.010303 Y166.195233 Z-0.125000
G01 X166.922973 Y165.583675 Z-0.125000
G00 Z3.000000

(End cutting path id: polyline40911)


(Start cutting path id: polyline40909)
(Change tool to Default tool)

G00 Z3.000000
G00 X10.085817 Y163.076725

G00 Z4.875000 (Fast pre-penetrate)
G01 Z-0.125000 F400.0(Penetrate)
G01 X20.499116 Y162.943931 Z-0.125000 F800.000000
G01 X30.806159 Y163.119773 Z-0.125000
G01 X37.606683 Y163.489924 Z-0.125000
G01 X51.101500 Y164.572386 Z-0.125000
G01 X58.220794 Y164.862819 Z-0.125000
G01 X64.490035 Y164.864671 Z-0.125000
G01 X79.791214 Y164.525926 Z-0.125000
G01 X88.398126 Y164.450387 Z-0.125000
G01 X95.942472 Y164.515210 Z-0.125000
G01 X115.387708 Y164.887875 Z-0.125000
G01 X120.275588 Y164.804531 Z-0.125000
G01 X124.738442 Y164.565348 Z-0.125000
G01 X129.095039 Y164.162997 Z-0.125000
G01 X138.339490 Y163.073709 Z-0.125000
G01 X140.889699 Y162.896253 Z-0.125000
G01 X143.121113 Y162.862333 Z-0.125000
G01 X145.458810 Y162.981634 Z-0.125000
G01 X147.690223 Y163.256245 Z-0.125000
G01 X150.027894 Y163.697066 Z-0.125000
G01 X156.084622 Y165.075676 Z-0.125000
G01 X157.891009 Y165.339571 Z-0.125000
G01 X159.591140 Y165.435059 Z-0.125000
G01 X161.291271 Y165.349784 Z-0.125000
G01 X162.991402 Y165.073612 Z-0.125000
G01 X164.691533 Y164.624589 Z-0.125000
G01 X166.922973 Y163.858118 Z-0.125000
G00 Z3.000000

(End cutting path id: polyline40909)


(Start cutting path id: polyline40907)
(Change tool to Default tool)

G00 Z3.000000
G00 X10.085817 Y161.630594

G00 Z4.875000 (Fast pre-penetrate)
G01 Z-0.125000 F400.0(Penetrate)
G01 X25.280740 Y161.541191 Z-0.125000 F800.000000
G01 X35.587782 Y161.686606 Z-0.125000
G01 X42.494563 Y162.042285 Z-0.125000
G01 X57.051946 Y163.158190 Z-0.125000
G01 X65.552601 Y163.498841 Z-0.125000
G01 X72.034355 Y163.564404 Z-0.125000
G01 X103.699304 Y163.565198 Z-0.125000
G01 X111.349907 Y163.487226 Z-0.125000
G01 X117.831661 Y163.238914 Z-0.125000
G01 X123.782133 Y162.809020 Z-0.125000
G01 X134.939228 Y161.729654 Z-0.125000
G01 X137.808207 Y161.566750 Z-0.125000
G01 X140.358417 Y161.542435 Z-0.125000
G01 X142.908600 Y161.666868 Z-0.125000
G01 X145.352553 Y161.942246 Z-0.125000
G01 X148.008993 Y162.403361 Z-0.125000
G01 X154.490747 Y163.767525 Z-0.125000
G01 X156.403391 Y164.024144 Z-0.125000
G01 X158.103522 Y164.112118 Z-0.125000
G01 X160.016166 Y164.016048 Z-0.125000
G01 X162.035093 Y163.676032 Z-0.125000
G01 X164.053994 Y163.119482 Z-0.125000
G01 X166.922973 Y162.126396 Z-0.125000
G00 Z3.000000

(End cutting path id: polyline40907)


(Start cutting path id: polyline40905)
(Change tool to Default tool)

G00 Z3.000000
G00 X10.085817 Y160.232855

G00 Z4.875000 (Fast pre-penetrate)
G01 Z-0.125000 F400.0(Penetrate)
G01 X35.056499 Y160.212905 Z-0.125000 F800.000000
G01 X40.581919 Y160.278866 Z-0.125000
G01 X47.169929 Y160.550672 Z-0.125000
G01 X60.770977 Y161.476606 Z-0.125000
G01 X67.890297 Y161.838344 Z-0.125000
G01 X76.922235 Y162.075622 Z-0.125000
G01 X88.291869 Y162.151664 Z-0.125000
G01 X99.661503 Y162.072315 Z-0.125000
G01 X108.693441 Y161.829931 Z-0.125000
G01 X116.662813 Y161.406968 Z-0.125000
G01 X130.688914 Y160.373772 Z-0.125000
G01 X133.982919 Y160.234574 Z-0.125000
G01 X136.851872 Y160.222430 Z-0.125000
G01 X139.827108 Y160.356309 Z-0.125000
G01 X142.696087 Y160.649785 Z-0.125000
G01 X145.671323 Y161.118890 Z-0.125000
G01 X152.684360 Y162.459056 Z-0.125000
G01 X154.703260 Y162.705542 Z-0.125000
G01 X156.615904 Y162.789547 Z-0.125000
G01 X158.741088 Y162.667706 Z-0.125000
G01 X160.972502 Y162.278108 Z-0.125000
G01 X163.097659 Y161.690072 Z-0.125000
G01 X166.922973 Y160.415549 Z-0.125000
G00 Z3.000000

(End cutting path id: polyline40905)


(Start cutting path id: polyline40903)
(Change tool to Default tool)

G00 Z3.000000
G00 X10.085817 Y158.890387

G00 Z4.875000 (Fast pre-penetrate)
G01 Z-0.125000 F400.0(Penetrate)
G01 X25.174483 Y159.133565 Z-0.125000 F800.000000
G01 X41.219484 Y158.901341 Z-0.125000
G01 X47.488699 Y158.923566 Z-0.125000
G01 X53.651684 Y159.117240 Z-0.125000
G01 X73.203203 Y160.037592 Z-0.125000
G01 X80.535010 Y160.221001 Z-0.125000
G01 X88.079356 Y160.284025 Z-0.125000
G01 X95.198649 Y160.231135 Z-0.125000
G01 X102.211686 Y160.068549 Z-0.125000
G01 X109.543520 Y159.780153 Z-0.125000
G01 X124.844698 Y159.013392 Z-0.125000
G01 X128.882526 Y158.901791 Z-0.125000
G01 X132.282788 Y158.904886 Z-0.125000
G01 X135.895563 Y159.049851 Z-0.125000
G01 X139.295825 Y159.351158 Z-0.125000
G01 X142.802343 Y159.833546 Z-0.125000
G01 X150.665459 Y161.160668 Z-0.125000
G01 X152.790616 Y161.389321 Z-0.125000
G01 X154.809517 Y161.466579 Z-0.125000
G01 X157.253470 Y161.324551 Z-0.125000
G01 X159.591140 Y160.924369 Z-0.125000
G01 X161.610041 Y160.393615 Z-0.125000
G01 X166.922973 Y158.753359 Z-0.125000
G00 Z3.000000

(End cutting path id: polyline40903)


(Start cutting path id: polyline40901)
(Change tool to Default tool)

G00 Z3.000000
G00 X10.085817 Y157.607636

G00 Z4.875000 (Fast pre-penetrate)
G01 Z-0.125000 F400.0(Penetrate)
G01 X20.392860 Y158.041869 Z-0.125000 F800.000000
G01 X26.024535 Y158.162493 Z-0.125000
G01 X32.400033 Y158.111904 Z-0.125000
G01 X46.532390 Y157.658515 Z-0.125000
G01 X53.545427 Y157.566678 Z-0.125000
G01 X60.452208 Y157.647032 Z-0.125000
G01 X78.409853 Y158.086425 Z-0.125000
G01 X88.291869 Y158.174796 Z-0.125000
G01 X98.917681 Y158.068936 Z-0.125000
G01 X118.362944 Y157.601947 Z-0.125000
G01 X125.907290 Y157.594327 Z-0.125000
G01 X130.688914 Y157.760459 Z-0.125000
G01 X135.045484 Y158.083197 Z-0.125000
G01 X139.295825 Y158.574448 Z-0.125000
G01 X148.221506 Y159.857650 Z-0.125000
G01 X150.559203 Y160.073761 Z-0.125000
G01 X152.684360 Y160.143690 Z-0.125000
G01 X155.340826 Y160.004652 Z-0.125000
G01 X157.891009 Y159.602936 Z-0.125000
G01 X160.228706 Y159.023208 Z-0.125000
G01 X164.904046 Y157.624754 Z-0.125000
G01 X166.922973 Y157.166496 Z-0.125000
G00 Z3.000000

(End cutting path id: polyline40901)


(Start cutting path id: polyline40899)
(Change tool to Default tool)

G00 Z3.000000
G00 X10.085817 Y156.386109

G00 Z4.875000 (Fast pre-penetrate)
G01 Z-0.125000 F400.0(Penetrate)
G01 X21.561708 Y157.143584 Z-0.125000 F800.000000
G01 X25.705766 Y157.291591 Z-0.125000
G01 X29.849850 Y157.337708 Z-0.125000
G01 X36.756630 Y157.215180 Z-0.125000
G01 X53.120401 Y156.496123 Z-0.125000
G01 X62.152339 Y156.279508 Z-0.125000
G01 X107.843389 Y156.243869 Z-0.125000
G01 X116.344043 Y156.310491 Z-0.125000
G01 X123.250824 Y156.510331 Z-0.125000
G01 X129.307552 Y156.859898 Z-0.125000
G01 X134.939228 Y157.372157 Z-0.125000
G01 X145.352553 Y158.571353 Z-0.125000
G01 X148.008993 Y158.766668 Z-0.125000
G01 X150.240433 Y158.820484 Z-0.125000
G01 X153.109386 Y158.684383 Z-0.125000
G01 X155.872109 Y158.295366 Z-0.125000
G01 X158.422292 Y157.719343 Z-0.125000
G01 X164.053994 Y156.162272 Z-0.125000
G01 X165.541612 Y155.855805 Z-0.125000
G01 X166.922973 Y155.678693 Z-0.125000
G00 Z3.000000

(End cutting path id: polyline40899)


(Start cutting path id: polyline40897)
(Change tool to Default tool)

G00 Z3.000000
G00 X10.085817 Y155.224034

G00 Z4.875000 (Fast pre-penetrate)
G01 Z-0.125000 F400.0(Penetrate)
G01 X17.523880 Y155.948145 Z-0.125000 F800.000000
G01 X21.986734 Y156.285012 Z-0.125000
G01 X26.980871 Y156.507076 Z-0.125000
G01 X32.293777 Y156.578778 Z-0.125000
G01 X40.900688 Y156.411879 Z-0.125000
G01 X59.495899 Y155.543253 Z-0.125000
G01 X70.546737 Y155.216970 Z-0.125000
G01 X86.910508 Y155.066131 Z-0.125000
G01 X103.911844 Y155.182415 Z-0.125000
G01 X113.262551 Y155.410777 Z-0.125000
G01 X121.763206 Y155.774208 Z-0.125000
G01 X129.201296 Y156.255590 Z-0.125000
G01 X141.846008 Y157.304106 Z-0.125000
G01 X147.158941 Y157.497172 Z-0.125000
G01 X150.346690 Y157.368426 Z-0.125000
G01 X153.428156 Y156.997322 Z-0.125000
G01 X156.403391 Y156.399947 Z-0.125000
G01 X163.203915 Y154.695053 Z-0.125000
G01 X165.116586 Y154.397159 Z-0.125000
G01 X166.922973 Y154.309212 Z-0.125000
G00 Z3.000000

(End cutting path id: polyline40897)


(Start cutting path id: polyline40895)
(Change tool to Default tool)

G00 Z3.000000
G00 X10.085817 Y154.116040

G00 Z4.875000 (Fast pre-penetrate)
G01 Z-0.125000 F400.0(Penetrate)
G01 X16.355059 Y154.891400 Z-0.125000 F800.000000
G01 X20.711629 Y155.309256 Z-0.125000
G01 X25.493253 Y155.598736 Z-0.125000
G01 X30.806159 Y155.751110 Z-0.125000
G01 X36.969143 Y155.774658 Z-0.125000
G01 X43.769667 Y155.663480 Z-0.125000
G01 X64.277522 Y154.923573 Z-0.125000
G01 X73.840742 Y154.665526 Z-0.125000
G01 X82.341397 Y154.543235 Z-0.125000
G01 X90.842079 Y154.523974 Z-0.125000
G01 X100.724095 Y154.630892 Z-0.125000
G01 X110.712368 Y154.878938 Z-0.125000
G01 X121.550693 Y155.289439 Z-0.125000
G01 X137.170668 Y156.051332 Z-0.125000
G01 X143.121113 Y156.172881 Z-0.125000
G01 X146.840145 Y156.048369 Z-0.125000
G01 X150.240433 Y155.720206 Z-0.125000
G01 X153.959465 Y155.088462 Z-0.125000
G01 X160.016166 Y153.682573 Z-0.125000
G01 X162.247606 Y153.248419 Z-0.125000
G01 X164.691533 Y152.997092 Z-0.125000
G01 X166.922973 Y153.070937 Z-0.125000
G00 Z3.000000

(End cutting path id: polyline40895)


(Start cutting path id: polyline40893)
(Change tool to Default tool)

G00 Z3.000000
G00 X10.085817 Y153.053130

G00 Z4.875000 (Fast pre-penetrate)
G01 Z-0.125000 F400.0(Penetrate)
G01 X15.611236 Y153.854288 Z-0.125000 F800.000000
G01 X19.967834 Y154.313657 Z-0.125000
G01 X24.749457 Y154.606603 Z-0.125000
G01 X30.487389 Y154.756463 Z-0.125000
G01 X46.319877 Y154.762892 Z-0.125000
G01 X74.372052 Y154.317573 Z-0.125000
G01 X89.035691 Y154.228091 Z-0.125000
G01 X102.636739 Y154.325695 Z-0.125000
G01 X129.520065 Y154.799378 Z-0.125000
G01 X136.851872 Y154.846924 Z-0.125000
G01 X142.802343 Y154.676797 Z-0.125000
G01 X147.796480 Y154.235631 Z-0.125000
G01 X151.302998 Y153.705619 Z-0.125000
G01 X158.741088 Y152.202681 Z-0.125000
G01 X161.716297 Y151.763712 Z-0.125000
G01 X164.372764 Y151.674388 Z-0.125000
G01 X165.647868 Y151.770855 Z-0.125000
G01 X166.922973 Y151.968419 Z-0.125000
G00 Z3.000000

(End cutting path id: polyline40893)


(Start cutting path id: polyline40891)
(Change tool to Default tool)

G00 Z3.000000
G00 X10.085817 Y152.022844

G00 Z4.875000 (Fast pre-penetrate)
G01 Z-0.125000 F400.0(Penetrate)
G01 X14.229875 Y152.697002 Z-0.125000 F800.000000
G01 X17.842650 Y153.127267 Z-0.125000
G01 X21.561708 Y153.389045 Z-0.125000
G01 X25.812022 Y153.511812 Z-0.125000
G01 X124.525929 Y153.499138 Z-0.125000
G01 X135.151741 Y153.320915 Z-0.125000
G01 X139.189568 Y153.142216 Z-0.125000
G01 X142.696087 Y152.892529 Z-0.125000
G01 X147.902736 Y152.300259 Z-0.125000
G01 X157.040957 Y150.768774 Z-0.125000
G01 X160.441219 Y150.384996 Z-0.125000
G01 X162.141350 Y150.340758 Z-0.125000
G01 X163.735224 Y150.422382 Z-0.125000
G01 X165.329099 Y150.639419 Z-0.125000
G01 X166.922973 Y150.996156 Z-0.125000
G00 Z3.000000

(End cutting path id: polyline40891)


(Start cutting path id: polyline40889)
(Change tool to Default tool)

G00 Z3.000000
G00 X10.085817 Y151.009756

G00 Z4.875000 (Fast pre-penetrate)
G01 Z-0.125000 F400.0(Penetrate)
G01 X13.167310 Y151.541435 Z-0.125000 F800.000000
G01 X16.036263 Y151.902935 Z-0.125000
G01 X18.905242 Y152.117168 Z-0.125000
G01 X21.986734 Y152.203316 Z-0.125000
G01 X26.237075 Y152.155718 Z-0.125000
G01 X38.031735 Y151.790858 Z-0.125000
G01 X44.832259 Y151.703889 Z-0.125000
G01 X80.853806 Y151.877985 Z-0.125000
G01 X108.268415 Y151.829990 Z-0.125000
G01 X126.544829 Y151.653222 Z-0.125000
G01 X137.064411 Y151.299210 Z-0.125000
G01 X144.077448 Y150.750068 Z-0.125000
G01 X155.128286 Y149.326056 Z-0.125000
G01 X158.953601 Y149.027791 Z-0.125000
G01 X161.078758 Y149.050043 Z-0.125000
G01 X162.991402 Y149.231070 Z-0.125000
G01 X164.904046 Y149.583627 Z-0.125000
G01 X166.922973 Y150.137029 Z-0.125000
G00 Z3.000000

(End cutting path id: polyline40889)


(Start cutting path id: polyline40887)
(Change tool to Default tool)

G00 Z3.000000
G00 X10.085817 Y149.996059

G00 Z4.875000 (Fast pre-penetrate)
G01 Z-0.125000 F400.0(Penetrate)
G01 X12.529744 Y150.413201 Z-0.125000 F800.000000
G01 X14.761184 Y150.682599 Z-0.125000
G01 X17.098854 Y150.840899 Z-0.125000
G01 X19.542781 Y150.882359 Z-0.125000
G01 X23.899378 Y150.726599 Z-0.125000
G01 X37.712939 Y149.806856 Z-0.125000
G01 X47.913752 Y149.506845 Z-0.125000
G01 X119.850562 Y149.446996 Z-0.125000
G01 X129.201296 Y149.381406 Z-0.125000
G01 X134.726715 Y149.245120 Z-0.125000
G01 X139.720851 Y149.008821 Z-0.125000
G01 X144.396218 Y148.666715 Z-0.125000
G01 X153.109386 Y147.866986 Z-0.125000
G01 X157.040957 Y147.693631 Z-0.125000
G01 X159.591140 Y147.782558 Z-0.125000
G01 X162.035093 Y148.081854 Z-0.125000
G01 X164.372764 Y148.588716 Z-0.125000
G01 X166.922973 Y149.361324 Z-0.125000
G00 Z3.000000

(End cutting path id: polyline40887)


(Start cutting path id: polyline40885)
(Change tool to Default tool)

G00 Z3.000000
G00 X10.085817 Y148.962571

G00 Z4.875000 (Fast pre-penetrate)
G01 Z-0.125000 F400.0(Penetrate)
G01 X12.210974 Y149.289887 Z-0.125000 F800.000000
G01 X14.229875 Y149.482874 Z-0.125000
G01 X16.355059 Y149.559418 Z-0.125000
G01 X18.586472 Y149.515285 Z-0.125000
G01 X22.092991 Y149.256153 Z-0.125000
G01 X31.549981 Y148.199832 Z-0.125000
G01 X37.075400 Y147.718158 Z-0.125000
G01 X43.769667 Y147.354013 Z-0.125000
G01 X51.845296 Y147.133165 Z-0.125000
G01 X68.209067 Y146.957059 Z-0.125000
G01 X87.229277 Y146.887712 Z-0.125000
G01 X131.963992 Y147.107924 Z-0.125000
G01 X139.295825 Y146.960260 Z-0.125000
G01 X150.027894 Y146.458240 Z-0.125000
G01 X153.534439 Y146.370849 Z-0.125000
G01 X157.040957 Y146.480254 Z-0.125000
G01 X160.228706 Y146.856649 Z-0.125000
G01 X163.310172 Y147.527023 Z-0.125000
G01 X166.922973 Y148.626789 Z-0.125000
G00 Z3.000000

(End cutting path id: polyline40885)


(Start cutting path id: polyline40883)
(Change tool to Default tool)

G00 Z3.000000
G00 X10.085817 Y147.889899

G00 Z4.875000 (Fast pre-penetrate)
G01 Z-0.125000 F400.0(Penetrate)
G01 X11.892205 Y148.114715 Z-0.125000 F800.000000
G01 X13.592336 Y148.221580 Z-0.125000
G01 X15.398723 Y148.226396 Z-0.125000
G01 X17.311367 Y148.123632 Z-0.125000
G01 X20.499116 Y147.769725 Z-0.125000
G01 X28.043462 Y146.624425 Z-0.125000
G01 X32.081264 Y146.106001 Z-0.125000
G01 X36.650374 Y145.683594 Z-0.125000
G01 X41.644510 Y145.396310 Z-0.125000
G01 X53.757940 Y145.121805 Z-0.125000
G01 X76.603465 Y145.047669 Z-0.125000
G01 X110.499828 Y145.057617 Z-0.125000
G01 X133.345353 Y145.176600 Z-0.125000
G01 X147.583967 Y145.049521 Z-0.125000
G01 X151.728025 Y145.094209 Z-0.125000
G01 X155.553339 Y145.331725 Z-0.125000
G01 X159.059858 Y145.821045 Z-0.125000
G01 X162.353863 Y146.561481 Z-0.125000
G01 X166.922973 Y147.879845 Z-0.125000
G00 Z3.000000

(End cutting path id: polyline40883)


(Start cutting path id: polyline40881)
(Change tool to Default tool)

G00 Z3.000000
G00 X10.085817 Y146.759812

G00 Z4.875000 (Fast pre-penetrate)
G01 Z-0.125000 F400.0(Penetrate)
G01 X12.848514 Y146.914567 Z-0.125000 F800.000000
G01 X15.717493 Y146.758595 Z-0.125000
G01 X18.480216 Y146.378813 Z-0.125000
G01 X25.705766 Y145.038065 Z-0.125000
G01 X29.637337 Y144.442594 Z-0.125000
G01 X34.206421 Y143.996560 Z-0.125000
G01 X39.306814 Y143.769178 Z-0.125000
G01 X43.982180 Y143.725072 Z-0.125000
G01 X50.145165 Y143.786905 Z-0.125000
G01 X67.465245 Y144.129407 Z-0.125000
G01 X77.666057 Y144.446695 Z-0.125000
G01 X88.291869 Y144.547210 Z-0.125000
G01 X98.811425 Y144.444552 Z-0.125000
G01 X108.799697 Y144.131974 Z-0.125000
G01 X123.038311 Y143.852627 Z-0.125000
G01 X138.658286 Y143.750948 Z-0.125000
G01 X148.008993 Y143.882498 Z-0.125000
G01 X151.302998 Y144.057044 Z-0.125000
G01 X154.171978 Y144.324193 Z-0.125000
G01 X156.722161 Y144.681724 Z-0.125000
G01 X159.272371 Y145.166678 Z-0.125000
G01 X166.922973 Y147.058897 Z-0.125000
G00 Z3.000000

(End cutting path id: polyline40881)


(Start cutting path id: polyline40879)
(Change tool to Default tool)

G00 Z3.000000
G00 X10.085817 Y145.556489

G00 Z4.875000 (Fast pre-penetrate)
G01 Z-0.125000 F400.0(Penetrate)
G01 X12.529744 Y145.556700 Z-0.125000 F800.000000
G01 X15.186210 Y145.268860 Z-0.125000
G01 X17.523880 Y144.839839 Z-0.125000
G01 X24.005635 Y143.442285 Z-0.125000
G01 X27.830949 Y142.832501 Z-0.125000
G01 X31.549981 Y142.501402 Z-0.125000
G01 X35.694039 Y142.402474 Z-0.125000
G01 X42.600819 Y142.633296 Z-0.125000
G01 X68.421580 Y144.161184 Z-0.125000
G01 X76.603465 Y144.424338 Z-0.125000
G01 X85.635403 Y144.541522 Z-0.125000
G01 X95.623676 Y144.497971 Z-0.125000
G01 X104.868153 Y144.280378 Z-0.125000
G01 X111.456164 Y143.993359 Z-0.125000
G01 X124.844698 Y143.222840 Z-0.125000
G01 X132.282788 Y142.926348 Z-0.125000
G01 X138.552003 Y142.826098 Z-0.125000
G01 X144.183705 Y142.889783 Z-0.125000
G01 X149.602867 Y143.162568 Z-0.125000
G01 X154.278234 Y143.667128 Z-0.125000
G01 X157.678496 Y144.236061 Z-0.125000
G01 X164.372764 Y145.668804 Z-0.125000
G01 X166.922973 Y146.099572 Z-0.125000
G00 Z3.000000

(End cutting path id: polyline40879)


(Start cutting path id: polyline40877)
(Change tool to Default tool)

G00 Z3.000000
G00 X10.085817 Y144.268128

G00 Z4.875000 (Fast pre-penetrate)
G01 Z-0.125000 F400.0(Penetrate)
G01 X11.998461 Y144.157982 Z-0.125000 F800.000000
G01 X14.123619 Y143.841567 Z-0.125000
G01 X21.349195 Y142.133843 Z-0.125000
G01 X24.430661 Y141.543691 Z-0.125000
G01 X27.512153 Y141.190128 Z-0.125000
G01 X30.806159 Y141.079294 Z-0.125000
G01 X33.568882 Y141.163432 Z-0.125000
G01 X36.650374 Y141.391952 Z-0.125000
G01 X49.932652 Y142.846312 Z-0.125000
G01 X57.476972 Y143.516712 Z-0.125000
G01 X65.552601 Y144.026484 Z-0.125000
G01 X73.946999 Y144.357240 Z-0.125000
G01 X81.066319 Y144.502178 Z-0.125000
G01 X88.716895 Y144.546972 Z-0.125000
G01 X96.261241 Y144.488949 Z-0.125000
G01 X103.274278 Y144.332210 Z-0.125000
G01 X114.431399 Y143.823258 Z-0.125000
G01 X132.920327 Y142.512832 Z-0.125000
G01 X137.595694 Y142.325507 Z-0.125000
G01 X141.952291 Y142.281745 Z-0.125000
G01 X146.946428 Y142.425784 Z-0.125000
G01 X151.621768 Y142.796809 Z-0.125000
G01 X155.765852 Y143.344786 Z-0.125000
G01 X163.416428 Y144.631268 Z-0.125000
G01 X165.329099 Y144.853121 Z-0.125000
G01 X166.922973 Y144.942206 Z-0.125000
G00 Z3.000000

(End cutting path id: polyline40877)


(Start cutting path id: polyline40875)
(Change tool to Default tool)

G00 Z3.000000
G00 X10.085817 Y142.887852

G00 Z4.875000 (Fast pre-penetrate)
G01 Z-0.125000 F400.0(Penetrate)
G01 X11.573435 Y142.707776 Z-0.125000 F800.000000
G01 X13.273566 Y142.378714 Z-0.125000
G01 X19.224011 Y140.810769 Z-0.125000
G01 X21.880478 Y140.233502 Z-0.125000
G01 X24.643200 Y139.864885 Z-0.125000
G01 X27.405897 Y139.756512 Z-0.125000
G01 X29.956106 Y139.863721 Z-0.125000
G01 X32.825086 Y140.164816 Z-0.125000
G01 X44.088437 Y141.945751 Z-0.125000
G01 X49.932652 Y142.683197 Z-0.125000
G01 X56.308150 Y143.207283 Z-0.125000
G01 X63.321187 Y143.509092 Z-0.125000
G01 X72.990690 Y143.623948 Z-0.125000
G01 X104.018100 Y143.623154 Z-0.125000
G01 X111.243651 Y143.551664 Z-0.125000
G01 X120.275588 Y143.202308 Z-0.125000
G01 X136.108076 Y142.093441 Z-0.125000
G01 X142.802343 Y141.909450 Z-0.125000
G01 X146.733888 Y141.987793 Z-0.125000
G01 X150.665459 Y142.226870 Z-0.125000
G01 X162.778889 Y143.548013 Z-0.125000
G01 X164.904046 Y143.624371 Z-0.125000
G01 X166.922973 Y143.541372 Z-0.125000
G00 Z3.000000

(End cutting path id: polyline40875)


(Start cutting path id: polyline40873)
(Change tool to Default tool)

G00 Z3.000000
G00 X10.085817 Y141.414918

G00 Z4.875000 (Fast pre-penetrate)
G01 Z-0.125000 F400.0(Penetrate)
G01 X12.423488 Y140.919380 Z-0.125000 F800.000000
G01 X17.417624 Y139.483674 Z-0.125000
G01 X19.649064 Y138.944956 Z-0.125000
G01 X22.199247 Y138.551310 Z-0.125000
G01 X24.643200 Y138.433226 Z-0.125000
G01 X27.087127 Y138.555808 Z-0.125000
G01 X29.743593 Y138.906565 Z-0.125000
G01 X39.200557 Y140.821167 Z-0.125000
G01 X43.663411 Y141.553718 Z-0.125000
G01 X48.232521 Y142.034518 Z-0.125000
G01 X53.014145 Y142.267537 Z-0.125000
G01 X60.664721 Y142.230892 Z-0.125000
G01 X78.197340 Y141.504241 Z-0.125000
G01 X87.229277 Y141.327923 Z-0.125000
G01 X96.792524 Y141.459976 Z-0.125000
G01 X113.262551 Y142.151544 Z-0.125000
G01 X119.531792 Y142.297752 Z-0.125000
G01 X126.119803 Y142.202978 Z-0.125000
G01 X137.914464 Y141.624891 Z-0.125000
G01 X143.014857 Y141.488049 Z-0.125000
G01 X149.390354 Y141.602613 Z-0.125000
G01 X158.316035 Y142.182235 Z-0.125000
G01 X161.078758 Y142.295053 Z-0.125000
G01 X164.160251 Y142.222293 Z-0.125000
G01 X166.922973 Y141.875769 Z-0.125000
G00 Z3.000000

(End cutting path id: polyline40873)


(Start cutting path id: polyline40871)
(Change tool to Default tool)

G00 Z3.000000
G00 X10.085817 Y139.855016

G00 Z4.875000 (Fast pre-penetrate)
G01 Z-0.125000 F400.0(Penetrate)
G01 X11.892205 Y139.375618 Z-0.125000 F800.000000
G01 X16.036263 Y138.095671 Z-0.125000
G01 X17.842650 Y137.630534 Z-0.125000
G01 X20.180347 Y137.232840 Z-0.125000
G01 X22.411760 Y137.110206 Z-0.125000
G01 X24.643200 Y137.235618 Z-0.125000
G01 X27.087127 Y137.609103 Z-0.125000
G01 X35.481526 Y139.631602 Z-0.125000
G01 X39.094301 Y140.342140 Z-0.125000
G01 X42.600819 Y140.779972 Z-0.125000
G01 X46.107364 Y140.966238 Z-0.125000
G01 X49.826396 Y140.932160 Z-0.125000
G01 X54.076710 Y140.683584 Z-0.125000
G01 X69.059119 Y139.209195 Z-0.125000
G01 X75.328360 Y138.704318 Z-0.125000
G01 X80.960062 Y138.410128 Z-0.125000
G01 X86.591738 Y138.280350 Z-0.125000
G01 X93.498519 Y138.347475 Z-0.125000
G01 X100.511556 Y138.669737 Z-0.125000
G01 X107.099566 Y139.189484 Z-0.125000
G01 X120.913154 Y140.551848 Z-0.125000
G01 X124.844698 Y140.816749 Z-0.125000
G01 X128.563730 Y140.950919 Z-0.125000
G01 X133.132840 Y140.969175 Z-0.125000
G01 X145.352553 Y140.783729 Z-0.125000
G01 X156.084622 Y140.969810 Z-0.125000
G01 X159.166114 Y140.956501 Z-0.125000
G01 X161.291271 Y140.854743 Z-0.125000
G01 X163.310172 Y140.652707 Z-0.125000
G01 X165.116586 Y140.363227 Z-0.125000
G01 X166.922973 Y139.958865 Z-0.125000
G00 Z3.000000

(End cutting path id: polyline40871)


(Start cutting path id: polyline40869)
(Change tool to Default tool)

G00 Z3.000000
G00 X10.085817 Y138.220369

G00 Z4.875000 (Fast pre-penetrate)
G01 Z-0.125000 F400.0(Penetrate)
G01 X14.548645 Y136.781593 Z-0.125000 F800.000000
G01 X16.780085 Y136.193240 Z-0.125000
G01 X19.011498 Y135.851690 Z-0.125000
G01 X21.242939 Y135.804727 Z-0.125000
G01 X23.155583 Y135.991337 Z-0.125000
G01 X25.174483 Y136.375406 Z-0.125000
G01 X32.612546 Y138.432988 Z-0.125000
G01 X35.906552 Y139.152416 Z-0.125000
G01 X39.519353 Y139.583342 Z-0.125000
G01 X43.238385 Y139.629168 Z-0.125000
G01 X45.788568 Y139.466979 Z-0.125000
G01 X48.657547 Y139.148288 Z-0.125000
G01 X61.939826 Y137.097294 Z-0.125000
G01 X69.271659 Y136.225440 Z-0.125000
G01 X73.415716 Y135.892303 Z-0.125000
G01 X77.666057 Y135.661270 Z-0.125000
G01 X87.441817 Y135.454286 Z-0.125000
G01 X97.111294 Y135.599701 Z-0.125000
G01 X101.467891 Y135.799594 Z-0.125000
G01 X105.505692 Y136.083782 Z-0.125000
G01 X112.518755 Y136.836309 Z-0.125000
G01 X123.357080 Y138.421611 Z-0.125000
G01 X127.288652 Y138.925430 Z-0.125000
G01 X131.751479 Y139.332756 Z-0.125000
G01 X136.426846 Y139.559424 Z-0.125000
G01 X149.709124 Y139.647583 Z-0.125000
G01 X157.040957 Y139.483171 Z-0.125000
G01 X159.803653 Y139.260816 Z-0.125000
G01 X162.247606 Y138.927838 Z-0.125000
G01 X164.585277 Y138.461563 Z-0.125000
G01 X166.922973 Y137.844714 Z-0.125000
G00 Z3.000000

(End cutting path id: polyline40869)


(Start cutting path id: polyline40867)
(Change tool to Default tool)

G00 Z3.000000
G00 X10.085817 Y136.529234

G00 Z4.875000 (Fast pre-penetrate)
G01 Z-0.125000 F400.0(Penetrate)
G01 X13.486079 Y135.373615 Z-0.125000 F800.000000
G01 X15.611236 Y134.809974 Z-0.125000
G01 X17.736394 Y134.503878 Z-0.125000
G01 X19.755321 Y134.494538 Z-0.125000
G01 X21.455452 Y134.693081 Z-0.125000
G01 X23.368096 Y135.104058 Z-0.125000
G01 X29.956106 Y137.134203 Z-0.125000
G01 X32.825086 Y137.842201 Z-0.125000
G01 X35.906552 Y138.263682 Z-0.125000
G01 X38.988044 Y138.305856 Z-0.125000
G01 X41.325741 Y138.114827 Z-0.125000
G01 X43.875924 Y137.739490 Z-0.125000
G01 X54.820532 Y135.470823 Z-0.125000
G01 X60.664721 Y134.533405 Z-0.125000
G01 X63.852470 Y134.186563 Z-0.125000
G01 X67.146475 Y133.943994 Z-0.125000
G01 X74.903334 Y133.723226 Z-0.125000
G01 X80.960062 Y134.210587 Z-0.125000
G01 X87.229277 Y134.397939 Z-0.125000
G01 X94.561110 Y134.254085 Z-0.125000
G01 X97.961372 Y134.041466 Z-0.125000
G01 X101.361634 Y133.724443 Z-0.125000
G01 X105.824488 Y133.798499 Z-0.125000
G01 X109.649776 Y133.969208 Z-0.125000
G01 X113.475064 Y134.277289 Z-0.125000
G01 X117.300379 Y134.737240 Z-0.125000
G01 X128.988783 Y136.671659 Z-0.125000
G01 X133.557866 Y137.305944 Z-0.125000
G01 X138.552003 Y137.759916 Z-0.125000
G01 X144.077448 Y137.991743 Z-0.125000
G01 X151.302998 Y137.965629 Z-0.125000
G01 X154.384491 Y137.824871 Z-0.125000
G01 X157.147214 Y137.596483 Z-0.125000
G01 X159.591140 Y137.286815 Z-0.125000
G01 X161.928837 Y136.876976 Z-0.125000
G01 X164.266507 Y136.349820 Z-0.125000
G01 X166.922973 Y135.629864 Z-0.125000
G00 Z3.000000

(End cutting path id: polyline40867)


(Start cutting path id: polyline40865)
(Change tool to Default tool)

G00 Z3.000000
G00 X10.085817 Y134.804682

G00 Z4.875000 (Fast pre-penetrate)
G01 Z-0.125000 F400.0(Penetrate)
G01 X12.742257 Y133.892691 Z-0.125000 F800.000000
G01 X14.761184 Y133.387364 Z-0.125000
G01 X16.673828 Y133.157150 Z-0.125000
G01 X18.480216 Y133.192631 Z-0.125000
G01 X20.074090 Y133.419802 Z-0.125000
G01 X21.774221 Y133.830673 Z-0.125000
G01 X27.618410 Y135.797345 Z-0.125000
G01 X29.956106 Y136.452135 Z-0.125000
G01 X32.400033 Y136.881791 Z-0.125000
G01 X34.843986 Y137.008659 Z-0.125000
G01 X37.287913 Y136.845464 Z-0.125000
G01 X39.944379 Y136.401520 Z-0.125000
G01 X49.082573 Y134.065305 Z-0.125000
G01 X53.120401 Y133.217211 Z-0.125000
G01 X57.051946 Y132.680398 Z-0.125000
G01 X61.196030 Y132.423726 Z-0.125000
G01 X64.915061 Y132.415974 Z-0.125000
G01 X70.121711 Y133.226947 Z-0.125000
G01 X78.941135 Y134.081683 Z-0.125000
G01 X83.403989 Y134.319569 Z-0.125000
G01 X88.079356 Y134.401114 Z-0.125000
G01 X93.498519 Y134.300017 Z-0.125000
G01 X98.598911 Y133.989555 Z-0.125000
G01 X106.462027 Y133.201706 Z-0.125000
G01 X111.562420 Y132.408671 Z-0.125000
G01 X116.237787 Y132.457804 Z-0.125000
G01 X119.425536 Y132.664761 Z-0.125000
G01 X122.825798 Y133.045681 Z-0.125000
G01 X133.664149 Y134.796798 Z-0.125000
G01 X138.020720 Y135.381156 Z-0.125000
G01 X142.589830 Y135.777871 Z-0.125000
G01 X147.158941 Y135.939796 Z-0.125000
G01 X152.259334 Y135.836662 Z-0.125000
G01 X157.040957 Y135.419044 Z-0.125000
G01 X161.397528 Y134.710570 Z-0.125000
G01 X166.922973 Y133.446525 Z-0.125000
G00 Z3.000000

(End cutting path id: polyline40865)


(Start cutting path id: polyline40863)
(Change tool to Default tool)

G00 Z3.000000
G00 X10.085817 Y133.073172

G00 Z4.875000 (Fast pre-penetrate)
G01 Z-0.125000 F400.0(Penetrate)
G01 X12.210974 Y132.374620 Z-0.125000 F800.000000
G01 X14.017362 Y131.973141 Z-0.125000
G01 X15.717493 Y131.820768 Z-0.125000
G01 X17.417624 Y131.907340 Z-0.125000
G01 X18.798985 Y132.144115 Z-0.125000
G01 X20.392860 Y132.571072 Z-0.125000
G01 X25.705766 Y134.493559 Z-0.125000
G01 X27.830949 Y135.135728 Z-0.125000
G01 X30.062363 Y135.561919 Z-0.125000
G01 X32.187520 Y135.686299 Z-0.125000
G01 X34.418934 Y135.524639 Z-0.125000
G01 X36.862887 Y135.059211 Z-0.125000
G01 X39.094301 Y134.451596 Z-0.125000
G01 X44.938516 Y132.645076 Z-0.125000
G01 X48.232521 Y131.826933 Z-0.125000
G01 X51.314014 Y131.324463 Z-0.125000
G01 X54.395506 Y131.094832 Z-0.125000
G01 X56.733176 Y131.087423 Z-0.125000
G01 X59.177103 Y131.207782 Z-0.125000
G01 X65.446344 Y132.493788 Z-0.125000
G01 X67.890297 Y132.922465 Z-0.125000
G01 X70.652994 Y133.287722 Z-0.125000
G01 X76.390952 Y133.863031 Z-0.125000
G01 X81.810115 Y134.254085 Z-0.125000
G01 X87.760586 Y134.400532 Z-0.125000
G01 X92.010901 Y134.349308 Z-0.125000
G01 X96.048728 Y134.173863 Z-0.125000
G01 X105.293179 Y133.333310 Z-0.125000
G01 X109.649776 Y132.734373 Z-0.125000
G01 X117.725405 Y131.194077 Z-0.125000
G01 X119.213023 Y131.112003 Z-0.125000
G01 X122.613285 Y131.092450 Z-0.125000
G01 X126.013547 Y131.283717 Z-0.125000
G01 X129.413809 Y131.648948 Z-0.125000
G01 X140.570930 Y133.130957 Z-0.125000
G01 X144.502474 Y133.445466 Z-0.125000
G01 X148.221506 Y133.564582 Z-0.125000
G01 X152.365590 Y133.472189 Z-0.125000
G01 X156.403391 Y133.138603 Z-0.125000
G01 X160.016166 Y132.640764 Z-0.125000
G01 X166.922973 Y131.446330 Z-0.125000
G00 Z3.000000

(End cutting path id: polyline40863)


(Start cutting path id: polyline40861)
(Change tool to Default tool)

G00 Z3.000000
G00 X10.085817 Y131.362404

G00 Z4.875000 (Fast pre-penetrate)
G01 Z-0.125000 F400.0(Penetrate)
G01 X11.785948 Y130.861205 Z-0.125000 F800.000000
G01 X13.379823 Y130.572174 Z-0.125000
G01 X14.867441 Y130.497059 Z-0.125000
G01 X16.355059 Y130.619164 Z-0.125000
G01 X17.736394 Y130.896765 Z-0.125000
G01 X19.117755 Y131.305069 Z-0.125000
G01 X24.005635 Y133.182815 Z-0.125000
G01 X26.024535 Y133.829747 Z-0.125000
G01 X28.255976 Y134.266917 Z-0.125000
G01 X30.381133 Y134.354997 Z-0.125000
G01 X32.400033 Y134.144574 Z-0.125000
G01 X34.525217 Y133.663059 Z-0.125000
G01 X36.437861 Y133.068885 Z-0.125000
G01 X41.857023 Y131.178413 Z-0.125000
G01 X44.938516 Y130.345109 Z-0.125000
G01 X46.638647 Y130.032531 Z-0.125000
G01 X48.232521 Y129.844889 Z-0.125000
G01 X49.826396 Y129.758714 Z-0.125000
G01 X51.526527 Y129.772208 Z-0.125000
G01 X53.545427 Y129.913680 Z-0.125000
G01 X55.670584 Y130.191651 Z-0.125000
G01 X58.752077 Y131.068162 Z-0.125000
G01 X60.983517 Y131.603651 Z-0.125000
G01 X66.508936 Y132.692543 Z-0.125000
G01 X69.909198 Y133.201389 Z-0.125000
G01 X76.922235 Y133.914016 Z-0.125000
G01 X80.322497 Y134.173863 Z-0.125000
G01 X84.891607 Y134.362829 Z-0.125000
G01 X89.673230 Y134.393388 Z-0.125000
G01 X93.604775 Y134.295836 Z-0.125000
G01 X97.323833 Y134.089408 Z-0.125000
G01 X106.993310 Y133.134952 Z-0.125000
G01 X109.862289 Y132.697517 Z-0.125000
G01 X115.812761 Y131.585183 Z-0.125000
G01 X122.719541 Y130.037188 Z-0.125000
G01 X124.950955 Y129.839332 Z-0.125000
G01 X127.926191 Y129.751544 Z-0.125000
G01 X131.007683 Y129.838089 Z-0.125000
G01 X143.333626 Y130.907084 Z-0.125000
G01 X146.521375 Y131.076919 Z-0.125000
G01 X149.496611 Y131.127693 Z-0.125000
G01 X152.471847 Y131.063531 Z-0.125000
G01 X155.447083 Y130.884859 Z-0.125000
G01 X164.160251 Y129.969904 Z-0.125000
G01 X166.922973 Y129.774589 Z-0.125000
G00 Z3.000000

(End cutting path id: polyline40861)


(Start cutting path id: polyline40859)
(Change tool to Default tool)

G00 Z3.000000
G00 X10.085817 Y129.699236

G00 Z4.875000 (Fast pre-penetrate)
G01 Z-0.125000 F400.0(Penetrate)
G01 X11.467179 Y129.367290 Z-0.125000 F800.000000
G01 X12.848514 Y129.193379 Z-0.125000
G01 X14.123619 Y129.190734 Z-0.125000
G01 X15.504980 Y129.360675 Z-0.125000
G01 X16.673828 Y129.632825 Z-0.125000
G01 X17.948933 Y130.040045 Z-0.125000
G01 X22.411760 Y131.843258 Z-0.125000
G01 X24.324404 Y132.494608 Z-0.125000
G01 X26.343331 Y132.927466 Z-0.125000
G01 X28.362232 Y133.035178 Z-0.125000
G01 X30.274876 Y132.832084 Z-0.125000
G01 X32.293777 Y132.340541 Z-0.125000
G01 X34.206421 Y131.687471 Z-0.125000
G01 X39.094301 Y129.804275 Z-0.125000
G01 X41.857023 Y128.980575 Z-0.125000
G01 X44.619746 Y128.516629 Z-0.125000
G01 X46.001081 Y128.434159 Z-0.125000
G01 X47.488699 Y128.453500 Z-0.125000
G01 X49.613883 Y128.656646 Z-0.125000
G01 X51.845296 Y129.051775 Z-0.125000
G01 X52.801631 Y129.265320 Z-0.125000
G01 X58.008281 Y130.863639 Z-0.125000
G01 X60.345951 Y131.463025 Z-0.125000
G01 X66.402679 Y132.673387 Z-0.125000
G01 X70.334224 Y133.251633 Z-0.125000
G01 X74.159539 Y133.588262 Z-0.125000
G01 X78.516109 Y133.772015 Z-0.125000
G01 X93.923545 Y133.830779 Z-0.125000
G01 X98.280142 Y133.760902 Z-0.125000
G01 X101.786660 Y133.614164 Z-0.125000
G01 X104.868153 Y133.376013 Z-0.125000
G01 X107.843389 Y133.018826 Z-0.125000
G01 X116.662813 Y131.410876 Z-0.125000
G01 X123.250824 Y129.899525 Z-0.125000
G01 X126.863599 Y128.987111 Z-0.125000
G01 X130.476400 Y128.571424 Z-0.125000
G01 X133.026584 Y128.447837 Z-0.125000
G01 X135.895563 Y128.439344 Z-0.125000
G01 X145.777579 Y128.830107 Z-0.125000
G01 X150.027894 Y128.899878 Z-0.125000
G01 X154.278234 Y128.817222 Z-0.125000
G01 X162.778889 Y128.441117 Z-0.125000
G01 X165.010303 Y128.440905 Z-0.125000
G01 X166.922973 Y128.538272 Z-0.125000
G00 Z3.000000

(End cutting path id: polyline40859)


(Start cutting path id: polyline40857)
(Change tool to Default tool)

G00 Z3.000000
G00 X10.085817 Y128.107451

G00 Z4.875000 (Fast pre-penetrate)
G01 Z-0.125000 F400.0(Penetrate)
G01 X11.254639 Y127.913830 Z-0.125000 F800.000000
G01 X12.423488 Y127.849827 Z-0.125000
G01 X13.592336 Y127.922137 Z-0.125000
G01 X14.761184 Y128.126634 Z-0.125000
G01 X16.886341 Y128.783805 Z-0.125000
G01 X20.924142 Y130.486979 Z-0.125000
G01 X22.518017 Y131.072686 Z-0.125000
G01 X24.218148 Y131.513905 Z-0.125000
G01 X25.812022 Y131.705860 Z-0.125000
G01 X27.830949 Y131.614182 Z-0.125000
G01 X30.062363 Y131.112929 Z-0.125000
G01 X32.081264 Y130.391385 Z-0.125000
G01 X36.756630 Y128.441699 Z-0.125000
G01 X39.200557 Y127.648294 Z-0.125000
G01 X41.325741 Y127.231920 Z-0.125000
G01 X43.450898 Y127.106375 Z-0.125000
G01 X45.469798 Y127.248298 Z-0.125000
G01 X47.701239 Y127.657316 Z-0.125000
G01 X50.676448 Y128.489933 Z-0.125000
G01 X54.608019 Y129.866505 Z-0.125000
G01 X59.177103 Y131.179392 Z-0.125000
G01 X62.577391 Y131.909139 Z-0.125000
G01 X65.977653 Y132.344166 Z-0.125000
G01 X68.740349 Y132.501672 Z-0.125000
G01 X71.928098 Y132.515457 Z-0.125000
G01 X83.297733 Y132.042541 Z-0.125000
G01 X88.823152 Y131.959859 Z-0.125000
G01 X93.073492 Y132.042541 Z-0.125000
G01 X102.211686 Y132.452248 Z-0.125000
G01 X105.930745 Y132.527601 Z-0.125000
G01 X110.393572 Y132.349722 Z-0.125000
G01 X114.537656 Y131.820768 Z-0.125000
G01 X117.725405 Y131.175926 Z-0.125000
G01 X131.857735 Y127.842630 Z-0.125000
G01 X136.108076 Y127.336139 Z-0.125000
G01 X141.846008 Y127.113757 Z-0.125000
G01 X158.953601 Y127.118943 Z-0.125000
G01 X163.310172 Y127.307114 Z-0.125000
G01 X166.922973 Y127.773892 Z-0.125000
G00 Z3.000000

(End cutting path id: polyline40857)


(Start cutting path id: polyline40855)
(Change tool to Default tool)

G00 Z3.000000
G00 X10.085817 Y126.605811

G00 Z4.875000 (Fast pre-penetrate)
G01 Z-0.125000 F400.0(Penetrate)
G01 X11.998461 Y126.550460 Z-0.125000 F800.000000
G01 X13.911105 Y126.868198 Z-0.125000
G01 X15.823749 Y127.500710 Z-0.125000
G01 X19.755321 Y129.212694 Z-0.125000
G01 X21.455452 Y129.840417 Z-0.125000
G01 X23.261839 Y130.271476 Z-0.125000
G01 X25.068227 Y130.392099 Z-0.125000
G01 X26.768358 Y130.207129 Z-0.125000
G01 X28.681002 Y129.690610 Z-0.125000
G01 X30.487389 Y128.982771 Z-0.125000
G01 X34.737730 Y127.087643 Z-0.125000
G01 X37.075400 Y126.283152 Z-0.125000
G01 X38.350505 Y125.993248 Z-0.125000
G01 X39.519353 Y125.834869 Z-0.125000
G01 X40.688175 Y125.782772 Z-0.125000
G01 X41.857023 Y125.835054 Z-0.125000
G01 X43.769667 Y126.127180 Z-0.125000
G01 X45.788568 Y126.664654 Z-0.125000
G01 X53.120401 Y129.377635 Z-0.125000
G01 X56.308150 Y130.341908 Z-0.125000
G01 X58.008281 Y130.715367 Z-0.125000
G01 X59.708412 Y130.981326 Z-0.125000
G01 X61.408543 Y131.141504 Z-0.125000
G01 X63.214930 Y131.204131 Z-0.125000
G01 X65.552601 Y131.143488 Z-0.125000
G01 X68.209067 Y130.925499 Z-0.125000
G01 X77.241004 Y129.745485 Z-0.125000
G01 X81.066319 Y129.334878 Z-0.125000
G01 X84.572837 Y129.096595 Z-0.125000
G01 X88.079356 Y129.011955 Z-0.125000
G01 X91.904644 Y129.101622 Z-0.125000
G01 X95.942472 Y129.393404 Z-0.125000
G01 X99.555247 Y129.798772 Z-0.125000
G01 X106.674540 Y130.752858 Z-0.125000
G01 X109.756033 Y131.065648 Z-0.125000
G01 X112.731268 Y131.202199 Z-0.125000
G01 X115.493991 Y131.134069 Z-0.125000
G01 X118.150431 Y130.873561 Z-0.125000
G01 X121.019410 Y130.390882 Z-0.125000
G01 X133.026584 Y127.567279 Z-0.125000
G01 X137.701951 Y126.673597 Z-0.125000
G01 X141.102213 Y126.292650 Z-0.125000
G01 X145.246297 Y126.052250 Z-0.125000
G01 X152.153077 Y125.964461 Z-0.125000
G01 X158.209779 Y126.155993 Z-0.125000
G01 X162.778889 Y126.613748 Z-0.125000
G01 X164.904046 Y126.974375 Z-0.125000
G01 X166.922973 Y127.421573 Z-0.125000
G00 Z3.000000

(End cutting path id: polyline40855)


(Start cutting path id: polyline40853)
(Change tool to Default tool)

G00 Z3.000000
G00 X10.085817 Y125.206431

G00 Z4.875000 (Fast pre-penetrate)
G01 Z-0.125000 F400.0(Penetrate)
G01 X11.573435 Y125.290542 Z-0.125000 F800.000000
G01 X13.061053 Y125.603200 Z-0.125000
G01 X14.867441 Y126.236082 Z-0.125000
G01 X18.586472 Y127.900812 Z-0.125000
G01 X20.180347 Y128.507448 Z-0.125000
G01 X21.986734 Y128.952953 Z-0.125000
G01 X23.686865 Y129.069555 Z-0.125000
G01 X25.386996 Y128.873684 Z-0.125000
G01 X27.193384 Y128.357509 Z-0.125000
G01 X28.847980 Y127.677663 Z-0.125000
G01 X32.931342 Y125.755229 Z-0.125000
G01 X35.162756 Y124.942880 Z-0.125000
G01 X36.331604 Y124.662951 Z-0.125000
G01 X37.394170 Y124.510631 Z-0.125000
G01 X38.456761 Y124.459884 Z-0.125000
G01 X39.519353 Y124.509837 Z-0.125000
G01 X41.325741 Y124.809980 Z-0.125000
G01 X43.238385 Y125.374600 Z-0.125000
G01 X49.720139 Y128.059800 Z-0.125000
G01 X52.482835 Y129.018014 Z-0.125000
G01 X55.245558 Y129.636979 Z-0.125000
G01 X56.626920 Y129.803772 Z-0.125000
G01 X58.114537 Y129.879126 Z-0.125000
G01 X60.664721 Y129.780886 Z-0.125000
G01 X63.533700 Y129.396711 Z-0.125000
G01 X73.521973 Y127.235994 Z-0.125000
G01 X77.984827 Y126.449521 Z-0.125000
G01 X82.235141 Y125.961075 Z-0.125000
G01 X86.485482 Y125.733639 Z-0.125000
G01 X89.248204 Y125.721442 Z-0.125000
G01 X91.904644 Y125.809733 Z-0.125000
G01 X94.667367 Y126.007694 Z-0.125000
G01 X97.323833 Y126.302651 Z-0.125000
G01 X102.211686 Y127.107963 Z-0.125000
G01 X112.625012 Y129.306938 Z-0.125000
G01 X115.493991 Y129.703522 Z-0.125000
G01 X118.256688 Y129.875236 Z-0.125000
G01 X121.019410 Y129.812557 Z-0.125000
G01 X123.994646 Y129.491882 Z-0.125000
G01 X127.501165 Y128.847199 Z-0.125000
G01 X133.345353 Y127.499969 Z-0.125000
G01 X139.508338 Y126.355065 Z-0.125000
G01 X143.652422 Y125.812088 Z-0.125000
G01 X148.008993 Y125.466490 Z-0.125000
G01 X153.215642 Y125.432041 Z-0.125000
G01 X158.103522 Y125.728744 Z-0.125000
G01 X162.460120 Y126.328131 Z-0.125000
G01 X166.922973 Y127.319285 Z-0.125000
G00 Z3.000000

(End cutting path id: polyline40853)


(Start cutting path id: polyline40851)
(Change tool to Default tool)

G00 Z3.000000
G00 X10.085817 Y123.913917

G00 Z4.875000 (Fast pre-penetrate)
G01 Z-0.125000 F400.0(Penetrate)
G01 X11.467179 Y124.132833 Z-0.125000 F800.000000
G01 X12.954797 Y124.576221 Z-0.125000
G01 X17.630137 Y126.647377 Z-0.125000
G01 X19.330268 Y127.282270 Z-0.125000
G01 X20.924142 Y127.651681 Z-0.125000
G01 X22.411760 Y127.747195 Z-0.125000
G01 X24.111891 Y127.544392 Z-0.125000
G01 X25.812022 Y127.039145 Z-0.125000
G01 X27.481806 Y126.323051 Z-0.125000
G01 X31.443724 Y124.375270 Z-0.125000
G01 X33.462625 Y123.611049 Z-0.125000
G01 X34.525217 Y123.342576 Z-0.125000
G01 X35.587782 Y123.182874 Z-0.125000
G01 X36.544117 Y123.136969 Z-0.125000
G01 X37.606683 Y123.194542 Z-0.125000
G01 X39.200557 Y123.482620 Z-0.125000
G01 X41.006945 Y124.056792 Z-0.125000
G01 X42.691915 Y124.761376 Z-0.125000
G01 X47.063673 Y126.797554 Z-0.125000
G01 X49.507626 Y127.727801 Z-0.125000
G01 X51.951553 Y128.330786 Z-0.125000
G01 X54.289249 Y128.554835 Z-0.125000
G01 X56.733176 Y128.436751 Z-0.125000
G01 X59.495899 Y127.951136 Z-0.125000
G01 X62.046082 Y127.280206 Z-0.125000
G01 X69.696685 Y124.990717 Z-0.125000
G01 X72.246868 Y124.362835 Z-0.125000
G01 X74.797078 Y123.854597 Z-0.125000
G01 X77.559800 Y123.439281 Z-0.125000
G01 X80.428753 Y123.141361 Z-0.125000
G01 X83.510246 Y122.946522 Z-0.125000
G01 X86.910508 Y122.851801 Z-0.125000
G01 X90.735822 Y122.874079 Z-0.125000
G01 X94.348597 Y123.026135 Z-0.125000
G01 X97.642603 Y123.302704 Z-0.125000
G01 X100.724095 Y123.712013 Z-0.125000
G01 X103.274278 Y124.177018 Z-0.125000
G01 X105.930745 Y124.782357 Z-0.125000
G01 X113.900117 Y127.001177 Z-0.125000
G01 X116.662813 Y127.689754 Z-0.125000
G01 X119.638049 Y128.238685 Z-0.125000
G01 X122.400772 Y128.512766 Z-0.125000
G01 X125.269725 Y128.537610 Z-0.125000
G01 X128.244960 Y128.307053 Z-0.125000
G01 X131.538966 Y127.823977 Z-0.125000
G01 X140.889699 Y126.134985 Z-0.125000
G01 X145.458810 Y125.641062 Z-0.125000
G01 X149.602867 Y125.402328 Z-0.125000
G01 X154.171978 Y125.426009 Z-0.125000
G01 X158.953601 Y125.779386 Z-0.125000
G01 X162.566376 Y126.329454 Z-0.125000
G01 X166.922973 Y127.219881 Z-0.125000
G00 Z3.000000

(End cutting path id: polyline40851)


(Start cutting path id: polyline40849)
(Change tool to Default tool)

G00 Z3.000000
G00 X10.085817 Y122.725331

G00 Z4.875000 (Fast pre-penetrate)
G01 Z-0.125000 F400.0(Penetrate)
G01 X11.254639 Y123.016504 Z-0.125000 F800.000000
G01 X12.423488 Y123.428989 Z-0.125000
G01 X16.461315 Y125.274508 Z-0.125000
G01 X18.055190 Y125.898130 Z-0.125000
G01 X19.755321 Y126.321013 Z-0.125000
G01 X21.349195 Y126.421714 Z-0.125000
G01 X22.943069 Y126.215022 Z-0.125000
G01 X24.643200 Y125.685776 Z-0.125000
G01 X26.206701 Y124.987674 Z-0.125000
G01 X29.940919 Y123.078364 Z-0.125000
G01 X31.975007 Y122.273925 Z-0.125000
G01 X33.887651 Y121.867050 Z-0.125000
G01 X34.843986 Y121.814054 Z-0.125000
G01 X35.800295 Y121.864060 Z-0.125000
G01 X37.394170 Y122.164838 Z-0.125000
G01 X39.094301 Y122.742184 Z-0.125000
G01 X40.779271 Y123.500770 Z-0.125000
G01 X44.877794 Y125.554675 Z-0.125000
G01 X47.169929 Y126.481033 Z-0.125000
G01 X49.507626 Y127.067429 Z-0.125000
G01 X50.676448 Y127.203504 Z-0.125000
G01 X51.845296 Y127.233825 Z-0.125000
G01 X53.864197 Y127.053035 Z-0.125000
G01 X55.989380 Y126.592581 Z-0.125000
G01 X58.327051 Y125.858893 Z-0.125000
G01 X63.852470 Y123.804406 Z-0.125000
G01 X66.615192 Y122.886620 Z-0.125000
G01 X69.696685 Y122.080462 Z-0.125000
G01 X72.884434 Y121.510815 Z-0.125000
G01 X76.284696 Y121.161380 Z-0.125000
G01 X80.428753 Y120.983395 Z-0.125000
G01 X91.160848 Y120.940374 Z-0.125000
G01 X96.580011 Y120.998582 Z-0.125000
G01 X99.448990 Y121.119391 Z-0.125000
G01 X101.892917 Y121.316532 Z-0.125000
G01 X104.230614 Y121.613473 Z-0.125000
G01 X106.462027 Y122.011115 Z-0.125000
G01 X110.606111 Y123.043836 Z-0.125000
G01 X117.725405 Y125.294326 Z-0.125000
G01 X120.488128 Y126.079978 Z-0.125000
G01 X123.569594 Y126.747759 Z-0.125000
G01 X126.438573 Y127.117937 Z-0.125000
G01 X129.307552 Y127.236047 Z-0.125000
G01 X132.282788 Y127.125822 Z-0.125000
G01 X135.257997 Y126.845152 Z-0.125000
G01 X144.714988 Y125.707154 Z-0.125000
G01 X148.008993 Y125.466543 Z-0.125000
G01 X151.090485 Y125.375658 Z-0.125000
G01 X154.490747 Y125.439396 Z-0.125000
G01 X157.891009 Y125.674108 Z-0.125000
G01 X161.185015 Y126.043572 Z-0.125000
G01 X166.922973 Y126.836553 Z-0.125000
G00 Z3.000000

(End cutting path id: polyline40849)


(Start cutting path id: polyline40847)
(Change tool to Default tool)

G00 Z3.000000
G00 X10.085817 Y121.630856

G00 Z4.875000 (Fast pre-penetrate)
G01 Z-0.125000 F400.0(Penetrate)
G01 X11.892205 Y122.284191 Z-0.125000 F800.000000
G01 X15.504980 Y123.970485 Z-0.125000
G01 X16.992598 Y124.560822 Z-0.125000
G01 X18.692729 Y124.995506 Z-0.125000
G01 X20.392860 Y125.093851 Z-0.125000
G01 X21.986734 Y124.856017 Z-0.125000
G01 X23.580609 Y124.328545 Z-0.125000
G01 X25.022692 Y123.662536 Z-0.125000
G01 X28.665815 Y121.742669 Z-0.125000
G01 X30.593646 Y120.953524 Z-0.125000
G01 X31.549981 Y120.692883 Z-0.125000
G01 X32.506290 Y120.536779 Z-0.125000
G01 X34.312677 Y120.545907 Z-0.125000
G01 X35.800295 Y120.844516 Z-0.125000
G01 X37.500426 Y121.459539 Z-0.125000
G01 X39.048766 Y122.202329 Z-0.125000
G01 X42.874054 Y124.242185 Z-0.125000
G01 X45.044772 Y125.178729 Z-0.125000
G01 X47.169929 Y125.748244 Z-0.125000
G01 X48.232521 Y125.881382 Z-0.125000
G01 X49.295086 Y125.910830 Z-0.125000
G01 X51.101500 Y125.734354 Z-0.125000
G01 X53.014145 Y125.277048 Z-0.125000
G01 X55.245558 Y124.485019 Z-0.125000
G01 X60.664721 Y122.161134 Z-0.125000
G01 X63.321187 Y121.167519 Z-0.125000
G01 X66.296423 Y120.339877 Z-0.125000
G01 X69.271659 Y119.842408 Z-0.125000
G01 X72.140611 Y119.638308 Z-0.125000
G01 X75.647130 Y119.644711 Z-0.125000
G01 X78.834879 Y120.236160 Z-0.125000
G01 X81.385089 Y120.572419 Z-0.125000
G01 X85.210377 Y120.904021 Z-0.125000
G01 X88.504382 Y120.989428 Z-0.125000
G01 X91.585874 Y120.881266 Z-0.125000
G01 X95.304906 Y120.548712 Z-0.125000
G01 X97.961372 Y120.187583 Z-0.125000
G01 X100.724095 Y119.657676 Z-0.125000
G01 X104.124357 Y119.632858 Z-0.125000
G01 X107.843389 Y119.904108 Z-0.125000
G01 X111.456164 Y120.540219 Z-0.125000
G01 X114.962682 Y121.487638 Z-0.125000
G01 X121.656949 Y123.695662 Z-0.125000
G01 X124.525929 Y124.542698 Z-0.125000
G01 X127.713678 Y125.268264 Z-0.125000
G01 X130.795170 Y125.708080 Z-0.125000
G01 X133.451610 Y125.884690 Z-0.125000
G01 X136.426846 Y125.899215 Z-0.125000
G01 X147.265197 Y125.331050 Z-0.125000
G01 X152.259334 Y125.236885 Z-0.125000
G01 X156.403391 Y125.347269 Z-0.125000
G01 X164.053994 Y125.811321 Z-0.125000
G01 X166.922973 Y125.910513 Z-0.125000
G00 Z3.000000

(End cutting path id: polyline40847)


(Start cutting path id: polyline40845)
(Change tool to Default tool)

G00 Z3.000000
G00 X10.085817 Y120.614911

G00 Z4.875000 (Fast pre-penetrate)
G01 Z-0.125000 F400.0(Penetrate)
G01 X11.543061 Y121.220832 Z-0.125000 F800.000000
G01 X14.654928 Y122.693792 Z-0.125000
G01 X16.142519 Y123.277436 Z-0.125000
G01 X17.842650 Y123.693757 Z-0.125000
G01 X19.436525 Y123.768079 Z-0.125000
G01 X20.924142 Y123.540246 Z-0.125000
G01 X22.518017 Y123.005233 Z-0.125000
G01 X24.020822 Y122.292102 Z-0.125000
G01 X27.481806 Y120.420495 Z-0.125000
G01 X29.318541 Y119.642886 Z-0.125000
G01 X31.124928 Y119.223151 Z-0.125000
G01 X32.825086 Y119.209261 Z-0.125000
G01 X34.312677 Y119.502471 Z-0.125000
G01 X35.906552 Y120.091036 Z-0.125000
G01 X37.500426 Y120.886399 Z-0.125000
G01 X41.234645 Y122.978669 Z-0.125000
G01 X43.238385 Y123.882511 Z-0.125000
G01 X45.257285 Y124.443030 Z-0.125000
