%
(Header)
(Generated by gcodetools from Inkscape.)
(Using default header. To add your own header create file "header" in the output dir.)
M3
(Header end.)
G21 (All units in mm)

(Start cutting path id: polyline136)
(Change tool to Default tool)

G00 Z3.000000
G00 X48.438081 Y113.079244

G00 Z4.875000 (Fast pre-penetrate)
G01 Z-0.125000 F400.0(Penetrate)
G01 X55.763647 Y112.631054 Z-0.125000 F800.000000
G01 X62.637946 Y111.432374 Z-0.125000
G01 X68.637493 Y109.553164 Z-0.125000
G01 X72.338053 Y107.763214 Z-0.125000
G01 X74.350730 Y106.421374 Z-0.125000
G01 X75.962903 Y104.984144 Z-0.125000
G01 X77.577121 Y102.697284 Z-0.125000
G01 X78.093157 Y101.119034 Z-0.125000
G01 X78.150687 Y99.525674 Z-0.125000
G01 X77.377300 Y97.160174 Z-0.125000
G01 X76.300210 Y95.634334 Z-0.125000
G01 X73.884037 Y93.480234 Z-0.125000
G01 X71.775818 Y92.165474 Z-0.125000
G01 X67.948630 Y90.425024 Z-0.125000
G01 X65.011541 Y89.444574 Z-0.125000
G01 X60.140711 Y88.280514 Z-0.125000
G01 X54.863553 Y87.517754 Z-0.125000
G01 X49.363122 Y87.181244 Z-0.125000
G01 X40.219504 Y87.588274 Z-0.125000
G01 X35.057956 Y88.396754 Z-0.125000
G01 X30.361131 Y89.595204 Z-0.125000
G01 X27.569402 Y90.589894 Z-0.125000
G01 X23.999012 Y92.336174 Z-0.125000
G01 X21.277325 Y94.331224 Z-0.125000
G01 X19.498860 Y96.504374 Z-0.125000
G01 X18.869258 Y98.013994 Z-0.125000
G01 X18.696748 Y99.544874 Z-0.125000
G01 X18.984082 Y101.072674 Z-0.125000
G01 X19.726697 Y102.573334 Z-0.125000
G01 X20.913259 Y104.023304 Z-0.125000
G01 X22.525431 Y105.399534 Z-0.125000
G01 X25.685241 Y107.278574 Z-0.125000
G01 X31.104532 Y109.336274 Z-0.125000
G01 X35.890603 Y110.472384 Z-0.125000
G01 X42.918997 Y111.366264 Z-0.125000
G01 X48.438080 Y111.538844 Z-0.125000
G01 X55.763646 Y111.090654 Z-0.125000
G01 X62.637945 Y109.891884 Z-0.125000
G01 X68.637493 Y108.012694 Z-0.125000
G01 X72.338052 Y106.222814 Z-0.125000
G01 X74.350729 Y104.880984 Z-0.125000
G01 X75.962902 Y103.443754 Z-0.125000
G01 X77.577121 Y101.156804 Z-0.125000
G01 X78.093157 Y99.578554 Z-0.125000
G01 X78.150687 Y97.985184 Z-0.125000
G01 X77.377301 Y95.619704 Z-0.125000
G01 X76.300210 Y94.093944 Z-0.125000
G01 X73.884038 Y91.939764 Z-0.125000
G01 X71.775818 Y90.625004 Z-0.125000
G01 X67.948631 Y88.884544 Z-0.125000
G01 X65.011542 Y87.904174 Z-0.125000
G01 X60.140712 Y86.740044 Z-0.125000
G01 X54.863553 Y85.977284 Z-0.125000
G01 X49.363122 Y85.640834 Z-0.125000
G01 X40.219504 Y86.047794 Z-0.125000
G01 X35.057956 Y86.856364 Z-0.125000
G01 X30.361131 Y88.054734 Z-0.125000
G01 X27.569402 Y89.049494 Z-0.125000
G01 X23.999013 Y90.795694 Z-0.125000
G01 X21.277325 Y92.790744 Z-0.125000
G01 X19.498860 Y94.963894 Z-0.125000
G01 X18.869259 Y96.473604 Z-0.125000
G01 X18.696748 Y98.004394 Z-0.125000
G01 X18.984083 Y99.532204 Z-0.125000
G01 X19.726697 Y101.032934 Z-0.125000
G01 X20.913259 Y102.482824 Z-0.125000
G01 X22.525431 Y103.859054 Z-0.125000
G01 X25.685241 Y105.738094 Z-0.125000
G01 X31.104533 Y107.795874 Z-0.125000
G01 X37.591549 Y109.224274 Z-0.125000
G01 X44.746808 Y109.931714 Z-0.125000
G01 X50.287298 Y109.958814 Z-0.125000
G01 X57.541718 Y109.318894 Z-0.125000
G01 X64.235322 Y107.941724 Z-0.125000
G01 X69.955799 Y105.908424 Z-0.125000
G01 X73.392713 Y104.024664 Z-0.125000
G01 X75.208561 Y102.632534 Z-0.125000
G01 X76.610604 Y101.155564 Z-0.125000
G01 X77.892078 Y98.830604 Z-0.125000
G01 X78.150687 Y96.444814 Z-0.125000
G01 X77.748765 Y94.860504 Z-0.125000
G01 X76.893768 Y93.309244 Z-0.125000
G01 X75.598835 Y91.814654 Z-0.125000
G01 X72.877148 Y89.728074 Z-0.125000
G01 X70.584063 Y88.471234 Z-0.125000
G01 X66.515029 Y86.834584 Z-0.125000
G01 X63.443914 Y85.933154 Z-0.125000
G01 X58.418044 Y84.899184 Z-0.125000
G01 X49.363122 Y84.100384 Z-0.125000
G01 X40.219504 Y84.507424 Z-0.125000
G01 X36.735449 Y85.001264 Z-0.125000
G01 X31.864619 Y86.073864 Z-0.125000
G01 X28.927530 Y86.993324 Z-0.125000
G01 X25.100421 Y88.642254 Z-0.125000
G01 X22.083766 Y90.561904 Z-0.125000
G01 X19.982394 Y92.683974 Z-0.125000
G01 X19.127395 Y94.174154 Z-0.125000
G01 X18.725552 Y95.697404 Z-0.125000
G01 X18.783082 Y97.229774 Z-0.125000
G01 X19.299040 Y98.747024 Z-0.125000
G01 X20.265556 Y100.225254 Z-0.125000
G01 X21.667598 Y101.641074 Z-0.125000
G01 X24.538108 Y103.599444 Z-0.125000
G01 X29.635201 Y105.795494 Z-0.125000
G01 X35.890603 Y107.391454 Z-0.125000
G01 X42.918996 Y108.285404 Z-0.125000
G01 X48.438080 Y108.457924 Z-0.125000
G01 X55.763646 Y108.009724 Z-0.125000
G01 X62.637945 Y106.810964 Z-0.125000
G01 X68.637492 Y104.931844 Z-0.125000
G01 X72.338052 Y103.141884 Z-0.125000
G01 X74.350729 Y101.800044 Z-0.125000
G01 X75.962901 Y100.362824 Z-0.125000
G01 X77.149463 Y98.851854 Z-0.125000
G01 X77.892077 Y97.290204 Z-0.125000
G01 X78.150686 Y94.904334 Z-0.125000
G01 X77.748764 Y93.320024 Z-0.125000
G01 X76.893767 Y91.768844 Z-0.125000
G01 X75.598834 Y90.274174 Z-0.125000
G01 X72.877147 Y88.187594 Z-0.125000
G01 X70.584062 Y86.930754 Z-0.125000
G01 X66.515029 Y85.294114 Z-0.125000
G01 X63.443913 Y84.392754 Z-0.125000
G01 X58.418044 Y83.358794 Z-0.125000
G01 X49.363121 Y82.559914 Z-0.125000
G01 X40.219503 Y82.966954 Z-0.125000
G01 X36.735448 Y83.460864 Z-0.125000
G01 X31.864618 Y84.533464 Z-0.125000
G01 X28.927529 Y85.452844 Z-0.125000
G01 X25.100420 Y87.101774 Z-0.125000
G01 X22.083765 Y89.021424 Z-0.125000
G01 X19.982393 Y91.143504 Z-0.125000
G01 X19.127395 Y92.633684 Z-0.125000
G01 X18.725552 Y94.156924 Z-0.125000
G01 X18.783082 Y95.689294 Z-0.125000
G01 X19.299040 Y97.206554 Z-0.125000
G01 X20.265556 Y98.684774 Z-0.125000
G01 X21.667599 Y100.100674 Z-0.125000
G01 X25.685241 Y102.657164 Z-0.125000
G01 X31.104532 Y104.714944 Z-0.125000
G01 X37.591549 Y106.143434 Z-0.125000
G01 X44.746808 Y106.850774 Z-0.125000
G01 X50.287297 Y106.877874 Z-0.125000
G01 X57.541718 Y106.237894 Z-0.125000
G01 X64.235322 Y104.860784 Z-0.125000
G01 X69.955798 Y102.827494 Z-0.125000
G01 X73.392712 Y100.943644 Z-0.125000
G01 X75.208561 Y99.551524 Z-0.125000
G01 X76.610604 Y98.074644 Z-0.125000
G01 X77.577120 Y96.535414 Z-0.125000
G01 X78.093156 Y94.957164 Z-0.125000
G01 X78.006896 Y92.569014 Z-0.125000
G01 X77.377295 Y90.998314 Z-0.125000
G01 X76.300205 Y89.472474 Z-0.125000
G01 X74.792389 Y88.014704 Z-0.125000
G01 X72.877143 Y86.647064 Z-0.125000
G01 X70.584057 Y85.390224 Z-0.125000
G01 X66.515024 Y83.753654 Z-0.125000
G01 X63.443908 Y82.852214 Z-0.125000
G01 X58.418039 Y81.818254 Z-0.125000
G01 X49.363117 Y81.019374 Z-0.125000
G01 X40.219499 Y81.426404 Z-0.125000
G01 X36.735443 Y81.920334 Z-0.125000
G01 X31.864614 Y82.992934 Z-0.125000
G01 X28.927525 Y83.912314 Z-0.125000
G01 X25.100416 Y85.561314 Z-0.125000
G01 X22.992118 Y86.815014 Z-0.125000
G01 X20.575945 Y88.877654 Z-0.125000
G01 X19.498855 Y90.342424 Z-0.125000
G01 X18.869253 Y91.852134 Z-0.125000
G01 X18.696743 Y93.383004 Z-0.125000
G01 X18.984077 Y94.910814 Z-0.125000
G01 X19.726692 Y96.411544 Z-0.125000
G01 X20.913254 Y97.861434 Z-0.125000
G01 X22.525426 Y99.237674 Z-0.125000
G01 X24.538103 Y100.518434 Z-0.125000
G01 X29.635196 Y102.714474 Z-0.125000
G01 X35.890598 Y104.310524 Z-0.125000
G01 X42.918992 Y105.204404 Z-0.125000
G01 X48.438075 Y105.376984 Z-0.125000
G01 X55.763641 Y104.928794 Z-0.125000
G01 X62.637940 Y103.730024 Z-0.125000
G01 X68.637488 Y101.850824 Z-0.125000
G01 X73.392707 Y99.403174 Z-0.125000
G01 X75.208556 Y98.011044 Z-0.125000
G01 X76.610599 Y96.534154 Z-0.125000
G01 X77.577116 Y94.994944 Z-0.125000
G01 X78.093152 Y93.416684 Z-0.125000
G01 X78.006892 Y91.028534 Z-0.125000
G01 X77.377290 Y89.457844 Z-0.125000
G01 X76.300200 Y87.932004 Z-0.125000
G01 X74.792384 Y86.474234 Z-0.125000
G01 X72.877138 Y85.106664 Z-0.125000
G01 X70.584053 Y83.849814 Z-0.125000
G01 X66.515019 Y82.213174 Z-0.125000
G01 X63.443904 Y81.311744 Z-0.125000
G01 X58.418034 Y80.277784 Z-0.125000
G01 X49.363112 Y79.478894 Z-0.125000
G01 X40.219494 Y79.885934 Z-0.125000
G01 X36.735439 Y80.379854 Z-0.125000
G01 X31.864609 Y81.452464 Z-0.125000
G01 X28.927520 Y82.371834 Z-0.125000
G01 X25.100411 Y84.020844 Z-0.125000
G01 X22.992113 Y85.274524 Z-0.125000
G01 X20.575940 Y87.337184 Z-0.125000
G01 X19.498850 Y88.801954 Z-0.125000
G01 X18.869249 Y90.311734 Z-0.125000
G01 X18.696738 Y91.842524 Z-0.125000
G01 X18.984072 Y93.370334 Z-0.125000
G01 X19.726687 Y94.871074 Z-0.125000
G01 X20.913249 Y96.320964 Z-0.125000
G01 X22.525421 Y97.697184 Z-0.125000
G01 X24.538098 Y98.977954 Z-0.125000
G01 X29.635191 Y101.174004 Z-0.125000
G01 X35.890593 Y102.770044 Z-0.125000
G01 X42.918987 Y103.663914 Z-0.125000
G01 X50.287287 Y103.796924 Z-0.125000
G01 X57.541708 Y103.157014 Z-0.125000
G01 X64.235312 Y101.779844 Z-0.125000
G01 X69.955789 Y99.746544 Z-0.125000
G01 X74.350719 Y97.178634 Z-0.125000
G01 X75.962892 Y95.741334 Z-0.125000
G01 X77.149454 Y94.230444 Z-0.125000
G01 X77.892068 Y92.668724 Z-0.125000
G01 X78.179403 Y91.079924 Z-0.125000
G01 X77.748755 Y88.698614 Z-0.125000
G01 X76.893757 Y87.147364 Z-0.125000
G01 X75.598825 Y85.652764 Z-0.125000
G01 X73.884028 Y84.237424 Z-0.125000
G01 X71.775808 Y82.922654 Z-0.125000
G01 X69.306749 Y81.728384 Z-0.125000
G01 X65.011532 Y80.201754 Z-0.125000
G01 X61.818195 Y79.382724 Z-0.125000
G01 X56.656647 Y78.482784 Z-0.125000
G01 X47.513029 Y77.923234 Z-0.125000
G01 X40.219494 Y78.345454 Z-0.125000
G01 X36.735439 Y78.839384 Z-0.125000
G01 X31.864609 Y79.911984 Z-0.125000
G01 X28.927520 Y80.831434 Z-0.125000
G01 X25.100411 Y82.480354 Z-0.125000
G01 X22.992113 Y83.734054 Z-0.125000
G01 X20.575940 Y85.796714 Z-0.125000
G01 X19.498850 Y87.261474 Z-0.125000
G01 X18.869249 Y88.771254 Z-0.125000
G01 X18.696738 Y90.302054 Z-0.125000
G01 X18.984072 Y91.829854 Z-0.125000
G01 X19.726687 Y93.330584 Z-0.125000
G01 X20.913249 Y94.780484 Z-0.125000
G01 X22.525421 Y96.156714 Z-0.125000
G01 X24.538098 Y97.437554 Z-0.125000
G01 X29.635191 Y99.633614 Z-0.125000
G01 X35.890593 Y101.229564 Z-0.125000
G01 X42.918987 Y102.123444 Z-0.125000
G01 X50.287287 Y102.256444 Z-0.125000
G01 X57.541708 Y101.616534 Z-0.125000
G01 X64.235312 Y100.239364 Z-0.125000
G01 X69.955789 Y98.206064 Z-0.125000
G01 X74.350719 Y95.638164 Z-0.125000
G01 X75.962892 Y94.200854 Z-0.125000
G01 X77.149454 Y92.689974 Z-0.125000
G01 X77.892068 Y91.128254 Z-0.125000
G01 X78.179403 Y89.539444 Z-0.125000
G01 X77.748755 Y87.158144 Z-0.125000
G01 X76.893757 Y85.606964 Z-0.125000
G01 X75.598825 Y84.112284 Z-0.125000
G01 X73.884028 Y82.696944 Z-0.125000
G01 X71.775808 Y81.382184 Z-0.125000
G01 X69.306749 Y80.187984 Z-0.125000
G01 X65.011532 Y78.661354 Z-0.125000
G01 X61.818195 Y77.842324 Z-0.125000
G01 X56.656647 Y76.942314 Z-0.125000
G01 X47.513029 Y76.382754 Z-0.125000
G01 X40.219494 Y76.804984 Z-0.125000
G01 X36.735439 Y77.298984 Z-0.125000
G01 X31.864609 Y78.371504 Z-0.125000
G01 X28.927520 Y79.290964 Z-0.125000
G01 X25.100411 Y80.939884 Z-0.125000
G01 X22.992113 Y82.193574 Z-0.125000
G01 X20.575940 Y84.256224 Z-0.125000
G01 X19.498850 Y85.721074 Z-0.125000
G01 X18.869249 Y87.230784 Z-0.125000
G01 X18.696738 Y88.761574 Z-0.125000
G01 X18.984072 Y90.289384 Z-0.125000
G01 X19.726687 Y91.790114 Z-0.125000
G01 X20.913249 Y93.240004 Z-0.125000
G01 X22.525421 Y94.616234 Z-0.125000
G01 X24.538098 Y95.897084 Z-0.125000
G01 X29.635191 Y98.093124 Z-0.125000
G01 X35.890593 Y99.689164 Z-0.125000
G01 X42.918987 Y100.583054 Z-0.125000
G01 X48.438071 Y100.755554 Z-0.125000
G01 X55.763636 Y100.307354 Z-0.125000
G01 X62.637935 Y99.108674 Z-0.125000
G01 X68.637483 Y97.229474 Z-0.125000
G01 X73.392703 Y94.781824 Z-0.125000
G01 X75.208551 Y93.389694 Z-0.125000
G01 X76.610594 Y91.912804 Z-0.125000
G01 X77.577111 Y90.373594 Z-0.125000
G01 X78.093147 Y88.795334 Z-0.125000
G01 X78.006887 Y86.407184 Z-0.125000
G01 X77.377286 Y84.836404 Z-0.125000
G01 X76.300195 Y83.310654 Z-0.125000
G01 X74.792380 Y81.852884 Z-0.125000
G01 X72.877133 Y80.485234 Z-0.125000
G01 X70.584048 Y79.228394 Z-0.125000
G01 X66.515014 Y77.591744 Z-0.125000
G01 X63.443899 Y76.690394 Z-0.125000
G01 X58.418029 Y75.656354 Z-0.125000
G01 X49.363107 Y74.857544 Z-0.125000
G01 X40.219489 Y75.264584 Z-0.125000
G01 X36.735434 Y75.758504 Z-0.125000
G01 X31.864604 Y76.831114 Z-0.125000
G01 X28.927515 Y77.750484 Z-0.125000
G01 X25.100406 Y79.399404 Z-0.125000
G01 X22.992108 Y80.653174 Z-0.125000
G01 X20.575935 Y82.715834 Z-0.125000
G01 X19.498845 Y84.180604 Z-0.125000
G01 X18.869244 Y85.690304 Z-0.125000
G01 X18.696733 Y87.221174 Z-0.125000
G01 X18.984068 Y88.748984 Z-0.125000
G01 X19.726682 Y90.249644 Z-0.125000
G01 X20.913244 Y91.699534 Z-0.125000
G01 X22.525416 Y93.075834 Z-0.125000
G01 X24.538093 Y94.356604 Z-0.125000
G01 X29.635186 Y96.552654 Z-0.125000
G01 X35.890588 Y98.148694 Z-0.125000
G01 X42.918982 Y99.042564 Z-0.125000
G01 X48.438066 Y99.215084 Z-0.125000
G01 X55.763632 Y98.766884 Z-0.125000
G01 X62.637931 Y97.568204 Z-0.125000
G01 X68.637478 Y95.689004 Z-0.125000
G01 X73.392698 Y93.241344 Z-0.125000
G01 X75.208546 Y91.849224 Z-0.125000
G01 X76.610589 Y90.372334 Z-0.125000
G01 X77.577106 Y88.833114 Z-0.125000
G01 X78.093142 Y87.254864 Z-0.125000
G01 X78.006882 Y84.866704 Z-0.125000
G01 X77.377281 Y83.296004 Z-0.125000
G01 X76.300191 Y81.770174 Z-0.125000
G01 X74.792375 Y80.312414 Z-0.125000
G01 X72.877128 Y78.944754 Z-0.125000
G01 X70.584043 Y77.687924 Z-0.125000
G01 X66.515010 Y76.051274 Z-0.125000
G01 X63.443894 Y75.149924 Z-0.125000
G01 X58.418025 Y74.115874 Z-0.125000
G01 X49.363102 Y73.317074 Z-0.125000
G01 X40.219484 Y73.724104 Z-0.125000
G01 X36.735429 Y74.218034 Z-0.125000
G01 X31.864599 Y75.290634 Z-0.125000
G01 X28.927510 Y76.210014 Z-0.125000
G01 X25.100401 Y77.858934 Z-0.125000
G01 X22.992103 Y79.112704 Z-0.125000
G01 X20.575930 Y81.175364 Z-0.125000
G01 X19.498840 Y82.640124 Z-0.125000
G01 X18.869239 Y84.149824 Z-0.125000
G01 X18.696729 Y85.680704 Z-0.125000
G01 X18.984063 Y87.208504 Z-0.125000
G01 X19.726677 Y88.709164 Z-0.125000
G01 X20.913239 Y90.159134 Z-0.125000
G01 X22.525411 Y91.535364 Z-0.125000
G01 X24.538088 Y92.816134 Z-0.125000
G01 X29.635182 Y95.012174 Z-0.125000
G01 X35.890583 Y96.608214 Z-0.125000
G01 X42.918977 Y97.502094 Z-0.125000
G01 X48.438061 Y97.674604 Z-0.125000
G01 X55.763627 Y97.226404 Z-0.125000
G01 X62.637926 Y96.027724 Z-0.125000
G01 X68.637473 Y94.148524 Z-0.125000
G01 X73.392693 Y91.700944 Z-0.125000
G01 X75.208541 Y90.308744 Z-0.125000
G01 X76.610584 Y88.831854 Z-0.125000
G01 X77.577101 Y87.292644 Z-0.125000
G01 X78.093137 Y85.714394 Z-0.125000
G01 X78.006877 Y83.326224 Z-0.125000
G01 X77.377276 Y81.755534 Z-0.125000
G01 X76.300186 Y80.229694 Z-0.125000
G01 X74.792370 Y78.771934 Z-0.125000
G01 X71.775794 Y76.760834 Z-0.125000
G01 X69.306735 Y75.566634 Z-0.125000
G01 X65.011517 Y74.039934 Z-0.125000
G01 X61.818181 Y73.220894 Z-0.125000
G01 X56.656633 Y72.320874 Z-0.125000
G01 X47.513015 Y71.761404 Z-0.125000
G01 X38.458091 Y72.407694 Z-0.125000
G01 X35.057931 Y72.992114 Z-0.125000
G01 X30.361106 Y74.190564 Z-0.125000
G01 X27.569377 Y75.185254 Z-0.125000
G01 X23.998988 Y76.931534 Z-0.125000
G01 X22.083741 Y78.238114 Z-0.125000
G01 X19.982369 Y80.360184 Z-0.125000
G01 X19.127371 Y81.850364 Z-0.125000
G01 X18.725528 Y83.373684 Z-0.125000
G01 X18.783058 Y84.906054 Z-0.125000
G01 X19.299016 Y86.423234 Z-0.125000
G01 X20.265532 Y87.901464 Z-0.125000
G01 X21.667575 Y89.317354 Z-0.125000
G01 X25.685217 Y91.873934 Z-0.125000
G01 X31.104508 Y93.931704 Z-0.125000
G01 X37.591525 Y95.360114 Z-0.125000
G01 X44.746784 Y96.067474 Z-0.125000
G01 X50.287273 Y96.094574 Z-0.125000
G01 X57.541694 Y95.454654 Z-0.125000
G01 X64.235298 Y94.077484 Z-0.125000
G01 X69.955775 Y92.044184 Z-0.125000
G01 X73.392688 Y90.160424 Z-0.125000
G01 X75.208537 Y88.768214 Z-0.125000
G01 X76.610580 Y87.291334 Z-0.125000
G01 X77.577096 Y85.752114 Z-0.125000
G01 X78.093133 Y84.173864 Z-0.125000
G01 X78.006873 Y81.785704 Z-0.125000
G01 X77.377271 Y80.215004 Z-0.125000
G01 X76.300181 Y78.689254 Z-0.125000
G01 X74.792365 Y77.231484 Z-0.125000
G01 X71.775789 Y75.220304 Z-0.125000
G01 X69.306730 Y74.026114 Z-0.125000
G01 X65.011512 Y72.499404 Z-0.125000
G01 X61.818176 Y71.680454 Z-0.125000
G01 X56.656628 Y70.780354 Z-0.125000
G01 X47.513010 Y70.220874 Z-0.125000
G01 X38.458087 Y70.867164 Z-0.125000
G01 X35.057927 Y71.451674 Z-0.125000
G01 X30.361102 Y72.650034 Z-0.125000
G01 X27.569373 Y73.644804 Z-0.125000
G01 X23.998983 Y75.391004 Z-0.125000
G01 X22.083737 Y76.697664 Z-0.125000
G01 X19.982365 Y78.819654 Z-0.125000
G01 X19.127366 Y80.309844 Z-0.125000
G01 X18.725523 Y81.833164 Z-0.125000
G01 X18.783053 Y83.365534 Z-0.125000
G01 X19.299012 Y84.882714 Z-0.125000
G01 X20.265527 Y86.361014 Z-0.125000
G01 X21.667570 Y87.776834 Z-0.125000
G01 X25.685212 Y90.333404 Z-0.125000
G01 X31.104504 Y92.391174 Z-0.125000
G01 X37.591520 Y93.819584 Z-0.125000
G01 X44.746779 Y94.527024 Z-0.125000
G01 X50.287269 Y94.554024 Z-0.125000
G01 X57.541689 Y93.914114 Z-0.125000
G01 X64.235293 Y92.536944 Z-0.125000
G01 X69.955770 Y90.503644 Z-0.125000
G01 X73.392684 Y88.619884 Z-0.125000
G01 X75.208532 Y87.227674 Z-0.125000
G01 X76.610575 Y85.750784 Z-0.125000
G01 X77.577092 Y84.211564 Z-0.125000
G01 X78.093128 Y82.633314 Z-0.125000
G01 X78.006868 Y80.245164 Z-0.125000
G01 X77.377267 Y78.674464 Z-0.125000
G01 X76.300177 Y77.148704 Z-0.125000
G01 X74.792361 Y75.690944 Z-0.125000
G01 X71.775784 Y73.679754 Z-0.125000
G01 X69.306726 Y72.485564 Z-0.125000
G01 X65.011508 Y70.958944 Z-0.125000
G01 X61.818172 Y70.139904 Z-0.125000
G01 X56.656623 Y69.239894 Z-0.125000
G01 X47.513005 Y68.680334 Z-0.125000
G01 X38.458082 Y69.326614 Z-0.125000
G01 X35.057922 Y69.911124 Z-0.125000
G01 X30.361097 Y71.109494 Z-0.125000
G01 X27.569368 Y72.104264 Z-0.125000
G01 X23.998979 Y73.850464 Z-0.125000
G01 X22.083732 Y75.157114 Z-0.125000
G01 X19.982360 Y77.279194 Z-0.125000
G01 X19.127362 Y78.769374 Z-0.125000
G01 X18.725519 Y80.292624 Z-0.125000
G01 X18.783049 Y81.824994 Z-0.125000
G01 X19.299007 Y83.342244 Z-0.125000
G01 X20.265523 Y84.820474 Z-0.125000
G01 X21.667566 Y86.236284 Z-0.125000
G01 X24.538075 Y88.194664 Z-0.125000
G01 X29.635168 Y90.390714 Z-0.125000
G01 X35.890570 Y91.986664 Z-0.125000
G01 X42.918963 Y92.880624 Z-0.125000
G01 X48.438047 Y93.053144 Z-0.125000
G01 X55.763613 Y92.604944 Z-0.125000
G01 X62.637912 Y91.406184 Z-0.125000
G01 X68.637459 Y89.527054 Z-0.125000
G01 X72.338019 Y87.737104 Z-0.125000
G01 X74.350696 Y86.395264 Z-0.125000
G01 X75.962869 Y84.958034 Z-0.125000
G01 X77.149430 Y83.447074 Z-0.125000
G01 X77.892044 Y81.885424 Z-0.125000
G01 X78.150653 Y79.499554 Z-0.125000
G01 X77.748732 Y77.915244 Z-0.125000
G01 X76.893734 Y76.364064 Z-0.125000
G01 X75.598802 Y74.869394 Z-0.125000
G01 X72.877114 Y72.782814 Z-0.125000
G01 X70.584029 Y71.525974 Z-0.125000
G01 X66.514996 Y69.889324 Z-0.125000
G01 X63.443880 Y68.987964 Z-0.125000
G01 X58.418011 Y67.954004 Z-0.125000
G01 X49.363089 Y67.155124 Z-0.125000
G01 X40.219471 Y67.562154 Z-0.125000
G01 X36.735415 Y68.056004 Z-0.125000
G01 X31.864585 Y69.128684 Z-0.125000
G01 X28.927496 Y70.048064 Z-0.125000
G01 X25.100387 Y71.696984 Z-0.125000
G01 X22.083732 Y73.616644 Z-0.125000
G01 X19.982360 Y75.738704 Z-0.125000
G01 X19.127362 Y77.228894 Z-0.125000
G01 X18.725519 Y78.752224 Z-0.125000
G01 X18.783049 Y80.284504 Z-0.125000
G01 X19.299007 Y81.801774 Z-0.125000
G01 X20.265523 Y83.279994 Z-0.125000
G01 X21.667566 Y84.695884 Z-0.125000
G01 X24.538075 Y86.654194 Z-0.125000
G01 X29.635168 Y88.850234 Z-0.125000
G01 X35.890570 Y90.446274 Z-0.125000
G01 X42.918964 Y91.340154 Z-0.125000
G01 X48.438048 Y91.512654 Z-0.125000
G01 X55.763613 Y91.064454 Z-0.125000
G01 X62.637912 Y89.865704 Z-0.125000
G01 X68.637460 Y87.986574 Z-0.125000
G01 X72.338019 Y86.196614 Z-0.125000
G01 X74.350696 Y84.854784 Z-0.125000
G01 X75.962869 Y83.417564 Z-0.125000
G01 X77.149430 Y81.906684 Z-0.125000
G01 X77.892045 Y80.344954 Z-0.125000
G01 X78.150654 Y77.959074 Z-0.125000
G01 X77.748732 Y76.374764 Z-0.125000
G01 X76.893734 Y74.823584 Z-0.125000
G01 X75.598802 Y73.328914 Z-0.125000
G01 X72.877115 Y71.242344 Z-0.125000
G01 X70.584029 Y69.985494 Z-0.125000
G01 X66.514996 Y68.348844 Z-0.125000
G01 X63.443881 Y67.447494 Z-0.125000
G01 X58.418011 Y66.413534 Z-0.125000
G01 X49.363089 Y65.614644 Z-0.125000
G01 X40.219471 Y66.021684 Z-0.125000
G01 X36.735416 Y66.515604 Z-0.125000
G01 X31.864586 Y67.588214 Z-0.125000
G01 X28.927497 Y68.507584 Z-0.125000
G01 X25.100388 Y70.156594 Z-0.125000
G01 X22.083733 Y72.076174 Z-0.125000
G01 X19.982361 Y74.198234 Z-0.125000
G01 X19.127362 Y75.688424 Z-0.125000
G01 X18.725519 Y77.211744 Z-0.125000
G01 X18.783049 Y78.744034 Z-0.125000
G01 X19.299008 Y80.261294 Z-0.125000
G01 X20.265523 Y81.739524 Z-0.125000
G01 X21.667566 Y83.155414 Z-0.125000
G01 X24.538075 Y85.113704 Z-0.125000
G01 X29.635168 Y87.309754 Z-0.125000
G01 X35.890570 Y88.905804 Z-0.125000
G01 X42.918964 Y89.799674 Z-0.125000
G01 X48.438048 Y89.972264 Z-0.125000
G01 X55.763614 Y89.523984 Z-0.125000
G01 X62.637913 Y88.325304 Z-0.125000
G01 X68.637460 Y86.446104 Z-0.125000
G01 X72.338019 Y84.656144 Z-0.125000
G01 X74.350697 Y83.314384 Z-0.125000
G01 X75.962869 Y81.877094 Z-0.125000
G01 X77.149431 Y80.366194 Z-0.125000
G01 X77.892045 Y78.804474 Z-0.125000
G01 X78.150654 Y76.418604 Z-0.125000
G01 X77.748732 Y74.834294 Z-0.125000
G01 X76.893735 Y73.283114 Z-0.125000
G01 X75.598802 Y71.788524 Z-0.125000
G01 X72.877115 Y69.701864 Z-0.125000
G01 X70.584030 Y68.445094 Z-0.125000
G01 X66.514996 Y66.808454 Z-0.125000
G01 X63.443881 Y65.907024 Z-0.125000
G01 X58.418011 Y64.873054 Z-0.125000
G01 X49.363089 Y64.074174 Z-0.125000
G01 X40.219471 Y64.481204 Z-0.125000
G01 X36.735416 Y64.975134 Z-0.125000
G01 X31.864586 Y66.047734 Z-0.125000
G01 X28.927497 Y66.967114 Z-0.125000
G01 X25.100388 Y68.616114 Z-0.125000
G01 X22.083733 Y70.535684 Z-0.125000
G01 X19.982361 Y72.657754 Z-0.125000
G01 X19.127362 Y74.147954 Z-0.125000
G01 X18.725519 Y75.671264 Z-0.125000
G01 X18.783049 Y77.203634 Z-0.125000
G01 X19.299007 Y78.720824 Z-0.125000
G01 X20.265523 Y80.199044 Z-0.125000
G01 X21.667566 Y81.614934 Z-0.125000
G01 X24.538075 Y83.573234 Z-0.125000
G01 X29.635168 Y85.769284 Z-0.125000
G01 X35.890570 Y87.365314 Z-0.125000
G01 X42.918963 Y88.259194 Z-0.125000
G01 X48.438047 Y88.431794 Z-0.125000
G01 X55.763613 Y87.983594 Z-0.125000
G01 X62.637912 Y86.784834 Z-0.125000
G01 X68.637459 Y84.905624 Z-0.125000
G01 X72.338019 Y83.115674 Z-0.125000
G01 X74.350696 Y81.773914 Z-0.125000
G01 X75.962869 Y80.336604 Z-0.125000
G01 X77.149430 Y78.825724 Z-0.125000
G01 X77.892044 Y77.264004 Z-0.125000
G01 X78.150653 Y74.878124 Z-0.125000
G01 X77.748732 Y73.293894 Z-0.125000
G01 X76.893734 Y71.742634 Z-0.125000
G01 X75.598802 Y70.248034 Z-0.125000
G01 X72.877114 Y68.161464 Z-0.125000
G01 X70.584029 Y66.904624 Z-0.125000
G01 X66.514996 Y65.267974 Z-0.125000
G01 X63.443880 Y64.366544 Z-0.125000
G01 X58.418011 Y63.332584 Z-0.125000
G01 X49.363089 Y62.533694 Z-0.125000
G01 X40.219471 Y62.940734 Z-0.125000
G01 X36.735415 Y63.434654 Z-0.125000
G01 X31.864585 Y64.507264 Z-0.125000
G01 X28.927496 Y65.426714 Z-0.125000
G01 X25.100387 Y67.075634 Z-0.125000
G01 X22.083732 Y68.995294 Z-0.125000
G01 X19.982360 Y71.117284 Z-0.125000
G01 X19.127362 Y72.607554 Z-0.125000
G01 X18.725519 Y74.130784 Z-0.125000
G01 X18.783049 Y75.663154 Z-0.125000
G01 X19.299007 Y77.180424 Z-0.125000
G01 X20.265523 Y78.658564 Z-0.125000
G01 X21.667566 Y80.074464 Z-0.125000
G01 X24.538075 Y82.032754 Z-0.125000
G01 X29.635168 Y84.228874 Z-0.125000
G01 X35.890570 Y85.824844 Z-0.125000
G01 X42.918964 Y86.718804 Z-0.125000
G01 X48.438047 Y86.891304 Z-0.125000
G01 X55.763613 Y86.443104 Z-0.125000
G01 X62.637912 Y85.244354 Z-0.125000
G01 X68.637460 Y83.365224 Z-0.125000
G01 X72.338019 Y81.575264 Z-0.125000
G01 X74.350696 Y80.233434 Z-0.125000
G01 X75.962869 Y78.796214 Z-0.125000
G01 X77.149430 Y77.285244 Z-0.125000
G01 X77.892045 Y75.723524 Z-0.125000
G01 X78.150654 Y73.337724 Z-0.125000
G01 X77.748732 Y71.753414 Z-0.125000
G01 X76.893734 Y70.202234 Z-0.125000
G01 X75.598802 Y68.707564 Z-0.125000
G01 X72.877115 Y66.620994 Z-0.125000
G01 X70.584029 Y65.364144 Z-0.125000
G01 X66.514996 Y63.727494 Z-0.125000
G01 X63.443880 Y62.826144 Z-0.125000
G01 X58.418011 Y61.792104 Z-0.125000
G01 X53.045468 Y61.169434 Z-0.125000
G01 X47.513006 Y60.978034 Z-0.125000
G01 X38.458083 Y61.624314 Z-0.125000
G01 X35.057922 Y62.208824 Z-0.125000
G01 X30.361098 Y63.407184 Z-0.125000
G01 X27.569369 Y64.401954 Z-0.125000
G01 X23.998979 Y66.148154 Z-0.125000
G01 X21.277292 Y68.143214 Z-0.125000
G01 X19.498827 Y70.316354 Z-0.125000
G01 X18.869225 Y71.826054 Z-0.125000
G01 X18.696715 Y73.356854 Z-0.125000
G01 X18.984049 Y74.884654 Z-0.125000
G01 X19.726664 Y76.385394 Z-0.125000
G01 X20.913226 Y77.835284 Z-0.125000
G01 X22.525398 Y79.211514 Z-0.125000
G01 X25.685208 Y81.090564 Z-0.125000
G01 X31.104499 Y83.148324 Z-0.125000
G01 X37.591516 Y84.576744 Z-0.125000
G01 X44.746775 Y85.284174 Z-0.125000
G01 X50.287264 Y85.311174 Z-0.125000
G01 X57.541685 Y84.671264 Z-0.125000
G01 X64.235289 Y83.294094 Z-0.125000
G01 X69.955766 Y81.260794 Z-0.125000
G01 X73.392679 Y79.377034 Z-0.125000
G01 X75.208528 Y77.984904 Z-0.125000
G01 X76.610571 Y76.508014 Z-0.125000
G01 X77.892045 Y74.182974 Z-0.125000
G01 X78.150654 Y71.797184 Z-0.125000
G01 X77.748732 Y70.212874 Z-0.125000
G01 X76.893734 Y68.661694 Z-0.125000
G01 X75.598802 Y67.167104 Z-0.125000
G01 X72.877115 Y65.080434 Z-0.125000
G01 X70.584029 Y63.823604 Z-0.125000
G01 X66.514996 Y62.186954 Z-0.125000
G01 X63.443880 Y61.285604 Z-0.125000
G01 X58.418011 Y60.251554 Z-0.125000
G01 X53.045468 Y59.628884 Z-0.125000
G01 X47.513006 Y59.437484 Z-0.125000
G01 X38.458083 Y60.083844 Z-0.125000
G01 X35.057922 Y60.668284 Z-0.125000
G01 X30.361098 Y61.866644 Z-0.125000
G01 X27.569369 Y62.861414 Z-0.125000
G01 X23.998979 Y64.607614 Z-0.125000
G01 X21.277292 Y66.602744 Z-0.125000
G01 X19.498827 Y68.775814 Z-0.125000
G01 X18.869225 Y70.285514 Z-0.125000
G01 X18.696715 Y71.816384 Z-0.125000
G01 X18.984049 Y73.344194 Z-0.125000
G01 X19.726664 Y74.844844 Z-0.125000
G01 X20.913226 Y76.294744 Z-0.125000
G01 X22.525398 Y77.670974 Z-0.125000
G01 X25.685208 Y79.550014 Z-0.125000
G01 X31.104499 Y81.607784 Z-0.125000
G01 X37.591516 Y83.036274 Z-0.125000
G01 X44.746775 Y83.743634 Z-0.125000
G01 X50.287264 Y83.770734 Z-0.125000
G01 X57.541685 Y83.130754 Z-0.125000
G01 X64.235289 Y81.753574 Z-0.125000
G01 X69.955766 Y79.720364 Z-0.125000
G01 X73.392679 Y77.836514 Z-0.125000
G01 X75.208528 Y76.444384 Z-0.125000
G01 X76.610571 Y74.967504 Z-0.125000
G01 X77.892045 Y72.642544 Z-0.125000
G01 X78.150654 Y70.256674 Z-0.125000
G01 X77.748732 Y68.672364 Z-0.125000
G01 X76.893734 Y67.121184 Z-0.125000
G01 X75.598802 Y65.626584 Z-0.125000
G01 X72.877115 Y63.540004 Z-0.125000
G01 X70.584029 Y62.283094 Z-0.125000
G01 X66.514996 Y60.646514 Z-0.125000
G01 X63.443880 Y59.745084 Z-0.125000
G01 X58.418011 Y58.711124 Z-0.125000
G01 X53.045468 Y58.088364 Z-0.125000
G01 X47.513006 Y57.896964 Z-0.125000
G01 X38.458083 Y58.543334 Z-0.125000
G01 X35.057922 Y59.127754 Z-0.125000
G01 X30.361098 Y60.326204 Z-0.125000
G01 X27.569369 Y61.320894 Z-0.125000
G01 X23.998979 Y63.067174 Z-0.125000
G01 X21.277292 Y65.062224 Z-0.125000
G01 X19.498827 Y67.235284 Z-0.125000
G01 X18.869225 Y68.744994 Z-0.125000
G01 X18.696715 Y70.275874 Z-0.125000
G01 X18.984049 Y71.803674 Z-0.125000
G01 X19.726664 Y73.304334 Z-0.125000
G01 X20.913226 Y74.754224 Z-0.125000
G01 X22.525398 Y76.130534 Z-0.125000
G01 X25.685208 Y78.009574 Z-0.125000
G01 X31.104499 Y80.067274 Z-0.125000
G01 X35.890570 Y81.203384 Z-0.125000
G01 X42.918964 Y82.097264 Z-0.125000
G01 X48.438047 Y82.269774 Z-0.125000
G01 X55.763613 Y81.821574 Z-0.125000
G01 X62.637912 Y80.622894 Z-0.125000
G01 X68.637460 Y78.743694 Z-0.125000
G01 X72.338019 Y76.953734 Z-0.125000
G01 X74.350696 Y75.611894 Z-0.125000
G01 X75.962869 Y74.174674 Z-0.125000
G01 X77.577087 Y71.887804 Z-0.125000
G01 X78.093124 Y70.309554 Z-0.125000
G01 X78.150654 Y68.716184 Z-0.125000
G01 X77.377268 Y66.350704 Z-0.125000
G01 X76.300177 Y64.824864 Z-0.125000
G01 X73.884005 Y62.670684 Z-0.125000
G01 X71.775785 Y61.356004 Z-0.125000
G01 X67.948598 Y59.615544 Z-0.125000
G01 X65.011509 Y58.635104 Z-0.125000
G01 X60.140679 Y57.470964 Z-0.125000
G01 X54.863520 Y56.708284 Z-0.125000
G01 X49.363089 Y56.371764 Z-0.125000
G01 X40.219471 Y56.778794 Z-0.125000
G01 X35.057923 Y57.587284 Z-0.125000
G01 X30.361098 Y58.785734 Z-0.125000
G01 X27.569369 Y59.780494 Z-0.125000
G01 X23.998979 Y61.526704 Z-0.125000
G01 X21.277292 Y63.521744 Z-0.125000
G01 X19.498827 Y65.694814 Z-0.125000
G01 X18.869226 Y67.204514 Z-0.125000
G01 X18.696715 Y68.735394 Z-0.125000
G01 X18.984050 Y70.263204 Z-0.125000
G01 X19.726664 Y71.763934 Z-0.125000
G01 X20.913226 Y73.213824 Z-0.125000
G01 X22.525398 Y74.590054 Z-0.125000
G01 X25.685208 Y76.469104 Z-0.125000
G01 X31.104500 Y78.526874 Z-0.125000
G01 X35.890570 Y79.662914 Z-0.125000
G01 X42.918964 Y80.556784 Z-0.125000
G01 X48.438048 Y80.729374 Z-0.125000
G01 X55.763614 Y80.281174 Z-0.125000
G01 X62.637912 Y79.082414 Z-0.125000
G01 X68.637460 Y77.203214 Z-0.125000
G01 X72.338019 Y75.413254 Z-0.125000
G01 X74.350697 Y74.071494 Z-0.125000
G01 X75.962869 Y72.634204 Z-0.125000
G01 X77.577088 Y70.347324 Z-0.125000
G01 X78.093124 Y68.769074 Z-0.125000
G01 X78.150654 Y67.175714 Z-0.125000
G01 X77.377268 Y64.810224 Z-0.125000
G01 X76.300178 Y63.284384 Z-0.125000
G01 X73.884005 Y61.130284 Z-0.125000
G01 X71.775786 Y59.815524 Z-0.125000
G01 X67.948598 Y58.075064 Z-0.125000
G01 X65.011509 Y57.094614 Z-0.125000
G01 X60.140679 Y55.930484 Z-0.125000
G01 X54.863521 Y55.167804 Z-0.125000
G01 X49.363089 Y54.831284 Z-0.125000
G01 X40.219471 Y55.238314 Z-0.125000
G01 X35.057923 Y56.046804 Z-0.125000
G01 X30.361098 Y57.245254 Z-0.125000
G01 X27.569369 Y58.240024 Z-0.125000
G01 X23.998980 Y59.986224 Z-0.125000
G01 X21.277293 Y61.981354 Z-0.125000
G01 X19.498827 Y64.154334 Z-0.125000
G01 X18.869226 Y65.664114 Z-0.125000
G01 X18.696716 Y67.194914 Z-0.125000
G01 X18.984050 Y68.722724 Z-0.125000
G01 X19.726664 Y70.223454 Z-0.125000
G01 X20.913226 Y71.673354 Z-0.125000
G01 X22.525398 Y73.049584 Z-0.125000
G01 X25.685209 Y74.928624 Z-0.125000
G01 X31.104500 Y76.986394 Z-0.125000
G01 X35.890571 Y78.122434 Z-0.125000
G01 X42.918964 Y79.016314 Z-0.125000
G01 X48.438048 Y79.188904 Z-0.125000
G01 X55.763614 Y78.740704 Z-0.125000
G01 X62.637913 Y77.541944 Z-0.125000
G01 X68.637460 Y75.662734 Z-0.125000
G01 X72.338020 Y73.872864 Z-0.125000
G01 X74.350697 Y72.531024 Z-0.125000
G01 X75.962869 Y71.093724 Z-0.125000
G01 X77.577088 Y68.806854 Z-0.125000
G01 X78.093124 Y67.228604 Z-0.125000
G01 X78.150654 Y65.635244 Z-0.125000
G01 X77.377268 Y63.269754 Z-0.125000
G01 X76.300178 Y61.743984 Z-0.125000
G01 X73.884005 Y59.589814 Z-0.125000
G01 X71.775786 Y58.275044 Z-0.125000
G01 X67.948598 Y56.534594 Z-0.125000
G01 X65.011509 Y55.554144 Z-0.125000
G01 X60.140679 Y54.390094 Z-0.125000
G01 X54.863521 Y53.627334 Z-0.125000
G01 X49.363090 Y53.290894 Z-0.125000
G01 X40.219472 Y53.697844 Z-0.125000
G01 X35.057923 Y54.506404 Z-0.125000
G01 X30.361099 Y55.704784 Z-0.125000
G01 X27.569369 Y56.699544 Z-0.125000
G01 X23.998980 Y58.445754 Z-0.125000
G01 X21.277293 Y60.440864 Z-0.125000
G01 X19.498828 Y62.613934 Z-0.125000
G01 X18.869226 Y64.123644 Z-0.125000
G01 X18.696716 Y65.654444 Z-0.125000
G01 X18.984050 Y67.182324 Z-0.125000
G01 X19.726664 Y68.682984 Z-0.125000
G01 X20.913227 Y70.132874 Z-0.125000
G01 X22.525398 Y71.509094 Z-0.125000
G01 X25.685209 Y73.388144 Z-0.125000
G01 X31.104500 Y75.445924 Z-0.125000
G01 X35.890571 Y76.582034 Z-0.125000
G01 X42.918964 Y77.475914 Z-0.125000
G01 X48.438048 Y77.648424 Z-0.125000
G01 X55.763614 Y77.200224 Z-0.125000
G01 X62.637913 Y76.001464 Z-0.125000
G01 X68.637460 Y74.122264 Z-0.125000
G01 X72.338020 Y72.332384 Z-0.125000
G01 X74.350697 Y70.990544 Z-0.125000
G01 X75.962870 Y69.553324 Z-0.125000
G01 X77.577088 Y67.266454 Z-0.125000
G01 X78.093124 Y65.688204 Z-0.125000
G01 X78.150654 Y64.094764 Z-0.125000
G01 X77.377267 Y61.729264 Z-0.125000
G01 X76.300177 Y60.203514 Z-0.125000
G01 X73.884005 Y58.049334 Z-0.125000
G01 X71.775785 Y56.734654 Z-0.125000
G01 X67.948597 Y54.994114 Z-0.125000
G01 X65.011509 Y54.013744 Z-0.125000
G01 X60.140679 Y52.849614 Z-0.125000
G01 X54.863520 Y52.086844 Z-0.125000
G01 X49.363089 Y51.750404 Z-0.125000
G01 X40.219471 Y52.157444 Z-0.125000
G01 X35.057923 Y52.965934 Z-0.125000
G01 X30.361098 Y54.164384 Z-0.125000
G01 X27.569369 Y55.159074 Z-0.125000
G01 X23.998979 Y56.905264 Z-0.125000
G01 X21.277292 Y58.900394 Z-0.125000
G01 X19.498827 Y61.073464 Z-0.125000
G01 X18.869226 Y62.583174 Z-0.125000
G01 X18.696715 Y64.113964 Z-0.125000
G01 X18.984049 Y65.641854 Z-0.125000
G01 X19.726664 Y67.142504 Z-0.125000
G01 X20.913226 Y68.592394 Z-0.125000
G01 X22.525398 Y69.968624 Z-0.125000
G01 X25.685208 Y71.847674 Z-0.125000
G01 X31.104500 Y73.905444 Z-0.125000
G01 X35.890570 Y75.041564 Z-0.125000
G01 X42.918964 Y75.935434 Z-0.125000
G01 X48.438048 Y76.107944 Z-0.125000
G01 X55.763613 Y75.659744 Z-0.125000
G01 X62.637912 Y74.461064 Z-0.125000
G01 X68.637460 Y72.581864 Z-0.125000
G01 X72.338019 Y70.791904 Z-0.125000
G01 X74.350696 Y69.450074 Z-0.125000
G01 X75.962869 Y68.012854 Z-0.125000
G01 X77.577088 Y65.725984 Z-0.125000
G01 X78.093124 Y64.147724 Z-0.125000
G01 X78.150654 Y62.554364 Z-0.125000
G01 X77.377268 Y60.188794 Z-0.125000
G01 X76.300178 Y58.663034 Z-0.125000
G01 X73.884005 Y56.508854 Z-0.125000
G01 X71.775785 Y55.194164 Z-0.125000
G01 X67.948598 Y53.453714 Z-0.125000
G01 X65.011509 Y52.473264 Z-0.125000
G01 X60.140679 Y51.309134 Z-0.125000
G01 X54.863520 Y50.546454 Z-0.125000
G01 X49.363089 Y50.209934 Z-0.125000
G01 X40.219471 Y50.616974 Z-0.125000
G01 X35.057923 Y51.425454 Z-0.125000
G01 X30.361098 Y52.623904 Z-0.125000
G01 X27.569369 Y53.618594 Z-0.125000
G01 X23.998980 Y55.364874 Z-0.125000
G01 X21.277292 Y57.359924 Z-0.125000
G01 X19.498827 Y59.532984 Z-0.125000
G01 X18.869226 Y61.042694 Z-0.125000
G01 X18.696716 Y62.573564 Z-0.125000
G01 X18.984050 Y64.101374 Z-0.125000
G01 X19.726664 Y65.602024 Z-0.125000
G01 X20.913226 Y67.052004 Z-0.125000
G01 X22.525398 Y68.428234 Z-0.125000
G01 X25.685208 Y70.307194 Z-0.125000
G01 X31.104500 Y72.364964 Z-0.125000
G01 X35.890570 Y73.501074 Z-0.125000
G01 X42.918964 Y74.394964 Z-0.125000
G01 X48.438048 Y74.567464 Z-0.125000
G01 X55.763614 Y74.119274 Z-0.125000
G01 X62.637913 Y72.920594 Z-0.125000
G01 X68.637460 Y71.041384 Z-0.125000
G01 X72.338019 Y69.251434 Z-0.125000
G01 X74.350697 Y67.909594 Z-0.125000
G01 X75.962869 Y66.472374 Z-0.125000
G01 X77.577088 Y64.185504 Z-0.125000
G01 X78.093124 Y62.607254 Z-0.125000
G01 X78.150654 Y61.013894 Z-0.125000
G01 X77.377268 Y58.648404 Z-0.125000
G01 X76.300178 Y57.122564 Z-0.125000
G01 X73.884005 Y54.968464 Z-0.125000
G01 X71.775786 Y53.653694 Z-0.125000
G01 X67.948598 Y51.913244 Z-0.125000
G01 X65.011509 Y50.932794 Z-0.125000
G01 X60.140679 Y49.768734 Z-0.125000
G01 X54.863521 Y49.005984 Z-0.125000
G01 X49.363090 Y48.669454 Z-0.125000
G01 X40.219472 Y49.076494 Z-0.125000
G01 X35.057923 Y49.884984 Z-0.125000
G01 X30.361099 Y51.083424 Z-0.125000
G01 X27.569369 Y52.078114 Z-0.125000
G01 X23.998980 Y53.824394 Z-0.125000
G01 X21.277293 Y55.819444 Z-0.125000
G01 X19.498827 Y57.992514 Z-0.125000
G01 X18.869226 Y59.502294 Z-0.125000
G01 X18.696716 Y61.033094 Z-0.125000
G01 X18.984050 Y62.560894 Z-0.125000
G01 X19.726664 Y64.061554 Z-0.125000
G01 X20.913227 Y65.511524 Z-0.125000
G01 X22.525398 Y66.887754 Z-0.125000
G01 X25.685209 Y68.766724 Z-0.125000
G01 X31.104500 Y70.824484 Z-0.125000
G01 X35.890571 Y71.960604 Z-0.125000
G01 X42.918964 Y72.854474 Z-0.125000
G01 X48.438048 Y73.027064 Z-0.125000
G01 X55.763614 Y72.578794 Z-0.125000
G01 X62.637913 Y71.380114 Z-0.125000
G01 X68.637460 Y69.500914 Z-0.125000
G01 X72.338020 Y67.710954 Z-0.125000
G01 X74.350697 Y66.369194 Z-0.125000
G01 X75.962870 Y64.931974 Z-0.125000
G01 X77.577088 Y62.645034 Z-0.125000
G01 X78.093124 Y61.066774 Z-0.125000
G01 X78.150654 Y59.473414 Z-0.125000
G01 X77.377267 Y57.107914 Z-0.125000
G01 X76.300177 Y55.582164 Z-0.125000
G01 X73.884004 Y53.427984 Z-0.125000
G01 X71.775785 Y52.113214 Z-0.125000
G01 X67.948597 Y50.372764 Z-0.125000
G01 X65.011508 Y49.392324 Z-0.125000
G01 X60.140679 Y48.228264 Z-0.125000
G01 X54.863520 Y47.465504 Z-0.125000
G01 X49.363089 Y47.128984 Z-0.125000
G01 X40.219471 Y47.536024 Z-0.125000
G01 X35.057923 Y48.344584 Z-0.125000
G01 X30.361098 Y49.542944 Z-0.125000
G01 X27.569369 Y50.537644 Z-0.125000
G01 X23.998979 Y52.283914 Z-0.125000
G01 X21.277292 Y54.278974 Z-0.125000
G01 X19.498827 Y56.452114 Z-0.125000
G01 X18.869225 Y57.961824 Z-0.125000
G01 X18.696715 Y59.492614 Z-0.125000
G01 X18.984049 Y61.020424 Z-0.125000
G01 X19.726664 Y62.521154 Z-0.125000
G01 X20.913226 Y63.971044 Z-0.125000
G01 X22.525398 Y65.347274 Z-0.125000
G01 X25.685208 Y67.226324 Z-0.125000
G01 X31.104499 Y69.284084 Z-0.125000
G01 X35.890570 Y70.420124 Z-0.125000
G01 X42.918964 Y71.314084 Z-0.125000
G01 X48.438047 Y71.486594 Z-0.125000
G01 X55.763613 Y71.038394 Z-0.125000
G01 X62.637912 Y69.839634 Z-0.125000
G01 X68.637460 Y67.960434 Z-0.125000
G01 X72.338019 Y66.170554 Z-0.125000
G01 X74.350696 Y64.828724 Z-0.125000
G01 X75.962869 Y63.391504 Z-0.125000
G01 X77.577088 Y61.104554 Z-0.125000
G01 X78.093124 Y59.526304 Z-0.125000
G01 X78.150654 Y57.932934 Z-0.125000
G01 X77.377268 Y55.567444 Z-0.125000
G01 X76.300177 Y54.041684 Z-0.125000
G01 X73.884005 Y51.887504 Z-0.125000
G01 X70.584030 Y49.959434 Z-0.125000
G01 X66.514996 Y48.322784 Z-0.125000
G01 X63.443881 Y47.421344 Z-0.125000
G01 X58.418011 Y46.387394 Z-0.125000
G01 X53.045468 Y45.764714 Z-0.125000
G01 X47.513006 Y45.573314 Z-0.125000
G01 X38.458083 Y46.219604 Z-0.125000
G01 X33.432214 Y47.162114 Z-0.125000
G01 X28.927497 Y48.481524 Z-0.125000
G01 X26.292065 Y49.547594 Z-0.125000
G01 X22.992090 Y51.384214 Z-0.125000
G01 X20.575917 Y53.446784 Z-0.125000
G01 X19.127362 Y55.662364 Z-0.125000
G01 X18.725519 Y57.185604 Z-0.125000
G01 X18.783049 Y58.717974 Z-0.125000
G01 X19.299007 Y60.235234 Z-0.125000
G01 X20.265523 Y61.713454 Z-0.125000
G01 X21.667566 Y63.129264 Z-0.125000
G01 X23.483414 Y64.460484 Z-0.125000
G01 X26.920328 Y66.252714 Z-0.125000
G01 X32.640805 Y68.164034 Z-0.125000
G01 X37.591516 Y69.172024 Z-0.125000
G01 X44.746775 Y69.879454 Z-0.125000
G01 X50.287264 Y69.906554 Z-0.125000
G01 X57.541685 Y69.266644 Z-0.125000
G01 X62.637912 Y68.299184 Z-0.125000
G01 X68.637459 Y66.420054 Z-0.125000
G01 X72.338019 Y64.630104 Z-0.125000
G01 X74.350696 Y63.288274 Z-0.125000
G01 X75.962869 Y61.851044 Z-0.125000
G01 X77.577087 Y59.564094 Z-0.125000
G01 X78.093123 Y57.985844 Z-0.125000
G01 X78.150653 Y56.392564 Z-0.125000
G01 X77.377266 Y54.026994 Z-0.125000
G01 X76.300176 Y52.501234 Z-0.125000
G01 X73.884003 Y50.347054 Z-0.125000
G01 X70.584028 Y48.418984 Z-0.125000
G01 X66.514995 Y46.782324 Z-0.125000
G01 X63.443879 Y45.880974 Z-0.125000
G01 X58.418010 Y44.846934 Z-0.125000
G01 X53.045467 Y44.224254 Z-0.125000
G01 X47.513005 Y44.032854 Z-0.125000
G01 X38.458082 Y44.679154 Z-0.125000
G01 X33.432212 Y45.621664 Z-0.125000
G01 X28.927496 Y46.941074 Z-0.125000
G01 X26.292063 Y48.007134 Z-0.125000
G01 X22.992088 Y49.843764 Z-0.125000
G01 X20.575916 Y51.906424 Z-0.125000
G01 X19.127361 Y54.121904 Z-0.125000
G01 X18.725518 Y55.645144 Z-0.125000
G01 X18.783048 Y57.177514 Z-0.125000
G01 X19.299007 Y58.694774 Z-0.125000
G01 X20.265522 Y60.172994 Z-0.125000
G01 X21.667565 Y61.588814 Z-0.125000
G01 X23.483414 Y62.920034 Z-0.125000
G01 X26.920328 Y64.712354 Z-0.125000
G01 X32.640804 Y66.623584 Z-0.125000
G01 X37.591515 Y67.631644 Z-0.125000
G01 X44.746774 Y68.339004 Z-0.125000
G01 X50.287264 Y68.366104 Z-0.125000
G01 X57.541684 Y67.726114 Z-0.125000
G01 X62.637911 Y66.758654 Z-0.125000
G01 X68.637459 Y64.879534 Z-0.125000
G01 X72.338018 Y63.089584 Z-0.125000
G01 X74.350696 Y61.747734 Z-0.125000
G01 X75.962868 Y60.310514 Z-0.125000
G01 X77.577087 Y58.023654 Z-0.125000
G01 X78.093123 Y56.445404 Z-0.125000
G01 X78.150653 Y54.852034 Z-0.125000
G01 X77.377267 Y52.486544 Z-0.125000
G01 X76.300177 Y50.960714 Z-0.125000
G01 X73.884004 Y48.806524 Z-0.125000
G01 X70.584029 Y46.878454 Z-0.125000
G01 X66.514996 Y45.241804 Z-0.125000
G01 X63.443880 Y44.340454 Z-0.125000
G01 X58.418011 Y43.306494 Z-0.125000
G01 X53.045467 Y42.683734 Z-0.125000
G01 X47.513005 Y42.492334 Z-0.125000
G01 X38.458082 Y43.138704 Z-0.125000
G01 X33.432213 Y44.081134 Z-0.125000
G01 X28.927496 Y45.400534 Z-0.125000
G01 X26.292064 Y46.466614 Z-0.125000
G01 X22.992089 Y48.303234 Z-0.125000
G01 X20.575916 Y50.365884 Z-0.125000
G01 X19.127362 Y52.581374 Z-0.125000
G01 X18.725519 Y54.104694 Z-0.125000
G01 X18.783049 Y55.636994 Z-0.125000
G01 X19.726663 Y57.899704 Z-0.125000
G01 X20.913226 Y59.349594 Z-0.125000
G01 X22.525397 Y60.725894 Z-0.125000
G01 X25.685208 Y62.604944 Z-0.125000
G01 X31.104499 Y64.662634 Z-0.125000
G01 X35.890570 Y65.798754 Z-0.125000
G01 X42.918963 Y66.692624 Z-0.125000
G01 X48.438047 Y66.865144 Z-0.125000
G01 X55.763613 Y66.416944 Z-0.125000
G01 X60.985525 Y65.585234 Z-0.125000
G01 X67.240926 Y63.867214 Z-0.125000
G01 X71.190886 Y62.177834 Z-0.125000
G01 X73.392679 Y60.891404 Z-0.125000
G01 X75.208528 Y59.499274 Z-0.125000
G01 X77.149430 Y57.259154 Z-0.125000
G01 X77.892044 Y55.697424 Z-0.125000
G01 X78.179380 Y54.108634 Z-0.125000
G01 X77.748732 Y51.727244 Z-0.125000
G01 X76.893734 Y50.176064 Z-0.125000
G01 X74.792361 Y47.962474 Z-0.125000
G01 X71.775785 Y45.951364 Z-0.125000
G01 X67.948597 Y44.210904 Z-0.125000
G01 X65.011508 Y43.230464 Z-0.125000
G01 X60.140678 Y42.066324 Z-0.125000
G01 X54.863520 Y41.303644 Z-0.125000
G01 X49.363089 Y40.967124 Z-0.125000
G01 X40.219471 Y41.374164 Z-0.125000
G01 X35.057922 Y42.182654 Z-0.125000
G01 X30.361098 Y43.381094 Z-0.125000
G01 X26.292064 Y44.926214 Z-0.125000
G01 X22.992089 Y46.762764 Z-0.125000
G01 X20.575917 Y48.825414 Z-0.125000
G01 X19.127362 Y51.040904 Z-0.125000
G01 X18.725519 Y52.564224 Z-0.125000
G01 X18.783049 Y54.096514 Z-0.125000
G01 X19.726664 Y56.359304 Z-0.125000
G01 X20.913226 Y57.809194 Z-0.125000
G01 X22.525398 Y59.185424 Z-0.125000
G01 X25.685208 Y61.064464 Z-0.125000
G01 X31.104499 Y63.122234 Z-0.125000
G01 X35.890570 Y64.258274 Z-0.125000
G01 X42.918964 Y65.152154 Z-0.125000
G01 X48.438048 Y65.324744 Z-0.125000
G01 X55.763613 Y64.876544 Z-0.125000
G01 X60.985525 Y64.044764 Z-0.125000
G01 X67.240926 Y62.326734 Z-0.125000
G01 X71.190886 Y60.637364 Z-0.125000
G01 X73.392679 Y59.351014 Z-0.125000
G01 X75.208528 Y57.958804 Z-0.125000
G01 X77.149430 Y55.718684 Z-0.125000
G01 X77.892045 Y54.156954 Z-0.125000
G01 X78.179380 Y52.568154 Z-0.125000
G01 X77.748732 Y50.186854 Z-0.125000
G01 X76.893734 Y48.635584 Z-0.125000
G01 X74.792361 Y46.422074 Z-0.125000
G01 X71.775785 Y44.410884 Z-0.125000
G01 X67.948597 Y42.670434 Z-0.125000
G01 X65.011509 Y41.689984 Z-0.125000
G01 X60.140679 Y40.525934 Z-0.125000
G01 X54.863520 Y39.763174 Z-0.125000
G01 X49.363089 Y39.426644 Z-0.125000
G01 X40.219471 Y39.833684 Z-0.125000
G01 X35.057923 Y40.642174 Z-0.125000
G01 X30.361098 Y41.840624 Z-0.125000
G01 X26.292065 Y43.385734 Z-0.125000
G01 X22.992090 Y45.222294 Z-0.125000
G01 X20.575917 Y47.284934 Z-0.125000
G01 X19.127362 Y49.500504 Z-0.125000
G01 X18.725519 Y51.023744 Z-0.125000
G01 X18.783049 Y52.556114 Z-0.125000
G01 X19.726664 Y54.818824 Z-0.125000
G01 X20.913226 Y56.268714 Z-0.125000
G01 X22.525398 Y57.644944 Z-0.125000
G01 X25.685208 Y59.523984 Z-0.125000
G01 X31.104500 Y61.581764 Z-0.125000
G01 X35.890570 Y62.717804 Z-0.125000
G01 X42.918964 Y63.611674 Z-0.125000
G01 X48.438048 Y63.784264 Z-0.125000
G01 X55.763614 Y63.336064 Z-0.125000
G01 X60.985525 Y62.504284 Z-0.125000
G01 X67.240926 Y60.786254 Z-0.125000
G01 X71.190886 Y59.096964 Z-0.125000
G01 X73.392680 Y57.810524 Z-0.125000
G01 X75.208528 Y56.418324 Z-0.125000
G01 X77.149431 Y54.178204 Z-0.125000
G01 X77.892045 Y52.616474 Z-0.125000
G01 X78.179380 Y51.027684 Z-0.125000
G01 X77.748732 Y48.646364 Z-0.125000
G01 X76.893735 Y47.095114 Z-0.125000
G01 X74.792362 Y44.881594 Z-0.125000
G01 X71.775785 Y42.870404 Z-0.125000
G01 X67.948598 Y41.129954 Z-0.125000
G01 X65.011509 Y40.149594 Z-0.125000
G01 X60.140679 Y38.985464 Z-0.125000
G01 X54.863520 Y38.222704 Z-0.125000
G01 X49.363089 Y37.886254 Z-0.125000
G01 X40.219471 Y38.293214 Z-0.125000
G01 X35.057923 Y39.101774 Z-0.125000
G01 X30.361098 Y40.300144 Z-0.125000
G01 X26.292065 Y41.845264 Z-0.125000
G01 X22.992090 Y43.681804 Z-0.125000
G01 X20.575917 Y45.744464 Z-0.125000
G01 X19.127362 Y47.960024 Z-0.125000
G01 X18.725519 Y49.483264 Z-0.125000
G01 X18.783049 Y51.015634 Z-0.125000
G01 X19.726663 Y53.278354 Z-0.125000
G01 X20.913226 Y54.728244 Z-0.125000
G01 X22.525397 Y56.104464 Z-0.125000
G01 X25.685208 Y57.983514 Z-0.125000
G01 X31.104499 Y60.041284 Z-0.125000
G01 X35.890570 Y61.177404 Z-0.125000
G01 X42.918963 Y62.071274 Z-0.125000
G01 X48.438047 Y62.243794 Z-0.125000
G01 X55.763613 Y61.795594 Z-0.125000
G01 X60.985525 Y60.963814 Z-0.125000
G01 X67.240925 Y59.245784 Z-0.125000
G01 X71.190886 Y57.556484 Z-0.125000
G01 X73.392679 Y56.270054 Z-0.125000
G01 X75.208528 Y54.877854 Z-0.125000
G01 X77.149430 Y52.637724 Z-0.125000
G01 X77.892044 Y51.076074 Z-0.125000
G01 X78.179379 Y49.487204 Z-0.125000
G01 X77.748732 Y47.105894 Z-0.125000
G01 X76.893734 Y45.554714 Z-0.125000
G01 X74.792361 Y43.341114 Z-0.125000
G01 X71.775785 Y41.329934 Z-0.125000
G01 X67.948597 Y39.589484 Z-0.125000
G01 X65.011508 Y38.609114 Z-0.125000
G01 X60.140678 Y37.444974 Z-0.125000
G01 X54.863520 Y36.682214 Z-0.125000
G01 X49.363089 Y36.345774 Z-0.125000
G01 X40.219471 Y36.752814 Z-0.125000
G01 X35.057922 Y37.561304 Z-0.125000
G01 X30.361098 Y38.759664 Z-0.125000
G01 X26.292064 Y40.304784 Z-0.125000
G01 X22.992089 Y42.141334 Z-0.125000
G01 X20.575916 Y44.204064 Z-0.125000
G01 X19.127362 Y46.419554 Z-0.125000
G01 X18.725519 Y47.942794 Z-0.125000
G01 X18.783049 Y49.475164 Z-0.125000
G01 X19.726664 Y51.737864 Z-0.125000
G01 X20.913226 Y53.187754 Z-0.125000
G01 X22.525398 Y54.564074 Z-0.125000
G01 X25.685208 Y56.443034 Z-0.125000
G01 X31.104499 Y58.500814 Z-0.125000
G01 X35.890570 Y59.636924 Z-0.125000
G01 X42.918964 Y60.530804 Z-0.125000
G01 X48.438047 Y60.703304 Z-0.125000
G01 X55.763613 Y60.255114 Z-0.125000
G01 X60.985525 Y59.423324 Z-0.125000
G01 X67.240926 Y57.705314 Z-0.125000
G01 X71.190886 Y56.016014 Z-0.125000
G01 X73.392679 Y54.729574 Z-0.125000
G01 X75.208528 Y53.337454 Z-0.125000
G01 X77.149430 Y51.097254 Z-0.125000
G01 X77.892045 Y49.535604 Z-0.125000
G01 X78.179380 Y47.946724 Z-0.125000
G01 X77.748732 Y45.565424 Z-0.125000
G01 X76.893734 Y44.014234 Z-0.125000
G01 X74.792361 Y41.800634 Z-0.125000
G01 X71.775785 Y39.789534 Z-0.125000
G01 X67.948597 Y38.049084 Z-0.125000
G01 X65.011508 Y37.068634 Z-0.125000
G01 X60.140678 Y35.904504 Z-0.125000
G01 X54.863520 Y35.141744 Z-0.125000
G01 X49.363089 Y34.805294 Z-0.125000
G01 X40.219471 Y35.212334 Z-0.125000
G01 X35.057923 Y36.020824 Z-0.125000
G01 X30.361098 Y37.219274 Z-0.125000
G01 X27.569369 Y38.213954 Z-0.125000
G01 X23.998979 Y39.960244 Z-0.125000
G01 X21.277292 Y41.955284 Z-0.125000
G01 X19.498827 Y44.128354 Z-0.125000
G01 X18.869225 Y45.638064 Z-0.125000
G01 X18.696715 Y47.168934 Z-0.125000
G01 X18.984049 Y48.696734 Z-0.125000
G01 X19.726664 Y50.197394 Z-0.125000
G01 X20.913226 Y51.647284 Z-0.125000
G01 X22.525398 Y53.023594 Z-0.125000
G01 X25.685208 Y54.902564 Z-0.125000
G01 X31.104499 Y56.960334 Z-0.125000
G01 X35.890570 Y58.096444 Z-0.125000
G01 X42.918964 Y58.990324 Z-0.125000
G01 X48.438047 Y59.162834 Z-0.125000
G00 Z3.000000

(End cutting path id: polyline136)



(Footer)
M5
G00 X0.0000 Y0.0000
M2
(Using default footer. To add your own footer create file "footer" in the output dir.)
(end)
%