%
(Header)
(Generated by gcodetools from Inkscape.)
(Using default header. To add your own header create file "header" in the output dir.)
M3
(Header end.)
G21 (All units in mm)

(Start cutting path id: path81149)
(Change tool to Default tool)

G00 Z3.000000
G00 X14.799486 Y63.232108

G00 Z4.875000 (Fast pre-penetrate)
G01 Z-0.125000 F400.0(Penetrate)
G01 X35.724947 Y63.473286 Z-0.125000 F800.000000
G01 X59.475113 Y60.889760 Z-0.125000
G01 X84.893494 Y56.638020 Z-0.125000
G01 X100.713787 Y61.984366 Z-0.125000
G01 X121.293444 Y62.571349 Z-0.125000
G01 X140.338512 Y64.692921 Z-0.125000
G01 X167.678916 Y58.519157 Z-0.125000
G00 Z3.000000

(End cutting path id: path81149)


(Start cutting path id: path81109)
(Change tool to Default tool)

G00 Z3.000000
G00 X19.342383 Y79.855850

G00 Z4.875000 (Fast pre-penetrate)
G01 Z-0.125000 F400.0(Penetrate)
G01 X30.734679 Y89.630194 Z-0.125000 F800.000000
G01 X59.742358 Y81.789155 Z-0.125000
G01 X77.654016 Y85.044137 Z-0.125000
G01 X104.425437 Y79.439357 Z-0.125000
G01 X120.782357 Y84.249076 Z-0.125000
G01 X139.334669 Y86.863405 Z-0.125000
G01 X165.204142 Y82.160572 Z-0.125000
G00 Z3.000000

(End cutting path id: path81109)


(Start cutting path id: path81107)
(Change tool to Default tool)

G00 Z3.000000
G00 X19.326882 Y80.929684

G00 Z4.875000 (Fast pre-penetrate)
G01 Z-0.125000 F400.0(Penetrate)
G01 X30.782783 Y90.640422 Z-0.125000 F800.000000
G01 X59.929675 Y82.660171 Z-0.125000
G01 X77.678302 Y86.078183 Z-0.125000
G01 X104.021892 Y80.901233 Z-0.125000
G01 X121.285872 Y84.803893 Z-0.125000
G01 X139.694745 Y87.561661 Z-0.125000
G01 X165.120785 Y83.302261 Z-0.125000
G00 Z3.000000

(End cutting path id: path81107)


(Start cutting path id: path81029)
(Change tool to Default tool)

G00 Z3.000000
G00 X23.513267 Y118.018246

G00 Z4.875000 (Fast pre-penetrate)
G01 Z-0.125000 F400.0(Penetrate)
G01 X40.448638 Y122.249516 Z-0.125000 F800.000000
G01 X61.234381 Y122.630412 Z-0.125000
G01 X85.361906 Y119.669527 Z-0.125000
G01 X107.339935 Y118.858139 Z-0.125000
G01 X121.380836 Y125.983877 Z-0.125000
G01 X151.002419 Y117.528934 Z-0.125000
G01 X159.734642 Y129.963351 Z-0.125000
G00 Z3.000000

(End cutting path id: path81029)


(Start cutting path id: path81031)
(Change tool to Default tool)

G00 Z3.000000
G00 X23.289224 Y117.183958

G00 Z4.875000 (Fast pre-penetrate)
G01 Z-0.125000 F400.0(Penetrate)
G01 X40.011044 Y121.628778 Z-0.125000 F800.000000
G01 X61.347096 Y121.459365 Z-0.125000
G01 X85.000798 Y118.972303 Z-0.125000
G01 X106.790666 Y118.349076 Z-0.125000
G01 X121.854427 Y124.451955 Z-0.125000
G01 X150.779108 Y116.693913 Z-0.125000
G01 X159.924758 Y128.714903 Z-0.125000
G00 Z3.000000

(End cutting path id: path81031)


(Start cutting path id: path81027)
(Change tool to Default tool)

G00 Z3.000000
G00 X22.859366 Y119.730479

G00 Z4.875000 (Fast pre-penetrate)
G01 Z-0.125000 F400.0(Penetrate)
G01 X40.038373 Y123.718113 Z-0.125000 F800.000000
G01 X61.342974 Y123.580151 Z-0.125000
G01 X85.418585 Y120.671180 Z-0.125000
G01 X107.244034 Y120.012371 Z-0.125000
G01 X121.783860 Y126.639186 Z-0.125000
G01 X150.689335 Y118.900350 Z-0.125000
G01 X160.157406 Y130.598919 Z-0.125000
G00 Z3.000000

(End cutting path id: path81027)


(Start cutting path id: path81033)
(Change tool to Default tool)

G00 Z3.000000
G00 X23.065180 Y116.349669

G00 Z4.875000 (Fast pre-penetrate)
G01 Z-0.125000 F400.0(Penetrate)
G01 X39.573447 Y121.008042 Z-0.125000 F800.000000
G01 X61.459811 Y120.288318 Z-0.125000
G01 X84.639690 Y118.275080 Z-0.125000
G01 X106.241394 Y117.840015 Z-0.125000
G01 X122.328017 Y122.920033 Z-0.125000
G01 X150.555798 Y115.858892 Z-0.125000
G01 X160.114877 Y127.466452 Z-0.125000
G00 Z3.000000

(End cutting path id: path81033)


(Start cutting path id: path81035)
(Change tool to Default tool)

G00 Z3.000000
G00 X22.841134 Y115.515384

G00 Z4.875000 (Fast pre-penetrate)
G01 Z-0.125000 F400.0(Penetrate)
G01 X39.135854 Y120.387304 Z-0.125000 F800.000000
G01 X61.572529 Y119.117268 Z-0.125000
G01 X84.278582 Y117.577856 Z-0.125000
G01 X105.692125 Y117.330952 Z-0.125000
G01 X122.801607 Y121.388110 Z-0.125000
G01 X150.332484 Y115.023873 Z-0.125000
G01 X160.304993 Y126.218004 Z-0.125000
G00 Z3.000000

(End cutting path id: path81035)


(Start cutting path id: path81037)
(Change tool to Default tool)

G00 Z3.000000
G00 X22.617090 Y114.681095

G00 Z4.875000 (Fast pre-penetrate)
G01 Z-0.125000 F400.0(Penetrate)
G01 X38.698260 Y119.766566 Z-0.125000 F800.000000
G01 X61.685244 Y117.946221 Z-0.125000
G01 X83.917476 Y116.880629 Z-0.125000
G01 X105.142854 Y116.821892 Z-0.125000
G01 X123.275198 Y119.856188 Z-0.125000
G01 X150.109174 Y114.188852 Z-0.125000
G01 X160.495112 Y124.969553 Z-0.125000
G00 Z3.000000

(End cutting path id: path81037)


(Start cutting path id: path81025)
(Change tool to Default tool)

G00 Z3.000000
G00 X22.205463 Y121.442715

G00 Z4.875000 (Fast pre-penetrate)
G01 Z-0.125000 F400.0(Penetrate)
G01 X39.628105 Y125.186713 Z-0.125000 F800.000000
G01 X61.451570 Y124.529888 Z-0.125000
G01 X85.475262 Y121.672836 Z-0.125000
G01 X107.148133 Y121.166604 Z-0.125000
G01 X122.186883 Y127.294495 Z-0.125000
G01 X150.376249 Y120.271768 Z-0.125000
G01 X160.580168 Y131.234490 Z-0.125000
G00 Z3.000000

(End cutting path id: path81025)


(Start cutting path id: path81023)
(Change tool to Default tool)

G00 Z3.000000
G00 X21.551562 Y123.154948

G00 Z4.875000 (Fast pre-penetrate)
G01 Z-0.125000 F400.0(Penetrate)
G01 X39.217840 Y126.655310 Z-0.125000 F800.000000
G01 X61.560162 Y125.479627 Z-0.125000
G01 X85.531940 Y122.674489 Z-0.125000
G01 X107.052233 Y122.320837 Z-0.125000
G01 X122.589904 Y127.949806 Z-0.125000
G01 X150.063165 Y121.643184 Z-0.125000
G01 X161.002932 Y131.870058 Z-0.125000
G00 Z3.000000

(End cutting path id: path81023)


(Start cutting path id: path81039)
(Change tool to Default tool)

G00 Z3.000000
G00 X22.393047 Y113.846807

G00 Z4.875000 (Fast pre-penetrate)
G01 Z-0.125000 F400.0(Penetrate)
G01 X38.260663 Y119.145830 Z-0.125000 F800.000000
G01 X61.797959 Y116.775174 Z-0.125000
G01 X83.556368 Y116.183405 Z-0.125000
G01 X104.593585 Y116.312829 Z-0.125000
G01 X123.748788 Y118.324266 Z-0.125000
G01 X149.885863 Y113.353831 Z-0.125000
G01 X160.685228 Y123.721105 Z-0.125000
G00 Z3.000000

(End cutting path id: path81039)


(Start cutting path id: path81041)
(Change tool to Default tool)

G00 Z3.000000
G00 X22.169003 Y113.012518

G00 Z4.875000 (Fast pre-penetrate)
G01 Z-0.125000 F400.0(Penetrate)
G01 X37.823069 Y118.525092 Z-0.125000 F800.000000
G01 X61.910677 Y115.604125 Z-0.125000
G01 X83.195260 Y115.486182 Z-0.125000
G01 X104.044313 Y115.803769 Z-0.125000
G01 X124.222381 Y116.792341 Z-0.125000
G01 X149.662552 Y112.518809 Z-0.125000
G01 X160.875344 Y122.472657 Z-0.125000
G00 Z3.000000

(End cutting path id: path81041)


(Start cutting path id: path81043)
(Change tool to Default tool)

G00 Z3.000000
G00 X21.944959 Y112.178230

G00 Z4.875000 (Fast pre-penetrate)
G01 Z-0.125000 F400.0(Penetrate)
G01 X37.385473 Y117.904357 Z-0.125000 F800.000000
G01 X62.023392 Y114.433078 Z-0.125000
G01 X82.834152 Y114.788958 Z-0.125000
G01 X103.495044 Y115.294706 Z-0.125000
G01 X124.695971 Y115.260418 Z-0.125000
G01 X149.439239 Y111.683791 Z-0.125000
G01 X161.065463 Y121.224206 Z-0.125000
G00 Z3.000000

(End cutting path id: path81043)


(Start cutting path id: path81045)
(Change tool to Default tool)

G00 Z3.000000
G00 X21.720913 Y111.343944

G00 Z4.875000 (Fast pre-penetrate)
G01 Z-0.125000 F400.0(Penetrate)
G01 X36.947879 Y117.283618 Z-0.125000 F800.000000
G01 X62.136109 Y113.262028 Z-0.125000
G01 X82.473043 Y114.091734 Z-0.125000
G01 X102.945772 Y114.785645 Z-0.125000
G01 X125.169562 Y113.728496 Z-0.125000
G01 X149.215928 Y110.848769 Z-0.125000
G01 X161.255579 Y119.975758 Z-0.125000
G00 Z3.000000

(End cutting path id: path81045)


(Start cutting path id: path81047)
(Change tool to Default tool)

G00 Z3.000000
G00 X21.496870 Y110.509656

G00 Z4.875000 (Fast pre-penetrate)
G01 Z-0.125000 F400.0(Penetrate)
G01 X36.510285 Y116.662880 Z-0.125000 F800.000000
G01 X62.248824 Y112.090981 Z-0.125000
G01 X82.111935 Y113.394510 Z-0.125000
G01 X102.396501 Y114.276585 Z-0.125000
G01 X125.643152 Y112.196574 Z-0.125000
G01 X148.992618 Y110.013748 Z-0.125000
G01 X161.445698 Y118.727308 Z-0.125000
G00 Z3.000000

(End cutting path id: path81047)


(Start cutting path id: path81049)
(Change tool to Default tool)

G00 Z3.000000
G00 X21.272826 Y109.675367

G00 Z4.875000 (Fast pre-penetrate)
G01 Z-0.125000 F400.0(Penetrate)
G01 X36.072689 Y116.042145 Z-0.125000 F800.000000
G01 X62.361539 Y110.919934 Z-0.125000
G01 X81.750827 Y112.697286 Z-0.125000
G01 X101.847232 Y113.767522 Z-0.125000
G01 X126.116742 Y110.664651 Z-0.125000
G01 X148.769304 Y109.178729 Z-0.125000
G01 X161.635814 Y117.478859 Z-0.125000
G00 Z3.000000

(End cutting path id: path81049)


(Start cutting path id: path81051)
(Change tool to Default tool)

G00 Z3.000000
G00 X21.048782 Y108.841079

G00 Z4.875000 (Fast pre-penetrate)
G01 Z-0.125000 F400.0(Penetrate)
G01 X35.635095 Y115.421406 Z-0.125000 F800.000000
G01 X62.474257 Y109.748885 Z-0.125000
G01 X81.389719 Y112.000063 Z-0.125000
G01 X101.297960 Y113.258462 Z-0.125000
G01 X126.590333 Y109.132729 Z-0.125000
G01 X148.545993 Y108.343708 Z-0.125000
G01 X161.825930 Y116.230411 Z-0.125000
G00 Z3.000000

(End cutting path id: path81051)


(Start cutting path id: path81021)
(Change tool to Default tool)

G00 Z3.000000
G00 X20.897661 Y124.867181

G00 Z4.875000 (Fast pre-penetrate)
G01 Z-0.125000 F400.0(Penetrate)
G01 X38.807572 Y128.123909 Z-0.125000 F800.000000
G01 X61.668758 Y126.429364 Z-0.125000
G01 X85.588619 Y123.676142 Z-0.125000
G01 X106.956332 Y123.475070 Z-0.125000
G01 X122.992927 Y128.605114 Z-0.125000
G01 X149.750079 Y123.014603 Z-0.125000
G01 X161.425695 Y132.505626 Z-0.125000
G00 Z3.000000

(End cutting path id: path81021)


(Start cutting path id: path81019)
(Change tool to Default tool)

G00 Z3.000000
G00 X20.243757 Y126.579417

G00 Z4.875000 (Fast pre-penetrate)
G01 Z-0.125000 F400.0(Penetrate)
G01 X38.397307 Y129.592506 Z-0.125000 F800.000000
G01 X61.777353 Y127.379100 Z-0.125000
G01 X85.645298 Y124.677795 Z-0.125000
G01 X106.860429 Y124.629305 Z-0.125000
G01 X123.395951 Y129.260423 Z-0.125000
G01 X149.436995 Y124.386018 Z-0.125000
G01 X161.848459 Y133.141194 Z-0.125000
G00 Z3.000000

(End cutting path id: path81019)


(Start cutting path id: path81017)
(Change tool to Default tool)

G00 Z3.000000
G00 X19.589856 Y128.291650

G00 Z4.875000 (Fast pre-penetrate)
G01 Z-0.125000 F400.0(Penetrate)
G01 X37.987042 Y131.061103 Z-0.125000 F800.000000
G01 X61.885946 Y128.328839 Z-0.125000
G01 X85.701975 Y125.679451 Z-0.125000
G01 X106.764528 Y125.783538 Z-0.125000
G01 X123.798974 Y129.915732 Z-0.125000
G01 X149.123909 Y125.757437 Z-0.125000
G01 X162.271221 Y133.776765 Z-0.125000
G00 Z3.000000

(End cutting path id: path81017)


(Start cutting path id: path81015)
(Change tool to Default tool)

G00 Z3.000000
G00 X18.935954 Y130.003883

G00 Z4.875000 (Fast pre-penetrate)
G01 Z-0.125000 F400.0(Penetrate)
G01 X37.576774 Y132.529703 Z-0.125000 F800.000000
G01 X61.994542 Y129.278576 Z-0.125000
G01 X85.758654 Y126.681104 Z-0.125000
G01 X106.668627 Y126.937770 Z-0.125000
G01 X124.201997 Y130.571040 Z-0.125000
G01 X148.810823 Y127.128855 Z-0.125000
G01 X162.693985 Y134.412333 Z-0.125000
G00 Z3.000000

(End cutting path id: path81015)


(Start cutting path id: path81053)
(Change tool to Default tool)

G00 Z3.000000
G00 X20.824739 Y108.006791

G00 Z4.875000 (Fast pre-penetrate)
G01 Z-0.125000 F400.0(Penetrate)
G01 X35.197501 Y114.800668 Z-0.125000 F800.000000
G01 X62.586972 Y108.577838 Z-0.125000
G01 X81.028613 Y111.302836 Z-0.125000
G01 X100.748691 Y112.749399 Z-0.125000
G01 X127.063926 Y107.600804 Z-0.125000
G01 X148.322683 Y107.508687 Z-0.125000
G01 X162.016049 Y114.981961 Z-0.125000
G00 Z3.000000

(End cutting path id: path81053)


(Start cutting path id: path81055)
(Change tool to Default tool)

G00 Z3.000000
G00 X20.600693 Y107.172505

G00 Z4.875000 (Fast pre-penetrate)
G01 Z-0.125000 F400.0(Penetrate)
G01 X34.759905 Y114.179933 Z-0.125000 F800.000000
G01 X62.699687 Y107.406791 Z-0.125000
G01 X80.667505 Y110.605612 Z-0.125000
G01 X100.199419 Y112.240338 Z-0.125000
G01 X127.537516 Y106.068882 Z-0.125000
G01 X148.099372 Y106.673665 Z-0.125000
G01 X162.206165 Y113.733512 Z-0.125000
G00 Z3.000000

(End cutting path id: path81055)


(Start cutting path id: path81057)
(Change tool to Default tool)

G00 Z3.000000
G00 X20.376649 Y106.338217

G00 Z4.875000 (Fast pre-penetrate)
G01 Z-0.125000 F400.0(Penetrate)
G01 X34.322311 Y113.559195 Z-0.125000 F800.000000
G01 X62.812405 Y106.235741 Z-0.125000
G01 X80.306397 Y109.908388 Z-0.125000
G01 X99.650150 Y111.731275 Z-0.125000
G01 X128.011106 Y104.536959 Z-0.125000
G01 X147.876059 Y105.838647 Z-0.125000
G01 X162.396284 Y112.485062 Z-0.125000
G00 Z3.000000

(End cutting path id: path81057)


(Start cutting path id: path81059)
(Change tool to Default tool)

G00 Z3.000000
G00 X20.152605 Y105.503928

G00 Z4.875000 (Fast pre-penetrate)
G01 Z-0.125000 F400.0(Penetrate)
G01 X33.884714 Y112.938459 Z-0.125000 F800.000000
G01 X62.925120 Y105.064694 Z-0.125000
G01 X79.945289 Y109.211165 Z-0.125000
G01 X99.100879 Y111.222215 Z-0.125000
G01 X128.484697 Y103.005037 Z-0.125000
G01 X147.652748 Y105.003625 Z-0.125000
G01 X162.586400 Y111.236614 Z-0.125000
G00 Z3.000000

(End cutting path id: path81059)


(Start cutting path id: path81061)
(Change tool to Default tool)

G00 Z3.000000
G00 X19.928562 Y104.669640

G00 Z4.875000 (Fast pre-penetrate)
G01 Z-0.125000 F400.0(Penetrate)
G01 X33.447121 Y112.317721 Z-0.125000 F800.000000
G01 X63.037837 Y103.893644 Z-0.125000
G01 X79.584181 Y108.513941 Z-0.125000
G01 X98.551610 Y110.713152 Z-0.125000
G01 X128.958287 Y101.473115 Z-0.125000
G01 X147.429437 Y104.168604 Z-0.125000
G01 X162.776516 Y109.988165 Z-0.125000
G00 Z3.000000

(End cutting path id: path81061)


(Start cutting path id: path81063)
(Change tool to Default tool)

G00 Z3.000000
G00 X19.704518 Y103.835351

G00 Z4.875000 (Fast pre-penetrate)
G01 Z-0.125000 F400.0(Penetrate)
G01 X33.009527 Y111.696983 Z-0.125000 F800.000000
G01 X63.150552 Y102.722597 Z-0.125000
G01 X79.223073 Y107.816717 Z-0.125000
G01 X98.002338 Y110.204092 Z-0.125000
G01 X129.431877 Y99.941192 Z-0.125000
G01 X147.206124 Y103.333585 Z-0.125000
G01 X162.966635 Y108.739715 Z-0.125000
G00 Z3.000000

(End cutting path id: path81063)


(Start cutting path id: path81065)
(Change tool to Default tool)

G00 Z3.000000
G00 X19.480472 Y103.001066

G00 Z4.875000 (Fast pre-penetrate)
G01 Z-0.125000 F400.0(Penetrate)
G01 X32.571930 Y111.076247 Z-0.125000 F800.000000
G01 X63.263267 Y101.551550 Z-0.125000
G01 X78.861964 Y107.119493 Z-0.125000
G01 X97.453069 Y109.695029 Z-0.125000
G01 X129.905470 Y98.409267 Z-0.125000
G01 X146.982813 Y102.498564 Z-0.125000
G01 X163.156751 Y107.491267 Z-0.125000
G00 Z3.000000

(End cutting path id: path81065)


(Start cutting path id: path81067)
(Change tool to Default tool)

G00 Z3.000000
G00 X19.256429 Y102.166777

G00 Z4.875000 (Fast pre-penetrate)
G01 Z-0.125000 F400.0(Penetrate)
G01 X32.134337 Y110.455509 Z-0.125000 F800.000000
G01 X63.375985 Y100.380501 Z-0.125000
G01 X78.500859 Y106.422267 Z-0.125000
G01 X96.903797 Y109.185968 Z-0.125000
G01 X130.379061 Y96.877345 Z-0.125000
G01 X146.759503 Y101.663543 Z-0.125000
G01 X163.346870 Y106.242816 Z-0.125000
G00 Z3.000000

(End cutting path id: path81067)


(Start cutting path id: path81069)
(Change tool to Default tool)

G00 Z3.000000
G00 X19.032385 Y101.332489

G00 Z4.875000 (Fast pre-penetrate)
G01 Z-0.125000 F400.0(Penetrate)
G01 X31.696743 Y109.834771 Z-0.125000 F800.000000
G01 X63.488700 Y99.209454 Z-0.125000
G01 X78.139751 Y105.725043 Z-0.125000
G01 X96.354528 Y108.676905 Z-0.125000
G01 X130.852651 Y95.345423 Z-0.125000
G01 X146.536189 Y100.828524 Z-0.125000
G01 X163.536986 Y104.994368 Z-0.125000
G00 Z3.000000

(End cutting path id: path81069)


(Start cutting path id: path81071)
(Change tool to Default tool)

G00 Z3.000000
G00 X19.047885 Y100.258657

G00 Z4.875000 (Fast pre-penetrate)
G01 Z-0.125000 F400.0(Penetrate)
G01 X31.648639 Y108.824543 Z-0.125000 F800.000000
G01 X63.301383 Y98.338438 Z-0.125000
G01 X78.115462 Y104.690999 Z-0.125000
G01 X96.758073 Y107.215029 Z-0.125000
G01 X130.349136 Y94.790605 Z-0.125000
G01 X146.176116 Y100.130266 Z-0.125000
G01 X163.620343 Y103.852679 Z-0.125000
G00 Z3.000000

(End cutting path id: path81071)


(Start cutting path id: path81073)
(Change tool to Default tool)

G00 Z3.000000
G00 X19.063385 Y99.184824

G00 Z4.875000 (Fast pre-penetrate)
G01 Z-0.125000 F400.0(Penetrate)
G01 X31.600535 Y107.814314 Z-0.125000 F800.000000
G01 X63.114066 Y97.467423 Z-0.125000
G01 X78.091176 Y103.656954 Z-0.125000
G01 X97.161620 Y105.753149 Z-0.125000
G01 X129.845622 Y94.235788 Z-0.125000
G01 X145.816039 Y99.432010 Z-0.125000
G01 X163.703702 Y102.710987 Z-0.125000
G00 Z3.000000

(End cutting path id: path81073)


(Start cutting path id: path81075)
(Change tool to Default tool)

G00 Z3.000000
G00 X19.078884 Y98.110992

G00 Z4.875000 (Fast pre-penetrate)
G01 Z-0.125000 F400.0(Penetrate)
G01 X31.552431 Y106.804086 Z-0.125000 F800.000000
G01 X62.926749 Y96.596408 Z-0.125000
G01 X78.066890 Y102.622908 Z-0.125000
G01 X97.565165 Y104.291273 Z-0.125000
G01 X129.342107 Y93.680971 Z-0.125000
G01 X145.455963 Y98.733754 Z-0.125000
G01 X163.787059 Y101.569298 Z-0.125000
G00 Z3.000000

(End cutting path id: path81075)


(Start cutting path id: path81077)
(Change tool to Default tool)

G00 Z3.000000
G00 X19.094385 Y97.037161

G00 Z4.875000 (Fast pre-penetrate)
G01 Z-0.125000 F400.0(Penetrate)
G01 X31.504330 Y105.793856 Z-0.125000 F800.000000
G01 X62.739433 Y95.725393 Z-0.125000
G01 X78.042604 Y101.588862 Z-0.125000
G01 X97.968709 Y102.829396 Z-0.125000
G01 X128.838592 Y93.126153 Z-0.125000
G01 X145.095887 Y98.035499 Z-0.125000
G01 X163.870416 Y100.427610 Z-0.125000
G00 Z3.000000

(End cutting path id: path81077)


(Start cutting path id: path81079)
(Change tool to Default tool)

G00 Z3.000000
G00 X19.109884 Y95.963330

G00 Z4.875000 (Fast pre-penetrate)
G01 Z-0.125000 F400.0(Penetrate)
G01 X31.456226 Y104.783627 Z-0.125000 F800.000000
G01 X62.552116 Y94.854378 Z-0.125000
G01 X78.018315 Y100.554818 Z-0.125000
G01 X98.372254 Y101.367519 Z-0.125000
G01 X128.335078 Y92.571336 Z-0.125000
G01 X144.735810 Y97.337243 Z-0.125000
G01 X163.953775 Y99.285918 Z-0.125000
G00 Z3.000000

(End cutting path id: path81079)


(Start cutting path id: path81081)
(Change tool to Default tool)

G00 Z3.000000
G00 X19.125384 Y94.889498

G00 Z4.875000 (Fast pre-penetrate)
G01 Z-0.125000 F400.0(Penetrate)
G01 X31.408122 Y103.773399 Z-0.125000 F800.000000
G01 X62.364796 Y93.983365 Z-0.125000
G01 X77.994029 Y99.520772 Z-0.125000
G01 X98.775801 Y99.905640 Z-0.125000
G01 X127.831563 Y92.016519 Z-0.125000
G01 X144.375734 Y96.638987 Z-0.125000
G01 X164.037132 Y98.144229 Z-0.125000
G00 Z3.000000

(End cutting path id: path81081)


(Start cutting path id: path81083)
(Change tool to Default tool)

G00 Z3.000000
G00 X19.140884 Y93.815665

G00 Z4.875000 (Fast pre-penetrate)
G01 Z-0.125000 F400.0(Penetrate)
G01 X31.360018 Y102.763171 Z-0.125000 F800.000000
G01 X62.177480 Y93.112350 Z-0.125000
G01 X77.969743 Y98.486727 Z-0.125000
G01 X99.179346 Y98.443764 Z-0.125000
G01 X127.328048 Y91.461701 Z-0.125000
G01 X144.015658 Y95.940732 Z-0.125000
G01 X164.120489 Y97.002540 Z-0.125000
G00 Z3.000000

(End cutting path id: path81083)


(Start cutting path id: path81085)
(Change tool to Default tool)

G00 Z3.000000
G00 X19.156384 Y92.741833

G00 Z4.875000 (Fast pre-penetrate)
G01 Z-0.125000 F400.0(Penetrate)
G01 X31.311917 Y101.752940 Z-0.125000 F800.000000
G01 X61.990163 Y92.241335 Z-0.125000
G01 X77.945457 Y97.452681 Z-0.125000
G01 X99.582891 Y96.981887 Z-0.125000
G01 X126.824534 Y90.906884 Z-0.125000
G01 X143.655582 Y95.242476 Z-0.125000
G01 X164.203849 Y95.860849 Z-0.125000
G00 Z3.000000

(End cutting path id: path81085)


(Start cutting path id: path81087)
(Change tool to Default tool)

G00 Z3.000000
G00 X19.171884 Y91.668002

G00 Z4.875000 (Fast pre-penetrate)
G01 Z-0.125000 F400.0(Penetrate)
G01 X31.263813 Y100.742712 Z-0.125000 F800.000000
G01 X61.802846 Y91.370320 Z-0.125000
G01 X77.921171 Y96.418635 Z-0.125000
G01 X99.986438 Y95.520008 Z-0.125000
G01 X126.321019 Y90.352067 Z-0.125000
G01 X143.295505 Y94.544220 Z-0.125000
G01 X164.287206 Y94.719160 Z-0.125000
G00 Z3.000000

(End cutting path id: path81087)


(Start cutting path id: path81089)
(Change tool to Default tool)

G00 Z3.000000
G00 X19.187384 Y90.594171

G00 Z4.875000 (Fast pre-penetrate)
G01 Z-0.125000 F400.0(Penetrate)
G01 X31.215710 Y99.732484 Z-0.125000 F800.000000
G01 X61.615529 Y90.499304 Z-0.125000
G01 X77.896882 Y95.384591 Z-0.125000
G01 X100.389982 Y94.058131 Z-0.125000
G01 X125.817504 Y89.797249 Z-0.125000
G01 X142.935429 Y93.845965 Z-0.125000
G01 X164.370565 Y93.577468 Z-0.125000
G00 Z3.000000

(End cutting path id: path81089)


(Start cutting path id: path81091)
(Change tool to Default tool)

G00 Z3.000000
G00 X19.202883 Y89.520337

G00 Z4.875000 (Fast pre-penetrate)
G01 Z-0.125000 F400.0(Penetrate)
G01 X31.167608 Y98.722253 Z-0.125000 F800.000000
G01 X61.428212 Y89.628289 Z-0.125000
G01 X77.872596 Y94.350546 Z-0.125000
G01 X100.793527 Y92.596254 Z-0.125000
G01 X125.313989 Y89.242432 Z-0.125000
G01 X142.575353 Y93.147709 Z-0.125000
G01 X164.453922 Y92.435779 Z-0.125000
G00 Z3.000000

(End cutting path id: path81091)


(Start cutting path id: path81093)
(Change tool to Default tool)

G00 Z3.000000
G00 X19.218383 Y88.446506

G00 Z4.875000 (Fast pre-penetrate)
G01 Z-0.125000 F400.0(Penetrate)
G01 X31.119505 Y97.712025 Z-0.125000 F800.000000
G01 X61.240895 Y88.757274 Z-0.125000
G01 X77.848310 Y93.316500 Z-0.125000
G01 X101.197074 Y91.134375 Z-0.125000
G01 X124.810475 Y88.687615 Z-0.125000
G01 X142.215276 Y92.449453 Z-0.125000
G01 X164.537279 Y91.294091 Z-0.125000
G00 Z3.000000

(End cutting path id: path81093)


(Start cutting path id: path81095)
(Change tool to Default tool)

G00 Z3.000000
G00 X19.233883 Y87.372674

G00 Z4.875000 (Fast pre-penetrate)
G01 Z-0.125000 F400.0(Penetrate)
G01 X31.071401 Y96.701797 Z-0.125000 F800.000000
G01 X61.053579 Y87.886259 Z-0.125000
G01 X77.824024 Y92.282454 Z-0.125000
G01 X101.600619 Y89.672498 Z-0.125000
G01 X124.306960 Y88.132797 Z-0.125000
G01 X141.855200 Y91.751197 Z-0.125000
G01 X164.620638 Y90.152399 Z-0.125000
G00 Z3.000000

(End cutting path id: path81095)


(Start cutting path id: path81097)
(Change tool to Default tool)

G00 Z3.000000
G00 X19.249383 Y86.298843

G00 Z4.875000 (Fast pre-penetrate)
G01 Z-0.125000 F400.0(Penetrate)
G01 X31.023297 Y95.691569 Z-0.125000 F800.000000
G01 X60.866259 Y87.015246 Z-0.125000
G01 X77.799735 Y91.248410 Z-0.125000
G01 X102.004164 Y88.210622 Z-0.125000
G01 X123.803445 Y87.577980 Z-0.125000
G01 X141.495126 Y91.052939 Z-0.125000
G01 X164.703995 Y89.010710 Z-0.125000
G00 Z3.000000

(End cutting path id: path81097)


(Start cutting path id: path81099)
(Change tool to Default tool)

G00 Z3.000000
G00 X19.264883 Y85.225012

G00 Z4.875000 (Fast pre-penetrate)
G01 Z-0.125000 F400.0(Penetrate)
G01 X30.975196 Y94.681338 Z-0.125000 F800.000000
G01 X60.678942 Y86.144231 Z-0.125000
G01 X77.775449 Y90.214364 Z-0.125000
G01 X102.407708 Y86.748745 Z-0.125000
G01 X123.299931 Y87.023163 Z-0.125000
G01 X141.135050 Y90.354683 Z-0.125000
G01 X164.787352 Y87.869021 Z-0.125000
G00 Z3.000000

(End cutting path id: path81099)


(Start cutting path id: path81101)
(Change tool to Default tool)

G00 Z3.000000
G00 X19.280383 Y84.151178

G00 Z4.875000 (Fast pre-penetrate)
G01 Z-0.125000 F400.0(Penetrate)
G01 X30.927092 Y93.671110 Z-0.125000 F800.000000
G01 X60.491625 Y85.273216 Z-0.125000
G01 X77.751163 Y89.180319 Z-0.125000
G01 X102.811256 Y85.286866 Z-0.125000
G01 X122.796416 Y86.468345 Z-0.125000
G01 X140.774974 Y89.656428 Z-0.125000
G01 X164.870712 Y86.727330 Z-0.125000
G00 Z3.000000

(End cutting path id: path81101)


(Start cutting path id: path81103)
(Change tool to Default tool)

G00 Z3.000000
G00 X19.295883 Y83.077346

G00 Z4.875000 (Fast pre-penetrate)
G01 Z-0.125000 F400.0(Penetrate)
G01 X30.878988 Y92.660881 Z-0.125000 F800.000000
G01 X60.304309 Y84.402201 Z-0.125000
G01 X77.726877 Y88.146273 Z-0.125000
G01 X103.214800 Y83.824989 Z-0.125000
G01 X122.292901 Y85.913528 Z-0.125000
G01 X140.414898 Y88.958172 Z-0.125000
G01 X164.954069 Y85.585641 Z-0.125000
G00 Z3.000000

(End cutting path id: path81103)


(Start cutting path id: path81105)
(Change tool to Default tool)

G00 Z3.000000
G00 X19.311382 Y82.003515

G00 Z4.875000 (Fast pre-penetrate)
G01 Z-0.125000 F400.0(Penetrate)
G01 X30.830884 Y91.650653 Z-0.125000 F800.000000
G01 X60.116992 Y83.531186 Z-0.125000
G01 X77.702588 Y87.112229 Z-0.125000
G01 X103.618345 Y82.363113 Z-0.125000
G01 X121.789387 Y85.358711 Z-0.125000
G01 X140.054821 Y88.259916 Z-0.125000
G01 X165.037425 Y84.443952 Z-0.125000
G00 Z3.000000

(End cutting path id: path81105)


(Start cutting path id: path81111)
(Change tool to Default tool)

G00 Z3.000000
G00 X19.115237 Y79.024665

G00 Z4.875000 (Fast pre-penetrate)
G01 Z-0.125000 F400.0(Penetrate)
G01 X30.984192 Y88.322350 Z-0.125000 F800.000000
G01 X59.728994 Y80.744187 Z-0.125000
G01 X78.015989 Y83.623832 Z-0.125000
G01 X104.239853 Y78.566609 Z-0.125000
G01 X120.807911 Y83.165191 Z-0.125000
G01 X139.384860 Y85.754881 Z-0.125000
G01 X165.327879 Y80.978502 Z-0.125000
G00 Z3.000000

(End cutting path id: path81111)


(Start cutting path id: path81113)
(Change tool to Default tool)

G00 Z3.000000
G00 X18.888093 Y78.193478

G00 Z4.875000 (Fast pre-penetrate)
G01 Z-0.125000 F400.0(Penetrate)
G01 X31.233707 Y87.014503 Z-0.125000 F800.000000
G01 X59.715633 Y79.699217 Z-0.125000
G01 X78.377963 Y82.203527 Z-0.125000
G01 X104.054272 Y77.693858 Z-0.125000
G01 X120.833467 Y82.081303 Z-0.125000
G01 X139.435054 Y84.646355 Z-0.125000
G01 X165.451620 Y79.796430 Z-0.125000
G00 Z3.000000

(End cutting path id: path81113)


(Start cutting path id: path81115)
(Change tool to Default tool)

G00 Z3.000000
G00 X18.660948 Y77.362290

G00 Z4.875000 (Fast pre-penetrate)
G01 Z-0.125000 F400.0(Penetrate)
G01 X31.483219 Y85.706659 Z-0.125000 F800.000000
G01 X59.702271 Y78.654246 Z-0.125000
G01 X78.739939 Y80.783219 Z-0.125000
G01 X103.868688 Y76.821109 Z-0.125000
G01 X120.859020 Y80.997417 Z-0.125000
G01 X139.485245 Y83.537832 Z-0.125000
G01 X165.575357 Y78.614360 Z-0.125000
G00 Z3.000000

(End cutting path id: path81115)


(Start cutting path id: path81117)
(Change tool to Default tool)

G00 Z3.000000
G00 X18.433803 Y76.531103

G00 Z4.875000 (Fast pre-penetrate)
G01 Z-0.125000 F400.0(Penetrate)
G01 X31.732731 Y84.398814 Z-0.125000 F800.000000
G01 X59.688910 Y77.609276 Z-0.125000
G01 X79.101912 Y79.362913 Z-0.125000
G01 X103.683107 Y75.948359 Z-0.125000
G01 X120.884574 Y79.913532 Z-0.125000
G01 X139.535437 Y82.429309 Z-0.125000
G01 X165.699097 Y77.432288 Z-0.125000
G00 Z3.000000

(End cutting path id: path81117)


(Start cutting path id: path81119)
(Change tool to Default tool)

G00 Z3.000000
G00 X18.206658 Y75.699915

G00 Z4.875000 (Fast pre-penetrate)
G01 Z-0.125000 F400.0(Penetrate)
G01 X31.982246 Y83.090967 Z-0.125000 F800.000000
G01 X59.675546 Y76.564308 Z-0.125000
G01 X79.463885 Y77.942608 Z-0.125000
G01 X103.497523 Y75.075610 Z-0.125000
G01 X120.910130 Y78.829644 Z-0.125000
G01 X139.585628 Y81.320785 Z-0.125000
G01 X165.822835 Y76.250219 Z-0.125000
G00 Z3.000000

(End cutting path id: path81119)


(Start cutting path id: path81121)
(Change tool to Default tool)

G00 Z3.000000
G00 X17.979513 Y74.868728

G00 Z4.875000 (Fast pre-penetrate)
G01 Z-0.125000 F400.0(Penetrate)
G01 X32.231759 Y81.783123 Z-0.125000 F800.000000
G01 X59.662184 Y75.519337 Z-0.125000
G01 X79.825859 Y76.522303 Z-0.125000
G01 X103.311942 Y74.202860 Z-0.125000
G01 X120.935683 Y77.745758 Z-0.125000
G01 X139.635822 Y80.212259 Z-0.125000
G01 X165.946575 Y75.068147 Z-0.125000
G00 Z3.000000

(End cutting path id: path81121)


(Start cutting path id: path81123)
(Change tool to Default tool)

G00 Z3.000000
G00 X17.752368 Y74.037540

G00 Z4.875000 (Fast pre-penetrate)
G01 Z-0.125000 F400.0(Penetrate)
G01 X32.481274 Y80.475276 Z-0.125000 F800.000000
G01 X59.648823 Y74.474367 Z-0.125000
G01 X80.187832 Y75.101997 Z-0.125000
G01 X103.126358 Y73.330111 Z-0.125000
G01 X120.961237 Y76.661873 Z-0.125000
G01 X139.686014 Y79.103736 Z-0.125000
G01 X166.070312 Y73.886077 Z-0.125000
G00 Z3.000000

(End cutting path id: path81123)


(Start cutting path id: path81125)
(Change tool to Default tool)

G00 Z3.000000
G00 X17.525224 Y73.206353

G00 Z4.875000 (Fast pre-penetrate)
G01 Z-0.125000 F400.0(Penetrate)
G01 X32.730786 Y79.167432 Z-0.125000 F800.000000
G01 X59.635461 Y73.429396 Z-0.125000
G01 X80.549808 Y73.681689 Z-0.125000
G01 X102.940777 Y72.457361 Z-0.125000
G01 X120.986793 Y75.577985 Z-0.125000
G01 X139.736205 Y77.995212 Z-0.125000
G01 X166.194053 Y72.704005 Z-0.125000
G00 Z3.000000

(End cutting path id: path81125)


(Start cutting path id: path81127)
(Change tool to Default tool)

G00 Z3.000000
G00 X17.298079 Y72.375168

G00 Z4.875000 (Fast pre-penetrate)
G01 Z-0.125000 F400.0(Penetrate)
G01 X32.980298 Y77.859587 Z-0.125000 F800.000000
G01 X59.622097 Y72.384428 Z-0.125000
G01 X80.911782 Y72.261384 Z-0.125000
G01 X102.755193 Y71.584612 Z-0.125000
G01 X121.012346 Y74.494099 Z-0.125000
G01 X139.786399 Y76.886686 Z-0.125000
G01 X166.317790 Y71.521935 Z-0.125000
G00 Z3.000000

(End cutting path id: path81127)


(Start cutting path id: path81129)
(Change tool to Default tool)

G00 Z3.000000
G00 X17.070934 Y71.543980

G00 Z4.875000 (Fast pre-penetrate)
G01 Z-0.125000 F400.0(Penetrate)
G01 X33.229813 Y76.551740 Z-0.125000 F800.000000
G01 X59.608736 Y71.339458 Z-0.125000
G01 X81.273755 Y70.841079 Z-0.125000
G01 X102.569612 Y70.711862 Z-0.125000
G01 X121.037900 Y73.410214 Z-0.125000
G01 X139.836591 Y75.778163 Z-0.125000
G01 X166.441528 Y70.339866 Z-0.125000
G00 Z3.000000

(End cutting path id: path81129)


(Start cutting path id: path81131)
(Change tool to Default tool)

G00 Z3.000000
G00 X16.843789 Y70.712793

G00 Z4.875000 (Fast pre-penetrate)
G01 Z-0.125000 F400.0(Penetrate)
G01 X33.479326 Y75.243896 Z-0.125000 F800.000000
G01 X59.595374 Y70.294487 Z-0.125000
G01 X81.635728 Y69.420773 Z-0.125000
G01 X102.384028 Y69.839113 Z-0.125000
G01 X121.063456 Y72.326326 Z-0.125000
G01 X139.886782 Y74.669640 Z-0.125000
G01 X166.565268 Y69.157794 Z-0.125000
G00 Z3.000000

(End cutting path id: path81131)


(Start cutting path id: path81133)
(Change tool to Default tool)

G00 Z3.000000
G00 X16.616644 Y69.881605

G00 Z4.875000 (Fast pre-penetrate)
G01 Z-0.125000 F400.0(Penetrate)
G01 X33.728841 Y73.936049 Z-0.125000 F800.000000
G01 X59.582010 Y69.249519 Z-0.125000
G01 X81.997702 Y68.000468 Z-0.125000
G01 X102.198447 Y68.966363 Z-0.125000
G01 X121.089009 Y71.242440 Z-0.125000
G01 X139.936976 Y73.561114 Z-0.125000
G01 X166.689005 Y67.975724 Z-0.125000
G00 Z3.000000

(End cutting path id: path81133)


(Start cutting path id: path81135)
(Change tool to Default tool)

G00 Z3.000000
G00 X16.389500 Y69.050418

G00 Z4.875000 (Fast pre-penetrate)
G01 Z-0.125000 F400.0(Penetrate)
G01 X33.978353 Y72.628204 Z-0.125000 F800.000000
G01 X59.568649 Y68.204549 Z-0.125000
G01 X82.359675 Y66.580163 Z-0.125000
G01 X102.012863 Y68.093614 Z-0.125000
G01 X121.114562 Y70.158555 Z-0.125000
G01 X139.987167 Y72.452590 Z-0.125000
G01 X166.812746 Y66.793652 Z-0.125000
G00 Z3.000000

(End cutting path id: path81135)


(Start cutting path id: path81137)
(Change tool to Default tool)

G00 Z3.000000
G00 X16.162355 Y68.219230

G00 Z4.875000 (Fast pre-penetrate)
G01 Z-0.125000 F400.0(Penetrate)
G01 X34.227865 Y71.320360 Z-0.125000 F800.000000
G01 X59.555287 Y67.159578 Z-0.125000
G01 X82.721651 Y65.159855 Z-0.125000
G01 X101.827282 Y67.220863 Z-0.125000
G01 X121.140119 Y69.074667 Z-0.125000
G01 X140.037359 Y71.344067 Z-0.125000
G01 X166.936483 Y65.611582 Z-0.125000
G00 Z3.000000

(End cutting path id: path81137)


(Start cutting path id: path81139)
(Change tool to Default tool)

G00 Z3.000000
G00 X15.935210 Y67.388043

G00 Z4.875000 (Fast pre-penetrate)
G01 Z-0.125000 F400.0(Penetrate)
G01 X34.477380 Y70.012513 Z-0.125000 F800.000000
G01 X59.541926 Y66.114608 Z-0.125000
G01 X83.083624 Y63.739549 Z-0.125000
G01 X101.641698 Y66.348115 Z-0.125000
G01 X121.165672 Y67.990782 Z-0.125000
G01 X140.087550 Y70.235543 Z-0.125000
G01 X167.060223 Y64.429510 Z-0.125000
G00 Z3.000000

(End cutting path id: path81139)


(Start cutting path id: path81141)
(Change tool to Default tool)

G00 Z3.000000
G00 X15.708065 Y66.556855

G00 Z4.875000 (Fast pre-penetrate)
G01 Z-0.125000 F400.0(Penetrate)
G01 X34.726893 Y68.704669 Z-0.125000 F800.000000
G01 X59.528562 Y65.069640 Z-0.125000
G01 X83.445598 Y62.319244 Z-0.125000
G01 X101.456117 Y65.475364 Z-0.125000
G01 X121.191225 Y66.906896 Z-0.125000
G01 X140.137744 Y69.127017 Z-0.125000
G01 X167.183961 Y63.247441 Z-0.125000
G00 Z3.000000

(End cutting path id: path81141)


(Start cutting path id: path81143)
(Change tool to Default tool)

G00 Z3.000000
G00 X15.480920 Y65.725671

G00 Z4.875000 (Fast pre-penetrate)
G01 Z-0.125000 F400.0(Penetrate)
G01 X34.976408 Y67.396822 Z-0.125000 F800.000000
G01 X59.515200 Y64.024669 Z-0.125000
G01 X83.807571 Y60.898938 Z-0.125000
G01 X101.270533 Y64.602616 Z-0.125000
G01 X121.216781 Y65.823008 Z-0.125000
G01 X140.187936 Y68.018494 Z-0.125000
G01 X167.307701 Y62.065368 Z-0.125000
G00 Z3.000000

(End cutting path id: path81143)


(Start cutting path id: path81145)
(Change tool to Default tool)

G00 Z3.000000
G00 X15.253775 Y64.894483

G00 Z4.875000 (Fast pre-penetrate)
G01 Z-0.125000 F400.0(Penetrate)
G01 X35.225920 Y66.088977 Z-0.125000 F800.000000
G01 X59.501839 Y62.979699 Z-0.125000
G01 X84.169544 Y59.478633 Z-0.125000
G01 X101.084952 Y63.729865 Z-0.125000
G01 X121.242335 Y64.739123 Z-0.125000
G01 X140.238127 Y66.909971 Z-0.125000
G01 X167.431439 Y60.883299 Z-0.125000
G00 Z3.000000

(End cutting path id: path81145)


(Start cutting path id: path81147)
(Change tool to Default tool)

G00 Z3.000000
G00 X15.026630 Y64.063296

G00 Z4.875000 (Fast pre-penetrate)
G01 Z-0.125000 F400.0(Penetrate)
G01 X35.475432 Y64.781133 Z-0.125000 F800.000000
G01 X59.488478 Y61.934728 Z-0.125000
G01 X84.531520 Y58.058325 Z-0.125000
G01 X100.899368 Y62.857117 Z-0.125000
G01 X121.267888 Y63.655237 Z-0.125000
G01 X140.288321 Y65.801444 Z-0.125000
G01 X167.555179 Y59.701227 Z-0.125000
G00 Z3.000000

(End cutting path id: path81147)


(Start cutting path id: path81013)
(Change tool to Default tool)

G00 Z3.000000
G00 X18.282052 Y131.716118

G00 Z4.875000 (Fast pre-penetrate)
G01 Z-0.125000 F400.0(Penetrate)
G01 X37.166509 Y133.998300 Z-0.125000 F800.000000
G01 X62.103137 Y130.228313 Z-0.125000
G01 X85.815333 Y127.682757 Z-0.125000
G01 X106.572726 Y128.092003 Z-0.125000
G01 X124.605021 Y131.226349 Z-0.125000
G01 X148.497739 Y128.500271 Z-0.125000
G01 X163.116749 Y135.047901 Z-0.125000
G00 Z3.000000

(End cutting path id: path81013)


(Start cutting path id: path81011)
(Change tool to Default tool)

G00 Z3.000000
G00 X17.628150 Y133.428351

G00 Z4.875000 (Fast pre-penetrate)
G01 Z-0.125000 F400.0(Penetrate)
G01 X36.756244 Y135.466897 Z-0.125000 F800.000000
G01 X62.211730 Y131.178052 Z-0.125000
G01 X85.872009 Y128.684412 Z-0.125000
G01 X106.476826 Y129.246236 Z-0.125000
G01 X125.008044 Y131.881657 Z-0.125000
G01 X148.184652 Y129.871689 Z-0.125000
G01 X163.539510 Y135.683472 Z-0.125000
G00 Z3.000000

(End cutting path id: path81011)


(Start cutting path id: path80949)
(Change tool to Default tool)

G00 Z3.000000
G00 X20.027225 Y163.837569

G00 Z4.875000 (Fast pre-penetrate)
G01 Z-0.125000 F400.0(Penetrate)
G01 X36.439774 Y168.591660 Z-0.125000 F800.000000
G01 X66.273597 Y159.924476 Z-0.125000
G01 X81.271194 Y166.093520 Z-0.125000
G01 X98.602817 Y169.928537 Z-0.125000
G01 X123.980478 Y165.717516 Z-0.125000
G01 X141.995366 Y168.869268 Z-0.125000
G01 X168.751343 Y163.279931 Z-0.125000
G00 Z3.000000

(End cutting path id: path80949)


(Start cutting path id: path80947)
(Change tool to Default tool)

G00 Z3.000000
G00 X19.850706 Y165.072420

G00 Z4.875000 (Fast pre-penetrate)
G01 Z-0.125000 F400.0(Penetrate)
G01 X36.875958 Y169.213808 Z-0.125000 F800.000000
G01 X66.052782 Y161.203624 Z-0.125000
G01 X81.198552 Y167.224493 Z-0.125000
G01 X98.865831 Y170.723855 Z-0.125000
G01 X123.675959 Y167.080367 Z-0.125000
G01 X142.388819 Y169.534147 Z-0.125000
G01 X168.689869 Y164.399736 Z-0.125000
G00 Z3.000000

(End cutting path id: path80947)


(Start cutting path id: path80945)
(Change tool to Default tool)

G00 Z3.000000
G00 X19.674184 Y166.307274

G00 Z4.875000 (Fast pre-penetrate)
G01 Z-0.125000 F400.0(Penetrate)
G01 X37.312144 Y169.835954 Z-0.125000 F800.000000
G01 X65.831963 Y162.482774 Z-0.125000
G01 X81.125914 Y168.355464 Z-0.125000
G01 X99.128842 Y171.519175 Z-0.125000
G01 X123.371442 Y168.443215 Z-0.125000
G01 X142.782270 Y170.199028 Z-0.125000
G01 X168.628399 Y165.519539 Z-0.125000
G00 Z3.000000

(End cutting path id: path80945)


(Start cutting path id: path80951)
(Change tool to Default tool)

G00 Z3.000000
G00 X19.547626 Y163.258836

G00 Z4.875000 (Fast pre-penetrate)
G01 Z-0.125000 F400.0(Penetrate)
G01 X36.229952 Y167.743150 Z-0.125000 F800.000000
G01 X66.130230 Y159.009511 Z-0.125000
G01 X81.532406 Y164.773976 Z-0.125000
G01 X98.943772 Y168.529250 Z-0.125000
G01 X124.253520 Y164.386142 Z-0.125000
G01 X142.132634 Y167.673668 Z-0.125000
G01 X168.723270 Y162.249671 Z-0.125000
G00 Z3.000000

(End cutting path id: path80951)


(Start cutting path id: path80943)
(Change tool to Default tool)

G00 Z3.000000
G00 X19.497665 Y167.542125

G00 Z4.875000 (Fast pre-penetrate)
G01 Z-0.125000 F400.0(Penetrate)
G01 X37.748327 Y170.458102 Z-0.125000 F800.000000
G01 X65.611145 Y163.761924 Z-0.125000
G01 X81.053273 Y169.486437 Z-0.125000
G01 X99.391856 Y172.314493 Z-0.125000
G01 X123.066923 Y169.806066 Z-0.125000
G01 X143.175721 Y170.863909 Z-0.125000
G01 X168.566926 Y166.639344 Z-0.125000
G00 Z3.000000

(End cutting path id: path80943)


(Start cutting path id: path80941)
(Change tool to Default tool)

G00 Z3.000000
G00 X19.321143 Y168.776979

G00 Z4.875000 (Fast pre-penetrate)
G01 Z-0.125000 F400.0(Penetrate)
G01 X38.184514 Y171.080248 Z-0.125000 F800.000000
G01 X65.390327 Y165.041075 Z-0.125000
G01 X80.980631 Y170.617410 Z-0.125000
G01 X99.654868 Y173.109814 Z-0.125000
G01 X122.762404 Y171.168918 Z-0.125000
G01 X143.569171 Y171.528790 Z-0.125000
G01 X168.505452 Y167.759149 Z-0.125000
G00 Z3.000000

(End cutting path id: path80941)


(Start cutting path id: path80939)
(Change tool to Default tool)

G00 Z3.000000
G00 X19.144623 Y170.011830

G00 Z4.875000 (Fast pre-penetrate)
G01 Z-0.125000 F400.0(Penetrate)
G01 X38.620697 Y171.702396 Z-0.125000 F800.000000
G01 X65.169511 Y166.320222 Z-0.125000
G01 X80.907993 Y171.748381 Z-0.125000
G01 X99.917882 Y173.905132 Z-0.125000
G01 X122.457885 Y172.531769 Z-0.125000
G01 X143.962622 Y172.193671 Z-0.125000
G01 X168.443979 Y168.878954 Z-0.125000
G00 Z3.000000

(End cutting path id: path80939)


(Start cutting path id: path80937)
(Change tool to Default tool)

G00 Z3.000000
G00 X18.968103 Y171.246684

G00 Z4.875000 (Fast pre-penetrate)
G01 Z-0.125000 F400.0(Penetrate)
G01 X39.056881 Y172.324545 Z-0.125000 F800.000000
G01 X64.948693 Y167.599373 Z-0.125000
G01 X80.835351 Y172.879354 Z-0.125000
G01 X100.180896 Y174.700450 Z-0.125000
G01 X122.153368 Y173.894617 Z-0.125000
G01 X144.356073 Y172.858553 Z-0.125000
G01 X168.382509 Y169.998757 Z-0.125000
G00 Z3.000000

(End cutting path id: path80937)


(Start cutting path id: path80953)
(Change tool to Default tool)

G00 Z3.000000
G00 X19.068025 Y162.680105

G00 Z4.875000 (Fast pre-penetrate)
G01 Z-0.125000 F400.0(Penetrate)
G01 X36.020129 Y166.894640 Z-0.125000 F800.000000
G01 X65.986866 Y158.094543 Z-0.125000
G01 X81.793621 Y163.454429 Z-0.125000
G01 X99.284727 Y167.129963 Z-0.125000
G01 X124.526561 Y163.054768 Z-0.125000
G01 X142.269902 Y166.478067 Z-0.125000
G01 X168.695198 Y161.219411 Z-0.125000
G00 Z3.000000

(End cutting path id: path80953)


(Start cutting path id: path80955)
(Change tool to Default tool)

G00 Z3.000000
G00 X18.588425 Y162.101372

G00 Z4.875000 (Fast pre-penetrate)
G01 Z-0.125000 F400.0(Penetrate)
G01 X35.810305 Y166.046133 Z-0.125000 F800.000000
G01 X65.843499 Y157.179578 Z-0.125000
G01 X82.054836 Y162.134882 Z-0.125000
G01 X99.625682 Y165.730676 Z-0.125000
G01 X124.799600 Y161.723397 Z-0.125000
G01 X142.407170 Y165.282467 Z-0.125000
G01 X168.667128 Y160.189149 Z-0.125000
G00 Z3.000000

(End cutting path id: path80955)


(Start cutting path id: path80935)
(Change tool to Default tool)

G00 Z3.000000
G00 X18.791582 Y172.481535

G00 Z4.875000 (Fast pre-penetrate)
G01 Z-0.125000 F400.0(Penetrate)
G01 X39.493067 Y172.946690 Z-0.125000 F800.000000
G01 X64.727874 Y168.878523 Z-0.125000
G01 X80.762710 Y174.010327 Z-0.125000
G01 X100.443907 Y175.495770 Z-0.125000
G01 X121.848849 Y175.257468 Z-0.125000
G01 X144.749526 Y173.523431 Z-0.125000
G01 X168.321035 Y171.118562 Z-0.125000
G00 Z3.000000

(End cutting path id: path80935)


(Start cutting path id: path80933)
(Change tool to Default tool)

G00 Z3.000000
G00 X18.615062 Y173.716386

G00 Z4.875000 (Fast pre-penetrate)
G01 Z-0.125000 F400.0(Penetrate)
G01 X39.929251 Y173.568839 Z-0.125000 F800.000000
G01 X64.507059 Y170.157671 Z-0.125000
G01 X80.690072 Y175.141298 Z-0.125000
G01 X100.706921 Y176.291088 Z-0.125000
G01 X121.544330 Y176.620320 Z-0.125000
G01 X145.142977 Y174.188312 Z-0.125000
G01 X168.259562 Y172.238367 Z-0.125000
G00 Z3.000000

(End cutting path id: path80933)


(Start cutting path id: path80931)
(Change tool to Default tool)

G00 Z3.000000
G00 X18.438542 Y174.951240

G00 Z4.875000 (Fast pre-penetrate)
G01 Z-0.125000 F400.0(Penetrate)
G01 X40.365437 Y174.190985 Z-0.125000 F800.000000
G01 X64.286240 Y171.436821 Z-0.125000
G01 X80.617430 Y176.272271 Z-0.125000
G01 X100.969933 Y177.086409 Z-0.125000
G01 X121.239811 Y177.983171 Z-0.125000
G01 X145.536428 Y174.853194 Z-0.125000
G01 X168.198089 Y173.358173 Z-0.125000
G00 Z3.000000

(End cutting path id: path80931)


(Start cutting path id: path80929)
(Change tool to Default tool)

G00 Z3.000000
G00 X18.262021 Y176.186091

G00 Z4.875000 (Fast pre-penetrate)
G01 Z-0.125000 F400.0(Penetrate)
G01 X40.801621 Y174.813133 Z-0.125000 F800.000000
G01 X64.065422 Y172.715971 Z-0.125000
G01 X80.544789 Y177.403244 Z-0.125000
G01 X101.232947 Y177.881727 Z-0.125000
G01 X120.935294 Y179.346019 Z-0.125000
G01 X145.929879 Y175.518075 Z-0.125000
G01 X168.136618 Y174.477975 Z-0.125000
G00 Z3.000000

(End cutting path id: path80929)


(Start cutting path id: path80927)
(Change tool to Default tool)

G00 Z3.000000
G00 X18.085501 Y177.420945

G00 Z4.875000 (Fast pre-penetrate)
G01 Z-0.125000 F400.0(Penetrate)
G01 X41.237804 Y175.435281 Z-0.125000 F800.000000
G01 X63.844604 Y173.995122 Z-0.125000
G01 X80.472150 Y178.534215 Z-0.125000
G01 X101.495961 Y178.677045 Z-0.125000
G01 X120.630775 Y180.708870 Z-0.125000
G01 X146.323330 Y176.182956 Z-0.125000
G01 X168.075145 Y175.597780 Z-0.125000
G00 Z3.000000

(End cutting path id: path80927)


(Start cutting path id: path80925)
(Change tool to Default tool)

G00 Z3.000000
G00 X17.908981 Y178.655796

G00 Z4.875000 (Fast pre-penetrate)
G01 Z-0.125000 F400.0(Penetrate)
G01 X41.673990 Y176.057427 Z-0.125000 F800.000000
G01 X63.623788 Y175.274269 Z-0.125000
G01 X80.399509 Y179.665188 Z-0.125000
G01 X101.758972 Y179.472366 Z-0.125000
G01 X120.326256 Y182.071722 Z-0.125000
G01 X146.716780 Y176.847837 Z-0.125000
G01 X168.013672 Y176.717586 Z-0.125000
G00 Z3.000000

(End cutting path id: path80925)


(Start cutting path id: path80923)
(Change tool to Default tool)

G00 Z3.000000
G00 X17.732460 Y179.890650

G00 Z4.875000 (Fast pre-penetrate)
G01 Z-0.125000 F400.0(Penetrate)
G01 X42.110174 Y176.679576 Z-0.125000 F800.000000
G01 X63.402970 Y176.553420 Z-0.125000
G01 X80.326868 Y180.796162 Z-0.125000
G01 X102.021986 Y180.267684 Z-0.125000
G01 X120.021737 Y183.434573 Z-0.125000
G01 X147.110231 Y177.512718 Z-0.125000
G01 X167.952199 Y177.837391 Z-0.125000
G00 Z3.000000

(End cutting path id: path80923)


(Start cutting path id: path80921)
(Change tool to Default tool)

G00 Z3.000000
G00 X17.555940 Y181.125501

G00 Z4.875000 (Fast pre-penetrate)
G01 Z-0.125000 F400.0(Penetrate)
G01 X42.546360 Y177.301721 Z-0.125000 F800.000000
G01 X63.182151 Y177.832570 Z-0.125000
G01 X80.254229 Y181.927132 Z-0.125000
G01 X102.284997 Y181.063004 Z-0.125000
G01 X119.717220 Y184.797421 Z-0.125000
G01 X147.503685 Y178.177597 Z-0.125000
G01 X167.890728 Y178.957193 Z-0.125000
G00 Z3.000000

(End cutting path id: path80921)


(Start cutting path id: path80919)
(Change tool to Default tool)

G00 Z3.000000
G00 X17.379420 Y182.360355

G00 Z4.875000 (Fast pre-penetrate)
G01 Z-0.125000 F400.0(Penetrate)
G01 X42.982544 Y177.923870 Z-0.125000 F800.000000
G01 X62.961336 Y179.111718 Z-0.125000
G01 X80.181588 Y183.058105 Z-0.125000
G01 X102.548011 Y181.858322 Z-0.125000
G01 X119.412701 Y186.160272 Z-0.125000
G01 X147.897135 Y178.842478 Z-0.125000
G01 X167.829255 Y180.076999 Z-0.125000
G00 Z3.000000

(End cutting path id: path80919)


(Start cutting path id: path80917)
(Change tool to Default tool)

G00 Z3.000000
G00 X17.202899 Y183.595206

G00 Z4.875000 (Fast pre-penetrate)
G01 Z-0.125000 F400.0(Penetrate)
G01 X43.418727 Y178.546018 Z-0.125000 F800.000000
G01 X62.740517 Y180.390868 Z-0.125000
G01 X80.108947 Y184.189079 Z-0.125000
G01 X102.811025 Y182.653640 Z-0.125000
G01 X119.108182 Y187.523124 Z-0.125000
G01 X148.290586 Y179.507359 Z-0.125000
G01 X167.767782 Y181.196804 Z-0.125000
G00 Z3.000000

(End cutting path id: path80917)


(Start cutting path id: path80915)
(Change tool to Default tool)

G00 Z3.000000
G00 X17.026379 Y184.830058

G00 Z4.875000 (Fast pre-penetrate)
G01 Z-0.125000 F400.0(Penetrate)
G01 X43.854914 Y179.168164 Z-0.125000 F800.000000
G01 X62.519699 Y181.670018 Z-0.125000
G01 X80.036308 Y185.320049 Z-0.125000
G01 X103.074037 Y183.448961 Z-0.125000
G01 X118.803665 Y188.885972 Z-0.125000
G01 X148.684037 Y180.172240 Z-0.125000
G01 X167.706309 Y182.316609 Z-0.125000
G00 Z3.000000

(End cutting path id: path80915)


(Start cutting path id: path80913)
(Change tool to Default tool)

G00 Z3.000000
G00 X16.849858 Y186.064911

G00 Z4.875000 (Fast pre-penetrate)
G01 Z-0.125000 F400.0(Penetrate)
G01 X44.291097 Y179.790312 Z-0.125000 F800.000000
G01 X62.298883 Y182.949166 Z-0.125000
G01 X79.963667 Y186.451023 Z-0.125000
G01 X103.337051 Y184.244279 Z-0.125000
G01 X118.499146 Y190.248823 Z-0.125000
G01 X149.077488 Y180.837122 Z-0.125000
G01 X167.644838 Y183.436412 Z-0.125000
G00 Z3.000000

(End cutting path id: path80913)


(Start cutting path id: path80911)
(Change tool to Default tool)

G00 Z3.000000
G00 X16.673338 Y187.299763

G00 Z4.875000 (Fast pre-penetrate)
G01 Z-0.125000 F400.0(Penetrate)
G01 X44.727283 Y180.412458 Z-0.125000 F800.000000
G01 X62.078065 Y184.228316 Z-0.125000
G01 X79.891026 Y187.581996 Z-0.125000
G01 X103.600062 Y185.039599 Z-0.125000
G01 X118.194627 Y191.611674 Z-0.125000
G01 X149.470939 Y181.502003 Z-0.125000
G01 X167.583365 Y184.556217 Z-0.125000
G00 Z3.000000

(End cutting path id: path80911)


(Start cutting path id: path80909)
(Change tool to Default tool)

G00 Z3.000000
G00 X16.496818 Y188.534616

G00 Z4.875000 (Fast pre-penetrate)
G01 Z-0.125000 F400.0(Penetrate)
G01 X45.163467 Y181.034606 Z-0.125000 F800.000000
G01 X61.857247 Y185.507467 Z-0.125000
G01 X79.818387 Y188.712966 Z-0.125000
G01 X103.863076 Y185.834917 Z-0.125000
G01 X117.890108 Y192.974526 Z-0.125000
G01 X149.864392 Y182.166881 Z-0.125000
G01 X167.521892 Y185.676022 Z-0.125000
G00 Z3.000000

(End cutting path id: path80909)


(Start cutting path id: path80907)
(Change tool to Default tool)

G00 Z3.000000
G00 X16.467352 Y189.622412

G00 Z4.875000 (Fast pre-penetrate)
G01 Z-0.125000 F400.0(Penetrate)
G01 X44.950856 Y182.305549 Z-0.125000 F800.000000
G01 X61.671938 Y186.751107 Z-0.125000
G01 X79.775072 Y189.814613 Z-0.125000
G01 X103.834274 Y186.922052 Z-0.125000
G01 X117.935132 Y193.987833 Z-0.125000
G01 X149.550234 Y183.539371 Z-0.125000
G01 X167.594845 Y186.661400 Z-0.125000
G00 Z3.000000

(End cutting path id: path80907)


(Start cutting path id: path80905)
(Change tool to Default tool)

G00 Z3.000000
G00 X16.437886 Y190.710211

G00 Z4.875000 (Fast pre-penetrate)
G01 Z-0.125000 F400.0(Penetrate)
G01 X44.738242 Y183.576495 Z-0.125000 F800.000000
G01 X61.486629 Y187.994748 Z-0.125000
G01 X79.731757 Y190.916260 Z-0.125000
G01 X103.805471 Y188.009186 Z-0.125000
G01 X117.980154 Y195.001144 Z-0.125000
G01 X149.236079 Y184.911859 Z-0.125000
G01 X167.667798 Y187.646779 Z-0.125000
G00 Z3.000000

(End cutting path id: path80905)


(Start cutting path id: path80903)
(Change tool to Default tool)

G00 Z3.000000
G00 X16.408420 Y191.798010

G00 Z4.875000 (Fast pre-penetrate)
G01 Z-0.125000 F400.0(Penetrate)
G01 X44.525632 Y184.847438 Z-0.125000 F800.000000
G01 X61.301318 Y189.238391 Z-0.125000
G01 X79.688442 Y192.017907 Z-0.125000
G01 X103.776669 Y189.096321 Z-0.125000
G01 X118.025178 Y196.014452 Z-0.125000
G01 X148.921924 Y186.284346 Z-0.125000
G01 X167.740749 Y188.632160 Z-0.125000
G00 Z3.000000

(End cutting path id: path80903)


(Start cutting path id: path80901)
(Change tool to Default tool)

G00 Z3.000000
G00 X16.378954 Y192.885808

G00 Z4.875000 (Fast pre-penetrate)
G01 Z-0.125000 F400.0(Penetrate)
G01 X44.313018 Y186.118384 Z-0.125000 F800.000000
G01 X61.116010 Y190.482032 Z-0.125000
G01 X79.645127 Y193.119554 Z-0.125000
G01 X103.747866 Y190.183455 Z-0.125000
G01 X118.070199 Y197.027762 Z-0.125000
G01 X148.607768 Y187.656833 Z-0.125000
G01 X167.813703 Y189.617539 Z-0.125000
G00 Z3.000000

(End cutting path id: path80901)


(Start cutting path id: path80899)
(Change tool to Default tool)

G00 Z3.000000
G00 X16.349488 Y193.973607

G00 Z4.875000 (Fast pre-penetrate)
G01 Z-0.125000 F400.0(Penetrate)
G01 X44.100407 Y187.389327 Z-0.125000 F800.000000
G01 X60.930701 Y191.725673 Z-0.125000
G01 X79.601813 Y194.221201 Z-0.125000
G01 X103.719064 Y191.270590 Z-0.125000
G01 X118.115223 Y198.041070 Z-0.125000
G01 X148.293613 Y189.029320 Z-0.125000
G01 X167.886656 Y190.602917 Z-0.125000
G00 Z3.000000

(End cutting path id: path80899)


(Start cutting path id: path80897)
(Change tool to Default tool)

G00 Z3.000000
G00 X16.320022 Y195.061403

G00 Z4.875000 (Fast pre-penetrate)
G01 Z-0.125000 F400.0(Penetrate)
G01 X43.887793 Y188.660272 Z-0.125000 F800.000000
G01 X60.745392 Y192.969313 Z-0.125000
G01 X79.558498 Y195.322848 Z-0.125000
G01 X103.690261 Y192.357724 Z-0.125000
G01 X118.160245 Y199.054381 Z-0.125000
G01 X147.979458 Y190.401808 Z-0.125000
G01 X167.959610 Y191.588296 Z-0.125000
G00 Z3.000000

(End cutting path id: path80897)


(Start cutting path id: path80895)
(Change tool to Default tool)

G00 Z3.000000
G00 X16.290556 Y196.149201

G00 Z4.875000 (Fast pre-penetrate)
G01 Z-0.125000 F400.0(Penetrate)
G01 X43.675182 Y189.931215 Z-0.125000 F800.000000
G01 X60.560084 Y194.212954 Z-0.125000
G01 X79.515183 Y196.424495 Z-0.125000
G01 X103.661459 Y193.444859 Z-0.125000
G01 X118.205269 Y200.067689 Z-0.125000
G01 X147.665303 Y191.774295 Z-0.125000
G01 X168.032561 Y192.573677 Z-0.125000
G00 Z3.000000

(End cutting path id: path80895)


(Start cutting path id: path80893)
(Change tool to Default tool)

G00 Z3.000000
G00 X16.261090 Y197.237000

G00 Z4.875000 (Fast pre-penetrate)
G01 Z-0.125000 F400.0(Penetrate)
G01 X43.462569 Y191.202161 Z-0.125000 F800.000000
G01 X60.374772 Y195.456597 Z-0.125000
G01 X79.471868 Y197.526142 Z-0.125000
G01 X103.632656 Y194.531993 Z-0.125000
G01 X118.250290 Y201.080999 Z-0.125000
G01 X147.351147 Y193.146782 Z-0.125000
G01 X168.105514 Y193.559055 Z-0.125000
G00 Z3.000000

(End cutting path id: path80893)


(Start cutting path id: path80891)
(Change tool to Default tool)

G00 Z3.000000
G00 X16.231624 Y198.324799

G00 Z4.875000 (Fast pre-penetrate)
G01 Z-0.125000 F400.0(Penetrate)
G01 X43.249958 Y192.473104 Z-0.125000 F800.000000
G01 X60.189464 Y196.700238 Z-0.125000
G01 X79.428553 Y198.627788 Z-0.125000
G01 X103.603854 Y195.619128 Z-0.125000
G01 X118.295314 Y202.094307 Z-0.125000
G01 X147.036989 Y194.519272 Z-0.125000
G01 X168.178467 Y194.544434 Z-0.125000
G00 Z3.000000

(End cutting path id: path80891)


(Start cutting path id: path80889)
(Change tool to Default tool)

G00 Z3.000000
G00 X16.202158 Y199.412595

G00 Z4.875000 (Fast pre-penetrate)
G01 Z-0.125000 F400.0(Penetrate)
G01 X43.037344 Y193.744049 Z-0.125000 F800.000000
G01 X60.004155 Y197.943878 Z-0.125000
G01 X79.385238 Y199.729435 Z-0.125000
G01 X103.575051 Y196.706262 Z-0.125000
G01 X118.340336 Y203.107618 Z-0.125000
G01 X146.722834 Y195.891759 Z-0.125000
G01 X168.251418 Y195.529815 Z-0.125000
G00 Z3.000000

(End cutting path id: path80889)


(Start cutting path id: path80887)
(Change tool to Default tool)

G00 Z3.000000
G00 X16.172692 Y200.500393

G00 Z4.875000 (Fast pre-penetrate)
G01 Z-0.125000 F400.0(Penetrate)
G01 X42.824733 Y195.014992 Z-0.125000 F800.000000
G01 X59.818846 Y199.187519 Z-0.125000
G01 X79.341923 Y200.831082 Z-0.125000
G01 X103.546249 Y197.793397 Z-0.125000
G01 X118.385360 Y204.120926 Z-0.125000
G01 X146.408679 Y197.264247 Z-0.125000
G01 X168.324372 Y196.515194 Z-0.125000
G00 Z3.000000

(End cutting path id: path80887)


(Start cutting path id: path80885)
(Change tool to Default tool)

G00 Z3.000000
G00 X16.143226 Y201.588192

G00 Z4.875000 (Fast pre-penetrate)
G01 Z-0.125000 F400.0(Penetrate)
G01 X42.612120 Y196.285938 Z-0.125000 F800.000000
G01 X59.633535 Y200.431162 Z-0.125000
G01 X79.298608 Y201.932729 Z-0.125000
G01 X103.517446 Y198.880531 Z-0.125000
G01 X118.430381 Y205.134236 Z-0.125000
G01 X146.094524 Y198.636734 Z-0.125000
G01 X168.397325 Y197.500572 Z-0.125000
G00 Z3.000000

(End cutting path id: path80885)


(Start cutting path id: path80883)
(Change tool to Default tool)

G00 Z3.000000
G00 X16.113760 Y202.675990

G00 Z4.875000 (Fast pre-penetrate)
G01 Z-0.125000 F400.0(Penetrate)
G01 X42.399509 Y197.556881 Z-0.125000 F800.000000
G01 X59.448226 Y201.674803 Z-0.125000
G01 X79.255294 Y203.034376 Z-0.125000
G01 X103.488644 Y199.967666 Z-0.125000
G01 X118.475405 Y206.147544 Z-0.125000
G01 X145.780368 Y200.009221 Z-0.125000
G01 X168.470279 Y198.485951 Z-0.125000
G00 Z3.000000

(End cutting path id: path80883)


(Start cutting path id: path80881)
(Change tool to Default tool)

G00 Z3.000000
G00 X16.084294 Y203.763786

G00 Z4.875000 (Fast pre-penetrate)
G01 Z-0.125000 F400.0(Penetrate)
G01 X42.186895 Y198.827826 Z-0.125000 F800.000000
G01 X59.262918 Y202.918444 Z-0.125000
G01 X79.211979 Y204.136023 Z-0.125000
G01 X103.459841 Y201.054800 Z-0.125000
G01 X118.520427 Y207.160855 Z-0.125000
G01 X145.466213 Y201.381709 Z-0.125000
G01 X168.543230 Y199.471332 Z-0.125000
G00 Z3.000000

(End cutting path id: path80881)


(Start cutting path id: path80879)
(Change tool to Default tool)

G00 Z3.000000
G00 X16.054828 Y204.851585

G00 Z4.875000 (Fast pre-penetrate)
G01 Z-0.125000 F400.0(Penetrate)
G01 X41.974284 Y200.098769 Z-0.125000 F800.000000
G01 X59.077609 Y204.162084 Z-0.125000
G01 X79.168666 Y205.237667 Z-0.125000
G01 X103.431039 Y202.141935 Z-0.125000
G01 X118.565451 Y208.174163 Z-0.125000
G01 X145.152058 Y202.754196 Z-0.125000
G01 X168.616183 Y200.456710 Z-0.125000
G00 Z3.000000

(End cutting path id: path80879)


(Start cutting path id: path80877)
(Change tool to Default tool)

G00 Z3.000000
G00 X16.025362 Y205.939384

G00 Z4.875000 (Fast pre-penetrate)
G01 Z-0.125000 F400.0(Penetrate)
G01 X41.761671 Y201.369715 Z-0.125000 F800.000000
G01 X58.892298 Y205.405728 Z-0.125000
G01 X79.125352 Y206.339314 Z-0.125000
G01 X103.402233 Y203.229072 Z-0.125000
G01 X118.610472 Y209.187473 Z-0.125000
G01 X144.837902 Y204.126683 Z-0.125000
G01 X168.689136 Y201.442089 Z-0.125000
G00 Z3.000000

(End cutting path id: path80877)


(Start cutting path id: path80875)
(Change tool to Default tool)

G00 Z3.000000
G00 X15.995896 Y207.027182

G00 Z4.875000 (Fast pre-penetrate)
G01 Z-0.125000 F400.0(Penetrate)
G01 X41.549060 Y202.640658 Z-0.125000 F800.000000
G01 X58.706989 Y206.649368 Z-0.125000
G01 X79.082037 Y207.440961 Z-0.125000
G01 X103.373431 Y204.316207 Z-0.125000
G01 X118.655496 Y210.200781 Z-0.125000
G01 X144.523747 Y205.499170 Z-0.125000
G01 X168.762090 Y202.427468 Z-0.125000
G00 Z3.000000

(End cutting path id: path80875)


(Start cutting path id: path80873)
(Change tool to Default tool)

G00 Z3.000000
G00 X15.966430 Y208.114978

G00 Z4.875000 (Fast pre-penetrate)
G01 Z-0.125000 F400.0(Penetrate)
G01 X41.336449 Y203.911601 Z-0.125000 F800.000000
G01 X58.521681 Y207.893009 Z-0.125000
G01 X79.038722 Y208.542608 Z-0.125000
G01 X103.344628 Y205.403341 Z-0.125000
G01 X118.700518 Y211.214092 Z-0.125000
G01 X144.209589 Y206.871660 Z-0.125000
G01 X168.835041 Y203.412849 Z-0.125000
G00 Z3.000000

(End cutting path id: path80873)


(Start cutting path id: path80871)
(Change tool to Default tool)

G00 Z3.000000
G00 X15.936964 Y209.202777

G00 Z4.875000 (Fast pre-penetrate)
G01 Z-0.125000 F400.0(Penetrate)
G01 X41.123835 Y205.182547 Z-0.125000 F800.000000
G01 X58.336372 Y209.136649 Z-0.125000
G01 X78.995407 Y209.644255 Z-0.125000
G01 X103.315826 Y206.490476 Z-0.125000
G01 X118.745542 Y212.227400 Z-0.125000
G01 X143.895434 Y208.244148 Z-0.125000
G01 X168.907994 Y204.398227 Z-0.125000
G00 Z3.000000

(End cutting path id: path80871)


(Start cutting path id: path80869)
(Change tool to Default tool)

G00 Z3.000000
G00 X15.907498 Y210.290575

G00 Z4.875000 (Fast pre-penetrate)
G01 Z-0.125000 F400.0(Penetrate)
G01 X40.911224 Y206.453489 Z-0.125000 F800.000000
G01 X58.151061 Y210.380293 Z-0.125000
G01 X78.952092 Y210.745902 Z-0.125000
G01 X103.287023 Y207.577610 Z-0.125000
G01 X118.790563 Y213.240710 Z-0.125000
G01 X143.581279 Y209.616635 Z-0.125000
G01 X168.980948 Y205.383606 Z-0.125000
G00 Z3.000000

(End cutting path id: path80869)


(Start cutting path id: path80957)
(Change tool to Default tool)

G00 Z3.000000
G00 X18.108826 Y161.522639

G00 Z4.875000 (Fast pre-penetrate)
G01 Z-0.125000 F400.0(Penetrate)
G01 X35.600482 Y165.197623 Z-0.125000 F800.000000
G01 X65.700132 Y156.264613 Z-0.125000
G01 X82.316048 Y160.815338 Z-0.125000
G01 X99.966636 Y164.331389 Z-0.125000
G01 X125.072642 Y160.392023 Z-0.125000
G01 X142.544436 Y164.086869 Z-0.125000
G01 X168.639056 Y159.158889 Z-0.125000
G00 Z3.000000

(End cutting path id: path80957)


(Start cutting path id: path80959)
(Change tool to Default tool)

G00 Z3.000000
G00 X17.629226 Y160.943906

G00 Z4.875000 (Fast pre-penetrate)
G01 Z-0.125000 F400.0(Penetrate)
G01 X35.390660 Y164.349113 Z-0.125000 F800.000000
G01 X65.556765 Y155.349648 Z-0.125000
G01 X82.577263 Y159.495791 Z-0.125000
G01 X100.307591 Y162.932102 Z-0.125000
G01 X125.345684 Y159.060650 Z-0.125000
G01 X142.681704 Y162.891269 Z-0.125000
G01 X168.610984 Y158.128630 Z-0.125000
G00 Z3.000000

(End cutting path id: path80959)


(Start cutting path id: path80961)
(Change tool to Default tool)

G00 Z3.000000
G00 X17.149626 Y160.365176

G00 Z4.875000 (Fast pre-penetrate)
G01 Z-0.125000 F400.0(Penetrate)
G01 X35.180838 Y163.500604 Z-0.125000 F800.000000
G01 X65.413401 Y154.434680 Z-0.125000
G01 X82.838478 Y158.176244 Z-0.125000
G01 X100.648546 Y161.532815 Z-0.125000
G01 X125.618726 Y157.729276 Z-0.125000
G01 X142.818973 Y161.695669 Z-0.125000
G01 X168.582912 Y157.098370 Z-0.125000
G00 Z3.000000

(End cutting path id: path80961)


(Start cutting path id: path80963)
(Change tool to Default tool)

G00 Z3.000000
G00 X16.670026 Y159.786443

G00 Z4.875000 (Fast pre-penetrate)
G01 Z-0.125000 F400.0(Penetrate)
G01 X34.971013 Y162.652097 Z-0.125000 F800.000000
G01 X65.270034 Y153.519715 Z-0.125000
G01 X83.099690 Y156.856700 Z-0.125000
G01 X100.989501 Y160.133528 Z-0.125000
G01 X125.891765 Y156.397905 Z-0.125000
G01 X142.956238 Y160.500071 Z-0.125000
G01 X168.554839 Y156.068110 Z-0.125000
G00 Z3.000000

(End cutting path id: path80963)


(Start cutting path id: path80965)
(Change tool to Default tool)

G00 Z3.000000
G00 X16.190426 Y159.207710

G00 Z4.875000 (Fast pre-penetrate)
G01 Z-0.125000 F400.0(Penetrate)
G01 X34.761191 Y161.803587 Z-0.125000 F800.000000
G01 X65.126667 Y152.604750 Z-0.125000
G01 X83.360905 Y155.537153 Z-0.125000
G01 X101.330456 Y158.734242 Z-0.125000
G01 X126.164806 Y155.066531 Z-0.125000
G01 X143.093507 Y159.304471 Z-0.125000
G01 X168.526767 Y155.037850 Z-0.125000
G00 Z3.000000

(End cutting path id: path80965)


(Start cutting path id: path81009)
(Change tool to Default tool)

G00 Z3.000000
G00 X16.974248 Y135.140587

G00 Z4.875000 (Fast pre-penetrate)
G01 Z-0.125000 F400.0(Penetrate)
G01 X36.345977 Y136.935497 Z-0.125000 F800.000000
G01 X62.320325 Y132.127788 Z-0.125000
G01 X85.928688 Y129.686066 Z-0.125000
G01 X106.380925 Y130.400469 Z-0.125000
G01 X125.411068 Y132.536966 Z-0.125000
G01 X147.871569 Y131.243105 Z-0.125000
G01 X163.962274 Y136.319040 Z-0.125000
G00 Z3.000000

(End cutting path id: path81009)


(Start cutting path id: path81007)
(Change tool to Default tool)

G00 Z3.000000
G00 X16.320346 Y136.852820

G00 Z4.875000 (Fast pre-penetrate)
G01 Z-0.125000 F400.0(Penetrate)
G01 X35.935712 Y138.404094 Z-0.125000 F800.000000
G01 X62.428921 Y133.077525 Z-0.125000
G01 X85.985367 Y130.687719 Z-0.125000
G01 X106.285024 Y131.554701 Z-0.125000
G01 X125.814091 Y133.192274 Z-0.125000
G01 X147.558482 Y132.614523 Z-0.125000
G01 X164.385038 Y136.954608 Z-0.125000
G00 Z3.000000

(End cutting path id: path81007)


(Start cutting path id: path81005)
(Change tool to Default tool)

G00 Z3.000000
G00 X15.666444 Y138.565053

G00 Z4.875000 (Fast pre-penetrate)
G01 Z-0.125000 F400.0(Penetrate)
G01 X35.525444 Y139.872694 Z-0.125000 F800.000000
G01 X62.537513 Y134.027264 Z-0.125000
G01 X86.042043 Y131.689374 Z-0.125000
G01 X106.189123 Y132.708934 Z-0.125000
G01 X126.217114 Y133.847583 Z-0.125000
G01 X147.245399 Y133.985939 Z-0.125000
G01 X164.807799 Y137.590178 Z-0.125000
G00 Z3.000000

(End cutting path id: path81005)


(Start cutting path id: path81003)
(Change tool to Default tool)

G00 Z3.000000
G00 X15.012542 Y140.277289

G00 Z4.875000 (Fast pre-penetrate)
G01 Z-0.125000 F400.0(Penetrate)
G01 X35.115179 Y141.341291 Z-0.125000 F800.000000
G01 X62.646109 Y134.977001 Z-0.125000
G01 X86.098722 Y132.691027 Z-0.125000
G01 X106.093223 Y133.863167 Z-0.125000
G01 X126.620138 Y134.502892 Z-0.125000
G01 X146.932312 Y135.357357 Z-0.125000
G01 X165.230563 Y138.225746 Z-0.125000
G00 Z3.000000

(End cutting path id: path81003)


(Start cutting path id: path80967)
(Change tool to Default tool)

G00 Z3.000000
G00 X15.710826 Y158.628980

G00 Z4.875000 (Fast pre-penetrate)
G01 Z-0.125000 F400.0(Penetrate)
G01 X34.551368 Y160.955077 Z-0.125000 F800.000000
G01 X64.983300 Y151.689785 Z-0.125000
G01 X83.622117 Y154.217609 Z-0.125000
G01 X101.671411 Y157.334955 Z-0.125000
G01 X126.437848 Y153.735157 Z-0.125000
G01 X143.230775 Y158.108870 Z-0.125000
G01 X168.498695 Y154.007591 Z-0.125000
G00 Z3.000000

(End cutting path id: path80967)


(Start cutting path id: path80969)
(Change tool to Default tool)

G00 Z3.000000
G00 X15.231227 Y158.050247

G00 Z4.875000 (Fast pre-penetrate)
G01 Z-0.125000 F400.0(Penetrate)
G01 X34.341546 Y160.106567 Z-0.125000 F800.000000
G01 X64.839933 Y150.774820 Z-0.125000
G01 X83.883332 Y152.898062 Z-0.125000
G01 X102.012366 Y155.935668 Z-0.125000
G01 X126.710890 Y152.403784 Z-0.125000
G01 X143.368041 Y156.913273 Z-0.125000
G01 X168.470625 Y152.977328 Z-0.125000
G00 Z3.000000

(End cutting path id: path80969)


(Start cutting path id: path80971)
(Change tool to Default tool)

G00 Z3.000000
G00 X14.751627 Y157.471514

G00 Z4.875000 (Fast pre-penetrate)
G01 Z-0.125000 F400.0(Penetrate)
G01 X34.131724 Y159.258058 Z-0.125000 F800.000000
G01 X64.696569 Y149.859853 Z-0.125000
G01 X84.144547 Y151.578515 Z-0.125000
G01 X102.353321 Y154.536381 Z-0.125000
G01 X126.983932 Y151.072410 Z-0.125000
G01 X143.505309 Y155.717673 Z-0.125000
G01 X168.442553 Y151.947068 Z-0.125000
G00 Z3.000000

(End cutting path id: path80971)


(Start cutting path id: path80973)
(Change tool to Default tool)

G00 Z3.000000
G00 X14.272027 Y156.892784

G00 Z4.875000 (Fast pre-penetrate)
G01 Z-0.125000 F400.0(Penetrate)
G01 X33.921899 Y158.409551 Z-0.125000 F800.000000
G01 X64.553202 Y148.944887 Z-0.125000
G01 X84.405759 Y150.258971 Z-0.125000
G01 X102.694276 Y153.137094 Z-0.125000
G01 X127.256971 Y149.741039 Z-0.125000
G01 X143.642577 Y154.522072 Z-0.125000
G01 X168.414481 Y150.916809 Z-0.125000
G00 Z3.000000

(End cutting path id: path80973)


(Start cutting path id: path81001)
(Change tool to Default tool)

G00 Z3.000000
G00 X14.358640 Y141.989522

G00 Z4.875000 (Fast pre-penetrate)
G01 Z-0.125000 F400.0(Penetrate)
G01 X34.704914 Y142.809888 Z-0.125000 F800.000000
G01 X62.754704 Y135.926737 Z-0.125000
G01 X86.155401 Y133.692680 Z-0.125000
G01 X105.997319 Y135.017402 Z-0.125000
G01 X127.023161 Y135.158200 Z-0.125000
G01 X146.619226 Y136.728776 Z-0.125000
G01 X165.653327 Y138.861314 Z-0.125000
G00 Z3.000000

(End cutting path id: path81001)


(Start cutting path id: path80999)
(Change tool to Default tool)

G00 Z3.000000
G00 X13.704738 Y143.701755

G00 Z4.875000 (Fast pre-penetrate)
G01 Z-0.125000 F400.0(Penetrate)
G01 X34.294646 Y144.278487 Z-0.125000 F800.000000
G01 X62.863297 Y136.876476 Z-0.125000
G01 X86.212080 Y134.694333 Z-0.125000
G01 X105.901418 Y136.171635 Z-0.125000
G01 X127.426185 Y135.813509 Z-0.125000
G01 X146.306142 Y138.100191 Z-0.125000
G01 X166.076091 Y139.496883 Z-0.125000
G00 Z3.000000

(End cutting path id: path80999)


(Start cutting path id: path80997)
(Change tool to Default tool)

G00 Z3.000000
G00 X13.050837 Y145.413990

G00 Z4.875000 (Fast pre-penetrate)
G01 Z-0.125000 F400.0(Penetrate)
G01 X33.884381 Y145.747084 Z-0.125000 F800.000000
G01 X62.971893 Y137.826213 Z-0.125000
G01 X86.268757 Y135.695989 Z-0.125000
G01 X105.805518 Y137.325868 Z-0.125000
G01 X127.829208 Y136.468817 Z-0.125000
G01 X145.993056 Y139.471610 Z-0.125000
G01 X166.498852 Y140.132453 Z-0.125000
G00 Z3.000000

(End cutting path id: path80997)


(Start cutting path id: path80975)
(Change tool to Default tool)

G00 Z3.000000
G00 X13.792427 Y156.314051

G00 Z4.875000 (Fast pre-penetrate)
G01 Z-0.125000 F400.0(Penetrate)
G01 X33.712077 Y157.561041 Z-0.125000 F800.000000
G01 X64.409835 Y148.029922 Z-0.125000
G01 X84.666974 Y148.939424 Z-0.125000
G01 X103.035230 Y151.737807 Z-0.125000
G01 X127.530012 Y148.409665 Z-0.125000
G01 X143.779843 Y153.326475 Z-0.125000
G01 X168.386409 Y149.886549 Z-0.125000
G00 Z3.000000

(End cutting path id: path80975)


(Start cutting path id: path80977)
(Change tool to Default tool)

G00 Z3.000000
G00 X13.312828 Y155.735318

G00 Z4.875000 (Fast pre-penetrate)
G01 Z-0.125000 F400.0(Penetrate)
G01 X33.502254 Y156.712531 Z-0.125000 F800.000000
G01 X64.266468 Y147.114957 Z-0.125000
G01 X84.928186 Y147.619880 Z-0.125000
G01 X103.376185 Y150.338520 Z-0.125000
G01 X127.803054 Y147.078291 Z-0.125000
G01 X143.917111 Y152.130874 Z-0.125000
G01 X168.358336 Y148.856289 Z-0.125000
G00 Z3.000000

(End cutting path id: path80977)


(Start cutting path id: path80979)
(Change tool to Default tool)

G00 Z3.000000
G00 X12.833228 Y155.156585

G00 Z4.875000 (Fast pre-penetrate)
G01 Z-0.125000 F400.0(Penetrate)
G01 X33.292432 Y155.864021 Z-0.125000 F800.000000
G01 X64.123101 Y146.199992 Z-0.125000
G01 X85.189401 Y146.300333 Z-0.125000
G01 X103.717140 Y148.939233 Z-0.125000
G01 X128.076096 Y145.746918 Z-0.125000
G01 X144.054380 Y150.935274 Z-0.125000
G01 X168.330264 Y147.826029 Z-0.125000
G00 Z3.000000

(End cutting path id: path80979)


(Start cutting path id: path80995)
(Change tool to Default tool)

G00 Z3.000000
G00 X12.396934 Y147.126223

G00 Z4.875000 (Fast pre-penetrate)
G01 Z-0.125000 F400.0(Penetrate)
G01 X33.474116 Y147.215681 Z-0.125000 F800.000000
G01 X63.080488 Y138.775949 Z-0.125000
G01 X86.325435 Y136.697642 Z-0.125000
G01 X105.709617 Y138.480101 Z-0.125000
G01 X128.232231 Y137.124126 Z-0.125000
G01 X145.679972 Y140.843025 Z-0.125000
G01 X166.921616 Y140.768021 Z-0.125000
G00 Z3.000000

(End cutting path id: path80995)


(Start cutting path id: path80981)
(Change tool to Default tool)

G00 Z3.000000
G00 X12.353628 Y154.577854

G00 Z4.875000 (Fast pre-penetrate)
G01 Z-0.125000 F400.0(Penetrate)
G01 X33.082607 Y155.015514 Z-0.125000 F800.000000
G01 X63.979737 Y145.285025 Z-0.125000
G01 X85.450616 Y144.980786 Z-0.125000
G01 X104.058095 Y147.539946 Z-0.125000
G01 X128.349135 Y144.415547 Z-0.125000
G01 X144.191645 Y149.739676 Z-0.125000
G01 X168.302192 Y146.795770 Z-0.125000
G00 Z3.000000

(End cutting path id: path80981)


(Start cutting path id: path80993)
(Change tool to Default tool)

G00 Z3.000000
G00 X11.743033 Y148.838456

G00 Z4.875000 (Fast pre-penetrate)
G01 Z-0.125000 F400.0(Penetrate)
G01 X33.063848 Y148.684281 Z-0.125000 F800.000000
G01 X63.189081 Y139.725689 Z-0.125000
G01 X86.382114 Y137.699295 Z-0.125000
G01 X105.613716 Y139.634333 Z-0.125000
G01 X128.635255 Y137.779435 Z-0.125000
G01 X145.366886 Y142.214444 Z-0.125000
G01 X167.344380 Y141.403589 Z-0.125000
G00 Z3.000000

(End cutting path id: path80993)


(Start cutting path id: path80983)
(Change tool to Default tool)

G00 Z3.000000
G00 X11.874028 Y153.999121

G00 Z4.875000 (Fast pre-penetrate)
G01 Z-0.125000 F400.0(Penetrate)
G01 X32.872785 Y154.167004 Z-0.125000 F800.000000
G01 X63.836370 Y144.370060 Z-0.125000
G01 X85.711828 Y143.661242 Z-0.125000
G01 X104.399050 Y146.140660 Z-0.125000
G01 X128.622177 Y143.084173 Z-0.125000
G01 X144.328914 Y148.544076 Z-0.125000
G01 X168.274122 Y145.765507 Z-0.125000
G00 Z3.000000

(End cutting path id: path80983)


(Start cutting path id: path80985)
(Change tool to Default tool)

G00 Z3.000000
G00 X11.394428 Y153.420388

G00 Z4.875000 (Fast pre-penetrate)
G01 Z-0.125000 F400.0(Penetrate)
G01 X32.662963 Y153.318495 Z-0.125000 F800.000000
G01 X63.693003 Y143.455094 Z-0.125000
G01 X85.973043 Y142.341695 Z-0.125000
G01 X104.740005 Y144.741373 Z-0.125000
G01 X128.895218 Y141.752799 Z-0.125000
G01 X144.466182 Y147.348476 Z-0.125000
G01 X168.246050 Y144.735248 Z-0.125000
G00 Z3.000000

(End cutting path id: path80985)


(Start cutting path id: path80991)
(Change tool to Default tool)

G00 Z3.000000
G00 X11.089131 Y150.550692

G00 Z4.875000 (Fast pre-penetrate)
G01 Z-0.125000 F400.0(Penetrate)
G01 X32.653583 Y150.152878 Z-0.125000 F800.000000
G01 X63.297676 Y140.675425 Z-0.125000
G01 X86.438791 Y138.700951 Z-0.125000
G01 X105.517815 Y140.788566 Z-0.125000
G01 X129.038278 Y138.434743 Z-0.125000
G01 X145.053802 Y143.585859 Z-0.125000
G01 X167.767141 Y142.039160 Z-0.125000
G00 Z3.000000

(End cutting path id: path80991)


(Start cutting path id: path80987)
(Change tool to Default tool)

G00 Z3.000000
G00 X10.914829 Y152.841658

G00 Z4.875000 (Fast pre-penetrate)
G01 Z-0.125000 F400.0(Penetrate)
G01 X32.453141 Y152.469985 Z-0.125000 F800.000000
G01 X63.549636 Y142.540129 Z-0.125000
G01 X86.234255 Y141.022151 Z-0.125000
G01 X105.080960 Y143.342086 Z-0.125000
G01 X129.168260 Y140.421426 Z-0.125000
G01 X144.603447 Y146.152878 Z-0.125000
G01 X168.217978 Y143.704988 Z-0.125000
G00 Z3.000000

(End cutting path id: path80987)


(Start cutting path id: path80989)
(Change tool to Default tool)

G00 Z3.000000
G00 X10.435229 Y152.262925

G00 Z4.875000 (Fast pre-penetrate)
G01 Z-0.125000 F400.0(Penetrate)
G01 X32.243316 Y151.621478 Z-0.125000 F800.000000
G01 X63.406272 Y141.625162 Z-0.125000
G01 X86.495470 Y139.702604 Z-0.125000
G01 X105.421915 Y141.942799 Z-0.125000
G01 X129.441299 Y139.090054 Z-0.125000
G01 X144.740716 Y144.957278 Z-0.125000
G01 X168.189905 Y142.674728 Z-0.125000
G00 Z3.000000

(End cutting path id: path80989)



(Footer)
M5
G00 X0.0000 Y0.0000
M2
(Using default footer. To add your own footer create file "footer" in the output dir.)
(end)
%