%
(Header)
(Generated by gcodetools from Inkscape.)
(Using default header. To add your own header create file "header" in the output dir.)
M3
(Header end.)
G21 (All units in mm)

(Start cutting path id: polyline198)
(Change tool to Default tool)

G00 Z5.000000
G00 X105.137400 Y129.492620

G00 Z4.875000 (Fast pre-penetrate)
G01 Z-0.125000 F100.0(Penetrate)
G01 X105.396180 Y129.658210 Z-0.125000 F800.000000
G01 X104.491680 Y129.574410 Z-0.125000
G01 X104.087780 Y129.100510 Z-0.125000
G01 X104.677960 Y128.842530 Z-0.125000
G01 X105.734710 Y129.015760 Z-0.125000
G01 X106.771880 Y129.565270 Z-0.125000
G01 X107.111410 Y130.116990 Z-0.125000
G01 X106.043410 Y130.393960 Z-0.125000
G01 X103.826170 Y130.062460 Z-0.125000
G01 X102.678840 Y129.482820 Z-0.125000
G01 X102.410410 Y128.715900 Z-0.125000
G01 X103.530030 Y127.944550 Z-0.125000
G01 X105.584380 Y128.120390 Z-0.125000
G01 X107.888480 Y129.285090 Z-0.125000
G01 X108.924340 Y130.649240 Z-0.125000
G01 X108.443610 Y130.930720 Z-0.125000
G01 X107.116630 Y130.968720 Z-0.125000
G01 X102.693300 Y130.411570 Z-0.125000
G01 X101.129920 Y129.612310 Z-0.125000
G01 X100.805560 Y128.409950 Z-0.125000
G01 X101.370330 Y127.520900 Z-0.125000
G01 X102.448570 Y126.959740 Z-0.125000
G01 X103.847770 Y126.821960 Z-0.125000
G01 X105.474820 Y127.103850 Z-0.125000
G01 X108.846210 Y128.861050 Z-0.125000
G01 X110.262370 Y130.247080 Z-0.125000
G01 X110.729640 Y131.253220 Z-0.125000
G01 X110.210860 Y131.501970 Z-0.125000
G01 X108.311560 Y131.455570 Z-0.125000
G01 X101.271320 Y130.719770 Z-0.125000
G01 X99.597471 Y129.812150 Z-0.125000
G01 X99.296002 Y128.263230 Z-0.125000
G01 X100.030690 Y126.831100 Z-0.125000
G01 X101.374750 Y125.912930 Z-0.125000
G01 X103.180150 Y125.615980 Z-0.125000
G01 X105.354610 Y125.943460 Z-0.125000
G01 X107.665940 Y126.883020 Z-0.125000
G01 X109.736760 Y128.290750 Z-0.125000
G01 X111.607840 Y130.261740 Z-0.125000
G01 X112.490850 Y131.946540 Z-0.125000
G01 X111.758770 Y132.702520 Z-0.125000
G01 X110.631630 Y133.141370 Z-0.125000
G01 X107.453650 Y133.017450 Z-0.125000
G01 X103.259990 Y131.421330 Z-0.125000
G01 X98.968222 Y130.806440 Z-0.125000
G01 X98.026457 Y129.991410 Z-0.125000
G01 X97.836758 Y128.695150 Z-0.125000
G01 X98.686335 Y126.362930 Z-0.125000
G01 X100.301030 Y124.835200 Z-0.125000
G01 X102.559040 Y124.296930 Z-0.125000
G01 X105.394180 Y124.684560 Z-0.125000
G01 X108.440900 Y125.975900 Z-0.125000
G01 X111.057120 Y127.965280 Z-0.125000
G01 X113.449890 Y131.130800 Z-0.125000
G01 X114.178960 Y132.578400 Z-0.125000
G01 X114.070200 Y133.237670 Z-0.125000
G01 X112.986240 Y134.374560 Z-0.125000
G01 X111.106330 Y134.991660 Z-0.125000
G01 X108.853340 Y134.984660 Z-0.125000
G01 X106.193440 Y134.359930 Z-0.125000
G01 X100.540640 Y131.666890 Z-0.125000
G01 X99.352439 Y131.612790 Z-0.125000
G01 X97.658206 Y130.822970 Z-0.125000
G01 X96.823994 Y129.632250 Z-0.125000
G01 X96.889774 Y127.568160 Z-0.125000
G01 X98.334055 Y124.674680 Z-0.125000
G01 X100.229830 Y123.228090 Z-0.125000
G01 X103.134360 Y122.877920 Z-0.125000
G01 X106.762540 Y123.709520 Z-0.125000
G01 X110.097180 Y125.459180 Z-0.125000
G01 X112.733070 Y127.910910 Z-0.125000
G01 X114.110470 Y129.985940 Z-0.125000
G01 X115.629070 Y133.234620 Z-0.125000
G01 X115.553670 Y134.533690 Z-0.125000
G01 X114.720560 Y135.551980 Z-0.125000
G01 X113.361240 Y136.354560 Z-0.125000
G01 X111.689200 Y136.800630 Z-0.125000
G01 X109.856480 Y136.862330 Z-0.125000
G01 X105.738040 Y135.929100 Z-0.125000
G01 X100.584550 Y133.548080 Z-0.125000
G01 X98.240782 Y131.445130 Z-0.125000
G01 X96.429757 Y130.621760 Z-0.125000
G01 X95.840376 Y129.658400 Z-0.125000
G01 X96.691660 Y125.513950 Z-0.125000
G01 X98.456189 Y122.570360 Z-0.125000
G01 X100.625920 Y121.451050 Z-0.125000
G01 X103.762120 Y121.401450 Z-0.125000
G01 X107.583110 Y122.417130 Z-0.125000
G01 X111.057640 Y124.283780 Z-0.125000
G01 X113.352200 Y126.350390 Z-0.125000
G01 X114.999840 Y128.787650 Z-0.125000
G01 X117.124780 Y134.422670 Z-0.125000
G01 X116.931070 Y135.696130 Z-0.125000
G01 X115.946020 Y136.903320 Z-0.125000
G01 X114.396700 Y137.923610 Z-0.125000
G01 X112.666010 Y138.518110 Z-0.125000
G01 X110.742510 Y138.716350 Z-0.125000
G01 X106.626790 Y137.982660 Z-0.125000
G01 X101.338020 Y135.699850 Z-0.125000
G01 X96.297601 Y131.108420 Z-0.125000
G01 X95.229202 Y130.516730 Z-0.125000
G01 X94.775291 Y129.723090 Z-0.125000
G01 X94.900619 Y128.616230 Z-0.125000
G01 X96.208927 Y125.559360 Z-0.125000
G01 X96.886480 Y123.056420 Z-0.125000
G01 X97.709646 Y121.482290 Z-0.125000
G01 X98.673604 Y120.487100 Z-0.125000
G01 X99.868234 Y119.905350 Z-0.125000
G01 X101.368050 Y119.639530 Z-0.125000
G01 X105.318180 Y120.007680 Z-0.125000
G01 X109.570280 Y121.456680 Z-0.125000
G01 X113.064090 Y123.646900 Z-0.125000
G01 X116.186730 Y126.976020 Z-0.125000
G01 X117.799530 Y129.806940 Z-0.125000
G01 X118.439820 Y132.698210 Z-0.125000
G01 X118.508620 Y135.785710 Z-0.125000
G01 X118.189580 Y136.730090 Z-0.125000
G01 X116.335670 Y138.747580 Z-0.125000
G01 X113.731210 Y140.120660 Z-0.125000
G01 X110.944570 Y140.563830 Z-0.125000
G01 X107.926370 Y140.154100 Z-0.125000
G01 X101.834120 Y137.652370 Z-0.125000
G01 X94.034884 Y130.514720 Z-0.125000
G01 X93.627770 Y129.750300 Z-0.125000
G01 X93.802405 Y128.657200 Z-0.125000
G01 X96.150190 Y124.381400 Z-0.125000
G01 X97.332869 Y120.168160 Z-0.125000
G01 X98.562145 Y118.651670 Z-0.125000
G01 X99.840627 Y118.144040 Z-0.125000
G01 X101.622730 Y117.906030 Z-0.125000
G01 X105.793590 Y118.288340 Z-0.125000
G01 X110.489560 Y119.832240 Z-0.125000
G01 X114.329830 Y122.136540 Z-0.125000
G01 X117.591260 Y125.313520 Z-0.125000
G01 X119.611460 Y128.586000 Z-0.125000
G01 X120.524410 Y132.319720 Z-0.125000
G01 X120.192910 Y135.954920 Z-0.125000
G01 X118.959220 Y138.168440 Z-0.125000
G01 X117.211560 Y140.001060 Z-0.125000
G01 X114.995030 Y141.460900 Z-0.125000
G01 X112.636200 Y142.264190 Z-0.125000
G01 X110.420370 Y142.412210 Z-0.125000
G01 X108.066860 Y142.029300 Z-0.125000
G01 X105.390790 Y141.085020 Z-0.125000
G01 X102.092100 Y139.454050 Z-0.125000
G01 X92.760318 Y130.554690 Z-0.125000
G01 X92.437358 Y129.897620 Z-0.125000
G01 X92.940175 Y128.057570 Z-0.125000
G01 X96.341094 Y122.865710 Z-0.125000
G01 X97.346326 Y118.259920 Z-0.125000
G01 X98.610046 Y117.008660 Z-0.125000
G01 X100.075710 Y116.538270 Z-0.125000
G01 X101.916160 Y116.413050 Z-0.125000
G01 X109.157850 Y117.196140 Z-0.125000
G01 X112.175560 Y118.344780 Z-0.125000
G01 X114.727200 Y119.726900 Z-0.125000
G01 X118.912620 Y123.701230 Z-0.125000
G01 X121.273660 Y127.275480 Z-0.125000
G01 X122.422600 Y131.503380 Z-0.125000
G01 X122.476900 Y133.954000 Z-0.125000
G01 X122.155750 Y135.799370 Z-0.125000
G01 X121.210870 Y137.423810 Z-0.125000
G01 X117.813160 Y141.249510 Z-0.125000
G01 X115.472610 Y142.976890 Z-0.125000
G01 X113.066580 Y143.999190 Z-0.125000
G01 X110.769610 Y144.302670 Z-0.125000
G01 X108.243770 Y143.959520 Z-0.125000
G01 X105.492590 Y142.953190 Z-0.125000
G01 X102.189480 Y141.196390 Z-0.125000
G01 X99.312876 Y138.038700 Z-0.125000
G01 X91.867429 Y131.072170 Z-0.125000
G01 X91.210262 Y130.109410 Z-0.125000
G01 X91.356377 Y128.962480 Z-0.125000
G01 X92.013343 Y127.594930 Z-0.125000
G01 X95.219241 Y123.715390 Z-0.125000
G01 X96.374103 Y121.872330 Z-0.125000
G01 X96.941492 Y120.451950 Z-0.125000
G01 X97.020722 Y116.901000 Z-0.125000
G01 X97.591425 Y115.995990 Z-0.125000
G01 X98.573660 Y115.328280 Z-0.125000
G01 X100.421740 Y114.857400 Z-0.125000
G01 X102.700430 Y114.875300 Z-0.125000
G01 X114.488770 Y116.919310 Z-0.125000
G01 X120.502890 Y122.577830 Z-0.125000
G01 X122.187580 Y124.841860 Z-0.125000
G01 X123.336320 Y127.150480 Z-0.125000
G01 X124.056650 Y129.805960 Z-0.125000
G01 X124.292940 Y132.845660 Z-0.125000
G01 X124.137190 Y134.940780 Z-0.125000
G01 X123.287910 Y136.942710 Z-0.125000
G01 X116.660510 Y143.785420 Z-0.125000
G01 X114.009950 Y145.419100 Z-0.125000
G01 X111.468850 Y146.139230 Z-0.125000
G01 X109.481690 Y146.133230 Z-0.125000
G01 X107.318980 Y145.616750 Z-0.125000
G01 X102.174220 Y142.927330 Z-0.125000
G01 X99.053681 Y139.104730 Z-0.125000
G01 X89.978573 Y130.522500 Z-0.125000
G01 X90.207336 Y128.879480 Z-0.125000
G01 X91.164667 Y126.941830 Z-0.125000
G01 X96.214026 Y121.220840 Z-0.125000
G01 X96.994411 Y114.675080 Z-0.125000
G01 X97.845093 Y113.926330 Z-0.125000
G01 X99.082503 Y113.405430 Z-0.125000
G01 X102.465750 Y113.179880 Z-0.125000
G01 X105.251170 Y113.693650 Z-0.125000
G01 X111.811590 Y115.600380 Z-0.125000
G01 X117.153990 Y116.605410 Z-0.125000
G01 X122.887120 Y122.626760 Z-0.125000
G01 X124.264720 Y124.737340 Z-0.125000
G01 X125.216130 Y127.002380 Z-0.125000
G01 X125.830520 Y130.042280 Z-0.125000
G01 X125.889520 Y133.587910 Z-0.125000
G01 X125.595380 Y135.283850 Z-0.125000
G01 X124.577190 Y137.333780 Z-0.125000
G01 X115.996160 Y145.729830 Z-0.125000
G01 X113.481070 Y147.309480 Z-0.125000
G01 X110.965480 Y148.053310 Z-0.125000
G01 X108.970180 Y148.028910 Z-0.125000
G01 X106.932600 Y147.482610 Z-0.125000
G01 X101.932150 Y144.549260 Z-0.125000
G01 X100.717440 Y142.426820 Z-0.125000
G01 X98.843748 Y140.178050 Z-0.125000
G01 X91.081869 Y133.072940 Z-0.125000
G01 X88.728460 Y130.576330 Z-0.125000
G01 X89.282694 Y128.206050 Z-0.125000
G01 X90.362942 Y126.091240 Z-0.125000
G01 X95.062930 Y121.621630 Z-0.125000
G01 X95.579806 Y117.438410 Z-0.125000
G01 X97.021174 Y112.557560 Z-0.125000
G01 X98.326369 Y111.872080 Z-0.125000
G01 X99.935745 Y111.489970 Z-0.125000
G01 X103.790170 Y111.621520 Z-0.125000
G01 X116.567670 Y115.999460 Z-0.125000
G01 X119.394270 Y116.579500 Z-0.125000
G01 X124.796010 Y122.338750 Z-0.125000
G01 X126.097590 Y124.521440 Z-0.125000
G01 X126.944860 Y126.928270 Z-0.125000
G01 X127.414440 Y130.407620 Z-0.125000
G01 X127.266310 Y134.380240 Z-0.125000
G01 X125.624900 Y137.838600 Z-0.125000
G01 X123.971540 Y139.639380 Z-0.125000
G01 X119.955130 Y142.817970 Z-0.125000
G01 X115.101400 Y147.707550 Z-0.125000
G01 X112.590830 Y149.300960 Z-0.125000
G01 X110.273270 Y149.989360 Z-0.125000
G01 X108.299660 Y149.941460 Z-0.125000
G01 X106.302150 Y149.324060 Z-0.125000
G01 X104.140650 Y148.110950 Z-0.125000
G01 X101.521120 Y146.121980 Z-0.125000
G01 X100.575640 Y143.765260 Z-0.125000
G01 X98.776063 Y141.364250 Z-0.125000
G01 X89.989871 Y133.408050 Z-0.125000
G01 X87.588862 Y130.725150 Z-0.125000
G01 X88.349364 Y127.490230 Z-0.125000
G01 X89.333909 Y125.353740 Z-0.125000
G01 X90.640812 Y123.912170 Z-0.125000
G01 X93.595552 Y121.712810 Z-0.125000
G01 X94.494336 Y116.579200 Z-0.125000
G01 X97.092977 Y110.581550 Z-0.125000
G01 X98.681464 Y109.976900 Z-0.125000
G01 X100.770060 Y109.665990 Z-0.125000
G01 X105.003980 Y110.069290 Z-0.125000
G01 X108.201550 Y111.217920 Z-0.125000
G01 X117.345950 Y115.687240 Z-0.125000
G01 X121.285730 Y116.580500 Z-0.125000
G01 X126.441040 Y121.917470 Z-0.125000
G01 X127.690100 Y124.135210 Z-0.125000
G01 X128.456320 Y126.651100 Z-0.125000
G01 X128.791430 Y130.084560 Z-0.125000
G01 X128.564180 Y134.108900 Z-0.125000
G01 X127.628040 Y136.518440 Z-0.125000
G01 X126.473570 Y138.434310 Z-0.125000
G01 X124.547470 Y140.401090 Z-0.125000
G01 X119.537570 Y143.962180 Z-0.125000
G01 X113.885580 Y149.801170 Z-0.125000
G01 X111.702590 Y151.224760 Z-0.125000
G01 X109.518690 Y151.931740 Z-0.125000
G01 X107.723630 Y151.919540 Z-0.125000
G01 X105.925060 Y151.370530 Z-0.125000
G01 X103.979770 Y150.234540 Z-0.125000
G01 X101.727490 Y148.383350 Z-0.125000
G01 X100.845370 Y147.505150 Z-0.125000
G01 X100.768370 Y146.190420 Z-0.125000
G01 X100.213840 Y144.692210 Z-0.125000
G01 X98.560174 Y142.344620 Z-0.125000
G01 X95.927188 Y139.741060 Z-0.125000
G01 X88.948306 Y133.822440 Z-0.125000
G01 X86.568888 Y130.998860 Z-0.125000
G01 X87.925299 Y124.973990 Z-0.125000
G01 X89.155177 Y123.348650 Z-0.125000
G01 X91.751207 Y121.627800 Z-0.125000
G01 X92.207628 Y118.617230 Z-0.125000
G01 X93.271307 Y115.478610 Z-0.125000
G01 X94.944752 Y112.190470 Z-0.125000
G01 X97.264920 Y108.642630 Z-0.125000
G01 X99.284122 Y108.104870 Z-0.125000
G01 X101.772300 Y107.888360 Z-0.125000
G01 X106.301670 Y108.538900 Z-0.125000
G01 X109.699470 Y110.076170 Z-0.125000
G01 X117.952720 Y115.339830 Z-0.125000
G01 X120.386570 Y116.226460 Z-0.125000
G01 X122.830160 Y116.579550 Z-0.125000
G01 X126.201950 Y119.517520 Z-0.125000
G01 X127.813440 Y121.325830 Z-0.125000
G01 X129.043310 Y123.521880 Z-0.125000
G01 X129.763750 Y126.089190 Z-0.125000
G01 X130.018520 Y129.529770 Z-0.125000
G01 X129.684610 Y133.874460 Z-0.125000
G01 X128.517000 Y136.872790 Z-0.125000
G01 X127.207790 Y139.056380 Z-0.125000
G01 X125.038650 Y141.177210 Z-0.125000
G01 X118.887860 Y145.070600 Z-0.125000
G01 X112.493340 Y151.903770 Z-0.125000
G01 X110.590420 Y153.185970 Z-0.125000
G01 X109.342070 Y153.566370 Z-0.125000
G01 X107.669930 Y153.591170 Z-0.125000
G01 X105.956210 Y153.195910 Z-0.125000
G01 X102.259450 Y151.258650 Z-0.125000
G01 X100.103370 Y149.011490 Z-0.125000
G01 X100.379330 Y147.744660 Z-0.125000
G01 X100.199680 Y146.400300 Z-0.125000
G01 X98.484355 Y143.438930 Z-0.125000
G01 X95.577717 Y140.547360 Z-0.125000
G01 X87.839638 Y134.219520 Z-0.125000
G01 X86.454908 Y132.713170 Z-0.125000
G01 X85.645902 Y131.321520 Z-0.125000
G01 X86.228053 Y125.707480 Z-0.125000
G01 X86.685680 Y123.859400 Z-0.125000
G01 X87.667815 Y122.508010 Z-0.125000
G01 X89.674162 Y121.293390 Z-0.125000
G01 X90.111704 Y118.685510 Z-0.125000
G01 X91.059896 Y116.047310 Z-0.125000
G01 X92.584515 Y113.167580 Z-0.125000
G01 X94.573489 Y110.264760 Z-0.125000
G01 X97.453514 Y106.852900 Z-0.125000
G01 X97.892262 Y106.672940 Z-0.125000
G01 X103.280250 Y106.164000 Z-0.125000
G01 X105.654440 Y106.447690 Z-0.125000
G01 X107.932530 Y107.128560 Z-0.125000
G01 X111.143150 Y108.993710 Z-0.125000
G01 X118.218240 Y114.816530 Z-0.125000
G01 X121.116840 Y116.094000 Z-0.125000
G01 X124.144090 Y116.580250 Z-0.125000
G01 X126.834310 Y118.568420 Z-0.125000
G01 X129.579070 Y121.523760 Z-0.125000
G01 X130.874420 Y125.166700 Z-0.125000
G01 X131.102890 Y128.888970 Z-0.125000
G01 X130.659120 Y133.525590 Z-0.125000
G01 X128.910550 Y138.007670 Z-0.125000
G01 X126.880610 Y140.852340 Z-0.125000
G01 X124.956610 Y142.309880 Z-0.125000
G01 X120.340670 Y144.594800 Z-0.125000
G01 X118.162910 Y146.029140 Z-0.125000
G01 X116.487350 Y147.660910 Z-0.125000
G01 X112.933090 Y152.186860 Z-0.125000
G01 X110.976950 Y153.720920 Z-0.125000
G01 X109.446810 Y154.185780 Z-0.125000
G01 X107.730080 Y154.124580 Z-0.125000
G01 X105.796640 Y153.532290 Z-0.125000
G01 X103.468940 Y152.316670 Z-0.125000
G01 X100.176780 Y149.963860 Z-0.125000
G01 X99.662013 Y146.577410 Z-0.125000
G01 X97.688303 Y143.640040 Z-0.125000
G01 X94.644287 Y140.834630 Z-0.125000
G01 X86.740611 Y134.685740 Z-0.125000
G01 X85.364417 Y133.139330 Z-0.125000
G01 X84.812594 Y131.764040 Z-0.125000
G01 X84.915929 Y124.154100 Z-0.125000
G01 X85.300749 Y122.355430 Z-0.125000
G01 X86.022488 Y121.489280 Z-0.125000
G01 X87.317540 Y120.772560 Z-0.125000
G01 X88.401905 Y116.809980 Z-0.125000
G01 X91.104484 Y112.216640 Z-0.125000
G01 X94.201021 Y108.478700 Z-0.125000
G01 X97.884228 Y105.005080 Z-0.125000
G01 X101.447030 Y104.493620 Z-0.125000
G01 X104.660560 Y104.469320 Z-0.125000
G01 X107.330200 Y104.894910 Z-0.125000
G01 X109.713730 Y105.839890 Z-0.125000
G01 X112.253630 Y107.759170 Z-0.125000
G01 X116.567890 Y112.604470 Z-0.125000
G01 X118.702780 Y114.396120 Z-0.125000
G01 X121.870620 Y115.974160 Z-0.125000
G01 X125.222030 Y116.580510 Z-0.125000
G01 X128.862550 Y118.885620 Z-0.125000
G01 X130.710330 Y120.974110 Z-0.125000
G01 X131.743380 Y123.669860 Z-0.125000
G01 X132.061020 Y127.716900 Z-0.125000
G01 X131.499350 Y133.054070 Z-0.125000
G01 X129.722470 Y138.158060 Z-0.125000
G01 X127.728380 Y141.343370 Z-0.125000
G01 X125.489750 Y143.068530 Z-0.125000
G01 X119.719860 Y145.462310 Z-0.125000
G01 X117.016780 Y147.129730 Z-0.125000
G01 X115.590170 Y148.433620 Z-0.125000
G01 X113.032200 Y152.801510 Z-0.125000
G01 X111.139940 Y154.454570 Z-0.125000
G01 X109.726990 Y154.897840 Z-0.125000
G01 X108.251880 Y154.850640 Z-0.125000
G01 X106.444770 Y154.303630 Z-0.125000
G01 X104.409100 Y153.249600 Z-0.125000
G01 X100.836560 Y150.678470 Z-0.125000
G01 X98.911654 Y146.339600 Z-0.125000
G01 X96.917859 Y143.873020 Z-0.125000
G01 X93.772617 Y141.180780 Z-0.125000
G01 X85.736483 Y135.302030 Z-0.125000
G01 X83.306754 Y132.763950 Z-0.125000
G01 X82.855554 Y131.603860 Z-0.125000
G01 X82.706326 Y126.927680 Z-0.125000
G01 X83.386891 Y121.225070 Z-0.125000
G01 X83.829957 Y120.569410 Z-0.125000
G01 X84.691785 Y120.047710 Z-0.125000
G01 X85.142382 Y118.211780 Z-0.125000
G01 X86.136166 Y116.044860 Z-0.125000
G01 X88.457439 Y112.553660 Z-0.125000
G01 X91.454959 Y109.081040 Z-0.125000
G01 X94.945455 Y105.834670 Z-0.125000
G01 X98.344265 Y103.329520 Z-0.125000
G01 X102.251210 Y102.803110 Z-0.125000
G01 X105.616880 Y102.747710 Z-0.125000
G01 X108.296060 Y103.139260 Z-0.125000
G01 X110.456660 Y103.989440 Z-0.125000
G01 X112.760460 Y105.928810 Z-0.125000
G01 X116.356700 Y111.184630 Z-0.125000
G01 X118.508960 Y113.406690 Z-0.125000
G01 X122.076980 Y115.629250 Z-0.125000
G01 X126.188900 Y116.618910 Z-0.125000
G01 X129.659110 Y118.304110 Z-0.125000
G01 X131.483690 Y120.067940 Z-0.125000
G01 X132.559120 Y122.609030 Z-0.125000
G01 X132.873340 Y126.863750 Z-0.125000
G01 X132.208240 Y132.441030 Z-0.125000
G01 X130.314260 Y138.637120 Z-0.125000
G01 X128.306410 Y142.174510 Z-0.125000
G01 X125.846660 Y143.983320 Z-0.125000
G01 X119.718050 Y145.961950 Z-0.125000
G01 X116.913650 Y147.337650 Z-0.125000
G01 X115.187880 Y149.726800 Z-0.125000
G01 X112.992640 Y153.711280 Z-0.125000
G01 X111.152690 Y155.385030 Z-0.125000
G01 X109.839160 Y155.744940 Z-0.125000
G01 X108.461260 Y155.642410 Z-0.125000
G01 X104.984620 Y154.107450 Z-0.125000
G01 X101.366890 Y151.430280 Z-0.125000
G01 X97.632769 Y145.618910 Z-0.125000
G01 X95.874768 Y143.868440 Z-0.125000
G01 X92.227914 Y141.055300 Z-0.125000
G01 X82.619862 Y134.617790 Z-0.125000
G01 X80.699577 Y132.602910 Z-0.125000
G01 X80.571538 Y128.938780 Z-0.125000
G01 X80.923018 Y124.964050 Z-0.125000
G01 X81.834455 Y118.980460 Z-0.125000
G01 X82.910586 Y116.464360 Z-0.125000
G01 X85.793323 Y112.513330 Z-0.125000
G01 X89.976836 Y108.144330 Z-0.125000
G01 X94.274631 Y104.590070 Z-0.125000
G01 X98.703377 Y101.768890 Z-0.125000
G01 X102.921440 Y101.166660 Z-0.125000
G01 X106.428600 Y101.018430 Z-0.125000
G01 X109.292760 Y101.349730 Z-0.125000
G01 X111.333450 Y102.136340 Z-0.125000
G01 X113.266890 Y103.949870 Z-0.125000
G01 X116.206770 Y109.628080 Z-0.125000
G01 X118.921000 Y112.769210 Z-0.125000
G01 X121.108810 Y114.471670 Z-0.125000
G01 X123.321420 Y115.698540 Z-0.125000
G01 X128.622840 Y117.084270 Z-0.125000
G01 X130.784040 Y118.014690 Z-0.125000
G01 X132.430980 Y119.624470 Z-0.125000
G01 X133.384190 Y121.980290 Z-0.125000
G01 X133.549180 Y126.118910 Z-0.125000
G01 X132.708340 Y132.010320 Z-0.125000
G01 X130.781630 Y139.372110 Z-0.125000
G01 X129.825000 Y141.662450 Z-0.125000
G01 X128.827000 Y143.187470 Z-0.125000
G01 X127.662400 Y144.240210 Z-0.125000
G01 X126.157770 Y144.974600 Z-0.125000
G01 X118.537480 Y146.858030 Z-0.125000
G01 X115.428390 Y150.189150 Z-0.125000
G01 X112.917920 Y154.809810 Z-0.125000
G01 X111.323410 Y156.351900 Z-0.125000
G01 X110.135410 Y156.691930 Z-0.125000
G01 X108.885950 Y156.601430 Z-0.125000
G01 X105.519670 Y155.086250 Z-0.125000
G01 X100.094130 Y150.886570 Z-0.125000
G01 X95.197818 Y144.209960 Z-0.125000
G01 X89.562291 Y140.290860 Z-0.125000
G01 X81.536802 Y135.666290 Z-0.125000
G01 X78.635487 Y133.011810 Z-0.125000
G01 X78.774372 Y127.586270 Z-0.125000
G01 X80.239942 Y118.789830 Z-0.125000
G01 X79.900513 Y115.866020 Z-0.125000
G01 X83.911902 Y111.366880 Z-0.125000
G01 X89.409548 Y106.398660 Z-0.125000
G01 X94.133235 Y102.999450 Z-0.125000
G01 X99.173757 Y100.280910 Z-0.125000
G01 X107.505740 Y99.295660 Z-0.125000
G01 X110.145350 Y99.491080 Z-0.125000
G01 X112.096560 Y100.141620 Z-0.125000
G01 X113.163960 Y100.967000 Z-0.125000
G01 X113.924160 Y102.071750 Z-0.125000
G01 X115.374670 Y106.410410 Z-0.125000
G01 X116.526820 Y108.634080 Z-0.125000
G01 X118.212410 Y110.826510 Z-0.125000
G01 X120.340770 Y112.920220 Z-0.125000
G01 X123.017440 Y114.948860 Z-0.125000
G01 X125.339920 Y116.126220 Z-0.125000
G01 X132.199900 Y117.224340 Z-0.125000
G01 X133.325940 Y118.066790 Z-0.125000
G01 X134.057120 Y119.387250 Z-0.125000
G01 X134.481310 Y122.668660 Z-0.125000
G01 X134.001090 Y127.185580 Z-0.125000
G01 X131.168560 Y140.362660 Z-0.125000
G01 X129.789350 Y143.774930 Z-0.125000
G01 X128.618730 Y145.080120 Z-0.125000
G01 X127.155160 Y145.818430 Z-0.125000
G01 X120.504060 Y146.744430 Z-0.125000
G01 X117.221140 Y149.394590 Z-0.125000
G01 X115.238890 Y151.437390 Z-0.125000
G01 X112.179210 Y156.907220 Z-0.125000
G01 X111.044330 Y157.629760 Z-0.125000
G01 X109.653980 Y157.744740 Z-0.125000
G01 X106.532440 Y156.508640 Z-0.125000
G01 X102.319600 Y153.350940 Z-0.125000
G01 X99.542309 Y151.759140 Z-0.125000
G01 X97.011453 Y149.012380 Z-0.125000
G01 X92.885583 Y143.363490 Z-0.125000
G01 X85.785590 Y139.068310 Z-0.125000
G01 X81.035692 Y136.899880 Z-0.125000
G01 X78.727876 Y135.207560 Z-0.125000
G01 X76.717311 Y133.242880 Z-0.125000
G01 X77.013056 Y127.925400 Z-0.125000
G01 X78.853505 Y118.383220 Z-0.125000
G01 X78.222749 Y115.340510 Z-0.125000
G01 X78.667321 Y113.178210 Z-0.125000
G01 X88.236107 Y105.226230 Z-0.125000
G01 X91.994933 Y102.663540 Z-0.125000
G01 X95.619895 Y100.641330 Z-0.125000
G01 X99.771674 Y98.860230 Z-0.125000
G01 X105.752250 Y97.801270 Z-0.125000
G01 X110.030670 Y97.628140 Z-0.125000
G01 X112.607920 Y98.181270 Z-0.125000
G01 X114.136450 Y99.288130 Z-0.125000
G01 X114.650420 Y100.468800 Z-0.125000
G01 X115.264600 Y104.221100 Z-0.125000
G01 X116.615490 Y107.102630 Z-0.125000
G01 X119.331830 Y110.568320 Z-0.125000
G01 X123.450570 Y114.443940 Z-0.125000
G01 X126.842850 Y116.413130 Z-0.125000
G01 X130.386270 Y115.536340 Z-0.125000
G01 X132.783460 Y115.622440 Z-0.125000
G01 X134.187170 Y116.403230 Z-0.125000
G01 X135.067980 Y117.790370 Z-0.125000
G01 X135.504520 Y120.600400 Z-0.125000
G01 X135.102830 Y124.702970 Z-0.125000
G01 X131.620060 Y140.830670 Z-0.125000
G01 X130.317080 Y145.223670 Z-0.125000
G01 X129.389470 Y146.239940 Z-0.125000
G01 X128.072930 Y146.822800 Z-0.125000
G01 X122.632220 Y147.051160 Z-0.125000
G01 X119.148050 Y149.318910 Z-0.125000
G01 X116.669620 Y151.186070 Z-0.125000
G01 X114.767510 Y153.152150 Z-0.125000
G01 X113.818820 Y154.542200 Z-0.125000
G01 X113.091350 Y156.766260 Z-0.125000
G01 X112.238260 Y158.148480 Z-0.125000
G01 X111.235340 Y158.827240 Z-0.125000
G01 X109.981360 Y158.942830 Z-0.125000
G01 X106.819750 Y157.636630 Z-0.125000
G01 X102.470240 Y154.299280 Z-0.125000
G01 X100.582490 Y153.789130 Z-0.125000
G01 X98.864856 Y152.799560 Z-0.125000
G01 X95.719815 Y149.726120 Z-0.125000
G01 X89.947412 Y142.368240 Z-0.125000
G01 X86.434321 Y140.410000 Z-0.125000
G01 X83.487615 Y139.522160 Z-0.125000
G01 X80.762843 Y138.154400 Z-0.125000
G01 X77.851185 Y136.041910 Z-0.125000
G01 X74.956799 Y133.282190 Z-0.125000
G01 X75.390324 Y128.177600 Z-0.125000
G01 X77.663896 Y117.885770 Z-0.125000
G01 X76.780276 Y114.133770 Z-0.125000
G01 X76.904097 Y112.620000 Z-0.125000
G01 X77.389340 Y111.431290 Z-0.125000
G01 X78.090894 Y110.637950 Z-0.125000
G01 X87.503222 Y103.793440 Z-0.125000
G01 X94.916232 Y99.556400 Z-0.125000
G01 X99.353815 Y97.692150 Z-0.125000
G01 X101.729820 Y97.033270 Z-0.125000
G01 X106.812720 Y96.124850 Z-0.125000
G01 X110.568430 Y96.024130 Z-0.125000
G01 X113.052290 Y96.587400 Z-0.125000
G01 X114.705150 Y97.771580 Z-0.125000
G01 X115.341630 Y99.269390 Z-0.125000
G01 X115.258930 Y102.137260 Z-0.125000
G01 X116.647070 Y105.232900 Z-0.125000
G01 X119.495060 Y108.986200 Z-0.125000
G01 X125.342080 Y115.201060 Z-0.125000
G01 X133.180680 Y114.239720 Z-0.125000
G01 X134.987190 Y114.847580 Z-0.125000
G01 X136.177500 Y116.360950 Z-0.125000
G01 X136.657820 Y119.132520 Z-0.125000
G01 X136.227010 Y123.227360 Z-0.125000
G01 X131.845060 Y143.019490 Z-0.125000
G01 X130.344940 Y147.220070 Z-0.125000
G01 X130.051110 Y147.655710 Z-0.125000
G01 X128.949870 Y147.931570 Z-0.125000
G01 X124.971320 Y147.664340 Z-0.125000
G01 X118.467540 Y151.272830 Z-0.125000
G01 X116.057790 Y153.091790 Z-0.125000
G01 X114.320680 Y154.969600 Z-0.125000
G01 X113.549830 Y156.176880 Z-0.125000
G01 X112.983650 Y158.266980 Z-0.125000
G01 X112.259800 Y159.540140 Z-0.125000
G01 X111.381400 Y160.158140 Z-0.125000
G01 X110.261590 Y160.265600 Z-0.125000
G01 X107.057800 Y158.878660 Z-0.125000
G01 X102.721340 Y155.440780 Z-0.125000
G01 X99.977290 Y154.896990 Z-0.125000
G01 X97.487106 Y153.535660 Z-0.125000
G01 X93.933043 Y150.116970 Z-0.125000
G01 X87.056089 Y141.804370 Z-0.125000
G01 X83.266736 Y140.745610 Z-0.125000
G01 X80.155738 Y139.154710 Z-0.125000
G01 X77.115437 Y136.840370 Z-0.125000
G01 X73.340846 Y133.154350 Z-0.125000
G01 X73.942780 Y128.157010 Z-0.125000
G01 X76.667652 Y117.418800 Z-0.125000
G01 X75.495316 Y112.932110 Z-0.125000
G01 X75.604878 Y111.155030 Z-0.125000
G01 X76.188836 Y109.756340 Z-0.125000
G01 X77.194972 Y108.744380 Z-0.125000
G01 X87.349224 Y102.093080 Z-0.125000
G01 X95.252297 Y97.976240 Z-0.125000
G01 X99.628622 Y96.270660 Z-0.125000
G01 X103.526830 Y95.240530 Z-0.125000
G01 X107.535510 Y94.545700 Z-0.125000
G01 X110.845450 Y94.476600 Z-0.125000
G01 X113.612800 Y95.142500 Z-0.125000
G01 X115.446120 Y96.582060 Z-0.125000
G01 X116.030680 Y97.957250 Z-0.125000
G01 X116.533500 Y102.823740 Z-0.125000
G01 X124.651980 Y113.332990 Z-0.125000
G01 X127.898540 Y113.600110 Z-0.125000
G01 X134.657900 Y113.205250 Z-0.125000
G01 X136.315180 Y113.830080 Z-0.125000
G01 X137.437810 Y115.254080 Z-0.125000
G01 X137.926260 Y117.823800 Z-0.125000
G01 X137.560120 Y121.598390 Z-0.125000
G01 X134.926030 Y131.803150 Z-0.125000
G01 X132.398190 Y144.617100 Z-0.125000
G01 X131.271340 Y147.762950 Z-0.125000
G01 X129.963740 Y149.029080 Z-0.125000
G01 X127.482590 Y148.567840 Z-0.125000
G01 X120.755970 Y151.576100 Z-0.125000
G01 X117.656020 Y153.331190 Z-0.125000
G01 X115.586310 Y154.967280 Z-0.125000
G01 X113.925620 Y156.869890 Z-0.125000
G01 X113.325190 Y157.834550 Z-0.125000
G01 X112.905620 Y159.797310 Z-0.125000
G01 X112.247050 Y161.081620 Z-0.125000
G01 X111.484740 Y161.624810 Z-0.125000
G01 X110.495980 Y161.716610 Z-0.125000
G01 X107.431780 Y160.358800 Z-0.125000
G01 X102.740120 Y156.634420 Z-0.125000
G01 X99.171096 Y156.059600 Z-0.125000
G01 X96.133105 Y154.446610 Z-0.125000
G01 X92.594206 Y151.163890 Z-0.125000
G01 X85.075451 Y142.715320 Z-0.125000
G01 X81.698935 Y141.414040 Z-0.125000
G01 X78.896436 Y139.673410 Z-0.125000
G01 X76.183012 Y137.340890 Z-0.125000
G01 X71.866237 Y132.861230 Z-0.125000
G01 X72.599424 Y128.220390 Z-0.125000
G01 X75.861056 Y116.994930 Z-0.125000
G01 X74.805010 Y113.976120 Z-0.125000
G01 X74.345274 Y111.567380 Z-0.125000
G01 X74.462066 Y109.515840 Z-0.125000
G01 X75.105375 Y108.041530 Z-0.125000
G01 X76.371706 Y106.883860 Z-0.125000
G01 X77.919121 Y106.217650 Z-0.125000
G01 X86.664340 Y100.839110 Z-0.125000
G01 X95.812455 Y96.334340 Z-0.125000
G01 X99.403776 Y95.032560 Z-0.125000
G01 X105.162120 Y93.513770 Z-0.125000
G01 X108.449060 Y93.011950 Z-0.125000
G01 X111.283390 Y93.024050 Z-0.125000
G01 X114.160400 Y93.794400 Z-0.125000
G01 X116.034490 Y95.269610 Z-0.125000
G01 X116.712250 Y96.588260 Z-0.125000
G01 X117.335770 Y99.974620 Z-0.125000
G01 X118.284870 Y102.787260 Z-0.125000
G01 X122.375190 Y107.694220 Z-0.125000
G01 X124.640730 Y111.100660 Z-0.125000
G01 X128.642880 Y112.155100 Z-0.125000
G01 X136.378850 Y112.404050 Z-0.125000
G01 X137.836080 Y113.092350 Z-0.125000
G01 X138.777450 Y114.324940 Z-0.125000
G01 X139.301450 Y116.899680 Z-0.125000
G01 X138.976080 Y120.407440 Z-0.125000
G01 X135.755020 Y132.138230 Z-0.125000
G01 X133.312440 Y145.459320 Z-0.125000
G01 X132.379310 Y148.309020 Z-0.125000
G01 X131.261900 Y149.434550 Z-0.125000
G01 X121.817740 Y152.772210 Z-0.125000
G01 X117.341800 Y155.115270 Z-0.125000
G01 X115.311450 Y156.757790 Z-0.125000
G01 X113.711210 Y158.657380 Z-0.125000
G01 X113.096120 Y159.696760 Z-0.125000
G01 X112.758100 Y161.645670 Z-0.125000
G01 X112.202660 Y162.771910 Z-0.125000
G01 X111.547400 Y163.229530 Z-0.125000
G01 X110.685880 Y163.299530 Z-0.125000
G01 X107.579500 Y161.843400 Z-0.125000
G01 X102.900200 Y157.986660 Z-0.125000
G01 X98.350240 Y157.305190 Z-0.125000
G01 X94.615817 Y155.322950 Z-0.125000
G01 X90.285084 Y151.260940 Z-0.125000
G01 X83.202164 Y143.500070 Z-0.125000
G01 X80.398359 Y142.133310 Z-0.125000
G01 X77.738360 Y140.151970 Z-0.125000
G01 X70.530614 Y132.402240 Z-0.125000
G01 X71.389329 Y128.185690 Z-0.125000
G01 X75.199571 Y116.631250 Z-0.125000
G01 X73.858123 Y112.744480 Z-0.125000
G01 X73.325983 Y110.210210 Z-0.125000
G01 X73.388143 Y108.021100 Z-0.125000
G01 X74.119422 Y106.290510 Z-0.125000
G01 X75.685716 Y104.976980 Z-0.125000
G01 X78.256540 Y104.209750 Z-0.125000
G01 X88.450558 Y98.493080 Z-0.125000
G01 X96.084700 Y94.853860 Z-0.125000
G01 X105.797900 Y92.041720 Z-0.125000
G01 X108.788590 Y91.596040 Z-0.125000
G01 X111.457320 Y91.625940 Z-0.125000
G01 X114.532970 Y92.460150 Z-0.125000
G01 X116.643760 Y94.057270 Z-0.125000
G01 X117.408980 Y95.308540 Z-0.125000
G01 X118.364600 Y98.483410 Z-0.125000
G01 X119.760580 Y101.295950 Z-0.125000
G01 X125.592540 Y108.955100 Z-0.125000
G01 X127.514830 Y110.076320 Z-0.125000
G01 X129.808280 Y110.811610 Z-0.125000
G01 X138.150610 Y111.827190 Z-0.125000
G01 X139.418550 Y112.557460 Z-0.125000
G01 X140.256770 Y113.729900 Z-0.125000
G01 X140.767120 Y116.149190 Z-0.125000
G01 X140.460530 Y119.657960 Z-0.125000
G01 X136.403050 Y133.674270 Z-0.125000
G01 X134.363160 Y146.499370 Z-0.125000
G01 X133.598440 Y148.970370 Z-0.125000
G01 X130.833500 Y151.874700 Z-0.125000
G01 X122.458140 Y154.222380 Z-0.125000
G01 X119.631940 Y155.420430 Z-0.125000
G01 X117.087430 Y156.915820 Z-0.125000
G01 X115.119040 Y158.555730 Z-0.125000
G01 X113.580960 Y160.439260 Z-0.125000
G01 X112.852000 Y161.752080 Z-0.125000
G01 X112.634980 Y163.518420 Z-0.125000
G01 X112.194330 Y164.530280 Z-0.125000
G01 X111.661880 Y164.942110 Z-0.125000
G01 X110.832890 Y165.018510 Z-0.125000
G01 X107.681120 Y163.449000 Z-0.125000
G01 X102.774470 Y159.307960 Z-0.125000
G01 X99.854672 Y159.112340 Z-0.125000
G01 X97.388589 Y158.562120 Z-0.125000
G01 X95.136006 Y157.595150 Z-0.125000
G01 X92.980229 Y156.127770 Z-0.125000
G01 X87.329940 Y150.759770 Z-0.125000
G01 X81.570191 Y144.337640 Z-0.125000
G01 X79.177015 Y142.824970 Z-0.125000
G01 X76.677994 Y140.591760 Z-0.125000
G01 X69.335681 Y131.775040 Z-0.125000
G01 X70.247118 Y128.228510 Z-0.125000
G01 X74.766245 Y116.074540 Z-0.125000
G01 X73.061969 Y111.541660 Z-0.125000
G01 X72.397371 Y108.667760 Z-0.125000
G01 X72.472591 Y106.162910 Z-0.125000
G01 X73.324678 Y104.358310 Z-0.125000
G01 X75.342474 Y102.933720 Z-0.125000
G01 X79.044560 Y102.187980 Z-0.125000
G01 X91.053119 Y95.806510 Z-0.125000
G01 X96.561510 Y93.336810 Z-0.125000
G01 X106.636530 Y90.572170 Z-0.125000
G01 X109.332880 Y90.236060 Z-0.125000
G01 X111.820750 Y90.333460 Z-0.125000
G01 X114.893790 Y91.214670 Z-0.125000
G01 X117.288880 Y92.949370 Z-0.125000
G01 X120.297040 Y98.477240 Z-0.125000
G01 X124.131790 Y102.988840 Z-0.125000
G01 X126.349820 Y106.449610 Z-0.125000
G01 X127.907780 Y107.977640 Z-0.125000
G01 X129.802160 Y109.096650 Z-0.125000
G01 X132.033150 Y109.908770 Z-0.125000
G01 X139.802260 Y111.412100 Z-0.125000
G01 X140.937840 Y112.116070 Z-0.125000
G01 X141.798670 Y113.326360 Z-0.125000
G01 X142.328500 Y116.022510 Z-0.125000
G01 X141.944180 Y119.647880 Z-0.125000
G01 X137.304750 Y134.460240 Z-0.125000
G01 X136.351830 Y139.599980 Z-0.125000
G01 X135.526660 Y148.054570 Z-0.125000
G01 X134.287840 Y151.263180 Z-0.125000
G01 X133.222060 Y152.560340 Z-0.125000
G01 X131.399480 Y153.794040 Z-0.125000
G01 X123.038180 Y155.725670 Z-0.125000
G01 X119.909910 Y156.960970 Z-0.125000
G01 X117.350030 Y158.404450 Z-0.125000
G01 X114.085490 Y161.404080 Z-0.125000
G01 X112.682480 Y163.793040 Z-0.125000
G01 X112.206280 Y166.358240 Z-0.125000
G01 X111.731480 Y166.800100 Z-0.125000
G01 X110.939040 Y166.878200 Z-0.125000
G01 X107.738570 Y165.178440 Z-0.125000
G01 X102.579450 Y160.769480 Z-0.125000
G01 X99.241192 Y160.505470 Z-0.125000
G01 X96.295892 Y159.809940 Z-0.125000
G01 X93.756300 Y158.648350 Z-0.125000
G01 X91.426189 Y156.956420 Z-0.125000
G01 X85.506868 Y151.241360 Z-0.125000
G01 X80.195305 Y145.216600 Z-0.125000
G01 X76.399825 Y141.795090 Z-0.125000
G01 X68.305246 Y130.980560 Z-0.125000
G01 X69.150705 Y128.310520 Z-0.125000
G01 X74.499926 Y115.542560 Z-0.125000
G01 X72.405408 Y110.379320 Z-0.125000
G01 X71.587063 Y107.340830 Z-0.125000
G01 X71.545583 Y104.649000 Z-0.125000
G01 X72.482126 Y102.531480 Z-0.125000
G01 X73.591196 Y101.563610 Z-0.125000
G01 X75.188521 Y100.858640 Z-0.125000
G01 X80.265194 Y100.240240 Z-0.125000
G01 X91.866739 Y94.104000 Z-0.125000
G01 X96.983582 Y91.894000 Z-0.125000
G01 X101.187490 Y91.086100 Z-0.125000
G01 X107.118760 Y89.228070 Z-0.125000
G01 X109.840620 Y88.962250 Z-0.125000
G01 X112.167610 Y89.129960 Z-0.125000
G01 X115.472730 Y90.166020 Z-0.125000
G01 X117.986110 Y91.950230 Z-0.125000
G01 X121.271240 Y96.655440 Z-0.125000
G01 X125.408960 Y100.148750 Z-0.125000
G01 X126.406060 Y101.587210 Z-0.125000
G01 X127.940520 Y104.896140 Z-0.125000
G01 X129.958220 Y107.087360 Z-0.125000
G01 X131.758800 Y108.236000 Z-0.125000
G01 X134.083480 Y109.224760 Z-0.125000
G01 X141.495090 Y111.205900 Z-0.125000
G01 X142.621230 Y111.988600 Z-0.125000
G01 X143.466290 Y113.282650 Z-0.125000
G01 X143.956850 Y115.863820 Z-0.125000
G01 X143.640020 Y119.234310 Z-0.125000
G01 X142.435550 Y123.725010 Z-0.125000
G01 X139.346840 Y131.659820 Z-0.125000
G01 X138.108530 Y135.914930 Z-0.125000
G01 X137.357270 Y140.827920 Z-0.125000
G01 X137.064940 Y148.708300 Z-0.125000
G01 X136.689860 Y150.863670 Z-0.125000
G01 X136.085810 Y152.296400 Z-0.125000
G01 X134.323390 Y154.147500 Z-0.125000
G01 X131.510450 Y155.664680 Z-0.125000
G01 X123.540400 Y157.262010 Z-0.125000
G01 X120.379090 Y158.429320 Z-0.125000
G01 X117.573880 Y159.948320 Z-0.125000
G01 X115.244970 Y161.816080 Z-0.125000
G01 X113.615410 Y163.792100 Z-0.125000
G01 X112.411440 Y166.225250 Z-0.125000
G01 X112.072710 Y168.496710 Z-0.125000
G01 X111.518280 Y168.842970 Z-0.125000
G01 X110.673620 Y168.845970 Z-0.125000
G01 X108.854160 Y168.175650 Z-0.125000
G01 X106.783750 Y166.850970 Z-0.125000
G01 X102.133470 Y162.407060 Z-0.125000
G01 X97.983592 Y161.834450 Z-0.125000
G01 X95.082177 Y161.027960 Z-0.125000
G01 X92.622320 Y159.825490 Z-0.125000
G01 X90.144990 Y157.932620 Z-0.125000
G01 X82.667007 Y150.495610 Z-0.125000
G01 X76.416290 Y143.433980 Z-0.125000
G01 X67.467614 Y130.150150 Z-0.125000
G01 X74.390360 Y115.044960 Z-0.125000
G01 X71.787502 Y109.042990 Z-0.125000
G01 X70.814304 Y105.817810 Z-0.125000
G01 X70.697412 Y102.937280 Z-0.125000
G01 X71.676635 Y100.671340 Z-0.125000
G01 X72.674536 Y99.774060 Z-0.125000
G01 X74.067802 Y99.084660 Z-0.125000
G01 X81.440442 Y98.495480 Z-0.125000
G01 X92.084054 Y92.755110 Z-0.125000
G01 X97.119354 Y90.599640 Z-0.125000
G01 X99.249020 Y90.103050 Z-0.125000
G01 X101.127830 Y90.050250 Z-0.125000
G01 X104.398000 Y88.728190 Z-0.125000
G01 X107.259250 Y88.002330 Z-0.125000
G01 X109.779060 Y87.777690 Z-0.125000
G01 X112.244740 Y87.973410 Z-0.125000
G01 X114.872300 Y88.687720 Z-0.125000
G01 X117.279540 Y89.914380 Z-0.125000
G01 X119.131030 Y91.436390 Z-0.125000
G01 X120.810400 Y93.605720 Z-0.125000
G01 X122.581860 Y95.283590 Z-0.125000
G01 X127.534210 Y98.150360 Z-0.125000
G01 X129.423970 Y103.348040 Z-0.125000
G01 X130.604140 Y105.089370 Z-0.125000
G01 X132.220740 Y106.629760 Z-0.125000
G01 X136.169970 Y108.808430 Z-0.125000
G01 X143.220050 Y111.212950 Z-0.125000
G01 X144.341770 Y112.075380 Z-0.125000
G01 X145.179900 Y113.451280 Z-0.125000
G01 X145.656710 Y116.613590 Z-0.125000
G01 X144.973940 Y121.107510 Z-0.125000
G01 X143.091010 Y126.756800 Z-0.125000
G01 X140.121400 Y133.246020 Z-0.125000
G01 X138.942340 Y137.565400 Z-0.125000
G01 X138.518050 Y142.230140 Z-0.125000
G01 X138.801450 Y150.262760 Z-0.125000
G01 X138.452980 Y152.011420 Z-0.125000
G01 X137.836590 Y153.297840 Z-0.125000
G01 X135.905460 Y155.250160 Z-0.125000
G01 X132.541790 Y156.990890 Z-0.125000
G01 X131.123220 Y157.496120 Z-0.125000
G01 X123.620830 Y158.908460 Z-0.125000
G01 X120.503610 Y160.047560 Z-0.125000
G01 X118.002380 Y161.365610 Z-0.125000
G01 X115.442700 Y163.345640 Z-0.125000
G01 X113.664920 Y165.468480 Z-0.125000
G01 X112.839340 Y167.252790 Z-0.125000
G01 X112.197740 Y170.219080 Z-0.125000
G01 X111.256780 Y170.702220 Z-0.125000
G01 X109.820730 Y170.637420 Z-0.125000
G01 X107.744690 Y169.943200 Z-0.125000
G01 X105.264450 Y168.588200 Z-0.125000
G01 X100.408510 Y164.704440 Z-0.125000
G01 X96.767774 Y163.660650 Z-0.125000
G01 X92.318843 Y161.483180 Z-0.125000
G01 X88.994647 Y158.917880 Z-0.125000
G01 X81.307382 Y151.174880 Z-0.125000
G01 X78.344408 Y147.804790 Z-0.125000
G01 X74.567004 Y142.490320 Z-0.125000
G01 X68.898036 Y132.271900 Z-0.125000
G01 X66.724887 Y129.112700 Z-0.125000
G01 X71.735884 Y120.156790 Z-0.125000
G01 X74.468790 Y114.343110 Z-0.125000
G01 X71.355182 Y107.983240 Z-0.125000
G01 X70.080615 Y104.302940 Z-0.125000
G01 X69.900959 Y100.985370 Z-0.125000
G01 X70.292307 Y99.718240 Z-0.125000
G01 X71.039352 Y98.603140 Z-0.125000
G01 X71.815720 Y97.991370 Z-0.125000
G01 X74.944393 Y97.327980 Z-0.125000
G01 X82.595706 Y96.848160 Z-0.125000
G01 X92.537764 Y91.341070 Z-0.125000
G01 X97.421426 Y89.307710 Z-0.125000
G01 X99.428677 Y88.963760 Z-0.125000
G01 X100.994370 Y89.090390 Z-0.125000
G01 X104.179480 Y87.661780 Z-0.125000
G01 X107.343400 Y86.844640 Z-0.125000
G01 X109.958610 Y86.670100 Z-0.125000
G01 X112.587880 Y86.953700 Z-0.125000
G01 X115.178090 Y87.695420 Z-0.125000
G01 X117.373630 Y88.730680 Z-0.125000
G01 X119.375960 Y90.104460 Z-0.125000
G01 X123.178770 Y93.472440 Z-0.125000
G01 X127.991940 Y95.634650 Z-0.125000
G01 X129.752750 Y98.393260 Z-0.125000
G01 X131.395770 Y102.900340 Z-0.125000
G01 X133.460460 Y105.556220 Z-0.125000
G01 X137.564940 Y108.302480 Z-0.125000
G01 X145.128890 Y111.535290 Z-0.125000
G01 X146.206420 Y112.521440 Z-0.125000
G01 X146.932980 Y113.834770 Z-0.125000
G01 X147.330050 Y115.450070 Z-0.125000
G01 X147.400150 Y117.607460 Z-0.125000
G01 X146.471540 Y122.636730 Z-0.125000
G01 X144.487490 Y128.144420 Z-0.125000
G01 X141.308400 Y133.709550 Z-0.125000
G01 X140.102630 Y137.781890 Z-0.125000
G01 X139.834800 Y142.308250 Z-0.125000
G01 X140.706770 Y150.190240 Z-0.125000
G01 X140.381300 Y152.432180 Z-0.125000
G01 X139.523490 Y154.274930 Z-0.125000
G01 X137.420230 Y156.306790 Z-0.125000
G01 X133.813750 Y158.121730 Z-0.125000
G01 X131.032740 Y159.117520 Z-0.125000
G01 X123.534970 Y160.564610 Z-0.125000
G01 X118.697410 Y162.610530 Z-0.125000
G01 X116.068540 Y164.468850 Z-0.125000
G01 X114.536190 Y166.178850 Z-0.125000
G01 X113.658290 Y167.886240 Z-0.125000
G01 X112.916170 Y171.029880 Z-0.125000
G01 X112.431630 Y171.821310 Z-0.125000
G01 X111.111470 Y172.362690 Z-0.125000
G01 X108.940230 Y172.215270 Z-0.125000
G01 X105.020620 Y170.797200 Z-0.125000
G01 X101.940250 Y169.036180 Z-0.125000
G01 X98.947752 Y166.858010 Z-0.125000
G01 X94.144529 Y164.921160 Z-0.125000
G01 X91.412025 Y163.064240 Z-0.125000
G01 X88.496249 Y160.466100 Z-0.125000
G01 X77.183319 Y148.579550 Z-0.125000
G01 X73.869266 Y142.875940 Z-0.125000
G01 X70.253845 Y135.312400 Z-0.125000
G01 X66.517916 Y129.212110 Z-0.125000
G01 X67.180304 Y126.434220 Z-0.125000
G01 X68.721393 Y122.967020 Z-0.125000
G01 X74.664314 Y113.721900 Z-0.125000
G01 X71.018966 Y106.995280 Z-0.125000
G01 X69.511017 Y103.329440 Z-0.125000
G01 X68.993940 Y99.951620 Z-0.125000
G01 X69.679828 Y97.436630 Z-0.125000
G01 X72.006223 Y96.518070 Z-0.125000
G01 X75.106475 Y95.842920 Z-0.125000
G01 X83.722751 Y95.289190 Z-0.125000
G01 X92.674339 Y90.143930 Z-0.125000
G01 X97.236447 Y88.205070 Z-0.125000
G01 X99.168280 Y87.918160 Z-0.125000
G01 X100.791520 Y88.196330 Z-0.125000
G01 X104.170850 Y86.552110 Z-0.125000
G01 X107.380060 Y85.758970 Z-0.125000
G01 X110.128930 Y85.650810 Z-0.125000
G01 X112.966480 Y86.040350 Z-0.125000
G01 X117.986910 Y87.942660 Z-0.125000
G01 X124.272880 Y92.155200 Z-0.125000
G01 X128.441030 Y93.554990 Z-0.125000
G01 X130.886620 Y96.688380 Z-0.125000
G01 X133.015690 Y102.047750 Z-0.125000
G01 X135.061800 Y104.959410 Z-0.125000
G01 X138.966540 Y107.939350 Z-0.125000
G01 X147.197600 Y112.225800 Z-0.125000
G01 X148.089550 Y113.212450 Z-0.125000
G01 X148.788290 Y114.629920 Z-0.125000
G01 X149.188880 Y116.564160 Z-0.125000
G01 X149.172880 Y119.110990 Z-0.125000
G01 X147.922220 Y124.739080 Z-0.125000
G01 X146.522730 Y128.481240 Z-0.125000
G01 X144.104440 Y131.494320 Z-0.125000
G01 X142.671410 Y133.821020 Z-0.125000
G01 X141.352760 Y137.600530 Z-0.125000
G01 X141.186360 Y141.970230 Z-0.125000
G01 X142.303860 Y147.343050 Z-0.125000
G01 X142.532120 Y150.308630 Z-0.125000
G01 X142.174320 Y153.056300 Z-0.125000
G01 X141.130220 Y155.235480 Z-0.125000
G01 X138.852530 Y157.322360 Z-0.125000
G01 X135.380820 Y159.039490 Z-0.125000
G01 X130.111930 Y160.841380 Z-0.125000
G01 X123.268920 Y162.221290 Z-0.125000
G01 X118.241560 Y164.457200 Z-0.125000
G01 X116.485460 Y165.685370 Z-0.125000
G01 X115.045900 Y167.407420 Z-0.125000
G01 X114.010340 Y169.659510 Z-0.125000
G01 X113.443460 Y172.426760 Z-0.125000
G01 X112.928690 Y173.131420 Z-0.125000
G01 X110.876850 Y173.840110 Z-0.125000
G01 X107.766050 Y173.531410 Z-0.125000
G01 X103.159060 Y171.938200 Z-0.125000
G01 X97.751787 Y168.878920 Z-0.125000
G01 X94.461333 Y167.448900 Z-0.125000
G01 X91.931281 Y165.810000 Z-0.125000
G01 X89.423623 Y163.618170 Z-0.125000
G01 X85.223741 Y158.559670 Z-0.125000
G01 X78.994113 Y152.650090 Z-0.125000
G01 X76.248353 Y149.573040 Z-0.125000
G01 X72.294105 Y140.936170 Z-0.125000
G01 X67.833324 Y133.813490 Z-0.125000
G01 X65.976406 Y129.152460 Z-0.125000
G01 X66.367452 Y125.745320 Z-0.125000
G01 X68.611199 Y120.303910 Z-0.125000
G01 X73.201324 Y113.091240 Z-0.125000
G01 X73.681345 Y110.927730 Z-0.125000
G01 X70.613127 Y105.820130 Z-0.125000
G01 X69.017911 Y102.450940 Z-0.125000
G01 X68.197859 Y99.317650 Z-0.125000
G01 X68.377415 Y96.971980 Z-0.125000
G01 X70.982884 Y95.583430 Z-0.125000
G01 X74.531424 Y94.612840 Z-0.125000
G01 X78.840868 Y94.124890 Z-0.125000
G01 X84.467658 Y94.006490 Z-0.125000
G01 X92.765995 Y89.028130 Z-0.125000
G01 X97.009260 Y87.162580 Z-0.125000
G01 X98.862162 Y86.922270 Z-0.125000
G01 X100.521250 Y87.353980 Z-0.125000
G01 X103.799350 Y85.606630 Z-0.125000
G01 X107.068720 Y84.785570 Z-0.125000
G01 X109.973850 Y84.702370 Z-0.125000
G01 X113.055520 Y85.157990 Z-0.125000
G01 X117.637920 Y86.751090 Z-0.125000
G01 X124.501210 Y90.597990 Z-0.125000
G01 X128.704510 Y91.738890 Z-0.125000
G01 X130.749820 Y93.725060 Z-0.125000
G01 X132.441640 Y95.913370 Z-0.125000
G01 X133.421770 Y97.796500 Z-0.125000
G01 X134.892660 Y101.921870 Z-0.125000
G01 X136.850700 Y104.751280 Z-0.125000
G01 X140.617760 Y107.881960 Z-0.125000
G01 X149.116550 Y113.063470 Z-0.125000
G01 X150.090450 Y114.324890 Z-0.125000
G01 X150.735660 Y115.872400 Z-0.125000
G01 X150.838090 Y118.411290 Z-0.125000
G01 X150.412600 Y122.102930 Z-0.125000
G01 X148.549860 Y129.062940 Z-0.125000
G01 X144.432530 Y133.395180 Z-0.125000
G01 X143.350270 Y135.198670 Z-0.125000
G01 X142.625220 Y137.324920 Z-0.125000
G01 X142.519770 Y141.207470 Z-0.125000
G01 X143.946780 Y146.564320 Z-0.125000
G01 X144.280790 Y150.355180 Z-0.125000
G01 X143.890040 Y153.664510 Z-0.125000
G01 X142.640780 Y156.185630 Z-0.125000
G01 X140.187850 Y158.300230 Z-0.125000
G01 X136.496010 Y160.038550 Z-0.125000
G01 X129.246890 Y162.426400 Z-0.125000
G01 X123.614480 Y163.610390 Z-0.125000
G01 X118.509480 Y165.528360 Z-0.125000
G01 X116.833330 Y166.858560 Z-0.125000
G01 X115.590290 Y168.461010 Z-0.125000
G01 X114.471080 Y171.018280 Z-0.125000
G01 X113.921270 Y173.893980 Z-0.125000
G01 X113.040560 Y174.596640 Z-0.125000
G01 X110.441920 Y175.115930 Z-0.125000
G01 X106.494400 Y174.642540 Z-0.125000
G01 X101.609330 Y173.091000 Z-0.125000
G01 X95.180059 Y170.006420 Z-0.125000
G01 X92.399051 Y168.299930 Z-0.125000
G01 X89.689443 Y166.001250 Z-0.125000
G01 X87.058968 Y162.999720 Z-0.125000
G01 X84.642594 Y159.456100 Z-0.125000
G01 X78.216238 Y153.657280 Z-0.125000
G01 X75.427999 Y150.647910 Z-0.125000
G01 X74.804173 Y149.632740 Z-0.125000
G01 X74.774143 Y149.273830 Z-0.125000
G01 X75.074709 Y149.202030 Z-0.125000
G01 X73.803456 Y146.387980 Z-0.125000
G01 X69.823098 Y140.416640 Z-0.125000
G01 X67.369167 Y136.118240 Z-0.125000
G01 X66.140193 Y133.250270 Z-0.125000
G01 X65.421969 Y130.537640 Z-0.125000
G01 X65.100515 Y127.728420 Z-0.125000
G01 X65.335203 Y125.057870 Z-0.125000
G01 X66.916762 Y120.411710 Z-0.125000
G01 X68.892279 Y116.843390 Z-0.125000
G01 X71.942220 Y112.278170 Z-0.125000
G01 X72.521660 Y109.776640 Z-0.125000
G01 X72.340397 Y107.932170 Z-0.125000
G01 X69.865075 Y104.111490 Z-0.125000
G01 X68.193236 Y100.747020 Z-0.125000
G01 X67.427211 Y98.268990 Z-0.125000
G01 X67.420211 Y96.850620 Z-0.125000
G01 X70.099290 Y94.836940 Z-0.125000
G01 X73.648232 Y93.592200 Z-0.125000
G01 X78.546956 Y92.933830 Z-0.125000
G01 X85.143228 Y92.777770 Z-0.125000
G01 X93.072010 Y87.846510 Z-0.125000
G01 X96.738747 Y86.184410 Z-0.125000
G01 X98.509804 Y85.978940 Z-0.125000
G01 X100.173100 Y86.571140 Z-0.125000
G01 X103.352290 Y84.724560 Z-0.125000
G01 X106.702800 Y83.884020 Z-0.125000
G01 X109.793610 Y83.835520 Z-0.125000
G01 X112.773350 Y84.281800 Z-0.125000
G01 X117.492520 Y85.797880 Z-0.125000
G01 X124.735620 Y89.287770 Z-0.125000
G01 X128.753030 Y90.135850 Z-0.125000
G01 X129.736570 Y90.882890 Z-0.125000
G01 X132.226050 Y93.116090 Z-0.125000
G01 X134.213320 Y95.579160 Z-0.125000
G01 X135.332230 Y97.746290 Z-0.125000
G01 X136.661730 Y101.797340 Z-0.125000
G01 X138.841610 Y104.964980 Z-0.125000
G01 X142.283400 Y108.005980 Z-0.125000
G01 X150.654140 Y113.968890 Z-0.125000
G01 X150.925880 Y114.523020 Z-0.125000
G01 X151.433520 Y117.483080 Z-0.125000
G01 X151.454020 Y121.575110 Z-0.125000
G01 X151.003320 Y125.801710 Z-0.125000
G01 X150.037550 Y130.223920 Z-0.125000
G01 X145.487500 Y134.440070 Z-0.125000
G01 X144.342070 Y136.018920 Z-0.125000
G01 X143.805210 Y137.430060 Z-0.125000
G01 X143.839610 Y140.299440 Z-0.125000
G01 X145.401690 Y145.096040 Z-0.125000
G01 X145.938950 Y150.341220 Z-0.125000
G01 X145.512550 Y154.269960 Z-0.125000
G01 X144.219610 Y156.906660 Z-0.125000
G01 X141.702110 Y159.072380 Z-0.125000
G01 X137.914560 Y160.824060 Z-0.125000
G01 X128.015990 Y163.989990 Z-0.125000
G01 X121.870720 Y165.085700 Z-0.125000
G01 X119.321480 Y166.192360 Z-0.125000
G01 X117.606660 Y167.535510 Z-0.125000
G01 X116.185080 Y169.362510 Z-0.125000
G01 X115.039660 Y171.948290 Z-0.125000
G01 X114.395750 Y175.119740 Z-0.125000
G01 X113.642470 Y175.600570 Z-0.125000
G01 X112.025370 Y176.051470 Z-0.125000
G01 X109.975030 Y176.174480 Z-0.125000
G01 X104.416030 Y175.413880 Z-0.125000
G01 X100.095940 Y174.131990 Z-0.125000
G01 X95.651430 Y172.258400 Z-0.125000
G01 X92.639951 Y170.406900 Z-0.125000
G01 X89.721363 Y167.931680 Z-0.125000
G01 X87.109165 Y164.932050 Z-0.125000
G01 X84.602813 Y161.088570 Z-0.125000
G01 X81.982581 Y158.403770 Z-0.125000
G01 X76.872366 Y154.090710 Z-0.125000
G01 X74.585839 Y151.641190 Z-0.125000
G01 X73.835681 Y150.433710 Z-0.125000
G01 X73.979587 Y149.899760 Z-0.125000
G01 X72.880560 Y148.660650 Z-0.125000
G01 X69.534773 Y143.512670 Z-0.125000
G01 X65.983622 Y137.111920 Z-0.125000
G01 X64.970658 Y134.439370 Z-0.125000
G01 X64.397344 Y131.777670 Z-0.125000
G01 X63.943935 Y126.640540 Z-0.125000
G01 X64.177518 Y123.863340 Z-0.125000
G01 X65.771128 Y119.232650 Z-0.125000
G01 X68.078643 Y115.262630 Z-0.125000
G01 X70.750492 Y111.614680 Z-0.125000
G01 X71.416998 Y109.154720 Z-0.125000
G01 X70.790360 Y105.175260 Z-0.125000
G01 X68.054240 Y100.692190 Z-0.125000
G01 X66.670816 Y97.317680 Z-0.125000
G01 X67.939658 Y95.504850 Z-0.125000
G01 X70.325402 Y93.688100 Z-0.125000
G01 X73.800834 Y92.469870 Z-0.125000
G01 X78.665315 Y91.842430 Z-0.125000
G01 X85.813611 Y91.679750 Z-0.125000
G01 X92.540733 Y87.211330 Z-0.125000
G01 X95.622106 Y85.561080 Z-0.125000
G01 X97.960953 Y85.073330 Z-0.125000
G01 X99.833939 Y86.011180 Z-0.125000
G01 X103.235560 Y84.087480 Z-0.125000
G01 X106.798960 Y83.313620 Z-0.125000
G01 X110.953750 Y83.559860 Z-0.125000
G01 X116.418960 Y84.918580 Z-0.125000
G01 X125.119190 Y88.247800 Z-0.125000
G01 X128.607280 Y88.806450 Z-0.125000
G01 X132.057200 Y91.178230 Z-0.125000
G01 X134.458410 Y93.402200 Z-0.125000
G01 X136.345460 Y95.899910 Z-0.125000
G01 X137.375800 Y98.123880 Z-0.125000
G01 X138.196350 Y101.363010 Z-0.125000
G01 X139.955560 Y104.326790 Z-0.125000
G01 X142.540140 Y107.071050 Z-0.125000
G01 X150.983290 Y114.361240 Z-0.125000
G01 X151.627700 Y116.257220 Z-0.125000
G01 X152.178820 Y123.418270 Z-0.125000
G01 X151.491630 Y130.841120 Z-0.125000
G01 X151.381060 Y131.202540 Z-0.125000
G01 X146.477420 Y135.437270 Z-0.125000
G01 X145.430710 Y136.864780 Z-0.125000
G01 X144.954800 Y138.242680 Z-0.125000
G01 X145.096500 Y139.442440 Z-0.125000
G01 X146.719430 Y143.297770 Z-0.125000
G01 X147.457640 Y149.344020 Z-0.125000
G01 X147.185900 Y154.227890 Z-0.125000
G01 X145.864430 Y157.386580 Z-0.125000
G01 X143.399860 Y159.641380 Z-0.125000
G01 X139.242860 Y161.551320 Z-0.125000
G01 X129.703690 Y164.531670 Z-0.125000
G01 X123.134240 Y165.546540 Z-0.125000
G01 X120.207920 Y166.755730 Z-0.125000
G01 X118.456040 Y168.101190 Z-0.125000
G01 X117.122730 Y169.701730 Z-0.125000
G01 X115.741510 Y172.464770 Z-0.125000
G01 X114.864420 Y176.115940 Z-0.125000
G01 X113.534320 Y176.671180 Z-0.125000
G01 X108.511170 Y176.985300 Z-0.125000
G01 X101.692060 Y175.924530 Z-0.125000
G01 X95.442249 Y173.963880 Z-0.125000
G01 X91.654201 Y171.333300 Z-0.125000
G01 X87.756189 Y167.423340 Z-0.125000
G01 X84.431592 Y162.507340 Z-0.125000
G01 X73.817103 Y152.706180 Z-0.125000
G01 X72.825227 Y150.882500 Z-0.125000
G01 X69.582876 Y147.325020 Z-0.125000
G01 X68.085472 Y144.910260 Z-0.125000
G01 X65.287692 Y139.910610 Z-0.125000
G01 X63.672693 Y135.942100 Z-0.125000
G01 X63.099078 Y133.188300 Z-0.125000
G01 X63.011308 Y129.054200 Z-0.125000
G01 X62.551472 Y126.166240 Z-0.125000
G01 X62.951657 Y122.086360 Z-0.125000
G01 X64.807872 Y117.592740 Z-0.125000
G01 X67.698141 Y113.201760 Z-0.125000
G01 X69.537786 Y111.215390 Z-0.125000
G01 X70.345386 Y108.861780 Z-0.125000
G01 X70.245566 Y106.390980 Z-0.125000
G01 X69.464076 Y103.462850 Z-0.125000
G01 X66.535245 Y97.947940 Z-0.125000
G01 X67.213199 Y95.991100 Z-0.125000
G01 X68.630064 Y94.034660 Z-0.125000
G01 X71.052664 Y92.374170 Z-0.125000
G01 X74.278345 Y91.384900 Z-0.125000
G01 X78.772968 Y90.872550 Z-0.125000
G01 X86.463045 Y90.687770 Z-0.125000
G01 X91.953461 Y86.717550 Z-0.125000
G01 X95.073095 Y84.841350 Z-0.125000
G01 X97.862539 Y84.718640 Z-0.125000
G01 X100.178890 Y85.486370 Z-0.125000
G01 X103.328250 Y83.506130 Z-0.125000
G01 X106.637580 Y82.832400 Z-0.125000
G01 X111.621570 Y83.531040 Z-0.125000
G01 X118.433440 Y85.988380 Z-0.125000
G01 X122.557210 Y86.223770 Z-0.125000
G01 X125.672920 Y87.455360 Z-0.125000
G01 X128.540600 Y87.800610 Z-0.125000
G01 X134.108240 Y91.318930 Z-0.125000
G01 X136.484040 Y93.542990 Z-0.125000
G01 X138.345680 Y96.099960 Z-0.125000
G01 X139.434560 Y98.670280 Z-0.125000
G01 X139.874110 Y101.398360 Z-0.125000
G01 X141.451660 Y104.254390 Z-0.125000
G01 X143.345030 Y106.535790 Z-0.125000
G01 X148.011470 Y111.033330 Z-0.125000
G01 X151.155710 Y114.523920 Z-0.125000
G01 X152.045960 Y116.962090 Z-0.125000
G01 X152.868120 Y124.250370 Z-0.125000
G01 X152.729840 Y131.692510 Z-0.125000
G01 X147.735010 Y135.953850 Z-0.125000
G01 X146.562770 Y137.433780 Z-0.125000
G01 X146.104650 Y138.679420 Z-0.125000
G01 X146.412040 Y140.054510 Z-0.125000
G01 X148.026940 Y141.764410 Z-0.125000
G01 X148.858040 Y148.617870 Z-0.125000
G01 X148.717140 Y154.104670 Z-0.125000
G01 X148.208100 Y156.169660 Z-0.125000
G01 X147.383630 Y157.856960 Z-0.125000
G01 X144.980210 Y160.191790 Z-0.125000
G01 X140.884170 Y162.081950 Z-0.125000
G01 X135.028710 Y163.909750 Z-0.125000
G01 X124.150110 Y166.033390 Z-0.125000
G01 X121.184630 Y167.248400 Z-0.125000
G01 X119.206000 Y168.771420 Z-0.125000
G01 X117.725560 Y170.585250 Z-0.125000
G01 X116.330290 Y173.327400 Z-0.125000
G01 X115.331380 Y176.891600 Z-0.125000
G01 X114.508620 Y177.206430 Z-0.125000
G01 X111.886880 Y177.621580 Z-0.125000
G01 X108.636100 Y177.679880 Z-0.125000
G01 X100.991710 Y176.816550 Z-0.125000
G01 X95.293021 Y175.424190 Z-0.125000
G01 X91.873825 Y172.933800 Z-0.125000
G01 X87.678763 Y168.763040 Z-0.125000
G01 X84.525387 Y164.047990 Z-0.125000
G01 X81.193860 Y161.799620 Z-0.125000
G01 X77.966774 Y158.055660 Z-0.125000
G01 X74.166976 Y155.005720 Z-0.125000
G01 X66.506725 Y146.044990 Z-0.125000
G01 X63.613644 Y140.798200 Z-0.125000
G01 X62.093946 Y136.949000 Z-0.125000
G01 X61.488597 Y133.433600 Z-0.125000
G01 X61.553167 Y129.183400 Z-0.125000
G01 X60.933458 Y125.683270 Z-0.125000
G01 X61.077665 Y122.544850 Z-0.125000
G01 X61.859758 Y119.774190 Z-0.125000
G01 X63.275017 Y116.995690 Z-0.125000
G01 X65.806675 Y113.421740 Z-0.125000
G01 X68.148937 Y111.229310 Z-0.125000
G01 X69.211812 Y109.083380 Z-0.125000
G01 X69.420189 Y106.995990 Z-0.125000
G01 X69.060274 Y104.638870 Z-0.125000
G01 X66.666998 Y98.561080 Z-0.125000
G01 X67.522700 Y95.209670 Z-0.125000
G01 X69.126653 Y92.825830 Z-0.125000
G01 X71.520934 Y91.283840 Z-0.125000
G01 X74.751133 Y90.414780 Z-0.125000
G01 X78.870477 Y90.019620 Z-0.125000
G01 X86.580638 Y89.853920 Z-0.125000
G01 X91.838073 Y85.998890 Z-0.125000
G01 X93.532507 Y85.175420 Z-0.125000
G01 X96.941158 Y84.439820 Z-0.125000
G01 X100.313250 Y84.854270 Z-0.125000
G01 X103.165160 Y82.946240 Z-0.125000
G01 X106.219920 Y82.267380 Z-0.125000
G01 X110.493210 Y82.969230 Z-0.125000
G01 X116.727760 Y85.593380 Z-0.125000
G01 X122.275620 Y85.809590 Z-0.125000
G01 X126.275860 Y86.862220 Z-0.125000
G01 X128.329210 Y87.047800 Z-0.125000
G01 X133.116860 Y89.415870 Z-0.125000
G01 X136.460840 Y91.738750 Z-0.125000
G01 X138.726680 Y93.996060 Z-0.125000
G01 X140.484790 Y96.653850 Z-0.125000
G01 X141.490120 Y99.364360 Z-0.125000
G01 X141.814080 Y102.217070 Z-0.125000
G01 X142.654920 Y103.832470 Z-0.125000
G01 X144.421560 Y106.281780 Z-0.125000
G01 X148.083680 Y110.145250 Z-0.125000
G01 X150.623870 Y113.443330 Z-0.125000
G01 X151.909490 Y115.422970 Z-0.125000
G01 X152.546270 Y118.207090 Z-0.125000
G01 X153.559830 Y125.999700 Z-0.125000
G01 X153.838410 Y132.374940 Z-0.125000
G01 X148.774290 Y136.570200 Z-0.125000
G01 X147.644030 Y137.949810 Z-0.125000
G01 X147.198850 Y139.084790 Z-0.125000
G01 X147.427720 Y140.170060 Z-0.125000
G01 X148.502340 Y141.478070 Z-0.125000
G01 X150.122860 Y147.736420 Z-0.125000
G01 X150.041060 Y154.320330 Z-0.125000
G01 X149.554810 Y156.542390 Z-0.125000
G01 X148.596280 Y158.594430 Z-0.125000
G01 X146.424530 Y160.739960 Z-0.125000
G01 X142.407020 Y162.584330 Z-0.125000
G01 X138.755340 Y163.693700 Z-0.125000
G01 X133.792650 Y164.508330 Z-0.125000
G01 X125.261630 Y166.481940 Z-0.125000
G01 X122.267020 Y167.699870 Z-0.125000
G01 X120.254050 Y169.202890 Z-0.125000
G01 X118.424350 Y171.384080 Z-0.125000
G01 X117.080190 Y173.816020 Z-0.125000
G01 X115.586100 Y177.533970 Z-0.125000
G01 X112.604140 Y178.024430 Z-0.125000
G01 X108.496450 Y178.176570 Z-0.125000
G01 X99.475568 Y177.468690 Z-0.125000
G01 X95.103963 Y176.595020 Z-0.125000
G01 X91.674524 Y173.909710 Z-0.125000
G01 X87.533088 Y169.798500 Z-0.125000
G01 X84.620626 Y165.526410 Z-0.125000
G01 X81.403983 Y163.958410 Z-0.125000
G01 X78.749105 Y161.822820 Z-0.125000
G01 X76.206701 Y158.312740 Z-0.125000
G01 X72.972786 Y155.676040 Z-0.125000
G01 X65.415167 Y146.956230 Z-0.125000
G01 X63.104940 Y143.896550 Z-0.125000
G01 X61.268408 Y140.175680 Z-0.125000
G01 X60.319714 Y137.464370 Z-0.125000
G01 X59.782352 Y133.976380 Z-0.125000
G01 X59.827242 Y129.000130 Z-0.125000
G01 X59.097268 Y125.200740 Z-0.125000
G01 X59.310365 Y121.690760 Z-0.125000
G01 X60.107722 Y119.245660 Z-0.125000
G01 X61.634450 Y116.598320 Z-0.125000
G01 X63.814228 Y113.850050 Z-0.125000
G01 X66.876018 Y111.172170 Z-0.125000
G01 X68.174284 Y108.954740 Z-0.125000
G01 X68.506081 Y107.360420 Z-0.125000
G01 X68.439101 Y105.437430 Z-0.125000
G01 X66.904139 Y100.161210 Z-0.125000
G01 X67.788161 Y94.732160 Z-0.125000
G01 X68.543039 Y93.009910 Z-0.125000
G01 X69.619571 Y91.682620 Z-0.125000
G01 X71.736082 Y90.384850 Z-0.125000
G01 X74.888354 Y89.604870 Z-0.125000
G01 X87.191352 Y89.083070 Z-0.125000
G01 X90.355775 Y86.485130 Z-0.125000
G01 X93.011355 Y85.081830 Z-0.125000
G01 X96.718363 Y84.162560 Z-0.125000
G01 X100.551600 Y84.214760 Z-0.125000
G01 X103.243330 Y82.198170 Z-0.125000
G01 X106.125570 Y81.598740 Z-0.125000
G01 X109.845430 Y82.383140 Z-0.125000
G01 X115.243250 Y85.038120 Z-0.125000
G01 X122.345050 Y85.250720 Z-0.125000
G01 X124.443190 Y85.643970 Z-0.125000
G01 X126.170260 Y86.328960 Z-0.125000
G01 X127.977870 Y86.534420 Z-0.125000
G01 X134.037880 Y88.995680 Z-0.125000
G01 X138.489020 Y91.903630 Z-0.125000
G01 X140.716500 Y94.209540 Z-0.125000
G01 X142.455120 Y97.001490 Z-0.125000
G01 X143.528840 Y100.192020 Z-0.125000
G01 X143.787530 Y103.237450 Z-0.125000
G01 X144.363250 Y104.322010 Z-0.125000
G01 X148.757760 Y109.618910 Z-0.125000
G01 X151.043280 Y113.238850 Z-0.125000
G01 X152.293140 Y115.859090 Z-0.125000
G01 X153.026030 Y119.550130 Z-0.125000
G01 X154.835140 Y132.553070 Z-0.125000
G01 X149.627320 Y137.286500 Z-0.125000
G01 X148.599490 Y138.582050 Z-0.125000
G01 X148.233450 Y139.616510 Z-0.125000
G01 X149.052900 Y141.297690 Z-0.125000
G01 X150.026600 Y144.701020 Z-0.125000
G01 X151.355690 Y152.137220 Z-0.125000
G01 X150.931510 Y156.193700 Z-0.125000
G01 X149.651520 Y159.367260 Z-0.125000
G01 X147.448740 Y161.477450 Z-0.125000
G01 X144.182690 Y162.946330 Z-0.125000
G01 X142.099930 Y163.568350 Z-0.125000
G01 X134.374000 Y164.890020 Z-0.125000
G01 X125.840870 Y167.112170 Z-0.125000
G01 X124.001230 Y167.854200 Z-0.125000
G01 X121.630850 Y169.437260 Z-0.125000
G01 X119.676720 Y171.506770 Z-0.125000
G01 X117.799720 Y174.412110 Z-0.125000
G01 X116.252000 Y177.773360 Z-0.125000
G01 X111.411420 Y178.371170 Z-0.125000
G01 X102.873780 Y178.464270 Z-0.125000
G01 X95.419193 Y177.780190 Z-0.125000
G01 X88.664454 Y172.009690 Z-0.125000
G01 X86.372002 Y169.400300 Z-0.125000
G01 X84.579455 Y166.709680 Z-0.125000
G01 X81.188780 Y165.728450 Z-0.125000
G01 X78.234040 Y163.867810 Z-0.125000
G01 X76.215642 Y161.645560 Z-0.125000
G01 X74.766842 Y159.017390 Z-0.125000
G01 X72.154343 Y156.805280 Z-0.125000
G01 X61.174616 Y143.964410 Z-0.125000
G01 X58.956277 Y139.321060 Z-0.125000
G01 X58.054681 Y135.386400 Z-0.125000
G01 X57.910474 Y129.137290 Z-0.125000
G01 X57.034787 Y124.415010 Z-0.125000
G01 X57.401531 Y120.933950 Z-0.125000
G01 X58.227910 Y118.870870 Z-0.125000
G01 X59.703121 Y116.674820 Z-0.125000
G01 X61.729051 Y114.458590 Z-0.125000
G01 X65.459758 Y111.340360 Z-0.125000
G01 X67.172067 Y108.864030 Z-0.125000
G01 X67.704107 Y105.917130 Z-0.125000
G01 X66.904038 Y101.778700 Z-0.125000
G01 X68.280132 Y93.728310 Z-0.125000
G01 X68.945232 Y92.034480 Z-0.125000
G01 X69.941527 Y90.758510 Z-0.125000
G01 X71.725437 Y89.649040 Z-0.125000
G01 X74.399897 Y88.971680 Z-0.125000
G01 X86.891992 Y88.397870 Z-0.125000
G01 X89.561029 Y86.323840 Z-0.125000
G01 X92.160071 Y84.966620 Z-0.125000
G01 X95.940588 Y83.892700 Z-0.125000
G01 X100.745010 Y83.447530 Z-0.125000
G01 X103.103340 Y81.470300 Z-0.125000
G01 X105.825300 Y80.828700 Z-0.125000
G01 X109.315400 Y81.671850 Z-0.125000
G01 X113.977930 Y84.322010 Z-0.125000
G01 X121.650930 Y84.474550 Z-0.125000
G01 X125.198370 Y85.018240 Z-0.125000
G01 X127.167360 Y86.228840 Z-0.125000
G01 X131.144600 Y87.236480 Z-0.125000
G01 X135.295780 Y88.771840 Z-0.125000
G01 X137.959090 Y90.165610 Z-0.125000
G01 X140.176930 Y91.762630 Z-0.125000
G01 X142.216110 Y93.838370 Z-0.125000
G01 X143.771360 Y96.148400 Z-0.125000
G01 X145.262240 Y99.885030 Z-0.125000
G01 X145.821290 Y104.191560 Z-0.125000
G01 X149.488330 Y108.855700 Z-0.125000
G01 X151.728160 Y113.250000 Z-0.125000
G01 X152.750470 Y116.599800 Z-0.125000
G01 X155.693860 Y132.934170 Z-0.125000
G01 X150.606740 Y137.825670 Z-0.125000
G01 X149.251640 Y139.935750 Z-0.125000
G01 X151.026410 Y146.161770 Z-0.125000
G01 X151.903200 Y152.882760 Z-0.125000
G01 X151.941300 Y156.561950 Z-0.125000
G01 X151.425930 Y158.422690 Z-0.125000
G01 X150.533370 Y160.187520 Z-0.125000
G01 X148.574120 Y162.069340 Z-0.125000
G01 X145.399860 Y163.456280 Z-0.125000
G01 X138.686490 Y164.414510 Z-0.125000
G01 X125.905380 Y168.048110 Z-0.125000
G01 X123.601580 Y169.367870 Z-0.125000
G01 X121.436770 Y171.279420 Z-0.125000
G01 X119.132470 Y174.105510 Z-0.125000
G01 X116.678440 Y177.850680 Z-0.125000
G01 X109.253880 Y178.606060 Z-0.125000
G01 X101.274180 Y178.927720 Z-0.125000
G01 X95.760369 Y178.653160 Z-0.125000
G01 X88.573009 Y172.659020 Z-0.125000
G01 X86.311789 Y170.255810 Z-0.125000
G01 X84.553687 Y167.856710 Z-0.125000
G01 X82.708016 Y167.817110 Z-0.125000
G01 X80.527937 Y167.328150 Z-0.125000
G01 X78.491263 Y166.436500 Z-0.125000
G01 X76.773732 Y165.231820 Z-0.125000
G01 X74.854451 Y162.980350 Z-0.125000
G01 X73.459377 Y159.984930 Z-0.125000
G01 X71.732306 Y158.465140 Z-0.125000
G01 X64.764872 Y150.537160 Z-0.125000
G01 X58.758082 Y142.914260 Z-0.125000
G01 X57.210968 Y139.745420 Z-0.125000
G01 X56.396841 Y137.060120 Z-0.125000
G01 X55.727623 Y129.313700 Z-0.125000
G01 X54.851434 Y124.934060 Z-0.125000
G01 X55.057502 Y121.351280 Z-0.125000
G01 X56.388305 Y118.454480 Z-0.125000
G01 X58.553320 Y116.103890 Z-0.125000
G01 X64.392504 Y111.178150 Z-0.125000
G01 X66.417530 Y108.342110 Z-0.125000
G01 X66.945151 Y106.104190 Z-0.125000
G01 X66.675717 Y103.249170 Z-0.125000
G01 X68.790822 Y92.750870 Z-0.125000
G01 X69.366546 Y91.080530 Z-0.125000
G01 X70.438760 Y89.737180 Z-0.125000
G01 X71.968902 Y88.878460 Z-0.125000
G01 X73.975049 Y88.400350 Z-0.125000
G01 X86.454590 Y87.499760 Z-0.125000
G01 X89.042385 Y85.777200 Z-0.125000
G01 X91.529556 Y84.589100 Z-0.125000
G01 X95.034212 Y83.576840 Z-0.125000
G01 X100.701770 Y82.716820 Z-0.125000
G01 X103.183920 Y80.547990 Z-0.125000
G01 X105.833170 Y79.960110 Z-0.125000
G01 X108.910730 Y80.832590 Z-0.125000
G01 X112.926140 Y83.415060 Z-0.125000
G01 X122.621460 Y83.690420 Z-0.125000
G01 X126.061940 Y84.207600 Z-0.125000
G01 X130.662410 Y86.761050 Z-0.125000
G01 X135.165570 Y88.008300 Z-0.125000
G01 X138.095810 Y89.160650 Z-0.125000
G01 X142.066620 Y91.753870 Z-0.125000
G01 X144.070160 Y93.926210 Z-0.125000
G01 X145.619080 Y96.405250 Z-0.125000
G01 X147.062660 Y100.142280 Z-0.125000
G01 X147.844850 Y104.319670 Z-0.125000
G01 X150.549140 Y108.280950 Z-0.125000
G01 X151.986890 Y111.431510 Z-0.125000
G01 X152.801320 Y114.645550 Z-0.125000
G01 X154.419330 Y125.419710 Z-0.125000
G01 X156.337410 Y132.827500 Z-0.125000
G01 X156.364510 Y133.126050 Z-0.125000
G01 X151.083580 Y138.968750 Z-0.125000
G01 X150.224260 Y140.450090 Z-0.125000
G01 X151.840160 Y146.549470 Z-0.125000
G01 X152.456860 Y152.655070 Z-0.125000
G01 X152.135410 Y159.301360 Z-0.125000
G01 X150.652460 Y161.766640 Z-0.125000
G01 X149.250560 Y162.868370 Z-0.125000
G01 X147.142890 Y163.777700 Z-0.125000
G01 X144.689260 Y163.691400 Z-0.125000
G01 X141.185710 Y164.345750 Z-0.125000
G01 X126.294310 Y169.101070 Z-0.125000
G01 X123.061700 Y171.502380 Z-0.125000
G01 X117.081720 Y177.686920 Z-0.125000
G01 X103.209620 Y179.221690 Z-0.125000
G01 X96.578303 Y179.568350 Z-0.125000
G01 X88.546588 Y173.210780 Z-0.125000
G01 X84.550865 Y168.928750 Z-0.125000
G01 X81.914666 Y169.257940 Z-0.125000
G01 X78.834297 Y168.738350 Z-0.125000
G01 X76.249113 Y167.514700 Z-0.125000
G01 X74.445218 Y165.873490 Z-0.125000
G01 X73.228596 Y163.844340 Z-0.125000
G01 X72.435256 Y161.307260 Z-0.125000
G01 X61.213912 Y148.488990 Z-0.125000
G01 X58.236576 Y144.515970 Z-0.125000
G01 X55.728617 Y140.486100 Z-0.125000
G01 X54.135309 Y135.924190 Z-0.125000
G01 X53.280008 Y129.028760 Z-0.125000
G01 X52.457947 Y125.202450 Z-0.125000
G01 X52.554457 Y121.832360 Z-0.125000
G01 X53.822194 Y119.079070 Z-0.125000
G01 X62.757313 Y111.583510 Z-0.125000
G01 X65.536212 Y108.236720 Z-0.125000
G01 X66.088939 Y106.794150 Z-0.125000
G01 X66.264880 Y104.524600 Z-0.125000
G01 X69.562464 Y90.756630 Z-0.125000
G01 X70.365444 Y89.307930 Z-0.125000
G01 X71.820169 Y88.317060 Z-0.125000
G01 X73.622055 Y87.877110 Z-0.125000
G01 X86.111438 Y86.412940 Z-0.125000
G01 X88.874772 Y84.860300 Z-0.125000
G01 X91.513080 Y83.823140 Z-0.125000
G01 X100.594920 Y81.907670 Z-0.125000
G01 X103.070240 Y79.649370 Z-0.125000
G01 X104.330950 Y79.120140 Z-0.125000
G01 X105.673800 Y78.975730 Z-0.125000
G01 X108.638590 Y79.863070 Z-0.125000
G01 X112.406950 Y82.430370 Z-0.125000
G01 X123.932980 Y82.801340 Z-0.125000
G01 X127.224640 Y83.286480 Z-0.125000
G01 X135.292300 Y87.452920 Z-0.125000
G01 X139.212910 Y88.636300 Z-0.125000
G01 X142.054370 Y90.152490 Z-0.125000
G01 X144.632530 Y92.411700 Z-0.125000
G01 X146.835000 Y95.555830 Z-0.125000
G01 X149.056960 Y101.036310 Z-0.125000
G01 X149.913960 Y104.670810 Z-0.125000
G01 X151.558490 Y107.296260 Z-0.125000
G01 X152.602180 Y109.646760 Z-0.125000
G01 X153.356960 Y112.936510 Z-0.125000
G01 X153.523060 Y117.600550 Z-0.125000
G01 X154.428970 Y124.870860 Z-0.125000
G01 X155.371140 Y128.709820 Z-0.125000
G01 X156.920860 Y132.901670 Z-0.125000
G01 X151.145050 Y141.169880 Z-0.125000
G01 X152.546850 Y145.963860 Z-0.125000
G01 X153.122170 Y150.959290 Z-0.125000
G01 X152.820200 Y156.636900 Z-0.125000
G01 X151.712940 Y162.017950 Z-0.125000
G01 X150.474220 Y163.250240 Z-0.125000
G01 X148.890660 Y164.087570 Z-0.125000
G01 X146.659160 Y163.710680 Z-0.125000
G01 X143.525970 Y164.288610 Z-0.125000
G01 X127.205660 Y170.117860 Z-0.125000
G01 X120.915570 Y175.028330 Z-0.125000
G01 X117.324460 Y177.396800 Z-0.125000
G01 X107.395850 Y179.251010 Z-0.125000
G01 X97.179838 Y180.046970 Z-0.125000
G01 X88.302162 Y173.463940 Z-0.125000
G01 X84.564927 Y169.899240 Z-0.125000
G01 X81.878015 Y170.738270 Z-0.125000
G01 X78.432408 Y170.638970 Z-0.125000
G01 X75.458588 Y169.661760 Z-0.125000
G01 X73.406849 Y168.045950 Z-0.125000
G01 X72.396194 Y166.455460 Z-0.125000
G01 X70.322765 Y161.243510 Z-0.125000
G01 X59.915046 Y149.115950 Z-0.125000
G01 X53.216645 Y139.334470 Z-0.125000
G01 X52.247263 Y136.994120 Z-0.125000
G01 X51.387544 Y133.729170 Z-0.125000
G01 X49.913237 Y125.898500 Z-0.125000
G01 X49.802771 Y122.927390 Z-0.125000
G01 X50.235493 Y121.135950 Z-0.125000
G01 X51.261714 Y119.574580 Z-0.125000
G01 X52.600450 Y118.530280 Z-0.125000
G01 X54.887077 Y117.384060 Z-0.125000
G01 X62.464580 Y110.710260 Z-0.125000
G01 X64.700494 Y108.086710 Z-0.125000
G01 X65.458586 Y106.388360 Z-0.125000
G01 X70.131158 Y89.601990 Z-0.125000
G01 X70.657775 Y88.600570 Z-0.125000
G01 X71.598636 Y87.849610 Z-0.125000
G01 X80.695134 Y85.822270 Z-0.125000
G01 X85.853251 Y85.139000 Z-0.125000
G01 X90.861939 Y83.101720 Z-0.125000
G01 X99.552126 Y81.349240 Z-0.125000
G01 X100.632680 Y80.983100 Z-0.125000
G01 X102.970720 Y78.670460 Z-0.125000
G01 X105.139150 Y77.900320 Z-0.125000
G01 X106.771220 Y78.043620 Z-0.125000
G01 X108.251560 Y78.622860 Z-0.125000
G01 X111.804410 Y81.234260 Z-0.125000
G01 X116.056420 Y81.686160 Z-0.125000
G01 X125.244100 Y81.800140 Z-0.125000
G01 X128.183270 Y82.131640 Z-0.125000
G01 X138.552330 Y87.382040 Z-0.125000
G01 X142.067830 Y88.710940 Z-0.125000
G01 X145.470250 Y91.247310 Z-0.125000
G01 X147.205160 Y93.413430 Z-0.125000
G01 X148.835620 Y96.339960 Z-0.125000
G01 X150.684210 Y100.548170 Z-0.125000
G01 X151.926840 Y104.833110 Z-0.125000
G01 X153.843410 Y109.042030 Z-0.125000
G01 X154.347230 Y112.317520 Z-0.125000
G01 X153.889000 Y117.755320 Z-0.125000
G01 X154.400850 Y124.254380 Z-0.125000
G01 X155.453390 Y128.679610 Z-0.125000
G01 X157.378590 Y132.809400 Z-0.125000
G01 X155.294520 Y136.896210 Z-0.125000
G01 X152.058690 Y141.930100 Z-0.125000
G01 X153.555190 Y146.457160 Z-0.125000
G01 X153.953270 Y151.723730 Z-0.125000
G01 X153.142760 Y157.725900 Z-0.125000
G01 X151.152580 Y163.846570 Z-0.125000
G01 X150.248870 Y164.482250 Z-0.125000
G01 X148.959950 Y163.803790 Z-0.125000
G01 X147.180860 Y163.877590 Z-0.125000
G01 X142.272590 Y165.474320 Z-0.125000
G01 X132.489300 Y169.787170 Z-0.125000
G01 X128.362130 Y171.233760 Z-0.125000
G01 X123.831450 Y174.321560 Z-0.125000
G01 X116.663370 Y177.966310 Z-0.125000
G01 X111.133590 Y179.377350 Z-0.125000
G01 X105.661850 Y180.211970 Z-0.125000
G01 X97.781170 Y180.683160 Z-0.125000
G01 X87.171100 Y173.016470 Z-0.125000
G01 X84.604996 Y170.813700 Z-0.125000
G01 X82.811846 Y171.846850 Z-0.125000
G01 X80.057450 Y172.436130 Z-0.125000
G01 X77.159750 Y172.429130 Z-0.125000
G01 X74.620760 Y171.840550 Z-0.125000
G01 X72.921104 Y170.889540 Z-0.125000
G01 X71.790645 Y169.648920 Z-0.125000
G01 X69.526111 Y165.102780 Z-0.125000
G01 X67.785081 Y160.598720 Z-0.125000
G01 X59.547398 Y150.976710 Z-0.125000
G01 X56.148789 Y146.160330 Z-0.125000
G01 X53.720265 Y141.631660 Z-0.125000
G01 X52.015086 Y140.504020 Z-0.125000
G01 X50.711297 Y138.666080 Z-0.125000
G01 X49.353781 Y135.246580 Z-0.125000
G01 X48.080320 Y125.557590 Z-0.125000
G01 X48.041660 Y122.461550 Z-0.125000
G01 X48.427083 Y120.954010 Z-0.125000
G01 X49.161274 Y119.921160 Z-0.125000
G01 X50.249254 Y119.295020 Z-0.125000
G01 X52.402319 Y118.742390 Z-0.125000
G01 X62.097337 Y109.891630 Z-0.125000
G01 X64.073256 Y107.634030 Z-0.125000
G01 X66.197399 Y102.394670 Z-0.125000
G01 X69.891653 Y90.462830 Z-0.125000
G01 X70.926007 Y88.022260 Z-0.125000
G01 X71.668835 Y87.301420 Z-0.125000
G01 X80.242632 Y84.594530 Z-0.125000
G01 X85.666568 Y83.668930 Z-0.125000
G01 X90.188908 Y82.185780 Z-0.125000
G01 X99.053430 Y80.612160 Z-0.125000
G01 X100.618020 Y79.937120 Z-0.125000
G01 X103.100070 Y77.469030 Z-0.125000
G01 X105.133430 Y76.715350 Z-0.125000
G01 X107.772140 Y77.142350 Z-0.125000
G01 X109.545500 Y78.206030 Z-0.125000
G01 X111.424010 Y79.866020 Z-0.125000
G01 X113.296700 Y80.274940 Z-0.125000
G01 X117.497480 Y80.710370 Z-0.125000
G01 X128.866550 Y80.939940 Z-0.125000
G01 X143.613940 Y87.980380 Z-0.125000
G01 X146.386510 Y90.090360 Z-0.125000
G01 X148.432930 Y92.694630 Z-0.125000
G01 X151.083590 Y97.420730 Z-0.125000
G01 X155.181640 Y108.216880 Z-0.125000
G01 X155.519970 Y111.949390 Z-0.125000
G01 X154.280450 Y118.279140 Z-0.125000
G01 X154.462310 Y124.256110 Z-0.125000
G01 X155.425670 Y128.589650 Z-0.125000
G01 X157.653850 Y132.558970 Z-0.125000
G01 X155.880680 Y137.895430 Z-0.125000
G01 X153.106810 Y142.574430 Z-0.125000
G01 X154.213670 Y145.242870 Z-0.125000
G01 X154.732650 Y147.418230 Z-0.125000
G01 X154.821450 Y152.438060 Z-0.125000
G01 X153.387920 Y158.752140 Z-0.125000
G01 X150.662240 Y164.693460 Z-0.125000
G01 X150.675940 Y164.147360 Z-0.125000
G01 X149.772440 Y163.817270 Z-0.125000
G01 X147.004480 Y164.416390 Z-0.125000
G01 X133.520210 Y171.060560 Z-0.125000
G01 X129.769720 Y172.448610 Z-0.125000
G01 X126.761160 Y174.238750 Z-0.125000
G01 X115.742870 Y178.823750 Z-0.125000
G01 X111.209680 Y180.212510 Z-0.125000
G01 X106.414490 Y181.037980 Z-0.125000
G01 X98.017437 Y181.284220 Z-0.125000
G01 X84.687717 Y171.667320 Z-0.125000
G01 X82.445175 Y173.203290 Z-0.125000
G01 X79.191175 Y174.091930 Z-0.125000
G01 X75.474427 Y174.283130 Z-0.125000
G01 X72.659475 Y173.677680 Z-0.125000
G01 X71.065665 Y172.552240 Z-0.125000
G01 X69.144677 Y169.439740 Z-0.125000
G01 X64.920894 Y159.658860 Z-0.125000
G01 X59.969448 Y153.897910 Z-0.125000
G01 X56.781727 Y149.648820 Z-0.125000
G01 X54.469492 Y145.808550 Z-0.125000
G01 X52.629646 Y141.619610 Z-0.125000
G01 X51.280365 Y141.475000 Z-0.125000
G01 X50.328759 Y140.877890 Z-0.125000
G01 X48.691767 Y134.089410 Z-0.125000
G01 X47.203902 Y124.931950 Z-0.125000
G01 X47.097655 Y122.102640 Z-0.125000
G01 X47.380446 Y120.962440 Z-0.125000
G01 X47.931867 Y120.200730 Z-0.125000
G01 X49.094261 Y119.709470 Z-0.125000
G01 X50.751438 Y119.720070 Z-0.125000
G01 X53.890755 Y115.985550 Z-0.125000
G01 X61.630441 Y109.148560 Z-0.125000
G01 X63.703368 Y106.849680 Z-0.125000
G01 X65.764145 Y101.831760 Z-0.125000
G01 X69.378361 Y91.177500 Z-0.125000
G01 X71.573503 Y86.972500 Z-0.125000
G01 X75.475833 Y84.944060 Z-0.125000
G01 X79.168178 Y83.467340 Z-0.125000
G01 X88.733149 Y81.187540 Z-0.125000
G01 X98.229028 Y79.909760 Z-0.125000
G01 X100.346850 Y78.997720 Z-0.125000
G01 X101.879800 Y77.242930 Z-0.125000
G01 X103.508860 Y76.028620 Z-0.125000
G01 X104.956250 Y75.473380 Z-0.125000
G01 X106.434170 Y75.383280 Z-0.125000
G01 X108.691780 Y76.146200 Z-0.125000
G01 X111.560460 Y78.428200 Z-0.125000
G01 X114.416380 Y79.210300 Z-0.125000
G01 X119.234060 Y79.704780 Z-0.125000
G01 X129.112560 Y79.655280 Z-0.125000
G01 X144.281720 Y86.556640 Z-0.125000
G01 X147.098480 Y88.609880 Z-0.125000
G01 X150.267620 Y92.883980 Z-0.125000
G01 X152.415260 Y96.664190 Z-0.125000
G01 X156.296500 Y106.226050 Z-0.125000
G01 X156.894120 Y108.739230 Z-0.125000
G01 X156.563430 Y113.051280 Z-0.125000
G01 X154.663730 Y118.826200 Z-0.125000
G01 X154.498030 Y123.863300 Z-0.125000
G01 X155.205710 Y128.188210 Z-0.125000
G01 X156.153800 Y130.119850 Z-0.125000
G01 X157.704330 Y131.927760 Z-0.125000
G01 X157.769330 Y132.816400 Z-0.125000
G01 X157.421560 Y135.939450 Z-0.125000
G01 X156.763590 Y138.548130 Z-0.125000
G01 X155.716680 Y141.035400 Z-0.125000
G01 X154.188450 Y143.491640 Z-0.125000
G01 X155.561730 Y146.334410 Z-0.125000
G01 X156.050790 Y149.585100 Z-0.125000
G01 X155.639460 Y153.533820 Z-0.125000
G01 X154.446840 Y157.555460 Z-0.125000
G01 X152.749790 Y161.327140 Z-0.125000
G01 X150.903020 Y164.373460 Z-0.125000
G01 X151.013380 Y163.867030 Z-0.125000
G01 X150.129660 Y163.944630 Z-0.125000
G01 X147.154330 Y165.154020 Z-0.125000
G01 X133.057680 Y173.275710 Z-0.125000
G01 X112.214930 Y180.903040 Z-0.125000
G01 X106.311880 Y182.117860 Z-0.125000
G01 X98.466247 Y182.246900 Z-0.125000
G01 X92.169637 Y178.097510 Z-0.125000
G01 X84.853535 Y172.603880 Z-0.125000
G01 X82.341760 Y174.399840 Z-0.125000
G01 X78.574599 Y175.671500 Z-0.125000
G01 X74.267566 Y176.232560 Z-0.125000
G01 X71.117805 Y175.827760 Z-0.125000
G01 X68.991352 Y173.246290 Z-0.125000
G01 X66.781749 Y169.629960 Z-0.125000
G01 X64.925634 Y165.656630 Z-0.125000
G01 X62.545413 Y159.361830 Z-0.125000
G01 X57.873945 Y153.721990 Z-0.125000
G01 X54.821393 Y149.160980 Z-0.125000
G01 X53.064396 Y145.587140 Z-0.125000
G01 X51.686997 Y141.593620 Z-0.125000
G01 X50.787108 Y142.298290 Z-0.125000
G01 X50.057235 Y141.430840 Z-0.125000
G01 X48.139059 Y134.028270 Z-0.125000
G01 X46.265773 Y124.073360 Z-0.125000
G01 X46.146370 Y121.581370 Z-0.125000
G01 X46.437696 Y120.660890 Z-0.125000
G01 X47.012517 Y120.138490 Z-0.125000
G01 X48.051089 Y119.988360 Z-0.125000
G01 X49.493361 Y120.271850 Z-0.125000
G01 X49.739699 Y120.073220 Z-0.125000
G01 X55.294787 Y113.366280 Z-0.125000
G01 X62.708299 Y106.876360 Z-0.125000
G01 X64.824107 Y102.057370 Z-0.125000
G01 X68.736579 Y91.427410 Z-0.125000
G01 X69.941653 Y89.018470 Z-0.125000
G01 X71.378502 Y86.966030 Z-0.125000
G01 X72.732202 Y85.622370 Z-0.125000
G01 X75.120959 Y83.987890 Z-0.125000
G01 X80.686692 Y81.346070 Z-0.125000
G01 X87.178624 Y79.878390 Z-0.125000
G01 X95.247295 Y79.432810 Z-0.125000
G01 X97.854873 Y78.986530 Z-0.125000
G01 X100.015470 Y77.982610 Z-0.125000
G01 X101.705790 Y76.120370 Z-0.125000
G01 X103.502150 Y74.753610 Z-0.125000
G01 X105.342500 Y74.030870 Z-0.125000
G01 X106.926770 Y73.946670 Z-0.125000
G01 X109.284190 Y74.779870 Z-0.125000
G01 X112.187620 Y77.013580 Z-0.125000
G01 X115.753630 Y78.161210 Z-0.125000
G01 X120.836130 Y78.666240 Z-0.125000
G01 X129.296650 Y78.433460 Z-0.125000
G01 X140.629260 Y83.519970 Z-0.125000
G01 X146.054200 Y85.490770 Z-0.125000
G01 X147.580330 Y86.753790 Z-0.125000
G01 X150.565800 Y90.530490 Z-0.125000
G01 X153.068030 Y94.706770 Z-0.125000
G01 X157.976300 Y105.731080 Z-0.125000
G01 X158.431210 Y107.489590 Z-0.125000
G01 X158.501810 Y109.558000 Z-0.125000
G01 X158.063660 Y112.038440 Z-0.125000
G01 X157.035240 Y115.012460 Z-0.125000
G01 X155.165970 Y118.962790 Z-0.125000
G01 X154.862390 Y120.668070 Z-0.125000
G01 X155.289890 Y124.636580 Z-0.125000
G01 X155.967540 Y127.647260 Z-0.125000
G01 X156.834490 Y129.684130 Z-0.125000
G01 X158.406910 Y131.798430 Z-0.125000
G01 X157.696520 Y139.331150 Z-0.125000
G01 X156.868030 Y141.902370 Z-0.125000
G01 X155.413210 Y144.614390 Z-0.125000
G01 X156.457500 Y146.066300 Z-0.125000
G01 X157.070280 Y147.719360 Z-0.125000
G01 X157.139680 Y151.545270 Z-0.125000
G01 X156.412120 Y154.517180 Z-0.125000
G01 X155.189980 Y157.582390 Z-0.125000
G01 X153.367800 Y160.986220 Z-0.125000
G01 X151.367380 Y163.922580 Z-0.125000
G01 X147.257780 Y166.189730 Z-0.125000
G01 X136.521880 Y173.609160 Z-0.125000
G01 X133.906970 Y175.131880 Z-0.125000
G01 X133.102280 Y175.043080 Z-0.125000
G01 X126.737490 Y176.938560 Z-0.125000
G01 X114.452860 Y180.934800 Z-0.125000
G01 X110.359430 Y182.614880 Z-0.125000
G01 X105.025770 Y183.436250 Z-0.125000
G01 X98.497589 Y183.165910 Z-0.125000
G01 X91.896798 Y178.987090 Z-0.125000
G01 X85.533508 Y174.097300 Z-0.125000
G01 X77.907802 Y177.165220 Z-0.125000
G01 X73.963998 Y178.040200 Z-0.125000
G01 X71.027836 Y178.259720 Z-0.125000
G01 X68.201536 Y175.504320 Z-0.125000
G01 X65.511812 Y171.661850 Z-0.125000
G01 X63.046734 Y166.649340 Z-0.125000
G01 X60.252268 Y159.241550 Z-0.125000
G01 X56.732248 Y154.832890 Z-0.125000
G01 X54.190748 Y150.866490 Z-0.125000
G01 X52.377213 Y146.810620 Z-0.125000
G01 X51.380517 Y142.818610 Z-0.125000
G01 X50.574423 Y143.320930 Z-0.125000
G01 X49.729465 Y142.184940 Z-0.125000
G01 X47.818419 Y135.337010 Z-0.125000
G01 X45.302427 Y123.344020 Z-0.125000
G01 X45.155106 Y121.137430 Z-0.125000
G01 X45.447437 Y120.409160 Z-0.125000
G01 X46.039128 Y120.101570 Z-0.125000
G01 X48.398261 Y120.548550 Z-0.125000
G01 X54.669564 Y112.639550 Z-0.125000
G01 X61.362744 Y106.965860 Z-0.125000
G01 X63.877933 Y101.682420 Z-0.125000
G01 X67.846743 Y91.544940 Z-0.125000
G01 X70.437149 Y87.383320 Z-0.125000
G01 X73.681810 Y84.031710 Z-0.125000
G01 X75.815995 Y82.299510 Z-0.125000
G01 X78.742215 Y80.480660 Z-0.125000
G01 X81.917684 Y79.075540 Z-0.125000
G01 X85.969644 Y78.170830 Z-0.125000
G01 X94.451655 Y78.340340 Z-0.125000
G01 X97.442246 Y77.981530 Z-0.125000
G01 X99.628852 Y76.920060 Z-0.125000
G01 X101.786440 Y74.674210 Z-0.125000
G01 X103.519230 Y73.393720 Z-0.125000
G01 X105.559820 Y72.530380 Z-0.125000
G01 X107.288700 Y72.356450 Z-0.125000
G01 X109.525220 Y72.969630 Z-0.125000
G01 X112.989300 Y75.562250 Z-0.125000
G01 X115.833180 Y76.782690 Z-0.125000
G01 X121.351110 Y77.595610 Z-0.125000
G01 X129.427710 Y77.279080 Z-0.125000
G01 X142.005170 Y82.662440 Z-0.125000
G01 X147.506030 Y84.183340 Z-0.125000
G01 X150.656790 Y87.964160 Z-0.125000
G01 X153.276520 Y92.106300 Z-0.125000
G01 X160.125560 Y106.755380 Z-0.125000
G01 X159.972910 Y110.200680 Z-0.125000
G01 X158.191410 Y115.044380 Z-0.125000
G01 X156.952800 Y120.221670 Z-0.125000
G01 X157.621110 Y127.716730 Z-0.125000
G01 X158.403810 Y129.889680 Z-0.125000
G01 X159.525430 Y131.215660 Z-0.125000
G01 X159.277790 Y135.923880 Z-0.125000
G01 X158.621220 Y140.453950 Z-0.125000
G01 X157.954520 Y143.217790 Z-0.125000
G01 X156.716700 Y145.688390 Z-0.125000
G01 X158.286410 Y147.771060 Z-0.125000
G01 X158.591300 Y150.634320 Z-0.125000
G01 X157.821760 Y153.708660 Z-0.125000
G01 X156.273440 Y157.087790 Z-0.125000
G01 X154.164160 Y160.521440 Z-0.125000
G01 X150.929540 Y164.879890 Z-0.125000
G01 X136.075700 Y176.506240 Z-0.125000
G01 X134.525780 Y176.133670 Z-0.125000
G01 X131.719060 Y176.834120 Z-0.125000
G01 X114.149490 Y182.191400 Z-0.125000
G01 X110.130270 Y184.020210 Z-0.125000
G01 X105.659140 Y184.782920 Z-0.125000
G01 X98.819946 Y184.432950 Z-0.125000
G01 X92.059885 Y180.398640 Z-0.125000
G01 X85.795209 Y175.598320 Z-0.125000
G01 X84.106600 Y176.399790 Z-0.125000
G01 X81.084175 Y177.015590 Z-0.125000
G01 X74.440102 Y179.369100 Z-0.125000
G01 X71.077143 Y180.135230 Z-0.125000
G01 X70.516583 Y179.810260 Z-0.125000
G01 X67.064650 Y177.040190 Z-0.125000
G01 X63.969720 Y172.983710 Z-0.125000
G01 X61.265334 Y167.619130 Z-0.125000
G01 X58.356889 Y159.797290 Z-0.125000
G01 X54.880251 Y154.983330 Z-0.125000
G01 X52.910960 Y151.377440 Z-0.125000
G01 X51.772366 Y148.253390 Z-0.125000
G01 X51.044502 Y144.498480 Z-0.125000
G01 X50.851389 Y144.259780 Z-0.125000
G01 X50.282695 Y144.396050 Z-0.125000
G01 X49.714703 Y143.858590 Z-0.125000
G01 X48.408604 Y140.461590 Z-0.125000
G01 X44.308643 Y122.728030 Z-0.125000
G01 X44.118040 Y120.751100 Z-0.125000
G01 X44.334150 Y120.248080 Z-0.125000
G01 X44.882559 Y120.056280 Z-0.125000
G01 X46.972157 Y120.868800 Z-0.125000
G01 X53.932963 Y111.744780 Z-0.125000
G01 X56.440119 Y109.331920 Z-0.125000
G01 X59.807998 Y106.884220 Z-0.125000
G01 X62.551147 Y101.630400 Z-0.125000
G01 X66.862198 Y91.220970 Z-0.125000
G01 X69.180458 Y87.664500 Z-0.125000
G01 X72.541810 Y84.977390 Z-0.125000
G01 X74.100573 Y82.685740 Z-0.125000
G01 X76.853262 Y80.105580 Z-0.125000
G01 X79.946284 Y78.021100 Z-0.125000
G01 X82.811146 Y76.693010 Z-0.125000
G01 X85.182932 Y76.108450 Z-0.125000
G01 X95.553695 Y77.083550 Z-0.125000
G01 X99.982943 Y75.535740 Z-0.125000
G01 X102.488290 Y73.302730 Z-0.125000
G01 X104.996250 Y71.792180 Z-0.125000
G01 X107.167590 Y71.111710 Z-0.125000
G01 X108.989960 Y71.027010 Z-0.125000
G01 X111.311940 Y71.725050 Z-0.125000
G01 X114.799020 Y74.660210 Z-0.125000
G01 X117.468560 Y75.802620 Z-0.125000
G01 X122.402530 Y76.551770 Z-0.125000
G01 X129.503130 Y76.228510 Z-0.125000
G01 X141.862770 Y81.300870 Z-0.125000
G01 X145.155230 Y82.344960 Z-0.125000
G01 X147.850880 Y82.763230 Z-0.125000
G01 X149.343260 Y83.636000 Z-0.125000
G01 X151.976750 Y87.228830 Z-0.125000
G01 X154.058810 Y90.697630 Z-0.125000
G01 X159.411550 Y102.039280 Z-0.125000
G01 X161.954960 Y106.468230 Z-0.125000
G01 X161.908960 Y108.793920 Z-0.125000
G01 X160.026740 Y115.077880 Z-0.125000
G01 X159.104160 Y121.474910 Z-0.125000
G01 X159.365250 Y127.980800 Z-0.125000
G01 X159.835840 Y129.759790 Z-0.125000
G01 X160.725080 Y131.019490 Z-0.125000
G01 X160.697080 Y131.935950 Z-0.125000
G01 X159.874320 Y140.209690 Z-0.125000
G01 X158.107380 Y146.782160 Z-0.125000
G01 X159.798400 Y148.543170 Z-0.125000
G01 X160.072850 Y150.599930 Z-0.125000
G01 X159.407650 Y152.946810 Z-0.125000
G01 X157.790650 Y156.092760 Z-0.125000
G01 X152.902260 Y162.676280 Z-0.125000
G01 X150.527570 Y166.416220 Z-0.125000
G01 X138.485170 Y177.362710 Z-0.125000
G01 X136.755990 Y177.666690 Z-0.125000
G01 X135.410420 Y177.252440 Z-0.125000
G01 X132.488320 Y177.999390 Z-0.125000
G01 X113.489330 Y183.747920 Z-0.125000
G01 X109.614820 Y185.687300 Z-0.125000
G01 X105.486530 Y186.336730 Z-0.125000
G01 X102.254730 Y186.226770 Z-0.125000
G01 X98.636494 Y185.693820 Z-0.125000
G01 X91.542627 Y181.561000 Z-0.125000
G01 X86.141889 Y177.285280 Z-0.125000
G01 X83.019644 Y178.371150 Z-0.125000
G01 X78.796463 Y178.802770 Z-0.125000
G01 X71.311952 Y181.486990 Z-0.125000
G01 X68.436345 Y180.202470 Z-0.125000
G01 X65.125204 Y177.579020 Z-0.125000
G01 X62.178197 Y173.692360 Z-0.125000
G01 X59.596929 Y168.557740 Z-0.125000
G01 X56.267512 Y159.948290 Z-0.125000
G01 X53.845113 Y156.421940 Z-0.125000
G01 X52.346303 Y153.479560 Z-0.125000
G01 X51.804923 Y152.045220 Z-0.125000
G01 X51.568729 Y149.244220 Z-0.125000
G01 X51.043919 Y147.153320 Z-0.125000
G01 X50.279300 Y145.597270 Z-0.125000
G01 X49.552038 Y145.339890 Z-0.125000
G01 X49.082461 Y144.754120 Z-0.125000
G01 X47.881103 Y141.517790 Z-0.125000
G01 X43.028674 Y120.400790 Z-0.125000
G01 X43.231126 Y120.005220 Z-0.125000
G01 X43.664450 Y119.942820 Z-0.125000
G01 X45.469751 Y120.931380 Z-0.125000
G01 X52.804331 Y111.014430 Z-0.125000
G01 X54.862597 Y108.861770 Z-0.125000
G01 X57.755878 Y106.481440 Z-0.125000
G01 X60.078758 Y103.313510 Z-0.125000
G01 X65.325950 Y91.402960 Z-0.125000
G01 X67.620611 Y87.818170 Z-0.125000
G01 X72.871618 Y84.116180 Z-0.125000
G01 X74.750127 Y80.888690 Z-0.125000
G01 X77.989365 Y77.542510 Z-0.125000
G01 X80.865474 Y75.461340 Z-0.125000
G01 X84.091054 Y73.951890 Z-0.125000
G01 X84.882286 Y73.800450 Z-0.125000
G01 X91.208420 Y74.988650 Z-0.125000
G01 X99.622143 Y74.338620 Z-0.125000
G01 X100.684020 Y74.120800 Z-0.125000
G01 X103.270200 Y71.994250 Z-0.125000
G01 X106.206570 Y70.440400 Z-0.125000
G01 X108.826600 Y69.769580 Z-0.125000
G01 X111.092340 Y69.784380 Z-0.125000
G01 X113.582320 Y70.638180 Z-0.125000
G01 X117.084670 Y73.462670 Z-0.125000
G01 X120.093330 Y75.083890 Z-0.125000
G01 X124.026290 Y75.559090 Z-0.125000
G01 X129.955750 Y75.329130 Z-0.125000
G01 X142.394220 Y80.298850 Z-0.125000
G01 X147.801690 Y81.567190 Z-0.125000
G01 X151.082300 Y83.376910 Z-0.125000
G01 X154.759080 Y89.264600 Z-0.125000
G01 X160.312560 Y100.990370 Z-0.125000
G01 X163.740500 Y106.327740 Z-0.125000
G01 X163.895350 Y107.154820 Z-0.125000
G01 X163.786190 Y108.209260 Z-0.125000
G01 X162.250720 Y111.906630 Z-0.125000
G01 X161.477070 Y116.278230 Z-0.125000
G01 X161.071160 Y127.311280 Z-0.125000
G01 X161.319900 Y129.520580 Z-0.125000
G01 X161.980590 Y130.694330 Z-0.125000
G01 X161.941890 Y132.071620 Z-0.125000
G01 X161.108380 Y140.457930 Z-0.125000
G01 X159.752070 Y146.409490 Z-0.125000
G01 X161.383740 Y149.011440 Z-0.125000
G01 X161.637210 Y150.893970 Z-0.125000
G01 X159.781500 Y154.691360 Z-0.125000
G01 X154.055490 Y161.723660 Z-0.125000
G01 X150.135490 Y168.336510 Z-0.125000
G01 X141.021510 Y177.698720 Z-0.125000
G01 X140.417170 Y178.032230 Z-0.125000
G01 X138.007120 Y178.798050 Z-0.125000
G01 X135.857170 Y178.445270 Z-0.125000
G01 X131.339350 Y179.687600 Z-0.125000
G01 X112.927630 Y185.488060 Z-0.125000
G01 X110.326980 Y187.088810 Z-0.125000
G01 X107.124200 Y187.930450 Z-0.125000
G01 X102.871800 Y187.933450 Z-0.125000
G01 X98.347547 Y187.081360 Z-0.125000
G01 X90.900795 Y182.857860 Z-0.125000
G01 X86.087028 Y178.932410 Z-0.125000
G01 X82.622441 Y180.158880 Z-0.125000
G01 X76.298516 Y180.439960 Z-0.125000
G01 X71.713613 Y182.253410 Z-0.125000
G01 X68.038540 Y181.373600 Z-0.125000
G01 X64.538103 Y179.262500 Z-0.125000
G01 X62.154266 Y176.786370 Z-0.125000
G01 X59.911323 Y173.322290 Z-0.125000
G01 X54.520627 Y160.831700 Z-0.125000
G01 X51.759804 Y155.787860 Z-0.125000
G01 X51.496395 Y152.058160 Z-0.125000
G01 X50.838826 Y149.355480 Z-0.125000
G01 X49.833192 Y147.336780 Z-0.125000
G01 X48.356676 Y145.831550 Z-0.125000
G01 X47.324229 Y143.055160 Z-0.125000
G01 X43.536381 Y125.337460 Z-0.125000
G01 X41.872576 Y120.169400 Z-0.125000
G01 X42.287523 Y119.729550 Z-0.125000
G01 X44.147755 Y120.663480 Z-0.125000
G01 X51.327584 Y110.475490 Z-0.125000
G01 X55.148671 Y106.495530 Z-0.125000
G01 X60.157158 Y99.347240 Z-0.125000
G01 X63.700074 Y91.152740 Z-0.125000
G01 X65.772199 Y87.852040 Z-0.125000
G01 X68.960120 Y85.561400 Z-0.125000
G01 X73.222265 Y83.113490 Z-0.125000
G01 X74.672973 Y79.964130 Z-0.125000
G01 X77.454483 Y76.340780 Z-0.125000
G01 X80.808203 Y73.316640 Z-0.125000
G01 X83.903133 Y71.530320 Z-0.125000
G01 X84.631400 Y71.285390 Z-0.125000
G01 X91.479632 Y72.454010 Z-0.125000
G01 X101.052940 Y72.874180 Z-0.125000
G01 X103.693760 Y70.941440 Z-0.125000
G01 X106.037120 Y69.687160 Z-0.125000
G01 X108.773850 Y68.755340 Z-0.125000
G01 X111.199560 Y68.408580 Z-0.125000
G01 X114.627090 Y68.877150 Z-0.125000
G01 X119.115380 Y72.216710 Z-0.125000
G01 X122.388770 Y73.913360 Z-0.125000
G01 X125.346420 Y74.590710 Z-0.125000
G01 X129.953420 Y74.389960 Z-0.125000
G01 X142.547540 Y79.274430 Z-0.125000
G01 X148.739710 Y80.798740 Z-0.125000
G01 X150.909850 Y81.923380 Z-0.125000
G01 X152.744370 Y83.343460 Z-0.125000
G01 X155.670190 Y88.375650 Z-0.125000
G01 X161.757820 Y101.174730 Z-0.125000
G01 X163.587820 Y104.050540 Z-0.125000
G01 X165.774330 Y106.695070 Z-0.125000
G01 X164.736160 Y107.816190 Z-0.125000
G01 X163.931070 Y109.843530 Z-0.125000
G01 X163.000150 Y115.884160 Z-0.125000
G01 X163.166650 Y122.796560 Z-0.125000
G01 X162.879340 Y128.471660 Z-0.125000
G01 X163.364580 Y130.811810 Z-0.125000
G01 X162.506870 Y139.968960 Z-0.125000
G01 X161.446410 Y146.091840 Z-0.125000
G01 X162.826020 Y148.457200 Z-0.125000
G01 X163.175790 Y150.997190 Z-0.125000
G01 X162.906250 Y152.024620 Z-0.125000
G01 X161.197260 Y154.412370 Z-0.125000
G01 X155.281150 Y160.870760 Z-0.125000
G01 X151.403120 Y167.141570 Z-0.125000
G01 X149.530640 Y170.839030 Z-0.125000
G01 X143.399630 Y177.776640 Z-0.125000
G01 X139.628950 Y179.691310 Z-0.125000
G01 X138.094490 Y179.939950 Z-0.125000
G01 X136.538340 Y179.520680 Z-0.125000
G01 X132.802910 Y180.593610 Z-0.125000
G01 X112.825000 Y187.255190 Z-0.125000
G01 X111.011160 Y188.533270 Z-0.125000
G01 X109.271440 Y189.325310 Z-0.125000
G01 X105.828750 Y189.916300 Z-0.125000
G01 X102.590310 Y189.728110 Z-0.125000
G01 X98.451384 Y188.863060 Z-0.125000
G01 X90.714611 Y184.665980 Z-0.125000
G01 X85.858466 Y180.772060 Z-0.125000
G01 X82.364857 Y181.966200 Z-0.125000
G01 X75.037909 Y181.858740 Z-0.125000
G01 X73.308227 Y182.041310 Z-0.125000
G01 X71.761314 Y182.648270 Z-0.125000
G01 X70.328481 Y182.612670 Z-0.125000
G01 X66.045449 Y181.685960 Z-0.125000
G01 X62.735011 Y179.689850 Z-0.125000
G01 X60.503215 Y177.313640 Z-0.125000
G01 X58.682951 Y174.491160 Z-0.125000
G01 X51.621923 Y159.430250 Z-0.125000
G01 X51.466770 Y155.704860 Z-0.125000
G01 X50.890945 Y152.536320 Z-0.125000
G01 X49.653737 Y149.465800 Z-0.125000
G01 X47.492839 Y147.045910 Z-0.125000
G01 X46.764372 Y145.297950 Z-0.125000
G01 X42.744447 Y125.499690 Z-0.125000
G01 X40.666298 Y119.714240 Z-0.125000
G01 X41.127841 Y119.513390 Z-0.125000
G01 X42.466678 Y120.506570 Z-0.125000
G01 X44.505361 Y117.861440 Z-0.125000
G01 X49.797743 Y109.825400 Z-0.125000
G01 X52.933144 Y105.983330 Z-0.125000
G01 X59.521883 Y96.089970 Z-0.125000
G01 X61.983246 Y90.484370 Z-0.125000
G01 X63.652072 Y87.772660 Z-0.125000
G01 X68.120284 Y84.869630 Z-0.125000
G01 X73.334537 Y82.188750 Z-0.125000
G01 X75.188443 Y78.065190 Z-0.125000
G01 X77.815503 Y74.200720 Z-0.125000
G01 X80.808705 Y71.041110 Z-0.125000
G01 X84.148868 Y68.614300 Z-0.125000
G01 X89.056530 Y69.705490 Z-0.125000
G01 X101.356820 Y71.534490 Z-0.125000
G01 X107.147900 Y68.427910 Z-0.125000
G01 X109.999400 Y67.527620 Z-0.125000
G01 X112.937980 Y67.080040 Z-0.125000
G01 X115.521150 Y67.231270 Z-0.125000
G01 X121.129260 Y71.107390 Z-0.125000
G01 X125.018340 Y73.028880 Z-0.125000
G01 X127.787200 Y73.643170 Z-0.125000
G01 X130.378100 Y73.642170 Z-0.125000
G01 X142.686120 Y78.365260 Z-0.125000
G01 X149.262710 Y79.889380 Z-0.125000
G01 X151.795780 Y81.211940 Z-0.125000
G01 X153.965910 Y83.073780 Z-0.125000
G01 X156.236170 Y86.968080 Z-0.125000
G01 X162.132400 Y99.620950 Z-0.125000
G01 X164.042740 Y102.723110 Z-0.125000
G01 X166.447760 Y105.850980 Z-0.125000
G01 X165.693190 Y107.082870 Z-0.125000
G01 X165.063230 Y109.009280 Z-0.125000
G01 X164.369210 Y114.283480 Z-0.125000
G01 X164.442410 Y118.430540 Z-0.125000
G01 X165.071460 Y123.333590 Z-0.125000
G01 X164.631210 Y128.501240 Z-0.125000
G01 X164.835670 Y130.544850 Z-0.125000
G01 X163.108090 Y145.853300 Z-0.125000
G01 X164.273600 Y147.954640 Z-0.125000
G01 X164.618150 Y150.327030 Z-0.125000
G01 X164.212340 Y151.995960 Z-0.125000
G01 X163.264350 Y153.485930 Z-0.125000
G01 X156.967140 Y159.425840 Z-0.125000
G01 X151.433140 Y168.523540 Z-0.125000
G01 X148.709970 Y173.938540 Z-0.125000
G01 X145.481180 Y177.822900 Z-0.125000
G01 X140.119210 Y180.758970 Z-0.125000
G01 X138.599110 Y181.053910 Z-0.125000
G01 X136.768100 Y180.688470 Z-0.125000
G01 X133.576560 Y181.638470 Z-0.125000
G01 X112.407530 Y189.347660 Z-0.125000
G01 X109.451090 Y191.274390 Z-0.125000
G01 X105.984790 Y191.957270 Z-0.125000
G01 X102.253080 Y191.676580 Z-0.125000
G01 X97.966634 Y190.574940 Z-0.125000
G01 X89.820035 Y186.223900 Z-0.125000
G01 X87.349132 Y184.422710 Z-0.125000
G01 X85.682515 Y182.730780 Z-0.125000
G01 X83.216231 Y183.615910 Z-0.125000
G01 X81.422178 Y183.887350 Z-0.125000
G01 X74.744765 Y183.208190 Z-0.125000
G01 X71.862630 Y183.261590 Z-0.125000
G01 X65.205804 Y182.333980 Z-0.125000
G01 X63.180376 Y181.534510 Z-0.125000
G01 X61.057539 Y180.077370 Z-0.125000
G01 X59.307069 Y178.204570 Z-0.125000
G01 X57.574575 Y175.550800 Z-0.125000
G01 X51.652944 Y163.358570 Z-0.125000
G01 X51.096200 Y157.266720 Z-0.125000
G01 X50.045777 Y153.011910 Z-0.125000
G01 X48.559118 Y150.163410 Z-0.125000
G01 X46.321799 Y148.138290 Z-0.125000
G01 X45.866783 Y147.214600 Z-0.125000
G01 X41.947984 Y125.805960 Z-0.125000
G01 X39.378867 Y119.326990 Z-0.125000
G01 X39.619179 Y119.101040 Z-0.125000
G01 X40.738793 Y120.008560 Z-0.125000
G01 X41.024395 Y119.802890 Z-0.125000
G01 X43.949109 Y116.032010 Z-0.125000
G01 X56.782440 Y95.998870 Z-0.125000
G01 X61.470277 Y87.373860 Z-0.125000
G01 X67.560016 Y83.875830 Z-0.125000
G01 X73.796974 Y80.897790 Z-0.125000
G01 X75.153486 Y77.123700 Z-0.125000
G01 X77.672089 Y72.664030 Z-0.125000
G01 X80.819139 Y68.392740 Z-0.125000
G01 X83.665925 Y66.126700 Z-0.125000
G01 X102.147540 Y70.245440 Z-0.125000
G01 X105.084900 Y68.561960 Z-0.125000
G01 X108.942850 Y66.990640 Z-0.125000
G01 X112.724070 Y65.973060 Z-0.125000
G01 X115.884270 Y65.607520 Z-0.125000
G01 X123.486380 Y70.339740 Z-0.125000
G01 X126.470940 Y71.863560 Z-0.125000
G01 X128.879080 Y72.638820 Z-0.125000
G01 X132.261620 Y73.197270 Z-0.125000
G01 X143.494920 Y77.796030 Z-0.125000
G01 X150.098120 Y79.117200 Z-0.125000
G01 X152.284220 Y80.244240 Z-0.125000
G01 X154.443110 Y82.070330 Z-0.125000
G01 X156.124090 Y84.306950 Z-0.125000
G01 X162.865370 Y98.936740 Z-0.125000
G01 X164.926450 Y102.486590 Z-0.125000
G01 X167.118280 Y104.937000 Z-0.125000
G01 X166.101090 Y108.004620 Z-0.125000
G01 X165.571360 Y111.994820 Z-0.125000
G01 X165.748410 Y117.694810 Z-0.125000
G01 X166.869130 Y123.585620 Z-0.125000
G01 X166.362290 Y130.610390 Z-0.125000
G01 X164.709640 Y145.270710 Z-0.125000
G01 X165.825530 Y147.814120 Z-0.125000
G01 X166.071570 Y149.960360 Z-0.125000
G01 X165.504480 Y152.023340 Z-0.125000
G01 X164.396520 Y153.629310 Z-0.125000
G01 X158.608950 Y158.221940 Z-0.125000
G01 X155.628100 Y163.651400 Z-0.125000
G01 X151.440670 Y170.116420 Z-0.125000
G01 X147.635050 Y177.507140 Z-0.125000
G01 X140.437850 Y181.802540 Z-0.125000
G01 X138.774140 Y182.140360 Z-0.125000
G01 X136.401750 Y181.885890 Z-0.125000
G01 X134.213640 Y182.635350 Z-0.125000
G01 X112.453630 Y191.451510 Z-0.125000
G01 X109.358090 Y193.496820 Z-0.125000
G01 X105.752820 Y194.177290 Z-0.125000
G01 X101.858020 Y193.778910 Z-0.125000
G01 X97.359678 Y192.425710 Z-0.125000
G01 X88.796425 Y187.908880 Z-0.125000
G01 X86.607108 Y186.296590 Z-0.125000
G01 X85.147563 Y184.687700 Z-0.125000
G01 X81.875788 Y185.744160 Z-0.125000
G01 X78.834785 Y185.639820 Z-0.125000
G01 X63.363447 Y182.574390 Z-0.125000
G01 X61.478411 Y181.818010 Z-0.125000
G01 X59.524284 Y180.413990 Z-0.125000
G01 X57.928465 Y178.602750 Z-0.125000
G01 X56.596356 Y176.494980 Z-0.125000
G01 X52.119809 Y167.246540 Z-0.125000
G01 X51.221126 Y163.966330 Z-0.125000
G01 X50.294625 Y157.277570 Z-0.125000
G01 X48.902263 Y153.183130 Z-0.125000
G01 X47.224097 Y150.634500 Z-0.125000
G01 X44.685710 Y148.857720 Z-0.125000
G01 X44.422502 Y148.359220 Z-0.125000
G01 X40.945764 Y125.302650 Z-0.125000
G01 X38.002472 Y118.787720 Z-0.125000
G01 X38.194380 Y118.643210 Z-0.125000
G01 X39.171093 Y119.323870 Z-0.125000
G01 X43.314437 Y114.080000 Z-0.125000
G01 X47.508896 Y106.607940 Z-0.125000
G01 X54.408244 Y95.394330 Z-0.125000
G01 X58.836287 Y87.057630 Z-0.125000
G01 X67.416511 Y82.567420 Z-0.125000
G01 X74.036282 Y79.758500 Z-0.125000
G01 X75.516715 Y75.341800 Z-0.125000
G01 X78.728437 Y68.493570 Z-0.125000
G01 X80.984736 Y65.605410 Z-0.125000
G01 X83.536580 Y63.774400 Z-0.125000
G01 X95.150979 Y66.695100 Z-0.125000
G01 X102.459050 Y68.947680 Z-0.125000
G01 X109.980210 Y65.868210 Z-0.125000
G01 X116.455170 Y64.199890 Z-0.125000
G01 X128.615070 Y71.115210 Z-0.125000
G01 X134.129790 Y72.580370 Z-0.125000
G01 X136.973960 Y74.508790 Z-0.125000
G01 X143.636210 Y77.144590 Z-0.125000
G01 X145.820410 Y77.690290 Z-0.125000
G01 X148.785690 Y77.774290 Z-0.125000
G01 X150.918470 Y78.350520 Z-0.125000
G01 X153.128280 Y79.515420 Z-0.125000
G01 X154.919420 Y81.047870 Z-0.125000
G01 X157.184960 Y84.231980 Z-0.125000
G01 X164.021540 Y99.761260 Z-0.125000
G01 X165.382270 Y101.743210 Z-0.125000
G01 X167.792920 Y104.334010 Z-0.125000
G01 X166.908790 Y107.702500 Z-0.125000
G01 X166.543050 Y112.023890 Z-0.125000
G01 X167.067760 Y117.879540 Z-0.125000
G01 X168.619800 Y123.270240 Z-0.125000
G01 X167.998280 Y130.607230 Z-0.125000
G01 X167.104120 Y135.593620 Z-0.125000
G01 X166.300840 Y145.179880 Z-0.125000
G01 X167.501590 Y148.367100 Z-0.125000
G01 X167.522990 Y149.944040 Z-0.125000
G01 X167.110350 Y151.501600 Z-0.125000
G01 X166.056220 Y153.277680 Z-0.125000
G01 X164.727020 Y154.618420 Z-0.125000
G01 X163.005070 Y155.771580 Z-0.125000
G01 X160.471200 Y156.872310 Z-0.125000
G01 X156.571880 Y164.026530 Z-0.125000
G01 X151.611000 Y171.578430 Z-0.125000
G01 X149.167710 Y176.348710 Z-0.125000
G01 X146.429580 Y179.226130 Z-0.125000
G01 X140.429620 Y182.888570 Z-0.125000
G01 X138.784190 Y183.199980 Z-0.125000
G01 X136.196600 Y183.005160 Z-0.125000
G01 X128.711390 Y186.066170 Z-0.125000
G01 X112.208610 Y193.909910 Z-0.125000
G01 X110.575030 Y195.243920 Z-0.125000
G01 X108.612970 Y196.124540 Z-0.125000
G01 X104.649380 Y196.534360 Z-0.125000
G01 X99.391844 Y195.471280 Z-0.125000
G01 X95.366195 Y193.829170 Z-0.125000
G01 X88.986234 Y190.541620 Z-0.125000
G01 X85.910886 Y188.450010 Z-0.125000
G01 X84.454254 Y186.745530 Z-0.125000
G01 X81.342051 Y187.759200 Z-0.125000
G01 X78.214182 Y187.539780 Z-0.125000
G01 X70.562768 Y185.292300 Z-0.125000
G01 X67.068958 Y183.821700 Z-0.125000
G01 X61.190910 Y182.632690 Z-0.125000
G01 X59.537248 Y181.817350 Z-0.125000
G01 X57.844220 Y180.363720 Z-0.125000
G01 X55.535299 Y176.894010 Z-0.125000
G01 X52.140105 Y169.534220 Z-0.125000
G01 X50.848266 Y165.517710 Z-0.125000
G01 X49.557431 Y158.270200 Z-0.125000
G01 X48.088949 Y154.219740 Z-0.125000
G01 X46.980482 Y152.364530 Z-0.125000
G01 X45.645963 Y150.878070 Z-0.125000
G01 X42.541995 Y149.140660 Z-0.125000
G01 X41.548412 Y136.163220 Z-0.125000
G01 X40.152133 Y125.761430 Z-0.125000
G01 X36.529883 Y118.090430 Z-0.125000
G01 X37.261764 Y118.575370 Z-0.125000
G01 X37.605109 Y118.294290 Z-0.125000
G01 X40.332794 Y115.271760 Z-0.125000
G01 X42.365552 Y112.386110 Z-0.125000
G01 X46.026565 Y105.043900 Z-0.125000
G01 X52.601748 Y93.828990 Z-0.125000
G01 X55.986499 Y86.655890 Z-0.125000
G01 X66.532500 Y81.510720 Z-0.125000
G01 X74.207915 Y78.470520 Z-0.125000
G01 X77.722512 Y67.574150 Z-0.125000
G01 X79.845751 Y64.354090 Z-0.125000
G01 X82.723266 Y61.641870 Z-0.125000
G01 X92.884647 Y64.171020 Z-0.125000
G01 X103.173670 Y67.617830 Z-0.125000
G01 X114.232830 Y63.624020 Z-0.125000
G01 X116.880680 Y62.989040 Z-0.125000
G01 X121.307310 Y65.073820 Z-0.125000
G01 X130.701970 Y70.501370 Z-0.125000
G01 X132.422210 Y71.183740 Z-0.125000
G01 X134.479670 Y71.356170 Z-0.125000
G01 X136.250830 Y71.963030 Z-0.125000
G01 X137.805470 Y73.057030 Z-0.125000
G01 X139.370060 Y74.877400 Z-0.125000
G01 X145.417020 Y77.099150 Z-0.125000
G01 X148.509740 Y76.917480 Z-0.125000
G01 X151.373400 Y77.457060 Z-0.125000
G01 X153.615840 Y78.536700 Z-0.125000
G01 X155.413910 Y80.013120 Z-0.125000
G01 X157.924480 Y83.720530 Z-0.125000
G01 X163.643960 Y98.021440 Z-0.125000
G01 X165.393630 Y100.474970 Z-0.125000
G01 X168.492670 Y103.570600 Z-0.125000
G01 X167.574810 Y108.381050 Z-0.125000
G01 X167.573810 Y113.602840 Z-0.125000
G01 X168.491480 Y118.446430 Z-0.125000
G01 X170.245360 Y123.049610 Z-0.125000
G01 X169.729690 Y130.615660 Z-0.125000
G01 X168.953420 Y133.282390 Z-0.125000
G01 X168.474100 Y136.525750 Z-0.125000
G01 X167.879100 Y145.158990 Z-0.125000
G01 X169.024220 Y148.368210 Z-0.125000
G01 X168.636890 Y151.285390 Z-0.125000
G01 X167.570900 Y153.187400 Z-0.125000
G01 X166.202840 Y154.667630 Z-0.125000
G01 X164.413110 Y155.989390 Z-0.125000
G01 X161.746780 Y157.309150 Z-0.125000
G01 X157.268030 Y165.021020 Z-0.125000
G01 X152.370710 Y172.222040 Z-0.125000
G01 X149.974220 Y176.488500 Z-0.125000
G01 X147.493570 Y178.358170 Z-0.125000
G01 X144.850550 Y181.156670 Z-0.125000
G01 X140.319270 Y183.935990 Z-0.125000
G01 X138.822470 Y184.220890 Z-0.125000
G01 X135.620690 Y184.188590 Z-0.125000
G01 X134.171480 Y184.764410 Z-0.125000
G01 X125.867120 Y188.790780 Z-0.125000
G01 X116.302350 Y194.197260 Z-0.125000
G01 X112.199780 Y195.355930 Z-0.125000
G01 X108.989060 Y196.792590 Z-0.125000
G01 X105.969150 Y197.473247 Z-0.125000
G01 X103.019230 Y197.671774 Z-0.125000
G01 X100.241630 Y197.472137 Z-0.125000
G01 X97.152526 Y196.804140 Z-0.125000
G01 X87.353068 Y192.271250 Z-0.125000
G01 X84.692266 Y190.383900 Z-0.125000
G01 X83.599164 Y188.901550 Z-0.125000
G01 X80.704978 Y189.847940 Z-0.125000
G01 X77.821840 Y189.608130 Z-0.125000
