%
(Header)
(Generated by gcodetools from Inkscape.)
(Using default header. To add your own header create file "header" in the output dir.)
M3
(Header end.)
G21 (All units in mm)

(Start cutting path id: line650)
(Change tool to Default tool)

G00 Z3.000000
G00 X80.333338 Y159.013284

G00 Z4.875000 (Fast pre-penetrate)
G01 Z-0.125000 F400.0(Penetrate)
G01 X29.507356 Y133.116154 Z-0.125000 F800.000000
G00 Z3.000000

(End cutting path id: line650)


(Start cutting path id: line576)
(Change tool to Default tool)

G00 Z3.000000
G00 X29.507356 Y133.116154

G00 Z4.875000 (Fast pre-penetrate)
G01 Z-0.125000 F400.0(Penetrate)
G01 X103.824203 Y30.827784 Z-0.125000 F800.000000
G00 Z3.000000

(End cutting path id: line576)


(Start cutting path id: line364)
(Change tool to Default tool)

G00 Z3.000000
G00 X103.824203 Y30.827784

G00 Z4.875000 (Fast pre-penetrate)
G01 Z-0.125000 F400.0(Penetrate)
G01 X63.062978 Y156.277934 Z-0.125000 F800.000000
G00 Z3.000000

(End cutting path id: line364)


(Start cutting path id: line628)
(Change tool to Default tool)

G00 Z3.000000
G00 X63.062978 Y156.277934

G00 Z4.875000 (Fast pre-penetrate)
G01 Z-0.125000 F400.0(Penetrate)
G01 X147.880523 Y94.654384 Z-0.125000 F800.000000
G00 Z3.000000

(End cutting path id: line628)


(Start cutting path id: line260)
(Change tool to Default tool)

G00 Z3.000000
G00 X147.880523 Y94.654384

G00 Z4.875000 (Fast pre-penetrate)
G01 Z-0.125000 F400.0(Penetrate)
G01 X134.347603 Y53.004344 Z-0.125000 F800.000000
G00 Z3.000000

(End cutting path id: line260)


(Start cutting path id: line316)
(Change tool to Default tool)

G00 Z3.000000
G00 X134.347603 Y53.004344

G00 Z4.875000 (Fast pre-penetrate)
G01 Z-0.125000 F400.0(Penetrate)
G01 X103.824203 Y30.827784 Z-0.125000 F800.000000
G00 Z3.000000

(End cutting path id: line316)


(Start cutting path id: line366)
(Change tool to Default tool)

G00 Z3.000000
G00 X102.314053 Y30.316854

G00 Z4.875000 (Fast pre-penetrate)
G01 Z-0.125000 F400.0(Penetrate)
G01 X120.705033 Y146.432964 Z-0.125000 F800.000000
G00 Z3.000000

(End cutting path id: line366)


(Start cutting path id: line184)
(Change tool to Default tool)

G00 Z3.000000
G00 X120.705033 Y146.432964

G00 Z4.875000 (Fast pre-penetrate)
G01 Z-0.125000 F400.0(Penetrate)
G01 X19.184087 Y113.446814 Z-0.125000 F800.000000
G00 Z3.000000

(End cutting path id: line184)


(Start cutting path id: line548)
(Change tool to Default tool)

G00 Z3.000000
G00 X19.184087 Y113.446814

G00 Z4.875000 (Fast pre-penetrate)
G01 Z-0.125000 F400.0(Penetrate)
G01 X120.705033 Y39.687524 Z-0.125000 F800.000000
G00 Z3.000000

(End cutting path id: line548)


(Start cutting path id: line340)
(Change tool to Default tool)

G00 Z3.000000
G00 X120.705033 Y39.687524

G00 Z4.875000 (Fast pre-penetrate)
G01 Z-0.125000 F400.0(Penetrate)
G01 X144.670883 Y113.446814 Z-0.125000 F800.000000
G00 Z3.000000

(End cutting path id: line340)


(Start cutting path id: line236)
(Change tool to Default tool)

G00 Z3.000000
G00 X144.670883 Y113.446814

G00 Z4.875000 (Fast pre-penetrate)
G01 Z-0.125000 F400.0(Penetrate)
G01 X43.149929 Y39.687524 Z-0.125000 F800.000000
G00 Z3.000000

(End cutting path id: line236)


(Start cutting path id: line444)
(Change tool to Default tool)

G00 Z3.000000
G00 X43.149929 Y39.687524

G00 Z4.875000 (Fast pre-penetrate)
G01 Z-0.125000 F400.0(Penetrate)
G01 X19.184087 Y113.446814 Z-0.125000 F800.000000
G00 Z3.000000

(End cutting path id: line444)


(Start cutting path id: line550)
(Change tool to Default tool)

G00 Z3.000000
G00 X19.695024 Y114.956974

G00 Z4.875000 (Fast pre-penetrate)
G01 Z-0.125000 F400.0(Penetrate)
G01 X63.062978 Y29.842564 Z-0.125000 F800.000000
G00 Z3.000000

(End cutting path id: line550)


(Start cutting path id: line416)
(Change tool to Default tool)

G00 Z3.000000
G00 X63.062978 Y29.842564

G00 Z4.875000 (Fast pre-penetrate)
G01 Z-0.125000 F400.0(Penetrate)
G01 X15.974437 Y94.654384 Z-0.125000 F800.000000
G00 Z3.000000

(End cutting path id: line416)


(Start cutting path id: line524)
(Change tool to Default tool)

G00 Z3.000000
G00 X15.974437 Y94.654384

G00 Z4.875000 (Fast pre-penetrate)
G01 Z-0.125000 F400.0(Penetrate)
G01 X29.507356 Y53.004344 Z-0.125000 F800.000000
G00 Z3.000000

(End cutting path id: line524)


(Start cutting path id: line468)
(Change tool to Default tool)

G00 Z3.000000
G00 X29.507356 Y53.004344

G00 Z4.875000 (Fast pre-penetrate)
G01 Z-0.125000 F400.0(Penetrate)
G01 X60.030748 Y30.827784 Z-0.125000 F800.000000
G00 Z3.000000

(End cutting path id: line468)


(Start cutting path id: line420)
(Change tool to Default tool)

G00 Z3.000000
G00 X60.030748 Y30.827784

G00 Z4.875000 (Fast pre-penetrate)
G01 Z-0.125000 F400.0(Penetrate)
G01 X100.791968 Y156.277934 Z-0.125000 F800.000000
G00 Z3.000000

(End cutting path id: line420)


(Start cutting path id: line156)
(Change tool to Default tool)

G00 Z3.000000
G00 X100.791968 Y156.277934

G00 Z4.875000 (Fast pre-penetrate)
G01 Z-0.125000 F400.0(Penetrate)
G01 X15.974437 Y94.654384 Z-0.125000 F800.000000
G00 Z3.000000

(End cutting path id: line156)


(Start cutting path id: line522)
(Change tool to Default tool)

G00 Z3.000000
G00 X15.955173 Y93.060244

G00 Z4.875000 (Fast pre-penetrate)
G01 Z-0.125000 F400.0(Penetrate)
G01 X81.927478 Y27.087944 Z-0.125000 F800.000000
G00 Z3.000000

(End cutting path id: line522)


(Start cutting path id: line392)
(Change tool to Default tool)

G00 Z3.000000
G00 X81.927478 Y27.087944

G00 Z4.875000 (Fast pre-penetrate)
G01 Z-0.125000 F400.0(Penetrate)
G01 X81.927478 Y159.032544 Z-0.125000 F800.000000
G00 Z3.000000

(End cutting path id: line392)


(Start cutting path id: line132)
(Change tool to Default tool)

G00 Z3.000000
G00 X81.927478 Y159.032544

G00 Z4.875000 (Fast pre-penetrate)
G01 Z-0.125000 F400.0(Penetrate)
G01 X81.927478 Y159.032544 Z-0.125000 F800.000000
G00 Z3.000000

(End cutting path id: line132)


(Start cutting path id: line134)
(Change tool to Default tool)

G00 Z3.000000
G00 X83.521618 Y159.013284

G00 Z4.875000 (Fast pre-penetrate)
G01 Z-0.125000 F400.0(Penetrate)
G01 X134.347603 Y133.116154 Z-0.125000 F800.000000
G00 Z3.000000

(End cutting path id: line134)


(Start cutting path id: line208)
(Change tool to Default tool)

G00 Z3.000000
G00 X134.347603 Y133.116154

G00 Z4.875000 (Fast pre-penetrate)
G01 Z-0.125000 F400.0(Penetrate)
G01 X60.030748 Y30.827784 Z-0.125000 F800.000000
G00 Z3.000000

(End cutting path id: line208)


(Start cutting path id: line422)
(Change tool to Default tool)

G00 Z3.000000
G00 X58.533378 Y31.375064

G00 Z4.875000 (Fast pre-penetrate)
G01 Z-0.125000 F400.0(Penetrate)
G01 X143.612673 Y116.454344 Z-0.125000 F800.000000
G00 Z3.000000

(End cutting path id: line422)


(Start cutting path id: line232)
(Change tool to Default tool)

G00 Z3.000000
G00 X143.612673 Y116.454344

G00 Z4.875000 (Fast pre-penetrate)
G01 Z-0.125000 F400.0(Penetrate)
G01 X143.612673 Y69.666144 Z-0.125000 F800.000000
G00 Z3.000000

(End cutting path id: line232)


(Start cutting path id: line292)
(Change tool to Default tool)

G00 Z3.000000
G00 X143.612673 Y69.666144

G00 Z4.875000 (Fast pre-penetrate)
G01 Z-0.125000 F400.0(Penetrate)
G01 X20.242301 Y69.666144 Z-0.125000 F800.000000
G00 Z3.000000

(End cutting path id: line292)


(Start cutting path id: line492)
(Change tool to Default tool)

G00 Z3.000000
G00 X20.242301 Y69.666144

G00 Z4.875000 (Fast pre-penetrate)
G01 Z-0.125000 F400.0(Penetrate)
G01 X143.612673 Y69.666144 Z-0.125000 F800.000000
G00 Z3.000000

(End cutting path id: line492)


(Start cutting path id: line290)
(Change tool to Default tool)

G00 Z3.000000
G00 X144.159943 Y71.163524

G00 Z4.875000 (Fast pre-penetrate)
G01 Z-0.125000 F400.0(Penetrate)
G01 X63.062978 Y29.842564 Z-0.125000 F800.000000
G00 Z3.000000

(End cutting path id: line290)


(Start cutting path id: line418)
(Change tool to Default tool)

G00 Z3.000000
G00 X61.540918 Y30.316854

G00 Z4.875000 (Fast pre-penetrate)
G01 Z-0.125000 F400.0(Penetrate)
G01 X43.149929 Y146.432964 Z-0.125000 F800.000000
G00 Z3.000000

(End cutting path id: line418)


(Start cutting path id: line600)
(Change tool to Default tool)

G00 Z3.000000
G00 X43.149929 Y146.432964

G00 Z4.875000 (Fast pre-penetrate)
G01 Z-0.125000 F400.0(Penetrate)
G01 X144.670883 Y113.446814 Z-0.125000 F800.000000
G00 Z3.000000

(End cutting path id: line600)


(Start cutting path id: line234)
(Change tool to Default tool)

G00 Z3.000000
G00 X144.159943 Y114.956974

G00 Z4.875000 (Fast pre-penetrate)
G01 Z-0.125000 F400.0(Penetrate)
G01 X100.791968 Y29.842564 Z-0.125000 F800.000000
G00 Z3.000000

(End cutting path id: line234)


(Start cutting path id: line368)
(Change tool to Default tool)

G00 Z3.000000
G00 X100.791968 Y29.842564

G00 Z4.875000 (Fast pre-penetrate)
G01 Z-0.125000 F400.0(Penetrate)
G01 X147.880523 Y94.654384 Z-0.125000 F800.000000
G00 Z3.000000

(End cutting path id: line368)


(Start cutting path id: line262)
(Change tool to Default tool)

G00 Z3.000000
G00 X147.899793 Y93.060244

G00 Z4.875000 (Fast pre-penetrate)
G01 Z-0.125000 F400.0(Penetrate)
G01 X81.927478 Y27.087944 Z-0.125000 F800.000000
G00 Z3.000000

(End cutting path id: line262)


(Start cutting path id: line394)
(Change tool to Default tool)

G00 Z3.000000
G00 X80.333338 Y27.107214

G00 Z4.875000 (Fast pre-penetrate)
G01 Z-0.125000 F400.0(Penetrate)
G01 X134.347603 Y133.116154 Z-0.125000 F800.000000
G00 Z3.000000

(End cutting path id: line394)


(Start cutting path id: line206)
(Change tool to Default tool)

G00 Z3.000000
G00 X133.364403 Y134.371124

G00 Z4.875000 (Fast pre-penetrate)
G01 Z-0.125000 F400.0(Penetrate)
G01 X118.081133 Y37.876384 Z-0.125000 F800.000000
G00 Z3.000000

(End cutting path id: line206)


(Start cutting path id: line344)
(Change tool to Default tool)

G00 Z3.000000
G00 X118.081133 Y37.876384

G00 Z4.875000 (Fast pre-penetrate)
G01 Z-0.125000 F400.0(Penetrate)
G01 X85.114828 Y27.164984 Z-0.125000 F800.000000
G00 Z3.000000

(End cutting path id: line344)


(Start cutting path id: line388)
(Change tool to Default tool)

G00 Z3.000000
G00 X85.114828 Y27.164984

G00 Z4.875000 (Fast pre-penetrate)
G01 Z-0.125000 F400.0(Penetrate)
G01 X18.272415 Y75.728834 Z-0.125000 F800.000000
G00 Z3.000000

(End cutting path id: line388)


(Start cutting path id: line500)
(Change tool to Default tool)

G00 Z3.000000
G00 X18.272415 Y75.728834

G00 Z4.875000 (Fast pre-penetrate)
G01 Z-0.125000 F400.0(Penetrate)
G01 X40.616596 Y144.497154 Z-0.125000 F800.000000
G00 Z3.000000

(End cutting path id: line500)


(Start cutting path id: line596)
(Change tool to Default tool)

G00 Z3.000000
G00 X40.616596 Y144.497154

G00 Z4.875000 (Fast pre-penetrate)
G01 Z-0.125000 F400.0(Penetrate)
G01 X45.773831 Y148.244114 Z-0.125000 F800.000000
G00 Z3.000000

(End cutting path id: line596)


(Start cutting path id: line604)
(Change tool to Default tool)

G00 Z3.000000
G00 X45.773831 Y148.244114

G00 Z4.875000 (Fast pre-penetrate)
G01 Z-0.125000 F400.0(Penetrate)
G01 X85.114828 Y27.164984 Z-0.125000 F800.000000
G00 Z3.000000

(End cutting path id: line604)


(Start cutting path id: line386)
(Change tool to Default tool)

G00 Z3.000000
G00 X86.706168 Y27.261234

G00 Z4.875000 (Fast pre-penetrate)
G01 Z-0.125000 F400.0(Penetrate)
G01 X57.049661 Y31.958374 Z-0.125000 F800.000000
G00 Z3.000000

(End cutting path id: line386)


(Start cutting path id: line424)
(Change tool to Default tool)

G00 Z3.000000
G00 X57.049661 Y31.958374

G00 Z4.875000 (Fast pre-penetrate)
G01 Z-0.125000 F400.0(Penetrate)
G01 X137.968843 Y58.250604 Z-0.125000 F800.000000
G00 Z3.000000

(End cutting path id: line424)


(Start cutting path id: line308)
(Change tool to Default tool)

G00 Z3.000000
G00 X137.968843 Y58.250604

G00 Z4.875000 (Fast pre-penetrate)
G01 Z-0.125000 F400.0(Penetrate)
G01 X31.503807 Y135.601974 Z-0.125000 F800.000000
G00 Z3.000000

(End cutting path id: line308)


(Start cutting path id: line580)
(Change tool to Default tool)

G00 Z3.000000
G00 X31.503807 Y135.601974

G00 Z4.875000 (Fast pre-penetrate)
G01 Z-0.125000 F400.0(Penetrate)
G01 X16.128473 Y88.281554 Z-0.125000 F800.000000
G00 Z3.000000

(End cutting path id: line580)


(Start cutting path id: line516)
(Change tool to Default tool)

G00 Z3.000000
G00 X16.128473 Y88.281554

G00 Z4.875000 (Fast pre-penetrate)
G01 Z-0.125000 F400.0(Penetrate)
G01 X106.805303 Y154.162124 Z-0.125000 F800.000000
G00 Z3.000000

(End cutting path id: line516)


(Start cutting path id: line164)
(Change tool to Default tool)

G00 Z3.000000
G00 X106.805303 Y154.162124

G00 Z4.875000 (Fast pre-penetrate)
G01 Z-0.125000 F400.0(Penetrate)
G01 X137.968843 Y58.250604 Z-0.125000 F800.000000
G00 Z3.000000

(End cutting path id: line164)


(Start cutting path id: line310)
(Change tool to Default tool)

G00 Z3.000000
G00 X137.111343 Y56.906604

G00 Z4.875000 (Fast pre-penetrate)
G01 Z-0.125000 F400.0(Penetrate)
G01 X85.114828 Y158.955514 Z-0.125000 F800.000000
G00 Z3.000000

(End cutting path id: line310)


(Start cutting path id: line136)
(Change tool to Default tool)

G00 Z3.000000
G00 X85.114828 Y158.955514

G00 Z4.875000 (Fast pre-penetrate)
G01 Z-0.125000 F400.0(Penetrate)
G01 X145.582553 Y75.728834 Z-0.125000 F800.000000
G00 Z3.000000

(End cutting path id: line136)


(Start cutting path id: line284)
(Change tool to Default tool)

G00 Z3.000000
G00 X145.582553 Y75.728834

G00 Z4.875000 (Fast pre-penetrate)
G01 Z-0.125000 F400.0(Penetrate)
G01 X123.238363 Y144.497154 Z-0.125000 F800.000000
G00 Z3.000000

(End cutting path id: line284)


(Start cutting path id: line188)
(Change tool to Default tool)

G00 Z3.000000
G00 X123.238363 Y144.497154

G00 Z4.875000 (Fast pre-penetrate)
G01 Z-0.125000 F400.0(Penetrate)
G01 X118.081133 Y148.244114 Z-0.125000 F800.000000
G00 Z3.000000

(End cutting path id: line188)


(Start cutting path id: line180)
(Change tool to Default tool)

G00 Z3.000000
G00 X118.081133 Y148.244114

G00 Z4.875000 (Fast pre-penetrate)
G01 Z-0.125000 F400.0(Penetrate)
G01 X78.740138 Y27.164984 Z-0.125000 F800.000000
G00 Z3.000000

(End cutting path id: line180)


(Start cutting path id: line396)
(Change tool to Default tool)

G00 Z3.000000
G00 X78.740138 Y27.164984

G00 Z4.875000 (Fast pre-penetrate)
G01 Z-0.125000 F400.0(Penetrate)
G01 X145.582553 Y75.728834 Z-0.125000 F800.000000
G00 Z3.000000

(End cutting path id: line396)


(Start cutting path id: line286)
(Change tool to Default tool)

G00 Z3.000000
G00 X145.145173 Y74.195754

G00 Z4.875000 (Fast pre-penetrate)
G01 Z-0.125000 F400.0(Penetrate)
G01 X147.880523 Y91.466114 Z-0.125000 F800.000000
G00 Z3.000000

(End cutting path id: line286)


(Start cutting path id: line264)
(Change tool to Default tool)

G00 Z3.000000
G00 X147.880523 Y91.466114

G00 Z4.875000 (Fast pre-penetrate)
G01 Z-0.125000 F400.0(Penetrate)
G01 X29.507356 Y53.004344 Z-0.125000 F800.000000
G00 Z3.000000

(End cutting path id: line264)


(Start cutting path id: line470)
(Change tool to Default tool)

G00 Z3.000000
G00 X28.554761 Y54.282694

G00 Z4.875000 (Fast pre-penetrate)
G01 Z-0.125000 F400.0(Penetrate)
G01 X19.184087 Y72.673684 Z-0.125000 F800.000000
G00 Z3.000000

(End cutting path id: line470)


(Start cutting path id: line496)
(Change tool to Default tool)

G00 Z3.000000
G00 X19.184087 Y72.673684

G00 Z4.875000 (Fast pre-penetrate)
G01 Z-0.125000 F400.0(Penetrate)
G01 X43.149929 Y39.687524 Z-0.125000 F800.000000
G00 Z3.000000

(End cutting path id: line496)


(Start cutting path id: line442)
(Change tool to Default tool)

G00 Z3.000000
G00 X44.450938 Y38.766104

G00 Z4.875000 (Fast pre-penetrate)
G01 Z-0.125000 F400.0(Penetrate)
G01 X27.633336 Y55.583714 Z-0.125000 F800.000000
G00 Z3.000000

(End cutting path id: line442)


(Start cutting path id: line472)
(Change tool to Default tool)

G00 Z3.000000
G00 X27.633336 Y55.583714

G00 Z4.875000 (Fast pre-penetrate)
G01 Z-0.125000 F400.0(Penetrate)
G01 X27.633336 Y130.536784 Z-0.125000 F800.000000
G00 Z3.000000

(End cutting path id: line472)


(Start cutting path id: line572)
(Change tool to Default tool)

G00 Z3.000000
G00 X27.633336 Y130.536784

G00 Z4.875000 (Fast pre-penetrate)
G01 Z-0.125000 F400.0(Penetrate)
G01 X136.221633 Y130.536784 Z-0.125000 F800.000000
G00 Z3.000000

(End cutting path id: line572)


(Start cutting path id: line212)
(Change tool to Default tool)

G00 Z3.000000
G00 X136.221633 Y130.536784

G00 Z4.875000 (Fast pre-penetrate)
G01 Z-0.125000 F400.0(Penetrate)
G01 X27.633336 Y130.536784 Z-0.125000 F800.000000
G00 Z3.000000

(End cutting path id: line212)


(Start cutting path id: line570)
(Change tool to Default tool)

G00 Z3.000000
G00 X26.743614 Y129.213894

G00 Z4.875000 (Fast pre-penetrate)
G01 Z-0.125000 F400.0(Penetrate)
G01 X85.114828 Y158.955514 Z-0.125000 F800.000000
G00 Z3.000000

(End cutting path id: line570)


(Start cutting path id: line138)
(Change tool to Default tool)

G00 Z3.000000
G00 X86.706168 Y158.859254

G00 Z4.875000 (Fast pre-penetrate)
G01 Z-0.125000 F400.0(Penetrate)
G01 X106.805303 Y31.958374 Z-0.125000 F800.000000
G00 Z3.000000

(End cutting path id: line138)


(Start cutting path id: line360)
(Change tool to Default tool)

G00 Z3.000000
G00 X106.805303 Y31.958374

G00 Z4.875000 (Fast pre-penetrate)
G01 Z-0.125000 F400.0(Penetrate)
G01 X25.886121 Y58.250604 Z-0.125000 F800.000000
G00 Z3.000000

(End cutting path id: line360)


(Start cutting path id: line476)
(Change tool to Default tool)

G00 Z3.000000
G00 X25.886121 Y58.250604

G00 Z4.875000 (Fast pre-penetrate)
G01 Z-0.125000 F400.0(Penetrate)
G01 X132.351143 Y135.601974 Z-0.125000 F800.000000
G00 Z3.000000

(End cutting path id: line476)


(Start cutting path id: line204)
(Change tool to Default tool)

G00 Z3.000000
G00 X132.351143 Y135.601974

G00 Z4.875000 (Fast pre-penetrate)
G01 Z-0.125000 F400.0(Penetrate)
G01 X147.726493 Y88.281554 Z-0.125000 F800.000000
G00 Z3.000000

(End cutting path id: line204)


(Start cutting path id: line268)
(Change tool to Default tool)

G00 Z3.000000
G00 X147.726493 Y88.281554

G00 Z4.875000 (Fast pre-penetrate)
G01 Z-0.125000 F400.0(Penetrate)
G01 X57.049661 Y154.162124 Z-0.125000 F800.000000
G00 Z3.000000

(End cutting path id: line268)


(Start cutting path id: line620)
(Change tool to Default tool)

G00 Z3.000000
G00 X57.049661 Y154.162124

G00 Z4.875000 (Fast pre-penetrate)
G01 Z-0.125000 F400.0(Penetrate)
G01 X25.886121 Y58.250604 Z-0.125000 F800.000000
G00 Z3.000000

(End cutting path id: line620)


(Start cutting path id: line474)
(Change tool to Default tool)

G00 Z3.000000
G00 X26.743614 Y56.906604

G00 Z4.875000 (Fast pre-penetrate)
G01 Z-0.125000 F400.0(Penetrate)
G01 X78.740138 Y158.955514 Z-0.125000 F800.000000
G00 Z3.000000

(End cutting path id: line474)


(Start cutting path id: line648)
(Change tool to Default tool)

G00 Z3.000000
G00 X78.740138 Y158.955514

G00 Z4.875000 (Fast pre-penetrate)
G01 Z-0.125000 F400.0(Penetrate)
G01 X18.272415 Y75.728834 Z-0.125000 F800.000000
G00 Z3.000000

(End cutting path id: line648)


(Start cutting path id: line498)
(Change tool to Default tool)

G00 Z3.000000
G00 X18.709793 Y74.195754

G00 Z4.875000 (Fast pre-penetrate)
G01 Z-0.125000 F400.0(Penetrate)
G01 X15.974437 Y91.466114 Z-0.125000 F800.000000
G00 Z3.000000

(End cutting path id: line498)


(Start cutting path id: line520)
(Change tool to Default tool)

G00 Z3.000000
G00 X15.974437 Y91.466114

G00 Z4.875000 (Fast pre-penetrate)
G01 Z-0.125000 F400.0(Penetrate)
G01 X134.347603 Y53.004344 Z-0.125000 F800.000000
G00 Z3.000000

(End cutting path id: line520)


(Start cutting path id: line314)
(Change tool to Default tool)

G00 Z3.000000
G00 X135.300203 Y54.282694

G00 Z4.875000 (Fast pre-penetrate)
G01 Z-0.125000 F400.0(Penetrate)
G01 X144.670883 Y72.673684 Z-0.125000 F800.000000
G00 Z3.000000

(End cutting path id: line314)


(Start cutting path id: line288)
(Change tool to Default tool)

G00 Z3.000000
G00 X144.670883 Y72.673684

G00 Z4.875000 (Fast pre-penetrate)
G01 Z-0.125000 F400.0(Penetrate)
G01 X120.705033 Y39.687524 Z-0.125000 F800.000000
G00 Z3.000000

(End cutting path id: line288)


(Start cutting path id: line342)
(Change tool to Default tool)

G00 Z3.000000
G00 X119.404023 Y38.766104

G00 Z4.875000 (Fast pre-penetrate)
G01 Z-0.125000 F400.0(Penetrate)
G01 X136.221633 Y55.583714 Z-0.125000 F800.000000
G00 Z3.000000

(End cutting path id: line342)


(Start cutting path id: line312)
(Change tool to Default tool)

G00 Z3.000000
G00 X136.221633 Y55.583714

G00 Z4.875000 (Fast pre-penetrate)
G01 Z-0.125000 F400.0(Penetrate)
G01 X136.221633 Y130.536784 Z-0.125000 F800.000000
G00 Z3.000000

(End cutting path id: line312)


(Start cutting path id: line214)
(Change tool to Default tool)

G00 Z3.000000
G00 X137.111343 Y129.213894

G00 Z4.875000 (Fast pre-penetrate)
G01 Z-0.125000 F400.0(Penetrate)
G01 X78.740138 Y158.955514 Z-0.125000 F800.000000
G00 Z3.000000

(End cutting path id: line214)


(Start cutting path id: line646)
(Change tool to Default tool)

G00 Z3.000000
G00 X77.148788 Y158.859254

G00 Z4.875000 (Fast pre-penetrate)
G01 Z-0.125000 F400.0(Penetrate)
G01 X57.049661 Y31.958374 Z-0.125000 F800.000000
G00 Z3.000000

(End cutting path id: line646)


(Start cutting path id: line426)
(Change tool to Default tool)

G00 Z3.000000
G00 X55.580477 Y32.577354

G00 Z4.875000 (Fast pre-penetrate)
G01 Z-0.125000 F400.0(Penetrate)
G01 X88.294718 Y27.395924 Z-0.125000 F800.000000
G00 Z3.000000

(End cutting path id: line426)


(Start cutting path id: line384)
(Change tool to Default tool)

G00 Z3.000000
G00 X88.294718 Y27.395924

G00 Z4.875000 (Fast pre-penetrate)
G01 Z-0.125000 F400.0(Penetrate)
G01 X115.372793 Y36.194124 Z-0.125000 F800.000000
G00 Z3.000000

(End cutting path id: line384)


(Start cutting path id: line348)
(Change tool to Default tool)

G00 Z3.000000
G00 X115.372793 Y36.194124

G00 Z4.875000 (Fast pre-penetrate)
G01 Z-0.125000 F400.0(Penetrate)
G01 X17.509410 Y107.296024 Z-0.125000 F800.000000
G00 Z3.000000

(End cutting path id: line348)


(Start cutting path id: line540)
(Change tool to Default tool)

G00 Z3.000000
G00 X17.509410 Y107.296024

G00 Z4.875000 (Fast pre-penetrate)
G01 Z-0.125000 F400.0(Penetrate)
G01 X21.444584 Y119.407244 Z-0.125000 F800.000000
G00 Z3.000000

(End cutting path id: line540)


(Start cutting path id: line556)
(Change tool to Default tool)

G00 Z3.000000
G00 X21.444584 Y119.407244

G00 Z4.875000 (Fast pre-penetrate)
G01 Z-0.125000 F400.0(Penetrate)
G01 X75.560228 Y158.724564 Z-0.125000 F800.000000
G00 Z3.000000

(End cutting path id: line556)


(Start cutting path id: line644)
(Change tool to Default tool)

G00 Z3.000000
G00 X75.560228 Y158.724564

G00 Z4.875000 (Fast pre-penetrate)
G01 Z-0.125000 F400.0(Penetrate)
G01 X115.372793 Y36.194124 Z-0.125000 F800.000000
G00 Z3.000000

(End cutting path id: line644)


(Start cutting path id: line346)
(Change tool to Default tool)

G00 Z3.000000
G00 X116.737123 Y37.018884

G00 Z4.875000 (Fast pre-penetrate)
G01 Z-0.125000 F400.0(Penetrate)
G01 X31.503807 Y50.518524 Z-0.125000 F800.000000
G00 Z3.000000

(End cutting path id: line346)


(Start cutting path id: line464)
(Change tool to Default tool)

G00 Z3.000000
G00 X31.503807 Y50.518524

G00 Z4.875000 (Fast pre-penetrate)
G01 Z-0.125000 F400.0(Penetrate)
G01 X147.726493 Y88.281554 Z-0.125000 F800.000000
G00 Z3.000000

(End cutting path id: line464)


(Start cutting path id: line270)
(Change tool to Default tool)

G00 Z3.000000
G00 X147.591813 Y86.693004

G00 Z4.875000 (Fast pre-penetrate)
G01 Z-0.125000 F400.0(Penetrate)
G01 X115.372793 Y149.926374 Z-0.125000 F800.000000
G00 Z3.000000

(End cutting path id: line270)


(Start cutting path id: line176)
(Change tool to Default tool)

G00 Z3.000000
G00 X115.372793 Y149.926374

G00 Z4.875000 (Fast pre-penetrate)
G01 Z-0.125000 F400.0(Penetrate)
G01 X146.345553 Y107.296024 Z-0.125000 F800.000000
G00 Z3.000000

(End cutting path id: line176)


(Start cutting path id: line244)
(Change tool to Default tool)

G00 Z3.000000
G00 X146.345553 Y107.296024

G00 Z4.875000 (Fast pre-penetrate)
G01 Z-0.125000 F400.0(Penetrate)
G01 X142.410373 Y119.407244 Z-0.125000 F800.000000
G00 Z3.000000

(End cutting path id: line244)


(Start cutting path id: line228)
(Change tool to Default tool)

G00 Z3.000000
G00 X142.410373 Y119.407244

G00 Z4.875000 (Fast pre-penetrate)
G01 Z-0.125000 F400.0(Penetrate)
G01 X88.294718 Y158.724564 Z-0.125000 F800.000000
G00 Z3.000000

(End cutting path id: line228)


(Start cutting path id: line140)
(Change tool to Default tool)

G00 Z3.000000
G00 X88.294718 Y158.724564

G00 Z4.875000 (Fast pre-penetrate)
G01 Z-0.125000 F400.0(Penetrate)
G01 X48.482167 Y36.194124 Z-0.125000 F800.000000
G00 Z3.000000

(End cutting path id: line140)


(Start cutting path id: line436)
(Change tool to Default tool)

G00 Z3.000000
G00 X48.482167 Y36.194124

G00 Z4.875000 (Fast pre-penetrate)
G01 Z-0.125000 F400.0(Penetrate)
G01 X146.345553 Y107.296024 Z-0.125000 F800.000000
G00 Z3.000000

(End cutting path id: line436)


(Start cutting path id: line246)
(Change tool to Default tool)

G00 Z3.000000
G00 X146.670733 Y105.735294

G00 Z4.875000 (Fast pre-penetrate)
G01 Z-0.125000 F400.0(Penetrate)
G01 X139.585173 Y60.998804 Z-0.125000 F800.000000
G00 Z3.000000

(End cutting path id: line246)


(Start cutting path id: line304)
(Change tool to Default tool)

G00 Z3.000000
G00 X139.585173 Y60.998804

G00 Z4.875000 (Fast pre-penetrate)
G01 Z-0.125000 F400.0(Penetrate)
G01 X54.126671 Y33.231654 Z-0.125000 F800.000000
G00 Z3.000000

(End cutting path id: line304)


(Start cutting path id: line428)
(Change tool to Default tool)

G00 Z3.000000
G00 X54.126671 Y33.231654

G00 Z4.875000 (Fast pre-penetrate)
G01 Z-0.125000 F400.0(Penetrate)
G01 X33.618026 Y48.132064 Z-0.125000 F800.000000
G00 Z3.000000

(End cutting path id: line428)


(Start cutting path id: line460)
(Change tool to Default tool)

G00 Z3.000000
G00 X33.618026 Y48.132064

G00 Z4.875000 (Fast pre-penetrate)
G01 Z-0.125000 F400.0(Penetrate)
G01 X69.252438 Y157.803494 Z-0.125000 F800.000000
G00 Z3.000000

(End cutting path id: line460)


(Start cutting path id: line636)
(Change tool to Default tool)

G00 Z3.000000
G00 X69.252438 Y157.803494

G00 Z4.875000 (Fast pre-penetrate)
G01 Z-0.125000 F400.0(Penetrate)
G01 X24.269792 Y125.121694 Z-0.125000 F800.000000
G00 Z3.000000

(End cutting path id: line636)


(Start cutting path id: line564)
(Change tool to Default tool)

G00 Z3.000000
G00 X24.269792 Y125.121694

G00 Z4.875000 (Fast pre-penetrate)
G01 Z-0.125000 F400.0(Penetrate)
G01 X54.126671 Y33.231654 Z-0.125000 F800.000000
G00 Z3.000000

(End cutting path id: line564)


(Start cutting path id: line430)
(Change tool to Default tool)

G00 Z3.000000
G00 X52.689113 Y33.920894

G00 Z4.875000 (Fast pre-penetrate)
G01 Z-0.125000 F400.0(Penetrate)
G01 X16.896857 Y104.167154 Z-0.125000 F800.000000
G00 Z3.000000

(End cutting path id: line430)


(Start cutting path id: line536)
(Change tool to Default tool)

G00 Z3.000000
G00 X16.896857 Y104.167154

G00 Z4.875000 (Fast pre-penetrate)
G01 Z-0.125000 F400.0(Penetrate)
G01 X72.395198 Y27.780224 Z-0.125000 F800.000000
G00 Z3.000000

(End cutting path id: line536)


(Start cutting path id: line404)
(Change tool to Default tool)

G00 Z3.000000
G00 X72.395198 Y27.780224

G00 Z4.875000 (Fast pre-penetrate)
G01 Z-0.125000 F400.0(Penetrate)
G01 X35.845074 Y140.269964 Z-0.125000 F800.000000
G00 Z3.000000

(End cutting path id: line404)


(Start cutting path id: line588)
(Change tool to Default tool)

G00 Z3.000000
G00 X35.845074 Y140.269964

G00 Z4.875000 (Fast pre-penetrate)
G01 Z-0.125000 F400.0(Penetrate)
G01 X141.066833 Y63.821884 Z-0.125000 F800.000000
G00 Z3.000000

(End cutting path id: line588)


(Start cutting path id: line300)
(Change tool to Default tool)

G00 Z3.000000
G00 X141.066833 Y63.821884

G00 Z4.875000 (Fast pre-penetrate)
G01 Z-0.125000 F400.0(Penetrate)
G01 X146.958113 Y81.953354 Z-0.125000 F800.000000
G00 Z3.000000

(End cutting path id: line300)


(Start cutting path id: line276)
(Change tool to Default tool)

G00 Z3.000000
G00 X146.958113 Y81.953354

G00 Z4.875000 (Fast pre-penetrate)
G01 Z-0.125000 F400.0(Penetrate)
G01 X72.395198 Y27.780224 Z-0.125000 F800.000000
G00 Z3.000000

(End cutting path id: line276)


(Start cutting path id: line406)
(Change tool to Default tool)

G00 Z3.000000
G00 X70.820578 Y28.029624

G00 Z4.875000 (Fast pre-penetrate)
G01 Z-0.125000 F400.0(Penetrate)
G01 X91.459758 Y158.340264 Z-0.125000 F800.000000
G00 Z3.000000

(End cutting path id: line406)


(Start cutting path id: line144)
(Change tool to Default tool)

G00 Z3.000000
G00 X91.459758 Y158.340264

G00 Z4.875000 (Fast pre-penetrate)
G01 Z-0.125000 F400.0(Penetrate)
G01 X35.845074 Y140.269964 Z-0.125000 F800.000000
G00 Z3.000000

(End cutting path id: line144)


(Start cutting path id: line590)
(Change tool to Default tool)

G00 Z3.000000
G00 X36.999290 Y141.369694

G00 Z4.875000 (Fast pre-penetrate)
G01 Z-0.125000 F400.0(Penetrate)
G01 X94.602518 Y28.317004 Z-0.125000 F800.000000
G00 Z3.000000

(End cutting path id: line590)


(Start cutting path id: line376)
(Change tool to Default tool)

G00 Z3.000000
G00 X94.602518 Y28.317004

G00 Z4.875000 (Fast pre-penetrate)
G01 Z-0.125000 F400.0(Penetrate)
G01 X24.269792 Y125.121694 Z-0.125000 F800.000000
G00 Z3.000000

(End cutting path id: line376)


(Start cutting path id: line562)
(Change tool to Default tool)

G00 Z3.000000
G00 X23.511903 Y123.719104

G00 Z4.875000 (Fast pre-penetrate)
G01 Z-0.125000 F400.0(Penetrate)
G01 X112.586343 Y34.644674 Z-0.125000 F800.000000
G00 Z3.000000

(End cutting path id: line562)


(Start cutting path id: line352)
(Change tool to Default tool)

G00 Z3.000000
G00 X112.586343 Y34.644674

G00 Z4.875000 (Fast pre-penetrate)
G01 Z-0.125000 F400.0(Penetrate)
G01 X112.586343 Y151.475824 Z-0.125000 F800.000000
G00 Z3.000000

(End cutting path id: line352)


(Start cutting path id: line172)
(Change tool to Default tool)

G00 Z3.000000
G00 X112.586343 Y151.475824

G00 Z4.875000 (Fast pre-penetrate)
G01 Z-0.125000 F400.0(Penetrate)
G01 X51.268621 Y151.475824 Z-0.125000 F800.000000
G00 Z3.000000

(End cutting path id: line172)


(Start cutting path id: line612)
(Change tool to Default tool)

G00 Z3.000000
G00 X51.268621 Y151.475824

G00 Z4.875000 (Fast pre-penetrate)
G01 Z-0.125000 F400.0(Penetrate)
G01 X112.586343 Y151.475824 Z-0.125000 F800.000000
G00 Z3.000000

(End cutting path id: line612)


(Start cutting path id: line174)
(Change tool to Default tool)

G00 Z3.000000
G00 X113.988923 Y150.717934

G00 Z4.875000 (Fast pre-penetrate)
G01 Z-0.125000 F400.0(Penetrate)
G01 X109.728283 Y152.888834 Z-0.125000 F800.000000
G00 Z3.000000

(End cutting path id: line174)


(Start cutting path id: line168)
(Change tool to Default tool)

G00 Z3.000000
G00 X109.728283 Y152.888834

G00 Z4.875000 (Fast pre-penetrate)
G01 Z-0.125000 F400.0(Penetrate)
G01 X33.618026 Y48.132064 Z-0.125000 F800.000000
G00 Z3.000000

(End cutting path id: line168)


(Start cutting path id: line462)
(Change tool to Default tool)

G00 Z3.000000
G00 X32.546498 Y49.312514

G00 Z4.875000 (Fast pre-penetrate)
G01 Z-0.125000 F400.0(Penetrate)
G01 X125.675213 Y142.441224 Z-0.125000 F800.000000
G00 Z3.000000

(End cutting path id: line462)


(Start cutting path id: line192)
(Change tool to Default tool)

G00 Z3.000000
G00 X125.675213 Y142.441224

G00 Z4.875000 (Fast pre-penetrate)
G01 Z-0.125000 F400.0(Penetrate)
G01 X125.675213 Y43.679264 Z-0.125000 F800.000000
G00 Z3.000000

(End cutting path id: line192)


(Start cutting path id: line332)
(Change tool to Default tool)

G00 Z3.000000
G00 X125.675213 Y43.679264

G00 Z4.875000 (Fast pre-penetrate)
G01 Z-0.125000 F400.0(Penetrate)
G01 X38.179750 Y43.679264 Z-0.125000 F800.000000
G00 Z3.000000

(End cutting path id: line332)


(Start cutting path id: line452)
(Change tool to Default tool)

G00 Z3.000000
G00 X38.179750 Y43.679264

G00 Z4.875000 (Fast pre-penetrate)
G01 Z-0.125000 F400.0(Penetrate)
G01 X125.675213 Y43.679264 Z-0.125000 F800.000000
G00 Z3.000000

(End cutting path id: line452)


(Start cutting path id: line330)
(Change tool to Default tool)

G00 Z3.000000
G00 X126.855663 Y44.750794

G00 Z4.875000 (Fast pre-penetrate)
G01 Z-0.125000 F400.0(Penetrate)
G01 X94.602518 Y28.317004 Z-0.125000 F800.000000
G00 Z3.000000

(End cutting path id: line330)


(Start cutting path id: line374)
(Change tool to Default tool)

G00 Z3.000000
G00 X96.163258 Y28.642174

G00 Z4.875000 (Fast pre-penetrate)
G01 Z-0.125000 F400.0(Penetrate)
G01 X21.444584 Y66.713244 Z-0.125000 F800.000000
G00 Z3.000000

(End cutting path id: line374)


(Start cutting path id: line488)
(Change tool to Default tool)

G00 Z3.000000
G00 X21.444584 Y66.713244

G00 Z4.875000 (Fast pre-penetrate)
G01 Z-0.125000 F400.0(Penetrate)
G01 X88.294718 Y158.724564 Z-0.125000 F800.000000
G00 Z3.000000

(End cutting path id: line488)


(Start cutting path id: line142)
(Change tool to Default tool)

G00 Z3.000000
G00 X89.879558 Y158.551534

G00 Z4.875000 (Fast pre-penetrate)
G01 Z-0.125000 F400.0(Penetrate)
G01 X16.436186 Y85.108164 Z-0.125000 F800.000000
G00 Z3.000000

(End cutting path id: line142)


(Start cutting path id: line512)
(Change tool to Default tool)

G00 Z3.000000
G00 X16.436186 Y85.108164

G00 Z4.875000 (Fast pre-penetrate)
G01 Z-0.125000 F400.0(Penetrate)
G01 X16.436186 Y101.012334 Z-0.125000 F800.000000
G00 Z3.000000

(End cutting path id: line512)


(Start cutting path id: line532)
(Change tool to Default tool)

G00 Z3.000000
G00 X16.436186 Y101.012334

G00 Z4.875000 (Fast pre-penetrate)
G01 Z-0.125000 F400.0(Penetrate)
G01 X147.418773 Y101.012334 Z-0.125000 F800.000000
G00 Z3.000000

(End cutting path id: line532)


(Start cutting path id: line252)
(Change tool to Default tool)

G00 Z3.000000
G00 X147.418773 Y101.012334

G00 Z4.875000 (Fast pre-penetrate)
G01 Z-0.125000 F400.0(Penetrate)
G01 X16.436186 Y101.012334 Z-0.125000 F800.000000
G00 Z3.000000

(End cutting path id: line252)


(Start cutting path id: line534)
(Change tool to Default tool)

G00 Z3.000000
G00 X16.647461 Y102.592524

G00 Z4.875000 (Fast pre-penetrate)
G01 Z-0.125000 F400.0(Penetrate)
G01 X128.009893 Y45.850534 Z-0.125000 F800.000000
G00 Z3.000000

(End cutting path id: line534)


(Start cutting path id: line328)
(Change tool to Default tool)

G00 Z3.000000
G00 X128.009893 Y45.850534

G00 Z4.875000 (Fast pre-penetrate)
G01 Z-0.125000 F400.0(Penetrate)
G01 X141.066833 Y63.821884 Z-0.125000 F800.000000
G00 Z3.000000

(End cutting path id: line328)


(Start cutting path id: line298)
(Change tool to Default tool)

G00 Z3.000000
G00 X141.756073 Y65.259444

G00 Z4.875000 (Fast pre-penetrate)
G01 Z-0.125000 F400.0(Penetrate)
G01 X130.236943 Y137.988434 Z-0.125000 F800.000000
G00 Z3.000000

(End cutting path id: line298)


(Start cutting path id: line200)
(Change tool to Default tool)

G00 Z3.000000
G00 X130.236943 Y137.988434

G00 Z4.875000 (Fast pre-penetrate)
G01 Z-0.125000 F400.0(Penetrate)
G01 X69.252438 Y157.803494 Z-0.125000 F800.000000
G00 Z3.000000

(End cutting path id: line200)


(Start cutting path id: line638)
(Change tool to Default tool)

G00 Z3.000000
G00 X70.820578 Y158.090864

G00 Z4.875000 (Fast pre-penetrate)
G01 Z-0.125000 F400.0(Penetrate)
G01 X72.395198 Y158.340264 Z-0.125000 F800.000000
G00 Z3.000000

(End cutting path id: line638)


(Start cutting path id: line640)
(Change tool to Default tool)

G00 Z3.000000
G00 X72.395198 Y158.340264

G00 Z4.875000 (Fast pre-penetrate)
G01 Z-0.125000 F400.0(Penetrate)
G01 X128.009893 Y140.269964 Z-0.125000 F800.000000
G00 Z3.000000

(End cutting path id: line640)


(Start cutting path id: line196)
(Change tool to Default tool)

G00 Z3.000000
G00 X128.009893 Y140.269964

G00 Z4.875000 (Fast pre-penetrate)
G01 Z-0.125000 F400.0(Penetrate)
G01 X22.788128 Y63.821884 Z-0.125000 F800.000000
G00 Z3.000000

(End cutting path id: line196)


(Start cutting path id: line484)
(Change tool to Default tool)

G00 Z3.000000
G00 X22.788128 Y63.821884

G00 Z4.875000 (Fast pre-penetrate)
G01 Z-0.125000 F400.0(Penetrate)
G01 X16.896857 Y81.953354 Z-0.125000 F800.000000
G00 Z3.000000

(End cutting path id: line484)


(Start cutting path id: line508)
(Change tool to Default tool)

G00 Z3.000000
G00 X16.896857 Y81.953354

G00 Z4.875000 (Fast pre-penetrate)
G01 Z-0.125000 F400.0(Penetrate)
G01 X91.459758 Y27.780224 Z-0.125000 F800.000000
G00 Z3.000000

(End cutting path id: line508)


(Start cutting path id: line380)
(Change tool to Default tool)

G00 Z3.000000
G00 X91.459758 Y27.780224

G00 Z4.875000 (Fast pre-penetrate)
G01 Z-0.125000 F400.0(Penetrate)
G01 X128.009893 Y140.269964 Z-0.125000 F800.000000
G00 Z3.000000

(End cutting path id: line380)


(Start cutting path id: line194)
(Change tool to Default tool)

G00 Z3.000000
G00 X126.855663 Y141.369694

G00 Z4.875000 (Fast pre-penetrate)
G01 Z-0.125000 F400.0(Penetrate)
G01 X69.252438 Y28.317004 Z-0.125000 F800.000000
G00 Z3.000000

(End cutting path id: line194)


(Start cutting path id: line408)
(Change tool to Default tool)

G00 Z3.000000
G00 X69.252438 Y28.317004

G00 Z4.875000 (Fast pre-penetrate)
G01 Z-0.125000 F400.0(Penetrate)
G01 X139.585173 Y125.121694 Z-0.125000 F800.000000
G00 Z3.000000

(End cutting path id: line408)


(Start cutting path id: line220)
(Change tool to Default tool)

G00 Z3.000000
G00 X139.585173 Y125.121694

G00 Z4.875000 (Fast pre-penetrate)
G01 Z-0.125000 F400.0(Penetrate)
G01 X109.728283 Y33.231654 Z-0.125000 F800.000000
G00 Z3.000000

(End cutting path id: line220)


(Start cutting path id: line356)
(Change tool to Default tool)

G00 Z3.000000
G00 X109.728283 Y33.231654

G00 Z4.875000 (Fast pre-penetrate)
G01 Z-0.125000 F400.0(Penetrate)
G01 X130.236943 Y48.132064 Z-0.125000 F800.000000
G00 Z3.000000

(End cutting path id: line356)


(Start cutting path id: line324)
(Change tool to Default tool)

G00 Z3.000000
G00 X130.236943 Y48.132064

G00 Z4.875000 (Fast pre-penetrate)
G01 Z-0.125000 F400.0(Penetrate)
G01 X94.602518 Y157.803494 Z-0.125000 F800.000000
G00 Z3.000000

(End cutting path id: line324)


(Start cutting path id: line148)
(Change tool to Default tool)

G00 Z3.000000
G00 X94.602518 Y157.803494

G00 Z4.875000 (Fast pre-penetrate)
G01 Z-0.125000 F400.0(Penetrate)
G01 X139.585173 Y125.121694 Z-0.125000 F800.000000
G00 Z3.000000

(End cutting path id: line148)


(Start cutting path id: line222)
(Change tool to Default tool)

G00 Z3.000000
G00 X140.343053 Y123.719104

G00 Z4.875000 (Fast pre-penetrate)
G01 Z-0.125000 F400.0(Penetrate)
G01 X51.268621 Y34.644674 Z-0.125000 F800.000000
G00 Z3.000000

(End cutting path id: line222)


(Start cutting path id: line432)
(Change tool to Default tool)

G00 Z3.000000
G00 X51.268621 Y34.644674

G00 Z4.875000 (Fast pre-penetrate)
G01 Z-0.125000 F400.0(Penetrate)
G01 X51.268621 Y151.475824 Z-0.125000 F800.000000
G00 Z3.000000

(End cutting path id: line432)


(Start cutting path id: line614)
(Change tool to Default tool)

G00 Z3.000000
G00 X52.689113 Y152.199594

G00 Z4.875000 (Fast pre-penetrate)
G01 Z-0.125000 F400.0(Penetrate)
G01 X146.958113 Y104.167154 Z-0.125000 F800.000000
G00 Z3.000000

(End cutting path id: line614)


(Start cutting path id: line248)
(Change tool to Default tool)

G00 Z3.000000
G00 X146.958113 Y104.167154

G00 Z4.875000 (Fast pre-penetrate)
G01 Z-0.125000 F400.0(Penetrate)
G01 X91.459758 Y27.780224 Z-0.125000 F800.000000
G00 Z3.000000

(End cutting path id: line248)


(Start cutting path id: line378)
(Change tool to Default tool)

G00 Z3.000000
G00 X93.034378 Y28.029624

G00 Z4.875000 (Fast pre-penetrate)
G01 Z-0.125000 F400.0(Penetrate)
G01 X72.395198 Y158.340264 Z-0.125000 F800.000000
G00 Z3.000000

(End cutting path id: line378)


(Start cutting path id: line642)
(Change tool to Default tool)

G00 Z3.000000
G00 X73.975398 Y158.551534

G00 Z4.875000 (Fast pre-penetrate)
G01 Z-0.125000 F400.0(Penetrate)
G01 X147.418773 Y85.108164 Z-0.125000 F800.000000
G00 Z3.000000

(End cutting path id: line642)


(Start cutting path id: line272)
(Change tool to Default tool)

G00 Z3.000000
G00 X147.418773 Y85.108164

G00 Z4.875000 (Fast pre-penetrate)
G01 Z-0.125000 F400.0(Penetrate)
G01 X147.418773 Y101.012334 Z-0.125000 F800.000000
G00 Z3.000000

(End cutting path id: line272)


(Start cutting path id: line250)
(Change tool to Default tool)

G00 Z3.000000
G00 X147.207503 Y102.592524

G00 Z4.875000 (Fast pre-penetrate)
G01 Z-0.125000 F400.0(Penetrate)
G01 X35.845074 Y45.850534 Z-0.125000 F800.000000
G00 Z3.000000

(End cutting path id: line250)


(Start cutting path id: line456)
(Change tool to Default tool)

G00 Z3.000000
G00 X35.845074 Y45.850534

G00 Z4.875000 (Fast pre-penetrate)
G01 Z-0.125000 F400.0(Penetrate)
G01 X22.788128 Y63.821884 Z-0.125000 F800.000000
G00 Z3.000000

(End cutting path id: line456)


(Start cutting path id: line486)
(Change tool to Default tool)

G00 Z3.000000
G00 X22.098888 Y65.259444

G00 Z4.875000 (Fast pre-penetrate)
G01 Z-0.125000 F400.0(Penetrate)
G01 X33.618026 Y137.988434 Z-0.125000 F800.000000
G00 Z3.000000

(End cutting path id: line486)


(Start cutting path id: line584)
(Change tool to Default tool)

G00 Z3.000000
G00 X33.618026 Y137.988434

G00 Z4.875000 (Fast pre-penetrate)
G01 Z-0.125000 F400.0(Penetrate)
G01 X94.602518 Y157.803494 Z-0.125000 F800.000000
G00 Z3.000000

(End cutting path id: line584)


(Start cutting path id: line146)
(Change tool to Default tool)

G00 Z3.000000
G00 X93.034378 Y158.090864

G00 Z4.875000 (Fast pre-penetrate)
G01 Z-0.125000 F400.0(Penetrate)
G01 X91.459758 Y158.340264 Z-0.125000 F800.000000
G00 Z3.000000

(End cutting path id: line146)


(Start cutting path id: line150)
(Change tool to Default tool)

G00 Z3.000000
G00 X96.163258 Y157.478314

G00 Z4.875000 (Fast pre-penetrate)
G01 Z-0.125000 F400.0(Penetrate)
G01 X142.410373 Y66.713244 Z-0.125000 F800.000000
G00 Z3.000000

(End cutting path id: line150)


(Start cutting path id: line296)
(Change tool to Default tool)

G00 Z3.000000
G00 X142.410373 Y66.713244

G00 Z4.875000 (Fast pre-penetrate)
G01 Z-0.125000 F400.0(Penetrate)
G01 X75.560228 Y158.724564 Z-0.125000 F800.000000
G00 Z3.000000

(End cutting path id: line296)


(Start cutting path id: line634)
(Change tool to Default tool)

G00 Z3.000000
G00 X67.691698 Y157.478314

G00 Z4.875000 (Fast pre-penetrate)
G01 Z-0.125000 F400.0(Penetrate)
G01 X21.444584 Y66.713244 Z-0.125000 F800.000000
G00 Z3.000000

(End cutting path id: line634)


(Start cutting path id: line490)
(Change tool to Default tool)

G00 Z3.000000
G00 X20.825602 Y68.182434

G00 Z4.875000 (Fast pre-penetrate)
G01 Z-0.125000 F400.0(Penetrate)
G01 X137.968843 Y127.869894 Z-0.125000 F800.000000
G00 Z3.000000

(End cutting path id: line490)


(Start cutting path id: line216)
(Change tool to Default tool)

G00 Z3.000000
G00 X137.968843 Y127.869894

G00 Z4.875000 (Fast pre-penetrate)
G01 Z-0.125000 F400.0(Penetrate)
G01 X132.351143 Y135.601974 Z-0.125000 F800.000000
G00 Z3.000000

(End cutting path id: line216)


(Start cutting path id: line202)
(Change tool to Default tool)

G00 Z3.000000
G00 X131.308463 Y136.807984

G00 Z4.875000 (Fast pre-penetrate)
G01 Z-0.125000 F400.0(Penetrate)
G01 X125.675213 Y142.441224 Z-0.125000 F800.000000
G00 Z3.000000

(End cutting path id: line202)


(Start cutting path id: line190)
(Change tool to Default tool)

G00 Z3.000000
G00 X124.469203 Y143.483914

G00 Z4.875000 (Fast pre-penetrate)
G01 Z-0.125000 F400.0(Penetrate)
G01 X147.726493 Y97.838944 Z-0.125000 F800.000000
G00 Z3.000000

(End cutting path id: line190)


(Start cutting path id: line256)
(Change tool to Default tool)

G00 Z3.000000
G00 X147.726493 Y97.838944

G00 Z4.875000 (Fast pre-penetrate)
G01 Z-0.125000 F400.0(Penetrate)
G01 X106.805303 Y154.162124 Z-0.125000 F800.000000
G00 Z3.000000

(End cutting path id: line256)


(Start cutting path id: line166)
(Change tool to Default tool)

G00 Z3.000000
G00 X108.274483 Y153.543144

G00 Z4.875000 (Fast pre-penetrate)
G01 Z-0.125000 F400.0(Penetrate)
G01 X88.294718 Y27.395924 Z-0.125000 F800.000000
G00 Z3.000000

(End cutting path id: line166)


(Start cutting path id: line382)
(Change tool to Default tool)

G00 Z3.000000
G00 X89.879558 Y27.568964

G00 Z4.875000 (Fast pre-penetrate)
G01 Z-0.125000 F400.0(Penetrate)
G01 X147.418773 Y85.108164 Z-0.125000 F800.000000
G00 Z3.000000

(End cutting path id: line382)


(Start cutting path id: line274)
(Change tool to Default tool)

G00 Z3.000000
G00 X147.207503 Y83.527974

G00 Z4.875000 (Fast pre-penetrate)
G01 Z-0.125000 F400.0(Penetrate)
G01 X128.009893 Y45.850534 Z-0.125000 F800.000000
G00 Z3.000000

(End cutting path id: line274)


(Start cutting path id: line326)
(Change tool to Default tool)

G00 Z3.000000
G00 X129.137203 Y46.977834

G00 Z4.875000 (Fast pre-penetrate)
G01 Z-0.125000 F400.0(Penetrate)
G01 X141.066833 Y122.298614 Z-0.125000 F800.000000
G00 Z3.000000

(End cutting path id: line326)


(Start cutting path id: line224)
(Change tool to Default tool)

G00 Z3.000000
G00 X141.066833 Y122.298614

G00 Z4.875000 (Fast pre-penetrate)
G01 Z-0.125000 F400.0(Penetrate)
G01 X16.896857 Y81.953354 Z-0.125000 F800.000000
G00 Z3.000000

(End cutting path id: line224)


(Start cutting path id: line510)
(Change tool to Default tool)

G00 Z3.000000
G00 X16.647461 Y83.527974

G00 Z4.875000 (Fast pre-penetrate)
G01 Z-0.125000 F400.0(Penetrate)
G01 X35.845074 Y45.850534 Z-0.125000 F800.000000
G00 Z3.000000

(End cutting path id: line510)


(Start cutting path id: line458)
(Change tool to Default tool)

G00 Z3.000000
G00 X34.717767 Y46.977834

G00 Z4.875000 (Fast pre-penetrate)
G01 Z-0.125000 F400.0(Penetrate)
G01 X22.788128 Y122.298614 Z-0.125000 F800.000000
G00 Z3.000000

(End cutting path id: line458)


(Start cutting path id: line560)
(Change tool to Default tool)

G00 Z3.000000
G00 X22.788128 Y122.298614

G00 Z4.875000 (Fast pre-penetrate)
G01 Z-0.125000 F400.0(Penetrate)
G01 X146.958113 Y81.953354 Z-0.125000 F800.000000
G00 Z3.000000

(End cutting path id: line560)


(Start cutting path id: line278)
(Change tool to Default tool)

G00 Z3.000000
G00 X146.670733 Y80.385204

G00 Z4.875000 (Fast pre-penetrate)
G01 Z-0.125000 F400.0(Penetrate)
G01 X24.269792 Y60.998804 Z-0.125000 F800.000000
G00 Z3.000000

(End cutting path id: line278)


(Start cutting path id: line480)
(Change tool to Default tool)

G00 Z3.000000
G00 X24.269792 Y60.998804

G00 Z4.875000 (Fast pre-penetrate)
G01 Z-0.125000 F400.0(Penetrate)
G01 X109.728283 Y33.231654 Z-0.125000 F800.000000
G00 Z3.000000

(End cutting path id: line480)


(Start cutting path id: line358)
(Change tool to Default tool)

G00 Z3.000000
G00 X108.274483 Y32.577354

G00 Z4.875000 (Fast pre-penetrate)
G01 Z-0.125000 F400.0(Penetrate)
G01 X75.560228 Y27.395924 Z-0.125000 F800.000000
G00 Z3.000000

(End cutting path id: line358)


(Start cutting path id: line400)
(Change tool to Default tool)

G00 Z3.000000
G00 X75.560228 Y27.395924

G00 Z4.875000 (Fast pre-penetrate)
G01 Z-0.125000 F400.0(Penetrate)
G01 X48.482167 Y36.194124 Z-0.125000 F800.000000
G00 Z3.000000

(End cutting path id: line400)


(Start cutting path id: line438)
(Change tool to Default tool)

G00 Z3.000000
G00 X47.117835 Y37.018884

G00 Z4.875000 (Fast pre-penetrate)
G01 Z-0.125000 F400.0(Penetrate)
G01 X132.351143 Y50.518524 Z-0.125000 F800.000000
G00 Z3.000000

(End cutting path id: line438)


(Start cutting path id: line320)
(Change tool to Default tool)

G00 Z3.000000
G00 X132.351143 Y50.518524

G00 Z4.875000 (Fast pre-penetrate)
G01 Z-0.125000 F400.0(Penetrate)
G01 X16.128473 Y88.281554 Z-0.125000 F800.000000
G00 Z3.000000

(End cutting path id: line320)


(Start cutting path id: line514)
(Change tool to Default tool)

G00 Z3.000000
G00 X16.263156 Y86.693004

G00 Z4.875000 (Fast pre-penetrate)
G01 Z-0.125000 F400.0(Penetrate)
G01 X48.482167 Y149.926374 Z-0.125000 F800.000000
G00 Z3.000000

(End cutting path id: line514)


(Start cutting path id: line608)
(Change tool to Default tool)

G00 Z3.000000
G00 X48.482167 Y149.926374

G00 Z4.875000 (Fast pre-penetrate)
G01 Z-0.125000 F400.0(Penetrate)
G01 X17.509410 Y107.296024 Z-0.125000 F800.000000
G00 Z3.000000

(End cutting path id: line608)


(Start cutting path id: line538)
(Change tool to Default tool)

G00 Z3.000000
G00 X17.184229 Y105.735294

G00 Z4.875000 (Fast pre-penetrate)
G01 Z-0.125000 F400.0(Penetrate)
G01 X24.269792 Y60.998804 Z-0.125000 F800.000000
G00 Z3.000000

(End cutting path id: line538)


(Start cutting path id: line478)
(Change tool to Default tool)

G00 Z3.000000
G00 X25.061351 Y59.614944

G00 Z4.875000 (Fast pre-penetrate)
G01 Z-0.125000 F400.0(Penetrate)
G01 X146.345553 Y78.824474 Z-0.125000 F800.000000
G00 Z3.000000

(End cutting path id: line478)


(Start cutting path id: line280)
(Change tool to Default tool)

G00 Z3.000000
G00 X146.345553 Y78.824474

G00 Z4.875000 (Fast pre-penetrate)
G01 Z-0.125000 F400.0(Penetrate)
G01 X21.444584 Y119.407244 Z-0.125000 F800.000000
G00 Z3.000000

(End cutting path id: line280)


(Start cutting path id: line554)
(Change tool to Default tool)

G00 Z3.000000
G00 X20.825602 Y117.938064

G00 Z4.875000 (Fast pre-penetrate)
G01 Z-0.125000 F400.0(Penetrate)
G01 X25.886121 Y127.869894 Z-0.125000 F800.000000
G00 Z3.000000

(End cutting path id: line554)


(Start cutting path id: line568)
(Change tool to Default tool)

G00 Z3.000000
G00 X25.886121 Y127.869894

G00 Z4.875000 (Fast pre-penetrate)
G01 Z-0.125000 F400.0(Penetrate)
G01 X31.503807 Y135.601974 Z-0.125000 F800.000000
G00 Z3.000000

(End cutting path id: line568)


(Start cutting path id: line578)
(Change tool to Default tool)

G00 Z3.000000
G00 X30.490564 Y134.371124

G00 Z4.875000 (Fast pre-penetrate)
G01 Z-0.125000 F400.0(Penetrate)
G01 X45.773831 Y37.876384 Z-0.125000 F800.000000
G00 Z3.000000

(End cutting path id: line578)


(Start cutting path id: line440)
(Change tool to Default tool)

G00 Z3.000000
G00 X45.773831 Y37.876384

G00 Z4.875000 (Fast pre-penetrate)
G01 Z-0.125000 F400.0(Penetrate)
G01 X78.740138 Y27.164984 Z-0.125000 F800.000000
G00 Z3.000000

(End cutting path id: line440)


(Start cutting path id: line398)
(Change tool to Default tool)

G00 Z3.000000
G00 X77.148788 Y27.261234

G00 Z4.875000 (Fast pre-penetrate)
G01 Z-0.125000 F400.0(Penetrate)
G01 X106.805303 Y31.958374 Z-0.125000 F800.000000
G00 Z3.000000

(End cutting path id: line398)


(Start cutting path id: line362)
(Change tool to Default tool)

G00 Z3.000000
G00 X105.321583 Y31.375064

G00 Z4.875000 (Fast pre-penetrate)
G01 Z-0.125000 F400.0(Penetrate)
G01 X20.242301 Y116.454344 Z-0.125000 F800.000000
G00 Z3.000000

(End cutting path id: line362)


(Start cutting path id: line552)
(Change tool to Default tool)

G00 Z3.000000
G00 X20.242301 Y116.454344

G00 Z4.875000 (Fast pre-penetrate)
G01 Z-0.125000 F400.0(Penetrate)
G01 X20.242301 Y69.666144 Z-0.125000 F800.000000
G00 Z3.000000

(End cutting path id: line552)


(Start cutting path id: line494)
(Change tool to Default tool)

G00 Z3.000000
G00 X19.695024 Y71.163524

G00 Z4.875000 (Fast pre-penetrate)
G01 Z-0.125000 F400.0(Penetrate)
G01 X100.791968 Y29.842564 Z-0.125000 F800.000000
G00 Z3.000000

(End cutting path id: line494)


(Start cutting path id: line370)
(Change tool to Default tool)

G00 Z3.000000
G00 X99.258888 Y29.405174

G00 Z4.875000 (Fast pre-penetrate)
G01 Z-0.125000 F400.0(Penetrate)
G01 X123.238363 Y41.623334 Z-0.125000 F800.000000
G00 Z3.000000

(End cutting path id: line370)


(Start cutting path id: line336)
(Change tool to Default tool)

G00 Z3.000000
G00 X123.238363 Y41.623334

G00 Z4.875000 (Fast pre-penetrate)
G01 Z-0.125000 F400.0(Penetrate)
G01 X45.773831 Y148.244114 Z-0.125000 F800.000000
G00 Z3.000000

(End cutting path id: line336)


(Start cutting path id: line606)
(Change tool to Default tool)

G00 Z3.000000
G00 X47.117835 Y149.101604

G00 Z4.875000 (Fast pre-penetrate)
G01 Z-0.125000 F400.0(Penetrate)
G01 X31.503807 Y50.518524 Z-0.125000 F800.000000
G00 Z3.000000

(End cutting path id: line606)


(Start cutting path id: line466)
(Change tool to Default tool)

G00 Z3.000000
G00 X30.490564 Y51.749364

G00 Z4.875000 (Fast pre-penetrate)
G01 Z-0.125000 F400.0(Penetrate)
G01 X118.081133 Y37.876384 Z-0.125000 F800.000000
G00 Z3.000000

(End cutting path id: line466)


(Start cutting path id: line338)
(Change tool to Default tool)

G00 Z3.000000
G00 X121.983393 Y40.640124

G00 Z4.875000 (Fast pre-penetrate)
G01 Z-0.125000 F400.0(Penetrate)
G01 X103.824203 Y155.292704 Z-0.125000 F800.000000
G00 Z3.000000

(End cutting path id: line338)


(Start cutting path id: line160)
(Change tool to Default tool)

G00 Z3.000000
G00 X103.824203 Y155.292704

G00 Z4.875000 (Fast pre-penetrate)
G01 Z-0.125000 F400.0(Penetrate)
G01 X100.791968 Y156.277934 Z-0.125000 F800.000000
G00 Z3.000000

(End cutting path id: line160)


(Start cutting path id: line154)
(Change tool to Default tool)

G00 Z3.000000
G00 X99.258888 Y156.715304

G00 Z4.875000 (Fast pre-penetrate)
G01 Z-0.125000 F400.0(Penetrate)
G01 X40.616596 Y41.623334 Z-0.125000 F800.000000
G00 Z3.000000

(End cutting path id: line154)


(Start cutting path id: line448)
(Change tool to Default tool)

G00 Z3.000000
G00 X40.616596 Y41.623334

G00 Z4.875000 (Fast pre-penetrate)
G01 Z-0.125000 F400.0(Penetrate)
G01 X118.081133 Y148.244114 Z-0.125000 F800.000000
G00 Z3.000000

(End cutting path id: line448)


(Start cutting path id: line178)
(Change tool to Default tool)

G00 Z3.000000
G00 X116.737123 Y149.101604

G00 Z4.875000 (Fast pre-penetrate)
G01 Z-0.125000 F400.0(Penetrate)
G01 X132.351143 Y50.518524 Z-0.125000 F800.000000
G00 Z3.000000

(End cutting path id: line178)


(Start cutting path id: line322)
(Change tool to Default tool)

G00 Z3.000000
G00 X131.308463 Y49.312514

G00 Z4.875000 (Fast pre-penetrate)
G01 Z-0.125000 F400.0(Penetrate)
G01 X38.179750 Y142.441224 Z-0.125000 F800.000000
G00 Z3.000000

(End cutting path id: line322)


(Start cutting path id: line592)
(Change tool to Default tool)

G00 Z3.000000
G00 X38.179750 Y142.441224

G00 Z4.875000 (Fast pre-penetrate)
G01 Z-0.125000 F400.0(Penetrate)
G01 X38.179750 Y43.679264 Z-0.125000 F800.000000
G00 Z3.000000

(End cutting path id: line592)


(Start cutting path id: line450)
(Change tool to Default tool)

G00 Z3.000000
G00 X39.385749 Y42.636584

G00 Z4.875000 (Fast pre-penetrate)
G01 Z-0.125000 F400.0(Penetrate)
G01 X147.726493 Y97.838944 Z-0.125000 F800.000000
G00 Z3.000000

(End cutting path id: line450)


(Start cutting path id: line254)
(Change tool to Default tool)

G00 Z3.000000
G00 X147.591813 Y99.427494

G00 Z4.875000 (Fast pre-penetrate)
G01 Z-0.125000 F400.0(Penetrate)
G01 X48.482167 Y149.926374 Z-0.125000 F800.000000
G00 Z3.000000

(End cutting path id: line254)


(Start cutting path id: line610)
(Change tool to Default tool)

G00 Z3.000000
G00 X49.866033 Y150.717934

G00 Z4.875000 (Fast pre-penetrate)
G01 Z-0.125000 F400.0(Penetrate)
G01 X54.126671 Y152.888834 Z-0.125000 F800.000000
G00 Z3.000000

(End cutting path id: line610)


(Start cutting path id: line616)
(Change tool to Default tool)

G00 Z3.000000
G00 X54.126671 Y152.888834

G00 Z4.875000 (Fast pre-penetrate)
G01 Z-0.125000 F400.0(Penetrate)
G01 X130.236943 Y48.132064 Z-0.125000 F800.000000
G00 Z3.000000

(End cutting path id: line616)


(Start cutting path id: line318)
(Change tool to Default tool)

G00 Z3.000000
G00 X133.364403 Y51.749364

G00 Z4.875000 (Fast pre-penetrate)
G01 Z-0.125000 F400.0(Penetrate)
G01 X45.773831 Y37.876384 Z-0.125000 F800.000000
G00 Z3.000000

(End cutting path id: line318)


(Start cutting path id: line434)
(Change tool to Default tool)

G00 Z3.000000
G00 X49.866033 Y35.402564

G00 Z4.875000 (Fast pre-penetrate)
G01 Z-0.125000 F400.0(Penetrate)
G01 X109.728283 Y152.888834 Z-0.125000 F800.000000
G00 Z3.000000

(End cutting path id: line434)


(Start cutting path id: line170)
(Change tool to Default tool)

G00 Z3.000000
G00 X111.165853 Y152.199594

G00 Z4.875000 (Fast pre-penetrate)
G01 Z-0.125000 F400.0(Penetrate)
G01 X16.896857 Y104.167154 Z-0.125000 F800.000000
G00 Z3.000000

(End cutting path id: line170)


(Start cutting path id: line542)
(Change tool to Default tool)

G00 Z3.000000
G00 X17.872209 Y108.848454

G00 Z4.875000 (Fast pre-penetrate)
G01 Z-0.125000 F400.0(Penetrate)
G01 X66.139268 Y157.115514 Z-0.125000 F800.000000
G00 Z3.000000

(End cutting path id: line542)


(Start cutting path id: line632)
(Change tool to Default tool)

G00 Z3.000000
G00 X66.139268 Y157.115514

G00 Z4.875000 (Fast pre-penetrate)
G01 Z-0.125000 F400.0(Penetrate)
G01 X66.139268 Y29.004974 Z-0.125000 F800.000000
G00 Z3.000000

(End cutting path id: line632)


(Start cutting path id: line412)
(Change tool to Default tool)

G00 Z3.000000
G00 X66.139268 Y29.004974

G00 Z4.875000 (Fast pre-penetrate)
G01 Z-0.125000 F400.0(Penetrate)
G01 X97.715688 Y29.004974 Z-0.125000 F800.000000
G00 Z3.000000

(End cutting path id: line412)


(Start cutting path id: line372)
(Change tool to Default tool)

G00 Z3.000000
G00 X97.715688 Y29.004974

G00 Z4.875000 (Fast pre-penetrate)
G01 Z-0.125000 F400.0(Penetrate)
G01 X66.139268 Y29.004974 Z-0.125000 F800.000000
G00 Z3.000000

(End cutting path id: line372)


(Start cutting path id: line414)
(Change tool to Default tool)

G00 Z3.000000
G00 X64.596068 Y29.405174

G00 Z4.875000 (Fast pre-penetrate)
G01 Z-0.125000 F400.0(Penetrate)
G01 X40.616596 Y41.623334 Z-0.125000 F800.000000
G00 Z3.000000

(End cutting path id: line414)


(Start cutting path id: line446)
(Change tool to Default tool)

G00 Z3.000000
G00 X41.871568 Y40.640124

G00 Z4.875000 (Fast pre-penetrate)
G01 Z-0.125000 F400.0(Penetrate)
G01 X60.030748 Y155.292704 Z-0.125000 F800.000000
G00 Z3.000000

(End cutting path id: line446)


(Start cutting path id: line624)
(Change tool to Default tool)

G00 Z3.000000
G00 X60.030748 Y155.292704

G00 Z4.875000 (Fast pre-penetrate)
G01 Z-0.125000 F400.0(Penetrate)
G01 X63.062978 Y156.277934 Z-0.125000 F800.000000
G00 Z3.000000

(End cutting path id: line624)


(Start cutting path id: line626)
(Change tool to Default tool)

G00 Z3.000000
G00 X61.540918 Y155.803634

G00 Z4.875000 (Fast pre-penetrate)
G01 Z-0.125000 F400.0(Penetrate)
G01 X120.705033 Y146.432964 Z-0.125000 F800.000000
G00 Z3.000000

(End cutting path id: line626)


(Start cutting path id: line182)
(Change tool to Default tool)

G00 Z3.000000
G00 X119.404023 Y147.354384

G00 Z4.875000 (Fast pre-penetrate)
G01 Z-0.125000 F400.0(Penetrate)
G01 X27.633336 Y55.583714 Z-0.125000 F800.000000
G00 Z3.000000

(End cutting path id: line182)


(Start cutting path id: line482)
(Change tool to Default tool)

G00 Z3.000000
G00 X23.511903 Y62.401394

G00 Z4.875000 (Fast pre-penetrate)
G01 Z-0.125000 F400.0(Penetrate)
G01 X51.268621 Y34.644674 Z-0.125000 F800.000000
G00 Z3.000000

(End cutting path id: line482)


(Start cutting path id: line410)
(Change tool to Default tool)

G00 Z3.000000
G00 X67.691698 Y28.642174

G00 Z4.875000 (Fast pre-penetrate)
G01 Z-0.125000 F400.0(Penetrate)
G01 X142.410373 Y66.713244 Z-0.125000 F800.000000
G00 Z3.000000

(End cutting path id: line410)


(Start cutting path id: line294)
(Change tool to Default tool)

G00 Z3.000000
G00 X143.029353 Y68.182434

G00 Z4.875000 (Fast pre-penetrate)
G01 Z-0.125000 F400.0(Penetrate)
G01 X25.886121 Y127.869894 Z-0.125000 F800.000000
G00 Z3.000000

(End cutting path id: line294)


(Start cutting path id: line566)
(Change tool to Default tool)

G00 Z3.000000
G00 X25.061351 Y126.505564

G00 Z4.875000 (Fast pre-penetrate)
G01 Z-0.125000 F400.0(Penetrate)
G01 X17.509410 Y78.824474 Z-0.125000 F800.000000
G00 Z3.000000

(End cutting path id: line566)


(Start cutting path id: line504)
(Change tool to Default tool)

G00 Z3.000000
G00 X17.509410 Y78.824474

G00 Z4.875000 (Fast pre-penetrate)
G01 Z-0.125000 F400.0(Penetrate)
G01 X142.410373 Y119.407244 Z-0.125000 F800.000000
G00 Z3.000000

(End cutting path id: line504)


(Start cutting path id: line230)
(Change tool to Default tool)

G00 Z3.000000
G00 X143.029353 Y117.938064

G00 Z4.875000 (Fast pre-penetrate)
G01 Z-0.125000 F400.0(Penetrate)
G01 X137.968843 Y127.869894 Z-0.125000 F800.000000
G00 Z3.000000

(End cutting path id: line230)


(Start cutting path id: line218)
(Change tool to Default tool)

G00 Z3.000000
G00 X138.793613 Y126.505564

G00 Z4.875000 (Fast pre-penetrate)
G01 Z-0.125000 F400.0(Penetrate)
G01 X146.345553 Y78.824474 Z-0.125000 F800.000000
G00 Z3.000000

(End cutting path id: line218)


(Start cutting path id: line282)
(Change tool to Default tool)

G00 Z3.000000
G00 X145.982753 Y77.272044

G00 Z4.875000 (Fast pre-penetrate)
G01 Z-0.125000 F400.0(Penetrate)
G01 X66.139268 Y157.115514 Z-0.125000 F800.000000
G00 Z3.000000

(End cutting path id: line282)


(Start cutting path id: line630)
(Change tool to Default tool)

G00 Z3.000000
G00 X64.596068 Y156.715304

G00 Z4.875000 (Fast pre-penetrate)
G01 Z-0.125000 F400.0(Penetrate)
G01 X123.238363 Y41.623334 Z-0.125000 F800.000000
G00 Z3.000000

(End cutting path id: line630)


(Start cutting path id: line334)
(Change tool to Default tool)

G00 Z3.000000
G00 X124.469203 Y42.636584

G00 Z4.875000 (Fast pre-penetrate)
G01 Z-0.125000 F400.0(Penetrate)
G01 X16.128473 Y97.838944 Z-0.125000 F800.000000
G00 Z3.000000

(End cutting path id: line334)


(Start cutting path id: line528)
(Change tool to Default tool)

G00 Z3.000000
G00 X16.128473 Y97.838944

G00 Z4.875000 (Fast pre-penetrate)
G01 Z-0.125000 F400.0(Penetrate)
G01 X57.049661 Y154.162124 Z-0.125000 F800.000000
G00 Z3.000000

(End cutting path id: line528)


(Start cutting path id: line618)
(Change tool to Default tool)

G00 Z3.000000
G00 X55.580477 Y153.543144

G00 Z4.875000 (Fast pre-penetrate)
G01 Z-0.125000 F400.0(Penetrate)
G01 X75.560228 Y27.395924 Z-0.125000 F800.000000
G00 Z3.000000

(End cutting path id: line618)


(Start cutting path id: line402)
(Change tool to Default tool)

G00 Z3.000000
G00 X73.975398 Y27.568964

G00 Z4.875000 (Fast pre-penetrate)
G01 Z-0.125000 F400.0(Penetrate)
G01 X16.436186 Y85.108164 Z-0.125000 F800.000000
G00 Z3.000000

(End cutting path id: line402)


(Start cutting path id: line506)
(Change tool to Default tool)

G00 Z3.000000
G00 X17.184229 Y80.385204

G00 Z4.875000 (Fast pre-penetrate)
G01 Z-0.125000 F400.0(Penetrate)
G01 X139.585173 Y60.998804 Z-0.125000 F800.000000
G00 Z3.000000

(End cutting path id: line506)


(Start cutting path id: line306)
(Change tool to Default tool)

G00 Z3.000000
G00 X138.793613 Y59.614944

G00 Z4.875000 (Fast pre-penetrate)
G01 Z-0.125000 F400.0(Penetrate)
G01 X17.509410 Y78.824474 Z-0.125000 F800.000000
G00 Z3.000000

(End cutting path id: line306)


(Start cutting path id: line502)
(Change tool to Default tool)

G00 Z3.000000
G00 X17.872209 Y77.272044

G00 Z4.875000 (Fast pre-penetrate)
G01 Z-0.125000 F400.0(Penetrate)
G01 X97.715688 Y157.115514 Z-0.125000 F800.000000
G00 Z3.000000

(End cutting path id: line502)


(Start cutting path id: line152)
(Change tool to Default tool)

G00 Z3.000000
G00 X97.715688 Y157.115514

G00 Z4.875000 (Fast pre-penetrate)
G01 Z-0.125000 F400.0(Penetrate)
G01 X97.715688 Y29.004974 Z-0.125000 F800.000000
G00 Z3.000000

(End cutting path id: line152)


(Start cutting path id: line390)
(Change tool to Default tool)

G00 Z3.000000
G00 X83.521618 Y27.107214

G00 Z4.875000 (Fast pre-penetrate)
G01 Z-0.125000 F400.0(Penetrate)
G01 X29.507356 Y133.116154 Z-0.125000 F800.000000
G00 Z3.000000

(End cutting path id: line390)


(Start cutting path id: line574)
(Change tool to Default tool)

G00 Z3.000000
G00 X28.554761 Y131.837794

G00 Z4.875000 (Fast pre-penetrate)
G01 Z-0.125000 F400.0(Penetrate)
G01 X144.670883 Y72.673684 Z-0.125000 F800.000000
G00 Z3.000000

(End cutting path id: line574)


(Start cutting path id: line302)
(Change tool to Default tool)

G00 Z3.000000
G00 X140.343053 Y62.401394

G00 Z4.875000 (Fast pre-penetrate)
G01 Z-0.125000 F400.0(Penetrate)
G01 X112.586343 Y34.644674 Z-0.125000 F800.000000
G00 Z3.000000

(End cutting path id: line302)


(Start cutting path id: line350)
(Change tool to Default tool)

G00 Z3.000000
G00 X113.988923 Y35.402564

G00 Z4.875000 (Fast pre-penetrate)
G01 Z-0.125000 F400.0(Penetrate)
G01 X54.126671 Y152.888834 Z-0.125000 F800.000000
G00 Z3.000000

(End cutting path id: line350)


(Start cutting path id: line622)
(Change tool to Default tool)

G00 Z3.000000
G00 X58.533378 Y154.745424

G00 Z4.875000 (Fast pre-penetrate)
G01 Z-0.125000 F400.0(Penetrate)
G01 X20.242301 Y116.454344 Z-0.125000 F800.000000
G00 Z3.000000

(End cutting path id: line622)


(Start cutting path id: line546)
(Change tool to Default tool)

G00 Z3.000000
G00 X18.709793 Y111.924744

G00 Z4.875000 (Fast pre-penetrate)
G01 Z-0.125000 F400.0(Penetrate)
G01 X147.880523 Y91.466114 Z-0.125000 F800.000000
G00 Z3.000000

(End cutting path id: line546)


(Start cutting path id: line266)
(Change tool to Default tool)

G00 Z3.000000
G00 X147.822743 Y89.872904

G00 Z4.875000 (Fast pre-penetrate)
G01 Z-0.125000 F400.0(Penetrate)
G01 X18.272415 Y110.391654 Z-0.125000 F800.000000
G00 Z3.000000

(End cutting path id: line266)


(Start cutting path id: line544)
(Change tool to Default tool)

G00 Z3.000000
G00 X18.272415 Y110.391654

G00 Z4.875000 (Fast pre-penetrate)
G01 Z-0.125000 F400.0(Penetrate)
G01 X123.238363 Y144.497154 Z-0.125000 F800.000000
G00 Z3.000000

(End cutting path id: line544)


(Start cutting path id: line186)
(Change tool to Default tool)

G00 Z3.000000
G00 X121.983393 Y145.480364

G00 Z4.875000 (Fast pre-penetrate)
G01 Z-0.125000 F400.0(Penetrate)
G01 X60.030748 Y155.292704 Z-0.125000 F800.000000
G00 Z3.000000

(End cutting path id: line186)


(Start cutting path id: line602)
(Change tool to Default tool)

G00 Z3.000000
G00 X44.450938 Y147.354384

G00 Z4.875000 (Fast pre-penetrate)
G01 Z-0.125000 F400.0(Penetrate)
G01 X136.221633 Y55.583714 Z-0.125000 F800.000000
G00 Z3.000000

(End cutting path id: line602)


(Start cutting path id: line354)
(Change tool to Default tool)

G00 Z3.000000
G00 X111.165853 Y33.920894

G00 Z4.875000 (Fast pre-penetrate)
G01 Z-0.125000 F400.0(Penetrate)
G01 X146.958113 Y104.167154 Z-0.125000 F800.000000
G00 Z3.000000

(End cutting path id: line354)


(Start cutting path id: line242)
(Change tool to Default tool)

G00 Z3.000000
G00 X145.982753 Y108.848454

G00 Z4.875000 (Fast pre-penetrate)
G01 Z-0.125000 F400.0(Penetrate)
G01 X97.715688 Y157.115514 Z-0.125000 F800.000000
G00 Z3.000000

(End cutting path id: line242)


(Start cutting path id: line158)
(Change tool to Default tool)

G00 Z3.000000
G00 X102.314053 Y155.803634

G00 Z4.875000 (Fast pre-penetrate)
G01 Z-0.125000 F400.0(Penetrate)
G01 X43.149929 Y146.432964 Z-0.125000 F800.000000
G00 Z3.000000

(End cutting path id: line158)


(Start cutting path id: line598)
(Change tool to Default tool)

G00 Z3.000000
G00 X41.871568 Y145.480364

G00 Z4.875000 (Fast pre-penetrate)
G01 Z-0.125000 F400.0(Penetrate)
G01 X103.824203 Y155.292704 Z-0.125000 F800.000000
G00 Z3.000000

(End cutting path id: line598)


(Start cutting path id: line162)
(Change tool to Default tool)

G00 Z3.000000
G00 X105.321583 Y154.745424

G00 Z4.875000 (Fast pre-penetrate)
G01 Z-0.125000 F400.0(Penetrate)
G01 X143.612673 Y116.454344 Z-0.125000 F800.000000
G00 Z3.000000

(End cutting path id: line162)


(Start cutting path id: line238)
(Change tool to Default tool)

G00 Z3.000000
G00 X145.145173 Y111.924744

G00 Z4.875000 (Fast pre-penetrate)
G01 Z-0.125000 F400.0(Penetrate)
G01 X15.974437 Y91.466114 Z-0.125000 F800.000000
G00 Z3.000000

(End cutting path id: line238)


(Start cutting path id: line518)
(Change tool to Default tool)

G00 Z3.000000
G00 X16.032215 Y89.872904

G00 Z4.875000 (Fast pre-penetrate)
G01 Z-0.125000 F400.0(Penetrate)
G01 X145.582553 Y110.391654 Z-0.125000 F800.000000
G00 Z3.000000

(End cutting path id: line518)


(Start cutting path id: line240)
(Change tool to Default tool)

G00 Z3.000000
G00 X145.582553 Y110.391654

G00 Z4.875000 (Fast pre-penetrate)
G01 Z-0.125000 F400.0(Penetrate)
G01 X40.616596 Y144.497154 Z-0.125000 F800.000000
G00 Z3.000000

(End cutting path id: line240)


(Start cutting path id: line594)
(Change tool to Default tool)

G00 Z3.000000
G00 X39.385749 Y143.483914

G00 Z4.875000 (Fast pre-penetrate)
G01 Z-0.125000 F400.0(Penetrate)
G01 X16.128473 Y97.838944 Z-0.125000 F800.000000
G00 Z3.000000

(End cutting path id: line594)


(Start cutting path id: line530)
(Change tool to Default tool)

G00 Z3.000000
G00 X16.263156 Y99.427494

G00 Z4.875000 (Fast pre-penetrate)
G01 Z-0.125000 F400.0(Penetrate)
G01 X115.372793 Y149.926374 Z-0.125000 F800.000000
G00 Z3.000000

(End cutting path id: line530)


(Start cutting path id: line198)
(Change tool to Default tool)

G00 Z3.000000
G00 X129.137203 Y139.142654

G00 Z4.875000 (Fast pre-penetrate)
G01 Z-0.125000 F400.0(Penetrate)
G01 X22.788128 Y122.298614 Z-0.125000 F800.000000
G00 Z3.000000

(End cutting path id: line198)


(Start cutting path id: line558)
(Change tool to Default tool)

G00 Z3.000000
G00 X22.098888 Y120.861054

G00 Z4.875000 (Fast pre-penetrate)
G01 Z-0.125000 F400.0(Penetrate)
G01 X130.236943 Y137.988434 Z-0.125000 F800.000000
G00 Z3.000000

(End cutting path id: line558)


(Start cutting path id: line210)
(Change tool to Default tool)

G00 Z3.000000
G00 X135.300203 Y131.837794

G00 Z4.875000 (Fast pre-penetrate)
G01 Z-0.125000 F400.0(Penetrate)
G01 X19.184087 Y72.673684 Z-0.125000 F800.000000
G00 Z3.000000

(End cutting path id: line210)


(Start cutting path id: line526)
(Change tool to Default tool)

G00 Z3.000000
G00 X16.032215 Y96.247594

G00 Z4.875000 (Fast pre-penetrate)
G01 Z-0.125000 F400.0(Penetrate)
G01 X18.272415 Y110.391654 Z-0.125000 F800.000000
G00 Z3.000000

(End cutting path id: line526)


(Start cutting path id: line582)
(Change tool to Default tool)

G00 Z3.000000
G00 X32.546498 Y136.807984

G00 Z4.875000 (Fast pre-penetrate)
G01 Z-0.125000 F400.0(Penetrate)
G01 X38.179750 Y142.441224 Z-0.125000 F800.000000
G00 Z3.000000

(End cutting path id: line582)


(Start cutting path id: line586)
(Change tool to Default tool)

G00 Z3.000000
G00 X34.717767 Y139.142654

G00 Z4.875000 (Fast pre-penetrate)
G01 Z-0.125000 F400.0(Penetrate)
G01 X141.066833 Y122.298614 Z-0.125000 F800.000000
G00 Z3.000000

(End cutting path id: line586)


(Start cutting path id: line226)
(Change tool to Default tool)

G00 Z3.000000
G00 X141.756073 Y120.861054

G00 Z4.875000 (Fast pre-penetrate)
G01 Z-0.125000 F400.0(Penetrate)
G01 X33.618026 Y137.988434 Z-0.125000 F800.000000
G00 Z3.000000

(End cutting path id: line226)


(Start cutting path id: line454)
(Change tool to Default tool)

G00 Z3.000000
G00 X36.999290 Y44.750794

G00 Z4.875000 (Fast pre-penetrate)
G01 Z-0.125000 F400.0(Penetrate)
G01 X69.252438 Y28.317004 Z-0.125000 F800.000000
G00 Z3.000000

(End cutting path id: line454)


(Start cutting path id: line258)
(Change tool to Default tool)

G00 Z3.000000
G00 X147.822743 Y96.247594

G00 Z4.875000 (Fast pre-penetrate)
G01 Z-0.125000 F400.0(Penetrate)
G01 X145.582553 Y110.391654 Z-0.125000 F800.000000
G00 Z3.000000

(End cutting path id: line258)



(Footer)
M5
G00 X0.0000 Y0.0000
M2
(Using default footer. To add your own footer create file "footer" in the output dir.)
(end)
%