%
(Header)
(Generated by gcodetools from Inkscape.)
(Using default header. To add your own header create file "header" in the output dir.)
M3
(Header end.)
G21 (All units in mm)

(Start cutting path id: path198698)
(Change tool to Default tool)

G00 Z3.000000
G00 X125.249609 Y254.171694

G00 Z4.875000 (Fast pre-penetrate)
G01 Z-0.125000 F400.0(Penetrate)
G03 X125.520404 Y254.032214 Z-0.125000 I22.979821 J44.281785 F800.000000
G03 X125.782646 Y253.901084 Z-0.125000 I7.491620 J14.654404
G03 X126.046697 Y253.774125 Z-0.125000 I9.784629 J20.012153
G03 X126.304774 Y253.655775 Z-0.125000 I5.214108 J11.029531
G03 X126.565189 Y253.543055 Z-0.125000 I5.864427 J13.191185
G03 X126.822724 Y253.438693 Z-0.125000 I3.946962 J9.370074
G03 X127.082821 Y253.341108 Z-0.125000 I4.067095 J10.444698
G03 X127.343471 Y253.251313 Z-0.125000 I3.168898 J8.775264
G03 X127.606600 Y253.169038 Z-0.125000 I3.079327 J9.386262
G03 X127.873836 Y253.093862 Z-0.125000 I2.660593 J8.945364
G03 X128.143228 Y253.026521 Z-0.125000 I2.471117 J9.312965
G03 X128.420158 Y252.965632 Z-0.125000 I2.294975 J9.777588
G03 X128.698808 Y252.912499 Z-0.125000 I2.053145 J10.010295
G03 X128.988077 Y252.865315 Z-0.125000 I1.980932 J11.234165
G03 X129.278612 Y252.825520 Z-0.125000 I1.709648 J11.401284
G03 X129.582362 Y252.791359 Z-0.125000 I1.648487 J13.290328
G03 X129.886975 Y252.764077 Z-0.125000 I1.361140 J13.483543
G03 X130.206828 Y252.742311 Z-0.125000 I1.238254 J15.834743
G03 X130.527212 Y252.726919 Z-0.125000 I0.938582 J16.194559
G03 X130.864272 Y252.717122 Z-0.125000 I0.709007 J18.591062
G03 X131.201603 Y252.713282 Z-0.125000 I0.391630 J19.585177
G03 X131.556458 Y252.715270 Z-0.125000 I0.058734 J21.189295
G03 X131.911374 Y252.723083 Z-0.125000 I-0.322625 J22.720167
G03 X132.284077 Y252.737257 Z-0.125000 I-0.679101 J22.764649
G03 X132.656651 Y252.757212 Z-0.125000 I-1.178778 J25.496916
G03 X133.046711 Y252.784218 Z-0.125000 I-1.430249 J23.488164
G03 X133.436440 Y252.817257 Z-0.125000 I-2.125060 J27.382043
G03 X133.842776 Y252.858177 Z-0.125000 I-2.156229 J23.449570
G03 X134.248534 Y252.905606 Z-0.125000 I-3.038838 J27.756856
G03 X134.669433 Y252.961872 Z-0.125000 I-2.841916 J22.861272
G03 X135.089447 Y253.025289 Z-0.125000 I-3.884645 J27.150949
G03 X135.522534 Y253.098508 Z-0.125000 I-3.488179 J21.949744
G03 X135.954396 Y253.179683 Z-0.125000 I-4.601034 J25.667600
G03 X136.396552 Y253.271458 Z-0.125000 I-4.176307 J21.231662
G03 X136.838630 Y253.373113 Z-0.125000 I-4.429665 J20.275896
G03 X137.284201 Y253.483386 Z-0.125000 I-9.508359 J39.374799
G03 X137.727047 Y253.599456 Z-0.125000 I-6.974213 J27.511880
G03 X138.165223 Y253.719828 Z-0.125000 I-16.046634 J59.270199
G03 X138.601179 Y253.843874 Z-0.125000 I-11.247678 J40.357888
G03 X139.028761 Y253.969589 Z-0.125000 I-18.623236 J64.131107
G03 X139.455212 Y254.098648 Z-0.125000 I-13.907826 J46.724923
G03 X139.871961 Y254.227836 Z-0.125000 I-29.784484 J96.819242
G03 X140.287845 Y254.359349 Z-0.125000 I-18.486029 J59.181710
G03 X140.693253 Y254.489506 Z-0.125000 I-75.159616 J234.801096
G03 X141.098127 Y254.620897 Z-0.125000 I-28.592372 J88.795035
G02 X141.492272 Y254.749580 Z-0.125000 I127.046737 J-388.465409
G03 X141.886255 Y254.878379 Z-0.125000 I-71.723928 J220.062602
G02 X142.269718 Y255.003312 Z-0.125000 I33.042472 J-100.767696
G02 X142.653391 Y255.127260 Z-0.125000 I106.819060 J-329.996725
G02 X143.027153 Y255.246419 Z-0.125000 I18.421564 J-57.136441
G02 X143.401465 Y255.363548 Z-0.125000 I28.188131 J-89.425201
G02 X143.766789 Y255.475207 Z-0.125000 I12.461349 J-40.117403
G02 X144.132944 Y255.583889 Z-0.125000 I15.477324 J-51.472761
G02 X144.491265 Y255.686659 Z-0.125000 I9.240854 J-31.543329
G02 X144.850614 Y255.785628 Z-0.125000 I10.292249 J-36.668543
G02 X145.203427 Y255.878452 Z-0.125000 I7.221962 J-26.732736
G02 X145.557367 Y255.966809 Z-0.125000 I7.487448 J-29.240154
G02 X145.906128 Y256.048960 Z-0.125000 I5.831812 J-23.976752
G02 X146.256027 Y256.126150 Z-0.125000 I5.729954 J-25.142283
G02 X146.602074 Y256.197204 Z-0.125000 I4.809173 J-22.543411
G02 X146.949190 Y256.262981 Z-0.125000 I4.521123 J-22.909925
G02 X147.293688 Y256.322793 Z-0.125000 I4.005303 J-22.047074
G02 X147.639121 Y256.377196 Z-0.125000 I3.615933 J-21.835669
G02 X147.983020 Y256.425877 Z-0.125000 I3.339032 J-22.348763
G02 X148.327686 Y256.469182 Z-0.125000 I2.895542 J-21.652707
G02 X148.671703 Y256.507073 Z-0.125000 I2.754344 J-23.426580
G02 X149.016307 Y256.539775 Z-0.125000 I2.270886 J-22.097351
G02 X149.360928 Y256.567421 Z-0.125000 I2.212508 J-25.418347
G02 X149.705958 Y256.590200 Z-0.125000 I1.721716 J-23.454471
G02 X150.051456 Y256.608358 Z-0.125000 I1.669559 J-28.471733
G02 X150.397208 Y256.622081 Z-0.125000 I1.183139 J-25.445379
G02 X150.743666 Y256.631667 Z-0.125000 I1.091756 J-33.192697
G02 X151.090251 Y256.637381 Z-0.125000 I0.643507 J-28.522391
G02 X151.437606 Y256.639525 Z-0.125000 I0.427058 J-41.031475
G02 X151.784992 Y256.638495 Z-0.125000 I0.075592 J-33.079398
G02 X152.133068 Y256.634446 Z-0.125000 I-0.418428 J-50.924291
G02 X152.481124 Y256.627943 Z-0.125000 I-0.600536 J-41.465346
G02 X152.829680 Y256.619311 Z-0.125000 I-2.117011 J-92.525365
G02 X153.178198 Y256.608985 Z-0.125000 I-1.496576 J-56.397780
G02 X153.526976 Y256.597404 Z-0.125000 I-11.804564 J-360.756333
G02 X153.875724 Y256.585015 Z-0.125000 I-3.206377 J-95.174269
G03 X154.224475 Y256.572348 Z-0.125000 I6.287163 J168.291827
G02 X154.573225 Y256.559883 Z-0.125000 I-13.499281 J-382.590674
G03 X154.921730 Y256.548218 Z-0.125000 I2.318611 J64.056145
G03 X155.270271 Y256.537859 Z-0.125000 I5.209336 J169.407600
G03 X155.618359 Y256.529433 Z-0.125000 I1.114503 J38.844842
G03 X155.966493 Y256.523520 Z-0.125000 I1.252629 J63.501799
G03 X156.314003 Y256.520807 Z-0.125000 I0.384517 J26.998277
G03 X156.661529 Y256.521949 Z-0.125000 I0.044816 J39.237732
G03 X157.008258 Y256.527554 Z-0.125000 I-0.158332 J20.522581
G03 X157.354892 Y256.538426 Z-0.125000 I-0.661322 J26.617127
G03 X157.700505 Y256.555261 Z-0.125000 I-0.606055 J15.997584
G03 X158.045738 Y256.579108 Z-0.125000 I-1.081700 J18.171093
G03 X158.389659 Y256.609834 Z-0.125000 I-1.272484 J16.183014
G03 X158.732645 Y256.649373 Z-0.125000 I-1.142428 J11.417415
G02 X159.074442 Y256.692754 Z-0.125000 I6.240645 J-47.801711
G03 X159.416174 Y256.735740 Z-0.125000 I-8.564437 J69.465415
G02 X159.757093 Y256.778429 Z-0.125000 I7.226709 J-56.331266
G02 X160.098149 Y256.819697 Z-0.125000 I18.301421 J-149.819574
G02 X160.438725 Y256.859397 Z-0.125000 I6.303762 J-52.598431
G02 X160.779488 Y256.897228 Z-0.125000 I8.483577 J-74.862119
G02 X161.120145 Y256.932850 Z-0.125000 I4.515090 J-41.531093
G02 X161.461045 Y256.965973 Z-0.125000 I5.224880 J-52.002990
G02 X161.802280 Y256.996337 Z-0.125000 I3.309997 J-35.266192
G02 X162.143772 Y257.023652 Z-0.125000 I3.478933 J-41.345000
G02 X162.486076 Y257.047737 Z-0.125000 I2.383726 J-31.433355
G02 X162.828616 Y257.068310 Z-0.125000 I2.311456 J-35.624486
G02 X163.172426 Y257.085258 Z-0.125000 I1.601863 J-28.999985
G02 X163.516422 Y257.098322 Z-0.125000 I1.383190 J-31.886205
G02 X163.862093 Y257.107403 Z-0.125000 I0.893660 J-27.431951
G02 X164.207872 Y257.112301 Z-0.125000 I0.594609 J-29.775227
G02 X164.555634 Y257.112960 Z-0.125000 I0.224906 J-26.916823
G02 X164.903408 Y257.109219 Z-0.125000 I-0.128171 J-28.081582
G02 X165.253347 Y257.100974 Z-0.125000 I-0.449012 J-26.488981
G02 X165.603189 Y257.088189 Z-0.125000 I-0.828878 J-27.472621
G02 X165.955230 Y257.070714 Z-0.125000 I-1.128259 J-26.284280
G02 X166.307054 Y257.048620 Z-0.125000 I-1.524492 J-27.088906
G02 X166.660950 Y257.021734 Z-0.125000 I-1.855091 J-26.760636
G02 X167.014505 Y256.990198 Z-0.125000 I-2.229414 J-26.991964
G02 X167.369836 Y256.953824 Z-0.125000 I-2.621167 J-27.359127
G02 X167.724706 Y256.912834 Z-0.125000 I-2.960684 J-27.189050
G02 X168.080898 Y256.867051 Z-0.125000 I-3.451051 J-28.257528
G02 X168.436513 Y256.816735 Z-0.125000 I-3.751376 J-27.795467
G02 X168.792851 Y256.761781 Z-0.125000 I-4.359479 J-29.450855
G02 X169.148511 Y256.702442 Z-0.125000 I-4.569327 J-28.482446
G02 X169.504175 Y256.638724 Z-0.125000 I-5.409934 J-31.221835
G02 X169.859082 Y256.570836 Z-0.125000 I-5.457734 J-29.494049
G02 X170.213188 Y256.498955 Z-0.125000 I-6.669123 J-33.762045
G02 X170.566495 Y256.423199 Z-0.125000 I-6.454644 J-30.964352
G02 X170.918151 Y256.343965 Z-0.125000 I-8.289892 J-37.612362
G02 X171.269000 Y256.261228 Z-0.125000 I-7.636391 J-33.167772
G02 X171.617367 Y256.175661 Z-0.125000 I-10.595233 J-43.887957
G02 X171.964961 Y256.087062 Z-0.125000 I-9.148326 J-36.617120
G02 X172.309315 Y255.996398 Z-0.125000 I-14.381548 J-55.322357
G02 X172.652982 Y255.903273 Z-0.125000 I-11.286944 J-42.333858
G02 X172.992781 Y255.808952 Z-0.125000 I-22.498110 J-81.709949
G02 X173.332032 Y255.712851 Z-0.125000 I-14.844843 J-53.051504
G02 X173.666986 Y255.616494 Z-0.125000 I-55.415507 J-193.264764
G02 X174.001587 Y255.519149 Z-0.125000 I-22.474415 J-77.874248
G03 X174.331708 Y255.422531 Z-0.125000 I89.391011 J304.816129
G02 X174.661722 Y255.325825 Z-0.125000 I-54.204581 J-185.587127
G03 X174.987385 Y255.230835 Z-0.125000 I22.378534 J76.116867
G03 X175.313216 Y255.136755 Z-0.125000 I80.385106 J277.788727
G03 X175.635174 Y255.045347 Z-0.125000 I11.958273 J41.506727
G03 X175.957592 Y254.955939 Z-0.125000 I20.122191 J71.937962
G03 X176.276997 Y254.870106 Z-0.125000 I7.639506 J27.790900
G03 X176.597133 Y254.787423 Z-0.125000 I10.399018 J39.602495
G03 X176.915515 Y254.709152 Z-0.125000 I5.273020 J20.762293
G03 X177.234841 Y254.635223 Z-0.125000 I6.423243 J27.017925
G03 X177.554062 Y254.566494 Z-0.125000 I3.762445 J16.699376
G03 X177.874355 Y254.503309 Z-0.125000 I4.240341 J20.651477
G03 X178.196536 Y254.446109 Z-0.125000 I2.687892 J14.203597
G03 X178.518848 Y254.394624 Z-0.125000 I4.444512 J26.789744
G03 X178.847201 Y254.351973 Z-0.125000 I1.082670 J7.049681
G03 X179.176118 Y254.321080 Z-0.125000 I1.420146 J13.354024
G03 X179.519136 Y254.305440 Z-0.125000 I0.389943 J4.783002
G03 X179.865249 Y254.312156 Z-0.125000 I0.060148 J5.822729
G03 X180.230338 Y254.338444 Z-0.125000 I-0.395046 J8.034507
G03 X180.594380 Y254.381741 Z-0.125000 I-0.732099 J7.707630
G03 X180.974864 Y254.443624 Z-0.125000 I-1.423130 J9.950667
G03 X181.352898 Y254.520280 Z-0.125000 I-1.759821 J9.649139
G03 X181.742803 Y254.614293 Z-0.125000 I-2.590450 J11.599025
G03 X182.129370 Y254.721562 Z-0.125000 I-2.922096 J11.280678
G03 X182.522304 Y254.844475 Z-0.125000 I-3.826628 J12.922587
G03 X182.911235 Y254.979524 Z-0.125000 I-4.089919 J12.406284
G03 X183.300765 Y255.127897 Z-0.125000 I-5.114914 J14.013938
G03 X183.685802 Y255.287403 Z-0.125000 I-5.182820 J13.055400
G03 X184.065905 Y255.457265 Z-0.125000 I-6.506347 J15.069562
G03 X184.441219 Y255.637189 Z-0.125000 I-6.198873 J13.412039
G03 X184.806703 Y255.823914 Z-0.125000 I-8.141581 J16.386870
G03 X185.167358 Y256.019444 Z-0.125000 I-7.194273 J13.700173
G03 X185.514211 Y256.217801 Z-0.125000 I-10.346764 J18.495128
G03 X185.856522 Y256.423475 Z-0.125000 I-8.311564 J14.220963
G03 X186.182196 Y256.627828 Z-0.125000 I-13.987425 J22.653183
G03 X186.503970 Y256.837778 Z-0.125000 I-9.823537 J15.407349
G03 X186.807516 Y257.042395 Z-0.125000 I-22.600831 J33.855426
G03 X187.108168 Y257.250691 Z-0.125000 I-12.460686 J18.306722
G03 X187.390250 Y257.450102 Z-0.125000 I-82.074611 J116.400131
G03 X187.670755 Y257.651121 Z-0.125000 I-19.103118 J26.953058
G02 X187.933534 Y257.840462 Z-0.125000 I35.886719 J-49.528558
G03 X188.196258 Y258.029239 Z-0.125000 I-70.774500 J98.775722
G02 X188.443166 Y258.204537 Z-0.125000 I12.645695 J-17.549960
G02 X188.691574 Y258.377057 Z-0.125000 I25.700672 J-36.740741
G02 X188.927019 Y258.535414 Z-0.125000 I6.962662 J-10.097906
G02 X189.165330 Y258.688811 Z-0.125000 I9.039948 J-13.782234
G02 X189.394366 Y258.828439 Z-0.125000 I4.518781 J-7.154586
G02 X189.627205 Y258.961111 Z-0.125000 I4.952598 J-8.421174
G02 X189.855158 Y259.081254 Z-0.125000 I3.250642 J-5.891295
G02 X190.087277 Y259.192833 Z-0.125000 I3.243580 J-6.450408
G02 X190.319406 Y259.293587 Z-0.125000 I2.543948 J-5.543273
G02 X190.555469 Y259.384781 Z-0.125000 I2.384723 J-5.821917
G02 X190.796632 Y259.466883 Z-0.125000 I2.132566 J-5.868818
G00 Z3.000000

(End cutting path id: path198698)


(Start cutting path id: path198696)
(Change tool to Default tool)

G00 Z3.000000
G00 X125.083615 Y252.748171

G00 Z4.875000 (Fast pre-penetrate)
G01 Z-0.125000 F400.0(Penetrate)
G03 X125.347302 Y252.620957 Z-0.125000 I13.830161 J28.330094 F800.000000
G03 X125.604100 Y252.501625 Z-0.125000 I6.183862 J12.971394
G03 X125.862817 Y252.386933 Z-0.125000 I7.409713 J16.365358
G03 X126.117317 Y252.280137 Z-0.125000 I4.544869 J10.474020
G03 X126.374073 Y252.179192 Z-0.125000 I4.872009 J12.015057
G03 X126.629679 Y252.085764 Z-0.125000 I3.582124 J9.403823
G03 X126.887603 Y251.999052 Z-0.125000 I3.576759 J10.212141
G03 X127.147654 Y251.919262 Z-0.125000 I2.972120 J9.222941
G03 X127.409834 Y251.846655 Z-0.125000 I2.821195 J9.677550
G03 X127.677415 Y251.780318 Z-0.125000 I2.562049 J9.761718
G03 X127.946785 Y251.721233 Z-0.125000 I2.335031 J10.001802
G03 X128.224604 Y251.667836 Z-0.125000 I2.254639 J10.981306
G03 X128.503812 Y251.621432 Z-0.125000 I1.983789 J11.072890
G03 X128.794148 Y251.580257 Z-0.125000 I1.977269 J12.898083
G03 X129.085480 Y251.545612 Z-0.125000 I1.684628 J12.924111
G03 X129.390135 Y251.515884 Z-0.125000 I1.663956 J15.476103
G03 X129.695460 Y251.492133 Z-0.125000 I1.356974 J15.470107
G03 X130.015776 Y251.473156 Z-0.125000 I1.263940 J18.621542
G03 X130.336504 Y251.459649 Z-0.125000 I0.958002 J18.933546
G03 X130.673365 Y251.450931 Z-0.125000 I0.731069 J21.735731
G03 X131.010447 Y251.447275 Z-0.125000 I0.415609 J22.776963
G03 X131.364284 Y251.448550 Z-0.125000 I0.086504 J25.094831
G03 X131.718189 Y251.454778 Z-0.125000 I-0.310961 J27.729302
G03 X132.088985 Y251.466251 Z-0.125000 I-0.639588 J26.669028
G03 X132.459710 Y251.482631 Z-0.125000 I-1.143310 J30.079690
G03 X132.846975 Y251.504853 Z-0.125000 I-1.393331 J27.666538
G03 X133.234024 Y251.532133 Z-0.125000 I-2.063809 J32.041292
G03 X133.636784 Y251.565911 Z-0.125000 I-2.123483 J27.737719
G03 X134.039159 Y251.605113 Z-0.125000 I-2.958149 J32.447440
G03 X134.455931 Y251.651570 Z-0.125000 I-2.813899 J27.136692
G03 X134.872102 Y251.703957 Z-0.125000 I-3.801042 J31.875238
G03 X135.300871 Y251.764359 Z-0.125000 I-3.469559 J26.181096
G03 X135.728813 Y251.831317 Z-0.125000 I-4.529828 J30.351764
G03 X136.166997 Y251.906929 Z-0.125000 I-4.172098 J25.485486
G03 X136.605317 Y251.990471 Z-0.125000 I-4.499210 J24.797694
G03 X137.048339 Y252.081411 Z-0.125000 I-8.405835 J42.074290
G03 X137.489373 Y252.177542 Z-0.125000 I-6.764692 J32.095330
G03 X137.928331 Y252.278168 Z-0.125000 I-12.827581 J56.964744
G03 X138.365538 Y252.382499 Z-0.125000 I-10.119983 J43.377095
G03 X138.797225 Y252.489433 Z-0.125000 I-14.929031 J61.192460
G03 X139.227943 Y252.599776 Z-0.125000 I-12.195885 J48.501600
G03 X139.651545 Y252.711484 Z-0.125000 I-21.246363 J81.426348
G03 X140.074333 Y252.825815 Z-0.125000 I-15.396895 J57.775495
G03 X140.488876 Y252.940245 Z-0.125000 I-36.362527 J132.537772
G03 X140.902818 Y253.056421 Z-0.125000 I-21.146160 J76.140333
G03 X141.307837 Y253.171480 Z-0.125000 I-127.573930 J449.844888
G03 X141.712514 Y253.287358 Z-0.125000 I-35.246688 J123.855897
G02 X142.108007 Y253.401003 Z-0.125000 I80.719109 J-280.162944
G03 X142.503439 Y253.514522 Z-0.125000 I-125.314393 J437.264525
G02 X142.889813 Y253.624846 Z-0.125000 I29.576940 J-102.852606
G02 X143.276400 Y253.734121 Z-0.125000 I69.703709 J-245.854684
G02 X143.654368 Y253.839417 Z-0.125000 I17.750836 J-62.986829
G02 X144.032795 Y253.942794 Z-0.125000 I25.643198 J-93.127047
G02 X144.403310 Y254.041596 Z-0.125000 I12.415725 J-45.815705
G02 X144.774480 Y254.137692 Z-0.125000 I15.098525 J-57.552662
G02 X145.138623 Y254.228804 Z-0.125000 I9.398936 J-36.791197
G02 X145.503562 Y254.316536 Z-0.125000 I10.367348 J-42.322133
G02 X145.862474 Y254.399039 Z-0.125000 I7.450539 J-31.590023
G02 X146.222255 Y254.477617 Z-0.125000 I7.689403 J-34.344384
G02 X146.577065 Y254.550865 Z-0.125000 I6.073416 J-28.523294
G02 X146.932745 Y254.619791 Z-0.125000 I5.961365 J-29.810487
G02 X147.284497 Y254.683408 Z-0.125000 I5.046676 J-26.899780
G02 X147.637061 Y254.742449 Z-0.125000 I4.745541 J-27.255856
G02 X147.986674 Y254.796303 Z-0.125000 I4.239681 J-26.361728
G02 X148.337002 Y254.845481 Z-0.125000 I3.825794 J-25.981122
G02 X148.685244 Y254.889671 Z-0.125000 I3.567887 J-26.722514
G02 X149.034076 Y254.929231 Z-0.125000 I3.093661 J-25.721767
G02 X149.381547 Y254.964075 Z-0.125000 I2.981896 J-27.986298
G02 X149.729473 Y254.994467 Z-0.125000 I2.473197 J-26.306233
G02 X150.076609 Y255.020487 Z-0.125000 I2.453300 J-30.401605
G02 X150.424066 Y255.042354 Z-0.125000 I1.918172 J-27.707133
G02 X150.771148 Y255.060256 Z-0.125000 I1.945607 J-34.347241
G02 X151.118435 Y255.074416 Z-0.125000 I1.409073 J-30.292306
G02 X151.465615 Y255.085100 Z-0.125000 I1.428581 J-40.775854
G02 X151.812906 Y255.092552 Z-0.125000 I0.910621 J-34.345313
G02 X152.160235 Y255.097086 Z-0.125000 I0.851873 J-51.948591
G02 X152.507606 Y255.099070 Z-0.125000 I0.390786 J-38.003510
G02 X152.855064 Y255.098673 Z-0.125000 I0.086871 J-76.046774
G02 X153.202525 Y255.096372 Z-0.125000 I-0.186193 J-54.336105
G02 X153.550060 Y255.092562 Z-0.125000 I-1.494901 J-152.202938
G02 X153.897582 Y255.087578 Z-0.125000 I-0.941049 J-77.736873
G03 X154.245133 Y255.081899 Z-0.125000 I12.123584 J731.346978
G02 X154.592674 Y255.075926 Z-0.125000 I-2.580337 J-160.245960
G03 X154.940195 Y255.070151 Z-0.125000 I1.918399 J104.992943
G03 X155.287719 Y255.065058 Z-0.125000 I13.574694 J914.330456
G03 X155.635186 Y255.061156 Z-0.125000 I0.776847 J53.699843
G03 X155.982666 Y255.058966 Z-0.125000 I0.819989 J102.559599
G03 X156.330079 Y255.059039 Z-0.125000 I0.166144 J36.062762
G03 X156.677479 Y255.062025 Z-0.125000 I-0.343969 J60.218706
G03 X157.024813 Y255.068405 Z-0.125000 I-0.289657 J25.228043
G03 X157.372065 Y255.078875 Z-0.125000 I-0.896548 J35.498826
G03 X157.719214 Y255.094070 Z-0.125000 I-0.698877 J19.940510
G03 X158.066123 Y255.114947 Z-0.125000 I-1.189309 J22.654645
G03 X158.412808 Y255.141258 Z-0.125000 I-1.475448 J21.738419
G03 X158.759026 Y255.174812 Z-0.125000 I-1.134197 J13.505763
G02 X159.104838 Y255.210362 Z-0.125000 I2.709521 J-24.657427
G02 X159.450663 Y255.243120 Z-0.125000 I16.913841 J-176.715159
G02 X159.796085 Y255.273666 Z-0.125000 I3.074045 J-32.793972
G02 X160.141742 Y255.300998 Z-0.125000 I3.554641 J-42.755356
G02 X160.487279 Y255.325289 Z-0.125000 I2.766775 J-36.887093
G02 X160.833026 Y255.346436 Z-0.125000 I2.593282 J-39.561410
G02 X161.178930 Y255.364373 Z-0.125000 I1.998723 J-35.200597
G02 X161.525000 Y255.378985 Z-0.125000 I1.735705 J-37.002336
G02 X161.871460 Y255.390249 Z-0.125000 I1.294540 J-34.483820
G02 X162.218033 Y255.398045 Z-0.125000 I0.973468 J-35.567436
G02 X162.565176 Y255.402394 Z-0.125000 I0.600281 J-34.064870
G02 X162.912361 Y255.403155 Z-0.125000 I0.255139 J-37.199711
G02 X163.260227 Y255.400542 Z-0.125000 I-0.085436 J-34.528916
G02 X163.608066 Y255.394209 Z-0.125000 I-0.449009 J-34.222308
G02 X163.956615 Y255.384296 Z-0.125000 I-0.788283 J-33.848186
G02 X164.305066 Y255.370800 Z-0.125000 I-1.141553 J-33.978794
G02 X164.654172 Y255.353726 Z-0.125000 I-1.523154 J-34.720985
G02 X165.003111 Y255.333102 Z-0.125000 I-1.858196 J-34.400105
G02 X165.352571 Y255.308940 Z-0.125000 I-2.281624 J-35.539757
G02 X165.701794 Y255.281307 Z-0.125000 I-2.580233 J-34.829187
G02 X166.051327 Y255.250221 Z-0.125000 I-3.115392 J-37.010452
G02 X166.400559 Y255.215775 Z-0.125000 I-3.372526 J-35.979746
G02 X166.749823 Y255.178025 Z-0.125000 I-4.023770 J-38.862171
G02 X167.098736 Y255.137067 Z-0.125000 I-4.141515 J-36.787532
G02 X167.447341 Y255.092990 Z-0.125000 I-5.107363 J-41.795144
G02 X167.795560 Y255.045897 Z-0.125000 I-5.079755 J-38.872149
G02 X168.143093 Y254.995952 Z-0.125000 I-6.344488 J-45.380673
G02 X168.490217 Y254.943218 Z-0.125000 I-6.109841 J-41.387124
G02 X168.836261 Y254.887952 Z-0.125000 I-7.929558 J-50.761231
G02 X169.181892 Y254.830170 Z-0.125000 I-7.326984 J-44.890468
G02 X169.526056 Y254.770233 Z-0.125000 I-10.068659 J-58.833267
G02 X169.869818 Y254.708110 Z-0.125000 I-8.842340 J-49.911695
G02 X170.211754 Y254.644265 Z-0.125000 I-13.369552 J-72.551603
G02 X170.553328 Y254.578604 Z-0.125000 I-10.937372 J-57.817773
G02 X170.892772 Y254.511707 Z-0.125000 I-19.357452 J-99.116865
G02 X171.231916 Y254.443423 Z-0.125000 I-14.058130 J-70.698409
G02 X171.568710 Y254.374428 Z-0.125000 I-35.158501 J-172.480506
G02 X171.905285 Y254.304521 Z-0.125000 I-19.957192 J-96.931513
G02 X172.239402 Y254.234461 Z-0.125000 I-208.883839 J-996.996065
G02 X172.573403 Y254.164018 Z-0.125000 I-35.137789 J-167.433040
G03 X172.904974 Y254.093996 Z-0.125000 I48.045539 J226.688378
G02 X173.236544 Y254.024172 Z-0.125000 I-218.103035 J-1036.516664
G03 X173.565870 Y253.955349 Z-0.125000 I20.425101 J96.914729
G03 X173.895317 Y253.887345 Z-0.125000 I45.109699 J217.699809
G03 X174.222880 Y253.820920 Z-0.125000 I12.304944 J59.839337
G03 X174.550687 Y253.755970 Z-0.125000 I18.763183 J93.838637
G03 X174.877154 Y253.693169 Z-0.125000 I8.397093 J42.771961
G03 X175.203980 Y253.632527 Z-0.125000 I11.062571 J58.709977
G03 X175.530190 Y253.574591 Z-0.125000 I6.064501 J33.198859
G03 X175.856856 Y253.519518 Z-0.125000 I7.312754 J42.379270
G03 X176.183816 Y253.467702 Z-0.125000 I4.482383 J27.226534
G03 X176.511289 Y253.419461 Z-0.125000 I5.074387 J33.310910
G03 X176.840127 Y253.375037 Z-0.125000 I3.307470 J23.243394
G03 X177.169496 Y253.334900 Z-0.125000 I3.537417 J27.656895
G03 X177.501434 Y253.299173 Z-0.125000 I2.372810 J20.485913
G03 X177.833862 Y253.268438 Z-0.125000 I2.391081 J24.048877
G03 X178.170151 Y253.242764 Z-0.125000 I1.580639 J18.488393
G03 X178.505679 Y253.221603 Z-0.125000 I2.760563 J41.101387
G03 X178.848685 Y253.208622 Z-0.125000 I0.479424 J8.129842
G03 X179.191140 Y253.206223 Z-0.125000 I0.295064 J17.672931
G03 X179.548870 Y253.219655 Z-0.125000 I-0.013773 J5.136944
G03 X179.908582 Y253.255753 Z-0.125000 I-0.473117 J6.524989
G03 X180.287114 Y253.312929 Z-0.125000 I-1.094538 J8.527954
G03 X180.663152 Y253.387163 Z-0.125000 I-1.444824 J8.308352
G03 X181.053294 Y253.481272 Z-0.125000 I-2.273090 J10.279140
G03 X181.439663 Y253.590366 Z-0.125000 I-2.613330 J9.994191
G03 X181.833846 Y253.717381 Z-0.125000 I-3.517746 J11.592248
G03 X182.223400 Y253.857984 Z-0.125000 I-3.806403 J11.155956
G03 X182.614048 Y254.013796 Z-0.125000 I-4.808177 J12.622567
G03 X182.999436 Y254.182014 Z-0.125000 I-4.912226 J11.779494
G03 X183.379447 Y254.361918 Z-0.125000 I-6.179899 J13.545064
G03 X183.753803 Y254.553000 Z-0.125000 I-5.906896 J12.034708
G03 X184.117091 Y254.751522 Z-0.125000 I-7.765037 J14.641379
G03 X184.474646 Y254.959784 Z-0.125000 I-6.846976 J12.166325
G03 X184.816593 Y255.170727 Z-0.125000 I-9.870996 J16.383854
G03 X185.153127 Y255.389718 Z-0.125000 I-7.863681 J12.452604
G03 X185.470917 Y255.606451 Z-0.125000 I-13.340530 J19.902270
G03 X185.784062 Y255.829275 Z-0.125000 I-9.219354 J13.287795
G03 X186.076831 Y256.045111 Z-0.125000 I-21.694800 J29.734270
G03 X186.366183 Y256.264885 Z-0.125000 I-11.601638 J15.574980
G03 X186.635008 Y256.473563 Z-0.125000 I-89.368034 J115.403718
G03 X186.902032 Y256.683868 Z-0.125000 I-17.793994 J22.867600
G02 X187.149741 Y256.879981 Z-0.125000 I29.551121 J-37.071470
G03 X187.397504 Y257.075313 Z-0.125000 I-76.826778 J97.703450
G02 X187.628346 Y257.254636 Z-0.125000 I10.741783 J-13.589585
G02 X187.861116 Y257.430723 Z-0.125000 I20.327572 J-26.629347
G02 X188.080372 Y257.590400 Z-0.125000 I5.881010 J-7.844965
G02 X188.303155 Y257.744442 Z-0.125000 I7.328271 J-10.360334
G02 X188.516701 Y257.882989 Z-0.125000 I3.797555 J-5.619448
G02 X188.734796 Y258.013732 Z-0.125000 I4.018740 J-6.456425
G02 X188.948673 Y258.130869 Z-0.125000 I2.737886 J-4.745224
G02 X189.167345 Y258.238548 Z-0.125000 I2.643274 J-5.092026
G02 X189.387312 Y258.334923 Z-0.125000 I2.170783 J-4.655375
G02 X189.611595 Y258.420996 Z-0.125000 I1.970859 J-4.800278
G02 X189.842749 Y258.497935 Z-0.125000 I1.865998 J-5.220456
G02 X190.077291 Y258.564643 Z-0.125000 I1.616740 J-5.238731
G02 X190.323827 Y258.623940 Z-0.125000 I1.698383 J-6.519088
G00 Z3.000000

(End cutting path id: path198696)


(Start cutting path id: path198694)
(Change tool to Default tool)

G00 Z3.000000
G00 X124.911742 Y251.358383

G00 Z4.875000 (Fast pre-penetrate)
G01 Z-0.125000 F400.0(Penetrate)
G03 X125.172495 Y251.245899 Z-0.125000 I9.270664 J21.132337 F800.000000
G03 X125.428465 Y251.140462 Z-0.125000 I5.211151 J12.287577
G03 X125.686305 Y251.040000 Z-0.125000 I5.806760 J14.522272
G03 X125.942012 Y250.946443 Z-0.125000 I4.046099 J10.662440
G03 X126.199736 Y250.858762 Z-0.125000 I4.152513 J11.783073
G03 X126.458232 Y250.777573 Z-0.125000 I3.324145 J10.131513
G03 X126.718664 Y250.702818 Z-0.125000 I3.223254 J10.738120
G03 X126.982834 Y250.634018 Z-0.125000 I2.847495 J10.391986
G03 X127.248705 Y250.571846 Z-0.125000 I2.643752 J10.706126
G03 X127.521157 Y250.515088 Z-0.125000 I2.511136 J11.371742
G03 X127.794982 Y250.464824 Z-0.125000 I2.246397 J11.466866
G03 X128.077949 Y250.419499 Z-0.125000 I2.240089 J13.079056
G03 X128.361955 Y250.380305 Z-0.125000 I1.941344 J13.018758
G03 X128.657272 Y250.345670 Z-0.125000 I1.970880 J15.528315
G03 X128.953322 Y250.316677 Z-0.125000 I1.659717 J15.421313
G03 X129.262405 Y250.291968 Z-0.125000 I1.650207 J18.696809
G03 X129.571978 Y250.272385 Z-0.125000 I1.326878 J18.519083
G03 X129.895827 Y250.256945 Z-0.125000 I1.237224 J22.546325
G03 X130.219985 Y250.246175 Z-0.125000 I0.913695 J22.617831
G03 X130.559211 Y250.239535 Z-0.125000 I0.682314 J26.189755
G03 X130.898604 Y250.237232 Z-0.125000 I0.352207 J26.892894
G03 X131.253418 Y250.239271 Z-0.125000 I0.013584 J28.513523
G03 X131.608284 Y250.245367 Z-0.125000 I-0.361432 J31.372266
G03 X131.978505 Y250.255966 Z-0.125000 I-0.730338 J31.980974
G03 X132.348678 Y250.270695 Z-0.125000 I-1.217170 J35.248031
G03 X132.733731 Y250.290317 Z-0.125000 I-1.472670 J32.687984
G03 X133.118632 Y250.314192 Z-0.125000 I-2.113365 J37.184096
G03 X133.517534 Y250.343432 Z-0.125000 I-2.220945 J33.035241
G03 X133.916170 Y250.377185 Z-0.125000 I-3.012962 J37.954250
G03 X134.327539 Y250.416816 Z-0.125000 I-2.931028 J32.578877
G03 X134.738497 Y250.461318 Z-0.125000 I-3.841059 J37.390715
G03 X135.160544 Y250.512201 Z-0.125000 I-3.633312 J31.912021
G03 X135.582028 Y250.568363 Z-0.125000 I-4.584759 J36.017727
G03 X136.012549 Y250.631298 Z-0.125000 I-4.389121 J31.528567
G03 X136.443144 Y250.700327 Z-0.125000 I-4.744043 J30.970204
G03 X136.878611 Y250.775361 Z-0.125000 I-7.743767 J46.243144
G03 X137.312743 Y250.854836 Z-0.125000 I-6.733068 J38.004798
G03 X137.746711 Y250.938529 Z-0.125000 I-10.978035 J58.090405
G03 X138.179422 Y251.025700 Z-0.125000 I-9.393261 J47.745099
G03 X138.609037 Y251.115805 Z-0.125000 I-12.998941 J63.047462
G03 X139.037887 Y251.209112 Z-0.125000 I-11.214890 J52.577187
G03 X139.461966 Y251.304389 Z-0.125000 I-17.551917 J79.114855
G03 X139.885362 Y251.402261 Z-0.125000 I-13.785264 J60.600290
G03 X140.302699 Y251.501086 Z-0.125000 I-26.492963 J112.810652
G03 X140.719485 Y251.601812 Z-0.125000 I-17.988029 J75.343837
G03 X141.129291 Y251.702462 Z-0.125000 I-53.074017 J216.978780
G03 X141.538722 Y251.804267 Z-0.125000 I-26.370627 J106.929299
G02 X141.940616 Y251.905011 Z-0.125000 I4167.885232 J-16626.147634
G01 X142.736294 Y252.105287 Z-0.125000
G02 X143.130281 Y252.204029 Z-0.125000 I1895.378676 J-7561.872721
G02 X143.516594 Y252.300042 Z-0.125000 I24.958654 J-99.597834
G02 X143.903135 Y252.394876 Z-0.125000 I44.968194 J-182.452507
G02 X144.282326 Y252.486337 Z-0.125000 I16.222876 J-66.427388
G02 X144.661918 Y252.575916 Z-0.125000 I21.771965 J-91.409373
G02 X145.034700 Y252.661626 Z-0.125000 I11.823400 J-50.570766
G02 X145.408009 Y252.744825 Z-0.125000 I13.888753 J-61.439016
G02 X145.775188 Y252.823799 Z-0.125000 I9.174652 J-41.762954
G02 X146.142983 Y252.899726 Z-0.125000 I9.945697 J-47.248820
G02 X146.505419 Y252.971209 Z-0.125000 I7.387546 J-36.502119
G02 X146.868511 Y253.039221 Z-0.125000 I7.553741 J-39.323482
G02 X147.227051 Y253.102688 Z-0.125000 I6.105826 J-33.448665
G02 X147.586242 Y253.162379 Z-0.125000 I5.954043 J-34.718105
G02 X147.941684 Y253.217528 Z-0.125000 I5.119960 J-31.825854
G02 X148.297731 Y253.268719 Z-0.125000 I4.790367 J-32.054323
G02 X148.650788 Y253.315463 Z-0.125000 I4.338259 J-31.410008
G02 X149.004371 Y253.358195 Z-0.125000 I3.899658 J-30.783896
G02 X149.355645 Y253.396651 Z-0.125000 I3.679711 J-31.988354
G02 X149.707354 Y253.431164 Z-0.125000 I3.172752 J-30.522491
G02 X150.057337 Y253.461648 Z-0.125000 I3.118524 J-33.779267
G02 X150.407653 Y253.488372 Z-0.125000 I2.560767 J-31.259422
G02 X150.756723 Y253.511382 Z-0.125000 I2.616158 J-37.028405
G02 X151.106028 Y253.530915 Z-0.125000 I2.055254 J-33.620596
G02 X151.454465 Y253.547132 Z-0.125000 I2.124045 J-41.884689
G02 X151.803050 Y253.560261 Z-0.125000 I1.542671 J-36.325561
G02 X152.151041 Y253.570521 Z-0.125000 I1.695381 J-51.594197
G02 X152.499119 Y253.578180 Z-0.125000 I1.106635 J-42.384118
G02 X152.846799 Y253.583512 Z-0.125000 I1.217442 J-68.036490
G02 X153.194517 Y253.586800 Z-0.125000 I0.651581 J-50.522907
G02 X153.541988 Y253.588381 Z-0.125000 I0.713122 J-118.577682
G02 X153.889466 Y253.588610 Z-0.125000 I0.215210 J-62.812798
G02 X154.236809 Y253.587852 Z-0.125000 I-4.674842 J-2220.227357
G02 X154.584148 Y253.586350 Z-0.125000 I-0.194728 J-85.217429
G03 X154.931456 Y253.584571 Z-0.125000 I0.892243 J140.265359
G02 X155.278759 Y253.582947 Z-0.125000 I-7.572270 J-1656.888452
G03 X155.626140 Y253.581899 Z-0.125000 I0.471268 J98.588791
G03 X155.973522 Y253.581925 Z-0.125000 I0.158974 J190.636297
G03 X156.321107 Y253.583486 Z-0.125000 I-0.049050 J49.630860
G03 X156.668678 Y253.586987 Z-0.125000 I-0.667208 J83.484860
G03 X157.016600 Y253.593011 Z-0.125000 I-0.410145 J33.740787
G03 X157.364465 Y253.602062 Z-0.125000 I-1.102509 J49.062777
G03 X157.712816 Y253.614733 Z-0.125000 I-0.757468 J25.618674
G03 X158.061067 Y253.631887 Z-0.125000 I-1.241675 J28.752141
G03 X158.409794 Y253.653140 Z-0.125000 I-1.724617 J31.169304
G03 X158.758506 Y253.680194 Z-0.125000 I-1.052048 J15.821077
G02 X159.107031 Y253.707470 Z-0.125000 I1.490830 J-16.809587
G02 X159.455455 Y253.729632 Z-0.125000 I2.766002 J-40.734945
G02 X159.803191 Y253.747686 Z-0.125000 I1.397768 J-23.564498
G02 X160.151114 Y253.760797 Z-0.125000 I1.138520 J-25.589839
G02 X160.498595 Y253.769435 Z-0.125000 I0.891631 J-28.874879
G02 X160.846186 Y253.773735 Z-0.125000 I0.506170 J-26.867181
G02 X161.193551 Y253.773827 Z-0.125000 I0.181878 J-30.819622
G02 X161.540923 Y253.769838 Z-0.125000 I-0.171941 J-30.100734
G02 X161.888150 Y253.762000 Z-0.125000 I-0.563577 J-32.662023
G02 X162.235298 Y253.750379 Z-0.125000 I-0.867797 J-31.112653
G02 X162.582286 Y253.735148 Z-0.125000 I-1.405802 J-35.986743
G02 X162.929126 Y253.716449 Z-0.125000 I-1.638727 J-33.623145
G02 X163.275716 Y253.694468 Z-0.125000 I-2.371544 J-40.136858
G02 X163.622100 Y253.669324 Z-0.125000 I-2.473248 J-36.469547
G02 X163.968090 Y253.641205 Z-0.125000 I-3.452008 J-44.618003
G02 X164.313843 Y253.610247 Z-0.125000 I-3.383818 J-39.737971
G02 X164.659012 Y253.576639 Z-0.125000 I-4.757556 J-50.651493
G02 X165.003927 Y253.540514 Z-0.125000 I-4.437807 J-44.037128
G02 X165.348057 Y253.502087 Z-0.125000 I-6.376689 J-58.665479
G02 X165.691933 Y253.461474 Z-0.125000 I-5.664090 J-49.434441
G02 X166.034825 Y253.418913 Z-0.125000 I-8.504062 J-69.915208
G02 X166.377470 Y253.374498 Z-0.125000 I-7.307121 J-57.715764
G02 X166.718952 Y253.328518 Z-0.125000 I-11.506013 J-86.743474
G02 X167.060215 Y253.281020 Z-0.125000 I-9.395599 J-68.755033
G02 X167.400163 Y253.232339 Z-0.125000 I-16.550984 J-116.790935
G02 X167.739929 Y253.182492 Z-0.125000 I-12.400547 J-85.706802
G02 X168.078281 Y253.131848 Z-0.125000 I-27.311519 J-183.623579
G02 X168.416496 Y253.080398 Z-0.125000 I-17.347800 J-115.175441
G02 X168.753254 Y253.028536 Z-0.125000 I-70.293701 J-457.564588
G02 X169.089927 Y252.976237 Z-0.125000 I-27.922562 J-180.858627
G03 X169.425167 Y252.923907 Z-0.125000 I134.180305 J858.510435
G02 X169.760381 Y252.871520 Z-0.125000 I-69.861619 J-448.136310
G03 X170.094261 Y252.819473 Z-0.125000 I34.440566 J219.841111
G03 X170.428170 Y252.767752 Z-0.125000 I133.569302 J861.211548
G03 X170.760925 Y252.716733 Z-0.125000 I19.152659 J123.806770
G03 X171.093768 Y252.666425 Z-0.125000 I32.793740 J215.839582
G03 X171.425711 Y252.617171 Z-0.125000 I12.903145 J85.815821
G03 X171.757796 Y252.569009 Z-0.125000 I17.864965 J122.013095
G03 X172.089317 Y252.522236 Z-0.125000 I9.509648 J66.204738
G03 X172.421023 Y252.476939 Z-0.125000 I11.826179 J85.366240
G03 X172.752579 Y252.433354 Z-0.125000 I7.271037 J54.028617
G03 X173.084354 Y252.391621 Z-0.125000 I8.475039 J66.036422
G03 X173.416452 Y252.351913 Z-0.125000 I5.657260 J45.905586
G03 X173.748797 Y252.314421 Z-0.125000 I6.213110 J53.584397
G03 X174.081995 Y252.279272 Z-0.125000 I4.420592 J40.307760
G03 X174.415447 Y252.246700 Z-0.125000 I4.736609 J46.767191
G03 X174.750329 Y252.216764 Z-0.125000 I3.383345 J35.960503
G03 X175.085459 Y252.189763 Z-0.125000 I3.484832 J41.159525
G03 X175.422621 Y252.165718 Z-0.125000 I2.511912 J32.846572
G03 X175.760002 Y252.144949 Z-0.125000 I2.463779 J37.272334
G03 X176.100028 Y252.127473 Z-0.125000 I1.729266 J30.328131
G03 X176.440227 Y252.113597 Z-0.125000 I1.545698 J33.720213
G03 X176.783660 Y252.103395 Z-0.125000 I1.018467 J28.500282
G03 X177.127207 Y252.097131 Z-0.125000 I0.747668 J31.578563
G03 X177.474534 Y252.094929 Z-0.125000 I0.344254 J26.905788
G03 X177.821889 Y252.097022 Z-0.125000 I-0.005083 J29.669882
G03 X178.173504 Y252.103634 Z-0.125000 I-0.301702 J25.396856
G03 X178.523717 Y252.113482 Z-0.125000 I-1.887750 J73.363909
G03 X178.881194 Y252.131163 Z-0.125000 I-0.288411 J9.453284
G03 X179.237265 Y252.158217 Z-0.125000 I-1.641894 J23.966614
G03 X179.607888 Y252.201879 Z-0.125000 I-0.456538 J5.470232
G03 X179.979313 Y252.268528 Z-0.125000 I-1.082148 J7.098835
G03 X180.367368 Y252.357705 Z-0.125000 I-1.827865 J8.842955
G03 X180.751443 Y252.464096 Z-0.125000 I-2.192841 J8.662695
G03 X181.145485 Y252.591099 Z-0.125000 I-3.098951 J10.289651
G03 X181.534322 Y252.733388 Z-0.125000 I-3.410104 J9.921296
G03 X181.925460 Y252.893234 Z-0.125000 I-4.391490 J11.304310
G03 X182.310568 Y253.066936 Z-0.125000 I-4.543173 J10.586234
G03 X182.690481 Y253.254144 Z-0.125000 I-5.741393 J12.130486
G03 X183.063826 Y253.453789 Z-0.125000 I-5.539223 J10.807462
G03 X183.425349 Y253.661977 Z-0.125000 I-7.258538 J13.022638
G03 X183.780144 Y253.880986 Z-0.125000 I-6.435413 J10.822260
G03 X184.117864 Y254.102929 Z-0.125000 I-9.221962 J14.400558
G03 X184.449175 Y254.333784 Z-0.125000 I-7.350364 J10.902017
G03 X184.759848 Y254.561734 Z-0.125000 I-12.396445 J17.220783
G03 X185.064991 Y254.796415 Z-0.125000 I-8.529990 J11.406841
G03 X185.347738 Y255.022616 Z-0.125000 I-19.932810 J25.205341
G03 X185.626398 Y255.253140 Z-0.125000 I-10.568371 J13.058881
G03 X185.882664 Y255.470413 Z-0.125000 I-81.340913 J96.198699
G03 X186.136770 Y255.689441 Z-0.125000 I-15.922185 J18.729057
G02 X186.370047 Y255.891719 Z-0.125000 I26.235464 J-30.020428
G03 X186.603407 Y256.093088 Z-0.125000 I-67.962459 J78.995274
G02 X186.818817 Y256.275819 Z-0.125000 I9.319240 J-10.767512
G02 X187.036568 Y256.454928 Z-0.125000 I17.098851 J-20.565964
G02 X187.240335 Y256.615282 Z-0.125000 I5.010819 J-6.157762
G02 X187.448340 Y256.769334 Z-0.125000 I6.065052 J-7.971714
G02 X187.647271 Y256.906135 Z-0.125000 I3.188301 J-4.423285
G02 X187.851557 Y257.034236 Z-0.125000 I3.275060 J-4.995887
G02 X188.052501 Y257.147699 Z-0.125000 I2.292296 J-3.824996
G02 X188.258909 Y257.250733 Z-0.125000 I2.149272 J-4.047388
G02 X188.468211 Y257.342073 Z-0.125000 I1.839018 J-3.928580
G02 X188.682200 Y257.422297 Z-0.125000 I1.622009 J-4.000985
G02 X188.905250 Y257.493412 Z-0.125000 I1.619428 J-4.693986
G02 X189.131753 Y257.553866 Z-0.125000 I1.359744 J-4.640004
G02 X189.372725 Y257.607137 Z-0.125000 I1.521688 J-6.311658
G02 X189.615954 Y257.651044 Z-0.125000 I1.220714 J-6.066734
G02 X189.877880 Y257.689121 Z-0.125000 I1.466165 J-9.165565
G00 Z3.000000

(End cutting path id: path198694)


(Start cutting path id: path198692)
(Change tool to Default tool)

G00 Z3.000000
G00 X124.753392 Y250.016696

G00 Z4.875000 (Fast pre-penetrate)
G01 Z-0.125000 F400.0(Penetrate)
G03 X125.015932 Y249.919924 Z-0.125000 I6.842500 J18.159132 F800.000000
G03 X125.276028 Y249.829180 Z-0.125000 I4.554982 J12.637662
G03 X125.537779 Y249.743519 Z-0.125000 I4.809654 J14.253983
G03 X125.799585 Y249.663681 Z-0.125000 I3.718740 J11.725276
G03 X126.063040 Y249.589502 Z-0.125000 I3.688422 J12.594974
G03 X126.329142 Y249.520782 Z-0.125000 I3.172782 J11.736305
G03 X126.596744 Y249.457988 Z-0.125000 I3.000231 J12.184055
G03 X126.869513 Y249.400233 Z-0.125000 I2.790621 J12.506754
G03 X127.143546 Y249.348382 Z-0.125000 I2.541457 J12.681569
G03 X127.425064 Y249.301160 Z-0.125000 I2.495331 J14.013299
G03 X127.707571 Y249.259596 Z-0.125000 I2.200105 J13.973261
G03 X127.999568 Y249.222304 Z-0.125000 I2.228558 J16.287482
G03 X128.292303 Y249.190276 Z-0.125000 I1.909015 J16.094636
G03 X128.596153 Y249.162230 Z-0.125000 I1.938291 J19.339560
G03 X128.900517 Y249.139001 Z-0.125000 I1.607529 J19.057295
G03 X129.217224 Y249.119553 Z-0.125000 I1.575348 J23.065730
G03 X129.534272 Y249.104470 Z-0.125000 I1.238821 J22.700546
G03 X129.864474 Y249.093079 Z-0.125000 I1.103009 J27.181878
G03 X130.194890 Y249.085683 Z-0.125000 I0.773530 J27.173113
G03 X130.538880 Y249.081966 Z-0.125000 I0.510004 J31.283551
G03 X130.882984 Y249.081938 Z-0.125000 I0.174567 J30.267497
G03 X131.240710 Y249.085750 Z-0.125000 I-0.198204 J35.385469
G03 X131.598461 Y249.093102 Z-0.125000 I-0.570830 J36.484130
G03 X131.969528 Y249.104376 Z-0.125000 I-0.959423 J37.688320
G03 X132.340543 Y249.119218 Z-0.125000 I-1.435911 J40.539112
G03 X132.724217 Y249.138222 Z-0.125000 I-1.735225 J38.916218
G03 X133.107767 Y249.160851 Z-0.125000 I-2.305419 J42.337749
G03 X133.502990 Y249.187945 Z-0.125000 I-2.519331 J39.645593
G03 X133.898005 Y249.218802 Z-0.125000 I-3.226960 J43.853157
G03 X134.303393 Y249.254390 Z-0.125000 I-3.287974 J39.781218
G03 X134.708480 Y249.293925 Z-0.125000 I-4.074874 J43.847015
G03 X135.122362 Y249.338411 Z-0.125000 I-4.101746 J40.109089
G03 X135.535846 Y249.387021 Z-0.125000 I-4.866709 J43.179546
G03 X135.956259 Y249.440680 Z-0.125000 I-5.018351 J40.992102
G03 X136.376501 Y249.498740 Z-0.125000 I-5.359062 J40.338893
G03 X136.800898 Y249.561406 Z-0.125000 I-7.434878 J51.819923
G03 X137.224520 Y249.627730 Z-0.125000 I-6.976633 J45.947457
G03 X137.649154 Y249.697741 Z-0.125000 I-9.819549 J60.880603
G03 X138.073008 Y249.770879 Z-0.125000 I-8.957824 J53.177587
G03 X138.495629 Y249.846889 Z-0.125000 I-12.084992 J68.406397
G03 X138.917663 Y249.925723 Z-0.125000 I-10.685899 J58.375178
G03 X139.336855 Y250.006681 Z-0.125000 I-16.021246 J84.082255
G03 X139.755512 Y250.089988 Z-0.125000 I-13.073986 J66.796769
G03 X140.170016 Y250.174607 Z-0.125000 I-23.018847 J113.815141
G03 X140.584076 Y250.261027 Z-0.125000 I-16.720089 J81.144855
G03 X140.992978 Y250.347924 Z-0.125000 I-39.842838 J188.488983
G03 X141.401551 Y250.436018 Z-0.125000 I-23.261725 J108.878713
G03 X141.804266 Y250.523766 Z-0.125000 I-145.099102 J666.886989
G03 X142.206786 Y250.612071 Z-0.125000 I-39.368464 J180.414389
G02 X142.603029 Y250.699253 Z-0.125000 I86.727455 J-393.232121
G03 X142.999229 Y250.786343 Z-0.125000 I-147.076887 J670.046792
G02 X143.388994 Y250.871606 Z-0.125000 I32.856351 J-149.264308
G02 X143.778858 Y250.956134 Z-0.125000 I77.310809 J-355.634100
G02 X144.162362 Y251.038227 Z-0.125000 I19.882223 J-91.944738
G02 X144.546101 Y251.118977 Z-0.125000 I29.267882 J-138.133717
G02 X144.923737 Y251.196791 Z-0.125000 I14.067571 J-67.315199
G02 X145.301720 Y251.272704 Z-0.125000 I17.455889 J-85.936548
G02 X145.674009 Y251.345291 Z-0.125000 I10.722910 J-54.005676
G02 X146.046731 Y251.415490 Z-0.125000 I12.078475 J-63.106351
G02 X146.414275 Y251.482081 Z-0.125000 I8.558541 J-46.190886
G02 X146.782298 Y251.545881 Z-0.125000 I9.034627 J-51.021759
G02 X147.145734 Y251.605897 Z-0.125000 I7.019842 J-41.378670
G02 X147.509660 Y251.662809 Z-0.125000 I7.043929 J-43.851162
G02 X147.869609 Y251.715858 Z-0.125000 I5.882089 J-38.663337
G02 X148.230032 Y251.765590 Z-0.125000 I5.648094 J-39.602524
G02 X148.587089 Y251.811468 Z-0.125000 I4.976552 J-37.319173
G02 X148.944576 Y251.853921 Z-0.125000 I4.595783 J-37.173253
G02 X149.299275 Y251.892607 Z-0.125000 I4.242935 J-37.256446
G02 X149.654342 Y251.927866 Z-0.125000 I3.739922 J-35.856755
G02 X150.007146 Y251.959510 Z-0.125000 I3.634069 J-38.534600
G02 X150.360246 Y251.987824 Z-0.125000 I3.081539 J-36.213988
G02 X150.711545 Y252.012757 Z-0.125000 I3.085172 J-40.980838
G02 X151.063068 Y252.034553 Z-0.125000 I2.492407 J-37.351952
G02 X151.413182 Y252.053262 Z-0.125000 I2.614969 J-45.649902
G02 X151.763451 Y252.069111 Z-0.125000 I1.988186 J-40.062407
G02 X152.112639 Y252.082245 Z-0.125000 I2.195002 J-53.709575
G02 X152.461923 Y252.092880 Z-0.125000 I1.552245 J-45.238185
G02 X152.810397 Y252.101242 Z-0.125000 I1.789572 J-67.313881
G02 X153.158925 Y252.107548 Z-0.125000 I1.126234 J-52.613081
G02 X153.506873 Y252.112063 Z-0.125000 I1.427234 J-96.566283
G02 X153.854842 Y252.115083 Z-0.125000 I0.728162 J-63.851085
G02 X154.202440 Y252.116852 Z-0.125000 I1.196205 J-200.905066
G02 X154.550041 Y252.117679 Z-0.125000 I0.362756 J-79.440661
G03 X154.897471 Y252.117911 Z-0.125000 I-0.069668 J365.177587
G02 X155.244896 Y252.117933 Z-0.125000 I0.185925 J-196.473119
G03 X155.592361 Y252.118080 Z-0.125000 I0.114745 J139.674739
G03 X155.939817 Y252.118642 Z-0.125000 I-0.416849 J365.009865
G03 X156.287539 Y252.120196 Z-0.125000 I-0.153192 J73.159164
G03 X156.635249 Y252.123013 Z-0.125000 I-0.949507 J138.673891
G03 X156.983467 Y252.127578 Z-0.125000 I-0.433781 J46.370800
G03 X157.331653 Y252.134301 Z-0.125000 I-1.202659 J71.308736
G03 X157.680611 Y252.143691 Z-0.125000 I-0.736080 J33.842184
G03 X158.029590 Y252.156560 Z-0.125000 I-1.166781 J36.381236
G03 X158.379367 Y252.172341 Z-0.125000 I-2.123730 J50.955686
G03 X158.729556 Y252.192680 Z-0.125000 I-0.898171 J18.488476
G02 X159.079229 Y252.211573 Z-0.125000 I0.873690 J-12.925293
G02 X159.428508 Y252.223166 Z-0.125000 I0.973299 J-24.055798
G02 X159.776180 Y252.228903 Z-0.125000 I0.478229 J-18.444488
G02 X160.123849 Y252.228065 Z-0.125000 I0.128591 J-18.777971
G02 X160.470155 Y252.221442 Z-0.125000 I-0.270940 J-23.222250
G02 X160.816368 Y252.209375 Z-0.125000 I-0.547547 J-20.683292
G02 X161.161415 Y252.192303 Z-0.125000 I-1.198185 J-27.712077
G02 X161.506233 Y252.170531 Z-0.125000 I-1.316279 J-23.588264
G02 X161.849907 Y252.144491 Z-0.125000 I-2.304443 J-32.693824
G02 X162.193277 Y252.114474 Z-0.125000 I-2.223597 J-27.415495
G02 X162.535418 Y252.080919 Z-0.125000 I-3.731557 J-39.809823
G02 X162.877226 Y252.044090 Z-0.125000 I-3.290534 J-32.143893
G02 X163.217680 Y252.004418 Z-0.125000 I-5.747113 J-50.799988
G02 X163.557813 Y251.962138 Z-0.125000 I-4.719509 J-39.357247
G02 X163.896465 Y251.917708 Z-0.125000 I-8.863628 J-68.873087
G02 X164.234838 Y251.871299 Z-0.125000 I-6.686419 J-50.007424
G02 X164.571652 Y251.823393 Z-0.125000 I-14.838107 J-105.530075
G02 X164.908244 Y251.774115 Z-0.125000 I-9.745133 J-67.738460
G02 X165.243258 Y251.723954 Z-0.125000 I-32.502282 J-218.221839
G02 X165.578132 Y251.673002 Z-0.125000 I-15.561635 J-103.401185
G03 X165.911487 Y251.621735 Z-0.125000 I1176.640490 J7649.789718
G01 X166.576712 Y251.518921 Z-0.125000
G03 X166.908659 Y251.467887 Z-0.125000 I1051.331761 J6837.150228
G03 X167.239487 Y251.417530 Z-0.125000 I17.323139 J112.695428
G03 X167.570405 Y251.367921 Z-0.125000 I31.922601 J211.809788
G03 X167.900524 Y251.319407 Z-0.125000 I11.652848 J78.146066
G03 X168.230801 Y251.272082 Z-0.125000 I16.137897 J111.449372
G03 X168.560674 Y251.226218 Z-0.125000 I8.694983 J61.328779
G03 X168.890752 Y251.181944 Z-0.125000 I10.589885 J77.697773
G03 X169.220886 Y251.139448 Z-0.125000 I6.813279 J51.626531
G03 X169.551253 Y251.098899 Z-0.125000 I7.691792 J61.301634
G03 X169.882174 Y251.060407 Z-0.125000 I5.458837 J45.488069
G03 X170.213347 Y251.024174 Z-0.125000 I5.826986 J51.727521
G03 X170.545586 Y250.990242 Z-0.125000 I4.410181 J41.538445
G03 X170.878079 Y250.958837 Z-0.125000 I4.493993 J45.803194
G03 X171.212158 Y250.929951 Z-0.125000 I3.528060 J38.857909
G03 X171.546470 Y250.903822 Z-0.125000 I3.463483 J42.161401
G03 X171.882874 Y250.880406 Z-0.125000 I2.746023 J37.021922
G03 X172.219478 Y250.859937 Z-0.125000 I2.573563 J39.543827
G03 X172.558637 Y250.842366 Z-0.125000 I2.030713 J35.916495
G03 X172.897956 Y250.827911 Z-0.125000 I1.809785 J38.493047
G03 X173.240235 Y250.816517 Z-0.125000 I1.336308 J34.994279
G03 X173.582623 Y250.808370 Z-0.125000 I1.056667 J37.211074
G03 X173.928307 Y250.803446 Z-0.125000 I0.670600 J34.943210
G03 X174.274042 Y250.801892 Z-0.125000 I0.338712 J36.887007
G03 X174.623316 Y250.803711 Z-0.125000 I-0.006627 J34.806549
G03 X174.972583 Y250.808994 Z-0.125000 I-0.364519 J35.647916
G03 X175.325538 Y250.817866 Z-0.125000 I-0.691895 J34.549481
G03 X175.678412 Y250.830265 Z-0.125000 I-1.093294 J36.142097
G03 X176.035020 Y250.846409 Z-0.125000 I-1.363768 J34.071080
G03 X176.391472 Y250.866164 Z-0.125000 I-1.806305 J35.819063
G03 X176.751584 Y250.889822 Z-0.125000 I-2.067642 J34.224906
G03 X177.111462 Y250.917170 Z-0.125000 I-2.518794 J35.527527
G03 X177.474809 Y250.948570 Z-0.125000 I-2.783819 J34.330444
G03 X177.837838 Y250.983737 Z-0.125000 I-3.250378 J35.445003
G03 X178.204021 Y251.023085 Z-0.125000 I-3.494806 J34.247597
G03 X178.568395 Y251.064644 Z-0.125000 I-17.659813 J156.450395
G03 X178.938292 Y251.113755 Z-0.125000 I-1.237235 J10.736375
G03 X179.306149 Y251.171230 Z-0.125000 I-4.831174 J32.126840
G03 X179.686075 Y251.245948 Z-0.125000 I-0.925892 J5.711214
G03 X180.065485 Y251.344105 Z-0.125000 I-1.734413 J7.486504
G03 X180.457527 Y251.465719 Z-0.125000 I-2.550476 J8.914559
G03 X180.844009 Y251.604770 Z-0.125000 I-2.905309 J8.681669
G03 X181.234883 Y251.764253 Z-0.125000 I-3.873622 J10.052542
G03 X181.619011 Y251.939245 Z-0.125000 I-4.080897 J9.467135
G03 X181.998961 Y252.130166 Z-0.125000 I-5.203665 J10.829322
G03 X182.371432 Y252.334956 Z-0.125000 I-5.099847 J9.716683
G03 X182.732020 Y252.550033 Z-0.125000 I-6.649883 J11.558719
G03 X183.084825 Y252.777173 Z-0.125000 I-5.973312 J9.665589
G03 X183.419600 Y253.008119 Z-0.125000 I-8.446783 J12.602443
G03 X183.746848 Y253.249024 Z-0.125000 I-6.800842 J9.581056
G03 X184.051890 Y253.486908 Z-0.125000 I-11.225610 J14.709255
G03 X184.350333 Y253.732343 Z-0.125000 I-7.791767 J9.778778
G03 X184.624537 Y253.968211 Z-0.125000 I-17.499655 J20.621244
G03 X184.893767 Y254.208979 Z-0.125000 I-9.434399 J10.820575
G03 X185.138794 Y254.434573 Z-0.125000 I-59.214412 J64.561106
G03 X185.381090 Y254.662252 Z-0.125000 I-13.618912 J14.735993
G02 X185.601031 Y254.870688 Z-0.125000 I25.867667 J-27.075294
G03 X185.820895 Y255.078292 Z-0.125000 I-46.895179 J49.884652
G02 X186.021721 Y255.264564 Z-0.125000 I8.478989 J-8.940057
G02 X186.225188 Y255.447001 Z-0.125000 I15.971358 J-17.607754
G02 X186.414119 Y255.608210 Z-0.125000 I4.377049 J-4.938424
G02 X186.607962 Y255.762585 Z-0.125000 I5.227809 J-6.365475
G02 X186.792806 Y255.897836 Z-0.125000 I2.712163 J-3.512717
G02 X186.983844 Y256.023540 Z-0.125000 I2.725285 J-3.933714
G02 X187.172374 Y256.133532 Z-0.125000 I1.929914 J-3.091384
G02 X187.367072 Y256.232100 Z-0.125000 I1.766048 J-3.246839
G02 X187.566346 Y256.318594 Z-0.125000 I1.559844 J-3.320912
G02 X187.770675 Y256.393140 Z-0.125000 I1.340767 J-3.357712
G02 X187.986448 Y256.458596 Z-0.125000 I1.405636 J-4.245290
G02 X188.205724 Y256.512969 Z-0.125000 I1.145013 J-4.148258
G02 X188.442221 Y256.560357 Z-0.125000 I1.361346 J-6.180190
G02 X188.680844 Y256.598444 Z-0.125000 I1.051548 J-5.821664
G02 X188.940926 Y256.630998 Z-0.125000 I1.351217 J-9.739881
G02 X189.202193 Y256.656279 Z-0.125000 I0.991406 J-8.882866
G02 X189.487673 Y256.677075 Z-0.125000 I1.289824 J-15.736657
G00 Z3.000000

(End cutting path id: path198692)


(Start cutting path id: path198690)
(Change tool to Default tool)

G00 Z3.000000
G00 X124.628966 Y248.732404

G00 Z4.875000 (Fast pre-penetrate)
G01 Z-0.125000 F400.0(Penetrate)
G03 X124.897881 Y248.651096 Z-0.125000 I5.472390 J17.613750 F800.000000
G03 X125.166678 Y248.574824 Z-0.125000 I4.141784 J14.084647
G03 X125.436818 Y248.503492 Z-0.125000 I4.184497 J15.299903
G03 X125.709052 Y248.437003 Z-0.125000 I3.525768 J13.845291
G03 X125.982536 Y248.375752 Z-0.125000 I3.394633 J14.515797
G03 X126.260285 Y248.319065 Z-0.125000 I3.091463 J14.438403
G03 X126.539118 Y248.267668 Z-0.125000 I2.862498 J14.747480
G03 X126.824222 Y248.220539 Z-0.125000 I2.755103 J15.780856
G03 X127.110207 Y248.178548 Z-0.125000 I2.468315 J15.815782
G03 X127.404217 Y248.140543 Z-0.125000 I2.462303 J17.892184
G03 X127.698909 Y248.107392 Z-0.125000 I2.139066 J17.688744
G03 X128.003069 Y248.077985 Z-0.125000 I2.161892 J20.772798
G03 X128.307724 Y248.053065 Z-0.125000 I1.812527 J20.283915
G03 X128.622945 Y248.031707 Z-0.125000 I1.811088 J24.392723
G03 X128.938511 Y248.014465 Z-0.125000 I1.466918 J23.951435
G03 X129.265381 Y248.000647 Z-0.125000 I1.364494 J28.405841
G03 X129.592481 Y247.990603 Z-0.125000 I1.028270 J28.154437
G03 X129.931273 Y247.983925 Z-0.125000 I0.813339 J32.670039
G03 X130.270201 Y247.980746 Z-0.125000 I0.478662 J32.960520
G03 X130.620874 Y247.980936 Z-0.125000 I0.155512 J36.685845
G03 X130.971609 Y247.984443 Z-0.125000 I-0.228731 J40.416751
G03 X131.333820 Y247.991307 Z-0.125000 I-0.563021 J39.266412
G03 X131.696024 Y248.001365 Z-0.125000 I-0.986347 J42.048346
G03 X132.069138 Y248.014935 Z-0.125000 I-1.397011 J43.548929
G03 X132.442186 Y248.031625 Z-0.125000 I-1.861958 J45.793452
G03 X132.825279 Y248.051913 Z-0.125000 I-2.269112 J46.475304
G03 X133.208254 Y248.075315 Z-0.125000 I-2.763071 J48.362274
G03 X133.600145 Y248.102416 Z-0.125000 I-3.147021 J48.353863
G03 X133.991859 Y248.132629 Z-0.125000 I-3.668775 J50.120953
G03 X134.391129 Y248.166572 Z-0.125000 I-4.125461 J50.892244
G03 X134.790161 Y248.203621 Z-0.125000 I-4.628480 J52.018108
G03 X135.195176 Y248.244323 Z-0.125000 I-5.239682 J54.174756
G03 X135.599899 Y248.288064 Z-0.125000 I-5.596314 J53.674574
G03 X136.008872 Y248.335255 Z-0.125000 I-6.639780 J59.339229
G03 X136.417336 Y248.385246 Z-0.125000 I-7.007585 J58.951141
G03 X136.828592 Y248.438495 Z-0.125000 I-7.367037 J58.511875
G03 X137.239541 Y248.494664 Z-0.125000 I-7.677727 J57.703372
G03 X137.652019 Y248.553890 Z-0.125000 I-9.027638 J64.339095
G03 X138.064137 Y248.615877 Z-0.125000 I-8.693079 J59.196435
G03 X138.476299 Y248.680472 Z-0.125000 I-11.833270 J76.852143
G03 X138.888021 Y248.747451 Z-0.125000 I-10.509133 J65.899089
G03 X139.298326 Y248.816433 Z-0.125000 I-15.656833 J94.381107
G03 X139.708235 Y248.887405 Z-0.125000 I-12.938402 J75.947561
G03 X140.115509 Y248.959726 Z-0.125000 I-22.351987 J127.056711
G03 X140.522449 Y249.033587 Z-0.125000 I-16.569734 J92.450167
G03 X140.925782 Y249.108120 Z-0.125000 I-37.685724 J205.061861
G03 X141.328861 Y249.183698 Z-0.125000 I-22.952278 J123.524334
G03 X141.727598 Y249.259274 Z-0.125000 I-112.354107 J593.867259
G03 X142.126181 Y249.335374 Z-0.125000 I-37.633854 J198.193325
G02 X142.519929 Y249.410824 Z-0.125000 I112.576869 J-586.430291
G03 X142.913625 Y249.486264 Z-0.125000 I-112.933500 J590.428784
G02 X143.302203 Y249.560451 Z-0.125000 I37.020801 J-192.852178
G02 X143.690835 Y249.634098 Z-0.125000 I101.926833 J-536.805824
G02 X144.074261 Y249.705956 Z-0.125000 I21.879015 J-115.684495
G02 X144.457839 Y249.776768 Z-0.125000 I33.514748 J-180.469066
G02 X144.836289 Y249.845333 Z-0.125000 I15.330211 J-83.538078
G02 X145.214977 Y249.912378 Z-0.125000 I19.507779 J-109.082803
G02 X145.588753 Y249.976799 Z-0.125000 I11.621237 J-66.310322
G02 X145.962829 Y250.039281 Z-0.125000 I13.388257 J-79.003288
G02 X146.332313 Y250.098854 Z-0.125000 I9.263430 J-56.278634
G02 X146.702140 Y250.156126 Z-0.125000 I9.945228 J-62.996812
G02 X147.067769 Y250.210283 Z-0.125000 I7.583482 J-49.937286
G02 X147.433758 Y250.261855 Z-0.125000 I7.740492 J-53.607256
G02 X147.795986 Y250.310189 Z-0.125000 I6.339409 J-46.127212
G02 X148.158571 Y250.355732 Z-0.125000 I6.191330 J-47.825867
G02 X148.517850 Y250.397991 Z-0.125000 I5.361533 J-44.034198
G02 X148.877460 Y250.437329 Z-0.125000 I5.047799 J-44.481612
G02 X149.234214 Y250.473413 Z-0.125000 I4.565052 J-43.351580
G02 X149.591259 Y250.506530 Z-0.125000 I4.170365 J-43.020754
G02 X149.945879 Y250.536495 Z-0.125000 I3.883942 J-43.851226
G02 X150.300740 Y250.563535 Z-0.125000 I3.400746 J-42.288440
G02 X150.653567 Y250.587576 Z-0.125000 I3.319751 J-46.120221
G02 X151.006585 Y250.608820 Z-0.125000 I2.760026 J-42.919369
G02 X151.357927 Y250.627282 Z-0.125000 I2.814133 J-50.203639
G02 X151.709400 Y250.643145 Z-0.125000 I2.229351 J-45.492623
G02 X152.059516 Y250.656518 Z-0.125000 I2.357805 J-57.139042
G02 X152.409719 Y250.667572 Z-0.125000 I1.727746 J-49.183359
G02 X152.758841 Y250.676468 Z-0.125000 I1.938966 J-69.243785
G02 X153.108015 Y250.683403 Z-0.125000 I1.295810 J-56.445370
G02 X153.456361 Y250.688586 Z-0.125000 I1.544301 J-92.093844
G02 X153.804731 Y250.692218 Z-0.125000 I0.884193 J-68.091401
G02 X154.152521 Y250.694539 Z-0.125000 I1.143990 J-145.384049
G02 X154.500312 Y250.695862 Z-0.125000 I0.521939 J-91.493015
G02 X154.847766 Y250.696391 Z-0.125000 I0.868661 J-456.360119
G02 X155.195215 Y250.696368 Z-0.125000 I0.163926 J-149.483540
G03 X155.542577 Y250.696145 Z-0.125000 I0.364150 J296.672079
G02 X155.889933 Y250.696064 Z-0.125000 I-0.042336 J-931.408429
G03 X156.237480 Y250.696325 Z-0.125000 I0.062260 J148.735733
G03 X156.585018 Y250.697330 Z-0.125000 I-0.651820 J285.460796
G03 X156.933050 Y250.699605 Z-0.125000 I-0.200544 J57.284162
G03 X157.281064 Y250.703304 Z-0.125000 I-1.053535 J115.508164
G03 X157.629899 Y250.708892 Z-0.125000 I-0.544772 J44.895765
G03 X157.978868 Y250.717164 Z-0.125000 I-0.915082 J45.969519
G03 X158.328644 Y250.727334 Z-0.125000 I-3.063016 J111.372103
G03 X158.679215 Y250.741043 Z-0.125000 I-0.647133 J21.038264
G02 X159.028524 Y250.751834 Z-0.125000 I0.500959 J-10.556673
G02 X159.377012 Y250.753315 Z-0.125000 I0.247542 J-17.249744
G02 X159.722488 Y250.747363 Z-0.125000 I-0.088867 J-15.187049
G02 X160.067676 Y250.733379 Z-0.125000 I-0.410070 J-14.390488
G02 X160.410131 Y250.712506 Z-0.125000 I-1.072749 J-20.420010
G02 X160.752203 Y250.685221 Z-0.125000 I-1.158382 J-16.680510
G02 X161.091782 Y250.652301 Z-0.125000 I-2.255551 J-25.033886
G02 X161.430846 Y250.614177 Z-0.125000 I-2.047948 J-19.740884
G02 X161.767453 Y250.571624 Z-0.125000 I-3.933671 J-32.469116
G02 X162.103520 Y250.525007 Z-0.125000 I-3.211194 J-24.384355
G02 X162.437091 Y250.475131 Z-0.125000 I-6.592157 J-45.228753
G02 X162.770183 Y250.422262 Z-0.125000 I-4.824101 J-31.469624
G02 X163.100769 Y250.367231 Z-0.125000 I-12.059352 J-73.463563
G02 X163.430982 Y250.310218 Z-0.125000 I-7.410639 J-43.906930
G02 X163.758784 Y250.252050 Z-0.125000 I-32.450047 J-183.821074
G02 X164.086354 Y250.192846 Z-0.125000 I-12.755782 J-71.512046
G03 X164.411735 Y250.133395 Z-0.125000 I78.162926 J426.875523
G02 X164.737043 Y250.073779 Z-0.125000 I-32.787939 J-179.830541
G03 X165.060540 Y250.014711 Z-0.125000 I19.160275 J104.020572
G03 X165.384112 Y249.956280 Z-0.125000 I74.844925 J413.543571
G03 X165.706400 Y249.899078 Z-0.125000 I11.143394 J61.847107
G03 X166.028894 Y249.843230 Z-0.125000 I17.860911 J102.178185
G03 X166.350769 Y249.789178 Z-0.125000 I7.833270 J45.661294
G03 X166.672947 Y249.737111 Z-0.125000 I10.057764 J61.212881
G03 X166.995272 Y249.687308 Z-0.125000 I5.963774 J37.529360
G03 X167.317965 Y249.640026 Z-0.125000 I6.856109 J45.667145
G03 X167.641640 Y249.595387 Z-0.125000 I4.710202 J32.957370
G03 X167.965707 Y249.553714 Z-0.125000 I5.048344 J37.977224
G03 X168.291614 Y249.514991 Z-0.125000 I3.771470 J30.351123
G03 X168.617912 Y249.479591 Z-0.125000 I3.845917 J33.928661
G03 X168.946883 Y249.447390 Z-0.125000 I2.997010 J28.920927
G03 X169.276209 Y249.418779 Z-0.125000 I2.879606 J31.236760
G03 X169.608989 Y249.393595 Z-0.125000 I2.317916 J28.416679
G03 X169.942061 Y249.372189 Z-0.125000 I2.102163 J30.107921
G03 X170.279268 Y249.354402 Z-0.125000 I1.663470 J28.330488
G03 X170.616696 Y249.340522 Z-0.125000 I1.393989 J29.780929
G03 X170.958799 Y249.330431 Z-0.125000 I1.018223 J28.713697
G03 X171.301042 Y249.324341 Z-0.125000 I0.701370 J29.796814
G03 X171.648353 Y249.322229 Z-0.125000 I0.350635 J29.098207
G03 X171.995712 Y249.324181 Z-0.125000 I0.005801 J29.869340
G03 X172.348354 Y249.330166 Z-0.125000 I-0.364311 J31.857023
G03 X172.700951 Y249.340259 Z-0.125000 I-0.715030 J31.142725
G03 X173.058863 Y249.354614 Z-0.125000 I-1.057479 J30.836720
G03 X173.416636 Y249.373044 Z-0.125000 I-1.472905 J32.074810
G03 X173.779563 Y249.395833 Z-0.125000 I-1.829924 J32.043177
G03 X174.142257 Y249.422694 Z-0.125000 I-2.244135 J32.764009
G03 X174.509759 Y249.454015 Z-0.125000 I-2.632968 J33.065422
G03 X174.876937 Y249.489377 Z-0.125000 I-3.045678 J33.547786
G03 X175.248391 Y249.529241 Z-0.125000 I-3.491735 J34.286977
G03 X175.619435 Y249.573108 Z-0.125000 I-3.904131 J34.613712
G03 X175.994062 Y249.621440 Z-0.125000 I-4.405150 J35.620847
G03 X176.368195 Y249.673716 Z-0.125000 I-4.782747 J35.594996
G03 X176.745078 Y249.730345 Z-0.125000 I-5.409395 J37.283120
G03 X177.121393 Y249.790815 Z-0.125000 I-5.695386 J36.644606
G03 X177.499510 Y249.855430 Z-0.125000 I-6.564644 J39.554294
G03 X177.876996 Y249.923733 Z-0.125000 I-6.682695 J38.010050
G03 X178.255257 Y249.995857 Z-0.125000 I-7.939264 J42.665978
G03 X178.631440 Y250.069584 Z-0.125000 I-53.449407 J273.716074
G03 X179.010155 Y250.150416 Z-0.125000 I-2.326782 J11.829058
G03 X179.386334 Y250.238911 Z-0.125000 I-9.246227 J40.148156
G03 X179.770643 Y250.344845 Z-0.125000 I-1.401099 J5.833008
G03 X180.152924 Y250.474711 Z-0.125000 I-2.376369 J7.622783
G03 X180.542408 Y250.628094 Z-0.125000 I-3.229587 J8.772052
G03 X180.924688 Y250.799072 Z-0.125000 I-3.522680 J8.388998
G03 X181.304841 Y250.989070 Z-0.125000 I-4.584434 J9.647981
G03 X181.676679 Y251.194568 Z-0.125000 I-4.592714 J8.749438
G03 X182.037511 Y251.412889 Z-0.125000 I-5.969750 J10.273873
G03 X182.389505 Y251.644705 Z-0.125000 I-5.475812 J8.697731
G03 X182.723236 Y251.882045 Z-0.125000 I-7.590466 J11.026488
G03 X183.048238 Y252.130590 Z-0.125000 I-6.242573 J8.499683
G03 X183.349946 Y252.376813 Z-0.125000 I-9.933679 J12.480126
G03 X183.643805 Y252.631626 Z-0.125000 I-7.064029 J8.443320
G03 X183.911833 Y252.876478 Z-0.125000 I-14.759626 J16.425813
G03 X184.173733 Y253.127042 Z-0.125000 I-8.312172 J8.950374
G03 X184.409688 Y253.361009 Z-0.125000 I-38.277833 J38.839171
G03 X184.642013 Y253.597648 Z-0.125000 I-11.278027 J11.304797
G02 X184.850388 Y253.812811 Z-0.125000 I30.352876 J-29.186808
G03 X185.058206 Y254.027495 Z-0.125000 I-28.358850 J27.659793
G02 X185.245731 Y254.218176 Z-0.125000 I8.259075 J-7.934814
G02 X185.435929 Y254.405102 Z-0.125000 I17.548547 J-17.665461
G02 X185.610781 Y254.568155 Z-0.125000 I3.992531 J-4.106163
G02 X185.791086 Y254.724104 Z-0.125000 I4.810148 J-5.379203
G02 X185.962129 Y254.858805 Z-0.125000 I2.369442 J-2.832757
G02 X186.140201 Y254.983295 Z-0.125000 I2.352806 J-3.175881
G02 X186.316252 Y255.090789 Z-0.125000 I1.646776 J-2.499142
G02 X186.499236 Y255.185929 Z-0.125000 I1.480428 J-2.623778
G02 X186.688224 Y255.268493 Z-0.125000 I1.331914 J-2.791153
G02 X186.882691 Y255.338260 Z-0.125000 I1.120401 J-2.817080
G02 X187.090887 Y255.398875 Z-0.125000 I1.223536 J-3.814700
G02 X187.302663 Y255.447968 Z-0.125000 I0.968925 J-3.698360
G02 X187.534426 Y255.490193 Z-0.125000 I1.218360 J-6.030178
G02 X187.768219 Y255.523169 Z-0.125000 I0.906728 J-5.583154
G02 X188.026352 Y255.550851 Z-0.125000 I1.243097 J-10.374539
G02 X188.285548 Y255.571705 Z-0.125000 I0.865468 J-9.135794
G02 X188.571708 Y255.588411 Z-0.125000 I1.213976 J-18.334896
G02 X188.858414 Y255.600291 Z-0.125000 I0.798741 J-15.811570
G02 X189.173389 Y255.608837 Z-0.125000 I0.975910 J-30.158614
G00 Z3.000000

(End cutting path id: path198690)


(Start cutting path id: path198674)
(Change tool to Default tool)

G00 Z3.000000
G00 X125.671093 Y241.560210

G00 Z4.875000 (Fast pre-penetrate)
G01 Z-0.125000 F400.0(Penetrate)
G03 X126.016837 Y241.554497 Z-0.125000 I0.549839 J22.808633 F800.000000
G03 X126.364665 Y241.553992 Z-0.125000 I0.207542 J23.199683
G03 X126.712517 Y241.558683 Z-0.125000 I-0.127545 J22.358922
G03 X127.062543 Y241.568597 Z-0.125000 I-0.527754 J24.816206
G03 X127.412437 Y241.583558 Z-0.125000 I-0.841321 J23.775957
G03 X127.764399 Y241.603586 Z-0.125000 I-1.307270 J26.075917
G03 X128.116096 Y241.628476 Z-0.125000 I-1.603634 J25.156057
G03 X128.469555 Y241.658220 Z-0.125000 I-2.182881 J28.055789
G03 X128.822635 Y241.692542 Z-0.125000 I-2.391004 J26.429949
G03 X129.177021 Y241.731432 Z-0.125000 I-3.225074 J31.022317
G03 X129.530941 Y241.774545 Z-0.125000 I-3.295299 J28.526209
G03 X129.885577 Y241.821803 Z-0.125000 I-4.497524 J35.104342
G03 X130.239702 Y241.872861 Z-0.125000 I-4.325771 J31.256430
G03 X130.593876 Y241.927523 Z-0.125000 I-6.227909 J41.527464
G03 X130.947528 Y241.985476 Z-0.125000 I-5.581254 J35.166712
G03 X131.300548 Y242.046371 Z-0.125000 I-8.899884 J52.648502
G03 X131.653077 Y242.109952 Z-0.125000 I-7.252212 J41.219118
G03 X132.004329 Y242.175688 Z-0.125000 I-14.185770 J76.770927
G03 X132.355173 Y242.243408 Z-0.125000 I-9.847741 J51.962013
G03 X132.704196 Y242.312383 Z-0.125000 I-32.545678 J165.604805
G03 X133.052939 Y242.382525 Z-0.125000 I-14.955302 J75.258633
G02 X133.399477 Y242.452932 Z-0.125000 I98.894986 J-485.869055
G03 X133.745911 Y242.523578 Z-0.125000 I-32.859543 J162.020178
G02 X134.089973 Y242.593425 Z-0.125000 I18.080946 J-88.182982
G02 X134.434134 Y242.662462 Z-0.125000 I94.138657 J-468.408326
G02 X134.776023 Y242.729590 Z-0.125000 I9.194934 J-45.926130
G02 X135.118224 Y242.794747 Z-0.125000 I16.428344 J-85.349376
G02 X135.458550 Y242.856849 Z-0.125000 I5.658607 J-30.046188
G02 X135.799378 Y242.915718 Z-0.125000 I7.894018 J-44.687315
G02 X136.139033 Y242.970363 Z-0.125000 I3.714919 J-22.007712
G02 X136.479335 Y243.020420 Z-0.125000 I4.521233 J-29.555224
G02 X136.819448 Y243.065039 Z-0.125000 I2.434935 J-17.241834
G02 X137.160269 Y243.103605 Z-0.125000 I2.604824 J-21.494741
G02 X137.502083 Y243.135540 Z-0.125000 I1.547814 J-14.721510
G02 X137.845069 Y243.158602 Z-0.125000 I0.972777 J-11.905412
G03 X138.189165 Y243.177003 Z-0.125000 I-13.430708 J254.382554
G02 X138.533294 Y243.193909 Z-0.125000 I1.866365 J-34.478817
G03 X138.877518 Y243.210023 Z-0.125000 I-2.837123 J64.292669
G03 X139.221480 Y243.227392 Z-0.125000 I-8.509458 J171.929253
G03 X139.565153 Y243.245125 Z-0.125000 I-89.563505 J1739.050174
G03 X139.908811 Y243.263080 Z-0.125000 I-17.362046 J335.603537
G02 X140.252275 Y243.281111 Z-0.125000 I34.730270 J-658.247981
G03 X140.595737 Y243.299088 Z-0.125000 I-77.198192 J1478.053505
G02 X140.939106 Y243.316890 Z-0.125000 I14.733781 J-280.861831
G02 X141.282489 Y243.334391 Z-0.125000 I37.871242 J-739.699189
G02 X141.625887 Y243.351485 Z-0.125000 I9.148778 J-180.334014
G02 X141.969309 Y243.368062 Z-0.125000 I13.775671 J-281.818738
G02 X142.312861 Y243.384020 Z-0.125000 I6.789999 J-142.467374
G02 X142.656446 Y243.399260 Z-0.125000 I8.431284 J-186.211119
G02 X143.000276 Y243.413720 Z-0.125000 I5.445843 J-125.395110
G02 X143.344147 Y243.427290 Z-0.125000 I6.019879 J-148.183052
G02 X143.688375 Y243.439914 Z-0.125000 I4.054781 J-105.867553
G02 X144.032643 Y243.451519 Z-0.125000 I4.177394 J-118.811910
G02 X144.377381 Y243.462059 Z-0.125000 I3.306258 J-102.491111
G02 X144.722152 Y243.471452 Z-0.125000 I3.234426 J-112.393746
G02 X145.067490 Y243.479680 Z-0.125000 I2.362550 J-91.899520
G02 X145.412855 Y243.486666 Z-0.125000 I2.201354 J-100.296426
G02 X145.758869 Y243.492407 Z-0.125000 I1.675010 J-90.522834
G02 X146.104902 Y243.496840 Z-0.125000 I1.359077 J-92.576463
G02 X146.451642 Y243.499947 Z-0.125000 I0.958024 J-87.552751
G02 X146.798401 Y243.501700 Z-0.125000 I0.656414 J-95.588037
G02 X147.145898 Y243.502064 Z-0.125000 I0.256918 J-79.310078
G02 X147.493404 Y243.501096 Z-0.125000 I-0.065764 J-85.946029
G02 X147.841666 Y243.498810 Z-0.125000 I-0.477056 J-99.210050
G02 X148.189924 Y243.495098 Z-0.125000 I-1.030160 J-112.995791
G02 X148.538932 Y243.490131 Z-0.125000 I-1.048211 J-85.924125
G02 X148.887925 Y243.483779 Z-0.125000 I-1.462123 J-89.910324
G02 X149.237630 Y243.476108 Z-0.125000 I-1.971109 J-97.846105
G02 X149.587313 Y243.467147 Z-0.125000 I-2.177130 J-91.782191
G02 X149.937653 Y243.456926 Z-0.125000 I-2.941064 J-106.818671
G02 X150.287961 Y243.445492 Z-0.125000 I-2.959992 J-96.053917
G02 X150.638848 Y243.432876 Z-0.125000 I-4.069941 J-118.082125
G02 X150.989696 Y243.419141 Z-0.125000 I-3.861961 J-103.142389
G02 X151.341023 Y243.404317 Z-0.125000 I-5.339906 J-130.719676
G02 X151.692311 Y243.388502 Z-0.125000 I-5.026730 J-115.565148
G02 X152.043964 Y243.371738 Z-0.125000 I-7.280980 J-156.435471
G02 X152.395579 Y243.354122 Z-0.125000 I-6.424027 J-131.741593
G02 X152.747432 Y243.335715 Z-0.125000 I-10.354786 J-201.305574
G02 X153.099252 Y243.316621 Z-0.125000 I-8.230270 J-154.896954
G02 X153.451180 Y243.296928 Z-0.125000 I-17.880822 J-322.687904
G02 X153.803080 Y243.276738 Z-0.125000 I-11.514862 J-203.781263
G02 X154.154958 Y243.256166 Z-0.125000 I-45.550267 J-782.124873
G02 X154.506818 Y243.235316 Z-0.125000 I-17.227293 J-293.704447
G03 X154.858524 Y243.214317 Z-0.125000 I69.005493 J1152.893396
G02 X155.210230 Y243.193284 Z-0.125000 I-48.625890 J-816.073000
G03 X155.561659 Y243.172383 Z-0.125000 I19.472346 J324.441896
G03 X155.913097 Y243.151717 Z-0.125000 I69.415964 J1177.460361
G03 X156.264155 Y243.131473 Z-0.125000 I10.429748 J177.815249
G03 X156.615241 Y243.111769 Z-0.125000 I19.269706 J340.212125
G03 X156.965843 Y243.092804 Z-0.125000 I6.463623 J116.241632
G03 X157.316491 Y243.074706 Z-0.125000 I9.042594 J171.793756
G03 X157.666575 Y243.057700 Z-0.125000 I4.414722 J87.264848
G03 X158.016462 Y243.042663 Z-0.125000 I2.257969 J48.462150
G02 X158.366225 Y243.027587 Z-0.125000 I-1.842454 J-46.809848
G03 X158.714829 Y243.014585 Z-0.125000 I0.857210 J18.302365
G02 X159.066436 Y242.992102 Z-0.125000 I-0.135507 J-4.879729
G02 X159.418171 Y242.948196 Z-0.125000 I-0.729055 J-7.271380
G02 X159.775384 Y242.886237 Z-0.125000 I-1.150542 J-7.693921
G02 X160.129979 Y242.807034 Z-0.125000 I-1.424479 J-7.210848
G02 X160.487445 Y242.711382 Z-0.125000 I-2.636595 J-10.569120
G02 X160.841165 Y242.602468 Z-0.125000 I-2.511275 J-8.784742
G02 X161.193567 Y242.480819 Z-0.125000 I-4.349066 J-13.169921
G02 X161.542034 Y242.348620 Z-0.125000 I-3.766927 J-10.454702
G02 X161.885084 Y242.207793 Z-0.125000 I-6.753540 J-16.939675
G02 X162.224467 Y242.058899 Z-0.125000 I-5.250764 J-12.429604
G02 X162.555093 Y241.905650 Z-0.125000 I-10.994537 J-24.153339
G02 X162.882702 Y241.746743 Z-0.125000 I-7.250731 J-15.365624
G02 X163.199342 Y241.587618 Z-0.125000 I-23.597363 J-47.350531
G02 X163.513938 Y241.425260 Z-0.125000 I-10.806139 J-21.324614
G03 X163.816645 Y241.266362 Z-0.125000 I176.066781 J335.047137
G02 X164.118511 Y241.106679 Z-0.125000 I-21.840310 J-41.652445
G03 X164.408888 Y240.953394 Z-0.125000 I17.211498 J32.253046
G03 X164.699711 Y240.801771 Z-0.125000 I122.314364 J234.252165
G03 X164.980668 Y240.658561 Z-0.125000 I8.492311 J16.313490
G03 X165.263267 Y240.519374 Z-0.125000 I13.631646 J27.320490
G03 X165.538689 Y240.389666 Z-0.125000 I5.384682 J11.076569
G03 X165.816664 Y240.266132 Z-0.125000 I6.589708 J14.453591
G03 X166.091014 Y240.152327 Z-0.125000 I3.830901 J8.847572
G03 X166.368389 Y240.046486 Z-0.125000 I4.117713 J10.374804
G03 X166.646273 Y239.950080 Z-0.125000 I2.926171 J7.985797
G03 X166.927191 Y239.862919 Z-0.125000 I2.899234 J8.847935
G03 X167.212970 Y239.784697 Z-0.125000 I2.329508 J7.949525
G03 X167.501408 Y239.716412 Z-0.125000 I2.173225 J8.536409
G03 X167.798876 Y239.656644 Z-0.125000 I1.870496 J8.539447
G03 X168.098405 Y239.606963 Z-0.125000 I1.649798 J9.018896
G03 X168.410579 Y239.565619 Z-0.125000 I1.436842 J9.650008
G03 X168.724152 Y239.534129 Z-0.125000 I1.175353 J10.127009
G03 X169.053161 Y239.511094 Z-0.125000 I0.946326 J11.155103
G03 X169.382958 Y239.497501 Z-0.125000 I0.651124 J11.790170
G03 X169.730001 Y239.492759 Z-0.125000 I0.348507 J12.802183
G03 X170.077305 Y239.497070 Z-0.125000 I0.002520 J13.786322
G03 X170.442632 Y239.510830 Z-0.125000 I-0.361871 J14.465049
G03 X170.807760 Y239.533436 Z-0.125000 I-0.795373 J15.806113
G03 X171.190656 Y239.566276 Z-0.125000 I-1.158605 J15.757714
G03 X171.572913 Y239.607957 Z-0.125000 I-1.718330 J17.532431
G03 X171.971678 Y239.660724 Z-0.125000 I-1.992390 J16.589827
G03 X172.369348 Y239.722554 Z-0.125000 I-2.701799 J18.686744
G03 X172.781297 Y239.796264 Z-0.125000 I-2.826457 J16.984372
G03 X173.191638 Y239.879433 Z-0.125000 I-3.657780 J19.100776
G03 X173.613146 Y239.975067 Z-0.125000 I-3.654383 J17.083468
G03 X174.032454 Y240.080617 Z-0.125000 I-4.535955 J18.905149
G03 X174.459034 Y240.198811 Z-0.125000 I-4.487056 J17.023284
G03 X174.882769 Y240.327333 Z-0.125000 I-5.317734 J18.295369
G03 X175.309268 Y240.468067 Z-0.125000 I-5.363482 J16.970840
G03 X175.732260 Y240.619356 Z-0.125000 I-6.019440 J17.496774
G03 X176.153151 Y240.781643 Z-0.125000 I-6.340602 J17.071321
G03 X176.569919 Y240.954394 Z-0.125000 I-6.675789 J16.694707
G03 X176.979687 Y241.136023 Z-0.125000 I-7.534067 J17.550444
G03 X177.384884 Y241.327600 Z-0.125000 I-7.340773 J16.050436
G03 X177.778505 Y241.525013 Z-0.125000 I-9.185980 J18.807091
G03 X178.167411 Y241.731354 Z-0.125000 I-8.115821 J15.766085
G03 X178.540896 Y241.939680 Z-0.125000 I-11.944394 J21.852754
G03 X178.909510 Y242.153455 Z-0.125000 I-12.939801 J22.736999
G03 X179.260855 Y242.368622 Z-0.125000 I-6.627487 J11.216391
G03 X179.606473 Y242.592502 Z-0.125000 I-11.614883 J18.309355
G03 X179.933526 Y242.823128 Z-0.125000 I-3.694057 J5.585785
G03 X180.249951 Y243.074690 Z-0.125000 I-4.391495 J5.848592
G03 X180.543024 Y243.331376 Z-0.125000 I-6.277738 J7.463315
G03 X180.823531 Y243.601104 Z-0.125000 I-4.943663 J5.421956
G03 X181.075196 Y243.864085 Z-0.125000 I-8.609019 J8.490465
G03 X181.315874 Y244.136148 Z-0.125000 I-5.525774 J5.130809
G03 X181.526106 Y244.390124 Z-0.125000 I-14.437496 J12.164871
G03 X181.728428 Y244.649247 Z-0.125000 I-6.447126 J5.242422
G03 X181.902317 Y244.881277 Z-0.125000 I-26175.427632 J19616.658818
G01 X182.219422 Y245.315251 Z-0.125000
G02 X182.367934 Y245.513038 Z-0.125000 I112.232342 J-84.116656
G02 X182.499277 Y245.677767 Z-0.125000 I2.988132 J-2.247806
G02 X182.637565 Y245.834846 Z-0.125000 I3.887206 J-3.282794
G02 X182.766681 Y245.963276 Z-0.125000 I1.471119 J-1.349846
G02 X182.905897 Y246.079125 Z-0.125000 I1.412983 J-1.556413
G02 X183.046220 Y246.174297 Z-0.125000 I0.934749 J-1.227184
G02 X183.196211 Y246.253540 Z-0.125000 I0.795495 J-1.324135
G02 X183.359839 Y246.319624 Z-0.125000 I0.780307 J-1.696449
G02 X183.529979 Y246.370136 Z-0.125000 I0.610798 J-1.745570
G02 X183.725392 Y246.411935 Z-0.125000 I0.797210 J-3.249357
G02 X183.924122 Y246.441682 Z-0.125000 I0.560893 J-3.068460
G02 X184.156218 Y246.465246 Z-0.125000 I0.891825 J-7.629328
G02 X184.389772 Y246.481053 Z-0.125000 I0.547161 J-6.350838
G02 X184.661428 Y246.492622 Z-0.125000 I1.004530 J-20.393343
G02 X184.933742 Y246.499885 Z-0.125000 I0.527565 J-14.671015
G02 X185.246635 Y246.504369 Z-0.125000 I0.889746 J-51.164909
G02 X185.559881 Y246.506620 Z-0.125000 I0.423683 J-37.165015
G02 X185.914710 Y246.506751 Z-0.125000 I0.202453 J-68.134755
G02 X186.269788 Y246.505348 Z-0.125000 I-0.231706 J-103.607246
G02 X186.666332 Y246.501406 Z-0.125000 I-0.262559 J-46.358852
G02 X187.063096 Y246.495252 Z-0.125000 I-1.519212 J-110.747210
G02 X187.500137 Y246.484975 Z-0.125000 I-0.608802 J-35.187988
G02 X187.937349 Y246.470727 Z-0.125000 I-2.198488 J-74.174692
G02 X188.412403 Y246.449598 Z-0.125000 I-0.946556 J-26.633152
G02 X188.887460 Y246.421892 Z-0.125000 I-2.592717 J-48.542734
G02 X189.396411 Y246.383746 Z-0.125000 I-1.381000 J-21.839692
G00 Z3.000000

(End cutting path id: path198674)


(Start cutting path id: path198672)
(Change tool to Default tool)

G00 Z3.000000
G00 X125.741130 Y240.893958

G00 Z4.875000 (Fast pre-penetrate)
G01 Z-0.125000 F400.0(Penetrate)
G03 X126.088634 Y240.897971 Z-0.125000 I-0.073306 J21.397022 F800.000000
G03 X126.437148 Y240.907611 Z-0.125000 I-0.429379 J21.828660
G03 X126.785512 Y240.922842 Z-0.125000 I-0.770848 J21.621432
G03 X127.134837 Y240.943634 Z-0.125000 I-1.176441 J22.710986
G03 X127.483846 Y240.969847 Z-0.125000 I-1.488479 J22.154408
G03 X127.833574 Y241.001432 Z-0.125000 I-2.012401 J24.234619
G03 X128.182835 Y241.038190 Z-0.125000 I-2.245860 J23.016800
G03 X128.532399 Y241.080032 Z-0.125000 I-2.958738 J26.199908
G03 X128.881377 Y241.126715 Z-0.125000 I-3.078257 J24.338870
G03 X129.230099 Y241.178062 Z-0.125000 I-4.080292 J28.921041
G03 X129.578158 Y241.233838 Z-0.125000 I-4.007742 J26.123711
G03 X129.925315 Y241.293725 Z-0.125000 I-5.517313 J33.019186
G03 X130.271772 Y241.357537 Z-0.125000 I-5.096266 J28.641533
G03 X130.616657 Y241.424775 Z-0.125000 I-7.568206 J39.737838
G03 X130.960864 Y241.495340 Z-0.125000 I-6.476242 J32.465392
G03 X131.302858 Y241.568515 Z-0.125000 I-10.988333 J52.190864
G03 X131.644253 Y241.644309 Z-0.125000 I-8.415942 J38.714505
G03 X131.982918 Y241.721788 Z-0.125000 I-18.943454 J83.581418
G03 X132.321117 Y241.801069 Z-0.125000 I-11.690749 J50.631604
G03 X132.656253 Y241.881020 Z-0.125000 I-69.056560 J290.214026
G03 X132.991108 Y241.961843 Z-0.125000 I-19.414304 J81.168312
G02 X133.322822 Y242.042264 Z-0.125000 I38.452604 J-157.881449
G03 X133.654493 Y242.122510 Z-0.125000 I-67.599615 J280.126923
G02 X133.983256 Y242.201263 Z-0.125000 I13.919259 J-57.382126
G02 X134.312238 Y242.278689 Z-0.125000 I35.589086 J-150.480825
G02 X134.638914 Y242.353530 Z-0.125000 I7.903494 J-33.747385
G02 X134.966069 Y242.425804 Z-0.125000 I12.382365 J-55.273747
G02 X135.291910 Y242.494421 Z-0.125000 I5.125060 J-23.529384
G02 X135.618452 Y242.559155 Z-0.125000 I6.712046 J-33.001893
G02 X135.945073 Y242.619177 Z-0.125000 I3.489068 J-18.067757
G02 X136.272533 Y242.673956 Z-0.125000 I4.095053 J-23.473372
G02 X136.601831 Y242.722944 Z-0.125000 I2.370701 J-14.804737
G02 X136.932032 Y242.765271 Z-0.125000 I2.497059 J-18.170773
G02 X137.266040 Y242.800718 Z-0.125000 I1.564039 J-13.146225
G02 X137.601987 Y242.826932 Z-0.125000 I1.027883 J-11.006959
G02 X137.941394 Y242.847951 Z-0.125000 I13.600117 J-216.858532
G02 X138.280698 Y242.866582 Z-0.125000 I1.665619 J-27.236060
G03 X138.621084 Y242.883575 Z-0.125000 I-6.591194 J135.443680
G02 X138.960981 Y242.900799 Z-0.125000 I18.834776 J-368.327143
G02 X139.301136 Y242.917486 Z-0.125000 I7.435707 J-148.089819
G02 X139.641326 Y242.933525 Z-0.125000 I10.248797 J-213.768516
G02 X139.981982 Y242.948840 Z-0.125000 I5.679898 J-122.547405
G02 X140.322678 Y242.963314 Z-0.125000 I6.887689 J-158.107383
G02 X140.664035 Y242.976896 Z-0.125000 I4.380943 J-105.807870
G02 X141.005436 Y242.989480 Z-0.125000 I4.722808 J-123.494961
G02 X141.347680 Y243.001026 Z-0.125000 I3.497419 J-98.588798
G02 X141.689968 Y243.011433 Z-0.125000 I3.439449 J-107.484018
G02 X142.033265 Y243.020684 Z-0.125000 I2.653833 J-92.107660
G02 X142.376602 Y243.028682 Z-0.125000 I2.408370 J-96.018503
G02 X142.721091 Y243.035422 Z-0.125000 I1.909718 J-88.804147
G02 X143.065612 Y243.040815 Z-0.125000 I1.626258 J-92.880711
G02 X143.411401 Y243.044867 Z-0.125000 I1.147437 J-83.153562
G02 X143.757212 Y243.047488 Z-0.125000 I0.990484 J-107.883535
G02 X144.104376 Y243.048783 Z-0.125000 I0.462084 J-77.329691
G02 X144.451550 Y243.048557 Z-0.125000 I0.110656 J-96.800304
G02 X144.800129 Y243.046931 Z-0.125000 I-0.191626 J-78.426841
G02 X145.148707 Y243.043823 Z-0.125000 I-0.570929 J-83.576416
G02 X145.498707 Y243.039258 Z-0.125000 I-0.944170 J-85.814845
G02 X145.848690 Y243.033213 Z-0.125000 I-1.279957 J-84.233586
G02 X146.200074 Y243.025685 Z-0.125000 I-1.642126 J-84.857298
G02 X146.551433 Y243.016712 Z-0.125000 I-2.021120 J-86.024872
G02 X146.904132 Y243.006291 Z-0.125000 I-2.478444 J-89.857774
G02 X147.256798 Y242.994453 Z-0.125000 I-2.702771 J-85.774370
G02 X147.610712 Y242.981182 Z-0.125000 I-3.376456 J-94.773164
G02 X147.964579 Y242.966567 Z-0.125000 I-3.608049 J-91.651656
G02 X148.319569 Y242.950599 Z-0.125000 I-4.401391 J-101.801833
G02 X148.674509 Y242.933353 Z-0.125000 I-4.497812 J-96.230566
G02 X149.030419 Y242.914841 Z-0.125000 I-5.707552 J-113.161095
G02 X149.386269 Y242.895151 Z-0.125000 I-5.687639 J-106.018304
G02 X149.742912 Y242.874304 Z-0.125000 I-7.088614 J-124.329382
G02 X150.099497 Y242.852402 Z-0.125000 I-6.968379 J-116.368075
G02 X150.456670 Y242.829494 Z-0.125000 I-9.572186 J-152.039887
G02 X150.813788 Y242.805671 Z-0.125000 I-8.624202 J-131.967886
G02 X151.171279 Y242.781009 Z-0.125000 I-13.348319 J-196.099402
G02 X151.528724 Y242.755604 Z-0.125000 I-11.219096 J-160.374418
G02 X151.886320 Y242.729564 Z-0.125000 I-20.820380 J-288.386743
G02 X152.243874 Y242.702977 Z-0.125000 I-15.211114 J-206.988251
G02 X152.601356 Y242.675986 Z-0.125000 I-48.254087 J-641.465449
G02 X152.958815 Y242.648672 Z-0.125000 I-23.840389 J-314.350290
G03 X153.315973 Y242.621212 Z-0.125000 I138.806529 J1803.035449
G02 X153.673128 Y242.593691 Z-0.125000 I-53.270711 J-693.669465
G03 X154.029768 Y242.566308 Z-0.125000 I26.037231 J336.774452
G03 X154.386425 Y242.539153 Z-0.125000 I138.535772 J1817.211330
G03 X154.742369 Y242.512447 Z-0.125000 I13.471008 J177.158769
G03 X155.098350 Y242.486288 Z-0.125000 I23.735415 J320.571116
G03 X155.453436 Y242.460933 Z-0.125000 I8.578181 J117.630785
G03 X155.808579 Y242.436472 Z-0.125000 I12.689805 J181.651036
G03 X156.162661 Y242.413173 Z-0.125000 I5.768668 J84.965883
G03 X156.516821 Y242.391159 Z-0.125000 I7.518310 J118.093060
G03 X156.869773 Y242.370702 Z-0.125000 I3.984858 J65.698202
G03 X157.222812 Y242.351942 Z-0.125000 I4.717355 J85.445609
G03 X157.574511 Y242.335153 Z-0.125000 I2.705614 J52.982789
G03 X157.925883 Y242.321259 Z-0.125000 I1.623809 J36.616278
G02 X158.276616 Y242.308263 Z-0.125000 I-2.633703 J-75.817491
G03 X158.625467 Y242.298355 Z-0.125000 I0.623280 J15.799520
G02 X158.978938 Y242.279778 Z-0.125000 I-0.087399 J-5.034952
G02 X159.333697 Y242.240433 Z-0.125000 I-0.687195 J-7.815157
G02 X159.697459 Y242.183335 Z-0.125000 I-1.087362 J-8.114683
G02 X160.059126 Y242.109474 Z-0.125000 I-1.406090 J-7.807445
G02 X160.427033 Y242.018986 Z-0.125000 I-2.567239 J-11.231152
G02 X160.791546 Y241.915482 Z-0.125000 I-2.532271 J-9.611512
G02 X161.157626 Y241.798631 Z-0.125000 I-4.230177 J-13.884555
G02 X161.520048 Y241.671195 Z-0.125000 I-3.819888 J-11.442656
G02 X161.879427 Y241.534122 Z-0.125000 I-6.448465 J-17.446291
G02 X162.235279 Y241.388678 Z-0.125000 I-5.296885 J-13.467692
G02 X162.584178 Y241.237564 Z-0.125000 I-9.981216 J-23.523513
G02 X162.930022 Y241.080261 Z-0.125000 I-7.168761 J-16.219913
G02 X163.266069 Y240.921266 Z-0.125000 I-18.150014 J-38.796000
G02 X163.599852 Y240.758307 Z-0.125000 I-10.140799 J-21.194367
G02 X163.922246 Y240.597350 Z-0.125000 I-82.786982 J-166.224011
G02 X164.243412 Y240.434733 Z-0.125000 I-17.214828 J-34.397406
G03 X164.552901 Y240.277247 Z-0.125000 I29.615807 J57.817705
G02 X164.862340 Y240.120447 Z-0.125000 I-79.817222 J-157.900345
G03 X165.161045 Y239.971140 Z-0.125000 I11.694691 J23.023073
G03 X165.460866 Y239.824844 Z-0.125000 I23.699651 J48.189780
G03 X165.751993 Y239.687539 Z-0.125000 I6.904060 J14.261435
G03 X166.045227 Y239.555442 Z-0.125000 I9.217493 J20.069809
G03 X166.332705 Y239.433026 Z-0.125000 I4.709783 J10.661567
G03 X166.622940 Y239.317759 Z-0.125000 I5.330486 J12.998801
G03 X166.911034 Y239.212240 Z-0.125000 I3.474788 J9.040940
G03 X167.202103 Y239.115413 Z-0.125000 I3.572797 J10.254248
G03 X167.495008 Y239.028061 Z-0.125000 I2.687338 J8.476281
G03 X167.790699 Y238.950444 Z-0.125000 I2.581604 J9.232919
G03 X168.092206 Y238.881971 Z-0.125000 I2.113355 J8.607709
G03 X168.396019 Y238.823747 Z-0.125000 I1.913933 J9.165141
G03 X168.709256 Y238.774492 Z-0.125000 I1.617149 J9.263632
G03 X169.024166 Y238.735557 Z-0.125000 I1.367076 J9.764019
G03 X169.351444 Y238.705661 Z-0.125000 I1.108009 J10.323244
G03 X169.679739 Y238.685878 Z-0.125000 I0.819016 J10.857473
G03 X170.022464 Y238.675464 Z-0.125000 I0.525356 J11.644973
G03 X170.365598 Y238.674856 Z-0.125000 I0.193383 J12.296156
G03 X170.724228 Y238.684143 Z-0.125000 I-0.159295 J13.080361
G03 X171.082728 Y238.702985 Z-0.125000 I-0.556868 J14.014929
G03 X171.456773 Y238.732400 Z-0.125000 I-0.929696 J14.215162
G03 X171.830184 Y238.771256 Z-0.125000 I-1.428823 J15.544938
G03 X172.218185 Y238.821395 Z-0.125000 I-1.763811 J15.175489
G03 X172.605051 Y238.881027 Z-0.125000 I-2.370184 J16.661520
G03 X173.004597 Y238.952596 Z-0.125000 I-2.621944 J15.788329
G03 X173.402480 Y239.033846 Z-0.125000 I-3.328667 J17.315492
G03 X173.810250 Y239.127451 Z-0.125000 I-3.482795 J16.106943
G03 X174.215787 Y239.230999 Z-0.125000 I-4.239222 J17.448562
G03 X174.627658 Y239.346928 Z-0.125000 I-4.349265 J16.241546
G03 X175.036683 Y239.473024 Z-0.125000 I-5.069045 J17.169212
G03 X175.447907 Y239.610956 Z-0.125000 I-5.254643 J16.347998
G03 X175.855667 Y239.759135 Z-0.125000 I-5.818886 J16.647554
G03 X176.261140 Y239.917883 Z-0.125000 I-6.246675 J16.552449
G03 X176.662592 Y240.086685 Z-0.125000 I-6.513925 J16.053451
G03 X177.057223 Y240.263962 Z-0.125000 I-7.440626 J17.091149
G03 X177.447435 Y240.450742 Z-0.125000 I-7.208251 J15.560203
G03 X177.826575 Y240.643062 Z-0.125000 I-9.065080 J18.340724
G03 X178.201184 Y240.843881 Z-0.125000 I-7.994363 J15.362610
G03 X178.561136 Y241.046580 Z-0.125000 I-11.733100 J21.256470
G03 X178.916572 Y241.254573 Z-0.125000 I-12.711964 J22.131038
G03 X179.255320 Y241.463717 Z-0.125000 I-6.532579 J10.959642
G03 X179.588644 Y241.681292 Z-0.125000 I-11.176413 J17.486322
G03 X179.903334 Y241.904454 Z-0.125000 I-3.696161 J5.545571
G03 X180.207651 Y242.147110 Z-0.125000 I-4.282333 J5.682666
G03 X180.488737 Y242.393197 Z-0.125000 I-6.469641 J7.673337
G03 X180.758316 Y242.651176 Z-0.125000 I-4.884129 J5.373584
G03 X181.000115 Y242.901334 Z-0.125000 I-9.297738 J9.228998
G03 X181.232270 Y243.159445 Z-0.125000 I-5.589230 J5.260628
G03 X181.435685 Y243.399289 Z-0.125000 I-18.369196 J15.785285
G03 X181.632694 Y243.643210 Z-0.125000 I-6.867054 J5.747880
G02 X181.803270 Y243.860889 Z-0.125000 I39.346899 J-30.657104
G03 X181.971834 Y244.078708 Z-0.125000 I-12.249466 J9.653604
G02 X182.118735 Y244.266003 Z-0.125000 I6.176334 J-4.693060
G02 X182.268630 Y244.449251 Z-0.125000 I17.849755 J-14.447982
G02 X182.403345 Y244.602245 Z-0.125000 I2.520198 J-2.083271
G02 X182.545525 Y244.746548 Z-0.125000 I2.972329 J-2.786401
G02 X182.680683 Y244.865439 Z-0.125000 I1.345232 J-1.393029
G02 X182.825497 Y244.971110 Z-0.125000 I1.257256 J-1.570914
G02 X182.973804 Y245.058804 Z-0.125000 I0.919581 J-1.385920
G02 X183.130654 Y245.130821 Z-0.125000 I0.773708 J-1.478302
G02 X183.303088 Y245.191188 Z-0.125000 I0.805652 J-2.024804
G02 X183.480984 Y245.236979 Z-0.125000 I0.622122 J-2.048484
G02 X183.685019 Y245.274794 Z-0.125000 I0.835865 J-3.940639
G02 X183.891782 Y245.301655 Z-0.125000 I0.578010 J-3.640002
G02 X184.131863 Y245.322805 Z-0.125000 I0.931487 J-9.200422
G02 X184.373159 Y245.337012 Z-0.125000 I0.562439 J-7.496444
G02 X184.651983 Y245.347306 Z-0.125000 I1.021933 J-23.900192
G02 X184.931378 Y245.353728 Z-0.125000 I0.536775 J-17.271662
G02 X185.250520 Y245.357571 Z-0.125000 I0.833433 J-55.949020
G02 X185.569983 Y245.359302 Z-0.125000 I0.423882 J-48.751901
G02 X185.930061 Y245.358894 Z-0.125000 I0.117748 J-54.976814
G02 X186.290377 Y245.356959 Z-0.125000 I-0.288499 J-87.267225
G02 X186.691113 Y245.352333 Z-0.125000 I-0.362487 J-48.754281
G02 X187.092058 Y245.345335 Z-0.125000 I-1.644458 J-105.706186
G02 X187.532162 Y245.334024 Z-0.125000 I-0.671063 J-34.678147
G02 X187.972420 Y245.318506 Z-0.125000 I-2.282746 J-71.018409
G02 X188.449349 Y245.295908 Z-0.125000 I-1.014786 J-26.460751
G02 X188.926243 Y245.266542 Z-0.125000 I-2.638490 J-46.735175
G02 X189.435826 Y245.226571 Z-0.125000 I-1.457068 J-21.844359
G00 Z3.000000

(End cutting path id: path198672)


(Start cutting path id: path198670)
(Change tool to Default tool)

G00 Z3.000000
G00 X125.756368 Y240.094127

G00 Z4.875000 (Fast pre-penetrate)
G01 Z-0.125000 F400.0(Penetrate)
G03 X126.103699 Y240.111198 Z-0.125000 I-0.782986 J19.472111 F800.000000
G03 X126.451112 Y240.134393 Z-0.125000 I-1.169682 J20.132589
G03 X126.798124 Y240.163643 Z-0.125000 I-1.492331 J19.778140
G03 X127.144965 Y240.198841 Z-0.125000 I-1.955414 J20.995131
G03 X127.491213 Y240.239886 Z-0.125000 I-2.221997 J20.225036
G03 X127.836834 Y240.286597 Z-0.125000 I-2.830524 J22.245258
G03 X128.181698 Y240.338850 Z-0.125000 I-2.992198 J20.912676
G03 X128.525316 Y240.396341 Z-0.125000 I-3.848474 J24.057329
G03 X128.868060 Y240.458970 Z-0.125000 I-3.839306 J21.980128
G03 X129.208824 Y240.526254 Z-0.125000 I-5.086229 J26.656166
G03 X129.548645 Y240.598175 Z-0.125000 I-4.802051 J23.528129
G03 X129.885717 Y240.674008 Z-0.125000 I-6.734586 J30.721856
G03 X130.221843 Y240.753879 Z-0.125000 I-5.963089 J25.841880
G03 X130.554477 Y240.836766 Z-0.125000 I-9.254048 J37.846442
G03 X130.886233 Y240.922974 Z-0.125000 I-7.501832 J29.550982
G03 X131.213884 Y241.011179 Z-0.125000 I-13.975914 J52.568136
G03 X131.540796 Y241.101871 Z-0.125000 I-9.836171 J36.090623
G03 X131.863200 Y241.193448 Z-0.125000 I-28.321995 J100.322893
G03 X132.185079 Y241.286555 Z-0.125000 I-14.293042 J50.015170
G02 X132.502340 Y241.379391 Z-0.125000 I371.106877 J-1267.637294
G03 X132.819360 Y241.472684 Z-0.125000 I-28.041337 J95.873523
G02 X133.132024 Y241.564555 Z-0.125000 I22.389794 J-75.621412
G02 X133.444780 Y241.655695 Z-0.125000 I305.833076 J-1048.908658
G02 X133.753886 Y241.744320 Z-0.125000 I10.740968 J-36.878973
G02 X134.063427 Y241.830941 Z-0.125000 I20.034283 J-70.996804
G02 X134.370523 Y241.914045 Z-0.125000 I6.652321 J-23.973431
G02 X134.678366 Y241.993811 Z-0.125000 I9.342612 J-35.422208
G02 X134.985483 Y242.069157 Z-0.125000 I4.525906 J-17.784469
G02 X135.293593 Y242.139813 Z-0.125000 I5.568162 J-23.573839
G02 X135.603208 Y242.205218 Z-0.125000 I3.207402 J-14.417615
G02 X135.913940 Y242.264617 Z-0.125000 I3.609909 J-18.042174
G02 X136.228857 Y242.317926 Z-0.125000 I2.274311 J-12.478448
G02 X136.544919 Y242.363945 Z-0.125000 I2.344389 J-14.992877
G02 X136.868097 Y242.402997 Z-0.125000 I1.575443 J-11.681019
G02 X137.193912 Y242.432592 Z-0.125000 I1.098134 J-10.281080
G02 X137.526369 Y242.456575 Z-0.125000 I4.522794 J-60.380505
G02 X137.858689 Y242.477078 Z-0.125000 I1.518063 J-21.902063
G02 X138.194229 Y242.494979 Z-0.125000 I12.349905 J-228.330796
G02 X138.529121 Y242.511805 Z-0.125000 I3.726470 J-70.826422
G02 X138.866029 Y242.527065 Z-0.125000 I3.130906 J-65.398354
G02 X139.203021 Y242.540611 Z-0.125000 I2.955252 J-69.322692
G02 X139.542272 Y242.552492 Z-0.125000 I2.339581 J-61.956302
G02 X139.881594 Y242.562622 Z-0.125000 I2.163801 J-66.791150
G02 X140.223380 Y242.571039 Z-0.125000 I1.739279 J-63.681790
G02 X140.565216 Y242.577649 Z-0.125000 I1.440382 J-65.644078
G02 X140.909668 Y242.582495 Z-0.125000 I1.081981 J-64.660713
G02 X141.254155 Y242.585517 Z-0.125000 I0.722192 J-62.687723
G02 X141.601357 Y242.586702 Z-0.125000 I0.400372 J-66.452892
G02 X141.948571 Y242.586091 Z-0.125000 I0.054784 J-67.506094
G02 X142.298552 Y242.583607 Z-0.125000 I-0.273985 J-63.247469
G02 X142.648525 Y242.579264 Z-0.125000 I-0.811493 J-79.510122
G02 X143.001247 Y242.573156 Z-0.125000 I-0.950828 J-65.086942
G02 X143.353944 Y242.565196 Z-0.125000 I-1.391905 J-69.491266
G02 X143.709324 Y242.555376 Z-0.125000 I-1.768888 J-70.450562
G02 X144.064661 Y242.543774 Z-0.125000 I-2.150991 J-71.326067
G02 X144.422555 Y242.530320 Z-0.125000 I-2.573346 J-73.221383
G02 X144.780392 Y242.515131 Z-0.125000 I-2.984675 J-74.542481
G02 X145.140607 Y242.498128 Z-0.125000 I-3.438299 J-76.663027
G02 X145.500750 Y242.479443 Z-0.125000 I-3.725060 J-75.281066
G02 X145.863046 Y242.458977 Z-0.125000 I-4.462958 J-82.221825
G02 X146.225256 Y242.436905 Z-0.125000 I-4.602946 J-78.516792
G02 X146.589353 Y242.413128 Z-0.125000 I-5.643403 J-89.217200
G02 X146.953352 Y242.387820 Z-0.125000 I-5.755648 J-85.411768
G02 X147.318924 Y242.360923 Z-0.125000 I-6.917398 J-96.517355
G02 X147.684397 Y242.332595 Z-0.125000 I-6.833531 J-90.535927
G02 X148.051105 Y242.302807 Z-0.125000 I-8.681329 J-109.143747
G02 X148.417713 Y242.271717 Z-0.125000 I-8.175073 J-98.574733
G02 X148.785188 Y242.239326 Z-0.125000 I-10.951601 J-126.346400
G02 X149.152563 Y242.205793 Z-0.125000 I-9.708578 J-108.394099
G02 X149.520432 Y242.171153 Z-0.125000 I-14.646158 J-157.510279
G02 X149.888210 Y242.135556 Z-0.125000 I-11.855214 J-124.400579
G02 X150.256095 Y242.099084 Z-0.125000 I-21.296984 J-216.689711
G02 X150.623905 Y242.061863 Z-0.125000 I-16.103222 J-160.966266
G02 X150.991440 Y242.024056 Z-0.125000 I-36.748596 J-359.049140
G02 X151.358920 Y241.985744 Z-0.125000 I-21.759561 J-210.494864
G02 X151.725758 Y241.947144 Z-0.125000 I-231.187378 J-2198.876152
G02 X152.092565 Y241.908332 Z-0.125000 I-38.100942 J-361.874609
G03 X152.458380 Y241.869579 Z-0.125000 I51.018542 J479.905585
G02 X152.824202 Y241.830933 Z-0.125000 I-333.650222 J-3160.143937
G03 X153.188706 Y241.792734 Z-0.125000 I21.605560 J204.404755
G03 X153.553254 Y241.755004 Z-0.125000 I49.215393 J473.742314
G03 X153.916196 Y241.718126 Z-0.125000 I12.585160 J122.057104
G03 X154.279216 Y241.682127 Z-0.125000 I20.522414 J205.098551
G03 X154.640380 Y241.647414 Z-0.125000 I8.288136 J84.337012
G03 X155.001662 Y241.614022 Z-0.125000 I11.206054 J119.273038
G03 X155.360866 Y241.582393 Z-0.125000 I5.785386 J63.646682
G03 X155.720218 Y241.552559 Z-0.125000 I7.136268 J83.779416
G03 X156.077307 Y241.524976 Z-0.125000 I4.017818 J49.687836
G03 X156.434564 Y241.499698 Z-0.125000 I4.525972 J61.428976
G03 X156.789390 Y241.477189 Z-0.125000 I2.746513 J40.488465
G03 X157.144389 Y241.457530 Z-0.125000 I2.864637 J48.512739
G03 X157.496800 Y241.441166 Z-0.125000 I1.730148 J33.458301
G03 X157.848835 Y241.429001 Z-0.125000 I1.090960 J26.470378
G02 X158.199159 Y241.419100 Z-0.125000 I-13.584157 J-486.846696
G03 X158.547140 Y241.413732 Z-0.125000 I0.379256 J13.303019
G02 X158.900032 Y241.401135 Z-0.125000 I-0.012451 J-5.298089
G02 X159.255075 Y241.368978 Z-0.125000 I-0.592849 J-8.521801
G02 X159.620796 Y241.320268 Z-0.125000 I-0.964765 J-8.640766
G02 X159.985051 Y241.255753 Z-0.125000 I-1.306470 J-8.436962
G02 X160.357524 Y241.175443 Z-0.125000 I-2.421354 J-12.134050
G02 X160.727189 Y241.082848 Z-0.125000 I-2.434470 J-10.503323
G02 X161.100550 Y240.977291 Z-0.125000 I-4.061378 J-15.078414
G02 X161.470824 Y240.861661 Z-0.125000 I-3.740527 J-12.628690
G02 X161.840277 Y240.736272 Z-0.125000 I-6.225432 J-18.949881
G02 X162.206700 Y240.602815 Z-0.125000 I-5.241980 J-14.962291
G02 X162.568356 Y240.463056 Z-0.125000 I-9.547131 J-25.242981
G02 X162.927331 Y240.317203 Z-0.125000 I-7.122605 J-18.044928
G02 X163.278515 Y240.168578 Z-0.125000 I-16.563318 J-39.626402
G02 X163.627637 Y240.015879 Z-0.125000 I-9.983933 J-23.302102
G02 X163.967050 Y239.863778 Z-0.125000 I-51.559945 J-115.511049
G02 X164.305233 Y239.709706 Z-0.125000 I-16.181463 J-35.965879
G03 X164.632961 Y239.559206 Z-0.125000 I44.252700 J95.932398
G02 X164.960432 Y239.408896 Z-0.125000 I-48.807071 J-106.764987
G03 X165.277834 Y239.264553 Z-0.125000 I14.476272 J31.411365
G03 X165.595975 Y239.122560 Z-0.125000 I36.062588 J80.372264
G03 X165.905452 Y238.988244 Z-0.125000 I8.212731 J18.499152
G03 X166.216551 Y238.858355 Z-0.125000 I11.697265 J27.578940
G03 X166.521253 Y238.737170 Z-0.125000 I5.490810 J13.362172
G03 X166.828209 Y238.622304 Z-0.125000 I6.459310 J16.793553
G03 X167.131685 Y238.516603 Z-0.125000 I3.977595 J10.931565
G03 X167.437721 Y238.418811 Z-0.125000 I4.210148 J12.647691
G03 X167.743586 Y238.330279 Z-0.125000 I3.010517 J9.828224
G03 X168.051961 Y238.250846 Z-0.125000 I2.960137 J10.853651
G03 X168.363578 Y238.180623 Z-0.125000 I2.309796 J9.523174
G03 X168.677359 Y238.120252 Z-0.125000 I2.130879 J10.229749
G03 X168.997572 Y238.069085 Z-0.125000 I1.726215 J9.775454
G03 X169.319423 Y238.028119 Z-0.125000 I1.481077 J10.351319
G03 X169.650386 Y237.996502 Z-0.125000 I1.163020 J10.426299
G03 X169.982379 Y237.975124 Z-0.125000 I0.871517 J10.945648
G03 X170.325430 Y237.963434 Z-0.125000 I0.558710 J11.357023
G03 X170.668907 Y237.961861 Z-0.125000 I0.226498 J11.954837
G03 X171.024527 Y237.970446 Z-0.125000 I-0.121248 J12.392776
G03 X171.379993 Y237.988962 Z-0.125000 I-0.505201 J13.120004
G03 X171.747759 Y238.018216 Z-0.125000 I-0.877466 J13.357191
G03 X172.114831 Y238.057272 Z-0.125000 I-1.330813 J14.252328
G03 X172.493425 Y238.107622 Z-0.125000 I-1.700573 J14.235779
G03 X172.870794 Y238.167729 Z-0.125000 I-2.229038 J15.209031
G03 X173.258023 Y238.239569 Z-0.125000 I-2.557971 J14.867409
G03 X173.643488 Y238.321197 Z-0.125000 I-3.152597 J15.838111
G03 X174.036338 Y238.414742 Z-0.125000 I-3.434700 J15.296166
G03 X174.426874 Y238.518137 Z-0.125000 I-4.050985 J16.090243
G03 X174.821639 Y238.633234 Z-0.125000 I-4.331910 J15.592313
G03 X175.213525 Y238.758197 Z-0.125000 I-4.895557 J16.029515
G03 X175.605964 Y238.894105 Z-0.125000 I-5.267929 J15.845858
G03 X175.994992 Y239.039754 Z-0.125000 I-5.672547 J15.743752
G03 X176.380613 Y239.194936 Z-0.125000 I-6.303457 J16.220532
G03 X176.762369 Y239.359501 Z-0.125000 I-6.403158 J15.379031
G03 X177.136743 Y239.531462 Z-0.125000 I-7.557477 J16.946859
G03 X177.506973 Y239.712137 Z-0.125000 I-7.144330 J15.109384
G03 X177.866140 Y239.897356 Z-0.125000 I-9.284029 J18.444005
G03 X178.221150 Y240.090240 Z-0.125000 I-7.998471 J15.144602
G03 X178.562044 Y240.284219 Z-0.125000 I-12.200944 J21.838212
G03 X178.899084 Y240.482892 Z-0.125000 I-13.153024 J22.698728
G03 X179.219982 Y240.681853 Z-0.125000 I-6.511069 J10.859801
G03 X179.536104 Y240.888525 Z-0.125000 I-11.173711 J17.436187
G03 X179.833532 Y241.099042 Z-0.125000 I-3.637469 J5.454547
G03 X180.121109 Y241.327180 Z-0.125000 I-4.092589 J5.454185
G03 X180.385791 Y241.556628 Z-0.125000 I-6.759910 J8.065359
G03 X180.640471 Y241.796429 Z-0.125000 I-4.772044 J5.323282
G03 X180.868940 Y242.027236 Z-0.125000 I-10.666346 J10.786780
G03 X181.089599 Y242.264494 Z-0.125000 I-5.698244 J5.520829
G03 X181.283891 Y242.483578 Z-0.125000 I-33.593626 J29.987711
G03 X181.473742 Y242.705299 Z-0.125000 I-7.753412 J6.831094
G02 X181.639893 Y242.902281 Z-0.125000 I14.774091 J-12.293118
G03 X181.805848 Y243.097989 Z-0.125000 I-23.811619 J20.359855
G02 X181.952926 Y243.266043 Z-0.125000 I4.335587 J-3.646049
G02 X182.104278 Y243.428626 Z-0.125000 I7.473019 J-6.805031
G02 X182.243277 Y243.564892 Z-0.125000 I2.032128 J-1.933861
G02 X182.389989 Y243.691211 Z-0.125000 I2.185465 J-2.389931
G02 X182.532786 Y243.796309 Z-0.125000 I1.201385 J-1.482762
G02 X182.684255 Y243.887703 Z-0.125000 I1.088530 J-1.632839
G02 X182.842412 Y243.964312 Z-0.125000 I0.898101 J-1.652543
G02 X183.007503 Y244.025988 Z-0.125000 I0.740934 J-1.731507
G02 X183.190458 Y244.077741 Z-0.125000 I0.829400 J-2.582764
G02 X183.377555 Y244.116473 Z-0.125000 I0.623705 J-2.541566
G02 X183.591592 Y244.148152 Z-0.125000 I0.872749 J-5.157844
G02 X183.807656 Y244.170449 Z-0.125000 I0.582452 J-4.586159
G02 X184.056679 Y244.187694 Z-0.125000 I0.970198 J-12.203211
G02 X184.306628 Y244.199153 Z-0.125000 I0.562782 J-9.544156
G02 X184.593100 Y244.207247 Z-0.125000 I1.046543 J-31.967011
G02 X184.880031 Y244.212208 Z-0.125000 I0.526632 J-22.154969
G02 X185.205368 Y244.214999 Z-0.125000 I0.785627 J-72.630112
G02 X185.530989 Y244.216022 Z-0.125000 I0.336197 J-55.174006
G02 X185.895726 Y244.215263 Z-0.125000 I0.015389 J-80.275869
G02 X186.260687 Y244.213101 Z-0.125000 I-0.504907 J-116.021348
G02 X186.664507 Y244.208490 Z-0.125000 I-0.386143 J-51.502058
G02 X187.068526 Y244.201582 Z-0.125000 I-1.763101 J-114.936120
G02 X187.510143 Y244.190525 Z-0.125000 I-0.673919 J-35.740009
G02 X187.951908 Y244.175370 Z-0.125000 I-2.239844 J-71.738901
G02 X188.428836 Y244.153356 Z-0.125000 I-1.018797 J-27.249293
G02 X188.905732 Y244.124758 Z-0.125000 I-2.621351 J-47.703023
G02 X189.413929 Y244.085964 Z-0.125000 I-1.463673 J-22.522347
G00 Z3.000000

(End cutting path id: path198670)


(Start cutting path id: path198668)
(Change tool to Default tool)

G00 Z3.000000
G00 X125.751526 Y239.155381

G00 Z4.875000 (Fast pre-penetrate)
G01 Z-0.125000 F400.0(Penetrate)
G03 X126.097335 Y239.186851 Z-0.125000 I-1.427451 J17.601052 F800.000000
G03 X126.442426 Y239.224963 Z-0.125000 I-1.852888 J18.358546
G03 X126.786785 Y239.269670 Z-0.125000 I-2.132428 J17.773853
G03 X127.129897 Y239.320756 Z-0.125000 I-2.666559 J19.087553
G03 X127.472063 Y239.378174 Z-0.125000 I-2.867675 J18.137212
G03 X127.812233 Y239.441538 Z-0.125000 I-3.577439 J20.150331
G03 X128.151282 Y239.510865 Z-0.125000 I-3.646364 J18.696414
G03 X128.487444 Y239.585519 Z-0.125000 I-4.648637 J21.726878
G03 X128.822361 Y239.665658 Z-0.125000 I-4.499578 J19.544595
G03 X129.153420 Y239.750304 Z-0.125000 I-5.994582 J24.135149
G03 X129.483187 Y239.839845 Z-0.125000 I-5.476327 J20.820404
G03 X129.808134 Y239.932887 Z-0.125000 I-7.865449 J28.083862
G03 X130.131827 Y240.030106 Z-0.125000 I-6.677113 J22.819152
G03 X130.449850 Y240.129657 Z-0.125000 I-10.924754 J35.457560
G03 X130.766756 Y240.232533 Z-0.125000 I-8.347650 J26.254330
G03 X131.077367 Y240.336453 Z-0.125000 I-17.635818 J53.228615
G03 X131.387094 Y240.442712 Z-0.125000 I-11.122582 J32.924866
G03 X131.690224 Y240.548670 Z-0.125000 I-49.504197 J142.111167
G03 X131.992803 Y240.655845 Z-0.125000 I-17.314196 J49.362501
G02 X132.288911 Y240.761400 Z-0.125000 I50.194831 J-140.341395
G03 X132.584881 Y240.866919 Z-0.125000 I-47.278705 J133.079351
G02 X132.875026 Y240.969603 Z-0.125000 I15.091991 J-42.182942
G02 X133.165483 Y241.070899 Z-0.125000 I43.553147 J-124.416932
G02 X133.451357 Y241.168320 Z-0.125000 I8.327147 J-23.967109
G02 X133.737985 Y241.262932 Z-0.125000 I13.049360 J-39.051861
G02 X134.021914 Y241.352843 Z-0.125000 I5.442251 J-16.692738
G02 X134.306972 Y241.438521 Z-0.125000 I7.012477 J-22.814127
G02 X134.591871 Y241.518882 Z-0.125000 I3.859192 J-13.136503
G02 X134.878143 Y241.593650 Z-0.125000 I4.468023 J-16.521885
G02 X135.167429 Y241.662628 Z-0.125000 I2.848511 J-11.305250
G02 X135.458157 Y241.724796 Z-0.125000 I3.064626 J-13.620624
G02 X135.755610 Y241.780721 Z-0.125000 I2.121313 J-10.463788
G02 X136.054455 Y241.828799 Z-0.125000 I2.124556 J-12.253138
G02 X136.363992 Y241.870087 Z-0.125000 I1.555346 J-10.479561
G02 X136.676686 Y241.901956 Z-0.125000 I1.134673 J-9.583337
G02 X136.999867 Y241.928060 Z-0.125000 I2.948832 J-34.494359
G02 X137.322973 Y241.949748 Z-0.125000 I1.387794 J-18.257478
G02 X137.652586 Y241.968086 Z-0.125000 I3.687834 J-63.314779
G02 X137.981476 Y241.984158 Z-0.125000 I2.125816 J-40.127558
G02 X138.315374 Y241.997807 Z-0.125000 I1.925752 J-43.021643
G02 X138.649393 Y242.008852 Z-0.125000 I1.589834 J-43.022148
G02 X138.988611 Y242.017492 Z-0.125000 I1.333959 J-45.710932
G02 X139.327905 Y242.023631 Z-0.125000 I1.007832 J-46.320718
G02 X139.672486 Y242.027387 Z-0.125000 I0.704393 J-48.811515
G02 X140.017107 Y242.028709 Z-0.125000 I0.387328 J-56.051470
G02 X140.367006 Y242.027652 Z-0.125000 I0.035227 J-46.235789
G02 X140.716916 Y242.024238 Z-0.125000 I-0.403932 J-59.350366
G02 X141.071995 Y242.018550 Z-0.125000 I-0.679755 J-53.514402
G02 X141.427055 Y242.010539 Z-0.125000 I-1.066100 J-55.125995
G02 X141.787097 Y242.000161 Z-0.125000 I-1.528077 J-59.264649
G02 X142.147089 Y241.987554 Z-0.125000 I-1.891334 J-59.150490
G02 X142.511787 Y241.972594 Z-0.125000 I-2.357616 J-61.929922
G02 X142.876406 Y241.955462 Z-0.125000 I-2.671883 J-60.752260
G02 X143.245383 Y241.935971 Z-0.125000 I-3.269752 J-65.400539
G02 X143.614254 Y241.914359 Z-0.125000 I-3.623425 J-65.004808
G02 X143.987052 Y241.890420 Z-0.125000 I-4.137280 J-67.343124
G02 X144.359722 Y241.864414 Z-0.125000 I-4.500309 J-67.172660
G02 X144.735830 Y241.836120 Z-0.125000 I-5.166416 J-71.190039
G02 X145.111790 Y241.805816 Z-0.125000 I-5.491897 J-70.482323
G02 X145.490637 Y241.773305 Z-0.125000 I-6.289265 J-75.511607
G02 X145.869323 Y241.738860 Z-0.125000 I-6.502954 J-73.592144
G02 X146.250300 Y241.702315 Z-0.125000 I-7.584775 J-81.073494
G02 X146.631107 Y241.663937 Z-0.125000 I-7.614028 J-77.459609
