%
(Header)
(Generated by gcodetools from Inkscape.)
(Using default header. To add your own header create file "header" in the output dir.)
M3
(Header end.)
G21 (All units in mm)

(Start cutting path id: path10372)
(Change tool to Default tool)

G00 Z3.000000
G00 X22.877177 Y62.627406

G00 Z4.875000 (Fast pre-penetrate)
G01 Z-0.125000 F400.0(Penetrate)
G01 X50.869549 Y55.801672 Z-0.125000 F800.000000
G01 X65.590476 Y62.247385 Z-0.125000
G01 X84.484057 Y64.520444 Z-0.125000
G01 X97.972197 Y72.198944 Z-0.125000
G01 X132.330363 Y59.007418 Z-0.125000
G01 X144.247121 Y68.257301 Z-0.125000
G01 X170.391541 Y63.279521 Z-0.125000
G00 Z3.000000

(End cutting path id: path10372)


(Start cutting path id: path10320)
(Change tool to Default tool)

G00 Z3.000000
G00 X27.103423 Y79.567798

G00 Z4.875000 (Fast pre-penetrate)
G01 Z-0.125000 F400.0(Penetrate)
G01 X35.504897 Y92.332965 Z-0.125000 F800.000000
G01 X60.871541 Y88.132961 Z-0.125000
G01 X90.963015 Y79.208126 Z-0.125000
G01 X102.036269 Y89.301513 Z-0.125000
G01 X122.796036 Y89.708386 Z-0.125000
G01 X144.063802 Y89.607260 Z-0.125000
G01 X176.815701 Y78.022001 Z-0.125000
G00 Z3.000000

(End cutting path id: path10320)


(Start cutting path id: path10318)
(Change tool to Default tool)

G00 Z3.000000
G00 X26.990225 Y80.495098

G00 Z4.875000 (Fast pre-penetrate)
G01 Z-0.125000 F400.0(Penetrate)
G01 X35.471942 Y93.180022 Z-0.125000 F800.000000
G01 X60.830353 Y88.988249 Z-0.125000
G01 X90.836957 Y80.148285 Z-0.125000
G01 X101.915293 Y90.236589 Z-0.125000
G01 X123.216207 Y90.102318 Z-0.125000
G01 X144.320852 Y90.164313 Z-0.125000
G01 X176.360173 Y79.291629 Z-0.125000
G00 Z3.000000

(End cutting path id: path10318)


(Start cutting path id: path10322)
(Change tool to Default tool)

G00 Z3.000000
G00 X26.940875 Y78.916246

G00 Z4.875000 (Fast pre-penetrate)
G01 Z-0.125000 F400.0(Penetrate)
G01 X36.095845 Y90.927915 Z-0.125000 F800.000000
G01 X61.053039 Y87.137361 Z-0.125000
G01 X90.713825 Y78.643215 Z-0.125000
G01 X101.879958 Y88.643722 Z-0.125000
G01 X123.162742 Y88.527578 Z-0.125000
G01 X144.070853 Y88.786108 Z-0.125000
G01 X176.568617 Y77.454981 Z-0.125000
G00 Z3.000000

(End cutting path id: path10322)


(Start cutting path id: path10316)
(Change tool to Default tool)

G00 Z3.000000
G00 X26.877027 Y81.422398

G00 Z4.875000 (Fast pre-penetrate)
G01 Z-0.125000 F400.0(Penetrate)
G01 X35.438987 Y94.027076 Z-0.125000 F800.000000
G01 X60.789165 Y89.843538 Z-0.125000
G01 X90.710899 Y81.088446 Z-0.125000
G01 X101.794321 Y91.171665 Z-0.125000
G01 X123.636375 Y90.496251 Z-0.125000
G01 X144.577900 Y90.721363 Z-0.125000
G01 X175.904646 Y80.561257 Z-0.125000
G00 Z3.000000

(End cutting path id: path10316)


(Start cutting path id: path10324)
(Change tool to Default tool)

G00 Z3.000000
G00 X26.778327 Y78.264692

G00 Z4.875000 (Fast pre-penetrate)
G01 Z-0.125000 F400.0(Penetrate)
G01 X36.686793 Y89.522866 Z-0.125000 F800.000000
G01 X61.234538 Y86.141762 Z-0.125000
G01 X90.464633 Y78.078304 Z-0.125000
G01 X101.723648 Y87.985932 Z-0.125000
G01 X123.529446 Y87.346771 Z-0.125000
G01 X144.077904 Y87.964956 Z-0.125000
G01 X176.321536 Y76.887964 Z-0.125000
G00 Z3.000000

(End cutting path id: path10324)


(Start cutting path id: path10314)
(Change tool to Default tool)

G00 Z3.000000
G00 X26.763830 Y82.349698

G00 Z4.875000 (Fast pre-penetrate)
G01 Z-0.125000 F400.0(Penetrate)
G01 X35.406032 Y94.874134 Z-0.125000 F800.000000
G01 X60.747978 Y90.698829 Z-0.125000
G01 X90.584839 Y82.028608 Z-0.125000
G01 X101.673345 Y92.106741 Z-0.125000
G01 X124.056543 Y90.890183 Z-0.125000
G01 X144.834950 Y91.278416 Z-0.125000
G01 X175.449119 Y81.830887 Z-0.125000
G00 Z3.000000

(End cutting path id: path10314)


(Start cutting path id: path10312)
(Change tool to Default tool)

G00 Z3.000000
G00 X26.650632 Y83.276995

G00 Z4.875000 (Fast pre-penetrate)
G01 Z-0.125000 F400.0(Penetrate)
G01 X35.373077 Y95.721191 Z-0.125000 F800.000000
G01 X60.706790 Y91.554117 Z-0.125000
G01 X90.458781 Y82.968766 Z-0.125000
G01 X101.552370 Y93.041817 Z-0.125000
G01 X124.476712 Y91.284115 Z-0.125000
G01 X145.092000 Y91.835469 Z-0.125000
G01 X174.993592 Y83.100515 Z-0.125000
G00 Z3.000000

(End cutting path id: path10312)


(Start cutting path id: path10310)
(Change tool to Default tool)

G00 Z3.000000
G00 X26.537434 Y84.204295

G00 Z4.875000 (Fast pre-penetrate)
G01 Z-0.125000 F400.0(Penetrate)
G01 X35.340122 Y96.568248 Z-0.125000 F800.000000
G01 X60.665602 Y92.409408 Z-0.125000
G01 X90.332723 Y83.908928 Z-0.125000
G01 X101.431398 Y93.976893 Z-0.125000
G01 X124.896880 Y91.678050 Z-0.125000
G01 X145.349048 Y92.392520 Z-0.125000
G01 X174.538064 Y84.370143 Z-0.125000
G00 Z3.000000

(End cutting path id: path10310)


(Start cutting path id: path10326)
(Change tool to Default tool)

G00 Z3.000000
G00 X26.615779 Y77.613138

G00 Z4.875000 (Fast pre-penetrate)
G01 Z-0.125000 F400.0(Penetrate)
G01 X37.277741 Y88.117816 Z-0.125000 F800.000000
G01 X61.416034 Y85.146163 Z-0.125000
G01 X90.215444 Y77.513393 Z-0.125000
G01 X101.567338 Y87.328139 Z-0.125000
G01 X123.896151 Y86.165966 Z-0.125000
G01 X144.084955 Y87.143801 Z-0.125000
G01 X176.074453 Y76.320944 Z-0.125000
G00 Z3.000000

(End cutting path id: path10326)


(Start cutting path id: path10328)
(Change tool to Default tool)

G00 Z3.000000
G00 X26.453231 Y76.961584

G00 Z4.875000 (Fast pre-penetrate)
G01 Z-0.125000 F400.0(Penetrate)
G01 X37.868689 Y86.712767 Z-0.125000 F800.000000
G01 X61.597533 Y84.150563 Z-0.125000
G01 X89.966254 Y76.948482 Z-0.125000
G01 X101.411027 Y86.670349 Z-0.125000
G01 X124.262857 Y84.985159 Z-0.125000
G01 X144.092006 Y86.322650 Z-0.125000
G01 X175.827369 Y75.753927 Z-0.125000
G00 Z3.000000

(End cutting path id: path10328)


(Start cutting path id: path10330)
(Change tool to Default tool)

G00 Z3.000000
G00 X26.290683 Y76.310030

G00 Z4.875000 (Fast pre-penetrate)
G01 Z-0.125000 F400.0(Penetrate)
G01 X38.459638 Y85.307717 Z-0.125000 F800.000000
G01 X61.779029 Y83.154964 Z-0.125000
G01 X89.717062 Y76.383571 Z-0.125000
G01 X101.254717 Y86.012558 Z-0.125000
G01 X124.629561 Y83.804354 Z-0.125000
G01 X144.099055 Y85.501498 Z-0.125000
G01 X175.580286 Y75.186907 Z-0.125000
G00 Z3.000000

(End cutting path id: path10330)


(Start cutting path id: path10332)
(Change tool to Default tool)

G00 Z3.000000
G00 X26.128135 Y75.658478

G00 Z4.875000 (Fast pre-penetrate)
G01 Z-0.125000 F400.0(Penetrate)
G01 X39.050586 Y83.902668 Z-0.125000 F800.000000
G01 X61.960527 Y82.159365 Z-0.125000
G01 X89.467872 Y75.818659 Z-0.125000
G01 X101.098407 Y85.354765 Z-0.125000
G01 X124.996265 Y82.623546 Z-0.125000
G01 X144.106106 Y84.680346 Z-0.125000
G01 X175.333202 Y74.619889 Z-0.125000
G00 Z3.000000

(End cutting path id: path10332)


(Start cutting path id: path10308)
(Change tool to Default tool)

G00 Z3.000000
G00 X26.424237 Y85.131595

G00 Z4.875000 (Fast pre-penetrate)
G01 Z-0.125000 F400.0(Penetrate)
G01 X35.307167 Y97.415302 Z-0.125000 F800.000000
G01 X60.624415 Y93.264696 Z-0.125000
G01 X90.206662 Y84.849089 Z-0.125000
G01 X101.310422 Y94.911969 Z-0.125000
G01 X125.317049 Y92.071983 Z-0.125000
G01 X145.606098 Y92.949573 Z-0.125000
G01 X174.082537 Y85.639774 Z-0.125000
G00 Z3.000000

(End cutting path id: path10308)


(Start cutting path id: path10306)
(Change tool to Default tool)

G00 Z3.000000
G00 X26.311039 Y86.058892

G00 Z4.875000 (Fast pre-penetrate)
G01 Z-0.125000 F400.0(Penetrate)
G01 X35.274212 Y98.262360 Z-0.125000 F800.000000
G01 X60.583227 Y94.119987 Z-0.125000
G01 X90.080604 Y85.789248 Z-0.125000
G01 X101.189450 Y95.847042 Z-0.125000
G01 X125.737217 Y92.465915 Z-0.125000
G01 X145.863146 Y93.506626 Z-0.125000
G01 X173.627010 Y86.909402 Z-0.125000
G00 Z3.000000

(End cutting path id: path10306)


(Start cutting path id: path10304)
(Change tool to Default tool)

G00 Z3.000000
G00 X26.197841 Y86.986192

G00 Z4.875000 (Fast pre-penetrate)
G01 Z-0.125000 F400.0(Penetrate)
G01 X35.241257 Y99.109417 Z-0.125000 F800.000000
G01 X60.542037 Y94.975276 Z-0.125000
G01 X89.954544 Y86.729409 Z-0.125000
G01 X101.068474 Y96.782118 Z-0.125000
G01 X126.157385 Y92.859847 Z-0.125000
G01 X146.120196 Y94.063676 Z-0.125000
G01 X173.171483 Y88.179033 Z-0.125000
G00 Z3.000000

(End cutting path id: path10304)


(Start cutting path id: path10302)
(Change tool to Default tool)

G00 Z3.000000
G00 X26.084644 Y87.913492

G00 Z4.875000 (Fast pre-penetrate)
G01 Z-0.125000 F400.0(Penetrate)
G01 X35.208302 Y99.956474 Z-0.125000 F800.000000
G01 X60.500849 Y95.830564 Z-0.125000
G01 X89.828486 Y87.669570 Z-0.125000
G01 X100.947499 Y97.717194 Z-0.125000
G01 X126.577554 Y93.253782 Z-0.125000
G01 X146.377247 Y94.620729 Z-0.125000
G01 X172.715955 Y89.448661 Z-0.125000
G00 Z3.000000

(End cutting path id: path10302)


(Start cutting path id: path10300)
(Change tool to Default tool)

G00 Z3.000000
G00 X25.971446 Y88.840792

G00 Z4.875000 (Fast pre-penetrate)
G01 Z-0.125000 F400.0(Penetrate)
G01 X35.175347 Y100.803529 Z-0.125000 F800.000000
G01 X60.459662 Y96.685855 Z-0.125000
G01 X89.702428 Y88.609729 Z-0.125000
G01 X100.826526 Y98.652270 Z-0.125000
G01 X126.997722 Y93.647715 Z-0.125000
G01 X146.634294 Y95.177782 Z-0.125000
G01 X172.260428 Y90.718289 Z-0.125000
G00 Z3.000000

(End cutting path id: path10300)


(Start cutting path id: path10298)
(Change tool to Default tool)

G00 Z3.000000
G00 X25.858248 Y89.768089

G00 Z4.875000 (Fast pre-penetrate)
G01 Z-0.125000 F400.0(Penetrate)
G01 X35.142392 Y101.650586 Z-0.125000 F800.000000
G01 X60.418474 Y97.541143 Z-0.125000
G01 X89.576367 Y89.549890 Z-0.125000
G01 X100.705551 Y99.587346 Z-0.125000
G01 X127.417890 Y94.041647 Z-0.125000
G01 X146.891345 Y95.734835 Z-0.125000
G01 X171.804901 Y91.987919 Z-0.125000
G00 Z3.000000

(End cutting path id: path10298)


(Start cutting path id: path10296)
(Change tool to Default tool)

G00 Z3.000000
G00 X25.745051 Y90.695389

G00 Z4.875000 (Fast pre-penetrate)
G01 Z-0.125000 F400.0(Penetrate)
G01 X35.109437 Y102.497643 Z-0.125000 F800.000000
G01 X60.377286 Y98.396434 Z-0.125000
G01 X89.450309 Y90.490051 Z-0.125000
G01 X100.584578 Y100.522422 Z-0.125000
G01 X127.838059 Y94.435579 Z-0.125000
G01 X147.148392 Y96.291886 Z-0.125000
G01 X171.349374 Y93.257547 Z-0.125000
G00 Z3.000000

(End cutting path id: path10296)


(Start cutting path id: path10294)
(Change tool to Default tool)

G00 Z3.000000
G00 X25.631853 Y91.622689

G00 Z4.875000 (Fast pre-penetrate)
G01 Z-0.125000 F400.0(Penetrate)
G01 X35.076482 Y103.344700 Z-0.125000 F800.000000
G01 X60.336099 Y99.251723 Z-0.125000
G01 X89.324251 Y91.430210 Z-0.125000
G01 X100.463603 Y101.457498 Z-0.125000
G01 X128.258230 Y94.829512 Z-0.125000
G01 X147.405443 Y96.848939 Z-0.125000
G01 X170.893846 Y94.527175 Z-0.125000
G00 Z3.000000

(End cutting path id: path10294)


(Start cutting path id: path10292)
(Change tool to Default tool)

G00 Z3.000000
G00 X25.518656 Y92.549989

G00 Z4.875000 (Fast pre-penetrate)
G01 Z-0.125000 F400.0(Penetrate)
G01 X35.043527 Y104.191755 Z-0.125000 F800.000000
G01 X60.294911 Y100.107014 Z-0.125000
G01 X89.198191 Y92.370371 Z-0.125000
G01 X100.342628 Y102.392574 Z-0.125000
G01 X128.678398 Y95.223447 Z-0.125000
G01 X147.662493 Y97.405992 Z-0.125000
G01 X170.438319 Y95.796806 Z-0.125000
G00 Z3.000000

(End cutting path id: path10292)


(Start cutting path id: path10290)
(Change tool to Default tool)

G00 Z3.000000
G00 X25.405458 Y93.477286

G00 Z4.875000 (Fast pre-penetrate)
G01 Z-0.125000 F400.0(Penetrate)
G01 X35.010573 Y105.038812 Z-0.125000 F800.000000
G01 X60.253723 Y100.962302 Z-0.125000
G01 X89.072133 Y93.310533 Z-0.125000
G01 X100.221655 Y103.327650 Z-0.125000
G01 X129.098567 Y95.617379 Z-0.125000
G01 X147.919541 Y97.963042 Z-0.125000
G01 X169.982792 Y97.066434 Z-0.125000
G00 Z3.000000

(End cutting path id: path10290)


(Start cutting path id: path10288)
(Change tool to Default tool)

G00 Z3.000000
G00 X25.292260 Y94.404586

G00 Z4.875000 (Fast pre-penetrate)
G01 Z-0.125000 F400.0(Penetrate)
G01 X34.977617 Y105.885869 Z-0.125000 F800.000000
G01 X60.212533 Y101.817590 Z-0.125000
G01 X88.946075 Y94.250691 Z-0.125000
G01 X100.100680 Y104.262726 Z-0.125000
G01 X129.518735 Y96.011311 Z-0.125000
G01 X148.176591 Y98.520095 Z-0.125000
G01 X169.527264 Y98.336062 Z-0.125000
G00 Z3.000000

(End cutting path id: path10288)


(Start cutting path id: path10216)
(Change tool to Default tool)

G00 Z3.000000
G00 X27.210336 Y121.794165

G00 Z4.875000 (Fast pre-penetrate)
G01 Z-0.125000 F400.0(Penetrate)
G01 X44.098378 Y126.072763 Z-0.125000 F800.000000
G01 X60.955038 Y130.382744 Z-0.125000
G01 X84.510309 Y127.994112 Z-0.125000
G01 X109.896199 Y123.774863 Z-0.125000
G01 X133.699178 Y121.138523 Z-0.125000
G01 X154.997292 Y121.007049 Z-0.125000
G01 X169.516795 Y127.654187 Z-0.125000
G00 Z3.000000

(End cutting path id: path10216)


(Start cutting path id: path10218)
(Change tool to Default tool)

G00 Z3.000000
G00 X27.093027 Y121.097373

G00 Z4.875000 (Fast pre-penetrate)
G01 Z-0.125000 F400.0(Penetrate)
G01 X43.734905 Y125.622136 Z-0.125000 F800.000000
G01 X60.910638 Y129.613040 Z-0.125000
G01 X84.632433 Y127.057888 Z-0.125000
G01 X109.472919 Y123.384042 Z-0.125000
G01 X133.699996 Y120.323602 Z-0.125000
G01 X154.833822 Y120.356416 Z-0.125000
G01 X169.341996 Y127.014885 Z-0.125000
G00 Z3.000000

(End cutting path id: path10218)


(Start cutting path id: path10214)
(Change tool to Default tool)

G00 Z3.000000
G00 X27.009669 Y122.808934

G00 Z4.875000 (Fast pre-penetrate)
G01 Z-0.125000 F400.0(Penetrate)
G01 X44.133017 Y126.852225 Z-0.125000 F800.000000
G01 X61.233162 Y130.918720 Z-0.125000
G01 X84.456027 Y128.862497 Z-0.125000
G01 X109.661455 Y124.823707 Z-0.125000
G01 X133.219794 Y122.432009 Z-0.125000
G01 X154.908480 Y121.909965 Z-0.125000
G01 X169.397412 Y128.587672 Z-0.125000
G00 Z3.000000

(End cutting path id: path10214)


(Start cutting path id: path10220)
(Change tool to Default tool)

G00 Z3.000000
G00 X26.975717 Y120.400583

G00 Z4.875000 (Fast pre-penetrate)
G01 Z-0.125000 F400.0(Penetrate)
G01 X43.371431 Y125.171506 Z-0.125000 F800.000000
G01 X60.866238 Y128.843339 Z-0.125000
G01 X84.754554 Y126.121664 Z-0.125000
G01 X109.049639 Y122.993218 Z-0.125000
G01 X133.700813 Y119.508684 Z-0.125000
G01 X154.670355 Y119.705785 Z-0.125000
G01 X169.167193 Y126.375584 Z-0.125000
G00 Z3.000000

(End cutting path id: path10220)


(Start cutting path id: path10212)
(Change tool to Default tool)

G00 Z3.000000
G00 X26.809001 Y123.823702

G00 Z4.875000 (Fast pre-penetrate)
G01 Z-0.125000 F400.0(Penetrate)
G01 X44.167656 Y127.631689 Z-0.125000 F800.000000
G01 X61.511286 Y131.454699 Z-0.125000
G01 X84.401743 Y129.730883 Z-0.125000
G01 X109.426712 Y125.872553 Z-0.125000
G01 X132.740411 Y123.725494 Z-0.125000
G01 X154.819664 Y122.812881 Z-0.125000
G01 X169.278027 Y129.521156 Z-0.125000
G00 Z3.000000

(End cutting path id: path10212)


(Start cutting path id: path10210)
(Change tool to Default tool)

G00 Z3.000000
G00 X26.608334 Y124.838473

G00 Z4.875000 (Fast pre-penetrate)
G01 Z-0.125000 F400.0(Penetrate)
G01 X44.202295 Y128.411151 Z-0.125000 F800.000000
G01 X61.789408 Y131.990675 Z-0.125000
G01 X84.347458 Y130.599268 Z-0.125000
G01 X109.191969 Y126.921397 Z-0.125000
G01 X132.261027 Y125.018980 Z-0.125000
G01 X154.730849 Y123.715797 Z-0.125000
G01 X169.158645 Y130.454642 Z-0.125000
G00 Z3.000000

(End cutting path id: path10210)


(Start cutting path id: path10222)
(Change tool to Default tool)

G00 Z3.000000
G00 X26.858407 Y119.703790

G00 Z4.875000 (Fast pre-penetrate)
G01 Z-0.125000 F400.0(Penetrate)
G01 X43.007958 Y124.720879 Z-0.125000 F800.000000
G01 X60.821839 Y128.073638 Z-0.125000
G01 X84.876677 Y125.185439 Z-0.125000
G01 X108.626362 Y122.602398 Z-0.125000
G01 X133.701631 Y118.693766 Z-0.125000
G01 X154.506885 Y119.055152 Z-0.125000
G01 X168.992394 Y125.736283 Z-0.125000
G00 Z3.000000

(End cutting path id: path10222)


(Start cutting path id: path10224)
(Change tool to Default tool)

G00 Z3.000000
G00 X26.741098 Y119.006998

G00 Z4.875000 (Fast pre-penetrate)
G01 Z-0.125000 F400.0(Penetrate)
G01 X42.644484 Y124.270252 Z-0.125000 F800.000000
G01 X60.777442 Y127.303934 Z-0.125000
G01 X84.998798 Y124.249218 Z-0.125000
G01 X108.203082 Y122.211574 Z-0.125000
G01 X133.702448 Y117.878847 Z-0.125000
G01 X154.343415 Y118.404521 Z-0.125000
G01 X168.817595 Y125.096981 Z-0.125000
G00 Z3.000000

(End cutting path id: path10224)


(Start cutting path id: path10226)
(Change tool to Default tool)

G00 Z3.000000
G00 X26.623788 Y118.310205

G00 Z4.875000 (Fast pre-penetrate)
G01 Z-0.125000 F400.0(Penetrate)
G01 X42.281011 Y123.819622 Z-0.125000 F800.000000
G01 X60.733042 Y126.534233 Z-0.125000
G01 X85.120922 Y123.312993 Z-0.125000
G01 X107.779802 Y121.820751 Z-0.125000
G01 X133.703263 Y117.063929 Z-0.125000
G01 X154.179945 Y117.753888 Z-0.125000
G01 X168.642795 Y124.457680 Z-0.125000
G00 Z3.000000

(End cutting path id: path10226)


(Start cutting path id: path10208)
(Change tool to Default tool)

G00 Z3.000000
G00 X26.407666 Y125.853242

G00 Z4.875000 (Fast pre-penetrate)
G01 Z-0.125000 F400.0(Penetrate)
G01 X44.236934 Y129.190615 Z-0.125000 F800.000000
G01 X62.067533 Y132.526654 Z-0.125000
G01 X84.293174 Y131.467653 Z-0.125000
G01 X108.957225 Y127.970242 Z-0.125000
G01 X131.781642 Y126.312468 Z-0.125000
G01 X154.642034 Y124.618713 Z-0.125000
G01 X169.039260 Y131.388127 Z-0.125000
G00 Z3.000000

(End cutting path id: path10208)


(Start cutting path id: path10206)
(Change tool to Default tool)

G00 Z3.000000
G00 X26.206999 Y126.868010

G00 Z4.875000 (Fast pre-penetrate)
G01 Z-0.125000 F400.0(Penetrate)
G01 X44.271572 Y129.970076 Z-0.125000 F800.000000
G01 X62.345657 Y133.062631 Z-0.125000
G01 X84.238889 Y132.336038 Z-0.125000
G01 X108.722482 Y129.019086 Z-0.125000
G01 X131.302257 Y127.605953 Z-0.125000
G01 X154.553219 Y125.521629 Z-0.125000
G01 X168.919877 Y132.321613 Z-0.125000
G00 Z3.000000

(End cutting path id: path10206)


(Start cutting path id: path10112)
(Change tool to Default tool)

G00 Z3.000000
G00 X29.406075 Y161.931708

G00 Z4.875000 (Fast pre-penetrate)
G01 Z-0.125000 F400.0(Penetrate)
G01 X37.216071 Y175.288350 Z-0.125000 F800.000000
G01 X61.810649 Y171.860413 Z-0.125000
G01 X90.002878 Y164.834824 Z-0.125000
G01 X113.367755 Y162.636586 Z-0.125000
G01 X126.783447 Y170.387535 Z-0.125000
G01 X153.681934 Y164.655688 Z-0.125000
G01 X160.706700 Y178.797562 Z-0.125000
G00 Z3.000000

(End cutting path id: path10112)


(Start cutting path id: path10096)
(Change tool to Default tool)

G00 Z3.000000
G00 X28.872901 Y168.977693

G00 Z4.875000 (Fast pre-penetrate)
G01 Z-0.125000 F400.0(Penetrate)
G01 X40.613745 Y178.403489 Z-0.125000 F800.000000
G01 X64.291554 Y175.892321 Z-0.125000
G01 X86.228448 Y175.122065 Z-0.125000
G01 X111.587273 Y170.929879 Z-0.125000
G01 X126.590992 Y177.092803 Z-0.125000
G01 X151.699143 Y173.151292 Z-0.125000
G01 X164.489993 Y181.527079 Z-0.125000
G00 Z3.000000

(End cutting path id: path10096)


(Start cutting path id: path10090)
(Change tool to Default tool)

G00 Z3.000000
G00 X28.672962 Y171.619936

G00 Z4.875000 (Fast pre-penetrate)
G01 Z-0.125000 F400.0(Penetrate)
G01 X41.887873 Y179.571666 Z-0.125000 F800.000000
G01 X65.221891 Y177.404286 Z-0.125000
G01 X84.813037 Y178.979780 Z-0.125000
G01 X110.919593 Y174.039867 Z-0.125000
G01 X126.518822 Y179.607278 Z-0.125000
G01 X150.955596 Y176.337141 Z-0.125000
G01 X165.908729 Y182.550651 Z-0.125000
G00 Z3.000000

(End cutting path id: path10090)


(Start cutting path id: path10088)
(Change tool to Default tool)

G00 Z3.000000
G00 X28.606315 Y172.500685

G00 Z4.875000 (Fast pre-penetrate)
G01 Z-0.125000 F400.0(Penetrate)
G01 X42.312582 Y179.961058 Z-0.125000 F800.000000
G01 X65.532006 Y177.908275 Z-0.125000
G01 X84.341233 Y180.265685 Z-0.125000
G01 X110.697031 Y175.076527 Z-0.125000
G01 X126.494763 Y180.445435 Z-0.125000
G01 X150.707748 Y177.399093 Z-0.125000
G01 X166.381640 Y182.891838 Z-0.125000
G00 Z3.000000

(End cutting path id: path10088)


(Start cutting path id: path10086)
(Change tool to Default tool)

G00 Z3.000000
G00 X28.539668 Y173.381434

G00 Z4.875000 (Fast pre-penetrate)
G01 Z-0.125000 F400.0(Penetrate)
G01 X42.737291 Y180.350450 Z-0.125000 F800.000000
G01 X65.842119 Y178.412263 Z-0.125000
G01 X83.869431 Y181.551590 Z-0.125000
G01 X110.474471 Y176.113190 Z-0.125000
G01 X126.470707 Y181.283594 Z-0.125000
G01 X150.459897 Y178.461044 Z-0.125000
G01 X166.854553 Y183.233029 Z-0.125000
G00 Z3.000000

(End cutting path id: path10086)


(Start cutting path id: path10084)
(Change tool to Default tool)

G00 Z3.000000
G00 X28.473022 Y174.262181

G00 Z4.875000 (Fast pre-penetrate)
G01 Z-0.125000 F400.0(Penetrate)
G01 X43.162000 Y180.739842 Z-0.125000 F800.000000
G01 X66.152231 Y178.916251 Z-0.125000
G01 X83.397627 Y182.837496 Z-0.125000
G01 X110.251912 Y177.149853 Z-0.125000
G01 X126.446651 Y182.121754 Z-0.125000
G01 X150.212049 Y179.522993 Z-0.125000
G01 X167.327463 Y183.574219 Z-0.125000
G00 Z3.000000

(End cutting path id: path10084)


(Start cutting path id: path10082)
(Change tool to Default tool)

G00 Z3.000000
G00 X28.406375 Y175.142930

G00 Z4.875000 (Fast pre-penetrate)
G01 Z-0.125000 F400.0(Penetrate)
G01 X43.586709 Y181.129234 Z-0.125000 F800.000000
G01 X66.462343 Y179.420242 Z-0.125000
G01 X82.925822 Y184.123401 Z-0.125000
G01 X110.029350 Y178.186513 Z-0.125000
G01 X126.422593 Y182.959910 Z-0.125000
G01 X149.964201 Y180.584944 Z-0.125000
G01 X167.800376 Y183.915409 Z-0.125000
G00 Z3.000000

(End cutting path id: path10082)


(Start cutting path id: path10092)
(Change tool to Default tool)

G00 Z3.000000
G00 X28.739608 Y170.739189

G00 Z4.875000 (Fast pre-penetrate)
G01 Z-0.125000 F400.0(Penetrate)
G01 X41.463163 Y179.182274 Z-0.125000 F800.000000
G01 X64.911779 Y176.900298 Z-0.125000
G01 X85.284842 Y177.693875 Z-0.125000
G01 X111.142152 Y173.003205 Z-0.125000
G01 X126.542877 Y178.769119 Z-0.125000
G01 X151.203444 Y175.275192 Z-0.125000
G01 X165.435816 Y182.209460 Z-0.125000
G00 Z3.000000

(End cutting path id: path10092)


(Start cutting path id: path10094)
(Change tool to Default tool)

G00 Z3.000000
G00 X28.806255 Y169.858440

G00 Z4.875000 (Fast pre-penetrate)
G01 Z-0.125000 F400.0(Penetrate)
G01 X41.038454 Y178.792881 Z-0.125000 F800.000000
G01 X64.601666 Y176.396310 Z-0.125000
G01 X85.756646 Y176.407978 Z-0.125000
G01 X111.364714 Y171.966550 Z-0.125000
G01 X126.566933 Y177.930968 Z-0.125000
G01 X151.451293 Y174.213249 Z-0.125000
G01 X164.962906 Y181.868278 Z-0.125000
G00 Z3.000000

(End cutting path id: path10094)


(Start cutting path id: path10098)
(Change tool to Default tool)

G00 Z3.000000
G00 X28.939548 Y168.096944

G00 Z4.875000 (Fast pre-penetrate)
G01 Z-0.125000 F400.0(Penetrate)
G01 X40.189036 Y178.014097 Z-0.125000 F800.000000
G01 X63.981441 Y175.388333 Z-0.125000
G01 X86.700252 Y173.836160 Z-0.125000
G01 X111.809832 Y169.893219 Z-0.125000
G01 X126.615048 Y176.254644 Z-0.125000
G01 X151.946991 Y172.089340 Z-0.125000
G01 X164.017083 Y181.185889 Z-0.125000
G00 Z3.000000

(End cutting path id: path10098)


(Start cutting path id: path10100)
(Change tool to Default tool)

G00 Z3.000000
G00 X29.006195 Y167.216195

G00 Z4.875000 (Fast pre-penetrate)
G01 Z-0.125000 F400.0(Penetrate)
G01 X39.764327 Y177.624705 Z-0.125000 F800.000000
G01 X63.671326 Y174.884342 Z-0.125000
G01 X87.172057 Y172.550255 Z-0.125000
G01 X112.032394 Y168.856557 Z-0.125000
G01 X126.639106 Y175.416485 Z-0.125000
G01 X152.194840 Y171.027392 Z-0.125000
G01 X163.544170 Y180.844701 Z-0.125000
G00 Z3.000000

(End cutting path id: path10100)


(Start cutting path id: path10102)
(Change tool to Default tool)

G00 Z3.000000
G00 X29.072842 Y166.335449

G00 Z4.875000 (Fast pre-penetrate)
G01 Z-0.125000 F400.0(Penetrate)
G01 X39.339617 Y177.235313 Z-0.125000 F800.000000
G01 X63.361214 Y174.380354 Z-0.125000
G01 X87.643861 Y171.264349 Z-0.125000
G01 X112.254954 Y167.819894 Z-0.125000
G01 X126.663162 Y174.578328 Z-0.125000
G01 X152.442688 Y169.965440 Z-0.125000
G01 X163.071259 Y180.503511 Z-0.125000
G00 Z3.000000

(End cutting path id: path10102)


(Start cutting path id: path10104)
(Change tool to Default tool)

G00 Z3.000000
G00 X29.139488 Y165.454699

G00 Z4.875000 (Fast pre-penetrate)
G01 Z-0.125000 F400.0(Penetrate)
G01 X38.914908 Y176.845918 Z-0.125000 F800.000000
G01 X63.051101 Y173.876366 Z-0.125000
G01 X88.115663 Y169.978444 Z-0.125000
G01 X112.477516 Y166.783234 Z-0.125000
G01 X126.687218 Y173.740169 Z-0.125000
G01 X152.690539 Y168.903491 Z-0.125000
G01 X162.598346 Y180.162321 Z-0.125000
G00 Z3.000000

(End cutting path id: path10104)


(Start cutting path id: path10106)
(Change tool to Default tool)

G00 Z3.000000
G00 X29.206135 Y164.573950

G00 Z4.875000 (Fast pre-penetrate)
G01 Z-0.125000 F400.0(Penetrate)
G01 X38.490199 Y176.456526 Z-0.125000 F800.000000
G01 X62.740989 Y173.372377 Z-0.125000
G01 X88.587467 Y168.692539 Z-0.125000
G01 X112.700075 Y165.746571 Z-0.125000
G01 X126.711277 Y172.902010 Z-0.125000
G01 X152.938387 Y167.841540 Z-0.125000
G01 X162.125436 Y179.821130 Z-0.125000
G00 Z3.000000

(End cutting path id: path10106)


(Start cutting path id: path10108)
(Change tool to Default tool)

G00 Z3.000000
G00 X29.272781 Y163.693204

G00 Z4.875000 (Fast pre-penetrate)
G01 Z-0.125000 F400.0(Penetrate)
G01 X38.065490 Y176.067134 Z-0.125000 F800.000000
G01 X62.430876 Y172.868389 Z-0.125000
G01 X89.059272 Y167.406634 Z-0.125000
G01 X112.922637 Y164.709909 Z-0.125000
G01 X126.735332 Y172.063853 Z-0.125000
G01 X153.186235 Y166.779588 Z-0.125000
G01 X161.652523 Y179.479943 Z-0.125000
G00 Z3.000000

(End cutting path id: path10108)


(Start cutting path id: path10080)
(Change tool to Default tool)

G00 Z3.000000
G00 X28.339728 Y176.023679

G00 Z4.875000 (Fast pre-penetrate)
G01 Z-0.125000 F400.0(Penetrate)
G01 X44.011418 Y181.518629 Z-0.125000 F800.000000
G01 X66.772456 Y179.924230 Z-0.125000
G01 X82.454020 Y185.409306 Z-0.125000
G01 X109.806791 Y179.223175 Z-0.125000
G01 X126.398537 Y183.798069 Z-0.125000
G01 X149.716353 Y181.646893 Z-0.125000
G01 X168.273287 Y184.256597 Z-0.125000
G00 Z3.000000

(End cutting path id: path10080)


(Start cutting path id: path10078)
(Change tool to Default tool)

G00 Z3.000000
G00 X28.273082 Y176.904426

G00 Z4.875000 (Fast pre-penetrate)
G01 Z-0.125000 F400.0(Penetrate)
G01 X44.436128 Y181.908021 Z-0.125000 F800.000000
G01 X67.082568 Y180.428219 Z-0.125000
G01 X81.982216 Y186.695211 Z-0.125000
G01 X109.584229 Y180.259838 Z-0.125000
G01 X126.374478 Y184.636229 Z-0.125000
G01 X149.468502 Y182.708845 Z-0.125000
G01 X168.746200 Y184.597787 Z-0.125000
G00 Z3.000000

(End cutting path id: path10078)


(Start cutting path id: path10076)
(Change tool to Default tool)

G00 Z3.000000
G00 X28.206435 Y177.785175

G00 Z4.875000 (Fast pre-penetrate)
G01 Z-0.125000 F400.0(Penetrate)
G01 X44.860837 Y182.297413 Z-0.125000 F800.000000
G01 X67.392683 Y180.932207 Z-0.125000
G01 X81.510412 Y187.981116 Z-0.125000
G01 X109.361670 Y181.296498 Z-0.125000
G01 X126.350422 Y185.474388 Z-0.125000
G01 X149.220654 Y183.770794 Z-0.125000
G01 X169.219113 Y184.938978 Z-0.125000
G00 Z3.000000

(End cutting path id: path10076)


(Start cutting path id: path10074)
(Change tool to Default tool)

G00 Z3.000000
G00 X28.139789 Y178.665921

G00 Z4.875000 (Fast pre-penetrate)
G01 Z-0.125000 F400.0(Penetrate)
G01 X45.285546 Y182.686805 Z-0.125000 F800.000000
G01 X67.702796 Y181.436195 Z-0.125000
G01 X81.038607 Y189.267024 Z-0.125000
G01 X109.139110 Y182.333161 Z-0.125000
G01 X126.326367 Y186.312545 Z-0.125000
G01 X148.972806 Y184.832745 Z-0.125000
G01 X169.692023 Y185.280168 Z-0.125000
G00 Z3.000000

(End cutting path id: path10074)


(Start cutting path id: path10072)
(Change tool to Default tool)

G00 Z3.000000
G00 X28.073142 Y179.546670

G00 Z4.875000 (Fast pre-penetrate)
G01 Z-0.125000 F400.0(Penetrate)
G01 X45.710255 Y183.076197 Z-0.125000 F800.000000
G01 X68.012908 Y181.940184 Z-0.125000
G01 X80.566805 Y190.552929 Z-0.125000
G01 X108.916549 Y183.369823 Z-0.125000
G01 X126.302308 Y187.150704 Z-0.125000
G01 X148.724958 Y185.894694 Z-0.125000
G01 X170.164936 Y185.621359 Z-0.125000
G00 Z3.000000

(End cutting path id: path10072)


(Start cutting path id: path10070)
(Change tool to Default tool)

G00 Z3.000000
G00 X28.006495 Y180.427420

G00 Z4.875000 (Fast pre-penetrate)
G01 Z-0.125000 F400.0(Penetrate)
G01 X46.134964 Y183.465589 Z-0.125000 F800.000000
G01 X68.323021 Y182.444172 Z-0.125000
G01 X80.095001 Y191.838834 Z-0.125000
G01 X108.693989 Y184.406486 Z-0.125000
G01 X126.278252 Y187.988863 Z-0.125000
G01 X148.477107 Y186.956645 Z-0.125000
G01 X170.637846 Y185.962546 Z-0.125000
G00 Z3.000000

(End cutting path id: path10070)


(Start cutting path id: path10068)
(Change tool to Default tool)

G00 Z3.000000
G00 X27.939848 Y181.308166

G00 Z4.875000 (Fast pre-penetrate)
G01 Z-0.125000 F400.0(Penetrate)
G01 X46.559675 Y183.854981 Z-0.125000 F800.000000
G01 X68.633133 Y182.948160 Z-0.125000
G01 X79.623197 Y193.124739 Z-0.125000
G01 X108.471427 Y185.443146 Z-0.125000
G01 X126.254196 Y188.827020 Z-0.125000
G01 X148.229259 Y188.018597 Z-0.125000
G01 X171.110759 Y186.303737 Z-0.125000
G00 Z3.000000

(End cutting path id: path10068)


(Start cutting path id: path10066)
(Change tool to Default tool)

G00 Z3.000000
G00 X27.873202 Y182.188915

G00 Z4.875000 (Fast pre-penetrate)
G01 Z-0.125000 F400.0(Penetrate)
G01 X46.984383 Y184.244373 Z-0.125000 F800.000000
G01 X68.943248 Y183.452151 Z-0.125000
G01 X79.151392 Y194.410644 Z-0.125000
G01 X108.248868 Y186.479809 Z-0.125000
G01 X126.230138 Y189.665179 Z-0.125000
G01 X147.981411 Y189.080546 Z-0.125000
G01 X171.583670 Y186.644927 Z-0.125000
G00 Z3.000000

(End cutting path id: path10066)


(Start cutting path id: path10064)
(Change tool to Default tool)

G00 Z3.000000
G00 X27.806555 Y183.069662

G00 Z4.875000 (Fast pre-penetrate)
G01 Z-0.125000 F400.0(Penetrate)
G01 X47.409092 Y184.633765 Z-0.125000 F800.000000
G01 X69.253361 Y183.956139 Z-0.125000
G01 X78.679591 Y195.696550 Z-0.125000
G01 X108.026309 Y187.516471 Z-0.125000
G01 X126.206082 Y190.503338 Z-0.125000
G01 X147.733563 Y190.142497 Z-0.125000
G01 X172.056583 Y186.986117 Z-0.125000
G00 Z3.000000

(End cutting path id: path10064)


(Start cutting path id: path10062)
(Change tool to Default tool)

G00 Z3.000000
G00 X27.739909 Y183.950411

G00 Z4.875000 (Fast pre-penetrate)
G01 Z-0.125000 F400.0(Penetrate)
G01 X47.833801 Y185.023158 Z-0.125000 F800.000000
G01 X69.563473 Y184.460128 Z-0.125000
G01 X78.207786 Y196.982455 Z-0.125000
G01 X107.803747 Y188.553131 Z-0.125000
G01 X126.182023 Y191.341495 Z-0.125000
G01 X147.485715 Y191.204446 Z-0.125000
G01 X172.529493 Y187.327305 Z-0.125000
G00 Z3.000000

(End cutting path id: path10062)


(Start cutting path id: path10060)
(Change tool to Default tool)

G00 Z3.000000
G00 X27.673262 Y184.831160

G00 Z4.875000 (Fast pre-penetrate)
G01 Z-0.125000 F400.0(Penetrate)
G01 X48.258509 Y185.412552 Z-0.125000 F800.000000
G01 X69.873586 Y184.964116 Z-0.125000
G01 X77.735982 Y198.268360 Z-0.125000
G01 X107.581188 Y189.589794 Z-0.125000
G01 X126.157967 Y192.179654 Z-0.125000
G01 X147.237864 Y192.266398 Z-0.125000
G01 X173.002406 Y187.668495 Z-0.125000
G00 Z3.000000

(End cutting path id: path10060)


(Start cutting path id: path10058)
(Change tool to Default tool)

G00 Z3.000000
G00 X27.576018 Y185.742506

G00 Z4.875000 (Fast pre-penetrate)
G01 Z-0.125000 F400.0(Penetrate)
G01 X48.023657 Y186.461505 Z-0.125000 F800.000000
G01 X69.591911 Y186.059892 Z-0.125000
G01 X78.035529 Y198.782913 Z-0.125000
G01 X107.378924 Y190.606158 Z-0.125000
G01 X126.009184 Y193.142538 Z-0.125000
G01 X147.175809 Y193.142554 Z-0.125000
G01 X172.514624 Y188.970379 Z-0.125000
G00 Z3.000000

(End cutting path id: path10058)


(Start cutting path id: path10056)
(Change tool to Default tool)

G00 Z3.000000
G00 X27.478773 Y186.653851

G00 Z4.875000 (Fast pre-penetrate)
G01 Z-0.125000 F400.0(Penetrate)
G01 X47.788806 Y187.510457 Z-0.125000 F800.000000
G01 X69.310236 Y187.155670 Z-0.125000
G01 X78.335077 Y199.297466 Z-0.125000
G01 X107.176664 Y191.622522 Z-0.125000
G01 X125.860401 Y194.105424 Z-0.125000
G01 X147.113753 Y194.018712 Z-0.125000
G01 X172.026844 Y190.272262 Z-0.125000
G00 Z3.000000

(End cutting path id: path10056)


(Start cutting path id: path10054)
(Change tool to Default tool)

G00 Z3.000000
G00 X27.381529 Y187.565197

G00 Z4.875000 (Fast pre-penetrate)
G01 Z-0.125000 F400.0(Penetrate)
G01 X47.553954 Y188.559410 Z-0.125000 F800.000000
G01 X69.028558 Y188.251448 Z-0.125000
G01 X78.634627 Y199.812019 Z-0.125000
G01 X106.974401 Y192.638886 Z-0.125000
G01 X125.711616 Y195.068308 Z-0.125000
G01 X147.051695 Y194.894868 Z-0.125000
G01 X171.539061 Y191.574143 Z-0.125000
G00 Z3.000000

(End cutting path id: path10054)


(Start cutting path id: path10052)
(Change tool to Default tool)

G00 Z3.000000
G00 X27.284285 Y188.476542

G00 Z4.875000 (Fast pre-penetrate)
G01 Z-0.125000 F400.0(Penetrate)
G01 X47.319102 Y189.608365 Z-0.125000 F800.000000
G01 X68.746883 Y189.347224 Z-0.125000
G01 X78.934175 Y200.326575 Z-0.125000
G01 X106.772138 Y193.655249 Z-0.125000
G01 X125.562833 Y196.031194 Z-0.125000
G01 X146.989640 Y195.771027 Z-0.125000
G01 X171.051281 Y192.876026 Z-0.125000
G00 Z3.000000

(End cutting path id: path10052)


(Start cutting path id: path10050)
(Change tool to Default tool)

G00 Z3.000000
G00 X27.187040 Y189.387888

G00 Z4.875000 (Fast pre-penetrate)
G01 Z-0.125000 F400.0(Penetrate)
G01 X47.084250 Y190.657318 Z-0.125000 F800.000000
G01 X68.465208 Y190.443003 Z-0.125000
G01 X79.233723 Y200.841128 Z-0.125000
G01 X106.569877 Y194.671613 Z-0.125000
G01 X125.414050 Y196.994078 Z-0.125000
G01 X146.927585 Y196.647186 Z-0.125000
G01 X170.563501 Y194.177909 Z-0.125000
G00 Z3.000000

(End cutting path id: path10050)


(Start cutting path id: path10048)
(Change tool to Default tool)

G00 Z3.000000
G00 X27.089796 Y190.299236

G00 Z4.875000 (Fast pre-penetrate)
G01 Z-0.125000 F400.0(Penetrate)
G01 X46.849398 Y191.706270 Z-0.125000 F800.000000
G01 X68.183530 Y191.538779 Z-0.125000
G01 X79.533270 Y201.355681 Z-0.125000
G01 X106.367614 Y195.687977 Z-0.125000
G01 X125.265267 Y197.956964 Z-0.125000
G01 X146.865529 Y197.523342 Z-0.125000
G01 X170.075719 Y195.479793 Z-0.125000
G00 Z3.000000

(End cutting path id: path10048)


(Start cutting path id: path10046)
(Change tool to Default tool)

G00 Z3.000000
G00 X26.992551 Y191.210582

G00 Z4.875000 (Fast pre-penetrate)
G01 Z-0.125000 F400.0(Penetrate)
G01 X46.614547 Y192.755225 Z-0.125000 F800.000000
G01 X67.901855 Y192.634557 Z-0.125000
G01 X79.832818 Y201.870234 Z-0.125000
G01 X106.165354 Y196.704338 Z-0.125000
G01 X125.116484 Y198.919848 Z-0.125000
G01 X146.803472 Y198.399500 Z-0.125000
G01 X169.587939 Y196.781673 Z-0.125000
G00 Z3.000000

(End cutting path id: path10046)


(Start cutting path id: path10044)
(Change tool to Default tool)

G00 Z3.000000
G00 X26.895307 Y192.121927

G00 Z4.875000 (Fast pre-penetrate)
G01 Z-0.125000 F400.0(Penetrate)
G01 X46.379696 Y193.804178 Z-0.125000 F800.000000
G01 X67.620180 Y193.730335 Z-0.125000
G01 X80.132365 Y202.384787 Z-0.125000
G01 X105.963090 Y197.720702 Z-0.125000
G01 X124.967701 Y199.882734 Z-0.125000
G01 X146.741416 Y199.275656 Z-0.125000
G01 X169.100156 Y198.083557 Z-0.125000
G00 Z3.000000

(End cutting path id: path10044)


(Start cutting path id: path10042)
(Change tool to Default tool)

G00 Z3.000000
G00 X26.798062 Y193.033273

G00 Z4.875000 (Fast pre-penetrate)
G01 Z-0.125000 F400.0(Penetrate)
G01 X46.144844 Y194.853130 Z-0.125000 F800.000000
G01 X67.338505 Y194.826111 Z-0.125000
G01 X80.431913 Y202.899340 Z-0.125000
G01 X105.760827 Y198.737066 Z-0.125000
G01 X124.818918 Y200.845618 Z-0.125000
G01 X146.679361 Y200.151815 Z-0.125000
G01 X168.612376 Y199.385440 Z-0.125000
G00 Z3.000000

(End cutting path id: path10042)


(Start cutting path id: path10040)
(Change tool to Default tool)

G00 Z3.000000
G00 X26.700818 Y193.944618

G00 Z4.875000 (Fast pre-penetrate)
G01 Z-0.125000 F400.0(Penetrate)
G01 X45.909992 Y195.902086 Z-0.125000 F800.000000
G01 X67.056827 Y195.921876 Z-0.125000
G01 X80.731461 Y203.413883 Z-0.125000
G01 X105.558567 Y199.753417 Z-0.125000
G01 X124.670133 Y201.808491 Z-0.125000
G01 X146.617306 Y201.027958 Z-0.125000
G01 X168.124594 Y200.687310 Z-0.125000
G00 Z3.000000

(End cutting path id: path10040)


(Start cutting path id: path10038)
(Change tool to Default tool)

G00 Z3.000000
G00 X26.603574 Y194.855964

G00 Z4.875000 (Fast pre-penetrate)
G01 Z-0.125000 F400.0(Penetrate)
G01 X45.675141 Y196.951038 Z-0.125000 F800.000000
G01 X66.775152 Y197.017665 Z-0.125000
G01 X81.031011 Y203.928449 Z-0.125000
G01 X105.356304 Y200.769794 Z-0.125000
G01 X124.521350 Y202.771388 Z-0.125000
G01 X146.555248 Y201.904130 Z-0.125000
G01 X167.636814 Y201.989204 Z-0.125000
G00 Z3.000000

(End cutting path id: path10038)


(Start cutting path id: path10036)
(Change tool to Default tool)

G00 Z3.000000
G00 X26.506329 Y195.767310

G00 Z4.875000 (Fast pre-penetrate)
G01 Z-0.125000 F400.0(Penetrate)
G01 X45.440289 Y197.999991 Z-0.125000 F800.000000
G01 X66.493477 Y198.113444 Z-0.125000
G01 X81.330559 Y204.443002 Z-0.125000
G01 X105.154043 Y201.786157 Z-0.125000
G01 X124.372567 Y203.734274 Z-0.125000
G01 X146.493192 Y202.780286 Z-0.125000
G01 X167.149034 Y203.291087 Z-0.125000
G00 Z3.000000

(End cutting path id: path10036)


(Start cutting path id: path10034)
(Change tool to Default tool)

G00 Z3.000000
G00 X26.409085 Y196.678655

G00 Z4.875000 (Fast pre-penetrate)
G01 Z-0.125000 F400.0(Penetrate)
G01 X45.205437 Y199.048943 Z-0.125000 F800.000000
G01 X66.211799 Y199.209222 Z-0.125000
G01 X81.630106 Y204.957555 Z-0.125000
G01 X104.951780 Y202.802521 Z-0.125000
G01 X124.223784 Y204.697158 Z-0.125000
G01 X146.431137 Y203.656444 Z-0.125000
G01 X166.661251 Y204.592970 Z-0.125000
G00 Z3.000000

(End cutting path id: path10034)


(Start cutting path id: path10032)
(Change tool to Default tool)

G00 Z3.000000
G00 X26.311841 Y197.590003

G00 Z4.875000 (Fast pre-penetrate)
G01 Z-0.125000 F400.0(Penetrate)
G01 X44.970585 Y200.097898 Z-0.125000 F800.000000
G01 X65.930124 Y200.304998 Z-0.125000
G01 X81.929654 Y205.472108 Z-0.125000
G01 X104.749520 Y203.818885 Z-0.125000
G01 X124.075001 Y205.660044 Z-0.125000
G01 X146.369082 Y204.532603 Z-0.125000
G01 X166.173471 Y205.894854 Z-0.125000
G00 Z3.000000

(End cutting path id: path10032)


(Start cutting path id: path10030)
(Change tool to Default tool)

G00 Z3.000000
G00 X26.214596 Y198.501349

G00 Z4.875000 (Fast pre-penetrate)
G01 Z-0.125000 F400.0(Penetrate)
G01 X44.735733 Y201.146851 Z-0.125000 F800.000000
G01 X65.648449 Y201.400776 Z-0.125000
G01 X82.229202 Y205.986661 Z-0.125000
G01 X104.547257 Y204.835249 Z-0.125000
G01 X123.926218 Y206.622928 Z-0.125000
G01 X146.307024 Y205.408759 Z-0.125000
G01 X165.685689 Y207.196734 Z-0.125000
G00 Z3.000000

(End cutting path id: path10030)


(Start cutting path id: path10028)
(Change tool to Default tool)

G00 Z3.000000
G00 X26.117352 Y199.412694

G00 Z4.875000 (Fast pre-penetrate)
G01 Z-0.125000 F400.0(Penetrate)
G01 X44.500882 Y202.195803 Z-0.125000 F800.000000
G01 X65.366774 Y202.496552 Z-0.125000
G01 X82.528749 Y206.501217 Z-0.125000
G01 X104.344993 Y205.851613 Z-0.125000
G01 X123.777432 Y207.585814 Z-0.125000
G01 X146.244969 Y206.284918 Z-0.125000
G01 X165.197909 Y208.498618 Z-0.125000
G00 Z3.000000

(End cutting path id: path10028)


(Start cutting path id: path10026)
(Change tool to Default tool)

G00 Z3.000000
G00 X26.020108 Y200.324040

G00 Z4.875000 (Fast pre-penetrate)
G01 Z-0.125000 F400.0(Penetrate)
G01 X44.266030 Y203.244759 Z-0.125000 F800.000000
G01 X65.085096 Y203.592331 Z-0.125000
G01 X82.828297 Y207.015770 Z-0.125000
G01 X104.142733 Y206.867974 Z-0.125000
G01 X123.628649 Y208.548698 Z-0.125000
G01 X146.182913 Y207.161074 Z-0.125000
G01 X164.710126 Y209.800501 Z-0.125000
G00 Z3.000000

(End cutting path id: path10026)


(Start cutting path id: path10024)
(Change tool to Default tool)

G00 Z3.000000
G00 X25.922863 Y201.235386

G00 Z4.875000 (Fast pre-penetrate)
G01 Z-0.125000 F400.0(Penetrate)
G01 X44.031178 Y204.293711 Z-0.125000 F800.000000
G01 X64.803421 Y204.688106 Z-0.125000
G01 X83.127847 Y207.530323 Z-0.125000
G01 X103.940470 Y207.884338 Z-0.125000
G01 X123.479866 Y209.511584 Z-0.125000
G01 X146.120858 Y208.037232 Z-0.125000
G01 X164.222346 Y211.102384 Z-0.125000
G00 Z3.000000

(End cutting path id: path10024)


(Start cutting path id: path10022)
(Change tool to Default tool)

G00 Z3.000000
G00 X25.825619 Y202.146731

G00 Z4.875000 (Fast pre-penetrate)
G01 Z-0.125000 F400.0(Penetrate)
G01 X43.796326 Y205.342664 Z-0.125000 F800.000000
G01 X64.521746 Y205.783885 Z-0.125000
G01 X83.427395 Y208.044876 Z-0.125000
G01 X103.738209 Y208.900702 Z-0.125000
G01 X123.331083 Y210.474468 Z-0.125000
G01 X146.058800 Y208.913388 Z-0.125000
G01 X163.734566 Y212.404265 Z-0.125000
G00 Z3.000000

(End cutting path id: path10022)


(Start cutting path id: path10020)
(Change tool to Default tool)

G00 Z3.000000
G00 X25.728374 Y203.058077

G00 Z4.875000 (Fast pre-penetrate)
G01 Z-0.125000 F400.0(Penetrate)
G01 X43.561474 Y206.391619 Z-0.125000 F800.000000
G01 X64.240069 Y206.879663 Z-0.125000
G01 X83.726943 Y208.559429 Z-0.125000
G01 X103.535946 Y209.917066 Z-0.125000
G01 X123.182300 Y211.437352 Z-0.125000
G01 X145.996745 Y209.789547 Z-0.125000
G01 X163.246784 Y213.706148 Z-0.125000
G00 Z3.000000

(End cutting path id: path10020)


(Start cutting path id: path10018)
(Change tool to Default tool)

G00 Z3.000000
G00 X25.631130 Y203.969425

G00 Z4.875000 (Fast pre-penetrate)
G01 Z-0.125000 F400.0(Penetrate)
G01 X43.326623 Y207.440571 Z-0.125000 F800.000000
G01 X63.958393 Y207.975439 Z-0.125000
G01 X84.026490 Y209.073985 Z-0.125000
G01 X103.333683 Y210.933429 Z-0.125000
G01 X123.033517 Y212.400238 Z-0.125000
G01 X145.934689 Y210.665703 Z-0.125000
G01 X162.759004 Y215.008031 Z-0.125000
G00 Z3.000000

(End cutting path id: path10018)


(Start cutting path id: path10016)
(Change tool to Default tool)

G00 Z3.000000
G00 X25.533886 Y204.880771

G00 Z4.875000 (Fast pre-penetrate)
G01 Z-0.125000 F400.0(Penetrate)
G01 X43.091771 Y208.489524 Z-0.125000 F800.000000
G01 X63.676718 Y209.071218 Z-0.125000
G01 X84.326038 Y209.588538 Z-0.125000
G01 X103.131423 Y211.949793 Z-0.125000
G01 X122.884732 Y213.363122 Z-0.125000
G01 X145.872634 Y211.541862 Z-0.125000
G01 X162.271221 Y216.309915 Z-0.125000
G00 Z3.000000

(End cutting path id: path10016)


(Start cutting path id: path10014)
(Change tool to Default tool)

G00 Z3.000000
G00 X25.436641 Y205.792116

G00 Z4.875000 (Fast pre-penetrate)
G01 Z-0.125000 F400.0(Penetrate)
G01 X42.856919 Y209.538479 Z-0.125000 F800.000000
G01 X63.395043 Y210.166993 Z-0.125000
G01 X84.625585 Y210.103091 Z-0.125000
G01 X102.929160 Y212.966157 Z-0.125000
G01 X122.735949 Y214.326008 Z-0.125000
G01 X145.810576 Y212.418021 Z-0.125000
G01 X161.783441 Y217.611795 Z-0.125000
G00 Z3.000000

(End cutting path id: path10014)


(Start cutting path id: path10012)
(Change tool to Default tool)

G00 Z3.000000
G00 X25.339397 Y206.703462

G00 Z4.875000 (Fast pre-penetrate)
G01 Z-0.125000 F400.0(Penetrate)
G01 X42.622067 Y210.587432 Z-0.125000 F800.000000
G01 X63.113366 Y211.262772 Z-0.125000
G01 X84.925133 Y210.617644 Z-0.125000
G01 X102.726899 Y213.982521 Z-0.125000
G01 X122.587166 Y215.288892 Z-0.125000
G01 X145.748521 Y213.294177 Z-0.125000
G01 X161.295659 Y218.913679 Z-0.125000
G00 Z3.000000

(End cutting path id: path10012)


(Start cutting path id: path10010)
(Change tool to Default tool)

G00 Z3.000000
G00 X25.242153 Y207.614807

G00 Z4.875000 (Fast pre-penetrate)
G01 Z-0.125000 F400.0(Penetrate)
G01 X42.387215 Y211.636384 Z-0.125000 F800.000000
G01 X62.831691 Y212.358550 Z-0.125000
G01 X85.224681 Y211.132197 Z-0.125000
G01 X102.524636 Y214.998885 Z-0.125000
G01 X122.438383 Y216.251778 Z-0.125000
G01 X145.686466 Y214.170335 Z-0.125000
G01 X160.807879 Y220.215562 Z-0.125000
G00 Z3.000000

(End cutting path id: path10010)


(Start cutting path id: path10008)
(Change tool to Default tool)

G00 Z3.000000
G00 X25.144908 Y208.526153

G00 Z4.875000 (Fast pre-penetrate)
G01 Z-0.125000 F400.0(Penetrate)
G01 X42.152364 Y212.685337 Z-0.125000 F800.000000
G01 X62.550016 Y213.454326 Z-0.125000
G01 X85.524231 Y211.646750 Z-0.125000
G01 X102.322373 Y216.015249 Z-0.125000
G01 X122.289600 Y217.214662 Z-0.125000
G01 X145.624410 Y215.046491 Z-0.125000
G01 X160.320096 Y221.517444 Z-0.125000
G00 Z3.000000

(End cutting path id: path10008)


(Start cutting path id: path10110)
(Change tool to Default tool)

G00 Z3.000000
G00 X29.339428 Y162.812455

G00 Z4.875000 (Fast pre-penetrate)
G01 Z-0.125000 F400.0(Penetrate)
G01 X37.640781 Y175.677742 Z-0.125000 F800.000000
G01 X62.120761 Y172.364401 Z-0.125000
G01 X89.531076 Y166.120729 Z-0.125000
G01 X113.145196 Y163.673246 Z-0.125000
G01 X126.759388 Y171.225694 Z-0.125000
G01 X153.434083 Y165.717639 Z-0.125000
G01 X161.179613 Y179.138752 Z-0.125000
G00 Z3.000000

(End cutting path id: path10110)


(Start cutting path id: path10114)
(Change tool to Default tool)

G00 Z3.000000
G00 X29.120956 Y161.402725

G00 Z4.875000 (Fast pre-penetrate)
G01 Z-0.125000 F400.0(Penetrate)
G01 X37.515414 Y174.174905 Z-0.125000 F800.000000
G01 X62.055864 Y170.801094 Z-0.125000
G01 X89.737342 Y164.286259 Z-0.125000
G01 X112.999493 Y162.190748 Z-0.125000
G01 X126.570053 Y169.786828 Z-0.125000
G01 X153.643709 Y163.879811 Z-0.125000
G01 X160.926166 Y177.763995 Z-0.125000
G00 Z3.000000

(End cutting path id: path10114)


(Start cutting path id: path10116)
(Change tool to Default tool)

G00 Z3.000000
G00 X28.835837 Y160.873741

G00 Z4.875000 (Fast pre-penetrate)
G01 Z-0.125000 F400.0(Penetrate)
G01 X37.814757 Y173.061461 Z-0.125000 F800.000000
G01 X62.301080 Y169.741777 Z-0.125000
G01 X89.471804 Y163.737693 Z-0.125000
G01 X112.631228 Y161.744912 Z-0.125000
G01 X126.356656 Y169.186121 Z-0.125000
G01 X153.605485 Y163.103932 Z-0.125000
G01 X161.145632 Y176.730425 Z-0.125000
G00 Z3.000000

(End cutting path id: path10116)


(Start cutting path id: path10118)
(Change tool to Default tool)

G00 Z3.000000
G00 X28.550718 Y160.344760

G00 Z4.875000 (Fast pre-penetrate)
G01 Z-0.125000 F400.0(Penetrate)
G01 X38.114100 Y171.948016 Z-0.125000 F800.000000
G01 X62.546295 Y168.682461 Z-0.125000
G01 X89.206269 Y163.189128 Z-0.125000
G01 X112.262963 Y161.299074 Z-0.125000
G01 X126.143262 Y168.585415 Z-0.125000
G01 X153.567261 Y162.328056 Z-0.125000
G01 X161.365099 Y175.696858 Z-0.125000
G00 Z3.000000

(End cutting path id: path10118)


(Start cutting path id: path10120)
(Change tool to Default tool)

G00 Z3.000000
G00 X28.265599 Y159.815777

G00 Z4.875000 (Fast pre-penetrate)
G01 Z-0.125000 F400.0(Penetrate)
G01 X38.413443 Y170.834571 Z-0.125000 F800.000000
G01 X62.791514 Y167.623142 Z-0.125000
G01 X88.940730 Y162.640563 Z-0.125000
G01 X111.894697 Y160.853239 Z-0.125000
G01 X125.929868 Y167.984708 Z-0.125000
G01 X153.529036 Y161.552180 Z-0.125000
G01 X161.584565 Y174.663291 Z-0.125000
G00 Z3.000000

(End cutting path id: path10120)


(Start cutting path id: path10122)
(Change tool to Default tool)

G00 Z3.000000
G00 X27.980480 Y159.286793

G00 Z4.875000 (Fast pre-penetrate)
G01 Z-0.125000 F400.0(Penetrate)
G01 X38.712786 Y169.721127 Z-0.125000 F800.000000
G01 X63.036729 Y166.563826 Z-0.125000
G01 X88.675195 Y162.091998 Z-0.125000
G01 X111.526432 Y160.407400 Z-0.125000
G01 X125.716471 Y167.384002 Z-0.125000
G01 X153.490812 Y160.776300 Z-0.125000
G01 X161.804031 Y173.629724 Z-0.125000
G00 Z3.000000

(End cutting path id: path10122)


(Start cutting path id: path10124)
(Change tool to Default tool)

G00 Z3.000000
G00 X27.695361 Y158.757813

G00 Z4.875000 (Fast pre-penetrate)
G01 Z-0.125000 F400.0(Penetrate)
G01 X39.012129 Y168.607682 Z-0.125000 F800.000000
G01 X63.281945 Y165.504510 Z-0.125000
G01 X88.409659 Y161.543435 Z-0.125000
G01 X111.158170 Y159.961562 Z-0.125000
G01 X125.503077 Y166.783295 Z-0.125000
G01 X153.452588 Y160.000424 Z-0.125000
G01 X162.023497 Y172.596154 Z-0.125000
G00 Z3.000000

(End cutting path id: path10124)


(Start cutting path id: path10126)
(Change tool to Default tool)

G00 Z3.000000
G00 X27.410242 Y158.228829

G00 Z4.875000 (Fast pre-penetrate)
G01 Z-0.125000 F400.0(Penetrate)
G01 X39.311472 Y167.494240 Z-0.125000 F800.000000
G01 X63.527160 Y164.445191 Z-0.125000
G01 X88.144121 Y160.994870 Z-0.125000
G01 X110.789905 Y159.515727 Z-0.125000
G01 X125.289683 Y166.182588 Z-0.125000
G01 X153.414366 Y159.224545 Z-0.125000
G01 X162.242964 Y171.562587 Z-0.125000
G00 Z3.000000

(End cutting path id: path10126)


(Start cutting path id: path10128)
(Change tool to Default tool)

G00 Z3.000000
G00 X27.125123 Y157.699846

G00 Z4.875000 (Fast pre-penetrate)
G01 Z-0.125000 F400.0(Penetrate)
G01 X39.610815 Y166.380795 Z-0.125000 F800.000000
G01 X63.772376 Y163.385875 Z-0.125000
G01 X87.878586 Y160.446305 Z-0.125000
G01 X110.421639 Y159.069888 Z-0.125000
G01 X125.076286 Y165.581882 Z-0.125000
G01 X153.376142 Y158.448669 Z-0.125000
G01 X162.462430 Y170.529020 Z-0.125000
G00 Z3.000000

(End cutting path id: path10128)


(Start cutting path id: path10130)
(Change tool to Default tool)

G00 Z3.000000
G00 X26.840003 Y157.170865

G00 Z4.875000 (Fast pre-penetrate)
G01 Z-0.125000 F400.0(Penetrate)
G01 X39.910158 Y165.267351 Z-0.125000 F800.000000
G01 X64.017591 Y162.326556 Z-0.125000
G01 X87.613048 Y159.897739 Z-0.125000
G01 X110.053374 Y158.624053 Z-0.125000
G01 X124.862892 Y164.981175 Z-0.125000
G01 X153.337918 Y157.672790 Z-0.125000
G01 X162.681896 Y169.495453 Z-0.125000
G00 Z3.000000

(End cutting path id: path10130)


(Start cutting path id: path10132)
(Change tool to Default tool)

G00 Z3.000000
G00 X26.554885 Y156.641882

G00 Z4.875000 (Fast pre-penetrate)
G01 Z-0.125000 F400.0(Penetrate)
G01 X40.209501 Y164.153906 Z-0.125000 F800.000000
G01 X64.262807 Y161.267240 Z-0.125000
G01 X87.347512 Y159.349174 Z-0.125000
G01 X109.685112 Y158.178214 Z-0.125000
G01 X124.649498 Y164.380469 Z-0.125000
G01 X153.299693 Y156.896913 Z-0.125000
G01 X162.901363 Y168.461884 Z-0.125000
G00 Z3.000000

(End cutting path id: path10132)


(Start cutting path id: path10134)
(Change tool to Default tool)

G00 Z3.000000
G00 X26.269765 Y156.112898

G00 Z4.875000 (Fast pre-penetrate)
G01 Z-0.125000 F400.0(Penetrate)
G01 X40.508844 Y163.040462 Z-0.125000 F800.000000
G01 X64.508022 Y160.207923 Z-0.125000
G01 X87.081974 Y158.800612 Z-0.125000
G01 X109.316847 Y157.732379 Z-0.125000
G01 X124.436101 Y163.779762 Z-0.125000
G01 X153.261469 Y156.121034 Z-0.125000
G01 X163.120829 Y167.428317 Z-0.125000
G00 Z3.000000

(End cutting path id: path10134)


(Start cutting path id: path10136)
(Change tool to Default tool)

G00 Z3.000000
G00 X25.984647 Y155.583917

G00 Z4.875000 (Fast pre-penetrate)
G01 Z-0.125000 F400.0(Penetrate)
G01 X40.808186 Y161.927017 Z-0.125000 F800.000000
G01 X64.753238 Y159.148604 Z-0.125000
G01 X86.816439 Y158.252046 Z-0.125000
G01 X108.948582 Y157.286541 Z-0.125000
G01 X124.222707 Y163.179055 Z-0.125000
G01 X153.223245 Y155.345158 Z-0.125000
G01 X163.340295 Y166.394750 Z-0.125000
G00 Z3.000000

(End cutting path id: path10136)


(Start cutting path id: path10138)
(Change tool to Default tool)

G00 Z3.000000
G00 X25.699527 Y155.054934

G00 Z4.875000 (Fast pre-penetrate)
G01 Z-0.125000 F400.0(Penetrate)
G01 X41.107529 Y160.813572 Z-0.125000 F800.000000
G01 X64.998453 Y158.089288 Z-0.125000
G01 X86.550900 Y157.703481 Z-0.125000
G01 X108.580316 Y156.840705 Z-0.125000
G01 X124.009313 Y162.578349 Z-0.125000
G01 X153.185020 Y154.569281 Z-0.125000
G01 X163.559759 Y165.361183 Z-0.125000
G00 Z3.000000

(End cutting path id: path10138)


(Start cutting path id: path10140)
(Change tool to Default tool)

G00 Z3.000000
G00 X25.414408 Y154.525950

G00 Z4.875000 (Fast pre-penetrate)
G01 Z-0.125000 F400.0(Penetrate)
G01 X41.406872 Y159.700128 Z-0.125000 F800.000000
G01 X65.243669 Y157.029972 Z-0.125000
G01 X86.285365 Y157.154916 Z-0.125000
G01 X108.212054 Y156.394867 Z-0.125000
G01 X123.795916 Y161.977642 Z-0.125000
G01 X153.146799 Y153.793402 Z-0.125000
G01 X163.779225 Y164.327613 Z-0.125000
G00 Z3.000000

(End cutting path id: path10140)


(Start cutting path id: path10142)
(Change tool to Default tool)

G00 Z3.000000
G00 X25.129289 Y153.996970

G00 Z4.875000 (Fast pre-penetrate)
G01 Z-0.125000 F400.0(Penetrate)
G01 X41.706215 Y158.586683 Z-0.125000 F800.000000
G01 X65.488884 Y155.970653 Z-0.125000
G01 X86.019827 Y156.606351 Z-0.125000
G01 X107.843789 Y155.949031 Z-0.125000
G01 X123.582522 Y161.376936 Z-0.125000
G01 X153.108574 Y153.017526 Z-0.125000
G01 X163.998692 Y163.294046 Z-0.125000
G00 Z3.000000

(End cutting path id: path10142)


(Start cutting path id: path10144)
(Change tool to Default tool)

G00 Z3.000000
G00 X24.844170 Y153.467986

G00 Z4.875000 (Fast pre-penetrate)
G01 Z-0.125000 F400.0(Penetrate)
G01 X42.005558 Y157.473238 Z-0.125000 F800.000000
G01 X65.734100 Y154.911337 Z-0.125000
G01 X85.754291 Y156.057785 Z-0.125000
G01 X107.475524 Y155.503193 Z-0.125000
G01 X123.369128 Y160.776229 Z-0.125000
G01 X153.070350 Y152.241647 Z-0.125000
G01 X164.218158 Y162.260479 Z-0.125000
G00 Z3.000000

(End cutting path id: path10144)


(Start cutting path id: path10146)
(Change tool to Default tool)

G00 Z3.000000
G00 X24.559051 Y152.939003

G00 Z4.875000 (Fast pre-penetrate)
G01 Z-0.125000 F400.0(Penetrate)
G01 X42.304901 Y156.359794 Z-0.125000 F800.000000
G01 X65.979315 Y153.852018 Z-0.125000
G01 X85.488753 Y155.509223 Z-0.125000
G01 X107.107259 Y155.057355 Z-0.125000
G01 X123.155734 Y160.175522 Z-0.125000
G01 X153.032126 Y151.465770 Z-0.125000
G01 X164.437624 Y161.226909 Z-0.125000
G00 Z3.000000

(End cutting path id: path10146)


(Start cutting path id: path10148)
(Change tool to Default tool)

G00 Z3.000000
G00 X24.273932 Y152.410022

G00 Z4.875000 (Fast pre-penetrate)
G01 Z-0.125000 F400.0(Penetrate)
G01 X42.604244 Y155.246349 Z-0.125000 F800.000000
G01 X66.224531 Y152.792702 Z-0.125000
G01 X85.223218 Y154.960658 Z-0.125000
G01 X106.738996 Y154.611519 Z-0.125000
G01 X122.942337 Y159.574816 Z-0.125000
G01 X152.993901 Y150.689891 Z-0.125000
G01 X164.657090 Y160.193342 Z-0.125000
G00 Z3.000000

(End cutting path id: path10148)


(Start cutting path id: path10150)
(Change tool to Default tool)

G00 Z3.000000
G00 X23.988813 Y151.881039

G00 Z4.875000 (Fast pre-penetrate)
G01 Z-0.125000 F400.0(Penetrate)
G01 X42.903587 Y154.132904 Z-0.125000 F800.000000
G01 X66.469747 Y151.733385 Z-0.125000
G01 X84.957679 Y154.412092 Z-0.125000
G01 X106.370731 Y154.165681 Z-0.125000
G01 X122.728943 Y158.974109 Z-0.125000
G01 X152.955677 Y149.914015 Z-0.125000
G01 X164.876557 Y159.159775 Z-0.125000
G00 Z3.000000

(End cutting path id: path10150)


(Start cutting path id: path10152)
(Change tool to Default tool)

G00 Z3.000000
G00 X23.703694 Y151.352058

G00 Z4.875000 (Fast pre-penetrate)
G01 Z-0.125000 F400.0(Penetrate)
G01 X43.202930 Y153.019460 Z-0.125000 F800.000000
G01 X66.714962 Y150.674066 Z-0.125000
G01 X84.692144 Y153.863527 Z-0.125000
G01 X106.002466 Y153.719845 Z-0.125000
G01 X122.515548 Y158.373403 Z-0.125000
G01 X152.917453 Y149.138138 Z-0.125000
G01 X165.096023 Y158.126208 Z-0.125000
G00 Z3.000000

(End cutting path id: path10152)


(Start cutting path id: path10154)
(Change tool to Default tool)

G00 Z3.000000
G00 X23.418575 Y150.823074

G00 Z4.875000 (Fast pre-penetrate)
G01 Z-0.125000 F400.0(Penetrate)
G01 X43.502273 Y151.906015 Z-0.125000 F800.000000
G01 X66.960180 Y149.614750 Z-0.125000
G01 X84.426606 Y153.314962 Z-0.125000
G01 X105.634201 Y153.274007 Z-0.125000
G01 X122.302152 Y157.772696 Z-0.125000
G01 X152.879229 Y148.362259 Z-0.125000
G01 X165.315489 Y157.092638 Z-0.125000
G00 Z3.000000

(End cutting path id: path10154)


(Start cutting path id: path10200)
(Change tool to Default tool)

G00 Z3.000000
G00 X25.604996 Y129.912318

G00 Z4.875000 (Fast pre-penetrate)
G01 Z-0.125000 F400.0(Penetrate)
G01 X44.375489 Y132.308466 Z-0.125000 F800.000000
G01 X63.180027 Y134.670565 Z-0.125000
G01 X84.076039 Y134.941197 Z-0.125000
G01 X108.018255 Y132.165620 Z-0.125000
G01 X129.864103 Y131.486412 Z-0.125000
G01 X154.286776 Y128.230380 Z-0.125000
G01 X168.561727 Y135.122068 Z-0.125000
G00 Z3.000000

(End cutting path id: path10200)


(Start cutting path id: path10204)
(Change tool to Default tool)

G00 Z3.000000
G00 X26.006331 Y127.882778

G00 Z4.875000 (Fast pre-penetrate)
G01 Z-0.125000 F400.0(Penetrate)
G01 X44.306211 Y130.749540 Z-0.125000 F800.000000
G01 X62.623781 Y133.598610 Z-0.125000
G01 X84.184605 Y133.204426 Z-0.125000
G01 X108.487739 Y130.067930 Z-0.125000
G01 X130.822873 Y128.899439 Z-0.125000
G01 X154.464403 Y126.424545 Z-0.125000
G01 X168.800495 Y133.255096 Z-0.125000
G00 Z3.000000

(End cutting path id: path10204)


(Start cutting path id: path10202)
(Change tool to Default tool)

G00 Z3.000000
G00 X25.805664 Y128.897549

G00 Z4.875000 (Fast pre-penetrate)
G01 Z-0.125000 F400.0(Penetrate)
G01 X44.340850 Y131.529002 Z-0.125000 F800.000000
G01 X62.901906 Y134.134586 Z-0.125000
G01 X84.130320 Y134.072811 Z-0.125000
G01 X108.252996 Y131.116776 Z-0.125000
G01 X130.343488 Y130.192927 Z-0.125000
G01 X154.375591 Y127.327464 Z-0.125000
G01 X168.681110 Y134.188582 Z-0.125000
G00 Z3.000000

(End cutting path id: path10202)


(Start cutting path id: path10228)
(Change tool to Default tool)

G00 Z3.000000
G00 X26.506478 Y117.613415

G00 Z4.875000 (Fast pre-penetrate)
G01 Z-0.125000 F400.0(Penetrate)
G01 X41.917537 Y123.368995 Z-0.125000 F800.000000
G01 X60.688642 Y125.764529 Z-0.125000
G01 X85.243043 Y122.376769 Z-0.125000
G01 X107.356522 Y121.429930 Z-0.125000
G01 X133.704081 Y116.249011 Z-0.125000
G01 X154.016475 Y117.103257 Z-0.125000
G01 X168.467993 Y123.818379 Z-0.125000
G00 Z3.000000

(End cutting path id: path10228)


(Start cutting path id: path10230)
(Change tool to Default tool)

G00 Z3.000000
G00 X26.389168 Y116.916623

G00 Z4.875000 (Fast pre-penetrate)
G01 Z-0.125000 F400.0(Penetrate)
G01 X41.554064 Y122.918368 Z-0.125000 F800.000000
G01 X60.644243 Y124.994828 Z-0.125000
G01 X85.365166 Y121.440545 Z-0.125000
G01 X106.933245 Y121.039106 Z-0.125000
G01 X133.704899 Y115.434093 Z-0.125000
G01 X153.853005 Y116.452626 Z-0.125000
G01 X168.293194 Y123.179077 Z-0.125000
G00 Z3.000000

(End cutting path id: path10230)


(Start cutting path id: path10232)
(Change tool to Default tool)

G00 Z3.000000
G00 X26.271859 Y116.219830

G00 Z4.875000 (Fast pre-penetrate)
G01 Z-0.125000 F400.0(Penetrate)
G01 X41.190591 Y122.467738 Z-0.125000 F800.000000
G01 X60.599843 Y124.225125 Z-0.125000
G01 X85.487287 Y120.504323 Z-0.125000
G01 X106.509965 Y120.648285 Z-0.125000
G01 X133.705716 Y114.619174 Z-0.125000
G01 X153.689535 Y115.801993 Z-0.125000
G01 X168.118394 Y122.539776 Z-0.125000
G00 Z3.000000

(End cutting path id: path10232)


(Start cutting path id: path10234)
(Change tool to Default tool)

G00 Z3.000000
G00 X26.154549 Y115.523040

G00 Z4.875000 (Fast pre-penetrate)
G01 Z-0.125000 F400.0(Penetrate)
G01 X40.827117 Y122.017111 Z-0.125000 F800.000000
G01 X60.555443 Y123.455424 Z-0.125000
G01 X85.609408 Y119.568099 Z-0.125000
G01 X106.086685 Y120.257462 Z-0.125000
G01 X133.706531 Y113.804256 Z-0.125000
G01 X153.526068 Y115.151362 Z-0.125000
G01 X167.943592 Y121.900475 Z-0.125000
G00 Z3.000000

(End cutting path id: path10234)


(Start cutting path id: path10236)
(Change tool to Default tool)

G00 Z3.000000
G00 X26.037239 Y114.826248

G00 Z4.875000 (Fast pre-penetrate)
G01 Z-0.125000 F400.0(Penetrate)
G01 X40.463643 Y121.566484 Z-0.125000 F800.000000
G01 X60.511044 Y122.685723 Z-0.125000
G01 X85.731532 Y118.631875 Z-0.125000
G01 X105.663405 Y119.866641 Z-0.125000
G01 X133.707349 Y112.989338 Z-0.125000
G01 X153.362598 Y114.500728 Z-0.125000
G01 X167.768793 Y121.261173 Z-0.125000
G00 Z3.000000

(End cutting path id: path10236)


(Start cutting path id: path10238)
(Change tool to Default tool)

G00 Z3.000000
G00 X25.919929 Y114.129455

G00 Z4.875000 (Fast pre-penetrate)
G01 Z-0.125000 F400.0(Penetrate)
G01 X40.100170 Y121.115854 Z-0.125000 F800.000000
G01 X60.466644 Y121.916019 Z-0.125000
G01 X85.853653 Y117.695650 Z-0.125000
G01 X105.240128 Y119.475818 Z-0.125000
G01 X133.708166 Y112.174419 Z-0.125000
G01 X153.199128 Y113.850098 Z-0.125000
G01 X167.593994 Y120.621872 Z-0.125000
G00 Z3.000000

(End cutting path id: path10238)


(Start cutting path id: path10240)
(Change tool to Default tool)

G00 Z3.000000
G00 X25.802620 Y113.432662

G00 Z4.875000 (Fast pre-penetrate)
G01 Z-0.125000 F400.0(Penetrate)
G01 X39.736697 Y120.665227 Z-0.125000 F800.000000
G01 X60.422247 Y121.146318 Z-0.125000
G01 X85.975776 Y116.759429 Z-0.125000
G01 X104.816848 Y119.084997 Z-0.125000
G01 X133.708984 Y111.359501 Z-0.125000
G01 X153.035658 Y113.199464 Z-0.125000
G01 X167.419191 Y119.982571 Z-0.125000
G00 Z3.000000

(End cutting path id: path10240)


(Start cutting path id: path10242)
(Change tool to Default tool)

G00 Z3.000000
G00 X25.685310 Y112.735873

G00 Z4.875000 (Fast pre-penetrate)
G01 Z-0.125000 F400.0(Penetrate)
G01 X39.373223 Y120.214599 Z-0.125000 F800.000000
G01 X60.377847 Y120.376614 Z-0.125000
G01 X86.097897 Y115.823204 Z-0.125000
G01 X104.393568 Y118.694173 Z-0.125000
G01 X133.709801 Y110.544580 Z-0.125000
G01 X152.872188 Y112.548834 Z-0.125000
G01 X167.244392 Y119.343269 Z-0.125000
G00 Z3.000000

(End cutting path id: path10242)


(Start cutting path id: path10244)
(Change tool to Default tool)

G00 Z3.000000
G00 X25.568000 Y112.039080

G00 Z4.875000 (Fast pre-penetrate)
G01 Z-0.125000 F400.0(Penetrate)
G01 X39.009750 Y119.763970 Z-0.125000 F800.000000
G01 X60.333448 Y119.606913 Z-0.125000
G01 X86.220021 Y114.886980 Z-0.125000
G01 X103.970288 Y118.303350 Z-0.125000
G01 X133.710616 Y109.729662 Z-0.125000
G01 X152.708718 Y111.898203 Z-0.125000
G01 X167.069593 Y118.703968 Z-0.125000
G00 Z3.000000

(End cutting path id: path10244)


(Start cutting path id: path10246)
(Change tool to Default tool)

G00 Z3.000000
G00 X25.450691 Y111.342287

G00 Z4.875000 (Fast pre-penetrate)
G01 Z-0.125000 F400.0(Penetrate)
G01 X38.646276 Y119.313342 Z-0.125000 F800.000000
G01 X60.289048 Y118.837212 Z-0.125000
G01 X86.342142 Y113.950756 Z-0.125000
G01 X103.547011 Y117.912529 Z-0.125000
G01 X133.711434 Y108.914744 Z-0.125000
G01 X152.545248 Y111.247569 Z-0.125000
G01 X166.894791 Y118.064667 Z-0.125000
G00 Z3.000000

(End cutting path id: path10246)


(Start cutting path id: path10248)
(Change tool to Default tool)

G00 Z3.000000
G00 X25.333381 Y110.645495

G00 Z4.875000 (Fast pre-penetrate)
G01 Z-0.125000 F400.0(Penetrate)
G01 X38.282802 Y118.862715 Z-0.125000 F800.000000
G01 X60.244648 Y118.067508 Z-0.125000
G01 X86.464265 Y113.014534 Z-0.125000
G01 X103.123731 Y117.521705 Z-0.125000
G01 X133.712251 Y108.099825 Z-0.125000
G01 X152.381778 Y110.596939 Z-0.125000
G01 X166.719991 Y117.425365 Z-0.125000
G00 Z3.000000

(End cutting path id: path10248)


(Start cutting path id: path10250)
(Change tool to Default tool)

G00 Z3.000000
G00 X25.216071 Y109.948705

G00 Z4.875000 (Fast pre-penetrate)
G01 Z-0.125000 F400.0(Penetrate)
G01 X37.919329 Y118.412085 Z-0.125000 F800.000000
G01 X60.200249 Y117.297807 Z-0.125000
G01 X86.586386 Y112.078310 Z-0.125000
G01 X102.700451 Y117.130885 Z-0.125000
G01 X133.713069 Y107.284907 Z-0.125000
G01 X152.218311 Y109.946305 Z-0.125000
G01 X166.545192 Y116.786064 Z-0.125000
G00 Z3.000000

(End cutting path id: path10250)


(Start cutting path id: path10252)
(Change tool to Default tool)

G00 Z3.000000
G00 X25.098761 Y109.251912

G00 Z4.875000 (Fast pre-penetrate)
G01 Z-0.125000 F400.0(Penetrate)
G01 X37.555856 Y117.961458 Z-0.125000 F800.000000
G01 X60.155849 Y116.528104 Z-0.125000
G01 X86.708507 Y111.142085 Z-0.125000
G01 X102.277171 Y116.740061 Z-0.125000
G01 X133.713884 Y106.469989 Z-0.125000
G01 X152.054841 Y109.295674 Z-0.125000
G01 X166.370392 Y116.146763 Z-0.125000
G00 Z3.000000

(End cutting path id: path10252)


(Start cutting path id: path10254)
(Change tool to Default tool)

G00 Z3.000000
G00 X24.981451 Y108.555120

G00 Z4.875000 (Fast pre-penetrate)
G01 Z-0.125000 F400.0(Penetrate)
G01 X37.192382 Y117.510831 Z-0.125000 F800.000000
G01 X60.111449 Y115.758403 Z-0.125000
G01 X86.830631 Y110.205861 Z-0.125000
G01 X101.853894 Y116.349240 Z-0.125000
G01 X133.714701 Y105.655071 Z-0.125000
G01 X151.891371 Y108.645041 Z-0.125000
G01 X166.195590 Y115.507461 Z-0.125000
G00 Z3.000000

(End cutting path id: path10254)


(Start cutting path id: path10256)
(Change tool to Default tool)

G00 Z3.000000
G00 X24.864142 Y107.858330

G00 Z4.875000 (Fast pre-penetrate)
G01 Z-0.125000 F400.0(Penetrate)
G01 X36.828909 Y117.060201 Z-0.125000 F800.000000
G01 X60.067050 Y114.988699 Z-0.125000
G01 X86.952752 Y109.269639 Z-0.125000
G01 X101.430614 Y115.958417 Z-0.125000
G01 X133.715519 Y104.840152 Z-0.125000
G01 X151.727901 Y107.994410 Z-0.125000
G01 X166.020791 Y114.868160 Z-0.125000
G00 Z3.000000

(End cutting path id: path10256)


(Start cutting path id: path10258)
(Change tool to Default tool)

G00 Z3.000000
G00 X24.746832 Y107.161537

G00 Z4.875000 (Fast pre-penetrate)
G01 Z-0.125000 F400.0(Penetrate)
G01 X36.465435 Y116.609574 Z-0.125000 F800.000000
G01 X60.022653 Y114.218998 Z-0.125000
G01 X87.074875 Y108.333415 Z-0.125000
G01 X101.007334 Y115.567596 Z-0.125000
G01 X133.716336 Y104.025234 Z-0.125000
G01 X151.564431 Y107.343777 Z-0.125000
G01 X165.845992 Y114.228859 Z-0.125000
G00 Z3.000000

(End cutting path id: path10258)


(Start cutting path id: path10260)
(Change tool to Default tool)

G00 Z3.000000
G00 X24.629523 Y106.464745

G00 Z4.875000 (Fast pre-penetrate)
G01 Z-0.125000 F400.0(Penetrate)
G01 X36.101962 Y116.158947 Z-0.125000 F800.000000
G01 X59.978253 Y113.449297 Z-0.125000
G01 X87.196996 Y107.397191 Z-0.125000
G01 X100.584055 Y115.176772 Z-0.125000
G01 X133.717151 Y103.210316 Z-0.125000
G01 X151.400961 Y106.693146 Z-0.125000
G01 X165.671190 Y113.589558 Z-0.125000
G00 Z3.000000

(End cutting path id: path10260)


(Start cutting path id: path10198)
(Change tool to Default tool)

G00 Z3.000000
G00 X25.404328 Y130.927086

G00 Z4.875000 (Fast pre-penetrate)
G01 Z-0.125000 F400.0(Penetrate)
G01 X44.410128 Y133.087928 Z-0.125000 F800.000000
G01 X63.458152 Y135.206542 Z-0.125000
G01 X84.021754 Y135.809582 Z-0.125000
G01 X107.783511 Y133.214464 Z-0.125000
G01 X129.384718 Y132.779897 Z-0.125000
G01 X154.197960 Y129.133295 Z-0.125000
G01 X168.442342 Y136.055554 Z-0.125000
G00 Z3.000000

(End cutting path id: path10198)


(Start cutting path id: path10196)
(Change tool to Default tool)

G00 Z3.000000
G00 X25.203661 Y131.941857

G00 Z4.875000 (Fast pre-penetrate)
G01 Z-0.125000 F400.0(Penetrate)
G01 X44.444766 Y133.867389 Z-0.125000 F800.000000
G01 X63.736276 Y135.742521 Z-0.125000
G01 X83.967470 Y136.677967 Z-0.125000
G01 X107.548768 Y134.263309 Z-0.125000
G01 X128.905334 Y134.073383 Z-0.125000
G01 X154.109145 Y130.036211 Z-0.125000
G01 X168.322959 Y136.989037 Z-0.125000
G00 Z3.000000

(End cutting path id: path10196)


(Start cutting path id: path10194)
(Change tool to Default tool)

G00 Z3.000000
G00 X25.002993 Y132.956626

G00 Z4.875000 (Fast pre-penetrate)
G01 Z-0.125000 F400.0(Penetrate)
G01 X44.479405 Y134.646853 Z-0.125000 F800.000000
G01 X64.014400 Y136.278500 Z-0.125000
G01 X83.913185 Y137.546352 Z-0.125000
G01 X107.314025 Y135.312153 Z-0.125000
G01 X128.425949 Y135.366871 Z-0.125000
G01 X154.020330 Y130.939127 Z-0.125000
G01 X168.203574 Y137.922523 Z-0.125000
G00 Z3.000000

(End cutting path id: path10194)


(Start cutting path id: path10192)
(Change tool to Default tool)

G00 Z3.000000
G00 X24.802326 Y133.971394

G00 Z4.875000 (Fast pre-penetrate)
G01 Z-0.125000 F400.0(Penetrate)
G01 X44.514044 Y135.426315 Z-0.125000 F800.000000
G01 X64.292525 Y136.814476 Z-0.125000
G01 X83.858901 Y138.414740 Z-0.125000
G01 X107.079282 Y136.360999 Z-0.125000
G01 X127.946564 Y136.660356 Z-0.125000
G01 X153.931517 Y131.842043 Z-0.125000
G01 X168.084192 Y138.856009 Z-0.125000
G00 Z3.000000

(End cutting path id: path10192)


(Start cutting path id: path10190)
(Change tool to Default tool)

G00 Z3.000000
G00 X24.601658 Y134.986162

G00 Z4.875000 (Fast pre-penetrate)
G01 Z-0.125000 F400.0(Penetrate)
G01 X44.548683 Y136.205779 Z-0.125000 F800.000000
G01 X64.570646 Y137.350455 Z-0.125000
G01 X83.804616 Y139.283125 Z-0.125000
G01 X106.844538 Y137.409843 Z-0.125000
G01 X127.467180 Y137.953842 Z-0.125000
G01 X153.842702 Y132.744959 Z-0.125000
G01 X167.964809 Y139.789492 Z-0.125000
G00 Z3.000000

(End cutting path id: path10190)


(Start cutting path id: path10188)
(Change tool to Default tool)

G00 Z3.000000
G00 X24.400991 Y136.000934

G00 Z4.875000 (Fast pre-penetrate)
G01 Z-0.125000 F400.0(Penetrate)
G01 X44.583322 Y136.985241 Z-0.125000 F800.000000
G01 X64.848771 Y137.886431 Z-0.125000
G01 X83.750332 Y140.151511 Z-0.125000
G01 X106.609795 Y138.458687 Z-0.125000
G01 X126.987795 Y139.247330 Z-0.125000
G01 X153.753887 Y133.647875 Z-0.125000
G01 X167.845424 Y140.722978 Z-0.125000
G00 Z3.000000

(End cutting path id: path10188)


(Start cutting path id: path10186)
(Change tool to Default tool)

G00 Z3.000000
G00 X24.200323 Y137.015702

G00 Z4.875000 (Fast pre-penetrate)
G01 Z-0.125000 F400.0(Penetrate)
G01 X44.617961 Y137.764705 Z-0.125000 F800.000000
G01 X65.126895 Y138.422410 Z-0.125000
G01 X83.696047 Y141.019896 Z-0.125000
G01 X106.375052 Y139.507531 Z-0.125000
G01 X126.508410 Y140.540815 Z-0.125000
G01 X153.665072 Y134.550794 Z-0.125000
G01 X167.726042 Y141.656464 Z-0.125000
G00 Z3.000000

(End cutting path id: path10186)


(Start cutting path id: path10184)
(Change tool to Default tool)

G00 Z3.000000
G00 X23.999656 Y138.030470

G00 Z4.875000 (Fast pre-penetrate)
G01 Z-0.125000 F400.0(Penetrate)
G01 X44.652599 Y138.544166 Z-0.125000 F800.000000
G01 X65.405020 Y138.958387 Z-0.125000
G01 X83.641765 Y141.888281 Z-0.125000
G01 X106.140308 Y140.556378 Z-0.125000
G01 X126.029026 Y141.834301 Z-0.125000
G01 X153.576257 Y135.453710 Z-0.125000
G01 X167.606656 Y142.589950 Z-0.125000
G00 Z3.000000

(End cutting path id: path10184)


(Start cutting path id: path10182)
(Change tool to Default tool)

G00 Z3.000000
G00 X23.798988 Y139.045239

G00 Z4.875000 (Fast pre-penetrate)
G01 Z-0.125000 F400.0(Penetrate)
G01 X44.687238 Y139.323630 Z-0.125000 F800.000000
G01 X65.683144 Y139.494366 Z-0.125000
G01 X83.587481 Y142.756669 Z-0.125000
G01 X105.905565 Y141.605222 Z-0.125000
G01 X125.549641 Y143.127789 Z-0.125000
G01 X153.487441 Y136.356626 Z-0.125000
G01 X167.487274 Y143.523433 Z-0.125000
G00 Z3.000000

(End cutting path id: path10182)


(Start cutting path id: path10180)
(Change tool to Default tool)

G00 Z3.000000
G00 X23.598321 Y140.060010

G00 Z4.875000 (Fast pre-penetrate)
G01 Z-0.125000 F400.0(Penetrate)
G01 X44.721877 Y140.103092 Z-0.125000 F800.000000
G01 X65.961266 Y140.030342 Z-0.125000
G01 X83.533196 Y143.625054 Z-0.125000
G01 X105.670824 Y142.654066 Z-0.125000
G01 X125.070256 Y144.421274 Z-0.125000
G01 X153.398629 Y137.259542 Z-0.125000
G01 X167.367889 Y144.456919 Z-0.125000
G00 Z3.000000

(End cutting path id: path10180)


(Start cutting path id: path10178)
(Change tool to Default tool)

G00 Z3.000000
G00 X23.397653 Y141.074778

G00 Z4.875000 (Fast pre-penetrate)
G01 Z-0.125000 F400.0(Penetrate)
G01 X44.756516 Y140.882556 Z-0.125000 F800.000000
G01 X66.239390 Y140.566321 Z-0.125000
G01 X83.478912 Y144.493439 Z-0.125000
G01 X105.436081 Y143.702910 Z-0.125000
G01 X124.590871 Y145.714760 Z-0.125000
G01 X153.309814 Y138.162458 Z-0.125000
G01 X167.248506 Y145.390405 Z-0.125000
G00 Z3.000000

(End cutting path id: path10178)


(Start cutting path id: path10176)
(Change tool to Default tool)

G00 Z3.000000
G00 X23.196985 Y142.089547

G00 Z4.875000 (Fast pre-penetrate)
G01 Z-0.125000 F400.0(Penetrate)
G01 X44.791155 Y141.662018 Z-0.125000 F800.000000
G01 X66.517514 Y141.102298 Z-0.125000
G01 X83.424627 Y145.361825 Z-0.125000
G01 X105.201338 Y144.751754 Z-0.125000
G01 X124.111487 Y147.008245 Z-0.125000
G01 X153.220998 Y139.065374 Z-0.125000
G01 X167.129124 Y146.323891 Z-0.125000
G00 Z3.000000

(End cutting path id: path10176)


(Start cutting path id: path10156)
(Change tool to Default tool)

G00 Z3.000000
G00 X23.133456 Y150.294091

G00 Z4.875000 (Fast pre-penetrate)
G01 Z-0.125000 F400.0(Penetrate)
G01 X43.801616 Y150.792573 Z-0.125000 F800.000000
G01 X67.205396 Y148.555434 Z-0.125000
G01 X84.161070 Y152.766397 Z-0.125000
G01 X105.265935 Y152.828172 Z-0.125000
G01 X122.088758 Y157.171989 Z-0.125000
G01 X152.841007 Y147.586383 Z-0.125000
G01 X165.534956 Y156.059071 Z-0.125000
G00 Z3.000000

(End cutting path id: path10156)


(Start cutting path id: path10158)
(Change tool to Default tool)

G00 Z3.000000
G00 X22.848337 Y149.765110

G00 Z4.875000 (Fast pre-penetrate)
G01 Z-0.125000 F400.0(Penetrate)
G01 X44.100959 Y149.679129 Z-0.125000 F800.000000
G01 X67.450611 Y147.496115 Z-0.125000
G01 X83.895532 Y152.217834 Z-0.125000
G01 X104.897673 Y152.382333 Z-0.125000
G01 X121.875363 Y156.571283 Z-0.125000
G01 X152.802783 Y146.810504 Z-0.125000
G01 X165.754422 Y155.025504 Z-0.125000
G00 Z3.000000

(End cutting path id: path10158)


(Start cutting path id: path10174)
(Change tool to Default tool)

G00 Z3.000000
G00 X22.996318 Y143.104315

G00 Z4.875000 (Fast pre-penetrate)
G01 Z-0.125000 F400.0(Penetrate)
G01 X44.825794 Y142.441482 Z-0.125000 F800.000000
G01 X66.795639 Y141.638277 Z-0.125000
G01 X83.370343 Y146.230210 Z-0.125000
G01 X104.966594 Y145.800601 Z-0.125000
G01 X123.632102 Y148.301733 Z-0.125000
G01 X153.132183 Y139.968289 Z-0.125000
G01 X167.009739 Y147.257374 Z-0.125000
G00 Z3.000000

(End cutting path id: path10174)


(Start cutting path id: path10172)
(Change tool to Default tool)

G00 Z3.000000
G00 X22.795650 Y144.119086

G00 Z4.875000 (Fast pre-penetrate)
G01 Z-0.125000 F400.0(Penetrate)
G01 X44.860432 Y143.220943 Z-0.125000 F800.000000
G01 X67.073763 Y142.174253 Z-0.125000
G01 X83.316058 Y147.098595 Z-0.125000
G01 X104.731851 Y146.849445 Z-0.125000
G01 X123.152717 Y149.595219 Z-0.125000
G01 X153.043368 Y140.871205 Z-0.125000
G01 X166.890356 Y148.190860 Z-0.125000
G00 Z3.000000

(End cutting path id: path10172)


(Start cutting path id: path10170)
(Change tool to Default tool)

G00 Z3.000000
G00 X22.594983 Y145.133855

G00 Z4.875000 (Fast pre-penetrate)
G01 Z-0.125000 F400.0(Penetrate)
G01 X44.895071 Y144.000405 Z-0.125000 F800.000000
G01 X67.351885 Y142.710232 Z-0.125000
G01 X83.261774 Y147.966983 Z-0.125000
G01 X104.497108 Y147.898289 Z-0.125000
G01 X122.673333 Y150.888704 Z-0.125000
G01 X152.954555 Y141.774124 Z-0.125000
G01 X166.770971 Y149.124346 Z-0.125000
G00 Z3.000000

(End cutting path id: path10170)


(Start cutting path id: path10160)
(Change tool to Default tool)

G00 Z3.000000
G00 X22.563218 Y149.236127

G00 Z4.875000 (Fast pre-penetrate)
G01 Z-0.125000 F400.0(Penetrate)
G01 X44.400302 Y148.565684 Z-0.125000 F800.000000
G01 X67.695827 Y146.436799 Z-0.125000
G01 X83.629997 Y151.669269 Z-0.125000
G01 X104.529408 Y151.936498 Z-0.125000
G01 X121.661967 Y155.970576 Z-0.125000
G01 X152.764558 Y146.034627 Z-0.125000
G01 X165.973888 Y153.991937 Z-0.125000
G00 Z3.000000

(End cutting path id: path10160)


(Start cutting path id: path10162)
(Change tool to Default tool)

G00 Z3.000000
G00 X22.278099 Y148.707143

G00 Z4.875000 (Fast pre-penetrate)
G01 Z-0.125000 F400.0(Penetrate)
G01 X44.699645 Y147.452239 Z-0.125000 F800.000000
G01 X67.941042 Y145.377483 Z-0.125000
G01 X83.364459 Y151.120704 Z-0.125000
G01 X104.161143 Y151.490660 Z-0.125000
G01 X121.448573 Y155.369870 Z-0.125000
G01 X152.726334 Y145.258748 Z-0.125000
G01 X166.193355 Y152.958368 Z-0.125000
G00 Z3.000000

(End cutting path id: path10162)


(Start cutting path id: path10168)
(Change tool to Default tool)

G00 Z3.000000
G00 X22.394315 Y146.148623

G00 Z4.875000 (Fast pre-penetrate)
G01 Z-0.125000 F400.0(Penetrate)
G01 X44.929710 Y144.779869 Z-0.125000 F800.000000
G01 X67.630009 Y143.246208 Z-0.125000
G01 X83.207492 Y148.835368 Z-0.125000
G01 X104.262364 Y148.947133 Z-0.125000
G01 X122.193948 Y152.182192 Z-0.125000
G01 X152.865740 Y142.677040 Z-0.125000
G01 X166.651589 Y150.057831 Z-0.125000
G00 Z3.000000

(End cutting path id: path10168)


(Start cutting path id: path10166)
(Change tool to Default tool)

G00 Z3.000000
G00 X22.193648 Y147.163391

G00 Z4.875000 (Fast pre-penetrate)
G01 Z-0.125000 F400.0(Penetrate)
G01 X44.964349 Y145.559330 Z-0.125000 F800.000000
G01 X67.908133 Y143.782187 Z-0.125000
G01 X83.153208 Y149.703753 Z-0.125000
G01 X104.027621 Y149.995977 Z-0.125000
G01 X121.714563 Y153.475678 Z-0.125000
G01 X152.776925 Y143.579956 Z-0.125000
G01 X166.532203 Y150.991315 Z-0.125000
G00 Z3.000000

(End cutting path id: path10166)


(Start cutting path id: path10164)
(Change tool to Default tool)

G00 Z3.000000
G00 X21.992980 Y148.178162

G00 Z4.875000 (Fast pre-penetrate)
G01 Z-0.125000 F400.0(Penetrate)
G01 X44.998987 Y146.338795 Z-0.125000 F800.000000
G01 X68.186258 Y144.318164 Z-0.125000
G01 X83.098923 Y150.572138 Z-0.125000
G01 X103.792878 Y151.044824 Z-0.125000
G01 X121.235178 Y154.769163 Z-0.125000
G01 X152.688110 Y144.482872 Z-0.125000
G01 X166.412821 Y151.924801 Z-0.125000
G00 Z3.000000

(End cutting path id: path10164)


(Start cutting path id: path10262)
(Change tool to Default tool)

G00 Z3.000000
G00 X24.512213 Y105.767952

G00 Z4.875000 (Fast pre-penetrate)
G01 Z-0.125000 F400.0(Penetrate)
G01 X35.738488 Y115.708317 Z-0.125000 F800.000000
G01 X59.933853 Y112.679593 Z-0.125000
G01 X87.319120 Y106.460967 Z-0.125000
G01 X100.160777 Y114.785949 Z-0.125000
G01 X133.717969 Y102.395397 Z-0.125000
G01 X151.237491 Y106.042515 Z-0.125000
G01 X165.496390 Y112.950256 Z-0.125000
G00 Z3.000000

(End cutting path id: path10262)


(Start cutting path id: path10264)
(Change tool to Default tool)

G00 Z3.000000
G00 X24.394903 Y105.071162

G00 Z4.875000 (Fast pre-penetrate)
G01 Z-0.125000 F400.0(Penetrate)
G01 X35.375015 Y115.257690 Z-0.125000 F800.000000
G01 X59.889454 Y111.909892 Z-0.125000
G01 X87.441241 Y105.524742 Z-0.125000
G01 X99.737497 Y114.395128 Z-0.125000
G01 X133.718786 Y101.580479 Z-0.125000
G01 X151.074021 Y105.391882 Z-0.125000
G01 X165.321591 Y112.310955 Z-0.125000
G00 Z3.000000

(End cutting path id: path10264)


(Start cutting path id: path10286)
(Change tool to Default tool)

G00 Z3.000000
G00 X25.179062 Y95.331886

G00 Z4.875000 (Fast pre-penetrate)
G01 Z-0.125000 F400.0(Penetrate)
G01 X34.944662 Y106.732926 Z-0.125000 F800.000000
G01 X60.171346 Y102.672881 Z-0.125000
G01 X88.820014 Y95.190853 Z-0.125000
G01 X99.979707 Y105.197802 Z-0.125000
G01 X129.938903 Y96.405244 Z-0.125000
G01 X148.433639 Y99.077148 Z-0.125000
G01 X169.071735 Y99.605692 Z-0.125000
G00 Z3.000000

(End cutting path id: path10286)


(Start cutting path id: path10284)
(Change tool to Default tool)

G00 Z3.000000
G00 X25.065865 Y96.259183

G00 Z4.875000 (Fast pre-penetrate)
G01 Z-0.125000 F400.0(Penetrate)
G01 X34.911708 Y107.579981 Z-0.125000 F800.000000
G01 X60.130158 Y103.528170 Z-0.125000
G01 X88.693957 Y96.131014 Z-0.125000
G01 X99.858732 Y106.132876 Z-0.125000
G01 X130.359072 Y96.799179 Z-0.125000
G01 X148.690689 Y99.634201 Z-0.125000
G01 X168.616207 Y100.875320 Z-0.125000
G00 Z3.000000

(End cutting path id: path10284)


(Start cutting path id: path10282)
(Change tool to Default tool)

G00 Z3.000000
G00 X24.952667 Y97.186483

G00 Z4.875000 (Fast pre-penetrate)
G01 Z-0.125000 F400.0(Penetrate)
G01 X34.878752 Y108.427038 Z-0.125000 F800.000000
G01 X60.088970 Y104.383461 Z-0.125000
G01 X88.567899 Y97.071173 Z-0.125000
G01 X99.737757 Y107.067952 Z-0.125000
G01 X130.779240 Y97.193111 Z-0.125000
G01 X148.947739 Y100.191252 Z-0.125000
G01 X168.160680 Y102.144948 Z-0.125000
G00 Z3.000000

(End cutting path id: path10282)


(Start cutting path id: path10280)
(Change tool to Default tool)

G00 Z3.000000
G00 X24.839469 Y98.113783

G00 Z4.875000 (Fast pre-penetrate)
G01 Z-0.125000 F400.0(Penetrate)
G01 X34.845798 Y109.274095 Z-0.125000 F800.000000
G01 X60.047783 Y105.238749 Z-0.125000
G01 X88.441838 Y98.011334 Z-0.125000
G01 X99.616784 Y108.003028 Z-0.125000
G01 X131.199409 Y97.587043 Z-0.125000
G01 X149.204787 Y100.748305 Z-0.125000
G01 X167.705153 Y103.414579 Z-0.125000
G00 Z3.000000

(End cutting path id: path10280)


(Start cutting path id: path10278)
(Change tool to Default tool)

G00 Z3.000000
G00 X24.726272 Y99.041083

G00 Z4.875000 (Fast pre-penetrate)
G01 Z-0.125000 F400.0(Penetrate)
G01 X34.812842 Y110.121152 Z-0.125000 F800.000000
G01 X60.006595 Y106.094040 Z-0.125000
G01 X88.315780 Y98.951495 Z-0.125000
G01 X99.495809 Y108.938104 Z-0.125000
G01 X131.619577 Y97.980976 Z-0.125000
G01 X149.461837 Y101.305358 Z-0.125000
G01 X167.249626 Y104.684207 Z-0.125000
G00 Z3.000000

(End cutting path id: path10278)


(Start cutting path id: path10276)
(Change tool to Default tool)

G00 Z3.000000
G00 X24.613074 Y99.968380

G00 Z4.875000 (Fast pre-penetrate)
G01 Z-0.125000 F400.0(Penetrate)
G01 X34.779888 Y110.968207 Z-0.125000 F800.000000
G01 X59.965407 Y106.949329 Z-0.125000
G01 X88.189720 Y99.891654 Z-0.125000
G01 X99.374836 Y109.873180 Z-0.125000
G01 X132.039745 Y98.374911 Z-0.125000
G01 X149.718885 Y101.862408 Z-0.125000
G01 X166.794098 Y105.953838 Z-0.125000
G00 Z3.000000

(End cutting path id: path10276)


(Start cutting path id: path10274)
(Change tool to Default tool)

G00 Z3.000000
G00 X24.499877 Y100.895680

G00 Z4.875000 (Fast pre-penetrate)
G01 Z-0.125000 F400.0(Penetrate)
G01 X34.746933 Y111.815264 Z-0.125000 F800.000000
G01 X59.924220 Y107.804620 Z-0.125000
G01 X88.063662 Y100.831815 Z-0.125000
G01 X99.253861 Y110.808256 Z-0.125000
G01 X132.459914 Y98.768843 Z-0.125000
G01 X149.975935 Y102.419461 Z-0.125000
G01 X166.338571 Y107.223466 Z-0.125000
G00 Z3.000000

(End cutting path id: path10274)


(Start cutting path id: path10272)
(Change tool to Default tool)

G00 Z3.000000
G00 X24.386679 Y101.822980

G00 Z4.875000 (Fast pre-penetrate)
G01 Z-0.125000 F400.0(Penetrate)
G01 X34.713978 Y112.662321 Z-0.125000 F800.000000
G01 X59.883029 Y108.659908 Z-0.125000
G01 X87.937604 Y101.771976 Z-0.125000
G01 X99.132886 Y111.743332 Z-0.125000
G01 X132.880082 Y99.162775 Z-0.125000
G01 X150.232986 Y102.976514 Z-0.125000
G01 X165.883044 Y108.493094 Z-0.125000
G00 Z3.000000

(End cutting path id: path10272)


(Start cutting path id: path10266)
(Change tool to Default tool)

G00 Z3.000000
G00 X24.277593 Y104.374370

G00 Z4.875000 (Fast pre-penetrate)
G01 Z-0.125000 F400.0(Penetrate)
G01 X35.011541 Y114.807063 Z-0.125000 F800.000000
G01 X59.845054 Y111.140188 Z-0.125000
G01 X87.563364 Y104.588521 Z-0.125000
G01 X99.314218 Y114.004305 Z-0.125000
G01 X133.719604 Y100.765561 Z-0.125000
G01 X150.910554 Y104.741251 Z-0.125000
G01 X165.146789 Y111.671654 Z-0.125000
G00 Z3.000000

(End cutting path id: path10266)


(Start cutting path id: path10270)
(Change tool to Default tool)

G00 Z3.000000
G00 X24.273481 Y102.750280

G00 Z4.875000 (Fast pre-penetrate)
G01 Z-0.125000 F400.0(Penetrate)
G01 X34.681023 Y113.509378 Z-0.125000 F800.000000
G01 X59.841842 Y109.515196 Z-0.125000
G01 X87.811543 Y102.712135 Z-0.125000
G01 X99.011913 Y112.678408 Z-0.125000
G01 X133.300251 Y99.556708 Z-0.125000
G01 X150.490033 Y103.533567 Z-0.125000
G01 X165.427516 Y109.762724 Z-0.125000
G00 Z3.000000

(End cutting path id: path10270)


(Start cutting path id: path10268)
(Change tool to Default tool)

G00 Z3.000000
G00 X24.160283 Y103.677577

G00 Z4.875000 (Fast pre-penetrate)
G01 Z-0.125000 F400.0(Penetrate)
G01 X34.648068 Y114.356433 Z-0.125000 F800.000000
G01 X59.800654 Y110.370487 Z-0.125000
G01 X87.685485 Y103.652296 Z-0.125000
G01 X98.890938 Y113.613484 Z-0.125000
G01 X133.720422 Y99.950640 Z-0.125000
G01 X150.747084 Y104.090618 Z-0.125000
G01 X164.971989 Y111.032352 Z-0.125000
G00 Z3.000000

(End cutting path id: path10268)


(Start cutting path id: path10334)
(Change tool to Default tool)

G00 Z3.000000
G00 X25.965587 Y75.006924

G00 Z4.875000 (Fast pre-penetrate)
G01 Z-0.125000 F400.0(Penetrate)
G01 X39.641534 Y82.497618 Z-0.125000 F800.000000
G01 X62.142023 Y81.163768 Z-0.125000
G01 X89.218680 Y75.253748 Z-0.125000
G01 X100.942096 Y84.696975 Z-0.125000
G01 X125.362972 Y81.442739 Z-0.125000
G01 X144.113157 Y83.859194 Z-0.125000
G01 X175.086119 Y74.052872 Z-0.125000
G00 Z3.000000

(End cutting path id: path10334)


(Start cutting path id: path10336)
(Change tool to Default tool)

G00 Z3.000000
G00 X25.803039 Y74.355370

G00 Z4.875000 (Fast pre-penetrate)
G01 Z-0.125000 F400.0(Penetrate)
G01 X40.232482 Y81.092566 Z-0.125000 F800.000000
G01 X62.323522 Y80.168169 Z-0.125000
G01 X88.969491 Y74.688840 Z-0.125000
G01 X100.785786 Y84.039184 Z-0.125000
G01 X125.729676 Y80.261934 Z-0.125000
G01 X144.120208 Y83.038042 Z-0.125000
G01 X174.839035 Y73.485852 Z-0.125000
G00 Z3.000000

(End cutting path id: path10336)


(Start cutting path id: path10338)
(Change tool to Default tool)

G00 Z3.000000
G00 X25.640491 Y73.703816

G00 Z4.875000 (Fast pre-penetrate)
G01 Z-0.125000 F400.0(Penetrate)
G01 X40.823430 Y79.687516 Z-0.125000 F800.000000
G01 X62.505018 Y79.172569 Z-0.125000
G01 X88.720301 Y74.123929 Z-0.125000
G01 X100.629476 Y83.381394 Z-0.125000
G01 X126.096380 Y79.081127 Z-0.125000
G01 X144.127259 Y82.216890 Z-0.125000
G01 X174.591955 Y72.918835 Z-0.125000
G00 Z3.000000

(End cutting path id: path10338)


(Start cutting path id: path10340)
(Change tool to Default tool)

G00 Z3.000000
G00 X25.477943 Y73.052262

G00 Z4.875000 (Fast pre-penetrate)
G01 Z-0.125000 F400.0(Penetrate)
G01 X41.414378 Y78.282467 Z-0.125000 F800.000000
G01 X62.686517 Y78.176970 Z-0.125000
G01 X88.471109 Y73.559017 Z-0.125000
G01 X100.473165 Y82.723601 Z-0.125000
G01 X126.463085 Y77.900319 Z-0.125000
G01 X144.134311 Y81.395736 Z-0.125000
G01 X174.344871 Y72.351815 Z-0.125000
G00 Z3.000000

(End cutting path id: path10340)


(Start cutting path id: path10342)
(Change tool to Default tool)

G00 Z3.000000
G00 X25.315395 Y72.400710

G00 Z4.875000 (Fast pre-penetrate)
G01 Z-0.125000 F400.0(Penetrate)
G01 X42.005326 Y76.877417 Z-0.125000 F800.000000
G01 X62.868015 Y77.181370 Z-0.125000
G01 X88.221919 Y72.994106 Z-0.125000
G01 X100.316855 Y82.065811 Z-0.125000
G01 X126.829791 Y76.719514 Z-0.125000
G01 X144.141359 Y80.574584 Z-0.125000
G01 X174.097788 Y71.784798 Z-0.125000
G00 Z3.000000

(End cutting path id: path10342)


(Start cutting path id: path10344)
(Change tool to Default tool)

G00 Z3.000000
G00 X25.152848 Y71.749156

G00 Z4.875000 (Fast pre-penetrate)
G01 Z-0.125000 F400.0(Penetrate)
G01 X42.596275 Y75.472368 Z-0.125000 F800.000000
G01 X63.049511 Y76.185771 Z-0.125000
G01 X87.972727 Y72.429195 Z-0.125000
G01 X100.160545 Y81.408020 Z-0.125000
G01 X127.196495 Y75.538707 Z-0.125000
G01 X144.148410 Y79.753432 Z-0.125000
G01 X173.850704 Y71.217778 Z-0.125000
G00 Z3.000000

(End cutting path id: path10344)


(Start cutting path id: path10346)
(Change tool to Default tool)

G00 Z3.000000
G00 X24.990300 Y71.097602

G00 Z4.875000 (Fast pre-penetrate)
G01 Z-0.125000 F400.0(Penetrate)
G01 X43.187223 Y74.067318 Z-0.125000 F800.000000
G01 X63.231010 Y75.190172 Z-0.125000
G01 X87.723538 Y71.864284 Z-0.125000
G01 X100.004234 Y80.750227 Z-0.125000
G01 X127.563199 Y74.357902 Z-0.125000
G01 X144.155461 Y78.932280 Z-0.125000
G01 X173.603621 Y70.650761 Z-0.125000
G00 Z3.000000

(End cutting path id: path10346)


(Start cutting path id: path10348)
(Change tool to Default tool)

G00 Z3.000000
G00 X24.827752 Y70.446048

G00 Z4.875000 (Fast pre-penetrate)
G01 Z-0.125000 F400.0(Penetrate)
G01 X43.778171 Y72.662269 Z-0.125000 F800.000000
G01 X63.412506 Y74.194575 Z-0.125000
G01 X87.474345 Y71.299373 Z-0.125000
G01 X99.847924 Y80.092437 Z-0.125000
G01 X127.929906 Y73.177095 Z-0.125000
G01 X144.162512 Y78.111128 Z-0.125000
G01 X173.356537 Y70.083744 Z-0.125000
G00 Z3.000000

(End cutting path id: path10348)


(Start cutting path id: path10350)
(Change tool to Default tool)

G00 Z3.000000
G00 X24.665204 Y69.794494

G00 Z4.875000 (Fast pre-penetrate)
G01 Z-0.125000 F400.0(Penetrate)
G01 X44.369119 Y71.257219 Z-0.125000 F800.000000
G01 X63.594004 Y73.198976 Z-0.125000
G01 X87.225156 Y70.734462 Z-0.125000
G01 X99.691611 Y79.434647 Z-0.125000
G01 X128.296610 Y71.996287 Z-0.125000
G01 X144.169564 Y77.289976 Z-0.125000
G01 X173.109454 Y69.516724 Z-0.125000
G00 Z3.000000

(End cutting path id: path10350)


(Start cutting path id: path10352)
(Change tool to Default tool)

G00 Z3.000000
G00 X24.502656 Y69.142942

G00 Z4.875000 (Fast pre-penetrate)
G01 Z-0.125000 F400.0(Penetrate)
G01 X44.960067 Y69.852170 Z-0.125000 F800.000000
G01 X63.775500 Y72.203376 Z-0.125000
G01 X86.975966 Y70.169553 Z-0.125000
G01 X99.535301 Y78.776856 Z-0.125000
G01 X128.663314 Y70.815482 Z-0.125000
G01 X144.176615 Y76.468825 Z-0.125000
G01 X172.862370 Y68.949706 Z-0.125000
G00 Z3.000000

(End cutting path id: path10352)


(Start cutting path id: path10354)
(Change tool to Default tool)

G00 Z3.000000
G00 X24.340108 Y68.491388

G00 Z4.875000 (Fast pre-penetrate)
G01 Z-0.125000 F400.0(Penetrate)
G01 X45.551015 Y68.447120 Z-0.125000 F800.000000
G01 X63.956999 Y71.207777 Z-0.125000
G01 X86.726774 Y69.604642 Z-0.125000
G01 X99.378990 Y78.119063 Z-0.125000
G01 X129.030019 Y69.634675 Z-0.125000
G01 X144.183663 Y75.647670 Z-0.125000
G01 X172.615289 Y68.382687 Z-0.125000
G00 Z3.000000

(End cutting path id: path10354)


(Start cutting path id: path10356)
(Change tool to Default tool)

G00 Z3.000000
G00 X24.177560 Y67.839834

G00 Z4.875000 (Fast pre-penetrate)
G01 Z-0.125000 F400.0(Penetrate)
G01 X46.141963 Y67.042071 Z-0.125000 F800.000000
G01 X64.138495 Y70.212177 Z-0.125000
G01 X86.477584 Y69.039731 Z-0.125000
G01 X99.222680 Y77.461273 Z-0.125000
G01 X129.396725 Y68.453870 Z-0.125000
G01 X144.190714 Y74.826518 Z-0.125000
G01 X172.368206 Y67.815669 Z-0.125000
G00 Z3.000000

(End cutting path id: path10356)


(Start cutting path id: path10358)
(Change tool to Default tool)

G00 Z3.000000
G00 X24.015012 Y67.188280

G00 Z4.875000 (Fast pre-penetrate)
G01 Z-0.125000 F400.0(Penetrate)
G01 X46.732910 Y65.637021 Z-0.125000 F800.000000
G01 X64.319994 Y69.216578 Z-0.125000
G01 X86.228392 Y68.474820 Z-0.125000
G01 X99.066369 Y76.803482 Z-0.125000
G01 X129.763429 Y67.273062 Z-0.125000
G01 X144.197766 Y74.005366 Z-0.125000
G01 X172.121122 Y67.248649 Z-0.125000
G00 Z3.000000

(End cutting path id: path10358)


(Start cutting path id: path10360)
(Change tool to Default tool)

G00 Z3.000000
G00 X23.852464 Y66.536725

G00 Z4.875000 (Fast pre-penetrate)
G01 Z-0.125000 F400.0(Penetrate)
G01 X47.323859 Y64.231972 Z-0.125000 F800.000000
G01 X64.501490 Y68.220979 Z-0.125000
G01 X85.979203 Y67.909908 Z-0.125000
G01 X98.910059 Y76.145689 Z-0.125000
G01 X130.130133 Y66.092255 Z-0.125000
G01 X144.204817 Y73.184214 Z-0.125000
G01 X171.874039 Y66.681632 Z-0.125000
G00 Z3.000000

(End cutting path id: path10360)


(Start cutting path id: path10362)
(Change tool to Default tool)

G00 Z3.000000
G00 X23.689916 Y65.885174

G00 Z4.875000 (Fast pre-penetrate)
G01 Z-0.125000 F400.0(Penetrate)
G01 X47.914808 Y62.826922 Z-0.125000 F800.000000
G01 X64.682988 Y67.225382 Z-0.125000
G01 X85.730010 Y67.344997 Z-0.125000
G01 X98.753749 Y75.487899 Z-0.125000
G01 X130.496840 Y64.911450 Z-0.125000
G01 X144.211868 Y72.363063 Z-0.125000
G01 X171.626955 Y66.114612 Z-0.125000
G00 Z3.000000

(End cutting path id: path10362)


(Start cutting path id: path10364)
(Change tool to Default tool)

G00 Z3.000000
G00 X23.527368 Y65.233620

G00 Z4.875000 (Fast pre-penetrate)
G01 Z-0.125000 F400.0(Penetrate)
G01 X48.505757 Y61.421873 Z-0.125000 F800.000000
G01 X64.864487 Y66.229783 Z-0.125000
G01 X85.480821 Y66.780086 Z-0.125000
G01 X98.597438 Y74.830109 Z-0.125000
G01 X130.863544 Y63.730643 Z-0.125000
G01 X144.218919 Y71.541911 Z-0.125000
G01 X171.379872 Y65.547595 Z-0.125000
G00 Z3.000000

(End cutting path id: path10364)


(Start cutting path id: path10366)
(Change tool to Default tool)

G00 Z3.000000
G00 X23.364821 Y64.582066

G00 Z4.875000 (Fast pre-penetrate)
G01 Z-0.125000 F400.0(Penetrate)
G01 X49.096703 Y60.016823 Z-0.125000 F800.000000
G01 X65.045983 Y65.234183 Z-0.125000
G01 X85.231631 Y66.215175 Z-0.125000
G01 X98.441128 Y74.172318 Z-0.125000
G01 X131.230248 Y62.549838 Z-0.125000
G01 X144.225967 Y70.720759 Z-0.125000
G01 X171.132789 Y64.980578 Z-0.125000
G00 Z3.000000

(End cutting path id: path10366)


(Start cutting path id: path10368)
(Change tool to Default tool)

G00 Z3.000000
G00 X23.202273 Y63.930511

G00 Z4.875000 (Fast pre-penetrate)
G01 Z-0.125000 F400.0(Penetrate)
G01 X49.687652 Y58.611774 Z-0.125000 F800.000000
G01 X65.227482 Y64.238584 Z-0.125000
G01 X84.982439 Y65.650264 Z-0.125000
G01 X98.284818 Y73.514525 Z-0.125000
G01 X131.596955 Y61.369030 Z-0.125000
G01 X144.233019 Y69.899604 Z-0.125000
G01 X170.885708 Y64.413558 Z-0.125000
G00 Z3.000000

(End cutting path id: path10368)


(Start cutting path id: path10370)
(Change tool to Default tool)

G00 Z3.000000
G00 X23.039724 Y63.278957

G00 Z4.875000 (Fast pre-penetrate)
G01 Z-0.125000 F400.0(Penetrate)
G01 X50.278600 Y57.206722 Z-0.125000 F800.000000
G01 X65.408978 Y63.242985 Z-0.125000
G01 X84.733250 Y65.085355 Z-0.125000
G01 X98.128507 Y72.856735 Z-0.125000
G01 X131.963659 Y60.188223 Z-0.125000
G01 X144.240070 Y69.078453 Z-0.125000
G01 X170.638624 Y63.846541 Z-0.125000
G00 Z3.000000

(End cutting path id: path10370)



(Footer)
M5
G00 X0.0000 Y0.0000
M2
(Using default footer. To add your own footer create file "footer" in the output dir.)
(end)
%