%
(Header)
(Generated by gcodetools from Inkscape.)
(Using default header. To add your own header create file "header" in the output dir.)
M3
(Header end.)
G21 (All units in mm)

(Start cutting path id: path22653)
(Change tool to Default tool)

G00 Z3.000000
G00 X165.031803 Y217.211750

G00 Z4.875000 (Fast pre-penetrate)
G01 Z-0.125000 F400.0(Penetrate)
G01 X172.022591 Y189.054322 Z-0.125000 F800.000000
G01 X167.379895 Y172.530378 Z-0.125000
G01 X158.814568 Y159.929065 Z-0.125000
G01 X168.272821 Y129.304173 Z-0.125000
G01 X165.436062 Y110.974291 Z-0.125000
G01 X167.129311 Y88.114402 Z-0.125000
G01 X164.130096 Y69.946977 Z-0.125000
G00 Z3.000000

(End cutting path id: path22653)


(Start cutting path id: path22573)
(Change tool to Default tool)

G00 Z3.000000
G00 X127.593565 Y212.316708

G00 Z4.875000 (Fast pre-penetrate)
G01 Z-0.125000 F400.0(Penetrate)
G01 X125.290582 Y193.453051 Z-0.125000 F800.000000
G01 X121.121434 Y176.455560 Z-0.125000
G01 X124.066214 Y152.344140 Z-0.125000
G01 X125.280888 Y129.962826 Z-0.125000
G01 X115.950773 Y118.126300 Z-0.125000
G01 X124.227757 Y88.682676 Z-0.125000
G01 X130.764257 Y60.979537 Z-0.125000
G00 Z3.000000

(End cutting path id: path22573)


(Start cutting path id: path22575)
(Change tool to Default tool)

G00 Z3.000000
G00 X128.071281 Y212.897325

G00 Z4.875000 (Fast pre-penetrate)
G01 Z-0.125000 F400.0(Penetrate)
G01 X126.193630 Y193.608335 Z-0.125000 F800.000000
G01 X122.049358 Y176.585967 Z-0.125000
G01 X124.669709 Y152.798977 Z-0.125000
G01 X126.518850 Y129.783195 Z-0.125000
G01 X117.474364 Y117.661042 Z-0.125000
G01 X125.540594 Y88.428171 Z-0.125000
G01 X131.479208 Y61.322918 Z-0.125000
G00 Z3.000000

(End cutting path id: path22575)


(Start cutting path id: path22571)
(Change tool to Default tool)

G00 Z3.000000
G00 X125.868714 Y212.983227

G00 Z4.875000 (Fast pre-penetrate)
G01 Z-0.125000 F400.0(Penetrate)
G01 X124.371900 Y193.313402 Z-0.125000 F800.000000
G01 X120.368455 Y176.150207 Z-0.125000
G01 X122.953724 Y152.398297 Z-0.125000
G01 X124.096688 Y130.088693 Z-0.125000
G01 X114.847459 Y118.171282 Z-0.125000
G01 X123.281704 Y88.570398 Z-0.125000
G01 X129.153735 Y61.531727 Z-0.125000
G00 Z3.000000

(End cutting path id: path22571)


(Start cutting path id: path22577)
(Change tool to Default tool)

G00 Z3.000000
G00 X128.548998 Y213.477939

G00 Z4.875000 (Fast pre-penetrate)
G01 Z-0.125000 F400.0(Penetrate)
G01 X127.096681 Y193.763616 Z-0.125000 F800.000000
G01 X122.977283 Y176.716375 Z-0.125000
G01 X125.273204 Y153.253813 Z-0.125000
G01 X127.756813 Y129.603564 Z-0.125000
G01 X118.997957 Y117.195781 Z-0.125000
G01 X126.853429 Y88.173669 Z-0.125000
G01 X132.194158 Y61.666299 Z-0.125000
G00 Z3.000000

(End cutting path id: path22577)


(Start cutting path id: path22569)
(Change tool to Default tool)

G00 Z3.000000
G00 X124.143863 Y213.649746

G00 Z4.875000 (Fast pre-penetrate)
G01 Z-0.125000 F400.0(Penetrate)
G01 X123.453217 Y193.173752 Z-0.125000 F800.000000
G01 X119.615475 Y175.844854 Z-0.125000
G01 X121.841232 Y152.452458 Z-0.125000
G01 X122.912489 Y130.214561 Z-0.125000
G01 X113.744146 Y118.216264 Z-0.125000
G01 X122.335653 Y88.458117 Z-0.125000
G01 X127.543210 Y62.083920 Z-0.125000
G00 Z3.000000

(End cutting path id: path22569)


(Start cutting path id: path22579)
(Change tool to Default tool)

G00 Z3.000000
G00 X129.026714 Y214.058556

G00 Z4.875000 (Fast pre-penetrate)
G01 Z-0.125000 F400.0(Penetrate)
G01 X127.999732 Y193.918897 Z-0.125000 F800.000000
G01 X123.905207 Y176.846783 Z-0.125000
G01 X125.876700 Y153.708650 Z-0.125000
G01 X128.994776 Y129.423934 Z-0.125000
G01 X120.521548 Y116.730522 Z-0.125000
G01 X128.166263 Y87.919166 Z-0.125000
G01 X132.909109 Y62.009680 Z-0.125000
G00 Z3.000000

(End cutting path id: path22579)


(Start cutting path id: path22567)
(Change tool to Default tool)

G00 Z3.000000
G00 X122.419012 Y214.316265

G00 Z4.875000 (Fast pre-penetrate)
G01 Z-0.125000 F400.0(Penetrate)
G01 X122.534535 Y193.034103 Z-0.125000 F800.000000
G01 X118.862498 Y175.539499 Z-0.125000
G01 X120.728742 Y152.506615 Z-0.125000
G01 X121.728289 Y130.340428 Z-0.125000
G01 X112.640832 Y118.261246 Z-0.125000
G01 X121.389599 Y88.345838 Z-0.125000
G01 X125.932688 Y62.636110 Z-0.125000
G00 Z3.000000

(End cutting path id: path22567)


(Start cutting path id: path22581)
(Change tool to Default tool)

G00 Z3.000000
G00 X129.504431 Y214.639170

G00 Z4.875000 (Fast pre-penetrate)
G01 Z-0.125000 F400.0(Penetrate)
G01 X128.902783 Y194.074179 Z-0.125000 F800.000000
G01 X124.833129 Y176.977193 Z-0.125000
G01 X126.480195 Y154.163487 Z-0.125000
G01 X130.232738 Y129.244303 Z-0.125000
G01 X122.045141 Y116.265261 Z-0.125000
G01 X129.479100 Y87.664661 Z-0.125000
G01 X133.624060 Y62.353061 Z-0.125000
G00 Z3.000000

(End cutting path id: path22581)


(Start cutting path id: path22583)
(Change tool to Default tool)

G00 Z3.000000
G00 X129.982147 Y215.219787

G00 Z4.875000 (Fast pre-penetrate)
G01 Z-0.125000 F400.0(Penetrate)
G01 X129.805831 Y194.229462 Z-0.125000 F800.000000
G01 X125.761053 Y177.107601 Z-0.125000
G01 X127.083693 Y154.618321 Z-0.125000
G01 X131.470701 Y129.064672 Z-0.125000
G01 X123.568731 Y115.800002 Z-0.125000
G01 X130.791935 Y87.410159 Z-0.125000
G01 X134.339008 Y62.696445 Z-0.125000
G00 Z3.000000

(End cutting path id: path22583)


(Start cutting path id: path22565)
(Change tool to Default tool)

G00 Z3.000000
G00 X120.694161 Y214.982784

G00 Z4.875000 (Fast pre-penetrate)
G01 Z-0.125000 F400.0(Penetrate)
G01 X121.615852 Y192.894453 Z-0.125000 F800.000000
G01 X118.109519 Y175.234147 Z-0.125000
G01 X119.616253 Y152.560773 Z-0.125000
G01 X120.544090 Y130.466295 Z-0.125000
G01 X111.537521 Y118.306225 Z-0.125000
G01 X120.443546 Y88.233560 Z-0.125000
G01 X124.322166 Y63.188300 Z-0.125000
G00 Z3.000000

(End cutting path id: path22565)


(Start cutting path id: path22563)
(Change tool to Default tool)

G00 Z3.000000
G00 X118.969311 Y215.649303

G00 Z4.875000 (Fast pre-penetrate)
G01 Z-0.125000 F400.0(Penetrate)
G01 X120.697170 Y192.754804 Z-0.125000 F800.000000
G01 X117.356540 Y174.928794 Z-0.125000
G01 X118.503764 Y152.614930 Z-0.125000
G01 X119.359891 Y130.592163 Z-0.125000
G01 X110.434207 Y118.351207 Z-0.125000
G01 X119.497492 Y88.121281 Z-0.125000
G01 X122.711641 Y63.740492 Z-0.125000
G00 Z3.000000

(End cutting path id: path22563)


(Start cutting path id: path22585)
(Change tool to Default tool)

G00 Z3.000000
G00 X130.459864 Y215.800401

G00 Z4.875000 (Fast pre-penetrate)
G01 Z-0.125000 F400.0(Penetrate)
G01 X130.708882 Y194.384743 Z-0.125000 F800.000000
G01 X126.688977 Y177.238008 Z-0.125000
G01 X127.687188 Y155.073157 Z-0.125000
G01 X132.708664 Y128.885042 Z-0.125000
G01 X125.092325 Y115.334741 Z-0.125000
G01 X132.104772 Y87.155654 Z-0.125000
G01 X135.053959 Y63.039826 Z-0.125000
G00 Z3.000000

(End cutting path id: path22585)


(Start cutting path id: path22587)
(Change tool to Default tool)

G00 Z3.000000
G00 X130.937580 Y216.381018

G00 Z4.875000 (Fast pre-penetrate)
G01 Z-0.125000 F400.0(Penetrate)
G01 X131.611933 Y194.540025 Z-0.125000 F800.000000
G01 X127.616902 Y177.368416 Z-0.125000
G01 X128.290683 Y155.527994 Z-0.125000
G01 X133.946627 Y128.705411 Z-0.125000
G01 X126.615915 Y114.869482 Z-0.125000
G01 X133.417606 Y86.901151 Z-0.125000
G01 X135.768910 Y63.383207 Z-0.125000
G00 Z3.000000

(End cutting path id: path22587)


(Start cutting path id: path22589)
(Change tool to Default tool)

G00 Z3.000000
G00 X131.415297 Y216.961632

G00 Z4.875000 (Fast pre-penetrate)
G01 Z-0.125000 F400.0(Penetrate)
G01 X132.514984 Y194.695306 Z-0.125000 F800.000000
G01 X128.544826 Y177.498824 Z-0.125000
G01 X128.894179 Y155.982831 Z-0.125000
G01 X135.184589 Y128.525780 Z-0.125000
G01 X128.139509 Y114.404221 Z-0.125000
G01 X134.730440 Y86.646649 Z-0.125000
G01 X136.483861 Y63.726588 Z-0.125000
G00 Z3.000000

(End cutting path id: path22589)


(Start cutting path id: path22561)
(Change tool to Default tool)

G00 Z3.000000
G00 X117.244460 Y216.315822

G00 Z4.875000 (Fast pre-penetrate)
G01 Z-0.125000 F400.0(Penetrate)
G01 X119.778487 Y192.615154 Z-0.125000 F800.000000
G01 X116.603563 Y174.623439 Z-0.125000
G01 X117.391274 Y152.669087 Z-0.125000
G01 X118.175691 Y130.718030 Z-0.125000
G01 X109.330893 Y118.396188 Z-0.125000
G01 X118.551439 Y88.009003 Z-0.125000
G01 X121.101119 Y64.292682 Z-0.125000
G00 Z3.000000

(End cutting path id: path22561)


(Start cutting path id: path22559)
(Change tool to Default tool)

G00 Z3.000000
G00 X115.519609 Y216.982341

G00 Z4.875000 (Fast pre-penetrate)
G01 Z-0.125000 F400.0(Penetrate)
G01 X118.859805 Y192.475505 Z-0.125000 F800.000000
G01 X115.850583 Y174.318086 Z-0.125000
G01 X116.278785 Y152.723245 Z-0.125000
G01 X116.991492 Y130.843898 Z-0.125000
G01 X108.227579 Y118.441170 Z-0.125000
G01 X117.605388 Y87.896722 Z-0.125000
G01 X119.490595 Y64.844875 Z-0.125000
G00 Z3.000000

(End cutting path id: path22559)


(Start cutting path id: path22557)
(Change tool to Default tool)

G00 Z3.000000
G00 X113.794758 Y217.648860

G00 Z4.875000 (Fast pre-penetrate)
G01 Z-0.125000 F400.0(Penetrate)
G01 X117.941125 Y192.335852 Z-0.125000 F800.000000
G01 X115.097604 Y174.012734 Z-0.125000
G01 X115.166292 Y152.777405 Z-0.125000
G01 X115.807292 Y130.969765 Z-0.125000
G01 X107.124266 Y118.486152 Z-0.125000
G01 X116.659334 Y87.784443 Z-0.125000
G01 X117.880073 Y65.397065 Z-0.125000
G00 Z3.000000

(End cutting path id: path22557)


(Start cutting path id: path22591)
(Change tool to Default tool)

G00 Z3.000000
G00 X131.893013 Y217.542249

G00 Z4.875000 (Fast pre-penetrate)
G01 Z-0.125000 F400.0(Penetrate)
G01 X133.418032 Y194.850589 Z-0.125000 F800.000000
G01 X129.472750 Y177.629231 Z-0.125000
G01 X129.497674 Y156.437668 Z-0.125000
G01 X136.422552 Y128.346150 Z-0.125000
G01 X129.663099 Y113.938962 Z-0.125000
G01 X136.043277 Y86.392144 Z-0.125000
G01 X137.198812 Y64.069970 Z-0.125000
G00 Z3.000000

(End cutting path id: path22591)


(Start cutting path id: path22593)
(Change tool to Default tool)

G00 Z3.000000
G00 X132.370731 Y218.122863

G00 Z4.875000 (Fast pre-penetrate)
G01 Z-0.125000 F400.0(Penetrate)
G01 X134.321083 Y195.005871 Z-0.125000 F800.000000
G01 X130.400675 Y177.759639 Z-0.125000
G01 X130.101169 Y156.892504 Z-0.125000
G01 X137.660515 Y128.166519 Z-0.125000
G01 X131.186692 Y113.473701 Z-0.125000
G01 X137.356112 Y86.137642 Z-0.125000
G01 X137.913763 Y64.413351 Z-0.125000
G00 Z3.000000

(End cutting path id: path22593)


(Start cutting path id: path22595)
(Change tool to Default tool)

G00 Z3.000000
G00 X132.848446 Y218.703480

G00 Z4.875000 (Fast pre-penetrate)
G01 Z-0.125000 F400.0(Penetrate)
G01 X135.224134 Y195.161152 Z-0.125000 F800.000000
G01 X131.328596 Y177.890049 Z-0.125000
G01 X130.704667 Y157.347338 Z-0.125000
G01 X138.898477 Y127.986888 Z-0.125000
G01 X132.710283 Y113.008442 Z-0.125000
G01 X138.668949 Y85.883137 Z-0.125000
G01 X138.628711 Y64.756734 Z-0.125000
G00 Z3.000000

(End cutting path id: path22595)


(Start cutting path id: path22597)
(Change tool to Default tool)

G00 Z3.000000
G00 X133.326164 Y219.284094

G00 Z4.875000 (Fast pre-penetrate)
G01 Z-0.125000 F400.0(Penetrate)
G01 X136.127185 Y195.316433 Z-0.125000 F800.000000
G01 X132.256521 Y178.020457 Z-0.125000
G01 X131.308163 Y157.802175 Z-0.125000
G01 X140.136440 Y127.807257 Z-0.125000
G01 X134.233876 Y112.543181 Z-0.125000
G01 X139.981783 Y85.628634 Z-0.125000
G01 X139.343662 Y65.100115 Z-0.125000
G00 Z3.000000

(End cutting path id: path22597)


(Start cutting path id: path22651)
(Change tool to Default tool)

G00 Z3.000000
G00 X163.637610 Y217.547612

G00 Z4.875000 (Fast pre-penetrate)
G01 Z-0.125000 F400.0(Penetrate)
G01 X170.589041 Y189.429540 Z-0.125000 F800.000000
G01 X165.994896 Y172.857046 Z-0.125000
G01 X157.680645 Y160.004656 Z-0.125000
G01 X167.361187 Y129.157475 Z-0.125000
G01 X164.485389 Y110.866632 Z-0.125000
G01 X166.297068 Y87.888313 Z-0.125000
G01 X163.176754 Y69.841988 Z-0.125000
G00 Z3.000000

(End cutting path id: path22651)


(Start cutting path id: path22649)
(Change tool to Default tool)

G00 Z3.000000
G00 X162.243413 Y217.883476

G00 Z4.875000 (Fast pre-penetrate)
G01 Z-0.125000 F400.0(Penetrate)
G01 X169.155491 Y189.804759 Z-0.125000 F800.000000
G01 X164.609897 Y173.183713 Z-0.125000
G01 X156.546724 Y160.080245 Z-0.125000
G01 X166.449553 Y129.010777 Z-0.125000
G01 X163.534716 Y110.758974 Z-0.125000
G01 X165.464825 Y87.662224 Z-0.125000
G01 X162.223413 Y69.736996 Z-0.125000
G00 Z3.000000

(End cutting path id: path22649)


(Start cutting path id: path22647)
(Change tool to Default tool)

G00 Z3.000000
G00 X160.849217 Y218.219341

G00 Z4.875000 (Fast pre-penetrate)
G01 Z-0.125000 F400.0(Penetrate)
G01 X167.721940 Y190.179977 Z-0.125000 F800.000000
G01 X163.224900 Y173.510378 Z-0.125000
G01 X155.412801 Y160.155837 Z-0.125000
G01 X165.537919 Y128.864079 Z-0.125000
G01 X162.584043 Y110.651315 Z-0.125000
G01 X164.632585 Y87.436133 Z-0.125000
G01 X161.270071 Y69.632007 Z-0.125000
G00 Z3.000000

(End cutting path id: path22647)


(Start cutting path id: path22645)
(Change tool to Default tool)

G00 Z3.000000
G00 X159.455023 Y218.555202

G00 Z4.875000 (Fast pre-penetrate)
G01 Z-0.125000 F400.0(Penetrate)
G01 X166.288390 Y190.555196 Z-0.125000 F800.000000
G01 X161.839900 Y173.837045 Z-0.125000
G01 X154.278880 Y160.231425 Z-0.125000
G01 X164.626285 Y128.717381 Z-0.125000
G01 X161.633372 Y110.543653 Z-0.125000
G01 X163.800341 Y87.210044 Z-0.125000
G01 X160.316730 Y69.527015 Z-0.125000
G00 Z3.000000

(End cutting path id: path22645)


(Start cutting path id: path22643)
(Change tool to Default tool)

G00 Z3.000000
G00 X158.060827 Y218.891066

G00 Z4.875000 (Fast pre-penetrate)
G01 Z-0.125000 F400.0(Penetrate)
G01 X164.854840 Y190.930414 Z-0.125000 F800.000000
G01 X160.454901 Y174.163713 Z-0.125000
G01 X153.144957 Y160.307017 Z-0.125000
G01 X163.714651 Y128.570683 Z-0.125000
G01 X160.682699 Y110.435994 Z-0.125000
G01 X162.968101 Y86.983953 Z-0.125000
G01 X159.363388 Y69.422026 Z-0.125000
G00 Z3.000000

(End cutting path id: path22643)


(Start cutting path id: path22641)
(Change tool to Default tool)

G00 Z3.000000
G00 X156.666631 Y219.226931

G00 Z4.875000 (Fast pre-penetrate)
G01 Z-0.125000 F400.0(Penetrate)
G01 X163.421289 Y191.305632 Z-0.125000 F800.000000
G01 X159.069902 Y174.490380 Z-0.125000
G01 X152.011036 Y160.382605 Z-0.125000
G01 X162.803017 Y128.423985 Z-0.125000
G01 X159.732026 Y110.328336 Z-0.125000
G01 X162.135858 Y86.757864 Z-0.125000
G01 X158.410047 Y69.317034 Z-0.125000
G00 Z3.000000

(End cutting path id: path22641)


(Start cutting path id: path22639)
(Change tool to Default tool)

G00 Z3.000000
G00 X155.272437 Y219.562792

G00 Z4.875000 (Fast pre-penetrate)
G01 Z-0.125000 F400.0(Penetrate)
G01 X161.987739 Y191.680851 Z-0.125000 F800.000000
G01 X157.684902 Y174.817047 Z-0.125000
G01 X150.877113 Y160.458197 Z-0.125000
G01 X161.891383 Y128.277287 Z-0.125000
G01 X158.781353 Y110.220677 Z-0.125000
G01 X161.303614 Y86.531775 Z-0.125000
G01 X157.456705 Y69.212045 Z-0.125000
G00 Z3.000000

(End cutting path id: path22639)


(Start cutting path id: path22637)
(Change tool to Default tool)

G00 Z3.000000
G00 X153.878241 Y219.898657

G00 Z4.875000 (Fast pre-penetrate)
G01 Z-0.125000 F400.0(Penetrate)
G01 X160.554188 Y192.056069 Z-0.125000 F800.000000
G01 X156.299903 Y175.143715 Z-0.125000
G01 X149.743192 Y160.533785 Z-0.125000
G01 X160.979749 Y128.130589 Z-0.125000
G01 X157.830682 Y110.113015 Z-0.125000
G01 X160.471374 Y86.305684 Z-0.125000
G01 X156.503364 Y69.107053 Z-0.125000
G00 Z3.000000

(End cutting path id: path22637)


(Start cutting path id: path22635)
(Change tool to Default tool)

G00 Z3.000000
G00 X152.484044 Y220.234521

G00 Z4.875000 (Fast pre-penetrate)
G01 Z-0.125000 F400.0(Penetrate)
G01 X159.120638 Y192.431287 Z-0.125000 F800.000000
G01 X154.914903 Y175.470382 Z-0.125000
G01 X148.609269 Y160.609377 Z-0.125000
G01 X160.068115 Y127.983890 Z-0.125000
G01 X156.880009 Y110.005357 Z-0.125000
G01 X159.639131 Y86.079595 Z-0.125000
G01 X155.550022 Y69.002064 Z-0.125000
G00 Z3.000000

(End cutting path id: path22635)


(Start cutting path id: path22633)
(Change tool to Default tool)

G00 Z3.000000
G00 X151.089851 Y220.570383

G00 Z4.875000 (Fast pre-penetrate)
G01 Z-0.125000 F400.0(Penetrate)
G01 X157.687090 Y192.806503 Z-0.125000 F800.000000
G01 X153.529904 Y175.797050 Z-0.125000
G01 X147.475348 Y160.684965 Z-0.125000
G01 X159.156481 Y127.837192 Z-0.125000
G01 X155.929336 Y109.897698 Z-0.125000
G01 X158.806888 Y85.853506 Z-0.125000
G01 X154.596681 Y68.897072 Z-0.125000
G00 Z3.000000

(End cutting path id: path22633)


(Start cutting path id: path22631)
(Change tool to Default tool)

G00 Z3.000000
G00 X149.695654 Y220.906247

G00 Z4.875000 (Fast pre-penetrate)
G01 Z-0.125000 F400.0(Penetrate)
G01 X156.253540 Y193.181722 Z-0.125000 F800.000000
G01 X152.144905 Y176.123717 Z-0.125000
G01 X146.341425 Y160.760557 Z-0.125000
G01 X158.244847 Y127.690494 Z-0.125000
G01 X154.978663 Y109.790039 Z-0.125000
G01 X157.974647 Y85.627414 Z-0.125000
G01 X153.643339 Y68.792083 Z-0.125000
G00 Z3.000000

(End cutting path id: path22631)


(Start cutting path id: path22599)
(Change tool to Default tool)

G00 Z3.000000
G00 X133.803879 Y219.864711

G00 Z4.875000 (Fast pre-penetrate)
G01 Z-0.125000 F400.0(Penetrate)
G01 X137.030236 Y195.471714 Z-0.125000 F800.000000
G01 X133.184445 Y178.150865 Z-0.125000
G01 X131.911658 Y158.257012 Z-0.125000
G01 X141.374403 Y127.627627 Z-0.125000
G01 X135.757467 Y112.077923 Z-0.125000
G01 X141.294618 Y85.374132 Z-0.125000
G01 X140.058613 Y65.443497 Z-0.125000
G00 Z3.000000

(End cutting path id: path22599)


(Start cutting path id: path22601)
(Change tool to Default tool)

G00 Z3.000000
G00 X134.281597 Y220.445325

G00 Z4.875000 (Fast pre-penetrate)
G01 Z-0.125000 F400.0(Penetrate)
G01 X137.933284 Y195.626998 Z-0.125000 F800.000000
G01 X134.112369 Y178.281272 Z-0.125000
G01 X132.515153 Y158.711848 Z-0.125000
G01 X142.612365 Y127.447996 Z-0.125000
G01 X137.281060 Y111.612661 Z-0.125000
G01 X142.607455 Y85.119627 Z-0.125000
G01 X140.773564 Y65.786878 Z-0.125000
G00 Z3.000000

(End cutting path id: path22601)


(Start cutting path id: path22555)
(Change tool to Default tool)

G00 Z3.000000
G00 X112.069907 Y218.315379

G00 Z4.875000 (Fast pre-penetrate)
G01 Z-0.125000 F400.0(Penetrate)
G01 X117.022443 Y192.196203 Z-0.125000 F800.000000
G01 X114.344625 Y173.707381 Z-0.125000
G01 X114.053803 Y152.831563 Z-0.125000
G01 X114.623093 Y131.095633 Z-0.125000
G01 X106.020952 Y118.531134 Z-0.125000
G01 X115.713281 Y87.672165 Z-0.125000
G01 X116.269551 Y65.949255 Z-0.125000
G00 Z3.000000

(End cutting path id: path22555)


(Start cutting path id: path22553)
(Change tool to Default tool)

G00 Z3.000000
G00 X110.345056 Y218.981898

G00 Z4.875000 (Fast pre-penetrate)
G01 Z-0.125000 F400.0(Penetrate)
G01 X116.103760 Y192.056553 Z-0.125000 F800.000000
G01 X113.591648 Y173.402026 Z-0.125000
G01 X112.941313 Y152.885720 Z-0.125000
G01 X113.438893 Y131.221500 Z-0.125000
G01 X104.917638 Y118.576115 Z-0.125000
G01 X114.767227 Y87.559886 Z-0.125000
G01 X114.659026 Y66.501448 Z-0.125000
G00 Z3.000000

(End cutting path id: path22553)


(Start cutting path id: path22551)
(Change tool to Default tool)

G00 Z3.000000
G00 X108.620205 Y219.648417

G00 Z4.875000 (Fast pre-penetrate)
G01 Z-0.125000 F400.0(Penetrate)
G01 X115.185078 Y191.916904 Z-0.125000 F800.000000
G01 X112.838668 Y173.096673 Z-0.125000
G01 X111.828824 Y152.939878 Z-0.125000
G01 X112.254694 Y131.347367 Z-0.125000
G01 X103.814327 Y118.621094 Z-0.125000
G01 X113.821176 Y87.447605 Z-0.125000
G01 X113.048504 Y67.053638 Z-0.125000
G00 Z3.000000

(End cutting path id: path22551)


(Start cutting path id: path22549)
(Change tool to Default tool)

G00 Z3.000000
G00 X106.895351 Y220.314938

G00 Z4.875000 (Fast pre-penetrate)
G01 Z-0.125000 F400.0(Penetrate)
G01 X114.266395 Y191.777254 Z-0.125000 F800.000000
G01 X112.085689 Y172.791320 Z-0.125000
G01 X110.716334 Y152.994035 Z-0.125000
G01 X111.070495 Y131.473235 Z-0.125000
G01 X102.711013 Y118.666076 Z-0.125000
G01 X112.875123 Y87.335327 Z-0.125000
G01 X111.437979 Y67.605830 Z-0.125000
G00 Z3.000000

(End cutting path id: path22549)


(Start cutting path id: path22547)
(Change tool to Default tool)

G00 Z3.000000
G00 X105.170500 Y220.981457

G00 Z4.875000 (Fast pre-penetrate)
G01 Z-0.125000 F400.0(Penetrate)
G01 X113.347713 Y191.637605 Z-0.125000 F800.000000
G01 X111.332710 Y172.485968 Z-0.125000
G01 X109.603842 Y153.048195 Z-0.125000
G01 X109.886295 Y131.599102 Z-0.125000
G01 X101.607700 Y118.711058 Z-0.125000
G01 X111.929069 Y87.223048 Z-0.125000
G01 X109.827457 Y68.158020 Z-0.125000
G00 Z3.000000

(End cutting path id: path22547)


(Start cutting path id: path22545)
(Change tool to Default tool)

G00 Z3.000000
G00 X103.445649 Y221.647976

G00 Z4.875000 (Fast pre-penetrate)
G01 Z-0.125000 F400.0(Penetrate)
G01 X112.429030 Y191.497955 Z-0.125000 F800.000000
G01 X110.579733 Y172.180613 Z-0.125000
G01 X108.491353 Y153.102353 Z-0.125000
G01 X108.702096 Y131.724970 Z-0.125000
G01 X100.504386 Y118.756040 Z-0.125000
G01 X110.983016 Y87.110770 Z-0.125000
G01 X108.216935 Y68.710210 Z-0.125000
G00 Z3.000000

(End cutting path id: path22545)


(Start cutting path id: path22543)
(Change tool to Default tool)

G00 Z3.000000
G00 X101.720798 Y222.314495

G00 Z4.875000 (Fast pre-penetrate)
G01 Z-0.125000 F400.0(Penetrate)
G01 X111.510351 Y191.358303 Z-0.125000 F800.000000
G01 X109.826753 Y171.875260 Z-0.125000
G01 X107.378863 Y153.156510 Z-0.125000
G01 X107.517896 Y131.850837 Z-0.125000
G01 X99.401072 Y118.801022 Z-0.125000
G01 X110.036965 Y86.998489 Z-0.125000
G01 X106.606411 Y69.262403 Z-0.125000
G00 Z3.000000

(End cutting path id: path22543)


(Start cutting path id: path22541)
(Change tool to Default tool)

G00 Z3.000000
G00 X99.995947 Y222.981014

G00 Z4.875000 (Fast pre-penetrate)
G01 Z-0.125000 F400.0(Penetrate)
G01 X110.591668 Y191.218653 Z-0.125000 F800.000000
G01 X109.073774 Y171.569907 Z-0.125000
G01 X106.266374 Y153.210668 Z-0.125000
G01 X106.333697 Y131.976705 Z-0.125000
G01 X98.297758 Y118.846003 Z-0.125000
G01 X109.090911 Y86.886210 Z-0.125000
G01 X104.995889 Y69.814593 Z-0.125000
G00 Z3.000000

(End cutting path id: path22541)


(Start cutting path id: path22539)
(Change tool to Default tool)

G00 Z3.000000
G00 X98.271096 Y223.647533

G00 Z4.875000 (Fast pre-penetrate)
G01 Z-0.125000 F400.0(Penetrate)
G01 X109.672986 Y191.079004 Z-0.125000 F800.000000
G01 X108.320797 Y171.264552 Z-0.125000
G01 X105.153884 Y153.264825 Z-0.125000
G01 X105.149492 Y132.102572 Z-0.125000
G01 X97.194442 Y118.890982 Z-0.125000
G01 X108.144852 Y86.773932 Z-0.125000
G01 X103.385361 Y70.366783 Z-0.125000
G00 Z3.000000

(End cutting path id: path22539)


(Start cutting path id: path22493)
(Change tool to Default tool)

G00 Z3.000000
G00 X76.368434 Y221.208560

G00 Z4.875000 (Fast pre-penetrate)
G01 Z-0.125000 F400.0(Penetrate)
G01 X81.819714 Y194.590639 Z-0.125000 F800.000000
G01 X83.357457 Y171.886256 Z-0.125000
G01 X83.050827 Y151.026247 Z-0.125000
G01 X84.390961 Y128.519473 Z-0.125000
G01 X82.580634 Y109.163160 Z-0.125000
G01 X82.987081 Y87.590073 Z-0.125000
G01 X81.893030 Y67.517483 Z-0.125000
G00 Z3.000000

(End cutting path id: path22493)


(Start cutting path id: path22403)
(Change tool to Default tool)

G00 Z3.000000
G00 X36.265377 Y213.686677

G00 Z4.875000 (Fast pre-penetrate)
G01 Z-0.125000 F400.0(Penetrate)
G01 X32.868565 Y195.916848 Z-0.125000 F800.000000
G01 X29.993244 Y177.625530 Z-0.125000
G01 X36.942757 Y149.509376 Z-0.125000
G01 X28.973200 Y136.312294 Z-0.125000
G01 X33.085341 Y111.033513 Z-0.125000
G01 X34.280428 Y88.671786 Z-0.125000
G01 X29.378570 Y72.407004 Z-0.125000
G00 Z3.000000

(End cutting path id: path22403)


(Start cutting path id: path22373)
(Change tool to Default tool)

G00 Z3.000000
G00 X24.171502 Y209.905571

G00 Z4.875000 (Fast pre-penetrate)
G01 Z-0.125000 F400.0(Penetrate)
G01 X10.546010 Y202.364424 Z-0.125000 F800.000000
G01 X9.768757 Y181.975036 Z-0.125000
G01 X21.037974 Y149.539179 Z-0.125000
G01 X12.244131 Y137.166384 Z-0.125000
G01 X11.813945 Y116.429929 Z-0.125000
G01 X22.647883 Y84.429351 Z-0.125000
G01 X22.359567 Y63.551027 Z-0.125000
G00 Z3.000000

(End cutting path id: path22373)


(Start cutting path id: path22375)
(Change tool to Default tool)

G00 Z3.000000
G00 X24.977761 Y210.157645

G00 Z4.875000 (Fast pre-penetrate)
G01 Z-0.125000 F400.0(Penetrate)
G01 X12.034180 Y201.934585 Z-0.125000 F800.000000
G01 X11.117056 Y181.685069 Z-0.125000
G01 X22.098293 Y149.537192 Z-0.125000
G01 X13.359402 Y137.109443 Z-0.125000
G01 X13.232038 Y116.070168 Z-0.125000
G01 X23.423386 Y84.712180 Z-0.125000
G01 X22.827500 Y64.141425 Z-0.125000
G00 Z3.000000

(End cutting path id: path22375)


(Start cutting path id: path22377)
(Change tool to Default tool)

G00 Z3.000000
G00 X25.784019 Y210.409718

G00 Z4.875000 (Fast pre-penetrate)
G01 Z-0.125000 F400.0(Penetrate)
G01 X13.522351 Y201.504746 Z-0.125000 F800.000000
G01 X12.465355 Y181.395102 Z-0.125000
G01 X23.158612 Y149.535205 Z-0.125000
G01 X14.474673 Y137.052505 Z-0.125000
G01 X14.650131 Y115.710406 Z-0.125000
G01 X24.198889 Y84.995008 Z-0.125000
G01 X23.295434 Y64.731824 Z-0.125000
G00 Z3.000000

(End cutting path id: path22377)


(Start cutting path id: path22379)
(Change tool to Default tool)

G00 Z3.000000
G00 X26.590278 Y210.661792

G00 Z4.875000 (Fast pre-penetrate)
G01 Z-0.125000 F400.0(Penetrate)
G01 X15.010521 Y201.074910 Z-0.125000 F800.000000
G01 X13.813654 Y181.105135 Z-0.125000
G01 X24.218931 Y149.533218 Z-0.125000
G01 X15.589944 Y136.995566 Z-0.125000
G01 X16.068224 Y115.350645 Z-0.125000
G01 X24.974390 Y85.277839 Z-0.125000
G01 X23.763367 Y65.322222 Z-0.125000
G00 Z3.000000

(End cutting path id: path22379)


(Start cutting path id: path22381)
(Change tool to Default tool)

G00 Z3.000000
G00 X27.396536 Y210.913865

G00 Z4.875000 (Fast pre-penetrate)
G01 Z-0.125000 F400.0(Penetrate)
G01 X16.498691 Y200.645071 Z-0.125000 F800.000000
G01 X15.161953 Y180.815168 Z-0.125000
G01 X25.279250 Y149.531231 Z-0.125000
G01 X16.705215 Y136.938625 Z-0.125000
G01 X17.486317 Y114.990883 Z-0.125000
G01 X25.749893 Y85.560668 Z-0.125000
G01 X24.231301 Y65.912621 Z-0.125000
G00 Z3.000000

(End cutting path id: path22381)


(Start cutting path id: path22383)
(Change tool to Default tool)

G00 Z3.000000
G00 X28.202792 Y211.165941

G00 Z4.875000 (Fast pre-penetrate)
G01 Z-0.125000 F400.0(Penetrate)
G01 X17.986861 Y200.215232 Z-0.125000 F800.000000
G01 X16.510253 Y180.525201 Z-0.125000
G01 X26.339570 Y149.529244 Z-0.125000
G01 X17.820487 Y136.881687 Z-0.125000
G01 X18.904410 Y114.631125 Z-0.125000
G01 X26.525397 Y85.843497 Z-0.125000
G01 X24.699234 Y66.503019 Z-0.125000
G00 Z3.000000

(End cutting path id: path22383)


(Start cutting path id: path22385)
(Change tool to Default tool)

G00 Z3.000000
G00 X29.009051 Y211.418015

G00 Z4.875000 (Fast pre-penetrate)
G01 Z-0.125000 F400.0(Penetrate)
G01 X19.475032 Y199.785393 Z-0.125000 F800.000000
G01 X17.858552 Y180.235234 Z-0.125000
G01 X27.399889 Y149.527257 Z-0.125000
G01 X18.935758 Y136.824749 Z-0.125000
G01 X20.322502 Y114.271363 Z-0.125000
G01 X27.300900 Y86.126325 Z-0.125000
G01 X25.167168 Y67.093418 Z-0.125000
G00 Z3.000000

(End cutting path id: path22385)


(Start cutting path id: path22387)
(Change tool to Default tool)

G00 Z3.000000
G00 X29.815309 Y211.670088

G00 Z4.875000 (Fast pre-penetrate)
G01 Z-0.125000 F400.0(Penetrate)
G01 X20.963203 Y199.355554 Z-0.125000 F800.000000
G01 X19.206851 Y179.945266 Z-0.125000
G01 X28.460208 Y149.525270 Z-0.125000
G01 X20.051030 Y136.767808 Z-0.125000
G01 X21.740596 Y113.911602 Z-0.125000
G01 X28.076403 Y86.409154 Z-0.125000
G01 X25.635101 Y67.683816 Z-0.125000
G00 Z3.000000

(End cutting path id: path22387)


(Start cutting path id: path22389)
(Change tool to Default tool)

G00 Z3.000000
G00 X30.621568 Y211.922162

G00 Z4.875000 (Fast pre-penetrate)
G01 Z-0.125000 F400.0(Penetrate)
G01 X22.451372 Y198.925718 Z-0.125000 F800.000000
G01 X20.555150 Y179.655299 Z-0.125000
G01 X29.520527 Y149.523283 Z-0.125000
G01 X21.166300 Y136.710870 Z-0.125000
G01 X23.158689 Y113.551840 Z-0.125000
G01 X28.851907 Y86.691983 Z-0.125000
G01 X26.103035 Y68.274215 Z-0.125000
G00 Z3.000000

(End cutting path id: path22389)


(Start cutting path id: path22391)
(Change tool to Default tool)

G00 Z3.000000
G00 X31.427826 Y212.174235

G00 Z4.875000 (Fast pre-penetrate)
G01 Z-0.125000 F400.0(Penetrate)
G01 X23.939542 Y198.495879 Z-0.125000 F800.000000
G01 X21.903449 Y179.365332 Z-0.125000
G01 X30.580846 Y149.521296 Z-0.125000
G01 X22.281573 Y136.653929 Z-0.125000
G01 X24.576783 Y113.192079 Z-0.125000
G01 X29.627410 Y86.974811 Z-0.125000
G01 X26.570969 Y68.864613 Z-0.125000
G00 Z3.000000

(End cutting path id: path22391)


(Start cutting path id: path22393)
(Change tool to Default tool)

G00 Z3.000000
G00 X32.234085 Y212.426309

G00 Z4.875000 (Fast pre-penetrate)
G01 Z-0.125000 F400.0(Penetrate)
G01 X25.427713 Y198.066040 Z-0.125000 F800.000000
G01 X23.251748 Y179.075365 Z-0.125000
G01 X31.641165 Y149.519309 Z-0.125000
G01 X23.396843 Y136.596991 Z-0.125000
G01 X25.994873 Y112.832320 Z-0.125000
G01 X30.402914 Y87.257640 Z-0.125000
G01 X27.038902 Y69.455011 Z-0.125000
G00 Z3.000000

(End cutting path id: path22393)


(Start cutting path id: path22395)
(Change tool to Default tool)

G00 Z3.000000
G00 X33.040343 Y212.678382

G00 Z4.875000 (Fast pre-penetrate)
G01 Z-0.125000 F400.0(Penetrate)
G01 X26.915884 Y197.636201 Z-0.125000 F800.000000
G01 X24.600047 Y178.785398 Z-0.125000
G01 X32.701484 Y149.517322 Z-0.125000
G01 X24.512113 Y136.540052 Z-0.125000
G01 X27.412967 Y112.472559 Z-0.125000
G01 X31.178414 Y87.540471 Z-0.125000
G01 X27.506836 Y70.045410 Z-0.125000
G00 Z3.000000

(End cutting path id: path22395)


(Start cutting path id: path22397)
(Change tool to Default tool)

G00 Z3.000000
G00 X33.846601 Y212.930456

G00 Z4.875000 (Fast pre-penetrate)
G01 Z-0.125000 F400.0(Penetrate)
G01 X28.404055 Y197.206362 Z-0.125000 F800.000000
G01 X25.948347 Y178.495431 Z-0.125000
G01 X33.761803 Y149.515335 Z-0.125000
G01 X25.627386 Y136.483111 Z-0.125000
G01 X28.831060 Y112.112797 Z-0.125000
G01 X31.953918 Y87.823300 Z-0.125000
G01 X27.974769 Y70.635808 Z-0.125000
G00 Z3.000000

(End cutting path id: path22397)


(Start cutting path id: path22399)
(Change tool to Default tool)

G00 Z3.000000
G00 X34.652860 Y213.182530

G00 Z4.875000 (Fast pre-penetrate)
G01 Z-0.125000 F400.0(Penetrate)
G01 X29.892223 Y196.776526 Z-0.125000 F800.000000
G01 X27.296646 Y178.205464 Z-0.125000
G01 X34.822122 Y149.513348 Z-0.125000
G01 X26.742656 Y136.426173 Z-0.125000
G01 X30.249154 Y111.753036 Z-0.125000
G01 X32.729421 Y88.106129 Z-0.125000
G01 X28.442703 Y71.226207 Z-0.125000
G00 Z3.000000

(End cutting path id: path22399)


(Start cutting path id: path22401)
(Change tool to Default tool)

G00 Z3.000000
G00 X35.459118 Y213.434603

G00 Z4.875000 (Fast pre-penetrate)
G01 Z-0.125000 F400.0(Penetrate)
G01 X31.380394 Y196.346687 Z-0.125000 F800.000000
G01 X28.644945 Y177.915497 Z-0.125000
G01 X35.882441 Y149.511361 Z-0.125000
G01 X27.857927 Y136.369235 Z-0.125000
G01 X31.667247 Y111.393274 Z-0.125000
G01 X33.504924 Y88.388957 Z-0.125000
G01 X28.910636 Y71.816605 Z-0.125000
G00 Z3.000000

(End cutting path id: path22401)


(Start cutting path id: path22405)
(Change tool to Default tool)

G00 Z3.000000
G00 X37.071635 Y213.938750

G00 Z4.875000 (Fast pre-penetrate)
G01 Z-0.125000 F400.0(Penetrate)
G01 X34.356736 Y195.487009 Z-0.125000 F800.000000
G01 X31.341543 Y177.335563 Z-0.125000
G01 X38.003076 Y149.507389 Z-0.125000
G01 X30.088470 Y136.255356 Z-0.125000
G01 X34.503431 Y110.673754 Z-0.125000
G01 X35.055931 Y88.954614 Z-0.125000
G01 X29.846503 Y72.997402 Z-0.125000
G00 Z3.000000

(End cutting path id: path22405)


(Start cutting path id: path22407)
(Change tool to Default tool)

G00 Z3.000000
G00 X37.877894 Y214.190824

G00 Z4.875000 (Fast pre-penetrate)
G01 Z-0.125000 F400.0(Penetrate)
G01 X35.844907 Y195.057171 Z-0.125000 F800.000000
G01 X32.689842 Y177.045596 Z-0.125000
G01 X39.063395 Y149.505402 Z-0.125000
G01 X31.203740 Y136.198417 Z-0.125000
G01 X35.921525 Y110.313993 Z-0.125000
G01 X35.831434 Y89.237443 Z-0.125000
G01 X30.314437 Y73.587801 Z-0.125000
G00 Z3.000000

(End cutting path id: path22407)


(Start cutting path id: path22409)
(Change tool to Default tool)

G00 Z3.000000
G00 X38.684152 Y214.442897

G00 Z4.875000 (Fast pre-penetrate)
G01 Z-0.125000 F400.0(Penetrate)
G01 X37.333075 Y194.627334 Z-0.125000 F800.000000
G01 X34.038141 Y176.755628 Z-0.125000
G01 X40.123714 Y149.503415 Z-0.125000
G01 X32.319013 Y136.141476 Z-0.125000
G01 X37.339618 Y109.954231 Z-0.125000
G01 X36.606938 Y89.520272 Z-0.125000
G01 X30.782371 Y74.178199 Z-0.125000
G00 Z3.000000

(End cutting path id: path22409)


(Start cutting path id: path22411)
(Change tool to Default tool)

G00 Z3.000000
G00 X39.490411 Y214.694971

G00 Z4.875000 (Fast pre-penetrate)
G01 Z-0.125000 F400.0(Penetrate)
G01 X38.821246 Y194.197495 Z-0.125000 F800.000000
G01 X35.386440 Y176.465661 Z-0.125000
G01 X41.184033 Y149.501428 Z-0.125000
G01 X33.434283 Y136.084538 Z-0.125000
G01 X38.757712 Y109.594470 Z-0.125000
G01 X37.382438 Y89.803103 Z-0.125000
G01 X31.250304 Y74.768597 Z-0.125000
G00 Z3.000000

(End cutting path id: path22411)


(Start cutting path id: path22413)
(Change tool to Default tool)

G00 Z3.000000
G00 X40.296669 Y214.947044

G00 Z4.875000 (Fast pre-penetrate)
G01 Z-0.125000 F400.0(Penetrate)
G01 X40.309422 Y193.767657 Z-0.125000 F800.000000
G01 X36.734745 Y176.175694 Z-0.125000
G01 X42.244357 Y149.499441 Z-0.125000
G01 X34.549561 Y136.027597 Z-0.125000
G01 X40.175810 Y109.234708 Z-0.125000
G01 X38.157947 Y90.085932 Z-0.125000
G01 X31.718243 Y75.358996 Z-0.125000
G00 Z3.000000

(End cutting path id: path22413)


(Start cutting path id: path22415)
(Change tool to Default tool)

G00 Z3.000000
G00 X41.030326 Y215.271719

G00 Z4.875000 (Fast pre-penetrate)
G01 Z-0.125000 F400.0(Penetrate)
G01 X41.552798 Y193.582607 Z-0.125000 F800.000000
G01 X38.124618 Y175.844148 Z-0.125000
G01 X43.308984 Y149.493142 Z-0.125000
G01 X35.669700 Y135.965785 Z-0.125000
G01 X40.876543 Y109.592303 Z-0.125000
G01 X39.054135 Y90.248071 Z-0.125000
G01 X33.089503 Y75.046063 Z-0.125000
G00 Z3.000000

(End cutting path id: path22415)


(Start cutting path id: path22417)
(Change tool to Default tool)

G00 Z3.000000
G00 X41.763983 Y215.596394

G00 Z4.875000 (Fast pre-penetrate)
G01 Z-0.125000 F400.0(Penetrate)
G01 X42.796182 Y193.397555 Z-0.125000 F800.000000
G01 X39.514493 Y175.512604 Z-0.125000
G01 X44.373613 Y149.486845 Z-0.125000
G01 X36.789847 Y135.903971 Z-0.125000
G01 X41.577280 Y109.949897 Z-0.125000
G01 X39.950328 Y90.410210 Z-0.125000
G01 X34.460765 Y74.733133 Z-0.125000
G00 Z3.000000

(End cutting path id: path22417)


(Start cutting path id: path22419)
(Change tool to Default tool)

G00 Z3.000000
G00 X42.497637 Y215.921072

G00 Z4.875000 (Fast pre-penetrate)
G01 Z-0.125000 F400.0(Penetrate)
G01 X44.039564 Y193.212506 Z-0.125000 F800.000000
G01 X40.904372 Y175.181058 Z-0.125000
G01 X45.438245 Y149.480545 Z-0.125000
G01 X37.909990 Y135.842159 Z-0.125000
G01 X42.278020 Y110.307489 Z-0.125000
G01 X40.846520 Y90.572349 Z-0.125000
G01 X35.832027 Y74.420202 Z-0.125000
G00 Z3.000000

(End cutting path id: path22419)


(Start cutting path id: path22421)
(Change tool to Default tool)

G00 Z3.000000
G00 X43.231294 Y216.245747

G00 Z4.875000 (Fast pre-penetrate)
G01 Z-0.125000 F400.0(Penetrate)
G01 X45.282945 Y193.027456 Z-0.125000 F800.000000
G01 X42.294247 Y174.849514 Z-0.125000
G01 X46.502874 Y149.474248 Z-0.125000
G01 X39.030137 Y135.780344 Z-0.125000
G01 X42.978758 Y110.665084 Z-0.125000
G01 X41.742713 Y90.734488 Z-0.125000
G01 X37.203289 Y74.107272 Z-0.125000
G00 Z3.000000

(End cutting path id: path22421)


(Start cutting path id: path22423)
(Change tool to Default tool)

G00 Z3.000000
G00 X43.964951 Y216.570422

G00 Z4.875000 (Fast pre-penetrate)
G01 Z-0.125000 F400.0(Penetrate)
G01 X46.526329 Y192.842404 Z-0.125000 F800.000000
G01 X43.684123 Y174.517971 Z-0.125000
G01 X47.567505 Y149.467948 Z-0.125000
G01 X40.150284 Y135.718530 Z-0.125000
G01 X43.679495 Y111.022678 Z-0.125000
G01 X42.638906 Y90.896627 Z-0.125000
G01 X38.574554 Y73.794339 Z-0.125000
G00 Z3.000000

(End cutting path id: path22423)


(Start cutting path id: path22425)
(Change tool to Default tool)

G00 Z3.000000
G00 X44.698608 Y216.895097

G00 Z4.875000 (Fast pre-penetrate)
G01 Z-0.125000 F400.0(Penetrate)
G01 X47.769710 Y192.657355 Z-0.125000 F800.000000
G01 X45.074001 Y174.186424 Z-0.125000
G01 X48.632135 Y149.461651 Z-0.125000
G01 X41.270427 Y135.656718 Z-0.125000
G01 X44.380233 Y111.380273 Z-0.125000
G01 X43.535099 Y91.058766 Z-0.125000
G01 X39.945816 Y73.481409 Z-0.125000
G00 Z3.000000

(End cutting path id: path22425)


(Start cutting path id: path22427)
(Change tool to Default tool)

G00 Z3.000000
G00 X45.432265 Y217.219772

G00 Z4.875000 (Fast pre-penetrate)
G01 Z-0.125000 F400.0(Penetrate)
G01 X49.013092 Y192.472306 Z-0.125000 F800.000000
G01 X46.463877 Y173.854881 Z-0.125000
G01 X49.696766 Y149.455351 Z-0.125000
G01 X42.390574 Y135.594904 Z-0.125000
G01 X45.080973 Y111.737865 Z-0.125000
G01 X44.431295 Y91.220903 Z-0.125000
G01 X41.317079 Y73.168479 Z-0.125000
G00 Z3.000000

(End cutting path id: path22427)


(Start cutting path id: path22429)
(Change tool to Default tool)

G00 Z3.000000
G00 X46.165922 Y217.544448

G00 Z4.875000 (Fast pre-penetrate)
G01 Z-0.125000 F400.0(Penetrate)
G01 X50.256476 Y192.287254 Z-0.125000 F800.000000
G01 X47.853755 Y173.523334 Z-0.125000
G01 X50.761395 Y149.449054 Z-0.125000
G01 X43.510720 Y135.533089 Z-0.125000
G01 X45.781710 Y112.095459 Z-0.125000
G01 X45.327488 Y91.383042 Z-0.125000
G01 X42.688341 Y72.855549 Z-0.125000
G00 Z3.000000

(End cutting path id: path22429)


(Start cutting path id: path22431)
(Change tool to Default tool)

G00 Z3.000000
G00 X46.899579 Y217.869123

G00 Z4.875000 (Fast pre-penetrate)
G01 Z-0.125000 F400.0(Penetrate)
G01 X51.499857 Y192.102204 Z-0.125000 F800.000000
G01 X49.243631 Y173.191791 Z-0.125000
G01 X51.826024 Y149.442757 Z-0.125000
G01 X44.630864 Y135.471277 Z-0.125000
G01 X46.482448 Y112.453054 Z-0.125000
G01 X46.223680 Y91.545181 Z-0.125000
G01 X44.059606 Y72.542616 Z-0.125000
G00 Z3.000000

(End cutting path id: path22431)


(Start cutting path id: path22433)
(Change tool to Default tool)

G00 Z3.000000
G00 X47.633233 Y218.193800

G00 Z4.875000 (Fast pre-penetrate)
G01 Z-0.125000 F400.0(Penetrate)
G01 X52.743238 Y191.917155 Z-0.125000 F800.000000
G01 X50.633509 Y172.860244 Z-0.125000
G01 X52.890656 Y149.436457 Z-0.125000
G01 X45.751011 Y135.409463 Z-0.125000
G01 X47.183188 Y112.810645 Z-0.125000
G01 X47.119873 Y91.707320 Z-0.125000
G01 X45.430868 Y72.229685 Z-0.125000
G00 Z3.000000

(End cutting path id: path22433)


(Start cutting path id: path22435)
(Change tool to Default tool)

G00 Z3.000000
G00 X48.366890 Y218.518475

G00 Z4.875000 (Fast pre-penetrate)
G01 Z-0.125000 F400.0(Penetrate)
G01 X53.986622 Y191.732103 Z-0.125000 F800.000000
G01 X52.023385 Y172.528701 Z-0.125000
G01 X53.955285 Y149.430160 Z-0.125000
G01 X46.871155 Y135.347651 Z-0.125000
G01 X47.883926 Y113.168240 Z-0.125000
G01 X48.016066 Y91.869459 Z-0.125000
G01 X46.802130 Y71.916755 Z-0.125000
G00 Z3.000000

(End cutting path id: path22435)


(Start cutting path id: path22437)
(Change tool to Default tool)

G00 Z3.000000
G00 X49.100547 Y218.843151

G00 Z4.875000 (Fast pre-penetrate)
G01 Z-0.125000 F400.0(Penetrate)
G01 X55.230004 Y191.547054 Z-0.125000 F800.000000
G01 X53.413263 Y172.197154 Z-0.125000
G01 X55.019917 Y149.423861 Z-0.125000
G01 X47.991301 Y135.285836 Z-0.125000
G01 X48.584663 Y113.525834 Z-0.125000
G01 X48.912259 Y92.031598 Z-0.125000
G01 X48.173393 Y71.603825 Z-0.125000
G00 Z3.000000

(End cutting path id: path22437)


(Start cutting path id: path22439)
(Change tool to Default tool)

G00 Z3.000000
G00 X49.834204 Y219.167826

G00 Z4.875000 (Fast pre-penetrate)
G01 Z-0.125000 F400.0(Penetrate)
G01 X56.473385 Y191.362004 Z-0.125000 F800.000000
G01 X54.803139 Y171.865611 Z-0.125000
G01 X56.084546 Y149.417564 Z-0.125000
G01 X49.111448 Y135.224022 Z-0.125000
G01 X49.285403 Y113.883426 Z-0.125000
G01 X49.808452 Y92.193737 Z-0.125000
G01 X49.544657 Y71.290892 Z-0.125000
G00 Z3.000000

(End cutting path id: path22439)


(Start cutting path id: path22441)
(Change tool to Default tool)

G00 Z3.000000
G00 X50.567861 Y219.492501

G00 Z4.875000 (Fast pre-penetrate)
G01 Z-0.125000 F400.0(Penetrate)
G01 X57.716769 Y191.176952 Z-0.125000 F800.000000
G01 X56.193017 Y171.534064 Z-0.125000
G01 X57.149178 Y149.411264 Z-0.125000
G01 X50.231592 Y135.162210 Z-0.125000
G01 X49.986141 Y114.241021 Z-0.125000
G01 X50.704645 Y92.355877 Z-0.125000
G01 X50.915920 Y70.977962 Z-0.125000
G00 Z3.000000

(End cutting path id: path22441)


(Start cutting path id: path22443)
(Change tool to Default tool)

G00 Z3.000000
G00 X51.301518 Y219.817176

G00 Z4.875000 (Fast pre-penetrate)
G01 Z-0.125000 F400.0(Penetrate)
G01 X58.960150 Y190.991903 Z-0.125000 F800.000000
G01 X57.582893 Y171.202521 Z-0.125000
G01 X58.213807 Y149.404967 Z-0.125000
G01 X51.351738 Y135.100395 Z-0.125000
G01 X50.686878 Y114.598615 Z-0.125000
G01 X51.600838 Y92.518016 Z-0.125000
G01 X52.287182 Y70.665032 Z-0.125000
G00 Z3.000000

(End cutting path id: path22443)


(Start cutting path id: path22445)
(Change tool to Default tool)

G00 Z3.000000
G00 X52.035175 Y220.141851

G00 Z4.875000 (Fast pre-penetrate)
G01 Z-0.125000 F400.0(Penetrate)
G01 X60.203532 Y190.806854 Z-0.125000 F800.000000
G01 X58.972771 Y170.870974 Z-0.125000
G01 X59.278439 Y149.398667 Z-0.125000
G01 X52.471882 Y135.038583 Z-0.125000
G01 X51.387618 Y114.956207 Z-0.125000
G01 X52.497031 Y92.680155 Z-0.125000
G01 X53.658444 Y70.352101 Z-0.125000
G00 Z3.000000

(End cutting path id: path22445)


(Start cutting path id: path22447)
(Change tool to Default tool)

G00 Z3.000000
G00 X52.768832 Y220.466526

G00 Z4.875000 (Fast pre-penetrate)
G01 Z-0.125000 F400.0(Penetrate)
G01 X61.446916 Y190.621802 Z-0.125000 F800.000000
G01 X60.362647 Y170.539431 Z-0.125000
G01 X60.343068 Y149.392370 Z-0.125000
G01 X53.592029 Y134.976769 Z-0.125000
G01 X52.088356 Y115.313802 Z-0.125000
G01 X53.393224 Y92.842294 Z-0.125000
G01 X55.029709 Y70.039168 Z-0.125000
G00 Z3.000000

(End cutting path id: path22447)


(Start cutting path id: path22449)
(Change tool to Default tool)

G00 Z3.000000
G00 X53.502486 Y220.791204

G00 Z4.875000 (Fast pre-penetrate)
G01 Z-0.125000 F400.0(Penetrate)
G01 X62.690297 Y190.436752 Z-0.125000 F800.000000
G01 X61.752525 Y170.207884 Z-0.125000
G01 X61.407699 Y149.386070 Z-0.125000
G01 X54.712175 Y134.914954 Z-0.125000
G01 X52.789093 Y115.671396 Z-0.125000
G01 X54.289416 Y93.004433 Z-0.125000
G01 X56.400971 Y69.726238 Z-0.125000
G00 Z3.000000

(End cutting path id: path22449)


(Start cutting path id: path22451)
(Change tool to Default tool)

G00 Z3.000000
G00 X54.236143 Y221.115879

G00 Z4.875000 (Fast pre-penetrate)
G01 Z-0.125000 F400.0(Penetrate)
G01 X63.933679 Y190.251703 Z-0.125000 F800.000000
G01 X63.142401 Y169.876341 Z-0.125000
G01 X62.472328 Y149.379773 Z-0.125000
G01 X55.832319 Y134.853142 Z-0.125000
G01 X53.489833 Y116.028988 Z-0.125000
G01 X55.185609 Y93.166572 Z-0.125000
G01 X57.772234 Y69.413308 Z-0.125000
G00 Z3.000000

(End cutting path id: path22451)


(Start cutting path id: path22461)
(Change tool to Default tool)

G00 Z3.000000
G00 X59.249528 Y221.394154

G00 Z4.875000 (Fast pre-penetrate)
G01 Z-0.125000 F400.0(Penetrate)
G01 X68.505591 Y190.971451 Z-0.125000 F800.000000
G01 X68.297314 Y170.013088 Z-0.125000
G01 X67.439731 Y149.704030 Z-0.125000
G01 X62.440166 Y133.536956 Z-0.125000
G01 X59.868583 Y114.941899 Z-0.125000
G01 X61.462857 Y92.180985 Z-0.125000
G01 X63.693403 Y68.783799 Z-0.125000
G00 Z3.000000

(End cutting path id: path22461)


(Start cutting path id: path22473)
(Change tool to Default tool)

G00 Z3.000000
G00 X65.669118 Y221.324555

G00 Z4.875000 (Fast pre-penetrate)
G01 Z-0.125000 F400.0(Penetrate)
G01 X73.498388 Y192.328645 Z-0.125000 F800.000000
G01 X73.944867 Y170.715527 Z-0.125000
G01 X73.293892 Y150.199861 Z-0.125000
G01 X70.671713 Y131.655400 Z-0.125000
G01 X68.385602 Y112.774871 Z-0.125000
G01 X69.534443 Y90.459391 Z-0.125000
G01 X70.518263 Y68.308930 Z-0.125000
G00 Z3.000000

(End cutting path id: path22473)


(Start cutting path id: path22485)
(Change tool to Default tool)

G00 Z3.000000
G00 X72.088709 Y221.254957

G00 Z4.875000 (Fast pre-penetrate)
G01 Z-0.125000 F400.0(Penetrate)
G01 X78.491183 Y193.685842 Z-0.125000 F800.000000
G01 X79.592420 Y171.417965 Z-0.125000
G01 X79.148053 Y150.695693 Z-0.125000
G01 X78.903263 Y129.773842 Z-0.125000
G01 X76.902622 Y110.607844 Z-0.125000
G01 X77.606026 Y88.737799 Z-0.125000
G01 X77.343123 Y67.834062 Z-0.125000
G00 Z3.000000

(End cutting path id: path22485)


(Start cutting path id: path22491)
(Change tool to Default tool)

G00 Z3.000000
G00 X75.298503 Y221.220159

G00 Z4.875000 (Fast pre-penetrate)
G01 Z-0.125000 F400.0(Penetrate)
G01 X80.987582 Y194.364439 Z-0.125000 F800.000000
G01 X82.416198 Y171.769183 Z-0.125000
G01 X82.075135 Y150.943607 Z-0.125000
G01 X83.019037 Y128.833064 Z-0.125000
G01 X81.161130 Y109.524331 Z-0.125000
G01 X81.641817 Y87.877005 Z-0.125000
G01 X80.755553 Y67.596628 Z-0.125000
G00 Z3.000000

(End cutting path id: path22491)


(Start cutting path id: path22489)
(Change tool to Default tool)

G00 Z3.000000
G00 X74.228571 Y221.231758

G00 Z4.875000 (Fast pre-penetrate)
G01 Z-0.125000 F400.0(Penetrate)
G01 X80.155447 Y194.138242 Z-0.125000 F800.000000
G01 X81.474939 Y171.652111 Z-0.125000
G01 X81.099440 Y150.860970 Z-0.125000
G01 X81.647113 Y129.146656 Z-0.125000
G01 X79.741626 Y109.885503 Z-0.125000
G01 X80.296552 Y88.163937 Z-0.125000
G01 X79.618077 Y67.675773 Z-0.125000
G00 Z3.000000

(End cutting path id: path22489)


(Start cutting path id: path22487)
(Change tool to Default tool)

G00 Z3.000000
G00 X73.158640 Y221.243358

G00 Z4.875000 (Fast pre-penetrate)
G01 Z-0.125000 F400.0(Penetrate)
G01 X79.323315 Y193.912042 Z-0.125000 F800.000000
G01 X80.533679 Y171.535038 Z-0.125000
G01 X80.123748 Y150.778330 Z-0.125000
G01 X80.275187 Y129.460250 Z-0.125000
G01 X78.322123 Y110.246675 Z-0.125000
G01 X78.951291 Y88.450867 Z-0.125000
G01 X78.480600 Y67.754917 Z-0.125000
G00 Z3.000000

(End cutting path id: path22487)


(Start cutting path id: path22495)
(Change tool to Default tool)

G00 Z3.000000
G00 X77.204839 Y221.430487

G00 Z4.875000 (Fast pre-penetrate)
G01 Z-0.125000 F400.0(Penetrate)
G01 X83.074576 Y194.394110 Z-0.125000 F800.000000
G01 X84.492677 Y171.809368 Z-0.125000
G01 X83.989107 Y151.146299 Z-0.125000
G01 X85.251258 Y128.717508 Z-0.125000
G01 X83.145825 Y109.656300 Z-0.125000
G01 X84.103063 Y87.532423 Z-0.125000
G01 X82.726067 Y67.742778 Z-0.125000
G00 Z3.000000

(End cutting path id: path22495)


(Start cutting path id: path22483)
(Change tool to Default tool)

G00 Z3.000000
G00 X71.018777 Y221.266556

G00 Z4.875000 (Fast pre-penetrate)
G01 Z-0.125000 F400.0(Penetrate)
G01 X77.659051 Y193.459642 Z-0.125000 F800.000000
G01 X78.651163 Y171.300890 Z-0.125000
G01 X78.172361 Y150.613053 Z-0.125000
G01 X77.531337 Y130.087436 Z-0.125000
G01 X75.483118 Y110.969015 Z-0.125000
G01 X76.260762 Y89.024732 Z-0.125000
G01 X76.205647 Y67.913207 Z-0.125000
G00 Z3.000000

(End cutting path id: path22483)


(Start cutting path id: path22481)
(Change tool to Default tool)

G00 Z3.000000
G00 X69.948843 Y221.278158

G00 Z4.875000 (Fast pre-penetrate)
G01 Z-0.125000 F400.0(Penetrate)
G01 X76.826917 Y193.233445 Z-0.125000 F800.000000
G01 X77.709904 Y171.183817 Z-0.125000
G01 X77.196666 Y150.530415 Z-0.125000
G01 X76.159413 Y130.401028 Z-0.125000
G01 X74.063614 Y111.330187 Z-0.125000
G01 X74.915498 Y89.311664 Z-0.125000
G01 X75.068170 Y67.992352 Z-0.125000
G00 Z3.000000

(End cutting path id: path22481)


(Start cutting path id: path22479)
(Change tool to Default tool)

G00 Z3.000000
G00 X68.878912 Y221.289757

G00 Z4.875000 (Fast pre-penetrate)
G01 Z-0.125000 F400.0(Penetrate)
G01 X75.994785 Y193.007245 Z-0.125000 F800.000000
G01 X76.768645 Y171.066745 Z-0.125000
G01 X76.220974 Y150.447776 Z-0.125000
G01 X74.787487 Y130.714623 Z-0.125000
G01 X72.644111 Y111.691359 Z-0.125000
G01 X73.570233 Y89.598596 Z-0.125000
G01 X73.930693 Y68.071496 Z-0.125000
G00 Z3.000000

(End cutting path id: path22479)


(Start cutting path id: path22477)
(Change tool to Default tool)

G00 Z3.000000
G00 X67.808981 Y221.301357

G00 Z4.875000 (Fast pre-penetrate)
G01 Z-0.125000 F400.0(Penetrate)
G01 X75.162652 Y192.781045 Z-0.125000 F800.000000
G01 X75.827386 Y170.949672 Z-0.125000
G01 X75.245279 Y150.365138 Z-0.125000
G01 X73.415563 Y131.028214 Z-0.125000
G01 X71.224607 Y112.052530 Z-0.125000
G01 X72.224969 Y89.885529 Z-0.125000
G01 X72.793216 Y68.150641 Z-0.125000
G00 Z3.000000

(End cutting path id: path22477)


(Start cutting path id: path22475)
(Change tool to Default tool)

G00 Z3.000000
G00 X66.739049 Y221.312956

G00 Z4.875000 (Fast pre-penetrate)
G01 Z-0.125000 F400.0(Penetrate)
G01 X74.330520 Y192.554845 Z-0.125000 F800.000000
G01 X74.886126 Y170.832599 Z-0.125000
G01 X74.269587 Y150.282499 Z-0.125000
G01 X72.043640 Y131.341806 Z-0.125000
G01 X69.805106 Y112.413699 Z-0.125000
G01 X70.879705 Y90.172461 Z-0.125000
G01 X71.655740 Y68.229786 Z-0.125000
G00 Z3.000000

(End cutting path id: path22475)


(Start cutting path id: path22471)
(Change tool to Default tool)

G00 Z3.000000
G00 X64.599187 Y221.336155

G00 Z4.875000 (Fast pre-penetrate)
G01 Z-0.125000 F400.0(Penetrate)
G01 X72.666254 Y192.102448 Z-0.125000 F800.000000
G01 X73.003608 Y170.598454 Z-0.125000
G01 X72.318200 Y150.117221 Z-0.125000
G01 X69.299790 Y131.968992 Z-0.125000
G01 X66.966099 Y113.136043 Z-0.125000
G01 X68.189179 Y90.746323 Z-0.125000
G01 X69.380786 Y68.388075 Z-0.125000
G00 Z3.000000

(End cutting path id: path22471)


(Start cutting path id: path22469)
(Change tool to Default tool)

G00 Z3.000000
G00 X63.529253 Y221.347757

G00 Z4.875000 (Fast pre-penetrate)
G01 Z-0.125000 F400.0(Penetrate)
G01 X71.834122 Y191.876248 Z-0.125000 F800.000000
G01 X72.062351 Y170.481379 Z-0.125000
G01 X71.342505 Y150.034584 Z-0.125000
G01 X67.927863 Y132.282586 Z-0.125000
G01 X65.546595 Y113.497215 Z-0.125000
G01 X66.843914 Y91.033255 Z-0.125000
G01 X68.243310 Y68.467220 Z-0.125000
G00 Z3.000000

(End cutting path id: path22469)


(Start cutting path id: path22467)
(Change tool to Default tool)

G00 Z3.000000
G00 X62.459321 Y221.359356

G00 Z4.875000 (Fast pre-penetrate)
G01 Z-0.125000 F400.0(Penetrate)
G01 X71.001990 Y191.650048 Z-0.125000 F800.000000
G01 X71.121092 Y170.364306 Z-0.125000
G01 X70.366813 Y149.951944 Z-0.125000
G01 X66.555939 Y132.596178 Z-0.125000
G01 X64.127091 Y113.858386 Z-0.125000
G01 X65.498650 Y91.320188 Z-0.125000
G01 X67.105833 Y68.546365 Z-0.125000
G00 Z3.000000

(End cutting path id: path22467)


(Start cutting path id: path22465)
(Change tool to Default tool)

G00 Z3.000000
G00 X61.389390 Y221.370955

G00 Z4.875000 (Fast pre-penetrate)
G01 Z-0.125000 F400.0(Penetrate)
G01 X70.169857 Y191.423848 Z-0.125000 F800.000000
G01 X70.179832 Y170.247233 Z-0.125000
G01 X69.391118 Y149.869307 Z-0.125000
G01 X65.184013 Y132.909772 Z-0.125000
G01 X62.707590 Y114.219555 Z-0.125000
G01 X64.153386 Y91.607120 Z-0.125000
G01 X65.968356 Y68.625509 Z-0.125000
G00 Z3.000000

(End cutting path id: path22465)


(Start cutting path id: path22463)
(Change tool to Default tool)

G00 Z3.000000
G00 X60.319459 Y221.382555

G00 Z4.875000 (Fast pre-penetrate)
G01 Z-0.125000 F400.0(Penetrate)
G01 X69.337725 Y191.197648 Z-0.125000 F800.000000
G01 X69.238573 Y170.130161 Z-0.125000
G01 X68.415426 Y149.786667 Z-0.125000
G01 X63.812089 Y133.223364 Z-0.125000
G01 X61.288087 Y114.580727 Z-0.125000
G01 X62.808121 Y91.894052 Z-0.125000
G01 X64.830879 Y68.704654 Z-0.125000
G00 Z3.000000

(End cutting path id: path22463)


(Start cutting path id: path22459)
(Change tool to Default tool)

G00 Z3.000000
G00 X58.179596 Y221.405753

G00 Z4.875000 (Fast pre-penetrate)
G01 Z-0.125000 F400.0(Penetrate)
G01 X67.673459 Y190.745251 Z-0.125000 F800.000000
G01 X67.356054 Y169.896015 Z-0.125000
G01 X66.464039 Y149.621390 Z-0.125000
G01 X61.068239 Y133.850550 Z-0.125000
G01 X58.449079 Y115.303070 Z-0.125000
G01 X60.117595 Y92.467914 Z-0.125000
G01 X62.555926 Y68.862943 Z-0.125000
G00 Z3.000000

(End cutting path id: path22459)


(Start cutting path id: path22457)
(Change tool to Default tool)

G00 Z3.000000
G00 X57.109662 Y221.417355

G00 Z4.875000 (Fast pre-penetrate)
G01 Z-0.125000 F400.0(Penetrate)
G01 X66.841327 Y190.519051 Z-0.125000 F800.000000
G01 X66.414795 Y169.778942 Z-0.125000
G01 X65.488347 Y149.538750 Z-0.125000
G01 X59.696316 Y134.164142 Z-0.125000
G01 X57.029578 Y115.664239 Z-0.125000
G01 X58.772331 Y92.754847 Z-0.125000
G01 X61.418449 Y68.942088 Z-0.125000
G00 Z3.000000

(End cutting path id: path22457)


(Start cutting path id: path22455)
(Change tool to Default tool)

G00 Z3.000000
G00 X56.039731 Y221.428955

G00 Z4.875000 (Fast pre-penetrate)
G01 Z-0.125000 F400.0(Penetrate)
G01 X66.009195 Y190.292851 Z-0.125000 F800.000000
G01 X65.473538 Y169.661867 Z-0.125000
G01 X64.512652 Y149.456113 Z-0.125000
G01 X58.324389 Y134.477736 Z-0.125000
G01 X55.610075 Y116.025411 Z-0.125000
G01 X57.427067 Y93.041779 Z-0.125000
G01 X60.280973 Y69.021233 Z-0.125000
G00 Z3.000000

(End cutting path id: path22455)


(Start cutting path id: path22453)
(Change tool to Default tool)

G00 Z3.000000
G00 X54.969800 Y221.440554

G00 Z4.875000 (Fast pre-penetrate)
G01 Z-0.125000 F400.0(Penetrate)
G01 X65.177063 Y190.066651 Z-0.125000 F800.000000
G01 X64.532279 Y169.544794 Z-0.125000
G01 X63.536960 Y149.373473 Z-0.125000
G01 X56.952466 Y134.791328 Z-0.125000
G01 X54.190571 Y116.386583 Z-0.125000
G01 X56.081802 Y93.328711 Z-0.125000
G01 X59.143496 Y69.100378 Z-0.125000
G00 Z3.000000

(End cutting path id: path22453)


(Start cutting path id: path22497)
(Change tool to Default tool)

G00 Z3.000000
G00 X78.041247 Y221.652411

G00 Z4.875000 (Fast pre-penetrate)
G01 Z-0.125000 F400.0(Penetrate)
G01 X84.329435 Y194.197583 Z-0.125000 F800.000000
G01 X85.627897 Y171.732480 Z-0.125000
G01 X84.927384 Y151.266353 Z-0.125000
G01 X86.111555 Y128.915543 Z-0.125000
G01 X83.711020 Y110.149438 Z-0.125000
G01 X85.219042 Y87.474775 Z-0.125000
G01 X83.559107 Y67.968071 Z-0.125000
G00 Z3.000000

(End cutting path id: path22497)


(Start cutting path id: path22499)
(Change tool to Default tool)

G00 Z3.000000
G00 X78.877652 Y221.874338

G00 Z4.875000 (Fast pre-penetrate)
G01 Z-0.125000 F400.0(Penetrate)
G01 X85.584296 Y194.001053 Z-0.125000 F800.000000
G01 X86.763117 Y171.655593 Z-0.125000
G01 X85.865665 Y151.386405 Z-0.125000
G01 X86.971852 Y129.113578 Z-0.125000
G01 X84.276214 Y110.642576 Z-0.125000
G01 X86.335024 Y87.417125 Z-0.125000
G01 X84.392144 Y68.193366 Z-0.125000
G00 Z3.000000

(End cutting path id: path22499)


(Start cutting path id: path22501)
(Change tool to Default tool)

G00 Z3.000000
G00 X79.714057 Y222.096265

G00 Z4.875000 (Fast pre-penetrate)
G01 Z-0.125000 F400.0(Penetrate)
G01 X86.839158 Y193.804524 Z-0.125000 F800.000000
G01 X87.898337 Y171.578705 Z-0.125000
G01 X86.803945 Y151.506457 Z-0.125000
G01 X87.832149 Y129.311613 Z-0.125000
G01 X84.841408 Y111.135713 Z-0.125000
G01 X87.451004 Y87.359478 Z-0.125000
G01 X85.225183 Y68.418658 Z-0.125000
G00 Z3.000000

(End cutting path id: path22501)


(Start cutting path id: path22503)
(Change tool to Default tool)

G00 Z3.000000
G00 X80.550462 Y222.318192

G00 Z4.875000 (Fast pre-penetrate)
G01 Z-0.125000 F400.0(Penetrate)
G01 X88.094020 Y193.607994 Z-0.125000 F800.000000
G01 X89.033556 Y171.501817 Z-0.125000
G01 X87.742225 Y151.626509 Z-0.125000
G01 X88.692445 Y129.509648 Z-0.125000
G01 X85.406600 Y111.628854 Z-0.125000
G01 X88.566986 Y87.301828 Z-0.125000
G01 X86.058220 Y68.643953 Z-0.125000
G00 Z3.000000

(End cutting path id: path22503)


(Start cutting path id: path22505)
(Change tool to Default tool)

G00 Z3.000000
G00 X81.386867 Y222.540119

G00 Z4.875000 (Fast pre-penetrate)
G01 Z-0.125000 F400.0(Penetrate)
G01 X89.348881 Y193.411464 Z-0.125000 F800.000000
G01 X90.168779 Y171.424927 Z-0.125000
G01 X88.680502 Y151.746563 Z-0.125000
G01 X89.552742 Y129.707683 Z-0.125000
G01 X85.971794 Y112.121991 Z-0.125000
G01 X89.682968 Y87.244178 Z-0.125000
G01 X86.891260 Y68.869246 Z-0.125000
G00 Z3.000000

(End cutting path id: path22505)


(Start cutting path id: path22507)
(Change tool to Default tool)

G00 Z3.000000
G00 X82.223272 Y222.762045

G00 Z4.875000 (Fast pre-penetrate)
G01 Z-0.125000 F400.0(Penetrate)
G01 X90.603743 Y193.214935 Z-0.125000 F800.000000
G01 X91.303999 Y171.348039 Z-0.125000
G01 X89.618782 Y151.866615 Z-0.125000
G01 X90.413039 Y129.905718 Z-0.125000
G01 X86.536988 Y112.615129 Z-0.125000
G01 X90.798947 Y87.186531 Z-0.125000
G01 X87.724297 Y69.094541 Z-0.125000
G00 Z3.000000

(End cutting path id: path22507)


(Start cutting path id: path22509)
(Change tool to Default tool)

G00 Z3.000000
G00 X83.059677 Y222.983972

G00 Z4.875000 (Fast pre-penetrate)
G01 Z-0.125000 F400.0(Penetrate)
G01 X91.858604 Y193.018405 Z-0.125000 F800.000000
G01 X92.439219 Y171.271151 Z-0.125000
G01 X90.557062 Y151.986667 Z-0.125000
G01 X91.273336 Y130.103753 Z-0.125000
G01 X87.102183 Y113.108267 Z-0.125000
G01 X91.914929 Y87.128881 Z-0.125000
G01 X88.557336 Y69.319833 Z-0.125000
G00 Z3.000000

(End cutting path id: path22509)


(Start cutting path id: path22511)
(Change tool to Default tool)

G00 Z3.000000
G00 X83.896085 Y223.205897

G00 Z4.875000 (Fast pre-penetrate)
G01 Z-0.125000 F400.0(Penetrate)
G01 X93.113466 Y192.821875 Z-0.125000 F800.000000
G01 X93.574438 Y171.194263 Z-0.125000
G01 X91.495340 Y152.106722 Z-0.125000
G01 X92.133633 Y130.301788 Z-0.125000
G01 X87.667377 Y113.601405 Z-0.125000
G01 X93.030908 Y87.071233 Z-0.125000
G01 X89.390373 Y69.545128 Z-0.125000
G00 Z3.000000

(End cutting path id: path22511)


(Start cutting path id: path22513)
(Change tool to Default tool)

G00 Z3.000000
G00 X84.732490 Y223.427824

G00 Z4.875000 (Fast pre-penetrate)
G01 Z-0.125000 F400.0(Penetrate)
G01 X94.368325 Y192.625349 Z-0.125000 F800.000000
G01 X94.709658 Y171.117375 Z-0.125000
G01 X92.433620 Y152.226774 Z-0.125000
G01 X92.993930 Y130.499823 Z-0.125000
G01 X88.232568 Y114.094545 Z-0.125000
G01 X94.146890 Y87.013583 Z-0.125000
G01 X90.223413 Y69.770421 Z-0.125000
G00 Z3.000000

(End cutting path id: path22513)


(Start cutting path id: path22515)
(Change tool to Default tool)

G00 Z3.000000
G00 X85.568895 Y223.649751

G00 Z4.875000 (Fast pre-penetrate)
G01 Z-0.125000 F400.0(Penetrate)
G01 X95.623187 Y192.428819 Z-0.125000 F800.000000
G01 X95.844878 Y171.040487 Z-0.125000
G01 X93.371900 Y152.346825 Z-0.125000
G01 X93.854227 Y130.697859 Z-0.125000
G01 X88.797763 Y114.587683 Z-0.125000
G01 X95.262872 Y86.955933 Z-0.125000
G01 X91.056450 Y69.995716 Z-0.125000
G00 Z3.000000

(End cutting path id: path22515)


(Start cutting path id: path22517)
(Change tool to Default tool)

G00 Z3.000000
G00 X86.405300 Y223.871677

G00 Z4.875000 (Fast pre-penetrate)
G01 Z-0.125000 F400.0(Penetrate)
G01 X96.878048 Y192.232289 Z-0.125000 F800.000000
G01 X96.980098 Y170.963600 Z-0.125000
G01 X94.310180 Y152.466877 Z-0.125000
G01 X94.714524 Y130.895894 Z-0.125000
G01 X89.362957 Y115.080820 Z-0.125000
G01 X96.378852 Y86.898286 Z-0.125000
G01 X91.889489 Y70.221008 Z-0.125000
G00 Z3.000000

(End cutting path id: path22517)


(Start cutting path id: path22519)
(Change tool to Default tool)

G00 Z3.000000
G00 X87.241705 Y224.093604

G00 Z4.875000 (Fast pre-penetrate)
G01 Z-0.125000 F400.0(Penetrate)
G01 X98.132910 Y192.035760 Z-0.125000 F800.000000
G01 X98.115315 Y170.886709 Z-0.125000
G01 X95.248452 Y152.586932 Z-0.125000
G01 X95.574816 Y131.093929 Z-0.125000
G01 X89.928146 Y115.573958 Z-0.125000
G01 X97.494828 Y86.840636 Z-0.125000
G01 X92.722523 Y70.446301 Z-0.125000
G00 Z3.000000

(End cutting path id: path22519)


(Start cutting path id: path22537)
(Change tool to Default tool)

G00 Z3.000000
G00 X96.546245 Y224.314052

G00 Z4.875000 (Fast pre-penetrate)
G01 Z-0.125000 F400.0(Penetrate)
G01 X108.754303 Y190.939354 Z-0.125000 F800.000000
G01 X107.567818 Y170.959200 Z-0.125000
G01 X104.041395 Y153.318983 Z-0.125000
G01 X103.965298 Y132.228439 Z-0.125000
G01 X96.091133 Y118.935964 Z-0.125000
G01 X107.198804 Y86.661654 Z-0.125000
G01 X101.774842 Y70.918976 Z-0.125000
G00 Z3.000000

(End cutting path id: path22537)


(Start cutting path id: path22603)
(Change tool to Default tool)

G00 Z3.000000
G00 X134.759312 Y221.025942

G00 Z4.875000 (Fast pre-penetrate)
G01 Z-0.125000 F400.0(Penetrate)
G01 X138.836335 Y195.782279 Z-0.125000 F800.000000
G01 X135.040294 Y178.411680 Z-0.125000
G01 X133.118648 Y159.166685 Z-0.125000
G01 X143.850328 Y127.268365 Z-0.125000
G01 X138.804651 Y111.147403 Z-0.125000
G01 X143.920289 Y84.865124 Z-0.125000
G01 X141.488515 Y66.130259 Z-0.125000
G00 Z3.000000

(End cutting path id: path22603)


(Start cutting path id: path22629)
(Change tool to Default tool)

G00 Z3.000000
G00 X148.301458 Y221.242111

G00 Z4.875000 (Fast pre-penetrate)
G01 Z-0.125000 F400.0(Penetrate)
G01 X154.819990 Y193.556940 Z-0.125000 F800.000000
G01 X150.759905 Y176.450384 Z-0.125000
G01 X145.207504 Y160.836146 Z-0.125000
G01 X157.333213 Y127.543796 Z-0.125000
G01 X154.027989 Y109.682380 Z-0.125000
G01 X157.142404 Y85.401326 Z-0.125000
G01 X152.689998 Y68.687091 Z-0.125000
G00 Z3.000000

(End cutting path id: path22629)


(Start cutting path id: path22627)
(Change tool to Default tool)

G00 Z3.000000
G00 X146.907264 Y221.577973

G00 Z4.875000 (Fast pre-penetrate)
G01 Z-0.125000 F400.0(Penetrate)
G01 X153.386439 Y193.932158 Z-0.125000 F800.000000
G01 X149.374908 Y176.777049 Z-0.125000
G01 X144.073581 Y160.911737 Z-0.125000
G01 X156.421579 Y127.397098 Z-0.125000
G01 X153.077319 Y109.574719 Z-0.125000
G01 X156.310163 Y85.175234 Z-0.125000
G01 X151.736656 Y68.582102 Z-0.125000
G00 Z3.000000

(End cutting path id: path22627)


(Start cutting path id: path22625)
(Change tool to Default tool)

G00 Z3.000000
G00 X145.513068 Y221.913837

G00 Z4.875000 (Fast pre-penetrate)
G01 Z-0.125000 F400.0(Penetrate)
G01 X151.952889 Y194.307377 Z-0.125000 F800.000000
G01 X147.989909 Y177.103716 Z-0.125000
G01 X142.939660 Y160.987326 Z-0.125000
G01 X155.509945 Y127.250400 Z-0.125000
G01 X152.126646 Y109.467060 Z-0.125000
G01 X155.477920 Y84.949145 Z-0.125000
G01 X150.783315 Y68.477110 Z-0.125000
G00 Z3.000000

(End cutting path id: path22625)


(Start cutting path id: path22605)
(Change tool to Default tool)

G00 Z3.000000
G00 X135.237030 Y221.606556

G00 Z4.875000 (Fast pre-penetrate)
G01 Z-0.125000 F400.0(Penetrate)
G01 X139.739386 Y195.937560 Z-0.125000 F800.000000
G01 X135.968218 Y178.542088 Z-0.125000
G01 X133.722144 Y159.621522 Z-0.125000
G01 X145.088291 Y127.088735 Z-0.125000
G01 X140.328242 Y110.682144 Z-0.125000
G01 X145.233126 Y84.610619 Z-0.125000
G01 X142.203466 Y66.473640 Z-0.125000
G00 Z3.000000

(End cutting path id: path22605)


(Start cutting path id: path22623)
(Change tool to Default tool)

G00 Z3.000000
G00 X144.118872 Y222.249702

G00 Z4.875000 (Fast pre-penetrate)
G01 Z-0.125000 F400.0(Penetrate)
G01 X150.519338 Y194.682595 Z-0.125000 F800.000000
G01 X146.604910 Y177.430384 Z-0.125000
G01 X141.805739 Y161.062914 Z-0.125000
G01 X154.598311 Y127.103702 Z-0.125000
G01 X151.175973 Y109.359401 Z-0.125000
G01 X154.645677 Y84.723057 Z-0.125000
G01 X149.829973 Y68.372121 Z-0.125000
G00 Z3.000000

(End cutting path id: path22623)


(Start cutting path id: path22621)
(Change tool to Default tool)

G00 Z3.000000
G00 X142.724678 Y222.585563

G00 Z4.875000 (Fast pre-penetrate)
G01 Z-0.125000 F400.0(Penetrate)
G01 X149.085788 Y195.057814 Z-0.125000 F800.000000
G01 X145.219910 Y177.757051 Z-0.125000
G01 X140.671816 Y161.138506 Z-0.125000
G01 X153.686677 Y126.957004 Z-0.125000
G01 X150.225299 Y109.251742 Z-0.125000
G01 X153.813436 Y84.496965 Z-0.125000
G01 X148.876632 Y68.267129 Z-0.125000
G00 Z3.000000

(End cutting path id: path22621)


(Start cutting path id: path22607)
(Change tool to Default tool)

G00 Z3.000000
G00 X135.714745 Y222.187173

G00 Z4.875000 (Fast pre-penetrate)
G01 Z-0.125000 F400.0(Penetrate)
G01 X140.642436 Y196.092841 Z-0.125000 F800.000000
G01 X136.896142 Y178.672495 Z-0.125000
G01 X134.325642 Y160.076356 Z-0.125000
G01 X146.326253 Y126.909104 Z-0.125000
G01 X141.851835 Y110.216883 Z-0.125000
G01 X146.545961 Y84.356117 Z-0.125000
G01 X142.918414 Y66.817024 Z-0.125000
G00 Z3.000000

(End cutting path id: path22607)


(Start cutting path id: path22609)
(Change tool to Default tool)

G00 Z3.000000
G00 X136.192463 Y222.767787

G00 Z4.875000 (Fast pre-penetrate)
G01 Z-0.125000 F400.0(Penetrate)
G01 X141.545485 Y196.248125 Z-0.125000 F800.000000
G01 X137.824067 Y178.802903 Z-0.125000
G01 X134.929137 Y160.531193 Z-0.125000
G01 X147.564216 Y126.729473 Z-0.125000
G01 X143.375425 Y109.751624 Z-0.125000
G01 X147.858795 Y84.101615 Z-0.125000
G01 X143.633365 Y67.160405 Z-0.125000
G00 Z3.000000

(End cutting path id: path22609)


(Start cutting path id: path22619)
(Change tool to Default tool)

G00 Z3.000000
G00 X141.330482 Y222.921428

G00 Z4.875000 (Fast pre-penetrate)
G01 Z-0.125000 F400.0(Penetrate)
G01 X147.652238 Y195.433032 Z-0.125000 F800.000000
G01 X143.834911 Y178.083719 Z-0.125000
G01 X139.537895 Y161.214094 Z-0.125000
G01 X152.775043 Y126.810306 Z-0.125000
G01 X149.274629 Y109.144081 Z-0.125000
G01 X152.981193 Y84.270876 Z-0.125000
G01 X147.923290 Y68.162140 Z-0.125000
G00 Z3.000000

(End cutting path id: path22619)


(Start cutting path id: path22617)
(Change tool to Default tool)

G00 Z3.000000
G00 X139.936286 Y223.257292

G00 Z4.875000 (Fast pre-penetrate)
G01 Z-0.125000 F400.0(Penetrate)
G01 X146.218687 Y195.808250 Z-0.125000 F800.000000
G01 X142.449911 Y178.410386 Z-0.125000
G01 X138.403972 Y161.289686 Z-0.125000
G01 X151.863409 Y126.663608 Z-0.125000
G01 X148.323956 Y109.036422 Z-0.125000
G01 X152.148950 Y84.044787 Z-0.125000
G01 X146.969949 Y68.057148 Z-0.125000
G00 Z3.000000

(End cutting path id: path22617)


(Start cutting path id: path22611)
(Change tool to Default tool)

G00 Z3.000000
G00 X136.670178 Y223.348404

G00 Z4.875000 (Fast pre-penetrate)
G01 Z-0.125000 F400.0(Penetrate)
G01 X142.448536 Y196.403406 Z-0.125000 F800.000000
G01 X138.751988 Y178.933313 Z-0.125000
G01 X135.532632 Y160.986029 Z-0.125000
G01 X148.802179 Y126.549843 Z-0.125000
G01 X144.899019 Y109.286363 Z-0.125000
G01 X149.171632 Y83.847110 Z-0.125000
G01 X144.348316 Y67.503786 Z-0.125000
G00 Z3.000000

(End cutting path id: path22611)


(Start cutting path id: path22615)
(Change tool to Default tool)

G00 Z3.000000
G00 X138.542092 Y223.593154

G00 Z4.875000 (Fast pre-penetrate)
G01 Z-0.125000 F400.0(Penetrate)
G01 X144.785137 Y196.183469 Z-0.125000 F800.000000
G01 X141.064912 Y178.737053 Z-0.125000
G01 X137.270051 Y161.365275 Z-0.125000
G01 X150.951775 Y126.516910 Z-0.125000
G01 X147.373282 Y108.928763 Z-0.125000
G01 X151.316710 Y83.818696 Z-0.125000
G01 X146.016607 Y67.952159 Z-0.125000
G00 Z3.000000

(End cutting path id: path22615)


(Start cutting path id: path22613)
(Change tool to Default tool)

G00 Z3.000000
G00 X137.147896 Y223.929018

G00 Z4.875000 (Fast pre-penetrate)
G01 Z-0.125000 F400.0(Penetrate)
G01 X143.351586 Y196.558687 Z-0.125000 F800.000000
G01 X139.679913 Y179.063721 Z-0.125000
G01 X136.136128 Y161.440866 Z-0.125000
G01 X150.040142 Y126.370212 Z-0.125000
G01 X146.422609 Y108.821104 Z-0.125000
G01 X150.484466 Y83.592607 Z-0.125000
G01 X145.063267 Y67.847167 Z-0.125000
G00 Z3.000000

(End cutting path id: path22613)


(Start cutting path id: path22535)
(Change tool to Default tool)

G00 Z3.000000
G00 X94.821394 Y224.980571

G00 Z4.875000 (Fast pre-penetrate)
G01 Z-0.125000 F400.0(Penetrate)
G01 X107.835621 Y190.799705 Z-0.125000 F800.000000
G01 X106.814838 Y170.653847 Z-0.125000
G01 X102.928903 Y153.373143 Z-0.125000
G01 X102.781099 Y132.354307 Z-0.125000
G01 X94.987820 Y118.980946 Z-0.125000
G01 X106.252750 Y86.549375 Z-0.125000
G01 X100.164320 Y71.471166 Z-0.125000
G00 Z3.000000

(End cutting path id: path22535)


(Start cutting path id: path22521)
(Change tool to Default tool)

G00 Z3.000000
G00 X88.078110 Y224.315531

G00 Z4.875000 (Fast pre-penetrate)
G01 Z-0.125000 F400.0(Penetrate)
G01 X99.387771 Y191.839230 Z-0.125000 F800.000000
G01 X99.250540 Y170.809821 Z-0.125000
G01 X96.186738 Y152.706984 Z-0.125000
G01 X96.435118 Y131.291964 Z-0.125000
G01 X90.493343 Y116.067099 Z-0.125000
G01 X98.610813 Y86.782989 Z-0.125000
G01 X93.555566 Y70.671596 Z-0.125000
G00 Z3.000000

(End cutting path id: path22521)


(Start cutting path id: path22523)
(Change tool to Default tool)

G00 Z3.000000
G00 X88.914515 Y224.537458

G00 Z4.875000 (Fast pre-penetrate)
G01 Z-0.125000 F400.0(Penetrate)
G01 X100.642633 Y191.642700 Z-0.125000 F800.000000
G01 X100.385760 Y170.732934 Z-0.125000
G01 X97.125018 Y152.827036 Z-0.125000
G01 X97.295415 Y131.489999 Z-0.125000
G01 X91.058537 Y116.560236 Z-0.125000
G01 X99.726795 Y86.725339 Z-0.125000
G01 X94.388605 Y70.896888 Z-0.125000
G00 Z3.000000

(End cutting path id: path22523)


(Start cutting path id: path22525)
(Change tool to Default tool)

G00 Z3.000000
G00 X89.750923 Y224.759382

G00 Z4.875000 (Fast pre-penetrate)
G01 Z-0.125000 F400.0(Penetrate)
G01 X101.897495 Y191.446171 Z-0.125000 F800.000000
G01 X101.520980 Y170.656046 Z-0.125000
G01 X98.063295 Y152.947090 Z-0.125000
G01 X98.155712 Y131.688034 Z-0.125000
G01 X91.623731 Y117.053374 Z-0.125000
G01 X100.842774 Y86.667691 Z-0.125000
G01 X95.221642 Y71.122183 Z-0.125000
G00 Z3.000000

(End cutting path id: path22525)


(Start cutting path id: path22527)
(Change tool to Default tool)

G00 Z3.000000
G00 X90.587328 Y224.981309

G00 Z4.875000 (Fast pre-penetrate)
G01 Z-0.125000 F400.0(Penetrate)
G01 X103.152356 Y191.249641 Z-0.125000 F800.000000
G01 X102.656200 Y170.579158 Z-0.125000
G01 X99.001575 Y153.067142 Z-0.125000
G01 X99.015995 Y131.886069 Z-0.125000
G01 X92.188912 Y117.546512 Z-0.125000
G01 X101.958743 Y86.610041 Z-0.125000
G01 X96.054669 Y71.347476 Z-0.125000
G00 Z3.000000

(End cutting path id: path22527)


(Start cutting path id: path22529)
(Change tool to Default tool)

G00 Z3.000000
G00 X91.423733 Y225.203236

G00 Z4.875000 (Fast pre-penetrate)
G01 Z-0.125000 F400.0(Penetrate)
G01 X104.407215 Y191.053114 Z-0.125000 F800.000000
G01 X103.791419 Y170.502270 Z-0.125000
G01 X99.939856 Y153.187194 Z-0.125000
G01 X99.876305 Y132.084104 Z-0.125000
G01 X92.754117 Y118.039652 Z-0.125000
G01 X103.074738 Y86.552391 Z-0.125000
G01 X96.887719 Y71.572771 Z-0.125000
G00 Z3.000000

(End cutting path id: path22529)


(Start cutting path id: path22531)
(Change tool to Default tool)

G00 Z3.000000
G00 X92.260138 Y225.425163

G00 Z4.875000 (Fast pre-penetrate)
G01 Z-0.125000 F400.0(Penetrate)
G01 X105.662077 Y190.856585 Z-0.125000 F800.000000
G01 X104.926639 Y170.425382 Z-0.125000
G01 X100.878133 Y153.307248 Z-0.125000
G01 X100.736602 Y132.282139 Z-0.125000
G01 X93.319312 Y118.532790 Z-0.125000
G01 X104.190717 Y86.494744 Z-0.125000
G01 X97.720758 Y71.798063 Z-0.125000
G00 Z3.000000

(End cutting path id: path22531)


(Start cutting path id: path22533)
(Change tool to Default tool)

G00 Z3.000000
G00 X93.096543 Y225.647090

G00 Z4.875000 (Fast pre-penetrate)
G01 Z-0.125000 F400.0(Penetrate)
G01 X106.916938 Y190.660055 Z-0.125000 F800.000000
G01 X106.061859 Y170.348494 Z-0.125000
G01 X101.816413 Y153.427300 Z-0.125000
G01 X101.596899 Y132.480174 Z-0.125000
G01 X93.884506 Y119.025928 Z-0.125000
G01 X105.306699 Y86.437094 Z-0.125000
G01 X98.553795 Y72.023358 Z-0.125000
G00 Z3.000000

(End cutting path id: path22533)



(Footer)
M5
G00 X0.0000 Y0.0000
M2
(Using default footer. To add your own footer create file "footer" in the output dir.)
(end)
%