%
(Header)
(Generated by gcodetools from Inkscape.)
(Using default header. To add your own header create file "header" in the output dir.)
M3
(Header end.)
G21 (All units in mm)

(Start cutting path id: path12737)
(Change tool to Default tool)

G00 Z3.000000
G00 X140.442280 Y99.256320

G00 Z4.875000 (Fast pre-penetrate)
G01 Z-0.125000 F400.0(Penetrate)
G02 X137.907128 Y91.337175 Z-0.125000 I-13.636216 J-0.000005 F800.000000
G02 X129.021011 Y83.245964 Z-0.125000 I-23.189742 J16.542810
G02 X117.100016 Y78.470085 Z-0.125000 I-22.311277 J38.424978
G02 X101.447620 Y76.614260 Z-0.125000 I-15.652387 J65.079710
G02 X85.795225 Y78.470086 Z-0.125000 I-0.000004 J66.935533
G02 X73.874232 Y83.245965 Z-0.125000 I10.390284 J43.200852
G02 X64.988117 Y91.337176 Z-0.125000 I14.303625 J24.634019
G02 X62.452965 Y99.256320 Z-0.125000 I11.101064 J7.919139
G02 X70.725560 Y113.625782 Z-0.125000 I16.616155 J-0.000006
G02 X101.447620 Y121.898370 Z-0.125000 I30.722056 J-52.910226
G02 X117.100012 Y120.042546 Z-0.125000 I0.000009 J-66.935536
G02 X129.021005 Y115.266669 Z-0.125000 I-10.390281 J-43.200868
G02 X137.907124 Y107.175462 Z-0.125000 I-14.303627 J-24.634036
G02 X140.442280 Y99.256320 Z-0.125000 I-11.101064 J-7.919147
G01 X140.442280 Y99.256320 Z-0.125000
G00 Z3.000000

(End cutting path id: path12737)


(Start cutting path id: path12735)
(Change tool to Default tool)

G00 Z3.000000
G00 X91.384478 Y182.906140

G00 Z4.875000 (Fast pre-penetrate)
G01 Z-0.125000 F400.0(Penetrate)
G02 X89.331467 Y171.445445 Z-0.125000 I-33.015450 J-0.000009 F800.000000
G02 X83.647492 Y162.003731 Z-0.125000 I-27.739974 J10.267897
G02 X74.927859 Y155.541600 Z-0.125000 I-19.998737 J17.871207
G02 X64.968746 Y153.345670 Z-0.125000 I-9.959111 J21.485608
G02 X55.009634 Y155.541601 Z-0.125000 I-0.000000 J23.681538
G02 X46.290001 Y162.003732 Z-0.125000 I11.279106 J24.333338
G02 X40.606027 Y171.445445 Z-0.125000 I22.056000 J19.709610
G02 X38.553016 Y182.906140 Z-0.125000 I30.962439 J11.460686
G02 X46.719335 Y204.300279 Z-0.125000 I32.107383 J-0.000008
G02 X64.968746 Y212.466593 Z-0.125000 I18.249411 J-16.307988
G02 X83.218158 Y204.300280 Z-0.125000 I0.000002 J-24.474302
G02 X91.384478 Y182.906140 Z-0.125000 I-23.941062 J-21.394147
G01 X91.384478 Y182.906140 Z-0.125000
G00 Z3.000000

(End cutting path id: path12735)



(Footer)
M5
G00 X0.0000 Y0.0000
M2
(Using default footer. To add your own footer create file "footer" in the output dir.)
(end)
%