%
(Header)
(Generated by gcodetools from Inkscape.)
(Using default header. To add your own header create file "header" in the output dir.)
M3
(Header end.)
G21 (All units in mm)

(Start cutting path id: path190089)
(Change tool to Default tool)

G00 Z10.000000
G00 X189.090658 Y228.581820

G00 Z4.875000 (Fast pre-penetrate)
G01 Z-0.125000 F100.0(Penetrate)
G01 X194.636349 Y212.764600 Z-0.125000 F800.000000
G01 X191.789619 Y196.947850 Z-0.125000
G01 X190.606552 Y181.131100 Z-0.125000
G01 X197.372601 Y165.313880 Z-0.125000
G01 X189.016543 Y149.497120 Z-0.125000
G01 X184.764861 Y133.680370 Z-0.125000
G01 X193.748818 Y117.863160 Z-0.125000
G01 X190.236439 Y102.046400 Z-0.125000
G01 X188.794661 Y86.229650 Z-0.125000
G01 X194.266700 Y70.412430 Z-0.125000
G01 X189.090658 Y54.595680 Z-0.125000
G00 Z10.000000

(End cutting path id: path190089)


(Start cutting path id: path190087)
(Change tool to Default tool)

G00 Z10.000000
G00 X187.978021 Y54.595680

G00 Z4.875000 (Fast pre-penetrate)
G01 Z-0.125000 F100.0(Penetrate)
G01 X192.274817 Y70.412430 Z-0.125000 F800.000000
G01 X188.664846 Y86.229650 Z-0.125000
G01 X187.789282 Y102.046400 Z-0.125000
G01 X193.175237 Y117.863160 Z-0.125000
G01 X182.961717 Y133.680370 Z-0.125000
G01 X188.046151 Y149.497120 Z-0.125000
G01 X196.062018 Y165.313880 Z-0.125000
G01 X187.992753 Y181.131100 Z-0.125000
G01 X190.296284 Y196.947850 Z-0.125000
G01 X192.538592 Y212.764600 Z-0.125000
G01 X187.978021 Y228.581820 Z-0.125000
G00 Z10.000000

(End cutting path id: path190087)


(Start cutting path id: path190081)
(Change tool to Default tool)

G00 Z10.000000
G00 X186.554654 Y228.581820

G00 Z4.875000 (Fast pre-penetrate)
G01 Z-0.125000 F100.0(Penetrate)
G01 X187.686626 Y212.764600 Z-0.125000 F800.000000
G01 X187.163683 Y196.947850 Z-0.125000
G01 X182.765152 Y181.131100 Z-0.125000
G01 X192.930798 Y165.313880 Z-0.125000
G01 X186.615421 Y149.497120 Z-0.125000
G01 X180.595581 Y133.680370 Z-0.125000
G01 X192.245816 Y117.863160 Z-0.125000
G01 X182.748581 Y102.046400 Z-0.125000
G01 X189.572630 Y86.229650 Z-0.125000
G01 X187.634609 Y70.412430 Z-0.125000
G01 X186.554654 Y54.595680 Z-0.125000
G00 Z10.000000

(End cutting path id: path190081)


(Start cutting path id: path190077)
(Change tool to Default tool)

G00 Z10.000000
G00 X186.474558 Y54.595680

G00 Z4.875000 (Fast pre-penetrate)
G01 Z-0.125000 F100.0(Penetrate)
G01 X176.464048 Y70.412430 Z-0.125000 F800.000000
G01 X180.705601 Y86.229650 Z-0.125000
G01 X177.670592 Y102.046400 Z-0.125000
G01 X183.598365 Y117.863160 Z-0.125000
G01 X176.039615 Y133.680370 Z-0.125000
G01 X183.438165 Y149.497120 Z-0.125000
G01 X186.449697 Y165.313880 Z-0.125000
G01 X181.044870 Y181.131100 Z-0.125000
G01 X179.098100 Y196.947850 Z-0.125000
G01 X180.391648 Y212.764600 Z-0.125000
G01 X180.764065 Y228.581820 Z-0.125000
G00 Z10.000000

(End cutting path id: path190077)


(Start cutting path id: path190079)
(Change tool to Default tool)

G00 Z10.000000
G00 X182.360055 Y228.581820

G00 Z4.875000 (Fast pre-penetrate)
G01 Z-0.125000 F100.0(Penetrate)
G01 X182.093981 Y212.764600 Z-0.125000 F800.000000
G01 X180.893882 Y196.947850 Z-0.125000
G01 X181.568274 Y181.131100 Z-0.125000
G01 X188.292432 Y165.313880 Z-0.125000
G01 X184.455977 Y149.497120 Z-0.125000
G01 X177.274701 Y133.680370 Z-0.125000
G01 X185.795098 Y117.863160 Z-0.125000
G01 X178.757912 Y102.046400 Z-0.125000
G01 X183.238379 Y86.229650 Z-0.125000
G01 X178.734893 Y70.412430 Z-0.125000
G01 X187.116268 Y54.595680 Z-0.125000
G01 X190.064273 Y70.412430 Z-0.125000
G01 X188.924478 Y86.229650 Z-0.125000
G01 X185.293331 Y102.046400 Z-0.125000
G01 X192.673931 Y117.863160 Z-0.125000
G01 X181.571958 Y133.680370 Z-0.125000
G01 X187.245624 Y149.497120 Z-0.125000
G01 X194.581570 Y165.313880 Z-0.125000
G01 X185.378951 Y181.131100 Z-0.125000
G01 X188.754149 Y196.947850 Z-0.125000
G01 X190.222169 Y212.764600 Z-0.125000
G01 X187.132381 Y228.581820 Z-0.125000
G00 Z10.000000

(End cutting path id: path190079)


(Start cutting path id: path190085)
(Change tool to Default tool)

G00 Z10.000000
G00 X183.956508 Y228.581820

G00 Z4.875000 (Fast pre-penetrate)
G01 Z-0.125000 F100.0(Penetrate)
G01 X183.796311 Y212.764600 Z-0.125000 F800.000000
G01 X182.908319 Y196.947850 Z-0.125000
G01 X181.775888 Y181.131100 Z-0.125000
G01 X189.940900 Y165.313880 Z-0.125000
G01 X185.328315 Y149.497120 Z-0.125000
G01 X178.485394 Y133.680370 Z-0.125000
G01 X188.161698 Y117.863160 Z-0.125000
G01 X179.845231 Y102.046400 Z-0.125000
G01 X185.868752 Y86.229650 Z-0.125000
G01 X181.443522 Y70.412430 Z-0.125000
G01 X187.223526 Y54.595680 Z-0.125000
G00 Z10.000000

(End cutting path id: path190085)


(Start cutting path id: path190083)
(Change tool to Default tool)

G00 Z10.000000
G00 X186.795872 Y54.595680

G00 Z4.875000 (Fast pre-penetrate)
G01 Z-0.125000 F100.0(Penetrate)
G01 X184.589471 Y70.412430 Z-0.125000 F800.000000
G01 X188.596255 Y86.229650 Z-0.125000
G01 X180.932549 Y102.046400 Z-0.125000
G01 X190.698619 Y117.863160 Z-0.125000
G01 X179.671220 Y133.680370 Z-0.125000
G01 X186.054268 Y149.497120 Z-0.125000
G01 X191.394651 Y165.313880 Z-0.125000
G01 X181.667247 Y181.131100 Z-0.125000
G01 X185.141418 Y196.947850 Z-0.125000
G01 X185.498180 Y212.764600 Z-0.125000
G01 X185.552500 Y228.581820 Z-0.125000
G00 Z10.000000

(End cutting path id: path190083)


(Start cutting path id: path190075)
(Change tool to Default tool)

G00 Z10.000000
G00 X179.167611 Y228.581820

G00 Z4.875000 (Fast pre-penetrate)
G01 Z-0.125000 F100.0(Penetrate)
G01 X178.689321 Y212.764600 Z-0.125000 F800.000000
G01 X177.520983 Y196.947850 Z-0.125000
G01 X180.205215 Y181.131100 Z-0.125000
G01 X184.412244 Y165.313880 Z-0.125000
G01 X182.274434 Y149.497120 Z-0.125000
G01 X174.780590 Y133.680370 Z-0.125000
G01 X181.571958 Y117.863160 Z-0.125000
G01 X176.583275 Y102.046400 Z-0.125000
G01 X178.269951 Y86.229650 Z-0.125000
G01 X174.630981 Y70.412430 Z-0.125000
G01 X185.297474 Y54.595680 Z-0.125000
G00 Z10.000000

(End cutting path id: path190075)


(Start cutting path id: path190073)
(Change tool to Default tool)

G00 Z10.000000
G00 X183.585934 Y54.595680

G00 Z4.875000 (Fast pre-penetrate)
G01 Z-0.125000 F100.0(Penetrate)
G01 X173.235236 Y70.412430 Z-0.125000 F800.000000
G01 X175.931437 Y86.229650 Z-0.125000
G01 X175.495493 Y102.046400 Z-0.125000
G01 X179.715873 Y117.863160 Z-0.125000
G01 X173.497169 Y133.680370 Z-0.125000
G01 X180.964771 Y149.497120 Z-0.125000
G01 X182.180524 Y165.313880 Z-0.125000
G01 X179.049304 Y181.131100 Z-0.125000
G01 X176.162985 Y196.947850 Z-0.125000
G01 X176.987449 Y212.764600 Z-0.125000
G01 X177.571618 Y228.581820 Z-0.125000
G00 Z10.000000

(End cutting path id: path190073)


(Start cutting path id: path190071)
(Change tool to Default tool)

G00 Z10.000000
G00 X175.975167 Y228.581820

G00 Z4.875000 (Fast pre-penetrate)
G01 Z-0.125000 F100.0(Penetrate)
G01 X175.285119 Y212.764600 Z-0.125000 F800.000000
G01 X175.023650 Y196.947850 Z-0.125000
G01 X177.577604 Y181.131100 Z-0.125000
G01 X179.754081 Y165.313880 Z-0.125000
G01 X179.509181 Y149.497120 Z-0.125000
G01 X172.189348 Y133.680370 Z-0.125000
G01 X178.029658 Y117.863160 Z-0.125000
G01 X174.408176 Y102.046400 Z-0.125000
G01 X173.690510 Y86.229650 Z-0.125000
G01 X172.276813 Y70.412430 Z-0.125000
G01 X181.339027 Y54.595680 Z-0.125000
G00 Z10.000000

(End cutting path id: path190071)


(Start cutting path id: path190069)
(Change tool to Default tool)

G00 Z10.000000
G00 X178.557664 Y54.595680

G00 Z4.875000 (Fast pre-penetrate)
G01 Z-0.125000 F100.0(Penetrate)
G01 X171.756630 Y70.412430 Z-0.125000 F800.000000
G01 X171.546715 Y86.229650 Z-0.125000
G01 X173.320859 Y102.046400 Z-0.125000
G01 X176.513764 Y117.863160 Z-0.125000
G01 X170.857589 Y133.680370 Z-0.125000
G01 X177.907666 Y149.497120 Z-0.125000
G01 X177.133376 Y165.313880 Z-0.125000
G01 X175.790112 Y181.131100 Z-0.125000
G01 X174.102972 Y196.947850 Z-0.125000
G01 X173.582792 Y212.764600 Z-0.125000
G01 X174.379175 Y228.581820 Z-0.125000
G00 Z10.000000

(End cutting path id: path190069)


(Start cutting path id: path190067)
(Change tool to Default tool)

G00 Z10.000000
G00 X172.782724 Y228.581820

G00 Z4.875000 (Fast pre-penetrate)
G01 Z-0.125000 F100.0(Penetrate)
G01 X171.880920 Y212.764600 Z-0.125000 F800.000000
G01 X173.401419 Y196.947850 Z-0.125000
G01 X173.686367 Y181.131100 Z-0.125000
G01 X174.317951 Y165.313880 Z-0.125000
G01 X176.160222 Y149.497120 Z-0.125000
G01 X169.500975 Y133.680370 Z-0.125000
G01 X175.168194 Y117.863160 Z-0.125000
G01 X172.233539 Y102.046400 Z-0.125000
G01 X169.500052 Y86.229650 Z-0.125000
G01 X171.673767 Y70.412430 Z-0.125000
G01 X175.241389 Y54.595680 Z-0.125000
G00 Z10.000000

(End cutting path id: path190067)


(Start cutting path id: path190063)
(Change tool to Default tool)

G00 Z10.000000
G00 X169.590739 Y54.595680

G00 Z4.875000 (Fast pre-penetrate)
G01 Z-0.125000 F100.0(Penetrate)
G01 X170.704759 Y70.412430 Z-0.125000 F800.000000
G01 X167.154172 Y86.229650 Z-0.125000
G01 X169.413509 Y102.046400 Z-0.125000
G01 X172.164490 Y117.863160 Z-0.125000
G01 X166.832855 Y133.680370 Z-0.125000
G01 X172.640940 Y149.497120 Z-0.125000
G01 X168.929692 Y165.313880 Z-0.125000
G01 X169.105543 Y181.131100 Z-0.125000
G01 X172.487646 Y196.947850 Z-0.125000
G01 X169.737585 Y212.764600 Z-0.125000
G01 X171.723944 Y228.581820 Z-0.125000
G01 X168.223075 Y212.764600 Z-0.125000
G01 X170.833190 Y196.947850 Z-0.125000
G01 X165.213844 Y181.131100 Z-0.125000
G01 X164.584103 Y165.313880 Z-0.125000
G01 X169.448494 Y149.497120 Z-0.125000
G01 X164.276597 Y133.680370 Z-0.125000
G01 X168.378209 Y117.863160 Z-0.125000
G01 X165.623085 Y102.046400 Z-0.125000
G01 X165.983532 Y86.229650 Z-0.125000
G01 X167.724529 Y70.412430 Z-0.125000
G01 X166.398295 Y54.595680 Z-0.125000
G00 Z10.000000

(End cutting path id: path190063)


(Start cutting path id: path190065)
(Change tool to Default tool)

G00 Z10.000000
G00 X167.994285 Y54.595680

G00 Z4.875000 (Fast pre-penetrate)
G01 Z-0.125000 F100.0(Penetrate)
G01 X169.214643 Y70.412430 Z-0.125000 F800.000000
G01 X166.678180 Y86.229650 Z-0.125000
G01 X167.554664 Y102.046400 Z-0.125000
G01 X170.271580 Y117.863160 Z-0.125000
G01 X165.554494 Y133.680370 Z-0.125000
G01 X171.044486 Y149.497120 Z-0.125000
G01 X166.708104 Y165.313880 Z-0.125000
G01 X167.098928 Y181.131100 Z-0.125000
G01 X171.793916 Y196.947850 Z-0.125000
G01 X169.126257 Y212.764600 Z-0.125000
G01 X171.933860 Y228.581820 Z-0.125000
G00 Z10.000000

(End cutting path id: path190065)


(Start cutting path id: path190061)
(Change tool to Default tool)

G00 Z10.000000
G00 X171.186731 Y228.581820

G00 Z4.875000 (Fast pre-penetrate)
G01 Z-0.125000 F100.0(Penetrate)
G01 X170.178590 Y212.764600 Z-0.125000 F800.000000
G01 X172.918524 Y196.947850 Z-0.125000
G01 X171.266368 Y181.131100 Z-0.125000
G01 X171.308258 Y165.313880 Z-0.125000
G01 X174.266851 Y149.497120 Z-0.125000
G01 X168.120417 Y133.680370 Z-0.125000
G01 X173.992488 Y117.863160 Z-0.125000
G01 X171.146216 Y102.046400 Z-0.125000
G01 X167.550518 Y86.229650 Z-0.125000
G01 X172.028686 Y70.412430 Z-0.125000
G01 X171.390199 Y54.595680 Z-0.125000
G00 Z10.000000

(End cutting path id: path190061)


(Start cutting path id: path190059)
(Change tool to Default tool)

G00 Z10.000000
G00 X164.801844 Y54.595680

G00 Z4.875000 (Fast pre-penetrate)
G01 Z-0.125000 F100.0(Penetrate)
G01 X166.234416 Y70.412430 Z-0.125000 F800.000000
G01 X165.070218 Y86.229650 Z-0.125000
G01 X163.618316 Y102.046400 Z-0.125000
G01 X166.485299 Y117.863160 Z-0.125000
G01 X162.998239 Y133.680370 Z-0.125000
G01 X167.852040 Y149.497120 Z-0.125000
G01 X162.557232 Y165.313880 Z-0.125000
G01 X163.450290 Y181.131100 Z-0.125000
G01 X169.605011 Y196.947850 Z-0.125000
G01 X167.028495 Y212.764600 Z-0.125000
G01 X170.748030 Y228.581820 Z-0.125000
G00 Z10.000000

(End cutting path id: path190059)


(Start cutting path id: path190057)
(Change tool to Default tool)

G00 Z10.000000
G00 X169.352744 Y228.581820

G00 Z4.875000 (Fast pre-penetrate)
G01 Z-0.125000 F100.0(Penetrate)
G01 X165.542067 Y212.764600 Z-0.125000 F800.000000
G01 X168.109371 Y196.947850 Z-0.125000
G01 X161.808725 Y181.131100 Z-0.125000
G01 X160.627957 Y165.313880 Z-0.125000
G01 X166.256050 Y149.497120 Z-0.125000
G01 X161.719879 Y133.680370 Z-0.125000
G01 X164.592389 Y117.863160 Z-0.125000
G01 X161.540809 Y102.046400 Z-0.125000
G01 X163.937787 Y86.229650 Z-0.125000
G01 X164.743841 Y70.412430 Z-0.125000
G01 X163.205851 Y54.595680 Z-0.125000
G00 Z10.000000

(End cutting path id: path190057)


(Start cutting path id: path190055)
(Change tool to Default tool)

G00 Z10.000000
G00 X161.609398 Y54.595680

G00 Z4.875000 (Fast pre-penetrate)
G01 Z-0.125000 F100.0(Penetrate)
G01 X163.253728 Y70.412430 Z-0.125000 F800.000000
G01 X162.586695 Y86.229650 Z-0.125000
G01 X159.390111 Y102.046400 Z-0.125000
G01 X162.699477 Y117.863160 Z-0.125000
G01 X160.441979 Y133.680370 Z-0.125000
G01 X164.659599 Y149.497120 Z-0.125000
G01 X158.795351 Y165.313880 Z-0.125000
G01 X160.288227 Y181.131100 Z-0.125000
G01 X166.346275 Y196.947850 Z-0.125000
G01 X163.763781 Y212.764600 Z-0.125000
G01 X167.423010 Y228.581820 Z-0.125000
G00 Z10.000000

(End cutting path id: path190055)


(Start cutting path id: path190053)
(Change tool to Default tool)

G00 Z10.000000
G00 X164.958356 Y228.581820

G00 Z4.875000 (Fast pre-penetrate)
G01 Z-0.125000 F100.0(Penetrate)
G01 X161.693640 Y212.764600 Z-0.125000 F800.000000
G01 X164.315728 Y196.947850 Z-0.125000
G01 X158.889261 Y181.131100 Z-0.125000
G01 X157.060337 Y165.313880 Z-0.125000
G01 X163.063607 Y149.497120 Z-0.125000
G01 X159.163621 Y133.680370 Z-0.125000
G01 X160.806567 Y117.863160 Z-0.125000
G01 X157.166677 Y102.046400 Z-0.125000
G01 X161.016486 Y86.229650 Z-0.125000
G01 X161.763611 Y70.412430 Z-0.125000
G01 X160.013408 Y54.595680 Z-0.125000
G00 Z10.000000

(End cutting path id: path190053)


(Start cutting path id: path190051)
(Change tool to Default tool)

G00 Z10.000000
G00 X158.416954 Y54.595680

G00 Z4.875000 (Fast pre-penetrate)
G01 Z-0.125000 F100.0(Penetrate)
G01 X160.273495 Y70.412430 Z-0.125000 F800.000000
G01 X159.228071 Y86.229650 Z-0.125000
G01 X154.870510 Y102.046400 Z-0.125000
G01 X158.913199 Y117.863160 Z-0.125000
G01 X157.885266 Y133.680370 Z-0.125000
G01 X161.467611 Y149.497120 Z-0.125000
G01 X155.422454 Y165.313880 Z-0.125000
G01 X157.612281 Y181.131100 Z-0.125000
G01 X162.018177 Y196.947850 Z-0.125000
G01 X159.332108 Y212.764600 Z-0.125000
G01 X161.958334 Y228.581820 Z-0.125000
G00 Z10.000000

(End cutting path id: path190051)


(Start cutting path id: path190049)
(Change tool to Default tool)

G00 Z10.000000
G00 X158.423860 Y228.581820

G00 Z4.875000 (Fast pre-penetrate)
G01 Z-0.125000 F100.0(Penetrate)
G01 X156.678717 Y212.764600 Z-0.125000 F800.000000
G01 X159.452715 Y196.947850 Z-0.125000
G01 X156.456835 Y181.131100 Z-0.125000
G01 X153.882164 Y165.313880 Z-0.125000
G01 X159.871163 Y149.497120 Z-0.125000
G01 X156.607366 Y133.680370 Z-0.125000
G01 X157.020289 Y117.863160 Z-0.125000
G01 X152.501150 Y102.046400 Z-0.125000
G01 X157.220076 Y86.229650 Z-0.125000
G01 X158.783384 Y70.412430 Z-0.125000
G01 X156.820961 Y54.595680 Z-0.125000
G00 Z10.000000

(End cutting path id: path190049)


(Start cutting path id: path190047)
(Change tool to Default tool)

G00 Z10.000000
G00 X154.412012 Y54.595680

G00 Z4.875000 (Fast pre-penetrate)
G01 Z-0.125000 F100.0(Penetrate)
G01 X157.923013 Y70.412430 Z-0.125000 F800.000000
G01 X155.372280 Y86.229650 Z-0.125000
G01 X150.723326 Y102.046400 Z-0.125000
G01 X155.533855 Y117.863160 Z-0.125000
G01 X155.409568 Y133.680370 Z-0.125000
G01 X158.275170 Y149.497120 Z-0.125000
G01 X152.572503 Y165.313880 Z-0.125000
G01 X155.168808 Y181.131100 Z-0.125000
G01 X157.302014 Y196.947850 Z-0.125000
G01 X153.469241 Y212.764600 Z-0.125000
G01 X155.224510 Y228.581820 Z-0.125000
G00 Z10.000000

(End cutting path id: path190047)


(Start cutting path id: path190045)
(Change tool to Default tool)

G00 Z10.000000
G00 X153.628518 Y228.581820

G00 Z4.875000 (Fast pre-penetrate)
G01 Z-0.125000 F100.0(Penetrate)
G01 X149.943511 Y212.764600 Z-0.125000 F800.000000
G01 X156.379037 Y196.947850 Z-0.125000
G01 X153.353235 Y181.131100 Z-0.125000
G01 X151.569884 Y165.313880 Z-0.125000
G01 X156.678717 Y149.497120 Z-0.125000
G01 X154.295548 Y133.680370 Z-0.125000
G01 X154.702026 Y117.863160 Z-0.125000
G01 X150.153427 Y102.046400 Z-0.125000
G01 X154.162048 Y86.229650 Z-0.125000
G01 X158.063415 Y70.412430 Z-0.125000
G01 X150.693402 Y54.595680 Z-0.125000
G00 Z10.000000

(End cutting path id: path190045)


(Start cutting path id: path190043)
(Change tool to Default tool)

G00 Z10.000000
G00 X147.509704 Y54.595680

G00 Z4.875000 (Fast pre-penetrate)
G01 Z-0.125000 F100.0(Penetrate)
G01 X157.766034 Y70.412430 Z-0.125000 F800.000000
G01 X152.854689 Y86.229650 Z-0.125000
G01 X149.388807 Y102.046400 Z-0.125000
G01 X153.602737 Y117.863160 Z-0.125000
G01 X153.060000 Y133.680370 Z-0.125000
G01 X155.082724 Y149.497120 Z-0.125000
G01 X150.567272 Y165.313880 Z-0.125000
G01 X151.464469 Y181.131100 Z-0.125000
G01 X155.334533 Y196.947850 Z-0.125000
G01 X146.904359 Y212.764600 Z-0.125000
G01 X152.032525 Y228.581820 Z-0.125000
G00 Z10.000000

(End cutting path id: path190043)


(Start cutting path id: path190041)
(Change tool to Default tool)

G00 Z10.000000
G00 X150.436071 Y228.581820

G00 Z4.875000 (Fast pre-penetrate)
G01 Z-0.125000 F100.0(Penetrate)
G01 X144.351325 Y212.764600 Z-0.125000 F800.000000
G01 X154.168493 Y196.947850 Z-0.125000
G01 X149.502968 Y181.131100 Z-0.125000
G01 X149.564658 Y165.313880 Z-0.125000
G01 X153.486278 Y149.497120 Z-0.125000
G01 X151.703385 Y133.680370 Z-0.125000
G01 X152.235998 Y117.863160 Z-0.125000
G01 X148.429462 Y102.046400 Z-0.125000
G01 X151.449739 Y86.229650 Z-0.125000
G01 X157.030876 Y70.412430 Z-0.125000
G01 X144.860922 Y54.595680 Z-0.125000
G00 Z10.000000

(End cutting path id: path190041)


(Start cutting path id: path190039)
(Change tool to Default tool)

G00 Z10.000000
G00 X141.086608 Y54.595680

G00 Z4.875000 (Fast pre-penetrate)
G01 Z-0.125000 F100.0(Penetrate)
G01 X133.129205 Y70.412430 Z-0.125000 F800.000000
G01 X135.680397 Y86.229650 Z-0.125000
G01 X133.630052 Y102.046400 Z-0.125000
G01 X133.251194 Y117.863160 Z-0.125000
G01 X133.189964 Y133.680370 Z-0.125000
G01 X137.710484 Y149.497120 Z-0.125000
G01 X133.288937 Y165.313880 Z-0.125000
G01 X133.277887 Y181.131100 Z-0.125000
G01 X139.598788 Y196.947850 Z-0.125000
G01 X140.194009 Y212.764600 Z-0.125000
G01 X136.070296 Y228.581820 Z-0.125000
G00 Z10.000000

(End cutting path id: path190039)


(Start cutting path id: path190027)
(Change tool to Default tool)

G00 Z10.000000
G00 X134.474312 Y228.581820

G00 Z4.875000 (Fast pre-penetrate)
G01 Z-0.125000 F100.0(Penetrate)
G01 X139.568413 Y212.764600 Z-0.125000 F800.000000
G01 X137.772634 Y196.947850 Z-0.125000
G01 X132.445140 Y181.131100 Z-0.125000
G01 X130.271426 Y165.313880 Z-0.125000
G01 X136.052811 Y149.497120 Z-0.125000
G01 X130.768130 Y133.680370 Z-0.125000
G01 X131.983424 Y117.863160 Z-0.125000
G01 X132.034064 Y102.046400 Z-0.125000
G01 X134.123078 Y86.229650 Z-0.125000
G01 X130.532443 Y70.412430 Z-0.125000
G01 X140.324753 Y54.595680 Z-0.125000
G01 X143.431115 Y70.412430 Z-0.125000
G01 X140.978432 Y86.229650 Z-0.125000
G01 X138.591120 Y102.046400 Z-0.125000
G01 X138.419413 Y117.863160 Z-0.125000
G01 X141.008354 Y133.680370 Z-0.125000
G01 X143.908946 Y149.497120 Z-0.125000
G01 X143.548960 Y165.313880 Z-0.125000
G01 X136.202426 Y181.131100 Z-0.125000
G01 X144.618328 Y196.947850 Z-0.125000
G01 X139.243416 Y212.764600 Z-0.125000
G01 X140.858744 Y228.581820 Z-0.125000
G00 Z10.000000

(End cutting path id: path190027)


(Start cutting path id: path190029)
(Change tool to Default tool)

G00 Z10.000000
G00 X142.455192 Y228.581820

G00 Z4.875000 (Fast pre-penetrate)
G01 Z-0.125000 F100.0(Penetrate)
G01 X138.879288 Y212.764600 Z-0.125000 F800.000000
G01 X146.513993 Y196.947850 Z-0.125000
G01 X138.601704 Y181.131100 Z-0.125000
G01 X144.551573 Y165.313880 Z-0.125000
G01 X145.505393 Y149.497120 Z-0.125000
G01 X143.095063 Y133.680370 Z-0.125000
G01 X141.390893 Y117.863160 Z-0.125000
G01 X140.716957 Y102.046400 Z-0.125000
G01 X142.967090 Y86.229650 Z-0.125000
G01 X146.792038 Y70.412430 Z-0.125000
G01 X139.639766 Y54.595680 Z-0.125000
G01 X149.714723 Y70.412430 Z-0.125000
G01 X144.858158 Y86.229650 Z-0.125000
G01 X142.648536 Y102.046400 Z-0.125000
G01 X144.094917 Y117.863160 Z-0.125000
G01 X145.059784 Y133.680370 Z-0.125000
G01 X147.101386 Y149.497120 Z-0.125000
G01 X145.554189 Y165.313880 Z-0.125000
G01 X140.927792 Y181.131100 Z-0.125000
G01 X148.288135 Y196.947850 Z-0.125000
G01 X139.001277 Y212.764600 Z-0.125000
G01 X144.051187 Y228.581820 Z-0.125000
G00 Z10.000000

(End cutting path id: path190029)


(Start cutting path id: path190031)
(Change tool to Default tool)

G00 Z10.000000
G00 X145.647638 Y228.581820

G00 Z4.875000 (Fast pre-penetrate)
G01 Z-0.125000 F100.0(Penetrate)
G01 X139.609384 Y212.764600 Z-0.125000 F800.000000
G01 X149.940290 Y196.947850 Z-0.125000
G01 X143.181147 Y181.131100 Z-0.125000
G01 X146.556803 Y165.313880 Z-0.125000
G01 X148.697837 Y149.497120 Z-0.125000
G01 X146.902980 Y133.680370 Z-0.125000
G01 X146.531025 Y117.863160 Z-0.125000
G01 X144.385392 Y102.046400 Z-0.125000
G01 X146.651636 Y86.229650 Z-0.125000
G01 X152.200548 Y70.412430 Z-0.125000
G01 X140.124042 Y54.595680 Z-0.125000
G00 Z10.000000

(End cutting path id: path190031)


(Start cutting path id: path190033)
(Change tool to Default tool)

G00 Z10.000000
G00 X141.005590 Y54.595680

G00 Z4.875000 (Fast pre-penetrate)
G01 Z-0.125000 F100.0(Penetrate)
G01 X139.636082 Y70.412430 Z-0.125000 F800.000000
G01 X139.085980 Y86.229650 Z-0.125000
G01 X136.822496 Y102.046400 Z-0.125000
G01 X136.298172 Y117.863160 Z-0.125000
G01 X138.398235 Y133.680370 Z-0.125000
G01 X141.754558 Y149.497120 Z-0.125000
G01 X140.345005 Y165.313880 Z-0.125000
G01 X134.943856 Y181.131100 Z-0.125000
G01 X142.959262 Y196.947850 Z-0.125000
G01 X139.986402 Y212.764600 Z-0.125000
G01 X139.262748 Y228.581820 Z-0.125000
G00 Z10.000000

(End cutting path id: path190033)


(Start cutting path id: path190035)
(Change tool to Default tool)

G00 Z10.000000
G00 X137.666297 Y228.581820

G00 Z4.875000 (Fast pre-penetrate)
G01 Z-0.125000 F100.0(Penetrate)
G01 X140.333494 Y212.764600 Z-0.125000 F800.000000
G01 X141.327368 Y196.947850 Z-0.125000
G01 X134.111105 Y181.131100 Z-0.125000
G01 X136.646648 Y165.313880 Z-0.125000
G01 X139.610765 Y149.497120 Z-0.125000
G01 X135.733336 Y133.680370 Z-0.125000
G01 X134.689752 Y117.863160 Z-0.125000
G01 X135.226506 Y102.046400 Z-0.125000
G01 X137.334395 Y86.229650 Z-0.125000
G01 X136.163753 Y70.412430 Z-0.125000
G01 X141.313554 Y54.595680 Z-0.125000
G01 X154.248133 Y70.412430 Z-0.125000
G01 X148.348441 Y86.229650 Z-0.125000
G01 X145.927984 Y102.046400 Z-0.125000
G01 X148.700140 Y117.863160 Z-0.125000
G01 X148.624640 Y133.680370 Z-0.125000
G01 X150.293823 Y149.497120 Z-0.125000
G01 X147.559418 Y165.313880 Z-0.125000
G01 X145.361302 Y181.131100 Z-0.125000
G01 X151.471370 Y196.947850 Z-0.125000
G01 X140.703603 Y212.764600 Z-0.125000
G01 X147.243626 Y228.581820 Z-0.125000
G00 Z10.000000

(End cutting path id: path190035)


(Start cutting path id: path190037)
(Change tool to Default tool)

G00 Z10.000000
G00 X148.840082 Y228.581820

G00 Z4.875000 (Fast pre-penetrate)
G01 Z-0.125000 F100.0(Penetrate)
G01 X142.284409 Y212.764600 Z-0.125000 F800.000000
G01 X152.880469 Y196.947850 Z-0.125000
G01 X147.468733 Y181.131100 Z-0.125000
G01 X148.562036 Y165.313880 Z-0.125000
G01 X151.890280 Y149.497120 Z-0.125000
G01 X150.224780 Y133.680370 Z-0.125000
G01 X150.601796 Y117.863160 Z-0.125000
G01 X147.276311 Y102.046400 Z-0.125000
G01 X149.947655 Y86.229650 Z-0.125000
G01 X155.858395 Y70.412430 Z-0.125000
G01 X142.747048 Y54.595680 Z-0.125000
G00 Z10.000000

(End cutting path id: path190037)


(Start cutting path id: path190025)
(Change tool to Default tool)

G00 Z10.000000
G00 X139.028438 Y54.595680

G00 Z4.875000 (Fast pre-penetrate)
G01 Z-0.125000 F100.0(Penetrate)
G01 X128.373450 Y70.412430 Z-0.125000 F800.000000
G01 X132.663343 Y86.229650 Z-0.125000
G01 X130.437609 Y102.046400 Z-0.125000
G01 X130.885516 Y117.863160 Z-0.125000
G01 X128.467821 Y133.680370 Z-0.125000
G01 X134.638652 Y149.497120 Z-0.125000
G01 X127.594099 Y165.313880 Z-0.125000
G01 X131.611930 Y181.131100 Z-0.125000
G01 X135.849342 Y196.947850 Z-0.125000
G01 X138.456238 Y212.764600 Z-0.125000
G01 X132.877861 Y228.581820 Z-0.125000
G00 Z10.000000

(End cutting path id: path190025)


(Start cutting path id: path190023)
(Change tool to Default tool)

G00 Z10.000000
G00 X131.281868 Y228.581820

G00 Z4.875000 (Fast pre-penetrate)
G01 Z-0.125000 F100.0(Penetrate)
G01 X136.858406 Y212.764600 Z-0.125000 F800.000000
G01 X133.828458 Y196.947850 Z-0.125000
G01 X130.779179 Y181.131100 Z-0.125000
G01 X125.256962 Y165.313880 Z-0.125000
G01 X133.467093 Y149.497120 Z-0.125000
G01 X126.289044 Y133.680370 Z-0.125000
G01 X129.957474 Y117.863160 Z-0.125000
G01 X128.841616 Y102.046400 Z-0.125000
G01 X131.300743 Y86.229650 Z-0.125000
G01 X126.651789 Y70.412430 Z-0.125000
G01 X137.196752 Y54.595680 Z-0.125000
G00 Z10.000000

(End cutting path id: path190023)


(Start cutting path id: path190021)
(Change tool to Default tool)

G00 Z10.000000
G00 X134.830154 Y54.595680

G00 Z4.875000 (Fast pre-penetrate)
G01 Z-0.125000 F100.0(Penetrate)
G01 X125.367448 Y70.412430 Z-0.125000 F800.000000
G01 X130.035274 Y86.229650 Z-0.125000
G01 X127.245165 Y102.046400 Z-0.125000
G01 X129.200219 Y117.863160 Z-0.125000
G01 X124.232252 Y133.680370 Z-0.125000
G01 X132.539050 Y149.497120 Z-0.125000
G01 X123.260479 Y165.313880 Z-0.125000
G01 X129.945969 Y181.131100 Z-0.125000
G01 X131.710906 Y196.947850 Z-0.125000
G01 X134.773991 Y212.764600 Z-0.125000
G01 X129.685414 Y228.581820 Z-0.125000
G00 Z10.000000

(End cutting path id: path190021)


(Start cutting path id: path190019)
(Change tool to Default tool)

G00 Z10.000000
G00 X128.089427 Y228.581820

G00 Z4.875000 (Fast pre-penetrate)
G01 Z-0.125000 F100.0(Penetrate)
G01 X132.203466 Y212.764600 Z-0.125000 F800.000000
G01 X129.495757 Y196.947850 Z-0.125000
G01 X129.113214 Y181.131100 Z-0.125000
G01 X121.604641 Y165.313880 Z-0.125000
G01 X131.854068 Y149.497120 Z-0.125000
G01 X122.296532 Y133.680370 Z-0.125000
G01 X128.612829 Y117.863160 Z-0.125000
G01 X125.649173 Y102.046400 Z-0.125000
G01 X128.867397 Y86.229650 Z-0.125000
G01 X124.520882 Y70.412430 Z-0.125000
G01 X131.929103 Y54.595680 Z-0.125000
G00 Z10.000000

(End cutting path id: path190019)


(Start cutting path id: path190017)
(Change tool to Default tool)

G00 Z10.000000
G00 X128.493141 Y54.595680

G00 Z4.875000 (Fast pre-penetrate)
G01 Z-0.125000 F100.0(Penetrate)
G01 X124.112103 Y70.412430 Z-0.125000 F800.000000
G01 X127.796187 Y86.229650 Z-0.125000
G01 X124.052719 Y102.046400 Z-0.125000
G01 X128.195762 Y117.863160 Z-0.125000
G01 X120.482340 Y133.680370 Z-0.125000
G01 X131.412144 Y149.497120 Z-0.125000
G01 X120.288995 Y165.313880 Z-0.125000
G01 X128.280004 Y181.131100 Z-0.125000
G01 X127.183480 Y196.947850 Z-0.125000
G01 X129.146359 Y212.764600 Z-0.125000
G01 X126.492973 Y228.581820 Z-0.125000
G00 Z10.000000

(End cutting path id: path190017)


(Start cutting path id: path190015)
(Change tool to Default tool)

G00 Z10.000000
G00 X124.532851 Y228.581820

G00 Z4.875000 (Fast pre-penetrate)
G01 Z-0.125000 F100.0(Penetrate)
G01 X125.865533 Y212.764600 Z-0.125000 F800.000000
G01 X124.841740 Y196.947850 Z-0.125000
G01 X127.241483 Y181.131100 Z-0.125000
G01 X119.136769 Y165.313880 Z-0.125000
G01 X130.997379 Y149.497120 Z-0.125000
G01 X118.970589 Y133.680370 Z-0.125000
G01 X127.774094 Y117.863160 Z-0.125000
G01 X122.579638 Y102.046400 Z-0.125000
G01 X126.887022 Y86.229650 Z-0.125000
G01 X124.193124 Y70.412430 Z-0.125000
G01 X124.532851 Y54.595680 Z-0.125000
G00 Z10.000000

(End cutting path id: path190015)


(Start cutting path id: path190013)
(Change tool to Default tool)

G00 Z10.000000
G00 X120.716188 Y54.595680

G00 Z4.875000 (Fast pre-penetrate)
G01 Z-0.125000 F100.0(Penetrate)
G01 X124.519962 Y70.412430 Z-0.125000 F800.000000
G01 X126.221373 Y86.229650 Z-0.125000
G01 X121.794762 Y102.046400 Z-0.125000
G01 X126.290883 Y117.863160 Z-0.125000
G01 X118.515314 Y133.680370 Z-0.125000
G01 X129.401386 Y149.497120 Z-0.125000
G01 X117.137063 Y165.313880 Z-0.125000
G01 X125.092163 Y181.131100 Z-0.125000
G01 X122.864127 Y196.947850 Z-0.125000
G01 X123.961113 Y212.764600 Z-0.125000
G01 X120.716188 Y228.581820 Z-0.125000
G00 Z10.000000

(End cutting path id: path190013)


(Start cutting path id: path190011)
(Change tool to Default tool)

G00 Z10.000000
G00 X117.433978 Y228.581820

G00 Z4.875000 (Fast pre-penetrate)
G01 Z-0.125000 F100.0(Penetrate)
G01 X122.105952 Y212.764600 Z-0.125000 F800.000000
G01 X120.886517 Y196.947850 Z-0.125000
G01 X123.137106 Y181.131100 Z-0.125000
G01 X115.234024 Y165.313880 Z-0.125000
G01 X127.804938 Y149.497120 Z-0.125000
G01 X117.938051 Y133.680370 Z-0.125000
G01 X124.637349 Y117.863160 Z-0.125000
G01 X120.937611 Y102.046400 Z-0.125000
G01 X125.239932 Y86.229650 Z-0.125000
G01 X124.409020 Y70.412430 Z-0.125000
G01 X117.433978 Y54.595680 Z-0.125000
G00 Z10.000000

(End cutting path id: path190011)


(Start cutting path id: path190009)
(Change tool to Default tool)

G00 Z10.000000
G00 X114.686682 Y54.595680

G00 Z4.875000 (Fast pre-penetrate)
G01 Z-0.125000 F100.0(Penetrate)
G01 X123.860758 Y70.412430 Z-0.125000 F800.000000
G01 X123.942240 Y86.229650 Z-0.125000
G01 X120.007270 Y102.046400 Z-0.125000
G01 X122.813950 Y117.863160 Z-0.125000
G01 X117.239719 Y133.680370 Z-0.125000
G01 X126.208945 Y149.497120 Z-0.125000
G01 X113.428577 Y165.313880 Z-0.125000
G01 X121.376776 Y181.131100 Z-0.125000
G01 X118.908443 Y196.947850 Z-0.125000
G01 X120.299124 Y212.764600 Z-0.125000
G01 X114.686682 Y228.581820 Z-0.125000
G00 Z10.000000

(End cutting path id: path190009)


(Start cutting path id: path190007)
(Change tool to Default tool)

G00 Z10.000000
G00 X112.474298 Y228.581820

G00 Z4.875000 (Fast pre-penetrate)
G01 Z-0.125000 F100.0(Penetrate)
G01 X118.540631 Y212.764600 Z-0.125000 F800.000000
G01 X116.930830 Y196.947850 Z-0.125000
G01 X119.811166 Y181.131100 Z-0.125000
G01 X111.720725 Y165.313880 Z-0.125000
G01 X124.612491 Y149.497120 Z-0.125000
G01 X116.419395 Y133.680370 Z-0.125000
G01 X120.820225 Y117.863160 Z-0.125000
G01 X119.003734 Y102.046400 Z-0.125000
G01 X122.328754 Y86.229650 Z-0.125000
G01 X122.874713 Y70.412430 Z-0.125000
G01 X112.474298 Y54.595680 Z-0.125000
G00 Z10.000000

(End cutting path id: path190007)


(Start cutting path id: path190005)
(Change tool to Default tool)

G00 Z10.000000
G00 X110.796826 Y54.595680

G00 Z4.875000 (Fast pre-penetrate)
G01 Z-0.125000 F100.0(Penetrate)
G01 X121.450889 Y70.412430 Z-0.125000 F800.000000
G01 X120.399015 Y86.229650 Z-0.125000
G01 X117.927461 Y102.046400 Z-0.125000
G01 X118.656175 Y117.863160 Z-0.125000
G01 X115.477541 Y133.680370 Z-0.125000
G01 X123.016499 Y149.497120 Z-0.125000
G01 X110.109540 Y165.313880 Z-0.125000
G01 X118.439818 Y181.131100 Z-0.125000
G01 X114.952758 Y196.947850 Z-0.125000
G01 X116.830937 Y212.764600 Z-0.125000
G01 X110.796826 Y228.581820 Z-0.125000
G00 Z10.000000

(End cutting path id: path190005)


(Start cutting path id: path190003)
(Change tool to Default tool)

G00 Z10.000000
G00 X109.435607 Y228.581820

G00 Z4.875000 (Fast pre-penetrate)
G01 Z-0.125000 F100.0(Penetrate)
G01 X110.478733 Y212.764600 Z-0.125000 F800.000000
G01 X107.041850 Y196.947850 Z-0.125000
G01 X114.899360 Y181.131100 Z-0.125000
G01 X104.637964 Y165.313880 Z-0.125000
G01 X116.631611 Y149.497120 Z-0.125000
G01 X110.495307 Y133.680370 Z-0.125000
G01 X108.298571 Y117.863160 Z-0.125000
G01 X112.892743 Y102.046400 Z-0.125000
G01 X109.519388 Y86.229650 Z-0.125000
G01 X111.380072 Y70.412430 Z-0.125000
G01 X109.435607 Y54.595680 Z-0.125000
G01 X107.840996 Y70.412430 Z-0.125000
G01 X106.967274 Y86.229650 Z-0.125000
G01 X110.609009 Y102.046400 Z-0.125000
G01 X105.912179 Y117.863160 Z-0.125000
G01 X108.280619 Y133.680370 Z-0.125000
G01 X114.859768 Y149.497120 Z-0.125000
G01 X103.890374 Y165.313880 Z-0.125000
G01 X114.645250 Y181.131100 Z-0.125000
G01 X105.258499 Y196.947850 Z-0.125000
G01 X108.388799 Y212.764600 Z-0.125000
G01 X109.602249 Y228.581820 Z-0.125000
G01 X115.170038 Y212.764600 Z-0.125000
G01 X112.975145 Y196.947850 Z-0.125000
G01 X117.262732 Y181.131100 Z-0.125000
G01 X108.595950 Y165.313880 Z-0.125000
G01 X121.420045 Y149.497120 Z-0.125000
G01 X114.414162 Y133.680370 Z-0.125000
G01 X116.322261 Y117.863160 Z-0.125000
G01 X116.777997 Y102.046400 Z-0.125000
G01 X118.153027 Y86.229650 Z-0.125000
G01 X119.589284 Y70.412430 Z-0.125000
G01 X109.654268 Y54.595680 Z-0.125000
G00 Z10.000000

(End cutting path id: path190003)


(Start cutting path id: path190001)
(Change tool to Default tool)

G00 Z10.000000
G00 X108.973427 Y54.595680

G00 Z4.875000 (Fast pre-penetrate)
G01 Z-0.125000 F100.0(Penetrate)
G01 X114.554105 Y70.412430 Z-0.125000 F800.000000
G01 X112.713212 Y86.229650 Z-0.125000
G01 X114.260870 Y102.046400 Z-0.125000
G01 X111.143459 Y117.863160 Z-0.125000
G01 X111.923271 Y133.680370 Z-0.125000
G01 X118.227604 Y149.497120 Z-0.125000
G01 X105.860162 Y165.313880 Z-0.125000
G01 X115.492733 Y181.131100 Z-0.125000
G01 X109.019461 Y196.947850 Z-0.125000
G01 X111.994166 Y212.764600 Z-0.125000
G01 X108.973427 Y228.581820 Z-0.125000
G01 X105.973405 Y212.764600 Z-0.125000
G01 X103.671255 Y196.947850 Z-0.125000
G01 X114.251202 Y181.131100 Z-0.125000
G01 X103.319094 Y165.313880 Z-0.125000
G01 X112.945683 Y149.497120 Z-0.125000
G01 X105.593166 Y133.680370 Z-0.125000
G01 X104.205244 Y117.863160 Z-0.125000
G01 X107.775628 Y102.046400 Z-0.125000
G01 X105.197734 Y86.229650 Z-0.125000
G01 X104.621393 Y70.412430 Z-0.125000
G01 X109.007033 Y54.595680 Z-0.125000
G01 X117.290816 Y70.412430 Z-0.125000
G01 X115.591245 Y86.229650 Z-0.125000
G01 X115.555802 Y102.046400 Z-0.125000
G01 X113.818023 Y117.863160 Z-0.125000
G01 X113.229713 Y133.680370 Z-0.125000
G01 X119.824055 Y149.497120 Z-0.125000
G01 X107.179490 Y165.313880 Z-0.125000
G01 X116.280374 Y181.131100 Z-0.125000
G01 X110.997535 Y196.947850 Z-0.125000
G01 X113.557933 Y212.764600 Z-0.125000
G01 X109.046622 Y228.581820 Z-0.125000
G00 Z10.000000

(End cutting path id: path190001)


(Start cutting path id: path189999)
(Change tool to Default tool)

G00 Z10.000000
G00 X108.144819 Y228.581820

G00 Z4.875000 (Fast pre-penetrate)
G01 Z-0.125000 F100.0(Penetrate)
G01 X103.776672 Y212.764600 Z-0.125000 F800.000000
G01 X102.132345 Y196.947850 Z-0.125000
G01 X113.468167 Y181.131100 Z-0.125000
G01 X102.553091 Y165.313880 Z-0.125000
G01 X111.031599 Y149.497120 Z-0.125000
G01 X103.027240 Y133.680370 Z-0.125000
G01 X102.765308 Y117.863160 Z-0.125000
G01 X105.136969 Y102.046400 Z-0.125000
G01 X103.525786 Y86.229650 Z-0.125000
G01 X101.863507 Y70.412430 Z-0.125000
G01 X108.144819 Y54.595680 Z-0.125000
G00 Z10.000000

(End cutting path id: path189999)


(Start cutting path id: path189997)
(Change tool to Default tool)

G00 Z10.000000
G00 X107.015150 Y54.595680

G00 Z4.875000 (Fast pre-penetrate)
G01 Z-0.125000 F100.0(Penetrate)
G01 X99.567801 Y70.412430 Z-0.125000 F800.000000
G01 X101.950508 Y86.229650 Z-0.125000
G01 X102.693037 Y102.046400 Z-0.125000
G01 X101.593290 Y117.863160 Z-0.125000
G01 X100.583306 Y133.680370 Z-0.125000
G01 X109.117053 Y149.497120 Z-0.125000
G01 X101.592826 Y165.313880 Z-0.125000
G01 X112.295687 Y181.131100 Z-0.125000
G01 X100.642229 Y196.947850 Z-0.125000
G01 X101.799059 Y212.764600 Z-0.125000
G01 X107.015150 Y228.581820 Z-0.125000
G00 Z10.000000

(End cutting path id: path189997)


(Start cutting path id: path189995)
(Change tool to Default tool)

G00 Z10.000000
G00 X105.617563 Y228.581820

G00 Z4.875000 (Fast pre-penetrate)
G01 Z-0.125000 F100.0(Penetrate)
G01 X100.040105 Y212.764600 Z-0.125000 F800.000000
G01 X99.200450 Y196.947850 Z-0.125000
G01 X110.734680 Y181.131100 Z-0.125000
G01 X100.438299 Y165.313880 Z-0.125000
G01 X107.202967 Y149.497120 Z-0.125000
G01 X98.260439 Y133.680370 Z-0.125000
G01 X100.688724 Y117.863160 Z-0.125000
G01 X100.443365 Y102.046400 Z-0.125000
G01 X100.472828 Y86.229650 Z-0.125000
G01 X97.733817 Y70.412430 Z-0.125000
G01 X105.617563 Y54.595680 Z-0.125000
G00 Z10.000000

(End cutting path id: path189995)


(Start cutting path id: path189993)
(Change tool to Default tool)

G00 Z10.000000
G00 X103.952979 Y54.595680

G00 Z4.875000 (Fast pre-penetrate)
G01 Z-0.125000 F100.0(Penetrate)
G01 X96.362007 Y70.412430 Z-0.125000 F800.000000
G01 X99.092270 Y86.229650 Z-0.125000
G01 X98.387955 Y102.046400 Z-0.125000
G01 X100.051157 Y117.863160 Z-0.125000
G01 X96.059562 Y133.680370 Z-0.125000
G01 X105.288879 Y149.497120 Z-0.125000
G01 X99.089049 Y165.313880 Z-0.125000
G01 X108.784228 Y181.131100 Z-0.125000
G01 X97.807468 Y196.947850 Z-0.125000
G01 X98.499817 Y212.764600 Z-0.125000
G01 X103.952979 Y228.581820 Z-0.125000
G00 Z10.000000

(End cutting path id: path189993)


(Start cutting path id: path189991)
(Change tool to Default tool)

G00 Z10.000000
G00 X102.020941 Y228.581820

G00 Z4.875000 (Fast pre-penetrate)
G01 Z-0.125000 F100.0(Penetrate)
G01 X97.178646 Y212.764600 Z-0.125000 F800.000000
G01 X96.463281 Y196.947850 Z-0.125000
G01 X106.445251 Y181.131100 Z-0.125000
G01 X97.545538 Y165.313880 Z-0.125000
G01 X103.374799 Y149.497120 Z-0.125000
G01 X93.979758 Y133.680370 Z-0.125000
G01 X99.681503 Y117.863160 Z-0.125000
G01 X96.527267 Y102.046400 Z-0.125000
G01 X97.809310 Y86.229650 Z-0.125000
G01 X95.451919 Y70.412430 Z-0.125000
G01 X102.020941 Y54.595680 Z-0.125000
G00 Z10.000000

(End cutting path id: path189991)


(Start cutting path id: path189989)
(Change tool to Default tool)

G00 Z10.000000
G00 X99.821446 Y54.595680

G00 Z4.875000 (Fast pre-penetrate)
G01 Z-0.125000 F100.0(Penetrate)
G01 X95.003550 Y70.412430 Z-0.125000 F800.000000
G01 X96.623017 Y86.229650 Z-0.125000
G01 X94.860844 Y102.046400 Z-0.125000
G01 X99.578850 Y117.863160 Z-0.125000
G01 X92.021937 Y133.680370 Z-0.125000
G01 X101.460249 Y149.497120 Z-0.125000
G01 X95.807298 Y165.313880 Z-0.125000
G01 X103.716825 Y181.131100 Z-0.125000
G01 X95.167429 Y196.947850 Z-0.125000
G01 X96.076136 Y212.764600 Z-0.125000
G01 X99.821446 Y228.581820 Z-0.125000
G00 Z10.000000

(End cutting path id: path189989)


(Start cutting path id: path189987)
(Change tool to Default tool)

G00 Z10.000000
G00 X97.354494 Y228.581820

G00 Z4.875000 (Fast pre-penetrate)
G01 Z-0.125000 F100.0(Penetrate)
G01 X95.192287 Y212.764600 Z-0.125000 F800.000000
G01 X93.920374 Y196.947850 Z-0.125000
G01 X100.599880 Y181.131100 Z-0.125000
G01 X93.874801 Y165.313880 Z-0.125000
G01 X99.546166 Y149.497120 Z-0.125000
G01 X90.185649 Y133.680370 Z-0.125000
G01 X99.743649 Y117.863160 Z-0.125000
G01 X93.389142 Y102.046400 Z-0.125000
G01 X95.534321 Y86.229650 Z-0.125000
G01 X95.017359 Y70.412430 Z-0.125000
G01 X97.354494 Y54.595680 Z-0.125000
G00 Z10.000000

(End cutting path id: path189987)


(Start cutting path id: path189985)
(Change tool to Default tool)

G00 Z10.000000
G00 X94.620087 Y54.595680

G00 Z4.875000 (Fast pre-penetrate)
G01 Z-0.125000 F100.0(Penetrate)
G01 X95.493351 Y70.412430 Z-0.125000 F800.000000
G01 X94.542751 Y86.229650 Z-0.125000
G01 X92.112167 Y102.046400 Z-0.125000
G01 X100.175908 Y117.863160 Z-0.125000
G01 X88.470891 Y133.680370 Z-0.125000
G01 X97.632078 Y149.497120 Z-0.125000
G01 X91.747576 Y165.313880 Z-0.125000
G01 X97.093945 Y181.131100 Z-0.125000
G01 X92.722114 Y196.947850 Z-0.125000
G01 X94.527100 Y212.764600 Z-0.125000
G01 X94.620090 Y228.581820 Z-0.125000
G00 Z10.000000

(End cutting path id: path189985)


(Start cutting path id: path189983)
(Change tool to Default tool)

G00 Z10.000000
G00 X92.972998 Y228.581820

G00 Z4.875000 (Fast pre-penetrate)
G01 Z-0.125000 F100.0(Penetrate)
G01 X92.972998 Y212.764600 Z-0.125000 F800.000000
G01 X89.329423 Y196.947850 Z-0.125000
G01 X94.808824 Y181.131100 Z-0.125000
G01 X90.410757 Y165.313880 Z-0.125000
G01 X95.717992 Y149.497120 Z-0.125000
G01 X87.376207 Y133.680370 Z-0.125000
G01 X98.801797 Y117.863160 Z-0.125000
G01 X90.660721 Y102.046400 Z-0.125000
G01 X91.360893 Y86.229650 Z-0.125000
G01 X94.691440 Y70.412430 Z-0.125000
G01 X92.972998 Y54.595680 Z-0.125000
G00 Z10.000000

(End cutting path id: path189983)


(Start cutting path id: path189981)
(Change tool to Default tool)

G00 Z10.000000
G00 X91.376544 Y54.595680

G00 Z4.875000 (Fast pre-penetrate)
G01 Z-0.125000 F100.0(Penetrate)
G01 X93.588469 Y70.412430 Z-0.125000 F800.000000
G01 X88.467209 Y86.229650 Z-0.125000
G01 X89.341389 Y102.046400 Z-0.125000
G01 X97.180027 Y117.863160 Z-0.125000
G01 X86.185314 Y133.680370 Z-0.125000
G01 X93.803448 Y149.497120 Z-0.125000
G01 X89.111682 Y165.313880 Z-0.125000
G01 X92.725796 Y181.131100 Z-0.125000
G01 X86.273238 Y196.947850 Z-0.125000
G01 X91.376544 Y212.764600 Z-0.125000
G01 X91.376544 Y228.581820 Z-0.125000
G00 Z10.000000

(End cutting path id: path189981)


(Start cutting path id: path189979)
(Change tool to Default tool)

G00 Z10.000000
G00 X89.780554 Y228.581820

G00 Z4.875000 (Fast pre-penetrate)
G01 Z-0.125000 F100.0(Penetrate)
G01 X89.780554 Y212.764600 Z-0.125000 F800.000000
G01 X83.654834 Y196.947850 Z-0.125000
G01 X90.788695 Y181.131100 Z-0.125000
G01 X87.812150 Y165.313880 Z-0.125000
G01 X91.889363 Y149.497120 Z-0.125000
G01 X84.872891 Y133.680370 Z-0.125000
G01 X95.387472 Y117.863160 Z-0.125000
G01 X88.167529 Y102.046400 Z-0.125000
G01 X85.962510 Y86.229650 Z-0.125000
G01 X92.241982 Y70.412430 Z-0.125000
G01 X89.780554 Y54.595680 Z-0.125000
G00 Z10.000000

(End cutting path id: path189979)


(Start cutting path id: path189977)
(Change tool to Default tool)

G00 Z10.000000
G00 X88.184103 Y54.595680

G00 Z4.875000 (Fast pre-penetrate)
G01 Z-0.125000 F100.0(Penetrate)
G01 X90.652892 Y70.412430 Z-0.125000 F800.000000
G01 X83.846337 Y86.229650 Z-0.125000
G01 X87.139593 Y102.046400 Z-0.125000
G01 X93.425049 Y117.863160 Z-0.125000
G01 X83.439397 Y133.680370 Z-0.125000
G01 X89.975277 Y149.497120 Z-0.125000
G01 X86.512614 Y165.313880 Z-0.125000
G01 X88.997980 Y181.131100 Z-0.125000
G01 X81.474214 Y196.947850 Z-0.125000
G01 X88.184103 Y212.764600 Z-0.125000
G01 X88.184103 Y228.581820 Z-0.125000
G00 Z10.000000

(End cutting path id: path189977)


(Start cutting path id: path189975)
(Change tool to Default tool)

G00 Z10.000000
G00 X86.588108 Y228.581820

G00 Z4.875000 (Fast pre-penetrate)
G01 Z-0.125000 F100.0(Penetrate)
G01 X86.588108 Y212.764600 Z-0.125000 F800.000000
G01 X79.730914 Y196.947850 Z-0.125000
G01 X87.352732 Y181.131100 Z-0.125000
G01 X85.213080 Y165.313880 Z-0.125000
G01 X88.061189 Y149.497120 Z-0.125000
G01 X81.883916 Y133.680370 Z-0.125000
G01 X91.292302 Y117.863160 Z-0.125000
G01 X86.257587 Y102.046400 Z-0.125000
G01 X82.119607 Y86.229650 Z-0.125000
G01 X88.820289 Y70.412430 Z-0.125000
G01 X86.588108 Y54.595680 Z-0.125000
G00 Z10.000000

(End cutting path id: path189975)


(Start cutting path id: path189973)
(Change tool to Default tool)

G00 Z10.000000
G00 X84.991657 Y54.595680

G00 Z4.875000 (Fast pre-penetrate)
G01 Z-0.125000 F100.0(Penetrate)
G01 X86.744623 Y70.412430 Z-0.125000 F800.000000
G01 X80.781865 Y86.229650 Z-0.125000
G01 X85.521505 Y102.046400 Z-0.125000
G01 X88.989690 Y117.863160 Z-0.125000
G01 X80.206905 Y133.680370 Z-0.125000
G01 X86.146645 Y149.497120 Z-0.125000
G01 X83.914005 Y165.313880 Z-0.125000
G01 X85.853410 Y181.131100 Z-0.125000
G01 X78.425396 Y196.947850 Z-0.125000
G01 X84.991657 Y212.764600 Z-0.125000
G01 X84.991657 Y228.581820 Z-0.125000
G00 Z10.000000

(End cutting path id: path189973)


(Start cutting path id: path189971)
(Change tool to Default tool)

G00 Z10.000000
G00 X83.395664 Y228.581820

G00 Z4.875000 (Fast pre-penetrate)
G01 Z-0.125000 F100.0(Penetrate)
G01 X83.395664 Y212.764600 Z-0.125000 F800.000000
G01 X77.557196 Y196.947850 Z-0.125000
G01 X84.499555 Y181.131100 Z-0.125000
G01 X82.614474 Y165.313880 Z-0.125000
G01 X84.232559 Y149.497120 Z-0.125000
G01 X78.408364 Y133.680370 Z-0.125000
G01 X86.516757 Y117.863160 Z-0.125000
G01 X84.931353 Y102.046400 Z-0.125000
G01 X79.832646 Y86.229650 Z-0.125000
G01 X84.425904 Y70.412430 Z-0.125000
G01 X83.395664 Y54.595680 Z-0.125000
G00 Z10.000000

(End cutting path id: path189971)


(Start cutting path id: path189969)
(Change tool to Default tool)

G00 Z10.000000
G00 X81.799213 Y54.595680

G00 Z4.875000 (Fast pre-penetrate)
G01 Z-0.125000 F100.0(Penetrate)
G01 X81.864123 Y70.412430 Z-0.125000 F800.000000
G01 X79.272881 Y86.229650 Z-0.125000
G01 X84.486667 Y102.046400 Z-0.125000
G01 X83.873500 Y117.863160 Z-0.125000
G01 X76.488297 Y133.680370 Z-0.125000
G01 X82.318480 Y149.497120 Z-0.125000
G01 X81.314944 Y165.313880 Z-0.125000
G01 X83.292093 Y181.131100 Z-0.125000
G01 X77.126786 Y196.947850 Z-0.125000
G01 X81.799217 Y212.764600 Z-0.125000
G01 X81.799217 Y228.581820 Z-0.125000
G00 Z10.000000

(End cutting path id: path189969)


(Start cutting path id: path189967)
(Change tool to Default tool)

G00 Z10.000000
G00 X80.203220 Y228.581820

G00 Z4.875000 (Fast pre-penetrate)
G01 Z-0.125000 F100.0(Penetrate)
G01 X80.203220 Y212.764600 Z-0.125000 F800.000000
G01 X77.134147 Y196.947850 Z-0.125000
G01 X82.230549 Y181.131100 Z-0.125000
G01 X80.015862 Y165.313880 Z-0.125000
G01 X80.404388 Y149.497120 Z-0.125000
G01 X74.446694 Y133.680370 Z-0.125000
G01 X81.060369 Y117.863160 Z-0.125000
G01 X84.188365 Y102.046400 Z-0.125000
G01 X79.101631 Y86.229650 Z-0.125000
G01 X79.059281 Y70.412430 Z-0.125000
G01 X80.203219 Y54.595680 Z-0.125000
G00 Z10.000000

(End cutting path id: path189967)


(Start cutting path id: path189965)
(Change tool to Default tool)

G00 Z10.000000
G00 X79.061121 Y54.595680

G00 Z4.875000 (Fast pre-penetrate)
G01 Z-0.125000 F100.0(Penetrate)
G01 X77.144273 Y70.412430 Z-0.125000 F800.000000
G01 X78.619197 Y86.229650 Z-0.125000
G01 X82.876404 Y102.046400 Z-0.125000
G01 X78.840159 Y117.863160 Z-0.125000
G01 X72.699250 Y133.680370 Z-0.125000
G01 X78.655104 Y149.497120 Z-0.125000
G01 X79.403152 Y165.313880 Z-0.125000
G01 X80.890045 Y181.131100 Z-0.125000
G01 X77.358791 Y196.947850 Z-0.125000
G01 X78.570401 Y212.764600 Z-0.125000
G01 X79.061121 Y228.581820 Z-0.125000
G00 Z10.000000

(End cutting path id: path189965)


(Start cutting path id: path189963)
(Change tool to Default tool)

G00 Z10.000000
G00 X78.515160 Y228.581820

G00 Z4.875000 (Fast pre-penetrate)
G01 Z-0.125000 F100.0(Penetrate)
G01 X76.857485 Y212.764600 Z-0.125000 F800.000000
G01 X77.194451 Y196.947850 Z-0.125000
G01 X78.817141 Y181.131100 Z-0.125000
G01 X79.737358 Y165.313880 Z-0.125000
G01 X77.122639 Y149.497120 Z-0.125000
G01 X71.643696 Y133.680370 Z-0.125000
G01 X77.826957 Y117.863160 Z-0.125000
G01 X79.753012 Y102.046400 Z-0.125000
G01 X77.023204 Y86.229650 Z-0.125000
G01 X76.916867 Y70.412430 Z-0.125000
G01 X78.515160 Y54.595680 Z-0.125000
G00 Z10.000000

(End cutting path id: path189963)


(Start cutting path id: path189961)
(Change tool to Default tool)

G00 Z10.000000
G00 X77.702206 Y54.595680

G00 Z4.875000 (Fast pre-penetrate)
G01 Z-0.125000 F100.0(Penetrate)
G01 X76.421542 Y70.412430 Z-0.125000 F800.000000
G01 X75.378877 Y86.229650 Z-0.125000
G01 X76.824341 Y102.046400 Z-0.125000
G01 X76.741481 Y117.863160 Z-0.125000
G01 X70.612079 Y133.680370 Z-0.125000
G01 X75.493503 Y149.497120 Z-0.125000
G01 X79.731376 Y165.313880 Z-0.125000
G01 X76.671509 Y181.131100 Z-0.125000
G01 X76.811453 Y196.947850 Z-0.125000
G01 X75.120630 Y212.764600 Z-0.125000
G01 X77.702207 Y228.581820 Z-0.125000
G00 Z10.000000

(End cutting path id: path189961)


(Start cutting path id: path189959)
(Change tool to Default tool)

G00 Z10.000000
G00 X76.621331 Y228.581820

G00 Z4.875000 (Fast pre-penetrate)
G01 Z-0.125000 F100.0(Penetrate)
G01 X73.359374 Y212.764600 Z-0.125000 F800.000000
G01 X76.209328 Y196.947850 Z-0.125000
G01 X74.452677 Y181.131100 Z-0.125000
G01 X79.385198 Y165.313880 Z-0.125000
G01 X73.766772 Y149.497120 Z-0.125000
G01 X69.605318 Y133.680370 Z-0.125000
G01 X75.582348 Y117.863160 Z-0.125000
G01 X74.089931 Y102.046400 Z-0.125000
G01 X73.685295 Y86.229650 Z-0.125000
G01 X75.658765 Y70.412430 Z-0.125000
G01 X76.621331 Y54.595680 Z-0.125000
G00 Z10.000000

(End cutting path id: path189959)


(Start cutting path id: path189957)
(Change tool to Default tool)

G00 Z10.000000
G00 X75.273462 Y54.595680

G00 Z4.875000 (Fast pre-penetrate)
G01 Z-0.125000 F100.0(Penetrate)
G01 X74.628989 Y70.412430 Z-0.125000 F800.000000
G01 X71.943376 Y86.229650 Z-0.125000
G01 X71.549786 Y102.046400 Z-0.125000
G01 X74.350941 Y117.863160 Z-0.125000
G01 X68.622496 Y133.680370 Z-0.125000
G01 X71.942914 Y149.497120 Z-0.125000
G01 X78.698376 Y165.313880 Z-0.125000
G01 X72.161114 Y181.131100 Z-0.125000
G01 X75.388545 Y196.947850 Z-0.125000
G01 X71.573724 Y212.764600 Z-0.125000
G01 X75.273462 Y228.581820 Z-0.125000
G00 Z10.000000

(End cutting path id: path189957)


(Start cutting path id: path189955)
(Change tool to Default tool)

G00 Z10.000000
G00 X73.658133 Y228.581820

G00 Z4.875000 (Fast pre-penetrate)
G01 Z-0.125000 F100.0(Penetrate)
G01 X69.763675 Y212.764600 Z-0.125000 F800.000000
G01 X74.349101 Y196.947850 Z-0.125000
G01 X69.796359 Y181.131100 Z-0.125000
G01 X77.671362 Y165.313880 Z-0.125000
G01 X70.021464 Y149.497120 Z-0.125000
G01 X67.664073 Y133.680370 Z-0.125000
G01 X73.046344 Y117.863160 Z-0.125000
G01 X69.204364 Y102.046400 Z-0.125000
G01 X70.153121 Y86.229650 Z-0.125000
G01 X73.331295 Y70.412430 Z-0.125000
G01 X73.658133 Y54.595680 Z-0.125000
G00 Z10.000000

(End cutting path id: path189955)


(Start cutting path id: path189953)
(Change tool to Default tool)

G00 Z10.000000
G00 X71.774892 Y54.595680

G00 Z4.875000 (Fast pre-penetrate)
G01 Z-0.125000 F100.0(Penetrate)
G01 X71.766592 Y70.412430 Z-0.125000 F800.000000
G01 X68.314056 Y86.229650 Z-0.125000
G01 X67.053650 Y102.046400 Z-0.125000
G01 X71.668541 Y117.863160 Z-0.125000
G01 X66.729571 Y133.680370 Z-0.125000
G01 X68.002868 Y149.497120 Z-0.125000
G01 X76.303684 Y165.313880 Z-0.125000
G01 X67.358857 Y181.131100 Z-0.125000
G01 X73.090984 Y196.947850 Z-0.125000
G01 X67.929214 Y212.764600 Z-0.125000
G01 X71.774879 Y228.581820 Z-0.125000
G00 Z10.000000

(End cutting path id: path189953)


(Start cutting path id: path189951)
(Change tool to Default tool)

G00 Z10.000000
G00 X69.624651 Y228.581820

G00 Z4.875000 (Fast pre-penetrate)
G01 Z-0.125000 F100.0(Penetrate)
G01 X66.070843 Y212.764600 Z-0.125000 F800.000000
G01 X71.613775 Y196.947850 Z-0.125000
G01 X64.848184 Y181.131100 Z-0.125000
G01 X74.595844 Y165.313880 Z-0.125000
G01 X65.887167 Y149.497120 Z-0.125000
G01 X65.819957 Y133.680370 Z-0.125000
G01 X70.218030 Y117.863160 Z-0.125000
G01 X65.097228 Y102.046400 Z-0.125000
G01 X66.426225 Y86.229650 Z-0.125000
G01 X69.934460 Y70.412430 Z-0.125000
G01 X69.624651 Y54.595680 Z-0.125000
G00 Z10.000000

(End cutting path id: path189951)


(Start cutting path id: path189949)
(Change tool to Default tool)

G00 Z10.000000
G00 X67.206959 Y54.595680

G00 Z4.875000 (Fast pre-penetrate)
G01 Z-0.125000 F100.0(Penetrate)
G01 X67.834397 Y70.412430 Z-0.125000 F800.000000
G01 X64.489582 Y86.229650 Z-0.125000
G01 X63.335516 Y102.046400 Z-0.125000
G01 X68.694308 Y117.863160 Z-0.125000
G01 X64.934269 Y133.680370 Z-0.125000
G01 X63.674324 Y149.497120 Z-0.125000
G01 X72.547801 Y165.313880 Z-0.125000
G01 X62.264770 Y181.131100 Z-0.125000
G01 X69.917428 Y196.947850 Z-0.125000
G01 X64.188063 Y212.764600 Z-0.125000
G01 X67.206959 Y228.581820 Z-0.125000
G00 Z10.000000

(End cutting path id: path189949)


(Start cutting path id: path189947)
(Change tool to Default tool)

G00 Z10.000000
G00 X64.521804 Y228.581820

G00 Z4.875000 (Fast pre-penetrate)
G01 Z-0.125000 F100.0(Penetrate)
G01 X62.280880 Y212.764600 Z-0.125000 F800.000000
G01 X68.002881 Y196.947850 Z-0.125000
G01 X59.608158 Y181.131100 Z-0.125000
G01 X70.159105 Y165.313880 Z-0.125000
G01 X61.364348 Y149.497120 Z-0.125000
G01 X64.073436 Y133.680370 Z-0.125000
G01 X67.098318 Y117.863160 Z-0.125000
G01 X61.768064 Y102.046400 Z-0.125000
G01 X62.504605 Y86.229650 Z-0.125000
G01 X65.467341 Y70.412430 Z-0.125000
G01 X64.521804 Y54.595680 Z-0.125000
G00 Z10.000000

(End cutting path id: path189947)


(Start cutting path id: path189945)
(Change tool to Default tool)

G00 Z10.000000
G00 X61.730317 Y54.595680

G00 Z4.875000 (Fast pre-penetrate)
G01 Z-0.125000 F100.0(Penetrate)
G01 X61.668627 Y70.412430 Z-0.125000 F800.000000
G01 X62.275353 Y86.229650 Z-0.125000
G01 X61.763918 Y102.046400 Z-0.125000
G01 X65.363762 Y117.863160 Z-0.125000
G01 X62.645007 Y133.680370 Z-0.125000
G01 X59.256456 Y149.497120 Z-0.125000
G01 X66.713932 Y165.313880 Z-0.125000
G01 X57.712481 Y181.131100 Z-0.125000
G01 X65.426828 Y196.947850 Z-0.125000
G01 X61.442142 Y212.764600 Z-0.125000
G01 X61.730314 Y228.581820 Z-0.125000
G00 Z10.000000

(End cutting path id: path189945)


(Start cutting path id: path189943)
(Change tool to Default tool)

G00 Z10.000000
G00 X59.192470 Y228.581820

G00 Z4.875000 (Fast pre-penetrate)
G01 Z-0.125000 F100.0(Penetrate)
G01 X60.722176 Y212.764600 Z-0.125000 F800.000000
G01 X62.850318 Y196.947850 Z-0.125000
G01 X56.114193 Y181.131100 Z-0.125000
G01 X63.325846 Y165.313880 Z-0.125000
G01 X57.440886 Y149.497120 Z-0.125000
G01 X61.049017 Y133.680370 Z-0.125000
G01 X63.516428 Y117.863160 Z-0.125000
G01 X61.874402 Y102.046400 Z-0.125000
G01 X62.258782 Y86.229650 Z-0.125000
G01 X57.957384 Y70.412430 Z-0.125000
G01 X59.192470 Y54.595680 Z-0.125000
G00 Z10.000000

(End cutting path id: path189943)


(Start cutting path id: path189941)
(Change tool to Default tool)

G00 Z10.000000
G00 X56.922545 Y54.595680

G00 Z4.875000 (Fast pre-penetrate)
G01 Z-0.125000 F100.0(Penetrate)
G01 X54.756656 Y70.412430 Z-0.125000 F800.000000
G01 X61.902022 Y86.229650 Z-0.125000
G01 X61.644691 Y102.046400 Z-0.125000
G01 X61.571501 Y117.863160 Z-0.125000
G01 X59.452565 Y133.680370 Z-0.125000
G01 X55.867913 Y149.497120 Z-0.125000
G01 X60.278411 Y165.313880 Z-0.125000
G01 X54.588174 Y181.131100 Z-0.125000
G01 X60.443674 Y196.947850 Z-0.125000
G01 X59.783547 Y212.764600 Z-0.125000
G01 X56.922547 Y228.581820 Z-0.125000
G00 Z10.000000

(End cutting path id: path189941)


(Start cutting path id: path189939)
(Change tool to Default tool)

G00 Z10.000000
G00 X54.919615 Y228.581820

G00 Z4.875000 (Fast pre-penetrate)
G01 Z-0.125000 F100.0(Penetrate)
G01 X58.625795 Y212.764600 Z-0.125000 F800.000000
G01 X58.206889 Y196.947850 Z-0.125000
G01 X53.135803 Y181.131100 Z-0.125000
G01 X57.571161 Y165.313880 Z-0.125000
G01 X54.537995 Y149.497120 Z-0.125000
G01 X57.856571 Y133.680370 Z-0.125000
G01 X59.529900 Y117.863160 Z-0.125000
G01 X61.074795 Y102.046400 Z-0.125000
G01 X61.204609 Y86.229650 Z-0.125000
G01 X52.066438 Y70.412430 Z-0.125000
G01 X54.919615 Y54.595680 Z-0.125000
G00 Z10.000000

(End cutting path id: path189939)


(Start cutting path id: path189937)
(Change tool to Default tool)

G00 Z10.000000
G00 X53.184602 Y54.595680

G00 Z4.875000 (Fast pre-penetrate)
G01 Z-0.125000 F100.0(Penetrate)
G01 X49.886738 Y70.412430 Z-0.125000 F800.000000
G01 X60.167008 Y86.229650 Z-0.125000
G01 X60.162408 Y102.046400 Z-0.125000
G01 X57.388411 Y117.863160 Z-0.125000
G01 X56.258281 Y133.680370 Z-0.125000
G01 X53.449759 Y149.497120 Z-0.125000
G01 X55.202728 Y165.313880 Z-0.125000
G01 X51.754335 Y181.131100 Z-0.125000
G01 X56.139055 Y196.947850 Z-0.125000
G01 X57.247550 Y212.764600 Z-0.125000
G01 X53.182763 Y228.581820 Z-0.125000
G00 Z10.000000

(End cutting path id: path189937)


(Start cutting path id: path189935)
(Change tool to Default tool)

G00 Z10.000000
G00 X51.716584 Y228.581820

G00 Z4.875000 (Fast pre-penetrate)
G01 Z-0.125000 F100.0(Penetrate)
G01 X55.654316 Y212.764600 Z-0.125000 F800.000000
G01 X54.244757 Y196.947850 Z-0.125000
G01 X50.449272 Y181.131100 Z-0.125000
G01 X53.178155 Y165.313880 Z-0.125000
G01 X52.607797 Y149.497120 Z-0.125000
G01 X54.664127 Y133.680370 Z-0.125000
G01 X55.153928 Y117.863160 Z-0.125000
G01 X58.913505 Y102.046400 Z-0.125000
G01 X58.789216 Y86.229650 Z-0.125000
G01 X48.217552 Y70.412430 Z-0.125000
G01 X51.716584 Y54.595680 Z-0.125000
G00 Z10.000000

(End cutting path id: path189935)


(Start cutting path id: path189933)
(Change tool to Default tool)

G00 Z10.000000
G00 X50.516482 Y54.595680

G00 Z4.875000 (Fast pre-penetrate)
G01 Z-0.125000 F100.0(Penetrate)
G01 X47.058885 Y70.412430 Z-0.125000 F800.000000
G01 X57.070773 Y86.229650 Z-0.125000
G01 X57.322579 Y102.046400 Z-0.125000
G01 X52.820472 Y117.863160 Z-0.125000
G01 X53.067676 Y133.680370 Z-0.125000
G01 X52.007515 Y149.497120 Z-0.125000
G01 X51.491937 Y165.313880 Z-0.125000
G01 X49.215567 Y181.131100 Z-0.125000
G01 X52.518492 Y196.947850 Z-0.125000
G01 X53.840124 Y212.764600 Z-0.125000
G01 X50.516482 Y228.581820 Z-0.125000
G00 Z10.000000

(End cutting path id: path189933)


(Start cutting path id: path189931)
(Change tool to Default tool)

G00 Z10.000000
G00 X49.583376 Y228.581820

G00 Z4.875000 (Fast pre-penetrate)
G01 Z-0.125000 F100.0(Penetrate)
G01 X51.807268 Y212.764600 Z-0.125000 F800.000000
G01 X50.963011 Y196.947850 Z-0.125000
G01 X48.054593 Y181.131100 Z-0.125000
G01 X50.146369 Y165.313880 Z-0.125000
G01 X51.650294 Y149.497120 Z-0.125000
G01 X51.471684 Y133.680370 Z-0.125000
G01 X50.389427 Y117.863160 Z-0.125000
G01 X55.391002 Y102.046400 Z-0.125000
G01 X55.012144 Y86.229650 Z-0.125000
G01 X46.410727 Y70.412430 Z-0.125000
G01 X49.583376 Y54.595680 Z-0.125000
G00 Z10.000000

(End cutting path id: path189931)


(Start cutting path id: path189929)
(Change tool to Default tool)

G00 Z10.000000
G00 X48.917727 Y54.595680

G00 Z4.875000 (Fast pre-penetrate)
G01 Z-0.125000 F100.0(Penetrate)
G01 X46.273084 Y70.412430 Z-0.125000 F800.000000
G01 X52.612860 Y86.229650 Z-0.125000
G01 X53.119232 Y102.046400 Z-0.125000
G01 X47.861251 Y117.863160 Z-0.125000
G01 X49.875230 Y133.680370 Z-0.125000
G01 X51.536131 Y149.497120 Z-0.125000
G01 X49.140990 Y165.313880 Z-0.125000
G01 X46.966356 Y181.131100 Z-0.125000
G01 X49.577390 Y196.947850 Z-0.125000
G01 X49.555760 Y212.764600 Z-0.125000
G01 X48.917729 Y228.581820 Z-0.125000
G00 Z10.000000

(End cutting path id: path189929)


(Start cutting path id: path189927)
(Change tool to Default tool)

G00 Z10.000000
G00 X48.510787 Y228.581820

G00 Z4.875000 (Fast pre-penetrate)
G01 Z-0.125000 F100.0(Penetrate)
G01 X46.901447 Y212.764600 Z-0.125000 F800.000000
G01 X48.503423 Y196.947850 Z-0.125000
G01 X45.843590 Y181.131100 Z-0.125000
G01 X48.304098 Y165.313880 Z-0.125000
G01 X51.397107 Y149.497120 Z-0.125000
G01 X48.300416 Y133.680370 Z-0.125000
G01 X45.339519 Y117.863160 Z-0.125000
G01 X50.672535 Y102.046400 Z-0.125000
G01 X50.116448 Y86.229650 Z-0.125000
G01 X46.454460 Y70.412430 Z-0.125000
G01 X48.047687 Y54.595680 Z-0.125000
G00 Z10.000000

(End cutting path id: path189927)


(Start cutting path id: path189925)
(Change tool to Default tool)

G00 Z10.000000
G00 X45.351950 Y54.595680

G00 Z4.875000 (Fast pre-penetrate)
G01 Z-0.125000 F100.0(Penetrate)
G01 X45.864305 Y70.412430 Z-0.125000 F800.000000
G01 X48.529201 Y86.229650 Z-0.125000
G01 X48.821977 Y102.046400 Z-0.125000
G01 X43.340272 Y117.863160 Z-0.125000
G01 X46.803855 Y133.680370 Z-0.125000
G01 X50.082842 Y149.497120 Z-0.125000
G01 X46.901906 Y165.313880 Z-0.125000
G01 X44.301918 Y181.131100 Z-0.125000
G01 X47.925240 Y196.947850 Z-0.125000
G01 X43.617856 Y212.764600 Z-0.125000
G01 X48.014084 Y228.581820 Z-0.125000
G00 Z10.000000

(End cutting path id: path189925)


(Start cutting path id: path189923)
(Change tool to Default tool)

G00 Z10.000000
G00 X47.250384 Y228.581820

G00 Z4.875000 (Fast pre-penetrate)
G01 Z-0.125000 F100.0(Penetrate)
G01 X40.796442 Y212.764600 Z-0.125000 F800.000000
G01 X47.006862 Y196.947850 Z-0.125000
G01 X42.809042 Y181.131100 Z-0.125000
G01 X45.596389 Y165.313880 Z-0.125000
G01 X48.622652 Y149.497120 Z-0.125000
G01 X45.283356 Y133.680370 Z-0.125000
G01 X41.511348 Y117.863160 Z-0.125000
G01 X46.971419 Y102.046400 Z-0.125000
G01 X46.893619 Y86.229650 Z-0.125000
G01 X45.055030 Y70.412430 Z-0.125000
G01 X42.923206 Y54.595680 Z-0.125000
G00 Z10.000000

(End cutting path id: path189923)


(Start cutting path id: path189921)
(Change tool to Default tool)

G00 Z10.000000
G00 X40.762377 Y54.595680

G00 Z4.875000 (Fast pre-penetrate)
G01 Z-0.125000 F100.0(Penetrate)
G01 X44.026638 Y70.412430 Z-0.125000 F800.000000
G01 X45.209244 Y86.229650 Z-0.125000
G01 X45.120854 Y102.046400 Z-0.125000
G01 X39.852747 Y117.863160 Z-0.125000
G01 X43.738460 Y133.680370 Z-0.125000
G01 X47.016526 Y149.497120 Z-0.125000
G01 X44.388457 Y165.313880 Z-0.125000
G01 X41.364497 Y181.131100 Z-0.125000
G01 X45.747834 Y196.947850 Z-0.125000
G01 X38.436288 Y212.764600 Z-0.125000
G01 X46.218762 Y228.581820 Z-0.125000
G00 Z10.000000

(End cutting path id: path189921)


(Start cutting path id: path189919)
(Change tool to Default tool)

G00 Z10.000000
G00 X44.920149 Y228.581820

G00 Z4.875000 (Fast pre-penetrate)
G01 Z-0.125000 F100.0(Penetrate)
G01 X36.538777 Y212.764600 Z-0.125000 F800.000000
G01 X44.148627 Y196.947850 Z-0.125000
G01 X39.968295 Y181.131100 Z-0.125000
G01 X43.277665 Y165.313880 Z-0.125000
G01 X45.264484 Y149.497120 Z-0.125000
G01 X42.169630 Y133.680370 Z-0.125000
G01 X38.364016 Y117.863160 Z-0.125000
G01 X43.270300 Y102.046400 Z-0.125000
G01 X43.476531 Y86.229650 Z-0.125000
G01 X42.780041 Y70.412430 Z-0.125000
G01 X38.869009 Y54.595680 Z-0.125000
G00 Z10.000000

(End cutting path id: path189919)


(Start cutting path id: path189917)
(Change tool to Default tool)

G00 Z10.000000
G00 X37.242634 Y54.595680

G00 Z4.875000 (Fast pre-penetrate)
G01 Z-0.125000 F100.0(Penetrate)
G01 X41.314324 Y70.412430 Z-0.125000 F800.000000
G01 X41.694564 Y86.229650 Z-0.125000
G01 X41.419742 Y102.046400 Z-0.125000
G01 X37.045610 Y117.863160 Z-0.125000
G01 X40.575941 Y133.680370 Z-0.125000
G01 X43.366511 Y149.497120 Z-0.125000
G01 X42.264463 Y165.313880 Z-0.125000
G01 X38.621347 Y181.131100 Z-0.125000
G01 X42.208761 Y196.947850 Z-0.125000
G01 X35.102523 Y212.764600 Z-0.125000
G01 X43.353622 Y228.581820 Z-0.125000
G00 Z10.000000

(End cutting path id: path189917)


(Start cutting path id: path189915)
(Change tool to Default tool)

G00 Z10.000000
G00 X41.520094 Y228.581820

G00 Z4.875000 (Fast pre-penetrate)
G01 Z-0.125000 F100.0(Penetrate)
G01 X34.128446 Y212.764600 Z-0.125000 F800.000000
G01 X39.928706 Y196.947850 Z-0.125000
G01 X37.322733 Y181.131100 Z-0.125000
G01 X41.347928 Y165.313880 Z-0.125000
G01 X41.322608 Y149.497120 Z-0.125000
G01 X38.958311 Y133.680370 Z-0.125000
G01 X35.897063 Y117.863160 Z-0.125000
G01 X39.569181 Y102.046400 Z-0.125000
G01 X39.864717 Y86.229650 Z-0.125000
G01 X39.629485 Y70.412430 Z-0.125000
G01 X35.883713 Y54.595680 Z-0.125000
G00 Z10.000000

(End cutting path id: path189915)


(Start cutting path id: path189909)
(Change tool to Default tool)

G00 Z10.000000
G00 X34.127065 Y54.595680

G00 Z4.875000 (Fast pre-penetrate)
G01 Z-0.125000 F100.0(Penetrate)
G01 X28.465830 Y70.412430 Z-0.125000 F800.000000
G01 X29.321597 Y86.229650 Z-0.125000
G01 X29.446348 Y102.046400 Z-0.125000
G01 X32.276968 Y117.863160 Z-0.125000
G01 X32.423815 Y133.680370 Z-0.125000
G01 X33.198103 Y149.497120 Z-0.125000
G01 X38.109912 Y165.313880 Z-0.125000
G01 X29.446348 Y181.131100 Z-0.125000
G01 X26.882267 Y196.947850 Z-0.125000
G01 X31.400023 Y212.764600 Z-0.125000
G01 X30.721024 Y228.581820 Z-0.125000
G00 Z10.000000

(End cutting path id: path189909)


(Start cutting path id: path189911)
(Change tool to Default tool)

G00 Z10.000000
G00 X32.317016 Y228.581820

G00 Z4.875000 (Fast pre-penetrate)
G01 Z-0.125000 F100.0(Penetrate)
G01 X33.208232 Y212.764600 Z-0.125000 F800.000000
G01 X28.525672 Y196.947850 Z-0.125000
G01 X31.821694 Y181.131100 Z-0.125000
G01 X38.741954 Y165.313880 Z-0.125000
G01 X33.353239 Y149.497120 Z-0.125000
G01 X33.029621 Y133.680370 Z-0.125000
G01 X32.946301 Y117.863160 Z-0.125000
G01 X31.821696 Y102.046400 Z-0.125000
G01 X31.717659 Y86.229650 Z-0.125000
G01 X30.782252 Y70.412430 Z-0.125000
G01 X33.742226 Y54.595680 Z-0.125000
G00 Z10.000000

(End cutting path id: path189911)


(Start cutting path id: path189913)
(Change tool to Default tool)

G00 Z10.000000
G00 X33.412162 Y54.595680

G00 Z4.875000 (Fast pre-penetrate)
G01 Z-0.125000 F100.0(Penetrate)
G01 X33.263473 Y70.412430 Z-0.125000 F800.000000
G01 X34.082413 Y86.229650 Z-0.125000
G01 X34.017043 Y102.046400 Z-0.125000
G01 X33.473384 Y117.863160 Z-0.125000
G01 X33.959041 Y133.680370 Z-0.125000
G01 X34.316262 Y149.497120 Z-0.125000
G01 X39.182957 Y165.313880 Z-0.125000
G01 X33.718284 Y181.131100 Z-0.125000
G01 X31.046482 Y196.947850 Z-0.125000
G01 X33.978374 Y212.764600 Z-0.125000
G01 X34.414315 Y228.581820 Z-0.125000
G00 Z10.000000

(End cutting path id: path189913)


(Start cutting path id: path189907)
(Change tool to Default tool)

G00 Z10.000000
G00 X39.419113 Y228.581820

G00 Z4.875000 (Fast pre-penetrate)
G01 Z-0.125000 F100.0(Penetrate)
G01 X33.616550 Y212.764600 Z-0.125000 F800.000000
G01 X37.308462 Y196.947850 Z-0.125000
G01 X36.072456 Y181.131100 Z-0.125000
G01 X40.528988 Y165.313880 Z-0.125000
G01 X39.133243 Y149.497120 Z-0.125000
G01 X37.315827 Y133.680370 Z-0.125000
G01 X34.918846 Y117.863160 Z-0.125000
G01 X37.718164 Y102.046400 Z-0.125000
G01 X37.985619 Y86.229650 Z-0.125000
G01 X37.726449 Y70.412430 Z-0.125000
G01 X34.792714 Y54.595680 Z-0.125000
G00 Z10.000000

(End cutting path id: path189907)


(Start cutting path id: path189903)
(Change tool to Default tool)

G00 Z10.000000
G00 X33.292013 Y54.595680

G00 Z4.875000 (Fast pre-penetrate)
G01 Z-0.125000 F100.0(Penetrate)
G01 X24.415775 Y70.412430 Z-0.125000 F800.000000
G01 X25.332308 Y86.229650 Z-0.125000
G01 X24.914781 Y102.046400 Z-0.125000
G01 X30.428711 Y117.863160 Z-0.125000
G01 X30.410291 Y133.680370 Z-0.125000
G01 X31.720413 Y149.497120 Z-0.125000
G01 X35.823867 Y165.313880 Z-0.125000
G01 X24.914776 Y181.131100 Z-0.125000
G01 X24.251890 Y196.947850 Z-0.125000
G01 X27.783603 Y212.764600 Z-0.125000
G01 X27.528576 Y228.581820 Z-0.125000
G00 Z10.000000

(End cutting path id: path189903)


(Start cutting path id: path189905)
(Change tool to Default tool)

G00 Z10.000000
G00 X29.124573 Y228.581820

G00 Z4.875000 (Fast pre-penetrate)
G01 Z-0.125000 F100.0(Penetrate)
G01 X29.591816 Y212.764600 Z-0.125000 F800.000000
G01 X25.457520 Y196.947850 Z-0.125000
G01 X27.144197 Y181.131100 Z-0.125000
G01 X37.137216 Y165.313880 Z-0.125000
G01 X32.653523 Y149.497120 Z-0.125000
G01 X31.551016 Y133.680370 Z-0.125000
G01 X31.437772 Y117.863160 Z-0.125000
G01 X27.144197 Y102.046400 Z-0.125000
G01 X27.192997 Y86.229650 Z-0.125000
G01 X26.343674 Y70.412430 Z-0.125000
G01 X33.976998 Y54.595680 Z-0.125000
G01 X35.604293 Y70.412430 Z-0.125000
G01 X36.058186 Y86.229650 Z-0.125000
G01 X35.867607 Y102.046400 Z-0.125000
G01 X34.110958 Y117.863160 Z-0.125000
G01 X35.649868 Y133.680370 Z-0.125000
G01 X36.797950 Y149.497120 Z-0.125000
G01 X39.807179 Y165.313880 Z-0.125000
G01 X34.871434 Y181.131100 Z-0.125000
G01 X34.347572 Y196.947850 Z-0.125000
G01 X33.566379 Y212.764600 Z-0.125000
G01 X37.050215 Y228.581820 Z-0.125000
G00 Z10.000000

(End cutting path id: path189905)


(Start cutting path id: path189901)
(Change tool to Default tool)

G00 Z10.000000
G00 X25.932129 Y228.581820

G00 Z4.875000 (Fast pre-penetrate)
G01 Z-0.125000 F100.0(Penetrate)
G01 X25.975399 Y212.764600 Z-0.125000 F800.000000
G01 X23.264929 Y196.947850 Z-0.125000
G01 X22.758557 Y181.131100 Z-0.125000
G01 X34.170797 Y165.313880 Z-0.125000
G01 X30.397866 Y149.497120 Z-0.125000
G01 X29.002583 Y133.680370 Z-0.125000
G01 X29.248864 Y117.863160 Z-0.125000
G01 X22.758557 Y102.046400 Z-0.125000
G01 X23.738617 Y86.229650 Z-0.125000
G01 X22.682601 Y70.412430 Z-0.125000
G01 X32.072576 Y54.595680 Z-0.125000
G00 Z10.000000

(End cutting path id: path189901)


(Start cutting path id: path189899)
(Change tool to Default tool)

G00 Z10.000000
G00 X30.318230 Y54.595680

G00 Z4.875000 (Fast pre-penetrate)
G01 Z-0.125000 F100.0(Penetrate)
G01 X21.144171 Y70.412430 Z-0.125000 F800.000000
G01 X22.412384 Y86.229650 Z-0.125000
G01 X20.675087 Y102.046400 Z-0.125000
G01 X27.899154 Y117.863160 Z-0.125000
G01 X27.326951 Y133.680370 Z-0.125000
G01 X28.686792 Y149.497120 Z-0.125000
G01 X32.177075 Y165.313880 Z-0.125000
G01 X20.675087 Y181.131100 Z-0.125000
G01 X22.496626 Y196.947850 Z-0.125000
G01 X24.167192 Y212.764600 Z-0.125000
G01 X24.336137 Y228.581820 Z-0.125000
G00 Z10.000000

(End cutting path id: path189899)


(Start cutting path id: path189897)
(Change tool to Default tool)

G00 Z10.000000
G00 X22.740145 Y228.581820

G00 Z4.875000 (Fast pre-penetrate)
G01 Z-0.125000 F100.0(Penetrate)
G01 X22.358985 Y212.764600 Z-0.125000 F800.000000
G01 X21.946982 Y196.947850 Z-0.125000
G01 X18.664790 Y181.131100 Z-0.125000
G01 X29.842700 Y165.313880 Z-0.125000
G01 X26.586270 Y149.497120 Z-0.125000
G01 X25.384326 Y133.680370 Z-0.125000
G01 X26.379116 Y117.863160 Z-0.125000
G01 X18.664790 Y102.046400 Z-0.125000
G01 X21.353165 Y86.229650 Z-0.125000
G01 X19.799984 Y70.412430 Z-0.125000
G01 X28.028507 Y54.595680 Z-0.125000
G00 Z10.000000

(End cutting path id: path189897)


(Start cutting path id: path189895)
(Change tool to Default tool)

G00 Z10.000000
G00 X25.204334 Y54.595680

G00 Z4.875000 (Fast pre-penetrate)
G01 Z-0.125000 F100.0(Penetrate)
G01 X18.650520 Y70.412430 Z-0.125000 F800.000000
G01 X20.561843 Y86.229650 Z-0.125000
G01 X16.727228 Y102.046400 Z-0.125000
G01 X24.689216 Y117.863160 Z-0.125000
G01 X23.174243 Y133.680370 Z-0.125000
G01 X24.096761 Y149.497120 Z-0.125000
G01 X27.168136 Y165.313880 Z-0.125000
G01 X16.727228 Y181.131100 Z-0.125000
G01 X21.616478 Y196.947850 Z-0.125000
G01 X20.550795 Y212.764600 Z-0.125000
G01 X21.143711 Y228.581820 Z-0.125000
G00 Z10.000000

(End cutting path id: path189895)


(Start cutting path id: path189893)
(Change tool to Default tool)

G00 Z10.000000
G00 X19.547719 Y228.581820

G00 Z4.875000 (Fast pre-penetrate)
G01 Z-0.125000 F100.0(Penetrate)
G01 X18.742588 Y212.764600 Z-0.125000 F800.000000
G01 X21.504616 Y196.947850 Z-0.125000
G01 X14.862398 Y181.131100 Z-0.125000
G01 X24.153382 Y165.313880 Z-0.125000
G01 X21.218746 Y149.497120 Z-0.125000
G01 X20.696262 Y133.680370 Z-0.125000
G01 X22.828530 Y117.863160 Z-0.125000
G01 X14.862398 Y102.046400 Z-0.125000
G01 X20.037979 Y86.229650 Z-0.125000
G01 X17.695318 Y70.412430 Z-0.125000
G01 X21.845266 Y54.595680 Z-0.125000
G00 Z10.000000

(End cutting path id: path189893)


(Start cutting path id: path189891)
(Change tool to Default tool)

G00 Z10.000000
G00 X17.951266 Y54.595680

G00 Z4.875000 (Fast pre-penetrate)
G01 Z-0.125000 F100.0(Penetrate)
G01 X16.934840 Y70.412430 Z-0.125000 F800.000000
G01 X19.781571 Y86.229650 Z-0.125000
G01 X13.070763 Y102.046400 Z-0.125000
G01 X20.798457 Y117.863160 Z-0.125000
G01 X17.951266 Y133.680370 Z-0.125000
G01 X17.951266 Y149.497120 Z-0.125000
G01 X20.798457 Y165.313880 Z-0.125000
G01 X13.070763 Y181.131100 Z-0.125000
G01 X21.611874 Y196.947850 Z-0.125000
G01 X16.934840 Y212.764600 Z-0.125000
G01 X17.951266 Y228.581820 Z-0.125000
G00 Z10.000000

(End cutting path id: path189891)



(Footer)
M5
G00 X0.0000 Y0.0000
M2
(Using default footer. To add your own footer create file "footer" in the output dir.)
(end)
%