%
(Header)
(Generated by gcodetools from Inkscape.)
(Using default header. To add your own header create file "header" in the output dir.)
M3
(Header end.)
G21 (All units in mm)

(Start cutting path id: path59305)
(Change tool to Default tool)

G00 Z10.000000
G00 X139.184710 Y226.586741

G00 Z4.875000 (Fast pre-penetrate)
G01 Z-0.125000 F100.0(Penetrate)
G01 X139.144298 Y225.339913 Z-0.125000 F800.000000
G01 X139.214001 Y223.472464 Z-0.125000
G01 X139.402391 Y221.821768 Z-0.125000
G01 X139.703434 Y220.188080 Z-0.125000
G01 X140.166808 Y218.378426 Z-0.125000
G01 X140.678785 Y216.798715 Z-0.125000
G01 X141.275106 Y215.249185 Z-0.125000
G01 X141.946375 Y213.731006 Z-0.125000
G01 X142.683698 Y212.244161 Z-0.125000
G01 X143.582389 Y210.608410 Z-0.125000
G01 X144.544208 Y209.009432 Z-0.125000
G01 X145.444573 Y207.616618 Z-0.125000
G01 X146.382177 Y206.249026 Z-0.125000
G01 X147.475878 Y204.738557 Z-0.125000
G01 X148.477356 Y203.417936 Z-0.125000
G01 X149.502885 Y202.116285 Z-0.125000
G01 X150.681763 Y200.672707 Z-0.125000
G01 X151.613618 Y199.562490 Z-0.125000
G01 X152.829816 Y198.151034 Z-0.125000
G01 X154.062394 Y196.754305 Z-0.125000
G01 X155.169120 Y195.522995 Z-0.125000
G01 X156.284732 Y194.300060 Z-0.125000
G01 X157.407597 Y193.084102 Z-0.125000
G01 X158.678042 Y191.723127 Z-0.125000
G01 X159.811385 Y190.517539 Z-0.125000
G01 X160.947531 Y189.314875 Z-0.125000
G01 X162.085252 Y188.113906 Z-0.125000
G01 X163.366028 Y186.763746 Z-0.125000
G01 X164.645646 Y185.412698 Z-0.125000
G01 X165.638174 Y184.359848 Z-0.125000
G01 X166.911736 Y183.003503 Z-0.125000
G01 X168.179721 Y181.642101 Z-0.125000
G01 X169.300400 Y180.426381 Z-0.125000
G01 X170.414305 Y179.204604 Z-0.125000
G01 X171.658434 Y177.821796 Z-0.125000
G01 X172.754120 Y176.583892 Z-0.125000
G01 X173.839360 Y175.336934 Z-0.125000
G01 X175.046784 Y173.922298 Z-0.125000
G01 X176.105657 Y172.653048 Z-0.125000
G01 X177.150018 Y171.371914 Z-0.125000
G01 X178.306359 Y169.915479 Z-0.125000
G01 X179.315069 Y168.606236 Z-0.125000
G01 X180.304582 Y167.282473 Z-0.125000
G01 X181.273204 Y165.943414 Z-0.125000
G01 X182.336325 Y164.417880 Z-0.125000
G01 X183.254667 Y163.043949 Z-0.125000
G01 X184.256368 Y161.477538 Z-0.125000
G01 X185.115614 Y160.066008 Z-0.125000
G01 X185.943754 Y158.636069 Z-0.125000
G01 X186.836025 Y157.004968 Z-0.125000
G01 X187.590615 Y155.534989 Z-0.125000
G01 X188.306961 Y154.046025 Z-0.125000
G01 X189.064718 Y152.348426 Z-0.125000
G01 X189.691854 Y150.819824 Z-0.125000
G01 X190.273285 Y149.273314 Z-0.125000
G01 X190.806723 Y147.709633 Z-0.125000
G01 X191.289945 Y146.129756 Z-0.125000
G01 X191.796908 Y144.341349 Z-0.125000
G01 X192.237674 Y142.749155 Z-0.125000
G01 X192.669297 Y141.154468 Z-0.125000
G01 X193.143908 Y139.357334 Z-0.125000
G01 X193.554526 Y137.757218 Z-0.125000
G01 X193.954504 Y136.154430 Z-0.125000
G01 X194.343219 Y134.548911 Z-0.125000
G01 X194.766901 Y132.739245 Z-0.125000
G01 X195.174626 Y130.925942 Z-0.125000
G01 X195.522349 Y129.311130 Z-0.125000
G01 X195.855823 Y127.693355 Z-0.125000
G01 X196.174186 Y126.072550 Z-0.125000
G01 X196.476441 Y124.448689 Z-0.125000
G01 X196.796409 Y122.617966 Z-0.125000
G01 X197.092899 Y120.783332 Z-0.125000
G01 X197.334719 Y119.149433 Z-0.125000
G01 X197.554953 Y117.512532 Z-0.125000
G01 X197.775302 Y115.667283 Z-0.125000
G01 X197.943710 Y114.024271 Z-0.125000
G01 X198.084446 Y112.378698 Z-0.125000
G01 X198.207058 Y110.524490 Z-0.125000
G01 X198.280225 Y108.874575 Z-0.125000
G01 X198.316663 Y107.223464 Z-0.125000
G01 X198.309452 Y105.365353 Z-0.125000
G01 X198.254391 Y103.714848 Z-0.125000
G01 X198.148559 Y102.066861 Z-0.125000
G01 X197.961737 Y100.218330 Z-0.125000
G01 X197.726738 Y98.583888 Z-0.125000
G01 X197.418717 Y96.961673 Z-0.125000
G01 X197.028181 Y95.357368 Z-0.125000
G01 X196.477445 Y93.583370 Z-0.125000
G01 X195.875159 Y92.046129 Z-0.125000
G01 X195.056368 Y90.379015 Z-0.125000
G01 X194.190518 Y88.973201 Z-0.125000
G01 X193.187706 Y87.661425 Z-0.125000
G01 X192.046868 Y86.467279 Z-0.125000
G01 X190.607949 Y85.291651 Z-0.125000
G01 X189.207155 Y84.414431 Z-0.125000
G01 X187.523120 Y83.624755 Z-0.125000
G01 X185.955263 Y83.095885 Z-0.125000
G01 X184.343144 Y82.719193 Z-0.125000
G01 X182.704053 Y82.480565 Z-0.125000
G01 X180.844480 Y82.357537 Z-0.125000
G01 X179.186958 Y82.361595 Z-0.125000
G01 X177.531806 Y82.457918 Z-0.125000
G01 X175.677689 Y82.661554 Z-0.125000
G01 X174.038700 Y82.916777 Z-0.125000
G01 X172.207706 Y83.275647 Z-0.125000
G01 X170.591531 Y83.651283 Z-0.125000
G01 X168.986805 Y84.073600 Z-0.125000
G01 X167.393519 Y84.537497 Z-0.125000
G01 X165.614802 Y85.103326 Z-0.125000
G01 X164.045020 Y85.641958 Z-0.125000
G01 X162.485788 Y86.210510 Z-0.125000
G01 X160.744083 Y86.882085 Z-0.125000
G01 X159.205911 Y87.505547 Z-0.125000
G01 X157.677043 Y88.151426 Z-0.125000
G01 X156.157030 Y88.817925 Z-0.125000
G01 X154.457527 Y89.589884 Z-0.125000
G01 X152.955141 Y90.295003 Z-0.125000
G01 X151.274451 Y91.107010 Z-0.125000
G01 X149.788028 Y91.844980 Z-0.125000
G01 X148.677223 Y92.408489 Z-0.125000
G01 X147.202919 Y93.170013 Z-0.125000
G01 X145.917944 Y93.846870 Z-0.125000
G01 X144.455612 Y94.630725 Z-0.125000
G01 X142.817998 Y95.524967 Z-0.125000
G01 X141.187602 Y96.431974 Z-0.125000
G01 X139.743925 Y97.248638 Z-0.125000
G01 X138.305462 Y98.074141 Z-0.125000
G01 X136.872066 Y98.907984 Z-0.125000
G01 X135.443578 Y99.749650 Z-0.125000
G01 X133.842332 Y100.704839 Z-0.125000
G01 X132.423553 Y101.561688 Z-0.125000
G01 X131.009136 Y102.425040 Z-0.125000
G01 X129.423108 Y103.403097 Z-0.125000
G01 X128.017404 Y104.279011 Z-0.125000
G01 X126.615573 Y105.160307 Z-0.125000
G01 X125.043164 Y106.157279 Z-0.125000
G01 X123.649123 Y107.048925 Z-0.125000
G01 X122.085242 Y108.056672 Z-0.125000
G01 X120.698554 Y108.957182 Z-0.125000
G01 X119.315197 Y109.861349 Z-0.125000
G01 X117.762849 Y110.882080 Z-0.125000
G01 X116.386206 Y111.793026 Z-0.125000
G01 X115.012560 Y112.706670 Z-0.125000
G01 X113.641846 Y113.622650 Z-0.125000
G01 X112.103217 Y114.654990 Z-0.125000
G01 X110.738396 Y115.574733 Z-0.125000
G01 X109.206083 Y116.610311 Z-0.125000
G01 X107.846561 Y117.532080 Z-0.125000
G01 X106.489386 Y118.454046 Z-0.125000
G01 X105.134298 Y119.375774 Z-0.125000
G01 X103.612090 Y120.411130 Z-0.125000
G01 X102.260749 Y121.330438 Z-0.125000
G01 X100.910693 Y122.247641 Z-0.125000
G01 X98.042866 Y124.181859 Z-0.125000
G01 X96.693534 Y125.088146 Z-0.125000
G01 X95.343232 Y125.989308 Z-0.125000
G01 X93.821715 Y126.995436 Z-0.125000
G01 X92.466477 Y127.882775 Z-0.125000
G01 X91.107288 Y128.762010 Z-0.125000
G01 X89.571795 Y129.739347 Z-0.125000
G01 X88.199998 Y130.596915 Z-0.125000
G01 X86.819958 Y131.441413 Z-0.125000
G01 X85.254677 Y132.372190 Z-0.125000
G01 X83.850033 Y133.179039 Z-0.125000
G01 X82.429206 Y133.960541 Z-0.125000
G01 X80.805411 Y134.798084 Z-0.125000
G01 X79.332933 Y135.489252 Z-0.125000
G01 X77.821282 Y136.098862 Z-0.125000
G01 X74.032276 Y136.391255 Z-0.125000
G01 X72.892206 Y135.906863 Z-0.125000
G01 X71.243700 Y135.045010 Z-0.125000
G01 X69.858227 Y134.143659 Z-0.125000
G01 X68.405712 Y132.983365 Z-0.125000
G01 X67.220350 Y131.833821 Z-0.125000
G01 X66.138842 Y130.587363 Z-0.125000
G01 X65.160543 Y129.259501 Z-0.125000
G01 X64.176864 Y127.687004 Z-0.125000
G01 X63.491757 Y126.419054 Z-0.125000
G01 X62.700577 Y124.743073 Z-0.125000
G01 X62.072950 Y123.220786 Z-0.125000
G01 X61.438283 Y121.480264 Z-0.125000
G01 X60.928244 Y119.915063 Z-0.125000
G01 X60.403225 Y118.138574 Z-0.125000
G01 X59.971902 Y116.549735 Z-0.125000
G01 X59.516153 Y114.753996 Z-0.125000
G01 X59.130506 Y113.153052 Z-0.125000
G01 X58.756131 Y111.549074 Z-0.125000
G01 X58.386981 Y109.943627 Z-0.125000
G01 X57.970193 Y108.137020 Z-0.125000
G01 X57.640783 Y106.733401 Z-0.125000
G01 X57.201876 Y104.930903 Z-0.125000
G01 X56.792095 Y103.333516 Z-0.125000
G01 X56.300279 Y101.543642 Z-0.125000
G01 X55.767401 Y99.764747 Z-0.125000
G01 X55.251887 Y98.196583 Z-0.125000
G01 X54.615017 Y96.451062 Z-0.125000
G01 X53.990843 Y94.921874 Z-0.125000
G01 X53.303946 Y93.419293 Z-0.125000
G01 X52.546993 Y91.950265 Z-0.125000
G01 X51.602890 Y90.347652 Z-0.125000
G01 X50.675731 Y88.978855 Z-0.125000
G01 X49.661360 Y87.673257 Z-0.125000
G01 X48.413702 Y86.293187 Z-0.125000
G01 X47.212283 Y85.157634 Z-0.125000
G01 X45.928306 Y84.116857 Z-0.125000
G01 X44.393859 Y83.066771 Z-0.125000
G01 X42.960862 Y82.245191 Z-0.125000
G01 X41.473157 Y81.528681 Z-0.125000
G01 X39.940859 Y80.914651 Z-0.125000
G01 X38.175729 Y80.338331 Z-0.125000
G01 X36.577083 Y79.931591 Z-0.125000
G01 X34.749902 Y79.610555 Z-0.125000
G01 X33.108647 Y79.464438 Z-0.125000
G01 X31.461896 Y79.465178 Z-0.125000
G01 X29.620378 Y79.657864 Z-0.125000
G01 X28.014015 Y80.010276 Z-0.125000
G01 X26.648175 Y80.460699 Z-0.125000
G01 X24.966174 Y81.227361 Z-0.125000
G01 X23.558710 Y82.074259 Z-0.125000
G01 X22.086330 Y83.190282 Z-0.125000
G01 X20.881972 Y84.307037 Z-0.125000
G01 X19.643782 Y85.678592 Z-0.125000
G01 X18.644115 Y86.982278 Z-0.125000
G01 X17.625718 Y88.524850 Z-0.125000
G01 X16.809304 Y89.951204 Z-0.125000
G01 X16.070041 Y91.419307 Z-0.125000
G01 X15.323255 Y93.111224 Z-0.125000
G01 X14.730085 Y94.644753 Z-0.125000
G01 X14.198332 Y96.200822 Z-0.125000
G01 X13.724038 Y97.775501 Z-0.125000
G01 X13.254457 Y99.564929 Z-0.125000
G01 X12.889397 Y101.168803 Z-0.125000
G01 X12.561897 Y102.780669 Z-0.125000
G01 X12.270867 Y104.399435 Z-0.125000
G01 X11.986830 Y106.227689 Z-0.125000
G01 X11.749387 Y108.062460 Z-0.125000
G01 X11.577913 Y109.698174 Z-0.125000
G01 X11.443232 Y111.337326 Z-0.125000
G01 X11.335139 Y113.184261 Z-0.125000
G01 X11.278343 Y114.827929 Z-0.125000
G01 X11.257875 Y116.472285 Z-0.125000
G01 X11.273415 Y118.116721 Z-0.125000
G01 X11.333037 Y119.965548 Z-0.125000
G01 X11.423937 Y121.607401 Z-0.125000
G01 X11.549615 Y123.246927 Z-0.125000
G01 X11.731489 Y125.087636 Z-0.125000
G01 X11.929421 Y126.719817 Z-0.125000
G01 X12.160511 Y128.347655 Z-0.125000
G01 X12.424126 Y129.970474 Z-0.125000
G01 X12.797361 Y131.990683 Z-0.125000
G01 X13.088924 Y133.399439 Z-0.125000
G01 X13.450099 Y135.002958 Z-0.125000
G01 X13.891514 Y136.798230 Z-0.125000
G01 X14.369735 Y138.583907 Z-0.125000
G01 X14.825411 Y140.162717 Z-0.125000
G01 X15.308714 Y141.733160 Z-0.125000
G01 X15.884017 Y143.489313 Z-0.125000
G01 X16.423651 Y145.040744 Z-0.125000
G01 X16.846279 Y146.198406 Z-0.125000
G01 X17.356334 Y147.542135 Z-0.125000
G01 X18.038171 Y149.258728 Z-0.125000
G01 X18.669915 Y150.774183 Z-0.125000
G01 X19.324639 Y152.279515 Z-0.125000
G01 X20.001706 Y153.774650 Z-0.125000
G01 X20.788930 Y155.444539 Z-0.125000
G01 X21.511510 Y156.917633 Z-0.125000
G01 X22.254580 Y158.380199 Z-0.125000
G01 X23.017607 Y159.832214 Z-0.125000
G01 X23.898509 Y161.452887 Z-0.125000
G01 X24.701978 Y162.882100 Z-0.125000
G01 X25.626988 Y164.476954 Z-0.125000
G01 X26.468550 Y165.883120 Z-0.125000
G01 X27.327309 Y167.278554 Z-0.125000
G01 X28.202643 Y168.662950 Z-0.125000
G01 X29.206226 Y170.207590 Z-0.125000
G01 X30.115499 Y171.568986 Z-0.125000
G01 X31.040085 Y172.919587 Z-0.125000
G01 X32.097403 Y174.426076 Z-0.125000
G01 X33.053108 Y175.753628 Z-0.125000
G01 X34.022830 Y177.070443 Z-0.125000
G01 X35.129667 Y178.539260 Z-0.125000
G01 X36.127902 Y179.833080 Z-0.125000
G01 X37.139301 Y181.116501 Z-0.125000
G01 X38.163385 Y182.389358 Z-0.125000
G01 X39.199660 Y183.651520 Z-0.125000
G01 X40.379160 Y185.058863 Z-0.125000
G01 X41.440708 Y186.298733 Z-0.125000
G01 X42.647991 Y187.681263 Z-0.125000
G01 X43.733355 Y188.898787 Z-0.125000
G01 X44.966940 Y190.256444 Z-0.125000
G01 X46.075234 Y191.452113 Z-0.125000
G01 X47.193846 Y192.637353 Z-0.125000
G01 X48.322693 Y193.812433 Z-0.125000
G01 X49.604174 Y195.122512 Z-0.125000
G01 X50.753965 Y196.275809 Z-0.125000
G01 X51.913423 Y197.418988 Z-0.125000
G01 X53.228584 Y198.693212 Z-0.125000
G01 X54.407883 Y199.814817 Z-0.125000
G01 X55.596303 Y200.926284 Z-0.125000
G01 X56.644033 Y201.890202 Z-0.125000
G01 X58.151094 Y203.255015 Z-0.125000
G01 X59.367323 Y204.334924 Z-0.125000
G01 X60.745557 Y205.538103 Z-0.125000
G01 X63.220236 Y207.647961 Z-0.125000
G01 X64.628427 Y208.815369 Z-0.125000
G01 X65.889320 Y209.841699 Z-0.125000
G01 X67.158591 Y210.857708 Z-0.125000
G01 X68.595983 Y211.988615 Z-0.125000
G01 X69.882680 Y212.982236 Z-0.125000
G01 X71.177643 Y213.965235 Z-0.125000
G01 X72.643928 Y215.058635 Z-0.125000
G01 X73.956224 Y216.018508 Z-0.125000
G01 X75.442069 Y217.085580 Z-0.125000
G01 X76.771700 Y218.021648 Z-0.125000
G01 X78.109555 Y218.946213 Z-0.125000
G01 X79.624317 Y219.972885 Z-0.125000
G01 X80.979671 Y220.872277 Z-0.125000
G01 X82.343286 Y221.759367 Z-0.125000
G01 X83.887137 Y222.742864 Z-0.125000
G01 X85.268423 Y223.602862 Z-0.125000
G01 X86.832401 Y224.554990 Z-0.125000
G01 X88.056603 Y225.282647 Z-0.125000
G01 X89.463556 Y226.101567 Z-0.125000
G01 X90.879194 Y226.905900 Z-0.125000
G01 X92.482056 Y227.793099 Z-0.125000
G01 X94.096256 Y228.660352 Z-0.125000
G01 X95.540739 Y229.413183 Z-0.125000
G01 X97.176656 Y230.239928 Z-0.125000
G01 X98.640759 Y230.955030 Z-0.125000
G01 X100.114258 Y231.650983 Z-0.125000
G01 X101.783510 Y232.410297 Z-0.125000
G01 X103.090350 Y232.981149 Z-0.125000
G01 X104.781719 Y233.690728 Z-0.125000
G01 X106.295899 Y234.295147 Z-0.125000
G01 X108.011761 Y234.944412 Z-0.125000
G01 X109.548025 Y235.491024 Z-0.125000
G01 X110.900959 Y235.943675 Z-0.125000
G01 X114.418592 Y236.993699 Z-0.125000
G01 X115.999432 Y237.394240 Z-0.125000
G01 X117.790759 Y237.791126 Z-0.125000
G01 X119.394022 Y238.089053 Z-0.125000
G01 X121.209063 Y238.354915 Z-0.125000
G01 X122.831046 Y238.519415 Z-0.125000
G01 X124.458679 Y238.605946 Z-0.125000
G01 X126.088232 Y238.601569 Z-0.125000
G01 X127.916131 Y238.468318 Z-0.125000
G01 X129.524750 Y238.212613 Z-0.125000
G01 X131.100995 Y237.803155 Z-0.125000
G01 X132.619065 Y237.213433 Z-0.125000
G01 X134.041932 Y236.419191 Z-0.125000
G01 X135.469327 Y235.266422 Z-0.125000
G01 X136.530418 Y234.021796 Z-0.125000
G01 X137.449850 Y232.422571 Z-0.125000
G01 X138.074852 Y230.680223 Z-0.125000
G01 X138.405849 Y229.063280 Z-0.125000
G01 X138.556710 Y227.416426 Z-0.125000
G01 X138.557249 Y225.760322 Z-0.125000
G01 X138.523032 Y225.137743 Z-0.125000
G01 X138.473824 Y223.894955 Z-0.125000
G01 X138.527737 Y222.034942 Z-0.125000
G01 X138.699529 Y220.392287 Z-0.125000
G01 X138.981692 Y218.768028 Z-0.125000
G01 X139.421312 Y216.970710 Z-0.125000
G01 X139.910168 Y215.403488 Z-0.125000
G01 X140.481722 Y213.867905 Z-0.125000
G01 X141.126806 Y212.365074 Z-0.125000
G01 X141.836773 Y210.895036 Z-0.125000
G01 X142.703562 Y209.279850 Z-0.125000
G01 X143.632581 Y207.703156 Z-0.125000
G01 X144.503271 Y206.331548 Z-0.125000
G01 X145.410915 Y204.986454 Z-0.125000
G01 X146.470782 Y203.502757 Z-0.125000
G01 X147.442252 Y202.207162 Z-0.125000
G01 X148.437984 Y200.931633 Z-0.125000
G01 X149.583766 Y199.518660 Z-0.125000
G01 X150.490292 Y198.433082 Z-0.125000
G01 X151.674589 Y197.054291 Z-0.125000
G01 X152.876124 Y195.691205 Z-0.125000
G01 X153.956078 Y194.490548 Z-0.125000
G01 X155.045760 Y193.298879 Z-0.125000
G01 X156.143592 Y192.114718 Z-0.125000
G01 X157.387004 Y190.790049 Z-0.125000
G01 X158.497358 Y189.617121 Z-0.125000
G01 X159.611523 Y188.447409 Z-0.125000
G01 X160.728283 Y187.279609 Z-0.125000
G01 X161.986711 Y185.966943 Z-0.125000
G01 X163.245281 Y184.653494 Z-0.125000
G01 X164.222332 Y183.629911 Z-0.125000
G01 X165.477135 Y182.311162 Z-0.125000
G01 X166.727618 Y180.987265 Z-0.125000
G01 X167.833773 Y179.804758 Z-0.125000
G01 X168.934100 Y178.616041 Z-0.125000
G01 X170.164055 Y177.270212 Z-0.125000
G01 X171.248092 Y176.064961 Z-0.125000
G01 X172.322545 Y174.850430 Z-0.125000
G01 X173.518831 Y173.471992 Z-0.125000
G01 X174.568660 Y172.234656 Z-0.125000
G01 X175.604751 Y170.985184 Z-0.125000
G01 X176.752678 Y169.564064 Z-0.125000
G01 X177.754675 Y168.285942 Z-0.125000
G01 X178.738169 Y166.993056 Z-0.125000
G01 X179.701441 Y165.684627 Z-0.125000
G01 X180.759315 Y164.193278 Z-0.125000
G01 X181.673653 Y162.849500 Z-0.125000
G01 X182.671578 Y161.316761 Z-0.125000
G01 X183.528088 Y159.934959 Z-0.125000
G01 X184.354065 Y158.534567 Z-0.125000
G01 X185.244570 Y156.936513 Z-0.125000
G01 X185.998174 Y155.495751 Z-0.125000
G01 X186.714069 Y154.035870 Z-0.125000
G01 X187.471951 Y152.370845 Z-0.125000
G01 X188.099755 Y150.871081 Z-0.125000
G01 X188.682371 Y149.353314 Z-0.125000
G01 X189.217508 Y147.818285 Z-0.125000
G01 X189.702941 Y146.266979 Z-0.125000
G01 X190.212984 Y144.510445 Z-0.125000
G01 X190.656979 Y142.946168 Z-0.125000
G01 X191.092278 Y141.379004 Z-0.125000
G01 X191.571529 Y139.612350 Z-0.125000
G01 X191.986704 Y138.038899 Z-0.125000
G01 X192.391627 Y136.462370 Z-0.125000
G01 X192.785659 Y134.882705 Z-0.125000
G01 X193.215747 Y133.101640 Z-0.125000
G01 X193.630305 Y131.316434 Z-0.125000
G01 X193.984445 Y129.726178 Z-0.125000
G01 X194.324648 Y128.132567 Z-0.125000
G01 X194.650033 Y126.535550 Z-0.125000
G01 X194.959599 Y124.935100 Z-0.125000
G01 X195.288118 Y123.130287 Z-0.125000
G01 X195.593498 Y121.321116 Z-0.125000
G01 X195.843505 Y119.709492 Z-0.125000
G01 X196.072160 Y118.094548 Z-0.125000
G01 X196.302292 Y116.273633 Z-0.125000
G01 X196.479655 Y114.651942 Z-0.125000
G01 X196.629590 Y113.027421 Z-0.125000
G01 X196.762860 Y111.196591 Z-0.125000
G01 X196.845768 Y109.567213 Z-0.125000
G01 X196.892187 Y107.936434 Z-0.125000
G01 X196.896545 Y106.100973 Z-0.125000
G01 X196.852082 Y104.470434 Z-0.125000
G01 X196.757116 Y102.842284 Z-0.125000
G01 X196.582885 Y101.015953 Z-0.125000
G01 X196.359449 Y99.401162 Z-0.125000
G01 X196.063338 Y97.798555 Z-0.125000
G01 X195.685096 Y96.213834 Z-0.125000
G01 X195.148651 Y94.461867 Z-0.125000
G01 X194.559531 Y92.944203 Z-0.125000
G01 X193.756027 Y91.299089 Z-0.125000
G01 X192.904181 Y89.912748 Z-0.125000
G01 X191.915684 Y88.620275 Z-0.125000
G01 X190.789403 Y87.445120 Z-0.125000
G01 X189.366926 Y86.290286 Z-0.125000
G01 X187.980662 Y85.430858 Z-0.125000
G01 X186.312681 Y84.660252 Z-0.125000
G01 X184.758725 Y84.147413 Z-0.125000
G01 X183.160102 Y83.785881 Z-0.125000
G01 X181.534088 Y83.561582 Z-0.125000
G01 X179.688753 Y83.453760 Z-0.125000
G01 X178.043506 Y83.470617 Z-0.125000
G01 X176.400317 Y83.579145 Z-0.125000
G01 X174.559354 Y83.795899 Z-0.125000
G01 X172.931835 Y84.062313 Z-0.125000
G01 X171.113560 Y84.433335 Z-0.125000
G01 X169.508571 Y84.819444 Z-0.125000
G01 X167.914966 Y85.251973 Z-0.125000
G01 X166.332771 Y85.725862 Z-0.125000
G01 X164.566538 Y86.302719 Z-0.125000
G01 X163.007900 Y86.850998 Z-0.125000
G01 X161.459888 Y87.429086 Z-0.125000
G01 X159.730935 Y88.111285 Z-0.125000
G01 X158.204252 Y88.744125 Z-0.125000
G01 X156.687044 Y89.399347 Z-0.125000
G01 X155.178899 Y90.075168 Z-0.125000
G01 X153.493027 Y90.857615 Z-0.125000
G01 X152.003044 Y91.572074 Z-0.125000
G01 X150.336673 Y92.394633 Z-0.125000
G01 X148.863338 Y93.142035 Z-0.125000
G01 X147.762595 Y93.712657 Z-0.125000
G01 X146.302061 Y94.483729 Z-0.125000
G01 X145.029495 Y95.169011 Z-0.125000
G01 X143.581795 Y95.962581 Z-0.125000
G01 X141.961265 Y96.867876 Z-0.125000
G01 X140.348674 Y97.786078 Z-0.125000
G01 X138.921487 Y98.612820 Z-0.125000
G01 X137.500192 Y99.448526 Z-0.125000
G01 X136.084697 Y100.292705 Z-0.125000
G01 X134.674905 Y101.144835 Z-0.125000
G01 X133.095726 Y102.111955 Z-0.125000
G01 X131.697557 Y102.979550 Z-0.125000
G01 X130.304764 Y103.853767 Z-0.125000
G01 X128.744384 Y104.844185 Z-0.125000
G01 X127.362747 Y105.731190 Z-0.125000
G01 X125.986277 Y106.623653 Z-0.125000
G01 X124.444078 Y107.633252 Z-0.125000
G01 X123.078506 Y108.536135 Z-0.125000
G01 X121.548626 Y109.556485 Z-0.125000
G01 X120.194056 Y110.468103 Z-0.125000
G01 X118.844743 Y111.383214 Z-0.125000
G01 X117.333177 Y112.415957 Z-0.125000
G01 X115.995150 Y113.337199 Z-0.125000
G01 X114.662513 Y114.260654 Z-0.125000
G01 X113.335352 Y115.185808 Z-0.125000
G01 X111.848957 Y116.227487 Z-0.125000
G01 X110.533598 Y117.154436 Z-0.125000
G01 X109.060520 Y118.196567 Z-0.125000
G01 X107.756960 Y119.122478 Z-0.125000
G01 X106.458940 Y120.046676 Z-0.125000
G01 X105.166236 Y120.968374 Z-0.125000
G01 X103.718034 Y122.000526 Z-0.125000
G01 X102.435767 Y122.913716 Z-0.125000
G01 X101.157684 Y123.821298 Z-0.125000
G01 X98.450983 Y125.721613 Z-0.125000
G01 X97.180340 Y126.604862 Z-0.125000
G01 X95.909735 Y127.478093 Z-0.125000
G01 X94.478181 Y128.446800 Z-0.125000
G01 X93.202296 Y129.295566 Z-0.125000
G01 X91.921013 Y130.131410 Z-0.125000
G01 X90.470399 Y131.054611 Z-0.125000
G01 X89.170732 Y131.859880 Z-0.125000
G01 X87.858969 Y132.648835 Z-0.125000
G01 X86.365179 Y133.514202 Z-0.125000
G01 X85.018877 Y134.261266 Z-0.125000
G01 X83.651176 Y134.982400 Z-0.125000
G01 X82.080688 Y135.752590 Z-0.125000
G01 X80.649697 Y136.385658 Z-0.125000
G01 X79.173760 Y136.940419 Z-0.125000
G01 X75.434567 Y137.146899 Z-0.125000
G01 X74.296805 Y136.658207 Z-0.125000
G01 X72.648637 Y135.795723 Z-0.125000
G01 X71.260546 Y134.899252 Z-0.125000
G01 X69.802101 Y133.749859 Z-0.125000
G01 X68.609099 Y132.614073 Z-0.125000
G01 X67.518009 Y131.384431 Z-0.125000
G01 X66.528462 Y130.075722 Z-0.125000
G01 X65.530481 Y128.526728 Z-0.125000
G01 X64.833269 Y127.277983 Z-0.125000
G01 X64.025530 Y125.627334 Z-0.125000
G01 X63.382454 Y124.127766 Z-0.125000
G01 X62.729817 Y122.412657 Z-0.125000
G01 X62.203447 Y120.869667 Z-0.125000
G01 X61.659828 Y119.117534 Z-0.125000
G01 X61.211900 Y117.549642 Z-0.125000
G01 X60.737533 Y115.776564 Z-0.125000
G01 X60.335496 Y114.194883 Z-0.125000
G01 X59.944977 Y112.609290 Z-0.125000
G01 X59.560019 Y111.021307 Z-0.125000
G01 X59.125951 Y109.233212 Z-0.125000
G01 X58.783537 Y107.843141 Z-0.125000
G01 X58.328571 Y106.056943 Z-0.125000
G01 X57.905225 Y104.472968 Z-0.125000
G01 X57.399053 Y102.696942 Z-0.125000
G01 X56.852895 Y100.930558 Z-0.125000
G01 X56.326580 Y99.372355 Z-0.125000
G01 X55.678815 Y97.636703 Z-0.125000
G01 X55.046177 Y96.115054 Z-0.125000
G01 X54.352071 Y94.618812 Z-0.125000
G01 X53.589262 Y93.154874 Z-0.125000
G01 X52.640310 Y91.556441 Z-0.125000
G01 X51.710472 Y90.189938 Z-0.125000
G01 X50.695025 Y88.885258 Z-0.125000
G01 X49.448104 Y87.504558 Z-0.125000
G01 X48.249053 Y86.366978 Z-0.125000
G01 X46.968995 Y85.322832 Z-0.125000
G01 X45.440671 Y84.267434 Z-0.125000
G01 X44.014483 Y83.439884 Z-0.125000
G01 X42.534696 Y82.716345 Z-0.125000
G01 X41.011252 Y82.094342 Z-0.125000
G01 X39.256966 Y81.508090 Z-0.125000
G01 X37.668672 Y81.091696 Z-0.125000
G01 X35.853994 Y80.758767 Z-0.125000
G01 X34.224647 Y80.601078 Z-0.125000
G01 X32.590559 Y80.589248 Z-0.125000
G01 X30.764149 Y80.766557 Z-0.125000
G01 X29.171894 Y81.104226 Z-0.125000
G01 X27.818823 Y81.540974 Z-0.125000
G01 X26.153651 Y82.289109 Z-0.125000
G01 X24.761358 Y83.118792 Z-0.125000
G01 X23.306085 Y84.214788 Z-0.125000
G01 X22.116831 Y85.313285 Z-0.125000
G01 X20.895398 Y86.663920 Z-0.125000
G01 X19.910350 Y87.948748 Z-0.125000
G01 X18.908041 Y89.469869 Z-0.125000
G01 X18.105590 Y90.876978 Z-0.125000
G01 X17.379962 Y92.325684 Z-0.125000
G01 X16.648124 Y93.995609 Z-0.125000
G01 X16.067895 Y95.509439 Z-0.125000
G01 X15.548761 Y97.045664 Z-0.125000
G01 X15.086770 Y98.600350 Z-0.125000
G01 X14.630661 Y100.367100 Z-0.125000
G01 X14.277256 Y101.950636 Z-0.125000
G01 X13.961132 Y103.541958 Z-0.125000
G01 X13.681195 Y105.139971 Z-0.125000
G01 X13.409300 Y106.944623 Z-0.125000
G01 X13.183634 Y108.755531 Z-0.125000
G01 X13.022322 Y110.369815 Z-0.125000
G01 X12.897506 Y111.987331 Z-0.125000
G01 X12.800155 Y113.809680 Z-0.125000
G01 X12.752584 Y115.431277 Z-0.125000
G01 X12.741037 Y117.053362 Z-0.125000
G01 X12.765189 Y118.675322 Z-0.125000
G01 X12.834122 Y120.498619 Z-0.125000
G01 X12.932963 Y122.117560 Z-0.125000
G01 X13.066259 Y123.733968 Z-0.125000
G01 X13.256317 Y125.548421 Z-0.125000
G01 X13.461171 Y127.157039 Z-0.125000
G01 X13.698847 Y128.761104 Z-0.125000
G01 X13.968729 Y130.359933 Z-0.125000
G01 X14.349285 Y132.349854 Z-0.125000
G01 X14.645649 Y133.737205 Z-0.125000
G01 X15.011971 Y135.316052 Z-0.125000
G01 X15.458743 Y137.083302 Z-0.125000
G01 X15.941852 Y138.840665 Z-0.125000
G01 X16.401469 Y140.394063 Z-0.125000
G01 X16.888325 Y141.938858 Z-0.125000
G01 X17.467149 Y143.665874 Z-0.125000
G01 X18.009480 Y145.191153 Z-0.125000
G01 X18.433860 Y146.329039 Z-0.125000
G01 X18.945657 Y147.649526 Z-0.125000
G01 X19.629245 Y149.335957 Z-0.125000
G01 X20.262072 Y150.824340 Z-0.125000
G01 X20.917422 Y152.302352 Z-0.125000
G01 X21.594647 Y153.769916 Z-0.125000
G01 X22.381471 Y155.408487 Z-0.125000
G01 X23.103166 Y156.853482 Z-0.125000
G01 X23.844840 Y158.287702 Z-0.125000
G01 X24.605947 Y159.711124 Z-0.125000
G01 X25.484041 Y161.299345 Z-0.125000
G01 X26.284422 Y162.699457 Z-0.125000
G01 X27.205272 Y164.261304 Z-0.125000
G01 X28.042509 Y165.637887 Z-0.125000
G01 X28.896336 Y167.003521 Z-0.125000
G01 X29.766114 Y168.357914 Z-0.125000
G01 X30.762681 Y169.868565 Z-0.125000
G01 X31.665018 Y171.199553 Z-0.125000
G01 X32.581992 Y172.519574 Z-0.125000
G01 X33.629923 Y173.991480 Z-0.125000
G01 X34.576530 Y175.288146 Z-0.125000
G01 X35.536431 Y176.573954 Z-0.125000
G01 X36.631336 Y178.007772 Z-0.125000
G01 X37.618166 Y179.270407 Z-0.125000
G01 X38.617392 Y180.522585 Z-0.125000
G01 X39.628523 Y181.764169 Z-0.125000
G01 X40.651058 Y182.995064 Z-0.125000
G01 X41.814148 Y184.367270 Z-0.125000
G01 X42.860250 Y185.575967 Z-0.125000
G01 X44.049185 Y186.923539 Z-0.125000
G01 X45.117372 Y188.110127 Z-0.125000
G01 X46.330654 Y189.433174 Z-0.125000
G01 X47.420030 Y190.598290 Z-0.125000
G01 X48.518909 Y191.753217 Z-0.125000
G01 X49.627212 Y192.898257 Z-0.125000
G01 X50.884619 Y194.174909 Z-0.125000
G01 X52.012170 Y195.298869 Z-0.125000
G01 X53.148608 Y196.413101 Z-0.125000
G01 X54.436959 Y197.655273 Z-0.125000
G01 X55.591634 Y198.748881 Z-0.125000
G01 X56.754707 Y199.832853 Z-0.125000
G01 X57.779679 Y200.773154 Z-0.125000
G01 X59.253333 Y202.104990 Z-0.125000
G01 X60.442106 Y203.159201 Z-0.125000
G01 X61.788718 Y204.334234 Z-0.125000
G01 X64.205398 Y206.396186 Z-0.125000
G01 X65.580046 Y207.537910 Z-0.125000
G01 X66.810621 Y208.542203 Z-0.125000
G01 X68.049139 Y209.536948 Z-0.125000
G01 X69.451467 Y210.644894 Z-0.125000
G01 X70.706619 Y211.618938 Z-0.125000
G01 X71.969724 Y212.583187 Z-0.125000
G01 X73.399846 Y213.656483 Z-0.125000
G01 X74.679749 Y214.599361 Z-0.125000
G01 X76.128927 Y215.648336 Z-0.125000
G01 X77.425807 Y216.569199 Z-0.125000
G01 X78.730798 Y217.479402 Z-0.125000
G01 X80.208500 Y218.490934 Z-0.125000
G01 X81.530873 Y219.377745 Z-0.125000
G01 X82.861500 Y220.253079 Z-0.125000
G01 X84.368275 Y221.224331 Z-0.125000
G01 X85.716669 Y222.074285 Z-0.125000
G01 X87.243751 Y223.016093 Z-0.125000
G01 X88.439351 Y223.736389 Z-0.125000
G01 X89.813745 Y224.547600 Z-0.125000
G01 X91.196984 Y225.344988 Z-0.125000
G01 X92.763611 Y226.225245 Z-0.125000
G01 X94.341820 Y227.086451 Z-0.125000
G01 X95.754537 Y227.834653 Z-0.125000
G01 X97.354988 Y228.657009 Z-0.125000
G01 X98.787814 Y229.368902 Z-0.125000
G01 X100.230278 Y230.062283 Z-0.125000
G01 X101.864909 Y230.819455 Z-0.125000
G01 X103.145038 Y231.389153 Z-0.125000
G01 X104.802349 Y232.097933 Z-0.125000
G01 X106.286514 Y232.702241 Z-0.125000
G01 X107.968901 Y233.352062 Z-0.125000
G01 X109.475656 Y233.899738 Z-0.125000
G01 X110.802951 Y234.353768 Z-0.125000
G01 X114.255370 Y235.409150 Z-0.125000
G01 X115.807514 Y235.812911 Z-0.125000
G01 X117.566733 Y236.214032 Z-0.125000
G01 X119.141578 Y236.516263 Z-0.125000
G01 X120.924746 Y236.787564 Z-0.125000
G01 X122.518451 Y236.957459 Z-0.125000
G01 X124.117821 Y237.049917 Z-0.125000
G01 X125.719095 Y237.052002 Z-0.125000
G01 X127.515137 Y236.926691 Z-0.125000
G01 X129.095402 Y236.678624 Z-0.125000
G01 X130.643336 Y236.277378 Z-0.125000
G01 X132.133301 Y235.696383 Z-0.125000
G01 X133.528575 Y234.911250 Z-0.125000
G01 X134.926199 Y233.768960 Z-0.125000
G01 X135.962651 Y232.533492 Z-0.125000
G01 X136.857143 Y230.944026 Z-0.125000
G01 X137.460491 Y229.210542 Z-0.125000
G01 X137.774931 Y227.600631 Z-0.125000
G01 X137.911508 Y225.960005 Z-0.125000
G01 X137.899745 Y224.309423 Z-0.125000
G01 X137.861369 Y223.688742 Z-0.125000
G01 X137.803371 Y222.450010 Z-0.125000
G01 X137.841491 Y220.597417 Z-0.125000
G01 X137.996686 Y218.962803 Z-0.125000
G01 X138.259969 Y217.347989 Z-0.125000
G01 X138.675832 Y215.562992 Z-0.125000
G01 X139.141569 Y214.008274 Z-0.125000
G01 X139.688353 Y212.486605 Z-0.125000
G01 X140.307257 Y210.999155 Z-0.125000
G01 X140.989864 Y209.545909 Z-0.125000
G01 X141.824750 Y207.951287 Z-0.125000
G01 X142.720969 Y206.396877 Z-0.125000
G01 X143.561990 Y205.046490 Z-0.125000
G01 X144.439674 Y203.723894 Z-0.125000
G01 X145.465705 Y202.266953 Z-0.125000
G01 X146.407164 Y200.996385 Z-0.125000
G01 X147.373101 Y199.746977 Z-0.125000
G01 X148.485784 Y198.364610 Z-0.125000
G01 X149.366984 Y197.303671 Z-0.125000
G01 X150.519373 Y195.957527 Z-0.125000
G01 X151.689870 Y194.628096 Z-0.125000
G01 X152.743053 Y193.458094 Z-0.125000
G01 X153.806804 Y192.297690 Z-0.125000
G01 X154.879604 Y191.145324 Z-0.125000
G01 X156.095982 Y189.856962 Z-0.125000
G01 X157.183349 Y188.716696 Z-0.125000
G01 X158.275533 Y187.579934 Z-0.125000
G01 X159.371332 Y186.445303 Z-0.125000
G01 X160.607408 Y185.170131 Z-0.125000
G01 X161.844932 Y183.894283 Z-0.125000
G01 X162.806508 Y182.899965 Z-0.125000
G01 X164.042551 Y181.618814 Z-0.125000
G01 X165.275532 Y180.332419 Z-0.125000
G01 X166.367162 Y179.183124 Z-0.125000
G01 X167.453912 Y178.027470 Z-0.125000
G01 X168.669693 Y176.718620 Z-0.125000
G01 X169.742079 Y175.546019 Z-0.125000
G01 X170.805748 Y174.363919 Z-0.125000
G01 X171.990895 Y173.021678 Z-0.125000
G01 X173.031679 Y171.816256 Z-0.125000
G01 X174.059500 Y170.598444 Z-0.125000
G01 X175.199016 Y169.212639 Z-0.125000
G01 X176.194300 Y167.965640 Z-0.125000
G01 X177.171773 Y166.703627 Z-0.125000
G01 X178.129694 Y165.425832 Z-0.125000
G01 X179.182319 Y163.968667 Z-0.125000
G01 X180.092657 Y162.655041 Z-0.125000
G01 X181.086803 Y161.155976 Z-0.125000
G01 X181.940579 Y159.803900 Z-0.125000
G01 X182.764394 Y158.433057 Z-0.125000
G01 X183.653133 Y156.868049 Z-0.125000
G01 X184.405749 Y155.456503 Z-0.125000
G01 X185.121192 Y154.025705 Z-0.125000
G01 X185.879199 Y152.393254 Z-0.125000
G01 X186.507671 Y150.922330 Z-0.125000
G01 X187.091472 Y149.433305 Z-0.125000
G01 X187.628309 Y147.926929 Z-0.125000
G01 X188.115955 Y146.404193 Z-0.125000
G01 X188.629075 Y144.679532 Z-0.125000
G01 X189.076299 Y143.143173 Z-0.125000
G01 X189.515273 Y141.603530 Z-0.125000
G01 X189.999164 Y139.867357 Z-0.125000
G01 X190.418897 Y138.320572 Z-0.125000
G01 X190.828766 Y136.770302 Z-0.125000
G01 X191.228115 Y135.216490 Z-0.125000
G01 X191.664609 Y133.464028 Z-0.125000
G01 X192.086001 Y131.706918 Z-0.125000
G01 X192.446558 Y130.141217 Z-0.125000
G01 X192.793487 Y128.571773 Z-0.125000
G01 X193.125896 Y126.998539 Z-0.125000
G01 X193.442772 Y125.421503 Z-0.125000
G01 X193.779844 Y123.642597 Z-0.125000
G01 X194.094115 Y121.858891 Z-0.125000
G01 X194.352298 Y120.269545 Z-0.125000
G01 X194.589386 Y118.676555 Z-0.125000
G01 X194.829301 Y116.879973 Z-0.125000
G01 X195.015621 Y115.279604 Z-0.125000
G01 X195.174767 Y113.676131 Z-0.125000
G01 X195.318691 Y111.868682 Z-0.125000
G01 X195.411334 Y110.259842 Z-0.125000
G01 X195.467741 Y108.649393 Z-0.125000
G01 X195.483669 Y106.836584 Z-0.125000
G01 X195.449771 Y105.226013 Z-0.125000
G01 X195.365673 Y103.617702 Z-0.125000
G01 X195.204048 Y101.813566 Z-0.125000
G01 X194.992175 Y100.218428 Z-0.125000
G01 X194.707974 Y98.635426 Z-0.125000
G01 X194.342027 Y97.070292 Z-0.125000
G01 X193.819888 Y95.340353 Z-0.125000
G01 X193.243917 Y93.842268 Z-0.125000
G01 X192.455711 Y92.219153 Z-0.125000
G01 X191.617858 Y90.852287 Z-0.125000
G01 X190.643694 Y89.579113 Z-0.125000
G01 X189.531946 Y88.422952 Z-0.125000
G01 X188.125919 Y87.288914 Z-0.125000
G01 X186.754183 Y86.447275 Z-0.125000
G01 X185.102259 Y85.695737 Z-0.125000
G01 X183.562203 Y85.198931 Z-0.125000
G01 X181.977075 Y84.852559 Z-0.125000
G01 X180.364140 Y84.642588 Z-0.125000
G01 X178.533041 Y84.549976 Z-0.125000
G01 X176.900069 Y84.579628 Z-0.125000
G01 X175.268846 Y84.700361 Z-0.125000
G01 X173.441034 Y84.930236 Z-0.125000
G01 X171.824986 Y85.207843 Z-0.125000
G01 X170.019430 Y85.591021 Z-0.125000
G01 X168.425630 Y85.987602 Z-0.125000
G01 X166.843145 Y86.430340 Z-0.125000
G01 X165.272039 Y86.914222 Z-0.125000
G01 X163.518291 Y87.502106 Z-0.125000
G01 X161.970795 Y88.060035 Z-0.125000
G01 X160.434003 Y88.647657 Z-0.125000
G01 X158.717805 Y89.340480 Z-0.125000
G01 X157.202609 Y89.982699 Z-0.125000
G01 X155.697064 Y90.647261 Z-0.125000
G01 X154.200784 Y91.332406 Z-0.125000
G01 X152.528544 Y92.125339 Z-0.125000
G01 X151.050965 Y92.849143 Z-0.125000
G01 X149.398913 Y93.682251 Z-0.125000
G01 X147.938666 Y94.439084 Z-0.125000
G01 X146.847982 Y95.016820 Z-0.125000
G01 X145.401219 Y95.797443 Z-0.125000
G01 X144.141062 Y96.491148 Z-0.125000
G01 X142.707995 Y97.294435 Z-0.125000
G01 X141.104547 Y98.210782 Z-0.125000
G01 X139.509762 Y99.140178 Z-0.125000
G01 X138.099063 Y99.976996 Z-0.125000
G01 X136.694937 Y100.822909 Z-0.125000
G01 X135.297346 Y101.677419 Z-0.125000
G01 X133.906251 Y102.540017 Z-0.125000
G01 X132.349138 Y103.519068 Z-0.125000
G01 X130.971578 Y104.397406 Z-0.125000
G01 X129.600411 Y105.282490 Z-0.125000
G01 X128.065678 Y106.285268 Z-0.125000
G01 X126.708106 Y107.183363 Z-0.125000
G01 X125.356998 Y108.086996 Z-0.125000
G01 X123.845010 Y109.109219 Z-0.125000
G01 X122.507909 Y110.023343 Z-0.125000
G01 X121.012030 Y111.056296 Z-0.125000
G01 X119.689578 Y111.979020 Z-0.125000
G01 X118.374308 Y112.905073 Z-0.125000
G01 X116.903522 Y113.949830 Z-0.125000
G01 X115.604112 Y114.881369 Z-0.125000
G01 X114.312482 Y115.814633 Z-0.125000
G01 X113.028875 Y116.748960 Z-0.125000
G01 X111.594712 Y117.799982 Z-0.125000
G01 X110.328817 Y118.734132 Z-0.125000
G01 X108.914972 Y119.782820 Z-0.125000
G01 X107.667375 Y120.712873 Z-0.125000
G01 X106.428510 Y121.639303 Z-0.125000
G01 X105.198192 Y122.560971 Z-0.125000
G01 X103.823996 Y123.589916 Z-0.125000
G01 X102.610803 Y124.496988 Z-0.125000
G01 X101.404695 Y125.394950 Z-0.125000
G01 X98.859117 Y127.261363 Z-0.125000
G01 X97.667161 Y128.121571 Z-0.125000
G01 X96.476253 Y128.966873 Z-0.125000
G01 X95.134662 Y129.898160 Z-0.125000
G01 X93.938131 Y130.708351 Z-0.125000
G01 X92.734758 Y131.500805 Z-0.125000
G01 X91.369020 Y132.369870 Z-0.125000
G01 X90.141484 Y133.122843 Z-0.125000
G01 X88.897995 Y133.856253 Z-0.125000
G01 X87.475700 Y134.656210 Z-0.125000
G01 X86.187739 Y135.343487 Z-0.125000
G01 X84.873165 Y136.004256 Z-0.125000
G01 X83.355983 Y136.707092 Z-0.125000
G01 X81.966481 Y137.282058 Z-0.125000
G01 X80.526255 Y137.781972 Z-0.125000
G01 X76.836875 Y137.902539 Z-0.125000
G01 X75.701422 Y137.409547 Z-0.125000
G01 X74.053591 Y136.546431 Z-0.125000
G01 X72.662880 Y135.654840 Z-0.125000
G01 X71.198508 Y134.516348 Z-0.125000
G01 X69.997868 Y133.394317 Z-0.125000
G01 X68.897191 Y132.181496 Z-0.125000
G01 X67.896396 Y130.891938 Z-0.125000
G01 X66.884116 Y129.366446 Z-0.125000
G01 X66.174798 Y128.136908 Z-0.125000
G01 X65.350499 Y126.511589 Z-0.125000
G01 X64.691975 Y125.034741 Z-0.125000
G01 X64.021367 Y123.345044 Z-0.125000
G01 X63.478667 Y121.824267 Z-0.125000
G01 X62.916448 Y120.096490 Z-0.125000
G01 X62.451916 Y118.549547 Z-0.125000
G01 X61.958929 Y116.799128 Z-0.125000
G01 X61.540503 Y115.236710 Z-0.125000
G01 X61.133839 Y113.669499 Z-0.125000
G01 X60.733074 Y112.098981 Z-0.125000
G01 X60.281725 Y110.329399 Z-0.125000
G01 X59.926309 Y108.952877 Z-0.125000
G01 X59.455283 Y107.182979 Z-0.125000
G01 X59.018372 Y105.612416 Z-0.125000
G01 X58.497845 Y103.850240 Z-0.125000
G01 X57.938404 Y102.096364 Z-0.125000
G01 X57.401292 Y100.548124 Z-0.125000
G01 X56.742630 Y98.822338 Z-0.125000
G01 X56.101530 Y97.308229 Z-0.125000
G01 X55.400213 Y95.818324 Z-0.125000
G01 X54.631549 Y94.359479 Z-0.125000
G01 X53.677745 Y92.765227 Z-0.125000
G01 X52.745230 Y91.401016 Z-0.125000
G01 X51.728708 Y90.097255 Z-0.125000
G01 X50.482523 Y88.715926 Z-0.125000
G01 X49.285840 Y87.576318 Z-0.125000
G01 X48.009702 Y86.528803 Z-0.125000
G01 X46.487501 Y85.468094 Z-0.125000
G01 X45.068121 Y84.634572 Z-0.125000
G01 X43.596252 Y83.904004 Z-0.125000
G01 X42.081662 Y83.274028 Z-0.125000
G01 X40.338221 Y82.677844 Z-0.125000
G01 X38.760278 Y82.251796 Z-0.125000
G01 X36.958103 Y81.906975 Z-0.125000
G01 X35.340665 Y81.737716 Z-0.125000
G01 X33.719239 Y81.713311 Z-0.125000
G01 X31.907936 Y81.875244 Z-0.125000
G01 X30.329789 Y82.198173 Z-0.125000
G01 X28.989489 Y82.621244 Z-0.125000
G01 X27.341145 Y83.350853 Z-0.125000
G01 X25.964023 Y84.163320 Z-0.125000
G01 X24.525857 Y85.239287 Z-0.125000
G01 X23.351708 Y86.319528 Z-0.125000
G01 X22.147030 Y87.649243 Z-0.125000
G01 X21.176601 Y88.915212 Z-0.125000
G01 X20.190382 Y90.414883 Z-0.125000
G01 X19.401893 Y91.802745 Z-0.125000
G01 X18.689900 Y93.232058 Z-0.125000
G01 X17.973009 Y94.879991 Z-0.125000
G01 X17.405721 Y96.374121 Z-0.125000
G01 X16.899207 Y97.890501 Z-0.125000
G01 X16.449520 Y99.425192 Z-0.125000
G01 X16.006882 Y101.169267 Z-0.125000
G01 X15.665130 Y102.732466 Z-0.125000
G01 X15.360382 Y104.303243 Z-0.125000
G01 X15.091540 Y105.880500 Z-0.125000
G01 X14.831788 Y107.661550 Z-0.125000
G01 X14.617901 Y109.448597 Z-0.125000
G01 X14.466749 Y111.041451 Z-0.125000
G01 X14.351797 Y112.637330 Z-0.125000
G01 X14.265187 Y114.435095 Z-0.125000
G01 X14.226842 Y116.034621 Z-0.125000
G01 X14.224216 Y117.634434 Z-0.125000
G01 X14.256977 Y119.233917 Z-0.125000
G01 X14.335224 Y121.031683 Z-0.125000
G01 X14.442005 Y122.627713 Z-0.125000
G01 X14.582922 Y124.221005 Z-0.125000
G01 X14.781162 Y126.009199 Z-0.125000
G01 X14.992938 Y127.594259 Z-0.125000
G01 X15.237202 Y129.174550 Z-0.125000
G01 X15.513303 Y130.749396 Z-0.125000
G01 X15.901182 Y132.709030 Z-0.125000
G01 X16.202344 Y134.074975 Z-0.125000
G01 X16.573818 Y135.629150 Z-0.125000
G01 X17.025947 Y137.368375 Z-0.125000
G01 X17.513941 Y139.097426 Z-0.125000
G01 X17.977499 Y140.625411 Z-0.125000
G01 X18.467906 Y142.144558 Z-0.125000
G01 X19.050254 Y143.842439 Z-0.125000
G01 X19.595283 Y145.341564 Z-0.125000
G01 X20.021414 Y146.459676 Z-0.125000
G01 X20.534953 Y147.756919 Z-0.125000
G01 X21.220292 Y149.413190 Z-0.125000
G01 X21.854203 Y150.874499 Z-0.125000
G01 X22.510179 Y152.325191 Z-0.125000
G01 X23.187561 Y153.765184 Z-0.125000
G01 X23.973984 Y155.372439 Z-0.125000
G01 X24.694796 Y156.789335 Z-0.125000
G01 X25.435073 Y158.195207 Z-0.125000
G01 X26.194260 Y159.590038 Z-0.125000
G01 X27.069546 Y161.145806 Z-0.125000
G01 X27.866838 Y162.516818 Z-0.125000
G01 X28.783529 Y164.045655 Z-0.125000
G01 X29.616441 Y165.392656 Z-0.125000
G01 X30.465335 Y166.728491 Z-0.125000
G01 X31.329558 Y168.052881 Z-0.125000
G01 X32.319108 Y169.529542 Z-0.125000
G01 X33.214509 Y170.830122 Z-0.125000
G01 X34.123872 Y172.119564 Z-0.125000
G01 X35.162415 Y173.556888 Z-0.125000
G01 X36.099925 Y174.822665 Z-0.125000
G01 X37.050005 Y176.077467 Z-0.125000
G01 X38.132978 Y177.476285 Z-0.125000
G01 X39.108403 Y178.707734 Z-0.125000
G01 X40.095455 Y179.928670 Z-0.125000
G01 X41.093634 Y181.138985 Z-0.125000
G01 X42.102428 Y182.338610 Z-0.125000
G01 X43.249109 Y183.675681 Z-0.125000
G01 X44.279764 Y184.853202 Z-0.125000
G01 X45.450351 Y186.165816 Z-0.125000
G01 X46.501362 Y187.321468 Z-0.125000
G01 X47.694341 Y188.609907 Z-0.125000
G01 X48.764799 Y189.744470 Z-0.125000
G01 X49.843946 Y190.869085 Z-0.125000
G01 X50.931703 Y191.984081 Z-0.125000
G01 X52.165037 Y193.227310 Z-0.125000
G01 X53.270348 Y194.321935 Z-0.125000
G01 X54.383765 Y195.407218 Z-0.125000
G01 X55.645307 Y196.617337 Z-0.125000
G01 X56.775358 Y197.682947 Z-0.125000
G01 X57.913083 Y198.739426 Z-0.125000
G01 X58.915298 Y199.656109 Z-0.125000
G01 X60.355545 Y200.954970 Z-0.125000
G01 X61.516863 Y201.983480 Z-0.125000
G01 X62.831852 Y203.130367 Z-0.125000
G01 X65.190533 Y205.144415 Z-0.125000
G01 X66.531637 Y206.260453 Z-0.125000
G01 X67.731894 Y207.242711 Z-0.125000
G01 X68.939659 Y208.216191 Z-0.125000
G01 X70.306920 Y209.301151 Z-0.125000
G01 X71.530530 Y210.255625 Z-0.125000
G01 X72.761772 Y211.201113 Z-0.125000
G01 X74.155730 Y212.254304 Z-0.125000
G01 X75.403244 Y213.180204 Z-0.125000
G01 X76.815756 Y214.211080 Z-0.125000
G01 X78.079888 Y215.116754 Z-0.125000
G01 X79.352015 Y216.012595 Z-0.125000
G01 X80.792653 Y217.008973 Z-0.125000
G01 X82.082044 Y217.883202 Z-0.125000
G01 X83.379685 Y218.746779 Z-0.125000
G01 X84.849384 Y219.705770 Z-0.125000
G01 X86.164888 Y220.545712 Z-0.125000
G01 X87.655068 Y221.477169 Z-0.125000
G01 X88.822068 Y222.190104 Z-0.125000
G01 X90.163905 Y222.993621 Z-0.125000
G01 X91.514741 Y223.784050 Z-0.125000
G01 X93.045135 Y224.657380 Z-0.125000
G01 X94.587358 Y225.512555 Z-0.125000
G01 X95.968309 Y226.256129 Z-0.125000
G01 X97.533292 Y227.074077 Z-0.125000
G01 X98.934839 Y227.782746 Z-0.125000
G01 X100.346269 Y228.473572 Z-0.125000
G01 X101.946277 Y229.228586 Z-0.125000
G01 X103.199696 Y229.797146 Z-0.125000
G01 X104.822949 Y230.505126 Z-0.125000
G01 X106.277101 Y231.109324 Z-0.125000
G01 X107.926008 Y231.759685 Z-0.125000
G01 X109.403255 Y232.308441 Z-0.125000
G01 X110.704913 Y232.763834 Z-0.125000
G01 X114.092118 Y233.824589 Z-0.125000
G01 X115.615571 Y234.231587 Z-0.125000
G01 X117.342679 Y234.636926 Z-0.125000
G01 X118.889103 Y234.943446 Z-0.125000
G01 X120.640401 Y235.220201 Z-0.125000
G01 X122.205828 Y235.395492 Z-0.125000
G01 X123.776934 Y235.493876 Z-0.125000
G01 X125.349929 Y235.502424 Z-0.125000
G01 X127.114112 Y235.385052 Z-0.125000
G01 X128.666030 Y235.144639 Z-0.125000
G01 X130.185652 Y234.751605 Z-0.125000
G01 X131.647507 Y234.179322 Z-0.125000
G01 X133.015191 Y233.403297 Z-0.125000
G01 X134.383039 Y232.271470 Z-0.125000
G01 X135.394854 Y231.045177 Z-0.125000
G01 X136.264408 Y229.465470 Z-0.125000
G01 X136.846100 Y227.740849 Z-0.125000
G01 X137.143983 Y226.137971 Z-0.125000
G01 X137.266279 Y224.503589 Z-0.125000
G01 X137.242214 Y222.858528 Z-0.125000
G01 X137.199679 Y222.239730 Z-0.125000
G01 X137.132883 Y221.005038 Z-0.125000
G01 X137.155214 Y219.159881 Z-0.125000
G01 X137.293814 Y217.533308 Z-0.125000
G01 X137.538216 Y215.927939 Z-0.125000
G01 X137.930323 Y214.155263 Z-0.125000
G01 X138.372940 Y212.613033 Z-0.125000
G01 X138.894957 Y211.105310 Z-0.125000
G01 X139.487678 Y209.633225 Z-0.125000
G01 X140.142928 Y208.196770 Z-0.125000
G01 X140.945909 Y206.622714 Z-0.125000
G01 X141.809333 Y205.090602 Z-0.125000
G01 X142.620679 Y203.761421 Z-0.125000
G01 X143.468400 Y202.461308 Z-0.125000
G01 X144.460601 Y201.031154 Z-0.125000
G01 X145.372046 Y199.785597 Z-0.125000
G01 X146.308188 Y198.562311 Z-0.125000
G01 X147.387774 Y197.210557 Z-0.125000
G01 X148.243650 Y196.174261 Z-0.125000
G01 X149.364134 Y194.860771 Z-0.125000
G01 X150.503590 Y193.564991 Z-0.125000
G01 X151.530001 Y192.425641 Z-0.125000
G01 X152.567821 Y191.296503 Z-0.125000
G01 X153.615588 Y190.175934 Z-0.125000
G01 X154.804933 Y188.923877 Z-0.125000
G01 X155.869313 Y187.816272 Z-0.125000
G01 X156.939514 Y186.712460 Z-0.125000
G01 X158.014354 Y185.610999 Z-0.125000
G01 X159.228080 Y184.373324 Z-0.125000
G01 X160.444556 Y183.135074 Z-0.125000
G01 X161.390658 Y182.170023 Z-0.125000
G01 X162.607941 Y180.926466 Z-0.125000
G01 X163.823418 Y179.677575 Z-0.125000
G01 X164.900524 Y178.561495 Z-0.125000
G01 X165.973696 Y177.438901 Z-0.125000
G01 X167.175303 Y176.167029 Z-0.125000
G01 X168.236040 Y175.027082 Z-0.125000
G01 X169.288922 Y173.877409 Z-0.125000
G01 X170.462933 Y172.571367 Z-0.125000
G01 X171.494671 Y171.397860 Z-0.125000
G01 X172.514221 Y170.211709 Z-0.125000
G01 X173.645327 Y168.861217 Z-0.125000
G01 X174.633898 Y167.645341 Z-0.125000
G01 X175.605351 Y166.414201 Z-0.125000
G01 X176.557918 Y165.167039 Z-0.125000
G01 X177.605296 Y163.744060 Z-0.125000
G01 X178.511635 Y162.460585 Z-0.125000
G01 X179.502001 Y160.995194 Z-0.125000
G01 X180.353043 Y159.672845 Z-0.125000
G01 X181.174694 Y158.331549 Z-0.125000
G01 X182.061668 Y156.799590 Z-0.125000
G01 X182.813295 Y155.417259 Z-0.125000
G01 X183.528288 Y154.015544 Z-0.125000
G01 X184.286422 Y152.415667 Z-0.125000
G01 X184.915559 Y150.973582 Z-0.125000
G01 X185.500546 Y149.513297 Z-0.125000
G01 X186.039082 Y148.035575 Z-0.125000
G01 X186.528940 Y146.541409 Z-0.125000
G01 X187.045140 Y144.848622 Z-0.125000
G01 X187.495593 Y143.340179 Z-0.125000
G01 X187.938240 Y141.828058 Z-0.125000
G01 X188.426775 Y140.122369 Z-0.125000
G01 X188.851065 Y138.602247 Z-0.125000
G01 X189.265878 Y137.078234 Z-0.125000
G01 X189.670545 Y135.550277 Z-0.125000
G01 X190.113443 Y133.826418 Z-0.125000
G01 X190.541669 Y132.097404 Z-0.125000
G01 X190.908644 Y130.556258 Z-0.125000
G01 X191.262299 Y129.010980 Z-0.125000
G01 X191.601732 Y127.461532 Z-0.125000
G01 X191.925917 Y125.907909 Z-0.125000
G01 X192.271542 Y124.154910 Z-0.125000
G01 X192.594705 Y122.396668 Z-0.125000
G01 X192.861067 Y120.829600 Z-0.125000
G01 X193.106586 Y119.258565 Z-0.125000
G01 X193.356281 Y117.486315 Z-0.125000
G01 X193.551561 Y115.907268 Z-0.125000
G01 X193.719911 Y114.324845 Z-0.125000
G01 X193.874487 Y112.540776 Z-0.125000
G01 X193.976866 Y110.952474 Z-0.125000
G01 X194.043280 Y109.362353 Z-0.125000
G01 X194.070767 Y107.572197 Z-0.125000
G01 X194.047445 Y105.981595 Z-0.125000
G01 X193.974229 Y104.393119 Z-0.125000
G01 X193.825208 Y102.611179 Z-0.125000
G01 X193.624889 Y101.035692 Z-0.125000
G01 X193.352598 Y99.472299 Z-0.125000
G01 X192.998947 Y97.926750 Z-0.125000
G01 X192.491109 Y96.218839 Z-0.125000
G01 X191.928286 Y94.740334 Z-0.125000
G01 X191.155369 Y93.139220 Z-0.125000
G01 X190.331515 Y91.791829 Z-0.125000
G01 X189.371676 Y90.537955 Z-0.125000
G01 X188.274471 Y89.400787 Z-0.125000
G01 X186.884892 Y88.287543 Z-0.125000
G01 X185.527684 Y87.463695 Z-0.125000
G01 X183.891816 Y86.731226 Z-0.125000
G01 X182.365661 Y86.250451 Z-0.125000
G01 X180.794029 Y85.919239 Z-0.125000
G01 X179.194172 Y85.723597 Z-0.125000
G01 X177.377310 Y85.646192 Z-0.125000
G01 X175.756612 Y85.688642 Z-0.125000
G01 X174.137353 Y85.821579 Z-0.125000
G01 X172.322695 Y86.064572 Z-0.125000
G01 X170.718121 Y86.353385 Z-0.125000
G01 X168.925282 Y86.748717 Z-0.125000
G01 X167.342670 Y87.155770 Z-0.125000
G01 X165.771304 Y87.608720 Z-0.125000
G01 X164.211287 Y88.102594 Z-0.125000
G01 X162.470024 Y88.701505 Z-0.125000
G01 X160.933673 Y89.269082 Z-0.125000
G01 X159.408100 Y89.866240 Z-0.125000
G01 X157.704655 Y90.569687 Z-0.125000
G01 X156.200948 Y91.221285 Z-0.125000
G01 X154.707063 Y91.895188 Z-0.125000
G01 X153.222649 Y92.589653 Z-0.125000
G01 X151.564042 Y93.393077 Z-0.125000
G01 X150.098867 Y94.126221 Z-0.125000
G01 X148.461132 Y94.969880 Z-0.125000
G01 X147.013975 Y95.736144 Z-0.125000
G01 X145.933352 Y96.320994 Z-0.125000
G01 X144.500359 Y97.111167 Z-0.125000
G01 X143.252613 Y97.813298 Z-0.125000
G01 X141.834175 Y98.626298 Z-0.125000
G01 X140.247811 Y99.553698 Z-0.125000
G01 X138.670832 Y100.494289 Z-0.125000
G01 X137.276622 Y101.341185 Z-0.125000
G01 X135.889665 Y102.197302 Z-0.125000
G01 X134.509975 Y103.062147 Z-0.125000
G01 X133.137577 Y103.935208 Z-0.125000
G01 X131.602531 Y104.926192 Z-0.125000
G01 X130.245581 Y105.815273 Z-0.125000
G01 X128.896038 Y106.711224 Z-0.125000
G01 X127.386952 Y107.726361 Z-0.125000
G01 X126.053447 Y108.635549 Z-0.125000
G01 X124.727700 Y109.550351 Z-0.125000
G01 X123.245924 Y110.585198 Z-0.125000
G01 X121.937292 Y111.510560 Z-0.125000
G01 X120.475412 Y112.556116 Z-0.125000
G01 X119.185080 Y113.489948 Z-0.125000
G01 X117.903853 Y114.426945 Z-0.125000
G01 X116.473847 Y115.483715 Z-0.125000
G01 X115.213054 Y116.425551 Z-0.125000
G01 X113.962434 Y117.368623 Z-0.125000
G01 X112.722380 Y118.312124 Z-0.125000
G01 X111.340450 Y119.372486 Z-0.125000
G01 X110.124016 Y120.313841 Z-0.125000
G01 X108.769407 Y121.369083 Z-0.125000
G01 X107.577772 Y122.303280 Z-0.125000
G01 X106.398062 Y123.231939 Z-0.125000
G01 X105.230128 Y124.153580 Z-0.125000
G01 X103.929938 Y125.179318 Z-0.125000
G01 X102.785819 Y126.080274 Z-0.125000
G01 X101.651686 Y126.968613 Z-0.125000
G01 X99.267230 Y128.801124 Z-0.125000
G01 X98.153964 Y129.638292 Z-0.125000
G01 X97.042754 Y130.455664 Z-0.125000
G01 X95.791126 Y131.349531 Z-0.125000
G01 X94.673947 Y132.121148 Z-0.125000
G01 X93.548481 Y132.870211 Z-0.125000
G01 X92.267621 Y133.685141 Z-0.125000
G01 X91.112214 Y134.385815 Z-0.125000
G01 X89.937003 Y135.063682 Z-0.125000
G01 X88.586202 Y135.798230 Z-0.125000
G01 X87.356581 Y136.425720 Z-0.125000
G01 X86.095135 Y137.026122 Z-0.125000
G01 X84.631258 Y137.661605 Z-0.125000
G01 X83.283245 Y138.178470 Z-0.125000
G01 X81.878730 Y138.623536 Z-0.125000
G01 X78.239163 Y138.658188 Z-0.125000
G01 X77.106019 Y138.160898 Z-0.125000
G01 X75.458526 Y137.297151 Z-0.125000
G01 X74.065195 Y136.410441 Z-0.125000
G01 X72.594896 Y135.282848 Z-0.125000
G01 X71.386615 Y134.174574 Z-0.125000
G01 X70.276355 Y132.978570 Z-0.125000
G01 X69.264313 Y131.708165 Z-0.125000
G01 X68.237731 Y130.206176 Z-0.125000
G01 X67.516308 Y128.995845 Z-0.125000
G01 X66.675449 Y127.395856 Z-0.125000
G01 X66.001479 Y125.941728 Z-0.125000
G01 X65.312899 Y124.277443 Z-0.125000
G01 X64.753868 Y122.778879 Z-0.125000
G01 X64.173048 Y121.075455 Z-0.125000
G01 X63.691913 Y119.549461 Z-0.125000
G01 X63.180306 Y117.821702 Z-0.125000
G01 X62.745490 Y116.278548 Z-0.125000
G01 X62.322683 Y114.729720 Z-0.125000
G01 X61.906109 Y113.176668 Z-0.125000
G01 X61.437479 Y111.425597 Z-0.125000
G01 X61.069060 Y110.062625 Z-0.125000
G01 X60.581977 Y108.309028 Z-0.125000
G01 X60.131500 Y106.751876 Z-0.125000
G01 X59.596617 Y105.003548 Z-0.125000
G01 X59.023895 Y103.262182 Z-0.125000
G01 X58.475983 Y101.723904 Z-0.125000
G01 X57.806426 Y100.007986 Z-0.125000
G01 X57.156862 Y98.501416 Z-0.125000
G01 X56.448336 Y97.017850 Z-0.125000
G01 X55.673817 Y95.564095 Z-0.125000
G01 X54.715162 Y93.974022 Z-0.125000
G01 X53.779968 Y92.612104 Z-0.125000
G01 X52.762370 Y91.309261 Z-0.125000
G01 X51.516923 Y89.927304 Z-0.125000
G01 X50.322610 Y88.785670 Z-0.125000
G01 X49.050388 Y87.734784 Z-0.125000
G01 X47.534312 Y86.668764 Z-0.125000
G01 X46.121740 Y85.829273 Z-0.125000
G01 X44.657789 Y85.091673 Z-0.125000
G01 X43.152052 Y84.453724 Z-0.125000
G01 X41.419456 Y83.847610 Z-0.125000
G01 X39.851865 Y83.411906 Z-0.125000
G01 X38.062193 Y83.055193 Z-0.125000
G01 X36.456663 Y82.874364 Z-0.125000
G01 X34.847900 Y82.837386 Z-0.125000
G01 X33.051705 Y82.983945 Z-0.125000
G01 X31.487666 Y83.292130 Z-0.125000
G01 X30.160135 Y83.701525 Z-0.125000
G01 X28.528620 Y84.412607 Z-0.125000
G01 X27.166669 Y85.207860 Z-0.125000
G01 X25.745611 Y86.263799 Z-0.125000
G01 X24.586565 Y87.325783 Z-0.125000
G01 X23.398644 Y88.634578 Z-0.125000
G01 X22.442834 Y89.881688 Z-0.125000
G01 X21.472703 Y91.359907 Z-0.125000
G01 X20.698177 Y92.728526 Z-0.125000
G01 X19.999820 Y94.138444 Z-0.125000
G01 X19.297875 Y95.764383 Z-0.125000
G01 X18.743528 Y97.238814 Z-0.125000
G01 X18.249633 Y98.735348 Z-0.125000
G01 X17.812251 Y100.250048 Z-0.125000
G01 X17.383084 Y101.971446 Z-0.125000
G01 X17.052987 Y103.514306 Z-0.125000
G01 X16.759614 Y105.064540 Z-0.125000
G01 X16.501866 Y106.621040 Z-0.125000
G01 X16.254256 Y108.378491 Z-0.125000
G01 X16.052148 Y110.141674 Z-0.125000
G01 X15.911156 Y111.713097 Z-0.125000
G01 X15.806069 Y113.287342 Z-0.125000
G01 X15.730200 Y115.060520 Z-0.125000
G01 X15.701083 Y116.637976 Z-0.125000
G01 X15.707376 Y118.215517 Z-0.125000
G01 X15.748748 Y119.792523 Z-0.125000
G01 X15.836307 Y121.564759 Z-0.125000
G01 X15.951028 Y123.137878 Z-0.125000
G01 X16.099564 Y124.708051 Z-0.125000
G01 X16.305987 Y126.469989 Z-0.125000
G01 X16.524685 Y128.031488 Z-0.125000
G01 X16.775538 Y129.588006 Z-0.125000
G01 X17.057894 Y131.138863 Z-0.125000
G01 X17.453094 Y133.068210 Z-0.125000
G01 X17.759057 Y134.412749 Z-0.125000
G01 X18.135679 Y135.942254 Z-0.125000
G01 X18.593166 Y137.653455 Z-0.125000
G01 X19.086048 Y139.354192 Z-0.125000
G01 X19.553544 Y140.856765 Z-0.125000
G01 X20.047505 Y142.350264 Z-0.125000
G01 X20.633373 Y144.019009 Z-0.125000
G01 X21.181103 Y145.491981 Z-0.125000
G01 X21.608984 Y146.590319 Z-0.125000
G01 X22.124265 Y147.864316 Z-0.125000
G01 X22.811354 Y149.490428 Z-0.125000
G01 X23.446349 Y150.924665 Z-0.125000
G01 X24.102952 Y152.348036 Z-0.125000
G01 X24.780491 Y153.760459 Z-0.125000
G01 X25.566512 Y155.336396 Z-0.125000
G01 X26.286439 Y156.725192 Z-0.125000
G01 X27.025323 Y158.102718 Z-0.125000
G01 X27.782588 Y159.468956 Z-0.125000
G01 X28.655066 Y160.992272 Z-0.125000
G01 X29.449270 Y162.334186 Z-0.125000
G01 X30.361801 Y163.830013 Z-0.125000
G01 X31.190389 Y165.147431 Z-0.125000
G01 X32.034350 Y166.453467 Z-0.125000
G01 X32.893017 Y167.747853 Z-0.125000
G01 X33.875550 Y169.190525 Z-0.125000
G01 X34.764016 Y170.460698 Z-0.125000
G01 X35.665768 Y171.719561 Z-0.125000
G01 X36.694923 Y173.122301 Z-0.125000
G01 X37.623335 Y174.357192 Z-0.125000
G01 X38.563595 Y175.580988 Z-0.125000
G01 X39.634635 Y176.944805 Z-0.125000
G01 X40.598656 Y178.145069 Z-0.125000
G01 X41.573534 Y179.334760 Z-0.125000
G01 X42.558761 Y180.513805 Z-0.125000
G01 X43.553815 Y181.682163 Z-0.125000
G01 X44.684085 Y182.984097 Z-0.125000
G01 X45.699293 Y184.130442 Z-0.125000
G01 X46.851532 Y185.408098 Z-0.125000
G01 X47.885367 Y186.532814 Z-0.125000
G01 X49.058043 Y187.786645 Z-0.125000
G01 X50.109583 Y188.890656 Z-0.125000
G01 X51.168998 Y189.984958 Z-0.125000
G01 X52.236210 Y191.069912 Z-0.125000
G01 X53.445470 Y192.279716 Z-0.125000
G01 X54.528542 Y193.345006 Z-0.125000
G01 X55.618939 Y194.401341 Z-0.125000
G01 X56.853670 Y195.579406 Z-0.125000
G01 X57.959098 Y196.617020 Z-0.125000
G01 X59.071475 Y197.646004 Z-0.125000
G01 X60.050932 Y198.539070 Z-0.125000
G01 X61.457773 Y199.804954 Z-0.125000
G01 X62.591634 Y200.807764 Z-0.125000
G01 X63.875001 Y201.926506 Z-0.125000
G01 X66.175683 Y203.892649 Z-0.125000
G01 X67.483246 Y204.983002 Z-0.125000
G01 X68.653185 Y205.943225 Z-0.125000
G01 X69.830195 Y206.895440 Z-0.125000
G01 X71.162392 Y207.957422 Z-0.125000
G01 X72.354455 Y208.892325 Z-0.125000
G01 X73.553840 Y209.819065 Z-0.125000
G01 X74.911634 Y210.852154 Z-0.125000
G01 X76.126754 Y211.761059 Z-0.125000
G01 X77.502603 Y212.773838 Z-0.125000
G01 X78.733981 Y213.664307 Z-0.125000
G01 X79.973244 Y214.545785 Z-0.125000
G01 X81.376824 Y215.527024 Z-0.125000
G01 X82.633232 Y216.388672 Z-0.125000
G01 X83.897886 Y217.240493 Z-0.125000
G01 X85.330510 Y218.187239 Z-0.125000
G01 X86.613121 Y219.017138 Z-0.125000
G01 X88.066404 Y219.938258 Z-0.125000
G01 X89.204802 Y220.643832 Z-0.125000
G01 X90.514081 Y221.439656 Z-0.125000
G01 X91.832518 Y222.223140 Z-0.125000
G01 X93.326678 Y223.089528 Z-0.125000
G01 X94.832909 Y223.938656 Z-0.125000
G01 X96.182097 Y224.677601 Z-0.125000
G01 X97.711613 Y225.491159 Z-0.125000
G01 X99.081881 Y226.196620 Z-0.125000
G01 X100.462276 Y226.884875 Z-0.125000
G01 X102.027661 Y227.637730 Z-0.125000
G01 X103.254371 Y228.205153 Z-0.125000
G01 X104.843563 Y228.912317 Z-0.125000
G01 X106.267703 Y229.516420 Z-0.125000
G01 X107.883133 Y230.167337 Z-0.125000
G01 X109.330873 Y230.717158 Z-0.125000
G01 X110.606893 Y231.173930 Z-0.125000
G01 X113.928885 Y232.240058 Z-0.125000
G01 X115.423641 Y232.650261 Z-0.125000
G01 X117.118640 Y233.059834 Z-0.125000
G01 X118.636646 Y233.370659 Z-0.125000
G01 X120.356073 Y233.652851 Z-0.125000
G01 X121.893221 Y233.833538 Z-0.125000
G01 X123.436066 Y233.937849 Z-0.125000
G01 X124.980779 Y233.952859 Z-0.125000
G01 X126.713106 Y233.843427 Z-0.125000
G01 X128.236672 Y233.610667 Z-0.125000
G01 X129.727985 Y233.225846 Z-0.125000
G01 X131.161729 Y232.662274 Z-0.125000
G01 X132.501825 Y231.895374 Z-0.125000
G01 X133.839900 Y230.774010 Z-0.125000
G01 X134.827074 Y229.556876 Z-0.125000
G01 X135.671688 Y227.986926 Z-0.125000
G01 X136.231727 Y226.271170 Z-0.125000
G01 X136.513053 Y224.675325 Z-0.125000
G01 X136.621067 Y223.047186 Z-0.125000
G01 X136.584698 Y221.407631 Z-0.125000
G01 X136.538003 Y220.790732 Z-0.125000
G01 X136.462415 Y219.560079 Z-0.125000
G01 X136.468958 Y217.722374 Z-0.125000
G01 X136.590961 Y216.103842 Z-0.125000
G01 X136.816479 Y214.507902 Z-0.125000
G01 X137.184833 Y212.747563 Z-0.125000
G01 X137.604328 Y211.217806 Z-0.125000
G01 X138.101576 Y209.724013 Z-0.125000
G01 X138.668116 Y208.267308 Z-0.125000
G01 X139.296006 Y206.847645 Z-0.125000
G01 X140.067086 Y205.294153 Z-0.125000
G01 X140.897709 Y203.784325 Z-0.125000
G01 X141.679384 Y202.476365 Z-0.125000
G01 X142.497146 Y201.198750 Z-0.125000
G01 X143.455509 Y199.795353 Z-0.125000
G01 X144.336945 Y198.574823 Z-0.125000
G01 X145.243293 Y197.377664 Z-0.125000
G01 X146.289782 Y196.056513 Z-0.125000
G01 X147.120329 Y195.044855 Z-0.125000
G01 X148.208908 Y193.764021 Z-0.125000
G01 X149.317325 Y192.501891 Z-0.125000
G01 X150.316964 Y191.393194 Z-0.125000
G01 X151.328855 Y190.295321 Z-0.125000
G01 X152.351588 Y189.206548 Z-0.125000
G01 X153.513901 Y187.990797 Z-0.125000
G01 X154.555292 Y186.915855 Z-0.125000
G01 X155.603512 Y185.844994 Z-0.125000
G01 X156.657390 Y184.776703 Z-0.125000
G01 X157.848767 Y183.576520 Z-0.125000
G01 X159.044194 Y182.375871 Z-0.125000
G01 X159.974821 Y181.440085 Z-0.125000
G01 X161.173345 Y180.234126 Z-0.125000
G01 X162.371320 Y179.022738 Z-0.125000
G01 X163.433900 Y177.939871 Z-0.125000
G01 X164.493496 Y176.850338 Z-0.125000
G01 X165.680930 Y175.615445 Z-0.125000
G01 X166.730016 Y174.508149 Z-0.125000
G01 X167.772111 Y173.390904 Z-0.125000
G01 X168.934985 Y172.121062 Z-0.125000
G01 X169.957678 Y170.979467 Z-0.125000
G01 X170.968958 Y169.824977 Z-0.125000
G01 X172.091651 Y168.509801 Z-0.125000
G01 X173.073510 Y167.325046 Z-0.125000
G01 X174.038942 Y166.124781 Z-0.125000
G01 X174.986159 Y164.908253 Z-0.125000
G01 X176.028290 Y163.519457 Z-0.125000
G01 X176.930626 Y162.266135 Z-0.125000
G01 X177.917215 Y160.834417 Z-0.125000
G01 X178.765522 Y159.541794 Z-0.125000
G01 X179.585012 Y158.230048 Z-0.125000
G01 X180.470220 Y156.731134 Z-0.125000
G01 X181.220859 Y155.378021 Z-0.125000
G01 X181.935401 Y154.005387 Z-0.125000
G01 X182.693658 Y152.438083 Z-0.125000
G01 X183.323464 Y151.024839 Z-0.125000
G01 X183.909635 Y149.593297 Z-0.125000
G01 X184.449871 Y148.144227 Z-0.125000
G01 X184.941941 Y146.678632 Z-0.125000
G01 X185.461220 Y145.017717 Z-0.125000
G01 X185.914904 Y143.537193 Z-0.125000
G01 X186.361224 Y142.052593 Z-0.125000
G01 X186.854401 Y140.377384 Z-0.125000
G01 X187.283247 Y138.883929 Z-0.125000
G01 X187.703008 Y137.386174 Z-0.125000
G01 X188.112990 Y135.884071 Z-0.125000
G01 X188.562294 Y134.188814 Z-0.125000
G01 X188.997353 Y132.487896 Z-0.125000
G01 X189.370745 Y130.971305 Z-0.125000
G01 X189.731128 Y129.450193 Z-0.125000
G01 X190.077584 Y127.924532 Z-0.125000
G01 X190.409079 Y126.394321 Z-0.125000
G01 X190.763258 Y124.667229 Z-0.125000
G01 X191.095310 Y122.934451 Z-0.125000
G01 X191.369849 Y121.389661 Z-0.125000
G01 X191.623800 Y119.840582 Z-0.125000
G01 X191.883279 Y118.092663 Z-0.125000
G01 X192.087516 Y116.534939 Z-0.125000
G01 X192.265071 Y114.973566 Z-0.125000
G01 X192.430300 Y113.212877 Z-0.125000
G01 X192.542416 Y111.645111 Z-0.125000
G01 X192.618823 Y110.075321 Z-0.125000
G01 X192.657876 Y108.307815 Z-0.125000
G01 X192.645130 Y106.737180 Z-0.125000
G01 X192.582785 Y105.168544 Z-0.125000
G01 X192.446369 Y103.408799 Z-0.125000
G01 X192.257606 Y101.852965 Z-0.125000
G01 X191.997194 Y100.309185 Z-0.125000
G01 X191.655833 Y98.783223 Z-0.125000
G01 X191.162298 Y97.097339 Z-0.125000
G01 X190.612628 Y95.638412 Z-0.125000
G01 X189.855002 Y94.059297 Z-0.125000
G01 X189.045149 Y92.731380 Z-0.125000
G01 X188.099632 Y91.496809 Z-0.125000
G01 X187.016969 Y90.378635 Z-0.125000
G01 X185.643838 Y89.286183 Z-0.125000
G01 X184.301159 Y88.480128 Z-0.125000
G01 X182.681347 Y87.766726 Z-0.125000
G01 X181.169093 Y87.301983 Z-0.125000
G01 X179.610955 Y86.985931 Z-0.125000
G01 X178.024178 Y86.804619 Z-0.125000
G01 X176.221554 Y86.742422 Z-0.125000
G01 X174.613130 Y86.797668 Z-0.125000
G01 X173.005836 Y86.942810 Z-0.125000
G01 X171.204329 Y87.198923 Z-0.125000
G01 X169.611226 Y87.498932 Z-0.125000
G01 X167.831107 Y87.906417 Z-0.125000
G01 X166.259681 Y88.323942 Z-0.125000
G01 X164.699437 Y88.787103 Z-0.125000
G01 X163.150509 Y89.290970 Z-0.125000
G01 X161.421731 Y89.900910 Z-0.125000
G01 X159.896522 Y90.478134 Z-0.125000
G01 X158.382170 Y91.084827 Z-0.125000
G01 X156.691479 Y91.798899 Z-0.125000
G01 X155.199260 Y92.459876 Z-0.125000
G01 X153.717037 Y93.143120 Z-0.125000
G01 X152.244489 Y93.846907 Z-0.125000
G01 X150.599514 Y94.660819 Z-0.125000
G01 X149.146742 Y95.403303 Z-0.125000
G01 X147.523325 Y96.257514 Z-0.125000
G01 X146.089256 Y97.033210 Z-0.125000
G01 X145.018694 Y97.625173 Z-0.125000
G01 X143.599471 Y98.424895 Z-0.125000
G01 X142.364135 Y99.135451 Z-0.125000
G01 X140.960329 Y99.958166 Z-0.125000
G01 X139.391049 Y100.896618 Z-0.125000
G01 X137.831874 Y101.848405 Z-0.125000
G01 X136.454154 Y102.705378 Z-0.125000
G01 X135.084364 Y103.571699 Z-0.125000
G01 X133.722577 Y104.446877 Z-0.125000
G01 X132.368876 Y105.330405 Z-0.125000
G01 X130.855895 Y106.333321 Z-0.125000
G01 X129.519556 Y107.233144 Z-0.125000
G01 X128.191639 Y108.139962 Z-0.125000
G01 X126.708198 Y109.167460 Z-0.125000
G01 X125.398759 Y110.087738 Z-0.125000
G01 X124.098375 Y111.013708 Z-0.125000
G01 X122.646809 Y112.061183 Z-0.125000
G01 X121.366648 Y112.997782 Z-0.125000
G01 X119.938770 Y114.055943 Z-0.125000
G01 X118.680555 Y115.000879 Z-0.125000
G01 X117.433371 Y115.948822 Z-0.125000
G01 X116.044146 Y117.017603 Z-0.125000
G01 X114.821971 Y117.969737 Z-0.125000
G01 X113.612358 Y118.922620 Z-0.125000
G01 X112.415859 Y119.875292 Z-0.125000
G01 X111.086160 Y120.944995 Z-0.125000
G01 X109.919190 Y121.893552 Z-0.125000
G01 X108.623813 Y122.955351 Z-0.125000
G01 X107.488140 Y123.893690 Z-0.125000
G01 X106.367587 Y124.824581 Z-0.125000
G01 X105.262038 Y125.746193 Z-0.125000
G01 X104.035855 Y126.768724 Z-0.125000
G01 X102.960807 Y127.663564 Z-0.125000
G01 X101.898648 Y128.542282 Z-0.125000
G01 X99.675317 Y130.340889 Z-0.125000
G01 X98.640740 Y131.155019 Z-0.125000
G01 X97.609226 Y131.944460 Z-0.125000
G01 X96.447562 Y132.800906 Z-0.125000
G01 X95.409736 Y133.533951 Z-0.125000
G01 X94.362179 Y134.239622 Z-0.125000
G01 X93.166195 Y135.000416 Z-0.125000
G01 X92.082920 Y135.648792 Z-0.125000
G01 X90.975985 Y136.271115 Z-0.125000
G01 X89.696677 Y136.940252 Z-0.125000
G01 X88.525395 Y137.507959 Z-0.125000
G01 X87.317078 Y138.047994 Z-0.125000
G01 X85.906506 Y138.616122 Z-0.125000
G01 X84.599981 Y139.074887 Z-0.125000
G01 X83.231179 Y139.465105 Z-0.125000
G01 X79.641425 Y139.413844 Z-0.125000
G01 X78.510589 Y138.912254 Z-0.125000
G01 X76.863433 Y138.047875 Z-0.125000
G01 X75.467485 Y137.166046 Z-0.125000
G01 X73.991257 Y136.049354 Z-0.125000
G01 X72.775336 Y134.954835 Z-0.125000
G01 X71.655491 Y133.775650 Z-0.125000
G01 X70.632202 Y132.524397 Z-0.125000
G01 X69.591320 Y131.045911 Z-0.125000
G01 X68.857791 Y129.854786 Z-0.125000
G01 X68.000372 Y128.280129 Z-0.125000
G01 X67.310954 Y126.848718 Z-0.125000
G01 X66.604403 Y125.209846 Z-0.125000
G01 X66.029042 Y123.733495 Z-0.125000
G01 X65.429623 Y122.054426 Z-0.125000
G01 X64.931883 Y120.549381 Z-0.125000
G01 X64.401657 Y118.844281 Z-0.125000
G01 X63.950451 Y117.320391 Z-0.125000
G01 X63.511501 Y115.789948 Z-0.125000
G01 X63.079119 Y114.254358 Z-0.125000
G01 X62.593209 Y112.521800 Z-0.125000
G01 X62.211785 Y111.172376 Z-0.125000
G01 X61.708643 Y109.435079 Z-0.125000
G01 X61.244601 Y107.891339 Z-0.125000
G01 X60.695363 Y106.156861 Z-0.125000
G01 X60.109360 Y104.428003 Z-0.125000
G01 X59.550648 Y102.899689 Z-0.125000
G01 X58.870195 Y101.193637 Z-0.125000
G01 X58.212168 Y99.694607 Z-0.125000
G01 X57.496432 Y98.217378 Z-0.125000
G01 X56.716058 Y96.768715 Z-0.125000
G01 X55.752551 Y95.182823 Z-0.125000
G01 X54.814681 Y93.823198 Z-0.125000
G01 X53.796007 Y92.521274 Z-0.125000
G01 X52.551294 Y91.138688 Z-0.125000
G01 X51.359352 Y89.995027 Z-0.125000
G01 X50.091048 Y88.940771 Z-0.125000
G01 X48.581094 Y87.869438 Z-0.125000
G01 X47.175332 Y87.023977 Z-0.125000
G01 X45.719300 Y86.279348 Z-0.125000
G01 X44.222416 Y85.633425 Z-0.125000
G01 X42.500665 Y85.017380 Z-0.125000
G01 X40.943426 Y84.572023 Z-0.125000
G01 X39.166257 Y84.203417 Z-0.125000
G01 X37.572635 Y84.011016 Z-0.125000
G01 X35.976535 Y83.961466 Z-0.125000
G01 X34.195447 Y84.092648 Z-0.125000
G01 X32.645515 Y84.386092 Z-0.125000
G01 X31.330755 Y84.781812 Z-0.125000
G01 X29.716068 Y85.474366 Z-0.125000
G01 X28.369289 Y86.252404 Z-0.125000
G01 X26.965337 Y87.288314 Z-0.125000
G01 X25.821395 Y88.332043 Z-0.125000
G01 X24.650231 Y89.619916 Z-0.125000
G01 X23.709040 Y90.848168 Z-0.125000
G01 X22.754998 Y92.304937 Z-0.125000
G01 X21.994434 Y93.654310 Z-0.125000
G01 X21.309712 Y95.044832 Z-0.125000
G01 X20.622715 Y96.648780 Z-0.125000
G01 X20.081308 Y98.103510 Z-0.125000
G01 X19.600033 Y99.580202 Z-0.125000
G01 X19.174955 Y101.074906 Z-0.125000
G01 X18.759259 Y102.773629 Z-0.125000
G01 X18.440817 Y104.296153 Z-0.125000
G01 X18.158818 Y105.825840 Z-0.125000
G01 X17.912166 Y107.361587 Z-0.125000
G01 X17.676699 Y109.095436 Z-0.125000
G01 X17.486369 Y110.834757 Z-0.125000
G01 X17.355535 Y112.384750 Z-0.125000
G01 X17.260313 Y113.937357 Z-0.125000
G01 X17.195187 Y115.685950 Z-0.125000
G01 X17.175296 Y117.241337 Z-0.125000
G01 X17.190509 Y118.796606 Z-0.125000
G01 X17.240492 Y120.351135 Z-0.125000
G01 X17.337363 Y122.097842 Z-0.125000
G01 X17.460026 Y123.648048 Z-0.125000
G01 X17.616180 Y125.195104 Z-0.125000
G01 X17.830787 Y126.930785 Z-0.125000
G01 X18.056406 Y128.468722 Z-0.125000
G01 X18.313853 Y130.001467 Z-0.125000
G01 X18.602455 Y131.528335 Z-0.125000
G01 X19.004980 Y133.427396 Z-0.125000
G01 X19.315740 Y134.750529 Z-0.125000
G01 X19.697512 Y136.255361 Z-0.125000
G01 X20.160356 Y137.938539 Z-0.125000
G01 X20.658125 Y139.610963 Z-0.125000
G01 X21.129561 Y141.088123 Z-0.125000
G01 X21.627074 Y142.555974 Z-0.125000
G01 X22.216464 Y144.195584 Z-0.125000
G01 X22.766893 Y145.642404 Z-0.125000
G01 X23.196525 Y146.720965 Z-0.125000
G01 X23.713548 Y147.971721 Z-0.125000
G01 X24.402389 Y149.567671 Z-0.125000
G01 X25.038467 Y150.974834 Z-0.125000
G01 X25.695696 Y152.370884 Z-0.125000
G01 X26.373392 Y153.755739 Z-0.125000
G01 X27.159012 Y155.300357 Z-0.125000
G01 X27.878056 Y156.661055 Z-0.125000
G01 X28.615544 Y158.010234 Z-0.125000
G01 X29.370887 Y159.347880 Z-0.125000
G01 X30.240558 Y160.838743 Z-0.125000
G01 X31.031674 Y162.151557 Z-0.125000
G01 X31.940046 Y163.614374 Z-0.125000
G01 X32.764308 Y164.902211 Z-0.125000
G01 X33.603337 Y166.178447 Z-0.125000
G01 X34.456448 Y167.442830 Z-0.125000
G01 X35.431965 Y168.851514 Z-0.125000
G01 X36.313494 Y170.091277 Z-0.125000
G01 X37.207636 Y171.319562 Z-0.125000
G01 X38.227403 Y172.687720 Z-0.125000
G01 X39.146718 Y173.891723 Z-0.125000
G01 X40.077156 Y175.084512 Z-0.125000
G01 X41.136263 Y176.413328 Z-0.125000
G01 X42.088880 Y177.582409 Z-0.125000
G01 X43.051585 Y178.740857 Z-0.125000
G01 X44.023859 Y179.888631 Z-0.125000
G01 X45.005173 Y181.025720 Z-0.125000
G01 X46.119033 Y182.292517 Z-0.125000
G01 X47.118795 Y183.407687 Z-0.125000
G01 X48.252685 Y184.650386 Z-0.125000
G01 X49.269344 Y185.744167 Z-0.125000
G01 X50.421718 Y186.963389 Z-0.125000
G01 X51.454339 Y188.036846 Z-0.125000
G01 X52.494022 Y189.100835 Z-0.125000
G01 X53.540690 Y190.155749 Z-0.125000
G01 X54.725875 Y191.332127 Z-0.125000
G01 X55.786708 Y192.368081 Z-0.125000
G01 X56.854084 Y193.395469 Z-0.125000
G01 X58.062006 Y194.541480 Z-0.125000
G01 X59.142809 Y195.551096 Z-0.125000
G01 X60.229838 Y196.552587 Z-0.125000
G01 X61.186538 Y197.422035 Z-0.125000
G01 X62.559972 Y198.654944 Z-0.125000
G01 X63.666378 Y199.632054 Z-0.125000
G01 X64.918122 Y200.722650 Z-0.125000
G01 X67.160806 Y202.640888 Z-0.125000
G01 X68.434824 Y203.705554 Z-0.125000
G01 X69.574446 Y204.643744 Z-0.125000
G01 X70.720704 Y205.574694 Z-0.125000
G01 X72.017833 Y206.613697 Z-0.125000
G01 X73.178353 Y207.529032 Z-0.125000
G01 X74.345879 Y208.437018 Z-0.125000
G01 X75.667509 Y209.450001 Z-0.125000
G01 X76.850240 Y210.341935 Z-0.125000
G01 X78.189418 Y211.336585 Z-0.125000
G01 X79.388047 Y212.211865 Z-0.125000
G01 X80.594449 Y213.078996 Z-0.125000
G01 X81.960968 Y214.045080 Z-0.125000
G01 X83.184391 Y214.894147 Z-0.125000
G01 X84.416060 Y215.734211 Z-0.125000
G01 X85.811607 Y216.668713 Z-0.125000
G01 X87.061328 Y217.488583 Z-0.125000
G01 X88.477710 Y218.399352 Z-0.125000
G01 X89.587507 Y219.097565 Z-0.125000
G01 X90.864230 Y219.885696 Z-0.125000
G01 X92.150269 Y220.662235 Z-0.125000
G01 X93.608192 Y221.521680 Z-0.125000
G01 X95.078435 Y222.364778 Z-0.125000
G01 X96.395857 Y223.099094 Z-0.125000
G01 X97.889905 Y223.908246 Z-0.125000
G01 X99.228895 Y224.610498 Z-0.125000
G01 X100.578253 Y225.296166 Z-0.125000
G01 X102.109018 Y226.046895 Z-0.125000
G01 X103.309019 Y226.613164 Z-0.125000
G01 X104.864151 Y227.319529 Z-0.125000
G01 X106.258277 Y227.923521 Z-0.125000
G01 X107.840232 Y228.574994 Z-0.125000
G01 X109.258461 Y229.125879 Z-0.125000
G01 X110.508845 Y229.584030 Z-0.125000
G01 X113.765622 Y230.655515 Z-0.125000
G01 X115.231682 Y231.068939 Z-0.125000
G01 X116.894574 Y231.482746 Z-0.125000
G01 X118.384158 Y231.797860 Z-0.125000
G01 X120.071717 Y232.085506 Z-0.125000
G01 X121.580586 Y232.271590 Z-0.125000
G01 X123.095167 Y232.381826 Z-0.125000
G01 X124.611601 Y232.403299 Z-0.125000
G01 X126.312071 Y232.301807 Z-0.125000
G01 X127.807288 Y232.076700 Z-0.125000
G01 X129.270285 Y231.700076 Z-0.125000
G01 X130.675923 Y231.145231 Z-0.125000
G01 X131.988429 Y230.387439 Z-0.125000
G01 X133.296729 Y229.276538 Z-0.125000
G01 X134.259266 Y228.068579 Z-0.125000
G01 X135.078940 Y226.508388 Z-0.125000
G01 X135.617325 Y224.801495 Z-0.125000
G01 X135.882095 Y223.212683 Z-0.125000
G01 X135.975828 Y221.590788 Z-0.125000
G01 X135.927152 Y219.956739 Z-0.125000
G01 X135.876302 Y219.341738 Z-0.125000
G01 X135.791920 Y218.115141 Z-0.125000
G01 X135.782671 Y216.284856 Z-0.125000
G01 X135.888077 Y214.674364 Z-0.125000
G01 X136.094716 Y213.087870 Z-0.125000
G01 X136.439312 Y211.339852 Z-0.125000
G01 X136.835687 Y209.822583 Z-0.125000
G01 X137.308169 Y208.342736 Z-0.125000
G01 X137.848527 Y206.901396 Z-0.125000
G01 X138.449058 Y205.498524 Z-0.125000
G01 X139.188233 Y203.965597 Z-0.125000
G01 X139.986058 Y202.478053 Z-0.125000
G01 X140.738063 Y201.191314 Z-0.125000
G01 X141.525861 Y199.936181 Z-0.125000
G01 X142.450391 Y198.559556 Z-0.125000
G01 X143.301817 Y197.364048 Z-0.125000
G01 X144.178369 Y196.193015 Z-0.125000
G01 X145.191760 Y194.902474 Z-0.125000
G01 X145.996980 Y193.915454 Z-0.125000
G01 X147.053655 Y192.667276 Z-0.125000
G01 X148.131034 Y191.438797 Z-0.125000
G01 X149.103899 Y190.360751 Z-0.125000
G01 X150.089859 Y189.294144 Z-0.125000
G01 X151.087559 Y188.237169 Z-0.125000
G01 X152.222839 Y187.057723 Z-0.125000
G01 X153.241244 Y186.015442 Z-0.125000
G01 X154.267481 Y184.977530 Z-0.125000
G01 X155.300399 Y183.942410 Z-0.125000
G01 X156.469425 Y182.779721 Z-0.125000
G01 X157.643805 Y181.616672 Z-0.125000
G01 X158.558957 Y180.710151 Z-0.125000
G01 X159.738721 Y179.541791 Z-0.125000
G01 X160.919194 Y178.367906 Z-0.125000
G01 X161.967249 Y177.318252 Z-0.125000
G01 X163.013267 Y176.261779 Z-0.125000
G01 X164.186527 Y175.063865 Z-0.125000
G01 X165.223965 Y173.989222 Z-0.125000
G01 X166.255273 Y172.904406 Z-0.125000
G01 X167.407011 Y171.670761 Z-0.125000
G01 X168.420657 Y170.561080 Z-0.125000
G01 X169.423667 Y169.438251 Z-0.125000
G01 X170.537949 Y168.158390 Z-0.125000
G01 X171.513094 Y167.004757 Z-0.125000
G01 X172.472506 Y165.835365 Z-0.125000
G01 X173.414372 Y164.649470 Z-0.125000
G01 X174.451255 Y163.294860 Z-0.125000
G01 X175.349590 Y162.071690 Z-0.125000
G01 X176.332400 Y160.673644 Z-0.125000
G01 X177.177973 Y159.410749 Z-0.125000
G01 X177.995299 Y158.128550 Z-0.125000
G01 X178.878742 Y156.662683 Z-0.125000
G01 X179.628394 Y155.338786 Z-0.125000
G01 X180.342484 Y153.995236 Z-0.125000
G01 X181.100867 Y152.460506 Z-0.125000
G01 X181.731341 Y151.076101 Z-0.125000
G01 X182.318696 Y149.673300 Z-0.125000
G01 X182.860633 Y148.252883 Z-0.125000
G01 X183.354913 Y146.815858 Z-0.125000
G01 X183.877272 Y145.186817 Z-0.125000
G01 X184.334185 Y143.734211 Z-0.125000
G01 X184.784180 Y142.277131 Z-0.125000
G01 X185.281996 Y140.632405 Z-0.125000
G01 X185.715402 Y139.165613 Z-0.125000
G01 X186.140107 Y137.694118 Z-0.125000
G01 X186.555406 Y136.217868 Z-0.125000
G01 X187.011116 Y134.551214 Z-0.125000
G01 X187.453008 Y132.878393 Z-0.125000
G01 X187.832819 Y131.386355 Z-0.125000
G01 X188.199927 Y129.889410 Z-0.125000
G01 X188.553408 Y128.387534 Z-0.125000
G01 X188.892212 Y126.880737 Z-0.125000
G01 X189.254943 Y125.179552 Z-0.125000
G01 X189.595886 Y123.472239 Z-0.125000
G01 X189.878604 Y121.949725 Z-0.125000
G01 X190.140985 Y120.422602 Z-0.125000
G01 X190.410248 Y118.699017 Z-0.125000
G01 X190.623443 Y117.162613 Z-0.125000
G01 X190.810203 Y115.622290 Z-0.125000
G01 X190.986083 Y113.884982 Z-0.125000
G01 X191.107937 Y112.337754 Z-0.125000
G01 X191.194340 Y110.788294 Z-0.125000
G01 X191.244956 Y109.043439 Z-0.125000
G01 X191.242788 Y107.492773 Z-0.125000
G01 X191.191314 Y105.943972 Z-0.125000
G01 X191.067500 Y104.206426 Z-0.125000
G01 X190.890295 Y102.670244 Z-0.125000
G01 X190.641825 Y101.146066 Z-0.125000
G01 X190.312755 Y99.639689 Z-0.125000
G01 X189.833524 Y97.975833 Z-0.125000
G01 X189.297006 Y96.536485 Z-0.125000
G01 X188.554671 Y94.979369 Z-0.125000
G01 X187.758819 Y93.670927 Z-0.125000
G01 X186.827624 Y92.455657 Z-0.125000
G01 X185.759503 Y91.356476 Z-0.125000
G01 X184.402823 Y90.284818 Z-0.125000
G01 X183.074672 Y89.496552 Z-0.125000
G01 X181.470915 Y88.802221 Z-0.125000
G01 X179.972562 Y88.353509 Z-0.125000
G01 X178.427920 Y88.052618 Z-0.125000
G01 X176.854219 Y87.885632 Z-0.125000
G01 X175.065833 Y87.838644 Z-0.125000
G01 X173.469683 Y87.906689 Z-0.125000
G01 X171.874353 Y88.064035 Z-0.125000
G01 X170.086001 Y88.333267 Z-0.125000
G01 X168.504368 Y88.644473 Z-0.125000
G01 X166.736966 Y89.064111 Z-0.125000
G01 X165.176731 Y89.492110 Z-0.125000
G01 X163.627604 Y89.965483 Z-0.125000
G01 X162.089766 Y90.479341 Z-0.125000
G01 X160.373475 Y91.100308 Z-0.125000
G01 X158.859409 Y91.687181 Z-0.125000
G01 X157.356277 Y92.303408 Z-0.125000
G01 X155.678339 Y93.028104 Z-0.125000
G01 X154.197608 Y93.698460 Z-0.125000
G01 X152.727045 Y94.391044 Z-0.125000
G01 X151.266365 Y95.104155 Z-0.125000
G01 X149.635021 Y95.928553 Z-0.125000
G01 X148.194652 Y96.680380 Z-0.125000
G01 X146.585556 Y97.545142 Z-0.125000
G01 X145.164574 Y98.330269 Z-0.125000
G01 X144.104073 Y98.929347 Z-0.125000
G01 X142.698621 Y99.738618 Z-0.125000
G01 X141.475694 Y100.457597 Z-0.125000
G01 X140.086519 Y101.290027 Z-0.125000
G01 X138.534321 Y102.239533 Z-0.125000
G01 X136.992953 Y103.202514 Z-0.125000
G01 X135.631723 Y104.069566 Z-0.125000
G01 X134.279101 Y104.946090 Z-0.125000
G01 X132.935216 Y105.831603 Z-0.125000
G01 X131.600212 Y106.725595 Z-0.125000
G01 X130.109298 Y107.740443 Z-0.125000
G01 X128.793567 Y108.651010 Z-0.125000
G01 X127.487275 Y109.568695 Z-0.125000
G01 X126.029482 Y110.608552 Z-0.125000
G01 X124.744108 Y111.539922 Z-0.125000
G01 X123.469087 Y112.477061 Z-0.125000
G01 X122.047732 Y113.537161 Z-0.125000
G01 X120.796039 Y114.484998 Z-0.125000
G01 X119.402162 Y115.555762 Z-0.125000
G01 X118.176065 Y116.511805 Z-0.125000
G01 X116.962926 Y117.470692 Z-0.125000
G01 X115.614481 Y118.551486 Z-0.125000
G01 X114.430924 Y119.513916 Z-0.125000
G01 X113.262318 Y120.476609 Z-0.125000
G01 X112.109372 Y121.438454 Z-0.125000
G01 X110.831906 Y122.517499 Z-0.125000
G01 X109.714400 Y123.473259 Z-0.125000
G01 X108.478258 Y124.541613 Z-0.125000
G01 X107.398546 Y125.484096 Z-0.125000
G01 X106.337149 Y126.417217 Z-0.125000
G01 X105.293983 Y127.338799 Z-0.125000
G01 X104.141805 Y128.358123 Z-0.125000
G01 X103.135834 Y129.246846 Z-0.125000
G01 X102.145649 Y130.115943 Z-0.125000
G01 X100.083441 Y131.880647 Z-0.125000
G01 X99.127552 Y132.671739 Z-0.125000
G01 X98.175736 Y133.433249 Z-0.125000
G01 X97.104035 Y134.252275 Z-0.125000
G01 X96.145562 Y134.946745 Z-0.125000
G01 X95.175912 Y135.609025 Z-0.125000
G01 X94.064806 Y136.315684 Z-0.125000
G01 X93.053661 Y136.911764 Z-0.125000
G01 X92.015001 Y137.478541 Z-0.125000
G01 X90.807188 Y138.082270 Z-0.125000
G01 X89.694247 Y138.590191 Z-0.125000
G01 X88.539056 Y139.069858 Z-0.125000
G01 X87.181790 Y139.570632 Z-0.125000
G01 X85.916754 Y139.971297 Z-0.125000
G01 X84.583664 Y140.306667 Z-0.125000
G01 X81.043724 Y140.169493 Z-0.125000
G01 X79.915196 Y139.663603 Z-0.125000
G01 X78.268377 Y138.798594 Z-0.125000
G01 X76.869810 Y137.921644 Z-0.125000
G01 X75.387652 Y136.815853 Z-0.125000
G01 X74.164093 Y135.735090 Z-0.125000
G01 X73.034664 Y134.572724 Z-0.125000
G01 X72.000128 Y133.340621 Z-0.125000
G01 X70.944944 Y131.885639 Z-0.125000
G01 X70.199310 Y130.713720 Z-0.125000
G01 X69.325332 Y129.164393 Z-0.125000
G01 X68.620466 Y127.755704 Z-0.125000
G01 X67.895943 Y126.142243 Z-0.125000
G01 X67.304252 Y124.688106 Z-0.125000
G01 X66.686233 Y123.033392 Z-0.125000
G01 X66.171887 Y121.549293 Z-0.125000
G01 X65.623043 Y119.866853 Z-0.125000
G01 X65.155447 Y118.362227 Z-0.125000
G01 X64.700355 Y116.850167 Z-0.125000
G01 X64.252165 Y115.332043 Z-0.125000
G01 X63.748973 Y113.617997 Z-0.125000
G01 X63.354547 Y112.282123 Z-0.125000
G01 X62.835347 Y110.561125 Z-0.125000
G01 X62.357739 Y109.030797 Z-0.125000
G01 X61.794145 Y107.310169 Z-0.125000
G01 X61.194861 Y105.593819 Z-0.125000
G01 X60.625349 Y104.075467 Z-0.125000
G01 X59.934000 Y102.379283 Z-0.125000
G01 X59.267510 Y100.887792 Z-0.125000
G01 X58.544564 Y99.416901 Z-0.125000
G01 X57.758333 Y97.973328 Z-0.125000
G01 X56.789977 Y96.391616 Z-0.125000
G01 X55.849429 Y95.034286 Z-0.125000
G01 X54.829678 Y93.733280 Z-0.125000
G01 X53.585704 Y92.350065 Z-0.125000
G01 X52.396131 Y91.204377 Z-0.125000
G01 X51.131743 Y90.146751 Z-0.125000
G01 X49.627915 Y89.070107 Z-0.125000
G01 X48.228959 Y88.218677 Z-0.125000
G01 X46.780847 Y87.467017 Z-0.125000
G01 X45.292816 Y86.813120 Z-0.125000
G01 X43.581909 Y86.187144 Z-0.125000
G01 X42.035023 Y85.732133 Z-0.125000
G01 X40.270356 Y85.351632 Z-0.125000
G01 X38.688643 Y85.147661 Z-0.125000
G01 X37.105205 Y85.085539 Z-0.125000
G01 X35.339225 Y85.201345 Z-0.125000
G01 X33.803401 Y85.480048 Z-0.125000
G01 X32.501410 Y85.862091 Z-0.125000
G01 X30.903553 Y86.536121 Z-0.125000
G01 X29.571944 Y87.296941 Z-0.125000
G01 X28.185099 Y88.312825 Z-0.125000
G01 X27.056261 Y89.338296 Z-0.125000
G01 X25.901854 Y90.605250 Z-0.125000
G01 X24.975282 Y91.814643 Z-0.125000
G01 X24.037329 Y93.249961 Z-0.125000
G01 X23.290727 Y94.580089 Z-0.125000
G01 X22.619640 Y95.951216 Z-0.125000
G01 X21.947591 Y97.533171 Z-0.125000
G01 X21.419124 Y98.968201 Z-0.125000
G01 X20.950470 Y100.425048 Z-0.125000
G01 X20.537696 Y101.899760 Z-0.125000
G01 X20.135470 Y103.575805 Z-0.125000
G01 X19.828683 Y105.077991 Z-0.125000
G01 X19.558059 Y106.587135 Z-0.125000
G01 X19.322502 Y108.102125 Z-0.125000
G01 X19.099177 Y109.812375 Z-0.125000
G01 X18.920624 Y111.527833 Z-0.125000
G01 X18.799951 Y113.056395 Z-0.125000
G01 X18.714595 Y114.587367 Z-0.125000
G01 X18.660209 Y116.311373 Z-0.125000
G01 X18.649545 Y117.844691 Z-0.125000
G01 X18.673677 Y119.377688 Z-0.125000
G01 X18.732272 Y120.909739 Z-0.125000
G01 X18.838455 Y122.630916 Z-0.125000
G01 X18.969058 Y124.158213 Z-0.125000
G01 X19.132833 Y125.682149 Z-0.125000
G01 X19.355622 Y127.391573 Z-0.125000
G01 X19.588163 Y128.905952 Z-0.125000
G01 X19.852187 Y130.414923 Z-0.125000
G01 X20.147037 Y131.917805 Z-0.125000
G01 X20.556884 Y133.786577 Z-0.125000
G01 X20.872445 Y135.088305 Z-0.125000
G01 X21.259365 Y136.568466 Z-0.125000
G01 X21.727567 Y138.223620 Z-0.125000
G01 X22.230223 Y139.867732 Z-0.125000
G01 X22.705601 Y141.319477 Z-0.125000
G01 X23.206665 Y142.761682 Z-0.125000
G01 X23.799577 Y144.372155 Z-0.125000
G01 X24.352703 Y145.792823 Z-0.125000
G01 X24.784088 Y146.851610 Z-0.125000
G01 X25.302852 Y148.079120 Z-0.125000
G01 X25.993443 Y149.644911 Z-0.125000
G01 X26.630605 Y151.025000 Z-0.125000
G01 X27.288461 Y152.393730 Z-0.125000
G01 X27.966313 Y153.751015 Z-0.125000
G01 X28.751533 Y155.264316 Z-0.125000
G01 X29.469692 Y156.596914 Z-0.125000
G01 X30.205785 Y157.917747 Z-0.125000
G01 X30.959207 Y159.226800 Z-0.125000
G01 X31.826070 Y160.685210 Z-0.125000
G01 X32.614098 Y161.968924 Z-0.125000
G01 X33.518310 Y163.398731 Z-0.125000
G01 X34.338248 Y164.656988 Z-0.125000
G01 X35.172344 Y165.903423 Z-0.125000
G01 X36.019899 Y167.137804 Z-0.125000
G01 X36.988400 Y168.512497 Z-0.125000
G01 X37.862993 Y169.721854 Z-0.125000
G01 X38.749524 Y170.919559 Z-0.125000
G01 X39.759903 Y172.253134 Z-0.125000
G01 X40.670121 Y173.426250 Z-0.125000
G01 X41.590737 Y174.588032 Z-0.125000
G01 X42.637913 Y175.881849 Z-0.125000
G01 X43.579125 Y177.019743 Z-0.125000
G01 X44.529657 Y178.146949 Z-0.125000
G01 X45.488978 Y179.263452 Z-0.125000
G01 X46.456551 Y180.369273 Z-0.125000
G01 X47.554001 Y181.600935 Z-0.125000
G01 X48.538316 Y182.684929 Z-0.125000
G01 X49.653859 Y183.892671 Z-0.125000
G01 X50.653342 Y184.955514 Z-0.125000
G01 X51.785412 Y186.140128 Z-0.125000
G01 X52.799116 Y187.183033 Z-0.125000
G01 X53.819066 Y188.216708 Z-0.125000
G01 X54.845189 Y189.241580 Z-0.125000
G01 X56.006301 Y190.384536 Z-0.125000
G01 X57.044894 Y191.391152 Z-0.125000
G01 X58.089250 Y192.389591 Z-0.125000
G01 X59.270362 Y193.503551 Z-0.125000
G01 X60.326542 Y194.485170 Z-0.125000
G01 X61.388222 Y195.459168 Z-0.125000
G01 X62.322164 Y196.304997 Z-0.125000
G01 X63.662192 Y197.504929 Z-0.125000
G01 X64.741142 Y198.456340 Z-0.125000
G01 X65.961263 Y199.518791 Z-0.125000
G01 X68.145950 Y201.389122 Z-0.125000
G01 X69.386423 Y202.428104 Z-0.125000
G01 X70.495728 Y203.344260 Z-0.125000
G01 X71.611232 Y204.253945 Z-0.125000
G01 X72.873296 Y205.269970 Z-0.125000
G01 X74.002271 Y206.165734 Z-0.125000
G01 X75.137939 Y207.054968 Z-0.125000
G01 X76.423403 Y208.047844 Z-0.125000
G01 X77.573742 Y208.922789 Z-0.125000
G01 X78.876255 Y209.899344 Z-0.125000
G01 X80.042132 Y210.759419 Z-0.125000
G01 X81.215671 Y211.612188 Z-0.125000
G01 X82.545128 Y212.563117 Z-0.125000
G01 X83.735571 Y213.399619 Z-0.125000
G01 X84.934253 Y214.227926 Z-0.125000
G01 X86.292723 Y215.150168 Z-0.125000
G01 X87.509552 Y215.960010 Z-0.125000
G01 X88.889036 Y216.860443 Z-0.125000
G01 X89.970233 Y217.551295 Z-0.125000
G01 X91.214398 Y218.331732 Z-0.125000
G01 X92.468038 Y219.101326 Z-0.125000
G01 X93.889725 Y219.953830 Z-0.125000
G01 X95.323979 Y220.790880 Z-0.125000
G01 X96.609638 Y221.520584 Z-0.125000
G01 X98.068218 Y222.325330 Z-0.125000
G01 X99.375932 Y223.024373 Z-0.125000
G01 X100.694253 Y223.707470 Z-0.125000
G01 X102.190394 Y224.456041 Z-0.125000
G01 X103.363687 Y225.021172 Z-0.125000
G01 X104.884758 Y225.726737 Z-0.125000
G01 X106.248873 Y226.330619 Z-0.125000
G01 X107.797351 Y226.982647 Z-0.125000
G01 X109.186072 Y227.534596 Z-0.125000
G01 X110.410814 Y227.994111 Z-0.125000
G01 X113.602379 Y229.070969 Z-0.125000
G01 X115.039746 Y229.487613 Z-0.125000
G01 X116.670528 Y229.905655 Z-0.125000
G01 X118.131695 Y230.225074 Z-0.125000
G01 X119.787381 Y230.518158 Z-0.125000
G01 X121.267974 Y230.709653 Z-0.125000
G01 X122.754286 Y230.825785 Z-0.125000
G01 X124.242444 Y230.853735 Z-0.125000
G01 X125.911055 Y230.760183 Z-0.125000
G01 X127.377923 Y230.542730 Z-0.125000
G01 X128.812610 Y230.174318 Z-0.125000
G01 X130.190139 Y229.628185 Z-0.125000
G01 X131.475052 Y228.879501 Z-0.125000
G01 X132.753582 Y227.779079 Z-0.125000
G01 X133.691479 Y226.580278 Z-0.125000
G01 X134.486211 Y225.029831 Z-0.125000
G01 X135.002943 Y223.331818 Z-0.125000
G01 X135.251157 Y221.750037 Z-0.125000
G01 X135.330609 Y220.134387 Z-0.125000
G01 X135.269630 Y218.505859 Z-0.125000
G01 X135.214619 Y217.892741 Z-0.125000
G01 X135.121442 Y216.670183 Z-0.125000
G01 X135.096403 Y214.847335 Z-0.125000
G01 X135.185212 Y213.244884 Z-0.125000
G01 X135.372972 Y211.667834 Z-0.125000
G01 X135.693813 Y209.932137 Z-0.125000
G01 X136.067070 Y208.427372 Z-0.125000
G01 X136.514782 Y206.961456 Z-0.125000
G01 X137.028957 Y205.535480 Z-0.125000
G01 X137.602129 Y204.149400 Z-0.125000
G01 X138.309399 Y202.637022 Z-0.125000
G01 X139.074428 Y201.171777 Z-0.125000
G01 X139.796761 Y199.906260 Z-0.125000
G01 X140.554599 Y198.673625 Z-0.125000
G01 X141.445292 Y197.323755 Z-0.125000
G01 X142.266708 Y196.153275 Z-0.125000
G01 X143.113465 Y195.008363 Z-0.125000
G01 X144.093759 Y193.748432 Z-0.125000
G01 X144.873651 Y192.786049 Z-0.125000
G01 X145.898422 Y191.570527 Z-0.125000
G01 X146.944761 Y190.375699 Z-0.125000
G01 X147.890854 Y189.328307 Z-0.125000
G01 X148.850883 Y188.292965 Z-0.125000
G01 X149.823552 Y187.267784 Z-0.125000
G01 X150.931798 Y186.124645 Z-0.125000
G01 X151.927214 Y185.115025 Z-0.125000
G01 X152.931471 Y184.110065 Z-0.125000
G01 X153.943427 Y183.108113 Z-0.125000
G01 X155.090104 Y181.982919 Z-0.125000
G01 X156.243436 Y180.857468 Z-0.125000
G01 X157.143112 Y179.980215 Z-0.125000
G01 X158.304118 Y178.849450 Z-0.125000
G01 X159.467090 Y177.713070 Z-0.125000
G01 X160.500619 Y176.696627 Z-0.125000
G01 X161.533059 Y175.673218 Z-0.125000
G01 X162.692145 Y174.512281 Z-0.125000
G01 X163.717934 Y173.470290 Z-0.125000
G01 X164.738456 Y172.417903 Z-0.125000
G01 X165.879055 Y171.220457 Z-0.125000
G01 X166.883657 Y170.142689 Z-0.125000
G01 X167.878397 Y169.051522 Z-0.125000
G01 X168.984267 Y167.806975 Z-0.125000
G01 X169.952699 Y166.684465 Z-0.125000
G01 X170.906091 Y165.545946 Z-0.125000
G01 X171.842606 Y164.390684 Z-0.125000
G01 X172.874239 Y163.070257 Z-0.125000
G01 X173.768575 Y161.877241 Z-0.125000
G01 X174.747607 Y160.512868 Z-0.125000
G01 X175.590445 Y159.279700 Z-0.125000
G01 X176.405608 Y158.027050 Z-0.125000
G01 X177.287286 Y156.594228 Z-0.125000
G01 X178.035947 Y155.299548 Z-0.125000
G01 X178.749587 Y153.985081 Z-0.125000
G01 X179.508097 Y152.482925 Z-0.125000
G01 X180.139236 Y151.127360 Z-0.125000
G01 X180.727779 Y149.753301 Z-0.125000
G01 X181.271415 Y148.361537 Z-0.125000
G01 X181.767908 Y146.953081 Z-0.125000
G01 X182.293343 Y145.355912 Z-0.125000
G01 X182.753487 Y143.931224 Z-0.125000
G01 X183.207156 Y142.501667 Z-0.125000
G01 X183.709614 Y140.887422 Z-0.125000
G01 X184.147576 Y139.447295 Z-0.125000
G01 X184.577227 Y138.002060 Z-0.125000
G01 X184.997845 Y136.551663 Z-0.125000
G01 X185.459958 Y134.913611 Z-0.125000
G01 X185.908684 Y133.268886 Z-0.125000
G01 X186.294912 Y131.801403 Z-0.125000
G01 X186.668747 Y130.328625 Z-0.125000
G01 X187.029252 Y128.850534 Z-0.125000
G01 X187.375365 Y127.367151 Z-0.125000
G01 X187.746650 Y125.691872 Z-0.125000
G01 X188.096485 Y124.010024 Z-0.125000
G01 X188.387379 Y122.509787 Z-0.125000
G01 X188.658191 Y121.004618 Z-0.125000
G01 X188.937236 Y119.305367 Z-0.125000
G01 X189.159391 Y117.790284 Z-0.125000
G01 X189.355356 Y116.271010 Z-0.125000
G01 X189.541888 Y114.557082 Z-0.125000
G01 X189.673477 Y113.030393 Z-0.125000
G01 X189.769877 Y111.501262 Z-0.125000
G01 X189.832057 Y109.779060 Z-0.125000
G01 X189.840466 Y108.248360 Z-0.125000
G01 X189.799862 Y106.719398 Z-0.125000
G01 X189.688653 Y105.004047 Z-0.125000
G01 X189.523004 Y103.487517 Z-0.125000
G01 X189.286446 Y101.982947 Z-0.125000
G01 X188.969665 Y100.496155 Z-0.125000
G01 X188.504738 Y98.854329 Z-0.125000
G01 X187.981375 Y97.434559 Z-0.125000
G01 X187.254328 Y95.899444 Z-0.125000
G01 X186.472477 Y94.610475 Z-0.125000
G01 X185.555605 Y93.414508 Z-0.125000
G01 X184.502025 Y92.334320 Z-0.125000
G01 X183.161794 Y91.283454 Z-0.125000
G01 X181.848172 Y90.512981 Z-0.125000
G01 X180.260472 Y89.837717 Z-0.125000
G01 X178.776019 Y89.405037 Z-0.125000
G01 X177.244872 Y89.119306 Z-0.125000
G01 X175.684249 Y88.966650 Z-0.125000
G01 X173.910100 Y88.934868 Z-0.125000
G01 X172.326225 Y89.015712 Z-0.125000
G01 X170.742860 Y89.185261 Z-0.125000
G01 X168.967659 Y89.467612 Z-0.125000
G01 X167.397501 Y89.790015 Z-0.125000
G01 X165.642817 Y90.221806 Z-0.125000
G01 X164.093769 Y90.660277 Z-0.125000
G01 X162.555762 Y91.143862 Z-0.125000
G01 X161.029015 Y91.667713 Z-0.125000
G01 X159.325207 Y92.299706 Z-0.125000
G01 X157.822284 Y92.896229 Z-0.125000
G01 X156.330371 Y93.521990 Z-0.125000
G01 X154.665189 Y94.257312 Z-0.125000
G01 X153.195945 Y94.937046 Z-0.125000
G01 X151.737044 Y95.638970 Z-0.125000
G01 X150.288228 Y96.361404 Z-0.125000
G01 X148.670518 Y97.196291 Z-0.125000
G01 X147.242553 Y97.957460 Z-0.125000
G01 X145.647774 Y98.832771 Z-0.125000
G01 X144.239881 Y99.627329 Z-0.125000
G01 X143.189440 Y100.233521 Z-0.125000
G01 X141.797757 Y101.052342 Z-0.125000
G01 X140.587242 Y101.779746 Z-0.125000
G01 X139.212699 Y102.621893 Z-0.125000
G01 X137.677583 Y103.582450 Z-0.125000
G01 X136.154021 Y104.556624 Z-0.125000
G01 X134.809279 Y105.433755 Z-0.125000
G01 X133.473826 Y106.320483 Z-0.125000
G01 X132.147843 Y107.216331 Z-0.125000
G01 X130.831535 Y108.120788 Z-0.125000
G01 X129.362689 Y109.147567 Z-0.125000
G01 X128.067567 Y110.068877 Z-0.125000
G01 X126.782901 Y110.997427 Z-0.125000
G01 X125.350755 Y112.049647 Z-0.125000
G01 X124.089447 Y112.992107 Z-0.125000
G01 X122.839787 Y113.940414 Z-0.125000
G01 X121.448644 Y115.013141 Z-0.125000
G01 X120.225421 Y115.972217 Z-0.125000
G01 X118.865543 Y117.055584 Z-0.125000
G01 X117.671566 Y118.022733 Z-0.125000
G01 X116.492470 Y118.992564 Z-0.125000
G01 X115.184805 Y120.085370 Z-0.125000
G01 X114.039864 Y121.058097 Z-0.125000
G01 X112.912269 Y122.030599 Z-0.125000
G01 X111.802875 Y123.001618 Z-0.125000
G01 X110.577642 Y124.090003 Z-0.125000
G01 X109.509597 Y125.052967 Z-0.125000
G01 X108.332689 Y126.127877 Z-0.125000
G01 X107.308941 Y127.074501 Z-0.125000
G01 X106.306700 Y128.009854 Z-0.125000
G01 X105.325918 Y128.931408 Z-0.125000
G01 X104.247747 Y129.947525 Z-0.125000
G01 X103.310848 Y130.830131 Z-0.125000
G01 X102.392638 Y131.689607 Z-0.125000
G01 X100.491554 Y133.420408 Z-0.125000
G01 X99.614354 Y134.188460 Z-0.125000
G01 X98.742233 Y134.922041 Z-0.125000
G01 X97.760496 Y135.703647 Z-0.125000
G01 X96.881377 Y136.359542 Z-0.125000
G01 X95.989636 Y136.978432 Z-0.125000
G01 X94.963406 Y137.630955 Z-0.125000
G01 X94.024392 Y138.174737 Z-0.125000
G01 X93.054008 Y138.685970 Z-0.125000
G01 X91.917688 Y139.224289 Z-0.125000
G01 X90.863088 Y139.672424 Z-0.125000
G01 X89.761025 Y140.091726 Z-0.125000
G01 X88.457065 Y140.525145 Z-0.125000
G01 X87.233515 Y140.867710 Z-0.125000
G01 X85.936140 Y141.148232 Z-0.125000
G01 X82.446010 Y140.925143 Z-0.125000
G01 X81.319791 Y140.414953 Z-0.125000
G01 X79.673309 Y139.549315 Z-0.125000
G01 X78.272125 Y138.677244 Z-0.125000
G01 X76.784038 Y137.582354 Z-0.125000
G01 X75.552840 Y136.515346 Z-0.125000
G01 X74.413827 Y135.369799 Z-0.125000
G01 X73.368041 Y134.156849 Z-0.125000
G01 X72.298557 Y132.725370 Z-0.125000
G01 X71.540820 Y131.572656 Z-0.125000
G01 X70.650280 Y130.048660 Z-0.125000
G01 X69.929967 Y128.662692 Z-0.125000
G01 X69.187474 Y127.074643 Z-0.125000
G01 X68.579452 Y125.642717 Z-0.125000
G01 X67.942833 Y124.012359 Z-0.125000
G01 X67.411882 Y122.549209 Z-0.125000
G01 X66.844419 Y120.889429 Z-0.125000
G01 X66.360434 Y119.404066 Z-0.125000
G01 X65.889198 Y117.910390 Z-0.125000
G01 X65.425200 Y116.409729 Z-0.125000
G01 X64.904727 Y114.714195 Z-0.125000
G01 X64.497297 Y113.391870 Z-0.125000
G01 X63.962038 Y111.687172 Z-0.125000
G01 X63.470864 Y110.170255 Z-0.125000
G01 X62.892915 Y108.463476 Z-0.125000
G01 X62.280350 Y106.759636 Z-0.125000
G01 X61.700040 Y105.251248 Z-0.125000
G01 X60.997794 Y103.564930 Z-0.125000
G01 X60.322840 Y102.080979 Z-0.125000
G01 X59.592685 Y100.616426 Z-0.125000
G01 X58.800600 Y99.177944 Z-0.125000
G01 X57.827393 Y97.600413 Z-0.125000
G01 X56.884168 Y96.245374 Z-0.125000
G01 X55.863339 Y94.945287 Z-0.125000
G01 X54.620102 Y93.561444 Z-0.125000
G01 X53.432897 Y92.413728 Z-0.125000
G01 X52.172428 Y91.352733 Z-0.125000
G01 X50.674724 Y90.270777 Z-0.125000
G01 X49.282576 Y89.413377 Z-0.125000
G01 X47.842382 Y88.654686 Z-0.125000
G01 X46.363205 Y87.992819 Z-0.125000
G01 X44.663143 Y87.356910 Z-0.125000
G01 X43.126608 Y86.892244 Z-0.125000
G01 X41.374444 Y86.499851 Z-0.125000
G01 X39.804640 Y86.284311 Z-0.125000
G01 X38.233865 Y86.209614 Z-0.125000
G01 X36.482992 Y86.310046 Z-0.125000
G01 X34.961277 Y86.574012 Z-0.125000
G01 X33.672056 Y86.942380 Z-0.125000
G01 X32.091028 Y87.597882 Z-0.125000
G01 X30.774590 Y88.341487 Z-0.125000
G01 X29.404852 Y89.337342 Z-0.125000
G01 X28.291118 Y90.344558 Z-0.125000
G01 X27.153467 Y91.590590 Z-0.125000
G01 X26.241514 Y92.781125 Z-0.125000
G01 X25.319650 Y94.194993 Z-0.125000
G01 X24.587011 Y95.505876 Z-0.125000
G01 X23.929559 Y96.857606 Z-0.125000
G01 X23.272457 Y98.417569 Z-0.125000
G01 X22.756931 Y99.832900 Z-0.125000
G01 X22.300896 Y101.269903 Z-0.125000
G01 X21.900426 Y102.724620 Z-0.125000
G01 X21.511671 Y104.377990 Z-0.125000
G01 X21.216539 Y105.859839 Z-0.125000
G01 X20.957290 Y107.348437 Z-0.125000
G01 X20.732828 Y108.842672 Z-0.125000
G01 X20.521646 Y110.529321 Z-0.125000
G01 X20.354871 Y112.220917 Z-0.125000
G01 X20.244357 Y113.728049 Z-0.125000
G01 X20.168866 Y115.237384 Z-0.125000
G01 X20.125223 Y116.936806 Z-0.125000
G01 X20.123784 Y118.448052 Z-0.125000
G01 X20.156837 Y119.958778 Z-0.125000
G01 X20.224042 Y121.468354 Z-0.125000
G01 X20.339538 Y123.163999 Z-0.125000
G01 X20.478082 Y124.668385 Z-0.125000
G01 X20.649475 Y126.169203 Z-0.125000
G01 X20.880447 Y127.852371 Z-0.125000
G01 X21.119910 Y129.343188 Z-0.125000
G01 X21.390523 Y130.828386 Z-0.125000
G01 X21.691621 Y132.307280 Z-0.125000
G01 X22.108790 Y134.145766 Z-0.125000
G01 X22.429150 Y135.426086 Z-0.125000
G01 X22.821219 Y136.881578 Z-0.125000
G01 X23.294778 Y138.508707 Z-0.125000
G01 X23.802321 Y140.124506 Z-0.125000
G01 X24.281639 Y141.550840 Z-0.125000
G01 X24.786255 Y142.967394 Z-0.125000
G01 X25.382689 Y144.548732 Z-0.125000
G01 X25.938514 Y145.943248 Z-0.125000
G01 X26.371650 Y146.982260 Z-0.125000
G01 X26.892156 Y148.186526 Z-0.125000
G01 X27.584498 Y149.722157 Z-0.125000
G01 X28.222744 Y151.075174 Z-0.125000
G01 X28.881226 Y152.416582 Z-0.125000
G01 X29.559235 Y153.746298 Z-0.125000
G01 X30.344054 Y155.228279 Z-0.125000
G01 X31.061329 Y156.532779 Z-0.125000
G01 X31.796026 Y157.825266 Z-0.125000
G01 X32.547528 Y159.105727 Z-0.125000
G01 X33.411582 Y160.531684 Z-0.125000
G01 X34.196523 Y161.786299 Z-0.125000
G01 X35.096576 Y163.183097 Z-0.125000
G01 X35.912188 Y164.411772 Z-0.125000
G01 X36.741351 Y165.628407 Z-0.125000
G01 X37.583351 Y166.832784 Z-0.125000
G01 X38.544835 Y168.173488 Z-0.125000
G01 X39.412493 Y169.352436 Z-0.125000
G01 X40.291413 Y170.519563 Z-0.125000
G01 X41.292403 Y171.818556 Z-0.125000
G01 X42.193524 Y172.960783 Z-0.125000
G01 X43.104320 Y174.091561 Z-0.125000
G01 X44.139562 Y175.350376 Z-0.125000
G01 X45.069370 Y176.457085 Z-0.125000
G01 X46.007729 Y177.553049 Z-0.125000
G01 X46.954097 Y178.638279 Z-0.125000
G01 X47.907930 Y179.712834 Z-0.125000
G01 X48.988970 Y180.909358 Z-0.125000
G01 X49.957839 Y181.962179 Z-0.125000
G01 X51.055033 Y183.134962 Z-0.125000
G01 X52.037340 Y184.166868 Z-0.125000
G01 X53.149108 Y185.316874 Z-0.125000
G01 X54.143892 Y186.329226 Z-0.125000
G01 X55.144110 Y187.332588 Z-0.125000
G01 X56.149689 Y188.327420 Z-0.125000
G01 X57.286727 Y189.436950 Z-0.125000
G01 X58.303081 Y190.414231 Z-0.125000
G01 X59.324416 Y191.383722 Z-0.125000
G01 X60.478718 Y192.465628 Z-0.125000
G01 X61.510274 Y193.419248 Z-0.125000
G01 X62.546606 Y194.365754 Z-0.125000
G01 X63.457790 Y195.187966 Z-0.125000
G01 X64.764414 Y196.354922 Z-0.125000
G01 X65.815907 Y197.280631 Z-0.125000
G01 X67.004405 Y198.314939 Z-0.125000
G01 X69.131093 Y200.137365 Z-0.125000
G01 X70.338025 Y201.150660 Z-0.125000
G01 X71.417010 Y202.044780 Z-0.125000
G01 X72.501761 Y202.933202 Z-0.125000
G01 X73.728760 Y203.926247 Z-0.125000
G01 X74.826190 Y204.802443 Z-0.125000
G01 X75.929999 Y205.672924 Z-0.125000
G01 X77.179301 Y206.645692 Z-0.125000
G01 X78.297247 Y207.503654 Z-0.125000
G01 X79.563093 Y208.462104 Z-0.125000
G01 X80.696218 Y209.306973 Z-0.125000
G01 X81.836895 Y210.145396 Z-0.125000
G01 X83.129291 Y211.081170 Z-0.125000
G01 X84.286748 Y211.905075 Z-0.125000
G01 X85.452447 Y212.721641 Z-0.125000
G01 X86.773843 Y213.631638 Z-0.125000
G01 X87.957780 Y214.431452 Z-0.125000
G01 X89.300365 Y215.321549 Z-0.125000
G01 X90.352961 Y216.005041 Z-0.125000
G01 X91.564567 Y216.777768 Z-0.125000
G01 X92.785807 Y217.540418 Z-0.125000
G01 X94.171260 Y218.385979 Z-0.125000
G01 X95.569524 Y219.216999 Z-0.125000
G01 X96.823418 Y219.942058 Z-0.125000
G01 X98.246531 Y220.742413 Z-0.125000
G01 X99.522966 Y221.438248 Z-0.125000
G01 X100.810253 Y222.118774 Z-0.125000
G01 X102.271774 Y222.865202 Z-0.125000
G01 X103.418357 Y223.429195 Z-0.125000
G01 X104.905367 Y224.133945 Z-0.125000
G01 X106.239467 Y224.737716 Z-0.125000
G01 X107.754465 Y225.390285 Z-0.125000
G01 X109.113680 Y225.943314 Z-0.125000
G01 X110.312788 Y226.404207 Z-0.125000
G01 X113.439136 Y227.486423 Z-0.125000
G01 X114.847808 Y227.906288 Z-0.125000
G01 X116.446483 Y228.328564 Z-0.125000
G01 X117.879228 Y228.652272 Z-0.125000
G01 X119.503045 Y228.950810 Z-0.125000
G01 X120.955359 Y229.147701 Z-0.125000
G01 X122.413410 Y229.269759 Z-0.125000
G01 X123.873285 Y229.304172 Z-0.125000
G01 X125.510041 Y229.218559 Z-0.125000
G01 X126.948559 Y229.008759 Z-0.125000
G01 X128.354935 Y228.648560 Z-0.125000
G01 X129.704353 Y228.111138 Z-0.125000
G01 X130.961677 Y227.371563 Z-0.125000
G01 X132.210431 Y226.281604 Z-0.125000
G01 X133.123691 Y225.091978 Z-0.125000
G01 X133.893484 Y223.551289 Z-0.125000
G01 X134.388561 Y221.862140 Z-0.125000
G01 X134.620218 Y220.287392 Z-0.125000
G01 X134.685390 Y218.677985 Z-0.125000
G01 X134.612106 Y217.054963 Z-0.125000
G01 X134.552937 Y216.443744 Z-0.125000
G01 X134.450968 Y215.225242 Z-0.125000
G01 X134.410136 Y213.409813 Z-0.125000
G01 X134.482348 Y211.815404 Z-0.125000
G01 X134.651229 Y210.247798 Z-0.125000
G01 X134.948313 Y208.524423 Z-0.125000
G01 X135.298449 Y207.032146 Z-0.125000
G01 X135.721392 Y205.580159 Z-0.125000
G01 X136.209389 Y204.169564 Z-0.125000
G01 X136.755201 Y202.800276 Z-0.125000
G01 X137.430568 Y201.308463 Z-0.125000
G01 X138.162796 Y199.865502 Z-0.125000
G01 X138.855460 Y198.621204 Z-0.125000
G01 X139.583336 Y197.411066 Z-0.125000
G01 X140.440195 Y196.087962 Z-0.125000
G01 X141.231601 Y194.942509 Z-0.125000
G01 X142.048562 Y193.823717 Z-0.125000
G01 X142.995760 Y192.594395 Z-0.125000
G01 X143.750324 Y191.656651 Z-0.125000
G01 X144.743191 Y190.473784 Z-0.125000
G01 X145.758490 Y189.312606 Z-0.125000
G01 X146.677811 Y188.295867 Z-0.125000
G01 X147.611910 Y187.291791 Z-0.125000
G01 X148.559544 Y186.298408 Z-0.125000
G01 X149.640759 Y185.191574 Z-0.125000
G01 X150.613186 Y184.214616 Z-0.125000
G01 X151.595462 Y183.242606 Z-0.125000
G01 X152.586457 Y182.273823 Z-0.125000
G01 X153.710783 Y181.186123 Z-0.125000
G01 X154.843069 Y180.098272 Z-0.125000
G01 X155.727270 Y179.250284 Z-0.125000
G01 X156.869515 Y178.157118 Z-0.125000
G01 X158.014986 Y177.058241 Z-0.125000
G01 X159.033989 Y176.075011 Z-0.125000
G01 X160.052852 Y175.084662 Z-0.125000
G01 X161.197765 Y173.960705 Z-0.125000
G01 X162.211903 Y172.951366 Z-0.125000
G01 X163.221639 Y171.931406 Z-0.125000
G01 X164.351100 Y170.770159 Z-0.125000
G01 X165.346658 Y169.724306 Z-0.125000
G01 X166.333128 Y168.664798 Z-0.125000
G01 X167.430585 Y167.455567 Z-0.125000
G01 X168.392305 Y166.364177 Z-0.125000
G01 X169.339676 Y165.256534 Z-0.125000
G01 X170.270840 Y164.131905 Z-0.125000
G01 X171.297227 Y162.845662 Z-0.125000
G01 X172.187560 Y161.682799 Z-0.125000
G01 X173.162814 Y160.352099 Z-0.125000
G01 X174.002917 Y159.148658 Z-0.125000
G01 X174.815918 Y157.925554 Z-0.125000
G01 X175.695829 Y156.525782 Z-0.125000
G01 X176.443504 Y155.260317 Z-0.125000
G01 X177.156693 Y153.974933 Z-0.125000
G01 X177.915327 Y152.505350 Z-0.125000
G01 X178.547134 Y151.178624 Z-0.125000
G01 X179.136862 Y149.833308 Z-0.125000
G01 X179.682198 Y148.470195 Z-0.125000
G01 X180.180901 Y147.090310 Z-0.125000
G01 X180.709416 Y145.525015 Z-0.125000
G01 X181.172791 Y144.128245 Z-0.125000
G01 X181.630132 Y142.726208 Z-0.125000
G01 X182.137233 Y141.142447 Z-0.125000
G01 X182.579753 Y139.728984 Z-0.125000
G01 X183.014349 Y138.310007 Z-0.125000
G01 X183.440283 Y136.885463 Z-0.125000
G01 X183.908802 Y135.276015 Z-0.125000
G01 X184.364362 Y133.659386 Z-0.125000
G01 X184.757007 Y132.216458 Z-0.125000
G01 X185.137568 Y130.767847 Z-0.125000
G01 X185.505096 Y129.313539 Z-0.125000
G01 X185.858520 Y127.853570 Z-0.125000
G01 X186.238357 Y126.204199 Z-0.125000
G01 X186.597082 Y124.547814 Z-0.125000
G01 X186.896156 Y123.069856 Z-0.125000
G01 X187.175398 Y121.586641 Z-0.125000
G01 X187.464227 Y119.911723 Z-0.125000
G01 X187.695339 Y118.417962 Z-0.125000
G01 X187.900509 Y116.919739 Z-0.125000
G01 X188.097693 Y115.229191 Z-0.125000
G01 X188.239020 Y113.723038 Z-0.125000
G01 X188.345415 Y112.214237 Z-0.125000
G01 X188.419159 Y110.514687 Z-0.125000
G01 X188.438144 Y109.003955 Z-0.125000
G01 X188.408413 Y107.494831 Z-0.125000
G01 X188.309807 Y105.801675 Z-0.125000
G01 X188.155714 Y104.304797 Z-0.125000
G01 X187.931069 Y102.819836 Z-0.125000
G01 X187.626579 Y101.352629 Z-0.125000
G01 X187.175955 Y99.732830 Z-0.125000
G01 X186.665745 Y98.332639 Z-0.125000
G01 X185.953989 Y96.819523 Z-0.125000
G01 X185.186139 Y95.550030 Z-0.125000
G01 X184.283589 Y94.373364 Z-0.125000
G01 X183.244552 Y93.312169 Z-0.125000
