%
(Header)
(Generated by gcodetools from Inkscape.)
(Using default header. To add your own header create file "header" in the output dir.)
M3
(Header end.)
G21 (All units in mm)

(Start cutting path id: polyline10310)
(Change tool to Default tool)

G00 Z3.000000
G00 X174.778570 Y130.723549

G00 Z4.875000 (Fast pre-penetrate)
G01 Z-0.125000 F400.0(Penetrate)
G01 X174.034492 Y132.189774 Z-0.125000 F800.000000
G01 X170.393890 Y137.293183 Z-0.125000
G01 X168.530277 Y140.267494 Z-0.125000
G01 X166.830431 Y143.598429 Z-0.125000
G01 X165.681742 Y146.533395 Z-0.125000
G01 X164.852330 Y149.504546 Z-0.125000
G01 X164.296464 Y152.989379 Z-0.125000
G01 X164.057038 Y165.321101 Z-0.125000
G01 X163.739180 Y168.670096 Z-0.125000
G01 X163.235367 Y171.430911 Z-0.125000
G01 X162.245671 Y174.558927 Z-0.125000
G01 X161.053508 Y176.912034 Z-0.125000
G01 X159.529361 Y178.978050 Z-0.125000
G01 X157.329378 Y181.056643 Z-0.125000
G01 X155.285486 Y182.474364 Z-0.125000
G01 X153.163033 Y183.647564 Z-0.125000
G01 X144.953990 Y187.240757 Z-0.125000
G01 X138.526579 Y190.537829 Z-0.125000
G01 X134.752720 Y191.715609 Z-0.125000
G01 X125.067454 Y193.943456 Z-0.125000
G01 X121.436140 Y195.200764 Z-0.125000
G01 X118.748791 Y196.618485 Z-0.125000
G01 X113.030370 Y200.473615 Z-0.125000
G01 X111.282600 Y201.327731 Z-0.125000
G01 X109.314819 Y202.004019 Z-0.125000
G01 X107.102258 Y202.461714 Z-0.125000
G01 X104.647627 Y202.680242 Z-0.125000
G01 X99.168955 Y202.447137 Z-0.125000
G01 X93.440407 Y201.530843 Z-0.125000
G01 X90.608126 Y200.682404 Z-0.125000
G01 X88.397307 Y199.773140 Z-0.125000
G01 X85.246522 Y198.069553 Z-0.125000
G01 X81.941839 Y195.743665 Z-0.125000
G01 X73.257169 Y187.866090 Z-0.125000
G01 X71.525331 Y186.945926 Z-0.125000
G01 X67.861896 Y185.654110 Z-0.125000
G01 X66.258865 Y184.500196 Z-0.125000
G01 X56.440212 Y171.899700 Z-0.125000
G01 X43.586939 Y157.555821 Z-0.125000
G01 X41.243765 Y154.104077 Z-0.125000
G01 X40.347014 Y151.795024 Z-0.125000
G01 X40.344434 Y150.194637 Z-0.125000
G01 X41.397534 Y143.999880 Z-0.125000
G01 X41.415659 Y139.345460 Z-0.125000
G01 X41.033751 Y136.302326 Z-0.125000
G01 X40.247168 Y132.763958 Z-0.125000
G01 X37.049813 Y123.467307 Z-0.125000
G01 X36.427513 Y120.849425 Z-0.125000
G01 X36.340050 Y117.201599 Z-0.125000
G01 X36.661907 Y115.378364 Z-0.125000
G01 X37.224997 Y113.609631 Z-0.125000
G01 X38.998502 Y110.383574 Z-0.125000
G01 X41.438169 Y107.726734 Z-0.125000
G01 X44.256970 Y105.655042 Z-0.125000
G01 X51.750380 Y101.280554 Z-0.125000
G01 X53.985452 Y99.432486 Z-0.125000
G01 X57.845291 Y95.696294 Z-0.125000
G01 X59.340477 Y93.879122 Z-0.125000
G01 X60.550506 Y91.939592 Z-0.125000
G01 X62.923028 Y86.354816 Z-0.125000
G01 X63.933880 Y84.448826 Z-0.125000
G01 X65.326123 Y82.591276 Z-0.125000
G01 X67.121043 Y80.900331 Z-0.125000
G01 X69.959645 Y79.057939 Z-0.125000
G01 X72.960596 Y77.757480 Z-0.125000
G01 X81.843992 Y75.348902 Z-0.125000
G01 X92.726709 Y70.916363 Z-0.125000
G01 X99.645033 Y68.443801 Z-0.125000
G01 X104.754634 Y66.992411 Z-0.125000
G01 X109.424405 Y66.027741 Z-0.125000
G01 X115.127153 Y65.431757 Z-0.125000
G01 X117.917057 Y65.455235 Z-0.125000
G01 X120.344727 Y65.714591 Z-0.125000
G01 X123.784732 Y66.618630 Z-0.125000
G01 X128.634460 Y68.736246 Z-0.125000
G01 X133.663693 Y70.070504 Z-0.125000
G01 X137.544495 Y72.439478 Z-0.125000
G01 X144.277573 Y77.806694 Z-0.125000
G01 X149.477216 Y82.654551 Z-0.125000
G01 X152.786415 Y86.561346 Z-0.125000
G01 X154.080295 Y88.556024 Z-0.125000
G01 X155.152744 Y90.715824 Z-0.125000
G01 X156.978560 Y96.352909 Z-0.125000
G01 X157.336796 Y98.477749 Z-0.125000
G01 X157.465861 Y103.518657 Z-0.125000
G01 X157.855638 Y106.701692 Z-0.125000
G01 X158.674085 Y109.730184 Z-0.125000
G01 X160.039044 Y112.854137 Z-0.125000
G01 X161.926393 Y115.877920 Z-0.125000
G01 X164.201068 Y118.628415 Z-0.125000
G01 X167.457569 Y121.684836 Z-0.125000
G01 X174.065645 Y126.917955 Z-0.125000
G01 X175.387583 Y128.348318 Z-0.125000
G01 X175.895267 Y129.536546 Z-0.125000
G01 X175.850052 Y130.383180 Z-0.125000
G01 X175.356300 Y131.597337 Z-0.125000
G01 X169.353497 Y140.553941 Z-0.125000
G01 X167.593149 Y143.961760 Z-0.125000
G01 X166.405437 Y146.940135 Z-0.125000
G01 X165.551773 Y149.933346 Z-0.125000
G01 X164.986555 Y153.419146 Z-0.125000
G01 X164.746742 Y165.773636 Z-0.125000
G01 X164.418693 Y169.157268 Z-0.125000
G01 X163.896948 Y171.942593 Z-0.125000
G01 X162.883065 Y175.088541 Z-0.125000
G01 X161.664199 Y177.441519 Z-0.125000
G01 X160.104641 Y179.491603 Z-0.125000
G01 X158.250316 Y181.223312 Z-0.125000
G01 X154.454139 Y183.610476 Z-0.125000
G01 X145.276105 Y187.491793 Z-0.125000
G01 X138.789290 Y190.964307 Z-0.125000
G01 X134.917261 Y192.174014 Z-0.125000
G01 X125.472001 Y194.428242 Z-0.125000
G01 X121.755288 Y195.761918 Z-0.125000
G01 X119.014856 Y197.264264 Z-0.125000
G01 X113.190074 Y201.337600 Z-0.125000
G01 X111.403410 Y202.238736 Z-0.125000
G01 X109.391639 Y202.952886 Z-0.125000
G01 X107.132703 Y203.437929 Z-0.125000
G01 X104.632857 Y203.673034 Z-0.125000
G01 X99.079041 Y203.447282 Z-0.125000
G01 X93.292508 Y202.520539 Z-0.125000
G01 X90.433459 Y201.657651 Z-0.125000
G01 X88.203225 Y200.732198 Z-0.125000
G01 X85.027156 Y198.995586 Z-0.125000
G01 X81.696672 Y196.617969 Z-0.125000
G01 X73.013938 Y188.655640 Z-0.125000
G01 X71.199926 Y187.691229 Z-0.125000
G01 X67.338474 Y186.278926 Z-0.125000
G01 X65.880440 Y185.254529 Z-0.125000
G01 X64.500323 Y183.596995 Z-0.125000
G01 X59.362665 Y176.377906 Z-0.125000
G01 X55.873188 Y171.966652 Z-0.125000
G01 X42.793454 Y157.404052 Z-0.125000
G01 X40.764913 Y154.392459 Z-0.125000
G01 X39.945434 Y152.363402 Z-0.125000
G01 X39.938984 Y150.560936 Z-0.125000
G01 X41.136759 Y143.839919 Z-0.125000
G01 X41.107217 Y139.012121 Z-0.125000
G01 X40.679773 Y135.897069 Z-0.125000
G01 X39.842427 Y132.318388 Z-0.125000
G01 X36.889530 Y123.852504 Z-0.125000
G01 X36.208598 Y121.222303 Z-0.125000
G01 X36.021417 Y117.532358 Z-0.125000
G01 X36.290836 Y115.674937 Z-0.125000
G01 X36.801422 Y113.866021 Z-0.125000
G01 X38.470888 Y110.555210 Z-0.125000
G01 X39.572750 Y109.112914 Z-0.125000
G01 X41.131986 Y107.536974 Z-0.125000
G01 X43.875966 Y105.506304 Z-0.125000
G01 X48.986856 Y102.616682 Z-0.125000
G01 X51.080285 Y101.231018 Z-0.125000
G01 X53.259757 Y99.379337 Z-0.125000
G01 X57.451128 Y95.273106 Z-0.125000
G01 X58.703599 Y93.673107 Z-0.125000
G01 X59.939364 Y91.625281 Z-0.125000
G01 X63.258753 Y84.099620 Z-0.125000
G01 X64.635839 Y82.173635 Z-0.125000
G01 X66.435080 Y80.400839 Z-0.125000
G01 X69.324058 Y78.463696 Z-0.125000
G01 X72.410922 Y77.117957 Z-0.125000
G01 X81.762721 Y74.875146 Z-0.125000
G01 X92.791984 Y70.483629 Z-0.125000
G01 X98.621217 Y68.375430 Z-0.125000
G01 X104.371823 Y66.674101 Z-0.125000
G01 X109.776772 Y65.543407 Z-0.125000
G01 X115.530926 Y64.973287 Z-0.125000
G01 X118.329022 Y65.021985 Z-0.125000
G01 X120.750951 Y65.310947 Z-0.125000
G01 X123.832721 Y66.143004 Z-0.125000
G01 X128.943289 Y68.413099 Z-0.125000
G01 X132.368781 Y69.190459 Z-0.125000
G01 X133.953236 Y69.750452 Z-0.125000
G01 X137.805399 Y72.196053 Z-0.125000
G01 X145.114209 Y78.092173 Z-0.125000
G01 X149.925882 Y82.568765 Z-0.125000
G01 X153.312674 Y86.504199 Z-0.125000
G01 X154.632290 Y88.502424 Z-0.125000
G01 X155.718865 Y90.652613 Z-0.125000
G01 X157.733216 Y96.613362 Z-0.125000
G01 X158.080164 Y98.490391 Z-0.125000
G01 X158.257540 Y103.632307 Z-0.125000
G01 X158.624290 Y106.408086 Z-0.125000
G01 X159.644366 Y109.986896 Z-0.125000
G01 X161.120847 Y113.131166 Z-0.125000
G01 X163.111203 Y116.133020 Z-0.125000
G01 X165.461085 Y118.825206 Z-0.125000
G01 X168.351095 Y121.449022 Z-0.125000
G01 X175.033088 Y126.685430 Z-0.125000
G01 X176.374570 Y128.140110 Z-0.125000
G01 X176.897024 Y129.368135 Z-0.125000
G01 X176.856324 Y130.253598 Z-0.125000
G01 X176.358251 Y131.530708 Z-0.125000
G01 X170.187940 Y140.859028 Z-0.125000
G01 X168.366833 Y144.346441 Z-0.125000
G01 X167.138808 Y147.368677 Z-0.125000
G01 X166.259021 Y150.383043 Z-0.125000
G01 X165.681742 Y153.867489 Z-0.125000
G01 X165.432641 Y166.236363 Z-0.125000
G01 X164.685789 Y171.896862 Z-0.125000
G01 X163.719314 Y175.099570 Z-0.125000
G01 X162.542954 Y177.504729 Z-0.125000
G01 X161.015324 Y179.600931 Z-0.125000
G01 X159.172609 Y181.365987 Z-0.125000
G01 X157.523396 Y182.548539 Z-0.125000
G01 X155.333281 Y183.774307 Z-0.125000
G01 X145.858158 Y187.613828 Z-0.125000
G01 X139.323677 Y191.281714 Z-0.125000
G01 X135.467901 Y192.544698 Z-0.125000
G01 X125.855392 Y194.939344 Z-0.125000
G01 X122.444992 Y196.170787 Z-0.125000
G01 X119.273438 Y197.928555 Z-0.125000
G01 X113.352550 Y202.203003 Z-0.125000
G01 X111.527122 Y203.146839 Z-0.125000
G01 X109.470588 Y203.895238 Z-0.125000
G01 X107.164114 Y204.405114 Z-0.125000
G01 X104.618151 Y204.655247 Z-0.125000
G01 X98.988741 Y204.437171 Z-0.125000
G01 X93.144737 Y203.504107 Z-0.125000
G01 X90.259694 Y202.630964 Z-0.125000
G01 X88.011336 Y201.693513 Z-0.125000
G01 X84.812369 Y199.930973 Z-0.125000
G01 X81.459375 Y197.509301 Z-0.125000
G01 X72.789347 Y189.466347 Z-0.125000
G01 X71.085502 Y188.530638 Z-0.125000
G01 X66.829372 Y186.927994 Z-0.125000
G01 X65.333089 Y185.861930 Z-0.125000
G01 X63.992962 Y184.199301 Z-0.125000
G01 X59.142847 Y177.026910 Z-0.125000
G01 X55.307841 Y172.032120 Z-0.125000
G01 X51.410076 Y167.481739 Z-0.125000
G01 X42.038734 Y157.292724 Z-0.125000
G01 X40.173186 Y154.458765 Z-0.125000
G01 X39.516183 Y152.719380 Z-0.125000
G01 X39.540952 Y150.935877 Z-0.125000
G01 X40.795164 Y144.572258 Z-0.125000
G01 X40.876306 Y139.726851 Z-0.125000
G01 X40.504396 Y136.564263 Z-0.125000
G01 X39.707492 Y132.904827 Z-0.125000
G01 X36.590763 Y123.844957 Z-0.125000
G01 X35.916217 Y121.177088 Z-0.125000
G01 X35.749870 Y117.424062 Z-0.125000
G01 X36.030254 Y115.535358 Z-0.125000
G01 X36.548773 Y113.699158 Z-0.125000
G01 X38.215918 Y110.355000 Z-0.125000
G01 X39.303912 Y108.909157 Z-0.125000
G01 X40.831929 Y107.341279 Z-0.125000
G01 X43.494768 Y105.345634 Z-0.125000
G01 X50.114777 Y101.372790 Z-0.125000
G01 X54.469850 Y97.497084 Z-0.125000
G01 X56.487878 Y95.447709 Z-0.125000
G01 X58.036857 Y93.453999 Z-0.125000
G01 X59.109565 Y91.664755 Z-0.125000
G01 X61.706677 Y85.469482 Z-0.125000
G01 X62.762873 Y83.423978 Z-0.125000
G01 X64.201299 Y81.451488 Z-0.125000
G01 X66.075167 Y79.636250 Z-0.125000
G01 X69.071925 Y77.671565 Z-0.125000
G01 X72.252961 Y76.347563 Z-0.125000
G01 X74.531699 Y75.743323 Z-0.125000
G01 X79.809323 Y74.858569 Z-0.125000
G01 X82.043750 Y74.297092 Z-0.125000
G01 X93.451824 Y69.813985 Z-0.125000
G01 X99.428763 Y67.688823 Z-0.125000
G01 X104.645563 Y66.173706 Z-0.125000
G01 X110.112819 Y65.046173 Z-0.125000
G01 X115.902320 Y64.508625 Z-0.125000
G01 X120.660393 Y64.827967 Z-0.125000
G01 X124.155481 Y65.795410 Z-0.125000
G01 X128.978893 Y68.033384 Z-0.125000
G01 X133.943883 Y69.342228 Z-0.125000
G01 X135.647922 Y70.286709 Z-0.125000
G01 X138.040504 Y71.992360 Z-0.125000
G01 X145.956263 Y78.421061 Z-0.125000
G01 X150.815150 Y82.952995 Z-0.125000
G01 X154.148149 Y86.868046 Z-0.125000
G01 X156.300789 Y90.587855 Z-0.125000
G01 X158.523154 Y96.848144 Z-0.125000
G01 X158.860427 Y98.769485 Z-0.125000
G01 X159.065474 Y103.782399 Z-0.125000
G01 X159.508592 Y106.636547 Z-0.125000
G01 X160.440818 Y109.746438 Z-0.125000
G01 X161.936971 Y112.909994 Z-0.125000
G01 X163.584830 Y115.436027 Z-0.125000
G01 X165.914395 Y118.184458 Z-0.125000
G01 X168.832139 Y120.874645 Z-0.125000
G01 X175.987115 Y126.444586 Z-0.125000
G01 X177.347560 Y127.924679 Z-0.125000
G01 X177.887042 Y129.194693 Z-0.125000
G01 X177.794032 Y130.370860 Z-0.125000
G01 X177.197467 Y131.765941 Z-0.125000
G01 X170.699880 Y141.761197 Z-0.125000
G01 X168.870969 Y145.361873 Z-0.125000
G01 X167.669131 Y148.430162 Z-0.125000
G01 X166.838300 Y151.446979 Z-0.125000
G01 X166.381443 Y154.333054 Z-0.125000
G01 X166.113637 Y166.709990 Z-0.125000
G01 X165.348209 Y172.398612 Z-0.125000
G01 X164.548145 Y175.088928 Z-0.125000
G01 X163.412678 Y177.541624 Z-0.125000
G01 X161.920524 Y179.683750 Z-0.125000
G01 X160.096127 Y181.484539 Z-0.125000
G01 X158.010955 Y182.954828 Z-0.125000
G01 X155.772530 Y184.137316 Z-0.125000
G01 X145.916015 Y187.980127 Z-0.125000
G01 X141.504955 Y190.760872 Z-0.125000
G01 X139.554459 Y191.724768 Z-0.125000
G01 X135.555493 Y193.057154 Z-0.125000
G01 X126.216208 Y195.477794 Z-0.125000
G01 X122.740598 Y196.770900 Z-0.125000
G01 X119.523958 Y198.610841 Z-0.125000
G01 X113.517930 Y203.066987 Z-0.125000
G01 X111.653801 Y204.048685 Z-0.125000
G01 X109.551794 Y204.827399 Z-0.125000
G01 X107.196752 Y205.359077 Z-0.125000
G01 X104.603638 Y205.622690 Z-0.125000
G01 X98.898375 Y205.412741 Z-0.125000
G01 X92.997354 Y204.477677 Z-0.125000
G01 X90.087414 Y203.598794 Z-0.125000
G01 X87.822220 Y202.653990 Z-0.125000
G01 X84.603194 Y200.873390 Z-0.125000
G01 X81.231237 Y198.416501 Z-0.125000
G01 X78.364383 Y195.850994 Z-0.125000
G01 X73.904045 Y191.403233 Z-0.125000
G01 X72.386477 Y190.164243 Z-0.125000
G01 X70.793185 Y189.294776 Z-0.125000
G01 X66.339942 Y187.602670 Z-0.125000
G01 X64.787092 Y186.485715 Z-0.125000
G01 X63.642596 Y185.063607 Z-0.125000
G01 X59.585579 Y178.697086 Z-0.125000
G01 X56.100165 Y173.829555 Z-0.125000
G01 X50.877495 Y167.530824 Z-0.125000
G01 X41.772024 Y157.787572 Z-0.125000
G01 X39.854424 Y154.997473 Z-0.125000
G01 X39.098543 Y153.082454 Z-0.125000
G01 X39.148982 Y151.317462 Z-0.125000
G01 X40.487884 Y144.883860 Z-0.125000
G01 X40.596760 Y139.955312 Z-0.125000
G01 X40.228914 Y136.739446 Z-0.125000
G01 X39.426786 Y133.024604 Z-0.125000
G01 X36.287288 Y123.867791 Z-0.125000
G01 X35.621643 Y121.158576 Z-0.125000
G01 X35.480065 Y117.335438 Z-0.125000
G01 X36.301350 Y113.543260 Z-0.125000
G01 X37.967655 Y110.156726 Z-0.125000
G01 X39.041460 Y108.703207 Z-0.125000
G01 X40.536646 Y107.138554 Z-0.125000
G01 X42.786294 Y105.386785 Z-0.125000
G01 X49.415591 Y101.285843 Z-0.125000
G01 X53.722935 Y97.415426 Z-0.125000
G01 X55.768503 Y95.302777 Z-0.125000
G01 X57.098697 Y93.582161 Z-0.125000
G01 X58.437599 Y91.341994 Z-0.125000
G01 X62.045305 Y83.085350 Z-0.125000
G01 X63.477990 Y81.056229 Z-0.125000
G01 X65.362243 Y79.166042 Z-0.125000
G01 X68.422018 Y77.097317 Z-0.125000
G01 X71.708577 Y75.707976 Z-0.125000
G01 X74.447203 Y75.025432 Z-0.125000
G01 X79.783265 Y74.319474 Z-0.125000
G01 X82.024206 Y73.818821 Z-0.125000
G01 X93.557863 Y69.342615 Z-0.125000
G01 X99.632004 Y67.184687 Z-0.125000
G01 X104.914724 Y65.655315 Z-0.125000
G01 X110.431516 Y64.534555 Z-0.125000
G01 X116.240496 Y64.036030 Z-0.125000
G01 X120.975929 Y64.419357 Z-0.125000
G01 X124.098592 Y65.319848 Z-0.125000
G01 X129.200323 Y67.746938 Z-0.125000
G01 X133.913697 Y68.967287 Z-0.125000
G01 X135.563491 Y69.875325 Z-0.125000
G01 X137.873125 Y71.535052 Z-0.125000
G01 X146.805606 Y78.784199 Z-0.125000
G01 X151.265815 Y82.897073 Z-0.125000
G01 X154.692146 Y86.820122 Z-0.125000
G01 X156.897741 Y90.517420 Z-0.125000
G01 X159.274133 Y96.853433 Z-0.125000
G01 X159.596119 Y98.515805 Z-0.125000
G01 X159.893983 Y103.974675 Z-0.125000
G01 X160.303045 Y106.397056 Z-0.125000
G01 X161.251912 Y109.530361 Z-0.125000
G01 X162.767222 Y112.709204 Z-0.125000
G01 X164.431915 Y115.237172 Z-0.125000
G01 X166.781282 Y117.974831 Z-0.125000
G01 X169.720053 Y120.641089 Z-0.125000
G01 X176.923534 Y126.198323 Z-0.125000
G01 X178.302361 Y127.704796 Z-0.125000
G01 X178.861129 Y129.018736 Z-0.125000
G01 X178.780052 Y130.250438 Z-0.125000
G01 X178.185873 Y131.718533 Z-0.125000
G01 X171.542321 Y142.117175 Z-0.125000
G01 X169.654198 Y145.795961 Z-0.125000
G01 X168.412499 Y148.903273 Z-0.125000
G01 X167.555030 Y151.934345 Z-0.125000
G01 X167.084692 Y154.813969 Z-0.125000
G01 X166.788054 Y167.194647 Z-0.125000
G01 X166.521345 Y170.066919 Z-0.125000
G01 X166.007792 Y172.900039 Z-0.125000
G01 X165.182701 Y175.583453 Z-0.125000
G01 X164.013952 Y178.020024 Z-0.125000
G01 X162.487225 Y180.137704 Z-0.125000
G01 X160.623677 Y181.905212 Z-0.125000
G01 X158.494451 Y183.335575 Z-0.125000
G01 X156.209585 Y184.475879 Z-0.125000
G01 X146.236776 Y188.221100 Z-0.125000
G01 X141.958071 Y191.068153 Z-0.125000
G01 X139.749186 Y192.189236 Z-0.125000
G01 X135.589033 Y193.607344 Z-0.125000
G01 X126.552707 Y196.044237 Z-0.125000
G01 X123.018724 Y197.395523 Z-0.125000
G01 X120.096207 Y199.078534 Z-0.125000
G01 X113.686082 Y203.926650 Z-0.125000
G01 X111.783382 Y204.941049 Z-0.125000
G01 X109.635129 Y205.745693 Z-0.125000
G01 X107.230485 Y206.296076 Z-0.125000
G01 X104.589319 Y206.571299 Z-0.125000
G01 X98.808010 Y206.369735 Z-0.125000
G01 X92.850421 Y205.437380 Z-0.125000
G01 X89.916745 Y204.557594 Z-0.125000
G01 X87.636137 Y203.610404 Z-0.125000
G01 X84.399953 Y201.820192 Z-0.125000
G01 X81.013096 Y199.337762 Z-0.125000
G01 X72.207036 Y191.031516 Z-0.125000
G01 X70.517510 Y190.072136 Z-0.125000
G01 X66.075683 Y188.402347 Z-0.125000
G01 X64.248513 Y187.128397 Z-0.125000
G01 X62.934122 Y185.427519 Z-0.125000
G01 X58.276734 Y177.815686 Z-0.125000
G01 X55.088023 Y173.334966 Z-0.125000
G01 X49.867546 Y167.041974 Z-0.125000
G01 X41.062067 Y157.721201 Z-0.125000
G01 X39.301913 Y155.097643 Z-0.125000
G01 X38.691416 Y153.451396 Z-0.125000
G01 X38.761528 Y151.704078 Z-0.125000
G01 X40.173573 Y145.209910 Z-0.125000
G01 X40.307218 Y140.206799 Z-0.125000
G01 X39.942725 Y136.942042 Z-0.125000
G01 X39.135308 Y133.175342 Z-0.125000
G01 X35.976203 Y123.919843 Z-0.125000
G01 X35.321780 Y121.165736 Z-0.125000
G01 X35.208905 Y117.265648 Z-0.125000
G01 X36.056377 Y113.397489 Z-0.125000
G01 X37.724102 Y109.959612 Z-0.125000
G01 X39.943757 Y107.217825 Z-0.125000
G01 X42.417480 Y105.194767 Z-0.125000
G01 X48.699378 Y101.178966 Z-0.125000
G01 X52.955701 Y97.319127 Z-0.125000
G01 X55.025522 Y95.140751 Z-0.125000
G01 X56.375969 Y93.347251 Z-0.125000
G01 X57.741767 Y91.003367 Z-0.125000
G01 X60.388610 Y84.607175 Z-0.125000
G01 X61.513434 Y82.405902 Z-0.125000
G01 X63.018682 Y80.337435 Z-0.125000
G01 X64.988527 Y78.414804 Z-0.125000
G01 X67.753535 Y76.544225 Z-0.125000
G01 X71.152647 Y75.076839 Z-0.125000
G01 X74.383348 Y74.314120 Z-0.125000
G01 X79.784555 Y73.778637 Z-0.125000
G01 X82.371283 Y73.239994 Z-0.125000
G01 X99.838793 Y66.660749 Z-0.125000
G01 X105.178144 Y65.118349 Z-0.125000
G01 X110.732218 Y64.007715 Z-0.125000
G01 X116.545196 Y63.554018 Z-0.125000
G01 X121.244574 Y64.008037 Z-0.125000
G01 X124.318990 Y64.974126 Z-0.125000
G01 X129.144917 Y67.391088 Z-0.125000
G01 X133.859968 Y68.619823 Z-0.125000
G01 X135.462161 Y69.495224 Z-0.125000
G01 X137.337900 Y70.839866 Z-0.125000
G01 X147.129592 Y78.717957 Z-0.125000
G01 X151.711514 Y82.846182 Z-0.125000
G01 X155.240530 Y86.768587 Z-0.125000
G01 X157.508819 Y90.437052 Z-0.125000
G01 X160.037883 Y96.852788 Z-0.125000
G01 X160.355290 Y98.546829 Z-0.125000
G01 X160.685017 Y103.744280 Z-0.125000
G01 X161.109624 Y106.185882 Z-0.125000
G01 X162.076938 Y109.340730 Z-0.125000
G01 X163.610372 Y112.530731 Z-0.125000
G01 X165.288869 Y115.056248 Z-0.125000
G01 X167.652103 Y117.776879 Z-0.125000
G01 X170.603323 Y120.412176 Z-0.125000
G01 X177.596854 Y125.728114 Z-0.125000
G01 X179.234845 Y127.483366 Z-0.125000
G01 X179.815285 Y128.842779 Z-0.125000
G01 X179.750075 Y130.132208 Z-0.125000
G01 X178.986002 Y132.022718 Z-0.125000
G01 X172.391471 Y142.489214 Z-0.125000
G01 X170.444781 Y146.246691 Z-0.125000
G01 X169.162382 Y149.392444 Z-0.125000
G01 X168.276661 Y152.436417 Z-0.125000
G01 X167.790456 Y155.308043 Z-0.125000
G01 X167.454538 Y167.689624 Z-0.125000
G01 X167.185442 Y170.569958 Z-0.125000
G01 X166.662665 Y173.401530 Z-0.125000
G01 X165.816354 Y176.071528 Z-0.125000
G01 X164.612904 Y178.483976 Z-0.125000
G01 X163.391006 Y180.182016 Z-0.125000
G01 X161.552677 Y181.984483 Z-0.125000
G01 X159.426999 Y183.439291 Z-0.125000
G01 X157.118913 Y184.591270 Z-0.125000
G01 X146.815861 Y188.333396 Z-0.125000
G01 X145.228117 Y189.251431 Z-0.125000
G01 X142.190659 Y191.507207 Z-0.125000
G01 X139.897602 Y192.682729 Z-0.125000
G01 X136.028991 Y194.058396 Z-0.125000
G01 X126.863599 Y196.638867 Z-0.125000
G01 X123.278532 Y198.044398 Z-0.125000
G01 X120.330730 Y199.786621 Z-0.125000
G01 X113.856751 Y204.779282 Z-0.125000
G01 X111.915673 Y205.820642 Z-0.125000
G01 X109.720527 Y206.646507 Z-0.125000
G01 X107.265122 Y207.212241 Z-0.125000
G01 X104.575129 Y207.497139 Z-0.125000
G01 X98.717516 Y207.304283 Z-0.125000
G01 X92.704070 Y206.379475 Z-0.125000
G01 X89.747818 Y205.503945 Z-0.125000
G01 X87.453407 Y204.559658 Z-0.125000
G01 X84.203226 Y202.768737 Z-0.125000
G01 X81.261488 Y200.644671 Z-0.125000
G01 X78.289756 Y198.001892 Z-0.125000
G01 X73.526846 Y193.189251 Z-0.125000
G01 X71.834095 Y191.776046 Z-0.125000
G01 X70.044786 Y190.774998 Z-0.125000
G01 X65.646626 Y189.134363 Z-0.125000
G01 X63.723028 Y187.792108 Z-0.125000
G01 X62.225197 Y185.787432 Z-0.125000
G01 X57.655853 Y177.951782 Z-0.125000
G01 X54.521773 Y173.420171 Z-0.125000
G01 X49.361282 Y167.112280 Z-0.125000
G01 X40.603404 Y157.954821 Z-0.125000
G01 X39.003211 Y155.638028 Z-0.125000
G01 X38.293770 Y153.825112 Z-0.125000
G01 X38.377234 Y152.093919 Z-0.125000
G01 X39.407178 Y148.088889 Z-0.125000
G01 X39.850554 Y145.548473 Z-0.125000
G01 X40.006129 Y140.479185 Z-0.125000
G01 X39.644088 Y137.169922 Z-0.125000
G01 X38.831124 Y133.354782 Z-0.125000
G01 X35.654797 Y123.999372 Z-0.125000
G01 X35.013855 Y121.197276 Z-0.125000
G01 X34.933423 Y117.213468 Z-0.125000
G01 X35.811275 Y113.260812 Z-0.125000
G01 X37.483321 Y109.762692 Z-0.125000
G01 X39.663309 Y106.998588 Z-0.125000
G01 X42.048602 Y104.988494 Z-0.125000
G01 X47.731612 Y101.249271 Z-0.125000
G01 X52.170408 Y97.205477 Z-0.125000
G01 X54.262030 Y94.959441 Z-0.125000
G01 X55.632536 Y93.093248 Z-0.125000
G01 X57.025683 Y90.647647 Z-0.125000
G01 X59.608283 Y84.384455 Z-0.125000
G01 X60.748329 Y82.088624 Z-0.125000
G01 X62.256415 Y79.959333 Z-0.125000
G01 X64.238838 Y77.978910 Z-0.125000
G01 X67.495017 Y75.778411 Z-0.125000
G01 X71.017002 Y74.321087 Z-0.125000
G01 X74.337810 Y73.611452 Z-0.125000
G01 X79.810613 Y73.236382 Z-0.125000
G01 X82.405404 Y72.752370 Z-0.125000
G01 X100.047839 Y66.116945 Z-0.125000
G01 X105.435243 Y64.562741 Z-0.125000
G01 X111.014988 Y63.465330 Z-0.125000
G01 X116.220436 Y63.058525 Z-0.125000
G01 X118.515686 Y63.141860 Z-0.125000
G01 X121.017854 Y63.493194 Z-0.125000
G01 X124.160706 Y64.481922 Z-0.125000
G01 X129.041652 Y67.036013 Z-0.125000
G01 X133.779988 Y68.293837 Z-0.125000
G01 X136.823508 Y70.198731 Z-0.125000
G01 X148.534284 Y79.574846 Z-0.125000
G01 X153.079247 Y83.699782 Z-0.125000
G01 X156.105933 Y87.111084 Z-0.125000
G01 X158.133119 Y90.342624 Z-0.125000
G01 X160.735198 Y96.640388 Z-0.125000
G01 X161.056217 Y98.050304 Z-0.125000
G01 X161.428643 Y103.082698 Z-0.125000
G01 X161.927812 Y106.004571 Z-0.125000
G01 X162.915122 Y109.178963 Z-0.125000
G01 X164.465198 Y112.376382 Z-0.125000
G01 X166.154014 Y114.895191 Z-0.125000
G01 X168.524537 Y117.593053 Z-0.125000
G01 X171.478982 Y120.190553 Z-0.125000
G01 X178.485220 Y125.477143 Z-0.125000
G01 X180.141141 Y127.263226 Z-0.125000
G01 X180.745833 Y128.669337 Z-0.125000
G01 X180.700618 Y130.018042 Z-0.125000
G01 X179.950607 Y132.003819 Z-0.125000
G01 X172.889027 Y143.507806 Z-0.125000
G01 X170.946788 Y147.353842 Z-0.125000
G01 X169.700445 Y150.519204 Z-0.125000
G01 X168.869872 Y153.539375 Z-0.125000
G01 X168.439589 Y156.360756 Z-0.125000
G01 X168.111540 Y168.193566 Z-0.125000
G01 X167.441573 Y173.348188 Z-0.125000
G01 X166.648862 Y176.042503 Z-0.125000
G01 X165.488885 Y178.484040 Z-0.125000
G01 X164.293755 Y180.208010 Z-0.125000
G01 X162.483871 Y182.043565 Z-0.125000
G01 X160.368835 Y183.524239 Z-0.125000
G01 X158.045334 Y184.690988 Z-0.125000
G01 X149.613506 Y187.545587 Z-0.125000
G01 X147.141976 Y188.572951 Z-0.125000
G01 X145.569776 Y189.518206 Z-0.125000
G01 X142.392997 Y191.963355 Z-0.125000
G01 X139.655403 Y193.355340 Z-0.125000
G01 X135.480350 Y194.834788 Z-0.125000
G01 X127.148046 Y197.261555 Z-0.125000
G01 X123.519506 Y198.716880 Z-0.125000
G01 X120.554547 Y200.510897 Z-0.125000
G01 X114.396684 Y205.388554 Z-0.125000
G01 X112.050479 Y206.684369 Z-0.125000
G01 X109.807796 Y207.526616 Z-0.125000
G01 X107.300662 Y208.104025 Z-0.125000
G01 X104.560874 Y208.396534 Z-0.125000
G01 X101.645194 Y208.416014 Z-0.125000
G01 X98.018395 Y208.152658 Z-0.125000
G01 X91.957025 Y207.153481 Z-0.125000
G01 X88.996388 Y206.220739 Z-0.125000
G01 X86.712296 Y205.231366 Z-0.125000
G01 X83.498623 Y203.381362 Z-0.125000
G01 X80.609710 Y201.214146 Z-0.125000
G01 X78.085934 Y198.924442 Z-0.125000
G01 X73.244333 Y194.009375 Z-0.125000
G01 X71.474891 Y192.543601 Z-0.125000
G01 X69.578190 Y191.493340 Z-0.125000
G01 X65.019681 Y189.777046 Z-0.125000
G01 X63.036807 Y188.292890 Z-0.125000
G01 X61.685779 Y186.430115 Z-0.125000
G01 X57.034455 Y178.090652 Z-0.125000
G01 X53.526724 Y172.923710 Z-0.125000
G01 X48.389840 Y166.663872 Z-0.125000
G01 X39.953303 Y157.953209 Z-0.125000
G01 X38.485659 Y155.768835 Z-0.125000
G01 X37.904574 Y154.202247 Z-0.125000
G01 X37.994939 Y152.485437 Z-0.125000
G01 X39.056488 Y148.462154 Z-0.125000
G01 X39.517602 Y145.897485 Z-0.125000
G01 X39.692334 Y140.770147 Z-0.125000
G01 X39.332099 Y137.420378 Z-0.125000
G01 X38.513201 Y133.560152 Z-0.125000
G01 X35.463101 Y124.559236 Z-0.125000
G01 X34.768366 Y121.741790 Z-0.125000
G01 X34.564222 Y119.748208 Z-0.125000
G01 X34.602922 Y117.694512 Z-0.125000
G01 X34.887370 Y115.631915 Z-0.125000
G01 X35.563722 Y113.132198 Z-0.125000
G01 X37.243508 Y109.565192 Z-0.125000
G01 X39.384989 Y106.770901 Z-0.125000
G01 X41.679659 Y104.767258 Z-0.125000
G01 X47.003015 Y101.097824 Z-0.125000
G01 X51.370021 Y97.071961 Z-0.125000
G01 X53.481832 Y94.756522 Z-0.125000
G01 X54.872269 Y92.818411 Z-0.125000
G01 X56.076751 Y90.708793 Z-0.125000
G01 X59.959423 Y81.791599 Z-0.125000
G01 X61.473379 Y79.593099 Z-0.125000
G01 X63.466316 Y77.565784 Z-0.125000
G01 X66.790800 Y75.264600 Z-0.125000
G01 X70.440110 Y73.713685 Z-0.125000
G01 X73.905012 Y72.965931 Z-0.125000
G01 X79.859118 Y72.693545 Z-0.125000
G01 X82.462229 Y72.256877 Z-0.125000
G01 X100.257917 Y65.553985 Z-0.125000
G01 X105.685634 Y63.989332 Z-0.125000
G01 X111.280407 Y62.907852 Z-0.125000
G01 X116.465925 Y62.547810 Z-0.125000
G01 X118.738600 Y62.664234 Z-0.125000
G01 X121.204454 Y63.062137 Z-0.125000
G01 X124.284740 Y64.125815 Z-0.125000
G01 X129.125825 Y66.770980 Z-0.125000
G01 X133.671240 Y67.982751 Z-0.125000
G01 X136.328338 Y69.605713 Z-0.125000
G01 X149.417295 Y79.982360 Z-0.125000
G01 X153.542812 Y83.640377 Z-0.125000
G01 X156.671151 Y87.034329 Z-0.125000
G01 X158.769416 Y90.230070 Z-0.125000
G01 X161.502690 Y96.648451 Z-0.125000
G01 X161.854862 Y98.400026 Z-0.125000
G01 X162.292176 Y103.373466 Z-0.125000
G01 X162.756837 Y105.853833 Z-0.125000
G01 X163.765238 Y109.046027 Z-0.125000
G01 X165.330149 Y112.247381 Z-0.125000
G01 X167.025351 Y114.755676 Z-0.125000
G01 X169.396390 Y117.425481 Z-0.125000
G01 X172.344256 Y119.979120 Z-0.125000
G01 X179.096684 Y125.003322 Z-0.125000
G01 X180.852195 Y126.817592 Z-0.125000
G01 X181.649227 Y128.500926 Z-0.125000
G01 X181.559959 Y130.224057 Z-0.125000
G01 X180.705133 Y132.389984 Z-0.125000
G01 X173.378070 Y144.572838 Z-0.125000
G01 X171.738596 Y147.840046 Z-0.125000
G01 X170.452456 Y151.036304 Z-0.125000
G01 X169.593052 Y154.061571 Z-0.125000
G01 X169.143483 Y156.869600 Z-0.125000
G01 X168.757641 Y168.704604 Z-0.125000
G01 X168.082837 Y173.851550 Z-0.125000
G01 X167.278129 Y176.524515 Z-0.125000
G01 X166.094222 Y178.932319 Z-0.125000
G01 X164.870003 Y180.622619 Z-0.125000
G01 X163.021612 Y182.414701 Z-0.125000
G01 X160.868263 Y183.852417 Z-0.125000
G01 X158.505093 Y184.979047 Z-0.125000
G01 X150.323979 Y187.638661 Z-0.125000
G01 X147.739895 Y188.679893 Z-0.125000
G01 X145.911113 Y189.790140 Z-0.125000
G01 X142.770841 Y192.302950 Z-0.125000
G01 X139.672044 Y193.935006 Z-0.125000
G01 X135.829620 Y195.356533 Z-0.125000
G01 X127.405339 Y197.911720 Z-0.125000
G01 X124.159609 Y199.206697 Z-0.125000
G01 X120.767399 Y201.250072 Z-0.125000
G01 X114.577802 Y206.215708 Z-0.125000
G01 X112.187671 Y207.529519 Z-0.125000
G01 X109.896807 Y208.382796 Z-0.125000
G01 X107.336976 Y208.968138 Z-0.125000
G01 X104.546684 Y209.266130 Z-0.125000
G01 X98.536398 Y209.091334 Z-0.125000
G01 X94.854000 Y208.657503 Z-0.125000
G01 X91.807384 Y208.052424 Z-0.125000
G01 X88.828364 Y207.135550 Z-0.125000
G01 X86.535177 Y206.160238 Z-0.125000
G01 X83.315700 Y204.327133 Z-0.125000
G01 X80.425755 Y202.164625 Z-0.125000
G01 X77.897916 Y199.862473 Z-0.125000
G01 X73.260330 Y195.119622 Z-0.125000
G01 X71.386977 Y193.516398 Z-0.125000
G01 X69.371530 Y192.338877 Z-0.125000
G01 X64.629840 Y190.543505 Z-0.125000
G01 X62.541830 Y188.994719 Z-0.125000
G01 X60.981240 Y186.798671 Z-0.125000
G01 X56.413186 Y178.234359 Z-0.125000
G01 X52.976148 Y173.024718 Z-0.125000
G01 X50.270674 Y169.514730 Z-0.125000
G01 X47.444069 Y166.249392 Z-0.125000
G01 X39.339259 Y157.990813 Z-0.125000
G01 X38.095624 Y156.115396 Z-0.125000
G01 X37.522602 Y154.581768 Z-0.125000
G01 X37.613612 Y152.877019 Z-0.125000
G01 X38.697866 Y148.839611 Z-0.125000
G01 X39.174073 Y146.254947 Z-0.125000
G01 X39.365639 Y141.076911 Z-0.125000
G01 X39.006630 Y137.690312 Z-0.125000
G01 X38.321054 Y134.331707 Z-0.125000
G01 X37.246217 Y130.676979 Z-0.125000
G01 X35.115121 Y124.693720 Z-0.125000
G01 X34.434641 Y121.826092 Z-0.125000
G01 X34.247525 Y119.788779 Z-0.125000
G01 X34.306930 Y117.685676 Z-0.125000
G01 X35.146468 Y113.510042 Z-0.125000
G01 X36.762335 Y109.781010 Z-0.125000
G01 X39.108089 Y106.534184 Z-0.125000
G01 X41.039234 Y104.742683 Z-0.125000
G01 X46.056986 Y101.111950 Z-0.125000
G01 X50.557766 Y96.916321 Z-0.125000
G01 X52.982920 Y94.146670 Z-0.125000
G01 X54.360974 Y92.094973 Z-0.125000
G01 X55.549008 Y89.879897 Z-0.125000
G01 X58.150958 Y83.579746 Z-0.125000
G01 X59.372727 Y81.121632 Z-0.125000
G01 X60.967373 Y78.884239 Z-0.125000
G01 X62.670895 Y77.172202 Z-0.125000
G01 X66.058268 Y74.780782 Z-0.125000
G01 X69.837224 Y73.128988 Z-0.125000
G01 X73.878309 Y72.279194 Z-0.125000
G01 X80.245024 Y72.129553 Z-0.125000
G01 X82.888126 Y71.662182 Z-0.125000
G01 X97.881783 Y65.861459 Z-0.125000
G01 X102.472026 Y64.342666 Z-0.125000
G01 X106.632630 Y63.232483 Z-0.125000
G01 X111.529895 Y62.336378 Z-0.125000
G01 X116.083695 Y62.020067 Z-0.125000
G01 X119.949726 Y62.324574 Z-0.125000
G01 X123.347806 Y63.294081 Z-0.125000
G01 X128.689931 Y66.305867 Z-0.125000
G01 X133.280689 Y67.583945 Z-0.125000
G01 X135.304328 Y68.662974 Z-0.125000
G01 X150.874942 Y80.843893 Z-0.125000
G01 X154.001604 Y83.567943 Z-0.125000
G01 X156.546278 Y86.137643 Z-0.125000
G01 X158.128217 Y88.075496 Z-0.125000
G01 X159.416292 Y90.095716 Z-0.125000
G01 X162.119701 Y96.238098 Z-0.125000
G01 X162.549468 Y97.932204 Z-0.125000
G01 X163.106817 Y103.234145 Z-0.125000
G01 X163.730859 Y106.258316 Z-0.125000
G01 X164.850975 Y109.483147 Z-0.125000
G01 X166.517861 Y112.660571 Z-0.125000
G01 X168.658182 Y115.566318 Z-0.125000
G01 X171.098493 Y118.054619 Z-0.125000
G01 X173.609885 Y120.090061 Z-0.125000
G01 X178.299652 Y123.400936 Z-0.125000
G01 X180.653727 Y125.447085 Z-0.125000
G01 X182.015848 Y127.076174 Z-0.125000
G01 X182.522435 Y128.339933 Z-0.125000
G01 X182.467029 Y130.138787 Z-0.125000
G01 X181.637617 Y132.406689 Z-0.125000
G01 X174.218447 Y145.011248 Z-0.125000
G01 X172.533307 Y148.334959 Z-0.125000
G01 X171.207048 Y151.560435 Z-0.125000
G01 X170.317199 Y154.589185 Z-0.125000
G01 X169.845700 Y157.383089 Z-0.125000
G01 X169.353368 Y169.797500 Z-0.125000
G01 X168.713459 Y174.353299 Z-0.125000
G01 X167.899462 Y177.000851 Z-0.125000
G01 X166.969042 Y178.922515 Z-0.125000
G01 X165.782685 Y180.631843 Z-0.125000
G01 X163.964416 Y182.447467 Z-0.125000
G01 X161.829127 Y183.908339 Z-0.125000
G01 X159.461313 Y185.051481 Z-0.125000
G01 X150.680602 Y187.854351 Z-0.125000
G01 X148.079684 Y188.921253 Z-0.125000
G01 X146.446531 Y189.921398 Z-0.125000
G01 X142.891328 Y192.807022 Z-0.125000
G01 X139.623088 Y194.559500 Z-0.125000
G01 X135.637473 Y196.074681 Z-0.125000
G01 X127.635090 Y198.588459 Z-0.125000
G01 X124.363560 Y199.919040 Z-0.125000
G01 X121.308365 Y201.751241 Z-0.125000
G01 X114.760596 Y207.029382 Z-0.125000
G01 X112.760436 Y208.152593 Z-0.125000
G01 X110.478150 Y209.060890 Z-0.125000
G01 X107.916706 Y209.706604 Z-0.125000
G01 X105.115837 Y210.065549 Z-0.125000
G01 X99.065754 Y209.989374 Z-0.125000
G01 X92.268756 Y209.065340 Z-0.125000
G01 X89.253100 Y208.235090 Z-0.125000
G01 X86.362445 Y207.074274 Z-0.125000
G01 X83.140968 Y205.268002 Z-0.125000
G01 X80.254183 Y203.119813 Z-0.125000
G01 X77.726215 Y200.813662 Z-0.125000
G01 X73.025935 Y195.995862 Z-0.125000
G01 X71.074472 Y194.338134 Z-0.125000
G01 X68.941118 Y193.099467 Z-0.125000
G01 X64.259156 Y191.321833 Z-0.125000
G01 X62.070267 Y189.718738 Z-0.125000
G01 X60.280829 Y187.164195 Z-0.125000
G01 X55.465480 Y177.823813 Z-0.125000
G01 X52.005351 Y172.545544 Z-0.125000
G01 X46.987083 Y166.376458 Z-0.125000
G01 X38.939162 Y158.283322 Z-0.125000
G01 X37.716104 Y156.468536 Z-0.125000
G01 X37.146951 Y154.962643 Z-0.125000
G01 X37.232221 Y153.267441 Z-0.125000
G01 X38.330987 Y149.219648 Z-0.125000
G01 X38.820159 Y146.618858 Z-0.125000
G01 X39.041782 Y144.120432 Z-0.125000
G01 X39.026947 Y141.396382 Z-0.125000
G01 X38.668647 Y137.975920 Z-0.125000
G01 X37.977847 Y134.583194 Z-0.125000
G01 X36.893335 Y130.893443 Z-0.125000
G01 X34.753918 Y124.847811 Z-0.125000
G01 X34.088337 Y121.928261 Z-0.125000
G01 X33.919217 Y119.845152 Z-0.125000
G01 X34.000810 Y117.689933 Z-0.125000
G01 X34.884596 Y113.406132 Z-0.125000
G01 X36.521038 Y109.588283 Z-0.125000
G01 X38.832027 Y106.287921 Z-0.125000
G01 X40.685642 Y104.489712 Z-0.125000
G01 X45.135854 Y101.093180 Z-0.125000
G01 X49.737513 Y96.736558 Z-0.125000
G01 X52.185501 Y93.882153 Z-0.125000
G01 X54.570536 Y89.933433 Z-0.125000
G01 X58.543315 Y80.852988 Z-0.125000
G01 X60.143895 Y78.541096 Z-0.125000
G01 X61.854255 Y76.792939 Z-0.125000
G01 X65.295937 Y74.327988 Z-0.125000
G01 X67.230371 Y73.341582 Z-0.125000
G01 X69.694677 Y72.414903 Z-0.125000
G01 X73.861797 Y71.607937 Z-0.125000
G01 X80.331971 Y71.593296 Z-0.125000
G01 X82.983522 Y71.153596 Z-0.125000
G01 X98.069608 Y65.276246 Z-0.125000
G01 X102.695133 Y63.741328 Z-0.125000
G01 X106.872443 Y62.629597 Z-0.125000
G01 X111.765838 Y61.752971 Z-0.125000
G01 X116.285388 Y61.481036 Z-0.125000
G01 X120.091176 Y61.849528 Z-0.125000
G01 X123.051297 Y62.742795 Z-0.125000
G01 X128.682965 Y66.033224 Z-0.125000
G01 X133.105570 Y67.283759 Z-0.125000
G01 X135.114761 Y68.346857 Z-0.125000
G01 X151.796332 Y81.227994 Z-0.125000
G01 X154.940989 Y83.916761 Z-0.125000
G01 X157.458637 Y86.426476 Z-0.125000
G01 X158.999683 Y88.299635 Z-0.125000
G01 X160.239576 Y90.234263 Z-0.125000
G01 X162.808051 Y96.052014 Z-0.125000
G01 X163.275421 Y97.770630 Z-0.125000
G01 X163.927521 Y103.125139 Z-0.125000
G01 X164.582653 Y106.171949 Z-0.125000
G01 X165.723731 Y109.409423 Z-0.125000
G01 X167.398680 Y112.582074 Z-0.125000
G01 X169.533066 Y115.462924 Z-0.125000
G01 X171.955318 Y117.910137 Z-0.125000
G01 X174.442457 Y119.898559 Z-0.125000
G01 X179.095910 Y123.154544 Z-0.125000
G01 X181.210172 Y124.987648 Z-0.125000
G01 X182.670399 Y126.638474 Z-0.125000
G01 X183.362554 Y128.188744 Z-0.125000
G01 X183.346429 Y130.063515 Z-0.125000
G01 X182.342479 Y132.883928 Z-0.125000
G01 X174.690849 Y146.136459 Z-0.125000
G01 X173.023188 Y149.499838 Z-0.125000
G01 X171.741886 Y152.714285 Z-0.125000
G01 X170.910668 Y155.694272 Z-0.125000
G01 X170.486835 Y158.427933 Z-0.125000
G01 X169.973605 Y170.315117 Z-0.125000
G01 X169.331825 Y174.851437 Z-0.125000
G01 X168.511185 Y177.470351 Z-0.125000
G01 X167.569542 Y179.359957 Z-0.125000
G01 X166.365189 Y181.030649 Z-0.125000
G01 X164.912122 Y182.469849 Z-0.125000
G01 X162.798763 Y183.950651 Z-0.125000
G01 X160.434174 Y185.110693 Z-0.125000
G01 X151.438935 Y187.937363 Z-0.125000
G01 X148.709660 Y189.024003 Z-0.125000
G01 X146.787223 Y190.199202 Z-0.125000
G01 X142.953894 Y193.347858 Z-0.125000
G01 X139.506342 Y195.231079 Z-0.125000
G01 X135.385341 Y196.838883 Z-0.125000
G01 X127.332453 Y199.472503 Z-0.125000
G01 X124.547128 Y200.652475 Z-0.125000
G01 X121.496964 Y202.512734 Z-0.125000
G01 X115.318913 Y207.581893 Z-0.125000
G01 X112.910335 Y208.952529 Z-0.125000
G01 X110.580641 Y209.861212 Z-0.125000
G01 X107.965082 Y210.506991 Z-0.125000
G01 X105.111192 Y210.866710 Z-0.125000
G01 X102.090441 Y210.948110 Z-0.125000
G01 X98.355088 Y210.748029 Z-0.125000
G01 X94.604964 Y210.338773 Z-0.125000
G01 X91.511069 Y209.767557 Z-0.125000
G01 X88.500185 Y208.900283 Z-0.125000
G01 X85.636363 Y207.705799 Z-0.125000
G01 X82.974621 Y206.201131 Z-0.125000
G01 X80.095319 Y204.077129 Z-0.125000
G01 X77.571220 Y201.775365 Z-0.125000
G01 X72.812696 Y196.893580 Z-0.125000
G01 X70.781253 Y195.181865 Z-0.125000
G01 X68.525412 Y193.878891 Z-0.125000
G01 X63.657108 Y191.981609 Z-0.125000
G01 X62.487650 Y191.233403 Z-0.125000
G01 X61.418941 Y190.247513 Z-0.125000
G01 X59.585579 Y187.526688 Z-0.125000
G01 X54.854596 Y177.978228 Z-0.125000
G01 X51.473867 Y172.675383 Z-0.125000
G01 X48.831281 Y169.194678 Z-0.125000
G01 X46.088849 Y166.027317 Z-0.125000
G01 X38.375686 Y158.377945 Z-0.125000
G01 X37.345806 Y156.827740 Z-0.125000
G01 X36.776460 Y155.343970 Z-0.125000
G01 X36.850120 Y153.655605 Z-0.125000
G01 X37.956110 Y149.600910 Z-0.125000
G01 X38.456763 Y146.987156 Z-0.125000
G01 X38.687223 Y144.471766 Z-0.125000
G01 X38.677999 Y141.725270 Z-0.125000
G01 X38.320473 Y138.273139 Z-0.125000
G01 X37.624319 Y134.847711 Z-0.125000
G01 X36.529681 Y131.124548 Z-0.125000
G01 X34.380525 Y125.017512 Z-0.125000
G01 X33.729973 Y122.045006 Z-0.125000
G01 X33.579428 Y119.914426 Z-0.125000
G01 X33.684177 Y117.704897 Z-0.125000
G01 X34.615564 Y113.306866 Z-0.125000
G01 X36.276710 Y109.393233 Z-0.125000
G01 X38.556481 Y106.031919 Z-0.125000
G01 X40.333276 Y104.221906 Z-0.125000
G01 X43.890414 Y101.372145 Z-0.125000
G01 X48.306763 Y97.139041 Z-0.125000
G01 X51.384662 Y93.591256 Z-0.125000
G01 X53.811042 Y89.513276 Z-0.125000
G01 X57.697326 Y80.605886 Z-0.125000
G01 X59.302228 Y78.216530 Z-0.125000
G01 X61.017554 Y76.427092 Z-0.125000
G01 X63.100340 Y74.797487 Z-0.125000
G01 X64.990462 Y73.628867 Z-0.125000
G01 X69.047802 Y71.876518 Z-0.125000
G01 X73.408100 Y70.989442 Z-0.125000
G01 X80.433108 Y71.057684 Z-0.125000
G01 X83.093689 Y70.637850 Z-0.125000
G01 X98.258272 Y64.678455 Z-0.125000
G01 X102.916369 Y63.128766 Z-0.125000
G01 X107.107225 Y62.016520 Z-0.125000
G01 X111.991396 Y61.160663 Z-0.125000
G01 X115.869102 Y60.925429 Z-0.125000
G01 X119.724555 Y61.269152 Z-0.125000
G01 X122.725376 Y62.172030 Z-0.125000
G01 X124.390392 Y63.030338 Z-0.125000
G01 X128.394196 Y65.639706 Z-0.125000
G01 X132.894009 Y66.978414 Z-0.125000
G01 X134.902619 Y68.032610 Z-0.125000
G01 X141.178131 Y73.043461 Z-0.125000
G01 X152.733202 Y81.586036 Z-0.125000
G01 X155.889598 Y84.229460 Z-0.125000
G01 X158.376092 Y86.671384 Z-0.125000
G01 X159.876245 Y88.476302 Z-0.125000
G01 X161.071568 Y90.326370 Z-0.125000
G01 X163.494272 Y95.877218 Z-0.125000
G01 X163.998020 Y97.630987 Z-0.125000
G01 X164.752934 Y103.045223 Z-0.125000
G01 X165.441800 Y106.114737 Z-0.125000
G01 X166.603970 Y109.363628 Z-0.125000
G01 X168.284014 Y112.529506 Z-0.125000
G01 X170.406339 Y115.382750 Z-0.125000
G01 X172.802081 Y117.785522 Z-0.125000
G01 X175.255744 Y119.723698 Z-0.125000
G01 X179.857790 Y122.919504 Z-0.125000
G01 X181.966505 Y124.769830 Z-0.125000
G01 X183.603657 Y126.701814 Z-0.125000
G01 X184.224281 Y128.344706 Z-0.125000
G01 X184.124885 Y130.371957 Z-0.125000
G01 X183.014122 Y133.426442 Z-0.125000
G01 X175.154607 Y147.289664 Z-0.125000
G01 X172.490414 Y153.244285 Z-0.125000
G01 X171.627591 Y156.220467 Z-0.125000
G01 X171.176410 Y158.938067 Z-0.125000
G01 X170.579200 Y170.831443 Z-0.125000
G01 X169.936646 Y175.343898 Z-0.125000
G01 X169.111685 Y177.931529 Z-0.125000
G01 X168.161786 Y179.787144 Z-0.125000
G01 X166.943629 Y181.417394 Z-0.125000
G01 X165.470438 Y182.812734 Z-0.125000
G01 X163.324119 Y184.241484 Z-0.125000
G01 X160.928119 Y185.359858 Z-0.125000
G01 X151.828260 Y188.148021 Z-0.125000
G01 X149.071637 Y189.269750 Z-0.125000
G01 X147.127979 Y190.481069 Z-0.125000
G01 X142.952217 Y193.930749 Z-0.125000
G01 X139.321290 Y195.951034 Z-0.125000
G01 X135.596773 Y197.460926 Z-0.125000
G01 X127.504605 Y200.203229 Z-0.125000
G01 X124.710701 Y201.405454 Z-0.125000
G01 X121.673695 Y203.285644 Z-0.125000
G01 X115.509254 Y208.363252 Z-0.125000
G01 X113.500063 Y209.519488 Z-0.125000
G01 X111.184624 Y210.470354 Z-0.125000
G01 X108.569322 Y211.166831 Z-0.125000
G01 X105.703307 Y211.581827 Z-0.125000
G01 X102.662173 Y211.717278 Z-0.125000
G01 X98.896311 Y211.569572 Z-0.125000
G01 X94.480801 Y211.127034 Z-0.125000
G01 X91.364459 Y210.578522 Z-0.125000
G01 X88.340288 Y209.744982 Z-0.125000
G01 X85.473241 Y208.590294 Z-0.125000
G01 X82.816788 Y207.123939 Z-0.125000
G01 X79.949225 Y205.033801 Z-0.125000
G01 X77.433060 Y202.745001 Z-0.125000
G01 X72.621001 Y197.810648 Z-0.125000
G01 X70.508416 Y196.045914 Z-0.125000
G01 X68.126025 Y194.676311 Z-0.125000
G01 X63.304161 Y192.767741 Z-0.125000
G01 X62.102001 Y192.015407 Z-0.125000
G01 X60.986013 Y191.004620 Z-0.125000
G01 X59.247402 Y188.546570 Z-0.125000
G01 X54.855047 Y179.276687 Z-0.125000
G01 X50.947736 Y172.824057 Z-0.125000
G01 X48.359912 Y169.350576 Z-0.125000
G01 X45.664758 Y166.204500 Z-0.125000
G01 X38.007710 Y158.703285 Z-0.125000
G01 X36.983313 Y157.192425 Z-0.125000
G01 X36.410226 Y155.724975 Z-0.125000
G01 X36.466793 Y154.040867 Z-0.125000
G01 X38.085562 Y147.358163 Z-0.125000
G01 X38.324988 Y144.827551 Z-0.125000
G01 X38.321763 Y142.059899 Z-0.125000
G01 X37.965591 Y138.577001 Z-0.125000
G01 X37.264149 Y135.119838 Z-0.125000
G01 X36.158674 Y131.364361 Z-0.125000
G01 X34.143421 Y125.674772 Z-0.125000
G01 X33.433141 Y122.698010 Z-0.125000
G01 X33.237769 Y120.548337 Z-0.125000
G01 X33.300915 Y118.298817 Z-0.125000
G01 X34.169866 Y113.758950 Z-0.125000
G01 X35.792183 Y109.652848 Z-0.125000
G01 X37.014467 Y107.513947 Z-0.125000
G01 X38.281128 Y105.765983 Z-0.125000
G01 X39.749675 Y104.161469 Z-0.125000
G01 X42.905362 Y101.429873 Z-0.125000
G01 X47.782439 Y96.615555 Z-0.125000
G01 X50.885945 Y92.839696 Z-0.125000
G01 X53.053484 Y89.070674 Z-0.125000
G01 X57.077735 Y79.947788 Z-0.125000
G01 X58.758876 Y77.528825 Z-0.125000
G01 X60.551667 Y75.732873 Z-0.125000
G01 X62.720045 Y74.113008 Z-0.125000
G01 X64.684666 Y72.949548 Z-0.125000
G01 X68.893001 Y71.204293 Z-0.125000
G01 X70.965466 Y70.683258 Z-0.125000
G01 X73.391911 Y70.349275 Z-0.125000
G01 X80.545661 Y70.523620 Z-0.125000
G01 X83.215917 Y70.115912 Z-0.125000
G01 X98.446936 Y64.072409 Z-0.125000
G01 X103.136381 Y62.509561 Z-0.125000
G01 X107.339169 Y61.397895 Z-0.125000
G01 X112.210698 Y60.563646 Z-0.125000
G01 X116.049703 Y60.366855 Z-0.125000
G01 X119.344195 Y60.676651 Z-0.125000
G01 X122.379847 Y61.583463 Z-0.125000
G01 X124.058021 Y62.466733 Z-0.125000
G01 X128.310603 Y65.349712 Z-0.125000
G01 X132.907167 Y66.758661 Z-0.125000
G01 X134.666676 Y67.714042 Z-0.125000
G01 X141.251919 Y72.997988 Z-0.125000
G01 X154.253349 Y82.351012 Z-0.125000
G01 X157.308158 Y84.911811 Z-0.125000
G01 X159.298063 Y86.866756 Z-0.125000
G01 X160.757644 Y88.602078 Z-0.125000
G01 X161.912010 Y90.372036 Z-0.125000
G01 X164.090708 Y95.483959 Z-0.125000
G01 X164.716363 Y97.512112 Z-0.125000
G01 X165.581637 Y102.992655 Z-0.125000
G01 X166.306751 Y106.085003 Z-0.125000
G01 X167.490013 Y109.344600 Z-0.125000
G01 X169.171993 Y112.502351 Z-0.125000
G01 X170.902218 Y114.885838 Z-0.125000
G01 X173.234105 Y117.323699 Z-0.125000
G01 X175.651197 Y119.281999 Z-0.125000
G01 X180.583292 Y122.698461 Z-0.125000
G01 X182.683686 Y124.566331 Z-0.125000
G01 X184.339221 Y126.535209 Z-0.125000
G01 X184.999448 Y128.229895 Z-0.125000
G01 X185.053370 Y129.576923 Z-0.125000
G01 X184.865738 Y130.739287 Z-0.125000
G01 X183.652935 Y134.035004 Z-0.125000
G01 X175.610110 Y148.462154 Z-0.125000
G01 X173.020737 Y154.388460 Z-0.125000
G01 X172.215965 Y157.301173 Z-0.125000
G01 X171.799033 Y159.961303 Z-0.125000
G01 X171.123326 Y171.916858 Z-0.125000
G01 X170.526568 Y175.828168 Z-0.125000
G01 X169.896269 Y177.894441 Z-0.125000
G01 X169.008419 Y179.769019 Z-0.125000
G01 X167.848378 Y181.417201 Z-0.125000
G01 X166.422852 Y182.826730 Z-0.125000
G01 X164.313041 Y184.268252 Z-0.125000
G01 X161.930199 Y185.399784 Z-0.125000
G01 X152.644707 Y188.222971 Z-0.125000
G01 X150.060494 Y189.219181 Z-0.125000
G01 X147.898502 Y190.453527 Z-0.125000
G01 X143.403398 Y194.186042 Z-0.125000
G01 X140.278607 Y196.120735 Z-0.125000
G01 X136.272997 Y197.912107 Z-0.125000
G01 X128.160962 Y200.765093 Z-0.125000
G01 X124.854731 Y202.176106 Z-0.125000
G01 X121.838623 Y204.068099 Z-0.125000
G01 X117.459426 Y207.839250 Z-0.125000
G01 X115.700304 Y209.126680 Z-0.125000
G01 X113.661121 Y210.270983 Z-0.125000
G01 X111.299951 Y211.210369 Z-0.125000
G01 X108.629759 Y211.897751 Z-0.125000
G01 X105.708532 Y212.307458 Z-0.125000
G01 X101.989626 Y212.439103 Z-0.125000
G01 X98.173583 Y212.254761 Z-0.125000
G01 X93.724145 Y211.791905 Z-0.125000
G01 X90.601353 Y211.220624 Z-0.125000
G01 X87.594082 Y210.365864 Z-0.125000
G01 X84.766832 Y209.194148 Z-0.125000
G01 X82.167010 Y207.715861 Z-0.125000
G01 X79.375235 Y205.619272 Z-0.125000
G01 X72.770126 Y199.048670 Z-0.125000
G01 X70.568208 Y197.153259 Z-0.125000
G01 X68.060557 Y195.639496 Z-0.125000
G01 X62.714304 Y193.429387 Z-0.125000
G01 X61.491117 Y192.620035 Z-0.125000
G01 X60.355070 Y191.539006 Z-0.125000
G01 X58.390707 Y188.592688 Z-0.125000
G01 X53.638052 Y178.322854 Z-0.125000
G01 X50.021315 Y172.402095 Z-0.125000
G01 X47.458711 Y168.981311 Z-0.125000
G01 X44.816061 Y165.932437 Z-0.125000
G01 X37.485643 Y158.846089 Z-0.125000
G01 X36.627335 Y157.561949 Z-0.125000
G01 X36.047218 Y156.105076 Z-0.125000
G01 X36.081919 Y154.422645 Z-0.125000
G01 X37.709266 Y147.730267 Z-0.125000
G01 X37.958754 Y145.185206 Z-0.125000
G01 X37.962624 Y142.396656 Z-0.125000
G01 X37.608452 Y138.883120 Z-0.125000
G01 X36.901978 Y135.394352 Z-0.125000
G01 X35.955949 Y132.123016 Z-0.125000
G01 X33.754031 Y125.867887 Z-0.125000
G01 X33.053233 Y122.842426 Z-0.125000
G01 X32.873857 Y120.646313 Z-0.125000
G01 X32.959256 Y118.341259 Z-0.125000
G01 X33.879872 Y113.678582 Z-0.125000
G01 X35.538373 Y109.462055 Z-0.125000
G01 X38.006033 Y105.489986 Z-0.125000
G01 X39.414337 Y103.866121 Z-0.125000
G01 X47.269982 Y96.035438 Z-0.125000
G01 X50.096846 Y92.480041 Z-0.125000
G01 X52.303021 Y88.605109 Z-0.125000
G01 X56.212009 Y79.726486 Z-0.125000
G01 X57.890118 Y77.232381 Z-0.125000
G01 X59.681684 Y75.393085 Z-0.125000
G01 X61.395334 Y74.065407 Z-0.125000
G01 X63.853835 Y72.565770 Z-0.125000
G01 X68.191558 Y70.723055 Z-0.125000
G01 X70.879165 Y70.045413 Z-0.125000
G01 X73.378172 Y69.730521 Z-0.125000
G01 X80.340162 Y69.996586 Z-0.125000
G01 X82.996680 Y69.679373 Z-0.125000
G01 X85.644361 Y68.797070 Z-0.125000
G01 X97.315017 Y63.943859 Z-0.125000
G01 X102.666237 Y62.099338 Z-0.125000
G01 X106.862317 Y60.940329 Z-0.125000
G01 X111.752422 Y60.042611 Z-0.125000
G01 X115.627031 Y59.797509 Z-0.125000
G01 X118.960159 Y60.076796 Z-0.125000
G01 X122.026384 Y60.980771 Z-0.125000
G01 X124.008097 Y62.080117 Z-0.125000
G01 X127.947723 Y64.924525 Z-0.125000
G01 X129.247022 Y65.473101 Z-0.125000
G01 X132.627170 Y66.428612 Z-0.125000
G01 X134.406223 Y67.385348 Z-0.125000
G01 X141.310937 Y72.945549 Z-0.125000
G01 X155.223308 Y82.623397 Z-0.125000
G01 X157.810810 Y84.718051 Z-0.125000
G01 X160.223774 Y87.008593 Z-0.125000
G01 X162.270052 Y89.563458 Z-0.125000
G01 X163.728795 Y92.464561 Z-0.125000
G01 X165.356917 Y97.119949 Z-0.125000
G01 X166.513927 Y103.462477 Z-0.125000
G01 X167.343597 Y106.622163 Z-0.125000
G01 X168.628124 Y109.891048 Z-0.125000
G01 X170.061003 Y112.499577 Z-0.125000
G01 X171.772266 Y114.859070 Z-0.125000
G01 X174.063323 Y117.251071 Z-0.125000
G01 X176.428879 Y119.154546 Z-0.125000
G01 X180.977197 Y122.268436 Z-0.125000
G01 X183.117710 Y124.137080 Z-0.125000
G01 X184.861997 Y126.122019 Z-0.125000
G01 X185.736559 Y128.130693 Z-0.125000
G01 X185.827376 Y129.526097 Z-0.125000
G01 X185.668318 Y130.732385 Z-0.125000
G01 X184.511437 Y134.150847 Z-0.125000
G01 X182.368472 Y138.389111 Z-0.125000
G01 X176.418237 Y148.944295 Z-0.125000
G01 X173.757720 Y154.907882 Z-0.125000
G01 X172.919343 Y157.811114 Z-0.125000
G01 X172.467259 Y160.457505 Z-0.125000
G01 X171.696736 Y172.418800 Z-0.125000
G01 X171.100687 Y176.301860 Z-0.125000
G01 X170.470388 Y178.341688 Z-0.125000
G01 X169.580410 Y180.182339 Z-0.125000
G01 X168.415079 Y181.790207 Z-0.125000
G01 X166.980653 Y183.155102 Z-0.125000
G01 X164.853297 Y184.541218 Z-0.125000
G01 X162.446783 Y185.628438 Z-0.125000
G01 X153.074603 Y188.432598 Z-0.125000
G01 X149.831776 Y189.777949 Z-0.125000
G01 X147.804331 Y191.050286 Z-0.125000
G01 X143.557812 Y194.637159 Z-0.125000
G01 X140.770423 Y196.482905 Z-0.125000
G01 X136.393096 Y198.576462 Z-0.125000
G01 X127.773121 Y201.727699 Z-0.125000
G01 X124.562673 Y203.183152 Z-0.125000
G01 X121.992457 Y204.858166 Z-0.125000
G01 X116.267392 Y209.626043 Z-0.125000
G01 X114.263878 Y210.785568 Z-0.125000
G01 X111.924638 Y211.752495 Z-0.125000
G01 X109.258575 Y212.478578 Z-0.125000
G01 X105.713563 Y212.993420 Z-0.125000
G01 X102.576903 Y213.126485 Z-0.125000
G01 X98.726352 Y212.992195 Z-0.125000
G01 X94.232925 Y212.589647 Z-0.125000
G01 X90.453970 Y211.970507 Z-0.125000
G01 X87.439087 Y211.163154 Z-0.125000
G01 X84.615836 Y210.046199 Z-0.125000
G01 X82.029108 Y208.620738 Z-0.125000
G01 X79.257715 Y206.573363 Z-0.125000
G01 X72.630418 Y200.001730 Z-0.125000
G01 X70.351551 Y198.058781 Z-0.125000
G01 X67.715415 Y196.477487 Z-0.125000
G01 X62.399477 Y194.237320 Z-0.125000
G01 X61.122690 Y193.410037 Z-0.125000
G01 X59.953489 Y192.318495 Z-0.125000
G01 X57.900890 Y189.314513 Z-0.125000
G01 X53.325547 Y179.091248 Z-0.125000
G01 X51.400788 Y175.568489 Z-0.125000
G01 X49.515115 Y172.595983 Z-0.125000
G01 X47.013335 Y169.191131 Z-0.125000
G01 X44.423317 Y166.167477 Z-0.125000
G01 X37.142630 Y159.199552 Z-0.125000
G01 X36.184604 Y157.758095 Z-0.125000
G01 X35.649895 Y156.292450 Z-0.125000
G01 X35.743936 Y154.557967 Z-0.125000
G01 X37.331036 Y148.102692 Z-0.125000
G01 X37.590328 Y145.544280 Z-0.125000
G01 X37.600712 Y142.735993 Z-0.125000
G01 X37.248217 Y139.193045 Z-0.125000
G01 X36.537292 Y135.673253 Z-0.125000
G01 X35.582943 Y132.374117 Z-0.125000
G01 X33.363932 Y126.062743 Z-0.125000
G01 X32.670552 Y122.988455 Z-0.125000
G01 X32.559740 Y118.983168 Z-0.125000
G01 X33.413662 Y114.184008 Z-0.125000
G01 X35.043848 Y109.763402 Z-0.125000
G01 X37.490932 Y105.533717 Z-0.125000
G01 X42.998823 Y99.210346 Z-0.125000
G01 X47.093186 Y95.030133 Z-0.125000
G01 X49.623863 Y91.623088 Z-0.125000
G01 X51.564361 Y88.116389 Z-0.125000
G01 X55.592288 Y79.072451 Z-0.125000
G01 X57.014137 Y76.955029 Z-0.125000
G01 X58.799059 Y75.070840 Z-0.125000
G01 X60.515547 Y73.721425 Z-0.125000
G01 X62.995849 Y72.207341 Z-0.125000
G01 X65.746344 Y70.908107 Z-0.125000
G01 X68.017858 Y70.100303 Z-0.125000
G01 X70.792347 Y69.433110 Z-0.125000
G01 X73.364691 Y69.134537 Z-0.125000
G01 X80.465164 Y69.466585 Z-0.125000
G01 X83.135356 Y69.150726 Z-0.125000
G01 X85.783166 Y68.253008 Z-0.125000
G01 X97.489749 Y63.336135 Z-0.125000
G01 X102.876508 Y61.474328 Z-0.125000
G01 X107.085166 Y60.313964 Z-0.125000
G01 X111.285374 Y59.523188 Z-0.125000
G01 X115.198103 Y59.227260 Z-0.125000
G01 X118.574769 Y59.472555 Z-0.125000
G01 X121.675243 Y60.368467 Z-0.125000
G01 X123.660827 Y61.490196 Z-0.125000
G01 X127.805758 Y64.613632 Z-0.125000
G01 X132.311376 Y66.079987 Z-0.125000
G01 X134.120679 Y67.041367 Z-0.125000
G01 X141.357571 Y72.881758 Z-0.125000
G01 X156.205651 Y82.845795 Z-0.125000
G01 X158.781285 Y84.882914 Z-0.125000
G01 X161.152452 Y87.094314 Z-0.125000
G01 X163.141325 Y89.551074 Z-0.125000
G01 X164.384636 Y91.977324 Z-0.125000
G01 X166.137502 Y97.329769 Z-0.125000
G01 X168.047942 Y106.098548 Z-0.125000
G01 X169.273258 Y109.379366 Z-0.125000
G01 X170.641120 Y112.017243 Z-0.125000
G01 X172.636959 Y114.855136 Z-0.125000
G01 X174.879061 Y117.200890 Z-0.125000
G01 X177.183922 Y119.048765 Z-0.125000
G01 X181.629877 Y122.083320 Z-0.125000
G01 X183.995949 Y124.211256 Z-0.125000
G01 X185.687281 Y126.253729 Z-0.125000
G01 X186.498117 Y128.387534 Z-0.125000
G01 X186.545654 Y129.890202 Z-0.125000
G01 X186.350733 Y131.190661 Z-0.125000
G01 X185.101036 Y134.853193 Z-0.125000
G01 X182.867061 Y139.326367 Z-0.125000
G01 X176.853744 Y150.128460 Z-0.125000
G01 X174.279013 Y156.020774 Z-0.125000
G01 X173.493978 Y158.852475 Z-0.125000
G01 X172.987068 Y161.968236 Z-0.125000
G01 X172.253310 Y172.909456 Z-0.125000
G01 X171.658487 Y176.762393 Z-0.125000
G01 X171.029284 Y178.775389 Z-0.125000
G01 X170.139242 Y180.582242 Z-0.125000
G01 X169.289770 Y181.781435 Z-0.125000
G01 X167.916877 Y183.163423 Z-0.125000
G01 X165.849249 Y184.561794 Z-0.125000
G01 X163.473696 Y185.656109 Z-0.125000
G01 X153.956970 Y188.501226 Z-0.125000
G01 X150.230647 Y190.040531 Z-0.125000
G01 X147.914434 Y191.496565 Z-0.125000
G01 X143.397657 Y195.321445 Z-0.125000
G01 X140.459853 Y197.291741 Z-0.125000
G01 X135.962814 Y199.479018 Z-0.125000
G01 X127.871806 Y202.517185 Z-0.125000
G01 X125.088094 Y203.762367 Z-0.125000
G01 X122.136035 Y205.653780 Z-0.125000
G01 X118.185960 Y209.088496 Z-0.125000
G01 X116.463022 Y210.354318 Z-0.125000
G01 X114.434675 Y211.488172 Z-0.125000
G01 X112.052220 Y212.431363 Z-0.125000
G01 X109.331267 Y213.138418 Z-0.125000
G01 X105.718400 Y213.639200 Z-0.125000
G01 X102.533817 Y213.769104 Z-0.125000
G01 X98.641405 Y213.641651 Z-0.125000
G01 X94.109471 Y213.261678 Z-0.125000
G01 X90.308134 Y212.684850 Z-0.125000
G01 X86.706039 Y211.744368 Z-0.125000
G01 X83.936065 Y210.626252 Z-0.125000
G01 X81.416998 Y209.202146 Z-0.125000
G01 X79.153160 Y207.520102 Z-0.125000
G01 X72.512253 Y200.964593 Z-0.125000
G01 X70.156437 Y198.976623 Z-0.125000
G01 X67.390268 Y197.328313 Z-0.125000
G01 X61.839549 Y194.910254 Z-0.125000
G01 X59.564293 Y193.104304 Z-0.125000
G01 X58.447209 Y191.709094 Z-0.125000
G01 X57.238018 Y189.690873 Z-0.125000
G01 X52.712599 Y179.301004 Z-0.125000
G01 X50.845503 Y175.778374 Z-0.125000
G01 X49.013302 Y172.814769 Z-0.125000
G01 X46.575376 Y169.429073 Z-0.125000
G01 X44.041345 Y166.431155 Z-0.125000
G01 X36.651587 Y159.379186 Z-0.125000
G01 X35.839268 Y158.136326 Z-0.125000
G01 X35.287724 Y156.669262 Z-0.125000
G01 X35.354547 Y154.933553 Z-0.125000
G01 X36.505171 Y150.717672 Z-0.125000
G01 X37.019305 Y147.988656 Z-0.125000
G01 X37.231318 Y143.081651 Z-0.125000
G01 X36.880564 Y139.510710 Z-0.125000
G01 X36.166737 Y135.960796 Z-0.125000
G01 X35.206325 Y132.633925 Z-0.125000
G01 X32.974349 Y126.262565 Z-0.125000
G01 X32.288902 Y123.135129 Z-0.125000
G01 X32.205052 Y119.039412 Z-0.125000
G01 X33.106253 Y114.115767 Z-0.125000
G01 X34.543388 Y110.100352 Z-0.125000
G01 X36.741178 Y105.969418 Z-0.125000
G01 X42.089302 Y99.103920 Z-0.125000
G01 X45.981198 Y95.063222 Z-0.125000
G01 X48.242843 Y92.143478 Z-0.125000
G01 X50.582534 Y88.134836 Z-0.125000
G01 X53.778212 Y80.782231 Z-0.125000
G01 X54.982952 Y78.418158 Z-0.125000
G01 X56.458788 Y76.290351 Z-0.125000
G01 X58.311758 Y74.409517 Z-0.125000
G01 X60.091069 Y73.072228 Z-0.125000
G01 X62.655480 Y71.584524 Z-0.125000
G01 X65.496662 Y70.304705 Z-0.125000
G01 X67.842288 Y69.505028 Z-0.125000
G01 X70.703143 Y68.847574 Z-0.125000
G01 X73.349469 Y68.562288 Z-0.125000
G01 X80.593972 Y68.941422 Z-0.125000
G01 X83.278999 Y68.620855 Z-0.125000
G01 X85.925906 Y67.706625 Z-0.125000
G01 X93.119840 Y64.510431 Z-0.125000
G01 X97.656225 Y62.720349 Z-0.125000
G01 X103.075041 Y60.840160 Z-0.125000
G01 X107.294728 Y59.679473 Z-0.125000
G01 X111.487841 Y58.907467 Z-0.125000
G01 X115.369094 Y58.650755 Z-0.125000
G01 X118.688612 Y58.951069 Z-0.125000
G01 X121.324683 Y59.748166 Z-0.125000
G01 X123.319168 Y60.889631 Z-0.125000
G01 X127.393664 Y64.158775 Z-0.125000
G01 X128.719149 Y64.753856 Z-0.125000
G01 X132.240103 Y65.819534 Z-0.125000
G01 X133.809529 Y66.677842 Z-0.125000
G01 X140.387548 Y72.089563 Z-0.125000
G01 X156.034595 Y82.186342 Z-0.125000
G01 X159.288129 Y84.606788 Z-0.125000
G01 X162.083065 Y87.123146 Z-0.125000
G01 X164.018016 Y89.496571 Z-0.125000
G01 X165.131101 Y91.696231 Z-0.125000
G01 X166.923505 Y97.580225 Z-0.125000
G01 X168.920892 Y106.136087 Z-0.125000
G01 X170.167300 Y109.428257 Z-0.125000
G01 X171.531034 Y112.061168 Z-0.125000
G01 X173.494752 Y114.872938 Z-0.125000
G01 X175.679964 Y117.172961 Z-0.125000
G01 X177.915229 Y118.965237 Z-0.125000
G01 X182.243728 Y121.918908 Z-0.125000
G01 X184.589934 Y124.063679 Z-0.125000
G01 X186.298875 Y126.142530 Z-0.125000
G01 X187.167181 Y128.334063 Z-0.125000
G01 X187.259287 Y129.884397 Z-0.125000
G01 X186.999350 Y131.711503 Z-0.125000
G01 X185.660191 Y135.617395 Z-0.125000
G01 X183.339269 Y140.312967 Z-0.125000
G01 X177.281576 Y151.307916 Z-0.125000
G01 X174.799726 Y157.103157 Z-0.125000
G01 X174.060808 Y159.864101 Z-0.125000
G01 X173.471338 Y163.476709 Z-0.125000
G01 X172.792599 Y173.385598 Z-0.125000
G01 X172.199195 Y177.207189 Z-0.125000
G01 X171.572185 Y179.193610 Z-0.125000
G01 X170.684013 Y180.967374 Z-0.125000
G01 X169.835251 Y182.137865 Z-0.125000
G01 X168.462100 Y183.477927 Z-0.125000
G01 X166.391763 Y184.822569 Z-0.125000
G01 X164.009502 Y185.870767 Z-0.125000
G01 X154.433241 Y188.713046 Z-0.125000
G01 X150.641515 Y190.308143 Z-0.125000
G01 X147.995769 Y191.955099 Z-0.125000
G01 X143.166358 Y196.057460 Z-0.125000
G01 X140.084202 Y198.148824 Z-0.125000
G01 X135.997708 Y200.198521 Z-0.125000
G01 X127.452102 Y203.523199 Z-0.125000
G01 X124.769590 Y204.794181 Z-0.125000
G01 X122.270067 Y206.452876 Z-0.125000
G01 X117.027273 Y210.823753 Z-0.125000
G01 X115.046140 Y211.956833 Z-0.125000
G01 X112.695355 Y212.912150 Z-0.125000
G01 X109.984334 Y213.644360 Z-0.125000
G01 X106.355794 Y214.189969 Z-0.125000
G01 X102.490344 Y214.370184 Z-0.125000
G01 X98.556458 Y214.249439 Z-0.125000
G01 X93.339722 Y213.823348 Z-0.125000
G01 X89.544255 Y213.244843 Z-0.125000
G01 X85.986794 Y212.308812 Z-0.125000
G01 X83.278612 Y211.196695 Z-0.125000
G01 X80.833011 Y209.779490 Z-0.125000
G01 X78.641348 Y208.105637 Z-0.125000
G01 X72.414599 Y201.933971 Z-0.125000
G01 X69.982156 Y199.903625 Z-0.125000
G01 X67.085374 Y198.189137 Z-0.125000
G01 X61.586578 Y195.751663 Z-0.125000
G01 X60.192206 Y194.820147 Z-0.125000
G01 X58.949797 Y193.636885 Z-0.125000
G01 X57.817233 Y192.169176 Z-0.125000
G01 X56.581468 Y190.061364 Z-0.125000
G01 X52.100747 Y179.526304 Z-0.125000
G01 X50.292024 Y176.010253 Z-0.125000
G01 X48.514906 Y173.059935 Z-0.125000
G01 X46.143545 Y169.696428 Z-0.125000
G01 X43.668661 Y166.724632 Z-0.125000
G01 X41.285690 Y164.277225 Z-0.125000
G01 X36.326118 Y159.754127 Z-0.125000
G01 X35.496964 Y158.516943 Z-0.125000
G01 X34.926844 Y157.044268 Z-0.125000
G01 X34.965222 Y155.307269 Z-0.125000
G01 X36.109267 Y151.101450 Z-0.125000
G01 X36.629335 Y148.368241 Z-0.125000
G01 X36.855796 Y145.728365 Z-0.125000
G01 X36.819869 Y142.845128 Z-0.125000
G01 X36.405389 Y139.234261 Z-0.125000
G01 X35.639703 Y135.680477 Z-0.125000
G01 X32.585347 Y126.471611 Z-0.125000
G01 X31.986266 Y123.845925 Z-0.125000
G01 X31.807535 Y119.717119 Z-0.125000
G01 X32.089660 Y117.198890 Z-0.125000
G01 X32.627659 Y114.666343 Z-0.125000
G01 X34.270874 Y109.919815 Z-0.125000
G01 X36.479048 Y105.686519 Z-0.125000
G01 X41.352255 Y98.801090 Z-0.125000
G01 X45.205966 Y94.701116 Z-0.125000
G01 X47.816172 Y91.227442 Z-0.125000
G01 X50.140512 Y87.070255 Z-0.125000
G01 X54.120387 Y78.221754 Z-0.125000
G01 X55.579904 Y76.038412 Z-0.125000
G01 X57.414685 Y74.115394 Z-0.125000
G01 X59.187352 Y72.756627 Z-0.125000
G01 X61.761890 Y71.258022 Z-0.125000
G01 X64.646417 Y69.958402 Z-0.125000
G01 X67.060219 Y69.114090 Z-0.125000
G01 X70.035240 Y68.388202 Z-0.125000
G01 X72.809665 Y68.042479 Z-0.125000
G01 X75.743921 Y68.032417 Z-0.125000
G01 X80.724843 Y68.421613 Z-0.125000
G01 X83.425802 Y68.091564 Z-0.125000
G01 X86.070322 Y67.160886 Z-0.125000
G01 X97.137383 Y62.344956 Z-0.125000
G01 X102.563294 Y60.414521 Z-0.125000
G01 X107.485649 Y59.034275 Z-0.125000
G01 X111.671345 Y58.284521 Z-0.125000
G01 X114.915526 Y58.066574 Z-0.125000
G01 X118.289935 Y58.332509 Z-0.125000
G01 X120.969543 Y59.120060 Z-0.125000
G01 X122.980475 Y60.279328 Z-0.125000
G01 X126.045281 Y63.025501 Z-0.125000
G01 X127.219190 Y63.833692 Z-0.125000
G01 X128.566799 Y64.426645 Z-0.125000
G01 X131.866000 Y65.429757 Z-0.125000
G01 X133.473159 Y66.291871 Z-0.125000
G01 X137.800626 Y70.017871 Z-0.125000
G01 X140.397933 Y71.997198 Z-0.125000
G01 X156.428758 Y81.909893 Z-0.125000
G01 X160.272085 Y84.665935 Z-0.125000
G01 X163.014839 Y87.096378 Z-0.125000
G01 X164.723393 Y89.142205 Z-0.125000
G01 X165.792037 Y91.162103 Z-0.125000
G01 X167.715894 Y97.869768 Z-0.125000
G01 X169.793197 Y106.189494 Z-0.125000
G01 X171.060632 Y109.494177 Z-0.125000
G01 X172.418045 Y112.123411 Z-0.125000
G01 X174.344352 Y114.910735 Z-0.125000
G01 X176.465000 Y117.166769 Z-0.125000
G01 X178.622025 Y118.904542 Z-0.125000
G01 X182.818750 Y121.776878 Z-0.125000
G01 X184.902052 Y123.684674 Z-0.125000
G01 X186.868866 Y126.052939 Z-0.125000
G01 X187.797673 Y128.299620 Z-0.125000
G01 X187.937252 Y129.895104 Z-0.125000
G01 X187.726980 Y131.776777 Z-0.125000
G01 X186.460642 Y135.794772 Z-0.125000
G01 X184.174422 Y140.608121 Z-0.125000
G01 X177.702442 Y152.473440 Z-0.125000
G01 X175.506780 Y157.576784 Z-0.125000
G01 X174.727743 Y160.325408 Z-0.125000
G01 X174.066226 Y163.943048 Z-0.125000
G01 X173.259841 Y174.403287 Z-0.125000
G01 X172.722487 Y177.633859 Z-0.125000
G01 X172.098574 Y179.594352 Z-0.125000
G01 X171.213885 Y181.336511 Z-0.125000
G01 X170.367767 Y182.479717 Z-0.125000
G01 X168.997841 Y183.779983 Z-0.125000
G01 X167.372622 Y184.841081 Z-0.125000
G01 X165.045702 Y185.894696 Z-0.125000
G01 X155.385140 Y188.776837 Z-0.125000
G01 X151.063413 Y190.579368 Z-0.125000
G01 X148.037888 Y192.432403 Z-0.125000
G01 X142.864883 Y196.846172 Z-0.125000
G01 X139.647792 Y199.051766 Z-0.125000
G01 X135.484929 Y201.166093 Z-0.125000
G01 X125.257085 Y205.392811 Z-0.125000
G01 X122.710992 Y207.008548 Z-0.125000
G01 X117.225031 Y211.517778 Z-0.125000
G01 X115.224677 Y212.612287 Z-0.125000
G01 X112.833966 Y213.532129 Z-0.125000
G01 X110.068894 Y214.235120 Z-0.125000
G01 X106.370694 Y214.757767 Z-0.125000
G01 X102.446419 Y214.930177 Z-0.125000
G01 X98.471511 Y214.816011 Z-0.125000
G01 X93.212398 Y214.421268 Z-0.125000
G01 X89.399580 Y213.897847 Z-0.125000
G01 X85.844055 Y213.042247 Z-0.125000
G01 X83.151868 Y212.004950 Z-0.125000
G01 X80.730842 Y210.657728 Z-0.125000
G01 X78.565754 Y209.039862 Z-0.125000
G01 X72.336682 Y202.906187 Z-0.125000
G01 X69.828129 Y200.836173 Z-0.125000
G01 X67.186575 Y199.249202 Z-0.125000
G01 X61.069671 Y196.438206 Z-0.125000
G01 X59.621376 Y195.425355 Z-0.125000
G01 X58.340332 Y194.159726 Z-0.125000
G01 X57.189836 Y192.618100 Z-0.125000
G01 X55.930529 Y190.425212 Z-0.125000
G01 X51.222831 Y179.193352 Z-0.125000
G01 X49.413398 Y175.674915 Z-0.125000
G01 X47.650148 Y172.757235 Z-0.125000
G01 X45.317358 Y169.471386 Z-0.125000
G01 X42.903621 Y166.606660 Z-0.125000
G01 X35.854748 Y159.957562 Z-0.125000
G01 X34.979541 Y158.540550 Z-0.125000
G01 X34.528940 Y157.220483 Z-0.125000
G01 X34.626143 Y155.431175 Z-0.125000
G01 X35.703946 Y151.491420 Z-0.125000
G01 X36.225561 Y148.755309 Z-0.125000
G01 X36.454796 Y146.105176 Z-0.125000
G01 X36.422030 Y143.205170 Z-0.125000
G01 X36.106429 Y140.177194 Z-0.125000
G01 X35.394537 Y136.570584 Z-0.125000
G01 X34.432706 Y133.189983 Z-0.125000
G01 X32.196602 Y126.692332 Z-0.125000
G01 X31.606810 Y124.018722 Z-0.125000
G01 X31.453492 Y119.790907 Z-0.125000
G01 X31.755096 Y117.204953 Z-0.125000
G01 X32.314445 Y114.602745 Z-0.125000
G01 X33.996489 Y109.731281 Z-0.125000
G01 X36.215757 Y105.394976 Z-0.125000
G01 X39.305138 Y100.860269 Z-0.125000
G01 X40.631204 Y98.480523 Z-0.125000
G01 X44.453310 Y94.308050 Z-0.125000
G01 X47.099636 Y90.752008 Z-0.125000
G01 X49.463709 Y86.513616 Z-0.125000
G01 X53.269432 Y78.039282 Z-0.125000
G01 X54.708631 Y75.802599 Z-0.125000
G01 X56.518128 Y73.838171 Z-0.125000
G01 X58.277315 Y72.457345 Z-0.125000
G01 X60.307468 Y71.230739 Z-0.125000
G01 X63.162970 Y69.886419 Z-0.125000
G01 X66.238612 Y68.761788 Z-0.125000
G01 X69.321607 Y67.969464 Z-0.125000
G01 X72.771932 Y67.517896 Z-0.125000
G01 X75.780622 Y67.515316 Z-0.125000
G01 X80.856102 Y67.906963 Z-0.125000
G01 X83.574218 Y67.564143 Z-0.125000
G01 X86.212417 Y66.612761 Z-0.125000
G01 X92.769989 Y63.557372 Z-0.125000
G01 X97.270060 Y61.703370 Z-0.125000
G01 X102.720868 Y59.753649 Z-0.125000
G01 X106.943974 Y58.543361 Z-0.125000
G01 X111.151729 Y57.736976 Z-0.125000
G01 X115.053042 Y57.473620 Z-0.125000
G01 X117.872358 Y57.706854 Z-0.125000
G01 X120.604729 Y58.483440 Z-0.125000
G01 X122.923393 Y59.879231 Z-0.125000
G01 X125.654666 Y62.510464 Z-0.125000
G01 X126.792520 Y63.363677 Z-0.125000
G01 X128.116973 Y63.990880 Z-0.125000
G01 X131.463581 Y65.019276 Z-0.125000
G01 X133.112343 Y65.881777 Z-0.125000
G01 X137.757411 Y69.906543 Z-0.125000
G01 X140.403867 Y71.883742 Z-0.125000
G01 X144.415153 Y74.409646 Z-0.125000
G01 X157.441932 Y81.991421 Z-0.125000
G01 X161.257459 Y84.663935 Z-0.125000
G01 X163.947065 Y87.017042 Z-0.125000
G01 X165.613435 Y89.028039 Z-0.125000
G01 X166.543855 Y90.850114 Z-0.125000
G01 X170.483868 Y105.703676 Z-0.125000
G01 X171.711248 Y109.025903 Z-0.125000
G01 X173.300928 Y112.200747 Z-0.125000
G01 X175.184536 Y114.966335 Z-0.125000
G01 X177.233330 Y117.181024 Z-0.125000
G01 X179.304054 Y118.866357 Z-0.125000
G01 X183.355266 Y121.658261 Z-0.125000
G01 X185.654321 Y123.835798 Z-0.125000
G01 X187.580242 Y126.280238 Z-0.125000
G01 X188.467188 Y128.668369 Z-0.125000
G01 X188.574839 Y130.376794 Z-0.125000
G01 X188.324836 Y132.386888 Z-0.125000
G01 X186.974389 Y136.638567 Z-0.125000
G01 X184.605479 Y141.649740 Z-0.125000
G01 X178.116857 Y153.615808 Z-0.125000
G01 X176.009755 Y158.600536 Z-0.125000
G01 X175.261291 Y161.287498 Z-0.125000
G01 X174.566363 Y164.917199 Z-0.125000
G01 X173.763912 Y174.837118 Z-0.125000
G01 X173.228300 Y178.039826 Z-0.125000
G01 X172.608128 Y179.975679 Z-0.125000
G01 X171.728405 Y181.688167 Z-0.125000
G01 X170.886480 Y182.806025 Z-0.125000
G01 X169.522940 Y184.069203 Z-0.125000
G01 X167.904751 Y185.091988 Z-0.125000
G01 X166.072292 Y185.919078 Z-0.125000
G01 X155.909980 Y188.993042 Z-0.125000
G01 X150.837016 Y191.194509 Z-0.125000
G01 X147.783820 Y193.120429 Z-0.125000
G01 X142.815605 Y197.429450 Z-0.125000
G01 X139.570714 Y199.745082 Z-0.125000
G01 X135.445584 Y201.931585 Z-0.125000
G01 X127.553367 Y205.168736 Z-0.125000
G01 X124.921360 Y206.435848 Z-0.125000
G01 X122.821417 Y207.812224 Z-0.125000
G01 X117.780510 Y211.964186 Z-0.125000
G01 X115.839625 Y213.043021 Z-0.125000
G01 X113.491871 Y213.959960 Z-0.125000
G01 X110.744731 Y214.674175 Z-0.125000
G01 X107.034017 Y215.227653 Z-0.125000
G01 X103.071816 Y215.443988 Z-0.125000
G01 X99.053886 Y215.373489 Z-0.125000
G01 X93.085526 Y214.979778 Z-0.125000
G01 X88.641764 Y214.411593 Z-0.125000
G01 X85.147836 Y213.578569 Z-0.125000
G01 X82.529761 Y212.558816 Z-0.125000
G01 X80.637123 Y211.516553 Z-0.125000
G01 X78.501447 Y209.960026 Z-0.125000
G01 X72.277084 Y203.877307 Z-0.125000
G01 X69.693323 Y201.770462 Z-0.125000
G01 X66.939410 Y200.129312 Z-0.125000
G01 X60.895455 Y197.315477 Z-0.125000
G01 X59.351055 Y196.263797 Z-0.125000
G01 X57.990030 Y194.965337 Z-0.125000
G01 X56.563343 Y193.054832 Z-0.125000
G01 X55.284427 Y190.781706 Z-0.125000
G01 X50.620590 Y179.454193 Z-0.125000
G01 X48.872368 Y175.957749 Z-0.125000
G01 X47.167426 Y173.062709 Z-0.125000
G01 X44.905458 Y169.804982 Z-0.125000
G01 X42.554028 Y166.965412 Z-0.125000
G01 X40.291737 Y164.652295 Z-0.125000
G01 X35.538889 Y160.346113 Z-0.125000
G01 X34.726828 Y159.102414 Z-0.125000
G01 X34.166448 Y157.593038 Z-0.125000
G01 X34.232174 Y155.811147 Z-0.125000
G01 X35.285467 Y151.888162 Z-0.125000
G01 X35.803728 Y149.149858 Z-0.125000
G01 X36.033285 Y146.490180 Z-0.125000
G01 X36.003164 Y143.574628 Z-0.125000
G01 X35.691884 Y140.526722 Z-0.125000
G01 X34.986313 Y136.893860 Z-0.125000
G01 X34.030803 Y133.487847 Z-0.125000
G01 X31.807342 Y126.925824 Z-0.125000
G01 X31.229675 Y124.202613 Z-0.125000
G01 X31.103254 Y119.871920 Z-0.125000
G01 X31.424144 Y117.214758 Z-0.125000
G01 X32.003939 Y114.538567 Z-0.125000
G01 X33.013953 Y111.323088 Z-0.125000
G01 X34.468116 Y107.886050 Z-0.125000
G01 X36.185055 Y104.698307 Z-0.125000
G01 X38.767849 Y100.648191 Z-0.125000
G01 X39.722456 Y98.455948 Z-0.125000
G01 X44.059083 Y93.481412 Z-0.125000
G01 X46.411480 Y90.247937 Z-0.125000
G01 X48.815156 Y85.935240 Z-0.125000
G01 X52.695442 Y77.389440 Z-0.125000
G01 X54.173213 Y75.157465 Z-0.125000
G01 X56.035213 Y73.209678 Z-0.125000
G01 X58.343041 Y71.535052 Z-0.125000
G01 X61.068897 Y70.102302 Z-0.125000
G01 X64.743942 Y68.654395 Z-0.125000
G01 X68.562629 Y67.591814 Z-0.125000
G01 X73.276261 Y66.992024 Z-0.125000
G01 X80.986973 Y67.398119 Z-0.125000
G01 X84.073451 Y66.937843 Z-0.125000
G01 X86.347417 Y66.058056 Z-0.125000
G01 X92.283204 Y63.198878 Z-0.125000
G01 X96.710002 Y61.305982 Z-0.125000
G01 X102.853481 Y59.076135 Z-0.125000
G01 X107.084521 Y57.869395 Z-0.125000
G01 X111.287631 Y57.089842 Z-0.125000
G01 X114.554453 Y56.869509 Z-0.125000
G01 X117.430272 Y57.073846 Z-0.125000
G01 X120.225272 Y57.838371 Z-0.125000
G01 X122.582765 Y59.254802 Z-0.125000
G01 X126.369977 Y62.887018 Z-0.125000
G01 X127.664502 Y63.549826 Z-0.125000
G01 X131.037749 Y64.592283 Z-0.125000
G01 X132.461275 Y65.279600 Z-0.125000
G01 X133.768378 Y66.235884 Z-0.125000
G01 X137.709358 Y69.775607 Z-0.125000
G01 X140.408382 Y71.747065 Z-0.125000
G01 X144.501841 Y74.228657 Z-0.125000
G01 X157.837836 Y81.622801 Z-0.125000
G01 X161.771915 Y84.248745 Z-0.125000
G01 X164.879291 Y86.891589 Z-0.125000
G01 X166.325327 Y88.623105 Z-0.125000
G01 X167.295673 Y90.527998 Z-0.125000
G01 X168.313362 Y95.204284 Z-0.125000
G01 X171.166155 Y105.222502 Z-0.125000
G01 X172.597550 Y109.113624 Z-0.125000
G01 X174.178199 Y112.290660 Z-0.125000
G01 X176.014464 Y115.038059 Z-0.125000
G01 X177.984567 Y117.215080 Z-0.125000
G01 X179.961185 Y118.851006 Z-0.125000
G01 X183.854306 Y121.564671 Z-0.125000
G01 X186.126787 Y123.758204 Z-0.125000
G01 X188.076702 Y126.242764 Z-0.125000
G01 X189.034793 Y128.683011 Z-0.125000
G01 X189.196753 Y130.432522 Z-0.125000
G01 X189.002865 Y132.491443 Z-0.125000
G01 X188.422489 Y134.866351 Z-0.125000
G01 X187.460400 Y137.532544 Z-0.125000
G01 X185.011380 Y142.721932 Z-0.125000
G01 X178.525468 Y154.727603 Z-0.125000
G01 X176.505828 Y159.583717 Z-0.125000
G01 X175.041990 Y165.879417 Z-0.125000
G01 X174.250891 Y175.247857 Z-0.125000
G01 X173.716762 Y178.423604 Z-0.125000
G01 X172.471193 Y181.624312 Z-0.125000
G01 X171.687190 Y182.768615 Z-0.125000
G01 X170.400211 Y184.063205 Z-0.125000
G01 X168.853102 Y185.107984 Z-0.125000
G01 X167.081725 Y185.945265 Z-0.125000
G01 X156.456299 Y189.215763 Z-0.125000
G01 X153.429872 Y190.421922 Z-0.125000
G01 X150.586496 Y191.819583 Z-0.125000
G01 X147.710032 Y193.667587 Z-0.125000
G01 X142.398674 Y198.307560 Z-0.125000
G01 X139.038584 Y200.722200 Z-0.125000
G01 X134.869530 Y202.950241 Z-0.125000
G01 X124.980829 Y207.261971 Z-0.125000
G01 X122.925070 Y208.613837 Z-0.125000
G01 X118.322701 Y212.404918 Z-0.125000
G01 X116.448316 Y213.460469 Z-0.125000
G01 X114.151905 Y214.366249 Z-0.125000
G01 X110.840385 Y215.201402 Z-0.125000
G01 X107.059043 Y215.723082 Z-0.125000
G01 X103.035502 Y215.925807 Z-0.125000
G01 X98.974679 Y215.858791 Z-0.125000
G01 X92.958976 Y215.500684 Z-0.125000
G01 X88.499411 Y215.007771 Z-0.125000
G01 X85.014772 Y214.268466 Z-0.125000
G01 X81.935195 Y213.108038 Z-0.125000
G01 X80.110992 Y212.079126 Z-0.125000
G01 X78.052523 Y210.536080 Z-0.125000
G01 X72.598296 Y205.183248 Z-0.125000
G01 X69.969514 Y202.981782 Z-0.125000
G01 X67.130267 Y201.226659 Z-0.125000
G01 X60.430729 Y198.012470 Z-0.125000
G01 X58.821699 Y196.875907 Z-0.125000
G01 X57.406558 Y195.489146 Z-0.125000
G01 X55.938849 Y193.480987 Z-0.125000
G01 X54.642131 Y191.130976 Z-0.125000
G01 X49.759572 Y179.161876 Z-0.125000
G01 X48.018059 Y175.686589 Z-0.125000
G01 X46.333693 Y172.839150 Z-0.125000
G01 X44.117198 Y169.669015 Z-0.125000
G01 X41.830332 Y166.935355 Z-0.125000
G01 X35.227481 Y160.739824 Z-0.125000
G01 X34.387620 Y159.484902 Z-0.125000
G01 X33.804729 Y157.969785 Z-0.125000
G01 X33.834141 Y156.198666 Z-0.125000
G01 X35.359771 Y149.551761 Z-0.125000
G01 X35.587071 Y146.883117 Z-0.125000
G01 X35.559142 Y143.952988 Z-0.125000
G01 X35.253990 Y140.886506 Z-0.125000
G01 X34.559127 Y137.229069 Z-0.125000
G01 X33.615484 Y133.798933 Z-0.125000
G01 X31.565916 Y127.690413 Z-0.125000
G01 X30.854476 Y124.399081 Z-0.125000
G01 X30.756951 Y119.962995 Z-0.125000
G01 X31.096869 Y117.232431 Z-0.125000
G01 X31.696272 Y114.478904 Z-0.125000
G01 X32.728925 Y111.169900 Z-0.125000
G01 X33.948565 Y108.184881 Z-0.125000
G01 X35.447814 Y105.209731 Z-0.125000
G01 X38.179217 Y100.603815 Z-0.125000
G01 X39.058617 Y98.097261 Z-0.125000
G01 X43.366928 Y93.017911 Z-0.125000
G01 X45.755252 Y89.716711 Z-0.125000
G01 X47.920083 Y85.902409 Z-0.125000
G01 X52.144543 Y76.740952 Z-0.125000
G01 X53.656951 Y74.520587 Z-0.125000
G01 X55.149105 Y72.957159 Z-0.125000
G01 X57.425973 Y71.259828 Z-0.125000
G01 X60.142927 Y69.818629 Z-0.125000
G01 X63.844998 Y68.371689 Z-0.125000
G01 X67.760178 Y67.255186 Z-0.125000
G01 X72.676342 Y66.543423 Z-0.125000
G01 X75.345502 Y66.516720 Z-0.125000
G01 X81.116877 Y66.894241 Z-0.125000
G01 X84.212837 Y66.405779 Z-0.125000
G01 X96.797659 Y60.628985 Z-0.125000
G01 X102.958230 Y58.380755 Z-0.125000
G01 X107.195204 Y57.180917 Z-0.125000
G01 X111.393735 Y56.432776 Z-0.125000
G01 X114.643979 Y56.257205 Z-0.125000
G01 X117.489161 Y56.518626 Z-0.125000
G01 X119.826272 Y57.183755 Z-0.125000
G01 X122.236527 Y58.619923 Z-0.125000
G01 X125.095253 Y61.661831 Z-0.125000
G01 X126.186086 Y62.563548 Z-0.125000
G01 X127.494027 Y63.216616 Z-0.125000
G01 X130.595147 Y64.154840 Z-0.125000
G01 X132.052213 Y64.828935 Z-0.125000
G01 X133.643698 Y66.001038 Z-0.125000
G01 X137.659628 Y69.622741 Z-0.125000
G01 X140.414767 Y71.584717 Z-0.125000
G01 X144.590981 Y74.017031 Z-0.125000
G01 X158.867844 Y81.591002 Z-0.125000
G01 X162.762578 Y84.140062 Z-0.125000
G01 X165.811581 Y86.728016 Z-0.125000
G01 X167.034123 Y88.195015 Z-0.125000
G01 X167.944742 Y89.911051 Z-0.125000
G01 X169.052731 Y95.406364 Z-0.125000
G01 X171.834896 Y104.741328 Z-0.125000
G01 X173.244296 Y108.650446 Z-0.125000
G01 X175.048698 Y112.389282 Z-0.125000
G01 X176.833297 Y115.122877 Z-0.125000
G01 X178.718325 Y117.266874 Z-0.125000
G01 X180.285622 Y118.623900 Z-0.125000
G01 X184.579227 Y121.715409 Z-0.125000
G01 X187.030697 Y124.239184 Z-0.125000
G01 X188.896439 Y126.871321 Z-0.125000
G01 X189.651804 Y129.135869 Z-0.125000
G01 X189.787191 Y130.999740 Z-0.125000
G01 X189.556731 Y133.184049 Z-0.125000
G01 X188.931205 Y135.685895 Z-0.125000
G01 X187.919514 Y138.470317 Z-0.125000
G01 X185.392707 Y143.816054 Z-0.125000
G01 X179.254388 Y155.139762 Z-0.125000
G01 X177.171796 Y159.983814 Z-0.125000
G01 X176.246730 Y163.143822 Z-0.125000
G01 X175.578569 Y166.293188 Z-0.125000
G01 X174.721164 Y175.632667 Z-0.125000
G01 X174.188261 Y178.783065 Z-0.125000
G01 X172.952431 Y181.945782 Z-0.125000
G01 X172.174813 Y183.070607 Z-0.125000
G01 X170.898735 Y184.336364 Z-0.125000
G01 X169.365559 Y185.350506 Z-0.125000
G01 X167.610758 Y186.158245 Z-0.125000
G01 X157.023323 Y189.445126 Z-0.125000
G01 X150.615844 Y192.287663 Z-0.125000
G01 X147.578902 Y194.253445 Z-0.125000
G01 X141.921563 Y199.235980 Z-0.125000
G01 X138.462401 Y201.734858 Z-0.125000
G01 X134.270772 Y203.989151 Z-0.125000
G01 X125.031978 Y208.087835 Z-0.125000
G01 X123.023562 Y209.410740 Z-0.125000
G01 X118.849347 Y212.842554 Z-0.125000
G01 X117.048042 Y213.867918 Z-0.125000
G01 X114.811487 Y214.754800 Z-0.125000
G01 X111.536990 Y215.585438 Z-0.125000
G01 X107.748553 Y216.123436 Z-0.125000
G01 X103.685022 Y216.359508 Z-0.125000
G01 X99.575760 Y216.331128 Z-0.125000
G01 X92.173682 Y215.939158 Z-0.125000
G01 X87.752560 Y215.487010 Z-0.125000
G01 X84.346030 Y214.784728 Z-0.125000
G01 X81.369526 Y213.653196 Z-0.125000
G01 X78.013565 Y211.433669 Z-0.125000
G01 X72.576947 Y206.144435 Z-0.125000
G01 X69.882245 Y203.915169 Z-0.125000
G01 X66.937346 Y202.112057 Z-0.125000
G01 X60.346104 Y198.921927 Z-0.125000
G01 X58.310275 Y197.482018 Z-0.125000
G01 X56.835793 Y196.006117 Z-0.125000
G01 X55.318870 Y193.898176 Z-0.125000
G01 X54.002544 Y191.472506 Z-0.125000
G01 X49.164749 Y179.466190 Z-0.125000
G01 X45.863097 Y173.210802 Z-0.125000
G01 X43.720584 Y170.072014 Z-0.125000
G01 X41.497897 Y167.359123 Z-0.125000
G01 X34.763529 Y160.954933 Z-0.125000
G01 X33.957337 Y159.684725 Z-0.125000
G01 X33.401859 Y158.153805 Z-0.125000
G01 X33.429981 Y156.594570 Z-0.125000
G01 X34.890079 Y149.959146 Z-0.125000
G01 X35.112347 Y147.281859 Z-0.125000
G01 X35.086289 Y144.337927 Z-0.125000
G01 X34.789200 Y141.254287 Z-0.125000
G01 X34.109881 Y137.574147 Z-0.125000
G01 X33.184427 Y134.121371 Z-0.125000
G01 X31.169367 Y127.957316 Z-0.125000
G01 X30.480437 Y124.607611 Z-0.125000
G01 X30.414066 Y120.065099 Z-0.125000
G01 X31.214840 Y115.131391 Z-0.125000
G01 X33.173914 Y109.126782 Z-0.125000
G01 X34.940002 Y105.355180 Z-0.125000
G01 X37.707976 Y100.400574 Z-0.125000
G01 X38.494754 Y97.570937 Z-0.125000
G01 X42.707797 Y92.525256 Z-0.125000
G01 X45.133661 Y89.159040 Z-0.125000
G01 X47.333128 Y85.291074 Z-0.125000
G01 X51.348091 Y76.571057 Z-0.125000
G01 X52.823669 Y74.308831 Z-0.125000
G01 X54.687669 Y72.351564 Z-0.125000
G01 X57.018910 Y70.689063 Z-0.125000
G01 X59.799720 Y69.287984 Z-0.125000
G01 X63.581707 Y67.892773 Z-0.125000
G01 X67.583189 Y66.804327 Z-0.125000
G01 X72.616873 Y66.091984 Z-0.125000
G01 X75.351113 Y66.055863 Z-0.125000
G01 X81.242847 Y66.394040 Z-0.125000
G01 X83.992181 Y65.978076 Z-0.125000
G01 X86.183585 Y65.105320 Z-0.125000
G01 X92.442391 Y61.886680 Z-0.125000
G01 X96.194127 Y60.202572 Z-0.125000
G01 X102.336445 Y57.898163 Z-0.125000
G01 X106.562905 Y56.647950 Z-0.125000
G01 X110.784785 Y55.844596 Z-0.125000
G01 X114.085083 Y55.629035 Z-0.125000
G01 X116.997474 Y55.863301 Z-0.125000
G01 X119.402955 Y56.518820 Z-0.125000
G01 X120.939035 Y57.290955 Z-0.125000
G01 X122.159771 Y58.214989 Z-0.125000
G01 X125.767800 Y62.080956 Z-0.125000
G01 X127.039492 Y62.772659 Z-0.125000
G01 X130.452213 Y63.825565 Z-0.125000
G01 X131.907732 Y64.530040 Z-0.125000
G01 X133.246956 Y65.521541 Z-0.125000
G01 X137.214123 Y69.131183 Z-0.125000
G01 X140.426248 Y71.395344 Z-0.125000
G01 X144.685281 Y73.773606 Z-0.125000
G01 X159.262845 Y81.127953 Z-0.125000
G01 X163.271164 Y83.636120 Z-0.125000
G01 X166.447298 Y86.231168 Z-0.125000
G01 X167.738662 Y87.746672 Z-0.125000
G01 X168.689658 Y89.551977 Z-0.125000
G01 X169.076790 Y91.047743 Z-0.125000
G01 X169.701348 Y95.304841 Z-0.125000
G01 X172.312199 Y103.715706 Z-0.125000
G01 X174.117052 Y108.741714 Z-0.125000
G01 X175.911392 Y112.492934 Z-0.125000
G01 X177.640263 Y115.217822 Z-0.125000
G01 X179.434538 Y117.334406 Z-0.125000
G01 X181.202432 Y118.884869 Z-0.125000
G01 X185.000802 Y121.671936 Z-0.125000
G01 X187.429956 Y124.220157 Z-0.125000
G01 X189.336977 Y126.892477 Z-0.125000
G01 X190.164777 Y129.197660 Z-0.125000
G01 X190.360084 Y131.096555 Z-0.125000
G01 X190.190577 Y133.321629 Z-0.125000
G01 X189.620199 Y135.868496 Z-0.125000
G01 X188.652047 Y138.699874 Z-0.125000
G01 X186.164391 Y144.123334 Z-0.125000
G01 X179.640940 Y156.187056 Z-0.125000
G01 X177.637554 Y160.897592 Z-0.125000
G01 X176.691009 Y164.045539 Z-0.125000
G01 X176.009691 Y167.216126 Z-0.125000
G01 X175.175635 Y175.989484 Z-0.125000
G01 X174.643441 Y179.116726 Z-0.125000
G01 X173.417802 Y182.247064 Z-0.125000
G01 X172.647537 Y183.355505 Z-0.125000
G01 X171.384295 Y184.597140 Z-0.125000
G01 X169.867759 Y185.585481 Z-0.125000
G01 X168.133599 Y186.368066 Z-0.125000
G01 X157.609568 Y189.681069 Z-0.125000
G01 X150.603524 Y192.774126 Z-0.125000
G01 X147.389271 Y194.882777 Z-0.125000
G01 X141.390144 Y200.211937 Z-0.125000
G01 X137.849711 Y202.777702 Z-0.125000
G01 X134.153381 Y204.804824 Z-0.125000
G01 X125.077064 Y208.910539 Z-0.125000
G01 X123.118378 Y210.200484 Z-0.125000
G01 X119.045042 Y213.485624 Z-0.125000
G01 X117.240576 Y214.452551 Z-0.125000
G01 X115.467973 Y215.129935 Z-0.125000
G01 X112.241078 Y215.946963 Z-0.125000
G01 X108.453028 Y216.492444 Z-0.125000
G01 X104.351377 Y216.754832 Z-0.125000
G01 X100.190449 Y216.761862 Z-0.125000
G01 X87.613303 Y216.033007 Z-0.125000
G01 X84.222577 Y215.434442 Z-0.125000
G01 X81.281031 Y214.411915 Z-0.125000
G01 X79.555836 Y213.461952 Z-0.125000
G01 X77.982347 Y212.311521 Z-0.125000
G01 X72.568433 Y207.093495 Z-0.125000
G01 X69.809424 Y204.839074 Z-0.125000
G01 X66.761324 Y202.990360 Z-0.125000
G01 X59.938783 Y199.622338 Z-0.125000
G01 X57.817813 Y198.081227 Z-0.125000
G01 X56.279412 Y196.516510 Z-0.125000
G01 X54.705406 Y194.308013 Z-0.125000
G01 X53.364505 Y191.806425 Z-0.125000
G01 X48.568055 Y179.790756 Z-0.125000
G01 X45.390631 Y173.613350 Z-0.125000
G01 X43.323519 Y170.507264 Z-0.125000
G01 X40.808903 Y167.410982 Z-0.125000
G01 X34.452378 Y161.351547 Z-0.125000
G01 X33.617097 Y160.073598 Z-0.125000
G01 X33.033109 Y158.548871 Z-0.125000
G01 X33.058716 Y156.745566 Z-0.125000
G01 X34.005841 Y152.698289 Z-0.125000
G01 X34.450637 Y149.859106 Z-0.125000
G01 X34.581121 Y144.726994 Z-0.125000
G01 X34.294352 Y141.627487 Z-0.125000
G01 X33.635866 Y137.926513 Z-0.125000
G01 X32.735246 Y134.452710 Z-0.125000
G01 X30.767916 Y128.234861 Z-0.125000
G01 X30.181349 Y125.432895 Z-0.125000
G01 X30.023838 Y120.880127 Z-0.125000
G01 X30.331119 Y118.025980 Z-0.125000
G01 X30.906786 Y115.109719 Z-0.125000
G01 X31.927313 Y111.557806 Z-0.125000
G01 X33.153274 Y108.313237 Z-0.125000
G01 X37.334648 Y100.011765 Z-0.125000
G01 X37.868131 Y97.181612 Z-0.125000
G01 X42.435089 Y91.557168 Z-0.125000
G01 X44.549157 Y88.576213 Z-0.125000
G01 X46.782616 Y84.660968 Z-0.125000
G01 X50.845116 Y75.925149 Z-0.125000
G01 X52.344430 Y73.685563 Z-0.125000
G01 X53.827425 Y72.120716 Z-0.125000
G01 X56.110550 Y70.439640 Z-0.125000
G01 X58.865108 Y69.032239 Z-0.125000
G01 X62.654964 Y67.642124 Z-0.125000
G01 X67.401814 Y66.379978 Z-0.125000
G01 X72.549147 Y65.662023 Z-0.125000
G01 X75.349243 Y65.610552 Z-0.125000
G01 X81.359593 Y65.896289 Z-0.125000
G01 X84.106992 Y65.437755 Z-0.125000
G01 X85.896558 Y64.706126 Z-0.125000
G01 X91.916712 Y61.484907 Z-0.125000
G01 X96.230570 Y59.485004 Z-0.125000
G01 X102.378177 Y57.166727 Z-0.125000
G01 X106.607540 Y55.926898 Z-0.125000
G01 X110.826904 Y55.160374 Z-0.125000
G01 X114.116881 Y54.995640 Z-0.125000
G01 X117.008310 Y55.293568 Z-0.125000
G01 X119.381219 Y56.017973 Z-0.125000
G01 X121.799213 Y57.562244 Z-0.125000
G01 X124.541259 Y60.805587 Z-0.125000
G01 X125.583264 Y61.758131 Z-0.125000
G01 X126.868243 Y62.438611 Z-0.125000
G01 X129.999613 Y63.383027 Z-0.125000
G01 X131.758800 Y64.228371 Z-0.125000
G01 X136.772359 Y68.617114 Z-0.125000
G01 X139.911599 Y70.852250 Z-0.125000
G01 X144.106840 Y73.161497 Z-0.125000
G01 X155.359339 Y78.433251 Z-0.125000
G01 X160.302980 Y80.984182 Z-0.125000
G01 X164.262408 Y83.431073 Z-0.125000
G01 X167.387070 Y86.019542 Z-0.125000
G01 X168.650055 Y87.595547 Z-0.125000
G01 X169.429027 Y89.181099 Z-0.125000
G01 X169.809903 Y90.758910 Z-0.125000
G01 X170.207032 Y94.536704 Z-0.125000
G01 X170.729615 Y96.590529 Z-0.125000
G01 X174.302169 Y107.122235 Z-0.125000
G01 X176.765249 Y112.597683 Z-0.125000
G01 X178.435038 Y115.319733 Z-0.125000
G01 X180.133401 Y117.415483 Z-0.125000
G01 X181.788032 Y118.931632 Z-0.125000
G01 X185.390127 Y121.654520 Z-0.125000
G01 X188.257949 Y124.784085 Z-0.125000
G01 X189.928447 Y127.287349 Z-0.125000
G01 X190.741605 Y129.730241 Z-0.125000
G01 X190.913434 Y131.741044 Z-0.125000
G01 X190.797269 Y133.467852 Z-0.125000
G01 X190.451546 Y135.378421 Z-0.125000
G01 X189.629616 Y138.184580 Z-0.125000
G01 X187.318370 Y143.611394 Z-0.125000
G01 X180.683203 Y155.884033 Z-0.125000
G01 X178.474126 Y160.701769 Z-0.125000
G01 X177.252293 Y164.401259 Z-0.125000
G01 X176.511891 Y167.579973 Z-0.125000
G01 X175.550383 Y176.852823 Z-0.125000
G01 X174.954011 Y179.907825 Z-0.125000
G01 X174.292816 Y181.714355 Z-0.125000
G01 X173.630461 Y182.909936 Z-0.125000
G01 X171.856568 Y184.846112 Z-0.125000
G01 X169.094269 Y186.401348 Z-0.125000
G01 X158.700078 Y189.740926 Z-0.125000
G01 X153.691099 Y191.771982 Z-0.125000
G01 X150.544829 Y193.284325 Z-0.125000
G01 X147.141718 Y195.559838 Z-0.125000
G01 X141.178776 Y200.922990 Z-0.125000
G01 X137.636666 Y203.572155 Z-0.125000
G01 X133.527662 Y205.867986 Z-0.125000
G01 X125.118280 Y209.727373 Z-0.125000
G01 X123.211323 Y210.980682 Z-0.125000
G01 X119.552016 Y213.914939 Z-0.125000
G01 X117.831207 Y214.842585 Z-0.125000
G01 X116.118590 Y215.495459 Z-0.125000
G01 X112.950454 Y216.290686 Z-0.125000
G01 X109.171563 Y216.835199 Z-0.125000
G01 X105.035017 Y217.116550 Z-0.125000
G01 X100.819781 Y217.154799 Z-0.125000
G01 X86.881610 Y216.489154 Z-0.125000
G01 X83.584409 Y215.936965 Z-0.125000
G01 X80.755739 Y214.945464 Z-0.125000
G01 X79.102785 Y214.007497 Z-0.125000
G01 X77.589087 Y212.864613 Z-0.125000
G01 X72.570561 Y208.026946 Z-0.125000
G01 X70.173723 Y206.053102 Z-0.125000
G01 X67.065121 Y204.104671 Z-0.125000
G01 X59.553715 Y200.313203 Z-0.125000
G01 X57.345025 Y198.672697 Z-0.125000
G01 X55.738640 Y197.020581 Z-0.125000
G01 X54.100521 Y194.712108 Z-0.125000
G01 X52.726982 Y192.133314 Z-0.125000
G01 X47.729226 Y179.581258 Z-0.125000
G01 X44.595340 Y173.513503 Z-0.125000
G01 X42.579441 Y170.497266 Z-0.125000
G01 X40.486723 Y167.894284 Z-0.125000
G01 X33.988233 Y161.565688 Z-0.125000
G01 X33.184492 Y160.288514 Z-0.125000
G01 X32.618887 Y158.752757 Z-0.125000
G01 X32.629465 Y157.159143 Z-0.125000
G01 X33.916637 Y150.268619 Z-0.125000
G01 X34.040607 Y145.116835 Z-0.125000
G01 X33.766609 Y142.002945 Z-0.125000
G01 X33.134504 Y138.283072 Z-0.125000
G01 X30.360144 Y128.520534 Z-0.125000
G01 X29.800989 Y125.673224 Z-0.125000
G01 X29.679986 Y121.021577 Z-0.125000
G01 X30.006230 Y118.095189 Z-0.125000
G01 X30.599312 Y115.099657 Z-0.125000
G01 X31.638608 Y111.445962 Z-0.125000
G01 X32.878050 Y108.105739 Z-0.125000
G01 X36.897528 Y99.811555 Z-0.125000
G01 X37.127665 Y98.778967 Z-0.125000
G01 X37.098124 Y97.368083 Z-0.125000
G01 X37.349612 Y96.610073 Z-0.125000
G01 X41.854520 Y91.000464 Z-0.125000
G01 X44.003290 Y87.969844 Z-0.125000
G01 X46.270160 Y84.013706 Z-0.125000
G01 X50.370779 Y75.283111 Z-0.125000
G01 X51.889314 Y73.072550 Z-0.125000
G01 X53.396562 Y71.537567 Z-0.125000
G01 X55.721934 Y69.899190 Z-0.125000
G01 X58.529125 Y68.537133 Z-0.125000
G01 X62.387416 Y67.200812 Z-0.125000
G01 X66.523575 Y66.128169 Z-0.125000
G01 X72.473101 Y65.251220 Z-0.125000
G01 X75.340277 Y65.177818 Z-0.125000
G01 X81.100301 Y65.410149 Z-0.125000
G01 X83.863309 Y64.999732 Z-0.125000
G01 X85.975120 Y64.111625 Z-0.125000
G01 X91.942448 Y60.777465 Z-0.125000
G01 X95.585501 Y59.027437 Z-0.125000
G01 X101.003607 Y56.899888 Z-0.125000
G01 X105.906613 Y55.367292 Z-0.125000
G01 X110.144811 Y54.545878 Z-0.125000
G01 X113.487292 Y54.341670 Z-0.125000
G01 X116.455540 Y54.613733 Z-0.125000
G01 X118.912558 Y55.330204 Z-0.125000
G01 X120.475212 Y56.163551 Z-0.125000
G01 X121.703172 Y57.154730 Z-0.125000
G01 X124.363108 Y60.482246 Z-0.125000
G01 X125.401244 Y61.433113 Z-0.125000
G01 X126.700864 Y62.101209 Z-0.125000
G01 X130.162348 Y63.169015 Z-0.125000
G01 X131.608127 Y63.926960 Z-0.125000
G01 X136.714889 Y68.391814 Z-0.125000
G01 X139.407398 Y70.292643 Z-0.125000
G01 X144.207461 Y72.864278 Z-0.125000
G01 X155.650946 Y77.948208 Z-0.125000
G01 X160.693660 Y80.431025 Z-0.125000
G01 X165.249201 Y83.182939 Z-0.125000
G01 X168.021110 Y85.477287 Z-0.125000
G01 X169.352078 Y87.126564 Z-0.125000
G01 X170.161108 Y88.798159 Z-0.125000
G01 X170.535920 Y90.461240 Z-0.125000
G01 X170.849135 Y94.400286 Z-0.125000
G01 X171.355463 Y96.514096 Z-0.125000
G01 X175.144223 Y107.188348 Z-0.125000
G01 X177.609303 Y112.699658 Z-0.125000
G01 X179.217042 Y115.425256 Z-0.125000
G01 X180.815171 Y117.507396 Z-0.125000
G01 X182.351767 Y118.996197 Z-0.125000
G01 X185.990175 Y121.887561 Z-0.125000
G01 X188.827101 Y125.111683 Z-0.125000
G01 X190.500760 Y127.728855 Z-0.125000
G01 X191.301147 Y130.312810 Z-0.125000
G01 X191.448337 Y132.434296 Z-0.125000
G01 X191.304436 Y134.246760 Z-0.125000
G01 X190.924464 Y136.240857 Z-0.125000
G01 X190.050675 Y139.147701 Z-0.125000
G01 X187.654675 Y144.695712 Z-0.125000
G01 X181.035570 Y156.871858 Z-0.125000
G01 X178.898732 Y161.556142 Z-0.125000
G01 X177.801256 Y164.730405 Z-0.125000
G01 X177.002031 Y167.915247 Z-0.125000
G01 X175.975376 Y177.145526 Z-0.125000
G01 X175.379779 Y180.183887 Z-0.125000
G01 X174.723938 Y181.979839 Z-0.125000
G01 X174.068161 Y183.167099 Z-0.125000
G01 X172.315618 Y185.083990 Z-0.125000
G01 X169.594535 Y186.613490 Z-0.125000
G01 X159.323089 Y189.983125 Z-0.125000
G01 X153.725671 Y192.236321 Z-0.125000
G01 X150.437048 Y193.823485 Z-0.125000
G01 X147.180612 Y196.010826 Z-0.125000
G01 X140.568988 Y201.973123 Z-0.125000
G01 X136.976116 Y204.657698 Z-0.125000
G01 X133.378085 Y206.698365 Z-0.125000
G01 X125.157948 Y210.535500 Z-0.125000
G01 X123.304203 Y211.749077 Z-0.125000
G01 X120.039704 Y214.345931 Z-0.125000
G01 X116.760692 Y215.855050 Z-0.125000
G01 X113.662798 Y216.621251 Z-0.125000
G01 X109.902999 Y217.156799 Z-0.125000
G01 X101.464786 Y217.514132 Z-0.125000
G01 X86.165912 Y216.942786 Z-0.125000
G01 X82.971525 Y216.437812 Z-0.125000
G01 X80.259601 Y215.474303 Z-0.125000
G01 X77.575478 Y213.709118 Z-0.125000
G01 X72.580946 Y208.941435 Z-0.125000
G01 X70.134958 Y206.951723 Z-0.125000
G01 X66.933218 Y204.965043 Z-0.125000
G01 X59.190835 Y200.992586 Z-0.125000
G01 X56.892618 Y199.255459 Z-0.125000
G01 X55.214444 Y197.518461 Z-0.125000
G01 X53.505761 Y195.111818 Z-0.125000
G01 X52.091201 Y192.455171 Z-0.125000
G01 X47.135434 Y179.955813 Z-0.125000
G01 X44.128098 Y173.984163 Z-0.125000
G01 X42.188891 Y170.999273 Z-0.125000
G01 X39.824496 Y168.015867 Z-0.125000
G01 X33.527119 Y161.788473 Z-0.125000
G01 X32.748727 Y160.516588 Z-0.125000
G01 X32.235174 Y159.170462 Z-0.125000
G01 X32.221499 Y157.315815 Z-0.125000
G01 X33.347227 Y150.675037 Z-0.125000
G01 X33.462102 Y145.504032 Z-0.125000
G01 X33.203391 Y142.376983 Z-0.125000
G01 X32.603536 Y138.640405 Z-0.125000
G01 X29.944503 Y128.811302 Z-0.125000
G01 X29.417469 Y125.919939 Z-0.125000
G01 X29.336005 Y121.172186 Z-0.125000
G01 X29.681083 Y118.175299 Z-0.125000
G01 X30.290612 Y115.101850 Z-0.125000
G01 X31.346873 Y111.346825 Z-0.125000
G01 X32.598118 Y107.909851 Z-0.125000
G01 X36.468793 Y99.622182 Z-0.125000
G01 X36.695706 Y98.528640 Z-0.125000
G01 X36.549354 Y96.960633 Z-0.125000
G01 X36.771494 Y96.185337 Z-0.125000
G01 X41.678305 Y89.938528 Z-0.125000
G01 X43.849198 Y86.790130 Z-0.125000
G01 X46.089687 Y82.767814 Z-0.125000
G01 X49.656565 Y75.120570 Z-0.125000
G01 X51.122661 Y72.879500 Z-0.125000
G01 X52.575664 Y71.325683 Z-0.125000
G01 X54.835504 Y69.673116 Z-0.125000
G01 X57.597609 Y68.307189 Z-0.125000
G01 X61.444354 Y66.976350 Z-0.125000
G01 X66.322462 Y65.748712 Z-0.125000
G01 X72.389186 Y64.856477 Z-0.125000
G01 X75.865892 Y64.758049 Z-0.125000
G01 X81.182732 Y64.920203 Z-0.125000
G01 X83.604791 Y64.555001 Z-0.125000
G01 X85.666678 Y63.694500 Z-0.125000
G01 X91.394323 Y60.346666 Z-0.125000
G01 X95.568859 Y58.269041 Z-0.125000
G01 X100.980064 Y56.133558 Z-0.125000
G01 X105.881522 Y54.615668 Z-0.125000
G01 X109.421438 Y53.923126 Z-0.125000
G01 X112.813133 Y53.678282 Z-0.125000
G01 X115.860265 Y53.922997 Z-0.125000
G01 X118.408809 Y54.630245 Z-0.125000
G01 X120.040220 Y55.470364 Z-0.125000
G01 X121.322490 Y56.480893 Z-0.125000
G01 X124.186570 Y60.157293 Z-0.125000
G01 X124.996761 Y60.938845 Z-0.125000
G01 X126.251941 Y61.648609 Z-0.125000
G01 X129.398985 Y62.601604 Z-0.125000
G01 X131.179005 Y63.444238 Z-0.125000
G01 X136.273255 Y67.832530 Z-0.125000
G01 X139.427651 Y70.030449 Z-0.125000
G01 X144.321433 Y72.535842 Z-0.125000
G01 X155.940102 Y77.425431 Z-0.125000
G01 X161.073826 Y79.839814 Z-0.125000
G01 X165.751338 Y82.566508 Z-0.125000
G01 X168.646378 Y84.913552 Z-0.125000
G01 X170.045200 Y86.641714 Z-0.125000
G01 X170.884352 Y88.403287 Z-0.125000
G01 X171.253230 Y90.153766 Z-0.125000
G01 X171.481884 Y94.253483 Z-0.125000
G01 X171.969444 Y96.424634 Z-0.125000
G01 X175.975505 Y107.240852 Z-0.125000
G01 X178.442843 Y112.794667 Z-0.125000
G01 X179.986275 Y115.530843 Z-0.125000
G01 X181.721790 Y117.890013 Z-0.125000
G01 X186.316935 Y121.920972 Z-0.125000
G01 X189.374130 Y125.476627 Z-0.125000
G01 X190.875701 Y127.826251 Z-0.125000
G01 X191.760390 Y130.438263 Z-0.125000
G01 X191.972661 Y132.582324 Z-0.125000
G01 X191.877072 Y134.413816 Z-0.125000
G01 X191.541798 Y136.428231 Z-0.125000
G01 X190.717740 Y139.363197 Z-0.125000
G01 X187.966922 Y145.778804 Z-0.125000
G01 X181.381679 Y157.807696 Z-0.125000
G01 X179.301087 Y162.374654 Z-0.125000
G01 X178.169941 Y165.562591 Z-0.125000
G01 X177.374586 Y168.754205 Z-0.125000
G01 X176.387921 Y177.406366 Z-0.125000
G01 X175.792066 Y180.432472 Z-0.125000
G01 X174.491865 Y183.405171 Z-0.125000
G01 X172.761510 Y185.311870 Z-0.125000
G01 X170.085191 Y186.826277 Z-0.125000
G01 X160.955790 Y189.849093 Z-0.125000
G01 X154.178206 Y192.520704 Z-0.125000
G01 X150.687697 Y194.168563 Z-0.125000
G01 X146.844177 Y196.769481 Z-0.125000
G01 X140.306922 Y202.731778 Z-0.125000
G01 X136.722694 Y205.481370 Z-0.125000
G01 X132.750173 Y207.766751 Z-0.125000
G01 X125.198648 Y211.332210 Z-0.125000
G01 X120.230819 Y214.954816 Z-0.125000
G01 X117.391701 Y216.211608 Z-0.125000
G01 X114.375528 Y216.942980 Z-0.125000
G01 X110.645787 Y217.462402 Z-0.125000
G01 X106.454867 Y217.759685 Z-0.125000
G01 X101.410412 Y217.840956 Z-0.125000
G01 X85.468210 Y217.396870 Z-0.125000
G01 X82.384699 Y216.937562 Z-0.125000
G01 X79.791586 Y215.997015 Z-0.125000
G01 X77.214984 Y214.237764 Z-0.125000
G01 X72.597135 Y209.833928 Z-0.125000
G01 X70.103675 Y207.830155 Z-0.125000
G01 X66.812989 Y205.807549 Z-0.125000
G01 X59.274686 Y201.929392 Z-0.125000
G01 X56.838631 Y200.159885 Z-0.125000
G01 X54.707728 Y198.010406 Z-0.125000
G01 X52.922419 Y195.508625 Z-0.125000
G01 X51.459161 Y192.774642 Z-0.125000
G01 X46.308925 Y179.815137 Z-0.125000
G01 X43.355834 Y173.972553 Z-0.125000
G01 X41.470484 Y171.071256 Z-0.125000
G01 X39.504960 Y168.549415 Z-0.125000
G01 X33.210679 Y162.207533 Z-0.125000
G01 X32.306060 Y160.758336 Z-0.125000
G01 X31.797022 Y159.391376 Z-0.125000
G01 X31.755225 Y157.739003 Z-0.125000
G01 X32.781686 Y150.544746 Z-0.125000
G01 X32.843413 Y145.884649 Z-0.125000
G01 X32.602633 Y142.745926 Z-0.125000
G01 X32.040898 Y138.994641 Z-0.125000
G01 X29.519573 Y129.103619 Z-0.125000
G01 X29.029305 Y126.170071 Z-0.125000
G01 X28.990089 Y121.330083 Z-0.125000
G01 X29.353872 Y118.265213 Z-0.125000
G01 X29.978624 Y115.116105 Z-0.125000
G01 X32.051605 Y108.398700 Z-0.125000
G01 X36.114427 Y99.223117 Z-0.125000
G01 X36.280258 Y98.121191 Z-0.125000
G01 X36.029867 Y96.400962 Z-0.125000
G01 X36.317281 Y95.554458 Z-0.125000
G01 X41.182360 Y89.325515 Z-0.125000
G01 X43.388729 Y86.136482 Z-0.125000
G01 X45.658308 Y82.090494 Z-0.125000
G01 X49.239956 Y74.483886 Z-0.125000
G01 X50.714244 Y72.281903 Z-0.125000
G01 X52.181631 Y70.765174 Z-0.125000
G01 X54.471205 Y69.162401 Z-0.125000
G01 X57.274268 Y67.846268 Z-0.125000
G01 X61.177128 Y66.569997 Z-0.125000
G01 X65.403137 Y65.540440 Z-0.125000
G01 X72.298047 Y64.474182 Z-0.125000
G01 X81.243105 Y64.431289 Z-0.125000
G01 X83.659810 Y64.004167 Z-0.125000
G01 X85.701960 Y63.076650 Z-0.125000
G01 X91.373747 Y59.599363 Z-0.125000
G01 X94.887025 Y57.781739 Z-0.125000
G01 X100.924530 Y55.351618 Z-0.125000
G01 X105.821472 Y53.853014 Z-0.125000
G01 X109.359969 Y53.197044 Z-0.125000
G01 X112.750051 Y53.008831 Z-0.125000
G01 X115.791830 Y53.324432 Z-0.125000
G01 X118.328570 Y54.108049 Z-0.125000
G01 X119.944888 Y55.006670 Z-0.125000
G01 X121.208131 Y56.068413 Z-0.125000
G01 X123.831495 Y59.604459 Z-0.125000
G01 X124.824674 Y60.606281 Z-0.125000
G01 X126.093657 Y61.301919 Z-0.125000
G01 X129.257600 Y62.258848 Z-0.125000
G01 X131.028138 Y63.133475 Z-0.125000
G01 X136.220816 Y67.564788 Z-0.125000
G01 X138.937125 Y69.432787 Z-0.125000
G01 X143.754345 Y71.875228 Z-0.125000
G01 X156.227710 Y76.867373 Z-0.125000
G01 X161.443543 Y79.213256 Z-0.125000
G01 X166.239929 Y81.919826 Z-0.125000
G01 X169.261842 Y84.330339 Z-0.125000
G01 X170.483352 Y85.774311 Z-0.125000
G01 X171.468597 Y87.625089 Z-0.125000
G01 X171.919649 Y89.471480 Z-0.125000
G01 X172.104379 Y94.093973 Z-0.125000
G01 X172.571104 Y96.319434 Z-0.125000
G01 X176.794726 Y107.275617 Z-0.125000
G01 X179.265031 Y112.878905 Z-0.125000
G01 X180.742479 Y115.632947 Z-0.125000
G01 X182.351057 Y117.994311 Z-0.125000
G01 X183.628038 Y119.368558 Z-0.125000
G01 X186.850419 Y122.214127 Z-0.125000
G01 X190.136655 Y126.194259 Z-0.125000
G01 X191.607975 Y128.747253 Z-0.125000
G01 X192.299614 Y131.085913 Z-0.125000
G01 X192.485182 Y133.332981 Z-0.125000
G01 X192.358761 Y135.241744 Z-0.125000
G01 X191.985368 Y137.329109 Z-0.125000
G01 X191.104614 Y140.347668 Z-0.125000
G01 X188.670816 Y146.027131 Z-0.125000
G01 X182.045647 Y158.070277 Z-0.125000
G01 X179.673254 Y163.166139 Z-0.125000
G01 X178.516180 Y166.368396 Z-0.125000
G01 X177.836216 Y169.026332 Z-0.125000
G01 X176.714423 Y178.157926 Z-0.125000
G01 X176.051680 Y181.120885 Z-0.125000
G01 X175.346625 Y182.852530 Z-0.125000
G01 X174.656664 Y183.985611 Z-0.125000
G01 X172.857551 Y185.789303 Z-0.125000
G01 X170.565590 Y187.041515 Z-0.125000
G01 X162.100867 Y189.898242 Z-0.125000
G01 X154.149891 Y193.007941 Z-0.125000
G01 X150.500968 Y194.762161 Z-0.125000
G01 X146.843467 Y197.265812 Z-0.125000
G01 X139.642825 Y203.843251 Z-0.125000
G01 X136.453404 Y206.313684 Z-0.125000
G01 X132.587631 Y208.597518 Z-0.125000
G01 X125.242831 Y212.114795 Z-0.125000
G01 X120.696384 Y215.381616 Z-0.125000
G01 X118.416227 Y216.434716 Z-0.125000
G01 X115.630257 Y217.157508 Z-0.125000
G01 X112.057445 Y217.688154 Z-0.125000
G01 X103.535574 Y218.148042 Z-0.125000
G01 X84.790310 Y217.853662 Z-0.125000
G01 X81.824319 Y217.435892 Z-0.125000
G01 X79.733664 Y216.704328 Z-0.125000
G01 X77.211566 Y215.041827 Z-0.125000
G01 X72.616292 Y210.701524 Z-0.125000
G01 X70.077423 Y208.685239 Z-0.125000
G01 X67.204249 Y206.901542 Z-0.125000
G01 X58.970050 Y202.593747 Z-0.125000
G01 X56.443372 Y200.738132 Z-0.125000
G01 X54.219072 Y198.496546 Z-0.125000
G01 X52.351718 Y195.903691 Z-0.125000
G01 X50.832409 Y193.093920 Z-0.125000
G01 X45.489252 Y179.717161 Z-0.125000
G01 X42.597566 Y174.010221 Z-0.125000
G01 X40.767300 Y171.185486 Z-0.125000
G01 X38.860471 Y168.722148 Z-0.125000
G01 X32.746985 Y162.460439 Z-0.125000
G01 X31.759482 Y160.822707 Z-0.125000
G01 X31.341777 Y159.612613 Z-0.125000
G01 X31.292757 Y157.885741 Z-0.125000
G01 X32.161256 Y150.385881 Z-0.125000
G01 X32.074825 Y144.373338 Z-0.125000
G01 X31.335585 Y138.731608 Z-0.125000
G01 X29.083744 Y129.393806 Z-0.125000
G01 X28.552711 Y125.101492 Z-0.125000
G01 X28.710221 Y120.726165 Z-0.125000
G01 X29.661281 Y115.141905 Z-0.125000
G01 X31.754000 Y108.251510 Z-0.125000
G01 X35.687498 Y99.051481 Z-0.125000
G01 X35.876549 Y97.874928 Z-0.125000
G01 X35.519733 Y95.973453 Z-0.125000
G01 X35.795730 Y95.092054 Z-0.125000
G01 X40.725955 Y88.691669 Z-0.125000
G01 X42.968057 Y85.465870 Z-0.125000
G01 X45.265371 Y81.403112 Z-0.125000
G01 X48.853147 Y73.854619 Z-0.125000
G01 X50.007190 Y72.101108 Z-0.125000
G01 X51.410334 Y70.569866 Z-0.125000
G01 X53.617412 Y68.957096 Z-0.125000
G01 X56.356168 Y67.639544 Z-0.125000
G01 X59.547201 Y66.561096 Z-0.125000
G01 X63.747409 Y65.503094 Z-0.125000
G01 X71.541714 Y64.164322 Z-0.125000
G01 X75.266618 Y63.931475 Z-0.125000
G01 X80.903316 Y63.965531 Z-0.125000
G01 X83.357044 Y63.556985 Z-0.125000
G01 X85.362107 Y62.646045 Z-0.125000
G01 X90.803627 Y59.142571 Z-0.125000
G01 X94.818525 Y56.985868 Z-0.125000
G01 X100.151233 Y54.803493 Z-0.125000
G01 X105.018763 Y53.255030 Z-0.125000
G01 X108.561776 Y52.552039 Z-0.125000
G01 X111.998169 Y52.321707 Z-0.125000
G01 X115.123992 Y52.609057 Z-0.125000
G01 X117.765868 Y53.383192 Z-0.125000
G01 X119.466617 Y54.288973 Z-0.125000
G01 X120.801907 Y55.370517 Z-0.125000
G01 X121.822821 Y56.540879 Z-0.125000
G01 X123.666567 Y59.270475 Z-0.125000
G01 X124.661423 Y60.266041 Z-0.125000
G01 X125.944918 Y60.946198 Z-0.125000
G01 X129.119311 Y61.910223 Z-0.125000
G01 X130.598823 Y62.637466 Z-0.125000
G01 X135.778278 Y66.971706 Z-0.125000
G01 X138.975116 Y69.125249 Z-0.125000
G01 X143.890441 Y71.499319 Z-0.125000
G01 X156.514350 Y76.276613 Z-0.125000
G01 X161.802939 Y78.554577 Z-0.125000
G01 X166.715491 Y81.246376 Z-0.125000
G01 X169.866727 Y83.729452 Z-0.125000
G01 X171.399711 Y85.628218 Z-0.125000
G01 X172.407854 Y87.967586 Z-0.125000
