%
(Header)
(Generated by gcodetools from Inkscape.)
(Using default header. To add your own header create file "header" in the output dir.)
M3
(Header end.)
G21 (All units in mm)

(Start cutting path id: polyline1781)
(Change tool to Default tool)

G00 Z5.000000
G00 X95.024011 Y235.279133

G00 Z4.875000 (Fast pre-penetrate)
G01 Z-0.125000 F100.0(Penetrate)
G01 X94.150835 Y196.524918 Z-0.125000 F800.000000
G01 X99.144838 Y179.140391 Z-0.125000
G01 X94.772693 Y153.152429 Z-0.125000
G01 X90.762280 Y125.263410 Z-0.125000
G01 X96.477395 Y103.927101 Z-0.125000
G01 X88.510796 Y72.498149 Z-0.125000
G01 X98.654291 Y39.230490 Z-0.125000
G00 Z5.000000

(End cutting path id: polyline1781)


(Start cutting path id: polyline1563)
(Change tool to Default tool)

G00 Z5.000000
G00 X142.666698 Y221.648366

G00 Z4.875000 (Fast pre-penetrate)
G01 Z-0.125000 F100.0(Penetrate)
G01 X151.517485 Y205.200688 Z-0.125000 F800.000000
G01 X149.165083 Y168.629438 Z-0.125000
G01 X146.939246 Y159.081764 Z-0.125000
G01 X151.709534 Y146.268576 Z-0.125000
G01 X135.686576 Y92.613450 Z-0.125000
G01 X148.688485 Y72.128636 Z-0.125000
G01 X138.775018 Y54.603106 Z-0.125000
G00 Z5.000000

(End cutting path id: polyline1563)


(Start cutting path id: polyline1565)
(Change tool to Default tool)

G00 Z5.000000
G00 X140.980985 Y222.430118

G00 Z4.875000 (Fast pre-penetrate)
G01 Z-0.125000 F100.0(Penetrate)
G01 X150.003755 Y204.777535 Z-0.125000 F800.000000
G01 X147.430233 Y169.057486 Z-0.125000
G01 X145.370162 Y157.865994 Z-0.125000
G01 X150.187826 Y145.276520 Z-0.125000
G01 X134.275428 Y93.258702 Z-0.125000
G01 X146.353360 Y71.486760 Z-0.125000
G01 X137.874581 Y54.102869 Z-0.125000
G00 Z5.000000

(End cutting path id: polyline1565)


(Start cutting path id: polyline1575)
(Change tool to Default tool)

G00 Z5.000000
G00 X144.689671 Y222.387294

G00 Z4.875000 (Fast pre-penetrate)
G01 Z-0.125000 F100.0(Penetrate)
G01 X152.409896 Y206.288622 Z-0.125000 F800.000000
G01 X150.542559 Y169.417749 Z-0.125000
G01 X148.376969 Y158.427360 Z-0.125000
G01 X153.112851 Y144.923109 Z-0.125000
G01 X138.127514 Y93.507230 Z-0.125000
G01 X150.191742 Y72.253487 Z-0.125000
G01 X140.004150 Y53.425265 Z-0.125000
G00 Z5.000000

(End cutting path id: polyline1575)


(Start cutting path id: polyline1577)
(Change tool to Default tool)

G00 Z5.000000
G00 X139.295224 Y223.211822

G00 Z4.875000 (Fast pre-penetrate)
G01 Z-0.125000 F100.0(Penetrate)
G01 X148.490074 Y204.354382 Z-0.125000 F800.000000
G01 X145.695333 Y169.485533 Z-0.125000
G01 X143.801127 Y156.650223 Z-0.125000
G01 X148.666119 Y144.284463 Z-0.125000
G01 X132.864281 Y93.903906 Z-0.125000
G01 X144.018283 Y70.844835 Z-0.125000
G01 X136.974145 Y53.602632 Z-0.125000
G00 Z5.000000

(End cutting path id: polyline1577)


(Start cutting path id: polyline1579)
(Change tool to Default tool)

G00 Z5.000000
G00 X146.712595 Y223.126222

G00 Z4.875000 (Fast pre-penetrate)
G01 Z-0.125000 F100.0(Penetrate)
G01 X153.302306 Y207.376507 Z-0.125000 F800.000000
G01 X151.920034 Y170.206108 Z-0.125000
G01 X149.814741 Y157.773004 Z-0.125000
G01 X154.516168 Y143.577690 Z-0.125000
G01 X140.568501 Y94.401011 Z-0.125000
G01 X151.694998 Y72.378289 Z-0.125000
G01 X141.233282 Y52.247376 Z-0.125000
G00 Z5.000000

(End cutting path id: polyline1579)


(Start cutting path id: polyline1581)
(Change tool to Default tool)

G00 Z5.000000
G00 X148.735519 Y223.865150

G00 Z4.875000 (Fast pre-penetrate)
G01 Z-0.125000 F100.0(Penetrate)
G01 X154.194667 Y208.464441 Z-0.125000 F800.000000
G01 X153.297510 Y170.994418 Z-0.125000
G01 X151.252464 Y157.118599 Z-0.125000
G01 X155.919485 Y142.232223 Z-0.125000
G01 X143.009391 Y95.294791 Z-0.125000
G01 X153.198255 Y72.503092 Z-0.125000
G01 X142.462414 Y51.069486 Z-0.125000
G00 Z5.000000

(End cutting path id: polyline1581)


(Start cutting path id: polyline1583)
(Change tool to Default tool)

G00 Z5.000000
G00 X137.609511 Y223.993525

G00 Z4.875000 (Fast pre-penetrate)
G01 Z-0.125000 F100.0(Penetrate)
G01 X146.976393 Y203.931228 Z-0.125000 F800.000000
G01 X143.960483 Y169.913581 Z-0.125000
G01 X142.232043 Y155.434452 Z-0.125000
G01 X147.144411 Y143.292456 Z-0.125000
G01 X131.453133 Y94.549159 Z-0.125000
G01 X141.683207 Y70.202911 Z-0.125000
G01 X136.073708 Y53.102394 Z-0.125000
G00 Z5.000000

(End cutting path id: polyline1583)


(Start cutting path id: polyline1585)
(Change tool to Default tool)

G00 Z5.000000
G00 X135.923749 Y224.775228

G00 Z4.875000 (Fast pre-penetrate)
G01 Z-0.125000 F100.0(Penetrate)
G01 X145.462662 Y203.508026 Z-0.125000 F800.000000
G01 X140.663009 Y154.218682 Z-0.125000
G01 X145.622703 Y142.300399 Z-0.125000
G01 X130.041986 Y95.194411 Z-0.125000
G01 X139.348130 Y69.561035 Z-0.125000
G01 X135.173271 Y52.602157 Z-0.125000
G00 Z5.000000

(End cutting path id: polyline1585)


(Start cutting path id: polyline1587)
(Change tool to Default tool)

G00 Z5.000000
G00 X150.758491 Y224.604029

G00 Z4.875000 (Fast pre-penetrate)
G01 Z-0.125000 F100.0(Penetrate)
G01 X155.087077 Y209.552326 Z-0.125000 F800.000000
G01 X154.674936 Y171.782778 Z-0.125000
G01 X152.690187 Y156.464243 Z-0.125000
G01 X157.322753 Y140.886805 Z-0.125000
G01 X145.450378 Y96.188523 Z-0.125000
G01 X154.701561 Y72.627943 Z-0.125000
G01 X143.691497 Y49.891646 Z-0.125000
G00 Z5.000000

(End cutting path id: polyline1587)


(Start cutting path id: polyline1589)
(Change tool to Default tool)

G00 Z5.000000
G00 X152.781415 Y225.342956

G00 Z4.875000 (Fast pre-penetrate)
G01 Z-0.125000 F100.0(Penetrate)
G01 X155.979488 Y210.640260 Z-0.125000 F800.000000
G01 X156.052411 Y172.571088 Z-0.125000
G01 X154.127910 Y155.809838 Z-0.125000
G01 X158.726069 Y139.541337 Z-0.125000
G01 X147.891316 Y97.082304 Z-0.125000
G01 X156.204768 Y72.752745 Z-0.125000
G01 X144.920629 Y48.713756 Z-0.125000
G00 Z5.000000

(End cutting path id: polyline1589)


(Start cutting path id: polyline1591)
(Change tool to Default tool)

G00 Z5.000000
G00 X134.238036 Y225.556980

G00 Z4.875000 (Fast pre-penetrate)
G01 Z-0.125000 F100.0(Penetrate)
G01 X143.948981 Y203.084872 Z-0.125000 F800.000000
G01 X140.490732 Y170.769676 Z-0.125000
G01 X139.093925 Y153.002911 Z-0.125000
G01 X144.100995 Y141.308343 Z-0.125000
G01 X128.630838 Y95.839615 Z-0.125000
G01 X137.013054 Y68.919111 Z-0.125000
G01 X134.272834 Y52.101969 Z-0.125000
G00 Z5.000000

(End cutting path id: polyline1591)


(Start cutting path id: polyline1593)
(Change tool to Default tool)

G00 Z5.000000
G00 X132.552275 Y226.338683

G00 Z4.875000 (Fast pre-penetrate)
G01 Z-0.125000 F100.0(Penetrate)
G01 X142.435251 Y202.661719 Z-0.125000 F800.000000
G01 X138.755833 Y171.197675 Z-0.125000
G01 X137.524890 Y151.787140 Z-0.125000
G01 X142.579288 Y140.316336 Z-0.125000
G01 X127.219641 Y96.484868 Z-0.125000
G01 X134.677977 Y68.277186 Z-0.125000
G01 X133.372398 Y51.601732 Z-0.125000
G00 Z5.000000

(End cutting path id: polyline1593)


(Start cutting path id: polyline1595)
(Change tool to Default tool)

G00 Z5.000000
G00 X130.866562 Y227.120387

G00 Z4.875000 (Fast pre-penetrate)
G01 Z-0.125000 F100.0(Penetrate)
G01 X140.921521 Y202.238566 Z-0.125000 F800.000000
G01 X137.020933 Y171.625772 Z-0.125000
G01 X135.955806 Y150.571370 Z-0.125000
G01 X141.057580 Y139.324279 Z-0.125000
G01 X125.808494 Y97.130071 Z-0.125000
G01 X132.342852 Y67.635310 Z-0.125000
G01 X132.471961 Y51.101494 Z-0.125000
G00 Z5.000000

(End cutting path id: polyline1595)


(Start cutting path id: polyline1597)
(Change tool to Default tool)

G00 Z5.000000
G00 X154.804388 Y226.081884

G00 Z4.875000 (Fast pre-penetrate)
G01 Z-0.125000 F100.0(Penetrate)
G01 X156.871898 Y211.728145 Z-0.125000 F800.000000
G01 X157.429887 Y173.359399 Z-0.125000
G01 X155.565682 Y155.155482 Z-0.125000
G01 X160.129337 Y138.195919 Z-0.125000
G01 X150.332255 Y97.976084 Z-0.125000
G01 X157.708074 Y72.877548 Z-0.125000
G01 X146.149761 Y47.535916 Z-0.125000
G00 Z5.000000

(End cutting path id: polyline1597)


(Start cutting path id: polyline1599)
(Change tool to Default tool)

G00 Z5.000000
G00 X156.827312 Y226.820812

G00 Z4.875000 (Fast pre-penetrate)
G01 Z-0.125000 F100.0(Penetrate)
G01 X157.764308 Y212.816079 Z-0.125000 F800.000000
G01 X158.807362 Y174.147709 Z-0.125000
G01 X157.003405 Y154.501078 Z-0.125000
G01 X161.532654 Y136.850501 Z-0.125000
G01 X152.773193 Y98.869865 Z-0.125000
G01 X159.211330 Y73.002399 Z-0.125000
G01 X147.378892 Y46.358026 Z-0.125000
G00 Z5.000000

(End cutting path id: polyline1599)


(Start cutting path id: polyline1601)
(Change tool to Default tool)

G00 Z5.000000
G00 X158.850235 Y227.559691

G00 Z4.875000 (Fast pre-penetrate)
G01 Z-0.125000 F100.0(Penetrate)
G01 X158.656718 Y213.903964 Z-0.125000 F800.000000
G01 X160.184789 Y174.936068 Z-0.125000
G01 X158.441177 Y153.846673 Z-0.125000
G01 X162.935971 Y135.505033 Z-0.125000
G01 X155.214131 Y99.763597 Z-0.125000
G01 X160.714587 Y73.127201 Z-0.125000
G01 X148.607975 Y45.180186 Z-0.125000
G00 Z5.000000

(End cutting path id: polyline1601)


(Start cutting path id: polyline1603)
(Change tool to Default tool)

G00 Z5.000000
G00 X160.873159 Y228.298619

G00 Z4.875000 (Fast pre-penetrate)
G01 Z-0.125000 F100.0(Penetrate)
G01 X159.549129 Y214.991898 Z-0.125000 F800.000000
G01 X161.562264 Y175.724379 Z-0.125000
G01 X159.878901 Y153.192317 Z-0.125000
G01 X164.339288 Y134.159615 Z-0.125000
G01 X157.655118 Y100.657377 Z-0.125000
G01 X162.217844 Y73.252004 Z-0.125000
G01 X149.837107 Y44.002296 Z-0.125000
G00 Z5.000000

(End cutting path id: polyline1603)


(Start cutting path id: polyline1605)
(Change tool to Default tool)

G00 Z5.000000
G00 X129.180800 Y227.902139

G00 Z4.875000 (Fast pre-penetrate)
G01 Z-0.125000 F100.0(Penetrate)
G01 X139.407839 Y201.815412 Z-0.125000 F800.000000
G01 X135.286083 Y172.053770 Z-0.125000
G01 X134.386772 Y149.355599 Z-0.125000
G01 X139.535872 Y138.332223 Z-0.125000
G01 X124.397346 Y97.775324 Z-0.125000
G01 X130.007775 Y66.993386 Z-0.125000
G01 X131.571524 Y50.601257 Z-0.125000
G00 Z5.000000

(End cutting path id: polyline1605)


(Start cutting path id: polyline1607)
(Change tool to Default tool)

G00 Z5.000000
G00 X127.495088 Y228.683842

G00 Z4.875000 (Fast pre-penetrate)
G01 Z-0.125000 F100.0(Penetrate)
G01 X137.894158 Y201.392210 Z-0.125000 F800.000000
G01 X133.551183 Y172.481818 Z-0.125000
G01 X132.817688 Y148.139828 Z-0.125000
G01 X138.014164 Y137.340215 Z-0.125000
G01 X122.986199 Y98.420528 Z-0.125000
G01 X127.672698 Y66.351461 Z-0.125000
G01 X130.671087 Y50.101020 Z-0.125000
G00 Z5.000000

(End cutting path id: polyline1607)


(Start cutting path id: polyline1609)
(Change tool to Default tool)

G00 Z5.000000
G00 X125.809326 Y229.465545

G00 Z4.875000 (Fast pre-penetrate)
G01 Z-0.125000 F100.0(Penetrate)
G01 X136.380428 Y200.969057 Z-0.125000 F800.000000
G01 X131.816332 Y172.909865 Z-0.125000
G01 X131.248653 Y146.924057 Z-0.125000
G01 X136.492407 Y136.348159 Z-0.125000
G01 X121.575051 Y99.065780 Z-0.125000
G01 X125.337622 Y65.709586 Z-0.125000
G01 X129.770651 Y49.600783 Z-0.125000
G00 Z5.000000

(End cutting path id: polyline1609)


(Start cutting path id: polyline1611)
(Change tool to Default tool)

G00 Z5.000000
G00 X124.123613 Y230.247297

G00 Z4.875000 (Fast pre-penetrate)
G01 Z-0.125000 F100.0(Penetrate)
G01 X134.866747 Y200.545903 Z-0.125000 F800.000000
G01 X130.081433 Y173.337913 Z-0.125000
G01 X129.679569 Y145.708287 Z-0.125000
G01 X134.970749 Y135.356103 Z-0.125000
G01 X120.163904 Y99.711033 Z-0.125000
G01 X123.002545 Y65.067661 Z-0.125000
G01 X128.870214 Y49.100546 Z-0.125000
G00 Z5.000000

(End cutting path id: polyline1611)


(Start cutting path id: polyline1613)
(Change tool to Default tool)

G00 Z5.000000
G00 X122.437851 Y231.029001

G00 Z4.875000 (Fast pre-penetrate)
G01 Z-0.125000 F100.0(Penetrate)
G01 X133.353065 Y200.122750 Z-0.125000 F800.000000
G01 X128.346582 Y173.765961 Z-0.125000
G01 X128.110535 Y144.492516 Z-0.125000
G01 X133.448992 Y134.364046 Z-0.125000
G01 X118.752756 Y100.356237 Z-0.125000
G01 X120.667469 Y64.425736 Z-0.125000
G01 X127.969777 Y48.600308 Z-0.125000
G00 Z5.000000

(End cutting path id: polyline1613)


(Start cutting path id: polyline1615)
(Change tool to Default tool)

G00 Z5.000000
G00 X120.752139 Y231.810753

G00 Z4.875000 (Fast pre-penetrate)
G01 Z-0.125000 F100.0(Penetrate)
G01 X131.839335 Y199.699596 Z-0.125000 F800.000000
G01 X126.611683 Y174.194008 Z-0.125000
G01 X126.541451 Y143.276745 Z-0.125000
G01 X131.927284 Y133.372039 Z-0.125000
G01 X117.341608 Y101.001489 Z-0.125000
G01 X118.332392 Y63.783812 Z-0.125000
G01 X127.069340 Y48.100071 Z-0.125000
G00 Z5.000000

(End cutting path id: polyline1615)


(Start cutting path id: polyline1617)
(Change tool to Default tool)

G00 Z5.000000
G00 X162.896132 Y229.037547

G00 Z4.875000 (Fast pre-penetrate)
G01 Z-0.125000 F100.0(Penetrate)
G01 X160.441490 Y216.079783 Z-0.125000 F800.000000
G01 X162.939739 Y176.512738 Z-0.125000
G01 X161.316624 Y152.537912 Z-0.125000
G01 X165.742556 Y132.814148 Z-0.125000
G01 X160.096057 Y101.551158 Z-0.125000
G01 X163.721149 Y73.376855 Z-0.125000
G01 X151.066239 Y42.824406 Z-0.125000
G00 Z5.000000

(End cutting path id: polyline1617)


(Start cutting path id: polyline1619)
(Change tool to Default tool)

G00 Z5.000000
G00 X164.919056 Y229.776474

G00 Z4.875000 (Fast pre-penetrate)
G01 Z-0.125000 F100.0(Penetrate)
G01 X161.333900 Y217.167717 Z-0.125000 F800.000000
G01 X164.317215 Y177.301049 Z-0.125000
G01 X162.754347 Y151.883556 Z-0.125000
G01 X167.145873 Y131.468730 Z-0.125000
G01 X162.536995 Y102.444890 Z-0.125000
G01 X165.224406 Y73.501657 Z-0.125000
G01 X152.295371 Y41.646566 Z-0.125000
G00 Z5.000000

(End cutting path id: polyline1619)


(Start cutting path id: polyline1621)
(Change tool to Default tool)

G00 Z5.000000
G00 X166.942029 Y230.515353

G00 Z4.875000 (Fast pre-penetrate)
G01 Z-0.125000 F100.0(Penetrate)
G01 X162.226310 Y218.255602 Z-0.125000 F800.000000
G01 X165.694641 Y178.089359 Z-0.125000
G01 X164.192119 Y151.229151 Z-0.125000
G01 X168.549189 Y130.123262 Z-0.125000
G01 X164.977933 Y103.338670 Z-0.125000
G01 X166.727662 Y73.626460 Z-0.125000
G01 X153.524503 Y40.468676 Z-0.125000
G00 Z5.000000

(End cutting path id: polyline1621)


(Start cutting path id: polyline1623)
(Change tool to Default tool)

G00 Z5.000000
G00 X168.964952 Y231.254281

G00 Z4.875000 (Fast pre-penetrate)
G01 Z-0.125000 F100.0(Penetrate)
G01 X163.118721 Y219.343536 Z-0.125000 F800.000000
G01 X167.072117 Y178.877669 Z-0.125000
G01 X165.629842 Y150.574795 Z-0.125000
G01 X169.952506 Y128.777844 Z-0.125000
G01 X167.418872 Y104.232451 Z-0.125000
G01 X168.230919 Y73.751311 Z-0.125000
G01 X154.753635 Y39.290836 Z-0.125000
G00 Z5.000000

(End cutting path id: polyline1623)


(Start cutting path id: polyline1625)
(Change tool to Default tool)

G00 Z5.000000
G00 X170.987925 Y231.993209

G00 Z4.875000 (Fast pre-penetrate)
G01 Z-0.125000 F100.0(Penetrate)
G01 X164.011131 Y220.431421 Z-0.125000 F800.000000
G01 X168.449592 Y179.666029 Z-0.125000
G01 X167.067565 Y149.920391 Z-0.125000
G01 X171.355774 Y127.432426 Z-0.125000
G01 X169.859810 Y105.126232 Z-0.125000
G01 X169.734224 Y73.876113 Z-0.125000
G01 X155.982718 Y38.112946 Z-0.125000
G00 Z5.000000

(End cutting path id: polyline1625)


(Start cutting path id: polyline1627)
(Change tool to Default tool)

G00 Z5.000000
G00 X173.010849 Y232.732088

G00 Z4.875000 (Fast pre-penetrate)
G01 Z-0.125000 F100.0(Penetrate)
G01 X164.903541 Y221.519355 Z-0.125000 F800.000000
G01 X169.827019 Y180.454339 Z-0.125000
G01 X168.505337 Y149.266035 Z-0.125000
G01 X172.759091 Y126.086958 Z-0.125000
G01 X172.300797 Y106.020012 Z-0.125000
G01 X171.237481 Y74.000916 Z-0.125000
G01 X157.211850 Y36.935106 Z-0.125000
G00 Z5.000000

(End cutting path id: polyline1627)


(Start cutting path id: polyline1629)
(Change tool to Default tool)

G00 Z5.000000
G00 X175.033773 Y233.471016

G00 Z4.875000 (Fast pre-penetrate)
G01 Z-0.125000 F100.0(Penetrate)
G01 X165.795903 Y222.607289 Z-0.125000 F800.000000
G01 X171.204494 Y181.242698 Z-0.125000
G01 X169.943060 Y148.611630 Z-0.125000
G01 X174.162408 Y124.741540 Z-0.125000
G01 X174.741735 Y106.913793 Z-0.125000
G01 X172.740738 Y74.125767 Z-0.125000
G01 X158.440982 Y35.757216 Z-0.125000
G00 Z5.000000

(End cutting path id: polyline1629)


(Start cutting path id: polyline1567)
(Change tool to Default tool)

G00 Z5.000000
G00 X177.056746 Y234.209944

G00 Z4.875000 (Fast pre-penetrate)
G01 Z-0.125000 F100.0(Penetrate)
G01 X166.688362 Y223.695174 Z-0.125000 F800.000000
G01 X172.581920 Y182.031009 Z-0.125000
G01 X171.380783 Y147.957225 Z-0.125000
G01 X175.565725 Y123.396073 Z-0.125000
G01 X177.182674 Y107.807524 Z-0.125000
G01 X174.243994 Y74.250569 Z-0.125000
G01 X159.670114 Y34.579327 Z-0.125000
G00 Z5.000000

(End cutting path id: polyline1567)


(Start cutting path id: polyline1569)
(Change tool to Default tool)

G00 Z5.000000
G00 X178.215744 Y234.154590

G00 Z4.875000 (Fast pre-penetrate)
G01 Z-0.125000 F100.0(Penetrate)
G01 X168.938083 Y222.842602 Z-0.125000 F800.000000
G01 X174.195639 Y181.476250 Z-0.125000
G01 X173.037425 Y148.368828 Z-0.125000
G01 X177.404969 Y123.821820 Z-0.125000
G01 X178.686958 Y107.458861 Z-0.125000
G01 X175.995094 Y73.818117 Z-0.125000
G01 X161.942104 Y35.873552 Z-0.125000
G00 Z5.000000

(End cutting path id: polyline1569)


(Start cutting path id: polyline1631)
(Change tool to Default tool)

G00 Z5.000000
G00 X179.374790 Y234.099188

G00 Z4.875000 (Fast pre-penetrate)
G01 Z-0.125000 F100.0(Penetrate)
G01 X171.187854 Y221.990031 Z-0.125000 F800.000000
G01 X175.809358 Y180.921442 Z-0.125000
G01 X174.694017 Y148.780333 Z-0.125000
G01 X179.244213 Y124.247567 Z-0.125000
G01 X180.191193 Y107.110148 Z-0.125000
G01 X177.746193 Y73.385665 Z-0.125000
G01 X164.214094 Y37.167776 Z-0.125000
G00 Z5.000000

(End cutting path id: polyline1631)


(Start cutting path id: polyline1633)
(Change tool to Default tool)

G00 Z5.000000
G00 X180.533788 Y234.043834

G00 Z4.875000 (Fast pre-penetrate)
G01 Z-0.125000 F100.0(Penetrate)
G01 X173.437624 Y221.137411 Z-0.125000 F800.000000
G01 X177.423028 Y180.366684 Z-0.125000
G01 X176.350658 Y149.191936 Z-0.125000
G01 X181.083457 Y124.673315 Z-0.125000
G01 X181.695478 Y106.761436 Z-0.125000
G01 X179.497292 Y72.953212 Z-0.125000
G01 X166.486133 Y38.462001 Z-0.125000
G00 Z5.000000

(End cutting path id: polyline1633)


(Start cutting path id: polyline1635)
(Change tool to Default tool)

G00 Z5.000000
G00 X181.692835 Y233.988432

G00 Z4.875000 (Fast pre-penetrate)
G01 Z-0.125000 F100.0(Penetrate)
G01 X175.687395 Y220.284839 Z-0.125000 F800.000000
G01 X179.036747 Y179.811925 Z-0.125000
G01 X178.007250 Y149.603491 Z-0.125000
G01 X182.922701 Y125.099062 Z-0.125000
G01 X183.199762 Y106.412773 Z-0.125000
G01 X181.248392 Y72.520760 Z-0.125000
G01 X168.758123 Y39.756226 Z-0.125000
G00 Z5.000000

(End cutting path id: polyline1635)


(Start cutting path id: polyline1637)
(Change tool to Default tool)

G00 Z5.000000
G00 X182.851833 Y233.933078

G00 Z4.875000 (Fast pre-penetrate)
G01 Z-0.125000 F100.0(Penetrate)
G01 X177.937165 Y219.432268 Z-0.125000 F800.000000
G01 X180.650417 Y179.257117 Z-0.125000
G01 X179.663891 Y150.015045 Z-0.125000
G01 X184.761994 Y125.524809 Z-0.125000
G01 X184.704047 Y106.064060 Z-0.125000
G01 X182.999540 Y72.088307 Z-0.125000
G01 X171.030162 Y41.050451 Z-0.125000
G00 Z5.000000

(End cutting path id: polyline1637)


(Start cutting path id: polyline1639)
(Change tool to Default tool)

G00 Z5.000000
G00 X184.010880 Y233.877725

G00 Z4.875000 (Fast pre-penetrate)
G01 Z-0.125000 F100.0(Penetrate)
G01 X180.186887 Y218.579648 Z-0.125000 F800.000000
G01 X182.264136 Y178.702359 Z-0.125000
G01 X181.320532 Y150.426599 Z-0.125000
G01 X186.601238 Y125.950557 Z-0.125000
G01 X186.208331 Y105.715348 Z-0.125000
G01 X184.750640 Y71.655855 Z-0.125000
G01 X173.302152 Y42.344676 Z-0.125000
G00 Z5.000000

(End cutting path id: polyline1639)


(Start cutting path id: polyline1641)
(Change tool to Default tool)

G00 Z5.000000
G00 X185.169878 Y233.822322

G00 Z4.875000 (Fast pre-penetrate)
G01 Z-0.125000 F100.0(Penetrate)
G01 X182.436657 Y217.727076 Z-0.125000 F800.000000
G01 X183.877806 Y178.147551 Z-0.125000
G01 X182.977125 Y150.838104 Z-0.125000
G01 X188.440482 Y126.376304 Z-0.125000
G01 X186.501739 Y71.223403 Z-0.125000
G01 X175.574192 Y43.638901 Z-0.125000
G00 Z5.000000

(End cutting path id: polyline1641)


(Start cutting path id: polyline1643)
(Change tool to Default tool)

G00 Z5.000000
G00 X186.328924 Y233.766969

G00 Z4.875000 (Fast pre-penetrate)
G01 Z-0.125000 F100.0(Penetrate)
G01 X184.686427 Y216.874456 Z-0.125000 F800.000000
G01 X185.491525 Y177.592792 Z-0.125000
G01 X184.633766 Y151.249707 Z-0.125000
G01 X190.279726 Y126.802051 Z-0.125000
G01 X189.216851 Y105.017972 Z-0.125000
G01 X188.252789 Y70.790950 Z-0.125000
G01 X177.846182 Y44.933126 Z-0.125000
G00 Z5.000000

(End cutting path id: polyline1643)


(Start cutting path id: polyline1645)
(Change tool to Default tool)

G00 Z5.000000
G00 X187.487922 Y233.711615

G00 Z4.875000 (Fast pre-penetrate)
G01 Z-0.125000 F100.0(Penetrate)
G01 X186.936198 Y216.021885 Z-0.125000 F800.000000
G01 X187.105244 Y177.038034 Z-0.125000
G01 X186.290358 Y151.661261 Z-0.125000
G01 X192.119020 Y127.227799 Z-0.125000
G01 X190.721135 Y104.669308 Z-0.125000
G01 X190.003938 Y70.358498 Z-0.125000
G01 X180.118221 Y46.227351 Z-0.125000
G00 Z5.000000

(End cutting path id: polyline1645)


(Start cutting path id: polyline1647)
(Change tool to Default tool)

G00 Z5.000000
G00 X188.646969 Y233.656213

G00 Z4.875000 (Fast pre-penetrate)
G01 Z-0.125000 F100.0(Penetrate)
G01 X189.185919 Y215.169313 Z-0.125000 F800.000000
G01 X188.718914 Y176.483275 Z-0.125000
G01 X187.946999 Y152.072815 Z-0.125000
G01 X193.958264 Y127.653546 Z-0.125000
G01 X192.225420 Y104.320596 Z-0.125000
G01 X191.755037 Y69.926045 Z-0.125000
G01 X182.390211 Y47.521576 Z-0.125000
G00 Z5.000000

(End cutting path id: polyline1647)


(Start cutting path id: polyline1649)
(Change tool to Default tool)

G00 Z5.000000
G00 X190.965014 Y233.545457

G00 Z4.875000 (Fast pre-penetrate)
G01 Z-0.125000 F100.0(Penetrate)
G01 X193.685460 Y213.464121 Z-0.125000 F800.000000
G01 X191.946303 Y175.373709 Z-0.125000
G01 X191.260232 Y152.895924 Z-0.125000
G01 X197.636752 Y128.505041 Z-0.125000
G01 X195.233939 Y103.623220 Z-0.125000
G01 X195.257236 Y69.061141 Z-0.125000
G01 X186.934240 Y50.110025 Z-0.125000
G00 Z5.000000

(End cutting path id: polyline1649)


(Start cutting path id: polyline1573)
(Change tool to Default tool)

G00 Z5.000000
G00 X195.601103 Y233.323994

G00 Z4.875000 (Fast pre-penetrate)
G01 Z-0.125000 F100.0(Penetrate)
G01 X202.684493 Y210.053787 Z-0.125000 F800.000000
G01 X198.401081 Y173.154576 Z-0.125000
G01 X197.886699 Y154.542140 Z-0.125000
G01 X204.993777 Y130.208030 Z-0.125000
G01 X201.251077 Y102.228468 Z-0.125000
G01 X202.261633 Y67.331331 Z-0.125000
G01 X196.022299 Y55.286925 Z-0.125000
G00 Z5.000000

(End cutting path id: polyline1573)


(Start cutting path id: polyline1571)
(Change tool to Default tool)

G00 Z5.000000
G00 X196.760101 Y233.268640

G00 Z4.875000 (Fast pre-penetrate)
G01 Z-0.125000 F100.0(Penetrate)
G01 X204.934264 Y209.201216 Z-0.125000 F800.000000
G01 X200.014800 Y172.599817 Z-0.125000
G01 X199.543340 Y154.953694 Z-0.125000
G01 X206.833070 Y130.633777 Z-0.125000
G01 X202.755361 Y101.879755 Z-0.125000
G01 X204.012733 Y66.898879 Z-0.125000
G01 X198.294338 Y56.581150 Z-0.125000
G00 Z5.000000

(End cutting path id: polyline1571)


(Start cutting path id: polyline1651)
(Change tool to Default tool)

G00 Z5.000000
G00 X194.442056 Y233.379396

G00 Z4.875000 (Fast pre-penetrate)
G01 Z-0.125000 F100.0(Penetrate)
G01 X200.434723 Y210.906358 Z-0.125000 F800.000000
G01 X196.787362 Y173.709384 Z-0.125000
G01 X196.230107 Y154.130586 Z-0.125000
G01 X203.154533 Y129.782283 Z-0.125000
G01 X199.746793 Y102.577131 Z-0.125000
G01 X200.510534 Y67.763783 Z-0.125000
G01 X193.750309 Y53.992700 Z-0.125000
G00 Z5.000000

(End cutting path id: polyline1651)


(Start cutting path id: polyline1653)
(Change tool to Default tool)

G00 Z5.000000
G00 X193.283058 Y233.434750

G00 Z4.875000 (Fast pre-penetrate)
G01 Z-0.125000 F100.0(Penetrate)
G01 X198.185001 Y211.758979 Z-0.125000 F800.000000
G01 X195.173692 Y174.264142 Z-0.125000
G01 X194.573466 Y153.719032 Z-0.125000
G01 X201.315289 Y129.356535 Z-0.125000
G01 X198.242508 Y102.925844 Z-0.125000
G01 X198.759435 Y68.196236 Z-0.125000
G01 X191.478270 Y52.698475 Z-0.125000
G00 Z5.000000

(End cutting path id: polyline1653)


(Start cutting path id: polyline1655)
(Change tool to Default tool)

G00 Z5.000000
G00 X192.124012 Y233.490103

G00 Z4.875000 (Fast pre-penetrate)
G01 Z-0.125000 F100.0(Penetrate)
G01 X195.935231 Y212.611550 Z-0.125000 F800.000000
G01 X193.559973 Y174.818901 Z-0.125000
G01 X192.916874 Y153.307478 Z-0.125000
G01 X199.476045 Y128.930788 Z-0.125000
G01 X196.738224 Y103.274507 Z-0.125000
G01 X197.008335 Y68.628688 Z-0.125000
G01 X189.206230 Y51.404250 Z-0.125000
G00 Z5.000000

(End cutting path id: polyline1655)


(Start cutting path id: polyline1657)
(Change tool to Default tool)

G00 Z5.000000
G00 X189.805967 Y233.600859

G00 Z4.875000 (Fast pre-penetrate)
G01 Z-0.125000 F100.0(Penetrate)
G01 X191.435690 Y214.316742 Z-0.125000 F800.000000
G01 X189.603591 Y152.484369 Z-0.125000
G01 X195.797508 Y128.079293 Z-0.125000
G01 X193.729704 Y103.971883 Z-0.125000
G01 X193.506088 Y69.493593 Z-0.125000
G01 X184.662250 Y48.815800 Z-0.125000
G00 Z5.000000

(End cutting path id: polyline1657)


(Start cutting path id: polyline1659)
(Change tool to Default tool)

G00 Z5.000000
G00 X119.066377 Y232.592456

G00 Z4.875000 (Fast pre-penetrate)
G01 Z-0.125000 F100.0(Penetrate)
G01 X130.325654 Y199.276443 Z-0.125000 F800.000000
G01 X124.876783 Y174.622056 Z-0.125000
G01 X124.972416 Y142.060975 Z-0.125000
G01 X130.405576 Y132.379982 Z-0.125000
G01 X115.930461 Y101.646693 Z-0.125000
G01 X115.997316 Y63.141936 Z-0.125000
G01 X126.168904 Y47.599834 Z-0.125000
G00 Z5.000000

(End cutting path id: polyline1659)


(Start cutting path id: polyline1661)
(Change tool to Default tool)

G00 Z5.000000
G00 X117.380664 Y233.374159

G00 Z4.875000 (Fast pre-penetrate)
G01 Z-0.125000 F100.0(Penetrate)
G01 X128.811924 Y198.853241 Z-0.125000 F800.000000
G01 X123.141933 Y175.050103 Z-0.125000
G01 X123.403381 Y140.845204 Z-0.125000
G01 X128.883869 Y131.387926 Z-0.125000
G01 X114.519313 Y102.291946 Z-0.125000
G01 X113.662190 Y62.500012 Z-0.125000
G01 X125.268418 Y47.099597 Z-0.125000
G00 Z5.000000

(End cutting path id: polyline1661)


(Start cutting path id: polyline1663)
(Change tool to Default tool)

G00 Z5.000000
G00 X115.694903 Y234.155911

G00 Z4.875000 (Fast pre-penetrate)
G01 Z-0.125000 F100.0(Penetrate)
G01 X127.298242 Y198.430087 Z-0.125000 F800.000000
G01 X121.407033 Y175.478151 Z-0.125000
G01 X121.834297 Y139.629433 Z-0.125000
G01 X127.362161 Y130.395919 Z-0.125000
G01 X113.108117 Y102.937198 Z-0.125000
G01 X111.327114 Y61.858087 Z-0.125000
G01 X124.368030 Y46.599360 Z-0.125000
G00 Z5.000000

(End cutting path id: polyline1663)


(Start cutting path id: polyline1559)
(Change tool to Default tool)

G00 Z5.000000
G00 X114.009190 Y234.937615

G00 Z4.875000 (Fast pre-penetrate)
G01 Z-0.125000 F100.0(Penetrate)
G01 X125.784512 Y198.006934 Z-0.125000 F800.000000
G01 X119.672133 Y175.906199 Z-0.125000
G01 X120.265263 Y138.413662 Z-0.125000
G01 X125.840453 Y129.403862 Z-0.125000
G01 X111.696969 Y103.582402 Z-0.125000
G01 X108.992037 Y61.216211 Z-0.125000
G01 X123.467593 Y46.099122 Z-0.125000
G00 Z5.000000

(End cutting path id: polyline1559)


(Start cutting path id: polyline1561)
(Change tool to Default tool)

G00 Z5.000000
G00 X112.959039 Y234.962037

G00 Z4.875000 (Fast pre-penetrate)
G01 Z-0.125000 F100.0(Penetrate)
G01 X123.998370 Y197.875720 Z-0.125000 F800.000000
G01 X118.595750 Y176.104659 Z-0.125000
G01 X118.857296 Y139.264472 Z-0.125000
G01 X123.892949 Y129.177309 Z-0.125000
G01 X110.881056 Y103.615585 Z-0.125000
G01 X107.842534 Y61.882460 Z-0.125000
G01 X122.146450 Y45.684974 Z-0.125000
G00 Z5.000000

(End cutting path id: polyline1561)


(Start cutting path id: polyline1665)
(Change tool to Default tool)

G00 Z5.000000
G00 X111.908937 Y234.986508

G00 Z4.875000 (Fast pre-penetrate)
G01 Z-0.125000 F100.0(Penetrate)
G01 X122.212228 Y197.744506 Z-0.125000 F800.000000
G01 X117.519317 Y176.303168 Z-0.125000
G01 X117.449379 Y140.115330 Z-0.125000
G01 X121.945445 Y128.950756 Z-0.125000
G01 X110.065142 Y103.648767 Z-0.125000
G01 X106.693031 Y62.548709 Z-0.125000
G01 X120.825307 Y45.270875 Z-0.125000
G00 Z5.000000

(End cutting path id: polyline1665)


(Start cutting path id: polyline1667)
(Change tool to Default tool)

G00 Z5.000000
G00 X110.858787 Y235.010979

G00 Z4.875000 (Fast pre-penetrate)
G01 Z-0.125000 F100.0(Penetrate)
G01 X120.426086 Y197.613244 Z-0.125000 F800.000000
G01 X116.442934 Y176.501677 Z-0.125000
G01 X116.041462 Y140.966189 Z-0.125000
G01 X119.997941 Y128.724203 Z-0.125000
G01 X109.249179 Y103.681901 Z-0.125000
G01 X105.543528 Y63.215007 Z-0.125000
G01 X119.504213 Y44.856727 Z-0.125000
G00 Z5.000000

(End cutting path id: polyline1667)


(Start cutting path id: polyline1669)
(Change tool to Default tool)

G00 Z5.000000
G00 X109.808685 Y235.035450

G00 Z4.875000 (Fast pre-penetrate)
G01 Z-0.125000 F100.0(Penetrate)
G01 X118.639896 Y197.482030 Z-0.125000 F800.000000
G01 X115.366501 Y176.700186 Z-0.125000
G01 X114.633544 Y141.817047 Z-0.125000
G01 X118.050437 Y128.497650 Z-0.125000
G01 X108.433216 Y103.715084 Z-0.125000
G01 X104.394025 Y63.881256 Z-0.125000
G01 X118.183070 Y44.442579 Z-0.125000
G00 Z5.000000

(End cutting path id: polyline1669)


(Start cutting path id: polyline1671)
(Change tool to Default tool)

G00 Z5.000000
G00 X108.758535 Y235.059872

G00 Z4.875000 (Fast pre-penetrate)
G01 Z-0.125000 F100.0(Penetrate)
G01 X116.853754 Y197.350767 Z-0.125000 F800.000000
G01 X114.290117 Y176.898647 Z-0.125000
G01 X113.225578 Y142.667906 Z-0.125000
G01 X116.102933 Y128.271097 Z-0.125000
G01 X107.617303 Y103.748267 Z-0.125000
G01 X103.244473 Y64.547553 Z-0.125000
G01 X116.861927 Y44.028431 Z-0.125000
G00 Z5.000000

(End cutting path id: polyline1671)


(Start cutting path id: polyline1673)
(Change tool to Default tool)

G00 Z5.000000
G00 X107.708433 Y235.084343

G00 Z4.875000 (Fast pre-penetrate)
G01 Z-0.125000 F100.0(Penetrate)
G01 X115.067612 Y197.219553 Z-0.125000 F800.000000
G01 X113.213685 Y177.097156 Z-0.125000
G01 X111.817660 Y143.518764 Z-0.125000
G01 X114.155429 Y128.044544 Z-0.125000
G01 X106.801389 Y103.781449 Z-0.125000
G01 X102.094970 Y65.213802 Z-0.125000
G01 X115.540833 Y43.614283 Z-0.125000
G00 Z5.000000

(End cutting path id: polyline1673)


(Start cutting path id: polyline1675)
(Change tool to Default tool)

G00 Z5.000000
G00 X106.658282 Y235.108814

G00 Z4.875000 (Fast pre-penetrate)
G01 Z-0.125000 F100.0(Penetrate)
G01 X113.281421 Y197.088340 Z-0.125000 F800.000000
G01 X110.409743 Y144.369573 Z-0.125000
G01 X112.207925 Y127.817943 Z-0.125000
G01 X105.985426 Y103.814583 Z-0.125000
G01 X100.945467 Y65.880051 Z-0.125000
G01 X114.219690 Y43.200135 Z-0.125000
G00 Z5.000000

(End cutting path id: polyline1675)


(Start cutting path id: polyline1677)
(Change tool to Default tool)

G00 Z5.000000
G00 X105.608132 Y235.133236

G00 Z4.875000 (Fast pre-penetrate)
G01 Z-0.125000 F100.0(Penetrate)
G01 X111.495279 Y196.957126 Z-0.125000 F800.000000
G01 X111.060869 Y177.494125 Z-0.125000
G01 X109.001826 Y145.220432 Z-0.125000
G01 X110.260421 Y127.591438 Z-0.125000
G01 X105.169512 Y103.847766 Z-0.125000
G01 X99.795964 Y66.546349 Z-0.125000
G01 X112.898547 Y42.785987 Z-0.125000
G00 Z5.000000

(End cutting path id: polyline1677)


(Start cutting path id: polyline1679)
(Change tool to Default tool)

G00 Z5.000000
G00 X104.558030 Y235.157707

G00 Z4.875000 (Fast pre-penetrate)
G01 Z-0.125000 F100.0(Penetrate)
G01 X109.709137 Y196.825863 Z-0.125000 F800.000000
G01 X109.984436 Y177.692634 Z-0.125000
G01 X107.593908 Y146.071290 Z-0.125000
G01 X108.312966 Y127.364837 Z-0.125000
G01 X104.353550 Y103.880949 Z-0.125000
G01 X98.646460 Y67.212598 Z-0.125000
G01 X111.577404 Y42.371839 Z-0.125000
G00 Z5.000000

(End cutting path id: polyline1679)


(Start cutting path id: polyline1681)
(Change tool to Default tool)

G00 Z5.000000
G00 X103.507879 Y235.182129

G00 Z4.875000 (Fast pre-penetrate)
G01 Z-0.125000 F100.0(Penetrate)
G01 X107.922995 Y196.694649 Z-0.125000 F800.000000
G01 X108.908053 Y177.891143 Z-0.125000
G01 X106.185942 Y146.922149 Z-0.125000
G01 X106.365413 Y127.138284 Z-0.125000
G01 X103.537636 Y103.914131 Z-0.125000
G01 X97.496957 Y67.878895 Z-0.125000
G01 X110.256310 Y41.957691 Z-0.125000
G00 Z5.000000

(End cutting path id: polyline1681)


(Start cutting path id: polyline1683)
(Change tool to Default tool)

G00 Z5.000000
G00 X102.457777 Y235.206600

G00 Z4.875000 (Fast pre-penetrate)
G01 Z-0.125000 F100.0(Penetrate)
G01 X107.831620 Y178.089604 Z-0.125000 F800.000000
G01 X104.778025 Y147.773007 Z-0.125000
G01 X104.417958 Y126.911731 Z-0.125000
G01 X102.721673 Y103.947265 Z-0.125000
G01 X96.347454 Y68.545144 Z-0.125000
G01 X108.935167 Y41.543543 Z-0.125000
G00 Z5.000000

(End cutting path id: polyline1683)


(Start cutting path id: polyline1685)
(Change tool to Default tool)

G00 Z5.000000
G00 X101.407627 Y235.231072

G00 Z4.875000 (Fast pre-penetrate)
G01 Z-0.125000 F100.0(Penetrate)
G01 X104.350662 Y196.432173 Z-0.125000 F800.000000
G01 X106.755188 Y178.288113 Z-0.125000
G01 X103.370107 Y148.623865 Z-0.125000
G01 X102.470454 Y126.685178 Z-0.125000
G01 X101.905760 Y103.980448 Z-0.125000
G01 X95.197951 Y69.211393 Z-0.125000
G01 X107.614024 Y41.129395 Z-0.125000
G00 Z5.000000

(End cutting path id: polyline1685)


(Start cutting path id: polyline1687)
(Change tool to Default tool)

G00 Z5.000000
G00 X100.357525 Y235.255494

G00 Z4.875000 (Fast pre-penetrate)
G01 Z-0.125000 F100.0(Penetrate)
G01 X102.564520 Y196.300959 Z-0.125000 F800.000000
G01 X105.678804 Y178.486573 Z-0.125000
G01 X101.962190 Y149.474675 Z-0.125000
G01 X100.522949 Y126.458625 Z-0.125000
G01 X101.089797 Y104.013631 Z-0.125000
G01 X94.048448 Y69.877691 Z-0.125000
G01 X106.292929 Y40.715296 Z-0.125000
G00 Z5.000000

(End cutting path id: polyline1687)


(Start cutting path id: polyline1689)
(Change tool to Default tool)

G00 Z5.000000
G00 X99.307375 Y235.279965

G00 Z4.875000 (Fast pre-penetrate)
G01 Z-0.125000 F100.0(Penetrate)
G01 X100.778378 Y196.169745 Z-0.125000 F800.000000
G01 X104.602371 Y178.685082 Z-0.125000
G01 X100.554223 Y150.325533 Z-0.125000
G01 X98.575445 Y126.232072 Z-0.125000
G01 X100.273883 Y104.046814 Z-0.125000
G01 X92.898896 Y70.543939 Z-0.125000
G01 X104.971786 Y40.301148 Z-0.125000
G00 Z5.000000

(End cutting path id: polyline1689)


(Start cutting path id: polyline1691)
(Change tool to Default tool)

G00 Z5.000000
G00 X98.257273 Y235.304387

G00 Z4.875000 (Fast pre-penetrate)
G01 Z-0.125000 F100.0(Penetrate)
G01 X98.992236 Y196.038531 Z-0.125000 F800.000000
G01 X103.525988 Y178.883591 Z-0.125000
G01 X99.146306 Y151.176392 Z-0.125000
G01 X96.627941 Y126.005519 Z-0.125000
G01 X99.457920 Y104.079947 Z-0.125000
G01 X91.749393 Y71.210188 Z-0.125000
G01 X103.650692 Y39.887000 Z-0.125000
G00 Z5.000000

(End cutting path id: polyline1691)


(Start cutting path id: polyline1693)
(Change tool to Default tool)

G00 Z5.000000
G00 X90.492119 Y234.982397

G00 Z4.875000 (Fast pre-penetrate)
G01 Z-0.125000 F100.0(Penetrate)
G01 X89.074560 Y199.520419 Z-0.125000 F800.000000
G01 X90.231551 Y178.579710 Z-0.125000
G01 X88.541630 Y154.249907 Z-0.125000
G01 X82.879812 Y124.107397 Z-0.125000
G01 X91.082704 Y103.050303 Z-0.125000
G01 X84.752483 Y72.319657 Z-0.125000
G01 X89.237684 Y39.917637 Z-0.125000
G00 Z5.000000

(End cutting path id: polyline1693)


(Start cutting path id: polyline1543)
(Change tool to Default tool)

G00 Z5.000000
G00 X27.008685 Y221.486172

G00 Z4.875000 (Fast pre-penetrate)
G01 Z-0.125000 F100.0(Penetrate)
G01 X11.091197 Y201.780957 Z-0.125000 F800.000000
G01 X22.455895 Y173.114248 Z-0.125000
G01 X23.676756 Y161.856537 Z-0.125000
G01 X3.599874 Y110.768522 Z-0.125000
G01 X14.406535 Y102.268845 Z-0.125000
G01 X12.003380 Y70.664141 Z-0.125000
G01 X24.400512 Y44.213530 Z-0.125000
G00 Z5.000000

(End cutting path id: polyline1543)


(Start cutting path id: polyline1545)
(Change tool to Default tool)

G00 Z5.000000
G00 X27.053379 Y222.372660

G00 Z4.875000 (Fast pre-penetrate)
G01 Z-0.125000 F100.0(Penetrate)
G01 X13.025399 Y202.039078 Z-0.125000 F800.000000
G01 X23.808028 Y173.561823 Z-0.125000
G01 X25.230873 Y161.562688 Z-0.125000
G01 X6.235759 Y111.463450 Z-0.125000
G01 X15.507301 Y102.205954 Z-0.125000
G01 X13.323505 Y71.124491 Z-0.125000
G01 X25.139205 Y44.297906 Z-0.125000
G00 Z5.000000

(End cutting path id: polyline1545)


(Start cutting path id: polyline1695)
(Change tool to Default tool)

G00 Z5.000000
G00 X27.081110 Y223.259149

G00 Z4.875000 (Fast pre-penetrate)
G01 Z-0.125000 F100.0(Penetrate)
G01 X14.942735 Y202.297296 Z-0.125000 F800.000000
G01 X25.143247 Y174.009350 Z-0.125000
G01 X26.768027 Y161.268889 Z-0.125000
G01 X8.854729 Y112.158428 Z-0.125000
G01 X16.591202 Y102.143064 Z-0.125000
G01 X14.626716 Y71.584791 Z-0.125000
G01 X25.861032 Y44.382282 Z-0.125000
G00 Z5.000000

(End cutting path id: polyline1695)


(Start cutting path id: polyline1697)
(Change tool to Default tool)

G00 Z5.000000
G00 X27.296631 Y224.145637

G00 Z4.875000 (Fast pre-penetrate)
G01 Z-0.125000 F100.0(Penetrate)
G01 X17.047764 Y202.555466 Z-0.125000 F800.000000
G01 X26.666208 Y174.456876 Z-0.125000
G01 X28.492972 Y160.975041 Z-0.125000
G01 X11.661441 Y112.853357 Z-0.125000
G01 X17.862797 Y102.080173 Z-0.125000
G01 X16.117668 Y72.045092 Z-0.125000
G01 X26.770552 Y44.466610 Z-0.125000
G00 Z5.000000

(End cutting path id: polyline1697)


(Start cutting path id: polyline1699)
(Change tool to Default tool)

G00 Z5.000000
G00 X27.512152 Y225.032125

G00 Z4.875000 (Fast pre-penetrate)
G01 Z-0.125000 F100.0(Penetrate)
G01 X19.152842 Y202.813635 Z-0.125000 F800.000000
G01 X28.189120 Y174.904452 Z-0.125000
G01 X30.217868 Y160.681192 Z-0.125000
G01 X14.468153 Y113.548286 Z-0.125000
G01 X19.134391 Y102.017234 Z-0.125000
G01 X17.608621 Y72.505441 Z-0.125000
G01 X27.680122 Y44.550986 Z-0.125000
G00 Z5.000000

(End cutting path id: polyline1699)


(Start cutting path id: polyline1701)
(Change tool to Default tool)

G00 Z5.000000
G00 X27.817404 Y225.918613

G00 Z4.875000 (Fast pre-penetrate)
G01 Z-0.125000 F100.0(Penetrate)
G01 X21.347650 Y203.071805 Z-0.125000 F800.000000
G01 X29.801860 Y175.351978 Z-0.125000
G01 X32.032543 Y160.387393 Z-0.125000
G01 X17.364595 Y114.243264 Z-0.125000
G01 X20.495813 Y101.954343 Z-0.125000
G01 X19.189353 Y72.965741 Z-0.125000
G01 X28.679422 Y44.635362 Z-0.125000
G00 Z5.000000

(End cutting path id: polyline1701)


(Start cutting path id: polyline1703)
(Change tool to Default tool)

G00 Z5.000000
G00 X28.122705 Y226.805102

G00 Z4.875000 (Fast pre-penetrate)
G01 Z-0.125000 F100.0(Penetrate)
G01 X23.542508 Y203.329974 Z-0.125000 F800.000000
G01 X31.414600 Y175.799554 Z-0.125000
G01 X33.847267 Y160.093545 Z-0.125000
G01 X20.261087 Y114.938193 Z-0.125000
G01 X21.857186 Y101.891452 Z-0.125000
G01 X20.770085 Y73.426042 Z-0.125000
G01 X29.678770 Y44.719689 Z-0.125000
G00 Z5.000000

(End cutting path id: polyline1703)


(Start cutting path id: polyline1705)
(Change tool to Default tool)

G00 Z5.000000
G00 X28.428006 Y227.691590

G00 Z4.875000 (Fast pre-penetrate)
G01 Z-0.125000 F100.0(Penetrate)
G01 X25.737365 Y203.588144 Z-0.125000 F800.000000
G01 X33.027340 Y176.247080 Z-0.125000
G01 X35.661942 Y159.799696 Z-0.125000
G01 X23.157578 Y115.633170 Z-0.125000
G01 X23.218609 Y101.828562 Z-0.125000
G01 X22.350816 Y73.886391 Z-0.125000
G01 X30.678070 Y44.804065 Z-0.125000
G00 Z5.000000

(End cutting path id: polyline1705)


(Start cutting path id: polyline1707)
(Change tool to Default tool)

G00 Z5.000000
G00 X28.733258 Y228.578078

G00 Z4.875000 (Fast pre-penetrate)
G01 Z-0.125000 F100.0(Penetrate)
G01 X27.932174 Y203.846363 Z-0.125000 F800.000000
G01 X34.640080 Y176.694656 Z-0.125000
G01 X37.476617 Y159.505897 Z-0.125000
G01 X26.054020 Y116.328148 Z-0.125000
G01 X24.579982 Y101.765671 Z-0.125000
G01 X23.931548 Y74.346692 Z-0.125000
G01 X31.677370 Y44.888442 Z-0.125000
G00 Z5.000000

(End cutting path id: polyline1707)


(Start cutting path id: polyline1709)
(Change tool to Default tool)

G00 Z5.000000
G00 X29.038559 Y229.464566

G00 Z4.875000 (Fast pre-penetrate)
G01 Z-0.125000 F100.0(Penetrate)
G01 X30.127031 Y204.104483 Z-0.125000 F800.000000
G01 X36.252820 Y177.142182 Z-0.125000
G01 X39.291341 Y159.212048 Z-0.125000
G01 X28.950512 Y117.023077 Z-0.125000
G01 X25.941405 Y101.702732 Z-0.125000
G01 X25.512280 Y74.807041 Z-0.125000
G01 X32.676719 Y44.972769 Z-0.125000
G00 Z5.000000

(End cutting path id: polyline1709)


(Start cutting path id: polyline1711)
(Change tool to Default tool)

G00 Z5.000000
G00 X29.343811 Y230.351055

G00 Z4.875000 (Fast pre-penetrate)
G01 Z-0.125000 F100.0(Penetrate)
G01 X32.321839 Y204.362702 Z-0.125000 F800.000000
G01 X37.865560 Y177.589758 Z-0.125000
G01 X41.106017 Y158.918200 Z-0.125000
G01 X31.847003 Y117.718055 Z-0.125000
G01 X27.302778 Y101.639841 Z-0.125000
G01 X27.093012 Y75.267341 Z-0.125000
G01 X33.676018 Y45.057145 Z-0.125000
G00 Z5.000000

(End cutting path id: polyline1711)


(Start cutting path id: polyline1713)
(Change tool to Default tool)

G00 Z5.000000
G00 X29.649111 Y231.237543

G00 Z4.875000 (Fast pre-penetrate)
G01 Z-0.125000 F100.0(Penetrate)
G01 X39.478300 Y178.037285 Z-0.125000 F800.000000
G01 X42.920741 Y158.624401 Z-0.125000
G01 X34.743495 Y118.412984 Z-0.125000
G01 X28.664152 Y101.576950 Z-0.125000
G01 X28.673744 Y75.727642 Z-0.125000
G01 X34.675367 Y45.141521 Z-0.125000
G00 Z5.000000

(End cutting path id: polyline1713)


(Start cutting path id: polyline1715)
(Change tool to Default tool)

G00 Z5.000000
G00 X29.954363 Y232.124031

G00 Z4.875000 (Fast pre-penetrate)
G01 Z-0.125000 F100.0(Penetrate)
G01 X36.711554 Y204.879041 Z-0.125000 F800.000000
G01 X41.091040 Y178.484860 Z-0.125000
G01 X44.735416 Y158.330552 Z-0.125000
G01 X37.639937 Y119.107962 Z-0.125000
G01 X30.025574 Y101.514060 Z-0.125000
G01 X30.254476 Y76.187942 Z-0.125000
G01 X35.674667 Y45.225897 Z-0.125000
G00 Z5.000000

(End cutting path id: polyline1715)


(Start cutting path id: polyline1717)
(Change tool to Default tool)

G00 Z5.000000
G00 X30.259664 Y233.010519

G00 Z4.875000 (Fast pre-penetrate)
G01 Z-0.125000 F100.0(Penetrate)
G01 X38.906363 Y205.137210 Z-0.125000 F800.000000
G01 X42.703780 Y178.932387 Z-0.125000
G01 X46.550091 Y158.036704 Z-0.125000
G01 X40.536428 Y119.802891 Z-0.125000
G01 X31.386947 Y101.451169 Z-0.125000
G01 X31.835208 Y76.648292 Z-0.125000
G01 X36.673967 Y45.310225 Z-0.125000
G00 Z5.000000

(End cutting path id: polyline1717)


(Start cutting path id: polyline1719)
(Change tool to Default tool)

G00 Z5.000000
G00 X30.564916 Y233.897008

G00 Z4.875000 (Fast pre-penetrate)
G01 Z-0.125000 F100.0(Penetrate)
G01 X41.101220 Y205.395380 Z-0.125000 F800.000000
G01 X44.316471 Y179.379962 Z-0.125000
G01 X48.364815 Y157.742904 Z-0.125000
G01 X43.432920 Y120.497868 Z-0.125000
G01 X32.748370 Y101.388230 Z-0.125000
G01 X33.415940 Y77.108592 Z-0.125000
G01 X37.673315 Y45.394601 Z-0.125000
G00 Z5.000000

(End cutting path id: polyline1719)


(Start cutting path id: polyline1721)
(Change tool to Default tool)

G00 Z5.000000
G00 X30.870217 Y234.783496

G00 Z4.875000 (Fast pre-penetrate)
G01 Z-0.125000 F100.0(Penetrate)
G01 X43.296078 Y205.653550 Z-0.125000 F800.000000
G01 X45.929212 Y179.827489 Z-0.125000
G01 X50.179490 Y157.449056 Z-0.125000
G01 X46.329411 Y121.192797 Z-0.125000
G01 X34.109743 Y101.325339 Z-0.125000
G01 X34.996672 Y77.568893 Z-0.125000
G01 X38.672615 Y45.478977 Z-0.125000
G00 Z5.000000

(End cutting path id: polyline1721)


(Start cutting path id: polyline1549)
(Change tool to Default tool)

G00 Z5.000000
G00 X31.175518 Y235.669984

G00 Z4.875000 (Fast pre-penetrate)
G01 Z-0.125000 F100.0(Penetrate)
G01 X45.490886 Y205.911719 Z-0.125000 F800.000000
G01 X47.541952 Y180.275015 Z-0.125000
G01 X51.994214 Y157.155208 Z-0.125000
G01 X49.225853 Y121.887726 Z-0.125000
G01 X35.471166 Y101.262448 Z-0.125000
G01 X36.577404 Y78.029242 Z-0.125000
G01 X39.671964 Y45.563304 Z-0.125000
G00 Z5.000000

(End cutting path id: polyline1549)


(Start cutting path id: polyline1723)
(Change tool to Default tool)

G00 Z5.000000
G00 X50.181301 Y235.541756

G00 Z4.875000 (Fast pre-penetrate)
G01 Z-0.125000 F100.0(Penetrate)
G01 X58.457508 Y207.132139 Z-0.125000 F800.000000
G01 X55.058137 Y179.147634 Z-0.125000
G01 X60.413430 Y157.141798 Z-0.125000
G01 X55.049963 Y121.782550 Z-0.125000
G01 X52.506834 Y100.878547 Z-0.125000
G01 X52.701428 Y75.728572 Z-0.125000
G01 X49.036937 Y44.137083 Z-0.125000
G00 Z5.000000

(End cutting path id: polyline1723)


(Start cutting path id: polyline1725)
(Change tool to Default tool)

G00 Z5.000000
G00 X58.195815 Y235.106905

G00 Z4.875000 (Fast pre-penetrate)
G01 Z-0.125000 F100.0(Penetrate)
G01 X63.073972 Y207.544526 Z-0.125000 F800.000000
G01 X57.588199 Y178.472673 Z-0.125000
G01 X63.243948 Y157.261950 Z-0.125000
G01 X56.304643 Y121.439612 Z-0.125000
G01 X59.224431 Y100.740970 Z-0.125000
G01 X58.934253 Y74.545250 Z-0.125000
G01 X52.622239 Y43.489676 Z-0.125000
G00 Z5.000000

(End cutting path id: polyline1725)


(Start cutting path id: polyline1727)
(Change tool to Default tool)

G00 Z5.000000
G00 X63.538824 Y234.817021

G00 Z4.875000 (Fast pre-penetrate)
G01 Z-0.125000 F100.0(Penetrate)
G01 X66.151598 Y207.819433 Z-0.125000 F800.000000
G01 X59.274890 Y178.022700 Z-0.125000
G01 X65.130959 Y157.342069 Z-0.125000
G01 X57.141112 Y121.211004 Z-0.125000
G01 X63.702780 Y100.649253 Z-0.125000
G01 X63.089486 Y73.756401 Z-0.125000
G01 X55.012425 Y43.058056 Z-0.125000
G00 Z5.000000

(End cutting path id: polyline1727)


(Start cutting path id: polyline1729)
(Change tool to Default tool)

G00 Z5.000000
G00 X66.210328 Y234.672104

G00 Z4.875000 (Fast pre-penetrate)
G01 Z-0.125000 F100.0(Penetrate)
G01 X67.690435 Y207.956912 Z-0.125000 F800.000000
G01 X60.118211 Y177.797713 Z-0.125000
G01 X66.074465 Y157.382152 Z-0.125000
G01 X57.559372 Y121.096675 Z-0.125000
G01 X65.941979 Y100.603394 Z-0.125000
G01 X65.167079 Y73.361977 Z-0.125000
G01 X56.207493 Y42.842270 Z-0.125000
G00 Z5.000000

(End cutting path id: polyline1729)


(Start cutting path id: polyline1731)
(Change tool to Default tool)

G00 Z5.000000
G00 X68.881882 Y234.527137

G00 Z4.875000 (Fast pre-penetrate)
G01 Z-0.125000 F100.0(Penetrate)
G01 X69.229224 Y208.094390 Z-0.125000 F800.000000
G01 X60.961582 Y177.572726 Z-0.125000
G01 X67.017971 Y157.422187 Z-0.125000
G01 X57.977582 Y120.982346 Z-0.125000
G01 X68.181178 Y100.557535 Z-0.125000
G01 X67.244720 Y72.967552 Z-0.125000
G01 X57.402610 Y42.626485 Z-0.125000
G00 Z5.000000

(End cutting path id: polyline1731)


(Start cutting path id: polyline1733)
(Change tool to Default tool)

G00 Z5.000000
G00 X71.553386 Y234.382171

G00 Z4.875000 (Fast pre-penetrate)
G01 Z-0.125000 F100.0(Penetrate)
G01 X70.768061 Y208.231868 Z-0.125000 F800.000000
G01 X61.804952 Y177.347690 Z-0.125000
G01 X67.961477 Y157.462270 Z-0.125000
G01 X58.395841 Y120.868066 Z-0.125000
G01 X70.420377 Y100.511677 Z-0.125000
G01 X69.322312 Y72.573128 Z-0.125000
G01 X58.597727 Y42.410650 Z-0.125000
G00 Z5.000000

(End cutting path id: polyline1733)


(Start cutting path id: polyline1735)
(Change tool to Default tool)

G00 Z5.000000
G00 X74.224891 Y234.237204

G00 Z4.875000 (Fast pre-penetrate)
G01 Z-0.125000 F100.0(Penetrate)
G01 X72.306850 Y208.369298 Z-0.125000 F800.000000
G01 X62.648273 Y177.122703 Z-0.125000
G01 X68.904982 Y157.502305 Z-0.125000
G01 X58.814051 Y120.753738 Z-0.125000
G01 X72.659527 Y100.465818 Z-0.125000
G01 X71.399953 Y72.178703 Z-0.125000
G01 X59.792795 Y42.194864 Z-0.125000
G00 Z5.000000

(End cutting path id: polyline1735)


(Start cutting path id: polyline1551)
(Change tool to Default tool)

G00 Z5.000000
G00 X76.896395 Y234.092238

G00 Z4.875000 (Fast pre-penetrate)
G01 Z-0.125000 F100.0(Penetrate)
G01 X73.845687 Y208.506776 Z-0.125000 F800.000000
G01 X63.491644 Y176.897717 Z-0.125000
G01 X69.848488 Y157.542389 Z-0.125000
G01 X59.232262 Y120.639458 Z-0.125000
G01 X74.898726 Y100.419959 Z-0.125000
G01 X73.477545 Y71.784230 Z-0.125000
G01 X60.987913 Y41.979079 Z-0.125000
G00 Z5.000000

(End cutting path id: polyline1551)


(Start cutting path id: polyline1553)
(Change tool to Default tool)

G00 Z5.000000
G00 X78.029356 Y234.166434

G00 Z4.875000 (Fast pre-penetrate)
G01 Z-0.125000 F100.0(Penetrate)
G01 X75.114756 Y207.757913 Z-0.125000 F800.000000
G01 X65.719977 Y177.037887 Z-0.125000
G01 X71.406266 Y157.268019 Z-0.125000
G01 X61.202915 Y120.928461 Z-0.125000
G01 X76.247423 Y100.639171 Z-0.125000
G01 X74.417135 Y71.828865 Z-0.125000
G01 X63.342028 Y41.807292 Z-0.125000
G00 Z5.000000

(End cutting path id: polyline1553)


(Start cutting path id: polyline1755)
(Change tool to Default tool)

G00 Z5.000000
G00 X79.162317 Y234.240630

G00 Z4.875000 (Fast pre-penetrate)
G01 Z-0.125000 F100.0(Penetrate)
G01 X76.383825 Y207.009050 Z-0.125000 F800.000000
G01 X67.948262 Y177.178057 Z-0.125000
G01 X72.963996 Y156.993650 Z-0.125000
G01 X63.173520 Y121.217415 Z-0.125000
G01 X77.596072 Y100.858383 Z-0.125000
G01 X75.356726 Y71.873501 Z-0.125000
G01 X65.696192 Y41.635505 Z-0.125000
G00 Z5.000000

(End cutting path id: polyline1755)


(Start cutting path id: polyline1757)
(Change tool to Default tool)

G00 Z5.000000
G00 X80.295326 Y234.314826

G00 Z4.875000 (Fast pre-penetrate)
G01 Z-0.125000 F100.0(Penetrate)
G01 X77.652893 Y206.260187 Z-0.125000 F800.000000
G01 X70.176596 Y177.318227 Z-0.125000
G01 X74.521774 Y156.719280 Z-0.125000
G01 X65.144174 Y121.506418 Z-0.125000
G01 X78.944720 Y101.077545 Z-0.125000
G01 X76.296267 Y71.918136 Z-0.125000
G01 X68.050356 Y41.463718 Z-0.125000
G00 Z5.000000

(End cutting path id: polyline1757)


(Start cutting path id: polyline1759)
(Change tool to Default tool)

G00 Z5.000000
G00 X81.428287 Y234.388974

G00 Z4.875000 (Fast pre-penetrate)
G01 Z-0.125000 F100.0(Penetrate)
G01 X78.921962 Y205.511324 Z-0.125000 F800.000000
G01 X72.404930 Y177.458348 Z-0.125000
G01 X76.079552 Y156.444911 Z-0.125000
G01 X67.114778 Y121.795421 Z-0.125000
G01 X80.293418 Y101.296757 Z-0.125000
G01 X77.235858 Y71.962722 Z-0.125000
G01 X70.404519 Y41.291931 Z-0.125000
G00 Z5.000000

(End cutting path id: polyline1759)


(Start cutting path id: polyline1761)
(Change tool to Default tool)

G00 Z5.000000
G00 X82.561248 Y234.463170

G00 Z4.875000 (Fast pre-penetrate)
G01 Z-0.125000 F100.0(Penetrate)
G01 X80.191031 Y204.762461 Z-0.125000 F800.000000
G01 X74.633264 Y177.598568 Z-0.125000
G01 X77.637330 Y156.170542 Z-0.125000
G01 X69.085432 Y122.084424 Z-0.125000
G01 X81.642066 Y101.515920 Z-0.125000
G01 X78.175448 Y72.007357 Z-0.125000
G01 X72.758634 Y41.120145 Z-0.125000
G00 Z5.000000

(End cutting path id: polyline1761)


(Start cutting path id: polyline1763)
(Change tool to Default tool)

G00 Z5.000000
G00 X83.694257 Y234.537317

G00 Z4.875000 (Fast pre-penetrate)
G01 Z-0.125000 F100.0(Penetrate)
G01 X81.460099 Y204.013598 Z-0.125000 F800.000000
G01 X76.861598 Y177.738738 Z-0.125000
G01 X79.195059 Y155.896172 Z-0.125000
G01 X71.056037 Y122.373428 Z-0.125000
G01 X82.990715 Y101.735131 Z-0.125000
G01 X75.112798 Y40.948358 Z-0.125000
G00 Z5.000000

(End cutting path id: polyline1763)


(Start cutting path id: polyline1765)
(Change tool to Default tool)

G00 Z5.000000
G00 X84.827218 Y234.611513

G00 Z4.875000 (Fast pre-penetrate)
G01 Z-0.125000 F100.0(Penetrate)
G01 X82.729168 Y203.264735 Z-0.125000 F800.000000
G01 X79.089931 Y177.878859 Z-0.125000
G01 X80.752837 Y155.621803 Z-0.125000
G01 X73.026690 Y122.662431 Z-0.125000
G01 X84.339412 Y101.954343 Z-0.125000
G01 X80.054580 Y72.096579 Z-0.125000
G01 X77.466913 Y40.776571 Z-0.125000
G00 Z5.000000

(End cutting path id: polyline1765)


(Start cutting path id: polyline1767)
(Change tool to Default tool)

G00 Z5.000000
G00 X85.960179 Y234.685710

G00 Z4.875000 (Fast pre-penetrate)
G01 Z-0.125000 F100.0(Penetrate)
G01 X83.998286 Y202.515872 Z-0.125000 F800.000000
G01 X81.318216 Y178.019029 Z-0.125000
G01 X82.310566 Y155.347384 Z-0.125000
G01 X74.997295 Y122.951434 Z-0.125000
G01 X85.688061 Y102.173555 Z-0.125000
G01 X80.994171 Y72.141214 Z-0.125000
G01 X79.821077 Y40.604784 Z-0.125000
G00 Z5.000000

(End cutting path id: polyline1767)


(Start cutting path id: polyline1769)
(Change tool to Default tool)

G00 Z5.000000
G00 X87.093188 Y234.759906

G00 Z4.875000 (Fast pre-penetrate)
G01 Z-0.125000 F100.0(Penetrate)
G01 X85.267354 Y201.767009 Z-0.125000 F800.000000
G01 X83.546550 Y178.159199 Z-0.125000
G01 X83.868344 Y155.073015 Z-0.125000
G01 X76.967900 Y123.240437 Z-0.125000
G01 X87.036709 Y102.392717 Z-0.125000
G01 X81.933761 Y72.185800 Z-0.125000
G01 X82.175241 Y40.432998 Z-0.125000
G00 Z5.000000

(End cutting path id: polyline1769)


(Start cutting path id: polyline1771)
(Change tool to Default tool)

G00 Z5.000000
G00 X88.226149 Y234.834053

G00 Z4.875000 (Fast pre-penetrate)
G01 Z-0.125000 F100.0(Penetrate)
G01 X86.536423 Y201.018097 Z-0.125000 F800.000000
G01 X85.774884 Y178.299369 Z-0.125000
G01 X85.426122 Y154.798646 Z-0.125000
G01 X78.938553 Y123.529391 Z-0.125000
G01 X88.385407 Y102.611929 Z-0.125000
G01 X82.873351 Y72.230435 Z-0.125000
G01 X84.529405 Y40.261211 Z-0.125000
G00 Z5.000000

(End cutting path id: polyline1771)


(Start cutting path id: polyline1773)
(Change tool to Default tool)

G00 Z5.000000
G00 X89.359110 Y234.908249

G00 Z4.875000 (Fast pre-penetrate)
G01 Z-0.125000 F100.0(Penetrate)
G01 X87.805492 Y200.269282 Z-0.125000 F800.000000
G01 X88.003218 Y178.439540 Z-0.125000
G01 X86.983901 Y154.524276 Z-0.125000
G01 X80.909158 Y123.818394 Z-0.125000
G01 X89.734055 Y102.831141 Z-0.125000
G01 X83.812893 Y72.275070 Z-0.125000
G01 X86.883520 Y40.089424 Z-0.125000
G00 Z5.000000

(End cutting path id: polyline1773)


(Start cutting path id: polyline1775)
(Change tool to Default tool)

G00 Z5.000000
G00 X91.625080 Y235.056593

G00 Z4.875000 (Fast pre-penetrate)
G01 Z-0.125000 F100.0(Penetrate)
G01 X90.343629 Y198.771556 Z-0.125000 F800.000000
G01 X92.459836 Y178.719880 Z-0.125000
G01 X90.099408 Y153.975537 Z-0.125000
G01 X84.850417 Y124.396400 Z-0.125000
G01 X92.431401 Y103.269515 Z-0.125000
G01 X85.692074 Y72.364292 Z-0.125000
G01 X91.591848 Y39.745851 Z-0.125000
G00 Z5.000000

(End cutting path id: polyline1775)


(Start cutting path id: polyline1777)
(Change tool to Default tool)

G00 Z5.000000
G00 X92.758041 Y235.130740

G00 Z4.875000 (Fast pre-penetrate)
G01 Z-0.125000 F100.0(Penetrate)
G01 X91.612698 Y198.022644 Z-0.125000 F800.000000
G01 X94.688170 Y178.860050 Z-0.125000
G01 X91.657186 Y153.701168 Z-0.125000
G01 X86.821021 Y124.685403 Z-0.125000
G01 X93.780050 Y103.488727 Z-0.125000
G01 X86.631664 Y72.408878 Z-0.125000
G01 X93.945963 Y39.574064 Z-0.125000
G00 Z5.000000

(End cutting path id: polyline1777)


(Start cutting path id: polyline1779)
(Change tool to Default tool)

G00 Z5.000000
G00 X93.891050 Y235.204936

G00 Z4.875000 (Fast pre-penetrate)
G01 Z-0.125000 F100.0(Penetrate)
G01 X92.881766 Y197.273781 Z-0.125000 F800.000000
G01 X96.916504 Y179.000220 Z-0.125000
G01 X93.214915 Y153.426798 Z-0.125000
G01 X88.791675 Y124.974407 Z-0.125000
G01 X95.128747 Y103.707889 Z-0.125000
G01 X87.571206 Y72.453513 Z-0.125000
G01 X96.300127 Y39.402277 Z-0.125000
G00 Z5.000000

(End cutting path id: polyline1779)


(Start cutting path id: polyline1557)
(Change tool to Default tool)

G00 Z5.000000
G00 X97.207122 Y235.328858

G00 Z4.875000 (Fast pre-penetrate)
G01 Z-0.125000 F100.0(Penetrate)
G01 X97.206143 Y195.907269 Z-0.125000 F800.000000
G01 X102.449604 Y179.082052 Z-0.125000
G01 X97.738438 Y152.027250 Z-0.125000
G01 X94.680486 Y125.778966 Z-0.125000
G01 X98.642056 Y104.113130 Z-0.125000
G01 X90.599939 Y71.876486 Z-0.125000
G01 X102.329598 Y39.472851 Z-0.125000
G00 Z5.000000

(End cutting path id: polyline1557)


(Start cutting path id: polyline1555)
(Change tool to Default tool)

G00 Z5.000000
G00 X96.156972 Y235.353280

G00 Z4.875000 (Fast pre-penetrate)
G01 Z-0.125000 F100.0(Penetrate)
G01 X95.419904 Y195.776055 Z-0.125000 F800.000000
G01 X101.373123 Y179.280561 Z-0.125000
G01 X96.330471 Y152.878060 Z-0.125000
G01 X92.732933 Y125.552364 Z-0.125000
G01 X97.826044 Y104.146313 Z-0.125000
G01 X89.450387 Y72.542735 Z-0.125000
G01 X101.008406 Y39.058703 Z-0.125000
G00 Z5.000000

(End cutting path id: polyline1555)


(Start cutting path id: polyline1737)
(Change tool to Default tool)

G00 Z5.000000
G00 X60.867319 Y234.961988

G00 Z4.875000 (Fast pre-penetrate)
G01 Z-0.125000 F100.0(Penetrate)
G01 X64.612760 Y207.682004 Z-0.125000 F800.000000
G01 X58.431520 Y178.247687 Z-0.125000
G01 X64.187453 Y157.302034 Z-0.125000
G01 X56.722902 Y121.325332 Z-0.125000
G01 X61.463581 Y100.695112 Z-0.125000
G01 X61.011894 Y74.150825 Z-0.125000
G01 X53.817308 Y43.273891 Z-0.125000
G00 Z5.000000

(End cutting path id: polyline1737)


(Start cutting path id: polyline1739)
(Change tool to Default tool)

G00 Z5.000000
G00 X55.524310 Y235.251872

G00 Z4.875000 (Fast pre-penetrate)
G01 Z-0.125000 F100.0(Penetrate)
G01 X61.535134 Y207.407096 Z-0.125000 F800.000000
G01 X56.744828 Y178.697660 Z-0.125000
G01 X62.300442 Y157.221916 Z-0.125000
G01 X55.886433 Y121.553941 Z-0.125000
G01 X56.985232 Y100.786829 Z-0.125000
G01 X56.856661 Y74.939674 Z-0.125000
G01 X51.427122 Y43.705462 Z-0.125000
G00 Z5.000000

(End cutting path id: polyline1739)


(Start cutting path id: polyline1741)
(Change tool to Default tool)

G00 Z5.000000
G00 X52.852806 Y235.396838

G00 Z4.875000 (Fast pre-penetrate)
G01 Z-0.125000 F100.0(Penetrate)
G01 X59.996297 Y207.269618 Z-0.125000 F800.000000
G01 X55.901507 Y178.922647 Z-0.125000
G01 X61.356936 Y157.181832 Z-0.125000
G01 X55.468174 Y121.668221 Z-0.125000
G01 X54.746033 Y100.832688 Z-0.125000
G01 X54.779020 Y75.334147 Z-0.125000
G01 X50.232005 Y43.921297 Z-0.125000
G00 Z5.000000

(End cutting path id: polyline1741)


(Start cutting path id: polyline1743)
(Change tool to Default tool)

G00 Z5.000000
G00 X47.509797 Y235.686771

G00 Z4.875000 (Fast pre-penetrate)
G01 Z-0.125000 F100.0(Penetrate)
G01 X56.918671 Y206.994710 Z-0.125000 F800.000000
G01 X54.214815 Y179.372621 Z-0.125000
G01 X59.469924 Y157.101714 Z-0.125000
G01 X54.631704 Y121.896829 Z-0.125000
G01 X50.267684 Y100.924405 Z-0.125000
G01 X50.623836 Y76.122996 Z-0.125000
G01 X47.841820 Y44.352868 Z-0.125000
G00 Z5.000000

(End cutting path id: polyline1743)


(Start cutting path id: polyline1745)
(Change tool to Default tool)

G00 Z5.000000
G00 X44.838292 Y235.831689

G00 Z4.875000 (Fast pre-penetrate)
G01 Z-0.125000 F100.0(Penetrate)
G01 X55.379833 Y206.857232 Z-0.125000 F800.000000
G01 X53.371445 Y179.597608 Z-0.125000
G01 X58.526419 Y157.061679 Z-0.125000
G01 X54.213494 Y122.011158 Z-0.125000
G01 X48.028485 Y100.970264 Z-0.125000
G01 X48.546195 Y76.517421 Z-0.125000
G01 X46.646752 Y44.568703 Z-0.125000
G00 Z5.000000

(End cutting path id: polyline1745)


(Start cutting path id: polyline1747)
(Change tool to Default tool)

G00 Z5.000000
G00 X42.166788 Y235.976655

G00 Z4.875000 (Fast pre-penetrate)
G01 Z-0.125000 F100.0(Penetrate)
G01 X53.840996 Y206.719753 Z-0.125000 F800.000000
G01 X52.528075 Y179.822643 Z-0.125000
G01 X57.582913 Y157.021645 Z-0.125000
G01 X53.795284 Y122.125487 Z-0.125000
G01 X45.789286 Y101.016123 Z-0.125000
G01 X46.468602 Y76.911845 Z-0.125000
G01 X45.451635 Y44.784489 Z-0.125000
G00 Z5.000000

(End cutting path id: polyline1747)


(Start cutting path id: polyline1749)
(Change tool to Default tool)

G00 Z5.000000
G00 X39.495283 Y236.121573

G00 Z4.875000 (Fast pre-penetrate)
G01 Z-0.125000 F100.0(Penetrate)
G01 X52.302207 Y206.582275 Z-0.125000 F800.000000
G01 X51.684754 Y180.047630 Z-0.125000
G01 X56.639407 Y156.981561 Z-0.125000
G01 X53.377025 Y122.239767 Z-0.125000
G01 X43.550087 Y101.061982 Z-0.125000
G01 X44.390961 Y77.306269 Z-0.125000
G01 X44.256566 Y45.000274 Z-0.125000
G00 Z5.000000

(End cutting path id: polyline1749)


(Start cutting path id: polyline1751)
(Change tool to Default tool)

G00 Z5.000000
G00 X36.823779 Y236.266588

G00 Z4.875000 (Fast pre-penetrate)
G01 Z-0.125000 F100.0(Penetrate)
G01 X50.763370 Y206.444846 Z-0.125000 F800.000000
G01 X50.841383 Y180.272617 Z-0.125000
G01 X55.695901 Y156.941477 Z-0.125000
G01 X52.958814 Y122.354095 Z-0.125000
G01 X41.310937 Y101.107840 Z-0.125000
G01 X42.313369 Y77.700694 Z-0.125000
G01 X43.061449 Y45.216109 Z-0.125000
G00 Z5.000000

(End cutting path id: polyline1751)


(Start cutting path id: polyline1753)
(Change tool to Default tool)

G00 Z5.000000
G00 X34.152274 Y236.411506

G00 Z4.875000 (Fast pre-penetrate)
G01 Z-0.125000 F100.0(Penetrate)
G01 X49.224532 Y206.307367 Z-0.125000 F800.000000
G01 X49.998062 Y180.497604 Z-0.125000
G01 X54.752395 Y156.901443 Z-0.125000
G01 X52.540555 Y122.468375 Z-0.125000
G01 X39.071738 Y101.153699 Z-0.125000
G01 X41.866381 Y45.431895 Z-0.125000
G00 Z5.000000

(End cutting path id: polyline1753)


(Start cutting path id: polyline1547)
(Change tool to Default tool)

G00 Z5.000000
G00 X31.480769 Y236.556473

G00 Z4.875000 (Fast pre-penetrate)
G01 Z-0.125000 F100.0(Penetrate)
G01 X47.685743 Y206.169889 Z-0.125000 F800.000000
G01 X49.154692 Y180.722591 Z-0.125000
G01 X53.808890 Y156.861359 Z-0.125000
G01 X52.122345 Y122.582704 Z-0.125000
G01 X36.832539 Y101.199558 Z-0.125000
G01 X38.158136 Y78.489543 Z-0.125000
G01 X40.671264 Y45.647680 Z-0.125000
G00 Z5.000000

(End cutting path id: polyline1547)



(Footer)
M5
G00 X0.0000 Y0.0000
M2
(Using default footer. To add your own footer create file "footer" in the output dir.)
(end)
%