%
(Header)
(Generated by gcodetools from Inkscape.)
(Using default header. To add your own header create file "header" in the output dir.)
M3
(Header end.)
G21 (All units in mm)

(Start cutting path id: polyline7614-6)
(Change tool to Default tool)

G00 Z3.000000
G00 X5.866390 Y237.492096

G00 Z4.875000 (Fast pre-penetrate)
G01 Z-0.125000 F400.0(Penetrate)
G01 X7.779034 Y238.259731 Z-0.125000 F800.000000
G01 X8.629113 Y238.445944 Z-0.125000
G01 X9.585422 Y238.532860 Z-0.125000
G01 X11.391809 Y238.419883 Z-0.125000
G01 X15.110841 Y237.796393 Z-0.125000
G01 X17.023512 Y237.553982 Z-0.125000
G01 X19.148669 Y237.400947 Z-0.125000
G01 X21.486339 Y237.349512 Z-0.125000
G01 X25.842936 Y237.541203 Z-0.125000
G01 X32.112177 Y238.421470 Z-0.125000
G01 X34.237334 Y238.530875 Z-0.125000
G01 X35.512439 Y238.414459 Z-0.125000
G01 X36.893801 Y238.107410 Z-0.125000
G01 X41.675424 Y236.425165 Z-0.125000
G01 X42.737989 Y236.226834 Z-0.125000
G01 X43.800581 Y236.180664 Z-0.125000
G01 X44.969429 Y236.312850 Z-0.125000
G01 X46.138251 Y236.614051 Z-0.125000
G01 X50.494849 Y238.345350 Z-0.125000
G01 X52.513749 Y238.950583 Z-0.125000
G01 X54.851446 Y239.316846 Z-0.125000
G01 X57.720399 Y239.421462 Z-0.125000
G01 X60.164352 Y239.277582 Z-0.125000
G01 X62.183252 Y238.868616 Z-0.125000
G01 X63.883383 Y238.203216 Z-0.125000
G01 X66.964876 Y236.572459 Z-0.125000
G01 X67.708671 Y236.305891 Z-0.125000
G01 X68.452494 Y236.182013 Z-0.125000
G01 X69.196289 Y236.232337 Z-0.125000
G01 X69.926830 Y236.457735 Z-0.125000
G01 X70.670625 Y236.841063 Z-0.125000
G01 X72.716090 Y238.136514 Z-0.125000
G01 X73.446630 Y238.430598 Z-0.125000
G01 X74.084169 Y238.533098 Z-0.125000
G01 X75.146761 Y238.375115 Z-0.125000
G01 X77.590688 Y237.284769 Z-0.125000
G01 X78.228253 Y237.104852 Z-0.125000
G01 X78.865793 Y237.031642 Z-0.125000
G01 X79.928384 Y237.134195 Z-0.125000
G01 X82.478568 Y237.762526 Z-0.125000
G01 X83.647416 Y237.875186 Z-0.125000
G01 X89.279092 Y237.499293 Z-0.125000
G01 X97.886029 Y237.567291 Z-0.125000
G01 X105.855375 Y237.493551 Z-0.125000
G01 X108.193072 Y237.553585 Z-0.125000
G01 X112.549643 Y237.877779 Z-0.125000
G01 X114.037261 Y237.755409 Z-0.125000
G01 X116.587470 Y237.157690 Z-0.125000
G01 X117.756319 Y237.031193 Z-0.125000
G01 X119.031397 Y237.240134 Z-0.125000
G01 X121.581607 Y238.349874 Z-0.125000
G01 X122.644199 Y238.535903 Z-0.125000
G01 X123.175481 Y238.470630 Z-0.125000
G01 X123.759892 Y238.272563 Z-0.125000
G01 X124.410740 Y237.918657 Z-0.125000
G01 X126.456205 Y236.537243 Z-0.125000
G01 X127.107026 Y236.267156 Z-0.125000
G01 X127.744591 Y236.177304 Z-0.125000
G01 X128.488387 Y236.311606 Z-0.125000
G01 X129.245491 Y236.690515 Z-0.125000
G01 X131.487224 Y238.503914 Z-0.125000
G01 X132.406650 Y239.129547 Z-0.125000
G01 X133.163754 Y239.456810 Z-0.125000
G01 X134.013806 Y239.584551 Z-0.125000
G01 X134.863885 Y239.466864 Z-0.125000
G01 X135.846784 Y239.081049 Z-0.125000
G01 X139.379867 Y236.909961 Z-0.125000
G01 X141.053434 Y236.099622 Z-0.125000
G01 X142.939514 Y235.529896 Z-0.125000
G01 X145.170927 Y235.213534 Z-0.125000
G01 X147.083571 Y235.122147 Z-0.125000
G01 X149.315012 Y235.133550 Z-0.125000
G01 X151.333912 Y235.243008 Z-0.125000
G01 X153.140300 Y235.442372 Z-0.125000
G01 X156.221792 Y236.045436 Z-0.125000
G01 X161.959724 Y237.668150 Z-0.125000
G01 X164.616190 Y238.281294 Z-0.125000
G01 X167.697683 Y238.711586 Z-0.125000
G01 X170.885432 Y238.848613 Z-0.125000
G01 X174.073181 Y238.689123 Z-0.125000
G01 X177.048390 Y238.227161 Z-0.125000
G01 X179.598600 Y237.562290 Z-0.125000
G01 X185.442788 Y235.665256 Z-0.125000
G01 X187.142946 Y235.276425 Z-0.125000
G01 X188.843077 Y235.037692 Z-0.125000
G00 Z3.000000

(End cutting path id: polyline7614-6)


(Start cutting path id: polyline7610-2)
(Change tool to Default tool)

G00 Z3.000000
G00 X5.866390 Y234.541149

G00 Z4.875000 (Fast pre-penetrate)
G01 Z-0.125000 F400.0(Penetrate)
G01 X7.141495 Y234.331970 Z-0.125000 F800.000000
G01 X10.648014 Y233.469614 Z-0.125000
G01 X12.773171 Y233.172249 Z-0.125000
G01 X15.217124 Y233.066549 Z-0.125000
G01 X22.761444 Y233.061469 Z-0.125000
G01 X25.205397 Y233.105204 Z-0.125000
G01 X27.224297 Y233.271204 Z-0.125000
G01 X29.030685 Y233.575448 Z-0.125000
G01 X32.643460 Y234.413752 Z-0.125000
G01 X33.706052 Y234.549325 Z-0.125000
G01 X34.662361 Y234.553082 Z-0.125000
G01 X35.618696 Y234.419944 Z-0.125000
G01 X36.575005 Y234.148217 Z-0.125000
G01 X40.506576 Y232.458484 Z-0.125000
G01 X41.356628 Y232.261714 Z-0.125000
G01 X42.100450 Y232.208638 Z-0.125000
G01 X43.056759 Y232.315292 Z-0.125000
G01 X43.986530 Y232.596517 Z-0.125000
G01 X45.009276 Y233.065675 Z-0.125000
G01 X48.263435 Y234.829862 Z-0.125000
G01 X49.432257 Y235.271134 Z-0.125000
G01 X50.494849 Y235.513386 Z-0.125000
G01 X52.407493 Y235.604085 Z-0.125000
G01 X56.020268 Y235.264413 Z-0.125000
G01 X57.720399 Y235.205623 Z-0.125000
G01 X63.033305 Y235.612895 Z-0.125000
G01 X64.202153 Y235.470841 Z-0.125000
G01 X65.371001 Y235.066981 Z-0.125000
G01 X66.393747 Y234.482861 Z-0.125000
G01 X68.997058 Y232.645650 Z-0.125000
G01 X69.740881 Y232.321007 Z-0.125000
G01 X70.471394 Y232.208506 Z-0.125000
G01 X71.002677 Y232.271847 Z-0.125000
G01 X71.600396 Y232.481291 Z-0.125000
G01 X74.203708 Y234.181184 Z-0.125000
G01 X74.827991 Y234.448492 Z-0.125000
G01 X75.465531 Y234.563242 Z-0.125000
G01 X75.996813 Y234.533212 Z-0.125000
G01 X76.528122 Y234.398063 Z-0.125000
G01 X78.865793 Y233.336661 Z-0.125000
G01 X79.503332 Y233.148331 Z-0.125000
G01 X80.140897 Y233.066284 Z-0.125000
G01 X81.097206 Y233.126186 Z-0.125000
G01 X83.753673 Y233.746421 Z-0.125000
G01 X85.241290 Y233.904218 Z-0.125000
G01 X91.191736 Y233.566769 Z-0.125000
G01 X97.248464 Y233.524859 Z-0.125000
G01 X102.455113 Y233.577802 Z-0.125000
G01 X108.193072 Y233.909298 Z-0.125000
G01 X109.893203 Y233.783939 Z-0.125000
G01 X112.762182 Y233.162804 Z-0.125000
G01 X113.824748 Y233.062077 Z-0.125000
G01 X115.099852 Y233.255990 Z-0.125000
G01 X117.650036 Y234.357581 Z-0.125000
G01 X118.181345 Y234.511225 Z-0.125000
G01 X118.818884 Y234.565464 Z-0.125000
G01 X119.456450 Y234.451985 Z-0.125000
G01 X120.133835 Y234.151207 Z-0.125000
G01 X122.551198 Y232.481635 Z-0.125000
G01 X123.069225 Y232.278885 Z-0.125000
G01 X123.600507 Y232.209935 Z-0.125000
G01 X124.224764 Y232.328203 Z-0.125000
G01 X124.875612 Y232.677479 Z-0.125000
G01 X127.032652 Y234.666244 Z-0.125000
G01 X127.768192 Y235.232108 Z-0.125000
G01 X128.408695 Y235.531113 Z-0.125000
G01 X129.019670 Y235.613716 Z-0.125000
G01 X129.803338 Y235.425438 Z-0.125000
G01 X130.578143 Y234.955301 Z-0.125000
G01 X133.057497 Y232.622922 Z-0.125000
G01 X134.080217 Y231.799990 Z-0.125000
G01 X135.009988 Y231.279396 Z-0.125000
G01 X135.713937 Y231.104084 Z-0.125000
G01 X136.351503 Y231.200577 Z-0.125000
G01 X138.171172 Y232.032267 Z-0.125000
G01 X139.220482 Y232.373182 Z-0.125000
G01 X141.770665 Y232.946349 Z-0.125000
G01 X143.683309 Y233.114597 Z-0.125000
G01 X144.958414 Y233.067898 Z-0.125000
G01 X146.127263 Y232.919546 Z-0.125000
G01 X149.208755 Y232.321403 Z-0.125000
G01 X153.671582 Y231.265162 Z-0.125000
G01 X154.946687 Y231.065640 Z-0.125000
G01 X156.221792 Y230.970522 Z-0.125000
G01 X157.603153 Y231.000208 Z-0.125000
G01 X159.090771 Y231.179701 Z-0.125000
G01 X166.103808 Y232.823344 Z-0.125000
G01 X168.016452 Y233.112877 Z-0.125000
G01 X169.929096 Y233.243634 Z-0.125000
G01 X172.054254 Y233.191273 Z-0.125000
G01 X174.285694 Y232.914202 Z-0.125000
G01 X176.304594 Y232.489943 Z-0.125000
G01 X180.661191 Y231.364751 Z-0.125000
G01 X182.998862 Y231.001320 Z-0.125000
G01 X184.380223 Y230.972454 Z-0.125000
G01 X185.761584 Y231.099004 Z-0.125000
G01 X187.142946 Y231.365253 Z-0.125000
G01 X188.843077 Y231.828432 Z-0.125000
G00 Z3.000000

(End cutting path id: polyline7610-2)


(Start cutting path id: polyline7348-3)
(Change tool to Default tool)

G00 Z3.000000
G00 X5.866390 Y231.160413

G00 Z4.875000 (Fast pre-penetrate)
G01 Z-0.125000 F400.0(Penetrate)
G01 X7.991548 Y230.639185 Z-0.125000 F800.000000
G01 X10.010448 Y230.429291 Z-0.125000
G01 X18.404846 Y230.680327 Z-0.125000
G01 X26.586732 Y230.423894 Z-0.125000
G01 X28.924428 Y230.666199 Z-0.125000
G01 X33.068486 Y231.762975 Z-0.125000
G01 X34.662361 Y231.917914 Z-0.125000
G01 X35.618696 Y231.792925 Z-0.125000
G01 X36.548441 Y231.503128 Z-0.125000
G01 X40.081550 Y229.808579 Z-0.125000
G01 X40.825345 Y229.616704 Z-0.125000
G01 X41.569141 Y229.564131 Z-0.125000
G01 X42.419220 Y229.688247 Z-0.125000
G01 X43.242734 Y229.985003 Z-0.125000
G01 X44.172479 Y230.484827 Z-0.125000
G01 X46.961766 Y232.239806 Z-0.125000
G01 X47.944639 Y232.670944 Z-0.125000
G01 X48.900974 Y232.910339 Z-0.125000
G01 X49.857309 Y232.967780 Z-0.125000
G01 X50.813618 Y232.865915 Z-0.125000
G01 X55.382728 Y231.591022 Z-0.125000
G01 X56.657833 Y231.376392 Z-0.125000
G01 X57.826655 Y231.313131 Z-0.125000
G01 X58.889247 Y231.375678 Z-0.125000
G01 X60.058095 Y231.575359 Z-0.125000
G01 X63.777127 Y232.741561 Z-0.125000
G01 X64.520923 Y232.907243 Z-0.125000
G01 X65.264745 Y232.970426 Z-0.125000
G01 X66.221054 Y232.845357 Z-0.125000
G01 X67.137543 Y232.473115 Z-0.125000
G01 X68.015641 Y231.896959 Z-0.125000
G01 X70.298727 Y230.075755 Z-0.125000
G01 X71.042523 Y229.698645 Z-0.125000
G01 X71.640243 Y229.569396 Z-0.125000
G01 X72.171525 Y229.597813 Z-0.125000
G01 X72.809064 Y229.808130 Z-0.125000
G01 X75.412402 Y231.541916 Z-0.125000
G01 X75.996813 Y231.796180 Z-0.125000
G01 X76.634379 Y231.918047 Z-0.125000
G01 X77.590688 Y231.791311 Z-0.125000
G01 X80.061205 Y230.704907 Z-0.125000
G01 X80.778437 Y230.500490 Z-0.125000
G01 X81.416002 Y230.421539 Z-0.125000
G01 X82.478568 Y230.485462 Z-0.125000
G01 X85.241290 Y231.079054 Z-0.125000
G01 X86.941421 Y231.253679 Z-0.125000
G01 X95.973359 Y230.982666 Z-0.125000
G01 X99.267364 Y231.034631 Z-0.125000
G01 X104.686553 Y231.263654 Z-0.125000
G01 X106.705454 Y231.138453 Z-0.125000
G01 X109.786946 Y230.532002 Z-0.125000
G01 X110.955768 Y230.416432 Z-0.125000
G01 X111.593334 Y230.452865 Z-0.125000
G01 X112.337130 Y230.605186 Z-0.125000
G01 X114.993596 Y231.717837 Z-0.125000
G01 X116.056188 Y231.920798 Z-0.125000
G01 X116.693727 Y231.841159 Z-0.125000
G01 X117.251574 Y231.631318 Z-0.125000
G01 X117.902421 Y231.246720 Z-0.125000
G01 X119.761937 Y229.905099 Z-0.125000
G01 X120.319784 Y229.652052 Z-0.125000
G01 X120.944041 Y229.564634 Z-0.125000
G01 X121.528478 Y229.686951 Z-0.125000
G01 X122.065661 Y229.993920 Z-0.125000
G01 X124.875612 Y232.587442 Z-0.125000
G01 X125.526433 Y232.904835 Z-0.125000
G01 X126.044460 Y232.966695 Z-0.125000
G01 X126.642153 Y232.823476 Z-0.125000
G01 X127.354967 Y232.373447 Z-0.125000
G01 X128.053704 Y231.706618 Z-0.125000
G01 X130.164917 Y229.371224 Z-0.125000
G01 X131.105007 Y228.643726 Z-0.125000
G01 X131.569880 Y228.453623 Z-0.125000
G01 X132.034752 Y228.616977 Z-0.125000
G01 X133.429395 Y229.643797 Z-0.125000
G01 X134.545115 Y230.227705 Z-0.125000
G01 X135.567835 Y230.886782 Z-0.125000
G01 X138.370403 Y232.108758 Z-0.125000
G01 X139.326739 Y232.399561 Z-0.125000
G01 X141.770665 Y232.946349 Z-0.125000
G01 X142.939514 Y233.085069 Z-0.125000
G01 X144.108336 Y233.112348 Z-0.125000
G01 X146.127263 Y232.920790 Z-0.125000
G01 X148.039907 Y232.463934 Z-0.125000
G01 X150.165064 Y231.654654 Z-0.125000
G01 X154.163045 Y229.687718 Z-0.125000
G01 X155.796766 Y229.000490 Z-0.125000
G01 X157.709410 Y228.479896 Z-0.125000
G01 X159.515797 Y228.319083 Z-0.125000
G01 X161.747211 Y228.497094 Z-0.125000
G01 X167.378913 Y229.496504 Z-0.125000
G01 X170.247866 Y229.685681 Z-0.125000
G01 X171.841740 Y229.628663 Z-0.125000
G01 X173.435615 Y229.460467 Z-0.125000
G01 X179.492343 Y228.409226 Z-0.125000
G01 X180.767448 Y228.321887 Z-0.125000
G01 X181.936270 Y228.354114 Z-0.125000
G01 X183.317631 Y228.551175 Z-0.125000
G01 X184.805249 Y228.951542 Z-0.125000
G01 X186.332713 Y229.523094 Z-0.125000
G01 X188.843077 Y230.613917 Z-0.125000
G00 Z3.000000

(End cutting path id: polyline7348-3)


(Start cutting path id: polyline7350-2)
(Change tool to Default tool)

G00 Z3.000000
G00 X5.866390 Y229.399719

G00 Z4.875000 (Fast pre-penetrate)
G01 Z-0.125000 F400.0(Penetrate)
G01 X7.354008 Y229.160907 Z-0.125000 F800.000000
G01 X8.947883 Y229.093306 Z-0.125000
G01 X15.110841 Y229.482904 Z-0.125000
G01 X18.617386 Y229.540583 Z-0.125000
G01 X21.380082 Y229.440280 Z-0.125000
G01 X25.736680 Y229.123415 Z-0.125000
G01 X27.436811 Y229.104101 Z-0.125000
G01 X29.349455 Y229.328097 Z-0.125000
G01 X33.174743 Y230.420004 Z-0.125000
G01 X34.024821 Y230.568568 Z-0.125000
G01 X34.768617 Y230.595132 Z-0.125000
G01 X35.618696 Y230.483266 Z-0.125000
G01 X36.548441 Y230.185028 Z-0.125000
G01 X39.895574 Y228.496168 Z-0.125000
G01 X40.612832 Y228.297546 Z-0.125000
G01 X41.356628 Y228.242036 Z-0.125000
G01 X42.100450 Y228.353320 Z-0.125000
G01 X42.963785 Y228.680080 Z-0.125000
G01 X43.893556 Y229.216998 Z-0.125000
G01 X46.589868 Y231.009442 Z-0.125000
G01 X47.519613 Y231.414678 Z-0.125000
G01 X48.369691 Y231.611580 Z-0.125000
G01 X49.219744 Y231.637509 Z-0.125000
G01 X50.176079 Y231.484713 Z-0.125000
G01 X51.331619 Y231.113609 Z-0.125000
G01 X53.788854 Y230.094170 Z-0.125000
G01 X55.063959 Y229.652184 Z-0.125000
G01 X56.551577 Y229.318651 Z-0.125000
G01 X57.932912 Y229.213823 Z-0.125000
G01 X59.314273 Y229.317778 Z-0.125000
G01 X60.589378 Y229.602787 Z-0.125000
G01 X61.837919 Y230.046254 Z-0.125000
G01 X64.839719 Y231.368481 Z-0.125000
G01 X65.583514 Y231.574697 Z-0.125000
G01 X66.327310 Y231.646082 Z-0.125000
G01 X67.177389 Y231.515828 Z-0.125000
G01 X67.974313 Y231.168218 Z-0.125000
G01 X68.759463 Y230.632200 Z-0.125000
G01 X71.073532 Y228.720164 Z-0.125000
G01 X71.786345 Y228.362025 Z-0.125000
G01 X72.384038 Y228.243306 Z-0.125000
G01 X72.915321 Y228.287386 Z-0.125000
G01 X73.552887 Y228.519875 Z-0.125000
G01 X76.063224 Y230.214847 Z-0.125000
G01 X76.634379 Y230.466915 Z-0.125000
G01 X77.271918 Y230.593676 Z-0.125000
G01 X78.228253 Y230.479615 Z-0.125000
G01 X80.778437 Y229.385061 Z-0.125000
G01 X81.522259 Y229.178554 Z-0.125000
G01 X82.159798 Y229.100026 Z-0.125000
G01 X83.328646 Y229.165722 Z-0.125000
G01 X86.197599 Y229.743465 Z-0.125000
G01 X88.004013 Y229.923408 Z-0.125000
G01 X95.760846 Y229.782068 Z-0.125000
G01 X102.561370 Y229.940580 Z-0.125000
G01 X105.005323 Y229.806780 Z-0.125000
G01 X108.299328 Y229.200541 Z-0.125000
G01 X109.468177 Y229.093491 Z-0.125000
G01 X110.211973 Y229.139714 Z-0.125000
G01 X110.955768 Y229.295950 Z-0.125000
G01 X113.612234 Y230.387778 Z-0.125000
G01 X114.674826 Y230.596904 Z-0.125000
G01 X115.312365 Y230.529436 Z-0.125000
G01 X115.949905 Y230.296603 Z-0.125000
G01 X118.460268 Y228.571601 Z-0.125000
G01 X119.031397 Y228.321200 Z-0.125000
G01 X119.562706 Y228.239576 Z-0.125000
G01 X120.093989 Y228.327761 Z-0.125000
G01 X120.578043 Y228.565595 Z-0.125000
G01 X121.379703 Y229.240784 Z-0.125000
G01 X123.305339 Y231.128796 Z-0.125000
G01 X123.945841 Y231.517151 Z-0.125000
G01 X124.556843 Y231.645315 Z-0.125000
G01 X125.154536 Y231.522707 Z-0.125000
G01 X125.867349 Y231.072281 Z-0.125000
G01 X126.566086 Y230.379788 Z-0.125000
G01 X128.677299 Y227.932607 Z-0.125000
G01 X129.338466 Y227.399339 Z-0.125000
G01 X129.989287 Y227.147192 Z-0.125000
G01 X130.330202 Y227.281230 Z-0.125000
G01 X131.569880 Y228.354511 Z-0.125000
G01 X132.313675 Y228.795703 Z-0.125000
G01 X133.615344 Y229.758573 Z-0.125000
G01 X134.545115 Y230.227705 Z-0.125000
G01 X135.753783 Y230.982031 Z-0.125000
G01 X138.078198 Y231.994088 Z-0.125000
G01 X139.220482 Y232.373870 Z-0.125000
G01 X140.389304 Y232.609111 Z-0.125000
G01 X141.770665 Y232.748943 Z-0.125000
G01 X143.364540 Y232.784106 Z-0.125000
G01 X144.852158 Y232.717246 Z-0.125000
G01 X146.339776 Y232.539684 Z-0.125000
G01 X147.614881 Y232.273805 Z-0.125000
G01 X148.889959 Y231.881375 Z-0.125000
G01 X151.094835 Y230.891041 Z-0.125000
G01 X154.720892 Y228.781680 Z-0.125000
G01 X156.115536 Y228.054447 Z-0.125000
G01 X157.603153 Y227.464930 Z-0.125000
G01 X159.090771 Y227.113272 Z-0.125000
G01 X160.365850 Y227.000190 Z-0.125000
G01 X161.747211 Y227.040803 Z-0.125000
G01 X167.378913 Y227.842278 Z-0.125000
G01 X170.247866 Y228.006293 Z-0.125000
G01 X172.691819 Y227.870112 Z-0.125000
G01 X177.685956 Y227.141001 Z-0.125000
G01 X179.811113 Y226.995956 Z-0.125000
G01 X181.723757 Y227.159971 Z-0.125000
G01 X183.530144 Y227.625452 Z-0.125000
G01 X185.309968 Y228.337180 Z-0.125000
G01 X188.843077 Y230.014637 Z-0.125000
G00 Z3.000000

(End cutting path id: polyline7350-2)


(Start cutting path id: polyline7352-7)
(Change tool to Default tool)

G00 Z3.000000
G00 X5.866390 Y227.814523

G00 Z4.875000 (Fast pre-penetrate)
G01 Z-0.125000 F400.0(Penetrate)
G01 X7.779034 Y227.789996 Z-0.125000 F800.000000
G01 X13.410710 Y228.277332 Z-0.125000
G01 X17.448538 Y228.396553 Z-0.125000
G01 X20.955056 Y228.296461 Z-0.125000
G01 X26.267962 Y227.818412 Z-0.125000
G01 X28.074350 Y227.783011 Z-0.125000
G01 X29.774481 Y228.005526 Z-0.125000
G01 X33.280999 Y229.078489 Z-0.125000
G01 X34.024821 Y229.228402 Z-0.125000
G01 X34.768617 Y229.275233 Z-0.125000
G01 X35.618696 Y229.174559 Z-0.125000
G01 X36.548441 Y228.871135 Z-0.125000
G01 X39.058804 Y227.498929 Z-0.125000
G01 X39.895574 Y227.127957 Z-0.125000
G01 X40.612832 Y226.948622 Z-0.125000
G01 X41.250371 Y226.923699 Z-0.125000
G01 X42.100450 Y227.099435 Z-0.125000
G01 X42.963785 Y227.501495 Z-0.125000
G01 X45.567122 Y229.338071 Z-0.125000
G01 X46.496867 Y229.881472 Z-0.125000
G01 X47.413356 Y230.217810 Z-0.125000
G01 X48.369691 Y230.323511 Z-0.125000
G01 X49.219744 Y230.214529 Z-0.125000
G01 X50.122951 Y229.926292 Z-0.125000
G01 X53.563059 Y228.216557 Z-0.125000
G01 X55.170215 Y227.588887 Z-0.125000
G01 X56.764090 Y227.228234 Z-0.125000
G01 X58.464221 Y227.138117 Z-0.125000
G01 X59.951839 Y227.311948 Z-0.125000
G01 X61.333174 Y227.701149 Z-0.125000
G01 X62.674689 Y228.292386 Z-0.125000
G01 X65.742899 Y229.970028 Z-0.125000
G01 X66.539850 Y230.240247 Z-0.125000
G01 X67.283645 Y230.323352 Z-0.125000
G01 X68.027441 Y230.204501 Z-0.125000
G01 X68.811109 Y229.848055 Z-0.125000
G01 X69.585914 Y229.291187 Z-0.125000
G01 X71.734699 Y227.445430 Z-0.125000
G01 X72.384038 Y227.085835 Z-0.125000
G01 X73.021604 Y226.924836 Z-0.125000
G01 X73.552887 Y226.951665 Z-0.125000
G01 X74.190426 Y227.169946 Z-0.125000
G01 X76.714071 Y228.866876 Z-0.125000
G01 X77.378175 Y229.157494 Z-0.125000
G01 X78.015740 Y229.272693 Z-0.125000
G01 X78.972049 Y229.151752 Z-0.125000
G01 X81.628515 Y228.045663 Z-0.125000
G01 X83.009877 Y227.777984 Z-0.125000
G01 X84.178699 Y227.830451 Z-0.125000
G01 X87.260191 Y228.392690 Z-0.125000
G01 X89.172835 Y228.581232 Z-0.125000
G01 X100.117443 Y228.617718 Z-0.125000
G01 X103.092679 Y228.478759 Z-0.125000
G01 X106.811711 Y227.859211 Z-0.125000
G01 X107.980559 Y227.770364 Z-0.125000
G01 X108.724355 Y227.818756 Z-0.125000
G01 X109.468177 Y227.968087 Z-0.125000
G01 X112.230873 Y229.063461 Z-0.125000
G01 X112.868439 Y229.231709 Z-0.125000
G01 X113.399721 Y229.274889 Z-0.125000
G01 X114.037261 Y229.188344 Z-0.125000
G01 X114.648262 Y228.957654 Z-0.125000
G01 X117.158599 Y227.239928 Z-0.125000
G01 X117.756319 Y226.988151 Z-0.125000
G01 X118.287601 Y226.918142 Z-0.125000
G01 X118.818884 Y227.019398 Z-0.125000
G01 X119.390039 Y227.316551 Z-0.125000
G01 X119.892086 Y227.729248 Z-0.125000
G01 X121.900376 Y229.753811 Z-0.125000
G01 X122.551198 Y230.177011 Z-0.125000
G01 X123.175481 Y230.322929 Z-0.125000
G01 X123.759892 Y230.204316 Z-0.125000
G01 X124.379731 Y229.821517 Z-0.125000
G01 X125.078468 Y229.129977 Z-0.125000
G01 X127.272311 Y226.502059 Z-0.125000
G01 X127.850848 Y226.034171 Z-0.125000
G01 X128.488387 Y225.808878 Z-0.125000
G01 X128.817793 Y225.964506 Z-0.125000
G01 X129.916977 Y227.017387 Z-0.125000
G01 X131.487224 Y228.291699 Z-0.125000
G01 X132.313675 Y228.795703 Z-0.125000
G01 X133.243446 Y229.521692 Z-0.125000
G01 X134.545115 Y230.227705 Z-0.125000
G01 X135.474860 Y230.836405 Z-0.125000
G01 X136.457759 Y231.280243 Z-0.125000
G01 X137.626608 Y231.585704 Z-0.125000
G01 X138.901686 Y231.726780 Z-0.125000
G01 X144.852158 Y231.759614 Z-0.125000
G01 X146.339776 Y231.704608 Z-0.125000
G01 X147.614881 Y231.560278 Z-0.125000
G01 X148.783702 Y231.308871 Z-0.125000
G01 X149.952551 Y230.918902 Z-0.125000
G01 X151.931605 Y229.938093 Z-0.125000
G01 X155.464688 Y227.656646 Z-0.125000
G01 X156.859331 Y226.854034 Z-0.125000
G01 X158.346949 Y226.207816 Z-0.125000
G01 X159.834567 Y225.820017 Z-0.125000
G01 X161.003415 Y225.689392 Z-0.125000
G01 X162.384777 Y225.694023 Z-0.125000
G01 X167.697683 Y226.290075 Z-0.125000
G01 X170.247866 Y226.395088 Z-0.125000
G01 X172.266793 Y226.299203 Z-0.125000
G01 X176.835877 Y225.766968 Z-0.125000
G01 X178.748521 Y225.673994 Z-0.125000
G01 X180.767448 Y225.867668 Z-0.125000
G01 X182.680092 Y226.401914 Z-0.125000
G01 X184.380223 Y227.131846 Z-0.125000
G01 X188.843077 Y229.361037 Z-0.125000
G00 Z3.000000

(End cutting path id: polyline7352-7)


(Start cutting path id: polyline7354-3)
(Change tool to Default tool)

G00 Z3.000000
G00 X5.866390 Y226.462239

G00 Z4.875000 (Fast pre-penetrate)
G01 Z-0.125000 F400.0(Penetrate)
G01 X12.029375 Y227.061361 Z-0.125000 F800.000000
G01 X16.917255 Y227.203548 Z-0.125000
G01 X21.380082 Y227.079459 Z-0.125000
G01 X26.799271 Y226.505763 Z-0.125000
G01 X28.605659 Y226.463113 Z-0.125000
G01 X30.412046 Y226.752725 Z-0.125000
G01 X33.706052 Y227.819656 Z-0.125000
G01 X34.874874 Y227.952053 Z-0.125000
G01 X35.724952 Y227.841775 Z-0.125000
G01 X36.548441 Y227.560100 Z-0.125000
G01 X39.058804 Y226.137517 Z-0.125000
G01 X39.762754 Y225.815916 Z-0.125000
G01 X40.400319 Y225.639254 Z-0.125000
G01 X41.037858 Y225.597662 Z-0.125000
G01 X41.781681 Y225.734451 Z-0.125000
G01 X42.591887 Y226.097168 Z-0.125000
G01 X45.205543 Y228.016268 Z-0.125000
G01 X46.124969 Y228.578718 Z-0.125000
G01 X46.988330 Y228.905267 Z-0.125000
G01 X47.838382 Y229.000120 Z-0.125000
G01 X48.688461 Y228.873887 Z-0.125000
G01 X49.658052 Y228.505640 Z-0.125000
G01 X53.098160 Y226.492058 Z-0.125000
G01 X54.745163 Y225.753157 Z-0.125000
G01 X56.657833 Y225.276167 Z-0.125000
G01 X57.720399 Y225.169857 Z-0.125000
G01 X58.782990 Y225.164275 Z-0.125000
G01 X60.483121 Y225.373110 Z-0.125000
G01 X62.116842 Y225.879839 Z-0.125000
G01 X63.511486 Y226.588393 Z-0.125000
G01 X66.579696 Y228.561335 Z-0.125000
G01 X67.389902 Y228.891958 Z-0.125000
G01 X68.133724 Y229.001178 Z-0.125000
G01 X68.877520 Y228.883597 Z-0.125000
G01 X69.554905 Y228.571971 Z-0.125000
G01 X70.329710 Y228.009097 Z-0.125000
G01 X72.478494 Y226.120292 Z-0.125000
G01 X73.127860 Y225.757840 Z-0.125000
G01 X73.765400 Y225.600307 Z-0.125000
G01 X74.296682 Y225.633116 Z-0.125000
G01 X74.934248 Y225.858778 Z-0.125000
G01 X77.457867 Y227.548935 Z-0.125000
G01 X78.121997 Y227.834261 Z-0.125000
G01 X78.759536 Y227.949064 Z-0.125000
G01 X79.822128 Y227.808596 Z-0.125000
G01 X82.478568 Y226.735395 Z-0.125000
G01 X83.222390 Y226.544419 Z-0.125000
G01 X83.966186 Y226.455545 Z-0.125000
G01 X85.347547 Y226.519389 Z-0.125000
G01 X88.322783 Y227.004449 Z-0.125000
G01 X90.022914 Y227.184974 Z-0.125000
G01 X95.442076 Y227.292686 Z-0.125000
G01 X100.542469 Y227.173941 Z-0.125000
G01 X102.242600 Y226.991273 Z-0.125000
G01 X105.217836 Y226.522961 Z-0.125000
G01 X106.386684 Y226.447343 Z-0.125000
G01 X107.236737 Y226.505234 Z-0.125000
G01 X107.980559 Y226.653004 Z-0.125000
G01 X110.849512 Y227.746287 Z-0.125000
G01 X112.018360 Y227.952768 Z-0.125000
G01 X112.655899 Y227.872599 Z-0.125000
G01 X113.253619 Y227.659874 Z-0.125000
G01 X113.966432 Y227.250591 Z-0.125000
G01 X115.856930 Y225.914367 Z-0.125000
G01 X116.481214 Y225.656267 Z-0.125000
G01 X117.012496 Y225.597027 Z-0.125000
G01 X117.623471 Y225.733657 Z-0.125000
G01 X118.255719 Y226.110741 Z-0.125000
G01 X120.264010 Y228.135251 Z-0.125000
G01 X120.908640 Y228.668253 Z-0.125000
G01 X121.369094 Y228.905505 Z-0.125000
G01 X121.900376 Y229.000887 Z-0.125000
G01 X122.537916 Y228.830390 Z-0.125000
G01 X123.140054 Y228.403485 Z-0.125000
G01 X123.726078 Y227.793039 Z-0.125000
G01 X125.693809 Y225.329348 Z-0.125000
G01 X126.288856 Y224.784572 Z-0.125000
G01 X126.735128 Y224.471014 Z-0.125000
G01 X127.014051 Y224.375367 Z-0.125000
G01 X127.330175 Y224.523666 Z-0.125000
G01 X128.759929 Y225.980540 Z-0.125000
G01 X131.487224 Y228.291699 Z-0.125000
G01 X132.313675 Y228.795703 Z-0.125000
G01 X133.522370 Y229.705180 Z-0.125000
G01 X134.651372 Y230.219477 Z-0.125000
G01 X135.501424 Y230.396985 Z-0.125000
G01 X136.457759 Y230.437652 Z-0.125000
G01 X140.176791 Y230.053689 Z-0.125000
G01 X141.876922 Y229.996222 Z-0.125000
G01 X147.614881 Y230.439583 Z-0.125000
G01 X149.421268 Y230.246517 Z-0.125000
G01 X150.271320 Y230.013367 Z-0.125000
G01 X151.187809 Y229.651338 Z-0.125000
G01 X152.861376 Y228.722281 Z-0.125000
G01 X156.032880 Y226.513648 Z-0.125000
G01 X157.417204 Y225.656267 Z-0.125000
G01 X158.904796 Y224.959831 Z-0.125000
G01 X160.365850 Y224.541155 Z-0.125000
G01 X161.534698 Y224.383331 Z-0.125000
G01 X162.916059 Y224.357085 Z-0.125000
G01 X167.803939 Y224.774544 Z-0.125000
G01 X170.141609 Y224.847489 Z-0.125000
G01 X172.160510 Y224.760865 Z-0.125000
G01 X176.198338 Y224.394973 Z-0.125000
G01 X177.685956 Y224.351661 Z-0.125000
G01 X179.811113 Y224.561502 Z-0.125000
G01 X181.830013 Y225.148611 Z-0.125000
G01 X183.357477 Y225.828934 Z-0.125000
G01 X187.076509 Y227.820767 Z-0.125000
G01 X188.843077 Y228.633064 Z-0.125000
G00 Z3.000000

(End cutting path id: polyline7354-3)


(Start cutting path id: polyline7356-9)
(Change tool to Default tool)

G00 Z3.000000
G00 X5.866390 Y225.297836

G00 Z4.875000 (Fast pre-penetrate)
G01 Z-0.125000 F400.0(Penetrate)
G01 X8.947883 Y225.675211 Z-0.125000 F800.000000
G01 X11.179296 Y225.850338 Z-0.125000
G01 X17.873564 Y225.948366 Z-0.125000
G01 X22.230161 Y225.802634 Z-0.125000
G01 X27.224297 Y225.192876 Z-0.125000
G01 X28.818172 Y225.130858 Z-0.125000
G01 X30.412046 Y225.355198 Z-0.125000
G01 X33.599795 Y226.433426 Z-0.125000
G01 X34.343591 Y226.591356 Z-0.125000
G01 X34.981157 Y226.628398 Z-0.125000
G01 X35.724952 Y226.533201 Z-0.125000
G01 X36.548441 Y226.250679 Z-0.125000
G01 X39.656497 Y224.501917 Z-0.125000
G01 X40.294063 Y224.316101 Z-0.125000
G01 X40.931602 Y224.275964 Z-0.125000
G01 X41.662142 Y224.425215 Z-0.125000
G01 X42.498912 Y224.834287 Z-0.125000
G01 X44.957603 Y226.735871 Z-0.125000
G01 X45.846046 Y227.294618 Z-0.125000
G01 X46.669560 Y227.602380 Z-0.125000
G01 X47.413356 Y227.676570 Z-0.125000
G01 X48.263435 Y227.528244 Z-0.125000
G01 X49.100205 Y227.175105 Z-0.125000
G01 X52.633288 Y224.846378 Z-0.125000
G01 X54.426393 Y223.982673 Z-0.125000
G01 X55.488985 Y223.666841 Z-0.125000
G01 X56.551577 Y223.472928 Z-0.125000
G01 X57.826655 Y223.364052 Z-0.125000
G01 X59.101760 Y223.360162 Z-0.125000
G01 X61.120661 Y223.585878 Z-0.125000
G01 X62.860638 Y224.128697 Z-0.125000
G01 X64.441230 Y225.009573 Z-0.125000
G01 X67.416466 Y227.172433 Z-0.125000
G01 X68.253263 Y227.557507 Z-0.125000
G01 X68.983776 Y227.678448 Z-0.125000
G01 X69.727599 Y227.554253 Z-0.125000
G01 X70.391702 Y227.229874 Z-0.125000
G01 X71.073532 Y226.720605 Z-0.125000
G01 X73.222290 Y224.800050 Z-0.125000
G01 X73.871656 Y224.434422 Z-0.125000
G01 X74.509195 Y224.277048 Z-0.125000
G01 X75.040505 Y224.310968 Z-0.125000
G01 X75.678044 Y224.536816 Z-0.125000
G01 X78.201689 Y226.210277 Z-0.125000
G01 X78.865793 Y226.497773 Z-0.125000
G01 X79.503332 Y226.622206 Z-0.125000
G01 X80.565924 Y226.512325 Z-0.125000
G01 X83.434903 Y225.421502 Z-0.125000
G01 X85.028777 Y225.135250 Z-0.125000
G01 X86.516395 Y225.184171 Z-0.125000
G01 X91.191736 Y225.751199 Z-0.125000
G01 X95.017050 Y225.869759 Z-0.125000
G01 X98.948595 Y225.735456 Z-0.125000
G01 X103.305192 Y225.208619 Z-0.125000
G01 X104.686553 Y225.123873 Z-0.125000
G01 X105.642862 Y225.186500 Z-0.125000
G01 X106.492941 Y225.351679 Z-0.125000
G01 X109.468177 Y226.437025 Z-0.125000
G01 X110.636999 Y226.630223 Z-0.125000
G01 X111.274564 Y226.554261 Z-0.125000
G01 X111.951950 Y226.315078 Z-0.125000
G01 X112.602771 Y225.948075 Z-0.125000
G01 X114.555288 Y224.597855 Z-0.125000
G01 X115.113134 Y224.355233 Z-0.125000
G01 X115.737392 Y224.273159 Z-0.125000
G01 X116.321829 Y224.403149 Z-0.125000
G01 X117.024297 Y224.820581 Z-0.125000
G01 X118.925140 Y226.744946 Z-0.125000
G01 X119.586307 Y227.314250 Z-0.125000
G01 X120.133835 Y227.599311 Z-0.125000
G01 X120.625271 Y227.676040 Z-0.125000
G01 X121.239210 Y227.513904 Z-0.125000
G01 X121.900376 Y227.029082 Z-0.125000
G01 X124.429314 Y223.911104 Z-0.125000
G01 X125.154536 Y223.277480 Z-0.125000
G01 X125.619408 Y223.084652 Z-0.125000
G01 X125.898331 Y223.179876 Z-0.125000
G01 X126.430831 Y223.612151 Z-0.125000
G01 X128.297120 Y225.545380 Z-0.125000
G01 X130.082262 Y227.157749 Z-0.125000
G01 X131.755828 Y228.483336 Z-0.125000
G01 X132.313675 Y228.795703 Z-0.125000
G01 X132.951241 Y229.017556 Z-0.125000
G01 X133.801293 Y229.117145 Z-0.125000
G01 X134.651372 Y229.039357 Z-0.125000
G01 X138.689173 Y227.902894 Z-0.125000
G01 X139.858021 Y227.706441 Z-0.125000
G01 X141.026870 Y227.645984 Z-0.125000
G01 X142.939514 Y227.834631 Z-0.125000
G01 X147.189828 Y228.903282 Z-0.125000
G01 X148.252420 Y229.074970 Z-0.125000
G01 X149.102499 Y229.116721 Z-0.125000
G01 X150.590090 Y228.924396 Z-0.125000
G01 X152.117554 Y228.342049 Z-0.125000
G01 X153.512198 Y227.511417 Z-0.125000
G01 X156.528761 Y225.303736 Z-0.125000
G01 X157.882077 Y224.424765 Z-0.125000
G01 X159.303284 Y223.720789 Z-0.125000
G01 X160.790902 Y223.260256 Z-0.125000
G01 X161.959724 Y223.081107 Z-0.125000
G01 X163.341086 Y223.028137 Z-0.125000
G01 X168.016452 Y223.314443 Z-0.125000
G01 X170.141609 Y223.353733 Z-0.125000
G01 X176.623364 Y223.028905 Z-0.125000
G01 X178.854804 Y223.243614 Z-0.125000
G01 X179.917369 Y223.501265 Z-0.125000
G01 X180.940115 Y223.853001 Z-0.125000
G01 X182.706656 Y224.672838 Z-0.125000
G01 X186.797586 Y226.938515 Z-0.125000
G01 X188.843077 Y227.822275 Z-0.125000
G00 Z3.000000

(End cutting path id: polyline7356-9)


(Start cutting path id: polyline7358-7)
(Change tool to Default tool)

G00 Z3.000000
G00 X5.866390 Y224.218814

G00 Z4.875000 (Fast pre-penetrate)
G01 Z-0.125000 F400.0(Penetrate)
G01 X8.310317 Y224.487207 Z-0.125000 F800.000000
G01 X10.648014 Y224.612487 Z-0.125000
G01 X20.211260 Y224.633124 Z-0.125000
G01 X23.186470 Y224.487207 Z-0.125000
G01 X27.543067 Y223.884275 Z-0.125000
G01 X29.136942 Y223.807572 Z-0.125000
G01 X30.624559 Y224.021064 Z-0.125000
G01 X33.812308 Y225.135012 Z-0.125000
G01 X35.087413 Y225.304451 Z-0.125000
G01 X35.831209 Y225.197797 Z-0.125000
G01 X36.641441 Y224.897919 Z-0.125000
G01 X39.550240 Y223.194348 Z-0.125000
G01 X40.187806 Y222.995805 Z-0.125000
G01 X40.825345 Y222.953234 Z-0.125000
G01 X41.569141 Y223.119154 Z-0.125000
G01 X42.395619 Y223.553573 Z-0.125000
G01 X44.544377 Y225.297254 Z-0.125000
G01 X45.474148 Y225.932994 Z-0.125000
G01 X46.244508 Y226.257135 Z-0.125000
G01 X47.094587 Y226.350665 Z-0.125000
G01 X47.838382 Y226.204271 Z-0.125000
G01 X48.728307 Y225.788690 Z-0.125000
G01 X52.075441 Y223.346933 Z-0.125000
G01 X53.005186 Y222.796601 Z-0.125000
G01 X53.895111 Y222.396789 Z-0.125000
G01 X54.957702 Y222.074818 Z-0.125000
G01 X56.126524 Y221.877281 Z-0.125000
G01 X57.507886 Y221.779014 Z-0.125000
G01 X59.420530 Y221.765150 Z-0.125000
G01 X61.864483 Y221.962265 Z-0.125000
G01 X62.820792 Y222.185202 Z-0.125000
G01 X63.697434 Y222.509899 Z-0.125000
G01 X65.278027 Y223.441363 Z-0.125000
G01 X68.263581 Y225.814143 Z-0.125000
G01 X68.997058 Y226.192815 Z-0.125000
G01 X69.727599 Y226.353020 Z-0.125000
G01 X70.471394 Y226.252478 Z-0.125000
G01 X71.135498 Y225.936090 Z-0.125000
G01 X71.817328 Y225.425418 Z-0.125000
G01 X73.966112 Y223.484173 Z-0.125000
G01 X74.668607 Y223.093516 Z-0.125000
G01 X75.253018 Y222.954874 Z-0.125000
G01 X75.784300 Y222.985434 Z-0.125000
G01 X76.421866 Y223.204694 Z-0.125000
G01 X79.038459 Y224.900856 Z-0.125000
G01 X79.715871 Y225.180123 Z-0.125000
G01 X80.353411 Y225.299133 Z-0.125000
G01 X81.522259 Y225.174196 Z-0.125000
G01 X84.497468 Y224.108615 Z-0.125000
G01 X86.197599 Y223.818738 Z-0.125000
G01 X87.791474 Y223.839402 Z-0.125000
G01 X92.254327 Y224.239425 Z-0.125000
G01 X94.804537 Y224.309671 Z-0.125000
G01 X97.567233 Y224.218999 Z-0.125000
G01 X102.773909 Y223.801408 Z-0.125000
G01 X103.836475 Y223.854827 Z-0.125000
G01 X104.792810 Y224.015905 Z-0.125000
G01 X108.086815 Y225.134430 Z-0.125000
G01 X109.255637 Y225.306832 Z-0.125000
G01 X109.999459 Y225.207878 Z-0.125000
G01 X110.636999 Y224.975362 Z-0.125000
G01 X113.253619 Y223.282560 Z-0.125000
G01 X113.824748 Y223.038218 Z-0.125000
G01 X114.356057 Y222.948048 Z-0.125000
G01 X114.993596 Y223.054357 Z-0.125000
G01 X115.578007 Y223.357411 Z-0.125000
G01 X116.247428 Y223.911368 Z-0.125000
G01 X118.106970 Y225.809434 Z-0.125000
G01 X118.739192 Y226.217077 Z-0.125000
G01 X119.350193 Y226.353416 Z-0.125000
G01 X119.947886 Y226.211441 Z-0.125000
G01 X120.561533 Y225.789220 Z-0.125000
G01 X121.280538 Y225.003884 Z-0.125000
G01 X123.252766 Y222.467327 Z-0.125000
G01 X123.966505 Y221.897892 Z-0.125000
G01 X124.556843 Y221.720383 Z-0.125000
G01 X124.769356 Y221.753958 Z-0.125000
G01 X124.999569 Y221.909031 Z-0.125000
G01 X125.619408 Y222.746727 Z-0.125000
G01 X127.107026 Y224.367721 Z-0.125000
G01 X129.834321 Y226.953967 Z-0.125000
G01 X130.547134 Y227.452706 Z-0.125000
G01 X131.251110 Y227.722395 Z-0.125000
G01 X132.101162 Y227.784334 Z-0.125000
G01 X132.951241 Y227.612408 Z-0.125000
G01 X133.894268 Y227.236383 Z-0.125000
G01 X136.311657 Y225.995727 Z-0.125000
G01 X137.520351 Y225.484526 Z-0.125000
G01 X139.007943 Y225.088022 Z-0.125000
G01 X140.389304 Y224.977823 Z-0.125000
G01 X141.558152 Y225.076010 Z-0.125000
G01 X142.833257 Y225.365411 Z-0.125000
G01 X144.214619 Y225.854439 Z-0.125000
G01 X147.827394 Y227.388412 Z-0.125000
G01 X148.996216 Y227.699271 Z-0.125000
G01 X150.058807 Y227.794097 Z-0.125000
G01 X151.333912 Y227.619155 Z-0.125000
G01 X152.675427 Y227.087872 Z-0.125000
G01 X154.049407 Y226.236921 Z-0.125000
G01 X156.859331 Y224.103297 Z-0.125000
G01 X158.161000 Y223.221177 Z-0.125000
G01 X159.648618 Y222.452061 Z-0.125000
G01 X161.109672 Y221.978298 Z-0.125000
G01 X162.278494 Y221.780734 Z-0.125000
G01 X163.553599 Y221.706201 Z-0.125000
G01 X169.504070 Y221.911253 Z-0.125000
G01 X175.560799 Y221.705990 Z-0.125000
G01 X176.835877 Y221.770177 Z-0.125000
G01 X177.898469 Y221.916412 Z-0.125000
G01 X178.961060 Y222.165015 Z-0.125000
G01 X180.103318 Y222.555327 Z-0.125000
G01 X181.962834 Y223.439643 Z-0.125000
G01 X186.332713 Y225.921802 Z-0.125000
G01 X187.567972 Y226.479596 Z-0.125000
G01 X188.843077 Y226.926424 Z-0.125000
G00 Z3.000000

(End cutting path id: polyline7358-7)


(Start cutting path id: polyline7360-7)
(Change tool to Default tool)

G00 Z3.000000
G00 X5.866390 Y223.123202

G00 Z4.875000 (Fast pre-penetrate)
G01 Z-0.125000 F400.0(Penetrate)
G01 X9.691679 Y223.320713 Z-0.125000 F800.000000
G01 X21.698852 Y223.306637 Z-0.125000
G01 X24.036549 Y223.154555 Z-0.125000
G01 X27.861837 Y222.567472 Z-0.125000
G01 X29.349455 Y222.481800 Z-0.125000
G01 X30.837072 Y222.696218 Z-0.125000
G01 X33.918565 Y223.811382 Z-0.125000
G01 X34.556104 Y223.948648 Z-0.125000
G01 X35.193670 Y223.980080 Z-0.125000
G01 X35.937465 Y223.859192 Z-0.125000
G01 X36.641441 Y223.587836 Z-0.125000
G01 X38.872855 Y222.192134 Z-0.125000
G01 X39.550240 Y221.847012 Z-0.125000
G01 X40.081550 Y221.678076 Z-0.125000
G01 X40.719089 Y221.629816 Z-0.125000
G01 X41.462885 Y221.802324 Z-0.125000
G01 X42.219989 Y222.212719 Z-0.125000
G01 X44.461748 Y224.087210 Z-0.125000
G01 X45.288199 Y224.651275 Z-0.125000
G01 X46.031995 Y224.955730 Z-0.125000
G01 X46.775817 Y225.027776 Z-0.125000
G01 X47.519613 Y224.866063 Z-0.125000
G01 X48.263435 Y224.500224 Z-0.125000
G01 X51.817181 Y221.730093 Z-0.125000
G01 X52.819237 Y221.144148 Z-0.125000
G01 X53.788854 Y220.755898 Z-0.125000
G01 X54.745163 Y220.528913 Z-0.125000
G01 X55.914011 Y220.405935 Z-0.125000
G01 X61.333174 Y220.386011 Z-0.125000
G01 X63.245844 Y220.567833 Z-0.125000
G01 X64.095896 Y220.802412 Z-0.125000
G01 X64.813154 Y221.107873 Z-0.125000
G01 X66.197453 Y222.003857 Z-0.125000
G01 X69.007404 Y224.413044 Z-0.125000
G01 X69.740881 Y224.834472 Z-0.125000
G01 X70.471394 Y225.025845 Z-0.125000
G01 X71.215190 Y224.943639 Z-0.125000
G01 X71.879320 Y224.633548 Z-0.125000
G01 X72.561150 Y224.122797 Z-0.125000
G01 X74.709908 Y222.171709 Z-0.125000
G01 X75.412402 Y221.777586 Z-0.125000
G01 X75.996813 Y221.633838 Z-0.125000
G01 X76.528122 Y221.657121 Z-0.125000
G01 X77.165662 Y221.863840 Z-0.125000
G01 X79.782282 Y223.522272 Z-0.125000
G01 X80.459667 Y223.815721 Z-0.125000
G01 X81.203463 Y223.971270 Z-0.125000
G01 X81.841028 Y223.967513 Z-0.125000
G01 X82.478568 Y223.856864 Z-0.125000
G01 X85.560060 Y222.835336 Z-0.125000
G01 X87.472704 Y222.512571 Z-0.125000
G01 X89.066579 Y222.486827 Z-0.125000
G01 X94.698281 Y222.698679 Z-0.125000
G01 X100.648726 Y222.478281 Z-0.125000
G01 X101.923831 Y222.533261 Z-0.125000
G01 X103.092679 Y222.708759 Z-0.125000
G01 X104.155244 Y222.987524 Z-0.125000
G01 X106.599197 Y223.809424 Z-0.125000
G01 X107.768046 Y223.984023 Z-0.125000
G01 X108.511842 Y223.908881 Z-0.125000
G01 X109.255637 Y223.663401 Z-0.125000
G01 X110.092434 Y223.204799 Z-0.125000
G01 X111.951950 Y221.969779 Z-0.125000
G01 X112.549643 Y221.718319 Z-0.125000
G01 X113.080952 Y221.627038 Z-0.125000
G01 X113.718491 Y221.718769 Z-0.125000
G01 X114.369339 Y222.050265 Z-0.125000
G01 X115.040824 Y222.607397 Z-0.125000
G01 X117.024297 Y224.580366 Z-0.125000
G01 X117.650036 Y224.937712 Z-0.125000
G01 X118.181345 Y225.031930 Z-0.125000
G01 X118.712627 Y224.903025 Z-0.125000
G01 X119.338366 Y224.480486 Z-0.125000
G01 X120.007047 Y223.761799 Z-0.125000
G01 X121.983032 Y221.193598 Z-0.125000
G01 X122.644199 Y220.631174 Z-0.125000
G01 X123.295020 Y220.372756 Z-0.125000
G01 X123.635935 Y220.492189 Z-0.125000
G01 X124.199417 Y220.992674 Z-0.125000
G01 X125.768183 Y222.916060 Z-0.125000
G01 X128.371494 Y225.632666 Z-0.125000
G01 X129.059516 Y226.145560 Z-0.125000
G01 X129.763492 Y226.420277 Z-0.125000
G01 X130.613544 Y226.439697 Z-0.125000
G01 X131.662854 Y226.083277 Z-0.125000
G01 X132.592625 Y225.531648 Z-0.125000
G01 X135.195937 Y223.716000 Z-0.125000
G01 X136.776529 Y222.879415 Z-0.125000
G01 X138.264147 Y222.414490 Z-0.125000
G01 X139.751765 Y222.270107 Z-0.125000
G01 X141.239383 Y222.430682 Z-0.125000
G01 X142.727001 Y222.874811 Z-0.125000
G01 X144.307593 Y223.613977 Z-0.125000
G01 X148.305548 Y225.888253 Z-0.125000
G01 X149.527525 Y226.325371 Z-0.125000
G01 X150.696346 Y226.471209 Z-0.125000
G01 X151.865195 Y226.305659 Z-0.125000
G01 X153.140300 Y225.777604 Z-0.125000
G01 X154.379977 Y224.985073 Z-0.125000
G01 X157.107272 Y222.863461 Z-0.125000
G01 X158.346949 Y221.998036 Z-0.125000
G01 X159.741593 Y221.240482 Z-0.125000
G01 X161.215928 Y220.721291 Z-0.125000
G01 X162.491033 Y220.482373 Z-0.125000
G01 X163.872368 Y220.386937 Z-0.125000
G01 X169.291557 Y220.503804 Z-0.125000
G01 X174.604463 Y220.383762 Z-0.125000
G01 X175.879568 Y220.445490 Z-0.125000
G01 X177.048390 Y220.600694 Z-0.125000
G01 X178.110982 Y220.846015 Z-0.125000
G01 X179.173574 Y221.201721 Z-0.125000
G01 X181.033089 Y222.077094 Z-0.125000
G01 X185.867841 Y224.870693 Z-0.125000
G01 X187.355459 Y225.505163 Z-0.125000
G01 X188.843077 Y225.945747 Z-0.125000
G00 Z3.000000

(End cutting path id: polyline7360-7)


(Start cutting path id: polyline7362-9)
(Change tool to Default tool)

G00 Z3.000000
G00 X5.866390 Y221.948321

G00 Z4.875000 (Fast pre-penetrate)
G01 Z-0.125000 F400.0(Penetrate)
G01 X22.548931 Y221.984172 Z-0.125000 F800.000000
G01 X24.567831 Y221.836429 Z-0.125000
G01 X28.074350 Y221.257918 Z-0.125000
G01 X29.561968 Y221.157641 Z-0.125000
G01 X30.412046 Y221.239001 Z-0.125000
G01 X31.262099 Y221.439740 Z-0.125000
G01 X34.131078 Y222.520402 Z-0.125000
G01 X35.299926 Y222.654943 Z-0.125000
G01 X35.937465 Y222.548157 Z-0.125000
G01 X36.641441 Y222.276827 Z-0.125000
G01 X39.443984 Y220.547539 Z-0.125000
G01 X40.081550 Y220.341773 Z-0.125000
G01 X40.612832 Y220.305975 Z-0.125000
G01 X41.356628 Y220.478854 Z-0.125000
G01 X42.034040 Y220.848423 Z-0.125000
G01 X44.296436 Y222.787764 Z-0.125000
G01 X45.102250 Y223.349553 Z-0.125000
G01 X45.819482 Y223.642076 Z-0.125000
G01 X46.457021 Y223.706263 Z-0.125000
G01 X47.094587 Y223.583947 Z-0.125000
G01 X47.891511 Y223.194877 Z-0.125000
G01 X48.676661 Y222.617822 Z-0.125000
G01 X51.424593 Y220.274172 Z-0.125000
G01 X52.447339 Y219.660022 Z-0.125000
G01 X53.470084 Y219.275266 Z-0.125000
G01 X55.063959 Y219.061112 Z-0.125000
G01 X59.101760 Y219.227561 Z-0.125000
G01 X63.033305 Y219.058757 Z-0.125000
G01 X64.520923 Y219.228143 Z-0.125000
G01 X65.264745 Y219.468411 Z-0.125000
G01 X65.928848 Y219.793954 Z-0.125000
G01 X67.106560 Y220.631730 Z-0.125000
G01 X69.751199 Y223.033694 Z-0.125000
G01 X70.484676 Y223.486527 Z-0.125000
G01 X71.215190 Y223.699226 Z-0.125000
G01 X71.959012 Y223.628423 Z-0.125000
G01 X72.623115 Y223.321930 Z-0.125000
G01 X73.304946 Y222.811603 Z-0.125000
G01 X75.453730 Y220.861414 Z-0.125000
G01 X76.156198 Y220.464566 Z-0.125000
G01 X76.740636 Y220.314177 Z-0.125000
G01 X77.378175 Y220.345610 Z-0.125000
G01 X78.015740 Y220.561589 Z-0.125000
G01 X80.712026 Y222.220260 Z-0.125000
G01 X81.416002 Y222.502993 Z-0.125000
G01 X82.159798 Y222.646953 Z-0.125000
G01 X83.434903 Y222.556624 Z-0.125000
G01 X86.728908 Y221.579863 Z-0.125000
G01 X88.641552 Y221.249875 Z-0.125000
G01 X90.554196 Y221.157747 Z-0.125000
G01 X97.779746 Y221.155366 Z-0.125000
G01 X99.586160 Y221.208415 Z-0.125000
G01 X101.073752 Y221.380844 Z-0.125000
G01 X102.455113 Y221.691623 Z-0.125000
G01 X105.111580 Y222.496193 Z-0.125000
G01 X106.386684 Y222.660605 Z-0.125000
G01 X107.130480 Y222.581071 Z-0.125000
G01 X107.861020 Y222.351995 Z-0.125000
G01 X108.697790 Y221.919614 Z-0.125000
G01 X110.650281 Y220.663585 Z-0.125000
G01 X111.274564 Y220.400325 Z-0.125000
G01 X111.912103 Y220.303197 Z-0.125000
G01 X112.549643 Y220.415512 Z-0.125000
G01 X113.139980 Y220.712480 Z-0.125000
G01 X113.867266 Y221.302368 Z-0.125000
G01 X115.784620 Y223.208530 Z-0.125000
G01 X116.414803 Y223.589556 Z-0.125000
G01 X117.012496 Y223.707004 Z-0.125000
G01 X117.623471 Y223.549313 Z-0.125000
G01 X118.384201 Y222.968738 Z-0.125000
G01 X119.049124 Y222.190309 Z-0.125000
G01 X120.350767 Y220.416862 Z-0.125000
G01 X121.082180 Y219.609275 Z-0.125000
G01 X121.714427 Y219.179910 Z-0.125000
G01 X122.325402 Y219.040025 Z-0.125000
G01 X122.644199 Y219.121014 Z-0.125000
G01 X123.016096 Y219.443831 Z-0.125000
G01 X125.551807 Y222.666188 Z-0.125000
G01 X127.039425 Y224.303956 Z-0.125000
G01 X127.685537 Y224.811956 Z-0.125000
G01 X128.382131 Y225.101145 Z-0.125000
G01 X128.807157 Y225.148664 Z-0.125000
G01 X129.338466 Y225.078047 Z-0.125000
G01 X130.268211 Y224.667652 Z-0.125000
G01 X131.156654 Y224.030986 Z-0.125000
G01 X133.966578 Y221.647861 Z-0.125000
G01 X135.660809 Y220.572860 Z-0.125000
G01 X137.307812 Y219.958154 Z-0.125000
G01 X138.157890 Y219.799034 Z-0.125000
G01 X139.114199 Y219.738497 Z-0.125000
G01 X139.964278 Y219.785329 Z-0.125000
G01 X140.920613 Y219.948682 Z-0.125000
G01 X142.634026 Y220.532802 Z-0.125000
G01 X144.400568 Y221.505489 Z-0.125000
G01 X147.561752 Y223.748994 Z-0.125000
G01 X148.677446 Y224.440772 Z-0.125000
G01 X149.952551 Y224.979860 Z-0.125000
G01 X151.121399 Y225.148241 Z-0.125000
G01 X152.290221 Y224.966181 Z-0.125000
G01 X153.419223 Y224.476359 Z-0.125000
G01 X154.710547 Y223.624058 Z-0.125000
G01 X157.272557 Y221.587589 Z-0.125000
G01 X158.532898 Y220.696976 Z-0.125000
G01 X159.927542 Y219.935294 Z-0.125000
G01 X161.322185 Y219.436264 Z-0.125000
G01 X162.597290 Y219.184143 Z-0.125000
G01 X164.084908 Y219.069314 Z-0.125000
G01 X169.079044 Y219.126041 Z-0.125000
G01 X173.648128 Y219.061562 Z-0.125000
G01 X176.092081 Y219.258756 Z-0.125000
G01 X177.260929 Y219.514740 Z-0.125000
G01 X178.323495 Y219.862375 Z-0.125000
G01 X180.289267 Y220.790559 Z-0.125000
G01 X183.915351 Y222.994482 Z-0.125000
G01 X185.402942 Y223.790560 Z-0.125000
G01 X187.142946 Y224.479084 Z-0.125000
G01 X188.843077 Y224.880668 Z-0.125000
G00 Z3.000000

(End cutting path id: polyline7362-9)


(Start cutting path id: polyline7364-5)
(Change tool to Default tool)

G00 Z3.000000
G00 X5.866390 Y220.679328

G00 Z4.875000 (Fast pre-penetrate)
G01 Z-0.125000 F400.0(Penetrate)
G01 X14.367045 Y220.545079 Z-0.125000 F800.000000
G01 X23.186470 Y220.661125 Z-0.125000
G01 X24.992857 Y220.517006 Z-0.125000
G01 X28.393146 Y219.927727 Z-0.125000
G01 X29.668224 Y219.832821 Z-0.125000
G01 X31.155842 Y220.040572 Z-0.125000
G01 X34.024821 Y221.142904 Z-0.125000
G01 X34.662361 Y221.296971 Z-0.125000
G01 X35.299926 Y221.334806 Z-0.125000
G01 X35.937465 Y221.235561 Z-0.125000
G01 X36.641441 Y220.964654 Z-0.125000
G01 X39.337727 Y219.252458 Z-0.125000
G01 X39.975293 Y219.028198 Z-0.125000
G01 X40.506576 Y218.981869 Z-0.125000
G01 X41.144115 Y219.108155 Z-0.125000
G01 X41.899738 Y219.505241 Z-0.125000
G01 X44.213807 Y221.534328 Z-0.125000
G01 X44.916301 Y222.028543 Z-0.125000
G01 X45.606969 Y222.318843 Z-0.125000
G01 X46.244508 Y222.382502 Z-0.125000
G01 X46.868791 Y222.250237 Z-0.125000
G01 X47.602268 Y221.872968 Z-0.125000
G01 X48.412183 Y221.245800 Z-0.125000
G01 X51.073359 Y218.852938 Z-0.125000
G01 X52.075441 Y218.236724 Z-0.125000
G01 X53.045032 Y217.882342 Z-0.125000
G01 X53.788854 Y217.758808 Z-0.125000
G01 X54.745163 Y217.748172 Z-0.125000
G01 X57.932912 Y218.152508 Z-0.125000
G01 X59.526786 Y218.227517 Z-0.125000
G01 X64.414666 Y217.736080 Z-0.125000
G01 X65.689771 Y217.921738 Z-0.125000
G01 X66.858619 Y218.447306 Z-0.125000
G01 X67.933011 Y219.256268 Z-0.125000
G01 X70.494995 Y221.680325 Z-0.125000
G01 X71.228472 Y222.152024 Z-0.125000
G01 X71.959012 Y222.374802 Z-0.125000
G01 X72.702808 Y222.307149 Z-0.125000
G01 X73.366938 Y222.000523 Z-0.125000
G01 X74.048742 Y221.490513 Z-0.125000
G01 X76.197526 Y219.551966 Z-0.125000
G01 X76.900020 Y219.153928 Z-0.125000
G01 X77.590688 Y218.985891 Z-0.125000
G01 X78.121997 Y219.011847 Z-0.125000
G01 X78.759536 Y219.205310 Z-0.125000
G01 X81.641797 Y220.893323 Z-0.125000
G01 X82.478568 Y221.202171 Z-0.125000
G01 X83.222390 Y221.326472 Z-0.125000
G01 X83.966186 Y221.319884 Z-0.125000
G01 X84.710008 Y221.210955 Z-0.125000
G01 X87.791474 Y220.405961 Z-0.125000
G01 X89.491605 Y220.096214 Z-0.125000
G01 X91.510532 Y219.924393 Z-0.125000
G01 X94.166971 Y219.872403 Z-0.125000
G01 X96.929694 Y219.928759 Z-0.125000
G01 X98.948595 Y220.106876 Z-0.125000
G01 X100.648726 Y220.421466 Z-0.125000
G01 X103.623962 Y221.196667 Z-0.125000
G01 X104.899066 Y221.337743 Z-0.125000
G01 X105.749119 Y221.248817 Z-0.125000
G01 X106.559351 Y220.996378 Z-0.125000
G01 X107.303147 Y220.628660 Z-0.125000
G01 X109.441613 Y219.318763 Z-0.125000
G01 X109.999459 Y219.089370 Z-0.125000
G01 X110.636999 Y218.979409 Z-0.125000
G01 X111.274564 Y219.068150 Z-0.125000
G01 X111.951950 Y219.390333 Z-0.125000
G01 X112.644099 Y219.933283 Z-0.125000
G01 X114.648262 Y221.879609 Z-0.125000
G01 X115.206109 Y222.231346 Z-0.125000
G01 X115.843648 Y222.386629 Z-0.125000
G01 X116.481214 Y222.238542 Z-0.125000
G01 X117.024297 Y221.877783 Z-0.125000
G01 X117.708006 Y221.163859 Z-0.125000
G01 X119.263251 Y219.079871 Z-0.125000
G01 X119.834248 Y218.429288 Z-0.125000
G01 X120.519015 Y217.902186 Z-0.125000
G01 X121.156581 Y217.735604 Z-0.125000
G01 X121.687863 Y217.841596 Z-0.125000
G01 X122.103232 Y218.166610 Z-0.125000
G01 X124.131790 Y220.925496 Z-0.125000
G01 X125.916931 Y223.050918 Z-0.125000
G01 X126.735128 Y223.637154 Z-0.125000
G01 X127.532052 Y223.824506 Z-0.125000
G01 X128.382131 Y223.632524 Z-0.125000
G01 X129.245491 Y223.106163 Z-0.125000
G01 X132.726901 Y219.819354 Z-0.125000
G01 X133.636008 Y219.099159 Z-0.125000
G01 X134.545115 Y218.520543 Z-0.125000
G01 X135.501424 Y218.064984 Z-0.125000
G01 X136.564016 Y217.727587 Z-0.125000
G01 X137.626608 Y217.544284 Z-0.125000
G01 X138.795430 Y217.498882 Z-0.125000
G01 X139.858021 Y217.590454 Z-0.125000
G01 X140.814357 Y217.782912 Z-0.125000
G01 X141.770665 Y218.086573 Z-0.125000
G01 X142.727001 Y218.508372 Z-0.125000
G01 X144.545189 Y219.635178 Z-0.125000
G01 X147.768365 Y222.231663 Z-0.125000
G01 X148.956369 Y223.059014 Z-0.125000
G01 X150.271320 Y223.661787 Z-0.125000
G01 X151.440169 Y223.824162 Z-0.125000
G01 X152.502760 Y223.640118 Z-0.125000
G01 X153.605172 Y223.142014 Z-0.125000
G01 X154.793203 Y222.342100 Z-0.125000
G01 X157.355213 Y220.278617 Z-0.125000
G01 X158.532898 Y219.435841 Z-0.125000
G01 X159.834567 Y218.702258 Z-0.125000
G01 X161.215928 Y218.177405 Z-0.125000
G01 X162.491033 Y217.899672 Z-0.125000
G01 X164.084908 Y217.755607 Z-0.125000
G01 X172.798076 Y217.740314 Z-0.125000
G01 X175.348259 Y217.945101 Z-0.125000
G01 X176.410851 Y218.171425 Z-0.125000
G01 X177.473443 Y218.506678 Z-0.125000
G01 X179.545471 Y219.480555 Z-0.125000
G01 X183.357477 Y221.845848 Z-0.125000
G01 X184.938070 Y222.685264 Z-0.125000
G01 X186.824150 Y223.373788 Z-0.125000
G01 X188.843077 Y223.730446 Z-0.125000
G00 Z3.000000

(End cutting path id: polyline7364-5)


(Start cutting path id: polyline7366-3)
(Change tool to Default tool)

G00 Z3.000000
G00 X5.866390 Y219.335326

G00 Z4.875000 (Fast pre-penetrate)
G01 Z-0.125000 F400.0(Penetrate)
G01 X14.154532 Y219.161680 Z-0.125000 F800.000000
G01 X23.505266 Y219.344454 Z-0.125000
G01 X25.311653 Y219.200230 Z-0.125000
G01 X28.605659 Y218.605130 Z-0.125000
G01 X29.880737 Y218.510912 Z-0.125000
G01 X31.262099 Y218.708317 Z-0.125000
G01 X34.131078 Y219.829540 Z-0.125000
G01 X34.768617 Y219.981517 Z-0.125000
G01 X35.406183 Y220.008928 Z-0.125000
G01 X36.043722 Y219.891479 Z-0.125000
G01 X36.734416 Y219.602687 Z-0.125000
G01 X39.337727 Y217.912425 Z-0.125000
G01 X39.975293 Y217.695070 Z-0.125000
G01 X40.506576 Y217.662473 Z-0.125000
G01 X41.104269 Y217.797702 Z-0.125000
G01 X41.817082 Y218.186930 Z-0.125000
G01 X43.965866 Y220.121878 Z-0.125000
G01 X44.637351 Y220.634349 Z-0.125000
G01 X45.288199 Y220.956188 Z-0.125000
G01 X46.031995 Y221.060725 Z-0.125000
G01 X46.775817 Y220.875569 Z-0.125000
G01 X47.426638 Y220.500444 Z-0.125000
G01 X48.263435 Y219.806760 Z-0.125000
G01 X50.742789 Y217.477292 Z-0.125000
G01 X51.703543 Y216.864914 Z-0.125000
G01 X52.620006 Y216.527492 Z-0.125000
G01 X53.470084 Y216.415123 Z-0.125000
G01 X54.320137 Y216.456187 Z-0.125000
G01 X57.826655 Y217.190590 Z-0.125000
G01 X59.633043 Y217.340820 Z-0.125000
G01 X61.120661 Y217.215566 Z-0.125000
G01 X64.308409 Y216.520533 Z-0.125000
G01 X65.477258 Y216.413668 Z-0.125000
G01 X66.646106 Y216.598347 Z-0.125000
G01 X67.685071 Y217.094943 Z-0.125000
G01 X68.718135 Y217.904011 Z-0.125000
G01 X71.238817 Y220.355743 Z-0.125000
G01 X71.972294 Y220.832760 Z-0.125000
G01 X72.702808 Y221.053290 Z-0.125000
G01 X73.340374 Y221.008073 Z-0.125000
G01 X74.017759 Y220.724651 Z-0.125000
G01 X74.709908 Y220.228902 Z-0.125000
G01 X76.941348 Y218.242148 Z-0.125000
G01 X77.643816 Y217.845036 Z-0.125000
G01 X78.334510 Y217.667368 Z-0.125000
G01 X78.972049 Y217.695493 Z-0.125000
G01 X79.596306 Y217.881072 Z-0.125000
G01 X82.478568 Y219.498124 Z-0.125000
G01 X83.328646 Y219.822714 Z-0.125000
G01 X84.178699 Y219.988449 Z-0.125000
G01 X84.922521 Y220.012076 Z-0.125000
G01 X85.772573 Y219.930796 Z-0.125000
G01 X89.066579 Y219.245315 Z-0.125000
G01 X90.660453 Y218.997321 Z-0.125000
G01 X92.254327 Y218.858283 Z-0.125000
G01 X94.060715 Y218.810023 Z-0.125000
G01 X95.867102 Y218.864156 Z-0.125000
G01 X97.567233 Y219.022695 Z-0.125000
G01 X102.030087 Y219.892458 Z-0.125000
G01 X103.305192 Y220.015331 Z-0.125000
G01 X104.261501 Y219.931749 Z-0.125000
G01 X105.111580 Y219.694048 Z-0.125000
G01 X106.001478 Y219.281642 Z-0.125000
G01 X108.232918 Y217.978491 Z-0.125000
G01 X108.936868 Y217.724597 Z-0.125000
G01 X109.468177 Y217.657658 Z-0.125000
G01 X110.092434 Y217.742907 Z-0.125000
G01 X110.825911 Y218.084642 Z-0.125000
G01 X111.561452 Y218.658020 Z-0.125000
G01 X113.553206 Y220.562065 Z-0.125000
G01 X114.183363 Y220.935550 Z-0.125000
G01 X114.781083 Y221.061703 Z-0.125000
G01 X115.392058 Y220.927189 Z-0.125000
G01 X116.024305 Y220.505233 Z-0.125000
G01 X116.755719 Y219.718257 Z-0.125000
G01 X118.119353 Y217.883400 Z-0.125000
G01 X118.789912 Y217.106002 Z-0.125000
G01 X119.483014 Y216.576440 Z-0.125000
G01 X120.093989 Y216.414700 Z-0.125000
G01 X120.784656 Y216.600014 Z-0.125000
G01 X121.427037 Y217.139446 Z-0.125000
G01 X124.007833 Y220.764153 Z-0.125000
G01 X124.875612 Y221.772347 Z-0.125000
G01 X125.619408 Y222.310403 Z-0.125000
G01 X126.044460 Y222.461480 Z-0.125000
G01 X126.469487 Y222.501696 Z-0.125000
G01 X127.200000 Y222.321224 Z-0.125000
G01 X128.098762 Y221.741550 Z-0.125000
G01 X128.892167 Y221.003019 Z-0.125000
G01 X131.569880 Y218.170420 Z-0.125000
G01 X132.478987 Y217.385640 Z-0.125000
G01 X133.429395 Y216.731909 Z-0.125000
G01 X134.452141 Y216.215786 Z-0.125000
G01 X135.607681 Y215.835237 Z-0.125000
G01 X136.882786 Y215.614336 Z-0.125000
G01 X138.157890 Y215.557636 Z-0.125000
G01 X139.432995 Y215.646854 Z-0.125000
G01 X140.601817 Y215.867013 Z-0.125000
G01 X141.770665 Y216.243568 Z-0.125000
G01 X142.819975 Y216.736697 Z-0.125000
G01 X143.718737 Y217.283511 Z-0.125000
G01 X144.710474 Y218.014554 Z-0.125000
G01 X147.768365 Y220.706977 Z-0.125000
G01 X148.770420 Y221.493503 Z-0.125000
G01 X149.979115 Y222.187398 Z-0.125000
G01 X151.015143 Y222.475873 Z-0.125000
G01 X151.652682 Y222.495373 Z-0.125000
G01 X152.183964 Y222.418115 Z-0.125000
G01 X152.821530 Y222.219704 Z-0.125000
G01 X153.512198 Y221.887361 Z-0.125000
G01 X154.710547 Y221.085437 Z-0.125000
G01 X157.272557 Y219.001581 Z-0.125000
G01 X158.439924 Y218.155100 Z-0.125000
G01 X159.741593 Y217.411622 Z-0.125000
G01 X161.109672 Y216.882668 Z-0.125000
G01 X162.384777 Y216.596363 Z-0.125000
G01 X163.978651 Y216.441661 Z-0.125000
G01 X171.310458 Y216.412742 Z-0.125000
G01 X174.179437 Y216.560353 Z-0.125000
G01 X175.348259 Y216.765511 Z-0.125000
G01 X176.517107 Y217.097668 Z-0.125000
G01 X177.592981 Y217.527271 Z-0.125000
G01 X178.708675 Y218.093982 Z-0.125000
G01 X182.799631 Y220.676603 Z-0.125000
G01 X184.566172 Y221.597193 Z-0.125000
G01 X185.549071 Y221.969223 Z-0.125000
G01 X186.611637 Y222.249972 Z-0.125000
G01 X188.843077 Y222.493203 Z-0.125000
G00 Z3.000000

(End cutting path id: polyline7366-3)


(Start cutting path id: polyline7368-3)
(Change tool to Default tool)

G00 Z3.000000
G00 X5.866390 Y217.948593

G00 Z4.875000 (Fast pre-penetrate)
G01 Z-0.125000 F400.0(Penetrate)
G01 X14.260789 Y217.787224 Z-0.125000 F800.000000
G01 X23.824036 Y218.023682 Z-0.125000
G01 X25.524166 Y217.888242 Z-0.125000
G01 X28.818172 Y217.277346 Z-0.125000
G01 X30.093277 Y217.189214 Z-0.125000
G01 X31.368355 Y217.382227 Z-0.125000
G01 X34.131078 Y218.486332 Z-0.125000
G01 X34.768617 Y218.650691 Z-0.125000
G01 X35.406183 Y218.688341 Z-0.125000
G01 X36.043722 Y218.576608 Z-0.125000
G01 X36.734416 Y218.287630 Z-0.125000
G01 X39.337727 Y216.574799 Z-0.125000
G01 X39.869010 Y216.386416 Z-0.125000
G01 X40.400319 Y216.336648 Z-0.125000
G01 X41.011294 Y216.462881 Z-0.125000
G01 X41.734453 Y216.859067 Z-0.125000
G01 X43.800581 Y218.761075 Z-0.125000
G01 X44.544377 Y219.339956 Z-0.125000
G01 X45.195225 Y219.652323 Z-0.125000
G01 X45.819482 Y219.738894 Z-0.125000
G01 X46.457021 Y219.605306 Z-0.125000
G01 X47.106387 Y219.258570 Z-0.125000
G01 X47.891511 Y218.616454 Z-0.125000
G01 X49.676652 Y216.811522 Z-0.125000
G01 X50.494849 Y216.089025 Z-0.125000
G01 X51.424593 Y215.489506 Z-0.125000
G01 X52.301236 Y215.174970 Z-0.125000
G01 X53.045032 Y215.090092 Z-0.125000
G01 X53.895111 Y215.161397 Z-0.125000
G01 X57.826655 Y216.286906 Z-0.125000
G01 X58.889247 Y216.463304 Z-0.125000
G01 X59.845582 Y216.508997 Z-0.125000
G01 X61.651970 Y216.292119 Z-0.125000
G01 X65.052232 Y215.270484 Z-0.125000
G01 X66.433593 Y215.091044 Z-0.125000
G01 X67.496158 Y215.276755 Z-0.125000
G01 X68.428866 Y215.739987 Z-0.125000
G01 X69.387556 Y216.501139 Z-0.125000
G01 X71.982613 Y219.060847 Z-0.125000
G01 X72.716090 Y219.528842 Z-0.125000
G01 X73.446630 Y219.734158 Z-0.125000
G01 X74.084169 Y219.675315 Z-0.125000
G01 X74.761581 Y219.381892 Z-0.125000
G01 X75.453730 Y218.883947 Z-0.125000
G01 X77.685144 Y216.930187 Z-0.125000
G01 X78.387638 Y216.536779 Z-0.125000
G01 X79.078306 Y216.350592 Z-0.125000
G01 X79.715871 Y216.359217 Z-0.125000
G01 X80.433103 Y216.551040 Z-0.125000
G01 X83.594288 Y218.204657 Z-0.125000
G01 X84.497468 Y218.509748 Z-0.125000
G01 X85.347547 Y218.658946 Z-0.125000
G01 X86.835165 Y218.654527 Z-0.125000
G01 X91.191736 Y218.046330 Z-0.125000
G01 X93.954458 Y217.906392 Z-0.125000
G01 X96.504668 Y218.043526 Z-0.125000
G01 X100.329956 Y218.594229 Z-0.125000
G01 X101.711318 Y218.692760 Z-0.125000
G01 X102.773909 Y218.604945 Z-0.125000
G01 X103.730218 Y218.357057 Z-0.125000
G01 X104.792810 Y217.888454 Z-0.125000
G01 X107.024224 Y216.653327 Z-0.125000
G01 X107.661763 Y216.422770 Z-0.125000
G01 X108.299328 Y216.333526 Z-0.125000
G01 X109.043124 Y216.448725 Z-0.125000
G01 X109.720536 Y216.772205 Z-0.125000
G01 X110.412685 Y217.293036 Z-0.125000
G01 X112.561470 Y219.277726 Z-0.125000
G01 X113.187208 Y219.626579 Z-0.125000
G01 X113.824748 Y219.738524 Z-0.125000
G01 X114.462313 Y219.564640 Z-0.125000
G01 X115.040824 Y219.159537 Z-0.125000
G01 X115.679448 Y218.488687 Z-0.125000
G01 X117.251574 Y216.417425 Z-0.125000
G01 X117.809447 Y215.791872 Z-0.125000
G01 X118.460268 Y215.284190 Z-0.125000
G01 X119.137654 Y215.091229 Z-0.125000
G01 X119.834248 Y215.288026 Z-0.125000
G01 X120.615614 Y215.953823 Z-0.125000
G01 X121.271013 Y216.792207 Z-0.125000
G01 X123.078062 Y219.493785 Z-0.125000
G01 X123.908667 Y220.462106 Z-0.125000
G01 X124.689663 Y221.015957 Z-0.125000
G01 X125.406895 Y221.178490 Z-0.125000
G01 X125.831921 Y221.122822 Z-0.125000
G01 X126.256974 Y220.959204 Z-0.125000
G01 X127.107026 Y220.371036 Z-0.125000
G01 X127.986076 Y219.499367 Z-0.125000
G01 X130.602935 Y216.579535 Z-0.125000
G01 X131.569880 Y215.716756 Z-0.125000
G01 X132.499624 Y215.067946 Z-0.125000
G01 X133.615344 Y214.513777 Z-0.125000
G01 X134.757628 Y214.156669 Z-0.125000
G01 X136.138990 Y213.934314 Z-0.125000
G01 X137.732864 Y213.873989 Z-0.125000
G01 X139.114199 Y213.963815 Z-0.125000
G01 X140.389304 Y214.185244 Z-0.125000
G01 X141.558152 Y214.544839 Z-0.125000
G01 X142.727001 Y215.091600 Z-0.125000
G01 X143.636081 Y215.661247 Z-0.125000
G01 X144.627844 Y216.423431 Z-0.125000
G01 X147.710501 Y219.291299 Z-0.125000
G01 X148.677446 Y220.097246 Z-0.125000
G01 X149.886140 Y220.837020 Z-0.125000
G01 X150.908886 Y221.146635 Z-0.125000
G01 X151.546425 Y221.174310 Z-0.125000
G01 X152.077708 Y221.100015 Z-0.125000
G01 X153.326249 Y220.608420 Z-0.125000
G01 X154.627918 Y219.728708 Z-0.125000
G01 X157.024616 Y217.756056 Z-0.125000
G01 X158.181664 Y216.899945 Z-0.125000
G01 X159.462669 Y216.148186 Z-0.125000
G01 X160.790902 Y215.610870 Z-0.125000
G01 X162.172237 Y215.286174 Z-0.125000
G01 X163.659855 Y215.130732 Z-0.125000
G01 X170.460379 Y215.089880 Z-0.125000
G01 X173.435615 Y215.228918 Z-0.125000
G01 X174.604463 Y215.424260 Z-0.125000
G01 X175.773312 Y215.745887 Z-0.125000
G01 X176.849159 Y216.168162 Z-0.125000
G01 X177.964879 Y216.732940 Z-0.125000
G01 X182.241784 Y219.486138 Z-0.125000
G01 X184.101300 Y220.444087 Z-0.125000
G01 X185.230275 Y220.831278 Z-0.125000
G01 X186.292867 Y221.055380 Z-0.125000
G01 X187.461715 Y221.166346 Z-0.125000
G01 X188.843077 Y221.165817 Z-0.125000
G00 Z3.000000

(End cutting path id: polyline7368-3)


(Start cutting path id: polyline7370-3)
(Change tool to Default tool)

G00 Z3.000000
G00 X5.866390 Y216.548632

G00 Z4.875000 (Fast pre-penetrate)
G01 Z-0.125000 F400.0(Penetrate)
G01 X14.579558 Y216.426368 Z-0.125000 F800.000000
G01 X24.036549 Y216.703651 Z-0.125000
G01 X25.736680 Y216.568846 Z-0.125000
G01 X28.924428 Y215.961575 Z-0.125000
G01 X30.199533 Y215.865558 Z-0.125000
G01 X31.474612 Y216.061852 Z-0.125000
G01 X34.131078 Y217.145372 Z-0.125000
G01 X34.768617 Y217.320368 Z-0.125000
G01 X35.406183 Y217.366987 Z-0.125000
G01 X36.043722 Y217.260360 Z-0.125000
G01 X36.734416 Y216.971409 Z-0.125000
G01 X39.244753 Y215.283184 Z-0.125000
G01 X39.869010 Y215.055749 Z-0.125000
G01 X40.400319 Y215.016194 Z-0.125000
G01 X41.011294 Y215.160286 Z-0.125000
G01 X41.734453 Y215.582877 Z-0.125000
G01 X43.726207 Y217.461867 Z-0.125000
G01 X44.461748 Y218.037176 Z-0.125000
G01 X45.102250 Y218.338986 Z-0.125000
G01 X45.713225 Y218.414207 Z-0.125000
G01 X46.310918 Y218.280989 Z-0.125000
G01 X47.023731 Y217.876362 Z-0.125000
G01 X47.742762 Y217.259011 Z-0.125000
G01 X49.453503 Y215.473790 Z-0.125000
G01 X50.246908 Y214.749706 Z-0.125000
G01 X51.145670 Y214.151139 Z-0.125000
G01 X51.982466 Y213.843773 Z-0.125000
G01 X52.832519 Y213.769161 Z-0.125000
G01 X53.682597 Y213.892086 Z-0.125000
G01 X57.720399 Y215.356209 Z-0.125000
G01 X58.889247 Y215.607748 Z-0.125000
G01 X59.951839 Y215.683710 Z-0.125000
G01 X60.908148 Y215.620925 Z-0.125000
G01 X61.970739 Y215.410528 Z-0.125000
G01 X63.139588 Y215.033603 Z-0.125000
G01 X65.796027 Y213.998634 Z-0.125000
G01 X66.646106 Y213.803663 Z-0.125000
G01 X67.283645 Y213.768976 Z-0.125000
G01 X68.239981 Y213.950003 Z-0.125000
G01 X69.172689 Y214.432206 Z-0.125000
G01 X70.131379 Y215.222198 Z-0.125000
G01 X72.643779 Y217.730895 Z-0.125000
G01 X73.366938 Y218.196296 Z-0.125000
G01 X74.084169 Y218.407327 Z-0.125000
G01 X74.721735 Y218.362798 Z-0.125000
G01 X75.412402 Y218.080515 Z-0.125000
G01 X76.114897 Y217.591750 Z-0.125000
G01 X78.428966 Y215.612246 Z-0.125000
G01 X79.224408 Y215.189231 Z-0.125000
G01 X79.928384 Y215.022755 Z-0.125000
G01 X80.565924 Y215.039530 Z-0.125000
G01 X81.203463 Y215.194284 Z-0.125000
G01 X84.524032 Y216.806389 Z-0.125000
G01 X85.453803 Y217.118094 Z-0.125000
G01 X86.410139 Y217.302773 Z-0.125000
G01 X88.110270 Y217.357859 Z-0.125000
G01 X91.829301 Y217.066712 Z-0.125000
G01 X93.848202 Y217.006308 Z-0.125000
G01 X99.904930 Y217.369448 Z-0.125000
G01 X101.180035 Y217.282638 Z-0.125000
G01 X102.348857 Y217.011044 Z-0.125000
G01 X103.491141 Y216.546621 Z-0.125000
G01 X105.908504 Y215.303107 Z-0.125000
G01 X106.599197 Y215.081202 Z-0.125000
G01 X107.236737 Y215.011616 Z-0.125000
G01 X107.953995 Y215.125863 Z-0.125000
G01 X108.677127 Y215.461593 Z-0.125000
G01 X109.420949 Y216.012666 Z-0.125000
G01 X111.487077 Y217.894486 Z-0.125000
G01 X112.230873 Y218.312766 Z-0.125000
G01 X112.868439 Y218.416244 Z-0.125000
G01 X113.625517 Y218.180739 Z-0.125000
G01 X114.297002 Y217.656044 Z-0.125000
G01 X114.935626 Y216.940612 Z-0.125000
G01 X116.490871 Y214.916896 Z-0.125000
G01 X117.106953 Y214.284304 Z-0.125000
G01 X117.756319 Y213.869861 Z-0.125000
G01 X118.287601 Y213.767865 Z-0.125000
G01 X119.007796 Y213.998872 Z-0.125000
G01 X119.804191 Y214.707981 Z-0.125000
G01 X120.527191 Y215.659157 Z-0.125000
G01 X122.148317 Y218.093294 Z-0.125000
G01 X123.016096 Y219.121649 Z-0.125000
G01 X123.759892 Y219.667854 Z-0.125000
G01 X124.131790 Y219.808400 Z-0.125000
G01 X124.556843 Y219.855126 Z-0.125000
G01 X125.340484 Y219.648486 Z-0.125000
G01 X126.197945 Y219.051666 Z-0.125000
G01 X127.107026 Y218.129595 Z-0.125000
G01 X129.784738 Y215.063845 Z-0.125000
G01 X130.743428 Y214.197309 Z-0.125000
G01 X131.755828 Y213.497408 Z-0.125000
G01 X132.871549 Y212.967104 Z-0.125000
G01 X134.120063 Y212.612298 Z-0.125000
G01 X135.607681 Y212.414205 Z-0.125000
G01 X137.307812 Y212.369517 Z-0.125000
G01 X138.795430 Y212.457491 Z-0.125000
G01 X140.176791 Y212.683312 Z-0.125000
G01 X141.425332 Y213.065846 Z-0.125000
G01 X142.541052 Y213.595965 Z-0.125000
G01 X143.470796 Y214.191647 Z-0.125000
G01 X144.462533 Y214.977803 Z-0.125000
G01 X147.487352 Y217.891549 Z-0.125000
G01 X148.512161 Y218.775310 Z-0.125000
G01 X149.607217 Y219.471798 Z-0.125000
G01 X150.696346 Y219.823111 Z-0.125000
G01 X151.227656 Y219.855443 Z-0.125000
G01 X151.865195 Y219.774137 Z-0.125000
G01 X152.489478 Y219.574033 Z-0.125000
G01 X153.233274 Y219.198378 Z-0.125000
G01 X154.379977 Y218.396612 Z-0.125000
G01 X157.603153 Y215.778563 Z-0.125000
G01 X158.718847 Y215.063289 Z-0.125000
G01 X159.741593 Y214.561905 Z-0.125000
G01 X160.897159 Y214.169951 Z-0.125000
G01 X162.065981 Y213.933732 Z-0.125000
G01 X163.447342 Y213.804112 Z-0.125000
G01 X165.147473 Y213.766859 Z-0.125000
G01 X171.522971 Y213.798927 Z-0.125000
G01 X173.010589 Y213.925424 Z-0.125000
G01 X174.391950 Y214.189345 Z-0.125000
G01 X175.733465 Y214.627098 Z-0.125000
G01 X177.128082 Y215.290646 Z-0.125000
G01 X178.522726 Y216.140036 Z-0.125000
G01 X181.683911 Y218.273951 Z-0.125000
G01 X183.636401 Y219.268254 Z-0.125000
G01 X184.805249 Y219.630839 Z-0.125000
G01 X185.974097 Y219.816629 Z-0.125000
G01 X187.249202 Y219.852215 Z-0.125000
G01 X188.843077 Y219.745086 Z-0.125000
G00 Z3.000000

(End cutting path id: polyline7370-3)


(Start cutting path id: polyline7372-8)
(Change tool to Default tool)

G00 Z3.000000
G00 X5.866390 Y215.154782

G00 Z4.875000 (Fast pre-penetrate)
G01 Z-0.125000 F400.0(Penetrate)
G01 X15.110841 Y215.080037 Z-0.125000 F800.000000
G01 X24.249062 Y215.381662 Z-0.125000
G01 X25.949193 Y215.242782 Z-0.125000
G01 X29.030685 Y214.641465 Z-0.125000
G01 X30.305790 Y214.542696 Z-0.125000
G01 X31.580868 Y214.747007 Z-0.125000
G01 X34.237334 Y215.843359 Z-0.125000
G01 X34.874874 Y216.009227 Z-0.125000
G01 X35.406183 Y216.045051 Z-0.125000
G01 X35.937465 Y215.971232 Z-0.125000
G01 X36.548441 Y215.750306 Z-0.125000
G01 X37.188943 Y215.379916 Z-0.125000
G01 X39.151778 Y213.998078 Z-0.125000
G01 X39.762754 Y213.752625 Z-0.125000
G01 X40.294063 Y213.689627 Z-0.125000
G01 X40.918320 Y213.816945 Z-0.125000
G01 X41.651797 Y214.236891 Z-0.125000
G01 X43.651806 Y216.144428 Z-0.125000
G01 X44.379092 Y216.719553 Z-0.125000
G01 X44.969429 Y217.005117 Z-0.125000
G01 X45.606969 Y217.091053 Z-0.125000
G01 X46.217944 Y216.947015 Z-0.125000
G01 X46.858446 Y216.576228 Z-0.125000
G01 X47.593987 Y215.935223 Z-0.125000
G01 X49.304754 Y214.110500 Z-0.125000
G01 X50.081623 Y213.389114 Z-0.125000
G01 X50.959721 Y212.799544 Z-0.125000
G01 X51.769953 Y212.507629 Z-0.125000
G01 X52.620006 Y212.453390 Z-0.125000
G01 X53.470084 Y212.612484 Z-0.125000
G01 X57.720399 Y214.417998 Z-0.125000
G01 X58.995503 Y214.731476 Z-0.125000
G01 X60.164352 Y214.823445 Z-0.125000
G01 X61.226917 Y214.738090 Z-0.125000
G01 X62.395765 Y214.464644 Z-0.125000
G01 X63.511486 Y214.050148 Z-0.125000
G01 X66.433593 Y212.728053 Z-0.125000
G01 X67.283645 Y212.497099 Z-0.125000
G01 X67.921185 Y212.444764 Z-0.125000
G01 X68.877520 Y212.614336 Z-0.125000
G01 X69.833855 Y213.115932 Z-0.125000
G01 X70.726426 Y213.858061 Z-0.125000
G01 X73.222290 Y216.367498 Z-0.125000
G01 X74.017759 Y216.882006 Z-0.125000
G01 X74.721735 Y217.084016 Z-0.125000
G01 X75.359274 Y217.042185 Z-0.125000
G01 X76.063224 Y216.761383 Z-0.125000
G01 X76.776037 Y216.276191 Z-0.125000
G01 X79.131434 Y214.310233 Z-0.125000
G01 X79.875256 Y213.910422 Z-0.125000
G01 X80.672180 Y213.704973 Z-0.125000
G01 X81.309746 Y213.706032 Z-0.125000
G01 X82.053542 Y213.866528 Z-0.125000
G01 X85.560060 Y215.429605 Z-0.125000
G01 X86.516395 Y215.729880 Z-0.125000
G01 X87.578961 Y215.935011 Z-0.125000
G01 X89.279092 Y216.045660 Z-0.125000
G01 X93.635689 Y215.967105 Z-0.125000
G01 X97.779746 Y216.046691 Z-0.125000
G01 X99.479904 Y215.955463 Z-0.125000
G01 X100.861239 Y215.684372 Z-0.125000
G01 X102.189472 Y215.205212 Z-0.125000
G01 X104.792810 Y213.973684 Z-0.125000
G01 X105.536606 Y213.751566 Z-0.125000
G01 X106.174171 Y213.687273 Z-0.125000
G01 X106.917967 Y213.799800 Z-0.125000
G01 X107.675045 Y214.137540 Z-0.125000
G01 X108.586216 Y214.806538 Z-0.125000
G01 X110.577970 Y216.577657 Z-0.125000
G01 X111.301128 Y216.978844 Z-0.125000
G01 X111.912103 Y217.093805 Z-0.125000
G01 X112.509796 Y216.975616 Z-0.125000
G01 X113.197818 Y216.552945 Z-0.125000
G01 X113.921347 Y215.824177 Z-0.125000
G01 X116.032560 Y213.204303 Z-0.125000
G01 X116.693727 Y212.671406 Z-0.125000
G01 X117.437523 Y212.444050 Z-0.125000
G01 X117.756319 Y212.482626 Z-0.125000
G01 X118.181345 Y212.656537 Z-0.125000
G01 X118.987132 Y213.349665 Z-0.125000
G01 X119.726166 Y214.306079 Z-0.125000
G01 X121.404495 Y216.805410 Z-0.125000
G01 X122.272274 Y217.819636 Z-0.125000
G01 X123.016096 Y218.354596 Z-0.125000
G01 X123.387994 Y218.490142 Z-0.125000
G01 X123.813020 Y218.531681 Z-0.125000
G01 X124.596689 Y218.316708 Z-0.125000
G01 X125.454123 Y217.711765 Z-0.125000
G01 X126.363230 Y216.781147 Z-0.125000
G01 X129.040942 Y213.688675 Z-0.125000
G01 X129.999606 Y212.814598 Z-0.125000
G01 X131.012033 Y212.109723 Z-0.125000
G01 X132.127726 Y211.577885 Z-0.125000
G01 X133.376267 Y211.224746 Z-0.125000
G01 X134.863885 Y211.028293 Z-0.125000
G01 X136.776529 Y210.976487 Z-0.125000
G01 X138.370403 Y211.061260 Z-0.125000
G01 X139.751765 Y211.271762 Z-0.125000
G01 X140.920613 Y211.607095 Z-0.125000
G01 X142.076153 Y212.130387 Z-0.125000
G01 X143.057571 Y212.747633 Z-0.125000
G01 X144.131963 Y213.604194 Z-0.125000
G01 X147.115454 Y216.525269 Z-0.125000
G01 X148.264220 Y217.520974 Z-0.125000
G01 X149.328294 Y218.184337 Z-0.125000
G01 X150.377577 Y218.506255 Z-0.125000
G01 X150.908886 Y218.531179 Z-0.125000
G01 X151.546425 Y218.437887 Z-0.125000
G01 X152.768402 Y217.921632 Z-0.125000
G01 X153.966751 Y217.088275 Z-0.125000
G01 X157.189928 Y214.446282 Z-0.125000
G01 X158.161000 Y213.809457 Z-0.125000
G01 X159.183746 Y213.285186 Z-0.125000
G01 X160.259593 Y212.895455 Z-0.125000
G01 X161.428442 Y212.634470 Z-0.125000
G01 X162.703546 Y212.494929 Z-0.125000
G01 X164.297421 Y212.445188 Z-0.125000
G01 X170.885432 Y212.467439 Z-0.125000
G01 X172.373050 Y212.581210 Z-0.125000
G01 X173.648128 Y212.806635 Z-0.125000
G01 X175.029489 Y213.235285 Z-0.125000
G01 X176.477261 Y213.917962 Z-0.125000
G01 X177.851241 Y214.765422 Z-0.125000
G01 X181.219038 Y217.095234 Z-0.125000
G01 X182.241784 Y217.667421 Z-0.125000
G01 X183.211375 Y218.083716 Z-0.125000
G01 X184.380223 Y218.402247 Z-0.125000
G01 X185.655328 Y218.531285 Z-0.125000
G01 X186.930406 Y218.481517 Z-0.125000
G01 X188.843077 Y218.228364 Z-0.125000
G00 Z3.000000

(End cutting path id: polyline7372-8)


(Start cutting path id: polyline7374-5)
(Change tool to Default tool)

G00 Z3.000000
G00 X5.866390 Y213.775987

G00 Z4.875000 (Fast pre-penetrate)
G01 Z-0.125000 F400.0(Penetrate)
G01 X15.642150 Y213.744184 Z-0.125000 F800.000000
G01 X24.355318 Y214.060679 Z-0.125000
G01 X26.055449 Y213.925053 Z-0.125000
G01 X29.136942 Y213.316354 Z-0.125000
G01 X30.412046 Y213.220971 Z-0.125000
G01 X31.687151 Y213.437771 Z-0.125000
G01 X34.237334 Y214.509120 Z-0.125000
G01 X34.874874 Y214.681946 Z-0.125000
G01 X35.406183 Y214.722718 Z-0.125000
G01 X35.937465 Y214.652074 Z-0.125000
G01 X36.548441 Y214.432100 Z-0.125000
G01 X37.188943 Y214.059541 Z-0.125000
G01 X39.151778 Y212.667093 Z-0.125000
G01 X39.762754 Y212.424365 Z-0.125000
G01 X40.294063 Y212.367665 Z-0.125000
G01 X40.918320 Y212.506809 Z-0.125000
G01 X41.651797 Y212.944350 Z-0.125000
G01 X43.651806 Y214.878214 Z-0.125000
G01 X44.296436 Y215.387774 Z-0.125000
G01 X44.969429 Y215.705750 Z-0.125000
G01 X45.500712 Y215.769620 Z-0.125000
G01 X46.124969 Y215.624020 Z-0.125000
G01 X46.775817 Y215.236882 Z-0.125000
G01 X47.593987 Y214.495891 Z-0.125000
G01 X49.916338 Y212.069453 Z-0.125000
G01 X50.773772 Y211.478057 Z-0.125000
G01 X51.557440 Y211.185508 Z-0.125000
G01 X52.301236 Y211.124866 Z-0.125000
G01 X53.151288 Y211.277636 Z-0.125000
G01 X54.120906 Y211.658821 Z-0.125000
G01 X56.445294 Y212.871748 Z-0.125000
G01 X57.720399 Y213.423034 Z-0.125000
G01 X59.101760 Y213.795117 Z-0.125000
G01 X60.376865 Y213.900156 Z-0.125000
G01 X61.545713 Y213.789746 Z-0.125000
G01 X62.714535 Y213.486983 Z-0.125000
G01 X63.976358 Y212.968850 Z-0.125000
G01 X66.858619 Y211.503828 Z-0.125000
G01 X67.708671 Y211.219533 Z-0.125000
G01 X68.558750 Y211.122379 Z-0.125000
G01 X69.515059 Y211.306925 Z-0.125000
G01 X70.391702 Y211.777327 Z-0.125000
G01 X71.321446 Y212.555942 Z-0.125000
G01 X73.800827 Y215.044663 Z-0.125000
G01 X74.575606 Y215.546048 Z-0.125000
G01 X75.253018 Y215.754248 Z-0.125000
G01 X75.996813 Y215.711624 Z-0.125000
G01 X76.714071 Y215.419471 Z-0.125000
G01 X77.437203 Y214.930151 Z-0.125000
G01 X79.782282 Y213.021476 Z-0.125000
G01 X80.565924 Y212.604890 Z-0.125000
G01 X81.416002 Y212.385207 Z-0.125000
G01 X82.159798 Y212.387853 Z-0.125000
G01 X83.009877 Y212.573907 Z-0.125000
G01 X86.303882 Y213.932276 Z-0.125000
G01 X88.110270 Y214.432524 Z-0.125000
G01 X90.235427 Y214.672103 Z-0.125000
G01 X93.848202 Y214.722083 Z-0.125000
G01 X97.035951 Y214.659351 Z-0.125000
G01 X99.054851 Y214.406065 Z-0.125000
G01 X100.754982 Y213.915449 Z-0.125000
G01 X103.836475 Y212.610155 Z-0.125000
G01 X104.580297 Y212.416401 Z-0.125000
G01 X105.217836 Y212.365389 Z-0.125000
G01 X105.961632 Y212.474556 Z-0.125000
G01 X106.745300 Y212.805814 Z-0.125000
G01 X107.602734 Y213.401311 Z-0.125000
G01 X109.834174 Y215.307817 Z-0.125000
G01 X110.557306 Y215.676752 Z-0.125000
G01 X111.168308 Y215.770308 Z-0.125000
G01 X111.766001 Y215.639631 Z-0.125000
G01 X112.478814 Y215.193729 Z-0.125000
G01 X113.177551 Y214.494939 Z-0.125000
G01 X115.371394 Y211.830456 Z-0.125000
G01 X116.056188 Y211.312746 Z-0.125000
G01 X116.481214 Y211.151800 Z-0.125000
G01 X116.799983 Y211.122220 Z-0.125000
G01 X117.520178 Y211.347009 Z-0.125000
G01 X118.316573 Y212.032068 Z-0.125000
G01 X119.039573 Y212.955330 Z-0.125000
G01 X120.784656 Y215.524907 Z-0.125000
G01 X121.602853 Y216.471850 Z-0.125000
G01 X122.365249 Y217.024696 Z-0.125000
G01 X122.750455 Y217.165851 Z-0.125000
G01 X123.175481 Y217.209084 Z-0.125000
G01 X123.600507 Y217.142197 Z-0.125000
G01 X124.025533 Y216.967996 Z-0.125000
G01 X124.875612 Y216.358212 Z-0.125000
G01 X125.754663 Y215.461487 Z-0.125000
G01 X128.445895 Y212.379095 Z-0.125000
G01 X129.421095 Y211.498113 Z-0.125000
G01 X130.454159 Y210.787311 Z-0.125000
G01 X131.569880 Y210.261240 Z-0.125000
G01 X132.844984 Y209.905773 Z-0.125000
G01 X134.332602 Y209.711966 Z-0.125000
G01 X136.245246 Y209.661034 Z-0.125000
G01 X137.945377 Y209.757554 Z-0.125000
G01 X139.326739 Y209.981206 Z-0.125000
G01 X140.495561 Y210.330270 Z-0.125000
G01 X141.611281 Y210.846630 Z-0.125000
G01 X142.634026 Y211.499489 Z-0.125000
G01 X143.619571 Y212.288978 Z-0.125000
G01 X146.669182 Y215.266172 Z-0.125000
G01 X147.685709 Y216.150117 Z-0.125000
G01 X148.770420 Y216.841102 Z-0.125000
G01 X149.846294 Y217.181726 Z-0.125000
G01 X150.377577 Y217.208528 Z-0.125000
G01 X151.015143 Y217.117168 Z-0.125000
G01 X151.652682 Y216.898278 Z-0.125000
G01 X152.303503 Y216.559004 Z-0.125000
G01 X153.388240 Y215.796078 Z-0.125000
G01 X156.611391 Y213.126436 Z-0.125000
G01 X157.603153 Y212.468048 Z-0.125000
G01 X158.532898 Y211.981532 Z-0.125000
G01 X159.515797 Y211.606169 Z-0.125000
G01 X160.578363 Y211.343332 Z-0.125000
G01 X161.747211 Y211.189186 Z-0.125000
G01 X163.128572 Y211.125606 Z-0.125000
G01 X170.247866 Y211.132115 Z-0.125000
G01 X171.629227 Y211.213422 Z-0.125000
G01 X172.904332 Y211.406620 Z-0.125000
G01 X174.391950 Y211.839637 Z-0.125000
G01 X175.826440 Y212.507603 Z-0.125000
G01 X177.190074 Y213.355988 Z-0.125000
G01 X180.661191 Y215.831189 Z-0.125000
G01 X181.776885 Y216.460790 Z-0.125000
G01 X182.786349 Y216.874175 Z-0.125000
G01 X183.955197 Y217.145796 Z-0.125000
G01 X185.230275 Y217.205248 Z-0.125000
G01 X186.611637 Y217.057346 Z-0.125000
G01 X188.843077 Y216.615227 Z-0.125000
G00 Z3.000000

(End cutting path id: polyline7374-5)


(Start cutting path id: polyline7376-8)
(Change tool to Default tool)

G00 Z3.000000
G00 X5.866390 Y212.413755

G00 Z4.875000 (Fast pre-penetrate)
G01 Z-0.125000 F400.0(Penetrate)
G01 X16.067176 Y212.414284 Z-0.125000 F800.000000
G01 X24.461575 Y212.738081 Z-0.125000
G01 X26.161706 Y212.601318 Z-0.125000
G01 X29.243198 Y211.986454 Z-0.125000
G01 X30.412046 Y211.896337 Z-0.125000
G01 X31.687151 Y212.101812 Z-0.125000
G01 X34.343591 Y213.214569 Z-0.125000
G01 X34.874874 Y213.355591 Z-0.125000
G01 X35.512439 Y213.396231 Z-0.125000
G01 X36.149979 Y213.271930 Z-0.125000
G01 X36.734416 Y213.015523 Z-0.125000
G01 X39.244753 Y211.290309 Z-0.125000
G01 X39.762754 Y211.097587 Z-0.125000
G01 X40.294063 Y211.045597 Z-0.125000
G01 X40.918320 Y211.193446 Z-0.125000
G01 X41.651797 Y211.643792 Z-0.125000
G01 X43.577432 Y213.527041 Z-0.125000
G01 X44.213807 Y214.041840 Z-0.125000
G01 X44.863146 Y214.367013 Z-0.125000
G01 X45.394456 Y214.448557 Z-0.125000
G01 X46.031995 Y214.311344 Z-0.125000
G01 X46.775817 Y213.856606 Z-0.125000
G01 X47.519613 Y213.162843 Z-0.125000
G01 X49.751026 Y210.789480 Z-0.125000
G01 X50.587823 Y210.185966 Z-0.125000
G01 X51.451157 Y209.853756 Z-0.125000
G01 X52.194980 Y209.804940 Z-0.125000
G01 X53.045032 Y209.980491 Z-0.125000
G01 X53.934957 Y210.356913 Z-0.125000
G01 X56.352319 Y211.716897 Z-0.125000
G01 X57.653988 Y212.329168 Z-0.125000
G01 X59.101760 Y212.761285 Z-0.125000
G01 X60.483121 Y212.897095 Z-0.125000
G01 X61.758226 Y212.778404 Z-0.125000
G01 X63.033305 Y212.429630 Z-0.125000
G01 X64.348256 Y211.851887 Z-0.125000
G01 X67.416466 Y210.184352 Z-0.125000
G01 X68.239981 Y209.897994 Z-0.125000
G01 X69.090033 Y209.798749 Z-0.125000
G01 X69.926830 Y209.947471 Z-0.125000
G01 X70.825591 Y210.403745 Z-0.125000
G01 X71.767745 Y211.178814 Z-0.125000
G01 X74.222308 Y213.647056 Z-0.125000
G01 X75.040505 Y214.195087 Z-0.125000
G01 X75.784300 Y214.431492 Z-0.125000
G01 X76.528122 Y214.392624 Z-0.125000
G01 X77.271918 Y214.098276 Z-0.125000
G01 X78.098370 Y213.544689 Z-0.125000
G01 X80.433103 Y211.701815 Z-0.125000
G01 X81.203463 Y211.302586 Z-0.125000
G01 X82.053542 Y211.073722 Z-0.125000
G01 X82.797337 Y211.051550 Z-0.125000
G01 X83.753673 Y211.223529 Z-0.125000
G01 X87.153934 Y212.477414 Z-0.125000
G01 X88.960322 Y212.950779 Z-0.125000
G01 X90.979223 Y213.208668 Z-0.125000
G01 X93.529432 Y213.290081 Z-0.125000
G01 X96.079616 Y213.197556 Z-0.125000
G01 X98.098543 Y212.919903 Z-0.125000
G01 X99.798674 Y212.454554 Z-0.125000
G01 X102.986422 Y211.247685 Z-0.125000
G01 X104.261501 Y211.042342 Z-0.125000
G01 X105.111580 Y211.150451 Z-0.125000
G01 X105.908504 Y211.467977 Z-0.125000
G01 X106.858939 Y212.103029 Z-0.125000
G01 X109.173008 Y214.013927 Z-0.125000
G01 X109.906485 Y214.365796 Z-0.125000
G01 X110.530742 Y214.446520 Z-0.125000
G01 X111.301128 Y214.226228 Z-0.125000
G01 X112.065588 Y213.664783 Z-0.125000
G01 X112.704212 Y212.985413 Z-0.125000
G01 X114.327058 Y210.973074 Z-0.125000
G01 X115.057360 Y210.261769 Z-0.125000
G01 X115.670981 Y209.899476 Z-0.125000
G01 X116.268701 Y209.802083 Z-0.125000
G01 X116.972650 Y210.032138 Z-0.125000
G01 X117.775633 Y210.718598 Z-0.125000
G01 X118.429285 Y211.532032 Z-0.125000
G01 X120.226809 Y214.144657 Z-0.125000
G01 X121.088953 Y215.137981 Z-0.125000
G01 X121.900376 Y215.714349 Z-0.125000
G01 X122.325402 Y215.854737 Z-0.125000
G01 X122.750455 Y215.885031 Z-0.125000
G01 X123.573943 Y215.641059 Z-0.125000
G01 X124.379731 Y215.078371 Z-0.125000
G01 X125.173136 Y214.303777 Z-0.125000
G01 X127.999597 Y211.151985 Z-0.125000
G01 X129.007869 Y210.260076 Z-0.125000
G01 X129.989287 Y209.591819 Z-0.125000
G01 X131.144853 Y209.043471 Z-0.125000
G01 X132.419932 Y208.680463 Z-0.125000
G01 X133.907550 Y208.477766 Z-0.125000
G01 X135.607681 Y208.427310 Z-0.125000
G01 X137.201555 Y208.520628 Z-0.125000
G01 X138.582917 Y208.747508 Z-0.125000
G01 X139.844739 Y209.130174 Z-0.125000
G01 X140.960459 Y209.652170 Z-0.125000
G01 X141.983179 Y210.303282 Z-0.125000
G01 X142.974915 Y211.089650 Z-0.125000
G01 X145.999734 Y213.986886 Z-0.125000
G01 X147.024543 Y214.859269 Z-0.125000
G01 X148.119599 Y215.538375 Z-0.125000
G01 X149.208755 Y215.865399 Z-0.125000
G01 X149.740038 Y215.883020 Z-0.125000
G01 X150.377577 Y215.781712 Z-0.125000
G01 X151.001860 Y215.559991 Z-0.125000
G01 X151.652682 Y215.214181 Z-0.125000
G01 X152.727074 Y214.447578 Z-0.125000
G01 X155.867595 Y211.813998 Z-0.125000
G01 X156.766357 Y211.198499 Z-0.125000
G01 X157.696128 Y210.688277 Z-0.125000
G01 X158.665719 Y210.297356 Z-0.125000
G01 X159.622054 Y210.041134 Z-0.125000
G01 X160.684646 Y209.878812 Z-0.125000
G01 X161.959724 Y209.804755 Z-0.125000
G01 X170.247866 Y209.811396 Z-0.125000
G01 X171.735484 Y209.928633 Z-0.125000
G01 X173.116845 Y210.209567 Z-0.125000
G01 X174.431796 Y210.686399 Z-0.125000
G01 X175.826440 Y211.435592 Z-0.125000
G01 X179.586799 Y214.181381 Z-0.125000
G01 X180.754166 Y214.934385 Z-0.125000
G01 X181.869860 Y215.471488 Z-0.125000
G01 X182.998862 Y215.792427 Z-0.125000
G01 X184.061453 Y215.887677 Z-0.125000
G01 X185.230275 Y215.795417 Z-0.125000
G01 X188.843077 Y214.908588 Z-0.125000
G00 Z3.000000

(End cutting path id: polyline7376-8)


(Start cutting path id: polyline7378-9)
(Change tool to Default tool)

G00 Z3.000000
G00 X5.866390 Y211.065573

G00 Z4.875000 (Fast pre-penetrate)
G01 Z-0.125000 F400.0(Penetrate)
G01 X16.279689 Y211.086448 Z-0.125000 F800.000000
G01 X24.461575 Y211.416859 Z-0.125000
G01 X26.161706 Y211.287214 Z-0.125000
G01 X29.349455 Y210.652744 Z-0.125000
G01 X30.518303 Y210.576306 Z-0.125000
G01 X31.262099 Y210.665100 Z-0.125000
G01 X31.992639 Y210.868855 Z-0.125000
G01 X34.556104 Y211.955154 Z-0.125000
G01 X35.512439 Y212.073951 Z-0.125000
G01 X36.149979 Y211.951079 Z-0.125000
G01 X36.734416 Y211.694645 Z-0.125000
G01 X39.244753 Y209.963981 Z-0.125000
G01 X39.762754 Y209.772529 Z-0.125000
G01 X40.294063 Y209.723475 Z-0.125000
G01 X40.918320 Y209.876748 Z-0.125000
G01 X41.643542 Y210.328497 Z-0.125000
G01 X43.577432 Y212.229235 Z-0.125000
G01 X44.213807 Y212.739298 Z-0.125000
G01 X44.863146 Y213.054549 Z-0.125000
G01 X45.394456 Y213.124743 Z-0.125000
G01 X46.031995 Y212.971364 Z-0.125000
G01 X46.682843 Y212.569912 Z-0.125000
G01 X47.445238 Y211.863793 Z-0.125000
G01 X48.939603 Y210.198561 Z-0.125000
G01 X49.751026 Y209.407166 Z-0.125000
G01 X50.587823 Y208.820586 Z-0.125000
G01 X51.451157 Y208.513881 Z-0.125000
G01 X52.301236 Y208.504991 Z-0.125000
G01 X53.363828 Y208.827227 Z-0.125000
G01 X56.631269 Y210.689785 Z-0.125000
G01 X58.039168 Y211.328886 Z-0.125000
G01 X59.314273 Y211.681707 Z-0.125000
G01 X60.589378 Y211.804156 Z-0.125000
G01 X61.970739 Y211.675913 Z-0.125000
G01 X63.325537 Y211.289886 Z-0.125000
G01 X64.720154 Y210.646050 Z-0.125000
G01 X67.788364 Y208.899114 Z-0.125000
G01 X68.665007 Y208.579577 Z-0.125000
G01 X69.515059 Y208.476125 Z-0.125000
G01 X70.471394 Y208.668054 Z-0.125000
G01 X71.321446 Y209.130651 Z-0.125000
G01 X72.214017 Y209.874023 Z-0.125000
G01 X74.709908 Y212.358325 Z-0.125000
G01 X75.505377 Y212.876802 Z-0.125000
G01 X76.315609 Y213.115456 Z-0.125000
G01 X76.953149 Y213.080663 Z-0.125000
G01 X77.736790 Y212.790548 Z-0.125000
G01 X78.511595 Y212.295936 Z-0.125000
G01 X80.990950 Y210.399088 Z-0.125000
G01 X81.841028 Y209.975120 Z-0.125000
G01 X82.691081 Y209.754881 Z-0.125000
G01 X83.541159 Y209.730698 Z-0.125000
G01 X84.497468 Y209.890268 Z-0.125000
G01 X87.897757 Y211.006121 Z-0.125000
G01 X89.597888 Y211.420934 Z-0.125000
G01 X91.404275 Y211.662207 Z-0.125000
G01 X93.423176 Y211.744043 Z-0.125000
G01 X95.548333 Y211.652391 Z-0.125000
G01 X97.354720 Y211.397095 Z-0.125000
G01 X99.054851 Y210.963100 Z-0.125000
G01 X102.136344 Y209.921648 Z-0.125000
G01 X103.517705 Y209.719454 Z-0.125000
G01 X104.474040 Y209.849999 Z-0.125000
G01 X105.350657 Y210.211684 Z-0.125000
G01 X106.280428 Y210.830067 Z-0.125000
G01 X108.511842 Y212.633941 Z-0.125000
G01 X109.255637 Y213.011237 Z-0.125000
G01 X109.893203 Y213.126462 Z-0.125000
G01 X110.636999 Y212.970385 Z-0.125000
G01 X111.321792 Y212.546391 Z-0.125000
G01 X112.156499 Y211.726078 Z-0.125000
G01 X113.650864 Y209.896618 Z-0.125000
G01 X114.387912 Y209.123745 Z-0.125000
G01 X115.113134 Y208.625985 Z-0.125000
G01 X115.843648 Y208.478057 Z-0.125000
G01 X116.600752 Y208.734782 Z-0.125000
G01 X117.437523 Y209.463020 Z-0.125000
G01 X118.238548 Y210.481902 Z-0.125000
G01 X119.871818 Y212.818858 Z-0.125000
G01 X120.784656 Y213.844647 Z-0.125000
G01 X121.621453 Y214.409293 Z-0.125000
G01 X122.431659 Y214.561905 Z-0.125000
G01 X123.281738 Y214.323118 Z-0.125000
G01 X124.131790 Y213.749185 Z-0.125000
G01 X125.024361 Y212.900350 Z-0.125000
G01 X127.776447 Y209.965463 Z-0.125000
G01 X128.759929 Y209.130995 Z-0.125000
G01 X129.710364 Y208.498535 Z-0.125000
G01 X130.826057 Y207.964951 Z-0.125000
G01 X131.994906 Y207.609245 Z-0.125000
G01 X133.376267 Y207.388610 Z-0.125000
G01 X134.863885 Y207.324607 Z-0.125000
G01 X136.457759 Y207.424328 Z-0.125000
G01 X137.839121 Y207.675920 Z-0.125000
G01 X139.007943 Y208.047659 Z-0.125000
G01 X140.309612 Y208.681547 Z-0.125000
G01 X141.146408 Y209.211825 Z-0.125000
G01 X142.148464 Y209.983984 Z-0.125000
G01 X145.123699 Y212.720910 Z-0.125000
G01 X146.198092 Y213.597791 Z-0.125000
G01 X147.296085 Y214.244881 Z-0.125000
G01 X148.358676 Y214.545024 Z-0.125000
G01 X148.889959 Y214.559418 Z-0.125000
G01 X149.527525 Y214.456098 Z-0.125000
G01 X150.165064 Y214.227339 Z-0.125000
G01 X150.815912 Y213.878751 Z-0.125000
G01 X151.900622 Y213.099581 Z-0.125000
G01 X155.041143 Y210.440019 Z-0.125000
G01 X156.766357 Y209.358536 Z-0.125000
G01 X157.603153 Y209.002566 Z-0.125000
G01 X158.559462 Y208.724119 Z-0.125000
G01 X160.578363 Y208.485439 Z-0.125000
G01 X165.359986 Y208.563464 Z-0.125000
G01 X170.141609 Y208.483798 Z-0.125000
G01 X171.522971 Y208.593891 Z-0.125000
G01 X172.691819 Y208.831301 Z-0.125000
G01 X174.059899 Y209.330966 Z-0.125000
G01 X175.361541 Y210.049203 Z-0.125000
G01 X176.528908 Y210.867929 Z-0.125000
G01 X179.090918 Y212.875003 Z-0.125000
G01 X180.289267 Y213.672615 Z-0.125000
G01 X181.404987 Y214.210538 Z-0.125000
G01 X182.467579 Y214.496976 Z-0.125000
G01 X183.530144 Y214.560846 Z-0.125000
G01 X184.698993 Y214.410695 Z-0.125000
G01 X188.843077 Y213.116355 Z-0.125000
G00 Z3.000000

(End cutting path id: polyline7378-9)


(Start cutting path id: polyline7380-6)
(Change tool to Default tool)

G00 Z3.000000
G00 X5.866390 Y209.727788

G00 Z4.875000 (Fast pre-penetrate)
G01 Z-0.125000 F400.0(Penetrate)
G01 X16.385946 Y209.760755 Z-0.125000 F800.000000
G01 X24.461575 Y210.094447 Z-0.125000
G01 X26.161706 Y209.967500 Z-0.125000
G01 X29.349455 Y209.332078 Z-0.125000
G01 X30.518303 Y209.252914 Z-0.125000
G01 X31.262099 Y209.340042 Z-0.125000
G01 X31.992639 Y209.542659 Z-0.125000
G01 X34.556104 Y210.630836 Z-0.125000
G01 X35.512439 Y210.751221 Z-0.125000
G01 X36.149979 Y210.628878 Z-0.125000
G01 X36.734416 Y210.372444 Z-0.125000
G01 X39.244753 Y208.639770 Z-0.125000
G01 X39.762754 Y208.448794 Z-0.125000
G01 X40.294063 Y208.400825 Z-0.125000
G01 X40.918320 Y208.556162 Z-0.125000
G01 X41.643542 Y209.010847 Z-0.125000
G01 X43.577432 Y210.915607 Z-0.125000
G01 X44.265453 Y211.457870 Z-0.125000
G01 X44.863146 Y211.735311 Z-0.125000
G01 X45.394456 Y211.801219 Z-0.125000
G01 X46.031995 Y211.641755 Z-0.125000
G01 X46.682843 Y211.233927 Z-0.125000
G01 X47.445238 Y210.521299 Z-0.125000
G01 X49.676652 Y208.126003 Z-0.125000
G01 X50.494849 Y207.532596 Z-0.125000
G01 X51.344901 Y207.204751 Z-0.125000
G01 X52.194980 Y207.172604 Z-0.125000
G01 X53.257571 Y207.479282 Z-0.125000
G01 X54.213880 Y207.972465 Z-0.125000
G01 X56.724244 Y209.488817 Z-0.125000
G01 X58.145451 Y210.137362 Z-0.125000
G01 X59.526786 Y210.510081 Z-0.125000
G01 X60.801891 Y210.616549 Z-0.125000
G01 X62.183252 Y210.475235 Z-0.125000
G01 X63.564614 Y210.069206 Z-0.125000
G01 X64.906129 Y209.440266 Z-0.125000
G01 X68.160288 Y207.556832 Z-0.125000
G01 X68.983776 Y207.258038 Z-0.125000
G01 X69.833855 Y207.152760 Z-0.125000
G01 X70.670625 Y207.298863 Z-0.125000
G01 X71.569387 Y207.751088 Z-0.125000
G01 X72.511541 Y208.516342 Z-0.125000
G01 X75.040505 Y211.010751 Z-0.125000
G01 X75.890557 Y211.559364 Z-0.125000
G01 X76.634379 Y211.785424 Z-0.125000
G01 X77.378175 Y211.753515 Z-0.125000
G01 X78.108715 Y211.490625 Z-0.125000
G01 X78.924821 Y210.988579 Z-0.125000
G01 X80.743035 Y209.578801 Z-0.125000
G01 X81.548823 Y209.046698 Z-0.125000
G01 X82.478568 Y208.618497 Z-0.125000
G01 X83.328646 Y208.425034 Z-0.125000
G01 X84.178699 Y208.407730 Z-0.125000
G01 X85.028777 Y208.529597 Z-0.125000
G01 X88.429039 Y209.513555 Z-0.125000
G01 X90.129170 Y209.893840 Z-0.125000
G01 X91.723045 Y210.097225 Z-0.125000
G01 X93.423176 Y210.166705 Z-0.125000
G01 X95.229563 Y210.085822 Z-0.125000
G01 X96.929694 Y209.849126 Z-0.125000
G01 X98.417312 Y209.500141 Z-0.125000
G01 X101.498805 Y208.578387 Z-0.125000
G01 X102.880166 Y208.396248 Z-0.125000
G01 X103.836475 Y208.509013 Z-0.125000
G01 X104.792810 Y208.872471 Z-0.125000
G01 X105.701891 Y209.442620 Z-0.125000
G01 X108.139944 Y211.342670 Z-0.125000
G01 X108.936868 Y211.714939 Z-0.125000
G01 X109.574433 Y211.801246 Z-0.125000
G01 X110.185408 Y211.679141 Z-0.125000
G01 X110.908567 Y211.269381 Z-0.125000
G01 X111.689933 Y210.545958 Z-0.125000
G01 X113.448008 Y208.454720 Z-0.125000
G01 X114.049087 Y207.844169 Z-0.125000
G01 X114.834211 Y207.305266 Z-0.125000
G01 X115.524879 Y207.154030 Z-0.125000
G01 X115.949905 Y207.225574 Z-0.125000
G01 X116.321829 Y207.394113 Z-0.125000
G01 X117.139999 Y208.070414 Z-0.125000
G01 X117.871412 Y208.953486 Z-0.125000
G01 X119.606971 Y211.383099 Z-0.125000
G01 X120.578043 Y212.470561 Z-0.125000
G01 X121.435504 Y213.059682 Z-0.125000
G01 X121.900376 Y213.209647 Z-0.125000
G01 X122.325402 Y213.239545 Z-0.125000
G01 X123.175481 Y213.019915 Z-0.125000
G01 X124.131790 Y212.406320 Z-0.125000
G01 X127.627699 Y209.004497 Z-0.125000
G01 X128.512014 Y208.277873 Z-0.125000
G01 X129.431440 Y207.662956 Z-0.125000
G01 X130.454159 Y207.147495 Z-0.125000
G01 X131.463623 Y206.795388 Z-0.125000
G01 X132.632471 Y206.549591 Z-0.125000
G01 X133.801293 Y206.446694 Z-0.125000
G01 X135.501424 Y206.770544 Z-0.125000
G01 X138.450096 Y207.730954 Z-0.125000
G01 X140.495561 Y208.772194 Z-0.125000
G01 X141.890204 Y209.678099 Z-0.125000
G01 X144.297248 Y211.705943 Z-0.125000
G01 X145.423287 Y212.518371 Z-0.125000
G01 X146.446032 Y213.023910 Z-0.125000
G01 X147.402341 Y213.233328 Z-0.125000
G01 X147.933650 Y213.228221 Z-0.125000
G01 X148.571189 Y213.105375 Z-0.125000
G01 X149.235319 Y212.849338 Z-0.125000
G01 X149.886140 Y212.485722 Z-0.125000
G01 X151.074171 Y211.602861 Z-0.125000
G01 X153.884095 Y209.183514 Z-0.125000
G01 X155.557662 Y208.080335 Z-0.125000
G01 X157.178101 Y207.443246 Z-0.125000
G01 X158.028180 Y207.267166 Z-0.125000
G01 X159.090771 Y207.165751 Z-0.125000
G01 X164.722447 Y207.340588 Z-0.125000
G01 X170.035353 Y207.154665 Z-0.125000
G01 X171.310458 Y207.245867 Z-0.125000
G01 X172.373050 Y207.455893 Z-0.125000
G01 X173.687974 Y207.936376 Z-0.125000
G01 X174.989643 Y208.672022 Z-0.125000
G01 X176.198338 Y209.556444 Z-0.125000
G01 X178.677692 Y211.583970 Z-0.125000
G01 X179.824395 Y212.376978 Z-0.125000
G01 X180.979961 Y212.940249 Z-0.125000
G01 X182.042526 Y213.203774 Z-0.125000
G01 X183.105118 Y213.220733 Z-0.125000
G01 X184.380223 Y212.965384 Z-0.125000
G01 X188.843077 Y211.250886 Z-0.125000
G00 Z3.000000

(End cutting path id: polyline7380-6)


(Start cutting path id: polyline7382-0)
(Change tool to Default tool)

G00 Z3.000000
G00 X5.866390 Y208.396830

G00 Z4.875000 (Fast pre-penetrate)
G01 Z-0.125000 F400.0(Penetrate)
G01 X16.385946 Y208.436517 Z-0.125000 F800.000000
G01 X24.461575 Y208.771215 Z-0.125000
G01 X26.161706 Y208.642416 Z-0.125000
G01 X29.349455 Y208.007628 Z-0.125000
G01 X30.518303 Y207.930317 Z-0.125000
G01 X31.262099 Y208.018582 Z-0.125000
G01 X31.992639 Y208.221967 Z-0.125000
G01 X34.556104 Y209.308874 Z-0.125000
G01 X35.512439 Y209.428174 Z-0.125000
G01 X36.149979 Y209.305487 Z-0.125000
G01 X36.734416 Y209.049027 Z-0.125000
G01 X39.244753 Y207.317728 Z-0.125000
G01 X39.762754 Y207.126434 Z-0.125000
G01 X40.294063 Y207.077725 Z-0.125000
G01 X40.918320 Y207.231659 Z-0.125000
G01 X41.643542 Y207.684334 Z-0.125000
G01 X43.577432 Y209.586368 Z-0.125000
G01 X44.213807 Y210.095849 Z-0.125000
G01 X44.863146 Y210.409909 Z-0.125000
G01 X45.394456 Y210.478727 Z-0.125000
G01 X46.031995 Y210.323417 Z-0.125000
G01 X46.682843 Y209.919928 Z-0.125000
G01 X47.370864 Y209.288474 Z-0.125000
G01 X48.939603 Y207.544872 Z-0.125000
G01 X49.751026 Y206.754325 Z-0.125000
G01 X50.587823 Y206.169676 Z-0.125000
G01 X51.451157 Y205.866040 Z-0.125000
G01 X52.301236 Y205.861437 Z-0.125000
G01 X53.363828 Y206.191742 Z-0.125000
G01 X56.724244 Y208.156350 Z-0.125000
G01 X58.251708 Y208.856648 Z-0.125000
G01 X59.526786 Y209.206454 Z-0.125000
G01 X60.908148 Y209.331337 Z-0.125000
G01 X62.289509 Y209.193198 Z-0.125000
G01 X63.670870 Y208.793784 Z-0.125000
G01 X65.092078 Y208.129283 Z-0.125000
G01 X68.253263 Y206.287204 Z-0.125000
G01 X69.196289 Y205.936075 Z-0.125000
G01 X70.046368 Y205.830454 Z-0.125000
G01 X70.896420 Y205.977536 Z-0.125000
G01 X71.786345 Y206.420553 Z-0.125000
G01 X72.809064 Y207.247322 Z-0.125000
G01 X74.668607 Y209.124168 Z-0.125000
G01 X75.371075 Y209.736202 Z-0.125000
G01 X76.156198 Y210.229887 Z-0.125000
G01 X76.953149 Y210.465207 Z-0.125000
G01 X77.590688 Y210.446898 Z-0.125000
G01 X78.387638 Y210.184802 Z-0.125000
G01 X79.224408 Y209.687386 Z-0.125000
G01 X81.827746 Y207.796147 Z-0.125000
G01 X82.797337 Y207.336619 Z-0.125000
G01 X83.753673 Y207.108601 Z-0.125000
G01 X84.603751 Y207.080212 Z-0.125000
G01 X85.560060 Y207.198983 Z-0.125000
G01 X88.960322 Y208.081314 Z-0.125000
G01 X90.554196 Y208.400454 Z-0.125000
G01 X91.935558 Y208.563305 Z-0.125000
G01 X93.423176 Y208.622704 Z-0.125000
G01 X95.017050 Y208.556505 Z-0.125000
G01 X96.504668 Y208.368466 Z-0.125000
G01 X98.098543 Y208.029509 Z-0.125000
G01 X100.967495 Y207.256107 Z-0.125000
G01 X102.455113 Y207.072565 Z-0.125000
G01 X103.411449 Y207.178557 Z-0.125000
G01 X104.420886 Y207.540401 Z-0.125000
G01 X105.443631 Y208.164923 Z-0.125000
G01 X107.861020 Y210.001182 Z-0.125000
G01 X108.618098 Y210.363846 Z-0.125000
G01 X109.361894 Y210.478833 Z-0.125000
G01 X110.092434 Y210.314316 Z-0.125000
G01 X110.817656 Y209.875134 Z-0.125000
G01 X111.622306 Y209.116654 Z-0.125000
G01 X113.272219 Y207.185939 Z-0.125000
G01 X113.966432 Y206.492943 Z-0.125000
G01 X114.741237 Y205.980367 Z-0.125000
G01 X115.418622 Y205.830375 Z-0.125000
G01 X116.135880 Y206.005820 Z-0.125000
G01 X116.842475 Y206.498949 Z-0.125000
G01 X117.685463 Y207.420571 Z-0.125000
G01 X119.483014 Y209.864736 Z-0.125000
G01 X120.277530 Y210.800513 Z-0.125000
G01 X121.156581 Y211.537112 Z-0.125000
G01 X122.006633 Y211.884113 Z-0.125000
G01 X122.431659 Y211.917794 Z-0.125000
G01 X122.962968 Y211.839795 Z-0.125000
G01 X124.038815 Y211.327563 Z-0.125000
G01 X125.040897 Y210.556330 Z-0.125000
G01 X127.850848 Y208.057290 Z-0.125000
G01 X128.780593 Y207.380566 Z-0.125000
G01 X129.710364 Y206.828117 Z-0.125000
G01 X130.826057 Y206.444498 Z-0.125000
G01 X132.419932 Y206.310302 Z-0.125000
G01 X133.588780 Y206.382268 Z-0.125000
G01 X134.757628 Y206.585442 Z-0.125000
G01 X138.157890 Y207.599112 Z-0.125000
G01 X140.588535 Y208.827994 Z-0.125000
G01 X141.983179 Y209.744060 Z-0.125000
G01 X143.388167 Y210.797788 Z-0.125000
G01 X144.307593 Y211.356243 Z-0.125000
G01 X145.383440 Y211.789551 Z-0.125000
G01 X146.339776 Y211.919250 Z-0.125000
G01 X147.402341 Y211.751134 Z-0.125000
G01 X148.584471 Y211.195377 Z-0.125000
G01 X149.669209 Y210.416233 Z-0.125000
G01 X152.231192 Y208.183682 Z-0.125000
G01 X153.419223 Y207.272616 Z-0.125000
G01 X154.720892 Y206.520433 Z-0.125000
G01 X156.009279 Y206.062387 Z-0.125000
G01 X157.071844 Y205.877867 Z-0.125000
G01 X158.346949 Y205.832068 Z-0.125000
G01 X162.491033 Y206.150732 Z-0.125000
G01 X164.403677 Y206.196557 Z-0.125000
G01 X170.035353 Y205.829184 Z-0.125000
G01 X171.097945 Y205.888159 Z-0.125000
G01 X172.054254 Y206.059080 Z-0.125000
G01 X172.904332 Y206.328240 Z-0.125000
G01 X173.780949 Y206.733978 Z-0.125000
G01 X175.371886 Y207.791755 Z-0.125000
G01 X178.099181 Y210.110296 Z-0.125000
G01 X179.090918 Y210.864251 Z-0.125000
G01 X180.196293 Y211.498536 Z-0.125000
G01 X181.298731 Y211.851305 Z-0.125000
G01 X182.467579 Y211.898850 Z-0.125000
G01 X183.742657 Y211.615270 Z-0.125000
G01 X184.845095 Y211.169739 Z-0.125000
G01 X187.634382 Y209.812984 Z-0.125000
G01 X188.843077 Y209.330305 Z-0.125000
G00 Z3.000000

(End cutting path id: polyline7382-0)


(Start cutting path id: polyline7384-4)
(Change tool to Default tool)

G00 Z3.000000
G00 X5.866390 Y207.069972

G00 Z4.875000 (Fast pre-penetrate)
G01 Z-0.125000 F400.0(Penetrate)
G01 X16.279689 Y207.113364 Z-0.125000 F800.000000
G01 X24.355318 Y207.449040 Z-0.125000
G01 X26.161706 Y207.311854 Z-0.125000
G01 X29.243198 Y206.696434 Z-0.125000
G01 X30.412046 Y206.604571 Z-0.125000
G01 X31.687151 Y206.808406 Z-0.125000
G01 X34.343591 Y207.921877 Z-0.125000
G01 X34.874874 Y208.063534 Z-0.125000
G01 X35.512439 Y208.104809 Z-0.125000
G01 X36.149979 Y207.980852 Z-0.125000
G01 X36.734416 Y207.724418 Z-0.125000
G01 X39.244753 Y205.997909 Z-0.125000
G01 X39.762754 Y205.805504 Z-0.125000
G01 X40.294063 Y205.754201 Z-0.125000
G01 X40.918320 Y205.903347 Z-0.125000
G01 X41.651797 Y206.355572 Z-0.125000
G01 X43.577432 Y208.241467 Z-0.125000
G01 X44.213807 Y208.755128 Z-0.125000
G01 X44.863146 Y209.077999 Z-0.125000
G01 X45.394456 Y209.156844 Z-0.125000
G01 X46.031995 Y209.015795 Z-0.125000
G01 X46.682843 Y208.627440 Z-0.125000
G01 X47.519613 Y207.858694 Z-0.125000
G01 X49.751026 Y205.483586 Z-0.125000
G01 X50.587823 Y204.883750 Z-0.125000
G01 X51.451157 Y204.557386 Z-0.125000
G01 X52.407493 Y204.542014 Z-0.125000
G01 X53.470084 Y204.870626 Z-0.125000
G01 X56.817218 Y206.791922 Z-0.125000
G01 X58.357964 Y207.484442 Z-0.125000
G01 X59.739299 Y207.844592 Z-0.125000
G01 X61.014404 Y207.945874 Z-0.125000
G01 X62.395765 Y207.805698 Z-0.125000
G01 X63.777127 Y207.408242 Z-0.125000
G01 X65.185052 Y206.758796 Z-0.125000
G01 X68.346237 Y204.955531 Z-0.125000
G01 X69.302546 Y204.608372 Z-0.125000
G01 X70.152625 Y204.507565 Z-0.125000
G01 X71.108933 Y204.690339 Z-0.125000
G01 X71.972294 Y205.140527 Z-0.125000
G01 X72.883465 Y205.869665 Z-0.125000
G01 X74.817355 Y207.795671 Z-0.125000
G01 X75.536360 Y208.414689 Z-0.125000
G01 X76.342174 Y208.912661 Z-0.125000
G01 X77.165662 Y209.145626 Z-0.125000
G01 X77.909457 Y209.100171 Z-0.125000
G01 X78.666562 Y208.827730 Z-0.125000
G01 X79.503332 Y208.326821 Z-0.125000
G01 X81.321546 Y206.976733 Z-0.125000
G01 X82.199644 Y206.419363 Z-0.125000
G01 X83.129415 Y206.003147 Z-0.125000
G01 X84.072442 Y205.786665 Z-0.125000
G01 X84.922521 Y205.754519 Z-0.125000
G01 X85.878830 Y205.860987 Z-0.125000
G01 X89.279092 Y206.669896 Z-0.125000
G01 X90.872966 Y206.963398 Z-0.125000
G01 X93.529432 Y207.149585 Z-0.125000
G01 X95.017050 Y207.086853 Z-0.125000
G01 X96.398412 Y206.919530 Z-0.125000
G01 X100.754982 Y205.916602 Z-0.125000
G01 X102.242600 Y205.750021 Z-0.125000
G01 X103.305192 Y205.872999 Z-0.125000
G01 X104.234937 Y206.200182 Z-0.125000
G01 X105.257682 Y206.796764 Z-0.125000
G01 X107.861020 Y208.713244 Z-0.125000
G01 X108.618098 Y209.054107 Z-0.125000
G01 X109.361894 Y209.155072 Z-0.125000
G01 X110.185408 Y208.946898 Z-0.125000
G01 X110.991196 Y208.419425 Z-0.125000
G01 X111.757534 Y207.676502 Z-0.125000
G01 X113.495342 Y205.691971 Z-0.125000
G01 X114.297002 Y204.972120 Z-0.125000
G01 X115.020160 Y204.589348 Z-0.125000
G01 X115.631135 Y204.510767 Z-0.125000
G01 X116.414803 Y204.755533 Z-0.125000
G01 X117.288774 Y205.447444 Z-0.125000
G01 X118.113717 Y206.398408 Z-0.125000
G01 X119.939419 Y208.781057 Z-0.125000
G01 X120.933431 Y209.807110 Z-0.125000
G01 X121.807402 Y210.374588 Z-0.125000
G01 X122.750455 Y210.595991 Z-0.125000
G01 X123.600507 Y210.471399 Z-0.125000
G01 X124.596689 Y210.015575 Z-0.125000
G01 X128.129771 Y207.442876 Z-0.125000
G01 X129.059516 Y206.906513 Z-0.125000
G01 X129.657236 Y206.694317 Z-0.125000
G01 X130.719801 Y206.462701 Z-0.125000
G01 X132.419932 Y206.310302 Z-0.125000
G01 X133.482524 Y206.369965 Z-0.125000
G01 X134.545115 Y206.539880 Z-0.125000
G01 X137.414068 Y207.348234 Z-0.125000
G01 X138.357121 Y207.685366 Z-0.125000
G01 X140.309612 Y208.670832 Z-0.125000
G01 X141.890204 Y209.662462 Z-0.125000
G01 X143.045770 Y210.236290 Z-0.125000
G01 X144.320875 Y210.571490 Z-0.125000
G01 X145.489697 Y210.523865 Z-0.125000
G01 X146.539007 Y210.171811 Z-0.125000
G01 X147.603054 Y209.543321 Z-0.125000
G01 X148.677446 Y208.704037 Z-0.125000
G01 X151.239456 Y206.479053 Z-0.125000
G01 X152.675427 Y205.479326 Z-0.125000
G01 X154.202891 Y204.802681 Z-0.125000
G01 X155.052944 Y204.604059 Z-0.125000
G01 X155.903022 Y204.515979 Z-0.125000
G01 X157.390640 Y204.560852 Z-0.125000
G01 X161.109672 Y205.051257 Z-0.125000
G01 X163.128572 Y205.176114 Z-0.125000
G01 X165.253730 Y205.080943 Z-0.125000
G01 X169.716583 Y204.522673 Z-0.125000
G01 X170.885432 Y204.529076 Z-0.125000
G01 X171.947997 Y204.697483 Z-0.125000
G01 X173.223102 Y205.161191 Z-0.125000
G01 X174.462779 Y205.909114 Z-0.125000
G01 X175.619827 Y206.832721 Z-0.125000
G01 X178.016526 Y208.986056 Z-0.125000
