%
(Header)
(Generated by gcodetools from Inkscape.)
(Using default header. To add your own header create file "header" in the output dir.)
M3
(Header end.)
G21 (All units in mm)

(Start cutting path id: polyline2880)
(Change tool to Default tool)

G00 Z5.000000
G00 X14.134056 Y36.917414

G00 Z4.875000 (Fast pre-penetrate)
G01 Z-0.125000 F400.0(Penetrate)
G01 X14.240528 Y77.555364 Z-0.125000 F800.000000
G01 X14.179498 Y80.422064 Z-0.125000
G01 X14.014392 Y82.508704 Z-0.125000
G01 X13.514290 Y85.126554 Z-0.125000
G01 X12.691117 Y87.319674 Z-0.125000
G01 X11.431226 Y89.455404 Z-0.125000
G01 X7.991400 Y93.989974 Z-0.125000
G01 X7.395556 Y95.253454 Z-0.125000
G01 X7.213707 Y96.571944 Z-0.125000
G01 X7.296263 Y97.157034 Z-0.125000
G01 X7.572623 Y97.959874 Z-0.125000
G01 X8.528613 Y99.425524 Z-0.125000
G01 X10.033772 Y100.961774 Z-0.125000
G01 X14.131664 Y104.369324 Z-0.125000
G01 X15.521945 Y105.699804 Z-0.125000
G01 X16.414515 Y106.965634 Z-0.125000
G01 X16.613143 Y107.566274 Z-0.125000
G01 X16.623913 Y108.142984 Z-0.125000
G01 X16.437246 Y108.693344 Z-0.125000
G01 X16.054379 Y109.218584 Z-0.125000
G01 X15.482488 Y109.718724 Z-0.125000
G01 X14.451120 Y110.351644 Z-0.125000
G01 X12.457820 Y111.241824 Z-0.125000
G01 X7.938755 Y112.953954 Z-0.125000
G01 X5.821010 Y114.020004 Z-0.125000
G01 X5.177328 Y114.511764 Z-0.125000
G01 X4.728651 Y115.027454 Z-0.125000
G01 X4.490559 Y115.571824 Z-0.125000
G01 X4.452259 Y115.949914 Z-0.125000
G01 X4.576704 Y116.540934 Z-0.125000
G01 X4.911700 Y117.159534 Z-0.125000
G01 X5.445321 Y117.803224 Z-0.125000
G01 X6.427621 Y118.698184 Z-0.125000
G01 X8.716453 Y120.337314 Z-0.125000
G01 X14.757417 Y124.188754 Z-0.125000
G01 X17.445895 Y126.262244 Z-0.125000
G01 X18.505927 Y127.358194 Z-0.125000
G01 X19.113767 Y128.204084 Z-0.125000
G01 X19.580383 Y129.222304 Z-0.125000
G01 X19.739510 Y130.009564 Z-0.125000
G01 X19.676100 Y131.150984 Z-0.125000
G01 X19.331503 Y132.256534 Z-0.125000
G01 X17.162333 Y136.190484 Z-0.125000
G01 X16.437260 Y137.820094 Z-0.125000
G01 X16.087912 Y139.115854 Z-0.125000
G01 X15.961074 Y140.441524 Z-0.125000
G01 X16.099869 Y141.992164 Z-0.125000
G01 X16.599971 Y143.782044 Z-0.125000
G01 X17.296342 Y145.405674 Z-0.125000
G01 X19.047963 Y148.890974 Z-0.125000
G01 X19.570823 Y150.300394 Z-0.125000
G01 X19.753868 Y151.665564 Z-0.125000
G01 X19.688058 Y152.231504 Z-0.125000
G01 X19.435616 Y152.964924 Z-0.125000
G01 X18.977372 Y153.672064 Z-0.125000
G01 X18.295386 Y154.350454 Z-0.125000
G01 X17.387268 Y154.998914 Z-0.125000
G01 X16.260192 Y155.618684 Z-0.125000
G01 X13.839741 Y156.645264 Z-0.125000
G01 X8.315655 Y158.609864 Z-0.125000
G01 X6.039979 Y159.655574 Z-0.125000
G01 X5.323312 Y160.137744 Z-0.125000
G01 X4.807629 Y160.645054 Z-0.125000
G01 X4.586279 Y160.999184 Z-0.125000
G01 X4.452267 Y161.556764 Z-0.125000
G01 X4.498942 Y161.946804 Z-0.125000
G01 X4.774142 Y162.557004 Z-0.125000
G01 X5.287399 Y163.198284 Z-0.125000
G01 X6.023236 Y163.869514 Z-0.125000
G01 X8.036903 Y165.280154 Z-0.125000
G01 X12.963912 Y168.221034 Z-0.125000
G01 X14.725137 Y169.407944 Z-0.125000
G01 X16.160896 Y170.744404 Z-0.125000
G01 X16.529378 Y171.366574 Z-0.125000
G01 X16.633497 Y171.763784 Z-0.125000
G01 X16.503069 Y172.512784 Z-0.125000
G01 X15.749294 Y173.373024 Z-0.125000
G01 X14.160387 Y174.317054 Z-0.125000
G01 X10.466923 Y175.944224 Z-0.125000
G01 X8.735631 Y176.869084 Z-0.125000
G01 X7.600185 Y177.871744 Z-0.125000
G01 X7.222101 Y178.779874 Z-0.125000
G01 X7.364486 Y179.757344 Z-0.125000
G01 X7.963918 Y180.793494 Z-0.125000
G01 X8.905521 Y181.873904 Z-0.125000
G01 X11.683727 Y184.533644 Z-0.125000
G01 X12.890964 Y185.841404 Z-0.125000
G01 X13.851700 Y187.307064 Z-0.125000
G01 X14.214237 Y188.503544 Z-0.125000
G01 X14.162777 Y189.647344 Z-0.125000
G01 X13.674634 Y190.925184 Z-0.125000
G01 X13.005804 Y191.987644 Z-0.125000
G01 X10.939517 Y194.784974 Z-0.125000
G01 X10.030203 Y196.391834 Z-0.125000
G01 X9.513324 Y197.857487 Z-0.125000
G01 X9.266861 Y199.550471 Z-0.125000
G01 X9.285991 Y200.894114 Z-0.125000
G01 X9.475015 Y202.451937 Z-0.125000
G01 X11.157275 Y210.143992 Z-0.125000
G01 X11.851219 Y214.832949 Z-0.125000
G01 X12.234086 Y220.631001 Z-0.125000
G01 X12.333376 Y228.117291 Z-0.125000
G00 Z5.000000

(End cutting path id: polyline2880)


(Start cutting path id: polyline2878)
(Change tool to Default tool)

G00 Z5.000000
G00 X15.055329 Y36.929364

G00 Z4.875000 (Fast pre-penetrate)
G01 Z-0.125000 F400.0(Penetrate)
G01 X15.038589 Y52.831594 Z-0.125000 F800.000000
G01 X14.845942 Y71.010664 Z-0.125000
G01 X15.073270 Y81.197394 Z-0.125000
G01 X14.926104 Y84.052134 Z-0.125000
G01 X14.435570 Y86.479764 Z-0.125000
G01 X13.614788 Y88.480274 Z-0.125000
G01 X12.366891 Y90.426894 Z-0.125000
G01 X8.836106 Y94.758094 Z-0.125000
G01 X8.216343 Y96.019184 Z-0.125000
G01 X8.042866 Y97.146264 Z-0.125000
G01 X8.109868 Y97.730154 Z-0.125000
G01 X8.377858 Y98.530564 Z-0.125000
G01 X9.347002 Y99.998604 Z-0.125000
G01 X10.894018 Y101.540874 Z-0.125000
G01 X14.813648 Y104.733044 Z-0.125000
G01 X16.263760 Y106.071874 Z-0.125000
G01 X17.212539 Y107.344914 Z-0.125000
G01 X17.433887 Y107.947934 Z-0.125000
G01 X17.462627 Y108.527034 Z-0.125000
G01 X17.289115 Y109.078604 Z-0.125000
G01 X16.914654 Y109.605044 Z-0.125000
G01 X16.343924 Y110.106374 Z-0.125000
G01 X15.307773 Y110.738094 Z-0.125000
G01 X13.294141 Y111.625884 Z-0.125000
G01 X8.733220 Y113.332034 Z-0.125000
G01 X6.865525 Y114.238954 Z-0.125000
G01 X6.165601 Y114.723544 Z-0.125000
G01 X5.659485 Y115.232014 Z-0.125000
G01 X5.363954 Y115.769234 Z-0.125000
G01 X5.288577 Y116.142524 Z-0.125000
G01 X5.359168 Y116.726414 Z-0.125000
G01 X5.787515 Y117.548384 Z-0.125000
G01 X6.341468 Y118.195664 Z-0.125000
G01 X7.352504 Y119.093004 Z-0.125000
G01 X9.315873 Y120.497684 Z-0.125000
G01 X15.733725 Y124.590784 Z-0.125000
G01 X18.385093 Y126.659464 Z-0.125000
G01 X19.236968 Y127.536454 Z-0.125000
G01 X20.000310 Y128.594134 Z-0.125000
G01 X20.376003 Y129.410134 Z-0.125000
G01 X20.579412 Y130.393624 Z-0.125000
G01 X20.490872 Y131.532664 Z-0.125000
G01 X20.130727 Y132.634614 Z-0.125000
G01 X18.059657 Y136.390304 Z-0.125000
G01 X17.327407 Y138.019874 Z-0.125000
G01 X16.968459 Y139.314474 Z-0.125000
G01 X16.828467 Y140.637754 Z-0.125000
G01 X16.952913 Y142.187164 Z-0.125000
G01 X17.435076 Y143.973504 Z-0.125000
G01 X18.117062 Y145.595904 Z-0.125000
G01 X19.853137 Y149.078804 Z-0.125000
G01 X20.384367 Y150.489454 Z-0.125000
G01 X20.587776 Y151.857014 Z-0.125000
G01 X20.494466 Y152.611984 Z-0.125000
G01 X20.303016 Y153.161154 Z-0.125000
G01 X19.869886 Y153.871844 Z-0.125000
G01 X19.402073 Y154.386324 Z-0.125000
G01 X17.820341 Y155.521784 Z-0.125000
G01 X15.245582 Y156.719444 Z-0.125000
G01 X9.759769 Y158.690014 Z-0.125000
G01 X7.650393 Y159.564624 Z-0.125000
G01 X6.535312 Y160.186804 Z-0.125000
G01 X5.905947 Y160.679734 Z-0.125000
G01 X5.487203 Y161.200204 Z-0.125000
G01 X5.295751 Y161.750574 Z-0.125000
G01 X5.300541 Y162.133444 Z-0.125000
G01 X5.511127 Y162.736464 Z-0.125000
G01 X5.961000 Y163.369404 Z-0.125000
G01 X6.634614 Y164.032234 Z-0.125000
G01 X8.544167 Y165.429714 Z-0.125000
G01 X13.808633 Y168.605144 Z-0.125000
G01 X15.554276 Y169.790814 Z-0.125000
G01 X16.982826 Y171.126084 Z-0.125000
G01 X17.353734 Y171.749434 Z-0.125000
G01 X17.462638 Y172.146654 Z-0.125000
G01 X17.460238 Y172.529524 Z-0.125000
G01 X17.252043 Y173.077484 Z-0.125000
G01 X16.410932 Y173.925824 Z-0.125000
G01 X15.078055 Y174.710684 Z-0.125000
G01 X11.114174 Y176.494594 Z-0.125000
G01 X9.689177 Y177.268724 Z-0.125000
G01 X8.510677 Y178.264184 Z-0.125000
G01 X8.185214 Y178.797814 Z-0.125000
G01 X8.047650 Y179.354154 Z-0.125000
G01 X8.217540 Y180.334054 Z-0.125000
G01 X8.990449 Y181.584384 Z-0.125000
G01 X9.972749 Y182.670764 Z-0.125000
G01 X12.917255 Y185.544674 Z-0.125000
G01 X14.160370 Y187.047444 Z-0.125000
G01 X14.822024 Y188.283374 Z-0.125000
G01 X15.057724 Y189.271654 Z-0.125000
G01 X14.982344 Y190.411884 Z-0.125000
G01 X14.490614 Y191.689724 Z-0.125000
G01 X11.821271 Y195.557894 Z-0.125000
G01 X10.838971 Y197.346597 Z-0.125000
G01 X10.343654 Y198.815867 Z-0.125000
G01 X10.101975 Y200.508866 Z-0.125000
G01 X10.124695 Y202.045112 Z-0.125000
G01 X10.344848 Y203.797932 Z-0.125000
G01 X11.932569 Y211.285419 Z-0.125000
G01 X12.603792 Y215.780522 Z-0.125000
G01 X13.001010 Y221.005494 Z-0.125000
G01 X13.167312 Y228.118487 Z-0.125000
G00 Z5.000000

(End cutting path id: polyline2878)


(Start cutting path id: polyline2876)
(Change tool to Default tool)

G00 Z5.000000
G00 X15.531511 Y36.882724

G00 Z4.875000 (Fast pre-penetrate)
G01 Z-0.125000 F400.0(Penetrate)
G01 X15.541111 Y51.064434 Z-0.125000 F800.000000
G01 X15.243225 Y69.804664 Z-0.125000
G01 X15.384377 Y74.997304 Z-0.125000
G01 X15.889296 Y82.536214 Z-0.125000
G01 X15.811526 Y85.400564 Z-0.125000
G01 X15.353282 Y87.640354 Z-0.125000
G01 X14.569609 Y89.454214 Z-0.125000
G01 X13.241515 Y91.390064 Z-0.125000
G01 X10.462150 Y94.478154 Z-0.125000
G01 X9.654523 Y95.522634 Z-0.125000
G01 X9.023997 Y96.782524 Z-0.125000
G01 X8.880417 Y97.913194 Z-0.125000
G01 X9.195082 Y99.103694 Z-0.125000
G01 X10.185753 Y100.574134 Z-0.125000
G01 X11.781837 Y102.122344 Z-0.125000
G01 X15.784019 Y105.325304 Z-0.125000
G01 X17.012783 Y106.443974 Z-0.125000
G01 X18.011825 Y107.722994 Z-0.125000
G01 X18.254701 Y108.329604 Z-0.125000
G01 X18.298981 Y108.911094 Z-0.125000
G01 X18.137463 Y109.463864 Z-0.125000
G01 X17.767750 Y109.991504 Z-0.125000
G01 X16.443244 Y110.969014 Z-0.125000
G01 X14.490640 Y111.865184 Z-0.125000
G01 X9.522899 Y113.710114 Z-0.125000
G01 X7.654008 Y114.617034 Z-0.125000
G01 X6.961259 Y115.101594 Z-0.125000
G01 X6.464746 Y115.612494 Z-0.125000
G01 X6.182370 Y116.149704 Z-0.125000
G01 X6.117761 Y116.525394 Z-0.125000
G01 X6.285259 Y117.313874 Z-0.125000
G01 X6.662147 Y117.937234 Z-0.125000
G01 X7.236464 Y118.586894 Z-0.125000
G01 X8.272616 Y119.487844 Z-0.125000
G01 X10.267112 Y120.897294 Z-0.125000
G01 X16.692140 Y124.989194 Z-0.125000
G01 X19.305204 Y127.054294 Z-0.125000
G01 X20.312617 Y128.143064 Z-0.125000
G01 X20.876173 Y128.982984 Z-0.125000
G01 X21.232694 Y129.795394 Z-0.125000
G01 X21.415775 Y130.777694 Z-0.125000
G01 X21.310459 Y131.914334 Z-0.125000
G01 X20.940782 Y133.015094 Z-0.125000
G01 X18.989337 Y136.594914 Z-0.125000
G01 X18.257089 Y138.224484 Z-0.125000
G01 X17.892161 Y139.517864 Z-0.125000
G01 X17.743797 Y140.839964 Z-0.125000
G01 X17.853898 Y142.386984 Z-0.125000
G01 X18.318122 Y144.172134 Z-0.125000
G01 X18.982169 Y145.790934 Z-0.125000
G01 X20.775648 Y149.473644 Z-0.125000
G01 X21.266217 Y150.879504 Z-0.125000
G01 X21.414579 Y152.239884 Z-0.125000
G01 X21.285348 Y152.990064 Z-0.125000
G01 X21.067586 Y153.535654 Z-0.125000
G01 X20.596186 Y154.241554 Z-0.125000
G01 X19.907025 Y154.918754 Z-0.125000
G01 X18.997711 Y155.566064 Z-0.125000
G01 X17.876616 Y156.187014 Z-0.125000
G01 X15.478922 Y157.217154 Z-0.125000
G01 X10.020647 Y159.190124 Z-0.125000
G01 X7.759321 Y160.237034 Z-0.125000
G01 X7.039032 Y160.719234 Z-0.125000
G01 X6.511388 Y161.225314 Z-0.125000
G01 X6.200312 Y161.758934 Z-0.125000
G01 X6.120149 Y162.132244 Z-0.125000
G01 X6.199116 Y162.717314 Z-0.125000
G01 X6.384588 Y163.125294 Z-0.125000
G01 X6.855988 Y163.760644 Z-0.125000
G01 X7.546344 Y164.425854 Z-0.125000
G01 X9.471443 Y165.825744 Z-0.125000
G01 X14.697607 Y168.996374 Z-0.125000
G01 X16.416939 Y170.177274 Z-0.125000
G01 X17.821570 Y171.510144 Z-0.125000
G01 X18.186499 Y172.132304 Z-0.125000
G01 X18.294207 Y172.529524 Z-0.125000
G01 X18.293007 Y172.912384 Z-0.125000
G01 X18.091988 Y173.461594 Z-0.125000
G01 X17.271207 Y174.313464 Z-0.125000
G01 X15.965871 Y175.101914 Z-0.125000
G01 X12.052219 Y176.891844 Z-0.125000
G01 X10.379563 Y177.823874 Z-0.125000
G01 X9.276441 Y178.831294 Z-0.125000
G01 X8.985694 Y179.367314 Z-0.125000
G01 X8.875633 Y179.928464 Z-0.125000
G01 X9.077812 Y180.913154 Z-0.125000
G01 X9.861520 Y182.164644 Z-0.125000
G01 X13.727300 Y186.116564 Z-0.125000
G01 X14.807699 Y187.406354 Z-0.125000
G01 X15.541109 Y188.651904 Z-0.125000
G01 X15.878531 Y189.845944 Z-0.125000
G01 X15.839031 Y190.989794 Z-0.125000
G01 X15.396369 Y192.273574 Z-0.125000
G01 X14.664121 Y193.520304 Z-0.125000
G01 X12.588266 Y196.507874 Z-0.125000
G01 X11.649019 Y198.301387 Z-0.125000
G01 X11.175240 Y199.773027 Z-0.125000
G01 X10.937148 Y201.467247 Z-0.125000
G01 X10.950309 Y203.002297 Z-0.125000
G01 X11.151328 Y204.752724 Z-0.125000
G01 X12.718675 Y212.429239 Z-0.125000
G01 X13.391093 Y216.924341 Z-0.125000
G01 X13.790703 Y221.766446 Z-0.125000
G01 X14.000093 Y228.118487 Z-0.125000
G00 Z5.000000

(End cutting path id: polyline2876)


(Start cutting path id: polyline2874)
(Change tool to Default tool)

G00 Z5.000000
G00 X15.531511 Y36.775024

G00 Z4.875000 (Fast pre-penetrate)
G01 Z-0.125000 F400.0(Penetrate)
G01 X15.576991 Y58.817524 Z-0.125000 F800.000000
G01 X15.481291 Y70.493814 Z-0.125000
G01 X15.779213 Y75.898244 Z-0.125000
G01 X16.668162 Y83.678834 Z-0.125000
G01 X16.684942 Y86.555134 Z-0.125000
G01 X16.281710 Y88.610664 Z-0.125000
G01 X15.470495 Y90.422124 Z-0.125000
G01 X14.201072 Y92.172554 Z-0.125000
G01 X10.568600 Y96.107724 Z-0.125000
G01 X9.880636 Y97.360434 Z-0.125000
G01 X9.710746 Y98.487514 Z-0.125000
G01 X10.025411 Y99.677974 Z-0.125000
G01 X10.860543 Y100.936664 Z-0.125000
G01 X12.432673 Y102.482484 Z-0.125000
G01 X16.500667 Y105.693814 Z-0.125000
G01 X17.771321 Y106.817274 Z-0.125000
G01 X18.815844 Y108.103474 Z-0.125000
G01 X19.076657 Y108.711274 Z-0.125000
G01 X19.134097 Y109.293964 Z-0.125000
G01 X18.980949 Y109.849114 Z-0.125000
G01 X18.614825 Y110.376764 Z-0.125000
G01 X17.283144 Y111.353084 Z-0.125000
G01 X15.311370 Y112.246854 Z-0.125000
G01 X10.306554 Y114.087004 Z-0.125000
G01 X8.440091 Y114.993924 Z-0.125000
G01 X7.754517 Y115.479674 Z-0.125000
G01 X7.269928 Y115.991774 Z-0.125000
G01 X7.066553 Y116.348334 Z-0.125000
G01 X6.949286 Y116.908264 Z-0.125000
G01 X7.056981 Y117.496924 Z-0.125000
G01 X7.383606 Y118.114304 Z-0.125000
G01 X7.913641 Y118.758014 Z-0.125000
G01 X8.900724 Y119.652944 Z-0.125000
G01 X10.848579 Y121.056424 Z-0.125000
G01 X17.290316 Y125.150724 Z-0.125000
G01 X19.972813 Y127.224174 Z-0.125000
G01 X20.840235 Y128.103594 Z-0.125000
G01 X21.622742 Y129.163664 Z-0.125000
G01 X22.013986 Y129.980864 Z-0.125000
G01 X22.237725 Y130.967944 Z-0.125000
G01 X22.174315 Y132.109364 Z-0.125000
G01 X21.839292 Y133.216084 Z-0.125000
G01 X19.857951 Y136.982564 Z-0.125000
G01 X19.160419 Y138.615714 Z-0.125000
G01 X18.821836 Y139.913874 Z-0.125000
G01 X18.699783 Y141.239584 Z-0.125000
G01 X18.834992 Y142.790174 Z-0.125000
G01 X19.317155 Y144.577724 Z-0.125000
G01 X21.546191 Y149.466464 Z-0.125000
G01 X22.055852 Y150.873514 Z-0.125000
G01 X22.246116 Y152.431304 Z-0.125000
G01 X22.115702 Y153.181484 Z-0.125000
G01 X21.899128 Y153.727074 Z-0.125000
G01 X21.433719 Y154.434194 Z-0.125000
G01 X20.755321 Y155.111404 Z-0.125000
G01 X19.860357 Y155.762254 Z-0.125000
G01 X18.754844 Y156.384414 Z-0.125000
G01 X16.390635 Y157.419374 Z-0.125000
G01 X10.611680 Y159.541904 Z-0.125000
G01 X8.696148 Y160.442834 Z-0.125000
G01 X7.407555 Y161.425134 Z-0.125000
G01 X7.065384 Y161.955174 Z-0.125000
G01 X6.962461 Y162.324894 Z-0.125000
G01 X7.001958 Y162.905144 Z-0.125000
G01 X7.277158 Y163.515344 Z-0.125000
G01 X7.779651 Y164.156674 Z-0.125000
G01 X8.493961 Y164.824304 Z-0.125000
G01 X10.444174 Y166.227744 Z-0.125000
G01 X15.248006 Y169.150714 Z-0.125000
G01 X17.007997 Y170.337594 Z-0.125000
G01 X18.508373 Y171.682424 Z-0.125000
G01 X18.936684 Y172.312964 Z-0.125000
G01 X19.129332 Y172.913584 Z-0.125000
G01 X19.123332 Y173.296454 Z-0.125000
G01 X18.921118 Y173.844464 Z-0.125000
G01 X18.108708 Y174.697524 Z-0.125000
G01 X16.823701 Y175.488374 Z-0.125000
G01 X12.961510 Y177.285474 Z-0.125000
G01 X11.291246 Y178.217514 Z-0.125000
G01 X10.164206 Y179.221334 Z-0.125000
G01 X9.850700 Y179.754954 Z-0.125000
G01 X9.714333 Y180.312534 Z-0.125000
G01 X9.861499 Y181.290044 Z-0.125000
G01 X10.576970 Y182.533154 Z-0.125000
G01 X11.499439 Y183.611174 Z-0.125000
G01 X14.546829 Y186.689684 Z-0.125000
G01 X15.758849 Y188.188874 Z-0.125000
G01 X16.430071 Y189.426004 Z-0.125000
G01 X16.722014 Y190.612904 Z-0.125000
G01 X16.614345 Y191.940964 Z-0.125000
G01 X16.120188 Y193.217594 Z-0.125000
G01 X13.467625 Y197.280777 Z-0.125000
G01 X12.535589 Y199.075488 Z-0.125000
G01 X12.006750 Y200.731408 Z-0.125000
G01 X11.772246 Y202.425588 Z-0.125000
G01 X11.788986 Y204.152099 Z-0.125000
G01 X12.018707 Y206.098760 Z-0.125000
G01 X13.550176 Y213.770488 Z-0.125000
G01 X14.169938 Y217.875557 Z-0.125000
G01 X14.591109 Y222.529790 Z-0.125000
G01 X14.830398 Y228.117291 Z-0.125000
G00 Z5.000000

(End cutting path id: polyline2874)


(Start cutting path id: polyline2872)
(Change tool to Default tool)

G00 Z5.000000
G00 X15.531511 Y36.666154

G00 Z4.875000 (Fast pre-penetrate)
G01 Z-0.125000 F400.0(Penetrate)
G01 X15.621241 Y70.786964 Z-0.125000 F800.000000
G01 X15.824650 Y74.071244 Z-0.125000
G01 X16.122573 Y76.793214 Z-0.125000
G01 X17.457843 Y85.015304 Z-0.125000
G01 X17.535613 Y87.707334 Z-0.125000
G01 X17.171880 Y89.576224 Z-0.125000
G01 X16.428867 Y91.204624 Z-0.125000
G01 X15.112769 Y92.950274 Z-0.125000
G01 X12.217330 Y95.831364 Z-0.125000
G01 X11.330738 Y96.865084 Z-0.125000
G01 X10.728913 Y97.937114 Z-0.125000
G01 X10.542281 Y99.062984 Z-0.125000
G01 X10.868905 Y100.254674 Z-0.125000
G01 X11.741112 Y101.518114 Z-0.125000
G01 X13.374303 Y103.071154 Z-0.125000
G01 X17.235299 Y106.064694 Z-0.125000
G01 X18.765571 Y107.413124 Z-0.125000
G01 X19.739500 Y108.689754 Z-0.125000
G01 X19.968023 Y109.678034 Z-0.125000
G01 X19.819660 Y110.233174 Z-0.125000
G01 X19.453536 Y110.760814 Z-0.125000
G01 X18.111092 Y111.735954 Z-0.125000
G01 X16.118987 Y112.626134 Z-0.125000
G01 X11.081884 Y114.462694 Z-0.125000
G01 X9.221363 Y115.370804 Z-0.125000
G01 X8.545357 Y115.857754 Z-0.125000
G01 X8.073958 Y116.371054 Z-0.125000
G01 X7.822711 Y116.913034 Z-0.125000
G01 X7.782018 Y117.291134 Z-0.125000
G01 X7.908857 Y117.883384 Z-0.125000
G01 X8.254616 Y118.503154 Z-0.125000
G01 X9.534838 Y119.819274 Z-0.125000
G01 X11.427647 Y121.214344 Z-0.125000
G01 X17.516448 Y125.071754 Z-0.125000
G01 X19.807706 Y126.710894 Z-0.125000
G01 X21.717254 Y128.492444 Z-0.125000
G01 X22.353760 Y129.341934 Z-0.125000
G01 X22.783304 Y130.163904 Z-0.125000
G01 X23.082433 Y131.544624 Z-0.125000
G01 X22.918517 Y132.864334 Z-0.125000
G01 X22.439905 Y134.143334 Z-0.125000
G01 X20.935977 Y137.014854 Z-0.125000
G01 X20.291066 Y138.463764 Z-0.125000
G01 X19.860327 Y139.940224 Z-0.125000
G01 X19.698808 Y141.643984 Z-0.125000
G01 X19.823254 Y143.001964 Z-0.125000
G01 X20.157054 Y144.386264 Z-0.125000
G01 X20.752898 Y145.996744 Z-0.125000
G01 X22.664840 Y150.269304 Z-0.125000
G01 X22.998680 Y151.463384 Z-0.125000
G01 X23.074060 Y152.622744 Z-0.125000
G01 X22.871844 Y153.554784 Z-0.125000
G01 X22.378914 Y154.448554 Z-0.125000
G01 X21.754333 Y155.134124 Z-0.125000
G01 X20.673935 Y155.951324 Z-0.125000
G01 X17.953169 Y157.322464 Z-0.125000
G01 X11.869151 Y159.596954 Z-0.125000
G01 X9.877046 Y160.488314 Z-0.125000
G01 X8.848071 Y161.121234 Z-0.125000
G01 X8.283355 Y161.622564 Z-0.125000
G01 X7.923210 Y162.150184 Z-0.125000
G01 X7.783218 Y162.706564 Z-0.125000
G01 X7.816746 Y163.094204 Z-0.125000
G01 X8.060817 Y163.700824 Z-0.125000
G01 X8.531020 Y164.337334 Z-0.125000
G01 X9.210615 Y165.000174 Z-0.125000
G01 X11.095053 Y166.395234 Z-0.125000
G01 X16.224275 Y169.552714 Z-0.125000
G01 X17.941216 Y170.734854 Z-0.125000
G01 X19.386544 Y172.072474 Z-0.125000
G01 X19.792134 Y172.699404 Z-0.125000
G01 X19.965647 Y173.297654 Z-0.125000
G01 X19.951287 Y173.678124 Z-0.125000
G01 X19.739506 Y174.226134 Z-0.125000
G01 X19.314747 Y174.745374 Z-0.125000
G01 X18.703354 Y175.240724 Z-0.125000
G01 X17.359714 Y176.024394 Z-0.125000
G01 X13.246276 Y177.980614 Z-0.125000
G01 X11.736333 Y178.934204 Z-0.125000
G01 X11.189555 Y179.437904 Z-0.125000
G01 X10.805493 Y179.963154 Z-0.125000
G01 X10.539895 Y180.886824 Z-0.125000
G01 X10.728919 Y181.869124 Z-0.125000
G01 X11.465952 Y183.114654 Z-0.125000
G01 X12.386029 Y184.192664 Z-0.125000
G01 X15.375981 Y187.263974 Z-0.125000
G01 X16.567669 Y188.760764 Z-0.125000
G01 X17.237696 Y189.996704 Z-0.125000
G01 X17.546381 Y191.187194 Z-0.125000
G01 X17.473401 Y192.518874 Z-0.125000
G01 X17.021136 Y193.801484 Z-0.125000
G01 X16.430075 Y194.874714 Z-0.125000
G01 X14.239339 Y198.230787 Z-0.125000
G01 X13.347999 Y200.031476 Z-0.125000
G01 X12.838294 Y201.689789 Z-0.125000
G01 X12.607378 Y203.383969 Z-0.125000
G01 X12.614578 Y205.109284 Z-0.125000
G01 X12.827555 Y207.053512 Z-0.125000
G01 X14.359024 Y214.917884 Z-0.125000
G01 X14.987159 Y219.022953 Z-0.125000
G01 X15.403547 Y223.293134 Z-0.125000
G01 X15.658380 Y228.117291 Z-0.125000
G00 Z5.000000

(End cutting path id: polyline2872)


(Start cutting path id: polyline2870)
(Change tool to Default tool)

G00 Z5.000000
G00 X15.531511 Y36.558464

G00 Z4.875000 (Fast pre-penetrate)
G01 Z-0.125000 F400.0(Penetrate)
G01 X15.573401 Y64.541394 Z-0.125000 F800.000000
G01 X15.733723 Y71.076474 Z-0.125000
G01 X16.269737 Y76.512034 Z-0.125000
G01 X16.830866 Y79.651534 Z-0.125000
G01 X18.176897 Y85.766684 Z-0.125000
G01 X18.373132 Y87.325664 Z-0.125000
G01 X18.386292 Y88.668104 Z-0.125000
G01 X18.027342 Y90.538194 Z-0.125000
G01 X17.231711 Y92.159384 Z-0.125000
G01 X15.975407 Y93.720784 Z-0.125000
G01 X13.126644 Y96.416404 Z-0.125000
G01 X12.195768 Y97.444184 Z-0.125000
G01 X11.565242 Y98.512624 Z-0.125000
G01 X11.375022 Y99.637304 Z-0.125000
G01 X11.726761 Y100.832554 Z-0.125000
G01 X12.648033 Y102.102004 Z-0.125000
G01 X14.351818 Y103.665794 Z-0.125000
G01 X17.990269 Y106.437994 Z-0.125000
G01 X19.557616 Y107.791204 Z-0.125000
G01 X20.560281 Y109.071424 Z-0.125000
G01 X20.776810 Y109.674444 Z-0.125000
G01 X20.801960 Y110.060904 Z-0.125000
G01 X20.654792 Y110.617244 Z-0.125000
G01 X20.285081 Y111.143684 Z-0.125000
G01 X19.702391 Y111.642624 Z-0.125000
G01 X18.925893 Y112.116424 Z-0.125000
G01 X16.911030 Y113.004214 Z-0.125000
G01 X11.846422 Y114.837184 Z-0.125000
G01 X9.997861 Y115.746494 Z-0.125000
G01 X9.333849 Y116.235834 Z-0.125000
G01 X8.877997 Y116.750334 Z-0.125000
G01 X8.644689 Y117.295904 Z-0.125000
G01 X8.615947 Y117.675184 Z-0.125000
G01 X8.763115 Y118.268644 Z-0.125000
G01 X9.128043 Y118.890794 Z-0.125000
G01 X9.695151 Y119.540494 Z-0.125000
G01 X10.726518 Y120.440244 Z-0.125000
G01 X12.718623 Y121.849664 Z-0.125000
G01 X18.791877 Y125.704674 Z-0.125000
G01 X20.413109 Y126.873644 Z-0.125000
G01 X21.747140 Y128.005494 Z-0.125000
G01 X22.756982 Y129.094264 Z-0.125000
G01 X23.438967 Y130.141184 Z-0.125000
G01 X23.813434 Y131.148594 Z-0.125000
G01 X23.916330 Y132.120134 Z-0.125000
G01 X23.800273 Y133.062934 Z-0.125000
G01 X23.448539 Y134.167284 Z-0.125000
G01 X21.773489 Y137.590374 Z-0.125000
G01 X21.191999 Y139.047654 Z-0.125000
G01 X20.861787 Y140.345814 Z-0.125000
G01 X20.734948 Y141.670314 Z-0.125000
G01 X20.850992 Y143.218524 Z-0.125000
G01 X21.230271 Y144.801464 Z-0.125000
G01 X21.824910 Y146.411884 Z-0.125000
G01 X23.336058 Y149.864914 Z-0.125000
G01 X23.777553 Y151.264764 Z-0.125000
G01 X23.911570 Y152.622744 Z-0.125000
G01 X23.593311 Y153.923304 Z-0.125000
G01 X23.161374 Y154.632794 Z-0.125000
G01 X22.334617 Y155.484704 Z-0.125000
G01 X20.347303 Y156.758914 Z-0.125000
G01 X18.021362 Y157.797454 Z-0.125000
G01 X12.348915 Y159.934324 Z-0.125000
G01 X10.182136 Y160.994404 Z-0.125000
G01 X9.495367 Y161.480184 Z-0.125000
G01 X8.991643 Y161.989854 Z-0.125000
G01 X8.769098 Y162.344024 Z-0.125000
G01 X8.617147 Y162.899164 Z-0.125000
G01 X8.690131 Y163.483054 Z-0.125000
G01 X8.864804 Y163.888644 Z-0.125000
G01 X9.311090 Y164.521594 Z-0.125000
G01 X9.964374 Y165.182024 Z-0.125000
G01 X11.797352 Y166.569944 Z-0.125000
G01 X16.867976 Y169.720224 Z-0.125000
G01 X18.903170 Y171.134454 Z-0.125000
G01 X20.280296 Y172.463714 Z-0.125000
G01 X20.654791 Y173.087094 Z-0.125000
G01 X20.801958 Y173.680514 Z-0.125000
G01 X20.773218 Y174.060994 Z-0.125000
G01 X20.545888 Y174.605414 Z-0.125000
G01 X20.112793 Y175.124654 Z-0.125000
G01 X19.500206 Y175.620004 Z-0.125000
G01 X18.167329 Y176.404864 Z-0.125000
G01 X14.107741 Y178.368264 Z-0.125000
G01 X12.609758 Y179.323054 Z-0.125000
G01 X11.668120 Y180.349614 Z-0.125000
G01 X11.376212 Y181.270874 Z-0.125000
G01 X11.525771 Y182.248394 Z-0.125000
G01 X12.061784 Y183.276174 Z-0.125000
G01 X13.083549 Y184.558784 Z-0.125000
G01 X15.819862 Y187.405164 Z-0.125000
G01 X17.088125 Y188.911524 Z-0.125000
G01 X17.961527 Y190.366404 Z-0.125000
G01 X18.369544 Y191.760314 Z-0.125000
G01 X18.326454 Y193.096744 Z-0.125000
G01 X17.833528 Y194.566024 Z-0.125000
G01 X17.145569 Y195.817514 Z-0.125000
G01 X15.116357 Y199.002504 Z-0.125000
G01 X14.160367 Y200.986241 Z-0.125000
G01 X13.669833 Y202.646934 Z-0.125000
G01 X13.431740 Y204.532575 Z-0.125000
G01 X13.453260 Y206.260269 Z-0.125000
G01 X13.697331 Y208.399547 Z-0.125000
G01 X15.218037 Y216.262723 Z-0.125000
G01 X15.771989 Y219.783904 Z-0.125000
G01 X16.212296 Y223.865057 Z-0.125000
G01 X16.482712 Y228.116094 Z-0.125000
G00 Z5.000000

(End cutting path id: polyline2870)


(Start cutting path id: polyline2850)
(Change tool to Default tool)

G00 Z5.000000
G00 X24.497815 Y36.642234

G00 Z4.875000 (Fast pre-penetrate)
G01 Z-0.125000 F400.0(Penetrate)
G01 X24.463115 Y48.901194 Z-0.125000 F800.000000
G01 X24.052741 Y59.387014 Z-0.125000
G01 X23.239132 Y69.245884 Z-0.125000
G01 X21.847657 Y79.604904 Z-0.125000
G01 X21.757917 Y82.466814 Z-0.125000
G01 X22.034314 Y84.610904 Z-0.125000
G01 X22.639725 Y86.606594 Z-0.125000
G01 X23.492804 Y88.441974 Z-0.125000
G01 X26.178879 Y93.197934 Z-0.125000
G01 X26.603611 Y94.402774 Z-0.125000
G01 X26.719668 Y95.568114 Z-0.125000
G01 X26.449254 Y96.683234 Z-0.125000
G01 X25.760090 Y97.743304 Z-0.125000
G01 X24.479874 Y98.918214 Z-0.125000
G01 X21.713662 Y100.857694 Z-0.125000
G01 X20.701424 Y101.684464 Z-0.125000
G01 X19.891441 Y102.728954 Z-0.125000
G01 X19.697598 Y103.661024 Z-0.125000
G01 X19.826829 Y104.253274 Z-0.125000
G01 X20.148669 Y104.869454 Z-0.125000
G01 X21.331988 Y106.173584 Z-0.125000
G01 X22.766550 Y107.318604 Z-0.125000
G01 X26.747173 Y110.135084 Z-0.125000
G01 X28.075262 Y111.265734 Z-0.125000
G01 X28.909197 Y112.332984 Z-0.125000
G01 X29.071917 Y112.737374 Z-0.125000
G01 X29.114987 Y113.317674 Z-0.125000
G01 X29.007305 Y113.686204 Z-0.125000
G01 X28.643567 Y114.213844 Z-0.125000
G01 X28.050121 Y114.711544 Z-0.125000
G01 X27.250896 Y115.182974 Z-0.125000
G01 X25.555480 Y115.921184 Z-0.125000
G01 X20.428652 Y117.745794 Z-0.125000
G01 X18.516707 Y118.646724 Z-0.125000
G01 X17.813161 Y119.130124 Z-0.125000
G01 X17.307079 Y119.638594 Z-0.125000
G01 X17.015137 Y120.175804 Z-0.125000
G01 X16.939757 Y120.740554 Z-0.125000
G01 X17.077357 Y121.334014 Z-0.125000
G01 X17.415941 Y121.952574 Z-0.125000
G01 X18.619589 Y123.259114 Z-0.125000
G01 X20.358056 Y124.635034 Z-0.125000
G01 X25.878550 Y128.418264 Z-0.125000
G01 X28.013042 Y130.037064 Z-0.125000
G01 X30.115203 Y132.035184 Z-0.125000
G01 X30.794794 Y132.889454 Z-0.125000
G01 X31.432536 Y133.931584 Z-0.125000
G01 X31.980504 Y135.343394 Z-0.125000
G01 X32.223386 Y136.908384 Z-0.125000
G01 X32.209026 Y138.439844 Z-0.125000
G01 X31.842908 Y143.565524 Z-0.125000
G01 X32.240121 Y149.941484 Z-0.125000
G01 X32.103751 Y151.456204 Z-0.125000
G01 X31.635947 Y152.927844 Z-0.125000
G01 X30.858218 Y154.168564 Z-0.125000
G01 X29.869939 Y155.190374 Z-0.125000
G01 X28.570579 Y156.170274 Z-0.125000
G01 X26.981674 Y157.114274 Z-0.125000
G01 X20.959878 Y159.972644 Z-0.125000
G01 X18.990495 Y161.057824 Z-0.125000
G01 X17.578653 Y162.214784 Z-0.125000
G01 X17.113232 Y162.921924 Z-0.125000
G01 X16.954106 Y163.475874 Z-0.125000
G01 X16.963706 Y164.051404 Z-0.125000
G01 X17.147983 Y164.650794 Z-0.125000
G01 X17.502112 Y165.271784 Z-0.125000
G01 X18.224794 Y166.132034 Z-0.125000
G01 X20.383201 Y167.945874 Z-0.125000
G01 X25.166666 Y171.250504 Z-0.125000
G01 X26.968554 Y172.633634 Z-0.125000
G01 X28.465344 Y174.169884 Z-0.125000
G01 X28.945113 Y174.999034 Z-0.125000
G01 X29.109029 Y175.594884 Z-0.125000
G01 X29.103729 Y176.169164 Z-0.125000
G01 X28.936224 Y176.721914 Z-0.125000
G01 X28.158536 Y177.771234 Z-0.125000
G01 X26.670121 Y178.918624 Z-0.125000
G01 X22.985025 Y181.122514 Z-0.125000
G01 X21.394920 Y182.256774 Z-0.125000
G01 X20.690177 Y182.931584 Z-0.125000
G01 X20.164926 Y183.630344 Z-0.125000
G01 X19.833518 Y184.354194 Z-0.125000
G01 X19.713858 Y184.912924 Z-0.125000
G01 X19.791628 Y186.073524 Z-0.125000
G01 X20.348008 Y187.486524 Z-0.125000
G01 X21.431995 Y189.160374 Z-0.125000
G01 X24.098919 Y192.573884 Z-0.125000
G01 X25.258280 Y194.257334 Z-0.125000
G01 X26.269319 Y196.304484 Z-0.125000
G01 X26.686858 Y198.083617 Z-0.125000
G01 X26.681558 Y199.616290 Z-0.125000
G01 X26.317819 Y201.293733 Z-0.125000
G01 X25.601150 Y203.115948 Z-0.125000
G01 X23.622199 Y207.075035 Z-0.125000
G01 X22.696149 Y209.253809 Z-0.125000
G01 X22.058407 Y211.470858 Z-0.125000
G01 X21.773675 Y213.541964 Z-0.125000
G01 X21.788035 Y215.842751 Z-0.125000
G01 X22.126608 Y218.378046 Z-0.125000
G01 X24.476477 Y228.073008 Z-0.125000
G00 Z5.000000

(End cutting path id: polyline2850)


(Start cutting path id: polyline2846)
(Change tool to Default tool)

G00 Z5.000000
G00 X26.675393 Y36.708014

G00 Z4.875000 (Fast pre-penetrate)
G01 Z-0.125000 F400.0(Penetrate)
G01 X26.615573 Y53.755264 Z-0.125000 F800.000000
G01 X26.458836 Y59.675374 Z-0.125000
G01 X26.219557 Y64.243454 Z-0.125000
G01 X25.517232 Y71.241614 Z-0.125000
G01 X24.989592 Y74.431394 Z-0.125000
G01 X23.651931 Y80.964084 Z-0.125000
G01 X23.442577 Y82.661854 Z-0.125000
G01 X23.410267 Y83.998324 Z-0.125000
G01 X23.610090 Y85.748744 Z-0.125000
G01 X24.147302 Y87.543414 Z-0.125000
G01 X25.154712 Y89.590564 Z-0.125000
G01 X27.802487 Y93.958884 Z-0.125000
G01 X28.263126 Y95.168514 Z-0.125000
G01 X28.382772 Y96.333854 Z-0.125000
G01 X28.078871 Y97.444184 Z-0.125000
G01 X27.325098 Y98.495894 Z-0.125000
G01 X26.176492 Y99.497314 Z-0.125000
G01 X23.343239 Y101.428394 Z-0.125000
G01 X22.319092 Y102.252764 Z-0.125000
G01 X21.614348 Y103.119024 Z-0.125000
G01 X21.359510 Y104.043884 Z-0.125000
G01 X21.629928 Y105.038144 Z-0.125000
G01 X22.436319 Y106.100604 Z-0.125000
G01 X24.008486 Y107.455014 Z-0.125000
G01 X28.011869 Y110.275064 Z-0.125000
G01 X29.442840 Y111.418884 Z-0.125000
G01 X30.093703 Y112.078154 Z-0.125000
G01 X30.544770 Y112.712264 Z-0.125000
G01 X30.769705 Y113.316474 Z-0.125000
G01 X30.785255 Y113.701744 Z-0.125000
G01 X30.693125 Y114.072644 Z-0.125000
G01 X30.352146 Y114.602694 Z-0.125000
G01 X29.780222 Y115.104024 Z-0.125000
G01 X29.002534 Y115.577814 Z-0.125000
G01 X26.968531 Y116.463164 Z-0.125000
G01 X22.254462 Y118.149014 Z-0.125000
G01 X20.058950 Y119.205504 Z-0.125000
G01 X19.393708 Y119.693644 Z-0.125000
G01 X18.923505 Y120.208124 Z-0.125000
G01 X18.661495 Y120.748924 Z-0.125000
G01 X18.602855 Y121.124614 Z-0.125000
G01 X18.685415 Y121.709704 Z-0.125000
G01 X18.965399 Y122.321094 Z-0.125000
G01 X19.424839 Y122.955204 Z-0.125000
G01 X20.279107 Y123.833424 Z-0.125000
G01 X22.271217 Y125.433094 Z-0.125000
G01 X28.488045 Y129.882724 Z-0.125000
G01 X30.105651 Y131.243104 Z-0.125000
G01 X31.413413 Y132.562824 Z-0.125000
G01 X32.402889 Y133.840624 Z-0.125000
G01 X33.185377 Y135.283564 Z-0.125000
G01 X33.636444 Y136.683434 Z-0.125000
G01 X33.862576 Y138.246004 Z-0.125000
G01 X33.866576 Y149.169744 Z-0.125000
G01 X33.517195 Y151.232474 Z-0.125000
G01 X32.792151 Y152.862044 Z-0.125000
G01 X31.520296 Y154.422244 Z-0.125000
G01 X29.633472 Y155.901064 Z-0.125000
G01 X27.189096 Y157.308114 Z-0.125000
G01 X22.013205 Y159.892474 Z-0.125000
G01 X20.241213 Y161.003964 Z-0.125000
G01 X19.039991 Y162.188484 Z-0.125000
G01 X18.750440 Y162.725694 Z-0.125000
G01 X18.612840 Y163.283234 Z-0.125000
G01 X18.677450 Y164.058564 Z-0.125000
G01 X18.914346 Y164.663974 Z-0.125000
G01 X19.307976 Y165.289724 Z-0.125000
G01 X20.061751 Y166.153564 Z-0.125000
G01 X21.905484 Y167.735284 Z-0.125000
G01 X26.844488 Y171.251684 Z-0.125000
G01 X28.841414 Y172.852554 Z-0.125000
G01 X30.213758 Y174.372104 Z-0.125000
G01 X30.642066 Y175.194044 Z-0.125000
G01 X30.780869 Y175.787494 Z-0.125000
G01 X30.764119 Y176.360614 Z-0.125000
G01 X30.595431 Y176.913364 Z-0.125000
G01 X29.851217 Y177.966264 Z-0.125000
G01 X28.440573 Y179.124434 Z-0.125000
G01 X24.665755 Y181.507814 Z-0.125000
G01 X23.134267 Y182.650434 Z-0.125000
G01 X22.442711 Y183.326444 Z-0.125000
G01 X21.913860 Y184.023964 Z-0.125000
G01 X21.558540 Y184.745424 Z-0.125000
G01 X21.382635 Y185.488434 Z-0.125000
G01 X21.481965 Y186.842834 Z-0.125000
G01 X22.032333 Y188.255844 Z-0.125000
G01 X23.057689 Y189.922524 Z-0.125000
G01 X25.734206 Y193.527484 Z-0.125000
G01 X26.962962 Y195.411924 Z-0.125000
G01 X27.844769 Y197.250877 Z-0.125000
G01 X28.336503 Y199.231028 Z-0.125000
G01 X28.349793 Y200.957540 Z-0.125000
G01 X27.962138 Y202.823997 Z-0.125000
G01 X27.271779 Y204.649842 Z-0.125000
G01 X25.179149 Y208.977453 Z-0.125000
G01 X24.418198 Y210.794842 Z-0.125000
G01 X23.798430 Y212.821666 Z-0.125000
G01 X23.463446 Y214.885566 Z-0.125000
G01 X23.437126 Y217.181608 Z-0.125000
G01 X23.769756 Y219.716902 Z-0.125000
G01 X24.272258 Y221.889695 Z-0.125000
G01 X25.977233 Y228.051485 Z-0.125000
G00 Z5.000000

(End cutting path id: polyline2846)


(Start cutting path id: polyline2844)
(Change tool to Default tool)

G00 Z5.000000
G00 X27.517704 Y36.709214

G00 Z4.875000 (Fast pre-penetrate)
G01 Z-0.125000 F400.0(Penetrate)
G01 X27.511104 Y57.595934 Z-0.125000 F800.000000
G01 X27.201220 Y66.370774 Z-0.125000
G01 X26.920038 Y69.591684 Z-0.125000
G01 X26.459399 Y72.981234 Z-0.125000
G01 X25.876747 Y75.971224 Z-0.125000
G01 X24.519957 Y81.735794 Z-0.125000
G01 X24.297415 Y83.239764 Z-0.125000
G01 X24.238785 Y84.572604 Z-0.125000
G01 X24.430232 Y86.323024 Z-0.125000
G01 X24.992557 Y88.120124 Z-0.125000
G01 X25.932965 Y89.967464 Z-0.125000
G01 X28.652541 Y94.345344 Z-0.125000
G01 X29.110787 Y95.553774 Z-0.125000
G01 X29.208897 Y96.716724 Z-0.125000
G01 X28.863092 Y97.821074 Z-0.125000
G01 X27.879599 Y99.035484 Z-0.125000
G01 X26.855439 Y99.859854 Z-0.125000
G01 X23.770941 Y101.950054 Z-0.125000
G01 X22.841301 Y102.787584 Z-0.125000
G01 X22.290901 Y103.674174 Z-0.125000
G01 X22.201171 Y104.429144 Z-0.125000
G01 X22.578058 Y105.436564 Z-0.125000
G01 X23.726650 Y106.734714 Z-0.125000
G01 X25.152849 Y107.878534 Z-0.125000
G01 X29.164593 Y110.699794 Z-0.125000
G01 X30.517807 Y111.834044 Z-0.125000
G01 X31.380445 Y112.903714 Z-0.125000
G01 X31.602987 Y113.507904 Z-0.125000
G01 X31.618537 Y113.893184 Z-0.125000
G01 X31.525217 Y114.264064 Z-0.125000
G01 X31.184251 Y114.794094 Z-0.125000
G01 X30.614708 Y115.295434 Z-0.125000
G01 X29.840609 Y115.769234 Z-0.125000
G01 X27.816178 Y116.657004 Z-0.125000
G01 X22.770702 Y118.491184 Z-0.125000
G01 X20.935329 Y119.402894 Z-0.125000
G01 X20.264106 Y119.889884 Z-0.125000
G01 X19.784300 Y120.403134 Z-0.125000
G01 X19.507940 Y120.941534 Z-0.125000
G01 X19.437350 Y121.507484 Z-0.125000
G01 X19.565345 Y122.098544 Z-0.125000
G01 X19.880046 Y122.714714 Z-0.125000
G01 X21.242821 Y124.233034 Z-0.125000
G01 X23.231342 Y125.833904 Z-0.125000
G01 X29.009068 Y130.033474 Z-0.125000
G01 X30.864758 Y131.616414 Z-0.125000
G01 X32.137809 Y132.931314 Z-0.125000
G01 X33.243355 Y134.416134 Z-0.125000
G01 X33.977957 Y135.853094 Z-0.125000
G01 X34.457766 Y137.449174 Z-0.125000
G01 X34.686291 Y139.203194 Z-0.125000
G01 X34.737741 Y146.492054 Z-0.125000
G01 X34.644421 Y148.778494 Z-0.125000
G01 X34.244815 Y150.835214 Z-0.125000
G01 X33.890648 Y151.746924 Z-0.125000
G01 X33.395325 Y152.640684 Z-0.125000
G01 X32.086367 Y154.194914 Z-0.125000
G01 X30.197190 Y155.673734 Z-0.125000
G01 X28.077042 Y156.932424 Z-0.125000
G01 X23.030342 Y159.533524 Z-0.125000
G01 X21.253604 Y160.643854 Z-0.125000
G01 X19.994907 Y161.821164 Z-0.125000
G01 X19.584535 Y162.534274 Z-0.125000
G01 X19.446935 Y163.091824 Z-0.125000
G01 X19.462485 Y163.668494 Z-0.125000
G01 X19.723334 Y164.468944 Z-0.125000
G01 X20.097794 Y165.092294 Z-0.125000
G01 X20.819279 Y165.952574 Z-0.125000
G01 X22.892745 Y167.755624 Z-0.125000
G01 X27.753979 Y171.261294 Z-0.125000
G01 X29.704229 Y172.856184 Z-0.125000
G01 X31.044282 Y174.372104 Z-0.125000
G01 X31.387654 Y174.991874 Z-0.125000
G01 X31.610197 Y175.787494 Z-0.125000
G01 X31.602197 Y176.360614 Z-0.125000
G01 X31.449050 Y176.915754 Z-0.125000
G01 X30.745542 Y177.974624 Z-0.125000
G01 X29.394721 Y179.139984 Z-0.125000
G01 X25.470305 Y181.695644 Z-0.125000
G01 X23.794072 Y183.010544 Z-0.125000
G01 X23.152780 Y183.693724 Z-0.125000
G01 X22.668186 Y184.397274 Z-0.125000
G01 X22.352332 Y185.123504 Z-0.125000
G01 X22.205154 Y185.870114 Z-0.125000
G01 X22.331979 Y187.228094 Z-0.125000
G01 X22.879960 Y188.641134 Z-0.125000
G01 X23.876601 Y190.302994 Z-0.125000
G01 X26.624879 Y194.110174 Z-0.125000
G01 X27.810589 Y195.988594 Z-0.125000
G01 X28.737835 Y198.026187 Z-0.125000
G01 X29.181737 Y199.999158 Z-0.125000
G01 X29.154217 Y201.912291 Z-0.125000
G01 X28.733048 Y203.774016 Z-0.125000
G01 X27.951757 Y205.780460 Z-0.125000
G01 X26.042214 Y209.747976 Z-0.125000
G01 X25.276477 Y211.564208 Z-0.125000
G01 X24.645913 Y213.589796 Z-0.125000
G01 X24.298965 Y215.652500 Z-0.125000
G01 X24.270245 Y217.948541 Z-0.125000
G01 X24.578959 Y220.288825 Z-0.125000
G01 X25.144874 Y222.661414 Z-0.125000
G01 X26.708666 Y228.038324 Z-0.125000
G00 Z5.000000

(End cutting path id: polyline2844)


(Start cutting path id: polyline2842)
(Change tool to Default tool)

G00 Z5.000000
G00 X28.220055 Y36.692474

G00 Z4.875000 (Fast pre-penetrate)
G01 Z-0.125000 F400.0(Penetrate)
G01 X28.364788 Y60.473424 Z-0.125000 F800.000000
G01 X28.155433 Y67.919024 Z-0.125000
G01 X27.869478 Y71.139894 Z-0.125000
G01 X27.457868 Y73.961154 Z-0.125000
G01 X26.820166 Y76.943964 Z-0.125000
G01 X25.362885 Y82.502724 Z-0.125000
G01 X25.123593 Y84.005494 Z-0.125000
G01 X25.074543 Y85.339524 Z-0.125000
G01 X25.315032 Y87.095934 Z-0.125000
G01 X25.872597 Y88.701624 Z-0.125000
G01 X26.747200 Y90.347944 Z-0.125000
G01 X29.423677 Y94.528374 Z-0.125000
G01 X29.919040 Y95.742794 Z-0.125000
G01 X30.047061 Y96.909364 Z-0.125000
G01 X29.807742 Y97.836624 Z-0.125000
G01 X29.085104 Y98.891904 Z-0.125000
G01 X27.937695 Y99.892154 Z-0.125000
G01 X25.053019 Y101.817244 Z-0.125000
G01 X24.004904 Y102.639214 Z-0.125000
G01 X23.283422 Y103.503094 Z-0.125000
G01 X23.023803 Y104.427944 Z-0.125000
G01 X23.123113 Y105.015424 Z-0.125000
G01 X23.423426 Y105.629214 Z-0.125000
G01 X24.587612 Y106.930954 Z-0.125000
G01 X26.025762 Y108.075964 Z-0.125000
G01 X30.039873 Y110.897224 Z-0.125000
G01 X31.381123 Y112.029084 Z-0.125000
G01 X32.225827 Y113.097524 Z-0.125000
G01 X32.438797 Y113.699344 Z-0.125000
G01 X32.446797 Y114.084604 Z-0.125000
G01 X32.347487 Y114.454314 Z-0.125000
G01 X32.000499 Y114.984354 Z-0.125000
G01 X31.426210 Y115.484494 Z-0.125000
G01 X30.649718 Y115.958284 Z-0.125000
G01 X28.631256 Y116.846034 Z-0.125000
G01 X23.618071 Y118.685024 Z-0.125000
G01 X21.791083 Y119.597934 Z-0.125000
G01 X21.119855 Y120.084874 Z-0.125000
G01 X20.636497 Y120.596974 Z-0.125000
G01 X20.351729 Y121.135384 Z-0.125000
G01 X20.266779 Y121.698894 Z-0.125000
G01 X20.376840 Y122.287564 Z-0.125000
G01 X20.669979 Y122.901354 Z-0.125000
G01 X21.968146 Y124.411294 Z-0.125000
G01 X23.585752 Y125.771674 Z-0.125000
G01 X30.361355 Y130.867414 Z-0.125000
G01 X32.261341 Y132.647774 Z-0.125000
G01 X33.655208 Y134.362284 Z-0.125000
G01 X34.665011 Y136.218024 Z-0.125000
G01 X35.252488 Y138.210124 Z-0.125000
G01 X35.509754 Y140.543244 Z-0.125000
G01 X35.561204 Y144.382684 Z-0.125000
G01 X35.475054 Y147.437284 Z-0.125000
G01 X35.189099 Y149.508354 Z-0.125000
G01 X34.564545 Y151.343724 Z-0.125000
G01 X33.554742 Y152.936224 Z-0.125000
G01 X32.219475 Y154.296604 Z-0.125000
G01 X30.455886 Y155.599554 Z-0.125000
G01 X28.608559 Y156.701504 Z-0.125000
G01 X23.978242 Y159.165014 Z-0.125000
G01 X21.998094 Y160.440444 Z-0.125000
G01 X20.794448 Y161.626154 Z-0.125000
G01 X20.405602 Y162.341624 Z-0.125000
G01 X20.276370 Y162.899164 Z-0.125000
G01 X20.333810 Y163.673304 Z-0.125000
G01 X20.551536 Y164.277534 Z-0.125000
G01 X20.916465 Y164.899684 Z-0.125000
G01 X21.616391 Y165.756334 Z-0.125000
G01 X23.631250 Y167.552244 Z-0.125000
G01 X28.403946 Y171.045914 Z-0.125000
G01 X30.360179 Y172.642004 Z-0.125000
G01 X31.239566 Y173.522584 Z-0.125000
G01 X31.895242 Y174.374494 Z-0.125000
G01 X32.304420 Y175.194044 Z-0.125000
G01 X32.442013 Y175.787494 Z-0.125000
G01 X32.435413 Y176.361804 Z-0.125000
G01 X32.289444 Y176.916954 Z-0.125000
G01 X31.615835 Y177.979414 Z-0.125000
G01 X30.095129 Y179.314684 Z-0.125000
G01 X26.252099 Y181.881074 Z-0.125000
G01 X24.800761 Y183.033304 Z-0.125000
G01 X24.139143 Y183.714094 Z-0.125000
G01 X23.519375 Y184.592274 Z-0.125000
G01 X23.202285 Y185.317344 Z-0.125000
G01 X23.044352 Y186.062754 Z-0.125000
G01 X23.134082 Y187.415924 Z-0.125000
G01 X23.728725 Y189.026394 Z-0.125000
G01 X24.699070 Y190.685864 Z-0.125000
G01 X27.509565 Y194.691624 Z-0.125000
G01 X28.652188 Y196.565307 Z-0.125000
G01 X29.555519 Y198.598117 Z-0.125000
G01 X30.002996 Y200.573475 Z-0.125000
G01 X30.001996 Y202.489001 Z-0.125000
G01 X29.562880 Y204.539740 Z-0.125000
G01 X28.797157 Y206.548630 Z-0.125000
G01 X26.131434 Y212.333522 Z-0.125000
G01 X25.443467 Y214.543391 Z-0.125000
G01 X25.132387 Y216.419460 Z-0.125000
G01 X25.091707 Y218.522818 Z-0.125000
G01 X25.390823 Y220.860722 Z-0.125000
G01 X25.968728 Y223.235690 Z-0.125000
G01 X27.424825 Y228.023980 Z-0.125000
G00 Z5.000000

(End cutting path id: polyline2842)


(Start cutting path id: polyline2848)
(Change tool to Default tool)

G00 Z5.000000
G00 X25.670363 Y36.685294

G00 Z4.875000 (Fast pre-penetrate)
G01 Z-0.125000 F400.0(Penetrate)
G01 X25.605753 Y51.241494 Z-0.125000 F800.000000
G01 X25.161865 Y62.105394 Z-0.125000
G01 X24.449982 Y69.870434 Z-0.125000
G01 X23.934293 Y73.444304 Z-0.125000
G01 X22.790473 Y80.002114 Z-0.125000
G01 X22.608624 Y81.703474 Z-0.125000
G01 X22.581104 Y83.232584 Z-0.125000
G01 X22.809615 Y85.179214 Z-0.125000
G01 X23.416236 Y87.173704 Z-0.125000
G01 X24.301620 Y89.013894 Z-0.125000
G01 X26.978110 Y93.577214 Z-0.125000
G01 X27.426784 Y94.785644 Z-0.125000
G01 X27.552413 Y95.950984 Z-0.125000
G01 X27.273624 Y97.064904 Z-0.125000
G01 X26.559348 Y98.121384 Z-0.125000
G01 X25.453801 Y99.127614 Z-0.125000
G01 X22.435109 Y101.226224 Z-0.125000
G01 X21.436071 Y102.054174 Z-0.125000
G01 X20.758869 Y102.925184 Z-0.125000
G01 X20.526756 Y103.852434 Z-0.125000
G01 X20.636844 Y104.442304 Z-0.125000
G01 X20.939550 Y105.056094 Z-0.125000
G01 X22.097719 Y106.356634 Z-0.125000
G01 X23.523918 Y107.500454 Z-0.125000
G01 X27.520082 Y110.319324 Z-0.125000
G01 X29.081494 Y111.671324 Z-0.125000
G01 X29.820909 Y112.725424 Z-0.125000
G01 X29.951324 Y113.509134 Z-0.125000
G01 X29.854414 Y113.880004 Z-0.125000
G01 X29.505033 Y114.410034 Z-0.125000
G01 X28.925971 Y114.908974 Z-0.125000
G01 X28.139868 Y115.381574 Z-0.125000
G01 X26.463621 Y116.122204 Z-0.125000
G01 X20.995776 Y118.093974 Z-0.125000
G01 X19.167580 Y119.005684 Z-0.125000
G01 X18.511940 Y119.496204 Z-0.125000
G01 X18.057282 Y120.011894 Z-0.125000
G01 X17.870615 Y120.370844 Z-0.125000
G01 X17.768929 Y120.931974 Z-0.125000
G01 X17.877794 Y121.521834 Z-0.125000
G01 X18.185283 Y122.135614 Z-0.125000
G01 X18.674656 Y122.774554 Z-0.125000
G01 X19.570816 Y123.657514 Z-0.125000
G01 X21.635915 Y125.267964 Z-0.125000
G01 X27.668474 Y129.501054 Z-0.125000
G01 X29.332756 Y130.867414 Z-0.125000
G01 X30.474183 Y131.974154 Z-0.125000
G01 X31.534250 Y133.261564 Z-0.125000
G01 X32.274875 Y134.507074 Z-0.125000
G01 X32.791747 Y135.915324 Z-0.125000
G01 X33.041795 Y137.481464 Z-0.125000
G01 X32.859946 Y143.780854 Z-0.125000
G01 X33.053759 Y149.746444 Z-0.125000
G01 X32.759429 Y151.624894 Z-0.125000
G01 X32.143250 Y153.077404 Z-0.125000
G01 X31.531857 Y153.956814 Z-0.125000
G01 X30.902530 Y154.641194 Z-0.125000
G01 X29.009724 Y156.120014 Z-0.125000
G01 X26.522261 Y157.521064 Z-0.125000
G01 X21.214735 Y160.088674 Z-0.125000
G01 X19.402087 Y161.194214 Z-0.125000
G01 X18.619610 Y161.859464 Z-0.125000
G01 X18.186479 Y162.377504 Z-0.125000
G01 X17.901747 Y162.915944 Z-0.125000
G01 X17.774909 Y163.473484 Z-0.125000
G01 X17.814379 Y164.053784 Z-0.125000
G01 X18.020181 Y164.655574 Z-0.125000
G01 X18.391089 Y165.278964 Z-0.125000
G01 X19.124534 Y166.140404 Z-0.125000
G01 X20.964688 Y167.720944 Z-0.125000
G01 X26.300915 Y171.481404 Z-0.125000
G01 X28.016658 Y172.853784 Z-0.125000
G01 X29.403347 Y174.375694 Z-0.125000
G01 X29.825712 Y175.196434 Z-0.125000
G01 X29.953734 Y175.788684 Z-0.125000
G01 X29.808962 Y176.727944 Z-0.125000
G01 X29.098275 Y177.784374 Z-0.125000
G01 X27.688867 Y178.942584 Z-0.125000
G01 X23.837435 Y181.316364 Z-0.125000
G01 X22.273643 Y182.455404 Z-0.125000
G01 X21.573714 Y183.130204 Z-0.125000
G01 X21.043679 Y183.827734 Z-0.125000
G01 X20.697885 Y184.549224 Z-0.125000
G01 X20.538760 Y185.295794 Z-0.125000
G01 X20.635700 Y186.457574 Z-0.125000
G01 X21.188457 Y187.870584 Z-0.125000
G01 X22.092991 Y189.330294 Z-0.125000
G01 X24.993207 Y193.156574 Z-0.125000
G01 X26.111914 Y194.835214 Z-0.125000
G01 X27.094211 Y196.878777 Z-0.125000
G01 X27.512960 Y198.657937 Z-0.125000
G01 X27.504960 Y200.380831 Z-0.125000
G01 X27.138842 Y202.058260 Z-0.125000
G01 X26.352765 Y204.063561 Z-0.125000
G01 X24.400135 Y208.026250 Z-0.125000
G01 X23.627219 Y209.841287 Z-0.125000
G01 X22.950020 Y212.053549 Z-0.125000
G01 X22.625792 Y214.118633 Z-0.125000
G01 X22.605452 Y216.415871 Z-0.125000
G01 X22.927301 Y218.948772 Z-0.125000
G01 X25.232874 Y228.063437 Z-0.125000
G00 Z5.000000

(End cutting path id: polyline2848)


(Start cutting path id: polyline2840)
(Change tool to Default tool)

G00 Z5.000000
G00 X28.818248 Y36.662574

G00 Z4.875000 (Fast pre-penetrate)
G01 Z-0.125000 F400.0(Penetrate)
G01 X28.808948 Y46.242654 Z-0.125000 F800.000000
G01 X29.192999 Y63.155884 Z-0.125000
G01 X29.072157 Y69.272234 Z-0.125000
G01 X28.831667 Y72.115024 Z-0.125000
G01 X28.441593 Y74.747244 Z-0.125000
G01 X27.812266 Y77.539804 Z-0.125000
G01 X26.219773 Y83.081824 Z-0.125000
G01 X25.958957 Y84.579774 Z-0.125000
G01 X25.908707 Y85.915044 Z-0.125000
G01 X26.128857 Y87.476414 Z-0.125000
G01 X26.607442 Y88.879884 Z-0.125000
G01 X27.601691 Y90.734384 Z-0.125000
G01 X30.324857 Y94.920854 Z-0.125000
G01 X30.790268 Y96.130444 Z-0.125000
G01 X30.881198 Y97.100784 Z-0.125000
G01 X30.647861 Y98.029264 Z-0.125000
G01 X29.920437 Y99.083324 Z-0.125000
G01 X28.759867 Y100.082404 Z-0.125000
G01 X25.852432 Y102.003914 Z-0.125000
G01 X24.805553 Y102.825894 Z-0.125000
G01 X24.097233 Y103.692104 Z-0.125000
G01 X23.856743 Y104.619364 Z-0.125000
G01 X23.971604 Y105.209234 Z-0.125000
G01 X24.287470 Y105.825404 Z-0.125000
G01 X25.483908 Y107.130744 Z-0.125000
G01 X26.941228 Y108.278184 Z-0.125000
G01 X30.949357 Y111.098244 Z-0.125000
G01 X32.267887 Y112.227714 Z-0.125000
G01 X33.083889 Y113.292564 Z-0.125000
G01 X33.277689 Y113.891994 Z-0.125000
G01 X33.273689 Y114.274864 Z-0.125000
G01 X33.163614 Y114.644544 Z-0.125000
G01 X32.801086 Y115.172184 Z-0.125000
G01 X32.216002 Y115.671124 Z-0.125000
G01 X31.432331 Y116.143724 Z-0.125000
G01 X29.412686 Y117.030314 Z-0.125000
G01 X24.790731 Y118.729284 Z-0.125000
G01 X22.631127 Y119.790544 Z-0.125000
G01 X21.782847 Y120.446224 Z-0.125000
G01 X21.364064 Y120.966684 Z-0.125000
G01 X21.140324 Y121.512274 Z-0.125000
G01 X21.109234 Y122.082954 Z-0.125000
G01 X21.267165 Y122.678814 Z-0.125000
G01 X21.597373 Y123.296174 Z-0.125000
G01 X22.707705 Y124.590784 Z-0.125000
G01 X24.555046 Y126.172484 Z-0.125000
G01 X29.180577 Y129.648214 Z-0.125000
G01 X31.133220 Y131.243104 Z-0.125000
G01 X32.762777 Y132.796144 Z-0.125000
G01 X34.178208 Y134.513034 Z-0.125000
G01 X35.238288 Y136.375964 Z-0.125000
G01 X35.896344 Y138.377634 Z-0.125000
G01 X36.230144 Y140.720304 Z-0.125000
G01 X36.324664 Y143.798824 Z-0.125000
G01 X36.252874 Y146.280274 Z-0.125000
G01 X36.013581 Y148.357354 Z-0.125000
G01 X35.575662 Y150.025234 Z-0.125000
G01 X34.892481 Y151.469354 Z-0.125000
G01 X32.903970 Y153.701944 Z-0.125000
G01 X31.607003 Y154.874504 Z-0.125000
G01 X29.351655 Y156.306644 Z-0.125000
G01 X24.593343 Y158.944854 Z-0.125000
G01 X22.705309 Y160.233454 Z-0.125000
G01 X21.572259 Y161.427524 Z-0.125000
G01 X21.214507 Y162.146594 Z-0.125000
G01 X21.104446 Y162.707754 Z-0.125000
G01 X21.177426 Y163.483054 Z-0.125000
G01 X21.399970 Y164.087264 Z-0.125000
G01 X22.452865 Y165.566084 Z-0.125000
G01 X24.425834 Y167.354814 Z-0.125000
G01 X29.411487 Y171.069844 Z-0.125000
G01 X31.299508 Y172.656354 Z-0.125000
G01 X32.140622 Y173.532144 Z-0.125000
G01 X32.765163 Y174.379284 Z-0.125000
G01 X33.077480 Y174.995444 Z-0.125000
G01 X33.277263 Y175.787494 Z-0.125000
G01 X33.265303 Y176.360614 Z-0.125000
G01 X33.120530 Y176.916954 Z-0.125000
G01 X32.848960 Y177.456564 Z-0.125000
G01 X32.311707 Y178.152904 Z-0.125000
G01 X30.990824 Y179.323054 Z-0.125000
G01 X27.013790 Y182.062964 Z-0.125000
G01 X25.609128 Y183.222324 Z-0.125000
G01 X24.829047 Y184.078994 Z-0.125000
G01 X24.362426 Y184.784914 Z-0.125000
G01 X24.047756 Y185.509964 Z-0.125000
G01 X23.882617 Y186.255354 Z-0.125000
G01 X23.943637 Y187.604984 Z-0.125000
G01 X24.483229 Y189.208244 Z-0.125000
G01 X25.391358 Y190.859374 Z-0.125000
G01 X28.249725 Y195.062544 Z-0.125000
G01 X29.489248 Y197.140817 Z-0.125000
G01 X30.434468 Y199.371015 Z-0.125000
G01 X30.843646 Y201.340408 Z-0.125000
G01 X30.830356 Y203.254738 Z-0.125000
G01 X30.397222 Y205.306674 Z-0.125000
G01 X29.565680 Y207.498610 Z-0.125000
G01 X26.914302 Y213.285894 Z-0.125000
G01 X26.329257 Y215.126082 Z-0.125000
G01 X25.983466 Y216.997326 Z-0.125000
G01 X25.926036 Y219.289751 Z-0.125000
G01 X26.204825 Y221.433842 Z-0.125000
G01 X26.795892 Y223.810006 Z-0.125000
G01 X28.126347 Y228.007203 Z-0.125000
G00 Z5.000000

(End cutting path id: polyline2840)


(Start cutting path id: polyline2838)
(Change tool to Default tool)

G00 Z5.000000
G00 X29.356656 Y36.624264

G00 Z4.875000 (Fast pre-penetrate)
G01 Z-0.125000 F400.0(Penetrate)
G01 X29.351356 Y46.588454 Z-0.125000 F800.000000
G01 X29.985508 Y64.299704 Z-0.125000
G01 X29.950808 Y70.619434 Z-0.125000
G01 X29.705533 Y73.461044 Z-0.125000
G01 X29.308320 Y75.900634 Z-0.125000
G01 X28.659810 Y78.499344 Z-0.125000
G01 X27.055365 Y83.656114 Z-0.125000
G01 X26.783780 Y85.154104 Z-0.125000
G01 X26.739510 Y86.297914 Z-0.125000
G01 X26.960856 Y87.860514 Z-0.125000
G01 X27.459768 Y89.266334 Z-0.125000
G01 X28.364295 Y90.916274 Z-0.125000
G01 X31.144892 Y95.111064 Z-0.125000
G01 X31.621084 Y96.321904 Z-0.125000
G01 X31.713214 Y97.292234 Z-0.125000
G01 X31.472685 Y98.219494 Z-0.125000
G01 X30.726131 Y99.272384 Z-0.125000
G01 X29.543998 Y100.267844 Z-0.125000
G01 X26.615040 Y102.186954 Z-0.125000
G01 X25.580125 Y103.010124 Z-0.125000
G01 X24.895748 Y103.879974 Z-0.125000
G01 X24.692335 Y104.812014 Z-0.125000
G01 X25.039323 Y105.814644 Z-0.125000
G01 X26.162777 Y107.110414 Z-0.125000
G01 X27.578207 Y108.253024 Z-0.125000
G01 X31.591161 Y111.074294 Z-0.125000
G01 X33.178869 Y112.429884 Z-0.125000
G01 X33.950576 Y113.488774 Z-0.125000
G01 X34.120474 Y114.277254 Z-0.125000
G01 X33.969719 Y114.832394 Z-0.125000
G01 X33.584458 Y115.357664 Z-0.125000
G01 X32.187001 Y116.325604 Z-0.125000
G01 X30.529898 Y117.067384 Z-0.125000
G01 X25.581322 Y118.915944 Z-0.125000
G01 X23.452812 Y119.980794 Z-0.125000
G01 X22.616483 Y120.637634 Z-0.125000
G01 X22.201297 Y121.159304 Z-0.125000
G01 X21.976348 Y121.704914 Z-0.125000
G01 X21.940458 Y122.274424 Z-0.125000
G01 X22.085231 Y122.869064 Z-0.125000
G01 X22.398704 Y123.484044 Z-0.125000
G01 X23.686100 Y124.992784 Z-0.125000
G01 X25.240293 Y126.344804 Z-0.125000
G01 X31.639011 Y131.392674 Z-0.125000
G01 X33.254224 Y132.943304 Z-0.125000
G01 X34.679226 Y134.661404 Z-0.125000
G01 X35.777554 Y136.529104 Z-0.125000
G01 X36.493066 Y138.539144 Z-0.125000
G01 X36.869912 Y140.695194 Z-0.125000
G01 X37.008716 Y143.779654 Z-0.125000
G01 X36.873542 Y146.444224 Z-0.125000
G01 X36.467914 Y148.691154 Z-0.125000
G01 X36.099403 Y149.793124 Z-0.125000
G01 X35.038139 Y151.188184 Z-0.125000
G01 X32.904843 Y153.594294 Z-0.125000
G01 X31.269290 Y155.105424 Z-0.125000
G01 X25.417383 Y158.560804 Z-0.125000
G01 X23.573605 Y159.854174 Z-0.125000
G01 X22.445340 Y161.049444 Z-0.125000
G01 X22.074462 Y161.767314 Z-0.125000
G01 X21.946441 Y162.324894 Z-0.125000
G01 X21.984731 Y163.096594 Z-0.125000
G01 X22.173785 Y163.696034 Z-0.125000
G01 X22.636817 Y164.522794 Z-0.125000
G01 X23.327177 Y165.379454 Z-0.125000
G01 X25.273837 Y167.165794 Z-0.125000
G01 X30.169756 Y170.867634 Z-0.125000
G01 X32.041039 Y172.452944 Z-0.125000
G01 X32.886926 Y173.328774 Z-0.125000
G01 X33.527021 Y174.178264 Z-0.125000
G01 X33.939828 Y174.999034 Z-0.125000
G01 X34.115695 Y175.788684 Z-0.125000
G01 X33.941024 Y176.915754 Z-0.125000
G01 X33.144152 Y178.152904 Z-0.125000
G01 X31.855560 Y179.326644 Z-0.125000
G01 X27.973047 Y182.079694 Z-0.125000
G01 X26.404496 Y183.408994 Z-0.125000
G01 X25.784701 Y184.094574 Z-0.125000
G01 X25.199657 Y184.976334 Z-0.125000
G01 X24.889772 Y185.702604 Z-0.125000
G01 X24.722241 Y186.448014 Z-0.125000
G01 X24.796421 Y187.990244 Z-0.125000
G01 X25.339643 Y189.594704 Z-0.125000
G01 X26.350655 Y191.450434 Z-0.125000
G01 X29.124033 Y195.642844 Z-0.125000
G01 X30.214038 Y197.509307 Z-0.125000
G01 X31.180795 Y199.743128 Z-0.125000
G01 X31.664153 Y201.913488 Z-0.125000
G01 X31.660153 Y204.021671 Z-0.125000
G01 X31.179147 Y206.257876 Z-0.125000
G01 X30.340426 Y208.448615 Z-0.125000
G01 X27.765675 Y214.054024 Z-0.125000
G01 X27.168626 Y215.893016 Z-0.125000
G01 X26.815656 Y217.763063 Z-0.125000
G01 X26.742676 Y219.670227 Z-0.125000
G01 X27.022662 Y222.005738 Z-0.125000
G01 X27.568237 Y224.184500 Z-0.125000
G01 X28.812546 Y227.988059 Z-0.125000
G00 Z5.000000

(End cutting path id: polyline2838)


(Start cutting path id: polyline2836)
(Change tool to Default tool)

G00 Z5.000000
G00 X29.874725 Y36.583614

G00 Z4.875000 (Fast pre-penetrate)
G01 Z-0.125000 F400.0(Penetrate)
G01 X29.824475 Y42.900934 Z-0.125000 F800.000000
G01 X29.917795 Y48.661914 Z-0.125000
G01 X30.801996 Y66.596914 Z-0.125000
G01 X30.812636 Y71.772844 Z-0.125000
G01 X30.611616 Y74.237554 Z-0.125000
G01 X30.204832 Y76.675934 Z-0.125000
G01 X29.624533 Y78.900154 Z-0.125000
G01 X27.913576 Y84.042574 Z-0.125000
G01 X27.644385 Y85.349104 Z-0.125000
G01 X27.570205 Y86.680774 Z-0.125000
G01 X27.759233 Y88.047144 Z-0.125000
G01 X28.247417 Y89.451774 Z-0.125000
G01 X29.159123 Y91.104104 Z-0.125000
G01 X31.986355 Y95.303724 Z-0.125000
G01 X32.461338 Y96.515744 Z-0.125000
G01 X32.541498 Y97.483654 Z-0.125000
G01 X32.278289 Y98.407314 Z-0.125000
G01 X31.662123 Y99.285544 Z-0.125000
G01 X30.511125 Y100.285774 Z-0.125000
G01 X27.571399 Y102.203734 Z-0.125000
G01 X26.504153 Y103.022084 Z-0.125000
G01 X25.776689 Y103.885964 Z-0.125000
G01 X25.520659 Y104.810814 Z-0.125000
G01 X25.812610 Y105.807474 Z-0.125000
G01 X26.879856 Y107.096064 Z-0.125000
G01 X28.575232 Y108.466014 Z-0.125000
G01 X32.576222 Y111.284884 Z-0.125000
G01 X33.898302 Y112.415544 Z-0.125000
G01 X34.728648 Y113.481594 Z-0.125000
G01 X34.892550 Y113.885984 Z-0.125000
G01 X34.944000 Y114.467474 Z-0.125000
G01 X34.848280 Y114.838384 Z-0.125000
G01 X34.509654 Y115.369614 Z-0.125000
G01 X33.952115 Y115.872144 Z-0.125000
G01 X33.199539 Y116.348334 Z-0.125000
G01 X31.240927 Y117.243284 Z-0.125000
G01 X26.340223 Y119.097794 Z-0.125000
G01 X24.254759 Y120.168634 Z-0.125000
G01 X23.436378 Y120.827894 Z-0.125000
G01 X23.030790 Y121.350754 Z-0.125000
G01 X22.809430 Y121.896334 Z-0.125000
G01 X22.769950 Y122.465864 Z-0.125000
G01 X22.907543 Y123.059284 Z-0.125000
G01 X23.206633 Y123.673064 Z-0.125000
G01 X24.442607 Y125.174634 Z-0.125000
G01 X26.210968 Y126.745604 Z-0.125000
G01 X32.141841 Y131.541034 Z-0.125000
G01 X33.932961 Y133.307004 Z-0.125000
G01 X35.305306 Y135.017964 Z-0.125000
G01 X36.376141 Y136.882034 Z-0.125000
G01 X37.038982 Y138.693484 Z-0.125000
G01 X37.458928 Y140.855524 Z-0.125000
G01 X37.609683 Y143.558304 Z-0.125000
G01 X37.468500 Y146.030214 Z-0.125000
G01 X37.022205 Y148.272414 Z-0.125000
G01 X35.037284 Y151.080514 Z-0.125000
G01 X32.903989 Y153.485384 Z-0.125000
G01 X31.071006 Y155.164024 Z-0.125000
G01 X26.177480 Y158.168364 Z-0.125000
G01 X24.204511 Y159.636404 Z-0.125000
G01 X23.179128 Y160.844834 Z-0.125000
G01 X22.784294 Y161.943214 Z-0.125000
G01 X22.802244 Y162.711344 Z-0.125000
G01 X22.969736 Y163.308384 Z-0.125000
G01 X23.396887 Y164.130354 Z-0.125000
G01 X24.044161 Y164.981044 Z-0.125000
G01 X25.898694 Y166.755384 Z-0.125000
G01 X31.266046 Y170.902344 Z-0.125000
G01 X33.049960 Y172.475704 Z-0.125000
G01 X33.843243 Y173.345524 Z-0.125000
G01 X34.435453 Y174.189014 Z-0.125000
G01 X34.807566 Y175.003824 Z-0.125000
G01 X34.936784 Y175.594884 Z-0.125000
G01 X34.817138 Y176.729134 Z-0.125000
G01 X34.098090 Y177.977024 Z-0.125000
G01 X32.689825 Y179.327844 Z-0.125000
G01 X28.690071 Y182.256774 Z-0.125000
G01 X27.183723 Y183.593234 Z-0.125000
G01 X26.461032 Y184.458264 Z-0.125000
G01 X26.025545 Y185.167784 Z-0.125000
G01 X25.725233 Y185.895224 Z-0.125000
G01 X25.538571 Y186.829684 Z-0.125000
G01 X25.651039 Y188.376704 Z-0.125000
G01 X26.194234 Y189.979954 Z-0.125000
G01 X27.175334 Y191.833304 Z-0.125000
G01 X29.985829 Y196.221904 Z-0.125000
G01 X31.141600 Y198.288227 Z-0.125000
G01 X32.049716 Y200.514835 Z-0.125000
G01 X32.500797 Y202.681658 Z-0.125000
G01 X32.492797 Y204.787408 Z-0.125000
G01 X31.966353 Y207.210248 Z-0.125000
G01 X31.119256 Y209.399778 Z-0.125000
G01 X28.615057 Y214.823377 Z-0.125000
G01 X28.006056 Y216.659949 Z-0.125000
G01 X27.645907 Y218.529996 Z-0.125000
G01 X27.577707 Y220.437187 Z-0.125000
G01 X27.803839 Y222.382625 Z-0.125000
G01 X28.400888 Y224.760026 Z-0.125000
G01 X29.483674 Y227.966536 Z-0.125000
G00 Z5.000000

(End cutting path id: polyline2836)


(Start cutting path id: polyline2834)
(Change tool to Default tool)

G00 Z5.000000
G00 X30.408348 Y36.544104

G00 Z4.875000 (Fast pre-penetrate)
G01 Z-0.125000 F400.0(Penetrate)
G01 X30.364078 Y43.628394 Z-0.125000 F800.000000
G01 X30.511243 Y50.546354 Z-0.125000
G01 X30.819931 Y56.910354 Z-0.125000
G01 X31.596423 Y67.933384 Z-0.125000
G01 X31.665823 Y72.733584 Z-0.125000
G01 X31.464804 Y75.198324 Z-0.125000
G01 X31.065185 Y77.446454 Z-0.125000
G01 X30.438251 Y79.664724 Z-0.125000
G01 X28.752446 Y84.426624 Z-0.125000
G01 X28.472460 Y85.731974 Z-0.125000
G01 X28.406650 Y87.064844 Z-0.125000
G01 X28.623223 Y88.434794 Z-0.125000
G01 X29.156846 Y89.845444 Z-0.125000
G01 X29.988389 Y91.294354 Z-0.125000
G01 X32.742636 Y95.294114 Z-0.125000
G01 X33.263111 Y96.510954 Z-0.125000
G01 X33.381561 Y97.484854 Z-0.125000
G01 X33.065655 Y98.593984 Z-0.125000
G01 X32.408822 Y99.466194 Z-0.125000
G01 X31.214738 Y100.460484 Z-0.125000
G01 X28.257078 Y102.376014 Z-0.125000
G01 X27.220927 Y103.199194 Z-0.125000
G01 X26.546121 Y104.069004 Z-0.125000
G01 X26.359486 Y105.003434 Z-0.125000
G01 X26.725617 Y106.009684 Z-0.125000
G01 X27.871817 Y107.307844 Z-0.125000
G01 X29.298015 Y108.451654 Z-0.125000
G01 X33.294179 Y111.270524 Z-0.125000
G01 X34.642608 Y112.403574 Z-0.125000
G01 X35.513660 Y113.475604 Z-0.125000
G01 X35.752940 Y114.081024 Z-0.125000
G01 X35.784050 Y114.468674 Z-0.125000
G01 X35.636885 Y115.023824 Z-0.125000
G01 X35.259999 Y115.550264 Z-0.125000
G01 X33.896029 Y116.523004 Z-0.125000
G01 X32.277213 Y117.270794 Z-0.125000
G01 X27.072581 Y119.276054 Z-0.125000
G01 X25.038618 Y120.352894 Z-0.125000
G01 X24.245349 Y121.016914 Z-0.125000
G01 X23.852909 Y121.540974 Z-0.125000
G01 X23.639938 Y122.087784 Z-0.125000
G01 X23.602848 Y122.657274 Z-0.125000
G01 X23.734459 Y123.249534 Z-0.125000
G01 X24.024016 Y123.862124 Z-0.125000
G01 X25.212105 Y125.357724 Z-0.125000
G01 X26.912268 Y126.920274 Z-0.125000
G01 X32.643358 Y131.689394 Z-0.125000
G01 X34.398571 Y133.450574 Z-0.125000
G01 X35.761344 Y135.161554 Z-0.125000
G01 X36.747230 Y136.822244 Z-0.125000
G01 X37.534490 Y138.840654 Z-0.125000
G01 X37.981968 Y141.007474 Z-0.125000
G01 X38.129133 Y143.517654 Z-0.125000
G01 X38.014273 Y145.418834 Z-0.125000
G01 X37.718733 Y147.104644 Z-0.125000
G01 X36.957795 Y148.347794 Z-0.125000
G01 X35.037443 Y150.971614 Z-0.125000
G01 X32.904147 Y153.377714 Z-0.125000
G01 X31.071164 Y155.055164 Z-0.125000
G01 X26.882356 Y157.768754 Z-0.125000
G01 X25.170189 Y159.078874 Z-0.125000
G01 X24.110122 Y160.282514 Z-0.125000
G01 X23.822997 Y160.819724 Z-0.125000
G01 X23.617192 Y161.560354 Z-0.125000
G01 X23.630482 Y162.328484 Z-0.125000
G01 X23.867382 Y163.125294 Z-0.125000
G01 X24.325628 Y163.950874 Z-0.125000
G01 X24.992058 Y164.805134 Z-0.125000
G01 X26.852547 Y166.579514 Z-0.125000
G01 X31.843012 Y170.485964 Z-0.125000
G01 X33.871033 Y172.283064 Z-0.125000
G01 X34.653507 Y173.150474 Z-0.125000
G01 X35.242167 Y173.994014 Z-0.125000
G01 X35.620250 Y174.809984 Z-0.125000
G01 X35.780576 Y175.597284 Z-0.125000
G01 X35.619067 Y176.725544 Z-0.125000
G01 X34.884425 Y177.971054 Z-0.125000
G01 X33.495330 Y179.324254 Z-0.125000
G01 X29.801831 Y182.101234 Z-0.125000
G01 X28.110044 Y183.606384 Z-0.125000
G01 X26.939915 Y185.178554 Z-0.125000
G01 X26.618040 Y185.903594 Z-0.125000
G01 X26.394301 Y186.832084 Z-0.125000
G01 X26.429001 Y188.369524 Z-0.125000
G01 X26.965016 Y190.164234 Z-0.125000
G01 X28.001168 Y192.214974 Z-0.125000
G01 X30.715919 Y196.591617 Z-0.125000
G01 X31.956679 Y198.861317 Z-0.125000
G01 X32.910247 Y201.284161 Z-0.125000
G01 X33.336202 Y203.448578 Z-0.125000
G01 X33.305092 Y205.743397 Z-0.125000
G01 X32.814515 Y207.979575 Z-0.125000
G01 X31.981776 Y210.170301 Z-0.125000
G01 X29.391431 Y215.774553 Z-0.125000
G01 X28.790806 Y217.612308 Z-0.125000
G01 X28.497672 Y219.106706 Z-0.125000
G01 X28.405542 Y221.011477 Z-0.125000
G01 X28.624508 Y222.955744 Z-0.125000
G01 X29.172476 Y225.135675 Z-0.125000
G01 X30.139232 Y227.943777 Z-0.125000
G00 Z5.000000

(End cutting path id: polyline2834)


(Start cutting path id: polyline2832)
(Change tool to Default tool)

G00 Z5.000000
G00 X30.982678 Y36.510624

G00 Z4.875000 (Fast pre-penetrate)
G01 Z-0.125000 F400.0(Penetrate)
G01 X30.952768 Y44.555654 Z-0.125000 F800.000000
G01 X31.146569 Y52.436774 Z-0.125000
G01 X31.537813 Y59.194404 Z-0.125000
G01 X32.404066 Y69.272234 Z-0.125000
G01 X32.512944 Y73.501714 Z-0.125000
G01 X32.341863 Y75.779784 Z-0.125000
G01 X31.978125 Y77.840094 Z-0.125000
G01 X31.334454 Y80.055974 Z-0.125000
G01 X29.569642 Y84.808294 Z-0.125000
G01 X29.290879 Y86.113644 Z-0.125000
G01 X29.237039 Y87.256294 Z-0.125000
G01 X29.451206 Y88.626244 Z-0.125000
G01 X29.997977 Y90.038054 Z-0.125000
G01 X30.853448 Y91.490554 Z-0.125000
G01 X33.517974 Y95.286944 Z-0.125000
G01 X34.070767 Y96.508524 Z-0.125000
G01 X34.216736 Y97.484854 Z-0.125000
G01 X34.013324 Y98.416924 Z-0.125000
G01 X33.288253 Y99.472204 Z-0.125000
G01 X32.104963 Y100.468864 Z-0.125000
G01 X29.138929 Y102.381994 Z-0.125000
G01 X28.088433 Y103.203974 Z-0.125000
G01 X27.395680 Y104.071404 Z-0.125000
G01 X27.188679 Y105.003434 Z-0.125000
G01 X27.534443 Y106.006094 Z-0.125000
G01 X28.656740 Y107.301864 Z-0.125000
G01 X30.066188 Y108.443294 Z-0.125000
G01 X34.052794 Y111.260954 Z-0.125000
G01 X35.635716 Y112.616564 Z-0.125000
G01 X36.423016 Y113.676624 Z-0.125000
G01 X36.571378 Y114.079824 Z-0.125000
G01 X36.603678 Y114.658924 Z-0.125000
G01 X36.406248 Y115.208104 Z-0.125000
G01 X36.150218 Y115.557444 Z-0.125000
G01 X34.844876 Y116.537344 Z-0.125000
G01 X32.918542 Y117.437104 Z-0.125000
G01 X28.113555 Y119.303594 Z-0.125000
G01 X26.041292 Y120.375634 Z-0.125000
G01 X25.207356 Y121.033684 Z-0.125000
G01 X24.775419 Y121.551724 Z-0.125000
G01 X24.515800 Y122.093764 Z-0.125000
G01 X24.435640 Y122.849934 Z-0.125000
G01 X24.567251 Y123.440954 Z-0.125000
G01 X24.847237 Y124.052354 Z-0.125000
G01 X25.992253 Y125.543164 Z-0.125000
G01 X27.625440 Y127.097384 Z-0.125000
G01 X33.376817 Y132.060304 Z-0.125000
G01 X35.042295 Y133.809534 Z-0.125000
G01 X36.195727 Y135.301534 Z-0.125000
G01 X37.278514 Y137.166814 Z-0.125000
G01 X37.979628 Y138.981844 Z-0.125000
G01 X38.410369 Y140.954814 Z-0.125000
G01 X38.565909 Y143.274774 Z-0.125000
G01 X38.483349 Y144.796674 Z-0.125000
G01 X38.263200 Y146.109184 Z-0.125000
G01 X36.957870 Y148.238894 Z-0.125000
G01 X35.175112 Y150.690444 Z-0.125000
G01 X33.557506 Y152.588034 Z-0.125000
G01 X31.467270 Y154.614844 Z-0.125000
G01 X30.427555 Y155.438024 Z-0.125000
G01 X27.310766 Y157.524674 Z-0.125000
G01 X25.907300 Y158.682854 Z-0.125000
G01 X24.905873 Y159.894874 Z-0.125000
G01 X24.569640 Y160.617504 Z-0.125000
G01 X24.446404 Y161.176284 Z-0.125000
G01 X24.464354 Y161.945614 Z-0.125000
G01 X24.697665 Y162.742434 Z-0.125000
G01 X25.142749 Y163.566804 Z-0.125000
G01 X25.788827 Y164.416284 Z-0.125000
G01 X27.855147 Y166.409614 Z-0.125000
G01 X32.758244 Y170.305304 Z-0.125000
G01 X34.732410 Y172.094034 Z-0.125000
G01 X36.070070 Y173.801374 Z-0.125000
G01 X36.444564 Y174.616164 Z-0.125000
G01 X36.609662 Y175.404624 Z-0.125000
G01 X36.567782 Y176.165574 Z-0.125000
G01 X36.330856 Y176.901414 Z-0.125000
G01 X35.915696 Y177.614494 Z-0.125000
G01 X35.347349 Y178.307234 Z-0.125000
G01 X33.872135 Y179.647284 Z-0.125000
G01 X30.078134 Y182.603764 Z-0.125000
G01 X28.564606 Y184.131634 Z-0.125000
G01 X27.946048 Y185.009864 Z-0.125000
G01 X27.582309 Y185.728914 Z-0.125000
G01 X27.207816 Y187.212554 Z-0.125000
G01 X27.283196 Y188.755984 Z-0.125000
G01 X27.821605 Y190.550694 Z-0.125000
G01 X28.824229 Y192.596644 Z-0.125000
G01 X31.561779 Y197.168327 Z-0.125000
G01 X32.761793 Y199.432048 Z-0.125000
G01 X33.703437 Y201.854888 Z-0.125000
G01 X34.170058 Y204.214315 Z-0.125000
G01 X34.142538 Y206.510330 Z-0.125000
G01 X33.667515 Y208.748928 Z-0.125000
G01 X32.767761 Y211.122700 Z-0.125000
G01 X30.164268 Y216.724559 Z-0.125000
G01 X29.673731 Y218.193803 Z-0.125000
G01 X29.351855 Y219.684611 Z-0.125000
G01 X29.231012 Y221.394345 Z-0.125000
G01 X29.410469 Y223.333827 Z-0.125000
G01 X29.883059 Y225.311582 Z-0.125000
G01 X30.781617 Y227.918665 Z-0.125000
G00 Z5.000000

(End cutting path id: polyline2832)


(Start cutting path id: polyline2830)
(Change tool to Default tool)

G00 Z5.000000
G00 X31.616791 Y36.485504

G00 Z4.875000 (Fast pre-penetrate)
G01 Z-0.125000 F400.0(Penetrate)
G01 X31.603501 Y45.681524 Z-0.125000 F800.000000
G01 X31.828436 Y54.334364 Z-0.125000
G01 X32.225662 Y60.517684 Z-0.125000
G01 X33.217518 Y70.419634 Z-0.125000
G01 X33.350325 Y74.268644 Z-0.125000
G01 X33.198374 Y76.357684 Z-0.125000
G01 X32.864574 Y78.230164 Z-0.125000
G01 X32.199340 Y80.443624 Z-0.125000
G01 X30.421407 Y85.002154 Z-0.125000
G01 X30.127064 Y86.306284 Z-0.125000
G01 X30.080404 Y87.641554 Z-0.125000
G01 X30.294584 Y88.818864 Z-0.125000
G01 X30.764781 Y90.029684 Z-0.125000
G01 X31.611878 Y91.480994 Z-0.125000
G01 X34.435520 Y95.489144 Z-0.125000
G01 X34.946424 Y96.704754 Z-0.125000
G01 X35.039744 Y97.675104 Z-0.125000
G01 X34.924883 Y98.235034 Z-0.125000
G01 X34.674836 Y98.778224 Z-0.125000
G01 X33.789439 Y99.811984 Z-0.125000
G01 X32.724586 Y100.632764 Z-0.125000
G01 X29.750176 Y102.544714 Z-0.125000
G01 X28.754717 Y103.373864 Z-0.125000
G01 X28.146913 Y104.253274 Z-0.125000
G01 X28.020088 Y105.003434 Z-0.125000
G01 X28.361054 Y106.004904 Z-0.125000
G01 X29.476172 Y107.300674 Z-0.125000
G01 X30.878455 Y108.440904 Z-0.125000
G01 X34.850703 Y111.256184 Z-0.125000
G01 X36.438411 Y112.612974 Z-0.125000
G01 X37.237635 Y113.674234 Z-0.125000
G01 X37.435065 Y114.274864 Z-0.125000
G01 X37.441665 Y114.658924 Z-0.125000
G01 X37.261012 Y115.210494 Z-0.125000
G01 X36.861367 Y115.733354 Z-0.125000
G01 X35.479451 Y116.703684 Z-0.125000
G01 X33.876189 Y117.452644 Z-0.125000
G01 X28.784037 Y119.474684 Z-0.125000
G01 X26.783562 Y120.555084 Z-0.125000
G01 X25.986703 Y121.217924 Z-0.125000
G01 X25.578722 Y121.739604 Z-0.125000
G01 X25.337037 Y122.283974 Z-0.125000
G01 X25.271227 Y123.041344 Z-0.125000
G01 X25.678012 Y124.243804 Z-0.125000
G01 X26.784754 Y125.729824 Z-0.125000
G01 X28.352109 Y127.274444 Z-0.125000
G01 X33.870216 Y132.207464 Z-0.125000
G01 X35.298794 Y133.735354 Z-0.125000
G01 X36.464137 Y135.227354 Z-0.125000
G01 X37.578058 Y137.097404 Z-0.125000
G01 X38.311464 Y138.917224 Z-0.125000
G01 X38.768553 Y140.892584 Z-0.125000
G01 X38.924094 Y143.021094 Z-0.125000
G01 X38.742205 Y145.105364 Z-0.125000
G01 X37.076726 Y147.954134 Z-0.125000
G01 X35.175545 Y150.581584 Z-0.125000
G01 X33.557938 Y152.479174 Z-0.125000
G01 X31.659150 Y154.340884 Z-0.125000
G01 X27.930967 Y157.113074 Z-0.125000
G01 X26.610044 Y158.283234 Z-0.125000
G01 X25.680405 Y159.503624 Z-0.125000
G01 X25.376503 Y160.231064 Z-0.125000
G01 X25.271214 Y160.792224 Z-0.125000
G01 X25.307104 Y161.562744 Z-0.125000
G01 X25.547580 Y162.360774 Z-0.125000
G01 X25.991481 Y163.185134 Z-0.125000
G01 X26.626817 Y164.034614 Z-0.125000
G01 X28.645239 Y166.020744 Z-0.125000
G01 X33.452619 Y169.903294 Z-0.125000
G01 X35.421999 Y171.693194 Z-0.125000
G01 X36.366036 Y172.773584 Z-0.125000
G01 X36.919986 Y173.612344 Z-0.125000
G01 X37.281331 Y174.425914 Z-0.125000
G01 X37.441657 Y175.213214 Z-0.125000
G01 X37.432357 Y175.786294 Z-0.125000
G01 X37.254098 Y176.529314 Z-0.125000
G01 X36.531420 Y177.777194 Z-0.125000
G01 X35.214113 Y179.138784 Z-0.125000
G01 X31.320792 Y182.273554 Z-0.125000
G01 X29.748664 Y183.794254 Z-0.125000
G01 X29.069072 Y184.664064 Z-0.125000
G01 X28.554593 Y185.555444 Z-0.125000
G01 X28.266232 Y186.284064 Z-0.125000
G01 X28.061623 Y187.216134 Z-0.125000
G01 X28.104693 Y188.946234 Z-0.125000
G01 X28.677826 Y190.937134 Z-0.125000
G01 X29.644542 Y192.978314 Z-0.125000
G01 X32.510074 Y197.949617 Z-0.125000
G01 X33.649108 Y200.206147 Z-0.125000
G01 X34.547666 Y202.623018 Z-0.125000
G01 X35.001126 Y204.981249 Z-0.125000
G01 X35.046596 Y206.328481 Z-0.125000
G01 X34.960446 Y207.466318 Z-0.125000
G01 X34.412465 Y209.886765 Z-0.125000
G01 X33.558203 Y212.075072 Z-0.125000
G01 X31.080313 Y217.309603 Z-0.125000
G01 X30.504827 Y218.959540 Z-0.125000
G01 X30.179362 Y220.450348 Z-0.125000
G01 X30.065698 Y222.160082 Z-0.125000
G01 X30.233189 Y223.906920 Z-0.125000
G01 X30.655554 Y225.686076 Z-0.125000
G01 X31.412930 Y227.892356 Z-0.125000
G00 Z5.000000

(End cutting path id: polyline2830)


(Start cutting path id: polyline2828)
(Change tool to Default tool)

G00 Z5.000000
G00 X32.315512 Y36.467524

G00 Z4.875000 (Fast pre-penetrate)
G01 Z-0.125000 F400.0(Penetrate)
G01 X32.322112 Y47.391264 Z-0.125000 F800.000000
G01 X32.555410 Y56.236744 Z-0.125000
G01 X32.987320 Y62.233424 Z-0.125000
G01 X34.035423 Y71.375594 Z-0.125000
G01 X34.183784 Y75.035604 Z-0.125000
G01 X34.039012 Y76.933194 Z-0.125000
G01 X33.681256 Y78.803244 Z-0.125000
G01 X33.032799 Y80.826484 Z-0.125000
G01 X31.256063 Y85.194754 Z-0.125000
G01 X30.955750 Y86.496534 Z-0.125000
G01 X30.905500 Y87.640354 Z-0.125000
G01 X31.155548 Y89.013894 Z-0.125000
G01 X31.658076 Y90.229504 Z-0.125000
G01 X32.545866 Y91.685604 Z-0.125000
G01 X35.260616 Y95.487954 Z-0.125000
G01 X35.778685 Y96.704754 Z-0.125000
G01 X35.873205 Y97.675104 Z-0.125000
G01 X35.755952 Y98.235034 Z-0.125000
G01 X35.502275 Y98.777034 Z-0.125000
G01 X34.607346 Y99.810794 Z-0.125000
G01 X33.535327 Y100.629174 Z-0.125000
G01 X30.554908 Y102.541124 Z-0.125000
G01 X29.567825 Y103.371464 Z-0.125000
G01 X28.970776 Y104.252074 Z-0.125000
G01 X28.854719 Y105.003434 Z-0.125000
G01 X29.208886 Y106.007294 Z-0.125000
G01 X30.333522 Y107.303064 Z-0.125000
G01 X32.052855 Y108.676604 Z-0.125000
G01 X35.693709 Y111.257374 Z-0.125000
G01 X37.270649 Y112.612974 Z-0.125000
G01 X38.066284 Y113.674234 Z-0.125000
G01 X38.224217 Y114.077434 Z-0.125000
G01 X38.275667 Y114.658924 Z-0.125000
G01 X38.103376 Y115.211674 Z-0.125000
G01 X37.714539 Y115.735744 Z-0.125000
G01 X36.363717 Y116.710864 Z-0.125000
G01 X34.442169 Y117.610614 Z-0.125000
G01 X29.754449 Y119.491434 Z-0.125000
G01 X27.740786 Y120.571864 Z-0.125000
G01 X26.918802 Y121.231094 Z-0.125000
G01 X26.484512 Y121.749154 Z-0.125000
G01 X26.155458 Y122.473044 Z-0.125000
G01 X26.094438 Y123.040144 Z-0.125000
G01 X26.182978 Y123.626424 Z-0.125000
G01 X26.515582 Y124.436404 Z-0.125000
G01 X27.585221 Y125.916454 Z-0.125000
G01 X29.087980 Y127.453904 Z-0.125000
G01 X34.361981 Y132.354634 Z-0.125000
G01 X35.911428 Y134.089514 Z-0.125000
G01 X37.000198 Y135.571924 Z-0.125000
G01 X37.941842 Y137.227834 Z-0.125000
G01 X38.657314 Y139.045254 Z-0.125000
G01 X39.062902 Y140.823194 Z-0.125000
G01 X39.207674 Y142.757904 Z-0.125000
G01 X39.132294 Y144.089534 Z-0.125000
G01 X38.831981 Y144.817004 Z-0.125000
G01 X37.521853 Y147.138174 Z-0.125000
G01 X35.976034 Y149.428184 Z-0.125000
G01 X34.321324 Y151.512414 Z-0.125000
G01 X32.737193 Y153.222174 Z-0.125000
G01 X31.467744 Y154.399484 Z-0.125000
G01 X28.712287 Y156.531584 Z-0.125000
G01 X27.440445 Y157.707724 Z-0.125000
G01 X26.531133 Y158.931704 Z-0.125000
G01 X26.111187 Y160.217904 Z-0.125000
G01 X26.124477 Y160.986034 Z-0.125000
G01 X26.333871 Y161.780494 Z-0.125000
G01 X26.738263 Y162.598854 Z-0.125000
G01 X27.502804 Y163.656524 Z-0.125000
G01 X29.491327 Y165.640264 Z-0.125000
G01 X34.206580 Y169.509634 Z-0.125000
G01 X36.366224 Y171.516124 Z-0.125000
G01 X37.265965 Y172.590544 Z-0.125000
G01 X37.791226 Y173.425674 Z-0.125000
G01 X38.129799 Y174.235694 Z-0.125000
G01 X38.276977 Y175.021754 Z-0.125000
G01 X38.262617 Y175.594884 Z-0.125000
G01 X38.085553 Y176.337854 Z-0.125000
G01 X37.386792 Y177.588184 Z-0.125000
G01 X36.116173 Y178.956944 Z-0.125000
G01 X32.142689 Y182.272354 Z-0.125000
G01 X30.617197 Y183.799034 Z-0.125000
G01 X29.950767 Y184.670044 Z-0.125000
G01 X29.437510 Y185.561424 Z-0.125000
G01 X29.085736 Y186.474324 Z-0.125000
G01 X28.893079 Y187.407554 Z-0.125000
G01 X28.854789 Y188.359954 Z-0.125000
G01 X28.958881 Y189.332694 Z-0.125000
G01 X29.530805 Y191.322394 Z-0.125000
G01 X30.460444 Y193.359984 Z-0.125000
G01 X33.323596 Y198.522737 Z-0.125000
G01 X34.518877 Y200.977866 Z-0.125000
G01 X35.436565 Y203.588578 Z-0.125000
G01 X35.845743 Y205.940826 Z-0.125000
G01 X35.778743 Y208.423463 Z-0.125000
G01 X35.216418 Y210.841531 Z-0.125000
G01 X34.350165 Y213.028667 Z-0.125000
G01 X31.922539 Y218.077733 Z-0.125000
G01 X31.390112 Y219.542232 Z-0.125000
G01 X31.034775 Y221.028214 Z-0.125000
G01 X30.897182 Y222.544134 Z-0.125000
G01 X31.022811 Y224.285003 Z-0.125000
G01 X31.368602 Y225.863139 Z-0.125000
G01 X32.036243 Y227.866007 Z-0.125000
G00 Z5.000000

(End cutting path id: polyline2828)


(Start cutting path id: polyline2826)
(Change tool to Default tool)

G00 Z5.000000
G00 X33.077700 Y36.459164

G00 Z4.875000 (Fast pre-penetrate)
G01 Z-0.125000 F400.0(Penetrate)
G01 X33.099240 Y50.066544 Z-0.125000 F800.000000
G01 X33.301416 Y57.758634 Z-0.125000
G01 X33.730960 Y63.371264 Z-0.125000
G01 X34.890321 Y72.527774 Z-0.125000
G01 X35.017146 Y75.611074 Z-0.125000
G01 X34.860409 Y77.506294 Z-0.125000
G01 X34.466786 Y79.371594 Z-0.125000
G01 X33.905617 Y81.023884 Z-0.125000
G01 X32.132471 Y85.200744 Z-0.125000
G01 X31.802260 Y86.498934 Z-0.125000
G01 X31.732860 Y87.639164 Z-0.125000
G01 X31.970956 Y89.011504 Z-0.125000
G01 X32.472288 Y90.227114 Z-0.125000
G01 X33.367217 Y91.684404 Z-0.125000
G01 X35.986290 Y95.282164 Z-0.125000
G01 X36.562959 Y96.507324 Z-0.125000
G01 X36.712518 Y97.484854 Z-0.125000
G01 X36.500783 Y98.415724 Z-0.125000
G01 X35.910913 Y99.297494 Z-0.125000
G01 X34.764700 Y100.297734 Z-0.125000
G01 X31.787911 Y102.209714 Z-0.125000
G01 X30.700298 Y103.026874 Z-0.125000
G01 X29.859184 Y104.067814 Z-0.125000
G01 X29.691692 Y105.003434 Z-0.125000
G01 X30.074547 Y106.012074 Z-0.125000
G01 X31.226742 Y107.311424 Z-0.125000
G01 X32.640976 Y108.452854 Z-0.125000
G01 X36.577357 Y111.264544 Z-0.125000
G01 X38.130341 Y112.616564 Z-0.125000
G01 X38.908043 Y113.675434 Z-0.125000
G01 X39.099490 Y114.274864 Z-0.125000
G01 X39.104790 Y114.658924 Z-0.125000
G01 X38.931316 Y115.211674 Z-0.125000
G01 X38.546054 Y115.735744 Z-0.125000
G01 X37.210787 Y116.712054 Z-0.125000
G01 X35.658986 Y117.469424 Z-0.125000
G01 X30.685258 Y119.504614 Z-0.125000
G01 X28.438285 Y120.746534 Z-0.125000
G01 X27.667775 Y121.411784 Z-0.125000
G01 X27.266959 Y121.934634 Z-0.125000
G01 X26.971433 Y122.663254 Z-0.125000
G01 X26.927163 Y123.232804 Z-0.125000
G01 X27.025273 Y123.820234 Z-0.125000
G01 X27.357876 Y124.629064 Z-0.125000
G01 X28.395224 Y126.105474 Z-0.125000
G01 X29.834571 Y127.634594 Z-0.125000
G01 X34.646737 Y132.284044 Z-0.125000
G01 X36.160264 Y134.014144 Z-0.125000
G01 X37.235885 Y135.495354 Z-0.125000
G01 X38.176319 Y137.150064 Z-0.125000
G01 X38.894185 Y138.968684 Z-0.125000
G01 X39.296183 Y140.745424 Z-0.125000
G01 X39.421812 Y142.486274 Z-0.125000
G01 X39.378742 Y143.438684 Z-0.125000
G01 X38.741000 Y144.888794 Z-0.125000
G01 X37.299261 Y147.384624 Z-0.125000
G01 X35.974788 Y149.319294 Z-0.125000
G01 X34.320078 Y151.404744 Z-0.125000
G01 X32.735946 Y153.114484 Z-0.125000
G01 X29.251842 Y156.110444 Z-0.125000
G01 X28.079321 Y157.299744 Z-0.125000
G01 X27.266908 Y158.535674 Z-0.125000
G01 X26.928296 Y159.832644 Z-0.125000
G01 X26.979746 Y160.605554 Z-0.125000
G01 X27.217829 Y161.403614 Z-0.125000
G01 X27.641404 Y162.225554 Z-0.125000
G01 X28.416699 Y163.284424 Z-0.125000
G01 X30.390865 Y165.265814 Z-0.125000
G01 X35.277252 Y169.349314 Z-0.125000
G01 X37.142513 Y171.124884 Z-0.125000
G01 X38.039874 Y172.200504 Z-0.125000
G01 X38.572301 Y173.035634 Z-0.125000
G01 X38.926468 Y173.848054 Z-0.125000
G01 X39.097549 Y174.636504 Z-0.125000
G01 X38.964741 Y175.960984 Z-0.125000
G01 X38.662036 Y176.688434 Z-0.125000
G01 X38.215754 Y177.396724 Z-0.125000
G01 X36.982213 Y178.769064 Z-0.125000
G01 X33.120013 Y182.100034 Z-0.125000
G01 X31.462910 Y183.801424 Z-0.125000
G01 X30.309519 Y185.567404 Z-0.125000
G01 X29.952959 Y186.479114 Z-0.125000
G01 X29.722042 Y187.599004 Z-0.125000
G01 X29.750762 Y189.326704 Z-0.125000
G01 X30.307104 Y191.506644 Z-0.125000
G01 X31.269075 Y193.740464 Z-0.125000
G01 X34.226734 Y199.298030 Z-0.125000
G01 X35.369358 Y201.745996 Z-0.125000
G01 X36.259501 Y204.353118 Z-0.125000
G01 X36.684259 Y206.900364 Z-0.125000
G01 X36.599309 Y209.379451 Z-0.125000
G01 X36.024993 Y211.796322 Z-0.125000
G01 X35.144408 Y213.981039 Z-0.125000
G01 X32.763418 Y218.845890 Z-0.125000
G01 X32.276470 Y220.123687 Z-0.125000
G01 X31.927089 Y221.419458 Z-0.125000
G01 X31.736878 Y222.928199 Z-0.125000
G01 X31.791918 Y224.468075 Z-0.125000
G01 X32.087419 Y226.040202 Z-0.125000
G01 X32.653373 Y227.838501 Z-0.125000
G00 Z5.000000

(End cutting path id: polyline2826)


(Start cutting path id: polyline2824)
(Change tool to Default tool)

G00 Z5.000000
G00 X33.897251 Y36.456774

G00 Z4.875000 (Fast pre-penetrate)
G01 Z-0.125000 F400.0(Penetrate)
G01 X33.906551 Y52.555204 Z-0.125000 F800.000000
G01 X34.059699 Y58.898864 Z-0.125000
G01 X34.486850 Y64.318844 Z-0.125000
G01 X35.708440 Y73.100914 Z-0.125000
G01 X35.847243 Y76.185404 Z-0.125000
G01 X35.695292 Y77.890344 Z-0.125000
G01 X35.329161 Y79.567784 Z-0.125000
G01 X34.752491 Y81.216524 Z-0.125000
G01 X32.930276 Y85.387404 Z-0.125000
G01 X32.614370 Y86.687954 Z-0.125000
G01 X32.574890 Y87.832974 Z-0.125000
G01 X32.801021 Y89.011504 Z-0.125000
G01 X33.310728 Y90.227114 Z-0.125000
G01 X34.222434 Y91.687994 Z-0.125000
G01 X36.858218 Y95.288134 Z-0.125000
G01 X37.416980 Y96.509724 Z-0.125000
G01 X37.542609 Y97.484854 Z-0.125000
G01 X37.297334 Y98.410944 Z-0.125000
G01 X36.675186 Y99.287924 Z-0.125000
G01 X35.496642 Y100.284574 Z-0.125000
G01 X32.510281 Y102.196524 Z-0.125000
G01 X31.449017 Y103.016104 Z-0.125000
G01 X30.741920 Y103.882374 Z-0.125000
G01 X30.515788 Y104.810814 Z-0.125000
G01 X30.835231 Y105.811054 Z-0.125000
G01 X31.914441 Y107.100844 Z-0.125000
G01 X33.593081 Y108.468404 Z-0.125000
G01 X37.503139 Y111.276504 Z-0.125000
G01 X38.808482 Y112.404774 Z-0.125000
G01 X39.657958 Y113.473214 Z-0.125000
G01 X39.947516 Y114.468674 Z-0.125000
G01 X39.833851 Y115.028644 Z-0.125000
G01 X39.508387 Y115.561074 Z-0.125000
G01 X38.290386 Y116.552924 Z-0.125000
G01 X36.487301 Y117.468224 Z-0.125000
G01 X31.257596 Y119.662554 Z-0.125000
G01 X29.344410 Y120.754914 Z-0.125000
G01 X28.565525 Y121.420144 Z-0.125000
G01 X28.151561 Y121.941814 Z-0.125000
G01 X27.828489 Y122.666844 Z-0.125000
G01 X27.763879 Y123.424204 Z-0.125000
G01 X27.872758 Y124.012884 Z-0.125000
G01 X28.207754 Y124.822904 Z-0.125000
G01 X29.215204 Y126.295734 Z-0.125000
G01 X30.379350 Y127.597474 Z-0.125000
G01 X35.148470 Y132.432404 Z-0.125000
G01 X36.579441 Y134.151734 Z-0.125000
G01 X37.596422 Y135.625764 Z-0.125000
G01 X38.484212 Y137.273304 Z-0.125000
G01 X39.151852 Y139.084764 Z-0.125000
G01 X39.504783 Y140.855524 Z-0.125000
G01 X39.570593 Y142.589204 Z-0.125000
G01 X39.388757 Y143.332174 Z-0.125000
G01 X38.741444 Y144.781134 Z-0.125000
G01 X36.957542 Y147.805754 Z-0.125000
G01 X35.174784 Y150.257334 Z-0.125000
G01 X33.557177 Y152.154934 Z-0.125000
G01 X32.212338 Y153.512934 Z-0.125000
G01 X29.772748 Y155.686884 Z-0.125000
G01 X28.841912 Y156.715854 Z-0.125000
G01 X28.001994 Y158.139654 Z-0.125000
G01 X27.799778 Y158.880244 Z-0.125000
G01 X27.765078 Y159.641194 Z-0.125000
G01 X27.967254 Y160.625884 Z-0.125000
G01 X28.329782 Y161.439494 Z-0.125000
G01 X28.864602 Y162.275824 Z-0.125000
G01 X29.755981 Y163.350234 Z-0.125000
G01 X31.594933 Y165.122224 Z-0.125000
G01 X36.635637 Y169.417514 Z-0.125000
G01 X38.523658 Y171.388094 Z-0.125000
G01 X39.580136 Y173.058354 Z-0.125000
G01 X39.851746 Y173.860004 Z-0.125000
G01 X39.947466 Y174.638904 Z-0.125000
G01 X39.872086 Y175.396264 Z-0.125000
G01 X39.637579 Y176.132084 Z-0.125000
G01 X39.258300 Y176.848754 Z-0.125000
G01 X38.612183 Y177.723384 Z-0.125000
G01 X37.282937 Y179.083774 Z-0.125000
G01 X33.707902 Y182.260354 Z-0.125000
G01 X32.026870 Y184.149584 Z-0.125000
G01 X31.091209 Y185.751644 Z-0.125000
G01 X30.763391 Y186.668164 Z-0.125000
G01 X30.573179 Y187.601394 Z-0.125000
G01 X30.514549 Y188.551374 Z-0.125000
G01 X30.604279 Y189.713164 Z-0.125000
G01 X31.155836 Y191.893094 Z-0.125000
G01 X32.169268 Y194.324314 Z-0.125000
G01 X35.006071 Y199.866338 Z-0.125000
G01 X36.203732 Y202.512930 Z-0.125000
G01 X37.123813 Y205.316246 Z-0.125000
G01 X37.522222 Y207.858745 Z-0.125000
G01 X37.424112 Y210.336609 Z-0.125000
G01 X36.837831 Y212.752271 Z-0.125000
G01 X35.941680 Y214.934635 Z-0.125000
G01 X33.526005 Y219.794672 Z-0.125000
G01 X32.751906 Y222.185221 Z-0.125000
G01 X32.576039 Y223.503712 Z-0.125000
G01 X32.597579 Y224.848551 Z-0.125000
G01 X32.862010 Y226.415905 Z-0.125000
G01 X33.275974 Y227.810996 Z-0.125000
G00 Z5.000000

(End cutting path id: polyline2824)


(Start cutting path id: polyline2822)
(Change tool to Default tool)

G00 Z5.000000
G00 X34.762308 Y36.461554

G00 Z4.875000 (Fast pre-penetrate)
G01 Z-0.125000 F400.0(Penetrate)
G01 X34.730008 Y54.853634 Z-0.125000 F800.000000
G01 X34.844868 Y60.041494 Z-0.125000
G01 X35.297132 Y65.466244 Z-0.125000
G01 X36.561768 Y73.870224 Z-0.125000
G01 X36.680218 Y76.568274 Z-0.125000
G01 X36.545004 Y78.084194 Z-0.125000
G01 X36.172904 Y79.760434 Z-0.125000
G01 X35.573462 Y81.406754 Z-0.125000
G01 X33.774006 Y85.388594 Z-0.125000
G01 X33.477283 Y86.500124 Z-0.125000
G01 X33.397123 Y87.639164 Z-0.125000
G01 X33.586151 Y88.814074 Z-0.125000
G01 X34.065960 Y90.026094 Z-0.125000
G01 X34.959692 Y91.483384 Z-0.125000
G01 X37.630227 Y95.088344 Z-0.125000
G01 X38.221254 Y96.314724 Z-0.125000
G01 X38.377990 Y97.293434 Z-0.125000
G01 X38.295430 Y97.858144 Z-0.125000
G01 X38.075281 Y98.403724 Z-0.125000
G01 X37.231774 Y99.443464 Z-0.125000
G01 X35.947968 Y100.426954 Z-0.125000
G01 X32.967575 Y102.338904 Z-0.125000
G01 X32.005605 Y103.171644 Z-0.125000
G01 X31.444476 Y104.057044 Z-0.125000
G01 X31.357136 Y104.812014 Z-0.125000
G01 X31.741201 Y105.820614 Z-0.125000
G01 X32.882628 Y107.118784 Z-0.125000
G01 X34.281268 Y108.257814 Z-0.125000
G01 X38.176982 Y111.064724 Z-0.125000
G01 X39.732373 Y112.416734 Z-0.125000
G01 X40.534017 Y113.479194 Z-0.125000
G01 X40.778096 Y114.468674 Z-0.125000
G01 X40.641685 Y115.026214 Z-0.125000
G01 X40.300720 Y115.556244 Z-0.125000
G01 X39.065942 Y116.545764 Z-0.125000
G01 X37.272455 Y117.462244 Z-0.125000
G01 X32.431548 Y119.515374 Z-0.125000
G01 X30.224085 Y120.762074 Z-0.125000
G01 X29.617477 Y121.257434 Z-0.125000
G01 X29.025214 Y121.946584 Z-0.125000
G01 X28.684235 Y122.669244 Z-0.125000
G01 X28.590915 Y123.424204 Z-0.125000
G01 X28.672275 Y124.009294 Z-0.125000
G01 X28.961832 Y124.813294 Z-0.125000
G01 X29.879507 Y126.274214 Z-0.125000
G01 X31.154951 Y127.780564 Z-0.125000
G01 X35.650054 Y132.580764 Z-0.125000
G01 X36.838156 Y134.077554 Z-0.125000
G01 X37.819270 Y135.545604 Z-0.125000
G01 X38.677122 Y137.190754 Z-0.125000
G01 X39.317243 Y138.998584 Z-0.125000
G01 X39.618752 Y140.570754 Z-0.125000
G01 X39.676182 Y142.303244 Z-0.125000
G01 X38.831491 Y144.492774 Z-0.125000
G01 X37.076278 Y147.522224 Z-0.125000
G01 X35.975544 Y149.102764 Z-0.125000
G01 X34.320834 Y151.188184 Z-0.125000
G01 X32.736702 Y152.897944 Z-0.125000
G01 X30.605800 Y154.919944 Z-0.125000
G01 X29.704862 Y155.953704 Z-0.125000
G01 X28.868534 Y157.377514 Z-0.125000
G01 X28.651974 Y158.115704 Z-0.125000
G01 X28.590954 Y158.874264 Z-0.125000
G01 X28.695046 Y159.654384 Z-0.125000
G01 X29.063557 Y160.660604 Z-0.125000
G01 X29.691701 Y161.700334 Z-0.125000
G01 X30.559111 Y162.771174 Z-0.125000
G01 X32.349048 Y164.537134 Z-0.125000
G01 X37.538100 Y169.044224 Z-0.125000
G01 X39.375896 Y171.007614 Z-0.125000
G01 X40.407221 Y172.674294 Z-0.125000
G01 X40.677649 Y173.475934 Z-0.125000
G01 X40.779348 Y174.256034 Z-0.125000
G01 X40.717128 Y175.014594 Z-0.125000
G01 X40.501765 Y175.752804 Z-0.125000
G01 X40.147638 Y176.473064 Z-0.125000
G01 X39.536245 Y177.352484 Z-0.125000
G01 X38.270372 Y178.720044 Z-0.125000
G01 X34.456044 Y182.248394 Z-0.125000
G01 X32.847970 Y184.147184 Z-0.125000
G01 X31.870485 Y185.937114 Z-0.125000
G01 X31.399051 Y187.791614 Z-0.125000
G01 X31.346411 Y188.742824 Z-0.125000
G01 X31.430161 Y189.903374 Z-0.125000
G01 X32.000861 Y192.277164 Z-0.125000
G01 X33.053749 Y194.905804 Z-0.125000
G01 X35.961184 Y200.840273 Z-0.125000
G01 X37.099021 Y203.479673 Z-0.125000
G01 X37.977200 Y206.277020 Z-0.125000
G01 X38.357675 Y208.817100 Z-0.125000
G01 X38.251190 Y211.294991 Z-0.125000
G01 X37.655351 Y213.708259 Z-0.125000
G01 X36.740055 Y215.888230 Z-0.125000
G01 X34.445250 Y220.380953 Z-0.125000
G01 X33.616087 Y222.764297 Z-0.125000
G01 X33.431819 Y223.890170 Z-0.125000
G01 X33.409089 Y225.229026 Z-0.125000
G01 X33.595724 Y226.594192 Z-0.125000
G01 X33.907988 Y227.784647 Z-0.125000
G00 Z5.000000

(End cutting path id: polyline2822)


(Start cutting path id: polyline2818)
(Change tool to Default tool)

G00 Z5.000000
G00 X36.584523 Y36.481884

G00 Z4.875000 (Fast pre-penetrate)
G01 Z-0.125000 F400.0(Penetrate)
G01 X36.606063 Y44.724344 Z-0.125000 F800.000000
G01 X36.393079 Y58.110384 Z-0.125000
G01 X36.470849 Y62.336304 Z-0.125000
G01 X36.905179 Y66.991774 Z-0.125000
G01 X38.199753 Y74.442164 Z-0.125000
G01 X38.349311 Y76.952324 Z-0.125000
G01 X38.210508 Y78.467064 Z-0.125000
G01 X37.857578 Y79.954244 Z-0.125000
G01 X37.298802 Y81.415154 Z-0.125000
G01 X35.413175 Y85.386204 Z-0.125000
G01 X35.122421 Y86.497734 Z-0.125000
G01 X35.070971 Y87.640354 Z-0.125000
G01 X35.312656 Y88.822454 Z-0.125000
G01 X35.980283 Y90.249834 Z-0.125000
G01 X36.829773 Y91.509724 Z-0.125000
G01 X38.961872 Y94.278324 Z-0.125000
G01 X39.600758 Y95.319264 Z-0.125000
G01 X39.977657 Y96.326674 Z-0.125000
G01 X40.035087 Y97.100784 Z-0.125000
G01 X39.919030 Y97.660754 Z-0.125000
G01 X39.662960 Y98.202744 Z-0.125000
G01 X38.752451 Y99.234084 Z-0.125000
G01 X37.664878 Y100.050074 Z-0.125000
G01 X34.683290 Y101.962024 Z-0.125000
G01 X33.709368 Y102.793564 Z-0.125000
G01 X33.126676 Y103.676564 Z-0.125000
G01 X33.016602 Y104.427944 Z-0.125000
G01 X33.363563 Y105.431784 Z-0.125000
G01 X34.455948 Y106.722764 Z-0.125000
G01 X35.813948 Y107.858204 Z-0.125000
G01 X39.962063 Y110.888854 Z-0.125000
G01 X41.462443 Y112.233694 Z-0.125000
G01 X42.222197 Y113.290174 Z-0.125000
G01 X42.441150 Y114.277254 Z-0.125000
G01 X42.301164 Y114.833594 Z-0.125000
G01 X41.963774 Y115.364824 Z-0.125000
G01 X40.764904 Y116.357894 Z-0.125000
G01 X39.031227 Y117.282754 Z-0.125000
G01 X34.015649 Y119.504614 Z-0.125000
G01 X32.124039 Y120.600564 Z-0.125000
G01 X30.994564 Y121.603194 Z-0.125000
G01 X30.527956 Y122.309094 Z-0.125000
G01 X30.329330 Y122.858294 Z-0.125000
G01 X30.256340 Y123.615654 Z-0.125000
G01 X30.386755 Y124.399344 Z-0.125000
G01 X31.148903 Y126.031334 Z-0.125000
G01 X32.377671 Y127.723114 Z-0.125000
G01 X36.492339 Y132.665714 Z-0.125000
G01 X37.529646 Y134.142134 Z-0.125000
G01 X38.380332 Y135.594674 Z-0.125000
G01 X38.951059 Y136.818654 Z-0.125000
G01 X39.432025 Y138.222094 Z-0.125000
G01 X39.716796 Y139.600404 Z-0.125000
G01 X39.813706 Y140.954814 Z-0.125000
G01 X39.784996 Y141.716964 Z-0.125000
G01 X39.524140 Y142.641814 Z-0.125000
G01 X38.918729 Y144.095564 Z-0.125000
G01 X38.161407 Y145.530084 Z-0.125000
G01 X36.957764 Y147.481524 Z-0.125000
G01 X35.175006 Y149.933074 Z-0.125000
G01 X32.128808 Y153.369344 Z-0.125000
G01 X31.199168 Y154.589734 Z-0.125000
G01 X30.480080 Y156.029084 Z-0.125000
G01 X30.299427 Y156.772104 Z-0.125000
G01 X30.257547 Y157.533054 Z-0.125000
G01 X30.364032 Y158.314324 Z-0.125000
G01 X30.714570 Y159.316964 Z-0.125000
G01 X31.302047 Y160.351924 Z-0.125000
G01 X32.112067 Y161.415574 Z-0.125000
G01 X34.266885 Y163.612284 Z-0.125000
G01 X39.034809 Y167.872894 Z-0.125000
G01 X41.025712 Y170.046884 Z-0.125000
G01 X42.035554 Y171.711124 Z-0.125000
G01 X42.314304 Y172.513964 Z-0.125000
G01 X42.444718 Y173.489094 Z-0.125000
G01 X42.380108 Y174.247654 Z-0.125000
G01 X42.104908 Y175.170134 Z-0.125000
G01 X41.148947 Y176.769794 Z-0.125000
G01 X39.942911 Y178.146924 Z-0.125000
G01 X36.192009 Y181.875104 Z-0.125000
G01 X34.552839 Y183.960554 Z-0.125000
G01 X33.621990 Y185.756454 Z-0.125000
G01 X33.093153 Y187.795204 Z-0.125000
G01 X33.011793 Y188.934244 Z-0.125000
G01 X33.083583 Y190.285054 Z-0.125000
G01 X33.671021 Y193.044124 Z-0.125000
G01 X34.766995 Y196.061574 Z-0.125000
G01 X37.771304 Y202.776165 Z-0.125000
G01 X38.819406 Y205.403574 Z-0.125000
G01 X39.649752 Y208.193742 Z-0.125000
G01 X40.021866 Y210.733862 Z-0.125000
G01 X39.914184 Y213.210517 Z-0.125000
G01 X39.297965 Y215.621405 Z-0.125000
G01 X38.338428 Y217.796590 Z-0.125000
G01 X36.124969 Y221.916004 Z-0.125000
G01 X35.354459 Y223.923657 Z-0.125000
G01 X35.061312 Y225.802119 Z-0.125000
G01 X35.238389 Y227.741601 Z-0.125000
G00 Z5.000000

(End cutting path id: polyline2818)


(Start cutting path id: polyline2816)
(Change tool to Default tool)

G00 Z5.000000
G00 X37.517766 Y36.495074

G00 Z4.875000 (Fast pre-penetrate)
G01 Z-0.125000 F400.0(Penetrate)
G01 X37.545286 Y44.546084 Z-0.125000 F800.000000
G01 X37.237795 Y58.495674 Z-0.125000
G01 X37.277275 Y62.908234 Z-0.125000
G01 X37.607486 Y66.783574 Z-0.125000
G01 X38.994175 Y74.437374 Z-0.125000
G01 X39.179653 Y77.143744 Z-0.125000
G01 X39.026506 Y78.657274 Z-0.125000
G01 X38.703474 Y79.956634 Z-0.125000
G01 X38.130341 Y81.415154 Z-0.125000
G01 X36.275835 Y85.198344 Z-0.125000
G01 X35.965964 Y86.307484 Z-0.125000
G01 X35.900154 Y87.448904 Z-0.125000
G01 X36.133465 Y88.628634 Z-0.125000
G01 X36.801105 Y90.057184 Z-0.125000
G01 X37.657760 Y91.318274 Z-0.125000
G01 X39.653449 Y93.877524 Z-0.125000
G01 X40.443142 Y95.129014 Z-0.125000
G01 X40.815203 Y96.135264 Z-0.125000
G01 X40.865453 Y96.909364 Z-0.125000
G01 X40.583088 Y97.830644 Z-0.125000
G01 X39.743170 Y98.870384 Z-0.125000
G01 X38.696290 Y99.693524 Z-0.125000
G01 X35.482561 Y101.765814 Z-0.125000
G01 X34.519433 Y102.599744 Z-0.125000
G01 X33.951086 Y103.483924 Z-0.125000
G01 X33.850583 Y104.236494 Z-0.125000
G01 X34.207103 Y105.241554 Z-0.125000
G01 X35.303091 Y106.533734 Z-0.125000
G01 X36.657488 Y107.667984 Z-0.125000
G01 X40.779308 Y110.695014 Z-0.125000
G01 X42.064310 Y111.819704 Z-0.125000
G01 X43.039429 Y113.096334 Z-0.125000
G01 X43.275132 Y114.085804 Z-0.125000
G01 X42.959279 Y115.002294 Z-0.125000
G01 X41.914752 Y116.015724 Z-0.125000
G01 X40.301919 Y116.956134 Z-0.125000
G01 X35.677584 Y119.037974 Z-0.125000
G01 X33.632827 Y120.113614 Z-0.125000
G01 X32.697205 Y120.758484 Z-0.125000
G01 X31.968545 Y121.429714 Z-0.125000
G01 X31.457642 Y122.130834 Z-0.125000
G01 X31.219545 Y122.674024 Z-0.125000
G01 X31.089131 Y123.424204 Z-0.125000
G01 X31.154931 Y124.198324 Z-0.125000
G01 X31.394211 Y124.996374 Z-0.125000
G01 X31.895556 Y126.019344 Z-0.125000
G01 X33.031000 Y127.700394 Z-0.125000
G01 X36.858476 Y132.605884 Z-0.125000
G01 X37.824023 Y134.072744 Z-0.125000
G01 X38.611296 Y135.515674 Z-0.125000
G01 X39.514627 Y137.932534 Z-0.125000
G01 X39.779059 Y139.308464 Z-0.125000
G01 X39.855629 Y140.467864 Z-0.125000
G01 X39.814949 Y141.421434 Z-0.125000
G01 X39.586424 Y142.349924 Z-0.125000
G01 X38.460538 Y144.886414 Z-0.125000
G01 X37.076242 Y147.196754 Z-0.125000
G01 X35.975508 Y148.778494 Z-0.125000
G01 X32.834776 Y152.586844 Z-0.125000
G01 X31.967353 Y153.814444 Z-0.125000
G01 X31.296123 Y155.260964 Z-0.125000
G01 X31.090318 Y156.767314 Z-0.125000
G01 X31.242269 Y157.744794 Z-0.125000
G01 X31.621562 Y158.752244 Z-0.125000
G01 X32.228169 Y159.789554 Z-0.125000
G01 X33.045354 Y160.853214 Z-0.125000
G01 X34.946536 Y162.824984 Z-0.125000
G01 X39.865213 Y167.297384 Z-0.125000
G01 X41.827415 Y169.468974 Z-0.125000
G01 X42.524953 Y170.517084 Z-0.125000
G01 X42.922166 Y171.335474 Z-0.125000
G01 X43.173450 Y172.134684 Z-0.125000
G01 X43.276346 Y173.106224 Z-0.125000
G01 X43.199776 Y173.862394 Z-0.125000
G01 X42.917398 Y174.783674 Z-0.125000
G01 X41.973401 Y176.385724 Z-0.125000
G01 X40.641723 Y177.937564 Z-0.125000
G01 X37.160012 Y181.509014 Z-0.125000
G01 X35.540012 Y183.598014 Z-0.125000
G01 X34.514616 Y185.572174 Z-0.125000
G01 X34.156900 Y186.675344 Z-0.125000
G01 X33.936750 Y187.797604 Z-0.125000
G01 X33.844620 Y189.126884 Z-0.125000
G01 X33.911620 Y190.476514 Z-0.125000
G01 X34.158078 Y192.041454 Z-0.125000
G01 X34.554108 Y193.625574 Z-0.125000
G01 X35.752965 Y197.039107 Z-0.125000
G01 X38.713017 Y203.939115 Z-0.125000
G01 X39.718047 Y206.561778 Z-0.125000
G01 X40.473016 Y209.150927 Z-0.125000
G01 X40.852295 Y211.691007 Z-0.125000
G01 X40.799655 Y213.792011 Z-0.125000
G01 X40.370151 Y215.843948 Z-0.125000
G01 X39.501491 Y218.031084 Z-0.125000
G01 X37.146850 Y222.323985 Z-0.125000
G01 X36.415837 Y223.953595 Z-0.125000
G01 X35.947992 Y225.809285 Z-0.125000
G01 X35.957292 Y227.726060 Z-0.125000
G00 Z5.000000

(End cutting path id: polyline2816)


(Start cutting path id: polyline2814)
(Change tool to Default tool)

G00 Z5.000000
G00 X38.454584 Y36.508234

G00 Z4.875000 (Fast pre-penetrate)
G01 Z-0.125000 F400.0(Penetrate)
G01 X38.466544 Y46.090704 Z-0.125000 F800.000000
G01 X38.075274 Y59.645474 Z-0.125000
G01 X38.094414 Y63.481324 Z-0.125000
G01 X38.432987 Y67.357864 Z-0.125000
G01 X39.824475 Y74.628784 Z-0.125000
G01 X40.008744 Y77.335194 Z-0.125000
G01 X39.865168 Y78.657274 Z-0.125000
G01 X39.532564 Y79.955444 Z-0.125000
G01 X38.939105 Y81.411564 Z-0.125000
G01 X37.126462 Y85.009314 Z-0.125000
G01 X36.803430 Y86.116064 Z-0.125000
G01 X36.731640 Y87.257484 Z-0.125000
G01 X36.905127 Y88.237364 Z-0.125000
G01 X37.410048 Y89.453014 Z-0.125000
G01 X38.202094 Y90.705684 Z-0.125000
G01 X41.079591 Y94.529574 Z-0.125000
G01 X41.555770 Y95.548984 Z-0.125000
G01 X41.706525 Y96.526494 Z-0.125000
G01 X41.615595 Y97.090014 Z-0.125000
G01 X41.383481 Y97.634404 Z-0.125000
G01 X40.513665 Y98.671754 Z-0.125000
G01 X39.449968 Y99.491334 Z-0.125000
G01 X36.467196 Y101.403284 Z-0.125000
G01 X35.303050 Y102.401124 Z-0.125000
G01 X34.764641 Y103.288914 Z-0.125000
G01 X34.689261 Y104.046274 Z-0.125000
G01 X35.073326 Y105.053694 Z-0.125000
G01 X36.190837 Y106.349464 Z-0.125000
G01 X37.551177 Y107.483714 Z-0.125000
G01 X41.354776 Y110.278654 Z-0.125000
G01 X42.912560 Y111.630674 Z-0.125000
G01 X43.874517 Y112.904904 Z-0.125000
G01 X44.107827 Y113.893184 Z-0.125000
G01 X43.801532 Y114.812074 Z-0.125000
G01 X42.780935 Y115.829054 Z-0.125000
G01 X41.205218 Y116.774284 Z-0.125000
G01 X36.341591 Y119.016434 Z-0.125000
G01 X34.366189 Y120.100434 Z-0.125000
G01 X33.467671 Y120.750124 Z-0.125000
G01 X32.768909 Y121.426124 Z-0.125000
G01 X32.279569 Y122.128434 Z-0.125000
G01 X32.051044 Y122.674024 Z-0.125000
G01 X31.921826 Y123.424204 Z-0.125000
G01 X31.978056 Y124.197124 Z-0.125000
G01 X32.197022 Y124.992784 Z-0.125000
G01 X32.660040 Y126.010964 Z-0.125000
G01 X33.710549 Y127.680034 Z-0.125000
G01 X37.112097 Y132.337894 Z-0.125000
G01 X38.021423 Y133.797564 Z-0.125000
G01 X38.764387 Y135.235734 Z-0.125000
G01 X39.609131 Y137.645404 Z-0.125000
G01 X39.823272 Y138.822714 Z-0.125000
G01 X39.899842 Y139.982074 Z-0.125000
G01 X39.695260 Y141.872504 Z-0.125000
G01 X38.831400 Y144.059644 Z-0.125000
G01 X36.957763 Y147.264964 Z-0.125000
G01 X35.975453 Y148.670824 Z-0.125000
G01 X33.642348 Y151.624894 Z-0.125000
G01 X32.815578 Y152.858454 Z-0.125000
G01 X32.098909 Y154.490444 Z-0.125000
G01 X31.924212 Y156.000354 Z-0.125000
G01 X32.080935 Y156.979064 Z-0.125000
G01 X32.454245 Y157.985314 Z-0.125000
G01 X33.044102 Y159.020234 Z-0.125000
G01 X33.836188 Y160.081504 Z-0.125000
G01 X35.914433 Y162.268644 Z-0.125000
G01 X40.748162 Y166.729074 Z-0.125000
G01 X42.667277 Y168.894664 Z-0.125000
G01 X43.231995 Y169.734564 Z-0.125000
G01 X43.746488 Y170.759964 Z-0.125000
G01 X44.037229 Y171.755404 Z-0.125000
G01 X44.109019 Y172.531914 Z-0.125000
G01 X44.044409 Y173.289274 Z-0.125000
G01 X43.783593 Y174.214124 Z-0.125000
G01 X42.892214 Y175.822214 Z-0.125000
G01 X41.617979 Y177.381184 Z-0.125000
G01 X38.083597 Y181.138094 Z-0.125000
G01 X36.385828 Y183.407804 Z-0.125000
G01 X35.324564 Y185.569794 Z-0.125000
G01 X34.777793 Y187.797604 Z-0.125000
G01 X34.676094 Y189.318304 Z-0.125000
G01 X34.758654 Y190.861754 Z-0.125000
G01 X34.997947 Y192.425524 Z-0.125000
G01 X35.421468 Y194.205874 Z-0.125000
G01 X36.623928 Y197.810817 Z-0.125000
G01 X39.618692 Y205.098476 Z-0.125000
G01 X40.593823 Y207.716366 Z-0.125000
G01 X41.372708 Y210.500552 Z-0.125000
G01 X41.690968 Y212.842006 Z-0.125000
G01 X41.586875 Y215.127279 Z-0.125000
G01 X41.083150 Y217.169617 Z-0.125000
G01 X40.219317 Y219.165346 Z-0.125000
G01 X38.089610 Y222.912658 Z-0.125000
G01 X37.311882 Y224.536273 Z-0.125000
G01 X36.828524 Y226.198136 Z-0.125000
G01 X36.729214 Y227.718842 Z-0.125000
G00 Z5.000000

(End cutting path id: polyline2814)


(Start cutting path id: polyline2812)
(Change tool to Default tool)

G00 Z5.000000
G00 X39.387852 Y36.521384

G00 Z4.875000 (Fast pre-penetrate)
G01 Z-0.125000 F400.0(Penetrate)
G01 X39.391852 Y46.678184 Z-0.125000 F800.000000
G01 X38.916829 Y60.413604 Z-0.125000
G01 X38.912829 Y63.861804 Z-0.125000
G01 X39.249048 Y67.738334 Z-0.125000
G01 X40.634541 Y74.625194 Z-0.125000
G01 X40.809224 Y75.989174 Z-0.125000
G01 X40.842724 Y77.335194 Z-0.125000
G01 X40.694363 Y78.657274 Z-0.125000
G01 X40.347375 Y79.953044 Z-0.125000
G01 X39.813752 Y81.226094 Z-0.125000
G01 X37.962835 Y84.817874 Z-0.125000
G01 X37.633821 Y85.924614 Z-0.125000
G01 X37.565621 Y87.066044 Z-0.125000
G01 X37.814472 Y88.248164 Z-0.125000
G01 X38.514391 Y89.680304 Z-0.125000
G01 X41.266258 Y93.294834 Z-0.125000
G01 X42.078658 Y94.551134 Z-0.125000
G01 X42.469901 Y95.559754 Z-0.125000
G01 X42.533311 Y96.335044 Z-0.125000
G01 X42.264120 Y97.257524 Z-0.125000
G01 X41.436167 Y98.299644 Z-0.125000
G01 X40.396426 Y99.122824 Z-0.125000
G01 X37.186326 Y101.196284 Z-0.125000
G01 X36.214783 Y102.027824 Z-0.125000
G01 X35.630896 Y102.910834 Z-0.125000
G01 X35.511249 Y103.661024 Z-0.125000
G01 X35.836674 Y104.662454 Z-0.125000
G01 X36.885973 Y105.948654 Z-0.125000
G01 X38.498807 Y107.307844 Z-0.125000
G01 X42.274861 Y110.098004 Z-0.125000
G01 X43.797947 Y111.445194 Z-0.125000
G01 X44.726403 Y112.715854 Z-0.125000
G01 X44.939374 Y113.701744 Z-0.125000
G01 X44.811352 Y114.260474 Z-0.125000
G01 X44.500272 Y114.794094 Z-0.125000
G01 X44.016913 Y115.306194 Z-0.125000
G01 X43.142271 Y115.959484 Z-0.125000
G01 X41.455270 Y116.890314 Z-0.125000
G01 X36.668217 Y119.142074 Z-0.125000
G01 X34.616281 Y120.407904 Z-0.125000
G01 X33.550231 Y121.418944 Z-0.125000
G01 X33.185309 Y121.946584 Z-0.125000
G01 X32.874229 Y122.672824 Z-0.125000
G01 X32.753386 Y123.424204 Z-0.125000
G01 X32.807226 Y124.197124 Z-0.125000
G01 X33.010625 Y124.990394 Z-0.125000
G01 X33.441338 Y126.003784 Z-0.125000
G01 X34.415260 Y127.663294 Z-0.125000
G01 X37.542818 Y132.286434 Z-0.125000
G01 X38.952266 Y134.960534 Z-0.125000
G01 X39.726365 Y137.360654 Z-0.125000
G01 X39.960872 Y139.498714 Z-0.125000
G01 X39.743116 Y141.578164 Z-0.125000
G01 X39.003727 Y143.590644 Z-0.125000
G01 X37.076197 Y146.981434 Z-0.125000
G01 X34.411671 Y150.658154 Z-0.125000
G01 X33.633982 Y151.898874 Z-0.125000
