%
(Header)
(Generated by gcodetools from Inkscape.)
(Using default header. To add your own header create file "header" in the output dir.)
M3
(Header end.)
G21 (All units in mm)

(Start cutting path id: path868)
(Change tool to Default tool)

G00 Z3.000000
G00 X159.355862 Y210.494362

G00 Z4.875000 (Fast pre-penetrate)
G01 Z-0.125000 F400.0(Penetrate)
G01 X160.639653 Y188.043931 Z-0.125000 F800.000000
G01 X164.054975 Y163.461969 Z-0.125000
G01 X169.330030 Y137.020274 Z-0.125000
G01 X171.427183 Y113.756480 Z-0.125000
G01 X171.504598 Y92.512426 Z-0.125000
G01 X172.632510 Y70.217874 Z-0.125000
G01 X173.063769 Y48.619974 Z-0.125000
G00 Z3.000000

(End cutting path id: path868)


(Start cutting path id: path866)
(Change tool to Default tool)

G00 Z3.000000
G00 X158.586581 Y210.449539

G00 Z4.875000 (Fast pre-penetrate)
G01 Z-0.125000 F400.0(Penetrate)
G01 X159.863340 Y188.006143 Z-0.125000 F800.000000
G01 X163.256701 Y163.446141 Z-0.125000
G01 X168.501514 Y137.034686 Z-0.125000
G01 X170.626087 Y113.743476 Z-0.125000
G01 X170.723832 Y92.479091 Z-0.125000
G01 X171.816663 Y70.219620 Z-0.125000
G01 X172.226586 Y48.643056 Z-0.125000
G00 Z3.000000

(End cutting path id: path866)


(Start cutting path id: path864)
(Change tool to Default tool)

G00 Z3.000000
G00 X157.817301 Y210.404718

G00 Z4.875000 (Fast pre-penetrate)
G01 Z-0.125000 F400.0(Penetrate)
G01 X159.087027 Y187.968355 Z-0.125000 F800.000000
G01 X162.458428 Y163.430311 Z-0.125000
G01 X167.672999 Y137.049100 Z-0.125000
G01 X169.824988 Y113.730472 Z-0.125000
G01 X169.943068 Y92.445754 Z-0.125000
G01 X171.000816 Y70.221366 Z-0.125000
G01 X171.389403 Y48.666136 Z-0.125000
G00 Z3.000000

(End cutting path id: path864)


(Start cutting path id: path862)
(Change tool to Default tool)

G00 Z3.000000
G00 X157.048021 Y210.359898

G00 Z4.875000 (Fast pre-penetrate)
G01 Z-0.125000 F400.0(Penetrate)
G01 X158.310714 Y187.930565 Z-0.125000 F800.000000
G01 X161.660155 Y163.414484 Z-0.125000
G01 X166.844487 Y137.063515 Z-0.125000
G01 X169.023891 Y113.717467 Z-0.125000
G01 X169.162303 Y92.412416 Z-0.125000
G01 X170.184966 Y70.223113 Z-0.125000
G01 X170.552223 Y48.689216 Z-0.125000
G00 Z3.000000

(End cutting path id: path862)


(Start cutting path id: path860)
(Change tool to Default tool)

G00 Z3.000000
G00 X156.278740 Y210.315078

G00 Z4.875000 (Fast pre-penetrate)
G01 Z-0.125000 F400.0(Penetrate)
G01 X157.534401 Y187.892777 Z-0.125000 F800.000000
G01 X160.861884 Y163.398654 Z-0.125000
G01 X166.015971 Y137.077927 Z-0.125000
G01 X168.222795 Y113.704463 Z-0.125000
G01 X168.381537 Y92.379079 Z-0.125000
G01 X169.369119 Y70.224859 Z-0.125000
G01 X169.715040 Y48.712295 Z-0.125000
G00 Z3.000000

(End cutting path id: path860)


(Start cutting path id: path858)
(Change tool to Default tool)

G00 Z3.000000
G00 X155.509457 Y210.270257

G00 Z4.875000 (Fast pre-penetrate)
G01 Z-0.125000 F400.0(Penetrate)
G01 X156.758088 Y187.854989 Z-0.125000 F800.000000
G01 X160.063611 Y163.382827 Z-0.125000
G01 X165.187456 Y137.092341 Z-0.125000
G01 X167.421696 Y113.691459 Z-0.125000
G01 X167.600773 Y92.345744 Z-0.125000
G01 X168.553272 Y70.226605 Z-0.125000
G01 X168.877860 Y48.735377 Z-0.125000
G00 Z3.000000

(End cutting path id: path858)


(Start cutting path id: path856)
(Change tool to Default tool)

G00 Z3.000000
G00 X154.740177 Y210.225437

G00 Z4.875000 (Fast pre-penetrate)
G01 Z-0.125000 F400.0(Penetrate)
G01 X155.981772 Y187.817202 Z-0.125000 F800.000000
G01 X159.265337 Y163.366997 Z-0.125000
G01 X164.358941 Y137.106753 Z-0.125000
G01 X166.620599 Y113.678455 Z-0.125000
G01 X166.820007 Y92.312406 Z-0.125000
G01 X167.737425 Y70.228349 Z-0.125000
G01 X168.040677 Y48.758457 Z-0.125000
G00 Z3.000000

(End cutting path id: path856)


(Start cutting path id: path712)
(Change tool to Default tool)

G00 Z3.000000
G00 X107.368993 Y198.981310

G00 Z4.875000 (Fast pre-penetrate)
G01 Z-0.125000 F400.0(Penetrate)
G01 X107.928234 Y177.255429 Z-0.125000 F800.000000
G01 X107.314045 Y156.702979 Z-0.125000
G01 X106.351304 Y136.499080 Z-0.125000
G01 X105.963430 Y115.720313 Z-0.125000
G01 X105.934501 Y94.582603 Z-0.125000
G01 X105.320737 Y74.029726 Z-0.125000
G01 X105.059189 Y53.124635 Z-0.125000
G00 Z3.000000

(End cutting path id: path712)


(Start cutting path id: path660)
(Change tool to Default tool)

G00 Z3.000000
G00 X90.547436 Y194.636228

G00 Z4.875000 (Fast pre-penetrate)
G01 Z-0.125000 F400.0(Penetrate)
G01 X91.082904 Y172.934119 Z-0.125000 F800.000000
G01 X89.296995 Y153.553388 Z-0.125000
G01 X86.475755 Y135.207989 Z-0.125000
G01 X82.767494 Y117.749609 Z-0.125000
G01 X81.322617 Y98.027846 Z-0.125000
G01 X81.766992 Y76.416831 Z-0.125000
G01 X82.356457 Y54.660727 Z-0.125000
G00 Z3.000000

(End cutting path id: path660)


(Start cutting path id: path640)
(Change tool to Default tool)

G00 Z3.000000
G00 X82.390024 Y194.652624

G00 Z4.875000 (Fast pre-penetrate)
G01 Z-0.125000 F400.0(Penetrate)
G01 X82.857111 Y173.018897 Z-0.125000 F800.000000
G01 X81.136004 Y153.573364 Z-0.125000
G01 X78.388124 Y135.154604 Z-0.125000
G01 X74.806411 Y117.569677 Z-0.125000
G01 X73.416618 Y97.792831 Z-0.125000
G01 X73.782697 Y76.260111 Z-0.125000
G01 X74.200672 Y54.675496 Z-0.125000
G00 Z3.000000

(End cutting path id: path640)


(Start cutting path id: path620)
(Change tool to Default tool)

G00 Z3.000000
G00 X74.232610 Y194.669023

G00 Z4.875000 (Fast pre-penetrate)
G01 Z-0.125000 F400.0(Penetrate)
G01 X74.631321 Y173.103672 Z-0.125000 F800.000000
G01 X72.975013 Y153.593340 Z-0.125000
G01 X70.300494 Y135.101219 Z-0.125000
G01 X66.845329 Y117.389745 Z-0.125000
G01 X65.510618 Y97.557815 Z-0.125000
G01 X65.798400 Y76.103393 Z-0.125000
G01 X66.044886 Y54.690268 Z-0.125000
G00 Z3.000000

(End cutting path id: path620)


(Start cutting path id: path608)
(Change tool to Default tool)

G00 Z3.000000
G00 X69.338163 Y194.678860

G00 Z4.875000 (Fast pre-penetrate)
G01 Z-0.125000 F400.0(Penetrate)
G01 X69.695845 Y173.154538 Z-0.125000 F800.000000
G01 X68.078418 Y153.605326 Z-0.125000
G01 X65.447915 Y135.069189 Z-0.125000
G01 X62.068677 Y117.281787 Z-0.125000
G01 X60.767018 Y97.416805 Z-0.125000
G01 X61.007823 Y76.009360 Z-0.125000
G01 X61.151415 Y54.699128 Z-0.125000
G00 Z3.000000

(End cutting path id: path608)


(Start cutting path id: path606)
(Change tool to Default tool)

G00 Z3.000000
G00 X68.479954 Y194.722969

G00 Z4.875000 (Fast pre-penetrate)
G01 Z-0.125000 F400.0(Penetrate)
G01 X68.824838 Y173.211445 Z-0.125000 F800.000000
G01 X67.239732 Y153.629911 Z-0.125000
G01 X64.653504 Y135.049496 Z-0.125000
G01 X61.340827 Y117.195533 Z-0.125000
G01 X60.066138 Y97.303582 Z-0.125000
G01 X60.264123 Y75.938960 Z-0.125000
G01 X60.328234 Y54.708209 Z-0.125000
G00 Z3.000000

(End cutting path id: path606)


(Start cutting path id: path604)
(Change tool to Default tool)

G00 Z3.000000
G00 X67.621745 Y194.767075

G00 Z4.875000 (Fast pre-penetrate)
G01 Z-0.125000 F400.0(Penetrate)
G01 X67.953831 Y173.268349 Z-0.125000 F800.000000
G01 X66.401046 Y153.654496 Z-0.125000
G01 X63.859094 Y135.029805 Z-0.125000
G01 X60.612981 Y117.109281 Z-0.125000
G01 X59.365260 Y97.190362 Z-0.125000
G01 X59.520422 Y75.868557 Z-0.125000
G01 X59.505050 Y54.717289 Z-0.125000
G00 Z3.000000

(End cutting path id: path604)


(Start cutting path id: path602)
(Change tool to Default tool)

G00 Z3.000000
G00 X66.763535 Y194.811183

G00 Z4.875000 (Fast pre-penetrate)
G01 Z-0.125000 F400.0(Penetrate)
G01 X67.082824 Y173.325255 Z-0.125000 F800.000000
G01 X65.562360 Y153.679078 Z-0.125000
G01 X63.064684 Y135.010115 Z-0.125000
G01 X59.885131 Y117.023027 Z-0.125000
G01 X58.664380 Y97.077139 Z-0.125000
G01 X58.776724 Y75.798154 Z-0.125000
G01 X58.681869 Y54.726370 Z-0.125000
G00 Z3.000000

(End cutting path id: path602)


(Start cutting path id: path600)
(Change tool to Default tool)

G00 Z3.000000
G00 X65.905326 Y194.855292

G00 Z4.875000 (Fast pre-penetrate)
G01 Z-0.125000 F400.0(Penetrate)
G01 X66.211816 Y173.382162 Z-0.125000 F800.000000
G01 X64.723675 Y153.703663 Z-0.125000
G01 X62.270273 Y134.990422 Z-0.125000
G01 X59.157282 Y116.936776 Z-0.125000
G01 X57.963502 Y96.963916 Z-0.125000
G01 X58.033024 Y75.727754 Z-0.125000
G01 X57.858688 Y54.735450 Z-0.125000
G00 Z3.000000

(End cutting path id: path600)


(Start cutting path id: path598)
(Change tool to Default tool)

G00 Z3.000000
G00 X65.047117 Y194.899398

G00 Z4.875000 (Fast pre-penetrate)
G01 Z-0.125000 F400.0(Penetrate)
G01 X65.340809 Y173.439066 Z-0.125000 F800.000000
G01 X63.884989 Y153.728248 Z-0.125000
G01 X61.475865 Y134.970732 Z-0.125000
G01 X58.429433 Y116.850522 Z-0.125000
G01 X57.262622 Y96.850695 Z-0.125000
G01 X57.289323 Y75.657351 Z-0.125000
G01 X57.035504 Y54.744531 Z-0.125000
G00 Z3.000000

(End cutting path id: path598)


(Start cutting path id: path596)
(Change tool to Default tool)

G00 Z3.000000
G00 X64.188907 Y194.943507

G00 Z4.875000 (Fast pre-penetrate)
G01 Z-0.125000 F400.0(Penetrate)
G01 X64.469802 Y173.495972 Z-0.125000 F800.000000
G01 X63.046303 Y153.752831 Z-0.125000
G01 X60.681455 Y134.951042 Z-0.125000
G01 X57.701583 Y116.764270 Z-0.125000
G01 X56.561741 Y96.737472 Z-0.125000
G01 X56.545628 Y75.586951 Z-0.125000
G01 X56.212325 Y54.753611 Z-0.125000
G00 Z3.000000

(End cutting path id: path596)


(Start cutting path id: path594)
(Change tool to Default tool)

G00 Z3.000000
G00 X63.330698 Y194.987613

G00 Z4.875000 (Fast pre-penetrate)
G01 Z-0.125000 F400.0(Penetrate)
G01 X63.598795 Y173.552879 Z-0.125000 F800.000000
G01 X62.207617 Y153.777416 Z-0.125000
G01 X59.887044 Y134.931349 Z-0.125000
G01 X56.973734 Y116.678016 Z-0.125000
G01 X55.860864 Y96.624249 Z-0.125000
G01 X55.801925 Y75.516548 Z-0.125000
G01 X55.389141 Y54.762692 Z-0.125000
G00 Z3.000000

(End cutting path id: path594)


(Start cutting path id: path592)
(Change tool to Default tool)

G00 Z3.000000
G00 X62.472489 Y195.031721

G00 Z4.875000 (Fast pre-penetrate)
G01 Z-0.125000 F400.0(Penetrate)
G01 X62.727787 Y173.609782 Z-0.125000 F800.000000
G01 X61.368931 Y153.801998 Z-0.125000
G01 X59.092634 Y134.911659 Z-0.125000
G01 X56.245888 Y116.591765 Z-0.125000
G01 X55.159983 Y96.511026 Z-0.125000
G01 X55.058225 Y75.446145 Z-0.125000
G01 X54.565957 Y54.771772 Z-0.125000
G00 Z3.000000

(End cutting path id: path592)


(Start cutting path id: path590)
(Change tool to Default tool)

G00 Z3.000000
G00 X61.614282 Y195.075830

G00 Z4.875000 (Fast pre-penetrate)
G01 Z-0.125000 F400.0(Penetrate)
G01 X61.856780 Y173.666689 Z-0.125000 F800.000000
G01 X60.530246 Y153.826583 Z-0.125000
G01 X58.298223 Y134.891966 Z-0.125000
G01 X55.518038 Y116.505511 Z-0.125000
G01 X54.459106 Y96.397806 Z-0.125000
G01 X54.314524 Y75.375745 Z-0.125000
G01 X53.742776 Y54.780853 Z-0.125000
G00 Z3.000000

(End cutting path id: path590)


(Start cutting path id: path588)
(Change tool to Default tool)

G00 Z3.000000
G00 X60.756073 Y195.119936

G00 Z4.875000 (Fast pre-penetrate)
G01 Z-0.125000 F400.0(Penetrate)
G01 X60.985773 Y173.723595 Z-0.125000 F800.000000
G01 X59.691560 Y153.851168 Z-0.125000
G01 X57.503813 Y134.872275 Z-0.125000
G01 X54.790189 Y116.419259 Z-0.125000
G01 X53.758225 Y96.284583 Z-0.125000
G01 X53.570826 Y75.305342 Z-0.125000
G01 X52.919595 Y54.789933 Z-0.125000
G00 Z3.000000

(End cutting path id: path588)


(Start cutting path id: path586)
(Change tool to Default tool)

G00 Z3.000000
G00 X59.897863 Y195.164044

G00 Z4.875000 (Fast pre-penetrate)
G01 Z-0.125000 F400.0(Penetrate)
G01 X60.114766 Y173.780499 Z-0.125000 F800.000000
G01 X58.852874 Y153.875751 Z-0.125000
G01 X56.709403 Y134.852585 Z-0.125000
G01 X54.062340 Y116.333008 Z-0.125000
G01 X53.057345 Y96.171360 Z-0.125000
G01 X52.827126 Y75.234942 Z-0.125000
G01 X52.096411 Y54.799014 Z-0.125000
G00 Z3.000000

(End cutting path id: path586)


(Start cutting path id: path584)
(Change tool to Default tool)

G00 Z3.000000
G00 X59.039654 Y195.208153

G00 Z4.875000 (Fast pre-penetrate)
G01 Z-0.125000 F400.0(Penetrate)
G01 X59.243758 Y173.837406 Z-0.125000 F800.000000
G01 X58.014188 Y153.900336 Z-0.125000
G01 X55.914992 Y134.832892 Z-0.125000
G01 X53.334490 Y116.246754 Z-0.125000
G01 X52.356467 Y96.058140 Z-0.125000
G01 X52.083425 Y75.164539 Z-0.125000
G01 X51.273230 Y54.808094 Z-0.125000
G00 Z3.000000

(End cutting path id: path584)


(Start cutting path id: path582)
(Change tool to Default tool)

G00 Z3.000000
G00 X58.181444 Y195.252259

G00 Z4.875000 (Fast pre-penetrate)
G01 Z-0.125000 F400.0(Penetrate)
G01 X58.372751 Y173.894312 Z-0.125000 F800.000000
G01 X57.175503 Y153.924921 Z-0.125000
G01 X55.120582 Y134.813202 Z-0.125000
G01 X52.606641 Y116.160503 Z-0.125000
G01 X51.655587 Y95.944917 Z-0.125000
G01 X51.339728 Y75.094136 Z-0.125000
G01 X50.450049 Y54.817175 Z-0.125000
G00 Z3.000000

(End cutting path id: path582)


(Start cutting path id: path580)
(Change tool to Default tool)

G00 Z3.000000
G00 X57.323235 Y195.296368

G00 Z4.875000 (Fast pre-penetrate)
G01 Z-0.125000 F400.0(Penetrate)
G01 X57.501744 Y173.951216 Z-0.125000 F800.000000
G01 X56.336817 Y153.949503 Z-0.125000
G01 X54.326171 Y134.793512 Z-0.125000
G01 X51.878794 Y116.074248 Z-0.125000
G01 X50.954706 Y95.831694 Z-0.125000
G01 X50.596027 Y75.023736 Z-0.125000
G01 X49.626865 Y54.826255 Z-0.125000
G00 Z3.000000

(End cutting path id: path580)


(Start cutting path id: path578)
(Change tool to Default tool)

G00 Z3.000000
G00 X56.465026 Y195.340474

G00 Z4.875000 (Fast pre-penetrate)
G01 Z-0.125000 F400.0(Penetrate)
G01 X56.630737 Y174.008123 Z-0.125000 F800.000000
G01 X55.498131 Y153.974088 Z-0.125000
G01 X53.531761 Y134.773819 Z-0.125000
G01 X51.150945 Y115.987997 Z-0.125000
G01 X50.253829 Y95.718473 Z-0.125000
G01 X49.852327 Y74.953333 Z-0.125000
G01 X48.803684 Y54.835336 Z-0.125000
G00 Z3.000000

(End cutting path id: path578)


(Start cutting path id: path576)
(Change tool to Default tool)

G00 Z3.000000
G00 X55.606816 Y195.384582

G00 Z4.875000 (Fast pre-penetrate)
G01 Z-0.125000 F400.0(Penetrate)
G01 X55.759729 Y174.065029 Z-0.125000 F800.000000
G01 X54.659445 Y153.998673 Z-0.125000
G01 X52.737350 Y134.754128 Z-0.125000
G01 X50.423096 Y115.901743 Z-0.125000
G01 X49.552948 Y95.605250 Z-0.125000
G01 X49.108629 Y74.882930 Z-0.125000
G01 X47.980502 Y54.844416 Z-0.125000
G00 Z3.000000

(End cutting path id: path576)


(Start cutting path id: path574)
(Change tool to Default tool)

G00 Z3.000000
G00 X54.748607 Y195.428691

G00 Z4.875000 (Fast pre-penetrate)
G01 Z-0.125000 F400.0(Penetrate)
G01 X54.888722 Y174.121933 Z-0.125000 F800.000000
G01 X53.820759 Y154.023256 Z-0.125000
G01 X51.942940 Y134.734438 Z-0.125000
G01 X49.695246 Y115.815492 Z-0.125000
G01 X48.852071 Y95.492027 Z-0.125000
G01 X48.364928 Y74.812530 Z-0.125000
G01 X47.157319 Y54.853497 Z-0.125000
G00 Z3.000000

(End cutting path id: path574)


(Start cutting path id: path572)
(Change tool to Default tool)

G00 Z3.000000
G00 X53.890398 Y195.472797

G00 Z4.875000 (Fast pre-penetrate)
G01 Z-0.125000 F400.0(Penetrate)
G01 X54.017715 Y174.178840 Z-0.125000 F800.000000
G01 X52.982076 Y154.047841 Z-0.125000
G01 X51.148529 Y134.714745 Z-0.125000
G01 X48.967397 Y115.729238 Z-0.125000
G01 X48.151190 Y95.378804 Z-0.125000
G01 X47.621228 Y74.742127 Z-0.125000
G01 X46.334137 Y54.862577 Z-0.125000
G00 Z3.000000

(End cutting path id: path572)


(Start cutting path id: path570)
(Change tool to Default tool)

G00 Z3.000000
G00 X53.032188 Y195.516906

G00 Z4.875000 (Fast pre-penetrate)
G01 Z-0.125000 F400.0(Penetrate)
G01 X53.146708 Y174.235746 Z-0.125000 F800.000000
G01 X52.143391 Y154.072426 Z-0.125000
G01 X50.354119 Y134.695055 Z-0.125000
G01 X48.239548 Y115.642986 Z-0.125000
G01 X47.450310 Y95.265584 Z-0.125000
G01 X46.877530 Y74.671727 Z-0.125000
G01 X45.510956 Y54.871658 Z-0.125000
G00 Z3.000000

(End cutting path id: path570)


(Start cutting path id: path568)
(Change tool to Default tool)

G00 Z3.000000
G00 X52.173979 Y195.561012

G00 Z4.875000 (Fast pre-penetrate)
G01 Z-0.125000 F400.0(Penetrate)
G01 X52.275701 Y174.292653 Z-0.125000 F800.000000
G01 X51.304705 Y154.097008 Z-0.125000
G01 X49.559708 Y134.675362 Z-0.125000
G01 X47.511701 Y115.556732 Z-0.125000
G01 X46.749432 Y95.152361 Z-0.125000
G01 X46.133830 Y74.601324 Z-0.125000
G01 X44.687772 Y54.880738 Z-0.125000
G00 Z3.000000

(End cutting path id: path568)


(Start cutting path id: path566)
(Change tool to Default tool)

G00 Z3.000000
G00 X51.315770 Y195.605120

G00 Z4.875000 (Fast pre-penetrate)
G01 Z-0.125000 F400.0(Penetrate)
G01 X51.404693 Y174.349556 Z-0.125000 F800.000000
G01 X50.466019 Y154.121593 Z-0.125000
G01 X48.765298 Y134.655672 Z-0.125000
G01 X46.783852 Y115.470481 Z-0.125000
G01 X46.048552 Y95.039138 Z-0.125000
G01 X45.390129 Y74.530921 Z-0.125000
G01 X43.864591 Y54.889819 Z-0.125000
G00 Z3.000000

(End cutting path id: path566)


(Start cutting path id: path564)
(Change tool to Default tool)

G00 Z3.000000
G00 X50.457563 Y195.649229

G00 Z4.875000 (Fast pre-penetrate)
G01 Z-0.125000 F400.0(Penetrate)
G01 X50.533686 Y174.406463 Z-0.125000 F800.000000
G01 X49.627333 Y154.146179 Z-0.125000
G01 X47.970890 Y134.635982 Z-0.125000
G01 X46.056002 Y115.384227 Z-0.125000
G01 X45.347674 Y94.925918 Z-0.125000
G01 X44.646429 Y74.460520 Z-0.125000
G01 X43.041410 Y54.898899 Z-0.125000
G00 Z3.000000

(End cutting path id: path564)


(Start cutting path id: path562)
(Change tool to Default tool)

G00 Z3.000000
G00 X49.599354 Y195.693335

G00 Z4.875000 (Fast pre-penetrate)
G01 Z-0.125000 F400.0(Penetrate)
G01 X49.662679 Y174.463369 Z-0.125000 F800.000000
G01 X48.788647 Y154.170761 Z-0.125000
G01 X47.176480 Y134.616289 Z-0.125000
G01 X45.328153 Y115.297975 Z-0.125000
G01 X44.646794 Y94.812695 Z-0.125000
G01 X43.902731 Y74.390118 Z-0.125000
G01 X42.218226 Y54.907980 Z-0.125000
G00 Z3.000000

(End cutting path id: path562)


(Start cutting path id: path560)
(Change tool to Default tool)

G00 Z3.000000
G00 X48.741144 Y195.737443

G00 Z4.875000 (Fast pre-penetrate)
G01 Z-0.125000 F400.0(Penetrate)
G01 X48.791672 Y174.520273 Z-0.125000 F800.000000
G01 X47.949962 Y154.195346 Z-0.125000
G01 X46.382069 Y134.596598 Z-0.125000
G01 X44.600304 Y115.211721 Z-0.125000
G01 X43.945913 Y94.699472 Z-0.125000
G01 X43.159030 Y74.319717 Z-0.125000
G01 X41.395045 Y54.917060 Z-0.125000
G00 Z3.000000

(End cutting path id: path560)


(Start cutting path id: path558)
(Change tool to Default tool)

G00 Z3.000000
G00 X47.882935 Y195.781552

G00 Z4.875000 (Fast pre-penetrate)
G01 Z-0.125000 F400.0(Penetrate)
G01 X47.920664 Y174.577180 Z-0.125000 F800.000000
G01 X47.111276 Y154.219928 Z-0.125000
G01 X45.587659 Y134.576908 Z-0.125000
G01 X43.872454 Y115.125470 Z-0.125000
G01 X43.245036 Y94.586249 Z-0.125000
G01 X42.415330 Y74.249314 Z-0.125000
G01 X40.571864 Y54.926141 Z-0.125000
G00 Z3.000000

(End cutting path id: path558)


(Start cutting path id: path556)
(Change tool to Default tool)

G00 Z3.000000
G00 X47.024725 Y195.825658

G00 Z4.875000 (Fast pre-penetrate)
G01 Z-0.125000 F400.0(Penetrate)
G01 X47.049649 Y174.634086 Z-0.125000 F800.000000
G01 X46.272582 Y154.244513 Z-0.125000
G01 X44.793240 Y134.557215 Z-0.125000
G01 X43.144600 Y115.039216 Z-0.125000
G01 X42.544147 Y94.473028 Z-0.125000
G01 X41.671624 Y74.178912 Z-0.125000
G01 X39.748672 Y54.935224 Z-0.125000
G00 Z3.000000

(End cutting path id: path556)


(Start cutting path id: path554)
(Change tool to Default tool)

G00 Z3.000000
G00 X46.173033 Y195.863247

G00 Z4.875000 (Fast pre-penetrate)
G01 Z-0.125000 F400.0(Penetrate)
G01 X46.211291 Y174.658349 Z-0.125000 F800.000000
G01 X45.443890 Y154.259110 Z-0.125000
G01 X44.005196 Y134.531167 Z-0.125000
G01 X42.410041 Y114.959682 Z-0.125000
G01 X41.827217 Y94.375865 Z-0.125000
G01 X40.900645 Y74.135798 Z-0.125000
G01 X38.877710 Y54.992093 Z-0.125000
G00 Z3.000000

(End cutting path id: path554)


(Start cutting path id: path552)
(Change tool to Default tool)

G00 Z3.000000
G00 X45.321343 Y195.900837

G00 Z4.875000 (Fast pre-penetrate)
G01 Z-0.125000 F400.0(Penetrate)
G01 X45.372929 Y174.682614 Z-0.125000 F800.000000
G01 X44.615192 Y154.273710 Z-0.125000
G01 X43.217143 Y134.505119 Z-0.125000
G01 X41.675476 Y114.880146 Z-0.125000
G01 X41.110279 Y94.278703 Z-0.125000
G01 X40.129661 Y74.092681 Z-0.125000
G01 X38.006737 Y55.048963 Z-0.125000
G00 Z3.000000

(End cutting path id: path552)


(Start cutting path id: path550)
(Change tool to Default tool)

G00 Z3.000000
G00 X44.469653 Y195.938429

G00 Z4.875000 (Fast pre-penetrate)
G01 Z-0.125000 F400.0(Penetrate)
G01 X44.534563 Y174.706876 Z-0.125000 F800.000000
G01 X43.786491 Y154.288307 Z-0.125000
G01 X42.429091 Y134.479068 Z-0.125000
G01 X40.940912 Y114.800609 Z-0.125000
G01 X40.393342 Y94.181537 Z-0.125000
G01 X39.358674 Y74.049565 Z-0.125000
G01 X37.135764 Y55.105835 Z-0.125000
G00 Z3.000000

(End cutting path id: path550)


(Start cutting path id: path548)
(Change tool to Default tool)

G00 Z3.000000
G00 X43.617960 Y195.976018

G00 Z4.875000 (Fast pre-penetrate)
G01 Z-0.125000 F400.0(Penetrate)
G01 X43.696197 Y174.731141 Z-0.125000 F800.000000
G01 X42.957794 Y154.302904 Z-0.125000
G01 X41.641038 Y134.453020 Z-0.125000
G01 X40.206345 Y114.721073 Z-0.125000
G01 X39.676401 Y94.084374 Z-0.125000
G01 X38.587690 Y74.006448 Z-0.125000
G01 X36.264794 Y55.162704 Z-0.125000
G00 Z3.000000

(End cutting path id: path548)


(Start cutting path id: path546)
(Change tool to Default tool)

G00 Z3.000000
G00 X42.766270 Y196.013607

G00 Z4.875000 (Fast pre-penetrate)
G01 Z-0.125000 F400.0(Penetrate)
G01 X42.857832 Y174.755406 Z-0.125000 F800.000000
G01 X42.129093 Y154.317501 Z-0.125000
G01 X40.852986 Y134.426969 Z-0.125000
G01 X39.471780 Y114.641537 Z-0.125000
G01 X38.959463 Y93.987212 Z-0.125000
G01 X37.816703 Y73.963332 Z-0.125000
G01 X35.393821 Y55.219574 Z-0.125000
G00 Z3.000000

(End cutting path id: path546)


(Start cutting path id: path544)
(Change tool to Default tool)

G00 Z3.000000
G00 X41.914577 Y196.051197

G00 Z4.875000 (Fast pre-penetrate)
G01 Z-0.125000 F400.0(Penetrate)
G01 X42.019466 Y174.779668 Z-0.125000 F800.000000
G01 X41.300393 Y154.332101 Z-0.125000
G01 X40.064933 Y134.400921 Z-0.125000
G01 X38.737216 Y114.562001 Z-0.125000
G01 X38.242525 Y93.890049 Z-0.125000
G01 X37.045718 Y73.920218 Z-0.125000
G01 X34.522848 Y55.276446 Z-0.125000
G00 Z3.000000

(End cutting path id: path544)


(Start cutting path id: path542)
(Change tool to Default tool)

G00 Z3.000000
G00 X41.062887 Y196.088786

G00 Z4.875000 (Fast pre-penetrate)
G01 Z-0.125000 F400.0(Penetrate)
G01 X41.181100 Y174.803933 Z-0.125000 F800.000000
G01 X40.471695 Y154.346698 Z-0.125000
G01 X39.276881 Y134.374873 Z-0.125000
G01 X38.002649 Y114.482464 Z-0.125000
G01 X37.525587 Y93.792886 Z-0.125000
G01 X36.274731 Y73.877102 Z-0.125000
G01 X33.651878 Y55.333315 Z-0.125000
G00 Z3.000000

(End cutting path id: path542)


(Start cutting path id: path540)
(Change tool to Default tool)

G00 Z3.000000
G00 X40.211195 Y196.126375

G00 Z4.875000 (Fast pre-penetrate)
G01 Z-0.125000 F400.0(Penetrate)
G01 X40.342735 Y174.828195 Z-0.125000 F800.000000
G01 X39.642995 Y154.361295 Z-0.125000
G01 X38.488828 Y134.348822 Z-0.125000
G01 X37.268084 Y114.402928 Z-0.125000
G01 X36.808649 Y93.695723 Z-0.125000
G01 X35.503747 Y73.833985 Z-0.125000
G01 X32.780905 Y55.390187 Z-0.125000
G00 Z3.000000

(End cutting path id: path540)


(Start cutting path id: path538)
(Change tool to Default tool)

G00 Z3.000000
G00 X39.359505 Y196.163964

G00 Z4.875000 (Fast pre-penetrate)
G01 Z-0.125000 F400.0(Penetrate)
G01 X39.504369 Y174.852460 Z-0.125000 F800.000000
G01 X38.814297 Y154.375895 Z-0.125000
G01 X37.700776 Y134.322773 Z-0.125000
G01 X36.533520 Y114.323392 Z-0.125000
G01 X36.091709 Y93.598560 Z-0.125000
G01 X34.732760 Y73.790869 Z-0.125000
G01 X31.909932 Y55.447057 Z-0.125000
G00 Z3.000000

(End cutting path id: path538)


(Start cutting path id: path536)
(Change tool to Default tool)

G00 Z3.000000
G00 X38.507815 Y196.201554

G00 Z4.875000 (Fast pre-penetrate)
G01 Z-0.125000 F400.0(Penetrate)
G01 X38.666003 Y174.876725 Z-0.125000 F800.000000
G01 X37.985597 Y154.390492 Z-0.125000
G01 X36.912723 Y134.296725 Z-0.125000
G01 X35.798953 Y114.243855 Z-0.125000
G01 X35.374771 Y93.501397 Z-0.125000
G01 X33.961776 Y73.747752 Z-0.125000
G01 X31.038962 Y55.503926 Z-0.125000
G00 Z3.000000

(End cutting path id: path536)


(Start cutting path id: path534)
(Change tool to Default tool)

G00 Z3.000000
G00 X37.656122 Y196.239143

G00 Z4.875000 (Fast pre-penetrate)
G01 Z-0.125000 F400.0(Penetrate)
G01 X37.827638 Y174.900987 Z-0.125000 F800.000000
G01 X37.156899 Y154.405089 Z-0.125000
G01 X36.124671 Y134.270674 Z-0.125000
G01 X35.064389 Y114.164319 Z-0.125000
G01 X34.657833 Y93.404235 Z-0.125000
G01 X33.190789 Y73.704639 Z-0.125000
G01 X30.167989 Y55.560799 Z-0.125000
G00 Z3.000000

(End cutting path id: path534)


(Start cutting path id: path532)
(Change tool to Default tool)

G00 Z3.000000
G00 X36.804432 Y196.276735

G00 Z4.875000 (Fast pre-penetrate)
G01 Z-0.125000 F400.0(Penetrate)
G01 X36.989275 Y174.925252 Z-0.125000 F800.000000
G01 X36.328198 Y154.419686 Z-0.125000
G01 X35.336618 Y134.244626 Z-0.125000
G01 X34.329824 Y114.084783 Z-0.125000
G01 X33.940895 Y93.307069 Z-0.125000
G01 X32.419802 Y73.661522 Z-0.125000
G01 X29.297016 Y55.617668 Z-0.125000
G00 Z3.000000

(End cutting path id: path532)


(Start cutting path id: path528)
(Change tool to Default tool)

G00 Z3.000000
G00 X35.101049 Y196.351914

G00 Z4.875000 (Fast pre-penetrate)
G01 Z-0.125000 F400.0(Penetrate)
G01 X35.312544 Y174.973779 Z-0.125000 F800.000000
G01 X34.670800 Y154.448883 Z-0.125000
G01 X33.760513 Y134.192527 Z-0.125000
G01 X32.860693 Y113.925710 Z-0.125000
G01 X32.507017 Y93.112744 Z-0.125000
G01 X30.877831 Y73.575289 Z-0.125000
G01 X27.555073 Y55.731410 Z-0.125000
G00 Z3.000000

(End cutting path id: path528)


(Start cutting path id: path524)
(Change tool to Default tool)

G00 Z3.000000
G00 X33.397666 Y196.427092

G00 Z4.875000 (Fast pre-penetrate)
G01 Z-0.125000 F400.0(Penetrate)
G01 X33.635812 Y175.022306 Z-0.125000 F800.000000
G01 X33.013402 Y154.478077 Z-0.125000
G01 X32.184408 Y134.140431 Z-0.125000
G01 X31.391561 Y113.766638 Z-0.125000
G01 X31.073141 Y92.918418 Z-0.125000
G01 X29.335860 Y73.489059 Z-0.125000
G01 X25.813128 Y55.845151 Z-0.125000
G00 Z3.000000

(End cutting path id: path524)


(Start cutting path id: path520)
(Change tool to Default tool)

G00 Z3.000000
G00 X31.694284 Y196.502271

G00 Z4.875000 (Fast pre-penetrate)
G01 Z-0.125000 F400.0(Penetrate)
G01 X31.959081 Y175.070834 Z-0.125000 F800.000000
G01 X31.356004 Y154.507273 Z-0.125000
G01 X30.608305 Y134.088332 Z-0.125000
G01 X29.922432 Y113.607565 Z-0.125000
G01 X29.639265 Y92.724092 Z-0.125000
G01 X27.793888 Y73.402826 Z-0.125000
G01 X24.071184 Y55.958890 Z-0.125000
G00 Z3.000000

(End cutting path id: path520)


(Start cutting path id: path516)
(Change tool to Default tool)

G00 Z3.000000
G00 X29.990901 Y196.577449

G00 Z4.875000 (Fast pre-penetrate)
G01 Z-0.125000 F400.0(Penetrate)
G01 X30.282350 Y175.119361 Z-0.125000 F800.000000
G01 X29.698603 Y154.536468 Z-0.125000
G01 X29.032200 Y134.036233 Z-0.125000
G01 X28.453301 Y113.448492 Z-0.125000
G01 X28.205386 Y92.529767 Z-0.125000
G01 X26.251917 Y73.316593 Z-0.125000
G01 X22.329241 Y56.072632 Z-0.125000
G00 Z3.000000

(End cutting path id: path516)


(Start cutting path id: path512)
(Change tool to Default tool)

G00 Z3.000000
G00 X28.287521 Y196.652631

G00 Z4.875000 (Fast pre-penetrate)
G01 Z-0.125000 F400.0(Penetrate)
G01 X28.605621 Y175.167891 Z-0.125000 F800.000000
G01 X28.041205 Y154.565664 Z-0.125000
G01 X27.456095 Y133.984134 Z-0.125000
G01 X26.984169 Y113.289420 Z-0.125000
G01 X26.771511 Y92.335438 Z-0.125000
G01 X24.709946 Y73.230363 Z-0.125000
G01 X20.587296 Y56.186373 Z-0.125000
G00 Z3.000000

(End cutting path id: path512)


(Start cutting path id: path508)
(Change tool to Default tool)

G00 Z3.000000
G00 X26.584138 Y196.727809

G00 Z4.875000 (Fast pre-penetrate)
G01 Z-0.125000 F400.0(Penetrate)
G01 X26.928890 Y175.216418 Z-0.125000 F800.000000
G01 X26.383807 Y154.594861 Z-0.125000
G01 X25.879990 Y133.932037 Z-0.125000
G01 X25.515040 Y113.130347 Z-0.125000
G01 X25.337632 Y92.141113 Z-0.125000
G01 X23.167975 Y73.144130 Z-0.125000
G01 X18.845352 Y56.300115 Z-0.125000
G00 Z3.000000

(End cutting path id: path508)


(Start cutting path id: path504)
(Change tool to Default tool)

G00 Z3.000000
G00 X24.880756 Y196.802988

G00 Z4.875000 (Fast pre-penetrate)
G01 Z-0.125000 F400.0(Penetrate)
G01 X25.252159 Y175.264945 Z-0.125000 F800.000000
G01 X24.726408 Y154.624055 Z-0.125000
G01 X24.303885 Y133.879938 Z-0.125000
G01 X24.045909 Y112.971275 Z-0.125000
G01 X23.903756 Y91.946787 Z-0.125000
G01 X21.626004 Y73.057900 Z-0.125000
G01 X17.103408 Y56.413856 Z-0.125000
G00 Z3.000000

(End cutting path id: path504)


(Start cutting path id: path506)
(Change tool to Default tool)

G00 Z3.000000
G00 X25.732446 Y196.765399

G00 Z4.875000 (Fast pre-penetrate)
G01 Z-0.125000 F400.0(Penetrate)
G01 X26.090524 Y175.240680 Z-0.125000 F800.000000
G01 X25.555109 Y154.609458 Z-0.125000
G01 X25.091938 Y133.905986 Z-0.125000
G01 X24.780473 Y113.050811 Z-0.125000
G01 X24.620694 Y92.043950 Z-0.125000
G01 X22.396991 Y73.101016 Z-0.125000
G01 X17.974380 Y56.356984 Z-0.125000
G00 Z3.000000

(End cutting path id: path506)


(Start cutting path id: path510)
(Change tool to Default tool)

G00 Z3.000000
G00 X27.435828 Y196.690220

G00 Z4.875000 (Fast pre-penetrate)
G01 Z-0.125000 F400.0(Penetrate)
G01 X27.767256 Y175.192153 Z-0.125000 F800.000000
G01 X27.212507 Y154.580261 Z-0.125000
G01 X26.668043 Y133.958085 Z-0.125000
G01 X26.249605 Y113.209884 Z-0.125000
G01 X26.054573 Y92.238276 Z-0.125000
G01 X23.938962 Y73.187247 Z-0.125000
G01 X19.716324 Y56.243243 Z-0.125000
G00 Z3.000000

(End cutting path id: path510)


(Start cutting path id: path514)
(Change tool to Default tool)

G00 Z3.000000
G00 X29.139211 Y196.615041

G00 Z4.875000 (Fast pre-penetrate)
G01 Z-0.125000 F400.0(Penetrate)
G01 X29.443987 Y175.143626 Z-0.125000 F800.000000
G01 X28.869905 Y154.551067 Z-0.125000
G01 X28.244148 Y134.010185 Z-0.125000
G01 X27.718736 Y113.368956 Z-0.125000
G01 X27.488449 Y92.432604 Z-0.125000
G01 X25.480933 Y73.273479 Z-0.125000
G01 X21.458269 Y56.129504 Z-0.125000
G00 Z3.000000

(End cutting path id: path514)


(Start cutting path id: path518)
(Change tool to Default tool)

G00 Z3.000000
G00 X30.842594 Y196.539860

G00 Z4.875000 (Fast pre-penetrate)
G01 Z-0.125000 F400.0(Penetrate)
G01 X31.120715 Y175.095098 Z-0.125000 F800.000000
G01 X30.527303 Y154.521870 Z-0.125000
G01 X29.820253 Y134.062284 Z-0.125000
G01 X29.187865 Y113.528029 Z-0.125000
G01 X28.922324 Y92.626929 Z-0.125000
G01 X27.022904 Y73.359710 Z-0.125000
G01 X23.200212 Y56.015762 Z-0.125000
G00 Z3.000000

(End cutting path id: path518)


(Start cutting path id: path522)
(Change tool to Default tool)

G00 Z3.000000
G00 X32.545976 Y196.464682

G00 Z4.875000 (Fast pre-penetrate)
G01 Z-0.125000 F400.0(Penetrate)
G01 X32.797447 Y175.046571 Z-0.125000 F800.000000
G01 X32.184702 Y154.492676 Z-0.125000
G01 X31.396358 Y134.114380 Z-0.125000
G01 X30.656997 Y113.687101 Z-0.125000
G01 X30.356203 Y92.821255 Z-0.125000
G01 X28.564875 Y73.445943 Z-0.125000
G01 X24.942157 Y55.902021 Z-0.125000
G00 Z3.000000

(End cutting path id: path522)


(Start cutting path id: path526)
(Change tool to Default tool)

G00 Z3.000000
G00 X34.249356 Y196.389503

G00 Z4.875000 (Fast pre-penetrate)
G01 Z-0.125000 F400.0(Penetrate)
G01 X34.474178 Y174.998041 Z-0.125000 F800.000000
G01 X33.842100 Y154.463480 Z-0.125000
G01 X32.972460 Y134.166479 Z-0.125000
G01 X32.126128 Y113.846174 Z-0.125000
G01 X31.790079 Y93.015581 Z-0.125000
G01 X30.106847 Y73.532173 Z-0.125000
G01 X26.684100 Y55.788279 Z-0.125000
G00 Z3.000000

(End cutting path id: path526)


(Start cutting path id: path530)
(Change tool to Default tool)

G00 Z3.000000
G00 X35.952739 Y196.314324

G00 Z4.875000 (Fast pre-penetrate)
G01 Z-0.125000 F400.0(Penetrate)
G01 X36.150909 Y174.949514 Z-0.125000 F800.000000
G01 X35.499498 Y154.434286 Z-0.125000
G01 X34.548565 Y134.218578 Z-0.125000
G01 X33.595257 Y114.005246 Z-0.125000
G01 X33.223957 Y93.209906 Z-0.125000
G01 X31.648818 Y73.618406 Z-0.125000
G01 X28.426043 Y55.674540 Z-0.125000
G00 Z3.000000

(End cutting path id: path530)


(Start cutting path id: path610)
(Change tool to Default tool)

G00 Z3.000000
G00 X70.153905 Y194.677220

G00 Z4.875000 (Fast pre-penetrate)
G01 Z-0.125000 F400.0(Penetrate)
G01 X70.518426 Y173.146061 Z-0.125000 F800.000000
G01 X68.894516 Y153.603328 Z-0.125000
G01 X66.256679 Y135.074525 Z-0.125000
G01 X62.864786 Y117.299778 Z-0.125000
G01 X61.557619 Y97.440308 Z-0.125000
G01 X61.806253 Y76.025034 Z-0.125000
G01 X61.966995 Y54.697652 Z-0.125000
G00 Z3.000000

(End cutting path id: path610)


(Start cutting path id: path612)
(Change tool to Default tool)

G00 Z3.000000
G00 X70.969646 Y194.675582

G00 Z4.875000 (Fast pre-penetrate)
G01 Z-0.125000 F400.0(Penetrate)
G01 X71.341004 Y173.137584 Z-0.125000 F800.000000
G01 X69.710614 Y153.601331 Z-0.125000
G01 X67.065440 Y135.079865 Z-0.125000
G01 X63.660895 Y117.317773 Z-0.125000
G01 X62.348219 Y97.463808 Z-0.125000
G01 X62.604682 Y76.040705 Z-0.125000
G01 X62.782572 Y54.696173 Z-0.125000
G00 Z3.000000

(End cutting path id: path612)


(Start cutting path id: path614)
(Change tool to Default tool)

G00 Z3.000000
G00 X71.785387 Y194.673941

G00 Z4.875000 (Fast pre-penetrate)
G01 Z-0.125000 F400.0(Penetrate)
G01 X72.163582 Y173.129104 Z-0.125000 F800.000000
G01 X70.526715 Y153.599333 Z-0.125000
G01 X67.874205 Y135.085204 Z-0.125000
G01 X64.457001 Y117.335764 Z-0.125000
G01 X63.138817 Y97.487311 Z-0.125000
G01 X63.403112 Y76.056377 Z-0.125000
G01 X63.598152 Y54.694697 Z-0.125000
G00 Z3.000000

(End cutting path id: path614)


(Start cutting path id: path616)
(Change tool to Default tool)

G00 Z3.000000
G00 X72.601128 Y194.672301

G00 Z4.875000 (Fast pre-penetrate)
G01 Z-0.125000 F400.0(Penetrate)
G01 X72.986162 Y173.120627 Z-0.125000 F800.000000
G01 X71.342814 Y153.597335 Z-0.125000
G01 X68.682969 Y135.090543 Z-0.125000
G01 X65.253110 Y117.353759 Z-0.125000
G01 X63.929418 Y97.510812 Z-0.125000
G01 X64.201541 Y76.072048 Z-0.125000
G01 X64.413729 Y54.693220 Z-0.125000
G00 Z3.000000

(End cutting path id: path616)


(Start cutting path id: path618)
(Change tool to Default tool)

G00 Z3.000000
G00 X73.416869 Y194.670661

G00 Z4.875000 (Fast pre-penetrate)
G01 Z-0.125000 F400.0(Penetrate)
G01 X73.808740 Y173.112149 Z-0.125000 F800.000000
G01 X72.158912 Y153.595338 Z-0.125000
G01 X69.491730 Y135.095880 Z-0.125000
G01 X66.049219 Y117.371753 Z-0.125000
G01 X64.720018 Y97.534312 Z-0.125000
G01 X64.999971 Y76.087722 Z-0.125000
G01 X65.229309 Y54.691744 Z-0.125000
G00 Z3.000000

(End cutting path id: path618)


(Start cutting path id: path622)
(Change tool to Default tool)

G00 Z3.000000
G00 X75.048351 Y194.667382

G00 Z4.875000 (Fast pre-penetrate)
G01 Z-0.125000 F400.0(Penetrate)
G01 X75.453899 Y173.095195 Z-0.125000 F800.000000
G01 X73.791111 Y153.591343 Z-0.125000
G01 X71.109258 Y135.106558 Z-0.125000
G01 X67.641435 Y117.407739 Z-0.125000
G01 X66.301219 Y97.581315 Z-0.125000
G01 X66.596830 Y76.119064 Z-0.125000
G01 X66.860465 Y54.688789 Z-0.125000
G00 Z3.000000

(End cutting path id: path622)


(Start cutting path id: path624)
(Change tool to Default tool)

G00 Z3.000000
G00 X75.864093 Y194.665742

G00 Z4.875000 (Fast pre-penetrate)
G01 Z-0.125000 F400.0(Penetrate)
G01 X76.276480 Y173.086718 Z-0.125000 F800.000000
G01 X74.607210 Y153.589345 Z-0.125000
G01 X71.918020 Y135.111895 Z-0.125000
G01 X68.437544 Y117.425731 Z-0.125000
G01 X67.091819 Y97.604818 Z-0.125000
G01 X67.395259 Y76.134736 Z-0.125000
G01 X67.676042 Y54.687312 Z-0.125000
G00 Z3.000000

(End cutting path id: path624)


(Start cutting path id: path626)
(Change tool to Default tool)

G00 Z3.000000
G00 X76.679834 Y194.664104

G00 Z4.875000 (Fast pre-penetrate)
G01 Z-0.125000 F400.0(Penetrate)
G01 X77.099058 Y173.078240 Z-0.125000 F800.000000
G01 X75.423308 Y153.587347 Z-0.125000
G01 X72.726784 Y135.117234 Z-0.125000
G01 X69.233653 Y117.443725 Z-0.125000
G01 X67.882417 Y97.628318 Z-0.125000
G01 X68.193689 Y76.150409 Z-0.125000
G01 X68.491622 Y54.685836 Z-0.125000
G00 Z3.000000

(End cutting path id: path626)


(Start cutting path id: path628)
(Change tool to Default tool)

G00 Z3.000000
G00 X77.495575 Y194.662464

G00 Z4.875000 (Fast pre-penetrate)
G01 Z-0.125000 F400.0(Penetrate)
G01 X77.921638 Y173.069761 Z-0.125000 F800.000000
G01 X76.239409 Y153.585350 Z-0.125000
G01 X73.535545 Y135.122573 Z-0.125000
G01 X70.029762 Y117.461719 Z-0.125000
G01 X68.673018 Y97.651821 Z-0.125000
G01 X68.992118 Y76.166081 Z-0.125000
G01 X69.307202 Y54.684359 Z-0.125000
G00 Z3.000000

(End cutting path id: path628)


(Start cutting path id: path630)
(Change tool to Default tool)

G00 Z3.000000
G00 X78.311316 Y194.660823

G00 Z4.875000 (Fast pre-penetrate)
G01 Z-0.125000 F400.0(Penetrate)
G01 X78.744216 Y173.061283 Z-0.125000 F800.000000
G01 X77.055507 Y153.583352 Z-0.125000
G01 X74.344309 Y135.127910 Z-0.125000
G01 X70.825869 Y117.479711 Z-0.125000
G01 X69.463618 Y97.675321 Z-0.125000
G01 X69.790547 Y76.181752 Z-0.125000
G01 X70.122779 Y54.682880 Z-0.125000
G00 Z3.000000

(End cutting path id: path630)


(Start cutting path id: path632)
(Change tool to Default tool)

G00 Z3.000000
G00 X79.127057 Y194.659183

G00 Z4.875000 (Fast pre-penetrate)
G01 Z-0.125000 F400.0(Penetrate)
G01 X79.566797 Y173.052806 Z-0.125000 F800.000000
G01 X77.871605 Y153.581355 Z-0.125000
G01 X75.153073 Y135.133249 Z-0.125000
G01 X71.621978 Y117.497705 Z-0.125000
G01 X70.254219 Y97.698824 Z-0.125000
G01 X70.588977 Y76.197423 Z-0.125000
G01 X70.938359 Y54.681404 Z-0.125000
G00 Z3.000000

(End cutting path id: path632)


(Start cutting path id: path634)
(Change tool to Default tool)

G00 Z3.000000
G00 X79.942798 Y194.657545

G00 Z4.875000 (Fast pre-penetrate)
G01 Z-0.125000 F400.0(Penetrate)
G01 X80.389375 Y173.044329 Z-0.125000 F800.000000
G01 X78.687706 Y153.579357 Z-0.125000
G01 X75.961835 Y135.138589 Z-0.125000
G01 X72.418087 Y117.515697 Z-0.125000
G01 X71.044819 Y97.722324 Z-0.125000
G01 X71.387406 Y76.213097 Z-0.125000
G01 X71.753936 Y54.679928 Z-0.125000
G00 Z3.000000

(End cutting path id: path634)


(Start cutting path id: path636)
(Change tool to Default tool)

G00 Z3.000000
G00 X80.758539 Y194.655905

G00 Z4.875000 (Fast pre-penetrate)
G01 Z-0.125000 F400.0(Penetrate)
G01 X81.211953 Y173.035852 Z-0.125000 F800.000000
G01 X79.503805 Y153.577359 Z-0.125000
G01 X76.770599 Y135.143925 Z-0.125000
G01 X73.214193 Y117.533691 Z-0.125000
G01 X71.835417 Y97.745827 Z-0.125000
G01 X72.185836 Y76.228768 Z-0.125000
G01 X72.569516 Y54.678451 Z-0.125000
G00 Z3.000000

(End cutting path id: path636)


(Start cutting path id: path638)
(Change tool to Default tool)

G00 Z3.000000
G00 X81.574283 Y194.654264

G00 Z4.875000 (Fast pre-penetrate)
G01 Z-0.125000 F400.0(Penetrate)
G01 X82.034533 Y173.027374 Z-0.125000 F800.000000
G01 X80.319903 Y153.575362 Z-0.125000
G01 X77.579363 Y135.149265 Z-0.125000
G01 X74.010302 Y117.551683 Z-0.125000
G01 X72.626017 Y97.769328 Z-0.125000
G01 X72.984265 Y76.244440 Z-0.125000
G01 X73.385093 Y54.676972 Z-0.125000
G00 Z3.000000

(End cutting path id: path638)


(Start cutting path id: path642)
(Change tool to Default tool)

G00 Z3.000000
G00 X83.205765 Y194.650986

G00 Z4.875000 (Fast pre-penetrate)
G01 Z-0.125000 F400.0(Penetrate)
G01 X83.679692 Y173.010417 Z-0.125000 F800.000000
G01 X81.952102 Y153.571367 Z-0.125000
G01 X79.196888 Y135.159941 Z-0.125000
G01 X75.602521 Y117.587671 Z-0.125000
G01 X74.207218 Y97.816331 Z-0.125000
G01 X74.581127 Y76.275785 Z-0.125000
G01 X75.016250 Y54.674019 Z-0.125000
G00 Z3.000000

(End cutting path id: path642)


(Start cutting path id: path644)
(Change tool to Default tool)

G00 Z3.000000
G00 X84.021507 Y194.649346

G00 Z4.875000 (Fast pre-penetrate)
G01 Z-0.125000 F400.0(Penetrate)
G01 X84.502270 Y173.001940 Z-0.125000 F800.000000
G01 X82.768201 Y153.569369 Z-0.125000
G01 X80.005650 Y135.165280 Z-0.125000
G01 X76.398627 Y117.605663 Z-0.125000
G01 X74.997819 Y97.839834 Z-0.125000
G01 X75.379556 Y76.291456 Z-0.125000
G01 X75.831829 Y54.672543 Z-0.125000
G00 Z3.000000

(End cutting path id: path644)


(Start cutting path id: path646)
(Change tool to Default tool)

G00 Z3.000000
G00 X84.837248 Y194.647705

G00 Z4.875000 (Fast pre-penetrate)
G01 Z-0.125000 F400.0(Penetrate)
G01 X85.324850 Y172.993463 Z-0.125000 F800.000000
G01 X83.584299 Y153.567371 Z-0.125000
G01 X80.814414 Y135.170619 Z-0.125000
G01 X77.194736 Y117.623657 Z-0.125000
G01 X75.788419 Y97.863334 Z-0.125000
G01 X76.177986 Y76.307127 Z-0.125000
G01 X76.647409 Y54.671064 Z-0.125000
G00 Z3.000000

(End cutting path id: path646)


(Start cutting path id: path648)
(Change tool to Default tool)

G00 Z3.000000
G00 X85.652989 Y194.646065

G00 Z4.875000 (Fast pre-penetrate)
G01 Z-0.125000 F400.0(Penetrate)
G01 X86.147428 Y172.984986 Z-0.125000 F800.000000
G01 X84.400400 Y153.565374 Z-0.125000
G01 X81.623178 Y135.175956 Z-0.125000
G01 X77.990845 Y117.641649 Z-0.125000
G01 X76.579017 Y97.886837 Z-0.125000
G01 X76.976415 Y76.322799 Z-0.125000
G01 X77.462986 Y54.669588 Z-0.125000
G00 Z3.000000

(End cutting path id: path648)


(Start cutting path id: path650)
(Change tool to Default tool)

G00 Z3.000000
G00 X86.468730 Y194.644427

G00 Z4.875000 (Fast pre-penetrate)
G01 Z-0.125000 F400.0(Penetrate)
G01 X86.970009 Y172.976508 Z-0.125000 F800.000000
G01 X85.216498 Y153.563376 Z-0.125000
G01 X82.431940 Y135.181295 Z-0.125000
G01 X78.786952 Y117.659643 Z-0.125000
G01 X77.369617 Y97.910337 Z-0.125000
G01 X77.774845 Y76.338472 Z-0.125000
G01 X78.278566 Y54.668111 Z-0.125000
G00 Z3.000000

(End cutting path id: path650)


(Start cutting path id: path652)
(Change tool to Default tool)

G00 Z3.000000
G00 X87.284471 Y194.642787

G00 Z4.875000 (Fast pre-penetrate)
G01 Z-0.125000 F400.0(Penetrate)
G01 X87.792587 Y172.968031 Z-0.125000 F800.000000
G01 X86.032597 Y153.561379 Z-0.125000
G01 X83.240704 Y135.186634 Z-0.125000
G01 X79.583061 Y117.677637 Z-0.125000
G01 X78.160218 Y97.933840 Z-0.125000
G01 X78.573274 Y76.354144 Z-0.125000
G01 X79.094143 Y54.666635 Z-0.125000
G00 Z3.000000

(End cutting path id: path652)


(Start cutting path id: path654)
(Change tool to Default tool)

G00 Z3.000000
G00 X88.100212 Y194.641146

G00 Z4.875000 (Fast pre-penetrate)
G01 Z-0.125000 F400.0(Penetrate)
G01 X88.615168 Y172.959554 Z-0.125000 F800.000000
G01 X86.848698 Y153.559381 Z-0.125000
G01 X84.049468 Y135.191971 Z-0.125000
G01 X80.379170 Y117.695629 Z-0.125000
G01 X78.950818 Y97.957340 Z-0.125000
G01 X79.371704 Y76.369815 Z-0.125000
G01 X79.909723 Y54.665156 Z-0.125000
G00 Z3.000000

(End cutting path id: path654)


(Start cutting path id: path656)
(Change tool to Default tool)

G00 Z3.000000
G00 X88.915953 Y194.639506

G00 Z4.875000 (Fast pre-penetrate)
G01 Z-0.125000 F400.0(Penetrate)
G01 X89.437745 Y172.951074 Z-0.125000 F800.000000
G01 X87.664796 Y153.557383 Z-0.125000
G01 X84.858229 Y135.197310 Z-0.125000
G01 X81.175279 Y117.713623 Z-0.125000
G01 X79.741419 Y97.980843 Z-0.125000
G01 X80.170133 Y76.385486 Z-0.125000
G01 X80.725300 Y54.663680 Z-0.125000
G00 Z3.000000

(End cutting path id: path656)


(Start cutting path id: path658)
(Change tool to Default tool)

G00 Z3.000000
G00 X89.731695 Y194.637868

G00 Z4.875000 (Fast pre-penetrate)
G01 Z-0.125000 F400.0(Penetrate)
G01 X90.260323 Y172.942597 Z-0.125000 F800.000000
G01 X88.480894 Y153.555386 Z-0.125000
G01 X85.666993 Y135.202650 Z-0.125000
G01 X81.971385 Y117.731615 Z-0.125000
G01 X80.532017 Y98.004343 Z-0.125000
G01 X80.968563 Y76.401160 Z-0.125000
G01 X81.540880 Y54.662203 Z-0.125000
G00 Z3.000000

(End cutting path id: path658)


(Start cutting path id: path662)
(Change tool to Default tool)

G00 Z3.000000
G00 X91.194418 Y194.803346

G00 Z4.875000 (Fast pre-penetrate)
G01 Z-0.125000 F400.0(Penetrate)
G01 X91.730802 Y173.100323 Z-0.125000 F800.000000
G01 X89.989957 Y153.674528 Z-0.125000
G01 X87.240201 Y135.257646 Z-0.125000
G01 X83.659647 Y117.671560 Z-0.125000
G01 X82.269229 Y97.895335 Z-0.125000
G01 X82.672906 Y76.325018 Z-0.125000
G01 X83.229639 Y54.601645 Z-0.125000
G00 Z3.000000

(End cutting path id: path662)


(Start cutting path id: path664)
(Change tool to Default tool)

G00 Z3.000000
G00 X91.841403 Y194.970465

G00 Z4.875000 (Fast pre-penetrate)
G01 Z-0.125000 F400.0(Penetrate)
G01 X92.378699 Y173.266528 Z-0.125000 F800.000000
G01 X90.682921 Y153.795667 Z-0.125000
G01 X88.004645 Y135.307303 Z-0.125000
G01 X84.551797 Y117.593511 Z-0.125000
G01 X83.215841 Y97.762827 Z-0.125000
G01 X83.578820 Y76.233208 Z-0.125000
G01 X84.102821 Y54.542564 Z-0.125000
G00 Z3.000000

(End cutting path id: path664)


(Start cutting path id: path666)
(Change tool to Default tool)

G00 Z3.000000
G00 X92.488385 Y195.137583

G00 Z4.875000 (Fast pre-penetrate)
G01 Z-0.125000 F400.0(Penetrate)
G01 X93.026597 Y173.432731 Z-0.125000 F800.000000
G01 X91.375885 Y153.916804 Z-0.125000
G01 X88.769089 Y135.356960 Z-0.125000
G01 X85.443950 Y117.515459 Z-0.125000
G01 X84.162450 Y97.630318 Z-0.125000
G01 X84.484733 Y76.141395 Z-0.125000
G01 X84.976003 Y54.483485 Z-0.125000
G00 Z3.000000

(End cutting path id: path666)


(Start cutting path id: path668)
(Change tool to Default tool)

G00 Z3.000000
G00 X93.135367 Y195.304702

G00 Z4.875000 (Fast pre-penetrate)
G01 Z-0.125000 F400.0(Penetrate)
G01 X93.674495 Y173.598937 Z-0.125000 F800.000000
G01 X92.068849 Y154.037943 Z-0.125000
G01 X89.533532 Y135.406617 Z-0.125000
G01 X86.336100 Y117.437409 Z-0.125000
G01 X85.109062 Y97.497807 Z-0.125000
G01 X85.390644 Y76.049585 Z-0.125000
G01 X85.849185 Y54.424404 Z-0.125000
G00 Z3.000000

(End cutting path id: path668)


(Start cutting path id: path670)
(Change tool to Default tool)

G00 Z3.000000
G00 X93.782352 Y195.471821

G00 Z4.875000 (Fast pre-penetrate)
G01 Z-0.125000 F400.0(Penetrate)
G01 X94.322390 Y173.765140 Z-0.125000 F800.000000
G01 X92.761810 Y154.159080 Z-0.125000
G01 X90.297976 Y135.456274 Z-0.125000
G01 X87.228253 Y117.359360 Z-0.125000
G01 X86.055674 Y97.365299 Z-0.125000
G01 X86.296558 Y75.957772 Z-0.125000
G01 X86.722367 Y54.365323 Z-0.125000
G00 Z3.000000

(End cutting path id: path670)


(Start cutting path id: path672)
(Change tool to Default tool)

G00 Z3.000000
G00 X94.429334 Y195.638939

G00 Z4.875000 (Fast pre-penetrate)
G01 Z-0.125000 F400.0(Penetrate)
G01 X94.970287 Y173.931346 Z-0.125000 F800.000000
G01 X93.454774 Y154.280219 Z-0.125000
G01 X91.062420 Y135.505933 Z-0.125000
G01 X88.120403 Y117.281311 Z-0.125000
G01 X87.002283 Y97.232790 Z-0.125000
G01 X87.202472 Y75.865962 Z-0.125000
G01 X87.595549 Y54.306244 Z-0.125000
G00 Z3.000000

(End cutting path id: path672)


(Start cutting path id: path674)
(Change tool to Default tool)

G00 Z3.000000
G00 X95.076316 Y195.806058

G00 Z4.875000 (Fast pre-penetrate)
G01 Z-0.125000 F400.0(Penetrate)
G01 X95.618185 Y174.097549 Z-0.125000 F800.000000
G01 X94.147738 Y154.401356 Z-0.125000
G01 X91.826864 Y135.555590 Z-0.125000
G01 X89.012555 Y117.203261 Z-0.125000
G01 X87.948895 Y97.100279 Z-0.125000
G01 X88.108385 Y75.774149 Z-0.125000
G01 X88.468731 Y54.247162 Z-0.125000
G00 Z3.000000

(End cutting path id: path674)


(Start cutting path id: path676)
(Change tool to Default tool)

G00 Z3.000000
G00 X95.723298 Y195.973176

G00 Z4.875000 (Fast pre-penetrate)
G01 Z-0.125000 F400.0(Penetrate)
G01 X96.266082 Y174.263752 Z-0.125000 F800.000000
G01 X94.840702 Y154.522495 Z-0.125000
G01 X92.591308 Y135.605247 Z-0.125000
G01 X89.904705 Y117.125209 Z-0.125000
G01 X88.895504 Y96.967771 Z-0.125000
G01 X89.014299 Y75.682338 Z-0.125000
G01 X89.341914 Y54.188084 Z-0.125000
G00 Z3.000000

(End cutting path id: path676)


(Start cutting path id: path678)
(Change tool to Default tool)

G00 Z3.000000
G00 X96.370283 Y196.140295

G00 Z4.875000 (Fast pre-penetrate)
G01 Z-0.125000 F400.0(Penetrate)
G01 X96.913980 Y174.429958 Z-0.125000 F800.000000
G01 X95.533666 Y154.643632 Z-0.125000
G01 X93.355754 Y135.654904 Z-0.125000
G01 X90.796858 Y117.047160 Z-0.125000
G01 X89.842116 Y96.835262 Z-0.125000
G01 X89.920213 Y75.590525 Z-0.125000
G01 X90.215096 Y54.129002 Z-0.125000
G00 Z3.000000

(End cutting path id: path678)


(Start cutting path id: path680)
(Change tool to Default tool)

G00 Z3.000000
G00 X97.017265 Y196.307413

G00 Z4.875000 (Fast pre-penetrate)
G01 Z-0.125000 F400.0(Penetrate)
G01 X97.561878 Y174.596161 Z-0.125000 F800.000000
G01 X96.226628 Y154.764771 Z-0.125000
G01 X94.120198 Y135.704561 Z-0.125000
G01 X91.689008 Y116.969111 Z-0.125000
G01 X90.788727 Y96.702751 Z-0.125000
G01 X90.826124 Y75.498715 Z-0.125000
G01 X91.088278 Y54.069921 Z-0.125000
G00 Z3.000000

(End cutting path id: path680)


(Start cutting path id: path682)
(Change tool to Default tool)

G00 Z3.000000
G00 X97.664247 Y196.474532

G00 Z4.875000 (Fast pre-penetrate)
G01 Z-0.125000 F400.0(Penetrate)
G01 X98.209775 Y174.762367 Z-0.125000 F800.000000
G01 X96.919592 Y154.885908 Z-0.125000
G01 X94.884642 Y135.754220 Z-0.125000
G01 X92.581161 Y116.891061 Z-0.125000
G01 X91.735337 Y96.570243 Z-0.125000
G01 X91.732029 Y75.406902 Z-0.125000
G01 X91.961452 Y54.010842 Z-0.125000
G00 Z3.000000

(End cutting path id: path682)


(Start cutting path id: path684)
(Change tool to Default tool)

G00 Z3.000000
G00 X98.311232 Y196.641651

G00 Z4.875000 (Fast pre-penetrate)
G01 Z-0.125000 F400.0(Penetrate)
G01 X98.857673 Y174.928570 Z-0.125000 F800.000000
G01 X97.612556 Y155.007047 Z-0.125000
G01 X95.649085 Y135.803877 Z-0.125000
G01 X93.473311 Y116.813012 Z-0.125000
G01 X92.681948 Y96.437734 Z-0.125000
G01 X92.637951 Y75.315092 Z-0.125000
G01 X92.834642 Y53.951761 Z-0.125000
G00 Z3.000000

(End cutting path id: path684)


(Start cutting path id: path686)
(Change tool to Default tool)

G00 Z3.000000
G00 X98.958214 Y196.808769

G00 Z4.875000 (Fast pre-penetrate)
G01 Z-0.125000 F400.0(Penetrate)
G01 X99.505570 Y175.094773 Z-0.125000 F800.000000
G01 X98.305520 Y155.128184 Z-0.125000
G01 X96.413529 Y135.853534 Z-0.125000
G01 X94.365464 Y116.734960 Z-0.125000
G01 X93.628560 Y96.305223 Z-0.125000
G01 X93.543865 Y75.223279 Z-0.125000
G01 X93.707824 Y53.892679 Z-0.125000
G00 Z3.000000

(End cutting path id: path686)


(Start cutting path id: path688)
(Change tool to Default tool)

G00 Z3.000000
G00 X99.605197 Y196.975888

G00 Z4.875000 (Fast pre-penetrate)
G01 Z-0.125000 F400.0(Penetrate)
G01 X100.153468 Y175.260979 Z-0.125000 F800.000000
G01 X98.998481 Y155.249323 Z-0.125000
G01 X97.177973 Y135.903191 Z-0.125000
G01 X95.257614 Y116.656911 Z-0.125000
G01 X94.575169 Y96.172715 Z-0.125000
G01 X94.449778 Y75.131469 Z-0.125000
G01 X94.581006 Y53.833601 Z-0.125000
G00 Z3.000000

(End cutting path id: path688)


(Start cutting path id: path690)
(Change tool to Default tool)

G00 Z3.000000
G00 X100.252179 Y197.143006

G00 Z4.875000 (Fast pre-penetrate)
G01 Z-0.125000 F400.0(Penetrate)
G01 X100.801363 Y175.427182 Z-0.125000 F800.000000
G01 X99.691445 Y155.370460 Z-0.125000
G01 X97.942417 Y135.952848 Z-0.125000
G01 X96.149766 Y116.578861 Z-0.125000
G01 X95.521781 Y96.040206 Z-0.125000
G01 X95.355692 Y75.039656 Z-0.125000
G01 X95.454186 Y53.774519 Z-0.125000
G00 Z3.000000

(End cutting path id: path690)


(Start cutting path id: path692)
(Change tool to Default tool)

G00 Z3.000000
G00 X100.899164 Y197.310125

G00 Z4.875000 (Fast pre-penetrate)
G01 Z-0.125000 F400.0(Penetrate)
G01 X101.449261 Y175.593388 Z-0.125000 F800.000000
G01 X100.384409 Y155.491599 Z-0.125000
G01 X98.706861 Y136.002508 Z-0.125000
G01 X97.041916 Y116.500812 Z-0.125000
G01 X96.468393 Y95.907695 Z-0.125000
G01 X96.261603 Y74.947845 Z-0.125000
G01 X96.327368 Y53.715441 Z-0.125000
G00 Z3.000000

(End cutting path id: path692)


(Start cutting path id: path694)
(Change tool to Default tool)

G00 Z3.000000
G00 X101.546146 Y197.477243

G00 Z4.875000 (Fast pre-penetrate)
G01 Z-0.125000 F400.0(Penetrate)
G01 X102.097158 Y175.759591 Z-0.125000 F800.000000
G01 X101.077373 Y155.612736 Z-0.125000
G01 X99.471304 Y136.052165 Z-0.125000
G01 X97.934069 Y116.422763 Z-0.125000
G01 X97.415002 Y95.775187 Z-0.125000
G01 X97.167517 Y74.856032 Z-0.125000
G01 X97.200550 Y53.656359 Z-0.125000
G00 Z3.000000

(End cutting path id: path694)


(Start cutting path id: path696)
(Change tool to Default tool)

G00 Z3.000000
G00 X102.193128 Y197.644362

G00 Z4.875000 (Fast pre-penetrate)
G01 Z-0.125000 F400.0(Penetrate)
G01 X102.745056 Y175.925794 Z-0.125000 F800.000000
G01 X101.770337 Y155.733875 Z-0.125000
G01 X100.235751 Y136.101822 Z-0.125000
G01 X98.826219 Y116.344713 Z-0.125000
G01 X98.361614 Y95.642678 Z-0.125000
G01 X98.073430 Y74.764222 Z-0.125000
G01 X98.073695 Y53.597278 Z-0.125000
G00 Z3.000000

(End cutting path id: path696)


(Start cutting path id: path698)
(Change tool to Default tool)

G00 Z3.000000
G00 X102.840113 Y197.811480

G00 Z4.875000 (Fast pre-penetrate)
G01 Z-0.125000 F400.0(Penetrate)
G01 X103.392954 Y176.092000 Z-0.125000 F800.000000
G01 X102.463299 Y155.855014 Z-0.125000
G01 X101.000195 Y136.151479 Z-0.125000
G01 X99.718369 Y116.266661 Z-0.125000
G01 X99.308223 Y95.510167 Z-0.125000
G01 X98.979344 Y74.672409 Z-0.125000
G01 X98.946914 Y53.538199 Z-0.125000
G00 Z3.000000

(End cutting path id: path698)


(Start cutting path id: path700)
(Change tool to Default tool)

G00 Z3.000000
G00 X103.487095 Y197.978599

G00 Z4.875000 (Fast pre-penetrate)
G01 Z-0.125000 F400.0(Penetrate)
G01 X104.040851 Y176.258203 Z-0.125000 F800.000000
G01 X103.156263 Y155.976151 Z-0.125000
G01 X101.764638 Y136.201136 Z-0.125000
G01 X100.610522 Y116.188612 Z-0.125000
G01 X100.254835 Y95.377659 Z-0.125000
G01 X99.885258 Y74.580596 Z-0.125000
G01 X99.820096 Y53.479118 Z-0.125000
G00 Z3.000000

(End cutting path id: path700)


(Start cutting path id: path702)
(Change tool to Default tool)

G00 Z3.000000
G00 X104.134077 Y198.145718

G00 Z4.875000 (Fast pre-penetrate)
G01 Z-0.125000 F400.0(Penetrate)
G01 X104.688749 Y176.424408 Z-0.125000 F800.000000
G01 X103.849227 Y156.097290 Z-0.125000
G01 X102.529082 Y136.250795 Z-0.125000
G01 X101.502672 Y116.110563 Z-0.125000
G01 X101.201447 Y95.245150 Z-0.125000
G01 X100.791169 Y74.488786 Z-0.125000
G01 X100.693278 Y53.420036 Z-0.125000
G00 Z3.000000

(End cutting path id: path702)


(Start cutting path id: path704)
(Change tool to Default tool)

G00 Z3.000000
G00 X104.781062 Y198.312836

G00 Z4.875000 (Fast pre-penetrate)
G01 Z-0.125000 F400.0(Penetrate)
G01 X105.336646 Y176.590612 Z-0.125000 F800.000000
G01 X104.542191 Y156.218427 Z-0.125000
G01 X103.293526 Y136.300452 Z-0.125000
G01 X102.394825 Y116.032513 Z-0.125000
G01 X102.148056 Y95.112639 Z-0.125000
G01 X101.697082 Y74.396973 Z-0.125000
G01 X101.566460 Y53.360958 Z-0.125000
G00 Z3.000000

(End cutting path id: path704)


(Start cutting path id: path706)
(Change tool to Default tool)

G00 Z3.000000
G00 X105.428044 Y198.479955

G00 Z4.875000 (Fast pre-penetrate)
G01 Z-0.125000 F400.0(Penetrate)
G01 X105.984544 Y176.756815 Z-0.125000 F800.000000
G01 X105.235152 Y156.339566 Z-0.125000
G01 X104.057970 Y136.350109 Z-0.125000
G01 X103.286975 Y115.954464 Z-0.125000
G01 X103.094668 Y94.980131 Z-0.125000
G01 X102.602996 Y74.305163 Z-0.125000
G01 X102.439643 Y53.301876 Z-0.125000
G00 Z3.000000

(End cutting path id: path706)


(Start cutting path id: path708)
(Change tool to Default tool)

G00 Z3.000000
G00 X106.075026 Y198.647073

G00 Z4.875000 (Fast pre-penetrate)
G01 Z-0.125000 F400.0(Penetrate)
G01 X106.632442 Y176.923020 Z-0.125000 F800.000000
G01 X105.928116 Y156.460703 Z-0.125000
G01 X104.822414 Y136.399766 Z-0.125000
G01 X104.179128 Y115.876412 Z-0.125000
G01 X104.041280 Y94.847622 Z-0.125000
G01 X103.508910 Y74.213350 Z-0.125000
G01 X103.312825 Y53.242795 Z-0.125000
G00 Z3.000000

(End cutting path id: path708)


(Start cutting path id: path710)
(Change tool to Default tool)

G00 Z3.000000
G00 X106.722008 Y198.814192

G00 Z4.875000 (Fast pre-penetrate)
G01 Z-0.125000 F400.0(Penetrate)
G01 X107.280337 Y177.089223 Z-0.125000 F800.000000
G01 X106.621080 Y156.581842 Z-0.125000
G01 X105.586857 Y136.449423 Z-0.125000
G01 X105.071278 Y115.798363 Z-0.125000
G01 X104.987889 Y94.715111 Z-0.125000
G01 X104.414823 Y74.121539 Z-0.125000
G01 X104.186007 Y53.183716 Z-0.125000
G00 Z3.000000

(End cutting path id: path710)


(Start cutting path id: path714)
(Change tool to Default tool)

G00 Z3.000000
G00 X107.944996 Y199.219409

G00 Z4.875000 (Fast pre-penetrate)
G01 Z-0.125000 F400.0(Penetrate)
G01 X108.510396 Y177.487371 Z-0.125000 F800.000000
G01 X107.967109 Y156.864017 Z-0.125000
G01 X107.119719 Y136.544765 Z-0.125000
G01 X106.860121 Y115.637724 Z-0.125000
G01 X106.876842 Y94.454362 Z-0.125000
G01 X106.240314 Y73.924250 Z-0.125000
G01 X105.954585 Y53.043342 Z-0.125000
G00 Z3.000000

(End cutting path id: path714)


(Start cutting path id: path716)
(Change tool to Default tool)

G00 Z3.000000
G00 X108.520998 Y199.457510

G00 Z4.875000 (Fast pre-penetrate)
G01 Z-0.125000 F400.0(Penetrate)
G01 X109.092556 Y177.719309 Z-0.125000 F800.000000
G01 X108.620172 Y157.025053 Z-0.125000
G01 X107.888137 Y136.590448 Z-0.125000
G01 X107.756811 Y115.555137 Z-0.125000
G01 X107.819186 Y94.326121 Z-0.125000
G01 X107.159893 Y73.818774 Z-0.125000
G01 X106.849982 Y52.962046 Z-0.125000
G00 Z3.000000

(End cutting path id: path716)


(Start cutting path id: path718)
(Change tool to Default tool)

G00 Z3.000000
G00 X109.097001 Y199.695608

G00 Z4.875000 (Fast pre-penetrate)
G01 Z-0.125000 F400.0(Penetrate)
G01 X109.674718 Y177.951251 Z-0.125000 F800.000000
G01 X109.273237 Y157.186092 Z-0.125000
G01 X108.656555 Y136.636134 Z-0.125000
G01 X108.653512 Y115.472547 Z-0.125000
G01 X108.761538 Y94.197880 Z-0.125000
G01 X108.079481 Y73.713296 Z-0.125000
G01 X107.745386 Y52.880750 Z-0.125000
G00 Z3.000000

(End cutting path id: path718)


(Start cutting path id: path720)
(Change tool to Default tool)

G00 Z3.000000
G00 X109.673003 Y199.933706

G00 Z4.875000 (Fast pre-penetrate)
G01 Z-0.125000 F400.0(Penetrate)
G01 X110.256877 Y178.183192 Z-0.125000 F800.000000
G01 X109.926302 Y157.347127 Z-0.125000
G01 X109.424972 Y136.681817 Z-0.125000
G01 X109.550192 Y115.389957 Z-0.125000
G01 X109.703872 Y94.069640 Z-0.125000
G01 X108.999049 Y73.607820 Z-0.125000
G01 X108.640772 Y52.799457 Z-0.125000
G00 Z3.000000

(End cutting path id: path720)


(Start cutting path id: path722)
(Change tool to Default tool)

G00 Z3.000000
G00 X110.249006 Y200.171804

G00 Z4.875000 (Fast pre-penetrate)
G01 Z-0.125000 F400.0(Penetrate)
G01 X110.839036 Y178.415134 Z-0.125000 F800.000000
G01 X110.579367 Y157.508163 Z-0.125000
G01 X110.193390 Y136.727502 Z-0.125000
G01 X110.446882 Y115.307368 Z-0.125000
G01 X110.646213 Y93.941399 Z-0.125000
G01 X109.918629 Y73.502344 Z-0.125000
G01 X109.536169 Y52.718161 Z-0.125000
G00 Z3.000000

(End cutting path id: path722)


(Start cutting path id: path724)
(Change tool to Default tool)

G00 Z3.000000
G00 X110.825008 Y200.409905

G00 Z4.875000 (Fast pre-penetrate)
G01 Z-0.125000 F400.0(Penetrate)
G01 X111.421198 Y178.647075 Z-0.125000 F800.000000
G01 X111.232431 Y157.669202 Z-0.125000
G01 X110.961805 Y136.773185 Z-0.125000
G01 X111.343572 Y115.224781 Z-0.125000
G01 X111.588555 Y93.813156 Z-0.125000
G01 X110.838205 Y73.396868 Z-0.125000
G01 X110.431565 Y52.636868 Z-0.125000
G00 Z3.000000

(End cutting path id: path724)


(Start cutting path id: path726)
(Change tool to Default tool)

G00 Z3.000000
G00 X111.401011 Y200.648003

G00 Z4.875000 (Fast pre-penetrate)
G01 Z-0.125000 F400.0(Penetrate)
G01 X112.003358 Y178.879016 Z-0.125000 F800.000000
G01 X111.885496 Y157.830237 Z-0.125000
G01 X111.730223 Y136.818871 Z-0.125000
G01 X112.240262 Y115.142191 Z-0.125000
G01 X112.530899 Y93.684915 Z-0.125000
G01 X111.757785 Y73.291389 Z-0.125000
G01 X111.326962 Y52.555572 Z-0.125000
G00 Z3.000000

(End cutting path id: path726)


(Start cutting path id: path728)
(Change tool to Default tool)

G00 Z3.000000
G00 X111.977013 Y200.886102

G00 Z4.875000 (Fast pre-penetrate)
G01 Z-0.125000 F400.0(Penetrate)
G01 X112.585519 Y179.110958 Z-0.125000 F800.000000
G01 X112.538561 Y157.991276 Z-0.125000
G01 X112.498641 Y136.864554 Z-0.125000
G01 X113.136953 Y115.059602 Z-0.125000
G01 X113.473240 Y93.556674 Z-0.125000
G01 X112.677364 Y73.185913 Z-0.125000
G01 X112.222358 Y52.474279 Z-0.125000
G00 Z3.000000

(End cutting path id: path728)


(Start cutting path id: path730)
(Change tool to Default tool)

G00 Z3.000000
G00 X112.553015 Y201.124200

G00 Z4.875000 (Fast pre-penetrate)
G01 Z-0.125000 F400.0(Penetrate)
G01 X113.167679 Y179.342899 Z-0.125000 F800.000000
G01 X113.191624 Y158.152312 Z-0.125000
G01 X113.267056 Y136.910239 Z-0.125000
G01 X114.033640 Y114.977015 Z-0.125000
G01 X114.415582 Y93.428433 Z-0.125000
G01 X113.596938 Y73.080437 Z-0.125000
G01 X113.117752 Y52.392983 Z-0.125000
G00 Z3.000000

(End cutting path id: path730)


(Start cutting path id: path732)
(Change tool to Default tool)

G00 Z3.000000
G00 X113.129018 Y201.362301

G00 Z4.875000 (Fast pre-penetrate)
G01 Z-0.125000 F400.0(Penetrate)
G01 X113.749838 Y179.574841 Z-0.125000 F800.000000
G01 X113.844689 Y158.313350 Z-0.125000
G01 X114.035477 Y136.955922 Z-0.125000
G01 X114.930333 Y114.894425 Z-0.125000
G01 X115.357926 Y93.300193 Z-0.125000
G01 X114.516520 Y72.974958 Z-0.125000
G01 X114.013151 Y52.311688 Z-0.125000
G00 Z3.000000

(End cutting path id: path732)


(Start cutting path id: path734)
(Change tool to Default tool)

G00 Z3.000000
G00 X113.705020 Y201.600399

G00 Z4.875000 (Fast pre-penetrate)
G01 Z-0.125000 F400.0(Penetrate)
G01 X114.332000 Y179.806782 Z-0.125000 F800.000000
G01 X114.497753 Y158.474386 Z-0.125000
G01 X114.803892 Y137.001608 Z-0.125000
G01 X115.827024 Y114.811836 Z-0.125000
G01 X116.300267 Y93.171952 Z-0.125000
G01 X115.436097 Y72.869482 Z-0.125000
G01 X114.908548 Y52.230394 Z-0.125000
G00 Z3.000000

(End cutting path id: path734)


(Start cutting path id: path736)
(Change tool to Default tool)

G00 Z3.000000
G00 X114.281023 Y201.838497

G00 Z4.875000 (Fast pre-penetrate)
G01 Z-0.125000 F400.0(Penetrate)
G01 X114.914159 Y180.038723 Z-0.125000 F800.000000
G01 X115.150818 Y158.635422 Z-0.125000
G01 X115.572310 Y137.047290 Z-0.125000
G01 X116.723714 Y114.729246 Z-0.125000
G01 X117.242612 Y93.043711 Z-0.125000
G01 X116.355676 Y72.764006 Z-0.125000
G01 X115.803944 Y52.149099 Z-0.125000
G00 Z3.000000

(End cutting path id: path736)


(Start cutting path id: path738)
(Change tool to Default tool)

G00 Z3.000000
G00 X114.857025 Y202.076598

G00 Z4.875000 (Fast pre-penetrate)
G01 Z-0.125000 F400.0(Penetrate)
G01 X115.496321 Y180.270662 Z-0.125000 F800.000000
G01 X115.803883 Y158.796460 Z-0.125000
G01 X116.340727 Y137.092976 Z-0.125000
G01 X117.620404 Y114.646659 Z-0.125000
G01 X118.184953 Y92.915470 Z-0.125000
G01 X117.275256 Y72.658528 Z-0.125000
G01 X116.699338 Y52.067806 Z-0.125000
G00 Z3.000000

(End cutting path id: path738)


(Start cutting path id: path740)
(Change tool to Default tool)

G00 Z3.000000
G00 X115.433031 Y202.314696

G00 Z4.875000 (Fast pre-penetrate)
G01 Z-0.125000 F400.0(Penetrate)
G01 X116.078481 Y180.502603 Z-0.125000 F800.000000
G01 X116.456948 Y158.957496 Z-0.125000
G01 X117.109145 Y137.138659 Z-0.125000
G01 X118.517095 Y114.564070 Z-0.125000
G01 X119.127294 Y92.787230 Z-0.125000
G01 X118.194833 Y72.553052 Z-0.125000
G01 X117.594734 Y51.986510 Z-0.125000
G00 Z3.000000

(End cutting path id: path740)


(Start cutting path id: path742)
(Change tool to Default tool)

G00 Z3.000000
G00 X116.009033 Y202.552795

G00 Z4.875000 (Fast pre-penetrate)
G01 Z-0.125000 F400.0(Penetrate)
G01 X116.660640 Y180.734545 Z-0.125000 F800.000000
G01 X117.110013 Y159.118534 Z-0.125000
G01 X117.877563 Y137.184344 Z-0.125000
G01 X119.413785 Y114.481480 Z-0.125000
G01 X120.069639 Y92.658989 Z-0.125000
G01 X119.114412 Y72.447576 Z-0.125000
G01 X118.490131 Y51.905214 Z-0.125000
G00 Z3.000000

(End cutting path id: path742)


(Start cutting path id: path744)
(Change tool to Default tool)

G00 Z3.000000
G00 X116.585035 Y202.790893

G00 Z4.875000 (Fast pre-penetrate)
G01 Z-0.125000 F400.0(Penetrate)
G01 X117.242802 Y180.966486 Z-0.125000 F800.000000
G01 X117.763078 Y159.279570 Z-0.125000
G01 X118.645978 Y137.230027 Z-0.125000
G01 X120.310475 Y114.398893 Z-0.125000
G01 X121.011980 Y92.530748 Z-0.125000
G01 X120.033989 Y72.342100 Z-0.125000
G01 X119.385527 Y51.823921 Z-0.125000
G00 Z3.000000

(End cutting path id: path744)


(Start cutting path id: path746)
(Change tool to Default tool)

G00 Z3.000000
G00 X117.161038 Y203.028994

G00 Z4.875000 (Fast pre-penetrate)
G01 Z-0.125000 F400.0(Penetrate)
G01 X117.824961 Y181.198428 Z-0.125000 F800.000000
G01 X118.416143 Y159.440609 Z-0.125000
G01 X119.414396 Y137.275713 Z-0.125000
G01 X121.207166 Y114.316303 Z-0.125000
G01 X121.954324 Y92.402508 Z-0.125000
G01 X120.953568 Y72.236621 Z-0.125000
G01 X120.280924 Y51.742625 Z-0.125000
G00 Z3.000000

(End cutting path id: path746)


(Start cutting path id: path748)
(Change tool to Default tool)

G00 Z3.000000
G00 X117.737040 Y203.267092

G00 Z4.875000 (Fast pre-penetrate)
G01 Z-0.125000 F400.0(Penetrate)
G01 X118.407123 Y181.430369 Z-0.125000 F800.000000
G01 X119.069205 Y159.601644 Z-0.125000
G01 X120.182814 Y137.321396 Z-0.125000
G01 X122.103856 Y114.233714 Z-0.125000
G01 X122.896666 Y92.274264 Z-0.125000
G01 X121.873147 Y72.131145 Z-0.125000
G01 X121.176320 Y51.661332 Z-0.125000
G00 Z3.000000

(End cutting path id: path748)


(Start cutting path id: path750)
(Change tool to Default tool)

G00 Z3.000000
G00 X118.313043 Y203.505190

G00 Z4.875000 (Fast pre-penetrate)
G01 Z-0.125000 F400.0(Penetrate)
G01 X118.989283 Y181.662310 Z-0.125000 F800.000000
G01 X119.722270 Y159.762683 Z-0.125000
G01 X120.951232 Y137.367081 Z-0.125000
G01 X123.000546 Y114.151124 Z-0.125000
G01 X123.839007 Y92.146023 Z-0.125000
G01 X122.792724 Y72.025669 Z-0.125000
G01 X122.071717 Y51.580036 Z-0.125000
G00 Z3.000000

(End cutting path id: path750)


(Start cutting path id: path752)
(Change tool to Default tool)

G00 Z3.000000
G00 X118.889045 Y203.743288

G00 Z4.875000 (Fast pre-penetrate)
G01 Z-0.125000 F400.0(Penetrate)
G01 X119.571442 Y181.894252 Z-0.125000 F800.000000
G01 X120.375335 Y159.923719 Z-0.125000
G01 X121.719650 Y137.412764 Z-0.125000
G01 X123.897236 Y114.068537 Z-0.125000
G01 X124.781351 Y92.017783 Z-0.125000
G01 X123.712304 Y71.920190 Z-0.125000
G01 X122.967113 Y51.498740 Z-0.125000
G00 Z3.000000

(End cutting path id: path752)


(Start cutting path id: path754)
(Change tool to Default tool)

G00 Z3.000000
G00 X119.465048 Y203.981389

G00 Z4.875000 (Fast pre-penetrate)
G01 Z-0.125000 F400.0(Penetrate)
G01 X120.153604 Y182.126193 Z-0.125000 F800.000000
G01 X121.028400 Y160.084755 Z-0.125000
G01 X122.488067 Y137.458450 Z-0.125000
G01 X124.793929 Y113.985948 Z-0.125000
G01 X125.723693 Y91.889542 Z-0.125000
G01 X124.631880 Y71.814714 Z-0.125000
G01 X123.862510 Y51.417447 Z-0.125000
G00 Z3.000000

(End cutting path id: path754)


(Start cutting path id: path756)
(Change tool to Default tool)

G00 Z3.000000
G00 X120.041050 Y204.219488

G00 Z4.875000 (Fast pre-penetrate)
G01 Z-0.125000 F400.0(Penetrate)
G01 X120.735763 Y182.358135 Z-0.125000 F800.000000
G01 X121.681465 Y160.245793 Z-0.125000
G01 X123.256483 Y137.504133 Z-0.125000
G01 X125.690620 Y113.903358 Z-0.125000
G01 X126.666037 Y91.761301 Z-0.125000
G01 X125.551460 Y71.709238 Z-0.125000
G01 X124.757904 Y51.336151 Z-0.125000
G00 Z3.000000

(End cutting path id: path756)


(Start cutting path id: path758)
(Change tool to Default tool)

G00 Z3.000000
G00 X120.617053 Y204.457586

G00 Z4.875000 (Fast pre-penetrate)
G01 Z-0.125000 F400.0(Penetrate)
G01 X121.317925 Y182.590076 Z-0.125000 F800.000000
G01 X122.334530 Y160.406829 Z-0.125000
G01 X124.024900 Y137.549818 Z-0.125000
G01 X126.587310 Y113.820771 Z-0.125000
G01 X127.608378 Y91.633060 Z-0.125000
G01 X126.471039 Y71.603760 Z-0.125000
G01 X125.653300 Y51.254858 Z-0.125000
G00 Z3.000000

(End cutting path id: path758)


(Start cutting path id: path760)
(Change tool to Default tool)

G00 Z3.000000
G00 X121.193055 Y204.695684

G00 Z4.875000 (Fast pre-penetrate)
G01 Z-0.125000 F400.0(Penetrate)
G01 X121.900085 Y182.822015 Z-0.125000 F800.000000
G01 X122.987595 Y160.567867 Z-0.125000
G01 X124.793318 Y137.595501 Z-0.125000
G01 X127.484000 Y113.738182 Z-0.125000
G01 X128.550720 Y91.504820 Z-0.125000
G01 X127.390616 Y71.498284 Z-0.125000
G01 X126.548697 Y51.173563 Z-0.125000
G00 Z3.000000

(End cutting path id: path760)


(Start cutting path id: path762)
(Change tool to Default tool)

G00 Z3.000000
G00 X121.769058 Y204.933785

G00 Z4.875000 (Fast pre-penetrate)
G01 Z-0.125000 F400.0(Penetrate)
G01 X122.482244 Y183.053956 Z-0.125000 F800.000000
G01 X123.640660 Y160.728903 Z-0.125000
G01 X125.561736 Y137.641187 Z-0.125000
G01 X128.380691 Y113.655592 Z-0.125000
G01 X129.493064 Y91.376579 Z-0.125000
G01 X128.310195 Y71.392808 Z-0.125000
G01 X127.444093 Y51.092269 Z-0.125000
G00 Z3.000000

(End cutting path id: path762)


(Start cutting path id: path764)
(Change tool to Default tool)

G00 Z3.000000
G00 X122.345060 Y205.171883

G00 Z4.875000 (Fast pre-penetrate)
G01 Z-0.125000 F400.0(Penetrate)
G01 X123.064406 Y183.285898 Z-0.125000 F800.000000
G01 X124.293722 Y160.889941 Z-0.125000
G01 X126.330154 Y137.686870 Z-0.125000
G01 X129.277381 Y113.573003 Z-0.125000
G01 X130.435405 Y91.248338 Z-0.125000
G01 X129.229772 Y71.287332 Z-0.125000
G01 X128.339490 Y51.010974 Z-0.125000
G00 Z3.000000

(End cutting path id: path764)


(Start cutting path id: path766)
(Change tool to Default tool)

G00 Z3.000000
G00 X122.999274 Y205.331773

G00 Z4.875000 (Fast pre-penetrate)
G01 Z-0.125000 F400.0(Penetrate)
G01 X123.733293 Y183.431111 Z-0.125000 F800.000000
G01 X125.024730 Y160.973036 Z-0.125000
G01 X127.155478 Y137.675646 Z-0.125000
G01 X130.097430 Y113.567057 Z-0.125000
G01 X131.234226 Y91.263621 Z-0.125000
G01 X130.083261 Y71.247943 Z-0.125000
G01 X129.222472 Y50.942092 Z-0.125000
G00 Z3.000000

(End cutting path id: path766)


(Start cutting path id: path768)
(Change tool to Default tool)

G00 Z3.000000
G00 X123.653484 Y205.491663

G00 Z4.875000 (Fast pre-penetrate)
G01 Z-0.125000 F400.0(Penetrate)
G01 X124.402183 Y183.576325 Z-0.125000 F800.000000
G01 X125.755736 Y161.056131 Z-0.125000
G01 X127.980805 Y137.664420 Z-0.125000
G01 X130.917478 Y113.561110 Z-0.125000
G01 X132.033045 Y91.278903 Z-0.125000
G01 X130.936750 Y71.208557 Z-0.125000
G01 X130.105454 Y50.873211 Z-0.125000
G00 Z3.000000

(End cutting path id: path768)


(Start cutting path id: path770)
(Change tool to Default tool)

G00 Z3.000000
G00 X124.307695 Y205.651554

G00 Z4.875000 (Fast pre-penetrate)
G01 Z-0.125000 F400.0(Penetrate)
G01 X125.071072 Y183.721536 Z-0.125000 F800.000000
G01 X126.486742 Y161.139226 Z-0.125000
G01 X128.806132 Y137.653196 Z-0.125000
G01 X131.737527 Y113.555162 Z-0.125000
G01 X132.831863 Y91.294183 Z-0.125000
G01 X131.790240 Y71.169169 Z-0.125000
G01 X130.988439 Y50.804329 Z-0.125000
G00 Z3.000000

(End cutting path id: path770)


(Start cutting path id: path772)
(Change tool to Default tool)

G00 Z3.000000
G00 X124.961908 Y205.811444

G00 Z4.875000 (Fast pre-penetrate)
G01 Z-0.125000 F400.0(Penetrate)
G01 X125.739959 Y183.866750 Z-0.125000 F800.000000
G01 X127.217748 Y161.222321 Z-0.125000
G01 X129.631459 Y137.641970 Z-0.125000
G01 X132.557575 Y113.549214 Z-0.125000
G01 X133.630684 Y91.309465 Z-0.125000
G01 X132.643726 Y71.129783 Z-0.125000
G01 X131.871422 Y50.735448 Z-0.125000
G00 Z3.000000

(End cutting path id: path772)


(Start cutting path id: path774)
(Change tool to Default tool)

G00 Z3.000000
G00 X125.616118 Y205.971334

G00 Z4.875000 (Fast pre-penetrate)
G01 Z-0.125000 F400.0(Penetrate)
G01 X126.408849 Y184.011964 Z-0.125000 F800.000000
G01 X127.948754 Y161.305416 Z-0.125000
G01 X130.456786 Y137.630746 Z-0.125000
G01 X133.377624 Y113.543269 Z-0.125000
G01 X134.429503 Y91.324747 Z-0.125000
G01 X133.497215 Y71.090395 Z-0.125000
G01 X132.754404 Y50.666569 Z-0.125000
G00 Z3.000000

(End cutting path id: path774)


(Start cutting path id: path776)
(Change tool to Default tool)

G00 Z3.000000
G00 X126.270329 Y206.131224

G00 Z4.875000 (Fast pre-penetrate)
G01 Z-0.125000 F400.0(Penetrate)
G01 X127.077736 Y184.157175 Z-0.125000 F800.000000
G01 X128.679759 Y161.388514 Z-0.125000
G01 X131.282113 Y137.619520 Z-0.125000
G01 X134.197672 Y113.537321 Z-0.125000
G01 X135.228324 Y91.340030 Z-0.125000
G01 X134.350704 Y71.051009 Z-0.125000
G01 X133.637386 Y50.597687 Z-0.125000
G00 Z3.000000

(End cutting path id: path776)


(Start cutting path id: path778)
(Change tool to Default tool)

G00 Z3.000000
G00 X126.924542 Y206.291114

G00 Z4.875000 (Fast pre-penetrate)
G01 Z-0.125000 F400.0(Penetrate)
G01 X127.746625 Y184.302388 Z-0.125000 F800.000000
G01 X129.410765 Y161.471609 Z-0.125000
G01 X132.107437 Y137.608296 Z-0.125000
G01 X135.017721 Y113.531373 Z-0.125000
G01 X136.027142 Y91.355312 Z-0.125000
G01 X135.204194 Y71.011623 Z-0.125000
G01 X134.520368 Y50.528806 Z-0.125000
G00 Z3.000000

(End cutting path id: path778)


(Start cutting path id: path780)
(Change tool to Default tool)

G00 Z3.000000
G00 X127.578753 Y206.451004

G00 Z4.875000 (Fast pre-penetrate)
G01 Z-0.125000 F400.0(Penetrate)
G01 X128.415515 Y184.447602 Z-0.125000 F800.000000
G01 X130.141771 Y161.554704 Z-0.125000
G01 X132.932764 Y137.597070 Z-0.125000
G01 X135.837769 Y113.525425 Z-0.125000
G01 X136.825963 Y91.370594 Z-0.125000
G01 X136.057680 Y70.972234 Z-0.125000
G01 X135.403353 Y50.459924 Z-0.125000
G00 Z3.000000

(End cutting path id: path780)


(Start cutting path id: path782)
(Change tool to Default tool)

G00 Z3.000000
G00 X128.232963 Y206.610895

G00 Z4.875000 (Fast pre-penetrate)
G01 Z-0.125000 F400.0(Penetrate)
G01 X129.084402 Y184.592813 Z-0.125000 F800.000000
G01 X130.872779 Y161.637799 Z-0.125000
G01 X133.758091 Y137.585847 Z-0.125000
G01 X136.657818 Y113.519477 Z-0.125000
G01 X137.624781 Y91.385876 Z-0.125000
G01 X136.911169 Y70.932849 Z-0.125000
G01 X136.286335 Y50.391042 Z-0.125000
G00 Z3.000000

(End cutting path id: path782)


(Start cutting path id: path784)
(Change tool to Default tool)

G00 Z3.000000
G00 X128.887174 Y206.770785

G00 Z4.875000 (Fast pre-penetrate)
G01 Z-0.125000 F400.0(Penetrate)
G01 X129.753292 Y184.738027 Z-0.125000 F800.000000
G01 X131.603785 Y161.720893 Z-0.125000
G01 X134.583418 Y137.574620 Z-0.125000
G01 X137.477866 Y113.513532 Z-0.125000
G01 X138.423600 Y91.401159 Z-0.125000
G01 X137.764659 Y70.893460 Z-0.125000
G01 X137.169318 Y50.322161 Z-0.125000
G00 Z3.000000

(End cutting path id: path784)


(Start cutting path id: path786)
(Change tool to Default tool)

G00 Z3.000000
G00 X129.541387 Y206.930675

G00 Z4.875000 (Fast pre-penetrate)
G01 Z-0.125000 F400.0(Penetrate)
G01 X130.422181 Y184.883241 Z-0.125000 F800.000000
G01 X132.334791 Y161.803991 Z-0.125000
G01 X135.408745 Y137.563397 Z-0.125000
G01 X138.297915 Y113.507584 Z-0.125000
G01 X139.222421 Y91.416441 Z-0.125000
G01 X138.618148 Y70.854074 Z-0.125000
G01 X138.052300 Y50.253279 Z-0.125000
G00 Z3.000000

(End cutting path id: path786)


(Start cutting path id: path788)
(Change tool to Default tool)

G00 Z3.000000
G00 X130.195598 Y207.090565

G00 Z4.875000 (Fast pre-penetrate)
G01 Z-0.125000 F400.0(Penetrate)
G01 X131.091068 Y185.028454 Z-0.125000 F800.000000
G01 X133.065797 Y161.887086 Z-0.125000
G01 X136.234072 Y137.552170 Z-0.125000
G01 X139.117966 Y113.501637 Z-0.125000
G01 X140.021239 Y91.431721 Z-0.125000
G01 X139.471634 Y70.814686 Z-0.125000
G01 X138.935282 Y50.184398 Z-0.125000
G00 Z3.000000

(End cutting path id: path788)


(Start cutting path id: path790)
(Change tool to Default tool)

G00 Z3.000000
G00 X130.849808 Y207.250455

G00 Z4.875000 (Fast pre-penetrate)
G01 Z-0.125000 F400.0(Penetrate)
G01 X131.759958 Y185.173666 Z-0.125000 F800.000000
G01 X133.796803 Y161.970181 Z-0.125000
G01 X137.059399 Y137.540944 Z-0.125000
G01 X139.938015 Y113.495689 Z-0.125000
G01 X140.820060 Y91.447003 Z-0.125000
G01 X140.325124 Y70.775300 Z-0.125000
G01 X139.818267 Y50.115516 Z-0.125000
G00 Z3.000000

(End cutting path id: path790)


(Start cutting path id: path792)
(Change tool to Default tool)

G00 Z3.000000
G00 X131.504022 Y207.410345

G00 Z4.875000 (Fast pre-penetrate)
G01 Z-0.125000 F400.0(Penetrate)
G01 X132.428845 Y185.318879 Z-0.125000 F800.000000
G01 X134.527808 Y162.053276 Z-0.125000
G01 X137.884724 Y137.529721 Z-0.125000
G01 X140.758063 Y113.489744 Z-0.125000
G01 X141.618879 Y91.462285 Z-0.125000
G01 X141.178613 Y70.735912 Z-0.125000
G01 X140.701249 Y50.046637 Z-0.125000
G00 Z3.000000

(End cutting path id: path792)


(Start cutting path id: path794)
(Change tool to Default tool)

G00 Z3.000000
G00 X132.158232 Y207.570235

G00 Z4.875000 (Fast pre-penetrate)
G01 Z-0.125000 F400.0(Penetrate)
G01 X133.097735 Y185.464093 Z-0.125000 F800.000000
G01 X135.258814 Y162.136371 Z-0.125000
G01 X138.710051 Y137.518494 Z-0.125000
G01 X141.578112 Y113.483796 Z-0.125000
G01 X142.417700 Y91.477568 Z-0.125000
G01 X142.032102 Y70.696526 Z-0.125000
G01 X141.584232 Y49.977756 Z-0.125000
G00 Z3.000000

(End cutting path id: path794)


(Start cutting path id: path796)
(Change tool to Default tool)

G00 Z3.000000
G00 X132.812443 Y207.730123

G00 Z4.875000 (Fast pre-penetrate)
G01 Z-0.125000 F400.0(Penetrate)
G01 X133.766624 Y185.609304 Z-0.125000 F800.000000
G01 X135.989823 Y162.219466 Z-0.125000
G01 X139.535378 Y137.507271 Z-0.125000
G01 X142.398160 Y113.477848 Z-0.125000
G01 X143.216518 Y91.492850 Z-0.125000
G01 X142.885588 Y70.657140 Z-0.125000
G01 X142.467214 Y49.908874 Z-0.125000
G00 Z3.000000

(End cutting path id: path796)


(Start cutting path id: path798)
(Change tool to Default tool)

G00 Z3.000000
G00 X133.466656 Y207.890013

G00 Z4.875000 (Fast pre-penetrate)
G01 Z-0.125000 F400.0(Penetrate)
G01 X134.435511 Y185.754518 Z-0.125000 F800.000000
G01 X136.720828 Y162.302563 Z-0.125000
G01 X140.360705 Y137.496044 Z-0.125000
G01 X143.218209 Y113.471900 Z-0.125000
G01 X144.015337 Y91.508132 Z-0.125000
G01 X143.739078 Y70.617751 Z-0.125000
G01 X143.350196 Y49.839993 Z-0.125000
G00 Z3.000000

(End cutting path id: path798)


(Start cutting path id: path800)
(Change tool to Default tool)

G00 Z3.000000
G00 X134.120866 Y208.049903

G00 Z4.875000 (Fast pre-penetrate)
G01 Z-0.125000 F400.0(Penetrate)
G01 X135.104401 Y185.899732 Z-0.125000 F800.000000
G01 X137.451834 Y162.385658 Z-0.125000
G01 X141.186032 Y137.484821 Z-0.125000
G01 X144.038258 Y113.465955 Z-0.125000
G01 X144.814158 Y91.523415 Z-0.125000
G01 X144.592567 Y70.578366 Z-0.125000
G01 X144.233181 Y49.771111 Z-0.125000
G00 Z3.000000

(End cutting path id: path800)


(Start cutting path id: path802)
(Change tool to Default tool)

G00 Z3.000000
G00 X134.775077 Y208.209793

G00 Z4.875000 (Fast pre-penetrate)
G01 Z-0.125000 F400.0(Penetrate)
G01 X135.773288 Y186.044943 Z-0.125000 F800.000000
G01 X138.182840 Y162.468753 Z-0.125000
G01 X142.011359 Y137.473595 Z-0.125000
G01 X144.858306 Y113.460007 Z-0.125000
G01 X145.612976 Y91.538697 Z-0.125000
G01 X145.446056 Y70.538977 Z-0.125000
G01 X145.116163 Y49.702230 Z-0.125000
G00 Z3.000000

(End cutting path id: path802)


(Start cutting path id: path804)
(Change tool to Default tool)

G00 Z3.000000
G00 X135.429290 Y208.369684

G00 Z4.875000 (Fast pre-penetrate)
G01 Z-0.125000 F400.0(Penetrate)
G01 X136.442178 Y186.190156 Z-0.125000 F800.000000
G01 X138.913846 Y162.551848 Z-0.125000
G01 X142.836683 Y137.462371 Z-0.125000
G01 X145.678355 Y113.454059 Z-0.125000
G01 X146.411797 Y91.553977 Z-0.125000
G01 X146.299543 Y70.499591 Z-0.125000
G01 X145.999146 Y49.633348 Z-0.125000
G00 Z3.000000

(End cutting path id: path804)


(Start cutting path id: path806)
(Change tool to Default tool)

G00 Z3.000000
G00 X136.083501 Y208.529574

G00 Z4.875000 (Fast pre-penetrate)
G01 Z-0.125000 F400.0(Penetrate)
G01 X137.111067 Y186.335370 Z-0.125000 F800.000000
G01 X139.644852 Y162.634943 Z-0.125000
G01 X143.662010 Y137.451145 Z-0.125000
G01 X146.498403 Y113.448111 Z-0.125000
G01 X147.210616 Y91.569259 Z-0.125000
G01 X147.153032 Y70.460203 Z-0.125000
G01 X146.882128 Y49.564467 Z-0.125000
G00 Z3.000000

(End cutting path id: path806)


(Start cutting path id: path808)
(Change tool to Default tool)

G00 Z3.000000
G00 X136.737711 Y208.689464

G00 Z4.875000 (Fast pre-penetrate)
G01 Z-0.125000 F400.0(Penetrate)
G01 X137.779954 Y186.480581 Z-0.125000 F800.000000
G01 X140.375857 Y162.718038 Z-0.125000
G01 X144.487337 Y137.439921 Z-0.125000
G01 X147.318452 Y113.442164 Z-0.125000
G01 X148.009437 Y91.584541 Z-0.125000
G01 X148.006526 Y70.420817 Z-0.125000
G01 X147.765115 Y49.495588 Z-0.125000
G00 Z3.000000

(End cutting path id: path808)


(Start cutting path id: path810)
(Change tool to Default tool)

G00 Z3.000000
G00 X137.391925 Y208.849354

G00 Z4.875000 (Fast pre-penetrate)
G01 Z-0.125000 F400.0(Penetrate)
G01 X138.448844 Y186.625795 Z-0.125000 F800.000000
G01 X141.106863 Y162.801136 Z-0.125000
G01 X145.312664 Y137.428695 Z-0.125000
G01 X148.138500 Y113.436218 Z-0.125000
G01 X148.808255 Y91.599824 Z-0.125000
G01 X148.860010 Y70.381431 Z-0.125000
G01 X148.648092 Y49.426706 Z-0.125000
G00 Z3.000000

(End cutting path id: path810)


(Start cutting path id: path812)
(Change tool to Default tool)

G00 Z3.000000
G00 X138.046135 Y209.009244

G00 Z4.875000 (Fast pre-penetrate)
G01 Z-0.125000 F400.0(Penetrate)
G01 X139.117733 Y186.771009 Z-0.125000 F800.000000
G01 X141.837872 Y162.884231 Z-0.125000
G01 X146.137991 Y137.417471 Z-0.125000
G01 X148.958549 Y113.430271 Z-0.125000
G01 X149.607074 Y91.615106 Z-0.125000
G01 X149.713497 Y70.342043 Z-0.125000
G01 X149.531077 Y49.357825 Z-0.125000
G00 Z3.000000

(End cutting path id: path812)


(Start cutting path id: path814)
(Change tool to Default tool)

G00 Z3.000000
G00 X138.700346 Y209.169134

G00 Z4.875000 (Fast pre-penetrate)
G01 Z-0.125000 F400.0(Penetrate)
G01 X139.786620 Y186.916222 Z-0.125000 F800.000000
G01 X142.568877 Y162.967325 Z-0.125000
G01 X146.963318 Y137.406245 Z-0.125000
G01 X149.778600 Y113.424323 Z-0.125000
G01 X150.405895 Y91.630388 Z-0.125000
G01 X150.566986 Y70.302657 Z-0.125000
G01 X150.414060 Y49.288943 Z-0.125000
G00 Z3.000000

(End cutting path id: path814)


(Start cutting path id: path820)
(Change tool to Default tool)

G00 Z3.000000
G00 X140.893120 Y209.418665

G00 Z4.875000 (Fast pre-penetrate)
G01 Z-0.125000 F400.0(Penetrate)
G01 X142.008136 Y187.137012 Z-0.125000 F800.000000
G01 X144.896427 Y163.082078 Z-0.125000
G01 X149.445673 Y137.366192 Z-0.125000
G01 X152.200842 Y113.444383 Z-0.125000
G01 X152.766242 Y91.712343 Z-0.125000
G01 X153.052169 Y70.259776 Z-0.125000
G01 X152.971405 Y49.173900 Z-0.125000
G00 Z3.000000

(End cutting path id: path820)


(Start cutting path id: path828)
(Change tool to Default tool)

G00 Z3.000000
G00 X143.970244 Y209.597949

G00 Z4.875000 (Fast pre-penetrate)
G01 Z-0.125000 F400.0(Penetrate)
G01 X145.113388 Y187.288165 Z-0.125000 F800.000000
G01 X148.089518 Y163.145392 Z-0.125000
G01 X152.759733 Y137.308540 Z-0.125000
G01 X155.405233 Y113.496400 Z-0.125000
G01 X155.889303 Y91.845690 Z-0.125000
G01 X156.315560 Y70.252794 Z-0.125000
G01 X156.320137 Y49.081579 Z-0.125000
G00 Z3.000000

(End cutting path id: path828)


(Start cutting path id: path836)
(Change tool to Default tool)

G00 Z3.000000
G00 X147.047368 Y209.777231

G00 Z4.875000 (Fast pre-penetrate)
G01 Z-0.125000 F400.0(Penetrate)
G01 X148.218642 Y187.439316 Z-0.125000 F800.000000
G01 X151.282609 Y163.208710 Z-0.125000
G01 X156.073792 Y137.250887 Z-0.125000
G01 X158.609624 Y113.548415 Z-0.125000
G01 X159.012362 Y91.979037 Z-0.125000
G01 X159.578950 Y70.245809 Z-0.125000
G01 X159.668861 Y48.989258 Z-0.125000
G00 Z3.000000

(End cutting path id: path836)


(Start cutting path id: path844)
(Change tool to Default tool)

G00 Z3.000000
G00 X150.124492 Y209.956515

G00 Z4.875000 (Fast pre-penetrate)
G01 Z-0.125000 F400.0(Penetrate)
G01 X151.323894 Y187.590470 Z-0.125000 F800.000000
G01 X154.475700 Y163.272025 Z-0.125000
G01 X159.387852 Y137.193234 Z-0.125000
G01 X161.814012 Y113.600432 Z-0.125000
G01 X162.135420 Y92.112384 Z-0.125000
G01 X162.842341 Y70.238826 Z-0.125000
G01 X163.017587 Y48.896937 Z-0.125000
G00 Z3.000000

(End cutting path id: path844)


(Start cutting path id: path854)
(Change tool to Default tool)

G00 Z3.000000
G00 X153.970897 Y210.180617

G00 Z4.875000 (Fast pre-penetrate)
G01 Z-0.125000 F400.0(Penetrate)
G01 X155.205459 Y187.779411 Z-0.125000 F800.000000
G01 X158.467064 Y163.351169 Z-0.125000
G01 X163.530426 Y137.121167 Z-0.125000
G01 X165.819500 Y113.665453 Z-0.125000
G01 X166.039244 Y92.279069 Z-0.125000
G01 X166.921578 Y70.230095 Z-0.125000
G01 X167.203497 Y48.781536 Z-0.125000
G00 Z3.000000

(End cutting path id: path854)


(Start cutting path id: path852)
(Change tool to Default tool)

G00 Z3.000000
G00 X153.201616 Y210.135796

G00 Z4.875000 (Fast pre-penetrate)
G01 Z-0.125000 F400.0(Penetrate)
G01 X154.429146 Y187.741623 Z-0.125000 F800.000000
G01 X157.668791 Y163.335339 Z-0.125000
G01 X162.701911 Y137.135579 Z-0.125000
G01 X165.018404 Y113.652449 Z-0.125000
G01 X165.258478 Y92.245732 Z-0.125000
G01 X166.105729 Y70.231841 Z-0.125000
G01 X166.366314 Y48.804616 Z-0.125000
G00 Z3.000000

(End cutting path id: path852)


(Start cutting path id: path850)
(Change tool to Default tool)

G00 Z3.000000
G00 X152.432333 Y210.090976

G00 Z4.875000 (Fast pre-penetrate)
G01 Z-0.125000 F400.0(Penetrate)
G01 X153.652833 Y187.703836 Z-0.125000 F800.000000
G01 X156.870520 Y163.319509 Z-0.125000
G01 X161.873395 Y137.149994 Z-0.125000
G01 X164.217307 Y113.639445 Z-0.125000
G01 X164.477715 Y92.212397 Z-0.125000
G01 X165.289882 Y70.233587 Z-0.125000
G01 X165.529133 Y48.827698 Z-0.125000
G00 Z3.000000

(End cutting path id: path850)


(Start cutting path id: path848)
(Change tool to Default tool)

G00 Z3.000000
G00 X151.663053 Y210.046156

G00 Z4.875000 (Fast pre-penetrate)
G01 Z-0.125000 F400.0(Penetrate)
G01 X152.876520 Y187.666048 Z-0.125000 F800.000000
G01 X156.072246 Y163.303682 Z-0.125000
G01 X161.044880 Y137.164405 Z-0.125000
G01 X163.416208 Y113.626440 Z-0.125000
G01 X163.696949 Y92.179059 Z-0.125000
G01 X164.474035 Y70.235334 Z-0.125000
G01 X164.691950 Y48.850778 Z-0.125000
G00 Z3.000000

(End cutting path id: path848)


(Start cutting path id: path846)
(Change tool to Default tool)

G00 Z3.000000
G00 X150.893772 Y210.001335

G00 Z4.875000 (Fast pre-penetrate)
G01 Z-0.125000 F400.0(Penetrate)
G01 X152.100207 Y187.628260 Z-0.125000 F800.000000
G01 X155.273973 Y163.287852 Z-0.125000
G01 X160.216368 Y137.178820 Z-0.125000
G01 X162.615112 Y113.613436 Z-0.125000
G01 X162.916186 Y92.145722 Z-0.125000
G01 X163.658188 Y70.237080 Z-0.125000
G01 X163.854768 Y48.873857 Z-0.125000
G00 Z3.000000

(End cutting path id: path846)


(Start cutting path id: path842)
(Change tool to Default tool)

G00 Z3.000000
G00 X149.355212 Y209.911692

G00 Z4.875000 (Fast pre-penetrate)
G01 Z-0.125000 F400.0(Penetrate)
G01 X150.547581 Y187.552682 Z-0.125000 F800.000000
G01 X153.677429 Y163.256195 Z-0.125000
G01 X158.559337 Y137.207646 Z-0.125000
G01 X161.012916 Y113.587428 Z-0.125000
G01 X161.354654 Y92.079050 Z-0.125000
G01 X162.026491 Y70.240572 Z-0.125000
G01 X162.180404 Y48.920019 Z-0.125000
G00 Z3.000000

(End cutting path id: path842)


(Start cutting path id: path840)
(Change tool to Default tool)

G00 Z3.000000
G00 X148.585929 Y209.866871

G00 Z4.875000 (Fast pre-penetrate)
G01 Z-0.125000 F400.0(Penetrate)
G01 X149.771268 Y187.514894 Z-0.125000 F800.000000
G01 X152.879156 Y163.240367 Z-0.125000
G01 X157.730822 Y137.222061 Z-0.125000
G01 X160.211817 Y113.574423 Z-0.125000
G01 X160.573891 Y92.045712 Z-0.125000
G01 X161.210644 Y70.242319 Z-0.125000
G01 X161.343224 Y48.943099 Z-0.125000
G00 Z3.000000

(End cutting path id: path840)


(Start cutting path id: path838)
(Change tool to Default tool)

G00 Z3.000000
G00 X147.816648 Y209.822051

G00 Z4.875000 (Fast pre-penetrate)
G01 Z-0.125000 F400.0(Penetrate)
G01 X148.994955 Y187.477107 Z-0.125000 F800.000000
G01 X152.080882 Y163.224537 Z-0.125000
G01 X156.902307 Y137.236473 Z-0.125000
G01 X159.410720 Y113.561419 Z-0.125000
G01 X159.793125 Y92.012375 Z-0.125000
G01 X160.394797 Y70.244062 Z-0.125000
G01 X160.506041 Y48.966178 Z-0.125000
G00 Z3.000000

(End cutting path id: path838)


(Start cutting path id: path834)
(Change tool to Default tool)

G00 Z3.000000
G00 X146.278088 Y209.732410

G00 Z4.875000 (Fast pre-penetrate)
G01 Z-0.125000 F400.0(Penetrate)
G01 X147.442329 Y187.401528 Z-0.125000 F800.000000
G01 X150.484338 Y163.192880 Z-0.125000
G01 X155.245276 Y137.265299 Z-0.125000
G01 X157.808525 Y113.535413 Z-0.125000
G01 X158.231596 Y91.945702 Z-0.125000
G01 X158.763103 Y70.247555 Z-0.125000
G01 X158.831678 Y49.012340 Z-0.125000
G00 Z3.000000

(End cutting path id: path834)


(Start cutting path id: path832)
(Change tool to Default tool)

G00 Z3.000000
G00 X145.508805 Y209.687590

G00 Z4.875000 (Fast pre-penetrate)
G01 Z-0.125000 F400.0(Penetrate)
G01 X146.666014 Y187.363741 Z-0.125000 F800.000000
G01 X149.686065 Y163.177052 Z-0.125000
G01 X154.416761 Y137.279713 Z-0.125000
G01 X157.007428 Y113.522409 Z-0.125000
G01 X157.450832 Y91.912365 Z-0.125000
G01 X157.947254 Y70.249301 Z-0.125000
G01 X157.994497 Y49.035420 Z-0.125000
G00 Z3.000000

(End cutting path id: path832)


(Start cutting path id: path830)
(Change tool to Default tool)

G00 Z3.000000
G00 X144.739524 Y209.642770

G00 Z4.875000 (Fast pre-penetrate)
G01 Z-0.125000 F400.0(Penetrate)
G01 X145.889701 Y187.325953 Z-0.125000 F800.000000
G01 X148.887791 Y163.161222 Z-0.125000
G01 X153.588249 Y137.294128 Z-0.125000
G01 X156.206329 Y113.509405 Z-0.125000
G01 X156.670066 Y91.879027 Z-0.125000
G01 X157.131407 Y70.251047 Z-0.125000
G01 X157.157309 Y49.058499 Z-0.125000
G00 Z3.000000

(End cutting path id: path830)


(Start cutting path id: path826)
(Change tool to Default tool)

G00 Z3.000000
G00 X143.200963 Y209.553129

G00 Z4.875000 (Fast pre-penetrate)
G01 Z-0.125000 F400.0(Penetrate)
G01 X144.337075 Y187.250375 Z-0.125000 F800.000000
G01 X147.291247 Y163.129565 Z-0.125000
G01 X151.931218 Y137.322954 Z-0.125000
G01 X154.604136 Y113.483396 Z-0.125000
G01 X155.108537 Y91.812355 Z-0.125000
G01 X155.499713 Y70.254540 Z-0.125000
G01 X155.482938 Y49.104661 Z-0.125000
G00 Z3.000000

(End cutting path id: path826)


(Start cutting path id: path824)
(Change tool to Default tool)

G00 Z3.000000
G00 X142.431683 Y209.508309

G00 Z4.875000 (Fast pre-penetrate)
G01 Z-0.125000 F400.0(Penetrate)
G01 X143.560762 Y187.212587 Z-0.125000 F800.000000
G01 X146.492974 Y163.113735 Z-0.125000
G01 X151.102703 Y137.337366 Z-0.125000
G01 X153.803037 Y113.470392 Z-0.125000
G01 X154.327771 Y91.779018 Z-0.125000
G01 X154.683866 Y70.256286 Z-0.125000
G01 X154.645768 Y49.127741 Z-0.125000
G00 Z3.000000

(End cutting path id: path824)


(Start cutting path id: path822)
(Change tool to Default tool)

G00 Z3.000000
G00 X141.662400 Y209.463488

G00 Z4.875000 (Fast pre-penetrate)
G01 Z-0.125000 F400.0(Penetrate)
G01 X142.784449 Y187.174799 Z-0.125000 F800.000000
G01 X145.694701 Y163.097908 Z-0.125000
G01 X150.274188 Y137.351781 Z-0.125000
G01 X153.001941 Y113.457388 Z-0.125000
G01 X153.547008 Y91.745680 Z-0.125000
G01 X153.868016 Y70.258032 Z-0.125000
G01 X153.808588 Y49.150820 Z-0.125000
G00 Z3.000000

(End cutting path id: path822)


(Start cutting path id: path818)
(Change tool to Default tool)

G00 Z3.000000
G00 X140.123839 Y209.373845

G00 Z4.875000 (Fast pre-penetrate)
G01 Z-0.125000 F400.0(Penetrate)
G01 X141.231823 Y187.099221 Z-0.125000 F800.000000
G01 X144.098156 Y163.066250 Z-0.125000
G01 X148.617157 Y137.380607 Z-0.125000
G01 X151.399745 Y113.431379 Z-0.125000
G01 X151.985479 Y91.679008 Z-0.125000
G01 X152.236322 Y70.261522 Z-0.125000
G01 X152.134225 Y49.196982 Z-0.125000
G00 Z3.000000

(End cutting path id: path818)


(Start cutting path id: path816)
(Change tool to Default tool)

G00 Z3.000000
G00 X139.354559 Y209.329025

G00 Z4.875000 (Fast pre-penetrate)
G01 Z-0.125000 F400.0(Penetrate)
G01 X140.455510 Y187.061433 Z-0.125000 F800.000000
G01 X143.299883 Y163.050420 Z-0.125000
G01 X147.788642 Y137.395021 Z-0.125000
G01 X150.598649 Y113.418375 Z-0.125000
G01 X151.204713 Y91.645671 Z-0.125000
G01 X151.420475 Y70.263268 Z-0.125000
G01 X151.297042 Y49.220062 Z-0.125000
G00 Z3.000000

(End cutting path id: path816)



(Footer)
M5
G00 X0.0000 Y0.0000
M2
(Using default footer. To add your own footer create file "footer" in the output dir.)
(end)
%