%
(Header)
(Generated by gcodetools from Inkscape.)
(Using default header. To add your own header create file "header" in the output dir.)
M3
(Header end.)
G21 (All units in mm)

(Start cutting path id: path25294)
(Change tool to Default tool)

G00 Z3.000000
G00 X52.716833 Y221.899084

G00 Z4.875000 (Fast pre-penetrate)
G01 Z-0.125000 F400.0(Penetrate)
G02 X52.712962 Y221.911105 Z-0.125000 I0.065581 J0.027754 F800.000000
G01 X52.711753 Y221.921732 Z-0.125000
G01 X52.712964 Y221.932272 Z-0.125000
G01 X52.716648 Y221.941973 Z-0.125000
G01 X52.722613 Y221.950505 Z-0.125000
G02 X52.731703 Y221.958721 Z-0.125000 I0.041290 J-0.036545
G02 X52.742266 Y221.965113 Z-0.125000 I0.043290 J-0.059612
G02 X52.756706 Y221.970971 Z-0.125000 I0.046246 J-0.093271
G02 X52.771865 Y221.974946 Z-0.125000 I0.043252 J-0.134046
G02 X52.791155 Y221.977850 Z-0.125000 I0.037881 J-0.186111
G02 X52.810677 Y221.979027 Z-0.125000 I0.023796 J-0.232253
G02 X52.834205 Y221.978644 Z-0.125000 I0.006229 J-0.340193
G02 X52.857663 Y221.976679 Z-0.125000 I-0.018324 J-0.359771
G02 X52.884703 Y221.972717 Z-0.125000 I-0.054230 J-0.464406
G02 X52.911494 Y221.967320 Z-0.125000 I-0.098754 J-0.559329
G02 X52.941237 Y221.959753 Z-0.125000 I-0.129249 J-0.570277
G02 X52.970600 Y221.950787 Z-0.125000 I-0.197798 J-0.700336
G02 X53.002138 Y221.939592 Z-0.125000 I-0.220977 J-0.672549
G02 X53.033168 Y221.927022 Z-0.125000 I-0.297186 J-0.778249
G02 X53.065546 Y221.912260 Z-0.125000 I-0.307271 J-0.716820
G02 X53.097272 Y221.896139 Z-0.125000 I-0.396519 J-0.819609
G02 X53.129440 Y221.878044 Z-0.125000 I-0.382330 J-0.717340
G02 X53.160807 Y221.858583 Z-0.125000 I-0.460039 J-0.776498
G02 X53.191736 Y221.837439 Z-0.125000 I-0.426535 J-0.657100
G02 X53.221671 Y221.814921 Z-0.125000 I-0.503668 J-0.700715
G02 X53.250309 Y221.791158 Z-0.125000 I-0.442905 J-0.562923
G02 X53.277719 Y221.765992 Z-0.125000 I-0.505842 J-0.578458
G02 X53.303014 Y221.740128 Z-0.125000 I-0.424571 J-0.440528
G02 X53.326779 Y221.712841 Z-0.125000 I-0.470608 J-0.433864
G02 X53.347739 Y221.685454 Z-0.125000 I-0.380451 J-0.312887
G02 X53.366756 Y221.656690 Z-0.125000 I-0.420729 J-0.298813
G02 X53.382471 Y221.628426 Z-0.125000 I-0.318592 J-0.195648
G02 X53.395704 Y221.598955 Z-0.125000 I-0.337958 J-0.169446
G02 X53.405331 Y221.570464 Z-0.125000 I-0.261696 J-0.104305
G02 X53.411859 Y221.541173 Z-0.125000 I-0.270788 J-0.075716
G02 X53.414671 Y221.513102 Z-0.125000 I-0.210902 J-0.035307
G02 X53.413752 Y221.484981 Z-0.125000 I-0.231182 J-0.006521
G02 X53.409009 Y221.457953 Z-0.125000 I-0.170542 J0.015998
G02 X53.400289 Y221.431969 Z-0.125000 I-0.185918 J0.047934
G02 X53.387234 Y221.406650 Z-0.125000 I-0.162687 J0.067865
G02 X53.370524 Y221.383558 Z-0.125000 I-0.174023 J0.108338
G02 X53.348523 Y221.360827 Z-0.125000 I-0.166252 J0.138897
G02 X53.323664 Y221.341176 Z-0.125000 I-0.176249 J0.197413
G02 X53.292423 Y221.322060 Z-0.125000 I-0.175014 J0.250935
G02 X53.259235 Y221.306382 Z-0.125000 I-0.180030 J0.338126
G02 X53.218890 Y221.291824 Z-0.125000 I-0.174610 J0.420708
G02 X53.177384 Y221.280710 Z-0.125000 I-0.167818 J0.543697
G02 X53.128350 Y221.271451 Z-0.125000 I-0.148880 J0.653941
G02 X53.078760 Y221.265497 Z-0.125000 I-0.124216 J0.825073
G02 X53.021712 Y221.262084 Z-0.125000 I-0.085722 J0.954596
G02 X52.964518 Y221.261878 Z-0.125000 I-0.032857 J1.180148
G02 X52.900279 Y221.264730 Z-0.125000 I0.027901 J1.353200
G02 X52.836199 Y221.270538 Z-0.125000 I0.106039 J1.526395
G02 X52.765789 Y221.279944 Z-0.125000 I0.184680 J1.650726
G02 X52.695776 Y221.292143 Z-0.125000 I0.297969 J1.917114
G02 X52.620411 Y221.308183 Z-0.125000 I0.387131 J2.004044
G02 X52.545636 Y221.326915 Z-0.125000 I0.528617 J2.268720
G02 X52.466699 Y221.349585 Z-0.125000 I0.602724 J2.247494
G02 X52.388533 Y221.374859 Z-0.125000 I0.761334 J2.488161
G02 X52.307560 Y221.403972 Z-0.125000 I0.833649 J2.445720
G02 X52.227539 Y221.435655 Z-0.125000 I1.000522 J2.643920
G02 X52.146202 Y221.470883 Z-0.125000 I1.026696 J2.482057
G02 X52.066008 Y221.508683 Z-0.125000 I1.194896 J2.638934
G02 X51.986060 Y221.549564 Z-0.125000 I1.169133 J2.384986
G02 X51.907482 Y221.593050 Z-0.125000 I1.329702 J2.495530
G02 X51.830726 Y221.638986 Z-0.125000 I1.240064 J2.159153
G02 X51.755621 Y221.687590 Z-0.125000 I1.382685 J2.218917
G02 X51.683862 Y221.737871 Z-0.125000 I1.239317 J1.845056
G02 X51.614128 Y221.790894 Z-0.125000 I1.347687 J1.844789
G02 X51.549112 Y221.844704 Z-0.125000 I1.184742 J1.497636
G02 X51.486566 Y221.901315 Z-0.125000 I1.248222 J1.441962
G02 X51.429822 Y221.957768 Z-0.125000 I1.096148 J1.158519
G02 X51.375988 Y222.017032 Z-0.125000 I1.137964 J1.087795
G02 X51.328812 Y222.075156 Z-0.125000 I0.938394 J0.809842
G02 X51.285288 Y222.136031 Z-0.125000 I0.963336 J0.734760
G02 X51.249019 Y222.194819 Z-0.125000 I0.775176 J0.518820
G02 X51.217309 Y222.256127 Z-0.125000 I0.782837 J0.443762
G02 X51.193076 Y222.314596 Z-0.125000 I0.622085 J0.292087
G02 X51.174456 Y222.375010 Z-0.125000 I0.618292 J0.223638
G02 X51.163202 Y222.432250 Z-0.125000 I0.498217 J0.127680
G02 X51.158602 Y222.490319 Z-0.125000 I0.495550 J0.068476
G02 X51.161085 Y222.545505 Z-0.125000 I0.420092 J0.008742
G02 X51.170944 Y222.599796 Z-0.125000 I0.415508 J-0.047411
G02 X51.188134 Y222.652071 Z-0.125000 I0.370777 J-0.092959
G02 X51.212418 Y222.701447 Z-0.125000 I0.376999 J-0.154762
G02 X51.244966 Y222.749692 Z-0.125000 I0.366136 J-0.211906
G02 X51.283525 Y222.793359 Z-0.125000 I0.375417 J-0.292642
G02 X51.331696 Y222.836173 Z-0.125000 I0.382691 J-0.382068
G02 X51.384380 Y222.873452 Z-0.125000 I0.390347 J-0.495789
G02 X51.447846 Y222.909428 Z-0.125000 I0.398999 J-0.629897
G02 X51.514378 Y222.939563 Z-0.125000 I0.397608 J-0.789350
G02 X51.592337 Y222.967515 Z-0.125000 I0.391002 J-0.967816
G02 X51.672205 Y222.989700 Z-0.125000 I0.369879 J-1.176749
G02 X51.763504 Y223.008666 Z-0.125000 I0.337217 J-1.394088
G02 X51.855853 Y223.022103 Z-0.125000 I0.287642 J-1.652722
G02 X51.959023 Y223.031340 Z-0.125000 I0.220191 J-1.878586
G02 X52.062529 Y223.035295 Z-0.125000 I0.135118 J-2.179760
G02 X52.175822 Y223.034224 Z-0.125000 I0.034270 J-2.367416
G02 X52.288976 Y223.028151 Z-0.125000 I-0.081453 J-2.574631
G02 X52.410626 Y223.016365 Z-0.125000 I-0.220270 J-2.907281
G02 X52.531729 Y222.999745 Z-0.125000 I-0.380251 J-3.220200
G02 X52.659792 Y222.977114 Z-0.125000 I-0.511146 J-3.266144
G02 X52.786946 Y222.949738 Z-0.125000 I-0.712302 J-3.617387
G02 X52.919335 Y222.916202 Z-0.125000 I-0.845416 J-3.615497
G02 X53.050478 Y222.878016 Z-0.125000 I-1.064941 J-3.901717
G02 X53.184997 Y222.833750 Z-0.125000 I-1.184032 J-3.824602
G02 X53.317943 Y222.784907 Z-0.125000 I-1.414375 J-4.055187
G02 X53.452313 Y222.730306 Z-0.125000 I-1.501615 J-3.888002
G02 X53.584775 Y222.671177 Z-0.125000 I-1.727191 J-4.047231
G02 X53.716674 Y222.606843 Z-0.125000 I-1.774853 J-3.806245
G02 X53.846305 Y222.538019 Z-0.125000 I-1.982075 J-3.889730
G02 X53.973394 Y222.464776 Z-0.125000 I-1.978553 J-3.579981
G02 X54.097820 Y222.387063 Z-0.125000 I-2.158742 J-3.594866
G02 X54.217776 Y222.305946 Z-0.125000 I-2.095843 J-3.228585
G02 X54.334621 Y222.220382 Z-0.125000 I-2.236039 J-3.176066
G02 X54.445182 Y222.132626 Z-0.125000 I-2.116895 J-2.780532
G02 X54.552079 Y222.040463 Z-0.125000 I-2.206070 J-2.666824
G02 X54.651104 Y221.947487 Z-0.125000 I-2.063626 J-2.297110
G02 X54.745800 Y221.850213 Z-0.125000 I-2.077419 J-2.117090
G02 X54.831513 Y221.753555 Z-0.125000 I-2.002298 J-1.861905
G02 X54.912509 Y221.652786 Z-0.125000 I-1.995210 J-1.686644
G02 X54.983627 Y221.554136 Z-0.125000 I-1.746524 J-1.334053
G02 X55.049073 Y221.451634 Z-0.125000 I-1.750134 J-1.189567
G02 X55.103877 Y221.352826 Z-0.125000 I-1.465428 J-0.877414
G02 X55.151869 Y221.250575 Z-0.125000 I-1.456700 J-0.746096
G02 X55.188864 Y221.153428 Z-0.125000 I-1.181384 J-0.505505
G02 X55.217669 Y221.053632 Z-0.125000 I-1.167698 J-0.391104
G02 X55.235571 Y220.959894 Z-0.125000 I-0.925395 J-0.225302
G02 X55.243808 Y220.864946 Z-0.125000 I-0.910286 J-0.126806
G02 X55.241471 Y220.776223 Z-0.125000 I-0.727401 J-0.025230
G02 X55.228303 Y220.688600 Z-0.125000 I-0.714335 J0.062551
G02 X55.204583 Y220.606382 Z-0.125000 I-0.599156 J0.128325
G02 X55.169864 Y220.528279 Z-0.125000 I-0.593771 J0.217183
G02 X55.123605 Y220.454191 Z-0.125000 I-0.535268 J0.282724
G02 X55.067586 Y220.387154 Z-0.125000 I-0.537111 J0.391910
G02 X54.997965 Y220.323220 Z-0.125000 I-0.517687 J0.493857
G02 X54.920896 Y220.268285 Z-0.125000 I-0.516163 J0.642608
G02 X54.827912 Y220.216683 Z-0.125000 I-0.513631 J0.815952
G02 X54.730005 Y220.174765 Z-0.125000 I-0.495273 J1.021506
G02 X54.614566 Y220.137324 Z-0.125000 I-0.483208 J1.293152
G02 X54.496304 Y220.109355 Z-0.125000 I-0.431729 J1.561481
G02 X54.359973 Y220.087344 Z-0.125000 I-0.385672 J1.955566
G02 X54.222307 Y220.074166 Z-0.125000 I-0.287854 J2.281454
G02 X54.067246 Y220.068320 Z-0.125000 I-0.183105 J2.797558
G02 X53.912064 Y220.070542 Z-0.125000 I-0.032402 J3.158098
G02 X53.741066 Y220.081100 Z-0.125000 I0.146200 J3.757875
G02 X53.570619 Y220.099053 Z-0.125000 I0.352639 J4.165996
G02 X53.386464 Y220.125891 Z-0.125000 I0.604038 J4.789984
G02 X53.203363 Y220.159548 Z-0.125000 I0.855036 J5.166411
G02 X53.009184 Y220.202247 Z-0.125000 I1.167236 J5.771046
G02 X52.816448 Y220.251285 Z-0.125000 I1.454284 J6.119108
G02 X52.615702 Y220.309072 Z-0.125000 I1.784351 J6.576204
G02 X52.416729 Y220.372844 Z-0.125000 I2.092904 J6.872279
G02 X52.213139 Y220.444671 Z-0.125000 I2.381293 J7.074136
G02 X52.011631 Y220.522248 Z-0.125000 I2.693470 J7.296855
G02 X51.809110 Y220.606818 Z-0.125000 I2.876049 J7.172076
G02 X51.609011 Y220.697027 Z-0.125000 I3.178157 J7.316774
G02 X51.411577 Y220.792846 Z-0.125000 I3.194612 J6.833726
G02 X51.216973 Y220.894306 Z-0.125000 I3.471205 J6.895283
G02 X51.028664 Y220.999721 Z-0.125000 I3.299748 J6.115404
G02 X50.843702 Y221.110890 Z-0.125000 I3.538937 J6.097527
G02 X50.668461 Y221.224135 Z-0.125000 I3.197949 J5.140867
G02 X50.497242 Y221.343332 Z-0.125000 I3.378445 J5.035511
G02 X50.338812 Y221.462567 Z-0.125000 I2.929205 J4.056975
G02 X50.185327 Y221.587997 Z-0.125000 I3.032111 J3.866900
G02 X50.047096 Y221.711362 Z-0.125000 I2.577083 J3.026774
G02 X49.915159 Y221.841050 Z-0.125000 I2.539580 J2.715587
G02 X49.799711 Y221.966740 Z-0.125000 I2.343482 J2.268377
G02 X49.691241 Y222.098600 Z-0.125000 I2.264940 J1.973706
G02 X49.599752 Y222.224714 Z-0.125000 I1.902637 J1.476511
G02 X49.516969 Y222.356627 Z-0.125000 I1.853513 J1.255119
G02 X49.451284 Y222.481275 Z-0.125000 I1.499235 J0.869675
G02 X49.396418 Y222.610881 Z-0.125000 I1.448712 J0.689703
G02 X49.358039 Y222.732433 Z-0.125000 I1.177139 J0.438496
G02 X49.332685 Y222.857158 Z-0.125000 I1.128078 J0.294262
G02 X49.322757 Y222.974227 Z-0.125000 I0.948041 J0.139348
G02 X49.327543 Y223.091460 Z-0.125000 I0.911046 J0.021525
G02 X49.347099 Y223.202766 Z-0.125000 I0.818543 J-0.086445
G02 X49.381665 Y223.310321 Z-0.125000 I0.803123 J-0.198774
G02 X49.431623 Y223.414240 Z-0.125000 I0.778523 J-0.310301
G02 X49.495032 Y223.510679 Z-0.125000 I0.775963 J-0.441137
G02 X49.575749 Y223.604959 Z-0.125000 I0.803261 J-0.606009
G02 X49.667087 Y223.689273 Z-0.125000 I0.803259 J-0.778552
G02 X49.777790 Y223.771398 Z-0.125000 I0.850848 J-1.031249
G02 X49.896082 Y223.842503 Z-0.125000 I0.840849 J-1.264903
G02 X50.034975 Y223.910237 Z-0.125000 I0.874583 J-1.617105
G02 X50.178893 Y223.966863 Z-0.125000 I0.840297 J-1.924474
G02 X50.343516 Y224.018420 Z-0.125000 I0.828936 J-2.358205
G02 X50.511227 Y224.059222 Z-0.125000 I0.756455 J-2.744241
G02 X50.698703 Y224.093210 Z-0.125000 I0.679905 J-3.216283
G02 X50.887939 Y224.116928 Z-0.125000 I0.556774 J-3.675485
G02 X51.094905 Y224.132260 Z-0.125000 I0.408984 J-4.116360
G02 X51.302282 Y224.137726 Z-0.125000 I0.225557 J-4.620447
G02 X51.524683 Y224.133583 Z-0.125000 I0.019377 J-4.930569
G02 X51.746666 Y224.119934 Z-0.125000 I-0.223497 J-5.446880
G02 X51.980885 Y224.095861 Z-0.125000 I-0.466803 J-5.693304
G02 X52.213976 Y224.062547 Z-0.125000 I-0.765488 J-6.188116
G02 X52.456367 Y224.018391 Z-0.125000 I-1.019590 J-6.284309
G02 X52.696943 Y223.965212 Z-0.125000 I-1.357479 J-6.711814
G02 X52.943734 Y223.901136 Z-0.125000 I-1.609599 J-6.706733
G02 X53.188066 Y223.828229 Z-0.125000 I-1.966747 J-7.037023
G02 X53.435446 Y223.744759 Z-0.125000 I-2.195903 J-6.916319
G02 X53.679739 Y223.652631 Z-0.125000 I-2.551458 J-7.135576
G02 X53.923898 Y223.550653 Z-0.125000 I-2.743827 J-6.912634
G02 X54.164341 Y223.440172 Z-0.125000 I-3.076927 J-7.013268
G02 X54.401489 Y223.320937 Z-0.125000 I-3.215301 J-6.690403
G02 X54.634276 Y223.193350 Z-0.125000 I-3.504260 J-6.669782
G02 X54.860696 Y223.058465 Z-0.125000 I-3.576017 J-6.260289
G02 X55.082061 Y222.915389 Z-0.125000 I-3.806163 J-6.131582
G02 X55.294123 Y222.766831 Z-0.125000 I-3.797477 J-5.646446
G02 X55.500367 Y222.610245 Z-0.125000 I-3.959762 J-5.429633
G02 X55.694577 Y222.450324 Z-0.125000 I-3.855909 J-4.880547
G02 X55.882079 Y222.282569 Z-0.125000 I-3.945914 J-4.599073
G02 X56.055127 Y222.113907 Z-0.125000 I-3.757329 J-4.028126
G02 X56.220156 Y221.937780 Z-0.125000 I-3.677780 J-3.611422
G02 X56.369354 Y221.763154 Z-0.125000 I-3.817400 J-3.412581
G02 X56.510364 Y221.581584 Z-0.125000 I-3.668868 J-2.994835
G02 X56.634651 Y221.403962 Z-0.125000 I-3.419770 J-2.525204
G02 X56.749543 Y221.219968 Z-0.125000 I-3.367794 J-2.230825
G02 X56.846604 Y221.042674 Z-0.125000 I-2.861667 J-1.681848
G02 X56.932424 Y220.859697 Z-0.125000 I-2.827291 J-1.437685
G02 X56.999699 Y220.686087 Z-0.125000 I-2.310900 J-0.995329
G02 X57.053593 Y220.507962 Z-0.125000 I-2.263054 J-0.781925
G02 X57.088951 Y220.341277 Z-0.125000 I-1.796660 J-0.468212
G02 X57.108492 Y220.172196 Z-0.125000 I-1.750300 J-0.287953
G02 X57.110091 Y220.015443 Z-0.125000 I-1.376073 J-0.092424
G02 X57.093666 Y219.859815 Z-0.125000 I-1.337090 J0.062433
G02 X57.059754 Y219.715708 Z-0.125000 I-1.083074 J0.178832
G02 X57.006927 Y219.577667 Z-0.125000 I-1.057759 J0.325665
G02 X56.935654 Y219.448894 Z-0.125000 I-0.913735 J0.421625
G02 X56.846962 Y219.331511 Z-0.125000 I-0.901295 J0.588805
G02 X56.736754 Y219.221300 Z-0.125000 I-0.841788 J0.731552
G02 X56.612881 Y219.126434 Z-0.125000 I-0.826943 J0.951488
G02 X56.463387 Y219.038444 Z-0.125000 I-0.811429 J1.207620
G02 X56.304816 Y218.967434 Z-0.125000 I-0.770779 J1.508653
G02 X56.117365 Y218.904851 Z-0.125000 I-0.751937 J1.940201
G02 X55.924851 Y218.858968 Z-0.125000 I-0.658620 J2.336597
G02 X55.702049 Y218.823854 Z-0.125000 I-0.587188 J3.001383
G02 X55.476929 Y218.804169 Z-0.125000 I-0.417201 J3.473985
G02 X55.222437 Y218.797449 Z-0.125000 I-0.245002 J4.456224
G02 X54.967850 Y218.804503 Z-0.125000 I0.007619 J4.872838
G02 X54.686725 Y218.826058 Z-0.125000 I0.334338 J6.204359
G02 X54.406774 Y218.859906 Z-0.125000 I0.665566 J6.679460
G02 X54.104023 Y218.908820 Z-0.125000 I1.145788 J8.053221
G02 X53.803141 Y218.968802 Z-0.125000 I1.539668 J8.507870
G02 X53.483968 Y219.043717 Z-0.125000 I2.177746 J9.995570
G02 X53.167206 Y219.128646 Z-0.125000 I2.599224 J10.327645
G02 X52.837441 Y219.227597 Z-0.125000 I3.327337 J11.687630
G02 X52.510491 Y219.335759 Z-0.125000 I3.753500 J11.894289
G02 X52.176388 Y219.456353 Z-0.125000 I4.434235 J12.808014
G02 X51.845473 Y219.585611 Z-0.125000 I4.853870 J12.914745
G02 X51.513605 Y219.725146 Z-0.125000 I5.302742 J13.076363
G02 X51.185349 Y219.873055 Z-0.125000 I5.719216 J13.130923
G02 X50.862469 Y220.028630 Z-0.125000 I5.777207 J12.402796
G02 X50.543741 Y220.192555 Z-0.125000 I6.184073 J12.415838
G02 X50.236603 Y220.361190 Z-0.125000 I5.798537 J10.925012
G02 X49.934365 Y220.538401 Z-0.125000 I6.165230 J10.861295
G02 X49.649539 Y220.717131 Z-0.125000 I5.420426 J8.954398
G02 X49.370650 Y220.904877 Z-0.125000 I5.709270 J8.781849
G02 X49.114306 Y221.090823 Z-0.125000 I4.766243 J6.840431
G02 X48.865350 Y221.286370 Z-0.125000 I4.947291 J6.554724
G02 X48.643046 Y221.476796 Z-0.125000 I3.989165 J4.881947
G02 X48.430617 Y221.677296 Z-0.125000 I3.904862 J4.349965
G02 X48.246579 Y221.869763 Z-0.125000 I3.569822 J3.597718
G02 X48.073593 Y222.072150 Z-0.125000 I3.339222 J3.029248
G02 X47.928789 Y222.264156 Z-0.125000 I2.970657 J2.390984
G02 X47.797011 Y222.465394 Z-0.125000 I2.818172 J1.989201
G02 X47.692815 Y222.654296 Z-0.125000 I2.259759 J1.369638
G02 X47.605231 Y222.851159 Z-0.125000 I2.159714 J1.078767
G02 X47.543863 Y223.034806 Z-0.125000 I1.751975 J0.687526
G02 X47.502616 Y223.223674 Z-0.125000 I1.663264 J0.462175
G02 X47.485485 Y223.400426 Z-0.125000 I1.406554 J0.225532
G02 X47.491109 Y223.577679 Z-0.125000 I1.342039 J0.046134
G02 X47.519492 Y223.745998 Z-0.125000 I1.227487 J-0.120433
G02 X47.570911 Y223.908763 Z-0.125000 I1.192866 J-0.287334
G02 X47.645907 Y224.066455 Z-0.125000 I1.189759 J-0.469150
G02 X47.741302 Y224.213003 Z-0.125000 I1.176913 J-0.661790
G02 X47.862966 Y224.356822 Z-0.125000 I1.252016 J-0.935770
G02 X48.000584 Y224.485930 Z-0.125000 I1.243961 J-1.188059
G02 X48.167165 Y224.612237 Z-0.125000 I1.348468 J-1.605432
G02 X48.345142 Y224.722427 Z-0.125000 I1.326266 J-1.943332
G02 X48.553387 Y224.828018 Z-0.125000 I1.403984 J-2.510789
G02 X48.769271 Y224.917433 Z-0.125000 I1.348663 J-2.950870
G02 X49.015031 Y224.999740 Z-0.125000 I1.351217 J-3.626556
G02 X49.265605 Y225.066369 Z-0.125000 I1.243702 J-4.172749
G02 X49.544219 Y225.123340 Z-0.125000 I1.141588 J-4.873108
G02 X49.825758 Y225.165280 Z-0.125000 I0.965991 J-5.518607
G02 X50.131998 Y225.195254 Z-0.125000 I0.754613 J-6.130541
G02 X50.439287 Y225.210674 Z-0.125000 I0.497040 J-6.835188
G02 X50.766756 Y225.212319 Z-0.125000 I0.200012 J-7.221096
G02 X51.093723 Y225.199757 Z-0.125000 I-0.139069 J-7.880799
G02 X51.436426 Y225.172203 Z-0.125000 I-0.482506 J-8.146292
G02 X51.777697 Y225.130784 Z-0.125000 I-0.891008 J-8.768109
G02 X52.130557 Y225.073762 Z-0.125000 I-1.253688 J-8.878305
G02 X52.480924 Y225.003144 Z-0.125000 I-1.709629 J-9.386702
G02 X52.838676 Y224.916814 Z-0.125000 I-2.073173 J-9.375675
G02 X53.192929 Y224.817162 Z-0.125000 I-2.550751 J-9.747128
G02 X53.550381 Y224.702206 Z-0.125000 I-2.898994 J-9.627517
G02 X53.903372 Y224.574203 Z-0.125000 I-3.370204 J-9.844653
G02 X54.255428 Y224.431810 Z-0.125000 I-3.687563 J-9.623660
G02 X54.602075 Y224.276668 Z-0.125000 I-4.124009 J-9.679445
G02 X54.943752 Y224.108542 Z-0.125000 I-4.394689 J-9.362464
G02 X55.279063 Y223.927989 Z-0.125000 I-4.773544 J-9.266720
G02 X55.605487 Y223.736354 Z-0.125000 I-4.974226 J-8.846728
G02 X55.924560 Y223.532627 Z-0.125000 I-5.277141 J-8.616705
G02 X56.230974 Y223.320212 Z-0.125000 I-5.381091 J-8.089578
G02 X56.528992 Y223.096065 Z-0.125000 I-5.596882 J-7.751610
G02 X56.810787 Y222.866092 Z-0.125000 I-5.573611 J-7.117195
G02 X57.083020 Y222.624782 Z-0.125000 I-5.701755 J-6.706609
G02 X57.335751 Y222.380958 Z-0.125000 I-5.532967 J-5.988007
G02 X57.577164 Y222.126402 Z-0.125000 I-5.438082 J-5.399062
G02 X57.797033 Y221.872713 Z-0.125000 I-5.678271 J-5.143397
G02 X58.004965 Y221.609203 Z-0.125000 I-5.355147 J-4.439470
G02 X58.190622 Y221.349767 Z-0.125000 I-5.597615 J-4.201886
G02 X58.364154 Y221.081405 Z-0.125000 I-5.429169 J-3.700976
G02 X58.514069 Y220.820871 Z-0.125000 I-4.654213 J-2.851502
G02 X58.649187 Y220.552332 Z-0.125000 I-4.649768 J-2.507827
G02 X58.759031 Y220.295854 Z-0.125000 I-3.821415 J-1.788391
G02 X58.851317 Y220.032605 Z-0.125000 I-3.777827 J-1.472182
G02 X58.917653 Y219.785206 Z-0.125000 I-2.997042 J-0.936206
G02 X58.963110 Y219.533320 Z-0.125000 I-2.930949 J-0.658973
G02 X58.982971 Y219.299865 Z-0.125000 I-2.274343 J-0.311065
G02 X58.978487 Y219.065954 Z-0.125000 I-2.208211 J-0.074665
G02 X58.949274 Y218.850897 Z-0.125000 I-1.722544 J0.124475
G02 X58.893277 Y218.641658 Z-0.125000 I-1.670138 J0.334850
G02 X58.812397 Y218.449080 Z-0.125000 I-1.366218 J0.460521
G02 X58.705157 Y218.270175 Z-0.125000 I-1.332152 J0.676927
G02 X58.569989 Y218.104477 Z-0.125000 I-1.178696 J0.823542
G02 X58.412694 Y217.959524 Z-0.125000 I-1.150571 J1.090713
G02 X58.221700 Y217.825964 Z-0.125000 I-1.093286 J1.360082
G02 X58.015246 Y217.717063 Z-0.125000 I-1.040501 J1.722432
G02 X57.769292 Y217.620782 Z-0.125000 I-1.009642 J2.216890
G02 X57.514483 Y217.549604 Z-0.125000 I-0.892248 J2.702444
G02 X57.216731 Y217.494169 Z-0.125000 I-0.811147 J3.529457
G02 X56.914972 Y217.462111 Z-0.125000 I-0.591097 J4.127785
G02 X56.570228 Y217.449076 Z-0.125000 I-0.378244 J5.438067
G02 X56.224825 Y217.456802 Z-0.125000 I-0.035406 J6.141393
G02 X55.839908 Y217.485699 Z-0.125000 I0.398721 J7.889169
G02 X55.456884 Y217.532635 Z-0.125000 I0.847486 J8.502374
G02 X55.039684 Y217.601634 Z-0.125000 I1.570478 J10.791530
G02 X54.625195 Y217.686425 Z-0.125000 I2.085478 J11.250116
G02 X54.182732 Y217.792888 Z-0.125000 I3.135950 J14.005746
G02 X53.743656 Y217.913226 Z-0.125000 I3.658861 J14.211257
G02 X53.284052 Y218.053632 Z-0.125000 I4.980009 J17.123959
G02 X52.828257 Y218.206391 Z-0.125000 I5.463399 J17.057816
G02 X52.360337 Y218.376577 Z-0.125000 I6.838391 J19.530263
G02 X51.896557 Y218.558028 Z-0.125000 I7.281671 J19.294949
G02 X51.429693 Y218.753449 Z-0.125000 I8.329751 J20.555380
G02 X50.967358 Y218.959503 Z-0.125000 I8.790945 J20.346430
G02 X50.511280 Y219.175472 Z-0.125000 I9.099138 J19.804875
G02 X50.060301 Y219.401913 Z-0.125000 I9.625078 J19.731601
G02 X49.624853 Y219.633838 Z-0.125000 I9.007139 J17.435956
G02 X49.195372 Y219.876541 Z-0.125000 I9.574923 J17.444849
G02 X48.790213 Y220.120102 Z-0.125000 I8.196607 J14.093716
G02 X48.392330 Y220.375179 Z-0.125000 I8.705138 J14.016598
G02 X48.026597 Y220.626453 Z-0.125000 I6.966701 J10.531934
G02 X47.670072 Y220.890323 Z-0.125000 I7.320733 J10.264095
G02 X47.352040 Y221.145864 Z-0.125000 I5.612183 J7.310303
G02 X47.046461 Y221.415115 Z-0.125000 I5.626871 J6.694084
G02 X46.782702 Y221.672048 Z-0.125000 I4.675570 J5.063633
G02 X46.534643 Y221.943045 Z-0.125000 I4.307983 J4.192372
G02 X46.327347 Y222.198817 Z-0.125000 I4.218846 J3.631151
G02 X46.136402 Y222.467600 Z-0.125000 I3.874218 J2.954482
G02 X45.984315 Y222.718974 Z-0.125000 I3.085844 J2.038699
G02 X45.853884 Y222.981818 Z-0.125000 I2.936566 J1.620999
G02 X45.760242 Y223.226177 Z-0.125000 I2.350384 J1.040818
G02 X45.693316 Y223.478686 Z-0.125000 I2.221935 J0.724037
G02 X45.659952 Y223.714359 Z-0.125000 I1.865227 J0.384255
G02 X45.657285 Y223.952028 Z-0.125000 I1.772893 J0.138745
G02 X45.685776 Y224.177551 Z-0.125000 I1.622301 J-0.090385
G02 X45.745728 Y224.396846 Z-0.125000 I1.569705 J-0.311292
G02 X45.837522 Y224.609795 Z-0.125000 I1.585712 J-0.557282
G02 X45.957359 Y224.808774 Z-0.125000 I1.564589 J-0.806713
G02 X46.112418 Y225.005050 Z-0.125000 I1.697299 J-1.181490
G02 X46.289507 Y225.182407 Z-0.125000 I1.684739 J-1.505104
G02 X46.505234 Y225.357202 Z-0.125000 I1.865321 J-2.081604
G02 X46.736795 Y225.511112 Z-0.125000 I1.837765 J-2.513805
G02 X47.008442 Y225.660107 Z-0.125000 I1.984631 J-3.296237
G02 X47.290871 Y225.788075 Z-0.125000 I1.918572 J-3.858720
G02 X47.612485 Y225.907725 Z-0.125000 I1.958065 J-4.771095
G02 X47.941109 Y226.006917 Z-0.125000 I1.830961 J-5.472063
G02 X48.306097 Y226.094304 Z-0.125000 I1.720997 J-6.382132
G02 X48.675465 Y226.161946 Z-0.125000 I1.511369 J-7.210744
G02 X49.076679 Y226.214615 Z-0.125000 I1.249351 J-7.962565
G02 X49.480275 Y226.248093 Z-0.125000 I0.939996 J-8.882595
G02 X49.909274 Y226.263955 Z-0.125000 I0.557270 J-9.262972
G02 X50.337907 Y226.260774 Z-0.125000 I0.139535 J-10.080039
G02 X50.785436 Y226.238237 Z-0.125000 I-0.297002 J-10.352370
G02 X51.231495 Y226.196996 Z-0.125000 I-0.795472 J-11.036611
G02 X51.691127 Y226.135460 Z-0.125000 I-1.259805 J-11.157209
G02 X52.147837 Y226.055522 Z-0.125000 I-1.816834 J-11.724733
G02 X52.613000 Y225.955038 Z-0.125000 I-2.287568 J-11.716627
G02 X53.073833 Y225.836486 Z-0.125000 I-2.870810 J-12.114312
G02 X53.538173 Y225.697755 Z-0.125000 I-3.338909 J-12.021925
G02 X53.996834 Y225.541357 Z-0.125000 I-3.914077 J-12.229368
G02 X54.454239 Y225.365740 Z-0.125000 I-4.370104 J-12.065696
G02 X54.904671 Y225.172927 Z-0.125000 I-4.906500 J-12.084636
G02 X55.349233 Y224.962444 Z-0.125000 I-5.332095 J-11.836686
G02 X55.785555 Y224.735291 Z-0.125000 I-5.803742 J-11.680611
G02 X56.211525 Y224.492598 Z-0.125000 I-6.167064 J-11.319467
G02 X56.627988 Y224.233803 Z-0.125000 I-6.557656 J-11.017337
G02 X57.029732 Y223.962194 Z-0.125000 I-6.816095 J-10.514769
G02 X57.420654 Y223.675076 Z-0.125000 I-7.113673 J-10.095231
G02 X57.792615 Y223.378481 Z-0.125000 I-7.220155 J-9.436364
G02 X58.152344 Y223.066994 Z-0.125000 I-7.419751 J-8.932366
G02 X58.489066 Y222.749980 Z-0.125000 I-7.335185 J-8.128531
G02 X58.811669 Y222.418851 Z-0.125000 I-7.341237 J-7.474921
G02 X59.108114 Y222.086504 Z-0.125000 I-7.428050 J-6.924001
G02 X59.388451 Y221.741386 Z-0.125000 I-6.977358 J-5.954090
G02 X59.642047 Y221.398847 Z-0.125000 I-8.161438 J-6.307411
G02 X59.881283 Y221.044756 Z-0.125000 I-7.766129 J-5.504906
G02 X60.092614 Y220.697602 Z-0.125000 I-6.862300 J-4.415344
G02 X60.286343 Y220.340065 Z-0.125000 I-6.949793 J-3.996968
G02 X60.449311 Y219.995216 Z-0.125000 I-5.717014 J-2.912664
G02 X60.591280 Y219.641175 Z-0.125000 I-5.752700 J-2.512296
G02 X60.700512 Y219.305623 Z-0.125000 I-4.569220 J-1.672959
G02 X60.784692 Y218.963048 Z-0.125000 I-4.525674 J-1.293718
G02 X60.835610 Y218.643864 Z-0.125000 I-3.496718 J-0.721472
G02 X60.856874 Y218.321669 Z-0.125000 I-3.416394 J-0.387273
G02 X60.845664 Y218.025631 Z-0.125000 I-2.609811 J-0.049407
G02 X60.800596 Y217.733380 Z-0.125000 I-2.523702 J0.239588
G02 X60.723840 Y217.466644 Z-0.125000 I-1.973127 J0.423373
G02 X60.611576 Y217.213434 Z-0.125000 I-1.907202 J0.694090
G02 X60.465837 Y216.981907 Z-0.125000 I-1.589207 J0.838722
G02 X60.287789 Y216.774497 Z-0.125000 I-1.540060 J1.141916
G02 X60.070071 Y216.584911 Z-0.125000 I-1.393833 J1.380850
G02 X59.827990 Y216.427103 Z-0.125000 I-1.330871 J1.777007
G02 X59.537775 Y216.286858 Z-0.125000 I-1.267151 J2.251770
G02 X59.232751 Y216.180965 Z-0.125000 I-1.139448 J2.789921
G02 X58.873005 Y216.096003 Z-0.125000 I-1.052784 J3.653624
G02 X58.506369 Y216.043836 Z-0.125000 I-0.804631 J4.340564
G02 X58.082624 Y216.017115 Z-0.125000 I-0.578706 J5.803956
G02 X57.656981 Y216.019607 Z-0.125000 I-0.174420 J6.560537
G02 X57.177205 Y216.050940 Z-0.125000 I0.341820 J8.923056
G02 X56.699853 Y216.107093 Z-0.125000 I0.884151 J9.573035
G02 X56.174883 Y216.193322 Z-0.125000 I1.819676 J12.719499
G02 X55.653628 Y216.300823 Z-0.125000 I2.443103 J13.163769
G02 X55.092421 Y216.437861 Z-0.125000 I3.938848 J17.348328
G02 X54.535674 Y216.593065 Z-0.125000 I4.533429 J17.338462
G02 X53.948346 Y216.775487 Z-0.125000 I6.638651 J22.410551
G02 X53.365851 Y216.973511 Z-0.125000 I7.095467 J21.827262
G02 X52.763635 Y217.194901 Z-0.125000 I9.595141 J27.030040
G02 X52.166443 Y217.429974 Z-0.125000 I9.900316 J26.027452
G02 X51.561473 Y217.683404 Z-0.125000 I12.148208 J29.848150
G02 X50.961755 Y217.949280 Z-0.125000 I12.458150 J28.910276
G02 X50.366836 Y218.227741 Z-0.125000 I13.545201 J29.713436
G02 X49.777622 Y218.518152 Z-0.125000 I14.087133 J29.324265
G02 X49.205931 Y218.814972 Z-0.125000 I13.384374 J26.477975
G02 X48.640803 Y219.123999 Z-0.125000 I14.210166 J26.657840
G02 X48.105472 Y219.433173 Z-0.125000 I11.928470 J21.272065
G02 X47.578161 Y219.755551 Z-0.125000 I12.829517 J21.577556
G02 X47.091817 Y220.071964 Z-0.125000 I9.800964 J15.596610
G02 X46.615784 Y220.403224 Z-0.125000 I10.511804 J15.613522
G02 X46.190018 Y220.722748 Z-0.125000 I7.601670 J10.572664
G02 X45.778249 Y221.059135 Z-0.125000 I7.905314 J10.097062
G02 X45.422825 Y221.378668 Z-0.125000 I5.836044 J6.849003
G02 X45.087496 Y221.716500 Z-0.125000 I5.409510 J5.704755
G02 X44.807238 Y222.033955 Z-0.125000 I5.496128 J5.134573
G02 X44.546534 Y222.368584 Z-0.125000 I4.902150 J4.088054
G02 X44.337138 Y222.680556 Z-0.125000 I4.054601 J2.947718
G02 X44.153262 Y223.007908 Z-0.125000 I3.815879 J2.358729
G02 X44.017657 Y223.311314 Z-0.125000 I2.987020 J1.517034
G02 X43.914606 Y223.626583 Z-0.125000 I2.823454 J1.097367
G02 X43.855459 Y223.919884 Z-0.125000 I2.326869 J0.621848
G02 X43.834641 Y224.217869 Z-0.125000 I2.207122 J0.303913
G02 X43.853872 Y224.500062 Z-0.125000 I2.001948 J0.005327
G02 X43.913383 Y224.776597 Z-0.125000 I1.928577 J-0.270363
G02 X44.013114 Y225.045492 Z-0.125000 I1.953592 J-0.571631
G02 X44.149274 Y225.298534 Z-0.125000 I1.926212 J-0.873328
G02 X44.329666 Y225.549461 Z-0.125000 I2.122501 J-1.335562
G02 X44.538952 Y225.777825 Z-0.125000 I2.110203 J-1.723838
G02 X44.796756 Y226.004782 Z-0.125000 I2.385913 J-2.450282
G02 X45.075503 Y226.206428 Z-0.125000 I2.360558 J-2.969656
G02 X45.404489 Y226.403834 Z-0.125000 I2.603485 J-3.965989
G02 X45.747935 Y226.575593 Z-0.125000 I2.538016 J-4.645701
G02 X46.140215 Y226.738730 Z-0.125000 I2.641370 J-5.798261
G02 X46.542161 Y226.876796 Z-0.125000 I2.509535 J-6.651797
G02 X46.989032 Y227.001641 Z-0.125000 I2.409834 J-7.763584
G02 X47.442086 Y227.102110 Z-0.125000 I2.183681 J-8.775333
G02 X47.934334 Y227.185182 Z-0.125000 I1.882276 J-9.653558
G02 X48.430695 Y227.244485 Z-0.125000 I1.543064 J-10.808509
G02 X48.957895 Y227.282721 Z-0.125000 I1.072981 J-11.140647
G02 X49.485436 Y227.297029 Z-0.125000 I0.593893 J-12.164428
G02 X50.034853 Y227.287748 Z-0.125000 I0.067012 J-12.299752
G02 X50.582908 Y227.254705 Z-0.125000 I-0.515764 J-13.116098
G02 X51.145991 Y227.196753 Z-0.125000 I-1.070724 J-13.167980
G02 X51.706014 Y227.115341 Z-0.125000 I-1.717390 J-13.780722
G02 X52.275160 Y227.008557 Z-0.125000 I-2.290763 J-13.779614
G02 X52.839379 Y226.878712 Z-0.125000 I-2.964493 J-14.172453
G02 X53.407249 Y226.723765 Z-0.125000 I-3.554140 J-14.143798
G02 X53.968424 Y226.546303 Z-0.125000 I-4.218359 J-14.315387
G02 X54.528139 Y226.344674 Z-0.125000 I-4.820992 J-14.260559
G02 X55.079494 Y226.121214 Z-0.125000 I-5.443350 J-14.222604
G02 X55.624534 Y225.875145 Z-0.125000 I-6.042196 J-14.110052
G02 X56.159624 Y225.608033 Z-0.125000 I-6.602103 J-13.895168
G02 X56.683684 Y225.320499 Z-0.125000 I-7.154775 J-13.661628
G02 X57.196251 Y225.012769 Z-0.125000 I-7.636788 J-13.300862
G02 X57.693110 Y224.687455 Z-0.125000 I-8.084668 J-12.889997
G02 X58.176921 Y224.342812 Z-0.125000 I-8.479445 J-12.415365
G02 X58.640339 Y223.984133 Z-0.125000 I-8.755038 J-11.790319
G02 X59.089062 Y223.606984 Z-0.125000 I-9.059657 J-11.234496
G02 X59.512727 Y223.220110 Z-0.125000 I-9.095086 J-10.385417
G02 X59.919793 Y222.815675 Z-0.125000 I-9.274977 J-9.742389
G02 X60.297422 Y222.406549 Z-0.125000 I-9.140324 J-8.815487
G02 X60.655035 Y221.981555 Z-0.125000 I-8.690147 J-7.675307
G02 X60.982306 Y221.556219 Z-0.125000 I-10.614727 J-8.505983
G02 X61.292375 Y221.116650 Z-0.125000 I-9.945455 J-7.344610
G02 X61.571540 Y220.681259 Z-0.125000 I-9.564579 J-6.439829
G02 X61.831179 Y220.233009 Z-0.125000 I-9.735434 J-5.938371
G02 X62.056169 Y219.795720 Z-0.125000 I-7.952339 J-4.368082
G02 X62.257217 Y219.346767 Z-0.125000 I-8.196702 J-3.940107
G02 X62.419790 Y218.916630 Z-0.125000 I-6.507953 J-2.705517
G02 X62.553733 Y218.476744 Z-0.125000 I-6.565435 J-2.239473
G02 X62.647133 Y218.063205 Z-0.125000 I-5.081706 J-1.365048
G02 X62.706387 Y217.643651 Z-0.125000 I-5.019835 J-0.922912
G02 X62.725058 Y217.256282 Z-0.125000 I-3.813794 J-0.377962
G02 X62.703894 Y216.869585 Z-0.125000 I-3.681333 J0.007561
G02 X62.643342 Y216.517405 Z-0.125000 I-2.823148 J0.304097
G02 X62.538903 Y216.176489 Z-0.125000 I-2.710450 J0.643883
G02 X62.395192 Y215.867705 Z-0.125000 I-2.146289 J0.811072
G02 X62.208356 Y215.583718 Z-0.125000 I-2.061603 J1.152878
G02 X61.977466 Y215.326662 Z-0.125000 I-1.762083 J1.350501
G02 X61.711044 Y215.106709 Z-0.125000 I-1.681023 J1.764833
G02 X61.390650 Y214.910873 Z-0.125000 I-1.545345 J2.168230
G02 X61.046791 Y214.758644 Z-0.125000 I-1.412471 J2.726061
G02 X60.638686 Y214.632981 Z-0.125000 I-1.309282 J3.526528
G02 X60.218872 Y214.550851 Z-0.125000 I-1.052250 J4.264606
G02 X59.728772 Y214.500809 Z-0.125000 I-0.830251 J5.706321
G02 X59.234787 Y214.490238 Z-0.125000 I-0.387485 J6.560087
G02 X58.671348 Y214.516737 Z-0.125000 I0.148478 J9.160506
G02 X58.110192 Y214.576556 Z-0.125000 I0.771739 J9.901535
G02 X57.486273 Y214.675595 Z-0.125000 I1.858697 J13.724088
G02 X56.867344 Y214.802457 Z-0.125000 I2.582319 J14.171734
G02 X56.194568 Y214.968039 Z-0.125000 I4.471193 J19.616517
G02 X55.527497 Y215.156825 Z-0.125000 I5.135922 J19.420508
G02 X54.817419 Y215.381399 Z-0.125000 I8.112944 J26.887137
G02 X54.113348 Y215.625203 Z-0.125000 I8.487772 J25.650043
G02 X53.379307 Y215.899630 Z-0.125000 I12.545689 J34.676265
G02 X52.651213 Y216.190180 Z-0.125000 I12.500597 J32.382995
G02 X51.907863 Y216.504549 Z-0.125000 I16.875494 J40.939490
G02 X51.170386 Y216.832882 Z-0.125000 I16.639421 J38.366584
G02 X50.433524 Y217.177198 Z-0.125000 I19.628803 J42.967699
G02 X49.702718 Y217.534360 Z-0.125000 I19.806408 J41.453138
G02 X48.988922 Y217.899232 Z-0.125000 I19.674736 J39.370117
G02 X48.281874 Y218.276932 Z-0.125000 I20.695294 J39.591886
G02 X47.608027 Y218.654129 Z-0.125000 I17.267178 J31.637581
G02 X46.942363 Y219.045263 Z-0.125000 I18.812373 J32.778472
G02 X46.325011 Y219.428114 Z-0.125000 I13.714985 J22.804754
G02 X45.718329 Y219.827067 Z-0.125000 I15.097034 J23.618611
G02 X45.172969 Y220.210632 Z-0.125000 I10.204200 J15.088024
G02 X44.642235 Y220.613304 Z-0.125000 I11.046659 J15.110906
G02 X44.182516 Y220.994363 Z-0.125000 I7.309706 J9.286448
G02 X43.745652 Y221.397487 Z-0.125000 I7.009925 J8.034914
G02 X43.380228 Y221.774677 Z-0.125000 I6.524139 J6.686219
G02 X43.038876 Y222.173742 Z-0.125000 I5.725719 J5.243196
G02 X42.762996 Y222.544508 Z-0.125000 I5.299552 J4.231321
G02 X42.514790 Y222.934798 Z-0.125000 I4.852469 J3.360010
G02 X42.327199 Y223.295452 Z-0.125000 I3.690635 J2.148765
G02 X42.176982 Y223.672278 Z-0.125000 I3.498443 J1.612968
G02 X42.082039 Y224.021466 Z-0.125000 I2.802821 J0.949578
G02 X42.032488 Y224.379174 Z-0.125000 I2.654187 J0.549953
G02 X42.032715 Y224.716755 Z-0.125000 I2.351610 J0.167207
G02 X42.082032 Y225.050633 Z-0.125000 I2.267157 J-0.164296
G02 X42.180130 Y225.375263 Z-0.125000 I2.283723 J-0.512973
G02 X42.323797 Y225.683256 Z-0.125000 I2.252926 J-0.863395
G02 X42.520728 Y225.990167 Z-0.125000 I2.510230 J-1.394069
G02 X42.754307 Y226.271510 Z-0.125000 I2.503533 J-1.840869
G02 X43.046555 Y226.553591 Z-0.125000 I2.891666 J-2.703458
G02 X43.365580 Y226.806281 Z-0.125000 I2.875397 J-3.302508
G02 X43.745512 Y227.056542 Z-0.125000 I3.245393 J-4.513432
G02 X44.144134 Y227.276776 Z-0.125000 I3.191342 J-5.305455
G02 X44.601824 Y227.489119 Z-0.125000 I3.390160 J-6.707786
G02 X45.072286 Y227.671970 Z-0.125000 I3.268424 J-7.712768
G02 X45.596706 Y227.841007 Z-0.125000 I3.201594 J-9.034639
G02 X46.129570 Y227.981173 Z-0.125000 I2.977418 J-10.236127
G02 X46.709148 Y228.102095 Z-0.125000 I2.643187 J-11.219421
G02 X47.294630 Y228.194685 Z-0.125000 I2.291570 J-12.593082
G02 X47.916835 Y228.263202 Z-0.125000 I1.737746 J-12.921062
G02 X48.541116 Y228.303040 Z-0.125000 I1.220077 J-14.207872
G02 X49.190408 Y228.315174 Z-0.125000 I0.587162 J-14.041242
G02 X49.838425 Y228.298293 Z-0.125000 I-0.064068 J-14.905888
G02 X50.502237 Y228.251777 Z-0.125000 I-0.717002 J-14.991822
G02 X51.163151 Y228.176543 Z-0.125000 I-1.440362 J-15.593879
G02 X51.833224 Y228.071070 Z-0.125000 I-2.112875 J-15.604308
G02 X52.498020 Y227.937286 Z-0.125000 I-2.864331 J-15.951979
G02 X53.166138 Y227.773451 Z-0.125000 I-3.573136 J-16.015453
G02 X53.826750 Y227.582013 Z-0.125000 I-4.310884 J-16.111500
G02 X54.485499 Y227.361421 Z-0.125000 I-5.064666 J-16.218415
G02 X55.134673 Y227.114177 Z-0.125000 I-5.758273 J-16.094982
G02 X55.777220 Y226.839296 Z-0.125000 I-6.542991 J-16.182984
G02 X56.408279 Y226.538880 Z-0.125000 I-7.173927 J-15.882716
G02 X57.028121 Y226.212954 Z-0.125000 I-7.947160 J-15.866145
G02 X57.634667 Y225.862682 Z-0.125000 I-8.510773 J-15.437940
G02 X58.225354 Y225.489676 Z-0.125000 I-9.181788 J-15.194353
G02 X58.800975 Y225.093512 Z-0.125000 I-9.681231 J-14.682963
G02 X59.355898 Y224.678131 Z-0.125000 I-10.153249 J-14.142489
G02 X59.893917 Y224.240723 Z-0.125000 I-10.588765 J-13.573911
G02 X60.406163 Y223.788474 Z-0.125000 I-10.764700 J-12.709019
G02 X60.899475 Y223.315279 Z-0.125000 I-11.129020 J-12.095887
G02 X61.361784 Y222.832591 Z-0.125000 I-10.952281 J-10.952620
G02 X61.801422 Y222.330693 Z-0.125000 I-10.743039 J-9.853871
G02 X62.207677 Y221.824405 Z-0.125000 I-12.285813 J-10.274516
G02 X62.591949 Y221.301187 Z-0.125000 I-11.442815 J-8.806762
G02 X62.943128 Y220.777921 Z-0.125000 I-12.970131 J-9.084118
G02 X63.274038 Y220.239136 Z-0.125000 I-13.033819 J-8.376098
G02 X63.568321 Y219.707143 Z-0.125000 I-10.449297 J-6.127652
G02 X63.836112 Y219.161009 Z-0.125000 I-11.108721 J-5.785756
G02 X64.061105 Y218.631420 Z-0.125000 I-8.750763 J-4.030294
G02 X64.254241 Y218.089256 Z-0.125000 I-9.041564 J-3.526372
G02 X64.400340 Y217.573853 Z-0.125000 I-7.015320 J-2.267012
G02 X64.508284 Y217.049227 Z-0.125000 I-7.041786 J-1.722294
G02 X64.567591 Y216.560640 Z-0.125000 I-5.374071 J-0.900223
G02 X64.581829 Y216.069110 Z-0.125000 I-5.261304 J-0.398383
G02 X64.548355 Y215.619868 Z-0.125000 I-3.972654 J0.070143
G02 X64.463673 Y215.178269 Z-0.125000 I-3.818674 J0.503360
G02 X64.332847 Y214.779912 Z-0.125000 I-2.928690 J0.741162
G02 X64.148574 Y214.404417 Z-0.125000 I-2.790960 J1.136695
G02 X63.916150 Y214.067599 Z-0.125000 I-2.261309 J1.311829
G02 X63.635705 Y213.770371 Z-0.125000 I-2.145040 J1.743007
G02 X63.298050 Y213.506434 Z-0.125000 I-1.879763 J2.056833
G02 X62.925490 Y213.294071 Z-0.125000 I-1.736088 J2.612725
G02 X62.482510 Y213.114979 Z-0.125000 I-1.587231 J3.288576
G02 X62.020286 Y212.990831 Z-0.125000 I-1.331800 J4.036006
G02 X61.477124 Y212.905564 Z-0.125000 I-1.117696 J5.347188
G02 X60.926958 Y212.871639 Z-0.125000 I-0.662269 J6.262076
G02 X60.292628 Y212.883365 Z-0.125000 I-0.155661 J8.742220
G02 X59.659314 Y212.939125 Z-0.125000 I0.527026 J9.610330
G02 X58.947072 Y213.044327 Z-0.125000 I1.682752 J13.856253
G02 X58.241289 Y213.185326 Z-0.125000 I2.496602 J14.333906
G02 X57.466339 Y213.375625 Z-0.125000 I4.651315 J20.614533
G02 X56.698589 Y213.595271 Z-0.125000 I5.404979 J20.344113
G02 X55.873393 Y213.860936 Z-0.125000 I9.180524 J29.930545
G02 X55.055625 Y214.150159 Z-0.125000 I9.470628 J28.078581
G02 X54.195143 Y214.478962 Z-0.125000 I15.356478 J41.478445
G02 X53.341684 Y214.826633 Z-0.125000 I14.776773 J37.495248
G02 X52.462688 Y215.205084 Z-0.125000 I22.394187 J53.223125
G02 X51.590184 Y215.598948 Z-0.125000 I21.005802 J47.696302
G02 X50.711146 Y216.013342 Z-0.125000 I27.920099 J60.365218
G02 X49.838351 Y216.441063 Z-0.125000 I26.865331 J55.924989
G02 X48.979138 Y216.878508 Z-0.125000 I29.037033 J58.096066
G02 X48.126518 Y217.328673 Z-0.125000 I29.832077 J57.534864
G02 X47.307841 Y217.777971 Z-0.125000 I25.381761 J47.219308
G02 X46.497010 Y218.240945 Z-0.125000 I27.903943 J49.811155
G02 X45.739647 Y218.693256 Z-0.125000 I19.491105 J33.496715
G02 X44.992633 Y219.161764 Z-0.125000 I22.137994 J36.127817
G02 X44.316508 Y219.610960 Z-0.125000 I13.837168 J21.561007
G02 X43.654948 Y220.080268 Z-0.125000 I15.570075 J22.649260
G02 X43.078059 Y220.522951 Z-0.125000 I9.435465 J12.893227
G02 X42.524041 Y220.990327 Z-0.125000 I9.666799 J12.020861
G02 X42.059740 Y221.425777 Z-0.125000 I7.254877 J8.200822
G02 X41.625972 Y221.888231 Z-0.125000 I6.388911 J6.427259
G02 X41.274092 Y222.316159 Z-0.125000 I6.900178 J6.032558
G02 X40.950521 Y222.767921 Z-0.125000 I6.039853 J4.667756
G02 X40.700857 Y223.184092 Z-0.125000 I4.518306 J2.993539
G02 X40.491978 Y223.621038 Z-0.125000 I4.293045 J2.320661
G02 X40.350854 Y224.024080 Z-0.125000 I3.313460 J1.386433
G02 X40.261193 Y224.440502 Z-0.125000 I3.141613 J0.894291
G02 X40.231910 Y224.831481 Z-0.125000 I2.693211 J0.398295
G02 X40.260424 Y225.222214 Z-0.125000 I2.584455 J0.007804
G02 X40.346612 Y225.601362 Z-0.125000 I2.572498 J-0.385410
G02 X40.488176 Y225.964416 Z-0.125000 I2.537720 J-0.780394
G02 X40.691988 Y226.327621 Z-0.125000 I2.844454 J-1.357375
G02 X40.941181 Y226.663031 Z-0.125000 I2.848228 J-1.855818
G02 X41.259445 Y227.002321 Z-0.125000 I3.359292 J-2.832195
G02 X41.611139 Y227.308528 Z-0.125000 I3.361279 J-3.505516
G02 X42.035036 Y227.615418 Z-0.125000 I3.888779 J-4.925247
G02 X42.482451 Y227.888152 Z-0.125000 I3.858358 J-5.826223
G02 X42.999980 Y228.154966 Z-0.125000 I4.190699 J-7.493205
G02 X43.533849 Y228.388070 Z-0.125000 I4.097170 J-8.655705
G02 X44.131477 Y228.607766 Z-0.125000 I4.088013 J-10.197725
G02 X44.740287 Y228.794275 Z-0.125000 I3.887832 J-11.603874
G02 X45.403738 Y228.960344 Z-0.125000 I3.526536 J-12.680371
G02 X46.074889 Y229.093507 Z-0.125000 I3.178090 J-14.259841
G02 X46.789200 Y229.200093 Z-0.125000 I2.547517 J-14.625971
G02 X47.508275 Y229.273480 Z-0.125000 I2.020397 J-16.237014
G02 X48.255914 Y229.315240 Z-0.125000 I1.250241 J-15.670157
G02 X49.002609 Y229.322460 Z-0.125000 I0.535035 J-16.717346
G02 X49.765328 Y229.295290 Z-0.125000 I-0.210411 J-16.625898
G02 X50.525527 Y229.233819 Z-0.125000 I-1.008764 J-17.206440
G02 X51.294059 Y229.137112 Z-0.125000 I-1.777638 J-17.229052
G02 X52.057246 Y229.006547 Z-0.125000 I-2.598803 J-17.486488
G02 X52.822659 Y228.840916 Z-0.125000 I-3.420946 J-17.660278
G02 X53.579966 Y228.642316 Z-0.125000 I-4.218207 J-17.628128
G02 X54.334470 Y228.409564 Z-0.125000 I-5.123760 J-17.948842
G02 X55.078359 Y228.145116 Z-0.125000 I-5.867171 J-17.682752
G02 X55.815100 Y227.848016 Z-0.125000 I-6.854222 J-18.058967
G02 X56.538970 Y227.520753 Z-0.125000 I-7.532505 J-17.625307
G02 X57.251609 Y227.162862 Z-0.125000 I-8.551170 J-17.915673
G02 X57.949331 Y226.776436 Z-0.125000 I-9.173303 J-17.386246
G02 X58.631602 Y226.361977 Z-0.125000 I-10.112796 J-17.416195
G02 X59.297011 Y225.920564 Z-0.125000 I-10.701558 J-16.854307
G02 X59.942336 Y225.454405 Z-0.125000 I-11.411592 J-16.477329
G02 X60.568800 Y224.962734 Z-0.125000 I-11.985451 J-15.916266
G02 X61.169993 Y224.450484 Z-0.125000 I-12.329634 J-15.079359
G02 X61.750125 Y223.914013 Z-0.125000 I-12.886777 J-14.517486
G02 X62.299260 Y223.362225 Z-0.125000 I-12.775413 J-13.263120
G02 X62.824002 Y222.787773 Z-0.125000 I-13.007692 J-12.408971
G02 X63.313248 Y222.203828 Z-0.125000 I-13.539477 J-11.840678
G02 X63.774923 Y221.600142 Z-0.125000 I-12.707875 J-10.196877
G02 X64.201929 Y220.991030 Z-0.125000 I-16.572719 J-12.072186
G02 X64.607830 Y220.363671 Z-0.125000 I-16.295162 J-10.987946
G02 X64.976731 Y219.736880 Z-0.125000 I-13.269372 J-8.231721
G02 X65.317294 Y219.093365 Z-0.125000 I-14.502562 J-8.086963
G02 X65.612490 Y218.461413 Z-0.125000 I-11.203440 J-5.618239
G02 X65.872829 Y217.813984 Z-0.125000 I-11.927396 J-5.172215
G02 X66.080791 Y217.190869 Z-0.125000 I-9.230822 J-3.427011
G02 X66.246796 Y216.555210 Z-0.125000 I-9.456324 J-2.809064
G02 X66.356537 Y215.956679 Z-0.125000 I-7.274721 J-1.643148
G02 X66.416482 Y215.351401 Z-0.125000 I-7.202595 J-1.018938
G02 X66.419878 Y214.793935 Z-0.125000 I-5.479864 J-0.312122
G02 X66.365744 Y214.239842 Z-0.125000 I-5.281717 J0.236324
G02 X66.257316 Y213.739204 Z-0.125000 I-4.008320 J0.606063
G02 X66.086285 Y213.257624 Z-0.125000 I-3.799481 J1.078207
G02 X65.861978 Y212.827980 Z-0.125000 I-2.965066 J1.274614
G02 X65.577113 Y212.437278 Z-0.125000 I-2.788827 J1.734163
G02 X65.233139 Y212.092154 Z-0.125000 I-2.323109 J1.971393
G02 X64.840657 Y211.803927 Z-0.125000 I-2.150851 J2.517507
G02 X64.375226 Y211.557762 Z-0.125000 I-1.908230 J3.044857
G02 X63.879901 Y211.377449 Z-0.125000 I-1.653561 J3.771874
G02 X63.296682 Y211.243210 Z-0.125000 I-1.430781 J4.882174
G02 X62.701091 Y211.173489 Z-0.125000 I-0.982908 J5.817711
G02 X62.008975 Y211.157972 Z-0.125000 I-0.525225 J7.983686
G02 X61.315761 Y211.199331 Z-0.125000 I0.187128 J8.966628
G02 X60.527789 Y211.300992 Z-0.125000 I1.300360 J13.183577
G02 X59.747150 Y211.448503 Z-0.125000 I2.200023 J13.782020
G02 X58.881011 Y211.657293 Z-0.125000 I4.462908 J20.414782
G02 X58.023980 Y211.902996 Z-0.125000 I5.329082 J20.205773
G02 X57.093555 Y212.206737 Z-0.125000 I9.652699 J31.145327
G02 X56.172334 Y212.539417 Z-0.125000 I9.933389 J28.948238
G02 X55.193502 Y212.922643 Z-0.125000 I17.566803 J46.310638
G02 X54.223058 Y213.328111 Z-0.125000 I16.422689 J40.670034
G02 X53.214120 Y213.773266 Z-0.125000 I28.171599 J65.216378
G02 X52.212431 Y214.235506 Z-0.125000 I24.998942 J55.489942
G02 X51.194044 Y214.724458 Z-0.125000 I38.837309 J82.195233
G02 X50.182029 Y215.227047 Z-0.125000 I34.828069 J71.400236
G02 X49.176988 Y215.742539 Z-0.125000 I43.428009 J85.907825
G02 X48.178148 Y216.270099 Z-0.125000 I42.434585 J81.551643
G02 X47.210861 Y216.797058 Z-0.125000 I38.531723 J71.880068
G02 X46.250663 Y217.336545 Z-0.125000 I42.271030 J76.359743
G02 X45.346273 Y217.863130 Z-0.125000 I28.595827 J50.152240
G02 X44.451293 Y218.404812 Z-0.125000 I33.692434 J56.677607
G02 X43.634522 Y218.923036 Z-0.125000 I19.241210 J31.228791
G02 X42.831432 Y219.460979 Z-0.125000 I22.729748 J34.801453
G02 X42.125232 Y219.966887 Z-0.125000 I12.413815 J18.074355
G02 X41.440472 Y220.498680 Z-0.125000 I13.743744 J18.403797
G02 X40.863862 Y220.992138 Z-0.125000 I8.319593 J10.305144
G02 X40.322724 Y221.517014 Z-0.125000 I7.527117 J8.301710
G02 X39.882275 Y222.000565 Z-0.125000 I8.344283 J8.042893
G02 X39.472041 Y222.512774 Z-0.125000 I7.054478 J6.070386
G02 X39.150755 Y222.982956 Z-0.125000 I5.628372 J4.190851
G02 X38.871516 Y223.478528 Z-0.125000 I5.274928 J3.298720
G02 X38.673588 Y223.933359 Z-0.125000 I3.890391 J1.963452
G02 X38.531786 Y224.407145 Z-0.125000 I3.702065 J1.366122
G02 X38.462173 Y224.848975 Z-0.125000 I3.035317 J0.704635
G02 X38.458531 Y225.295560 Z-0.125000 I2.920645 J0.247127
G02 X38.521773 Y225.726975 Z-0.125000 I2.811044 J-0.191734
G02 X38.650789 Y226.144426 Z-0.125000 I2.779157 J-0.630254
G02 X38.850885 Y226.563039 Z-0.125000 I3.110721 J-1.229790
G02 X39.106167 Y226.952614 Z-0.125000 I3.130075 J-1.772656
G02 X39.441027 Y227.350126 Z-0.125000 I3.764836 J-2.831663
G02 X39.816911 Y227.711329 Z-0.125000 I3.793292 J-3.571298
G02 X40.276958 Y228.077777 Z-0.125000 I4.508372 J-5.187903
G02 X40.766007 Y228.406209 Z-0.125000 I4.514531 J-6.194011
G02 X41.337222 Y228.732178 Z-0.125000 I5.023730 J-8.139891
G02 X41.928828 Y229.020453 Z-0.125000 I4.978078 J-9.464960
G02 X42.595060 Y229.296965 Z-0.125000 I5.060195 J-11.251245
G02 X43.275626 Y229.536179 Z-0.125000 I4.911024 J-12.884214
G02 X44.019638 Y229.754625 Z-0.125000 I4.530105 J-14.052971
G02 X44.773560 Y229.935695 Z-0.125000 I4.210500 J-15.871190
G02 X45.577588 Y230.088208 Z-0.125000 I3.496944 J-16.239721
G02 X46.389177 Y230.203049 Z-0.125000 I2.985212 J-18.171482
G02 X47.233480 Y230.282592 Z-0.125000 I2.053336 J-17.274374
G02 X48.078238 Y230.322172 Z-0.125000 I1.292588 J-18.553151
G02 X48.939234 Y230.322417 Z-0.125000 I0.435646 J-18.086862
G02 X49.798074 Y230.282426 Z-0.125000 I-0.438936 J-18.668502
G02 X50.663415 Y230.201934 Z-0.125000 I-1.301995 J-18.689070
G02 X51.523643 Y230.081690 Z-0.125000 I-2.191393 J-18.814381
G02 X52.383975 Y229.921201 Z-0.125000 I-3.118132 J-19.101583
G02 X53.235830 Y229.722021 Z-0.125000 I-3.968803 J-18.895100
G02 X54.083074 Y229.483657 Z-0.125000 I-5.016904 J-19.457020
G02 X54.918828 Y229.208257 Z-0.125000 I-5.795379 J-18.992985
G02 X55.746346 Y228.895246 Z-0.125000 I-6.987344 J-19.723056
G02 X56.559756 Y228.547254 Z-0.125000 I-7.687556 J-19.093851
G02 X57.361739 Y228.163608 Z-0.125000 I-8.978764 J-19.799472
G02 X58.147343 Y227.747177 Z-0.125000 I-9.626327 J-19.109476
G02 X58.918154 Y227.297458 Z-0.125000 I-10.882430 J-19.537754
G02 X59.670512 Y226.817041 Z-0.125000 I-11.528602 J-18.883716
G02 X60.404065 Y226.306261 Z-0.125000 I-12.538491 J-18.789214
G02 X61.117079 Y225.766611 Z-0.125000 I-13.236364 J-18.229434
G02 X61.806344 Y225.200331 Z-0.125000 I-13.787477 J-17.484470
G02 X62.472749 Y224.606689 Z-0.125000 I-14.560593 J-17.016165
G02 X63.109471 Y223.991274 Z-0.125000 I-14.514925 J-15.654543
G02 X63.720382 Y223.349868 Z-0.125000 I-15.248448 J-15.135114
G02 X64.295239 Y222.692804 Z-0.125000 I-14.870926 J-13.590389
G02 X64.838077 Y222.012907 Z-0.125000 I-14.298379 J-11.972646
G02 X65.345078 Y221.321393 Z-0.125000 I-19.172340 J-14.588319
G02 X65.828114 Y220.609042 Z-0.125000 I-18.519417 J-13.077712
G02 X66.274722 Y219.889650 Z-0.125000 I-16.660390 J-10.841323
G02 X66.692444 Y219.150718 Z-0.125000 I-18.478343 J-10.933434
G02 X67.064344 Y218.415685 Z-0.125000 I-13.762216 J-7.424771
G02 X67.398619 Y217.662231 Z-0.125000 I-15.203764 J-7.196126
G02 X67.676668 Y216.927638 Z-0.125000 I-11.622458 J-4.819121
G02 X67.909019 Y216.177050 Z-0.125000 I-12.215663 J-4.192719
G02 X68.078266 Y215.461581 Z-0.125000 I-9.451501 J-2.613534
G02 X68.193089 Y214.735457 Z-0.125000 I-9.502649 J-1.874808
G02 X68.242476 Y214.059752 Z-0.125000 I-7.328658 J-0.875315
G02 X68.228565 Y213.382951 Z-0.125000 I-7.111661 J-0.192360
G02 X68.151158 Y212.767682 Z-0.125000 I-5.429563 J0.370582
G02 X68.003192 Y212.166679 Z-0.125000 I-5.138738 J0.946440
G02 X67.795109 Y211.630718 Z-0.125000 I-3.944331 J1.222982
G02 X67.514917 Y211.130437 Z-0.125000 I-3.679824 J1.732352
G02 X67.173297 Y210.690554 Z-0.125000 I-2.941019 J1.931449
G02 X66.768636 Y210.309429 Z-0.125000 I-2.711606 J2.473668
G02 X66.291243 Y209.982213 Z-0.125000 I-2.311135 J2.859979
G02 X65.770376 Y209.729728 Z-0.125000 I-2.042544 J3.550185
G02 X65.159071 Y209.531689 Z-0.125000 I-1.773606 J4.432242
G02 X64.526851 Y209.411725 Z-0.125000 I-1.341770 J5.345334
G02 X63.789738 Y209.354291 Z-0.125000 I-0.927347 J7.142883
G02 X63.048231 Y209.368279 Z-0.125000 I-0.216421 J8.188167
G02 X62.198012 Y209.453457 Z-0.125000 I0.767315 J11.945036
G02 X61.354816 Y209.597194 Z-0.125000 I1.736551 J12.732055
G02 X60.409595 Y209.815316 Z-0.125000 I3.949103 J19.270326
G02 X59.475743 Y210.079696 Z-0.125000 I4.941917 J19.237470
G02 X58.451710 Y210.415848 Z-0.125000 I9.457460 J30.538514
G02 X57.439096 Y210.787756 Z-0.125000 I9.857050 J28.402822
G02 X56.352304 Y211.223377 Z-0.125000 I18.730045 J48.301429
G02 X55.275703 Y211.685599 Z-0.125000 I17.227739 J41.611551
G02 X54.145309 Y212.198741 Z-0.125000 I33.238395 J74.722037
G02 X53.023214 Y212.731194 Z-0.125000 I27.979654 J60.413048
G02 X51.871358 Y213.298681 Z-0.125000 I52.105734 J107.214257
G02 X50.726097 Y213.880250 Z-0.125000 I42.686468 J85.479298
G02 X49.577932 Y214.479602 Z-0.125000 I65.932498 J127.704734
G02 X48.435451 Y215.090095 Z-0.125000 I58.735040 J111.291590
G02 X47.318710 Y215.701373 Z-0.125000 I61.478731 J113.640868
G02 X46.207971 Y216.323337 Z-0.125000 I65.630297 J118.509196
G02 X45.152043 Y216.930652 Z-0.125000 I44.172560 J78.023672
G02 X44.104066 Y217.550879 Z-0.125000 I54.304167 J92.951302
G02 X43.138656 Y218.143455 Z-0.125000 I27.839100 J46.437478
G02 X42.185313 Y218.753911 Z-0.125000 I35.108289 J55.877920
G02 X41.338807 Y219.326525 Z-0.125000 I16.807159 J25.758374
G02 X40.511544 Y219.924484 Z-0.125000 I20.177086 J28.785764
G02 X39.809101 Y220.477276 Z-0.125000 I10.138812 J13.606271
G02 X39.142991 Y221.064004 Z-0.125000 I9.763343 J11.755763
G02 X38.598978 Y221.602013 Z-0.125000 I9.104990 J9.750649
G02 X38.090851 Y222.174397 Z-0.125000 I7.633442 J7.288231
G02 X37.689215 Y222.697564 Z-0.125000 I7.270722 J5.997500
G02 X37.328031 Y223.250469 Z-0.125000 I6.546002 J4.670579
G02 X37.062592 Y223.755300 Z-0.125000 I4.580169 J2.730438
G02 X36.856151 Y224.284902 Z-0.125000 I4.389228 J2.015974
G02 X36.735139 Y224.774781 Z-0.125000 I3.401482 J1.100138
G02 X36.687052 Y225.275798 Z-0.125000 I3.272035 J0.566863
G02 X36.715930 Y225.756283 Z-0.125000 I3.016323 J0.059821
G02 X36.821123 Y226.226773 Z-0.125000 I2.983596 J-0.420073
G02 X37.005998 Y226.698572 Z-0.125000 I3.300191 J-1.021061
G02 X37.256980 Y227.141365 Z-0.125000 I3.338750 J-1.599930
G02 X37.597910 Y227.596810 Z-0.125000 I4.083719 J-2.701598
G02 X37.988549 Y228.013316 Z-0.125000 I4.146358 J-3.497415
G02 X38.475870 Y228.441166 Z-0.125000 I5.073022 J-5.286713
G02 X38.998422 Y228.827454 Z-0.125000 I5.128309 J-6.390746
G02 X39.616302 Y229.216487 Z-0.125000 I5.865322 J-8.630390
G02 X40.259138 Y229.564105 Z-0.125000 I5.890013 J-10.123953
G02 X40.988806 Y229.903167 Z-0.125000 I6.105490 J-12.184469
G02 X41.736381 Y230.201060 Z-0.125000 I6.040547 J-14.072001
G02 X42.557468 Y230.479011 Z-0.125000 I5.651629 J-15.343614
G02 X43.391261 Y230.715324 Z-0.125000 I5.398507 J-17.458669
G02 X44.282676 Y230.921700 Z-0.125000 I4.579853 J-17.753671
G02 X45.184043 Y231.085782 Z-0.125000 I4.098518 J-19.956931
G02 X46.123319 Y231.211315 Z-0.125000 I3.008491 J-18.933693
G02 X47.066192 Y231.291915 Z-0.125000 I2.233099 J-20.568027
G02 X48.026115 Y231.328129 Z-0.125000 I1.213006 J-19.412790
G02 X48.984021 Y231.317689 Z-0.125000 I0.260570 J-20.043768
G02 X49.945504 Y231.261054 Z-0.125000 I-0.696907 J-20.021031
G02 X50.902459 Y231.158370 Z-0.125000 I-1.659926 J-19.979900
G02 X51.856150 Y231.009941 Z-0.125000 I-2.680954 J-20.363894
G02 X52.801248 Y230.816678 Z-0.125000 I-3.584207 J-19.935016
G02 X53.738746 Y230.579049 Z-0.125000 I-4.760245 J-20.748347
G02 X54.664047 Y230.298666 Z-0.125000 I-5.562605 J-20.024338
G02 X55.579090 Y229.975737 Z-0.125000 I-6.954652 J-21.164353
G02 X56.478907 Y229.612737 Z-0.125000 I-7.651060 J-20.262497
G02 X57.366554 Y229.209200 Z-0.125000 I-9.237949 J-21.498441
G02 X58.236480 Y228.768506 Z-0.125000 I-9.867764 J-20.557856
G02 X59.092172 Y228.289457 Z-0.125000 I-11.500222 J-21.545774
G02 X59.928003 Y227.776003 Z-0.125000 I-12.150794 J-20.716830
G02 X60.746668 Y227.226706 Z-0.125000 I-13.544354 J-21.071042
G02 X61.543377 Y226.645334 Z-0.125000 I-14.326415 J-20.469444
G02 X62.318672 Y226.031254 Z-0.125000 I-15.156996 J-19.932615
G02 X63.069643 Y225.386890 Z-0.125000 I-16.138379 J-19.568199
G02 X63.793418 Y224.713990 Z-0.125000 I-16.179092 J-18.128022
G02 X64.489966 Y224.012152 Z-0.125000 I-17.325766 J-17.891737
G02 X65.152107 Y223.287449 Z-0.125000 I-16.563172 J-15.798152
G02 X65.780564 Y222.536417 Z-0.125000 I-16.679439 J-14.595677
G02 X66.372057 Y221.767208 Z-0.125000 I-19.780027 J-15.822112
G02 X66.932751 Y220.974818 Z-0.125000 I-18.983472 J-14.027248
G02 X67.457726 Y220.167184 Z-0.125000 I-21.149455 J-14.321923
G02 X67.955257 Y219.336916 Z-0.125000 I-23.240482 J-14.490856
G02 X68.408971 Y218.500396 Z-0.125000 I-16.358251 J-9.413733
G02 X68.822661 Y217.642514 Z-0.125000 I-18.907051 J-9.646095
G02 X69.178148 Y216.795034 Z-0.125000 I-14.078065 J-6.403534
G02 X69.484236 Y215.927953 Z-0.125000 I-15.270714 J-5.878285
G02 X69.721498 Y215.090697 Z-0.125000 I-11.798937 J-3.795829
G02 X69.899605 Y214.238742 Z-0.125000 I-12.097872 J-2.973732
G02 X70.003689 Y213.436508 Z-0.125000 I-9.464089 J-1.635771
G02 X70.038804 Y212.628663 Z-0.125000 I-9.270375 J-0.807640
G02 X70.000567 Y211.887475 Z-0.125000 I-7.205894 J0.000159
G02 X69.884591 Y211.155445 Z-0.125000 I-6.823152 J0.705792
G02 X69.699916 Y210.499861 Z-0.125000 I-5.255136 J1.126548
G02 X69.432950 Y209.875081 Z-0.125000 I-4.872347 J1.712510
G02 X69.100458 Y209.326518 Z-0.125000 I-3.803702 J1.930428
G02 X68.690780 Y208.835179 Z-0.125000 I-3.480526 J2.485598
G02 X68.209483 Y208.412865 Z-0.125000 I-2.851232 J2.764037
G02 X67.669092 Y208.070811 Z-0.125000 I-2.540258 J3.415313
G02 X67.039867 Y207.793886 Z-0.125000 I-2.169221 J4.075550
G02 X66.377629 Y207.607547 Z-0.125000 I-1.745366 J4.932967
G02 X65.607238 Y207.492140 Z-0.125000 I-1.348898 J6.375444
G02 X64.827063 Y207.463600 Z-0.125000 I-0.662582 J7.434640
G02 X63.927787 Y207.516535 Z-0.125000 I0.164919 J10.466803
G02 X63.033743 Y207.643488 Z-0.125000 I1.169740 J11.449173
G02 X62.022281 Y207.858423 Z-0.125000 I3.187911 J17.489345
G02 X61.024397 Y208.131214 Z-0.125000 I4.306426 J17.714710
G02 X59.919436 Y208.490951 Z-0.125000 I8.661946 J28.482684
G02 X58.828607 Y208.895071 Z-0.125000 I9.294786 J26.763420
G02 X57.646004 Y209.378278 Z-0.125000 I18.628929 J47.281311
G02 X56.475967 Y209.893788 Z-0.125000 I17.138271 J40.483747
G02 X55.234984 Y210.474062 Z-0.125000 I36.382784 J79.426003
G02 X54.003807 Y211.076766 Z-0.125000 I29.477910 J61.774975
G02 X52.727237 Y211.725428 Z-0.125000 I65.885885 J131.244192
G02 X51.457735 Y212.389092 Z-0.125000 I48.909908 J95.104256
G02 X50.172304 Y213.077688 Z-0.125000 I100.806649 J189.724027
G02 X48.892054 Y213.776542 Z-0.125000 I77.306213 J143.141498
G02 X47.628191 Y214.479258 Z-0.125000 I106.134795 J192.375635
G02 X46.369034 Y215.190430 Z-0.125000 I103.877668 J185.389642
G02 X45.159994 Y215.886197 Z-0.125000 I74.204342 J130.343907
G02 X43.957044 Y216.591840 Z-0.125000 I95.707924 J164.536892
G02 X42.837460 Y217.265921 Z-0.125000 I42.753723 J72.276676
G02 X41.727707 Y217.954720 Z-0.125000 I59.291904 J96.766005
G02 X40.731663 Y218.599591 Z-0.125000 I23.693551 J37.687877
G02 X39.752394 Y219.267427 Z-0.125000 I30.922831 J46.395033
G02 X38.911183 Y219.882826 Z-0.125000 I13.287279 J19.045456
G02 X38.102022 Y220.531970 Z-0.125000 I14.302043 J18.656477
G02 X37.438189 Y221.124369 Z-0.125000 I9.401068 J11.202824
G02 X36.819717 Y221.757304 Z-0.125000 I8.028776 J8.463941
G02 X36.328348 Y222.332878 Z-0.125000 I9.585672 J8.680849
G02 X35.873914 Y222.942358 Z-0.125000 I8.073672 J6.493957
G02 X35.530596 Y223.496006 Z-0.125000 I5.482527 J3.782998
G02 X35.246830 Y224.079913 Z-0.125000 I5.281578 J2.927634
G02 X35.063255 Y224.615153 Z-0.125000 I3.827205 J1.611747
G02 X34.957719 Y225.168934 Z-0.125000 I3.687220 J0.989636
G02 X34.940499 Y225.694585 Z-0.125000 I3.202410 J0.368014
G02 X35.009782 Y226.216223 Z-0.125000 I3.166283 J-0.155119
G02 X35.167173 Y226.737595 Z-0.125000 I3.412319 J-0.745660
G02 X35.402644 Y227.231634 Z-0.125000 I3.470073 J-1.350792
G02 X35.737968 Y227.743217 Z-0.125000 I4.296122 J-2.450262
G02 X36.132949 Y228.214001 Z-0.125000 I4.398460 J-3.289159
G02 X36.637460 Y228.703754 Z-0.125000 I5.548590 J-5.211063
G02 X37.184280 Y229.148762 Z-0.125000 I5.664169 J-6.401587
G02 X37.840710 Y229.603722 Z-0.125000 I6.682298 J-8.940368
G02 X38.527174 Y230.013844 Z-0.125000 I6.800987 J-10.603965
G02 X39.314239 Y230.420548 Z-0.125000 I7.204858 J-12.978108
G02 X40.123193 Y230.782510 Z-0.125000 I7.265742 J-15.153358
G02 X41.017362 Y231.126876 Z-0.125000 I6.885005 J-16.544302
G02 X41.927601 Y231.425638 Z-0.125000 I6.749309 J-19.027189
G02 X42.904058 Y231.693933 Z-0.125000 I5.796018 J-19.183460
G02 X43.892614 Y231.915176 Z-0.125000 I5.366566 J-21.659738
G02 X44.925518 Y232.095192 Z-0.125000 I4.126617 J-20.624536
G02 X45.966411 Y232.225762 Z-0.125000 I3.379007 J-22.722996
G02 X47.026206 Y232.306911 Z-0.125000 I2.118746 J-20.709397
G02 X48.084483 Y232.334686 Z-0.125000 I1.092468 J-21.450073
G02 X49.142791 Y232.309980 Z-0.125000 I0.033799 J-21.231680
G02 X50.197347 Y232.232474 Z-0.125000 I-1.015895 J-21.035305
G02 X51.243873 Y232.103206 Z-0.125000 I-2.122259 J-21.482208
G02 X52.281979 Y231.922454 Z-0.125000 I-3.085989 J-20.795021
G02 X53.308039 Y231.691856 Z-0.125000 I-4.368667 J-21.836764
G02 X54.321362 Y231.412290 Z-0.125000 I-5.194867 J-20.805716
G02 X55.321134 Y231.085173 Z-0.125000 I-6.765672 J-22.369353
G02 X56.304644 Y230.712507 Z-0.125000 I-7.442881 J-21.126791
G02 X57.274315 Y230.294549 Z-0.125000 I-9.329016 J-22.977285
G02 X58.224994 Y229.834841 Z-0.125000 I-9.903568 J-21.693530
G02 X59.161525 Y229.331966 Z-0.125000 I-11.963119 J-23.403075
G02 X60.076904 Y228.790972 Z-0.125000 I-12.556214 J-22.290417
G02 X60.976794 Y228.208944 Z-0.125000 I-14.438660 J-23.310719
G02 X61.853539 Y227.591804 Z-0.125000 I-15.232160 J-22.571042
G02 X62.711723 Y226.936099 Z-0.125000 I-16.456769 J-22.427985
G02 X63.544473 Y226.247467 Z-0.125000 I-17.607096 J-22.139759
G02 X64.353485 Y225.523559 Z-0.125000 I-17.796042 J-20.702189
G02 X65.134096 Y224.768144 Z-0.125000 I-19.311584 J-20.736744
G02 X65.883663 Y223.982170 Z-0.125000 I-18.391138 J-18.289658
G02 X66.599480 Y223.166396 Z-0.125000 I-19.511733 J-17.842882
G02 X67.278122 Y222.325383 Z-0.125000 I-19.926234 J-16.773467
G02 X67.918189 Y221.458712 Z-0.125000 I-19.303655 J-14.926143
G02 X68.523345 Y220.568340 Z-0.125000 I-25.732974 J-18.140648
G02 X69.101943 Y219.652441 Z-0.125000 I-27.584711 J-18.066730
G02 X69.640401 Y218.718600 Z-0.125000 I-19.218887 J-11.703876
G02 X70.137638 Y217.760286 Z-0.125000 I-23.166706 J-12.628584
G02 X70.576982 Y216.801011 Z-0.125000 I-16.498125 J-8.136326
G02 X70.963394 Y215.818394 Z-0.125000 I-18.602696 J-7.882748
G02 X71.276741 Y214.856948 Z-0.125000 I-14.195663 J-5.158322
G02 X71.526036 Y213.876549 Z-0.125000 I-14.921417 J-4.316108
G02 X71.693340 Y212.941642 Z-0.125000 I-11.787698 J-2.591857
G02 X71.785796 Y211.996523 Z-0.125000 I-11.700428 J-1.621667
G02 X71.794707 Y211.119774 Z-0.125000 I-9.287578 J-0.532821
G02 X71.718959 Y210.247055 Z-0.125000 I-8.832319 J0.326956
G02 X71.564504 Y209.459447 Z-0.125000 I-6.919144 J0.947943
G02 X71.318712 Y208.697073 Z-0.125000 I-6.391028 J1.639684
G02 X71.000963 Y208.025965 Z-0.125000 I-4.973852 J1.944185
G02 X70.593136 Y207.408009 Z-0.125000 I-4.513921 J2.535458
G02 X70.113684 Y206.876508 Z-0.125000 I-3.594652 J2.760636
G02 X69.558858 Y206.426893 Z-0.125000 I-3.200175 J3.381884
G02 X68.919454 Y206.056317 Z-0.125000 I-2.659938 J3.852630
G02 X68.231872 Y205.786172 Z-0.125000 I-2.219687 J4.639521
G02 X67.438030 Y205.596390 Z-0.125000 I-1.793956 J5.748776
G02 X66.625512 Y205.508896 Z-0.125000 I-1.139745 J6.767834
G02 X65.688758 Y205.512244 Z-0.125000 I-0.435752 J9.128910
G02 X64.754226 Y205.606722 Z-0.125000 I0.561097 J10.219347
G02 X63.689985 Y205.802172 Z-0.125000 I2.261290 J15.308112
G02 X62.640421 Y206.070089 Z-0.125000 I3.492789 J15.872752
G02 X61.467538 Y206.441116 Z-0.125000 I7.436791 J25.548416
G02 X60.311999 Y206.867327 Z-0.125000 I8.350905 J24.420422
G02 X59.046810 Y207.389966 Z-0.125000 I17.367064 J43.834373
G02 X57.797250 Y207.952347 Z-0.125000 I16.265885 J37.810697
G02 X56.458352 Y208.596023 Z-0.125000 I36.855678 J78.377224
G02 X55.131416 Y209.266500 Z-0.125000 I29.383635 J59.801170
G02 X53.741362 Y209.996818 Z-0.125000 I76.512287 J147.318146
G02 X52.359298 Y210.743871 Z-0.125000 I52.186471 J98.198077
G02 X50.945432 Y211.525811 Z-0.125000 I151.286489 J275.217965
G02 X49.536436 Y212.317517 Z-0.125000 I94.065504 J169.057678
G02 X48.131020 Y213.118484 Z-0.125000 I210.227771 J370.509193
G02 X46.728963 Y213.925634 Z-0.125000 I163.835725 J286.211676
G02 X45.368477 Y214.718227 Z-0.125000 I145.673580 J251.612545
G02 X44.011937 Y215.517134 Z-0.125000 I196.944167 J335.961427
G02 X42.735580 Y216.281360 Z-0.125000 I72.245919 J122.108109
G02 X41.466335 Y217.056082 Z-0.125000 I117.873204 J194.541286
G02 X40.313894 Y217.780805 Z-0.125000 I35.360842 J57.508881
G02 X39.175073 Y218.524467 Z-0.125000 I52.259804 J81.272869
G02 X38.184326 Y219.207896 Z-0.125000 I18.145383 J27.364624
G02 X37.219991 Y219.922606 Z-0.125000 I22.391093 J31.219538
G02 X36.422365 Y220.571869 Z-0.125000 I10.496577 J13.709715
G02 X35.675711 Y221.265453 Z-0.125000 I9.373901 J10.839843
G02 X35.079567 Y221.892784 Z-0.125000 I11.423567 J11.452581
G02 X34.520544 Y222.559136 Z-0.125000 I9.201103 J8.286747
G02 X34.090328 Y223.161232 Z-0.125000 I6.865477 J5.360345
G02 X33.716774 Y223.798270 Z-0.125000 I6.504477 J4.242219
G02 X33.459504 Y224.376774 Z-0.125000 I4.361102 J2.285910
G02 X33.282914 Y224.981591 Z-0.125000 I4.222356 J1.561000
G02 X33.207853 Y225.548239 Z-0.125000 I3.395607 J0.738090
G02 X33.228313 Y226.118835 Z-0.125000 I3.351323 J0.165501
G02 X33.345482 Y226.684866 Z-0.125000 I3.456719 J-0.420401
G02 X33.553506 Y227.227303 Z-0.125000 I3.530075 J-1.042678
G02 X33.870470 Y227.791543 Z-0.125000 I4.386883 J-2.093198
G02 X34.258465 Y228.314174 Z-0.125000 I4.531193 J-2.958571
G02 X34.768798 Y228.864716 Z-0.125000 I5.900140 J-4.957420
G02 X35.329509 Y229.367765 Z-0.125000 I6.083711 J-6.217032
G02 X36.015074 Y229.890152 Z-0.125000 I7.435785 J-9.047453
G02 X36.736326 Y230.364620 Z-0.125000 I7.669416 J-10.873052
G02 X37.573576 Y230.843106 Z-0.125000 I8.332322 J-13.608084
G02 X38.437093 Y231.273647 Z-0.125000 I8.565725 J-16.098660
G02 X39.399479 Y231.690909 Z-0.125000 I8.220082 J-17.640578
G02 X40.381696 Y232.058931 Z-0.125000 I8.268037 J-20.571876
G02 X41.440594 Y232.397309 Z-0.125000 I7.152973 J-20.558086
G02 X42.514353 Y232.684077 Z-0.125000 I6.830427 J-23.421789
G02 X43.640025 Y232.927578 Z-0.125000 I5.399615 J-22.238053
G02 X44.777868 Y233.117052 Z-0.125000 I4.713047 J-24.791848
G02 X45.937746 Y233.252250 Z-0.125000 I3.168275 J-22.137952
G02 X47.098351 Y233.327648 Z-0.125000 I2.084840 J-23.121790
G02 X48.255805 Y233.343778 Z-0.125000 I0.890190 J-22.342719
G02 X49.410112 Y233.299715 Z-0.125000 I-0.263182 J-22.036464
G02 X50.550161 Y233.197122 Z-0.125000 I-1.450360 J-22.502382
G02 X51.682318 Y233.035821 Z-0.125000 I-2.490069 J-21.531494
G02 X52.796282 Y232.818689 Z-0.125000 I-3.855125 J-22.744229
G02 X53.897181 Y232.545761 Z-0.125000 I-4.715483 J-21.377463
G02 X54.979608 Y232.220062 Z-0.125000 I-6.429712 J-23.329983
G02 X56.044815 Y231.842793 Z-0.125000 I-7.085755 J-21.698824
G02 X57.093192 Y231.415526 Z-0.125000 I-9.249579 J-24.195349
G02 X58.121328 Y230.941560 Z-0.125000 I-9.739338 J-22.478856
G02 X59.134532 Y230.419871 Z-0.125000 I-12.265558 J-25.066442
G02 X60.125346 Y229.856226 Z-0.125000 I-12.730561 J-23.531353
G02 X61.102003 Y229.246747 Z-0.125000 I-15.223712 J-25.482416
G02 X62.054487 Y228.599251 Z-0.125000 I-15.926532 J-24.452661
G02 X62.991470 Y227.907753 Z-0.125000 I-17.720127 J-24.991417
G02 X63.902222 Y227.180993 Z-0.125000 I-18.954193 J-24.686824
G02 X64.793428 Y226.412531 Z-0.125000 I-19.409566 J-23.410808
G02 X65.655511 Y225.610390 Z-0.125000 I-21.279925 J-23.734452
G02 X66.491096 Y224.770040 Z-0.125000 I-20.201037 J-20.922062
G02 X67.293142 Y223.896935 Z-0.125000 I-22.358359 J-21.343654
G02 X68.059816 Y222.990835 Z-0.125000 I-20.601924 J-18.209211
G02 X68.782733 Y222.056104 Z-0.125000 I-20.549786 J-16.640010
G02 X69.471547 Y221.089306 Z-0.125000 I-28.232426 J-20.843526
G02 X70.130933 Y220.094732 Z-0.125000 I-29.480038 J-20.260655
G02 X70.754364 Y219.070173 Z-0.125000 I-22.831536 J-14.594645
G02 X71.337694 Y218.017709 Z-0.125000 I-28.303957 J-16.375406
G02 X71.866218 Y216.950276 Z-0.125000 I-18.824504 J-9.985250
G02 X72.338669 Y215.855686 Z-0.125000 I-22.250918 J-10.253275
G02 X72.735741 Y214.770292 Z-0.125000 I-16.532577 J-6.663478
G02 X73.063795 Y213.661412 Z-0.125000 I-17.919717 J-5.904384
G02 X73.302838 Y212.590141 Z-0.125000 I-14.178078 J-3.725991
G02 X73.460808 Y211.503851 Z-0.125000 I-14.324608 J-2.637738
G02 X73.525024 Y210.483955 Z-0.125000 I-11.593072 J-1.241909
G02 X73.497482 Y209.462989 Z-0.125000 I-11.098343 J-0.211455
G02 X73.380117 Y208.532422 Z-0.125000 I-8.918570 J0.652137
G02 X73.162974 Y207.621426 Z-0.125000 I-8.224496 J1.478995
G02 X72.865160 Y206.814564 Z-0.125000 I-6.490233 J1.937170
G02 X72.465812 Y206.055370 Z-0.125000 I-5.847026 J2.590992
G02 X71.992358 Y205.400696 Z-0.125000 I-4.606870 J2.833110
G02 X71.427877 Y204.826007 Z-0.125000 I-4.078004 J3.441005
G02 X70.783460 Y204.347505 Z-0.125000 I-3.302977 J3.775055
G02 X70.073724 Y203.975418 Z-0.125000 I-2.806503 J4.490327
G02 X69.263947 Y203.695400 Z-0.125000 I-2.288294 J5.306565
G02 X68.422684 Y203.531570 Z-0.125000 I-1.652748 J6.244946
G02 X67.458133 Y203.467444 Z-0.125000 I-1.019922 J8.054929
G02 X66.490625 Y203.511973 Z-0.125000 I-0.062694 J9.170789
G02 X65.385956 Y203.668955 Z-0.125000 I1.300311 J13.115374
G02 X64.295577 Y203.915970 Z-0.125000 I2.597861 J13.997666
G02 X63.067701 Y204.282275 Z-0.125000 I5.957511 J22.211043
G02 X61.860467 Y204.717243 Z-0.125000 I7.150195 J21.737819
G02 X60.526255 Y205.267460 Z-0.125000 I15.253486 J38.880707
G02 X59.211482 Y205.866976 Z-0.125000 I14.790785 J34.178459
G02 X57.788458 Y206.566883 Z-0.125000 I34.705711 J72.358943
G02 X56.380376 Y207.299564 Z-0.125000 I27.897948 J55.334260
G02 X54.889975 Y208.109118 Z-0.125000 I80.252862 J149.523255
G02 X53.409137 Y208.938285 Z-0.125000 I52.100395 J94.784835
G02 X51.878259 Y209.815539 Z-0.125000 I210.319259 J368.798654
G02 X50.352333 Y210.702807 Z-0.125000 I103.813452 J180.294262
G02 X48.814036 Y211.607649 Z-0.125000 I575.153099 J979.562339
G02 X47.277861 Y212.516730 Z-0.125000 I242.651832 J411.788178
G02 X45.770940 Y213.414378 Z-0.125000 I440.532820 J741.255617
G02 X44.265686 Y214.314649 Z-0.125000 I594.259935 J995.311025
G02 X42.833248 Y215.178546 Z-0.125000 I146.970503 J245.313172
G02 X41.404857 Y216.048042 Z-0.125000 I364.564296 J600.507426
G02 X40.092076 Y216.861971 Z-0.125000 I57.488417 J94.188316
G02 X38.789203 Y217.689475 Z-0.125000 I106.580472 J169.246319
G02 X37.640434 Y218.448649 Z-0.125000 I26.049323 J40.666111
G02 X36.512391 Y219.234498 Z-0.125000 I37.785027 J55.440826
G02 X35.567688 Y219.945506 Z-0.125000 I12.959824 J18.202595
G02 X34.672060 Y220.700533 Z-0.125000 I12.664665 J15.931782
G02 X33.953184 Y221.379744 Z-0.125000 I11.841459 J13.253027
G02 X33.278874 Y222.104680 Z-0.125000 I9.534621 J9.544854
G02 X32.754218 Y222.755962 Z-0.125000 I9.199656 J7.947964
G02 X32.279143 Y223.445694 Z-0.125000 I8.258032 J6.196464
G02 X31.937209 Y224.066437 Z-0.125000 I5.075097 J3.200145
G02 X31.675656 Y224.720735 Z-0.125000 I4.965103 J2.364209
G02 X31.531149 Y225.324550 Z-0.125000 I3.634369 J1.188990
G02 X31.489043 Y225.941906 Z-0.125000 I3.578613 J0.554187
G02 X31.553136 Y226.546699 Z-0.125000 I3.454189 J-0.060264
G02 X31.721136 Y227.134081 Z-0.125000 I3.535454 J-0.693479
G02 X32.006078 Y227.745733 Z-0.125000 I4.353655 J-1.655978
G02 X32.375013 Y228.316400 Z-0.125000 I4.537748 J-2.529052
G02 X32.878516 Y228.924760 Z-0.125000 I6.095013 J-4.531944
G02 X33.441670 Y229.483434 Z-0.125000 I6.347292 J-5.835016
G02 X34.145575 Y230.073048 Z-0.125000 I8.082719 J-8.934502
G02 X34.891427 Y230.612040 Z-0.125000 I8.443015 J-10.897799
G02 X35.770266 Y231.165140 Z-0.125000 I9.455642 J-14.049616
G02 X36.680104 Y231.667515 Z-0.125000 I9.911306 J-16.875023
G02 X37.704614 Y232.163407 Z-0.125000 I9.641068 J-18.612150
G02 X38.753069 Y232.606850 Z-0.125000 I9.956511 J-22.079515
G02 X39.890995 Y233.023339 Z-0.125000 I8.649088 J-21.868190
G02 X41.047330 Y233.384065 Z-0.125000 I8.520122 J-25.278138
G02 X42.264511 Y233.700340 Z-0.125000 I6.817640 J-23.737317
G02 X43.497158 Y233.957629 Z-0.125000 I6.212975 J-26.684391
G02 X44.757076 Y234.156323 Z-0.125000 I4.395485 J-23.777899
G02 X46.022561 Y234.289707 Z-0.125000 I3.297355 J-25.213811
G02 X47.283045 Y234.356649 Z-0.125000 I1.872726 J-23.361919
G02 X48.540573 Y234.355237 Z-0.125000 I0.602855 J-23.075200
G02 X49.776176 Y234.287482 Z-0.125000 I-0.664389 J-23.416237
G02 X51.004857 Y234.153199 Z-0.125000 I-1.804978 J-22.203747
G02 X52.207336 Y233.956338 Z-0.125000 I-3.232429 J-23.515488
G02 X53.396670 Y233.696140 Z-0.125000 I-4.145469 J-21.796692
G02 X54.560681 Y233.377533 Z-0.125000 I-5.959326 J-24.057682
G02 X55.706591 Y233.000633 Z-0.125000 I-6.604869 J-22.011568
G02 X56.830993 Y232.568938 Z-0.125000 I-9.001075 J-25.124603
G02 X57.933855 Y232.085052 Z-0.125000 I-9.394993 J-22.911603
G02 X59.019740 Y231.549077 Z-0.125000 I-12.389823 J-26.469737
G02 X60.081957 Y230.967035 Z-0.125000 I-12.667845 J-24.378870
G02 X61.130605 Y230.334768 Z-0.125000 I-15.886606 J-27.534531
G02 X62.154122 Y229.661609 Z-0.125000 I-16.379181 J-26.018765
G02 X63.165039 Y228.939558 Z-0.125000 I-18.963237 J-27.618402
G02 X64.149179 Y228.180218 Z-0.125000 I-20.140482 J-27.120429
G02 X65.118386 Y227.373311 Z-0.125000 I-21.082842 J-26.308952
G02 X66.058200 Y226.531011 Z-0.125000 I-23.242808 J-26.879079
G02 X66.977037 Y225.643251 Z-0.125000 I-22.065000 J-23.756792
G02 X67.862365 Y224.720662 Z-0.125000 I-25.036042 J-24.910986
G02 X68.717067 Y223.756562 Z-0.125000 I-22.130979 J-20.480658
G02 X69.527782 Y222.760234 Z-0.125000 I-23.405771 J-19.873341
G02 X70.304716 Y221.724083 Z-0.125000 I-27.266074 J-21.254201
G02 X71.042836 Y220.658624 Z-0.125000 I-27.959197 J-20.157731
G02 X71.748479 Y219.551910 Z-0.125000 I-28.102543 J-18.696569
G02 X72.418526 Y218.413620 Z-0.125000 I-34.932158 J-21.328938
G02 X73.040112 Y217.244122 Z-0.125000 I-21.054093 J-11.940153
G02 X73.603244 Y216.043720 Z-0.125000 I-26.356315 J-13.096553
G02 X74.091147 Y214.837374 Z-0.125000 I-18.730788 J-8.277447
G02 X74.505190 Y213.602710 Z-0.125000 I-21.079090 J-7.755595
G02 X74.824587 Y212.394059 Z-0.125000 I-16.519704 J-5.012012
G02 X75.056345 Y211.165237 Z-0.125000 I-17.073516 J-3.856363
G02 X75.184433 Y209.996966 Z-0.125000 I-14.009869 J-2.127184
G02 X75.213195 Y208.822423 Z-0.125000 I-13.559134 J-0.919658
G02 X75.140261 Y207.739851 Z-0.125000 I-11.185158 J0.209814
G02 X74.959120 Y206.671300 Z-0.125000 I-10.328670 J1.201295
G02 X74.686620 Y205.716709 Z-0.125000 I-8.355670 J1.869035
G02 X74.302187 Y204.803812 Z-0.125000 I-7.484904 J2.614606
G02 X73.838198 Y204.012442 Z-0.125000 I-5.940032 J2.950999
G02 X73.268892 Y203.296684 Z-0.125000 I-5.217756 J3.565853
G02 X72.622540 Y202.696428 Z-0.125000 I-4.162355 J3.833878
G02 X71.893182 Y202.204396 Z-0.125000 I-3.555997 J4.484597
G02 X71.072369 Y201.819314 Z-0.125000 I-2.877602 J5.066356
G02 X70.203969 Y201.561204 Z-0.125000 I-2.226643 J5.901555
G02 X69.218920 Y201.412261 Z-0.125000 I-1.602954 J7.269435
G02 X68.222216 Y201.388802 Z-0.125000 I-0.695022 J8.344190
G02 X67.087135 Y201.487368 Z-0.125000 I0.405964 J11.260075
G02 X65.964403 Y201.695162 Z-0.125000 I1.705169 J12.350236
G02 X64.694016 Y202.037002 Z-0.125000 I4.383660 J18.822558
G02 X63.446802 Y202.464308 Z-0.125000 I5.814258 J19.004382
G02 X62.056740 Y203.026386 Z-0.125000 I12.682589 J33.364914
G02 X60.690616 Y203.649877 Z-0.125000 I12.927457 J30.133634
G02 X59.197590 Y204.395006 Z-0.125000 I30.700511 J63.383448
G02 X57.723456 Y205.180862 Z-0.125000 I25.423485 J49.465707
G02 X56.147038 Y206.063736 Z-0.125000 I76.186826 J137.884443
G02 X54.582618 Y206.970581 Z-0.125000 I49.185110 J86.653243
G02 X52.948182 Y207.942225 Z-0.125000 I249.221495 J421.084601
G02 X51.319391 Y208.925197 Z-0.125000 I103.969063 J174.118441
G03 X49.659606 Y209.937485 Z-0.125000 I-29780.509974 J-48827.344139
G02 X48.001033 Y210.952748 Z-0.125000 I307.443087 J504.112958
G03 X46.355909 Y211.962640 Z-0.125000 I-1319.369765 J-2147.422762
G03 X44.710226 Y212.971740 Z-0.125000 I-4249.268766 J-6927.998235
G02 X43.125853 Y213.944923 Z-0.125000 I547.871471 J893.728942
G03 X41.542271 Y214.918573 Z-0.125000 I-1085.392291 J-1763.549331
G02 X40.068549 Y215.832257 Z-0.125000 I108.742050 J177.040322
G02 X38.600630 Y216.753259 Z-0.125000 I389.631998 J622.636723
G02 X37.288215 Y217.597983 Z-0.125000 I40.052951 J63.670556
G02 X35.991441 Y218.462964 Z-0.125000 I71.627944 J108.788719
G02 X34.888024 Y219.243184 Z-0.125000 I17.814972 J26.364974
G02 X33.823720 Y220.062540 Z-0.125000 I20.605763 J27.866820
G02 X32.963598 Y220.795778 Z-0.125000 I11.598690 J14.476888
G02 X32.161707 Y221.581878 Z-0.125000 I9.660027 J10.656130
G02 X31.533921 Y222.283745 Z-0.125000 I12.898629 J12.168882
G02 X30.946502 Y223.026946 Z-0.125000 I10.525024 J8.922645
G02 X30.509686 Y223.690390 Z-0.125000 I6.123413 J4.507209
G02 X30.149426 Y224.393120 Z-0.125000 I6.056615 J3.548688
G02 X29.924077 Y225.031305 Z-0.125000 I3.969785 J1.760645
G02 X29.804825 Y225.693489 Z-0.125000 I3.907584 J1.045540
G02 X29.803229 Y226.330730 Z-0.125000 I3.437330 J0.327235
G02 X29.918007 Y226.959447 Z-0.125000 I3.515034 J-0.316867
G02 X30.156674 Y227.611561 Z-0.125000 I4.206321 J-1.169744
G02 X30.493900 Y228.225260 Z-0.125000 I4.422764 J-2.030794
G02 X30.976744 Y228.886448 Z-0.125000 I6.108312 J-3.953798
G02 X31.529985 Y229.496478 Z-0.125000 I6.423977 J-5.270069
G02 X32.240054 Y230.151102 Z-0.125000 I8.572709 J-8.586380
G02 X32.999039 Y230.752825 Z-0.125000 I9.060065 J-10.648403
G02 X33.909353 Y231.381633 Z-0.125000 I10.531238 J-14.272571
G02 X34.855714 Y231.957436 Z-0.125000 I11.253467 J-17.430018
G02 X35.934728 Y232.536524 Z-0.125000 I11.127019 J-19.438156
G02 X37.042078 Y233.060492 Z-0.125000 I11.812324 J-23.531964
G02 X38.254348 Y233.562680 Z-0.125000 I10.277339 J-23.094963
G02 X39.489270 Y234.005490 Z-0.125000 I10.462579 J-27.234989
G02 X40.796075 Y234.404057 Z-0.125000 I8.383363 J-25.145392
G02 X42.121206 Y234.738418 Z-0.125000 I7.901098 J-28.520354
G02 X43.481273 Y235.010714 Z-0.125000 I5.820940 J-25.541724
G02 X44.853490 Y235.212987 Z-0.125000 I4.768952 J-27.596800
G02 X46.220871 Y235.341498 Z-0.125000 I2.987990 J-24.453884
G02 X47.586033 Y235.393018 Z-0.125000 I1.598677 J-24.248639
G02 X48.920972 Y235.369340 Z-0.125000 I0.234621 J-24.415318
G02 X50.250189 Y235.270556 Z-0.125000 I-1.032157 J-22.880731
G02 X51.543225 Y235.101408 Z-0.125000 I-2.509166 J-24.207804
G02 X52.823389 Y234.860584 Z-0.125000 I-3.500080 J-22.128549
G02 X54.069167 Y234.555052 Z-0.125000 I-5.370223 J-24.589117
G02 X55.296077 Y234.183642 Z-0.125000 I-6.027504 J-22.123355
G02 X56.494732 Y233.752371 Z-0.125000 I-8.587135 J-25.748034
G02 X57.670486 Y233.262654 Z-0.125000 I-8.895565 J-23.013546
G02 X58.825536 Y232.716547 Z-0.125000 I-12.313668 J-27.538691
G02 X59.955508 Y232.119777 Z-0.125000 I-12.369117 J-24.788879
G02 X61.071351 Y231.468736 Z-0.125000 I-16.392239 J-29.377008
G02 X62.161052 Y230.773819 Z-0.125000 I-16.548045 J-27.150872
G02 X63.240493 Y230.025698 Z-0.125000 I-20.191194 J-30.286033
G02 X64.292754 Y229.238509 Z-0.125000 I-21.114059 J-29.320739
G02 X65.334775 Y228.398602 Z-0.125000 I-22.879063 J-29.451026
G02 X66.347512 Y227.522109 Z-0.125000 I-25.191151 J-30.130199
G02 X67.345508 Y226.593588 Z-0.125000 I-24.073853 J-26.875761
G02 X68.310275 Y225.628950 Z-0.125000 I-27.730244 J-28.698690
G02 X69.251136 Y224.614380 Z-0.125000 I-24.093610 J-23.286746
G02 X70.150310 Y223.564279 Z-0.125000 I-27.256656 J-24.249178
G02 X71.017039 Y222.466699 Z-0.125000 I-25.992416 J-21.416526
G02 X71.834501 Y221.338059 Z-0.125000 I-26.709803 J-20.205968
G02 X72.622508 Y220.157839 Z-0.125000 I-33.648597 J-23.319619
G02 X73.378457 Y218.943155 Z-0.125000 I-40.979025 J-26.345543
G02 X74.094153 Y217.680424 Z-0.125000 I-23.585185 J-14.201900
G02 X74.751173 Y216.382851 Z-0.125000 I-31.216959 J-16.621683
G02 X75.336195 Y215.061299 Z-0.125000 I-20.745432 J-9.973818
G02 X75.842977 Y213.706365 Z-0.125000 I-24.437090 J-9.912366
G02 X76.251401 Y212.362153 Z-0.125000 I-18.714906 J-6.420476
G02 X76.565430 Y210.992167 Z-0.125000 I-19.902252 J-5.282985
G02 X76.766544 Y209.672873 Z-0.125000 I-16.416459 J-3.177517
G02 X76.860201 Y208.341805 Z-0.125000 I-16.131414 J-1.803865
G02 X76.839792 Y207.100348 Z-0.125000 I-13.622212 J-0.396951
G02 X76.702342 Y205.867425 Z-0.125000 I-12.634598 J0.784417
G02 X76.461197 Y204.754762 Z-0.125000 I-10.532116 J1.700136
G02 X76.098161 Y203.677868 Z-0.125000 I-9.400485 J2.569397
G02 X75.647231 Y202.737213 Z-0.125000 I-7.619284 J3.074111
G02 X75.078106 Y201.866513 Z-0.125000 I-6.640609 J3.719222
G02 X74.431734 Y201.131173 Z-0.125000 I-5.297489 J4.004797
G02 X73.685356 Y200.502288 Z-0.125000 I-4.516266 J4.602678
G02 X72.856000 Y199.998382 Z-0.125000 I-3.620068 J5.023654
G02 X71.960940 Y199.628077 Z-0.125000 I-2.903040 J5.750022
G02 X70.960061 Y199.378417 Z-0.125000 I-2.217645 J6.759386
G02 X69.934545 Y199.269174 Z-0.125000 I-1.342201 J7.731772
G02 X68.776228 Y199.290141 Z-0.125000 I-0.400051 J9.905140
G02 X67.626200 Y199.439092 Z-0.125000 I0.849400 J11.072160
G02 X66.324321 Y199.734051 Z-0.125000 I2.878395 J15.725154
G02 X65.046639 Y200.134616 Z-0.125000 I4.463108 J16.473950
G02 X63.613025 Y200.688944 Z-0.125000 I9.974834 J27.928097
G02 X62.208145 Y201.319920 Z-0.125000 I10.871144 J26.084299
G02 X60.658803 Y202.095258 Z-0.125000 I25.761575 J53.414500
G02 X59.133352 Y202.921640 Z-0.125000 I22.353966 J43.085219
G02 X57.485640 Y203.868022 Z-0.125000 I66.666438 J117.978014
G02 X55.853434 Y204.844538 Z-0.125000 I44.437360 J76.127558
G02 X54.130199 Y205.906163 Z-0.125000 I239.791173 J391.159678
G02 X52.414136 Y206.981789 Z-0.125000 I96.259856 J155.480505
G03 X50.646426 Y208.102258 Z-0.125000 I-1146.447505 J-1806.740715
G02 X48.879554 Y209.225436 Z-0.125000 I312.057981 J492.850084
G03 X47.107343 Y210.352819 Z-0.125000 I-384.797842 J-602.933295
G03 X45.332599 Y211.476642 Z-0.125000 I-921.995465 J-1454.054269
G03 X43.603817 Y212.567874 Z-0.125000 I-657.318424 J-1039.440864
G01 X40.240885 Y214.679050 Z-0.125000
G03 X38.610672 Y215.704125 Z-0.125000 I-535.243914 J-849.408724
G02 X37.132373 Y216.645788 Z-0.125000 I68.407546 J109.022856
G02 X35.664297 Y217.600060 Z-0.125000 I197.845586 J305.977224
G02 X34.394418 Y218.459399 Z-0.125000 I25.992917 J39.778690
G02 X33.152973 Y219.350504 Z-0.125000 I38.090593 J54.376292
G02 X32.138242 Y220.144166 Z-0.125000 I12.861041 J17.488927
G02 X31.188334 Y220.992947 Z-0.125000 I11.373956 J13.685026
G02 X30.439773 Y221.746192 Z-0.125000 I15.662307 J16.313489
G02 X29.729497 Y222.545479 Z-0.125000 I12.013854 J11.391198
G02 X29.189843 Y223.253730 Z-0.125000 I7.942041 J6.611170
G02 X28.717959 Y224.004786 Z-0.125000 I7.741077 J5.387449
G02 X28.400568 Y224.676261 Z-0.125000 I4.472197 J2.524652
G02 X28.188887 Y225.381817 Z-0.125000 I4.425172 J1.712178
G02 X28.109580 Y226.045690 Z-0.125000 I3.448431 J0.748625
G02 X28.157207 Y226.712502 Z-0.125000 I3.510204 J0.084393
G02 X28.335198 Y227.396693 Z-0.125000 I3.972484 J-0.668188
G02 X28.627704 Y228.047623 Z-0.125000 I4.208253 J-1.499861
G02 X29.075043 Y228.754556 Z-0.125000 I5.926670 J-3.255325
G02 X29.605342 Y229.409848 Z-0.125000 I6.295884 J-4.552768
G02 X30.308127 Y230.125017 Z-0.125000 I8.854577 J-7.998350
G02 X31.067654 Y230.785445 Z-0.125000 I9.451867 J-10.103180
G02 X31.997818 Y231.488911 Z-0.125000 I11.512026 J-14.255189
G02 X32.969347 Y232.137640 Z-0.125000 I12.525671 J-17.706447
G02 X34.093529 Y232.802835 Z-0.125000 I12.650555 J-20.096962
G02 X35.250618 Y233.410895 Z-0.125000 I13.823172 J-24.899411
G02 X36.530881 Y234.005489 Z-0.125000 I12.026042 J-24.218531
G02 X37.838370 Y234.537685 Z-0.125000 I12.677746 J-29.274236
G02 X39.231959 Y235.028124 Z-0.125000 I10.110873 J-26.505035
G02 X40.647581 Y235.449543 Z-0.125000 I9.865304 J-30.550901
G02 X42.108124 Y235.806463 Z-0.125000 I7.423779 J-27.211876
G02 X43.586946 Y236.088445 Z-0.125000 I6.468682 J-29.905535
G02 X45.063617 Y236.289534 Z-0.125000 I4.268997 J-25.826462
G02 X46.541302 Y236.405611 Z-0.125000 I2.775827 J-25.873033
G02 X47.981433 Y236.436581 Z-0.125000 I1.265028 J-25.326175
G02 X49.416761 Y236.382995 Z-0.125000 I-0.163336 J-23.624805
G02 X50.803988 Y236.249896 Z-0.125000 I-1.688151 J-24.890657
G02 X52.179079 Y236.035954 Z-0.125000 I-2.788576 J-22.449310
G02 X53.508294 Y235.750044 Z-0.125000 I-4.676577 J-24.974476
G02 X54.818052 Y235.389696 Z-0.125000 I-5.378339 J-22.109173
G02 X56.090396 Y234.963909 Z-0.125000 I-8.017828 J-26.072936
G02 X57.338389 Y234.472461 Z-0.125000 I-8.272763 J-22.838341
G02 X58.559892 Y233.920198 Z-0.125000 I-12.019494 J-28.211872
G02 X59.754678 Y233.311938 Z-0.125000 I-11.852690 J-24.759441
G02 X60.933207 Y232.645585 Z-0.125000 I-16.691830 J-30.896964
G02 X62.084404 Y231.932019 Z-0.125000 I-16.404943 J-27.751463
G02 X63.226695 Y231.161484 Z-0.125000 I-21.382191 J-32.930331
G02 X64.341415 Y230.350202 Z-0.125000 I-21.798792 J-31.123520
G02 X65.450253 Y229.481863 Z-0.125000 I-24.865250 J-32.894189
G02 X66.530211 Y228.576231 Z-0.125000 I-27.078918 J-33.388097
G02 X67.602027 Y227.612934 Z-0.125000 I-26.362077 J-30.409781
G02 X68.641468 Y226.612941 Z-0.125000 I-30.673786 J-32.924060
G02 X69.664777 Y225.555393 Z-0.125000 I-26.236527 J-26.410956
G02 X70.648932 Y224.460132 Z-0.125000 I-31.407821 J-29.211526
G02 X71.604665 Y223.309351 Z-0.125000 I-25.931844 J-22.508864
G02 X72.505184 Y222.124896 Z-0.125000 I-27.436004 J-21.793632
G02 X73.378879 Y220.879722 Z-0.125000 I-36.243122 J-26.359652
G02 X74.218150 Y219.598653 Z-0.125000 I-42.584412 J-28.813903
G02 X75.025400 Y218.253823 Z-0.125000 I-27.070953 J-17.164367
G02 X75.777586 Y216.869911 Z-0.125000 I-37.459142 J-21.256211
G02 X76.464779 Y215.441549 Z-0.125000 I-22.575843 J-11.740861
G02 X77.070250 Y213.974663 Z-0.125000 I-28.103698 J-12.458442
G02 X77.576229 Y212.499648 Z-0.125000 I-20.697829 J-7.924344
G02 X77.981163 Y210.992732 Z-0.125000 I-22.793834 J-6.932951
G02 X78.265097 Y209.522545 Z-0.125000 I-18.705024 J-4.374978
G02 X78.432931 Y208.034576 Z-0.125000 I-18.753904 J-2.868775
G02 X78.474158 Y206.629718 Z-0.125000 I-16.113932 J-1.175908
G02 X78.388839 Y205.227774 Z-0.125000 I-15.064841 J0.213241
G02 X78.186117 Y203.948580 Z-0.125000 I-12.944889 J1.395798
G02 X77.851419 Y202.699432 Z-0.125000 I-11.539897 J2.422597
G02 X77.417884 Y201.598223 Z-0.125000 I-9.634417 J3.157027
G02 X76.854260 Y200.560953 Z-0.125000 I-8.338314 J3.859048
G02 X76.209618 Y199.677914 Z-0.125000 I-6.751370 J4.251855
G02 X75.449298 Y198.897151 Z-0.125000 I-5.720856 J4.810480
G02 X74.612217 Y198.261564 Z-0.125000 I-4.576793 J5.158710
G02 X73.690723 Y197.761932 Z-0.125000 I-3.728185 J5.776462
G02 X72.676197 Y197.397410 Z-0.125000 I-2.913927 J6.515888
G02 X71.620505 Y197.184893 Z-0.125000 I-2.028354 J7.347633
G02 X70.443394 Y197.110737 Z-0.125000 I-1.157853 J8.999572
G02 X69.266805 Y197.181696 Z-0.125000 I0.020374 J10.127913
G02 X67.941344 Y197.407458 Z-0.125000 I1.581896 J13.291176
G02 X66.639587 Y197.760278 Z-0.125000 I3.205050 J14.403179
G02 X65.173668 Y198.283376 Z-0.125000 I7.346159 J22.902286
G02 X63.740599 Y198.902325 Z-0.125000 I8.777838 J22.292075
G02 X62.147468 Y199.688876 Z-0.125000 I20.669871 J43.872764
G02 X60.584245 Y200.539599 Z-0.125000 I19.032795 J36.834790
G02 X58.879546 Y201.535596 Z-0.125000 I54.987417 J96.070557
G02 X57.195107 Y202.570036 Z-0.125000 I38.803158 J65.074079
G02 X55.398326 Y203.713334 Z-0.125000 I195.753528 J309.625328
G02 X53.611327 Y204.874942 Z-0.125000 I84.454817 J131.879285
G03 X51.750690 Y206.100878 Z-0.125000 I-1004.027274 J-1521.815257
G02 X49.891296 Y207.330521 Z-0.125000 I265.629001 J403.681646
G03 X48.005430 Y208.577888 Z-0.125000 I-281.114187 J-422.952521
G03 X46.115535 Y209.819892 Z-0.125000 I-848.481618 J-1289.033908
G03 X44.252929 Y211.036139 Z-0.125000 I-276.659095 J-421.651361
G03 X42.384816 Y212.243712 Z-0.125000 I-251.061391 J-386.342661
G03 X40.601707 Y213.389121 Z-0.125000 I-1285.493277 J-1999.224361
G03 X38.815732 Y214.528805 Z-0.125000 I-223.446026 J-348.188538
G02 X37.173024 Y215.579582 Z-0.125000 I143.182425 J225.650309
G03 X35.534914 Y216.634748 Z-0.125000 I-1101.817072 J-1708.735827
G02 X34.094304 Y217.585188 Z-0.125000 I40.836080 J63.463458
G02 X32.672645 Y218.558323 Z-0.125000 I85.850142 J126.944037
G02 X31.491628 Y219.421830 Z-0.125000 I16.365041 J23.621822
G02 X30.370343 Y220.335873 Z-0.125000 I16.278714 J21.114397
G02 X29.480204 Y221.142541 Z-0.125000 I15.565483 J18.070592
G02 X28.638017 Y222.002739 Z-0.125000 I12.025708 J12.616295
G02 X27.989811 Y222.759717 Z-0.125000 I11.450476 J10.461143
G02 X27.394992 Y223.560502 Z-0.125000 I10.479029 J8.405067
G02 X26.974585 Y224.266438 Z-0.125000 I5.245424 J3.601971
G02 X26.654912 Y225.014619 Z-0.125000 I5.274241 J2.695887
G02 X26.486464 Y225.700877 Z-0.125000 I3.541545 J1.233105
G02 X26.452021 Y226.403422 Z-0.125000 I3.579508 J0.527609
G02 X26.555376 Y227.110491 Z-0.125000 I3.693284 J-0.178776
G02 X26.789899 Y227.792670 Z-0.125000 I3.930838 J-0.969961
G02 X27.186106 Y228.536225 Z-0.125000 I5.557896 J-2.484211
G02 X27.680060 Y229.229087 Z-0.125000 I5.965701 J-3.730551
G02 X28.360995 Y229.997938 Z-0.125000 I8.880534 J-7.179110
G02 X29.107632 Y230.710692 Z-0.125000 I9.554712 J-9.261487
G02 X30.044634 Y231.485257 Z-0.125000 I12.339269 J-13.972956
G02 X31.028580 Y232.203922 Z-0.125000 I13.636771 J-17.637594
G02 X32.186846 Y232.955955 Z-0.125000 I14.180486 J-20.572535
G02 X33.382608 Y233.649609 Z-0.125000 I15.961854 J-26.138461
G02 X34.722541 Y234.341893 Z-0.125000 I13.877810 J-25.217977
G02 X36.094473 Y234.969530 Z-0.125000 I15.195990 J-31.403218
G02 X37.570242 Y235.560967 Z-0.125000 I11.992507 J-27.787084
G02 X39.072785 Y236.079293 Z-0.125000 I12.159573 J-32.811662
G02 X40.632849 Y236.532180 Z-0.125000 I9.184908 J-28.725907
G02 X42.216084 Y236.904593 Z-0.125000 I8.367085 J-32.019287
G02 X43.803670 Y237.189849 Z-0.125000 I5.767931 J-27.540866
G02 X45.399157 Y237.383569 Z-0.125000 I4.220729 J-28.095002
G02 X46.952165 Y237.481530 Z-0.125000 I2.434048 J-26.228478
G02 X48.500694 Y237.484398 Z-0.125000 I0.819619 J-24.491040
G02 X49.987440 Y237.396795 Z-0.125000 I-0.761177 J-25.578172
G02 X51.463382 Y237.218405 Z-0.125000 I-2.010841 J-22.831971
G02 X52.879369 Y236.959505 Z-0.125000 I-3.893677 J-25.297171
G02 X54.275627 Y236.616549 Z-0.125000 I-4.676547 J-22.053095
G02 X55.622545 Y236.201811 Z-0.125000 I-7.314993 J-26.150932
G02 X56.943632 Y235.713025 Z-0.125000 I-7.563163 J-22.471339
G02 X58.229963 Y235.158674 Z-0.125000 I-11.498370 J-28.450744
G02 X59.487656 Y234.541969 Z-0.125000 I-11.154498 J-24.339028
G02 X60.724993 Y233.863387 Z-0.125000 I-16.713511 J-31.943054
G02 X61.933475 Y233.133625 Z-0.125000 I-15.938944 J-27.760307
G02 X63.133006 Y232.343532 Z-0.125000 I-22.453727 J-35.395193
G02 X64.304414 Y231.510906 Z-0.125000 I-22.098449 J-32.330284
G02 X65.473528 Y230.617668 Z-0.125000 I-27.087927 J-36.665726
G02 X66.614319 Y229.686827 Z-0.125000 I-28.807145 J-36.469028
G02 X67.753522 Y228.693750 Z-0.125000 I-29.097173 J-34.528616
G02 X68.861712 Y227.664163 Z-0.125000 I-33.911406 J-37.611560
G02 X69.962277 Y226.570522 Z-0.125000 I-28.747674 J-30.030233
G02 X71.025796 Y225.438557 Z-0.125000 I-35.610725 J-34.523076
G02 X72.068815 Y224.242498 Z-0.125000 I-27.394210 J-24.941840
G02 X73.058399 Y223.009243 Z-0.125000 I-31.082915 J-25.955095
G02 X74.022760 Y221.707819 Z-0.125000 I-33.818944 J-26.068018
G02 X74.940579 Y220.370405 Z-0.125000 I-38.182643 J-27.186977
G02 X75.832892 Y218.956053 Z-0.125000 I-32.729025 J-21.637365
G02 X76.679036 Y217.498365 Z-0.125000 I-46.351428 J-27.880028
G02 X77.471608 Y215.974004 Z-0.125000 I-24.274318 J-13.589349
G02 X78.180427 Y214.406172 Z-0.125000 I-32.319338 J-15.555760
G02 X78.791993 Y212.808073 Z-0.125000 I-22.435332 J-9.501704
G02 X79.296364 Y211.171455 Z-0.125000 I-25.779532 J-8.840724
G02 X79.673457 Y209.553427 Z-0.125000 I-20.788143 J-5.697784
G02 X79.925495 Y207.910940 Z-0.125000 I-21.384358 J-4.121993
G02 X80.038624 Y206.340714 Z-0.125000 I-18.546132 J-2.125365
G02 X80.014930 Y204.767388 Z-0.125000 I-17.559009 J-0.522406
G02 X79.859049 Y203.315256 Z-0.125000 I-15.489587 J0.928317
G02 X79.560524 Y201.887541 Z-0.125000 I-13.835300 J2.147794
G02 X79.149919 Y200.616059 Z-0.125000 I-11.939163 J3.153527
G02 X78.597692 Y199.402627 Z-0.125000 I-10.276862 J3.944570
G02 X77.957176 Y198.360280 Z-0.125000 I-8.538237 J4.528730
G02 X77.186660 Y197.414817 Z-0.125000 I-7.180396 J5.065045
G02 X76.342013 Y196.635474 Z-0.125000 I-5.800055 J5.438678
G02 X75.394842 Y195.990915 Z-0.125000 I-4.742553 J5.950906
G02 X74.366853 Y195.498995 Z-0.125000 I-3.750343 J6.517197
G02 X73.279111 Y195.166405 Z-0.125000 I-2.795084 J7.196344
G02 X72.084941 Y194.982013 Z-0.125000 I-1.915823 J8.448285
G02 X70.878524 Y194.958061 Z-0.125000 I-0.791412 J9.467494
G02 X69.533663 Y195.094969 Z-0.125000 I0.511501 J11.698360
G02 X68.210505 Y195.377945 Z-0.125000 I2.084317 J12.980918
G02 X66.722050 Y195.843119 Z-0.125000 I4.962693 J18.493459
G02 X65.268648 Y196.428017 Z-0.125000 I6.774619 J18.932344
G02 X63.642577 Y197.202994 Z-0.125000 I15.900946 J35.457093
G02 X62.053175 Y198.058621 Z-0.125000 I15.712737 J31.091827
G02 X60.304613 Y199.086256 Z-0.125000 I43.507447 J76.031055
G02 X58.582429 Y200.163171 Z-0.125000 I32.953310 J54.613902
G02 X56.727033 Y201.375735 Z-0.125000 I146.786407 J226.629843
G02 X54.885318 Y202.612843 Z-0.125000 I71.597520 J108.578596
G03 X52.947386 Y203.937668 Z-0.125000 I-1814.698285 J-2652.429814
G02 X51.012113 Y205.268705 Z-0.125000 I207.862191 J304.295377
G03 X49.027610 Y206.635153 Z-0.125000 I-258.177000 J-372.828248
G03 X47.038302 Y207.995652 Z-0.125000 I-1342.946829 J-1961.508450
G03 X45.054944 Y209.341229 Z-0.125000 I-209.210709 J-306.238766
G03 X43.063506 Y210.674862 Z-0.125000 I-240.344974 J-356.739603
G03 X41.138798 Y211.950046 Z-0.125000 I-295.246525 J-443.542313
G03 X39.207112 Y213.213756 Z-0.125000 I-174.161155 J-264.111567
G02 X37.405270 Y214.385591 Z-0.125000 I616.210422 J949.471705
G03 X35.602419 Y215.553701 Z-0.125000 I-220.375523 J-338.150100
G02 X33.990665 Y216.608540 Z-0.125000 I71.889876 J111.603815
G02 X32.390267 Y217.676063 Z-0.125000 I356.342519 J535.951381
G02 X31.034182 Y218.621588 Z-0.125000 I24.041033 J35.925170
G02 X29.721366 Y219.606757 Z-0.125000 I30.572390 J42.107463
G02 X28.669475 Y220.472016 Z-0.125000 I14.486346 J18.683015
G02 X27.684448 Y221.398857 Z-0.125000 I11.759287 J13.484359
G02 X26.920364 Y222.209125 Z-0.125000 I18.077268 J17.812306
G02 X26.193129 Y223.063148 Z-0.125000 I14.489705 J13.075210
G02 X25.659758 Y223.807325 Z-0.125000 I6.518504 J5.235209
G02 X25.217107 Y224.598461 Z-0.125000 I6.715342 J4.276728
G02 X24.948432 Y225.305468 Z-0.125000 I3.783195 J1.842231
G02 X24.815675 Y226.042575 Z-0.125000 I3.802489 J1.065357
G02 X24.831488 Y226.763604 Z-0.125000 I3.423933 J0.285600
G02 X24.994456 Y227.471702 Z-0.125000 I3.641066 J-0.465188
G02 X25.323472 Y228.240929 Z-0.125000 I5.033710 J-1.698050
G02 X25.767578 Y228.962515 Z-0.125000 I5.464545 J-2.865746
G02 X26.411162 Y229.775797 Z-0.125000 I8.610864 J-6.152854
G02 X27.130975 Y230.532170 Z-0.125000 I9.321028 J-8.149785
G02 X28.060672 Y231.371515 Z-0.125000 I12.945594 J-13.404561
G02 X29.043188 Y232.154347 Z-0.125000 I14.469370 J-17.152235
G02 X30.222831 Y232.991260 Z-0.125000 I15.682198 J-20.854475
G02 X31.444414 Y233.769412 Z-0.125000 I18.175172 J-27.184412
G02 X32.833585 Y234.562627 Z-0.125000 I15.820700 J-26.094023
G02 X34.259516 Y235.289898 Z-0.125000 I18.055648 J-33.639474
G02 X35.810631 Y235.990460 Z-0.125000 I14.015215 J-28.963652
G02 X37.394036 Y236.614749 Z-0.125000 I14.838124 J-35.314234
G02 X39.051063 Y237.175048 Z-0.125000 I11.098089 J-30.091089
G02 X40.735528 Y237.648974 Z-0.125000 I10.499694 J-34.088348
G02 X42.435249 Y238.030937 Z-0.125000 I7.507008 J-29.433074
G02 X44.152305 Y238.316102 Z-0.125000 I5.987789 J-30.742117
G02 X45.825528 Y238.494552 Z-0.125000 I3.757709 J-27.300108
G02 X47.495287 Y238.566676 Z-0.125000 I1.942511 J-25.607049
G02 X49.089014 Y238.535679 Z-0.125000 I0.281572 J-26.509540
G02 X50.673612 Y238.402986 Z-0.125000 I-1.156610 J-23.339785
G02 X52.181563 Y238.179577 Z-0.125000 I-3.030332 J-25.654819
G02 X53.669963 Y237.861421 Z-0.125000 I-3.933550 J-22.042579
G02 X55.094032 Y237.464073 Z-0.125000 I-6.505254 J-26.064956
G02 X56.490849 Y236.982980 Z-0.125000 I-6.798833 J-22.008217
G02 X57.841766 Y236.431011 Z-0.125000 I-10.765285 J-28.276661
G02 X59.161819 Y235.809033 Z-0.125000 I-10.319409 J-23.613141
G02 X60.455037 Y235.121212 Z-0.125000 I-16.397949 J-32.390494
G02 X61.717415 Y234.377272 Z-0.125000 I-15.170928 J-27.186307
G02 X62.968977 Y233.569845 Z-0.125000 I-23.279798 J-37.458865
G02 X64.191525 Y232.717675 Z-0.125000 I-21.924160 J-32.756059
G02 X65.414150 Y231.802002 Z-0.125000 I-29.551854 J-40.732319
G02 X66.608975 Y230.848623 Z-0.125000 I-30.205519 J-39.080514
G02 X67.808264 Y229.829541 Z-0.125000 I-32.498564 J-39.460622
G02 X68.978280 Y228.774876 Z-0.125000 I-37.453498 J-42.726179
G02 X70.149509 Y227.651007 Z-0.125000 I-31.875155 J-34.390604
G02 X71.286013 Y226.489519 Z-0.125000 I-40.337281 J-40.606388
G02 X72.412260 Y225.256044 Z-0.125000 I-29.751229 J-28.295808
G02 X73.490599 Y223.982572 Z-0.125000 I-36.843269 J-32.291110
G02 X74.546495 Y222.634156 Z-0.125000 I-31.184279 J-25.506900
G02 X75.542420 Y221.249193 Z-0.125000 I-34.755698 J-26.043338
G02 X76.518233 Y219.776493 Z-0.125000 I-39.084314 J-26.956976
G02 X77.455386 Y218.257907 Z-0.125000 I-55.104075 J-35.054400
G02 X78.352598 Y216.651122 Z-0.125000 I-26.331541 J-15.757143
G02 X79.167514 Y214.995770 Z-0.125000 I-37.539307 J-19.508549
G02 X79.891664 Y213.285190 Z-0.125000 I-23.930422 J-11.139178
G02 X80.503487 Y211.529118 Z-0.125000 I-28.939025 J-11.067093
G02 X80.984360 Y209.769387 Z-0.125000 I-22.610722 J-7.124293
G02 X81.331245 Y207.977712 Z-0.125000 I-24.010370 J-5.578051
G02 X81.527710 Y206.242882 Z-0.125000 I-20.816421 J-3.235947
G02 X81.576383 Y204.498273 Z-0.125000 I-20.051691 J-1.432402
G02 X81.477302 Y202.868986 Z-0.125000 I-18.057776 J0.280481
G02 X81.224069 Y201.258332 Z-0.125000 I-16.217971 J1.724611
G02 X80.843475 Y199.808523 Z-0.125000 I-14.456610 J3.020196
G02 X80.309504 Y198.411127 Z-0.125000 I-12.403204 J3.938772
G02 X79.676740 Y197.199041 Z-0.125000 I-10.642408 J4.784612
G02 X78.900570 Y196.078133 Z-0.125000 I-8.881667 J5.320906
G02 X78.048864 Y195.143774 Z-0.125000 I-7.323698 J5.820482
G02 X77.077713 Y194.340694 Z-0.125000 I-5.971192 J6.232126
G02 X76.035322 Y193.710094 Z-0.125000 I-4.784211 J6.731527
G02 X74.913900 Y193.241975 Z-0.125000 I-3.684763 J7.249892
G02 X73.702358 Y192.934654 Z-0.125000 I-2.729128 J8.217180
G02 X72.461757 Y192.799937 Z-0.125000 I-1.609085 J9.038334
G02 X71.098922 Y192.831281 Z-0.125000 I-0.433552 J10.792848
G02 X69.752218 Y193.023976 Z-0.125000 I1.045873 J12.111635
G02 X68.247125 Y193.405725 Z-0.125000 I3.039331 J15.140824
G02 X66.777507 Y193.933137 Z-0.125000 I5.010956 J16.274109
G02 X65.127816 Y194.669837 Z-0.125000 I11.627702 J28.253345
G02 X63.521227 Y195.508120 Z-0.125000 I12.562491 J26.034988
G02 X61.740103 Y196.545518 Z-0.125000 I33.364022 J59.330838
G02 X59.992837 Y197.646011 Z-0.125000 I27.308661 J45.295637
G02 X58.092644 Y198.911343 Z-0.125000 I106.695276 J162.287475
G02 X56.211521 Y200.209672 Z-0.125000 I59.362977 J88.021753
G02 X54.211719 Y201.622760 Z-0.125000 I2556.742294 J3620.421353
G02 X52.217240 Y203.046272 Z-0.125000 I158.899687 J224.742956
G03 X50.149883 Y204.527096 Z-0.125000 I-269.703390 J-374.345520
G02 X48.077882 Y206.002790 Z-0.125000 I13834.159664 J19426.534347
G03 X45.988609 Y207.478662 Z-0.125000 I-189.595454 J-266.178233
G03 X43.889367 Y208.940553 Z-0.125000 I-262.214322 J-374.295608
G03 X41.835617 Y210.351695 Z-0.125000 I-203.701496 J-294.263465
G03 X39.771264 Y211.746677 Z-0.125000 I-164.231924 J-240.812281
G03 X37.819146 Y213.050164 Z-0.125000 I-521.738861 J-779.249142
G03 X35.860703 Y214.342540 Z-0.125000 I-155.412780 J-233.379584
G02 X34.081475 Y215.515347 Z-0.125000 I158.765966 J242.794837
G03 X32.306273 Y216.690728 Z-0.125000 I-363.460312 J-547.013007
G02 X30.772179 Y217.732500 Z-0.125000 I38.320944 J58.081177
G02 X29.265254 Y218.801359 Z-0.125000 I74.878861 J107.164230
G02 X28.040251 Y219.736520 Z-0.125000 I16.074194 J22.326112
G02 X26.890224 Y220.733292 Z-0.125000 I14.037030 J17.357058
G02 X25.990214 Y221.599758 Z-0.125000 I23.369705 J25.175061
G02 X25.121975 Y222.513278 Z-0.125000 I16.988204 J17.015501
G02 X24.469003 Y223.302046 Z-0.125000 I8.993193 J8.109579
G02 X23.890114 Y224.138170 Z-0.125000 I9.287925 J7.048930
G02 X23.510105 Y224.867639 Z-0.125000 I4.264906 J2.685470
G02 X23.261455 Y225.639394 Z-0.125000 I4.305979 J1.813271
G02 X23.178201 Y226.367317 Z-0.125000 I3.225905 J0.737674
G02 X23.255354 Y227.097610 Z-0.125000 I3.399936 J0.010033
G02 X23.501227 Y227.880186 Z-0.125000 I4.412944 J-0.956568
G02 X23.882106 Y228.621213 Z-0.125000 I4.847300 J-2.023054
G02 X24.472054 Y229.467438 Z-0.125000 I8.030590 J-4.969795
G02 X25.150964 Y230.256657 Z-0.125000 I8.738770 J-6.830743
G02 X26.058364 Y231.151610 Z-0.125000 I13.250522 J-12.527322
G02 X27.024935 Y231.989907 Z-0.125000 I14.885694 J-16.187068
G02 X28.211928 Y232.906631 Z-0.125000 I17.120828 J-20.941575
G02 X29.445011 Y233.765115 Z-0.125000 I20.372910 J-27.947803
G02 X30.870935 Y234.659787 Z-0.125000 I17.843912 J-26.855877
G02 X32.338107 Y235.488373 Z-0.125000 I21.300202 J-36.002893
G02 X33.955176 Y236.304491 Z-0.125000 I16.166284 J-30.022046
G02 X35.610235 Y237.042206 Z-0.125000 I17.958829 J-38.065100
G02 X37.359661 Y237.721116 Z-0.125000 I13.176285 J-31.359432
G02 X39.141893 Y238.308448 Z-0.125000 I12.996228 J-36.438727
G02 X40.954479 Y238.800866 Z-0.125000 I9.446419 J-31.189926
G02 X42.793439 Y239.190956 Z-0.125000 I8.032353 J-33.336372
G02 X44.591754 Y239.463680 Z-0.125000 I5.281807 J-28.762374
G02 X46.390964 Y239.619779 Z-0.125000 I3.273704 J-27.285999
G02 X48.101688 Y239.658361 Z-0.125000 I1.474822 J-27.448212
G02 X49.804600 Y239.583258 Z-0.125000 I-0.206337 J-24.022351
G02 X51.411664 Y239.405141 Z-0.125000 I-2.084812 J-26.149300
G02 X53.000009 Y239.120586 Z-0.125000 I-3.149196 J-22.153550
G02 X54.505713 Y238.748010 Z-0.125000 I-5.617572 J-25.931308
G02 X55.982951 Y238.280614 Z-0.125000 I-6.007358 J-21.554811
G02 X57.399852 Y237.736226 Z-0.125000 I-9.856177 J-27.769209
G02 X58.783389 Y237.112624 Z-0.125000 I-9.401827 J-22.705691
G02 X60.130819 Y236.418806 Z-0.125000 I-15.710694 J-32.166271
G02 X61.444856 Y235.662600 Z-0.125000 I-14.156821 J-26.119656
G02 X62.744018 Y234.839690 Z-0.125000 I-23.676736 J-38.816445
G02 X64.012707 Y233.969040 Z-0.125000 I-21.233658 J-32.300810
G02 X65.282221 Y233.032422 Z-0.125000 I-32.150018 J-44.905547
G02 X66.524198 Y232.057908 Z-0.125000 I-31.030231 J-40.825408
G02 X67.775704 Y231.015249 Z-0.125000 I-36.845621 J-45.498309
G02 X68.999872 Y229.938529 Z-0.125000 I-41.196160 J-48.071896
G02 X70.233940 Y228.788952 Z-0.125000 I-36.018485 J-39.902922
G02 X71.436283 Y227.603546 Z-0.125000 I-46.249752 J-48.113014
G02 X72.639436 Y226.339879 Z-0.125000 I-32.703317 J-32.341848
G02 X73.800397 Y225.035350 Z-0.125000 I-43.872473 J-40.213012
