%
(Header)
(Generated by gcodetools from Inkscape.)
(Using default header. To add your own header create file "header" in the output dir.)
M3
(Header end.)
G21 (All units in mm)

(Start cutting path id: polyline2844)
(Change tool to Default tool)

G00 Z3.000000
G00 X40.811646 Y24.317695

G00 Z4.875000 (Fast pre-penetrate)
G01 Z-0.125000 F400.0(Penetrate)
G01 X40.778554 Y28.842083 Z-0.125000 F800.000000
G01 X41.007434 Y31.322650 Z-0.125000
G01 X43.206839 Y44.277182 Z-0.125000
G01 X43.749177 Y48.362017 Z-0.125000
G01 X44.148758 Y52.710743 Z-0.125000
G01 X44.356108 Y57.234710 Z-0.125000
G01 X44.342113 Y61.825609 Z-0.125000
G01 X44.099565 Y66.365209 Z-0.125000
G01 X43.642694 Y70.738883 Z-0.125000
G01 X43.004357 Y74.851801 Z-0.125000
G01 X41.373596 Y82.132208 Z-0.125000
G01 X39.540494 Y88.656233 Z-0.125000
G01 X38.345683 Y92.231353 Z-0.125000
G01 X34.798319 Y100.862856 Z-0.125000
G01 X27.769867 Y116.322060 Z-0.125000
G01 X25.593258 Y121.429180 Z-0.125000
G01 X23.756130 Y126.198082 Z-0.125000
G01 X22.364360 Y130.486054 Z-0.125000
G01 X21.476595 Y134.201263 Z-0.125000
G01 X21.100791 Y137.308840 Z-0.125000
G01 X21.196368 Y139.831017 Z-0.125000
G01 X21.682072 Y141.841747 Z-0.125000
G01 X22.449172 Y143.455049 Z-0.125000
G01 X26.307701 Y148.463456 Z-0.125000
G01 X27.125024 Y149.796391 Z-0.125000
G01 X27.790743 Y151.349782 Z-0.125000
G01 X28.292173 Y153.243357 Z-0.125000
G01 X28.635260 Y155.578591 Z-0.125000
G01 X28.945067 Y161.792341 Z-0.125000
G01 X29.258151 Y179.168102 Z-0.125000
G01 X29.988883 Y188.188373 Z-0.125000
G01 X30.595346 Y192.239883 Z-0.125000
G01 X31.351774 Y195.894760 Z-0.125000
G01 X33.096460 Y202.452859 Z-0.125000
G01 X33.801262 Y205.883724 Z-0.125000
G01 X34.149824 Y209.668534 Z-0.125000
G01 X34.048303 Y213.818897 Z-0.125000
G01 X33.475259 Y218.248925 Z-0.125000
G01 X32.468139 Y222.814595 Z-0.125000
G00 Z3.000000

(End cutting path id: polyline2844)


(Start cutting path id: polyline2120)
(Change tool to Default tool)

G00 Z3.000000
G00 X64.867248 Y178.572826

G00 Z4.875000 (Fast pre-penetrate)
G01 Z-0.125000 F400.0(Penetrate)
G01 X63.860830 Y183.564242 Z-0.125000 F800.000000
G01 X63.036065 Y189.250303 Z-0.125000
G01 X62.602082 Y194.660304 Z-0.125000
G01 X62.468592 Y204.801621 Z-0.125000
G01 X62.243971 Y209.991728 Z-0.125000
G01 X61.653375 Y215.422229 Z-0.125000
G01 X60.677147 Y220.996284 Z-0.125000
G01 X59.394153 Y226.518291 Z-0.125000
G01 X57.943408 Y231.753565 Z-0.125000
G00 Z3.000000

(End cutting path id: polyline2120)


(Start cutting path id: polyline2096)
(Change tool to Default tool)

G00 Z3.000000
G00 X77.187234 Y185.745392

G00 Z4.875000 (Fast pre-penetrate)
G01 Z-0.125000 F400.0(Penetrate)
G01 X76.903732 Y188.943210 Z-0.125000 F800.000000
G01 X76.713092 Y199.046989 Z-0.125000
G01 X76.469561 Y204.279268 Z-0.125000
G01 X75.877936 Y209.823835 Z-0.125000
G01 X74.922677 Y215.604585 Z-0.125000
G01 X73.682557 Y221.432982 Z-0.125000
G01 X72.293736 Y227.069148 Z-0.125000
G00 Z3.000000

(End cutting path id: polyline2096)


(Start cutting path id: polyline2084)
(Change tool to Default tool)

G00 Z3.000000
G00 X84.199257 Y188.302205

G00 Z4.875000 (Fast pre-penetrate)
G01 Z-0.125000 F400.0(Penetrate)
G01 X83.658931 Y200.469090 Z-0.125000 F800.000000
G01 X83.065527 Y206.039540 Z-0.125000
G01 X82.182770 Y211.873086 Z-0.125000
G01 X79.908523 Y223.548557 Z-0.125000
G00 Z3.000000

(End cutting path id: polyline2084)


(Start cutting path id: polyline2078)
(Change tool to Default tool)

G00 Z3.000000
G00 X87.946247 Y189.298279

G00 Z4.875000 (Fast pre-penetrate)
G01 Z-0.125000 F400.0(Penetrate)
G01 X87.403534 Y198.235049 Z-0.125000 F800.000000
G01 X86.805029 Y203.801100 Z-0.125000
G01 X85.986583 Y209.632025 Z-0.125000
G01 X84.035764 Y221.328512 Z-0.125000
G00 Z3.000000

(End cutting path id: polyline2078)


(Start cutting path id: polyline2076)
(Change tool to Default tool)

G00 Z3.000000
G00 X89.685551 Y189.682086

G00 Z4.875000 (Fast pre-penetrate)
G01 Z-0.125000 F400.0(Penetrate)
G01 X89.146769 Y197.164460 Z-0.125000 F800.000000
G01 X88.543864 Y202.722554 Z-0.125000
G01 X86.001560 Y220.218091 Z-0.125000
G00 Z3.000000

(End cutting path id: polyline2076)


(Start cutting path id: polyline2074)
(Change tool to Default tool)

G00 Z3.000000
G00 X91.312473 Y189.983609

G00 Z4.875000 (Fast pre-penetrate)
G01 Z-0.125000 F400.0(Penetrate)
G01 X90.185764 Y201.698631 Z-0.125000 F800.000000
G01 X87.888302 Y219.133928 Z-0.125000
G00 Z3.000000

(End cutting path id: polyline2074)


(Start cutting path id: polyline1964)
(Change tool to Default tool)

G00 Z3.000000
G00 X92.080790 Y190.125993

G00 Z4.875000 (Fast pre-penetrate)
G01 Z-0.125000 F400.0(Penetrate)
G01 X90.968591 Y201.213536 Z-0.125000 F800.000000
G01 X88.799189 Y218.608065 Z-0.125000
G00 Z3.000000

(End cutting path id: polyline1964)


(Start cutting path id: line1966)
(Change tool to Default tool)

G00 Z3.000000
G00 X92.818393 Y190.232466

G00 Z4.875000 (Fast pre-penetrate)
G01 Z-0.125000 F400.0(Penetrate)
G01 X89.687086 Y218.096197 Z-0.125000 F800.000000
G00 Z3.000000

(End cutting path id: line1966)


(Start cutting path id: line1968)
(Change tool to Default tool)

G00 Z3.000000
G00 X93.524997 Y190.325470

G00 Z4.875000 (Fast pre-penetrate)
G01 Z-0.125000 F400.0(Penetrate)
G01 X90.551125 Y217.600983 Z-0.125000 F800.000000
G00 Z3.000000

(End cutting path id: line1968)


(Start cutting path id: polyline1970)
(Change tool to Default tool)

G00 Z3.000000
G00 X94.204041 Y190.414972

G00 Z4.875000 (Fast pre-penetrate)
G01 Z-0.125000 F400.0(Penetrate)
G01 X91.882240 Y211.452911 Z-0.125000 F800.000000
G01 X91.390452 Y217.124696 Z-0.125000
G00 Z3.000000

(End cutting path id: polyline1970)


(Start cutting path id: polyline1972)
(Change tool to Default tool)

G00 Z3.000000
G00 X94.855765 Y190.500813

G00 Z4.875000 (Fast pre-penetrate)
G01 Z-0.125000 F400.0(Penetrate)
G01 X93.198091 Y205.233591 Z-0.125000 F800.000000
G01 X92.204498 Y216.669416 Z-0.125000
G00 Z3.000000

(End cutting path id: polyline1972)


(Start cutting path id: polyline1974)
(Change tool to Default tool)

G00 Z3.000000
G00 X95.480763 Y190.582536

G00 Z4.875000 (Fast pre-penetrate)
G01 Z-0.125000 F400.0(Penetrate)
G01 X93.868912 Y204.856618 Z-0.125000 F800.000000
G01 X92.992707 Y216.237352 Z-0.125000
G00 Z3.000000

(End cutting path id: polyline1974)


(Start cutting path id: polyline1976)
(Change tool to Default tool)

G00 Z3.000000
G00 X96.083247 Y190.629951

G00 Z4.875000 (Fast pre-penetrate)
G01 Z-0.125000 F400.0(Penetrate)
G01 X94.512772 Y204.509787 Z-0.125000 F800.000000
G01 X94.037413 Y210.245977 Z-0.125000
G01 X93.754612 Y215.830563 Z-0.125000
G00 Z3.000000

(End cutting path id: polyline1976)


(Start cutting path id: polyline1978)
(Change tool to Default tool)

G00 Z3.000000
G00 X96.660550 Y190.675399

G00 Z4.875000 (Fast pre-penetrate)
G01 Z-0.125000 F400.0(Penetrate)
G01 X95.129813 Y204.194830 Z-0.125000 F800.000000
G01 X94.702336 Y209.900737 Z-0.125000
G01 X94.489978 Y215.450921 Z-0.125000
G00 Z3.000000

(End cutting path id: polyline1978)


(Start cutting path id: polyline1980)
(Change tool to Default tool)

G00 Z3.000000
G00 X97.213654 Y190.718928

G00 Z4.875000 (Fast pre-penetrate)
G01 Z-0.125000 F400.0(Penetrate)
G01 X95.720268 Y203.913294 Z-0.125000 F800.000000
G01 X95.340580 Y209.586904 Z-0.125000
G01 X95.198618 Y215.100159 Z-0.125000
G00 Z3.000000

(End cutting path id: polyline1980)


(Start cutting path id: polyline1982)
(Change tool to Default tool)

G00 Z3.000000
G00 X97.743682 Y190.760632

G00 Z4.875000 (Fast pre-penetrate)
G01 Z-0.125000 F400.0(Penetrate)
G01 X96.817864 Y198.054894 Z-0.125000 F800.000000
G01 X96.284606 Y203.666487 Z-0.125000
G01 X95.952331 Y209.305976 Z-0.125000
G01 X95.880484 Y214.779867 Z-0.125000
G00 Z3.000000

(End cutting path id: polyline1982)


(Start cutting path id: polyline1984)
(Change tool to Default tool)

G00 Z3.000000
G00 X98.252040 Y190.800651

G00 Z4.875000 (Fast pre-penetrate)
G01 Z-0.125000 F400.0(Penetrate)
G01 X97.336800 Y197.870947 Z-0.125000 F800.000000
G01 X96.823293 Y203.455673 Z-0.125000
G01 X96.538012 Y209.059216 Z-0.125000
G01 X96.535672 Y214.491496 Z-0.125000
G00 Z3.000000

(End cutting path id: polyline1984)


(Start cutting path id: polyline1986)
(Change tool to Default tool)

G00 Z3.000000
G00 X98.740505 Y190.837066

G00 Z4.875000 (Fast pre-penetrate)
G01 Z-0.125000 F400.0(Penetrate)
G01 X97.831350 Y197.725194 Z-0.125000 F800.000000
G01 X97.337034 Y203.281837 Z-0.125000
G01 X97.098043 Y208.847747 Z-0.125000
G01 X97.164601 Y214.236217 Z-0.125000
G00 Z3.000000

(End cutting path id: polyline1986)


(Start cutting path id: polyline1988)
(Change tool to Default tool)

G00 Z3.000000
G00 X99.214040 Y190.849423

G00 Z4.875000 (Fast pre-penetrate)
G01 Z-0.125000 F400.0(Penetrate)
G01 X98.302356 Y197.618289 Z-0.125000 F800.000000
G01 X97.826622 Y203.145819 Z-0.125000
G01 X97.633080 Y208.672506 Z-0.125000
G01 X97.767413 Y214.015247 Z-0.125000
G00 Z3.000000

(End cutting path id: polyline1988)


(Start cutting path id: polyline1990)
(Change tool to Default tool)

G00 Z3.000000
G00 X99.670958 Y190.861405

G00 Z4.875000 (Fast pre-penetrate)
G01 Z-0.125000 F400.0(Penetrate)
G01 X98.750803 Y197.550795 Z-0.125000 F800.000000
G01 X98.292855 Y203.048135 Z-0.125000
G01 X98.143872 Y208.534195 Z-0.125000
G01 X98.344809 Y213.829381 Z-0.125000
G00 Z3.000000

(End cutting path id: polyline1990)


(Start cutting path id: polyline1992)
(Change tool to Default tool)

G00 Z3.000000
G00 X100.113132 Y190.872966

G00 Z4.875000 (Fast pre-penetrate)
G01 Z-0.125000 F400.0(Penetrate)
G01 X99.177765 Y197.522946 Z-0.125000 F800.000000
G01 X98.736901 Y202.989347 Z-0.125000
G01 X98.631307 Y208.433469 Z-0.125000
G01 X98.897305 Y213.679369 Z-0.125000
G00 Z3.000000

(End cutting path id: polyline1992)


(Start cutting path id: polyline1994)
(Change tool to Default tool)

G00 Z3.000000
G00 X100.542528 Y190.884246

G00 Z4.875000 (Fast pre-penetrate)
G01 Z-0.125000 F400.0(Penetrate)
G01 X99.584461 Y197.534881 Z-0.125000 F800.000000
G01 X99.159838 Y202.969548 Z-0.125000
G01 X99.096323 Y208.370562 Z-0.125000
G01 X99.425742 Y213.565631 Z-0.125000
G00 Z3.000000

(End cutting path id: polyline1994)


(Start cutting path id: polyline1996)
(Change tool to Default tool)

G00 Z3.000000
G00 X100.961253 Y190.895199

G00 Z4.875000 (Fast pre-penetrate)
G01 Z-0.125000 F400.0(Penetrate)
G01 X99.972247 Y197.586508 Z-0.125000 F800.000000
G01 X99.562930 Y202.988692 Z-0.125000
G01 X99.540089 Y208.345708 Z-0.125000
G01 X99.931057 Y213.488682 Z-0.125000
G00 Z3.000000

(End cutting path id: polyline1996)


(Start cutting path id: polyline1998)
(Change tool to Default tool)

G00 Z3.000000
G00 X101.371318 Y190.905918

G00 Z4.875000 (Fast pre-penetrate)
G01 Z-0.125000 F400.0(Penetrate)
G01 X100.342527 Y197.677499 Z-0.125000 F800.000000
G01 X99.947486 Y203.046684 Z-0.125000
G01 X99.963822 Y208.358767 Z-0.125000
G01 X100.414187 Y213.448476 Z-0.125000
G00 Z3.000000

(End cutting path id: polyline1998)


(Start cutting path id: polyline2000)
(Change tool to Default tool)

G00 Z3.000000
G00 X101.774972 Y190.916496

G00 Z4.875000 (Fast pre-penetrate)
G01 Z-0.125000 F400.0(Penetrate)
G01 X100.696800 Y197.807244 Z-0.125000 F800.000000
G01 X100.315099 Y203.143058 Z-0.125000
G01 X100.368832 Y208.409505 Z-0.125000
G01 X100.876394 Y213.445106 Z-0.125000
G00 Z3.000000

(End cutting path id: polyline2000)


(Start cutting path id: polyline2002)
(Change tool to Default tool)

G00 Z3.000000
G00 X102.176799 Y190.914764

G00 Z4.875000 (Fast pre-penetrate)
G01 Z-0.125000 F400.0(Penetrate)
G01 X101.036704 Y197.975090 Z-0.125000 F800.000000
G01 X100.667266 Y203.277203 Z-0.125000
G01 X100.756618 Y208.497500 Z-0.125000
G01 X101.318896 Y213.478197 Z-0.125000
G00 Z3.000000

(End cutting path id: polyline2002)


(Start cutting path id: polyline2004)
(Change tool to Default tool)

G00 Z3.000000
G00 X102.578533 Y190.904232

G00 Z4.875000 (Fast pre-penetrate)
G01 Z-0.125000 F400.0(Penetrate)
G01 X102.142959 Y192.952782 Z-0.125000 F800.000000
G01 X101.363923 Y198.180052 Z-0.125000
G01 X101.005578 Y203.448278 Z-0.125000
G01 X101.128677 Y208.622143 Z-0.125000
G01 X101.743050 Y213.547330 Z-0.125000
G00 Z3.000000

(End cutting path id: polyline2004)


(Start cutting path id: polyline2006)
(Change tool to Default tool)

G00 Z3.000000
G00 X102.980595 Y190.893701

G00 Z4.875000 (Fast pre-penetrate)
G01 Z-0.125000 F400.0(Penetrate)
G01 X102.472003 Y193.213630 Z-0.125000 F800.000000
G01 X101.680237 Y198.421055 Z-0.125000
G01 X101.331814 Y203.655207 Z-0.125000
G01 X101.486648 Y208.782500 Z-0.125000
G01 X102.150354 Y213.651894 Z-0.125000
G00 Z3.000000

(End cutting path id: polyline2006)


(Start cutting path id: polyline2008)
(Change tool to Default tool)

G00 Z3.000000
G00 X103.384997 Y190.883123

G00 Z4.875000 (Fast pre-penetrate)
G01 Z-0.125000 F400.0(Penetrate)
G01 X102.792249 Y193.509162 Z-0.125000 F800.000000
G01 X101.987470 Y198.696741 Z-0.125000
G01 X101.647800 Y203.897005 Z-0.125000
G01 X101.832215 Y208.977587 Z-0.125000
G01 X102.542353 Y213.791094 Z-0.125000
G00 Z3.000000

(End cutting path id: polyline2008)


(Start cutting path id: polyline2010)
(Change tool to Default tool)

G00 Z3.000000
G00 X103.793893 Y190.872405

G00 Z4.875000 (Fast pre-penetrate)
G01 Z-0.125000 F400.0(Penetrate)
G01 X103.105567 Y193.837785 Z-0.125000 F800.000000
G01 X102.287495 Y199.005613 Z-0.125000
G01 X101.955361 Y204.172083 Z-0.125000
G01 X102.167204 Y209.206233 Z-0.125000
G01 X102.920777 Y213.963995 Z-0.125000
G00 Z3.000000

(End cutting path id: polyline2010)


(Start cutting path id: polyline2012)
(Change tool to Default tool)

G00 Z3.000000
G00 X104.209294 Y190.861546

G00 Z4.875000 (Fast pre-penetrate)
G01 Z-0.125000 F400.0(Penetrate)
G01 X103.413783 Y194.197675 Z-0.125000 F800.000000
G01 X102.582231 Y199.346078 Z-0.125000
G01 X102.256416 Y204.479035 Z-0.125000
G01 X102.493394 Y209.466988 Z-0.125000
G01 X103.287267 Y214.169332 Z-0.125000
G00 Z3.000000

(End cutting path id: polyline2012)


(Start cutting path id: polyline2014)
(Change tool to Default tool)

G00 Z3.000000
G00 X104.633027 Y190.850453

G00 Z4.875000 (Fast pre-penetrate)
G01 Z-0.125000 F400.0(Penetrate)
G01 X103.718910 Y194.587099 Z-0.125000 F800.000000
G01 X102.873644 Y199.716172 Z-0.125000
G01 X102.552931 Y204.816084 Z-0.125000
G01 X102.812750 Y209.758448 Z-0.125000
G01 X103.643599 Y214.405935 Z-0.125000
G00 Z3.000000

(End cutting path id: polyline2014)


(Start cutting path id: polyline2016)
(Change tool to Default tool)

G00 Z3.000000
G00 X105.066917 Y190.839079

G00 Z4.875000 (Fast pre-penetrate)
G01 Z-0.125000 F400.0(Penetrate)
G01 X104.022913 Y195.003905 Z-0.125000 F800.000000
G01 X103.163793 Y200.114068 Z-0.125000
G01 X102.846871 Y205.181450 Z-0.125000
G01 X103.127144 Y210.078927 Z-0.125000
G01 X103.991694 Y214.672213 Z-0.125000
G00 Z3.000000

(End cutting path id: polyline2016)


(Start cutting path id: polyline2018)
(Change tool to Default tool)

G00 Z3.000000
G00 X105.517141 Y190.809778

G00 Z4.875000 (Fast pre-penetrate)
G01 Z-0.125000 F400.0(Penetrate)
G01 X104.327666 Y195.445939 Z-0.125000 F800.000000
G01 X103.454597 Y200.537566 Z-0.125000
G01 X103.140250 Y205.573121 Z-0.125000
G01 X103.438590 Y210.426507 Z-0.125000
G01 X104.333423 Y214.966622 Z-0.125000
G00 Z3.000000

(End cutting path id: polyline2018)


(Start cutting path id: polyline2020)
(Change tool to Default tool)

G00 Z3.000000
G00 X105.986744 Y190.772755

G00 Z4.875000 (Fast pre-penetrate)
G01 Z-0.125000 F400.0(Penetrate)
G01 X104.635227 Y195.910954 Z-0.125000 F800.000000
G01 X103.748117 Y200.984515 Z-0.125000
G01 X103.435033 Y205.988990 Z-0.125000
G01 X103.749006 Y210.799315 Z-0.125000
G01 X104.670706 Y215.287428 Z-0.125000
G00 Z3.000000

(End cutting path id: polyline2020)


(Start cutting path id: polyline2022)
(Change tool to Default tool)

G00 Z3.000000
G00 X106.492715 Y190.732970

G00 Z4.875000 (Fast pre-penetrate)
G01 Z-0.125000 F400.0(Penetrate)
G01 X104.947515 Y196.396564 Z-0.125000 F800.000000
G01 X104.046363 Y201.452620 Z-0.125000
G01 X103.733232 Y206.426858 Z-0.125000
G01 X104.060405 Y211.195339 Z-0.125000
G01 X105.005461 Y215.632808 Z-0.125000
G00 Z3.000000

(End cutting path id: polyline2022)


(Start cutting path id: polyline2024)
(Change tool to Default tool)

G00 Z3.000000
G00 X107.017080 Y190.691687

G00 Z4.875000 (Fast pre-penetrate)
G01 Z-0.125000 F400.0(Penetrate)
G01 X105.266450 Y196.900242 Z-0.125000 F800.000000
G01 X104.351209 Y201.939400 Z-0.125000
G01 X104.036861 Y206.884432 Z-0.125000
G01 X104.374706 Y211.612425 Z-0.125000
G01 X105.339654 Y216.000796 Z-0.125000
G00 Z3.000000

(End cutting path id: polyline2024)


(Start cutting path id: polyline2026)
(Change tool to Default tool)

G00 Z3.000000
G00 X107.560823 Y190.648907

G00 Z4.875000 (Fast pre-penetrate)
G01 Z-0.125000 F400.0(Penetrate)
G01 X105.593903 Y197.419505 Z-0.125000 F800.000000
G01 X104.664621 Y202.442375 Z-0.125000
G01 X104.347839 Y207.359323 Z-0.125000
G01 X104.693921 Y212.048327 Z-0.125000
G01 X105.675205 Y216.389424 Z-0.125000
G00 Z3.000000

(End cutting path id: polyline2026)


(Start cutting path id: polyline2028)
(Change tool to Default tool)

G00 Z3.000000
G00 X108.124552 Y190.604535

G00 Z4.875000 (Fast pre-penetrate)
G01 Z-0.125000 F400.0(Penetrate)
G01 X105.931747 Y197.951780 Z-0.125000 F800.000000
G01 X104.988423 Y202.959158 Z-0.125000
G01 X104.667991 Y207.849193 Z-0.125000
G01 X105.019877 Y212.500799 Z-0.125000
G01 X106.013985 Y216.796494 Z-0.125000
G00 Z3.000000

(End cutting path id: polyline2028)


(Start cutting path id: polyline2030)
(Change tool to Default tool)

G00 Z3.000000
G00 X108.714258 Y190.542237

G00 Z4.875000 (Fast pre-penetrate)
G01 Z-0.125000 F400.0(Penetrate)
G01 X106.281667 Y198.494587 Z-0.125000 F800.000000
G01 X105.324442 Y203.487080 Z-0.125000
G01 X104.999189 Y208.351512 Z-0.125000
G01 X105.354445 Y212.967499 Z-0.125000
G01 X106.357961 Y217.219852 Z-0.125000
G00 Z3.000000

(End cutting path id: polyline2030)


(Start cutting path id: polyline2032)
(Change tool to Default tool)

G00 Z3.000000
G00 X109.330737 Y190.461075

G00 Z4.875000 (Fast pre-penetrate)
G01 Z-0.125000 F400.0(Penetrate)
G01 X108.111820 Y194.028191 Z-0.125000 F800.000000
G01 X106.645348 Y199.045117 Z-0.125000
G01 X105.674362 Y204.023615 Z-0.125000
G01 X105.343118 Y208.863849 Z-0.125000
G01 X105.699356 Y213.446135 Z-0.125000
G01 X106.708817 Y217.657440 Z-0.125000
G00 Z3.000000

(End cutting path id: polyline2032)


(Start cutting path id: polyline2034)
(Change tool to Default tool)

G00 Z3.000000
G00 X109.968840 Y190.377106

G00 Z4.875000 (Fast pre-penetrate)
G01 Z-0.125000 F400.0(Penetrate)
G01 X108.510372 Y194.588831 Z-0.125000 F800.000000
G01 X107.024382 Y199.600936 Z-0.125000
G01 X106.039775 Y204.566281 Z-0.125000
G01 X105.701463 Y209.383767 Z-0.125000
G01 X106.056344 Y213.934273 Z-0.125000
G01 X107.068332 Y218.106916 Z-0.125000
G00 Z3.000000

(End cutting path id: polyline2034)


(Start cutting path id: polyline2036)
(Change tool to Default tool)

G00 Z3.000000
G00 X110.628521 Y190.290234

G00 Z4.875000 (Fast pre-penetrate)
G01 Z-0.125000 F400.0(Penetrate)
G01 X108.924416 Y195.151998 Z-0.125000 F800.000000
G01 X107.420124 Y200.159610 Z-0.125000
G01 X106.422085 Y205.112598 Z-0.125000
G01 X106.075628 Y209.908788 Z-0.125000
G01 X106.426906 Y214.429712 Z-0.125000
G01 X107.438098 Y218.566174 Z-0.125000
G00 Z3.000000

(End cutting path id: polyline2036)


(Start cutting path id: polyline2038)
(Change tool to Default tool)

G00 Z3.000000
G00 X111.330421 Y190.197839

G00 Z4.875000 (Fast pre-penetrate)
G01 Z-0.125000 F400.0(Penetrate)
G01 X109.355263 Y195.715072 Z-0.125000 F800.000000
G01 X107.833888 Y200.718471 Z-0.125000
G01 X106.822602 Y205.660179 Z-0.125000
G01 X106.467065 Y210.436664 Z-0.125000
G01 X106.812492 Y214.930066 Z-0.125000
G01 X107.819659 Y219.032968 Z-0.125000
G00 Z3.000000

(End cutting path id: polyline2038)


(Start cutting path id: polyline2040)
(Change tool to Default tool)

G00 Z3.000000
G00 X112.068876 Y190.076940

G00 Z4.875000 (Fast pre-penetrate)
G01 Z-0.125000 F400.0(Penetrate)
G01 X109.804037 Y196.275805 Z-0.125000 F800.000000
G01 X108.266841 Y201.275413 Z-0.125000
G01 X107.242543 Y206.206731 Z-0.125000
G01 X106.876943 Y210.965101 Z-0.125000
G01 X107.214366 Y215.433182 Z-0.125000
G01 X108.214466 Y219.505239 Z-0.125000
G00 Z3.000000

(End cutting path id: polyline2040)


(Start cutting path id: polyline2042)
(Change tool to Default tool)

G00 Z3.000000
G00 X112.835086 Y189.934978

G00 Z4.875000 (Fast pre-penetrate)
G01 Z-0.125000 F400.0(Penetrate)
G01 X110.271627 Y196.832046 Z-0.125000 F800.000000
G01 X108.719828 Y201.828189 Z-0.125000
G01 X107.682845 Y206.749959 Z-0.125000
G01 X107.306199 Y211.491900 Z-0.125000
G01 X107.633606 Y215.936999 Z-0.125000
G01 X108.623595 Y219.980879 Z-0.125000
G00 Z3.000000

(End cutting path id: polyline2042)


(Start cutting path id: polyline2044)
(Change tool to Default tool)

G00 Z3.000000
G00 X113.621283 Y189.789225

G00 Z4.875000 (Fast pre-penetrate)
G01 Z-0.125000 F400.0(Penetrate)
G01 X110.758828 Y197.381686 Z-0.125000 F800.000000
G01 X109.193643 Y202.374647 Z-0.125000
G01 X108.144257 Y207.287944 Z-0.125000
G01 X107.755769 Y212.015095 Z-0.125000
G01 X108.071193 Y216.439506 Z-0.125000
G01 X109.048170 Y220.458064 Z-0.125000
G00 Z3.000000

(End cutting path id: polyline2044)


(Start cutting path id: polyline2046)
(Change tool to Default tool)

G00 Z3.000000
G00 X114.426390 Y189.640008

G00 Z4.875000 (Fast pre-penetrate)
G01 Z-0.125000 F400.0(Penetrate)
G01 X111.266156 Y197.922854 Z-0.125000 F800.000000
G01 X109.688848 Y202.913101 Z-0.125000
G01 X108.627339 Y207.818816 Z-0.125000
G01 X108.226214 Y212.532814 Z-0.125000
G01 X108.527784 Y216.938877 Z-0.125000
G01 X109.489034 Y220.934922 Z-0.125000
G00 Z3.000000

(End cutting path id: polyline2046)


(Start cutting path id: polyline2048)
(Change tool to Default tool)

G00 Z3.000000
G00 X115.260141 Y189.461163

G00 Z4.875000 (Fast pre-penetrate)
G01 Z-0.125000 F400.0(Penetrate)
G01 X111.793938 Y198.454100 Z-0.125000 F800.000000
G01 X110.205631 Y203.441866 Z-0.125000
G01 X109.132280 Y208.341028 Z-0.125000
G01 X108.717815 Y213.043512 Z-0.125000
G01 X109.003798 Y217.433427 Z-0.125000
G01 X109.946795 Y221.409720 Z-0.125000
G00 Z3.000000

(End cutting path id: polyline2048)


(Start cutting path id: polyline2050)
(Change tool to Default tool)

G00 Z3.000000
G00 X116.120666 Y189.254562

G00 Z4.875000 (Fast pre-penetrate)
G01 Z-0.125000 F400.0(Penetrate)
G01 X112.342175 Y198.973925 Z-0.125000 F800.000000
G01 X110.744038 Y203.959631 Z-0.125000
G01 X109.659220 Y208.853083 Z-0.125000
G01 X109.230713 Y213.545691 Z-0.125000
G01 X109.499565 Y217.921752 Z-0.125000
G01 X110.421827 Y221.881101 Z-0.125000
G00 Z3.000000

(End cutting path id: polyline2050)


(Start cutting path id: polyline2052)
(Change tool to Default tool)

G00 Z3.000000
G00 X117.064645 Y189.027929

G00 Z4.875000 (Fast pre-penetrate)
G01 Z-0.125000 F400.0(Penetrate)
G01 X114.771208 Y194.478370 Z-0.125000 F800.000000
G01 X112.910678 Y199.481394 Z-0.125000
G01 X111.303835 Y204.465368 Z-0.125000
G01 X110.207784 Y209.353999 Z-0.125000
G01 X109.764673 Y214.038276 Z-0.125000
G01 X110.014850 Y218.402728 Z-0.125000
G01 X110.914224 Y222.347708 Z-0.125000
G00 Z3.000000

(End cutting path id: polyline2052)


(Start cutting path id: polyline2054)
(Change tool to Default tool)

G00 Z3.000000
G00 X118.038205 Y188.790249

G00 Z4.875000 (Fast pre-penetrate)
G01 Z-0.125000 F400.0(Penetrate)
G01 X117.359662 Y190.116351 Z-0.125000 F800.000000
G01 X115.365735 Y194.972826 Z-0.125000
G01 X113.498933 Y199.975756 Z-0.125000
G01 X111.884320 Y204.958280 Z-0.125000
G01 X110.777410 Y209.843072 Z-0.125000
G01 X110.319135 Y214.520516 Z-0.125000
G01 X110.549326 Y218.875326 Z-0.125000
G01 X111.423751 Y222.808557 Z-0.125000
G00 Z3.000000

(End cutting path id: polyline2054)


(Start cutting path id: polyline2056)
(Change tool to Default tool)

G00 Z3.000000
G00 X119.052300 Y188.489849

G00 Z4.875000 (Fast pre-penetrate)
G01 Z-0.125000 F400.0(Penetrate)
G01 X117.976562 Y190.594285 Z-0.125000 F800.000000
G01 X114.106004 Y200.456733 Z-0.125000
G01 X112.484605 Y205.438133 Z-0.125000
G01 X111.367163 Y210.319789 Z-0.125000
G01 X110.893301 Y214.991850 Z-0.125000
G01 X111.102242 Y219.339031 Z-0.125000
G01 X111.949942 Y223.262948 Z-0.125000
G00 Z3.000000

(End cutting path id: polyline2056)


(Start cutting path id: polyline2058)
(Change tool to Default tool)

G00 Z3.000000
G00 X120.074679 Y188.187016

G00 Z4.875000 (Fast pre-penetrate)
G01 Z-0.125000 F400.0(Penetrate)
G01 X118.608674 Y191.058832 Z-0.125000 F800.000000
G01 X114.730721 Y200.924463 Z-0.125000
G01 X113.103471 Y205.904974 Z-0.125000
G01 X111.975732 Y210.784243 Z-0.125000
G01 X111.485863 Y215.452232 Z-0.125000
G01 X111.672571 Y219.793609 Z-0.125000
G01 X112.491953 Y223.710411 Z-0.125000
G00 Z3.000000

(End cutting path id: polyline2058)


(Start cutting path id: polyline2060)
(Change tool to Default tool)

G00 Z3.000000
G00 X121.104500 Y187.880298

G00 Z4.875000 (Fast pre-penetrate)
G01 Z-0.125000 F400.0(Penetrate)
G01 X119.254828 Y191.510648 Z-0.125000 F800.000000
G01 X115.371539 Y201.379415 Z-0.125000
G01 X113.739140 Y206.359364 Z-0.125000
G01 X112.601385 Y211.236902 Z-0.125000
G01 X112.095180 Y215.901942 Z-0.125000
G01 X112.258720 Y220.239200 Z-0.125000
G01 X113.048380 Y224.150807 Z-0.125000
G00 Z3.000000

(End cutting path id: polyline2060)


(Start cutting path id: polyline2062)
(Change tool to Default tool)

G00 Z3.000000
G00 X122.175697 Y187.500983

G00 Z4.875000 (Fast pre-penetrate)
G01 Z-0.125000 F400.0(Penetrate)
G01 X119.913339 Y191.950716 Z-0.125000 F800.000000
G01 X116.026492 Y201.822713 Z-0.125000
G01 X114.389554 Y206.802241 Z-0.125000
G01 X113.242016 Y211.678702 Z-0.125000
G01 X112.719242 Y216.341729 Z-0.125000
G01 X112.858911 Y220.676320 Z-0.125000
G01 X113.617773 Y224.584556 Z-0.125000
G00 Z3.000000

(End cutting path id: polyline2062)


(Start cutting path id: polyline2064)
(Change tool to Default tool)

G00 Z3.000000
G00 X123.389511 Y187.071119

G00 Z4.875000 (Fast pre-penetrate)
G01 Z-0.125000 F400.0(Penetrate)
G01 X120.582100 Y192.380721 Z-0.125000 F800.000000
G01 X116.693054 Y202.255947 Z-0.125000
G01 X115.052136 Y207.235241 Z-0.125000
G01 X113.895097 Y212.111094 Z-0.125000
G01 X113.355520 Y216.772998 Z-0.125000
G01 X113.470756 Y221.105950 Z-0.125000
G01 X114.197884 Y225.012268 Z-0.125000
G00 Z3.000000

(End cutting path id: polyline2064)


(Start cutting path id: polyline2066)
(Change tool to Default tool)

G00 Z3.000000
G00 X124.620785 Y186.605729

G00 Z4.875000 (Fast pre-penetrate)
G01 Z-0.125000 F400.0(Penetrate)
G01 X123.520755 Y188.328978 Z-0.125000 F800.000000
G01 X121.258584 Y192.802816 Z-0.125000
G01 X117.368508 Y202.681318 Z-0.125000
G01 X115.724033 Y207.660518 Z-0.125000
G01 X114.557493 Y212.536044 Z-0.125000
G01 X114.001066 Y217.197479 Z-0.125000
G01 X114.091401 Y221.529683 Z-0.125000
G01 X114.786186 Y225.435158 Z-0.125000
G00 Z3.000000

(End cutting path id: polyline2066)


(Start cutting path id: polyline2068)
(Change tool to Default tool)

G00 Z3.000000
G00 X125.881499 Y186.083470

G00 Z4.875000 (Fast pre-penetrate)
G01 Z-0.125000 F400.0(Penetrate)
G01 X124.202247 Y188.732818 Z-0.125000 F800.000000
G01 X121.939983 Y193.219855 Z-0.125000
G01 X118.049392 Y203.101634 Z-0.125000
G01 X116.401594 Y208.080788 Z-0.125000
G01 X115.225739 Y212.956266 Z-0.125000
G01 X114.652321 Y217.617561 Z-0.125000
G01 X114.717522 Y221.949578 Z-0.125000
G01 X115.379636 Y225.854866 Z-0.125000
G00 Z3.000000

(End cutting path id: polyline2068)


(Start cutting path id: polyline2070)
(Change tool to Default tool)

G00 Z3.000000
G00 X127.132383 Y185.564955

G00 Z4.875000 (Fast pre-penetrate)
G01 Z-0.125000 F400.0(Penetrate)
G01 X124.885331 Y189.134974 Z-0.125000 F800.000000
G01 X122.623113 Y193.635210 Z-0.125000
G01 X118.732242 Y203.520265 Z-0.125000
G01 X117.081214 Y208.499372 Z-0.125000
G01 X115.896045 Y213.374803 Z-0.125000
G01 X115.305637 Y218.036099 Z-0.125000
G01 X115.345655 Y222.368115 Z-0.125000
G01 X115.974866 Y226.273356 Z-0.125000
G00 Z3.000000

(End cutting path id: polyline2070)


(Start cutting path id: polyline2072)
(Change tool to Default tool)

G00 Z3.000000
G00 X128.571661 Y184.878455

G00 Z4.875000 (Fast pre-penetrate)
G01 Z-0.125000 F400.0(Penetrate)
G01 X125.570427 Y189.537691 Z-0.125000 F800.000000
G01 X123.308491 Y194.050845 Z-0.125000
G01 X119.417666 Y203.938522 Z-0.125000
G01 X117.763502 Y208.917394 Z-0.125000
G01 X116.569159 Y213.792545 Z-0.125000
G01 X115.961713 Y218.453513 Z-0.125000
G01 X115.976504 Y222.785342 Z-0.125000
G01 X116.572810 Y226.690349 Z-0.125000
G00 Z3.000000

(End cutting path id: polyline2072)


(Start cutting path id: polyline2176)
(Change tool to Default tool)

G00 Z3.000000
G00 X130.067715 Y184.163871

G00 Z4.875000 (Fast pre-penetrate)
G01 Z-0.125000 F400.0(Penetrate)
G01 X128.744562 Y185.938044 Z-0.125000 F800.000000
G01 X126.260345 Y189.941671 Z-0.125000
G01 X123.999204 Y194.467136 Z-0.125000
G01 X120.109315 Y204.356030 Z-0.125000
G01 X118.452296 Y209.333872 Z-0.125000
G01 X117.248919 Y214.208040 Z-0.125000
G01 X116.624577 Y218.868072 Z-0.125000
G01 X116.614046 Y223.199058 Z-0.125000
G01 X117.177072 Y227.103363 Z-0.125000
G00 Z3.000000

(End cutting path id: polyline2176)


(Start cutting path id: polyline1962)
(Change tool to Default tool)

G00 Z3.000000
G00 X90.513826 Y189.835609

G00 Z4.875000 (Fast pre-penetrate)
G01 Z-0.125000 F400.0(Penetrate)
G01 X89.982908 Y196.649877 Z-0.125000 F800.000000
G01 X89.377335 Y202.202495 Z-0.125000
G01 X86.955369 Y219.671446 Z-0.125000
G00 Z3.000000

(End cutting path id: polyline1962)


(Start cutting path id: polyline1960)
(Change tool to Default tool)

G00 Z3.000000
G00 X88.829052 Y189.510216

G00 Z4.875000 (Fast pre-penetrate)
G01 Z-0.125000 F400.0(Penetrate)
G01 X88.286713 Y197.693693 Z-0.125000 F800.000000
G01 X87.686195 Y203.256281 Z-0.125000
G01 X85.027906 Y220.771242 Z-0.125000
G00 Z3.000000

(End cutting path id: polyline1960)


(Start cutting path id: polyline2080)
(Change tool to Default tool)

G00 Z3.000000
G00 X87.036437 Y189.079836

G00 Z4.875000 (Fast pre-penetrate)
G01 Z-0.125000 F400.0(Penetrate)
G01 X86.498170 Y198.785813 Z-0.125000 F800.000000
G01 X85.901349 Y204.354438 Z-0.125000
G01 X85.065491 Y210.188499 Z-0.125000
G01 X83.026350 Y221.887326 Z-0.125000
G00 Z3.000000

(End cutting path id: polyline2080)


(Start cutting path id: polyline1958)
(Change tool to Default tool)

G00 Z3.000000
G00 X86.105329 Y188.856292

G00 Z4.875000 (Fast pre-penetrate)
G01 Z-0.125000 F400.0(Penetrate)
G01 X85.571556 Y199.343457 Z-0.125000 F800.000000
G01 X84.976139 Y204.913580 Z-0.125000
G01 X84.123712 Y210.749139 Z-0.125000
G01 X82.001070 Y222.445204 Z-0.125000
G00 Z3.000000

(End cutting path id: polyline1958)


(Start cutting path id: polyline2082)
(Change tool to Default tool)

G00 Z3.000000
G00 X85.163316 Y188.587814

G00 Z4.875000 (Fast pre-penetrate)
G01 Z-0.125000 F400.0(Penetrate)
G01 X84.624768 Y199.905361 Z-0.125000 F800.000000
G01 X84.030475 Y205.476139 Z-0.125000
G01 X83.162415 Y211.311511 Z-0.125000
G01 X80.961326 Y222.999712 Z-0.125000
G00 Z3.000000

(End cutting path id: polyline2082)


(Start cutting path id: polyline2086)
(Change tool to Default tool)

G00 Z3.000000
G00 X83.214369 Y188.010464

G00 Z4.875000 (Fast pre-penetrate)
G01 Z-0.125000 F400.0(Penetrate)
G01 X82.675167 Y201.032163 Z-0.125000 F800.000000
G01 X82.082465 Y206.601397 Z-0.125000
G01 X81.186087 Y212.431573 Z-0.125000
G01 X78.844113 Y224.089492 Z-0.125000
G00 Z3.000000

(End cutting path id: polyline2086)


(Start cutting path id: polyline1956)
(Change tool to Default tool)

G00 Z3.000000
G00 X82.212117 Y187.679033

G00 Z4.875000 (Fast pre-penetrate)
G01 Z-0.125000 F400.0(Penetrate)
G01 X81.674833 Y201.592335 Z-0.125000 F800.000000
G01 X81.082646 Y207.159369 Z-0.125000
G01 X80.173631 Y212.984724 Z-0.125000
G01 X77.769592 Y224.620597 Z-0.125000
G00 Z3.000000

(End cutting path id: polyline1956)


(Start cutting path id: polyline2088)
(Change tool to Default tool)

G00 Z3.000000
G00 X81.193716 Y187.318394

G00 Z4.875000 (Fast pre-penetrate)
G01 Z-0.125000 F400.0(Penetrate)
G01 X80.659147 Y202.147311 Z-0.125000 F800.000000
G01 X80.067288 Y207.711396 Z-0.125000
G01 X79.146759 Y213.530480 Z-0.125000
G01 X76.686319 Y225.139860 Z-0.125000
G00 Z3.000000

(End cutting path id: polyline2088)


(Start cutting path id: polyline2090)
(Change tool to Default tool)

G00 Z3.000000
G00 X80.185098 Y186.961266

G00 Z4.875000 (Fast pre-penetrate)
G01 Z-0.125000 F400.0(Penetrate)
G01 X79.629467 Y202.695173 Z-0.125000 F800.000000
G01 X79.037795 Y208.255514 Z-0.125000
G01 X78.106875 Y214.066874 Z-0.125000
G01 X75.595791 Y225.645644 Z-0.125000
G00 Z3.000000

(End cutting path id: polyline2090)


(Start cutting path id: polyline2092)
(Change tool to Default tool)

G00 Z3.000000
G00 X79.195296 Y186.577178

G00 Z4.875000 (Fast pre-penetrate)
G01 Z-0.125000 F400.0(Penetrate)
G01 X78.587055 Y203.234095 Z-0.125000 F800.000000
G01 X77.995477 Y208.789895 Z-0.125000
G01 X77.055336 Y214.592269 Z-0.125000
G01 X74.499271 Y226.136543 Z-0.125000
G00 Z3.000000

(End cutting path id: polyline2092)


(Start cutting path id: polyline2094)
(Change tool to Default tool)

G00 Z3.000000
G00 X78.196133 Y186.163321

G00 Z4.875000 (Fast pre-penetrate)
G01 Z-0.125000 F400.0(Penetrate)
G01 X77.990703 Y188.429564 Z-0.125000 F800.000000
G01 X77.782557 Y198.528287 Z-0.125000
G01 X77.533316 Y203.762532 Z-0.125000
G01 X76.941738 Y209.313091 Z-0.125000
G01 X75.993499 Y215.105214 Z-0.125000
G01 X74.767235 Y220.951163 Z-0.125000
G01 X73.398212 Y226.611341 Z-0.125000
G00 Z3.000000

(End cutting path id: polyline2094)


(Start cutting path id: polyline2098)
(Change tool to Default tool)

G00 Z3.000000
G00 X76.173421 Y185.288755

G00 Z4.875000 (Fast pre-penetrate)
G01 Z-0.125000 F400.0(Penetrate)
G01 X75.812033 Y189.444688 Z-0.125000 F800.000000
G01 X75.635950 Y199.553100 Z-0.125000
G01 X75.397100 Y204.783132 Z-0.125000
G01 X74.805381 Y210.321194 Z-0.125000
G01 X73.844224 Y216.089586 Z-0.125000
G01 X72.592450 Y221.898887 Z-0.125000
G01 X71.187013 Y227.509497 Z-0.125000
G00 Z3.000000

(End cutting path id: polyline2098)


(Start cutting path id: polyline2100)
(Change tool to Default tool)

G00 Z3.000000
G00 X75.155582 Y184.803238

G00 Z4.875000 (Fast pre-penetrate)
G01 Z-0.125000 F400.0(Penetrate)
G01 X74.716591 Y189.933246 Z-0.125000 F800.000000
G01 X74.552302 Y200.046059 Z-0.125000
G01 X74.317244 Y205.273704 Z-0.125000
G01 X73.725431 Y210.804604 Z-0.125000
G01 X72.759406 Y216.559610 Z-0.125000
G01 X71.498084 Y222.348691 Z-0.125000
G01 X70.079120 Y227.932060 Z-0.125000
G00 Z3.000000

(End cutting path id: polyline2100)


(Start cutting path id: polyline1954)
(Change tool to Default tool)

G00 Z3.000000
G00 X74.186609 Y184.341078

G00 Z4.875000 (Fast pre-penetrate)
G01 Z-0.125000 F400.0(Penetrate)
G01 X73.618433 Y190.408653 Z-0.125000 F800.000000
G01 X73.463319 Y200.525631 Z-0.125000
G01 X73.231256 Y205.750608 Z-0.125000
G01 X72.639303 Y211.273879 Z-0.125000
G01 X71.669393 Y217.014703 Z-0.125000
G01 X70.400535 Y222.782299 Z-0.125000
G01 X68.970852 Y228.337164 Z-0.125000
G00 Z3.000000

(End cutting path id: polyline1954)


(Start cutting path id: polyline2102)
(Change tool to Default tool)

G00 Z3.000000
G00 X73.226669 Y183.843158

G00 Z4.875000 (Fast pre-penetrate)
G01 Z-0.125000 F400.0(Penetrate)
G01 X72.960297 Y185.580261 Z-0.125000 F800.000000
G01 X72.518357 Y190.871047 Z-0.125000
G01 X72.370123 Y200.991863 Z-0.125000
G01 X72.140259 Y206.214079 Z-0.125000
G01 X71.548213 Y211.729299 Z-0.125000
G01 X70.575401 Y217.455098 Z-0.125000
G01 X69.300786 Y223.200275 Z-0.125000
G01 X67.863006 Y228.725465 Z-0.125000
G00 Z3.000000

(End cutting path id: polyline2102)


(Start cutting path id: polyline2104)
(Change tool to Default tool)

G00 Z3.000000
G00 X72.266120 Y183.321648

G00 Z4.875000 (Fast pre-penetrate)
G01 Z-0.125000 F400.0(Penetrate)
G01 X71.856663 Y186.014806 Z-0.125000 F800.000000
G01 X71.417110 Y191.320991 Z-0.125000
G01 X71.273744 Y201.445412 Z-0.125000
G01 X71.045425 Y206.664632 Z-0.125000
G01 X70.453238 Y212.171427 Z-0.125000
G01 X69.478321 Y217.881686 Z-0.125000
G01 X68.199680 Y223.603554 Z-0.125000
G01 X66.756096 Y229.098039 Z-0.125000
G00 Z3.000000

(End cutting path id: polyline2104)


(Start cutting path id: polyline2106)
(Change tool to Default tool)

G00 Z3.000000
G00 X71.302717 Y182.798546

G00 Z4.875000 (Fast pre-penetrate)
G01 Z-0.125000 F400.0(Penetrate)
G01 X70.753310 Y186.438632 Z-0.125000 F800.000000
G01 X70.315208 Y191.759608 Z-0.125000
G01 X70.175025 Y201.887445 Z-0.125000
G01 X69.947689 Y207.103623 Z-0.125000
G01 X69.355455 Y212.601665 Z-0.125000
G01 X68.379133 Y218.295777 Z-0.125000
G01 X67.097825 Y223.993586 Z-0.125000
G01 X65.650496 Y229.456665 Z-0.125000
G00 Z3.000000

(End cutting path id: polyline2106)


(Start cutting path id: polyline2108)
(Change tool to Default tool)

G00 Z3.000000
G00 X70.343479 Y182.232992

G00 Z4.875000 (Fast pre-penetrate)
G01 Z-0.125000 F400.0(Penetrate)
G01 X69.650425 Y186.853472 Z-0.125000 F800.000000
G01 X69.213213 Y192.188443 Z-0.125000
G01 X69.074761 Y202.319510 Z-0.125000
G01 X68.847987 Y207.532551 Z-0.125000
G01 X68.255706 Y213.021607 Z-0.125000
G01 X67.278636 Y218.699196 Z-0.125000
G01 X65.995829 Y224.372526 Z-0.125000
G01 X64.546348 Y229.803449 Z-0.125000
G00 Z3.000000

(End cutting path id: polyline2108)


(Start cutting path id: polyline2110)
(Change tool to Default tool)

G00 Z3.000000
G00 X69.389109 Y181.648153

G00 Z4.875000 (Fast pre-penetrate)
G01 Z-0.125000 F400.0(Penetrate)
G01 X68.548149 Y187.261291 Z-0.125000 F800.000000
G01 X68.111311 Y192.609789 Z-0.125000
G01 X67.973608 Y202.743945 Z-0.125000
G01 X67.747068 Y207.953850 Z-0.125000
G01 X67.154787 Y213.433638 Z-0.125000
G01 X66.177389 Y219.094471 Z-0.125000
G01 X64.893927 Y224.742854 Z-0.125000
G01 X63.443509 Y230.141293 Z-0.125000
G00 Z3.000000

(End cutting path id: polyline2110)


(Start cutting path id: polyline2112)
(Change tool to Default tool)

G00 Z3.000000
G00 X68.481404 Y181.091866

G00 Z4.875000 (Fast pre-penetrate)
G01 Z-0.125000 F400.0(Penetrate)
G01 X67.446388 Y187.664710 Z-0.125000 F800.000000
G01 X67.009643 Y193.026501 Z-0.125000
G01 X66.872080 Y203.163699 Z-0.125000
G01 X66.645634 Y208.370281 Z-0.125000
G01 X66.053307 Y213.840896 Z-0.125000
G01 X65.075861 Y219.484738 Z-0.125000
G01 X63.792213 Y225.107986 Z-0.125000
G01 X62.341608 Y230.473661 Z-0.125000
G00 Z3.000000

(End cutting path id: polyline2112)


(Start cutting path id: polyline2114)
(Change tool to Default tool)

G00 Z3.000000
G00 X67.579690 Y180.491629

G00 Z4.875000 (Fast pre-penetrate)
G01 Z-0.125000 F400.0(Penetrate)
G01 X66.344766 Y188.066631 Z-0.125000 F800.000000
G01 X65.908022 Y193.441621 Z-0.125000
G01 X65.770506 Y203.581768 Z-0.125000
G01 X65.544060 Y208.785121 Z-0.125000
G01 X64.951732 Y214.246327 Z-0.125000
G01 X63.974287 Y219.873179 Z-0.125000
G01 X62.690638 Y225.471245 Z-0.125000
G01 X61.240033 Y230.804063 Z-0.125000
G00 Z3.000000

(End cutting path id: polyline2114)


(Start cutting path id: polyline2116)
(Change tool to Default tool)

G00 Z3.000000
G00 X66.677790 Y179.871733

G00 Z4.875000 (Fast pre-penetrate)
G01 Z-0.125000 F400.0(Penetrate)
G01 X66.070672 Y182.830842 Z-0.125000 F800.000000
G01 X65.242724 Y188.466587 Z-0.125000
G01 X64.806260 Y193.854355 Z-0.125000
G01 X64.669119 Y203.996748 Z-0.125000
G01 X64.442813 Y209.196497 Z-0.125000
G01 X63.850673 Y214.648202 Z-0.125000
G01 X62.873321 Y220.257829 Z-0.125000
G01 X61.589766 Y225.830667 Z-0.125000
G01 X60.139114 Y231.130768 Z-0.125000
G00 Z3.000000

(End cutting path id: polyline2116)


(Start cutting path id: polyline2118)
(Change tool to Default tool)

G00 Z3.000000
G00 X65.770834 Y179.248374

G00 Z4.875000 (Fast pre-penetrate)
G01 Z-0.125000 F400.0(Penetrate)
G01 X64.966757 Y183.200233 Z-0.125000 F800.000000
G01 X64.139886 Y188.861955 Z-0.125000
G01 X63.704218 Y194.261565 Z-0.125000
G01 X63.568294 Y204.404614 Z-0.125000
G01 X63.342549 Y209.600104 Z-0.125000
G01 X62.750877 Y215.041651 Z-0.125000
G01 X61.773900 Y220.633773 Z-0.125000
G01 X60.490532 Y226.181289 Z-0.125000
G01 X59.039833 Y231.448813 Z-0.125000
G00 Z3.000000

(End cutting path id: polyline2118)


(Start cutting path id: polyline2122)
(Change tool to Default tool)

G00 Z3.000000
G00 X63.966471 Y177.881598

G00 Z4.875000 (Fast pre-penetrate)
G01 Z-0.125000 F400.0(Penetrate)
G01 X62.752609 Y183.921323 Z-0.125000 F800.000000
G01 X61.931355 Y189.629430 Z-0.125000
G01 X61.500180 Y195.047902 Z-0.125000
G01 X61.370762 Y205.184352 Z-0.125000
G01 X61.148013 Y210.367625 Z-0.125000
G01 X60.559103 Y215.786004 Z-0.125000
G01 X59.584278 Y221.341149 Z-0.125000
G01 X58.301987 Y226.837460 Z-0.125000
G01 X56.851101 Y232.040906 Z-0.125000
G00 Z3.000000

(End cutting path id: polyline2122)


(Start cutting path id: polyline2124)
(Change tool to Default tool)

G00 Z3.000000
G00 X63.085539 Y177.205675

G00 Z4.875000 (Fast pre-penetrate)
G01 Z-0.125000 F400.0(Penetrate)
G01 X61.642048 Y184.269839 Z-0.125000 F800.000000
G01 X60.826036 Y189.997323 Z-0.125000
G01 X60.398933 Y195.421927 Z-0.125000
G01 X60.275600 Y205.549577 Z-0.125000
G01 X60.055706 Y210.724332 Z-0.125000
G01 X59.469370 Y216.129137 Z-0.125000
G01 X58.496512 Y221.664577 Z-0.125000
G01 X57.215344 Y227.134957 Z-0.125000
G01 X55.764364 Y232.306997 Z-0.125000
G00 Z3.000000

(End cutting path id: polyline2124)


(Start cutting path id: polyline2126)
(Change tool to Default tool)

G00 Z3.000000
G00 X62.207041 Y176.464740

G00 Z4.875000 (Fast pre-penetrate)
G01 Z-0.125000 F400.0(Penetrate)
G01 X60.529334 Y184.608432 Z-0.125000 F800.000000
G01 X59.720436 Y190.352158 Z-0.125000
G01 X59.299044 Y195.780226 Z-0.125000
G01 X59.184089 Y205.894583 Z-0.125000
G01 X58.968127 Y211.058759 Z-0.125000
G01 X58.385348 Y216.448399 Z-0.125000
G01 X57.415345 Y221.963151 Z-0.125000
G01 X56.135768 Y227.407273 Z-0.125000
G01 X54.684742 Y232.548468 Z-0.125000
G00 Z3.000000

(End cutting path id: polyline2126)


(Start cutting path id: polyline2128)
(Change tool to Default tool)

G00 Z3.000000
G00 X61.318573 Y175.705971

G00 Z4.875000 (Fast pre-penetrate)
G01 Z-0.125000 F400.0(Penetrate)
G01 X59.414748 Y184.935932 Z-0.125000 F800.000000
G01 X58.615258 Y190.692343 Z-0.125000
G01 X58.201214 Y196.120832 Z-0.125000
G01 X58.097258 Y206.216794 Z-0.125000
G01 X57.886445 Y211.368192 Z-0.125000
G01 X57.308440 Y216.740842 Z-0.125000
G01 X56.342182 Y222.233642 Z-0.125000
G01 X55.064758 Y227.651225 Z-0.125000
G01 X53.613825 Y232.762183 Z-0.125000
G00 Z3.000000

(End cutting path id: polyline2128)


(Start cutting path id: polyline2130)
(Change tool to Default tool)

G00 Z3.000000
G00 X60.419294 Y174.929088

G00 Z4.875000 (Fast pre-penetrate)
G01 Z-0.125000 F400.0(Penetrate)
G01 X59.426309 Y179.289984 Z-0.125000 F800.000000
G01 X58.298898 Y185.251169 Z-0.125000
G01 X57.511110 Y191.016379 Z-0.125000
G01 X57.106380 Y196.442013 Z-0.125000
G01 X57.016279 Y206.514011 Z-0.125000
G01 X56.811971 Y211.650150 Z-0.125000
G01 X56.239911 Y217.003797 Z-0.125000
G01 X55.278520 Y222.473381 Z-0.125000
G01 X54.003998 Y227.864098 Z-0.125000
G01 X52.553253 Y232.945475 Z-0.125000
G00 Z3.000000

(End cutting path id: polyline2130)


(Start cutting path id: polyline1952)
(Change tool to Default tool)

G00 Z3.000000
G00 X59.521325 Y174.076895

G00 Z4.875000 (Fast pre-penetrate)
G01 Z-0.125000 F400.0(Penetrate)
G01 X58.293094 Y179.574095 Z-0.125000 F800.000000
G01 X57.182392 Y185.553254 Z-0.125000
G01 X56.408880 Y191.323098 Z-0.125000
G01 X56.015524 Y196.742225 Z-0.125000
G01 X55.942320 Y206.784361 Z-0.125000
G01 X55.745923 Y211.902480 Z-0.125000
G01 X55.181304 Y217.234924 Z-0.125000
G01 X54.225905 Y222.680029 Z-0.125000
G01 X52.955034 Y228.043364 Z-0.125000
G01 X51.504756 Y233.095909 Z-0.125000
G00 Z3.000000

(End cutting path id: polyline1952)


(Start cutting path id: polyline2132)
(Change tool to Default tool)

G00 Z3.000000
G00 X58.620828 Y173.222362

G00 Z4.875000 (Fast pre-penetrate)
G01 Z-0.125000 F400.0(Penetrate)
G01 X57.156977 Y179.849220 Z-0.125000 F800.000000
G01 X56.066121 Y185.841297 Z-0.125000
G01 X55.309506 Y191.611328 Z-0.125000
G01 X54.929630 Y197.020205 Z-0.125000
G01 X54.876599 Y207.026019 Z-0.125000
G01 X54.689750 Y212.123310 Z-0.125000
G01 X54.134025 Y217.432304 Z-0.125000
G01 X53.185880 Y222.851385 Z-0.125000
G01 X51.919596 Y228.187058 Z-0.125000
G01 X50.470068 Y233.211472 Z-0.125000
G00 Z3.000000

(End cutting path id: polyline2132)


(Start cutting path id: polyline2134)
(Change tool to Default tool)

G00 Z3.000000
G00 X57.722157 Y172.323550

G00 Z4.875000 (Fast pre-penetrate)
G01 Z-0.125000 F400.0(Penetrate)
G01 X56.018754 Y180.114889 Z-0.125000 F800.000000
G01 X54.950926 Y186.114643 Z-0.125000
G01 X54.214016 Y191.880227 Z-0.125000
G01 X53.849820 Y197.274781 Z-0.125000
G01 X53.820426 Y207.237675 Z-0.125000
G01 X53.644717 Y212.311142 Z-0.125000
G01 X53.099476 Y217.594252 Z-0.125000
G01 X52.159991 Y222.985717 Z-0.125000
G01 X50.899230 Y228.293307 Z-0.125000
G01 X49.450918 Y233.290527 Z-0.125000
G00 Z3.000000

(End cutting path id: polyline2134)


(Start cutting path id: polyline2136)
(Change tool to Default tool)

G00 Z3.000000
G00 X56.816512 Y171.369180

G00 Z4.875000 (Fast pre-penetrate)
G01 Z-0.125000 F400.0(Penetrate)
G01 X54.879407 Y180.370730 Z-0.125000 F800.000000
G01 X53.837885 Y186.372730 Z-0.125000
G01 X53.123488 Y192.129000 Z-0.125000
G01 X52.777312 Y197.505113 Z-0.125000
G01 X52.774972 Y207.418064 Z-0.125000
G01 X52.612135 Y212.464665 Z-0.125000
G01 X52.079063 Y217.719364 Z-0.125000
G01 X51.149734 Y223.081669 Z-0.125000
G01 X49.895526 Y228.360707 Z-0.125000
G01 X48.448947 Y233.331482 Z-0.125000
G00 Z3.000000

(End cutting path id: polyline2136)


(Start cutting path id: polyline2138)
(Change tool to Default tool)

G00 Z3.000000
G00 X55.895140 Y170.394263

G00 Z4.875000 (Fast pre-penetrate)
G01 Z-0.125000 F400.0(Penetrate)
G01 X53.739920 Y180.616507 Z-0.125000 F800.000000
G01 X52.728026 Y186.615090 Z-0.125000
G01 X52.039044 Y192.357037 Z-0.125000
G01 X51.713276 Y197.710403 Z-0.125000
G01 X51.741875 Y207.566345 Z-0.125000
G01 X51.593641 Y212.582803 Z-0.125000
G01 X51.074471 Y217.806563 Z-0.125000
G01 X50.156843 Y223.138117 Z-0.125000
G01 X48.910405 Y228.388042 Z-0.125000
G01 X47.466025 Y233.333308 Z-0.125000
G00 Z3.000000

(End cutting path id: polyline2138)


(Start cutting path id: polyline2140)
(Change tool to Default tool)

G00 Z3.000000
G00 X54.975312 Y169.317214

G00 Z4.875000 (Fast pre-penetrate)
G01 Z-0.125000 F400.0(Penetrate)
G01 X52.601510 Y180.851893 Z-0.125000 F800.000000
G01 X51.622567 Y186.841396 Z-0.125000
G01 X50.961903 Y192.563872 Z-0.125000
G01 X50.658929 Y197.890231 Z-0.125000
G01 X50.722070 Y207.681768 Z-0.125000
G01 X50.590358 Y212.664853 Z-0.125000
G01 X50.086869 Y217.855007 Z-0.125000
G01 X49.182487 Y223.154078 Z-0.125000
G01 X47.945082 Y228.374562 Z-0.125000
G01 X46.503698 Y233.295114 Z-0.125000
G00 Z3.000000

(End cutting path id: polyline2140)


(Start cutting path id: polyline2142)
(Change tool to Default tool)

G00 Z3.000000
G00 X54.038681 Y168.220602

G00 Z4.875000 (Fast pre-penetrate)
G01 Z-0.125000 F400.0(Penetrate)
G01 X51.465346 Y181.076889 Z-0.125000 F800.000000
G01 X50.522677 Y187.051367 Z-0.125000
G01 X49.893233 Y192.749270 Z-0.125000
G01 X49.615534 Y198.044128 Z-0.125000
G01 X49.716962 Y207.763912 Z-0.125000
G01 X49.603599 Y212.710302 Z-0.125000
G01 X49.117661 Y217.864181 Z-0.125000
G01 X48.228304 Y223.129084 Z-0.125000
G01 X47.001244 Y228.319612 Z-0.125000
G01 X45.563510 Y233.216387 Z-0.125000
G00 Z3.000000

(End cutting path id: polyline2142)


(Start cutting path id: polyline2144)
(Change tool to Default tool)

G00 Z3.000000
G00 X53.099383 Y167.024807

G00 Z4.875000 (Fast pre-penetrate)
G01 Z-0.125000 F400.0(Penetrate)
G01 X50.332739 Y181.291306 Z-0.125000 F800.000000
G01 X49.429575 Y187.244956 Z-0.125000
G01 X48.834346 Y192.912997 Z-0.125000
G01 X48.584262 Y198.171908 Z-0.125000
G01 X48.727816 Y207.812497 Z-0.125000
G01 X48.634625 Y212.718773 Z-0.125000
G01 X48.168159 Y217.833757 Z-0.125000
G01 X47.295558 Y223.062807 Z-0.125000
G01 X46.080246 Y228.222864 Z-0.125000
G01 X44.647146 Y233.096751 Z-0.125000
G00 Z3.000000

(End cutting path id: polyline2144)


(Start cutting path id: polyline2146)
(Change tool to Default tool)

G00 Z3.000000
G00 X52.145060 Y165.781131

G00 Z4.875000 (Fast pre-penetrate)
G01 Z-0.125000 F400.0(Penetrate)
G01 X49.204954 Y181.495192 Z-0.125000 F800.000000
G01 X48.344617 Y187.422069 Z-0.125000
G01 X47.786411 Y193.055146 Z-0.125000
G01 X47.566330 Y198.273570 Z-0.125000
G01 X47.755847 Y207.827475 Z-0.125000
G01 X47.684749 Y212.690362 Z-0.125000
G01 X47.239672 Y217.763642 Z-0.125000
G01 X46.385607 Y222.955153 Z-0.125000
G01 X45.183541 Y228.084272 Z-0.125000
G01 X43.755964 Y232.936207 Z-0.125000
G00 Z3.000000

(End cutting path id: polyline2146)


(Start cutting path id: polyline2148)
(Change tool to Default tool)

G00 Z3.000000
G00 X51.185822 Y164.430035

G00 Z4.875000 (Fast pre-penetrate)
G01 Z-0.125000 F400.0(Penetrate)
G01 X48.083347 Y181.688547 Z-0.125000 F800.000000
G01 X47.268973 Y187.582847 Z-0.125000
G01 X46.750645 Y193.175671 Z-0.125000
G01 X46.562954 Y198.349208 Z-0.125000
G01 X46.802179 Y207.808986 Z-0.125000
G01 X46.755092 Y212.625209 Z-0.125000
G01 X46.333278 Y217.654117 Z-0.125000
G01 X45.499667 Y222.806311 Z-0.125000
G01 X44.312391 Y227.904070 Z-0.125000
G01 X42.891414 Y232.734942 Z-0.125000
G00 Z3.000000

(End cutting path id: polyline2148)


(Start cutting path id: polyline2150)
(Change tool to Default tool)

G00 Z3.000000
G00 X50.185910 Y162.975170

G00 Z4.875000 (Fast pre-penetrate)
G01 Z-0.125000 F400.0(Penetrate)
G01 X46.969322 Y181.871464 Z-0.125000 F800.000000
G01 X46.203907 Y187.727383 Z-0.125000
G01 X45.728220 Y193.274899 Z-0.125000
G01 X45.575258 Y198.399150 Z-0.125000
G01 X45.867935 Y207.757360 Z-0.125000
G01 X45.846732 Y212.523640 Z-0.125000
G01 X45.450193 Y217.505508 Z-0.125000
G01 X44.638862 Y222.616747 Z-0.125000
G01 X43.468015 Y227.682585 Z-0.125000
G01 X42.054761 Y232.493331 Z-0.125000
G00 Z3.000000

(End cutting path id: polyline2150)


(Start cutting path id: polyline2152)
(Change tool to Default tool)

G00 Z3.000000
G00 X49.182019 Y161.367157

G00 Z4.875000 (Fast pre-penetrate)
G01 Z-0.125000 F400.0(Penetrate)
G01 X45.864190 Y182.044177 Z-0.125000 F800.000000
G01 X45.150730 Y187.856005 Z-0.125000
G01 X44.720304 Y193.353065 Z-0.125000
G01 X44.604319 Y198.423723 Z-0.125000
G01 X44.954145 Y207.673203 Z-0.125000
G01 X44.960698 Y212.386172 Z-0.125000
G01 X44.591354 Y217.318519 Z-0.125000
G01 X43.804221 Y222.387071 Z-0.125000
G01 X42.651488 Y227.420613 Z-0.125000
G01 X41.247174 Y232.212075 Z-0.125000
G00 Z3.000000

(End cutting path id: polyline2152)


(Start cutting path id: polyline2154)
(Change tool to Default tool)

G00 Z3.000000
G00 X48.138531 Y159.625982

G00 Z4.875000 (Fast pre-penetrate)
G01 Z-0.125000 F400.0(Penetrate)
G01 X44.769356 Y182.206827 Z-0.125000 F800.000000
G01 X44.110565 Y187.968995 Z-0.125000
G01 X43.728021 Y193.410683 Z-0.125000
G01 X43.651259 Y198.423489 Z-0.125000
G01 X44.061793 Y207.557124 Z-0.125000
G01 X44.097927 Y212.213692 Z-0.125000
G01 X43.757743 Y217.093851 Z-0.125000
G01 X42.996727 Y222.118172 Z-0.125000
G01 X41.863746 Y227.118903 Z-0.125000
G01 X40.469729 Y231.891923 Z-0.125000
G00 Z3.000000

(End cutting path id: polyline2154)


(Start cutting path id: polyline2156)
(Change tool to Default tool)

G00 Z3.000000
G00 X47.035646 Y157.594751

G00 Z4.875000 (Fast pre-penetrate)
G01 Z-0.125000 F400.0(Penetrate)
G01 X46.137349 Y165.410850 Z-0.125000 F800.000000
G01 X43.686036 Y182.359789 Z-0.125000
G01 X43.084675 Y188.066819 Z-0.125000
G01 X42.752401 Y193.448361 Z-0.125000
G01 X42.716969 Y198.399057 Z-0.125000
G01 X43.191767 Y207.410014 Z-0.125000
G01 X43.259214 Y212.007091 Z-0.125000
G01 X42.950109 Y216.832581 Z-0.125000
G01 X42.217130 Y221.810986 Z-0.125000
G01 X41.105727 Y226.778531 Z-0.125000
G01 X39.723411 Y231.533953 Z-0.125000
G00 Z3.000000

(End cutting path id: polyline2156)


(Start cutting path id: polyline2158)
(Change tool to Default tool)

G00 Z3.000000
G00 X45.823235 Y155.119333

G00 Z4.875000 (Fast pre-penetrate)
G01 Z-0.125000 F400.0(Penetrate)
G01 X45.477855 Y160.838860 Z-0.125000 F800.000000
G01 X42.615681 Y182.503295 Z-0.125000
G01 X42.074185 Y188.149946 Z-0.125000
G01 X41.794474 Y193.466662 Z-0.125000
G01 X41.802384 Y198.351361 Z-0.125000
G01 X42.344769 Y207.232901 Z-0.125000
G01 X42.445355 Y211.767446 Z-0.125000
G01 X42.169201 Y216.535879 Z-0.125000
G01 X41.466225 Y221.466963 Z-0.125000
G01 X40.378177 Y226.400808 Z-0.125000
G01 X39.008968 Y231.139427 Z-0.125000
G00 Z3.000000

(End cutting path id: polyline2158)


(Start cutting path id: polyline2160)
(Change tool to Default tool)

G00 Z3.000000
G00 X44.248174 Y151.457950

G00 Z4.875000 (Fast pre-penetrate)
G01 Z-0.125000 F400.0(Penetrate)
G01 X44.497695 Y153.500461 Z-0.125000 F800.000000
G01 X44.495823 Y156.955290 Z-0.125000
G01 X44.189994 Y161.125827 Z-0.125000
G01 X41.559321 Y182.637675 Z-0.125000
G01 X41.079983 Y188.218984 Z-0.125000
G01 X40.855082 Y193.466288 Z-0.125000
G01 X40.908253 Y198.281200 Z-0.125000
G01 X41.521502 Y207.026862 Z-0.125000
G01 X41.656865 Y211.496066 Z-0.125000
G01 X41.415534 Y216.205103 Z-0.125000
G01 X40.744433 Y221.087274 Z-0.125000
G01 X39.681567 Y225.987139 Z-0.125000
G01 X38.327054 Y230.709749 Z-0.125000
G00 Z3.000000

(End cutting path id: polyline2160)


(Start cutting path id: polyline2162)
(Change tool to Default tool)

G00 Z3.000000
G00 X40.438884 Y136.035067

G00 Z4.875000 (Fast pre-penetrate)
G01 Z-0.125000 F400.0(Penetrate)
G01 X40.324070 Y137.047523 Z-0.125000 F800.000000
G01 X40.704039 Y138.049167 Z-0.125000
G00 Z3.000000

(End cutting path id: polyline2162)


(Start cutting path id: polyline2164)
(Change tool to Default tool)

G00 Z3.000000
G00 X40.169002 Y132.981785

G00 Z4.875000 (Fast pre-penetrate)
G01 Z-0.125000 F400.0(Penetrate)
G01 X39.444963 Y135.252521 Z-0.125000 F800.000000
G01 X39.238363 Y136.817145 Z-0.125000
G01 X39.554583 Y137.840180 Z-0.125000
G01 X40.795264 Y138.727102 Z-0.125000
G00 Z3.000000

(End cutting path id: polyline2164)


(Start cutting path id: polyline2166)
(Change tool to Default tool)

G00 Z3.000000
G00 X40.062332 Y130.386123

G00 Z4.875000 (Fast pre-penetrate)
G01 Z-0.125000 F400.0(Penetrate)
G01 X38.407185 Y134.978333 Z-0.125000 F800.000000
G01 X38.164357 Y136.595988 Z-0.125000
G01 X38.446315 Y137.671211 Z-0.125000
G01 X39.216364 Y138.399743 Z-0.125000
G01 X40.887986 Y139.227363 Z-0.125000
G00 Z3.000000

(End cutting path id: polyline2166)


(Start cutting path id: polyline2168)
(Change tool to Default tool)

G00 Z3.000000
G00 X40.060740 Y127.683697

G00 Z4.875000 (Fast pre-penetrate)
G01 Z-0.125000 F400.0(Penetrate)
G01 X38.177790 Y132.348175 Z-0.125000 F800.000000
G01 X37.384432 Y134.706485 Z-0.125000
G01 X37.103972 Y136.384239 Z-0.125000
G01 X37.350077 Y137.518390 Z-0.125000
G01 X38.086659 Y138.299344 Z-0.125000
G01 X40.998167 Y139.821984 Z-0.125000
G00 Z3.000000

(End cutting path id: polyline2168)


(Start cutting path id: polyline2170)
(Change tool to Default tool)

G00 Z3.000000
G00 X40.187678 Y124.789742

G00 Z4.875000 (Fast pre-penetrate)
G01 Z-0.125000 F400.0(Penetrate)
G01 X37.211625 Y132.016322 Z-0.125000 F800.000000
G01 X36.378295 Y134.437399 Z-0.125000
G01 X36.058892 Y136.182225 Z-0.125000
G01 X36.267880 Y137.381717 Z-0.125000
G01 X36.969592 Y138.220711 Z-0.125000
G01 X41.139801 Y140.586041 Z-0.125000
G00 Z3.000000

(End cutting path id: polyline2170)


(Start cutting path id: polyline2172)
(Change tool to Default tool)

G00 Z3.000000
G00 X40.509795 Y121.435265

G00 Z4.875000 (Fast pre-penetrate)
G01 Z-0.125000 F400.0(Penetrate)
G01 X36.264323 Y131.681193 Z-0.125000 F800.000000
G01 X35.390178 Y134.171588 Z-0.125000
G01 X35.030990 Y135.990040 Z-0.125000
G01 X35.201784 Y137.261192 Z-0.125000
G01 X35.867456 Y138.163654 Z-0.125000
G01 X41.322203 Y141.570320 Z-0.125000
G00 Z3.000000

(End cutting path id: polyline2172)


(Start cutting path id: polyline2174)
(Change tool to Default tool)

G00 Z3.000000
G00 X41.192973 Y117.136153

G00 Z4.875000 (Fast pre-penetrate)
G01 Z-0.125000 F400.0(Penetrate)
G01 X35.337053 Y131.343442 Z-0.125000 F800.000000
G01 X34.421532 Y133.909429 Z-0.125000
G01 X34.021857 Y135.807872 Z-0.125000
G01 X34.153662 Y137.156721 Z-0.125000
G01 X34.782358 Y138.127848 Z-0.125000
G01 X41.576452 Y142.699510 Z-0.125000
G00 Z3.000000

(End cutting path id: polyline2174)


(Start cutting path id: polyline2178)
(Change tool to Default tool)

G00 Z3.000000
G00 X131.659861 Y183.299368

G00 Z4.875000 (Fast pre-penetrate)
G01 Z-0.125000 F400.0(Penetrate)
G01 X129.439254 Y186.317780 Z-0.125000 F800.000000
G01 X126.957470 Y190.347337 Z-0.125000
G01 X124.698201 Y194.884223 Z-0.125000
G01 X120.810325 Y204.772133 Z-0.125000
G01 X119.151013 Y209.747776 Z-0.125000
G01 X117.939024 Y214.619884 Z-0.125000
G01 X117.297878 Y219.277997 Z-0.125000
G01 X117.261885 Y223.607251 Z-0.125000
G01 X117.791211 Y227.510106 Z-0.125000
G00 Z3.000000

(End cutting path id: polyline2178)


(Start cutting path id: polyline2180)
(Change tool to Default tool)

G00 Z3.000000
G00 X133.377212 Y182.333624

G00 Z4.875000 (Fast pre-penetrate)
G01 Z-0.125000 F400.0(Penetrate)
G01 X130.141528 Y186.700604 Z-0.125000 F800.000000
G01 X127.663957 Y190.755109 Z-0.125000
G01 X125.407730 Y195.301917 Z-0.125000
G01 X121.523599 Y205.185896 Z-0.125000
G01 X119.862648 Y210.157888 Z-0.125000
G01 X118.642468 Y215.026439 Z-0.125000
G01 X117.984753 Y219.681322 Z-0.125000
G01 X117.923063 Y224.007675 Z-0.125000
G01 X118.418268 Y227.908095 Z-0.125000
G00 Z3.000000

(End cutting path id: polyline2180)


(Start cutting path id: polyline2182)
(Change tool to Default tool)

G00 Z3.000000
G00 X135.226181 Y181.200596

G00 Z4.875000 (Fast pre-penetrate)
G01 Z-0.125000 F400.0(Penetrate)
G01 X130.852742 Y187.086893 Z-0.125000 F800.000000
G01 X128.381396 Y191.164941 Z-0.125000
G01 X126.129803 Y195.720034 Z-0.125000
G01 X122.251429 Y205.596336 Z-0.125000
G01 X120.589636 Y210.562946 Z-0.125000
G01 X119.361873 Y215.426208 Z-0.125000
G01 X118.687823 Y220.076223 Z-0.125000
G01 X118.600390 Y224.398269 Z-0.125000
G01 X119.060865 Y228.295085 Z-0.125000
G00 Z3.000000

(End cutting path id: polyline2182)


(Start cutting path id: polyline2184)
(Change tool to Default tool)

G00 Z3.000000
G00 X137.109272 Y179.939040

G00 Z4.875000 (Fast pre-penetrate)
G01 Z-0.125000 F400.0(Penetrate)
G01 X131.573832 Y187.476691 Z-0.125000 F800.000000
G01 X129.111192 Y191.576551 Z-0.125000
G01 X126.865965 Y196.138103 Z-0.125000
G01 X122.995641 Y206.002564 Z-0.125000
G01 X121.334035 Y210.961544 Z-0.125000
G01 X120.099392 Y215.817551 Z-0.125000
G01 X119.409334 Y220.460919 Z-0.125000
G01 X119.296111 Y224.777022 Z-0.125000
G01 X119.721342 Y228.668830 Z-0.125000
G00 Z3.000000

(End cutting path id: polyline2184)


(Start cutting path id: polyline2186)
(Change tool to Default tool)

G00 Z3.000000
G00 X138.947008 Y178.627074

G00 Z4.875000 (Fast pre-penetrate)
G01 Z-0.125000 F400.0(Penetrate)
G01 X132.305593 Y187.869907 Z-0.125000 F800.000000
G01 X129.854234 Y191.989706 Z-0.125000
G01 X127.617432 Y196.555564 Z-0.125000
G01 X123.757826 Y206.403315 Z-0.125000
G01 X122.097438 Y211.352325 Z-0.125000
G01 X120.856803 Y216.198831 Z-0.125000
G01 X120.151253 Y220.833353 Z-0.125000
G01 X120.012193 Y225.141733 Z-0.125000
G01 X120.401570 Y229.027268 Z-0.125000
G00 Z3.000000

(End cutting path id: polyline2186)


(Start cutting path id: polyline2188)
(Change tool to Default tool)

G00 Z3.000000
G00 X140.383805 Y177.524610

G00 Z4.875000 (Fast pre-penetrate)
G01 Z-0.125000 F400.0(Penetrate)
G01 X139.770696 Y178.672803 Z-0.125000 F800.000000
G01 X133.048401 Y188.266258 Z-0.125000
G01 X130.611317 Y192.403937 Z-0.125000
G01 X128.385094 Y196.971667 Z-0.125000
G01 X124.539109 Y206.797466 Z-0.125000
G01 X122.881154 Y211.733839 Z-0.125000
G01 X121.635418 Y216.568316 Z-0.125000
G01 X120.914936 Y221.191792 Z-0.125000
G01 X120.750086 Y225.490623 Z-0.125000
G01 X121.103189 Y229.368249 Z-0.125000
G00 Z3.000000

(End cutting path id: polyline2188)


(Start cutting path id: polyline2190)
(Change tool to Default tool)

G00 Z3.000000
G00 X141.720672 Y176.428231

G00 Z4.875000 (Fast pre-penetrate)
G01 Z-0.125000 F400.0(Penetrate)
G01 X140.455558 Y178.917737 Z-0.125000 F800.000000
G01 X133.802443 Y188.665231 Z-0.125000
G01 X131.382770 Y192.818589 Z-0.125000
G01 X129.169465 Y197.385618 Z-0.125000
G01 X125.340236 Y207.183661 Z-0.125000
G01 X123.686073 Y212.104635 Z-0.125000
G01 X122.436358 Y216.924414 Z-0.125000
G01 X121.701554 Y221.534457 Z-0.125000
G01 X121.511101 Y225.821633 Z-0.125000
G01 X121.827462 Y229.689711 Z-0.125000
G00 Z3.000000

(End cutting path id: polyline2190)


(Start cutting path id: polyline2192)
(Change tool to Default tool)

G00 Z3.000000
G00 X142.582835 Y175.691929

G00 Z4.875000 (Fast pre-penetrate)
G01 Z-0.125000 F400.0(Penetrate)
G01 X142.398279 Y176.559802 Z-0.125000 F800.000000
G01 X141.138642 Y179.169927 Z-0.125000
G01 X134.567717 Y189.066309 Z-0.125000
G01 X132.168780 Y193.232867 Z-0.125000
G01 X129.970921 Y197.796385 Z-0.125000
G01 X126.161725 Y207.560682 Z-0.125000
G01 X124.512804 Y212.463214 Z-0.125000
G01 X123.260187 Y217.265441 Z-0.125000
G01 X122.511856 Y221.859617 Z-0.125000
G01 X122.296035 Y226.133032 Z-0.125000
G01 X122.575418 Y229.990017 Z-0.125000
G00 Z3.000000

(End cutting path id: polyline2192)


(Start cutting path id: polyline2194)
(Change tool to Default tool)

G00 Z3.000000
G00 X143.386771 Y175.003884

G00 Z4.875000 (Fast pre-penetrate)
G01 Z-0.125000 F400.0(Penetrate)
G01 X143.047803 Y176.741689 Z-0.125000 F800.000000
G01 X141.819245 Y179.429091 Z-0.125000
G01 X135.343991 Y189.468839 Z-0.125000
G01 X132.969206 Y193.645929 Z-0.125000
G01 X130.789367 Y198.203034 Z-0.125000
G01 X127.003761 Y207.927218 Z-0.125000
G01 X125.361533 Y212.808126 Z-0.125000
G01 X124.107325 Y217.589899 Z-0.125000
G01 X123.346357 Y222.165493 Z-0.125000
G01 X123.105541 Y226.422994 Z-0.125000
G01 X123.347714 Y230.267201 Z-0.125000
G00 Z3.000000

(End cutting path id: polyline2194)


(Start cutting path id: polyline2196)
(Change tool to Default tool)

G00 Z3.000000
G00 X144.147599 Y174.281905

G00 Z4.875000 (Fast pre-penetrate)
G01 Z-0.125000 F400.0(Penetrate)
G01 X143.689745 Y176.931627 Z-0.125000 F800.000000
G01 X142.496665 Y179.694901 Z-0.125000
G01 X136.130750 Y189.871884 Z-0.125000
G01 X133.783767 Y194.056883 Z-0.125000
G01 X131.624616 Y198.604487 Z-0.125000
G01 X127.866205 Y208.281819 Z-0.125000
G01 X126.232261 Y213.137919 Z-0.125000
G01 X124.977866 Y217.896196 Z-0.125000
G01 X124.205196 Y222.450587 Z-0.125000
G01 X123.939901 Y226.689974 Z-0.125000
G01 X124.144770 Y230.519765 Z-0.125000
G00 Z3.000000

(End cutting path id: polyline2196)


(Start cutting path id: polyline2198)
(Change tool to Default tool)

G00 Z3.000000
G00 X144.667845 Y173.788197

G00 Z4.875000 (Fast pre-penetrate)
G01 Z-0.125000 F400.0(Penetrate)
G01 X144.752517 Y174.437768 Z-0.125000 F800.000000
G01 X144.323214 Y177.129195 Z-0.125000
G01 X143.169966 Y179.966702 Z-0.125000
G01 X141.422145 Y183.054340 Z-0.125000
G01 X136.927478 Y190.274648 Z-0.125000
G01 X134.611902 Y194.464655 Z-0.125000
G01 X132.476201 Y198.999622 Z-0.125000
G01 X128.748775 Y208.623314 Z-0.125000
G01 X127.124754 Y213.451144 Z-0.125000
G01 X125.871529 Y218.182788 Z-0.125000
G01 X125.088281 Y222.713214 Z-0.125000
G01 X124.799115 Y226.932288 Z-0.125000
G01 X124.966867 Y230.746071 Z-0.125000
G00 Z3.000000

(End cutting path id: polyline2198)


(Start cutting path id: polyline2200)
(Change tool to Default tool)

G00 Z3.000000
G00 X145.169182 Y173.312463

G00 Z4.875000 (Fast pre-penetrate)
G01 Z-0.125000 F400.0(Penetrate)
G01 X145.339555 Y174.562318 Z-0.125000 F800.000000
G01 X144.947370 Y177.333923 Z-0.125000
G01 X143.838400 Y180.244026 Z-0.125000
G01 X142.138273 Y183.391201 Z-0.125000
G01 X137.733380 Y190.676054 Z-0.125000
G01 X135.452862 Y194.868121 Z-0.125000
G01 X133.343465 Y199.387220 Z-0.125000
G01 X131.444554 Y204.132860 Z-0.125000
G01 X128.038450 Y213.746395 Z-0.125000
G01 X126.787940 Y218.448317 Z-0.125000
G01 X125.995283 Y222.952064 Z-0.125000
G01 X125.683042 Y227.148624 Z-0.125000
G01 X125.813864 Y230.944808 Z-0.125000
G00 Z3.000000

(End cutting path id: polyline2200)


(Start cutting path id: polyline2202)
(Change tool to Default tool)

G00 Z3.000000
G00 X145.650112 Y172.856060

G00 Z4.875000 (Fast pre-penetrate)
G01 Z-0.125000 F400.0(Penetrate)
G01 X145.913020 Y174.695200 Z-0.125000 F800.000000
G01 X145.561368 Y177.545298 Z-0.125000
G01 X144.501030 Y180.526078 Z-0.125000
G01 X142.853466 Y183.730730 Z-0.125000
G01 X138.547567 Y191.075167 Z-0.125000
G01 X136.305897 Y195.266298 Z-0.125000
G01 X134.225567 Y199.766113 Z-0.125000
G01 X132.347672 Y204.479878 Z-0.125000
G01 X128.972600 Y214.022362 Z-0.125000
G01 X127.726396 Y218.691333 Z-0.125000
G01 X126.925642 Y223.165686 Z-0.125000
G01 X126.591215 Y227.337579 Z-0.125000
G01 X126.685575 Y231.114573 Z-0.125000
G00 Z3.000000

(End cutting path id: polyline2202)


(Start cutting path id: polyline2204)
(Change tool to Default tool)

G00 Z3.000000
G00 X146.104362 Y172.385147

G00 Z4.875000 (Fast pre-penetrate)
G01 Z-0.125000 F400.0(Penetrate)
G01 X146.472068 Y174.835804 Z-0.125000 F800.000000
G01 X146.164461 Y177.762524 Z-0.125000
G01 X145.157013 Y180.812108 Z-0.125000
G01 X143.566739 Y184.071991 Z-0.125000
G01 X139.369055 Y191.470817 Z-0.125000
G01 X137.169885 Y195.657922 Z-0.125000
G01 X135.121523 Y200.135083 Z-0.125000
G01 X131.510082 Y209.555310 Z-0.125000
G01 X129.926268 Y214.277781 Z-0.125000
G01 X128.686008 Y218.910618 Z-0.125000
G01 X127.878561 Y223.352909 Z-0.125000
G01 X127.523025 Y227.497983 Z-0.125000
G01 X127.581532 Y231.254382 Z-0.125000
G00 Z3.000000

(End cutting path id: polyline2204)


(Start cutting path id: polyline2206)
(Change tool to Default tool)

G00 Z3.000000
G00 X146.523227 Y171.943768

G00 Z4.875000 (Fast pre-penetrate)
G01 Z-0.125000 F400.0(Penetrate)
G01 X147.016139 Y174.983664 Z-0.125000 F800.000000
G01 X146.755898 Y177.984945 Z-0.125000
G01 X145.805460 Y181.101228 Z-0.125000
G01 X144.277111 Y184.414142 Z-0.125000
G01 X138.043796 Y196.041777 Z-0.125000
G01 X136.030164 Y200.492960 Z-0.125000
G01 X132.465154 Y209.831043 Z-0.125000
G01 X130.898331 Y214.511435 Z-0.125000
G01 X129.665700 Y219.104956 Z-0.125000
G01 X128.853105 Y223.512423 Z-0.125000
G01 X128.477629 Y227.628711 Z-0.125000
G01 X128.501078 Y231.363205 Z-0.125000
G00 Z3.000000

(End cutting path id: polyline2206)


(Start cutting path id: polyline2208)
(Change tool to Default tool)

G00 Z3.000000
G00 X146.853910 Y171.595346

G00 Z4.875000 (Fast pre-penetrate)
G01 Z-0.125000 F400.0(Penetrate)
G01 X147.544623 Y175.137936 Z-0.125000 F800.000000
G01 X147.334886 Y178.211813 Z-0.125000
G01 X146.445529 Y181.392500 Z-0.125000
G01 X144.983597 Y184.756011 Z-0.125000
G01 X138.926273 Y196.416785 Z-0.125000
G01 X136.950179 Y200.838621 Z-0.125000
G01 X133.435579 Y210.087258 Z-0.125000
G01 X131.887477 Y214.722108 Z-0.125000
G01 X130.664255 Y219.273269 Z-0.125000
G01 X129.848102 Y223.643339 Z-0.125000
G01 X129.454044 Y227.728829 Z-0.125000
G01 X129.443419 Y231.440201 Z-0.125000
G00 Z3.000000

(End cutting path id: polyline2208)


(Start cutting path id: polyline2210)
(Change tool to Default tool)

G00 Z3.000000
G00 X147.170551 Y171.261574

G00 Z4.875000 (Fast pre-penetrate)
G01 Z-0.125000 F400.0(Penetrate)
G01 X147.513918 Y172.174053 Z-0.125000 F800.000000
G01 X148.057006 Y175.298012 Z-0.125000
G01 X147.900721 Y178.442144 Z-0.125000
G01 X147.076284 Y181.684943 Z-0.125000
G01 X145.685216 Y185.096617 Z-0.125000
G01 X139.816004 Y196.781776 Z-0.125000
G01 X137.880257 Y201.170755 Z-0.125000
G01 X134.419811 Y210.323019 Z-0.125000
G01 X132.892304 Y214.908816 Z-0.125000
G01 X131.680268 Y219.414482 Z-0.125000
G01 X130.862243 Y223.744720 Z-0.125000
G01 X130.451101 Y227.797540 Z-0.125000
G01 X130.407619 Y231.484572 Z-0.125000
G00 Z3.000000

(End cutting path id: polyline2210)


(Start cutting path id: polyline2212)
(Change tool to Default tool)

G00 Z3.000000
G00 X147.472823 Y170.943107

G00 Z4.875000 (Fast pre-penetrate)
G01 Z-0.125000 F400.0(Penetrate)
G01 X147.970181 Y172.269443 Z-0.125000 F800.000000
G01 X148.552773 Y175.463049 Z-0.125000
G01 X148.452796 Y178.675143 Z-0.125000
G01 X147.696929 Y181.977619 Z-0.125000
G01 X146.380844 Y185.434882 Z-0.125000
G01 X140.711633 Y197.135534 Z-0.125000
G01 X138.818853 Y201.488379 Z-0.125000
G01 X135.416400 Y210.537109 Z-0.125000
G01 X133.911266 Y215.070671 Z-0.125000
G01 X132.712242 Y219.527893 Z-0.125000
G01 X131.894077 Y223.815724 Z-0.125000
G01 X131.467489 Y227.834142 Z-0.125000
G01 X131.392506 Y231.495853 Z-0.125000
G00 Z3.000000

(End cutting path id: polyline2212)


(Start cutting path id: polyline2214)
(Change tool to Default tool)

G00 Z3.000000
G00 X147.760304 Y170.640133

G00 Z4.875000 (Fast pre-penetrate)
G01 Z-0.125000 F400.0(Penetrate)
G01 X148.408002 Y172.371339 Z-0.125000 F800.000000
G01 X149.031596 Y175.632205 Z-0.125000
G01 X148.990501 Y178.909780 Z-0.125000
G01 X148.306621 Y182.269500 Z-0.125000
G01 X147.069544 Y185.769684 Z-0.125000
G01 X141.611614 Y197.476936 Z-0.125000
G01 X139.764377 Y201.790323 Z-0.125000
G01 X136.423661 Y210.728778 Z-0.125000
G01 X134.942678 Y215.206642 Z-0.125000
G01 X133.758539 Y219.612518 Z-0.125000
G01 X132.942105 Y223.855697 Z-0.125000
G01 X132.501803 Y227.838074 Z-0.125000
G01 X132.396865 Y231.473573 Z-0.125000
G00 Z3.000000

(End cutting path id: polyline2214)


(Start cutting path id: polyline2216)
(Change tool to Default tool)

G00 Z3.000000
G00 X148.030514 Y170.346567

G00 Z4.875000 (Fast pre-penetrate)
G01 Z-0.125000 F400.0(Penetrate)
G01 X148.827242 Y172.479086 Z-0.125000 F800.000000
G01 X149.493148 Y175.804591 Z-0.125000
G01 X149.513274 Y179.145167 Z-0.125000
G01 X148.904659 Y182.559509 Z-0.125000
G01 X147.750241 Y186.099946 Z-0.125000
G01 X140.715330 Y202.075651 Z-0.125000
G01 X137.439861 Y210.896998 Z-0.125000
G01 X135.984856 Y215.316074 Z-0.125000
G01 X134.817379 Y219.667842 Z-0.125000
G01 X134.004644 Y223.864168 Z-0.125000
G01 X133.552547 Y227.808961 Z-0.125000
G01 X133.419384 Y231.417593 Z-0.125000
G00 Z3.000000

(End cutting path id: polyline2216)


(Start cutting path id: polyline2218)
(Change tool to Default tool)

G00 Z3.000000
G00 X148.280316 Y170.054078

G00 Z4.875000 (Fast pre-penetrate)
G01 Z-0.125000 F400.0(Penetrate)
G01 X149.227853 Y172.591748 Z-0.125000 F800.000000
G01 X149.937194 Y175.979364 Z-0.125000
G01 X150.020696 Y179.380319 Z-0.125000
G01 X149.490199 Y182.846569 Z-0.125000
G01 X148.422044 Y186.424637 Z-0.125000
G01 X146.945228 Y190.150893 Z-0.125000
G01 X141.669934 Y202.343287 Z-0.125000
G01 X138.463270 Y211.041160 Z-0.125000
G01 X137.035880 Y215.398405 Z-0.125000
G01 X135.887032 Y219.693304 Z-0.125000
G01 X135.079913 Y223.840672 Z-0.125000
G01 X134.617987 Y227.746522 Z-0.125000
G01 X134.458566 Y231.327633 Z-0.125000
G00 Z3.000000

(End cutting path id: polyline2218)


(Start cutting path id: polyline2220)
(Change tool to Default tool)

G00 Z3.000000
G00 X148.515749 Y169.778439

G00 Z4.875000 (Fast pre-penetrate)
G01 Z-0.125000 F400.0(Penetrate)
G01 X149.609882 Y172.708528 Z-0.125000 F800.000000
G01 X150.363548 Y176.155587 Z-0.125000
G01 X150.512250 Y179.614208 Z-0.125000
G01 X150.062681 Y183.129744 Z-0.125000
G01 X149.083925 Y186.742542 Z-0.125000
G01 X147.697116 Y190.484431 Z-0.125000
G01 X142.626504 Y202.592387 Z-0.125000
G01 X139.491967 Y211.160515 Z-0.125000
G01 X138.093925 Y215.452934 Z-0.125000
G01 X136.965578 Y219.688530 Z-0.125000
G01 X136.166135 Y223.785020 Z-0.125000
G01 X135.696486 Y227.650710 Z-0.125000
G01 X135.512913 Y231.203831 Z-0.125000
G00 Z3.000000

(End cutting path id: polyline2220)


(Start cutting path id: polyline2222)
(Change tool to Default tool)

G00 Z3.000000
G00 X148.737094 Y169.519322

G00 Z4.875000 (Fast pre-penetrate)
G01 Z-0.125000 F400.0(Penetrate)
G01 X149.973516 Y172.828585 Z-0.125000 F800.000000
G01 X150.772116 Y176.332279 Z-0.125000
G01 X150.987704 Y179.845896 Z-0.125000
G01 X150.621355 Y183.407864 Z-0.125000
G01 X149.734993 Y187.052631 Z-0.125000
G01 X148.441281 Y190.807345 Z-0.125000
G01 X143.583308 Y202.822157 Z-0.125000
G01 X140.524175 Y211.254548 Z-0.125000
G01 X139.157119 Y215.479379 Z-0.125000
G01 X138.051051 Y219.653239 Z-0.125000
G01 X137.261344 Y223.697025 Z-0.125000
G01 X136.786265 Y227.521573 Z-0.125000
G01 X136.580788 Y231.046330 Z-0.125000
G00 Z3.000000

(End cutting path id: polyline2222)


(Start cutting path id: polyline2224)
(Change tool to Default tool)

G00 Z3.000000
G00 X148.938733 Y169.283187

G00 Z4.875000 (Fast pre-penetrate)
G01 Z-0.125000 F400.0(Penetrate)
G01 X150.318896 Y172.951029 Z-0.125000 F800.000000
G01 X151.162898 Y176.508597 Z-0.125000
G01 X151.446728 Y180.074355 Z-0.125000
G01 X151.165753 Y183.680039 Z-0.125000
G01 X150.374361 Y187.354013 Z-0.125000
G01 X149.176694 Y191.118650 Z-0.125000
G01 X144.538708 Y203.031800 Z-0.125000
G01 X141.557928 Y211.322744 Z-0.125000
G01 X140.223448 Y215.477366 Z-0.125000
G01 X139.141532 Y219.587336 Z-0.125000
G01 X138.363714 Y223.576828 Z-0.125000
G01 X137.885452 Y227.359204 Z-0.125000
G01 X137.660504 Y230.855549 Z-0.125000
G00 Z3.000000

(End cutting path id: polyline2224)


(Start cutting path id: polyline2226)
(Change tool to Default tool)

G00 Z3.000000
G00 X149.115472 Y169.076305

G00 Z4.875000 (Fast pre-penetrate)
G01 Z-0.125000 F400.0(Penetrate)
G01 X150.646302 Y173.074877 Z-0.125000 F800.000000
G01 X151.535987 Y176.683557 Z-0.125000
G01 X151.889043 Y180.298649 Z-0.125000
G01 X151.695267 Y183.945194 Z-0.125000
G01 X151.001231 Y187.645567 Z-0.125000
G01 X149.902137 Y191.417364 Z-0.125000
G01 X144.019257 Y207.284059 Z-0.125000
G01 X141.290948 Y215.446802 Z-0.125000
G01 X140.235009 Y219.490823 Z-0.125000
G01 X139.471186 Y223.424522 Z-0.125000
G01 X138.992175 Y227.164070 Z-0.125000
G01 X138.750330 Y230.631911 Z-0.125000
G00 Z3.000000

(End cutting path id: polyline2226)


(Start cutting path id: polyline2228)
(Change tool to Default tool)

G00 Z3.000000
G00 X149.282662 Y168.880470

G00 Z4.875000 (Fast pre-penetrate)
G01 Z-0.125000 F400.0(Penetrate)
G01 X150.956203 Y173.199334 Z-0.125000 F800.000000
G01 X151.891523 Y176.856223 Z-0.125000
G01 X152.314695 Y180.517840 Z-0.125000
G01 X152.209569 Y184.202439 Z-0.125000
G01 X151.614808 Y187.926401 Z-0.125000
G01 X150.616627 Y191.702646 Z-0.125000
G01 X145.011447 Y207.377905 Z-0.125000
G01 X142.357652 Y215.387687 Z-0.125000
G01 X141.329469 Y219.363838 Z-0.125000
G01 X140.581793 Y223.240481 Z-0.125000
G01 X140.104515 Y226.936547 Z-0.125000
G01 X139.848487 Y230.376118 Z-0.125000
G00 Z3.000000

(End cutting path id: polyline2228)


(Start cutting path id: polyline2230)
(Change tool to Default tool)

G00 Z3.000000
G00 X149.441053 Y168.695072

G00 Z4.875000 (Fast pre-penetrate)
G01 Z-0.125000 F400.0(Penetrate)
G01 X151.248974 Y173.323463 Z-0.125000 F800.000000
G01 X152.229742 Y177.025707 Z-0.125000
G01 X152.723450 Y180.730947 Z-0.125000
G01 X152.708191 Y184.450790 Z-0.125000
G01 X152.214437 Y188.195628 Z-0.125000
G01 X151.319089 Y191.973651 Z-0.125000
G01 X150.132796 Y195.789774 Z-0.125000
G01 X145.998394 Y207.447646 Z-0.125000
G01 X143.421641 Y215.300019 Z-0.125000
G01 X142.422993 Y219.206618 Z-0.125000
G01 X141.693571 Y223.025175 Z-0.125000
G01 X141.220552 Y226.677337 Z-0.125000
G01 X140.953104 Y230.088917 Z-0.125000
G00 Z3.000000

(End cutting path id: polyline2230)


(Start cutting path id: polyline2232)
(Change tool to Default tool)

G00 Z3.000000
G00 X149.591206 Y168.519269

G00 Z4.875000 (Fast pre-penetrate)
G01 Z-0.125000 F400.0(Penetrate)
G01 X151.525221 Y173.446375 Z-0.125000 F800.000000
G01 X152.550877 Y177.191119 Z-0.125000
G01 X153.115495 Y180.937127 Z-0.125000
G01 X153.190899 Y184.689406 Z-0.125000
G01 X152.799462 Y188.452405 Z-0.125000
G01 X152.008585 Y192.229538 Z-0.125000
G01 X150.919461 Y196.023054 Z-0.125000
G01 X145.670613 Y211.333416 Z-0.125000
G01 X144.480950 Y215.184128 Z-0.125000
G01 X143.513474 Y219.019675 Z-0.125000
G01 X142.804507 Y222.779163 Z-0.125000
G01 X142.062448 Y229.771153 Z-0.125000
G00 Z3.000000

(End cutting path id: polyline2232)


(Start cutting path id: polyline2234)
(Change tool to Default tool)

G00 Z3.000000
G00 X149.733777 Y168.352360

G00 Z4.875000 (Fast pre-penetrate)
G01 Z-0.125000 F400.0(Penetrate)
G01 X151.785462 Y173.567133 Z-0.125000 F800.000000
G01 X152.855442 Y177.351569 Z-0.125000
G01 X153.490831 Y181.135583 Z-0.125000
G01 X153.657506 Y184.917491 Z-0.125000
G01 X153.369370 Y188.695982 Z-0.125000
G01 X152.684226 Y192.469793 Z-0.125000
G01 X151.693722 Y196.238267 Z-0.125000
G01 X145.533659 Y215.040341 Z-0.125000
G01 X144.598994 Y218.803526 Z-0.125000
G01 X143.912634 Y222.503196 Z-0.125000
G01 X143.174600 Y229.423994 Z-0.125000
G00 Z3.000000

(End cutting path id: polyline2234)


(Start cutting path id: polyline2236)
(Change tool to Default tool)

G00 Z3.000000
G00 X149.869560 Y168.193361

G00 Z4.875000 (Fast pre-penetrate)
G01 Z-0.125000 F400.0(Penetrate)
G01 X152.030396 Y173.684944 Z-0.125000 F800.000000
G01 X153.143766 Y177.506215 Z-0.125000
G01 X153.849644 Y181.325381 Z-0.125000
G01 X154.107731 Y185.134249 Z-0.125000
G01 X153.923644 Y188.925611 Z-0.125000
G01 X153.345171 Y192.693618 Z-0.125000
G01 X152.454410 Y196.434898 Z-0.125000
G01 X151.353444 Y200.148797 Z-0.125000
G01 X147.687615 Y211.181437 Z-0.125000
G01 X146.577896 Y214.869125 Z-0.125000
G01 X145.677633 Y218.558872 Z-0.125000
G01 X145.016034 Y222.198257 Z-0.125000
G01 X144.287736 Y229.048659 Z-0.125000
G00 Z3.000000

(End cutting path id: polyline2236)


(Start cutting path id: polyline2238)
(Change tool to Default tool)

G00 Z3.000000
G00 X149.999399 Y168.041335

G00 Z4.875000 (Fast pre-penetrate)
G01 Z-0.125000 F400.0(Penetrate)
G01 X152.260821 Y173.798916 Z-0.125000 F800.000000
G01 X153.416503 Y177.654262 Z-0.125000
G01 X154.192262 Y181.505864 Z-0.125000
G01 X154.541667 Y185.339024 Z-0.125000
G01 X154.461817 Y189.140731 Z-0.125000
G01 X153.990716 Y192.900640 Z-0.125000
G01 X153.200541 Y196.612573 Z-0.125000
G01 X152.185230 Y200.275454 Z-0.125000
G01 X148.680085 Y211.066997 Z-0.125000
G01 X147.611883 Y214.671137 Z-0.125000
G01 X146.747520 Y218.286603 Z-0.125000
G01 X146.112693 Y221.865280 Z-0.125000
G01 X145.399982 Y228.646457 Z-0.125000
G00 Z3.000000

(End cutting path id: polyline2238)


(Start cutting path id: polyline2240)
(Change tool to Default tool)

G00 Z3.000000
G00 X150.121843 Y167.889825

G00 Z4.875000 (Fast pre-penetrate)
G01 Z-0.125000 F400.0(Penetrate)
G01 X152.477532 Y173.908254 Z-0.125000 F800.000000
G01 X153.674216 Y177.794913 Z-0.125000
G01 X154.518967 Y181.676237 Z-0.125000
G01 X154.959269 Y185.531115 Z-0.125000
G01 X154.983654 Y189.340732 Z-0.125000
G01 X154.620207 Y193.090344 Z-0.125000
G01 X153.931133 Y196.770964 Z-0.125000
G01 X153.002178 Y200.381188 Z-0.125000
G01 X148.633887 Y214.447171 Z-0.125000
G01 X147.806829 Y217.987608 Z-0.125000
G01 X147.200788 Y221.505437 Z-0.125000
G01 X146.509606 Y228.218745 Z-0.125000
G00 Z3.000000

(End cutting path id: polyline2240)


(Start cutting path id: polyline2242)
(Change tool to Default tool)

G00 Z3.000000
G00 X150.238156 Y167.738268

G00 Z4.875000 (Fast pre-penetrate)
G01 Z-0.125000 F400.0(Penetrate)
G01 X152.681371 Y174.012116 Z-0.125000 F800.000000
G01 X153.917653 Y177.927561 Z-0.125000
G01 X154.830225 Y181.835938 Z-0.125000
G01 X155.360628 Y185.709960 Z-0.125000
G01 X155.488923 Y189.525193 Z-0.125000
G01 X155.233083 Y193.262449 Z-0.125000
G01 X154.645295 Y196.909930 Z-0.125000
G01 X153.803119 Y200.465954 Z-0.125000
G01 X149.642178 Y214.198024 Z-0.125000
G01 X148.853734 Y217.663010 Z-0.125000
G01 X148.278538 Y221.120039 Z-0.125000
G01 X147.614644 Y227.767210 Z-0.125000
G00 Z3.000000

(End cutting path id: polyline2242)


(Start cutting path id: polyline2244)
(Change tool to Default tool)

G00 Z3.000000
G00 X150.351473 Y167.590596

G00 Z4.875000 (Fast pre-penetrate)
G01 Z-0.125000 F400.0(Penetrate)
G01 X152.873322 Y174.109753 Z-0.125000 F800.000000
G01 X154.147469 Y178.051315 Z-0.125000
G01 X155.126506 Y181.984312 Z-0.125000
G01 X155.746027 Y185.875091 Z-0.125000
G01 X155.977341 Y189.693694 Z-0.125000
G01 X155.828733 Y193.416580 Z-0.125000
G01 X155.342187 Y197.029379 Z-0.125000
G01 X154.586929 Y200.529890 Z-0.125000
G01 X150.635209 Y213.924772 Z-0.125000
G01 X149.886644 Y217.314072 Z-0.125000
G01 X149.344165 Y220.710535 Z-0.125000
G01 X148.713457 Y227.293535 Z-0.125000
G00 Z3.000000

(End cutting path id: polyline2244)


(Start cutting path id: polyline2246)
(Change tool to Default tool)

G00 Z3.000000
G00 X150.462683 Y167.445591

G00 Z4.875000 (Fast pre-penetrate)
G01 Z-0.125000 F400.0(Penetrate)
G01 X153.054413 Y174.200463 Z-0.125000 F800.000000
G01 X154.364554 Y178.165709 Z-0.125000
G01 X155.408417 Y182.120798 Z-0.125000
G01 X156.115606 Y186.026039 Z-0.125000
G01 X156.449050 Y189.845954 Z-0.125000
G01 X156.406925 Y193.552691 Z-0.125000
G01 X156.021245 Y197.129262 Z-0.125000
G01 X155.352718 Y200.573139 Z-0.125000
G01 X151.611391 Y213.628538 Z-0.125000
G01 X150.903874 Y216.942060 Z-0.125000
G01 X150.395938 Y220.278377 Z-0.125000
G01 X149.804313 Y226.799453 Z-0.125000
G00 Z3.000000

(End cutting path id: polyline2246)


(Start cutting path id: polyline2248)
(Change tool to Default tool)

G00 Z3.000000
G00 X150.572911 Y167.301991

G00 Z4.875000 (Fast pre-penetrate)
G01 Z-0.125000 F400.0(Penetrate)
G01 X153.225676 Y174.283543 Z-0.125000 F800.000000
G01 X154.569844 Y178.270133 Z-0.125000
G01 X155.676614 Y182.244974 Z-0.125000
G01 X156.469785 Y186.162431 Z-0.125000
G01 X156.903909 Y189.981737 Z-0.125000
G01 X156.967331 Y193.670642 Z-0.125000
G01 X156.681722 Y197.209768 Z-0.125000
G01 X156.099692 Y200.596027 Z-0.125000
G01 X155.298189 Y203.846829 Z-0.125000
G01 X152.569412 Y213.310539 Z-0.125000
G01 X151.903927 Y216.548564 Z-0.125000
G01 X151.432359 Y219.825203 Z-0.125000
G01 X150.885433 Y226.286930 Z-0.125000
G00 Z3.000000

(End cutting path id: polyline2248)


(Start cutting path id: polyline2250)
(Change tool to Default tool)

G00 Z3.000000
G00 X150.683092 Y167.158438

G00 Z4.875000 (Fast pre-penetrate)
G01 Z-0.125000 F400.0(Penetrate)
G01 X153.388185 Y174.358292 Z-0.125000 F800.000000
G01 X154.764182 Y178.363978 Z-0.125000
G01 X155.931753 Y182.356465 Z-0.125000
G01 X156.808940 Y186.284126 Z-0.125000
G01 X157.342151 Y190.100858 Z-0.125000
G01 X157.509623 Y193.770526 Z-0.125000
G01 X157.323242 Y197.271037 Z-0.125000
G01 X156.827007 Y200.599022 Z-0.125000
G01 X156.093467 Y203.774046 Z-0.125000
G01 X153.507868 Y212.972227 Z-0.125000
G01 X152.885351 Y216.135035 Z-0.125000
G01 X152.451789 Y219.352886 Z-0.125000
G01 X151.955226 Y225.757931 Z-0.125000
G00 Z3.000000

(End cutting path id: polyline2250)


(Start cutting path id: polyline2252)
(Change tool to Default tool)

G00 Z3.000000
G00 X150.794302 Y167.013480

G00 Z4.875000 (Fast pre-penetrate)
G01 Z-0.125000 F400.0(Penetrate)
G01 X154.948644 Y178.446871 Z-0.125000 F800.000000
G01 X156.174675 Y182.454851 Z-0.125000
G01 X157.133725 Y186.390750 Z-0.125000
G01 X157.763872 Y190.203363 Z-0.125000
G01 X158.033801 Y193.852436 Z-0.125000
G01 X157.945291 Y197.313490 Z-0.125000
G01 X157.534055 Y200.582640 Z-0.125000
G01 X156.868009 Y203.681745 Z-0.125000
G01 X154.425589 Y212.614958 Z-0.125000
G01 X153.846882 Y215.703204 Z-0.125000
G01 X153.452824 Y218.863251 Z-0.125000
G01 X153.012148 Y225.214516 Z-0.125000
G00 Z3.000000

(End cutting path id: polyline2252)


(Start cutting path id: polyline2254)
(Change tool to Default tool)

G00 Z3.000000
G00 X150.907619 Y166.865808

G00 Z4.875000 (Fast pre-penetrate)
G01 Z-0.125000 F400.0(Penetrate)
G01 X155.124306 Y178.518344 Z-0.125000 F800.000000
G01 X156.406223 Y182.539850 Z-0.125000
G01 X157.444563 Y186.482255 Z-0.125000
G01 X158.169444 Y190.289251 Z-0.125000
G01 X158.539818 Y193.916606 Z-0.125000
G01 X158.547635 Y197.337408 Z-0.125000
G01 X158.220275 Y200.547489 Z-0.125000
G01 X157.621020 Y203.570816 Z-0.125000
G01 X155.321405 Y212.240325 Z-0.125000
G01 X154.787164 Y215.254898 Z-0.125000
G01 X154.434154 Y218.358122 Z-0.125000
G01 X154.054700 Y224.658931 Z-0.125000
G00 Z3.000000

(End cutting path id: polyline2254)


(Start cutting path id: polyline2256)
(Change tool to Default tool)

G00 Z3.000000
G00 X151.024165 Y166.713923

G00 Z4.875000 (Fast pre-penetrate)
G01 Z-0.125000 F400.0(Penetrate)
G01 X156.627333 Y182.611323 Z-0.125000 F800.000000
G01 X157.742247 Y186.558642 Z-0.125000
G01 X158.559196 Y190.358711 Z-0.125000
G01 X159.027722 Y193.963319 Z-0.125000
G01 X159.130086 Y197.343352 Z-0.125000
G01 X158.885292 Y200.494318 Z-0.125000
G01 X158.352033 Y203.442100 Z-0.125000
G01 X156.194427 Y211.850058 Z-0.125000
G01 X155.705166 Y214.791896 Z-0.125000
G01 X155.394516 Y217.839655 Z-0.125000
G01 X155.081385 Y224.093330 Z-0.125000
G00 Z3.000000

(End cutting path id: polyline2256)


(Start cutting path id: polyline2258)
(Change tool to Default tool)

G00 Z3.000000
G00 X151.149043 Y166.551133

G00 Z4.875000 (Fast pre-penetrate)
G01 Z-0.125000 F400.0(Penetrate)
G01 X156.838989 Y182.669175 Z-0.125000 F800.000000
G01 X158.027435 Y186.619911 Z-0.125000
G01 X158.933642 Y190.411836 Z-0.125000
G01 X159.497745 Y193.993040 Z-0.125000
G01 X159.692504 Y197.332025 Z-0.125000
G01 X159.528684 Y200.423922 Z-0.125000
G01 X159.060439 Y203.296721 Z-0.125000
G01 X157.043671 Y211.445843 Z-0.125000
G01 X156.599952 Y214.316162 Z-0.125000
G01 X156.332831 Y217.309954 Z-0.125000
G01 X156.090939 Y223.520005 Z-0.125000
G00 Z3.000000

(End cutting path id: polyline2258)


(Start cutting path id: polyline2260)
(Change tool to Default tool)

G00 Z3.000000
G00 X151.283142 Y166.376453

G00 Z4.875000 (Fast pre-penetrate)
G01 Z-0.125000 F400.0(Penetrate)
G01 X152.662462 Y170.576197 Z-0.125000 F800.000000
G01 X157.042173 Y182.713219 Z-0.125000
G01 X158.300968 Y186.666155 Z-0.125000
G01 X159.293251 Y190.449046 Z-0.125000
G01 X159.950170 Y194.006239 Z-0.125000
G01 X160.234890 Y197.304082 Z-0.125000
G01 X160.150312 Y200.337284 Z-0.125000
G01 X159.745863 Y203.135849 Z-0.125000
G01 X157.868389 Y211.029552 Z-0.125000
G01 X157.470493 Y213.829756 Z-0.125000
G01 X157.247978 Y216.771219 Z-0.125000
G01 X157.082005 Y222.941392 Z-0.125000
G00 Z3.000000

(End cutting path id: polyline2260)


(Start cutting path id: polyline2262)
(Change tool to Default tool)

G00 Z3.000000
G00 X151.425712 Y166.190588

G00 Z4.875000 (Fast pre-penetrate)
G01 Z-0.125000 F400.0(Penetrate)
G01 X152.811164 Y170.585324 Z-0.125000 F800.000000
G01 X158.563736 Y186.697656 Z-0.125000
G01 X159.638678 Y190.470670 Z-0.125000
G01 X160.385277 Y194.003525 Z-0.125000
G01 X160.757476 Y197.260225 Z-0.125000
G01 X160.750128 Y200.235295 Z-0.125000
G01 X160.408071 Y202.960655 Z-0.125000
G01 X158.667972 Y210.603105 Z-0.125000
G01 X158.316040 Y213.334785 Z-0.125000
G01 X158.139160 Y216.225651 Z-0.125000
G01 X158.053412 Y222.359737 Z-0.125000
G00 Z3.000000

(End cutting path id: polyline2262)


(Start cutting path id: polyline2264)
(Change tool to Default tool)

G00 Z3.000000
G00 X151.578112 Y165.991991

G00 Z4.875000 (Fast pre-penetrate)
G01 Z-0.125000 F400.0(Penetrate)
G01 X152.962159 Y170.583873 Z-0.125000 F800.000000
G01 X158.816581 Y186.714599 Z-0.125000
G01 X159.970671 Y190.477176 Z-0.125000
G01 X160.803580 Y193.985505 Z-0.125000
G01 X161.260264 Y197.201437 Z-0.125000
G01 X161.327992 Y200.119169 Z-0.125000
G01 X161.046923 Y202.772496 Z-0.125000
G01 X159.441906 Y210.168373 Z-0.125000
G01 X159.136030 Y212.833401 Z-0.125000
G01 X159.005489 Y215.675495 Z-0.125000
G01 X159.004085 Y221.777519 Z-0.125000
G00 Z3.000000

(End cutting path id: polyline2264)


(Start cutting path id: polyline2266)
(Change tool to Default tool)

G00 Z3.000000
G00 X151.741605 Y165.778931

G00 Z4.875000 (Fast pre-penetrate)
G01 Z-0.125000 F400.0(Penetrate)
G01 X153.116759 Y170.571563 Z-0.125000 F800.000000
G01 X159.060532 Y186.717361 Z-0.125000
G01 X160.289887 Y190.469219 Z-0.125000
G01 X161.205548 Y193.953021 Z-0.125000
G01 X161.743815 Y197.128701 Z-0.125000
G01 X161.884139 Y199.990079 Z-0.125000
G01 X161.662279 Y202.572776 Z-0.125000
G01 X160.189816 Y209.727509 Z-0.125000
G01 X159.929856 Y212.327758 Z-0.125000
G01 X159.933133 Y221.197128 Z-0.125000
G00 Z3.000000

(End cutting path id: polyline2266)


(Start cutting path id: polyline2268)
(Change tool to Default tool)

G00 Z3.000000
G00 X151.917548 Y165.549629

G00 Z4.875000 (Fast pre-penetrate)
G01 Z-0.125000 F400.0(Penetrate)
G01 X153.276226 Y170.547832 Z-0.125000 F800.000000
G01 X154.659431 Y174.574535 Z-0.125000
G01 X159.296668 Y186.706408 Z-0.125000
G01 X160.597260 Y190.447268 Z-0.125000
G01 X161.591883 Y193.906824 Z-0.125000
G01 X162.208362 Y197.042952 Z-0.125000
G01 X162.418754 Y199.849147 Z-0.125000
G01 X162.254326 Y202.362852 Z-0.125000
G01 X160.911374 Y209.282480 Z-0.125000
G01 X160.697191 Y211.820102 Z-0.125000
G01 X160.839527 Y220.621042 Z-0.125000
G00 Z3.000000

(End cutting path id: polyline2268)


(Start cutting path id: polyline2270)
(Change tool to Default tool)

G00 Z3.000000
G00 X152.105566 Y165.293742

G00 Z4.875000 (Fast pre-penetrate)
G01 Z-0.125000 F400.0(Penetrate)
G01 X153.441872 Y170.512494 Z-0.125000 F800.000000
G01 X154.803078 Y174.541396 Z-0.125000
G01 X160.893634 Y190.412070 Z-0.125000
G01 X161.963240 Y193.847849 Z-0.125000
G01 X162.654422 Y196.945316 Z-0.125000
G01 X162.932120 Y199.697777 Z-0.125000
G01 X162.823156 Y202.144362 Z-0.125000
G01 X161.606487 Y208.835437 Z-0.125000
G01 X161.437658 Y211.312728 Z-0.125000
G01 X161.722471 Y220.051696 Z-0.125000
G00 Z3.000000

(End cutting path id: polyline2270)


(Start cutting path id: polyline2272)
(Change tool to Default tool)

G00 Z3.000000
G00 X152.306129 Y165.001955

G00 Z4.875000 (Fast pre-penetrate)
G01 Z-0.125000 F400.0(Penetrate)
G01 X152.593189 Y166.619375 Z-0.125000 F800.000000
G01 X153.615006 Y170.465173 Z-0.125000
G01 X154.952154 Y174.496088 Z-0.125000
G01 X161.179992 Y190.364421 Z-0.125000
G01 X162.320415 Y193.776985 Z-0.125000
G01 X163.082695 Y196.836960 Z-0.125000
G01 X163.424751 Y199.537280 Z-0.125000
G01 X163.369146 Y201.918758 Z-0.125000
G01 X162.275154 Y208.388442 Z-0.125000
G01 X162.151212 Y210.807787 Z-0.125000
G01 X162.581358 Y219.491431 Z-0.125000
G00 Z3.000000

(End cutting path id: polyline2272)


(Start cutting path id: polyline2274)
(Change tool to Default tool)

G00 Z3.000000
G00 X152.523589 Y164.685454

G00 Z4.875000 (Fast pre-penetrate)
G01 Z-0.125000 F400.0(Penetrate)
G01 X152.823474 Y166.565081 Z-0.125000 F800.000000
G01 X153.796706 Y170.405636 Z-0.125000
G01 X155.107783 Y174.438610 Z-0.125000
G01 X156.657430 Y178.557005 Z-0.125000
G01 X161.457317 Y190.305118 Z-0.125000
G01 X162.664204 Y193.695355 Z-0.125000
G01 X163.493743 Y196.719150 Z-0.125000
G01 X163.897115 Y199.369107 Z-0.125000
G01 X163.892435 Y201.687631 Z-0.125000
G01 X162.917189 Y207.943647 Z-0.125000
G01 X162.837526 Y210.307620 Z-0.125000
G01 X163.415390 Y218.942680 Z-0.125000
G00 Z3.000000

(End cutting path id: polyline2274)


(Start cutting path id: polyline2276)
(Change tool to Default tool)

G00 Z3.000000
G00 X152.759490 Y164.342227

G00 Z4.875000 (Fast pre-penetrate)
G01 Z-0.125000 F400.0(Penetrate)
G01 X153.064477 Y166.497914 Z-0.125000 F800.000000
G01 X153.988329 Y170.333743 Z-0.125000
G01 X155.271323 Y174.369057 Z-0.125000
G01 X156.816288 Y178.492834 Z-0.125000
G01 X161.726684 Y190.234956 Z-0.125000
G01 X162.995542 Y193.603991 Z-0.125000
G01 X163.888409 Y196.593102 Z-0.125000
G01 X164.349915 Y199.194661 Z-0.125000
G01 X164.394240 Y201.452620 Z-0.125000
G01 X163.533528 Y207.503204 Z-0.125000
G01 X163.497394 Y209.814427 Z-0.125000
G01 X164.224709 Y218.407783 Z-0.125000
G00 Z3.000000

(End cutting path id: polyline2276)


(Start cutting path id: polyline2278)
(Change tool to Default tool)

G00 Z3.000000
G00 X153.015331 Y163.970027

G00 Z4.875000 (Fast pre-penetrate)
G01 Z-0.125000 F400.0(Penetrate)
G01 X153.317181 Y166.417643 Z-0.125000 F800.000000
G01 X154.190905 Y170.249399 Z-0.125000
G01 X155.443943 Y174.287381 Z-0.125000
G01 X156.981372 Y178.417009 Z-0.125000
G01 X161.989124 Y190.154965 Z-0.125000
G01 X163.315413 Y193.503967 Z-0.125000
G01 X164.267396 Y196.460080 Z-0.125000
G01 X164.783711 Y199.015395 Z-0.125000
G01 X164.874373 Y201.215455 Z-0.125000
G01 X164.123796 Y207.069127 Z-0.125000
G01 X164.130349 Y209.330502 Z-0.125000
G01 X165.008285 Y217.888941 Z-0.125000
G00 Z3.000000

(End cutting path id: polyline2278)


(Start cutting path id: polyline2280)
(Change tool to Default tool)

G00 Z3.000000
G00 X153.292655 Y163.566468

G00 Z4.875000 (Fast pre-penetrate)
G01 Z-0.125000 F400.0(Penetrate)
G01 X153.582617 Y166.323844 Z-0.125000 F800.000000
G01 X154.405603 Y170.152417 Z-0.125000
G01 X155.626953 Y174.193863 Z-0.125000
G01 X157.153805 Y178.329857 Z-0.125000
G01 X158.863012 Y182.434069 Z-0.125000
G01 X163.624752 Y193.396547 Z-0.125000
G01 X164.631779 Y196.321488 Z-0.125000
G01 X165.199486 Y198.832853 Z-0.125000
G01 X165.333913 Y200.977634 Z-0.125000
G01 X164.688788 Y206.643569 Z-0.125000
G01 X164.736952 Y208.857904 Z-0.125000
G01 X165.766164 Y217.388400 Z-0.125000
G00 Z3.000000

(End cutting path id: polyline2280)


(Start cutting path id: polyline2282)
(Change tool to Default tool)

G00 Z3.000000
G00 X153.593008 Y163.129489

G00 Z4.875000 (Fast pre-penetrate)
G01 Z-0.125000 F400.0(Penetrate)
G01 X153.861626 Y166.216424 Z-0.125000 F800.000000
G01 X154.633500 Y170.042938 Z-0.125000
G01 X155.821338 Y174.088690 Z-0.125000
G01 X157.334850 Y178.231752 Z-0.125000
G01 X159.050844 Y182.342143 Z-0.125000
G01 X163.924684 Y193.282716 Z-0.125000
G01 X164.982401 Y196.178590 Z-0.125000
G01 X165.597897 Y198.648578 Z-0.125000
G01 X165.773559 Y200.740844 Z-0.125000
G01 X165.228927 Y206.228495 Z-0.125000
G01 X165.317671 Y208.398786 Z-0.125000
G01 X166.498160 Y216.908219 Z-0.125000
G00 Z3.000000

(End cutting path id: polyline2282)


(Start cutting path id: polyline2284)
(Change tool to Default tool)

G00 Z3.000000
G00 X153.917325 Y162.649168

G00 Z4.875000 (Fast pre-penetrate)
G01 Z-0.125000 F400.0(Penetrate)
G01 X154.155052 Y166.095151 Z-0.125000 F800.000000
G01 X154.875439 Y169.920916 Z-0.125000
G01 X156.028313 Y173.972004 Z-0.125000
G01 X157.525630 Y178.123162 Z-0.125000
G01 X159.244620 Y182.240761 Z-0.125000
G01 X164.216284 Y193.163829 Z-0.125000
G01 X165.320292 Y196.032837 Z-0.125000
G01 X165.980067 Y198.463929 Z-0.125000
G01 X166.194156 Y200.506768 Z-0.125000
G01 X165.744961 Y205.825919 Z-0.125000
G01 X165.873069 Y207.955208 Z-0.125000
G01 X167.204272 Y216.450412 Z-0.125000
G00 Z3.000000

(End cutting path id: polyline2284)


(Start cutting path id: polyline2286)
(Change tool to Default tool)

G00 Z3.000000
G00 X154.336939 Y161.964446

G00 Z4.875000 (Fast pre-penetrate)
G01 Z-0.125000 F400.0(Penetrate)
G01 X154.463689 Y165.960022 Z-0.125000 F800.000000
G01 X155.132403 Y169.786443 Z-0.125000
G01 X156.248768 Y173.844130 Z-0.125000
G01 X157.727176 Y178.004603 Z-0.125000
G01 X159.445463 Y182.130581 Z-0.125000
G01 X164.500582 Y193.041057 Z-0.125000
G01 X165.646529 Y195.885539 Z-0.125000
G01 X166.346837 Y198.280498 Z-0.125000
G01 X166.596686 Y200.276952 Z-0.125000
G01 X166.237639 Y205.437618 Z-0.125000
G01 X166.403753 Y207.529041 Z-0.125000
G01 X167.884688 Y216.016850 Z-0.125000
G00 Z3.000000

(End cutting path id: polyline2286)


(Start cutting path id: polyline2288)
(Change tool to Default tool)

G00 Z3.000000
G00 X154.812907 Y161.187751

G00 Z4.875000 (Fast pre-penetrate)
G01 Z-0.125000 F400.0(Penetrate)
G01 X154.671741 Y162.330701 Z-0.125000 F800.000000
G01 X154.788193 Y165.810993 Z-0.125000
G01 X155.405141 Y169.639753 Z-0.125000
G01 X156.483686 Y173.705491 Z-0.125000
G01 X157.940657 Y177.876543 Z-0.125000
G01 X159.654404 Y182.012256 Z-0.125000
G01 X164.778749 Y192.915571 Z-0.125000
G01 X165.962140 Y195.737913 Z-0.125000
G01 X166.699378 Y198.099640 Z-0.125000
G01 X166.982225 Y200.052939 Z-0.125000
G01 X166.707897 Y205.065418 Z-0.125000
G01 X166.910519 Y207.122111 Z-0.125000
G01 X168.539548 Y215.609265 Z-0.125000
G00 Z3.000000

(End cutting path id: polyline2288)


(Start cutting path id: polyline2290)
(Change tool to Default tool)

G00 Z3.000000
G00 X155.341532 Y160.325073

G00 Z4.875000 (Fast pre-penetrate)
G01 Z-0.125000 F400.0(Penetrate)
G01 X155.073147 Y162.171889 Z-0.125000 F800.000000
G01 X155.129220 Y165.648062 Z-0.125000
G01 X155.694541 Y169.480941 Z-0.125000
G01 X156.733957 Y173.556415 Z-0.125000
G01 X158.166870 Y177.739589 Z-0.125000
G01 X159.872566 Y181.886629 Z-0.125000
G01 X165.052001 Y192.788634 Z-0.125000
G01 X166.268343 Y195.591458 Z-0.125000
G01 X167.038767 Y197.922854 Z-0.125000
G01 X167.351663 Y199.836275 Z-0.125000
G01 X167.156530 Y204.711052 Z-0.125000
G01 X167.394210 Y206.736198 Z-0.125000
G01 X169.169226 Y215.229155 Z-0.125000
G00 Z3.000000

(End cutting path id: polyline2290)


(Start cutting path id: polyline2292)
(Change tool to Default tool)

G00 Z3.000000
G00 X155.945888 Y159.258697

G00 Z4.875000 (Fast pre-penetrate)
G01 Z-0.125000 F400.0(Penetrate)
G01 X155.490140 Y161.997070 Z-0.125000 F800.000000
G01 X155.487332 Y165.471463 Z-0.125000
G01 X156.001212 Y169.310334 Z-0.125000
G01 X157.000469 Y173.397275 Z-0.125000
G01 X158.406983 Y177.594304 Z-0.125000
G01 X160.101025 Y181.754402 Z-0.125000
G01 X165.321509 Y192.661322 Z-0.125000
G01 X166.566403 Y195.447343 Z-0.125000
G01 X167.366267 Y197.751452 Z-0.125000
G01 X167.706498 Y199.628270 Z-0.125000
G01 X167.584897 Y204.376016 Z-0.125000
G01 X167.856090 Y206.372798 Z-0.125000
G01 X169.774331 Y214.878065 Z-0.125000
G00 Z3.000000

(End cutting path id: polyline2292)


(Start cutting path id: polyline2294)
(Change tool to Default tool)

G00 Z3.000000
G00 X157.355117 Y156.600783

G00 Z4.875000 (Fast pre-penetrate)
G01 Z-0.125000 F400.0(Penetrate)
G01 X156.486354 Y158.788392 Z-0.125000 F800.000000
G01 X155.922953 Y161.806383 Z-0.125000
G01 X155.862480 Y165.281245 Z-0.125000
G01 X156.325202 Y169.128259 Z-0.125000
G01 X157.283270 Y173.228587 Z-0.125000
G01 X158.661092 Y177.441296 Z-0.125000
G01 X160.340156 Y181.616279 Z-0.125000
G01 X162.168624 Y185.606472 Z-0.125000
G01 X166.856879 Y195.306785 Z-0.125000
G01 X167.682534 Y197.586695 Z-0.125000
G01 X168.047198 Y199.430375 Z-0.125000
G01 X167.993464 Y204.061668 Z-0.125000
G01 X168.296438 Y206.033268 Z-0.125000
G01 X170.354863 Y214.557024 Z-0.125000
G00 Z3.000000

(End cutting path id: polyline2294)


(Start cutting path id: polyline2296)
(Change tool to Default tool)

G00 Z3.000000
G00 X161.282216 Y146.605734

G00 Z4.875000 (Fast pre-penetrate)
G01 Z-0.125000 F400.0(Penetrate)
G01 X161.813977 Y147.403445 Z-0.125000 F800.000000
G01 X161.535529 Y148.332493 Z-0.125000
G01 X160.116471 Y150.148184 Z-0.125000
G00 Z3.000000

(End cutting path id: polyline2296)


(Start cutting path id: polyline2298)
(Change tool to Default tool)

G00 Z3.000000
G00 X161.386125 Y146.254784

G00 Z4.875000 (Fast pre-penetrate)
G01 Z-0.125000 F400.0(Penetrate)
G01 X162.288400 Y146.868642 Z-0.125000 F800.000000
G01 X162.668744 Y147.576673 Z-0.125000
G01 X162.336049 Y148.468558 Z-0.125000
G01 X159.609892 Y151.522776 Z-0.125000
G00 Z3.000000

(End cutting path id: polyline2298)


(Start cutting path id: polyline2300)
(Change tool to Default tool)

G00 Z3.000000
G00 X161.492655 Y145.895409

G00 Z4.875000 (Fast pre-penetrate)
G01 Z-0.125000 F400.0(Penetrate)
G01 X163.183421 Y147.023148 Z-0.125000 F800.000000
G01 X163.513635 Y147.709181 Z-0.125000
G01 X163.129173 Y148.566709 Z-0.125000
G01 X159.135983 Y152.667037 Z-0.125000
G00 Z3.000000

(End cutting path id: polyline2300)


(Start cutting path id: polyline2302)
(Change tool to Default tool)

G00 Z3.000000
G00 X161.613274 Y145.488105

G00 Z4.875000 (Fast pre-penetrate)
G01 Z-0.125000 F400.0(Penetrate)
G01 X164.066505 Y147.134452 Z-0.125000 F800.000000
G01 X164.348370 Y147.800452 Z-0.125000
G01 X163.914855 Y148.626434 Z-0.125000
G01 X159.739123 Y152.641247 Z-0.125000
G01 X158.626362 Y153.897374 Z-0.125000
G00 Z3.000000

(End cutting path id: polyline2302)


(Start cutting path id: polyline2304)
(Change tool to Default tool)

G00 Z3.000000
G00 X161.767920 Y144.951103

G00 Z4.875000 (Fast pre-penetrate)
G01 Z-0.125000 F400.0(Penetrate)
G01 X164.937468 Y147.202414 Z-0.125000 F800.000000
G01 X165.172854 Y147.850394 Z-0.125000
G01 X164.692954 Y148.647543 Z-0.125000
G01 X160.388413 Y152.544406 Z-0.125000
G01 X158.829640 Y154.214858 Z-0.125000
G01 X157.587414 Y156.113722 Z-0.125000
G00 Z3.000000

(End cutting path id: polyline2304)


