%
(Header)
(Generated by gcodetools from Inkscape.)
(Using default header. To add your own header create file "header" in the output dir.)
M3
(Header end.)
G21 (All units in mm)

(Start cutting path id: polyline740)
(Change tool to Default tool)

G00 Z3.000000
G00 X9.732671 Y140.103955

G00 Z4.875000 (Fast pre-penetrate)
G01 Z-0.125000 F400.0(Penetrate)
G01 X11.627297 Y140.508132 Z-0.125000 F800.000000
G01 X13.621618 Y140.816477 Z-0.125000
G01 X18.208614 Y141.314608 Z-0.125000
G01 X21.014940 Y141.529873 Z-0.125000
G01 X25.915335 Y141.689099 Z-0.125000
G01 X35.602142 Y141.677378 Z-0.125000
G01 X39.704792 Y141.754213 Z-0.125000
G01 X43.807443 Y141.977124 Z-0.125000
G01 X50.645194 Y142.554444 Z-0.125000
G01 X53.038426 Y142.648238 Z-0.125000
G01 X55.403137 Y142.555978 Z-0.125000
G01 X57.696648 Y142.229853 Z-0.125000
G01 X59.890412 Y141.696957 Z-0.125000
G01 X63.978827 Y140.388038 Z-0.125000
G01 X66.970335 Y139.606195 Z-0.125000
G01 X70.360728 Y139.044327 Z-0.125000
G01 X71.956190 Y138.937832 Z-0.125000
G01 X75.346583 Y139.049222 Z-0.125000
G01 X83.580380 Y139.788996 Z-0.125000
G01 X87.455092 Y139.916393 Z-0.125000
G01 X92.013592 Y139.750975 Z-0.125000
G01 X100.446831 Y138.998448 Z-0.125000
G01 X102.270232 Y138.934393 Z-0.125000
G01 X103.965415 Y138.971646 Z-0.125000
G01 X108.053831 Y139.624425 Z-0.125000
G01 X111.045339 Y140.456115 Z-0.125000
G01 X115.931499 Y142.167862 Z-0.125000
G01 X117.427239 Y142.505311 Z-0.125000
G01 X118.908772 Y142.646810 Z-0.125000
G01 X120.319052 Y142.568520 Z-0.125000
G01 X121.715098 Y142.281500 Z-0.125000
G01 X123.210838 Y141.775511 Z-0.125000
G01 X127.199533 Y140.120412 Z-0.125000
G01 X128.495857 Y139.770501 Z-0.125000
G01 X129.621235 Y139.635114 Z-0.125000
G01 X130.689647 Y139.669166 Z-0.125000
G01 X131.886250 Y139.889008 Z-0.125000
G01 X133.082854 Y140.266436 Z-0.125000
G01 X136.572941 Y141.608771 Z-0.125000
G01 X137.769544 Y141.904046 Z-0.125000
G01 X138.866453 Y142.021362 Z-0.125000
G01 X139.863613 Y141.990882 Z-0.125000
G01 X140.960521 Y141.818453 Z-0.125000
G01 X145.348075 Y140.525674 Z-0.125000
G01 X146.444956 Y140.303186 Z-0.125000
G01 X147.513343 Y140.192538 Z-0.125000
G01 X148.638746 Y140.195342 Z-0.125000
G01 X149.735628 Y140.304668 Z-0.125000
G01 X154.621762 Y141.286086 Z-0.125000
G01 X157.200176 Y141.540191 Z-0.125000
G01 X159.906781 Y141.441661 Z-0.125000
G01 X166.089239 Y140.752051 Z-0.125000
G00 Z3.000000

(End cutting path id: polyline740)


(Start cutting path id: polyline604)
(Change tool to Default tool)

G00 Z3.000000
G00 X9.732671 Y140.982980

G00 Z4.875000 (Fast pre-penetrate)
G01 Z-0.125000 F400.0(Penetrate)
G01 X11.783983 Y140.954510 Z-0.125000 F800.000000
G01 X14.063234 Y141.032562 Z-0.125000
G01 X23.408173 Y141.679256 Z-0.125000
G01 X35.602142 Y142.351958 Z-0.125000
G01 X40.445572 Y142.800585 Z-0.125000
G01 X48.123797 Y143.793036 Z-0.125000
G01 X50.987088 Y143.971074 Z-0.125000
G01 X53.109652 Y143.873813 Z-0.125000
G01 X55.203694 Y143.525358 Z-0.125000
G01 X57.397484 Y142.895756 Z-0.125000
G01 X61.485900 Y141.375859 Z-0.125000
G01 X63.181083 Y140.832749 Z-0.125000
G01 X65.175431 Y140.405263 Z-0.125000
G01 X67.055822 Y140.257255 Z-0.125000
G01 X68.864961 Y140.339487 Z-0.125000
G01 X70.759587 Y140.613833 Z-0.125000
G01 X77.540373 Y142.182811 Z-0.125000
G01 X80.631602 Y142.766719 Z-0.125000
G01 X83.523388 Y143.120122 Z-0.125000
G01 X86.543392 Y143.285275 Z-0.125000
G01 X90.304174 Y143.210001 Z-0.125000
G01 X93.893984 Y142.841463 Z-0.125000
G01 X97.284377 Y142.226096 Z-0.125000
G01 X104.164858 Y140.631825 Z-0.125000
G01 X105.959762 Y140.358828 Z-0.125000
G01 X107.626476 Y140.256540 Z-0.125000
G01 X109.549598 Y140.374227 Z-0.125000
G01 X111.444224 Y140.766842 Z-0.125000
G01 X113.438545 Y141.453752 Z-0.125000
G01 X118.125262 Y143.428705 Z-0.125000
G01 X119.521308 Y143.810843 Z-0.125000
G01 X120.846128 Y143.967687 Z-0.125000
G01 X122.113957 Y143.899372 Z-0.125000
G01 X123.410281 Y143.609283 Z-0.125000
G01 X124.806327 Y143.091124 Z-0.125000
G01 X128.495857 Y141.441555 Z-0.125000
G01 X129.692460 Y141.098735 Z-0.125000
G01 X130.889064 Y140.954087 Z-0.125000
G01 X131.886250 Y141.000892 Z-0.125000
G01 X132.983132 Y141.218458 Z-0.125000
G01 X134.179735 Y141.612131 Z-0.125000
G01 X137.570128 Y142.941873 Z-0.125000
G01 X138.667010 Y143.217251 Z-0.125000
G01 X139.763892 Y143.342504 Z-0.125000
G01 X140.761079 Y143.318110 Z-0.125000
G01 X141.758239 Y143.172668 Z-0.125000
G01 X146.444956 Y141.830783 Z-0.125000
G01 X147.641560 Y141.605279 Z-0.125000
G01 X148.766937 Y141.508494 Z-0.125000
G01 X151.031953 Y141.642664 Z-0.125000
G01 X155.918086 Y142.577648 Z-0.125000
G01 X158.453744 Y142.846094 Z-0.125000
G01 X161.416782 Y142.802543 Z-0.125000
G01 X166.089239 Y142.341402 Z-0.125000
G00 Z3.000000

(End cutting path id: polyline604)


(Start cutting path id: polyline602)
(Change tool to Default tool)

G00 Z3.000000
G00 X9.732671 Y143.177219

G00 Z4.875000 (Fast pre-penetrate)
G01 Z-0.125000 F400.0(Penetrate)
G01 X13.821061 Y142.613287 Z-0.125000 F800.000000
G01 X17.937972 Y142.332882 Z-0.125000
G01 X22.952323 Y142.285231 Z-0.125000
G01 X28.764391 Y142.475598 Z-0.125000
G01 X32.767347 Y142.746849 Z-0.125000
G01 X36.357156 Y143.130706 Z-0.125000
G01 X39.946965 Y143.689902 Z-0.125000
G01 X46.827473 Y145.026337 Z-0.125000
G01 X48.622377 Y145.241787 Z-0.125000
G01 X50.303326 Y145.289809 Z-0.125000
G01 X52.212186 Y145.105765 Z-0.125000
G01 X54.106812 Y144.648089 Z-0.125000
G01 X55.802022 Y144.036955 Z-0.125000
G01 X59.391831 Y142.521821 Z-0.125000
G01 X61.087015 Y141.958127 Z-0.125000
G01 X62.682503 Y141.646712 Z-0.125000
G01 X64.206739 Y141.585832 Z-0.125000
G01 X65.674011 Y141.741036 Z-0.125000
G01 X67.269499 Y142.107404 Z-0.125000
G01 X73.850816 Y144.385861 Z-0.125000
G01 X77.241209 Y145.253799 Z-0.125000
G01 X79.235556 Y145.576564 Z-0.125000
G01 X81.329625 Y145.789130 Z-0.125000
G01 X86.771330 Y145.974549 Z-0.125000
G01 X92.925292 Y145.841464 Z-0.125000
G01 X95.290029 Y145.637682 Z-0.125000
G01 X97.384098 Y145.329020 Z-0.125000
G01 X99.179003 Y144.945824 Z-0.125000
G01 X101.073629 Y144.417082 Z-0.125000
G01 X107.854388 Y142.074331 Z-0.125000
G01 X109.449877 Y141.718282 Z-0.125000
G01 X110.931383 Y141.580673 Z-0.125000
G01 X112.441384 Y141.675552 Z-0.125000
G01 X114.036873 Y142.048746 Z-0.125000
G01 X115.732056 Y142.715257 Z-0.125000
G01 X119.920167 Y144.723204 Z-0.125000
G01 X121.216491 Y145.125450 Z-0.125000
G01 X122.441590 Y145.289809 Z-0.125000
G01 X123.609724 Y145.225065 Z-0.125000
G01 X124.806327 Y144.940691 Z-0.125000
G01 X126.102651 Y144.429464 Z-0.125000
G01 X129.592739 Y142.783096 Z-0.125000
G01 X130.789342 Y142.421808 Z-0.125000
G01 X131.900485 Y142.278695 Z-0.125000
G01 X132.883411 Y142.319521 Z-0.125000
G01 X133.980293 Y142.538384 Z-0.125000
G01 X135.077201 Y142.899804 Z-0.125000
G01 X138.467567 Y144.243013 Z-0.125000
G01 X139.564476 Y144.526328 Z-0.125000
G01 X140.675592 Y144.662297 Z-0.125000
G01 X141.658518 Y144.648751 Z-0.125000
G01 X142.755426 Y144.498256 Z-0.125000
G01 X147.641560 Y143.145602 Z-0.125000
G01 X148.937884 Y142.918431 Z-0.125000
G01 X150.134487 Y142.828816 Z-0.125000
G01 X152.527693 Y142.974946 Z-0.125000
G01 X157.314132 Y143.828596 Z-0.125000
G01 X159.821294 Y144.123077 Z-0.125000
G01 X162.556394 Y144.185677 Z-0.125000
G01 X166.089239 Y143.980546 Z-0.125000
G00 Z3.000000

(End cutting path id: polyline602)


(Start cutting path id: polyline600)
(Change tool to Default tool)

G00 Z3.000000
G00 X9.732671 Y145.679434

G00 Z4.875000 (Fast pre-penetrate)
G01 Z-0.125000 F400.0(Penetrate)
G01 X18.607500 Y144.475105 Z-0.125000 F800.000000
G01 X22.895332 Y143.993802 Z-0.125000
G01 X27.624779 Y143.662544 Z-0.125000
G01 X31.727430 Y143.610130 Z-0.125000
G01 X34.661973 Y143.768271 Z-0.125000
G01 X37.454038 Y144.121992 Z-0.125000
G01 X40.345851 Y144.721061 Z-0.125000
G01 X46.428587 Y146.313163 Z-0.125000
G01 X48.138032 Y146.569491 Z-0.125000
G01 X49.719259 Y146.603622 Z-0.125000
G01 X51.314747 Y146.393702 Z-0.125000
G01 X52.910209 Y145.932296 Z-0.125000
G01 X54.405976 Y145.311901 Z-0.125000
G01 X57.397484 Y143.886593 Z-0.125000
G01 X58.893251 Y143.313056 Z-0.125000
G01 X60.189576 Y143.000901 Z-0.125000
G01 X61.357683 Y142.902132 Z-0.125000
G01 X62.881919 Y143.044610 Z-0.125000
G01 X64.477408 Y143.483897 Z-0.125000
G01 X65.873453 Y144.041956 Z-0.125000
G01 X69.862148 Y145.861334 Z-0.125000
G01 X72.155633 Y146.673684 Z-0.125000
G01 X74.449118 Y147.170782 Z-0.125000
G01 X76.970541 Y147.377236 Z-0.125000
G01 X79.135835 Y147.352736 Z-0.125000
G01 X84.378124 Y147.047619 Z-0.125000
G01 X87.113224 Y146.968958 Z-0.125000
G01 X90.190192 Y147.026849 Z-0.125000
G01 X96.686075 Y147.377342 Z-0.125000
G01 X98.509475 Y147.361943 Z-0.125000
G01 X100.176163 Y147.224969 Z-0.125000
G01 X102.170510 Y146.859315 Z-0.125000
G01 X104.065136 Y146.286546 Z-0.125000
G01 X105.860041 Y145.561535 Z-0.125000
G01 X109.350155 Y143.950225 Z-0.125000
G01 X110.845922 Y143.374783 Z-0.125000
G01 X112.241942 Y143.018734 Z-0.125000
G01 X113.438545 Y142.902661 Z-0.125000
G01 X114.734869 Y143.005029 Z-0.125000
G01 X116.130915 Y143.381795 Z-0.125000
G01 X117.526961 Y143.992611 Z-0.125000
G01 X121.316212 Y145.995319 Z-0.125000
G01 X122.612537 Y146.440930 Z-0.125000
G01 X123.709419 Y146.609046 Z-0.125000
G01 X124.806327 Y146.560601 Z-0.125000
G01 X125.903209 Y146.302818 Z-0.125000
G01 X127.099812 Y145.828685 Z-0.125000
G01 X130.689647 Y144.083734 Z-0.125000
G01 X131.786529 Y143.748242 Z-0.125000
G01 X132.926141 Y143.600579 Z-0.125000
G01 X133.880598 Y143.644764 Z-0.125000
G01 X134.977479 Y143.868204 Z-0.125000
G01 X139.365033 Y145.536797 Z-0.125000
G01 X140.461915 Y145.827309 Z-0.125000
G01 X141.587292 Y145.978254 Z-0.125000
G01 X142.612974 Y145.978783 Z-0.125000
G01 X143.752586 Y145.840035 Z-0.125000
G01 X148.937884 Y144.479153 Z-0.125000
G01 X150.333930 Y144.246108 Z-0.125000
G01 X151.729975 Y144.150408 Z-0.125000
G01 X154.322624 Y144.302729 Z-0.125000
G01 X159.208758 Y145.084016 Z-0.125000
G01 X161.402548 Y145.352435 Z-0.125000
G01 X163.696033 Y145.495284 Z-0.125000
G01 X166.089239 Y145.506026 Z-0.125000
G00 Z3.000000

(End cutting path id: polyline600)


(Start cutting path id: polyline598)
(Change tool to Default tool)

G00 Z3.000000
G00 X9.732671 Y147.260687

G00 Z4.875000 (Fast pre-penetrate)
G01 Z-0.125000 F400.0(Penetrate)
G01 X13.493428 Y147.299687 Z-0.125000 F800.000000
G01 X17.410897 Y147.061774 Z-0.125000
G01 X21.499286 Y146.575947 Z-0.125000
G01 X30.673278 Y145.191304 Z-0.125000
G01 X33.094980 Y144.968790 Z-0.125000
G01 X35.146292 Y144.924261 Z-0.125000
G01 X37.154900 Y145.057029 Z-0.125000
G01 X39.049526 Y145.370004 Z-0.125000
G01 X41.143568 Y145.924781 Z-0.125000
G01 X46.229145 Y147.598004 Z-0.125000
G01 X47.724912 Y147.880949 Z-0.125000
G01 X49.163688 Y147.928045 Z-0.125000
G01 X50.517003 Y147.732730 Z-0.125000
G01 X52.012744 Y147.247617 Z-0.125000
G01 X53.209373 Y146.694771 Z-0.125000
G01 X56.001438 Y145.214429 Z-0.125000
G01 X57.297763 Y144.656344 Z-0.125000
G01 X58.394644 Y144.347152 Z-0.125000
G01 X59.534283 Y144.225365 Z-0.125000
G01 X60.887598 Y144.361493 Z-0.125000
G01 X62.383339 Y144.834038 Z-0.125000
G01 X63.679663 Y145.444378 Z-0.125000
G01 X67.070056 Y147.278653 Z-0.125000
G01 X68.864961 Y148.045943 Z-0.125000
G01 X70.659866 Y148.526744 Z-0.125000
G01 X72.412040 Y148.704094 Z-0.125000
G01 X73.850816 Y148.660940 Z-0.125000
G01 X75.446304 Y148.462185 Z-0.125000
G01 X81.529041 Y147.218619 Z-0.125000
G01 X87.341136 Y146.967847 Z-0.125000
G01 X89.962280 Y147.017509 Z-0.125000
G01 X93.381142 Y147.206104 Z-0.125000
G01 X100.076442 Y148.537750 Z-0.125000
G01 X101.928338 Y148.702480 Z-0.125000
G01 X103.566556 Y148.641890 Z-0.125000
G01 X104.962602 Y148.400961 Z-0.125000
G01 X106.458342 Y147.937517 Z-0.125000
G01 X108.153552 Y147.181577 Z-0.125000
G01 X111.244781 Y145.503512 Z-0.125000
G01 X112.541106 Y144.880869 Z-0.125000
G01 X113.937151 Y144.407848 Z-0.125000
G01 X115.261971 Y144.226714 Z-0.125000
G01 X116.430079 Y144.318445 Z-0.125000
G01 X117.626682 Y144.654915 Z-0.125000
G01 X119.022728 Y145.305710 Z-0.125000
G01 X122.612537 Y147.329929 Z-0.125000
G01 X123.809140 Y147.762416 Z-0.125000
G01 X124.948778 Y147.936036 Z-0.125000
G01 X125.903209 Y147.884839 Z-0.125000
G01 X127.000090 Y147.616816 Z-0.125000
G01 X128.096999 Y147.168348 Z-0.125000
G01 X131.587086 Y145.431810 Z-0.125000
G01 X132.783690 Y145.061474 Z-0.125000
G01 X133.951823 Y144.921377 Z-0.125000
G01 X134.877758 Y144.973897 Z-0.125000
G01 X135.874919 Y145.175641 Z-0.125000
G01 X140.461915 Y146.879714 Z-0.125000
G01 X141.658518 Y147.174248 Z-0.125000
G01 X142.755426 Y147.304423 Z-0.125000
G01 X143.852308 Y147.296803 Z-0.125000
G01 X144.949189 Y147.166020 Z-0.125000
G01 X150.433651 Y145.821515 Z-0.125000
G01 X151.929392 Y145.584369 Z-0.125000
G01 X153.439393 Y145.477292 Z-0.125000
G01 X156.316972 Y145.600270 Z-0.125000
G01 X162.599151 Y146.435929 Z-0.125000
G01 X166.089239 Y146.739485 Z-0.125000
G00 Z3.000000

(End cutting path id: polyline598)


(Start cutting path id: polyline596)
(Change tool to Default tool)

G00 Z3.000000
G00 X9.732671 Y147.774825

G00 Z4.875000 (Fast pre-penetrate)
G01 Z-0.125000 F400.0(Penetrate)
G01 X13.721340 Y148.264780 Z-0.125000 F800.000000
G01 X16.684378 Y148.529257 Z-0.125000
G01 X19.419478 Y148.638054 Z-0.125000
G01 X22.040623 Y148.582227 Z-0.125000
G01 X24.291377 Y148.391356 Z-0.125000
G01 X26.584862 Y148.059305 Z-0.125000
G01 X34.362809 Y146.458472 Z-0.125000
G01 X35.958297 Y146.277973 Z-0.125000
G01 X37.425542 Y146.250906 Z-0.125000
G01 X38.850083 Y146.382060 Z-0.125000
G01 X40.246129 Y146.672810 Z-0.125000
G01 X41.841591 Y147.185916 Z-0.125000
G01 X46.129450 Y148.877237 Z-0.125000
G01 X47.525469 Y149.197170 Z-0.125000
G01 X48.707838 Y149.257866 Z-0.125000
G01 X50.018423 Y149.059799 Z-0.125000
G01 X51.314747 Y148.596779 Z-0.125000
G01 X52.455947 Y148.013479 Z-0.125000
G01 X55.026424 Y146.509960 Z-0.125000
G01 X56.200881 Y145.961453 Z-0.125000
G01 X57.297763 Y145.639773 Z-0.125000
G01 X58.394644 Y145.549947 Z-0.125000
G01 X59.591274 Y145.730286 Z-0.125000
G01 X60.887598 Y146.218442 Z-0.125000
G01 X62.028798 Y146.835079 Z-0.125000
G01 X64.865207 Y148.586248 Z-0.125000
G01 X66.372034 Y149.344067 Z-0.125000
G01 X67.668358 Y149.785074 Z-0.125000
G01 X68.879222 Y149.996370 Z-0.125000
G01 X70.246772 Y150.007429 Z-0.125000
G01 X71.756774 Y149.779967 Z-0.125000
G01 X73.451957 Y149.308375 Z-0.125000
G01 X76.144327 Y148.359421 Z-0.125000
G01 X81.329625 Y147.248649 Z-0.125000
G01 X84.606036 Y147.036877 Z-0.125000
G01 X87.569074 Y146.967635 Z-0.125000
G01 X90.418130 Y147.036877 Z-0.125000
G01 X93.694541 Y147.248358 Z-0.125000
G01 X98.879839 Y148.357305 Z-0.125000
G01 X101.472487 Y149.275540 Z-0.125000
G01 X103.067976 Y149.734830 Z-0.125000
G01 X104.364300 Y149.968059 Z-0.125000
G01 X105.461182 Y150.030633 Z-0.125000
G01 X106.956949 Y149.877625 Z-0.125000
G01 X108.552411 Y149.391665 Z-0.125000
G01 X110.158959 Y148.603340 Z-0.125000
G01 X114.136568 Y146.257627 Z-0.125000
G01 X115.432892 Y145.756321 Z-0.125000
G01 X116.629522 Y145.553995 Z-0.125000
G01 X117.726403 Y145.621993 Z-0.125000
G01 X118.923006 Y145.967644 Z-0.125000
G01 X120.175013 Y146.577799 Z-0.125000
G01 X122.656855 Y148.101903 Z-0.125000
G01 X123.709419 Y148.663692 Z-0.125000
G01 X124.806327 Y149.075383 Z-0.125000
G01 X125.903209 Y149.256940 Z-0.125000
G01 X126.900369 Y149.204103 Z-0.125000
G01 X127.897556 Y148.957564 Z-0.125000
G01 X128.994438 Y148.506900 Z-0.125000
G01 X132.484552 Y146.758668 Z-0.125000
G01 X133.681155 Y146.387537 Z-0.125000
G01 X134.778037 Y146.246991 Z-0.125000
G01 X135.775224 Y146.291758 Z-0.125000
G01 X136.772384 Y146.483739 Z-0.125000
G01 X141.558823 Y148.198740 Z-0.125000
G01 X142.855147 Y148.502032 Z-0.125000
G01 X144.094480 Y148.632259 Z-0.125000
G01 X145.234092 Y148.614453 Z-0.125000
G01 X146.444956 Y148.471816 Z-0.125000
G01 X152.128834 Y147.192002 Z-0.125000
G01 X153.724323 Y146.948215 Z-0.125000
G01 X155.376776 Y146.816162 Z-0.125000
G01 X157.086194 Y146.801001 Z-0.125000
G01 X159.009315 Y146.899876 Z-0.125000
G01 X166.089239 Y147.634623 Z-0.125000
G00 Z3.000000

(End cutting path id: polyline596)


(Start cutting path id: polyline594)
(Change tool to Default tool)

G00 Z3.000000
G00 X9.732671 Y148.237740

G00 Z4.875000 (Fast pre-penetrate)
G01 Z-0.125000 F400.0(Penetrate)
G01 X13.920782 Y148.635408 Z-0.125000 F800.000000
G01 X22.097587 Y149.774940 Z-0.125000
G01 X24.091935 Y149.932288 Z-0.125000
G01 X25.915335 Y149.956550 Z-0.125000
G01 X27.881187 Y149.819708 Z-0.125000
G01 X29.775813 Y149.512897 Z-0.125000
G01 X31.570717 Y149.079828 Z-0.125000
G01 X35.060832 Y148.078434 Z-0.125000
G01 X36.556599 Y147.742811 Z-0.125000
G01 X37.881392 Y147.582553 Z-0.125000
G01 X39.021031 Y147.585199 Z-0.125000
G01 X40.345851 Y147.777736 Z-0.125000
G01 X41.642175 Y148.162280 Z-0.125000
G01 X45.331706 Y149.844658 Z-0.125000
G01 X46.428587 Y150.268070 Z-0.125000
G01 X47.525469 Y150.529452 Z-0.125000
G01 X48.479926 Y150.582342 Z-0.125000
G01 X49.619538 Y150.405098 Z-0.125000
G01 X50.716419 Y149.994703 Z-0.125000
G01 X51.835473 Y149.381902 Z-0.125000
G01 X54.228706 Y147.851634 Z-0.125000
G01 X55.403137 Y147.257645 Z-0.125000
G01 X56.500019 Y146.933292 Z-0.125000
G01 X57.482944 Y146.879397 Z-0.125000
G01 X58.594087 Y147.097175 Z-0.125000
G01 X59.690969 Y147.571361 Z-0.125000
G01 X60.787877 Y148.231866 Z-0.125000
G01 X63.358354 Y149.986871 Z-0.125000
G01 X64.776572 Y150.758792 Z-0.125000
G01 X66.072870 Y151.199931 Z-0.125000
G01 X67.397690 Y151.353786 Z-0.125000
G01 X68.665518 Y151.231523 Z-0.125000
G01 X69.961843 Y150.880421 Z-0.125000
G01 X71.357889 Y150.320563 Z-0.125000
G01 X73.551679 Y149.275910 Z-0.125000
G01 X76.244049 Y148.334603 Z-0.125000
G01 X81.429346 Y147.232536 Z-0.125000
G01 X85.745674 Y146.993988 Z-0.125000
G01 X89.734342 Y147.008910 Z-0.125000
G01 X93.893984 Y147.285400 Z-0.125000
G01 X99.079281 Y148.412999 Z-0.125000
G01 X101.472487 Y149.275593 Z-0.125000
G01 X103.666277 Y150.321648 Z-0.125000
G01 X105.062323 Y150.881268 Z-0.125000
G01 X106.358648 Y151.231285 Z-0.125000
G01 X107.512494 Y151.352887 Z-0.125000
G01 X108.851575 Y151.226681 Z-0.125000
G01 X110.247594 Y150.777419 Z-0.125000
G01 X111.665812 Y150.031268 Z-0.125000
G01 X114.413560 Y148.212287 Z-0.125000
G01 X115.565871 Y147.544532 Z-0.125000
G01 X116.729216 Y147.072728 Z-0.125000
G01 X117.826125 Y146.877598 Z-0.125000
G01 X118.923006 Y146.954803 Z-0.125000
G01 X120.019888 Y147.293866 Z-0.125000
G01 X121.150028 Y147.866635 Z-0.125000
G01 X123.543234 Y149.387009 Z-0.125000
G01 X124.606884 Y149.975124 Z-0.125000
G01 X125.803487 Y150.425920 Z-0.125000
G01 X126.900369 Y150.584723 Z-0.125000
G01 X127.797835 Y150.521858 Z-0.125000
G01 X128.795021 Y150.265848 Z-0.125000
G01 X129.891903 Y149.806452 Z-0.125000
G01 X133.282270 Y148.109576 Z-0.125000
G01 X134.478899 Y147.730640 Z-0.125000
G01 X135.575781 Y147.575065 Z-0.125000
G01 X136.572941 Y147.599063 Z-0.125000
G01 X137.669850 Y147.788187 Z-0.125000
G01 X138.866453 Y148.141669 Z-0.125000
G01 X142.755426 Y149.515570 Z-0.125000
G01 X144.151472 Y149.821930 Z-0.125000
G01 X145.575987 Y149.957476 Z-0.125000
G01 X146.829581 Y149.933002 Z-0.125000
G01 X148.140140 Y149.789096 Z-0.125000
G01 X154.023460 Y148.617575 Z-0.125000
G01 X157.214411 Y148.216599 Z-0.125000
G01 X160.960932 Y148.126324 Z-0.125000
G01 X166.089239 Y148.398685 Z-0.125000
G00 Z3.000000

(End cutting path id: polyline594)


(Start cutting path id: polyline592)
(Change tool to Default tool)

G00 Z3.000000
G00 X9.732671 Y149.569465

G00 Z4.875000 (Fast pre-penetrate)
G01 Z-0.125000 F400.0(Penetrate)
G01 X13.721340 Y149.439555 Z-0.125000 F800.000000
G01 X17.111733 Y149.586981 Z-0.125000
G01 X20.202962 Y149.978987 Z-0.125000
G01 X26.285725 Y151.088939 Z-0.125000
G01 X27.852691 Y151.253192 Z-0.125000
G01 X29.220241 Y151.281688 Z-0.125000
G01 X30.772999 Y151.152307 Z-0.125000
G01 X32.268740 Y150.854730 Z-0.125000
G01 X37.753202 Y149.098296 Z-0.125000
G01 X38.850083 Y148.919464 Z-0.125000
G01 X39.932731 Y148.903404 Z-0.125000
G01 X41.043873 Y149.076626 Z-0.125000
G01 X42.140755 Y149.433417 Z-0.125000
G01 X45.531148 Y151.165747 Z-0.125000
G01 X46.528309 Y151.593208 Z-0.125000
G01 X47.425774 Y151.837497 Z-0.125000
G01 X48.323213 Y151.907030 Z-0.125000
G01 X49.420121 Y151.726690 Z-0.125000
G01 X50.505917 Y151.274306 Z-0.125000
G01 X51.480932 Y150.685900 Z-0.125000
G01 X53.608232 Y149.208891 Z-0.125000
G01 X54.804835 Y148.556112 Z-0.125000
G01 X55.802022 Y148.249619 Z-0.125000
G01 X56.685227 Y148.202735 Z-0.125000
G01 X57.696648 Y148.415566 Z-0.125000
G01 X58.749212 Y148.907452 Z-0.125000
G01 X62.206068 Y151.380906 Z-0.125000
G01 X63.480247 Y152.121924 Z-0.125000
G01 X64.676850 Y152.549093 Z-0.125000
G01 X65.916184 Y152.674585 Z-0.125000
G01 X67.169778 Y152.487286 Z-0.125000
G01 X68.466102 Y152.019530 Z-0.125000
G01 X69.740255 Y151.374450 Z-0.125000
G01 X72.310758 Y149.886250 Z-0.125000
G01 X73.751095 Y149.200134 Z-0.125000
G01 X76.144327 Y148.359421 Z-0.125000
G01 X80.432159 Y147.427586 Z-0.125000
G01 X81.984891 Y147.354456 Z-0.125000
G01 X87.455092 Y147.422559 Z-0.125000
G01 X94.064931 Y147.362049 Z-0.125000
G01 X95.290029 Y147.572790 Z-0.125000
G01 X99.278724 Y148.479859 Z-0.125000
G01 X101.871373 Y149.456673 Z-0.125000
G01 X105.461182 Y151.476050 Z-0.125000
G01 X106.757506 Y152.108404 Z-0.125000
G01 X108.053831 Y152.534515 Z-0.125000
G01 X109.221938 Y152.676410 Z-0.125000
G01 X110.447037 Y152.536631 Z-0.125000
G01 X111.643640 Y152.112478 Z-0.125000
G01 X112.906733 Y151.404163 Z-0.125000
G01 X115.565871 Y149.527740 Z-0.125000
G01 X116.540860 Y148.924597 Z-0.125000
G01 X117.726403 Y148.404374 Z-0.125000
G01 X118.823285 Y148.199243 Z-0.125000
G01 X119.820472 Y148.270098 Z-0.125000
G01 X120.817632 Y148.574792 Z-0.125000
G01 X121.947772 Y149.150260 Z-0.125000
G01 X124.340978 Y150.702171 Z-0.125000
G01 X125.404628 Y151.299997 Z-0.125000
G01 X126.601231 Y151.753254 Z-0.125000
G01 X127.698113 Y151.908114 Z-0.125000
G01 X128.595579 Y151.840487 Z-0.125000
G01 X129.592739 Y151.580746 Z-0.125000
G01 X130.589926 Y151.169346 Z-0.125000
G01 X134.080014 Y149.449794 Z-0.125000
G01 X135.276617 Y149.071679 Z-0.125000
G01 X136.373525 Y148.905150 Z-0.125000
G01 X137.470407 Y148.916104 Z-0.125000
G01 X138.567289 Y149.085358 Z-0.125000
G01 X139.863613 Y149.436539 Z-0.125000
G01 X142.755426 Y150.432852 Z-0.125000
G01 X144.251167 Y150.865155 Z-0.125000
G01 X145.846655 Y151.167070 Z-0.125000
G01 X147.399387 Y151.283143 Z-0.125000
G01 X148.766937 Y151.252451 Z-0.125000
G01 X150.333930 Y151.098014 Z-0.125000
G01 X156.316972 Y150.104267 Z-0.125000
G01 X159.308479 Y149.726998 Z-0.125000
G01 X162.442438 Y149.508823 Z-0.125000
G01 X166.089239 Y149.439396 Z-0.125000
G00 Z3.000000

(End cutting path id: polyline592)


(Start cutting path id: polyline590)
(Change tool to Default tool)

G00 Z3.000000
G00 X9.732671 Y151.592043

G00 Z4.875000 (Fast pre-penetrate)
G01 Z-0.125000 F400.0(Penetrate)
G01 X16.712874 Y150.865393 Z-0.125000 F800.000000
G01 X18.735690 Y150.767127 Z-0.125000
G01 X20.445134 Y150.789881 Z-0.125000
G01 X21.997866 Y150.916113 Z-0.125000
G01 X23.593355 Y151.156381 Z-0.125000
G01 X29.376954 Y152.450404 Z-0.125000
G01 X30.587791 Y152.588066 Z-0.125000
G01 X31.727430 Y152.596797 Z-0.125000
G01 X32.966763 Y152.449345 Z-0.125000
G01 X34.163366 Y152.149970 Z-0.125000
G01 X38.650641 Y150.454601 Z-0.125000
G01 X39.647828 Y150.252486 Z-0.125000
G01 X40.502537 Y150.215736 Z-0.125000
G01 X41.542454 Y150.364696 Z-0.125000
G01 X42.639335 Y150.747865 Z-0.125000
G01 X45.630843 Y152.438788 Z-0.125000
G01 X46.628030 Y152.914112 Z-0.125000
G01 X47.525469 Y153.173430 Z-0.125000
G01 X48.323213 Y153.228225 Z-0.125000
G01 X49.320400 Y153.040847 Z-0.125000
G01 X50.317560 Y152.586267 Z-0.125000
G01 X53.253691 Y150.488679 Z-0.125000
G01 X54.228706 Y149.916228 Z-0.125000
G01 X55.103999 Y149.601718 Z-0.125000
G01 X56.001438 Y149.520967 Z-0.125000
G01 X56.898904 Y149.696333 Z-0.125000
G01 X57.951468 Y150.197823 Z-0.125000
G01 X58.837847 Y150.806788 Z-0.125000
G01 X61.231054 Y152.702525 Z-0.125000
G01 X62.383339 Y153.429176 Z-0.125000
G01 X63.579942 Y153.886481 Z-0.125000
G01 X64.662589 Y153.997262 Z-0.125000
G01 X65.873453 Y153.789511 Z-0.125000
G01 X67.169778 Y153.245343 Z-0.125000
G01 X71.247108 Y150.652033 Z-0.125000
G01 X72.953377 Y149.728162 Z-0.125000
G01 X74.349423 Y149.185608 Z-0.125000
G01 X75.845163 Y148.831384 Z-0.125000
G01 X77.198479 Y148.692452 Z-0.125000
G01 X78.793941 Y148.701104 Z-0.125000
G01 X84.819713 Y149.328113 Z-0.125000
G01 X87.796986 Y149.449027 Z-0.125000
G01 X90.603312 Y149.309248 Z-0.125000
G01 X95.688888 Y148.744231 Z-0.125000
G01 X97.597775 Y148.681313 Z-0.125000
G01 X99.677583 Y148.914331 Z-0.125000
G01 X101.572209 Y149.504113 Z-0.125000
G01 X103.422517 Y150.443727 Z-0.125000
G01 X106.790738 Y152.639316 Z-0.125000
G01 X107.954110 Y153.301012 Z-0.125000
G01 X109.350155 Y153.843010 Z-0.125000
G01 X110.589489 Y153.998929 Z-0.125000
G01 X111.643640 Y153.854995 Z-0.125000
G01 X112.729462 Y153.445236 Z-0.125000
G01 X113.970383 Y152.704985 Z-0.125000
G01 X116.363589 Y150.927173 Z-0.125000
G01 X117.427239 Y150.236532 Z-0.125000
G01 X118.524147 Y149.736020 Z-0.125000
G01 X119.621029 Y149.521761 Z-0.125000
G01 X120.618190 Y149.600104 Z-0.125000
G01 X121.615376 Y149.922472 Z-0.125000
G01 X122.656855 Y150.467724 Z-0.125000
G01 X125.050061 Y152.037945 Z-0.125000
G01 X126.025076 Y152.592749 Z-0.125000
G01 X127.199533 Y153.053865 Z-0.125000
G01 X128.296415 Y153.228251 Z-0.125000
G01 X129.293602 Y153.162291 Z-0.125000
G01 X130.290762 Y152.906360 Z-0.125000
G01 X131.287949 Y152.504352 Z-0.125000
G01 X134.877758 Y150.784166 Z-0.125000
G01 X136.174083 Y150.390757 Z-0.125000
G01 X137.370686 Y150.224229 Z-0.125000
G01 X138.567289 Y150.247353 Z-0.125000
G01 X139.963334 Y150.475794 Z-0.125000
G01 X144.450609 Y151.818527 Z-0.125000
G01 X146.245514 Y152.254824 Z-0.125000
G01 X147.741281 Y152.487710 Z-0.125000
G01 X149.336743 Y152.600105 Z-0.125000
G01 X150.932231 Y152.589865 Z-0.125000
G01 X152.727136 Y152.468580 Z-0.125000
G01 X160.903941 Y151.495418 Z-0.125000
G01 X166.089239 Y151.075763 Z-0.125000
G00 Z3.000000

(End cutting path id: polyline590)


(Start cutting path id: polyline588)
(Change tool to Default tool)

G00 Z3.000000
G00 X9.732671 Y153.429625

G00 Z4.875000 (Fast pre-penetrate)
G01 Z-0.125000 F400.0(Penetrate)
G01 X13.621618 Y153.192585 Z-0.125000 F800.000000
G01 X20.701542 Y152.232414 Z-0.125000
G01 X23.408173 Y152.088084 Z-0.125000
G01 X24.889679 Y152.187726 Z-0.125000
G01 X26.285725 Y152.417278 Z-0.125000
G01 X31.471022 Y153.791152 Z-0.125000
G01 X32.525174 Y153.919289 Z-0.125000
G01 X33.436874 Y153.915955 Z-0.125000
G01 X34.462530 Y153.769059 Z-0.125000
G01 X35.459690 Y153.483627 Z-0.125000
G01 X39.448385 Y151.780903 Z-0.125000
G01 X40.246129 Y151.591647 Z-0.125000
G01 X41.043873 Y151.536084 Z-0.125000
G01 X42.041034 Y151.680652 Z-0.125000
G01 X43.038194 Y152.057921 Z-0.125000
G01 X45.896775 Y153.808482 Z-0.125000
G01 X46.827473 Y154.273698 Z-0.125000
G01 X47.625190 Y154.506028 Z-0.125000
G01 X48.323213 Y154.550637 Z-0.125000
G01 X49.220679 Y154.372970 Z-0.125000
G01 X50.151376 Y153.926803 Z-0.125000
G01 X52.810488 Y151.908300 Z-0.125000
G01 X53.807675 Y151.269384 Z-0.125000
G01 X54.705114 Y150.922013 Z-0.125000
G01 X55.502858 Y150.842586 Z-0.125000
G01 X56.400324 Y151.024539 Z-0.125000
G01 X57.419656 Y151.545027 Z-0.125000
G01 X58.394644 Y152.269376 Z-0.125000
G01 X60.468764 Y154.016179 Z-0.125000
G01 X61.585621 Y154.763229 Z-0.125000
G01 X62.682503 Y155.207835 Z-0.125000
G01 X63.750889 Y155.317928 Z-0.125000
G01 X64.876267 Y155.096683 Z-0.125000
G01 X66.017492 Y154.574608 Z-0.125000
G01 X67.169778 Y153.839200 Z-0.125000
G01 X70.094822 Y151.743782 Z-0.125000
G01 X71.756774 Y150.809566 Z-0.125000
G01 X72.654213 Y150.448992 Z-0.125000
G01 X73.551679 Y150.197056 Z-0.125000
G01 X75.375079 Y149.999598 Z-0.125000
G01 X76.543186 Y150.059314 Z-0.125000
G01 X77.839511 Y150.246956 Z-0.125000
G01 X82.326785 Y151.261182 Z-0.125000
G01 X84.221411 Y151.614136 Z-0.125000
G01 X85.916595 Y151.814769 Z-0.125000
G01 X87.569074 Y151.885889 Z-0.125000
G01 X89.506430 Y151.804451 Z-0.125000
G01 X91.401056 Y151.560029 Z-0.125000
G01 X96.686075 Y150.375359 Z-0.125000
G01 X98.181816 Y150.106992 Z-0.125000
G01 X99.649087 Y149.999545 Z-0.125000
G01 X100.874186 Y150.082253 Z-0.125000
G01 X102.170510 Y150.379777 Z-0.125000
G01 X103.466835 Y150.910398 Z-0.125000
G01 X104.929344 Y151.764631 Z-0.125000
G01 X107.765753 Y153.802978 Z-0.125000
G01 X109.006674 Y154.586382 Z-0.125000
G01 X110.247594 Y155.126819 Z-0.125000
G01 X111.387233 Y155.320706 Z-0.125000
G01 X112.441384 Y155.205083 Z-0.125000
G01 X113.527206 Y154.795112 Z-0.125000
G01 X114.679492 Y154.090607 Z-0.125000
G01 X117.161333 Y152.186614 Z-0.125000
G01 X118.136348 Y151.542117 Z-0.125000
G01 X119.222144 Y151.043536 Z-0.125000
G01 X120.319052 Y150.841818 Z-0.125000
G01 X121.216491 Y150.920902 Z-0.125000
G01 X122.213678 Y151.246498 Z-0.125000
G01 X123.277328 Y151.810801 Z-0.125000
G01 X125.493264 Y153.275770 Z-0.125000
G01 X126.601231 Y153.913177 Z-0.125000
G01 X127.698113 Y154.351618 Z-0.125000
G01 X128.823491 Y154.547806 Z-0.125000
G01 X129.792182 Y154.503991 Z-0.125000
G01 X130.789342 Y154.274994 Z-0.125000
G01 X131.886250 Y153.859917 Z-0.125000
G01 X134.578594 Y152.570207 Z-0.125000
G01 X135.775224 Y152.081734 Z-0.125000
G01 X137.171243 Y151.694993 Z-0.125000
G01 X138.510324 Y151.540476 Z-0.125000
G01 X139.649936 Y151.569713 Z-0.125000
G01 X140.860800 Y151.734786 Z-0.125000
G01 X147.242701 Y153.352129 Z-0.125000
G01 X149.137327 Y153.677936 Z-0.125000
G01 X151.160143 Y153.873040 Z-0.125000
G01 X153.325437 Y153.932068 Z-0.125000
G01 X155.832626 Y153.865394 Z-0.125000
G01 X166.089239 Y153.189887 Z-0.125000
G00 Z3.000000

(End cutting path id: polyline588)


(Start cutting path id: polyline586)
(Change tool to Default tool)

G00 Z3.000000
G00 X9.732671 Y154.602548

G00 Z4.875000 (Fast pre-penetrate)
G01 Z-0.125000 F400.0(Penetrate)
G01 X13.607384 Y154.772887 Z-0.125000 F800.000000
G01 X16.570422 Y154.693909 Z-0.125000
G01 X19.106080 Y154.400222 Z-0.125000
G01 X23.892492 Y153.547735 Z-0.125000
G01 X26.143273 Y153.413248 Z-0.125000
G01 X27.282885 Y153.509053 Z-0.125000
G01 X28.479488 Y153.741966 Z-0.125000
G01 X32.767347 Y155.076099 Z-0.125000
G01 X33.664786 Y155.224768 Z-0.125000
G01 X34.562251 Y155.246596 Z-0.125000
G01 X35.459690 Y155.123062 Z-0.125000
G01 X36.456877 Y154.817046 Z-0.125000
G01 X40.046687 Y153.120063 Z-0.125000
G01 X40.844431 Y152.910857 Z-0.125000
G01 X41.542454 Y152.858205 Z-0.125000
G01 X42.439893 Y152.992455 Z-0.125000
G01 X43.326272 Y153.341757 Z-0.125000
G01 X46.074046 Y155.139440 Z-0.125000
G01 X46.927167 Y155.593782 Z-0.125000
G01 X47.625190 Y155.817116 Z-0.125000
G01 X48.323213 Y155.874319 Z-0.125000
G01 X49.120957 Y155.719856 Z-0.125000
G01 X49.974105 Y155.309435 Z-0.125000
G01 X50.736369 Y154.773972 Z-0.125000
G01 X52.650944 Y153.184436 Z-0.125000
G01 X53.519597 Y152.602433 Z-0.125000
G01 X54.306255 Y152.268106 Z-0.125000
G01 X55.103999 Y152.163278 Z-0.125000
G01 X56.001438 Y152.342374 Z-0.125000
G01 X56.976453 Y152.859105 Z-0.125000
G01 X57.836242 Y153.521938 Z-0.125000
G01 X59.910361 Y155.351397 Z-0.125000
G01 X60.987293 Y156.101358 Z-0.125000
G01 X61.984480 Y156.525987 Z-0.125000
G01 X62.953171 Y156.643356 Z-0.125000
G01 X63.978827 Y156.453809 Z-0.125000
G01 X65.131113 Y155.911969 Z-0.125000
G01 X66.283398 Y155.126740 Z-0.125000
G01 X68.853875 Y153.141706 Z-0.125000
G01 X70.272093 Y152.242891 Z-0.125000
G01 X71.557331 Y151.679700 Z-0.125000
G01 X72.753934 Y151.393315 Z-0.125000
G01 X74.007529 Y151.326958 Z-0.125000
G01 X75.446304 Y151.495153 Z-0.125000
G01 X77.041766 Y151.896631 Z-0.125000
G01 X81.130182 Y153.253201 Z-0.125000
G01 X83.224251 Y153.825997 Z-0.125000
G01 X85.517736 Y154.226735 Z-0.125000
G01 X87.796986 Y154.355057 Z-0.125000
G01 X89.805568 Y154.235889 Z-0.125000
G01 X91.899636 Y153.881665 Z-0.125000
G01 X93.993705 Y153.314135 Z-0.125000
G01 X98.879839 Y151.682134 Z-0.125000
G01 X100.176163 Y151.409455 Z-0.125000
G01 X101.358532 Y151.322539 Z-0.125000
G01 X102.868533 Y151.508885 Z-0.125000
G01 X104.364300 Y152.065806 Z-0.125000
G01 X105.904359 Y153.000392 Z-0.125000
G01 X108.572361 Y155.051598 Z-0.125000
G01 X109.715783 Y155.833521 Z-0.125000
G01 X110.845922 Y156.389409 Z-0.125000
G01 X111.957039 Y156.636054 Z-0.125000
G01 X113.039686 Y156.547921 Z-0.125000
G01 X114.136568 Y156.132949 Z-0.125000
G01 X115.211304 Y155.465221 Z-0.125000
G01 X117.604510 Y153.580940 Z-0.125000
G01 X118.668160 Y152.856300 Z-0.125000
G01 X119.820472 Y152.333458 Z-0.125000
G01 X120.846128 Y152.163331 Z-0.125000
G01 X121.715098 Y152.248791 Z-0.125000
G01 X122.612537 Y152.540388 Z-0.125000
G01 X123.720505 Y153.122656 Z-0.125000
G01 X126.025076 Y154.638426 Z-0.125000
G01 X127.000090 Y155.194976 Z-0.125000
G01 X128.196693 Y155.674109 Z-0.125000
G01 X129.293602 Y155.867625 Z-0.125000
G01 X130.390483 Y155.820133 Z-0.125000
G01 X131.686808 Y155.496310 Z-0.125000
G01 X135.575781 Y153.794538 Z-0.125000
G01 X137.071548 Y153.265743 Z-0.125000
G01 X138.367872 Y152.978353 Z-0.125000
G01 X139.763892 Y152.859237 Z-0.125000
G01 X140.960521 Y152.899295 Z-0.125000
G01 X142.356541 Y153.075666 Z-0.125000
G01 X148.937884 Y154.482480 Z-0.125000
G01 X152.926579 Y155.019319 Z-0.125000
G01 X157.997894 Y155.246041 Z-0.125000
G01 X166.089239 Y155.180662 Z-0.125000
G00 Z3.000000

(End cutting path id: polyline586)


(Start cutting path id: polyline584)
(Change tool to Default tool)

G00 Z3.000000
G00 X9.732671 Y155.426618

G00 Z4.875000 (Fast pre-penetrate)
G01 Z-0.125000 F400.0(Penetrate)
G01 X16.228528 Y156.020263 Z-0.125000 F800.000000
G01 X19.077584 Y156.085271 Z-0.125000
G01 X21.698729 Y155.809258 Z-0.125000
G01 X26.285725 Y154.849986 Z-0.125000
G01 X28.180351 Y154.740343 Z-0.125000
G01 X29.177511 Y154.850092 Z-0.125000
G01 X30.174698 Y155.082052 Z-0.125000
G01 X33.963950 Y156.407851 Z-0.125000
G01 X34.761668 Y156.550223 Z-0.125000
G01 X35.459690 Y156.573639 Z-0.125000
G01 X36.357156 Y156.446612 Z-0.125000
G01 X37.254622 Y156.146628 Z-0.125000
G01 X39.869416 Y154.757038 Z-0.125000
G01 X40.644988 Y154.417711 Z-0.125000
G01 X41.343011 Y154.229724 Z-0.125000
G01 X42.041034 Y154.184375 Z-0.125000
G01 X42.838778 Y154.325530 Z-0.125000
G01 X43.680840 Y154.689252 Z-0.125000
G01 X46.162681 Y156.420604 Z-0.125000
G01 X46.927167 Y156.866426 Z-0.125000
G01 X47.625190 Y157.123230 Z-0.125000
G01 X48.323213 Y157.198610 Z-0.125000
G01 X49.120957 Y157.042321 Z-0.125000
G01 X49.974105 Y156.606129 Z-0.125000
G01 X52.571173 Y154.447423 Z-0.125000
G01 X53.430962 Y153.868039 Z-0.125000
G01 X54.206534 Y153.558107 Z-0.125000
G01 X54.904557 Y153.488813 Z-0.125000
G01 X55.802022 Y153.701220 Z-0.125000
G01 X56.710547 Y154.224168 Z-0.125000
G01 X59.511502 Y156.699924 Z-0.125000
G01 X60.521945 Y157.429300 Z-0.125000
G01 X61.485900 Y157.853056 Z-0.125000
G01 X62.383339 Y157.967277 Z-0.125000
G01 X63.380526 Y157.778761 Z-0.125000
G01 X64.510639 Y157.219406 Z-0.125000
G01 X65.654061 Y156.396950 Z-0.125000
G01 X68.056157 Y154.440279 Z-0.125000
G01 X69.474349 Y153.500322 Z-0.125000
G01 X70.659866 Y152.967134 Z-0.125000
G01 X71.856469 Y152.689825 Z-0.125000
G01 X73.352236 Y152.691412 Z-0.125000
G01 X74.947724 Y153.034338 Z-0.125000
G01 X76.343744 Y153.524478 Z-0.125000
G01 X80.631602 Y155.284246 Z-0.125000
G01 X83.124530 Y156.059263 Z-0.125000
G01 X85.418014 Y156.488734 Z-0.125000
G01 X87.796986 Y156.636213 Z-0.125000
G01 X90.204453 Y156.474208 Z-0.125000
G01 X92.597659 Y155.990577 Z-0.125000
G01 X94.990865 Y155.189446 Z-0.125000
G01 X99.877026 Y153.134245 Z-0.125000
G01 X101.273071 Y152.757664 Z-0.125000
G01 X102.498143 Y152.646036 Z-0.125000
G01 X103.865694 Y152.831906 Z-0.125000
G01 X105.261739 Y153.394039 Z-0.125000
G01 X106.613467 Y154.262321 Z-0.125000
G01 X109.290333 Y156.425657 Z-0.125000
G01 X110.336256 Y157.167257 Z-0.125000
G01 X111.444224 Y157.726506 Z-0.125000
G01 X112.541106 Y157.963361 Z-0.125000
G01 X113.538266 Y157.868296 Z-0.125000
G01 X114.502221 Y157.502854 Z-0.125000
G01 X115.654507 Y156.775807 Z-0.125000
G01 X117.985668 Y154.902876 Z-0.125000
G01 X119.022728 Y154.186359 Z-0.125000
G01 X120.119609 Y153.674470 Z-0.125000
G01 X121.216491 Y153.485981 Z-0.125000
G01 X122.113957 Y153.584565 Z-0.125000
G01 X123.011422 Y153.887698 Z-0.125000
G01 X123.986411 Y154.397020 Z-0.125000
G01 X126.291008 Y155.897788 Z-0.125000
G01 X127.398976 Y156.525802 Z-0.125000
G01 X128.595579 Y156.994564 Z-0.125000
G01 X129.735191 Y157.190673 Z-0.125000
G01 X130.889064 Y157.139688 Z-0.125000
G01 X132.085667 Y156.862537 Z-0.125000
G01 X136.273804 Y155.151346 Z-0.125000
G01 X137.869266 Y154.623080 Z-0.125000
G01 X139.365033 Y154.312486 Z-0.125000
G01 X140.903530 Y154.184825 Z-0.125000
G01 X142.256819 Y154.211098 Z-0.125000
G01 X143.852308 Y154.365429 Z-0.125000
G01 X150.633067 Y155.464427 Z-0.125000
G01 X154.721483 Y155.939962 Z-0.125000
G01 X159.593382 Y156.243122 Z-0.125000
G01 X166.089239 Y156.405337 Z-0.125000
G00 Z3.000000

(End cutting path id: polyline584)


(Start cutting path id: polyline582)
(Change tool to Default tool)

G00 Z3.000000
G00 X9.732671 Y156.465530

G00 Z4.875000 (Fast pre-penetrate)
G01 Z-0.125000 F400.0(Penetrate)
G01 X13.322481 Y156.624624 Z-0.125000 F800.000000
G01 X19.205801 Y157.317249 Z-0.125000
G01 X21.470790 Y157.419114 Z-0.125000
G01 X23.792797 Y157.171940 Z-0.125000
G01 X27.980908 Y156.170255 Z-0.125000
G01 X29.676091 Y156.065004 Z-0.125000
G01 X30.573557 Y156.180706 Z-0.125000
G01 X31.471022 Y156.418064 Z-0.125000
G01 X34.761668 Y157.699968 Z-0.125000
G01 X35.459690 Y157.853876 Z-0.125000
G01 X36.157713 Y157.899676 Z-0.125000
G01 X36.955458 Y157.799690 Z-0.125000
G01 X37.852923 Y157.495525 Z-0.125000
G01 X40.345851 Y156.083948 Z-0.125000
G01 X41.143568 Y155.717686 Z-0.125000
G01 X41.841591 Y155.535627 Z-0.125000
G01 X42.439893 Y155.509248 Z-0.125000
G01 X43.237637 Y155.678713 Z-0.125000
G01 X44.035381 Y156.065163 Z-0.125000
G01 X46.251317 Y157.706054 Z-0.125000
G01 X47.049061 Y158.196802 Z-0.125000
G01 X47.724912 Y158.451860 Z-0.125000
G01 X48.422935 Y158.518985 Z-0.125000
G01 X49.120957 Y158.371665 Z-0.125000
G01 X49.974105 Y157.918805 Z-0.125000
G01 X52.491401 Y155.749119 Z-0.125000
G01 X53.253691 Y155.216222 Z-0.125000
G01 X54.007091 Y154.892505 Z-0.125000
G01 X54.705114 Y154.810854 Z-0.125000
G01 X55.502858 Y154.985903 Z-0.125000
G01 X56.356006 Y155.459982 Z-0.125000
G01 X57.118270 Y156.072915 Z-0.125000
G01 X59.112617 Y157.952672 Z-0.125000
G01 X60.078768 Y158.690408 Z-0.125000
G01 X60.987293 Y159.136257 Z-0.125000
G01 X61.884759 Y159.290774 Z-0.125000
G01 X62.881919 Y159.123637 Z-0.125000
G01 X64.067463 Y158.527108 Z-0.125000
G01 X65.015887 Y157.826783 Z-0.125000
G01 X67.568637 Y155.677814 Z-0.125000
G01 X68.964682 Y154.740528 Z-0.125000
G01 X70.261007 Y154.187391 Z-0.125000
G01 X71.614322 Y153.970777 Z-0.125000
G01 X72.953377 Y154.088067 Z-0.125000
G01 X74.449118 Y154.522935 Z-0.125000
G01 X79.634415 Y156.904473 Z-0.125000
G01 X82.127343 Y157.821412 Z-0.125000
G01 X84.620297 Y158.397251 Z-0.125000
G01 X87.227180 Y158.645615 Z-0.125000
G01 X88.708686 Y158.634846 Z-0.125000
G01 X90.204453 Y158.510175 Z-0.125000
G01 X91.700194 Y158.262631 Z-0.125000
G01 X93.096240 Y157.911397 Z-0.125000
G01 X95.688888 Y156.940986 Z-0.125000
G01 X100.674743 Y154.520633 Z-0.125000
G01 X101.971068 Y154.112276 Z-0.125000
G01 X103.067976 Y153.970354 Z-0.125000
G01 X104.364300 Y154.108122 Z-0.125000
G01 X105.727088 Y154.642315 Z-0.125000
G01 X107.136442 Y155.573991 Z-0.125000
G01 X109.689192 Y157.720606 Z-0.125000
G01 X110.690797 Y158.463132 Z-0.125000
G01 X111.843083 Y159.062862 Z-0.125000
G01 X112.868739 Y159.285482 Z-0.125000
G01 X113.837430 Y159.193407 Z-0.125000
G01 X114.834590 Y158.802512 Z-0.125000
G01 X115.911549 Y158.108696 Z-0.125000
G01 X118.145212 Y156.285428 Z-0.125000
G01 X119.199998 Y155.539675 Z-0.125000
G01 X120.319052 Y155.003550 Z-0.125000
G01 X121.316212 Y154.812389 Z-0.125000
G01 X122.213678 Y154.881948 Z-0.125000
G01 X123.111117 Y155.159416 Z-0.125000
G01 X124.163708 Y155.691863 Z-0.125000
G01 X126.645549 Y157.280763 Z-0.125000
G01 X127.698113 Y157.857951 Z-0.125000
G01 X128.994438 Y158.339836 Z-0.125000
G01 X130.191041 Y158.518853 Z-0.125000
G01 X131.387644 Y158.448844 Z-0.125000
G01 X132.683968 Y158.145553 Z-0.125000
G01 X136.772384 Y156.581973 Z-0.125000
G01 X138.567289 Y156.019999 Z-0.125000
G01 X140.162777 Y155.694482 Z-0.125000
G01 X141.929186 Y155.524408 Z-0.125000
G01 X145.120136 Y155.593729 Z-0.125000
G01 X152.328277 Y156.300563 Z-0.125000
G01 X156.402432 Y156.586656 Z-0.125000
G01 X160.732994 Y156.745459 Z-0.125000
G01 X166.089239 Y156.806048 Z-0.125000
G00 Z3.000000

(End cutting path id: polyline582)


(Start cutting path id: polyline580)
(Change tool to Default tool)

G00 Z3.000000
G00 X9.732671 Y157.908328

G00 Z4.875000 (Fast pre-penetrate)
G01 Z-0.125000 F400.0(Penetrate)
G01 X13.037578 Y157.786143 Z-0.125000 F800.000000
G01 X15.544740 Y157.840250 Z-0.125000
G01 X17.710034 Y158.053054 Z-0.125000
G01 X21.599007 Y158.641355 Z-0.125000
G01 X23.522129 Y158.741764 Z-0.125000
G01 X24.590515 Y158.659929 Z-0.125000
G01 X25.587702 Y158.484775 Z-0.125000
G01 X29.277232 Y157.492853 Z-0.125000
G01 X30.673278 Y157.381305 Z-0.125000
G01 X31.471022 Y157.471845 Z-0.125000
G01 X32.368461 Y157.712748 Z-0.125000
G01 X35.559412 Y159.042912 Z-0.125000
G01 X36.257435 Y159.193090 Z-0.125000
G01 X36.855736 Y159.220897 Z-0.125000
G01 X37.653480 Y159.093395 Z-0.125000
G01 X38.451225 Y158.786426 Z-0.125000
G01 X40.667160 Y157.445598 Z-0.125000
G01 X41.442732 Y157.059519 Z-0.125000
G01 X42.041034 Y156.879602 Z-0.125000
G01 X42.639335 Y156.828379 Z-0.125000
G01 X43.337358 Y156.948685 Z-0.125000
G01 X44.124016 Y157.307962 Z-0.125000
G01 X46.348815 Y159.004812 Z-0.125000
G01 X47.137696 Y159.513579 Z-0.125000
G01 X47.824633 Y159.781073 Z-0.125000
G01 X48.422935 Y159.844202 Z-0.125000
G01 X49.120957 Y159.705719 Z-0.125000
G01 X49.885444 Y159.306252 Z-0.125000
G01 X50.656597 Y158.699510 Z-0.125000
G01 X52.411629 Y157.083649 Z-0.125000
G01 X53.165056 Y156.541201 Z-0.125000
G01 X53.907370 Y156.214229 Z-0.125000
G01 X54.605393 Y156.134484 Z-0.125000
G01 X55.403137 Y156.324692 Z-0.125000
G01 X56.240754 Y156.813536 Z-0.125000
G01 X57.038498 Y157.482587 Z-0.125000
G01 X58.953073 Y159.326254 Z-0.125000
G01 X59.901498 Y160.052720 Z-0.125000
G01 X60.887598 Y160.508305 Z-0.125000
G01 X61.785037 Y160.609667 Z-0.125000
G01 X62.782224 Y160.373421 Z-0.125000
G01 X63.801557 Y159.810732 Z-0.125000
G01 X64.856343 Y158.995579 Z-0.125000
G01 X67.169778 Y156.994273 Z-0.125000
G01 X68.587969 Y156.023994 Z-0.125000
G01 X69.961843 Y155.456993 Z-0.125000
G01 X70.659866 Y155.324066 Z-0.125000
G01 X71.357889 Y155.292766 Z-0.125000
G01 X72.554492 Y155.453024 Z-0.125000
G01 X73.850816 Y155.869980 Z-0.125000
G01 X75.246862 Y156.506567 Z-0.125000
G01 X79.235556 Y158.542877 Z-0.125000
G01 X80.631602 Y159.129749 Z-0.125000
G01 X82.027648 Y159.603723 Z-0.125000
G01 X83.523388 Y159.983717 Z-0.125000
G01 X85.118877 Y160.252798 Z-0.125000
G01 X86.771330 Y160.398345 Z-0.125000
G01 X88.480774 Y160.417686 Z-0.125000
G01 X91.301335 Y160.147255 Z-0.125000
G01 X92.597659 Y159.876640 Z-0.125000
G01 X93.893984 Y159.498207 Z-0.125000
G01 X96.287190 Y158.501285 Z-0.125000
G01 X99.976747 Y156.478759 Z-0.125000
G01 X101.273071 Y155.849369 Z-0.125000
G01 X102.569369 Y155.421538 Z-0.125000
G01 X103.751738 Y155.291681 Z-0.125000
G01 X104.962602 Y155.479800 Z-0.125000
G01 X106.159205 Y156.001954 Z-0.125000
G01 X107.375758 Y156.835285 Z-0.125000
G01 X109.928507 Y159.042886 Z-0.125000
G01 X110.956703 Y159.819807 Z-0.125000
G01 X112.142247 Y160.424882 Z-0.125000
G01 X113.239129 Y160.613795 Z-0.125000
G01 X114.136568 Y160.475656 Z-0.125000
G01 X115.034033 Y160.091058 Z-0.125000
G01 X116.071093 Y159.401528 Z-0.125000
G01 X118.145212 Y157.685998 Z-0.125000
G01 X119.199998 Y156.919449 Z-0.125000
G01 X120.319052 Y156.356707 Z-0.125000
G01 X121.316212 Y156.140596 Z-0.125000
G01 X122.413094 Y156.228014 Z-0.125000
G01 X123.510002 Y156.616501 Z-0.125000
G01 X124.606884 Y157.216602 Z-0.125000
G01 X127.000090 Y158.725757 Z-0.125000
G01 X128.296415 Y159.365280 Z-0.125000
G01 X129.393323 Y159.706222 Z-0.125000
G01 X130.532935 Y159.844334 Z-0.125000
G01 X131.686808 Y159.774934 Z-0.125000
G01 X132.983132 Y159.497440 Z-0.125000
G01 X137.270964 Y158.004265 Z-0.125000
G01 X139.165590 Y157.455785 Z-0.125000
G01 X140.860800 Y157.118468 Z-0.125000
G01 X142.655705 Y156.913575 Z-0.125000
G01 X146.145792 Y156.834253 Z-0.125000
G01 X157.428088 Y157.157970 Z-0.125000
G01 X166.089239 Y157.097248 Z-0.125000
G00 Z3.000000

(End cutting path id: polyline580)


(Start cutting path id: polyline578)
(Change tool to Default tool)

G00 Z3.000000
G00 X9.732671 Y159.529137

G00 Z4.875000 (Fast pre-penetrate)
G01 Z-0.125000 F400.0(Penetrate)
G01 X14.974934 Y159.154328 Z-0.125000 F800.000000
G01 X17.482122 Y159.121203 Z-0.125000
G01 X19.604660 Y159.312390 Z-0.125000
G01 X23.493633 Y159.979166 Z-0.125000
G01 X25.117591 Y160.063224 Z-0.125000
G01 X26.884026 Y159.817109 Z-0.125000
G01 X30.274393 Y158.817250 Z-0.125000
G01 X31.570717 Y158.704326 Z-0.125000
G01 X32.268740 Y158.786108 Z-0.125000
G01 X33.066484 Y159.006188 Z-0.125000
G01 X36.057992 Y160.340957 Z-0.125000
G01 X36.756015 Y160.511586 Z-0.125000
G01 X37.311586 Y160.544791 Z-0.125000
G01 X38.052339 Y160.433799 Z-0.125000
G01 X38.750362 Y160.170962 Z-0.125000
G01 X41.642175 Y158.422042 Z-0.125000
G01 X42.340198 Y158.194210 Z-0.125000
G01 X42.938499 Y158.154257 Z-0.125000
G01 X43.636522 Y158.301921 Z-0.125000
G01 X44.301287 Y158.625612 Z-0.125000
G01 X46.428587 Y160.299840 Z-0.125000
G01 X47.226331 Y160.834325 Z-0.125000
G01 X47.924354 Y161.111264 Z-0.125000
G01 X48.522656 Y161.165133 Z-0.125000
G01 X49.220679 Y161.004002 Z-0.125000
G01 X49.974105 Y160.579558 Z-0.125000
G01 X52.331857 Y158.445722 Z-0.125000
G01 X53.076394 Y157.888854 Z-0.125000
G01 X53.807675 Y157.547992 Z-0.125000
G01 X54.505698 Y157.455811 Z-0.125000
G01 X55.292356 Y157.637236 Z-0.125000
G01 X56.160982 Y158.150580 Z-0.125000
G01 X58.873302 Y160.698593 Z-0.125000
G01 X59.812862 Y161.413206 Z-0.125000
G01 X60.688156 Y161.820161 Z-0.125000
G01 X61.585621 Y161.934090 Z-0.125000
G01 X62.483060 Y161.742320 Z-0.125000
G01 X63.535624 Y161.181854 Z-0.125000
G01 X64.457458 Y160.477402 Z-0.125000
G01 X67.010234 Y158.250566 Z-0.125000
G01 X68.322063 Y157.348285 Z-0.125000
G01 X69.662705 Y156.782633 Z-0.125000
G01 X70.360728 Y156.646584 Z-0.125000
G01 X71.044490 Y156.616157 Z-0.125000
G01 X72.255354 Y156.786443 Z-0.125000
G01 X73.551679 Y157.226365 Z-0.125000
G01 X74.848003 Y157.843187 Z-0.125000
G01 X78.936392 Y160.024171 Z-0.125000
G01 X80.432159 Y160.672506 Z-0.125000
G01 X81.828205 Y161.154152 Z-0.125000
G01 X83.423667 Y161.558753 Z-0.125000
G01 X85.118877 Y161.834686 Z-0.125000
G01 X86.885286 Y161.977588 Z-0.125000
G01 X88.708686 Y161.987298 Z-0.125000
G01 X90.204453 Y161.889349 Z-0.125000
G01 X91.700194 Y161.681493 Z-0.125000
G01 X92.996518 Y161.395584 Z-0.125000
G01 X94.292843 Y160.996223 Z-0.125000
G01 X96.686075 Y159.937706 Z-0.125000
G01 X100.320202 Y157.821862 Z-0.125000
G01 X101.472487 Y157.227608 Z-0.125000
G01 X102.768812 Y156.761334 Z-0.125000
G01 X103.965415 Y156.614755 Z-0.125000
G01 X105.062323 Y156.775568 Z-0.125000
G01 X106.258926 Y157.290791 Z-0.125000
G01 X107.535301 Y158.185531 Z-0.125000
G01 X110.008279 Y160.374691 Z-0.125000
G01 X111.045339 Y161.167937 Z-0.125000
G01 X112.142247 Y161.737240 Z-0.125000
G01 X113.239129 Y161.936763 Z-0.125000
G01 X114.136568 Y161.798650 Z-0.125000
G01 X115.034033 Y161.408020 Z-0.125000
G01 X115.991321 Y160.769184 Z-0.125000
G01 X118.145212 Y158.979201 Z-0.125000
G01 X119.199998 Y158.216276 Z-0.125000
G01 X120.319052 Y157.664488 Z-0.125000
G01 X121.316212 Y157.460733 Z-0.125000
G01 X122.313399 Y157.537276 Z-0.125000
G01 X123.410281 Y157.906793 Z-0.125000
G01 X124.518249 Y158.496654 Z-0.125000
G01 X126.911455 Y159.982288 Z-0.125000
G01 X128.296415 Y160.662055 Z-0.125000
G01 X129.493018 Y161.027682 Z-0.125000
G01 X130.760873 Y161.168519 Z-0.125000
G01 X131.886250 Y161.101289 Z-0.125000
G01 X133.182575 Y160.848612 Z-0.125000
G01 X137.769544 Y159.418435 Z-0.125000
G01 X139.763892 Y158.904588 Z-0.125000
G01 X141.558823 Y158.576373 Z-0.125000
G01 X143.553144 Y158.347403 Z-0.125000
G01 X145.917881 Y158.211090 Z-0.125000
G01 X148.994875 Y158.155131 Z-0.125000
G01 X166.089239 Y158.208576 Z-0.125000
G00 Z3.000000

(End cutting path id: polyline578)


(Start cutting path id: polyline576)
(Change tool to Default tool)

G00 Z3.000000
G00 X9.732671 Y161.040779

G00 Z4.875000 (Fast pre-penetrate)
G01 Z-0.125000 F400.0(Penetrate)
G01 X12.695684 Y160.904757 Z-0.125000 F800.000000
G01 X17.482122 Y160.474280 Z-0.125000
G01 X19.191540 Y160.432582 Z-0.125000
G01 X21.200148 Y160.607630 Z-0.125000
G01 X24.889679 Y161.310071 Z-0.125000
G01 X26.371185 Y161.383652 Z-0.125000
G01 X27.980908 Y161.124255 Z-0.125000
G01 X30.972416 Y160.160961 Z-0.125000
G01 X32.169019 Y160.023642 Z-0.125000
G01 X32.966763 Y160.115982 Z-0.125000
G01 X33.764507 Y160.359663 Z-0.125000
G01 X36.656294 Y161.709988 Z-0.125000
G01 X37.753202 Y161.866754 Z-0.125000
G01 X38.451225 Y161.749623 Z-0.125000
G01 X39.149247 Y161.463847 Z-0.125000
G01 X41.287607 Y160.066531 Z-0.125000
G01 X41.941312 Y159.717229 Z-0.125000
G01 X42.439893 Y159.542472 Z-0.125000
G01 X43.038194 Y159.473019 Z-0.125000
G01 X43.736217 Y159.600098 Z-0.125000
G01 X44.478558 Y159.966757 Z-0.125000
G01 X47.226331 Y162.112816 Z-0.125000
G01 X47.924354 Y162.417827 Z-0.125000
G01 X48.522656 Y162.490244 Z-0.125000
G01 X49.220679 Y162.341892 Z-0.125000
G01 X49.974105 Y161.920173 Z-0.125000
G01 X52.331857 Y159.759588 Z-0.125000
G01 X53.076394 Y159.199546 Z-0.125000
G01 X53.807675 Y158.862652 Z-0.125000
G01 X54.505698 Y158.780446 Z-0.125000
G01 X55.292356 Y158.978116 Z-0.125000
G01 X56.160982 Y159.511013 Z-0.125000
G01 X58.793530 Y162.009232 Z-0.125000
G01 X59.724227 Y162.725008 Z-0.125000
G01 X60.588434 Y163.135403 Z-0.125000
G01 X61.485900 Y163.257587 Z-0.125000
G01 X62.483060 Y163.033168 Z-0.125000
G01 X63.446989 Y162.506701 Z-0.125000
G01 X64.377686 Y161.792459 Z-0.125000
G01 X66.930462 Y159.558135 Z-0.125000
G01 X68.233428 Y158.662072 Z-0.125000
G01 X69.562984 Y158.102240 Z-0.125000
G01 X70.816578 Y157.937405 Z-0.125000
G01 X72.055911 Y158.092239 Z-0.125000
G01 X73.451957 Y158.567536 Z-0.125000
G01 X74.703964 Y159.172690 Z-0.125000
G01 X78.736976 Y161.366295 Z-0.125000
G01 X81.329625 Y162.433041 Z-0.125000
G01 X82.725644 Y162.832826 Z-0.125000
G01 X84.221411 Y163.134583 Z-0.125000
G01 X85.717178 Y163.322384 Z-0.125000
G01 X87.341136 Y163.415649 Z-0.125000
G01 X89.164536 Y163.394721 Z-0.125000
G01 X90.902476 Y163.242268 Z-0.125000
G01 X92.497938 Y162.962921 Z-0.125000
G01 X93.993705 Y162.550807 Z-0.125000
G01 X95.290029 Y162.058497 Z-0.125000
G01 X96.686075 Y161.384551 Z-0.125000
G01 X101.472487 Y158.587221 Z-0.125000
G01 X102.669091 Y158.123883 Z-0.125000
G01 X103.765999 Y157.940527 Z-0.125000
G01 X104.962602 Y158.071496 Z-0.125000
G01 X106.258926 Y158.628443 Z-0.125000
G01 X107.455529 Y159.481961 Z-0.125000
G01 X109.928507 Y161.703850 Z-0.125000
G01 X110.868068 Y162.440317 Z-0.125000
G01 X111.942804 Y163.028882 Z-0.125000
G01 X112.939965 Y163.254941 Z-0.125000
G01 X113.837430 Y163.166042 Z-0.125000
G01 X114.834590 Y162.759060 Z-0.125000
G01 X115.911549 Y162.033626 Z-0.125000
G01 X118.065440 Y160.231102 Z-0.125000
G01 X119.022728 Y159.542022 Z-0.125000
G01 X120.119609 Y158.997113 Z-0.125000
G01 X121.216491 Y158.780208 Z-0.125000
G01 X122.213678 Y158.875140 Z-0.125000
G01 X123.310560 Y159.256219 Z-0.125000
G01 X124.252343 Y159.750090 Z-0.125000
G01 X126.822820 Y161.314410 Z-0.125000
G01 X128.196693 Y161.972190 Z-0.125000
G01 X129.393323 Y162.334854 Z-0.125000
G01 X130.646891 Y162.487889 Z-0.125000
G01 X131.886250 Y162.435925 Z-0.125000
G01 X133.182575 Y162.215607 Z-0.125000
G01 X138.068708 Y160.873959 Z-0.125000
G01 X140.362193 Y160.366727 Z-0.125000
G01 X142.755426 Y160.013747 Z-0.125000
G01 X145.348075 Y159.797291 Z-0.125000
G01 X149.906575 Y159.667752 Z-0.125000
G01 X155.262793 Y159.735697 Z-0.125000
G01 X160.163188 Y159.971096 Z-0.125000
G01 X166.089239 Y160.432291 Z-0.125000
G00 Z3.000000

(End cutting path id: polyline576)


(Start cutting path id: polyline574)
(Change tool to Default tool)

G00 Z3.000000
G00 X9.732671 Y162.350491

G00 Z4.875000 (Fast pre-penetrate)
G01 Z-0.125000 F400.0(Penetrate)
G01 X13.949278 Y162.322842 Z-0.125000 F800.000000
G01 X19.006358 Y161.817753 Z-0.125000
G01 X20.673073 Y161.753592 Z-0.125000
G01 X22.596168 Y161.937186 Z-0.125000
G01 X25.886839 Y162.628488 Z-0.125000
G01 X27.282885 Y162.706487 Z-0.125000
G01 X28.778652 Y162.447408 Z-0.125000
G01 X31.570717 Y161.489697 Z-0.125000
G01 X32.753086 Y161.346901 Z-0.125000
G01 X33.465343 Y161.436595 Z-0.125000
G01 X34.163366 Y161.654029 Z-0.125000
G01 X36.855736 Y162.979907 Z-0.125000
G01 X37.454038 Y163.146939 Z-0.125000
G01 X38.052339 Y163.189140 Z-0.125000
G01 X38.750362 Y163.067035 Z-0.125000
G01 X39.426239 Y162.779936 Z-0.125000
G01 X41.464878 Y161.398759 Z-0.125000
G01 X42.140755 Y161.028158 Z-0.125000
G01 X42.739057 Y160.836785 Z-0.125000
G01 X43.237637 Y160.796939 Z-0.125000
G01 X43.935660 Y160.946958 Z-0.125000
G01 X44.567193 Y161.273321 Z-0.125000
G01 X47.326053 Y163.455257 Z-0.125000
G01 X48.024076 Y163.752834 Z-0.125000
G01 X48.622377 Y163.810963 Z-0.125000
G01 X49.320400 Y163.637925 Z-0.125000
G01 X49.974105 Y163.262270 Z-0.125000
G01 X52.331857 Y161.088007 Z-0.125000
G01 X53.076394 Y160.523625 Z-0.125000
G01 X53.807675 Y160.185064 Z-0.125000
G01 X54.505698 Y160.103599 Z-0.125000
G01 X55.292356 Y160.303809 Z-0.125000
G01 X56.081210 Y160.779265 Z-0.125000
G01 X58.793530 Y163.337862 Z-0.125000
G01 X59.724227 Y164.050675 Z-0.125000
G01 X60.588434 Y164.458900 Z-0.125000
G01 X61.485900 Y164.580555 Z-0.125000
G01 X62.483060 Y164.358279 Z-0.125000
G01 X63.446989 Y163.836336 Z-0.125000
G01 X64.377686 Y163.127756 Z-0.125000
G01 X66.930462 Y160.904413 Z-0.125000
G01 X68.322063 Y159.956438 Z-0.125000
G01 X69.662705 Y159.411000 Z-0.125000
G01 X70.360728 Y159.285165 Z-0.125000
G01 X71.044490 Y159.264157 Z-0.125000
G01 X72.255354 Y159.449233 Z-0.125000
G01 X73.551679 Y159.902304 Z-0.125000
G01 X78.936392 Y162.733025 Z-0.125000
G01 X80.332438 Y163.346408 Z-0.125000
G01 X81.728484 Y163.839432 Z-0.125000
G01 X83.423667 Y164.276020 Z-0.125000
G01 X85.118877 Y164.553092 Z-0.125000
G01 X86.999242 Y164.703031 Z-0.125000
G01 X88.822642 Y164.709037 Z-0.125000
G01 X90.304174 Y164.610585 Z-0.125000
G01 X91.799915 Y164.400718 Z-0.125000
G01 X93.096240 Y164.109359 Z-0.125000
G01 X94.392564 Y163.698065 Z-0.125000
G01 X96.774710 Y162.601792 Z-0.125000
G01 X101.372766 Y159.888996 Z-0.125000
G01 X102.669091 Y159.404835 Z-0.125000
G01 X103.765999 Y159.259897 Z-0.125000
G01 X104.962602 Y159.446534 Z-0.125000
G01 X106.081656 Y159.961624 Z-0.125000
G01 X107.295986 Y160.843267 Z-0.125000
G01 X109.609420 Y162.949719 Z-0.125000
G01 X110.602162 Y163.745399 Z-0.125000
G01 X111.643640 Y164.333726 Z-0.125000
G01 X112.640827 Y164.575951 Z-0.125000
G01 X113.538266 Y164.497106 Z-0.125000
G01 X114.502221 Y164.113566 Z-0.125000
G01 X115.477210 Y163.470735 Z-0.125000
G01 X117.826125 Y161.510202 Z-0.125000
G01 X118.756822 Y160.844114 Z-0.125000
G01 X119.820472 Y160.318996 Z-0.125000
G01 X120.960084 Y160.101535 Z-0.125000
G01 X122.014235 Y160.221921 Z-0.125000
G01 X123.111117 Y160.621467 Z-0.125000
G01 X126.556914 Y162.626345 Z-0.125000
G01 X127.897556 Y163.262297 Z-0.125000
G01 X129.094159 Y163.631020 Z-0.125000
G01 X130.305023 Y163.800961 Z-0.125000
G01 X131.558591 Y163.783869 Z-0.125000
G01 X132.883411 Y163.604270 Z-0.125000
G01 X138.068708 Y162.366974 Z-0.125000
G01 X140.761079 Y161.870484 Z-0.125000
G01 X143.553144 Y161.563489 Z-0.125000
G01 X146.601643 Y161.423233 Z-0.125000
G01 X150.362425 Y161.457259 Z-0.125000
G01 X154.322624 Y161.698955 Z-0.125000
G01 X157.712991 Y162.050507 Z-0.125000
G01 X166.089239 Y163.099684 Z-0.125000
G00 Z3.000000

(End cutting path id: polyline574)


(Start cutting path id: polyline572)
(Change tool to Default tool)

G00 Z3.000000
G00 X9.732671 Y163.542040

G00 Z4.875000 (Fast pre-penetrate)
G01 Z-0.125000 F400.0(Penetrate)
G01 X13.037578 Y163.687799 Z-0.125000 F800.000000
G01 X15.202872 Y163.684333 Z-0.125000
G01 X17.012011 Y163.556328 Z-0.125000
G01 X20.502126 Y163.128339 Z-0.125000
G01 X21.926640 Y163.078094 Z-0.125000
G01 X23.593355 Y163.255127 Z-0.125000
G01 X26.584862 Y163.937460 Z-0.125000
G01 X27.852691 Y164.034482 Z-0.125000
G01 X29.277232 Y163.802946 Z-0.125000
G01 X32.069324 Y162.803986 Z-0.125000
G01 X33.166206 Y162.670822 Z-0.125000
G01 X33.864229 Y162.761785 Z-0.125000
G01 X34.562251 Y162.991549 Z-0.125000
G01 X37.154900 Y164.314702 Z-0.125000
G01 X37.653480 Y164.460858 Z-0.125000
G01 X38.251782 Y164.513774 Z-0.125000
G01 X38.850083 Y164.420800 Z-0.125000
G01 X39.514875 Y164.154921 Z-0.125000
G01 X41.553540 Y162.754430 Z-0.125000
G01 X42.262622 Y162.350703 Z-0.125000
G01 X42.838778 Y162.161843 Z-0.125000
G01 X43.337358 Y162.120224 Z-0.125000
G01 X44.035381 Y162.272730 Z-0.125000
G01 X44.655855 Y162.602427 Z-0.125000
G01 X46.747674 Y164.343992 Z-0.125000
G01 X47.425774 Y164.809631 Z-0.125000
G01 X48.024076 Y165.065853 Z-0.125000
G01 X48.622377 Y165.135571 Z-0.125000
G01 X49.320400 Y164.972270 Z-0.125000
G01 X49.974105 Y164.601907 Z-0.125000
G01 X50.656597 Y164.042049 Z-0.125000
G01 X52.331857 Y162.425685 Z-0.125000
G01 X53.076394 Y161.857097 Z-0.125000
G01 X53.807675 Y161.513218 Z-0.125000
G01 X54.505698 Y161.425403 Z-0.125000
G01 X55.292356 Y161.616987 Z-0.125000
G01 X56.160982 Y162.142396 Z-0.125000
G01 X58.793530 Y164.620878 Z-0.125000
G01 X59.724227 Y165.339803 Z-0.125000
G01 X60.688156 Y165.793218 Z-0.125000
G01 X61.585621 Y165.902597 Z-0.125000
G01 X62.483060 Y165.713103 Z-0.125000
G01 X63.535624 Y165.163802 Z-0.125000
G01 X64.457458 Y164.473981 Z-0.125000
G01 X67.090006 Y162.216929 Z-0.125000
G01 X68.499334 Y161.274485 Z-0.125000
G01 X69.862148 Y160.732222 Z-0.125000
G01 X70.560144 Y160.608609 Z-0.125000
G01 X71.258167 Y160.586490 Z-0.125000
G01 X72.454797 Y160.761829 Z-0.125000
G01 X73.751095 Y161.195269 Z-0.125000
G01 X75.147140 Y161.850905 Z-0.125000
G01 X79.135835 Y163.942487 Z-0.125000
G01 X80.531881 Y164.546001 Z-0.125000
G01 X81.927926 Y165.033892 Z-0.125000
G01 X83.523388 Y165.447514 Z-0.125000
G01 X85.218598 Y165.731994 Z-0.125000
G01 X86.999242 Y165.880557 Z-0.125000
G01 X88.708686 Y165.891723 Z-0.125000
G01 X90.204453 Y165.793324 Z-0.125000
G01 X91.600499 Y165.596871 Z-0.125000
G01 X92.896823 Y165.306783 Z-0.125000
G01 X94.093426 Y164.932583 Z-0.125000
G01 X96.420143 Y163.887692 Z-0.125000
G01 X99.877026 Y161.826987 Z-0.125000
G01 X101.173350 Y161.142934 Z-0.125000
G01 X102.369953 Y160.716823 Z-0.125000
G01 X103.523826 Y160.584373 Z-0.125000
G01 X104.663438 Y160.784001 Z-0.125000
G01 X105.727088 Y161.280464 Z-0.125000
G01 X106.976872 Y162.196768 Z-0.125000
G01 X109.210561 Y164.246466 Z-0.125000
G01 X110.167823 Y165.026139 Z-0.125000
G01 X111.244781 Y165.648068 Z-0.125000
G01 X112.241942 Y165.897491 Z-0.125000
G01 X113.139407 Y165.820471 Z-0.125000
G01 X114.036873 Y165.470401 Z-0.125000
G01 X115.113805 Y164.762350 Z-0.125000
G01 X117.347467 Y162.880239 Z-0.125000
G01 X118.402254 Y162.125992 Z-0.125000
G01 X119.521308 Y161.599631 Z-0.125000
G01 X120.618190 Y161.422731 Z-0.125000
G01 X121.615376 Y161.551133 Z-0.125000
G01 X122.612537 Y161.911415 Z-0.125000
G01 X126.025076 Y163.876738 Z-0.125000
G01 X127.398976 Y164.536714 Z-0.125000
G01 X128.595579 Y164.919274 Z-0.125000
G01 X129.792182 Y165.109192 Z-0.125000
G01 X131.088506 Y165.121839 Z-0.125000
G01 X132.484552 Y164.964862 Z-0.125000
G01 X137.669850 Y163.879622 Z-0.125000
G01 X140.262498 Y163.467296 Z-0.125000
G01 X142.840886 Y163.234278 Z-0.125000
G01 X145.462031 Y163.160856 Z-0.125000
G01 X147.969193 Y163.224276 Z-0.125000
G01 X150.633067 Y163.419486 Z-0.125000
G01 X161.003662 Y164.808758 Z-0.125000
G01 X163.582077 Y165.035955 Z-0.125000
G01 X166.089239 Y165.132634 Z-0.125000
G00 Z3.000000

(End cutting path id: polyline572)


(Start cutting path id: polyline570)
(Change tool to Default tool)

G00 Z3.000000
G00 X9.732671 Y164.734622

G00 Z4.875000 (Fast pre-penetrate)
G01 Z-0.125000 F400.0(Penetrate)
G01 X14.405128 Y164.992326 Z-0.125000 F800.000000
G01 X16.456440 Y165.017435 Z-0.125000
G01 X18.208614 Y164.894906 Z-0.125000
G01 X21.499286 Y164.451492 Z-0.125000
G01 X22.838341 Y164.401697 Z-0.125000
G01 X24.391099 Y164.583175 Z-0.125000
G01 X27.183164 Y165.262915 Z-0.125000
G01 X28.422523 Y165.355175 Z-0.125000
G01 X29.775813 Y165.113611 Z-0.125000
G01 X32.468183 Y164.111741 Z-0.125000
G01 X33.550830 Y163.996462 Z-0.125000
G01 X34.163366 Y164.092214 Z-0.125000
G01 X34.761668 Y164.293615 Z-0.125000
G01 X37.354316 Y165.648148 Z-0.125000
G01 X37.952618 Y165.806818 Z-0.125000
G01 X38.451225 Y165.835128 Z-0.125000
G01 X39.049526 Y165.724612 Z-0.125000
G01 X39.692145 Y165.445504 Z-0.125000
G01 X42.262622 Y163.707352 Z-0.125000
G01 X42.838778 Y163.498781 Z-0.125000
G01 X43.337358 Y163.441552 Z-0.125000
G01 X44.035381 Y163.577336 Z-0.125000
G01 X44.744490 Y163.956536 Z-0.125000
G01 X46.827473 Y165.712256 Z-0.125000
G01 X47.425774 Y166.121090 Z-0.125000
G01 X48.024076 Y166.383794 Z-0.125000
G01 X48.622377 Y166.459095 Z-0.125000
G01 X49.320400 Y166.301271 Z-0.125000
G01 X50.062741 Y165.870318 Z-0.125000
G01 X52.331857 Y163.767121 Z-0.125000
G01 X53.076394 Y163.195992 Z-0.125000
G01 X53.807675 Y162.845367 Z-0.125000
G01 X54.505698 Y162.746783 Z-0.125000
G01 X55.292356 Y162.921752 Z-0.125000
G01 X56.160982 Y163.425703 Z-0.125000
G01 X58.873302 Y165.937019 Z-0.125000
G01 X59.812862 Y166.654066 Z-0.125000
G01 X60.787877 Y167.110366 Z-0.125000
G01 X61.685316 Y167.227126 Z-0.125000
G01 X62.682503 Y167.018502 Z-0.125000
G01 X63.712922 Y166.483754 Z-0.125000
G01 X64.776572 Y165.695825 Z-0.125000
G01 X67.258413 Y163.607631 Z-0.125000
G01 X68.765240 Y162.611423 Z-0.125000
G01 X70.161285 Y162.062969 Z-0.125000
G01 X70.859308 Y161.937292 Z-0.125000
G01 X71.614322 Y161.909140 Z-0.125000
G01 X72.853656 Y162.080643 Z-0.125000
G01 X74.249701 Y162.532974 Z-0.125000
G01 X79.634415 Y165.142344 Z-0.125000
G01 X82.326785 Y166.144532 Z-0.125000
G01 X83.822552 Y166.521986 Z-0.125000
G01 X85.418014 Y166.788421 Z-0.125000
G01 X86.999242 Y166.924734 Z-0.125000
G01 X88.594730 Y166.940027 Z-0.125000
G01 X90.005010 Y166.848402 Z-0.125000
G01 X91.301335 Y166.667427 Z-0.125000
G01 X93.694541 Y166.044758 Z-0.125000
G01 X95.976966 Y165.056381 Z-0.125000
G01 X100.575048 Y162.490985 Z-0.125000
G01 X101.871373 Y162.033997 Z-0.125000
G01 X102.968255 Y161.906044 Z-0.125000
G01 X104.164858 Y162.107339 Z-0.125000
G01 X105.283911 Y162.634785 Z-0.125000
G01 X106.498242 Y163.529605 Z-0.125000
G01 X108.652132 Y165.510564 Z-0.125000
G01 X109.715783 Y166.379481 Z-0.125000
G01 X110.746201 Y166.972518 Z-0.125000
G01 X111.743361 Y167.221411 Z-0.125000
G01 X112.640827 Y167.141242 Z-0.125000
G01 X113.527206 Y166.791966 Z-0.125000
G01 X114.555402 Y166.113470 Z-0.125000
G01 X116.868837 Y164.159842 Z-0.125000
G01 X117.870442 Y163.442981 Z-0.125000
G01 X118.923006 Y162.939162 Z-0.125000
G01 X120.048384 Y162.745831 Z-0.125000
G01 X121.017075 Y162.863835 Z-0.125000
G01 X122.113957 Y163.262006 Z-0.125000
G01 X125.504350 Y165.216877 Z-0.125000
G01 X126.900369 Y165.877329 Z-0.125000
G01 X128.096999 Y166.248883 Z-0.125000
G01 X129.393323 Y166.440045 Z-0.125000
G01 X130.532935 Y166.449120 Z-0.125000
G01 X131.886250 Y166.315876 Z-0.125000
G01 X136.772384 Y165.392666 Z-0.125000
G01 X138.966174 Y165.066462 Z-0.125000
G01 X140.903530 Y164.886784 Z-0.125000
G01 X142.954842 Y164.807356 Z-0.125000
G01 X145.462031 Y164.853869 Z-0.125000
G01 X148.040418 Y165.050455 Z-0.125000
G01 X155.818365 Y166.144796 Z-0.125000
G01 X158.795638 Y166.422159 Z-0.125000
G01 X162.214527 Y166.400040 Z-0.125000
G01 X166.089239 Y165.949640 Z-0.125000
G00 Z3.000000

(End cutting path id: polyline570)


(Start cutting path id: polyline568)
(Change tool to Default tool)

G00 Z3.000000
G00 X9.732671 Y165.990386

G00 Z4.875000 (Fast pre-penetrate)
G01 Z-0.125000 F400.0(Penetrate)
G01 X17.368140 Y166.346329 Z-0.125000 F800.000000
G01 X19.106080 Y166.229251 Z-0.125000
G01 X22.297030 Y165.768612 Z-0.125000
G01 X23.522129 Y165.725697 Z-0.125000
G01 X24.989400 Y165.913445 Z-0.125000
G01 X27.681744 Y166.598821 Z-0.125000
G01 X28.764391 Y166.679810 Z-0.125000
G01 X30.074977 Y166.439568 Z-0.125000
G01 X32.667625 Y165.438571 Z-0.125000
G01 X33.664786 Y165.315937 Z-0.125000
G01 X34.362809 Y165.422141 Z-0.125000
G01 X34.961110 Y165.637829 Z-0.125000
G01 X37.454038 Y166.973973 Z-0.125000
G01 X38.451225 Y167.160795 Z-0.125000
G01 X39.049526 Y167.066418 Z-0.125000
G01 X39.692145 Y166.797126 Z-0.125000
G01 X41.642175 Y165.415817 Z-0.125000
G01 X42.351257 Y164.996982 Z-0.125000
G01 X42.938499 Y164.802302 Z-0.125000
G01 X43.437080 Y164.768594 Z-0.125000
G01 X44.124016 Y164.933112 Z-0.125000
G01 X44.744490 Y165.279769 Z-0.125000
G01 X46.747674 Y166.976328 Z-0.125000
G01 X47.425774 Y167.448212 Z-0.125000
G01 X48.024076 Y167.708667 Z-0.125000
G01 X48.622377 Y167.781771 Z-0.125000
G01 X49.220679 Y167.661518 Z-0.125000
G01 X49.974105 Y167.258056 Z-0.125000
G01 X50.656597 Y166.705739 Z-0.125000
G01 X52.411629 Y165.036352 Z-0.125000
G01 X53.165056 Y164.480331 Z-0.125000
G01 X53.907370 Y164.149735 Z-0.125000
G01 X54.605393 Y164.072503 Z-0.125000
G01 X55.403137 Y164.266786 Z-0.125000
G01 X56.240754 Y164.754942 Z-0.125000
G01 X58.953073 Y167.222443 Z-0.125000
G01 X59.990133 Y167.996533 Z-0.125000
G01 X60.987293 Y168.441827 Z-0.125000
G01 X61.884759 Y168.549327 Z-0.125000
G01 X62.881919 Y168.346815 Z-0.125000
G01 X64.067463 Y167.738009 Z-0.125000
G01 X67.612954 Y164.931551 Z-0.125000
G01 X69.064404 Y163.992811 Z-0.125000
G01 X70.460449 Y163.428481 Z-0.125000
G01 X71.158472 Y163.284151 Z-0.125000
G01 X71.956190 Y163.228801 Z-0.125000
G01 X73.252515 Y163.363844 Z-0.125000
G01 X74.748282 Y163.794135 Z-0.125000
G01 X80.033301 Y166.156994 Z-0.125000
G01 X82.625949 Y167.081023 Z-0.125000
G01 X85.218598 Y167.642548 Z-0.125000
G01 X87.910942 Y167.842149 Z-0.125000
G01 X90.503591 Y167.663185 Z-0.125000
G01 X92.896823 Y167.127299 Z-0.125000
G01 X95.290029 Y166.186997 Z-0.125000
G01 X98.902011 Y164.262209 Z-0.125000
G01 X100.176163 Y163.673485 Z-0.125000
G01 X101.472487 Y163.296984 Z-0.125000
G01 X102.768812 Y163.262085 Z-0.125000
G01 X103.965415 Y163.599164 Z-0.125000
G01 X105.106641 Y164.255250 Z-0.125000
G01 X106.258926 Y165.183884 Z-0.125000
G01 X108.412817 Y167.160372 Z-0.125000
G01 X109.449877 Y167.935097 Z-0.125000
G01 X110.347316 Y168.377427 Z-0.125000
G01 X111.244781 Y168.550041 Z-0.125000
G01 X112.142247 Y168.431561 Z-0.125000
G01 X112.995368 Y168.064690 Z-0.125000
G01 X113.970383 Y167.401751 Z-0.125000
G01 X116.230636 Y165.477941 Z-0.125000
G01 X117.161333 Y164.801932 Z-0.125000
G01 X118.224983 Y164.275597 Z-0.125000
G01 X119.250639 Y164.072503 Z-0.125000
G01 X120.219331 Y164.158281 Z-0.125000
G01 X121.316212 Y164.532454 Z-0.125000
G01 X124.784155 Y166.530955 Z-0.125000
G01 X126.202373 Y167.204345 Z-0.125000
G01 X127.498697 Y167.596431 Z-0.125000
G01 X128.937473 Y167.776427 Z-0.125000
G01 X131.188228 Y167.642389 Z-0.125000
G01 X135.675502 Y166.837184 Z-0.125000
G01 X137.769544 Y166.538443 Z-0.125000
G01 X139.763892 Y166.368078 Z-0.125000
G01 X141.701274 Y166.313415 Z-0.125000
G01 X143.866542 Y166.375592 Z-0.125000
G01 X146.145792 Y166.569293 Z-0.125000
G01 X154.023460 Y167.671308 Z-0.125000
G01 X155.718644 Y167.776453 Z-0.125000
G01 X157.314132 Y167.758779 Z-0.125000
G01 X159.009315 Y167.602278 Z-0.125000
G01 X160.704525 Y167.311422 Z-0.125000
G01 X166.089239 Y165.949640 Z-0.125000
G00 Z3.000000

(End cutting path id: polyline568)


(Start cutting path id: polyline566)
(Change tool to Default tool)

G00 Z3.000000
G00 X9.732671 Y167.309094

G00 Z4.875000 (Fast pre-penetrate)
G01 Z-0.125000 F400.0(Penetrate)
G01 X12.581728 Y167.345130 Z-0.125000 F800.000000
G01 X16.798334 Y167.638870 Z-0.125000
G01 X18.279840 Y167.668159 Z-0.125000
G01 X19.804103 Y167.555235 Z-0.125000
G01 X22.795610 Y167.094623 Z-0.125000
G01 X23.977979 Y167.048241 Z-0.125000
G01 X25.288538 Y167.218474 Z-0.125000
G01 X27.881187 Y167.909406 Z-0.125000
G01 X28.978068 Y168.003016 Z-0.125000
G01 X30.274393 Y167.758118 Z-0.125000
G01 X32.767347 Y166.765164 Z-0.125000
G01 X33.764507 Y166.639725 Z-0.125000
G01 X34.362809 Y166.725847 Z-0.125000
G01 X34.961110 Y166.933836 Z-0.125000
G01 X37.454038 Y168.290882 Z-0.125000
G01 X38.451225 Y168.483737 Z-0.125000
G01 X39.049526 Y168.387296 Z-0.125000
G01 X39.692145 Y168.112130 Z-0.125000
G01 X42.262622 Y166.344662 Z-0.125000
G01 X42.838778 Y166.138658 Z-0.125000
G01 X43.337358 Y166.088070 Z-0.125000
G01 X44.035381 Y166.238591 Z-0.125000
G01 X44.655855 Y166.574188 Z-0.125000
G01 X46.667903 Y168.268816 Z-0.125000
G01 X47.326053 Y168.737392 Z-0.125000
G01 X48.024076 Y169.041663 Z-0.125000
G01 X48.622377 Y169.103099 Z-0.125000
G01 X49.220679 Y168.974247 Z-0.125000
G01 X49.974105 Y168.566260 Z-0.125000
G01 X52.411629 Y166.367628 Z-0.125000
G01 X53.165056 Y165.816369 Z-0.125000
G01 X53.907370 Y165.482413 Z-0.125000
G01 X54.605393 Y165.393143 Z-0.125000
G01 X55.403137 Y165.563931 Z-0.125000
G01 X56.267344 Y166.038540 Z-0.125000
G01 X57.038498 Y166.649171 Z-0.125000
G01 X59.112617 Y168.552846 Z-0.125000
G01 X60.167403 Y169.316908 Z-0.125000
G01 X61.186736 Y169.761778 Z-0.125000
G01 X62.155427 Y169.870654 Z-0.125000
G01 X63.181083 Y169.660813 Z-0.125000
G01 X64.333369 Y169.090372 Z-0.125000
G01 X65.397019 Y168.346100 Z-0.125000
G01 X67.887724 Y166.385699 Z-0.125000
G01 X69.297078 Y165.469501 Z-0.125000
G01 X70.560144 Y164.900463 Z-0.125000
G01 X71.756774 Y164.611802 Z-0.125000
G01 X73.352236 Y164.590160 Z-0.125000
G01 X75.047419 Y164.937240 Z-0.125000
G01 X76.642908 Y165.492758 Z-0.125000
G01 X80.930740 Y167.238503 Z-0.125000
G01 X83.523388 Y168.034792 Z-0.125000
G01 X85.717178 Y168.437117 Z-0.125000
G01 X87.910942 Y168.573192 Z-0.125000
G01 X90.304174 Y168.402245 Z-0.125000
G01 X92.597659 Y167.894378 Z-0.125000
G01 X94.791449 Y167.079542 Z-0.125000
G01 X99.179003 Y165.022832 Z-0.125000
G01 X100.375606 Y164.663714 Z-0.125000
G01 X101.472487 Y164.552060 Z-0.125000
G01 X102.669091 Y164.735336 Z-0.125000
G01 X103.865694 Y165.267360 Z-0.125000
G01 X105.062323 Y166.118153 Z-0.125000
G01 X107.535301 Y168.348826 Z-0.125000
G01 X108.474862 Y169.088758 Z-0.125000
G01 X109.549598 Y169.670365 Z-0.125000
G01 X110.147899 Y169.835279 Z-0.125000
G01 X110.646480 Y169.873750 Z-0.125000
G01 X111.643640 Y169.681689 Z-0.125000
G01 X112.640827 Y169.163847 Z-0.125000
G01 X113.598115 Y168.439922 Z-0.125000
G01 X115.592462 Y166.716534 Z-0.125000
G01 X116.629522 Y165.991762 Z-0.125000
G01 X117.526961 Y165.577292 Z-0.125000
G01 X118.452922 Y165.396767 Z-0.125000
G01 X119.421587 Y165.478047 Z-0.125000
G01 X120.518468 Y165.854946 Z-0.125000
G01 X123.986411 Y167.879773 Z-0.125000
G01 X125.404628 Y168.553534 Z-0.125000
G01 X126.800674 Y168.957684 Z-0.125000
G01 X128.253685 Y169.105586 Z-0.125000
G01 X130.390483 Y168.946016 Z-0.125000
G01 X136.473247 Y167.913719 Z-0.125000
G01 X138.396342 Y167.744703 Z-0.125000
G01 X140.219742 Y167.691416 Z-0.125000
G01 X142.271080 Y167.752244 Z-0.125000
G01 X144.350888 Y167.935018 Z-0.125000
G01 X151.729975 Y169.013273 Z-0.125000
G01 X153.325437 Y169.105030 Z-0.125000
G01 X154.920926 Y169.051955 Z-0.125000
G01 X156.516388 Y168.833251 Z-0.125000
G01 X158.111876 Y168.455453 Z-0.125000
G01 X163.197452 Y166.717301 Z-0.125000
G01 X166.089239 Y165.949640 Z-0.125000
G00 Z3.000000

(End cutting path id: polyline566)


(Start cutting path id: polyline564)
(Change tool to Default tool)

G00 Z3.000000
G00 X9.732671 Y168.662886

G00 Z4.875000 (Fast pre-penetrate)
G01 Z-0.125000 F400.0(Penetrate)
G01 X13.265489 Y168.651429 Z-0.125000 F800.000000
G01 X17.482122 Y168.960912 Z-0.125000
G01 X18.849672 Y168.991418 Z-0.125000
G01 X20.302683 Y168.878468 Z-0.125000
G01 X23.094774 Y168.421295 Z-0.125000
G01 X24.191656 Y168.368987 Z-0.125000
G01 X25.587702 Y168.556523 Z-0.125000
G01 X27.980908 Y169.223960 Z-0.125000
G01 X29.077790 Y169.325772 Z-0.125000
G01 X29.676091 Y169.260711 Z-0.125000
G01 X30.374114 Y169.072010 Z-0.125000
G01 X32.767347 Y168.091863 Z-0.125000
G01 X33.764507 Y167.962878 Z-0.125000
G01 X34.362809 Y168.053234 Z-0.125000
G01 X34.961110 Y168.269107 Z-0.125000
G01 X37.454038 Y169.637477 Z-0.125000
G01 X37.952618 Y169.771753 Z-0.125000
G01 X38.451225 Y169.803873 Z-0.125000
G01 X39.049526 Y169.685420 Z-0.125000
G01 X39.603510 Y169.438961 Z-0.125000
G01 X42.173987 Y167.665117 Z-0.125000
G01 X42.739057 Y167.462684 Z-0.125000
G01 X43.237637 Y167.410429 Z-0.125000
G01 X43.935660 Y167.561400 Z-0.125000
G01 X44.567193 Y167.901257 Z-0.125000
G01 X47.226331 Y170.050359 Z-0.125000
G01 X47.924354 Y170.357910 Z-0.125000
G01 X48.522656 Y170.427152 Z-0.125000
G01 X49.220679 Y170.274620 Z-0.125000
G01 X49.974105 Y169.854620 Z-0.125000
G01 X52.331857 Y167.751503 Z-0.125000
G01 X53.165056 Y167.143703 Z-0.125000
G01 X53.907370 Y166.812101 Z-0.125000
G01 X54.705114 Y166.719153 Z-0.125000
G01 X55.502858 Y166.902403 Z-0.125000
G01 X56.356006 Y167.365477 Z-0.125000
G01 X57.118270 Y167.950813 Z-0.125000
G01 X59.192389 Y169.800487 Z-0.125000
G01 X60.344674 Y170.623049 Z-0.125000
G01 X61.386179 Y171.073025 Z-0.125000
G01 X62.383339 Y171.196056 Z-0.125000
G01 X63.480247 Y170.991930 Z-0.125000
G01 X64.687910 Y170.423315 Z-0.125000
G01 X65.751560 Y169.718625 Z-0.125000
G01 X68.499334 Y167.663185 Z-0.125000
G01 X69.961843 Y166.771964 Z-0.125000
G01 X71.258167 Y166.224833 Z-0.125000
G01 X72.454797 Y165.946359 Z-0.125000
G01 X73.779590 Y165.880372 Z-0.125000
G01 X75.346583 Y166.079233 Z-0.125000
G01 X76.942072 Y166.501004 Z-0.125000
G01 X81.229904 Y167.987802 Z-0.125000
G01 X83.323972 Y168.588988 Z-0.125000
G01 X85.617457 Y169.015310 Z-0.125000
G01 X87.910942 Y169.155354 Z-0.125000
G01 X90.005010 Y169.010468 Z-0.125000
G01 X91.999358 Y168.615314 Z-0.125000
G01 X93.993705 Y167.975261 Z-0.125000
G01 X98.281537 Y166.257456 Z-0.125000
G01 X99.478140 Y165.956863 Z-0.125000
G01 X100.560787 Y165.876456 Z-0.125000
G01 X101.771651 Y166.070422 Z-0.125000
G01 X102.968255 Y166.590248 Z-0.125000
G01 X104.264579 Y167.495360 Z-0.125000
G01 X106.737557 Y169.694680 Z-0.125000
G01 X107.677118 Y170.424135 Z-0.125000
G01 X108.751854 Y170.997804 Z-0.125000
G01 X109.350155 Y171.159914 Z-0.125000
G01 X109.848735 Y171.196533 Z-0.125000
G01 X110.646480 Y171.068421 Z-0.125000
G01 X111.488542 Y170.697185 Z-0.125000
G01 X112.463556 Y170.022498 Z-0.125000
G01 X114.635174 Y168.144329 Z-0.125000
G01 X115.565871 Y167.452498 Z-0.125000
G01 X116.529800 Y166.952410 Z-0.125000
G01 X117.541222 Y166.722593 Z-0.125000
G01 X118.424426 Y166.776118 Z-0.125000
G01 X119.321865 Y167.046416 Z-0.125000
G01 X120.352284 Y167.558754 Z-0.125000
G01 X122.745490 Y169.044785 Z-0.125000
G01 X123.809140 Y169.617316 Z-0.125000
G01 X125.105464 Y170.119574 Z-0.125000
G01 X126.401789 Y170.380506 Z-0.125000
G01 X127.455940 Y170.428951 Z-0.125000
G01 X128.595579 Y170.352354 Z-0.125000
G01 X134.977479 Y169.217716 Z-0.125000
G01 X137.028791 Y169.012638 Z-0.125000
G01 X139.080130 Y168.949270 Z-0.125000
G01 X140.903530 Y169.009410 Z-0.125000
G01 X142.755426 Y169.176521 Z-0.125000
G01 X149.237048 Y170.235011 Z-0.125000
G01 X151.729975 Y170.429983 Z-0.125000
G01 X153.624601 Y170.293828 Z-0.125000
G01 X155.519227 Y169.864595 Z-0.125000
G01 X157.214411 Y169.266294 Z-0.125000
G01 X161.003662 Y167.693480 Z-0.125000
G01 X162.798567 Y167.120155 Z-0.125000
G01 X164.394056 Y166.812789 Z-0.125000
G01 X166.089239 Y166.714893 Z-0.125000
G00 Z3.000000

(End cutting path id: polyline564)


(Start cutting path id: polyline562)
(Change tool to Default tool)

G00 Z3.000000
G00 X9.732671 Y170.025303

G00 Z4.875000 (Fast pre-penetrate)
G01 Z-0.125000 F400.0(Penetrate)
G01 X13.835322 Y169.966857 Z-0.125000 F800.000000
G01 X19.191540 Y170.315524 Z-0.125000
G01 X20.601847 Y170.201939 Z-0.125000
G01 X23.194469 Y169.754476 Z-0.125000
G01 X24.319873 Y169.691875 Z-0.125000
G01 X25.687423 Y169.880470 Z-0.125000
G01 X27.980908 Y170.542325 Z-0.125000
G01 X29.077790 Y170.648396 Z-0.125000
G01 X30.274393 Y170.416145 Z-0.125000
G01 X32.667625 Y169.419778 Z-0.125000
G01 X33.664786 Y169.285264 Z-0.125000
G01 X34.263087 Y169.379033 Z-0.125000
G01 X34.861389 Y169.598636 Z-0.125000
G01 X37.254622 Y170.935971 Z-0.125000
G01 X37.753202 Y171.085593 Z-0.125000
G01 X38.251782 Y171.128058 Z-0.125000
G01 X38.850083 Y171.023522 Z-0.125000
G01 X39.426239 Y170.776242 Z-0.125000
G01 X41.464878 Y169.308653 Z-0.125000
G01 X42.041034 Y168.977290 Z-0.125000
G01 X42.539614 Y168.794410 Z-0.125000
G01 X43.137916 Y168.736360 Z-0.125000
G01 X43.736217 Y168.868017 Z-0.125000
G01 X44.389922 Y169.204831 Z-0.125000
G01 X46.348815 Y170.838419 Z-0.125000
G01 X47.137696 Y171.396637 Z-0.125000
G01 X47.824633 Y171.685217 Z-0.125000
G01 X48.422935 Y171.749617 Z-0.125000
G01 X49.120957 Y171.598672 Z-0.125000
G01 X49.885444 Y171.180419 Z-0.125000
G01 X52.331857 Y169.044097 Z-0.125000
G01 X53.165056 Y168.457120 Z-0.125000
G01 X53.907370 Y168.135810 Z-0.125000
G01 X54.705114 Y168.040639 Z-0.125000
G01 X55.502858 Y168.207009 Z-0.125000
G01 X56.444641 Y168.697229 Z-0.125000
G01 X59.431704 Y171.171397 Z-0.125000
G01 X60.521945 Y171.920405 Z-0.125000
G01 X61.585621 Y172.377102 Z-0.125000
G01 X62.682503 Y172.519209 Z-0.125000
G01 X63.779385 Y172.335007 Z-0.125000
G01 X65.042478 Y171.787399 Z-0.125000
G01 X66.194763 Y171.068580 Z-0.125000
G01 X69.119807 Y169.005071 Z-0.125000
G01 X70.659866 Y168.119617 Z-0.125000
G01 X71.956190 Y167.593917 Z-0.125000
G01 X73.252515 Y167.290335 Z-0.125000
G01 X74.691290 Y167.199054 Z-0.125000
G01 X76.244049 Y167.341638 Z-0.125000
G01 X77.939232 Y167.696787 Z-0.125000
G01 X81.828205 Y168.776021 Z-0.125000
G01 X83.722831 Y169.220203 Z-0.125000
G01 X85.816900 Y169.540587 Z-0.125000
G01 X87.796986 Y169.638112 Z-0.125000
G01 X89.506430 Y169.543630 Z-0.125000
G01 X91.301335 Y169.260182 Z-0.125000
G01 X93.096240 Y168.800919 Z-0.125000
G01 X97.284377 Y167.468532 Z-0.125000
G01 X98.381258 Y167.255331 Z-0.125000
G01 X99.421175 Y167.200853 Z-0.125000
G01 X100.674743 Y167.391829 Z-0.125000
G01 X102.004326 Y167.950417 Z-0.125000
G01 X103.307291 Y168.836664 Z-0.125000
G01 X105.939813 Y171.120147 Z-0.125000
G01 X106.879373 Y171.819229 Z-0.125000
G01 X107.954110 Y172.355406 Z-0.125000
G01 X108.951296 Y172.519606 Z-0.125000
G01 X109.749014 Y172.394750 Z-0.125000
G01 X110.602162 Y172.020285 Z-0.125000
G01 X111.603767 Y171.322024 Z-0.125000
G01 X113.757658 Y169.446395 Z-0.125000
G01 X114.679492 Y168.758665 Z-0.125000
G01 X115.632335 Y168.264953 Z-0.125000
G01 X116.629522 Y168.043603 Z-0.125000
G01 X117.626682 Y168.132503 Z-0.125000
G01 X118.623842 Y168.491013 Z-0.125000
G01 X119.554540 Y168.999118 Z-0.125000
G01 X122.036407 Y170.574895 Z-0.125000
G01 X123.410281 Y171.247782 Z-0.125000
G01 X124.706606 Y171.626453 Z-0.125000
G01 X125.974434 Y171.751892 Z-0.125000
G01 X127.997277 Y171.570521 Z-0.125000
G01 X132.085667 Y170.694089 Z-0.125000
G01 X133.980293 Y170.368811 Z-0.125000
G01 X135.889180 Y170.167331 Z-0.125000
G01 X137.826536 Y170.097508 Z-0.125000
G01 X139.963334 Y170.173417 Z-0.125000
G01 X142.057403 Y170.397545 Z-0.125000
G01 X148.937884 Y171.651562 Z-0.125000
G01 X150.248443 Y171.749167 Z-0.125000
G01 X151.430811 Y171.716279 Z-0.125000
G01 X152.826857 Y171.501253 Z-0.125000
G01 X154.222903 Y171.092049 Z-0.125000
G01 X155.618949 Y170.520020 Z-0.125000
G01 X159.109037 Y168.883495 Z-0.125000
G01 X161.103384 Y168.239024 Z-0.125000
G01 X162.328482 Y168.059398 Z-0.125000
G01 X163.468094 Y168.053974 Z-0.125000
G01 X164.693193 Y168.210052 Z-0.125000
G01 X166.089239 Y168.556841 Z-0.125000
G00 Z3.000000

(End cutting path id: polyline562)


(Start cutting path id: polyline560)
(Change tool to Default tool)

G00 Z3.000000
G00 X9.732671 Y171.381741

G00 Z4.875000 (Fast pre-penetrate)
G01 Z-0.125000 F400.0(Penetrate)
G01 X14.177190 Y171.284242 Z-0.125000 F800.000000
G01 X18.279840 Y171.611266 Z-0.125000
G01 X19.419478 Y171.637672 Z-0.125000
G01 X20.801263 Y171.516625 Z-0.125000
G01 X23.194469 Y171.083291 Z-0.125000
G01 X24.319873 Y171.014658 Z-0.125000
G01 X25.587702 Y171.187801 Z-0.125000
G01 X27.980908 Y171.884554 Z-0.125000
G01 X28.978068 Y171.971152 Z-0.125000
G01 X30.174698 Y171.725355 Z-0.125000
G01 X32.468183 Y170.751292 Z-0.125000
G01 X33.465343 Y170.608550 Z-0.125000
G01 X34.063645 Y170.701471 Z-0.125000
G01 X34.661973 Y170.921234 Z-0.125000
G01 X36.955458 Y172.226766 Z-0.125000
G01 X37.553759 Y172.415096 Z-0.125000
G01 X38.052339 Y172.448804 Z-0.125000
G01 X38.650641 Y172.338870 Z-0.125000
G01 X39.337578 Y172.018486 Z-0.125000
G01 X41.741896 Y170.335447 Z-0.125000
G01 X42.340198 Y170.109387 Z-0.125000
G01 X42.838778 Y170.057714 Z-0.125000
G01 X43.437080 Y170.160902 Z-0.125000
G01 X44.212652 Y170.549548 Z-0.125000
G01 X46.269044 Y172.251795 Z-0.125000
G01 X46.960426 Y172.721510 Z-0.125000
G01 X47.625190 Y172.999639 Z-0.125000
G01 X48.223492 Y173.074622 Z-0.125000
G01 X48.921515 Y172.941272 Z-0.125000
G01 X49.708173 Y172.533365 Z-0.125000
G01 X52.172314 Y170.435962 Z-0.125000
G01 X53.076394 Y169.801413 Z-0.125000
G01 X53.907370 Y169.450814 Z-0.125000
G01 X54.705114 Y169.363634 Z-0.125000
G01 X55.602579 Y169.557996 Z-0.125000
G01 X56.533277 Y170.040331 Z-0.125000
G01 X59.635592 Y172.513283 Z-0.125000
G01 X60.787877 Y173.262502 Z-0.125000
G01 X61.984480 Y173.729544 Z-0.125000
G01 X63.067127 Y173.840749 Z-0.125000
G01 X64.277965 Y173.629109 Z-0.125000
G01 X65.574289 Y173.079596 Z-0.125000
G01 X69.917525 Y170.300284 Z-0.125000
G01 X71.856469 Y169.304552 Z-0.125000
G01 X73.751095 Y168.719798 Z-0.125000
G01 X74.748282 Y168.570890 Z-0.125000
G01 X75.830929 Y168.520593 Z-0.125000
G01 X78.338091 Y168.745383 Z-0.125000
G01 X84.420854 Y169.882587 Z-0.125000
G01 X86.016316 Y170.051179 Z-0.125000
G01 X87.455092 Y170.106556 Z-0.125000
G01 X89.207266 Y170.036521 Z-0.125000
G01 X90.902476 Y169.823638 Z-0.125000
G01 X96.586354 Y168.610922 Z-0.125000
G01 X97.825687 Y168.520619 Z-0.125000
G01 X98.879839 Y168.603910 Z-0.125000
G01 X99.976747 Y168.891380 Z-0.125000
G01 X101.117946 Y169.430335 Z-0.125000
G01 X102.429775 Y170.330764 Z-0.125000
G01 X104.822981 Y172.355380 Z-0.125000
G01 X105.815723 Y173.093831 Z-0.125000
G01 X106.857228 Y173.635723 Z-0.125000
G01 X107.854388 Y173.841595 Z-0.125000
G01 X108.751854 Y173.729571 Z-0.125000
G01 X109.627147 Y173.355477 Z-0.125000
G01 X110.646480 Y172.647982 Z-0.125000
G01 X112.720599 Y170.829450 Z-0.125000
G01 X113.704477 Y170.082585 Z-0.125000
G01 X114.734869 Y169.555139 Z-0.125000
G01 X115.732056 Y169.361861 Z-0.125000
G01 X116.629522 Y169.461397 Z-0.125000
G01 X117.604510 Y169.823982 Z-0.125000
G01 X118.490889 Y170.321530 Z-0.125000
G01 X120.884122 Y171.890692 Z-0.125000
G01 X122.113957 Y172.529078 Z-0.125000
G01 X123.310560 Y172.919523 Z-0.125000
G01 X124.507163 Y173.071447 Z-0.125000
G01 X125.504350 Y173.039724 Z-0.125000
G01 X126.601231 Y172.879122 Z-0.125000
G01 X130.789342 Y171.854630 Z-0.125000
G01 X132.783690 Y171.468630 Z-0.125000
G01 X134.778037 Y171.235082 Z-0.125000
G01 X136.914836 Y171.152135 Z-0.125000
G01 X138.852192 Y171.219392 Z-0.125000
G01 X140.761079 Y171.417724 Z-0.125000
G01 X142.954842 Y171.803221 Z-0.125000
G01 X147.841002 Y172.901241 Z-0.125000
G01 X149.336743 Y173.065785 Z-0.125000
G01 X150.633067 Y173.034802 Z-0.125000
G01 X151.929392 Y172.806070 Z-0.125000
G01 X153.325437 Y172.334980 Z-0.125000
G01 X157.214411 Y170.356587 Z-0.125000
G01 X158.411014 Y169.836999 Z-0.125000
G01 X159.507922 Y169.510980 Z-0.125000
G01 X160.619038 Y169.365645 Z-0.125000
G01 X161.801407 Y169.427875 Z-0.125000
G01 X162.998010 Y169.701612 Z-0.125000
G01 X164.294334 Y170.189662 Z-0.125000
G01 X166.089239 Y171.055245 Z-0.125000
G00 Z3.000000

(End cutting path id: polyline560)


(Start cutting path id: polyline558)
(Change tool to Default tool)

G00 Z3.000000
G00 X9.732671 Y172.727833

G00 Z4.875000 (Fast pre-penetrate)
G01 Z-0.125000 F400.0(Penetrate)
G01 X14.405128 Y172.604855 Z-0.125000 F800.000000
G01 X18.308336 Y172.929789 Z-0.125000
G01 X19.533434 Y172.958549 Z-0.125000
G01 X20.801263 Y172.838588 Z-0.125000
G01 X23.194469 Y172.394750 Z-0.125000
G01 X24.191656 Y172.336938 Z-0.125000
G01 X25.388259 Y172.498757 Z-0.125000
G01 X27.781465 Y173.206966 Z-0.125000
G01 X28.764391 Y173.294147 Z-0.125000
G01 X29.875534 Y173.071632 Z-0.125000
G01 X32.169019 Y172.083759 Z-0.125000
G01 X33.166206 Y171.931862 Z-0.125000
G01 X33.764507 Y172.018989 Z-0.125000
G01 X34.362809 Y172.243011 Z-0.125000
G01 X36.756015 Y173.595718 Z-0.125000
G01 X37.254622 Y173.737111 Z-0.125000
G01 X37.753202 Y173.772857 Z-0.125000
G01 X38.351503 Y173.657445 Z-0.125000
G01 X38.983036 Y173.364023 Z-0.125000
G01 X41.464878 Y171.642672 Z-0.125000
G01 X42.041034 Y171.434446 Z-0.125000
G01 X42.539614 Y171.379015 Z-0.125000
G01 X43.237637 Y171.515673 Z-0.125000
G01 X43.946746 Y171.887623 Z-0.125000
G01 X46.029728 Y173.587013 Z-0.125000
G01 X46.727751 Y174.050801 Z-0.125000
G01 X47.326053 Y174.305674 Z-0.125000
G01 X48.024076 Y174.397431 Z-0.125000
G01 X48.821793 Y174.222198 Z-0.125000
G01 X49.619538 Y173.785398 Z-0.125000
G01 X51.932972 Y171.845316 Z-0.125000
G01 X52.910209 Y171.160920 Z-0.125000
G01 X53.807675 Y170.780582 Z-0.125000
G01 X54.605393 Y170.684194 Z-0.125000
G01 X55.502858 Y170.849347 Z-0.125000
G01 X56.533277 Y171.346710 Z-0.125000
G01 X59.724227 Y173.778704 Z-0.125000
G01 X60.987293 Y174.569886 Z-0.125000
G01 X62.183923 Y175.029732 Z-0.125000
G01 X63.380526 Y175.165198 Z-0.125000
G01 X64.477408 Y175.014783 Z-0.125000
G01 X65.674011 Y174.599864 Z-0.125000
G01 X66.903872 Y173.973225 Z-0.125000
G01 X70.183458 Y171.966522 Z-0.125000
G01 X71.756774 Y171.123904 Z-0.125000
G01 X73.551679 Y170.410060 Z-0.125000
G01 X75.246862 Y170.008396 Z-0.125000
G01 X76.742629 Y169.858086 Z-0.125000
G01 X78.452073 Y169.872453 Z-0.125000
G01 X84.620297 Y170.543409 Z-0.125000
G01 X87.569074 Y170.669615 Z-0.125000
G01 X90.005010 Y170.536821 Z-0.125000
G01 X94.392564 Y169.953707 Z-0.125000
G01 X96.116243 Y169.843667 Z-0.125000
G01 X97.882678 Y170.028293 Z-0.125000
G01 X98.780117 Y170.290336 Z-0.125000
G01 X99.577862 Y170.633632 Z-0.125000
G01 X101.117946 Y171.583644 Z-0.125000
G01 X103.785922 Y173.731687 Z-0.125000
G01 X104.752073 Y174.422037 Z-0.125000
G01 X105.760320 Y174.939456 Z-0.125000
G01 X106.757506 Y175.161176 Z-0.125000
G01 X107.654972 Y175.072356 Z-0.125000
G01 X108.652132 Y174.656299 Z-0.125000
G01 X109.689192 Y173.929887 Z-0.125000
G01 X111.683539 Y172.169484 Z-0.125000
G01 X112.640827 Y171.431747 Z-0.125000
G01 X113.737709 Y170.865116 Z-0.125000
G01 X114.734869 Y170.683982 Z-0.125000
G01 X115.632335 Y170.803309 Z-0.125000
G01 X116.629522 Y171.205237 Z-0.125000
G01 X119.731810 Y173.237526 Z-0.125000
G01 X120.917354 Y173.870990 Z-0.125000
G01 X121.914514 Y174.218600 Z-0.125000
G01 X123.011422 Y174.388647 Z-0.125000
G01 X124.008583 Y174.368274 Z-0.125000
G01 X125.205186 Y174.173620 Z-0.125000
G01 X129.393323 Y172.990035 Z-0.125000
G01 X131.587086 Y172.510584 Z-0.125000
G01 X133.780876 Y172.234941 Z-0.125000
G01 X136.003135 Y172.142946 Z-0.125000
G01 X138.268151 Y172.224808 Z-0.125000
G01 X140.362193 Y172.466108 Z-0.125000
G01 X142.655705 Y172.927461 Z-0.125000
G01 X147.541838 Y174.212302 Z-0.125000
G01 X148.880893 Y174.384599 Z-0.125000
G01 X150.134487 Y174.357479 Z-0.125000
G01 X151.331090 Y174.124355 Z-0.125000
G01 X152.627415 Y173.642338 Z-0.125000
G01 X156.161847 Y171.669819 Z-0.125000
G01 X157.314132 Y171.124672 Z-0.125000
G01 X158.411014 Y170.790371 Z-0.125000
G01 X159.365444 Y170.683903 Z-0.125000
G01 X160.604804 Y170.818840 Z-0.125000
G01 X161.901128 Y171.261673 Z-0.125000
G01 X163.164194 Y171.909319 Z-0.125000
G01 X166.089239 Y173.654032 Z-0.125000
G00 Z3.000000

(End cutting path id: polyline558)


(Start cutting path id: polyline556)
(Change tool to Default tool)

G00 Z3.000000
G00 X9.732671 Y174.064427

G00 Z4.875000 (Fast pre-penetrate)
G01 Z-0.125000 F400.0(Penetrate)
G01 X14.405128 Y173.924780 Z-0.125000 F800.000000
G01 X18.308336 Y174.256408 Z-0.125000
G01 X19.419478 Y174.282179 Z-0.125000
G01 X20.601847 Y174.171054 Z-0.125000
G01 X22.995053 Y173.717373 Z-0.125000
G01 X23.977979 Y173.659906 Z-0.125000
G01 X25.089122 Y173.810030 Z-0.125000
G01 X27.382606 Y174.507392 Z-0.125000
G01 X28.379767 Y174.618014 Z-0.125000
G01 X28.978068 Y174.551445 Z-0.125000
G01 X29.576396 Y174.380048 Z-0.125000
G01 X31.869881 Y173.384607 Z-0.125000
G01 X32.767347 Y173.252422 Z-0.125000
G01 X33.365648 Y173.338358 Z-0.125000
G01 X33.963950 Y173.556057 Z-0.125000
G01 X36.357156 Y174.912204 Z-0.125000
G01 X36.855736 Y175.060767 Z-0.125000
G01 X37.354316 Y175.094766 Z-0.125000
G01 X37.952618 Y174.982213 Z-0.125000
G01 X38.539860 Y174.719482 Z-0.125000
G01 X41.043873 Y172.987204 Z-0.125000
G01 X41.642175 Y172.759821 Z-0.125000
G01 X42.240476 Y172.705661 Z-0.125000
G01 X42.838778 Y172.830147 Z-0.125000
G01 X43.503543 Y173.157463 Z-0.125000
G01 X45.551071 Y174.802111 Z-0.125000
G01 X46.339952 Y175.341622 Z-0.125000
G01 X47.026889 Y175.633272 Z-0.125000
G01 X47.724912 Y175.719182 Z-0.125000
G01 X48.422935 Y175.586679 Z-0.125000
G01 X49.264996 Y175.167183 Z-0.125000
G01 X51.853200 Y173.076633 Z-0.125000
G01 X52.810488 Y172.447137 Z-0.125000
G01 X53.707954 Y172.094527 Z-0.125000
G01 X54.605393 Y172.011422 Z-0.125000
G01 X55.502858 Y172.194407 Z-0.125000
G01 X56.533277 Y172.682589 Z-0.125000
G01 X59.812862 Y175.067673 Z-0.125000
G01 X61.186736 Y175.887563 Z-0.125000
G01 X62.483060 Y176.356033 Z-0.125000
G01 X63.864872 Y176.484012 Z-0.125000
G01 X64.975988 Y176.324786 Z-0.125000
G01 X66.172591 Y175.935320 Z-0.125000
G01 X67.524319 Y175.301670 Z-0.125000
G01 X70.892540 Y173.411410 Z-0.125000
G01 X72.554492 Y172.584905 Z-0.125000
G01 X74.349423 Y171.897307 Z-0.125000
G01 X76.244049 Y171.431562 Z-0.125000
G01 X77.654329 Y171.245639 Z-0.125000
G01 X79.249791 Y171.168302 Z-0.125000
G01 X87.113224 Y171.441669 Z-0.125000
G01 X94.064931 Y171.167640 Z-0.125000
G01 X95.190308 Y171.226166 Z-0.125000
G01 X96.287190 Y171.389784 Z-0.125000
G01 X97.284377 Y171.658442 Z-0.125000
G01 X98.181816 Y172.014094 Z-0.125000
G01 X99.965661 Y173.049354 Z-0.125000
G01 X102.713408 Y175.142074 Z-0.125000
G01 X103.688423 Y175.798583 Z-0.125000
G01 X104.663438 Y176.270520 Z-0.125000
G01 X105.660625 Y176.483642 Z-0.125000
G01 X106.657785 Y176.374607 Z-0.125000
G01 X107.588482 Y175.978950 Z-0.125000
G01 X108.652132 Y175.238064 Z-0.125000
G01 X110.806023 Y173.344550 Z-0.125000
G01 X111.665812 Y172.698755 Z-0.125000
G01 X112.640827 Y172.197397 Z-0.125000
G01 X113.637987 Y172.006686 Z-0.125000
G01 X114.535453 Y172.125854 Z-0.125000
G01 X115.432892 Y172.488042 Z-0.125000
G01 X116.274954 Y172.990590 Z-0.125000
G01 X118.579525 Y174.599864 Z-0.125000
G01 X119.720751 Y175.225761 Z-0.125000
G01 X120.817632 Y175.595516 Z-0.125000
G01 X121.985740 Y175.721246 Z-0.125000
G01 X122.911701 Y175.646580 Z-0.125000
G01 X123.908861 Y175.435417 Z-0.125000
G01 X127.897556 Y174.128932 Z-0.125000
G01 X130.091319 Y173.580981 Z-0.125000
G01 X132.584273 Y173.236362 Z-0.125000
G01 X135.319374 Y173.121506 Z-0.125000
G01 X137.940492 Y173.218158 Z-0.125000
G01 X140.362193 Y173.519624 Z-0.125000
G01 X142.655705 Y174.044530 Z-0.125000
G01 X147.342422 Y175.489921 Z-0.125000
G01 X148.652981 Y175.700159 Z-0.125000
G01 X149.835349 Y175.687088 Z-0.125000
G01 X150.932231 Y175.465712 Z-0.125000
G01 X152.128834 Y174.992320 Z-0.125000
G01 X155.541373 Y172.933732 Z-0.125000
G01 X156.616109 Y172.398242 Z-0.125000
G01 X157.712991 Y172.070821 Z-0.125000
G01 X158.795638 Y172.021846 Z-0.125000
G01 X159.807059 Y172.232507 Z-0.125000
G01 X160.859624 Y172.686426 Z-0.125000
G01 X161.923274 Y173.324415 Z-0.125000
G01 X164.582412 Y175.133448 Z-0.125000
G01 X166.089239 Y175.931854 Z-0.125000
G00 Z3.000000

(End cutting path id: polyline556)


(Start cutting path id: polyline554)
(Change tool to Default tool)

G00 Z3.000000
G00 X9.732671 Y175.393718

G00 Z4.875000 (Fast pre-penetrate)
G01 Z-0.125000 F400.0(Penetrate)
G01 X14.405128 Y175.248621 Z-0.125000 F800.000000
G01 X18.165884 Y175.581996 Z-0.125000
G01 X19.191540 Y175.605597 Z-0.125000
G01 X20.402404 Y175.485714 Z-0.125000
G01 X22.596168 Y175.053412 Z-0.125000
G01 X23.636085 Y174.983641 Z-0.125000
G01 X24.889679 Y175.173506 Z-0.125000
G01 X27.083442 Y175.854516 Z-0.125000
G01 X27.980908 Y175.941908 Z-0.125000
G01 X29.077790 Y175.729157 Z-0.125000
G01 X31.371301 Y174.723662 Z-0.125000
G01 X32.368461 Y174.579173 Z-0.125000
G01 X32.966763 Y174.677360 Z-0.125000
G01 X33.565065 Y174.914770 Z-0.125000
G01 X35.858576 Y176.231256 Z-0.125000
G01 X36.357156 Y176.378100 Z-0.125000
G01 X36.855736 Y176.420142 Z-0.125000
G01 X37.454038 Y176.309493 Z-0.125000
G01 X38.008022 Y176.067982 Z-0.125000
G01 X40.578525 Y174.303531 Z-0.125000
G01 X41.143568 Y174.091917 Z-0.125000
G01 X41.741896 Y174.026062 Z-0.125000
G01 X42.439893 Y174.173673 Z-0.125000
G01 X43.060366 Y174.489585 Z-0.125000
G01 X45.276302 Y176.238849 Z-0.125000
G01 X45.930007 Y176.664220 Z-0.125000
G01 X46.628030 Y176.955922 Z-0.125000
G01 X47.326053 Y177.043579 Z-0.125000
G01 X48.123797 Y176.885781 Z-0.125000
G01 X48.910455 Y176.493590 Z-0.125000
G01 X51.569567 Y174.406189 Z-0.125000
G01 X52.544582 Y173.781297 Z-0.125000
G01 X53.508511 Y173.414532 Z-0.125000
G01 X54.405976 Y173.332987 Z-0.125000
G01 X55.303415 Y173.496817 Z-0.125000
G01 X56.356006 Y173.955101 Z-0.125000
G01 X57.330994 Y174.562028 Z-0.125000
G01 X59.901498 Y176.389556 Z-0.125000
G01 X61.386179 Y177.221193 Z-0.125000
G01 X62.782224 Y177.686145 Z-0.125000
G01 X64.206739 Y177.808144 Z-0.125000
G01 X65.474568 Y177.637620 Z-0.125000
G01 X66.770892 Y177.243127 Z-0.125000
G01 X68.166938 Y176.643026 Z-0.125000
G01 X71.657053 Y174.871405 Z-0.125000
G01 X73.352236 Y174.098399 Z-0.125000
G01 X75.246862 Y173.412203 Z-0.125000
G01 X77.141488 Y172.937462 Z-0.125000
G01 X79.135835 Y172.646659 Z-0.125000
G01 X81.301129 Y172.513336 Z-0.125000
G01 X91.443786 Y172.503043 Z-0.125000
G01 X94.193148 Y172.735427 Z-0.125000
G01 X95.389751 Y172.999745 Z-0.125000
G01 X96.486633 Y173.368494 Z-0.125000
G01 X97.483793 Y173.822969 Z-0.125000
G01 X98.547443 Y174.432303 Z-0.125000
G01 X101.472487 Y176.490918 Z-0.125000
G01 X102.624773 Y177.209605 Z-0.125000
G01 X103.765999 Y177.682758 Z-0.125000
G01 X104.763159 Y177.810949 Z-0.125000
G01 X105.660625 Y177.661671 Z-0.125000
G01 X106.613467 Y177.228258 Z-0.125000
G01 X107.615073 Y176.516953 Z-0.125000
G01 X109.689192 Y174.699876 Z-0.125000
G01 X110.513527 Y174.069745 Z-0.125000
G01 X111.444224 Y173.562063 Z-0.125000
G01 X112.341663 Y173.340422 Z-0.125000
G01 X113.239129 Y173.403393 Z-0.125000
G01 X114.136568 Y173.727772 Z-0.125000
G01 X115.122668 Y174.311548 Z-0.125000
G01 X117.161333 Y175.792154 Z-0.125000
G01 X118.047713 Y176.343413 Z-0.125000
G01 X119.122449 Y176.814238 Z-0.125000
G01 X120.119609 Y177.022491 Z-0.125000
G01 X121.116796 Y177.015506 Z-0.125000
G01 X122.313399 Y176.777276 Z-0.125000
G01 X126.501510 Y175.236371 Z-0.125000
G01 X128.795021 Y174.623941 Z-0.125000
G01 X131.387644 Y174.278237 Z-0.125000
G01 X134.749541 Y174.162323 Z-0.125000
G01 X138.168430 Y174.281068 Z-0.125000
G01 X140.860800 Y174.645081 Z-0.125000
G01 X143.054563 Y175.224729 Z-0.125000
G01 X147.242701 Y176.732932 Z-0.125000
G01 X148.339582 Y176.978412 Z-0.125000
G01 X149.222787 Y177.044716 Z-0.125000
G01 X150.333930 Y176.919807 Z-0.125000
G01 X151.430811 Y176.552275 Z-0.125000
G01 X152.616355 Y175.914444 Z-0.125000
G01 X155.718644 Y173.895993 Z-0.125000
G01 X156.815552 Y173.458558 Z-0.125000
G01 X157.769982 Y173.329336 Z-0.125000
G01 X158.809899 Y173.485678 Z-0.125000
G01 X159.795973 Y173.901259 Z-0.125000
G01 X160.770988 Y174.513504 Z-0.125000
G01 X163.961939 Y176.862075 Z-0.125000
G01 X165.092078 Y177.440030 Z-0.125000
G01 X166.089239 Y177.732870 Z-0.125000
G00 Z3.000000

(End cutting path id: polyline554)


(Start cutting path id: polyline550)
(Change tool to Default tool)

G00 Z3.000000
G00 X9.732671 Y178.035368

G00 Z4.875000 (Fast pre-penetrate)
G01 Z-0.125000 F400.0(Penetrate)
G01 X13.835322 Y177.892705 Z-0.125000 F800.000000
G01 X17.410897 Y178.224995 Z-0.125000
G01 X18.393822 Y178.252326 Z-0.125000
G01 X19.504939 Y178.143874 Z-0.125000
G01 X21.698729 Y177.694876 Z-0.125000
G01 X22.695889 Y177.629974 Z-0.125000
G01 X23.792797 Y177.796555 Z-0.125000
G01 X25.986561 Y178.493202 Z-0.125000
G01 X26.884026 Y178.585992 Z-0.125000
G01 X27.482328 Y178.510586 Z-0.125000
G01 X28.080629 Y178.325616 Z-0.125000
G01 X30.274393 Y177.342055 Z-0.125000
G01 X31.171858 Y177.223336 Z-0.125000
G01 X31.670439 Y177.300409 Z-0.125000
G01 X32.246595 Y177.506784 Z-0.125000
G01 X34.562251 Y178.849120 Z-0.125000
G01 X35.160553 Y179.034460 Z-0.125000
G01 X35.659133 Y179.061659 Z-0.125000
G01 X36.257435 Y178.941935 Z-0.125000
G01 X36.855736 Y178.663091 Z-0.125000
G01 X39.348664 Y176.947720 Z-0.125000
G01 X39.946965 Y176.726741 Z-0.125000
G01 X40.545267 Y176.674644 Z-0.125000
G01 X41.143568 Y176.792251 Z-0.125000
G01 X41.819446 Y177.112053 Z-0.125000
G01 X43.955609 Y178.767866 Z-0.125000
G01 X44.833125 Y179.335635 Z-0.125000
G01 X45.630843 Y179.632629 Z-0.125000
G01 X46.328866 Y179.684302 Z-0.125000
G01 X47.126610 Y179.506476 Z-0.125000
G01 X47.935440 Y179.105368 Z-0.125000
G01 X50.594552 Y177.119117 Z-0.125000
G01 X51.713606 Y176.435805 Z-0.125000
G01 X52.710767 Y176.073194 Z-0.125000
G01 X53.707954 Y175.977336 Z-0.125000
G01 X54.705114 Y176.138969 Z-0.125000
G01 X55.901717 Y176.614187 Z-0.125000
G01 X59.812862 Y179.014087 Z-0.125000
G01 X61.485900 Y179.841173 Z-0.125000
G01 X63.181083 Y180.333562 Z-0.125000
G01 X64.890528 Y180.452731 Z-0.125000
G01 X66.372034 Y180.282842 Z-0.125000
G01 X67.967522 Y179.881073 Z-0.125000
G01 X74.748282 Y177.326233 Z-0.125000
G01 X76.543186 Y176.763518 Z-0.125000
G01 X78.238369 Y176.338915 Z-0.125000
G01 X80.232717 Y175.973129 Z-0.125000
G01 X82.326785 Y175.728733 Z-0.125000
G01 X84.606036 Y175.597659 Z-0.125000
G01 X86.999242 Y175.591256 Z-0.125000
G01 X90.403869 Y175.859967 Z-0.125000
G01 X91.899636 Y176.134445 Z-0.125000
G01 X93.295682 Y176.515048 Z-0.125000
G01 X94.492285 Y176.953885 Z-0.125000
G01 X95.688888 Y177.501122 Z-0.125000
G01 X100.176163 Y179.960342 Z-0.125000
G01 X101.273071 Y180.337955 Z-0.125000
G01 X102.270232 Y180.457837 Z-0.125000
G01 X103.267392 Y180.316788 Z-0.125000
G01 X104.308897 Y179.875463 Z-0.125000
G01 X105.461182 Y179.083646 Z-0.125000
G01 X107.535301 Y177.302791 Z-0.125000
G01 X108.386226 Y176.667580 Z-0.125000
G01 X109.250434 Y176.205274 Z-0.125000
G01 X110.147899 Y175.984585 Z-0.125000
G01 X111.045339 Y176.055520 Z-0.125000
G01 X111.931718 Y176.394398 Z-0.125000
G01 X112.818098 Y176.942720 Z-0.125000
G01 X114.768127 Y178.434544 Z-0.125000
G01 X115.654507 Y179.021019 Z-0.125000
G01 X116.629522 Y179.473535 Z-0.125000
G01 X117.541222 Y179.673005 Z-0.125000
G01 X118.424426 Y179.657632 Z-0.125000
G01 X119.421587 Y179.427207 Z-0.125000
G01 X123.809140 Y177.478315 Z-0.125000
G01 X125.105464 Y177.072021 Z-0.125000
G01 X126.401789 Y176.820615 Z-0.125000
G01 X128.595579 Y176.672210 Z-0.125000
G01 X133.837841 Y176.753993 Z-0.125000
G01 X138.624280 Y176.669855 Z-0.125000
G01 X140.860800 Y176.777408 Z-0.125000
G01 X142.755426 Y177.139516 Z-0.125000
G01 X144.450609 Y177.742872 Z-0.125000
G01 X147.841002 Y179.311637 Z-0.125000
G01 X148.838163 Y179.603763 Z-0.125000
G01 X149.678637 Y179.689911 Z-0.125000
G01 X150.633067 Y179.568441 Z-0.125000
G01 X151.530533 Y179.230146 Z-0.125000
G01 X152.616355 Y178.569720 Z-0.125000
G01 X154.654993 Y177.003891 Z-0.125000
G01 X155.452738 Y176.484435 Z-0.125000
G01 X156.316972 Y176.104044 Z-0.125000
G01 X157.214411 Y175.975536 Z-0.125000
G01 X158.111876 Y176.147039 Z-0.125000
G01 X159.086891 Y176.650541 Z-0.125000
G01 X159.946653 Y177.305728 Z-0.125000
G01 X162.100544 Y179.210434 Z-0.125000
G01 X163.430127 Y180.086733 Z-0.125000
G01 X164.094892 Y180.340045 Z-0.125000
G01 X164.721689 Y180.449661 Z-0.125000
G01 X165.391216 Y180.426352 Z-0.125000
G01 X166.089239 Y180.255775 Z-0.125000
G00 Z3.000000

(End cutting path id: polyline550)


(Start cutting path id: polyline546)
(Change tool to Default tool)

G00 Z3.000000
G00 X9.732671 Y180.649157

G00 Z4.875000 (Fast pre-penetrate)
G01 Z-0.125000 F400.0(Penetrate)
G01 X13.037578 Y180.542715 Z-0.125000 F800.000000
G01 X16.228528 Y180.863337 Z-0.125000
G01 X17.254184 Y180.897362 Z-0.125000
G01 X18.408057 Y180.773485 Z-0.125000
G01 X20.502126 Y180.330678 Z-0.125000
G01 X21.470790 Y180.278979 Z-0.125000
G01 X22.496473 Y180.452307 Z-0.125000
