%
(Header)
(Generated by gcodetools from Inkscape.)
(Using default header. To add your own header create file "header" in the output dir.)
M3
(Header end.)
G21 (All units in mm)

(Start cutting path id: polyline3896)
(Change tool to Default tool)

G00 Z3.000000
G00 X13.689601 Y213.038020

G00 Z4.875000 (Fast pre-penetrate)
G01 Z-0.125000 F400.0(Penetrate)
G01 X20.299413 Y212.823020 Z-0.125000 F800.000000
G01 X27.820952 Y212.741819 Z-0.125000
G01 X98.819604 Y212.735178 Z-0.125000
G01 X106.569055 Y212.820797 Z-0.125000
G01 X118.421157 Y213.222143 Z-0.125000
G01 X121.498151 Y213.118612 Z-0.125000
G01 X127.082308 Y212.606988 Z-0.125000
G01 X129.361558 Y212.515098 Z-0.125000
G01 X131.655043 Y212.652814 Z-0.125000
G01 X136.042596 Y213.351921 Z-0.125000
G01 X137.908753 Y213.482467 Z-0.125000
G01 X139.732153 Y213.323029 Z-0.125000
G01 X143.621126 Y212.384765 Z-0.125000
G01 X145.316310 Y212.214373 Z-0.125000
G01 X146.911772 Y212.421595 Z-0.125000
G01 X150.401886 Y213.599174 Z-0.125000
G01 X151.199630 Y213.769433 Z-0.125000
G01 X151.926122 Y213.824096 Z-0.125000
G01 X152.695371 Y213.762157 Z-0.125000
G01 X153.493115 Y213.568562 Z-0.125000
G01 X156.783787 Y212.122404 Z-0.125000
G01 X157.581531 Y211.900948 Z-0.125000
G01 X158.279554 Y211.831469 Z-0.125000
G01 X158.977577 Y211.893328 Z-0.125000
G01 X159.775294 Y212.122483 Z-0.125000
G01 X160.650588 Y212.533778 Z-0.125000
G01 X163.065966 Y213.886405 Z-0.125000
G01 X163.863710 Y214.157868 Z-0.125000
G01 X164.661454 Y214.247773 Z-0.125000
G01 X165.459172 Y214.135987 Z-0.125000
G01 X166.323406 Y213.800654 Z-0.125000
G01 X169.071153 Y212.038531 Z-0.125000
G01 X170.046168 Y211.569955 Z-0.125000
G00 Z3.000000

(End cutting path id: polyline3896)


(Start cutting path id: polyline3584)
(Change tool to Default tool)

G00 Z3.000000
G00 X13.689601 Y211.120296

G00 Z4.875000 (Fast pre-penetrate)
G01 Z-0.125000 F400.0(Penetrate)
G01 X21.553008 Y210.857353 Z-0.125000 F800.000000
G01 X29.758309 Y210.760781 Z-0.125000
G01 X102.580361 Y210.749695 Z-0.125000
G01 X109.076217 Y210.830551 Z-0.125000
G01 X117.395474 Y211.186362 Z-0.125000
G01 X120.244557 Y211.237506 Z-0.125000
G01 X123.207569 Y211.128789 Z-0.125000
G01 X128.464092 Y210.625632 Z-0.125000
G01 X130.615152 Y210.530488 Z-0.125000
G01 X132.851646 Y210.659498 Z-0.125000
G01 X137.139504 Y211.361305 Z-0.125000
G01 X139.048365 Y211.497724 Z-0.125000
G01 X140.829035 Y211.329846 Z-0.125000
G01 X144.518565 Y210.411822 Z-0.125000
G01 X146.228010 Y210.230186 Z-0.125000
G01 X147.809237 Y210.442090 Z-0.125000
G01 X151.199630 Y211.613426 Z-0.125000
G01 X151.997348 Y211.786754 Z-0.125000
G01 X152.723866 Y211.839644 Z-0.125000
G01 X153.393394 Y211.787177 Z-0.125000
G01 X154.191138 Y211.597789 Z-0.125000
G01 X157.481810 Y210.130306 Z-0.125000
G01 X158.279554 Y209.909670 Z-0.125000
G01 X158.977577 Y209.846884 Z-0.125000
G01 X159.675573 Y209.921550 Z-0.125000
G01 X160.373596 Y210.131047 Z-0.125000
G01 X161.271061 Y210.559856 Z-0.125000
G01 X163.564546 Y211.877136 Z-0.125000
G01 X164.362290 Y212.163891 Z-0.125000
G01 X165.160035 Y212.264088 Z-0.125000
G01 X165.957779 Y212.155080 Z-0.125000
G01 X166.855218 Y211.798237 Z-0.125000
G01 X170.046168 Y209.766451 Z-0.125000
G00 Z3.000000

(End cutting path id: polyline3584)


(Start cutting path id: polyline3586)
(Change tool to Default tool)

G00 Z3.000000
G00 X13.689601 Y210.158299

G00 Z4.875000 (Fast pre-penetrate)
G01 Z-0.125000 F400.0(Penetrate)
G01 X22.350752 Y209.870988 Z-0.125000 F800.000000
G01 X30.783965 Y209.769944 Z-0.125000
G01 X87.195415 Y209.813865 Z-0.125000
G01 X104.175823 Y209.757297 Z-0.125000
G01 X110.215856 Y209.835878 Z-0.125000
G01 X118.193218 Y210.190075 Z-0.125000
G01 X121.042301 Y210.245532 Z-0.125000
G01 X123.891357 Y210.142900 Z-0.125000
G01 X129.162115 Y209.631831 Z-0.125000
G01 X131.298914 Y209.538407 Z-0.125000
G01 X133.449947 Y209.666068 Z-0.125000
G01 X137.737806 Y210.375998 Z-0.125000
G01 X139.504215 Y210.505987 Z-0.125000
G01 X141.327615 Y210.337765 Z-0.125000
G01 X145.017146 Y209.410375 Z-0.125000
G01 X146.569904 Y209.237576 Z-0.125000
G01 X147.410378 Y209.291948 Z-0.125000
G01 X148.208096 Y209.445830 Z-0.125000
G01 X151.498768 Y210.598221 Z-0.125000
G01 X152.296512 Y210.783667 Z-0.125000
G01 X153.065761 Y210.847775 Z-0.125000
G01 X153.792279 Y210.788324 Z-0.125000
G01 X154.490302 Y210.621795 Z-0.125000
G01 X155.288020 Y210.319033 Z-0.125000
G01 X157.780947 Y209.145210 Z-0.125000
G01 X158.578691 Y208.919706 Z-0.125000
G01 X159.333705 Y208.855809 Z-0.125000
G01 X160.074458 Y208.951641 Z-0.125000
G01 X160.872203 Y209.222918 Z-0.125000
G01 X163.398362 Y210.666616 Z-0.125000
G01 X164.162848 Y211.024729 Z-0.125000
G01 X164.860871 Y211.222399 Z-0.125000
G01 X165.459172 Y211.270870 Z-0.125000
G01 X166.256916 Y211.148289 Z-0.125000
G01 X167.032489 Y210.837139 Z-0.125000
G01 X170.046168 Y208.880098 Z-0.125000
G00 Z3.000000

(End cutting path id: polyline3586)


(Start cutting path id: polyline3588)
(Change tool to Default tool)

G00 Z3.000000
G00 X13.689601 Y209.193126

G00 Z4.875000 (Fast pre-penetrate)
G01 Z-0.125000 F400.0(Penetrate)
G01 X23.034514 Y208.887321 Z-0.125000 F800.000000
G01 X31.695665 Y208.779477 Z-0.125000
G01 X87.879203 Y208.843612 Z-0.125000
G01 X105.657355 Y208.765031 Z-0.125000
G01 X111.355468 Y208.843401 Z-0.125000
G01 X119.104919 Y209.199370 Z-0.125000
G01 X121.840019 Y209.253372 Z-0.125000
G01 X124.674840 Y209.148359 Z-0.125000
G01 X129.860138 Y208.636126 Z-0.125000
G01 X131.868720 Y208.546142 Z-0.125000
G01 X134.048249 Y208.675232 Z-0.125000
G01 X138.236386 Y209.379525 Z-0.125000
G01 X140.074021 Y209.513272 Z-0.125000
G01 X141.826195 Y209.342272 Z-0.125000
G01 X145.416031 Y208.427185 Z-0.125000
G01 X147.025754 Y208.245364 Z-0.125000
G01 X148.606981 Y208.451421 Z-0.125000
G01 X151.997348 Y209.641647 Z-0.125000
G01 X152.795092 Y209.811033 Z-0.125000
G01 X153.493115 Y209.854822 Z-0.125000
G01 X154.191138 Y209.788279 Z-0.125000
G01 X154.889161 Y209.612067 Z-0.125000
G01 X158.080111 Y208.157919 Z-0.125000
G01 X158.877855 Y207.928340 Z-0.125000
G01 X159.575878 Y207.862221 Z-0.125000
G01 X160.273901 Y207.938897 Z-0.125000
G01 X160.971897 Y208.153844 Z-0.125000
G01 X161.714238 Y208.508544 Z-0.125000
G01 X164.162848 Y209.926233 Z-0.125000
G01 X164.960592 Y210.200288 Z-0.125000
G01 X165.658615 Y210.278922 Z-0.125000
G01 X166.456359 Y210.165522 Z-0.125000
G01 X167.254103 Y209.847308 Z-0.125000
G01 X170.046168 Y208.001762 Z-0.125000
G00 Z3.000000

(End cutting path id: polyline3588)


(Start cutting path id: polyline3590)
(Change tool to Default tool)

G00 Z3.000000
G00 X13.689601 Y208.223932

G00 Z4.875000 (Fast pre-penetrate)
G01 Z-0.125000 F400.0(Penetrate)
G01 X24.060170 Y207.895823 Z-0.125000 F800.000000
G01 X32.835303 Y207.787767 Z-0.125000
G01 X88.335053 Y207.875159 Z-0.125000
G01 X107.024905 Y207.772818 Z-0.125000
G01 X112.381124 Y207.849494 Z-0.125000
G01 X119.902663 Y208.205570 Z-0.125000
G01 X122.637763 Y208.261080 Z-0.125000
G01 X125.372863 Y208.157787 Z-0.125000
G01 X130.458440 Y207.646824 Z-0.125000
G01 X132.552508 Y207.554088 Z-0.125000
G01 X134.646577 Y207.686882 Z-0.125000
G01 X138.734966 Y208.386228 Z-0.125000
G01 X140.529871 Y208.521482 Z-0.125000
G01 X142.225081 Y208.362627 Z-0.125000
G01 X145.914611 Y207.418621 Z-0.125000
G01 X147.481604 Y207.253442 Z-0.125000
G01 X149.005840 Y207.462119 Z-0.125000
G01 X152.296512 Y208.634036 Z-0.125000
G01 X153.094256 Y208.812444 Z-0.125000
G01 X153.863505 Y208.862318 Z-0.125000
G01 X155.188298 Y208.629776 Z-0.125000
G01 X158.379249 Y207.167505 Z-0.125000
G01 X159.176993 Y206.936128 Z-0.125000
G01 X159.875016 Y206.870670 Z-0.125000
G01 X160.573039 Y206.949568 Z-0.125000
G01 X161.271061 Y207.170019 Z-0.125000
G01 X164.373376 Y208.917484 Z-0.125000
G01 X165.160035 Y209.198947 Z-0.125000
G01 X165.858058 Y209.287186 Z-0.125000
G01 X166.655802 Y209.181061 Z-0.125000
G01 X167.453519 Y208.865440 Z-0.125000
G01 X170.046168 Y207.129802 Z-0.125000
G00 Z3.000000

(End cutting path id: polyline3590)


(Start cutting path id: polyline3592)
(Change tool to Default tool)

G00 Z3.000000
G00 X13.689601 Y207.249923

G00 Z4.875000 (Fast pre-penetrate)
G01 Z-0.125000 F400.0(Penetrate)
G01 X24.971870 Y206.906918 Z-0.125000 F800.000000
G01 X33.860959 Y206.796322 Z-0.125000
G01 X88.790903 Y206.907579 Z-0.125000
G01 X108.278473 Y206.780606 Z-0.125000
G01 X113.292824 Y206.853816 Z-0.125000
G01 X120.814363 Y207.217803 Z-0.125000
G01 X123.435507 Y207.268603 Z-0.125000
G01 X126.056652 Y207.166262 Z-0.125000
G01 X131.056741 Y206.655431 Z-0.125000
G01 X133.122314 Y206.561875 Z-0.125000
G01 X135.145157 Y206.688848 Z-0.125000
G01 X139.233546 Y207.394703 Z-0.125000
G01 X140.985721 Y207.529243 Z-0.125000
G01 X142.723661 Y207.360836 Z-0.125000
G01 X146.213749 Y206.450618 Z-0.125000
G01 X147.823472 Y206.261018 Z-0.125000
G01 X148.606981 Y206.315045 Z-0.125000
G01 X149.404699 Y206.474880 Z-0.125000
G01 X152.595676 Y207.626927 Z-0.125000
G01 X153.393394 Y207.813564 Z-0.125000
G01 X154.091417 Y207.871402 Z-0.125000
G01 X154.889161 Y207.797081 Z-0.125000
G01 X155.587184 Y207.610497 Z-0.125000
G01 X158.678413 Y206.170451 Z-0.125000
G01 X159.476157 Y205.939893 Z-0.125000
G01 X160.131423 Y205.878483 Z-0.125000
G01 X160.772481 Y205.942856 Z-0.125000
G01 X161.470504 Y206.150660 Z-0.125000
G01 X162.246076 Y206.523775 Z-0.125000
G01 X164.661454 Y207.945300 Z-0.125000
G01 X165.459172 Y208.220784 Z-0.125000
G01 X166.157195 Y208.294735 Z-0.125000
G01 X166.954939 Y208.167603 Z-0.125000
G01 X167.741597 Y207.836239 Z-0.125000
G01 X170.046168 Y206.262499 Z-0.125000
G00 Z3.000000

(End cutting path id: polyline3592)


(Start cutting path id: polyline3594)
(Change tool to Default tool)

G00 Z3.000000
G00 X13.689601 Y206.270331

G00 Z4.875000 (Fast pre-penetrate)
G01 Z-0.125000 F400.0(Penetrate)
G01 X26.111508 Y205.912879 Z-0.125000 F800.000000
G01 X34.886615 Y205.804612 Z-0.125000
G01 X55.741761 Y205.805935 Z-0.125000
G01 X89.246753 Y205.940105 Z-0.125000
G01 X109.418112 Y205.788472 Z-0.125000
G01 X114.318506 Y205.863720 Z-0.125000
G01 X121.498151 Y206.222256 Z-0.125000
G01 X124.119269 Y206.276628 Z-0.125000
G01 X126.740413 Y206.172700 Z-0.125000
G01 X131.655043 Y205.661737 Z-0.125000
G01 X133.578164 Y205.569689 Z-0.125000
G01 X135.743459 Y205.705949 Z-0.125000
G01 X139.632432 Y206.392171 Z-0.125000
G01 X141.441571 Y206.537057 Z-0.125000
G01 X143.122520 Y206.375185 Z-0.125000
G01 X146.612634 Y205.456791 Z-0.125000
G01 X148.165366 Y205.268937 Z-0.125000
G01 X149.703863 Y205.466925 Z-0.125000
G01 X152.994535 Y206.655352 Z-0.125000
G01 X153.792279 Y206.832940 Z-0.125000
G01 X154.433311 Y206.878634 Z-0.125000
G01 X155.088603 Y206.824712 Z-0.125000
G01 X155.886321 Y206.621803 Z-0.125000
G01 X158.877855 Y205.210623 Z-0.125000
G01 X159.675573 Y204.962894 Z-0.125000
G01 X160.373596 Y204.885689 Z-0.125000
G01 X161.071619 Y204.958449 Z-0.125000
G01 X161.769642 Y205.176995 Z-0.125000
G01 X162.511982 Y205.542040 Z-0.125000
G01 X164.860871 Y206.939541 Z-0.125000
G01 X165.658615 Y207.223200 Z-0.125000
G01 X166.356638 Y207.302231 Z-0.125000
G01 X167.054661 Y207.206717 Z-0.125000
G01 X167.830233 Y206.905013 Z-0.125000
G01 X168.627977 Y206.425376 Z-0.125000
G01 X170.046168 Y205.398318 Z-0.125000
G00 Z3.000000

(End cutting path id: polyline3594)


(Start cutting path id: polyline3596)
(Change tool to Default tool)

G00 Z3.000000
G00 X13.689601 Y205.284495

G00 Z4.875000 (Fast pre-penetrate)
G01 Z-0.125000 F400.0(Penetrate)
G01 X29.302459 Y204.880053 Z-0.125000 F800.000000
G01 X43.433810 Y204.796233 Z-0.125000
G01 X89.246753 Y204.971863 Z-0.125000
G01 X111.583406 Y204.799276 Z-0.125000
G01 X115.458118 Y204.879736 Z-0.125000
G01 X122.181913 Y205.227980 Z-0.125000
G01 X124.803057 Y205.284362 Z-0.125000
G01 X127.424202 Y205.176756 Z-0.125000
G01 X132.253344 Y204.665979 Z-0.125000
G01 X134.147970 Y204.577344 Z-0.125000
G01 X136.142317 Y204.700983 Z-0.125000
G01 X140.230733 Y205.421284 Z-0.125000
G01 X141.897421 Y205.544791 Z-0.125000
G01 X143.621126 Y205.366489 Z-0.125000
G01 X146.911772 Y204.482808 Z-0.125000
G01 X148.507260 Y204.276539 Z-0.125000
G01 X149.305004 Y204.326863 Z-0.125000
G01 X150.102722 Y204.487280 Z-0.125000
G01 X153.293672 Y205.656789 Z-0.125000
G01 X154.091417 Y205.838822 Z-0.125000
G01 X154.789439 Y205.886580 Z-0.125000
G01 X155.487462 Y205.814957 Z-0.125000
G01 X156.185485 Y205.626944 Z-0.125000
G01 X159.276714 Y204.168933 Z-0.125000
G01 X159.974737 Y203.964358 Z-0.125000
G01 X160.672760 Y203.894111 Z-0.125000
G01 X161.370783 Y203.975444 Z-0.125000
G01 X162.068806 Y204.205313 Z-0.125000
G01 X165.060313 Y205.937803 Z-0.125000
G01 X165.858058 Y206.227998 Z-0.125000
G01 X166.556080 Y206.310204 Z-0.125000
G01 X167.254103 Y206.215033 Z-0.125000
G01 X167.952126 Y205.950450 Z-0.125000
G01 X168.716612 Y205.502670 Z-0.125000
G01 X170.046168 Y204.535539 Z-0.125000
G00 Z3.000000

(End cutting path id: polyline3596)


(Start cutting path id: polyline3598)
(Change tool to Default tool)

G00 Z3.000000
G00 X13.689601 Y204.291832

G00 Z4.875000 (Fast pre-penetrate)
G01 Z-0.125000 F400.0(Penetrate)
G01 X28.732653 Y203.917632 Z-0.125000 F800.000000
G01 X37.279821 Y203.818493 Z-0.125000
G01 X55.057973 Y203.825055 Z-0.125000
G01 X89.930515 Y204.002272 Z-0.125000
G01 X111.583406 Y203.804047 Z-0.125000
G01 X116.027924 Y203.877363 Z-0.125000
G01 X122.865701 Y204.235264 Z-0.125000
G01 X125.372863 Y204.292626 Z-0.125000
G01 X127.965512 Y204.189491 Z-0.125000
G01 X132.751951 Y203.676994 Z-0.125000
G01 X134.717803 Y203.585343 Z-0.125000
G01 X136.640898 Y203.710861 Z-0.125000
G01 X140.629592 Y204.423780 Z-0.125000
G01 X142.353271 Y204.551997 Z-0.125000
G01 X143.920264 Y204.393353 Z-0.125000
G01 X147.410378 Y203.459904 Z-0.125000
G01 X148.963110 Y203.284935 Z-0.125000
G01 X150.401886 Y203.485806 Z-0.125000
G01 X153.592836 Y204.661375 Z-0.125000
G01 X154.390581 Y204.845631 Z-0.125000
G01 X155.088603 Y204.893811 Z-0.125000
G01 X155.786626 Y204.821580 Z-0.125000
G01 X156.484623 Y204.630260 Z-0.125000
G01 X159.476157 Y203.198469 Z-0.125000
G01 X160.273901 Y202.961932 Z-0.125000
G01 X160.929167 Y202.902136 Z-0.125000
G01 X161.570199 Y202.974341 Z-0.125000
G01 X162.268222 Y203.196617 Z-0.125000
G01 X163.043820 Y203.589391 Z-0.125000
G01 X165.259756 Y204.937573 Z-0.125000
G01 X166.057474 Y205.233457 Z-0.125000
G01 X166.755497 Y205.318732 Z-0.125000
G01 X167.453519 Y205.222185 Z-0.125000
G01 X168.151542 Y204.953210 Z-0.125000
G01 X168.893883 Y204.514532 Z-0.125000
G01 X170.046168 Y203.672867 Z-0.125000
G00 Z3.000000

(End cutting path id: polyline3598)


(Start cutting path id: polyline3600)
(Change tool to Default tool)

G00 Z3.000000
G00 X13.689601 Y203.291814

G00 Z4.875000 (Fast pre-penetrate)
G01 Z-0.125000 F400.0(Penetrate)
G01 X17.906207 Y203.264827 Z-0.125000 F800.000000
G01 X30.328115 Y202.914625 Z-0.125000
G01 X38.533415 Y202.824719 Z-0.125000
G01 X54.716105 Y202.833874 Z-0.125000
G01 X90.158454 Y203.030882 Z-0.125000
G01 X112.495106 Y202.811861 Z-0.125000
G01 X116.825668 Y202.884833 Z-0.125000
G01 X123.549463 Y203.244110 Z-0.125000
G01 X126.056652 Y203.300122 Z-0.125000
G01 X128.563814 Y203.195559 Z-0.125000
G01 X133.250531 Y202.685337 Z-0.125000
G01 X135.173653 Y202.593183 Z-0.125000
G01 X137.139504 Y202.724019 Z-0.125000
G01 X141.028478 Y203.429794 Z-0.125000
G01 X142.695165 Y203.560498 Z-0.125000
G01 X144.319123 Y203.397118 Z-0.125000
G01 X147.709516 Y202.478698 Z-0.125000
G01 X149.305004 Y202.292511 Z-0.125000
G01 X150.701024 Y202.488381 Z-0.125000
G01 X153.891974 Y203.671914 Z-0.125000
G01 X154.689718 Y203.856037 Z-0.125000
G01 X155.345011 Y203.901916 Z-0.125000
G01 X155.986042 Y203.843126 Z-0.125000
G01 X156.684065 Y203.663527 Z-0.125000
G01 X159.675573 Y202.227000 Z-0.125000
G01 X160.473317 Y201.978715 Z-0.125000
G01 X161.171340 Y201.909262 Z-0.125000
G01 X161.769642 Y201.975355 Z-0.125000
G01 X162.467665 Y202.193530 Z-0.125000
G01 X163.221091 Y202.571910 Z-0.125000
G01 X165.558894 Y203.988117 Z-0.125000
G01 X166.256916 Y204.239842 Z-0.125000
G01 X166.954939 Y204.326307 Z-0.125000
G01 X167.652962 Y204.228438 Z-0.125000
G01 X168.350985 Y203.953774 Z-0.125000
G01 X170.046168 Y202.808924 Z-0.125000
G00 Z3.000000

(End cutting path id: polyline3600)


(Start cutting path id: polyline3602)
(Change tool to Default tool)

G00 Z3.000000
G00 X13.689601 Y202.284150

G00 Z4.875000 (Fast pre-penetrate)
G01 Z-0.125000 F400.0(Penetrate)
G01 X18.020163 Y202.288251 Z-0.125000 F800.000000
G01 X30.328115 Y201.942891 Z-0.125000
G01 X39.673054 Y201.831210 Z-0.125000
G01 X54.374211 Y201.842058 Z-0.125000
G01 X90.500321 Y202.057270 Z-0.125000
G01 X99.959216 Y202.013323 Z-0.125000
G01 X113.406806 Y201.819674 Z-0.125000
G01 X117.623412 Y201.894102 Z-0.125000
G01 X124.233251 Y202.254569 Z-0.125000
G01 X126.626458 Y202.307989 Z-0.125000
G01 X129.133620 Y202.201415 Z-0.125000
G01 X133.749111 Y201.691801 Z-0.125000
G01 X135.629503 Y201.600811 Z-0.125000
G01 X137.538363 Y201.726832 Z-0.125000
G01 X141.327615 Y202.422738 Z-0.125000
G01 X143.037059 Y202.568338 Z-0.125000
G01 X144.718008 Y202.398291 Z-0.125000
G01 X148.108401 Y201.471695 Z-0.125000
G01 X149.532916 Y201.300298 Z-0.125000
G01 X151.000188 Y201.493100 Z-0.125000
G01 X154.091417 Y202.653111 Z-0.125000
G01 X154.889161 Y202.851442 Z-0.125000
G01 X155.587184 Y202.910524 Z-0.125000
G01 X156.285206 Y202.844933 Z-0.125000
G01 X156.983229 Y202.656974 Z-0.125000
G01 X159.974737 Y201.212007 Z-0.125000
G01 X160.672760 Y200.994969 Z-0.125000
G01 X161.370783 Y200.917182 Z-0.125000
G01 X162.068806 Y200.998541 Z-0.125000
G01 X162.667107 Y201.193512 Z-0.125000
G01 X163.398362 Y201.559669 Z-0.125000
G01 X165.758336 Y202.998365 Z-0.125000
G01 X166.456359 Y203.249666 Z-0.125000
G01 X167.154382 Y203.333274 Z-0.125000
G01 X167.752683 Y203.257762 Z-0.125000
G01 X168.450706 Y203.001143 Z-0.125000
G01 X170.046168 Y201.942520 Z-0.125000
G00 Z3.000000

(End cutting path id: polyline3602)


(Start cutting path id: polyline3604)
(Change tool to Default tool)

G00 Z3.000000
G00 X13.689601 Y201.268627

G00 Z4.875000 (Fast pre-penetrate)
G01 Z-0.125000 F400.0(Penetrate)
G01 X18.703951 Y201.299636 Z-0.125000 F800.000000
G01 X31.467753 Y200.948006 Z-0.125000
G01 X40.926622 Y200.836987 Z-0.125000
G01 X54.146273 Y200.850163 Z-0.125000
G01 X90.728259 Y201.081276 Z-0.125000
G01 X100.643005 Y201.034921 Z-0.125000
G01 X114.204524 Y200.827488 Z-0.125000
G01 X118.307201 Y200.900963 Z-0.125000
G01 X124.803057 Y201.261484 Z-0.125000
G01 X127.196264 Y201.315644 Z-0.125000
G01 X129.560974 Y201.216293 Z-0.125000
G01 X134.147970 Y200.705039 Z-0.125000
G01 X136.085353 Y200.608890 Z-0.125000
G01 X137.937222 Y200.732873 Z-0.125000
G01 X141.826195 Y201.449708 Z-0.125000
G01 X143.492909 Y201.575517 Z-0.125000
G01 X145.017146 Y201.414624 Z-0.125000
G01 X148.407539 Y200.482736 Z-0.125000
G01 X149.874810 Y200.307821 Z-0.125000
G01 X151.299351 Y200.503162 Z-0.125000
G01 X154.490302 Y201.700665 Z-0.125000
G01 X155.188298 Y201.864071 Z-0.125000
G01 X155.886321 Y201.917438 Z-0.125000
G01 X156.584344 Y201.845048 Z-0.125000
G01 X157.282367 Y201.648172 Z-0.125000
G01 X160.174180 Y200.230298 Z-0.125000
G01 X160.872203 Y200.007969 Z-0.125000
G01 X161.570199 Y199.925657 Z-0.125000
G01 X162.168527 Y199.981643 Z-0.125000
G01 X162.866523 Y200.195399 Z-0.125000
G01 X163.752903 Y200.653366 Z-0.125000
G01 X165.880203 Y201.974746 Z-0.125000
G01 X166.655802 Y202.262269 Z-0.125000
G01 X167.353798 Y202.340876 Z-0.125000
G01 X167.952126 Y202.258829 Z-0.125000
G01 X168.539342 Y202.048618 Z-0.125000
G01 X170.046168 Y201.072571 Z-0.125000
G00 Z3.000000

(End cutting path id: polyline3604)


(Start cutting path id: polyline3606)
(Change tool to Default tool)

G00 Z3.000000
G00 X13.689601 Y200.245273

G00 Z4.875000 (Fast pre-penetrate)
G01 Z-0.125000 F400.0(Penetrate)
G01 X19.387713 Y200.310810 Z-0.125000 F800.000000
G01 X32.721321 Y199.950501 Z-0.125000
G01 X42.180216 Y199.842684 Z-0.125000
G01 X90.842215 Y200.102848 Z-0.125000
G01 X101.326767 Y200.054430 Z-0.125000
G01 X115.002268 Y199.835302 Z-0.125000
G01 X118.990963 Y199.909570 Z-0.125000
G01 X125.258907 Y200.264799 Z-0.125000
G01 X127.652114 Y200.323881 Z-0.125000
G01 X130.159302 Y200.215137 Z-0.125000
G01 X134.646577 Y199.706529 Z-0.125000
G01 X136.427220 Y199.616359 Z-0.125000
G01 X138.336107 Y199.741296 Z-0.125000
G01 X142.125359 Y200.448658 Z-0.125000
G01 X143.720821 Y200.584151 Z-0.125000
G01 X145.316310 Y200.428497 Z-0.125000
G01 X148.706703 Y199.492138 Z-0.125000
G01 X150.202443 Y199.315978 Z-0.125000
G01 X151.598489 Y199.516188 Z-0.125000
G01 X154.689718 Y200.691678 Z-0.125000
G01 X155.487462 Y200.880272 Z-0.125000
G01 X156.142755 Y200.925040 Z-0.125000
G01 X156.783787 Y200.860587 Z-0.125000
G01 X157.481810 Y200.670299 Z-0.125000
G01 X160.373596 Y199.245573 Z-0.125000
G01 X161.071619 Y199.018190 Z-0.125000
G01 X161.769642 Y198.933312 Z-0.125000
G01 X162.467665 Y199.010253 Z-0.125000
G01 X163.165687 Y199.244991 Z-0.125000
G01 X165.880203 Y200.889453 Z-0.125000
G01 X166.556080 Y201.188141 Z-0.125000
G01 X167.054661 Y201.314321 Z-0.125000
G01 X167.752683 Y201.334614 Z-0.125000
G01 X168.450706 Y201.162556 Z-0.125000
G01 X169.248424 Y200.757506 Z-0.125000
G01 X170.046168 Y200.198177 Z-0.125000
G00 Z3.000000

(End cutting path id: polyline3606)


(Start cutting path id: polyline3608)
(Change tool to Default tool)

G00 Z3.000000
G00 X13.689601 Y199.214326

G00 Z4.875000 (Fast pre-penetrate)
G01 Z-0.125000 F400.0(Penetrate)
G01 X16.766569 Y199.318095 Z-0.125000 F800.000000
G01 X20.071502 Y199.321720 Z-0.125000
G01 X33.860959 Y198.955034 Z-0.125000
G01 X43.319854 Y198.848804 Z-0.125000
G01 X91.070154 Y199.122013 Z-0.125000
G01 X102.010555 Y199.071901 Z-0.125000
G01 X115.800012 Y198.843195 Z-0.125000
G01 X119.674751 Y198.920109 Z-0.125000
G01 X125.828713 Y199.275074 Z-0.125000
G01 X128.107964 Y199.331748 Z-0.125000
G01 X130.558161 Y199.227608 Z-0.125000
G01 X134.945714 Y198.724715 Z-0.125000
G01 X136.883070 Y198.624517 Z-0.125000
G01 X138.734966 Y198.753104 Z-0.125000
G01 X142.524218 Y199.466023 Z-0.125000
G01 X144.062715 Y199.591674 Z-0.125000
G01 X145.615447 Y199.438533 Z-0.125000
G01 X149.005840 Y198.496089 Z-0.125000
G01 X150.444616 Y198.323845 Z-0.125000
G01 X151.897653 Y198.532469 Z-0.125000
G01 X154.889161 Y199.684172 Z-0.125000
G01 X155.686905 Y199.881472 Z-0.125000
G01 X156.384928 Y199.933409 Z-0.125000
G01 X156.983229 Y199.874010 Z-0.125000
G01 X157.681252 Y199.687056 Z-0.125000
G01 X160.573039 Y198.259578 Z-0.125000
G01 X161.271061 Y198.027671 Z-0.125000
G01 X161.969084 Y197.940411 Z-0.125000
G01 X162.667107 Y198.018675 Z-0.125000
G01 X163.365130 Y198.257223 Z-0.125000
G01 X166.057474 Y199.897082 Z-0.125000
G01 X166.655802 Y200.171190 Z-0.125000
G01 X167.254103 Y200.327162 Z-0.125000
G01 X167.852405 Y200.348249 Z-0.125000
G01 X168.550428 Y200.192806 Z-0.125000
G01 X169.248424 Y199.858876 Z-0.125000
G01 X170.046168 Y199.318571 Z-0.125000
G00 Z3.000000

(End cutting path id: polyline3608)


(Start cutting path id: polyline3610)
(Change tool to Default tool)

G00 Z3.000000
G00 X13.689601 Y198.176261

G00 Z4.875000 (Fast pre-penetrate)
G01 Z-0.125000 F400.0(Penetrate)
G01 X17.108463 Y198.315405 Z-0.125000 F800.000000
G01 X20.755263 Y198.332338 Z-0.125000
G01 X35.000571 Y197.959276 Z-0.125000
G01 X44.459466 Y197.854977 Z-0.125000
G01 X91.184110 Y198.138928 Z-0.125000
G01 X102.580361 Y198.088710 Z-0.125000
G01 X116.483774 Y197.851062 Z-0.125000
G01 X120.244557 Y197.927976 Z-0.125000
G01 X126.284563 Y198.281512 Z-0.125000
G01 X128.563814 Y198.339614 Z-0.125000
G01 X130.957020 Y198.237776 Z-0.125000
G01 X135.444295 Y197.721204 Z-0.125000
G01 X137.224965 Y197.632066 Z-0.125000
G01 X139.133852 Y197.767586 Z-0.125000
G01 X142.823382 Y198.471377 Z-0.125000
G01 X144.404610 Y198.599646 Z-0.125000
G01 X146.014333 Y198.425233 Z-0.125000
G01 X149.205283 Y197.520227 Z-0.125000
G01 X150.672554 Y197.331235 Z-0.125000
G01 X152.097069 Y197.526577 Z-0.125000
G01 X155.188298 Y198.712094 Z-0.125000
G01 X155.886321 Y198.883517 Z-0.125000
G01 X156.584344 Y198.941249 Z-0.125000
G01 X157.282367 Y198.867775 Z-0.125000
G01 X157.880668 Y198.700558 Z-0.125000
G01 X160.872203 Y197.226381 Z-0.125000
G01 X161.570199 Y197.013815 Z-0.125000
G01 X162.168527 Y196.948543 Z-0.125000
G01 X162.866523 Y197.028288 Z-0.125000
G01 X163.664268 Y197.317239 Z-0.125000
G01 X166.157195 Y198.866161 Z-0.125000
G01 X166.755497 Y199.154689 Z-0.125000
G01 X167.353798 Y199.325371 Z-0.125000
G01 X167.952126 Y199.359899 Z-0.125000
G01 X168.650123 Y199.218929 Z-0.125000
G01 X169.337086 Y198.902541 Z-0.125000
G01 X170.046168 Y198.433171 Z-0.125000
G00 Z3.000000

(End cutting path id: polyline3610)


(Start cutting path id: polyline3612)
(Change tool to Default tool)

G00 Z3.000000
G00 X13.689601 Y197.131899

G00 Z4.875000 (Fast pre-penetrate)
G01 Z-0.125000 F400.0(Penetrate)
G01 X17.450357 Y197.309540 Z-0.125000 F800.000000
G01 X21.325069 Y197.343565 Z-0.125000
G01 X36.937953 Y196.947828 Z-0.125000
G01 X47.764372 Y196.858770 Z-0.125000
G01 X79.104070 Y197.121024 Z-0.125000
G01 X96.198460 Y197.148012 Z-0.125000
G01 X104.289805 Y197.089195 Z-0.125000
G01 X117.053607 Y196.858875 Z-0.125000
G01 X120.700407 Y196.932985 Z-0.125000
G01 X126.740413 Y197.289855 Z-0.125000
G01 X129.019664 Y197.347243 Z-0.125000
G01 X131.355905 Y197.245458 Z-0.125000
G01 X135.743459 Y196.734627 Z-0.125000
G01 X137.566859 Y196.640065 Z-0.125000
G01 X139.432989 Y196.771960 Z-0.125000
G01 X143.022798 Y197.462707 Z-0.125000
G01 X144.632521 Y197.607407 Z-0.125000
G01 X146.213749 Y197.449160 Z-0.125000
G01 X149.504420 Y196.519124 Z-0.125000
G01 X150.900466 Y196.338970 Z-0.125000
G01 X151.698210 Y196.397654 Z-0.125000
G01 X152.396233 Y196.551112 Z-0.125000
G01 X155.387741 Y197.714219 Z-0.125000
G01 X156.185485 Y197.905248 Z-0.125000
G01 X156.826517 Y197.948137 Z-0.125000
G01 X157.481810 Y197.877388 Z-0.125000
G01 X158.179832 Y197.676172 Z-0.125000
G01 X161.071619 Y196.228850 Z-0.125000
G01 X161.769642 Y196.017951 Z-0.125000
G01 X162.367943 Y195.956965 Z-0.125000
G01 X163.065966 Y196.041235 Z-0.125000
G01 X163.752903 Y196.284069 Z-0.125000
G01 X166.412041 Y197.925939 Z-0.125000
G01 X167.453519 Y198.323554 Z-0.125000
G01 X168.051821 Y198.370200 Z-0.125000
G01 X168.650123 Y198.272675 Z-0.125000
G01 X169.337086 Y197.989412 Z-0.125000
G01 X170.046168 Y197.541473 Z-0.125000
G00 Z3.000000

(End cutting path id: polyline3612)


(Start cutting path id: polyline3614)
(Change tool to Default tool)

G00 Z3.000000
G00 X13.689601 Y196.082245

G00 Z4.875000 (Fast pre-penetrate)
G01 Z-0.125000 F400.0(Penetrate)
G01 X17.678269 Y196.296557 Z-0.125000 F800.000000
G01 X21.553008 Y196.355109 Z-0.125000
G01 X37.051909 Y195.971464 Z-0.125000
G01 X44.801360 Y195.874680 Z-0.125000
G01 X91.639960 Y196.166964 Z-0.125000
G01 X103.606017 Y196.118149 Z-0.125000
G01 X117.737368 Y195.867033 Z-0.125000
G01 X121.270213 Y195.944582 Z-0.125000
G01 X127.082308 Y196.294017 Z-0.125000
G01 X129.361558 Y196.355295 Z-0.125000
G01 X131.754764 Y196.250758 Z-0.125000
G01 X136.142317 Y195.735959 Z-0.125000
G01 X137.908753 Y195.647826 Z-0.125000
G01 X139.732153 Y195.778848 Z-0.125000
G01 X143.421684 Y196.490100 Z-0.125000
G01 X144.974416 Y196.614930 Z-0.125000
G01 X146.512913 Y196.448587 Z-0.125000
G01 X149.803584 Y195.512545 Z-0.125000
G01 X151.242360 Y195.347895 Z-0.125000
G01 X151.997348 Y195.417163 Z-0.125000
G01 X152.795092 Y195.610282 Z-0.125000
G01 X155.786626 Y196.778627 Z-0.125000
G01 X156.384928 Y196.912824 Z-0.125000
G01 X157.054455 Y196.955792 Z-0.125000
G01 X158.279554 Y196.718408 Z-0.125000
G01 X161.171340 Y195.269234 Z-0.125000
G01 X161.869363 Y195.041666 Z-0.125000
G01 X162.567386 Y194.964646 Z-0.125000
G01 X163.265409 Y195.057356 Z-0.125000
G01 X163.963432 Y195.313287 Z-0.125000
G01 X166.500677 Y196.899568 Z-0.125000
G01 X167.553241 Y197.321763 Z-0.125000
G01 X168.151542 Y197.379681 Z-0.125000
G01 X168.749844 Y197.291363 Z-0.125000
G01 X169.337086 Y197.067578 Z-0.125000
G01 X170.046168 Y196.643187 Z-0.125000
G00 Z3.000000

(End cutting path id: polyline3614)


(Start cutting path id: polyline3616)
(Change tool to Default tool)

G00 Z3.000000
G00 X13.689601 Y195.028702

G00 Z4.875000 (Fast pre-penetrate)
G01 Z-0.125000 F400.0(Penetrate)
G01 X18.134119 Y195.287887 Z-0.125000 F800.000000
G01 X22.350752 Y195.363188 Z-0.125000
G01 X38.077565 Y194.977188 Z-0.125000
G01 X45.599104 Y194.881938 Z-0.125000
G01 X55.285911 Y194.903554 Z-0.125000
G01 X77.736520 Y195.142525 Z-0.125000
G01 X91.867871 Y195.178615 Z-0.125000
G01 X104.061867 Y195.131016 Z-0.125000
G01 X118.193218 Y194.874794 Z-0.125000
G01 X121.726063 Y194.953349 Z-0.125000
G01 X127.538158 Y195.305958 Z-0.125000
G01 X129.703452 Y195.363108 Z-0.125000
G01 X132.053928 Y195.261852 Z-0.125000
G01 X136.341760 Y194.754091 Z-0.125000
G01 X138.136665 Y194.655481 Z-0.125000
G01 X139.931569 Y194.775364 Z-0.125000
G01 X143.621126 Y195.488362 Z-0.125000
G01 X145.202354 Y195.623167 Z-0.125000
G01 X146.712355 Y195.465105 Z-0.125000
G01 X150.003027 Y194.526100 Z-0.125000
G01 X151.470272 Y194.355523 Z-0.125000
G01 X152.795092 Y194.555786 Z-0.125000
G01 X155.786626 Y195.726301 Z-0.125000
G01 X156.484623 Y195.904763 Z-0.125000
G01 X157.182646 Y195.965088 Z-0.125000
G01 X157.780947 Y195.908626 Z-0.125000
G01 X158.478970 Y195.719793 Z-0.125000
G01 X161.370783 Y194.267391 Z-0.125000
G01 X162.068806 Y194.042680 Z-0.125000
G01 X162.766829 Y193.972222 Z-0.125000
G01 X163.464851 Y194.075277 Z-0.125000
G01 X164.162848 Y194.342479 Z-0.125000
G01 X166.589312 Y195.876055 Z-0.125000
G01 X167.652962 Y196.319814 Z-0.125000
G01 X168.251264 Y196.388553 Z-0.125000
G01 X168.849565 Y196.307961 Z-0.125000
G01 X169.425721 Y196.096241 Z-0.125000
G01 X170.046168 Y195.738102 Z-0.125000
G00 Z3.000000

(End cutting path id: polyline3616)


(Start cutting path id: polyline3618)
(Change tool to Default tool)

G00 Z3.000000
G00 X13.689601 Y193.972963

G00 Z4.875000 (Fast pre-penetrate)
G01 Z-0.125000 F400.0(Penetrate)
G01 X18.703951 Y194.281705 Z-0.125000 F800.000000
G01 X23.262452 Y194.371081 Z-0.125000
G01 X39.103221 Y193.982699 Z-0.125000
G01 X46.396822 Y193.889169 Z-0.125000
G01 X55.513823 Y193.911209 Z-0.125000
G01 X77.280670 Y194.152720 Z-0.125000
G01 X91.981854 Y194.189074 Z-0.125000
G01 X104.517717 Y194.142349 Z-0.125000
G01 X118.649068 Y193.882714 Z-0.125000
G01 X122.067957 Y193.959152 Z-0.125000
G01 X127.766069 Y194.307846 Z-0.125000
G01 X130.045320 Y194.370949 Z-0.125000
G01 X132.353066 Y194.270486 Z-0.125000
G01 X136.640898 Y193.760529 Z-0.125000
G01 X138.478559 Y193.663639 Z-0.125000
G01 X140.230733 Y193.788522 Z-0.125000
G01 X143.820543 Y194.488556 Z-0.125000
G01 X145.430266 Y194.630769 Z-0.125000
G01 X147.011493 Y194.458631 Z-0.125000
G01 X150.102722 Y193.561113 Z-0.125000
G01 X151.584254 Y193.362279 Z-0.125000
G01 X152.994535 Y193.564526 Z-0.125000
G01 X155.986042 Y194.738613 Z-0.125000
G01 X156.684065 Y194.914561 Z-0.125000
G01 X157.382088 Y194.972346 Z-0.125000
G01 X158.080111 Y194.893500 Z-0.125000
G01 X158.678413 Y194.717896 Z-0.125000
G01 X161.570199 Y193.259832 Z-0.125000
G01 X162.268222 Y193.043086 Z-0.125000
G01 X162.866523 Y192.979348 Z-0.125000
G01 X163.564546 Y193.068750 Z-0.125000
G01 X164.262569 Y193.326401 Z-0.125000
G01 X166.766583 Y194.906094 Z-0.125000
G01 X167.752683 Y195.318314 Z-0.125000
G01 X168.350985 Y195.396896 Z-0.125000
G01 X168.849565 Y195.345672 Z-0.125000
G01 X169.447867 Y195.151759 Z-0.125000
G01 X170.046168 Y194.826137 Z-0.125000
G00 Z3.000000

(End cutting path id: polyline3618)


(Start cutting path id: polyline3620)
(Change tool to Default tool)

G00 Z3.000000
G00 X13.689601 Y192.917065

G00 Z4.875000 (Fast pre-penetrate)
G01 Z-0.125000 F400.0(Penetrate)
G01 X19.273757 Y193.273882 Z-0.125000 F800.000000
G01 X24.174152 Y193.378921 Z-0.125000
G01 X40.242860 Y192.985671 Z-0.125000
G01 X47.194566 Y192.896454 Z-0.125000
G01 X55.855717 Y192.919367 Z-0.125000
G01 X76.938802 Y193.162439 Z-0.125000
G01 X92.209766 Y193.198634 Z-0.125000
G01 X104.859611 Y193.153496 Z-0.125000
G01 X119.104919 Y192.890845 Z-0.125000
G01 X122.409851 Y192.966833 Z-0.125000
G01 X128.107964 Y193.317485 Z-0.125000
G01 X130.273258 Y193.378842 Z-0.125000
G01 X132.652230 Y193.276766 Z-0.125000
G01 X136.940062 Y192.763977 Z-0.125000
G01 X138.706471 Y192.671214 Z-0.125000
G01 X140.529871 Y192.804379 Z-0.125000
G01 X144.119707 Y193.509069 Z-0.125000
G01 X145.658204 Y193.638371 Z-0.125000
G01 X147.210936 Y193.468218 Z-0.125000
G01 X150.401886 Y192.544797 Z-0.125000
G01 X151.797932 Y192.370463 Z-0.125000
G01 X153.193977 Y192.576097 Z-0.125000
G01 X156.185485 Y193.755899 Z-0.125000
G01 X156.883508 Y193.927560 Z-0.125000
G01 X157.481810 Y193.980054 Z-0.125000
G01 X158.080111 Y193.932720 Z-0.125000
G01 X158.778134 Y193.749073 Z-0.125000
G01 X161.769642 Y192.247247 Z-0.125000
G01 X162.467665 Y192.040687 Z-0.125000
G01 X163.065966 Y191.988511 Z-0.125000
G01 X163.763989 Y192.090137 Z-0.125000
G01 X164.462012 Y192.360541 Z-0.125000
G01 X166.766583 Y193.837311 Z-0.125000
G01 X167.852405 Y194.318349 Z-0.125000
G01 X168.450706 Y194.404498 Z-0.125000
G01 X168.949287 Y194.358116 Z-0.125000
G01 X169.447867 Y194.210347 Z-0.125000
G01 X170.046168 Y193.907293 Z-0.125000
G00 Z3.000000

(End cutting path id: polyline3620)


(Start cutting path id: polyline3622)
(Change tool to Default tool)

G00 Z3.000000
G00 X13.689601 Y191.863231

G00 Z4.875000 (Fast pre-penetrate)
G01 Z-0.125000 F400.0(Penetrate)
G01 X19.729607 Y192.258915 Z-0.125000 F800.000000
G01 X24.516020 Y192.385227 Z-0.125000
G01 X29.188503 Y192.333924 Z-0.125000
G01 X41.496454 Y191.986183 Z-0.125000
G01 X47.992311 Y191.903765 Z-0.125000
G01 X56.197612 Y191.926995 Z-0.125000
G01 X76.710864 Y192.171814 Z-0.125000
G01 X92.437704 Y192.207506 Z-0.125000
G01 X105.315461 Y192.161972 Z-0.125000
G01 X118.990963 Y191.897812 Z-0.125000
G01 X122.637763 Y191.971578 Z-0.125000
G01 X128.335902 Y192.323103 Z-0.125000
G01 X130.501170 Y192.386682 Z-0.125000
G01 X132.851646 Y192.288813 Z-0.125000
G01 X137.139504 Y191.774860 Z-0.125000
G01 X138.934409 Y191.679028 Z-0.125000
G01 X140.729314 Y191.809626 Z-0.125000
G01 X144.319123 Y192.516592 Z-0.125000
G01 X145.886116 Y192.646211 Z-0.125000
G01 X147.310657 Y192.494843 Z-0.125000
G01 X150.601329 Y191.547583 Z-0.125000
G01 X152.040105 Y191.379335 Z-0.125000
G01 X152.795092 Y191.451990 Z-0.125000
G01 X153.592836 Y191.652332 Z-0.125000
G01 X156.484623 Y192.805702 Z-0.125000
G01 X157.182646 Y192.957255 Z-0.125000
G01 X157.738217 Y192.986941 Z-0.125000
G01 X158.379249 Y192.913043 Z-0.125000
G01 X158.977577 Y192.741567 Z-0.125000
G01 X161.869363 Y191.271756 Z-0.125000
G01 X162.567386 Y191.055988 Z-0.125000
G01 X163.165687 Y190.996166 Z-0.125000
G01 X163.863710 Y191.088638 Z-0.125000
G01 X164.550647 Y191.345574 Z-0.125000
G01 X166.855218 Y192.821709 Z-0.125000
G01 X167.952126 Y193.320289 Z-0.125000
G01 X168.450706 Y193.407284 Z-0.125000
G01 X168.949287 Y193.386197 Z-0.125000
G01 X169.447867 Y193.261631 Z-0.125000
G01 X170.046168 Y192.981729 Z-0.125000
G00 Z3.000000

(End cutting path id: polyline3622)


(Start cutting path id: polyline3624)
(Change tool to Default tool)

G00 Z3.000000
G00 X13.689601 Y190.814053

G00 Z4.875000 (Fast pre-penetrate)
G01 Z-0.125000 F400.0(Penetrate)
G01 X20.641308 Y191.264347 Z-0.125000 F800.000000
G01 X25.541702 Y191.393146 Z-0.125000
G01 X48.676072 Y190.911737 Z-0.125000
G01 X56.539506 Y190.934121 Z-0.125000
G01 X76.710864 Y191.181692 Z-0.125000
G01 X92.665616 Y191.215929 Z-0.125000
G01 X105.543373 Y191.171690 Z-0.125000
G01 X119.332857 Y190.905652 Z-0.125000
G01 X122.865701 Y190.978254 Z-0.125000
G01 X128.563814 Y191.330467 Z-0.125000
G01 X130.729108 Y191.394575 Z-0.125000
G01 X133.051088 Y191.298320 Z-0.125000
G01 X137.338921 Y190.783600 Z-0.125000
G01 X139.162321 Y190.687159 Z-0.125000
G01 X140.928756 Y190.818154 Z-0.125000
G01 X144.418844 Y191.510304 Z-0.125000
G01 X146.000072 Y191.654528 Z-0.125000
G01 X147.510073 Y191.497842 Z-0.125000
G01 X150.701024 Y190.571060 Z-0.125000
G01 X152.154060 Y190.386381 Z-0.125000
G01 X153.493115 Y190.582014 Z-0.125000
G01 X156.484623 Y191.767055 Z-0.125000
G01 X157.182646 Y191.942791 Z-0.125000
G01 X157.852173 Y191.995734 Z-0.125000
G01 X158.478970 Y191.929588 Z-0.125000
G01 X159.077271 Y191.764700 Z-0.125000
G01 X161.969084 Y190.293698 Z-0.125000
G01 X162.667107 Y190.070020 Z-0.125000
G01 X163.265409 Y190.003980 Z-0.125000
G01 X163.963432 Y190.089757 Z-0.125000
G01 X164.639282 Y190.335608 Z-0.125000
G01 X167.121124 Y191.914877 Z-0.125000
G01 X168.051821 Y192.324267 Z-0.125000
G01 X168.550428 Y192.413564 Z-0.125000
G01 X169.049008 Y192.396127 Z-0.125000
G01 X170.046168 Y192.049630 Z-0.125000
G00 Z3.000000

(End cutting path id: polyline3624)


(Start cutting path id: polyline3626)
(Change tool to Default tool)

G00 Z3.000000
G00 X13.689601 Y189.772205

G00 Z4.875000 (Fast pre-penetrate)
G01 Z-0.125000 F400.0(Penetrate)
G01 X21.439052 Y190.263350 Z-0.125000 F800.000000
G01 X26.453402 Y190.400431 Z-0.125000
G01 X30.670009 Y190.362331 Z-0.125000
G01 X42.408154 Y190.021918 Z-0.125000
G01 X49.473817 Y189.919234 Z-0.125000
G01 X56.995356 Y189.941776 Z-0.125000
G01 X76.596908 Y190.189717 Z-0.125000
G01 X93.007510 Y190.224033 Z-0.125000
G01 X105.771311 Y190.180086 Z-0.125000
G01 X119.560769 Y189.913466 Z-0.125000
G01 X123.093613 Y189.986888 Z-0.125000
G01 X128.791752 Y190.339762 Z-0.125000
G01 X130.957020 Y190.402336 Z-0.125000
G01 X133.236270 Y190.306610 Z-0.125000
G01 X137.638085 Y189.779851 Z-0.125000
G01 X139.390259 Y189.695291 Z-0.125000
G01 X141.128172 Y189.829646 Z-0.125000
G01 X144.518565 Y190.506370 Z-0.125000
G01 X146.114054 Y190.662183 Z-0.125000
G01 X147.709516 Y190.497956 Z-0.125000
G01 X150.800745 Y189.591839 Z-0.125000
G01 X152.268016 Y189.393772 Z-0.125000
G01 X153.592836 Y189.577472 Z-0.125000
G01 X156.584344 Y190.761057 Z-0.125000
G01 X157.282367 Y190.943593 Z-0.125000
G01 X157.980390 Y191.004024 Z-0.125000
G01 X159.176993 Y190.783547 Z-0.125000
G01 X159.875016 Y190.486685 Z-0.125000
G01 X162.068806 Y189.313312 Z-0.125000
G01 X162.766829 Y189.082834 Z-0.125000
G01 X163.464851 Y189.011820 Z-0.125000
G01 X164.162848 Y189.119267 Z-0.125000
G01 X164.860871 Y189.395465 Z-0.125000
G01 X167.209786 Y190.910071 Z-0.125000
G01 X168.051821 Y191.299352 Z-0.125000
G01 X168.550428 Y191.410847 Z-0.125000
G01 X169.049008 Y191.416747 Z-0.125000
G01 X170.046168 Y191.111233 Z-0.125000
G00 Z3.000000

(End cutting path id: polyline3626)


(Start cutting path id: polyline3628)
(Change tool to Default tool)

G00 Z3.000000
G00 X13.689601 Y188.740516

G00 Z4.875000 (Fast pre-penetrate)
G01 Z-0.125000 F400.0(Penetrate)
G01 X22.464708 Y189.272619 Z-0.125000 F800.000000
G01 X27.479058 Y189.408218 Z-0.125000
G01 X31.695665 Y189.370568 Z-0.125000
G01 X43.433810 Y189.027510 Z-0.125000
G01 X50.271561 Y188.926809 Z-0.125000
G01 X57.565162 Y188.950093 Z-0.125000
G01 X76.710864 Y189.198324 Z-0.125000
G01 X93.121466 Y189.231979 Z-0.125000
G01 X105.885267 Y189.188482 Z-0.125000
G01 X119.674751 Y188.921253 Z-0.125000
G01 X123.321551 Y188.997532 Z-0.125000
G01 X129.019664 Y189.351095 Z-0.125000
G01 X131.071002 Y189.410123 Z-0.125000
G01 X133.449947 Y189.310005 Z-0.125000
G01 X137.737806 Y188.793116 Z-0.125000
G01 X139.504215 Y188.702681 Z-0.125000
G01 X141.327615 Y188.844101 Z-0.125000
G01 X144.817729 Y189.539398 Z-0.125000
G01 X146.341966 Y189.669653 Z-0.125000
G01 X147.809237 Y189.514766 Z-0.125000
G01 X151.000188 Y188.585630 Z-0.125000
G01 X152.495955 Y188.402353 Z-0.125000
G01 X153.792279 Y188.604415 Z-0.125000
G01 X156.783787 Y189.792207 Z-0.125000
G01 X157.481810 Y189.962890 Z-0.125000
G01 X158.080111 Y190.012049 Z-0.125000
G01 X158.778134 Y189.937331 Z-0.125000
G01 X159.376435 Y189.762865 Z-0.125000
G01 X162.168527 Y188.329672 Z-0.125000
G01 X162.866523 Y188.094722 Z-0.125000
G01 X163.564546 Y188.018919 Z-0.125000
G01 X164.262569 Y188.123403 Z-0.125000
G01 X164.960592 Y188.398437 Z-0.125000
G01 X167.298421 Y189.909153 Z-0.125000
G01 X168.151542 Y190.306848 Z-0.125000
G01 X168.650123 Y190.417814 Z-0.125000
G01 X169.148729 Y190.425169 Z-0.125000
G01 X170.046168 Y190.166883 Z-0.125000
G00 Z3.000000

(End cutting path id: polyline3628)


(Start cutting path id: polyline3630)
(Change tool to Default tool)

G00 Z3.000000
G00 X13.689601 Y187.721660

G00 Z4.875000 (Fast pre-penetrate)
G01 Z-0.125000 F400.0(Penetrate)
G01 X23.718302 Y188.291704 Z-0.125000 F800.000000
G01 X28.504714 Y188.415873 Z-0.125000
G01 X32.835303 Y188.376662 Z-0.125000
G01 X44.459466 Y188.033286 Z-0.125000
G01 X51.069305 Y187.934517 Z-0.125000
G01 X58.134968 Y187.957880 Z-0.125000
G01 X76.824820 Y188.205900 Z-0.125000
G01 X93.235422 Y188.239793 Z-0.125000
G01 X105.999223 Y188.195502 Z-0.125000
G01 X119.788707 Y187.929067 Z-0.125000
G01 X123.435507 Y188.005320 Z-0.125000
G01 X131.184958 Y188.417937 Z-0.125000
G01 X133.549669 Y188.320332 Z-0.125000
G01 X137.837527 Y187.803893 Z-0.125000
G01 X139.618171 Y187.710336 Z-0.125000
G01 X141.427336 Y187.847417 Z-0.125000
G01 X144.917451 Y188.542794 Z-0.125000
G01 X146.455922 Y188.677519 Z-0.125000
G01 X147.908958 Y188.527765 Z-0.125000
G01 X151.199630 Y187.575240 Z-0.125000
G01 X152.595676 Y187.410034 Z-0.125000
G01 X153.991695 Y187.635168 Z-0.125000
G01 X156.883508 Y188.795338 Z-0.125000
G01 X157.581531 Y188.968190 Z-0.125000
G01 X158.179832 Y189.019519 Z-0.125000
G01 X158.877855 Y188.948426 Z-0.125000
G01 X159.476157 Y188.775336 Z-0.125000
G01 X162.367943 Y187.299439 Z-0.125000
G01 X163.065966 Y187.083989 Z-0.125000
G01 X163.664268 Y187.026574 Z-0.125000
G01 X164.362290 Y187.129365 Z-0.125000
G01 X165.060313 Y187.404584 Z-0.125000
G01 X167.387056 Y188.911913 Z-0.125000
G01 X168.251264 Y189.316223 Z-0.125000
G01 X169.148729 Y189.440286 Z-0.125000
G01 X170.046168 Y189.216898 Z-0.125000
G00 Z3.000000

(End cutting path id: polyline3630)


(Start cutting path id: polyline3632)
(Change tool to Default tool)

G00 Z3.000000
G00 X13.689601 Y186.718203

G00 Z4.875000 (Fast pre-penetrate)
G01 Z-0.125000 F400.0(Penetrate)
G01 X16.880551 Y186.815172 Z-0.125000 F800.000000
G01 X25.199808 Y187.319177 Z-0.125000
G01 X30.328115 Y187.425804 Z-0.125000
G01 X34.886615 Y187.361642 Z-0.125000
G01 X46.852672 Y187.008477 Z-0.125000
G01 X53.804405 Y186.936881 Z-0.125000
G01 X76.255014 Y187.207046 Z-0.125000
G01 X91.526004 Y187.247528 Z-0.125000
G01 X105.543373 Y187.207575 Z-0.125000
G01 X120.472469 Y186.939077 Z-0.125000
G01 X123.549463 Y187.015224 Z-0.125000
G01 X129.247602 Y187.367516 Z-0.125000
G01 X131.526852 Y187.424930 Z-0.125000
G01 X133.749111 Y187.319441 Z-0.125000
G01 X137.937222 Y186.812156 Z-0.125000
G01 X139.732153 Y186.718256 Z-0.125000
G01 X141.527058 Y186.854119 Z-0.125000
G01 X145.017146 Y187.549337 Z-0.125000
G01 X146.569904 Y187.685412 Z-0.125000
G01 X148.108401 Y187.516582 Z-0.125000
G01 X151.299351 Y186.584668 Z-0.125000
G01 X152.609910 Y186.417398 Z-0.125000
G01 X153.293672 Y186.463595 Z-0.125000
G01 X154.091417 Y186.640257 Z-0.125000
G01 X156.983229 Y187.802173 Z-0.125000
G01 X157.681252 Y187.975554 Z-0.125000
G01 X158.279554 Y188.026963 Z-0.125000
G01 X158.877855 Y187.975792 Z-0.125000
G01 X159.575878 Y187.784605 Z-0.125000
G01 X162.467665 Y186.306432 Z-0.125000
G01 X163.165687 Y186.091617 Z-0.125000
G01 X163.763989 Y186.034785 Z-0.125000
G01 X164.462012 Y186.137231 Z-0.125000
G01 X165.160035 Y186.413694 Z-0.125000
G01 X167.475692 Y187.917928 Z-0.125000
G01 X168.251264 Y188.293001 Z-0.125000
G01 X169.148729 Y188.451327 Z-0.125000
G01 X170.046168 Y188.261701 Z-0.125000
G00 Z3.000000

(End cutting path id: polyline3632)


(Start cutting path id: polyline3634)
(Change tool to Default tool)

G00 Z3.000000
G00 X13.689601 Y185.732314

G00 Z4.875000 (Fast pre-penetrate)
G01 Z-0.125000 F400.0(Penetrate)
G01 X16.994507 Y185.782029 Z-0.125000 F800.000000
G01 X25.541702 Y186.294579 Z-0.125000
G01 X30.670009 Y186.431580 Z-0.125000
G01 X35.114553 Y186.389776 Z-0.125000
G01 X46.396822 Y186.048596 Z-0.125000
G01 X52.778723 Y185.949801 Z-0.125000
G01 X77.166714 Y186.218617 Z-0.125000
G01 X92.779571 Y186.255024 Z-0.125000
G01 X105.771311 Y186.210600 Z-0.125000
G01 X119.788707 Y185.944694 Z-0.125000
G01 X123.435507 Y186.017508 Z-0.125000
G01 X129.247602 Y186.372790 Z-0.125000
G01 X131.412870 Y186.433538 Z-0.125000
G01 X133.749111 Y186.332996 Z-0.125000
G01 X138.036943 Y185.817853 Z-0.125000
G01 X139.846109 Y185.726413 Z-0.125000
G01 X141.527058 Y185.849974 Z-0.125000
G01 X145.116867 Y186.558977 Z-0.125000
G01 X146.683860 Y186.693253 Z-0.125000
G01 X148.208096 Y186.522649 Z-0.125000
G01 X151.399046 Y185.590603 Z-0.125000
G01 X152.723866 Y185.425397 Z-0.125000
G01 X154.091417 Y185.620898 Z-0.125000
G01 X157.082924 Y186.812474 Z-0.125000
G01 X157.780947 Y186.984929 Z-0.125000
G01 X158.422005 Y187.034300 Z-0.125000
G01 X159.077271 Y186.963127 Z-0.125000
G01 X159.675573 Y186.790699 Z-0.125000
G01 X162.567386 Y185.309801 Z-0.125000
G01 X163.265409 Y185.097261 Z-0.125000
G01 X163.863710 Y185.043260 Z-0.125000
G01 X164.561733 Y185.147638 Z-0.125000
G01 X165.259756 Y185.425741 Z-0.125000
G01 X167.475692 Y186.873539 Z-0.125000
G01 X168.350985 Y187.306053 Z-0.125000
G01 X169.248424 Y187.459009 Z-0.125000
G01 X170.046168 Y187.301688 Z-0.125000
G00 Z3.000000

(End cutting path id: polyline3634)


(Start cutting path id: polyline3636)
(Change tool to Default tool)

G00 Z3.000000
G00 X13.689601 Y184.765527

G00 Z4.875000 (Fast pre-penetrate)
G01 Z-0.125000 F400.0(Penetrate)
G01 X17.678269 Y184.777566 Z-0.125000 F800.000000
G01 X26.681314 Y185.305303 Z-0.125000
G01 X31.695665 Y185.438918 Z-0.125000
G01 X36.254165 Y185.396849 Z-0.125000
G01 X47.422505 Y185.055563 Z-0.125000
G01 X53.690423 Y184.957403 Z-0.125000
G01 X77.508608 Y185.224473 Z-0.125000
G01 X92.551660 Y185.262255 Z-0.125000
G01 X105.657355 Y185.215848 Z-0.125000
G01 X119.674751 Y184.952508 Z-0.125000
G01 X123.435507 Y185.026882 Z-0.125000
G01 X129.247602 Y185.380127 Z-0.125000
G01 X131.412870 Y185.441405 Z-0.125000
G01 X133.749111 Y185.343694 Z-0.125000
G01 X138.036943 Y184.830879 Z-0.125000
G01 X139.846109 Y184.733857 Z-0.125000
G01 X141.626779 Y184.863079 Z-0.125000
G01 X145.116867 Y185.555069 Z-0.125000
G01 X146.683860 Y185.701304 Z-0.125000
G01 X148.208096 Y185.546021 Z-0.125000
G01 X151.399046 Y184.617149 Z-0.125000
G01 X152.837822 Y184.433396 Z-0.125000
G01 X154.191138 Y184.633686 Z-0.125000
G01 X157.182646 Y185.825897 Z-0.125000
G01 X157.880668 Y185.995997 Z-0.125000
G01 X158.535961 Y186.041690 Z-0.125000
G01 X159.176993 Y185.966999 Z-0.125000
G01 X159.775294 Y185.792797 Z-0.125000
G01 X162.567386 Y184.351905 Z-0.125000
G01 X163.265409 Y184.122379 Z-0.125000
G01 X163.863710 Y184.050756 Z-0.125000
G01 X164.561733 Y184.133756 Z-0.125000
G01 X165.348391 Y184.436174 Z-0.125000
G01 X167.564327 Y185.886063 Z-0.125000
G01 X168.350985 Y186.284445 Z-0.125000
G01 X169.248424 Y186.467114 Z-0.125000
G01 X170.046168 Y186.337256 Z-0.125000
G00 Z3.000000

(End cutting path id: polyline3636)


(Start cutting path id: polyline3638)
(Change tool to Default tool)

G00 Z3.000000
G00 X13.689601 Y183.818691

G00 Z4.875000 (Fast pre-penetrate)
G01 Z-0.125000 F400.0(Penetrate)
G01 X15.968851 Y183.743655 Z-0.125000 F800.000000
G01 X18.362057 Y183.773897 Z-0.125000
G01 X27.820952 Y184.314916 Z-0.125000
G01 X32.949259 Y184.447446 Z-0.125000
G01 X37.393804 Y184.404319 Z-0.125000
G01 X48.562117 Y184.060202 Z-0.125000
G01 X54.602123 Y183.965190 Z-0.125000
G01 X77.964458 Y184.229905 Z-0.125000
G01 X92.437704 Y184.268905 Z-0.125000
G01 X105.315461 Y184.222074 Z-0.125000
G01 X119.560769 Y183.960322 Z-0.125000
G01 X123.321551 Y184.033797 Z-0.125000
G01 X129.247602 Y184.389608 Z-0.125000
G01 X131.412870 Y184.449192 Z-0.125000
G01 X133.749111 Y184.351561 Z-0.125000
G01 X138.136665 Y183.831338 Z-0.125000
G01 X139.960065 Y183.742305 Z-0.125000
G01 X141.726474 Y183.879571 Z-0.125000
G01 X145.216588 Y184.571165 Z-0.125000
G01 X146.797816 Y184.709092 Z-0.125000
G01 X148.307817 Y184.545288 Z-0.125000
G01 X151.498768 Y183.616046 Z-0.125000
G01 X152.951805 Y183.441660 Z-0.125000
G01 X154.290859 Y183.650760 Z-0.125000
G01 X157.182646 Y184.810586 Z-0.125000
G01 X157.880668 Y184.991666 Z-0.125000
G01 X158.535961 Y185.050377 Z-0.125000
G01 X159.176993 Y184.989285 Z-0.125000
G01 X159.875016 Y184.790398 Z-0.125000
G01 X162.667107 Y183.348288 Z-0.125000
G01 X163.365130 Y183.124028 Z-0.125000
G01 X163.963432 Y183.058676 Z-0.125000
G01 X164.661454 Y183.148317 Z-0.125000
G01 X165.348391 Y183.406788 Z-0.125000
G01 X167.564327 Y184.847627 Z-0.125000
G01 X168.450706 Y185.300937 Z-0.125000
G01 X169.248424 Y185.472705 Z-0.125000
G01 X170.046168 Y185.368803 Z-0.125000
G00 Z3.000000

(End cutting path id: polyline3638)


(Start cutting path id: polyline3640)
(Change tool to Default tool)

G00 Z3.000000
G00 X13.689601 Y182.891539

G00 Z4.875000 (Fast pre-penetrate)
G01 Z-0.125000 F400.0(Penetrate)
G01 X16.310719 Y182.762052 Z-0.125000 F800.000000
G01 X19.045819 Y182.771339 Z-0.125000
G01 X29.074520 Y183.328577 Z-0.125000
G01 X34.088871 Y183.455206 Z-0.125000
G01 X38.533415 Y183.412265 Z-0.125000
G01 X49.587773 Y183.068413 Z-0.125000
G01 X55.513823 Y182.973242 Z-0.125000
G01 X78.420308 Y183.233909 Z-0.125000
G01 X92.323721 Y183.274708 Z-0.125000
G01 X104.973567 Y183.226474 Z-0.125000
G01 X119.332857 Y182.968162 Z-0.125000
G01 X123.207569 Y183.043092 Z-0.125000
G01 X131.298914 Y183.457032 Z-0.125000
G01 X133.649390 Y183.364772 Z-0.125000
G01 X138.136665 Y182.838807 Z-0.125000
G01 X139.960065 Y182.750066 Z-0.125000
G01 X141.726474 Y182.885136 Z-0.125000
G01 X145.216588 Y183.573951 Z-0.125000
G01 X146.797816 Y183.717038 Z-0.125000
G01 X148.407539 Y183.540826 Z-0.125000
G01 X151.498768 Y182.635634 Z-0.125000
G01 X152.951805 Y182.448839 Z-0.125000
G01 X154.290859 Y182.643042 Z-0.125000
G01 X157.282367 Y183.830729 Z-0.125000
G01 X157.980390 Y184.006412 Z-0.125000
G01 X158.649917 Y184.058085 Z-0.125000
G01 X159.276714 Y183.989558 Z-0.125000
G01 X159.875016 Y183.821522 Z-0.125000
G01 X162.766829 Y182.342053 Z-0.125000
G01 X163.464851 Y182.124275 Z-0.125000
G01 X164.063153 Y182.066648 Z-0.125000
G01 X164.761176 Y182.165232 Z-0.125000
G01 X165.437027 Y182.424841 Z-0.125000
G01 X167.564327 Y183.811864 Z-0.125000
G01 X168.450706 Y184.282028 Z-0.125000
G01 X169.248424 Y184.476206 Z-0.125000
G01 X170.046168 Y184.396778 Z-0.125000
G00 Z3.000000

(End cutting path id: polyline3640)


(Start cutting path id: polyline3642)
(Change tool to Default tool)

G00 Z3.000000
G00 X13.689601 Y181.982723

G00 Z4.875000 (Fast pre-penetrate)
G01 Z-0.125000 F400.0(Penetrate)
G01 X16.652613 Y181.789868 Z-0.125000 F800.000000
G01 X19.729607 Y181.770263 Z-0.125000
G01 X30.556053 Y182.350811 Z-0.125000
G01 X36.026253 Y182.464872 Z-0.125000
G01 X56.539506 Y181.980897 Z-0.125000
G01 X78.990114 Y182.237172 Z-0.125000
G01 X92.209766 Y182.279267 Z-0.125000
G01 X104.517717 Y182.230161 Z-0.125000
G01 X119.560769 Y181.976955 Z-0.125000
G01 X123.093613 Y182.054822 Z-0.125000
G01 X129.019664 Y182.403568 Z-0.125000
G01 X131.298914 Y182.464714 Z-0.125000
G01 X133.649390 Y182.366950 Z-0.125000
G01 X138.036943 Y181.853103 Z-0.125000
G01 X139.846109 Y181.757219 Z-0.125000
G01 X141.726474 Y181.894167 Z-0.125000
G01 X145.216588 Y182.580151 Z-0.125000
G01 X146.797816 Y182.724878 Z-0.125000
G01 X148.407539 Y182.553508 Z-0.125000
G01 X151.498768 Y181.651676 Z-0.125000
G01 X152.951805 Y181.456546 Z-0.125000
G01 X154.290859 Y181.639479 Z-0.125000
G01 X157.282367 Y182.822641 Z-0.125000
G01 X157.980390 Y183.005521 Z-0.125000
G01 X158.678413 Y183.066322 Z-0.125000
G01 X159.875016 Y182.848200 Z-0.125000
G01 X160.650588 Y182.512153 Z-0.125000
G01 X162.766829 Y181.373970 Z-0.125000
G01 X163.464851 Y181.144603 Z-0.125000
G01 X164.162848 Y181.074965 Z-0.125000
G01 X164.860871 Y181.184476 Z-0.125000
G01 X165.525662 Y181.446916 Z-0.125000
G01 X167.652962 Y182.834495 Z-0.125000
G01 X168.450706 Y183.263701 Z-0.125000
G01 X169.248424 Y183.478172 Z-0.125000
G01 X170.046168 Y183.421525 Z-0.125000
G00 Z3.000000

(End cutting path id: polyline3642)


(Start cutting path id: polyline3644)
(Change tool to Default tool)

G00 Z3.000000
G00 X13.689601 Y181.089543

G00 Z4.875000 (Fast pre-penetrate)
G01 Z-0.125000 F400.0(Penetrate)
G01 X17.108463 Y180.822129 Z-0.125000 F800.000000
G01 X20.527352 Y180.772864 Z-0.125000
G01 X31.809621 Y181.361720 Z-0.125000
G01 X37.279821 Y181.472633 Z-0.125000
G01 X57.565162 Y180.988843 Z-0.125000
G01 X79.673902 Y181.239536 Z-0.125000
G01 X92.095810 Y181.282054 Z-0.125000
G01 X103.947911 Y181.232894 Z-0.125000
G01 X119.104919 Y180.984425 Z-0.125000
G01 X122.865701 Y181.064540 Z-0.125000
G01 X128.905708 Y181.413975 Z-0.125000
G01 X131.184958 Y181.472448 Z-0.125000
G01 X133.549669 Y181.374261 Z-0.125000
G01 X138.036943 Y180.854858 Z-0.125000
G01 X139.846109 Y180.765244 Z-0.125000
G01 X141.626779 Y180.892720 Z-0.125000
G01 X145.216588 Y181.589843 Z-0.125000
G01 X146.797816 Y181.732692 Z-0.125000
G01 X148.407539 Y181.562380 Z-0.125000
G01 X151.598489 Y180.639832 Z-0.125000
G01 X153.065761 Y180.464836 Z-0.125000
G01 X154.390581 Y180.667428 Z-0.125000
G01 X157.282367 Y181.818099 Z-0.125000
G01 X157.980390 Y182.006138 Z-0.125000
G01 X158.678413 Y182.074321 Z-0.125000
G01 X159.276714 Y182.022754 Z-0.125000
G01 X159.974737 Y181.835588 Z-0.125000
G01 X162.766829 Y180.403030 Z-0.125000
G01 X163.464851 Y180.164164 Z-0.125000
G01 X164.162848 Y180.081879 Z-0.125000
G01 X164.860871 Y180.177632 Z-0.125000
G01 X165.558894 Y180.444569 Z-0.125000
G01 X167.741597 Y181.860406 Z-0.125000
G01 X168.550428 Y182.287231 Z-0.125000
G01 X169.248424 Y182.478975 Z-0.125000
G01 X170.046168 Y182.443468 Z-0.125000
G00 Z3.000000

(End cutting path id: polyline3644)


(Start cutting path id: polyline3646)
(Change tool to Default tool)

G00 Z3.000000
G00 X13.689601 Y180.207873

G00 Z4.875000 (Fast pre-penetrate)
G01 Z-0.125000 F400.0(Penetrate)
G01 X17.336401 Y179.875716 Z-0.125000 F800.000000
G01 X20.527352 Y179.772846 Z-0.125000
G01 X24.174152 Y179.865741 Z-0.125000
G01 X33.177171 Y180.376016 Z-0.125000
G01 X38.077565 Y180.480129 Z-0.125000
G01 X42.294172 Y180.431578 Z-0.125000
G01 X52.892705 Y180.092621 Z-0.125000
G01 X58.704774 Y179.996445 Z-0.125000
G01 X80.471620 Y180.240682 Z-0.125000
G01 X92.095810 Y180.282486 Z-0.125000
G01 X103.492061 Y180.231871 Z-0.125000
G01 X118.535113 Y179.991894 Z-0.125000
G01 X122.409851 Y180.067909 Z-0.125000
G01 X128.677770 Y180.421233 Z-0.125000
G01 X130.957020 Y180.480447 Z-0.125000
G01 X133.449947 Y180.378424 Z-0.125000
G01 X137.937222 Y179.863333 Z-0.125000
G01 X139.732153 Y179.772767 Z-0.125000
G01 X141.626779 Y179.908657 Z-0.125000
G01 X145.216588 Y180.603002 Z-0.125000
G01 X146.797816 Y180.740479 Z-0.125000
G01 X148.407539 Y180.567442 Z-0.125000
G01 X151.598489 Y179.648360 Z-0.125000
G01 X153.065761 Y179.472465 Z-0.125000
G01 X154.390581 Y179.671061 Z-0.125000
G01 X157.382088 Y180.849540 Z-0.125000
G01 X158.080111 Y181.026520 Z-0.125000
G01 X158.778134 Y181.081818 Z-0.125000
G01 X159.476157 Y180.997839 Z-0.125000
G01 X160.273901 Y180.738548 Z-0.125000
G01 X163.065966 Y179.309535 Z-0.125000
G01 X163.664268 Y179.138826 Z-0.125000
G01 X164.262569 Y179.090222 Z-0.125000
G01 X164.960592 Y179.200341 Z-0.125000
G01 X165.658615 Y179.479238 Z-0.125000
G01 X167.830233 Y180.890524 Z-0.125000
G01 X168.550428 Y181.272873 Z-0.125000
G01 X169.248424 Y181.479010 Z-0.125000
G01 X170.046168 Y181.462923 Z-0.125000
G00 Z3.000000

(End cutting path id: polyline3646)


(Start cutting path id: polyline3648)
(Change tool to Default tool)

G00 Z3.000000
G00 X13.689601 Y179.332210

G00 Z4.875000 (Fast pre-penetrate)
G01 Z-0.125000 F400.0(Penetrate)
G01 X18.134119 Y178.901733 Z-0.125000 F800.000000
G01 X21.894902 Y178.780607 Z-0.125000
G01 X25.427720 Y178.878132 Z-0.125000
G01 X34.202853 Y179.375125 Z-0.125000
G01 X38.761354 Y179.485430 Z-0.125000
G01 X43.433810 Y179.442012 Z-0.125000
G01 X54.146273 Y179.098900 Z-0.125000
G01 X59.844412 Y179.004444 Z-0.125000
G01 X81.269364 Y179.239288 Z-0.125000
G01 X91.981854 Y179.279928 Z-0.125000
G01 X102.922255 Y179.229260 Z-0.125000
G01 X117.737368 Y178.999417 Z-0.125000
G01 X121.954001 Y179.074506 Z-0.125000
G01 X128.449858 Y179.431137 Z-0.125000
G01 X130.843064 Y179.487890 Z-0.125000
G01 X133.350252 Y179.379252 Z-0.125000
G01 X137.837527 Y178.868872 Z-0.125000
G01 X139.618171 Y178.780501 Z-0.125000
G01 X141.527058 Y178.914433 Z-0.125000
G01 X145.216588 Y179.619467 Z-0.125000
G01 X146.797816 Y179.748055 Z-0.125000
G01 X148.307817 Y179.588908 Z-0.125000
G01 X151.598489 Y178.653157 Z-0.125000
G01 X153.065761 Y178.480358 Z-0.125000
G01 X154.390581 Y178.678557 Z-0.125000
G01 X157.382088 Y179.852777 Z-0.125000
G01 X158.080111 Y180.031397 Z-0.125000
G01 X158.778134 Y180.089949 Z-0.125000
G01 X159.376435 Y180.030100 Z-0.125000
G01 X160.074458 Y179.835394 Z-0.125000
G01 X162.866523 Y178.408815 Z-0.125000
G01 X163.564546 Y178.174500 Z-0.125000
G01 X164.262569 Y178.097242 Z-0.125000
G01 X164.960592 Y178.197254 Z-0.125000
G01 X165.658615 Y178.466468 Z-0.125000
G01 X167.918868 Y179.924346 Z-0.125000
G01 X168.650123 Y180.301430 Z-0.125000
G01 X169.348145 Y180.493200 Z-0.125000
G01 X170.046168 Y180.480262 Z-0.125000
G00 Z3.000000

(End cutting path id: polyline3648)


(Start cutting path id: polyline3650)
(Change tool to Default tool)

G00 Z3.000000
G00 X13.689601 Y178.455805

G00 Z4.875000 (Fast pre-penetrate)
G01 Z-0.125000 F400.0(Penetrate)
G01 X18.931863 Y177.930634 Z-0.125000 F800.000000
G01 X22.920558 Y177.788315 Z-0.125000
G01 X26.567358 Y177.883512 Z-0.125000
G01 X35.456421 Y178.382198 Z-0.125000
G01 X40.014921 Y178.493005 Z-0.125000
G01 X44.687404 Y178.450566 Z-0.125000
G01 X55.399867 Y178.106582 Z-0.125000
G01 X60.984024 Y178.012893 Z-0.125000
G01 X91.981854 Y178.273719 Z-0.125000
G01 X102.124511 Y178.225935 Z-0.125000
G01 X117.053607 Y178.007204 Z-0.125000
G01 X121.384169 Y178.080097 Z-0.125000
G01 X128.221920 Y178.443396 Z-0.125000
G01 X130.615152 Y178.495413 Z-0.125000
G01 X133.051088 Y178.392728 Z-0.125000
G01 X137.638085 Y177.880707 Z-0.125000
G01 X139.504215 Y177.788421 Z-0.125000
G01 X141.427336 Y177.924019 Z-0.125000
G01 X145.116867 Y178.623683 Z-0.125000
G01 X146.683860 Y178.756001 Z-0.125000
G01 X148.307817 Y178.586377 Z-0.125000
G01 X151.498768 Y177.677640 Z-0.125000
G01 X152.951805 Y177.487775 Z-0.125000
G01 X153.692558 Y177.540956 Z-0.125000
G01 X154.390581 Y177.689864 Z-0.125000
G01 X157.382088 Y178.859823 Z-0.125000
G01 X158.080111 Y179.038231 Z-0.125000
G01 X158.778134 Y179.097868 Z-0.125000
G01 X159.376435 Y179.040004 Z-0.125000
G01 X160.074458 Y178.848446 Z-0.125000
G01 X162.866523 Y177.427344 Z-0.125000
G01 X163.564546 Y177.188770 Z-0.125000
G01 X164.262569 Y177.104791 Z-0.125000
G01 X164.960592 Y177.196549 Z-0.125000
G01 X165.658615 Y177.457427 Z-0.125000
G01 X168.007503 Y178.961370 Z-0.125000
G01 X168.650123 Y179.291332 Z-0.125000
G01 X169.348145 Y179.494558 Z-0.125000
G01 X170.046168 Y179.495881 Z-0.125000
G00 Z3.000000

(End cutting path id: polyline3650)


(Start cutting path id: polyline3652)
(Change tool to Default tool)

G00 Z3.000000
G00 X13.689601 Y177.570986

G00 Z4.875000 (Fast pre-penetrate)
G01 Z-0.125000 F400.0(Penetrate)
G01 X19.672616 Y176.967049 Z-0.125000 F800.000000
G01 X23.718302 Y176.797319 Z-0.125000
G01 X27.593014 Y176.882330 Z-0.125000
G01 X36.937953 Y177.397102 Z-0.125000
G01 X41.382472 Y177.501084 Z-0.125000
G01 X46.054955 Y177.457401 Z-0.125000
G01 X56.653462 Y177.115851 Z-0.125000
G01 X62.237618 Y177.021156 Z-0.125000
G01 X91.981854 Y177.263197 Z-0.125000
G01 X101.440722 Y177.217821 Z-0.125000
G01 X116.255862 Y177.015018 Z-0.125000
G01 X120.928319 Y177.093123 Z-0.125000
G01 X130.045320 Y177.503968 Z-0.125000
G01 X132.751951 Y177.402473 Z-0.125000
G01 X137.338921 Y176.898284 Z-0.125000
G01 X139.276303 Y176.796234 Z-0.125000
G01 X141.227894 Y176.924372 Z-0.125000
G01 X145.017146 Y177.631444 Z-0.125000
G01 X146.683860 Y177.763232 Z-0.125000
G01 X148.208096 Y177.600011 Z-0.125000
G01 X151.498768 Y176.674659 Z-0.125000
G01 X152.951805 Y176.495615 Z-0.125000
G01 X154.390581 Y176.705086 Z-0.125000
G01 X157.382088 Y177.870653 Z-0.125000
G01 X158.080111 Y178.047024 Z-0.125000
G01 X158.778134 Y178.105656 Z-0.125000
G01 X159.376435 Y178.047977 Z-0.125000
G01 X160.074458 Y177.857794 Z-0.125000
G01 X162.866523 Y176.442381 Z-0.125000
G01 X163.564546 Y176.201320 Z-0.125000
G01 X164.262569 Y176.112605 Z-0.125000
G01 X164.960592 Y176.197986 Z-0.125000
G01 X165.658615 Y176.451933 Z-0.125000
G01 X168.007503 Y177.947382 Z-0.125000
G01 X168.749844 Y178.324175 Z-0.125000
G01 X169.348145 Y178.495836 Z-0.125000
G01 X170.046168 Y178.509700 Z-0.125000
G00 Z3.000000

(End cutting path id: polyline3652)


(Start cutting path id: polyline3654)
(Change tool to Default tool)

G00 Z3.000000
G00 X13.689601 Y176.669499

G00 Z4.875000 (Fast pre-penetrate)
G01 Z-0.125000 F400.0(Penetrate)
G01 X20.769498 Y175.979123 Z-0.125000 F800.000000
G01 X24.857914 Y175.805583 Z-0.125000
G01 X28.276803 Y175.866252 Z-0.125000
G01 X37.507759 Y176.372161 Z-0.125000
G01 X42.750022 Y176.508924 Z-0.125000
G01 X47.422505 Y176.465241 Z-0.125000
G01 X58.021012 Y176.123903 Z-0.125000
G01 X63.605168 Y176.029288 Z-0.125000
G01 X91.867871 Y176.247966 Z-0.125000
G01 X115.344162 Y176.022832 Z-0.125000
G01 X120.244557 Y176.101625 Z-0.125000
G01 X129.703452 Y176.511702 Z-0.125000
G01 X132.438552 Y176.409361 Z-0.125000
G01 X137.139504 Y175.902791 Z-0.125000
G01 X139.048365 Y175.804048 Z-0.125000
G01 X141.028478 Y175.928773 Z-0.125000
G01 X144.917451 Y176.642829 Z-0.125000
G01 X146.569904 Y176.771020 Z-0.125000
G01 X148.108401 Y176.609598 Z-0.125000
G01 X151.498768 Y175.668291 Z-0.125000
G01 X152.951805 Y175.503905 Z-0.125000
G01 X154.290859 Y175.696416 Z-0.125000
G01 X157.282367 Y176.853808 Z-0.125000
G01 X158.080111 Y177.057748 Z-0.125000
G01 X158.778134 Y177.113311 Z-0.125000
G01 X159.376435 Y177.054097 Z-0.125000
G01 X160.074458 Y176.863571 Z-0.125000
G01 X162.966245 Y175.412995 Z-0.125000
G01 X163.664268 Y175.189475 Z-0.125000
G01 X164.362290 Y175.120895 Z-0.125000
G01 X165.060313 Y175.226860 Z-0.125000
G01 X165.758336 Y175.498111 Z-0.125000
G01 X168.096139 Y176.990385 Z-0.125000
G01 X168.749844 Y177.318363 Z-0.125000
G01 X169.348145 Y177.497274 Z-0.125000
G01 X170.046168 Y177.522356 Z-0.125000
G00 Z3.000000

(End cutting path id: polyline3654)


(Start cutting path id: polyline3656)
(Change tool to Default tool)

G00 Z3.000000
G00 X13.689601 Y175.743141

G00 Z4.875000 (Fast pre-penetrate)
G01 Z-0.125000 F400.0(Penetrate)
G01 X22.008858 Y174.982703 Z-0.125000 F800.000000
G01 X26.111508 Y174.813291 Z-0.125000
G01 X29.644353 Y174.877320 Z-0.125000
G01 X38.989265 Y175.384340 Z-0.125000
G01 X44.117572 Y175.516473 Z-0.125000
G01 X48.790055 Y175.474193 Z-0.125000
G01 X59.388562 Y175.134071 Z-0.125000
G01 X64.972718 Y175.038186 Z-0.125000
G01 X91.867871 Y175.227839 Z-0.125000
G01 X114.204524 Y175.030646 Z-0.125000
G01 X119.446813 Y175.110259 Z-0.125000
G01 X129.247602 Y175.519569 Z-0.125000
G01 X132.053928 Y175.417651 Z-0.125000
G01 X136.940062 Y174.904148 Z-0.125000
G01 X138.820453 Y174.811703 Z-0.125000
G01 X140.829035 Y174.937116 Z-0.125000
G01 X144.817729 Y175.657866 Z-0.125000
G01 X146.455922 Y175.778569 Z-0.125000
G01 X148.008680 Y175.615083 Z-0.125000
G01 X151.399046 Y174.680920 Z-0.125000
G01 X152.837822 Y174.511375 Z-0.125000
G01 X154.290859 Y174.719390 Z-0.125000
G01 X157.282367 Y175.872707 Z-0.125000
G01 X158.080111 Y176.070272 Z-0.125000
G01 X158.778134 Y176.120701 Z-0.125000
G01 X159.476157 Y176.038522 Z-0.125000
G01 X160.273901 Y175.788570 Z-0.125000
G01 X163.165687 Y174.344503 Z-0.125000
G01 X163.763989 Y174.179059 Z-0.125000
G01 X164.362290 Y174.128497 Z-0.125000
G01 X165.060313 Y174.231473 Z-0.125000
G01 X165.758336 Y174.498463 Z-0.125000
G01 X168.096139 Y175.982695 Z-0.125000
G01 X168.749844 Y176.314191 Z-0.125000
G01 X169.348145 Y176.499055 Z-0.125000
G01 X170.046168 Y176.533900 Z-0.125000
G00 Z3.000000

(End cutting path id: polyline3656)


(Start cutting path id: polyline3658)
(Change tool to Default tool)

G00 Z3.000000
G00 X13.689601 Y174.784398

G00 Z4.875000 (Fast pre-penetrate)
G01 Z-0.125000 F400.0(Penetrate)
G01 X16.481666 Y174.640915 Z-0.125000 F800.000000
G01 X23.490364 Y173.971467 Z-0.125000
G01 X27.365102 Y173.821237 Z-0.125000
G01 X30.897920 Y173.882382 Z-0.125000
G01 X40.356816 Y174.389482 Z-0.125000
G01 X45.485122 Y174.523652 Z-0.125000
G01 X50.271561 Y174.481795 Z-0.125000
G01 X60.870068 Y174.143578 Z-0.125000
G01 X66.568207 Y174.046423 Z-0.125000
G01 X91.867871 Y174.203215 Z-0.125000
G01 X112.950956 Y174.038459 Z-0.125000
G01 X118.535113 Y174.119528 Z-0.125000
G01 X128.677770 Y174.527356 Z-0.125000
G01 X131.640808 Y174.423745 Z-0.125000
G01 X136.541203 Y173.919423 Z-0.125000
G01 X138.592515 Y173.819623 Z-0.125000
G01 X140.629592 Y173.949639 Z-0.125000
G01 X144.518565 Y174.647556 Z-0.125000
G01 X146.228010 Y174.787071 Z-0.125000
G01 X147.908958 Y174.616335 Z-0.125000
G01 X151.299351 Y173.689633 Z-0.125000
G01 X152.723866 Y173.519083 Z-0.125000
G01 X154.191138 Y173.719134 Z-0.125000
G01 X157.282367 Y174.895179 Z-0.125000
G01 X157.980390 Y175.068560 Z-0.125000
G01 X158.678413 Y175.129044 Z-0.125000
G01 X159.276714 Y175.078138 Z-0.125000
G01 X159.974737 Y174.899889 Z-0.125000
G01 X162.966245 Y173.425870 Z-0.125000
G01 X163.664268 Y173.205393 Z-0.125000
G01 X164.362290 Y173.136311 Z-0.125000
G01 X165.060313 Y173.237964 Z-0.125000
G01 X165.758336 Y173.502017 Z-0.125000
G01 X168.096139 Y174.977967 Z-0.125000
G01 X168.749844 Y175.311792 Z-0.125000
G01 X169.348145 Y175.501365 Z-0.125000
G01 X170.046168 Y175.544598 Z-0.125000
G00 Z3.000000

(End cutting path id: polyline3658)


(Start cutting path id: polyline3660)
(Change tool to Default tool)

G00 Z3.000000
G00 X13.689601 Y173.787317

G00 Z4.875000 (Fast pre-penetrate)
G01 Z-0.125000 F400.0(Penetrate)
G01 X16.766569 Y173.712943 Z-0.125000 F800.000000
G01 X24.402064 Y173.003860 Z-0.125000
G01 X28.618670 Y172.829527 Z-0.125000
G01 X32.265471 Y172.890169 Z-0.125000
G01 X41.838322 Y173.397428 Z-0.125000
G01 X47.080611 Y173.532074 Z-0.125000
G01 X51.753067 Y173.490825 Z-0.125000
G01 X62.465556 Y173.152874 Z-0.125000
G01 X68.163669 Y173.055798 Z-0.125000
G01 X91.867871 Y173.175099 Z-0.125000
G01 X111.355468 Y173.046273 Z-0.125000
G01 X117.395474 Y173.126680 Z-0.125000
G01 X128.107964 Y173.535170 Z-0.125000
G01 X131.184958 Y173.428463 Z-0.125000
G01 X136.242039 Y172.921734 Z-0.125000
G01 X138.250621 Y172.827463 Z-0.125000
G01 X140.330455 Y172.954436 Z-0.125000
G01 X144.418844 Y173.671139 Z-0.125000
G01 X146.114054 Y173.794567 Z-0.125000
G01 X147.809237 Y173.613010 Z-0.125000
G01 X151.099909 Y172.716603 Z-0.125000
G01 X152.609910 Y172.526738 Z-0.125000
G01 X154.091417 Y172.723641 Z-0.125000
G01 X157.182646 Y173.890690 Z-0.125000
G01 X157.980390 Y174.085105 Z-0.125000
G01 X158.649917 Y174.136673 Z-0.125000
G01 X159.276714 Y174.078808 Z-0.125000
G01 X159.974737 Y173.894976 Z-0.125000
G01 X162.866523 Y172.467048 Z-0.125000
G01 X163.664268 Y172.210879 Z-0.125000
G01 X164.362290 Y172.144257 Z-0.125000
G01 X165.060313 Y172.246306 Z-0.125000
G01 X165.858058 Y172.557853 Z-0.125000
G01 X168.096139 Y173.976203 Z-0.125000
G01 X168.749844 Y174.311218 Z-0.125000
G01 X169.447867 Y174.523096 Z-0.125000
G01 X170.046168 Y174.554581 Z-0.125000
G00 Z3.000000

(End cutting path id: polyline3660)


(Start cutting path id: polyline3662)
(Change tool to Default tool)

G00 Z3.000000
G00 X13.689601 Y172.748300

G00 Z4.875000 (Fast pre-penetrate)
G01 Z-0.125000 F400.0(Penetrate)
G01 X15.513001 Y172.802936 Z-0.125000 F800.000000
G01 X17.564313 Y172.743484 Z-0.125000
G01 X25.655658 Y172.014214 Z-0.125000
G01 X29.986220 Y171.837261 Z-0.125000
G01 X33.747003 Y171.900470 Z-0.125000
G01 X43.319854 Y172.402992 Z-0.125000
G01 X48.562117 Y172.539226 Z-0.125000
G01 X53.348555 Y172.498904 Z-0.125000
G01 X64.061018 Y172.165476 Z-0.125000
G01 X69.873113 Y172.065861 Z-0.125000
G01 X91.981854 Y172.145421 Z-0.125000
G01 X109.532067 Y172.054087 Z-0.125000
G01 X116.141906 Y172.136002 Z-0.125000
G01 X127.424202 Y172.542983 Z-0.125000
G01 X130.615152 Y172.436224 Z-0.125000
G01 X135.857414 Y171.927537 Z-0.125000
G01 X137.908753 Y171.835171 Z-0.125000
G01 X140.031291 Y171.963652 Z-0.125000
G01 X144.219428 Y172.683556 Z-0.125000
G01 X145.886116 Y172.802566 Z-0.125000
G01 X147.609794 Y172.624263 Z-0.125000
G01 X150.900466 Y171.738254 Z-0.125000
G01 X152.495955 Y171.534261 Z-0.125000
G01 X153.991695 Y171.732592 Z-0.125000
G01 X157.182646 Y172.920676 Z-0.125000
G01 X157.980390 Y173.102629 Z-0.125000
G01 X158.649917 Y173.143560 Z-0.125000
G01 X159.276714 Y173.077018 Z-0.125000
G01 X159.974737 Y172.886200 Z-0.125000
G01 X162.866523 Y171.464622 Z-0.125000
G01 X163.564546 Y171.235970 Z-0.125000
G01 X164.262569 Y171.151647 Z-0.125000
G01 X164.960592 Y171.231684 Z-0.125000
G01 X165.758336 Y171.518465 Z-0.125000
G01 X168.749844 Y173.312523 Z-0.125000
G01 X169.447867 Y173.527444 Z-0.125000
G01 X170.046168 Y173.564009 Z-0.125000
G00 Z3.000000

(End cutting path id: polyline3662)


(Start cutting path id: polyline3664)
(Change tool to Default tool)

G00 Z3.000000
G00 X13.689601 Y171.666790

G00 Z4.875000 (Fast pre-penetrate)
G01 Z-0.125000 F400.0(Penetrate)
G01 X15.968851 Y171.802283 Z-0.125000 F800.000000
G01 X18.362057 Y171.771697 Z-0.125000
G01 X27.023208 Y171.019250 Z-0.125000
G01 X31.467753 Y170.844519 Z-0.125000
G01 X35.342465 Y170.913073 Z-0.125000
G01 X44.915316 Y171.410833 Z-0.125000
G01 X50.157605 Y171.546723 Z-0.125000
G01 X55.057973 Y171.506294 Z-0.125000
G01 X65.770463 Y171.178979 Z-0.125000
G01 X71.696513 Y171.077061 Z-0.125000
G01 X107.252817 Y171.061901 Z-0.125000
G01 X114.546418 Y171.142307 Z-0.125000
G01 X126.626458 Y171.550824 Z-0.125000
G01 X129.931364 Y171.446234 Z-0.125000
G01 X135.444295 Y170.931064 Z-0.125000
G01 X137.452903 Y170.843090 Z-0.125000
G01 X139.732153 Y170.977790 Z-0.125000
G01 X143.920264 Y171.686078 Z-0.125000
G01 X145.658204 Y171.810141 Z-0.125000
G01 X147.310657 Y171.649725 Z-0.125000
G01 X150.800745 Y170.732601 Z-0.125000
G01 X152.381972 Y170.541995 Z-0.125000
G01 X153.891974 Y170.745592 Z-0.125000
G01 X157.082924 Y171.923859 Z-0.125000
G01 X157.880668 Y172.106951 Z-0.125000
G01 X158.535961 Y172.151877 Z-0.125000
G01 X159.176993 Y172.091525 Z-0.125000
G01 X159.875016 Y171.909042 Z-0.125000
G01 X162.866523 Y170.459075 Z-0.125000
G01 X163.564546 Y170.237592 Z-0.125000
G01 X164.262569 Y170.159408 Z-0.125000
G01 X164.960592 Y170.243360 Z-0.125000
G01 X165.758336 Y170.531253 Z-0.125000
G01 X168.096139 Y171.981485 Z-0.125000
G01 X168.849565 Y172.357378 Z-0.125000
G01 X169.447867 Y172.532426 Z-0.125000
G01 X170.046168 Y172.572987 Z-0.125000
G00 Z3.000000

(End cutting path id: polyline3664)


(Start cutting path id: polyline3666)
(Change tool to Default tool)

G00 Z3.000000
G00 X13.689601 Y170.545990

G00 Z4.875000 (Fast pre-penetrate)
G01 Z-0.125000 F400.0(Penetrate)
G01 X16.424701 Y170.784697 Z-0.125000 F800.000000
G01 X19.159802 Y170.796630 Z-0.125000
G01 X21.666964 Y170.642933 Z-0.125000
G01 X28.732653 Y170.004309 Z-0.125000
G01 X33.405109 Y169.850825 Z-0.125000
G01 X37.621715 Y169.951287 Z-0.125000
G01 X47.308522 Y170.448174 Z-0.125000
G01 X51.867023 Y170.554457 Z-0.125000
G01 X56.767417 Y170.515828 Z-0.125000
G01 X73.633869 Y170.090246 Z-0.125000
G01 X104.289805 Y170.069714 Z-0.125000
G01 X112.609062 Y170.147661 Z-0.125000
G01 X122.865701 Y170.510589 Z-0.125000
G01 X126.056652 Y170.557553 Z-0.125000
G01 X129.361558 Y170.443173 Z-0.125000
G01 X134.845993 Y169.944620 Z-0.125000
G01 X137.111009 Y169.851010 Z-0.125000
G01 X139.333268 Y169.985339 Z-0.125000
G01 X143.521405 Y170.680398 Z-0.125000
G01 X145.316310 Y170.818564 Z-0.125000
G01 X147.111214 Y170.651691 Z-0.125000
G01 X150.701024 Y169.723534 Z-0.125000
G01 X152.268016 Y169.550206 Z-0.125000
G01 X153.792279 Y169.762825 Z-0.125000
G01 X156.983229 Y170.930853 Z-0.125000
G01 X157.780947 Y171.112939 Z-0.125000
G01 X158.422005 Y171.159796 Z-0.125000
G01 X159.077271 Y171.103678 Z-0.125000
G01 X159.775294 Y170.927254 Z-0.125000
G01 X160.573039 Y170.600177 Z-0.125000
G01 X162.766829 Y169.489510 Z-0.125000
G01 X163.564546 Y169.237839 Z-0.125000
G01 X164.262569 Y169.167381 Z-0.125000
G01 X164.960592 Y169.256757 Z-0.125000
G01 X165.758336 Y169.547057 Z-0.125000
G01 X168.749844 Y171.320874 Z-0.125000
G01 X169.447867 Y171.538097 Z-0.125000
G01 X170.046168 Y171.581647 Z-0.125000
G00 Z3.000000

(End cutting path id: polyline3666)


(Start cutting path id: polyline3668)
(Change tool to Default tool)

G00 Z3.000000
G00 X13.689601 Y169.393043

G00 Z4.875000 (Fast pre-penetrate)
G01 Z-0.125000 F400.0(Penetrate)
G01 X16.994507 Y169.756713 Z-0.125000 F800.000000
G01 X20.071502 Y169.814683 Z-0.125000
G01 X22.763845 Y169.667019 Z-0.125000
G01 X30.214159 Y169.008869 Z-0.125000
G01 X35.000571 Y168.858665 Z-0.125000
G01 X39.217204 Y168.958677 Z-0.125000
G01 X49.017967 Y169.454453 Z-0.125000
G01 X53.576467 Y169.561477 Z-0.125000
G01 X58.704774 Y169.522954 Z-0.125000
G01 X75.457270 Y169.108934 Z-0.125000
G01 X100.073172 Y169.077528 Z-0.125000
G01 X110.329812 Y169.154284 Z-0.125000
G01 X124.917013 Y169.565895 Z-0.125000
G01 X128.449858 Y169.455564 Z-0.125000
G01 X134.261953 Y168.951904 Z-0.125000
G01 X136.541203 Y168.858665 Z-0.125000
G01 X138.934409 Y168.998286 Z-0.125000
G01 X143.321962 Y169.706336 Z-0.125000
G01 X145.088371 Y169.826086 Z-0.125000
G01 X146.911772 Y169.648207 Z-0.125000
G01 X150.501607 Y168.732009 Z-0.125000
G01 X152.040105 Y168.558072 Z-0.125000
G01 X153.592836 Y168.758282 Z-0.125000
G01 X156.883508 Y169.941947 Z-0.125000
G01 X157.681252 Y170.120911 Z-0.125000
G01 X158.308023 Y170.167742 Z-0.125000
G01 X158.977577 Y170.113556 Z-0.125000
G01 X159.775294 Y169.907604 Z-0.125000
G01 X162.766829 Y168.477004 Z-0.125000
G01 X163.564546 Y168.236948 Z-0.125000
G01 X164.262569 Y168.175829 Z-0.125000
G01 X164.960592 Y168.271979 Z-0.125000
G01 X165.758336 Y168.565878 Z-0.125000
G01 X168.749844 Y170.327868 Z-0.125000
G01 X169.447867 Y170.544509 Z-0.125000
G01 X170.046168 Y170.590017 Z-0.125000
G00 Z3.000000

(End cutting path id: polyline3668)


(Start cutting path id: polyline3670)
(Change tool to Default tool)

G00 Z3.000000
G00 X13.689601 Y168.219168

G00 Z4.875000 (Fast pre-penetrate)
G01 Z-0.125000 F400.0(Penetrate)
G01 X17.279410 Y168.689888 Z-0.125000 F800.000000
G01 X20.299413 Y168.833979 Z-0.125000
G01 X23.604320 Y168.711610 Z-0.125000
G01 X31.809621 Y168.010015 Z-0.125000
G01 X36.254165 Y167.866876 Z-0.125000
G01 X40.128904 Y167.936673 Z-0.125000
G01 X50.157605 Y168.434697 Z-0.125000
G01 X55.513823 Y168.569449 Z-0.125000
G01 X60.756112 Y168.530662 Z-0.125000
G01 X76.482952 Y168.144238 Z-0.125000
G01 X92.209766 Y168.086056 Z-0.125000
G01 X107.138861 Y168.155271 Z-0.125000
G01 X123.663419 Y168.573947 Z-0.125000
G01 X127.424202 Y168.467109 Z-0.125000
G01 X133.692120 Y167.952627 Z-0.125000
G01 X136.085353 Y167.867061 Z-0.125000
G01 X138.435829 Y168.005861 Z-0.125000
G01 X142.823382 Y168.697719 Z-0.125000
G01 X144.746504 Y168.833794 Z-0.125000
G01 X146.512913 Y168.675097 Z-0.125000
G01 X150.302165 Y167.735563 Z-0.125000
G01 X151.926122 Y167.566389 Z-0.125000
G01 X153.493115 Y167.784458 Z-0.125000
G01 X156.684065 Y168.927774 Z-0.125000
G01 X157.481810 Y169.115866 Z-0.125000
G01 X158.179832 Y169.175821 Z-0.125000
G01 X158.877855 Y169.121078 Z-0.125000
G01 X159.675573 Y168.917641 Z-0.125000
G01 X162.766829 Y167.461984 Z-0.125000
G01 X163.564546 Y167.235263 Z-0.125000
G01 X164.234074 Y167.184119 Z-0.125000
G01 X164.960592 Y167.289238 Z-0.125000
G01 X165.758336 Y167.587794 Z-0.125000
G01 X168.749844 Y169.336661 Z-0.125000
G01 X169.447867 Y169.551608 Z-0.125000
G01 X170.046168 Y169.598201 Z-0.125000
G00 Z3.000000

(End cutting path id: polyline3670)


(Start cutting path id: polyline3672)
(Change tool to Default tool)

G00 Z3.000000
G00 X13.689601 Y167.038995

G00 Z4.875000 (Fast pre-penetrate)
G01 Z-0.125000 F400.0(Penetrate)
G01 X18.176849 Y167.663253 Z-0.125000 F800.000000
G01 X21.780919 Y167.842005 Z-0.125000
G01 X25.085852 Y167.711698 Z-0.125000
G01 X33.291153 Y167.022115 Z-0.125000
G01 X37.507759 Y166.876938 Z-0.125000
G01 X41.838322 Y166.943296 Z-0.125000
G01 X52.094961 Y167.442829 Z-0.125000
G01 X57.451206 Y167.576390 Z-0.125000
G01 X62.807424 Y167.541756 Z-0.125000
G01 X78.420308 Y167.178272 Z-0.125000
G01 X91.639960 Y167.110221 Z-0.125000
G01 X105.315461 Y167.189993 Z-0.125000
G01 X122.067957 Y167.582079 Z-0.125000
G01 X126.398519 Y167.470689 Z-0.125000
G01 X133.008358 Y166.955943 Z-0.125000
G01 X135.401564 Y166.874610 Z-0.125000
G01 X137.837527 Y167.009177 Z-0.125000
G01 X142.524218 Y167.720429 Z-0.125000
G01 X144.404610 Y167.841661 Z-0.125000
G01 X146.213749 Y167.678889 Z-0.125000
G01 X150.003027 Y166.753140 Z-0.125000
G01 X151.698210 Y166.573726 Z-0.125000
G01 X153.293672 Y166.790340 Z-0.125000
G01 X156.584344 Y167.948711 Z-0.125000
G01 X157.382088 Y168.129077 Z-0.125000
G01 X158.080111 Y168.183978 Z-0.125000
G01 X158.877855 Y168.108969 Z-0.125000
G01 X159.575878 Y167.923311 Z-0.125000
G01 X162.667107 Y166.481863 Z-0.125000
G01 X163.464851 Y166.250644 Z-0.125000
G01 X164.120118 Y166.191139 Z-0.125000
G01 X164.860871 Y166.283108 Z-0.125000
G01 X165.658615 Y166.565313 Z-0.125000
G01 X168.749844 Y168.347226 Z-0.125000
G01 X169.447867 Y168.559448 Z-0.125000
G01 X170.046168 Y168.606226 Z-0.125000
G00 Z3.000000

(End cutting path id: polyline3672)


(Start cutting path id: polyline3674)
(Change tool to Default tool)

G00 Z3.000000
G00 X13.689601 Y165.869777

G00 Z4.875000 (Fast pre-penetrate)
G01 Z-0.125000 F400.0(Penetrate)
G01 X19.074315 Y166.630691 Z-0.125000 F800.000000
G01 X22.806602 Y166.848760 Z-0.125000
G01 X26.453402 Y166.723216 Z-0.125000
G01 X35.000571 Y166.024769 Z-0.125000
G01 X39.217204 Y165.884884 Z-0.125000
G01 X43.661722 Y165.950792 Z-0.125000
G01 X54.032317 Y166.446197 Z-0.125000
G01 X59.502518 Y166.582934 Z-0.125000
G01 X65.086701 Y166.552401 Z-0.125000
G01 X80.471620 Y166.222757 Z-0.125000
G01 X91.639960 Y166.158331 Z-0.125000
G01 X103.492061 Y166.236859 Z-0.125000
G01 X120.358513 Y166.589892 Z-0.125000
G01 X125.144952 Y166.477656 Z-0.125000
G01 X132.096658 Y165.967963 Z-0.125000
G01 X134.489864 Y165.882133 Z-0.125000
G01 X137.239199 Y166.019531 Z-0.125000
G01 X142.025638 Y166.723771 Z-0.125000
G01 X143.948760 Y166.849581 Z-0.125000
G01 X145.914611 Y166.676252 Z-0.125000
G01 X149.803584 Y165.746402 Z-0.125000
G01 X151.470272 Y165.581752 Z-0.125000
G01 X153.094256 Y165.801911 Z-0.125000
G01 X156.384928 Y166.946074 Z-0.125000
G01 X157.182646 Y167.129642 Z-0.125000
G01 X157.966155 Y167.191739 Z-0.125000
G01 X158.678413 Y167.129218 Z-0.125000
G01 X159.376435 Y166.957848 Z-0.125000
G01 X162.667107 Y165.461022 Z-0.125000
G01 X163.464851 Y165.246419 Z-0.125000
G01 X164.120118 Y165.199958 Z-0.125000
G01 X164.860871 Y165.303701 Z-0.125000
G01 X165.658615 Y165.593076 Z-0.125000
G01 X168.749844 Y167.359458 Z-0.125000
G01 X169.447867 Y167.567976 Z-0.125000
G01 X170.046168 Y167.614146 Z-0.125000
G00 Z3.000000

(End cutting path id: polyline3674)


(Start cutting path id: polyline3676)
(Change tool to Default tool)

G00 Z3.000000
G00 X13.689601 Y164.729794

G00 Z4.875000 (Fast pre-penetrate)
G01 Z-0.125000 F400.0(Penetrate)
G01 X20.370639 Y165.635938 Z-0.125000 F800.000000
G01 X24.174152 Y165.856389 Z-0.125000
G01 X27.820952 Y165.738147 Z-0.125000
G01 X36.596059 Y165.038748 Z-0.125000
G01 X40.926622 Y164.893624 Z-0.125000
G01 X45.599104 Y164.958685 Z-0.125000
G01 X56.197612 Y165.453138 Z-0.125000
G01 X61.781768 Y165.589795 Z-0.125000
G01 X67.365951 Y165.567200 Z-0.125000
G01 X82.409003 Y165.283117 Z-0.125000
G01 X91.639960 Y165.230624 Z-0.125000
G01 X101.554705 Y165.295870 Z-0.125000
G01 X118.421157 Y165.597706 Z-0.125000
G01 X123.663419 Y165.485735 Z-0.125000
G01 X131.184958 Y164.972708 Z-0.125000
G01 X133.692120 Y164.889920 Z-0.125000
G01 X136.541203 Y165.027239 Z-0.125000
G01 X141.527058 Y165.732908 Z-0.125000
G01 X143.492909 Y165.857579 Z-0.125000
G01 X145.515752 Y165.684886 Z-0.125000
G01 X149.504420 Y164.754480 Z-0.125000
G01 X151.242360 Y164.590386 Z-0.125000
G01 X152.795092 Y164.793453 Z-0.125000
G01 X156.285206 Y165.975636 Z-0.125000
G01 X157.082924 Y166.147139 Z-0.125000
G01 X157.852173 Y166.198971 Z-0.125000
G01 X158.578691 Y166.129835 Z-0.125000
G01 X159.276714 Y165.956004 Z-0.125000
G01 X162.567386 Y164.474022 Z-0.125000
G01 X163.365130 Y164.258546 Z-0.125000
G01 X164.006162 Y164.206978 Z-0.125000
G01 X164.761176 Y164.301329 Z-0.125000
G01 X165.558894 Y164.577659 Z-0.125000
G01 X168.007503 Y166.013419 Z-0.125000
G01 X168.749844 Y166.373278 Z-0.125000
G01 X169.447867 Y166.577166 Z-0.125000
G01 X170.046168 Y166.621907 Z-0.125000
G00 Z3.000000

(End cutting path id: polyline3676)


(Start cutting path id: polyline3678)
(Change tool to Default tool)

G00 Z3.000000
G00 X13.689601 Y163.636564

G00 Z4.875000 (Fast pre-penetrate)
G01 Z-0.125000 F400.0(Penetrate)
G01 X15.883364 Y163.845214 Z-0.125000 F800.000000
G01 X21.766685 Y164.647483 Z-0.125000
G01 X25.541702 Y164.863541 Z-0.125000
G01 X29.302459 Y164.749294 Z-0.125000
G01 X38.419460 Y164.044763 Z-0.125000
G01 X42.864004 Y163.901332 Z-0.125000
G01 X47.650416 Y163.966446 Z-0.125000
G01 X58.476862 Y164.457856 Z-0.125000
G01 X64.174974 Y164.595360 Z-0.125000
G01 X91.639960 Y164.322998 Z-0.125000
G01 X116.027924 Y164.605520 Z-0.125000
G01 X121.954001 Y164.492490 Z-0.125000
G01 X130.045320 Y163.982797 Z-0.125000
G01 X132.780420 Y163.897734 Z-0.125000
G01 X135.843180 Y164.043175 Z-0.125000
G01 X140.928756 Y164.737520 Z-0.125000
G01 X142.923104 Y164.865420 Z-0.125000
G01 X145.017146 Y164.702251 Z-0.125000
G01 X149.105562 Y163.774253 Z-0.125000
G01 X150.900466 Y163.597194 Z-0.125000
G01 X152.595676 Y163.815157 Z-0.125000
G01 X156.085764 Y164.981069 Z-0.125000
G01 X156.883508 Y165.151513 Z-0.125000
G01 X157.624261 Y165.206890 Z-0.125000
G01 X158.379249 Y165.145269 Z-0.125000
G01 X159.077271 Y164.981492 Z-0.125000
G01 X159.974737 Y164.641186 Z-0.125000
G01 X162.467665 Y163.483450 Z-0.125000
G01 X163.265409 Y163.269085 Z-0.125000
G01 X163.963432 Y163.215321 Z-0.125000
G01 X164.761176 Y163.325626 Z-0.125000
G01 X165.558894 Y163.611296 Z-0.125000
G01 X168.007503 Y165.036605 Z-0.125000
G01 X168.749844 Y165.388553 Z-0.125000
G01 X169.447867 Y165.586938 Z-0.125000
G01 X170.046168 Y165.629588 Z-0.125000
G00 Z3.000000

(End cutting path id: polyline3678)


(Start cutting path id: polyline3680)
(Change tool to Default tool)

G00 Z3.000000
G00 X13.689601 Y162.604743

G00 Z4.875000 (Fast pre-penetrate)
G01 Z-0.125000 F400.0(Penetrate)
G01 X16.581387 Y162.783019 Z-0.125000 F800.000000
G01 X23.561590 Y163.693052 Z-0.125000
G01 X27.479058 Y163.873260 Z-0.125000
G01 X31.125859 Y163.743244 Z-0.125000
G01 X40.470772 Y163.044401 Z-0.125000
G01 X45.827016 Y162.905521 Z-0.125000
G01 X50.727411 Y163.004687 Z-0.125000
G01 X62.465556 Y163.512527 Z-0.125000
G01 X69.531219 Y163.613334 Z-0.125000
G01 X91.298065 Y163.426062 Z-0.125000
G01 X115.686056 Y163.600104 Z-0.125000
G01 X120.586451 Y163.472681 Z-0.125000
G01 X129.019664 Y162.978625 Z-0.125000
G01 X132.096658 Y162.907453 Z-0.125000
G01 X134.945714 Y163.049269 Z-0.125000
G01 X140.330455 Y163.749461 Z-0.125000
G01 X142.581209 Y163.871963 Z-0.125000
G01 X144.618287 Y163.696968 Z-0.125000
G01 X148.806398 Y162.770399 Z-0.125000
G01 X150.558572 Y162.604981 Z-0.125000
G01 X152.296512 Y162.819717 Z-0.125000
G01 X155.786626 Y163.964806 Z-0.125000
G01 X156.584344 Y164.143664 Z-0.125000
G01 X157.396323 Y164.214784 Z-0.125000
G01 X158.179832 Y164.157845 Z-0.125000
G01 X158.977577 Y163.971076 Z-0.125000
G01 X162.367943 Y162.489067 Z-0.125000
G01 X163.165687 Y162.277798 Z-0.125000
G01 X163.863710 Y162.222685 Z-0.125000
G01 X164.661454 Y162.326984 Z-0.125000
G01 X165.459172 Y162.602812 Z-0.125000
G01 X168.007503 Y164.061960 Z-0.125000
G01 X168.749844 Y164.405204 Z-0.125000
G01 X169.447867 Y164.597265 Z-0.125000
G01 X170.046168 Y164.637137 Z-0.125000
G00 Z3.000000

(End cutting path id: polyline3680)


(Start cutting path id: polyline3682)
(Change tool to Default tool)

G00 Z3.000000
G00 X13.689601 Y161.644042

G00 Z4.875000 (Fast pre-penetrate)
G01 Z-0.125000 F400.0(Penetrate)
G01 X15.285063 Y161.616049 Z-0.125000 F800.000000
G01 X16.980246 Y161.702727 Z-0.125000
G01 X24.558776 Y162.655993 Z-0.125000
G01 X28.618670 Y162.879327 Z-0.125000
G01 X32.607365 Y162.763652 Z-0.125000
G01 X42.294172 Y162.062533 Z-0.125000
G01 X46.966655 Y161.917992 Z-0.125000
G01 X52.094961 Y161.979322 Z-0.125000
G01 X63.491212 Y162.458667 Z-0.125000
G01 X69.645201 Y162.601965 Z-0.125000
G01 X91.867871 Y162.525236 Z-0.125000
G01 X109.532067 Y162.621147 Z-0.125000
G01 X117.623412 Y162.500524 Z-0.125000
G01 X127.538158 Y161.988027 Z-0.125000
G01 X130.501170 Y161.913335 Z-0.125000
G01 X133.948554 Y162.057003 Z-0.125000
G01 X139.632432 Y162.758069 Z-0.125000
G01 X141.783465 Y162.881047 Z-0.125000
G01 X144.019985 Y162.714492 Z-0.125000
G01 X148.407539 Y161.777419 Z-0.125000
G01 X150.216704 Y161.612874 Z-0.125000
G01 X151.997348 Y161.829753 Z-0.125000
G01 X155.587184 Y162.983097 Z-0.125000
G01 X156.484623 Y163.169654 Z-0.125000
G01 X157.282367 Y163.222809 Z-0.125000
G01 X158.080111 Y163.151345 Z-0.125000
G01 X158.877855 Y162.955369 Z-0.125000
G01 X162.168527 Y161.525297 Z-0.125000
G01 X162.966245 Y161.302227 Z-0.125000
G01 X163.763989 Y161.230129 Z-0.125000
G01 X164.561733 Y161.330776 Z-0.125000
G01 X165.459172 Y161.642587 Z-0.125000
G01 X168.650123 Y163.385342 Z-0.125000
G01 X169.348145 Y163.590950 Z-0.125000
G01 X170.046168 Y163.644528 Z-0.125000
G00 Z3.000000

(End cutting path id: polyline3682)


(Start cutting path id: polyline3684)
(Change tool to Default tool)

G00 Z3.000000
G00 X13.689601 Y160.757319

G00 Z4.875000 (Fast pre-penetrate)
G01 Z-0.125000 F400.0(Penetrate)
G01 X15.740913 Y160.624445 Z-0.125000 F800.000000
G01 X17.906207 Y160.679902 Z-0.125000
G01 X26.054517 Y161.662087 Z-0.125000
G01 X30.214159 Y161.886797 Z-0.125000
G01 X34.430765 Y161.768714 Z-0.125000
G01 X44.459466 Y161.069977 Z-0.125000
G01 X49.245905 Y160.926334 Z-0.125000
G01 X54.602123 Y160.986421 Z-0.125000
G01 X66.226313 Y161.450129 Z-0.125000
G01 X72.608213 Y161.597370 Z-0.125000
G01 X104.517717 Y161.628961 Z-0.125000
G01 X114.546418 Y161.509184 Z-0.125000
G01 X125.942669 Y160.991607 Z-0.125000
G01 X129.019664 Y160.921149 Z-0.125000
G01 X132.851646 Y161.067886 Z-0.125000
G01 X138.834688 Y161.764983 Z-0.125000
G01 X141.099703 Y161.888914 Z-0.125000
G01 X143.421684 Y161.723073 Z-0.125000
G01 X148.008680 Y160.778776 Z-0.125000
G01 X149.874810 Y160.621085 Z-0.125000
G01 X151.698210 Y160.846668 Z-0.125000
G01 X155.387741 Y162.005198 Z-0.125000
G01 X156.285206 Y162.182601 Z-0.125000
G01 X157.054455 Y162.230570 Z-0.125000
G01 X157.780947 Y162.173658 Z-0.125000
G01 X158.578691 Y161.995885 Z-0.125000
G01 X159.575878 Y161.629517 Z-0.125000
G01 X162.068806 Y160.521417 Z-0.125000
G01 X162.866523 Y160.306073 Z-0.125000
G01 X163.664268 Y160.237784 Z-0.125000
G01 X164.462012 Y160.337082 Z-0.125000
G01 X165.359477 Y160.641167 Z-0.125000
G01 X167.852405 Y162.036922 Z-0.125000
G01 X168.650123 Y162.405644 Z-0.125000
G01 X169.348145 Y162.603023 Z-0.125000
G01 X170.046168 Y162.651760 Z-0.125000
G00 Z3.000000

(End cutting path id: polyline3684)


(Start cutting path id: polyline3686)
(Change tool to Default tool)

G00 Z3.000000
G00 X13.689601 Y159.939387

G00 Z4.875000 (Fast pre-penetrate)
G01 Z-0.125000 F400.0(Penetrate)
G01 X16.310719 Y159.659246 Z-0.125000 F800.000000
G01 X18.817907 Y159.661099 Z-0.125000
G01 X21.168383 Y159.861520 Z-0.125000
G01 X27.849422 Y160.690115 Z-0.125000
G01 X30.100203 Y160.845028 Z-0.125000
G01 X32.379453 Y160.896754 Z-0.125000
G01 X36.482103 Y160.767267 Z-0.125000
G01 X46.510805 Y160.091310 Z-0.125000
G01 X51.639111 Y159.935471 Z-0.125000
G01 X57.337223 Y159.993494 Z-0.125000
G01 X74.659552 Y160.565179 Z-0.125000
G01 X94.261104 Y160.636801 Z-0.125000
G01 X109.760006 Y160.536948 Z-0.125000
G01 X124.233251 Y159.988943 Z-0.125000
G01 X127.880052 Y159.930682 Z-0.125000
G01 X131.640808 Y160.082712 Z-0.125000
G01 X138.036943 Y160.781131 Z-0.125000
G01 X140.415915 Y160.896569 Z-0.125000
G01 X142.823382 Y160.722844 Z-0.125000
G01 X147.510073 Y159.788839 Z-0.125000
G01 X149.418960 Y159.628661 Z-0.125000
G01 X151.299351 Y159.848370 Z-0.125000
G01 X155.088603 Y161.006741 Z-0.125000
G01 X155.986042 Y161.184276 Z-0.125000
G01 X156.826517 Y161.238066 Z-0.125000
G01 X157.581531 Y161.177926 Z-0.125000
G01 X158.379249 Y161.001661 Z-0.125000
G01 X161.969084 Y159.514229 Z-0.125000
G01 X162.766829 Y159.308462 Z-0.125000
G01 X163.564546 Y159.245968 Z-0.125000
G01 X164.362290 Y159.345821 Z-0.125000
G01 X165.259756 Y159.644245 Z-0.125000
G01 X168.550428 Y161.390069 Z-0.125000
G01 X169.248424 Y161.597661 Z-0.125000
G01 X170.046168 Y161.658859 Z-0.125000
G00 Z3.000000

(End cutting path id: polyline3686)


(Start cutting path id: polyline3688)
(Change tool to Default tool)

G00 Z3.000000
G00 X13.689601 Y159.176462

G00 Z4.875000 (Fast pre-penetrate)
G01 Z-0.125000 F400.0(Penetrate)
G01 X16.880551 Y158.720241 Z-0.125000 F800.000000
G01 X19.843563 Y158.652826 Z-0.125000
G01 X22.464708 Y158.851184 Z-0.125000
G01 X29.644353 Y159.709358 Z-0.125000
G01 X32.037559 Y159.860832 Z-0.125000
G01 X34.430765 Y159.904224 Z-0.125000
G01 X38.533415 Y159.773546 Z-0.125000
G01 X48.904011 Y159.104654 Z-0.125000
G01 X54.260255 Y158.944555 Z-0.125000
G01 X60.186306 Y158.995778 Z-0.125000
G01 X77.166714 Y159.515975 Z-0.125000
G01 X91.639960 Y159.615167 Z-0.125000
G01 X106.569055 Y159.500894 Z-0.125000
G01 X121.954001 Y158.993185 Z-0.125000
G01 X125.942669 Y158.938258 Z-0.125000
G01 X130.258997 Y159.099230 Z-0.125000
G01 X137.039783 Y159.788786 Z-0.125000
G01 X139.504215 Y159.904488 Z-0.125000
G01 X142.125359 Y159.726609 Z-0.125000
G01 X146.911772 Y158.807501 Z-0.125000
G01 X148.963110 Y158.636474 Z-0.125000
G01 X150.900466 Y158.857454 Z-0.125000
G01 X154.789439 Y160.016328 Z-0.125000
G01 X155.686905 Y160.190079 Z-0.125000
G01 X156.584344 Y160.245827 Z-0.125000
G01 X157.382088 Y160.179258 Z-0.125000
G01 X158.179832 Y160.001961 Z-0.125000
G01 X161.769642 Y158.537176 Z-0.125000
G01 X162.667107 Y158.309635 Z-0.125000
G01 X163.436356 Y158.253887 Z-0.125000
G01 X164.262569 Y158.356440 Z-0.125000
G01 X165.160035 Y158.651132 Z-0.125000
G01 X168.550428 Y160.413837 Z-0.125000
G01 X169.248424 Y160.611534 Z-0.125000
G01 X170.046168 Y160.665588 Z-0.125000
G00 Z3.000000

(End cutting path id: polyline3688)


(Start cutting path id: polyline3690)
(Change tool to Default tool)

G00 Z3.000000
G00 X13.689601 Y158.446795

G00 Z4.875000 (Fast pre-penetrate)
G01 Z-0.125000 F400.0(Penetrate)
G01 X17.179689 Y157.840212 Z-0.125000 F800.000000
G01 X20.185458 Y157.643997 Z-0.125000
G01 X23.461868 Y157.807060 Z-0.125000
G01 X31.538979 Y158.728126 Z-0.125000
G01 X36.026253 Y158.912064 Z-0.125000
G01 X40.584754 Y158.788080 Z-0.125000
G01 X51.753067 Y158.107361 Z-0.125000
G01 X57.109312 Y157.954247 Z-0.125000
G01 X63.263274 Y157.995099 Z-0.125000
G01 X80.015770 Y158.443197 Z-0.125000
G01 X91.526004 Y158.531647 Z-0.125000
G01 X103.719973 Y158.429227 Z-0.125000
G01 X118.990963 Y158.001158 Z-0.125000
G01 X123.435507 Y157.945251 Z-0.125000
G01 X128.449858 Y158.104054 Z-0.125000
G01 X135.971370 Y158.801733 Z-0.125000
G01 X138.592515 Y158.912117 Z-0.125000
G01 X141.327615 Y158.732571 Z-0.125000
G01 X146.313470 Y157.817034 Z-0.125000
G01 X148.393304 Y157.643680 Z-0.125000
G01 X149.404699 Y157.699216 Z-0.125000
G01 X150.401886 Y157.854155 Z-0.125000
G01 X154.490302 Y159.031021 Z-0.125000
G01 X155.387741 Y159.198846 Z-0.125000
G01 X156.256711 Y159.254143 Z-0.125000
G01 X157.082924 Y159.191887 Z-0.125000
G01 X157.980390 Y158.995963 Z-0.125000
G01 X161.570199 Y157.555838 Z-0.125000
G01 X162.467665 Y157.325942 Z-0.125000
G01 X163.208418 Y157.261172 Z-0.125000
G01 X164.063153 Y157.347558 Z-0.125000
G01 X164.960592 Y157.620714 Z-0.125000
G01 X167.652962 Y159.043165 Z-0.125000
G01 X168.550428 Y159.438505 Z-0.125000
G01 X169.248424 Y159.625697 Z-0.125000
G01 X170.046168 Y159.672105 Z-0.125000
G00 Z3.000000

(End cutting path id: polyline3690)


(Start cutting path id: polyline3692)
(Change tool to Default tool)

G00 Z3.000000
G00 X13.689601 Y157.722499

G00 Z4.875000 (Fast pre-penetrate)
G01 Z-0.125000 F400.0(Penetrate)
G01 X18.376292 Y156.873478 Z-0.125000 F800.000000
G01 X20.185458 Y156.700362 Z-0.125000
G01 X21.894902 Y156.651599 Z-0.125000
G01 X25.157078 Y156.827494 Z-0.125000
G01 X33.134441 Y157.713900 Z-0.125000
G01 X37.507759 Y157.915380 Z-0.125000
G01 X42.066260 Y157.835714 Z-0.125000
G01 X53.804405 Y157.159731 Z-0.125000
G01 X60.300262 Y156.964178 Z-0.125000
G01 X66.568207 Y156.990027 Z-0.125000
G01 X82.750870 Y157.336155 Z-0.125000
G01 X91.639960 Y157.395368 Z-0.125000
G01 X101.326767 Y157.319433 Z-0.125000
G01 X120.130601 Y156.952404 Z-0.125000
G01 X126.284563 Y157.109513 Z-0.125000
G01 X134.717803 Y157.812880 Z-0.125000
G01 X137.566859 Y157.919560 Z-0.125000
G01 X140.529871 Y157.726362 Z-0.125000
G01 X145.715169 Y156.816778 Z-0.125000
G01 X147.823472 Y156.651652 Z-0.125000
G01 X148.906119 Y156.709913 Z-0.125000
G01 X149.903306 Y156.860276 Z-0.125000
G01 X154.091417 Y158.029574 Z-0.125000
G01 X155.088603 Y158.210496 Z-0.125000
G01 X156.028773 Y158.260767 Z-0.125000
G01 X156.883508 Y158.186419 Z-0.125000
G01 X157.681252 Y158.013011 Z-0.125000
G01 X161.370783 Y156.568547 Z-0.125000
G01 X162.268222 Y156.339735 Z-0.125000
G01 X163.094462 Y156.268986 Z-0.125000
G01 X163.963432 Y156.362040 Z-0.125000
G01 X164.860871 Y156.634639 Z-0.125000
G01 X168.450706 Y158.429941 Z-0.125000
G01 X169.248424 Y158.640020 Z-0.125000
G01 X170.046168 Y158.678279 Z-0.125000
G00 Z3.000000

(End cutting path id: polyline3692)


(Start cutting path id: polyline3694)
(Change tool to Default tool)

G00 Z3.000000
G00 X13.689601 Y156.972115

G00 Z4.875000 (Fast pre-penetrate)
G01 Z-0.125000 F400.0(Penetrate)
G01 X19.373479 Y155.940294 Z-0.125000 F800.000000
G01 X21.211114 Y155.739476 Z-0.125000
G01 X23.034514 Y155.660789 Z-0.125000
G01 X26.553097 Y155.813585 Z-0.125000
G01 X35.228509 Y156.729281 Z-0.125000
G01 X39.787010 Y156.923538 Z-0.125000
G01 X44.687404 Y156.840353 Z-0.125000
G01 X56.995356 Y156.173630 Z-0.125000
G01 X63.719124 Y155.977389 Z-0.125000
G01 X69.417263 Y155.974082 Z-0.125000
G01 X91.639960 Y156.232129 Z-0.125000
G01 X116.255862 Y155.960217 Z-0.125000
G01 X123.777401 Y156.122751 Z-0.125000
G01 X133.236270 Y156.822282 Z-0.125000
G01 X136.199309 Y156.927903 Z-0.125000
G01 X139.432989 Y156.742801 Z-0.125000
G01 X145.017146 Y155.821311 Z-0.125000
G01 X147.139710 Y155.659413 Z-0.125000
G01 X148.307817 Y155.715584 Z-0.125000
G01 X149.404699 Y155.875180 Z-0.125000
G01 X153.792279 Y157.058448 Z-0.125000
G01 X154.789439 Y157.226062 Z-0.125000
G01 X155.686905 Y157.268977 Z-0.125000
G01 X156.584344 Y157.192698 Z-0.125000
G01 X157.481810 Y156.996324 Z-0.125000
G01 X161.171340 Y155.575011 Z-0.125000
G01 X162.068806 Y155.350195 Z-0.125000
G01 X162.866523 Y155.276429 Z-0.125000
G01 X163.763989 Y155.358635 Z-0.125000
G01 X164.761176 Y155.652269 Z-0.125000
G01 X167.553241 Y157.079562 Z-0.125000
G01 X168.450706 Y157.457598 Z-0.125000
G01 X169.248424 Y157.654395 Z-0.125000
G01 X170.046168 Y157.684055 Z-0.125000
G00 Z3.000000

(End cutting path id: polyline3694)


(Start cutting path id: polyline3696)
(Change tool to Default tool)

G00 Z3.000000
G00 X13.689601 Y156.164555

G00 Z4.875000 (Fast pre-penetrate)
G01 Z-0.125000 F400.0(Penetrate)
G01 X20.869219 Y154.945647 Z-0.125000 F800.000000
G01 X22.806602 Y154.742368 Z-0.125000
G01 X24.630002 Y154.668523 Z-0.125000
G01 X28.248307 Y154.819732 Z-0.125000
G01 X37.279821 Y155.729078 Z-0.125000
G01 X42.066260 Y155.929288 Z-0.125000
G01 X47.536461 Y155.847320 Z-0.125000
G01 X60.414218 Y155.196657 Z-0.125000
G01 X67.479907 Y154.996050 Z-0.125000
G01 X92.095810 Y155.081590 Z-0.125000
G01 X111.127556 Y154.968031 Z-0.125000
G01 X120.586451 Y155.135248 Z-0.125000
G01 X131.640808 Y155.840520 Z-0.125000
G01 X134.717803 Y155.935770 Z-0.125000
G01 X138.336107 Y155.742598 Z-0.125000
G01 X144.219428 Y154.828516 Z-0.125000
G01 X146.455922 Y154.667174 Z-0.125000
G01 X147.595560 Y154.716598 Z-0.125000
G01 X148.806398 Y154.881698 Z-0.125000
G01 X153.293672 Y156.050361 Z-0.125000
G01 X154.390581 Y156.232791 Z-0.125000
G01 X155.345011 Y156.276209 Z-0.125000
G01 X156.285206 Y156.194294 Z-0.125000
G01 X157.182646 Y155.999984 Z-0.125000
G01 X160.971897 Y154.577560 Z-0.125000
G01 X161.869363 Y154.358352 Z-0.125000
G01 X162.752567 Y154.284137 Z-0.125000
G01 X163.664268 Y154.377746 Z-0.125000
G01 X164.661454 Y154.673841 Z-0.125000
G01 X167.453519 Y156.077613 Z-0.125000
G01 X168.350985 Y156.453215 Z-0.125000
G01 X169.248424 Y156.668665 Z-0.125000
G01 X170.046168 Y156.689382 Z-0.125000
G00 Z3.000000

(End cutting path id: polyline3696)


(Start cutting path id: polyline3698)
(Change tool to Default tool)

G00 Z3.000000
G00 X13.689601 Y155.272963

G00 Z4.875000 (Fast pre-penetrate)
G01 Z-0.125000 F400.0(Penetrate)
G01 X16.282223 Y155.012878 Z-0.125000 F800.000000
G01 X22.564429 Y153.932586 Z-0.125000
G01 X24.402064 Y153.750208 Z-0.125000
G01 X26.225464 Y153.676998 Z-0.125000
G01 X30.043212 Y153.825853 Z-0.125000
G01 X39.559071 Y154.731441 Z-0.125000
G01 X44.687404 Y154.935831 Z-0.125000
G01 X50.727411 Y154.854869 Z-0.125000
G01 X64.061018 Y154.234581 Z-0.125000
G01 X71.240663 Y154.032730 Z-0.125000
G01 X103.264123 Y153.975845 Z-0.125000
G01 X110.443768 Y154.014474 Z-0.125000
G01 X116.255862 Y154.143167 Z-0.125000
G01 X121.270213 Y154.358114 Z-0.125000
G01 X129.703452 Y154.857250 Z-0.125000
G01 X133.008358 Y154.943557 Z-0.125000
G01 X135.059670 Y154.893895 Z-0.125000
G01 X137.039783 Y154.745464 Z-0.125000
G01 X143.321962 Y153.836092 Z-0.125000
G01 X145.658204 Y153.675014 Z-0.125000
G01 X146.911772 Y153.726766 Z-0.125000
G01 X148.108401 Y153.881812 Z-0.125000
G01 X152.894813 Y155.072568 Z-0.125000
G01 X153.891974 Y155.233620 Z-0.125000
G01 X154.889161 Y155.285081 Z-0.125000
G01 X155.786626 Y155.220867 Z-0.125000
G01 X156.783787 Y155.023594 Z-0.125000
G01 X160.772481 Y153.575319 Z-0.125000
G01 X161.669920 Y153.364499 Z-0.125000
G01 X162.524656 Y153.292189 Z-0.125000
G01 X163.564546 Y153.399901 Z-0.125000
G01 X164.561733 Y153.699726 Z-0.125000
G01 X167.453519 Y155.126252 Z-0.125000
G01 X168.350985 Y155.483492 Z-0.125000
G01 X169.248424 Y155.682723 Z-0.125000
G01 X170.046168 Y155.694206 Z-0.125000
G00 Z3.000000

(End cutting path id: polyline3698)


(Start cutting path id: polyline3700)
(Change tool to Default tool)

G00 Z3.000000
G00 X13.689601 Y154.278845

G00 Z4.875000 (Fast pre-penetrate)
G01 Z-0.125000 F400.0(Penetrate)
G01 X15.171107 Y154.276729 Z-0.125000 F800.000000
G01 X16.681109 Y154.156661 Z-0.125000
G01 X23.860754 Y152.979796 Z-0.125000
G01 X25.883570 Y152.771489 Z-0.125000
G01 X27.934908 Y152.685288 Z-0.125000
G01 X31.923603 Y152.829195 Z-0.125000
G01 X42.066260 Y153.732534 Z-0.125000
G01 X47.650416 Y153.942402 Z-0.125000
G01 X54.374211 Y153.862524 Z-0.125000
G01 X67.251969 Y153.320975 Z-0.125000
G01 X73.747852 Y153.127565 Z-0.125000
G01 X91.753915 Y152.997258 Z-0.125000
G01 X102.580361 Y153.033136 Z-0.125000
G01 X110.329812 Y153.153600 Z-0.125000
G01 X116.939624 Y153.373416 Z-0.125000
G01 X127.310219 Y153.873478 Z-0.125000
G01 X130.843064 Y153.951450 Z-0.125000
G01 X133.236270 Y153.902793 Z-0.125000
G01 X135.444295 Y153.755712 Z-0.125000
G01 X142.324802 Y152.841736 Z-0.125000
G01 X144.860460 Y152.682828 Z-0.125000
G01 X146.213749 Y152.742571 Z-0.125000
G01 X147.510073 Y152.911216 Z-0.125000
G01 X152.396233 Y154.083080 Z-0.125000
G01 X153.493115 Y154.248656 Z-0.125000
G01 X154.433311 Y154.292921 Z-0.125000
G01 X155.487462 Y154.214287 Z-0.125000
G01 X156.484623 Y154.012834 Z-0.125000
G01 X160.473317 Y152.595939 Z-0.125000
G01 X161.370783 Y152.383822 Z-0.125000
G01 X162.296717 Y152.300161 Z-0.125000
G01 X163.265409 Y152.385357 Z-0.125000
G01 X164.362290 Y152.692988 Z-0.125000
G01 X167.353798 Y154.130599 Z-0.125000
G01 X168.251264 Y154.482971 Z-0.125000
G01 X169.148729 Y154.685351 Z-0.125000
G01 X170.046168 Y154.698527 Z-0.125000
G00 Z3.000000

(End cutting path id: polyline3700)


(Start cutting path id: polyline3702)
(Change tool to Default tool)

G00 Z3.000000
G00 X13.689601 Y153.175323

G00 Z4.875000 (Fast pre-penetrate)
G01 Z-0.125000 F400.0(Penetrate)
G01 X15.626957 Y153.300312 Z-0.125000 F800.000000
G01 X17.678269 Y153.210671 Z-0.125000
G01 X19.572895 Y152.970694 Z-0.125000
G01 X25.555937 Y151.984699 Z-0.125000
G01 X27.706970 Y151.774832 Z-0.125000
G01 X29.758309 Y151.693473 Z-0.125000
G01 X33.860959 Y151.826187 Z-0.125000
G01 X44.915316 Y152.734845 Z-0.125000
G01 X50.955323 Y152.947649 Z-0.125000
G01 X58.134968 Y152.883567 Z-0.125000
