%
(Header)
(Generated by gcodetools from Inkscape.)
(Using default header. To add your own header create file "header" in the output dir.)
M3
(Header end.)
G21 (All units in mm)

(Start cutting path id: polyline1595)
(Change tool to Default tool)

G00 Z3.000000
G00 X15.783683 Y86.955814

G00 Z4.875000 (Fast pre-penetrate)
G01 Z-0.125000 F400.0(Penetrate)
G01 X24.324502 Y69.423116 Z-0.125000 F800.000000
G01 X26.585628 Y64.948144 Z-0.125000
G01 X29.632328 Y59.460560 Z-0.125000
G01 X32.886513 Y54.307410 Z-0.125000
G01 X34.801380 Y51.554847 Z-0.125000
G01 X36.685184 Y49.042658 Z-0.125000
G01 X38.533694 Y46.765074 Z-0.125000
G01 X40.486925 Y44.549668 Z-0.125000
G01 X42.469551 Y42.476184 Z-0.125000
G01 X44.699007 Y40.310757 Z-0.125000
G01 X50.640800 Y35.009863 Z-0.125000
G00 Z3.000000

(End cutting path id: polyline1595)


(Start cutting path id: polyline1593)
(Change tool to Default tool)

G00 Z3.000000
G00 X15.783683 Y88.807895

G00 Z4.875000 (Fast pre-penetrate)
G01 Z-0.125000 F400.0(Penetrate)
G01 X19.061734 Y82.218455 Z-0.125000 F800.000000
G01 X24.857054 Y70.142332 Z-0.125000
G01 X27.230073 Y65.398173 Z-0.125000
G01 X30.204303 Y59.998669 Z-0.125000
G01 X33.384855 Y54.926878 Z-0.125000
G01 X35.296124 Y52.161139 Z-0.125000
G01 X37.246312 Y49.542587 Z-0.125000
G01 X39.164248 Y47.170310 Z-0.125000
G01 X41.189763 Y44.872591 Z-0.125000
G01 X43.246896 Y42.727855 Z-0.125000
G01 X45.477727 Y40.569916 Z-0.125000
G01 X51.648729 Y35.088841 Z-0.125000
G00 Z3.000000

(End cutting path id: polyline1593)


(Start cutting path id: polyline1591)
(Change tool to Default tool)

G00 Z3.000000
G00 X15.783683 Y89.733936

G00 Z4.875000 (Fast pre-penetrate)
G01 Z-0.125000 F400.0(Penetrate)
G01 X19.427467 Y82.416311 Z-0.125000 F800.000000
G01 X25.274169 Y70.194587 Z-0.125000
G01 X27.583582 Y65.564861 Z-0.125000
G01 X30.555378 Y60.158345 Z-0.125000
G01 X33.667959 Y55.186566 Z-0.125000
G01 X35.647040 Y52.320471 Z-0.125000
G01 X37.597334 Y49.702289 Z-0.125000
G01 X39.587210 Y47.246165 Z-0.125000
G01 X41.614313 Y44.955803 Z-0.125000
G01 X43.672821 Y42.817866 Z-0.125000
G01 X45.979482 Y40.596189 Z-0.125000
G01 X52.304366 Y35.001264 Z-0.125000
G00 Z3.000000

(End cutting path id: polyline1591)


(Start cutting path id: polyline1589)
(Change tool to Default tool)

G00 Z3.000000
G00 X15.783683 Y92.512057

G00 Z4.875000 (Fast pre-penetrate)
G01 Z-0.125000 F400.0(Penetrate)
G01 X20.407271 Y83.264643 Z-0.125000 F800.000000
G01 X26.407299 Y70.604585 Z-0.125000
G01 X28.646095 Y66.071008 Z-0.125000
G01 X31.545395 Y60.752890 Z-0.125000
G01 X34.585877 Y55.867682 Z-0.125000
G01 X36.631712 Y52.897420 Z-0.125000
G01 X38.651486 Y50.185074 Z-0.125000
G01 X40.642394 Y47.733289 Z-0.125000
G01 X42.743765 Y45.370034 Z-0.125000
G01 X44.878526 Y43.169762 Z-0.125000
G01 X47.337693 Y40.824921 Z-0.125000
G01 X53.972694 Y35.016954 Z-0.125000
G00 Z3.000000

(End cutting path id: polyline1589)


(Start cutting path id: polyline1587)
(Change tool to Default tool)

G00 Z3.000000
G00 X15.783683 Y93.438097

G00 Z4.875000 (Fast pre-penetrate)
G01 Z-0.125000 F400.0(Penetrate)
G01 X20.714954 Y83.591641 Z-0.125000 F800.000000
G01 X26.825578 Y70.660465 Z-0.125000
G01 X29.062601 Y66.122284 Z-0.125000
G01 X31.897687 Y60.916375 Z-0.125000
G01 X34.937376 Y56.028654 Z-0.125000
G01 X36.983396 Y53.059028 Z-0.125000
G01 X39.003461 Y50.347872 Z-0.125000
G01 X40.994818 Y47.897966 Z-0.125000
G01 X43.096718 Y45.537092 Z-0.125000
G01 X45.231956 Y43.339254 Z-0.125000
G01 X47.691626 Y40.997191 Z-0.125000
G01 X54.479873 Y35.072358 Z-0.125000
G00 Z3.000000

(End cutting path id: polyline1587)


(Start cutting path id: polyline1585)
(Change tool to Default tool)

G00 Z3.000000
G00 X15.783683 Y94.364138

G00 Z4.875000 (Fast pre-penetrate)
G01 Z-0.125000 F400.0(Penetrate)
G01 X21.023247 Y83.920253 Z-0.125000 F800.000000
G01 X27.244254 Y70.717535 Z-0.125000
G01 X29.418095 Y66.294951 Z-0.125000
G01 X32.250429 Y61.081211 Z-0.125000
G01 X35.289271 Y56.190658 Z-0.125000
G01 X37.335450 Y53.221667 Z-0.125000
G01 X39.355885 Y50.511993 Z-0.125000
G01 X41.419580 Y47.979907 Z-0.125000
G01 X43.523306 Y45.627553 Z-0.125000
G01 X45.734214 Y43.364521 Z-0.125000
G01 X48.270956 Y40.965574 Z-0.125000
G01 X55.139531 Y35.004280 Z-0.125000
G00 Z3.000000

(End cutting path id: polyline1585)


(Start cutting path id: polyline1583)
(Change tool to Default tool)

G00 Z3.000000
G00 X15.783683 Y98.068300

G00 Z4.875000 (Fast pre-penetrate)
G01 Z-0.125000 F400.0(Penetrate)
G01 X22.202440 Y85.374692 Z-0.125000 F800.000000
G01 X28.923960 Y70.960052 Z-0.125000
G01 X31.030120 Y66.641581 Z-0.125000
G01 X33.796176 Y61.534256 Z-0.125000
G01 X36.701641 Y56.852275 Z-0.125000
G01 X38.817618 Y53.790282 Z-0.125000
G01 X40.912295 Y51.005255 Z-0.125000
G01 X43.053591 Y48.413638 Z-0.125000
G01 X45.237036 Y46.014479 Z-0.125000
G01 X47.603281 Y43.641778 Z-0.125000
G01 X50.222441 Y41.216266 Z-0.125000
G01 X53.391458 Y38.457777 Z-0.125000
G01 X57.487547 Y35.044973 Z-0.125000
G00 Z3.000000

(End cutting path id: polyline1583)


(Start cutting path id: polyline1581)
(Change tool to Default tool)

G00 Z3.000000
G00 X15.783683 Y101.772462

G00 Z4.875000 (Fast pre-penetrate)
G01 Z-0.125000 F400.0(Penetrate)
G01 X20.472808 Y92.700096 Z-0.125000 F800.000000
G01 X23.510353 Y86.604977 Z-0.125000
G01 X26.062812 Y81.210209 Z-0.125000
G01 X30.554611 Y71.356450 Z-0.125000
G01 X32.653469 Y67.019300 Z-0.125000
G01 X35.353247 Y62.018549 Z-0.125000
G01 X38.192064 Y57.441025 Z-0.125000
G01 X40.380403 Y54.295371 Z-0.125000
G01 X42.552392 Y51.447479 Z-0.125000
G01 X44.701679 Y48.891052 Z-0.125000
G01 X47.039640 Y46.375238 Z-0.125000
G01 X49.563630 Y43.906758 Z-0.125000
G01 X52.493251 Y41.268098 Z-0.125000
G01 X56.052739 Y38.262594 Z-0.125000
G01 X60.165947 Y34.960069 Z-0.125000
G00 Z3.000000

(End cutting path id: polyline1581)


(Start cutting path id: polyline1579)
(Change tool to Default tool)

G00 Z3.000000
G00 X15.783683 Y105.476624

G00 Z4.875000 (Fast pre-penetrate)
G01 Z-0.125000 F400.0(Penetrate)
G01 X21.719073 Y94.050290 Z-0.125000 F800.000000
G01 X24.884862 Y87.729164 Z-0.125000
G01 X27.553287 Y82.076718 Z-0.125000
G01 X32.256726 Y71.659318 Z-0.125000
G01 X34.351880 Y67.312881 Z-0.125000
G01 X36.989217 Y62.429393 Z-0.125000
G01 X39.764983 Y57.968259 Z-0.125000
G01 X41.959197 Y54.844275 Z-0.125000
G01 X44.210031 Y51.940132 Z-0.125000
G01 X46.513437 Y49.261944 Z-0.125000
G01 X49.010201 Y46.652071 Z-0.125000
G01 X51.845684 Y43.972903 Z-0.125000
G01 X55.091615 Y41.158058 Z-0.125000
G01 X58.896213 Y38.074713 Z-0.125000
G01 X62.878293 Y35.037353 Z-0.125000
G00 Z3.000000

(End cutting path id: polyline1579)


(Start cutting path id: polyline1577)
(Change tool to Default tool)

G00 Z3.000000
G00 X15.783683 Y107.328705

G00 Z4.875000 (Fast pre-penetrate)
G01 Z-0.125000 F400.0(Penetrate)
G01 X22.404238 Y94.606919 Z-0.125000 F800.000000
G01 X25.574048 Y88.296483 Z-0.125000
G01 X28.302031 Y82.519128 Z-0.125000
G01 X33.172051 Y71.697842 Z-0.125000
G01 X35.207409 Y67.475758 Z-0.125000
G01 X37.846175 Y62.596451 Z-0.125000
G01 X40.626413 Y58.150187 Z-0.125000
G01 X42.895477 Y54.952013 Z-0.125000
G01 X45.225421 Y51.993287 Z-0.125000
G01 X47.610531 Y49.276020 Z-0.125000
G01 X50.116343 Y46.712078 Z-0.125000
G01 X53.034959 Y44.010289 Z-0.125000
G01 X56.440697 Y41.118741 Z-0.125000
G01 X60.255243 Y38.100854 Z-0.125000
G01 X64.402529 Y35.031347 Z-0.125000
G00 Z3.000000

(End cutting path id: polyline1577)


(Start cutting path id: polyline1575)
(Change tool to Default tool)

G00 Z3.000000
G00 X15.783683 Y111.958908

G00 Z4.875000 (Fast pre-penetrate)
G01 Z-0.125000 F400.0(Penetrate)
G01 X24.396415 Y95.465994 Z-0.125000 F800.000000
G01 X27.452931 Y89.421198 Z-0.125000
G01 X30.301617 Y83.398019 Z-0.125000
G01 X35.333615 Y72.162052 Z-0.125000
G01 X37.430462 Y67.820060 Z-0.125000
G01 X40.014697 Y63.080902 Z-0.125000
G01 X42.808508 Y58.679855 Z-0.125000
G01 X45.161974 Y55.444217 Z-0.125000
G01 X47.653658 Y52.393178 Z-0.125000
G01 X50.278983 Y49.539597 Z-0.125000
G01 X53.104517 Y46.805979 Z-0.125000
G01 X56.500361 Y43.854344 Z-0.125000
G01 X60.314510 Y40.834129 Z-0.125000
G01 X64.314026 Y37.920197 Z-0.125000
G01 X68.649298 Y34.992851 Z-0.125000
G00 Z3.000000

(End cutting path id: polyline1575)


(Start cutting path id: polyline1573)
(Change tool to Default tool)

G00 Z3.000000
G00 X15.783683 Y114.737029

G00 Z4.875000 (Fast pre-penetrate)
G01 Z-0.125000 F400.0(Penetrate)
G01 X25.767484 Y95.655673 Z-0.125000 F800.000000
G01 X28.645354 Y89.986136 Z-0.125000
G01 X31.556957 Y83.846488 Z-0.125000
G01 X36.647905 Y72.484050 Z-0.125000
G01 X38.747635 Y68.149492 Z-0.125000
G01 X41.403625 Y63.320059 Z-0.125000
G01 X44.278716 Y58.864375 Z-0.125000
G01 X46.716346 Y55.591669 Z-0.125000
G01 X49.368844 Y52.446941 Z-0.125000
G01 X52.085529 Y49.605214 Z-0.125000
G01 X55.152840 Y46.759783 Z-0.125000
G01 X58.718731 Y43.795342 Z-0.125000
G01 X62.705494 Y40.791081 Z-0.125000
G01 X66.879767 Y37.920938 Z-0.125000
G01 X71.546376 Y34.958852 Z-0.125000
G00 Z3.000000

(End cutting path id: polyline1573)


(Start cutting path id: polyline1571)
(Change tool to Default tool)

G00 Z3.000000
G00 X15.783683 Y123.071394

G00 Z4.875000 (Fast pre-penetrate)
G01 Z-0.125000 F400.0(Penetrate)
G01 X20.228704 Y114.484008 Z-0.125000 F800.000000
G01 X29.665109 Y96.790047 Z-0.125000
G01 X32.383620 Y91.548128 Z-0.125000
G01 X35.325704 Y85.485473 Z-0.125000
G01 X40.527882 Y74.121237 Z-0.125000
G01 X42.708205 Y69.715983 Z-0.125000
G01 X44.156982 Y67.053748 Z-0.125000
G01 X45.652987 Y64.533013 Z-0.125000
G01 X47.194448 Y62.160762 Z-0.125000
G01 X48.846768 Y59.842592 Z-0.125000
G01 X51.685162 Y56.317129 Z-0.125000
G01 X54.756627 Y53.030691 Z-0.125000
G01 X58.049441 Y49.983885 Z-0.125000
G01 X61.855388 Y46.910912 Z-0.125000
G01 X65.554603 Y44.275639 Z-0.125000
G01 X69.598886 Y41.708258 Z-0.125000
G01 X73.511910 Y39.449936 Z-0.125000
G01 X81.674587 Y34.972874 Z-0.125000
G00 Z3.000000

(End cutting path id: polyline1571)


(Start cutting path id: polyline1569)
(Change tool to Default tool)

G00 Z3.000000
G00 X15.783683 Y124.923475

G00 Z4.875000 (Fast pre-penetrate)
G01 Z-0.125000 F400.0(Penetrate)
G01 X20.725009 Y115.388565 Z-0.125000 F800.000000
G01 X33.219835 Y91.943442 Z-0.125000
G01 X36.173428 Y85.910367 Z-0.125000
G01 X41.459690 Y74.480514 Z-0.125000
G01 X43.650147 Y70.101850 Z-0.125000
G01 X45.168853 Y67.343943 Z-0.125000
G01 X46.671870 Y64.845195 Z-0.125000
G01 X48.287863 Y62.395818 Z-0.125000
G01 X49.947831 Y60.106566 Z-0.125000
G01 X52.797284 Y56.628358 Z-0.125000
G01 X55.952727 Y53.317816 Z-0.125000
G01 X59.330976 Y50.262623 Z-0.125000
G01 X63.147400 Y47.258945 Z-0.125000
G01 X66.701226 Y44.799090 Z-0.125000
G01 X70.597740 Y42.395989 Z-0.125000
G01 X84.099225 Y35.009837 Z-0.125000
G00 Z3.000000

(End cutting path id: polyline1569)


(Start cutting path id: polyline1567)
(Change tool to Default tool)

G00 Z3.000000
G00 X15.783683 Y125.849515

G00 Z4.875000 (Fast pre-penetrate)
G01 Z-0.125000 F400.0(Penetrate)
G01 X20.973823 Y115.842721 Z-0.125000 F800.000000
G01 X33.670870 Y92.087454 Z-0.125000
G01 X36.629887 Y86.068323 Z-0.125000
G01 X41.870879 Y74.798331 Z-0.125000
G01 X44.064431 Y70.427790 Z-0.125000
G01 X45.584222 Y67.673058 Z-0.125000
G01 X47.154257 Y65.071016 Z-0.125000
G01 X48.772579 Y62.629735 Z-0.125000
G01 X50.504725 Y60.256664 Z-0.125000
G01 X53.359470 Y56.801448 Z-0.125000
G01 X56.519596 Y53.514375 Z-0.125000
G01 X59.901734 Y50.481989 Z-0.125000
G01 X63.722233 Y47.505880 Z-0.125000
G01 X67.280001 Y45.076241 Z-0.125000
G01 X71.024063 Y42.798208 Z-0.125000
G01 X74.632022 Y40.794732 Z-0.125000
G01 X82.180655 Y36.797386 Z-0.125000
G01 X85.471670 Y34.938108 Z-0.125000
G00 Z3.000000

(End cutting path id: polyline1567)


(Start cutting path id: polyline1565)
(Change tool to Default tool)

G00 Z3.000000
G00 X15.783683 Y128.627637

G00 Z4.875000 (Fast pre-penetrate)
G01 Z-0.125000 F400.0(Penetrate)
G01 X21.662717 Y117.335763 Z-0.125000 F800.000000
G01 X35.036594 Y92.555343 Z-0.125000
G01 X37.894831 Y86.834026 Z-0.125000
G01 X43.186068 Y75.688309 Z-0.125000
G01 X45.394278 Y71.356688 Z-0.125000
G01 X46.985295 Y68.510278 Z-0.125000
G01 X48.628699 Y65.825342 Z-0.125000
G01 X50.322824 Y63.311830 Z-0.125000
G01 X52.133339 Y60.879096 Z-0.125000
G01 X55.073544 Y57.399485 Z-0.125000
G01 X58.246265 Y54.176944 Z-0.125000
G01 X61.791148 Y51.084021 Z-0.125000
G01 X65.471709 Y48.315531 Z-0.125000
G01 X68.573601 Y46.266706 Z-0.125000
G01 X71.855171 Y44.321783 Z-0.125000
G01 X75.311022 Y42.451287 Z-0.125000
G01 X84.286576 Y37.821243 Z-0.125000
G01 X86.794268 Y36.406782 Z-0.125000
G01 X89.131462 Y34.958640 Z-0.125000
G00 Z3.000000

(End cutting path id: polyline1565)


(Start cutting path id: polyline1563)
(Change tool to Default tool)

G00 Z3.000000
G00 X15.783683 Y129.553677

G00 Z4.875000 (Fast pre-penetrate)
G01 Z-0.125000 F400.0(Penetrate)
G01 X21.915368 Y117.800397 Z-0.125000 F800.000000
G01 X35.496836 Y92.725681 Z-0.125000
G01 X38.362085 Y87.022753 Z-0.125000
G01 X43.612444 Y76.048935 Z-0.125000
G01 X45.888492 Y71.614498 Z-0.125000
G01 X47.548433 Y68.669874 Z-0.125000
G01 X49.197103 Y66.001899 Z-0.125000
G01 X50.895593 Y63.504050 Z-0.125000
G01 X52.709892 Y61.086211 Z-0.125000
G01 X55.581914 Y57.707036 Z-0.125000
G01 X58.756513 Y54.494232 Z-0.125000
G01 X62.227207 Y51.474519 Z-0.125000
G01 X65.909435 Y48.717908 Z-0.125000
G01 X68.857445 Y46.781134 Z-0.125000
G01 X71.983388 Y44.934530 Z-0.125000
G01 X75.440112 Y43.072474 Z-0.125000
G01 X85.048814 Y38.151416 Z-0.125000
G01 X87.867416 Y36.537063 Z-0.125000
G01 X90.354655 Y34.944379 Z-0.125000
G00 Z3.000000

(End cutting path id: polyline1563)


(Start cutting path id: polyline1561)
(Change tool to Default tool)

G00 Z3.000000
G00 X15.783683 Y132.331799

G00 Z4.875000 (Fast pre-penetrate)
G01 Z-0.125000 F400.0(Penetrate)
G01 X22.745126 Y119.102913 Z-0.125000 F800.000000
G01 X36.895713 Y93.289031 Z-0.125000
G01 X39.663278 Y87.893496 Z-0.125000
G01 X44.917420 Y77.206380 Z-0.125000
G01 X47.212519 Y72.823801 Z-0.125000
G01 X48.945405 Y69.793135 Z-0.125000
G01 X50.667338 Y67.042398 Z-0.125000
G01 X52.440467 Y64.468746 Z-0.125000
G01 X54.331257 Y61.984629 Z-0.125000
G01 X57.211428 Y58.642179 Z-0.125000
G01 X60.317315 Y55.530550 Z-0.125000
G01 X63.564436 Y52.724700 Z-0.125000
G01 X67.096540 Y50.106202 Z-0.125000
G01 X70.204279 Y48.104843 Z-0.125000
G01 X73.650102 Y46.139838 Z-0.125000
G01 X76.956331 Y44.428515 Z-0.125000
G01 X84.373227 Y40.777614 Z-0.125000
G01 X87.517373 Y39.101507 Z-0.125000
G01 X90.793678 Y37.111287 Z-0.125000
G01 X93.725363 Y35.048969 Z-0.125000
G00 Z3.000000

(End cutting path id: polyline1561)


(Start cutting path id: polyline1559)
(Change tool to Default tool)

G00 Z3.000000
G00 X15.783683 Y139.740123

G00 Z4.875000 (Fast pre-penetrate)
G01 Z-0.125000 F400.0(Penetrate)
G01 X25.444587 Y122.095717 Z-0.125000 F800.000000
G01 X40.907003 Y95.023585 Z-0.125000
G01 X47.887311 Y82.140747 Z-0.125000
G01 X50.373148 Y77.711205 Z-0.125000
G01 X52.591861 Y74.007281 Z-0.125000
G01 X54.737709 Y70.710947 Z-0.125000
G01 X56.873793 Y67.723434 Z-0.125000
G01 X59.063720 Y64.949017 Z-0.125000
G01 X61.740930 Y61.916526 Z-0.125000
G01 X64.480422 Y59.192749 Z-0.125000
G01 X67.351545 Y56.722655 Z-0.125000
G01 X70.270795 Y54.569744 Z-0.125000
G01 X73.226002 Y52.692316 Z-0.125000
G01 X76.363612 Y50.953450 Z-0.125000
G01 X79.676720 Y49.313723 Z-0.125000
G01 X87.586218 Y45.641575 Z-0.125000
G01 X89.947991 Y44.421160 Z-0.125000
G01 X91.984063 Y43.259058 Z-0.125000
G01 X94.627062 Y41.569405 Z-0.125000
G01 X97.244608 Y39.682743 Z-0.125000
G01 X99.836596 Y37.618175 Z-0.125000
G01 X102.858398 Y35.013753 Z-0.125000
G00 Z3.000000

(End cutting path id: polyline1559)


(Start cutting path id: polyline1557)
(Change tool to Default tool)

G00 Z3.000000
G00 X15.783683 Y140.666163

G00 Z4.875000 (Fast pre-penetrate)
G01 Z-0.125000 F400.0(Penetrate)
G01 X25.336743 Y123.305629 Z-0.125000 F800.000000
G01 X40.642182 Y96.677705 Z-0.125000
G01 X50.661834 Y78.582582 Z-0.125000
G01 X53.016755 Y74.678845 Z-0.125000
G01 X55.233273 Y71.291892 Z-0.125000
G01 X57.440689 Y68.217226 Z-0.125000
G01 X59.703376 Y65.361978 Z-0.125000
G01 X62.309228 Y62.416032 Z-0.125000
G01 X64.974108 Y59.762688 Z-0.125000
G01 X67.692063 Y57.410016 Z-0.125000
G01 X70.609117 Y55.241652 Z-0.125000
G01 X73.563424 Y53.356816 Z-0.125000
G01 X76.700850 Y51.616098 Z-0.125000
G01 X80.014222 Y49.979414 Z-0.125000
G01 X87.925043 Y46.322321 Z-0.125000
G01 X90.286949 Y45.103202 Z-0.125000
G01 X92.479204 Y43.847756 Z-0.125000
G01 X95.120959 Y42.148021 Z-0.125000
G01 X97.890799 Y40.138037 Z-0.125000
G01 X100.633387 Y37.939697 Z-0.125000
G01 X103.956867 Y35.071696 Z-0.125000
G00 Z3.000000

(End cutting path id: polyline1557)


(Start cutting path id: polyline1555)
(Change tool to Default tool)

G00 Z3.000000
G00 X15.783683 Y143.444285

G00 Z4.875000 (Fast pre-penetrate)
G01 Z-0.125000 F400.0(Penetrate)
G01 X26.875108 Y123.683189 Z-0.125000 F800.000000
G01 X37.898827 Y104.942775 Z-0.125000
G01 X51.466193 Y81.331282 Z-0.125000
G01 X54.169967 Y76.955212 Z-0.125000
G01 X56.736131 Y73.103095 Z-0.125000
G01 X59.229243 Y69.681243 Z-0.125000
G01 X61.711773 Y66.590728 Z-0.125000
G01 X64.251082 Y63.753896 Z-0.125000
G01 X66.770732 Y61.262820 Z-0.125000
G01 X69.338537 Y59.045985 Z-0.125000
G01 X72.102159 Y56.992345 Z-0.125000
G01 X74.901262 Y55.209082 Z-0.125000
G01 X77.882292 Y53.559883 Z-0.125000
G01 X81.038423 Y52.006993 Z-0.125000
G01 X89.108919 Y48.293702 Z-0.125000
G01 X91.626638 Y46.977058 Z-0.125000
G01 X93.972484 Y45.604507 Z-0.125000
G01 X96.764681 Y43.764703 Z-0.125000
G01 X99.683799 Y41.609913 Z-0.125000
G01 X102.730287 Y39.161567 Z-0.125000
G01 X107.578982 Y35.079210 Z-0.125000
G00 Z3.000000

(End cutting path id: polyline1555)


(Start cutting path id: polyline1553)
(Change tool to Default tool)

G00 Z3.000000
G00 X15.783683 Y144.370325

G00 Z4.875000 (Fast pre-penetrate)
G01 Z-0.125000 F400.0(Penetrate)
G01 X27.349506 Y123.897766 Z-0.125000 F800.000000
G01 X37.753306 Y106.348557 Z-0.125000
G01 X51.494027 Y82.648826 Z-0.125000
G01 X54.065986 Y78.486327 Z-0.125000
G01 X56.625535 Y74.610821 Z-0.125000
G01 X59.036812 Y71.236065 Z-0.125000
G01 X61.503017 Y68.077420 Z-0.125000
G01 X64.389538 Y64.763201 Z-0.125000
G01 X67.273255 Y61.872129 Z-0.125000
G01 X70.144456 Y59.402855 Z-0.125000
G01 X73.221663 Y57.168240 Z-0.125000
G01 X75.870588 Y55.528487 Z-0.125000
G01 X78.855375 Y53.915721 Z-0.125000
G01 X81.855905 Y52.463822 Z-0.125000
G01 X88.188567 Y49.583915 Z-0.125000
G01 X91.655266 Y47.823274 Z-0.125000
G01 X95.248250 Y45.684597 Z-0.125000
G01 X98.800621 Y43.214265 Z-0.125000
G00 Z3.000000

(End cutting path id: polyline1553)


(Start cutting path id: polyline1551)
(Change tool to Default tool)

G00 Z3.000000
G00 X15.783683 Y145.296366

G00 Z4.875000 (Fast pre-penetrate)
G01 Z-0.125000 F400.0(Penetrate)
G01 X27.825649 Y124.118110 Z-0.125000 F800.000000
G01 X37.801090 Y107.420674 Z-0.125000
G01 X51.912518 Y83.312189 Z-0.125000
G01 X54.762024 Y78.768028 Z-0.125000
G01 X57.539458 Y74.642148 Z-0.125000
G01 X60.173037 Y71.037575 Z-0.125000
G01 X62.796484 Y67.766509 Z-0.125000
G01 X65.407230 Y64.843316 Z-0.125000
G01 X68.000831 Y62.278290 Z-0.125000
G01 X70.645788 Y60.006236 Z-0.125000
G01 X73.412083 Y57.971858 Z-0.125000
G01 X76.057648 Y56.303873 Z-0.125000
G01 X78.883051 Y54.753549 Z-0.125000
G01 X81.882099 Y53.285907 Z-0.125000
G01 X89.320506 Y49.874004 Z-0.125000
G01 X91.682836 Y48.659541 Z-0.125000
G01 X93.875911 Y47.411424 Z-0.125000
G01 X96.520021 Y45.730952 Z-0.125000
G01 X99.142065 Y43.877045 Z-0.125000
G01 X102.049594 Y41.640816 Z-0.125000
G01 X106.158066 Y38.307123 Z-0.125000
G00 Z3.000000

(End cutting path id: polyline1551)


(Start cutting path id: polyline1549)
(Change tool to Default tool)

G00 Z3.000000
G00 X15.783683 Y147.148447

G00 Z4.875000 (Fast pre-penetrate)
G01 Z-0.125000 F400.0(Penetrate)
G01 X28.782381 Y124.573722 Z-0.125000 F800.000000
G01 X38.220268 Y109.014549 Z-0.125000
G01 X52.483753 Y85.066903 Z-0.125000
G01 X55.617738 Y80.164789 Z-0.125000
G01 X58.753920 Y75.607558 Z-0.125000
G01 X61.749952 Y71.590712 Z-0.125000
G01 X64.601125 Y68.118695 Z-0.125000
G01 X67.077992 Y65.410873 Z-0.125000
G01 X69.455456 Y63.098550 Z-0.125000
G01 X71.951929 Y60.972626 Z-0.125000
G01 X74.410434 Y59.160841 Z-0.125000
G01 X76.898281 Y57.573475 Z-0.125000
G01 X79.564749 Y56.090752 Z-0.125000
G01 X82.404836 Y54.688356 Z-0.125000
G01 X90.157276 Y51.103177 Z-0.125000
G01 X92.831496 Y49.695410 Z-0.125000
G01 X95.332388 Y48.219619 Z-0.125000
G01 X97.815102 Y46.589788 Z-0.125000
G01 X100.433283 Y44.707412 Z-0.125000
G01 X109.142721 Y37.908476 Z-0.125000
G01 X112.979253 Y35.041190 Z-0.125000
G00 Z3.000000

(End cutting path id: polyline1549)


(Start cutting path id: polyline1547)
(Change tool to Default tool)

G00 Z3.000000
G00 X15.783683 Y153.630730

G00 Z4.875000 (Fast pre-penetrate)
G01 Z-0.125000 F400.0(Penetrate)
G01 X20.504532 Y145.544253 Z-0.125000 F800.000000
G01 X31.290125 Y127.624735 Z-0.125000
G01 X40.541217 Y113.066981 Z-0.125000
G01 X49.400355 Y98.836226 Z-0.125000
G01 X54.461828 Y90.887623 Z-0.125000
G01 X58.397527 Y85.074708 Z-0.125000
G01 X62.490599 Y79.493674 Z-0.125000
G01 X67.011900 Y73.765531 Z-0.125000
G01 X70.766491 Y69.466825 Z-0.125000
G01 X73.202904 Y67.000805 Z-0.125000
G01 X75.533298 Y64.914357 Z-0.125000
G01 X77.978177 Y63.008063 Z-0.125000
G01 X80.611889 Y61.244405 Z-0.125000
G01 X84.216806 Y59.214577 Z-0.125000
G01 X92.578370 Y55.075785 Z-0.125000
G01 X96.338147 Y52.939145 Z-0.125000
G01 X100.683208 Y50.090671 Z-0.125000
G01 X110.393404 Y43.168994 Z-0.125000
G01 X113.343029 Y41.244709 Z-0.125000
G01 X115.997696 Y39.654036 Z-0.125000
G01 X118.668291 Y38.210603 Z-0.125000
G01 X121.354761 Y36.931768 Z-0.125000
G01 X124.055994 Y35.829039 Z-0.125000
G01 X126.770113 Y34.908052 Z-0.125000
G00 Z3.000000

(End cutting path id: polyline1547)


(Start cutting path id: polyline1545)
(Change tool to Default tool)

G00 Z3.000000
G00 X15.783683 Y156.408852

G00 Z4.875000 (Fast pre-penetrate)
G01 Z-0.125000 F400.0(Penetrate)
G01 X18.012980 Y152.428915 Z-0.125000 F800.000000
G01 X20.608089 Y148.023502 Z-0.125000
G01 X30.992496 Y131.044496 Z-0.125000
G01 X34.912055 Y124.841242 Z-0.125000
G01 X41.881886 Y114.111661 Z-0.125000
G01 X53.063957 Y96.519405 Z-0.125000
G01 X56.911708 Y90.735091 Z-0.125000
G01 X60.346630 Y85.877083 Z-0.125000
G01 X64.122865 Y80.886624 Z-0.125000
G01 X68.448479 Y75.494528 Z-0.125000
G01 X71.615088 Y71.808913 Z-0.125000
G01 X74.476421 Y68.802377 Z-0.125000
G01 X77.248431 Y66.257962 Z-0.125000
G01 X79.997236 Y64.102484 Z-0.125000
G01 X82.164462 Y62.636324 Z-0.125000
G01 X84.507874 Y61.242209 Z-0.125000
G01 X92.537465 Y57.088547 Z-0.125000
G01 X95.987416 Y55.162118 Z-0.125000
G01 X99.567859 Y52.914327 Z-0.125000
G01 X103.895590 Y49.928799 Z-0.125000
G00 Z3.000000

(End cutting path id: polyline1545)


(Start cutting path id: polyline1543)
(Change tool to Default tool)

G00 Z3.000000
G00 X15.783683 Y157.334892

G00 Z4.875000 (Fast pre-penetrate)
G01 Z-0.125000 F400.0(Penetrate)
G01 X18.067802 Y153.215282 Z-0.125000 F800.000000
G01 X20.659445 Y148.799233 Z-0.125000
G01 X30.797313 Y132.303038 Z-0.125000
G01 X54.040903 Y96.135071 Z-0.125000
G01 X58.044256 Y90.220795 Z-0.125000
G01 X61.848536 Y84.974669 Z-0.125000
G01 X66.498106 Y79.013376 Z-0.125000
G01 X71.071079 Y73.505446 Z-0.125000
G01 X73.836130 Y70.463377 Z-0.125000
G01 X76.356971 Y67.978519 Z-0.125000
G01 X78.925305 Y65.764965 Z-0.125000
G01 X81.536395 Y63.832636 Z-0.125000
G01 X85.277096 Y61.528356 Z-0.125000
G01 X93.301819 Y57.325032 Z-0.125000
G01 X97.059480 Y55.168495 Z-0.125000
G01 X100.788433 Y52.763726 Z-0.125000
G01 X109.599894 Y46.696680 Z-0.125000
G01 X112.244295 Y45.018218 Z-0.125000
G01 X114.746297 Y43.551925 Z-0.125000
G01 X116.946993 Y42.376489 Z-0.125000
G01 X119.158537 Y41.313765 Z-0.125000
G01 X121.221437 Y40.435640 Z-0.125000
G01 X123.292646 Y39.667159 Z-0.125000
G01 X125.371157 Y39.010808 Z-0.125000
G01 X127.455833 Y38.467090 Z-0.125000
G01 X129.706376 Y38.006001 Z-0.125000
G01 X131.800048 Y37.693793 Z-0.125000
G01 X133.735181 Y37.515067 Z-0.125000
G01 X135.671664 Y37.452890 Z-0.125000
G01 X137.608147 Y37.517078 Z-0.125000
G01 X139.381779 Y37.693767 Z-0.125000
G01 X141.313209 Y38.020394 Z-0.125000
G01 X143.078824 Y38.444997 Z-0.125000
G01 X144.838195 Y38.989615 Z-0.125000
G01 X146.748617 Y39.718567 Z-0.125000
G01 X148.648270 Y40.583727 Z-0.125000
G01 X150.535805 Y41.578692 Z-0.125000
G01 X152.410323 Y42.695867 Z-0.125000
G01 X154.425466 Y44.036165 Z-0.125000
G01 X156.268948 Y45.398318 Z-0.125000
G01 X157.941668 Y46.763275 Z-0.125000
G01 X159.669078 Y48.320955 Z-0.125000
G01 X161.297004 Y49.945997 Z-0.125000
G01 X164.112802 Y53.169253 Z-0.125000
G01 X166.829011 Y56.815365 Z-0.125000
G01 X169.454759 Y60.796440 Z-0.125000
G01 X174.338379 Y68.683712 Z-0.125000
G00 Z3.000000

(End cutting path id: polyline1543)


(Start cutting path id: polyline1541)
(Change tool to Default tool)

G00 Z3.000000
G00 X15.783683 Y158.260933

G00 Z4.875000 (Fast pre-penetrate)
G01 Z-0.125000 F400.0(Penetrate)
G01 X18.057403 Y154.111239 Z-0.125000 F800.000000
G01 X20.643200 Y149.677225 Z-0.125000
G01 X29.934905 Y134.604884 Z-0.125000
G01 X34.723884 Y127.054082 Z-0.125000
G01 X42.046879 Y115.870820 Z-0.125000
G01 X53.600161 Y97.884441 Z-0.125000
G01 X57.804914 Y91.661687 Z-0.125000
G01 X61.604511 Y86.397597 Z-0.125000
G01 X65.967220 Y80.776954 Z-0.125000
G01 X70.888358 Y74.798648 Z-0.125000
G01 X73.786759 Y71.538695 Z-0.125000
G01 X76.444098 Y68.845584 Z-0.125000
G01 X79.078419 Y66.509422 Z-0.125000
G01 X81.682207 Y64.525737 Z-0.125000
G01 X83.542040 Y63.286192 Z-0.125000
G01 X85.728818 Y61.981348 Z-0.125000
G01 X93.747932 Y57.721880 Z-0.125000
G01 X97.503238 Y55.543912 Z-0.125000
G01 X101.076061 Y53.232779 Z-0.125000
G01 X108.343045 Y48.240521 Z-0.125000
G01 X111.762701 Y46.047657 Z-0.125000
G00 Z3.000000

(End cutting path id: polyline1541)


(Start cutting path id: polyline1539)
(Change tool to Default tool)

G00 Z3.000000
G00 X15.783683 Y159.186973

G00 Z4.875000 (Fast pre-penetrate)
G01 Z-0.125000 F400.0(Penetrate)
G01 X18.046291 Y155.005450 Z-0.125000 F800.000000
G01 X20.494663 Y150.768286 Z-0.125000
G01 X28.469247 Y137.836977 Z-0.125000
G01 X34.591116 Y128.197530 Z-0.125000
G01 X42.391128 Y116.319288 Z-0.125000
G01 X53.287371 Y99.409048 Z-0.125000
G01 X57.765173 Y92.791113 Z-0.125000
G01 X61.634012 Y87.432037 Z-0.125000
G01 X65.927268 Y81.905665 Z-0.125000
G01 X71.062215 Y75.666745 Z-0.125000
G01 X74.100792 Y72.221504 Z-0.125000
G01 X76.826950 Y69.427772 Z-0.125000
G01 X79.380943 Y67.128334 Z-0.125000
G01 X82.133718 Y64.999685 Z-0.125000
G01 X83.992016 Y63.747943 Z-0.125000
G01 X86.177101 Y62.428335 Z-0.125000
G01 X94.033788 Y58.201330 Z-0.125000
G01 X97.632169 Y56.109722 Z-0.125000
G01 X100.586001 Y54.219780 Z-0.125000
G01 X107.547999 Y49.472526 Z-0.125000
G01 X110.965671 Y47.263390 Z-0.125000
G00 Z3.000000

(End cutting path id: polyline1539)


(Start cutting path id: polyline1537)
(Change tool to Default tool)

G00 Z3.000000
G00 X15.783683 Y162.891135

G00 Z4.875000 (Fast pre-penetrate)
G01 Z-0.125000 F400.0(Penetrate)
G01 X17.873042 Y158.810101 Z-0.125000 F800.000000
G01 X19.958088 Y155.008520 Z-0.125000
G01 X22.159525 Y151.250488 Z-0.125000
G01 X24.929709 Y146.768823 Z-0.125000
G01 X32.811980 Y134.507253 Z-0.125000
G01 X43.398475 Y118.533425 Z-0.125000
G01 X52.783684 Y104.099443 Z-0.125000
G01 X57.892676 Y96.652834 Z-0.125000
G01 X62.188128 Y90.765889 Z-0.125000
G01 X66.568617 Y85.218615 Z-0.125000
G01 X72.510807 Y78.125674 Z-0.125000
G01 X76.055267 Y74.103430 Z-0.125000
G01 X78.924405 Y71.136158 Z-0.125000
G01 X81.776478 Y68.552532 Z-0.125000
G01 X84.529120 Y66.422903 Z-0.125000
G01 X88.412828 Y63.915238 Z-0.125000
G01 X95.625387 Y59.876670 Z-0.125000
G01 X98.595807 Y58.128967 Z-0.125000
G01 X108.689463 Y51.569319 Z-0.125000
G01 X111.341643 Y49.956633 Z-0.125000
G01 X113.693442 Y48.638692 Z-0.125000
G01 X115.899403 Y47.516543 Z-0.125000
G01 X118.116185 Y46.512953 Z-0.125000
G01 X120.183901 Y45.696767 Z-0.125000
G01 X122.259820 Y44.998454 Z-0.125000
G01 X124.342802 Y44.421689 Z-0.125000
G01 X126.431553 Y43.967823 Z-0.125000
G01 X128.524642 Y43.636195 Z-0.125000
G01 X130.620722 Y43.424767 Z-0.125000
G01 X132.718442 Y43.338036 Z-0.125000
G01 X134.655057 Y43.379417 Z-0.125000
G01 X136.590349 Y43.546845 Z-0.125000
G01 X138.522573 Y43.848047 Z-0.125000
G01 X140.449689 Y44.288789 Z-0.125000
G01 X142.209934 Y44.818325 Z-0.125000
G01 X143.962452 Y45.468829 Z-0.125000
G01 X145.863640 Y46.315521 Z-0.125000
G01 X147.595150 Y47.214865 Z-0.125000
G01 X149.470303 Y48.326326 Z-0.125000
G01 X151.175461 Y49.460275 Z-0.125000
G01 X153.019657 Y50.817401 Z-0.125000
G01 X154.694335 Y52.169499 Z-0.125000
G01 X156.425793 Y53.703472 Z-0.125000
G01 X158.059752 Y55.296368 Z-0.125000
G01 X159.595762 Y56.939058 Z-0.125000
G01 X162.026274 Y59.858943 Z-0.125000
G01 X164.523012 Y63.266375 Z-0.125000
G01 X174.351820 Y78.175495 Z-0.125000
G00 Z3.000000

(End cutting path id: polyline1537)


(Start cutting path id: polyline1535)
(Change tool to Default tool)

G00 Z3.000000
G00 X15.783683 Y163.817176

G00 Z4.875000 (Fast pre-penetrate)
G01 Z-0.125000 F400.0(Penetrate)
G01 X17.985543 Y159.468198 Z-0.125000 F800.000000
G01 X20.191212 Y155.419761 Z-0.125000
G01 X22.521924 Y151.440062 Z-0.125000
G01 X25.362540 Y146.866348 Z-0.125000
G01 X33.330007 Y134.563424 Z-0.125000
G01 X43.659195 Y119.039889 Z-0.125000
G01 X51.699767 Y106.654389 Z-0.125000
G01 X55.771408 Y100.641184 Z-0.125000
G01 X61.214225 Y93.024343 Z-0.125000
G01 X66.290249 Y86.537614 Z-0.125000
G01 X70.511116 Y81.481830 Z-0.125000
G01 X74.831306 Y76.464490 Z-0.125000
G01 X77.524867 Y73.508066 Z-0.125000
G01 X79.889842 Y71.128935 Z-0.125000
G01 X81.765180 Y69.422481 Z-0.125000
G01 X83.741324 Y67.805296 Z-0.125000
G01 X85.740804 Y66.346677 Z-0.125000
G01 X87.758408 Y65.025746 Z-0.125000
G01 X98.873646 Y58.634770 Z-0.125000
G01 X107.573611 Y53.014895 Z-0.125000
G01 X110.847614 Y51.003773 Z-0.125000
G01 X114.299920 Y49.099913 Z-0.125000
G01 X117.619801 Y47.535408 Z-0.125000
G01 X120.484150 Y46.424185 Z-0.125000
G01 X123.363634 Y45.543389 Z-0.125000
G01 X126.255076 Y44.900902 Z-0.125000
G01 X129.154694 Y44.496460 Z-0.125000
G01 X132.058730 Y44.328000 Z-0.125000
G01 X134.802086 Y44.405629 Z-0.125000
G01 X137.541737 Y44.739506 Z-0.125000
G01 X140.112081 Y45.305687 Z-0.125000
G00 Z3.000000

(End cutting path id: polyline1535)


(Start cutting path id: polyline1533)
(Change tool to Default tool)

G00 Z3.000000
G00 X15.783683 Y167.521338

G00 Z4.875000 (Fast pre-penetrate)
G01 Z-0.125000 F400.0(Penetrate)
G01 X18.489785 Y161.964274 Z-0.125000 F800.000000
G01 X20.981892 Y157.256761 Z-0.125000
G01 X23.562185 Y152.806475 Z-0.125000
G01 X26.679211 Y147.847686 Z-0.125000
G01 X31.866625 Y139.997165 Z-0.125000
G01 X43.801144 Y122.325613 Z-0.125000
G01 X54.017302 Y106.746014 Z-0.125000
G01 X59.099730 Y99.551579 Z-0.125000
G01 X63.644710 Y93.543005 Z-0.125000
G01 X68.356404 Y87.844919 Z-0.125000
G01 X76.165334 Y78.962973 Z-0.125000
G01 X80.035019 Y74.783223 Z-0.125000
G01 X83.158289 Y71.764093 Z-0.125000
G01 X86.116882 Y69.303551 Z-0.125000
G01 X89.357574 Y67.027899 Z-0.125000
G01 X92.477484 Y65.128299 Z-0.125000
G01 X100.153884 Y60.764769 Z-0.125000
G00 Z3.000000

(End cutting path id: polyline1533)


(Start cutting path id: polyline1531)
(Change tool to Default tool)

G00 Z3.000000
G00 X15.783683 Y168.447378

G00 Z4.875000 (Fast pre-penetrate)
G01 Z-0.125000 F400.0(Penetrate)
G01 X18.295502 Y163.225224 Z-0.125000 F800.000000
G01 X20.515723 Y158.925830 Z-0.125000
G01 X22.810002 Y154.836408 Z-0.125000
G01 X25.369604 Y150.634222 Z-0.125000
G01 X30.881715 Y142.232415 Z-0.125000
G01 X43.578418 Y123.514517 Z-0.125000
G01 X52.238484 Y110.256633 Z-0.125000
G01 X55.976778 Y104.766139 Z-0.125000
G01 X61.729712 Y96.895165 Z-0.125000
G01 X64.196869 Y93.739749 Z-0.125000
G01 X66.765017 Y90.623120 Z-0.125000
G01 X70.659256 Y86.135263 Z-0.125000
G01 X77.333759 Y78.673837 Z-0.125000
G01 X80.259121 Y75.542682 Z-0.125000
G01 X82.704608 Y73.124050 Z-0.125000
G01 X84.734251 Y71.306100 Z-0.125000
G01 X86.867187 Y69.595518 Z-0.125000
G01 X89.179827 Y67.953198 Z-0.125000
G01 X91.669236 Y66.378374 Z-0.125000
G01 X100.755122 Y61.209560 Z-0.125000
G01 X110.755539 Y55.276524 Z-0.125000
G01 X114.378077 Y53.418331 Z-0.125000
G01 X117.710553 Y52.002283 Z-0.125000
G01 X120.585009 Y51.038725 Z-0.125000
G01 X123.473303 Y50.326203 Z-0.125000
G01 X126.210335 Y49.891995 Z-0.125000
G01 X129.113895 Y49.685727 Z-0.125000
G01 X132.018726 Y49.738537 Z-0.125000
G01 X134.759038 Y50.044395 Z-0.125000
G01 X137.490937 Y50.622721 Z-0.125000
G01 X140.048846 Y51.432080 Z-0.125000
G00 Z3.000000

(End cutting path id: polyline1531)


(Start cutting path id: polyline1529)
(Change tool to Default tool)

G00 Z3.000000
G00 X15.783683 Y169.373419

G00 Z4.875000 (Fast pre-penetrate)
G01 Z-0.125000 F400.0(Penetrate)
G01 X18.770402 Y163.147754 Z-0.125000 F800.000000
G01 X21.435467 Y158.048710 Z-0.125000
G01 X24.206577 Y153.256663 Z-0.125000
G01 X27.532279 Y148.013897 Z-0.125000
G01 X31.927268 Y141.442873 Z-0.125000
G01 X43.016021 Y125.204620 Z-0.125000
G01 X52.218297 Y111.142457 Z-0.125000
G01 X55.406284 Y106.427006 Z-0.125000
G01 X58.366782 Y102.273106 Z-0.125000
G01 X61.640970 Y97.879599 Z-0.125000
G01 X64.322096 Y94.464097 Z-0.125000
G01 X67.038146 Y91.197185 Z-0.125000
G01 X72.539673 Y84.976786 Z-0.125000
G01 X80.043935 Y76.774978 Z-0.125000
G01 X83.525847 Y73.325371 Z-0.125000
G01 X86.701875 Y70.612337 Z-0.125000
G01 X89.625967 Y68.494324 Z-0.125000
G01 X92.896319 Y66.452907 Z-0.125000
G01 X101.205178 Y61.787488 Z-0.125000
G01 X109.338935 Y57.041266 Z-0.125000
G01 X113.744295 Y54.731721 Z-0.125000
G01 X115.961924 Y53.738212 Z-0.125000
G01 X118.030593 Y52.934779 Z-0.125000
G01 X120.107754 Y52.256389 Z-0.125000
G01 X122.192298 Y51.710342 Z-0.125000
G01 X124.282768 Y51.301297 Z-0.125000
G01 X126.216288 Y51.047112 Z-0.125000
G01 X128.313452 Y50.905428 Z-0.125000
G01 X130.411516 Y50.901247 Z-0.125000
G01 X132.508760 Y51.037613 Z-0.125000
G01 X134.442121 Y51.297513 Z-0.125000
G01 X136.371036 Y51.694441 Z-0.125000
G01 X138.293311 Y52.235248 Z-0.125000
G01 X140.206485 Y52.925228 Z-0.125000
G01 X141.950060 Y53.691751 Z-0.125000
G01 X143.838627 Y54.675921 Z-0.125000
G01 X145.555295 Y55.714356 Z-0.125000
G01 X148.480868 Y57.820013 Z-0.125000
G01 X151.420253 Y60.398031 Z-0.125000
G01 X154.209910 Y63.317545 Z-0.125000
G01 X156.842776 Y66.547310 Z-0.125000
G01 X159.120042 Y69.714660 Z-0.125000
G01 X161.949360 Y73.997041 Z-0.125000
G01 X170.228744 Y86.894854 Z-0.125000
G01 X174.349677 Y93.726678 Z-0.125000
G00 Z3.000000

(End cutting path id: polyline1529)


(Start cutting path id: polyline1527)
(Change tool to Default tool)

G00 Z3.000000
G00 X15.783683 Y170.299459

G00 Z4.875000 (Fast pre-penetrate)
G01 Z-0.125000 F400.0(Penetrate)
G01 X18.457929 Y164.661380 Z-0.125000 F800.000000
G01 X20.721675 Y160.193685 Z-0.125000
G01 X23.000528 Y156.059179 Z-0.125000
G01 X25.484142 Y151.931869 Z-0.125000
G01 X30.664069 Y144.056371 Z-0.125000
G01 X43.534868 Y125.276190 Z-0.125000
G01 X54.224233 Y108.988381 Z-0.125000
G01 X58.897509 Y102.388729 Z-0.125000
G01 X63.947949 Y95.797305 Z-0.125000
G01 X68.176144 Y90.775017 Z-0.125000
G01 X74.356247 Y83.945309 Z-0.125000
G01 X80.198214 Y77.639847 Z-0.125000
G01 X83.826572 Y74.034136 Z-0.125000
G01 X85.632034 Y72.425815 Z-0.125000
G01 X87.458027 Y70.944865 Z-0.125000
G01 X89.302779 Y69.591549 Z-0.125000
G01 X91.162745 Y68.352957 Z-0.125000
G01 X94.442489 Y66.392106 Z-0.125000
G01 X101.818190 Y62.325227 Z-0.125000
G01 X108.397972 Y58.584949 Z-0.125000
G01 X112.960071 Y56.186134 Z-0.125000
G01 X115.652150 Y54.971169 Z-0.125000
G01 X118.359390 Y53.949667 Z-0.125000
G01 X121.080653 Y53.148139 Z-0.125000
G01 X123.652108 Y52.608310 Z-0.125000
G00 Z3.000000

(End cutting path id: polyline1527)


(Start cutting path id: polyline1525)
(Change tool to Default tool)

G00 Z3.000000
G00 X15.783683 Y171.225500

G00 Z4.875000 (Fast pre-penetrate)
G01 Z-0.125000 F400.0(Penetrate)
G01 X18.991620 Y164.457017 Z-0.125000 F800.000000
G01 X21.636629 Y159.303231 Z-0.125000
G01 X24.325904 Y154.570211 Z-0.125000
G01 X27.375038 Y149.712203 Z-0.125000
G01 X31.777170 Y143.166631 Z-0.125000
G01 X42.970274 Y126.960367 Z-0.125000
G01 X52.780932 Y111.987906 Z-0.125000
G01 X55.835570 Y107.481369 Z-0.125000
G01 X58.524236 Y103.727201 Z-0.125000
G01 X61.526115 Y99.732633 Z-0.125000
G01 X64.068652 Y96.507393 Z-0.125000
G01 X66.643626 Y93.420635 Z-0.125000
G01 X71.359501 Y88.150777 Z-0.125000
G01 X81.016648 Y77.834368 Z-0.125000
G01 X84.655246 Y74.283558 Z-0.125000
G01 X87.912925 Y71.543352 Z-0.125000
G01 X91.151738 Y69.253730 Z-0.125000
G01 X94.898868 Y67.003160 Z-0.125000
G01 X109.189949 Y59.229923 Z-0.125000
G01 X113.923471 Y56.894925 Z-0.125000
G01 X116.146259 Y55.964308 Z-0.125000
G01 X118.219055 Y55.218977 Z-0.125000
G01 X120.299868 Y54.602234 Z-0.125000
G01 X122.226720 Y54.155380 Z-0.125000
G01 X124.319360 Y53.808856 Z-0.125000
G01 X126.254256 Y53.617986 Z-0.125000
G01 X128.190712 Y53.551231 Z-0.125000
G01 X130.288591 Y53.617721 Z-0.125000
G01 X132.223460 Y53.809358 Z-0.125000
G01 X134.154942 Y54.134452 Z-0.125000
G01 X136.080895 Y54.601202 Z-0.125000
G01 X137.998883 Y55.216728 Z-0.125000
G01 X139.906156 Y55.988067 Z-0.125000
G01 X141.642403 Y56.837537 Z-0.125000
G01 X143.364441 Y57.827766 Z-0.125000
G01 X145.069467 Y58.962271 Z-0.125000
G01 X147.815283 Y61.136455 Z-0.125000
G01 X150.495165 Y63.707594 Z-0.125000
G01 X153.098159 Y66.665817 Z-0.125000
G01 X155.687448 Y70.076318 Z-0.125000
G01 X158.936818 Y74.913954 Z-0.125000
G01 X167.587174 Y88.535507 Z-0.125000
G01 X170.857420 Y93.959167 Z-0.125000
G01 X174.377009 Y100.164776 Z-0.125000
G00 Z3.000000

(End cutting path id: polyline1525)


(Start cutting path id: polyline1523)
(Change tool to Default tool)

G00 Z3.000000
G00 X15.783683 Y178.633824

G00 Z4.875000 (Fast pre-penetrate)
G01 Z-0.125000 F400.0(Penetrate)
G01 X20.320858 Y168.890105 Z-0.125000 F800.000000
G01 X22.972297 Y163.470651 Z-0.125000
G01 X25.605851 Y158.575628 Z-0.125000
G01 X28.288669 Y154.133173 Z-0.125000
G01 X32.296758 Y148.237417 Z-0.125000
G01 X41.168570 Y136.096471 Z-0.125000
G01 X44.672178 Y131.140990 Z-0.125000
G01 X48.191423 Y125.895764 Z-0.125000
G01 X54.820338 Y115.662143 Z-0.125000
G01 X57.536389 Y111.659320 Z-0.125000
G01 X60.725672 Y107.300818 Z-0.125000
G01 X63.915432 Y103.318394 Z-0.125000
G01 X68.192628 Y98.520816 Z-0.125000
G01 X72.714774 Y94.059894 Z-0.125000
G01 X84.911495 Y83.260859 Z-0.125000
G01 X89.771620 Y79.253353 Z-0.125000
G01 X91.617087 Y77.905276 Z-0.125000
G01 X93.478163 Y76.675415 Z-0.125000
G01 X95.197186 Y75.657723 Z-0.125000
G01 X97.084800 Y74.663235 Z-0.125000
G01 X101.047486 Y72.923337 Z-0.125000
G01 X105.993389 Y71.192223 Z-0.125000
G00 Z3.000000

(End cutting path id: polyline1523)


(Start cutting path id: polyline1521)
(Change tool to Default tool)

G00 Z3.000000
G00 X15.783683 Y180.485905

G00 Z4.875000 (Fast pre-penetrate)
G01 Z-0.125000 F400.0(Penetrate)
G01 X20.671880 Y169.976774 Z-0.125000 F800.000000
G01 X23.435953 Y164.290620 Z-0.125000
G01 X25.996428 Y159.482830 Z-0.125000
G01 X28.670463 Y155.012673 Z-0.125000
G01 X30.554373 Y152.149806 Z-0.125000
G01 X32.748004 Y149.023070 Z-0.125000
G01 X41.581954 Y137.099002 Z-0.125000
G01 X45.300536 Y131.885288 Z-0.125000
G01 X48.754932 Y126.751082 Z-0.125000
G01 X55.383424 Y116.516006 Z-0.125000
G01 X58.032270 Y112.615735 Z-0.125000
G01 X60.734059 Y108.912023 Z-0.125000
G01 X63.421323 Y105.522529 Z-0.125000
G01 X65.652128 Y102.924695 Z-0.125000
G01 X67.914392 Y100.474286 Z-0.125000
G01 X70.131386 Y98.242554 Z-0.125000
G01 X72.523031 Y96.007939 Z-0.125000
G01 X77.667054 Y91.623958 Z-0.125000
G01 X88.178910 Y83.186485 Z-0.125000
G01 X92.027243 Y80.405189 Z-0.125000
G01 X95.615042 Y78.222564 Z-0.125000
G01 X99.089360 Y76.545399 Z-0.125000
G01 X103.072552 Y75.072465 Z-0.125000
G01 X108.359052 Y73.589372 Z-0.125000
G01 X110.768715 Y73.055205 Z-0.125000
G01 X112.860905 Y72.693838 Z-0.125000
G01 X114.956297 Y72.449972 Z-0.125000
G01 X116.892462 Y72.347049 Z-0.125000
G01 X118.829078 Y72.376550 Z-0.125000
G01 X120.603107 Y72.530643 Z-0.125000
G01 X122.534854 Y72.846661 Z-0.125000
G01 X124.300151 Y73.277640 Z-0.125000
G01 X126.058014 Y73.846626 Z-0.125000
G01 X127.806379 Y74.553433 Z-0.125000
G01 X129.543366 Y75.394992 Z-0.125000
G01 X131.423573 Y76.460203 Z-0.125000
G01 X133.132250 Y77.565790 Z-0.125000
G01 X134.979171 Y78.903230 Z-0.125000
G01 X138.543739 Y81.874233 Z-0.125000
G01 X142.188529 Y85.391202 Z-0.125000
G01 X145.833768 Y89.359736 Z-0.125000
G01 X149.471096 Y93.777584 Z-0.125000
G01 X152.819368 Y98.246444 Z-0.125000
G01 X156.166237 Y103.078444 Z-0.125000
G01 X158.839637 Y107.229724 Z-0.125000
G01 X164.246549 Y115.984723 Z-0.125000
G01 X167.014563 Y120.143253 Z-0.125000
G01 X170.436415 Y124.688260 Z-0.125000
G01 X174.322716 Y129.210460 Z-0.125000
G00 Z3.000000

(End cutting path id: polyline1521)


(Start cutting path id: polyline1519)
(Change tool to Default tool)

G00 Z3.000000
G00 X15.783683 Y183.264026

G00 Z4.875000 (Fast pre-penetrate)
G01 Z-0.125000 F400.0(Penetrate)
G01 X20.962736 Y172.112990 Z-0.125000 F800.000000
G01 X24.257483 Y165.288389 Z-0.125000
G01 X26.873997 Y160.345450 Z-0.125000
G01 X29.545994 Y155.869102 Z-0.125000
G01 X31.432233 Y153.014410 Z-0.125000
G01 X33.633034 Y149.914344 Z-0.125000
G01 X42.025342 Y138.826147 Z-0.125000
G01 X45.420154 Y134.173190 Z-0.125000
G01 X49.164215 Y128.703519 Z-0.125000
G01 X55.527330 Y118.890400 Z-0.125000
G01 X58.098125 Y115.054052 Z-0.125000
G01 X61.137760 Y110.843135 Z-0.125000
G01 X64.042299 Y107.207923 Z-0.125000
G01 X67.676241 Y103.186182 Z-0.125000
G01 X71.472266 Y99.539514 Z-0.125000
G01 X75.493743 Y96.200000 Z-0.125000
G01 X80.413319 Y92.593258 Z-0.125000
G01 X88.458362 Y87.108611 Z-0.125000
G01 X91.257730 Y85.326300 Z-0.125000
G01 X93.602544 Y83.944463 Z-0.125000
G01 X95.960957 Y82.690419 Z-0.125000
G01 X98.174856 Y81.654338 Z-0.125000
G01 X100.559331 Y80.694590 Z-0.125000
G01 X102.954151 Y79.881764 Z-0.125000
G01 X105.356432 Y79.193954 Z-0.125000
G01 X108.084838 Y78.530380 Z-0.125000
G01 X110.496883 Y78.055930 Z-0.125000
G01 X112.590899 Y77.756475 Z-0.125000
G01 X114.687613 Y77.582088 Z-0.125000
G01 X116.624228 Y77.547428 Z-0.125000
G01 X118.560420 Y77.646038 Z-0.125000
G01 X120.494231 Y77.886782 Z-0.125000
G01 X122.423491 Y78.275137 Z-0.125000
G01 X124.345898 Y78.813166 Z-0.125000
G01 X126.259362 Y79.498992 Z-0.125000
G01 X128.162164 Y80.326660 Z-0.125000
G01 X130.210142 Y81.372398 Z-0.125000
G01 X132.243277 Y82.561223 Z-0.125000
G01 X134.260564 Y83.884587 Z-0.125000
G01 X136.261235 Y85.334740 Z-0.125000
G01 X139.682055 Y88.129478 Z-0.125000
G01 X143.043185 Y91.282593 Z-0.125000
G01 X146.189050 Y94.641712 Z-0.125000
G01 X149.332058 Y98.431361 Z-0.125000
G01 X152.120419 Y102.162669 Z-0.125000
G01 X154.981725 Y106.331306 Z-0.125000
G01 X157.448591 Y110.191625 Z-0.125000
G01 X162.846270 Y118.976575 Z-0.125000
G01 X165.952342 Y123.640247 Z-0.125000
G01 X167.823235 Y126.202866 Z-0.125000
G01 X169.728153 Y128.629885 Z-0.125000
G01 X174.340470 Y133.961259 Z-0.125000
G00 Z3.000000

(End cutting path id: polyline1519)


(Start cutting path id: polyline1517)
(Change tool to Default tool)

G00 Z3.000000
G00 X15.783683 Y188.820269

G00 Z4.875000 (Fast pre-penetrate)
G01 Z-0.125000 F400.0(Penetrate)
G01 X21.369903 Y176.770524 Z-0.125000 F800.000000
G01 X25.732507 Y167.685591 Z-0.125000
G01 X28.518751 Y162.342072 Z-0.125000
G01 X31.179847 Y157.831858 Z-0.125000
G01 X33.201764 Y154.776824 Z-0.125000
G01 X35.413731 Y151.719250 Z-0.125000
G01 X43.674673 Y141.227449 Z-0.125000
G01 X47.580845 Y136.012968 Z-0.125000
G01 X51.272201 Y130.698633 Z-0.125000
G01 X59.426120 Y118.370733 Z-0.125000
G01 X61.911586 Y114.919433 Z-0.125000
G01 X64.243224 Y111.967665 Z-0.125000
G01 X67.289130 Y108.558434 Z-0.125000
G01 X70.490425 Y105.488371 Z-0.125000
G01 X73.837823 Y102.773379 Z-0.125000
G01 X77.398105 Y100.365119 Z-0.125000
G01 X81.476096 Y98.098171 Z-0.125000
G01 X86.064336 Y95.978623 Z-0.125000
G01 X90.997036 Y94.059180 Z-0.125000
G01 X95.952623 Y92.481312 Z-0.125000
G01 X98.839620 Y91.738602 Z-0.125000
G01 X101.732597 Y91.130749 Z-0.125000
G01 X104.630205 Y90.652806 Z-0.125000
G01 X107.853408 Y90.254714 Z-0.125000
G01 X110.917887 Y90.001746 Z-0.125000
G01 X113.661216 Y89.898215 Z-0.125000
G01 X116.243467 Y89.925626 Z-0.125000
G01 X118.824712 Y90.090911 Z-0.125000
G01 X121.242233 Y90.383672 Z-0.125000
G01 X123.655627 Y90.819281 Z-0.125000
G01 X126.062989 Y91.405412 Z-0.125000
G01 X128.302366 Y92.095180 Z-0.125000
G01 X130.532298 Y92.931051 Z-0.125000
G01 X132.749795 Y93.925486 Z-0.125000
G01 X134.794413 Y95.005302 Z-0.125000
G01 X136.821119 Y96.250006 Z-0.125000
G01 X139.589239 Y98.270415 Z-0.125000
G01 X142.226417 Y100.588771 Z-0.125000
G01 X144.798561 Y103.264446 Z-0.125000
G01 X147.299584 Y106.274606 Z-0.125000
G01 X149.592143 Y109.383218 Z-0.125000
G01 X152.025354 Y113.025098 Z-0.125000
G01 X154.269309 Y116.648271 Z-0.125000
G01 X159.872436 Y126.046127 Z-0.125000
G01 X163.102307 Y130.950728 Z-0.125000
G01 X165.189629 Y133.764701 Z-0.125000
G01 X167.604530 Y136.753192 Z-0.125000
G01 X170.702427 Y140.340779 Z-0.125000
G01 X174.263661 Y144.284627 Z-0.125000
G00 Z3.000000

(End cutting path id: polyline1517)


(Start cutting path id: polyline1515)
(Change tool to Default tool)

G00 Z3.000000
G00 X15.783683 Y189.746310

G00 Z4.875000 (Fast pre-penetrate)
G01 Z-0.125000 F400.0(Penetrate)
G01 X21.724418 Y176.939725 Z-0.125000 F800.000000
G01 X26.334856 Y167.379415 Z-0.125000
G01 X29.325861 Y161.732711 Z-0.125000
G01 X32.211403 Y156.986780 Z-0.125000
G01 X33.978791 Y154.392094 Z-0.125000
G01 X35.992321 Y151.655380 Z-0.125000
G01 X44.055356 Y141.490339 Z-0.125000
G01 X48.103211 Y136.098323 Z-0.125000
G01 X51.727072 Y130.885508 Z-0.125000
G01 X58.868961 Y120.081103 Z-0.125000
G01 X62.104917 Y115.541996 Z-0.125000
G01 X64.080902 Y113.027373 Z-0.125000
G01 X66.096998 Y110.686687 Z-0.125000
G01 X68.077931 Y108.604974 Z-0.125000
G01 X70.167025 Y106.629862 Z-0.125000
G01 X72.592378 Y104.596409 Z-0.125000
G01 X75.206591 Y102.685961 Z-0.125000
G01 X78.008472 Y100.926061 Z-0.125000
G01 X80.837234 Y99.408889 Z-0.125000
G01 X84.160847 Y97.886188 Z-0.125000
G01 X87.660671 Y96.512790 Z-0.125000
G01 X91.333903 Y95.284543 Z-0.125000
G01 X95.018883 Y94.258702 Z-0.125000
G01 X98.552945 Y93.472652 Z-0.125000
G01 X102.255361 Y92.860063 Z-0.125000
G01 X105.963094 Y92.451362 Z-0.125000
G01 X109.835187 Y92.217603 Z-0.125000
G01 X113.547154 Y92.181513 Z-0.125000
G01 X117.097091 Y92.340343 Z-0.125000
G01 X120.482801 Y92.694169 Z-0.125000
G01 X123.701744 Y93.242333 Z-0.125000
G00 Z3.000000

(End cutting path id: polyline1515)


(Start cutting path id: polyline1513)
(Change tool to Default tool)

G00 Z3.000000
G00 X15.783683 Y191.598391

G00 Z4.875000 (Fast pre-penetrate)
G01 Z-0.125000 F400.0(Penetrate)
G01 X21.426101 Y179.415455 Z-0.125000 F800.000000
G01 X26.326390 Y169.210012 Z-0.125000
G01 X29.225081 Y163.597651 Z-0.125000
G01 X31.874536 Y159.051533 Z-0.125000
G01 X33.959106 Y155.878416 Z-0.125000
G01 X36.241928 Y152.732021 Z-0.125000
G01 X44.817831 Y142.017970 Z-0.125000
G01 X49.011445 Y136.464532 Z-0.125000
G01 X52.503808 Y131.467670 Z-0.125000
G01 X59.189979 Y121.432302 Z-0.125000
G01 X61.870046 Y117.646331 Z-0.125000
G01 X64.333737 Y114.477632 Z-0.125000
G01 X66.788724 Y111.667125 Z-0.125000
G01 X69.227941 Y109.216240 Z-0.125000
G01 X71.792491 Y106.979746 Z-0.125000
G01 X74.555267 Y104.920312 Z-0.125000
G01 X77.356963 Y103.159089 Z-0.125000
G01 X80.188583 Y101.670889 Z-0.125000
G01 X83.360483 Y100.298867 Z-0.125000
G01 X86.071295 Y99.327742 Z-0.125000
G01 X88.791816 Y98.511794 Z-0.125000
G01 X91.680296 Y97.800542 Z-0.125000
G01 X94.574939 Y97.235657 Z-0.125000
G01 X97.474108 Y96.811451 Z-0.125000
G01 X100.376504 Y96.524749 Z-0.125000
G01 X103.280805 Y96.372614 Z-0.125000
G01 X106.347269 Y96.353458 Z-0.125000
G01 X109.735969 Y96.491332 Z-0.125000
G01 X113.284212 Y96.792348 Z-0.125000
G01 X116.990729 Y97.258015 Z-0.125000
G01 X120.531960 Y97.850680 Z-0.125000
G01 X123.585116 Y98.505762 Z-0.125000
G01 X126.309871 Y99.243260 Z-0.125000
G01 X128.864288 Y100.110643 Z-0.125000
G01 X131.086785 Y101.044303 Z-0.125000
G01 X132.821073 Y101.914622 Z-0.125000
G01 X134.385738 Y102.822513 Z-0.125000
G01 X136.090552 Y103.958632 Z-0.125000
G01 X137.622752 Y105.122003 Z-0.125000
G01 X139.135506 Y106.412560 Z-0.125000
G01 X140.626404 Y107.830540 Z-0.125000
G01 X143.535468 Y111.037338 Z-0.125000
G01 X145.788736 Y113.931083 Z-0.125000
G01 X148.045629 Y117.174288 Z-0.125000
G01 X150.508579 Y121.047519 Z-0.125000
G01 X156.139885 Y130.355522 Z-0.125000
G01 X157.964528 Y133.087924 Z-0.125000
G01 X159.838384 Y135.638663 Z-0.125000
G00 Z3.000000

(End cutting path id: polyline1513)


(Start cutting path id: polyline1511)
(Change tool to Default tool)

G00 Z3.000000
G00 X15.783683 Y192.524431

G00 Z4.875000 (Fast pre-penetrate)
G01 Z-0.125000 F400.0(Penetrate)
G01 X21.543470 Y180.087310 Z-0.125000 F800.000000
G01 X26.626347 Y169.516902 Z-0.125000
G01 X29.588539 Y163.790135 Z-0.125000
G01 X32.306574 Y159.145381 Z-0.125000
G01 X34.327062 Y156.085505 Z-0.125000
G01 X36.612821 Y152.950381 Z-0.125000
G01 X45.058416 Y142.461808 Z-0.125000
G01 X49.189536 Y137.030502 Z-0.125000
G01 X52.757517 Y131.962150 Z-0.125000
G01 X59.932558 Y121.274028 Z-0.125000
G01 X63.470377 Y116.450177 Z-0.125000
G01 X66.190687 Y113.203638 Z-0.125000
G01 X68.987514 Y110.319975 Z-0.125000
G01 X71.928778 Y107.752832 Z-0.125000
G01 X74.851097 Y105.622753 Z-0.125000
G01 X77.973811 Y103.749982 Z-0.125000
G01 X81.290465 Y102.151424 Z-0.125000
G01 X84.793544 Y100.824567 Z-0.125000
G01 X88.636824 Y99.720436 Z-0.125000
G01 X91.207486 Y99.159334 Z-0.125000
G01 X93.943935 Y98.702955 Z-0.125000
G01 X96.684063 Y98.382836 Z-0.125000
G01 X99.426518 Y98.194056 Z-0.125000
G01 X102.170059 Y98.133440 Z-0.125000
G01 X104.913599 Y98.198634 Z-0.125000
G01 X107.817319 Y98.402442 Z-0.125000
G01 X110.718815 Y98.733197 Z-0.125000
G01 X114.100503 Y99.252970 Z-0.125000
G01 X117.638851 Y99.931255 Z-0.125000
G01 X121.010961 Y100.712939 Z-0.125000
G01 X123.894652 Y101.519865 Z-0.125000
G01 X126.449333 Y102.383675 Z-0.125000
G01 X128.832749 Y103.356917 Z-0.125000
G01 X131.042256 Y104.440543 Z-0.125000
G01 X133.075973 Y105.623494 Z-0.125000
G01 X135.393879 Y107.225174 Z-0.125000
G01 X137.522105 Y108.965706 Z-0.125000
G01 X139.609347 Y110.950529 Z-0.125000
G01 X141.722016 Y113.259386 Z-0.125000
G01 X143.851618 Y115.900718 Z-0.125000
G01 X146.061892 Y118.964457 Z-0.125000
G01 X148.417262 Y122.541196 Z-0.125000
G01 X154.112411 Y131.642189 Z-0.125000
G01 X156.025982 Y134.399144 Z-0.125000
G01 X157.990696 Y136.959567 Z-0.125000
G01 X160.652109 Y140.064581 Z-0.125000
G01 X164.023400 Y143.629837 Z-0.125000
G01 X170.017131 Y149.614889 Z-0.125000
G01 X174.346873 Y153.693833 Z-0.125000
G00 Z3.000000

(End cutting path id: polyline1511)


(Start cutting path id: polyline1509)
(Change tool to Default tool)

G00 Z3.000000
G00 X15.783683 Y197.154634

G00 Z4.875000 (Fast pre-penetrate)
G01 Z-0.125000 F400.0(Penetrate)
G01 X22.842969 Y181.941825 Z-0.125000 F800.000000
G01 X29.235744 Y168.899127 Z-0.125000
G01 X31.166671 Y165.249205 Z-0.125000
G01 X32.899346 Y162.217851 Z-0.125000
G01 X34.686842 Y159.359190 Z-0.125000
G01 X36.527149 Y156.682748 Z-0.125000
G01 X39.401870 Y152.925034 Z-0.125000
G01 X46.263856 Y144.673008 Z-0.125000
G01 X50.009452 Y139.935041 Z-0.125000
G01 X53.828178 Y134.744399 Z-0.125000
G01 X61.911216 Y123.192308 Z-0.125000
G01 X64.222771 Y120.158282 Z-0.125000
G01 X66.371900 Y117.601352 Z-0.125000
G01 X67.979956 Y115.875053 Z-0.125000
G01 X69.614814 Y114.287106 Z-0.125000
G01 X71.274781 Y112.842879 Z-0.125000
G01 X72.957344 Y111.543486 Z-0.125000
G01 X74.659539 Y110.386755 Z-0.125000
G01 X76.535432 Y109.282280 Z-0.125000
G01 X78.427518 Y108.334332 Z-0.125000
G01 X80.332489 Y107.533333 Z-0.125000
G01 X82.247382 Y106.868754 Z-0.125000
G01 X84.169763 Y106.329481 Z-0.125000
G01 X86.097753 Y105.908344 Z-0.125000
G01 X88.190975 Y105.580790 Z-0.125000
G01 X90.287266 Y105.382194 Z-0.125000
G01 X92.385092 Y105.307926 Z-0.125000
G01 X94.483103 Y105.354122 Z-0.125000
G01 X96.579976 Y105.518005 Z-0.125000
G01 X98.674521 Y105.797854 Z-0.125000
G01 X100.765547 Y106.192877 Z-0.125000
G01 X102.851836 Y106.702807 Z-0.125000
G01 X104.932200 Y107.327488 Z-0.125000
G01 X107.005472 Y108.065966 Z-0.125000
G01 X109.070807 Y108.913557 Z-0.125000
G01 X113.491116 Y111.066654 Z-0.125000
G01 X117.872240 Y113.607551 Z-0.125000
G01 X122.056223 Y116.401071 Z-0.125000
G01 X126.039361 Y119.429700 Z-0.125000
G01 X129.817051 Y122.681425 Z-0.125000
G01 X132.870709 Y125.603453 Z-0.125000
G01 X135.729952 Y128.620890 Z-0.125000
G01 X138.110326 Y131.360726 Z-0.125000
G01 X143.253026 Y137.566309 Z-0.125000
G01 X145.717801 Y140.331862 Z-0.125000
G01 X148.379930 Y142.999785 Z-0.125000
G01 X151.318018 Y145.587354 Z-0.125000
G00 Z3.000000

(End cutting path id: polyline1509)


(Start cutting path id: polyline1507)
(Change tool to Default tool)

G00 Z3.000000
G00 X15.783683 Y199.006715

G00 Z4.875000 (Fast pre-penetrate)
G01 Z-0.125000 F400.0(Penetrate)
G01 X19.523775 Y190.832529 Z-0.125000 F800.000000
G01 X23.256856 Y182.911945 Z-0.125000
G01 X27.040261 Y175.118098 Z-0.125000
G01 X30.216950 Y168.825838 Z-0.125000
G01 X32.287894 Y164.984013 Z-0.125000
G01 X34.168233 Y161.787242 Z-0.125000
G01 X36.111833 Y158.796528 Z-0.125000
G01 X38.183465 Y155.922336 Z-0.125000
G01 X40.586487 Y152.883839 Z-0.125000
G01 X46.677399 Y145.644160 Z-0.125000
G01 X50.084461 Y141.415250 Z-0.125000
G01 X54.135492 Y136.035669 Z-0.125000
G01 X62.890781 Y123.810877 Z-0.125000
G01 X65.510841 Y120.525735 Z-0.125000
G01 X67.982390 Y117.793201 Z-0.125000
G01 X69.841191 Y115.994327 Z-0.125000
G01 X71.733092 Y114.387594 Z-0.125000
G01 X73.577024 Y113.029252 Z-0.125000
G01 X75.600634 Y111.758512 Z-0.125000
G01 X77.646205 Y110.688936 Z-0.125000
G01 X79.868173 Y109.749084 Z-0.125000
G01 X82.104666 Y109.012458 Z-0.125000
G01 X84.351267 Y108.460856 Z-0.125000
G01 X87.733140 Y107.958333 Z-0.125000
G01 X89.507778 Y107.845965 Z-0.125000
G01 X91.283077 Y107.834376 Z-0.125000
G01 X94.670322 Y108.085465 Z-0.125000
G01 X98.209728 Y108.725386 Z-0.125000
G01 X101.572525 Y109.691563 Z-0.125000
G01 X105.071661 Y111.071152 Z-0.125000
G01 X108.540318 Y112.809833 Z-0.125000
G01 X112.131662 Y114.963062 Z-0.125000
G01 X115.842915 Y117.507769 Z-0.125000
G01 X119.825868 Y120.538382 Z-0.125000
G01 X124.076658 Y124.058156 Z-0.125000
G01 X128.137901 Y127.682969 Z-0.125000
G01 X130.664801 Y130.135918 Z-0.125000
G01 X133.085498 Y132.682662 Z-0.125000
G01 X139.788973 Y140.426133 Z-0.125000
G01 X142.117303 Y142.988699 Z-0.125000
G01 X144.634678 Y145.491998 Z-0.125000
G01 X147.196556 Y147.745161 Z-0.125000
G01 X149.792009 Y149.786471 Z-0.125000
G01 X152.872919 Y151.996189 Z-0.125000
G01 X174.235827 Y166.455438 Z-0.125000
G00 Z3.000000

(End cutting path id: polyline1507)


(Start cutting path id: polyline1505)
(Change tool to Default tool)

G00 Z3.000000
G00 X15.783683 Y203.636917

G00 Z4.875000 (Fast pre-penetrate)
G01 Z-0.125000 F400.0(Penetrate)
G01 X19.752534 Y194.939809 Z-0.125000 F800.000000
G01 X23.248945 Y187.523045 Z-0.125000
G01 X27.221844 Y179.382038 Z-0.125000
G01 X30.771331 Y172.380325 Z-0.125000
G01 X33.208379 Y167.810289 Z-0.125000
G01 X35.333086 Y164.126552 Z-0.125000
G01 X37.399982 Y160.893163 Z-0.125000
G01 X39.604302 Y157.807120 Z-0.125000
G01 X42.506804 Y154.163309 Z-0.125000
G01 X48.910004 Y146.697809 Z-0.125000
G01 X52.476662 Y142.368305 Z-0.125000
G01 X64.202557 Y127.126419 Z-0.125000
G01 X66.356236 Y124.589412 Z-0.125000
G01 X68.406808 Y122.412291 Z-0.125000
G01 X70.198564 Y120.725627 Z-0.125000
G01 X71.944758 Y119.282882 Z-0.125000
G01 X73.639545 Y118.070510 Z-0.125000
G01 X75.512184 Y116.937857 Z-0.125000
G01 X77.246817 Y116.071480 Z-0.125000
G01 X79.154566 Y115.307100 Z-0.125000
G01 X81.074274 Y114.720916 Z-0.125000
G01 X83.163157 Y114.271733 Z-0.125000
G01 X85.903099 Y113.953572 Z-0.125000
G01 X88.646560 Y113.935898 Z-0.125000
G01 X91.387323 Y114.216277 Z-0.125000
G01 X94.119354 Y114.791004 Z-0.125000
G01 X96.836859 Y115.655185 Z-0.125000
G01 X99.692557 Y116.876659 Z-0.125000
G01 X102.520975 Y118.396185 Z-0.125000
G01 X105.319576 Y120.183576 Z-0.125000
G01 X108.701555 Y122.664306 Z-0.125000
G01 X112.807857 Y126.011281 Z-0.125000
G01 X117.406415 Y130.041647 Z-0.125000
G01 X121.361402 Y133.777268 Z-0.125000
G01 X124.087400 Y136.572614 Z-0.125000
G01 X126.703465 Y139.471359 Z-0.125000
G01 X133.767778 Y148.033159 Z-0.125000
G01 X136.220145 Y150.856418 Z-0.125000
G01 X138.944106 Y153.660892 Z-0.125000
G01 X141.728472 Y156.133130 Z-0.125000
G01 X144.639890 Y158.341128 Z-0.125000
G01 X148.055445 Y160.566165 Z-0.125000
G01 X151.183848 Y162.391205 Z-0.125000
G01 X160.436157 Y167.558591 Z-0.125000
G01 X165.901463 Y170.835451 Z-0.125000
G01 X170.246498 Y173.685142 Z-0.125000
G01 X174.251834 Y176.556556 Z-0.125000
G00 Z3.000000

(End cutting path id: polyline1505)


(Start cutting path id: polyline1503)
(Change tool to Default tool)

G00 Z3.000000
G00 X15.783683 Y210.119201

G00 Z4.875000 (Fast pre-penetrate)
G01 Z-0.125000 F400.0(Penetrate)
G01 X19.810954 Y201.294405 Z-0.125000 F800.000000
G01 X23.664023 Y193.126093 Z-0.125000
G01 X27.290345 Y185.762960 Z-0.125000
G01 X31.042661 Y178.450785 Z-0.125000
G01 X34.239802 Y172.503250 Z-0.125000
G01 X37.002552 Y167.685405 Z-0.125000
G01 X39.394752 Y163.903615 Z-0.125000
G01 X41.801532 Y160.512560 Z-0.125000
G01 X45.565172 Y155.852460 Z-0.125000
G01 X54.102048 Y146.170812 Z-0.125000
G01 X63.016273 Y135.737352 Z-0.125000
G01 X65.921606 Y132.509757 Z-0.125000
G01 X68.358706 Y130.047177 Z-0.125000
G01 X70.010339 Y128.553342 Z-0.125000
G01 X71.685520 Y127.204815 Z-0.125000
G01 X73.228568 Y126.119734 Z-0.125000
G01 X74.789343 Y125.177659 Z-0.125000
G01 X76.365570 Y124.382614 Z-0.125000
G01 X78.114014 Y123.677818 Z-0.125000
G01 X79.713683 Y123.187784 Z-0.125000
G01 X81.481124 Y122.806493 Z-0.125000
G01 X84.060226 Y122.522913 Z-0.125000
G01 X86.642265 Y122.541143 Z-0.125000
G01 X89.220547 Y122.860547 Z-0.125000
G01 X91.788642 Y123.476549 Z-0.125000
G01 X94.340704 Y124.377534 Z-0.125000
G01 X97.029793 Y125.625043 Z-0.125000
G01 X99.848290 Y127.239026 Z-0.125000
G01 X102.635672 Y129.116427 Z-0.125000
G01 X105.392786 Y131.216687 Z-0.125000
G01 X108.424484 Y133.759435 Z-0.125000
G01 X111.500843 Y136.553829 Z-0.125000
G01 X114.544103 Y139.532769 Z-0.125000
G01 X116.892965 Y141.995058 Z-0.125000
G01 X119.288923 Y144.662504 Z-0.125000
G01 X126.523786 Y153.275818 Z-0.125000
G01 X129.342363 Y156.488941 Z-0.125000
G01 X132.428644 Y159.702434 Z-0.125000
G01 X135.500506 Y162.521407 Z-0.125000
G01 X138.854492 Y165.194198 Z-0.125000
G01 X142.717536 Y167.865930 Z-0.125000
G01 X146.301524 Y170.084274 Z-0.125000
G01 X154.747490 Y175.018641 Z-0.125000
G01 X159.096732 Y177.833381 Z-0.125000
G01 X161.252581 Y179.386007 Z-0.125000
G01 X163.391602 Y181.056584 Z-0.125000
G01 X165.435717 Y182.787327 Z-0.125000
G01 X167.459909 Y184.637291 Z-0.125000
G00 Z3.000000

(End cutting path id: polyline1503)


(Start cutting path id: polyline1501)
(Change tool to Default tool)

G00 Z3.000000
G00 X15.783683 Y211.045241

G00 Z4.875000 (Fast pre-penetrate)
G01 Z-0.125000 F400.0(Penetrate)
G01 X19.693505 Y202.474551 Z-0.125000 F800.000000
G01 X23.665055 Y194.054700 Z-0.125000
G01 X27.170251 Y186.936385 Z-0.125000
G01 X30.861660 Y179.745681 Z-0.125000
G01 X34.183367 Y173.562588 Z-0.125000
G01 X37.071846 Y168.512201 Z-0.125000
G01 X39.457379 Y164.708132 Z-0.125000
G01 X41.925806 Y161.193862 Z-0.125000
G01 X44.252152 Y158.220107 Z-0.125000
G01 X47.053425 Y154.928324 Z-0.125000
G01 X54.157082 Y146.951332 Z-0.125000
G01 X63.393965 Y136.340839 Z-0.125000
G01 X65.800109 Y133.722235 Z-0.125000
G01 X67.942702 Y131.562497 Z-0.125000
G01 X69.591319 Y130.051146 Z-0.125000
G01 X71.109602 Y128.795382 Z-0.125000
G01 X72.646882 Y127.667968 Z-0.125000
G01 X74.202286 Y126.680041 Z-0.125000
G01 X75.616086 Y125.915793 Z-0.125000
G01 X77.200144 Y125.207557 Z-0.125000
G01 X78.795342 Y124.646192 Z-0.125000
G01 X80.398820 Y124.226775 Z-0.125000
G01 X82.975091 Y123.831249 Z-0.125000
G01 X85.556866 Y123.745392 Z-0.125000
G01 X88.137185 Y123.962641 Z-0.125000
G01 X90.869719 Y124.522208 Z-0.125000
G01 X93.426676 Y125.347178 Z-0.125000
G01 X96.122088 Y126.520418 Z-0.125000
G01 X98.947808 Y128.066006 Z-0.125000
G01 X101.742175 Y129.887872 Z-0.125000
G01 X104.505110 Y131.947201 Z-0.125000
G01 X107.541279 Y134.461718 Z-0.125000
G01 X110.620761 Y137.237802 Z-0.125000
G01 X113.592557 Y140.129139 Z-0.125000
G01 X116.017116 Y142.656780 Z-0.125000
G01 X118.415349 Y145.313510 Z-0.125000
G01 X125.588485 Y153.797576 Z-0.125000
G01 X128.410237 Y156.995961 Z-0.125000
G01 X131.571686 Y160.277664 Z-0.125000
G01 X134.641801 Y163.106770 Z-0.125000
G01 X137.991290 Y165.809300 Z-0.125000
G01 X141.692859 Y168.426952 Z-0.125000
G01 X145.425913 Y170.798463 Z-0.125000
G01 X154.170382 Y176.042551 Z-0.125000
G01 X156.654525 Y177.660925 Z-0.125000
G01 X158.969150 Y179.288984 Z-0.125000
G00 Z3.000000

(End cutting path id: polyline1501)


(Start cutting path id: polyline1499)
(Change tool to Default tool)

G00 Z3.000000
G00 X15.783683 Y214.749403

G00 Z4.875000 (Fast pre-penetrate)
G01 Z-0.125000 F400.0(Penetrate)
G01 X19.810530 Y205.923814 Z-0.125000 F800.000000
G01 X24.333286 Y196.417135 Z-0.125000
G01 X27.854303 Y189.340201 Z-0.125000
G01 X31.634665 Y182.104570 Z-0.125000
G01 X35.302394 Y175.431734 Z-0.125000
G01 X38.544832 Y169.921185 Z-0.125000
G01 X41.356159 Y165.577922 Z-0.125000
G01 X44.128142 Y161.783723 Z-0.125000
G01 X46.331298 Y159.064656 Z-0.125000
G01 X48.857219 Y156.164562 Z-0.125000
G01 X59.580716 Y144.523677 Z-0.125000
G01 X64.944818 Y138.936055 Z-0.125000
G01 X68.830696 Y135.303542 Z-0.125000
G01 X70.655419 Y133.814336 Z-0.125000
G01 X72.348565 Y132.589740 Z-0.125000
G01 X74.061502 Y131.519846 Z-0.125000
G01 X75.634659 Y130.693368 Z-0.125000
G01 X77.220967 Y130.012094 Z-0.125000
G01 X78.978063 Y129.431572 Z-0.125000
G01 X80.744366 Y129.023506 Z-0.125000
G01 X82.516384 Y128.778211 Z-0.125000
G01 X85.098132 Y128.687882 Z-0.125000
G01 X87.678451 Y128.904152 Z-0.125000
G01 X90.250621 Y129.422629 Z-0.125000
G01 X92.808451 Y130.232914 Z-0.125000
G01 X95.346728 Y131.320033 Z-0.125000
G01 X98.017746 Y132.757671 Z-0.125000
G01 X100.813357 Y134.569245 Z-0.125000
G01 X103.574174 Y136.643152 Z-0.125000
G01 X107.880131 Y140.353029 Z-0.125000
G01 X112.261810 Y144.625992 Z-0.125000
G01 X115.839660 Y148.489141 Z-0.125000
G01 X124.365292 Y158.222250 Z-0.125000
G01 X127.079966 Y161.075011 Z-0.125000
G01 X129.755403 Y163.672766 Z-0.125000
G01 X133.370507 Y166.863955 Z-0.125000
G01 X137.184709 Y169.883323 Z-0.125000
G01 X141.187982 Y172.769923 Z-0.125000
G01 X150.932309 Y179.434266 Z-0.125000
G01 X153.845844 Y181.628824 Z-0.125000
G01 X156.502363 Y183.829678 Z-0.125000
G01 X159.647197 Y186.729031 Z-0.125000
G01 X162.887862 Y190.058332 Z-0.125000
G01 X166.659387 Y194.279833 Z-0.125000
G01 X171.469427 Y199.946302 Z-0.125000
G00 Z3.000000

(End cutting path id: polyline1499)


(Start cutting path id: polyline1497)
(Change tool to Default tool)

G00 Z3.000000
G00 X15.783683 Y215.675444

G00 Z4.875000 (Fast pre-penetrate)
G01 Z-0.125000 F400.0(Penetrate)
G01 X19.809737 Y206.848002 Z-0.125000 F800.000000
G01 X24.456608 Y197.103992 Z-0.125000
G01 X28.042343 Y189.915590 Z-0.125000
G01 X31.892819 Y182.583783 Z-0.125000
G01 X35.698316 Y175.713806 Z-0.125000
G01 X39.017933 Y170.131449 Z-0.125000
G01 X41.906994 Y165.721829 Z-0.125000
G01 X44.758167 Y161.871194 Z-0.125000
G01 X46.967488 Y159.178427 Z-0.125000
G01 X49.571170 Y156.221315 Z-0.125000
G01 X59.514226 Y145.559149 Z-0.125000
G01 X65.045466 Y139.921600 Z-0.125000
G01 X67.210496 Y137.882962 Z-0.125000
G01 X69.172299 Y136.175846 Z-0.125000
G01 X71.004483 Y134.735879 Z-0.125000
G01 X72.703715 Y133.556209 Z-0.125000
G01 X74.421758 Y132.530368 Z-0.125000
G01 X76.157105 Y131.671770 Z-0.125000
G01 X77.907083 Y130.987267 Z-0.125000
G01 X79.668307 Y130.476966 Z-0.125000
G01 X81.437282 Y130.135019 Z-0.125000
G01 X83.210703 Y129.950657 Z-0.125000
G01 X85.792742 Y129.944307 Z-0.125000
G01 X88.371473 Y130.244636 Z-0.125000
G01 X90.940204 Y130.846006 Z-0.125000
G01 X93.492927 Y131.737254 Z-0.125000
G01 X96.181990 Y132.984789 Z-0.125000
G01 X98.842663 Y134.520138 Z-0.125000
G01 X101.625838 Y136.430004 Z-0.125000
G01 X104.373506 Y138.594028 Z-0.125000
G01 X108.062455 Y141.860385 Z-0.125000
G01 X111.771459 Y145.505042 Z-0.125000
G01 X115.132668 Y149.119934 Z-0.125000
G01 X124.037341 Y159.182660 Z-0.125000
G01 X127.055810 Y162.291563 Z-0.125000
G01 X130.190563 Y165.248331 Z-0.125000
G01 X133.590454 Y168.175572 Z-0.125000
G01 X137.407858 Y171.173906 Z-0.125000
G01 X140.791187 Y173.646143 Z-0.125000
G01 X148.198637 Y178.852184 Z-0.125000
G01 X151.421893 Y181.256476 Z-0.125000
G01 X154.462375 Y183.743239 Z-0.125000
G01 X157.462800 Y186.474026 Z-0.125000
G01 X160.711508 Y189.761549 Z-0.125000
G01 X164.418501 Y193.863935 Z-0.125000
G01 X169.234944 Y199.501670 Z-0.125000
G01 X174.362007 Y205.775039 Z-0.125000
G00 Z3.000000

(End cutting path id: polyline1497)


(Start cutting path id: polyline1495)
(Change tool to Default tool)

G00 Z3.000000
G00 X15.783683 Y220.305646

G00 Z4.875000 (Fast pre-penetrate)
G01 Z-0.125000 F400.0(Penetrate)
G01 X19.563780 Y211.960090 Z-0.125000 F800.000000
G01 X23.866773 Y203.000013 Z-0.125000
G01 X28.375823 Y194.014801 Z-0.125000
G01 X32.439686 Y186.404044 Z-0.125000
G01 X36.540034 Y179.197835 Z-0.125000
G01 X40.289228 Y173.082978 Z-0.125000
G01 X43.677981 Y168.058229 Z-0.125000
G01 X46.971695 Y163.744389 Z-0.125000
G01 X49.269546 Y161.040747 Z-0.125000
G01 X51.818723 Y158.249926 Z-0.125000
G01 X55.055076 Y154.897818 Z-0.125000
G01 X58.757360 Y151.216357 Z-0.125000
G01 X61.738549 Y148.375821 Z-0.125000
G01 X64.516855 Y145.866039 Z-0.125000
G01 X67.091698 Y143.691458 Z-0.125000
G01 X69.385235 Y141.913381 Z-0.125000
G01 X71.392468 Y140.511911 Z-0.125000
G01 X73.262937 Y139.359864 Z-0.125000
G01 X75.150525 Y138.365984 Z-0.125000
G01 X76.894815 Y137.608404 Z-0.125000
G01 X78.650535 Y137.005948 Z-0.125000
G01 X80.575932 Y136.528376 Z-0.125000
G01 X82.508314 Y136.234292 Z-0.125000
G01 X84.444241 Y136.114886 Z-0.125000
G01 X87.025804 Y136.225561 Z-0.125000
G01 X89.601255 Y136.648893 Z-0.125000
G01 X92.163398 Y137.383138 Z-0.125000
G01 X94.705564 Y138.420621 Z-0.125000
G01 X97.222013 Y139.748086 Z-0.125000
G01 X99.862869 Y141.454144 Z-0.125000
G01 X102.467477 Y143.432299 Z-0.125000
G01 X105.187178 Y145.775102 Z-0.125000
G01 X107.576178 Y148.024719 Z-0.125000
G01 X110.015209 Y150.477985 Z-0.125000
G01 X119.944057 Y161.208916 Z-0.125000
G01 X124.896310 Y166.187072 Z-0.125000
G01 X127.740180 Y168.819435 Z-0.125000
G01 X131.054797 Y171.741172 Z-0.125000
G01 X144.451084 Y183.113478 Z-0.125000
G01 X147.895002 Y186.292152 Z-0.125000
G01 X151.076322 Y189.471831 Z-0.125000
G01 X156.539034 Y195.450428 Z-0.125000
G01 X162.432330 Y202.356309 Z-0.125000
G01 X168.028710 Y209.363128 Z-0.125000
G01 X174.325097 Y217.670558 Z-0.125000
G00 Z3.000000

(End cutting path id: polyline1495)


(Start cutting path id: polyline1493)
(Change tool to Default tool)

G00 Z3.000000
G00 X15.783683 Y223.083768

G00 Z4.875000 (Fast pre-penetrate)
G01 Z-0.125000 F400.0(Penetrate)
G01 X19.494989 Y214.841346 Z-0.125000 F800.000000
G01 X23.382189 Y206.759076 Z-0.125000
G01 X28.706499 Y196.256798 Z-0.125000
G01 X32.850662 Y188.579551 Z-0.125000
G01 X37.108941 Y181.238431 Z-0.125000
G01 X41.019821 Y175.007555 Z-0.125000
G01 X44.705092 Y169.672053 Z-0.125000
G01 X48.228332 Y165.161389 Z-0.125000
G01 X50.464985 Y162.590225 Z-0.125000
G01 X52.952409 Y159.933176 Z-0.125000
G01 X55.909917 Y156.965322 Z-0.125000
G01 X59.040464 Y153.984557 Z-0.125000
G01 X61.819035 Y151.476231 Z-0.125000
G01 X64.468384 Y149.229974 Z-0.125000
G01 X67.064260 Y147.191177 Z-0.125000
G01 X69.375049 Y145.534993 Z-0.125000
G01 X71.394690 Y144.230625 Z-0.125000
G01 X73.430948 Y143.070852 Z-0.125000
G01 X75.483874 Y142.077740 Z-0.125000
G01 X77.392549 Y141.325372 Z-0.125000
G01 X79.312390 Y140.741252 Z-0.125000
G01 X81.240697 Y140.329772 Z-0.125000
G01 X83.335797 Y140.077122 Z-0.125000
G01 X85.272280 Y140.019602 Z-0.125000
G01 X87.852891 Y140.215128 Z-0.125000
G01 X90.425087 Y140.731012 Z-0.125000
G01 X92.821998 Y141.507563 Z-0.125000
G01 X95.356227 Y142.642545 Z-0.125000
G01 X97.861193 Y144.079681 Z-0.125000
G01 X100.486147 Y145.910304 Z-0.125000
G01 X103.072155 Y148.013157 Z-0.125000
G01 X105.995294 Y150.688885 Z-0.125000
G01 X109.695143 Y154.382807 Z-0.125000
G01 X117.538151 Y162.671743 Z-0.125000
G01 X121.375186 Y166.570215 Z-0.125000
G01 X125.472439 Y170.486043 Z-0.125000
G01 X134.843758 Y179.051970 Z-0.125000
G01 X139.027132 Y182.974599 Z-0.125000
G01 X143.176561 Y187.082329 Z-0.125000
G01 X147.132421 Y191.276393 Z-0.125000
G01 X154.154136 Y199.215312 Z-0.125000
G01 X160.078679 Y206.384797 Z-0.125000
G01 X165.977371 Y214.049290 Z-0.125000
G01 X174.299803 Y225.411780 Z-0.125000
G00 Z3.000000

(End cutting path id: polyline1493)


(Start cutting path id: polyline1491)
(Change tool to Default tool)

G00 Z3.000000
G00 X15.783683 Y224.009808

G00 Z4.875000 (Fast pre-penetrate)
G01 Z-0.125000 F400.0(Penetrate)
G01 X19.432547 Y215.885602 Z-0.125000 F800.000000
G01 X23.198383 Y208.047648 Z-0.125000
G01 X28.590638 Y197.442764 Z-0.125000
G01 X32.797852 Y189.649922 Z-0.125000
G01 X36.995117 Y182.430801 Z-0.125000
G01 X40.907903 Y176.206142 Z-0.125000
G01 X44.729487 Y170.672336 Z-0.125000
G01 X48.249102 Y166.146564 Z-0.125000
G01 X50.410983 Y163.646467 Z-0.125000
G01 X52.749870 Y161.134754 Z-0.125000
G01 X55.410305 Y158.456777 Z-0.125000
G01 X58.391997 Y155.619151 Z-0.125000
G01 X61.171283 Y153.115216 Z-0.125000
G01 X63.745569 Y150.936852 Z-0.125000
G01 X66.188226 Y149.014630 Z-0.125000
G01 X68.651891 Y147.239198 Z-0.125000
G01 X70.826128 Y145.828468 Z-0.125000
G01 X72.861353 Y144.658853 Z-0.125000
G01 X74.912348 Y143.644944 Z-0.125000
G01 X76.818827 Y142.863472 Z-0.125000
G01 X78.736445 Y142.242019 Z-0.125000
G01 X80.662901 Y141.787307 Z-0.125000
G01 X82.595521 Y141.500817 Z-0.125000
G01 X84.531448 Y141.380537 Z-0.125000
G01 X87.113037 Y141.487402 Z-0.125000
G01 X89.688356 Y141.913857 Z-0.125000
G01 X92.089949 Y142.610054 Z-0.125000
G01 X94.630581 Y143.666640 Z-0.125000
G01 X97.142770 Y145.035619 Z-0.125000
G01 X99.621622 Y146.694449 Z-0.125000
G01 X102.216758 Y148.737109 Z-0.125000
G01 X105.148681 Y151.361534 Z-0.125000
G01 X109.226646 Y155.381529 Z-0.125000
G01 X120.330851 Y166.896736 Z-0.125000
G01 X124.048163 Y170.497552 Z-0.125000
G01 X136.294625 Y182.012046 Z-0.125000
G01 X140.289961 Y186.004471 Z-0.125000
G01 X144.099929 Y190.040367 Z-0.125000
G01 X151.415596 Y198.286308 Z-0.125000
G01 X157.140961 Y205.131282 Z-0.125000
G01 X162.775229 Y212.363446 Z-0.125000
G01 X169.298655 Y221.247588 Z-0.125000
G00 Z3.000000

(End cutting path id: polyline1491)


(Start cutting path id: polyline1489)
(Change tool to Default tool)

G00 Z3.000000
G00 X15.783683 Y227.713970

G00 Z4.875000 (Fast pre-penetrate)
G01 Z-0.125000 F400.0(Penetrate)
G01 X19.712317 Y218.921903 Z-0.125000 F800.000000
G01 X23.366023 Y211.352051 Z-0.125000
G01 X28.870302 Y200.764366 Z-0.125000
G01 X33.680368 Y192.033047 Z-0.125000
G01 X37.858504 Y185.066683 Z-0.125000
G01 X41.889426 Y178.911847 Z-0.125000
G01 X46.105054 Y173.080438 Z-0.125000
G01 X48.081859 Y170.568990 Z-0.125000
G01 X50.016754 Y168.270187 Z-0.125000
G01 X52.198823 Y165.864095 Z-0.125000
G01 X54.558322 Y163.456205 Z-0.125000
G01 X57.093768 Y161.050087 Z-0.125000
G01 X59.803918 Y158.648970 Z-0.125000
G01 X62.233557 Y156.641711 Z-0.125000
G01 X64.684389 Y154.775157 Z-0.125000
G01 X67.002083 Y153.170461 Z-0.125000
G01 X69.339145 Y151.721340 Z-0.125000
G01 X71.537433 Y150.522938 Z-0.125000
G01 X73.592767 Y149.556072 Z-0.125000
G01 X75.660589 Y148.742003 Z-0.125000
G01 X77.739444 Y148.092135 Z-0.125000
G01 X79.827189 Y147.615912 Z-0.125000
G01 X81.921231 Y147.319658 Z-0.125000
G01 X84.018660 Y147.206364 Z-0.125000
G01 X85.955090 Y147.271107 Z-0.125000
G01 X87.888874 Y147.510766 Z-0.125000
G01 X89.656341 Y147.892004 Z-0.125000
G01 X91.415898 Y148.432044 Z-0.125000
G01 X93.164791 Y149.131575 Z-0.125000
G01 X94.900429 Y149.987316 Z-0.125000
G01 X96.620907 Y150.991541 Z-0.125000
G01 X98.479338 Y152.242040 Z-0.125000
G01 X100.318666 Y153.633535 Z-0.125000
G01 X103.722553 Y156.535454 Z-0.125000
G01 X107.901429 Y160.482583 Z-0.125000
G01 X127.924939 Y180.662117 Z-0.125000
G01 X132.089396 Y185.144497 Z-0.125000
G01 X136.426334 Y190.085029 Z-0.125000
G01 X145.753494 Y201.105810 Z-0.125000
G01 X150.874101 Y207.406537 Z-0.125000
G01 X157.097728 Y215.631893 Z-0.125000
G01 X167.561642 Y230.320509 Z-0.125000
G01 X174.359229 Y239.596287 Z-0.125000
G00 Z3.000000

(End cutting path id: polyline1489)


(Start cutting path id: polyline1475)
(Change tool to Default tool)

G00 Z3.000000
G00 X15.783683 Y239.752497

G00 Z4.875000 (Fast pre-penetrate)
G01 Z-0.125000 F400.0(Penetrate)
G01 X19.087213 Y232.143486 Z-0.125000 F800.000000
G01 X22.329890 Y225.188975 Z-0.125000
G01 X25.446360 Y219.020752 Z-0.125000
G01 X28.554443 Y213.411777 Z-0.125000
G01 X33.403270 Y205.413433 Z-0.125000
G01 X38.758774 Y197.140902 Z-0.125000
G01 X42.209810 Y192.345176 Z-0.125000
G01 X43.910338 Y190.218220 Z-0.125000
G01 X45.710693 Y188.129178 Z-0.125000
G01 X47.757851 Y185.934647 Z-0.125000
G01 X49.980533 Y183.732973 Z-0.125000
G01 X52.376491 Y181.522673 Z-0.125000
G01 X55.093970 Y179.165609 Z-0.125000
G01 X58.133685 Y176.673263 Z-0.125000
G01 X61.040023 Y174.428647 Z-0.125000
G01 X63.352611 Y172.785745 Z-0.125000
G01 X65.531981 Y171.417878 Z-0.125000
G01 X67.260422 Y170.488160 Z-0.125000
G01 X69.002437 Y169.703618 Z-0.125000
G01 X70.756331 Y169.073858 Z-0.125000
G01 X72.519803 Y168.605413 Z-0.125000
G01 X74.290102 Y168.301593 Z-0.125000
G01 X76.064289 Y168.162634 Z-0.125000
G01 X77.839509 Y168.185467 Z-0.125000
G01 X79.613035 Y168.363955 Z-0.125000
G01 X81.543274 Y168.725322 Z-0.125000
G01 X83.626548 Y169.295287 Z-0.125000
G01 X85.699926 Y170.031622 Z-0.125000
G01 X87.762033 Y170.919245 Z-0.125000
G01 X89.969317 Y172.027001 Z-0.125000
G01 X92.162154 Y173.277208 Z-0.125000
G01 X94.495406 Y174.758529 Z-0.125000
G01 X96.966346 Y176.479774 Z-0.125000
G01 X99.726185 Y178.561460 Z-0.125000
G01 X102.771456 Y181.017769 Z-0.125000
G01 X105.948569 Y183.726782 Z-0.125000
G01 X109.105705 Y186.555994 Z-0.125000
G01 X114.911371 Y192.135441 Z-0.125000
G01 X120.477324 Y198.045167 Z-0.125000
G01 X126.745322 Y205.302255 Z-0.125000
G01 X133.773519 Y214.019339 Z-0.125000
G01 X138.862244 Y220.829388 Z-0.125000
G01 X144.814727 Y229.372376 Z-0.125000
G01 X149.322507 Y236.223409 Z-0.125000
G01 X152.864453 Y242.048098 Z-0.125000
G01 X155.853738 Y247.405163 Z-0.125000
G01 X163.240207 Y261.197213 Z-0.125000
G00 Z3.000000

(End cutting path id: polyline1475)


(Start cutting path id: polyline1461)
(Change tool to Default tool)

G00 Z3.000000
G00 X15.783683 Y259.199347

G00 Z4.875000 (Fast pre-penetrate)
G01 Z-0.125000 F400.0(Penetrate)
G01 X18.884993 Y251.656350 Z-0.125000 F800.000000
G01 X21.773075 Y245.190656 Z-0.125000
G01 X24.609669 Y239.413566 Z-0.125000
G01 X27.572284 Y233.979983 Z-0.125000
G01 X30.914285 Y228.469169 Z-0.125000
G01 X34.439192 Y223.245481 Z-0.125000
G01 X37.933990 Y218.619300 Z-0.125000
G01 X41.321102 Y214.705138 Z-0.125000
G01 X44.579045 Y211.467595 Z-0.125000
G01 X47.761502 Y208.795016 Z-0.125000
G01 X50.854001 Y206.675785 Z-0.125000
G01 X52.420279 Y205.782738 Z-0.125000
G01 X53.997882 Y205.001848 Z-0.125000
G01 X55.744209 Y204.268768 Z-0.125000
G01 X57.499532 Y203.659512 Z-0.125000
G01 X59.261549 Y203.161858 Z-0.125000
G01 X61.189063 Y202.729583 Z-0.125000
G01 X63.120545 Y202.403246 Z-0.125000
G01 X65.054779 Y202.179382 Z-0.125000
G01 X66.990733 Y202.055055 Z-0.125000
G01 X69.088797 Y202.029443 Z-0.125000
G01 X71.509228 Y202.135435 Z-0.125000
G01 X73.927782 Y202.378931 Z-0.125000
G01 X76.343239 Y202.750246 Z-0.125000
G01 X78.915356 Y203.275576 Z-0.125000
G01 X81.482182 Y203.923222 Z-0.125000
G01 X84.043054 Y204.685248 Z-0.125000
G01 X90.103566 Y206.840409 Z-0.125000
G01 X96.774418 Y209.601041 Z-0.125000
G01 X99.621225 Y210.929989 Z-0.125000
G01 X102.299202 Y212.299655 Z-0.125000
G01 X104.806999 Y213.712846 Z-0.125000
G01 X107.299106 Y215.265128 Z-0.125000
G01 X109.463289 Y216.755101 Z-0.125000
G01 X111.607549 Y218.389721 Z-0.125000
G01 X113.576946 Y220.050006 Z-0.125000
G01 X115.448607 Y221.777759 Z-0.125000
G01 X117.371067 Y223.706199 Z-0.125000
G01 X119.269344 Y225.757035 Z-0.125000
G01 X123.498042 Y230.776386 Z-0.125000
G01 X128.053076 Y236.744373 Z-0.125000
G01 X131.473129 Y241.656647 Z-0.125000
G01 X134.857384 Y247.030355 Z-0.125000
G01 X138.662590 Y253.597199 Z-0.125000
G01 X142.751852 Y261.135962 Z-0.125000
G00 Z3.000000

(End cutting path id: polyline1461)


(Start cutting path id: polyline1463)
(Change tool to Default tool)

G00 Z3.000000
G00 X15.783683 Y258.273307

G00 Z4.875000 (Fast pre-penetrate)
G01 Z-0.125000 F400.0(Penetrate)
G01 X18.888247 Y250.737401 Z-0.125000 F800.000000
G01 X21.838030 Y244.151692 Z-0.125000
G01 X24.679440 Y238.387063 Z-0.125000
G01 X27.708836 Y232.848653 Z-0.125000
G01 X31.119258 Y227.238991 Z-0.125000
G01 X34.647154 Y222.026018 Z-0.125000
G01 X38.076256 Y217.509136 Z-0.125000
G01 X41.539383 Y213.529622 Z-0.125000
G01 X44.723216 Y210.365077 Z-0.125000
G01 X47.903900 Y207.681439 Z-0.125000
G01 X49.597020 Y206.456234 Z-0.125000
G01 X51.151181 Y205.458015 Z-0.125000
G01 X52.718306 Y204.572641 Z-0.125000
G01 X54.296676 Y203.799715 Z-0.125000
G01 X56.043611 Y203.074810 Z-0.125000
G01 X57.799384 Y202.472037 Z-0.125000
G01 X59.722029 Y201.938082 Z-0.125000
G01 X61.649966 Y201.515649 Z-0.125000
G01 X63.581740 Y201.198599 Z-0.125000
G01 X65.516212 Y200.985266 Z-0.125000
G01 X67.452324 Y200.874274 Z-0.125000
G01 X69.550415 Y200.867606 Z-0.125000
G01 X71.809266 Y200.989023 Z-0.125000
G01 X74.227237 Y201.260538 Z-0.125000
G01 X76.641583 Y201.668922 Z-0.125000
G01 X79.211716 Y202.242538 Z-0.125000
G01 X81.615717 Y202.897751 Z-0.125000
G01 X84.173600 Y203.711027 Z-0.125000
G01 X90.385347 Y206.042109 Z-0.125000
G01 X97.365602 Y209.037691 Z-0.125000
G01 X100.209129 Y210.403045 Z-0.125000
G01 X102.883983 Y211.804462 Z-0.125000
G01 X105.388711 Y213.245937 Z-0.125000
G01 X107.877564 Y214.825550 Z-0.125000
G01 X110.038440 Y216.340632 Z-0.125000
G01 X112.178890 Y218.001393 Z-0.125000
G01 X114.068939 Y219.620217 Z-0.125000
G01 X115.936868 Y221.369005 Z-0.125000
G01 X117.855068 Y223.319617 Z-0.125000
G01 X119.821290 Y225.473852 Z-0.125000
G01 X124.180375 Y230.720532 Z-0.125000
G01 X128.793141 Y236.829727 Z-0.125000
G01 X132.203854 Y241.776080 Z-0.125000
G01 X135.511697 Y247.077715 Z-0.125000
G01 X139.304521 Y253.682130 Z-0.125000
G01 X143.379655 Y261.261136 Z-0.125000
G00 Z3.000000

(End cutting path id: polyline1463)


(Start cutting path id: polyline1465)
(Change tool to Default tool)

G00 Z3.000000
G00 X15.783683 Y255.495185

G00 Z4.875000 (Fast pre-penetrate)
G01 Z-0.125000 F400.0(Penetrate)
G01 X19.013104 Y247.720678 Z-0.125000 F800.000000
G01 X22.036044 Y241.042206 Z-0.125000
G01 X25.077425 Y234.958411 Z-0.125000
G01 X28.247976 Y229.232280 Z-0.125000
G01 X31.734519 Y223.548640 Z-0.125000
G01 X35.206747 Y218.479838 Z-0.125000
G01 X38.723400 Y213.941737 Z-0.125000
G01 X42.410893 Y209.749605 Z-0.125000
G01 X45.671667 Y206.526772 Z-0.125000
G01 X48.779961 Y203.928064 Z-0.125000
G01 X50.320443 Y202.823642 Z-0.125000
G01 X51.875582 Y201.833334 Z-0.125000
G01 X53.443792 Y200.958279 Z-0.125000
G01 X55.181600 Y200.125795 Z-0.125000
G01 X56.930149 Y199.421316 Z-0.125000
G01 X58.846789 Y198.783671 Z-0.125000
G01 X60.770148 Y198.262495 Z-0.125000
G01 X62.859243 Y197.817149 Z-0.125000
G01 X64.791519 Y197.517747 Z-0.125000
G01 X66.726467 Y197.327882 Z-0.125000
G01 X68.662845 Y197.249354 Z-0.125000
G01 X70.599486 Y197.283194 Z-0.125000
G01 X72.696386 Y197.446125 Z-0.125000
G01 X74.951559 Y197.765265 Z-0.125000
G01 X77.041500 Y198.189285 Z-0.125000
G01 X79.286566 Y198.774040 Z-0.125000
G01 X81.525044 Y199.479604 Z-0.125000
G01 X83.915737 Y200.354447 Z-0.125000
G01 X89.786622 Y202.859413 Z-0.125000
G01 X98.324292 Y206.876498 Z-0.125000
G01 X101.474285 Y208.494185 Z-0.125000
G01 X104.141123 Y209.974209 Z-0.125000
G01 X106.794044 Y211.580175 Z-0.125000
G01 X109.274165 Y213.230432 Z-0.125000
G01 X111.579636 Y214.925271 Z-0.125000
G01 X113.860579 Y216.786533 Z-0.125000
G01 X115.738378 Y218.478727 Z-0.125000
G01 X117.592602 Y220.302815 Z-0.125000
G01 X119.495509 Y222.330764 Z-0.125000
G01 X121.517479 Y224.645151 Z-0.125000
G01 X126.124081 Y230.400757 Z-0.125000
G01 X131.052230 Y237.106693 Z-0.125000
G01 X134.301521 Y241.944672 Z-0.125000
G01 X137.515490 Y247.230141 Z-0.125000
G01 X141.145966 Y253.711631 Z-0.125000
G01 X145.122278 Y261.275292 Z-0.125000
G00 Z3.000000

(End cutting path id: polyline1465)


(Start cutting path id: polyline1467)
(Change tool to Default tool)

G00 Z3.000000
G00 X15.783683 Y253.643104

G00 Z4.875000 (Fast pre-penetrate)
G01 Z-0.125000 F400.0(Penetrate)
G01 X19.078747 Y245.756467 Z-0.125000 F800.000000
G01 X22.170399 Y238.974887 Z-0.125000
G01 X25.344178 Y232.676065 Z-0.125000
G01 X28.650301 Y226.746575 Z-0.125000
G01 X32.078768 Y221.195121 Z-0.125000
G01 X35.423335 Y216.355951 Z-0.125000
G01 X39.297280 Y211.386950 Z-0.125000
G01 X43.130029 Y207.033263 Z-0.125000
G01 X46.392814 Y203.821358 Z-0.125000
G01 X49.505951 Y201.253791 Z-0.125000
G01 X51.049448 Y200.171912 Z-0.125000
G01 X52.607604 Y199.206845 Z-0.125000
G01 X54.178486 Y198.357534 Z-0.125000
G01 X55.760005 Y197.619082 Z-0.125000
G01 X57.668759 Y196.867296 Z-0.125000
G01 X59.586298 Y196.243568 Z-0.125000
G01 X61.670445 Y195.689770 Z-0.125000
G01 X63.599255 Y195.288503 Z-0.125000
G01 X65.531769 Y194.996509 Z-0.125000
G01 X67.466876 Y194.817307 Z-0.125000
G01 X69.403386 Y194.753781 Z-0.125000
G01 X71.339922 Y194.807967 Z-0.125000
G01 X73.275161 Y194.980661 Z-0.125000
G01 X75.368595 Y195.300489 Z-0.125000
G01 X77.296823 Y195.715223 Z-0.125000
G01 X79.380017 Y196.287913 Z-0.125000
G01 X81.456359 Y196.979850 Z-0.125000
G01 X83.525318 Y197.779393 Z-0.125000
G01 X88.434127 Y199.998213 Z-0.125000
G01 X98.684019 Y205.126572 Z-0.125000
G01 X101.984639 Y206.894066 Z-0.125000
G01 X104.802739 Y208.513499 Z-0.125000
G01 X107.605573 Y210.266626 Z-0.125000
G01 X110.079530 Y211.964826 Z-0.125000
G01 X112.531553 Y213.823019 Z-0.125000
G01 X114.804850 Y215.733017 Z-0.125000
G01 X116.750725 Y217.533451 Z-0.125000
G01 X118.597303 Y219.397835 Z-0.125000
G01 X120.491770 Y221.467139 Z-0.125000
G01 X122.504533 Y223.823356 Z-0.125000
G01 X127.372674 Y230.024864 Z-0.125000
G01 X132.491033 Y237.083568 Z-0.125000
G01 X135.659599 Y241.866541 Z-0.125000
G01 X138.857958 Y247.201593 Z-0.125000
G01 X142.404561 Y253.628499 Z-0.125000
G01 X146.359018 Y261.252352 Z-0.125000
G00 Z3.000000

(End cutting path id: polyline1467)


(Start cutting path id: polyline1469)
(Change tool to Default tool)

G00 Z3.000000
G00 X15.783683 Y246.234780

G00 Z4.875000 (Fast pre-penetrate)
G01 Z-0.125000 F400.0(Penetrate)
G01 X19.174102 Y238.302291 Z-0.125000 F800.000000
G01 X22.470436 Y231.208741 Z-0.125000
G01 X25.904036 Y224.466955 Z-0.125000
G01 X29.284269 Y218.454623 Z-0.125000
G01 X33.137364 Y212.358631 Z-0.125000
G01 X37.997251 Y205.395150 Z-0.125000
G01 X42.058151 Y200.055945 Z-0.125000
G01 X43.847737 Y197.918776 Z-0.125000
G01 X45.594382 Y195.998750 Z-0.125000
G01 X47.296444 Y194.300577 Z-0.125000
G01 X48.949903 Y192.817430 Z-0.125000
G01 X50.625269 Y191.469830 Z-0.125000
G01 X52.473672 Y190.143449 Z-0.125000
G01 X54.495430 Y188.856755 Z-0.125000
G01 X56.532270 Y187.701612 Z-0.125000
G01 X58.895578 Y186.497177 Z-0.125000
G01 X61.426817 Y185.324387 Z-0.125000
G01 X63.808646 Y184.330507 Z-0.125000
G01 X65.880860 Y183.576287 Z-0.125000
G01 X67.800648 Y182.990579 Z-0.125000
G01 X69.726971 Y182.531210 Z-0.125000
G01 X71.497587 Y182.236439 Z-0.125000
G01 X73.271431 Y182.073746 Z-0.125000
G01 X75.046677 Y182.050278 Z-0.125000
G01 X76.821182 Y182.168917 Z-0.125000
G01 X78.592856 Y182.428341 Z-0.125000
G01 X80.520079 Y182.866278 Z-0.125000
G01 X82.439575 Y183.456404 Z-0.125000
G01 X84.349918 Y184.187103 Z-0.125000
G01 X86.408241 Y185.119970 Z-0.125000
G01 X88.455161 Y186.176979 Z-0.125000
G01 X93.298935 Y189.050721 Z-0.125000
G01 X102.292720 Y195.007278 Z-0.125000
G01 X105.842286 Y197.500549 Z-0.125000
G01 X108.759763 Y199.667590 Z-0.125000
G01 X111.658508 Y201.963218 Z-0.125000
G01 X114.382760 Y204.278690 Z-0.125000
G01 X117.006233 Y206.679463 Z-0.125000
G01 X119.526995 Y209.165538 Z-0.125000
G01 X123.826627 Y213.856409 Z-0.125000
G01 X128.164810 Y219.193339 Z-0.125000
G01 X134.353538 Y227.556543 Z-0.125000
G01 X139.885731 Y235.545468 Z-0.125000
G01 X143.145843 Y240.679966 Z-0.125000
G01 X146.104172 Y245.824994 Z-0.125000
G01 X149.343356 Y251.946836 Z-0.125000
G01 X153.977315 Y261.167130 Z-0.125000
G00 Z3.000000

(End cutting path id: polyline1469)


(Start cutting path id: polyline1471)
(Change tool to Default tool)

G00 Z3.000000
G00 X15.783683 Y244.382699

G00 Z4.875000 (Fast pre-penetrate)
G01 Z-0.125000 F400.0(Penetrate)
G01 X19.125446 Y236.600069 Z-0.125000 F800.000000
G01 X22.363042 Y229.633282 Z-0.125000
G01 X25.666414 Y223.111893 Z-0.125000
G01 X28.908058 Y217.293765 Z-0.125000
G01 X32.943081 Y210.824685 Z-0.125000
G01 X38.110493 Y203.244461 Z-0.125000
G01 X42.006292 Y197.990266 Z-0.125000
G01 X43.715366 Y195.899663 Z-0.125000
G01 X45.381393 Y194.022606 Z-0.125000
G01 X47.150156 Y192.212461 Z-0.125000
G01 X48.946807 Y190.553367 Z-0.125000
G01 X50.843470 Y188.975844 Z-0.125000
G01 X52.837791 Y187.480447 Z-0.125000
G01 X55.004409 Y186.009048 Z-0.125000
G01 X57.497468 Y184.464809 Z-0.125000
G01 X60.630052 Y182.678001 Z-0.125000
G01 X63.304139 Y181.268859 Z-0.125000
G01 X65.358679 Y180.292521 Z-0.125000
G01 X67.264232 Y179.499010 Z-0.125000
G01 X69.019238 Y178.884595 Z-0.125000
G01 X70.781731 Y178.396519 Z-0.125000
G01 X72.550521 Y178.049016 Z-0.125000
G01 X74.162361 Y177.863464 Z-0.125000
G01 X75.776053 Y177.805917 Z-0.125000
G01 X77.550902 Y177.890636 Z-0.125000
G01 X79.323185 Y178.126353 Z-0.125000
G01 X81.251148 Y178.546432 Z-0.125000
G01 X83.171412 Y179.123514 Z-0.125000
G01 X85.082548 Y179.843179 Z-0.125000
G01 X87.141533 Y180.768215 Z-0.125000
G01 X89.188347 Y181.825991 Z-0.125000
G01 X91.379756 Y183.089481 Z-0.125000
G01 X93.870064 Y184.657108 Z-0.125000
G01 X97.275882 Y186.960859 Z-0.125000
G01 X101.283415 Y189.816715 Z-0.125000
G01 X105.122170 Y192.668523 Z-0.125000
G01 X108.330239 Y195.177934 Z-0.125000
G01 X111.214273 Y197.569262 Z-0.125000
G01 X114.001946 Y200.023560 Z-0.125000
G01 X116.691538 Y202.543422 Z-0.125000
G01 X119.281885 Y205.126969 Z-0.125000
G01 X121.699803 Y207.687868 Z-0.125000
G01 X124.092639 Y210.370105 Z-0.125000
G01 X129.013909 Y216.346532 Z-0.125000
G01 X134.389310 Y223.498845 Z-0.125000
G01 X140.289246 Y231.885015 Z-0.125000
G01 X144.123054 Y237.717218 Z-0.125000
G01 X147.258600 Y242.935404 Z-0.125000
G01 X150.474554 Y248.828619 Z-0.125000
G01 X154.896503 Y257.478393 Z-0.125000
G00 Z3.000000

(End cutting path id: polyline1471)


(Start cutting path id: polyline1473)
(Change tool to Default tool)

G00 Z3.000000
G00 X15.783683 Y240.678537

G00 Z4.875000 (Fast pre-penetrate)
G01 Z-0.125000 F400.0(Penetrate)
G01 X19.083642 Y233.061378 Z-0.125000 F800.000000
G01 X22.264961 Y226.227437 Z-0.125000
G01 X25.440486 Y219.932796 Z-0.125000
G01 X28.547881 Y214.321943 Z-0.125000
G01 X33.142868 Y206.782597 Z-0.125000
G01 X38.647120 Y198.354041 Z-0.125000
G01 X42.099637 Y193.563687 Z-0.125000
G01 X43.800959 Y191.440011 Z-0.125000
G01 X45.530988 Y189.442304 Z-0.125000
G01 X47.434239 Y187.416048 Z-0.125000
G01 X49.512221 Y185.379843 Z-0.125000
G01 X51.764034 Y183.339908 Z-0.125000
G01 X54.262968 Y181.228060 Z-0.125000
G01 X57.466221 Y178.686449 Z-0.125000
G01 X60.688657 Y176.276151 Z-0.125000
G01 X63.315014 Y174.454735 Z-0.125000
G01 X65.496950 Y173.108299 Z-0.125000
G01 X67.383744 Y172.106190 Z-0.125000
G01 X69.126897 Y171.335090 Z-0.125000
G01 X70.881823 Y170.720622 Z-0.125000
G01 X72.485513 Y170.305068 Z-0.125000
G01 X74.094839 Y170.028261 Z-0.125000
G01 X75.868974 Y169.883826 Z-0.125000
G01 X77.644167 Y169.903563 Z-0.125000
G01 X79.417747 Y170.080384 Z-0.125000
G01 X81.348038 Y170.440323 Z-0.125000
G01 X83.431444 Y171.007668 Z-0.125000
G01 X85.505193 Y171.738420 Z-0.125000
G01 X87.567855 Y172.619164 Z-0.125000
G01 X89.775668 Y173.721523 Z-0.125000
G01 X91.968876 Y174.968132 Z-0.125000
G01 X94.302683 Y176.444902 Z-0.125000
G01 X96.774841 Y178.157045 Z-0.125000
G01 X99.690387 Y180.337764 Z-0.125000
G01 X102.891974 Y182.890223 Z-0.125000
G01 X106.226196 Y185.692025 Z-0.125000
G01 X109.464559 Y188.552696 Z-0.125000
G01 X115.130155 Y193.940612 Z-0.125000
G01 X120.777388 Y199.887882 Z-0.125000
G01 X126.832978 Y206.877450 Z-0.125000
G01 X133.430064 Y215.087937 Z-0.125000
G01 X138.648144 Y222.123966 Z-0.125000
G01 X144.592265 Y230.697540 Z-0.125000
G01 X148.752807 Y237.074625 Z-0.125000
G01 X152.148359 Y242.731833 Z-0.125000
G01 X155.123171 Y248.131205 Z-0.125000
G01 X162.098902 Y261.320641 Z-0.125000
G00 Z3.000000

(End cutting path id: polyline1473)


(Start cutting path id: polyline1477)
(Change tool to Default tool)

G00 Z3.000000
G00 X15.783683 Y236.974375

G00 Z4.875000 (Fast pre-penetrate)
G01 Z-0.125000 F400.0(Penetrate)
G01 X19.387780 Y228.745738 Z-0.125000 F800.000000
G01 X22.826036 Y221.458249 Z-0.125000
G01 X25.965816 Y215.352705 Z-0.125000
G01 X29.600895 Y208.885000 Z-0.125000
G01 X35.085330 Y199.742599 Z-0.125000
G01 X39.293100 Y193.195837 Z-0.125000
G01 X41.144969 Y190.561357 Z-0.125000
G01 X43.029938 Y188.053666 Z-0.125000
G01 X45.017512 Y185.587409 Z-0.125000
G01 X47.106447 Y183.166474 Z-0.125000
G01 X49.513571 Y180.552579 Z-0.125000
G01 X52.093308 Y177.913629 Z-0.125000
G01 X54.770253 Y175.323758 Z-0.125000
G01 X57.320595 Y173.001883 Z-0.125000
G01 X59.667578 Y171.015050 Z-0.125000
G01 X61.807737 Y169.352172 Z-0.125000
G01 X63.814176 Y167.944723 Z-0.125000
G01 X65.840008 Y166.692478 Z-0.125000
G01 X67.726882 Y165.691376 Z-0.125000
G01 X69.628652 Y164.851669 Z-0.125000
G01 X71.543201 Y164.182538 Z-0.125000
G01 X73.467883 Y163.690096 Z-0.125000
G01 X75.399710 Y163.377677 Z-0.125000
G01 X77.335478 Y163.245888 Z-0.125000
G01 X79.271988 Y163.292481 Z-0.125000
G01 X81.206248 Y163.512191 Z-0.125000
G01 X83.135640 Y163.896445 Z-0.125000
G01 X85.217829 Y164.487100 Z-0.125000
G01 X87.130341 Y165.186869 Z-0.125000
G01 X89.190120 Y166.102432 Z-0.125000
G01 X91.236272 Y167.166929 Z-0.125000
G01 X93.424400 Y168.459602 Z-0.125000
G01 X95.751725 Y169.989235 Z-0.125000
G01 X98.062064 Y171.648965 Z-0.125000
G01 X100.508081 Y173.548697 Z-0.125000
G01 X102.935947 Y175.567439 Z-0.125000
G01 X108.264914 Y180.395999 Z-0.125000
G01 X114.489229 Y186.556100 Z-0.125000
G01 X119.817057 Y192.322872 Z-0.125000
G01 X126.421313 Y200.105739 Z-0.125000
G01 X135.160807 Y210.904959 Z-0.125000
G01 X140.133327 Y217.436561 Z-0.125000
G01 X145.221285 Y224.610623 Z-0.125000
G01 X151.048249 Y233.261693 Z-0.125000
G01 X155.432839 Y240.199827 Z-0.125000
G01 X158.214824 Y244.959305 Z-0.125000
G01 X164.316505 Y255.914523 Z-0.125000
G01 X167.338598 Y261.174036 Z-0.125000
G00 Z3.000000

(End cutting path id: polyline1477)


(Start cutting path id: polyline1479)
(Change tool to Default tool)

G00 Z3.000000
G00 X15.783683 Y236.048335

G00 Z4.875000 (Fast pre-penetrate)
G01 Z-0.125000 F400.0(Penetrate)
G01 X19.565950 Y227.443011 Z-0.125000 F800.000000
G01 X23.194415 Y219.809606 Z-0.125000
G01 X26.601741 Y213.283507 Z-0.125000
G01 X30.764425 Y205.959559 Z-0.125000
G01 X35.990125 Y197.260229 Z-0.125000
G01 X39.812132 Y191.388312 Z-0.125000
G01 X41.739910 Y188.683638 Z-0.125000
G01 X43.701343 Y186.109457 Z-0.125000
G01 X45.764747 Y183.575758 Z-0.125000
G01 X48.000314 Y180.999539 Z-0.125000
G01 X52.984000 Y175.730475 Z-0.125000
G01 X55.436314 Y173.348011 Z-0.125000
G01 X57.762581 Y171.236744 Z-0.125000
G01 X60.037280 Y169.335292 Z-0.125000
G01 X62.180640 Y167.694507 Z-0.125000
G01 X64.345273 Y166.208053 Z-0.125000
G01 X66.374942 Y164.989067 Z-0.125000
G01 X68.422868 Y163.943170 Z-0.125000
G01 X70.327865 Y163.142859 Z-0.125000
G01 X72.244690 Y162.508813 Z-0.125000
G01 X74.170775 Y162.046030 Z-0.125000
G01 X76.103315 Y161.757212 Z-0.125000
G01 X78.039296 Y161.642912 Z-0.125000
G01 X79.975752 Y161.701199 Z-0.125000
G01 X82.070879 Y161.953823 Z-0.125000
G01 X83.999663 Y162.353899 Z-0.125000
G01 X85.921170 Y162.908597 Z-0.125000
G01 X87.833232 Y163.614664 Z-0.125000
G01 X89.892032 Y164.541604 Z-0.125000
G01 X91.936544 Y165.622531 Z-0.125000
G01 X94.122132 Y166.937641 Z-0.125000
G01 X96.291660 Y168.386445 Z-0.125000
G01 X98.599379 Y170.065224 Z-0.125000
G01 X100.890297 Y171.861292 Z-0.125000
G01 X103.315412 Y173.897232 Z-0.125000
G01 X108.335981 Y178.501082 Z-0.125000
G01 X114.697350 Y184.866896 Z-0.125000
G01 X120.019013 Y190.663751 Z-0.125000
G01 X126.253912 Y198.069958 Z-0.125000
G01 X135.915557 Y210.017336 Z-0.125000
G01 X140.753166 Y216.344442 Z-0.125000
G01 X145.574900 Y223.097711 Z-0.125000
G01 X151.751749 Y232.212225 Z-0.125000
G01 X156.421586 Y239.505799 Z-0.125000
G01 X159.157745 Y244.095997 Z-0.125000
G01 X165.687918 Y255.596176 Z-0.125000
G01 X168.997904 Y261.209119 Z-0.125000
G00 Z3.000000

(End cutting path id: polyline1479)


(Start cutting path id: polyline1481)
(Change tool to Default tool)

G00 Z3.000000
G00 X15.783683 Y233.270213

G00 Z4.875000 (Fast pre-penetrate)
G01 Z-0.125000 F400.0(Penetrate)
G01 X19.985579 Y223.795337 Z-0.125000 F800.000000
G01 X23.882780 Y215.739658 Z-0.125000
G01 X28.197468 Y207.663262 Z-0.125000
G01 X34.034883 Y197.438372 Z-0.125000
G01 X37.983943 Y191.010090 Z-0.125000
G01 X41.720252 Y185.513802 Z-0.125000
G01 X45.709581 Y180.260400 Z-0.125000
G01 X50.154523 Y174.991071 Z-0.125000
G01 X52.413506 Y172.524602 Z-0.125000
G01 X54.477783 Y170.416140 Z-0.125000
G01 X56.566321 Y168.437562 Z-0.125000
G01 X58.752147 Y166.519309 Z-0.125000
G01 X61.034361 Y164.665931 Z-0.125000
G01 X63.338085 Y162.958842 Z-0.125000
G01 X65.509147 Y161.522632 Z-0.125000
G01 X67.543103 Y160.341587 Z-0.125000
G01 X69.593304 Y159.319212 Z-0.125000
G01 X71.498698 Y158.523849 Z-0.125000
G01 X73.574801 Y157.829398 Z-0.125000
G01 X75.500013 Y157.347248 Z-0.125000
G01 X77.592600 Y157.000882 Z-0.125000
G01 X79.528078 Y156.845731 Z-0.125000
G01 X81.464719 Y156.849091 Z-0.125000
G01 X83.561249 Y157.029854 Z-0.125000
G01 X85.492519 Y157.360530 Z-0.125000
G01 X87.257103 Y157.806961 Z-0.125000
G01 X89.013934 Y158.392774 Z-0.125000
G01 X90.919275 Y159.188534 Z-0.125000
G01 X92.811070 Y160.139683 Z-0.125000
G01 X94.688287 Y161.232411 Z-0.125000
G01 X96.705626 Y162.555300 Z-0.125000
G01 X98.860549 Y164.114593 Z-0.125000
G01 X103.426008 Y167.813199 Z-0.125000
G01 X107.925850 Y171.913786 Z-0.125000
G01 X114.208824 Y178.229012 Z-0.125000
G01 X120.133419 Y184.565483 Z-0.125000
G01 X125.097552 Y190.352787 Z-0.125000
G01 X137.246224 Y205.372873 Z-0.125000
G01 X141.905451 Y211.294716 Z-0.125000
G01 X145.945819 Y216.716736 Z-0.125000
G01 X152.111767 Y225.524202 Z-0.125000
G01 X159.490378 Y236.512889 Z-0.125000
G01 X163.222692 Y242.360041 Z-0.125000
G01 X169.853618 Y253.236943 Z-0.125000
G00 Z3.000000

(End cutting path id: polyline1481)


(Start cutting path id: polyline1483)
(Change tool to Default tool)

G00 Z3.000000
G00 X15.783683 Y232.344173

G00 Z4.875000 (Fast pre-penetrate)
G01 Z-0.125000 F400.0(Penetrate)
G01 X20.047703 Y222.750234 Z-0.125000 F800.000000
G01 X23.888919 Y214.828487 Z-0.125000
G01 X28.577779 Y206.046871 Z-0.125000
G01 X34.471762 Y195.687071 Z-0.125000
G01 X38.430294 Y189.289639 Z-0.125000
G01 X42.311701 Y183.626584 Z-0.125000
G01 X46.517591 Y178.123178 Z-0.125000
G01 X50.968433 Y172.880254 Z-0.125000
G01 X53.161614 Y170.527979 Z-0.125000
G01 X55.309526 Y168.396155 Z-0.125000
G01 X57.557370 Y166.333439 Z-0.125000
G01 X59.903560 Y164.341553 Z-0.125000
G01 X62.194690 Y162.547151 Z-0.125000
G01 X64.352840 Y161.011749 Z-0.125000
G01 X66.530729 Y159.630996 Z-0.125000
G01 X68.570135 Y158.500459 Z-0.125000
G01 X70.624701 Y157.525471 Z-0.125000
G01 X72.692708 Y156.713519 Z-0.125000
G01 X74.771960 Y156.071005 Z-0.125000
G01 X76.860076 Y155.603355 Z-0.125000
G01 X78.954329 Y155.314827 Z-0.125000
G01 X80.890442 Y155.209788 Z-0.125000
G01 X82.988294 Y155.271224 Z-0.125000
G01 X84.922581 Y155.489981 Z-0.125000
G01 X86.852053 Y155.871854 Z-0.125000
G01 X88.613937 Y156.370937 Z-0.125000
G01 X90.366958 Y157.014006 Z-0.125000
G01 X92.266823 Y157.875885 Z-0.125000
G01 X94.151898 Y158.894926 Z-0.125000
G01 X96.021441 Y160.055070 Z-0.125000
G01 X98.029785 Y161.448258 Z-0.125000
G01 X100.022121 Y162.957757 Z-0.125000
G01 X104.644783 Y166.838687 Z-0.125000
G01 X109.351582 Y171.247566 Z-0.125000
G01 X116.503737 Y178.547464 Z-0.125000
G01 X122.267254 Y184.799613 Z-0.125000
G01 X126.645600 Y189.962130 Z-0.125000
G01 X139.435410 Y205.765487 Z-0.125000
G01 X143.667124 Y211.165203 Z-0.125000
G01 X147.565914 Y216.409185 Z-0.125000
G01 X153.529694 Y224.910713 Z-0.125000
G01 X161.604317 Y236.840126 Z-0.125000
G01 X164.690466 Y241.574283 Z-0.125000
G01 X171.118590 Y251.825763 Z-0.125000
G01 X174.333829 Y256.783069 Z-0.125000
G00 Z3.000000

(End cutting path id: polyline1483)


(Start cutting path id: polyline1485)
(Change tool to Default tool)

G00 Z3.000000
G00 X15.783683 Y231.418132

G00 Z4.875000 (Fast pre-penetrate)
G01 Z-0.125000 F400.0(Penetrate)
G01 X19.992378 Y221.959131 Z-0.125000 F800.000000
G01 X23.772317 Y214.157901 Z-0.125000
G01 X28.639083 Y204.997773 Z-0.125000
G01 X34.389186 Y194.816249 Z-0.125000
G01 X38.408043 Y188.293855 Z-0.125000
G01 X42.280903 Y182.599870 Z-0.125000
G01 X46.544738 Y176.956023 Z-0.125000
G01 X50.914564 Y171.756888 Z-0.125000
G01 X53.033239 Y169.476077 Z-0.125000
G01 X55.254201 Y167.265433 Z-0.125000
G01 X57.576182 Y165.129348 Z-0.125000
G01 X59.997090 Y163.067241 Z-0.125000
G01 X62.287056 Y161.265061 Z-0.125000
G01 X64.443592 Y159.717806 Z-0.125000
G01 X66.619285 Y158.318903 Z-0.125000
G01 X68.813498 Y157.082004 Z-0.125000
G01 X70.866371 Y156.087992 Z-0.125000
G01 X72.932447 Y155.250534 Z-0.125000
G01 X75.009820 Y154.576561 Z-0.125000
G01 X77.096322 Y154.072345 Z-0.125000
G01 X79.189438 Y153.743125 Z-0.125000
G01 X81.286417 Y153.592630 Z-0.125000
G01 X83.384401 Y153.622343 Z-0.125000
G01 X85.319270 Y153.812551 Z-0.125000
G01 X87.089040 Y154.132935 Z-0.125000
G01 X88.852618 Y154.599474 Z-0.125000
G01 X90.607517 Y155.214709 Z-0.125000
G01 X92.351437 Y155.976735 Z-0.125000
G01 X94.082656 Y156.878777 Z-0.125000
G01 X95.955639 Y158.009182 Z-0.125000
G01 X97.966364 Y159.383982 Z-0.125000
G01 X99.959521 Y160.887739 Z-0.125000
G01 X104.580304 Y164.780390 Z-0.125000
G01 X109.510332 Y169.404401 Z-0.125000
G01 X116.961730 Y176.983117 Z-0.125000
G01 X123.029783 Y183.490033 Z-0.125000
G01 X127.706472 Y188.940496 Z-0.125000
G01 X139.943516 Y203.974366 Z-0.125000
G01 X144.258441 Y209.411600 Z-0.125000
G01 X148.033088 Y214.408647 Z-0.125000
G01 X153.608778 Y222.237340 Z-0.125000
G01 X163.143635 Y236.145542 Z-0.125000
G01 X166.725136 Y241.510862 Z-0.125000
G01 X174.293056 Y253.186090 Z-0.125000
G00 Z3.000000

(End cutting path id: polyline1485)


(Start cutting path id: polyline1487)
(Change tool to Default tool)

G00 Z3.000000
G00 X15.783683 Y229.566051

G00 Z4.875000 (Fast pre-penetrate)
G01 Z-0.125000 F400.0(Penetrate)
G01 X19.822913 Y220.503872 Z-0.125000 F800.000000
G01 X23.538955 Y212.816307 Z-0.125000
G01 X28.757299 Y202.887803 Z-0.125000
G01 X34.032422 Y193.416446 Z-0.125000
G01 X38.164812 Y186.621187 Z-0.125000
G01 X42.151892 Y180.650396 Z-0.125000
G01 X46.461394 Y174.818616 Z-0.125000
G01 X50.529490 Y169.894144 Z-0.125000
G01 X52.717221 Y167.515437 Z-0.125000
G01 X54.934479 Y165.285161 Z-0.125000
G01 X57.326442 Y163.052134 Z-0.125000
G01 X59.892791 Y160.825297 Z-0.125000
G01 X62.329892 Y158.866140 Z-0.125000
G01 X64.635309 Y157.170983 Z-0.125000
G01 X66.961364 Y155.631533 Z-0.125000
G01 X69.150524 Y154.348094 Z-0.125000
G01 X71.356247 Y153.223907 Z-0.125000
G01 X73.417983 Y152.332130 Z-0.125000
G01 X75.491388 Y151.595981 Z-0.125000
G01 X77.574556 Y151.024005 Z-0.125000
G01 X79.665317 Y150.623638 Z-0.125000
G01 X81.761079 Y150.400145 Z-0.125000
G01 X83.859010 Y150.356383 Z-0.125000
G01 X85.794885 Y150.482007 Z-0.125000
G01 X87.566347 Y150.748019 Z-0.125000
G01 X89.332227 Y151.165954 Z-0.125000
