%
(Header)
(Generated by gcodetools from Inkscape.)
(Using default header. To add your own header create file "header" in the output dir.)
M3
(Header end.)
G21 (All units in mm)

(Start cutting path id: path138)
(Change tool to Default tool)

G00 Z3.000000
G00 X140.707843 Y137.053824

G00 Z4.875000 (Fast pre-penetrate)
G01 Z-0.125000 F400.0(Penetrate)
G02 X138.182232 Y133.639380 Z-0.125000 I-15.014047 J8.464357 F800.000000
G02 X134.878243 Y130.933574 Z-0.125000 I-12.486980 J11.877417
G02 X131.012282 Y129.119217 Z-0.125000 I-9.260741 J14.706529
G02 X126.808873 Y128.301654 Z-0.125000 I-5.394150 J16.518957
G02 X122.533112 Y128.535709 Z-0.125000 I-1.193300 J17.372783
G02 X118.446493 Y129.804934 Z-0.125000 I3.082341 J17.138059
G02 X114.794116 Y132.034623 Z-0.125000 I7.135342 J15.794420
G02 X111.809653 Y135.077754 Z-0.125000 I10.787874 J13.564925
G02 X109.662913 Y138.760047 Z-0.125000 I13.630669 J10.413452
G02 X108.494503 Y142.831484 Z-0.125000 I15.777217 J6.731077
G02 X108.366611 Y147.065344 Z-0.125000 I16.718071 J2.623863
G02 X109.283983 Y151.169994 Z-0.125000 I16.844677 J-1.609874
G02 X111.191690 Y154.918389 Z-0.125000 I15.715506 J-5.638595
G02 X113.956153 Y158.053914 Z-0.125000 I13.806038 J-9.385793
G02 X117.415836 Y160.400047 Z-0.125000 I10.932765 J-12.397864
G02 X121.338483 Y161.799944 Z-0.125000 I7.472443 J-14.742736
G02 X125.486729 Y162.172771 Z-0.125000 I3.536078 J-16.079970
G02 X129.595003 Y161.492984 Z-0.125000 I-0.612207 J-16.453870
G02 X133.402017 Y159.805756 Z-0.125000 I-4.735149 J-15.822888
G02 X136.675743 Y157.210154 Z-0.125000 I-8.543508 J-14.137886
G02 X139.197488 Y153.879209 Z-0.125000 I-11.927028 J-11.649584
G02 X140.818683 Y150.001974 Z-0.125000 I-14.451336 J-8.320115
G02 X141.425868 Y145.843542 Z-0.125000 I-16.283247 J-4.501110
G02 X140.981133 Y141.635084 Z-0.125000 I-16.891451 J-0.342699
G02 X139.511215 Y137.666682 Z-0.125000 I-16.670002 J3.918227
G02 X137.095023 Y134.159764 Z-0.125000 I-15.199534 J7.886344
G02 X133.891884 Y131.353312 Z-0.125000 I-12.920279 J11.515365
G02 X130.083583 Y129.407954 Z-0.125000 I-9.716140 J14.320343
G02 X125.915153 Y128.453123 Z-0.125000 I-5.939234 J16.352139
G02 X121.635283 Y128.544684 Z-0.125000 I-1.770685 J17.305805
G02 X117.507541 Y129.679305 Z-0.125000 I2.506024 J17.192558
G02 X113.790463 Y131.782894 Z-0.125000 I6.633618 J16.057579
G02 X110.701641 Y134.732629 Z-0.125000 I10.273554 J13.850077
G02 X108.441753 Y138.331234 Z-0.125000 I13.362333 J10.900307
G02 X107.136511 Y142.375179 Z-0.125000 I15.437005 J7.215134
G02 X106.870713 Y146.587894 Z-0.125000 I16.741390 J3.171027
G02 X107.655687 Y150.735356 Z-0.125000 I16.779267 J-1.027732
G02 X109.434073 Y154.532704 Z-0.125000 I15.992916 J-5.174748
G02 X112.101808 Y157.767776 Z-0.125000 I14.048581 J-8.867390
G02 X115.476363 Y160.221794 Z-0.125000 I11.379909 J-12.101466
G02 X119.357348 Y161.754030 Z-0.125000 I7.949501 J-14.454041
G02 X123.490413 Y162.263494 Z-0.125000 I4.068464 J-15.986072
G02 X127.619325 Y161.721410 Z-0.125000 I-0.064888 J-16.489685
G02 X131.486363 Y160.159094 Z-0.125000 I-4.193705 J-15.947239
G02 X134.839657 Y157.679129 Z-0.125000 I-8.110886 J-14.474236
G02 X137.478833 Y154.424904 Z-0.125000 I-11.466195 J-11.996378
G02 X139.224194 Y150.615838 Z-0.125000 I-14.263499 J-8.840118
G02 X139.973053 Y146.465864 Z-0.125000 I-16.010978 J-5.031718
G02 X139.670817 Y142.259732 Z-0.125000 I-16.983853 J-0.893533
G02 X138.330773 Y138.231594 Z-0.125000 I-16.682194 J3.312714
G02 X136.040316 Y134.657343 Z-0.125000 I-15.529278 J7.430482
G02 X132.926573 Y131.739004 Z-0.125000 I-13.237802 J11.003885
G02 X129.192681 Y129.672613 Z-0.125000 I-10.205605 J14.034451
G02 X125.056163 Y128.578524 Z-0.125000 I-6.471220 J16.099615
G02 X120.777699 Y128.528863 Z-0.125000 I-2.339515 J17.230089
G02 X116.619103 Y129.524704 Z-0.125000 I1.938572 J17.276392
G02 X112.830406 Y131.507490 Z-0.125000 I6.071159 J16.211839
G02 X109.653753 Y134.346554 Z-0.125000 I9.859702 J14.228830
G02 X107.270984 Y137.878407 Z-0.125000 I12.910644 J11.279880
G02 X105.838213 Y141.864144 Z-0.125000 I15.293110 J7.747873
G02 X105.433074 Y146.080171 Z-0.125000 I16.513830 J3.714377
G02 X106.079473 Y150.237444 Z-0.125000 I16.917934 J-0.501619
G02 X107.737470 Y154.104208 Z-0.125000 I16.066551 J-4.600201
G02 X110.291293 Y157.416864 Z-0.125000 I14.407076 J-8.466096
G02 X113.590873 Y159.987571 Z-0.125000 I11.742068 J-11.668389
G02 X117.415413 Y161.645034 Z-0.125000 I8.441793 J-14.237922
G02 X121.533069 Y162.292532 Z-0.125000 I4.599856 J-15.835498
G02 X125.680563 Y161.887104 Z-0.125000 I0.482225 J-16.483847
G02 X129.594529 Y160.456343 Z-0.125000 I-3.675585 J-16.123736
G02 X133.036193 Y158.084084 Z-0.125000 I-7.590839 J-14.695467
G02 X135.776702 Y154.927774 Z-0.125000 I-11.128512 J-12.430380
G02 X137.654473 Y151.167294 Z-0.125000 I-13.871378 J-9.275647
G02 X138.539339 Y147.058254 Z-0.125000 I-15.943079 J-5.583078
G02 X138.377843 Y142.830354 Z-0.125000 I-16.829586 J-1.474182
G02 X137.177396 Y138.773245 Z-0.125000 I-16.881763 J2.788945
G02 X135.002423 Y135.114504 Z-0.125000 I-15.681217 J6.846011
G02 X131.995475 Y132.102026 Z-0.125000 I-13.643525 J10.611525
G02 X128.327893 Y129.908884 Z-0.125000 I-10.635838 J13.623056
G02 X124.235106 Y128.680050 Z-0.125000 I-7.003828 J15.896939
G02 X119.961753 Y128.487944 Z-0.125000 I-2.910811 J17.124414
G02 X115.771146 Y129.346603 Z-0.125000 I1.360973 J17.297369
G02 X111.925713 Y131.199454 Z-0.125000 I5.551551 J16.438628
G02 X108.651406 Y133.937966 Z-0.125000 I9.331252 J14.483650
G02 X106.160723 Y137.379374 Z-0.125000 I12.605609 J11.745185
G02 X104.593378 Y141.327816 Z-0.125000 I14.926923 J8.210587
G02 X104.051783 Y145.514364 Z-0.125000 I16.493880 J4.262044
G02 X104.562972 Y149.704750 Z-0.125000 I16.819068 J0.074599
G02 X106.088773 Y153.612394 Z-0.125000 I16.306637 J-4.115474
G02 X108.539008 Y157.017433 Z-0.125000 I14.617519 J-7.934530
G02 X111.746623 Y159.690394 Z-0.125000 I12.165913 J-11.338291
G02 X115.520447 Y161.476965 Z-0.125000 I8.898937 J-13.918409
G02 X119.613763 Y162.259804 Z-0.125000 I5.124991 J-15.704608
G02 X123.772726 Y161.993078 Z-0.125000 I1.031167 J-16.479380
G02 X127.737803 Y160.691034 Z-0.125000 I-3.128131 J-16.214393
G02 X131.251456 Y158.439075 Z-0.125000 I-7.134204 J-14.998343
G02 X134.103483 Y155.367574 Z-0.125000 I-10.649719 J-12.748613
G02 X136.100793 Y151.682635 Z-0.125000 I-13.644153 J-9.779162
G02 X137.126133 Y147.592164 Z-0.125000 I-15.643599 J-6.095055
G02 X137.106487 Y143.375199 Z-0.125000 I-16.879372 J-2.029890
G02 X136.039623 Y139.267774 Z-0.125000 I-16.861190 J2.187265
G02 X133.994116 Y135.549578 Z-0.125000 I-15.976165 J6.367287
G02 X131.083953 Y132.431724 Z-0.125000 I-13.930059 J10.085049
G02 X127.498208 Y130.122504 Z-0.125000 I-11.104584 J13.304569
G02 X123.446463 Y128.756884 Z-0.125000 I-7.517907 J15.611855
G02 X119.183763 Y128.423893 Z-0.125000 I-3.473289 J17.012009
G02 X114.971203 Y129.142064 Z-0.125000 I0.789366 J17.344018
G02 X111.062520 Y130.869401 Z-0.125000 I4.981615 J16.558608
G02 X107.707333 Y133.491984 Z-0.125000 I8.890286 J14.831252
G02 X105.098713 Y136.858044 Z-0.125000 I12.133774 J12.097242
G02 X103.407543 Y140.740604 Z-0.125000 I14.741917 J8.730900
G02 X102.726643 Y144.920410 Z-0.125000 I16.235922 J4.790232
G02 X103.098823 Y149.112104 Z-0.125000 I16.916039 J0.610397
G02 X104.499521 Y153.080333 Z-0.125000 I16.346170 J-3.538516
G02 X106.831093 Y156.555674 Z-0.125000 I14.944031 J-7.506021
G02 X109.955692 Y159.339755 Z-0.125000 I12.500031 J-10.883473
G02 X113.664943 Y161.247634 Z-0.125000 I9.374874 J-13.666743
G02 X117.733505 Y162.167098 Z-0.125000 I5.645189 J-15.518277
G02 X121.901663 Y162.037944 Z-0.125000 I1.576714 J-16.438650
G02 X125.904963 Y160.870139 Z-0.125000 I-2.598214 J-16.352493
G02 X129.499113 Y158.731744 Z-0.125000 I-6.602487 J-15.186927
G02 X132.446001 Y155.764182 Z-0.125000 I-10.280181 J-13.155522
G02 X134.571723 Y152.137074 Z-0.125000 I-13.229385 J-10.189744
G02 X135.730090 Y148.095705 Z-0.125000 I-15.533873 J-6.639128
G02 X135.852173 Y143.867064 Z-0.125000 I-16.694107 J-2.598050
G02 X134.926194 Y139.739261 Z-0.125000 I-17.020522 J1.650405
G02 X133.001633 Y135.944934 Z-0.125000 I-16.094367 J5.778144
G02 X130.203789 Y132.739804 Z-0.125000 I-14.306869 J9.665128
G02 X126.692733 Y130.308684 Z-0.125000 I-11.508066 J12.869186
G02 X122.693251 Y128.811384 Z-0.125000 I-8.035901 J15.374714
G02 X118.444923 Y128.336594 Z-0.125000 I-4.036194 J16.871074
G02 X114.209543 Y128.915675 Z-0.125000 I0.211849 J17.327730
G02 X110.252383 Y130.509744 Z-0.125000 I4.447216 J16.748598
G02 X106.806673 Y133.025149 Z-0.125000 I8.348736 J15.054202
G02 X104.095843 Y136.294264 Z-0.125000 I11.794220 J12.538556
G02 X102.272992 Y140.130015 Z-0.125000 I14.351338 J9.171149
G02 X101.457603 Y144.272044 Z-0.125000 I16.173295 J5.335103
G02 X101.692488 Y148.487027 Z-0.125000 I16.784186 J1.178717
G02 X102.958613 Y152.487894 Z-0.125000 I16.547832 J-3.035996
G02 X105.180237 Y156.048006 Z-0.125000 I15.121301 J-6.962939
G02 X108.206443 Y158.928294 Z-0.125000 I12.898683 J-10.522239
G02 X111.856146 Y160.961441 Z-0.125000 I9.810331 J-13.318160
G02 X115.891373 Y162.014354 Z-0.125000 I6.160552 J-15.351119
G02 X120.061707 Y162.024277 Z-0.125000 I2.124191 J-16.395281
G02 X124.107053 Y160.988374 Z-0.125000 I-2.046637 J-16.409173
G02 X127.765263 Y158.974515 Z-0.125000 I-6.124984 J-15.455668
G02 X130.817253 Y156.099354 Z-0.125000 I-9.784803 J-13.444021
G02 X133.057425 Y152.554936 Z-0.125000 I-12.965092 J-10.674440
G02 X134.354373 Y148.542054 Z-0.125000 I-15.207220 J-7.130939
G02 X134.617142 Y144.332979 Z-0.125000 I-16.702094 J-3.155438
G02 X133.827763 Y140.164444 Z-0.125000 I-16.965456 J1.053673
G02 X132.035919 Y136.318801 Z-0.125000 I-16.353395 J5.279453
G02 X129.341773 Y133.015294 Z-0.125000 I-14.561013 J9.124759
G02 X125.919660 Y130.473519 Z-0.125000 I-11.953488 J12.518985
G02 X121.970203 Y128.842504 Z-0.125000 I-8.530660 J15.059498
G02 X117.741674 Y128.227785 Z-0.125000 I-4.590019 J16.722863
G02 X113.493393 Y128.665244 Z-0.125000 I-0.361467 J17.336520
G02 X109.481587 Y130.129711 Z-0.125000 I3.871841 J16.833902
G02 X105.962353 Y132.524334 Z-0.125000 I7.883660 J15.369462
G02 X103.139049 Y135.709973 Z-0.125000 I11.303798 J12.862010
G02 X101.196583 Y139.472314 Z-0.125000 I14.126802 J9.676165
G02 X100.242644 Y143.597663 Z-0.125000 I15.885913 J5.846402
G02 X100.338594 Y147.805394 Z-0.125000 I16.839068 J1.720973
G02 X101.475550 Y151.857743 Z-0.125000 I16.553269 J-2.458632
G02 X103.574223 Y155.480584 Z-0.125000 I15.414819 J-6.510351
G02 X106.509780 Y158.465882 Z-0.125000 I13.203497 J-10.047530
G02 X110.087083 Y160.615924 Z-0.125000 I10.267338 J-13.032064
G02 X114.088285 Y161.803416 Z-0.125000 I6.667268 J-15.130379
G02 X118.258443 Y161.951234 Z-0.125000 I2.666123 J-16.318218
G02 X122.333108 Y161.051677 Z-0.125000 I-1.507791 J-16.507892
G02 X126.063613 Y159.156654 Z-0.125000 I-5.583166 J-15.610322
G02 X129.203584 Y156.391083 Z-0.125000 I-9.386496 J-13.822542
G02 X131.567583 Y152.913384 Z-0.125000 I-12.528152 J-11.058458
G02 X132.994062 Y148.957641 Z-0.125000 I-15.057433 J-7.664926
G02 X133.398823 Y144.746944 Z-0.125000 I-16.485208 J-3.709475
G02 X132.751123 Y140.566750 Z-0.125000 I-17.084419 J0.506868
G02 X131.085063 Y136.653654 Z-0.125000 I-16.437445 J4.687269
G02 X128.508354 Y133.270091 Z-0.125000 I-14.906994 J8.679321
G02 X125.168943 Y130.611834 Z-0.125000 I-12.329420 J12.062038
G02 X121.280040 Y128.852768 Z-0.125000 I-9.031470 J14.788286
G02 X117.075133 Y128.097504 Z-0.125000 I-5.142250 J16.546335
G02 X112.813282 Y128.394607 Z-0.125000 I-0.936348 J17.284380
G02 X108.761533 Y129.722954 Z-0.125000 I3.325395 J16.986720
G02 X105.159259 Y132.004367 Z-0.125000 I7.330637 J15.559465
G02 X102.239913 Y135.086854 Z-0.125000 I10.932538 J13.277598
G02 X100.169292 Y138.793182 Z-0.125000 I13.711547 J10.091816
G02 X99.083364 Y142.872514 Z-0.125000 I15.781942 J6.385397
G02 X99.040715 Y147.093717 Z-0.125000 I16.671749 J2.279261
G02 X100.041134 Y151.170234 Z-0.125000 I16.722693 J-1.942906
G02 X102.024085 Y154.869851 Z-0.125000 I15.558553 J-5.957973
G02 X104.855193 Y157.944914 Z-0.125000 I13.574508 J-9.656811
G02 X108.364375 Y160.215782 Z-0.125000 I10.679365 J-12.656062
G02 X112.323443 Y161.534254 Z-0.125000 I7.170017 J-14.926582
G02 X116.486421 Y161.820942 Z-0.125000 I3.209636 J-16.238415
G02 X120.593963 Y161.055804 Z-0.125000 I-0.953405 J-16.526196
G02 X124.380275 Y159.289094 Z-0.125000 I-5.087384 J-15.843644
G02 X127.618503 Y156.622974 Z-0.125000 I-8.875128 J-14.079207
G02 X130.091358 Y153.234880 Z-0.125000 I-12.229105 J-11.522082
G02 X131.653883 Y149.317294 Z-0.125000 I-14.703725 J-8.134965
G02 X132.197638 Y145.134796 Z-0.125000 I-16.452126 J-4.265492
G02 X131.688883 Y140.923584 Z-0.125000 I-16.996485 J-0.082997
G02 X130.158309 Y136.967521 Z-0.125000 I-16.659614 J4.171378
G02 X127.691703 Y133.493024 Z-0.125000 I-15.128264 J8.127024
G02 X124.447962 Y130.729985 Z-0.125000 I-12.749345 J11.681866
G02 X120.617873 Y128.840904 Z-0.125000 I-9.504970 J14.443942
G02 X116.441796 Y127.947264 Z-0.125000 I-5.684989 J16.362117
G02 X112.176223 Y128.102204 Z-0.125000 I-1.508841 J17.254944
G02 X108.078615 Y129.297486 Z-0.125000 I2.746408 J17.036358
G02 X104.410533 Y131.453684 Z-0.125000 I6.843955 J15.840936
G02 X101.384678 Y134.445029 Z-0.125000 I10.424565 J13.570884
G02 X99.199144 Y138.070644 Z-0.125000 I13.450175 J10.579346
G02 X97.976100 Y142.123520 Z-0.125000 I15.465474 J6.878021
G02 X97.795054 Y146.328814 Z-0.125000 I16.687513 J2.824975
G02 X98.662988 Y150.447558 Z-0.125000 I16.686454 J-1.365479
G02 X100.519174 Y154.202044 Z-0.125000 I15.816933 J-5.483674
G02 X103.252452 Y157.375504 Z-0.125000 I13.848864 J-9.164117
G02 X106.681713 Y159.758364 Z-0.125000 I11.114812 J-12.336719
G02 X110.597628 Y161.208762 Z-0.125000 I7.661146 J-14.672781
G02 X114.751133 Y161.633014 Z-0.125000 I3.745338 J-16.123637
G02 X118.878870 Y161.005788 Z-0.125000 I-0.409392 J-16.590004
G02 X122.729033 Y159.362564 Z-0.125000 I-4.537250 J-15.963202
G02 X126.047940 Y156.811328 Z-0.125000 I-8.450463 J-14.427624
G02 X128.639493 Y153.498404 Z-0.125000 I-11.770943 J-11.877975
G02 X130.327533 Y149.645852 Z-0.125000 I-14.514659 J-8.655856
G02 X131.012843 Y145.471714 Z-0.125000 I-16.204081 J-4.803714
G02 X130.645992 Y141.257652 Z-0.125000 I-17.075445 J-0.636514
G02 X129.245443 Y137.243104 Z-0.125000 I-16.708777 J3.577588
G02 X126.900921 Y133.696088 Z-0.125000 I-15.441662 J7.658344
G02 X123.747533 Y130.822524 Z-0.125000 I-13.096530 J11.204839
G02 X119.986014 Y128.809528 Z-0.125000 I-9.986186 J14.139438
G02 X115.842753 Y127.777244 Z-0.125000 I-6.224381 J16.151691
G02 X111.572863 Y127.791149 Z-0.125000 I-2.079064 J17.166997
G02 X107.444083 Y128.848034 Z-0.125000 I2.190465 J17.150270
G02 X103.700787 Y130.885554 Z-0.125000 I6.281148 J15.996937
G02 X100.585494 Y133.767894 Z-0.125000 I10.024168 J13.959033
G02 X98.275922 Y137.328648 Z-0.125000 I13.011805 J10.969094
G02 X96.923914 Y141.327354 Z-0.125000 I15.320759 J7.408041
G02 X96.603498 Y145.536266 Z-0.125000 I16.490219 J3.372019
G02 X97.333614 Y149.670614 Z-0.125000 I16.809191 J-0.836821
G02 X99.068888 Y153.493528 Z-0.125000 I15.926385 J-4.923919
G02 X101.692103 Y156.749924 Z-0.125000 I14.190300 J-8.746333
G02 X105.045017 Y159.248608 Z-0.125000 I11.501943 J-11.935202
G02 X108.910173 Y160.826954 Z-0.125000 I8.148746 J-14.433384
G02 X113.047138 Y161.389235 Z-0.125000 I4.282284 J-16.006847
G02 X117.198503 Y160.898354 Z-0.125000 I0.145330 J-16.570388
G02 X121.095915 Y159.386700 Z-0.125000 I-4.026431 J-16.161184
G02 X124.505833 Y156.941434 Z-0.125000 I-7.924824 J-14.651344
G02 X127.200204 Y153.724723 Z-0.125000 I-11.438972 J-12.318254
G02 X129.021103 Y149.919724 Z-0.125000 I-14.134743 J-9.102444
G02 X129.843184 Y145.782353 Z-0.125000 I-16.129983 J-5.355328
G02 X129.616913 Y141.547074 Z-0.125000 I-16.952528 J-1.217990
G02 X128.354092 Y137.498124 Z-0.125000 I-16.892805 J3.047269
G02 X126.125543 Y133.868024 Z-0.125000 I-15.629703 J7.096091
G02 X123.074178 Y130.895977 Z-0.125000 I-13.488934 J10.796500
G02 X119.380003 Y128.757244 Z-0.125000 I-10.437097 J13.767925
G02 X115.274436 Y127.588720 Z-0.125000 I-6.753751 J15.932418
G02 X111.010083 Y127.460544 Z-0.125000 I-2.648098 J17.100383
G02 X106.844379 Y128.381513 Z-0.125000 I1.610320 J17.165356
G02 X103.043343 Y130.289844 Z-0.125000 I5.776024 J16.244388
G02 X99.827944 Y133.073896 Z-0.125000 I9.500280 J14.221023
G02 X97.408674 Y136.546844 Z-0.125000 I12.715344 J11.436670
G02 X95.921638 Y140.509541 Z-0.125000 I14.976224 J7.880316
G02 X95.464064 Y144.693944 Z-0.125000 I16.462460 J3.917428
G02 X96.058904 Y148.861046 Z-0.125000 I16.746372 J-0.264484
G02 X97.664074 Y152.730734 Z-0.125000 I16.148654 J-4.430797
G02 X100.182762 Y156.078452 Z-0.125000 I14.432967 J-8.237444
G02 X103.448583 Y158.683744 Z-0.125000 I11.913450 J-11.584356
G02 X107.261620 Y160.390740 Z-0.125000 I8.622149 J-14.147674
G02 X111.379913 Y161.089664 Z-0.125000 I4.809270 J-15.855193
G02 X115.542229 Y160.737672 Z-0.125000 I0.692679 J-16.594812
G02 X119.494813 Y159.353534 Z-0.125000 I-3.470075 J-16.244868
G02 X122.977728 Y157.028008 Z-0.125000 I-7.476500 J-14.968399
G02 X125.785153 Y153.894474 Z-0.125000 I-10.960894 J-12.644579
G02 X127.727038 Y150.162225 Z-0.125000 I-13.908506 J-9.607886
G02 X128.689563 Y146.043074 Z-0.125000 I-15.851616 J-5.876090
G02 X128.604934 Y141.813806 Z-0.125000 I-16.991569 J-1.775473
G02 X127.475713 Y137.715554 Z-0.125000 I-16.906959 J2.453798
G02 X125.373441 Y134.020801 Z-0.125000 I-15.908881 J6.606510
G02 X122.419633 Y130.944674 Z-0.125000 I-13.806139 J10.300912
G02 X118.801760 Y128.686690 Z-0.125000 I-10.896479 J13.431599
G02 X114.738093 Y127.382024 Z-0.125000 I-7.278297 J15.688916
G02 X110.478637 Y127.112812 Z-0.125000 I-3.211105 J16.974886
G02 X106.290753 Y127.893624 Z-0.125000 I1.048351 J17.244094
G02 X102.422611 Y129.678398 Z-0.125000 I5.205087 J16.365090
G02 X99.124794 Y132.347964 Z-0.125000 I9.073052 J14.580032
G02 X96.586171 Y135.747588 Z-0.125000 I12.254702 J11.798686
G02 X94.973724 Y139.648104 Z-0.125000 I14.792961 J8.398855
G02 X94.376773 Y143.826334 Z-0.125000 I16.232811 J4.450968
G02 X94.832964 Y148.000334 Z-0.125000 I16.828234 J0.272714
G02 X96.312671 Y151.929823 Z-0.125000 I16.223797 J-3.865961
G02 X98.716114 Y155.353294 Z-0.125000 I14.742836 J-7.794787
G02 X101.897690 Y158.068849 Z-0.125000 I12.274022 J-11.158826
G02 X105.651623 Y159.900224 Z-0.125000 I9.092176 J-13.873969
G02 X109.744043 Y160.735705 Z-0.125000 I5.337209 J-15.702485
G02 X113.920693 Y160.521314 Z-0.125000 I1.244866 J-16.538983
G02 X117.911724 Y159.271497 Z-0.125000 I-2.946364 J-16.405771
G02 X121.478053 Y157.057884 Z-0.125000 I-6.938191 J-15.157694
G02 X124.381789 Y154.026866 Z-0.125000 I-10.597835 J-13.059206
G02 X126.452743 Y150.351254 Z-0.125000 I-13.502922 J-10.029192
G02 X127.549269 Y146.277356 Z-0.125000 I-15.737597 J-6.420435
G02 X127.606183 Y142.036694 Z-0.125000 I-16.834959 J-2.346654
G02 X126.616412 Y137.912774 Z-0.125000 I-17.052738 J1.912045
G02 X124.635413 Y134.143144 Z-0.125000 I-16.062729 J6.035876
G02 X121.789575 Y130.975236 Z-0.125000 I-14.169298 J9.866545
G02 X118.247273 Y128.596374 Z-0.125000 I-11.322829 J13.033727
G02 X114.230012 Y127.158181 Z-0.125000 I-7.791794 J15.434845
G02 X109.985363 Y126.747554 Z-0.125000 I-3.774448 J16.872655
G02 X105.769609 Y127.390239 Z-0.125000 I0.468212 J17.219441
G02 X101.852073 Y129.042384 Z-0.125000 I4.684351 J16.578118
G02 X98.461002 Y131.606992 Z-0.125000 I8.534660 J14.809251
G02 X95.818384 Y134.912024 Z-0.125000 I11.925127 J12.244024
G02 X94.073623 Y138.767229 Z-0.125000 I14.420758 J8.848860
G02 X93.341224 Y142.912334 Z-0.125000 I16.164678 J4.993396
G02 X93.660079 Y147.109560 Z-0.125000 I16.729497 J0.839815
G02 X95.006864 Y151.077454 Z-0.125000 I16.409253 J-3.357126
G02 X97.299623 Y154.584781 Z-0.125000 I14.953279 J-7.271982
G02 X100.387294 Y157.401114 Z-0.125000 I12.659542 J-10.778478
G02 X104.080390 Y159.357265 Z-0.125000 I9.545746 J-13.557548
G02 X108.145033 Y160.327864 Z-0.125000 I5.852878 J-15.514305
G02 X112.323289 Y160.252740 Z-0.125000 I1.792672 J-16.525868
G02 X116.360643 Y159.133854 Z-0.125000 I-2.385858 J-16.452633
G02 X119.991931 Y157.044408 Z-0.125000 I-6.468648 J-15.442152
G02 X123.002583 Y154.104104 Z-0.125000 I-10.101172 J-13.354341
G02 X125.189485 Y150.508736 Z-0.125000 I-13.241038 J-10.516714
G02 X126.424693 Y146.462704 Z-0.125000 I-15.429294 J-6.921953
G02 X126.622409 Y142.236971 Z-0.125000 I-16.833569 J-2.905110
G02 X125.769173 Y138.073114 Z-0.125000 I-17.031369 J1.320630
G02 X123.918150 Y134.246962 Z-0.125000 I-16.306602 J5.528017
G02 X121.176613 Y130.981904 Z-0.125000 I-14.455128 J9.353878
G02 X117.718038 Y128.488932 Z-0.125000 I-11.758407 J12.667215
G02 X113.751583 Y126.917724 Z-0.125000 I-8.299496 J15.159573
G02 X109.521003 Y126.366640 Z-0.125000 I-4.328000 J16.711072
G02 X105.292203 Y126.868024 Z-0.125000 I-0.097421 J17.262414
G02 X101.315917 Y128.392308 Z-0.125000 I4.107108 J16.662372
G02 X97.849864 Y130.837364 Z-0.125000 I8.083309 J15.137930
G02 X95.093080 Y134.061024 Z-0.125000 I11.444148 J12.577310
G02 X93.227024 Y137.846194 Z-0.125000 I14.199988 J9.353029
G02 X92.355906 Y141.975469 Z-0.125000 I15.903215 J5.511491
G02 X92.535854 Y146.170774 Z-0.125000 I16.772723 J1.382083
G02 X93.753223 Y150.189611 Z-0.125000 I16.448882 J-2.788826
G02 X95.925984 Y153.765144 Z-0.125000 I15.230197 J-6.807074
G02 X98.921966 Y156.685691 Z-0.125000 I12.991880 J-10.330494
G02 X102.547853 Y158.762104 Z-0.125000 I9.995799 J-13.250910
G02 X106.577397 Y159.867183 Z-0.125000 I6.369456 J-15.326318
G02 X110.760673 Y159.930304 Z-0.125000 I2.340061 J-16.432446
G02 X114.827452 Y158.947922 Z-0.125000 I-1.852291 J-16.576800
G02 X118.534233 Y156.975774 Z-0.125000 I-5.919732 J-15.596163
G02 X121.634248 Y154.143918 Z-0.125000 I-9.709783 J-13.741951
G02 X123.945873 Y150.613884 Z-0.125000 I-12.810972 J-10.911096
G02 X125.311758 Y146.621521 Z-0.125000 I-15.276666 J-7.456353
G02 X125.651303 Y142.394184 Z-0.125000 I-16.643074 J-3.464098
G02 X124.938701 Y138.213543 Z-0.125000 I-17.138424 J0.770241
G02 X123.213653 Y134.321024 Z-0.125000 I-16.425500 J4.950785
G02 X120.585617 Y130.971269 Z-0.125000 I-14.787395 J8.895605
G02 X117.210503 Y128.362834 Z-0.125000 I-12.158927 J12.244926
G02 X113.298934 Y126.661374 Z-0.125000 I-8.795004 J14.872285
G02 X109.092423 Y125.970174 Z-0.125000 I-4.883325 J16.573370
G02 X104.844873 Y126.331862 Z-0.125000 I-0.674412 J17.201695
G02 X100.827854 Y127.720564 Z-0.125000 I3.573171 J16.840163
G02 X97.275743 Y130.054557 Z-0.125000 I7.532142 J15.333170
G02 X94.421134 Y133.177154 Z-0.125000 I11.083905 J12.998770
G02 X92.426076 Y136.907996 Z-0.125000 I13.801663 J9.779250
G02 X91.421804 Y140.995574 Z-0.125000 I15.795458 J6.047925
G02 X91.463033 Y145.204539 Z-0.125000 I16.639406 J1.941694
G02 X92.545184 Y149.253214 Z-0.125000 I16.596509 J-2.267044
G02 X94.601649 Y152.904755 Z-0.125000 I15.406927 J-6.271985
G02 X97.497284 Y155.919804 Z-0.125000 I13.349642 J-9.922917
G02 X101.053899 Y158.116552 Z-0.125000 I10.427799 J-12.905468
G02 X105.046733 Y159.354634 Z-0.125000 I6.871238 J-15.102332
G02 X109.222222 Y159.556784 Z-0.125000 I2.885753 J-16.382139
G02 X113.326303 Y158.708134 Z-0.125000 I-1.289849 J-16.585747
G02 X117.089696 Y156.864067 Z-0.125000 I-5.431430 J-15.846748
G02 X120.290063 Y154.129984 Z-0.125000 I-9.195953 J-14.004402
G02 X122.712098 Y150.687405 Z-0.125000 I-12.515493 J-11.378610
G02 X124.214253 Y146.732374 Z-0.125000 I-14.938533 J-7.936565
G02 X124.693193 Y142.528875 Z-0.125000 I-16.601934 J-4.020632
G02 X124.119353 Y138.317774 Z-0.125000 I-17.080341 J0.182862
G02 X122.527478 Y134.377144 Z-0.125000 I-16.633502 J4.427500
G02 X120.009993 Y130.937584 Z-0.125000 I-15.041241 J8.367915
G02 X116.725680 Y128.220667 Z-0.125000 I-12.568508 J11.849731
G02 X112.873623 Y126.389904 Z-0.125000 I-9.284040 J14.566405
G02 X108.690263 Y125.559447 Z-0.125000 I-5.425025 J16.376228
G02 X104.438903 Y125.779284 Z-0.125000 I-1.241633 J17.206238
G02 X100.371713 Y127.036455 Z-0.125000 I2.992242 J16.888135
G02 X96.752414 Y129.246274 Z-0.125000 I7.059360 J15.630804
G02 X93.789335 Y132.279893 Z-0.125000 I10.583431 J13.301240
G02 X91.677614 Y135.933064 Z-0.125000 I13.545867 J10.267134
G02 X90.535926 Y139.995295 Z-0.125000 I15.503192 J6.548717
G02 X90.438544 Y144.193464 Z-0.125000 I16.643500 J2.486280
G02 X91.387973 Y148.284016 Z-0.125000 I16.600774 J-1.697630
G02 X93.320204 Y151.995934 Z-0.125000 I15.649868 J-5.787636
G02 X96.117118 Y155.108651 Z-0.125000 I13.652445 J-9.454389
G02 X99.598714 Y157.421034 Z-0.125000 I10.855148 J-12.566662
G02 X103.547377 Y158.790904 Z-0.125000 I7.374260 J-14.880407
G02 X107.718593 Y159.131324 Z-0.125000 I3.425783 J-16.251156
G02 X111.842910 Y158.420787 Z-0.125000 I-0.749107 J-16.673269
G02 X115.673573 Y156.698824 Z-0.125000 I-4.873856 J-15.964148
G02 X118.955952 Y154.078691 Z-0.125000 I-8.778409 J-14.363248
G02 X121.497813 Y150.709814 Z-0.125000 I-12.062050 J-11.744344
G02 X123.126786 Y146.816654 Z-0.125000 I-14.748533 J-8.458445
G02 X123.747183 Y142.621284 Z-0.125000 I-16.378445 J-4.565546
G02 X123.314661 Y138.402411 Z-0.125000 I-17.148262 J-0.373555
G02 X121.852853 Y134.404184 Z-0.125000 I-16.716853 J3.845574
G02 X119.453947 Y130.887399 Z-0.125000 I-15.340884 J7.887907
G02 X116.260593 Y128.060934 Z-0.125000 I-12.941763 J11.404503
G02 X112.471677 Y126.103751 Z-0.125000 I-9.759196 J14.246777
G02 X108.321553 Y125.135084 Z-0.125000 I-5.970125 J16.203539
G02 X104.060624 Y125.214238 Z-0.125000 I-1.813371 J17.108993
G02 X99.961554 Y126.333454 Z-0.125000 I2.447601 J17.030135
G02 X96.263771 Y128.426631 Z-0.125000 I6.497310 J15.790897
G02 X93.209494 Y131.353054 Z-0.125000 I10.194627 J13.697093
G02 X90.972676 Y134.943216 Z-0.125000 I13.122264 J10.667606
G02 X89.700664 Y138.955294 Z-0.125000 I15.357462 J7.076698
G02 X89.463847 Y143.157534 Z-0.125000 I16.475227 J3.036255
G02 X90.276314 Y147.269194 Z-0.125000 I16.710266 J-1.165861
G02 X92.087198 Y151.048947 Z-0.125000 I15.792326 J-5.242445
G02 X94.777744 Y154.249484 Z-0.125000 I13.980480 J-9.021578
G02 X98.181957 Y156.677198 Z-0.125000 I11.263772 J-12.193793
G02 X102.085133 Y158.177374 Z-0.125000 I7.859773 J-14.621904
G02 X106.239191 Y158.655967 Z-0.125000 I3.966899 J-16.164255
G02 X110.391693 Y158.081374 Z-0.125000 I-0.187181 J-16.644792
G02 X114.270318 Y156.490886 Z-0.125000 I-4.369502 J-16.180160
G02 X117.646063 Y153.975074 Z-0.125000 I-8.249232 J-14.591626
G02 X120.292300 Y150.700575 Z-0.125000 I-11.734428 J-12.189510
G02 X122.054543 Y146.853944 Z-0.125000 I-14.381468 J-8.915509
G02 X122.812364 Y142.691273 Z-0.125000 I-16.298232 J-5.117438
G02 X122.520243 Y138.451494 Z-0.125000 I-17.056219 J-0.954777
G02 X121.194310 Y134.413817 Z-0.125000 I-16.887484 J3.309130
G02 X118.911663 Y130.814944 Z-0.125000 I-15.561328 J7.346701
G02 X115.815821 Y127.886088 Z-0.125000 I-13.323520 J10.982546
G02 X112.094843 Y125.803894 Z-0.125000 I-10.227542 J13.911218
G02 X107.976881 Y124.697770 Z-0.125000 I-6.497559 J15.971214
G02 X103.721413 Y124.635124 Z-0.125000 I-2.379595 J17.077325
G02 X99.580941 Y125.619717 Z-0.125000 I1.864959 J17.040825
G02 X95.824104 Y127.584614 Z-0.125000 I6.005365 J16.056056
G02 X92.667516 Y130.414898 Z-0.125000 I9.676566 J13.967576
G02 X90.319164 Y133.920014 Z-0.125000 I12.832520 J11.136741
G02 X88.911685 Y137.897399 Z-0.125000 I15.034561 J7.558011
G02 X88.537134 Y142.079954 Z-0.125000 I16.440634 J3.580320
G02 X89.214200 Y146.224294 Z-0.125000 I16.677774 J-0.597192
G02 X90.897104 Y150.056264 Z-0.125000 I16.000399 J-4.741440
G02 X93.482417 Y153.347504 Z-0.125000 I14.252398 J-8.534430
G02 X96.804104 Y155.885724 Z-0.125000 I11.666857 J-11.825439
G02 X100.654231 Y157.514395 Z-0.125000 I8.346901 J-14.366683
G02 X104.794763 Y158.130674 Z-0.125000 I4.497011 J-15.996198
G02 X108.958183 Y157.695151 Z-0.125000 I0.357961 J-16.696071
G02 X112.895633 Y156.231014 Z-0.125000 I-3.805348 J-16.260075
G02 X116.345639 Y153.834228 Z-0.125000 I-7.808029 J-14.920529
G02 X119.106293 Y150.641354 Z-0.125000 I-11.258835 J-12.524632
G02 X120.990940 Y146.864628 Z-0.125000 I-14.155656 J-9.422499
G02 X121.889183 Y142.719704 Z-0.125000 I-16.041018 J-5.646025
G02 X121.738399 Y138.481245 Z-0.125000 I-17.085284 J-1.514098
G02 X120.546023 Y134.394954 Z-0.125000 I-16.934518 J2.724363
G02 X118.386565 Y130.726662 Z-0.125000 I-15.827606 J6.847665
G02 X115.388743 Y127.694654 Z-0.125000 I-13.667839 J10.515719
G02 X111.738922 Y125.490411 Z-0.125000 I-10.680158 J13.560540
G02 X107.663213 Y124.248594 Z-0.125000 I-7.030435 J15.765005
G02 X103.407387 Y124.044923 Z-0.125000 I-2.943649 J16.943425
G02 X99.244084 Y124.889754 Z-0.125000 I1.312177 J17.147097
G02 X95.416631 Y126.732992 Z-0.125000 I5.434520 J16.180134
G02 X92.175914 Y129.450384 Z-0.125000 I9.261653 J14.336401
G02 X89.706909 Y132.884122 Z-0.125000 I12.384166 J11.509277
G02 X88.172504 Y136.803044 Z-0.125000 I14.852406 J8.075123
G02 X87.658465 Y140.980130 Z-0.125000 I16.238263 J4.118478
G02 X88.197404 Y145.136674 Z-0.125000 I16.750008 J-0.058599
G02 X89.754513 Y149.028055 Z-0.125000 I16.107446 J-4.188060
G02 X92.227854 Y152.400014 Z-0.125000 I14.549280 J-8.078854
G02 X95.464426 Y155.048053 Z-0.125000 I12.049955 J-11.426112
G02 X99.260484 Y156.803764 Z-0.125000 I8.813701 J-14.074660
G02 X103.374564 Y157.556734 Z-0.125000 I5.031052 J-15.872927
G02 X107.556953 Y157.258724 Z-0.125000 I0.917053 J-16.627357
G02 X111.533477 Y155.928875 Z-0.125000 I-3.287805 J-16.441459
G02 X115.069503 Y153.642444 Z-0.125000 I-7.265006 J-15.113017
G02 X117.928023 Y150.550520 Z-0.125000 I-10.901202 J-12.945617
G02 X119.942343 Y146.829234 Z-0.125000 I-13.760966 J-9.854583
G02 X120.975465 Y142.725809 Z-0.125000 I-15.923053 J-6.190724
G02 X120.966053 Y138.476034 Z-0.125000 I-16.956555 J-2.087346
G02 X119.911654 Y134.359122 Z-0.125000 I-17.068222 J2.177934
G02 X117.873623 Y130.616814 Z-0.125000 I-16.013492 J6.294716
G02 X114.979655 Y127.488962 Z-0.125000 I-14.020313 J10.069236
G02 X111.405883 Y125.164544 Z-0.125000 I-11.126233 J13.196955
G02 X107.371169 Y123.787661 Z-0.125000 I-7.541217 J15.498266
G02 X103.130103 Y123.442854 Z-0.125000 I-3.506553 J16.875388
G02 X98.934308 Y124.150596 Z-0.125000 I0.730255 J17.120368
G02 X95.056254 Y125.861934 Z-0.125000 I4.926006 J16.412483
G02 X91.719786 Y128.476515 Z-0.125000 I8.727470 J14.573252
G02 X89.144924 Y131.818144 Z-0.125000 I12.063581 J11.958317
G02 X87.477601 Y135.693250 Z-0.125000 I14.499356 J8.534816
G02 X86.827274 Y139.841764 Z-0.125000 I16.165390 J4.659339
G02 X87.228797 Y144.021703 Z-0.125000 I16.682694 J0.506722
G02 X88.654664 Y147.956874 Z-0.125000 I16.279847 J-3.672918
G02 X91.016756 Y151.412190 Z-0.125000 I14.789057 J-7.574930
G02 X94.163644 Y154.165094 Z-0.125000 I12.426451 J-11.029789
G02 X97.898037 Y156.045433 Z-0.125000 I9.282737 J-13.787253
G02 X101.989403 Y156.934894 Z-0.125000 I5.548736 J-15.668701
G02 X106.173341 Y156.776391 Z-0.125000 I1.464581 J-16.640152
G02 X110.199993 Y155.576524 Z-0.125000 I-2.719641 J-16.483369
G02 X113.802176 Y153.413709 Z-0.125000 I-6.802450 J-15.410661
G02 X116.769243 Y150.410914 Z-0.125000 I-10.405582 J-13.249054
G02 X118.901010 Y146.767326 Z-0.125000 I-13.500734 J-10.344337
G02 X120.072903 Y142.691094 Z-0.125000 I-15.633041 J-6.700981
G02 X120.204298 Y138.451792 Z-0.125000 I-16.946680 J-2.646941
G02 X119.286313 Y134.295414 Z-0.125000 I-17.078314 J1.592383
G02 X117.375603 Y130.491828 Z-0.125000 I-16.245219 J5.778982
G02 X114.586263 Y127.267664 Z-0.125000 I-14.334148 J9.582327
G02 X111.091344 Y124.826092 Z-0.125000 I-11.554534 J12.817273
G02 X107.107743 Y123.316644 Z-0.125000 I-8.059526 J15.258678
G02 X102.875521 Y122.831071 Z-0.125000 I-4.060548 J16.704802
G02 X98.666074 Y123.397844 Z-0.125000 I0.171673 J17.190282
G02 X94.725551 Y124.983069 Z-0.125000 I4.348495 J16.499661
G02 X91.312424 Y127.479474 Z-0.125000 I8.288771 J14.913991
G02 X88.621861 Y130.741766 Z-0.125000 I11.592663 J12.301667
G02 X86.831594 Y134.550254 Z-0.125000 I14.282025 J9.038616
G02 X86.042351 Y138.683875 Z-0.125000 I15.929191 J5.183560
G02 X86.305094 Y142.867014 Z-0.125000 I16.716805 J1.049836
G02 X87.601343 Y146.852913 Z-0.125000 I16.350920 J-3.113735
G02 X89.846314 Y150.381474 Z-0.125000 I15.053820 J-7.099233
G02 X92.900771 Y153.238210 Z-0.125000 I12.782865 J-10.606296
G02 X96.572754 Y155.241754 Z-0.125000 I9.728466 J-13.463114
G02 X100.628472 Y156.265824 Z-0.125000 I6.073327 J-15.509610
G02 X104.822103 Y156.245764 Z-0.125000 I2.017771 J-16.535002
G02 X108.878744 Y155.182470 Z-0.125000 I-2.190784 J-16.628217
G02 X112.559253 Y153.135504 Z-0.125000 I-6.248096 J-15.566594
G02 X115.617222 Y150.239823 Z-0.125000 I-10.020015 J-13.644100
G02 X117.874523 Y146.660264 Z-0.125000 I-13.078975 J-10.749233
G02 X119.178164 Y142.634230 Z-0.125000 I-15.478008 J-7.235900
G02 X119.451243 Y138.393164 Z-0.125000 I-16.781775 J-3.209890
G02 X118.672810 Y134.215218 Z-0.125000 I-17.174113 J1.038382
G02 X116.888103 Y130.345954 Z-0.125000 I-16.395793 J5.216364
G02 X114.208534 Y127.032914 Z-0.125000 I-14.655632 J9.113265
G02 X110.797443 Y124.476544 Z-0.125000 I-11.976160 J12.426405
G02 X106.863513 Y122.834985 Z-0.125000 I-8.551610 J14.959058
G02 X102.655283 Y122.209574 Z-0.125000 I-4.617742 J16.600843
G02 X98.422390 Y122.637388 Z-0.125000 I-0.407085 J17.126759
G02 X94.439964 Y124.087654 Z-0.125000 I3.825627 J16.698151
G02 X90.938045 Y126.475070 Z-0.125000 I7.740465 J15.115960
G02 X88.147794 Y129.638494 Z-0.125000 I11.241957 J12.728061
G02 X86.227736 Y133.394322 Z-0.125000 I13.900517 J9.474935
G02 X85.304254 Y137.490534 Z-0.125000 I15.819195 J5.718608
G02 X85.428224 Y141.687727 Z-0.125000 I16.612266 J1.609759
G02 X86.590544 Y145.708764 Z-0.125000 I16.487089 J-2.587245
G02 X88.718796 Y149.312974 Z-0.125000 I15.259943 J-6.580389
G02 X91.676764 Y152.268474 Z-0.125000 I13.131289 J-10.184287
G02 X95.278744 Y154.392221 Z-0.125000 I10.177710 J-13.145457
G02 X99.302694 Y155.550984 Z-0.125000 I6.576050 J-15.269948
G02 X103.488463 Y155.670207 Z-0.125000 I2.564857 J-16.510824
G02 X107.586363 Y154.739934 Z-0.125000 I-1.621087 J-16.631842
G02 X111.324621 Y152.820653 Z-0.125000 I-5.766503 J-15.831856
G02 X114.484803 Y150.021164 Z-0.125000 I-9.505426 J-13.913548
G02 X116.854074 Y146.526829 Z-0.125000 I-12.786011 J-11.219713
G02 X118.294223 Y142.537234 Z-0.125000 I-15.155598 J-7.725539
G02 X118.706993 Y138.315811 Z-0.125000 I-16.734090 J-3.767150
G02 X118.067193 Y134.107654 Z-0.125000 I-17.146953 J0.454275
G02 X116.413423 Y130.185558 Z-0.125000 I-16.591766 J4.686286
G02 X113.844583 Y126.783434 Z-0.125000 I-14.938244 J8.608525
G02 X110.519748 Y124.115319 Z-0.125000 I-12.378374 J12.019483
G02 X106.645553 Y122.344904 Z-0.125000 I-9.053383 J14.687345
G02 X102.455310 Y121.579602 Z-0.125000 I-5.159321 J16.394692
G02 X98.218044 Y121.865834 Z-0.125000 I-0.969098 J17.160358
G02 X94.181550 Y123.186102 Z-0.125000 I3.243809 J16.747969
G02 X90.610814 Y125.450544 Z-0.125000 I7.280167 J15.427413
G02 X87.710314 Y128.527061 Z-0.125000 I10.750246 J13.040729
G02 X85.671834 Y132.208354 Z-0.125000 I13.649578 J9.963359
G02 X84.610637 Y136.280366 Z-0.125000 I15.549617 J6.226629
G02 X84.595814 Y140.471654 Z-0.125000 I16.609235 J2.154412
G02 X85.625275 Y144.534590 Z-0.125000 I16.521490 J-2.024300
G02 X87.631744 Y148.204214 Z-0.125000 I15.491350 J-6.086970
G02 X90.490403 Y151.257087 Z-0.125000 I13.458851 J-9.737806
G02 X94.021894 Y153.499674 Z-0.125000 I10.600241 J-12.790738
G02 X98.001175 Y154.790350 Z-0.125000 I7.088834 J-15.075976
G02 X102.187343 Y155.048354 Z-0.125000 I3.109847 J-16.368203
G02 X106.305987 Y154.256324 Z-0.125000 I-1.083781 J-16.740504
G02 X110.114563 Y152.457854 Z-0.125000 I-5.202926 J-15.950007
G02 X113.358272 Y149.771215 Z-0.125000 I-9.094265 J-14.281409
G02 X115.848383 Y146.349154 Z-0.125000 I-12.338648 J-11.595404
G02 X117.416581 Y142.418278 Z-0.125000 I-14.964798 J-8.248360
G02 X117.970713 Y138.204584 Z-0.125000 I-16.533088 J-4.317508
G02 X117.471483 Y133.984053 Z-0.125000 I-17.203666 J-0.104837
G02 X115.947703 Y130.004874 Z-0.125000 I-16.706431 J4.116186
G02 X113.494096 Y126.521259 Z-0.125000 I-15.227715 J8.119422
G02 X110.260473 Y123.744204 Z-0.125000 I-12.773813 J11.602769
G02 X106.444412 Y121.845229 Z-0.125000 I-9.524669 J14.356429
G02 X102.287313 Y120.941984 Z-0.125000 I-5.708623 J16.255447
G02 X98.035724 Y121.087995 Z-0.125000 I-1.542467 J17.058522
G02 X93.966244 Y122.270834 Z-0.125000 I2.709071 J16.912185
G02 X90.314061 Y124.420611 Z-0.125000 I6.720013 J15.593576
G02 X87.320474 Y127.391904 Z-0.125000 I10.371818 J13.443309
G02 X85.155910 Y131.011966 Z-0.125000 I13.240729 J10.374268
G02 X83.963114 Y135.037824 Z-0.125000 I15.403632 J6.753478
G02 X83.808774 Y139.233829 Z-0.125000 I16.468489 J2.706593
G02 X84.702184 Y143.323024 Z-0.125000 I16.621595 J-1.489301
G02 X86.587004 Y147.060294 Z-0.125000 I15.662762 J-5.555292
G02 X89.342784 Y150.205384 Z-0.125000 I13.777831 J-9.292487
G02 X92.796277 Y152.563206 Z-0.125000 I11.027472 J-12.443827
G02 X96.734854 Y153.986184 Z-0.125000 I7.574279 J-14.802233
G02 X100.903791 Y154.382629 Z-0.125000 I3.654037 J-16.307038
G02 X105.054673 Y153.726054 Z-0.125000 I-0.514938 J-16.704718
G02 X108.912286 Y152.058804 Z-0.125000 I-4.704587 J-16.181697
G02 X112.251463 Y149.474954 Z-0.125000 I-8.562902 J-14.515638
G02 X114.847564 Y146.145297 Z-0.125000 I-12.014815 J-12.044742
G02 X116.549413 Y142.259894 Z-0.125000 I-14.611360 J-8.715350
G02 X117.241523 Y138.074983 Z-0.125000 I-16.448163 J-4.869922
G02 X116.882503 Y133.833574 Z-0.125000 I-17.140478 J-0.685019
G02 X115.492737 Y129.810271 Z-0.125000 I-16.866357 J3.574445
G02 X113.155463 Y126.245184 Z-0.125000 I-15.476494 J7.597701
G02 X110.015139 Y123.362281 Z-0.125000 I-13.147983 J11.170179
G02 X106.267173 Y121.338714 Z-0.125000 I-10.007684 J14.053117
G02 X102.137142 Y120.297063 Z-0.125000 I-6.235407 J16.014310
G02 X97.890484 Y120.301524 Z-0.125000 I-2.105413 J17.056259
G02 X93.775548 Y121.351046 Z-0.125000 I2.125205 J16.924061
G02 X90.062734 Y123.373564 Z-0.125000 I6.239952 J15.874060
G02 X86.964811 Y126.250794 Z-0.125000 I9.860511 J13.723234
G02 X84.686884 Y129.788674 Z-0.125000 I12.957369 J10.845113
G02 X83.358189 Y133.781177 Z-0.125000 I15.101463 J7.243073
G02 X83.065634 Y137.962164 Z-0.125000 I16.428773 J3.250296
G02 X83.823573 Y142.084261 Z-0.125000 I16.619149 J-0.925069
G02 X85.582464 Y145.878784 Z-0.125000 I15.860311 J-5.046880
G02 X88.232550 Y149.114381 Z-0.125000 I14.075009 J-8.824945
G02 X91.607744 Y151.586134 Z-0.125000 I11.425054 J-12.060680
G02 X95.492828 Y153.137752 Z-0.125000 I8.072919 J-14.574000
G02 X99.652884 Y153.672694 Z-0.125000 I4.188199 J-16.127020
G02 X103.815156 Y153.155627 Z-0.125000 I0.031178 J-16.760232
G02 X107.734823 Y151.613384 Z-0.125000 I-4.137043 J-16.266556
G02 X111.149749 Y149.147664 Z-0.125000 I-8.127863 J-14.854403
G02 X113.861503 Y145.898164 Z-0.125000 I-11.543573 J-12.389525
G02 X115.687120 Y142.079801 Z-0.125000 I-14.385794 J-9.223676
G02 X116.519653 Y137.912024 Z-0.125000 I-16.211645 J-5.405391
G02 X116.301564 Y133.667519 Z-0.125000 I-17.161509 J-1.246070
G02 X115.045223 Y129.595924 Z-0.125000 I-16.943129 J2.998383
G02 X112.828201 Y125.957112 Z-0.125000 I-15.732770 J7.090731
G02 X109.786023 Y122.971594 Z-0.125000 I-13.515781 J10.729569
G02 X106.104436 Y120.823572 Z-0.125000 I-10.456019 J13.691997
G02 X102.016543 Y119.646484 Z-0.125000 I-6.774548 J15.840291
G02 X97.764758 Y119.510071 Z-0.125000 I-2.670849 J16.917190
G02 X93.625914 Y120.420284 Z-0.125000 I1.580952 J17.053771
G02 X89.839321 Y122.322970 Z-0.125000 I5.670198 J16.003688
G02 X86.655384 Y125.089044 Z-0.125000 I9.456489 J14.100550
G02 X84.255609 Y128.557449 Z-0.125000 I12.522441 J11.228625
G02 X82.798544 Y132.495204 Z-0.125000 I14.920975 J7.759575
G02 X82.366356 Y136.671594 Z-0.125000 I16.251736 J3.792347
G02 X82.986694 Y140.810914 Z-0.125000 I16.682775 J-0.384017
G02 X84.619591 Y144.664818 Z-0.125000 I15.996388 J-4.504781
G02 X87.160814 Y147.985624 Z-0.125000 I14.362713 J-8.358232
G02 X90.450395 Y150.567161 Z-0.125000 I11.827984 J-11.685393
G02 X94.286024 Y152.248094 Z-0.125000 I8.538794 J-14.267582
G02 X98.419541 Y152.920024 Z-0.125000 I4.727081 J-16.029556
G02 X102.604923 Y152.540064 Z-0.125000 I0.593611 J-16.702810
G02 X106.564682 Y151.132198 Z-0.125000 I-3.621729 J-16.459001
G02 X110.067943 Y148.775354 Z-0.125000 I-7.581931 J-15.052016
G02 X112.879220 Y145.625070 Z-0.125000 I-11.190321 J-12.815631
G02 X114.835053 Y141.860964 Z-0.125000 I-14.002030 J-9.665646
G02 X115.803241 Y137.731022 Z-0.125000 I-16.090101 J-5.950484
G02 X115.726353 Y133.475014 Z-0.125000 I-17.058160 J-1.820528
G02 X114.606525 Y129.368256 Z-0.125000 I-17.067089 J2.447788
G02 X112.510883 Y125.655874 Z-0.125000 I-15.947227 J6.554532
G02 X109.568692 Y122.570911 Z-0.125000 I-13.860413 J10.273457
G02 X105.963213 Y120.303104 Z-0.125000 I-10.918349 J13.358576
G02 X101.911368 Y118.989688 Z-0.125000 I-7.284276 J15.565148
G02 X97.673804 Y118.712364 Z-0.125000 I-3.232479 J16.878815
G02 X93.498316 Y119.486535 Z-0.125000 I0.997460 J17.027128
G02 X89.659564 Y121.258214 Z-0.125000 I5.172987 J16.253080
G02 X86.377644 Y123.923520 Z-0.125000 I8.927866 J14.346558
G02 X83.870094 Y127.302394 Z-0.125000 I12.209051 J11.680550
G02 X82.279531 Y131.197863 Z-0.125000 I14.586903 J8.228450
G02 X81.710334 Y135.350094 Z-0.125000 I16.175861 J4.332552
G02 X82.193207 Y139.513248 Z-0.125000 I16.643826 J0.179106
G02 X83.696544 Y143.415934 Z-0.125000 I16.158412 J-3.983421
G02 X86.126169 Y146.820027 Z-0.125000 I14.628418 J-7.871734
G02 X89.329984 Y149.510054 Z-0.125000 I12.198719 J-11.275758
G02 X93.103565 Y151.315777 Z-0.125000 I9.021202 J-14.006554
G02 X97.218964 Y152.125314 Z-0.125000 I5.247916 J-15.813165
G02 X101.406330 Y151.885118 Z-0.125000 I1.140443 J-16.738068
G02 X105.419593 Y150.606284 Z-0.125000 I-3.047234 J-16.499555
G02 X108.990484 Y148.372344 Z-0.125000 I-7.125660 J-15.361125
G02 X111.911743 Y145.309704 Z-0.125000 I-10.696925 J-13.127643
G02 X113.986519 Y141.620696 Z-0.125000 I-13.743309 J-10.157482
G02 X115.093573 Y137.517164 Z-0.125000 I-15.818349 J-6.468582
G02 X115.157398 Y133.267409 Z-0.125000 I-17.041666 J-2.381296
G02 X114.173793 Y129.121324 Z-0.125000 I-17.106437 J1.868563
G02 X112.202908 Y125.343339 Z-0.125000 I-16.169434 J6.032135
G02 X109.365363 Y122.162494 Z-0.125000 I-14.198818 J9.810306
G02 X105.834246 Y119.774895 Z-0.125000 I-11.342002 J12.969189
G02 X101.833353 Y118.329154 Z-0.125000 I-7.810946 J15.356906
G02 X97.599862 Y117.910916 Z-0.125000 I-3.787605 J16.703645
G02 X93.409694 Y118.544484 Z-0.125000 I0.445882 J17.121715
G02 X89.505130 Y120.191721 Z-0.125000 I4.595808 J16.345028
G02 X86.144664 Y122.740394 Z-0.125000 I8.499972 J14.697099
G02 X83.520020 Y126.041888 Z-0.125000 I11.749467 J12.034696
G02 X81.804904 Y129.874184 Z-0.125000 I14.372659 J8.732320
G02 X81.096564 Y134.012594 Z-0.125000 I15.963525 J4.862180
G02 X81.440884 Y138.183794 Z-0.125000 I16.670510 J0.723712
G02 X82.814468 Y142.137369 Z-0.125000 I16.258445 J-3.433246
G02 X85.129724 Y145.619264 Z-0.125000 I14.884640 J-7.386710
G02 X88.240705 Y148.413145 Z-0.125000 I12.575797 J-10.874152
G02 X91.956274 Y150.344634 Z-0.125000 I9.465393 J-13.668865
G02 X96.035974 Y151.289086 Z-0.125000 I5.779017 J-15.679667
G02 X100.237214 Y151.187404 Z-0.125000 I1.699466 J-16.625577
G02 X104.281442 Y150.045130 Z-0.125000 I-2.522711 J-16.662116
G02 X107.933173 Y147.925674 Z-0.125000 I-6.567450 J-15.521049
G02 X110.947006 Y144.968663 Z-0.125000 I-10.316667 J-13.529293
G02 X113.148043 Y141.342394 Z-0.125000 I-13.330765 J-10.572492
G02 X114.387827 Y137.285653 Z-0.125000 I-15.661121 J-7.004023
G02 X114.593203 Y133.033754 Z-0.125000 I-16.900748 J-2.947254
G02 X113.748033 Y128.861644 Z-0.125000 I-17.193274 J1.311287
G02 X111.903033 Y125.018294 Z-0.125000 I-16.348180 J5.483422
G02 X109.171742 Y121.744859 Z-0.125000 I-14.512716 J9.332945
G02 X105.724413 Y119.242774 Z-0.125000 I-11.781480 J12.606439
G02 X101.768406 Y117.663391 Z-0.125000 I-8.301488 J15.049247
G02 X97.558364 Y117.105494 Z-0.125000 I-4.345607 J16.629114
G02 X93.340510 Y117.600895 Z-0.125000 I-0.134721 J17.056151
G02 X89.392524 Y119.113954 Z-0.125000 I4.083464 J16.562088
G02 X85.940824 Y121.555610 Z-0.125000 I7.956025 J14.907820
G02 X83.214514 Y124.760584 Z-0.125000 I11.407187 J12.465575
G02 X81.368864 Y128.541869 Z-0.125000 I14.007907 J9.178352
G02 X80.525314 Y132.647044 Z-0.125000 I15.852436 J5.396686
G02 X80.730790 Y136.832957 Z-0.125000 I16.593081 J1.283489
G02 X81.971754 Y140.826584 Z-0.125000 I16.386273 J-2.902189
G02 X84.170036 Y144.384192 Z-0.125000 I15.116705 J-6.882792
G02 X87.188144 Y147.280634 Z-0.125000 I12.918418 J-10.440396
G02 X90.833419 Y149.332519 Z-0.125000 I9.929031 J-13.375466
G02 X94.885804 Y150.413074 Z-0.125000 I6.284195 J-15.428428
G02 X99.079621 Y150.450971 Z-0.125000 I2.247299 J-16.623623
G02 X103.168623 Y149.440994 Z-0.125000 I-1.946858 J-16.664435
G02 X106.879519 Y147.448686 Z-0.125000 I-6.091658 J-15.798530
G02 X109.997223 Y144.586374 Z-0.125000 I-9.802770 J-13.806526
G02 X112.311813 Y141.042994 Z-0.125000 I-13.040034 J-11.045602
G02 X113.688323 Y137.021744 Z-0.125000 I-15.354790 J-7.502303
G02 X114.033593 Y132.785474 Z-0.125000 I-16.847824 J-3.505360
G02 X113.326843 Y128.583114 Z-0.125000 I-17.193062 J0.730908
G02 X111.610589 Y124.682622 Z-0.125000 I-16.535631 J4.948008
G02 X108.989943 Y121.320434 Z-0.125000 I-14.819421 J8.848526
G02 X105.624665 Y118.703769 Z-0.125000 I-12.178578 J12.190434
G02 X101.728153 Y116.995724 Z-0.125000 I-8.813465 J14.807375
G02 X97.531409 Y116.297496 Z-0.125000 I-4.887917 J16.417614
G02 X93.308154 Y116.651634 Z-0.125000 I-0.691194 J17.116356
G02 X89.302595 Y118.036166 Z-0.125000 I3.501172 J16.615625
G02 X85.780204 Y120.356204 Z-0.125000 I7.506591 J15.230810
G02 X82.942037 Y123.476252 Z-0.125000 I10.924634 J12.788547
G02 X80.976234 Y127.186194 Z-0.125000 I13.761884 J9.667855
G02 X79.994656 Y131.268417 Z-0.125000 I15.604553 J5.911268
G02 X80.061254 Y135.453094 Z-0.125000 I16.585011 J1.828921
G02 X81.169275 Y139.488965 Z-0.125000 I16.448547 J-2.345801
G02 X83.248154 Y143.116574 Z-0.125000 I15.340092 J-6.381492
G02 X86.166666 Y146.110509 Z-0.125000 I13.267772 J-10.014066
G02 X89.745584 Y148.284014 Z-0.125000 I10.349476 J-13.008273
G02 X93.753312 Y149.496834 Z-0.125000 I6.805061 J-15.259006
G02 X97.951684 Y149.673874 Z-0.125000 I2.797574 J-16.473248
G02 X102.062390 Y148.802214 Z-0.125000 I-1.412480 J-16.789966
G02 X105.846303 Y146.929464 Z-0.125000 I-5.523708 J-15.919810
G02 X109.049222 Y144.178751 Z-0.125000 I-9.396902 J-14.181802
G02 X111.485563 Y140.706274 Z-0.125000 I-12.600095 J-11.431339
G02 X112.991284 Y136.740601 Z-0.125000 I-15.163157 J-8.025969
G02 X113.477833 Y132.511504 Z-0.125000 I-16.668569 J-4.060221
G02 X112.910832 Y128.292431 Z-0.125000 I-17.245765 J0.170021
G02 X111.324413 Y124.335014 Z-0.125000 I-16.676751 J4.388565
G02 X108.815854 Y120.887525 Z-0.125000 I-15.101646 J8.352267
G02 X105.541643 Y118.162164 Z-0.125000 I-12.593362 J11.800013
G02 X101.698696 Y116.323761 Z-0.125000 I-9.282873 J14.468865
G02 X97.534514 Y115.487734 Z-0.125000 I-5.440016 J16.307538
G02 X93.292650 Y115.702193 Z-0.125000 I-1.266176 J17.013789
G02 X89.252624 Y116.949924 Z-0.125000 I2.975730 J16.799568
G02 X85.646130 Y119.157186 Z-0.125000 I6.949687 J15.405243
G02 X82.712884 Y122.174124 Z-0.125000 I10.555354 J13.196947
G02 X80.620066 Y125.824609 Z-0.125000 I13.367730 J10.088849
G02 X79.505704 Y129.864614 Z-0.125000 I15.459388 J6.437882
G02 X79.432667 Y134.054848 Z-0.125000 I16.469660 J2.382826
G02 X80.405604 Y138.121804 Z-0.125000 I16.540827 J-1.807204
G02 X82.362672 Y141.817278 Z-0.125000 I15.537706 J-5.862585
G02 X85.181564 Y144.907344 Z-0.125000 I13.580661 J-9.558075
G02 X88.682289 Y147.196346 Z-0.125000 I10.792521 J-12.684283
G02 X92.653634 Y148.543154 Z-0.125000 I7.292330 J-14.974383
G02 X96.835219 Y148.858994 Z-0.125000 I3.344075 J-16.434971
G02 X100.981763 Y148.122284 Z-0.125000 I-0.837563 J-16.751868
G02 X104.816117 Y146.380368 Z-0.125000 I-5.030639 J-16.164682
G02 X108.116363 Y143.730974 Z-0.125000 I-8.865515 J-14.423614
G02 X110.660347 Y140.348831 Z-0.125000 I-12.279543 J-11.884278
G02 X112.300083 Y136.427544 Z-0.125000 I-14.823488 J-8.502113
G02 X112.925065 Y132.223439 Z-0.125000 I-16.579780 J-4.613257
G02 X112.498093 Y127.983254 Z-0.125000 I-17.204573 J-0.409148
G02 X111.043832 Y123.977447 Z-0.125000 I-16.829711 J3.842951
G02 X108.651433 Y120.448674 Z-0.125000 I-15.375766 J7.848919
G02 X105.466619 Y117.614463 Z-0.125000 I-12.962555 J11.359572
G02 X101.691453 Y115.651614 Z-0.125000 I-9.777717 J14.193749
G02 X97.549736 Y114.676460 Z-0.125000 I-5.967284 J16.061497
G02 X93.311784 Y114.749594 Z-0.125000 I-1.825602 J17.036973
G02 X89.222678 Y115.865309 Z-0.125000 I2.391167 J16.814813
G02 X85.553694 Y117.946494 Z-0.125000 I6.480036 J15.698526
G02 X82.514281 Y120.871360 Z-0.125000 I10.052321 J13.487657
G02 X80.306274 Y124.442574 Z-0.125000 I13.090377 J10.561696
G02 X79.055566 Y128.450658 Z-0.125000 I15.177219 J6.935179
G02 X78.843964 Y132.630344 Z-0.125000 I16.426266 J2.926799
G02 X79.681353 Y136.730736 Z-0.125000 I16.565874 J-1.247409
G02 X81.514504 Y140.488064 Z-0.125000 I15.728002 J-5.347636
G02 X84.227502 Y143.668862 Z-0.125000 I13.900254 J-9.108545
G02 X87.653824 Y146.074794 Z-0.125000 I11.187610 J-12.289732
G02 X91.571736 Y147.550619 Z-0.125000 I7.800572 J-14.769985
G02 X95.748564 Y148.005584 Z-0.125000 I3.882888 J-16.246762
G02 X99.907441 Y147.408344 Z-0.125000 I-0.296566 J-16.843905
G02 X103.806683 Y145.790554 Z-0.125000 I-4.455360 J-16.246359
G02 X107.184372 Y143.258240 Z-0.125000 I-8.435695 J-14.770623
G02 X109.845123 Y139.954824 Z-0.125000 I-11.813805 J-12.238744
G02 X111.609939 Y136.097689 Z-0.125000 I-14.598184 J-9.011646
G02 X112.375333 Y131.909974 Z-0.125000 I-16.362849 J-5.154464
G02 X112.088846 Y127.662540 Z-0.125000 I-17.219277 J-0.971950
G02 X110.767763 Y123.608424 Z-0.125000 I-16.933018 J3.275528
G02 X108.492807 Y120.002066 Z-0.125000 I-15.624983 J7.335804
G02 X105.405933 Y117.065394 Z-0.125000 I-13.350190 J10.942295
G02 X101.692780 Y114.976053 Z-0.125000 I-10.223963 J13.825750
G02 X97.592594 Y113.865564 Z-0.125000 I-6.511063 J15.915710
G02 X93.345228 Y113.798091 Z-0.125000 I-2.392649 J16.897402
G02 X89.230744 Y114.775024 Z-0.125000 I1.854582 J16.963636
G02 X85.485135 Y116.738147 Z-0.125000 I5.912549 J15.835899
G02 X82.357684 Y119.553744 Z-0.125000 I9.657650 J13.872047
G02 X80.026706 Y123.057343 Z-0.125000 I12.668866 J10.955931
G02 X78.646264 Y127.014354 Z-0.125000 I14.998525 J7.451676
G02 X78.294861 Y131.190484 Z-0.125000 I16.273724 J3.472210
G02 X78.995274 Y135.312814 Z-0.125000 I16.624048 J-0.703874
G02 X80.702347 Y139.129887 Z-0.125000 I15.890086 J-4.816116
G02 X83.309414 Y142.399924 Z-0.125000 I14.182620 J-8.632951
G02 X86.650001 Y144.915961 Z-0.125000 I11.607678 J-11.936021
G02 X90.522594 Y146.523054 Z-0.125000 I8.267634 J-14.453006
G02 X94.673363 Y147.115414 Z-0.125000 I4.425561 J-16.171916
G02 X98.858984 Y146.655214 Z-0.125000 I0.274808 J-16.765237
G02 X102.799722 Y145.171338 Z-0.125000 I-3.947680 J-16.458538
G02 X106.267783 Y142.746514 Z-0.125000 I-7.888592 J-14.974993
G02 X109.029769 Y139.540483 Z-0.125000 I-11.464317 J-12.669211
G02 X110.925323 Y135.736404 Z-0.125000 I-14.226484 J-9.463300
G02 X111.827069 Y131.582968 Z-0.125000 I-16.238820 J-5.700192
G02 X111.681583 Y127.323604 Z-0.125000 I-17.140111 J-1.546715
G02 X110.495541 Y123.230122 Z-0.125000 I-17.050072 J2.721509
G02 X108.341723 Y119.550274 Z-0.125000 I-15.864025 J6.814989
G02 X105.351227 Y116.510993 Z-0.125000 I-13.690083 J10.479447
G02 X101.713823 Y114.301934 Z-0.125000 I-10.699903 J13.519128
G02 X97.645207 Y113.054136 Z-0.125000 I-7.021004 J15.635910
G02 X93.411024 Y112.845924 Z-0.125000 I-2.952478 J16.884228
G02 X89.256172 Y113.687889 Z-0.125000 I1.270388 J16.941461
G02 X85.456564 Y115.521024 Z-0.125000 I5.425204 J16.099391
G02 X82.229099 Y118.237816 Z-0.125000 I9.135816 J14.128526
G02 X79.788424 Y121.654564 Z-0.125000 I12.362250 J11.410782
G02 X78.273902 Y125.570854 Z-0.125000 I14.682922 J7.929229
G02 X77.784854 Y129.727094 Z-0.125000 I16.196217 J4.012635
G02 X78.347758 Y133.873979 Z-0.125000 I16.610481 J-0.143085
G02 X79.926914 Y137.744404 Z-0.125000 I16.046381 J-4.289650
G02 X82.422286 Y141.098074 Z-0.125000 I14.471010 J-8.162272
G02 X85.680704 Y143.725794 Z-0.125000 I11.975832 J-11.516129
G02 X89.491386 Y145.458106 Z-0.125000 I8.760949 J-14.214584
G02 X93.628074 Y146.188974 Z-0.125000 I4.950575 J-15.947887
G02 X97.816610 Y145.868778 Z-0.125000 I0.820703 J-16.819791
G02 X101.813843 Y144.513024 Z-0.125000 I-3.368057 J-16.500695
G02 X105.351229 Y142.210241 Z-0.125000 I-7.437350 J-15.293122
G02 X108.224493 Y139.090414 Z-0.125000 I-10.974956 J-12.990600
G02 X110.240438 Y135.358793 Z-0.125000 I-13.968927 J-9.956828
G02 X111.281143 Y131.230874 Z-0.125000 I-15.984471 J-6.225050
G02 X111.276208 Y126.973778 Z-0.125000 I-17.118694 J-2.108706
G02 X110.226123 Y122.840764 Z-0.125000 I-17.115007 J2.148547
G02 X108.194619 Y119.091428 Z-0.125000 I-16.079903 J6.287544
G02 X105.308473 Y115.956324 Z-0.125000 I-14.048839 J10.037195
G02 X101.741297 Y113.625228 Z-0.125000 I-11.121025 J13.123129
G02 X97.722974 Y112.245134 Z-0.125000 I-7.554072 J15.454682
G02 X93.488607 Y111.896024 Z-0.125000 I-3.509048 J16.707410
G02 X89.317604 Y112.597804 Z-0.125000 I0.725340 J17.057015
G02 X85.449191 Y114.308123 Z-0.125000 I4.849599 J16.198825
G02 X82.141124 Y116.909964 Z-0.125000 I8.717440 J14.487554
G02 X79.582054 Y120.251240 Z-0.125000 I11.914599 J11.775972
G02 X77.941444 Y124.107794 Z-0.125000 I14.472174 J8.433825
G02 X77.313022 Y128.251435 Z-0.125000 I16.005990 J4.546933
G02 X77.737674 Y132.410924 Z-0.125000 I16.633480 J0.403269
G02 X79.187046 Y136.332796 Z-0.125000 I16.171553 J-3.747629
G02 X81.570624 Y139.768354 Z-0.125000 I14.721855 J-7.669332
G02 X84.736191 Y142.500340 Z-0.125000 I12.370882 J-11.134235
G02 X88.492794 Y144.360604 Z-0.125000 I9.205777 J-13.866917
G02 X92.594279 Y145.226847 Z-0.125000 I5.486817 J-15.836006
G02 X96.800374 Y145.045154 Z-0.125000 I1.385428 J-16.703400
G02 X100.829943 Y143.825835 Z-0.125000 I-2.847309 J-16.677756
G02 X104.450383 Y141.636234 Z-0.125000 I-6.877251 J-15.459277
G02 X107.418002 Y138.620423 Z-0.125000 I-10.598628 J-13.397266
G02 X109.560873 Y134.950264 Z-0.125000 I-13.566421 J-10.381588
G02 X110.735208 Y130.865795 Z-0.125000 I-15.826144 J-6.761261
G02 X110.871673 Y126.605954 Z-0.125000 I-16.999922 J-2.676705
G02 X109.958894 Y122.442820 Z-0.125000 I-17.195520 J1.588536
G02 X108.052963 Y118.628034 Z-0.125000 I-16.283094 J5.751796
G02 X105.269790 Y115.397063 Z-0.125000 I-14.358263 J9.554068
G02 X101.785973 Y112.951494 Z-0.125000 I-11.575208 J12.785169
G02 X97.808193 Y111.436518 Z-0.125000 I-8.044739 J15.142980
G02 X93.596244 Y110.947844 Z-0.125000 I-4.067021 J16.658210
G02 X89.393764 Y111.512330 Z-0.125000 I0.143844 J16.996417
G02 X85.480084 Y113.089314 Z-0.125000 I4.345892 J16.430300
G02 X82.078568 Y115.586050 Z-0.125000 I8.179070 J14.708497
G02 X79.415824 Y118.833244 Z-0.125000 I11.579822 J12.210955
G02 X77.643954 Y122.640481 Z-0.125000 I14.124197 J8.889265
G02 X76.879454 Y126.754944 Z-0.125000 I15.894894 J5.081653
G02 X77.165185 Y130.930056 Z-0.125000 I16.580558 J0.962616
G02 X78.483234 Y134.896484 Z-0.125000 I16.294166 J-3.212366
G02 X80.749823 Y138.408248 Z-0.125000 I14.977148 J-7.179320
G02 X83.825814 Y141.246124 Z-0.125000 I12.710604 J-10.691122
G02 X87.512304 Y143.227286 Z-0.125000 I9.681647 J-13.594894
G02 X91.590454 Y144.230794 Z-0.125000 I5.995641 J-15.577315
G02 X95.790037 Y144.189022 Z-0.125000 I1.933684 J-16.720838
G02 X99.867474 Y143.101264 Z-0.125000 I-2.266058 J-16.680233
G02 X103.548780 Y141.038123 Z-0.125000 I-6.406211 J-15.746627
G02 X106.621753 Y138.115584 Z-0.125000 I-10.087898 J-13.684003
G02 X108.879741 Y134.525908 Z-0.125000 I-13.277944 J-10.857129
G02 X110.191023 Y130.475904 Z-0.125000 I-15.535541 J-7.267270
G02 X110.467491 Y126.227897 Z-0.125000 I-16.943374 J-3.235705
G02 X109.692843 Y122.034134 Z-0.125000 I-17.219662 J1.012291
G02 X107.913561 Y118.158325 Z-0.125000 I-16.464736 J5.212215
G02 X105.240673 Y114.838544 Z-0.125000 I-14.685976 J9.088346
G02 X101.835030 Y112.275949 Z-0.125000 I-11.970077 J12.363702
G02 X97.916054 Y110.632274 Z-0.125000 I-8.564616 J14.926614
G02 X93.713176 Y110.003030 Z-0.125000 I-4.610794 J16.445998
G02 X89.503834 Y110.426554 Z-0.125000 I-0.407922 J17.075515
G02 X85.529454 Y111.876496 Z-0.125000 I3.764767 J16.491437
G02 X82.055184 Y114.253104 Z-0.125000 I7.738765 J15.040752
G02 X79.279091 Y117.417308 Z-0.125000 I11.107637 J12.545106
G02 X77.385384 Y121.156394 Z-0.125000 I13.882403 J9.380005
G02 X76.482519 Y125.249286 Z-0.125000 I15.668183 J5.602329
G02 X76.629374 Y129.427584 Z-0.125000 I16.569994 J1.509341
G02 X77.814479 Y133.436969 Z-0.125000 I16.381145 J-2.662143
G02 X79.963894 Y137.022864 Z-0.125000 I15.196240 J-6.671615
G02 X82.940342 Y139.958756 Z-0.125000 I13.078474 J-10.282407
G02 X86.564224 Y142.063944 Z-0.125000 I10.102729 J-13.219219
G02 X90.598219 Y143.200232 Z-0.125000 I6.523063 J-15.429076
G02 X94.806054 Y143.297814 Z-0.125000 I2.489235 J-16.566476
G02 X98.906546 Y142.348386 Z-0.125000 I-1.734819 J-16.822061
G02 X102.663243 Y140.403624 Z-0.125000 I-5.835599 J-15.873414
G02 X105.823235 Y137.591286 Z-0.125000 I-9.686069 J-14.064915
G02 X108.203833 Y134.071164 Z-0.125000 I-12.846229 J-11.252724
G02 X109.645399 Y130.073639 Z-0.125000 I-15.343437 J-7.791757
G02 X110.063063 Y125.832024 Z-0.125000 I-16.784420 J-3.794100
G02 X109.427398 Y121.617582 Z-0.125000 I-17.264302 J0.448819
G02 X107.777563 Y117.684594 Z-0.125000 I-16.630874 J4.663888
G02 X105.213806 Y114.276158 Z-0.125000 I-14.963802 J8.587048
G02 X101.898723 Y111.604784 Z-0.125000 I-12.400385 J11.995813
G02 X98.029146 Y109.829273 Z-0.125000 I-9.033855 J14.584063
G02 X93.857774 Y109.062254 Z-0.125000 I-5.164456 J16.360135
G02 X89.626016 Y109.346708 Z-0.125000 I-0.984358 J16.975598
G02 X85.615314 Y110.660604 Z-0.125000 I3.247384 J16.691059
G02 X82.054547 Y112.926239 Z-0.125000 I7.186229 J15.225121
G02 X79.181294 Y115.989564 Z-0.125000 I10.746382 J12.958745
G02 X77.159687 Y119.670971 Z-0.125000 I13.503746 J9.811221
G02 X76.122954 Y123.725474 Z-0.125000 I15.523937 J6.129254
G02 X76.130060 Y127.910416 Z-0.125000 I16.478321 J2.064497
G02 X77.181044 Y131.955344 Z-0.125000 I16.469466 J-2.120220
G02 X79.208700 Y135.609724 Z-0.125000 I15.416708 J-6.164340
G02 X82.088534 Y138.645214 Z-0.125000 I13.389357 J-9.818943
G02 X85.634457 Y140.866478 Z-0.125000 I10.558883 J-12.914807
G02 X89.635914 Y142.138154 Z-0.125000 I7.013380 J-15.136979
G02 X93.827898 Y142.374950 Z-0.125000 I3.037383 J-16.547012
G02 X97.967394 Y141.559944 Z-0.125000 I-1.154654 J-16.784564
G02 X101.776239 Y139.745494 Z-0.125000 I-5.347054 J-16.129333
G02 X105.035213 Y137.033094 Z-0.125000 I-9.156060 J-14.315134
G02 X107.525114 Y133.601136 Z-0.125000 I-12.528046 J-11.708352
G02 X109.101043 Y129.646844 Z-0.125000 I-15.017814 J-8.276321
G02 X109.657504 Y125.426624 Z-0.125000 I-16.692885 J-4.347852
G02 X109.161543 Y121.190504 Z-0.125000 I-17.248741 J-0.127627
G02 X107.642142 Y117.205294 Z-0.125000 I-16.777803 J4.114455
G02 X105.194113 Y113.715384 Z-0.125000 I-15.258820 J8.099887
G02 X101.964839 Y110.932557 Z-0.125000 I-12.767240 J11.550398
G02 X98.162284 Y109.032494 Z-0.125000 I-9.538208 J14.333588
G02 X94.009248 Y108.125844 Z-0.125000 I-5.693123 J16.113037
G02 X89.779924 Y108.269204 Z-0.125000 I-1.540156 J17.020446
G02 X85.716922 Y109.452353 Z-0.125000 I2.663244 J16.713606
G02 X82.091564 Y111.593234 Z-0.125000 I6.725853 J15.529549
G02 X79.110482 Y114.566408 Z-0.125000 I10.251777 J13.260137
G02 X76.971864 Y118.171524 Z-0.125000 I13.232279 J10.286512
G02 X75.798334 Y122.195636 Z-0.125000 I15.261393 J6.633770
G02 X75.666604 Y126.374264 Z-0.125000 I16.433650 J2.609455
G02 X76.582052 Y130.453515 Z-0.125000 I16.518552 J-1.564675
G02 X78.487684 Y134.173894 Z-0.125000 I15.603263 J-5.643984
G02 X81.261745 Y137.300745 Z-0.125000 I13.727824 J-9.385004
G02 X84.736764 Y139.641534 Z-0.125000 I10.954507 J-12.512704
G02 X88.685351 Y141.042840 Z-0.125000 I7.529561 J-14.952935
G02 X92.876224 Y141.419224 Z-0.125000 I3.581223 J-16.355375
G02 X97.029405 Y140.743806 Z-0.125000 I-0.615541 J-16.891774
G02 X100.905654 Y139.052434 Z-0.125000 I-4.768660 J-16.216142
G02 X104.243927 Y136.455905 Z-0.125000 I-8.730917 J-14.669272
G02 X106.851603 Y133.101304 Z-0.125000 I-12.069152 J-12.072705
G02 X108.553861 Y129.208287 Z-0.125000 I-14.793243 J-8.787155
G02 X109.250743 Y125.003534 Z-0.125000 I-16.494739 J-4.893912
G02 X108.894775 Y120.756322 Z-0.125000 I-17.260182 J-0.691910
G02 X107.508173 Y116.722394 Z-0.125000 I-16.904287 J3.555318
G02 X105.174967 Y113.151483 Z-0.125000 I-15.504189 J7.582614
G02 X102.043053 Y110.266004 Z-0.125000 I-13.171443 J11.153915
G02 X98.298565 Y108.237759 Z-0.125000 I-9.984367 J13.962248
G02 X94.185954 Y107.195714 Z-0.125000 I-6.240111 J15.991090
G02 X89.943372 Y107.198885 Z-0.125000 I-2.108674 J16.882408
G02 X85.853144 Y108.243834 Z-0.125000 I2.134188 J16.881448
G02 X82.148639 Y110.268346 Z-0.125000 I6.161608 J15.676228
G02 X79.077364 Y113.134284 Z-0.125000 I9.865828 J13.651319
G02 X76.814739 Y116.673610 Z-0.125000 I12.824038 J10.691060
G02 X75.510184 Y120.650274 Z-0.125000 I15.085267 J7.151073
G02 X75.238484 Y124.826619 Z-0.125000 I16.303213 J3.157646
G02 X76.017604 Y128.932144 Z-0.125000 I16.574220 J-1.018657
G02 X77.797236 Y132.713053 Z-0.125000 I15.787885 J-5.121903
G02 X80.468064 Y135.932714 Z-0.125000 I14.008536 J-8.902991
G02 X83.857650 Y138.384272 Z-0.125000 I11.388629 J-12.177166
G02 X87.764614 Y139.918474 Z-0.125000 I7.999517 J-14.629590
G02 X91.930385 Y140.432756 Z-0.125000 I4.126774 J-16.298705
G02 X96.113534 Y139.894074 Z-0.125000 I-0.039000 J-16.814374
G02 X100.032973 Y138.336243 Z-0.125000 I-4.264753 J-16.439441
G02 X103.463443 Y135.845894 Z-0.125000 I-8.184370 J-14.881933
G02 X106.174106 Y132.586735 Z-0.125000 I-11.722974 J-12.506886
G02 X108.007593 Y128.745524 Z-0.125000 I-14.433175 J-9.247431
G02 X108.841415 Y124.571643 Z-0.125000 I-16.368923 J-5.440270
G02 X108.626223 Y120.311794 Z-0.125000 I-17.202354 J-1.266360
G02 X107.373228 Y116.234702 Z-0.125000 I-17.016991 J2.998671
G02 X105.160673 Y112.589964 Z-0.125000 I-15.764591 J7.076030
G02 X102.121838 Y109.599146 Z-0.125000 I-13.508979 J10.686644
G02 X98.452284 Y107.450994 Z-0.125000 I-10.470843 J13.678374
G02 X94.367220 Y106.270902 Z-0.125000 I-6.751482 J15.710690
G02 X90.136354 Y106.133434 Z-0.125000 I-2.666493 J16.891255
G02 X86.002435 Y107.044521 Z-0.125000 I1.549152 J16.863097
G02 X82.241814 Y108.940214 Z-0.125000 I5.682894 J15.951516
G02 X79.068685 Y111.709225 Z-0.125000 I9.351254 J13.918624
G02 X76.694424 Y115.164454 Z-0.125000 I12.523738 J11.149038
G02 X75.255218 Y119.102032 Z-0.125000 I14.787942 J7.636879
G02 X74.845334 Y123.262554 Z-0.125000 I16.225675 J3.698965
G02 X75.486926 Y127.393696 Z-0.125000 I16.583388 J-0.460110
G02 X77.140224 Y131.232104 Z-0.125000 I15.941684 J-4.591220
G02 X79.699539 Y134.536142 Z-0.125000 I14.316099 J-8.446039
G02 X83.010214 Y137.102144 Z-0.125000 I11.757194 J-11.750487
G02 X86.855857 Y138.762257 Z-0.125000 I8.501917 J-14.410386
G02 X91.011144 Y139.415744 Z-0.125000 I4.656505 J-16.071294
G02 X95.198564 Y139.017296 Z-0.125000 I0.506254 J-16.882302
G02 X99.177134 Y137.586684 Z-0.125000 I-3.681834 J-16.486845
G02 X102.678808 Y135.217355 Z-0.125000 I-7.737404 J-15.207504
G02 X105.501923 Y132.043014 Z-0.125000 I-11.238681 J-12.837721
G02 X107.457199 Y128.271623 Z-0.125000 I-14.177249 J-9.742740
G02 X108.430093 Y124.122194 Z-0.125000 I-16.131970 J-5.971143
G02 X108.355231 Y119.860903 Z-0.125000 I-17.178662 J-1.829511
G02 X107.237813 Y115.743724 Z-0.125000 I-17.103547 J2.431743
G02 X105.145265 Y112.026065 Z-0.125000 I-15.977175 J6.545281
G02 X102.210133 Y108.939104 Z-0.125000 I-13.884987 J10.263206
G02 X98.607089 Y106.667035 Z-0.125000 I-10.892000 J13.279638
G02 X94.571174 Y105.354504 Z-0.125000 I-7.289095 J15.552002
G02 X90.336317 Y105.076286 Z-0.125000 I-3.224851 J16.717350
G02 X86.184394 Y105.847674 Z-0.125000 I1.010011 J16.995642
G02 X82.352282 Y107.622110 Z-0.125000 I5.109753 J16.060308
G02 X79.096364 Y110.278004 Z-0.125000 I8.941471 J14.285244
G02 X76.602494 Y113.659633 Z-0.125000 I12.087786 J11.524851
G02 X75.035734 Y117.540894 Z-0.125000 I14.580735 J8.142707
G02 X74.486226 Y121.690220 Z-0.125000 I16.056603 J4.237476
G02 X74.989934 Y125.838214 Z-0.125000 I16.605179 J0.088145
G02 X76.513537 Y129.728994 Z-0.125000 I16.089038 J-4.056653
G02 X78.963444 Y133.118564 Z-0.125000 I14.565496 J-7.947467
G02 X82.181630 Y135.789606 Z-0.125000 I12.167162 J-11.385294
G02 X85.976714 Y137.579514 Z-0.125000 I8.949641 J-14.057381
G02 X90.097784 Y138.368965 Z-0.125000 I5.196935 J-15.977832
G02 X94.305984 Y138.108904 Z-0.125000 I1.075904 J-16.767898
G02 X98.318615 Y136.814507 Z-0.125000 I-3.164089 J-16.675457
G02 X101.905303 Y134.557144 Z-0.125000 I-7.176739 J-15.381100
G02 X104.824624 Y131.485078 Z-0.125000 I-10.865938 J-13.248798
G02 X106.907463 Y127.773834 Z-0.125000 I-13.785119 J-10.176629
G02 X108.014785 Y123.664646 Z-0.125000 I-15.972649 J-6.508015
G02 X108.081153 Y119.399754 Z-0.125000 I-17.079377 J-2.398744
G02 X107.099910 Y115.248731 Z-0.125000 I-17.181948 J1.870082
G02 X105.132423 Y111.465134 Z-0.125000 I-16.200823 J6.021149
G02 X102.297263 Y108.279483 Z-0.125000 I-14.192606 J9.776669
G02 X98.776684 Y105.892624 Z-0.125000 I-11.357734 J12.962650
G02 X94.777460 Y104.444253 Z-0.125000 I-7.781193 J15.239846
G02 X90.563494 Y104.026504 Z-0.125000 I-3.782143 J16.688984
G02 X86.376730 Y104.661471 Z-0.125000 I0.427691 J16.940610
G02 X82.497214 Y106.303594 Z-0.125000 I4.614240 J16.304881
G02 X79.145851 Y108.856184 Z-0.125000 I8.409301 J14.517135
G02 X76.546264 Y112.146284 Z-0.125000 I11.760168 J11.964039
G02 X74.847531 Y115.979962 Z-0.125000 I14.249267 J8.607163
G02 X74.161174 Y120.103994 Z-0.125000 I15.946870 J4.773147
G02 X74.525906 Y124.268827 Z-0.125000 I16.575046 J0.646842
G02 X75.919454 Y128.208274 Z-0.125000 I16.209746 J-3.517868
G02 X78.252587 Y131.674940 Z-0.125000 I14.840293 J-7.469350
G02 X81.384184 Y134.454794 Z-0.125000 I12.507714 J-10.936499
G02 X85.109824 Y136.366372 Z-0.125000 I9.435543 J-13.803351
G02 X89.211024 Y137.294024 Z-0.125000 I5.710372 J-15.716217
G02 X93.414128 Y137.174207 Z-0.125000 I1.624311 J-16.801168
G02 X97.477304 Y136.010664 Z-0.125000 I-2.578863 J-16.681802
G02 X101.126798 Y133.878903 Z-0.125000 I-6.709898 J-15.676866
G02 X104.152793 Y130.898754 Z-0.125000 I-10.359401 J-13.545117
G02 X106.352294 Y127.265560 Z-0.125000 I-13.498494 J-10.654236
G02 X107.596773 Y123.189684 Z-0.125000 I-15.697433 J-7.020790
G02 X107.803172 Y118.933053 Z-0.125000 I-17.020970 J-2.958645
G02 X106.959713 Y114.750694 Z-0.125000 I-17.227068 J1.297963
G02 X105.116885 Y110.902623 Z-0.125000 I-16.380018 J5.479036
G02 X102.391323 Y107.627714 Z-0.125000 I-14.537625 J9.327386
G02 X98.945429 Y105.121791 Z-0.125000 I-11.752717 J12.538973
G02 X95.003814 Y103.544484 Z-0.125000 I-8.307041 J15.045292
G02 X90.795196 Y102.986077 Z-0.125000 I-4.327795 J16.478830
G02 X86.599674 Y103.480484 Z-0.125000 I-0.119178 J17.037395
G02 X82.656693 Y104.996965 Z-0.125000 I4.034819 J16.375164
G02 X79.230314 Y107.431084 Z-0.125000 I7.977498 J14.858120
G02 X76.516004 Y110.640071 Z-0.125000 I11.298926 J12.309594
G02 X74.693794 Y114.408794 Z-0.125000 I14.012038 J9.099830
G02 X73.868723 Y118.512816 Z-0.125000 I15.739997 J5.299312
G02 X74.094644 Y122.684934 Z-0.125000 I16.564141 J1.195223
G02 X75.355351 Y126.668431 Z-0.125000 I16.319175 J-2.973487
G02 X77.573404 Y130.212924 Z-0.125000 I15.058626 J-6.957058
G02 X80.605881 Y133.091674 Z-0.125000 I12.891147 J-10.542963
G02 X84.272214 Y135.129314 Z-0.125000 I9.859168 J-13.422391
G02 X88.330286 Y136.190424 Z-0.125000 I6.242943 J-15.584966
G02 X92.544854 Y136.210094 Z-0.125000 I2.185026 J-16.647255
G02 X96.632833 Y135.184775 Z-0.125000 I-2.050140 J-16.836075
G02 X100.359804 Y133.170294 Z-0.125000 I-6.138361 J-15.811379
G02 X103.474750 Y130.298803 Z-0.125000 I-9.961069 J-13.930871
G02 X105.797623 Y126.733824 Z-0.125000 I-13.075825 J-11.059219
G02 X107.173392 Y122.707400 Z-0.125000 I-15.505502 J-7.546252
G02 X107.520903 Y118.456174 Z-0.125000 I-16.880679 J-3.519704
G02 X106.815572 Y114.249484 Z-0.125000 I-17.271030 J0.733341
G02 X105.101683 Y110.343624 Z-0.125000 I-16.565496 J4.939970
G02 X102.482526 Y106.977139 Z-0.125000 I-14.814041 J8.823354
G02 X99.126274 Y104.362014 Z-0.125000 I-12.195556 J12.190512
G02 X95.230363 Y102.651704 Z-0.125000 I-8.777855 J14.702654
G02 X91.051684 Y101.955454 Z-0.125000 I-4.882220 J16.413893
G02 X86.830373 Y102.311438 Z-0.125000 I-0.696730 J16.944507
G02 X82.848884 Y103.692724 Z-0.125000 I3.524459 J16.587951
G02 X79.333872 Y106.017602 Z-0.125000 I7.430308 J15.053611
G02 X76.520264 Y109.128054 Z-0.125000 I10.944545 J12.727832
G02 X74.569306 Y112.840889 Z-0.125000 I13.648436 J9.540746
G02 X73.609364 Y116.910234 Z-0.125000 I15.598080 J5.827420
G02 X73.695461 Y121.090390 Z-0.125000 I16.493729 J1.751248
G02 X74.822984 Y125.113464 Z-0.125000 I16.407471 J-2.428884
G02 X76.919529 Y128.727473 Z-0.125000 I15.298780 J-6.459945
G02 X79.858104 Y131.708844 Z-0.125000 I13.202741 J-10.074339
G02 X83.447181 Y133.863441 Z-0.125000 I10.326395 J-13.134864
G02 X87.476094 Y135.061104 Z-0.125000 I6.737943 J-15.290880
G02 X91.676212 Y135.220412 Z-0.125000 I2.734334 J-16.642879
G02 X95.805954 Y134.329004 Z-0.125000 I-1.465848 J-16.802930
G02 X99.587040 Y132.444144 Z-0.125000 I-5.653491 J-16.075988
G02 X102.802443 Y129.671284 Z-0.125000 I-9.434309 J-14.190724
G02 X105.236294 Y126.192237 Z-0.125000 I-12.760326 J-11.517643
G02 X106.746763 Y122.207794 Z-0.125000 I-15.193611 J-8.038297
G02 X107.233341 Y117.974550 Z-0.125000 I-16.788495 J-4.074293
G02 X106.667463 Y113.745344 Z-0.125000 I-17.274783 J0.158949
G02 X105.082309 Y109.783808 Z-0.125000 I-16.711436 J4.388946
G02 X102.578163 Y106.335274 Z-0.125000 I-15.126405 J8.350549
G02 X99.304475 Y103.606520 Z-0.125000 I-12.562791 J11.743487
G02 X95.474344 Y101.771294 Z-0.125000 I-9.289439 J14.472765
G02 X91.310360 Y100.935113 Z-0.125000 I-5.413032 J16.169692
G02 X87.089564 Y101.150254 Z-0.125000 I-1.249056 J17.005983
G02 X83.052910 Y102.402042 Z-0.125000 I2.941440 J16.619701
G02 X79.471004 Y104.603634 Z-0.125000 I6.977727 J15.367105
G02 X76.548035 Y107.625791 Z-0.125000 I10.460010 J13.041306
G02 X74.478284 Y111.265344 Z-0.125000 I13.381939 J10.018370
G02 X73.381096 Y115.305944 Z-0.125000 I15.354100 J6.338530
G02 X73.328134 Y119.483764 Z-0.125000 I16.450256 J2.297786
G02 X74.320227 Y123.542425 Z-0.125000 I16.477135 J-1.877063
G02 X76.296524 Y127.226134 Z-0.125000 I15.485340 J-5.935838
G02 X79.129792 Y130.299887 Z-0.125000 I13.557445 J-9.654057
G02 X82.651064 Y132.576224 Z-0.125000 I10.724874 J-12.728638
G02 X86.628154 Y133.904279 Z-0.125000 I7.260220 J-15.122910
G02 X90.830344 Y134.203524 Z-0.125000 I3.283315 J-16.451891
G02 X94.975553 Y133.451735 Z-0.125000 I-0.928151 J-16.921444
G02 X98.826224 Y131.688984 Z-0.125000 I-5.073495 J-16.170085
G02 X102.122914 Y129.030642 Z-0.125000 I-9.012683 J-14.550231
G02 X104.675473 Y125.627584 Z-0.125000 I-12.309094 J-11.891621
G02 X106.313447 Y121.701610 Z-0.125000 I-14.969589 J-8.550212
G02 X106.940443 Y117.482714 Z-0.125000 I-16.607200 J-4.624137
G02 X106.513970 Y113.238863 Z-0.125000 I-17.282787 J-0.406573
G02 X105.061093 Y109.227844 Z-0.125000 I-16.857798 J3.837615
G02 X102.669324 Y105.695343 Z-0.125000 I-15.371464 J7.831684
G02 X99.492034 Y102.863384 Z-0.125000 I-12.980030 J11.364478
G02 X95.716449 Y100.898631 Z-0.125000 I-9.737378 J14.101849
G02 X91.591294 Y99.926874 Z-0.125000 I-5.961871 J16.066813
G02 X87.353896 Y100.002262 Z-0.125000 I-1.819137 J16.875428
G02 X83.287794 Y101.116574 Z-0.125000 I2.418220 J16.799754
G02 X79.624477 Y103.203430 Z-0.125000 I6.418191 J15.525411
G02 X76.609084 Y106.120504 Z-0.125000 I10.080830 J13.437652
G02 X74.414318 Y109.696108 Z-0.125000 I12.987449 J10.433308
G02 X73.184904 Y113.692784 Z-0.125000 I15.181608 J6.857429
G02 X72.991814 Y117.869822 Z-0.125000 I16.340185 J2.848333
G02 X73.848234 Y121.958744 Z-0.125000 I16.533107 J-1.328692
G02 X75.698793 Y125.704163 Z-0.125000 I15.689204 J-5.421940
G02 X78.431264 Y128.873844 Z-0.125000 I13.839511 J-9.167932
G02 X81.867866 Y131.261947 Z-0.125000 I11.170775 J-12.408541
G02 X85.806564 Y132.724264 Z-0.125000 I7.734759 J-14.797767
G02 X89.985088 Y133.161949 Z-0.125000 I3.831081 J-16.410083
G02 X94.163034 Y132.546544 Z-0.125000 I-0.347458 J-16.848481
G02 X98.058918 Y130.916817 Z-0.125000 I-4.572540 J-16.402156
G02 X101.449413 Y128.363414 Z-0.125000 I-8.468286 J-14.772189
G02 X104.106747 Y125.053766 Z-0.125000 I-11.965626 J-12.328881
G02 X105.876423 Y121.178284 Z-0.125000 I-14.622297 J-9.018824
G02 X106.640853 Y116.987016 Z-0.125000 I-16.481296 J-5.171306
G02 X106.354883 Y112.729524 Z-0.125000 I-17.245259 J-0.980011
G02 X105.034228 Y108.671958 Z-0.125000 I-16.969001 J3.279358
G02 X102.762393 Y105.064894 Z-0.125000 I-15.648973 J7.337218
G02 X99.675173 Y102.125294 Z-0.125000 I-13.318601 J10.896505
G02 X95.973254 Y100.040164 Z-0.125000 I-10.231745 J13.836596
G02 X91.872112 Y98.929849 Z-0.125000 I-6.475690 J15.789791
G02 X87.644454 Y98.864744 Z-0.125000 I-2.374592 J16.900420
G02 X83.531773 Y99.846253 Z-0.125000 I1.834061 J16.792163
G02 X79.809954 Y101.805584 Z-0.125000 I5.946641 J15.810387
G02 X76.691040 Y104.627537 Z-0.125000 I9.575188 J13.717345
G02 X74.382724 Y108.121854 Z-0.125000 I12.693148 J10.894573
G02 X73.018078 Y112.081197 Z-0.125000 I14.900984 J7.350689
G02 X72.686354 Y116.246254 Z-0.125000 I16.264547 J3.391120
G02 X73.405297 Y120.362190 Z-0.125000 I16.562789 J-0.772314
G02 X75.131004 Y124.168804 Z-0.125000 I15.843898 J-4.888266
G02 X77.752456 Y127.424023 Z-0.125000 I14.163412 J-8.722754
G02 X81.113014 Y129.928934 Z-0.125000 I11.542347 J-11.978374
G02 X84.991496 Y131.518053 Z-0.125000 I8.244130 J-14.593468
G02 X89.162634 Y132.095494 Z-0.125000 I4.365989 J-16.183851
G02 X93.346671 Y131.620496 Z-0.125000 I0.196998 J-16.929843
G02 X97.303944 Y130.117164 Z-0.125000 I-3.987360 J-16.456169
G02 X100.767707 Y127.683612 Z-0.125000 I-8.024748 J-15.103743
G02 X103.538563 Y124.457434 Z-0.125000 I-11.488064 J-12.669698
G02 X105.431368 Y120.649138 Z-0.125000 I-14.367832 J-9.515651
G02 X106.334983 Y116.481104 Z-0.125000 I-16.259605 J-5.706993
G02 X106.189049 Y112.218745 Z-0.125000 I-17.220415 J-1.544087
G02 X105.003473 Y108.120164 Z-0.125000 I-17.074372 J2.718255
G02 X102.849492 Y104.437177 Z-0.125000 I-15.861200 J6.804996
G02 X99.865004 Y101.400764 Z-0.125000 I-13.707677 J10.488332
G02 X96.226252 Y99.190191 Z-0.125000 I-10.654974 J13.438700
G02 X92.172624 Y97.947134 Z-0.125000 I-7.016472 J15.649829
G02 X87.937663 Y97.741531 Z-0.125000 I-2.934830 J16.732742
G02 X83.804714 Y98.583924 Z-0.125000 I1.300143 J16.938492
G02 X80.009057 Y100.423502 Z-0.125000 I5.377204 J15.930587
G02 X76.805024 Y103.134294 Z-0.125000 I9.172295 J14.090140
G02 X74.375950 Y106.556862 Z-0.125000 I12.270175 J11.281689
G02 X72.882364 Y110.463234 Z-0.125000 I14.697926 J7.858414
G02 X72.410750 Y114.618733 Z-0.125000 I16.114992 J3.933427
G02 X72.992184 Y118.755414 Z-0.125000 I16.586080 J-0.222065
G02 X74.588466 Y122.615740 Z-0.125000 I16.010820 J-4.360427
G02 X77.102664 Y125.959674 Z-0.125000 I14.414872 J-8.220944
G02 X80.371517 Y128.570749 Z-0.125000 I11.964824 J-11.627280
G02 X84.202504 Y130.291204 Z-0.125000 I8.696480 J-14.239189
G02 X88.340916 Y131.005280 Z-0.125000 I4.909565 J-16.104206
G02 X92.548514 Y130.668524 Z-0.125000 I0.771177 J-16.818827
G02 X96.541906 Y129.301039 Z-0.125000 I-3.472189 J-16.654231
G02 X100.092414 Y126.978304 Z-0.125000 I-7.465701 J-15.286993
G02 X102.961357 Y123.852565 Z-0.125000 I-11.118188 J-13.084263
G02 X104.982323 Y120.103054 Z-0.125000 I-13.986334 J-9.957957
G02 X106.021082 Y115.972180 Z-0.125000 I-16.100880 J-6.244804
G02 X106.016183 Y111.705094 Z-0.125000 I-17.139147 J-2.113869
G02 X104.965679 Y107.569321 Z-0.125000 I-17.151976 J2.155373
G02 X102.936033 Y103.819544 Z-0.125000 I-16.101921 J6.291322
G02 X100.048761 Y100.682017 Z-0.125000 I-14.016452 J10.001222
G02 X96.491194 Y98.356074 Z-0.125000 I-11.129579 J13.139218
G02 X92.470849 Y96.976472 Z-0.125000 I-7.511304 J15.341234
G02 X88.254764 Y96.631334 Z-0.125000 I-3.490984 J16.720960
G02 X84.084057 Y97.338187 Z-0.125000 I0.717738 J16.892745
G02 X80.238554 Y99.046594 Z-0.125000 I4.888287 J16.185371
G02 X76.937271 Y101.655832 Z-0.125000 I8.647718 J14.334395
G02 X74.400424 Y104.989494 Z-0.125000 I11.948366 J11.724534
G02 X72.774162 Y108.850088 Z-0.125000 I14.382691 J8.331485
G02 X72.165024 Y112.983994 Z-0.125000 I16.008102 J4.470653
G02 X72.607475 Y117.139046 Z-0.125000 I16.574163 J0.336184
G02 X74.074904 Y121.051734 Z-0.125000 I16.133800 J-3.819362
G02 X76.472844 Y124.474058 Z-0.125000 I14.705972 J-7.752866
G02 X79.657744 Y127.196424 Z-0.125000 I12.308772 J-11.175862
G02 X83.420421 Y129.039571 Z-0.125000 I9.190563 J-13.999785
G02 X87.541984 Y129.892594 Z-0.125000 I5.428180 J-15.843791
G02 X91.746310 Y129.696387 Z-0.125000 I1.319722 J-16.864269
G02 X95.792594 Y128.459084 Z-0.125000 I-2.884653 J-16.668341
G02 X99.408034 Y126.260957 Z-0.125000 I-7.001895 J-15.588956
G02 X102.384853 Y123.225824 Z-0.125000 I-10.616965 J-13.390363
G02 X104.523985 Y119.551906 Z-0.125000 I-13.701940 J-10.437641
G02 X105.700113 Y115.453044 Z-0.125000 I-15.840264 J-6.763377
G02 X105.835212 Y111.190913 Z-0.125000 I-17.080570 J-2.674618
G02 X104.922043 Y107.022734 Z-0.125000 I-17.215704 J1.587516
G02 X103.015182 Y103.205474 Z-0.125000 I-16.281850 J5.748477
G02 X100.236504 Y99.977874 Z-0.125000 I-14.375210 J9.565885
G02 X96.750493 Y97.531193 Z-0.125000 I-11.526893 J12.716663
G02 X92.786084 Y96.022224 Z-0.125000 I-8.041275 J15.164086
G02 X88.572110 Y95.536493 Z-0.125000 I-4.038948 J16.517918
G02 X84.390324 Y96.103224 Z-0.125000 I0.175021 J17.003053
G02 X80.478918 Y97.687346 Z-0.125000 I4.311663 J16.267015
G02 X77.100204 Y100.179904 Z-0.125000 I8.222794 J14.682404
G02 X74.447353 Y103.434297 Z-0.125000 I11.498555 J12.081606
G02 X72.696054 Y107.233114 Z-0.125000 I14.150452 J8.826618
G02 X71.947836 Y111.348732 Z-0.125000 I15.819549 J5.001810
G02 X72.251614 Y115.514884 Z-0.125000 I16.567039 J0.886153
G02 X73.586427 Y119.473094 Z-0.125000 I16.261477 J-3.279626
G02 X75.871174 Y122.976474 Z-0.125000 I14.926842 J-7.237922
G02 X78.957754 Y125.798998 Z-0.125000 I12.704857 J-10.794504
G02 X82.664014 Y127.769924 Z-0.125000 I9.619119 J-13.618220
G02 X86.743977 Y128.757198 Z-0.125000 I5.965045 J-15.726898
G02 X90.962524 Y128.700534 Z-0.125000 I1.885140 J-16.714685
G02 X95.035706 Y127.601227 Z-0.125000 I-2.357848 J-16.832055
G02 X98.730454 Y125.519344 Z-0.125000 I-6.431021 J-15.732725
G02 X101.798220 Y122.591207 Z-0.125000 I-10.221801 J-13.780328
G02 X104.061463 Y118.984144 Z-0.125000 I-13.288928 J-10.851669
G02 X105.369794 Y114.931810 Z-0.125000 I-15.649520 J-7.289953
G02 X105.645893 Y110.673844 Z-0.125000 I-16.957146 J-3.237485
G02 X104.870003 Y106.478067 Z-0.125000 I-17.259537 J1.022034
G02 X103.091373 Y102.601984 Z-0.125000 I-16.483892 J5.217889
G02 X100.416635 Y99.280343 Z-0.125000 I-14.653261 J9.061751
G02 X97.018924 Y96.723724 Z-0.125000 I-11.979099 J12.383987
G02 X93.096967 Y95.080875 Z-0.125000 I-8.515054 J14.825051
G02 X88.910874 Y94.457154 Z-0.125000 I-4.593324 J16.468718
G02 X84.700372 Y94.886165 Z-0.125000 I-0.403073 J16.920441
G02 X80.747964 Y96.336064 Z-0.125000 I3.807201 J16.490442
G02 X77.278712 Y98.721035 Z-0.125000 I7.682174 J14.890449
G02 X74.524384 Y101.879324 Z-0.125000 I11.150579 J12.504528
G02 X72.643492 Y105.624112 Z-0.125000 I13.801651 J9.276897
G02 X71.759504 Y109.708614 Z-0.125000 I15.681758 J5.531833
G02 X71.923385 Y113.884458 Z-0.125000 I16.516305 J1.442954
G02 X73.125934 Y117.885904 Z-0.125000 I16.351996 J-2.732818
G02 X75.289671 Y121.460241 Z-0.125000 I15.183730 J-6.749442
G02 X78.284764 Y124.387984 Z-0.125000 I13.020604 J-10.324264
G02 X81.914942 Y126.477007 Z-0.125000 I10.095095 J-13.343984
G02 X85.968624 Y127.601774 Z-0.125000 I6.465311 J-15.433946
G02 X90.174618 Y127.685178 Z-0.125000 I2.435419 J-16.722058
G02 X94.291914 Y126.719284 Z-0.125000 I-1.770621 J-16.805892
G02 X98.042984 Y124.766187 Z-0.125000 I-5.948695 J-16.003571
G02 X101.212533 Y121.935424 Z-0.125000 I-9.699715 J-14.050402
G02 X103.588397 Y118.412020 Z-0.125000 I-12.975689 J-11.312364
G02 X105.031763 Y114.400314 Z-0.125000 I-15.350592 J-7.788473
G02 X105.447122 Y110.157143 Z-0.125000 I-16.865529 J-3.792862
G02 X104.810273 Y105.937654 Z-0.125000 I-17.280103 J0.450288
G02 X103.158787 Y102.002896 Z-0.125000 I-16.630384 J4.666103
G02 X100.598034 Y98.598244 Z-0.125000 I-14.979293 J8.601087
G02 X97.280002 Y95.926201 Z-0.125000 I-12.349137 J11.938527
G02 X93.422114 Y94.157864 Z-0.125000 I-9.031682 J14.611503
G02 X89.247547 Y93.394089 Z-0.125000 I-5.126820 J16.231320
G02 X85.035194 Y93.682534 Z-0.125000 I-0.952273 J16.995459
G02 X81.025136 Y95.004152 Z-0.125000 I3.226369 J16.533934
G02 X77.486484 Y97.267454 Z-0.125000 I7.235960 J15.211332
G02 X74.621379 Y100.339258 Z-0.125000 I10.676336 J12.829993
G02 X72.619964 Y104.013754 Z-0.125000 I13.540525 J9.757529
G02 X71.598263 Y108.071326 Z-0.125000 I15.454724 J6.048935
G02 X71.622944 Y112.248544 Z-0.125000 I16.476172 J1.991332
G02 X72.690258 Y116.287194 Z-0.125000 I16.440670 J-2.184501
G02 X74.735364 Y119.934494 Z-0.125000 I15.373691 J-6.223287
G02 X77.625980 Y122.956017 Z-0.125000 I13.388624 J-9.915111
G02 X81.191034 Y125.168634 Z-0.125000 I10.498594 J-12.937355
G02 X85.194470 Y126.424724 Z-0.125000 I6.992624 J-15.279074
G02 X89.405244 Y126.648314 Z-0.125000 I2.989393 J-16.536297
G02 X93.540159 Y125.821972 Z-0.125000 I-1.234138 J-16.933949
G02 X97.362714 Y123.990064 Z-0.125000 I-5.368909 J-16.107173
G02 X100.615659 Y121.272333 Z-0.125000 I-9.280740 J-14.414081
G02 X103.111093 Y117.823564 Z-0.125000 I-12.533090 J-11.695795
G02 X104.683066 Y113.867562 Z-0.125000 I-15.128623 J-8.301893
G02 X105.238843 Y109.637404 Z-0.125000 I-16.699810 J-4.345687
G02 X104.740822 Y105.400071 Z-0.125000 I-17.290918 J-0.115702
G02 X103.220943 Y101.414674 Z-0.125000 I-16.792661 J4.121573
G02 X100.770358 Y97.923522 Z-0.125000 I-15.226560 J8.082498
G02 X97.547354 Y95.147404 Z-0.125000 I-12.776108 J11.573770
G02 X93.740937 Y93.248499 Z-0.125000 I-9.482882 J14.244249
G02 X89.603114 Y92.348854 Z-0.125000 I-5.676699 J16.143820
G02 X85.371239 Y92.498076 Z-0.125000 I-1.523568 J16.873929
G02 X81.329184 Y93.683044 Z-0.125000 I2.708326 J16.724828
G02 X77.707104 Y95.833164 Z-0.125000 I6.682150 J15.382644
G02 X74.747284 Y98.802134 Z-0.125000 I10.303467 J13.231545
G02 X72.619881 Y102.414558 Z-0.125000 I13.160075 J10.182775
G02 X71.464854 Y106.431614 Z-0.125000 I15.286434 J6.569902
G02 X71.349246 Y110.609832 Z-0.125000 I16.384420 J2.544052
G02 X72.281524 Y114.682334 Z-0.125000 I16.499544 J-1.634119
G02 X74.201394 Y118.392941 Z-0.125000 I15.594181 J-5.716464
G02 X76.993364 Y121.513064 Z-0.125000 I13.675079 J-9.427601
G02 X80.474942 Y123.838734 Z-0.125000 I10.953966 J-12.629490
G02 X84.442744 Y125.230204 Z-0.125000 I7.472831 J-14.956048
G02 X88.631780 Y125.592796 Z-0.125000 I3.538862 J-16.505249
G02 X92.801814 Y124.902504 Z-0.125000 I-0.650200 J-16.868514
G02 X96.671862 Y123.202966 Z-0.125000 I-4.870273 J-16.346231
G02 X100.020034 Y120.589004 Z-0.125000 I-8.740055 J-14.646248
G02 X102.622022 Y117.231537 Z-0.125000 I-12.192162 J-12.135733
G02 X104.326163 Y113.324624 Z-0.125000 I-14.793217 J-8.777713
G02 X105.019787 Y109.119059 Z-0.125000 I-16.575154 J-4.893724
G02 X104.661963 Y104.866754 Z-0.125000 I-17.268054 J-0.688130
G02 X103.272966 Y100.831815 Z-0.125000 I-16.906137 J3.563262
G02 X100.941314 Y97.265004 Z-0.125000 I-15.517386 J7.598321
G02 X97.805727 Y94.379344 Z-0.125000 I-13.118230 J11.107989
G02 X94.071214 Y92.359344 Z-0.125000 I-9.983035 J13.994200
G02 X89.954354 Y91.320836 Z-0.125000 I-6.193619 J15.873488
G02 X85.729814 Y91.329694 Z-0.125000 I-2.076817 J16.912474
G02 X81.638655 Y92.382910 Z-0.125000 I2.125573 J16.729227
G02 X77.955484 Y94.406954 Z-0.125000 I6.216447 J15.675291
G02 X74.890601 Y97.282566 Z-0.125000 I9.807042 J13.523650
G02 X72.647754 Y100.816534 Z-0.125000 I12.871294 J10.647516
G02 X71.356907 Y104.798117 Z-0.125000 I15.022814 J7.070503
G02 X71.102294 Y108.967964 Z-0.125000 I16.312874 J3.088771
G02 X71.897245 Y113.069229 Z-0.125000 I16.547783 J-1.079794
G02 X73.693614 Y116.844304 Z-0.125000 I15.752944 J-5.181097
G02 X76.375381 Y120.051504 Z-0.125000 I14.012292 J-8.991863
G02 X79.783414 Y122.495984 Z-0.125000 I11.331368 J-12.199972
G02 X83.692593 Y124.015314 Z-0.125000 I7.988023 J-14.764126
G02 X87.876874 Y124.518094 Z-0.125000 I4.079054 J-16.284295
G02 X92.055213 Y123.968292 Z-0.125000 I-0.106113 J-16.958438
G02 X95.988604 Y122.394374 Z-0.125000 I-4.284913 J-16.410402
G02 X99.412253 Y119.898946 Z-0.125000 I-8.299092 J-14.982379
G02 X102.128753 Y116.623624 Z-0.125000 I-11.722208 J-12.486383
G02 X103.957296 Y112.781296 Z-0.125000 I-14.540502 J-9.276006
G02 X104.790203 Y108.597544 Z-0.125000 I-16.368124 J-5.433373
G02 X104.572086 Y104.337261 Z-0.125000 I-17.245086 J-1.252817
G02 X103.317533 Y100.260024 Z-0.125000 I-17.026586 J3.007398
G02 X101.101774 Y96.614718 Z-0.125000 I-15.732653 J7.066856
G02 X98.067544 Y93.631214 Z-0.125000 I-13.517402 J10.712564
G02 X94.393312 Y91.484590 Z-0.125000 I-10.410180 J13.600623
G02 X90.321824 Y90.312904 Z-0.125000 I-6.736268 J15.747994
G02 X86.087132 Y90.181616 Z-0.125000 I-2.638830 J16.754854
G02 X81.973054 Y91.096384 Z-0.125000 I1.595831 J16.885809
G02 X78.213969 Y93.002092 Z-0.125000 I5.651644 J15.808419
G02 X75.061554 Y95.768644 Z-0.125000 I9.410428 J13.902267
G02 X72.696854 Y99.232725 Z-0.125000 I12.460781 J11.045309
G02 X71.275754 Y103.164604 Z-0.125000 I14.824834 J7.580897
G02 X70.881013 Y107.326739 Z-0.125000 I16.180822 J3.634393
G02 X71.538834 Y111.452314 Z-0.125000 I16.575624 J-0.527744
G02 X73.206224 Y115.282816 Z-0.125000 I15.935876 J-4.658621
G02 X75.782664 Y118.581484 Z-0.125000 I14.269351 J-8.489638
G02 X79.100213 Y121.133560 Z-0.125000 I11.763348 J-11.859317
G02 X82.964504 Y122.785504 Z-0.125000 I8.446399 J-14.412418
G02 X87.118026 Y123.425633 Z-0.125000 I4.625104 J-16.215036
G02 X91.322284 Y123.013914 Z-0.125000 I0.471603 J-16.855928
G02 X95.294147 Y121.575334 Z-0.125000 I-3.771492 J-16.615308
G02 X98.806064 Y119.189654 Z-0.125000 I-7.743119 J-15.176265
G02 X101.622567 Y116.012835 Z-0.125000 I-11.354696 J-12.903778
G02 X103.579853 Y112.227884 Z-0.125000 I-14.170321 J-9.726356
G02 X104.548531 Y108.078363 Z-0.125000 I-16.211060 J-5.972189
G02 X104.471223 Y103.811934 Z-0.125000 I-17.179327 J-1.822625
G02 X103.350679 Y99.694555 Z-0.125000 I-17.107111 J2.444532
G02 X101.258273 Y95.981184 Z-0.125000 I-15.986693 J6.561962
G02 X98.318830 Y92.894603 Z-0.125000 I-13.830063 J10.227831
G02 X94.724004 Y90.631744 Z-0.125000 I-10.891110 J13.315012
G02 X90.682861 Y89.323039 Z-0.125000 I-7.234820 J15.446704
G02 X86.464584 Y89.052194 Z-0.125000 I-3.193649 J16.755263
G02 X82.310220 Y89.832304 Z-0.125000 I1.014103 J16.852258
G02 X78.498614 Y91.608124 Z-0.125000 I5.168380 J16.071879
G02 X75.247314 Y94.274795 Z-0.125000 I8.894362 J14.159708
G02 X72.772794 Y97.652644 Z-0.125000 I12.144962 J11.492376
G02 X71.218312 Y101.540657 Z-0.125000 I14.525016 J8.062065
G02 X70.685424 Y105.684694 Z-0.125000 I16.078839 J4.173882
G02 X71.204277 Y109.830504 Z-0.125000 I16.575277 J0.030955
G02 X72.743974 Y113.716634 Z-0.125000 I16.065949 J-4.117296
G02 X75.204970 Y117.095380 Z-0.125000 I14.573958 J-8.029676
G02 X78.440844 Y119.760844 Z-0.125000 I12.113658 J-11.409077
G02 X82.238451 Y121.536706 Z-0.125000 I8.946756 J-14.183825
G02 X86.377664 Y122.316374 Z-0.125000 I5.149336 J-15.960267
G02 X90.580936 Y122.045442 Z-0.125000 I1.020422 J-16.909578
G02 X94.607664 Y120.736424 Z-0.125000 I-3.182924 J-16.639032
G02 X98.186825 Y118.474200 Z-0.125000 I-7.281504 J-15.482858
G02 X101.112303 Y115.386714 Z-0.125000 I-10.860205 J-13.220075
G02 X103.189194 Y111.674916 Z-0.125000 I-13.888058 J-10.207841
G02 X104.295463 Y107.555934 Z-0.125000 I-15.963833 J-6.495589
G02 X104.358036 Y103.291435 Z-0.125000 I-17.122361 J-2.383946
G02 X103.374263 Y99.140224 Z-0.125000 I-17.186208 J1.880692
G02 X101.402936 Y95.356800 Z-0.125000 I-16.169821 J6.019888
G02 X98.570724 Y92.178954 Z-0.125000 I-14.199017 J9.803674
G02 X95.044755 Y89.794054 Z-0.125000 I-11.292923 J12.897142
G02 X91.057394 Y88.355394 Z-0.125000 I-7.767306 J15.282733
G02 X86.838408 Y87.944122 Z-0.125000 I-3.744071 J16.562485
G02 X82.670284 Y88.584584 Z-0.125000 I0.474924 J16.974098
G02 X78.790634 Y90.237419 Z-0.125000 I4.595692 J16.167044
G02 X75.459354 Y92.789334 Z-0.125000 I8.474915 J14.513477
G02 X72.867632 Y96.089727 Z-0.125000 I11.706910 J11.860971
G02 X71.186614 Y99.919094 Z-0.125000 I14.297975 J8.560184
G02 X70.514301 Y104.046783 Z-0.125000 I15.907041 J4.709515
G02 X70.894674 Y108.207174 Z-0.125000 I16.578998 J0.581813
G02 X72.302100 Y112.140703 Z-0.125000 I16.207685 J-3.580592
G02 X74.651554 Y115.603284 Z-0.125000 I14.800974 J-7.514484
G02 X77.790340 Y118.370500 Z-0.125000 I12.520170 J-11.037593
G02 X81.533974 Y120.275554 Z-0.125000 I9.381869 J-13.805523
G02 X85.633609 Y121.190355 Z-0.125000 I5.689431 J-15.853345
G02 X89.853404 Y121.058964 Z-0.125000 I1.589826 J-16.768460
G02 X93.909488 Y119.887603 Z-0.125000 I-2.657170 J-16.809206
G02 X97.569534 Y117.740664 Z-0.125000 I-6.713233 J-15.637796
G02 X100.588012 Y114.758398 Z-0.125000 I-10.467391 J-13.613190
G02 X102.789723 Y111.112034 Z-0.125000 I-13.485148 J-10.630356
G02 X104.029015 Y107.036806 Z-0.125000 I-15.775178 J-7.023340
G02 X104.232473 Y102.774954 Z-0.125000 I-17.013915 J-2.948017
G02 X103.385155 Y98.593241 Z-0.125000 I-17.232240 J1.314975
G02 X101.541123 Y94.749594 Z-0.125000 I-16.385001 J5.496715
G02 X98.810638 Y91.475662 Z-0.125000 I-14.481604 J9.302182
G02 X95.371184 Y88.979794 Z-0.125000 I-11.751752 J12.576792
G02 X91.423479 Y87.406627 Z-0.125000 I-8.245474 J14.951426
G02 X87.229884 Y86.857184 Z-0.125000 I-4.297907 J16.525120
G02 X83.030505 Y87.360671 Z-0.125000 I-0.103501 J16.901128
G02 X79.107084 Y88.880424 Z-0.125000 I4.096311 J16.399373
G02 X75.683550 Y91.326331 Z-0.125000 I7.941950 J14.735253
G02 X72.988144 Y94.533144 Z-0.125000 I11.364698 J12.288496
G02 X71.176710 Y98.310391 Z-0.125000 I13.963436 J9.019345
G02 X70.367814 Y102.410344 Z-0.125000 I15.774563 J5.241996
G02 X70.608271 Y106.582391 Z-0.125000 I16.544838 J1.139388
G02 X71.884264 Y110.562404 Z-0.125000 I16.304523 J-3.032685
G02 X74.113509 Y114.097795 Z-0.125000 I15.071186 J-7.032632
G02 X77.162854 Y116.972414 Z-0.125000 I12.842675 J-10.568627
G02 X80.832059 Y118.996953 Z-0.125000 I9.864587 J-13.540998
G02 X84.907834 Y120.049994 Z-0.125000 I6.195789 J-15.566559
G02 X89.117434 Y120.059059 Z-0.125000 I2.140954 J-16.783757
G02 X93.219624 Y119.020654 Z-0.125000 I-2.068957 J-16.795346
G02 X96.938399 Y117.001510 Z-0.125000 I-6.232934 J-15.913675
G02 X100.059854 Y114.115424 Z-0.125000 I-9.951139 J-13.893735
G02 X102.375794 Y110.550433 Z-0.125000 I-13.173738 J-11.092863
G02 X103.750463 Y106.514314 Z-0.125000 I-15.489302 J-7.527689
G02 X104.093299 Y102.264347 Z-0.125000 I-16.924699 J-3.504093
G02 X103.384533 Y98.057364 Z-0.125000 I-17.267076 J0.745854
G02 X101.666173 Y94.152472 Z-0.125000 I-16.535955 J4.946169
G02 X99.048344 Y90.794174 Z-0.125000 I-14.817877 J8.851230
G02 X95.686046 Y88.181473 Z-0.125000 I-12.127078 J12.136570
G02 X91.800224 Y86.482074 Z-0.125000 I-8.765084 J14.749782
G02 X87.615445 Y85.792581 Z-0.125000 I-4.834511 J16.298165
G02 X83.411454 Y86.155854 Z-0.125000 I-0.649741 J16.987909
G02 X79.428209 Y87.548464 Z-0.125000 I3.518136 J16.455718
G02 X75.932614 Y89.874464 Z-0.125000 I7.501155 J15.062652
G02 X73.125120 Y92.996571 Z-0.125000 I10.901671 J12.626459
G02 X71.191474 Y96.706514 Z-0.125000 I13.708233 J9.503706
G02 X70.244394 Y100.781526 Z-0.125000 I15.563732 J5.764756
G02 X70.345564 Y104.958364 Z-0.125000 I16.510648 J1.689727
G02 X71.486670 Y108.977563 Z-0.125000 I16.408671 J-2.487060
G02 X73.598704 Y112.588744 Z-0.125000 I15.268124 J-6.506498
G02 X76.544786 Y115.558897 Z-0.125000 I13.220866 J-10.167542
G02 X80.151134 Y117.708564 Z-0.125000 I10.275526 J-13.138643
G02 X84.178736 Y118.893973 Z-0.125000 I6.726985 J-15.421033
G02 X88.395344 Y119.043404 Z-0.125000 I2.699484 J-16.607064
G02 X92.517685 Y118.144351 Z-0.125000 I-1.532652 J-16.927942
G02 X96.309584 Y116.245574 Z-0.125000 I-5.654867 J-16.028529
G02 X99.516617 Y113.470903 Z-0.125000 I-9.534444 J-14.260864
G02 X101.952943 Y109.979164 Z-0.125000 I-12.740870 J-11.485645
G02 X103.457232 Y105.996084 Z-0.125000 I-15.269253 J-8.042337
G02 X103.940463 Y101.757554 Z-0.125000 I-16.772703 J-4.059053
G02 X103.369960 Y97.529881 Z-0.125000 I-17.279642 J0.179470
G02 X101.782313 Y93.572794 Z-0.125000 I-16.710628 J4.407536
G02 X99.272686 Y90.125927 Z-0.125000 I-15.069966 J8.335230
G02 X96.003644 Y87.407934 Z-0.125000 I-12.560947 J11.782667
G02 X92.166641 Y85.577210 Z-0.125000 I-9.221393 J14.390719
G02 X88.016044 Y84.751504 Z-0.125000 I-5.384587 J16.222039
G02 X83.790060 Y84.976116 Z-0.125000 I-1.221810 J16.879533
G02 X79.771934 Y86.233024 Z-0.125000 I3.004182 J16.654968
G02 X76.191136 Y88.447311 Z-0.125000 I6.953872 J15.247798
G02 X73.286564 Y91.468944 Z-0.125000 I10.534217 J13.032951
G02 X71.226002 Y95.118732 Z-0.125000 I13.341479 J9.938764
G02 X70.144564 Y99.156494 Z-0.125000 I15.401116 J6.288598
G02 X70.105327 Y103.336382 Z-0.125000 I16.435001 J2.244405
G02 X71.111994 Y107.392664 Z-0.125000 I16.474612 J-1.935528
G02 X73.099534 Y111.069133 Z-0.125000 I15.502080 J-6.005118
G02 X75.948814 Y114.140144 Z-0.125000 I13.515006 J-9.681922
G02 X79.473365 Y116.404421 Z-0.125000 I10.737905 J-12.839236
G02 X83.467604 Y117.726104 Z-0.125000 I7.213835 J-15.104520
G02 X87.664886 Y118.015120 Z-0.125000 I3.250535 J-16.584052
G02 X91.824324 Y117.251794 Z-0.125000 I-0.946756 J-16.873216
G02 X95.666238 Y115.484549 Z-0.125000 I-5.157689 J-16.272293
G02 X98.969774 Y112.812544 Z-0.125000 I-8.999032 J-14.504129
G02 X101.514433 Y109.409953 Z-0.125000 I-12.401774 J-11.927599
G02 X103.151333 Y105.474464 Z-0.125000 I-14.945612 J-8.524540
G02 X103.772754 Y101.257675 Z-0.125000 I-16.651061 J-4.608021
G02 X103.342043 Y97.013404 Z-0.125000 I-17.271981 J-0.391221
G02 X101.884061 Y93.004206 Z-0.125000 I-16.828901 J3.850284
G02 X99.492044 Y89.480164 Z-0.125000 I-15.370847 J7.859445
G02 X96.308115 Y86.651155 Z-0.125000 I-12.908647 J11.321937
G02 X92.540804 Y84.698394 Z-0.125000 I-9.725069 J14.151457
G02 X88.408572 Y83.733689 Z-0.125000 I-5.905269 J15.962335
G02 X84.187074 Y83.818104 Z-0.125000 I-1.773101 J16.927650
G02 X80.117684 Y84.944273 Z-0.125000 I2.423743 J16.673569
G02 X76.472994 Y87.034084 Z-0.125000 I6.493032 J15.547158
G02 X73.461972 Y89.964058 Z-0.125000 I10.047683 J13.337762
G02 X71.284114 Y93.538234 Z-0.125000 I13.058162 J10.407355
G02 X70.066258 Y97.542554 Z-0.125000 I15.152645 J6.795815
G02 X69.887694 Y101.717394 Z-0.125000 I16.369984 J2.791406
G02 X70.757294 Y105.804557 Z-0.125000 I16.537674 J-1.382524
G02 X72.622514 Y109.548324 Z-0.125000 I15.668510 J-5.469839
G02 X75.362798 Y112.708330 Z-0.125000 I13.862945 J-9.253468
G02 X78.815874 Y115.093044 Z-0.125000 I11.123283 J-12.414167
G02 X82.753612 Y116.543822 Z-0.125000 I7.733355 J-14.920719
G02 X86.948294 Y116.973334 Z-0.125000 I3.795728 J-16.371981
G02 X91.118652 Y116.350499 Z-0.125000 I-0.402618 J-16.969133
G02 X95.025564 Y114.708174 Z-0.125000 I-4.573421 J-16.347890
G02 X98.406901 Y112.153238 Z-0.125000 I-8.559923 J-14.843642
G02 X101.066983 Y108.831474 Z-0.125000 I-11.940760 J-12.288192
G02 X102.829492 Y104.958029 Z-0.125000 I-14.695339 J-9.024441
G02 X103.590283 Y100.761424 Z-0.125000 I-16.456825 J-5.150676
G02 X103.298912 Y96.506382 Z-0.125000 I-17.252807 J-0.956084
G02 X101.974593 Y92.453204 Z-0.125000 I-16.961330 J3.298938
G02 X99.696718 Y88.848554 Z-0.125000 I-15.592170 J7.331059
G02 X96.612374 Y85.920324 Z-0.125000 I-13.314677 J10.936023
G02 X92.902875 Y83.840076 Z-0.125000 I-10.157972 J13.766190
G02 X88.813404 Y82.741654 Z-0.125000 I-6.448754 J15.847129
G02 X84.579345 Y82.686330 Z-0.125000 I-2.336689 J16.783264
G02 X80.484054 Y83.674834 Z-0.125000 I1.897272 J16.837719
G02 X76.761635 Y85.647661 Z-0.125000 I5.934009 J15.694781
G02 X73.660564 Y88.470784 Z-0.125000 I9.656256 J13.721708
G02 X71.359800 Y91.976957 Z-0.125000 I12.660624 J10.815920
G02 X70.010474 Y95.934724 Z-0.125000 I14.961077 J7.309595
G02 X69.691550 Y100.103992 Z-0.125000 I16.253822 J3.340151
G02 X70.424384 Y104.218624 Z-0.125000 I16.572861 J-0.829122
G02 X72.161324 Y108.019962 Z-0.125000 I15.864684 J-4.951532
G02 X74.797894 Y111.273744 Z-0.125000 I14.128464 J-8.753316
G02 X78.162160 Y113.767793 Z-0.125000 I11.562803 J-12.081185
G02 X82.057134 Y115.352204 Z-0.125000 I8.199156 J-14.576335
G02 X86.223543 Y115.919824 Z-0.125000 I4.343943 J-16.310332
G02 X90.421744 Y115.434904 Z-0.125000 I0.177539 J-16.878412
G02 X94.369767 Y113.927263 Z-0.125000 I-4.060939 J-16.557397
G02 X97.840704 Y111.481074 Z-0.125000 I-8.008683 J-15.049231
G02 X100.602727 Y108.255798 Z-0.125000 I-11.574986 J-12.707741
G02 X102.494553 Y104.438234 Z-0.125000 I-14.336389 J-9.482054
G02 X103.391658 Y100.273135 Z-0.125000 I-16.303235 J-5.690654
G02 X103.240813 Y96.010204 Z-0.125000 I-17.199859 J-1.525513
G02 X102.049478 Y91.914341 Z-0.125000 I-17.047051 J2.737167
G02 X99.893724 Y88.239984 Z-0.125000 I-15.855803 J6.833067
G02 X96.902059 Y85.207113 Z-0.125000 I-13.633864 J10.456683
G02 X93.269724 Y83.009494 Z-0.125000 I-10.642865 J13.490398
G02 X89.208138 Y81.773790 Z-0.125000 I-6.951726 J15.556567
G02 X84.987574 Y81.578894 Z-0.125000 I-2.890237 J16.792837
G02 X80.849853 Y82.433607 Z-0.125000 I1.317223 J16.819612
G02 X77.071984 Y84.277984 Z-0.125000 I5.454808 J15.964500
G02 X73.870552 Y87.002844 Z-0.125000 I9.149284 J13.992585
G02 X71.457944 Y90.425474 Z-0.125000 I12.350308 J11.267353
G02 X69.974525 Y94.341415 Z-0.125000 I14.675350 J7.798192
G02 X69.516934 Y98.495834 Z-0.125000 I16.158586 J3.882207
G02 X70.111052 Y102.632925 Z-0.125000 I16.595687 J-0.272063
G02 X71.721154 Y106.492724 Z-0.125000 I16.000717 J-4.408920
G02 X74.243439 Y109.828669 Z-0.125000 I14.443433 J-8.299068
G02 X77.527914 Y112.437834 Z-0.125000 I11.922119 J-11.635960
G02 X81.358341 Y114.147561 Z-0.125000 I8.704073 J-14.354720
G02 X85.512494 Y114.855184 Z-0.125000 I4.873955 J-16.065465
G02 X89.712409 Y114.511211 Z-0.125000 I0.726859 J-16.937539
G02 X93.716984 Y113.132564 Z-0.125000 I-3.473088 J-16.593721
G02 X97.257610 Y110.808533 Z-0.125000 I-7.548638 J-15.359299
G02 X100.129604 Y107.671344 Z-0.125000 I-11.088468 J-13.034332
G02 X102.142421 Y103.924501 Z-0.125000 I-14.056399 J-9.965213
G02 X103.177333 Y99.788274 Z-0.125000 I-16.068058 J-6.217922
G02 X103.166245 Y95.524572 Z-0.125000 I-17.148206 J-2.087272
G02 X102.110963 Y91.393074 Z-0.125000 I-17.134983 J2.176158
G02 X100.074753 Y87.646521 Z-0.125000 I-16.045355 J6.293869
G02 X97.188584 Y84.520844 Z-0.125000 I-14.009572 J10.040728
G02 X93.622817 Y82.200222 Z-0.125000 I-11.051046 J13.080747
G02 X89.612344 Y80.833824 Z-0.125000 I-7.485581 J15.401990
G02 X85.388740 Y80.498784 Z-0.125000 I-3.442982 J16.613674
G02 X81.234184 Y81.214444 Z-0.125000 I0.780610 J16.948456
G02 X77.386422 Y82.937060 Z-0.125000 I4.887159 J16.074953
G02 X74.102374 Y85.549214 Z-0.125000 I8.734461 J14.351581
G02 X71.571393 Y88.896235 Z-0.125000 I11.924114 J11.647347
G02 X69.960024 Y92.756554 Z-0.125000 I14.454884 J8.300204
G02 X69.362653 Y96.896814 Z-0.125000 I16.001996 J4.422049
G02 X69.818354 Y101.051614 Z-0.125000 I16.599151 J0.281785
G02 X71.296881 Y104.961080 Z-0.125000 I16.157679 J-3.876381
G02 X73.709034 Y108.383204 Z-0.125000 I14.679957 J-7.786275
G02 X76.898087 Y111.096028 Z-0.125000 I12.336049 J-11.270755
G02 X80.676524 Y112.936084 Z-0.125000 I9.147425 J-13.984236
G02 X84.793620 Y113.779791 Z-0.125000 I5.416453 J-15.963939
G02 X89.011944 Y113.575324 Z-0.125000 I1.299402 J-16.808225
G02 X93.048610 Y112.333853 Z-0.125000 I-2.947728 J-16.767972
G02 X96.671504 Y110.124214 Z-0.125000 I-6.984158 J-15.525975
G02 X99.638589 Y107.090384 Z-0.125000 I-10.697521 J-13.429992
G02 X101.776903 Y103.407514 Z-0.125000 I-13.663791 J-10.395543
G02 X102.945576 Y99.312403 Z-0.125000 I-15.882822 J-6.746994
G02 X103.075183 Y95.049534 Z-0.125000 I-17.051095 J-2.651821
G02 X102.155591 Y90.885033 Z-0.125000 I-17.189433 J1.611936
G02 X100.245494 Y87.076444 Z-0.125000 I-16.269860 J5.776444
G02 X97.459145 Y83.853066 Z-0.125000 I-14.299671 J9.544928
G02 X93.977674 Y81.420174 Z-0.125000 I-11.513838 J12.768877
G02 X90.004531 Y79.918894 Z-0.125000 I-7.969193 J15.082391
G02 X85.803324 Y79.445464 Z-0.125000 I-3.996101 J16.583885
G02 X81.615397 Y80.024896 Z-0.125000 I0.203256 J16.893198
G02 X77.720834 Y81.615664 Z-0.125000 I4.390887 J16.312667
G02 X74.342973 Y84.123329 Z-0.125000 I8.209991 J14.587820
G02 X71.706124 Y87.379334 Z-0.125000 I11.587388 J12.079672
G02 X69.963514 Y91.189582 Z-0.125000 I14.134359 J8.767936
G02 X69.228814 Y95.305254 Z-0.125000 I15.876721 J4.957610
G02 X69.544644 Y99.474031 Z-0.125000 I16.579119 J0.840305
