%
(Header)
(Generated by gcodetools from Inkscape.)
(Using default header. To add your own header create file "header" in the output dir.)
M3
(Header end.)
G21 (All units in mm)

(Start cutting path id: rect234-0)
(Change tool to Default tool)

G00 Z3.000000
G00 X106.071473 Y281.250375

G00 Z4.875000 (Fast pre-penetrate)
G01 Z-0.125000 F400.0(Penetrate)
G01 X189.345843 Y281.250375 Z-0.125000 F800.000000
G01 X189.345843 Y146.152904 Z-0.125000
G01 X106.071473 Y146.152904 Z-0.125000
G01 X106.071473 Y281.250375 Z-0.125000
G00 Z3.000000

(End cutting path id: rect234-0)


(Start cutting path id: path64390)
(Change tool to Default tool)

G00 Z3.000000
G00 X118.689303 Y262.113743

G00 Z4.875000 (Fast pre-penetrate)
G01 Z-0.125000 F400.0(Penetrate)
G01 X118.973503 Y262.397940 Z-0.125000 F800.000000
G02 X119.931643 Y262.794814 Z-0.125000 I0.958140 J-0.958142
G02 X120.096033 Y262.397940 Z-0.125000 I0.000000 J-0.232483
G01 X119.103123 Y261.405025 Z-0.125000
G03 X118.706248 Y260.446884 Z-0.125000 I0.958143 J-0.958141
G03 X119.103123 Y260.282493 Z-0.125000 I0.232484 J0.000000
G01 X119.103123 Y260.282493 Z-0.125000
G02 X119.499998 Y260.118102 Z-0.125000 I0.164391 J-0.164391
G02 X119.103123 Y259.159961 Z-0.125000 I-1.355018 J0.000000
G01 X119.103123 Y259.159961 Z-0.125000
G03 X118.706248 Y258.201820 Z-0.125000 I0.958143 J-0.958141
G03 X119.103123 Y258.037429 Z-0.125000 I0.232484 J0.000000
G01 X119.103123 Y258.037429 Z-0.125000
G02 X119.916389 Y258.289431 Z-0.125000 I0.645781 J-0.645779
G02 X120.049163 Y257.860941 Z-0.125000 I-0.046494 J-0.249223
G01 X119.103123 Y256.914897 Z-0.125000
G03 X118.706248 Y255.956756 Z-0.125000 I0.958143 J-0.958141
G03 X119.103123 Y255.792365 Z-0.125000 I0.232484 J0.000000
G01 X119.103123 Y255.792365 Z-0.125000
G02 X119.499998 Y255.627974 Z-0.125000 I0.164391 J-0.164391
G02 X119.103123 Y254.669833 Z-0.125000 I-1.355018 J0.000000
G01 X118.893003 Y254.459714 Z-0.125000
G03 X118.813765 Y253.819218 Z-0.125000 I0.371057 J-0.371054
G03 X119.313243 Y253.757421 Z-0.125000 I0.273834 J0.163854
G01 X119.516933 Y253.961115 Z-0.125000
G00 Z3.000000

(Change tool to Default tool)

G00 Z3.000000
G00 X120.797203 Y261.976582

G00 Z4.875000 (Fast pre-penetrate)
G01 Z-0.125000 F400.0(Penetrate)
G01 X121.149983 Y262.329359 Z-0.125000 F800.000000
G02 X122.108122 Y262.726233 Z-0.125000 I0.958139 J-0.958139
G02 X122.272513 Y262.329359 Z-0.125000 I0.000000 J-0.232484
G01 X122.229013 Y262.285889 Z-0.125000
G03 X122.393401 Y261.889018 Z-0.125000 I0.164388 J-0.164390
G03 X123.351543 Y262.285889 Z-0.125000 I0.000000 J1.355028
G01 X123.660853 Y262.595199 Z-0.125000
G00 Z3.000000

(Change tool to Default tool)

G00 Z3.000000
G00 X120.879913 Y257.569197

G00 Z4.875000 (Fast pre-penetrate)
G01 Z-0.125000 F400.0(Penetrate)
G01 X121.232693 Y257.921974 Z-0.125000 F800.000000
G02 X122.190832 Y258.318848 Z-0.125000 I0.958139 J-0.958139
G02 X122.355223 Y257.921974 Z-0.125000 I0.000000 J-0.232484
G01 X122.145103 Y257.711854 Z-0.125000
G03 X122.309494 Y257.314980 Z-0.125000 I0.164391 J-0.164391
G03 X123.267633 Y257.711854 Z-0.125000 I0.000000 J1.355014
G01 X123.410293 Y257.854512 Z-0.125000
G00 Z3.000000

(End cutting path id: path64390)


(Start cutting path id: path64395)
(Change tool to Default tool)

G00 Z3.000000
G00 X125.169093 Y258.732501

G00 Z4.875000 (Fast pre-penetrate)
G01 Z-0.125000 F400.0(Penetrate)
G01 X126.325603 Y259.889008 Z-0.125000 F800.000000
G02 X127.416042 Y260.418180 Z-0.125000 I1.308718 J-1.308718
G02 X127.599423 Y260.040295 Z-0.125000 I0.026214 J-0.220717
G01 X127.454583 Y259.895456 Z-0.125000
G03 X127.639049 Y259.518658 Z-0.125000 I0.156793 J-0.156793
G03 X128.738623 Y260.056968 Z-0.125000 I-0.235663 J1.873547
G01 X128.763723 Y260.082118 Z-0.125000
G02 X129.444719 Y260.201842 Z-0.125000 I0.425900 J-0.425906
G02 X129.528643 Y259.724502 Z-0.125000 I-0.125336 J-0.268084
G01 X129.528643 Y259.724502 Z-0.125000
G03 X129.524308 Y259.158898 Z-0.125000 I0.284999 J-0.285003
G03 X130.081303 Y259.154633 Z-0.125000 I0.280598 J0.272128
G01 X130.097303 Y259.170633 Z-0.125000
G02 X130.600076 Y259.112141 Z-0.125000 I0.228236 J-0.228237
G02 X130.526183 Y258.476982 Z-0.125000 I-0.438148 J-0.270904
G01 X130.477383 Y258.428202 Z-0.125000
G03 X130.184697 Y257.574251 Z-0.125000 I0.725954 J-0.725949
G03 X130.602693 Y257.430986 Z-0.125000 I0.244061 J0.030669
G01 X130.669293 Y257.497596 Z-0.125000
G02 X131.083457 Y257.350491 Z-0.125000 I0.172084 J-0.172086
G02 X130.774293 Y256.480064 Z-0.125000 I-1.069248 J-0.110337
G01 X130.133243 Y255.839008 Z-0.125000
G00 Z3.000000

(Change tool to Default tool)

G00 Z3.000000
G00 X126.090113 Y258.531073

G00 Z4.875000 (Fast pre-penetrate)
G01 Z-0.125000 F400.0(Penetrate)
G01 X125.343233 Y257.784186 Z-0.125000 F800.000000
G03 X124.969193 Y256.848883 Z-0.125000 I0.903927 J-0.903935
G03 X125.370133 Y256.688540 Z-0.125000 I0.234837 J0.005764
G01 X125.442533 Y256.760990 Z-0.125000
G02 X125.850401 Y256.607579 Z-0.125000 I0.169159 J-0.169161
G02 X125.512033 Y255.707939 Z-0.125000 I-1.161402 J-0.076632
G01 X125.456033 Y255.651959 Z-0.125000
G03 X125.351152 Y254.985802 Z-0.125000 I0.405113 J-0.405117
G03 X125.836063 Y254.909463 Z-0.125000 I0.270240 J0.138323
G01 X125.865263 Y254.938613 Z-0.125000
G02 X126.389496 Y254.901585 Z-0.125000 I0.246045 J-0.246041
G02 X126.346833 Y254.297653 Z-0.125000 I-0.369197 J-0.277392
G01 X126.346833 Y254.297653 Z-0.125000
G03 X126.411824 Y253.801382 Z-0.125000 I0.223163 J-0.223166
G03 X127.057673 Y253.885962 Z-0.125000 I0.267888 J0.462545
G01 X127.066673 Y253.894762 Z-0.125000
G02 X128.012439 Y254.279261 Z-0.125000 I0.928543 J-0.928554
G02 X128.174673 Y253.880222 Z-0.125000 I-0.003066 J-0.233745
G01 X128.079073 Y253.784592 Z-0.125000
G03 X128.256371 Y253.400625 Z-0.125000 I0.159341 J-0.159341
G03 X129.299133 Y253.882122 Z-0.125000 I-0.132434 J1.656694
G01 X130.949783 Y255.532775 Z-0.125000
G00 Z3.000000

(End cutting path id: path64395)


(Start cutting path id: path64207)
(Change tool to Default tool)

G00 Z3.000000
G00 X131.265173 Y256.948626

G00 Z4.875000 (Fast pre-penetrate)
G01 Z-0.125000 F400.0(Penetrate)
G02 X131.009950 Y255.324247 Z-0.125000 I-5.296825 J0.000000 F800.000000
G02 X130.397833 Y254.256654 Z-0.125000 I-2.823938 J0.909859
G02 X129.409151 Y253.565397 Z-0.125000 I-1.985156 J1.786635
G02 X128.001403 Y253.292940 Z-0.125000 I-1.407748 J3.500591
G02 X127.090014 Y253.411377 Z-0.125000 I-0.000000 J3.565862
G02 X126.324543 Y253.736248 Z-0.125000 I0.746119 J2.822275
G02 X125.687722 Y254.266371 Z-0.125000 I1.436162 J2.372779
G02 X125.193783 Y255.008350 Z-0.125000 I2.398887 J2.132349
G02 X124.905812 Y255.862288 Z-0.125000 I3.316365 J1.593892
G02 X124.795453 Y256.948626 Z-0.125000 I5.291584 J1.086338
G02 X125.050005 Y258.572835 Z-0.125000 I5.309038 J0.000000
G02 X125.656363 Y259.627750 Z-0.125000 I2.768648 J-0.889678
G02 X126.639460 Y260.318489 Z-0.125000 I1.971948 J-1.761613
G02 X128.046373 Y260.591463 Z-0.125000 I1.406913 J-3.489147
G02 X129.401122 Y260.319007 Z-0.125000 I-0.000000 J-3.504378
G02 X130.391413 Y259.608475 Z-0.125000 I-1.053911 J-2.514234
G02 X131.012196 Y258.529307 Z-0.125000 I-2.289677 J-2.035254
G02 X131.265173 Y256.948626 Z-0.125000 I-4.811816 J-1.580681
G01 X131.265173 Y256.948626 Z-0.125000
G00 Z3.000000

(Change tool to Default tool)

G00 Z3.000000
G00 X125.900503 Y256.948626

G00 Z4.875000 (Fast pre-penetrate)
G01 Z-0.125000 F400.0(Penetrate)
G03 X126.067354 Y255.655850 Z-0.125000 I5.091708 J0.000000 F800.000000
G03 X126.440183 Y254.892704 Z-0.125000 I2.090953 J0.548876
G03 X127.079506 Y254.387446 Z-0.125000 I1.309759 J1.000181
G03 X128.027103 Y254.185981 Z-0.125000 I0.947597 J2.127793
G03 X128.975937 Y254.386033 Z-0.125000 I0.000000 J2.350154
G03 X129.614013 Y254.886280 Z-0.125000 I-0.663349 J1.503180
G03 X129.991185 Y255.650670 Z-0.125000 I-1.701526 J1.314830
G03 X130.160123 Y256.948626 Z-0.125000 I-4.901640 J1.297956
G03 X129.990940 Y258.232808 Z-0.125000 I-4.958377 J0.000000
G03 X129.614013 Y258.985274 Z-0.125000 I-2.021811 J-0.542132
G03 X128.975394 Y259.484416 Z-0.125000 I-1.293473 J-0.996806
G03 X128.014253 Y259.685572 Z-0.125000 I-0.961141 J-2.195630
G03 X127.063883 Y259.487833 Z-0.125000 I0.000000 J-2.382701
G03 X126.433763 Y258.998123 Z-0.125000 I0.642319 J-1.476734
G03 X126.067482 Y258.253504 Z-0.125000 I1.629275 J-1.263845
G03 X125.900503 Y256.948626 Z-0.125000 I5.015082 J-1.304878
G01 X125.900503 Y256.948626 Z-0.125000
G00 Z3.000000

(End cutting path id: path64207)


(Start cutting path id: path64205)
(Change tool to Default tool)

G00 Z3.000000
G00 X119.649223 Y253.421435

G00 Z4.875000 (Fast pre-penetrate)
G01 Z-0.125000 F400.0(Penetrate)
G01 X118.557013 Y253.421435 Z-0.125000 F800.000000
G01 X118.557013 Y262.814428 Z-0.125000
G01 X123.793183 Y262.814428 Z-0.125000
G01 X123.793183 Y261.844290 Z-0.125000
G01 X119.649223 Y261.844290 Z-0.125000
G01 X119.649223 Y258.407046 Z-0.125000
G01 X123.542623 Y258.407046 Z-0.125000
G01 X123.542623 Y257.436908 Z-0.125000
G01 X119.649223 Y257.436908 Z-0.125000
G01 X119.649223 Y253.421435 Z-0.125000
G00 Z3.000000

(End cutting path id: path64205)


(Start cutting path id: path64209)
(Change tool to Default tool)

G00 Z3.000000
G00 X134.201293 Y253.421435

G00 Z4.875000 (Fast pre-penetrate)
G01 Z-0.125000 F400.0(Penetrate)
G01 X133.134783 Y253.421435 Z-0.125000 F800.000000
G01 X133.134783 Y263.418355 Z-0.125000
G01 X134.201293 Y263.418355 Z-0.125000
G01 X134.201293 Y253.421435 Z-0.125000
G00 Z3.000000

(End cutting path id: path64209)


(Start cutting path id: path64211)
(Change tool to Default tool)

G00 Z3.000000
G00 X137.529313 Y253.421435

G00 Z4.875000 (Fast pre-penetrate)
G01 Z-0.125000 F400.0(Penetrate)
G01 X136.462803 Y253.421435 Z-0.125000 F800.000000
G01 X136.462803 Y263.418355 Z-0.125000
G01 X137.529313 Y263.418355 Z-0.125000
G01 X137.529313 Y253.421435 Z-0.125000
G00 Z3.000000

(End cutting path id: path64211)


(Start cutting path id: path64410)
(Change tool to Default tool)

G00 Z3.000000
G00 X139.772553 Y258.732502

G00 Z4.875000 (Fast pre-penetrate)
G01 Z-0.125000 F400.0(Penetrate)
G01 X140.929073 Y259.889017 Z-0.125000 F800.000000
G02 X142.019502 Y260.418185 Z-0.125000 I1.308696 J-1.308682
G02 X142.202883 Y260.040298 Z-0.125000 I0.026213 J-0.220718
G01 X142.058043 Y259.895461 Z-0.125000
G03 X142.242509 Y259.518661 Z-0.125000 I0.156794 J-0.156794
G03 X143.342083 Y260.056969 Z-0.125000 I-0.235653 J1.873531
G01 X143.367183 Y260.082119 Z-0.125000
G02 X144.048181 Y260.201845 Z-0.125000 I0.425903 J-0.425911
G02 X144.132103 Y259.724504 Z-0.125000 I-0.125334 J-0.268083
G01 X144.132103 Y259.724504 Z-0.125000
G03 X144.127770 Y259.158907 Z-0.125000 I0.285002 J-0.284998
G03 X144.684773 Y259.154636 Z-0.125000 I0.280605 J0.272132
G01 X144.700773 Y259.170636 Z-0.125000
G02 X145.203546 Y259.112144 Z-0.125000 I0.228236 J-0.228237
G02 X145.129653 Y258.476987 Z-0.125000 I-0.438146 J-0.270904
G01 X145.080853 Y258.428207 Z-0.125000
G03 X144.788165 Y257.574256 Z-0.125000 I0.725929 J-0.725943
G03 X145.206163 Y257.430992 Z-0.125000 I0.244062 J0.030671
G01 X145.272763 Y257.497602 Z-0.125000
G02 X145.686927 Y257.350495 Z-0.125000 I0.172084 J-0.172086
G02 X145.377763 Y256.480064 Z-0.125000 I-1.069271 J-0.110331
G01 X144.736703 Y255.839008 Z-0.125000
G00 Z3.000000

(Change tool to Default tool)

G00 Z3.000000
G00 X140.693583 Y258.531076

G00 Z4.875000 (Fast pre-penetrate)
G01 Z-0.125000 F400.0(Penetrate)
G01 X139.946693 Y257.784190 Z-0.125000 F800.000000
G03 X139.572655 Y256.848885 Z-0.125000 I0.903939 J-0.903937
G03 X139.973593 Y256.688544 Z-0.125000 I0.234835 J0.005764
G01 X140.046093 Y256.760994 Z-0.125000
G02 X140.453961 Y256.607584 Z-0.125000 I0.169159 J-0.169160
G02 X140.115593 Y255.707942 Z-0.125000 I-1.161407 J-0.076633
G01 X140.059593 Y255.651962 Z-0.125000
G03 X139.954712 Y254.985803 Z-0.125000 I0.405117 J-0.405118
G03 X140.439623 Y254.909465 Z-0.125000 I0.270240 J0.138322
G01 X140.468723 Y254.938615 Z-0.125000
G02 X140.992957 Y254.901581 Z-0.125000 I0.246043 J-0.246046
G02 X140.950293 Y254.297653 Z-0.125000 I-0.369200 J-0.277389
G01 X140.950293 Y254.297653 Z-0.125000
G03 X141.015289 Y253.801381 Z-0.125000 I0.223169 J-0.223164
G03 X141.661143 Y253.885962 Z-0.125000 I0.267890 J0.462549
G01 X141.670143 Y253.894762 Z-0.125000
G02 X142.615922 Y254.279268 Z-0.125000 I0.928559 J-0.928570
G02 X142.778153 Y253.880232 Z-0.125000 I-0.003065 J-0.233742
G01 X142.682553 Y253.784602 Z-0.125000
G03 X142.859848 Y253.400635 Z-0.125000 I0.159340 J-0.159342
G03 X143.902603 Y253.882132 Z-0.125000 I-0.132428 J1.656662
G01 X145.553273 Y255.532797 Z-0.125000
G00 Z3.000000

(End cutting path id: path64410)


(Start cutting path id: path64213)
(Change tool to Default tool)

G00 Z3.000000
G00 X145.868643 Y256.948626

G00 Z4.875000 (Fast pre-penetrate)
G01 Z-0.125000 F400.0(Penetrate)
G02 X145.613420 Y255.324247 Z-0.125000 I-5.296825 J0.000000 F800.000000
G02 X145.001303 Y254.256654 Z-0.125000 I-2.823938 J0.909859
G02 X144.012621 Y253.565397 Z-0.125000 I-1.985156 J1.786635
G02 X142.604873 Y253.292940 Z-0.125000 I-1.407748 J3.500591
G02 X141.693484 Y253.411377 Z-0.125000 I0.000000 J3.565862
G02 X140.928013 Y253.736248 Z-0.125000 I0.746119 J2.822275
G02 X140.291185 Y254.266373 Z-0.125000 I1.436131 J2.372760
G02 X139.797253 Y255.008350 Z-0.125000 I2.398787 J2.132260
G02 X139.509275 Y255.862289 Z-0.125000 I3.316297 J1.593899
G02 X139.398913 Y256.948626 Z-0.125000 I5.291445 J1.086337
G02 X139.653467 Y258.572833 Z-0.125000 I5.308976 J-0.000000
G02 X140.259833 Y259.627750 Z-0.125000 I2.768642 J-0.889686
G02 X141.242930 Y260.318489 Z-0.125000 I1.971948 J-1.761613
G02 X142.649843 Y260.591463 Z-0.125000 I1.406913 J-3.489147
G02 X144.004584 Y260.319009 Z-0.125000 I0.000000 J-3.504356
G02 X144.994883 Y259.608475 Z-0.125000 I-1.053930 J-2.514282
G02 X145.615666 Y258.529307 Z-0.125000 I-2.289677 J-2.035254
G02 X145.868643 Y256.948626 Z-0.125000 I-4.811816 J-1.580681
G01 X145.868643 Y256.948626 Z-0.125000
G00 Z3.000000

(Change tool to Default tool)

G00 Z3.000000
G00 X140.503973 Y256.948626

G00 Z4.875000 (Fast pre-penetrate)
G01 Z-0.125000 F400.0(Penetrate)
G03 X140.670824 Y255.655850 Z-0.125000 I5.091708 J0.000000 F800.000000
G03 X141.043653 Y254.892704 Z-0.125000 I2.090953 J0.548876
G03 X141.682976 Y254.387446 Z-0.125000 I1.309759 J1.000181
G03 X142.630573 Y254.185981 Z-0.125000 I0.947597 J2.127793
G03 X143.579407 Y254.386033 Z-0.125000 I0.000000 J2.350154
G03 X144.217483 Y254.886280 Z-0.125000 I-0.663349 J1.503180
G03 X144.594655 Y255.650670 Z-0.125000 I-1.701526 J1.314830
G03 X144.763593 Y256.948626 Z-0.125000 I-4.901640 J1.297956
G03 X144.594410 Y258.232808 Z-0.125000 I-4.958377 J0.000000
G03 X144.217483 Y258.985274 Z-0.125000 I-2.021811 J-0.542132
G03 X143.578864 Y259.484416 Z-0.125000 I-1.293473 J-0.996806
G03 X142.617723 Y259.685572 Z-0.125000 I-0.961141 J-2.195630
G03 X141.667353 Y259.487833 Z-0.125000 I0.000000 J-2.382701
G03 X141.037233 Y258.998123 Z-0.125000 I0.642319 J-1.476734
G03 X140.670952 Y258.253504 Z-0.125000 I1.629275 J-1.263845
G03 X140.503973 Y256.948626 Z-0.125000 I5.015082 J-1.304878
G01 X140.503973 Y256.948626 Z-0.125000
G00 Z3.000000

(End cutting path id: path64213)


(Start cutting path id: path64405)
(Change tool to Default tool)

G00 Z3.000000
G00 X136.595093 Y262.882871

G00 Z4.875000 (Fast pre-penetrate)
G01 Z-0.125000 F400.0(Penetrate)
G01 X136.796693 Y263.084467 Z-0.125000 F800.000000
G02 X137.288221 Y263.014735 Z-0.125000 I0.219562 J-0.219558
G02 X137.195423 Y262.360670 Z-0.125000 I-0.481561 J-0.265293
G01 X136.996053 Y262.161303 Z-0.125000
G03 X136.599181 Y261.203159 Z-0.125000 I0.958158 J-0.958144
G03 X136.996053 Y261.038771 Z-0.125000 I0.232482 J0.000000
G01 X136.996053 Y261.038771 Z-0.125000
G02 X137.392929 Y260.874379 Z-0.125000 I0.164391 J-0.164392
G02 X136.996053 Y259.916239 Z-0.125000 I-1.355012 J0.000000
G01 X136.996053 Y259.916239 Z-0.125000
G03 X136.599181 Y258.958095 Z-0.125000 I0.958158 J-0.958144
G03 X136.996053 Y258.793707 Z-0.125000 I0.232482 J0.000000
G01 X136.996053 Y258.793707 Z-0.125000
G02 X137.392929 Y258.629315 Z-0.125000 I0.164391 J-0.164392
G02 X136.996053 Y257.671175 Z-0.125000 I-1.355012 J0.000000
G01 X136.996053 Y257.671175 Z-0.125000
G03 X136.599181 Y256.713031 Z-0.125000 I0.958158 J-0.958144
G03 X136.996053 Y256.548643 Z-0.125000 I0.232482 J0.000000
G01 X136.996053 Y256.548643 Z-0.125000
G02 X137.392929 Y256.384251 Z-0.125000 I0.164391 J-0.164392
G02 X136.996053 Y255.426111 Z-0.125000 I-1.355012 J0.000000
G01 X136.996053 Y255.426111 Z-0.125000
G03 X136.599181 Y254.467967 Z-0.125000 I0.958158 J-0.958144
G03 X136.996053 Y254.303579 Z-0.125000 I0.232482 J0.000000
G01 X137.397023 Y254.704542 Z-0.125000
G00 Z3.000000

(End cutting path id: path64405)


(Start cutting path id: path64400)
(Change tool to Default tool)

G00 Z3.000000
G00 X133.267073 Y262.882871

G00 Z4.875000 (Fast pre-penetrate)
G01 Z-0.125000 F400.0(Penetrate)
G01 X133.468673 Y263.084467 Z-0.125000 F800.000000
G02 X133.960201 Y263.014735 Z-0.125000 I0.219562 J-0.219558
G02 X133.867403 Y262.360670 Z-0.125000 I-0.481561 J-0.265293
G01 X133.668033 Y262.161303 Z-0.125000
G03 X133.271161 Y261.203159 Z-0.125000 I0.958158 J-0.958144
G03 X133.668033 Y261.038771 Z-0.125000 I0.232482 J0.000000
G01 X133.668033 Y261.038771 Z-0.125000
G02 X134.064909 Y260.874379 Z-0.125000 I0.164391 J-0.164392
G02 X133.668033 Y259.916239 Z-0.125000 I-1.355012 J0.000000
G01 X133.668033 Y259.916239 Z-0.125000
G03 X133.271161 Y258.958095 Z-0.125000 I0.958158 J-0.958144
G03 X133.668033 Y258.793707 Z-0.125000 I0.232482 J0.000000
G01 X133.668033 Y258.793707 Z-0.125000
G02 X134.064909 Y258.629315 Z-0.125000 I0.164391 J-0.164392
G02 X133.668033 Y257.671175 Z-0.125000 I-1.355012 J0.000000
G01 X133.668033 Y257.671175 Z-0.125000
G03 X133.271161 Y256.713031 Z-0.125000 I0.958158 J-0.958144
G03 X133.668033 Y256.548643 Z-0.125000 I0.232482 J0.000000
G01 X133.668033 Y256.548643 Z-0.125000
G02 X134.064909 Y256.384251 Z-0.125000 I0.164391 J-0.164392
G02 X133.668033 Y255.426111 Z-0.125000 I-1.355012 J0.000000
G01 X133.668033 Y255.426111 Z-0.125000
G03 X133.271161 Y254.467967 Z-0.125000 I0.958158 J-0.958144
G03 X133.668033 Y254.303579 Z-0.125000 I0.232482 J0.000000
G01 X134.069003 Y254.704542 Z-0.125000
G00 Z3.000000

(End cutting path id: path64400)


(Start cutting path id: path64415)
(Change tool to Default tool)

G00 Z3.000000
G00 X147.077183 Y259.785578

G00 Z4.875000 (Fast pre-penetrate)
G01 Z-0.125000 F400.0(Penetrate)
G01 X147.349733 Y260.058127 Z-0.125000 F800.000000
G02 X147.823544 Y259.970670 Z-0.125000 I0.206804 J-0.206805
G02 X147.696493 Y259.282354 Z-0.125000 I-0.563492 J-0.251873
G01 X147.637493 Y259.223354 Z-0.125000
G03 X147.434586 Y258.459185 Z-0.125000 I0.556883 J-0.556890
G03 X147.878093 Y258.341422 Z-0.125000 I0.255927 J0.069820
G01 X147.884093 Y258.347322 Z-0.125000
G02 X148.324660 Y258.226619 Z-0.125000 I0.185889 J-0.185891
G02 X148.112863 Y257.453558 Z-0.125000 I-0.784142 J-0.200711
G01 X148.106863 Y257.447658 Z-0.125000
G03 X147.903961 Y256.683484 Z-0.125000 I0.556903 J-0.556892
G03 X148.347463 Y256.565726 Z-0.125000 I0.255922 J0.069818
G01 X148.354463 Y256.572326 Z-0.125000
G02 X148.794715 Y256.451311 Z-0.125000 I0.185710 J-0.185711
G02 X148.581953 Y255.677284 Z-0.125000 I-0.786806 J-0.199980
G01 X148.567453 Y255.662794 Z-0.125000
G03 X148.364547 Y254.898623 Z-0.125000 I0.556889 J-0.556891
G03 X148.808053 Y254.780862 Z-0.125000 I0.255926 J0.069819
G01 X148.808053 Y254.780862 Z-0.125000
G02 X149.876142 Y255.287684 Z-0.125000 I1.245116 J-1.245119
G02 X150.056763 Y254.907039 Z-0.125000 I0.022483 J-0.222507
G01 X148.761813 Y253.612093 Z-0.125000
G00 Z3.000000

(Change tool to Default tool)

G00 Z3.000000
G00 X150.859013 Y259.076889

G00 Z4.875000 (Fast pre-penetrate)
G01 Z-0.125000 F400.0(Penetrate)
G01 X151.850923 Y260.068798 Z-0.125000 F800.000000
G02 X152.325800 Y259.982401 Z-0.125000 I0.207539 J-0.207542
G02 X152.200983 Y259.296321 Z-0.125000 I-0.558029 J-0.252873
G01 X152.200983 Y259.296321 Z-0.125000
G03 X151.989797 Y258.523875 Z-0.125000 I0.571266 J-0.571276
G03 X152.430563 Y258.403370 Z-0.125000 I0.254764 J0.065500
G01 X152.449163 Y258.421920 Z-0.125000
G02 X152.899445 Y258.310935 Z-0.125000 I0.191595 J-0.191595
G02 X152.715853 Y257.566074 Z-0.125000 I-0.707874 J-0.220581
G01 X152.709853 Y257.559774 Z-0.125000
G03 X152.526736 Y256.815391 Z-0.125000 I0.523503 J-0.523496
G03 X152.977193 Y256.704576 Z-0.125000 I0.258758 J0.080887
G01 X152.977483 Y256.704873 Z-0.125000
G02 X153.427778 Y256.593901 Z-0.125000 I0.191603 J-0.191603
G02 X153.244223 Y255.849080 Z-0.125000 I-0.707772 J-0.220604
G01 X153.235223 Y255.840280 Z-0.125000
G03 X153.052104 Y255.095899 Z-0.125000 I0.523499 J-0.523496
G03 X153.502563 Y254.985082 Z-0.125000 I0.258759 J0.080887
G01 X153.502563 Y254.985082 Z-0.125000
G02 X154.736869 Y255.658126 Z-0.125000 I1.760752 J-1.760743
G02 X154.934923 Y255.294912 Z-0.125000 I0.045586 J-0.210747
G01 X153.726193 Y254.086180 Z-0.125000
G03 X153.828197 Y253.626920 Z-0.125000 I0.197166 J-0.197166
G03 X154.549713 Y253.787172 Z-0.125000 I0.234877 J0.646892
G01 X154.783063 Y254.020527 Z-0.125000
G00 Z3.000000

(Change tool to Default tool)

G00 Z3.000000
G00 X150.332063 Y257.427241

G00 Z4.875000 (Fast pre-penetrate)
G01 Z-0.125000 F400.0(Penetrate)
G01 X150.933493 Y258.028677 Z-0.125000 F800.000000
G02 X151.285223 Y257.819146 Z-0.125000 I0.149321 J-0.149323
G02 X150.458253 Y256.430908 Z-0.125000 I-3.153292 J0.937977
G01 X149.816693 Y255.789341 Z-0.125000
G00 Z3.000000

(Change tool to Default tool)

G00 Z3.000000
G00 X156.498713 Y260.226301

G00 Z4.875000 (Fast pre-penetrate)
G01 Z-0.125000 F400.0(Penetrate)
G01 X155.801393 Y259.528975 Z-0.125000 F800.000000
G03 X155.049583 Y258.215900 Z-0.125000 I2.039450 J-2.039465
G03 X155.406493 Y258.011551 Z-0.125000 I0.206227 J-0.053668
G01 X155.648853 Y258.253908 Z-0.125000
G02 X156.003491 Y258.047278 Z-0.125000 I0.150074 J-0.150075
G02 X155.219943 Y256.702465 Z-0.125000 I-2.941642 J0.813261
G01 X154.594683 Y256.077208 Z-0.125000
G00 Z3.000000

(End cutting path id: path64415)


(Start cutting path id: path64215)
(Change tool to Default tool)

G00 Z3.000000
G00 X153.488413 Y253.421435

G00 Z4.875000 (Fast pre-penetrate)
G01 Z-0.125000 F400.0(Penetrate)
G01 X152.197033 Y257.552553 Z-0.125000 F800.000000
G02 X152.085028 Y257.934483 Z-0.125000 I7.207714 J2.321119
G02 X151.740873 Y259.274388 Z-0.125000 I88.427976 J23.426929
G01 X151.689473 Y259.274388 Z-0.125000
G02 X151.416361 Y258.154436 Z-0.125000 I-38.804202 J8.869526
G02 X151.239743 Y257.539704 Z-0.125000 I-11.861605 J3.075211
G01 X149.909823 Y253.421435 Z-0.125000
G01 X148.676263 Y253.421435 Z-0.125000
G01 X146.755263 Y260.462968 Z-0.125000
G01 X147.873173 Y260.462968 Z-0.125000
G02 X148.553325 Y257.809322 Z-0.125000 I-4058.997058 J-1041.768051
G02 X148.907553 Y256.421796 Z-0.125000 I-1109.369888 J-283.955073
G02 X149.241078 Y255.029270 Z-0.125000 I-37.273474 J-9.663594
G02 X149.318743 Y254.552192 Z-0.125000 I-4.285249 J-0.942473
G01 X149.370143 Y254.552192 Z-0.125000
G02 X149.448663 Y254.916609 Z-0.125000 I8.507807 J-1.642497
G02 X149.595003 Y255.496632 Z-0.125000 I21.705825 J-5.167900
G02 X149.762022 Y256.079320 Z-0.125000 I26.478376 J-7.274339
G02 X149.871273 Y256.421796 Z-0.125000 I9.253954 J-2.763391
G01 X151.162643 Y260.462968 Z-0.125000
G01 X152.319103 Y260.462968 Z-0.125000
G01 X153.578353 Y256.421796 Z-0.125000
G02 X153.905617 Y255.308708 Z-0.125000 I-19.152795 J-6.235857
G02 X154.066633 Y254.565042 Z-0.125000 I-8.378705 J-2.203390
G01 X154.118033 Y254.565042 Z-0.125000
G02 X154.152489 Y254.794859 Z-0.125000 I3.027077 J-0.336355
G02 X154.252953 Y255.278190 Z-0.125000 I13.504924 J-2.554988
G02 X154.372896 Y255.758972 Z-0.125000 I26.973174 J-6.473804
G02 X155.595733 Y260.462968 Z-0.125000 I2583.521624 J-669.093492
G01 X156.700783 Y260.462968 Z-0.125000
G01 X154.754083 Y253.421435 Z-0.125000
G01 X153.488413 Y253.421435 Z-0.125000
G00 Z3.000000

(End cutting path id: path64215)


(Start cutting path id: path64420)
(Change tool to Default tool)

G00 Z3.000000
G00 X161.523143 Y259.720196

G00 Z4.875000 (Fast pre-penetrate)
G01 Z-0.125000 F400.0(Penetrate)
G01 X161.834303 Y260.031356 Z-0.125000 F800.000000
G02 X162.265192 Y259.900978 Z-0.125000 I0.180541 J-0.180541
G02 X162.021683 Y259.096202 Z-0.125000 I-0.873299 J-0.174986
G01 X161.927983 Y259.002512 Z-0.125000
G03 X161.531108 Y258.044371 Z-0.125000 I0.958139 J-0.958141
G03 X161.927983 Y257.879980 Z-0.125000 I0.232484 J0.000000
G01 X162.103683 Y258.055677 Z-0.125000
G02 X162.478656 Y257.869390 Z-0.125000 I0.156174 J-0.156172
G02 X161.924513 Y256.753981 Z-0.125000 I-1.936008 J0.266466
G01 X161.924103 Y256.753562 Z-0.125000
G03 X161.527227 Y255.795422 Z-0.125000 I0.958137 J-0.958140
G03 X161.924103 Y255.631030 Z-0.125000 I0.232485 J0.000000
G01 X161.924103 Y255.631030 Z-0.125000
G02 X162.320975 Y255.466642 Z-0.125000 I0.164390 J-0.164388
G02 X161.924103 Y254.508498 Z-0.125000 I-1.355030 J0.000000
G01 X161.639733 Y254.224137 Z-0.125000
G03 X161.643438 Y253.666572 Z-0.125000 I0.276954 J-0.276954
G03 X162.208463 Y253.670327 Z-0.125000 I0.280610 J0.288170
G01 X162.325063 Y253.786929 Z-0.125000
G00 Z3.000000

(Change tool to Default tool)

G00 Z3.000000
G00 X163.782733 Y259.734726

G00 Z4.875000 (Fast pre-penetrate)
G01 Z-0.125000 F400.0(Penetrate)
G01 X164.221713 Y260.173714 Z-0.125000 F800.000000
G02 X165.071856 Y260.462585 Z-0.125000 I0.718185 J-0.718194
G02 X165.214203 Y260.043667 Z-0.125000 I-0.032041 J-0.244531
G01 X165.214203 Y260.043667 Z-0.125000
G03 X165.274870 Y259.543068 Z-0.125000 I0.226521 J-0.226524
G03 X165.913533 Y259.620471 Z-0.125000 I0.269956 J0.446106
G01 X165.920533 Y259.626971 Z-0.125000
G02 X166.999767 Y260.144935 Z-0.125000 I1.276603 J-1.276606
G02 X167.181783 Y259.765685 Z-0.125000 I0.024373 J-0.221606
G01 X166.384303 Y258.968211 Z-0.125000
G03 X166.025269 Y258.047907 Z-0.125000 I0.869353 J-0.869343
G03 X166.429003 Y257.890404 Z-0.125000 I0.236416 J0.009808
G01 X166.519503 Y257.980884 Z-0.125000
G02 X166.901946 Y257.802061 Z-0.125000 I0.158784 J-0.158785
G02 X166.409033 Y256.747885 Z-0.125000 I-1.699335 J0.152251
G01 X166.409033 Y256.747885 Z-0.125000
G03 X166.012161 Y255.789741 Z-0.125000 I0.958158 J-0.958144
G03 X166.409033 Y255.625353 Z-0.125000 I0.232482 J-0.000000
G01 X166.409033 Y255.625353 Z-0.125000
G02 X166.805909 Y255.460961 Z-0.125000 I0.164391 J-0.164392
G02 X166.409033 Y254.502821 Z-0.125000 I-1.355012 J-0.000000
G01 X166.121853 Y254.215636 Z-0.125000
G03 X166.128324 Y253.660850 Z-0.125000 I0.274223 J-0.274232
G03 X166.696223 Y253.667474 Z-0.125000 I0.280559 J0.293973
G01 X166.810003 Y253.781253 Z-0.125000
G00 Z3.000000

(Change tool to Default tool)

G00 Z3.000000
G00 X168.281643 Y259.743026

G00 Z4.875000 (Fast pre-penetrate)
G01 Z-0.125000 F400.0(Penetrate)
G01 X168.708233 Y260.169617 Z-0.125000 F800.000000
G02 X169.565675 Y260.465787 Z-0.125000 I0.733092 J-0.733100
G02 X169.709773 Y260.048618 Z-0.125000 I-0.029435 J-0.243639
G01 X169.709773 Y260.048618 Z-0.125000
G03 X169.770388 Y259.547970 Z-0.125000 I0.226561 J-0.226563
G03 X170.408973 Y259.625285 Z-0.125000 I0.269984 J0.445920
G01 X170.409803 Y259.626123 Z-0.125000
G02 X170.911573 Y259.566619 Z-0.125000 I0.227441 J-0.227445
G02 X170.836063 Y258.929846 Z-0.125000 I-0.441813 J-0.270473
G01 X170.791063 Y258.884876 Z-0.125000
G03 X170.432120 Y257.964654 Z-0.125000 I0.869156 J-0.869141
G03 X170.835863 Y257.807177 Z-0.125000 I0.236419 J0.009834
G01 X170.898263 Y257.869577 Z-0.125000
G02 X171.295539 Y257.705679 Z-0.125000 I0.164557 J-0.164559
G02 X170.901263 Y256.750289 Z-0.125000 I-1.345408 J-0.003820
G01 X170.899263 Y256.748689 Z-0.125000
G03 X170.502391 Y255.790545 Z-0.125000 I0.958158 J-0.958144
G03 X170.899263 Y255.626157 Z-0.125000 I0.232482 J0.000000
G01 X170.899263 Y255.626157 Z-0.125000
G02 X171.296139 Y255.461765 Z-0.125000 I0.164391 J-0.164392
G02 X170.899263 Y254.503625 Z-0.125000 I-1.355012 J0.000000
G01 X170.612473 Y254.216831 Z-0.125000
G03 X170.618563 Y253.661661 Z-0.125000 I0.274599 J-0.274606
G03 X171.186063 Y253.667886 Z-0.125000 I0.280568 J0.293164
G01 X171.300233 Y253.782056 Z-0.125000
G00 Z3.000000

(End cutting path id: path64420)


(Start cutting path id: path64217)
(Change tool to Default tool)

G00 Z3.000000
G00 X170.366243 Y253.421435

G00 Z4.875000 (Fast pre-penetrate)
G01 Z-0.125000 F400.0(Penetrate)
G01 X170.366243 Y258.002286 Z-0.125000 F800.000000
G03 X170.254193 Y258.802318 Z-0.125000 I-2.912132 J-0.000000
G03 X170.006453 Y259.261538 Z-0.125000 I-1.168157 J-0.333763
G03 X169.587364 Y259.557489 Z-0.125000 I-0.783513 J-0.664805
G03 X168.888543 Y259.685572 Z-0.125000 I-0.698821 J-1.842351
G03 X167.973209 Y259.513954 Z-0.125000 I-0.000000 J-2.526805
G03 X167.417273 Y259.113769 Z-0.125000 I0.495207 J-1.274185
G03 X167.092305 Y258.487585 Z-0.125000 I1.271761 J-1.057415
G03 X166.941843 Y257.353386 Z-0.125000 I4.199620 J-1.134199
G01 X166.941843 Y253.421435 Z-0.125000
G01 X165.875333 Y253.421435 Z-0.125000
G01 X165.875333 Y258.002286 Z-0.125000
G03 X165.763286 Y258.802320 Z-0.125000 I-2.912213 J0.000000
G03 X165.515553 Y259.261538 Z-0.125000 I-1.168165 J-0.333756
G03 X165.096256 Y259.557040 Z-0.125000 I-0.780505 J-0.662253
G03 X164.391213 Y259.685572 Z-0.125000 I-0.705043 J-1.869446
G03 X163.477214 Y259.505281 Z-0.125000 I-0.000000 J-2.406936
G03 X162.919953 Y259.081645 Z-0.125000 I0.516034 J-1.257139
G03 X162.610132 Y258.431917 Z-0.125000 I1.340911 J-1.038142
G03 X162.457363 Y257.115670 Z-0.125000 I5.593957 J-1.316247
G01 X162.457363 Y253.421435 Z-0.125000
G01 X161.390853 Y253.421435 Z-0.125000
G01 X161.390853 Y260.462968 Z-0.125000
G01 X162.258203 Y260.462968 Z-0.125000
G01 X162.431663 Y259.499254 Z-0.125000
G01 X162.483063 Y259.499254 Z-0.125000
G02 X162.843367 Y259.952259 Z-0.125000 I1.779091 J-1.045237
G02 X163.331133 Y260.302349 Z-0.125000 I1.526547 J-1.612037
G02 X163.902484 Y260.514899 Z-0.125000 I1.125137 J-2.150266
G02 X164.564683 Y260.591463 Z-0.125000 I0.662199 J-2.825376
G02 X165.974811 Y260.227204 Z-0.125000 I0.000000 J-2.911589
G02 X166.723403 Y259.396458 Z-0.125000 I-0.831346 J-1.501787
G01 X166.774803 Y259.396458 Z-0.125000
G02 X167.154171 Y259.882822 Z-0.125000 I1.860372 J-1.059969
G02 X167.687113 Y260.270225 Z-0.125000 I1.689795 J-1.764334
G02 X168.306378 Y260.505056 Z-0.125000 I1.201908 J-2.235576
G02 X169.049163 Y260.591463 Z-0.125000 I0.742785 J-3.149410
G02 X170.164321 Y260.404339 Z-0.125000 I0.000000 J-3.416429
G02 X170.835243 Y259.974686 Z-0.125000 I-0.553604 J-1.603141
G02 X171.243156 Y259.286979 Z-0.125000 I-1.204809 J-1.179461
G02 X171.432753 Y258.015136 Z-0.125000 I-4.171044 J-1.271843
G01 X171.432753 Y253.421435 Z-0.125000
G01 X170.366243 Y253.421435 Z-0.125000
G00 Z3.000000

(End cutting path id: path64217)


(Start cutting path id: path64219)
(Change tool to Default tool)

G00 Z3.000000
G00 X176.604683 Y253.292940

G00 Z4.875000 (Fast pre-penetrate)
G01 Z-0.125000 F400.0(Penetrate)
G02 X175.158724 Y253.561944 Z-0.125000 I0.000000 J4.020688 F800.000000
G02 X174.137573 Y254.243804 Z-0.125000 I1.007806 J2.614851
G02 X173.500688 Y255.299182 Z-0.125000 I2.101935 J1.988303
G02 X173.238113 Y256.884379 Z-0.125000 I4.653715 J1.585197
G02 X173.481687 Y258.498754 Z-0.125000 I5.471716 J0.000000
G02 X174.073323 Y259.589201 Z-0.125000 I3.018786 J-0.932158
G02 X175.042191 Y260.318508 Z-0.125000 I2.062939 J-1.732354
G02 X176.328413 Y260.591463 Z-0.125000 I1.286222 J-2.894001
G02 X177.542237 Y260.348423 Z-0.125000 I-0.000000 J-3.152645
G02 X178.422883 Y259.717696 Z-0.125000 I-0.929400 J-2.227825
G02 X178.974213 Y258.766847 Z-0.125000 I-2.055471 J-1.827084
G02 X179.193853 Y257.424058 Z-0.125000 I-3.994801 J-1.342789
G01 X179.193853 Y256.749459 Z-0.125000
G01 X174.343163 Y256.749459 Z-0.125000
G03 X174.547412 Y255.579206 Z-0.125000 I4.056270 J0.105007
G03 X174.966373 Y254.867005 Z-0.125000 I1.863649 J0.616984
G03 X175.644375 Y254.409332 Z-0.125000 I1.325747 J1.232941
G03 X176.643233 Y254.224530 Z-0.125000 I0.998858 J2.607019
G03 X177.756562 Y254.340938 Z-0.125000 I0.000000 J5.382140
G03 X178.891893 Y254.699962 Z-0.125000 I-1.259774 J5.958377
G01 X178.891893 Y253.749098 Z-0.125000
G02 X178.317764 Y253.532872 Z-0.125000 I-2.564113 J5.937954
G02 X177.818963 Y253.402161 Z-0.125000 I-1.405798 J4.347540
G02 X177.314402 Y253.324794 Z-0.125000 I-0.870965 J3.996178
G02 X176.604683 Y253.292940 Z-0.125000 I-0.709719 J7.890401
G01 X176.604683 Y253.292940 Z-0.125000
G00 Z3.000000

(Change tool to Default tool)

G00 Z3.000000
G00 X176.315563 Y259.698422

G00 Z4.875000 (Fast pre-penetrate)
G01 Z-0.125000 F400.0(Penetrate)
G03 X175.534720 Y259.545403 Z-0.125000 I-0.000000 J-2.068804 F800.000000
G03 X174.959943 Y259.145893 Z-0.125000 I0.604291 J-1.482616
G03 X174.584886 Y258.537930 Z-0.125000 I1.446803 J-1.312214
G03 X174.368863 Y257.616801 Z-0.125000 I3.195908 J-1.235398
G01 X178.050253 Y257.616801 Z-0.125000
G03 X177.913304 Y258.575449 Z-0.125000 I-3.423761 J0.000000
G03 X177.600523 Y259.158742 Z-0.125000 I-1.535393 J-0.447820
G03 X177.078764 Y259.544657 Z-0.125000 I-1.052070 J-0.876738
G03 X176.315563 Y259.698422 Z-0.125000 I-0.763201 J-1.817155
G01 X176.315563 Y259.698422 Z-0.125000
G00 Z3.000000

(End cutting path id: path64219)


(Start cutting path id: path64425)
(Change tool to Default tool)

G00 Z3.000000
G00 X173.677573 Y258.819782

G00 Z4.875000 (Fast pre-penetrate)
G01 Z-0.125000 F400.0(Penetrate)
G01 X174.732383 Y259.874595 Z-0.125000 F800.000000
G02 X175.851345 Y260.432287 Z-0.125000 I1.392475 J-1.392486
G02 X176.038033 Y260.057713 Z-0.125000 I0.030650 J-0.218534
G01 X175.899073 Y259.918753 Z-0.125000
G03 X176.076978 Y259.535391 Z-0.125000 I0.159121 J-0.159118
G03 X177.124233 Y260.021376 Z-0.125000 I-0.140172 J1.673423
G01 X177.133233 Y260.029876 Z-0.125000
G02 X177.776046 Y260.111430 Z-0.125000 I0.374033 J-0.374025
G02 X177.839233 Y259.613352 Z-0.125000 I-0.161369 J-0.273519
G01 X177.839233 Y259.613352 Z-0.125000
G03 X177.766887 Y258.979704 Z-0.125000 I0.362330 J-0.362323
G03 X178.270623 Y258.922202 Z-0.125000 I0.274725 J0.171483
G01 X178.311123 Y258.962722 Z-0.125000
G02 X178.780734 Y258.871071 Z-0.125000 I0.203947 J-0.203944
G02 X178.644633 Y258.173698 Z-0.125000 I-0.585850 J-0.247631
G01 X177.645263 Y257.174330 Z-0.125000
G03 X177.809653 Y256.777453 Z-0.125000 I0.164390 J-0.164393
G03 X178.767793 Y257.174330 Z-0.125000 I-0.000000 J1.355007
G01 X178.767793 Y257.174330 Z-0.125000
G03 X178.441598 Y257.970660 Z-0.125000 I-0.329859 J0.329856
G03 X176.540223 Y257.191830 Z-0.125000 I-0.020888 J-2.659356
G01 X176.531223 Y257.183130 Z-0.125000
G02 X175.573075 Y256.786253 Z-0.125000 I-0.958148 J0.958151
G02 X175.408683 Y257.183130 Z-0.125000 I-0.000000 J0.232485
G01 X175.408683 Y257.183130 Z-0.125000
G03 X175.244293 Y257.580004 Z-0.125000 I-0.164390 J0.164391
G03 X174.286153 Y257.183130 Z-0.125000 I0.000000 J-1.355016
G01 X173.751643 Y256.648614 Z-0.125000
G03 X173.518051 Y255.853760 Z-0.125000 I0.611442 J-0.611442
G03 X173.951833 Y255.726280 Z-0.125000 I0.251676 J0.054626
G01 X174.010833 Y255.785250 Z-0.125000
G02 X174.460357 Y255.673502 Z-0.125000 I0.191136 J-0.191140
G02 X174.274673 Y254.926558 Z-0.125000 I-0.713416 J-0.219203
G01 X174.251873 Y254.903718 Z-0.125000
G03 X174.245003 Y254.335581 Z-0.125000 I0.287583 J-0.287588
G03 X174.799563 Y254.328879 Z-0.125000 I0.280551 J0.267304
G01 X174.799563 Y254.328879 Z-0.125000
G02 X175.466935 Y254.434988 Z-0.125000 I0.406800 J-0.406795
G02 X175.543933 Y253.950713 Z-0.125000 I-0.137206 J-0.270074
G01 X175.529633 Y253.936403 Z-0.125000
G03 X175.648490 Y253.493995 Z-0.125000 I0.186944 J-0.186946
G03 X176.415943 Y253.700179 Z-0.125000 I0.204892 J0.768748
G01 X176.488143 Y253.772339 Z-0.125000
G02 X177.596185 Y254.319110 Z-0.125000 I1.360063 J-1.360074
G02 X177.781633 Y253.943295 Z-0.125000 I0.028992 J-0.219357
G01 X177.292943 Y253.454607 Z-0.125000
G00 Z3.000000

(Change tool to Default tool)

G00 Z3.000000
G00 X174.412483 Y258.431864

G00 Z4.875000 (Fast pre-penetrate)
G01 Z-0.125000 F400.0(Penetrate)
G01 X173.364703 Y257.384088 Z-0.125000 F800.000000
G00 Z3.000000

(End cutting path id: path64425)


(Start cutting path id: path64522)
(Change tool to Default tool)

G00 Z3.000000
G00 X170.307423 Y226.516744

G00 Z4.875000 (Fast pre-penetrate)
G01 Z-0.125000 F400.0(Penetrate)
G01 X171.667063 Y227.876384 Z-0.125000 F800.000000
G02 X172.711603 Y228.359657 Z-0.125000 I1.180019 J-1.180014
G02 X172.889143 Y227.975924 Z-0.125000 I0.018284 J-0.224478
G01 X172.737403 Y227.824185 Z-0.125000
G03 X172.912686 Y227.438202 Z-0.125000 I0.160092 J-0.160091
G03 X173.940863 Y227.905115 Z-0.125000 I-0.107798 J1.602895
G01 X174.005263 Y227.969505 Z-0.125000
G02 X174.622704 Y228.025685 Z-0.125000 I0.342433 J-0.342424
G02 X174.669513 Y227.511221 Z-0.125000 I-0.190926 J-0.276733
G01 X174.669513 Y227.511221 Z-0.125000
G03 X174.649202 Y226.929640 Z-0.125000 I0.301676 J-0.301681
G03 X175.191523 Y226.910705 Z-0.125000 I0.279989 J0.243392
G01 X175.830333 Y227.549513 Z-0.125000
G03 X176.227207 Y228.507655 Z-0.125000 I-0.958145 J0.958142
G03 X175.830333 Y228.672045 Z-0.125000 I-0.232483 J0.000000
G01 X175.830333 Y228.672045 Z-0.125000
G02 X175.431690 Y228.834675 Z-0.125000 I-0.165129 J0.165129
G02 X175.818433 Y229.782698 Z-0.125000 I1.320670 J0.014134
G01 X175.829333 Y229.793608 Z-0.125000
G03 X176.226209 Y230.751748 Z-0.125000 I-0.958133 J0.958140
G03 X175.829333 Y230.916140 Z-0.125000 I-0.232485 J0.000000
G01 X175.398443 Y230.485253 Z-0.125000
G00 Z3.000000

(Change tool to Default tool)

G00 Z3.000000
G00 X171.231843 Y226.318651

G00 Z4.875000 (Fast pre-penetrate)
G01 Z-0.125000 F400.0(Penetrate)
G01 X170.465533 Y225.552338 Z-0.125000 F800.000000
G03 X170.084577 Y224.610115 Z-0.125000 I0.920149 J-0.920156
G03 X170.484233 Y224.448534 Z-0.125000 I0.234097 J0.003970
G01 X170.579933 Y224.544244 Z-0.125000
G02 X170.980837 Y224.383874 Z-0.125000 I0.166088 J-0.166090
G02 X170.606633 Y223.448399 Z-0.125000 I-1.278547 J-0.031142
G01 X170.553833 Y223.395579 Z-0.125000
G03 X170.418717 Y222.699207 Z-0.125000 I0.448265 J-0.448271
G03 X170.888783 Y222.607998 Z-0.125000 I0.265817 J0.113047
G01 X170.921083 Y222.640348 Z-0.125000
G02 X171.427093 Y222.585094 Z-0.125000 I0.230818 J-0.230817
G02 X171.358293 Y221.955030 Z-0.125000 I-0.426666 J-0.272198
G01 X171.356293 Y221.952630 Z-0.125000
G03 X171.411077 Y221.446144 Z-0.125000 I0.231201 J-0.231198
G03 X172.040413 Y221.514216 Z-0.125000 I0.272376 J0.425028
G01 X172.040413 Y221.514216 Z-0.125000
G02 X172.903105 Y221.815645 Z-0.125000 I0.743941 J-0.743933
G02 X173.048433 Y221.399706 Z-0.125000 I-0.027605 J-0.243003
G01 X173.000433 Y221.351706 Z-0.125000
G03 X173.179768 Y220.969777 Z-0.125000 I0.158599 J-0.158598
G03 X174.237863 Y221.466598 Z-0.125000 I-0.159149 J1.714085
G01 X175.829673 Y223.058409 Z-0.125000
G03 X176.226546 Y224.016552 Z-0.125000 I-0.958153 J0.958143
G03 X175.829673 Y224.180941 Z-0.125000 I-0.232482 J-0.000000
G01 X175.775973 Y224.127221 Z-0.125000
G02 X175.384669 Y224.297190 Z-0.125000 I-0.162138 J0.162140
G02 X175.815673 Y225.289463 Z-0.125000 I1.473634 J-0.050346
G01 X175.829673 Y225.303473 Z-0.125000
G03 X176.226546 Y226.261616 Z-0.125000 I-0.958153 J0.958143
G03 X175.829673 Y226.426005 Z-0.125000 I-0.232482 J0.000000
G01 X175.295173 Y225.891504 Z-0.125000
G00 Z3.000000

(Change tool to Default tool)

G00 Z3.000000
G00 X175.517263 Y221.623467

G00 Z4.875000 (Fast pre-penetrate)
G01 Z-0.125000 F400.0(Penetrate)
G01 X176.250623 Y222.356827 Z-0.125000 F800.000000
G00 Z3.000000

(End cutting path id: path64522)


(Start cutting path id: path64161)
(Change tool to Default tool)

G00 Z3.000000
G00 X175.326733 Y222.000727

G00 Z4.875000 (Fast pre-penetrate)
G01 Z-0.125000 F400.0(Penetrate)
G01 X175.266233 Y222.000727 Z-0.125000 F800.000000
G02 X174.326779 Y221.193489 Z-0.125000 I-1.999916 J1.377196
G02 X172.952673 Y220.877579 Z-0.125000 I-1.374106 J2.830506
G02 X171.637613 Y221.153414 Z-0.125000 I0.000000 J3.272737
G02 X170.699653 Y221.866219 Z-0.125000 I1.010884 J2.303711
G02 X170.141736 Y222.940675 Z-0.125000 I2.349878 J1.902266
G02 X169.899333 Y224.677452 Z-0.125000 I6.100665 J1.736777
G02 X170.142112 Y226.414884 Z-0.125000 I6.338290 J-0.000000
G02 X170.706383 Y227.508862 Z-0.125000 I3.000982 J-0.855384
G02 X171.647798 Y228.238116 Z-0.125000 I1.980471 J-1.584372
G02 X172.952673 Y228.517678 Z-0.125000 I1.304875 J-2.905513
G02 X174.299173 Y228.214896 Z-0.125000 I-0.000000 J-3.145394
G02 X175.252773 Y227.428157 Z-0.125000 I-1.080394 J-2.280832
G01 X175.340173 Y227.428157 Z-0.125000
G01 X175.293073 Y227.959467 Z-0.125000
G01 X175.266173 Y228.477326 Z-0.125000
G01 X175.266173 Y231.476871 Z-0.125000
G01 X176.382593 Y231.476871 Z-0.125000
G01 X176.382593 Y221.012088 Z-0.125000
G01 X175.474653 Y221.012088 Z-0.125000
G01 X175.326733 Y222.000727 Z-0.125000
G00 Z3.000000

(Change tool to Default tool)

G00 Z3.000000
G00 X173.093893 Y221.812415

G00 Z4.875000 (Fast pre-penetrate)
G01 Z-0.125000 F400.0(Penetrate)
G03 X174.147460 Y222.002978 Z-0.125000 I-0.000000 J3.007709 F800.000000
G03 X174.748353 Y222.431156 Z-0.125000 I-0.500360 J1.337920
G03 X175.098345 Y223.117096 Z-0.125000 I-1.360493 J1.126434
G03 X175.266213 Y224.442062 Z-0.125000 I-5.144986 J1.324966
G01 X175.266213 Y224.677452 Z-0.125000
G03 X175.091618 Y226.183963 Z-0.125000 I-6.586853 J-0.000000
G03 X174.741623 Y226.910298 Z-0.125000 I-1.812280 J-0.425781
G03 X174.123773 Y227.379652 Z-0.125000 I-1.173793 J-0.903823
G03 X173.080443 Y227.582842 Z-0.125000 I-1.043330 J-2.577019
G03 X172.208787 Y227.373795 Z-0.125000 I-0.000000 J-1.921776
G03 X171.573943 Y226.816142 Z-0.125000 I0.774584 J-1.521990
G03 X171.215395 Y226.007048 Z-0.125000 I2.031277 J-1.384147
G03 X171.056083 Y224.664001 Z-0.125000 I5.581482 J-1.343047
G03 X171.218873 Y223.304144 Z-0.125000 I5.761148 J-0.000000
G03 X171.573943 Y222.532037 Z-0.125000 I2.155594 J0.523600
G03 X172.195293 Y222.014390 Z-0.125000 I1.314184 J0.945723
G03 X173.093893 Y221.812415 Z-0.125000 I0.898600 J1.897979
G01 X173.093893 Y221.812415 Z-0.125000
G00 Z3.000000

(End cutting path id: path64161)


(Start cutting path id: path64159)
(Change tool to Default tool)

G00 Z3.000000
G00 X168.352453 Y224.704354

G00 Z4.875000 (Fast pre-penetrate)
G01 Z-0.125000 F400.0(Penetrate)
G02 X168.085286 Y223.003952 Z-0.125000 I-5.544738 J-0.000000 F800.000000
G02 X167.444523 Y221.886395 Z-0.125000 I-2.956100 J0.952438
G02 X166.409563 Y221.162786 Z-0.125000 I-2.078080 J1.870283
G02 X164.935933 Y220.877579 Z-0.125000 I-1.473630 J3.664428
G02 X163.981891 Y221.001558 Z-0.125000 I-0.000000 J3.732750
G02 X163.180593 Y221.341634 Z-0.125000 I0.781042 J2.954378
G02 X162.513967 Y221.896567 Z-0.125000 I1.503367 J2.483820
G02 X161.996913 Y222.673271 Z-0.125000 I2.511131 J2.232122
G02 X161.695459 Y223.567174 Z-0.125000 I3.471517 J1.668492
G02 X161.579933 Y224.704354 Z-0.125000 I5.539130 J1.137180
G02 X161.846400 Y226.404575 Z-0.125000 I5.557448 J0.000000
G02 X162.481143 Y227.508862 Z-0.125000 I2.898214 J-0.931322
G02 X163.510248 Y228.231928 Z-0.125000 I2.064229 J-1.844047
G02 X164.983013 Y228.517678 Z-0.125000 I1.472765 J-3.652466
G02 X166.401158 Y228.232472 Z-0.125000 I-0.000000 J-3.668356
G02 X167.437793 Y227.488686 Z-0.125000 I-1.103237 J-2.631899
G02 X168.087635 Y226.359010 Z-0.125000 I-2.396827 J-2.130514
G02 X168.352453 Y224.704354 Z-0.125000 I-5.036967 J-1.654656
G01 X168.352453 Y224.704354 Z-0.125000
G00 Z3.000000

(Change tool to Default tool)

G00 Z3.000000
G00 X162.736713 Y224.704354

G00 Z4.875000 (Fast pre-penetrate)
G01 Z-0.125000 F400.0(Penetrate)
G03 X162.911373 Y223.351075 Z-0.125000 I5.329982 J-0.000000 F800.000000
G03 X163.301653 Y222.552213 Z-0.125000 I2.188806 J0.574565
G03 X163.970890 Y222.023309 Z-0.125000 I1.371043 J1.046966
G03 X164.962833 Y221.812415 Z-0.125000 I0.991943 J2.227358
G03 X165.956081 Y222.021831 Z-0.125000 I-0.000000 J2.460165
G03 X166.624013 Y222.545488 Z-0.125000 I-0.694380 J1.573499
G03 X167.018838 Y223.345652 Z-0.125000 I-1.781154 J1.376366
G03 X167.195683 Y224.704354 Z-0.125000 I-5.131029 J1.358702
G03 X167.018582 Y226.048636 Z-0.125000 I-5.190416 J-0.000000
G03 X166.624013 Y226.836318 Z-0.125000 I-2.116427 J-0.567504
G03 X165.955512 Y227.358819 Z-0.125000 I-1.353990 J-1.043429
G03 X164.949383 Y227.569391 Z-0.125000 I-1.006129 J-2.298399
G03 X163.954536 Y227.362399 Z-0.125000 I-0.000000 J-2.494213
G03 X163.294923 Y226.849769 Z-0.125000 I0.672385 J-1.545859
G03 X162.911504 Y226.070301 Z-0.125000 I1.705546 J-1.322990
G03 X162.736713 Y224.704354 Z-0.125000 I5.249859 J-1.365947
G01 X162.736713 Y224.704354 Z-0.125000
G00 Z3.000000

(End cutting path id: path64159)


(Start cutting path id: path64517)
(Change tool to Default tool)

G00 Z3.000000
G00 X162.029763 Y226.735484

G00 Z4.875000 (Fast pre-penetrate)
G01 Z-0.125000 F400.0(Penetrate)
G01 X163.043713 Y227.749437 Z-0.125000 F800.000000
G02 X164.188077 Y228.332540 Z-0.125000 I1.469513 J-1.469497
G02 X164.377533 Y227.960725 Z-0.125000 I0.034325 J-0.216686
G01 X162.167053 Y225.750246 Z-0.125000
G03 X161.758871 Y224.780802 Z-0.125000 I0.985654 J-0.985662
G03 X162.153853 Y224.614491 Z-0.125000 I0.231371 J-0.002692
G01 X162.250053 Y224.710711 Z-0.125000
G02 X162.651365 Y224.550739 Z-0.125000 I0.166263 J-0.166266
G02 X162.279353 Y223.617451 Z-0.125000 I-1.271296 J-0.034044
G01 X162.218753 Y223.556811 Z-0.125000
G03 X162.088112 Y222.864921 Z-0.125000 I0.441680 J-0.441676
G03 X162.560243 Y222.775765 Z-0.125000 I0.266484 J0.116505
G01 X162.597743 Y222.813285 Z-0.125000
G02 X163.095819 Y222.750092 Z-0.125000 I0.224556 J-0.224560
G02 X163.014263 Y222.107275 Z-0.125000 I-0.455588 J-0.268780
G01 X163.006263 Y222.098875 Z-0.125000
G03 X163.048213 Y221.579558 Z-0.125000 I0.241819 J-0.241819
G03 X163.658803 Y221.628881 Z-0.125000 I0.276299 J0.383614
G01 X163.658803 Y221.628881 Z-0.125000
G02 X164.477671 Y221.886483 Z-0.125000 I0.656466 J-0.656466
G02 X164.611983 Y221.459530 Z-0.125000 I-0.044149 J-0.248491
G01 X164.550083 Y221.397660 Z-0.125000
G03 X164.706189 Y220.992499 Z-0.125000 I0.167946 J-0.167945
G03 X165.619253 Y221.344300 Z-0.125000 I0.060128 J1.204726
G01 X167.746273 Y223.471319 Z-0.125000
G03 X168.182577 Y224.468887 Z-0.125000 I-1.056120 J1.056109
G03 X167.792073 Y224.639689 Z-0.125000 I-0.228682 J0.008970
G01 X167.653303 Y224.500915 Z-0.125000
G02 X167.260360 Y224.669222 Z-0.125000 I-0.162790 J0.162790
G02 X167.680903 Y225.651004 Z-0.125000 I1.436681 J-0.034438
G01 X167.744203 Y225.714294 Z-0.125000
G03 X167.891050 Y226.422411 Z-0.125000 I-0.465902 J0.465902
G03 X167.426193 Y226.518809 Z-0.125000 I-0.264070 J-0.104385
G01 X167.383793 Y226.476419 Z-0.125000
G02 X166.894365 Y226.548263 Z-0.125000 I-0.217988 J0.217991
G02 X166.990923 Y227.206083 Z-0.125000 I0.490364 J0.264019
G01 X166.996923 Y227.212383 Z-0.125000
G03 X166.966832 Y227.743562 Z-0.125000 I-0.252159 J0.252157
G03 X166.371863 Y227.709857 Z-0.125000 I-0.278608 J-0.350063
G01 X166.371863 Y227.709857 Z-0.125000
G02 X165.613161 Y227.512420 Z-0.125000 I-0.547520 J0.547515
G02 X165.497263 Y227.957791 Z-0.125000 I0.072771 J0.256702
G01 X165.833973 Y228.294498 Z-0.125000
G00 Z3.000000

(Change tool to Default tool)

G00 Z3.000000
G00 X166.877883 Y221.480687

G00 Z4.875000 (Fast pre-penetrate)
G01 Z-0.125000 F400.0(Penetrate)
G01 X167.747523 Y222.350323 Z-0.125000 F800.000000
G00 Z3.000000

(End cutting path id: path64517)


(Start cutting path id: path64157)
(Change tool to Default tool)

G00 Z3.000000
G00 X158.378633 Y220.877579

G00 Z4.875000 (Fast pre-penetrate)
G01 Z-0.125000 F400.0(Penetrate)
G02 X156.903476 Y221.158805 Z-0.125000 I0.000000 J4.009538 F800.000000
G02 X155.896943 Y221.859493 Z-0.125000 I0.983845 J2.486570
G02 X155.283237 Y222.946836 Z-0.125000 I2.240560 J1.981453
G02 X155.022633 Y224.650551 Z-0.125000 I5.438765 J1.703715
G02 X155.288043 Y226.399894 Z-0.125000 I5.897750 J0.000000
G02 X155.910393 Y227.508862 Z-0.125000 I2.909378 J-0.903621
G02 X156.935348 Y228.227635 Z-0.125000 I2.021429 J-1.792347
G02 X158.452613 Y228.517678 Z-0.125000 I1.517265 J-3.823514
G02 X158.980908 Y228.489339 Z-0.125000 I-0.000000 J-4.938401
G02 X159.515233 Y228.403346 Z-0.125000 I-0.552829 J-5.138085
G02 X160.037390 Y228.263321 Z-0.125000 I-1.136801 J-5.282761
G02 X160.349183 Y228.134328 Z-0.125000 I-0.646281 J-2.003457
G01 X160.006183 Y227.186041 Z-0.125000
G03 X159.631110 Y227.317027 Z-0.125000 I-1.657360 J-4.143288
G03 X159.199133 Y227.428157 Z-0.125000 I-1.616334 J-5.387758
G03 X158.759514 Y227.507361 Z-0.125000 I-1.034884 J-4.484441
G03 X158.425713 Y227.529039 Z-0.125000 I-0.333801 J-2.559113
G03 X156.914759 Y226.793693 Z-0.125000 I-0.000000 J-1.919992
G03 X156.179413 Y224.664001 Z-0.125000 I2.716311 J-2.129692
G03 X156.346800 Y223.361259 Z-0.125000 I5.153196 J0.000000
G03 X156.724173 Y222.579115 Z-0.125000 I2.179567 J0.569499
G03 X157.378550 Y222.060070 Z-0.125000 I1.340103 J1.017494
G03 X158.351733 Y221.852768 Z-0.125000 I0.973183 J2.180656
G03 X159.254649 Y221.946536 Z-0.125000 I0.000000 J4.394097
G03 X160.241583 Y222.249569 Z-0.125000 I-1.167879 J5.562274
G01 X160.241583 Y221.260929 Z-0.125000
G02 X159.474588 Y220.989170 Z-0.125000 I-1.364958 J2.634135
G02 X158.378633 Y220.877579 Z-0.125000 I-1.095955 J5.325966
G01 X158.378633 Y220.877579 Z-0.125000
G00 Z3.000000

(End cutting path id: path64157)


(Start cutting path id: path64155)
(Change tool to Default tool)

G00 Z3.000000
G00 X152.016363 Y221.012088

G00 Z4.875000 (Fast pre-penetrate)
G01 Z-0.125000 F400.0(Penetrate)
G01 X152.016363 Y225.807326 Z-0.125000 F800.000000
G03 X151.899072 Y226.644802 Z-0.125000 I-3.048492 J-0.000000
G03 X151.639743 Y227.125512 Z-0.125000 I-1.222833 J-0.349377
G03 X151.201039 Y227.435314 Z-0.125000 I-0.820185 J-0.695925
G03 X150.469513 Y227.569391 Z-0.125000 I-0.731526 J-1.928575
G03 X149.511337 Y227.389741 Z-0.125000 I-0.000000 J-2.645077
G03 X148.929383 Y226.970827 Z-0.125000 I0.518380 J-1.333812
G03 X148.589207 Y226.315337 Z-0.125000 I1.331282 J-1.106903
G03 X148.431703 Y225.128057 Z-0.125000 I4.396168 J-1.187280
G01 X148.431703 Y221.012088 Z-0.125000
G01 X147.315283 Y221.012088 Z-0.125000
G01 X147.315283 Y225.807326 Z-0.125000
G03 X147.197989 Y226.644800 Z-0.125000 I-3.048411 J-0.000000
G03 X146.938653 Y227.125512 Z-0.125000 I-1.222825 J-0.349384
G03 X146.499740 Y227.434843 Z-0.125000 I-0.817018 J-0.693219
G03 X145.761703 Y227.569391 Z-0.125000 I-0.738037 J-1.956914
G03 X144.804924 Y227.380662 Z-0.125000 I-0.000000 J-2.519597
G03 X144.221583 Y226.937200 Z-0.125000 I0.540183 J-1.315974
G03 X143.897269 Y226.257066 Z-0.125000 I1.403687 J-1.086721
G03 X143.737353 Y224.879215 Z-0.125000 I5.855886 J-1.377851
G01 X143.737353 Y221.012088 Z-0.125000
G01 X142.620923 Y221.012088 Z-0.125000
G01 X142.620923 Y228.383169 Z-0.125000
G01 X143.528863 Y228.383169 Z-0.125000
G01 X143.710443 Y227.374353 Z-0.125000
G01 X143.764243 Y227.374353 Z-0.125000
G02 X144.141400 Y227.848557 Z-0.125000 I1.862273 J-1.094064
G02 X144.651993 Y228.215033 Z-0.125000 I1.597953 J-1.687424
G02 X145.250085 Y228.437530 Z-0.125000 I1.177792 J-2.250897
G02 X145.943283 Y228.517678 Z-0.125000 I0.693198 J-2.957656
G02 X147.419402 Y228.136372 Z-0.125000 I-0.000000 J-3.047845
G02 X148.203033 Y227.266746 Z-0.125000 I-0.870261 J-1.572086
G01 X148.256833 Y227.266746 Z-0.125000
G02 X148.653961 Y227.775873 Z-0.125000 I1.947488 J-1.109627
G02 X149.211843 Y228.181406 Z-0.125000 I1.768894 J-1.846929
G02 X149.860086 Y228.427226 Z-0.125000 I1.258141 J-2.340158
G02 X150.637643 Y228.517678 Z-0.125000 I0.777557 J-3.296855
G02 X151.804985 Y228.321798 Z-0.125000 I0.000000 J-3.576305
G02 X152.507313 Y227.872036 Z-0.125000 I-0.579524 J-1.678203
G02 X152.934306 Y227.152146 Z-0.125000 I-1.261214 J-1.234650
G02 X153.132773 Y225.820777 Z-0.125000 I-4.366359 J-1.331369
G01 X153.132773 Y221.012088 Z-0.125000
G01 X152.016363 Y221.012088 Z-0.125000
G00 Z3.000000

(End cutting path id: path64155)


(Start cutting path id: path64512)
(Change tool to Default tool)

G00 Z3.000000
G00 X155.536753 Y226.889127

G00 Z4.875000 (Fast pre-penetrate)
G01 Z-0.125000 F400.0(Penetrate)
G01 X156.326333 Y227.678704 Z-0.125000 F800.000000
G02 X157.548366 Y228.339467 Z-0.125000 I1.719306 J-1.719318
G02 X157.745343 Y227.975177 Z-0.125000 I0.044190 J-0.211505
G01 X155.623063 Y225.852902 Z-0.125000
G03 X155.192954 Y224.861523 Z-0.125000 I1.040361 J-1.040350
G03 X155.584363 Y224.691719 Z-0.125000 I0.229225 J-0.007634
G01 X155.684543 Y224.791894 Z-0.125000
G02 X156.082792 Y224.628772 Z-0.125000 I0.164964 J-0.164962
G02 X155.693543 Y223.678081 Z-0.125000 I-1.329976 J-0.010490
G01 X155.636843 Y223.621321 Z-0.125000
G03 X155.486079 Y222.909295 Z-0.125000 I0.471885 J-0.471891
G03 X155.949273 Y222.811218 Z-0.125000 I0.263498 J0.101622
G01 X155.984573 Y222.846488 Z-0.125000
G02 X156.479138 Y222.779789 Z-0.125000 I0.221860 J-0.221857
G02 X156.391643 Y222.131024 Z-0.125000 I-0.469270 J-0.266995
G01 X156.383643 Y222.123124 Z-0.125000
G03 X156.423379 Y221.601593 Z-0.125000 I0.243712 J-0.243710
G03 X157.030933 Y221.647884 Z-0.125000 I0.276814 J0.377028
G01 X157.030933 Y221.647884 Z-0.125000
G02 X157.843389 Y221.899068 Z-0.125000 I0.644237 J-0.644249
G02 X157.975933 Y221.470353 Z-0.125000 I-0.046840 J-0.249328
G01 X157.923433 Y221.417883 Z-0.125000
G03 X158.077534 Y221.010713 Z-0.125000 I0.168845 J-0.168844
G03 X158.980573 Y221.352483 Z-0.125000 I0.072521 J1.172290
G01 X159.403913 Y221.775823 Z-0.125000
G02 X159.996503 Y221.807148 Z-0.125000 I0.313706 J-0.313703
G02 X160.024683 Y221.274059 Z-0.125000 I-0.225692 J-0.279220
G01 X159.939883 Y221.189279 Z-0.125000
G00 Z3.000000

(Change tool to Default tool)

G00 Z3.000000
G00 X158.518193 Y227.625316

G00 Z4.875000 (Fast pre-penetrate)
G01 Z-0.125000 F400.0(Penetrate)
G01 X158.913043 Y228.020165 Z-0.125000 F800.000000
G02 X159.686433 Y228.232292 Z-0.125000 I0.572928 J-0.572921
G02 X159.807243 Y227.791832 Z-0.125000 I-0.065020 J-0.254632
G01 X159.502653 Y227.487239 Z-0.125000
G00 Z3.000000

(End cutting path id: path64512)


(Start cutting path id: path64552)
(Change tool to Default tool)

G00 Z3.000000
G00 X151.815793 Y213.798083

G00 Z4.875000 (Fast pre-penetrate)
G01 Z-0.125000 F400.0(Penetrate)
G01 X151.980483 Y213.962769 Z-0.125000 F800.000000
G02 X152.523014 Y213.944038 Z-0.125000 I0.262525 J-0.262523
G02 X152.502943 Y213.362701 Z-0.125000 I-0.321495 J-0.279915
G01 X152.236743 Y213.096500 Z-0.125000
G03 X151.839867 Y212.138360 Z-0.125000 I0.958133 J-0.958140
G03 X152.236743 Y211.973968 Z-0.125000 I0.232485 J0.000000
G01 X152.246743 Y211.983868 Z-0.125000
G02 X152.643616 Y211.819479 Z-0.125000 I0.164391 J-0.164389
G02 X152.246743 Y210.861336 Z-0.125000 I-1.355026 J0.000000
G01 X152.236743 Y210.851436 Z-0.125000
G03 X151.839867 Y209.893296 Z-0.125000 I0.958133 J-0.958140
G03 X152.236743 Y209.728904 Z-0.125000 I0.232485 J0.000000
G01 X152.246743 Y209.738804 Z-0.125000
G02 X152.643616 Y209.574415 Z-0.125000 I0.164391 J-0.164389
G02 X152.246743 Y208.616272 Z-0.125000 I-1.355026 J0.000000
G01 X152.236743 Y208.606372 Z-0.125000
G03 X151.839867 Y207.648232 Z-0.125000 I0.958133 J-0.958140
G03 X152.236743 Y207.483840 Z-0.125000 I0.232485 J0.000000
G01 X152.246743 Y207.493740 Z-0.125000
G02 X152.643616 Y207.329351 Z-0.125000 I0.164391 J-0.164389
G02 X152.246743 Y206.371208 Z-0.125000 I-1.355026 J0.000000
G01 X152.236743 Y206.361308 Z-0.125000
G03 X151.839867 Y205.403168 Z-0.125000 I0.958133 J-0.958140
G03 X152.236743 Y205.238776 Z-0.125000 I0.232485 J0.000000
G01 X152.357693 Y205.359724 Z-0.125000
G02 X152.754567 Y205.195334 Z-0.125000 I0.164391 J-0.164390
G02 X152.357693 Y204.237192 Z-0.125000 I-1.355021 J0.000000
G01 X152.047753 Y203.927253 Z-0.125000
G00 Z3.000000

(End cutting path id: path64552)


(Start cutting path id: path64173)
(Change tool to Default tool)

G00 Z3.000000
G00 X152.799923 Y203.794963

G00 Z4.875000 (Fast pre-penetrate)
G01 Z-0.125000 F400.0(Penetrate)
G01 X151.683503 Y203.794963 Z-0.125000 F800.000000
G01 X151.683503 Y214.259747 Z-0.125000
G01 X152.799923 Y214.259747 Z-0.125000
G01 X152.799923 Y203.794963 Z-0.125000
G00 Z3.000000

(End cutting path id: path64173)


(Start cutting path id: path64171)
(Change tool to Default tool)

G00 Z3.000000
G00 X148.273703 Y203.794963

G00 Z4.875000 (Fast pre-penetrate)
G01 Z-0.125000 F400.0(Penetrate)
G01 X148.273703 Y208.563300 Z-0.125000 F800.000000
G03 X148.146734 Y209.414820 Z-0.125000 I-2.918851 J0.000000
G03 X147.863453 Y209.908388 Z-0.125000 I-1.219862 J-0.372056
G03 X147.393378 Y210.215512 Z-0.125000 I-0.846570 J-0.782433
G03 X146.578893 Y210.352267 Z-0.125000 I-0.814485 J-2.357073
G03 X145.504626 Y210.159149 Z-0.125000 I-0.000000 J-3.084500
G03 X144.877353 Y209.720075 Z-0.125000 I0.528644 J-1.422841
G03 X144.519695 Y209.024603 Z-0.125000 I1.348116 J-1.132992
G03 X144.346043 Y207.648640 Z-0.125000 I5.364511 J-1.375963
G01 X144.346043 Y203.794963 Z-0.125000
G01 X143.229623 Y203.794963 Z-0.125000
G01 X143.229623 Y214.259747 Z-0.125000
G01 X144.346043 Y214.259747 Z-0.125000
G01 X144.346043 Y211.092065 Z-0.125000
G02 X144.329872 Y210.521552 Z-0.125000 I-10.072117 J0.000000
G02 X144.292243 Y210.143778 Z-0.125000 I-4.449339 J0.252428
G01 X144.359543 Y210.143778 Z-0.125000
G02 X144.749929 Y210.608412 Z-0.125000 I1.801920 J-1.117658
G02 X145.294383 Y210.977732 Z-0.125000 I1.658903 J-1.859586
G02 X145.926288 Y211.203647 Z-0.125000 I1.217200 J-2.407913
G02 X146.686553 Y211.287103 Z-0.125000 I0.760265 J-3.421195
G02 X147.958721 Y211.089144 Z-0.125000 I-0.000000 J-4.186718
G02 X148.710903 Y210.641460 Z-0.125000 I-0.588038 J-1.843736
G02 X149.178044 Y209.910850 Z-0.125000 I-1.214431 J-1.291135
G02 X149.390173 Y208.603652 Z-0.125000 I-3.921589 J-1.307198
G01 X149.390173 Y203.794963 Z-0.125000
G01 X148.273703 Y203.794963 Z-0.125000
G00 Z3.000000

(End cutting path id: path64171)


(Start cutting path id: path64169)
(Change tool to Default tool)

G00 Z3.000000
G00 X140.747933 Y204.581840

G00 Z4.875000 (Fast pre-penetrate)
G01 Z-0.125000 F400.0(Penetrate)
G03 X141.043096 Y204.592244 Z-0.125000 I-0.000000 J4.192207 F800.000000
G03 X141.319603 Y204.622190 Z-0.125000 I-0.261744 J3.708327
G03 X141.593991 Y204.675140 Z-0.125000 I-1.092751 J6.400069
G03 X141.756753 Y204.716350 Z-0.125000 I-0.493513 J2.291197
G01 X141.756753 Y203.862220 Z-0.125000
G02 X141.569459 Y203.793277 Z-0.125000 I-0.451612 J0.937987
G02 X141.218713 Y203.720985 Z-0.125000 I-0.851036 J3.242055
G02 X140.867839 Y203.673892 Z-0.125000 I-0.795376 J4.595387
G02 X140.586523 Y203.660455 Z-0.125000 I-0.281316 J2.938130
G02 X139.090458 Y204.303080 Z-0.125000 I-0.000000 J2.062770
G02 X138.447833 Y205.913478 Z-0.125000 I1.696488 J1.610398
G01 X138.447833 Y210.298464 Z-0.125000
G01 X137.391943 Y210.298464 Z-0.125000
G01 X137.391943 Y210.836499 Z-0.125000
G01 X138.447833 Y211.300554 Z-0.125000
G01 X138.918613 Y212.874307 Z-0.125000
G01 X139.564263 Y212.874307 Z-0.125000
G01 X139.564263 Y211.166046 Z-0.125000
G01 X141.702953 Y211.166046 Z-0.125000
G01 X141.702953 Y210.298464 Z-0.125000
G01 X139.564263 Y210.298464 Z-0.125000
G01 X139.564263 Y205.960556 Z-0.125000
G03 X139.659396 Y205.330842 Z-0.125000 I2.131691 J-0.000000
G03 X139.880353 Y204.938289 Z-0.125000 I1.018907 J0.315051
G03 X140.241427 Y204.681835 Z-0.125000 I0.733796 J0.650735
G03 X140.747933 Y204.581840 Z-0.125000 I0.506508 J1.232817
G01 X140.747933 Y204.581840 Z-0.125000
G00 Z3.000000

(End cutting path id: path64169)


(Start cutting path id: path64167)
(Change tool to Default tool)

G00 Z3.000000
G00 X135.999773 Y203.794963

G00 Z4.875000 (Fast pre-penetrate)
G01 Z-0.125000 F400.0(Penetrate)
G01 X134.883353 Y203.794963 Z-0.125000 F800.000000
G01 X134.883353 Y211.166045 Z-0.125000
G01 X135.999773 Y211.166045 Z-0.125000
G01 X135.999773 Y203.794963 Z-0.125000
G00 Z3.000000

(Change tool to Default tool)

G00 Z3.000000
G00 X134.789193 Y213.163500

G00 Z4.875000 (Fast pre-penetrate)
G01 Z-0.125000 F400.0(Penetrate)
G02 X134.847912 Y213.521244 Z-0.125000 I1.119131 J-0.000000 F800.000000
G02 X134.977513 Y213.721712 Z-0.125000 I0.459767 J-0.155108
G02 X135.185564 Y213.854385 Z-0.125000 I0.432039 J-0.448037
G02 X135.448293 Y213.903298 Z-0.125000 I0.262729 J-0.681150
G02 X135.698712 Y213.856047 Z-0.125000 I0.000000 J-0.687207
G02 X135.912343 Y213.721712 Z-0.125000 I-0.245567 J-0.627555
G02 X136.047876 Y213.514222 Z-0.125000 I-0.351664 J-0.377717
G02 X136.107383 Y213.163500 Z-0.125000 I-1.003780 J-0.350722
G02 X136.048400 Y212.811916 Z-0.125000 I-1.077353 J0.000000
G02 X135.912343 Y212.598563 Z-0.125000 I-0.513078 J0.177136
G02 X135.698712 Y212.464227 Z-0.125000 I-0.459199 J0.493219
G02 X135.448293 Y212.416976 Z-0.125000 I-0.250419 J0.639952
G02 X135.185565 Y212.465889 Z-0.125000 I-0.000000 J0.730059
G02 X134.977513 Y212.598563 Z-0.125000 I0.223989 J0.580710
G02 X134.846463 Y212.810599 Z-0.125000 I0.383568 J0.383582
G02 X134.789193 Y213.163500 Z-0.125000 I1.058661 J0.352901
G01 X134.789193 Y213.163500 Z-0.125000
G00 Z3.000000

(End cutting path id: path64167)


(Start cutting path id: path64537)
(Change tool to Default tool)

G00 Z3.000000
G00 X134.890253 Y213.254221

G00 Z4.875000 (Fast pre-penetrate)
G01 Z-0.125000 F400.0(Penetrate)
G01 X135.150073 Y213.514039 Z-0.125000 F800.000000
G02 X135.711440 Y213.514146 Z-0.125000 I0.280737 J-0.280733
G02 X135.711543 Y212.952982 Z-0.125000 I-0.280423 J-0.280634
G01 X135.321693 Y212.563134 Z-0.125000
G00 Z3.000000

(Change tool to Default tool)

G00 Z3.000000
G00 X135.015643 Y210.012020

G00 Z4.875000 (Fast pre-penetrate)
G01 Z-0.125000 F400.0(Penetrate)
G01 X135.446533 Y210.442907 Z-0.125000 F800.000000
G02 X135.843406 Y210.278518 Z-0.125000 I0.164391 J-0.164389
G02 X135.446533 Y209.320375 Z-0.125000 I-1.355026 J0.000000
G01 X135.436533 Y209.310475 Z-0.125000
G03 X135.039657 Y208.352335 Z-0.125000 I0.958133 J-0.958140
G03 X135.436533 Y208.187943 Z-0.125000 I0.232485 J0.000000
G01 X135.446533 Y208.197843 Z-0.125000
G02 X135.843406 Y208.033454 Z-0.125000 I0.164391 J-0.164389
G02 X135.446533 Y207.075311 Z-0.125000 I-1.355026 J0.000000
G01 X135.436533 Y207.065411 Z-0.125000
G03 X135.039657 Y206.107271 Z-0.125000 I0.958133 J-0.958140
G03 X135.436533 Y205.942879 Z-0.125000 I0.232485 J0.000000
G01 X135.446533 Y205.952779 Z-0.125000
G02 X135.843406 Y205.788390 Z-0.125000 I0.164391 J-0.164389
G02 X135.446533 Y204.830247 Z-0.125000 I-1.355026 J0.000000
G01 X135.116353 Y204.500065 Z-0.125000
G03 X135.157412 Y203.979853 Z-0.125000 I0.242570 J-0.242581
G03 X135.766773 Y204.027959 Z-0.125000 I0.276505 J0.380954
G01 X135.867483 Y204.128664 Z-0.125000
G00 Z3.000000

(End cutting path id: path64537)


(Start cutting path id: path64165)
(Change tool to Default tool)

G00 Z3.000000
G00 X130.188993 Y203.794963

G00 Z4.875000 (Fast pre-penetrate)
G01 Z-0.125000 F400.0(Penetrate)
G01 X128.837183 Y208.119421 Z-0.125000 F800.000000
G02 X128.719938 Y208.519225 Z-0.125000 I7.546097 J2.430035
G02 X128.359673 Y209.921838 Z-0.125000 I92.579778 J24.526938
G01 X128.305873 Y209.921838 Z-0.125000
G02 X128.019977 Y208.749472 Z-0.125000 I-40.621669 J9.285044
G02 X127.835093 Y208.105970 Z-0.125000 I-12.417166 J3.219261
G01 X126.442923 Y203.794963 Z-0.125000
G01 X125.151643 Y203.794963 Z-0.125000
G01 X123.140733 Y211.166045 Z-0.125000
G01 X124.310963 Y211.166045 Z-0.125000
G02 X125.022954 Y208.388206 Z-0.125000 I-4247.094964 J-1090.059477
G02 X125.393763 Y206.935743 Z-0.125000 I-1160.777414 J-297.115706
G02 X125.742887 Y205.478046 Z-0.125000 I-39.016517 J-10.115269
G02 X125.824183 Y204.978640 Z-0.125000 I-4.485638 J-0.986513
G01 X125.877983 Y204.978640 Z-0.125000
G02 X125.960175 Y205.360111 Z-0.125000 I8.900101 J-1.718027
G02 X126.113373 Y205.967280 Z-0.125000 I22.706998 J-5.406417
G02 X126.288202 Y206.577239 Z-0.125000 I27.715266 J-7.613813
G02 X126.402563 Y206.935743 Z-0.125000 I9.686214 J-2.892373
G01 X127.754373 Y211.166045 Z-0.125000
G01 X128.964953 Y211.166045 Z-0.125000
G01 X130.283143 Y206.935743 Z-0.125000
G02 X130.625718 Y205.770563 Z-0.125000 I-20.051069 J-6.528178
G02 X130.794273 Y204.992091 Z-0.125000 I-8.771748 J-2.306742
G01 X130.848073 Y204.992091 Z-0.125000
G02 X130.884140 Y205.232664 Z-0.125000 I3.168508 J-0.352033
G02 X130.989303 Y205.738615 Z-0.125000 I14.135856 J-2.674270
G02 X131.114858 Y206.241897 Z-0.125000 I28.229174 J-6.775118
G02 X132.394923 Y211.166045 Z-0.125000 I2703.829646 J-700.249854
G01 X133.551693 Y211.166045 Z-0.125000
G01 X131.513883 Y203.794963 Z-0.125000
G01 X130.188993 Y203.794963 Z-0.125000
G00 Z3.000000

(End cutting path id: path64165)


(Start cutting path id: path64532)
(Change tool to Default tool)

G00 Z3.000000
G00 X123.461423 Y210.493185

G00 Z4.875000 (Fast pre-penetrate)
G01 Z-0.125000 F400.0(Penetrate)
G01 X123.731703 Y210.763469 Z-0.125000 F800.000000
G02 X124.221181 Y210.691679 Z-0.125000 I0.218026 J-0.218027
G02 X124.124713 Y210.033946 Z-0.125000 I-0.490146 J-0.264052
G01 X124.042613 Y209.951826 Z-0.125000
G03 X123.839710 Y209.187652 Z-0.125000 I0.556900 J-0.556892
G03 X124.283213 Y209.069894 Z-0.125000 I0.255923 J0.069818
G01 X124.289213 Y209.075794 Z-0.125000
G02 X124.729778 Y208.955093 Z-0.125000 I0.185889 J-0.185889
G02 X124.517983 Y208.182032 Z-0.125000 I-0.784144 J-0.200712
G01 X124.511983 Y208.176132 Z-0.125000
G03 X124.309079 Y207.411960 Z-0.125000 I0.556895 J-0.556891
G03 X124.752583 Y207.294200 Z-0.125000 I0.255924 J0.069819
G01 X124.758583 Y207.300400 Z-0.125000
G02 X125.199016 Y207.179567 Z-0.125000 I0.185814 J-0.185813
G02 X124.986813 Y206.406093 Z-0.125000 I-0.785276 J-0.200405
G01 X124.976313 Y206.395643 Z-0.125000
G03 X124.773410 Y205.631470 Z-0.125000 I0.556898 J-0.556891
G03 X125.216913 Y205.513711 Z-0.125000 I0.255924 J0.069819
G01 X125.243913 Y205.540671 Z-0.125000
G02 X125.674641 Y205.410140 Z-0.125000 I0.180457 J-0.180454
G02 X125.430583 Y204.604814 Z-0.125000 I-0.874863 J-0.174512
G01 X125.430583 Y204.604814 Z-0.125000
G03 X125.502588 Y204.115550 Z-0.125000 I0.217870 J-0.217867
G03 X126.160703 Y204.212404 Z-0.125000 I0.263918 J0.491047
G01 X126.223303 Y204.275004 Z-0.125000
G03 X127.106981 Y205.719944 Z-0.125000 I-2.555555 J2.555577
G03 X126.758703 Y205.932939 Z-0.125000 I-0.199808 J0.064524
G01 X126.492513 Y205.666744 Z-0.125000
G02 X126.137576 Y205.873076 Z-0.125000 I-0.150153 J0.150154
G02 X126.916863 Y207.213624 Z-0.125000 I2.921175 J-0.801355
G01 X127.304323 Y207.601084 Z-0.125000
G03 X128.003390 Y208.861422 Z-0.125000 I-1.850438 J1.850418
G03 X127.642373 Y209.061666 Z-0.125000 I-0.209188 J0.048416
G01 X127.443493 Y208.862786 Z-0.125000
G02 X127.094762 Y209.075326 Z-0.125000 I-0.148579 J0.148580
G02 X127.970653 Y210.512486 Z-0.125000 I3.399364 J-1.086286
G01 X128.218163 Y210.759988 Z-0.125000
G02 X128.775311 Y210.755871 Z-0.125000 I0.276546 J-0.276546
G02 X128.771133 Y210.190427 Z-0.125000 I-0.289021 J-0.280602
G01 X128.771133 Y210.190427 Z-0.125000
G03 X128.558878 Y209.416906 Z-0.125000 I0.573158 J-0.573158
G03 X128.999293 Y209.296055 Z-0.125000 I0.254612 J0.064953
G01 X129.018593 Y209.315315 Z-0.125000
G02 X129.468875 Y209.204326 Z-0.125000 I0.191594 J-0.191596
G02 X129.285283 Y208.459470 Z-0.125000 I-0.707880 J-0.220576
G01 X129.273083 Y208.447230 Z-0.125000
G03 X129.089961 Y207.702843 Z-0.125000 I0.523503 J-0.523501
G03 X129.540413 Y207.592030 Z-0.125000 I0.258754 J0.080885
G01 X129.540733 Y207.592353 Z-0.125000
G02 X129.991017 Y207.481363 Z-0.125000 I0.191594 J-0.191598
G02 X129.807423 Y206.736508 Z-0.125000 I-0.707875 J-0.220575
G01 X129.805423 Y206.734308 Z-0.125000
G03 X129.622301 Y205.989918 Z-0.125000 I0.523492 J-0.523500
G03 X130.072753 Y205.879108 Z-0.125000 I0.258754 J0.080887
G01 X130.093153 Y205.899488 Z-0.125000
G02 X130.533187 Y205.778250 Z-0.125000 I0.185586 J-0.185587
G02 X130.319743 Y205.003538 Z-0.125000 I-0.788706 J-0.199460
G01 X130.319743 Y205.003538 Z-0.125000
G03 X130.179835 Y204.302363 Z-0.125000 I0.455412 J-0.455416
G03 X130.647733 Y204.209005 Z-0.125000 I0.265098 J0.109438
G01 X131.392523 Y204.953788 Z-0.125000
G03 X132.176071 Y206.298602 Z-0.125000 I-2.158100 J2.158077
G03 X131.821433 Y206.505232 Z-0.125000 I-0.204564 J0.056555
G01 X131.546303 Y206.230103 Z-0.125000
G02 X131.190505 Y206.435574 Z-0.125000 I-0.150383 J0.150384
G02 X131.957653 Y207.763984 Z-0.125000 I2.863452 J-0.767909
G01 X132.250343 Y208.056676 Z-0.125000
G03 X133.033894 Y209.401490 Z-0.125000 I-2.158021 J2.158037
G03 X132.679253 Y209.608120 Z-0.125000 I-0.204566 J0.056554
G01 X132.259603 Y209.188463 Z-0.125000
G02 X131.902698 Y209.392820 Z-0.125000 I-0.150680 J0.150682
G02 X132.654493 Y210.705886 Z-0.125000 I2.791589 J-0.726569
G01 X132.982333 Y211.033729 Z-0.125000
G00 Z3.000000

(End cutting path id: path64532)


(Start cutting path id: path64542)
(Change tool to Default tool)

G00 Z3.000000
G00 X139.431973 Y211.966661

G00 Z4.875000 (Fast pre-penetrate)
G01 Z-0.125000 F400.0(Penetrate)
G01 X138.317013 Y210.851705 Z-0.125000 F800.000000
G03 X138.371772 Y210.345200 Z-0.125000 I0.231218 J-0.231215
G03 X139.001073 Y210.413232 Z-0.125000 I0.272388 J0.424948
G01 X139.320093 Y210.732255 Z-0.125000
G02 X140.278239 Y211.129131 Z-0.125000 I0.958146 J-0.958148
G02 X140.442633 Y210.732255 Z-0.125000 I-0.000000 J-0.232486
G01 X140.294633 Y210.584255 Z-0.125000
G03 X140.459020 Y210.187385 Z-0.125000 I0.164387 J-0.164390
G03 X141.417163 Y210.584255 Z-0.125000 I0.000000 J1.355032
G01 X141.417163 Y210.584255 Z-0.125000
G03 X141.184957 Y210.913339 Z-0.125000 I-0.144505 J0.144501
G03 X139.278473 Y209.568097 Z-0.125000 I2.943455 J-6.195039
G01 X139.001073 Y209.290700 Z-0.125000
G03 X138.604197 Y208.332560 Z-0.125000 I0.958133 J-0.958140
G03 X139.001073 Y208.168168 Z-0.125000 I0.232485 J0.000000
G01 X139.011073 Y208.178068 Z-0.125000
G02 X139.407946 Y208.013679 Z-0.125000 I0.164391 J-0.164389
G02 X139.011073 Y207.055536 Z-0.125000 I-1.355026 J0.000000
G01 X138.995773 Y207.040276 Z-0.125000
G03 X138.616399 Y206.099637 Z-0.125000 I0.916447 J-0.916440
G03 X139.016373 Y205.938315 Z-0.125000 I0.234285 J0.004375
G01 X139.094273 Y206.016225 Z-0.125000
G02 X139.505417 Y205.866082 Z-0.125000 I0.170663 J-0.170664
G02 X139.182573 Y204.981944 Z-0.125000 I-1.112163 J-0.094905
G01 X139.143673 Y204.943034 Z-0.125000
G03 X139.136380 Y204.374475 Z-0.125000 I0.288023 J-0.288021
G03 X139.690543 Y204.367364 Z-0.125000 I0.280547 J0.266508
G01 X139.690543 Y204.367364 Z-0.125000
G02 X140.476743 Y204.592302 Z-0.125000 I0.595716 J-0.595710
G02 X140.601603 Y204.155894 Z-0.125000 I-0.058692 J-0.252858
G01 X140.339873 Y203.894170 Z-0.125000
G03 X140.514800 Y203.507853 Z-0.125000 I0.160218 J-0.160215
G03 X141.540513 Y203.972270 Z-0.125000 I-0.103696 J1.593927
G01 X141.624513 Y204.056320 Z-0.125000
G00 Z3.000000

(End cutting path id: path64542)


(Start cutting path id: path64547)
(Change tool to Default tool)

G00 Z3.000000
G00 X143.361913 Y213.543576

G00 Z4.875000 (Fast pre-penetrate)
G01 Z-0.125000 F400.0(Penetrate)
G01 X143.653853 Y213.835516 Z-0.125000 F800.000000
G02 X144.104475 Y213.724872 Z-0.125000 I0.191801 J-0.191799
G02 X143.921813 Y212.980942 Z-0.125000 I-0.705408 J-0.221187
G01 X143.782863 Y212.841994 Z-0.125000
G03 X143.385987 Y211.883854 Z-0.125000 I0.958133 J-0.958140
G03 X143.782863 Y211.719462 Z-0.125000 I0.232485 J0.000000
G01 X143.792863 Y211.729362 Z-0.125000
G02 X144.189736 Y211.564973 Z-0.125000 I0.164391 J-0.164389
G02 X143.792863 Y210.606830 Z-0.125000 I-1.355026 J-0.000000
G01 X143.782863 Y210.596930 Z-0.125000
G03 X143.385987 Y209.638790 Z-0.125000 I0.958133 J-0.958140
G03 X143.782863 Y209.474398 Z-0.125000 I0.232485 J0.000000
G01 X144.703353 Y210.394889 Z-0.125000
G02 X146.021349 Y211.151617 Z-0.125000 I2.057623 J-2.057627
G02 X146.226063 Y210.795065 Z-0.125000 I0.054129 J-0.205966
G01 X146.151363 Y210.720375 Z-0.125000
G03 X146.320839 Y210.328589 Z-0.125000 I0.162328 J-0.162330
G03 X147.309983 Y210.756465 Z-0.125000 I-0.045558 J1.462586
G01 X147.316983 Y210.763765 Z-0.125000
G02 X148.013089 Y210.898599 Z-0.125000 I0.447863 J-0.447872
G02 X148.104163 Y210.428413 Z-0.125000 I-0.113257 J-0.265851
G01 X148.104163 Y210.428413 Z-0.125000
G03 X148.047870 Y209.810887 Z-0.125000 I0.342558 J-0.342556
G03 X148.562263 Y209.763979 Z-0.125000 I0.276733 J0.190781
G01 X148.600463 Y209.802189 Z-0.125000
G02 X149.052908 Y209.693368 Z-0.125000 I0.192911 J-0.192911
G02 X148.875163 Y208.954359 Z-0.125000 I-0.692409 J-0.224343
G01 X148.806463 Y208.885659 Z-0.125000
G03 X148.409588 Y207.927518 Z-0.125000 I0.958139 J-0.958141
G03 X148.806463 Y207.763127 Z-0.125000 I0.232484 J0.000000
G01 X148.836563 Y207.793267 Z-0.125000
G02 X149.233439 Y207.628875 Z-0.125000 I0.164391 J-0.164392
G02 X148.836563 Y206.670735 Z-0.125000 I-1.355009 J-0.000000
G01 X148.826563 Y206.660735 Z-0.125000
G03 X148.429690 Y205.702592 Z-0.125000 I0.958153 J-0.958143
G03 X148.826563 Y205.538203 Z-0.125000 I0.232482 J0.000000
G01 X148.836563 Y205.548203 Z-0.125000
G02 X149.233439 Y205.383811 Z-0.125000 I0.164391 J-0.164392
G02 X148.836563 Y204.425671 Z-0.125000 I-1.355009 J-0.000000
G01 X148.405623 Y203.994734 Z-0.125000
G00 Z3.000000

(Change tool to Default tool)

G00 Z3.000000
G00 X144.350493 Y208.919856

G00 Z4.875000 (Fast pre-penetrate)
G01 Z-0.125000 F400.0(Penetrate)
G01 X143.782493 Y208.351858 Z-0.125000 F800.000000
G03 X143.385617 Y207.393718 Z-0.125000 I0.958133 J-0.958140
G03 X143.782493 Y207.229326 Z-0.125000 I0.232485 J0.000000
G01 X143.792693 Y207.239506 Z-0.125000
G02 X144.189536 Y207.075078 Z-0.125000 I0.164377 J-0.164379
G02 X143.792453 Y206.116729 Z-0.125000 I-1.355715 J0.000290
G01 X143.782453 Y206.106829 Z-0.125000
G03 X143.385577 Y205.148689 Z-0.125000 I0.958133 J-0.958140
G03 X143.782453 Y204.984297 Z-0.125000 I0.232485 J0.000000
G01 X144.030653 Y205.232499 Z-0.125000
G02 X144.427527 Y205.068109 Z-0.125000 I0.164391 J-0.164390
G02 X144.030653 Y204.109967 Z-0.125000 I-1.355020 J-0.000000
G01 X143.847973 Y203.927281 Z-0.125000
G00 Z3.000000

(End cutting path id: path64547)


(Start cutting path id: path64557)
(Change tool to Default tool)

G00 Z3.000000
G00 X155.206853 Y209.518360

G00 Z4.875000 (Fast pre-penetrate)
G01 Z-0.125000 F400.0(Penetrate)
G01 X156.220803 Y210.532311 Z-0.125000 F800.000000
G02 X157.365167 Y211.115415 Z-0.125000 I1.469517 J-1.469501
G02 X157.554623 Y210.743601 Z-0.125000 I0.034325 J-0.216685
G01 X155.344143 Y208.533122 Z-0.125000
G03 X154.935961 Y207.563678 Z-0.125000 I0.985654 J-0.985662
G03 X155.330943 Y207.397367 Z-0.125000 I0.231371 J-0.002692
G01 X155.427143 Y207.493587 Z-0.125000
G02 X155.828452 Y207.333619 Z-0.125000 I0.166263 J-0.166263
G02 X155.456443 Y206.400326 Z-0.125000 I-1.271313 J-0.034044
G01 X155.395743 Y206.339686 Z-0.125000
G03 X155.265101 Y205.647797 Z-0.125000 I0.441677 J-0.441676
G03 X155.737233 Y205.558640 Z-0.125000 I0.266485 J0.116505
G01 X155.774733 Y205.596160 Z-0.125000
G02 X156.272807 Y205.532970 Z-0.125000 I0.224556 J-0.224556
G02 X156.191253 Y204.890149 Z-0.125000 I-0.455593 J-0.268783
G01 X156.183253 Y204.881749 Z-0.125000
G03 X156.225203 Y204.362432 Z-0.125000 I0.241818 J-0.241819
G03 X156.835793 Y204.411755 Z-0.125000 I0.276300 J0.383614
G01 X156.835793 Y204.411755 Z-0.125000
G02 X157.654661 Y204.669357 Z-0.125000 I0.656467 J-0.656468
G02 X157.788973 Y204.242405 Z-0.125000 I-0.044149 J-0.248491
G01 X157.727073 Y204.180535 Z-0.125000
G03 X157.883179 Y203.775374 Z-0.125000 I0.167946 J-0.167945
G03 X158.796243 Y204.127175 Z-0.125000 I0.060128 J1.204726
G01 X160.923263 Y206.254194 Z-0.125000
G03 X161.359567 Y207.251762 Z-0.125000 I-1.056120 J1.056109
G03 X160.969063 Y207.422564 Z-0.125000 I-0.228682 J0.008970
G01 X160.830293 Y207.283791 Z-0.125000
G02 X160.437323 Y207.452102 Z-0.125000 I-0.162801 J0.162800
G02 X160.857793 Y208.433874 Z-0.125000 I1.436757 J-0.034405
G01 X160.921093 Y208.497164 Z-0.125000
G03 X161.067939 Y209.205273 Z-0.125000 I-0.465902 J0.465899
G03 X160.603073 Y209.301679 Z-0.125000 I-0.264078 J-0.104386
G01 X160.560673 Y209.259289 Z-0.125000
G02 X160.071252 Y209.331130 Z-0.125000 I-0.217986 J0.217983
G02 X160.167813 Y209.988958 Z-0.125000 I0.490373 J0.264021
G01 X160.173813 Y209.995258 Z-0.125000
G03 X160.143722 Y210.526437 Z-0.125000 I-0.252159 J0.252157
G03 X159.548753 Y210.492732 Z-0.125000 I-0.278608 J-0.350063
G01 X159.548753 Y210.492732 Z-0.125000
G02 X158.790052 Y210.295296 Z-0.125000 I-0.547519 J0.547514
G02 X158.674153 Y210.740668 Z-0.125000 I0.072772 J0.256703
G01 X159.010863 Y211.077372 Z-0.125000
G00 Z3.000000

(Change tool to Default tool)

G00 Z3.000000
G00 X160.054773 Y204.263561

G00 Z4.875000 (Fast pre-penetrate)
G01 Z-0.125000 F400.0(Penetrate)
G01 X160.924413 Y205.133197 Z-0.125000 F800.000000
G00 Z3.000000

(End cutting path id: path64557)


(Start cutting path id: path64175)
(Change tool to Default tool)

G00 Z3.000000
G00 X161.529543 Y207.487229

G00 Z4.875000 (Fast pre-penetrate)
G01 Z-0.125000 F400.0(Penetrate)
G02 X161.262376 Y205.786827 Z-0.125000 I-5.544735 J-0.000000 F800.000000
G02 X160.621613 Y204.669270 Z-0.125000 I-2.956106 J0.952440
G02 X159.586653 Y203.945661 Z-0.125000 I-2.078080 J1.870283
G02 X158.113023 Y203.660454 Z-0.125000 I-1.473630 J3.664428
G02 X157.158981 Y203.784433 Z-0.125000 I0.000000 J3.732742
G02 X156.357683 Y204.124510 Z-0.125000 I0.781043 J2.954374
G02 X155.691057 Y204.679442 Z-0.125000 I1.503359 J2.483812
G02 X155.174003 Y205.456147 Z-0.125000 I2.511129 J2.232120
G02 X154.872549 Y206.350049 Z-0.125000 I3.471508 J1.668489
G02 X154.757023 Y207.487229 Z-0.125000 I5.539127 J1.137180
G02 X155.023490 Y209.187451 Z-0.125000 I5.557450 J-0.000000
G02 X155.658233 Y210.291738 Z-0.125000 I2.898218 J-0.931323
G02 X156.687338 Y211.014804 Z-0.125000 I2.064234 J-1.844053
G02 X158.160093 Y211.300553 Z-0.125000 I1.472755 J-3.652431
G02 X159.578247 Y211.015346 Z-0.125000 I0.000000 J-3.668393
G02 X160.614883 Y210.271561 Z-0.125000 I-1.103229 J-2.631892
G02 X161.264725 Y209.141885 Z-0.125000 I-2.396827 J-2.130514
G02 X161.529543 Y207.487229 Z-0.125000 I-5.036967 J-1.654656
G01 X161.529543 Y207.487229 Z-0.125000
G00 Z3.000000

(Change tool to Default tool)

G00 Z3.000000
G00 X155.913803 Y207.487229

G00 Z4.875000 (Fast pre-penetrate)
G01 Z-0.125000 F400.0(Penetrate)
G03 X156.088460 Y206.133948 Z-0.125000 I5.330075 J-0.000000 F800.000000
G03 X156.478733 Y205.335089 Z-0.125000 I2.188815 J0.574557
G03 X157.147979 Y204.806184 Z-0.125000 I1.371064 J1.046999
G03 X158.139923 Y204.595290 Z-0.125000 I0.991944 J2.227372
G03 X159.133163 Y204.804704 Z-0.125000 I0.000000 J2.460145
G03 X159.801103 Y205.328363 Z-0.125000 I-0.694397 J1.573539
G03 X160.195921 Y206.128526 Z-0.125000 I-1.781180 J1.376360
G03 X160.372763 Y207.487229 Z-0.125000 I-5.131122 J1.358703
G03 X160.195664 Y208.831513 Z-0.125000 I-5.190511 J-0.000000
G03 X159.801103 Y209.619194 Z-0.125000 I-2.116444 J-0.567498
G03 X159.132594 Y210.141697 Z-0.125000 I-1.354016 J-1.043467
G03 X158.126473 Y210.352267 Z-0.125000 I-1.006121 J-2.298381
G03 X157.131626 Y210.145275 Z-0.125000 I0.000000 J-2.494213
G03 X156.472013 Y209.632645 Z-0.125000 I0.672385 J-1.545859
G03 X156.088594 Y208.853177 Z-0.125000 I1.705545 J-1.322989
G03 X155.913803 Y207.487229 Z-0.125000 I5.249866 J-1.365948
G01 X155.913803 Y207.487229 Z-0.125000
G00 Z3.000000

(End cutting path id: path64175)


(Start cutting path id: path64562)
(Change tool to Default tool)

G00 Z3.000000
G00 X162.713323 Y210.457740

G00 Z4.875000 (Fast pre-penetrate)
G01 Z-0.125000 F400.0(Penetrate)
G01 X163.001323 Y210.745746 Z-0.125000 F800.000000
G02 X163.488189 Y210.671343 Z-0.125000 I0.216094 J-0.216095
G02 X163.386943 Y210.008832 Z-0.125000 I-0.501385 J-0.262370
G01 X163.343643 Y209.965522 Z-0.125000
G03 X163.190360 Y209.250970 Z-0.125000 I0.475779 J-0.475779
G03 X163.652493 Y209.151835 Z-0.125000 I0.263124 J0.099874
G01 X163.657493 Y209.156735 Z-0.125000
G02 X164.116751 Y209.054728 Z-0.125000 I0.197165 J-0.197165
G02 X163.956493 Y208.333207 Z-0.125000 I-0.646905 J-0.234873
G01 X163.951493 Y208.328307 Z-0.125000
G03 X163.798209 Y207.613756 Z-0.125000 I0.475778 J-0.475779
G03 X164.260343 Y207.514620 Z-0.125000 I0.263125 J0.099874
G01 X164.265343 Y207.519520 Z-0.125000
G02 X164.724600 Y207.417518 Z-0.125000 I0.197166 J-0.197162
G02 X164.564343 Y206.695992 Z-0.125000 I-0.646902 J-0.234878
G01 X164.555343 Y206.687192 Z-0.125000
G03 X164.402058 Y205.972633 Z-0.125000 I0.475777 J-0.475783
G03 X164.864183 Y205.873505 Z-0.125000 I0.263117 J0.099873
G01 X164.880583 Y205.889935 Z-0.125000
G02 X165.333380 Y205.781467 Z-0.125000 I0.193127 J-0.193126
G02 X165.156573 Y205.043392 Z-0.125000 I-0.689947 J-0.224936
G01 X165.156573 Y205.043392 Z-0.125000
G03 X165.003290 Y204.328840 Z-0.125000 I0.475781 J-0.475779
G03 X165.465423 Y204.229705 Z-0.125000 I0.263124 J0.099874
G01 X166.597293 Y205.361584 Z-0.125000
G03 X167.624854 Y206.950412 Z-0.125000 I-3.189380 J3.189403
G03 X167.284023 Y207.170840 Z-0.125000 I-0.194059 J0.073657
G01 X166.791083 Y206.677904 Z-0.125000
G02 X166.447659 Y206.895722 Z-0.125000 I-0.147339 J0.147337
G02 X167.420903 Y208.430249 Z-0.125000 I3.915356 J-1.407345
G01 X167.970743 Y208.980097 Z-0.125000
G03 X168.830563 Y210.401176 Z-0.125000 I-2.457603 J2.457620
G03 X168.480873 Y210.612755 Z-0.125000 I-0.200877 J0.062765
G01 X167.640403 Y209.772283 Z-0.125000
G00 Z3.000000

(End cutting path id: path64562)


(Start cutting path id: path64567)
(Change tool to Default tool)

G00 Z3.000000
G00 X170.495253 Y209.609555

G00 Z4.875000 (Fast pre-penetrate)
G01 Z-0.125000 F400.0(Penetrate)
G01 X171.384073 Y210.498384 Z-0.125000 F800.000000
G02 X171.752371 Y210.305410 Z-0.125000 I0.154009 J-0.154010
G02 X171.134603 Y209.126377 Z-0.125000 I-2.196104 J0.399314
G01 X170.573143 Y208.564917 Z-0.125000
G03 X170.152007 Y207.582511 Z-0.125000 I1.017747 J-1.017755
G03 X170.544843 Y207.414119 Z-0.125000 I0.230086 J-0.005652
G01 X170.863433 Y207.732708 Z-0.125000
G02 X171.821572 Y208.129582 Z-0.125000 I0.958139 J-0.958139
G02 X171.985963 Y207.732708 Z-0.125000 I0.000000 J-0.232484
G01 X171.985963 Y207.732708 Z-0.125000
G03 X172.150355 Y207.335830 Z-0.125000 I0.164392 J-0.164392
G03 X173.108503 Y207.732708 Z-0.125000 I0.000000 J1.355026
G01 X173.108503 Y207.732708 Z-0.125000
G02 X174.066642 Y208.129582 Z-0.125000 I0.958139 J-0.958139
G02 X174.231033 Y207.732708 Z-0.125000 I0.000000 J-0.232484
G01 X174.231033 Y207.732708 Z-0.125000
G03 X174.395424 Y207.335834 Z-0.125000 I0.164391 J-0.164391
G03 X175.353563 Y207.732708 Z-0.125000 I-0.000000 J1.355014
G01 X175.689013 Y208.068154 Z-0.125000
G03 X175.923419 Y208.863828 Z-0.125000 I-0.612936 J0.612936
G03 X175.489873 Y208.991551 Z-0.125000 I-0.251570 J-0.054254
G01 X175.414473 Y208.916191 Z-0.125000
G02 X174.971830 Y209.034819 Z-0.125000 I-0.187080 J0.187082
G02 X175.177313 Y209.801566 Z-0.125000 I0.766837 J0.205400
G01 X175.206013 Y209.830306 Z-0.125000
G03 X175.208380 Y210.393941 Z-0.125000 I-0.283013 J0.283011
G03 X174.649463 Y210.396288 Z-0.125000 I-0.280622 J-0.275946
G01 X174.649463 Y210.396288 Z-0.125000
G02 X173.951271 Y210.259360 Z-0.125000 I-0.450965 J0.450963
G02 X173.859243 Y210.728602 Z-0.125000 I0.111671 J0.265546
G01 X173.880643 Y210.749992 Z-0.125000
G03 X173.739321 Y211.169942 Z-0.125000 I-0.174899 J0.174897
G03 X172.893383 Y210.885265 Z-0.125000 I-0.136246 J-0.994355
G01 X172.151813 Y210.143697 Z-0.125000
G00 Z3.000000

(Change tool to Default tool)

G00 Z3.000000
G00 X171.039243 Y206.786067

G00 Z4.875000 (Fast pre-penetrate)
G01 Z-0.125000 F400.0(Penetrate)
G01 X170.608423 Y206.355244 Z-0.125000 F800.000000
G03 X170.476430 Y205.662010 Z-0.125000 I0.443651 J-0.443655
G03 X170.947933 Y205.572226 Z-0.125000 I0.266284 J0.115451
G01 X170.979733 Y205.604066 Z-0.125000
G02 X171.485496 Y205.548565 Z-0.125000 I0.230619 J-0.230619
G02 X171.416313 Y204.918119 Z-0.125000 I-0.427525 J-0.272104
G01 X171.415943 Y204.917746 Z-0.125000
G03 X171.459867 Y204.400406 Z-0.125000 I0.240147 J-0.240145
G03 X172.073203 Y204.452481 Z-0.125000 I0.275799 J0.389609
G01 X172.073203 Y204.452481 Z-0.125000
G02 X172.849606 Y204.667608 Z-0.125000 I0.578223 J-0.578236
G02 X172.971383 Y204.228120 Z-0.125000 I-0.063501 J-0.254211
G01 X172.938283 Y204.195060 Z-0.125000
G03 X173.089875 Y203.785382 Z-0.125000 I0.169988 J-0.169986
G03 X173.980803 Y204.115050 Z-0.125000 I0.087001 J1.133583
G01 X174.050103 Y204.184330 Z-0.125000
G02 X175.185770 Y204.758726 Z-0.125000 I1.442875 J-1.442889
G02 X175.374293 Y204.385988 Z-0.125000 I0.033093 J-0.217307
G01 X174.862343 Y203.874035 Z-0.125000
G00 Z3.000000

(End cutting path id: path64567)


(Start cutting path id: path64179)
(Change tool to Default tool)

G00 Z3.000000
G00 X173.500823 Y203.660454

G00 Z4.875000 (Fast pre-penetrate)
G01 Z-0.125000 F400.0(Penetrate)
G02 X171.987197 Y203.942047 Z-0.125000 I0.000000 J4.208840 F800.000000
G02 X170.918253 Y204.655819 Z-0.125000 I1.054980 J2.737247
G02 X170.251558 Y205.760591 Z-0.125000 I2.200300 J2.081362
G02 X169.976693 Y207.419975 Z-0.125000 I4.871487 J1.659384
G02 X170.231669 Y209.109902 Z-0.125000 I5.727721 J0.000000
G02 X170.851003 Y210.251385 Z-0.125000 I3.160058 J-0.975793
G02 X171.865206 Y211.014822 Z-0.125000 I2.159456 J-1.813385
G02 X173.211633 Y211.300553 Z-0.125000 I1.346427 J-3.029463
G02 X174.482264 Y211.046139 Z-0.125000 I0.000000 J-3.300189
G02 X175.404123 Y210.385894 Z-0.125000 I-0.972893 J-2.332081
G02 X175.981254 Y209.390544 Z-0.125000 I-2.151675 J-1.912593
G02 X176.211173 Y207.984912 Z-0.125000 I-4.181770 J-1.405632
G01 X176.211173 Y207.278741 Z-0.125000
G01 X171.133473 Y207.278741 Z-0.125000
G03 X171.347276 Y206.053717 Z-0.125000 I4.246197 J0.109916
G03 X171.785833 Y205.308187 Z-0.125000 I1.950873 J0.645844
G03 X172.495572 Y204.829093 Z-0.125000 I1.387810 J1.290672
G03 X173.541173 Y204.635643 Z-0.125000 I1.045601 J2.729019
G03 X174.706615 Y204.757500 Z-0.125000 I0.000000 J5.634093
G03 X175.895083 Y205.133326 Z-0.125000 I-1.318726 J6.237228
G01 X175.895083 Y204.137961 Z-0.125000
G02 X175.294084 Y203.911615 Z-0.125000 I-2.684068 J6.215742
G02 X174.771933 Y203.774787 Z-0.125000 I-1.471591 J4.551035
G02 X174.243761 Y203.693799 Z-0.125000 I-0.911717 J4.183117
G02 X173.500823 Y203.660454 Z-0.125000 I-0.742938 J8.259700
G01 X173.500823 Y203.660454 Z-0.125000
G00 Z3.000000

(Change tool to Default tool)

G00 Z3.000000
G00 X173.198183 Y210.365717

G00 Z4.875000 (Fast pre-penetrate)
G01 Z-0.125000 F400.0(Penetrate)
G03 X172.380786 Y210.205536 Z-0.125000 I-0.000000 J-2.165660 F800.000000
G03 X171.779113 Y209.787330 Z-0.125000 I0.632558 J-1.551979
G03 X171.386505 Y209.150915 Z-0.125000 I1.514522 J-1.373625
G03 X171.160373 Y208.186675 Z-0.125000 I3.345506 J-1.293220
G01 X175.014053 Y208.186675 Z-0.125000
G03 X174.870694 Y209.190188 Z-0.125000 I-3.583980 J0.000000
G03 X174.543273 Y209.800781 Z-0.125000 I-1.607255 J-0.468782
G03 X173.997094 Y210.204756 Z-0.125000 I-1.101315 J-0.917782
G03 X173.198183 Y210.365717 Z-0.125000 I-0.798911 J-1.902175
G01 X173.198183 Y210.365717 Z-0.125000
G00 Z3.000000

(End cutting path id: path64179)


(Start cutting path id: path64177)
(Change tool to Default tool)

G00 Z3.000000
G00 X165.100753 Y203.794963

G00 Z4.875000 (Fast pre-penetrate)
G01 Z-0.125000 F400.0(Penetrate)
G01 X162.302973 Y211.166045 Z-0.125000 F800.000000
G01 X163.500103 Y211.166045 Z-0.125000
G01 X165.087303 Y206.794509 Z-0.125000
G02 X165.601843 Y205.254602 Z-0.125000 I-51.139724 J-17.943593
G02 X165.719493 Y204.803779 Z-0.125000 I-4.253776 J-1.350859
G01 X165.773293 Y204.803779 Z-0.125000
G02 X165.864922 Y205.155340 Z-0.125000 I3.539952 J-0.734908
G02 X166.237353 Y206.276650 Z-0.125000 I36.472133 J-11.491338
G02 X166.638362 Y207.398289 Z-0.125000 I149.585708 J-52.847493
G02 X168.006143 Y211.166045 Z-0.125000 I1689.303474 J-611.123267
G01 X169.203273 Y211.166045 Z-0.125000
G01 X166.405493 Y203.794963 Z-0.125000
G01 X165.100753 Y203.794963 Z-0.125000
G00 Z3.000000

(End cutting path id: path64177)


(Start cutting path id: path64198)
(Change tool to Default tool)

G00 Z3.000000
G00 X162.446993 Y185.962904

G00 Z4.875000 (Fast pre-penetrate)
G01 Z-0.125000 F400.0(Penetrate)
G02 X162.754624 Y185.948845 Z-0.125000 I0.000000 J-3.372809 F800.000000
G02 X163.001633 Y185.912104 Z-0.125000 I-0.202299 J-2.208719
G01 X162.904233 Y185.260094 Z-0.125000
G03 X162.614840 Y185.309982 Z-0.125000 I-0.682231 J-3.093245
G03 X162.396163 Y185.323594 Z-0.125000 I-0.218677 J-1.749654
G03 X161.885036 Y185.208658 Z-0.125000 I-0.000000 J-1.193974
G03 X161.430843 Y184.866334 Z-0.125000 I0.602409 J-1.271744
G03 X161.141617 Y184.368370 Z-0.125000 I1.149926 J-1.000873
G03 X161.032853 Y183.727424 Z-0.125000 I1.834167 J-0.640946
G01 X161.032853 Y181.237894 Z-0.125000
G01 X160.330033 Y181.237894 Z-0.125000
G01 X160.330033 Y185.878234 Z-0.125000
G01 X160.910073 Y185.878234 Z-0.125000
G01 X160.990473 Y185.018754 Z-0.125000
G01 X161.024373 Y185.018754 Z-0.125000
G02 X161.322958 Y185.434393 Z-0.125000 I2.124827 J-1.211352
G02 X161.646753 Y185.717354 Z-0.125000 I1.289344 J-1.148672
G02 X162.029990 Y185.900375 Z-0.125000 I0.806285 J-1.195572
G02 X162.446963 Y185.962914 Z-0.125000 I0.416973 J-1.358795
G01 X162.446993 Y185.962904 Z-0.125000
G00 Z3.000000

(End cutting path id: path64198)


(Start cutting path id: path64471)
(Change tool to Default tool)

G00 Z3.000000
G00 X160.815763 Y185.465984

G00 Z4.875000 (Fast pre-penetrate)
G01 Z-0.125000 F400.0(Penetrate)
G01 X160.639043 Y185.289264 Z-0.125000 F800.000000
G03 X160.242177 Y184.331116 Z-0.125000 I0.958188 J-0.958148
G03 X160.639043 Y184.166734 Z-0.125000 I0.232477 J-0.000000
G01 X162.291413 Y185.819104 Z-0.125000
G00 Z3.000000

(Change tool to Default tool)

G00 Z3.000000
G00 X160.462323 Y182.867484

G00 Z4.875000 (Fast pre-penetrate)
G01 Z-0.125000 F400.0(Penetrate)
G01 X160.681443 Y183.086594 Z-0.125000 F800.000000
G02 X161.078317 Y182.922203 Z-0.125000 I0.164391 J-0.164391
G02 X160.681443 Y181.964064 Z-0.125000 I-1.355014 J0.000000
G01 X160.462323 Y181.744944 Z-0.125000
G00 Z3.000000

(End cutting path id: path64471)


(Start cutting path id: path64196)
(Change tool to Default tool)

G00 Z3.000000
G00 X159.377423 Y185.878224

G00 Z4.875000 (Fast pre-penetrate)
G01 Z-0.125000 F400.0(Penetrate)
G01 X159.377423 Y185.433664 Z-0.125000 F800.000000
G01 X158.517943 Y185.332054 Z-0.125000
G02 X158.621925 Y185.175503 Z-0.125000 I-0.830495 J-0.664430
G02 X158.729643 Y184.942534 Z-0.125000 I-1.742926 J-0.947262
G02 X158.797324 Y184.700632 Z-0.125000 I-1.155273 J-0.453650
G02 X158.822743 Y184.404834 Z-0.125000 I-1.708385 J-0.295798
G02 X158.694908 Y183.781280 Z-0.125000 I-1.584708 J-0.000000
G02 X158.357023 Y183.316724 Z-0.125000 I-1.186535 J0.507847
G02 X157.846607 Y183.029437 Z-0.125000 I-0.946483 J1.084526
G02 X157.078383 Y182.910274 Z-0.125000 I-0.768224 J2.416736
G02 X156.871751 Y182.919249 Z-0.125000 I-0.000000 J2.383226
G02 X156.688863 Y182.944174 Z-0.125000 I0.164570 J1.890950
G03 X156.340122 Y182.646777 Z-0.125000 I0.490392 J-0.928229
G03 X156.240073 Y182.347194 Z-0.125000 I0.398506 J-0.299583
G03 X156.282905 Y182.181038 Z-0.125000 I0.343697 J0.000000
G03 X156.396733 Y182.063524 Z-0.125000 I0.273518 J0.151053
G03 X156.561467 Y182.005248 Z-0.125000 I0.246052 J0.433567
G03 X156.934433 Y181.974624 Z-0.125000 I0.372966 J2.255835
G01 X157.755803 Y181.974624 Z-0.125000
G02 X158.475736 Y181.877531 Z-0.125000 I0.000000 J-2.717657
G02 X158.911653 Y181.657084 Z-0.125000 I-0.325528 J-1.184928
G02 X159.202565 Y181.283185 Z-0.125000 I-0.597875 J-0.765297
G02 X159.318113 Y180.734094 Z-0.125000 I-1.246876 J-0.549091
G02 X159.150024 Y180.054691 Z-0.125000 I-1.457091 J0.000000
G02 X158.699963 Y179.561304 Z-0.125000 I-1.173597 J0.618575
G02 X158.043600 Y179.282523 Z-0.125000 I-1.094191 J1.664102
G02 X156.896323 Y179.154854 Z-0.125000 I-1.147277 J5.091095
G02 X156.018290 Y179.259148 Z-0.125000 I-0.000000 J3.748140
G02 X155.490673 Y179.493564 Z-0.125000 I0.374351 J1.553562
G02 X155.132099 Y179.901879 Z-0.125000 I0.632372 J0.916940
G02 X154.999543 Y180.450424 Z-0.125000 I1.068721 J0.548545
G02 X155.070563 Y180.847090 Z-0.125000 I1.143248 J-0.000000
G02 X155.270513 Y181.182884 Z-0.125000 I1.008512 J-0.373094
G02 X155.578191 Y181.430131 Z-0.125000 I0.856811 J-0.751165
G02 X156.032613 Y181.602044 Z-0.125000 I0.832011 J-1.512730
G02 X155.871445 Y181.702863 Z-0.125000 I0.292328 J0.646539
G02 X155.732013 Y181.851844 Z-0.125000 I0.522474 J0.628726
G02 X155.645045 Y182.031150 Z-0.125000 I0.515077 J0.360569
G02 X155.613463 Y182.245594 Z-0.125000 I0.712252 J0.214444
G02 X155.649593 Y182.488088 Z-0.125000 I0.831843 J0.000000
G02 X155.748943 Y182.690154 Z-0.125000 I0.671175 J-0.204541
G02 X155.903692 Y182.859988 Z-0.125000 I0.777023 J-0.552587
G02 X156.176563 Y183.058494 Z-0.125000 I1.342156 J-1.558160
G02 X155.856498 Y183.254432 Z-0.125000 I0.452052 J1.097809
G02 X155.588053 Y183.562334 Z-0.125000 I0.914839 J1.068577
G02 X155.423280 Y183.935209 Z-0.125000 I1.178773 J0.743743
G02 X155.363663 Y184.375234 Z-0.125000 I1.594081 J0.440025
G02 X155.495888 Y185.078365 Z-0.125000 I1.935630 J0.000000
G02 X155.820923 Y185.548024 Z-0.125000 I1.149339 J-0.448117
G02 X156.325868 Y185.839431 Z-0.125000 I0.924602 J-1.018951
G02 X157.116493 Y185.962944 Z-0.125000 I0.790625 J-2.468691
G02 X157.477309 Y185.939755 Z-0.125000 I-0.000000 J-2.818769
G02 X157.772743 Y185.878244 Z-0.125000 I-0.251347 J-1.947421
G01 X159.377423 Y185.878224 Z-0.125000
G00 Z3.000000

(Change tool to Default tool)

G00 Z3.000000
G00 X155.677013 Y180.458854

G00 Z4.875000 (Fast pre-penetrate)
G01 Z-0.125000 F400.0(Penetrate)
G03 X155.762287 Y180.129768 Z-0.125000 I0.677637 J0.000000 F800.000000
G03 X155.994553 Y179.887274 Z-0.125000 I0.577916 J0.321060
G03 X156.329277 Y179.753397 Z-0.125000 I0.558029 J0.909820
G03 X156.904833 Y179.692514 Z-0.125000 I0.575556 J2.690067
G03 X157.764661 Y179.779276 Z-0.125000 I-0.000000 J4.303930
G03 X158.213103 Y179.959254 Z-0.125000 I-0.268820 J1.318470
G03 X158.532406 Y180.282366 Z-0.125000 I-0.498282 J0.811734
G03 X158.640733 Y180.674784 Z-0.125000 I-0.656612 J0.392418
G03 X158.569228 Y181.012342 Z-0.125000 I-0.832521 J-0.000000
G03 X158.407863 Y181.199784 Z-0.125000 I-0.391018 J-0.173441
G03 X158.160424 Y181.292424 Z-0.125000 I-0.357693 J-0.578621
G03 X157.531453 Y181.343734 Z-0.125000 I-0.628971 J-3.829360
G01 X156.688903 Y181.343734 Z-0.125000
G03 X156.235628 Y181.275761 Z-0.125000 I-0.000000 J-1.545307
G03 X155.943743 Y181.115104 Z-0.125000 I0.239514 J-0.780633
G03 X155.753701 Y180.851203 Z-0.125000 I0.448755 J-0.523537
G03 X155.677013 Y180.458854 Z-0.125000 I0.965317 J-0.392349
G01 X155.677013 Y180.458854 Z-0.125000
G00 Z3.000000

(Change tool to Default tool)

G00 Z3.000000
G00 X156.058063 Y184.392134

G00 Z4.875000 (Fast pre-penetrate)
G01 Z-0.125000 F400.0(Penetrate)
G03 X156.139519 Y183.941305 Z-0.125000 I1.288309 J-0.000000 F800.000000
G03 X156.333263 Y183.655434 Z-0.125000 I0.685755 J0.256169
G03 X156.636853 Y183.479150 Z-0.125000 I0.563365 J0.620649
G03 X157.099593 Y183.405634 Z-0.125000 I0.462740 J1.419583
G03 X157.831510 Y183.702557 Z-0.125000 I-0.000000 J1.050551
G03 X158.128433 Y184.404834 Z-0.125000 I-0.682045 J0.702277
G03 X157.822755 Y185.144926 Z-0.125000 I-1.048776 J-0.000000
G03 X157.086893 Y185.450604 Z-0.125000 I-0.735862 J-0.732886
G03 X156.624100 Y185.371956 Z-0.125000 I-0.000000 J-1.400938
G03 X156.324793 Y185.183874 Z-0.125000 I0.262433 J-0.749822
G03 X156.138649 Y184.883755 Z-0.125000 I0.547195 J-0.547174
G03 X156.058063 Y184.392134 Z-0.125000 I1.459288 J-0.491621
G01 X156.058063 Y184.392134 Z-0.125000
G00 Z3.000000

(End cutting path id: path64196)


(Start cutting path id: path64466)
(Change tool to Default tool)

G00 Z3.000000
G00 X156.556553 Y185.405364

G00 Z4.875000 (Fast pre-penetrate)
G01 Z-0.125000 F400.0(Penetrate)
G01 X156.831153 Y185.679964 Z-0.125000 F800.000000
G02 X157.721923 Y186.009471 Z-0.125000 I0.803587 J-0.803587
G02 X157.873473 Y185.599764 Z-0.125000 I-0.018443 J-0.239705
G01 X157.872693 Y185.598974 Z-0.125000
G03 X157.833781 Y184.998797 Z-0.125000 I0.322242 J-0.322242
G03 X158.360873 Y184.964624 Z-0.125000 I0.278552 J0.214367
G01 X158.360873 Y184.964624 Z-0.125000
G02 X158.789126 Y184.831612 Z-0.125000 I0.179142 J-0.179142
G02 X158.536263 Y184.017484 Z-0.125000 I-0.900278 J-0.166712
G01 X157.737043 Y183.218264 Z-0.125000
G03 X156.946349 Y181.866305 Z-0.125000 I2.185233 J-2.185233
G03 X157.300493 Y181.659184 Z-0.125000 I0.204199 J-0.057177
G01 X157.317693 Y181.676384 Z-0.125000
G02 X158.185117 Y181.982563 Z-0.125000 I0.753814 J-0.753780
G02 X158.331543 Y181.567714 Z-0.125000 I-0.025985 J-0.242438
G01 X158.331543 Y181.567714 Z-0.125000
G03 X158.346215 Y181.021129 Z-0.125000 I0.266340 J-0.266340
G03 X158.922973 Y181.036604 Z-0.125000 I0.280214 J0.312033
G01 X158.926973 Y181.040604 Z-0.125000
G02 X159.328640 Y180.881010 Z-0.125000 I0.166419 J-0.166412
G02 X158.958673 Y179.949724 Z-0.125000 I-1.264834 J-0.036656
G01 X158.753813 Y179.744864 Z-0.125000
G02 X157.526243 Y179.078544 Z-0.125000 I-1.738004 J1.738004
G02 X157.328763 Y179.442354 Z-0.125000 I-0.044831 J0.211168
G01 X157.356263 Y179.469854 Z-0.125000
G03 X157.194450 Y179.869307 Z-0.125000 I-0.165471 J0.165471
G03 X156.251023 Y179.487154 Z-0.125000 I-0.020402 J-1.305235
G01 X156.251023 Y179.487154 Z-0.125000
G02 X155.588411 Y179.385807 Z-0.125000 I-0.400280 J0.400280
G02 X155.513953 Y179.872614 Z-0.125000 I0.141595 J0.270755
G01 X155.529053 Y179.887714 Z-0.125000
G03 X156.624143 Y181.544085 Z-0.125000 I-3.512315 J3.512315
G03 X156.286273 Y181.767464 Z-0.125000 I-0.191719 J0.077228
G01 X155.559733 Y181.040924 Z-0.125000
G02 X155.214262 Y181.256734 Z-0.125000 I-0.147808 J0.147808
G02 X156.148543 Y182.752264 Z-0.125000 I3.703775 J-1.274211
G01 X156.575633 Y183.179364 Z-0.125000
G03 X156.534184 Y183.699175 Z-0.125000 I-0.242230 J0.242243
G03 X155.924283 Y183.650534 Z-0.125000 I-0.276415 J-0.382127
G01 X155.924283 Y183.650534 Z-0.125000
G02 X155.467491 Y183.755024 Z-0.125000 I-0.195601 J0.195612
G02 X155.633953 Y184.482734 Z-0.125000 I0.662884 J0.231261
G01 X156.102183 Y184.950974 Z-0.125000
G00 Z3.000000

(Change tool to Default tool)

G00 Z3.000000
G00 X159.142133 Y185.745854

G00 Z4.875000 (Fast pre-penetrate)
G01 Z-0.125000 F400.0(Penetrate)
G01 X158.907523 Y185.511254 Z-0.125000 F800.000000
G00 Z3.000000

(End cutting path id: path64466)


(Start cutting path id: path64476)
(Change tool to Default tool)

G00 Z3.000000
G00 X165.204413 Y185.425464

G00 Z4.875000 (Fast pre-penetrate)
G01 Z-0.125000 F400.0(Penetrate)
G01 X165.454593 Y185.675644 Z-0.125000 F800.000000
G02 X166.262120 Y185.921857 Z-0.125000 I0.634868 J-0.634868
G02 X166.393233 Y185.491754 Z-0.125000 I-0.048984 J-0.249968
G01 X166.393233 Y185.491754 Z-0.125000
G03 X166.314910 Y184.852176 Z-0.125000 I0.369880 J-0.369880
G03 X166.814953 Y184.790934 Z-0.125000 I0.273961 J0.164851
G01 X166.853653 Y184.829634 Z-0.125000
G02 X167.262005 Y184.676745 Z-0.125000 I0.169382 J-0.169375
G02 X166.926053 Y183.779534 Z-0.125000 I-1.153517 J-0.079580
G01 X166.801973 Y183.655454 Z-0.125000
G02 X165.912238 Y183.327059 Z-0.125000 I-0.801182 J0.801182
G02 X165.760983 Y183.736954 Z-0.125000 I0.018798 J0.239792
G01 X165.760983 Y183.736954 Z-0.125000
G03 X165.574458 Y184.111667 Z-0.125000 I-0.156079 J0.156088
G03 X164.456953 Y183.555454 Z-0.125000 I0.270855 J-1.944896
G01 X163.843503 Y182.941994 Z-0.125000
G03 X163.583414 Y182.120605 Z-0.125000 I0.661215 J-0.661243
G03 X164.009683 Y181.985654 Z-0.125000 I0.248152 J0.043135
G01 X164.038383 Y182.014354 Z-0.125000
G02 X164.621425 Y182.036126 Z-0.125000 I0.303252 J-0.303268
G02 X164.641643 Y181.495074 Z-0.125000 I-0.240940 J-0.279907
G01 X164.641643 Y181.495074 Z-0.125000
G03 X164.797131 Y181.089306 Z-0.125000 I0.168210 J-0.168218
G03 X165.707103 Y181.437974 Z-0.125000 I0.063988 J1.194782
G01 X166.964973 Y182.695844 Z-0.125000
G02 X167.361851 Y182.531452 Z-0.125000 I0.164392 J-0.164392
G02 X166.964973 Y181.573304 Z-0.125000 I-1.355026 J-0.000000
G01 X166.818363 Y181.426704 Z-0.125000
G00 Z3.000000

(End cutting path id: path64476)


(Start cutting path id: path64200)
(Change tool to Default tool)

G00 Z3.000000
G00 X166.723213 Y181.237884

G00 Z4.875000 (Fast pre-penetrate)
G01 Z-0.125000 F400.0(Penetrate)
G01 X166.583493 Y181.898374 Z-0.125000 F800.000000
G01 X166.549593 Y181.898374 Z-0.125000
G02 X166.169308 Y181.504838 Z-0.125000 I-2.235548 J1.779765
G02 X165.855243 Y181.305634 Z-0.125000 I-0.856861 J1.003748
G02 X165.502826 Y181.197827 Z-0.125000 I-0.618217 J1.391009
G02 X164.995763 Y181.153214 Z-0.125000 I-0.507063 J2.859271
G02 X164.345622 Y181.257149 Z-0.125000 I0.000000 J2.085361
G02 X163.911883 Y181.508854 Z-0.125000 I0.377177 J1.149518
G02 X163.635072 Y181.914217 Z-0.125000 I0.720713 J0.789350
G02 X163.522363 Y182.520754 Z-0.125000 I1.575669 J0.606537
G02 X164.020590 Y183.442963 Z-0.125000 I1.102610 J0.000000
G02 X165.770563 Y183.994144 Z-0.125000 I1.851714 J-2.825473
