%
(Header)
(Generated by gcodetools from Inkscape.)
(Using default header. To add your own header create file "header" in the output dir.)
M3
(Header end.)
G21 (All units in mm)

(Start cutting path id: polyline1458)
(Change tool to Default tool)

G00 Z3.000000
G00 X15.783683 Y76.769369

G00 Z4.875000 (Fast pre-penetrate)
G01 Z-0.125000 F400.0(Penetrate)
G01 X20.461563 Y67.382731 Z-0.125000 F800.000000
G01 X23.574303 Y61.491473 Z-0.125000
G01 X26.675851 Y56.167587 Z-0.125000
G01 X29.894503 Y51.223430 Z-0.125000
G01 X33.090110 Y46.890751 Z-0.125000
G01 X36.462220 Y42.908698 Z-0.125000
G01 X40.070048 Y39.196519 Z-0.125000
G01 X44.640428 Y35.001317 Z-0.125000
G00 Z3.000000

(End cutting path id: polyline1458)


(Start cutting path id: polyline1456)
(Change tool to Default tool)

G00 Z3.000000
G00 X15.783683 Y77.695409

G00 Z4.875000 (Fast pre-penetrate)
G01 Z-0.125000 F400.0(Penetrate)
G01 X20.697280 Y67.801989 Z-0.125000 F800.000000
G01 X23.802982 Y61.891178 Z-0.125000
G01 X26.898497 Y56.548877 Z-0.125000
G01 X30.112705 Y51.589481 Z-0.125000
G01 X33.374087 Y47.148402 Z-0.125000
G01 X36.816894 Y43.077105 Z-0.125000
G01 X40.499519 Y39.295235 Z-0.125000
G01 X45.146602 Y35.041375 Z-0.125000
G00 Z3.000000

(End cutting path id: polyline1456)


(Start cutting path id: polyline1454)
(Change tool to Default tool)

G00 Z3.000000
G00 X15.783683 Y78.621450

G00 Z4.875000 (Fast pre-penetrate)
G01 Z-0.125000 F400.0(Penetrate)
G01 X20.994010 Y68.100121 Z-0.125000 F800.000000
G01 X24.031449 Y62.290487 Z-0.125000
G01 X27.120747 Y56.929295 Z-0.125000
G01 X30.398586 Y51.855360 Z-0.125000
G01 X33.728152 Y47.315142 Z-0.125000
G01 X37.171038 Y43.244215 Z-0.125000
G01 X40.854033 Y39.464383 Z-0.125000
G01 X45.652220 Y35.080084 Z-0.125000
G00 Z3.000000

(End cutting path id: polyline1454)


(Start cutting path id: polyline1452)
(Change tool to Default tool)

G00 Z3.000000
G00 X15.783683 Y79.547490

G00 Z4.875000 (Fast pre-penetrate)
G01 Z-0.125000 F400.0(Penetrate)
G01 X21.290528 Y68.397724 Z-0.125000 F800.000000
G01 X24.322755 Y62.573776 Z-0.125000
G01 X27.408243 Y57.201101 Z-0.125000
G01 X30.683992 Y52.120022 Z-0.125000
G01 X34.081688 Y47.480639 Z-0.125000
G01 X37.597467 Y43.330258 Z-0.125000
G01 X41.356953 Y39.489227 Z-0.125000
G01 X46.308015 Y34.984992 Z-0.125000
G00 Z3.000000

(End cutting path id: polyline1452)


(Start cutting path id: polyline1450)
(Change tool to Default tool)

G00 Z3.000000
G00 X15.783683 Y81.399571

G00 Z4.875000 (Fast pre-penetrate)
G01 Z-0.125000 F400.0(Penetrate)
G01 X21.943890 Y68.870137 Z-0.125000 F800.000000
G01 X24.841735 Y63.254813 Z-0.125000
G01 X27.981938 Y57.741591 Z-0.125000
G01 X31.253428 Y52.646066 Z-0.125000
G01 X34.716846 Y47.898098 Z-0.125000
G01 X36.495796 Y45.714653 Z-0.125000
G01 X38.303400 Y43.658923 Z-0.125000
G01 X42.138108 Y39.750529 Z-0.125000
G01 X47.317029 Y35.057753 Z-0.125000
G00 Z3.000000

(End cutting path id: polyline1450)


(Start cutting path id: polyline1448)
(Change tool to Default tool)

G00 Z3.000000
G00 X15.783683 Y83.251652

G00 Z4.875000 (Fast pre-penetrate)
G01 Z-0.125000 F400.0(Penetrate)
G01 X22.657311 Y69.218990 Z-0.125000 F800.000000
G01 X25.360503 Y63.935797 Z-0.125000
G01 X28.489012 Y58.387782 Z-0.125000
G01 X31.753463 Y53.268683 Z-0.125000
G01 X33.534662 Y50.724135 Z-0.125000
G01 X35.350469 Y48.312012 Z-0.125000
G01 X37.128255 Y46.123566 Z-0.125000
G01 X39.007853 Y43.984095 Z-0.125000
G01 X40.914729 Y41.975752 Z-0.125000
G01 X42.992420 Y39.937827 Z-0.125000
G01 X48.475611 Y34.996528 Z-0.125000
G00 Z3.000000

(End cutting path id: polyline1448)


(Start cutting path id: polyline1446)
(Change tool to Default tool)

G00 Z3.000000
G00 X15.783683 Y86.029774

G00 Z4.875000 (Fast pre-penetrate)
G01 Z-0.125000 F400.0(Penetrate)
G01 X23.907889 Y69.372422 Z-0.125000 F800.000000
G01 X26.294745 Y64.664987 Z-0.125000
G01 X29.346552 Y59.192247 Z-0.125000
G01 X32.603489 Y54.048198 Z-0.125000
G01 X34.450384 Y51.395541 Z-0.125000
G01 X36.334162 Y48.883141 Z-0.125000
G01 X38.182565 Y46.605081 Z-0.125000
G01 X40.135558 Y44.388590 Z-0.125000
G01 X42.117920 Y42.313783 Z-0.125000
G01 X44.272419 Y40.217201 Z-0.125000
G01 X50.137166 Y34.972504 Z-0.125000
G00 Z3.000000

(End cutting path id: polyline1446)


(Start cutting path id: polyline1444)
(Change tool to Default tool)

G00 Z3.000000
G00 X15.783683 Y87.881855

G00 Z4.875000 (Fast pre-penetrate)
G01 Z-0.125000 F400.0(Penetrate)
G01 X19.358702 Y80.665168 Z-0.125000 F800.000000
G01 X24.741114 Y69.473836 Z-0.125000
G01 X26.938687 Y65.113429 Z-0.125000
G01 X29.918236 Y59.729297 Z-0.125000
G01 X33.101831 Y54.667533 Z-0.125000
G01 X35.014210 Y51.905816 Z-0.125000
G01 X36.965722 Y49.292503 Z-0.125000
G01 X38.884822 Y46.925120 Z-0.125000
G01 X40.838317 Y44.710931 Z-0.125000
G01 X42.895133 Y42.564607 Z-0.125000
G01 X45.125647 Y40.404949 Z-0.125000
G01 X51.144619 Y35.048519 Z-0.125000
G00 Z3.000000

(End cutting path id: polyline1444)


(Start cutting path id: polyline1442)
(Change tool to Default tool)

G00 Z3.000000
G00 X15.783683 Y90.659976

G00 Z4.875000 (Fast pre-penetrate)
G01 Z-0.125000 F400.0(Penetrate)
G01 X19.733457 Y82.738758 Z-0.125000 F800.000000
G01 X25.631542 Y70.371566 Z-0.125000
G01 X27.937382 Y65.732447 Z-0.125000
G01 X30.841922 Y60.429305 Z-0.125000
G01 X33.951222 Y55.446757 Z-0.125000
G01 X35.998062 Y52.480146 Z-0.125000
G01 X37.948489 Y49.862494 Z-0.125000
G01 X39.938656 Y47.407588 Z-0.125000
G01 X41.966129 Y45.118971 Z-0.125000
G01 X44.099012 Y42.909147 Z-0.125000
G01 X46.406837 Y40.693741 Z-0.125000
G01 X52.809402 Y35.046402 Z-0.125000
G00 Z3.000000

(End cutting path id: polyline1442)


(Start cutting path id: polyline1440)
(Change tool to Default tool)

G00 Z3.000000
G00 X15.783683 Y96.216219

G00 Z4.875000 (Fast pre-penetrate)
G01 Z-0.125000 F400.0(Penetrate)
G01 X21.641683 Y84.582399 Z-0.125000 F800.000000
G01 X28.083009 Y70.835698 Z-0.125000
G01 X30.192238 Y66.525006 Z-0.125000
G01 X32.957580 Y61.415617 Z-0.125000
G01 X35.926942 Y56.620262 Z-0.125000
G01 X38.040908 Y53.550782 Z-0.125000
G01 X40.132754 Y50.754615 Z-0.125000
G01 X42.199094 Y48.233880 Z-0.125000
G01 X44.378544 Y45.815592 Z-0.125000
G01 X46.666948 Y43.496760 Z-0.125000
G01 X49.207263 Y41.117788 Z-0.125000
G01 X56.310840 Y35.012297 Z-0.125000
G00 Z3.000000

(End cutting path id: polyline1440)


(Start cutting path id: polyline1438)
(Change tool to Default tool)

G00 Z3.000000
G00 X15.783683 Y102.698502

G00 Z4.875000 (Fast pre-penetrate)
G01 Z-0.125000 F400.0(Penetrate)
G01 X20.722813 Y93.157401 Z-0.125000 F800.000000
G01 X23.823408 Y86.946421 Z-0.125000
G01 X26.375893 Y81.551733 Z-0.125000
G01 X31.037845 Y71.302449 Z-0.125000
G01 X33.076643 Y67.089017 Z-0.125000
G01 X35.776871 Y62.089563 Z-0.125000
G01 X38.617434 Y57.517833 Z-0.125000
G01 X40.808075 Y54.380646 Z-0.125000
G01 X42.982736 Y51.543443 Z-0.125000
G01 X45.206979 Y48.916610 Z-0.125000
G01 X47.548565 Y46.418629 Z-0.125000
G01 X50.150395 Y43.897100 Z-0.125000
G01 X53.083430 Y41.278549 Z-0.125000
G01 X56.874534 Y38.108712 Z-0.125000
G01 X60.840660 Y34.963402 Z-0.125000
G00 Z3.000000

(End cutting path id: polyline1438)


(Start cutting path id: polyline1436)
(Change tool to Default tool)

G00 Z3.000000
G00 X15.783683 Y103.624543

G00 Z4.875000 (Fast pre-penetrate)
G01 Z-0.125000 F400.0(Penetrate)
G01 X21.034306 Y93.494745 Z-0.125000 F800.000000
G01 X24.196893 Y87.165179 Z-0.125000
G01 X26.806899 Y81.640421 Z-0.125000
G01 X31.403975 Y71.503505 Z-0.125000
G01 X33.500743 Y67.161090 Z-0.125000
G01 X36.136995 Y62.274453 Z-0.125000
G01 X38.976314 Y57.698834 Z-0.125000
G01 X41.167511 Y54.563632 Z-0.125000
G01 X43.414244 Y51.642873 Z-0.125000
G01 X45.641107 Y49.027735 Z-0.125000
G01 X48.058920 Y46.466863 Z-0.125000
G01 X50.663898 Y43.962373 Z-0.125000
G01 X53.750894 Y41.230633 Z-0.125000
G01 X57.546310 Y38.088260 Z-0.125000
G01 X61.517595 Y34.977267 Z-0.125000
G00 Z3.000000

(End cutting path id: polyline1436)


(Start cutting path id: polyline1434)
(Change tool to Default tool)

G00 Z3.000000
G00 X15.783683 Y106.402665

G00 Z4.875000 (Fast pre-penetrate)
G01 Z-0.125000 F400.0(Penetrate)
G01 X22.030858 Y94.388400 Z-0.125000 F800.000000
G01 X25.199239 Y88.074180 Z-0.125000
G01 X27.927355 Y82.297169 Z-0.125000
G01 X32.743295 Y71.613863 Z-0.125000
G01 X34.779076 Y67.392864 Z-0.125000
G01 X37.417047 Y62.511282 Z-0.125000
G01 X40.194984 Y58.057344 Z-0.125000
G01 X42.391737 Y54.942806 Z-0.125000
G01 X44.716839 Y51.964051 Z-0.125000
G01 X47.097478 Y49.226172 Z-0.125000
G01 X49.599454 Y46.642546 Z-0.125000
G01 X52.439356 Y43.988117 Z-0.125000
G01 X55.765058 Y41.134060 Z-0.125000
G01 X59.727453 Y37.964091 Z-0.125000
G01 X63.716016 Y34.971896 Z-0.125000
G00 Z3.000000

(End cutting path id: polyline1434)


(Start cutting path id: polyline1432)
(Change tool to Default tool)

G00 Z3.000000
G00 X15.783683 Y109.180786

G00 Z4.875000 (Fast pre-penetrate)
G01 Z-0.125000 F400.0(Penetrate)
G01 X23.151314 Y95.044857 Z-0.125000 F800.000000
G01 X26.324617 Y88.743654 Z-0.125000
G01 X29.111602 Y82.840040 Z-0.125000
G01 X33.974188 Y72.001133 Z-0.125000
G01 X36.067833 Y67.650992 Z-0.125000
G01 X38.708662 Y62.777637 Z-0.125000
G01 X41.493927 Y58.348121 Z-0.125000
G01 X43.768548 Y55.170850 Z-0.125000
G01 X46.176465 Y52.153386 Z-0.125000
G01 X48.642272 Y49.393018 Z-0.125000
G01 X51.304824 Y46.726842 Z-0.125000
G01 X54.458918 Y43.880670 Z-0.125000
G01 X58.103840 Y40.872731 Z-0.125000
G01 X61.931218 Y37.941760 Z-0.125000
G01 X66.092103 Y34.970626 Z-0.125000
G00 Z3.000000

(End cutting path id: polyline1432)


(Start cutting path id: polyline1430)
(Change tool to Default tool)

G00 Z3.000000
G00 X15.783683 Y110.106827

G00 Z4.875000 (Fast pre-penetrate)
G01 Z-0.125000 F400.0(Penetrate)
G01 X23.586712 Y95.144896 Z-0.125000 F800.000000
G01 X26.700378 Y88.968550 Z-0.125000
G01 X29.488130 Y83.066841 Z-0.125000
G01 X34.406437 Y72.093816 Z-0.125000
G01 X36.500109 Y67.743754 Z-0.125000
G01 X39.142234 Y62.874210 Z-0.125000
G01 X41.930251 Y58.453769 Z-0.125000
G01 X44.207676 Y55.287266 Z-0.125000
G01 X46.690734 Y52.199265 Z-0.125000
G01 X49.161146 Y49.460619 Z-0.125000
G01 X51.902358 Y46.745416 Z-0.125000
G01 X55.136859 Y43.862519 Z-0.125000
G01 X58.787046 Y40.888368 Z-0.125000
G01 X62.773809 Y37.883790 Z-0.125000
G01 X66.941415 Y34.962847 Z-0.125000
G00 Z3.000000

(End cutting path id: polyline1430)


(Start cutting path id: polyline1428)
(Change tool to Default tool)

G00 Z3.000000
G00 X15.783683 Y111.032867

G00 Z4.875000 (Fast pre-penetrate)
G01 Z-0.125000 F400.0(Penetrate)
G01 X24.022321 Y95.245490 Z-0.125000 F800.000000
G01 X27.076482 Y89.194371 Z-0.125000
G01 X29.923713 Y83.167568 Z-0.125000
G01 X34.839983 Y72.189754 Z-0.125000
G01 X36.933866 Y67.840221 Z-0.125000
G01 X39.577553 Y62.975202 Z-0.125000
G01 X42.368401 Y58.564232 Z-0.125000
G01 X44.718850 Y55.317085 Z-0.125000
G01 X47.207121 Y52.251414 Z-0.125000
G01 X49.755664 Y49.458397 Z-0.125000
G01 X52.502221 Y46.771715 Z-0.125000
G01 X55.817313 Y43.853656 Z-0.125000
G01 X59.472819 Y40.914218 Z-0.125000
G01 X63.465376 Y37.950439 Z-0.125000
G01 X67.793795 Y34.970255 Z-0.125000
G00 Z3.000000

(End cutting path id: polyline1428)


(Start cutting path id: polyline1426)
(Change tool to Default tool)

G00 Z3.000000
G00 X15.783683 Y118.441191

G00 Z4.875000 (Fast pre-penetrate)
G01 Z-0.125000 F400.0(Penetrate)
G01 X30.223406 Y90.803565 Z-0.125000 F800.000000
G01 X33.205680 Y84.566894 Z-0.125000
G01 X38.367906 Y73.107064 Z-0.125000
G01 X40.473299 Y68.787085 Z-0.125000
G01 X41.849104 Y66.212242 Z-0.125000
G01 X43.268671 Y63.765776 Z-0.125000
G01 X44.730386 Y61.453664 Z-0.125000
G01 X46.230492 Y59.274929 Z-0.125000
G01 X48.827718 Y55.896389 Z-0.125000
G01 X51.647909 Y52.692289 Z-0.125000
G01 X54.684766 Y49.680382 Z-0.125000
G01 X58.003060 Y46.781981 Z-0.125000
G01 X61.823612 Y43.805290 Z-0.125000
G01 X65.837257 Y40.996159 Z-0.125000
G01 X70.193034 Y38.233992 Z-0.125000
G01 X75.822355 Y34.932526 Z-0.125000
G00 Z3.000000

(End cutting path id: polyline1426)


(Start cutting path id: polyline1424)
(Change tool to Default tool)

G00 Z3.000000
G00 X15.783683 Y119.367232

G00 Z4.875000 (Fast pre-penetrate)
G01 Z-0.125000 F400.0(Penetrate)
G01 X30.665418 Y90.921940 Z-0.125000 F800.000000
G01 X33.650179 Y84.691566 Z-0.125000
G01 X38.818226 Y73.245599 Z-0.125000
G01 X40.926556 Y68.933108 Z-0.125000
G01 X42.304266 Y66.363663 Z-0.125000
G01 X43.725764 Y63.923044 Z-0.125000
G01 X45.189358 Y61.617335 Z-0.125000
G01 X46.760531 Y59.350018 Z-0.125000
G01 X49.434831 Y55.908322 Z-0.125000
G01 X52.335772 Y52.661465 Z-0.125000
G01 X55.380407 Y49.691151 Z-0.125000
G01 X58.857266 Y46.708136 Z-0.125000
G01 X62.685623 Y43.784705 Z-0.125000
G01 X66.706597 Y41.031349 Z-0.125000
G01 X71.069095 Y38.325538 Z-0.125000
G01 X76.860896 Y34.987691 Z-0.125000
G00 Z3.000000

(End cutting path id: polyline1424)


(Start cutting path id: polyline1422)
(Change tool to Default tool)

G00 Z3.000000
G00 X15.783683 Y120.293272

G00 Z4.875000 (Fast pre-penetrate)
G01 Z-0.125000 F400.0(Penetrate)
G01 X31.108463 Y91.043224 Z-0.125000 F800.000000
G01 X34.037423 Y84.947206 Z-0.125000
G01 X39.271139 Y73.390749 Z-0.125000
G01 X41.382750 Y69.086725 Z-0.125000
G01 X42.826262 Y66.409515 Z-0.125000
G01 X44.251703 Y63.981146 Z-0.125000
G01 X45.719106 Y61.688190 Z-0.125000
G01 X47.294010 Y59.434578 Z-0.125000
G01 X49.973998 Y56.016272 Z-0.125000
G01 X52.880310 Y52.794762 Z-0.125000
G01 X56.004612 Y49.781400 Z-0.125000
G01 X59.563015 Y46.770525 Z-0.125000
G01 X63.397405 Y43.889057 Z-0.125000
G01 X67.424331 Y41.181764 Z-0.125000
G01 X71.792385 Y38.523605 Z-0.125000
G01 X78.059457 Y34.967398 Z-0.125000
G00 Z3.000000

(End cutting path id: polyline1422)


(Start cutting path id: polyline1420)
(Change tool to Default tool)

G00 Z3.000000
G00 X15.783683 Y126.775556

G00 Z4.875000 (Fast pre-penetrate)
G01 Z-0.125000 F400.0(Penetrate)
G01 X21.223351 Y116.298757 Z-0.125000 F800.000000
G01 X34.123862 Y92.236944 Z-0.125000
G01 X37.029142 Y86.357962 Z-0.125000
G01 X42.345356 Y75.001504 Z-0.125000
G01 X44.545019 Y70.647077 Z-0.125000
G01 X46.132702 Y67.790956 Z-0.125000
G01 X47.707606 Y65.204419 Z-0.125000
G01 X49.330188 Y62.778114 Z-0.125000
G01 X51.066196 Y60.419885 Z-0.125000
G01 X53.998702 Y56.906408 Z-0.125000
G01 X57.165152 Y53.651535 Z-0.125000
G01 X60.628332 Y50.586605 Z-0.125000
G01 X64.455181 Y47.653623 Z-0.125000
G01 X67.862746 Y45.364478 Z-0.125000
G01 X71.453957 Y43.208867 Z-0.125000
G01 X74.907136 Y41.312495 Z-0.125000
G01 X82.774141 Y37.186746 Z-0.125000
G01 X86.689731 Y34.953004 Z-0.125000
G00 Z3.000000

(End cutting path id: polyline1420)


(Start cutting path id: polyline1418)
(Change tool to Default tool)

G00 Z3.000000
G00 X15.783683 Y131.405758

G00 Z4.875000 (Fast pre-penetrate)
G01 Z-0.125000 F400.0(Penetrate)
G01 X22.425034 Y118.741704 Z-0.125000 F800.000000
G01 X36.426211 Y93.091917 Z-0.125000
G01 X39.246348 Y87.552475 Z-0.125000
G01 X44.478027 Y76.807495 Z-0.125000
G01 X46.766167 Y72.405866 Z-0.125000
G01 X48.496090 Y69.366310 Z-0.125000
G01 X50.216488 Y66.610545 Z-0.125000
G01 X51.988983 Y64.034592 Z-0.125000
G01 X53.808811 Y61.638740 Z-0.125000
G01 X56.760208 Y58.209347 Z-0.125000
G01 X59.866677 Y55.100815 Z-0.125000
G01 X63.266092 Y52.172145 Z-0.125000
G01 X66.799042 Y49.559679 Z-0.125000
G01 X69.906490 Y47.555807 Z-0.125000
G01 X73.351361 Y45.581938 Z-0.125000
G01 X76.656347 Y43.858180 Z-0.125000
G01 X83.912483 Y40.253316 Z-0.125000
G01 X87.056205 Y38.573108 Z-0.125000
G01 X90.022339 Y36.788284 Z-0.125000
G01 X92.651209 Y34.986315 Z-0.125000
G00 Z3.000000

(End cutting path id: polyline1418)


(Start cutting path id: polyline1416)
(Change tool to Default tool)

G00 Z3.000000
G00 X15.783683 Y133.257839

G00 Z4.875000 (Fast pre-penetrate)
G01 Z-0.125000 F400.0(Penetrate)
G01 X23.067177 Y119.469678 Z-0.125000 F800.000000
G01 X37.368629 Y93.496200 Z-0.125000
G01 X40.083568 Y88.244598 Z-0.125000
G01 X45.299954 Y77.739197 Z-0.125000
G01 X47.663924 Y73.257082 Z-0.125000
G01 X49.400117 Y70.236338 Z-0.125000
G01 X51.191053 Y67.389054 Z-0.125000
G01 X53.036017 Y64.729678 Z-0.125000
G01 X54.930325 Y62.259690 Z-0.125000
G01 X57.814227 Y58.934146 Z-0.125000
G01 X60.922813 Y55.836699 Z-0.125000
G01 X64.172818 Y53.048603 Z-0.125000
G01 X67.553686 Y50.560544 Z-0.125000
G01 X70.663039 Y48.572388 Z-0.125000
G01 X73.953578 Y46.709247 Z-0.125000
G01 X77.260945 Y45.009540 Z-0.125000
G01 X84.838576 Y41.312336 Z-0.125000
G01 X88.139672 Y39.550134 Z-0.125000
G01 X91.568800 Y37.438100 Z-0.125000
G01 X94.954563 Y34.985574 Z-0.125000
G00 Z3.000000

(End cutting path id: polyline1416)


(Start cutting path id: polyline1414)
(Change tool to Default tool)

G00 Z3.000000
G00 X15.783683 Y134.183880

G00 Z4.875000 (Fast pre-penetrate)
G01 Z-0.125000 F400.0(Penetrate)
G01 X23.328241 Y119.957913 Z-0.125000 F800.000000
G01 X37.845090 Y93.713846 Z-0.125000
G01 X40.568548 Y88.485554 Z-0.125000
G01 X45.686377 Y78.284238 Z-0.125000
G01 X48.056882 Y73.820273 Z-0.125000
G01 X49.860201 Y70.696157 Z-0.125000
G01 X51.653094 Y67.855382 Z-0.125000
G01 X53.498825 Y65.198757 Z-0.125000
G01 X55.464148 Y62.640795 Z-0.125000
G01 X58.349426 Y59.321522 Z-0.125000
G01 X61.383955 Y56.297471 Z-0.125000
G01 X64.633986 Y53.509533 Z-0.125000
G01 X68.015939 Y51.029464 Z-0.125000
G01 X71.126827 Y49.053929 Z-0.125000
G01 X74.419086 Y47.206981 Z-0.125000
G01 X77.728093 Y45.524074 Z-0.125000
G01 X85.150890 Y41.936805 Z-0.125000
G01 X88.609730 Y40.096445 Z-0.125000
G01 X92.347733 Y37.768485 Z-0.125000
G01 X96.032765 Y35.032168 Z-0.125000
G00 Z3.000000

(End cutting path id: polyline1414)


(Start cutting path id: polyline1412)
(Change tool to Default tool)

G00 Z3.000000
G00 X15.783683 Y135.109920

G00 Z4.875000 (Fast pre-penetrate)
G01 Z-0.125000 F400.0(Penetrate)
G01 X23.654366 Y120.336293 Z-0.125000 F800.000000
G01 X38.325149 Y93.942287 Z-0.125000
G01 X40.996009 Y88.858351 Z-0.125000
G01 X46.076584 Y78.841397 Z-0.125000
G01 X48.518103 Y74.284167 Z-0.125000
G01 X50.391113 Y71.064694 Z-0.125000
G01 X52.188161 Y68.237599 Z-0.125000
G01 X54.105991 Y65.496360 Z-0.125000
G01 X56.074726 Y62.952236 Z-0.125000
G01 X58.890048 Y59.725805 Z-0.125000
G01 X61.925212 Y56.705166 Z-0.125000
G01 X65.100314 Y53.986126 Z-0.125000
G01 X68.328491 Y51.618188 Z-0.125000
G01 X71.439299 Y49.642335 Z-0.125000
G01 X74.732193 Y47.801049 Z-0.125000
G01 X78.042153 Y46.128064 Z-0.125000
G01 X85.625393 Y42.492244 Z-0.125000
G01 X89.240787 Y40.561767 Z-0.125000
G01 X91.269821 Y39.336430 Z-0.125000
G01 X93.284780 Y37.994571 Z-0.125000
G01 X97.113322 Y35.074130 Z-0.125000
G00 Z3.000000

(End cutting path id: polyline1412)


(Start cutting path id: polyline1410)
(Change tool to Default tool)

G00 Z3.000000
G00 X15.783683 Y141.592204

G00 Z4.875000 (Fast pre-penetrate)
G01 Z-0.125000 F400.0(Penetrate)
G01 X25.868396 Y123.386168 Z-0.125000 F800.000000
G01 X41.016487 Y97.202002 Z-0.125000
G01 X50.951420 Y79.459199 Z-0.125000
G01 X53.444083 Y75.360517 Z-0.125000
G01 X55.731932 Y71.885325 Z-0.125000
G01 X58.080927 Y68.632198 Z-0.125000
G01 X60.417962 Y65.702999 Z-0.125000
G01 X63.027306 Y62.773351 Z-0.125000
G01 X65.620510 Y60.206208 Z-0.125000
G01 X68.340318 Y57.864860 Z-0.125000
G01 X71.104866 Y55.817676 Z-0.125000
G01 X73.903493 Y54.030259 Z-0.125000
G01 X77.040574 Y52.286472 Z-0.125000
G01 X80.354106 Y50.651613 Z-0.125000
G01 X88.265905 Y47.005792 Z-0.125000
G01 X90.784841 Y45.701160 Z-0.125000
G01 X92.976117 Y44.436532 Z-0.125000
G01 X95.771146 Y42.619641 Z-0.125000
G01 X98.538631 Y40.592564 Z-0.125000
G01 X101.432163 Y38.262779 Z-0.125000
G01 X105.209959 Y35.010366 Z-0.125000
G00 Z3.000000

(End cutting path id: polyline1410)


(Start cutting path id: polyline1408)
(Change tool to Default tool)

G00 Z3.000000
G00 X15.783683 Y142.518244

G00 Z4.875000 (Fast pre-penetrate)
G01 Z-0.125000 F400.0(Penetrate)
G01 X26.402669 Y123.474830 Z-0.125000 F800.000000
G01 X41.328616 Y97.845548 Z-0.125000
G01 X51.241456 Y80.339572 Z-0.125000
G01 X53.806615 Y76.155245 Z-0.125000
G01 X56.233106 Y72.489686 Z-0.125000
G01 X58.654014 Y69.151654 Z-0.125000
G01 X61.063756 Y66.141678 Z-0.125000
G01 X63.601504 Y63.297358 Z-0.125000
G01 X66.194656 Y60.730003 Z-0.125000
G01 X68.838554 Y58.451441 Z-0.125000
G01 X71.602759 Y56.401901 Z-0.125000
G01 X74.401756 Y54.617501 Z-0.125000
G01 X77.382151 Y52.962534 Z-0.125000
G01 X80.695762 Y51.328258 Z-0.125000
G01 X88.765967 Y47.611925 Z-0.125000
G01 X91.127000 Y46.383995 Z-0.125000
G01 X93.474115 Y45.023007 Z-0.125000
G01 X96.267741 Y43.194738 Z-0.125000
G01 X99.187468 Y41.044340 Z-0.125000
G01 X102.232474 Y38.586470 Z-0.125000
G01 X106.467734 Y34.968853 Z-0.125000
G00 Z3.000000

(End cutting path id: polyline1408)


(Start cutting path id: polyline1406)
(Change tool to Default tool)

G00 Z3.000000
G00 X15.783683 Y146.222406

G00 Z4.875000 (Fast pre-penetrate)
G01 Z-0.125000 F400.0(Penetrate)
G01 X28.303354 Y124.343614 Z-0.125000 F800.000000
G01 X37.978254 Y108.272287 Z-0.125000
G01 X52.199009 Y84.191160 Z-0.125000
G01 X55.190490 Y79.466977 Z-0.125000
G01 X58.249916 Y74.977983 Z-0.125000
G01 X61.101988 Y71.129888 Z-0.125000
G01 X63.878496 Y67.730049 Z-0.125000
G01 X66.279401 Y65.086971 Z-0.125000
G01 X68.728461 Y62.687864 Z-0.125000
G01 X71.146856 Y60.611311 Z-0.125000
G01 X73.757179 Y58.673294 Z-0.125000
G01 X76.244259 Y57.079842 Z-0.125000
G01 X79.067306 Y55.507161 Z-0.125000
G01 X82.065323 Y54.028618 Z-0.125000
G01 X89.976646 Y50.377823 Z-0.125000
G01 X92.650680 Y48.968257 Z-0.125000
G01 X95.151069 Y47.487915 Z-0.125000
G01 X97.787242 Y45.742911 Z-0.125000
G01 X100.555838 Y43.723481 Z-0.125000
G01 X111.545954 Y35.060108 Z-0.125000
G00 Z3.000000

(End cutting path id: polyline1406)


(Start cutting path id: polyline1404)
(Change tool to Default tool)

G00 Z3.000000
G00 X15.783683 Y148.074487

G00 Z4.875000 (Fast pre-penetrate)
G01 Z-0.125000 F400.0(Penetrate)
G01 X29.262546 Y124.807799 Z-0.125000 F800.000000
G01 X38.461806 Y109.756280 Z-0.125000
G01 X52.766433 Y85.938228 Z-0.125000
G01 X55.975693 Y80.960945 Z-0.125000
G01 X59.256575 Y76.235969 Z-0.125000
G01 X62.397122 Y72.052489 Z-0.125000
G01 X65.395165 Y68.425611 Z-0.125000
G01 X67.802024 Y65.811161 Z-0.125000
G01 X70.181207 Y63.508151 Z-0.125000
G01 X72.603015 Y61.452685 Z-0.125000
G01 X75.061970 Y59.644102 Z-0.125000
G01 X77.394110 Y58.154049 Z-0.125000
G01 X80.059995 Y56.666008 Z-0.125000
G01 X82.741888 Y55.337193 Z-0.125000
G01 X90.492873 Y51.735319 Z-0.125000
G01 X93.166273 Y50.319456 Z-0.125000
G01 X95.666529 Y48.837817 Z-0.125000
G01 X97.994331 Y47.312152 Z-0.125000
G01 X100.306865 Y45.668351 Z-0.125000
G01 X109.642730 Y38.496009 Z-0.125000
G01 X114.571699 Y34.957582 Z-0.125000
G00 Z3.000000

(End cutting path id: polyline1404)


(Start cutting path id: polyline1402)
(Change tool to Default tool)

G00 Z3.000000
G00 X15.783683 Y154.556771

G00 Z4.875000 (Fast pre-penetrate)
G01 Z-0.125000 F400.0(Penetrate)
G01 X20.628462 Y146.232460 Z-0.125000 F800.000000
G01 X31.436334 Y128.383929 Z-0.125000
G01 X40.835724 Y113.667664 Z-0.125000
G01 X49.578896 Y99.702841 Z-0.125000
G01 X54.785810 Y91.586334 Z-0.125000
G01 X58.867135 Y85.608425 Z-0.125000
G01 X63.109406 Y79.878774 Z-0.125000
G01 X67.852533 Y73.923461 Z-0.125000
G01 X71.760106 Y69.499342 Z-0.125000
G01 X73.829965 Y67.420169 Z-0.125000
G01 X75.857015 Y65.587191 Z-0.125000
G01 X77.989739 Y63.875313 Z-0.125000
G01 X80.149371 Y62.351315 Z-0.125000
G01 X83.898248 Y60.118208 Z-0.125000
G01 X92.254361 Y55.921525 Z-0.125000
G01 X96.641782 Y53.438889 Z-0.125000
G01 X100.677467 Y50.801261 Z-0.125000
G01 X109.776926 Y44.361787 Z-0.125000
G01 X114.285420 Y41.478441 Z-0.125000
G01 X118.049881 Y39.385934 Z-0.125000
G01 X121.687130 Y37.686253 Z-0.125000
G01 X125.190844 Y36.367835 Z-0.125000
G01 X128.874527 Y35.319954 Z-0.125000
G00 Z3.000000

(End cutting path id: polyline1402)


(Start cutting path id: polyline1400)
(Change tool to Default tool)

G00 Z3.000000
G00 X15.783683 Y166.595297

G00 Z4.875000 (Fast pre-penetrate)
G01 Z-0.125000 F400.0(Penetrate)
G01 X18.134635 Y161.793645 Z-0.125000 F800.000000
G01 X20.373828 Y157.546347 Z-0.125000
G01 X22.683981 Y153.504259 Z-0.125000
G01 X25.385109 Y149.119510 Z-0.125000
G01 X31.495442 Y139.771793 Z-0.125000
G01 X44.156664 Y120.927663 Z-0.125000
G01 X52.476371 Y108.167407 Z-0.125000
G01 X57.526625 Y100.854650 Z-0.125000
G01 X61.198852 Y95.822969 Z-0.125000
G01 X64.505240 Y91.558659 Z-0.125000
G01 X68.003636 Y87.329194 Z-0.125000
G01 X73.192797 Y81.330727 Z-0.125000
G01 X77.249462 Y76.760505 Z-0.125000
G01 X80.107356 Y73.736083 Z-0.125000
G01 X82.790095 Y71.179047 Z-0.125000
G01 X85.368853 Y69.030131 Z-0.125000
G01 X87.676652 Y67.352436 Z-0.125000
G01 X90.318804 Y65.655771 Z-0.125000
G01 X99.400563 Y60.448989 Z-0.125000
G01 X108.592547 Y54.743442 Z-0.125000
G01 X112.822753 Y52.344124 Z-0.125000
G01 X116.297521 Y50.670055 Z-0.125000
G01 X119.479079 Y49.421779 Z-0.125000
G01 X122.679766 Y48.465443 Z-0.125000
G01 X125.895031 Y47.816606 Z-0.125000
G01 X127.828895 Y47.576312 Z-0.125000
G01 X129.926139 Y47.440502 Z-0.125000
G01 X131.862833 Y47.430659 Z-0.125000
G01 X133.798946 Y47.539932 Z-0.125000
G01 X135.732862 Y47.777131 Z-0.125000
G01 X137.502076 Y48.113574 Z-0.125000
G01 X139.266262 Y48.568737 Z-0.125000
G01 X141.023623 Y49.145977 Z-0.125000
G01 X142.772411 Y49.847228 Z-0.125000
G01 X144.510853 Y50.673018 Z-0.125000
G01 X146.237257 Y51.622633 Z-0.125000
G01 X148.105028 Y52.797593 Z-0.125000
G01 X149.801349 Y53.999170 Z-0.125000
G01 X151.633189 Y55.441650 Z-0.125000
G01 X153.293739 Y56.882702 Z-0.125000
G01 X154.933889 Y58.441757 Z-0.125000
G00 Z3.000000

(End cutting path id: polyline1400)


(Start cutting path id: polyline1398)
(Change tool to Default tool)

G00 Z3.000000
G00 X15.783683 Y172.151540

G00 Z4.875000 (Fast pre-penetrate)
G01 Z-0.125000 F400.0(Penetrate)
G01 X18.803210 Y165.733524 Z-0.125000 F800.000000
G01 X21.178292 Y160.995027 Z-0.125000
G01 X23.513740 Y156.726378 Z-0.125000
G01 X26.062018 Y152.488499 Z-0.125000
G01 X30.916428 Y145.162381 Z-0.125000
G01 X43.285525 Y127.333799 Z-0.125000
G01 X53.229930 Y112.154037 Z-0.125000
G01 X56.769495 Y106.981704 Z-0.125000
G01 X59.400878 Y103.368241 Z-0.125000
G01 X62.275123 Y99.607353 Z-0.125000
G01 X64.829725 Y96.432674 Z-0.125000
G01 X67.345009 Y93.484241 Z-0.125000
G01 X71.055469 Y89.398180 Z-0.125000
G01 X78.677258 Y81.334775 Z-0.125000
G01 X81.840057 Y78.058893 Z-0.125000
G01 X84.215589 Y75.735299 Z-0.125000
G01 X86.697642 Y73.521771 Z-0.125000
G01 X89.139875 Y71.597326 Z-0.125000
G01 X91.612827 Y69.891798 Z-0.125000
G01 X94.421402 Y68.188254 Z-0.125000
G01 X98.032828 Y66.218037 Z-0.125000
G01 X110.151311 Y59.898207 Z-0.125000
G01 X113.789089 Y58.203341 Z-0.125000
G01 X117.130640 Y56.904450 Z-0.125000
G01 X119.850553 Y56.079295 Z-0.125000
G01 X122.581923 Y55.486365 Z-0.125000
G01 X125.321336 Y55.141560 Z-0.125000
G01 X127.903216 Y55.049433 Z-0.125000
G01 X130.645990 Y55.198102 Z-0.125000
G01 X133.222843 Y55.577567 Z-0.125000
G01 X135.790145 Y56.210978 Z-0.125000
G01 X138.182822 Y57.054443 Z-0.125000
G00 Z3.000000

(End cutting path id: polyline1398)


(Start cutting path id: polyline1396)
(Change tool to Default tool)

G00 Z3.000000
G00 X15.783683 Y173.077581

G00 Z4.875000 (Fast pre-penetrate)
G01 Z-0.125000 F400.0(Penetrate)
G01 X19.276020 Y165.650842 Z-0.125000 F800.000000
G01 X21.841602 Y160.568705 Z-0.125000
G01 X24.512858 Y155.782345 Z-0.125000
G01 X27.418324 Y151.099359 Z-0.125000
G01 X31.758093 Y144.673749 Z-0.125000
G01 X43.261395 Y128.208616 Z-0.125000
G01 X53.206858 Y113.032612 Z-0.125000
G01 X56.193392 Y108.625506 Z-0.125000
G01 X60.981471 Y102.104090 Z-0.125000
G01 X65.809290 Y96.119461 Z-0.125000
G01 X70.821736 Y90.556339 Z-0.125000
G01 X81.411909 Y79.577547 Z-0.125000
G01 X85.202140 Y75.898070 Z-0.125000
G01 X88.532896 Y73.077219 Z-0.125000
G01 X91.924929 Y70.671445 Z-0.125000
G01 X95.989003 Y68.275884 Z-0.125000
G01 X106.861407 Y62.746152 Z-0.125000
G01 X111.918064 Y60.336118 Z-0.125000
G01 X114.299470 Y59.336683 Z-0.125000
G01 X116.371022 Y58.572805 Z-0.125000
G01 X118.449904 Y57.922857 Z-0.125000
G01 X120.374983 Y57.436738 Z-0.125000
G01 X122.466062 Y57.044018 Z-0.125000
G01 X124.400084 Y56.811661 Z-0.125000
G01 X126.336224 Y56.708103 Z-0.125000
G01 X128.272865 Y56.735144 Z-0.125000
G01 X130.369500 Y56.912335 Z-0.125000
G01 X132.301644 Y57.216579 Z-0.125000
G01 X134.228364 Y57.666317 Z-0.125000
G01 X135.987418 Y58.215353 Z-0.125000
G01 X137.737211 Y58.903005 Z-0.125000
G01 X139.474939 Y59.736309 Z-0.125000
G01 X141.197533 Y60.721298 Z-0.125000
G01 X142.901659 Y61.862736 Z-0.125000
G01 X145.566433 Y64.007763 Z-0.125000
G01 X148.163077 Y66.555062 Z-0.125000
G01 X150.682569 Y69.482435 Z-0.125000
G01 X153.330225 Y73.031313 Z-0.125000
G01 X157.042615 Y78.612956 Z-0.125000
G01 X164.759946 Y90.772265 Z-0.125000
G01 X168.158567 Y96.420636 Z-0.125000
G01 X172.260027 Y103.624067 Z-0.125000
G00 Z3.000000

(End cutting path id: polyline1396)


(Start cutting path id: polyline1394)
(Change tool to Default tool)

G00 Z3.000000
G00 X15.783683 Y175.855702

G00 Z4.875000 (Fast pre-penetrate)
G01 Z-0.125000 F400.0(Penetrate)
G01 X19.737003 Y167.390713 Z-0.125000 F800.000000
G01 X22.280598 Y162.250527 Z-0.125000
G01 X24.799349 Y157.618604 Z-0.125000
G01 X27.485157 Y153.185543 Z-0.125000
G01 X31.756109 Y146.857723 Z-0.125000
G01 X40.580190 Y134.534849 Z-0.125000
G01 X44.001645 Y129.626623 Z-0.125000
G01 X56.385744 Y110.827815 Z-0.125000
G01 X59.282001 Y106.788162 Z-0.125000
G01 X62.372754 Y102.777454 Z-0.125000
G01 X66.454132 Y97.910291 Z-0.125000
G01 X70.694948 Y93.366766 Z-0.125000
G01 X82.432458 Y81.938288 Z-0.125000
G01 X86.848745 Y77.856619 Z-0.125000
G01 X90.120949 Y75.208461 Z-0.125000
G01 X93.370081 Y72.997447 Z-0.125000
G01 X96.975448 Y70.972223 Z-0.125000
G01 X101.243754 Y68.958720 Z-0.125000
G00 Z3.000000

(End cutting path id: polyline1394)


(Start cutting path id: polyline1392)
(Change tool to Default tool)

G00 Z3.000000
G00 X15.783683 Y177.707783

G00 Z4.875000 (Fast pre-penetrate)
G01 Z-0.125000 F400.0(Penetrate)
G01 X20.145757 Y168.347842 Z-0.125000 F800.000000
G01 X22.741237 Y163.062664 Z-0.125000
G01 X25.315233 Y158.293079 Z-0.125000
G01 X28.065017 Y153.747120 Z-0.125000
G01 X32.139781 Y147.746616 Z-0.125000
G01 X40.926847 Y135.641282 Z-0.125000
G01 X44.426142 Y130.669741 Z-0.125000
G01 X47.943535 Y125.418060 Z-0.125000
G01 X54.573297 Y115.187217 Z-0.125000
G01 X57.289294 Y111.184182 Z-0.125000
G01 X60.546840 Y106.726805 Z-0.125000
G01 X63.947499 Y102.471570 Z-0.125000
G01 X68.073750 Y97.808347 Z-0.125000
G01 X72.509802 Y93.356897 Z-0.125000
G01 X84.654267 Y82.251661 Z-0.125000
G01 X87.293933 Y79.945952 Z-0.125000
G01 X89.423508 Y78.212986 Z-0.125000
G01 X92.968682 Y75.690505 Z-0.125000
G01 X94.841057 Y74.554438 Z-0.125000
G01 X96.726211 Y73.536058 Z-0.125000
G01 X100.841905 Y71.661223 Z-0.125000
G01 X106.098693 Y69.698229 Z-0.125000
G01 X111.214062 Y68.067551 Z-0.125000
G01 X113.298976 Y67.528331 Z-0.125000
G01 X115.388493 Y67.093224 Z-0.125000
G01 X117.321034 Y66.802156 Z-0.125000
G01 X119.256300 Y66.632718 Z-0.125000
G01 X121.192915 Y66.598295 Z-0.125000
G01 X122.967685 Y66.695238 Z-0.125000
G01 X124.740179 Y66.922621 Z-0.125000
G01 X126.508361 Y67.286317 Z-0.125000
G01 X128.269981 Y67.790691 Z-0.125000
G01 X130.022632 Y68.438629 Z-0.125000
G01 X131.763800 Y69.233224 Z-0.125000
G01 X133.490495 Y70.179558 Z-0.125000
G01 X135.045158 Y71.173623 Z-0.125000
G01 X136.736293 Y72.412930 Z-0.125000
G01 X139.754656 Y75.034974 Z-0.125000
G01 X142.918698 Y78.302257 Z-0.125000
G01 X146.440404 Y82.427476 Z-0.125000
G01 X150.239075 Y87.327024 Z-0.125000
G01 X154.381466 Y93.079826 Z-0.125000
G01 X158.319572 Y98.884380 Z-0.125000
G01 X161.182334 Y103.384566 Z-0.125000
G01 X166.433883 Y112.002035 Z-0.125000
G01 X168.711043 Y115.514109 Z-0.125000
G01 X171.402196 Y119.257430 Z-0.125000
G01 X174.247945 Y122.752465 Z-0.125000
G00 Z3.000000

(End cutting path id: polyline1392)


(Start cutting path id: polyline1390)
(Change tool to Default tool)

G00 Z3.000000
G00 X15.783683 Y184.190067

G00 Z4.875000 (Fast pre-penetrate)
G01 Z-0.125000 F400.0(Penetrate)
G01 X20.842775 Y173.286945 Z-0.125000 F800.000000
G01 X24.309235 Y166.069597 Z-0.125000
G01 X26.850052 Y161.207091 Z-0.125000
G01 X29.374597 Y156.895605 Z-0.125000
G01 X31.385587 Y153.802815 Z-0.125000
G01 X33.651211 Y150.591306 Z-0.125000
G01 X42.614384 Y138.809505 Z-0.125000
G01 X46.489255 Y133.473315 Z-0.125000
G01 X49.952461 Y128.370594 Z-0.125000
G01 X56.721526 Y117.951633 Z-0.125000
G01 X59.447022 Y113.982888 Z-0.125000
G01 X61.812156 Y110.791620 Z-0.125000
G01 X64.155726 Y107.889912 Z-0.125000
G01 X66.545598 Y105.194367 Z-0.125000
G01 X69.051676 Y102.631695 Z-0.125000
G01 X71.521399 Y100.346413 Z-0.125000
G01 X74.099258 Y98.190987 Z-0.125000
G01 X77.011708 Y95.989074 Z-0.125000
G01 X80.256078 Y93.739087 Z-0.125000
G01 X86.624829 Y89.617122 Z-0.125000
G01 X91.619785 Y86.604686 Z-0.125000
G01 X95.551065 Y84.521677 Z-0.125000
G01 X99.356060 Y82.860440 Z-0.125000
G01 X101.588373 Y82.058647 Z-0.125000
G01 X103.988062 Y81.324985 Z-0.125000
G01 X106.714537 Y80.620533 Z-0.125000
G01 X109.285304 Y80.061442 Z-0.125000
G01 X111.377627 Y79.704335 Z-0.125000
G01 X113.472992 Y79.458484 Z-0.125000
G01 X115.409078 Y79.347730 Z-0.125000
G01 X117.345746 Y79.362282 Z-0.125000
G01 X119.281303 Y79.512592 Z-0.125000
G01 X121.052871 Y79.775613 Z-0.125000
G01 X122.820206 Y80.161243 Z-0.125000
G01 X124.581641 Y80.669110 Z-0.125000
G01 X126.335774 Y81.296146 Z-0.125000
G01 X128.081519 Y82.036607 Z-0.125000
G01 X129.975483 Y82.964897 Z-0.125000
G01 X131.857886 Y84.010000 Z-0.125000
G01 X135.584590 Y86.430723 Z-0.125000
G01 X137.579943 Y87.919055 Z-0.125000
G01 X139.405565 Y89.402704 Z-0.125000
G01 X143.076998 Y92.769734 Z-0.125000
G01 X146.514514 Y96.445401 Z-0.125000
G00 Z3.000000

(End cutting path id: polyline1390)


(Start cutting path id: polyline1388)
(Change tool to Default tool)

G00 Z3.000000
G00 X15.783683 Y186.042148

G00 Z4.875000 (Fast pre-penetrate)
G01 Z-0.125000 F400.0(Penetrate)
G01 X21.136276 Y174.503603 Z-0.125000 F800.000000
G01 X25.022736 Y166.419376 Z-0.125000
G01 X27.693199 Y161.335493 Z-0.125000
G01 X30.359878 Y156.842662 Z-0.125000
G01 X32.314300 Y153.888989 Z-0.125000
G01 X34.521186 Y150.811942 Z-0.125000
G01 X42.814937 Y140.075005 Z-0.125000
G01 X46.430517 Y135.187337 Z-0.125000
G01 X50.114703 Y129.846914 Z-0.125000
G01 X58.926428 Y116.444754 Z-0.125000
G01 X61.762308 Y112.534164 Z-0.125000
G01 X64.458303 Y109.181924 Z-0.125000
G01 X67.809088 Y105.518243 Z-0.125000
G01 X71.243058 Y102.285356 Z-0.125000
G01 X74.821728 Y99.404709 Z-0.125000
G01 X78.842305 Y96.649553 Z-0.125000
G01 X81.493453 Y95.027871 Z-0.125000
G01 X84.782167 Y93.147056 Z-0.125000
G01 X91.390630 Y89.685385 Z-0.125000
G01 X94.079428 Y88.432214 Z-0.125000
G01 X96.460490 Y87.428518 Z-0.125000
G01 X98.849992 Y86.536450 Z-0.125000
G01 X101.247246 Y85.762280 Z-0.125000
G01 X103.811373 Y85.060500 Z-0.125000
G01 X106.702128 Y84.399175 Z-0.125000
G01 X109.436514 Y83.880751 Z-0.125000
G01 X112.013922 Y83.517770 Z-0.125000
G01 X114.271900 Y83.329704 Z-0.125000
G01 X116.369885 Y83.284302 Z-0.125000
G01 X118.467552 Y83.378334 Z-0.125000
G01 X120.401891 Y83.597515 Z-0.125000
G01 X122.493208 Y83.982721 Z-0.125000
G01 X124.578122 Y84.521121 Z-0.125000
G01 X126.654729 Y85.207714 Z-0.125000
G01 X128.721651 Y86.034642 Z-0.125000
G01 X130.935364 Y87.072733 Z-0.125000
G01 X133.134816 Y88.259811 Z-0.125000
G01 X135.317784 Y89.597596 Z-0.125000
G01 X137.327663 Y90.978957 Z-0.125000
G01 X140.380924 Y93.380551 Z-0.125000
G01 X143.227996 Y95.993043 Z-0.125000
G01 X146.011832 Y98.942535 Z-0.125000
G01 X148.794902 Y102.313428 Z-0.125000
G01 X151.227716 Y105.605582 Z-0.125000
G01 X153.805072 Y109.418223 Z-0.125000
G01 X156.061647 Y112.999883 Z-0.125000
G01 X161.567329 Y122.075133 Z-0.125000
G01 X164.934703 Y127.174891 Z-0.125000
G01 X166.875604 Y129.829558 Z-0.125000
G01 X168.924614 Y132.423953 Z-0.125000
G01 X174.330707 Y138.667424 Z-0.125000
G00 Z3.000000

(End cutting path id: polyline1388)


(Start cutting path id: polyline1386)
(Change tool to Default tool)

G00 Z3.000000
G00 X15.783683 Y186.968188

G00 Z4.875000 (Fast pre-penetrate)
G01 Z-0.125000 F400.0(Penetrate)
G01 X21.194352 Y175.301004 Z-0.125000 F800.000000
G01 X25.258718 Y166.839904 Z-0.125000
G01 X27.988791 Y161.631006 Z-0.125000
G01 X30.654623 Y157.135476 Z-0.125000
G01 X32.609468 Y154.183312 Z-0.125000
G01 X34.818154 Y151.113143 Z-0.125000
G01 X43.124817 Y140.429017 Z-0.125000
G01 X46.813633 Y135.461895 Z-0.125000
G01 X50.499962 Y130.129171 Z-0.125000
G01 X59.114229 Y117.048902 Z-0.125000
G01 X61.880180 Y113.230811 Z-0.125000
G01 X64.504155 Y109.962179 Z-0.125000
G01 X67.707832 Y106.450951 Z-0.125000
G01 X71.066660 Y103.285692 Z-0.125000
G01 X74.647289 Y100.418141 Z-0.125000
G01 X78.362642 Y97.906428 Z-0.125000
G01 X80.862132 Y96.417805 Z-0.125000
G01 X83.530451 Y94.952068 Z-0.125000
G01 X89.682482 Y91.898912 Z-0.125000
G01 X94.918633 Y89.665250 Z-0.125000
G01 X97.469107 Y88.737833 Z-0.125000
G01 X99.867208 Y87.977051 Z-0.125000
G01 X102.592228 Y87.244077 Z-0.125000
G01 X105.323121 Y86.636277 Z-0.125000
G01 X108.379901 Y86.076975 Z-0.125000
G01 X111.118521 Y85.694679 Z-0.125000
G01 X113.537603 Y85.481319 Z-0.125000
G01 X115.796877 Y85.410887 Z-0.125000
G01 X117.894782 Y85.472879 Z-0.125000
G01 X119.991126 Y85.668327 Z-0.125000
G01 X122.084110 Y86.003077 Z-0.125000
G01 X124.332272 Y86.520840 Z-0.125000
G01 X126.412635 Y87.145070 Z-0.125000
G01 X128.643572 Y87.966521 Z-0.125000
G01 X130.863053 Y88.937673 Z-0.125000
G01 X133.069014 Y90.059293 Z-0.125000
G01 X135.258703 Y91.337838 Z-0.125000
G01 X137.274429 Y92.673558 Z-0.125000
G01 X140.182884 Y94.901533 Z-0.125000
G01 X143.035750 Y97.480106 Z-0.125000
G01 X145.748546 Y100.340777 Z-0.125000
G01 X148.389322 Y103.536887 Z-0.125000
G01 X150.820787 Y106.834226 Z-0.125000
G01 X153.326071 Y110.561539 Z-0.125000
G01 X155.577804 Y114.159259 Z-0.125000
G01 X161.072558 Y123.269275 Z-0.125000
G01 X164.435858 Y128.382897 Z-0.125000
G01 X166.377183 Y131.035924 Z-0.125000
G01 X168.497948 Y133.715171 Z-0.125000
G01 X171.080331 Y136.769173 Z-0.125000
G01 X174.266545 Y140.365464 Z-0.125000
G00 Z3.000000

(End cutting path id: polyline1386)


(Start cutting path id: polyline1384)
(Change tool to Default tool)

G00 Z3.000000
G00 X15.783683 Y187.894229

G00 Z4.875000 (Fast pre-penetrate)
G01 Z-0.125000 F400.0(Penetrate)
G01 X21.252481 Y176.098589 Z-0.125000 F800.000000
G01 X25.495308 Y167.261993 Z-0.125000
G01 X28.221677 Y162.042750 Z-0.125000
G01 X30.883646 Y157.535261 Z-0.125000
G01 X32.905272 Y154.479221 Z-0.125000
G01 X35.115652 Y151.415509 Z-0.125000
G01 X43.364609 Y140.874046 Z-0.125000
G01 X47.197067 Y135.737061 Z-0.125000
G01 X50.885751 Y130.413016 Z-0.125000
G01 X59.303565 Y117.657999 Z-0.125000
G01 X61.929842 Y114.025486 Z-0.125000
G01 X64.408297 Y110.918038 Z-0.125000
G01 X67.608005 Y107.387972 Z-0.125000
G01 X70.891030 Y104.286688 Z-0.125000
G01 X74.319126 Y101.540079 Z-0.125000
G01 X78.036809 Y99.047098 Z-0.125000
G01 X80.226656 Y97.769533 Z-0.125000
G01 X82.584805 Y96.512790 Z-0.125000
G01 X87.959068 Y93.970227 Z-0.125000
G01 X93.204082 Y91.848430 Z-0.125000
G01 X98.156414 Y90.218625 Z-0.125000
G01 X100.882201 Y89.500388 Z-0.125000
G01 X103.774490 Y88.875919 Z-0.125000
G01 X106.832382 Y88.349531 Z-0.125000
G01 X109.893766 Y87.943740 Z-0.125000
G01 X112.474165 Y87.717601 Z-0.125000
G01 X114.894702 Y87.625315 Z-0.125000
G01 X117.315504 Y87.668918 Z-0.125000
G01 X119.573667 Y87.846268 Z-0.125000
G01 X121.989786 Y88.192872 Z-0.125000
G01 X124.239774 Y88.667031 Z-0.125000
G01 X126.482988 Y89.287849 Z-0.125000
G01 X128.717576 Y90.055245 Z-0.125000
G01 X130.941555 Y90.970596 Z-0.125000
G01 X133.152358 Y92.040914 Z-0.125000
G01 X135.190467 Y93.183674 Z-0.125000
G01 X137.210955 Y94.480740 Z-0.125000
G01 X139.972011 Y96.551895 Z-0.125000
G01 X142.754154 Y99.036912 Z-0.125000
G01 X145.395195 Y101.812176 Z-0.125000
G01 X147.964138 Y104.923937 Z-0.125000
G01 X150.324218 Y108.134387 Z-0.125000
G01 X152.758090 Y111.774043 Z-0.125000
G01 X160.554081 Y124.641085 Z-0.125000
G01 X163.849198 Y129.655356 Z-0.125000
G01 X165.862622 Y132.392414 Z-0.125000
G01 X168.129304 Y135.231205 Z-0.125000
G01 X170.931900 Y138.517273 Z-0.125000
G01 X174.339967 Y142.337190 Z-0.125000
G00 Z3.000000

(End cutting path id: polyline1384)


(Start cutting path id: polyline1382)
(Change tool to Default tool)

G00 Z3.000000
G00 X15.783683 Y193.450472

G00 Z4.875000 (Fast pre-penetrate)
G01 Z-0.125000 F400.0(Penetrate)
G01 X22.907951 Y178.125718 Z-0.125000 F800.000000
G01 X28.516422 Y166.682186 Z-0.125000
G01 X30.333499 Y163.297984 Z-0.125000
G01 X32.079218 Y160.306397 Z-0.125000
G01 X33.879546 Y157.490361 Z-0.125000
G01 X35.867782 Y154.658159 Z-0.125000
G01 X38.537371 Y151.195958 Z-0.125000
G01 X45.369830 Y142.815900 Z-0.125000
G01 X48.602135 Y138.627048 Z-0.125000
G01 X52.602603 Y133.051967 Z-0.125000
G01 X61.161599 Y120.455435 Z-0.125000
G01 X63.743506 Y117.014718 Z-0.125000
G01 X66.178331 Y114.113380 Z-0.125000
G01 X68.008689 Y112.166896 Z-0.125000
G01 X69.871142 Y110.387814 Z-0.125000
G01 X71.762461 Y108.777165 Z-0.125000
G01 X73.756041 Y107.276979 Z-0.125000
G01 X75.772613 Y105.948217 Z-0.125000
G01 X77.965424 Y104.698485 Z-0.125000
G01 X80.175777 Y103.623564 Z-0.125000
G01 X82.399756 Y102.708054 Z-0.125000
G01 X84.793914 Y101.885280 Z-0.125000
G01 X87.357406 Y101.172335 Z-0.125000
G01 X89.928306 Y100.616631 Z-0.125000
G01 X92.665470 Y100.184541 Z-0.125000
G01 X95.406418 Y99.904400 Z-0.125000
G01 X98.149456 Y99.768510 Z-0.125000
G01 X100.893128 Y99.772267 Z-0.125000
G01 X103.797430 Y99.925726 Z-0.125000
G01 X106.699402 Y100.232060 Z-0.125000
G01 X109.758643 Y100.714765 Z-0.125000
G01 X112.973750 Y101.372995 Z-0.125000
G01 X116.343585 Y102.204632 Z-0.125000
G01 X119.546336 Y103.126862 Z-0.125000
G01 X122.580706 Y104.142332 Z-0.125000
G01 X125.285220 Y105.201987 Z-0.125000
G01 X127.659086 Y106.291222 Z-0.125000
G01 X130.952482 Y108.124994 Z-0.125000
G01 X134.040589 Y110.277668 Z-0.125000
G01 X136.987250 Y112.811209 Z-0.125000
G01 X139.781379 Y115.707943 Z-0.125000
G01 X142.068673 Y118.457622 Z-0.125000
G01 X144.434283 Y121.646508 Z-0.125000
G01 X146.474297 Y124.637884 Z-0.125000
G01 X150.769246 Y131.220656 Z-0.125000
G01 X152.961290 Y134.352816 Z-0.125000
G01 X155.284197 Y137.340169 Z-0.125000
G01 X157.739977 Y140.147236 Z-0.125000
G00 Z3.000000

(End cutting path id: polyline1382)


(Start cutting path id: polyline1380)
(Change tool to Default tool)

G00 Z3.000000
G00 X15.783683 Y195.302553

G00 Z4.875000 (Fast pre-penetrate)
G01 Z-0.125000 F400.0(Penetrate)
G01 X22.786428 Y180.221983 Z-0.125000 F800.000000
G01 X28.812835 Y167.905909 Z-0.125000
G01 X30.621101 Y164.496889 Z-0.125000
G01 X32.356051 Y161.472362 Z-0.125000
G01 X34.145981 Y158.621718 Z-0.125000
G01 X35.987638 Y155.950144 Z-0.125000
G01 X38.649052 Y152.455241 Z-0.125000
G01 X45.567871 Y144.053460 Z-0.125000
G01 X49.374373 Y139.185662 Z-0.125000
G01 X53.248001 Y133.844869 Z-0.125000
G01 X61.498122 Y121.858863 Z-0.125000
G01 X63.872569 Y118.704372 Z-0.125000
G01 X66.088902 Y116.042693 Z-0.125000
G01 X67.767760 Y114.226807 Z-0.125000
G01 X69.475220 Y112.557527 Z-0.125000
G01 X71.133256 Y111.101553 Z-0.125000
G01 X72.966657 Y109.669735 Z-0.125000
G01 X74.822231 Y108.397303 Z-0.125000
G01 X76.696458 Y107.277852 Z-0.125000
G01 X78.586003 Y106.303287 Z-0.125000
G01 X80.646840 Y105.400239 Z-0.125000
G01 X82.878572 Y104.590641 Z-0.125000
G01 X85.119854 Y103.934237 Z-0.125000
G01 X87.368254 Y103.421343 Z-0.125000
G01 X89.782865 Y103.022405 Z-0.125000
G01 X92.201233 Y102.770707 Z-0.125000
G01 X94.621612 Y102.658762 Z-0.125000
G01 X97.042493 Y102.680987 Z-0.125000
G01 X99.623712 Y102.848548 Z-0.125000
G01 X102.041286 Y103.138742 Z-0.125000
G01 X104.455289 Y103.557418 Z-0.125000
G01 X106.864396 Y104.104761 Z-0.125000
G01 X109.267524 Y104.776643 Z-0.125000
G01 X111.983284 Y105.672415 Z-0.125000
G01 X114.690576 Y106.694552 Z-0.125000
G01 X117.388952 Y107.834111 Z-0.125000
G01 X120.077195 Y109.093659 Z-0.125000
G01 X124.162621 Y111.290174 Z-0.125000
G01 X127.892580 Y113.684915 Z-0.125000
G01 X131.260060 Y116.265948 Z-0.125000
G01 X134.486465 Y119.194353 Z-0.125000
G01 X136.837840 Y121.643174 Z-0.125000
G01 X139.215595 Y124.394520 Z-0.125000
G01 X141.548211 Y127.342583 Z-0.125000
G01 X147.833963 Y135.691500 Z-0.125000
G01 X149.980763 Y138.259013 Z-0.125000
G01 X152.097506 Y140.548741 Z-0.125000
G00 Z3.000000

(End cutting path id: polyline1380)


(Start cutting path id: polyline1378)
(Change tool to Default tool)

G00 Z3.000000
G00 X15.783683 Y196.228593

G00 Z4.875000 (Fast pre-penetrate)
G01 Z-0.125000 F400.0(Penetrate)
G01 X21.537755 Y183.777714 Z-0.125000 F800.000000
G01 X27.103443 Y172.223612 Z-0.125000
G01 X30.546568 Y165.507358 Z-0.125000
G01 X33.514580 Y160.393471 Z-0.125000
G01 X35.672043 Y157.137698 Z-0.125000
G01 X37.965369 Y154.031997 Z-0.125000
G01 X46.448376 Y143.703920 Z-0.125000
G01 X50.668846 Y138.258722 Z-0.125000
G01 X54.052016 Y133.561395 Z-0.125000
G01 X60.532077 Y124.159994 Z-0.125000
G01 X62.956107 Y120.833550 Z-0.125000
G01 X65.507825 Y117.647707 Z-0.125000
G01 X67.982998 Y114.932529 Z-0.125000
G01 X70.521064 Y112.542816 Z-0.125000
G01 X73.114533 Y110.489969 Z-0.125000
G01 X75.909508 Y108.674692 Z-0.125000
G01 X78.742901 Y107.205330 Z-0.125000
G01 X81.763434 Y105.995127 Z-0.125000
G01 X84.964967 Y105.054641 Z-0.125000
G01 X87.054115 Y104.610326 Z-0.125000
G01 X89.308732 Y104.271343 Z-0.125000
G01 X91.405182 Y104.080287 Z-0.125000
G01 X93.664403 Y104.002288 Z-0.125000
G01 X95.923783 Y104.052241 Z-0.125000
G01 X98.181999 Y104.227025 Z-0.125000
G01 X100.598727 Y104.550901 Z-0.125000
G01 X102.850461 Y104.980134 Z-0.125000
G01 X105.097114 Y105.532001 Z-0.125000
G01 X107.337444 Y106.206053 Z-0.125000
G01 X109.570525 Y106.996521 Z-0.125000
G01 X111.954762 Y107.959947 Z-0.125000
G01 X114.488170 Y109.107364 Z-0.125000
G01 X117.011207 Y110.369796 Z-0.125000
G01 X119.522867 Y111.746368 Z-0.125000
G01 X121.865565 Y113.147044 Z-0.125000
G01 X124.966795 Y115.201081 Z-0.125000
G01 X128.035270 Y117.499196 Z-0.125000
G01 X130.912239 Y119.933889 Z-0.125000
G01 X133.744997 Y122.627820 Z-0.125000
G01 X136.092272 Y125.097676 Z-0.125000
G01 X138.330988 Y127.659395 Z-0.125000
G01 X144.564405 Y135.466446 Z-0.125000
G01 X146.711178 Y138.034277 Z-0.125000
G01 X148.970135 Y140.500243 Z-0.125000
G01 X151.270605 Y142.755099 Z-0.125000
G01 X153.602719 Y144.832128 Z-0.125000
G01 X156.334168 Y147.102594 Z-0.125000
G01 X170.970846 Y158.766762 Z-0.125000
G00 Z3.000000

(End cutting path id: polyline1378)


(Start cutting path id: polyline1376)
(Change tool to Default tool)

G00 Z3.000000
G00 X15.783683 Y198.080674

G00 Z4.875000 (Fast pre-penetrate)
G01 Z-0.125000 F400.0(Penetrate)
G01 X23.318081 Y181.864911 Z-0.125000 F800.000000
G01 X27.040896 Y174.193459 Z-0.125000
G01 X30.034467 Y168.264604 Z-0.125000
G01 X32.044425 Y164.544276 Z-0.125000
G01 X33.992947 Y161.247704 Z-0.125000
G01 X35.940833 Y158.271727 Z-0.125000
G01 X38.015772 Y155.410024 Z-0.125000
G01 X40.563177 Y152.205501 Z-0.125000
G01 X46.862290 Y144.680390 Z-0.125000
G01 X49.836177 Y140.949240 Z-0.125000
G01 X53.878132 Y135.533888 Z-0.125000
G01 X62.677898 Y123.121109 Z-0.125000
G01 X65.363918 Y119.726985 Z-0.125000
G01 X67.906084 Y116.904228 Z-0.125000
G01 X69.838969 Y115.032039 Z-0.125000
G01 X71.730790 Y113.424830 Z-0.125000
G01 X73.728789 Y111.956209 Z-0.125000
G01 X75.752981 Y110.690285 Z-0.125000
G01 X77.956428 Y109.543794 Z-0.125000
G01 X80.178714 Y108.607990 Z-0.125000
G01 X82.414890 Y107.865994 Z-0.125000
G01 X84.821537 Y107.266237 Z-0.125000
G01 X86.591438 Y106.947944 Z-0.125000
G01 X88.525434 Y106.714476 Z-0.125000
G01 X90.300072 Y106.601843 Z-0.125000
G01 X92.236766 Y106.586629 Z-0.125000
G01 X95.946591 Y106.862536 Z-0.125000
G01 X97.878867 Y107.162626 Z-0.125000
G01 X99.807465 Y107.568682 Z-0.125000
G01 X103.489667 Y108.642095 Z-0.125000
G01 X107.146812 Y110.098360 Z-0.125000
G01 X110.930720 Y111.996240 Z-0.125000
G01 X114.991831 Y114.418789 Z-0.125000
G01 X118.706126 Y116.940265 Z-0.125000
G01 X122.386925 Y119.708253 Z-0.125000
G01 X126.183400 Y122.843349 Z-0.125000
G01 X129.863723 Y126.161167 Z-0.125000
G01 X132.386602 Y128.635786 Z-0.125000
G01 X134.729220 Y131.128872 Z-0.125000
G01 X141.275929 Y138.763017 Z-0.125000
G01 X143.526816 Y141.267904 Z-0.125000
G01 X145.889701 Y143.657829 Z-0.125000
G01 X148.368658 Y145.889481 Z-0.125000
G01 X151.109553 Y148.098643 Z-0.125000
G01 X154.487220 Y150.611256 Z-0.125000
G01 X174.376400 Y164.738480 Z-0.125000
G00 Z3.000000

(End cutting path id: polyline1376)


(Start cutting path id: polyline1374)
(Change tool to Default tool)

G00 Z3.000000
G00 X15.783683 Y202.710877

G00 Z4.875000 (Fast pre-penetrate)
G01 Z-0.125000 F400.0(Penetrate)
G01 X19.694590 Y194.142726 Z-0.125000 F800.000000
G01 X23.250427 Y186.600576 Z-0.125000
G01 X27.221474 Y178.454833 Z-0.125000
G01 X30.708440 Y171.570331 Z-0.125000
G01 X33.021292 Y167.236805 Z-0.125000
G01 X35.083558 Y163.670676 Z-0.125000
G01 X37.152411 Y160.443927 Z-0.125000
G01 X39.288840 Y157.457976 Z-0.125000
G01 X42.190971 Y153.812631 Z-0.125000
G01 X48.159144 Y146.835207 Z-0.125000
G01 X51.299559 Y143.032779 Z-0.125000
G01 X55.106035 Y138.164689 Z-0.125000
G01 X63.482098 Y127.012384 Z-0.125000
G01 X65.979682 Y123.986427 Z-0.125000
G01 X68.316347 Y121.465004 Z-0.125000
G01 X70.105933 Y119.766355 Z-0.125000
G01 X71.926661 Y118.251988 Z-0.125000
G01 X73.620601 Y117.033292 Z-0.125000
G01 X75.492076 Y115.890611 Z-0.125000
G01 X77.383791 Y114.939303 Z-0.125000
G01 X79.291302 Y114.171589 Z-0.125000
G01 X81.210508 Y113.576621 Z-0.125000
G01 X83.298756 Y113.112066 Z-0.125000
G01 X86.038089 Y112.766124 Z-0.125000
G01 X88.942840 Y112.717652 Z-0.125000
G01 X91.684158 Y112.968345 Z-0.125000
G01 X94.578194 Y113.543283 Z-0.125000
G01 X97.457121 Y114.431674 Z-0.125000
G01 X100.315015 Y115.625896 Z-0.125000
G01 X103.146873 Y117.111503 Z-0.125000
G01 X106.104752 Y118.966362 Z-0.125000
G01 X109.643867 Y121.535092 Z-0.125000
G01 X113.601711 Y124.734509 Z-0.125000
G01 X118.509091 Y128.985326 Z-0.125000
G01 X122.546522 Y132.747591 Z-0.125000
G01 X125.278130 Y135.513859 Z-0.125000
G01 X127.826964 Y138.306188 Z-0.125000
G01 X134.903791 Y146.813193 Z-0.125000
G01 X137.361424 Y149.612243 Z-0.125000
G01 X140.090544 Y152.390233 Z-0.125000
G01 X142.879037 Y154.837890 Z-0.125000
G01 X145.484651 Y156.809218 Z-0.125000
G01 X148.275128 Y158.662728 Z-0.125000
G01 X151.085291 Y160.353096 Z-0.125000
G01 X159.859234 Y165.331913 Z-0.125000
G01 X164.547882 Y168.104875 Z-0.125000
G01 X169.527440 Y171.249259 Z-0.125000
G01 X174.322981 Y174.522786 Z-0.125000
G00 Z3.000000

(End cutting path id: polyline1374)


(Start cutting path id: polyline1372)
(Change tool to Default tool)

G00 Z3.000000
G00 X15.783683 Y205.488998

G00 Z4.875000 (Fast pre-penetrate)
G01 Z-0.125000 F400.0(Penetrate)
G01 X22.948009 Y189.992186 Z-0.125000 F800.000000
G01 X26.616372 Y182.458873 Z-0.125000
G01 X30.219781 Y175.316958 Z-0.125000
G01 X32.956257 Y170.124490 Z-0.125000
G01 X35.186745 Y166.148416 Z-0.125000
G01 X37.294810 Y162.726379 Z-0.125000
G01 X39.406791 Y159.650205 Z-0.125000
G01 X43.000939 Y155.051435 Z-0.125000
G01 X49.916134 Y147.036845 Z-0.125000
G01 X53.420059 Y142.831378 Z-0.125000
G01 X63.873972 Y129.577146 Z-0.125000
G01 X67.341226 Y125.616603 Z-0.125000
G01 X70.316965 Y122.749793 Z-0.125000
G01 X71.836756 Y121.503766 Z-0.125000
G01 X73.376549 Y120.394581 Z-0.125000
G01 X74.777781 Y119.516800 Z-0.125000
G01 X76.349510 Y118.675929 Z-0.125000
G01 X77.934150 Y117.974387 Z-0.125000
G01 X79.529004 Y117.407412 Z-0.125000
G01 X82.417483 Y116.703727 Z-0.125000
G01 X85.479952 Y116.360695 Z-0.125000
G01 X88.384676 Y116.399721 Z-0.125000
G01 X91.445214 Y116.823874 Z-0.125000
G01 X94.490908 Y117.635430 Z-0.125000
G01 X97.513134 Y118.822455 Z-0.125000
G01 X100.505012 Y120.362593 Z-0.125000
G01 X103.617593 Y122.322862 Z-0.125000
G01 X107.152818 Y124.919559 Z-0.125000
G01 X111.104524 Y128.158478 Z-0.125000
G01 X115.317982 Y131.907116 Z-0.125000
G01 X119.187059 Y135.634456 Z-0.125000
G01 X121.831407 Y138.394903 Z-0.125000
G01 X124.441121 Y141.323758 Z-0.125000
G01 X133.581697 Y152.362822 Z-0.125000
G01 X135.623748 Y154.582091 Z-0.125000
G01 X137.551024 Y156.484946 Z-0.125000
G01 X139.962380 Y158.604255 Z-0.125000
G01 X142.410196 Y160.490970 Z-0.125000
G01 X145.196150 Y162.379723 Z-0.125000
G01 X148.474148 Y164.356052 Z-0.125000
G00 Z3.000000

(End cutting path id: polyline1372)


(Start cutting path id: polyline1370)
(Change tool to Default tool)

G00 Z3.000000
G00 X15.783683 Y209.193160

G00 Z4.875000 (Fast pre-penetrate)
G01 Z-0.125000 F400.0(Penetrate)
G01 X19.869480 Y200.240862 Z-0.125000 F800.000000
G01 X23.663467 Y192.198729 Z-0.125000
G01 X27.471531 Y184.468540 Z-0.125000
G01 X31.286051 Y177.038309 Z-0.125000
G01 X34.360690 Y171.332232 Z-0.125000
G01 X36.935559 Y166.865410 Z-0.125000
G01 X39.267541 Y163.209402 Z-0.125000
G01 X41.750308 Y159.748789 Z-0.125000
G01 X44.946312 Y155.793352 Z-0.125000
G01 X53.832835 Y145.645694 Z-0.125000
G01 X63.649658 Y133.975917 Z-0.125000
G01 X66.409285 Y130.907786 Z-0.125000
G01 X68.775980 Y128.538128 Z-0.125000
G01 X70.431370 Y127.066465 Z-0.125000
G01 X72.110970 Y125.747174 Z-0.125000
G01 X73.813667 Y124.594704 Z-0.125000
G01 X75.537002 Y123.617096 Z-0.125000
G01 X77.277641 Y122.816970 Z-0.125000
G01 X79.031826 Y122.191681 Z-0.125000
G01 X80.795827 Y121.734112 Z-0.125000
G01 X82.566258 Y121.433545 Z-0.125000
G01 X85.147106 Y121.253258 Z-0.125000
G01 X87.728669 Y121.371315 Z-0.125000
G01 X90.304358 Y121.787293 Z-0.125000
G01 X92.867929 Y122.495264 Z-0.125000
G01 X95.413932 Y123.482661 Z-0.125000
G01 X98.095348 Y124.814652 Z-0.125000
G01 X100.905246 Y126.505787 Z-0.125000
G01 X103.684638 Y128.444968 Z-0.125000
G01 X106.587219 Y130.714482 Z-0.125000
G01 X109.612355 Y133.298214 Z-0.125000
G01 X112.683450 Y136.122902 Z-0.125000
G01 X115.648155 Y139.052471 Z-0.125000
G01 X117.993578 Y141.531905 Z-0.125000
G01 X120.385567 Y144.218031 Z-0.125000
G01 X127.394899 Y152.622457 Z-0.125000
G01 X130.136297 Y155.775757 Z-0.125000
G01 X133.070840 Y158.860213 Z-0.125000
G01 X135.913572 Y161.497841 Z-0.125000
G01 X139.264490 Y164.190634 Z-0.125000
G01 X142.972700 Y166.757830 Z-0.125000
G01 X146.714591 Y169.054437 Z-0.125000
G01 X156.576552 Y174.735008 Z-0.125000
G01 X159.531812 Y176.612965 Z-0.125000
G01 X162.157507 Y178.439434 Z-0.125000
G01 X165.216669 Y180.802266 Z-0.125000
G01 X168.161689 Y183.348402 Z-0.125000
G01 X171.139941 Y186.204337 Z-0.125000
G01 X174.296020 Y189.513741 Z-0.125000
G00 Z3.000000

(End cutting path id: polyline1370)


(Start cutting path id: polyline1368)
(Change tool to Default tool)

G00 Z3.000000
G00 X15.783683 Y211.971282

G00 Z4.875000 (Fast pre-penetrate)
G01 Z-0.125000 F400.0(Penetrate)
G01 X19.811298 Y203.147359 Z-0.125000 F800.000000
G01 X24.025946 Y194.239802 Z-0.125000
G01 X27.661211 Y186.900058 Z-0.125000
G01 X31.427126 Y179.624713 Z-0.125000
G01 X34.826595 Y173.368013 Z-0.125000
G01 X37.731160 Y168.366574 Z-0.125000
G01 X40.266315 Y164.408333 Z-0.125000
G01 X42.891270 Y160.771587 Z-0.125000
G01 X44.802644 Y158.371555 Z-0.125000
G01 X47.029586 Y155.756099 Z-0.125000
G01 X62.248109 Y138.646151 Z-0.125000
G01 X65.825933 Y134.782737 Z-0.125000
G01 X68.797888 Y131.893358 Z-0.125000
G01 X70.536727 Y130.404206 Z-0.125000
G01 X72.222703 Y129.128466 Z-0.125000
G01 X73.930480 Y128.016212 Z-0.125000
G01 X75.500251 Y127.156687 Z-0.125000
G01 X77.084072 Y126.445594 Z-0.125000
G01 X78.839183 Y125.833984 Z-0.125000
G01 X80.604084 Y125.395200 Z-0.125000
G01 X82.375229 Y125.118869 Z-0.125000
G01 X84.956606 Y124.981921 Z-0.125000
G01 X87.537614 Y125.149296 Z-0.125000
G01 X90.111556 Y125.618296 Z-0.125000
G01 X92.672270 Y126.379369 Z-0.125000
G01 X95.214516 Y127.416455 Z-0.125000
G01 X97.891223 Y128.797446 Z-0.125000
G01 X100.694929 Y130.541974 Z-0.125000
G01 X103.466251 Y132.540793 Z-0.125000
G01 X105.903643 Y134.497887 Z-0.125000
G01 X108.544816 Y136.794335 Z-0.125000
G01 X111.161462 Y139.234108 Z-0.125000
G01 X113.678308 Y141.741217 Z-0.125000
G01 X117.908937 Y146.334536 Z-0.125000
G01 X124.515337 Y154.108461 Z-0.125000
G01 X127.192467 Y157.142567 Z-0.125000
G01 X130.201887 Y160.297031 Z-0.125000
G01 X133.111321 Y163.050070 Z-0.125000
G01 X136.522484 Y165.906508 Z-0.125000
G01 X140.365181 Y168.728868 Z-0.125000
G01 X144.243862 Y171.279818 Z-0.125000
G01 X153.749218 Y177.163509 Z-0.125000
G01 X156.687413 Y179.177542 Z-0.125000
G01 X159.293926 Y181.143182 Z-0.125000
G01 X162.400024 Y183.757632 Z-0.125000
G01 X165.458657 Y186.651905 Z-0.125000
G01 X168.615211 Y189.958637 Z-0.125000
G01 X172.306911 Y194.133307 Z-0.125000
G00 Z3.000000

(End cutting path id: polyline1368)


(Start cutting path id: polyline1366)
(Change tool to Default tool)

G00 Z3.000000
G00 X15.783683 Y212.897322

G00 Z4.875000 (Fast pre-penetrate)
G01 Z-0.125000 F400.0(Penetrate)
G01 X19.870167 Y203.946797 Z-0.125000 F800.000000
G01 X24.207900 Y194.799157 Z-0.125000
G01 X27.786438 Y187.591810 Z-0.125000
G01 X31.620695 Y180.215315 Z-0.125000
G01 X35.090490 Y173.863895 Z-0.125000
G01 X38.131818 Y168.663728 Z-0.125000
G01 X40.740342 Y164.623942 Z-0.125000
G01 X43.441126 Y160.917346 Z-0.125000
G01 X45.428012 Y158.448231 Z-0.125000
G01 X47.803888 Y155.687836 Z-0.125000
G01 X61.678965 Y140.283417 Z-0.125000
G01 X65.778890 Y135.922058 Z-0.125000
G01 X68.983387 Y132.868981 Z-0.125000
G01 X70.727491 Y131.412690 Z-0.125000
G01 X72.417754 Y130.167086 Z-0.125000
G01 X74.129076 Y129.084042 Z-0.125000
G01 X75.701546 Y128.250526 Z-0.125000
G01 X77.446762 Y127.504826 Z-0.125000
G01 X79.204678 Y126.937401 Z-0.125000
G01 X80.971510 Y126.541744 Z-0.125000
G01 X82.743793 Y126.306847 Z-0.125000
G01 X85.325620 Y126.228266 Z-0.125000
G01 X87.905781 Y126.454775 Z-0.125000
G01 X90.477607 Y126.981904 Z-0.125000
G01 X93.035040 Y127.798698 Z-0.125000
G01 X95.731008 Y128.965271 Z-0.125000
G01 X98.400757 Y130.415424 Z-0.125000
G01 X101.196129 Y132.229034 Z-0.125000
G01 X103.958428 Y134.292570 Z-0.125000
G01 X106.236567 Y136.172300 Z-0.125000
G01 X108.645596 Y138.306453 Z-0.125000
G01 X111.033484 Y140.562314 Z-0.125000
G01 X113.325196 Y142.864239 Z-0.125000
G01 X117.263249 Y147.145060 Z-0.125000
G01 X126.125033 Y157.405086 Z-0.125000
G01 X128.911516 Y160.342698 Z-0.125000
G01 X131.738744 Y163.067321 Z-0.125000
G01 X135.213856 Y166.061025 Z-0.125000
G01 X139.044066 Y168.971279 Z-0.125000
G01 X143.066733 Y171.711935 Z-0.125000
G01 X153.171475 Y178.181281 Z-0.125000
G01 X156.252650 Y180.388750 Z-0.125000
G01 X159.149384 Y182.697104 Z-0.125000
G01 X162.381345 Y185.594288 Z-0.125000
G01 X165.706095 Y188.944914 Z-0.125000
G01 X169.340221 Y192.967766 Z-0.125000
G01 X174.371955 Y198.859712 Z-0.125000
G00 Z3.000000

(End cutting path id: polyline1366)


(Start cutting path id: polyline1364)
(Change tool to Default tool)

G00 Z3.000000
G00 X15.783683 Y217.527525

G00 Z4.875000 (Fast pre-penetrate)
G01 Z-0.125000 F400.0(Penetrate)
G01 X19.394156 Y209.578472 Z-0.125000 F800.000000
G01 X23.560994 Y200.825326 Z-0.125000
G01 X27.314845 Y193.234096 Z-0.125000
G01 X30.967757 Y186.226059 Z-0.125000
G01 X34.761296 Y179.321237 Z-0.125000
G01 X38.189630 Y173.453077 Z-0.125000
G01 X41.246754 Y168.621579 Z-0.125000
G01 X44.128989 Y164.530624 Z-0.125000
G01 X47.675751 Y160.118041 Z-0.125000
G01 X52.329025 Y154.976955 Z-0.125000
G01 X60.492892 Y146.517760 Z-0.125000
G01 X63.534432 Y143.529189 Z-0.125000
G01 X66.226723 Y141.024514 Z-0.125000
G01 X69.711995 Y138.094443 Z-0.125000
G01 X71.402337 Y136.849183 Z-0.125000
G01 X72.953825 Y135.829242 Z-0.125000
G01 X74.519469 Y134.930321 Z-0.125000
G01 X76.098288 Y134.162925 Z-0.125000
G01 X77.529180 Y133.590049 Z-0.125000
G01 X79.128055 Y133.086389 Z-0.125000
G01 X81.700013 Y132.565240 Z-0.125000
G01 X84.280650 Y132.370692 Z-0.125000
G01 X86.862213 Y132.484992 Z-0.125000
G01 X89.598318 Y132.943276 Z-0.125000
G01 X92.160090 Y133.684929 Z-0.125000
G01 X94.860954 Y134.789801 Z-0.125000
G01 X97.534406 Y136.203018 Z-0.125000
G01 X100.330625 Y138.009247 Z-0.125000
G01 X102.479436 Y139.611853 Z-0.125000
G01 X104.757099 Y141.494255 Z-0.125000
G01 X107.161550 Y143.655554 Z-0.125000
G01 X109.542691 Y145.948668 Z-0.125000
G01 X113.434469 Y150.018616 Z-0.125000
G01 X122.658679 Y160.267953 Z-0.125000
G01 X125.533214 Y163.208291 Z-0.125000
G01 X128.441749 Y165.967071 Z-0.125000
G01 X131.756974 Y168.884707 Z-0.125000
G01 X135.404277 Y171.877723 Z-0.125000
G01 X148.109446 Y181.620516 Z-0.125000
G00 Z3.000000

(End cutting path id: polyline1364)


(Start cutting path id: polyline1362)
(Change tool to Default tool)

G00 Z3.000000
G00 X15.783683 Y218.453565

G00 Z4.875000 (Fast pre-penetrate)
G01 Z-0.125000 F400.0(Penetrate)
G01 X19.274274 Y210.752824 Z-0.125000 F800.000000
G01 X23.202326 Y202.498125 Z-0.125000
G01 X27.258568 Y194.293750 Z-0.125000
G01 X30.849621 Y187.404723 Z-0.125000
G01 X34.645302 Y180.506145 Z-0.125000
G01 X38.139042 Y174.529453 Z-0.125000
G01 X41.328272 Y169.485178 Z-0.125000
G01 X44.206168 Y165.377924 Z-0.125000
G01 X47.675354 Y161.025587 Z-0.125000
G01 X51.887356 Y156.342864 Z-0.125000
G01 X59.322588 Y148.680805 Z-0.125000
G01 X64.981781 Y143.257357 Z-0.125000
G01 X68.685678 Y140.081884 Z-0.125000
G01 X71.914120 Y137.717042 Z-0.125000
G01 X73.471984 Y136.749594 Z-0.125000
G01 X75.043105 Y135.902690 Z-0.125000
G01 X76.626475 Y135.185802 Z-0.125000
G01 X78.060515 Y134.656425 Z-0.125000
G01 X80.626018 Y133.988194 Z-0.125000
G01 X83.365272 Y133.644792 Z-0.125000
G01 X86.108654 Y133.652782 Z-0.125000
G01 X88.686777 Y133.979251 Z-0.125000
G01 X91.414019 Y134.661531 Z-0.125000
G01 X94.121365 Y135.679064 Z-0.125000
G01 X96.802252 Y137.015870 Z-0.125000
G01 X99.606488 Y138.754948 Z-0.125000
G01 X101.761093 Y140.316226 Z-0.125000
G01 X103.892494 Y142.037153 Z-0.125000
G01 X106.302290 Y144.166623 Z-0.125000
G01 X108.836254 Y146.580942 Z-0.125000
G01 X112.806428 Y150.702616 Z-0.125000
G01 X121.752270 Y160.571642 Z-0.125000
G01 X124.329758 Y163.221943 Z-0.125000
G01 X126.933387 Y165.734106 Z-0.125000
G01 X129.861660 Y168.380730 Z-0.125000
G01 X133.038508 Y171.091250 Z-0.125000
G01 X141.120381 Y177.521834 Z-0.125000
G00 Z3.000000

(End cutting path id: polyline1362)


(Start cutting path id: polyline1360)
(Change tool to Default tool)

G00 Z3.000000
G00 X15.783683 Y224.935849

G00 Z4.875000 (Fast pre-penetrate)
G01 Z-0.125000 F400.0(Penetrate)
G01 X19.252737 Y217.184122 Z-0.125000 F800.000000
G01 X22.590107 Y210.191776 Z-0.125000
G01 X27.360909 Y200.768679 Z-0.125000
G01 X31.665516 Y192.663364 Z-0.125000
G01 X35.382510 Y186.135889 Z-0.125000
G01 X39.124454 Y179.997378 Z-0.125000
G01 X42.693706 Y174.590175 Z-0.125000
G01 X46.080262 Y169.906686 Z-0.125000
G01 X49.493118 Y165.704261 Z-0.125000
G01 X53.286921 Y161.590498 Z-0.125000
G01 X57.969855 Y157.050068 Z-0.125000
G01 X62.719252 Y152.889130 Z-0.125000
G01 X66.694691 Y149.807903 Z-0.125000
G01 X70.570250 Y147.234568 Z-0.125000
G01 X72.450112 Y146.165732 Z-0.125000
G01 X74.184559 Y145.296683 Z-0.125000
G01 X75.929326 Y144.544474 Z-0.125000
G01 X77.523703 Y143.969984 Z-0.125000
G01 X80.248961 Y143.246958 Z-0.125000
G01 X82.986998 Y142.852624 Z-0.125000
G01 X85.730247 Y142.789442 Z-0.125000
G01 X88.309746 Y143.050797 Z-0.125000
G01 X90.879032 Y143.638197 Z-0.125000
G01 X93.429877 Y144.555956 Z-0.125000
G01 X95.954554 Y145.797565 Z-0.125000
G01 X98.447032 Y147.344952 Z-0.125000
G01 X100.140046 Y148.570977 Z-0.125000
G01 X101.967865 Y150.040127 Z-0.125000
G01 X106.019080 Y153.722064 Z-0.125000
G01 X109.425189 Y157.108859 Z-0.125000
G01 X119.733370 Y167.719986 Z-0.125000
G01 X131.943769 Y179.434399 Z-0.125000
G01 X137.563353 Y185.071392 Z-0.125000
G00 Z3.000000

(End cutting path id: polyline1360)


(Start cutting path id: polyline1358)
(Change tool to Default tool)

G00 Z3.000000
G00 X15.783683 Y234.196254

G00 Z4.875000 (Fast pre-penetrate)
G01 Z-0.125000 F400.0(Penetrate)
G01 X19.572379 Y225.605826 Z-0.125000 F800.000000
G01 X23.083581 Y218.226870 Z-0.125000
G01 X26.487203 Y211.690294 Z-0.125000
G01 X30.948152 Y203.737511 Z-0.125000
G01 X35.620106 Y195.810393 Z-0.125000
G01 X39.285718 Y190.068545 Z-0.125000
G01 X43.071054 Y184.752094 Z-0.125000
G01 X47.180213 Y179.610981 Z-0.125000
G01 X51.744164 Y174.472224 Z-0.125000
G01 X53.877020 Y172.262056 Z-0.125000
G01 X55.958707 Y170.245749 Z-0.125000
G01 X58.063147 Y168.357975 Z-0.125000
G01 X60.339989 Y166.470202 Z-0.125000
G01 X62.484487 Y164.837090 Z-0.125000
G01 X64.494048 Y163.453215 Z-0.125000
G01 X66.365021 Y162.305242 Z-0.125000
G01 X68.250809 Y161.293186 Z-0.125000
G01 X70.150224 Y160.425856 Z-0.125000
G01 X72.061598 Y159.709921 Z-0.125000
G01 X73.982815 Y159.150381 Z-0.125000
G01 X75.911625 Y158.750861 Z-0.125000
G01 X77.684225 Y158.527156 Z-0.125000
G01 X79.620470 Y158.439394 Z-0.125000
G01 X81.234215 Y158.490167 Z-0.125000
G01 X82.846584 Y158.651880 Z-0.125000
G01 X84.616908 Y158.955463 Z-0.125000
G01 X86.221763 Y159.347363 Z-0.125000
G01 X87.820665 Y159.851076 Z-0.125000
G01 X89.570908 Y160.532748 Z-0.125000
G01 X91.153035 Y161.264161 Z-0.125000
G01 X92.882561 Y162.183323 Z-0.125000
G01 X94.756073 Y163.309388 Z-0.125000
G01 X96.616171 Y164.547160 Z-0.125000
G01 X100.757583 Y167.656301 Z-0.125000
G01 X104.919817 Y171.191633 Z-0.125000
G01 X109.247284 Y175.283039 Z-0.125000
G01 X115.808625 Y181.985561 Z-0.125000
G01 X121.120499 Y187.829617 Z-0.125000
G01 X125.131048 Y192.608992 Z-0.125000
G01 X136.497692 Y206.665175 Z-0.125000
G01 X141.079714 Y212.524630 Z-0.125000
G01 X145.111748 Y217.979088 Z-0.125000
G01 X149.905912 Y224.835307 Z-0.125000
G01 X155.598812 Y233.280399 Z-0.125000
G00 Z3.000000

(End cutting path id: polyline1358)


(Start cutting path id: polyline1356)
(Change tool to Default tool)

G00 Z3.000000
G00 X15.783683 Y235.122294

G00 Z4.875000 (Fast pre-penetrate)
G01 Z-0.125000 F400.0(Penetrate)
G01 X19.861568 Y225.886257 Z-0.125000 F800.000000
G01 X23.687095 Y217.924584 Z-0.125000
G01 X27.493597 Y210.762666 Z-0.125000
G01 X32.571951 Y201.918450 Z-0.125000
G01 X37.028243 Y194.570293 Z-0.125000
G01 X40.744126 Y189.001641 Z-0.125000
G01 X44.655509 Y183.809464 Z-0.125000
G01 X49.107965 Y178.573948 Z-0.125000
G01 X53.947320 Y173.471121 Z-0.125000
G01 X56.180612 Y171.326729 Z-0.125000
G01 X58.287354 Y169.452582 Z-0.125000
G01 X60.566949 Y167.582403 Z-0.125000
G01 X62.868847 Y165.862270 Z-0.125000
G01 X65.039142 Y164.420028 Z-0.125000
G01 X67.073494 Y163.242819 Z-0.125000
G01 X69.125203 Y162.236610 Z-0.125000
G01 X71.032741 Y161.469054 Z-0.125000
G01 X73.111570 Y160.819503 Z-0.125000
G01 X75.039242 Y160.392387 Z-0.125000
G01 X76.972576 Y160.133228 Z-0.125000
G01 X78.908821 Y160.042529 Z-0.125000
G01 X80.845172 Y160.118781 Z-0.125000
G01 X82.939955 Y160.385084 Z-0.125000
G01 X84.868368 Y160.794817 Z-0.125000
G01 X86.789214 Y161.361475 Z-0.125000
G01 X88.700165 Y162.083046 Z-0.125000
G01 X90.599421 Y162.952624 Z-0.125000
G01 X92.642452 Y164.048104 Z-0.125000
G01 X94.670189 Y165.284315 Z-0.125000
G01 X96.837627 Y166.749417 Z-0.125000
G01 X99.142594 Y168.448145 Z-0.125000
G01 X103.777401 Y172.251711 Z-0.125000
G01 X108.565930 Y176.690647 Z-0.125000
G01 X115.064908 Y183.258787 Z-0.125000
G01 X120.454305 Y189.159914 Z-0.125000
G01 X125.823303 Y195.570681 Z-0.125000
G01 X136.903007 Y209.287113 Z-0.125000
G01 X141.603218 Y215.419459 Z-0.125000
G01 X146.087953 Y221.662428 Z-0.125000
G01 X152.479617 Y231.037476 Z-0.125000
G01 X157.570511 Y238.885855 Z-0.125000
G01 X160.714816 Y244.077106 Z-0.125000
G01 X167.555344 Y255.864172 Z-0.125000
G01 X170.836915 Y261.251876 Z-0.125000
G00 Z3.000000

(End cutting path id: polyline1356)


(Start cutting path id: polyline1332)
(Change tool to Default tool)

G00 Z3.000000
G00 X15.783683 Y257.347266

G00 Z4.875000 (Fast pre-penetrate)
G01 Z-0.125000 F400.0(Penetrate)
G01 X18.891766 Y249.819007 Z-0.125000 F800.000000
G01 X21.844301 Y243.239780 Z-0.125000
G01 X24.749713 Y237.361777 Z-0.125000
G01 X27.845546 Y231.717508 Z-0.125000
G01 X31.257476 Y226.112634 Z-0.125000
G01 X34.786801 Y220.904874 Z-0.125000
G01 X38.219925 Y216.404264 Z-0.125000
G01 X41.757558 Y212.352519 Z-0.125000
G01 X45.016109 Y209.117913 Z-0.125000
G01 X48.197905 Y206.441206 Z-0.125000
G01 X51.290642 Y204.324013 Z-0.125000
G01 X52.857318 Y203.434670 Z-0.125000
G01 X54.593723 Y202.586628 Z-0.125000
G01 X56.341267 Y201.869238 Z-0.125000
G01 X58.097384 Y201.271968 Z-0.125000
G01 X60.020161 Y200.740527 Z-0.125000
G01 X61.948098 Y200.318067 Z-0.125000
G01 X63.879872 Y200.001256 Z-0.125000
G01 X65.814397 Y199.789907 Z-0.125000
G01 X67.750536 Y199.683994 Z-0.125000
G01 X69.848626 Y199.687539 Z-0.125000
G01 X72.107292 Y199.826551 Z-0.125000
G01 X74.363603 Y200.100845 Z-0.125000
G01 X76.777049 Y200.536057 Z-0.125000
G01 X79.185178 Y201.105678 Z-0.125000
G01 X81.587274 Y201.796583 Z-0.125000
G01 X83.982941 Y202.596603 Z-0.125000
G01 X90.187571 Y205.025793 Z-0.125000
G01 X97.636271 Y208.316438 Z-0.125000
G01 X100.635001 Y209.787440 Z-0.125000
G01 X103.307343 Y211.214071 Z-0.125000
G01 X105.809769 Y212.676580 Z-0.125000
G01 X108.296293 Y214.275376 Z-0.125000
G01 X110.608431 Y215.921664 Z-0.125000
G01 X112.744886 Y217.609201 Z-0.125000
G01 X114.630860 Y219.252844 Z-0.125000
G01 X116.494159 Y221.027376 Z-0.125000
G01 X118.407200 Y223.004604 Z-0.125000
G01 X120.367945 Y225.184980 Z-0.125000
G01 X124.786561 Y230.569588 Z-0.125000
G01 X129.459176 Y236.811339 Z-0.125000
G01 X132.795673 Y241.680486 Z-0.125000
G01 X136.096743 Y247.004214 Z-0.125000
G01 X139.815987 Y253.524730 Z-0.125000
G01 X143.880484 Y261.133740 Z-0.125000
G00 Z3.000000

(End cutting path id: polyline1332)


(Start cutting path id: polyline1334)
(Change tool to Default tool)

G00 Z3.000000
G00 X15.783683 Y256.421226

G00 Z4.875000 (Fast pre-penetrate)
G01 Z-0.125000 F400.0(Penetrate)
G01 X18.895497 Y248.901115 Z-0.125000 F800.000000
G01 X21.910208 Y242.203038 Z-0.125000
G01 X24.882295 Y236.218699 Z-0.125000
G01 X27.982256 Y230.586204 Z-0.125000
G01 X31.395667 Y224.986093 Z-0.125000
G01 X34.927163 Y219.786137 Z-0.125000
G01 X38.364546 Y215.302725 Z-0.125000
G01 X41.975072 Y211.171235 Z-0.125000
G01 X45.307415 Y207.861884 Z-0.125000
G01 X48.490031 Y205.190337 Z-0.125000
G01 X50.029825 Y204.081020 Z-0.125000
G01 X51.584197 Y203.084309 Z-0.125000
G01 X53.151640 Y202.202163 Z-0.125000
G01 X54.730354 Y201.432941 Z-0.125000
G01 X56.477554 Y200.710999 Z-0.125000
G01 X58.233300 Y200.108121 Z-0.125000
G01 X60.155654 Y199.568504 Z-0.125000
G01 X62.244034 Y199.105351 Z-0.125000
G01 X64.336912 Y198.766817 Z-0.125000
G01 X66.271649 Y198.566210 Z-0.125000
G01 X68.207920 Y198.474082 Z-0.125000
G01 X70.144615 Y198.490698 Z-0.125000
G01 X72.241806 Y198.630292 Z-0.125000
G01 X74.497799 Y198.918291 Z-0.125000
G01 X76.749718 Y199.342021 Z-0.125000
G01 X79.156762 Y199.935401 Z-0.125000
G01 X81.557032 Y200.658850 Z-0.125000
G01 X83.950159 Y201.497816 Z-0.125000
G01 X89.987864 Y203.967752 Z-0.125000
G01 X97.903182 Y207.572483 Z-0.125000
G01 X100.899320 Y209.071531 Z-0.125000
G01 X103.726363 Y210.606324 Z-0.125000
G01 X106.382088 Y212.187843 Z-0.125000
G01 X108.864935 Y213.816351 Z-0.125000
G01 X111.173104 Y215.491664 Z-0.125000
G01 X113.305431 Y217.206532 Z-0.125000
G01 X115.187331 Y218.874649 Z-0.125000
G01 X117.119898 Y220.749008 Z-0.125000
G01 X119.026854 Y222.756955 Z-0.125000
G01 X120.981328 Y224.966858 Z-0.125000
G01 X125.457940 Y230.495425 Z-0.125000
G01 X130.258137 Y236.970115 Z-0.125000
G01 X133.584210 Y241.876622 Z-0.125000
G01 X136.807995 Y247.130552 Z-0.125000
G01 X140.514062 Y253.690491 Z-0.125000
G01 X144.502492 Y261.220470 Z-0.125000
G00 Z3.000000

(End cutting path id: polyline1334)


(Start cutting path id: polyline1336)
(Change tool to Default tool)

G00 Z3.000000
G00 X15.783683 Y254.569145

G00 Z4.875000 (Fast pre-penetrate)
G01 Z-0.125000 F400.0(Penetrate)
G01 X19.017337 Y246.803924 Z-0.125000 F800.000000
G01 X22.103036 Y240.008084 Z-0.125000
G01 X25.210749 Y233.817133 Z-0.125000
G01 X28.449165 Y227.989533 Z-0.125000
G01 X31.872975 Y222.422919 Z-0.125000
G01 X35.279905 Y217.463548 Z-0.125000
G01 X38.939432 Y212.752913 Z-0.125000
G01 X42.698415 Y208.474658 Z-0.125000
G01 X45.958554 Y205.248492 Z-0.125000
G01 X49.067484 Y202.654018 Z-0.125000
G01 X50.608680 Y201.554808 Z-0.125000
G01 X52.164613 Y200.571114 Z-0.125000
G01 X53.733564 Y199.703203 Z-0.125000
G01 X55.313521 Y198.947580 Z-0.125000
G01 X57.061647 Y198.237598 Z-0.125000
G01 X58.977810 Y197.592201 Z-0.125000
G01 X61.061110 Y197.021522 Z-0.125000
G01 X63.150125 Y196.574456 Z-0.125000
G01 X65.082402 Y196.274392 Z-0.125000
G01 X67.017350 Y196.085533 Z-0.125000
G01 X68.953780 Y196.010444 Z-0.125000
G01 X70.890395 Y196.050687 Z-0.125000
G01 X72.987083 Y196.224704 Z-0.125000
G01 X75.080887 Y196.532467 Z-0.125000
G01 X77.170299 Y196.969346 Z-0.125000
G01 X79.254234 Y197.527987 Z-0.125000
G01 X81.331899 Y198.198572 Z-0.125000
G01 X83.561963 Y199.032882 Z-0.125000
G01 X88.951730 Y201.396349 Z-0.125000
G01 X98.269047 Y205.905981 Z-0.125000
G01 X101.573927 Y207.631141 Z-0.125000
G01 X104.395467 Y209.218454 Z-0.125000
G01 X107.201766 Y210.942212 Z-0.125000
G01 X109.678924 Y212.615673 Z-0.125000
G01 X112.134202 Y214.450980 Z-0.125000
G01 X114.335056 Y216.276338 Z-0.125000
G01 X116.209706 Y217.986841 Z-0.125000
G01 X118.134018 Y219.905491 Z-0.125000
G01 X120.032110 Y221.957173 Z-0.125000
G01 X122.048868 Y224.295293 Z-0.125000
G01 X126.785406 Y230.277541 Z-0.125000
G01 X131.773404 Y237.114869 Z-0.125000
G01 X135.015207 Y241.979306 Z-0.125000
G01 X138.219942 Y247.294170 Z-0.125000
G01 X141.775806 Y253.694036 Z-0.125000
G01 X145.740767 Y261.289076 Z-0.125000
G00 Z3.000000

(End cutting path id: polyline1336)


(Start cutting path id: polyline1338)
(Change tool to Default tool)

G00 Z3.000000
G00 X15.783683 Y250.864983

G00 Z4.875000 (Fast pre-penetrate)
G01 Z-0.125000 F400.0(Penetrate)
G01 X19.149999 Y242.878703 Z-0.125000 F800.000000
G01 X22.373652 Y235.878313 Z-0.125000
G01 X25.743857 Y229.251621 Z-0.125000
G01 X29.253551 Y223.017939 Z-0.125000
G01 X32.633016 Y217.628992 Z-0.125000
G01 X36.272091 Y212.473513 Z-0.125000
G01 X40.572332 Y206.977092 Z-0.125000
G01 X42.512625 Y204.702287 Z-0.125000
G01 X44.406986 Y202.632533 Z-0.125000
G01 X47.453712 Y199.674548 Z-0.125000
G01 X48.967789 Y198.392115 Z-0.125000
G01 X50.499513 Y197.225409 Z-0.125000
G01 X52.047482 Y196.177608 Z-0.125000
G01 X53.609686 Y195.247837 Z-0.125000
G01 X55.183875 Y194.431281 Z-0.125000
G01 X56.926525 Y193.653565 Z-0.125000
G01 X58.837343 Y192.929613 Z-0.125000
G01 X61.075451 Y192.217779 Z-0.125000
G01 X63.160074 Y191.673373 Z-0.125000
G01 X65.249962 Y191.247792 Z-0.125000
G01 X67.182820 Y190.967969 Z-0.125000
G01 X69.118192 Y190.804086 Z-0.125000
G01 X71.054781 Y190.762758 Z-0.125000
G01 X72.991105 Y190.848880 Z-0.125000
G01 X74.764420 Y191.042025 Z-0.125000
G01 X76.695558 Y191.377384 Z-0.125000
G01 X78.621722 Y191.840325 Z-0.125000
G01 X80.541510 Y192.426059 Z-0.125000
G01 X82.453889 Y193.128104 Z-0.125000
G01 X84.358199 Y193.937939 Z-0.125000
G01 X88.774248 Y196.137524 Z-0.125000
G01 X100.381478 Y202.593402 Z-0.125000
G01 X106.313085 Y206.169029 Z-0.125000
G01 X109.101075 Y208.042700 Z-0.125000
G01 X111.714150 Y209.962144 Z-0.125000
G01 X114.150245 Y211.927705 Z-0.125000
G01 X116.483311 Y213.998807 Z-0.125000
G01 X118.415931 Y215.873113 Z-0.125000
G01 X120.323469 Y217.878071 Z-0.125000
G01 X124.202811 Y222.431147 Z-0.125000
G01 X129.599431 Y229.498688 Z-0.125000
G01 X134.897785 Y236.947414 Z-0.125000
G01 X138.045476 Y241.802433 Z-0.125000
G01 X141.090403 Y246.991329 Z-0.125000
G01 X144.483363 Y253.266258 Z-0.125000
G01 X148.591887 Y261.332309 Z-0.125000
G00 Z3.000000

(End cutting path id: polyline1338)


(Start cutting path id: polyline1340)
(Change tool to Default tool)

G00 Z3.000000
G00 X15.783683 Y249.938942

G00 Z4.875000 (Fast pre-penetrate)
G01 Z-0.125000 F400.0(Penetrate)
G01 X19.212255 Y241.833257 Z-0.125000 F800.000000
G01 X22.441464 Y234.846334 Z-0.125000
G01 X25.876704 Y228.109178 Z-0.125000
G01 X29.389731 Y221.885471 Z-0.125000
G01 X32.774542 Y216.514357 Z-0.125000
G01 X36.692487 Y210.985313 Z-0.125000
G01 X40.990982 Y205.481484 Z-0.125000
G01 X42.930878 Y203.205012 Z-0.125000
G01 X44.826245 Y201.140206 Z-0.125000
G01 X47.877389 Y198.206457 Z-0.125000
G01 X49.394323 Y196.942041 Z-0.125000
G01 X50.928957 Y195.795709 Z-0.125000
G01 X52.479599 Y194.769021 Z-0.125000
G01 X54.044052 Y193.859332 Z-0.125000
G01 X55.777891 Y192.983959 Z-0.125000
G01 X57.522022 Y192.223891 Z-0.125000
G01 X59.592781 Y191.449139 Z-0.125000
G01 X61.830809 Y190.736167 Z-0.125000
G01 X63.915167 Y190.186285 Z-0.125000
G01 X66.004817 Y189.754591 Z-0.125000
G01 X67.937570 Y189.471117 Z-0.125000
G01 X69.872941 Y189.307525 Z-0.125000
G01 X71.809557 Y189.271833 Z-0.125000
G01 X73.745749 Y189.369781 Z-0.125000
G01 X75.518693 Y189.579384 Z-0.125000
G01 X77.449037 Y189.938423 Z-0.125000
G01 X79.213674 Y190.384378 Z-0.125000
G01 X81.132112 Y190.993157 Z-0.125000
G01 X83.042560 Y191.722453 Z-0.125000
G01 X84.944409 Y192.561869 Z-0.125000
G01 X89.510662 Y194.917981 Z-0.125000
G01 X100.937261 Y201.507712 Z-0.125000
G01 X107.011028 Y205.297096 Z-0.125000
G01 X109.791399 Y207.229399 Z-0.125000
G01 X112.396774 Y209.203188 Z-0.125000
G01 X114.825355 Y211.217088 Z-0.125000
G01 X117.151225 Y213.330471 Z-0.125000
G01 X119.078183 Y215.235310 Z-0.125000
G01 X120.980693 Y217.265217 Z-0.125000
G01 X124.921657 Y221.948257 Z-0.125000
G01 X130.585321 Y229.436352 Z-0.125000
G01 X135.804697 Y236.826367 Z-0.125000
G01 X138.946064 Y241.702897 Z-0.125000
G01 X141.983530 Y246.914679 Z-0.125000
G01 X145.366726 Y253.217363 Z-0.125000
G01 X149.465540 Y261.309502 Z-0.125000
G00 Z3.000000

(End cutting path id: polyline1340)


(Start cutting path id: polyline1342)
(Change tool to Default tool)

G00 Z3.000000
G00 X15.783683 Y249.012902

G00 Z4.875000 (Fast pre-penetrate)
G01 Z-0.125000 F400.0(Penetrate)
G01 X19.217177 Y240.918196 Z-0.125000 F800.000000
G01 X22.449111 Y233.937835 Z-0.125000
G01 X25.883980 Y227.199674 Z-0.125000
G01 X29.395738 Y220.972157 Z-0.125000
G01 X32.848837 Y215.502274 Z-0.125000
G01 X36.971410 Y209.676077 Z-0.125000
G01 X41.334437 Y204.057763 Z-0.125000
G01 X43.273222 Y201.776237 Z-0.125000
G01 X45.095564 Y199.790224 Z-0.125000
G01 X48.148084 Y196.864359 Z-0.125000
G01 X49.666341 Y195.608331 Z-0.125000
G01 X51.202377 Y194.471868 Z-0.125000
G01 X52.754210 Y193.454652 Z-0.125000
G01 X54.476274 Y192.464635 Z-0.125000
G01 X56.210695 Y191.595242 Z-0.125000
G01 X58.113259 Y190.764398 Z-0.125000
G01 X60.342556 Y189.919664 Z-0.125000
G01 X62.579473 Y189.188225 Z-0.125000
G01 X64.662826 Y188.618683 Z-0.125000
G01 X66.751709 Y188.168336 Z-0.125000
G01 X68.684064 Y187.871289 Z-0.125000
G01 X70.619303 Y187.699707 Z-0.125000
G01 X72.555919 Y187.662983 Z-0.125000
G01 X74.492031 Y187.767440 Z-0.125000
G01 X76.264685 Y187.989505 Z-0.125000
G01 X78.194288 Y188.368599 Z-0.125000
G01 X79.957760 Y188.838023 Z-0.125000
G01 X81.874347 Y189.476911 Z-0.125000
G01 X83.782281 Y190.240021 Z-0.125000
G01 X85.681220 Y191.113410 Z-0.125000
G01 X90.239800 Y193.546753 Z-0.125000
G01 X101.329638 Y200.168287 Z-0.125000
G01 X107.389647 Y204.072156 Z-0.125000
G01 X110.317205 Y206.166198 Z-0.125000
G01 X112.915542 Y208.188221 Z-0.125000
G01 X115.413073 Y210.308668 Z-0.125000
G01 X117.732566 Y212.458723 Z-0.125000
G01 X119.728369 Y214.464606 Z-0.125000
G01 X121.626329 Y216.516923 Z-0.125000
G01 X125.559990 Y221.232269 Z-0.125000
G01 X131.424260 Y229.034160 Z-0.125000
G01 X136.705046 Y236.548396 Z-0.125000
G01 X139.842815 Y241.437176 Z-0.125000
G01 X142.875995 Y246.662029 Z-0.125000
G01 X146.190532 Y252.864965 Z-0.125000
G01 X150.344167 Y261.094846 Z-0.125000
G00 Z3.000000

(End cutting path id: polyline1342)


(Start cutting path id: polyline1344)
(Change tool to Default tool)

G00 Z3.000000
G00 X15.783683 Y248.086861

G00 Z4.875000 (Fast pre-penetrate)
G01 Z-0.125000 F400.0(Penetrate)
G01 X19.164551 Y240.132993 Z-0.125000 F800.000000
G01 X22.456493 Y233.028781 Z-0.125000
G01 X25.890965 Y226.289402 Z-0.125000
G01 X29.401796 Y220.059293 Z-0.125000
G01 X32.990733 Y214.389120 Z-0.125000
G01 X37.317009 Y208.262331 Z-0.125000
G01 X41.602883 Y202.706881 Z-0.125000
G01 X43.467584 Y200.499783 Z-0.125000
G01 X45.288603 Y198.507420 Z-0.125000
G01 X46.841706 Y196.951778 Z-0.125000
G01 X48.416795 Y195.517315 Z-0.125000
G01 X49.936639 Y194.271473 Z-0.125000
G01 X51.628700 Y193.038780 Z-0.125000
G01 X53.338462 Y191.942190 Z-0.125000
G01 X55.062326 Y190.968445 Z-0.125000
G01 X58.857266 Y189.191717 Z-0.125000
G01 X61.244017 Y188.261893 Z-0.125000
G01 X63.479240 Y187.503678 Z-0.125000
G01 X65.561297 Y186.909715 Z-0.125000
G01 X67.649359 Y186.439445 Z-0.125000
G01 X69.581371 Y186.130783 Z-0.125000
G01 X71.516531 Y185.955920 Z-0.125000
G01 X73.453146 Y185.925096 Z-0.125000
G01 X75.227837 Y186.028733 Z-0.125000
G01 X77.000252 Y186.260058 Z-0.125000
G01 X78.929221 Y186.656059 Z-0.125000
G01 X80.691634 Y187.146014 Z-0.125000
G01 X82.606474 Y187.811652 Z-0.125000
G01 X84.512107 Y188.604343 Z-0.125000
G01 X86.566091 Y189.586501 Z-0.125000
G01 X91.272388 Y192.195316 Z-0.125000
G01 X101.713442 Y198.651697 Z-0.125000
G01 X107.911748 Y202.792686 Z-0.125000
G01 X110.830443 Y204.950968 Z-0.125000
G01 X113.420975 Y207.025140 Z-0.125000
G01 X115.911442 Y209.188953 Z-0.125000
G01 X118.299409 Y211.444206 Z-0.125000
G01 X120.363791 Y213.552112 Z-0.125000
G01 X122.329987 Y215.706532 Z-0.125000
G01 X126.327228 Y220.542448 Z-0.125000
G01 X132.391338 Y228.660913 Z-0.125000
G01 X137.732131 Y236.304424 Z-0.125000
G01 X140.865296 Y241.208761 Z-0.125000
G01 X143.893528 Y246.448669 Z-0.125000
G01 X147.201186 Y252.670973 Z-0.125000
G01 X151.470418 Y261.160330 Z-0.125000
G00 Z3.000000

(End cutting path id: polyline1344)


(Start cutting path id: polyline1346)
(Change tool to Default tool)

G00 Z3.000000
G00 X15.783683 Y247.160821

G00 Z4.875000 (Fast pre-penetrate)
G01 Z-0.125000 F400.0(Penetrate)
G01 X19.169366 Y239.217721 Z-0.125000 F800.000000
G01 X22.463636 Y232.119118 Z-0.125000
G01 X25.897633 Y225.378469 Z-0.125000
G01 X29.342927 Y219.256521 Z-0.125000
G01 X33.064472 Y213.375265 Z-0.125000
G01 X37.659114 Y206.835778 Z-0.125000
G01 X41.867704 Y201.343221 Z-0.125000
G01 X43.731188 Y199.130751 Z-0.125000
G01 X45.479182 Y197.217234 Z-0.125000
G01 X47.107082 Y195.591874 Z-0.125000
G01 X48.683997 Y194.167968 Z-0.125000
G01 X50.358569 Y192.815340 Z-0.125000
G01 X52.052879 Y191.598973 Z-0.125000
G01 X53.919433 Y190.413905 Z-0.125000
G01 X55.800724 Y189.358457 Z-0.125000
G01 X57.851031 Y188.336691 Z-0.125000
G01 X60.068977 Y187.346595 Z-0.125000
G01 X62.453637 Y186.389016 Z-0.125000
G01 X64.687220 Y185.605771 Z-0.125000
G01 X66.768377 Y184.995404 Z-0.125000
G01 X68.695362 Y184.551011 Z-0.125000
G01 X70.627215 Y184.237771 Z-0.125000
G01 X72.401111 Y184.077910 Z-0.125000
G01 X74.337727 Y184.051822 Z-0.125000
G01 X76.112285 Y184.168265 Z-0.125000
G01 X77.884197 Y184.419222 Z-0.125000
G01 X79.812028 Y184.842634 Z-0.125000
G01 X81.732583 Y185.414795 Z-0.125000
G01 X83.644301 Y186.125888 Z-0.125000
G01 X85.546362 Y186.962711 Z-0.125000
G01 X87.596272 Y187.988896 Z-0.125000
G01 X92.448645 Y190.785195 Z-0.125000
G01 X102.241734 Y197.062003 Z-0.125000
G01 X105.647050 Y199.369855 Z-0.125000
G01 X108.573708 Y201.470617 Z-0.125000
G01 X111.481264 Y203.706688 Z-0.125000
G01 X114.061821 Y205.845471 Z-0.125000
G01 X116.543054 Y208.064528 Z-0.125000
G01 X118.996956 Y210.438182 Z-0.125000
G01 X123.088308 Y214.839970 Z-0.125000
G01 X127.219851 Y219.885329 Z-0.125000
G01 X133.414533 Y228.225250 Z-0.125000
G01 X138.815651 Y235.996741 Z-0.125000
G01 X142.010861 Y241.020881 Z-0.125000
G01 X144.970460 Y246.162099 Z-0.125000
G01 X148.273409 Y252.397580 Z-0.125000
G01 X152.722345 Y261.259443 Z-0.125000
G00 Z3.000000

(End cutting path id: polyline1346)


(Start cutting path id: polyline1348)
(Change tool to Default tool)

G00 Z3.000000
G00 X15.783683 Y245.308740

G00 Z4.875000 (Fast pre-penetrate)
G01 Z-0.125000 F400.0(Penetrate)
G01 X19.121027 Y237.516135 Z-0.125000 F800.000000
G01 X22.416885 Y230.421342 Z-0.125000
G01 X25.785211 Y223.789305 Z-0.125000
G01 X29.095886 Y217.873255 Z-0.125000
G01 X33.006846 Y211.643516 Z-0.125000
G01 X38.124172 Y204.227916 Z-0.125000
G01 X42.103924 Y198.936468 Z-0.125000
G01 X43.890123 Y196.784508 Z-0.125000
G01 X45.561415 Y194.932110 Z-0.125000
G01 X47.260964 Y193.220813 Z-0.125000
G01 X49.062668 Y191.590691 Z-0.125000
G01 X50.888952 Y190.111778 Z-0.125000
G01 X52.889941 Y188.664112 Z-0.125000
G01 X54.908973 Y187.354717 Z-0.125000
G01 X57.254819 Y185.982167 Z-0.125000
G01 X59.927478 Y184.558604 Z-0.125000
G01 X62.610641 Y183.243336 Z-0.125000
G01 X64.829540 Y182.264828 Z-0.125000
G01 X66.898975 Y181.471688 Z-0.125000
G01 X68.817440 Y180.863782 Z-0.125000
G01 X70.582632 Y180.430236 Z-0.125000
G01 X72.353063 Y180.129379 Z-0.125000
G01 X74.126986 Y179.971211 Z-0.125000
G01 X75.740863 Y179.955918 Z-0.125000
G01 X77.515263 Y180.081331 Z-0.125000
G01 X79.286593 Y180.352475 Z-0.125000
G01 X81.213101 Y180.806447 Z-0.125000
G01 X83.131592 Y181.413929 Z-0.125000
G01 X85.199308 Y182.229692 Z-0.125000
G01 X87.255171 Y183.190895 Z-0.125000
G01 X89.299313 Y184.275818 Z-0.125000
G01 X94.289825 Y187.325031 Z-0.125000
G01 X102.794237 Y193.162076 Z-0.125000
G01 X106.177618 Y195.634022 Z-0.125000
G01 X109.236806 Y197.997489 Z-0.125000
G01 X112.123619 Y200.371090 Z-0.125000
G01 X114.836917 Y202.753342 Z-0.125000
G01 X117.450812 Y205.208619 Z-0.125000
G01 X120.037481 Y207.811349 Z-0.125000
G01 X124.544388 Y212.795537 Z-0.125000
G01 X129.161097 Y218.508069 Z-0.125000
G01 X135.207374 Y226.696384 Z-0.125000
G01 X140.940888 Y234.994236 Z-0.125000
G01 X144.268178 Y240.231498 Z-0.125000
G01 X147.228756 Y245.369726 Z-0.125000
G01 X150.408091 Y251.366976 Z-0.125000
G01 X155.354761 Y261.173216 Z-0.125000
G00 Z3.000000

(End cutting path id: polyline1348)


(Start cutting path id: polyline1350)
(Change tool to Default tool)

G00 Z3.000000
G00 X15.783683 Y243.456659

G00 Z4.875000 (Fast pre-penetrate)
G01 Z-0.125000 F400.0(Penetrate)
G01 X19.129705 Y235.683660 Z-0.125000 F800.000000
G01 X22.368916 Y228.720788 Z-0.125000
G01 X25.672287 Y222.199372 Z-0.125000
G01 X28.850273 Y216.495042 Z-0.125000
G01 X33.079527 Y209.693804 Z-0.125000
G01 X38.505886 Y201.667996 Z-0.125000
G01 X42.260345 Y196.593162 Z-0.125000
G01 X43.899066 Y194.593338 Z-0.125000
G01 X45.566336 Y192.722127 Z-0.125000
G01 X47.409580 Y190.840572 Z-0.125000
G01 X49.281055 Y189.111998 Z-0.125000
G01 X51.252119 Y187.462191 Z-0.125000
G01 X53.396776 Y185.830243 Z-0.125000
G01 X56.023106 Y184.008377 Z-0.125000
G01 X58.977149 Y182.120207 Z-0.125000
G01 X62.100683 Y180.251801 Z-0.125000
G01 X64.770141 Y178.797574 Z-0.125000
G01 X66.665851 Y177.887990 Z-0.125000
G01 X68.572357 Y177.106730 Z-0.125000
G01 X70.329426 Y176.524753 Z-0.125000
G01 X71.933672 Y176.120708 Z-0.125000
G01 X73.704209 Y175.823820 Z-0.125000
G01 X75.317054 Y175.692772 Z-0.125000
G01 X76.930931 Y175.694624 Z-0.125000
G01 X78.704960 Y175.846442 Z-0.125000
G01 X80.636045 Y176.182250 Z-0.125000
G01 X82.560411 Y176.682101 Z-0.125000
G01 X84.476362 Y177.330276 Z-0.125000
G01 X86.541115 Y178.184906 Z-0.125000
G01 X88.593644 Y179.182569 Z-0.125000
G01 X90.790371 Y180.396370 Z-0.125000
G01 X93.129231 Y181.830277 Z-0.125000
G01 X95.764293 Y183.584489 Z-0.125000
G01 X99.309732 Y186.108373 Z-0.125000
G01 X103.145497 Y188.981215 Z-0.125000
G01 X106.658339 Y191.734730 Z-0.125000
G01 X109.695276 Y194.244935 Z-0.125000
G01 X112.635798 Y196.819063 Z-0.125000
G01 X115.403654 Y199.388905 Z-0.125000
G01 X118.147485 Y202.091091 Z-0.125000
G01 X120.791834 Y204.851618 Z-0.125000
G01 X123.337413 Y207.659902 Z-0.125000
G01 X125.929083 Y210.672100 Z-0.125000
G01 X131.316602 Y217.396609 Z-0.125000
G01 X137.009740 Y225.136058 Z-0.125000
G01 X142.875201 Y233.648434 Z-0.125000
G01 X146.408866 Y239.177478 Z-0.125000
G01 X149.445353 Y244.392145 Z-0.125000
G01 X152.574443 Y250.237868 Z-0.125000
G01 X158.227206 Y261.284076 Z-0.125000
G00 Z3.000000

(End cutting path id: polyline1350)


(Start cutting path id: polyline1352)
(Change tool to Default tool)

G00 Z3.000000
G00 X15.783683 Y242.530618

G00 Z4.875000 (Fast pre-penetrate)
G01 Z-0.125000 F400.0(Penetrate)
G01 X19.075995 Y234.896128 Z-0.125000 F800.000000
G01 X22.314491 Y227.931484 Z-0.125000
G01 X25.553437 Y221.522119 Z-0.125000
G01 X28.727851 Y215.807338 Z-0.125000
G01 X33.013222 Y208.866982 Z-0.125000
G01 X38.554992 Y200.568918 Z-0.125000
G01 X42.230579 Y195.551896 Z-0.125000
G01 X43.866655 Y193.540800 Z-0.125000
G01 X45.531147 Y191.656414 Z-0.125000
G01 X47.370051 Y189.752633 Z-0.125000
G01 X49.310926 Y187.924021 Z-0.125000
G01 X51.351364 Y186.170708 Z-0.125000
G01 X53.641171 Y184.367337 Z-0.125000
G01 X56.565316 Y182.248371 Z-0.125000
G01 X59.816882 Y180.053655 Z-0.125000
G01 X62.772751 Y178.180461 Z-0.125000
G01 X65.278299 Y176.746950 Z-0.125000
G01 X67.170835 Y175.803420 Z-0.125000
G01 X68.916712 Y175.064890 Z-0.125000
G01 X70.672696 Y174.466509 Z-0.125000
G01 X72.276625 Y174.055850 Z-0.125000
G01 X74.047135 Y173.758776 Z-0.125000
G01 X75.660059 Y173.632067 Z-0.125000
G01 X77.273910 Y173.640640 Z-0.125000
G01 X79.047780 Y173.801109 Z-0.125000
G01 X80.978575 Y174.145887 Z-0.125000
G01 X82.902596 Y174.652617 Z-0.125000
G01 X84.977535 Y175.365483 Z-0.125000
G01 X87.041150 Y176.234267 Z-0.125000
G01 X89.249810 Y177.327710 Z-0.125000
G01 X91.443996 Y178.565270 Z-0.125000
G01 X93.779656 Y180.026403 Z-0.125000
G01 X96.255729 Y181.708595 Z-0.125000
G01 X99.486579 Y184.058992 Z-0.125000
G01 X103.159308 Y186.883654 Z-0.125000
G01 X106.661250 Y189.709241 Z-0.125000
G01 X109.764147 Y192.344806 Z-0.125000
G01 X112.620479 Y194.905255 Z-0.125000
G01 X115.454666 Y197.592148 Z-0.125000
G01 X118.264563 Y200.410221 Z-0.125000
G01 X120.975640 Y203.281265 Z-0.125000
G01 X123.733573 Y206.357862 Z-0.125000
G01 X126.464917 Y209.557041 Z-0.125000
G01 X132.205627 Y216.729436 Z-0.125000
G01 X137.691676 Y224.181099 Z-0.125000
G01 X143.626908 Y232.786873 Z-0.125000
G01 X147.300987 Y238.500754 Z-0.125000
G01 X150.412721 Y243.793578 Z-0.125000
G01 X153.490192 Y249.491426 Z-0.125000
G01 X159.598963 Y261.307862 Z-0.125000
G00 Z3.000000

(End cutting path id: polyline1352)


(Start cutting path id: polyline1354)
(Change tool to Default tool)

G00 Z3.000000
G00 X15.783683 Y241.604578

G00 Z4.875000 (Fast pre-penetrate)
G01 Z-0.125000 F400.0(Penetrate)
G01 X19.022073 Y234.108121 Z-0.125000 F800.000000
G01 X22.139999 Y227.389776 Z-0.125000
G01 X25.248320 Y221.199831 Z-0.125000
G01 X28.283007 Y215.676449 Z-0.125000
G01 X32.479902 Y208.770012 Z-0.125000
G01 X37.921501 Y200.459381 Z-0.125000
G01 X41.498796 Y195.426721 Z-0.125000
G01 X44.697366 Y191.483482 Z-0.125000
G01 X46.518782 Y189.493051 Z-0.125000
G01 X48.442009 Y187.568738 Z-0.125000
G01 X50.464958 Y185.711683 Z-0.125000
G01 X52.660309 Y183.851559 Z-0.125000
G01 X55.255471 Y181.807893 Z-0.125000
G01 X58.328285 Y179.539491 Z-0.125000
G01 X61.416551 Y177.384145 Z-0.125000
G01 X63.902256 Y175.778735 Z-0.125000
G01 X65.623077 Y174.777103 Z-0.125000
G01 X67.355434 Y173.886569 Z-0.125000
G01 X69.099697 Y173.128539 Z-0.125000
G01 X70.695054 Y172.568893 Z-0.125000
G01 X72.298162 Y172.141883 Z-0.125000
G01 X73.907091 Y171.852588 Z-0.125000
G01 X75.519619 Y171.702331 Z-0.125000
G01 X77.133469 Y171.689102 Z-0.125000
G01 X78.907710 Y171.826844 Z-0.125000
G01 X80.678537 Y172.114631 Z-0.125000
G01 X82.604305 Y172.585192 Z-0.125000
G01 X84.522188 Y173.202490 Z-0.125000
G01 X86.430969 Y173.954223 Z-0.125000
G01 X88.487414 Y174.908680 Z-0.125000
G01 X90.531344 Y175.995481 Z-0.125000
G01 X92.718519 Y177.296991 Z-0.125000
G01 X95.201287 Y178.926188 Z-0.125000
G01 X97.821955 Y180.790678 Z-0.125000
G01 X103.783301 Y185.426040 Z-0.125000
G01 X109.685169 Y190.446449 Z-0.125000
G01 X114.990666 Y195.409285 Z-0.125000
G01 X119.703921 Y200.254382 Z-0.125000
G01 X124.492001 Y205.606843 Z-0.125000
G01 X129.778263 Y211.980992 Z-0.125000
G01 X134.704031 Y218.326221 Z-0.125000
G01 X140.226778 Y225.998070 Z-0.125000
G01 X145.657900 Y234.007182 Z-0.125000
G01 X149.568992 Y240.237213 Z-0.125000
G01 X153.023705 Y246.331459 Z-0.125000
G00 Z3.000000

(End cutting path id: polyline1354)



(Footer)
M5
G00 X0.0000 Y0.0000
M2
(Using default footer. To add your own footer create file "footer" in the output dir.)
(end)
%