%
(Header)
(Generated by gcodetools from Inkscape.)
(Using default header. To add your own header create file "header" in the output dir.)
M3
(Header end.)
G21 (All units in mm)

(Start cutting path id: path20439)
(Change tool to Default tool)

G00 Z3.000000
G00 X73.377421 Y137.033821

G00 Z4.875000 (Fast pre-penetrate)
G01 Z-0.125000 F400.0(Penetrate)
G01 X91.388541 Y137.543511 Z-0.125000 F800.000000
G01 X110.170000 Y137.282862 Z-0.125000
G00 Z3.000000

(End cutting path id: path20439)


(Start cutting path id: path20367)
(Change tool to Default tool)

G00 Z3.000000
G00 X78.755203 Y150.176849

G00 Z4.875000 (Fast pre-penetrate)
G01 Z-0.125000 F400.0(Penetrate)
G01 X93.178254 Y154.274607 Z-0.125000 F800.000000
G01 X113.144209 Y152.829463 Z-0.125000
G00 Z3.000000

(End cutting path id: path20367)


(Start cutting path id: path20365)
(Change tool to Default tool)

G00 Z3.000000
G00 X78.715830 Y150.730690

G00 Z4.875000 (Fast pre-penetrate)
G01 Z-0.125000 F400.0(Penetrate)
G01 X93.220828 Y154.746499 Z-0.125000 F800.000000
G01 X112.859131 Y153.629006 Z-0.125000
G00 Z3.000000

(End cutting path id: path20365)


(Start cutting path id: path20363)
(Change tool to Default tool)

G00 Z3.000000
G00 X78.676455 Y151.284531

G00 Z4.875000 (Fast pre-penetrate)
G01 Z-0.125000 F400.0(Penetrate)
G01 X93.263402 Y155.218393 Z-0.125000 F800.000000
G01 X112.574054 Y154.428549 Z-0.125000
G00 Z3.000000

(End cutting path id: path20363)


(Start cutting path id: path20361)
(Change tool to Default tool)

G00 Z3.000000
G00 X78.637082 Y151.838369

G00 Z4.875000 (Fast pre-penetrate)
G01 Z-0.125000 F400.0(Penetrate)
G01 X93.305977 Y155.690285 Z-0.125000 F800.000000
G01 X112.288979 Y155.228095 Z-0.125000
G00 Z3.000000

(End cutting path id: path20361)


(Start cutting path id: path20357)
(Change tool to Default tool)

G00 Z3.000000
G00 X78.558334 Y152.946051

G00 Z4.875000 (Fast pre-penetrate)
G01 Z-0.125000 F400.0(Penetrate)
G01 X93.391125 Y156.634071 Z-0.125000 F800.000000
G01 X111.718823 Y156.827182 Z-0.125000
G00 Z3.000000

(End cutting path id: path20357)


(Start cutting path id: path20351)
(Change tool to Default tool)

G00 Z3.000000
G00 X78.440214 Y154.607572

G00 Z4.875000 (Fast pre-penetrate)
G01 Z-0.125000 F400.0(Penetrate)
G01 X93.518847 Y158.049749 Z-0.125000 F800.000000
G01 X110.863593 Y159.225815 Z-0.125000
G00 Z3.000000

(End cutting path id: path20351)


(Start cutting path id: path20343)
(Change tool to Default tool)

G00 Z3.000000
G00 X78.282721 Y156.822933

G00 Z4.875000 (Fast pre-penetrate)
G01 Z-0.125000 F400.0(Penetrate)
G01 X93.689143 Y159.937321 Z-0.125000 F800.000000
G01 X109.723286 Y162.423988 Z-0.125000
G00 Z3.000000

(End cutting path id: path20343)


(Start cutting path id: path20331)
(Change tool to Default tool)

G00 Z3.000000
G00 X78.046480 Y160.145976

G00 Z4.875000 (Fast pre-penetrate)
G01 Z-0.125000 F400.0(Penetrate)
G01 X93.944587 Y162.768679 Z-0.125000 F800.000000
G01 X108.012823 Y167.221254 Z-0.125000
G00 Z3.000000

(End cutting path id: path20331)


(Start cutting path id: path20313)
(Change tool to Default tool)

G00 Z3.000000
G00 X77.692119 Y165.130540

G00 Z4.875000 (Fast pre-penetrate)
G01 Z-0.125000 F400.0(Penetrate)
G01 X94.327754 Y167.015715 Z-0.125000 F800.000000
G01 X105.447132 Y174.417147 Z-0.125000
G00 Z3.000000

(End cutting path id: path20313)


(Start cutting path id: path20295)
(Change tool to Default tool)

G00 Z3.000000
G00 X77.337760 Y170.115101

G00 Z4.875000 (Fast pre-penetrate)
G01 Z-0.125000 F400.0(Penetrate)
G01 X94.710920 Y171.262751 Z-0.125000 F800.000000
G01 X102.881439 Y181.613042 Z-0.125000
G00 Z3.000000

(End cutting path id: path20295)


(Start cutting path id: path20297)
(Change tool to Default tool)

G00 Z3.000000
G00 X77.377133 Y169.561263

G00 Z4.875000 (Fast pre-penetrate)
G01 Z-0.125000 F400.0(Penetrate)
G01 X94.668346 Y170.790857 Z-0.125000 F800.000000
G01 X103.166517 Y180.813499 Z-0.125000
G00 Z3.000000

(End cutting path id: path20297)


(Start cutting path id: path20299)
(Change tool to Default tool)

G00 Z3.000000
G00 X77.416505 Y169.007422

G00 Z4.875000 (Fast pre-penetrate)
G01 Z-0.125000 F400.0(Penetrate)
G01 X94.625772 Y170.318965 Z-0.125000 F800.000000
G01 X103.451592 Y180.013956 Z-0.125000
G00 Z3.000000

(End cutting path id: path20299)


(Start cutting path id: path20301)
(Change tool to Default tool)

G00 Z3.000000
G00 X77.455881 Y168.453581

G00 Z4.875000 (Fast pre-penetrate)
G01 Z-0.125000 F400.0(Penetrate)
G01 X94.583198 Y169.847074 Z-0.125000 F800.000000
G01 X103.736669 Y179.214412 Z-0.125000
G00 Z3.000000

(End cutting path id: path20301)


(Start cutting path id: path20303)
(Change tool to Default tool)

G00 Z3.000000
G00 X77.495253 Y167.899740

G00 Z4.875000 (Fast pre-penetrate)
G01 Z-0.125000 F400.0(Penetrate)
G01 X94.540624 Y169.375179 Z-0.125000 F800.000000
G01 X104.021747 Y178.414866 Z-0.125000
G00 Z3.000000

(End cutting path id: path20303)


(Start cutting path id: path20305)
(Change tool to Default tool)

G00 Z3.000000
G00 X77.534626 Y167.345902

G00 Z4.875000 (Fast pre-penetrate)
G01 Z-0.125000 F400.0(Penetrate)
G01 X94.498050 Y168.903287 Z-0.125000 F800.000000
G01 X104.306824 Y177.615323 Z-0.125000
G00 Z3.000000

(End cutting path id: path20305)


(Start cutting path id: path20307)
(Change tool to Default tool)

G00 Z3.000000
G00 X77.573998 Y166.792061

G00 Z4.875000 (Fast pre-penetrate)
G01 Z-0.125000 F400.0(Penetrate)
G01 X94.455476 Y168.431393 Z-0.125000 F800.000000
G01 X104.591899 Y176.815780 Z-0.125000
G00 Z3.000000

(End cutting path id: path20307)


(Start cutting path id: path20309)
(Change tool to Default tool)

G00 Z3.000000
G00 X77.613374 Y166.238220

G00 Z4.875000 (Fast pre-penetrate)
G01 Z-0.125000 F400.0(Penetrate)
G01 X94.412902 Y167.959501 Z-0.125000 F800.000000
G01 X104.876977 Y176.016236 Z-0.125000
G00 Z3.000000

(End cutting path id: path20309)


(Start cutting path id: path20311)
(Change tool to Default tool)

G00 Z3.000000
G00 X77.652746 Y165.684379

G00 Z4.875000 (Fast pre-penetrate)
G01 Z-0.125000 F400.0(Penetrate)
G01 X94.370328 Y167.487607 Z-0.125000 F800.000000
G01 X105.162055 Y175.216693 Z-0.125000
G00 Z3.000000

(End cutting path id: path20311)


(Start cutting path id: path20315)
(Change tool to Default tool)

G00 Z3.000000
G00 X77.731494 Y164.576699

G00 Z4.875000 (Fast pre-penetrate)
G01 Z-0.125000 F400.0(Penetrate)
G01 X94.285180 Y166.543821 Z-0.125000 F800.000000
G01 X105.732207 Y173.617604 Z-0.125000
G00 Z3.000000

(End cutting path id: path20315)


(Start cutting path id: path20317)
(Change tool to Default tool)

G00 Z3.000000
G00 X77.770867 Y164.022858

G00 Z4.875000 (Fast pre-penetrate)
G01 Z-0.125000 F400.0(Penetrate)
G01 X94.242606 Y166.071929 Z-0.125000 F800.000000
G01 X106.017285 Y172.818060 Z-0.125000
G00 Z3.000000

(End cutting path id: path20317)


(Start cutting path id: path20319)
(Change tool to Default tool)

G00 Z3.000000
G00 X77.810239 Y163.469017

G00 Z4.875000 (Fast pre-penetrate)
G01 Z-0.125000 F400.0(Penetrate)
G01 X94.200032 Y165.600037 Z-0.125000 F800.000000
G01 X106.302362 Y172.018517 Z-0.125000
G00 Z3.000000

(End cutting path id: path20319)


(Start cutting path id: path20321)
(Change tool to Default tool)

G00 Z3.000000
G00 X77.849614 Y162.915179

G00 Z4.875000 (Fast pre-penetrate)
G01 Z-0.125000 F400.0(Penetrate)
G01 X94.157458 Y165.128143 Z-0.125000 F800.000000
G01 X106.587440 Y171.218973 Z-0.125000
G00 Z3.000000

(End cutting path id: path20321)


(Start cutting path id: path20323)
(Change tool to Default tool)

G00 Z3.000000
G00 X77.888987 Y162.361338

G00 Z4.875000 (Fast pre-penetrate)
G01 Z-0.125000 F400.0(Penetrate)
G01 X94.114883 Y164.656251 Z-0.125000 F800.000000
G01 X106.872515 Y170.419427 Z-0.125000
G00 Z3.000000

(End cutting path id: path20323)


(Start cutting path id: path20325)
(Change tool to Default tool)

G00 Z3.000000
G00 X77.928360 Y161.807497

G00 Z4.875000 (Fast pre-penetrate)
G01 Z-0.125000 F400.0(Penetrate)
G01 X94.072309 Y164.184357 Z-0.125000 F800.000000
G01 X107.157592 Y169.619884 Z-0.125000
G00 Z3.000000

(End cutting path id: path20325)


(Start cutting path id: path20327)
(Change tool to Default tool)

G00 Z3.000000
G00 X77.967735 Y161.253656

G00 Z4.875000 (Fast pre-penetrate)
G01 Z-0.125000 F400.0(Penetrate)
G01 X94.029735 Y163.712465 Z-0.125000 F800.000000
G01 X107.442670 Y168.820341 Z-0.125000
G00 Z3.000000

(End cutting path id: path20327)


(Start cutting path id: path20329)
(Change tool to Default tool)

G00 Z3.000000
G00 X78.007107 Y160.699817

G00 Z4.875000 (Fast pre-penetrate)
G01 Z-0.125000 F400.0(Penetrate)
G01 X93.987161 Y163.240571 Z-0.125000 F800.000000
G01 X107.727748 Y168.020797 Z-0.125000
G00 Z3.000000

(End cutting path id: path20329)


(Start cutting path id: path20333)
(Change tool to Default tool)

G00 Z3.000000
G00 X78.085855 Y159.592135

G00 Z4.875000 (Fast pre-penetrate)
G01 Z-0.125000 F400.0(Penetrate)
G01 X93.902013 Y162.296785 Z-0.125000 F800.000000
G01 X108.297900 Y166.421708 Z-0.125000
G00 Z3.000000

(End cutting path id: path20333)


(Start cutting path id: path20335)
(Change tool to Default tool)

G00 Z3.000000
G00 X78.125228 Y159.038294

G00 Z4.875000 (Fast pre-penetrate)
G01 Z-0.125000 F400.0(Penetrate)
G01 X93.859439 Y161.824893 Z-0.125000 F800.000000
G01 X108.582978 Y165.622165 Z-0.125000
G00 Z3.000000

(End cutting path id: path20335)


(Start cutting path id: path20337)
(Change tool to Default tool)

G00 Z3.000000
G00 X78.164601 Y158.484453

G00 Z4.875000 (Fast pre-penetrate)
G01 Z-0.125000 F400.0(Penetrate)
G01 X93.816865 Y161.353001 Z-0.125000 F800.000000
G01 X108.868055 Y164.822621 Z-0.125000
G00 Z3.000000

(End cutting path id: path20337)


(Start cutting path id: path20339)
(Change tool to Default tool)

G00 Z3.000000
G00 X78.203973 Y157.930615

G00 Z4.875000 (Fast pre-penetrate)
G01 Z-0.125000 F400.0(Penetrate)
G01 X93.774291 Y160.881107 Z-0.125000 F800.000000
G01 X109.153130 Y164.023078 Z-0.125000
G00 Z3.000000

(End cutting path id: path20339)


(Start cutting path id: path20341)
(Change tool to Default tool)

G00 Z3.000000
G00 X78.243348 Y157.376774

G00 Z4.875000 (Fast pre-penetrate)
G01 Z-0.125000 F400.0(Penetrate)
G01 X93.731717 Y160.409215 Z-0.125000 F800.000000
G01 X109.438208 Y163.223534 Z-0.125000
G00 Z3.000000

(End cutting path id: path20341)


(Start cutting path id: path20345)
(Change tool to Default tool)

G00 Z3.000000
G00 X78.322094 Y156.269092

G00 Z4.875000 (Fast pre-penetrate)
G01 Z-0.125000 F400.0(Penetrate)
G01 X93.646569 Y159.465429 Z-0.125000 F800.000000
G01 X110.008363 Y161.624445 Z-0.125000
G00 Z3.000000

(End cutting path id: path20345)


(Start cutting path id: path20347)
(Change tool to Default tool)

G00 Z3.000000
G00 X78.361469 Y155.715254

G00 Z4.875000 (Fast pre-penetrate)
G01 Z-0.125000 F400.0(Penetrate)
G01 X93.603995 Y158.993535 Z-0.125000 F800.000000
G01 X110.293438 Y160.824902 Z-0.125000
G00 Z3.000000

(End cutting path id: path20347)


(Start cutting path id: path20349)
(Change tool to Default tool)

G00 Z3.000000
G00 X78.400841 Y155.161413

G00 Z4.875000 (Fast pre-penetrate)
G01 Z-0.125000 F400.0(Penetrate)
G01 X93.561421 Y158.521643 Z-0.125000 F800.000000
G01 X110.578516 Y160.025358 Z-0.125000
G00 Z3.000000

(End cutting path id: path20349)


(Start cutting path id: path20353)
(Change tool to Default tool)

G00 Z3.000000
G00 X78.479589 Y154.053731

G00 Z4.875000 (Fast pre-penetrate)
G01 Z-0.125000 F400.0(Penetrate)
G01 X93.476273 Y157.577857 Z-0.125000 F800.000000
G01 X111.148671 Y158.426269 Z-0.125000
G00 Z3.000000

(End cutting path id: path20353)


(Start cutting path id: path20355)
(Change tool to Default tool)

G00 Z3.000000
G00 X78.518962 Y153.499892

G00 Z4.875000 (Fast pre-penetrate)
G01 Z-0.125000 F400.0(Penetrate)
G01 X93.433699 Y157.105965 Z-0.125000 F800.000000
G01 X111.433746 Y157.626726 Z-0.125000
G00 Z3.000000

(End cutting path id: path20355)


(Start cutting path id: path20359)
(Change tool to Default tool)

G00 Z3.000000
G00 X78.597710 Y152.392210

G00 Z4.875000 (Fast pre-penetrate)
G01 Z-0.125000 F400.0(Penetrate)
G01 X93.348551 Y156.162179 Z-0.125000 F800.000000
G01 X112.003901 Y156.027639 Z-0.125000
G00 Z3.000000

(End cutting path id: path20359)


(Start cutting path id: path20369)
(Change tool to Default tool)

G00 Z3.000000
G00 X78.605819 Y149.811764

G00 Z4.875000 (Fast pre-penetrate)
G01 Z-0.125000 F400.0(Penetrate)
G01 X93.128539 Y153.809854 Z-0.125000 F800.000000
G01 X113.061593 Y152.397613 Z-0.125000
G00 Z3.000000

(End cutting path id: path20369)


(Start cutting path id: path20371)
(Change tool to Default tool)

G00 Z3.000000
G00 X78.456436 Y149.446682

G00 Z4.875000 (Fast pre-penetrate)
G01 Z-0.125000 F400.0(Penetrate)
G01 X93.078827 Y153.345101 Z-0.125000 F800.000000
G01 X112.978974 Y151.965763 Z-0.125000
G00 Z3.000000

(End cutting path id: path20371)


(Start cutting path id: path20373)
(Change tool to Default tool)

G00 Z3.000000
G00 X78.307055 Y149.081597

G00 Z4.875000 (Fast pre-penetrate)
G01 Z-0.125000 F400.0(Penetrate)
G01 X93.029112 Y152.880350 Z-0.125000 F800.000000
G01 X112.896358 Y151.533914 Z-0.125000
G00 Z3.000000

(End cutting path id: path20373)


(Start cutting path id: path20375)
(Change tool to Default tool)

G00 Z3.000000
G00 X78.157671 Y148.716512

G00 Z4.875000 (Fast pre-penetrate)
G01 Z-0.125000 F400.0(Penetrate)
G01 X92.979396 Y152.415597 Z-0.125000 F800.000000
G01 X112.813742 Y151.102064 Z-0.125000
G00 Z3.000000

(End cutting path id: path20375)


(Start cutting path id: path20377)
(Change tool to Default tool)

G00 Z3.000000
G00 X78.008288 Y148.351430

G00 Z4.875000 (Fast pre-penetrate)
G01 Z-0.125000 F400.0(Penetrate)
G01 X92.929684 Y151.950843 Z-0.125000 F800.000000
G01 X112.731123 Y150.670211 Z-0.125000
G00 Z3.000000

(End cutting path id: path20377)


(Start cutting path id: path20379)
(Change tool to Default tool)

G00 Z3.000000
G00 X77.858907 Y147.986345

G00 Z4.875000 (Fast pre-penetrate)
G01 Z-0.125000 F400.0(Penetrate)
G01 X92.879969 Y151.486090 Z-0.125000 F800.000000
G01 X112.648507 Y150.238362 Z-0.125000
G00 Z3.000000

(End cutting path id: path20379)


(Start cutting path id: path20381)
(Change tool to Default tool)

G00 Z3.000000
G00 X77.709523 Y147.621260

G00 Z4.875000 (Fast pre-penetrate)
G01 Z-0.125000 F400.0(Penetrate)
G01 X92.830254 Y151.021337 Z-0.125000 F800.000000
G01 X112.565891 Y149.806512 Z-0.125000
G00 Z3.000000

(End cutting path id: path20381)


(Start cutting path id: path20383)
(Change tool to Default tool)

G00 Z3.000000
G00 X77.560139 Y147.256175

G00 Z4.875000 (Fast pre-penetrate)
G01 Z-0.125000 F400.0(Penetrate)
G01 X92.780541 Y150.556586 Z-0.125000 F800.000000
G01 X112.483273 Y149.374662 Z-0.125000
G00 Z3.000000

(End cutting path id: path20383)


(Start cutting path id: path20385)
(Change tool to Default tool)

G00 Z3.000000
G00 X77.410756 Y146.891093

G00 Z4.875000 (Fast pre-penetrate)
G01 Z-0.125000 F400.0(Penetrate)
G01 X92.730826 Y150.091833 Z-0.125000 F800.000000
G01 X112.400656 Y148.942813 Z-0.125000
G00 Z3.000000

(End cutting path id: path20385)


(Start cutting path id: path20387)
(Change tool to Default tool)

G00 Z3.000000
G00 X77.261375 Y146.526008

G00 Z4.875000 (Fast pre-penetrate)
G01 Z-0.125000 F400.0(Penetrate)
G01 X92.681114 Y149.627080 Z-0.125000 F800.000000
G01 X112.318040 Y148.510963 Z-0.125000
G00 Z3.000000

(End cutting path id: path20387)


(Start cutting path id: path20389)
(Change tool to Default tool)

G00 Z3.000000
G00 X77.111991 Y146.160923

G00 Z4.875000 (Fast pre-penetrate)
G01 Z-0.125000 F400.0(Penetrate)
G01 X92.631398 Y149.162326 Z-0.125000 F800.000000
G01 X112.235422 Y148.079113 Z-0.125000
G00 Z3.000000

(End cutting path id: path20389)


(Start cutting path id: path20391)
(Change tool to Default tool)

G00 Z3.000000
G00 X76.962608 Y145.795839

G00 Z4.875000 (Fast pre-penetrate)
G01 Z-0.125000 F400.0(Penetrate)
G01 X92.581683 Y148.697573 Z-0.125000 F800.000000
G01 X112.152806 Y147.647263 Z-0.125000
G00 Z3.000000

(End cutting path id: path20391)


(Start cutting path id: path20393)
(Change tool to Default tool)

G00 Z3.000000
G00 X76.813227 Y145.430756

G00 Z4.875000 (Fast pre-penetrate)
G01 Z-0.125000 F400.0(Penetrate)
G01 X92.531971 Y148.232823 Z-0.125000 F800.000000
G01 X112.070190 Y147.215411 Z-0.125000
G00 Z3.000000

(End cutting path id: path20393)


(Start cutting path id: path20395)
(Change tool to Default tool)

G00 Z3.000000
G00 X76.663843 Y145.065671

G00 Z4.875000 (Fast pre-penetrate)
G01 Z-0.125000 F400.0(Penetrate)
G01 X92.482256 Y147.768069 Z-0.125000 F800.000000
G01 X111.987571 Y146.783561 Z-0.125000
G00 Z3.000000

(End cutting path id: path20395)


(Start cutting path id: path20397)
(Change tool to Default tool)

G00 Z3.000000
G00 X76.514460 Y144.700587

G00 Z4.875000 (Fast pre-penetrate)
G01 Z-0.125000 F400.0(Penetrate)
G01 X92.432540 Y147.303316 Z-0.125000 F800.000000
G01 X111.904955 Y146.351712 Z-0.125000
G00 Z3.000000

(End cutting path id: path20397)


(Start cutting path id: path20399)
(Change tool to Default tool)

G00 Z3.000000
G00 X76.365076 Y144.335504

G00 Z4.875000 (Fast pre-penetrate)
G01 Z-0.125000 F400.0(Penetrate)
G01 X92.382828 Y146.838563 Z-0.125000 F800.000000
G01 X111.822339 Y145.919862 Z-0.125000
G00 Z3.000000

(End cutting path id: path20399)


(Start cutting path id: path20401)
(Change tool to Default tool)

G00 Z3.000000
G00 X76.215695 Y143.970420

G00 Z4.875000 (Fast pre-penetrate)
G01 Z-0.125000 F400.0(Penetrate)
G01 X92.333113 Y146.373809 Z-0.125000 F800.000000
G01 X111.739720 Y145.488012 Z-0.125000
G00 Z3.000000

(End cutting path id: path20401)


(Start cutting path id: path20403)
(Change tool to Default tool)

G00 Z3.000000
G00 X76.066312 Y143.605335

G00 Z4.875000 (Fast pre-penetrate)
G01 Z-0.125000 F400.0(Penetrate)
G01 X92.283398 Y145.909059 Z-0.125000 F800.000000
G01 X111.657104 Y145.056162 Z-0.125000
G00 Z3.000000

(End cutting path id: path20403)


(Start cutting path id: path20405)
(Change tool to Default tool)

G00 Z3.000000
G00 X75.916928 Y143.240250

G00 Z4.875000 (Fast pre-penetrate)
G01 Z-0.125000 F400.0(Penetrate)
G01 X92.233685 Y145.444306 Z-0.125000 F800.000000
G01 X111.574488 Y144.624313 Z-0.125000
G00 Z3.000000

(End cutting path id: path20405)


(Start cutting path id: path20407)
(Change tool to Default tool)

G00 Z3.000000
G00 X75.767545 Y142.875168

G00 Z4.875000 (Fast pre-penetrate)
G01 Z-0.125000 F400.0(Penetrate)
G01 X92.183970 Y144.979552 Z-0.125000 F800.000000
G01 X111.491872 Y144.192463 Z-0.125000
G00 Z3.000000

(End cutting path id: path20407)


(Start cutting path id: path20409)
(Change tool to Default tool)

G00 Z3.000000
G00 X75.618164 Y142.510083

G00 Z4.875000 (Fast pre-penetrate)
G01 Z-0.125000 F400.0(Penetrate)
G01 X92.134255 Y144.514799 Z-0.125000 F800.000000
G01 X111.409253 Y143.760611 Z-0.125000
G00 Z3.000000

(End cutting path id: path20409)


(Start cutting path id: path20411)
(Change tool to Default tool)

G00 Z3.000000
G00 X75.468780 Y142.144998

G00 Z4.875000 (Fast pre-penetrate)
G01 Z-0.125000 F400.0(Penetrate)
G01 X92.084542 Y144.050048 Z-0.125000 F800.000000
G01 X111.326637 Y143.328761 Z-0.125000
G00 Z3.000000

(End cutting path id: path20411)


(Start cutting path id: path20413)
(Change tool to Default tool)

G00 Z3.000000
G00 X75.319397 Y141.779913

G00 Z4.875000 (Fast pre-penetrate)
G01 Z-0.125000 F400.0(Penetrate)
G01 X92.034827 Y143.585295 Z-0.125000 F800.000000
G01 X111.244021 Y142.896911 Z-0.125000
G00 Z3.000000

(End cutting path id: path20413)


(Start cutting path id: path20415)
(Change tool to Default tool)

G00 Z3.000000
G00 X75.170016 Y141.414831

G00 Z4.875000 (Fast pre-penetrate)
G01 Z-0.125000 F400.0(Penetrate)
G01 X91.985112 Y143.120542 Z-0.125000 F800.000000
G01 X111.161403 Y142.465061 Z-0.125000
G00 Z3.000000

(End cutting path id: path20415)


(Start cutting path id: path20417)
(Change tool to Default tool)

G00 Z3.000000
G00 X75.020632 Y141.049746

G00 Z4.875000 (Fast pre-penetrate)
G01 Z-0.125000 F400.0(Penetrate)
G01 X91.935400 Y142.655789 Z-0.125000 F800.000000
G01 X111.078787 Y142.033212 Z-0.125000
G00 Z3.000000

(End cutting path id: path20417)


(Start cutting path id: path20419)
(Change tool to Default tool)

G00 Z3.000000
G00 X74.871249 Y140.684661

G00 Z4.875000 (Fast pre-penetrate)
G01 Z-0.125000 F400.0(Penetrate)
G01 X91.885684 Y142.191035 Z-0.125000 F800.000000
G01 X110.996171 Y141.601362 Z-0.125000
G00 Z3.000000

(End cutting path id: path20419)


(Start cutting path id: path20421)
(Change tool to Default tool)

G00 Z3.000000
G00 X74.721865 Y140.319579

G00 Z4.875000 (Fast pre-penetrate)
G01 Z-0.125000 F400.0(Penetrate)
G01 X91.835969 Y141.726285 Z-0.125000 F800.000000
G01 X110.913552 Y141.169512 Z-0.125000
G00 Z3.000000

(End cutting path id: path20421)


(Start cutting path id: path20423)
(Change tool to Default tool)

G00 Z3.000000
G00 X74.572484 Y139.954494

G00 Z4.875000 (Fast pre-penetrate)
G01 Z-0.125000 F400.0(Penetrate)
G01 X91.786257 Y141.261531 Z-0.125000 F800.000000
G01 X110.830936 Y140.737662 Z-0.125000
G00 Z3.000000

(End cutting path id: path20423)


(Start cutting path id: path20425)
(Change tool to Default tool)

G00 Z3.000000
G00 X74.423101 Y139.589409

G00 Z4.875000 (Fast pre-penetrate)
G01 Z-0.125000 F400.0(Penetrate)
G01 X91.736542 Y140.796778 Z-0.125000 F800.000000
G01 X110.748320 Y140.305810 Z-0.125000
G00 Z3.000000

(End cutting path id: path20425)


(Start cutting path id: path20427)
(Change tool to Default tool)

G00 Z3.000000
G00 X74.273717 Y139.224324

G00 Z4.875000 (Fast pre-penetrate)
G01 Z-0.125000 F400.0(Penetrate)
G01 X91.686826 Y140.332025 Z-0.125000 F800.000000
G01 X110.665701 Y139.873960 Z-0.125000
G00 Z3.000000

(End cutting path id: path20427)


(Start cutting path id: path20429)
(Change tool to Default tool)

G00 Z3.000000
G00 X74.124336 Y138.859242

G00 Z4.875000 (Fast pre-penetrate)
G01 Z-0.125000 F400.0(Penetrate)
G01 X91.637114 Y139.867272 Z-0.125000 F800.000000
G01 X110.583085 Y139.442111 Z-0.125000
G00 Z3.000000

(End cutting path id: path20429)


(Start cutting path id: path20431)
(Change tool to Default tool)

G00 Z3.000000
G00 X73.974953 Y138.494157

G00 Z4.875000 (Fast pre-penetrate)
G01 Z-0.125000 F400.0(Penetrate)
G01 X91.587399 Y139.402521 Z-0.125000 F800.000000
G01 X110.500469 Y139.010261 Z-0.125000
G00 Z3.000000

(End cutting path id: path20431)


(Start cutting path id: path20433)
(Change tool to Default tool)

G00 Z3.000000
G00 X73.825569 Y138.129072

G00 Z4.875000 (Fast pre-penetrate)
G01 Z-0.125000 F400.0(Penetrate)
G01 X91.537684 Y138.937768 Z-0.125000 F800.000000
G01 X110.417850 Y138.578411 Z-0.125000
G00 Z3.000000

(End cutting path id: path20433)


(Start cutting path id: path20435)
(Change tool to Default tool)

G00 Z3.000000
G00 X73.676185 Y137.763988

G00 Z4.875000 (Fast pre-penetrate)
G01 Z-0.125000 F400.0(Penetrate)
G01 X91.487971 Y138.473015 Z-0.125000 F800.000000
G01 X110.335234 Y138.146561 Z-0.125000
G00 Z3.000000

(End cutting path id: path20435)


(Start cutting path id: path20437)
(Change tool to Default tool)

G00 Z3.000000
G00 X73.526804 Y137.398905

G00 Z4.875000 (Fast pre-penetrate)
G01 Z-0.125000 F400.0(Penetrate)
G01 X91.438256 Y138.008261 Z-0.125000 F800.000000
G01 X110.252618 Y137.714712 Z-0.125000
G00 Z3.000000

(End cutting path id: path20437)



(Footer)
M5
G00 X0.0000 Y0.0000
M2
(Using default footer. To add your own footer create file "footer" in the output dir.)
(end)
%