%
(Header)
(Generated by gcodetools from Inkscape.)
(Using default header. To add your own header create file "header" in the output dir.)
M3
(Header end.)
G21 (All units in mm)

(Start cutting path id: path900794)
(Change tool to Default tool)

G00 Z3.000000
G00 X89.279719 Y209.231802

G00 Z4.875000 (Fast pre-penetrate)
G01 Z-0.125000 F400.0(Penetrate)
G03 X89.410535 Y211.445496 Z-0.125000 I-3.553839 J1.320723 F800.000000
G03 X84.225025 Y231.333202 Z-0.125000 I-577.459683 J-139.946649
G03 X78.354808 Y251.029589 Z-0.125000 I-572.245812 J-159.826433
G03 X77.095698 Y252.854800 Z-0.125000 I-3.612196 J-1.144950
G03 X75.031897 Y253.663235 Z-0.125000 I-2.352822 J-2.967875
G03 X54.514907 Y254.877024 Z-0.125000 I-45.345674 J-592.481063
G03 X33.968347 Y255.380542 Z-0.125000 I-24.828624 J-593.693413
G03 X31.843463 Y254.747182 Z-0.125000 I-0.027309 J-3.789487
G03 X30.436545 Y253.033410 Z-0.125000 I2.097958 J-3.156704
G03 X22.942153 Y233.896039 Z-0.125000 I549.540645 J-226.241914
G03 X16.113928 Y214.510822 Z-0.125000 I557.035261 J-207.104625
G03 X16.059762 Y212.295119 Z-0.125000 I3.593585 J-1.196363
G03 X17.254929 Y210.427284 Z-0.125000 I3.650546 J1.019575
G03 X33.139676 Y197.385841 Z-0.125000 I384.965131 J452.700795
G03 X49.466075 Y184.901353 Z-0.125000 I369.092546 J465.757585
G03 X51.556722 Y184.164977 Z-0.125000 I2.248849 J3.048745
G03 X53.702653 Y184.724537 Z-0.125000 I0.158232 J3.787812
G03 X71.014548 Y195.801302 Z-0.125000 I-311.477112 J505.874864
G03 X87.932890 Y207.470244 Z-0.125000 I-328.775980 J494.778494
G03 X89.279719 Y209.231802 Z-0.125000 I-2.205034 J3.081546
G00 Z3.000000

(End cutting path id: path900794)


(Start cutting path id: path900792)
(Change tool to Default tool)

G00 Z3.000000
G00 X88.910811 Y211.671879

G00 Z4.875000 (Fast pre-penetrate)
G01 Z-0.125000 F400.0(Penetrate)
G03 X88.913566 Y213.823730 Z-0.125000 I-3.516770 J1.080430 F800.000000
G03 X82.775048 Y232.803795 Z-0.125000 I-551.802519 J-167.980853
G03 X75.983912 Y251.560148 Z-0.125000 I-545.627416 J-186.948383
G03 X74.661916 Y253.257702 Z-0.125000 I-3.434540 J-1.311161
G03 X72.616314 Y253.925192 Z-0.125000 I-2.114259 J-3.011158
G03 X52.668324 Y253.952551 Z-0.125000 I-10.765122 J-576.800177
G03 X32.731499 Y253.290230 Z-0.125000 I9.182409 J-576.798653
G03 X30.707782 Y252.557659 Z-0.125000 I0.185722 J-3.674581
G03 X29.440318 Y250.818326 Z-0.125000 I2.208601 J-2.940895
G03 X23.250311 Y231.854929 Z-0.125000 I545.077556 J-188.415455
G03 X17.719774 Y212.688704 Z-0.125000 I551.307891 J-169.464454
G03 X17.790983 Y210.537457 Z-0.125000 I3.553629 J-0.959172
G03 X19.053747 Y208.795179 Z-0.125000 I3.481030 J1.194222
G03 X35.176222 Y197.048253 Z-0.125000 I347.771074 J460.373046
G03 X51.694963 Y185.865837 Z-0.125000 I331.618958 J472.077776
G03 X53.762613 Y185.269181 Z-0.125000 I2.009054 J3.081229
G03 X55.810214 Y185.931407 Z-0.125000 I-0.058596 J3.677883
G03 X71.964673 Y197.634823 Z-0.125000 I-330.229944 J472.823873
G03 X87.704724 Y209.889929 Z-0.125000 I-346.378202 J461.112204
G03 X88.910811 Y211.671879 Z-0.125000 I-2.308769 J2.861792
G00 Z3.000000

(End cutting path id: path900792)


(Start cutting path id: path900790)
(Change tool to Default tool)

G00 Z3.000000
G00 X88.369411 Y213.960868

G00 Z4.875000 (Fast pre-penetrate)
G01 Z-0.125000 F400.0(Penetrate)
G03 X88.255619 Y216.043625 Z-0.125000 I-3.460701 J0.855410 F800.000000
G03 X81.282578 Y234.087102 Z-0.125000 I-525.088769 J-192.555470
G03 X73.689831 Y251.878344 Z-0.125000 I-518.071229 J-210.580859
G03 X72.317528 Y253.450340 Z-0.125000 I-3.254200 J-1.455827
G03 X70.300426 Y253.985609 Z-0.125000 I-1.883912 J-3.031067
G03 X50.985577 Y252.929557 Z-0.125000 I20.874678 J-558.950257
G03 X31.718925 Y251.206251 Z-0.125000 I40.185645 J-557.840316
G03 X29.799993 Y250.387023 Z-0.125000 I0.378946 J-3.544664
G03 X28.667703 Y248.634273 Z-0.125000 I2.299953 J-2.727897
G03 X23.703576 Y229.938152 Z-0.125000 I538.094686 J-152.880055
G03 X19.388887 Y211.081654 Z-0.125000 I543.009085 J-134.171647
G03 X19.575085 Y209.003910 Z-0.125000 I3.487175 J-0.734710
G03 X20.892389 Y207.384878 Z-0.125000 I3.305559 J1.344104
G03 X37.138797 Y196.886463 Z-0.125000 I311.585931 J464.362564
G03 X53.738537 Y186.956235 Z-0.125000 I295.337830 J474.858258
G03 X55.773348 Y186.490479 Z-0.125000 I1.778877 J3.093870
G03 X57.719399 Y187.243089 Z-0.125000 I-0.258016 J3.559455
G03 X72.724365 Y199.450874 Z-0.125000 I-345.532964 J440.030691
G03 X87.298100 Y212.169896 Z-0.125000 I-360.497010 J427.774351
G03 X88.369411 Y213.960868 Z-0.125000 I-2.391471 J2.646415
G00 Z3.000000

(End cutting path id: path900790)


(Start cutting path id: path900788)
(Change tool to Default tool)

G00 Z3.000000
G00 X87.635373 Y215.880950

G00 Z4.875000 (Fast pre-penetrate)
G01 Z-0.125000 F400.0(Penetrate)
G03 X87.427864 Y217.892003 Z-0.125000 I-3.391816 J0.666249 F800.000000
G03 X79.840156 Y235.025896 Z-0.125000 I-499.232998 J-210.837206
G03 X71.664569 Y251.887320 Z-0.125000 I-491.651369 J-227.973918
G03 X70.263985 Y253.344578 Z-0.125000 I-3.082643 J-1.561071
G03 X68.287880 Y253.768896 Z-0.125000 I-1.681504 J-3.017333
G03 X49.647500 Y251.848016 Z-0.125000 I46.202190 J-539.754120
G03 X31.084856 Y249.283590 Z-0.125000 I64.838849 J-537.802378
G03 X29.266147 Y248.401469 Z-0.125000 I0.531679 J-3.412107
G03 X28.251412 Y246.652269 Z-0.125000 I2.351366 J-2.532991
G03 X24.318159 Y228.331107 Z-0.125000 I527.553092 J-122.839758
G03 X21.020919 Y209.884634 Z-0.125000 I531.519201 J-104.525058
G03 X21.297493 Y207.882078 Z-0.125000 I3.411941 J-0.549151
G03 X22.647871 Y206.376903 Z-0.125000 I3.137169 J1.456194
G03 X38.857585 Y196.974912 Z-0.125000 I279.952684 J463.984377
G03 X55.382720 Y188.139002 Z-0.125000 I263.725169 J473.354418
G03 X57.372367 Y187.783544 Z-0.125000 I1.575671 J3.073516
G03 X59.220402 Y188.601426 Z-0.125000 I-0.411826 J3.427331
G03 X73.171492 Y201.112216 Z-0.125000 I-354.668680 J409.533755
G03 X86.681617 Y214.098007 Z-0.125000 I-368.659949 J397.066241
G03 X87.635373 Y215.880950 Z-0.125000 I-2.439173 J2.451366
G00 Z3.000000

(End cutting path id: path900788)


(Start cutting path id: path900786)
(Change tool to Default tool)

G00 Z3.000000
G00 X86.731361 Y217.265927

G00 Z4.875000 (Fast pre-penetrate)
G01 Z-0.125000 F400.0(Penetrate)
G03 X86.463413 Y219.203462 Z-0.125000 I-3.299339 J0.531018 F800.000000
G03 X78.547406 Y235.519137 Z-0.125000 I-475.522128 J-220.634692
G03 X70.071848 Y251.551178 Z-0.125000 I-467.623022 J-236.958932
G03 X68.667484 Y252.913976 Z-0.125000 I-2.930137 J-1.614510
G03 X66.741116 Y253.257848 Z-0.125000 I-1.525122 J-2.976038
G03 X48.778427 Y250.770882 Z-0.125000 I62.888847 J-520.342566
G03 X30.912365 Y247.663996 Z-0.125000 I80.853842 J-517.870369
G03 X29.183049 Y246.749569 Z-0.125000 I0.629631 J-3.283138
G03 X28.260525 Y245.023711 Z-0.125000 I2.358421 J-2.370135
G03 X25.074703 Y227.171818 Z-0.125000 I514.227418 J-100.978459
G03 X22.508386 Y209.220157 Z-0.125000 I517.446271 J-83.131873
G03 X22.843631 Y207.292834 Z-0.125000 I3.317282 J-0.415800
G03 X24.199781 Y205.882835 Z-0.125000 I2.983248 J1.512137
G03 X40.193930 Y197.335951 Z-0.125000 I255.076772 J458.097348
G03 X56.473929 Y189.347359 Z-0.125000 I239.073005 J466.625461
G03 X58.411100 Y189.070314 Z-0.125000 I1.421468 J3.028141
G03 X60.170703 Y189.924068 Z-0.125000 I-0.515658 J3.302944
G03 X73.241685 Y202.494833 Z-0.125000 I-356.902458 J384.185307
G03 X85.870079 Y215.509974 Z-0.125000 I-369.950398 J371.591397
G03 X86.731361 Y217.265927 Z-0.125000 I-2.437958 J2.285003
G00 Z3.000000

(End cutting path id: path900786)


(Start cutting path id: path900784)
(Change tool to Default tool)

G00 Z3.000000
G00 X85.700183 Y218.025146

G00 Z4.875000 (Fast pre-penetrate)
G01 Z-0.125000 F400.0(Penetrate)
G03 X85.407972 Y219.893103 Z-0.125000 I-3.197005 J0.456715 F800.000000
G03 X77.475937 Y235.525905 Z-0.125000 I-455.774210 J-221.429641
G03 X69.007890 Y250.875049 Z-0.125000 I-447.867889 J-237.076054
G03 X67.627492 Y252.167348 Z-0.125000 I-2.802134 J-1.609762
G03 X65.760309 Y252.466247 Z-0.125000 I-1.422244 J-2.903097
G03 X48.441469 Y249.753553 Z-0.125000 I69.746495 J-501.928730
G03 X31.227145 Y246.443499 Z-0.125000 I87.056002 J-499.162519
G03 X29.570842 Y245.529531 Z-0.125000 I0.665175 J-3.163205
G03 X28.709319 Y243.846229 Z-0.125000 I2.319584 J-2.249294
G03 X25.937481 Y226.536774 Z-0.125000 I499.010540 J-88.785374
G03 X23.765842 Y209.141616 Z-0.125000 I501.811233 J-71.480030
G03 X24.122846 Y207.285279 Z-0.125000 I3.212271 J-0.344725
G03 X25.458598 Y205.945401 Z-0.125000 I2.859150 J1.514587
G03 X41.064105 Y197.960449 Z-0.125000 I238.687136 J447.239782
G03 X56.936576 Y190.519705 Z-0.125000 I223.087506 J455.236728
G03 X58.812743 Y190.285316 Z-0.125000 I1.321298 J2.950244
G03 X60.499860 Y191.141026 Z-0.125000 I-0.554446 J3.184161
G03 X72.916530 Y203.515466 Z-0.125000 I-351.253903 J364.869357
G03 X84.897538 Y216.312217 Z-0.125000 I-363.673442 J352.497696
G03 X85.700183 Y218.025146 Z-0.125000 I-2.397269 J2.167829
G00 Z3.000000

(End cutting path id: path900784)


(Start cutting path id: path900782)
(Change tool to Default tool)

G00 Z3.000000
G00 X84.573315 Y218.147276

G00 Z4.875000 (Fast pre-penetrate)
G01 Z-0.125000 F400.0(Penetrate)
G03 X84.292931 Y219.950831 Z-0.125000 I-3.088437 J0.443438 F800.000000
G03 X76.652348 Y235.054068 Z-0.125000 I-440.567486 J-213.394601
G03 X68.494291 Y249.883955 Z-0.125000 I-432.910310 J-228.489080
G03 X67.162895 Y251.133651 Z-0.125000 I-2.708616 J-1.551629
G03 X65.360268 Y251.424597 Z-0.125000 I-1.376788 J-2.800445
G03 X48.635680 Y248.825304 Z-0.125000 I66.773924 J-484.747284
G03 X32.010974 Y245.649171 Z-0.125000 I83.502451 J-482.170734
G03 X30.410642 Y244.769052 Z-0.125000 I0.639009 J-3.056931
G03 X29.577312 Y243.144738 Z-0.125000 I2.239175 J-2.174696
G03 X26.881311 Y226.434632 Z-0.125000 I481.824660 J-86.309902
G03 X24.764696 Y209.641483 Z-0.125000 I484.483034 J-69.594391
G03 X25.107439 Y207.848084 Z-0.125000 I3.102057 J-0.336606
G03 X26.394909 Y206.553312 Z-0.125000 I2.760451 J1.457393
G03 X41.453315 Y198.825903 Z-0.125000 I230.923636 J431.465144
G03 X56.769932 Y191.623859 Z-0.125000 I215.854690 J439.171110
G03 X58.581074 Y191.395816 Z-0.125000 I1.278144 J2.844992
G03 X60.209914 Y192.219430 Z-0.125000 I-0.530957 J3.072522
G03 X72.213182 Y204.153028 Z-0.125000 I-338.880305 J352.862231
G03 X83.796327 Y216.494552 Z-0.125000 I-350.877757 J340.922982
G03 X84.573315 Y218.147276 Z-0.125000 I-2.312085 J2.095973
G00 Z3.000000

(End cutting path id: path900782)


(Start cutting path id: path900780)
(Change tool to Default tool)

G00 Z3.000000
G00 X83.358313 Y217.701565

G00 Z4.875000 (Fast pre-penetrate)
G01 Z-0.125000 F400.0(Penetrate)
G03 X83.123157 Y219.445993 Z-0.125000 I-2.967357 J0.488052 F800.000000
G03 X76.049096 Y234.154463 Z-0.125000 I-428.933900 J-197.241020
G03 X68.470764 Y248.609905 Z-0.125000 I-421.939308 J-211.989415
G03 X67.211999 Y249.840586 Z-0.125000 I-2.643314 J-1.444549
G03 X65.479688 Y250.155695 Z-0.125000 I-1.381364 J-2.674805
G03 X49.305033 Y247.973071 Z-0.125000 I55.029990 J-468.831359
G03 X33.215475 Y245.232593 Z-0.125000 I71.206094 J-466.658236
G03 X31.655862 Y244.415254 Z-0.125000 I0.556832 J-2.959190
G03 X30.820520 Y242.865406 Z-0.125000 I2.114160 J-2.139538
G03 X27.898010 Y226.808104 Z-0.125000 I462.771511 J-92.521362
G03 X25.532407 Y210.659089 Z-0.125000 I465.768353 J-76.476265
G03 X25.827627 Y208.923329 Z-0.125000 I2.987087 J-0.384938
G03 X27.044047 Y207.649878 Z-0.125000 I2.690011 J1.351843
G03 X41.412238 Y199.908546 Z-0.125000 I231.014573 J411.566722
G03 X56.039667 Y192.668528 Z-0.125000 I216.659502 J419.333449
G03 X57.781565 Y192.413144 Z-0.125000 I1.288553 J2.720669
G03 X59.368106 Y193.175918 Z-0.125000 I-0.452954 J2.973490
G03 X71.170987 Y204.448752 Z-0.125000 I-319.914757 J346.772453
G03 X82.576816 Y216.122987 Z-0.125000 I-331.726723 J335.508806
G03 X83.358313 Y217.701565 Z-0.125000 I-2.190202 J2.067024
G00 Z3.000000

(End cutting path id: path900780)


(Start cutting path id: path900778)
(Change tool to Default tool)

G00 Z3.000000
G00 X82.045103 Y216.820216

G00 Z4.875000 (Fast pre-penetrate)
G01 Z-0.125000 F400.0(Penetrate)
G03 X81.880305 Y218.507338 Z-0.125000 I-2.839830 J0.574216 F800.000000
G03 X75.593313 Y232.911603 Z-0.125000 I-419.628567 J-174.580019
G03 X68.812052 Y247.089895 Z-0.125000 I-413.347753 J-188.987109
G03 X67.643860 Y248.318371 Z-0.125000 I-2.592253 J-1.295375
G03 X65.988351 Y248.683066 Z-0.125000 I-1.423810 J-2.523406
G03 X50.345969 Y247.155462 Z-0.125000 I36.335938 J-452.924637
G03 X34.765960 Y245.087807 Z-0.125000 I51.976386 J-451.380239
G03 X33.235995 Y244.356077 Z-0.125000 I0.430996 J-2.866521
G03 X32.377947 Y242.894021 Z-0.125000 I1.962593 J-2.134614
G03 X28.997493 Y227.545289 Z-0.125000 I442.172087 J-105.432039
G03 X26.149748 Y212.089210 Z-0.125000 I445.499966 J-90.072678
G03 X26.372804 Y210.407773 Z-0.125000 I2.860448 J-0.476052
G03 X27.497904 Y209.139792 Z-0.125000 I2.635598 J1.205459
G03 X41.050570 Y201.181780 Z-0.125000 I236.851157 J387.843377
G03 X54.870150 Y193.697264 Z-0.125000 I223.280113 J395.768814
G03 X56.537603 Y193.390183 Z-0.125000 I1.335504 J2.571113
G03 X58.091519 Y194.067915 Z-0.125000 I-0.329797 J2.876451
G03 X69.848491 Y204.498485 Z-0.125000 I-295.579249 J345.007859
G03 X81.237807 Y215.329614 Z-0.125000 I-307.371959 J334.616194
G03 X82.045103 Y216.820216 Z-0.125000 I-2.032842 J2.064881
G00 Z3.000000

(End cutting path id: path900778)


(Start cutting path id: path900776)
(Change tool to Default tool)

G00 Z3.000000
G00 X80.623612 Y215.680758

G00 Z4.875000 (Fast pre-penetrate)
G01 Z-0.125000 F400.0(Penetrate)
G03 X80.545126 Y217.309443 Z-0.125000 I-2.702882 J0.685981 F800.000000
G03 X75.191040 Y231.441482 Z-0.125000 I-411.135667 J-147.683232
G03 X69.351409 Y245.379657 Z-0.125000 I-405.717560 J-161.789741
G03 X68.287245 Y246.614849 Z-0.125000 I-2.549266 J-1.120285
G03 X66.714699 Y247.043966 Z-0.125000 I-1.487052 J-2.353524
G03 X51.619833 Y246.318653 Z-0.125000 I13.414326 J-436.608570
G03 X36.558950 Y245.071635 Z-0.125000 I28.512190 J-435.929113
G03 X35.055351 Y244.441694 Z-0.125000 I0.277958 J-2.772888
G03 X34.161511 Y243.078401 Z-0.125000 I1.781183 J-2.142498
G03 X30.186842 Y228.498563 Z-0.125000 I419.372319 J-122.158478
G03 X26.718934 Y213.790071 Z-0.125000 I423.317547 J-107.571159
G03 X26.853769 Y212.165435 Z-0.125000 I2.721113 J-0.592077
G03 X27.874206 Y210.893332 Z-0.125000 I2.587607 J1.030359
G03 X40.512003 Y202.607677 Z-0.125000 I245.746977 J361.047754
G03 X53.429286 Y194.763903 Z-0.125000 I233.152238 J369.401630
G03 X55.015388 Y194.389884 Z-0.125000 I1.404435 J2.405688
G03 X56.540317 Y194.967565 Z-0.125000 I-0.181624 J2.780991
G03 X68.326118 Y204.426718 Z-0.125000 I-267.551431 J345.432452
G03 X79.777997 Y214.287990 Z-0.125000 I-279.354417 J335.993968
G03 X80.623612 Y215.680758 Z-0.125000 I-1.853074 J2.078181
G00 Z3.000000

(End cutting path id: path900776)


(Start cutting path id: path900774)
(Change tool to Default tool)

G00 Z3.000000
G00 X79.103915 Y214.480864

G00 Z4.875000 (Fast pre-penetrate)
G01 Z-0.125000 F400.0(Penetrate)
G03 X79.117447 Y216.045678 Z-0.125000 I-2.550246 J0.804519 F800.000000
G03 X74.752726 Y229.881336 Z-0.125000 I-402.107309 J-119.246064
G03 X69.912105 Y243.557764 Z-0.125000 I-397.740564 J-133.081045
G03 X68.959588 Y244.799270 Z-0.125000 I-2.504807 J-0.935605
G03 X67.475428 Y245.295439 Z-0.125000 I-1.553336 J-2.178578
G03 X52.967825 Y245.419677 Z-0.125000 I-10.845542 J-419.354453
G03 X38.464818 Y245.042158 Z-0.125000 I3.661700 J-419.437418
G03 X36.989283 Y244.519756 Z-0.125000 I0.115830 J-2.672210
G03 X36.059250 Y243.261606 Z-0.125000 I1.593512 J-2.150753
G03 X31.458503 Y229.502829 Z-0.125000 I395.821478 J-140.005888
G03 X27.335921 Y215.593499 Z-0.125000 I400.396096 J-126.238873
G03 X27.376283 Y214.028858 Z-0.125000 I2.579522 J-0.716300
G03 X28.285742 Y212.754666 Z-0.125000 I2.538164 J0.849962
G03 X39.949671 Y204.127374 Z-0.125000 I255.294126 J332.954287
G03 X51.905054 Y195.908393 Z-0.125000 I243.633756 J341.586569
G03 X53.405037 Y195.463871 Z-0.125000 I1.476545 J2.229399
G03 X54.897034 Y195.934596 Z-0.125000 I-0.023440 J2.674153
G03 X66.706797 Y204.361404 Z-0.125000 I-237.718297 J345.639494
G03 X78.217955 Y213.191461 Z-0.125000 I-249.499360 J337.173901
G03 X79.103915 Y214.480864 Z-0.125000 I-1.662531 J2.091417
G00 Z3.000000

(End cutting path id: path900774)


(Start cutting path id: path900772)
(Change tool to Default tool)

G00 Z3.000000
G00 X77.532596 Y213.405619

G00 Z4.875000 (Fast pre-penetrate)
G01 Z-0.125000 F400.0(Penetrate)
G03 X77.631618 Y214.902164 Z-0.125000 I-2.396361 J0.910109 F800.000000
G03 X74.217307 Y228.379738 Z-0.125000 I-391.349057 J-91.970268
G03 X70.339011 Y241.731174 Z-0.125000 I-387.956439 J-105.453740
G03 X69.495952 Y242.972359 Z-0.125000 I-2.451696 J-0.758372
G03 X68.103306 Y243.528790 Z-0.125000 I-1.606132 J-1.998873
G03 X54.230515 Y244.446573 Z-0.125000 I-33.471194 J-400.629214
G03 X40.334423 Y244.884096 Z-0.125000 I-19.596658 J-401.511249
G03 X38.894255 Y244.465616 Z-0.125000 I-0.036339 J-2.562295
G03 X37.934590 Y243.312960 Z-0.125000 I1.404966 J-2.145552
G03 X32.774388 Y230.402591 Z-0.125000 I370.612196 J-155.618039
G03 X28.063845 Y217.321600 Z-0.125000 I375.714598 J-142.685720
G03 X28.017150 Y215.823033 Z-0.125000 I2.423113 J-0.825516
G03 X28.816704 Y214.553699 Z-0.125000 I2.473504 J0.671575
G03 X39.500340 Y205.657144 Z-0.125000 I262.429838 J304.281902
G03 X50.485472 Y197.135401 Z-0.125000 I251.766102 J313.203212
G03 X51.896671 Y196.627252 Z-0.125000 I1.536211 J2.052643
G03 X53.350652 Y196.995538 Z-0.125000 I0.125009 J2.560739
G03 X65.113601 Y204.406888 Z-0.125000 I-208.368489 J343.753257
G03 X76.613228 Y212.220594 Z-0.125000 I-220.131822 J336.342493
G03 X77.532596 Y213.405619 Z-0.125000 I-1.477259 J2.095234
G00 Z3.000000

(End cutting path id: path900772)


(Start cutting path id: path900770)
(Change tool to Default tool)

G00 Z3.000000
G00 X75.980162 Y212.606109

G00 Z4.875000 (Fast pre-penetrate)
G01 Z-0.125000 F400.0(Penetrate)
G03 X76.149280 Y214.029736 Z-0.125000 I-2.241987 J0.988193 F800.000000
G03 X73.559915 Y227.074240 Z-0.125000 I-378.575529 J-68.368904
G03 X70.521270 Y240.021249 Z-0.125000 I-375.988972 J-81.414016
G03 X69.777984 Y241.248693 Z-0.125000 I-2.379202 J-0.601967
G03 X68.475726 Y241.849479 Z-0.125000 I-1.633415 J-1.828799
G03 X55.269563 Y243.417598 Z-0.125000 I-51.974947 J-381.322244
G03 X42.017046 Y244.528514 Z-0.125000 I-38.771694 J-382.919107
G03 X40.620440 Y244.201212 Z-0.125000 I-0.162734 J-2.448935
G03 X39.646062 Y243.147933 Z-0.125000 I1.234502 J-2.119359
G03 X34.073591 Y231.073046 Z-0.125000 I346.400327 J-167.184472
G03 X28.921771 Y218.812550 Z-0.125000 I352.014555 J-155.127987
G03 X28.801550 Y217.383021 Z-0.125000 I2.278601 J-0.911446
G03 X29.502249 Y216.131004 Z-0.125000 I2.397674 J0.519789
G03 X39.264265 Y207.099724 Z-0.125000 I265.960918 J277.688670
G03 X49.332699 Y198.411514 Z-0.125000 I256.170989 J286.688713
G03 X50.655228 Y197.856104 Z-0.125000 I1.568468 J1.882505
G03 X52.062349 Y198.135111 Z-0.125000 I0.247868 J2.437698
G03 X63.668032 Y204.628642 Z-0.125000 I-181.881811 J338.689659
G03 X75.042264 Y211.519718 Z-0.125000 I-193.515444 J332.244117
G03 X75.980162 Y212.606109 Z-0.125000 I-1.308325 J2.077544
G00 Z3.000000

(End cutting path id: path900770)


(Start cutting path id: path900768)
(Change tool to Default tool)

G00 Z3.000000
G00 X74.530973 Y212.176766

G00 Z4.875000 (Fast pre-penetrate)
G01 Z-0.125000 F400.0(Penetrate)
G03 X74.748218 Y213.529046 Z-0.125000 I-2.101434 J1.031187 F800.000000
G03 X72.789679 Y226.071548 Z-0.125000 I-363.534388 J-50.342507
G03 X70.398513 Y238.538941 Z-0.125000 I-361.580546 J-62.885826
G03 X69.737693 Y239.737809 Z-0.125000 I-2.289159 J-0.480235
G03 X68.519152 Y240.361824 Z-0.125000 I-1.629568 J-1.680370
G03 X55.985029 Y242.374616 Z-0.125000 I-64.483996 J-361.523985
G03 X43.388871 Y243.952965 Z-0.125000 I-51.947492 J-363.520117
G03 X42.044449 Y243.695066 Z-0.125000 I-0.250721 J-2.326167
G03 X41.073551 Y242.728713 Z-0.125000 I1.093174 J-2.069223
G03 X35.286076 Y231.430937 Z-0.125000 I323.399942 J-172.798315
G03 X29.893148 Y219.939626 Z-0.125000 I329.179161 J-161.496489
G03 X29.723190 Y218.580396 Z-0.125000 I2.134926 J-0.957193
G03 X30.341765 Y217.359571 Z-0.125000 I2.303970 J0.400266
G03 X39.298574 Y208.363988 Z-0.125000 I264.662368 J254.564678
G03 X48.560943 Y199.683341 Z-0.125000 I255.726620 J263.581969
G03 X49.800320 Y199.101324 Z-0.125000 I1.571664 J1.736176
G03 X51.152953 Y199.312832 Z-0.125000 I0.330347 J2.318295
G03 X62.476322 Y205.051217 Z-0.125000 I-160.306259 J330.368356
G03 X73.594343 Y211.177460 Z-0.125000 I-171.608986 J324.590928
G03 X74.530973 Y212.176766 Z-0.125000 I-1.165140 J2.030657
G00 Z3.000000

(End cutting path id: path900768)


(Start cutting path id: path900766)
(Change tool to Default tool)

G00 Z3.000000
G00 X73.253017 Y212.162916

G00 Z4.875000 (Fast pre-penetrate)
G01 Z-0.125000 F400.0(Penetrate)
G03 X73.492768 Y213.444476 Z-0.125000 I-1.972850 J1.032283 F800.000000
G03 X71.931623 Y225.432885 Z-0.125000 I-347.164529 J-39.112346
G03 X69.956626 Y237.360055 Z-0.125000 I-345.606971 J-51.101286
G03 X69.356195 Y238.517770 Z-0.125000 I-2.191303 J-0.401925
G03 X68.210327 Y239.142200 Z-0.125000 I-1.593168 J-1.559977
G03 X56.326867 Y241.362009 Z-0.125000 I-70.064180 J-342.161380
G03 X44.373511 Y243.169260 Z-0.125000 I-58.183139 J-344.395509
G03 X43.086959 Y242.955991 Z-0.125000 I-0.294885 J-2.208316
G03 X42.139069 Y242.059752 Z-0.125000 I0.988809 J-1.995171
G03 X36.355656 Y231.443370 Z-0.125000 I303.744790 J-172.352461
G03 X30.942991 Y220.632921 Z-0.125000 I309.587833 J-161.767237
G03 X30.748073 Y219.343393 Z-0.125000 I2.010212 J-0.963348
G03 X31.307928 Y218.165481 Z-0.125000 I2.205425 J0.326223
G03 X39.617276 Y209.384621 Z-0.125000 I258.033796 J235.855984
G03 X48.225321 Y200.896267 Z-0.125000 I249.725532 J244.637907
G03 X49.391122 Y200.312550 Z-0.125000 I1.536872 J1.613416
G03 X50.685186 Y200.480607 Z-0.125000 I0.372645 J2.196847
G03 X61.604416 Y205.669735 Z-0.125000 I-144.353764 J317.839579
G03 X72.337582 Y211.233928 Z-0.125000 I-155.281467 J312.667509
G03 X73.253017 Y212.162916 Z-0.125000 I-1.059098 J1.959179
G00 Z3.000000

(End cutting path id: path900766)


(Start cutting path id: path900764)
(Change tool to Default tool)

G00 Z3.000000
G00 X72.179030 Y212.554487

G00 Z4.875000 (Fast pre-penetrate)
G01 Z-0.125000 F400.0(Penetrate)
G03 X72.415137 Y213.770371 Z-0.125000 I-1.868208 J0.993644 F800.000000
G03 X71.011557 Y225.169582 Z-0.125000 I-330.290117 J-34.882446
G03 X69.214689 Y236.513513 Z-0.125000 I-328.920683 J-46.286462
G03 X68.652375 Y237.617535 Z-0.125000 I-2.086730 J-0.367625
G03 X67.567768 Y238.218001 Z-0.125000 I-1.524263 J-1.473454
G03 X56.292714 Y240.405273 Z-0.125000 I-68.891175 J-324.969314
G03 X44.948456 Y242.201535 Z-0.125000 I-57.621505 J-327.187154
G03 X43.725307 Y242.007912 Z-0.125000 I-0.294964 J-2.096891
G03 X42.819875 Y241.163190 Z-0.125000 I0.927407 J-1.901673
G03 X37.255104 Y231.115855 Z-0.125000 I287.692321 J-165.904674
G03 X32.041172 Y220.882273 Z-0.125000 I293.254816 J-155.856129
G03 X31.847241 Y219.658160 Z-0.125000 I1.904308 J-0.929109
G03 X32.371305 Y218.535097 Z-0.125000 I2.097291 J0.294871
G03 X40.206993 Y210.138017 Z-0.125000 I246.570982 J222.231883
G03 X48.328519 Y202.017004 Z-0.125000 I238.739375 J230.632907
G03 X49.432671 Y201.454526 Z-0.125000 I1.471294 J1.523201
G03 X50.661482 Y201.605800 Z-0.125000 I0.367175 J2.083913
G03 X61.069311 Y206.463421 Z-0.125000 I-135.229891 J303.319077
G03 X71.302564 Y211.677868 Z-0.125000 I-145.618745 J298.422569
G03 X72.179030 Y212.554487 Z-0.125000 I-0.994289 J1.870580
G00 Z3.000000

(End cutting path id: path900764)


(Start cutting path id: path900762)
(Change tool to Default tool)

G00 Z3.000000
G00 X71.293904 Y213.306152

G00 Z4.875000 (Fast pre-penetrate)
G01 Z-0.125000 F400.0(Penetrate)
G03 X71.503419 Y214.461265 Z-0.125000 I-1.783426 J0.920037 F800.000000
G03 X70.042073 Y225.243552 Z-0.125000 I-312.336672 J-36.841461
G03 X68.208626 Y235.968750 Z-0.125000 I-310.855233 J-47.620670
G03 X67.662746 Y237.008145 Z-0.125000 I-1.971101 J-0.372160
G03 X66.628703 Y237.564309 Z-0.125000 I-1.426460 J-1.412782
G03 X55.922862 Y239.506140 Z-0.125000 I-61.482749 J-308.488149
G03 X45.156227 Y241.076536 Z-0.125000 I-50.772485 J-310.402939
G03 X43.999784 Y240.878526 Z-0.125000 I-0.254867 J-1.987500
G03 X43.151149 Y240.067688 Z-0.125000 I0.899236 J-1.790670
G03 X37.995594 Y230.485847 Z-0.125000 I274.197233 J-153.711034
G03 X33.174672 Y220.731192 Z-0.125000 I279.375590 J-144.140959
G03 X33.005585 Y219.570025 Z-0.125000 I1.811768 J-0.856720
G03 X33.514455 Y218.512884 Z-0.125000 I1.980942 J0.302508
G03 X41.034517 Y210.648413 Z-0.125000 I231.070373 J213.423482
G03 X48.822011 Y203.048813 Z-0.125000 I223.559641 J221.297189
G03 X49.874605 Y202.528513 Z-0.125000 I1.376890 J1.460641
G03 X51.036914 Y202.686491 Z-0.125000 I0.322653 J1.980894
G03 X60.840160 Y207.408826 Z-0.125000 I-131.831422 J286.209667
G03 X70.474444 Y212.466791 Z-0.125000 I-141.626434 J281.470968
G03 X71.293904 Y213.306152 Z-0.125000 I-0.963097 J1.759958
G00 Z3.000000

(End cutting path id: path900762)


(Start cutting path id: path900760)
(Change tool to Default tool)

G00 Z3.000000
G00 X70.544757 Y214.344885

G00 Z4.875000 (Fast pre-penetrate)
G01 Z-0.125000 F400.0(Penetrate)
G03 X70.709361 Y215.440825 Z-0.125000 I-1.710832 J0.817289 F800.000000
G03 X69.023643 Y225.577993 Z-0.125000 I-294.083409 J-43.694635
G03 X66.988635 Y235.650571 Z-0.125000 I-292.355988 J-53.824125
G03 X66.443966 Y236.616574 Z-0.125000 I-1.851804 J-0.407563
G03 X65.452517 Y237.111813 Z-0.125000 I-1.305901 J-1.374324
G03 X55.290652 Y238.641001 Z-0.125000 I-49.339923 J-293.348167
G03 X45.082113 Y239.818284 Z-0.125000 I-39.180712 J-294.897335
G03 X43.994748 Y239.599311 Z-0.125000 I-0.185003 J-1.890594
G03 X43.217001 Y238.809361 Z-0.125000 I0.902613 J-1.666512
G03 X38.622454 Y229.617404 Z-0.125000 I263.409799 J-137.408124
G03 X34.348602 Y220.272124 Z-0.125000 I267.979216 J-128.204144
G03 X34.221847 Y219.170900 Z-0.125000 I1.735480 J-0.757667
G03 X34.732904 Y218.187100 Z-0.125000 I1.864675 J0.344007
G03 X42.054836 Y210.976558 Z-0.125000 I212.158235 J208.112911
G03 X49.621577 Y204.023581 Z-0.125000 I204.819257 J215.305533
G03 X50.630047 Y203.562209 Z-0.125000 I1.258544 J1.418092
G03 X51.723916 Y203.744590 Z-0.125000 I0.248410 J1.881654
G03 X60.843780 Y208.480451 Z-0.125000 I-132.443957 J266.196808
G03 X69.794512 Y213.528637 Z-0.125000 I-141.553925 J261.442668
G03 X70.544757 Y214.344885 Z-0.125000 I-0.959827 J1.635128
G00 Z3.000000

(End cutting path id: path900760)


(Start cutting path id: path900758)
(Change tool to Default tool)

G00 Z3.000000
G00 X69.854787 Y215.571219

G00 Z4.875000 (Fast pre-penetrate)
G01 Z-0.125000 F400.0(Penetrate)
G03 X69.963999 Y216.608451 Z-0.125000 I-1.640141 J0.697060 F800.000000
G03 X67.953906 Y226.069187 Z-0.125000 I-274.494197 J-53.377029
G03 X65.617855 Y235.454679 Z-0.125000 I-272.477356 J-62.836209
G03 X65.065284 Y236.339579 Z-0.125000 I-1.722154 J-0.460414
G03 X64.112165 Y236.763900 Z-0.125000 I-1.170303 J-1.346142
G03 X54.493188 Y237.775391 Z-0.125000 I-34.057388 J-277.633049
G03 X44.845054 Y238.453714 Z-0.125000 I-24.438097 J-278.640951
G03 X43.832328 Y238.201743 Z-0.125000 I-0.094354 J-1.781940
G03 X43.133941 Y237.426364 Z-0.125000 I0.917618 J-1.528712
G03 X39.199580 Y228.590790 Z-0.125000 I253.493208 J-118.170814
G03 X35.572943 Y219.624186 Z-0.125000 I257.464894 J-109.351093
G03 X35.499803 Y218.584173 Z-0.125000 I1.663446 J-0.639562
G03 X36.022111 Y217.680202 Z-0.125000 I1.740752 J0.402916
G03 X43.209088 Y211.208227 Z-0.125000 I190.726667 J204.571027
G03 X50.615473 Y204.988680 Z-0.125000 I183.519289 J211.019544
G03 X51.583163 Y204.597165 Z-0.125000 I1.123996 J1.386474
G03 X52.603141 Y204.813748 Z-0.125000 I0.156176 J1.774544
G03 X60.979602 Y209.649341 Z-0.125000 I-135.556164 J244.490191
G03 X69.183513 Y214.771653 Z-0.125000 I-143.919847 J239.633322
G03 X69.854787 Y215.571219 Z-0.125000 I-0.970846 J1.496637
G00 Z3.000000

(End cutting path id: path900758)


(Start cutting path id: path900756)
(Change tool to Default tool)

G00 Z3.000000
G00 X69.148449 Y216.871838

G00 Z4.875000 (Fast pre-penetrate)
G01 Z-0.125000 F400.0(Penetrate)
G03 X69.198304 Y217.847910 Z-0.125000 I-1.567762 J0.569386 F800.000000
G03 X66.835694 Y226.602246 Z-0.125000 I-254.264122 J-63.924510
G03 X64.171769 Y235.269756 Z-0.125000 I-251.955736 J-72.694491
G03 X63.609800 Y236.070138 Z-0.125000 I-1.590076 J-0.518957
G03 X62.696352 Y236.419069 Z-0.125000 I-1.026618 J-1.317428
G03 X53.640169 Y236.877044 Z-0.125000 I-17.775906 J-261.738649
G03 X44.573331 Y237.021809 Z-0.125000 I-8.722023 J-262.265771
G03 X43.638431 Y236.734927 Z-0.125000 I0.002200 J-1.673946
G03 X43.024881 Y235.973844 Z-0.125000 I0.938706 J-1.384592
G03 X39.790871 Y227.502481 Z-0.125000 I243.611470 J-97.853608
G03 X36.851395 Y218.924589 Z-0.125000 I246.817951 J-89.372277
G03 X36.835676 Y217.947084 Z-0.125000 I1.590312 J-0.514452
G03 X37.369920 Y217.127202 Z-0.125000 I1.605988 J0.462478
G03 X44.426924 Y211.433600 Z-0.125000 I168.125096 J201.164465
G03 X51.676936 Y205.987133 Z-0.125000 I161.120299 J206.925115
G03 X52.601751 Y205.669892 Z-0.125000 I0.981524 J1.354698
G03 X53.546627 Y205.925204 Z-0.125000 I0.054741 J1.673503
G03 X61.141865 Y210.877563 Z-0.125000 I-139.339677 J222.000191
G03 X68.561231 Y216.089670 Z-0.125000 I-146.913671 J217.016450
G03 X69.148449 Y216.871838 Z-0.125000 I-0.983725 J1.350049
G00 Z3.000000

(End cutting path id: path900756)


(Start cutting path id: path900754)
(Change tool to Default tool)

G00 Z3.000000
G00 X68.371602 Y218.129649

G00 Z4.875000 (Fast pre-penetrate)
G01 Z-0.125000 F400.0(Penetrate)
G03 X68.364933 Y219.041804 Z-0.125000 I-1.493698 J0.445181 F800.000000
G03 X65.690255 Y227.071092 Z-0.125000 I-233.718408 J-73.395015
G03 X62.739825 Y235.003280 Z-0.125000 I-231.087290 J-81.439655
G03 X62.173201 Y235.718857 Z-0.125000 I-1.454969 J-0.569979
G03 X61.302753 Y235.994257 Z-0.125000 I-0.885939 J-1.286860
G03 X52.840187 Y235.931955 Z-0.125000 I-2.428452 J-244.910731
G03 X44.384883 Y235.577326 Z-0.125000 I6.033934 J-244.841143
G03 X43.528892 Y235.259297 Z-0.125000 I0.092439 J-1.559788
G03 X42.998184 Y234.517378 Z-0.125000 I0.947413 J-1.238474
G03 X40.442125 Y226.449426 Z-0.125000 I232.156841 J-77.989973
G03 X38.166391 Y218.298144 Z-0.125000 I234.719600 J-69.924017
G03 X38.204285 Y217.385539 Z-0.125000 I1.512679 J-0.394279
G03 X38.746472 Y216.651316 Z-0.125000 I1.472758 J0.520257
G03 X45.629650 Y211.727436 Z-0.125000 I145.921378 J196.713064
G03 X52.678784 Y207.044358 Z-0.125000 I139.012247 J201.599307
G03 X53.557385 Y206.799278 Z-0.125000 I0.839566 J1.312395
G03 X54.423867 Y207.087444 Z-0.125000 I-0.037054 J1.558208
G03 X61.233620 Y212.111767 Z-0.125000 I-141.751519 J199.250946
G03 X67.865618 Y217.368804 Z-0.125000 I-148.609328 J194.289450
G03 X68.371602 Y218.129649 Z-0.125000 I-0.992816 J1.208920
G00 Z3.000000

(End cutting path id: path900754)


(Start cutting path id: path900752)
(Change tool to Default tool)

G00 Z3.000000
G00 X67.495290 Y219.237631

G00 Z4.875000 (Fast pre-penetrate)
G01 Z-0.125000 F400.0(Penetrate)
G03 X67.442117 Y220.084154 Z-0.125000 I-1.411543 J0.336268 F800.000000
G03 X64.552056 Y227.391526 Z-0.125000 I-212.735368 J-79.911501
G03 X61.411061 Y234.594631 Z-0.125000 I-209.837771 J-87.215740
G03 X60.848659 Y235.229079 Z-0.125000 I-1.318515 J-0.602296
G03 X60.027887 Y235.439691 Z-0.125000 I-0.755195 J-1.238442
G03 X52.184526 Y234.948778 Z-0.125000 I10.278222 J-227.118723
G03 X44.363286 Y234.187091 Z-0.125000 I18.115488 J-226.551583
G03 X43.585550 Y233.847879 Z-0.125000 I0.165485 J-1.440612
G03 X43.131499 Y233.132943 Z-0.125000 I0.941261 J-1.099439
G03 X41.174903 Y225.521807 Z-0.125000 I219.321189 J-60.437976
G03 X39.482329 Y217.847610 Z-0.125000 I221.310642 J-52.834683
G03 X39.564081 Y217.004041 Z-0.125000 I1.421894 J-0.287949
G03 X40.104408 Y216.350671 Z-0.125000 I1.338698 J0.556976
G03 X46.738104 Y212.137735 Z-0.125000 I125.111775 J189.672061
G03 X53.513405 Y208.156786 Z-0.125000 I118.469964 J193.871718
G03 X54.341785 Y207.973991 Z-0.125000 I0.713095 J1.263155
G03 X55.129573 Y208.285567 Z-0.125000 I-0.115205 J1.442989
G03 X61.186247 Y213.293247 Z-0.125000 I-141.821312 J177.696189
G03 X67.066261 Y218.507284 Z-0.125000 I-147.880974 J172.691999
G03 X67.495290 Y219.237631 Z-0.125000 I-0.978890 J1.066217
G00 Z3.000000

(End cutting path id: path900752)


(Start cutting path id: path900750)
(Change tool to Default tool)

G00 Z3.000000
G00 X66.525806 Y220.117721

G00 Z4.875000 (Fast pre-penetrate)
G01 Z-0.125000 F400.0(Penetrate)
G03 X66.440703 Y220.895901 Z-0.125000 I-1.314430 J0.249996 F800.000000
G03 X63.462488 Y227.509878 Z-0.125000 I-192.733366 J-82.808581
G03 X60.257323 Y234.017107 Z-0.125000 I-189.790789 J-89.439352
G03 X59.711719 Y234.578140 Z-0.125000 I-1.191019 J-0.612449
G03 X58.946054 Y234.737314 Z-0.125000 I-0.643257 J-1.173114
G03 X51.735038 Y233.948919 Z-0.125000 I19.205960 J-209.038181
G03 X44.555782 Y232.911861 Z-0.125000 I26.412591 J-208.215225
G03 X43.853732 Y232.566146 Z-0.125000 I0.214101 J-1.320468
G03 X43.465249 Y231.886851 Z-0.125000 I0.915985 J-0.974577
G03 X41.986374 Y224.785251 Z-0.125000 I204.494779 J-46.289864
G03 X40.754065 Y217.636862 Z-0.125000 I205.967549 J-39.187102
G03 X40.865959 Y216.861766 Z-0.125000 I1.323213 J-0.204605
G03 X41.391895 Y216.282827 Z-0.125000 I1.209840 J0.570716
G03 X47.689332 Y212.682440 Z-0.125000 I107.335014 J180.432034
G03 X54.107374 Y209.301772 Z-0.125000 I101.034604 J184.027005
G03 X54.878149 Y209.168848 Z-0.125000 I0.602732 J1.193836
G03 X55.592342 Y209.490223 Z-0.125000 I-0.167867 J1.327317
G03 X60.962605 Y214.366132 Z-0.125000 I-138.129564 J157.529425
G03 X66.160977 Y219.425108 Z-0.125000 I-143.516202 J152.670936
G03 X66.525806 Y220.117721 Z-0.125000 I-0.949660 J0.942619
G00 Z3.000000

(End cutting path id: path900750)


(Start cutting path id: path900748)
(Change tool to Default tool)

G00 Z3.000000
G00 X65.482037 Y220.728370

G00 Z4.875000 (Fast pre-penetrate)
G01 Z-0.125000 F400.0(Penetrate)
G03 X65.380860 Y221.438339 Z-0.125000 I-1.211515 J0.189543 F800.000000
G03 X62.455075 Y227.409625 Z-0.125000 I-174.098144 J-81.601454
G03 X59.324622 Y233.276023 Z-0.125000 I-171.147695 J-87.560121
G03 X58.807707 Y233.773594 Z-0.125000 I-1.071383 J-0.595746
G03 X58.100827 Y233.896861 Z-0.125000 I-0.555040 J-1.094445
G03 X51.517849 Y232.960077 Z-0.125000 I23.777193 J-190.685693
G03 X44.971343 Y231.796102 Z-0.125000 I30.354335 J-189.712438
G03 X44.338474 Y231.458164 Z-0.125000 I0.235280 J-1.202184
G03 X44.002909 Y230.823862 Z-0.125000 I0.870171 J-0.866261
G03 X42.859854 Y224.273596 Z-0.125000 I188.815633 J-36.324166
G03 X41.943992 Y217.687804 Z-0.125000 I189.932788 J-29.769840
G03 X42.069630 Y216.981377 Z-0.125000 I1.217341 J-0.147881
G03 X42.569002 Y216.466138 Z-0.125000 I1.091875 J0.558633
G03 X48.445875 Y213.354941 Z-0.125000 I92.882094 J168.342807
G03 X54.426869 Y210.448795 Z-0.125000 I87.012022 J171.467408
G03 X55.137518 Y210.349856 Z-0.125000 I0.517149 J1.112872
G03 X55.780878 Y210.665683 Z-0.125000 I-0.195813 J1.212082
G03 X60.555768 Y215.293594 Z-0.125000 I-131.741059 J140.702257
G03 X65.168030 Y220.083309 Z-0.125000 I-136.498354 J136.056808
G03 X65.482037 Y220.728370 Z-0.125000 I-0.899655 J0.836898
G00 Z3.000000

(End cutting path id: path900748)


(Start cutting path id: path900746)
(Change tool to Default tool)

G00 Z3.000000
G00 X64.386646 Y221.072096

G00 Z4.875000 (Fast pre-penetrate)
G01 Z-0.125000 F400.0(Penetrate)
G03 X64.285153 Y221.716204 Z-0.125000 I-1.103245 J0.156212 F800.000000
G03 X61.544767 Y227.103985 Z-0.125000 I-157.079454 J-76.504480
G03 X58.619694 Y232.393682 Z-0.125000 I-154.343466 J-81.894595
G03 X58.142918 Y232.839364 Z-0.125000 I-0.967364 J-0.556993
G03 X57.498488 Y232.941995 Z-0.125000 I-0.489823 J-1.001111
G03 X51.527764 Y232.000036 Z-0.125000 I24.231344 J-172.987576
G03 X45.592976 Y230.852040 Z-0.125000 I30.210296 J-172.092491
G03 X45.022149 Y230.536525 Z-0.125000 I0.230848 J-1.091771
G03 X44.725581 Y229.955765 Z-0.125000 I0.799985 J-0.774620
G03 X43.776299 Y223.985899 Z-0.125000 I172.144412 J-30.433453
G03 X43.033929 Y217.986546 Z-0.125000 I173.147228 J-24.471152
G03 X43.157466 Y217.346508 Z-0.125000 I1.109270 J-0.117835
G03 X43.618666 Y216.885120 Z-0.125000 I0.985795 J0.524193
G03 X49.003014 Y214.137453 Z-0.125000 I82.227532 J154.484245
G03 X54.479154 Y211.577319 Z-0.125000 I76.851269 J157.248455
G03 X55.126186 Y211.496868 Z-0.125000 I0.455257 J1.019319
G03 X55.707374 Y211.792763 Z-0.125000 I-0.193590 J1.098968
G03 X59.984465 Y216.064460 Z-0.125000 I-121.314955 J125.745262
G03 X64.111085 Y220.481445 Z-0.125000 I-125.544424 J121.427506
G03 X64.386646 Y221.072096 Z-0.125000 I-0.825110 J0.744550
G00 Z3.000000

(End cutting path id: path900746)


(Start cutting path id: path900744)
(Change tool to Default tool)

G00 Z3.000000
G00 X63.259778 Y221.189189

G00 Z4.875000 (Fast pre-penetrate)
G01 Z-0.125000 F400.0(Penetrate)
G03 X63.170536 Y221.770104 Z-0.125000 I-0.994334 J0.144559 F800.000000
G03 X60.723539 Y226.628844 Z-0.125000 I-141.547762 J-68.241848
G03 X58.109800 Y231.400036 Z-0.125000 I-139.117747 J-73.109512
G03 X57.682098 Y231.803149 Z-0.125000 I-0.873572 J-0.498406
G03 X57.103528 Y231.897509 Z-0.125000 I-0.443580 J-0.898885
G03 X51.726225 Y231.071787 Z-0.125000 I21.192745 J-155.934317
G03 X46.381007 Y230.060736 Z-0.125000 I26.564328 J-155.075206
G03 X45.865726 Y229.778565 Z-0.125000 I0.203719 J-0.983588
G03 X45.596584 Y229.257443 Z-0.125000 I0.714832 J-0.699250
G03 X44.720287 Y223.888006 Z-0.125000 I154.595697 J-27.986368
G03 X44.030401 Y218.491441 Z-0.125000 I155.510013 J-22.622462
G03 X44.139541 Y217.914348 Z-0.125000 I0.998215 J-0.110084
G03 X44.551542 Y217.498046 Z-0.125000 I0.885237 J0.464067
G03 X49.387345 Y215.005267 Z-0.125000 I74.579549 J138.741768
G03 X54.306357 Y212.680940 Z-0.125000 I69.765351 J141.278297
G03 X54.888222 Y212.606109 Z-0.125000 I0.413510 J0.915721
G03 X55.413211 Y212.870558 Z-0.125000 I-0.170034 J0.990889
G03 X59.278441 Y216.698874 Z-0.125000 I-108.704856 J113.618467
G03 X63.009123 Y220.658798 Z-0.125000 I-112.584977 J109.804674
G03 X63.259778 Y221.189189 Z-0.125000 I-0.741722 J0.674951
G00 Z3.000000

(End cutting path id: path900744)


(Start cutting path id: path900742)
(Change tool to Default tool)

G00 Z3.000000
G00 X62.105211 Y221.148899

G00 Z4.875000 (Fast pre-penetrate)
G01 Z-0.125000 F400.0(Penetrate)
G03 X62.037853 Y221.666041 Z-0.125000 I-0.879047 J0.148461 F800.000000
G03 X59.962116 Y226.033776 Z-0.125000 I-127.306224 J-57.824316
G03 X57.736659 Y230.326972 Z-0.125000 I-125.226555 J-62.190098
G03 X57.364812 Y230.693909 Z-0.125000 I-0.786429 J-0.425073
G03 X56.851688 Y230.789380 Z-0.125000 I-0.412904 J-0.792540
G03 X52.056416 Y230.164155 Z-0.125000 I15.704551 J-139.150399
G03 X47.285468 Y229.373710 Z-0.125000 I20.500510 J-138.529820
G03 X46.822619 Y229.133921 Z-0.125000 I0.160958 J-0.877283
G03 X46.573127 Y228.675328 Z-0.125000 I0.625987 J-0.637724
G03 X45.685836 Y223.921843 Z-0.125000 I137.032895 J-28.038262
G03 X44.963390 Y219.140514 Z-0.125000 I137.911927 J-23.283383
G03 X45.048590 Y218.625723 Z-0.125000 I0.884544 J-0.118051
G03 X45.407171 Y218.246734 Z-0.125000 I0.798389 J0.396267
G03 X49.653796 Y215.933831 Z-0.125000 I68.919559 J121.485381
G03 X53.977862 Y213.769356 Z-0.125000 I64.669935 J123.792543
G03 X54.494133 Y213.691427 Z-0.125000 I0.385460 J0.804552
G03 X54.964627 Y213.914635 Z-0.125000 I-0.128554 J0.878453
G03 X58.476729 Y217.238857 Z-0.125000 I-94.320474 J103.168712
G03 X61.871740 Y220.682542 Z-0.125000 I-97.852201 J99.864519
G03 X62.105211 Y221.148899 Z-0.125000 I-0.645597 J0.614822
G00 Z3.000000

(End cutting path id: path900742)


(Start cutting path id: path900740)
(Change tool to Default tool)

G00 Z3.000000
G00 X60.930499 Y221.034324

G00 Z4.875000 (Fast pre-penetrate)
G01 Z-0.125000 F400.0(Penetrate)
G03 X60.889302 Y221.488941 Z-0.125000 I-0.763061 J0.160028 F800.000000
G03 X59.223042 Y225.378115 Z-0.125000 I-113.154334 J-46.177789
G03 X57.423198 Y229.207204 Z-0.125000 I-111.492180 J-50.068807
G03 X57.110480 Y229.540601 Z-0.125000 I-0.701624 J-0.344746
G03 X56.665890 Y229.642047 Z-0.125000 I-0.387672 J-0.674043
G03 X52.451606 Y229.259198 Z-0.125000 I8.936279 J-121.754095
G03 X48.253348 Y228.730545 Z-0.125000 I13.148449 J-121.351744
G03 X47.839948 Y228.535863 Z-0.125000 I0.110758 J-0.771451
G03 X47.606876 Y228.144436 Z-0.125000 I0.524642 J-0.577497
G03 X46.668855 Y224.018162 Z-0.125000 I118.958837 J-29.212518
G03 X45.874060 Y219.862500 Z-0.125000 I119.818958 J-25.069946
G03 X45.931198 Y219.408864 Z-0.125000 I0.769710 J-0.133467
G03 X46.231933 Y219.065683 Z-0.125000 I0.712504 J0.321018
G03 X49.866106 Y216.898751 Z-0.125000 I64.481529 J104.011402
G03 X53.572700 Y214.858948 Z-0.125000 I60.821795 J106.133729
G03 X54.021982 Y214.772969 Z-0.125000 I0.365253 J0.691772
G03 X54.441436 Y214.952672 Z-0.125000 I-0.083988 J0.775428
G03 X57.625440 Y217.739338 Z-0.125000 I-78.894467 J93.356013
G03 X60.710969 Y220.634465 Z-0.125000 I-82.048943 J90.536764
G03 X60.930499 Y221.034324 Z-0.125000 I-0.541582 J0.557531
G00 Z3.000000

(End cutting path id: path900740)


(Start cutting path id: path900738)
(Change tool to Default tool)

G00 Z3.000000
G00 X59.743196 Y220.929821

G00 Z4.875000 (Fast pre-penetrate)
G01 Z-0.125000 F400.0(Penetrate)
G03 X59.727630 Y221.320614 Z-0.125000 I-0.646597 J0.169951 F800.000000
G03 X58.470433 Y224.723084 Z-0.125000 I-99.024071 J-34.655420
G03 X57.096378 Y228.080024 Z-0.125000 I-97.759082 J-38.054856
G03 X56.843557 Y228.378479 Z-0.125000 I-0.613992 J-0.263802
G03 X56.465931 Y228.484379 Z-0.125000 I-0.362444 J-0.566196
G03 X52.842233 Y228.339763 Z-0.125000 I2.367020 J-104.783654
G03 X49.225676 Y228.069846 Z-0.125000 I5.989024 J-104.609433
G03 X48.863572 Y227.921437 Z-0.125000 I0.061259 J-0.665420
G03 X48.646491 Y227.596718 Z-0.125000 I0.420753 J-0.516202
G03 X47.663835 Y224.105353 Z-0.125000 I100.452260 J-30.156577
G03 X46.802465 Y220.582081 Z-0.125000 I101.464602 J-26.673016
G03 X46.831433 Y220.192006 Z-0.125000 I0.652631 J-0.147648
G03 X47.073621 Y219.884940 Z-0.125000 I0.622600 J0.242014
G03 X50.090221 Y217.871382 Z-0.125000 I59.644696 J86.089926
G03 X53.174610 Y215.963571 Z-0.125000 I56.613576 J88.080893
G03 X53.554867 Y215.870878 Z-0.125000 I0.341284 J0.573738
G03 X53.922039 Y216.006204 Z-0.125000 I-0.037011 J0.666192
G03 X56.769430 Y218.253038 Z-0.125000 I-63.452796 J83.340779
G03 X59.537469 Y220.597205 Z-0.125000 I-66.323824 J81.122856
G03 X59.743196 Y220.929821 Z-0.125000 I-0.440740 J0.502533
G00 Z3.000000

(End cutting path id: path900738)


(Start cutting path id: path900736)
(Change tool to Default tool)

G00 Z3.000000
G00 X58.555893 Y220.907158

G00 Z4.875000 (Fast pre-penetrate)
G01 Z-0.125000 F400.0(Penetrate)
G03 X58.553789 Y224.410708 Z-0.125000 I-5.404551 J1.748531 F800.000000
G03 X56.497313 Y227.242798 Z-0.125000 I-5.389495 J-1.750811
G03 X53.167073 Y228.320517 Z-0.125000 I-3.330240 J-4.606500
G03 X49.836833 Y227.242798 Z-0.125000 I-0.000000 J-5.684219
G03 X47.780357 Y224.410708 Z-0.125000 I3.333019 J-4.582901
G03 X47.778253 Y220.907158 Z-0.125000 I5.402448 J-1.755019
G03 X49.836136 Y218.074690 Z-0.125000 I5.385113 J1.748671
G03 X53.167073 Y216.992709 Z-0.125000 I3.330937 J4.586242
G03 X56.498010 Y218.074690 Z-0.125000 I0.000000 J5.668224
G03 X58.555893 Y220.907158 Z-0.125000 I-3.327230 J4.581139
G00 Z3.000000

(End cutting path id: path900736)


(Start cutting path id: line898205)
(Change tool to Default tool)

G00 Z3.000000
G00 X118.338239 Y222.522806

G00 Z4.875000 (Fast pre-penetrate)
G01 Z-0.125000 F400.0(Penetrate)
G01 X185.126707 Y255.097709 Z-0.125000 F800.000000
G00 Z3.000000

(End cutting path id: line898205)


(Start cutting path id: line898111)
(Change tool to Default tool)

G00 Z3.000000
G00 X185.126707 Y255.097709

G00 Z4.875000 (Fast pre-penetrate)
G01 Z-0.125000 F400.0(Penetrate)
G01 X122.732323 Y206.349887 Z-0.125000 F800.000000
G00 Z3.000000

(End cutting path id: line898111)


(Start cutting path id: line898195)
(Change tool to Default tool)

G00 Z3.000000
G00 X122.732323 Y206.349887

G00 Z4.875000 (Fast pre-penetrate)
G01 Z-0.125000 F400.0(Penetrate)
G01 X154.926245 Y184.634798 Z-0.125000 F800.000000
G00 Z3.000000

(End cutting path id: line898195)


(Start cutting path id: line898171)
(Change tool to Default tool)

G00 Z3.000000
G00 X154.926245 Y184.634798

G00 Z4.875000 (Fast pre-penetrate)
G01 Z-0.125000 F400.0(Penetrate)
G01 X198.408308 Y218.606721 Z-0.125000 F800.000000
G00 Z3.000000

(End cutting path id: line898171)


(Start cutting path id: line898135)
(Change tool to Default tool)

G00 Z3.000000
G00 X198.408308 Y218.606721

G00 Z4.875000 (Fast pre-penetrate)
G01 Z-0.125000 F400.0(Penetrate)
G01 X137.941855 Y259.391865 Z-0.125000 F800.000000
G00 Z3.000000

(End cutting path id: line898135)


(Start cutting path id: line898231)
(Change tool to Default tool)

G00 Z3.000000
G00 X137.941855 Y259.391865

G00 Z4.875000 (Fast pre-penetrate)
G01 Z-0.125000 F400.0(Penetrate)
G01 X129.980765 Y253.171974 Z-0.125000 F800.000000
G00 Z3.000000

(End cutting path id: line898231)


(Start cutting path id: line898225)
(Change tool to Default tool)

G00 Z3.000000
G00 X129.980765 Y253.171974

G00 Z4.875000 (Fast pre-penetrate)
G01 Z-0.125000 F400.0(Penetrate)
G01 X195.623614 Y208.895303 Z-0.125000 F800.000000
G00 Z3.000000

(End cutting path id: line898225)


(Start cutting path id: line898141)
(Change tool to Default tool)

G00 Z3.000000
G00 X195.623614 Y208.895303

G00 Z4.875000 (Fast pre-penetrate)
G01 Z-0.125000 F400.0(Penetrate)
G01 X165.022873 Y184.987384 Z-0.125000 F800.000000
G00 Z3.000000

(End cutting path id: line898141)


(Start cutting path id: line898165)
(Change tool to Default tool)

G00 Z3.000000
G00 X165.022873 Y184.987384

G00 Z4.875000 (Fast pre-penetrate)
G01 Z-0.125000 F400.0(Penetrate)
G01 X119.276956 Y215.843392 Z-0.125000 F800.000000
G00 Z3.000000

(End cutting path id: line898165)


(Start cutting path id: line898201)
(Change tool to Default tool)

G00 Z3.000000
G00 X119.276956 Y215.843392

G00 Z4.875000 (Fast pre-penetrate)
G01 Z-0.125000 F400.0(Penetrate)
G01 X176.751083 Y260.747115 Z-0.125000 F800.000000
G00 Z3.000000

(End cutting path id: line898201)


(Start cutting path id: line898105)
(Change tool to Default tool)

G00 Z3.000000
G00 X176.751083 Y260.747115

G00 Z4.875000 (Fast pre-penetrate)
G01 Z-0.125000 F400.0(Penetrate)
G01 X185.126707 Y255.097709 Z-0.125000 F800.000000
G00 Z3.000000

(End cutting path id: line898105)


(Start cutting path id: line898113)
(Change tool to Default tool)

G00 Z3.000000
G00 X187.571112 Y252.769911

G00 Z4.875000 (Fast pre-penetrate)
G01 Z-0.125000 F400.0(Penetrate)
G01 X196.452147 Y238.557293 Z-0.125000 F800.000000
G00 Z3.000000

(End cutting path id: line898113)


(Start cutting path id: line898123)
(Change tool to Default tool)

G00 Z3.000000
G00 X196.452147 Y238.557293

G00 Z4.875000 (Fast pre-penetrate)
G01 Z-0.125000 F400.0(Penetrate)
G01 X119.836684 Y235.881816 Z-0.125000 F800.000000
G00 Z3.000000

(End cutting path id: line898123)


(Start cutting path id: line898213)
(Change tool to Default tool)

G00 Z3.000000
G00 X119.836684 Y235.881816

G00 Z4.875000 (Fast pre-penetrate)
G01 Z-0.125000 F400.0(Penetrate)
G01 X196.452147 Y238.557293 Z-0.125000 F800.000000
G00 Z3.000000

(End cutting path id: line898213)


(Start cutting path id: line898121)
(Change tool to Default tool)

G00 Z3.000000
G00 X195.165859 Y241.678081

G00 Z4.875000 (Fast pre-penetrate)
G01 Z-0.125000 F400.0(Penetrate)
G01 X198.408308 Y218.606721 Z-0.125000 F800.000000
G00 Z3.000000

(End cutting path id: line898121)


(Start cutting path id: line898137)
(Change tool to Default tool)

G00 Z3.000000
G00 X197.752697 Y215.295518

G00 Z4.875000 (Fast pre-penetrate)
G01 Z-0.125000 F400.0(Penetrate)
G01 X174.714630 Y187.839824 Z-0.125000 F800.000000
G00 Z3.000000

(End cutting path id: line898137)


(Start cutting path id: line898159)
(Change tool to Default tool)

G00 Z3.000000
G00 X174.714630 Y187.839824

G00 Z4.875000 (Fast pre-penetrate)
G01 Z-0.125000 F400.0(Penetrate)
G01 X191.834203 Y247.542867 Z-0.125000 F800.000000
G00 Z3.000000

(End cutting path id: line898159)


(Start cutting path id: line898117)
(Change tool to Default tool)

G00 Z3.000000
G00 X191.834203 Y247.542867

G00 Z4.875000 (Fast pre-penetrate)
G01 Z-0.125000 F400.0(Penetrate)
G01 X198.690395 Y228.705568 Z-0.125000 F800.000000
G00 Z3.000000

(End cutting path id: line898117)


(Start cutting path id: line898129)
(Change tool to Default tool)

G00 Z3.000000
G00 X198.690395 Y228.705568

G00 Z4.875000 (Fast pre-penetrate)
G01 Z-0.125000 F400.0(Penetrate)
G01 X190.511272 Y200.181521 Z-0.125000 F800.000000
G00 Z3.000000

(End cutting path id: line898129)


(Start cutting path id: line898147)
(Change tool to Default tool)

G00 Z3.000000
G00 X190.511272 Y200.181521

G00 Z4.875000 (Fast pre-penetrate)
G01 Z-0.125000 F400.0(Penetrate)
G01 X167.233715 Y264.136108 Z-0.125000 F800.000000
G00 Z3.000000

(End cutting path id: line898147)


(Start cutting path id: line898099)
(Change tool to Default tool)

G00 Z3.000000
G00 X167.233715 Y264.136108

G00 Z4.875000 (Fast pre-penetrate)
G01 Z-0.125000 F400.0(Penetrate)
G01 X145.059143 Y186.804220 Z-0.125000 F800.000000
G00 Z3.000000

(End cutting path id: line898099)


(Start cutting path id: line898177)
(Change tool to Default tool)

G00 Z3.000000
G00 X145.059143 Y186.804220

G00 Z4.875000 (Fast pre-penetrate)
G01 Z-0.125000 F400.0(Penetrate)
G01 X123.816597 Y245.167642 Z-0.125000 F800.000000
G00 Z3.000000

(End cutting path id: line898177)


(Start cutting path id: line898219)
(Change tool to Default tool)

G00 Z3.000000
G00 X123.816597 Y245.167642

G00 Z4.875000 (Fast pre-penetrate)
G01 Z-0.125000 F400.0(Penetrate)
G01 X118.291101 Y225.897967 Z-0.125000 F800.000000
G00 Z3.000000

(End cutting path id: line898219)


(Start cutting path id: line898207)
(Change tool to Default tool)

G00 Z3.000000
G00 X118.291101 Y225.897967

G00 Z4.875000 (Fast pre-penetrate)
G01 Z-0.125000 F400.0(Penetrate)
G01 X128.440050 Y198.013940 Z-0.125000 F800.000000
G00 Z3.000000

(End cutting path id: line898207)


(Start cutting path id: line898189)
(Change tool to Default tool)

G00 Z3.000000
G00 X128.440050 Y198.013940

G00 Z4.875000 (Fast pre-penetrate)
G01 Z-0.125000 F400.0(Penetrate)
G01 X147.199675 Y263.436503 Z-0.125000 F800.000000
G00 Z3.000000

(End cutting path id: line898189)


(Start cutting path id: line898237)
(Change tool to Default tool)

G00 Z3.000000
G00 X147.199675 Y263.436503

G00 Z4.875000 (Fast pre-penetrate)
G01 Z-0.125000 F400.0(Penetrate)
G01 X174.714630 Y187.839824 Z-0.125000 F800.000000
G00 Z3.000000

(End cutting path id: line898237)


(Start cutting path id: line898157)
(Change tool to Default tool)

G00 Z3.000000
G00 X177.748484 Y189.319537

G00 Z4.875000 (Fast pre-penetrate)
G01 Z-0.125000 F400.0(Penetrate)
G01 X128.440050 Y198.013940 Z-0.125000 F800.000000
G00 Z3.000000

(End cutting path id: line898157)


(Start cutting path id: line898191)
(Change tool to Default tool)

G00 Z3.000000
G00 X126.306654 Y200.629756

G00 Z4.875000 (Fast pre-penetrate)
G01 Z-0.125000 F400.0(Penetrate)
G01 X165.022873 Y184.987384 Z-0.125000 F800.000000
G00 Z3.000000

(End cutting path id: line898191)


(Start cutting path id: line898167)
(Change tool to Default tool)

G00 Z3.000000
G00 X161.671143 Y184.587716

G00 Z4.875000 (Fast pre-penetrate)
G01 Z-0.125000 F400.0(Penetrate)
G01 X198.690395 Y228.705568 Z-0.125000 F800.000000
G00 Z3.000000

(End cutting path id: line898167)


(Start cutting path id: line898127)
(Change tool to Default tool)

G00 Z3.000000
G00 X198.220626 Y232.048204

G00 Z4.875000 (Fast pre-penetrate)
G01 Z-0.125000 F400.0(Penetrate)
G01 X123.816597 Y245.167642 Z-0.125000 F800.000000
G00 Z3.000000

(End cutting path id: line898127)


(Start cutting path id: line898221)
(Change tool to Default tool)

G00 Z3.000000
G00 X125.645125 Y248.004962

G00 Z4.875000 (Fast pre-penetrate)
G01 Z-0.125000 F400.0(Penetrate)
G01 X198.408308 Y218.606721 Z-0.125000 F800.000000
G00 Z3.000000

(End cutting path id: line898221)


(Start cutting path id: line898133)
(Change tool to Default tool)

G00 Z3.000000
G00 X198.784576 Y221.961170

G00 Z4.875000 (Fast pre-penetrate)
G01 Z-0.125000 F400.0(Penetrate)
G01 X183.392497 Y193.012877 Z-0.125000 F800.000000
G00 Z3.000000

(End cutting path id: line898133)


(Start cutting path id: line898153)
(Change tool to Default tool)

G00 Z3.000000
G00 X183.392497 Y193.012877

G00 Z4.875000 (Fast pre-penetrate)
G01 Z-0.125000 F400.0(Penetrate)
G01 X136.041538 Y191.359339 Z-0.125000 F800.000000
G00 Z3.000000

(End cutting path id: line898153)


(Start cutting path id: line898183)
(Change tool to Default tool)

G00 Z3.000000
G00 X136.041538 Y191.359339

G00 Z4.875000 (Fast pre-penetrate)
G01 Z-0.125000 F400.0(Penetrate)
G01 X183.392497 Y193.012877 Z-0.125000 F800.000000
G00 Z3.000000

(End cutting path id: line898183)


(Start cutting path id: line898155)
(Change tool to Default tool)

G00 Z3.000000
G00 X180.647901 Y191.047933

G00 Z4.875000 (Fast pre-penetrate)
G01 Z-0.125000 F400.0(Penetrate)
G01 X185.126707 Y255.097709 Z-0.125000 F800.000000
G00 Z3.000000

(End cutting path id: line898155)


(Start cutting path id: line898109)
(Change tool to Default tool)

G00 Z3.000000
G00 X182.496040 Y257.212799

G00 Z4.875000 (Fast pre-penetrate)
G01 Z-0.125000 F400.0(Penetrate)
G01 X191.834203 Y247.542867 Z-0.125000 F800.000000
G00 Z3.000000

(End cutting path id: line898109)


(Start cutting path id: line898115)
(Change tool to Default tool)

G00 Z3.000000
G00 X189.812220 Y250.245723

G00 Z4.875000 (Fast pre-penetrate)
G01 Z-0.125000 F400.0(Penetrate)
G01 X119.276956 Y215.843392 Z-0.125000 F800.000000
G00 Z3.000000

(End cutting path id: line898115)


(Start cutting path id: line898199)
(Change tool to Default tool)

G00 Z3.000000
G00 X120.161970 Y212.585997

G00 Z4.875000 (Fast pre-penetrate)
G01 Z-0.125000 F400.0(Penetrate)
G01 X145.059143 Y186.804220 Z-0.125000 F800.000000
G00 Z3.000000

(End cutting path id: line898199)


(Start cutting path id: line898179)
(Change tool to Default tool)

G00 Z3.000000
G00 X141.929447 Y188.068710

G00 Z4.875000 (Fast pre-penetrate)
G01 Z-0.125000 F400.0(Penetrate)
G01 X190.511272 Y200.181521 Z-0.125000 F800.000000
G00 Z3.000000

(End cutting path id: line898179)


(Start cutting path id: line898145)
(Change tool to Default tool)

G00 Z3.000000
G00 X192.457016 Y202.939780

G00 Z4.875000 (Fast pre-penetrate)
G01 Z-0.125000 F400.0(Penetrate)
G01 X154.926245 Y184.634798 Z-0.125000 F800.000000
G00 Z3.000000

(End cutting path id: line898145)


(Start cutting path id: line898173)
(Change tool to Default tool)

G00 Z3.000000
G00 X151.580426 Y185.081234

G00 Z4.875000 (Fast pre-penetrate)
G01 Z-0.125000 F400.0(Penetrate)
G01 X119.836684 Y235.881816 Z-0.125000 F800.000000
G00 Z3.000000

(End cutting path id: line898173)


(Start cutting path id: line898215)
(Change tool to Default tool)

G00 Z3.000000
G00 X120.902147 Y239.084734

G00 Z4.875000 (Fast pre-penetrate)
G01 Z-0.125000 F400.0(Penetrate)
G01 X119.276956 Y215.843392 Z-0.125000 F800.000000
G00 Z3.000000

(End cutting path id: line898215)


(Start cutting path id: line898203)
(Change tool to Default tool)

G00 Z3.000000
G00 X118.667622 Y219.163422

G00 Z4.875000 (Fast pre-penetrate)
G01 Z-0.125000 F400.0(Penetrate)
G01 X136.041538 Y191.359339 Z-0.125000 F800.000000
G00 Z3.000000

(End cutting path id: line898203)


(Start cutting path id: line898181)
(Change tool to Default tool)

G00 Z3.000000
G00 X138.916521 Y189.590636

G00 Z4.875000 (Fast pre-penetrate)
G01 Z-0.125000 F400.0(Penetrate)
G01 X129.980765 Y253.171974 Z-0.125000 F800.000000
G00 Z3.000000

(End cutting path id: line898181)


(Start cutting path id: line898227)
(Change tool to Default tool)

G00 Z3.000000
G00 X132.457460 Y255.465416

G00 Z4.875000 (Fast pre-penetrate)
G01 Z-0.125000 F400.0(Penetrate)
G01 X123.816597 Y245.167642 Z-0.125000 F800.000000
G00 Z3.000000

(End cutting path id: line898227)


(Start cutting path id: line898217)
(Change tool to Default tool)

G00 Z3.000000
G00 X122.231893 Y242.187260

G00 Z4.875000 (Fast pre-penetrate)
G01 Z-0.125000 F400.0(Penetrate)
G01 X198.690395 Y228.705568 Z-0.125000 F800.000000
G00 Z3.000000

(End cutting path id: line898217)


(Start cutting path id: line898131)
(Change tool to Default tool)

G00 Z3.000000
G00 X198.878837 Y225.335339

G00 Z4.875000 (Fast pre-penetrate)
G01 Z-0.125000 F400.0(Penetrate)
G01 X129.980765 Y253.171974 Z-0.125000 F800.000000
G00 Z3.000000

(End cutting path id: line898131)


(Start cutting path id: line898223)
(Change tool to Default tool)

G00 Z3.000000
G00 X127.704655 Y250.679324

G00 Z4.875000 (Fast pre-penetrate)
G01 Z-0.125000 F400.0(Penetrate)
G01 X119.836684 Y235.881816 Z-0.125000 F800.000000
G00 Z3.000000

(End cutting path id: line898223)


(Start cutting path id: line898211)
(Change tool to Default tool)

G00 Z3.000000
G00 X119.042959 Y232.600974

G00 Z4.875000 (Fast pre-penetrate)
G01 Z-0.125000 F400.0(Penetrate)
G01 X122.732323 Y206.349887 Z-0.125000 F800.000000
G00 Z3.000000

(End cutting path id: line898211)


(Start cutting path id: line898197)
(Change tool to Default tool)

G00 Z3.000000
G00 X121.316462 Y209.414068

G00 Z4.875000 (Fast pre-penetrate)
G01 Z-0.125000 F400.0(Penetrate)
G01 X167.233715 Y264.136108 Z-0.125000 F800.000000
G00 Z3.000000

(End cutting path id: line898197)


(Start cutting path id: line898101)
(Change tool to Default tool)

G00 Z3.000000
G00 X170.497193 Y263.273856

G00 Z4.875000 (Fast pre-penetrate)
G01 Z-0.125000 F400.0(Penetrate)
G01 X176.751083 Y260.747115 Z-0.125000 F800.000000
G00 Z3.000000

(End cutting path id: line898101)


(Start cutting path id: line898103)
(Change tool to Default tool)

G00 Z3.000000
G00 X173.677113 Y262.141541

G00 Z4.875000 (Fast pre-penetrate)
G01 Z-0.125000 F400.0(Penetrate)
G01 X136.041538 Y191.359339 Z-0.125000 F800.000000
G00 Z3.000000

(End cutting path id: line898103)


(Start cutting path id: line898185)
(Change tool to Default tool)

G00 Z3.000000
G00 X133.324628 Y193.362420

G00 Z4.875000 (Fast pre-penetrate)
G01 Z-0.125000 F400.0(Penetrate)
G01 X137.941855 Y259.391865 Z-0.125000 F800.000000
G00 Z3.000000

(End cutting path id: line898185)


(Start cutting path id: line898229)
(Change tool to Default tool)

G00 Z3.000000
G00 X135.117371 Y257.543573

G00 Z4.875000 (Fast pre-penetrate)
G01 Z-0.125000 F400.0(Penetrate)
G01 X190.511272 Y200.181521 Z-0.125000 F800.000000
G00 Z3.000000

(End cutting path id: line898229)


(Start cutting path id: line898149)
(Change tool to Default tool)

G00 Z3.000000
G00 X188.341541 Y197.595741

G00 Z4.875000 (Fast pre-penetrate)
G01 Z-0.125000 F400.0(Penetrate)
G01 X145.059143 Y186.804220 Z-0.125000 F800.000000
G00 Z3.000000

(End cutting path id: line898149)


(Start cutting path id: line898175)
(Change tool to Default tool)

G00 Z3.000000
G00 X148.283685 Y185.806068

G00 Z4.875000 (Fast pre-penetrate)
G01 Z-0.125000 F400.0(Penetrate)
G01 X195.623614 Y208.895303 Z-0.125000 F800.000000
G00 Z3.000000

(End cutting path id: line898175)


(Start cutting path id: line898143)
(Change tool to Default tool)

G00 Z3.000000
G00 X194.165129 Y205.851185

G00 Z4.875000 (Fast pre-penetrate)
G01 Z-0.125000 F400.0(Penetrate)
G01 X157.172505 Y265.051748 Z-0.125000 F800.000000
G00 Z3.000000

(End cutting path id: line898143)


(Start cutting path id: line898093)
(Change tool to Default tool)

G00 Z3.000000
G00 X157.172505 Y265.051748

G00 Z4.875000 (Fast pre-penetrate)
G01 Z-0.125000 F400.0(Penetrate)
G01 X157.172505 Y265.051748 Z-0.125000 F800.000000
G00 Z3.000000

(End cutting path id: line898093)


(Start cutting path id: line898241)
(Change tool to Default tool)

G00 Z3.000000
G00 X153.806969 Y264.792785

G00 Z4.875000 (Fast pre-penetrate)
G01 Z-0.125000 F400.0(Penetrate)
G01 X165.022873 Y184.987384 Z-0.125000 F800.000000
G00 Z3.000000

(End cutting path id: line898241)


(Start cutting path id: line898163)
(Change tool to Default tool)

G00 Z3.000000
G00 X168.329433 Y185.666114

G00 Z4.875000 (Fast pre-penetrate)
G01 Z-0.125000 F400.0(Penetrate)
G01 X196.452147 Y238.557293 Z-0.125000 F800.000000
G00 Z3.000000

(End cutting path id: line898163)


(Start cutting path id: line898125)
(Change tool to Default tool)

G00 Z3.000000
G00 X197.472790 Y235.339807

G00 Z4.875000 (Fast pre-penetrate)
G01 Z-0.125000 F400.0(Penetrate)
G01 X195.623614 Y208.895303 Z-0.125000 F800.000000
G00 Z3.000000

(End cutting path id: line898125)


(Start cutting path id: line898139)
(Change tool to Default tool)

G00 Z3.000000
G00 X196.822265 Y212.050791

G00 Z4.875000 (Fast pre-penetrate)
G01 Z-0.125000 F400.0(Penetrate)
G01 X147.199675 Y263.436503 Z-0.125000 F800.000000
G00 Z3.000000

(End cutting path id: line898139)


(Start cutting path id: line898239)
(Change tool to Default tool)

G00 Z3.000000
G00 X150.474893 Y264.253109

G00 Z4.875000 (Fast pre-penetrate)
G01 Z-0.125000 F400.0(Penetrate)
G01 X147.199675 Y263.436503 Z-0.125000 F800.000000
G00 Z3.000000

(End cutting path id: line898239)


(Start cutting path id: line898235)
(Change tool to Default tool)

G00 Z3.000000
G00 X144.004270 Y262.348699

G00 Z4.875000 (Fast pre-penetrate)
G01 Z-0.125000 F400.0(Penetrate)
G01 X137.941855 Y259.391865 Z-0.125000 F800.000000
G00 Z3.000000

(End cutting path id: line898235)


(Start cutting path id: line898233)
(Change tool to Default tool)

G00 Z3.000000
G00 X140.911098 Y260.997331

G00 Z4.875000 (Fast pre-penetrate)
G01 Z-0.125000 F400.0(Penetrate)
G01 X183.392497 Y193.012877 Z-0.125000 F800.000000
G00 Z3.000000

(End cutting path id: line898233)


(Start cutting path id: line898151)
(Change tool to Default tool)

G00 Z3.000000
G00 X185.963072 Y195.200598

G00 Z4.875000 (Fast pre-penetrate)
G01 Z-0.125000 F400.0(Penetrate)
G01 X176.751083 Y260.747115 Z-0.125000 F800.000000
G00 Z3.000000

(End cutting path id: line898151)


(Start cutting path id: line898107)
(Change tool to Default tool)

G00 Z3.000000
G00 X179.697635 Y259.100350

G00 Z4.875000 (Fast pre-penetrate)
G01 Z-0.125000 F400.0(Penetrate)
G01 X128.440050 Y198.013940 Z-0.125000 F800.000000
G00 Z3.000000

(End cutting path id: line898107)


(Start cutting path id: line898187)
(Change tool to Default tool)

G00 Z3.000000
G00 X130.784872 Y195.585820

G00 Z4.875000 (Fast pre-penetrate)
G01 Z-0.125000 F400.0(Penetrate)
G01 X174.714630 Y187.839824 Z-0.125000 F800.000000
G00 Z3.000000

(End cutting path id: line898187)


(Start cutting path id: line898161)
(Change tool to Default tool)

G00 Z3.000000
G00 X171.567587 Y186.619163

G00 Z4.875000 (Fast pre-penetrate)
G01 Z-0.125000 F400.0(Penetrate)
G01 X122.732323 Y206.349887 Z-0.125000 F800.000000
G00 Z3.000000

(End cutting path id: line898161)


(Start cutting path id: line898193)
(Change tool to Default tool)

G00 Z3.000000
G00 X124.399611 Y203.414910

G00 Z4.875000 (Fast pre-penetrate)
G01 Z-0.125000 F400.0(Penetrate)
G01 X157.172505 Y265.051748 Z-0.125000 F800.000000
G00 Z3.000000

(End cutting path id: line898193)


(Start cutting path id: line898095)
(Change tool to Default tool)

G00 Z3.000000
G00 X160.547909 Y265.028184

G00 Z4.875000 (Fast pre-penetrate)
G01 Z-0.125000 F400.0(Penetrate)
G01 X154.926245 Y184.634798 Z-0.125000 F800.000000
G00 Z3.000000

(End cutting path id: line898095)


(Start cutting path id: line898169)
(Change tool to Default tool)

G00 Z3.000000
G00 X158.297710 Y184.469910

G00 Z4.875000 (Fast pre-penetrate)
G01 Z-0.125000 F400.0(Penetrate)
G01 X118.291101 Y225.897967 Z-0.125000 F800.000000
G00 Z3.000000

(End cutting path id: line898169)


(Start cutting path id: line898209)
(Change tool to Default tool)

G00 Z3.000000
G00 X118.526567 Y229.265230

G00 Z4.875000 (Fast pre-penetrate)
G01 Z-0.125000 F400.0(Penetrate)
G01 X191.834203 Y247.542867 Z-0.125000 F800.000000
G00 Z3.000000

(End cutting path id: line898209)


(Start cutting path id: line898119)
(Change tool to Default tool)

G00 Z3.000000
G00 X193.622932 Y244.680296

G00 Z4.875000 (Fast pre-penetrate)
G01 Z-0.125000 F400.0(Penetrate)
G01 X118.291101 Y225.897967 Z-0.125000 F800.000000
G00 Z3.000000

(End cutting path id: line898119)


(Start cutting path id: path755965)
(Change tool to Default tool)

G00 Z3.000000
G00 X106.085383 Y270.490329

G00 Z4.875000 (Fast pre-penetrate)
G01 Z-0.125000 F400.0(Penetrate)
G01 X106.085383 Y26.544494 Z-0.125000 F800.000000
G00 Z3.000000

(End cutting path id: path755965)


(Start cutting path id: path897155)
(Change tool to Default tool)

G00 Z3.000000
G00 X153.194443 Y41.951324

G00 Z4.875000 (Fast pre-penetrate)
G01 Z-0.125000 F400.0(Penetrate)
G01 X153.163443 Y42.215024 Z-0.125000 F800.000000
G01 X153.043743 Y42.906764 Z-0.125000
G01 X152.874093 Y43.587824 Z-0.125000
G01 X152.626783 Y44.337004 Z-0.125000
G01 X152.360963 Y44.986084 Z-0.125000
G01 X152.056003 Y45.617454 Z-0.125000
G01 X151.671183 Y46.305274 Z-0.125000
G01 X151.296873 Y46.897464 Z-0.125000
G01 X150.896053 Y47.471684 Z-0.125000
G01 X150.417533 Y48.096754 Z-0.125000
G01 X149.971373 Y48.635664 Z-0.125000
G01 X149.508243 Y49.159644 Z-0.125000
G01 X148.969593 Y49.732354 Z-0.125000
G01 X148.477693 Y50.228534 Z-0.125000
G01 X147.975063 Y50.713444 Z-0.125000
G01 X147.398373 Y51.246434 Z-0.125000
G01 X146.877623 Y51.710944 Z-0.125000
G01 X146.350153 Y52.167404 Z-0.125000
G01 X145.749653 Y52.672104 Z-0.125000
G01 X145.210983 Y53.114484 Z-0.125000
G01 X144.668283 Y53.551564 Z-0.125000
G01 X144.053453 Y54.037494 Z-0.125000
G01 X143.504313 Y54.465744 Z-0.125000
G01 X142.953053 Y54.890924 Z-0.125000
G01 X142.330613 Y55.366074 Z-0.125000
G01 X141.776443 Y55.786884 Z-0.125000
G01 X141.221613 Y56.206564 Z-0.125000
G01 X140.596823 Y56.677784 Z-0.125000
G01 X140.041973 Y57.096964 Z-0.125000
G01 X139.487723 Y57.516744 Z-0.125000
G01 X138.865033 Y57.990094 Z-0.125000
G01 X138.313363 Y58.412874 Z-0.125000
G01 X137.763493 Y58.837854 Z-0.125000
G01 X137.147143 Y59.318954 Z-0.125000
G01 X136.602413 Y59.750244 Z-0.125000
G01 X136.060753 Y60.185234 Z-0.125000
G01 X135.455143 Y60.679424 Z-0.125000
G01 X134.988303 Y61.068274 Z-0.125000
G01 X134.325853 Y61.629974 Z-0.125000
G01 X133.802133 Y62.086054 Z-0.125000
G01 X133.283933 Y62.548324 Z-0.125000
G01 X132.771793 Y63.017224 Z-0.125000
G01 X132.203173 Y63.553084 Z-0.125000
G01 X131.705903 Y64.037604 Z-0.125000
G01 X131.216643 Y64.530154 Z-0.125000
G01 X130.736083 Y65.031154 Z-0.125000
G01 X130.206353 Y65.605244 Z-0.125000
G01 X129.746833 Y66.125514 Z-0.125000
G01 X129.242813 Y66.722214 Z-0.125000
G01 X128.808083 Y67.263294 Z-0.125000
G01 X128.386463 Y67.814594 Z-0.125000
G01 X127.978883 Y68.376314 Z-0.125000
G01 X127.537923 Y69.020824 Z-0.125000
G01 X127.163513 Y69.605094 Z-0.125000
G01 X126.762443 Y70.275054 Z-0.125000
G01 X126.425793 Y70.881794 Z-0.125000
G01 X126.108473 Y71.498844 Z-0.125000
G01 X125.771113 Y72.202944 Z-0.125000
G01 X125.476693 Y72.831194 Z-0.125000
G01 X125.185803 Y73.461044 Z-0.125000
G01 X124.898623 Y74.092564 Z-0.125000
G01 X124.579763 Y74.805084 Z-0.125000
G01 X124.301123 Y75.440344 Z-0.125000
G01 X123.992403 Y76.157254 Z-0.125000
G01 X123.723303 Y76.796534 Z-0.125000
G01 X123.459103 Y77.437844 Z-0.125000
G01 X123.167613 Y78.161854 Z-0.125000
G01 X122.914803 Y78.807684 Z-0.125000
G01 X122.667883 Y79.455794 Z-0.125000
G01 X122.397173 Y80.187764 Z-0.125000
G01 X122.164133 Y80.840934 Z-0.125000
G01 X121.938353 Y81.496644 Z-0.125000
G01 X121.720353 Y82.154954 Z-0.125000
G01 X121.484733 Y82.898884 Z-0.125000
G01 X121.285383 Y83.563044 Z-0.125000
G01 X121.072593 Y84.313784 Z-0.125000
G01 X120.895403 Y84.984154 Z-0.125000
G01 X120.730143 Y85.657534 Z-0.125000
G01 X120.559483 Y86.418874 Z-0.125000
G01 X120.423623 Y87.098754 Z-0.125000
G01 X120.303903 Y87.781644 Z-0.125000
G01 X120.190323 Y88.553454 Z-0.125000
G01 X120.111223 Y89.242174 Z-0.125000
G01 X120.055023 Y89.933094 Z-0.125000
G01 X120.022323 Y90.712384 Z-0.125000
G01 X120.025323 Y91.405494 Z-0.125000
G01 X120.061823 Y92.097624 Z-0.125000
G01 X120.148723 Y92.872564 Z-0.125000
G01 X120.273463 Y93.554294 Z-0.125000
G01 X120.448583 Y94.224864 Z-0.125000
G01 X120.679993 Y94.878224 Z-0.125000
G01 X121.013563 Y95.583134 Z-0.125000
G01 X121.379523 Y96.172254 Z-0.125000
G01 X121.868583 Y96.780524 Z-0.125000
G01 X122.368423 Y97.262724 Z-0.125000
G01 X122.921463 Y97.683974 Z-0.125000
G01 X123.594843 Y98.082734 Z-0.125000
G01 X124.228793 Y98.371664 Z-0.125000
G01 X124.886543 Y98.603284 Z-0.125000
G01 X125.645673 Y98.802184 Z-0.125000
G01 X126.332263 Y98.929954 Z-0.125000
G01 X127.025533 Y99.017354 Z-0.125000
G01 X127.809613 Y99.073754 Z-0.125000
G01 X128.508743 Y99.090754 Z-0.125000
G01 X129.208223 Y99.080654 Z-0.125000
G01 X129.994023 Y99.040954 Z-0.125000
G01 X130.691453 Y98.982854 Z-0.125000
G01 X131.387193 Y98.905954 Z-0.125000
G01 X132.167153 Y98.799594 Z-0.125000
G01 X132.858443 Y98.688694 Z-0.125000
G01 X133.547453 Y98.564114 Z-0.125000
G01 X134.319433 Y98.409464 Z-0.125000
G01 X135.003463 Y98.259724 Z-0.125000
G01 X135.685153 Y98.099674 Z-0.125000
G01 X136.448943 Y97.908614 Z-0.125000
G01 X137.125763 Y97.729254 Z-0.125000
G01 X137.800383 Y97.541844 Z-0.125000
G01 X138.556393 Y97.322424 Z-0.125000
G01 X139.226483 Y97.119754 Z-0.125000
G01 X139.894523 Y96.910644 Z-0.125000
G01 X140.643363 Y96.668554 Z-0.125000
G01 X141.307233 Y96.447114 Z-0.125000
G01 X141.969223 Y96.220414 Z-0.125000
G01 X142.711463 Y95.959844 Z-0.125000
G01 X143.369623 Y95.722994 Z-0.125000
G01 X144.026033 Y95.481804 Z-0.125000
G01 X144.762193 Y95.205924 Z-0.125000
G01 X145.415063 Y94.956264 Z-0.125000
G01 X146.066303 Y94.702964 Z-0.125000
G01 X146.796783 Y94.414274 Z-0.125000
G01 X147.444703 Y94.153874 Z-0.125000
G01 X148.171503 Y93.857654 Z-0.125000
G01 X148.816203 Y93.590944 Z-0.125000
G01 X149.459403 Y93.321504 Z-0.125000
G01 X150.101113 Y93.049504 Z-0.125000
G01 X150.821023 Y92.741014 Z-0.125000
G01 X151.459593 Y92.464054 Z-0.125000
G01 X152.730533 Y91.907204 Z-0.125000
G01 X153.443673 Y91.589294 Z-0.125000
G01 X154.076173 Y91.304564 Z-0.125000
G01 X154.785713 Y90.982884 Z-0.125000
G01 X155.414953 Y90.695134 Z-0.125000
G01 X156.042593 Y90.406234 Z-0.125000
G01 X156.746633 Y90.080494 Z-0.125000
G01 X157.370843 Y89.789744 Z-0.125000
G01 X157.993423 Y89.498444 Z-0.125000
G01 X158.691733 Y89.170824 Z-0.125000
G01 X159.310773 Y88.879174 Z-0.125000
G01 X159.928173 Y88.587794 Z-0.125000
G01 X160.620763 Y88.261164 Z-0.125000
G01 X161.234823 Y87.971434 Z-0.125000
G01 X161.847453 Y87.683014 Z-0.125000
G01 X162.535173 Y87.361114 Z-0.125000
G01 X163.145353 Y87.076904 Z-0.125000
G01 X163.754783 Y86.795354 Z-0.125000
G01 X164.363793 Y86.516914 Z-0.125000
G01 X165.049043 Y86.208464 Z-0.125000
G01 X165.658573 Y85.938294 Z-0.125000
G01 X166.345753 Y85.640424 Z-0.125000
G01 X166.958243 Y85.380954 Z-0.125000
G01 X167.573093 Y85.127554 Z-0.125000
G01 X168.268733 Y84.851214 Z-0.125000
G01 X168.891013 Y84.613944 Z-0.125000
G01 X169.518123 Y84.386614 Z-0.125000
G01 X170.231053 Y84.146274 Z-0.125000
G01 X170.872353 Y83.950234 Z-0.125000
G01 X171.522993 Y83.778604 Z-0.125000
G01 X172.269843 Y83.633494 Z-0.125000
G01 X172.948743 Y83.588794 Z-0.125000
G01 X173.604953 Y83.770814 Z-0.125000
G01 X174.260603 Y84.196904 Z-0.125000
G01 X174.807203 Y84.626004 Z-0.125000
G01 X175.313493 Y85.101584 Z-0.125000
G01 X175.774463 Y85.620544 Z-0.125000
G01 X176.186883 Y86.177914 Z-0.125000
G01 X176.633683 Y86.920014 Z-0.125000
G01 X176.901083 Y87.462324 Z-0.125000
G01 X177.165283 Y88.100544 Z-0.125000
G01 X177.439733 Y88.919064 Z-0.125000
G01 X177.619253 Y89.584824 Z-0.125000
G01 X177.768713 Y90.257624 Z-0.125000
G01 X177.892613 Y90.935384 Z-0.125000
G01 X178.006893 Y91.702294 Z-0.125000
G01 X178.089793 Y92.386194 Z-0.125000
G01 X178.158893 Y93.071664 Z-0.125000
G01 X178.224393 Y93.844524 Z-0.125000
G01 X178.274393 Y94.532044 Z-0.125000
G01 X178.319793 Y95.220114 Z-0.125000
G01 X178.368893 Y95.995054 Z-0.125000
G01 X178.412993 Y96.683854 Z-0.125000
G01 X178.460493 Y97.372804 Z-0.125000
G01 X178.521193 Y98.148154 Z-0.125000
G01 X178.584093 Y98.836644 Z-0.125000
G01 X178.658393 Y99.524434 Z-0.125000
G01 X178.759463 Y100.297034 Z-0.125000
G01 X178.867683 Y100.981244 Z-0.125000
G01 X178.996703 Y101.662264 Z-0.125000
G01 X179.171143 Y102.423234 Z-0.125000
G01 X179.355643 Y103.092284 Z-0.125000
G01 X179.571703 Y103.752134 Z-0.125000
G01 X179.856883 Y104.480204 Z-0.125000
G01 X180.150683 Y105.109934 Z-0.125000
G01 X180.484943 Y105.719204 Z-0.125000
G01 X180.861013 Y106.303644 Z-0.125000
G01 X181.334263 Y106.926314 Z-0.125000
G01 X181.797593 Y107.443704 Z-0.125000
G01 X182.363833 Y107.981984 Z-0.125000
G01 X182.902743 Y108.418794 Z-0.125000
G01 X183.470853 Y108.815954 Z-0.125000
G01 X184.139813 Y109.216464 Z-0.125000
G01 X184.755593 Y109.532844 Z-0.125000
G01 X185.389703 Y109.809294 Z-0.125000
G01 X186.124223 Y110.065004 Z-0.125000
G01 X186.793313 Y110.234734 Z-0.125000
G01 X187.474233 Y110.343204 Z-0.125000
G01 X188.248043 Y110.384304 Z-0.125000
G01 X188.934513 Y110.343004 Z-0.125000
G01 X189.611643 Y110.226774 Z-0.125000
G01 X190.352523 Y110.008584 Z-0.125000
G01 X190.984383 Y109.741254 Z-0.125000
G01 X191.586193 Y109.412144 Z-0.125000
G01 X192.224113 Y108.978024 Z-0.125000
G01 X192.754813 Y108.543254 Z-0.125000
G01 X193.251903 Y108.070114 Z-0.125000
G01 X193.772703 Y107.499964 Z-0.125000
G01 X194.202643 Y106.964644 Z-0.125000
G01 X194.603763 Y106.407074 Z-0.125000
G01 X195.023063 Y105.757854 Z-0.125000
G01 X195.368593 Y105.163814 Z-0.125000
G01 X195.690403 Y104.556444 Z-0.125000
G01 X196.026143 Y103.859794 Z-0.125000
G01 X196.301843 Y103.229844 Z-0.125000
G01 X196.558703 Y102.591904 Z-0.125000
G01 X196.830383 Y101.867724 Z-0.125000
G01 X197.055983 Y101.218144 Z-0.125000
G01 X197.266753 Y100.563644 Z-0.125000
G01 X197.486453 Y99.822084 Z-0.125000
G01 X197.665493 Y99.158194 Z-0.125000
G01 X197.829493 Y98.490494 Z-0.125000
G01 X197.996413 Y97.735374 Z-0.125000
G01 X198.128483 Y97.060674 Z-0.125000
G01 X198.245553 Y96.383234 Z-0.125000
G01 X198.347713 Y95.703414 Z-0.125000
G01 X198.445313 Y94.936464 Z-0.125000
G01 X198.516113 Y94.252774 Z-0.125000
G01 X198.578813 Y93.482314 Z-0.125000
G01 X198.618913 Y92.796234 Z-0.125000
G01 X198.644813 Y92.109524 Z-0.125000
G01 X198.656713 Y91.422474 Z-0.125000
G01 X198.653713 Y90.649754 Z-0.125000
G01 X198.636613 Y89.963034 Z-0.125000
G01 X198.601913 Y89.191304 Z-0.125000
G01 X198.556813 Y88.506004 Z-0.125000
G01 X198.498913 Y87.821804 Z-0.125000
G01 X198.419313 Y87.053784 Z-0.125000
G01 X198.335213 Y86.372564 Z-0.125000
G01 X198.239113 Y85.692994 Z-0.125000
G01 X198.117523 Y84.930944 Z-0.125000
G01 X197.996953 Y84.255704 Z-0.125000
G01 X197.865273 Y83.582684 Z-0.125000
G01 X197.704633 Y82.828534 Z-0.125000
G01 X197.550253 Y82.160804 Z-0.125000
G01 X197.385553 Y81.495684 Z-0.125000
G01 X197.188783 Y80.750854 Z-0.125000
G01 X197.003123 Y80.091774 Z-0.125000
G01 X196.807963 Y79.435674 Z-0.125000
G01 X196.577853 Y78.701314 Z-0.125000
G01 X196.363363 Y78.051864 Z-0.125000
G01 X196.140153 Y77.405644 Z-0.125000
G01 X195.879333 Y76.682594 Z-0.125000
G01 X195.638323 Y76.043424 Z-0.125000
G01 X195.389283 Y75.407674 Z-0.125000
G01 X195.100253 Y74.696584 Z-0.125000
G01 X194.834853 Y74.068214 Z-0.125000
G01 X194.562063 Y73.443344 Z-0.125000
G01 X194.247083 Y72.744624 Z-0.125000
G01 X193.959253 Y72.127374 Z-0.125000
G01 X193.627813 Y71.437234 Z-0.125000
G01 X193.363413 Y70.903694 Z-0.125000
G01 X193.055743 Y70.297304 Z-0.125000
G01 X192.663283 Y69.544304 Z-0.125000
G01 X192.341713 Y68.946104 Z-0.125000
G01 X192.014223 Y68.351544 Z-0.125000
G01 X191.680963 Y67.760684 Z-0.125000
G01 X191.299753 Y67.100204 Z-0.125000
G01 X190.954683 Y66.517084 Z-0.125000
G01 X190.604263 Y65.937624 Z-0.125000
G01 X190.204233 Y65.289944 Z-0.125000
G01 X189.842873 Y64.718224 Z-0.125000
G01 X189.476483 Y64.150094 Z-0.125000
G01 X189.058933 Y63.515104 Z-0.125000
G01 X188.682333 Y62.954644 Z-0.125000
G01 X188.301073 Y62.397764 Z-0.125000
G01 X187.867113 Y61.775354 Z-0.125000
G01 X187.476213 Y61.226034 Z-0.125000
G01 X187.080903 Y60.680254 Z-0.125000
G01 X186.631403 Y60.070244 Z-0.125000
G01 X186.226973 Y59.531954 Z-0.125000
G01 X185.818333 Y58.997184 Z-0.125000
G01 X185.354033 Y58.399464 Z-0.125000
G01 X184.988653 Y57.938124 Z-0.125000
G01 X184.462573 Y57.282724 Z-0.125000
G01 X184.036573 Y56.762744 Z-0.125000
G01 X183.606603 Y56.246284 Z-0.125000
G01 X183.172673 Y55.733304 Z-0.125000
G01 X182.680133 Y55.160084 Z-0.125000
G01 X182.237833 Y54.654554 Z-0.125000
G01 X181.791603 Y54.152544 Z-0.125000
G01 X181.285263 Y53.591744 Z-0.125000
G01 X180.830723 Y53.097354 Z-0.125000
G01 X180.372253 Y52.606584 Z-0.125000
G01 X179.909853 Y52.119484 Z-0.125000
G01 X179.385203 Y51.575564 Z-0.125000
G01 X178.914383 Y51.096414 Z-0.125000
G01 X178.380193 Y50.561594 Z-0.125000
G01 X177.900803 Y50.090684 Z-0.125000
G01 X177.417333 Y49.623764 Z-0.125000
G01 X176.868793 Y49.103004 Z-0.125000
G01 X176.376553 Y48.644924 Z-0.125000
G01 X175.880083 Y48.191144 Z-0.125000
G01 X175.316693 Y47.685584 Z-0.125000
G01 X174.811103 Y47.241454 Z-0.125000
G01 X174.237233 Y46.747064 Z-0.125000
G01 X173.722223 Y46.313274 Z-0.125000
G01 X173.267673 Y45.938334 Z-0.125000
G01 X172.678423 Y45.461314 Z-0.125000
G01 X172.083183 Y44.991364 Z-0.125000
G01 X171.615753 Y44.631784 Z-0.125000
G01 X170.941883 Y44.124754 Z-0.125000
G01 X170.396853 Y43.727174 Z-0.125000
G01 X169.915553 Y43.385384 Z-0.125000
G01 X169.221323 Y42.905304 Z-0.125000
G01 X168.659583 Y42.530714 Z-0.125000
G01 X168.163333 Y42.210254 Z-0.125000
G01 X167.518903 Y41.807194 Z-0.125000
G01 X166.866863 Y41.416334 Z-0.125000
G01 X166.280543 Y41.080414 Z-0.125000
G01 X165.687783 Y40.755904 Z-0.125000
G01 X165.012893 Y40.405294 Z-0.125000
G01 X164.405553 Y40.108714 Z-0.125000
G01 X163.790943 Y39.827444 Z-0.125000
G01 X163.090603 Y39.531104 Z-0.125000
G01 X162.459783 Y39.288714 Z-0.125000
G01 X161.821043 Y39.068464 Z-0.125000
G01 X161.092853 Y38.850744 Z-0.125000
G01 X160.437133 Y38.689264 Z-0.125000
G01 X159.774083 Y38.562964 Z-0.125000
G01 X159.104683 Y38.478264 Z-0.125000
G01 X158.431123 Y38.443564 Z-0.125000
G01 X157.589503 Y38.485164 Z-0.125000
G01 X156.925513 Y38.602834 Z-0.125000
G01 X156.282703 Y38.808984 Z-0.125000
G01 X155.678623 Y39.113884 Z-0.125000
G01 X155.070963 Y39.577104 Z-0.125000
G01 X154.614513 Y40.085994 Z-0.125000
G01 X154.245633 Y40.666354 Z-0.125000
G01 X153.932483 Y41.377994 Z-0.125000
G01 X153.735213 Y42.044004 Z-0.125000
G01 X153.602913 Y42.728104 Z-0.125000
G01 X153.540313 Y43.248734 Z-0.125000
G01 X153.513013 Y43.511414 Z-0.125000
G01 X153.404933 Y44.199974 Z-0.125000
G01 X153.249123 Y44.877074 Z-0.125000
G01 X153.019943 Y45.620824 Z-0.125000
G01 X152.772383 Y46.264174 Z-0.125000
G01 X152.487533 Y46.888884 Z-0.125000
G01 X152.127333 Y47.568074 Z-0.125000
G01 X151.776443 Y48.151544 Z-0.125000
G01 X151.400303 Y48.716024 Z-0.125000
G01 X150.950813 Y49.328924 Z-0.125000
G01 X150.531353 Y49.855924 Z-0.125000
G01 X150.095603 Y50.366954 Z-0.125000
G01 X149.588343 Y50.923864 Z-0.125000
G01 X149.124683 Y51.404934 Z-0.125000
G01 X148.650483 Y51.873744 Z-0.125000
G01 X148.105813 Y52.387484 Z-0.125000
G01 X147.613423 Y52.833894 Z-0.125000
G01 X147.114093 Y53.271394 Z-0.125000
G01 X146.544863 Y53.753764 Z-0.125000
G01 X146.033553 Y54.175484 Z-0.125000
G01 X145.517693 Y54.591184 Z-0.125000
G01 X144.932353 Y55.052274 Z-0.125000
G01 X144.408753 Y55.457824 Z-0.125000
G01 X143.882323 Y55.859774 Z-0.125000
G01 X143.286933 Y56.308224 Z-0.125000
G01 X142.755963 Y56.704864 Z-0.125000
G01 X142.223523 Y57.100044 Z-0.125000
G01 X141.622933 Y57.543344 Z-0.125000
G01 X141.088693 Y57.937464 Z-0.125000
G01 X140.554223 Y58.331994 Z-0.125000
G01 X139.952763 Y58.776774 Z-0.125000
G01 X139.419073 Y59.174064 Z-0.125000
G01 X138.886353 Y59.573494 Z-0.125000
G01 X138.288323 Y60.025824 Z-0.125000
G01 X137.759033 Y60.431554 Z-0.125000
G01 X137.232023 Y60.841024 Z-0.125000
G01 X136.641993 Y61.306554 Z-0.125000
G01 X136.186623 Y61.673184 Z-0.125000
G01 X135.539623 Y62.203254 Z-0.125000
G01 X135.027473 Y62.634144 Z-0.125000
G01 X134.520183 Y63.071324 Z-0.125000
G01 X134.018313 Y63.515254 Z-0.125000
G01 X133.460503 Y64.023134 Z-0.125000
G01 X132.972203 Y64.482914 Z-0.125000
G01 X132.491343 Y64.950814 Z-0.125000
G01 X132.018613 Y65.427264 Z-0.125000
G01 X131.497053 Y65.973854 Z-0.125000
G01 X131.044233 Y66.469754 Z-0.125000
G01 X130.547163 Y67.039144 Z-0.125000
G01 X130.118073 Y67.556004 Z-0.125000
G01 X129.701613 Y68.083134 Z-0.125000
G01 X129.298723 Y68.620734 Z-0.125000
G01 X128.862503 Y69.238134 Z-0.125000
G01 X128.491813 Y69.798334 Z-0.125000
G01 X128.094393 Y70.441234 Z-0.125000
G01 X127.760523 Y71.023914 Z-0.125000
G01 X127.445543 Y71.616914 Z-0.125000
G01 X127.110293 Y72.294004 Z-0.125000
G01 X126.817273 Y72.898494 Z-0.125000
G01 X126.527353 Y73.504854 Z-0.125000
G01 X126.240733 Y74.113154 Z-0.125000
G01 X125.922023 Y74.799884 Z-0.125000
G01 X125.643103 Y75.412514 Z-0.125000
G01 X125.333623 Y76.104304 Z-0.125000
G01 X125.063473 Y76.721564 Z-0.125000
G01 X124.797873 Y77.341144 Z-0.125000
G01 X124.504423 Y78.041044 Z-0.125000
G01 X124.249543 Y78.665734 Z-0.125000
G01 X124.000243 Y79.292974 Z-0.125000
G01 X123.726493 Y80.001814 Z-0.125000
G01 X123.490453 Y80.634694 Z-0.125000
G01 X123.261403 Y81.270364 Z-0.125000
G01 X123.039873 Y81.908894 Z-0.125000
G01 X122.799963 Y82.630844 Z-0.125000
G01 X122.596533 Y83.275714 Z-0.125000
G01 X122.378853 Y84.004994 Z-0.125000
G01 X122.197073 Y84.656504 Z-0.125000
G01 X122.026963 Y85.311214 Z-0.125000
G01 X121.850563 Y86.051734 Z-0.125000
G01 X121.709343 Y86.713264 Z-0.125000
G01 X121.584023 Y87.377924 Z-0.125000
G01 X121.463833 Y88.129354 Z-0.125000
G01 X121.378633 Y88.800034 Z-0.125000
G01 X121.316033 Y89.472964 Z-0.125000
G01 X121.275733 Y90.232054 Z-0.125000
G01 X121.271733 Y90.907204 Z-0.125000
G01 X121.300933 Y91.581344 Z-0.125000
G01 X121.379233 Y92.335984 Z-0.125000
G01 X121.495923 Y92.999614 Z-0.125000
G01 X121.662643 Y93.652034 Z-0.125000
G01 X121.885313 Y94.287224 Z-0.125000
G01 X122.208683 Y94.971764 Z-0.125000
G01 X122.565303 Y95.542954 Z-0.125000
G01 X123.043653 Y96.131434 Z-0.125000
G01 X123.533913 Y96.596584 Z-0.125000
G01 X124.077413 Y97.001414 Z-0.125000
G01 X124.740243 Y97.382604 Z-0.125000
G01 X125.365023 Y97.656744 Z-0.125000
G01 X126.013823 Y97.874344 Z-0.125000
G01 X126.763163 Y98.058324 Z-0.125000
G01 X127.441283 Y98.173514 Z-0.125000
G01 X128.126263 Y98.248914 Z-0.125000
G01 X128.901193 Y98.292314 Z-0.125000
G01 X129.592333 Y98.298314 Z-0.125000
G01 X130.283903 Y98.277514 Z-0.125000
G01 X131.060873 Y98.226114 Z-0.125000
G01 X131.750493 Y98.157914 Z-0.125000
G01 X132.438423 Y98.071114 Z-0.125000
G01 X133.209573 Y97.953774 Z-0.125000
G01 X133.892983 Y97.833244 Z-0.125000
G01 X134.574033 Y97.699144 Z-0.125000
G01 X135.336953 Y97.533844 Z-0.125000
G01 X136.012803 Y97.374694 Z-0.125000
G01 X136.686173 Y97.205234 Z-0.125000
G01 X137.440413 Y97.003584 Z-0.125000
G01 X138.108533 Y96.814784 Z-0.125000
G01 X138.774243 Y96.617884 Z-0.125000
G01 X139.519943 Y96.387724 Z-0.125000
G01 X140.180583 Y96.175404 Z-0.125000
G01 X140.838883 Y95.956554 Z-0.125000
G01 X141.576383 Y95.703374 Z-0.125000
G01 X142.229793 Y95.471924 Z-0.125000
G01 X142.880933 Y95.235074 Z-0.125000
G01 X143.610463 Y94.962884 Z-0.125000
G01 X144.256833 Y94.715534 Z-0.125000
G01 X144.900963 Y94.463644 Z-0.125000
G01 X145.622643 Y94.175494 Z-0.125000
G01 X146.262003 Y93.914704 Z-0.125000
G01 X146.899093 Y93.650054 Z-0.125000
G01 X147.612813 Y93.348304 Z-0.125000
G01 X148.245003 Y93.076054 Z-0.125000
G01 X148.953123 Y92.766204 Z-0.125000
G01 X149.580243 Y92.487104 Z-0.125000
G01 X150.204863 Y92.205034 Z-0.125000
G01 X150.826923 Y91.920164 Z-0.125000
G01 X151.523323 Y91.596904 Z-0.125000
G01 X152.139653 Y91.306564 Z-0.125000
G01 X153.361813 Y90.722404 Z-0.125000
G01 X154.044733 Y90.388864 Z-0.125000
G01 X154.648483 Y90.090164 Z-0.125000
G01 X155.323403 Y89.752754 Z-0.125000
G01 X155.919663 Y89.451104 Z-0.125000
G01 X156.512113 Y89.148484 Z-0.125000
G01 X157.173703 Y88.807704 Z-0.125000
G01 X157.757493 Y88.504084 Z-0.125000
G01 X158.336953 Y88.200584 Z-0.125000
G01 X158.983383 Y87.860324 Z-0.125000
G01 X159.553203 Y87.558664 Z-0.125000
G01 X160.118363 Y87.258744 Z-0.125000
G01 X160.748573 Y86.924654 Z-0.125000
G01 X161.303993 Y86.630594 Z-0.125000
G01 X161.855093 Y86.340404 Z-0.125000
G01 X162.470383 Y86.020024 Z-0.125000
G01 X163.013673 Y85.740694 Z-0.125000
G01 X163.554243 Y85.467714 Z-0.125000
G01 X164.092943 Y85.201804 Z-0.125000
G01 X164.698083 Y84.912404 Z-0.125000
G01 X165.236273 Y84.663664 Z-0.125000
G01 X165.843963 Y84.394924 Z-0.125000
G01 X166.387303 Y84.165564 Z-0.125000
G01 X166.935163 Y83.945924 Z-0.125000
G01 X167.558843 Y83.711334 Z-0.125000
G01 X168.120823 Y83.513894 Z-0.125000
G01 X168.691553 Y83.328244 Z-0.125000
G01 X169.346203 Y83.136094 Z-0.125000
G01 X169.940593 Y82.983134 Z-0.125000
G01 X170.549223 Y82.853804 Z-0.125000
G01 X171.255213 Y82.753684 Z-0.125000
G01 X171.905003 Y82.743684 Z-0.125000
G01 X172.545893 Y82.944984 Z-0.125000
G01 X173.197983 Y83.375654 Z-0.125000
G01 X173.744843 Y83.804414 Z-0.125000
G01 X174.254343 Y84.275854 Z-0.125000
G01 X174.721213 Y84.787294 Z-0.125000
G01 X175.141923 Y85.334314 Z-0.125000
G01 X175.601913 Y86.060334 Z-0.125000
G01 X175.880093 Y86.589864 Z-0.125000
G01 X176.157883 Y87.212444 Z-0.125000
G01 X176.450763 Y88.010494 Z-0.125000
G01 X176.645893 Y88.659564 Z-0.125000
G01 X176.811503 Y89.315664 Z-0.125000
G01 X176.951913 Y89.976954 Z-0.125000
G01 X177.085003 Y90.725764 Z-0.125000
G01 X177.184603 Y91.394094 Z-0.125000
G01 X177.270403 Y92.064564 Z-0.125000
G01 X177.354603 Y92.821304 Z-0.125000
G01 X177.420903 Y93.495194 Z-0.125000
G01 X177.482303 Y94.170344 Z-0.125000
G01 X177.548903 Y94.931614 Z-0.125000
G01 X177.608003 Y95.609024 Z-0.125000
G01 X177.669903 Y96.287334 Z-0.125000
G01 X177.746103 Y97.051604 Z-0.125000
G01 X177.822003 Y97.731044 Z-0.125000
G01 X177.908503 Y98.410534 Z-0.125000
G01 X178.022253 Y99.174714 Z-0.125000
G01 X178.140723 Y99.852254 Z-0.125000
G01 X178.278963 Y100.527394 Z-0.125000
G01 X178.462423 Y101.282714 Z-0.125000
G01 X178.653653 Y101.947604 Z-0.125000
G01 X178.875113 Y102.604164 Z-0.125000
G01 X179.164713 Y103.329564 Z-0.125000
G01 X179.460883 Y103.957874 Z-0.125000
G01 X179.795973 Y104.566654 Z-0.125000
G01 X180.171323 Y105.151524 Z-0.125000
G01 X180.641923 Y105.775774 Z-0.125000
G01 X181.101353 Y106.295534 Z-0.125000
G01 X181.661573 Y106.837474 Z-0.125000
G01 X182.193843 Y107.278384 Z-0.125000
G01 X182.754253 Y107.680364 Z-0.125000
G01 X183.413513 Y108.087054 Z-0.125000
G01 X184.019923 Y108.409514 Z-0.125000
G01 X184.643983 Y108.692604 Z-0.125000
G01 X185.366333 Y108.956534 Z-0.125000
G01 X186.023803 Y109.134304 Z-0.125000
G01 X186.692333 Y109.251524 Z-0.125000
G01 X187.451323 Y109.303424 Z-0.125000
G01 X188.123913 Y109.272524 Z-0.125000
G01 X188.786633 Y109.167364 Z-0.125000
G01 X189.510833 Y108.962374 Z-0.125000
G01 X190.127623 Y108.707344 Z-0.125000
G01 X190.714283 Y108.390974 Z-0.125000
G01 X191.335213 Y107.971604 Z-0.125000
G01 X191.850943 Y107.550234 Z-0.125000
G01 X192.333263 Y107.090744 Z-0.125000
G01 X192.837713 Y106.536194 Z-0.125000
G01 X193.253373 Y106.014934 Z-0.125000
G01 X193.640463 Y105.471574 Z-0.125000
G01 X194.044283 Y104.838564 Z-0.125000
G01 X194.376323 Y104.259094 Z-0.125000
G01 X194.684893 Y103.666464 Z-0.125000
G01 X195.006003 Y102.986604 Z-0.125000
G01 X195.268963 Y102.371754 Z-0.125000
G01 X195.513303 Y101.749104 Z-0.125000
G01 X195.771153 Y101.042374 Z-0.125000
G01 X195.984663 Y100.408544 Z-0.125000
G01 X196.183553 Y99.770004 Z-0.125000
G01 X196.390133 Y99.046654 Z-0.125000
G01 X196.557743 Y98.399174 Z-0.125000
G01 X196.710533 Y97.748094 Z-0.125000
G01 X196.865103 Y97.011934 Z-0.125000
G01 X196.986423 Y96.354304 Z-0.125000
G01 X197.092983 Y95.694154 Z-0.125000
G01 X197.184883 Y95.031834 Z-0.125000
G01 X197.271183 Y94.284814 Z-0.125000
G01 X197.332183 Y93.619084 Z-0.125000
G01 X197.384183 Y92.869074 Z-0.125000
G01 X197.414983 Y92.201414 Z-0.125000
G01 X197.431883 Y91.533344 Z-0.125000
G01 X197.434883 Y90.865154 Z-0.125000
G01 X197.422683 Y90.113924 Z-0.125000
G01 X197.397283 Y89.446544 Z-0.125000
G01 X197.353583 Y88.696854 Z-0.125000
G01 X197.300783 Y88.031394 Z-0.125000
G01 X197.235483 Y87.367274 Z-0.125000
G01 X197.147883 Y86.622134 Z-0.125000
G01 X197.056983 Y85.961514 Z-0.125000
G01 X196.954383 Y85.302794 Z-0.125000
G01 X196.825803 Y84.564504 Z-0.125000
G01 X196.699363 Y83.910644 Z-0.125000
G01 X196.562113 Y83.259284 Z-0.125000
G01 X196.395603 Y82.529804 Z-0.125000
G01 X196.236333 Y81.884284 Z-0.125000
G01 X196.067103 Y81.241654 Z-0.125000
G01 X195.865653 Y80.522444 Z-0.125000
G01 X195.676213 Y79.886434 Z-0.125000
G01 X195.477643 Y79.253674 Z-0.125000
G01 X195.244163 Y78.545904 Z-0.125000
G01 X195.027103 Y77.920384 Z-0.125000
G01 X194.801723 Y77.298364 Z-0.125000
G01 X194.538983 Y76.602874 Z-0.125000
G01 X194.296723 Y75.988494 Z-0.125000
G01 X194.046883 Y75.377814 Z-0.125000
G01 X193.757523 Y74.695224 Z-0.125000
G01 X193.492333 Y74.092474 Z-0.125000
G01 X193.220263 Y73.493484 Z-0.125000
G01 X192.906693 Y72.824184 Z-0.125000
G01 X192.620683 Y72.233324 Z-0.125000
G01 X192.291953 Y71.573154 Z-0.125000
G01 X192.030163 Y71.063114 Z-0.125000
G01 X191.726003 Y70.483784 Z-0.125000
G01 X191.338753 Y69.764864 Z-0.125000
G01 X191.022053 Y69.194134 Z-0.125000
G01 X190.700053 Y68.627194 Z-0.125000
G01 X190.372913 Y68.064094 Z-0.125000
G01 X189.999373 Y67.434984 Z-0.125000
G01 X189.661833 Y66.879854 Z-0.125000
G01 X189.319613 Y66.328454 Z-0.125000
G01 X188.929633 Y65.712404 Z-0.125000
G01 X188.577933 Y65.168794 Z-0.125000
G01 X188.221913 Y64.628794 Z-0.125000
G01 X187.816863 Y64.025384 Z-0.125000
G01 X187.452133 Y63.492934 Z-0.125000
G01 X187.083463 Y62.963954 Z-0.125000
G01 X186.664513 Y62.372774 Z-0.125000
G01 X186.287713 Y61.851034 Z-0.125000
G01 X185.907193 Y61.332634 Z-0.125000
G01 X185.475193 Y60.753144 Z-0.125000
G01 X185.087033 Y60.241694 Z-0.125000
G01 X184.695343 Y59.733454 Z-0.125000
G01 X184.250903 Y59.165194 Z-0.125000
G01 X183.901553 Y58.726434 Z-0.125000
G01 X183.399193 Y58.102754 Z-0.125000
G01 X182.992853 Y57.607664 Z-0.125000
G01 X182.583123 Y57.115624 Z-0.125000
G01 X182.170003 Y56.626574 Z-0.125000
G01 X181.701513 Y56.079634 Z-0.125000
G01 X181.281133 Y55.596904 Z-0.125000
G01 X180.857303 Y55.117114 Z-0.125000
G01 X180.376693 Y54.580594 Z-0.125000
G01 X179.945473 Y54.107134 Z-0.125000
G01 X179.510713 Y53.636664 Z-0.125000
G01 X179.072373 Y53.169224 Z-0.125000
G01 X178.575183 Y52.646634 Z-0.125000
G01 X178.129063 Y52.185744 Z-0.125000
G01 X177.622983 Y51.670644 Z-0.125000
G01 X177.168813 Y51.216544 Z-0.125000
G01 X176.710763 Y50.765754 Z-0.125000
G01 X176.191003 Y50.262314 Z-0.125000
G01 X175.724483 Y49.818894 Z-0.125000
G01 X175.253843 Y49.379094 Z-0.125000
G01 X174.719593 Y48.888454 Z-0.125000
G01 X174.239963 Y48.456864 Z-0.125000
G01 X173.695323 Y47.975784 Z-0.125000
G01 X173.206283 Y47.553124 Z-0.125000
G01 X172.774453 Y47.187404 Z-0.125000
G01 X172.214373 Y46.721504 Z-0.125000
G01 X171.648223 Y46.261884 Z-0.125000
G01 X171.203363 Y45.909824 Z-0.125000
G01 X170.561603 Y45.412714 Z-0.125000
G01 X170.042163 Y45.022414 Z-0.125000
G01 X169.583163 Y44.686534 Z-0.125000
G01 X168.920633 Y44.214134 Z-0.125000
G01 X168.384113 Y43.845094 Z-0.125000
G01 X167.909843 Y43.529034 Z-0.125000
G01 X167.293513 Y43.131074 Z-0.125000
G01 X166.669433 Y42.744674 Z-0.125000
G01 X166.107833 Y42.412194 Z-0.125000
G01 X165.539673 Y42.090644 Z-0.125000
G01 X164.892343 Y41.742814 Z-0.125000
G01 X164.309413 Y41.448204 Z-0.125000
G01 X163.719133 Y41.168464 Z-0.125000
G01 X163.046083 Y40.873304 Z-0.125000
G01 X162.439503 Y40.631504 Z-0.125000
G01 X161.824983 Y40.411404 Z-0.125000
G01 X161.124063 Y40.193324 Z-0.125000
G01 X160.492643 Y40.031064 Z-0.125000
G01 X159.853973 Y39.903524 Z-0.125000
G01 X159.209053 Y39.817224 Z-0.125000
G01 X158.560083 Y39.780324 Z-0.125000
G01 X157.749303 Y39.818524 Z-0.125000
G01 X157.109953 Y39.933014 Z-0.125000
G01 X156.491483 Y40.135564 Z-0.125000
G01 X155.911043 Y40.436524 Z-0.125000
G01 X155.328443 Y40.895094 Z-0.125000
G01 X154.892323 Y41.399854 Z-0.125000
G01 X154.541543 Y41.976264 Z-0.125000
G01 X154.246053 Y42.683774 Z-0.125000
G01 X154.062253 Y43.346484 Z-0.125000
G01 X153.941583 Y44.027614 Z-0.125000
G01 X153.886683 Y44.546214 Z-0.125000
G01 X153.863183 Y44.807884 Z-0.125000
G01 X153.766683 Y45.493244 Z-0.125000
G01 X153.624713 Y46.166394 Z-0.125000
G01 X153.413663 Y46.904734 Z-0.125000
G01 X153.184363 Y47.542334 Z-0.125000
G01 X152.919633 Y48.160384 Z-0.125000
G01 X152.584043 Y48.830944 Z-0.125000
G01 X152.256583 Y49.405694 Z-0.125000
G01 X151.905123 Y49.960454 Z-0.125000
G01 X151.484653 Y50.561184 Z-0.125000
G01 X151.091903 Y51.076254 Z-0.125000
G01 X150.683523 Y51.574334 Z-0.125000
G01 X150.207643 Y52.115454 Z-0.125000
G01 X149.772233 Y52.581414 Z-0.125000
G01 X149.326453 Y53.034124 Z-0.125000
G01 X148.813813 Y53.528604 Z-0.125000
G01 X148.349773 Y53.956924 Z-0.125000
G01 X147.878593 Y54.375464 Z-0.125000
G01 X147.340643 Y54.835504 Z-0.125000
G01 X146.856673 Y55.236564 Z-0.125000
G01 X146.367663 Y55.630874 Z-0.125000
G01 X145.811823 Y56.067134 Z-0.125000
G01 X145.313763 Y56.449974 Z-0.125000
G01 X144.812153 Y56.828694 Z-0.125000
G01 X144.243803 Y57.250454 Z-0.125000
G01 X143.736033 Y57.622934 Z-0.125000
G01 X143.225993 Y57.993604 Z-0.125000
G01 X142.649603 Y58.408984 Z-0.125000
G01 X142.135983 Y58.778034 Z-0.125000
G01 X141.621283 Y59.147324 Z-0.125000
G01 X141.041053 Y59.563534 Z-0.125000
G01 X140.525343 Y59.935334 Z-0.125000
G01 X140.009773 Y60.309214 Z-0.125000
G01 X139.430063 Y60.732774 Z-0.125000
G01 X138.916213 Y61.112934 Z-0.125000
G01 X138.403853 Y61.496874 Z-0.125000
G01 X137.829413 Y61.933764 Z-0.125000
G01 X137.385503 Y62.278174 Z-0.125000
G01 X136.753943 Y62.776614 Z-0.125000
G01 X136.253373 Y63.182314 Z-0.125000
G01 X135.756993 Y63.594404 Z-0.125000
G01 X135.265393 Y64.013354 Z-0.125000
G01 X134.718393 Y64.493274 Z-0.125000
G01 X134.239063 Y64.928294 Z-0.125000
G01 X133.766593 Y65.371554 Z-0.125000
G01 X133.301703 Y65.823464 Z-0.125000
G01 X132.788313 Y66.342544 Z-0.125000
G01 X132.342193 Y66.814084 Z-0.125000
G01 X131.852063 Y67.356144 Z-0.125000
G01 X131.428623 Y67.848794 Z-0.125000
G01 X131.017323 Y68.351754 Z-0.125000
G01 X130.619133 Y68.865234 Z-0.125000
G01 X130.187633 Y69.455524 Z-0.125000
G01 X129.820673 Y69.991654 Z-0.125000
G01 X129.426903 Y70.607484 Z-0.125000
G01 X129.095813 Y71.166114 Z-0.125000
G01 X128.783173 Y71.735054 Z-0.125000
G01 X128.450033 Y72.385144 Z-0.125000
G01 X128.158413 Y72.965874 Z-0.125000
G01 X127.869463 Y73.548744 Z-0.125000
G01 X127.583403 Y74.133824 Z-0.125000
G01 X127.264833 Y74.794754 Z-0.125000
G01 X126.985643 Y75.384754 Z-0.125000
G01 X126.675403 Y76.051434 Z-0.125000
G01 X126.404203 Y76.646674 Z-0.125000
G01 X126.137213 Y77.244524 Z-0.125000
G01 X125.841803 Y77.920304 Z-0.125000
G01 X125.584833 Y78.523864 Z-0.125000
G01 X125.333153 Y79.130244 Z-0.125000
G01 X125.056373 Y79.815934 Z-0.125000
G01 X124.817343 Y80.428524 Z-0.125000
G01 X124.585013 Y81.044164 Z-0.125000
G01 X124.359953 Y81.662904 Z-0.125000
G01 X124.115753 Y82.362884 Z-0.125000
G01 X123.908243 Y82.988464 Z-0.125000
G01 X123.685683 Y83.696294 Z-0.125000
G01 X123.499293 Y84.328944 Z-0.125000
G01 X123.324343 Y84.964974 Z-0.125000
G01 X123.142213 Y85.684674 Z-0.125000
G01 X122.995633 Y86.327854 Z-0.125000
G01 X122.864703 Y86.974284 Z-0.125000
G01 X122.737903 Y87.705334 Z-0.125000
G01 X122.646603 Y88.357974 Z-0.125000
G01 X122.577503 Y89.012914 Z-0.125000
G01 X122.529703 Y89.751794 Z-0.125000
G01 X122.518403 Y90.408984 Z-0.125000
G01 X122.540203 Y91.065134 Z-0.125000
G01 X122.609803 Y91.799474 Z-0.125000
G01 X122.718443 Y92.445004 Z-0.125000
G01 X122.876763 Y93.079274 Z-0.125000
G01 X123.090693 Y93.696304 Z-0.125000
G01 X123.403853 Y94.360464 Z-0.125000
G01 X123.751133 Y94.913724 Z-0.125000
G01 X124.218773 Y95.482424 Z-0.125000
G01 X124.699453 Y95.930514 Z-0.125000
G01 X125.233423 Y96.318934 Z-0.125000
G01 X125.885703 Y96.682554 Z-0.125000
G01 X126.501313 Y96.941904 Z-0.125000
G01 X127.141173 Y97.145484 Z-0.125000
G01 X127.880723 Y97.314544 Z-0.125000
G01 X128.550363 Y97.417144 Z-0.125000
G01 X129.227053 Y97.480544 Z-0.125000
G01 X129.992843 Y97.511044 Z-0.125000
G01 X130.675973 Y97.506044 Z-0.125000
G01 X131.359633 Y97.474444 Z-0.125000
G01 X132.127783 Y97.411344 Z-0.125000
G01 X132.809593 Y97.333044 Z-0.125000
G01 X133.489713 Y97.236244 Z-0.125000
G01 X134.252053 Y97.107924 Z-0.125000
G01 X134.927583 Y96.977774 Z-0.125000
G01 X135.600683 Y96.834144 Z-0.125000
G01 X136.354543 Y96.658204 Z-0.125000
G01 X137.022213 Y96.489624 Z-0.125000
G01 X137.687253 Y96.310764 Z-0.125000
G01 X138.431933 Y96.098534 Z-0.125000
G01 X139.091363 Y95.900294 Z-0.125000
G01 X139.748153 Y95.693914 Z-0.125000
G01 X140.483553 Y95.452994 Z-0.125000
G01 X141.134743 Y95.231034 Z-0.125000
G01 X141.783303 Y95.002444 Z-0.125000
G01 X142.509453 Y94.738154 Z-0.125000
G01 X143.152413 Y94.496714 Z-0.125000
G01 X143.792713 Y94.249704 Z-0.125000
G01 X144.509533 Y93.965914 Z-0.125000
G01 X145.144113 Y93.708054 Z-0.125000
G01 X145.775953 Y93.445474 Z-0.125000
G01 X146.483153 Y93.145044 Z-0.125000
G01 X147.109003 Y92.873124 Z-0.125000
G01 X147.731943 Y92.597124 Z-0.125000
G01 X148.428893 Y92.282324 Z-0.125000
G01 X149.045363 Y91.998214 Z-0.125000
G01 X149.734793 Y91.674724 Z-0.125000
G01 X150.344333 Y91.383254 Z-0.125000
G01 X150.950383 Y91.088544 Z-0.125000
G01 X151.552793 Y90.790794 Z-0.125000
G01 X152.225683 Y90.452754 Z-0.125000
G01 X152.819763 Y90.149054 Z-0.125000
G01 X153.993153 Y89.537574 Z-0.125000
G01 X154.645843 Y89.188414 Z-0.125000
G01 X155.220863 Y88.875744 Z-0.125000
G01 X155.861153 Y88.522604 Z-0.125000
G01 X156.424443 Y88.207054 Z-0.125000
G01 X156.981693 Y87.890714 Z-0.125000
G01 X157.600833 Y87.534884 Z-0.125000
G01 X158.144193 Y87.218394 Z-0.125000
G01 X158.680533 Y86.902704 Z-0.125000
G01 X159.275093 Y86.549784 Z-0.125000
G01 X159.795683 Y86.238134 Z-0.125000
G01 X160.308613 Y85.929664 Z-0.125000
G01 X160.876433 Y85.588124 Z-0.125000
G01 X161.373213 Y85.289724 Z-0.125000
G01 X161.862793 Y84.997754 Z-0.125000
G01 X162.405663 Y84.678904 Z-0.125000
G01 X162.882053 Y84.404464 Z-0.125000
G01 X163.353773 Y84.140044 Z-0.125000
G01 X163.822153 Y83.886664 Z-0.125000
G01 X164.347183 Y83.616314 Z-0.125000
G01 X164.814033 Y83.389014 Z-0.125000
G01 X165.342223 Y83.149394 Z-0.125000
G01 X165.816413 Y82.950154 Z-0.125000
G01 X166.297293 Y82.764274 Z-0.125000
G01 X166.849013 Y82.571434 Z-0.125000
G01 X167.350693 Y82.413814 Z-0.125000
G01 X167.865043 Y82.269854 Z-0.125000
G01 X168.461413 Y82.125894 Z-0.125000
G01 X169.008893 Y82.016014 Z-0.125000
G01 X169.575503 Y81.929014 Z-0.125000
G01 X170.240643 Y81.873914 Z-0.125000
G01 X170.861323 Y81.898614 Z-0.125000
G01 X171.486883 Y82.119184 Z-0.125000
G01 X172.135413 Y82.554434 Z-0.125000
G01 X172.682533 Y82.982864 Z-0.125000
G01 X173.195263 Y83.450164 Z-0.125000
G01 X173.668033 Y83.954084 Z-0.125000
G01 X174.097023 Y84.490744 Z-0.125000
G01 X174.570213 Y85.200684 Z-0.125000
G01 X174.859173 Y85.717444 Z-0.125000
G01 X175.150533 Y86.324394 Z-0.125000
G01 X175.461853 Y87.101954 Z-0.125000
G01 X175.672593 Y87.734334 Z-0.125000
G01 X175.854353 Y88.373754 Z-0.125000
G01 X176.011273 Y89.018564 Z-0.125000
G01 X176.163163 Y89.749274 Z-0.125000
G01 X176.279613 Y90.402024 Z-0.125000
G01 X176.382193 Y91.057494 Z-0.125000
G01 X176.484983 Y91.798114 Z-0.125000
G01 X176.567583 Y92.458384 Z-0.125000
G01 X176.644883 Y93.120604 Z-0.125000
G01 X176.728883 Y93.868204 Z-0.125000
G01 X176.802983 Y94.534234 Z-0.125000
G01 X176.879283 Y95.201894 Z-0.125000
G01 X176.970983 Y95.955084 Z-0.125000
G01 X177.059883 Y96.625484 Z-0.125000
G01 X177.158583 Y97.296674 Z-0.125000
G01 X177.284993 Y98.052424 Z-0.125000
G01 X177.413723 Y98.723304 Z-0.125000
G01 X177.561173 Y99.392564 Z-0.125000
G01 X177.753663 Y100.142224 Z-0.125000
G01 X177.951613 Y100.802974 Z-0.125000
G01 X178.178493 Y101.456224 Z-0.125000
G01 X178.472513 Y102.178954 Z-0.125000
G01 X178.771033 Y102.805854 Z-0.125000
G01 X179.106953 Y103.414134 Z-0.125000
G01 X179.481583 Y103.999434 Z-0.125000
G01 X179.949553 Y104.625274 Z-0.125000
G01 X180.405063 Y105.147384 Z-0.125000
G01 X180.959263 Y105.693004 Z-0.125000
G01 X181.484903 Y106.138014 Z-0.125000
G01 X182.037623 Y106.544804 Z-0.125000
G01 X182.687173 Y106.957674 Z-0.125000
G01 X183.284203 Y107.286224 Z-0.125000
G01 X183.898213 Y107.575954 Z-0.125000
G01 X184.608403 Y107.848104 Z-0.125000
G01 X185.254243 Y108.033894 Z-0.125000
