%
(Header)
(Generated by gcodetools from Inkscape.)
(Using default header. To add your own header create file "header" in the output dir.)
M3
(Header end.)
G21 (All units in mm)

(Start cutting path id: path20441)
(Change tool to Default tool)

G00 Z3.000000
G00 X76.940886 Y169.718227

G00 Z4.875000 (Fast pre-penetrate)
G01 Z-0.125000 F400.0(Penetrate)
G01 X78.358328 Y149.779974 Z-0.125000 F800.000000
G01 X72.980546 Y136.636946 Z-0.125000
G00 Z3.000000

(End cutting path id: path20441)


(Start cutting path id: path20443)
(Change tool to Default tool)

G00 Z3.000000
G00 X77.423472 Y169.750106

G00 Z4.875000 (Fast pre-penetrate)
G01 Z-0.125000 F400.0(Penetrate)
G01 X78.758968 Y149.893801 Z-0.125000 F800.000000
G01 X73.480854 Y136.651104 Z-0.125000
G00 Z3.000000

(End cutting path id: path20443)


(Start cutting path id: path20445)
(Change tool to Default tool)

G00 Z3.000000
G00 X77.906061 Y169.781986

G00 Z4.875000 (Fast pre-penetrate)
G01 Z-0.125000 F400.0(Penetrate)
G01 X79.159607 Y150.007627 Z-0.125000 F800.000000
G01 X73.981165 Y136.665262 Z-0.125000
G00 Z3.000000

(End cutting path id: path20445)


(Start cutting path id: path20447)
(Change tool to Default tool)

G00 Z3.000000
G00 X78.388647 Y169.813866

G00 Z4.875000 (Fast pre-penetrate)
G01 Z-0.125000 F400.0(Penetrate)
G01 X79.560249 Y150.121456 Z-0.125000 F800.000000
G01 X74.481473 Y136.679420 Z-0.125000
G00 Z3.000000

(End cutting path id: path20447)


(Start cutting path id: path20449)
(Change tool to Default tool)

G00 Z3.000000
G00 X78.871236 Y169.845745

G00 Z4.875000 (Fast pre-penetrate)
G01 Z-0.125000 F400.0(Penetrate)
G01 X79.960889 Y150.235282 Z-0.125000 F800.000000
G01 X74.981781 Y136.693577 Z-0.125000
G00 Z3.000000

(End cutting path id: path20449)


(Start cutting path id: path20451)
(Change tool to Default tool)

G00 Z3.000000
G00 X79.353824 Y169.877622

G00 Z4.875000 (Fast pre-penetrate)
G01 Z-0.125000 F400.0(Penetrate)
G01 X80.361528 Y150.349108 Z-0.125000 F800.000000
G01 X75.482091 Y136.707735 Z-0.125000
G00 Z3.000000

(End cutting path id: path20451)


(Start cutting path id: path20453)
(Change tool to Default tool)

G00 Z3.000000
G00 X79.836411 Y169.909502

G00 Z4.875000 (Fast pre-penetrate)
G01 Z-0.125000 F400.0(Penetrate)
G01 X80.762171 Y150.462934 Z-0.125000 F800.000000
G01 X75.982399 Y136.721893 Z-0.125000
G00 Z3.000000

(End cutting path id: path20453)


(Start cutting path id: path20455)
(Change tool to Default tool)

G00 Z3.000000
G00 X80.318999 Y169.941381

G00 Z4.875000 (Fast pre-penetrate)
G01 Z-0.125000 F400.0(Penetrate)
G01 X81.162810 Y150.576761 Z-0.125000 F800.000000
G01 X76.482710 Y136.736054 Z-0.125000
G00 Z3.000000

(End cutting path id: path20455)


(Start cutting path id: path20457)
(Change tool to Default tool)

G00 Z3.000000
G00 X80.801588 Y169.973261

G00 Z4.875000 (Fast pre-penetrate)
G01 Z-0.125000 F400.0(Penetrate)
G01 X81.563450 Y150.690587 Z-0.125000 F800.000000
G01 X76.983018 Y136.750211 Z-0.125000
G00 Z3.000000

(End cutting path id: path20457)


(Start cutting path id: path20459)
(Change tool to Default tool)

G00 Z3.000000
G00 X81.284174 Y170.005141

G00 Z4.875000 (Fast pre-penetrate)
G01 Z-0.125000 F400.0(Penetrate)
G01 X81.964092 Y150.804413 Z-0.125000 F800.000000
G01 X77.483326 Y136.764369 Z-0.125000
G00 Z3.000000

(End cutting path id: path20459)


(Start cutting path id: path20461)
(Change tool to Default tool)

G00 Z3.000000
G00 X81.766763 Y170.037020

G00 Z4.875000 (Fast pre-penetrate)
G01 Z-0.125000 F400.0(Penetrate)
G01 X82.364731 Y150.918239 Z-0.125000 F800.000000
G01 X77.983636 Y136.778527 Z-0.125000
G00 Z3.000000

(End cutting path id: path20461)


(Start cutting path id: path20463)
(Change tool to Default tool)

G00 Z3.000000
G00 X82.249349 Y170.068897

G00 Z4.875000 (Fast pre-penetrate)
G01 Z-0.125000 F400.0(Penetrate)
G01 X82.765371 Y151.032068 Z-0.125000 F800.000000
G01 X78.483944 Y136.792685 Z-0.125000
G00 Z3.000000

(End cutting path id: path20463)


(Start cutting path id: path20465)
(Change tool to Default tool)

G00 Z3.000000
G00 X82.731938 Y170.100777

G00 Z4.875000 (Fast pre-penetrate)
G01 Z-0.125000 F400.0(Penetrate)
G01 X83.166013 Y151.145895 Z-0.125000 F800.000000
G01 X78.984252 Y136.806843 Z-0.125000
G00 Z3.000000

(End cutting path id: path20465)


(Start cutting path id: path20467)
(Change tool to Default tool)

G00 Z3.000000
G00 X83.214527 Y170.132656

G00 Z4.875000 (Fast pre-penetrate)
G01 Z-0.125000 F400.0(Penetrate)
G01 X83.566652 Y151.259721 Z-0.125000 F800.000000
G01 X79.484563 Y136.821001 Z-0.125000
G00 Z3.000000

(End cutting path id: path20467)


(Start cutting path id: path20469)
(Change tool to Default tool)

G00 Z3.000000
G00 X83.697113 Y170.164536

G00 Z4.875000 (Fast pre-penetrate)
G01 Z-0.125000 F400.0(Penetrate)
G01 X83.967292 Y151.373547 Z-0.125000 F800.000000
G01 X79.984871 Y136.835158 Z-0.125000
G00 Z3.000000

(End cutting path id: path20469)


(Start cutting path id: path20471)
(Change tool to Default tool)

G00 Z3.000000
G00 X84.179702 Y170.196416

G00 Z4.875000 (Fast pre-penetrate)
G01 Z-0.125000 F400.0(Penetrate)
G01 X84.367934 Y151.487373 Z-0.125000 F800.000000
G01 X80.485181 Y136.849316 Z-0.125000
G00 Z3.000000

(End cutting path id: path20471)


(Start cutting path id: path20473)
(Change tool to Default tool)

G00 Z3.000000
G00 X84.662291 Y170.228293

G00 Z4.875000 (Fast pre-penetrate)
G01 Z-0.125000 F400.0(Penetrate)
G01 X84.768574 Y151.601200 Z-0.125000 F800.000000
G01 X80.985489 Y136.863474 Z-0.125000
G00 Z3.000000

(End cutting path id: path20473)


(Start cutting path id: path20475)
(Change tool to Default tool)

G00 Z3.000000
G00 X85.144877 Y170.260172

G00 Z4.875000 (Fast pre-penetrate)
G01 Z-0.125000 F400.0(Penetrate)
G01 X85.169218 Y151.715026 Z-0.125000 F800.000000
G01 X81.485802 Y136.877632 Z-0.125000
G00 Z3.000000

(End cutting path id: path20475)


(Start cutting path id: path20477)
(Change tool to Default tool)

G00 Z3.000000
G00 X85.627466 Y170.292052

G00 Z4.875000 (Fast pre-penetrate)
G01 Z-0.125000 F400.0(Penetrate)
G01 X85.569853 Y151.828855 Z-0.125000 F800.000000
G01 X81.986108 Y136.891790 Z-0.125000
G00 Z3.000000

(End cutting path id: path20477)


(Start cutting path id: path20479)
(Change tool to Default tool)

G00 Z3.000000
G00 X86.110054 Y170.323931

G00 Z4.875000 (Fast pre-penetrate)
G01 Z-0.125000 F400.0(Penetrate)
G01 X85.970495 Y151.942681 Z-0.125000 F800.000000
G01 X82.486416 Y136.905948 Z-0.125000
G00 Z3.000000

(End cutting path id: path20479)


(Start cutting path id: path20481)
(Change tool to Default tool)

G00 Z3.000000
G00 X86.592641 Y170.355811

G00 Z4.875000 (Fast pre-penetrate)
G01 Z-0.125000 F400.0(Penetrate)
G01 X86.371134 Y152.056507 Z-0.125000 F800.000000
G01 X82.986724 Y136.920105 Z-0.125000
G00 Z3.000000

(End cutting path id: path20481)


(Start cutting path id: path20483)
(Change tool to Default tool)

G00 Z3.000000
G00 X87.075229 Y170.387691

G00 Z4.875000 (Fast pre-penetrate)
G01 Z-0.125000 F400.0(Penetrate)
G01 X86.771774 Y152.170334 Z-0.125000 F800.000000
G01 X83.487034 Y136.934263 Z-0.125000
G00 Z3.000000

(End cutting path id: path20483)


(Start cutting path id: path20485)
(Change tool to Default tool)

G00 Z3.000000
G00 X87.557816 Y170.419568

G00 Z4.875000 (Fast pre-penetrate)
G01 Z-0.125000 F400.0(Penetrate)
G01 X87.172416 Y152.284160 Z-0.125000 F800.000000
G01 X83.987342 Y136.948424 Z-0.125000
G00 Z3.000000

(End cutting path id: path20485)


(Start cutting path id: path20487)
(Change tool to Default tool)

G00 Z3.000000
G00 X88.040404 Y170.451447

G00 Z4.875000 (Fast pre-penetrate)
G01 Z-0.125000 F400.0(Penetrate)
G01 X87.573056 Y152.397986 Z-0.125000 F800.000000
G01 X84.487653 Y136.962582 Z-0.125000
G00 Z3.000000

(End cutting path id: path20487)


(Start cutting path id: path20489)
(Change tool to Default tool)

G00 Z3.000000
G00 X88.522993 Y170.483327

G00 Z4.875000 (Fast pre-penetrate)
G01 Z-0.125000 F400.0(Penetrate)
G01 X87.973695 Y152.511812 Z-0.125000 F800.000000
G01 X84.987961 Y136.976739 Z-0.125000
G00 Z3.000000

(End cutting path id: path20489)


(Start cutting path id: path20491)
(Change tool to Default tool)

G00 Z3.000000
G00 X89.005579 Y170.515206

G00 Z4.875000 (Fast pre-penetrate)
G01 Z-0.125000 F400.0(Penetrate)
G01 X88.374337 Y152.625639 Z-0.125000 F800.000000
G01 X85.488269 Y136.990897 Z-0.125000
G00 Z3.000000

(End cutting path id: path20491)


(Start cutting path id: path20493)
(Change tool to Default tool)

G00 Z3.000000
G00 X89.488168 Y170.547086

G00 Z4.875000 (Fast pre-penetrate)
G01 Z-0.125000 F400.0(Penetrate)
G01 X88.774977 Y152.739467 Z-0.125000 F800.000000
G01 X85.988579 Y137.005055 Z-0.125000
G00 Z3.000000

(End cutting path id: path20493)


(Start cutting path id: path20495)
(Change tool to Default tool)

G00 Z3.000000
G00 X89.970757 Y170.578963

G00 Z4.875000 (Fast pre-penetrate)
G01 Z-0.125000 F400.0(Penetrate)
G01 X89.175616 Y152.853294 Z-0.125000 F800.000000
G01 X86.488887 Y137.019213 Z-0.125000
G00 Z3.000000

(End cutting path id: path20495)


(Start cutting path id: path20497)
(Change tool to Default tool)

G00 Z3.000000
G00 X90.453343 Y170.610843

G00 Z4.875000 (Fast pre-penetrate)
G01 Z-0.125000 F400.0(Penetrate)
G01 X89.576258 Y152.967120 Z-0.125000 F800.000000
G01 X86.989195 Y137.033371 Z-0.125000
G00 Z3.000000

(End cutting path id: path20497)


(Start cutting path id: path20499)
(Change tool to Default tool)

G00 Z3.000000
G00 X90.935932 Y170.642722

G00 Z4.875000 (Fast pre-penetrate)
G01 Z-0.125000 F400.0(Penetrate)
G01 X89.976898 Y153.080946 Z-0.125000 F800.000000
G01 X87.489506 Y137.047529 Z-0.125000
G00 Z3.000000

(End cutting path id: path20499)


(Start cutting path id: path20501)
(Change tool to Default tool)

G00 Z3.000000
G00 X91.418518 Y170.674602

G00 Z4.875000 (Fast pre-penetrate)
G01 Z-0.125000 F400.0(Penetrate)
G01 X90.377537 Y153.194772 Z-0.125000 F800.000000
G01 X87.989813 Y137.061686 Z-0.125000
G00 Z3.000000

(End cutting path id: path20501)


(Start cutting path id: path20503)
(Change tool to Default tool)

G00 Z3.000000
G00 X91.901107 Y170.706481

G00 Z4.875000 (Fast pre-penetrate)
G01 Z-0.125000 F400.0(Penetrate)
G01 X90.778180 Y153.308599 Z-0.125000 F800.000000
G01 X88.490124 Y137.075844 Z-0.125000
G00 Z3.000000

(End cutting path id: path20503)


(Start cutting path id: path20505)
(Change tool to Default tool)

G00 Z3.000000
G00 X92.383696 Y170.738361

G00 Z4.875000 (Fast pre-penetrate)
G01 Z-0.125000 F400.0(Penetrate)
G01 X91.178819 Y153.422425 Z-0.125000 F800.000000
G01 X88.990432 Y137.090002 Z-0.125000
G00 Z3.000000

(End cutting path id: path20505)


(Start cutting path id: path20507)
(Change tool to Default tool)

G00 Z3.000000
G00 X92.866282 Y170.770238

G00 Z4.875000 (Fast pre-penetrate)
G01 Z-0.125000 F400.0(Penetrate)
G01 X91.579459 Y153.536254 Z-0.125000 F800.000000
G01 X89.490740 Y137.104160 Z-0.125000
G00 Z3.000000

(End cutting path id: path20507)


(Start cutting path id: path20509)
(Change tool to Default tool)

G00 Z3.000000
G00 X93.348871 Y170.802118

G00 Z4.875000 (Fast pre-penetrate)
G01 Z-0.125000 F400.0(Penetrate)
G01 X91.980098 Y153.650080 Z-0.125000 F800.000000
G01 X89.991051 Y137.118318 Z-0.125000
G00 Z3.000000

(End cutting path id: path20509)


(Start cutting path id: path20511)
(Change tool to Default tool)

G00 Z3.000000
G00 X93.831460 Y170.833997

G00 Z4.875000 (Fast pre-penetrate)
G01 Z-0.125000 F400.0(Penetrate)
G01 X92.380740 Y153.763906 Z-0.125000 F800.000000
G01 X90.491358 Y137.132476 Z-0.125000
G00 Z3.000000

(End cutting path id: path20511)


(Start cutting path id: path20513)
(Change tool to Default tool)

G00 Z3.000000
G00 X94.314046 Y170.865877

G00 Z4.875000 (Fast pre-penetrate)
G01 Z-0.125000 F400.0(Penetrate)
G01 X92.781380 Y153.877733 Z-0.125000 F800.000000
G01 X90.991666 Y137.146636 Z-0.125000
G00 Z3.000000

(End cutting path id: path20513)


(Start cutting path id: path20515)
(Change tool to Default tool)

G00 Z3.000000
G00 X94.541005 Y171.153383

G00 Z4.875000 (Fast pre-penetrate)
G01 Z-0.125000 F400.0(Penetrate)
G01 X93.335991 Y153.837590 Z-0.125000 F800.000000
G01 X91.513374 Y137.139394 Z-0.125000
G00 Z3.000000

(End cutting path id: path20515)


(Start cutting path id: path20517)
(Change tool to Default tool)

G00 Z3.000000
G00 X94.767964 Y171.440892

G00 Z4.875000 (Fast pre-penetrate)
G01 Z-0.125000 F400.0(Penetrate)
G01 X93.890599 Y153.797448 Z-0.125000 F800.000000
G01 X92.035081 Y137.132155 Z-0.125000
G00 Z3.000000

(End cutting path id: path20517)


(Start cutting path id: path20519)
(Change tool to Default tool)

G00 Z3.000000
G00 X94.994924 Y171.728402

G00 Z4.875000 (Fast pre-penetrate)
G01 Z-0.125000 F400.0(Penetrate)
G01 X94.445210 Y153.757305 Z-0.125000 F800.000000
G01 X92.556789 Y137.124914 Z-0.125000
G00 Z3.000000

(End cutting path id: path20519)


(Start cutting path id: path20521)
(Change tool to Default tool)

G00 Z3.000000
G00 X95.221880 Y172.015908

G00 Z4.875000 (Fast pre-penetrate)
G01 Z-0.125000 F400.0(Penetrate)
G01 X94.999818 Y153.717160 Z-0.125000 F800.000000
G01 X93.078496 Y137.117675 Z-0.125000
G00 Z3.000000

(End cutting path id: path20521)


(Start cutting path id: path20523)
(Change tool to Default tool)

G00 Z3.000000
G00 X95.448840 Y172.303417

G00 Z4.875000 (Fast pre-penetrate)
G01 Z-0.125000 F400.0(Penetrate)
G01 X95.554429 Y153.677017 Z-0.125000 F800.000000
G01 X93.600203 Y137.110433 Z-0.125000
G00 Z3.000000

(End cutting path id: path20523)


(Start cutting path id: path20525)
(Change tool to Default tool)

G00 Z3.000000
G00 X95.675799 Y172.590926

G00 Z4.875000 (Fast pre-penetrate)
G01 Z-0.125000 F400.0(Penetrate)
G01 X96.109040 Y153.636875 Z-0.125000 F800.000000
G01 X94.121911 Y137.103194 Z-0.125000
G00 Z3.000000

(End cutting path id: path20525)


(Start cutting path id: path20527)
(Change tool to Default tool)

G00 Z3.000000
G00 X95.902758 Y172.878433

G00 Z4.875000 (Fast pre-penetrate)
G01 Z-0.125000 F400.0(Penetrate)
G01 X96.663649 Y153.596732 Z-0.125000 F800.000000
G01 X94.643618 Y137.095953 Z-0.125000
G00 Z3.000000

(End cutting path id: path20527)


(Start cutting path id: path20529)
(Change tool to Default tool)

G00 Z3.000000
G00 X96.129717 Y173.165942

G00 Z4.875000 (Fast pre-penetrate)
G01 Z-0.125000 F400.0(Penetrate)
G01 X97.218260 Y153.556590 Z-0.125000 F800.000000
G01 X95.165326 Y137.088714 Z-0.125000
G00 Z3.000000

(End cutting path id: path20529)


(Start cutting path id: path20531)
(Change tool to Default tool)

G00 Z3.000000
G00 X96.356677 Y173.453448

G00 Z4.875000 (Fast pre-penetrate)
G01 Z-0.125000 F400.0(Penetrate)
G01 X97.772868 Y153.516447 Z-0.125000 F800.000000
G01 X95.687033 Y137.081472 Z-0.125000
G00 Z3.000000

(End cutting path id: path20531)


(Start cutting path id: path20533)
(Change tool to Default tool)

G00 Z3.000000
G00 X96.583633 Y173.740957

G00 Z4.875000 (Fast pre-penetrate)
G01 Z-0.125000 F400.0(Penetrate)
G01 X98.327479 Y153.476305 Z-0.125000 F800.000000
G01 X96.208740 Y137.074233 Z-0.125000
G00 Z3.000000

(End cutting path id: path20533)


(Start cutting path id: path20535)
(Change tool to Default tool)

G00 Z3.000000
G00 X96.810593 Y174.028467

G00 Z4.875000 (Fast pre-penetrate)
G01 Z-0.125000 F400.0(Penetrate)
G01 X98.882087 Y153.436159 Z-0.125000 F800.000000
G01 X96.730448 Y137.066991 Z-0.125000
G00 Z3.000000

(End cutting path id: path20535)


(Start cutting path id: path20537)
(Change tool to Default tool)

G00 Z3.000000
G00 X97.037552 Y174.315973

G00 Z4.875000 (Fast pre-penetrate)
G01 Z-0.125000 F400.0(Penetrate)
G01 X99.436698 Y153.396017 Z-0.125000 F800.000000
G01 X97.252153 Y137.059752 Z-0.125000
G00 Z3.000000

(End cutting path id: path20537)


(Start cutting path id: path20539)
(Change tool to Default tool)

G00 Z3.000000
G00 X97.264511 Y174.603482

G00 Z4.875000 (Fast pre-penetrate)
G01 Z-0.125000 F400.0(Penetrate)
G01 X99.991309 Y153.355874 Z-0.125000 F800.000000
G01 X97.773860 Y137.052511 Z-0.125000
G00 Z3.000000

(End cutting path id: path20539)


(Start cutting path id: path20541)
(Change tool to Default tool)

G00 Z3.000000
G00 X97.491471 Y174.890991

G00 Z4.875000 (Fast pre-penetrate)
G01 Z-0.125000 F400.0(Penetrate)
G01 X100.545917 Y153.315732 Z-0.125000 F800.000000
G01 X98.295567 Y137.045272 Z-0.125000
G00 Z3.000000

(End cutting path id: path20541)


(Start cutting path id: path20543)
(Change tool to Default tool)

G00 Z3.000000
G00 X97.718430 Y175.178498

G00 Z4.875000 (Fast pre-penetrate)
G01 Z-0.125000 F400.0(Penetrate)
G01 X101.100528 Y153.275589 Z-0.125000 F800.000000
G01 X98.817275 Y137.038030 Z-0.125000
G00 Z3.000000

(End cutting path id: path20543)


(Start cutting path id: path20545)
(Change tool to Default tool)

G00 Z3.000000
G00 X97.945387 Y175.466007

G00 Z4.875000 (Fast pre-penetrate)
G01 Z-0.125000 F400.0(Penetrate)
G01 X101.655137 Y153.235447 Z-0.125000 F800.000000
G01 X99.338982 Y137.030791 Z-0.125000
G00 Z3.000000

(End cutting path id: path20545)


(Start cutting path id: path20547)
(Change tool to Default tool)

G00 Z3.000000
G00 X98.172346 Y175.753513

G00 Z4.875000 (Fast pre-penetrate)
G01 Z-0.125000 F400.0(Penetrate)
G01 X102.209747 Y153.195304 Z-0.125000 F800.000000
G01 X99.860690 Y137.023552 Z-0.125000
G00 Z3.000000

(End cutting path id: path20547)


(Start cutting path id: path20549)
(Change tool to Default tool)

G00 Z3.000000
G00 X98.399305 Y176.041022

G00 Z4.875000 (Fast pre-penetrate)
G01 Z-0.125000 F400.0(Penetrate)
G01 X102.764356 Y153.155162 Z-0.125000 F800.000000
G01 X100.382397 Y137.016310 Z-0.125000
G00 Z3.000000

(End cutting path id: path20549)


(Start cutting path id: path20551)
(Change tool to Default tool)

G00 Z3.000000
G00 X98.626264 Y176.328532

G00 Z4.875000 (Fast pre-penetrate)
G01 Z-0.125000 F400.0(Penetrate)
G01 X103.318967 Y153.115017 Z-0.125000 F800.000000
G01 X100.904104 Y137.009071 Z-0.125000
G00 Z3.000000

(End cutting path id: path20551)


(Start cutting path id: path20553)
(Change tool to Default tool)

G00 Z3.000000
G00 X98.853224 Y176.616038

G00 Z4.875000 (Fast pre-penetrate)
G01 Z-0.125000 F400.0(Penetrate)
G01 X103.873578 Y153.074874 Z-0.125000 F800.000000
G01 X101.425812 Y137.001830 Z-0.125000
G00 Z3.000000

(End cutting path id: path20553)


(Start cutting path id: path20555)
(Change tool to Default tool)

G00 Z3.000000
G00 X99.080180 Y176.903547

G00 Z4.875000 (Fast pre-penetrate)
G01 Z-0.125000 F400.0(Penetrate)
G01 X104.428186 Y153.034731 Z-0.125000 F800.000000
G01 X101.947519 Y136.994591 Z-0.125000
G00 Z3.000000

(End cutting path id: path20555)


(Start cutting path id: path20557)
(Change tool to Default tool)

G00 Z3.000000
G00 X99.307140 Y177.191054

G00 Z4.875000 (Fast pre-penetrate)
G01 Z-0.125000 F400.0(Penetrate)
G01 X104.982797 Y152.994589 Z-0.125000 F800.000000
G01 X102.469227 Y136.987349 Z-0.125000
G00 Z3.000000

(End cutting path id: path20557)


(Start cutting path id: path20559)
(Change tool to Default tool)

G00 Z3.000000
G00 X99.534099 Y177.478563

G00 Z4.875000 (Fast pre-penetrate)
G01 Z-0.125000 F400.0(Penetrate)
G01 X105.537405 Y152.954446 Z-0.125000 F800.000000
G01 X102.990934 Y136.980110 Z-0.125000
G00 Z3.000000

(End cutting path id: path20559)


(Start cutting path id: path20561)
(Change tool to Default tool)

G00 Z3.000000
G00 X99.761058 Y177.766072

G00 Z4.875000 (Fast pre-penetrate)
G01 Z-0.125000 F400.0(Penetrate)
G01 X106.092016 Y152.914304 Z-0.125000 F800.000000
G01 X103.512639 Y136.972869 Z-0.125000
G00 Z3.000000

(End cutting path id: path20561)


(Start cutting path id: path20563)
(Change tool to Default tool)

G00 Z3.000000
G00 X99.988018 Y178.053578

G00 Z4.875000 (Fast pre-penetrate)
G01 Z-0.125000 F400.0(Penetrate)
G01 X106.646627 Y152.874161 Z-0.125000 F800.000000
G01 X104.034346 Y136.965630 Z-0.125000
G00 Z3.000000

(End cutting path id: path20563)


(Start cutting path id: path20565)
(Change tool to Default tool)

G00 Z3.000000
G00 X100.214977 Y178.341087

G00 Z4.875000 (Fast pre-penetrate)
G01 Z-0.125000 F400.0(Penetrate)
G01 X107.201235 Y152.834016 Z-0.125000 F800.000000
G01 X104.556054 Y136.958388 Z-0.125000
G00 Z3.000000

(End cutting path id: path20565)


(Start cutting path id: path20567)
(Change tool to Default tool)

G00 Z3.000000
G00 X100.441933 Y178.628597

G00 Z4.875000 (Fast pre-penetrate)
G01 Z-0.125000 F400.0(Penetrate)
G01 X107.755846 Y152.793874 Z-0.125000 F800.000000
G01 X105.077761 Y136.951149 Z-0.125000
G00 Z3.000000

(End cutting path id: path20567)


(Start cutting path id: path20569)
(Change tool to Default tool)

G00 Z3.000000
G00 X100.668893 Y178.916103

G00 Z4.875000 (Fast pre-penetrate)
G01 Z-0.125000 F400.0(Penetrate)
G01 X108.310455 Y152.753731 Z-0.125000 F800.000000
G01 X105.599468 Y136.943907 Z-0.125000
G00 Z3.000000

(End cutting path id: path20569)


(Start cutting path id: path20571)
(Change tool to Default tool)

G00 Z3.000000
G00 X100.895852 Y179.203612

G00 Z4.875000 (Fast pre-penetrate)
G01 Z-0.125000 F400.0(Penetrate)
G01 X108.865066 Y152.713589 Z-0.125000 F800.000000
G01 X106.121176 Y136.936668 Z-0.125000
G00 Z3.000000

(End cutting path id: path20571)


(Start cutting path id: path20573)
(Change tool to Default tool)

G00 Z3.000000
G00 X101.122811 Y179.491119

G00 Z4.875000 (Fast pre-penetrate)
G01 Z-0.125000 F400.0(Penetrate)
G01 X109.419674 Y152.673446 Z-0.125000 F800.000000
G01 X106.642883 Y136.929427 Z-0.125000
G00 Z3.000000

(End cutting path id: path20573)


(Start cutting path id: path20575)
(Change tool to Default tool)

G00 Z3.000000
G00 X101.349771 Y179.778628

G00 Z4.875000 (Fast pre-penetrate)
G01 Z-0.125000 F400.0(Penetrate)
G01 X109.974285 Y152.633304 Z-0.125000 F800.000000
G01 X107.164591 Y136.922188 Z-0.125000
G00 Z3.000000

(End cutting path id: path20575)


(Start cutting path id: path20577)
(Change tool to Default tool)

G00 Z3.000000
G00 X101.576730 Y180.066137

G00 Z4.875000 (Fast pre-penetrate)
G01 Z-0.125000 F400.0(Penetrate)
G01 X110.528896 Y152.593161 Z-0.125000 F800.000000
G01 X107.686298 Y136.914946 Z-0.125000
G00 Z3.000000

(End cutting path id: path20577)


(Start cutting path id: path20579)
(Change tool to Default tool)

G00 Z3.000000
G00 X101.803687 Y180.353643

G00 Z4.875000 (Fast pre-penetrate)
G01 Z-0.125000 F400.0(Penetrate)
G01 X111.083504 Y152.553016 Z-0.125000 F800.000000
G01 X108.208005 Y136.907707 Z-0.125000
G00 Z3.000000

(End cutting path id: path20579)


(Start cutting path id: path20581)
(Change tool to Default tool)

G00 Z3.000000
G00 X102.030646 Y180.641152

G00 Z4.875000 (Fast pre-penetrate)
G01 Z-0.125000 F400.0(Penetrate)
G01 X111.638115 Y152.512873 Z-0.125000 F800.000000
G01 X108.729713 Y136.900468 Z-0.125000
G00 Z3.000000

(End cutting path id: path20581)


(Start cutting path id: path20583)
(Change tool to Default tool)

G00 Z3.000000
G00 X102.257605 Y180.928661

G00 Z4.875000 (Fast pre-penetrate)
G01 Z-0.125000 F400.0(Penetrate)
G01 X112.192723 Y152.472731 Z-0.125000 F800.000000
G01 X109.251420 Y136.893226 Z-0.125000
G00 Z3.000000

(End cutting path id: path20583)


(Start cutting path id: path20585)
(Change tool to Default tool)

G00 Z3.000000
G00 X102.484565 Y181.216168

G00 Z4.875000 (Fast pre-penetrate)
G01 Z-0.125000 F400.0(Penetrate)
G01 X112.747334 Y152.432588 Z-0.125000 F800.000000
G01 X109.773125 Y136.885987 Z-0.125000
G00 Z3.000000

(End cutting path id: path20585)



(Footer)
M5
G00 X0.0000 Y0.0000
M2
(Using default footer. To add your own footer create file "footer" in the output dir.)
(end)
%