%
(Header)
(Generated by gcodetools from Inkscape.)
(Using default header. To add your own header create file "header" in the output dir.)
M3
(Header end.)
G21 (All units in mm)

(Start cutting path id: polyline97718)
(Change tool to Default tool)

G00 Z3.000000
G00 X123.939750 Y112.352626

G00 Z4.875000 (Fast pre-penetrate)
G01 Z-0.125000 F400.0(Penetrate)
G01 X120.728760 Y116.281840 Z-0.125000 F800.000000
G01 X110.645492 Y127.420075 Z-0.125000
G01 X105.507264 Y133.817722 Z-0.125000
G01 X100.758951 Y140.853189 Z-0.125000
G01 X94.133033 Y152.573818 Z-0.125000
G01 X92.339050 Y155.136430 Z-0.125000
G01 X90.358768 Y157.486542 Z-0.125000
G01 X86.642375 Y160.884282 Z-0.125000
G01 X84.659969 Y162.239554 Z-0.125000
G01 X82.632564 Y163.326193 Z-0.125000
G01 X80.754058 Y164.048215 Z-0.125000
G01 X78.989043 Y164.414376 Z-0.125000
G01 X77.577573 Y164.388690 Z-0.125000
G01 X76.335020 Y163.983712 Z-0.125000
G01 X75.028737 Y162.848471 Z-0.125000
G01 X74.037050 Y160.945695 Z-0.125000
G01 X73.386162 Y158.260321 Z-0.125000
G01 X73.143986 Y155.083579 Z-0.125000
G01 X73.322109 Y151.918874 Z-0.125000
G01 X73.864720 Y149.047909 Z-0.125000
G01 X74.825893 Y146.105939 Z-0.125000
G01 X76.242836 Y143.068952 Z-0.125000
G01 X79.252785 Y138.255235 Z-0.125000
G01 X83.905437 Y132.243255 Z-0.125000
G01 X107.742533 Y105.002111 Z-0.125000
G01 X110.306819 Y102.361477 Z-0.125000
G01 X112.215388 Y100.705449 Z-0.125000
G01 X113.678294 Y99.810002 Z-0.125000
G01 X115.282952 Y99.321723 Z-0.125000
G01 X123.215089 Y98.663367 Z-0.125000
G01 X126.327908 Y98.703408 Z-0.125000
G01 X127.570783 Y98.976934 Z-0.125000
G01 X128.557448 Y99.479504 Z-0.125000
G01 X129.241103 Y100.237705 Z-0.125000
G01 X129.579068 Y101.178664 Z-0.125000
G01 X129.542181 Y102.953013 Z-0.125000
G01 X128.892258 Y105.160214 Z-0.125000
G01 X127.597498 Y107.878548 Z-0.125000
G01 X125.725880 Y110.901179 Z-0.125000
G01 X122.122786 Y115.443494 Z-0.125000
G01 X110.690489 Y127.885566 Z-0.125000
G01 X105.605885 Y134.201779 Z-0.125000
G01 X100.813605 Y141.320933 Z-0.125000
G01 X94.346627 Y152.896719 Z-0.125000
G01 X91.339060 Y157.004186 Z-0.125000
G01 X89.408217 Y159.064035 Z-0.125000
G01 X87.409910 Y160.827826 Z-0.125000
G01 X85.255688 Y162.366694 Z-0.125000
G01 X83.004648 Y163.617551 Z-0.125000
G01 X80.758500 Y164.510422 Z-0.125000
G01 X78.741396 Y164.956987 Z-0.125000
G01 X77.015521 Y164.953124 Z-0.125000
G01 X75.595230 Y164.505852 Z-0.125000
G01 X74.192772 Y163.327480 Z-0.125000
G01 X73.109674 Y161.366768 Z-0.125000
G01 X72.367439 Y158.604145 Z-0.125000
G01 X72.038937 Y155.337728 Z-0.125000
G01 X72.146248 Y152.089465 Z-0.125000
G01 X72.638583 Y149.153804 Z-0.125000
G01 X73.565509 Y146.158017 Z-0.125000
G01 X74.968804 Y143.076098 Z-0.125000
G01 X78.005147 Y138.200131 Z-0.125000
G01 X82.762601 Y132.098542 Z-0.125000
G01 X107.090485 Y104.540161 Z-0.125000
G01 X109.812295 Y101.745222 Z-0.125000
G01 X111.832940 Y99.990765 Z-0.125000
G01 X113.458198 Y99.012726 Z-0.125000
G01 X115.010198 Y98.583350 Z-0.125000
G01 X124.033222 Y98.080780 Z-0.125000
G01 X127.102588 Y98.201803 Z-0.125000
G01 X128.501184 Y98.562686 Z-0.125000
G01 X129.516625 Y99.151775 Z-0.125000
G01 X130.204335 Y100.007374 Z-0.125000
G01 X130.525756 Y101.043542 Z-0.125000
G01 X130.456425 Y102.843577 Z-0.125000
G01 X129.759445 Y105.155000 Z-0.125000
G01 X128.474533 Y107.816620 Z-0.125000
G01 X126.647720 Y110.735479 Z-0.125000
G01 X122.944910 Y115.315904 Z-0.125000
G01 X111.484353 Y127.535176 Z-0.125000
G01 X106.025670 Y134.208087 Z-0.125000
G01 X100.991020 Y141.640487 Z-0.125000
G01 X94.413448 Y153.499713 Z-0.125000
G01 X91.328953 Y157.679601 Z-0.125000
G01 X89.429010 Y159.667930 Z-0.125000
G01 X87.347081 Y161.452772 Z-0.125000
G01 X85.087285 Y162.995244 Z-0.125000
G01 X82.839657 Y164.176899 Z-0.125000
G01 X80.460189 Y165.065779 Z-0.125000
G01 X78.313435 Y165.505391 Z-0.125000
G01 X76.469691 Y165.495735 Z-0.125000
G01 X74.946080 Y165.044085 Z-0.125000
G01 X73.430001 Y163.858761 Z-0.125000
G01 X72.292314 Y162.006326 Z-0.125000
G01 X71.419205 Y159.249626 Z-0.125000
G01 X70.955903 Y155.955593 Z-0.125000
G01 X70.934145 Y152.649779 Z-0.125000
G01 X71.312601 Y149.655924 Z-0.125000
G01 X72.133502 Y146.616169 Z-0.125000
G01 X73.445901 Y143.505732 Z-0.125000
G01 X76.391412 Y138.607620 Z-0.125000
G01 X80.691486 Y133.014910 Z-0.125000
G01 X103.513785 Y107.233518 Z-0.125000
G01 X107.477117 Y102.940846 Z-0.125000
G01 X110.271091 Y100.214337 Z-0.125000
G01 X112.306220 Y98.667616 Z-0.125000
G01 X113.964502 Y97.964262 Z-0.125000
G01 X115.568516 Y97.768693 Z-0.125000
G01 X124.390242 Y97.535722 Z-0.125000
G01 X127.466432 Y97.658999 Z-0.125000
G01 X128.926570 Y97.982094 Z-0.125000
G01 X130.104491 Y98.551163 Z-0.125000
G01 X130.945798 Y99.391955 Z-0.125000
G01 X131.396290 Y100.420206 Z-0.125000
G01 X131.477337 Y102.217601 Z-0.125000
G01 X130.899385 Y104.532565 Z-0.125000
G01 X129.616276 Y107.348748 Z-0.125000
G01 X127.812637 Y110.287177 Z-0.125000
G01 X124.103840 Y114.877515 Z-0.125000
G01 X111.925575 Y127.643325 Z-0.125000
G01 X106.305827 Y134.455928 Z-0.125000
G01 X101.745423 Y141.071997 Z-0.125000
G01 X95.012322 Y153.282707 Z-0.125000
G01 X93.426590 Y155.732793 Z-0.125000
G01 X91.726657 Y157.922035 Z-0.125000
G01 X89.899071 Y159.877018 Z-0.125000
G01 X88.010393 Y161.543861 Z-0.125000
G01 X85.953377 Y163.014943 Z-0.125000
G01 X83.891983 Y164.183594 Z-0.125000
G01 X81.636437 Y165.153843 Z-0.125000
G01 X79.407670 Y165.801449 Z-0.125000
G01 X77.423396 Y166.072722 Z-0.125000
G01 X75.617826 Y165.964960 Z-0.125000
G01 X74.032029 Y165.416941 Z-0.125000
G01 X72.758384 Y164.443409 Z-0.125000
G01 X71.689899 Y162.973486 Z-0.125000
G01 X70.826253 Y160.978719 Z-0.125000
G01 X70.148907 Y158.288904 Z-0.125000
G01 X69.791308 Y155.325497 Z-0.125000
G01 X69.774892 Y152.323724 Z-0.125000
G01 X70.113051 Y149.479989 Z-0.125000
G01 X71.426415 Y145.042346 Z-0.125000
G01 X73.673271 Y140.672619 Z-0.125000
G01 X77.127339 Y135.752749 Z-0.125000
G01 X82.335155 Y129.513656 Z-0.125000
G01 X105.414565 Y103.892298 Z-0.125000
G01 X109.300262 Y99.960638 Z-0.125000
G01 X111.893645 Y97.917205 Z-0.125000
G01 X113.234819 Y97.292194 Z-0.125000
G01 X114.665152 Y97.048023 Z-0.125000
G01 X126.906569 Y97.049310 Z-0.125000
G01 X128.747030 Y97.284727 Z-0.125000
G01 X130.109963 Y97.700327 Z-0.125000
G01 X131.197244 Y98.346517 Z-0.125000
G01 X131.967998 Y99.237006 Z-0.125000
G01 X132.486340 Y101.073476 Z-0.125000
G01 X132.158288 Y103.544548 Z-0.125000
G01 X131.003542 Y106.465146 Z-0.125000
G01 X129.001051 Y109.870868 Z-0.125000
G01 X127.320302 Y112.139354 Z-0.125000
G01 X125.136275 Y114.642291 Z-0.125000
G01 X112.584703 Y127.561248 Z-0.125000
G01 X106.600339 Y134.741364 Z-0.125000
G01 X101.844817 Y141.633727 Z-0.125000
G01 X95.294152 Y153.624471 Z-0.125000
G01 X92.255428 Y158.040869 Z-0.125000
G01 X88.844813 Y161.517404 Z-0.125000
G01 X84.932787 Y164.192478 Z-0.125000
G01 X82.727903 Y165.236242 Z-0.125000
G01 X80.487548 Y166.006352 Z-0.125000
G01 X78.302878 Y166.469718 Z-0.125000
G01 X76.382013 Y166.590742 Z-0.125000
G01 X74.639143 Y166.365754 Z-0.125000
G01 X73.103430 Y165.742353 Z-0.125000
G01 X71.781632 Y164.662861 Z-0.125000
G01 X70.735486 Y163.197895 Z-0.125000
G01 X69.812036 Y161.110622 Z-0.125000
G01 X69.107653 Y158.503592 Z-0.125000
G01 X68.670551 Y155.462035 Z-0.125000
G01 X68.576500 Y152.609224 Z-0.125000
G01 X69.127738 Y148.139330 Z-0.125000
G01 X70.598111 Y143.837066 Z-0.125000
G01 X73.107421 Y139.364662 Z-0.125000
G01 X77.101203 Y134.025136 Z-0.125000
G01 X83.002974 Y127.224635 Z-0.125000
G01 X103.924042 Y104.207604 Z-0.125000
G01 X108.373208 Y99.645848 Z-0.125000
G01 X111.326186 Y97.238442 Z-0.125000
G01 X112.745961 Y96.538629 Z-0.125000
G01 X114.213437 Y96.281518 Z-0.125000
G01 X119.449707 Y96.543586 Z-0.125000
G01 X127.540784 Y96.563477 Z-0.125000
G01 X129.498664 Y96.843184 Z-0.125000
G01 X130.947472 Y97.309382 Z-0.125000
G01 X132.102862 Y98.016534 Z-0.125000
G01 X132.872006 Y98.892797 Z-0.125000
G01 X133.279882 Y99.783673 Z-0.125000
G01 X133.471395 Y100.811924 Z-0.125000
G01 X133.217374 Y103.233878 Z-0.125000
G01 X132.101897 Y106.204688 Z-0.125000
G01 X130.103332 Y109.648069 Z-0.125000
G01 X128.409451 Y111.931811 Z-0.125000
G01 X126.195555 Y114.439641 Z-0.125000
G01 X113.271834 Y127.506143 Z-0.125000
G01 X107.079606 Y134.843719 Z-0.125000
G01 X101.959789 Y142.231507 Z-0.125000
G01 X95.596647 Y153.977371 Z-0.125000
G01 X92.817029 Y158.143289 Z-0.125000
G01 X89.956042 Y161.250250 Z-0.125000
G01 X86.741898 Y163.735678 Z-0.125000
G01 X83.088206 Y165.623518 Z-0.125000
G01 X79.267076 Y166.777621 Z-0.125000
G01 X77.010306 Y167.069365 Z-0.125000
G01 X74.932111 Y166.996558 Z-0.125000
G01 X73.195292 Y166.548706 Z-0.125000
G01 X71.774809 Y165.748340 Z-0.125000
G01 X70.544487 Y164.528769 Z-0.125000
G01 X69.494285 Y162.849694 Z-0.125000
G01 X68.621112 Y160.694442 Z-0.125000
G01 X67.942220 Y158.088957 Z-0.125000
G01 X67.527457 Y155.341848 Z-0.125000
G01 X67.387958 Y152.412238 Z-0.125000
G01 X67.575866 Y149.678519 Z-0.125000
G01 X68.060734 Y147.171913 Z-0.125000
G01 X68.878287 Y144.652818 Z-0.125000
G01 X69.931966 Y142.330772 Z-0.125000
G01 X71.447079 Y139.709515 Z-0.125000
G01 X73.337173 Y136.980946 Z-0.125000
G01 X79.961868 Y129.046556 Z-0.125000
G01 X102.278893 Y104.650113 Z-0.125000
G01 X107.525720 Y99.227930 Z-0.125000
G01 X110.832821 Y96.490348 Z-0.125000
G01 X112.323022 Y95.744701 Z-0.125000
G01 X113.732304 Y95.496087 Z-0.125000
G01 X119.462389 Y95.961513 Z-0.125000
G01 X128.193604 Y96.095798 Z-0.125000
G01 X130.271735 Y96.424107 Z-0.125000
G01 X131.807706 Y96.945603 Z-0.125000
G01 X133.031590 Y97.718803 Z-0.125000
G01 X133.846118 Y98.662466 Z-0.125000
G01 X134.278907 Y99.611472 Z-0.125000
G01 X134.492050 Y100.813018 Z-0.125000
G01 X134.114945 Y103.639629 Z-0.125000
G01 X132.677017 Y107.058677 Z-0.125000
G01 X130.417994 Y110.606860 Z-0.125000
G01 X126.947446 Y114.615512 Z-0.125000
G01 X114.425486 Y127.008788 Z-0.125000
G01 X107.582820 Y134.978004 Z-0.125000
G01 X104.826119 Y138.700384 Z-0.125000
G01 X102.322088 Y142.490549 Z-0.125000
G01 X100.054374 Y146.411974 Z-0.125000
G01 X95.659734 Y154.795504 Z-0.125000
G01 X92.494128 Y159.380627 Z-0.125000
G01 X90.646264 Y161.367347 Z-0.125000
G01 X88.720506 Y163.033096 Z-0.125000
G01 X86.589138 Y164.485252 Z-0.125000
G01 X84.269281 Y165.690661 Z-0.125000
G01 X81.512130 Y166.713633 Z-0.125000
G01 X78.732254 Y167.351389 Z-0.125000
G01 X76.224232 Y167.569038 Z-0.125000
G01 X73.939910 Y167.368899 Z-0.125000
G01 X72.160540 Y166.792491 Z-0.125000
G01 X70.613625 Y165.779755 Z-0.125000
G01 X69.286742 Y164.268568 Z-0.125000
G01 X68.231840 Y162.366951 Z-0.125000
G01 X67.189492 Y159.413458 Z-0.125000
G01 X66.463221 Y155.848796 Z-0.125000
G01 X66.192720 Y152.401101 Z-0.125000
G01 X66.376316 Y149.149684 Z-0.125000
G01 X67.002227 Y146.142825 Z-0.125000
G01 X68.019148 Y143.354903 Z-0.125000
G01 X69.490744 Y140.512134 Z-0.125000
G01 X71.613487 Y137.308161 Z-0.125000
G01 X74.497649 Y133.637474 Z-0.125000
G01 X78.203806 Y129.385294 Z-0.125000
G01 X101.749607 Y103.852515 Z-0.125000
G01 X107.163486 Y98.318514 Z-0.125000
G01 X110.562063 Y95.578744 Z-0.125000
G01 X111.977782 Y94.906933 Z-0.125000
G01 X113.423436 Y94.691086 Z-0.125000
G01 X119.313491 Y95.378926 Z-0.125000
G01 X129.175763 Y95.681292 Z-0.125000
G01 X131.066822 Y96.027497 Z-0.125000
G01 X132.691115 Y96.609183 Z-0.125000
G01 X133.983493 Y97.453581 Z-0.125000
G01 X134.842890 Y98.469214 Z-0.125000
G01 X135.299626 Y99.479698 Z-0.125000
G01 X135.525772 Y100.747292 Z-0.125000
G01 X135.179052 Y103.546995 Z-0.125000
G01 X133.818888 Y106.880425 Z-0.125000
G01 X131.559221 Y110.462532 Z-0.125000
G01 X128.052817 Y114.480390 Z-0.125000
G01 X116.098059 Y126.046842 Z-0.125000
G01 X110.219784 Y132.550771 Z-0.125000
G01 X106.212420 Y137.636727 Z-0.125000
G01 X102.824594 Y142.592518 Z-0.125000
G01 X100.310198 Y146.900897 Z-0.125000
G01 X96.087501 Y155.030083 Z-0.125000
G01 X93.626601 Y158.840527 Z-0.125000
G01 X91.709791 Y161.118025 Z-0.125000
G01 X89.699575 Y163.008505 Z-0.125000
G01 X87.443063 Y164.648763 Z-0.125000
G01 X85.091727 Y165.931292 Z-0.125000
G01 X82.407061 Y166.980593 Z-0.125000
G01 X79.477451 Y167.711885 Z-0.125000
G01 X76.621164 Y168.029572 Z-0.125000
G01 X73.990894 Y167.898377 Z-0.125000
G01 X72.044151 Y167.399863 Z-0.125000
G01 X70.341515 Y166.488580 Z-0.125000
G01 X68.871785 Y165.099061 Z-0.125000
G01 X67.689036 Y163.318596 Z-0.125000
G01 X66.419318 Y160.308905 Z-0.125000
G01 X65.514859 Y156.785056 Z-0.125000
G01 X65.034626 Y153.066732 Z-0.125000
G01 X65.063466 Y149.511146 Z-0.125000
G01 X65.560500 Y146.460190 Z-0.125000
G01 X66.465925 Y143.650767 Z-0.125000
G01 X67.839672 Y140.804458 Z-0.125000
G01 X69.879694 Y137.611621 Z-0.125000
G01 X72.710554 Y133.959409 Z-0.125000
G01 X76.676783 Y129.421536 Z-0.125000
G01 X100.941066 Y103.321620 Z-0.125000
G01 X106.592357 Y97.577373 Z-0.125000
G01 X110.140347 Y94.740140 Z-0.125000
G01 X111.608982 Y94.060798 Z-0.125000
G01 X112.990132 Y93.873147 Z-0.125000
G01 X119.290381 Y94.809986 Z-0.125000
G01 X129.886712 Y95.255649 Z-0.125000
G01 X131.884633 Y95.653289 Z-0.125000
G01 X133.597698 Y96.300315 Z-0.125000
G01 X134.958506 Y97.221254 Z-0.125000
G01 X135.861935 Y98.313428 Z-0.125000
G01 X136.341588 Y99.388608 Z-0.125000
G01 X136.570181 Y100.597493 Z-0.125000
G01 X136.552414 Y101.922123 Z-0.125000
G01 X136.260734 Y103.491375 Z-0.125000
G01 X134.978527 Y106.736162 Z-0.125000
G01 X132.720920 Y110.353289 Z-0.125000
G01 X129.182651 Y114.379451 Z-0.125000
G01 X116.677557 Y126.291465 Z-0.125000
G01 X110.633389 Y132.938626 Z-0.125000
G01 X106.539634 Y138.113676 Z-0.125000
G01 X103.107004 Y143.113371 Z-0.125000
G01 X100.583402 Y147.421878 Z-0.125000
G01 X96.271226 Y155.742192 Z-0.125000
G01 X93.860665 Y159.474035 Z-0.125000
G01 X92.012994 Y161.673704 Z-0.125000
G01 X89.957137 Y163.600041 Z-0.125000
G01 X87.779290 Y165.165881 Z-0.125000
G01 X85.357271 Y166.460062 Z-0.125000
G01 X82.567611 Y167.503312 Z-0.125000
G01 X79.497150 Y168.212138 Z-0.125000
G01 X76.481922 Y168.500599 Z-0.125000
G01 X73.691103 Y168.345264 Z-0.125000
G01 X71.619924 Y167.837672 Z-0.125000
G01 X69.805535 Y166.929930 Z-0.125000
G01 X68.235381 Y165.554831 Z-0.125000
G01 X66.963474 Y163.791683 Z-0.125000
G01 X65.573246 Y160.795188 Z-0.125000
G01 X64.485127 Y157.029678 Z-0.125000
G01 X63.882520 Y153.240285 Z-0.125000
G01 X63.792074 Y149.612600 Z-0.125000
G01 X64.191130 Y146.516582 Z-0.125000
G01 X65.015829 Y143.683212 Z-0.125000
G01 X66.323786 Y140.828534 Z-0.125000
G01 X68.315785 Y137.638336 Z-0.125000
G01 X71.128298 Y133.991918 Z-0.125000
G01 X74.849454 Y129.745146 Z-0.125000
G01 X100.362599 Y102.515139 Z-0.125000
G01 X106.186863 Y96.655211 Z-0.125000
G01 X108.173647 Y94.952832 Z-0.125000
G01 X109.830964 Y93.815660 Z-0.125000
G01 X111.332752 Y93.174621 Z-0.125000
G01 X112.636718 Y93.045164 Z-0.125000
G01 X119.253816 Y94.248320 Z-0.125000
G01 X127.744078 Y94.575148 Z-0.125000
G01 X130.790206 Y94.874167 Z-0.125000
G01 X132.875933 Y95.346674 Z-0.125000
G01 X134.651698 Y96.085949 Z-0.125000
G01 X135.956372 Y97.022015 Z-0.125000
G01 X136.902739 Y98.195430 Z-0.125000
G01 X137.404150 Y99.338525 Z-0.125000
G01 X137.642464 Y100.612556 Z-0.125000
G01 X137.359024 Y103.472385 Z-0.125000
G01 X136.072954 Y106.788241 Z-0.125000
G01 X133.777688 Y110.446696 Z-0.125000
G01 X130.158436 Y114.486055 Z-0.125000
G01 X117.759302 Y126.080639 Z-0.125000
G01 X111.272626 Y133.120355 Z-0.125000
G01 X107.051668 Y138.406965 Z-0.125000
G01 X103.406473 Y143.674328 Z-0.125000
G01 X100.873988 Y147.975819 Z-0.125000
G01 X96.469177 Y156.479728 Z-0.125000
G01 X94.004542 Y160.268735 Z-0.125000
G01 X92.103633 Y162.490035 Z-0.125000
G01 X90.106034 Y164.314145 Z-0.125000
G01 X88.000737 Y165.787158 Z-0.125000
G01 X85.660023 Y167.002609 Z-0.125000
G01 X82.768265 Y168.037361 Z-0.125000
G01 X79.736622 Y168.691726 Z-0.125000
G01 X76.552476 Y168.966926 Z-0.125000
G01 X73.580379 Y168.803158 Z-0.125000
G01 X71.225181 Y168.256105 Z-0.125000
G01 X69.296849 Y167.345788 Z-0.125000
G01 X67.625950 Y165.981246 Z-0.125000
G01 X66.266622 Y164.234578 Z-0.125000
G01 X64.759748 Y161.254241 Z-0.125000
G01 X63.533868 Y157.476822 Z-0.125000
G01 X62.749468 Y153.387702 Z-0.125000
G01 X62.535745 Y149.686244 Z-0.125000
G01 X62.831931 Y146.543426 Z-0.125000
G01 X63.570240 Y143.685787 Z-0.125000
G01 X64.805969 Y140.824027 Z-0.125000
G01 X66.742348 Y137.639946 Z-0.125000
G01 X69.528210 Y134.005308 Z-0.125000
G01 X73.264430 Y129.761433 Z-0.125000
G01 X99.764948 Y101.701770 Z-0.125000
G01 X105.559922 Y95.911494 Z-0.125000
G01 X107.634834 Y94.142231 Z-0.125000
G01 X109.363542 Y92.964632 Z-0.125000
G01 X110.803144 Y92.344128 Z-0.125000
G01 X112.155777 Y92.199222 Z-0.125000
G01 X119.037390 Y93.673651 Z-0.125000
G01 X128.539230 Y94.144291 Z-0.125000
G01 X131.554329 Y94.487471 Z-0.125000
G01 X133.747754 Y95.022035 Z-0.125000
G01 X135.481290 Y95.765300 Z-0.125000
G01 X136.877118 Y96.761815 Z-0.125000
G01 X137.827476 Y97.889781 Z-0.125000
G01 X138.404398 Y99.075878 Z-0.125000
G01 X138.705605 Y100.393748 Z-0.125000
G01 X138.736634 Y101.820540 Z-0.125000
G01 X138.509586 Y103.334173 Z-0.125000
G01 X137.266260 Y106.712343 Z-0.125000
G01 X134.976788 Y110.407943 Z-0.125000
G01 X131.331401 Y114.453739 Z-0.125000
G01 X118.631961 Y126.141279 Z-0.125000
G01 X111.937806 Y133.335172 Z-0.125000
G01 X107.587197 Y138.737463 Z-0.125000
G01 X103.723001 Y144.276164 Z-0.125000
G01 X101.091058 Y148.730028 Z-0.125000
G01 X96.680131 Y157.243401 Z-0.125000
G01 X94.268026 Y160.946082 Z-0.125000
G01 X92.444367 Y163.082278 Z-0.125000
G01 X90.406212 Y164.939863 Z-0.125000
G01 X88.246518 Y166.424721 Z-0.125000
G01 X85.998954 Y167.560477 Z-0.125000
G01 X83.008639 Y168.585122 Z-0.125000
G01 X79.845801 Y169.209038 Z-0.125000
G01 X76.498466 Y169.439434 Z-0.125000
G01 X73.356550 Y169.231891 Z-0.125000
G01 X70.860179 Y168.657737 Z-0.125000
G01 X68.815200 Y167.737828 Z-0.125000
G01 X67.043233 Y166.379208 Z-0.125000
G01 X65.598030 Y164.647604 Z-0.125000
G01 X63.978952 Y161.685678 Z-0.125000
G01 X62.619946 Y157.902207 Z-0.125000
G01 X61.678086 Y153.762232 Z-0.125000
G01 X61.297055 Y149.732594 Z-0.125000
G01 X61.485736 Y146.541045 Z-0.125000
G01 X62.132247 Y143.658492 Z-0.125000
G01 X63.289375 Y140.790617 Z-0.125000
G01 X65.162603 Y137.615870 Z-0.125000
G01 X67.913445 Y133.998613 Z-0.125000
G01 X71.656424 Y129.765359 Z-0.125000
G01 X99.431939 Y100.587837 Z-0.125000
G01 X105.323797 Y94.790867 Z-0.125000
G01 X107.421691 Y93.063189 Z-0.125000
G01 X109.019011 Y92.028115 Z-0.125000
G01 X110.490993 Y91.443017 Z-0.125000
G01 X111.760583 Y91.347872 Z-0.125000
G01 X116.402035 Y92.636001 Z-0.125000
G01 X118.968896 Y93.121190 Z-0.125000
G01 X128.963392 Y93.700366 Z-0.125000
G01 X132.341498 Y94.117962 Z-0.125000
G01 X134.477630 Y94.663277 Z-0.125000
G01 X136.179107 Y95.384398 Z-0.125000
G01 X137.699371 Y96.423592 Z-0.125000
G01 X138.750603 Y97.598101 Z-0.125000
G01 X139.406770 Y98.830483 Z-0.125000
G01 X139.774154 Y100.195604 Z-0.125000
G01 X139.858098 Y101.667973 Z-0.125000
G01 X139.671027 Y103.223192 Z-0.125000
G01 X138.474308 Y106.668376 Z-0.125000
G01 X136.193141 Y110.403308 Z-0.125000
G01 X134.528550 Y112.427880 Z-0.125000
G01 X132.525286 Y114.455670 Z-0.125000
G01 X119.532106 Y126.231082 Z-0.125000
G01 X112.628735 Y133.583142 Z-0.125000
G01 X107.967456 Y139.342131 Z-0.125000
G01 X104.056911 Y144.919649 Z-0.125000
G01 X101.326024 Y149.515266 Z-0.125000
G01 X96.995694 Y157.870664 Z-0.125000
G01 X94.545737 Y161.644736 Z-0.125000
G01 X92.681972 Y163.817626 Z-0.125000
G01 X90.727633 Y165.583027 Z-0.125000
G01 X88.671646 Y166.988768 Z-0.125000
G01 X86.372904 Y168.135275 Z-0.125000
G01 X83.476962 Y169.101082 Z-0.125000
G01 X80.192070 Y169.715342 Z-0.125000
G01 X76.867653 Y169.918765 Z-0.125000
G01 X73.519739 Y169.706201 Z-0.125000
G01 X70.836940 Y169.142218 Z-0.125000
G01 X68.495389 Y168.182783 Z-0.125000
G01 X66.603299 Y166.855256 Z-0.125000
G01 X65.060441 Y165.169873 Z-0.125000
G01 X63.320403 Y162.275282 Z-0.125000
G01 X61.744263 Y158.305383 Z-0.125000
G01 X60.597499 Y153.863943 Z-0.125000
G01 X60.078385 Y149.752421 Z-0.125000
G01 X60.155376 Y146.509952 Z-0.125000
G01 X60.773627 Y143.361469 Z-0.125000
G01 X61.891744 Y140.487929 Z-0.125000
G01 X63.579703 Y137.565400 Z-0.125000
G01 X66.287222 Y133.970997 Z-0.125000
G01 X70.028398 Y129.756154 Z-0.125000
G01 X98.807380 Y99.755670 Z-0.125000
G01 X104.652888 Y94.039683 Z-0.125000
G01 X106.842773 Y92.241580 Z-0.125000
G01 X108.508844 Y91.166079 Z-0.125000
G01 X110.038635 Y90.565659 Z-0.125000
G01 X111.347043 Y90.486479 Z-0.125000
G01 X116.220242 Y92.019489 Z-0.125000
G01 X118.889329 Y92.574009 Z-0.125000
G01 X129.605139 Y93.280710 Z-0.125000
G01 X132.954084 Y93.725343 Z-0.125000
G01 X135.213815 Y94.316042 Z-0.125000
G01 X137.017454 Y95.089756 Z-0.125000
G01 X138.514542 Y96.094253 Z-0.125000
G01 X139.670834 Y97.318395 Z-0.125000
G01 X140.409722 Y98.600345 Z-0.125000
G01 X140.846630 Y100.016257 Z-0.125000
G01 X140.986580 Y101.537744 Z-0.125000
G01 X140.842060 Y103.137831 Z-0.125000
G01 X140.431094 Y104.793023 Z-0.125000
G01 X139.695875 Y106.655308 Z-0.125000
G01 X137.425394 Y110.431955 Z-0.125000
G01 X135.755202 Y112.467277 Z-0.125000
G01 X133.738742 Y114.491849 Z-0.125000
G01 X125.006690 Y122.116019 Z-0.125000
G01 X120.459289 Y126.349723 Z-0.125000
G01 X113.345543 Y133.864200 Z-0.125000
G01 X108.545666 Y139.753225 Z-0.125000
G01 X104.408330 Y145.605428 Z-0.125000
G01 X101.578629 Y150.331210 Z-0.125000
G01 X97.230982 Y158.685514 Z-0.125000
G01 X94.836516 Y162.365084 Z-0.125000
G01 X93.058047 Y164.445855 Z-0.125000
G01 X91.069010 Y166.244280 Z-0.125000
G01 X88.966867 Y167.661802 Z-0.125000
G01 X86.780394 Y168.728355 Z-0.125000
G01 X83.801216 Y169.684507 Z-0.125000
G01 X80.390923 Y170.262459 Z-0.125000
G01 X76.911105 Y170.411035 Z-0.125000
G01 X73.384810 Y170.134869 Z-0.125000
G01 X70.549830 Y169.523249 Z-0.125000
G01 X68.074896 Y168.534653 Z-0.125000
G01 X66.078391 Y167.200174 Z-0.125000
G01 X64.452168 Y165.523674 Z-0.125000
G01 X62.609968 Y162.649876 Z-0.125000
G01 X60.907139 Y158.686029 Z-0.125000
G01 X59.601049 Y154.203131 Z-0.125000
G01 X58.882117 Y149.746692 Z-0.125000
G01 X58.843621 Y146.450921 Z-0.125000
G01 X59.351985 Y143.273727 Z-0.125000
G01 X60.380493 Y140.396646 Z-0.125000
G01 X61.997061 Y137.488215 Z-0.125000
G01 X64.652758 Y133.921622 Z-0.125000
G01 X68.383313 Y129.732786 Z-0.125000
G01 X98.166856 Y98.918225 Z-0.125000
G01 X104.176647 Y93.095441 Z-0.125000
G01 X106.425113 Y91.283626 Z-0.125000
G01 X108.132834 Y90.218875 Z-0.125000
G01 X109.566192 Y89.681285 Z-0.125000
G01 X110.915928 Y89.615109 Z-0.125000
G01 X115.870239 Y91.359652 Z-0.125000
G01 X118.799720 Y92.031527 Z-0.125000
G01 X122.049335 Y92.396786 Z-0.125000
G01 X130.040889 Y92.850883 Z-0.125000
G01 X133.779491 Y93.383580 Z-0.125000
G01 X135.956050 Y93.979042 Z-0.125000
G01 X137.863718 Y94.808634 Z-0.125000
G01 X139.451446 Y95.878664 Z-0.125000
G01 X140.586687 Y97.048538 Z-0.125000
G01 X141.411837 Y98.383274 Z-0.125000
G01 X141.921681 Y99.853648 Z-0.125000
G01 X142.120598 Y101.428050 Z-0.125000
G01 X142.021332 Y103.076418 Z-0.125000
G01 X141.590282 Y104.944818 Z-0.125000
G01 X140.850428 Y106.845598 Z-0.125000
G01 X138.544927 Y110.665698 Z-0.125000
G01 X136.997691 Y112.540149 Z-0.125000
G01 X134.970158 Y114.561630 Z-0.125000
G01 X126.083093 Y122.199577 Z-0.125000
G01 X121.412930 Y126.496819 Z-0.125000
G01 X114.088101 Y134.177960 Z-0.125000
G01 X109.148017 Y140.202622 Z-0.125000
G01 X104.777324 Y146.333824 Z-0.125000
G01 X101.936421 Y151.018020 Z-0.125000
G01 X97.378978 Y159.695482 Z-0.125000
G01 X95.023523 Y163.258728 Z-0.125000
G01 X93.195615 Y165.352760 Z-0.125000
G01 X91.284792 Y167.035504 Z-0.125000
G01 X89.283009 Y168.353825 Z-0.125000
G01 X87.038599 Y169.412590 Z-0.125000
G01 X83.961572 Y170.332885 Z-0.125000
G01 X80.630073 Y170.827408 Z-0.125000
G01 X76.994470 Y170.915408 Z-0.125000
G01 X73.285802 Y170.566306 Z-0.125000
G01 X70.293685 Y169.897392 Z-0.125000
G01 X67.681118 Y168.870107 Z-0.125000
G01 X65.578332 Y167.521530 Z-0.125000
G01 X63.755252 Y165.713256 Z-0.125000
G01 X61.829044 Y162.812743 Z-0.125000
G01 X60.019225 Y158.810078 Z-0.125000
G01 X58.580202 Y154.261519 Z-0.125000
G01 X57.710569 Y149.716436 Z-0.125000
G01 X57.553174 Y146.364788 Z-0.125000
G01 X57.946630 Y143.157016 Z-0.125000
G01 X58.879606 Y140.276202 Z-0.125000
G01 X60.418024 Y137.383800 Z-0.125000
G01 X63.013338 Y133.849909 Z-0.125000
G01 X66.724387 Y129.694483 Z-0.125000
G01 X82.379445 Y113.803108 Z-0.125000
G01 X97.511654 Y98.076016 Z-0.125000
G01 X103.686823 Y92.146435 Z-0.125000
G01 X105.801841 Y90.458283 Z-0.125000
G01 X107.583335 Y89.347698 Z-0.125000
G01 X109.074437 Y88.790409 Z-0.125000
G01 X110.468334 Y88.733953 Z-0.125000
G01 X115.500923 Y90.691769 Z-0.125000
G01 X118.505079 Y91.458016 Z-0.125000
G01 X122.093495 Y91.904323 Z-0.125000
G01 X130.717398 Y92.448543 Z-0.125000
G01 X134.410616 Y93.008342 Z-0.125000
G01 X136.704015 Y93.650927 Z-0.125000
G01 X138.547438 Y94.448395 Z-0.125000
G01 X140.118492 Y95.453858 Z-0.125000
G01 X141.496618 Y96.786277 Z-0.125000
G01 X142.411569 Y98.177148 Z-0.125000
G01 X142.997697 Y99.705716 Z-0.125000
G01 X143.258735 Y101.336832 Z-0.125000
G01 X143.207429 Y103.037279 Z-0.125000
G01 X142.813651 Y104.954474 Z-0.125000
G01 X142.096715 Y106.893557 Z-0.125000
G01 X139.805183 Y110.759813 Z-0.125000
G01 X138.254663 Y112.645529 Z-0.125000
G01 X136.218182 Y114.664501 Z-0.125000
G01 X127.459801 Y122.072180 Z-0.125000
G01 X122.675697 Y126.401995 Z-0.125000
G01 X115.104249 Y134.242528 Z-0.125000
G01 X109.774636 Y140.689936 Z-0.125000
G01 X105.164084 Y147.105028 Z-0.125000
G01 X102.222050 Y151.896600 Z-0.125000
G01 X97.629459 Y160.567883 Z-0.125000
G01 X95.334708 Y164.026392 Z-0.125000
G01 X93.600336 Y166.021480 Z-0.125000
G01 X91.659837 Y167.735961 Z-0.125000
G01 X89.618914 Y169.065548 Z-0.125000
G01 X87.504862 Y170.045775 Z-0.125000
G01 X84.353225 Y170.956736 Z-0.125000
G01 X80.909071 Y171.412763 Z-0.125000
G01 X77.117876 Y171.435101 Z-0.125000
G01 X73.431803 Y171.039328 Z-0.125000
G01 X70.068825 Y170.267995 Z-0.125000
G01 X67.313799 Y169.192108 Z-0.125000
G01 X65.102413 Y167.821514 Z-0.125000
G01 X63.192234 Y166.013948 Z-0.125000
G01 X61.173907 Y163.133070 Z-0.125000
G01 X59.252012 Y159.144889 Z-0.125000
G01 X57.587357 Y154.297118 Z-0.125000
G01 X56.565930 Y149.663005 Z-0.125000
G01 X56.286610 Y146.252583 Z-0.125000
G01 X56.560587 Y143.012110 Z-0.125000
G01 X57.392367 Y140.127047 Z-0.125000
G01 X58.845939 Y137.252026 Z-0.125000
G01 X61.372308 Y133.755150 Z-0.125000
G01 X65.054711 Y129.640409 Z-0.125000
G01 X81.314179 Y113.287277 Z-0.125000
G01 X97.155664 Y96.913287 Z-0.125000
G01 X103.184446 Y91.193180 Z-0.125000
G01 X105.354568 Y89.492089 Z-0.125000
G01 X107.180030 Y88.391224 Z-0.125000
G01 X108.704864 Y87.865351 Z-0.125000
G01 X110.005032 Y87.843335 Z-0.125000
G01 X111.191450 Y88.205698 Z-0.125000
G01 X115.276450 Y90.074548 Z-0.125000
G01 X118.390299 Y90.919074 Z-0.125000
G01 X122.132056 Y91.414756 Z-0.125000
G01 X131.166538 Y92.028179 Z-0.125000
G01 X135.275035 Y92.690977 Z-0.125000
G01 X137.457388 Y93.330343 Z-0.125000
G01 X139.398723 Y94.184074 Z-0.125000
G01 X141.056426 Y95.255005 Z-0.125000
G01 X142.399145 Y96.529295 Z-0.125000
G01 X143.407375 Y97.979648 Z-0.125000
G01 X144.073134 Y99.570143 Z-0.125000
G01 X144.399383 Y101.261964 Z-0.125000
G01 X144.398804 Y103.018288 Z-0.125000
G01 X144.091546 Y104.808216 Z-0.125000
G01 X143.428812 Y106.788691 Z-0.125000
G01 X142.458176 Y108.761055 Z-0.125000
G01 X141.077605 Y110.884442 Z-0.125000
G01 X139.524704 Y112.782325 Z-0.125000
G01 X137.481142 Y114.799751 Z-0.125000
G01 X128.590343 Y122.209490 Z-0.125000
G01 X123.687725 Y126.599109 Z-0.125000
G01 X119.671927 Y130.554266 Z-0.125000
G01 X115.904808 Y134.612744 Z-0.125000
G01 X110.425653 Y141.214908 Z-0.125000
G01 X105.568806 Y147.919170 Z-0.125000
G01 X102.436674 Y152.957424 Z-0.125000
G01 X97.886248 Y161.468286 Z-0.125000
G01 X95.655357 Y164.816651 Z-0.125000
G01 X93.886480 Y166.842574 Z-0.125000
G01 X92.050975 Y168.455730 Z-0.125000
G01 X89.973166 Y169.797548 Z-0.125000
G01 X87.810318 Y170.770952 Z-0.125000
G01 X84.779898 Y171.603891 Z-0.125000
G01 X81.227402 Y172.020907 Z-0.125000
G01 X77.281580 Y171.973270 Z-0.125000
G01 X73.416933 Y171.492266 Z-0.125000
G01 X69.875638 Y170.638662 Z-0.125000
G01 X66.972808 Y169.503679 Z-0.125000
G01 X64.507594 Y167.995582 Z-0.125000
G01 X62.528986 Y166.151709 Z-0.125000
G01 X60.326612 Y163.055692 Z-0.125000
G01 X58.319486 Y158.982279 Z-0.125000
G01 X56.539794 Y154.035372 Z-0.125000
G01 X55.401978 Y149.314032 Z-0.125000
G01 X55.036847 Y145.856810 Z-0.125000
G01 X55.234412 Y142.595029 Z-0.125000
G01 X56.010315 Y139.711704 Z-0.125000
G01 X57.427966 Y136.852584 Z-0.125000
G01 X59.733145 Y133.636830 Z-0.125000
G01 X63.377632 Y129.569726 Z-0.125000
G01 X79.845093 Y113.165545 Z-0.125000
G01 X96.800640 Y95.738328 Z-0.125000
G01 X102.670610 Y90.236321 Z-0.125000
G01 X104.896609 Y88.522548 Z-0.125000
G01 X106.766747 Y87.431854 Z-0.125000
G01 X108.325957 Y86.938039 Z-0.125000
G01 X109.775988 Y86.994302 Z-0.125000
G01 X115.043480 Y89.459709 Z-0.125000
G01 X119.129381 Y90.543128 Z-0.125000
G01 X122.661084 Y90.970574 Z-0.125000
G01 X131.352708 Y91.581228 Z-0.125000
G01 X135.924764 Y92.328614 Z-0.125000
G01 X138.215717 Y93.015938 Z-0.125000
G01 X140.256189 Y93.928830 Z-0.125000
G01 X141.841342 Y94.944914 Z-0.125000
G01 X143.292789 Y96.275274 Z-0.125000
G01 X144.397645 Y97.788263 Z-0.125000
G01 X145.146447 Y99.444549 Z-0.125000
G01 X145.541062 Y101.201131 Z-0.125000
G01 X145.594042 Y103.017323 Z-0.125000
G01 X145.325987 Y104.859265 Z-0.125000
G01 X144.691385 Y106.885446 Z-0.125000
G01 X143.735813 Y108.891091 Z-0.125000
G01 X142.360714 Y111.038232 Z-0.125000
G01 X140.650675 Y113.119067 Z-0.125000
G01 X138.757427 Y114.966416 Z-0.125000
G01 X129.742965 Y122.373774 Z-0.125000
G01 X124.723894 Y126.822424 Z-0.125000
G01 X120.889889 Y130.562571 Z-0.125000
G01 X116.994729 Y134.716902 Z-0.125000
G01 X111.306294 Y141.513862 Z-0.125000
G01 X105.991552 Y148.775991 Z-0.125000
G01 X102.753718 Y153.889821 Z-0.125000
G01 X98.147865 Y162.396885 Z-0.125000
G01 X95.861226 Y165.787415 Z-0.125000
G01 X94.180928 Y167.686071 Z-0.125000
G01 X92.303902 Y169.309977 Z-0.125000
G01 X90.344348 Y170.550277 Z-0.125000
G01 X88.135022 Y171.517114 Z-0.125000
G01 X85.021044 Y172.314326 Z-0.125000
G01 X81.584293 Y172.654029 Z-0.125000
G01 X77.485517 Y172.532941 Z-0.125000
G01 X73.439721 Y171.959237 Z-0.125000
G01 X69.714509 Y171.013063 Z-0.125000
G01 X66.658211 Y169.808234 Z-0.125000
G01 X64.071265 Y168.258616 Z-0.125000
G01 X62.007103 Y166.404572 Z-0.125000
G01 X59.718661 Y163.325485 Z-0.125000
G01 X57.615295 Y159.272736 Z-0.125000
G01 X55.598642 Y154.023913 Z-0.125000
G01 X54.307422 Y149.212771 Z-0.125000
G01 X53.815473 Y145.692527 Z-0.125000
G01 X53.885835 Y142.394696 Z-0.125000
G01 X54.550950 Y139.507058 Z-0.125000
G01 X55.872554 Y136.668731 Z-0.125000
G01 X58.099197 Y133.494691 Z-0.125000
G01 X61.696368 Y129.481726 Z-0.125000
G01 X78.751180 Y112.648684 Z-0.125000
G01 X96.124838 Y94.872622 Z-0.125000
G01 X102.146604 Y89.276435 Z-0.125000
G01 X104.429059 Y87.550174 Z-0.125000
G01 X106.168645 Y86.549347 Z-0.125000
G01 X107.938874 Y86.008860 Z-0.125000
G01 X109.417745 Y86.122803 Z-0.125000
G01 X114.803299 Y88.846737 Z-0.125000
G01 X119.034751 Y90.022147 Z-0.125000
G01 X122.711875 Y90.487895 Z-0.125000
G01 X131.792192 Y91.160220 Z-0.125000
G01 X136.578035 Y91.968633 Z-0.125000
G01 X138.978681 Y92.706169 Z-0.125000
G01 X140.918214 Y93.572905 Z-0.125000
G01 X142.612546 Y94.632956 Z-0.125000
G01 X144.176005 Y96.021703 Z-0.125000
G01 X145.380770 Y97.600612 Z-0.125000
G01 X146.215833 Y99.326487 Z-0.125000
G01 X146.682032 Y101.151949 Z-0.125000
G01 X146.783550 Y103.221711 Z-0.125000
G01 X146.524958 Y105.119466 Z-0.125000
G01 X145.888683 Y107.192640 Z-0.125000
G01 X144.921008 Y109.230408 Z-0.125000
G01 X143.523764 Y111.397634 Z-0.125000
G01 X141.783856 Y113.485743 Z-0.125000
G01 X139.854687 Y115.331933 Z-0.125000
G01 X130.916315 Y122.564321 Z-0.125000
G01 X126.089079 Y126.788241 Z-0.125000
G01 X122.148535 Y130.584587 Z-0.125000
G01 X118.125657 Y134.834514 Z-0.125000
G01 X112.224915 Y141.834253 Z-0.125000
G01 X106.303188 Y149.862501 Z-0.125000
G01 X102.998919 Y154.995193 Z-0.125000
G01 X98.305389 Y163.531869 Z-0.125000
G01 X96.194556 Y166.625890 Z-0.125000
G01 X94.482328 Y168.552098 Z-0.125000
G01 X92.564103 Y170.185661 Z-0.125000
G01 X90.553693 Y171.415660 Z-0.125000
G01 X88.477751 Y172.284971 Z-0.125000
G01 X85.282661 Y173.045746 Z-0.125000
G01 X81.733770 Y173.317663 Z-0.125000
G01 X77.729689 Y173.117073 Z-0.125000
G01 X73.500684 Y172.443847 Z-0.125000
G01 X69.586018 Y171.394996 Z-0.125000
G01 X66.185961 Y170.019124 Z-0.125000
G01 X63.502840 Y168.395347 Z-0.125000
G01 X61.373853 Y166.495790 Z-0.125000
G01 X59.018912 Y163.383228 Z-0.125000
G01 X56.835336 Y159.301190 Z-0.125000
G01 X54.688968 Y153.992820 Z-0.125000
G01 X53.180485 Y148.808694 Z-0.125000
G01 X52.598735 Y145.240619 Z-0.125000
G01 X52.586697 Y141.922253 Z-0.125000
G01 X53.189112 Y139.039379 Z-0.125000
G01 X54.467263 Y136.222424 Z-0.125000
G01 X56.674594 Y133.078962 Z-0.125000
G01 X60.014332 Y129.375766 Z-0.125000
G01 X77.239350 Y112.539054 Z-0.125000
G01 X95.439188 Y94.004535 Z-0.125000
G01 X101.613584 Y88.314104 Z-0.125000
G01 X103.953268 Y86.575547 Z-0.125000
G01 X105.734956 Y85.583410 Z-0.125000
G01 X107.394911 Y85.093973 Z-0.125000
G01 X108.924638 Y85.211134 Z-0.125000
G01 X114.379201 Y88.158640 Z-0.125000
G01 X116.488811 Y88.924244 Z-0.125000
G01 X118.699682 Y89.457456 Z-0.125000
G01 X122.490105 Y89.979789 Z-0.125000
G01 X132.521746 Y90.771400 Z-0.125000
G01 X137.496205 Y91.677854 Z-0.125000
G01 X139.982920 Y92.492318 Z-0.125000
G01 X141.986957 Y93.439908 Z-0.125000
G01 X143.733045 Y94.588860 Z-0.125000
G01 X145.194921 Y95.922760 Z-0.125000
G01 X146.464897 Y97.588059 Z-0.125000
G01 X147.350945 Y99.399552 Z-0.125000
G01 X147.854030 Y101.305224 Z-0.125000
G01 X147.986577 Y103.256345 Z-0.125000
G01 X147.770794 Y105.212937 Z-0.125000
G01 X147.165547 Y107.337868 Z-0.125000
G01 X146.214803 Y109.413167 Z-0.125000
G01 X144.824383 Y111.606979 Z-0.125000
G01 X143.083959 Y113.710667 Z-0.125000
G01 X141.152215 Y115.557179 Z-0.125000
G01 X132.109171 Y122.779975 Z-0.125000
G01 X127.177778 Y127.055781 Z-0.125000
G01 X123.140801 Y130.925256 Z-0.125000
G01 X119.297140 Y134.963649 Z-0.125000
G01 X113.181775 Y142.173570 Z-0.125000
G01 X106.761275 Y150.801979 Z-0.125000
G01 X103.257318 Y156.119103 Z-0.125000
G01 X98.569131 Y164.519757 Z-0.125000
G01 X96.405124 Y167.648412 Z-0.125000
G01 X94.647319 Y169.578032 Z-0.125000
G01 X92.830419 Y171.082910 Z-0.125000
G01 X90.951591 Y172.211069 Z-0.125000
G01 X88.837088 Y173.074972 Z-0.125000
G01 X85.795274 Y173.767318 Z-0.125000
G01 X82.157353 Y174.002928 Z-0.125000
G01 X78.013773 Y173.728436 Z-0.125000
G01 X73.600335 Y172.949764 Z-0.125000
G01 X69.490615 Y171.788323 Z-0.125000
G01 X66.108454 Y170.410584 Z-0.125000
G01 X63.263883 Y168.746187 Z-0.125000
G01 X60.888471 Y166.707646 Z-0.125000
G01 X58.458148 Y163.604869 Z-0.125000
G01 X56.198159 Y159.549095 Z-0.125000
G01 X53.811675 Y153.943252 Z-0.125000
G01 X52.142836 Y148.665332 Z-0.125000
G01 X51.397768 Y144.761224 Z-0.125000
G01 X51.301142 Y141.423545 Z-0.125000
G01 X51.838346 Y138.547559 Z-0.125000
G01 X53.070405 Y135.754937 Z-0.125000
G01 X55.055322 Y132.892663 Z-0.125000
G01 X58.334936 Y129.251202 Z-0.125000
G01 X76.124130 Y112.022386 Z-0.125000
G01 X95.083906 Y92.801958 Z-0.125000
G01 X101.072776 Y87.350034 Z-0.125000
G01 X103.470461 Y85.599182 Z-0.125000
G01 X105.294957 Y84.615929 Z-0.125000
G01 X106.992379 Y84.157842 Z-0.125000
G01 X108.552812 Y84.332038 Z-0.125000
G01 X114.123185 Y87.542385 Z-0.125000
G01 X116.299165 Y88.363286 Z-0.125000
G01 X118.588379 Y88.934157 Z-0.125000
G01 X122.525383 Y89.493892 Z-0.125000
G01 X132.976679 Y90.349491 Z-0.125000
G01 X138.167243 Y91.323345 Z-0.125000
G01 X140.516454 Y92.095000 Z-0.125000
G01 X142.638811 Y93.080570 Z-0.125000
G01 X144.497297 Y94.277997 Z-0.125000
G01 X146.063781 Y95.669769 Z-0.125000
G01 X147.438687 Y97.407746 Z-0.125000
G01 X148.416018 Y99.296553 Z-0.125000
G01 X148.995451 Y101.279281 Z-0.125000
G01 X149.188831 Y103.302372 Z-0.125000
G01 X148.982383 Y105.522256 Z-0.125000
G01 X148.375784 Y107.697592 Z-0.125000
G01 X147.412938 Y109.806945 Z-0.125000
G01 X146.000115 Y112.021678 Z-0.125000
G01 X144.391401 Y113.961469 Z-0.125000
G01 X142.458241 Y115.810170 Z-0.125000
G01 X133.623383 Y122.773216 Z-0.125000
G01 X128.607338 Y127.056167 Z-0.125000
G01 X124.468907 Y130.976176 Z-0.125000
G01 X120.508407 Y135.102118 Z-0.125000
G01 X113.947121 Y142.818214 Z-0.125000
G01 X106.855584 Y152.318509 Z-0.125000
G01 X103.698282 Y156.983135 Z-0.125000
G01 X99.167940 Y164.984925 Z-0.125000
G01 X96.745664 Y168.534782 Z-0.125000
G01 X95.100772 Y170.351231 Z-0.125000
G01 X93.265074 Y171.886945 Z-0.125000
G01 X91.362041 Y173.027915 Z-0.125000
G01 X89.211618 Y173.887569 Z-0.125000
G01 X86.100730 Y174.546955 Z-0.125000
G01 X82.356077 Y174.712783 Z-0.125000
G01 X78.337576 Y174.369539 Z-0.125000
G01 X74.004735 Y173.544776 Z-0.125000
G01 X69.669254 Y172.281302 Z-0.125000
G01 X65.873681 Y170.716105 Z-0.125000
G01 X62.891799 Y168.977226 Z-0.125000
G01 X60.421693 Y166.902571 Z-0.125000
G01 X57.920172 Y163.803657 Z-0.125000
G01 X55.473240 Y159.535383 Z-0.125000
G01 X52.967278 Y153.876432 Z-0.125000
G01 X51.140786 Y148.506328 Z-0.125000
G01 X50.254158 Y144.526901 Z-0.125000
G01 X50.021123 Y141.147637 Z-0.125000
G01 X50.435372 Y138.265921 Z-0.125000
G01 X51.556322 Y135.497698 Z-0.125000
G01 X53.450857 Y132.682223 Z-0.125000
G01 X56.661526 Y129.107518 Z-0.125000
G01 X74.577923 Y111.924859 Z-0.125000
G01 X94.390402 Y91.924730 Z-0.125000
G01 X100.525466 Y86.384806 Z-0.125000
G01 X102.754748 Y84.765857 Z-0.125000
G01 X104.657652 Y83.727371 Z-0.125000
G01 X106.426336 Y83.234264 Z-0.125000
G01 X108.042646 Y83.405306 Z-0.125000
G01 X109.089822 Y83.899894 Z-0.125000
G01 X113.678487 Y86.837357 Z-0.125000
G01 X115.886847 Y87.731388 Z-0.125000
G01 X118.224214 Y88.357621 Z-0.125000
G01 X122.559565 Y89.005806 Z-0.125000
G01 X133.433479 Y89.923848 Z-0.125000
G01 X138.841113 Y90.967162 Z-0.125000
G01 X141.290233 Y91.790638 Z-0.125000
G01 X143.504516 Y92.839617 Z-0.125000
G01 X145.244361 Y93.958700 Z-0.125000
G01 X146.917835 Y95.410147 Z-0.125000
G01 X148.400632 Y97.223700 Z-0.125000
G01 X149.472400 Y99.193554 Z-0.125000
G01 X150.131335 Y101.257587 Z-0.125000
G01 X150.388446 Y103.357090 Z-0.125000
G01 X150.233948 Y105.650232 Z-0.125000
G01 X149.661403 Y107.883891 Z-0.125000
G01 X148.717483 Y110.035538 Z-0.125000
G01 X147.312642 Y112.280141 Z-0.125000
G01 X145.704637 Y114.236347 Z-0.125000
G01 X143.771026 Y116.089297 Z-0.125000
G01 X134.547154 Y123.282288 Z-0.125000
G01 X129.743480 Y127.363039 Z-0.125000
G01 X125.834157 Y131.036559 Z-0.125000
G01 X121.758749 Y135.247925 Z-0.125000
G01 X114.736607 Y143.493243 Z-0.125000
G01 X106.398848 Y154.638495 Z-0.125000
G01 X103.463895 Y158.966314 Z-0.125000
G01 X98.977328 Y166.766420 Z-0.125000
G01 X96.955267 Y169.608159 Z-0.125000
G01 X95.267566 Y171.424351 Z-0.125000
G01 X93.543107 Y172.827260 Z-0.125000
G01 X91.596042 Y173.956900 Z-0.125000
G01 X89.599795 Y174.723019 Z-0.125000
G01 X86.423181 Y175.350089 Z-0.125000
G01 X82.573984 Y175.445041 Z-0.125000
G01 X78.418365 Y174.998026 Z-0.125000
G01 X73.917121 Y174.038849 Z-0.125000
G01 X69.402101 Y172.624932 Z-0.125000
G01 X65.452738 Y170.922682 Z-0.125000
G01 X62.364767 Y169.081834 Z-0.125000
G01 X59.826810 Y166.938041 Z-0.125000
G01 X57.275656 Y163.795159 Z-0.125000
G01 X54.772719 Y159.501136 Z-0.125000
G01 X52.156290 Y153.793711 Z-0.125000
G01 X50.084146 Y148.033048 Z-0.125000
G01 X49.096515 Y143.999805 Z-0.125000
G01 X48.774386 Y140.600842 Z-0.125000
G01 X49.117759 Y137.727945 Z-0.125000
G01 X50.185793 Y134.988046 Z-0.125000
G01 X52.051424 Y132.210424 Z-0.125000
G01 X55.263123 Y128.675953 Z-0.125000
G01 X73.449120 Y111.409285 Z-0.125000
G01 X93.690782 Y91.046986 Z-0.125000
G01 X99.972812 Y85.418999 Z-0.125000
G01 X102.256233 Y83.788011 Z-0.125000
G01 X104.204586 Y82.756477 Z-0.125000
G01 X106.013375 Y82.292725 Z-0.125000
G01 X107.662515 Y82.519387 Z-0.125000
G01 X113.412042 Y86.215888 Z-0.125000
G01 X115.685549 Y87.165473 Z-0.125000
G01 X118.100615 Y87.829044 Z-0.125000
G01 X122.593619 Y88.514630 Z-0.125000
G01 X133.892210 Y89.493184 Z-0.125000
G01 X139.517365 Y90.608018 Z-0.125000
G01 X142.066588 Y91.485311 Z-0.125000
G01 X144.372797 Y92.600209 Z-0.125000
G01 X146.186672 Y93.786756 Z-0.125000
G01 X147.933597 Y95.321568 Z-0.125000
G01 X149.485211 Y97.232648 Z-0.125000
G01 X150.611632 Y99.299771 Z-0.125000
G01 X151.310801 Y101.455216 Z-0.125000
G01 X151.593920 Y103.635509 Z-0.125000
G01 X151.484097 Y105.789023 Z-0.125000
G01 X150.948052 Y108.085190 Z-0.125000
G01 X150.024732 Y110.282478 Z-0.125000
G01 X148.628968 Y112.559397 Z-0.125000
G01 X146.860606 Y114.707245 Z-0.125000
G01 X144.894036 Y116.559422 Z-0.125000
G01 X136.102695 Y123.317050 Z-0.125000
G01 X130.897711 Y127.689546 Z-0.125000
G01 X126.904959 Y131.427890 Z-0.125000
G01 X123.046879 Y135.398754 Z-0.125000
G01 X115.790930 Y143.892042 Z-0.125000
G01 X105.736629 Y157.226277 Z-0.125000
G01 X103.399521 Y160.685752 Z-0.125000
G01 X99.352888 Y167.652274 Z-0.125000
G01 X97.297416 Y170.541586 Z-0.125000
G01 X95.730803 Y172.239008 Z-0.125000
G01 X93.991796 Y173.672430 Z-0.125000
G01 X92.024453 Y174.817198 Z-0.125000
G01 X90.000074 Y175.581450 Z-0.125000
G01 X86.761339 Y176.177363 Z-0.125000
G01 X83.086596 Y176.217983 Z-0.125000
G01 X78.810083 Y175.699641 Z-0.125000
G01 X74.134899 Y174.628646 Z-0.125000
G01 X69.410341 Y173.076131 Z-0.125000
G01 X65.262318 Y171.241463 Z-0.125000
G01 X62.025772 Y169.304376 Z-0.125000
G01 X59.388807 Y167.105801 Z-0.125000
G01 X56.774309 Y163.953842 Z-0.125000
G01 X54.223993 Y159.690783 Z-0.125000
G01 X51.378906 Y153.696248 Z-0.125000
G01 X49.048685 Y147.536915 Z-0.125000
G01 X47.959343 Y143.449919 Z-0.125000
G01 X47.546575 Y140.032159 Z-0.125000
G01 X47.817076 Y137.169498 Z-0.125000
G01 X48.830006 Y134.460242 Z-0.125000
G01 X50.664223 Y131.723239 Z-0.125000
G01 X53.607480 Y128.498280 Z-0.125000
G01 X71.877164 Y111.323603 Z-0.125000
G01 X93.345929 Y89.823295 Z-0.125000
G01 X99.416103 Y84.453384 Z-0.125000
G01 X101.754435 Y82.810294 Z-0.125000
G01 X103.749073 Y81.785584 Z-0.125000
G01 X105.598868 Y81.351187 Z-0.125000
G01 X107.281613 Y81.633468 Z-0.125000
G01 X112.952924 Y85.491935 Z-0.125000
G01 X115.253597 Y86.516902 Z-0.125000
G01 X117.712181 Y87.237637 Z-0.125000
G01 X122.317132 Y87.985988 Z-0.125000
G01 X134.353001 Y89.056275 Z-0.125000
G01 X140.195677 Y90.244367 Z-0.125000
G01 X142.844873 Y91.177473 Z-0.125000
G01 X144.990275 Y92.217053 Z-0.125000
G01 X146.908179 Y93.450465 Z-0.125000
G01 X148.765442 Y95.049072 Z-0.125000
G01 X150.282293 Y96.834236 Z-0.125000
G01 X151.551883 Y98.976934 Z-0.125000
G01 X152.379222 Y101.216323 Z-0.125000
G01 X152.789157 Y103.707866 Z-0.125000
G01 X152.704054 Y106.155312 Z-0.125000
G01 X152.168074 Y108.508386 Z-0.125000
G01 X151.232973 Y110.743719 Z-0.125000
G01 X149.814614 Y113.043749 Z-0.125000
G01 X148.180987 Y115.026284 Z-0.125000
G01 X146.215382 Y116.885221 Z-0.125000
G01 X137.044620 Y123.870412 Z-0.125000
G01 X132.068808 Y128.034141 Z-0.125000
G01 X128.331751 Y131.507585 Z-0.125000
G01 X124.371766 Y135.552480 Z-0.125000
G01 X117.135258 Y143.980235 Z-0.125000
G01 X105.459241 Y159.256900 Z-0.125000
G01 X103.496275 Y162.149688 Z-0.125000
G01 X99.606265 Y168.751981 Z-0.125000
G01 X97.639308 Y171.496836 Z-0.125000
G01 X96.046624 Y173.215501 Z-0.125000
G01 X94.275880 Y174.655361 Z-0.125000
G01 X92.460589 Y175.698740 Z-0.125000
G01 X90.410782 Y176.462863 Z-0.125000
G01 X87.113853 Y177.029164 Z-0.125000
G01 X83.348085 Y177.003993 Z-0.125000
G01 X78.938188 Y176.378597 Z-0.125000
G01 X74.392525 Y175.252690 Z-0.125000
G01 X69.454630 Y173.554368 Z-0.125000
G01 X65.099902 Y171.576017 Z-0.125000
G01 X61.517537 Y169.396174 Z-0.125000
G01 X58.812400 Y167.113655 Z-0.125000
G01 X56.158312 Y163.907943 Z-0.125000
G01 X53.572589 Y159.620293 Z-0.125000
G01 X50.501034 Y153.282128 Z-0.125000
G01 X48.035563 Y147.019667 Z-0.125000
G01 X46.843930 Y142.878984 Z-0.125000
G01 X46.339300 Y139.443070 Z-0.125000
G01 X46.535191 Y136.592061 Z-0.125000
G01 X47.490827 Y133.915506 Z-0.125000
G01 X49.291441 Y131.221635 Z-0.125000
G01 X51.967287 Y128.300780 Z-0.125000
G01 X70.742503 Y110.809832 Z-0.125000
G01 X92.645858 Y88.940208 Z-0.125000
G01 X98.856562 Y83.488478 Z-0.125000
G01 X101.250578 Y81.833221 Z-0.125000
G01 X103.292530 Y80.815270 Z-0.125000
G01 X105.184234 Y80.410034 Z-0.125000
G01 X106.757155 Y80.687552 Z-0.125000
G01 X107.870766 Y81.302455 Z-0.125000
G01 X110.892238 Y83.709732 Z-0.125000
G01 X112.681586 Y84.863448 Z-0.125000
G01 X115.045733 Y85.943713 Z-0.125000
G01 X117.580921 Y86.700884 Z-0.125000
G01 X122.342560 Y87.484190 Z-0.125000
G01 X134.816046 Y88.611835 Z-0.125000
G01 X140.875727 Y89.875052 Z-0.125000
G01 X143.624510 Y90.865837 Z-0.125000
G01 X145.851668 Y91.967989 Z-0.125000
G01 X147.844117 Y93.273178 Z-0.125000
G01 X149.775796 Y94.960944 Z-0.125000
G01 X151.356443 Y96.840287 Z-0.125000
G01 X152.683648 Y99.088109 Z-0.125000
G01 X153.554117 Y101.426956 Z-0.125000
G01 X153.995081 Y104.014931 Z-0.125000
G01 X153.950920 Y106.315283 Z-0.125000
G01 X153.454723 Y108.738074 Z-0.125000
G01 X152.542475 Y111.024391 Z-0.125000
G01 X151.134416 Y113.360857 Z-0.125000
G01 X149.664236 Y115.187220 Z-0.125000
G01 X147.923554 Y116.899705 Z-0.125000
G01 X134.975308 Y126.907462 Z-0.125000
G01 X130.135905 Y131.261096 Z-0.125000
G01 X125.731738 Y135.706979 Z-0.125000
G01 X118.803904 Y143.713661 Z-0.125000
G01 X105.390360 Y160.986766 Z-0.125000
G01 X103.669828 Y163.495883 Z-0.125000
G01 X99.852947 Y169.878724 Z-0.125000
G01 X97.838289 Y172.643343 Z-0.125000
G01 X96.205886 Y174.357180 Z-0.125000
G01 X94.559255 Y175.659021 Z-0.125000
G01 X92.707014 Y176.691456 Z-0.125000
G01 X90.830374 Y177.367129 Z-0.125000
G01 X87.736159 Y177.888496 Z-0.125000
G01 X83.915673 Y177.841954 Z-0.125000
G01 X79.395374 Y177.148192 Z-0.125000
G01 X74.690063 Y175.913815 Z-0.125000
G01 X69.535806 Y174.063375 Z-0.125000
G01 X64.966261 Y171.930590 Z-0.125000
G01 X61.407585 Y169.763687 Z-0.125000
G01 X58.398344 Y167.265127 Z-0.125000
G01 X55.685869 Y164.033795 Z-0.125000
G01 X53.074783 Y159.775113 Z-0.125000
G01 X49.784934 Y153.156469 Z-0.125000
G01 X47.159106 Y146.798284 Z-0.125000
G01 X45.751627 Y142.288800 Z-0.125000
G01 X45.154104 Y138.835248 Z-0.125000
G01 X45.273776 Y135.997114 Z-0.125000
G01 X46.170253 Y133.354999 Z-0.125000
G01 X47.753539 Y130.932980 Z-0.125000
G01 X50.345956 Y128.083259 Z-0.125000
G01 X69.153680 Y110.735286 Z-0.125000
G01 X92.315167 Y87.706153 Z-0.125000
G01 X98.585803 Y82.307595 Z-0.125000
G01 X100.995784 Y80.712593 Z-0.125000
G01 X102.836181 Y79.845987 Z-0.125000
G01 X104.770822 Y79.469590 Z-0.125000
G01 X106.376188 Y79.796354 Z-0.125000
G01 X107.509884 Y80.461920 Z-0.125000
G01 X110.417414 Y82.890376 Z-0.125000
G01 X112.214165 Y84.118573 Z-0.125000
G01 X114.600005 Y85.276023 Z-0.125000
G01 X117.173625 Y86.091903 Z-0.125000
G01 X122.040065 Y86.938876 Z-0.125000
G01 X135.281408 Y88.158704 Z-0.125000
G01 X138.495101 Y88.713675 Z-0.125000
G01 X141.557001 Y89.498720 Z-0.125000
G01 X144.404791 Y90.549051 Z-0.125000
G01 X146.713318 Y91.715835 Z-0.125000
G01 X148.779861 Y93.095441 Z-0.125000
G01 X150.580282 Y94.667139 Z-0.125000
G01 X152.265472 Y96.624890 Z-0.125000
G01 X153.697157 Y98.968051 Z-0.125000
G01 X154.657879 Y101.404747 Z-0.125000
G01 X155.179632 Y104.095528 Z-0.125000
G01 X155.169526 Y106.711506 Z-0.125000
G01 X154.674101 Y109.195002 Z-0.125000
G01 X153.750072 Y111.521683 Z-0.125000
G01 X152.318967 Y113.882610 Z-0.125000
G01 X150.824389 Y115.717535 Z-0.125000
G01 X149.055641 Y117.431115 Z-0.125000
G01 X136.550547 Y126.975442 Z-0.125000
G01 X131.984735 Y131.014092 Z-0.125000
G01 X127.463857 Y135.503105 Z-0.125000
G01 X120.840965 Y143.041851 Z-0.125000
G01 X110.607447 Y156.371901 Z-0.125000
G01 X105.411089 Y162.584408 Z-0.125000
G01 X100.091390 Y171.032118 Z-0.125000
G01 X98.173229 Y173.643333 Z-0.125000
G01 X96.515075 Y175.376933 Z-0.125000
G01 X94.840507 Y176.683023 Z-0.125000
G01 X92.952022 Y177.703742 Z-0.125000
G01 X91.032702 Y178.352892 Z-0.125000
G01 X87.856217 Y178.807632 Z-0.125000
G01 X83.918827 Y178.652748 Z-0.125000
G01 X79.568283 Y177.883861 Z-0.125000
G01 X74.703067 Y176.508376 Z-0.125000
G01 X69.654641 Y174.606823 Z-0.125000
G01 X64.862425 Y172.309304 Z-0.125000
G01 X61.128909 Y170.008824 Z-0.125000
G01 X57.997228 Y167.414733 Z-0.125000
G01 X55.360070 Y164.333264 Z-0.125000
G01 X52.599314 Y159.913132 Z-0.125000
G01 X49.102438 Y153.020511 Z-0.125000
G01 X46.200895 Y146.249300 Z-0.125000
G01 X44.683721 Y141.681235 Z-0.125000
G01 X43.992406 Y138.210431 Z-0.125000
G01 X44.034571 Y135.386137 Z-0.125000
G01 X44.870149 Y132.780008 Z-0.125000
G01 X46.417708 Y130.401313 Z-0.125000
G01 X48.996928 Y127.598392 Z-0.125000
G01 X68.020886 Y110.223575 Z-0.125000
G01 X91.619217 Y86.820234 Z-0.125000
G01 X97.733810 Y81.563364 Z-0.125000
G01 X100.242025 Y79.883452 Z-0.125000
G01 X102.161281 Y78.956784 Z-0.125000
G01 X104.179222 Y78.530627 Z-0.125000
G01 X105.998569 Y78.905800 Z-0.125000
G01 X107.152735 Y79.621642 Z-0.125000
G01 X110.108674 Y82.190949 Z-0.125000
G01 X111.943664 Y83.481590 Z-0.125000
G01 X114.390917 Y84.693500 Z-0.125000
G01 X117.039533 Y85.544464 Z-0.125000
G01 X122.060729 Y86.423173 Z-0.125000
G01 X135.749087 Y87.695660 Z-0.125000
G01 X139.072474 Y88.282818 Z-0.125000
G01 X142.239239 Y89.114083 Z-0.125000
G01 X145.185201 Y90.225763 Z-0.125000
G01 X147.574324 Y91.459432 Z-0.125000
G01 X149.714448 Y92.915901 Z-0.125000
G01 X151.580723 Y94.572187 Z-0.125000
G01 X153.330288 Y96.630427 Z-0.125000
G01 X154.820617 Y99.085920 Z-0.125000
G01 X155.825886 Y101.629220 Z-0.125000
G01 X156.380149 Y104.423322 Z-0.125000
G01 X156.406800 Y106.883257 Z-0.125000
G01 X155.954828 Y109.444002 Z-0.125000
G01 X155.056163 Y111.827589 Z-0.125000
G01 X153.636838 Y114.229266 Z-0.125000
G01 X152.144513 Y116.085499 Z-0.125000
G01 X150.376988 Y117.812726 Z-0.125000
G01 X137.795353 Y127.344628 Z-0.125000
G01 X133.155189 Y131.434456 Z-0.125000
G01 X128.897408 Y135.646467 Z-0.125000
G01 X122.689666 Y142.648781 Z-0.125000
G01 X111.353223 Y157.400216 Z-0.125000
G01 X105.512607 Y164.067076 Z-0.125000
G01 X100.320112 Y172.211455 Z-0.125000
G01 X98.356953 Y174.835931 Z-0.125000
G01 X96.820274 Y176.416964 Z-0.125000
G01 X95.118282 Y177.727045 Z-0.125000
G01 X93.398136 Y178.648885 Z-0.125000
G01 X91.462401 Y179.301770 Z-0.125000
G01 X88.243107 Y179.734494 Z-0.125000
G01 X84.529933 Y179.555018 Z-0.125000
G01 X80.087398 Y178.727165 Z-0.125000
G01 X75.068262 Y177.242436 Z-0.125000
G01 X69.811972 Y175.188252 Z-0.125000
G01 X64.789360 Y172.716472 Z-0.125000
G01 X60.871154 Y170.270055 Z-0.125000
G01 X57.608278 Y167.566528 Z-0.125000
G01 X54.911124 Y164.436070 Z-0.125000
G01 X52.275383 Y160.270538 Z-0.125000
G01 X48.453094 Y152.875733 Z-0.125000
G01 X45.267918 Y145.684931 Z-0.125000
G01 X43.641308 Y141.058157 Z-0.125000
G01 X42.855620 Y137.570421 Z-0.125000
G01 X42.819120 Y134.760612 Z-0.125000
G01 X43.592255 Y132.191820 Z-0.125000
G01 X45.102348 Y129.857994 Z-0.125000
G01 X47.416282 Y127.347203 Z-0.125000
G01 X66.424210 Y110.159072 Z-0.125000
G01 X90.923073 Y85.936761 Z-0.125000
G01 X97.172981 Y80.604445 Z-0.125000
G01 X99.739777 Y78.911980 Z-0.125000
G01 X101.704159 Y77.989625 Z-0.125000
G01 X103.768385 Y77.589152 Z-0.125000
G01 X105.470892 Y77.944499 Z-0.125000
G01 X106.800672 Y78.781815 Z-0.125000
G01 X109.804956 Y81.490493 Z-0.125000
G01 X111.677991 Y82.842546 Z-0.125000
G01 X114.186464 Y84.107501 Z-0.125000
G01 X116.910012 Y84.992068 Z-0.125000
G01 X122.085964 Y85.900068 Z-0.125000
G01 X136.219277 Y87.221736 Z-0.125000
G01 X139.651393 Y87.841468 Z-0.125000
G01 X142.921865 Y88.720113 Z-0.125000
G01 X145.639876 Y89.749136 Z-0.125000
G01 X148.138565 Y91.021558 Z-0.125000
G01 X150.385035 Y92.529333 Z-0.125000
G01 X152.352957 Y94.248771 Z-0.125000
G01 X154.209641 Y96.389989 Z-0.125000
G01 X155.807990 Y98.947644 Z-0.125000
G01 X156.907567 Y101.596646 Z-0.125000
G01 X157.547512 Y104.502631 Z-0.125000
G01 X157.618324 Y107.301175 Z-0.125000
G01 X157.167833 Y109.926423 Z-0.125000
G01 X156.257580 Y112.352691 Z-0.125000
G01 X154.814823 Y114.780181 Z-0.125000
G01 X153.297714 Y116.645877 Z-0.125000
G01 X151.502379 Y118.375228 Z-0.125000
G01 X139.049171 Y127.725660 Z-0.125000
G01 X134.703262 Y131.524902 Z-0.125000
G01 X130.360443 Y135.785065 Z-0.125000
G01 X126.565771 Y139.920212 Z-0.125000
G01 X122.775799 Y144.449009 Z-0.125000
G01 X111.667305 Y159.014981 Z-0.125000
G01 X105.693949 Y165.440824 Z-0.125000
G01 X100.537504 Y173.416027 Z-0.125000
G01 X98.679339 Y175.878473 Z-0.125000
G01 X97.120001 Y177.476694 Z-0.125000
G01 X95.391358 Y178.790444 Z-0.125000
G01 X93.640441 Y179.701276 Z-0.125000
G01 X91.664343 Y180.327317 Z-0.125000
G01 X88.365611 Y180.691289 Z-0.125000
G01 X84.545962 Y180.407784 Z-0.125000
G01 X79.962833 Y179.434381 Z-0.125000
G01 X74.777805 Y177.767923 Z-0.125000
G01 X69.351696 Y175.510059 Z-0.125000
G01 X64.465300 Y172.995084 Z-0.125000
G01 X60.408046 Y170.387474 Z-0.125000
G01 X57.058715 Y167.554683 Z-0.125000
G01 X54.333043 Y164.343178 Z-0.125000
G01 X51.702130 Y160.143720 Z-0.125000
G01 X47.681568 Y152.407668 Z-0.125000
G01 X44.360884 Y145.107171 Z-0.125000
G01 X42.534392 Y140.132454 Z-0.125000
G01 X41.707440 Y136.669374 Z-0.125000
G01 X41.654782 Y133.904176 Z-0.125000
G01 X42.338308 Y131.591658 Z-0.125000
G01 X43.809325 Y129.303989 Z-0.125000
G01 X46.106329 Y126.839676 Z-0.125000
G01 X58.838858 Y115.606940 Z-0.125000
G01 X65.300814 Y109.649421 Z-0.125000
G01 X90.619677 Y84.692985 Z-0.125000
G01 X96.614083 Y79.648679 Z-0.125000
G01 X99.240426 Y77.943404 Z-0.125000
G01 X101.251028 Y77.025040 Z-0.125000
G01 X103.362698 Y76.649738 Z-0.125000
G01 X105.101191 Y77.050533 Z-0.125000
G01 X106.310333 Y77.823732 Z-0.125000
G01 X109.507547 Y80.788877 Z-0.125000
G01 X111.418370 Y82.201185 Z-0.125000
G01 X113.732433 Y83.410713 Z-0.125000
G01 X116.486816 Y84.354891 Z-0.125000
G01 X122.116606 Y85.368593 Z-0.125000
G01 X136.691977 Y86.735904 Z-0.125000
G01 X140.231598 Y87.388595 Z-0.125000
G01 X143.604554 Y88.315520 Z-0.125000
G01 X146.408055 Y89.401450 Z-0.125000
G01 X148.986181 Y90.743268 Z-0.125000
G01 X151.305394 Y92.331575 Z-0.125000
G01 X153.338721 Y94.140171 Z-0.125000
G01 X155.259778 Y96.387736 Z-0.125000
G01 X156.917481 Y99.064676 Z-0.125000
G01 X158.062829 Y101.826978 Z-0.125000
G01 X158.736763 Y104.842978 Z-0.125000
G01 X158.839698 Y107.475307 Z-0.125000
G01 X158.436779 Y110.185401 Z-0.125000
G01 X157.554658 Y112.674691 Z-0.125000
G01 X156.125162 Y115.147630 Z-0.125000
G01 X154.610757 Y117.037402 Z-0.125000
G01 X152.816774 Y118.783168 Z-0.125000
G01 X140.310264 Y128.116798 Z-0.125000
G01 X135.902555 Y131.957948 Z-0.125000
G01 X131.850837 Y135.917289 Z-0.125000
G01 X127.967650 Y140.131746 Z-0.125000
G01 X124.075966 Y144.785944 Z-0.125000
G01 X112.604724 Y159.929032 Z-0.125000
G01 X105.857460 Y166.831245 Z-0.125000
G01 X100.742278 Y174.645061 Z-0.125000
G01 X98.842399 Y177.114266 Z-0.125000
G01 X97.246367 Y178.701157 Z-0.125000
G01 X95.658382 Y179.872705 Z-0.125000
G01 X93.877403 Y180.772014 Z-0.125000
G01 X92.098290 Y181.319518 Z-0.125000
G01 X88.764023 Y181.665336 Z-0.125000
G01 X84.877683 Y181.326213 Z-0.125000
G01 X80.183122 Y180.251097 Z-0.125000
G01 X75.197977 Y178.574018 Z-0.125000
G01 X69.559753 Y176.155089 Z-0.125000
G01 X64.443606 Y173.460124 Z-0.125000
G01 X60.183572 Y170.684561 Z-0.125000
G01 X56.687018 Y167.716906 Z-0.125000
G01 X54.035183 Y164.624494 Z-0.125000
G01 X51.404141 Y160.470484 Z-0.125000
G01 X47.092415 Y152.247440 Z-0.125000
G01 X43.480630 Y144.518082 Z-0.125000
G01 X41.538779 Y139.481630 Z-0.125000
G01 X40.617390 Y136.004452 Z-0.125000
G01 X40.485423 Y133.256893 Z-0.125000
G01 X41.110047 Y130.980811 Z-0.125000
G01 X42.375710 Y128.947999 Z-0.125000
G01 X44.576667 Y126.556043 Z-0.125000
G01 X57.197635 Y115.538832 Z-0.125000
G01 X64.188362 Y109.138224 Z-0.125000
G01 X89.934284 Y83.810285 Z-0.125000
G01 X96.058211 Y78.696777 Z-0.125000
G01 X98.745259 Y76.978498 Z-0.125000
G01 X100.803048 Y76.063675 Z-0.125000
G01 X102.963449 Y75.712706 Z-0.125000
G01 X104.738828 Y76.158047 Z-0.125000
G01 X105.970179 Y76.978562 Z-0.125000
G01 X109.042829 Y79.931218 Z-0.125000
G01 X110.953651 Y81.417943 Z-0.125000
G01 X113.534610 Y82.812547 Z-0.125000
G01 X116.361801 Y83.788333 Z-0.125000
G01 X122.153557 Y84.828042 Z-0.125000
G01 X136.754935 Y86.176233 Z-0.125000
G01 X140.812898 Y86.923104 Z-0.125000
G01 X144.286728 Y87.899405 Z-0.125000
G01 X147.174431 Y89.043529 Z-0.125000
G01 X149.512570 Y90.265611 Z-0.125000
G01 X151.938129 Y91.905804 Z-0.125000
G01 X154.073875 Y93.779611 Z-0.125000
G01 X156.103790 Y96.114016 Z-0.125000
G01 X157.872474 Y98.899234 Z-0.125000
G01 X159.115928 Y101.774770 Z-0.125000
G01 X159.880437 Y104.911601 Z-0.125000
G01 X160.038347 Y107.906615 Z-0.125000
G01 X159.637875 Y110.684946 Z-0.125000
G01 X158.744488 Y113.219104 Z-0.125000
G01 X157.291367 Y115.719338 Z-0.125000
G01 X155.751727 Y117.619474 Z-0.125000
G01 X153.929934 Y119.368652 Z-0.125000
G01 X141.940028 Y128.221020 Z-0.125000
G01 X137.487193 Y132.050905 Z-0.125000
G01 X133.366143 Y136.041661 Z-0.125000
G01 X129.397790 Y140.329826 Z-0.125000
G01 X125.406712 Y145.107107 Z-0.125000
G01 X113.417063 Y161.051720 Z-0.125000
G01 X111.370797 Y163.253772 Z-0.125000
G01 X107.586747 Y166.541045 Z-0.125000
G01 X105.998697 Y168.242522 Z-0.125000
G01 X101.075222 Y175.691337 Z-0.125000
G01 X99.147019 Y178.196527 Z-0.125000
G01 X97.529035 Y179.799383 Z-0.125000
G01 X95.918132 Y180.973184 Z-0.125000
G01 X94.107927 Y181.860519 Z-0.125000
G01 X92.294825 Y182.383625 Z-0.125000
G01 X88.884596 Y182.659469 Z-0.125000
G01 X84.893776 Y182.212969 Z-0.125000
G01 X80.058429 Y180.986059 Z-0.125000
G01 X74.915888 Y179.131242 Z-0.125000
G01 X69.454051 Y176.672466 Z-0.125000
G01 X64.147999 Y173.780836 Z-0.125000
G01 X59.736300 Y170.826120 Z-0.125000
G01 X56.326651 Y167.893163 Z-0.125000
G01 X53.604776 Y164.716999 Z-0.125000
G01 X51.110980 Y160.780962 Z-0.125000
G01 X46.209006 Y151.436517 Z-0.125000
G01 X42.479095 Y143.580149 Z-0.125000
G01 X40.571556 Y138.821150 Z-0.125000
G01 X39.555858 Y135.329681 Z-0.125000
G01 X39.344195 Y132.599953 Z-0.125000
G01 X39.908951 Y130.360629 Z-0.125000
G01 X41.135796 Y128.370948 Z-0.125000
G01 X43.314287 Y126.027981 Z-0.125000
G01 X55.566583 Y115.465767 Z-0.125000
G01 X62.598639 Y109.085180 Z-0.125000
G01 X89.251787 Y82.931640 Z-0.125000
G01 X95.506394 Y77.749187 Z-0.125000
G01 X98.255241 Y76.017647 Z-0.125000
G01 X100.361504 Y75.105914 Z-0.125000
G01 X102.571925 Y74.778442 Z-0.125000
G01 X104.385091 Y75.267365 Z-0.125000
G01 X105.788773 Y76.265746 Z-0.125000
G01 X108.584355 Y79.058431 Z-0.125000
G01 X110.284674 Y80.470289 Z-0.125000
G01 X112.319803 Y81.722819 Z-0.125000
G01 X114.735191 Y82.750491 Z-0.125000
G01 X117.206520 Y83.457900 Z-0.125000
G01 X120.326936 Y84.037784 Z-0.125000
G01 X135.514764 Y85.433547 Z-0.125000
G01 X139.328749 Y86.010341 Z-0.125000
G01 X142.609456 Y86.749680 Z-0.125000
G01 X146.480347 Y88.037359 Z-0.125000
G01 X149.676467 Y89.570819 Z-0.125000
G01 X152.544020 Y91.454411 Z-0.125000
G01 X155.040520 Y93.650991 Z-0.125000
G01 X157.134229 Y96.097150 Z-0.125000
G01 X158.962395 Y99.008156 Z-0.125000
G01 X160.252520 Y102.003428 Z-0.125000
G01 X161.052435 Y105.256390 Z-0.125000
G01 X161.237447 Y108.073667 Z-0.125000
G01 X160.889054 Y110.944567 Z-0.125000
G01 X160.027082 Y113.547993 Z-0.125000
G01 X158.589024 Y116.098760 Z-0.125000
G01 X157.052603 Y118.025740 Z-0.125000
G01 X155.231969 Y119.794167 Z-0.125000
G01 X142.847190 Y128.921605 Z-0.125000
G01 X138.707794 Y132.489100 Z-0.125000
G01 X134.527713 Y136.541591 Z-0.125000
G01 X130.498333 Y140.918336 Z-0.125000
G01 X126.445262 Y145.815031 Z-0.125000
G01 X114.254444 Y162.199514 Z-0.125000
G01 X112.010163 Y164.539713 Z-0.125000
G01 X107.983872 Y167.739888 Z-0.125000
G01 X106.223814 Y169.543913 Z-0.125000
G01 X101.253861 Y176.964596 Z-0.125000
G01 X99.441853 Y179.296491 Z-0.125000
G01 X97.973475 Y180.767572 Z-0.125000
G01 X96.359933 Y181.974784 Z-0.125000
G01 X94.546767 Y182.885036 Z-0.125000
G01 X92.727163 Y183.417283 Z-0.125000
G01 X89.289382 Y183.680123 Z-0.125000
G01 X85.239209 Y183.181029 Z-0.125000
G01 X80.665672 Y181.971501 Z-0.125000
G01 X75.389941 Y180.015681 Z-0.125000
G01 X69.728607 Y177.401762 Z-0.125000
G01 X64.181023 Y174.317074 Z-0.125000
G01 X59.547297 Y171.173742 Z-0.125000
G01 X55.977999 Y168.087895 Z-0.125000
G01 X53.321336 Y165.009516 Z-0.125000
G01 X50.943929 Y161.300462 Z-0.125000
G01 X45.508485 Y150.937294 Z-0.125000
G01 X41.647121 Y142.969430 Z-0.125000
G01 X39.524186 Y137.860041 Z-0.125000
G01 X38.470057 Y134.403463 Z-0.125000
G01 X38.232387 Y131.934773 Z-0.125000
G01 X38.736566 Y129.732335 Z-0.125000
G01 X39.923500 Y127.786043 Z-0.125000
G01 X41.845137 Y125.713384 Z-0.125000
G01 X54.394971 Y114.998474 Z-0.125000
G01 X61.506271 Y108.575335 Z-0.125000
G01 X88.573089 Y82.057501 Z-0.125000
G01 X92.121916 Y78.977835 Z-0.125000
G01 X94.959728 Y76.806490 Z-0.125000
G01 X97.771662 Y75.061367 Z-0.125000
G01 X99.927428 Y74.152209 Z-0.125000
G01 X102.189219 Y73.847332 Z-0.125000
G01 X104.041204 Y74.378613 Z-0.125000
G01 X105.318261 Y75.290861 Z-0.125000
G01 X108.308061 Y78.339242 Z-0.125000
G01 X110.038378 Y79.803950 Z-0.125000
G01 X112.116251 Y81.099226 Z-0.125000
G01 X114.589061 Y82.157861 Z-0.125000
G01 X117.123799 Y82.883166 Z-0.125000
G01 X120.327966 Y83.473993 Z-0.125000
G01 X135.936867 Y84.894284 Z-0.125000
G01 X139.855395 Y85.496376 Z-0.125000
G01 X143.225389 Y86.271507 Z-0.125000
G01 X146.817926 Y87.468226 Z-0.125000
G01 X150.135520 Y89.037607 Z-0.125000
G01 X153.122294 Y90.976046 Z-0.125000
G01 X155.734153 Y93.246270 Z-0.125000
G01 X157.937621 Y95.782488 Z-0.125000
G01 X159.879085 Y98.807179 Z-0.125000
G01 X161.270729 Y101.922702 Z-0.125000
G01 X162.165918 Y105.305121 Z-0.125000
G01 X162.417428 Y108.510124 Z-0.125000
G01 X162.072768 Y111.452674 Z-0.125000
G01 X161.200174 Y114.103221 Z-0.125000
G01 X159.738363 Y116.682635 Z-0.125000
G01 X158.176256 Y118.621074 Z-0.125000
G01 X156.327748 Y120.394264 Z-0.125000
G01 X144.490022 Y129.033681 Z-0.125000
G01 X140.319662 Y132.578967 Z-0.125000
G01 X136.079263 Y136.649998 Z-0.125000
G01 X131.971088 Y141.090859 Z-0.125000
G01 X127.823645 Y146.106196 Z-0.125000
G01 X117.464854 Y160.397355 Z-0.125000
G01 X114.625433 Y163.925775 Z-0.125000
G01 X112.384821 Y166.083086 Z-0.125000
G01 X108.490433 Y168.857297 Z-0.125000
G01 X106.885646 Y170.340738 Z-0.125000
G01 X105.142712 Y172.573110 Z-0.125000
G01 X101.116872 Y178.675858 Z-0.125000
G01 X98.747898 Y181.433009 Z-0.125000
G01 X96.016432 Y183.446444 Z-0.125000
G01 X94.544771 Y184.088707 Z-0.125000
G01 X92.913398 Y184.518148 Z-0.125000
G01 X89.696871 Y184.724725 Z-0.125000
G01 X85.592945 Y184.176771 Z-0.125000
G01 X80.926388 Y182.876217 Z-0.125000
G01 X75.508518 Y180.780705 Z-0.125000
G01 X69.663139 Y177.984028 Z-0.125000
G01 X63.915801 Y174.690638 Z-0.125000
G01 X59.383722 Y171.557992 Z-0.125000
G01 X55.641708 Y168.305545 Z-0.125000
G01 X53.047617 Y165.318513 Z-0.125000
G01 X50.646069 Y161.588795 Z-0.125000
G01 X44.138214 Y149.073851 Z-0.125000
G01 X40.683889 Y142.006519 Z-0.125000
G01 X38.608976 Y137.183661 Z-0.125000
G01 X37.461698 Y133.714787 Z-0.125000
G01 X37.151092 Y131.262963 Z-0.125000
G01 X37.594244 Y129.097090 Z-0.125000
G01 X38.740429 Y127.194186 Z-0.125000
G01 X40.638119 Y125.166974 Z-0.125000
G01 X52.792952 Y114.916655 Z-0.125000
G01 X60.429353 Y108.063753 Z-0.125000
G01 X68.088929 Y100.699333 Z-0.125000
G01 X82.557182 Y86.244148 Z-0.125000
G01 X87.899090 Y81.188320 Z-0.125000
G01 X91.519694 Y78.066295 Z-0.125000
G01 X94.419048 Y75.869200 Z-0.125000
G01 X97.295356 Y74.110237 Z-0.125000
G01 X99.501979 Y73.203074 Z-0.125000
G01 X101.816556 Y72.919763 Z-0.125000
G01 X103.708388 Y73.492050 Z-0.125000
G01 X105.008942 Y74.448523 Z-0.125000
G01 X108.043225 Y77.618314 Z-0.125000
G01 X109.803218 Y79.134393 Z-0.125000
G01 X111.923579 Y80.470675 Z-0.125000
G01 X114.453425 Y81.558472 Z-0.125000
G01 X117.051185 Y82.299999 Z-0.125000
G01 X120.338523 Y82.899968 Z-0.125000
G01 X135.911117 Y84.285496 Z-0.125000
G01 X139.942493 Y84.883855 Z-0.125000
G01 X143.416967 Y85.662333 Z-0.125000
G01 X147.526108 Y87.033699 Z-0.125000
G01 X150.929448 Y88.680394 Z-0.125000
G01 X153.994759 Y90.713398 Z-0.125000
G01 X156.677301 Y93.091964 Z-0.125000
G01 X158.943276 Y95.744765 Z-0.125000
G01 X160.943836 Y98.901230 Z-0.125000
G01 X162.382730 Y102.142347 Z-0.125000
G01 X163.314806 Y105.646755 Z-0.125000
G01 X163.588075 Y108.660889 Z-0.125000
G01 X163.300257 Y111.703733 Z-0.125000
G01 X162.462876 Y114.429921 Z-0.125000
G01 X161.018510 Y117.064954 Z-0.125000
G01 X159.460137 Y119.033327 Z-0.125000
G01 X157.411683 Y120.998803 Z-0.125000
G01 X145.765921 Y129.445162 Z-0.125000
G01 X141.553782 Y133.015167 Z-0.125000
G01 X137.648644 Y136.746366 Z-0.125000
G01 X133.465795 Y141.243297 Z-0.125000
G01 X129.227133 Y146.371933 Z-0.125000
G01 X125.456602 Y151.420552 Z-0.125000
G01 X118.397509 Y161.511481 Z-0.125000
G01 X115.501245 Y165.124811 Z-0.125000
G01 X113.191882 Y167.289718 Z-0.125000
G01 X108.998733 Y169.991765 Z-0.125000
G01 X107.204428 Y171.538615 Z-0.125000
G01 X105.394287 Y173.797509 Z-0.125000
G01 X101.254762 Y179.992828 Z-0.125000
G01 X98.837378 Y182.737168 Z-0.125000
G01 X96.241871 Y184.596105 Z-0.125000
G01 X93.338461 Y185.590688 Z-0.125000
G01 X90.105391 Y185.792630 Z-0.125000
G01 X85.953441 Y185.199936 Z-0.125000
G01 X81.198756 Y183.811125 Z-0.125000
G01 X75.641709 Y181.576629 Z-0.125000
G01 X69.611704 Y178.594940 Z-0.125000
G01 X64.007728 Y175.310627 Z-0.125000
G01 X59.247506 Y171.983055 Z-0.125000
G01 X55.318935 Y168.550875 Z-0.125000
G01 X52.630858 Y165.446103 Z-0.125000
G01 X50.465564 Y162.093167 Z-0.125000
G01 X39.902385 Y141.382281 Z-0.125000
G01 X37.604158 Y136.209871 Z-0.125000
G01 X36.484882 Y133.021605 Z-0.125000
G01 X36.101469 Y130.586132 Z-0.125000
G01 X36.483337 Y128.456244 Z-0.125000
G01 X37.443480 Y126.784701 Z-0.125000
G01 X39.238493 Y124.823409 Z-0.125000
G01 X51.658999 Y114.442731 Z-0.125000
G01 X58.864736 Y108.018369 Z-0.125000
G01 X66.595124 Y100.621698 Z-0.125000
G01 X81.793124 Y85.452731 Z-0.125000
G01 X87.230563 Y80.324481 Z-0.125000
G01 X90.923395 Y77.160677 Z-0.125000
G01 X93.885385 Y74.937897 Z-0.125000
G01 X96.827419 Y73.164707 Z-0.125000
G01 X99.086185 Y72.258960 Z-0.125000
G01 X101.455030 Y71.995991 Z-0.125000
G01 X103.387676 Y72.607869 Z-0.125000
G01 X104.712241 Y73.607280 Z-0.125000
G01 X107.790813 Y76.895391 Z-0.125000
G01 X109.580290 Y78.461167 Z-0.125000
G01 X111.742752 Y79.836781 Z-0.125000
G01 X114.329375 Y80.951873 Z-0.125000
G01 X116.989579 Y81.707885 Z-0.125000
G01 X120.359380 Y82.315256 Z-0.125000
G01 X136.329872 Y83.713595 Z-0.125000
G01 X140.461672 Y84.335386 Z-0.125000
G01 X144.021635 Y85.148626 Z-0.125000
G01 X147.824740 Y86.418603 Z-0.125000
G01 X151.346465 Y88.098128 Z-0.125000
G01 X154.528744 Y90.184564 Z-0.125000
G01 X157.325421 Y92.637160 Z-0.125000
G01 X159.701090 Y95.382273 Z-0.125000
G01 X161.816365 Y98.657058 Z-0.125000
G01 X163.359804 Y102.024800 Z-0.125000
G01 X164.391659 Y105.666776 Z-0.125000
G01 X164.743851 Y109.094707 Z-0.125000
G01 X164.461377 Y112.212226 Z-0.125000
G01 X163.614275 Y114.987531 Z-0.125000
G01 X162.146284 Y117.652627 Z-0.125000
G01 X160.562032 Y119.633553 Z-0.125000
G01 X158.482678 Y121.605788 Z-0.125000
G01 X147.040210 Y129.857608 Z-0.125000
G01 X143.183353 Y133.097116 Z-0.125000
G01 X139.233281 Y136.829924 Z-0.125000
G01 X134.604576 Y141.803354 Z-0.125000
G01 X130.312548 Y147.048829 Z-0.125000
G01 X126.497019 Y152.234114 Z-0.125000
G01 X119.353081 Y162.634105 Z-0.125000
G01 X116.402357 Y166.341099 Z-0.125000
G01 X113.874378 Y168.629476 Z-0.125000
G01 X109.380730 Y171.222731 Z-0.125000
G01 X107.508081 Y172.749303 Z-0.125000
G01 X105.627773 Y175.040448 Z-0.125000
G01 X101.374176 Y181.328079 Z-0.125000
G01 X98.908319 Y184.055812 Z-0.125000
G01 X96.455658 Y185.761022 Z-0.125000
G01 X93.509697 Y186.726122 Z-0.125000
G01 X90.215857 Y186.865685 Z-0.125000
G01 X85.968505 Y186.165486 Z-0.125000
G01 X81.088289 Y184.631575 Z-0.125000
G01 X75.372817 Y182.209685 Z-0.125000
G01 X69.169066 Y179.009896 Z-0.125000
G01 X63.415677 Y175.510510 Z-0.125000
G01 X58.554323 Y171.989686 Z-0.125000
G01 X54.794542 Y168.608297 Z-0.125000
G01 X52.216866 Y165.591910 Z-0.125000
G01 X50.033161 Y162.168485 Z-0.125000
G01 X38.482481 Y139.358933 Z-0.125000
G01 X36.384587 Y134.664759 Z-0.125000
G01 X35.406097 Y131.852889 Z-0.125000
G01 X35.081007 Y129.506768 Z-0.125000
G01 X35.476973 Y127.628970 Z-0.125000
G01 X36.616720 Y125.808336 Z-0.125000
G01 X38.542285 Y123.848589 Z-0.125000
G01 X51.006050 Y113.573678 Z-0.125000
G01 X59.868460 Y105.592681 Z-0.125000
G01 X80.552116 Y85.137812 Z-0.125000
G01 X87.004159 Y79.077872 Z-0.125000
G01 X90.729435 Y75.947865 Z-0.125000
G01 X93.714858 Y73.774653 Z-0.125000
G01 X96.368688 Y72.225228 Z-0.125000
G01 X98.680884 Y71.320126 Z-0.125000
G01 X101.105478 Y71.076340 Z-0.125000
G01 X103.080160 Y71.726263 Z-0.125000
G01 X104.429059 Y72.767324 Z-0.125000
G01 X107.552049 Y76.170407 Z-0.125000
G01 X109.370687 Y77.784207 Z-0.125000
G01 X111.574928 Y79.197158 Z-0.125000
G01 X114.217750 Y80.337549 Z-0.125000
G01 X116.940075 Y81.106435 Z-0.125000
G01 X119.989357 Y81.662823 Z-0.125000
G01 X136.753133 Y83.125600 Z-0.125000
G01 X140.982717 Y83.770566 Z-0.125000
G01 X144.625659 Y84.618890 Z-0.125000
G01 X148.516635 Y85.946932 Z-0.125000
G01 X152.119664 Y87.704737 Z-0.125000
G01 X155.376489 Y89.887991 Z-0.125000
G01 X158.240888 Y92.452213 Z-0.125000
G01 X160.677069 Y95.318221 Z-0.125000
G01 X162.850538 Y98.730123 Z-0.125000
G01 X164.441549 Y102.228738 Z-0.125000
G01 X165.511708 Y105.997917 Z-0.125000
G01 X165.879735 Y109.220366 Z-0.125000
G01 X165.659511 Y112.445840 Z-0.125000
G01 X164.852064 Y115.303094 Z-0.125000
G01 X163.404415 Y118.029088 Z-0.125000
G01 X161.824670 Y120.043102 Z-0.125000
G01 X159.746217 Y122.041924 Z-0.125000
G01 X148.311217 Y130.269281 Z-0.125000
G01 X144.423138 Y133.524690 Z-0.125000
G01 X140.431802 Y137.298183 Z-0.125000
G01 X135.749344 Y142.354719 Z-0.125000
G01 X131.407491 Y147.716455 Z-0.125000
G01 X127.253224 Y153.470680 Z-0.125000
G01 X120.330927 Y163.761556 Z-0.125000
G01 X117.328574 Y167.571227 Z-0.125000
G01 X114.571552 Y169.983976 Z-0.125000
G01 X109.750753 Y172.459168 Z-0.125000
G01 X107.794611 Y173.972092 Z-0.125000
G01 X105.841688 Y176.301477 Z-0.125000
G01 X101.474214 Y182.680068 Z-0.125000
G01 X98.959754 Y185.387780 Z-0.125000
G01 X96.447611 Y187.041620 Z-0.125000
G01 X93.669924 Y187.875847 Z-0.125000
G01 X90.316667 Y187.952388 Z-0.125000
G01 X85.974878 Y187.143203 Z-0.125000
G01 X80.969326 Y185.461811 Z-0.125000
G01 X75.523002 Y183.058267 Z-0.125000
G01 X69.133081 Y179.669025 Z-0.125000
G01 X63.181612 Y175.960872 Z-0.125000
G01 X58.448106 Y172.481248 Z-0.125000
G01 X54.492369 Y168.911049 Z-0.125000
G01 X51.806094 Y165.760507 Z-0.125000
G01 X49.716633 Y162.473233 Z-0.125000
G01 X37.239606 Y137.689578 Z-0.125000
G01 X35.301618 Y133.420275 Z-0.125000
G01 X34.354865 Y130.701297 Z-0.125000
G01 X34.087712 Y128.636105 Z-0.125000
G01 X34.427351 Y126.984197 Z-0.125000
G01 X35.526220 Y125.205470 Z-0.125000
G01 X37.426292 Y123.289755 Z-0.125000
G01 X49.462226 Y113.482202 Z-0.125000
G01 X58.339249 Y105.551610 Z-0.125000
G01 X79.794366 Y84.361973 Z-0.125000
G01 X86.356875 Y78.220857 Z-0.125000
G01 X90.155603 Y75.051453 Z-0.125000
G01 X93.205335 Y72.854036 Z-0.125000
G01 X95.919999 Y71.292187 Z-0.125000
G01 X98.287107 Y70.387084 Z-0.125000
G01 X100.768993 Y70.161066 Z-0.125000
G01 X102.786742 Y70.847489 Z-0.125000
G01 X104.160489 Y71.928720 Z-0.125000
G01 X107.142693 Y75.250949 Z-0.125000
G01 X108.951868 Y76.927191 Z-0.125000
G01 X111.149607 Y78.403809 Z-0.125000
G01 X113.796871 Y79.600978 Z-0.125000
G01 X116.536255 Y80.410356 Z-0.125000
G01 X120.024055 Y81.055129 Z-0.125000
G01 X137.181029 Y82.521125 Z-0.125000
G01 X141.505630 Y83.189073 Z-0.125000
G01 X145.228911 Y84.072739 Z-0.125000
G01 X149.204539 Y85.459619 Z-0.125000
G01 X152.885912 Y87.297054 Z-0.125000
G01 X156.214707 Y89.578995 Z-0.125000
G01 X159.144510 Y92.257030 Z-0.125000
G01 X161.639658 Y95.246186 Z-0.125000
G01 X163.870099 Y98.797459 Z-0.125000
G01 X165.508167 Y102.428877 Z-0.125000
G01 X166.616692 Y106.326612 Z-0.125000
G01 X167.005899 Y109.644013 Z-0.125000
G01 X166.793014 Y112.946930 Z-0.125000
G01 X165.977327 Y115.855103 Z-0.125000
G01 X164.506696 Y118.612576 Z-0.125000
G01 X162.900879 Y120.640174 Z-0.125000
G01 X160.997589 Y122.473811 Z-0.125000
G01 X152.151144 Y128.734148 Z-0.125000
G01 X148.425674 Y131.598546 Z-0.125000
G01 X143.648715 Y135.789700 Z-0.125000
G01 X139.235406 Y140.263907 Z-0.125000
G01 X135.387883 Y144.699425 Z-0.125000
G01 X131.824443 Y149.293303 Z-0.125000
G01 X128.019600 Y154.717868 Z-0.125000
G01 X121.124340 Y165.185322 Z-0.125000
G01 X117.755762 Y169.360575 Z-0.125000
G01 X115.125299 Y171.445594 Z-0.125000
G01 X110.525369 Y173.481238 Z-0.125000
G01 X108.601608 Y174.726302 Z-0.125000
G01 X106.444747 Y177.033734 Z-0.125000
G01 X102.038326 Y183.416189 Z-0.125000
G01 X99.879598 Y185.928138 Z-0.125000
G01 X98.434910 Y187.165863 Z-0.125000
G01 X97.053116 Y188.028543 Z-0.125000
G01 X95.524999 Y188.660505 Z-0.125000
G01 X94.074131 Y189.001367 Z-0.125000
G01 X90.716303 Y189.082801 Z-0.125000
G01 X86.703338 Y188.336252 Z-0.125000
G01 X81.668431 Y186.637350 Z-0.125000
G01 X76.125224 Y184.157008 Z-0.125000
G01 X69.543402 Y180.614104 Z-0.125000
G01 X63.344415 Y176.705425 Z-0.125000
G01 X58.373946 Y173.024374 Z-0.125000
G01 X54.207770 Y169.254036 Z-0.125000
G01 X51.569390 Y166.185763 Z-0.125000
G01 X49.394440 Y162.797808 Z-0.125000
G01 X44.399251 Y152.346448 Z-0.125000
G01 X36.012310 Y136.034451 Z-0.125000
G01 X34.240665 Y132.190726 Z-0.125000
G01 X33.388736 Y129.786217 Z-0.125000
G01 X33.120423 Y127.960047 Z-0.125000
G01 X33.412297 Y126.337106 Z-0.125000
G01 X34.327957 Y124.775386 Z-0.125000
G01 X36.119429 Y122.925461 Z-0.125000
G01 X48.402045 Y112.995211 Z-0.125000
G01 X57.345374 Y105.023290 Z-0.125000
G01 X79.044470 Y83.590897 Z-0.125000
G01 X85.264701 Y77.769014 Z-0.125000
G01 X89.178143 Y74.483028 Z-0.125000
G01 X92.333836 Y72.183771 Z-0.125000
G01 X95.154138 Y70.526326 Z-0.125000
G01 X97.622056 Y69.536764 Z-0.125000
G01 X100.215439 Y69.227253 Z-0.125000
G01 X101.322419 Y69.435825 Z-0.125000
G01 X102.508130 Y69.971548 Z-0.125000
G01 X103.907241 Y71.091468 Z-0.125000
G01 X106.931095 Y74.515923 Z-0.125000
G01 X108.767758 Y76.237485 Z-0.125000
G01 X111.005087 Y77.748736 Z-0.125000
G01 X113.706168 Y78.968501 Z-0.125000
G01 X116.505227 Y79.788179 Z-0.125000
G01 X120.071627 Y80.435591 Z-0.125000
G01 X137.117749 Y81.841461 Z-0.125000
G01 X141.545478 Y82.497371 Z-0.125000
G01 X145.364612 Y83.376981 Z-0.125000
G01 X149.450835 Y84.772681 Z-0.125000
G01 X153.243897 Y86.638119 Z-0.125000
G01 X156.684060 Y88.970786 Z-0.125000
G01 X159.723943 Y91.722787 Z-0.125000
G01 X162.326596 Y94.806960 Z-0.125000
G01 X164.671945 Y98.482604 Z-0.125000
G01 X166.417390 Y102.249080 Z-0.125000
G01 X167.631489 Y106.295133 Z-0.125000
G01 X168.101228 Y109.736455 Z-0.125000
G01 X167.956450 Y113.154730 Z-0.125000
G01 X167.185439 Y116.151225 Z-0.125000
G01 X165.738820 Y118.975004 Z-0.125000
G01 X164.138733 Y121.038908 Z-0.125000
G01 X162.236021 Y122.899325 Z-0.125000
G01 X153.062297 Y129.402932 Z-0.125000
G01 X149.288097 Y132.323272 Z-0.125000
G01 X144.459123 Y136.606352 Z-0.125000
G01 X140.012597 Y141.184523 Z-0.125000
G01 X136.524668 Y145.260253 Z-0.125000
G01 X132.927239 Y149.955457 Z-0.125000
G01 X129.090660 Y155.523191 Z-0.125000
G01 X122.142420 Y166.320692 Z-0.125000
G01 X120.363565 Y168.751723 Z-0.125000
G01 X118.720346 Y170.621281 Z-0.125000
G01 X117.338874 Y171.847161 Z-0.125000
G01 X115.845455 Y172.816445 Z-0.125000
G01 X110.885157 Y174.732610 Z-0.125000
G01 X108.872109 Y175.965443 Z-0.125000
G01 X106.629694 Y178.316585 Z-0.125000
G01 X102.268850 Y184.583230 Z-0.125000
G01 X100.083987 Y187.125822 Z-0.125000
G01 X98.624686 Y188.372752 Z-0.125000
G01 X97.228793 Y189.235239 Z-0.125000
G01 X95.683359 Y189.857545 Z-0.125000
G01 X94.213501 Y190.181412 Z-0.125000
G01 X90.801341 Y190.201948 Z-0.125000
G01 X86.707007 Y189.357100 Z-0.125000
G01 X81.552364 Y187.512454 Z-0.125000
G01 X75.863993 Y184.854890 Z-0.125000
G01 X69.549840 Y181.353314 Z-0.125000
G01 X63.146979 Y177.230848 Z-0.125000
G01 X58.000962 Y173.349336 Z-0.125000
G01 X53.697089 Y169.386389 Z-0.125000
G01 X50.997746 Y166.184283 Z-0.125000
G01 X48.943755 Y162.920248 Z-0.125000
G01 X43.696992 Y151.561725 Z-0.125000
G01 X34.498420 Y133.780642 Z-0.125000
G01 X33.098922 Y130.727433 Z-0.125000
G01 X32.394410 Y128.666941 Z-0.125000
G01 X32.185837 Y127.098718 Z-0.125000
G01 X32.432648 Y125.688728 Z-0.125000
G01 X33.310650 Y124.161963 Z-0.125000
G01 X35.073604 Y122.353624 Z-0.125000
G01 X47.368902 Y112.503198 Z-0.125000
G01 X56.371970 Y104.492202 Z-0.125000
G01 X77.794256 Y83.320589 Z-0.125000
G01 X84.624692 Y76.930217 Z-0.125000
G01 X88.612937 Y73.604834 Z-0.125000
G01 X91.835450 Y71.280278 Z-0.125000
G01 X94.719998 Y69.608284 Z-0.125000
G01 X97.246561 Y68.615633 Z-0.125000
G01 X99.902000 Y68.319189 Z-0.125000
G01 X101.034280 Y68.541216 Z-0.125000
G01 X102.245289 Y69.098697 Z-0.125000
G01 X103.670086 Y70.255761 Z-0.125000
G01 X106.735590 Y73.778709 Z-0.125000
G01 X108.599548 Y75.543466 Z-0.125000
G01 X110.876209 Y77.087355 Z-0.125000
G01 X113.630592 Y78.327590 Z-0.125000
G01 X116.488747 Y79.155765 Z-0.125000
G01 X120.132912 Y79.803886 Z-0.125000
G01 X137.545387 Y81.201709 Z-0.125000
G01 X142.062274 Y81.878348 Z-0.125000
G01 X145.956276 Y82.791755 Z-0.125000
G01 X150.120971 Y84.245455 Z-0.125000
G01 X153.986390 Y86.190718 Z-0.125000
G01 X157.493116 Y88.623358 Z-0.125000
G01 X160.594155 Y91.491555 Z-0.125000
G01 X163.252685 Y94.702223 Z-0.125000
G01 X165.653331 Y98.521422 Z-0.125000
G01 X167.445769 Y102.425015 Z-0.125000
G01 X168.699587 Y106.603873 Z-0.125000
G01 X169.192630 Y110.143172 Z-0.125000
G01 X169.057766 Y113.641271 Z-0.125000
G01 X168.280639 Y116.690295 Z-0.125000
G01 X166.812068 Y119.546712 Z-0.125000
G01 X165.005983 Y121.820991 Z-0.125000
G01 X162.833544 Y123.847559 Z-0.125000
G01 X153.958452 Y130.071009 Z-0.125000
G01 X148.935905 Y134.061958 Z-0.125000
G01 X144.848523 Y137.826116 Z-0.125000
G01 X141.184016 Y141.659863 Z-0.125000
G01 X137.663836 Y145.804345 Z-0.125000
G01 X134.035443 Y150.599458 Z-0.125000
G01 X130.171247 Y156.311132 Z-0.125000
G01 X122.972913 Y167.758041 Z-0.125000
G01 X121.190968 Y170.204200 Z-0.125000
G01 X119.529789 Y172.065776 Z-0.125000
G01 X118.119090 Y173.267258 Z-0.125000
G01 X116.578807 Y174.194184 Z-0.125000
G01 X111.382320 Y175.921797 Z-0.125000
G01 X109.121430 Y177.212824 Z-0.125000
G01 X106.937210 Y179.432127 Z-0.125000
G01 X102.317775 Y185.981118 Z-0.125000
G01 X100.094158 Y188.506522 Z-0.125000
G01 X98.798689 Y189.591358 Z-0.125000
G01 X97.389407 Y190.453845 Z-0.125000
G01 X95.827493 Y191.066623 Z-0.125000
G01 X94.339482 Y191.373625 Z-0.125000
G01 X90.874664 Y191.333133 Z-0.125000
G01 X86.700312 Y190.389277 Z-0.125000
G01 X81.426641 Y188.397472 Z-0.125000
G01 X75.593299 Y185.560690 Z-0.125000
G01 X69.112803 Y181.846486 Z-0.125000
G01 X62.549457 Y177.495105 Z-0.125000
G01 X57.296514 Y173.416929 Z-0.125000
G01 X53.187695 Y169.541918 Z-0.125000
G01 X50.602938 Y166.448668 Z-0.125000
G01 X48.487277 Y163.065477 Z-0.125000
G01 X43.169702 Y151.091599 Z-0.125000
G01 X33.039054 Y131.632085 Z-0.125000
G01 X31.434782 Y127.570775 Z-0.125000
G01 X31.289361 Y126.068279 Z-0.125000
G01 X31.549626 Y124.873299 Z-0.125000
G01 X32.464642 Y123.378141 Z-0.125000
G01 X34.063636 Y121.777989 Z-0.125000
G01 X45.900331 Y112.392603 Z-0.125000
G01 X54.889172 Y104.453835 Z-0.125000
G01 X61.922580 Y97.688289 Z-0.125000
G01 X77.054531 Y82.565350 Z-0.125000
G01 X83.992922 Y76.098372 Z-0.125000
G01 X88.056807 Y72.734300 Z-0.125000
G01 X91.347364 Y70.384703 Z-0.125000
G01 X94.297638 Y68.697774 Z-0.125000
G01 X96.884455 Y67.701260 Z-0.125000
G01 X98.313951 Y67.428506 Z-0.125000
G01 X99.603497 Y67.416404 Z-0.125000
G01 X100.761784 Y67.650984 Z-0.125000
G01 X101.802845 Y68.111904 Z-0.125000
G01 X103.449604 Y69.421534 Z-0.125000
G01 X106.556694 Y73.039177 Z-0.125000
G01 X108.447753 Y74.845069 Z-0.125000
G01 X110.763490 Y76.419471 Z-0.125000
G01 X113.570917 Y77.677989 Z-0.125000
G01 X116.487524 Y78.512859 Z-0.125000
G01 X119.773961 Y79.101369 Z-0.125000
G01 X137.978498 Y80.544963 Z-0.125000
G01 X142.581131 Y81.242072 Z-0.125000
G01 X146.546717 Y82.189469 Z-0.125000
G01 X150.786086 Y83.701750 Z-0.125000
G01 X154.720193 Y85.727866 Z-0.125000
G01 X158.290199 Y88.262025 Z-0.125000
G01 X161.449625 Y91.248220 Z-0.125000
G01 X164.161843 Y94.587058 Z-0.125000
G01 X166.616371 Y98.551678 Z-0.125000
G01 X168.455222 Y102.593611 Z-0.125000
G01 X169.748953 Y106.906110 Z-0.125000
G01 X170.265814 Y110.543515 Z-0.125000
G01 X170.141636 Y114.121181 Z-0.125000
G01 X169.358845 Y117.222156 Z-0.125000
G01 X167.868644 Y120.111081 Z-0.125000
G01 X166.033654 Y122.401390 Z-0.125000
G01 X163.829543 Y124.438837 Z-0.125000
G01 X154.839092 Y130.736575 Z-0.125000
G01 X149.758222 Y134.806704 Z-0.125000
G01 X145.634984 Y138.652425 Z-0.125000
G01 X141.950134 Y142.572562 Z-0.125000
G01 X138.422873 Y146.811738 Z-0.125000
G01 X134.801626 Y151.716159 Z-0.125000
G01 X131.259688 Y157.078409 Z-0.125000
G01 X124.028844 Y168.887746 Z-0.125000
G01 X122.229325 Y171.417527 Z-0.125000
G01 X120.540208 Y173.337233 Z-0.125000
G01 X119.093846 Y174.566396 Z-0.125000
G01 X117.500518 Y175.497120 Z-0.125000
G01 X115.929399 Y176.076746 Z-0.125000
G01 X111.876200 Y177.117678 Z-0.125000
G01 X109.501754 Y178.353407 Z-0.125000
G01 X107.080057 Y180.740793 Z-0.125000
G01 X102.512571 Y187.172622 Z-0.125000
G01 X100.263784 Y189.727767 Z-0.125000
G01 X98.956471 Y190.820649 Z-0.125000
G01 X97.534442 Y191.683394 Z-0.125000
G01 X94.713239 Y192.544078 Z-0.125000
G01 X91.256339 Y192.520066 Z-0.125000
G01 X87.065379 Y191.554774 Z-0.125000
G01 X81.730809 Y189.490805 Z-0.125000
G01 X75.785650 Y186.532162 Z-0.125000
G01 X69.136106 Y182.642216 Z-0.125000
G01 X62.790925 Y178.382054 Z-0.125000
G01 X57.279004 Y174.088288 Z-0.125000
G01 X52.941528 Y170.002838 Z-0.125000
G01 X49.845510 Y166.235718 Z-0.125000
G01 X47.660325 Y162.511021 Z-0.125000
G01 X44.294965 Y154.228173 Z-0.125000
G01 X42.504394 Y150.303465 Z-0.125000
G01 X31.421521 Y129.104042 Z-0.125000
G01 X30.477923 Y126.308460 Z-0.125000
G01 X30.420887 Y125.230061 Z-0.125000
G01 X30.637957 Y124.228397 Z-0.125000
G01 X31.517053 Y122.764912 Z-0.125000
G01 X33.090296 Y121.198943 Z-0.125000
G01 X44.462596 Y112.269712 Z-0.125000
G01 X53.424593 Y104.413408 Z-0.125000
G01 X60.484458 Y97.644322 Z-0.125000
G01 X76.324012 Y81.814939 Z-0.125000
G01 X83.369908 Y75.273673 Z-0.125000
G01 X87.510205 Y71.871685 Z-0.125000
G01 X90.870029 Y69.497174 Z-0.125000
G01 X93.887510 Y67.794989 Z-0.125000
G01 X96.536190 Y66.793840 Z-0.125000
G01 X98.000255 Y66.523918 Z-0.125000
G01 X99.320572 Y66.518768 Z-0.125000
G01 X100.505509 Y66.764936 Z-0.125000
G01 X101.768726 Y67.362394 Z-0.125000
G01 X103.246310 Y68.588595 Z-0.125000
G01 X106.394985 Y72.297006 Z-0.125000
G01 X108.313018 Y74.141973 Z-0.125000
G01 X110.667508 Y75.744636 Z-0.125000
G01 X113.184092 Y76.895004 Z-0.125000
G01 X116.108810 Y77.768628 Z-0.125000
G01 X119.855587 Y78.445073 Z-0.125000
G01 X137.891335 Y79.811804 Z-0.125000
G01 X142.587633 Y80.490180 Z-0.125000
G01 X146.640575 Y81.426955 Z-0.125000
G01 X150.981012 Y82.940652 Z-0.125000
G01 X155.017602 Y84.988463 Z-0.125000
G01 X158.690800 Y87.568714 Z-0.125000
G01 X161.953676 Y90.626815 Z-0.125000
G01 X164.769150 Y94.061506 Z-0.125000
G01 X167.336848 Y98.154553 Z-0.125000
G01 X169.284685 Y102.338238 Z-0.125000
G01 X170.689333 Y106.808390 Z-0.125000
G01 X171.293936 Y110.578728 Z-0.125000
G01 X171.246621 Y114.281152 Z-0.125000
G01 X170.516552 Y117.478623 Z-0.125000
G01 X169.056414 Y120.440678 Z-0.125000
G01 X167.229665 Y122.775019 Z-0.125000
G01 X165.026068 Y124.844910 Z-0.125000
G01 X156.074564 Y131.124108 Z-0.125000
G01 X150.977278 Y135.189602 Z-0.125000
G01 X146.827131 Y139.056373 Z-0.125000
G01 X143.113700 Y143.018805 Z-0.125000
G01 X139.559209 Y147.323643 Z-0.125000
G01 X135.913628 Y152.326556 Z-0.125000
G01 X132.055290 Y158.309632 Z-0.125000
G01 X125.103187 Y170.003610 Z-0.125000
G01 X123.289505 Y172.622485 Z-0.125000
G01 X121.574960 Y174.606115 Z-0.125000
G01 X119.910563 Y175.995505 Z-0.125000
G01 X118.265542 Y176.885673 Z-0.125000
G01 X116.628310 Y177.414315 Z-0.125000
G01 X112.194981 Y178.371561 Z-0.125000
G01 X109.710648 Y179.613212 Z-0.125000
G01 X107.198119 Y182.063363 Z-0.125000
G01 X102.689923 Y188.373267 Z-0.125000
G01 X100.416287 Y190.958346 Z-0.125000
G01 X99.097450 Y192.059404 Z-0.125000
G01 X97.663320 Y192.922792 Z-0.125000
G01 X96.309786 Y193.450018 Z-0.125000
G01 X94.813920 Y193.761267 Z-0.125000
G01 X91.309769 Y193.679641 Z-0.125000
G01 X87.044328 Y192.617722 Z-0.125000
G01 X82.041351 Y190.613364 Z-0.125000
G01 X75.990360 Y187.537431 Z-0.125000
G01 X68.691151 Y183.163777 Z-0.125000
G01 X62.192759 Y178.686094 Z-0.125000
G01 X56.567990 Y174.190128 Z-0.125000
G01 X52.444816 Y170.224092 Z-0.125000
G01 X49.451668 Y166.562031 Z-0.125000
G01 X47.307682 Y162.940591 Z-0.125000
G01 X43.772310 Y153.797187 Z-0.125000
G01 X42.015278 Y149.842094 Z-0.125000
G01 X30.460735 Y127.943052 Z-0.125000
G01 X29.630242 Y125.450994 Z-0.125000
G01 X29.763368 Y123.584461 Z-0.125000
G01 X30.606993 Y122.150395 Z-0.125000
G01 X32.154487 Y120.616484 Z-0.125000
G01 X43.513976 Y111.760383 Z-0.125000
G01 X52.511829 Y103.877492 Z-0.125000
G01 X59.612765 Y97.057808 Z-0.125000
G01 X75.603020 Y81.069163 Z-0.125000
G01 X82.755777 Y74.455991 Z-0.125000
G01 X86.973324 Y71.016987 Z-0.125000
G01 X90.403766 Y68.617757 Z-0.125000
G01 X93.489998 Y66.899929 Z-0.125000
G01 X96.202088 Y65.893243 Z-0.125000
G01 X97.701687 Y65.625382 Z-0.125000
G01 X99.053547 Y65.626669 Z-0.125000
G01 X100.265715 Y65.883458 Z-0.125000
G01 X101.555969 Y66.499070 Z-0.125000
G01 X103.060461 Y67.757266 Z-0.125000
G01 X106.250787 Y71.552388 Z-0.125000
G01 X108.195599 Y73.434306 Z-0.125000
G01 X110.588778 Y75.062976 Z-0.125000
G01 X113.151197 Y76.226348 Z-0.125000
G01 X116.132113 Y77.103963 Z-0.125000
G01 X119.952792 Y77.776353 Z-0.125000
G01 X138.326956 Y79.119845 Z-0.125000
G01 X143.102177 Y79.816310 Z-0.125000
G01 X147.220072 Y80.785272 Z-0.125000
G01 X151.627652 Y82.356134 Z-0.125000
G01 X155.725527 Y84.484219 Z-0.125000
G01 X159.455180 Y87.166439 Z-0.125000
G01 X162.770779 Y90.343954 Z-0.125000
G01 X165.635821 Y93.909067 Z-0.125000
G01 X168.254825 Y98.150497 Z-0.125000
G01 X170.248626 Y102.475806 Z-0.125000
G01 X171.694730 Y107.082689 Z-0.125000
G01 X172.325856 Y110.953386 Z-0.125000
G01 X172.292639 Y114.737179 Z-0.125000
G01 X171.559995 Y117.987953 Z-0.125000
G01 X170.080352 Y120.983675 Z-0.125000
G01 X168.225342 Y123.335397 Z-0.125000
G01 X165.990009 Y125.417970 Z-0.125000
G01 X156.926944 Y131.775125 Z-0.125000
G01 X151.775133 Y135.918963 Z-0.125000
G01 X147.593572 Y139.866460 Z-0.125000
G01 X143.865270 Y143.914316 Z-0.125000
G01 X140.310521 Y148.313526 Z-0.125000
G01 X136.680905 Y153.426198 Z-0.125000
G01 X133.154030 Y159.038800 Z-0.125000
G01 X125.985759 Y171.435809 Z-0.125000
G01 X124.174330 Y174.076057 Z-0.125000
G01 X122.443370 Y176.057240 Z-0.125000
G01 X120.742729 Y177.423006 Z-0.125000
G01 X119.042797 Y178.273068 Z-0.125000
G01 X117.335269 Y178.751498 Z-0.125000
G01 X112.671287 Y179.570468 Z-0.125000
G01 X110.062003 Y180.764161 Z-0.125000
G01 X108.740527 Y181.826916 Z-0.125000
G01 X107.450853 Y183.206200 Z-0.125000
G01 X102.677305 Y189.806947 Z-0.125000
G01 X100.551344 Y192.197487 Z-0.125000
G01 X99.221435 Y193.307042 Z-0.125000
G01 X97.775910 Y194.171332 Z-0.125000
G01 X96.410596 Y194.691798 Z-0.125000
G01 X94.899667 Y194.988306 Z-0.125000
G01 X93.218982 Y195.044505 Z-0.125000
G01 X91.350132 Y194.849257 Z-0.125000
G01 X87.011884 Y193.690520 Z-0.125000
G01 X81.905714 Y191.552006 Z-0.125000
G01 X75.714387 Y188.297241 Z-0.125000
G01 X68.732222 Y184.018539 Z-0.125000
G01 X62.036072 Y179.335952 Z-0.125000
G01 X56.218051 Y174.627101 Z-0.125000
G01 X51.951902 Y170.475538 Z-0.125000
G01 X49.069349 Y166.936368 Z-0.125000
G01 X46.831441 Y163.162746 Z-0.125000
G01 X45.668841 Y160.382678 Z-0.125000
G01 X43.262916 Y153.373153 Z-0.125000
G01 X41.386084 Y149.056728 Z-0.125000
G01 X29.531492 Y126.808841 Z-0.125000
G01 X28.814684 Y124.604922 Z-0.125000
G01 X28.926052 Y122.942392 Z-0.125000
G01 X29.734915 Y121.535298 Z-0.125000
G01 X31.256723 Y120.031064 Z-0.125000
G01 X42.596900 Y111.244230 Z-0.125000
G01 X51.623271 Y103.336555 Z-0.125000
G01 X58.759484 Y96.468912 Z-0.125000
G01 X74.352549 Y80.851642 Z-0.125000
G01 X81.653303 Y74.075925 Z-0.125000
G01 X85.986465 Y70.519309 Z-0.125000
G01 X89.528983 Y68.013025 Z-0.125000
G01 X93.105362 Y66.012980 Z-0.125000
G01 X95.882469 Y64.999986 Z-0.125000
G01 X97.418440 Y64.733412 Z-0.125000
G01 X98.802616 Y64.740364 Z-0.125000
G01 X100.042723 Y65.006874 Z-0.125000
G01 X101.152407 Y65.512019 Z-0.125000
G01 X102.892251 Y66.927738 Z-0.125000
G01 X106.324496 Y71.027158 Z-0.125000
G01 X108.341342 Y72.921179 Z-0.125000
G01 X111.139114 Y74.695850 Z-0.125000
G01 X114.601357 Y76.025243 Z-0.125000
G01 X117.844083 Y76.763874 Z-0.125000
G01 X121.463850 Y77.253505 Z-0.125000
G01 X135.498413 Y78.115219 Z-0.125000
G01 X140.937977 Y78.682486 Z-0.125000
G01 X145.728906 Y79.577996 Z-0.125000
G01 X150.316669 Y80.962108 Z-0.125000
G01 X154.157690 Y82.664808 Z-0.125000
G01 X157.297676 Y84.535461 Z-0.125000
G01 X160.600657 Y87.092988 Z-0.125000
G01 X163.570501 Y90.048348 Z-0.125000
G01 X166.482665 Y93.745106 Z-0.125000
G01 X169.151173 Y98.136206 Z-0.125000
G01 X171.190293 Y102.603782 Z-0.125000
G01 X172.678241 Y107.347460 Z-0.125000
G01 X173.336726 Y111.318196 Z-0.125000
G01 X173.318894 Y115.182778 Z-0.125000
G01 X172.584834 Y118.486338 Z-0.125000
G01 X171.086329 Y121.515407 Z-0.125000
G01 X169.203316 Y123.884896 Z-0.125000
G01 X166.936311 Y125.981116 Z-0.125000
G01 X158.137760 Y132.142316 Z-0.125000
G01 X152.974298 Y136.275919 Z-0.125000
G01 X148.769562 Y140.238865 Z-0.125000
G01 X145.016475 Y144.323994 Z-0.125000
G01 X141.439131 Y148.784553 Z-0.125000
G01 X137.791555 Y153.992885 Z-0.125000
G01 X133.959996 Y160.249680 Z-0.125000
G01 X127.092997 Y172.525023 Z-0.125000
G01 X125.273843 Y175.262862 Z-0.125000
G01 X123.521897 Y177.316724 Z-0.125000
G01 X121.783791 Y178.725748 Z-0.125000
G01 X120.028303 Y179.588815 Z-0.125000
G01 X118.049695 Y180.085977 Z-0.125000
G01 X113.142185 Y180.771049 Z-0.125000
G01 X111.654173 Y181.261130 Z-0.125000
G01 X110.226415 Y182.033493 Z-0.125000
G01 X108.854599 Y183.129337 Z-0.125000
G01 X107.522694 Y184.550335 Z-0.125000
G01 X102.817126 Y191.026454 Z-0.125000
G01 X100.482721 Y193.618421 Z-0.125000
G01 X97.871892 Y195.428369 Z-0.125000
G01 X96.495506 Y195.942462 Z-0.125000
G01 X94.970285 Y196.224421 Z-0.125000
G01 X93.270739 Y196.256995 Z-0.125000
G01 X91.377105 Y196.028466 Z-0.125000
G01 X86.967787 Y194.772974 Z-0.125000
G01 X81.759906 Y192.499982 Z-0.125000
G01 X75.429016 Y189.065677 Z-0.125000
G01 X68.280572 Y184.571128 Z-0.125000
G01 X61.429344 Y179.669154 Z-0.125000
G01 X55.879056 Y175.100188 Z-0.125000
G01 X51.463623 Y170.759429 Z-0.125000
G01 X48.493457 Y167.068142 Z-0.125000
G01 X46.351853 Y163.423848 Z-0.125000
G01 X45.268111 Y160.813535 Z-0.125000
G01 X43.164424 Y154.083846 Z-0.125000
G01 X41.534466 Y149.924686 Z-0.125000
G01 X38.549430 Y143.913221 Z-0.125000
G01 X28.943819 Y126.371868 Z-0.125000
G01 X28.060539 Y123.946502 Z-0.125000
G01 X28.003697 Y122.934667 Z-0.125000
G01 X28.177443 Y122.148657 Z-0.125000
G01 X28.901203 Y120.920331 Z-0.125000
G01 X30.397519 Y119.443134 Z-0.125000
G01 X41.711882 Y110.720995 Z-0.125000
G01 X50.224096 Y103.287244 Z-0.125000
G01 X57.363656 Y96.433441 Z-0.125000
G01 X73.644432 Y80.120736 Z-0.125000
G01 X81.049085 Y73.277619 Z-0.125000
G01 X85.460592 Y69.685018 Z-0.125000
G01 X89.076239 Y67.153499 Z-0.125000
G01 X92.733729 Y65.134463 Z-0.125000
G01 X95.577464 Y64.114260 Z-0.125000
G01 X97.150643 Y63.848201 Z-0.125000
G01 X98.567972 Y63.859788 Z-0.125000
G01 X99.836532 Y64.134924 Z-0.125000
G01 X100.970034 Y64.652686 Z-0.125000
G01 X102.741680 Y66.099885 Z-0.125000
G01 X106.015370 Y70.056394 Z-0.125000
G01 X108.013677 Y72.005648 Z-0.125000
G01 X110.483977 Y73.679701 Z-0.125000
G01 X113.137485 Y74.863094 Z-0.125000
G01 X116.229769 Y75.743026 Z-0.125000
G01 X119.731602 Y76.343832 Z-0.125000
G01 X138.664856 Y77.628292 Z-0.125000
G01 X143.598245 Y78.317290 Z-0.125000
G01 X147.854867 Y79.300994 Z-0.125000
G01 X152.414563 Y80.922711 Z-0.125000
G01 X156.660434 Y83.145813 Z-0.125000
G01 X160.535188 Y85.970815 Z-0.125000
G01 X163.994663 Y89.336883 Z-0.125000
G01 X167.003389 Y93.128272 Z-0.125000
G01 X169.781269 Y97.649601 Z-0.125000
G01 X171.929697 Y102.263757 Z-0.125000
G01 X173.533325 Y107.172748 Z-0.125000
G01 X174.287212 Y111.284528 Z-0.125000
G01 X174.356543 Y115.282687 Z-0.125000
G01 X173.685312 Y118.690727 Z-0.125000
G01 X172.225368 Y121.800070 Z-0.125000
G01 X170.542237 Y124.011906 Z-0.125000
G01 X168.088289 Y126.350560 Z-0.125000
G01 X158.960528 Y132.773828 Z-0.125000
G01 X153.745566 Y136.984293 Z-0.125000
G01 X149.513342 Y141.025905 Z-0.125000
G01 X145.750471 Y145.194720 Z-0.125000
G01 X142.179371 Y149.748301 Z-0.125000
G01 X138.556579 Y155.065747 Z-0.125000
G01 X134.772271 Y161.451291 Z-0.125000
G01 X128.007820 Y173.939583 Z-0.125000
G01 X126.194460 Y176.702207 Z-0.125000
G01 X124.427192 Y178.756841 Z-0.125000
G01 X122.650912 Y180.145330 Z-0.125000
G01 X120.836072 Y180.971060 Z-0.125000
G01 X118.979260 Y181.386596 Z-0.125000
G01 X113.607096 Y181.971307 Z-0.125000
G01 X112.042028 Y182.434609 Z-0.125000
G01 X110.545969 Y183.190685 Z-0.125000
G01 X109.116602 Y184.281057 Z-0.125000
G01 X107.738348 Y185.706884 Z-0.125000
G01 X102.939309 Y192.252462 Z-0.125000
G01 X100.581214 Y194.873784 Z-0.125000
G01 X99.216736 Y195.966345 Z-0.125000
G01 X97.951266 Y196.692809 Z-0.125000
G01 X96.564450 Y197.200851 Z-0.125000
G01 X95.025712 Y197.468583 Z-0.125000
G01 X93.308141 Y197.477853 Z-0.125000
G01 X91.390559 Y197.216172 Z-0.125000
G01 X86.911975 Y195.864247 Z-0.125000
G01 X81.603863 Y193.456648 Z-0.125000
G01 X75.134375 Y189.842611 Z-0.125000
G01 X67.820102 Y185.131764 Z-0.125000
G01 X60.814119 Y180.010337 Z-0.125000
G01 X55.155746 Y175.250888 Z-0.125000
G01 X50.683213 Y170.743528 Z-0.125000
G01 X47.710150 Y166.925167 Z-0.125000
G01 X45.739396 Y163.450499 Z-0.125000
G01 X44.504053 Y160.244080 Z-0.125000
G01 X42.476069 Y153.124475 Z-0.125000
G01 X40.947952 Y149.172730 Z-0.125000
G01 X37.904786 Y143.047709 Z-0.125000
G01 X28.171649 Y125.487043 Z-0.125000
G01 X27.341607 Y123.294326 Z-0.125000
G01 X27.257534 Y122.291053 Z-0.125000
G01 X27.410681 Y121.514763 Z-0.125000
G01 X28.105923 Y120.305492 Z-0.125000
G01 X29.577198 Y118.852499 Z-0.125000
G01 X40.402122 Y110.562055 Z-0.125000
G01 X48.850606 Y103.230466 Z-0.125000
G01 X55.983471 Y96.399194 Z-0.125000
G01 X72.392223 Y79.932570 Z-0.125000
G01 X80.454009 Y72.486652 Z-0.125000
G01 X84.944567 Y68.859032 Z-0.125000
G01 X88.634631 Y66.302600 Z-0.125000
G01 X92.375100 Y64.264187 Z-0.125000
G01 X95.287007 Y63.235808 Z-0.125000
G01 X96.898296 Y62.969491 Z-0.125000
G01 X98.349421 Y62.984812 Z-0.125000
G01 X99.647078 Y63.267609 Z-0.125000
G01 X100.804786 Y63.796894 Z-0.125000
G01 X102.608553 Y65.273576 Z-0.125000
G01 X106.129248 Y69.534254 Z-0.125000
G01 X108.201972 Y71.489108 Z-0.125000
G01 X111.090383 Y73.304721 Z-0.125000
G01 X114.285730 Y74.533626 Z-0.125000
G01 X117.595148 Y75.299874 Z-0.125000
G01 X121.302528 Y75.799032 Z-0.125000
G01 X135.741233 Y76.605706 Z-0.125000
G01 X141.348428 Y77.151214 Z-0.125000
G01 X146.288898 Y78.047111 Z-0.125000
G01 X151.022083 Y79.462895 Z-0.125000
G01 X154.988570 Y81.228296 Z-0.125000
G01 X158.236060 Y83.184245 Z-0.125000
G01 X161.660644 Y85.875605 Z-0.125000
G01 X164.752155 Y89.001106 Z-0.125000
G01 X167.802789 Y92.925299 Z-0.125000
G01 X170.626825 Y97.598037 Z-0.125000
G01 X172.819736 Y102.356456 Z-0.125000
G01 X174.466945 Y107.404367 Z-0.125000
G01 X175.251604 Y111.617665 Z-0.125000
G01 X175.340891 Y115.698030 Z-0.125000
G01 X174.672621 Y119.160015 Z-0.125000
G01 X173.197355 Y122.304121 Z-0.125000
G01 X171.490535 Y124.533724 Z-0.125000
G01 X169.002340 Y126.889438 Z-0.125000
G01 X159.766301 Y133.396263 Z-0.125000
G01 X154.501449 Y137.683463 Z-0.125000
G01 X150.244184 Y141.803289 Z-0.125000
G01 X146.474746 Y146.055083 Z-0.125000
G01 X142.914075 Y150.700976 Z-0.125000
G01 X139.321152 Y156.126957 Z-0.125000
G01 X135.877127 Y162.108810 Z-0.125000
G01 X129.144155 Y174.988241 Z-0.125000
G01 X127.330409 Y177.856953 Z-0.125000
G01 X125.547692 Y179.993214 Z-0.125000
G01 X123.736907 Y181.433782 Z-0.125000
G01 X121.654785 Y182.344228 Z-0.125000
G01 X119.716796 Y182.713414 Z-0.125000
G01 X114.065763 Y183.169506 Z-0.125000
G01 X112.219830 Y183.683149 Z-0.125000
G01 X110.662808 Y184.466455 Z-0.125000
G01 X109.182779 Y185.596868 Z-0.125000
G01 X107.762939 Y187.069623 Z-0.125000
G01 X102.864956 Y193.713115 Z-0.125000
G01 X100.662583 Y196.134941 Z-0.125000
G01 X99.288127 Y197.235935 Z-0.125000
G01 X98.014224 Y197.963686 Z-0.125000
G01 X96.617495 Y198.465999 Z-0.125000
G01 X95.065946 Y198.719891 Z-0.125000
G01 X93.331187 Y198.706244 Z-0.125000
G01 X91.390559 Y198.411795 Z-0.125000
G01 X86.844575 Y196.963696 Z-0.125000
G01 X81.437713 Y194.421683 Z-0.125000
G01 X74.830850 Y190.627848 Z-0.125000
G01 X67.351264 Y185.700768 Z-0.125000
G01 X60.676422 Y180.745749 Z-0.125000
G01 X54.828081 Y175.784487 Z-0.125000
G01 X50.197058 Y171.083231 Z-0.125000
G01 X47.340835 Y167.423552 Z-0.125000
G01 X45.253627 Y163.790911 Z-0.125000
G01 X43.908848 Y160.205713 Z-0.125000
G01 X41.901850 Y152.446421 Z-0.125000
G01 X40.377274 Y148.423413 Z-0.125000
G01 X37.055818 Y141.783076 Z-0.125000
G01 X27.426710 Y124.616124 Z-0.125000
G01 X26.619392 Y122.475227 Z-0.125000
G01 X26.681062 Y120.884281 Z-0.125000
G01 X27.349074 Y119.691232 Z-0.125000
G01 X28.795951 Y118.259226 Z-0.125000
G01 X39.583281 Y110.022019 Z-0.125000
G01 X48.035627 Y102.675560 Z-0.125000
G01 X55.183427 Y95.807723 Z-0.125000
G01 X71.697560 Y79.214797 Z-0.125000
G01 X79.867881 Y71.702831 Z-0.125000
G01 X84.438457 Y68.041414 Z-0.125000
G01 X88.204225 Y65.460326 Z-0.125000
G01 X92.029410 Y63.402087 Z-0.125000
G01 X95.010905 Y62.364566 Z-0.125000
G01 X96.661205 Y62.097284 Z-0.125000
G01 X98.146771 Y62.115309 Z-0.125000
G01 X99.474040 Y62.404800 Z-0.125000
G01 X100.656274 Y62.944643 Z-0.125000
G01 X102.492615 Y64.448877 Z-0.125000
G01 X106.057600 Y68.783843 Z-0.125000
G01 X108.158455 Y70.765927 Z-0.125000
G01 X111.092442 Y72.598277 Z-0.125000
G01 X114.342508 Y73.829758 Z-0.125000
G01 X117.710056 Y74.590018 Z-0.125000
G01 X121.482197 Y75.077782 Z-0.125000
G01 X136.149688 Y75.847634 Z-0.125000
G01 X141.832136 Y76.399451 Z-0.125000
G01 X146.832153 Y77.319360 Z-0.125000
G01 X151.617287 Y78.780785 Z-0.125000
G01 X155.624459 Y80.606891 Z-0.125000
G01 X158.904458 Y82.631656 Z-0.125000
G01 X162.364191 Y85.417969 Z-0.125000
G01 X165.490142 Y88.652520 Z-0.125000
G01 X168.579787 Y92.710289 Z-0.125000
G01 X171.447984 Y97.534886 Z-0.125000
G01 X173.684797 Y102.437697 Z-0.125000
G01 X175.376232 Y107.624076 Z-0.125000
G01 X176.193013 Y111.938313 Z-0.125000
G01 X176.304188 Y116.100112 Z-0.125000
G01 X175.640682 Y119.615592 Z-0.125000
G01 X174.151511 Y122.794460 Z-0.125000
G01 X172.421516 Y125.042217 Z-0.125000
G01 X169.899396 Y127.415955 Z-0.125000
G01 X160.938493 Y133.723993 Z-0.125000
G01 X155.666238 Y137.992202 Z-0.125000
G01 X151.389338 Y142.118594 Z-0.125000
G01 X147.189237 Y146.903343 Z-0.125000
G01 X143.642857 Y151.640583 Z-0.125000
G01 X140.084953 Y157.174134 Z-0.125000
G01 X136.695325 Y163.273534 Z-0.125000
G01 X130.088590 Y176.372675 Z-0.125000
G01 X128.284758 Y179.269454 Z-0.125000
G01 X126.488007 Y181.410092 Z-0.125000
G01 X124.637825 Y182.833472 Z-0.125000
G01 X122.704150 Y183.646327 Z-0.125000
G01 X120.460706 Y184.029997 Z-0.125000
G01 X114.517799 Y184.364100 Z-0.125000
G01 X112.578330 Y184.853280 Z-0.125000
G01 X110.948952 Y185.625643 Z-0.125000
G01 X109.408861 Y186.755090 Z-0.125000
G01 X107.941578 Y188.236021 Z-0.125000
G01 X102.950832 Y194.952127 Z-0.125000
G01 X100.727215 Y197.401055 Z-0.125000
G01 X99.343038 Y198.510868 Z-0.125000
G01 X98.061024 Y199.240164 Z-0.125000
G01 X95.364127 Y199.956328 Z-0.125000
G01 X93.645977 Y199.967336 Z-0.125000
G01 X91.719834 Y199.689497 Z-0.125000
G01 X87.185244 Y198.244229 Z-0.125000
G01 X81.750894 Y195.657412 Z-0.125000
G01 X75.057061 Y191.759613 Z-0.125000
G01 X67.418857 Y186.665481 Z-0.125000
G01 X60.055918 Y181.120472 Z-0.125000
