%
(Header)
(Generated by gcodetools from Inkscape.)
(Using default header. To add your own header create file "header" in the output dir.)
M3
(Header end.)
G21 (All units in mm)

(Start cutting path id: path16060)
(Change tool to Default tool)

G00 Z3.000000
G00 X29.279790 Y107.952794

G00 Z4.875000 (Fast pre-penetrate)
G01 Z-0.125000 F400.0(Penetrate)
G03 X27.983069 Y106.224453 Z-0.125000 I6.858570 J-6.496387 F800.000000
G03 X27.390630 Y104.725904 Z-0.125000 I4.576416 J-2.675632
G01 X15.085240 Y104.725904 Z-0.125000
G02 X13.621113 Y105.094513 Z-0.125000 I-0.000000 J3.092084
G02 X13.433180 Y105.408914 Z-0.125000 I0.169020 J0.314401
G02 X13.621027 Y105.723206 Z-0.125000 I0.356849 J0.000000
G02 X15.085240 Y106.091914 Z-0.125000 I1.464213 J-2.722987
G03 X15.402564 Y106.223238 Z-0.125000 I-0.000000 J0.449043
G03 X15.534290 Y106.540974 Z-0.125000 I-0.317341 J0.317736
G03 X15.402563 Y106.858704 Z-0.125000 I-0.449050 J-0.000000
G03 X15.085240 Y106.990024 Z-0.125000 I-0.317323 J-0.317730
G03 X13.100454 Y106.424665 Z-0.125000 I0.000000 J-3.766641
G03 X12.535080 Y105.408914 Z-0.125000 I0.629763 J-1.015751
G03 X13.100308 Y104.393304 Z-0.125000 I1.195046 J0.000000
G03 X15.085240 Y103.827794 Z-0.125000 I1.984932 J3.200790
G01 X18.021600 Y103.827794 Z-0.125000
G01 X18.021600 Y96.656434 Z-0.125000
G01 X14.903830 Y96.656434 Z-0.125000
G02 X13.439687 Y97.025045 Z-0.125000 I-0.000000 J3.092135
G02 X13.251760 Y97.339434 Z-0.125000 I0.169013 J0.314389
G02 X13.439612 Y97.653735 Z-0.125000 I0.356859 J0.000000
G02 X14.903830 Y98.022444 Z-0.125000 I1.464218 J-2.722998
G03 X15.221153 Y98.153764 Z-0.125000 I0.000000 J0.449050
G03 X15.352880 Y98.471494 Z-0.125000 I-0.317323 J0.317730
G03 X15.221149 Y98.789234 Z-0.125000 I-0.449067 J-0.000000
G03 X14.903830 Y98.920554 Z-0.125000 I-0.317319 J-0.317723
G03 X12.919041 Y98.355197 Z-0.125000 I-0.000000 J-3.766657
G03 X12.353660 Y97.339434 Z-0.125000 I0.629767 J-1.015763
G03 X12.918882 Y96.323836 Z-0.125000 I1.195031 J0.000000
G03 X14.903830 Y95.758324 Z-0.125000 I1.984948 J3.200830
G01 X31.019420 Y95.758324 Z-0.125000
G02 X30.636981 Y94.112933 Z-0.125000 I-3.855306 J0.028950
G02 X29.280240 Y92.145694 Z-0.125000 I-6.993466 J3.371696
G03 X27.575089 Y87.913211 Z-0.125000 I4.516841 J-4.279432
G03 X29.215140 Y83.698574 Z-0.125000 I6.116846 J-0.046155
G01 X19.118190 Y78.465764 Z-0.125000
G03 X18.317490 Y77.716679 Z-0.125000 I0.936476 J-1.803482
G03 X18.022060 Y76.660564 Z-0.125000 I1.740007 J-1.056115
G01 X18.022060 Y69.981814 Z-0.125000
G03 X18.535719 Y68.741436 Z-0.125000 I1.754457 J-0.000000
G03 X19.776500 Y68.227364 Z-0.125000 I1.240781 J1.240361
G01 X20.539890 Y68.227364 Z-0.125000
G03 X21.779998 Y68.741073 Z-0.125000 I0.000000 J1.753682
G03 X22.293890 Y69.981814 Z-0.125000 I-1.240876 J1.240741
G01 X22.293890 Y74.477724 Z-0.125000
G02 X22.391845 Y74.828269 Z-0.125000 I0.676211 J-0.000000
G02 X22.656730 Y75.076764 Z-0.125000 I0.577332 J-0.349984
G01 X24.089200 Y75.824884 Z-0.125000
G01 X24.089810 Y75.825334 Z-0.125000
G01 X24.802900 Y76.198044 Z-0.125000
G01 X27.298740 Y71.602894 Z-0.125000
G03 X27.825479 Y69.855655 Z-0.125000 I4.843638 J0.507192
G03 X29.279500 Y67.818284 Z-0.125000 I8.031385 J4.194263
G03 X29.593627 Y67.678106 Z-0.125000 I0.326331 J0.309224
G03 X29.914020 Y67.800784 Z-0.125000 I0.012165 J0.447947
G03 X30.054288 Y68.115297 Z-0.125000 I-0.309513 J0.326573
G03 X29.931020 Y68.435744 Z-0.125000 I-0.446995 J0.011985
G02 X28.479654 Y72.079108 Z-0.125000 I3.845533 J3.642666
G02 X29.931020 Y75.721614 Z-0.125000 I5.298252 J-0.000698
G03 X31.500815 Y78.019210 Z-0.125000 I-6.374836 J6.040570
G03 X31.940080 Y79.982224 Z-0.125000 I-4.166586 J1.963014
G03 X31.501058 Y81.944611 Z-0.125000 I-4.605353 J-0.000000
G03 X29.931020 Y84.242394 Z-0.125000 I-7.939224 J-3.739461
G02 X28.479754 Y87.885323 Z-0.125000 I3.846557 J3.642929
G02 X29.931020 Y91.528274 Z-0.125000 I5.297878 J-0.000000
G03 X31.629026 Y95.789565 Z-0.125000 I-4.496255 J4.260583
G03 X29.931020 Y100.049494 Z-0.125000 I-6.194397 J-0.000708
G02 X28.479753 Y103.692424 Z-0.125000 I3.846558 J3.642930
G02 X29.931020 Y107.335364 Z-0.125000 I5.297851 J0.000000
G03 X30.054275 Y107.655875 Z-0.125000 I-0.323890 J0.308509
G03 X29.914020 Y107.969874 Z-0.125000 I-0.448569 J-0.012040
G03 X29.593640 Y108.092752 Z-0.125000 I-0.308722 J-0.325828
G03 X29.279500 Y107.952774 Z-0.125000 I0.011655 J-0.448644
G01 X29.279790 Y107.952794 Z-0.125000
G00 Z3.000000

(Change tool to Default tool)

G00 Z3.000000
G00 X29.279790 Y76.339504

G00 Z4.875000 (Fast pre-penetrate)
G01 Z-0.125000 F400.0(Penetrate)
G03 X28.027250 Y74.687203 Z-0.125000 I6.867739 J-6.507047 F800.000000
G03 X27.426550 Y73.249574 Z-0.125000 I4.690257 J-2.804092
G01 X25.598460 Y76.614324 Z-0.125000
G01 X27.019260 Y77.356604 Z-0.125000
G03 X27.199668 Y77.528524 Z-0.125000 I-0.206945 J0.397780
G03 X27.260850 Y77.754914 Z-0.125000 I-0.388262 J0.226390
G03 X27.248602 Y77.858250 Z-0.125000 I-0.442049 J0.000000
G03 X27.209650 Y77.962374 Z-0.125000 I-0.444001 J-0.106750
G03 X26.945852 Y78.182967 Z-0.125000 I-0.398007 J-0.207930
G03 X26.603880 Y78.152324 Z-0.125000 I-0.134015 J-0.427905
G01 X24.778940 Y77.198984 Z-0.125000
G01 X24.778330 Y77.198534 Z-0.125000
G01 X22.240300 Y75.872484 Z-0.125000
G03 X21.622943 Y75.292814 Z-0.125000 I0.729713 J-1.395737
G03 X21.395180 Y74.477274 Z-0.125000 I1.346200 J-0.815540
G01 X21.395180 Y69.981814 Z-0.125000
G02 X21.144535 Y69.376325 Z-0.125000 I-0.856669 J-0.000000
G02 X20.539280 Y69.125464 Z-0.125000 I-0.605255 J0.604721
G01 X19.775890 Y69.125464 Z-0.125000
G02 X19.170569 Y69.376080 Z-0.125000 I0.000000 J0.856333
G02 X18.919550 Y69.981814 Z-0.125000 I0.605338 J0.605734
G01 X18.919550 Y76.660564 Z-0.125000
G02 X19.084535 Y77.250776 Z-0.125000 I1.138196 J0.000000
G02 X19.531160 Y77.668694 Z-0.125000 I0.968369 J-0.587275
G01 X29.816710 Y82.999404 Z-0.125000
G02 X30.800204 Y79.750053 Z-0.125000 I-3.645149 J-2.876806
G02 X29.280090 Y76.339504 Z-0.125000 I-5.596695 J0.450461
G01 X29.279790 Y76.339504 Z-0.125000
G00 Z3.000000

(Change tool to Default tool)

G00 Z3.000000
G00 X22.481590 Y96.656434

G00 Z4.875000 (Fast pre-penetrate)
G01 Z-0.125000 F400.0(Penetrate)
G01 X22.481590 Y103.827794 Z-0.125000 F800.000000
G01 X25.144910 Y103.827794 Z-0.125000
G01 X25.144910 Y96.656434 Z-0.125000
G01 X22.481590 Y96.656434 Z-0.125000
G00 Z3.000000

(Change tool to Default tool)

G00 Z3.000000
G00 X18.919700 Y103.827794

G00 Z4.875000 (Fast pre-penetrate)
G01 Z-0.125000 F400.0(Penetrate)
G01 X21.583480 Y103.827794 Z-0.125000 F800.000000
G01 X21.583480 Y96.656434 Z-0.125000
G01 X18.919700 Y96.656434 Z-0.125000
G01 X18.919700 Y103.827794 Z-0.125000
G00 Z3.000000

(Change tool to Default tool)

G00 Z3.000000
G00 X29.279790 Y99.432024

G00 Z4.875000 (Fast pre-penetrate)
G01 Z-0.125000 F400.0(Penetrate)
G02 X30.410102 Y97.932161 Z-0.125000 I-6.093943 J-5.768298 F800.000000
G02 X30.919280 Y96.656434 Z-0.125000 I-3.857059 J-2.278935
G01 X26.043020 Y96.656434 Z-0.125000
G01 X26.043020 Y103.827794 Z-0.125000
G01 X27.279260 Y103.827794 Z-0.125000
G03 X27.685101 Y101.803138 Z-0.125000 I4.570236 J-0.136903
G03 X29.279790 Y99.432024 Z-0.125000 I7.853510 J3.560057
G01 X29.279790 Y99.432024 Z-0.125000
G00 Z3.000000

(End cutting path id: path16060)


(Start cutting path id: path16058)
(Change tool to Default tool)

G00 Z3.000000
G00 X25.690510 Y85.251844

G00 Z4.875000 (Fast pre-penetrate)
G01 Z-0.125000 F400.0(Penetrate)
G02 X24.713547 Y82.893247 Z-0.125000 I-3.335560 J0.000000 F800.000000
G02 X22.354950 Y81.916284 Z-0.125000 I-2.358597 J2.358597
G02 X19.996357 Y82.893242 Z-0.125000 I-0.000000 J3.335560
G02 X19.019390 Y85.251844 Z-0.125000 I2.358593 J2.358602
G02 X19.996357 Y87.610446 Z-0.125000 I3.335560 J0.000000
G02 X22.354950 Y88.587404 Z-0.125000 I2.358593 J-2.358602
G02 X24.713751 Y87.610237 Z-0.125000 I-0.000000 J-3.335560
G02 X25.690510 Y85.251844 Z-0.125000 I-2.358801 J-2.358393
G01 X25.690510 Y85.251844 Z-0.125000
G00 Z3.000000

(Change tool to Default tool)

G00 Z3.000000
G00 X19.917490 Y85.251844

G00 Z4.875000 (Fast pre-penetrate)
G01 Z-0.125000 F400.0(Penetrate)
G03 X20.631410 Y83.528295 Z-0.125000 I2.437460 J0.000000 F800.000000
G03 X22.354950 Y82.814384 Z-0.125000 I1.723540 J1.723549
G03 X24.078494 Y83.528300 Z-0.125000 I-0.000000 J2.437460
G03 X24.792410 Y85.251844 Z-0.125000 I-1.723544 J1.723544
G03 X24.078498 Y86.975378 Z-0.125000 I-2.437443 J0.000000
G03 X22.354950 Y87.689294 Z-0.125000 I-1.723548 J-1.723551
G03 X20.631207 Y86.975183 Z-0.125000 I-0.000000 J-2.437467
G03 X19.917490 Y85.251844 Z-0.125000 I1.723726 J-1.723339
G01 X19.917490 Y85.251844 Z-0.125000
G00 Z3.000000

(End cutting path id: path16058)


(Start cutting path id: path16054)
(Change tool to Default tool)

G00 Z3.000000
G00 X36.430950 Y79.982214

G00 Z4.875000 (Fast pre-penetrate)
G01 Z-0.125000 F400.0(Penetrate)
G02 X35.991959 Y78.019868 Z-0.125000 I-4.605463 J0.000000 F800.000000
G02 X34.421890 Y75.721604 Z-0.125000 I-7.943806 J3.741413
G03 X32.970527 Y72.079100 Z-0.125000 I3.846909 J-3.643210
G03 X34.421890 Y68.435724 Z-0.125000 I5.296917 J-0.000706
G02 X34.545011 Y68.115563 Z-0.125000 I-0.323539 J-0.308174
G02 X34.404890 Y67.800764 Z-0.125000 I-0.450861 J0.012100
G02 X34.084509 Y67.677863 Z-0.125000 I-0.308223 J0.324444
G02 X33.770370 Y67.818264 Z-0.125000 I0.012201 J0.448933
G02 X32.072357 Y72.078397 Z-0.125000 I4.495105 J4.260133
G02 X33.770370 Y76.339034 Z-0.125000 I6.194380 J-0.000000
G03 X35.221735 Y79.981540 Z-0.125000 I-3.846886 J3.643204
G03 X33.770370 Y83.624914 Z-0.125000 I-5.296926 J0.000698
G02 X32.072455 Y87.886179 Z-0.125000 I4.494710 J4.259834
G02 X33.770370 Y92.145674 Z-0.125000 I6.195368 J-0.001432
G03 X35.221535 Y95.789526 Z-0.125000 I-3.847492 J3.643154
G03 X33.770370 Y99.432014 Z-0.125000 I-5.298738 J-0.000698
G02 X32.072455 Y103.692394 Z-0.125000 I4.496080 J4.260380
G02 X33.770370 Y107.952784 Z-0.125000 I6.194022 J0.000000
G02 X34.084401 Y108.092858 Z-0.125000 I0.326107 J-0.309047
G02 X34.404890 Y107.969884 Z-0.125000 I0.012039 J-0.447733
G02 X34.545179 Y107.655870 Z-0.125000 I-0.308217 J-0.326044
G02 X34.421890 Y107.335364 Z-0.125000 I-0.447072 J-0.011991
G03 X32.970623 Y103.692424 Z-0.125000 I3.846585 J-3.642940
G03 X34.421890 Y100.049494 Z-0.125000 I5.297824 J-0.000000
G02 X36.119899 Y95.789567 Z-0.125000 I-4.496397 J-4.260643
G02 X34.421890 Y91.528274 Z-0.125000 I-6.194241 J-0.000716
G03 X32.970623 Y87.885334 Z-0.125000 I3.846585 J-3.642940
G03 X34.421890 Y84.242404 Z-0.125000 I5.297824 J-0.000000
G02 X35.991928 Y81.944621 Z-0.125000 I-6.369186 J-6.037244
G02 X36.430950 Y79.982234 Z-0.125000 I-4.166331 J-1.962387
G01 X36.430950 Y79.982214 Z-0.125000
G00 Z3.000000

(End cutting path id: path16054)


(Start cutting path id: path16056)
(Change tool to Default tool)

G00 Z3.000000
G00 X40.921480 Y79.982214

G00 Z4.875000 (Fast pre-penetrate)
G01 Z-0.125000 F400.0(Penetrate)
G02 X40.482488 Y78.019870 Z-0.125000 I-4.605449 J-0.000000 F800.000000
G02 X38.912410 Y75.721604 Z-0.125000 I-7.943755 J3.741399
G03 X37.461047 Y72.078907 Z-0.125000 I3.845622 J-3.642697
G03 X38.912410 Y68.435724 Z-0.125000 I5.298204 J0.000000
G02 X39.035508 Y68.115590 Z-0.125000 I-0.323481 J-0.308119
G02 X38.895310 Y67.800764 Z-0.125000 I-0.450820 J0.012129
G02 X38.574928 Y67.677862 Z-0.125000 I-0.308224 J0.324445
G02 X38.260800 Y67.818264 Z-0.125000 I0.012200 J0.448904
G02 X36.562783 Y72.078201 Z-0.125000 I4.496392 J4.260653
G02 X38.260800 Y76.339034 Z-0.125000 I6.193065 J0.000716
G03 X39.712163 Y79.981538 Z-0.125000 I-3.846909 J3.643210
G03 X38.260800 Y83.624914 Z-0.125000 I-5.296917 J0.000706
G02 X36.562881 Y87.886179 Z-0.125000 I4.494693 J4.259834
G02 X38.260800 Y92.145674 Z-0.125000 I6.195356 J-0.001432
G03 X39.711965 Y95.789720 Z-0.125000 I-3.846206 J3.642641
G03 X38.260800 Y99.432014 Z-0.125000 I-5.300026 J-0.001405
G02 X36.562881 Y103.692394 Z-0.125000 I4.496063 J4.260380
G02 X38.260800 Y107.952784 Z-0.125000 I6.194010 J-0.000000
G02 X38.574820 Y108.092859 Z-0.125000 I0.326095 J-0.309018
G02 X38.895310 Y107.969884 Z-0.125000 I0.012039 J-0.447735
G02 X39.035506 Y107.655732 Z-0.125000 I-0.307992 J-0.325806
G02 X38.912410 Y107.335364 Z-0.125000 I-0.448116 J-0.011651
G03 X37.461143 Y103.692424 Z-0.125000 I3.846585 J-3.642940
G03 X38.912410 Y100.049494 Z-0.125000 I5.297824 J-0.000000
G02 X40.610419 Y95.789567 Z-0.125000 I-4.496397 J-4.260643
G02 X38.912410 Y91.528274 Z-0.125000 I-6.194241 J-0.000716
G03 X37.461143 Y87.885334 Z-0.125000 I3.846585 J-3.642940
G03 X38.912410 Y84.242404 Z-0.125000 I5.297824 J-0.000000
G02 X40.482457 Y81.944619 Z-0.125000 I-6.369126 J-6.037232
G02 X40.921480 Y79.982234 Z-0.125000 I-4.166315 J-1.962385
G01 X40.921480 Y79.982214 Z-0.125000
G00 Z3.000000

(End cutting path id: path16056)


(Start cutting path id: path19165)
(Change tool to Default tool)

G00 Z3.000000
G00 X28.840850 Y68.105454

G00 Z4.875000 (Fast pre-penetrate)
G01 Z-0.125000 F400.0(Penetrate)
G03 X27.142711 Y63.844679 Z-0.125000 I4.494068 J-4.259904 F800.000000
G03 X28.840410 Y59.584684 Z-0.125000 I6.195788 J0.000872
G02 X29.018189 Y59.391470 Z-0.125000 I-6.644177 J-6.291787
G02 X29.183480 Y59.202094 Z-0.125000 I-7.890765 J-7.054048
G02 X24.573988 Y56.254271 Z-0.125000 I-14.546807 J17.668919
G02 X18.943740 Y53.662134 Z-0.125000 I-76.108233 J157.900165
G03 X10.965110 Y49.705234 Z-0.125000 I38.613097 J-87.881277
G03 X8.408070 Y46.074944 Z-0.125000 I2.475762 J-4.459521
G03 X5.737165 Y45.542367 Z-0.125000 I0.017997 J-7.053910
G03 X4.527360 Y43.734924 Z-0.125000 I0.745252 J-1.807443
G03 X4.658879 Y43.417402 Z-0.125000 I0.449050 J0.000000
G03 X4.976410 Y43.285874 Z-0.125000 I0.317531 J0.317522
G03 X5.293941 Y43.417402 Z-0.125000 I-0.000000 J0.449050
G03 X5.425460 Y43.734924 Z-0.125000 I-0.317531 J0.317522
G02 X6.001306 Y44.641824 Z-0.125000 I1.002061 J0.000000
G02 X8.357780 Y45.175944 Z-0.125000 I2.392781 J-5.091361
G01 X8.357780 Y36.644394 Z-0.125000
G03 X5.724210 Y36.107472 Z-0.125000 I0.023561 J-6.842781
G03 X4.527360 Y34.304384 Z-0.125000 I0.759776 J-1.803088
G03 X4.658883 Y33.986858 Z-0.125000 I0.449050 J-0.000000
G03 X4.976410 Y33.855334 Z-0.125000 I0.317526 J0.317526
G03 X5.293936 Y33.986858 Z-0.125000 I-0.000000 J0.449050
G03 X5.425460 Y34.304384 Z-0.125000 I-0.317526 J0.317526
G02 X6.008167 Y35.212751 Z-0.125000 I0.999368 J-0.000000
G02 X8.416610 Y35.745384 Z-0.125000 I2.439093 J-5.317489
G03 X9.343220 Y34.470921 Z-0.125000 I2.081909 J0.539590
G03 X11.455790 Y33.855334 Z-0.125000 I2.112570 J3.317162
G01 X27.124130 Y33.855334 Z-0.125000
G03 X27.040624 Y31.109236 Z-0.125000 I4.192797 J-1.501818
G03 X28.840850 Y27.970944 Z-0.125000 I7.378014 J2.146788
G03 X29.154875 Y27.830867 Z-0.125000 I0.326100 J0.309023
G03 X29.475370 Y27.953844 Z-0.125000 I0.012039 J0.447742
G03 X29.615751 Y28.268484 Z-0.125000 I-0.308501 J0.326279
G03 X29.492370 Y28.588804 Z-0.125000 I-0.447380 J0.011600
G02 X28.040598 Y32.231695 Z-0.125000 I3.842847 J3.642185
G02 X29.492370 Y35.874684 Z-0.125000 I5.298408 J-0.000706
G03 X31.062264 Y38.172371 Z-0.125000 I-6.375567 J6.041262
G03 X31.501430 Y40.134844 Z-0.125000 I-4.165204 J1.962473
G03 X31.062439 Y42.097190 Z-0.125000 I-4.605463 J0.000000
G03 X29.492370 Y44.395454 Z-0.125000 I-7.943806 J-3.741413
G02 X28.175514 Y46.268463 Z-0.125000 I5.728772 J5.427151
G02 X27.756780 Y47.823074 Z-0.125000 I3.546197 J1.788866
G03 X30.591635 Y49.998745 Z-0.125000 I-11.350836 J17.724619
G03 X32.437250 Y52.308654 Z-0.125000 I-6.369124 J6.981202
G03 X32.481147 Y52.415702 Z-0.125000 I-0.384454 J0.220177
G03 X32.496050 Y52.530494 Z-0.125000 I-0.434648 J0.114792
G01 X32.496050 Y61.771984 Z-0.125000
G03 X32.402705 Y62.046173 Z-0.125000 I-0.449369 J-0.000000
G03 X32.161960 Y62.206214 Z-0.125000 I-0.355651 J-0.273902
G03 X31.873179 Y62.186065 Z-0.125000 I-0.114790 J-0.434329
G03 X31.656770 Y61.993824 Z-0.125000 I0.173683 J-0.413445
G02 X30.889099 Y60.885637 Z-0.125000 I-6.621097 J3.766624
G02 X29.858770 Y59.794364 Z-0.125000 I-9.269148 J7.719469
G03 X29.681727 Y59.996571 Z-0.125000 I-8.623625 J-7.371849
G03 X29.492340 Y60.202104 Z-0.125000 I-7.680489 J-6.887100
G02 X28.040665 Y63.845034 Z-0.125000 I3.845067 J3.642930
G02 X29.492340 Y67.487974 Z-0.125000 I5.296769 J-0.000000
G03 X29.615574 Y67.808455 Z-0.125000 I-0.323839 J0.308460
G03 X29.475240 Y68.122484 Z-0.125000 I-0.448508 J-0.012060
G03 X29.154866 Y68.245360 Z-0.125000 I-0.308717 J-0.325823
G03 X28.840730 Y68.105384 Z-0.125000 I0.011656 J-0.448638
G01 X28.840850 Y68.105454 Z-0.125000
G00 Z3.000000

(Change tool to Default tool)

G00 Z3.000000
G00 X9.255880 Y36.195784

G00 Z4.875000 (Fast pre-penetrate)
G01 Z-0.125000 F400.0(Penetrate)
G01 X9.255880 Y36.254084 Z-0.125000 F800.000000
G02 X10.055199 Y38.240583 Z-0.125000 I2.944716 J-0.030820
G02 X12.809690 Y40.456764 Z-0.125000 I9.318833 J-8.762506
G01 X12.809690 Y34.753804 Z-0.125000
G01 X11.455790 Y34.753804 Z-0.125000
G02 X9.761822 Y35.259334 Z-0.125000 I-0.000000 J3.090905
G02 X9.255880 Y36.195704 Z-0.125000 I0.613521 J0.936370
G01 X9.255880 Y36.195784 Z-0.125000
G00 Z3.000000

(Change tool to Default tool)

G00 Z3.000000
G00 X21.790730 Y34.753884

G00 Z4.875000 (Fast pre-penetrate)
G01 Z-0.125000 F400.0(Penetrate)
G01 X21.790730 Y43.112994 Z-0.125000 F800.000000
G01 X23.586940 Y43.112994 Z-0.125000
G01 X23.586940 Y34.753884 Z-0.125000
G01 X21.790730 Y34.753884 Z-0.125000
G00 Z3.000000

(Change tool to Default tool)

G00 Z3.000000
G00 X20.892630 Y43.112544

G00 Z4.875000 (Fast pre-penetrate)
G01 Z-0.125000 F400.0(Penetrate)
G01 X20.892630 Y34.753884 Z-0.125000 F800.000000
G01 X19.096420 Y34.753884 Z-0.125000
G01 X19.096420 Y43.112994 Z-0.125000
G01 X20.892630 Y43.112994 Z-0.125000
G01 X20.892630 Y43.112544 Z-0.125000
G00 Z3.000000

(Change tool to Default tool)

G00 Z3.000000
G00 X24.485040 Y34.753884

G00 Z4.875000 (Fast pre-penetrate)
G01 Z-0.125000 F400.0(Penetrate)
G01 X24.485040 Y43.112994 Z-0.125000 F800.000000
G01 X26.281260 Y43.112994 Z-0.125000
G01 X26.281260 Y34.753884 Z-0.125000
G01 X24.485040 Y34.753884 Z-0.125000
G00 Z3.000000

(Change tool to Default tool)

G00 Z3.000000
G00 X18.198320 Y34.753884

G00 Z4.875000 (Fast pre-penetrate)
G01 Z-0.125000 F400.0(Penetrate)
G01 X16.402100 Y34.753884 Z-0.125000 F800.000000
G01 X16.402100 Y42.302004 Z-0.125000
G02 X17.282600 Y42.702787 Z-0.125000 I38.230117 J-82.822005
G02 X18.198320 Y43.110754 Z-0.125000 I75.175378 J-167.506521
G01 X18.198320 Y34.753884 Z-0.125000
G00 Z3.000000

(Change tool to Default tool)

G00 Z3.000000
G00 X15.504000 Y34.753884

G00 Z4.875000 (Fast pre-penetrate)
G01 Z-0.125000 F400.0(Penetrate)
G01 X13.707790 Y34.753884 Z-0.125000 F800.000000
G01 X13.707790 Y40.967864 Z-0.125000
G02 X14.565073 Y41.417369 Z-0.125000 I15.704357 J-28.908658
G02 X15.504000 Y41.879894 Z-0.125000 I22.501001 J-44.492812
G01 X15.504000 Y34.753884 Z-0.125000
G00 Z3.000000

(Change tool to Default tool)

G00 Z3.000000
G00 X28.840850 Y36.492164

G00 Z4.875000 (Fast pre-penetrate)
G01 Z-0.125000 F400.0(Penetrate)
G03 X28.077644 Y35.584743 Z-0.125000 I7.249121 J-6.871694 F800.000000
G03 X27.539950 Y34.753434 Z-0.125000 I6.041477 J-4.497198
G01 X27.179360 Y34.753434 Z-0.125000
G01 X27.179360 Y43.112544 Z-0.125000
G01 X29.408910 Y43.112544 Z-0.125000
G02 X30.364757 Y39.888059 Z-0.125000 I-3.634635 J-2.831345
G02 X28.840850 Y36.492164 Z-0.125000 I-5.617827 J0.481124
G01 X28.840850 Y36.492164 Z-0.125000
G00 Z3.000000

(Change tool to Default tool)

G00 Z3.000000
G00 X28.634740 Y44.010654

G00 Z4.875000 (Fast pre-penetrate)
G01 Z-0.125000 F400.0(Penetrate)
G01 X20.242850 Y44.010654 Z-0.125000 F800.000000
G03 X23.673469 Y45.579961 Z-0.125000 I-57.062330 J129.276810
G03 X26.912180 Y47.302204 Z-0.125000 I-16.940364 J35.763036
G03 X27.425675 Y45.756732 Z-0.125000 I5.005574 J0.805097
G03 X28.634740 Y44.010654 Z-0.125000 I7.634889 J3.995106
G01 X28.634740 Y44.010654 Z-0.125000
G00 Z3.000000

(Change tool to Default tool)

G00 Z3.000000
G00 X31.598040 Y60.329214

G00 Z4.875000 (Fast pre-penetrate)
G01 Z-0.125000 F400.0(Penetrate)
G01 X31.598040 Y52.650864 Z-0.125000 F800.000000
G02 X26.846204 Y48.174877 Z-0.125000 I-10.092625 J5.954283
G02 X18.943740 Y44.420184 Z-0.125000 I-67.175315 J131.189739
G03 X12.462773 Y41.369747 Z-0.125000 I55.383028 J-126.076902
G03 X9.255880 Y38.708684 Z-0.125000 I4.164255 J-8.281289
G01 X9.255880 Y45.437284 Z-0.125000
G01 X9.255880 Y45.467384 Z-0.125000
G02 X11.307795 Y48.917895 Z-0.125000 I3.927155 J0.000000
G02 X19.305230 Y52.839484 Z-0.125000 I50.755570 J-93.392100
G03 X25.214128 Y55.571272 Z-0.125000 I-68.164843 J155.197955
G03 X30.055540 Y58.762034 Z-0.125000 I-9.738555 J20.044891
G02 X30.072218 Y58.769672 Z-0.125000 I0.034381 J-0.053046
G01 X30.088740 Y58.778234 Z-0.125000
G03 X30.109130 Y58.801536 Z-0.125000 I-0.047806 J0.062403
G02 X30.127840 Y58.826334 Z-0.125000 I0.107413 J-0.061587
G03 X30.919267 Y59.571582 Z-0.125000 I-10.154850 J11.576941
G03 X31.598040 Y60.329314 Z-0.125000 I-7.285226 J7.208965
G01 X31.598040 Y60.329214 Z-0.125000
G00 Z3.000000

(End cutting path id: path19165)


(Start cutting path id: path16054-4)
(Change tool to Default tool)

G00 Z3.000000
G00 X36.269150 Y40.135304

G00 Z4.875000 (Fast pre-penetrate)
G01 Z-0.125000 F400.0(Penetrate)
G02 X35.830162 Y38.172966 Z-0.125000 I-4.605459 J-0.000000 F800.000000
G02 X34.260090 Y35.874694 Z-0.125000 I-7.943795 J3.741394
G03 X32.808727 Y32.232190 Z-0.125000 I3.846909 J-3.643210
G03 X34.260090 Y28.588814 Z-0.125000 I5.296917 J-0.000706
G02 X34.383208 Y28.268650 Z-0.125000 I-0.323532 J-0.308168
G02 X34.243090 Y27.953854 Z-0.125000 I-0.450882 J0.012109
G02 X33.922708 Y27.830952 Z-0.125000 I-0.308224 J0.324445
G02 X33.608580 Y27.971354 Z-0.125000 I0.012200 J0.448904
G02 X31.910563 Y32.231498 Z-0.125000 I4.495115 J4.260144
G02 X33.608580 Y36.492124 Z-0.125000 I6.194340 J-0.000000
G03 X35.059943 Y40.134628 Z-0.125000 I-3.846909 J3.643210
G03 X33.608580 Y43.778004 Z-0.125000 I-5.296917 J0.000706
G02 X31.910661 Y48.039269 Z-0.125000 I4.494693 J4.259834
G02 X33.608580 Y52.298764 Z-0.125000 I6.195356 J-0.001432
G03 X35.059743 Y55.942608 Z-0.125000 I-3.847460 J3.643138
G03 X33.608580 Y59.585094 Z-0.125000 I-5.298759 J-0.000706
G02 X31.910663 Y63.845479 Z-0.125000 I4.496085 J4.260385
G02 X33.608580 Y68.105864 Z-0.125000 I6.194002 J-0.000000
G02 X33.922600 Y68.245939 Z-0.125000 I0.326095 J-0.309018
G02 X34.243090 Y68.122964 Z-0.125000 I0.012039 J-0.447735
G02 X34.383381 Y67.808952 Z-0.125000 I-0.308223 J-0.326050
G02 X34.260090 Y67.488444 Z-0.125000 I-0.447049 J-0.011999
G03 X32.808821 Y63.845509 Z-0.125000 I3.846563 J-3.642935
G03 X34.260090 Y60.202574 Z-0.125000 I5.297832 J0.000000
G02 X35.958099 Y55.942647 Z-0.125000 I-4.496397 J-4.260643
G02 X34.260090 Y51.681354 Z-0.125000 I-6.194241 J-0.000716
G03 X32.808824 Y48.038414 Z-0.125000 I3.846584 J-3.642940
G03 X34.260090 Y44.395474 Z-0.125000 I5.297851 J0.000000
G02 X35.830130 Y42.097694 Z-0.125000 I-6.369068 J-6.037177
G02 X36.269150 Y40.135314 Z-0.125000 I-4.166326 J-1.962380
G01 X36.269150 Y40.135304 Z-0.125000
G00 Z3.000000

(End cutting path id: path16054-4)


(Start cutting path id: path16054-4-6)
(Change tool to Default tool)

G00 Z3.000000
G00 X40.776200 Y40.135304

G00 Z4.875000 (Fast pre-penetrate)
G01 Z-0.125000 F400.0(Penetrate)
G02 X40.337209 Y38.172958 Z-0.125000 I-4.605463 J0.000000 F800.000000
G02 X38.767140 Y35.874694 Z-0.125000 I-7.943806 J3.741413
G03 X37.315777 Y32.232190 Z-0.125000 I3.846909 J-3.643210
G03 X38.767140 Y28.588814 Z-0.125000 I5.296917 J-0.000706
G02 X38.890235 Y28.268677 Z-0.125000 I-0.323474 J-0.308113
G02 X38.750040 Y27.953854 Z-0.125000 I-0.450841 J0.012139
G02 X38.429645 Y27.830952 Z-0.125000 I-0.308236 J0.324476
G02 X38.115530 Y27.971354 Z-0.125000 I0.012199 J0.448872
G02 X36.417515 Y32.231493 Z-0.125000 I4.495110 J4.260139
G02 X38.115530 Y36.492124 Z-0.125000 I6.194360 J0.000000
G03 X39.566895 Y40.134622 Z-0.125000 I-3.846888 J3.643205
G03 X38.115530 Y43.778004 Z-0.125000 I-5.296925 J0.000706
G02 X36.417608 Y48.039267 Z-0.125000 I4.494699 J4.259839
G02 X38.115530 Y52.298764 Z-0.125000 I6.195335 J-0.001424
G03 X39.566693 Y55.942608 Z-0.125000 I-3.847460 J3.643138
G03 X38.115530 Y59.585094 Z-0.125000 I-5.298759 J-0.000706
G02 X36.417613 Y63.845479 Z-0.125000 I4.496085 J4.260385
G02 X38.115530 Y68.105864 Z-0.125000 I6.194002 J-0.000000
G02 X38.429537 Y68.245939 Z-0.125000 I0.326081 J-0.308987
G02 X38.750040 Y68.122964 Z-0.125000 I0.012040 J-0.447765
G02 X38.890351 Y67.808938 Z-0.125000 I-0.308266 J-0.326096
G02 X38.767140 Y67.488454 Z-0.125000 I-0.447118 J-0.012031
G03 X37.315874 Y63.845514 Z-0.125000 I3.846584 J-3.642940
G03 X38.767140 Y60.202574 Z-0.125000 I5.297851 J-0.000000
G02 X40.465147 Y55.942655 Z-0.125000 I-4.496364 J-4.260626
G02 X38.767140 Y51.681364 Z-0.125000 I-6.194263 J-0.000708
G03 X37.315871 Y48.038419 Z-0.125000 I3.846590 J-3.642945
G03 X38.767140 Y44.395484 Z-0.125000 I5.297832 J0.000000
G02 X40.337180 Y42.097699 Z-0.125000 I-6.369202 J-6.037259
G02 X40.776200 Y40.135324 Z-0.125000 I-4.166300 J-1.962375
G01 X40.776200 Y40.135304 Z-0.125000
G00 Z3.000000

(End cutting path id: path16054-4-6)



(Footer)
M5
G00 X0.0000 Y0.0000
M2
(Using default footer. To add your own footer create file "footer" in the output dir.)
(end)
%