%
(Header)
(Generated by gcodetools from Inkscape.)
(Using default header. To add your own header create file "header" in the output dir.)
M3
(Header end.)
G21 (All units in mm)

(Start cutting path id: path19098)
(Change tool to Default tool)

G00 Z10.000000
G00 X60.647143 Y215.191972

G00 Z4.875000 (Fast pre-penetrate)
G01 Z-0.125000 F100.0(Penetrate)
G03 X71.776440 Y218.329187 Z-0.125000 I-3.571260 J33.978312 F800.000000
G02 X90.142752 Y226.835211 Z-0.125000 I393.112796 J-824.732676
G02 X107.936374 Y233.552855 Z-0.125000 I63.304949 J-140.756848
G02 X114.984400 Y231.857915 Z-0.125000 I2.095146 J-6.789091
G02 X118.491522 Y218.564719 Z-0.125000 I-9.296836 J-9.562006
G02 X112.985217 Y207.108570 Z-0.125000 I-37.262853 J10.858733
G03 X106.216863 Y195.087373 Z-0.125000 I56.684197 J-39.831193
G03 X107.608632 Y181.128499 Z-0.125000 I13.102258 J-5.742460
G03 X121.226850 Y174.102913 Z-0.125000 I13.512392 J9.480682
G03 X141.862923 Y175.994159 Z-0.125000 I-0.782614 J122.068849
G02 X162.825498 Y179.180773 Z-0.125000 I72.916280 J-409.124234
G02 X170.952399 Y174.640358 Z-0.125000 I0.981222 J-7.787096
G02 X176.176473 Y157.263362 Z-0.125000 I-61.628292 J-28.001173
G02 X175.694783 Y148.938598 Z-0.125000 I-19.265030 J-3.061598
G02 X171.371740 Y141.778399 Z-0.125000 I-15.098270 J4.230595
G02 X164.569278 Y137.046278 Z-0.125000 I-19.073975 J20.163634
G02 X146.785134 Y130.686628 Z-0.125000 I-36.533967 J74.118051
G03 X135.314078 Y121.816816 Z-0.125000 I3.952259 J-16.963824
G03 X135.008418 Y107.540098 Z-0.125000 I14.187328 J-7.445377
G03 X141.144099 Y95.367514 Z-0.125000 I233.397211 J110.012930
G02 X143.905319 Y89.103458 Z-0.125000 I-38.627139 J-20.767601
G02 X144.424517 Y83.609510 Z-0.125000 I-10.829498 J-3.794934
G02 X142.334874 Y79.025234 Z-0.125000 I-9.043555 J1.353911
G02 X134.348306 Y72.637507 Z-0.125000 I-20.654393 J17.637505
G02 X115.144274 Y67.351803 Z-0.125000 I-21.609994 J40.984559
G02 X97.747826 Y70.682259 Z-0.125000 I-1.925987 J37.039629
G02 X86.762178 Y81.087641 Z-0.125000 I9.795319 J21.343393
G02 X83.896134 Y102.390342 Z-0.125000 I27.677164 J14.567807
G02 X92.811046 Y115.261938 Z-0.125000 I20.171686 J-4.447932
G03 X104.246751 Y125.562624 Z-0.125000 I-26.840060 J41.295772
G03 X106.239029 Y130.341647 Z-0.125000 I-7.138567 J5.780705
G03 X104.065850 Y135.622089 Z-0.125000 I-5.923024 J0.649774
G03 X84.787436 Y140.328331 Z-0.125000 I-14.621485 J-18.056033
G02 X65.358598 Y149.519775 Z-0.125000 I-3.589169 J17.543252
G02 X66.111723 Y157.817418 Z-0.125000 I6.768222 J3.568691
G02 X72.534327 Y163.916497 Z-0.125000 I24.099064 J-18.946214
G03 X79.616337 Y169.652859 Z-0.125000 I-39.715920 J56.272402
G03 X80.189464 Y175.179269 Z-0.125000 I-2.861102 J3.089640
G03 X79.432764 Y175.812093 Z-0.125000 I-1.581311 J-1.122028
G02 X54.382933 Y189.864351 Z-0.125000 I84.964523 J180.812720
G02 X45.947397 Y196.113098 Z-0.125000 I53.169587 J80.594801
G02 X42.630838 Y200.185834 Z-0.125000 I8.629032 J10.413654
G02 X43.057314 Y203.097330 Z-0.125000 I2.195467 J1.165391
G02 X49.331705 Y206.115172 Z-0.125000 I7.354576 J-7.259427
G00 Z10.000000

(End cutting path id: path19098)


(Start cutting path id: path19066)
(Change tool to Default tool)

G00 Z10.000000
G00 X51.543746 Y205.274642

G00 Z4.875000 (Fast pre-penetrate)
G01 Z-0.125000 F100.0(Penetrate)
G03 X61.760172 Y210.156936 Z-0.125000 I-9.109558 J32.192490 F800.000000
G02 X78.065173 Y221.426165 Z-0.125000 I516.801642 J-730.309673
G02 X94.115632 Y230.874223 Z-0.125000 I84.547731 J-125.273195
G02 X101.199208 Y230.413419 Z-0.125000 I3.153321 J-6.201990
G02 X106.799119 Y218.170571 Z-0.125000 I-7.377307 J-10.776531
G02 X103.395235 Y206.198062 Z-0.125000 I-37.767098 J4.267368
G03 X98.867706 Y193.469950 Z-0.125000 I61.336965 J-28.987532
G03 X102.537341 Y180.232166 Z-0.125000 I13.600299 J-3.357393
G03 X116.849391 Y175.722605 Z-0.125000 I11.458707 J11.400697
G03 X136.447156 Y180.987154 Z-0.125000 I-21.101330 J117.661150
G02 X156.144075 Y187.556102 Z-0.125000 I138.553175 J-382.635186
G02 X164.742998 Y184.529354 Z-0.125000 I2.244775 J-7.350692
G02 X172.680380 Y168.631976 Z-0.125000 I-54.801696 J-37.292081
G02 X173.603120 Y160.518621 Z-0.125000 I-18.079691 J-6.165370
G02 X170.624998 Y152.888758 Z-0.125000 I-15.274377 J1.565813
G02 X164.849630 Y147.188631 Z-0.125000 I-21.766456 J16.277905
G02 X148.748646 Y138.087603 Z-0.125000 I-47.607648 J65.431595
G03 X139.157931 Y127.616618 Z-0.125000 I6.641260 J-15.710661
G03 X141.242590 Y113.789203 Z-0.125000 I14.931186 J-4.819785
G03 X149.192177 Y103.065822 Z-0.125000 I206.882523 J145.060316
G02 X152.900723 Y97.481489 Z-0.125000 I-33.812167 J-26.478192
G02 X154.317447 Y92.266585 Z-0.125000 I-9.817505 J-5.466995
G02 X153.065120 Y87.494643 Z-0.125000 I-8.952337 J-0.200887
G02 X146.423087 Y79.999559 Z-0.125000 I-22.870446 J13.576873
G02 X128.772964 Y71.698181 Z-0.125000 I-27.683999 J35.946575
G02 X111.430968 Y72.012340 Z-0.125000 I-8.032177 J35.420752
G02 X99.095909 Y80.222061 Z-0.125000 I5.894630 J22.228189
G02 X92.779605 Y100.300622 Z-0.125000 I24.279248 J18.670524
G02 X99.236734 Y114.207117 Z-0.125000 I20.206245 J-0.929909
G03 X108.554844 Y126.052948 Z-0.125000 I-32.782668 J35.375141
G03 X109.680756 Y130.996584 Z-0.125000 I-7.851978 J4.388317
G03 X106.703594 Y135.729780 Z-0.125000 I-5.823777 J-0.360224
G03 X87.316262 Y137.057838 Z-0.125000 I-11.099618 J-19.860422
G02 X67.036192 Y142.688863 Z-0.125000 I-6.387476 J16.330307
G02 X66.379896 Y150.821289 Z-0.125000 I5.936244 J4.571757
G02 X71.560875 Y157.777163 Z-0.125000 I26.412545 J-14.265566
G03 X77.438611 Y164.492938 Z-0.125000 I-47.703665 J47.680912
G03 X77.070527 Y169.921232 Z-0.125000 I-3.275823 J2.504498
G03 X76.234864 Y170.405758 Z-0.125000 I-1.338885 J-1.346278
G02 X49.720572 Y179.790385 Z-0.125000 I51.849965 J188.638792
G02 X40.539087 Y184.414163 Z-0.125000 I37.873194 J86.632965
G02 X36.659905 Y187.791396 Z-0.125000 I6.590949 J11.487027
G02 X36.586157 Y190.671958 Z-0.125000 I1.924295 J1.490491
G02 X42.137690 Y194.629857 Z-0.125000 I8.306861 J-5.779220
G00 Z10.000000

(End cutting path id: path19066)


(Start cutting path id: path19034)
(Change tool to Default tool)

G00 Z10.000000
G00 X43.543354 Y193.423930

G00 Z4.875000 (Fast pre-penetrate)
G01 Z-0.125000 F100.0(Penetrate)
G03 X52.402048 Y200.037228 Z-0.125000 I-14.829294 J29.104126 F800.000000
G02 X65.880745 Y213.922071 Z-0.125000 I633.447816 J-601.434190
G02 X79.461018 Y226.014460 Z-0.125000 I104.729855 J-103.944328
G02 X86.332532 Y226.916430 Z-0.125000 I4.196135 J-5.341831
G02 X94.017391 Y216.253064 Z-0.125000 I-5.021836 J-11.719969
G02 X93.027808 Y204.141174 Z-0.125000 I-36.979802 J-3.074993
G03 X91.105367 Y191.092539 Z-0.125000 I64.241141 J-16.130510
G03 X97.130222 Y179.110248 Z-0.125000 I13.662051 J-0.636373
G03 X111.692428 Y177.505387 Z-0.125000 I8.812340 J13.091728
G03 X129.463393 Y186.263811 Z-0.125000 I-42.521992 J108.685710
G02 X147.081960 Y196.290295 Z-0.125000 I205.257219 J-340.185616
G02 X155.891357 Y195.022154 Z-0.125000 I3.543830 J-6.614266
G02 X166.507900 Y181.302013 Z-0.125000 I-45.413177 J-46.107949
G02 X168.930209 Y173.706618 Z-0.125000 I-16.146238 J-9.333283
G02 X167.524871 Y165.834536 Z-0.125000 I-14.925616 J-1.396935
G02 X163.074590 Y159.280159 Z-0.125000 I-23.933182 J11.462105
G02 X149.380118 Y147.510549 Z-0.125000 I-58.003247 J53.637519
G03 X142.180497 Y135.663469 Z-0.125000 I9.339807 J-13.787110
G03 X146.799194 Y122.815907 Z-0.125000 I15.214001 J-1.784560
G03 X156.446256 Y114.053356 Z-0.125000 I170.628370 J178.160270
G02 X161.057015 Y109.408361 Z-0.125000 I-27.361630 J-31.770850
G02 X163.402778 Y104.682568 Z-0.125000 I-8.365756 J-7.097633
G02 X163.108319 Y99.874866 Z-0.125000 I-8.535800 J-1.890072
G02 X158.168398 Y91.437060 Z-0.125000 I-24.478292 J8.665894
G02 X142.838632 Y80.139524 Z-0.125000 I-33.330443 J29.177148
G02 X126.170161 Y77.151753 Z-0.125000 I-14.409648 J32.400223
G02 X112.799693 Y82.675264 Z-0.125000 I1.430202 J22.406362
G02 X102.942800 Y100.707250 Z-0.125000 I19.712304 J22.485460
G02 X106.489806 Y115.250371 Z-0.125000 I19.528412 J2.941213
G03 X113.167630 Y128.362485 Z-0.125000 I-38.105313 J27.663046
G03 X113.308459 Y133.310651 Z-0.125000 I-8.352225 J2.713798
G03 X109.559571 Y137.279184 Z-0.125000 I-5.509278 J-1.449391
G03 X90.739956 Y134.874584 Z-0.125000 I-6.864169 J-21.125749
G02 X70.249348 Y136.421760 Z-0.125000 I-9.214254 J14.428688
G02 X68.078603 Y144.085947 Z-0.125000 I4.818337 J5.504215
G02 X71.721489 Y151.730270 Z-0.125000 I28.001257 J-8.653775
G03 X76.077209 Y159.276772 Z-0.125000 I-54.729058 J36.619013
G03 X74.695291 Y164.405792 Z-0.125000 I-3.612282 J1.777414
G03 X73.803071 Y164.711365 Z-0.125000 I-1.026984 J-1.543261
G02 X46.629966 Y168.671235 Z-0.125000 I13.885585 J190.497065
G02 X36.959780 Y171.358421 Z-0.125000 I19.843534 J90.152832
G02 X32.604142 Y173.857258 Z-0.125000 I4.133987 J12.251313
G02 X31.987256 Y176.602064 Z-0.125000 I1.560299 J1.792397
G02 X36.553551 Y181.445415 Z-0.125000 I9.051644 J-3.959641
G00 Z10.000000

(End cutting path id: path19034)


(Start cutting path id: path19002)
(Change tool to Default tool)

G00 Z10.000000
G00 X38.207708 Y181.129198

G00 Z4.875000 (Fast pre-penetrate)
G01 Z-0.125000 F100.0(Penetrate)
G03 X45.437806 Y189.142850 Z-0.125000 I-19.721580 J25.061656 F800.000000
G02 X55.713664 Y204.996771 Z-0.125000 I720.724201 J-455.886602
G02 X66.426717 Y219.153273 Z-0.125000 I120.014163 J-79.689881
G02 X72.836704 Y221.320195 Z-0.125000 I5.031750 J-4.320282
G02 X82.218847 Y212.564922 Z-0.125000 I-2.587030 J-12.176845
G02 X83.567935 Y200.777380 Z-0.125000 I-34.833427 J-9.957668
G03 X84.201240 Y187.915789 Z-0.125000 I64.584351 J-3.266253
G03 X92.243669 Y177.582548 Z-0.125000 I13.205197 J1.981333
G03 X106.494623 Y178.807034 Z-0.125000 I5.957165 J14.209427
G03 X121.853451 Y190.565209 Z-0.125000 I-61.335085 J96.027582
G02 X136.825854 Y203.508941 Z-0.125000 I261.091364 J-286.880845
G02 X145.503335 Y203.964978 Z-0.125000 I4.648318 J-5.662627
G02 X158.272904 Y192.838099 Z-0.125000 I-34.749733 J-52.770752
G02 X162.033168 Y186.023139 Z-0.125000 I-13.693768 J-12.000629
G02 X162.180061 Y178.217334 Z-0.125000 I-14.029757 J-4.168303
G02 X159.160846 Y171.096100 Z-0.125000 I-25.095072 J6.438996
G02 X148.277212 Y157.227075 Z-0.125000 I-65.722828 J40.370646
G03 X143.628564 Y144.515508 Z-0.125000 I11.559504 J-11.433131
G03 X150.488363 Y133.086918 Z-0.125000 I14.909274 J1.175987
G03 X161.389300 Y126.524209 Z-0.125000 I129.630095 J202.986231
G02 X166.686002 Y122.949933 Z-0.125000 I-20.180097 J-35.616508
G02 X169.828778 Y118.868752 Z-0.125000 I-6.666150 J-8.384033
G02 X170.458474 Y114.208447 Z-0.125000 I-7.816543 J-3.428859
G02 X167.327481 Y105.190550 Z-0.125000 I-25.086884 J3.657622
G02 X154.788160 Y91.463536 Z-0.125000 I-37.454468 J21.623119
G02 X139.390902 Y85.441141 Z-0.125000 I-19.944725 J28.297995
G02 X125.538193 Y88.195647 Z-0.125000 I-2.879287 J21.730395
G02 X112.678486 Y103.596153 Z-0.125000 I14.614972 J25.273071
G02 X113.317665 Y118.197131 Z-0.125000 I18.145136 J6.520149
G03 X117.226680 Y132.021301 Z-0.125000 I-41.740341 J19.267531
G03 X116.423208 Y136.787000 Z-0.125000 I-8.513787 J1.015201
G03 X112.080226 Y139.876848 Z-0.125000 I-5.001525 J-2.432872
G03 X94.512171 Y134.005038 Z-0.125000 I-2.567818 J-21.534382
G02 X74.594369 Y131.601074 Z-0.125000 I-11.560922 J12.071394
G02 X71.061989 Y138.529621 Z-0.125000 I3.570857 J6.185259
G02 X73.101247 Y146.541614 Z-0.125000 I28.458622 J-2.977933
G03 X75.841757 Y154.595101 Z-0.125000 I-59.359758 J24.692470
G03 X73.545615 Y159.245244 Z-0.125000 I-3.796643 J1.017263
G03 X72.633163 Y159.368703 Z-0.125000 I-0.690914 J-1.672783
G02 X45.857820 Y158.008205 Z-0.125000 I-22.826310 J185.077373
G02 X36.086838 Y158.747990 Z-0.125000 I1.908555 J90.104829
G02 X31.441458 Y160.315212 Z-0.125000 I1.635953 J12.517362
G02 X30.330139 Y162.827003 Z-0.125000 I1.154439 J2.012514
G02 X33.784933 Y168.331539 Z-0.125000 I9.419887 J-2.075746
G00 Z10.000000

(End cutting path id: path19002)


(Start cutting path id: path18970)
(Change tool to Default tool)

G00 Z10.000000
G00 X35.639129 Y167.907700

G00 Z4.875000 (Fast pre-penetrate)
G01 Z-0.125000 F100.0(Penetrate)
G03 X41.043919 Y176.953671 Z-0.125000 I-23.640452 J20.262317 F800.000000
G02 X47.878926 Y194.086060 Z-0.125000 I776.708131 J-299.939919
G02 X55.454536 Y209.675693 Z-0.125000 I130.052712 J-53.562220
G02 X61.182631 Y212.966572 Z-0.125000 I5.638321 J-3.183455
G02 X71.828468 Y206.360594 Z-0.125000 I-0.168513 J-12.152684
G02 X75.355857 Y195.327181 Z-0.125000 I-31.472597 J-16.142369
G03 X78.401399 Y183.129386 Z-0.125000 I62.473564 J9.119281
G03 X88.063395 Y174.758091 Z-0.125000 I12.271240 J4.401744
G03 X101.479711 Y178.633295 Z-0.125000 I3.010732 J14.738438
G03 X113.959512 Y192.806987 Z-0.125000 I-76.952459 J80.336920
G02 X125.844400 Y208.042839 Z-0.125000 I304.456683 J-225.241281
G02 X134.068576 Y210.125151 Z-0.125000 I5.525651 J-4.541766
G02 X148.408382 Y201.890197 Z-0.125000 I-23.273573 J-57.129734
G02 X153.302042 Y196.076405 Z-0.125000 I-10.839151 J-14.090143
G02 X154.922979 Y188.628431 Z-0.125000 I-12.646219 J-6.652629
G02 X153.381831 Y181.235686 Z-0.125000 I-25.255283 J1.407896
G02 X145.588335 Y165.889029 Z-0.125000 I-70.600202 J26.200704
G03 X143.546757 Y152.833274 Z-0.125000 I13.238968 J-8.757730
G03 X152.283833 Y143.188664 Z-0.125000 I14.056005 J3.953595
G03 X163.968473 Y138.970580 Z-0.125000 I85.656868 J218.987618
G02 X169.719075 Y136.551841 Z-0.125000 I-12.572885 J-37.937747
G02 X173.502931 Y133.239164 Z-0.125000 I-4.794444 J-9.293749
G02 X174.989765 Y128.895277 Z-0.125000 I-6.835881 J-4.766201
G02 X173.701238 Y119.664849 Z-0.125000 I-24.719995 J-1.254349
G02 X164.295116 Y104.140222 Z-0.125000 I-39.971656 J13.606362
G02 X150.690806 Y95.452553 Z-0.125000 I-24.467891 J23.319529
G02 X136.901343 Y95.463658 Z-0.125000 I-6.878415 J20.265767
G02 X121.664780 Y107.774487 Z-0.125000 I9.204493 J26.976212
G02 X119.508082 Y121.879447 Z-0.125000 I16.141635 J9.685476
G03 X120.630302 Y135.860511 Z-0.125000 I-43.629636 J10.537598
G03 X118.957056 Y140.272383 Z-0.125000 I-8.346385 J-0.642216
G03 X114.211717 Y142.408034 Z-0.125000 I-4.328739 J-3.278491
G03 X98.499817 Y133.452926 Z-0.125000 I1.624403 J-21.111005
G02 X79.879877 Y127.373469 Z-0.125000 I-13.361367 J9.368746
G02 X75.182927 Y133.339264 Z-0.125000 I2.246966 J6.600950
G02 X75.616624 Y141.399279 Z-0.125000 I27.820301 J2.544705
G03 X76.714060 Y149.632015 Z-0.125000 I-61.532934 J12.391942
G03 X73.633152 Y153.650152 Z-0.125000 I-3.829056 J0.254283
G03 X72.735863 Y153.595361 Z-0.125000 I-0.344490 J-1.733078
G02 X47.350393 Y147.214831 Z-0.125000 I-56.958528 J172.924886
G02 X37.852171 Y146.070422 Z-0.125000 I-15.259159 J86.657738
G02 X33.105966 Y146.690466 Z-0.125000 I-0.806935 J12.298447
G02 X31.565302 Y148.885331 Z-0.125000 I0.723994 J2.146361
G02 X33.830199 Y154.812325 Z-0.125000 I9.415317 J-0.201657
G00 Z10.000000

(End cutting path id: path18970)


(Start cutting path id: path18942)
(Change tool to Default tool)

G00 Z10.000000
G00 X35.984606 Y155.941590

G00 Z4.875000 (Fast pre-penetrate)
G01 Z-0.125000 F100.0(Penetrate)
G03 X39.692252 Y165.571449 Z-0.125000 I-26.189367 J15.611997 F800.000000
G02 X43.432178 Y183.242770 Z-0.125000 I799.485223 J-159.970182
G02 X48.143900 Y199.548833 Z-0.125000 I134.423335 J-30.008551
G02 X53.122770 Y203.679145 Z-0.125000 I5.971367 J-2.132126
G02 X64.496651 Y199.079061 Z-0.125000 I1.862973 J-11.754946
G02 X69.739464 Y189.020191 Z-0.125000 I-27.679232 J-20.822519
G03 X74.711390 Y177.757425 Z-0.125000 I58.764543 J19.212686
G03 X85.430140 Y171.289895 Z-0.125000 I11.107587 J6.292848
G03 X97.730446 Y177.265513 Z-0.125000 I0.448669 J14.723833
G03 X107.410523 Y193.022669 Z-0.125000 I-87.646440 J64.695698
G02 X116.339495 Y209.705607 Z-0.125000 I331.331260 J-166.602785
G02 X123.928425 Y213.085743 Z-0.125000 I6.089046 J-3.461623
G02 X139.138354 Y207.529462 Z-0.125000 I-12.935831 J-59.007123
G02 X144.829571 Y202.735046 Z-0.125000 I-8.110840 J-15.403075
G02 X147.635122 Y195.818220 Z-0.125000 I-11.094257 J-8.527365
G02 X147.380181 Y188.427638 Z-0.125000 I-24.605013 J-2.850927
G02 X142.417709 Y172.319720 Z-0.125000 I-72.493469 J13.515169
G03 X142.623768 Y159.381146 Z-0.125000 I14.234802 J-6.244225
G03 X152.662240 Y151.530753 Z-0.125000 I12.904513 J6.157882
G03 X164.640515 Y149.408037 Z-0.125000 I46.155083 J225.591082
G02 X170.592769 Y148.032546 Z-0.125000 I-5.808963 J-38.704055
G02 X174.796189 Y145.466629 Z-0.125000 I-3.077388 J-9.767227
G02 X176.954955 Y141.522772 Z-0.125000 I-5.801934 J-5.738584
G02 X177.250084 Y132.401006 Z-0.125000 I-23.644740 J-5.330668
G02 X170.761155 Y115.852567 Z-0.125000 I-40.838947 J6.467227
G02 X159.081573 Y105.201776 Z-0.125000 I-27.497395 J18.424178
G02 X145.773437 Y102.914097 Z-0.125000 I-10.015249 J18.409186
G02 X129.018818 Y112.253963 Z-0.125000 I4.385638 J27.565155
G02 X124.586708 Y125.505219 Z-0.125000 I13.961678 J12.036548
G03 X123.339276 Y139.183441 Z-0.125000 I-43.857184 J2.896287
G03 X120.989299 Y143.161828 Z-0.125000 I-7.946881 J-2.010868
G03 X116.054269 Y144.431705 Z-0.125000 I-3.630613 J-3.885125
G03 X102.385523 Y133.171559 Z-0.125000 I5.086213 J-20.100530
G02 X85.431327 Y124.201596 Z-0.125000 I-14.454752 J6.813427
G02 X79.904592 Y129.175475 Z-0.125000 I1.068003 J6.744174
G02 X78.979669 Y137.025358 Z-0.125000 I26.421354 J7.092564
G03 X78.666437 Y145.152541 Z-0.125000 I-61.442302 J1.701565
G03 X75.023749 Y148.516366 Z-0.125000 I-3.737271 J-0.392845
G03 X74.167029 Y148.313937 Z-0.125000 I-0.043558 J-1.729769
G02 X50.734549 Y137.925789 Z-0.125000 I-83.785450 J157.372006
G02 X41.759888 Y135.238339 Z-0.125000 I-29.168399 J81.077950
G02 X37.076641 Y135.045570 Z-0.125000 I-2.828537 J11.733018
G02 X35.224125 Y136.906734 Z-0.125000 I0.340875 J2.191827
G02 X36.421764 Y143.003555 Z-0.125000 I9.119017 J1.374732
G00 Z10.000000

(End cutting path id: path18942)


(Start cutting path id: path18914)
(Change tool to Default tool)

G00 Z10.000000
G00 X39.238498 Y144.061579

G00 Z4.875000 (Fast pre-penetrate)
G01 Z-0.125000 F100.0(Penetrate)
G03 X41.211147 Y153.971995 Z-0.125000 I-27.873890 J10.699779 F800.000000
G02 X41.874614 Y171.647482 Z-0.125000 I798.134327 J-21.108576
G02 X43.703384 Y188.167527 Z-0.125000 I134.714943 J-6.551704
G02 X47.819366 Y192.982982 Z-0.125000 I6.117512 J-1.062125
G02 X59.561443 Y190.439853 Z-0.125000 I3.756981 J-11.032544
G02 X66.297139 Y181.607301 Z-0.125000 I-23.238719 J-24.706419
G03 X72.972102 Y171.567887 Z-0.125000 I53.503135 J28.334220
G03 X84.393263 Y167.113553 Z-0.125000 I9.669505 J7.923736
G03 X95.266570 Y174.929974 Z-0.125000 I-2.021186 J14.282701
G03 X101.981097 Y191.748457 Z-0.125000 I-95.358642 J47.820080
G02 X107.816528 Y209.335093 Z-0.125000 I347.491042 J-105.539756
G02 X114.576152 Y213.861696 Z-0.125000 I6.452665 J-2.325422
G02 X130.179238 Y211.035260 Z-0.125000 I-2.647396 J-59.095643
G02 X136.470159 Y207.357437 Z-0.125000 I-5.259291 J-16.215251
G02 X140.330285 Y201.150596 Z-0.125000 I-9.284198 J-10.077734
G02 X141.316121 Y193.976484 Z-0.125000 I-23.267682 J-6.852136
G02 X139.212361 Y177.605846 Z-0.125000 I-72.206024 J0.958566
G03 X141.567771 Y165.154979 Z-0.125000 I14.776792 J-3.652807
G03 X152.562984 Y159.252850 Z-0.125000 I11.425962 J8.093006
G03 X164.475356 Y159.201023 Z-0.125000 I6.936863 J225.380065
G02 X170.448309 Y158.865835 Z-0.125000 I0.845675 J-38.316101
G02 X174.932125 Y157.090442 Z-0.125000 I-1.341581 J-9.937920
G02 X177.672600 Y153.644594 Z-0.125000 I-4.642145 J-6.504559
G02 X179.477781 Y144.891642 Z-0.125000 I-21.927737 J-9.084929
G02 X175.974476 Y127.841492 Z-0.125000 I-40.485905 J-0.566324
G02 X166.479391 Y115.617176 Z-0.125000 I-29.604791 J13.195400
G02 X154.018869 Y111.191488 Z-0.125000 I-12.732718 J16.094819
G02 X136.294577 Y117.411471 Z-0.125000 I-0.362525 J27.330277
G02 X129.809078 Y129.459677 Z-0.125000 I11.466254 J13.941898
G03 X126.325504 Y142.450699 Z-0.125000 I-42.803256 J-4.515222
G03 X123.394758 Y145.897999 Z-0.125000 I-7.333276 J-3.264989
G03 X118.420992 Y146.300822 Z-0.125000 I-2.855834 J-4.354129
G03 X107.108008 Y133.156953 Z-0.125000 I8.258306 J-18.548460
G02 X92.242970 Y121.675409 Z-0.125000 I-15.083909 J4.165405
G02 X86.080854 Y125.553823 Z-0.125000 I-0.093523 J6.685874
G02 X83.879941 Y132.974486 Z-0.125000 I24.313381 J11.247887
G03 X82.223066 Y140.764687 Z-0.125000 I-59.573006 J-8.599105
G03 X78.147343 Y143.403490 Z-0.125000 I-3.540838 J-1.001999
G03 X77.354385 Y143.065357 Z-0.125000 I0.246288 J-1.676425
G02 X56.474438 Y129.135536 Z-0.125000 I-107.079993 J137.892541
G02 X48.262183 Y125.046377 Z-0.125000 I-41.660207 J73.375262
G02 X43.775164 Y124.079772 Z-0.125000 I-4.685055 J10.850442
G02 X41.677346 Y125.566949 Z-0.125000 I-0.036397 J2.171843
G02 X41.816816 Y131.649762 Z-0.125000 I8.570359 J2.846499
G00 Z10.000000

(End cutting path id: path18914)


(Start cutting path id: path18886)
(Change tool to Default tool)

G00 Z10.000000
G00 X45.064162 Y132.804499

G00 Z4.875000 (Fast pre-penetrate)
G01 Z-0.125000 F100.0(Penetrate)
G03 X45.315848 Y142.696455 Z-0.125000 I-28.680594 J5.678915 F800.000000
G02 X43.009960 Y159.863186 Z-0.125000 I773.688669 J112.662469
G02 X42.021128 Y176.109191 Z-0.125000 I131.086685 J16.131840
G02 X45.190258 Y181.441956 Z-0.125000 I6.080189 J-0.005256
G02 X56.944779 Y180.945079 Z-0.125000 I5.464215 J-10.019763
G02 X64.916648 Y173.544705 Z-0.125000 I-18.306439 J-27.714094
G03 X73.031069 Y164.969635 Z-0.125000 I46.905736 J36.259184
G03 X84.794477 Y162.575030 Z-0.125000 I8.009982 J9.257782
G03 X93.983964 Y171.929901 Z-0.125000 I-4.330968 J13.445351
G03 X97.659952 Y189.278234 Z-0.125000 I-99.987897 J30.250343
G02 X100.359615 Y207.221278 Z-0.125000 I352.905910 J-43.922679
G02 X106.127902 Y212.715948 Z-0.125000 I6.614161 J-1.168425
G02 X121.655367 Y212.589233 Z-0.125000 I7.295286 J-57.466232
G02 X128.338868 Y210.088835 Z-0.125000 I-2.372290 J-16.523686
G02 X133.098278 Y204.742876 Z-0.125000 I-7.279151 J-11.272083
G02 X135.245335 Y197.984458 Z-0.125000 I-21.310290 J-10.490241
G02 X135.943909 Y181.836793 Z-0.125000 I-69.835712 J-11.110148
G03 X140.292068 Y170.214794 Z-0.125000 I14.867858 J-1.061854
G03 X151.885767 Y166.352129 Z-0.125000 I9.676679 J9.713884
G03 X163.389373 Y168.287644 Z-0.125000 I-30.871999 J218.638946
G02 X169.208904 Y168.959759 Z-0.125000 I7.202481 J-36.832568
G02 X173.831527 Y167.993927 Z-0.125000 I0.361857 J-9.813312
G02 X177.050324 Y165.125595 Z-0.125000 I-3.395322 J-7.050384
G02 X180.251174 Y156.980226 Z-0.125000 I-19.645145 J-12.421463
G02 X179.712502 Y139.943584 Z-0.125000 I-38.972905 J-7.294573
G02 X172.587640 Y126.564984 Z-0.125000 I-30.766832 J7.798584
G02 X161.301394 Y120.217481 Z-0.125000 I-14.969213 J13.408602
G02 X143.161422 Y123.265277 Z-0.125000 I-4.905166 J26.312207
G02 X134.895009 Y133.810329 Z-0.125000 I8.740679 J15.364544
G03 X129.368183 Y145.765520 Z-0.125000 I-40.550862 J-11.491355
G03 X125.965547 Y148.603536 Z-0.125000 I-6.532114 J-4.372871
G03 X121.098911 Y148.163229 Z-0.125000 I-2.030035 J-4.677569
G03 X112.373118 Y133.594292 Z-0.125000 I11.060555 J-16.522058
G02 X99.942663 Y120.037389 Z-0.125000 I-15.249654 J1.505301
G02 X93.350021 Y122.752817 Z-0.125000 I-1.204632 J6.436014
G02 X89.989368 Y129.546621 Z-0.125000 I21.586679 J14.906261
G03 X87.092098 Y136.787694 Z-0.125000 I-56.052359 J-18.227295
G03 X82.719357 Y138.654704 Z-0.125000 I-3.249759 J-1.557067
G03 X82.010543 Y138.196250 Z-0.125000 I0.517085 J-1.576637
G02 X64.184009 Y121.274304 Z-0.125000 I-126.311566 J115.213029
G02 X56.941079 Y115.959629 Z-0.125000 I-52.430470 J63.860412
G02 X52.772395 Y114.279008 Z-0.125000 I-6.329419 J9.689355
G02 X50.500204 Y115.364415 Z-0.125000 I-0.397119 J2.089676
G02 X49.620920 Y121.257334 Z-0.125000 I7.795607 J4.175244
G00 Z10.000000

(End cutting path id: path18886)


(Start cutting path id: path18858)
(Change tool to Default tool)

G00 Z10.000000
G00 X52.106953 Y122.731387

G00 Z4.875000 (Fast pre-penetrate)
G01 Z-0.125000 F100.0(Penetrate)
G03 X50.701052 Y132.318684 Z-0.125000 I-28.622190 J0.699514 F800.000000
G02 X45.614651 Y148.499560 Z-0.125000 I727.800112 J237.671232
G02 X41.952623 Y164.011496 Z-0.125000 I123.804613 J37.415790
G02 X44.121857 Y169.685624 Z-0.125000 I5.868013 J1.008359
G02 X55.547324 Y171.165373 Z-0.125000 I6.942823 J-8.757912
G02 X64.473339 Y165.353038 Z-0.125000 I-13.045666 J-29.794270
G03 X73.732706 Y158.430926 Z-0.125000 I39.218590 J42.806816
G03 X85.483056 Y158.080923 Z-0.125000 I6.186250 J10.268477
G03 X92.791301 Y168.639688 Z-0.125000 I-6.420255 J12.252359
G03 X93.446904 Y185.992847 Z-0.125000 I-101.526387 J12.524639
G02 X93.061268 Y203.757147 Z-0.125000 I347.861365 J16.437881
G02 X97.711598 Y210.020730 Z-0.125000 I6.577154 J-0.025051
G02 X112.716107 Y212.486536 Z-0.125000 I16.617995 J-54.236675
G02 X119.582182 Y211.187741 Z-0.125000 I0.464963 J-16.340109
G02 X125.065876 Y206.822388 Z-0.125000 I-5.145289 J-12.090385
G02 X128.264177 Y200.658649 Z-0.125000 I-18.815101 J-13.674616
G02 X131.629727 Y185.193227 Z-0.125000 I-65.536898 J-22.360903
G03 X137.762655 Y174.703199 Z-0.125000 I14.523881 J1.453492
G03 X149.593936 Y172.908289 Z-0.125000 I7.718526 J10.986399
G03 X160.371853 Y176.693378 Z-0.125000 I-66.232411 J205.832086
G02 X165.875444 Y178.311928 Z-0.125000 I13.089275 J-34.341481
G02 X170.497074 Y178.150426 Z-0.125000 I1.984837 J-9.409144
G02 X174.081173 Y175.919101 Z-0.125000 I-2.101209 J-7.369266
G02 X178.527517 Y168.592653 Z-0.125000 I-16.886405 J-15.260625
G02 X180.847346 Y152.063182 Z-0.125000 I-36.391478 J-13.534886
G02 X176.202049 Y137.965808 Z-0.125000 I-30.988625 J2.397183
G02 X166.369254 Y129.959553 Z-0.125000 I-16.679614 J10.443739
G02 X148.356898 Y129.877027 Z-0.125000 I-9.118950 J24.572663
G02 X138.622512 Y138.674759 Z-0.125000 I5.873476 J16.283045
G03 X131.296682 Y149.289847 Z-0.125000 I-37.214583 J-17.847594
G03 X127.540238 Y151.461277 Z-0.125000 I-5.574371 J-5.308401
G03 X122.917520 Y150.225241 Z-0.125000 I-1.179256 J-4.852031
G03 X116.925790 Y134.712399 Z-0.125000 I13.426855 J-14.099585
G02 X107.190525 Y119.558643 Z-0.125000 I-14.966217 J-1.089219
G02 X100.376283 Y121.080079 Z-0.125000 I-2.235161 J6.009717
G02 X96.001011 Y127.075684 Z-0.125000 I18.345747 J17.981968
G03 X91.998335 Y133.580122 Z-0.125000 I-51.050235 J-26.931302
G03 X87.467626 Y134.652873 Z-0.125000 I-2.876359 J-2.044170
G03 X86.860063 Y134.092341 Z-0.125000 I0.761751 J-1.435201
G02 X72.478674 Y114.792048 Z-0.125000 I-141.089094 J90.122692
G02 X66.375371 Y108.456363 Z-0.125000 I-61.237430 J52.883780
G02 X62.632878 Y106.139803 Z-0.125000 I-7.722637 J8.294871
G02 X60.259390 Y106.808455 Z-0.125000 I-0.731507 J1.950264
G02 X58.428697 Y112.348332 Z-0.125000 I6.826533 J5.328299
G00 Z10.000000

(End cutting path id: path18858)


(Start cutting path id: path18854)
(Change tool to Default tool)

G00 Z10.000000
G00 X53.176319 Y121.403161

G00 Z4.875000 (Fast pre-penetrate)
G01 Z-0.125000 F100.0(Penetrate)
G03 X51.541503 Y130.924681 Z-0.125000 I-28.545101 J0.000000 F800.000000
G02 X46.077678 Y146.928444 Z-0.125000 I719.616100 J254.617846
G02 X42.049835 Y162.300163 Z-0.125000 I122.486002 J40.308501
G02 X44.073719 Y168.008473 Z-0.125000 I5.824156 J1.147983
G02 X55.425566 Y169.761670 Z-0.125000 I7.133325 J-8.559988
G02 X64.463809 Y164.185879 Z-0.125000 I-12.277004 J-30.014069
G03 X73.861342 Y157.512081 Z-0.125000 I38.046870 J43.621356
G03 X85.581575 Y157.449457 Z-0.125000 I5.915775 J10.385400
G03 X92.608584 Y168.151520 Z-0.125000 I-6.697596 J12.055673
G03 X92.839324 Y185.463581 Z-0.125000 I-101.497595 J10.010360
G02 X92.022234 Y203.160068 Z-0.125000 I346.317081 J24.857421
G02 X96.504695 Y209.516329 Z-0.125000 I6.556132 J0.135245
G02 X111.399794 Y212.339523 Z-0.125000 I17.884502 J-53.653506
G02 X118.274926 Y211.212251 Z-0.125000 I0.861464 J-16.275045
G02 X123.846922 Y206.994832 Z-0.125000 I-4.833857 J-12.175958
G02 X127.184849 Y200.929271 Z-0.125000 I-18.420124 J-14.087965
G02 X130.916055 Y185.596692 Z-0.125000 I-64.776683 J-23.883790
G03 X137.284343 Y175.290553 Z-0.125000 I14.440713 J1.802502
G03 X149.120437 Y173.789746 Z-0.125000 I7.425523 J11.138284
G03 X159.770708 Y177.824928 Z-0.125000 I-71.028537 J203.541938
G02 X165.216773 Y179.572218 Z-0.125000 I13.882755 J-33.909695
G02 X169.827139 Y179.523826 Z-0.125000 I2.207507 J-9.329851
G02 X173.453803 Y177.387144 Z-0.125000 I-1.914791 J-7.396214
G02 X178.063991 Y170.193097 Z-0.125000 I-16.459141 J-15.621777
G02 X180.778833 Y153.774496 Z-0.125000 I-35.942095 J-14.376835
G02 X176.492212 Y139.610328 Z-0.125000 I-30.945110 J1.634446
G02 X166.886778 Y131.390884 Z-0.125000 I-16.879161 J10.003094
G02 X148.935671 Y130.869865 Z-0.125000 I-9.687528 J24.269718
G02 X139.018993 Y139.401544 Z-0.125000 I5.457525 J16.372574
G03 X131.458679 Y149.803273 Z-0.125000 I-36.657486 J-18.695443
G03 X127.661690 Y151.876060 Z-0.125000 I-5.426730 J-5.426730
G03 X123.084287 Y150.531481 Z-0.125000 I-1.057183 J-4.864798
G03 X117.490140 Y134.923702 Z-0.125000 I13.726150 J-13.726150
G02 X108.156023 Y119.582641 Z-0.125000 I-14.890461 J-1.450202
G02 X101.327130 Y120.933084 Z-0.125000 I-2.374202 J5.935505
G02 X96.820200 Y126.802395 Z-0.125000 I17.847394 J18.369719
G03 X92.672245 Y133.187942 Z-0.125000 I-50.226307 J-28.086257
G03 X88.130303 Y134.146801 Z-0.125000 I-2.817106 J-2.107513
G03 X87.538390 Y133.573311 Z-0.125000 I0.794210 J-1.411931
G02 X73.674434 Y113.986174 Z-0.125000 I-142.820421 J86.389520
G02 X67.745534 Y107.522653 Z-0.125000 I-62.324246 J51.218179
G02 X64.071779 Y105.122548 Z-0.125000 I-7.899295 J8.079475
G02 X61.689809 Y105.731185 Z-0.125000 I-0.776607 J1.926031
G02 X59.730191 Y111.208249 Z-0.125000 I6.674292 J5.477064
G00 Z10.000000

(End cutting path id: path18854)


(Start cutting path id: path18862)
(Change tool to Default tool)

G00 Z10.000000
G00 X51.052395 Y124.088439

G00 Z4.875000 (Fast pre-penetrate)
G01 Z-0.125000 F100.0(Penetrate)
G03 X49.877638 Y133.736080 Z-0.125000 I-28.682342 J1.402804 F800.000000
G02 X45.174021 Y150.085299 Z-0.125000 I735.590596 J220.478258
G02 X41.882228 Y165.728866 Z-0.125000 I125.055873 J34.482959
G02 X44.196367 Y171.365159 Z-0.125000 I5.908571 J0.867284
G02 X55.688951 Y172.568917 Z-0.125000 I6.746954 J-8.951700
G02 X64.496636 Y166.522148 Z-0.125000 I-13.811026 J-29.555047
G03 X73.611379 Y159.354437 Z-0.125000 I40.373488 J41.961328
G03 X85.384886 Y158.715542 Z-0.125000 I6.454591 J10.144613
G03 X92.971614 Y169.123728 Z-0.125000 I-6.137340 J12.442776
G03 X94.054235 Y186.507686 Z-0.125000 I-101.493672 J15.046413
G02 X94.102880 Y204.329411 Z-0.125000 I349.203290 J7.957767
G02 X98.919261 Y210.495951 Z-0.125000 I6.594302 J-0.186295
G02 X114.024718 Y212.600724 Z-0.125000 I15.333780 J-54.790377
G02 X120.877507 Y211.130165 Z-0.125000 I0.065797 J-16.395630
G02 X126.269036 Y206.618643 Z-0.125000 I-5.455465 J-11.996948
G02 X129.324929 Y200.359882 Z-0.125000 I-19.201016 J-13.250472
G02 X132.320580 Y184.770220 Z-0.125000 I-66.261854 J-20.815279
G03 X138.213008 Y174.101572 Z-0.125000 I14.598722 J1.101503
G03 X150.032254 Y172.011883 Z-0.125000 I8.008597 J10.826920
G03 X160.932034 Y175.543076 Z-0.125000 I-61.367251 J208.010965
G02 X166.490151 Y177.031129 Z-0.125000 I12.283071 J-34.754984
G02 X171.120306 Y176.755936 Z-0.125000 I1.759622 J-9.483196
G02 X174.659404 Y174.430755 Z-0.125000 I-2.287471 J-7.337678
G02 X178.938219 Y166.975561 Z-0.125000 I-17.305976 J-14.888031
G02 X180.859251 Y150.344605 Z-0.125000 I-36.821413 J-12.679646
G02 X175.855946 Y136.322994 Z-0.125000 I-31.013569 J3.163048
G02 X165.800399 Y128.536074 Z-0.125000 I-16.468734 J10.880689
G02 X147.737379 Y128.894725 Z-0.125000 I-8.541413 J24.862482
G02 X138.192296 Y137.954763 Z-0.125000 I6.288370 J16.183095
G03 X131.106809 Y148.778040 Z-0.125000 I-37.752464 J-16.983848
G03 X127.393431 Y151.047389 Z-0.125000 I-5.719509 J-5.186130
G03 X122.727938 Y149.921294 Z-0.125000 I-1.301341 J-4.836234
G03 X116.339877 Y134.513388 Z-0.125000 I13.117598 J-14.466694
G02 X106.206970 Y119.557278 Z-0.125000 I-15.033323 J-0.725407
G02 X99.411611 Y121.249808 Z-0.125000 I-2.093927 J6.080718
G02 X95.171448 Y127.368824 Z-0.125000 I18.835962 J17.580968
G03 X91.317356 Y133.988916 Z-0.125000 I-51.848021 J-25.753003
G03 X86.800697 Y135.175592 Z-0.125000 I-2.934222 J-1.979205
G03 X86.177758 Y134.628435 Z-0.125000 I0.728638 J-1.457743
G02 X71.284567 Y115.628443 Z-0.125000 I-139.261608 J93.823532
G02 X65.009522 Y109.425213 Z-0.125000 I-60.106861 J54.527251
G02 X61.200153 Y107.194108 Z-0.125000 I-7.540224 J8.506520
G02 X58.836641 Y107.922729 Z-0.125000 I-0.685690 J1.973457
G02 X57.136762 Y113.522429 Z-0.125000 I6.975540 J5.175401
G00 Z10.000000

(End cutting path id: path18862)


(Start cutting path id: path18866)
(Change tool to Default tool)

G00 Z10.000000
G00 X50.013173 Y125.473800

G00 Z4.875000 (Fast pre-penetrate)
G01 Z-0.125000 F100.0(Penetrate)
G03 X49.071664 Y135.176282 Z-0.125000 I-28.725424 J2.109466 F800.000000
G02 X44.755990 Y151.684918 Z-0.125000 I742.979625 J203.047549
G02 X41.838661 Y167.451399 Z-0.125000 I126.238625 J31.511527
G02 X44.297169 Y173.046205 Z-0.125000 I5.945783 J0.724834
G02 X55.850289 Y173.971584 Z-0.125000 I6.545810 J-9.141213
G02 X64.533581 Y167.692650 Z-0.125000 I-14.572579 J-29.296414
G03 X73.497292 Y160.282221 Z-0.125000 I41.510808 J41.085288
G03 X85.286938 Y159.353084 Z-0.125000 I6.720622 J10.013838
G03 X93.149213 Y169.603463 Z-0.125000 I-5.849002 J12.626780
G03 X94.660761 Y187.007837 Z-0.125000 I-101.399043 J17.574203
G02 X95.146267 Y204.876499 Z-0.125000 I350.341642 J-0.578152
G02 X100.126769 Y210.941665 Z-0.125000 I6.607546 J-0.348395
G02 X115.324597 Y212.681956 Z-0.125000 I14.032526 J-55.314107
G02 X122.159856 Y211.039495 Z-0.125000 I-0.335809 J-16.441521
G02 X127.455388 Y206.383667 Z-0.125000 I-5.764189 J-11.895659
G02 X130.366160 Y200.033118 Z-0.125000 I-19.577579 J-12.815727
G02 X132.987870 Y184.327945 Z-0.125000 I-66.950890 J-19.247718
G03 X138.634772 Y173.486087 Z-0.125000 I14.665145 J0.746730
G03 X150.434729 Y171.101120 Z-0.125000 I8.295543 J10.659908
G03 X161.450477 Y174.374744 Z-0.125000 I-56.435679 J210.076905
G02 X167.060070 Y175.730611 Z-0.125000 I11.464548 J-35.149829
G02 X171.695984 Y175.341210 Z-0.125000 I1.531982 J-9.551923
G02 X175.187660 Y172.923022 Z-0.125000 I-2.473463 J-7.301437
G02 X179.295336 Y165.342839 Z-0.125000 I-17.717560 J-14.504146
G02 X180.814005 Y148.619891 Z-0.125000 I-37.231591 J-11.811562
G02 X175.453581 Y134.683022 Z-0.125000 I-31.019812 J3.931594
G02 X165.180056 Y127.121490 Z-0.125000 I-16.246570 J11.313645
G02 X147.077044 Y127.923754 Z-0.125000 I-7.955211 J25.138940
G02 X137.728204 Y137.242166 Z-0.125000 I6.701924 J16.072698
G03 X130.888812 Y148.268306 Z-0.125000 I-38.270635 J-16.104579
G03 X127.221018 Y150.634779 Z-0.125000 I-5.862040 J-5.059976
G03 X122.515331 Y149.619976 Z-0.125000 I-1.423370 J-4.817412
G03 X115.732441 Y134.327004 Z-0.125000 I12.798503 J-14.827211
G02 X105.205663 Y119.578811 Z-0.125000 I-15.091700 J-0.358970
G02 X98.433428 Y121.442436 Z-0.125000 I-1.950570 J6.148452
G02 X94.331764 Y127.681884 Z-0.125000 I19.317659 J17.166861
G03 X90.629492 Y134.414299 Z-0.125000 I-52.619091 J-24.551971
G03 X86.129715 Y135.714863 Z-0.125000 I-2.990648 J-1.912646
G03 X85.491685 Y135.181493 Z-0.125000 I0.694883 J-1.479536
G02 X70.092670 Y116.495155 Z-0.125000 I-137.338527 J97.489597
G02 X63.648666 Y110.428945 Z-0.125000 I-58.932979 J56.147460
G02 X59.774336 Y108.285165 Z-0.125000 I-7.352131 J8.714269
G02 X57.422297 Y109.073673 Z-0.125000 I-0.639181 J1.995589
G02 X55.855050 Y114.730151 Z-0.125000 I7.121204 J5.018438
G00 Z10.000000

(End cutting path id: path18866)


(Start cutting path id: path18870)
(Change tool to Default tool)

G00 Z10.000000
G00 X48.989793 Y126.886921

G00 Z4.875000 (Fast pre-penetrate)
G01 Z-0.125000 F100.0(Penetrate)
G03 X48.283504 Y136.638678 Z-0.125000 I-28.751325 J2.819090 F800.000000
G02 X44.360727 Y153.297655 Z-0.125000 I749.961519 J185.388734
G02 X41.821886 Y169.178205 Z-0.125000 I127.351771 J28.503092
G02 X44.424136 Y174.727874 Z-0.125000 I5.979603 J0.581087
G02 X56.031133 Y175.372637 Z-0.125000 I6.339478 J-9.326308
G02 X64.584007 Y168.863958 Z-0.125000 I-15.329855 J-29.018421
G03 X73.390329 Y161.213856 Z-0.125000 I42.629728 J40.178999
G03 X85.189045 Y159.993299 Z-0.125000 I6.984165 J9.876188
G03 X93.323744 Y170.078691 Z-0.125000 I-5.555370 J12.804211
G03 X95.265876 Y187.493026 Z-0.125000 I-101.242194 J20.106492
G02 X96.190573 Y205.398047 Z-0.125000 I351.273725 J-9.164996
G02 X101.333154 Y211.357541 Z-0.125000 I6.616851 J-0.511257
G02 X116.614673 Y212.730102 Z-0.125000 I12.714924 J-55.807360
G02 X123.428142 Y210.915704 Z-0.125000 I-0.739622 J-16.477693
G02 X128.623881 Y206.117533 Z-0.125000 I-6.071264 J-11.786529
G02 X131.386891 Y199.678504 Z-0.125000 I-19.944504 J-12.370579
G02 X133.630818 Y183.866671 Z-0.125000 I-67.603361 J-17.659031
G03 X139.027283 Y172.857155 Z-0.125000 I14.723046 J0.389369
G03 X150.800663 Y170.176584 Z-0.125000 I8.579172 J10.485410
G03 X161.926383 Y173.189104 Z-0.125000 I-51.440041 J212.027148
G02 X167.584351 Y174.411167 Z-0.125000 I10.634150 J-35.525707
G02 X172.223243 Y173.907110 Z-0.125000 I1.302046 J-9.615262
G02 X175.665089 Y171.396826 Z-0.125000 I-2.659068 J-7.260542
G02 X179.598103 Y163.695512 Z-0.125000 I-18.120834 J-14.109138
G02 X180.711070 Y146.890188 Z-0.125000 I-37.621584 J-10.931082
G02 X174.994640 Y133.047040 Z-0.125000 I-31.007241 J4.702366
G02 X164.508072 Y125.716844 Z-0.125000 I-16.013200 J11.742328
G02 X146.375830 Y126.964897 Z-0.125000 I-7.360654 J25.401774
G02 X137.230096 Y136.537570 Z-0.125000 I7.113888 J15.951865
G03 X130.642434 Y147.761094 Z-0.125000 I-38.768675 J-15.210245
G03 X127.022724 Y150.223842 Z-0.125000 I-6.001882 J-4.930007
G03 X122.279464 Y149.321611 Z-0.125000 I-1.545266 J-4.795527
G03 X115.103494 Y134.153555 Z-0.125000 I12.469724 J-15.180890
G02 X104.186878 Y119.623501 Z-0.125000 I-15.141249 J0.009891
G02 X97.442023 Y121.658115 Z-0.125000 I-1.805168 J6.212855
G02 X93.482183 Y128.014927 Z-0.125000 I19.790506 J16.739829
G03 X89.934894 Y134.856250 Z-0.125000 I-53.362877 J-23.328826
G03 X85.454837 Y136.270595 Z-0.125000 I-3.045593 J-1.844523
G03 X84.802013 Y135.751420 Z-0.125000 I0.660503 J-1.500562
G02 X68.903493 Y117.391977 Z-0.125000 I-135.320416 J101.118445
G02 X62.293430 Y111.467297 Z-0.125000 I-57.716224 J57.743284
G02 X58.356103 Y109.412670 Z-0.125000 I-7.158440 J8.917972
G02 X56.017035 Y110.260945 Z-0.125000 I-0.592005 J2.016641
G02 X54.584171 Y115.971105 Z-0.125000 I7.263413 J4.857482
G00 Z10.000000

(End cutting path id: path18870)


(Start cutting path id: path18874)
(Change tool to Default tool)

G00 Z10.000000
G00 X47.982747 Y128.327211

G00 Z4.875000 (Fast pre-penetrate)
G01 Z-0.125000 F100.0(Penetrate)
G03 X47.513522 Y138.122610 Z-0.125000 I-28.759874 J3.531268 F800.000000
G02 X43.988387 Y154.922706 Z-0.125000 I756.529309 J167.511135
G02 X41.831849 Y170.908359 Z-0.125000 I128.394138 J25.459247
G02 X44.577125 Y176.409245 Z-0.125000 I6.009988 J0.436123
G02 X56.231268 Y176.771314 Z-0.125000 I6.128053 J-9.506846
G02 X64.647742 Y170.035464 Z-0.125000 I-16.082369 J-28.721127
G03 X73.290376 Y162.148900 Z-0.125000 I43.729451 J39.242838
G03 X85.091047 Y160.635914 Z-0.125000 I7.245048 J9.731711
G03 X93.494861 Y170.549197 Z-0.125000 I-5.256599 J12.974926
G03 X95.868984 Y187.962969 Z-0.125000 I-101.022911 J22.641781
G02 X97.234950 Y205.893683 Z-0.125000 I351.997343 J-17.797855
G02 X102.537461 Y211.743251 Z-0.125000 I6.622192 J-0.674787
G02 X117.893884 Y212.745038 Z-0.125000 I11.381677 J-56.269659
G02 X124.681291 Y210.758773 Z-0.125000 I-1.145413 J-16.504067
G02 X129.773481 Y205.820320 Z-0.125000 I-6.376494 J-11.669580
G02 X132.386160 Y199.296192 Z-0.125000 I-20.301514 J-11.915237
G02 X134.248670 Y183.386669 Z-0.125000 I-68.218678 J-16.050066
G03 X139.389916 Y172.215178 Z-0.125000 I14.772346 J0.029625
G03 X151.129401 Y169.238854 Z-0.125000 I8.859292 J10.303487
G03 X162.358990 Y171.986868 Z-0.125000 I-46.383037 J213.859938
G02 X168.062185 Y173.073581 Z-0.125000 I9.792298 J-35.882254
G02 X172.701253 Y172.454484 Z-0.125000 I1.069936 J-9.673136
G02 X176.090878 Y169.853078 Z-0.125000 I-2.844170 J-7.214986
G02 X179.845788 Y162.034586 Z-0.125000 I-18.515516 J-13.703178
G02 X180.549939 Y145.156605 Z-0.125000 I-37.991050 J-10.038669
G02 X174.478839 Y131.416157 Z-0.125000 I-30.975742 J5.474911
G02 X163.784322 Y124.323144 Z-0.125000 I-15.768691 J12.166449
G02 X145.633695 Y126.018908 Z-0.125000 I-6.758048 J25.650752
G02 X136.697845 Y135.841555 Z-0.125000 I7.524007 J15.820614
G03 X130.367430 Y147.256821 Z-0.125000 I-39.246052 J-14.301249
G03 X126.798296 Y149.814921 Z-0.125000 I-6.138903 J-4.796243
G03 X122.020116 Y149.026490 Z-0.125000 I-1.666956 J-4.770611
G03 X114.453069 Y133.993323 Z-0.125000 I12.131384 J-15.527461
G02 X103.150904 Y119.691545 Z-0.125000 I-15.181896 J0.380960
G02 X96.437693 Y121.896939 Z-0.125000 I-1.657794 J6.273871
G02 X92.622935 Y128.367955 Z-0.125000 I20.254164 J16.300061
G03 X89.233716 Y135.314684 Z-0.125000 I-54.078777 J-22.084192
G03 X84.776220 Y136.842635 Z-0.125000 I-3.099019 J-1.774870
G03 X84.108908 Y136.338053 Z-0.125000 I0.625523 J-1.520811
G02 X67.717547 Y118.318631 Z-0.125000 I-133.207859 J104.707578
G02 X60.944446 Y112.539935 Z-0.125000 I-56.457037 J59.313563
G02 X56.946136 Y110.576246 Z-0.125000 I-6.959229 J9.117472
G02 X54.621539 Y111.484132 Z-0.125000 I-0.544184 J2.036595
G02 X53.324735 Y117.244828 Z-0.125000 I7.402069 J4.692608
G00 Z10.000000

(End cutting path id: path18874)


(Start cutting path id: path18878)
(Change tool to Default tool)

G00 Z10.000000
G00 X46.992504 Y129.794033

G00 Z4.875000 (Fast pre-penetrate)
G01 Z-0.125000 F100.0(Penetrate)
G03 X46.762054 Y139.627385 Z-0.125000 I-28.751009 J4.245580 F800.000000
G02 X43.639093 Y156.559235 Z-0.125000 I762.678387 J149.424586
G02 X41.868467 Y172.640905 Z-0.125000 I129.364796 J22.381647
G02 X44.755959 Y178.089374 Z-0.125000 I6.036909 J0.290024
G02 X56.450447 Y178.166830 Z-0.125000 I5.911633 J-9.682691
G02 X64.724585 Y171.206540 Z-0.125000 I-16.829622 J-28.404580
G03 X73.197296 Y163.086885 Z-0.125000 I44.809221 J38.277212
G03 X84.992757 Y161.280633 Z-0.125000 I7.503092 J9.580446
G03 X93.662195 Y171.014748 Z-0.125000 I-4.952838 J13.138781
G03 X96.469463 Y188.417368 Z-0.125000 I-100.740882 J25.178539
G02 X98.278518 Y206.363033 Z-0.125000 I352.511960 J-26.471785
G02 X103.738695 Y212.098460 Z-0.125000 I6.623543 J-0.838889
G02 X119.161138 Y212.726636 Z-0.125000 I10.033499 J-56.700529
G02 X125.918200 Y210.568678 Z-0.125000 I-1.552947 J-16.520569
G02 X130.903122 Y205.492102 Z-0.125000 I-6.679684 J-11.544837
G02 X133.362981 Y198.886330 Z-0.125000 I-20.648329 J-11.449918
G02 X134.840651 Y182.888201 Z-0.125000 I-68.796222 J-14.421683
G03 X139.722019 Y171.560552 Z-0.125000 I14.812967 J-0.332298
G03 X151.420272 Y168.288509 Z-0.125000 I9.135709 J10.114214
G03 X162.747530 Y170.768758 Z-0.125000 I-41.267642 J215.574544
G02 X168.492757 Y171.718645 Z-0.125000 I8.939426 J-36.219112
G02 X173.129182 Y170.984193 Z-0.125000 I0.835780 J-9.725479
G02 X176.464213 Y168.292696 Z-0.125000 I-3.028660 J-7.164774
G02 X180.037667 Y160.361073 Z-0.125000 I-18.901328 J-13.286455
G02 X180.330116 Y143.420254 Z-0.125000 I-38.339660 J-9.134790
G02 X173.905905 Y129.791475 Z-0.125000 I-30.925227 J6.248772
G02 X163.008688 Y122.941381 Z-0.125000 I-15.513131 J12.585726
G02 X144.850599 Y125.086514 Z-0.125000 I-6.147716 J25.885639
G02 X136.131324 Y135.154666 Z-0.125000 I7.932027 J15.678969
G03 X130.063549 Y146.755887 Z-0.125000 I-39.702519 J-13.378147
G03 X126.547463 Y149.408359 Z-0.125000 I-6.273005 J-4.658744
G03 X121.737058 Y148.734890 Z-0.125000 I-1.788363 J-4.742653
G03 X113.781180 Y133.846560 Z-0.125000 I11.783634 J-15.866679
G02 X102.098020 Y119.783121 Z-0.125000 I-15.213566 J0.754029
G02 X95.420724 Y122.158983 Z-0.125000 I-1.508526 J6.331441
G02 X91.754239 Y128.740957 Z-0.125000 I20.708309 J15.847743
G03 X88.526101 Y135.789498 Z-0.125000 I-54.765905 J-20.818565
G03 X84.094010 Y137.430808 Z-0.125000 I-3.150883 J-1.703721
G03 X83.412531 Y136.941219 Z-0.125000 I0.589933 J-1.540234
G02 X66.535328 Y119.274811 Z-0.125000 I-131.001735 J108.254706
G02 X59.602326 Y113.646485 Z-0.125000 I-55.156023 J60.857273
G02 X55.545097 Y111.775474 Z-0.125000 I-6.754598 J9.312637
G02 X53.236470 Y112.742776 Z-0.125000 I-0.495746 J2.055430
G02 X52.077333 Y118.550807 Z-0.125000 I7.537051 J4.523889
G00 Z10.000000

(End cutting path id: path18878)


(Start cutting path id: path18882)
(Change tool to Default tool)

G00 Z10.000000
G00 X46.019501 Y131.286706

G00 Z4.875000 (Fast pre-penetrate)
G01 Z-0.125000 F100.0(Penetrate)
G03 X46.029399 Y141.152261 Z-0.125000 I-28.724630 J4.961601 F800.000000
G02 X43.312928 Y158.206368 Z-0.125000 I768.398469 J131.138082
G02 X41.931611 Y174.374859 Z-0.125000 I130.262623 J19.271936
G02 X44.960418 Y179.767281 Z-0.125000 I6.060318 J0.142869
G02 X56.688386 Y179.558369 Z-0.125000 I5.690319 J-9.853706
G02 X64.814304 Y172.376520 Z-0.125000 I-17.571139 J-28.068872
G03 X73.110921 Y164.027309 Z-0.125000 I45.868253 J37.282530
G03 X84.893972 Y161.927125 Z-0.125000 I7.758128 J9.422450
G03 X93.825362 Y171.475079 Z-0.125000 I-4.644242 J13.295635
G03 X97.066670 Y188.855904 Z-0.125000 I-100.395942 J27.715242
G02 X99.320378 Y206.805701 Z-0.125000 I352.815087 J-35.181736
G02 X104.935851 Y212.422811 Z-0.125000 I6.620872 J-1.003468
G02 X120.415338 Y212.674749 Z-0.125000 I8.671122 J-57.099533
G02 X127.137767 Y210.345378 Z-0.125000 I-1.961985 J-16.527130
G02 X132.011748 Y205.132934 Z-0.125000 I-6.980634 J-11.412326
G02 X134.316372 Y198.449043 Z-0.125000 I-20.984677 J-10.974842
G02 X135.405991 Y182.371497 Z-0.125000 I-69.335416 J-12.774744
G03 X140.022951 Y170.893637 Z-0.125000 I14.844827 J-0.696195
G03 X151.672613 Y167.326086 Z-0.125000 I9.408234 J9.917652
G03 X163.091241 Y169.535453 Z-0.125000 I-36.096294 J217.167777
G02 X168.875262 Y170.347117 Z-0.125000 I8.076004 J-36.535995
G02 X173.506209 Y169.497064 Z-0.125000 I0.599710 J-9.772224
G02 X176.784290 Y166.716572 Z-0.125000 I-3.212414 J-7.109904
G02 X180.173027 Y158.675960 Z-0.125000 I-19.277962 J-12.859149
G02 X180.051123 Y141.682224 Z-0.125000 I-38.667043 J-8.219930
G02 X173.275584 Y128.174068 Z-0.125000 I-30.855612 J7.023483
G02 X162.181073 Y121.572516 Z-0.125000 I-15.246607 J12.999871
G02 X144.026515 Y124.168415 Z-0.125000 I-5.529978 J26.106195
G02 X135.530419 Y134.477425 Z-0.125000 I8.337665 J15.526929
G03 X129.730550 Y146.258674 Z-0.125000 I-40.137600 J-12.441352
G03 X126.269968 Y149.004474 Z-0.125000 I-6.404111 J-4.517600
G03 X121.430068 Y148.447066 Z-0.125000 I-1.909413 J-4.711635
G03 X113.087857 Y133.713491 Z-0.125000 I11.426633 J-16.198291
G02 X101.028516 Y119.898374 Z-0.125000 I-15.236171 J1.128880
G02 X94.391408 Y122.444282 Z-0.125000 I-1.357445 J6.385506
G02 X90.876316 Y129.133881 Z-0.125000 I21.152591 J15.383078
G03 X87.812187 Y136.280565 Z-0.125000 I-55.424018 J-19.532744
G03 X83.408347 Y138.034919 Z-0.125000 I-3.201143 J-1.631109
G03 X82.713031 Y137.560707 Z-0.125000 I0.553783 J-1.558850
G02 X65.357327 Y120.260173 Z-0.125000 I-128.702672 J111.757307
G02 X58.267677 Y114.786545 Z-0.125000 I-53.813636 J62.373245
G02 X54.153641 Y113.009905 Z-0.125000 I-6.544629 J9.503312
G02 X51.862483 Y114.036394 Z-0.125000 I-0.446716 J2.073130
G02 X50.842543 Y119.888514 Z-0.125000 I7.668264 J4.351408
G00 Z10.000000

(End cutting path id: path18882)


(Start cutting path id: path18890)
(Change tool to Default tool)

G00 Z10.000000
G00 X44.126863 Y134.346607

G00 Z4.875000 (Fast pre-penetrate)
G01 Z-0.125000 F100.0(Penetrate)
G03 X44.621635 Y144.259110 Z-0.125000 I-28.618908 J6.397080 F800.000000
G02 X42.730199 Y161.528708 Z-0.125000 I778.537028 J94.006883
G02 X42.136814 Y177.842819 Z-0.125000 I131.835963 J12.963051
G02 X45.445186 Y183.112323 Z-0.125000 I6.096478 J-0.154268
G02 X57.219275 Y182.326054 Z-0.125000 I5.233434 J-10.180725
G02 X65.031322 Y174.710341 Z-0.125000 I-19.035019 J-27.340324
G03 X72.957521 Y165.913265 Z-0.125000 I47.920949 J35.207649
G03 X84.694017 Y163.223925 Z-0.125000 I8.258481 J9.086497
G03 X94.137567 Y172.378869 Z-0.125000 I-4.013182 J13.587796
G03 X98.248611 Y189.683970 Z-0.125000 I-99.516606 J32.782281
G02 X101.395267 Y207.609314 Z-0.125000 I352.782596 J-52.689408
G02 X107.313781 Y212.977469 Z-0.125000 I6.603391 J-1.333664
G02 X122.880073 Y212.469905 Z-0.125000 I5.906750 J-57.800191
G02 X129.520350 Y209.798972 Z-0.125000 I-2.783617 J-16.510174
G02 X134.161609 Y204.321943 Z-0.125000 I-7.575037 J-11.124146
G02 X136.148845 Y197.492660 Z-0.125000 I-21.624911 J-9.996353
G02 X136.453600 Y181.284267 Z-0.125000 I-70.296572 J-9.428796
G03 X140.528699 Y169.524329 Z-0.125000 I14.881987 J-1.429065
G03 X152.059052 Y165.367123 Z-0.125000 I9.940856 J9.502986
G03 X163.641155 Y167.025963 Z-0.125000 I-25.597495 J219.985762
G02 X169.492872 Y167.557283 Z-0.125000 I6.319333 J-37.108537
G02 X174.104310 Y166.475563 Z-0.125000 I0.122354 J-9.848679
G02 X177.261510 Y163.520608 Z-0.125000 I-3.577263 J-6.986219
G02 X180.271397 Y155.274803 Z-0.125000 I-20.002593 J-11.973593
G02 X179.313779 Y138.205353 Z-0.125000 I-39.256906 J-6.359224
G02 X171.841827 Y124.965221 Z-0.125000 I-30.658813 J8.573600
G02 X160.369551 Y118.877150 Z-0.125000 I-14.681057 J13.811643
G02 X142.255276 Y122.377704 Z-0.125000 I-4.273622 J26.503474
G02 X134.224951 Y133.153805 Z-0.125000 I9.140796 J15.191840
G03 X128.976167 Y145.276722 Z-0.125000 I-40.941984 J-10.528673
G03 X125.633884 Y148.205788 Z-0.125000 I-6.656925 J-4.224618
G03 X120.743324 Y147.883550 Z-0.125000 I-2.150138 J-4.640444
G03 X111.636947 Y133.489098 Z-0.125000 I10.685540 J-16.837719
G02 X98.840702 Y120.200198 Z-0.125000 I-15.253947 J1.883065
G02 X92.296798 Y123.084516 Z-0.125000 I-1.050168 J6.482916
G02 X89.093555 Y129.979020 Z-0.125000 I22.010255 J14.417524
G03 X86.365906 Y137.310646 Z-0.125000 I-56.650393 J-16.902930
G03 X82.027108 Y139.289854 Z-0.125000 I-3.296692 J-1.481636
G03 X81.305144 Y138.847533 Z-0.125000 I0.479839 J-1.593561
G02 X63.015789 Y122.316736 Z-0.125000 I-123.829366 J118.619526
G02 X55.623061 Y117.165199 Z-0.125000 I-51.007151 J65.317720
G02 X51.401936 Y115.582194 Z-0.125000 I-6.109071 J9.870627
G02 X49.150207 Y116.726213 Z-0.125000 I-0.346983 J2.105050
G02 X48.412957 Y122.656593 Z-0.125000 I7.918975 J3.995484
G00 Z10.000000

(End cutting path id: path18890)


(Start cutting path id: path18894)
(Change tool to Default tool)

G00 Z10.000000
G00 X43.207970 Y135.912331

G00 Z4.875000 (Fast pre-penetrate)
G01 Z-0.125000 F100.0(Penetrate)
G03 X43.946990 Y145.839478 Z-0.125000 I-28.539414 J7.115677 F800.000000
G02 X42.473645 Y163.202064 Z-0.125000 I782.944361 J75.182457
G02 X42.278442 Y179.574774 Z-0.125000 I132.509675 J9.767363
G02 X45.724879 Y184.777436 Z-0.125000 I6.109163 J-0.304082
G02 X57.511498 Y183.700514 Z-0.125000 I4.998083 J-10.336467
G02 X65.158016 Y175.872796 Z-0.125000 I-19.756414 J-26.947697
G03 X72.890043 Y166.857727 Z-0.125000 I48.913149 J34.128406
G03 X84.592330 Y163.873515 Z-0.125000 I8.503452 J8.908656
G03 X94.285730 Y172.821764 Z-0.125000 I-3.691044 J13.722836
G03 X98.831946 Y190.072857 Z-0.125000 I-98.982007 J35.309511
G02 X102.426368 Y207.969498 Z-0.125000 I352.444057 J-61.476787
G02 X108.492415 Y213.207113 Z-0.125000 I6.588540 J-1.499084
G02 X124.088308 Y212.316719 Z-0.125000 I4.506283 J-58.101034
G02 X130.681065 Y209.475850 Z-0.125000 I-3.195723 J-16.486547
G02 X135.200640 Y203.870294 Z-0.125000 I-7.868096 J-10.968557
G02 X137.025889 Y196.973869 Z-0.125000 I-21.928277 J-9.493420
G02 X136.934272 Y180.714235 Z-0.125000 I-70.717472 J-7.731608
G03 X140.732193 Y168.822675 Z-0.125000 I14.887158 J-1.797615
G03 X152.191810 Y164.371686 Z-0.125000 I10.200578 J9.285046
G03 X163.845842 Y165.751181 Z-0.125000 I-20.275757 J221.207059
G02 X169.726383 Y166.140536 Z-0.125000 I5.427037 J-37.363613
G02 X174.323767 Y164.942890 Z-0.125000 I-0.118662 J-9.878278
G02 X177.417081 Y161.902585 Z-0.125000 I-3.758125 J-6.917426
G02 X180.233031 Y153.560754 Z-0.125000 I-20.350027 J-11.515760
G02 X178.854532 Y136.468673 Z-0.125000 I-39.518759 J-5.414389
G02 X171.037946 Y123.375890 Z-0.125000 I-30.531505 J9.348062
G02 X159.385497 Y117.552511 Z-0.125000 I-14.382243 J14.208710
G02 X141.308085 Y121.506418 Z-0.125000 I-3.635683 J26.679781
G02 X133.520147 Y132.508409 Z-0.125000 I9.537767 J15.008869
G03 X128.554265 Y144.792689 Z-0.125000 I-41.310546 J-9.553798
G03 X125.274738 Y147.811568 Z-0.125000 I-6.778412 J-4.072875
G03 X120.363068 Y147.608305 Z-0.125000 I-2.269664 J-4.600293
G03 X110.879357 Y133.398137 Z-0.125000 I10.301782 J-17.145044
G02 X97.722903 Y120.386925 Z-0.125000 I-15.249000 J2.261957
G02 X91.232009 Y123.439393 Z-0.125000 I-0.894137 J6.526157
G02 X88.189067 Y130.431015 Z-0.125000 I22.423020 J13.917096
G03 X85.633716 Y137.849285 Z-0.125000 I-57.217613 J-15.560342
G03 X81.331702 Y139.940162 Z-0.125000 I-3.341903 J-1.404850
G03 X80.596950 Y139.514336 Z-0.125000 I0.442094 J-1.609635
G02 X61.853106 Y123.387086 Z-0.125000 I-121.256929 J121.974351
G02 X54.314172 Y118.402800 Z-0.125000 I-49.544245 J66.744061
G02 X50.042854 Y116.918961 Z-0.125000 I-5.883684 J10.046989
G02 X47.813080 Y118.121249 Z-0.125000 I-0.296335 J2.119238
G02 X47.219166 Y124.085712 Z-0.125000 I8.038274 J3.812216
G00 Z10.000000

(End cutting path id: path18894)


(Start cutting path id: path18898)
(Change tool to Default tool)

G00 Z10.000000
G00 X42.309304 Y137.504401

G00 Z4.875000 (Fast pre-penetrate)
G01 Z-0.125000 F100.0(Penetrate)
G03 X43.293587 Y147.440247 Z-0.125000 I-28.442128 J7.834263 F800.000000
G02 X42.241741 Y164.885828 Z-0.125000 I786.899430 J56.198983
G02 X42.447232 Y181.307536 Z-0.125000 I133.106817 J6.546524
G02 X46.030472 Y186.439793 Z-0.125000 I6.118210 J-0.454611
G02 X57.822532 Y185.071126 Z-0.125000 I4.758282 J-10.486862
G02 X65.297878 Y177.034887 Z-0.125000 I-20.470131 J-26.536330
G03 X72.829868 Y167.805995 Z-0.125000 I49.881578 J33.021933
G03 X84.490628 Y164.526955 Z-0.125000 I8.744726 J8.724332
G03 X94.429487 Y173.261827 Z-0.125000 I-3.364726 J13.850345
G03 X99.410726 Y190.448101 Z-0.125000 I-98.384046 J37.830469
G02 X103.453421 Y208.304994 Z-0.125000 I351.889598 J-70.279662
G02 X109.664200 Y213.408102 Z-0.125000 I6.569598 J-1.664588
G02 X125.280391 Y212.133119 Z-0.125000 I3.094660 J-58.368366
G02 X131.821336 Y209.123019 Z-0.125000 I-3.608364 J-16.452757
G02 X136.215749 Y203.391571 Z-0.125000 I-8.158135 J-10.805367
G02 X137.876927 Y196.431792 Z-0.125000 I-22.220138 J-8.981696
G02 X137.386613 Y180.130493 Z-0.125000 I-71.097931 J-6.019525
G03 X140.903384 Y168.113750 Z-0.125000 I14.883310 J-2.167285
G03 X152.284875 Y163.369918 Z-0.125000 I10.455659 J9.060150
G03 X164.004185 Y164.467551 Z-0.125000 I-14.909771 J222.301664
G02 X169.910149 Y164.713853 Z-0.125000 I4.526078 J-37.597494
G02 X174.490600 Y163.400310 Z-0.125000 I-0.361055 J-9.902045
G02 X177.517763 Y160.275991 Z-0.125000 I-3.937791 J-6.844012
G02 X180.136897 Y151.842624 Z-0.125000 I-20.687193 J-11.048173
G02 X178.335825 Y134.738164 Z-0.125000 I-39.758175 J-4.460584
G02 X170.177284 Y121.801570 Z-0.125000 I-30.384881 J10.121496
G02 X158.350663 Y116.248014 Z-0.125000 I-14.072892 J14.599525
G02 X140.321323 Y120.655594 Z-0.125000 I-2.991701 J26.840926
G02 X132.781961 Y131.878146 Z-0.125000 I9.931325 J14.815675
G03 X128.103701 Y144.317289 Z-0.125000 I-41.656192 J-8.567254
G03 X124.889292 Y147.424689 Z-0.125000 I-6.896524 J-3.917767
G03 X119.959382 Y147.341239 Z-0.125000 I-2.388521 J-4.557098
G03 X110.101831 Y133.325098 Z-0.125000 I9.909452 J-17.443796
G02 X96.591002 Y120.601153 Z-0.125000 I-15.234751 J2.641750
G02 X90.157380 Y123.820928 Z-0.125000 I-0.736625 J6.565695
G02 X87.277554 Y130.905999 Z-0.125000 I22.824606 J13.405186
G03 X84.897092 Y138.406922 Z-0.125000 I-57.753451 J-14.200215
G03 X80.634698 Y140.608868 Z-0.125000 I-3.385355 J-1.326749
G03 X79.887527 Y140.199899 Z-0.125000 I0.403840 J-1.624809
G02 X60.697859 Y124.488421 Z-0.125000 I-118.595338 J125.275184
G02 X53.016422 Y119.675420 Z-0.125000 I-48.042444 J68.138405
G02 X48.697207 Y118.292244 Z-0.125000 I-5.653368 J10.218306
G02 X46.490872 Y119.552421 Z-0.125000 I-0.245202 J2.132224
G02 X46.041515 Y125.547546 Z-0.125000 I8.153401 J3.625531
G00 Z10.000000

(End cutting path id: path18898)


(Start cutting path id: path18902)
(Change tool to Default tool)

G00 Z10.000000
G00 X41.462423 Y139.121365

G00 Z4.875000 (Fast pre-penetrate)
G01 Z-0.125000 F100.0(Penetrate)
G03 X42.692848 Y149.059923 Z-0.125000 I-28.326933 J8.552409 F800.000000
G02 X42.065674 Y166.578394 Z-0.125000 I790.403955 J37.067506
G02 X42.674141 Y183.039416 Z-0.125000 I133.626786 J3.302367
G02 X46.392825 Y188.097722 Z-0.125000 I6.123589 J-0.605768
G02 X58.183190 Y186.436388 Z-0.125000 I4.514146 J-10.631789
G02 X65.481793 Y178.195260 Z-0.125000 I-21.175703 J-26.106368
G03 X72.807965 Y168.756870 Z-0.125000 I50.825501 J31.888742
G03 X84.419861 Y165.183223 Z-0.125000 I8.982135 J8.533600
G03 X94.599613 Y173.698128 Z-0.125000 I-3.034403 J13.970204
G03 X100.015463 Y190.808747 Z-0.125000 I-97.722681 J40.343585
G02 X104.506668 Y208.614794 Z-0.125000 I351.117804 J-79.092731
G02 X110.859273 Y213.579486 Z-0.125000 I6.546548 J-1.830074
G02 X126.486393 Y211.918377 Z-0.125000 I1.672672 J-58.601836
G02 X132.971238 Y208.739859 Z-0.125000 I-4.021291 J-16.408765
G02 X137.237068 Y202.885245 Z-0.125000 I-8.444956 J-10.634629
G02 X138.732179 Y195.865964 Z-0.125000 I-22.500244 J-8.461435
G02 X137.841069 Y179.532657 Z-0.125000 I-71.437439 J-4.293489
G03 X141.072859 Y167.397281 Z-0.125000 I14.870395 J-2.537862
G03 X152.368838 Y162.361728 Z-0.125000 I10.705918 J8.828395
G03 X164.146695 Y163.175138 Z-0.125000 I-9.502414 J223.267086
G02 X170.074644 Y163.277377 Z-0.125000 I3.616961 J-37.809958
G02 X174.635276 Y161.848042 Z-0.125000 I-0.604683 J-9.919937
G02 X177.594051 Y158.641104 Z-0.125000 I-4.116138 J-6.765995
G02 X180.013593 Y150.120779 Z-0.125000 I-21.013794 J-10.571055
G02 X177.788504 Y133.014266 Z-0.125000 I-39.974844 J-3.498337
G02 X169.290913 Y120.242665 Z-0.125000 I-30.218910 J10.893429
G02 X157.296260 Y114.963926 Z-0.125000 I-13.753131 J14.983817
G02 X139.326242 Y119.825226 Z-0.125000 I-2.342032 J26.986720
G02 X132.041532 Y131.262838 Z-0.125000 I10.321212 J14.612316
G03 X127.655463 Y143.850220 Z-0.125000 I-41.978685 J-7.569606
G03 X124.508526 Y147.044780 Z-0.125000 I-7.011165 J-3.759355
G03 X119.563252 Y147.081916 Z-0.125000 I-2.506651 J-4.510872
G03 X109.335609 Y133.269487 Z-0.125000 I9.508753 J-17.733744
G02 X95.476487 Y120.842270 Z-0.125000 I-15.211156 J3.022220
G02 X89.104393 Y124.228399 Z-0.125000 I-0.577718 J6.601477
G02 X86.390413 Y131.403176 Z-0.125000 I23.214756 J12.882064
G03 X84.187335 Y138.982690 Z-0.125000 I-58.257358 J-12.823281
G03 X79.967390 Y141.295033 Z-0.125000 I-3.427008 J-1.247372
G03 X79.208178 Y140.903269 Z-0.125000 I0.365110 J-1.639092
G02 X59.581669 Y125.619614 Z-0.125000 I-115.845709 J128.519763
G02 X51.761544 Y120.981851 Z-0.125000 I-46.502433 J69.499735
G02 X47.396769 Y119.700784 Z-0.125000 I-5.418231 J10.384439
G02 X45.215358 Y121.018432 Z-0.125000 I-0.193614 J2.143991
G02 X44.911700 Y127.040758 Z-0.125000 I8.264265 J3.435518
G00 Z10.000000

(End cutting path id: path18902)


(Start cutting path id: path18906)
(Change tool to Default tool)

G00 Z10.000000
G00 X40.668097 Y140.755333

G00 Z4.875000 (Fast pre-penetrate)
G01 Z-0.125000 F100.0(Penetrate)
G03 X42.145393 Y150.690580 Z-0.125000 I-28.193875 J9.269671 F800.000000
G02 X41.945824 Y168.271730 Z-0.125000 I793.445044 J17.798368
G02 X42.959320 Y184.762295 Z-0.125000 I134.068518 J0.036694
G02 X46.812003 Y189.743134 Z-0.125000 I6.125283 J-0.757466
G02 X58.593498 Y187.788386 Z-0.125000 I4.265800 J-10.771120
G02 X65.709858 Y179.346146 Z-0.125000 I-21.872630 J-25.657942
G03 X72.824522 Y169.702734 Z-0.125000 I51.744244 J30.729373
G03 X84.380203 Y165.834878 Z-0.125000 I9.215514 J8.336533
G03 X94.796107 Y174.123320 Z-0.125000 I-2.700254 J14.082292
G03 X100.645887 Y191.147430 Z-0.125000 I-96.997977 J42.847283
G02 X105.585566 Y208.891505 Z-0.125000 I350.127640 J-87.910586
G02 X112.076990 Y213.713931 Z-0.125000 I6.519382 J-1.995443
G02 X127.705607 Y211.665386 Z-0.125000 I0.241123 J-58.801090
G02 X134.130074 Y208.319370 Z-0.125000 I-4.434256 J-16.354536
G02 X138.263954 Y202.344409 Z-0.125000 I-8.728370 J-10.456402
G02 X139.591092 Y195.269533 Z-0.125000 I-22.768360 J-7.932908
G02 X138.297321 Y178.913954 Z-0.125000 I-71.735575 J-2.554478
G03 X141.240457 Y166.666608 Z-0.125000 I14.848362 J-2.909121
G03 X152.443542 Y161.340642 Z-0.125000 I10.951176 J8.589885
G03 X164.273139 Y161.867626 Z-0.125000 I-4.056786 J224.102659
G02 X170.219602 Y161.824874 Z-0.125000 I2.700177 J-38.000706
G02 X174.757524 Y160.279918 Z-0.125000 I-0.849409 J-9.931911
G02 X177.645702 Y156.991814 Z-0.125000 I-4.293059 J-6.683401
G02 X179.862985 Y148.389188 Z-0.125000 I-21.329589 J-10.084653
G02 X177.212685 Y131.291003 Z-0.125000 I-40.168529 J-2.528184
G02 X168.379171 Y118.693148 Z-0.125000 I-30.033568 J11.663374
G02 X156.222767 Y113.694089 Z-0.125000 I-13.423086 J15.361308
G02 X138.323346 Y119.008883 Z-0.125000 I-1.687033 J27.116997
G02 X131.299247 Y130.655902 Z-0.125000 I10.707168 J14.398854
G03 X127.209796 Y143.384757 Z-0.125000 I-42.277570 J-6.561341
G03 X124.132644 Y146.665061 Z-0.125000 I-7.122224 J-3.597697
G03 X119.174924 Y146.823486 Z-0.125000 I-2.623964 J-4.461634
G03 X108.581180 Y133.224388 Z-0.125000 I9.099859 J-18.014652
G02 X94.380093 Y121.103234 Z-0.125000 I-15.178174 J3.403138
G02 X88.073769 Y124.654659 Z-0.125000 I-0.417506 J6.633463
G02 X85.528281 Y131.915320 Z-0.125000 I23.593131 J12.347966
G03 X83.504992 Y139.569291 Z-0.125000 I-58.728979 J-11.430299
G03 X79.330317 Y141.991291 Z-0.125000 I-3.466831 J-1.166760
G03 X78.559456 Y141.617075 Z-0.125000 I0.325930 J-1.652463
G02 X58.505411 Y126.773101 Z-0.125000 I-113.009101 J131.705665
G02 X50.550516 Y122.314450 Z-0.125000 I-44.924882 J70.826974
G02 X46.142560 Y121.136884 Z-0.125000 I-5.178387 J10.545259
G02 X43.987547 Y122.511547 Z-0.125000 I-0.141597 J2.154526
G02 X43.830650 Y128.557579 Z-0.125000 I8.370774 J3.242277
G00 Z10.000000

(End cutting path id: path18906)


(Start cutting path id: path18910)
(Change tool to Default tool)

G00 Z10.000000
G00 X39.926636 Y142.402281

G00 Z4.875000 (Fast pre-penetrate)
G01 Z-0.125000 F100.0(Penetrate)
G03 X41.651390 Y152.328155 Z-0.125000 I-28.042847 J9.985607 F800.000000
G02 X41.882116 Y169.961676 Z-0.125000 I796.024032 J-1.597326
G02 X43.302458 Y186.471940 Z-0.125000 I134.431528 J-3.248623
G02 X47.287603 Y191.371818 Z-0.125000 I6.123264 J-0.909614
G02 X59.053012 Y189.123079 Z-0.125000 I4.013368 J-10.904744
G02 X65.981709 Y180.483650 Z-0.125000 I-22.560470 J-25.191242
G03 X72.879271 Y170.639848 Z-0.125000 I52.636992 J29.544329
G03 X84.371377 Y166.478370 Z-0.125000 I9.444692 J8.133218
G03 X95.018524 Y174.533948 Z-0.125000 I-2.362451 J14.186493
G03 X101.301285 Y191.460682 Z-0.125000 I-96.209902 J45.339963
G02 X106.689131 Y209.131627 Z-0.125000 I348.918777 J-96.727990
G02 X113.316261 Y213.808001 Z-0.125000 I6.488088 J-2.160593
G02 X128.936884 Y211.370938 Z-0.125000 I-1.199173 J-58.965789
G02 X135.296705 Y207.858451 Z-0.125000 I-4.847006 J-16.290037
G02 X139.295329 Y201.766051 Z-0.125000 I-9.008180 J-10.270746
G02 X140.452677 Y194.639547 Z-0.125000 I-23.024249 J-7.396381
G02 X138.754610 Y178.271501 Z-0.125000 I-71.991911 J-0.803459
G03 X141.405567 Y165.918957 Z-0.125000 I14.817174 J-3.280845
G03 X152.508390 Y160.304071 Z-0.125000 I11.191248 J8.344717
G03 X164.382849 Y160.542589 Z-0.125000 I1.423995 J224.807707
G02 X170.344324 Y160.354000 Z-0.125000 I1.776241 J-38.169494
G02 X174.856641 Y158.693667 Z-0.125000 I-1.095090 J-9.937919
G02 X177.672042 Y155.325906 Z-0.125000 I-4.468433 J-6.596247
G02 X179.684501 Y146.645713 Z-0.125000 I-21.634323 J-9.589195
G02 X176.608044 Y129.566299 Z-0.125000 I-40.338962 J-1.550662
G02 X167.441957 Y117.150891 Z-0.125000 I-29.828864 J12.430862
G02 X155.130219 Y112.436230 Z-0.125000 I-13.082902 J15.731733
G02 X137.312703 Y118.204009 Z-0.125000 I-1.027076 J27.231564
G02 X130.555050 Y130.054610 Z-0.125000 I11.088925 J14.175350
G03 X126.766481 Y142.918056 Z-0.125000 I-42.552473 J-5.543011
G03 X123.761405 Y146.282627 Z-0.125000 I-7.229611 J-3.432867
G03 X118.794180 Y146.562970 Z-0.125000 I-2.740383 J-4.409381
G03 X107.838573 Y133.186751 Z-0.125000 I8.682970 J-18.286295
G02 X93.302102 Y121.380867 Z-0.125000 I-15.135767 J3.784275
G02 X87.065776 Y125.096423 Z-0.125000 I-0.256076 J6.661609
G02 X84.691340 Y132.439069 Z-0.125000 I23.959441 J11.803153
G03 X82.850151 Y140.163291 Z-0.125000 I-59.167632 J-10.021979
G03 X78.723552 Y142.694136 Z-0.125000 I-3.504787 J-1.084956
G03 X77.941439 Y142.337798 Z-0.125000 I0.286322 J-1.664921
G02 X57.469477 Y127.945170 Z-0.125000 I-110.086781 J134.830690
G02 X49.383838 Y123.669417 Z-0.125000 I-43.310555 J72.119152
G02 X44.935121 Y122.596690 Z-0.125000 I-4.933955 J10.700636
G02 X42.807976 Y124.027875 Z-0.125000 I-0.089181 J2.163814
G02 X42.798816 Y130.094080 Z-0.125000 I8.472833 J3.045903
G00 Z10.000000

(End cutting path id: path18910)


(Start cutting path id: path18918)
(Change tool to Default tool)

G00 Z10.000000
G00 X38.604494 Y145.732580

G00 Z4.875000 (Fast pre-penetrate)
G01 Z-0.125000 F100.0(Penetrate)
G03 X40.825331 Y155.621419 Z-0.125000 I-27.686948 J11.411737 F800.000000
G02 X41.923737 Y173.328382 Z-0.125000 I799.773146 J-40.724278
G02 X44.162276 Y189.848227 Z-0.125000 I134.918183 J-9.870648
G02 X48.407379 Y194.575821 Z-0.125000 I6.108003 J-1.214905
G02 X60.118845 Y191.738079 Z-0.125000 I3.496769 J-11.154403
G02 X66.656285 Y182.716612 Z-0.125000 I-23.906924 J-24.203667
G03 X73.103254 Y172.486512 Z-0.125000 I54.341951 J27.099609
G03 X84.446106 Y167.740267 Z-0.125000 I9.889795 J7.708181
G03 X95.540321 Y175.311340 Z-0.125000 I-1.676639 J14.370800
G03 X102.685125 Y192.010702 Z-0.125000 I-94.444346 J50.286043
G02 X108.967285 Y209.501833 Z-0.125000 I345.843034 J-114.340162
G02 X115.856091 Y213.875011 Z-0.125000 I6.413103 J-2.489827
G02 X131.432051 Y210.658581 Z-0.125000 I-4.102713 J-59.190361
G02 X137.649834 Y206.816663 Z-0.125000 I-5.670858 J-16.130162
G02 X141.368283 Y200.498466 Z-0.125000 I-9.556231 J-9.877437
G02 X142.180977 Y193.280821 Z-0.125000 I-23.498432 J-6.300456
G02 X139.670366 Y176.917527 Z-0.125000 I-72.377525 J2.730595
G03 X141.727023 Y164.375316 Z-0.125000 I14.727183 J-4.024783
G03 X152.607296 Y158.187805 Z-0.125000 I11.655143 J7.834865
G03 X164.550568 Y157.843920 Z-0.125000 I12.478626 J225.818618
G02 X170.531438 Y157.361457 Z-0.125000 I-0.090993 J-38.440296
G02 X174.983855 Y155.471392 Z-0.125000 I-1.588737 J-9.931881
G02 X177.647290 Y151.949081 Z-0.125000 I-4.814079 J-6.408367
G02 X179.242850 Y143.128253 Z-0.125000 I-22.209590 J-8.572116
G02 X175.312262 Y126.117909 Z-0.125000 I-40.609120 J0.424274
G02 X165.491972 Y114.093261 Z-0.125000 I-29.361383 J13.956515
G02 X152.889346 Y109.960972 Z-0.125000 I-12.372692 J16.450306
G02 X135.269610 Y116.632096 Z-0.125000 I0.306238 J27.412972
G02 X129.061844 Y128.871764 Z-0.125000 I11.838863 J13.698558
G03 X125.887210 Y141.983244 Z-0.125000 I-43.029507 J-3.478503
G03 X123.033027 Y145.511672 Z-0.125000 I-7.433090 J-3.094102
G03 X118.055701 Y146.037466 Z-0.125000 I-2.970244 J-4.295901
G03 X106.390068 Y133.135328 Z-0.125000 I7.826071 J-18.800927
G02 X91.203526 Y121.987053 Z-0.125000 I-15.022568 J4.546292
G02 X85.119812 Y126.026946 Z-0.125000 I0.070066 J6.706221
G02 X83.094802 Y133.521585 Z-0.125000 I24.654689 J10.682455
G03 X81.624355 Y141.373427 Z-0.125000 I-59.944647 J-7.162470
G03 X77.602290 Y144.119235 Z-0.125000 I-3.574956 J-0.917935
G03 X76.798903 Y143.799620 Z-0.125000 I0.205872 J-1.686990
G02 X55.521213 Y130.343854 Z-0.125000 I-103.990062 J140.889000
G02 X47.186574 Y126.444898 Z-0.125000 I-39.974625 J74.594332
G02 X42.663751 Y125.585638 Z-0.125000 I-4.431813 J10.994555
G02 X40.596711 Y127.128239 Z-0.125000 I0.016727 J2.178600
G02 X40.885620 Y133.224060 Z-0.125000 I8.663256 J2.644165
G00 Z10.000000

(End cutting path id: path18918)


(Start cutting path id: path18922)
(Change tool to Default tool)

G00 Z10.000000
G00 X38.025416 Y147.414624

G00 Z4.875000 (Fast pre-penetrate)
G01 Z-0.125000 F100.0(Penetrate)
G03 X40.494582 Y157.275746 Z-0.125000 I-27.482080 J12.121040 F800.000000
G02 X42.029871 Y175.003611 Z-0.125000 I800.935275 J-60.433131
G02 X44.679283 Y191.513211 Z-0.125000 I135.040679 J-13.203545
G02 X49.051701 Y196.149544 Z-0.125000 I6.094726 J-1.367866
G02 X60.725255 Y193.017144 Z-0.125000 I3.232869 J-11.270216
G02 X67.059275 Y183.811111 Z-0.125000 I-24.564605 J-23.683179
G03 X73.272961 Y173.395397 Z-0.125000 I55.152825 J25.841134
G03 X84.530133 Y168.358374 Z-0.125000 I10.105393 J7.486639
G03 X95.839843 Y175.678024 Z-0.125000 I-1.329003 J14.450696
G03 X103.413168 Y192.247397 Z-0.125000 I-93.467108 J52.736241
G02 X110.140921 Y209.631816 Z-0.125000 I343.974826 J-123.123902
G02 X117.155498 Y213.847991 Z-0.125000 I6.369408 J-2.653707
G02 X132.694702 Y210.241178 Z-0.125000 I-5.564283 J-59.249680
G02 X138.835130 Y206.236515 Z-0.125000 I-6.081450 J-16.034758
G02 X142.408791 Y199.810133 Z-0.125000 I-9.824089 J-9.669932
G02 X143.046807 Y192.553081 Z-0.125000 I-23.716285 J-5.741631
G02 X140.128427 Y176.207121 Z-0.125000 I-72.506072 J4.511613
G03 X141.883286 Y163.580637 Z-0.125000 I14.668330 J-4.396550
G03 X152.641313 Y157.109789 Z-0.125000 I11.878615 J7.570405
G03 X164.608412 Y156.472300 Z-0.125000 I18.046107 J226.122397
G02 X170.593610 Y155.841970 Z-0.125000 I-1.033236 J-38.541885
G02 X175.011735 Y153.837692 Z-0.125000 I-1.836413 J-9.919772
G02 X177.596047 Y150.240600 Z-0.125000 I-4.984120 J-6.307703
G02 X178.979760 Y141.356851 Z-0.125000 I-22.479631 J-8.051012
G02 X174.621711 Y124.396890 Z-0.125000 I-40.708386 J1.420563
G02 X164.480230 Y112.580419 Z-0.125000 I-29.098664 J14.713720
G02 X151.742307 Y108.745804 Z-0.125000 I-12.002983 J16.797929
G02 X134.238467 Y115.866723 Z-0.125000 I0.978832 J27.479495
G02 X128.313877 Y128.291573 Z-0.125000 I12.206531 J13.445436
G03 X125.451975 Y141.516255 Z-0.125000 I-43.230957 J-2.433436
G03 X122.676555 Y145.124155 Z-0.125000 I-7.528972 J-2.920290
G03 X117.698668 Y145.773341 Z-0.125000 I-3.083541 J-4.234716
G03 X105.685359 Y133.122233 Z-0.125000 I7.386482 J-19.043482
G02 X90.184610 Y122.316003 Z-0.125000 I-14.951730 J4.926705
G02 X84.183466 Y126.515890 Z-0.125000 I0.234593 J6.722614
G02 X82.336646 Y134.080392 Z-0.125000 I24.983044 J10.107128
G03 X81.054641 Y141.989472 Z-0.125000 I-60.282030 J-5.712839
G03 X77.089002 Y144.841257 Z-0.125000 I-3.607104 J-0.832808
G03 X76.275613 Y144.540467 Z-0.125000 I0.165086 J-1.696589
G02 X54.610719 Y131.569782 Z-0.125000 I-100.818348 J143.817819
G02 X46.158026 Y127.864540 Z-0.125000 I-38.254612 J75.775385
G02 X41.601931 Y127.113794 Z-0.125000 I-4.174355 J11.132852
G02 X39.567111 Y128.711215 Z-0.125000 I0.070159 J2.184074
G02 X40.006182 Y134.816418 Z-0.125000 I8.751448 J2.439008
G00 Z10.000000

(End cutting path id: path18922)


(Start cutting path id: path18926)
(Change tool to Default tool)

G00 Z10.000000
G00 X37.502020 Y149.107034

G00 Z4.875000 (Fast pre-penetrate)
G01 Z-0.125000 F100.0(Penetrate)
G03 X40.219505 Y158.934279 Z-0.125000 I-27.259261 J12.827234 F800.000000
G02 X42.193371 Y176.672397 Z-0.125000 I801.618034 J-80.223693
G02 X45.254513 Y193.161659 Z-0.125000 I135.081857 J-16.548440
G02 X49.752354 Y197.703365 Z-0.125000 I6.077665 J-1.520913
G02 X61.380674 Y194.276439 Z-0.125000 I2.965417 J-11.379878
G02 X67.506201 Y184.890326 Z-0.125000 I-25.211307 J-23.145168
G03 X73.481425 Y174.294214 Z-0.125000 I55.935021 J24.559373
G03 X84.645565 Y168.967724 Z-0.125000 I10.316150 J7.259222
G03 X96.165190 Y176.029992 Z-0.125000 I-0.978471 J14.522291
G03 X104.165008 Y192.458523 Z-0.125000 I-92.427184 J55.169114
G02 X111.336944 Y209.725023 Z-0.125000 I341.886702 J-131.885745
G02 X118.473783 Y213.780690 Z-0.125000 I6.321580 J-2.816959
G02 X133.966567 Y209.783341 Z-0.125000 I-7.031251 J-59.273331
G02 X140.025441 Y205.617389 Z-0.125000 I-6.490813 J-15.929032
G02 X143.451271 Y199.086077 Z-0.125000 I-10.087587 J-9.455302
G02 X143.913173 Y191.793792 Z-0.125000 I-23.921036 J-5.175958
G02 X140.586345 Y175.475205 Z-0.125000 I-72.591326 J6.300594
G03 X142.036526 Y162.771620 Z-0.125000 I14.600198 J-4.767876
G03 X152.665036 Y156.019666 Z-0.125000 I12.096212 J7.299762
G03 X164.648831 Y155.087196 Z-0.125000 I23.636083 J226.290925
G02 X170.634746 Y154.308494 Z-0.125000 I-1.980513 J-38.620641
G02 X175.015687 Y152.190535 Z-0.125000 I-2.084461 J-9.901559
G02 X177.518830 Y148.520399 Z-0.125000 I-5.152154 J-6.202600
G02 X178.688578 Y139.578749 Z-0.125000 I-22.737638 J-7.521882
G02 X173.903147 Y122.679782 Z-0.125000 I-40.783524 J2.421984
G02 X163.444710 Y111.079921 Z-0.125000 I-28.816683 J15.466534
G02 X150.578417 Y107.547099 Z-0.125000 I-11.623757 J17.137432
G02 X133.201808 Y115.116189 Z-0.125000 I1.654873 J27.529720
G02 X127.565694 Y127.719778 Z-0.125000 I12.568974 J13.182617
G03 X125.020140 Y141.050304 Z-0.125000 I-43.407280 J-1.380605
G03 X122.325635 Y144.735961 Z-0.125000 I-7.620880 J-2.743688
G03 X117.350217 Y145.508885 Z-0.125000 I-3.195640 J-4.170587
G03 X104.994443 Y133.118003 Z-0.125000 I6.939760 J-19.275921
G02 X89.187020 Y122.662444 Z-0.125000 I-14.871377 J5.306409
G02 X83.272590 Y127.020735 Z-0.125000 I0.399968 J6.735020
G02 X81.606154 Y134.650923 Z-0.125000 I25.298200 J9.522203
G03 X80.514503 Y142.612780 Z-0.125000 I-60.584847 J-4.251028
G03 X76.608039 Y145.569447 Z-0.125000 I-3.637254 J-0.746663
G03 X75.785085 Y145.287776 Z-0.125000 I0.123962 J-1.705222
G02 X53.743829 Y132.812971 Z-0.125000 I-97.566268 J146.676770
G02 X45.177510 Y129.304860 Z-0.125000 I-36.500998 J76.917449
G02 X40.590714 Y128.663736 Z-0.125000 I-3.912811 J11.265211
G02 X38.589544 Y130.315336 Z-0.125000 I0.123871 J2.188253
G02 X39.179411 Y136.426267 Z-0.125000 I8.834851 J2.231137
G00 Z10.000000

(End cutting path id: path18926)


(Start cutting path id: path18930)
(Change tool to Default tool)

G00 Z10.000000
G00 X37.035377 Y150.809107

G00 Z4.875000 (Fast pre-penetrate)
G01 Z-0.125000 F100.0(Penetrate)
G03 X40.001023 Y160.596297 Z-0.125000 I-27.018523 J13.529873 F800.000000
G02 X42.414900 Y178.333948 Z-0.125000 I801.816727 J-100.084345
G02 X45.888386 Y194.792726 Z-0.125000 I135.041091 J-19.903370
G02 X50.509672 Y199.236476 Z-0.125000 I6.056809 J-1.673958
G02 X62.085416 Y195.515338 Z-0.125000 I2.694556 J-11.483278
G02 X67.997474 Y185.953768 Z-0.125000 I-25.846580 J-22.589860
G03 X73.729173 Y175.182615 Z-0.125000 I56.687894 J23.254974
G03 X84.792936 Y169.568157 Z-0.125000 I10.521902 J7.026026
G03 X96.516734 Y176.367202 Z-0.125000 I-0.625237 J14.585484
G03 X104.940746 Y192.644063 Z-0.125000 I-91.324881 J57.583091
G02 X112.555175 Y209.781442 Z-0.125000 I339.577885 J-140.619933
G02 X119.810675 Y213.673170 Z-0.125000 I6.269622 J-2.979481
G02 X135.247341 Y209.285367 Z-0.125000 I-8.502762 J-59.261099
G02 X141.220489 Y204.959689 Z-0.125000 I-6.898691 J-15.812989
G02 X144.495518 Y198.326787 Z-0.125000 I-10.346536 J-9.233636
G02 X144.779966 Y191.003489 Z-0.125000 I-24.112476 J-4.603740
G02 X141.044259 Y174.722357 Z-0.125000 I-72.632957 J8.096495
G03 X142.187047 Y161.948927 Z-0.125000 I14.522791 J-5.138539
G03 X152.678800 Y154.918283 Z-0.125000 I12.307762 J7.023053
G03 X164.672108 Y153.689626 Z-0.125000 I29.245308 J226.323063
G02 X170.655106 Y152.762134 Z-0.125000 I-2.932280 J-38.676411
G02 X174.995976 Y150.531098 Z-0.125000 I-2.332733 J-9.877219
G02 X177.415941 Y146.789709 Z-0.125000 I-5.318065 J-6.093095
G02 X178.369729 Y137.795247 Z-0.125000 I-22.983365 J-6.984997
G02 X173.157257 Y120.967911 Z-0.125000 I-40.834307 J3.427941
G02 X162.386317 Y109.593014 Z-0.125000 I-28.515487 J16.214467
G02 X149.398705 Y106.365947 Z-0.125000 I-11.235186 J17.468559
G02 X132.160653 Y114.381299 Z-0.125000 I2.333972 J27.563514
G02 X126.818175 Y127.157041 Z-0.125000 I12.925966 J12.910211
G03 X124.592416 Y140.585948 Z-0.125000 I-43.558348 J-0.320621
G03 X121.980953 Y144.347588 Z-0.125000 I-7.708688 J-2.564338
G03 X117.011039 Y145.244524 Z-0.125000 I-3.306472 J-4.103542
G03 X104.318254 Y133.122964 Z-0.125000 I6.486136 J-19.498039
G02 X88.211924 Y123.026537 Z-0.125000 I-14.781503 J5.685171
G02 X82.388322 Y127.541534 Z-0.125000 I0.566093 J6.743408
G02 X80.904368 Y135.233164 Z-0.125000 I25.599854 J8.927972
G03 X80.004878 Y143.243274 Z-0.125000 I-60.852628 J-2.777845
G03 X76.160318 Y146.303655 Z-0.125000 I-3.665375 J-0.659547
G03 X75.328236 Y146.041391 Z-0.125000 I0.082505 J-1.712863
G02 X52.921757 Y134.073027 Z-0.125000 I-94.235388 J149.463811
G02 X44.246336 Y130.765364 Z-0.125000 I-34.714682 J78.019653
G02 X39.631442 Y130.234910 Z-0.125000 I-3.647319 J11.391517
G02 X37.665341 Y131.940009 Z-0.125000 I0.177829 J2.191127
G02 X38.406553 Y138.052989 Z-0.125000 I8.913387 J2.020660
G00 Z10.000000

(End cutting path id: path18930)


(Start cutting path id: path18934)
(Change tool to Default tool)

G00 Z10.000000
G00 X36.626488 Y152.517421

G00 Z4.875000 (Fast pre-penetrate)
G01 Z-0.125000 F100.0(Penetrate)
G03 X39.839982 Y162.258369 Z-0.125000 I-26.759960 J14.228519 F800.000000
G02 X42.695048 Y179.984768 Z-0.125000 I801.528476 J-120.003393
G02 X46.581245 Y196.402874 Z-0.125000 I134.918034 J-23.266372
G02 X51.323907 Y200.745377 Z-0.125000 I6.032144 J-1.826903
G02 X62.839724 Y196.730521 Z-0.125000 I2.420430 J-11.580322
G02 X68.533438 Y186.998252 Z-0.125000 I-26.469957 J-22.017485
G03 X74.016664 Y176.057553 Z-0.125000 I57.410859 J21.928616
G03 X84.972720 Y170.156811 Z-0.125000 I10.722492 J6.787156
G03 X96.894793 Y176.686921 Z-0.125000 I-0.269501 J14.640196
G03 X105.740426 Y192.801304 Z-0.125000 I-90.160404 J59.976553
G02 X113.795378 Y209.798368 Z-0.125000 I337.048725 J-149.321081
G02 X121.165841 Y213.522806 Z-0.125000 I6.213540 J-3.141167
G02 X136.536670 Y208.744871 Z-0.125000 I-9.977944 J-59.212777
G02 X142.419947 Y204.261137 Z-0.125000 I-7.304825 J-15.686638
G02 X145.541278 Y197.530066 Z-0.125000 I-10.600752 J-9.005026
G02 X145.647033 Y190.180020 Z-0.125000 I-24.290411 J-4.025285
G02 X141.502261 Y173.946464 Z-0.125000 I-72.630707 J9.898265
G03 X142.335117 Y161.110534 Z-0.125000 I14.436088 J-5.508303
G03 X152.682916 Y153.803797 Z-0.125000 I12.513105 J6.740412
G03 X164.678504 Y152.277920 Z-0.125000 I34.870411 J226.217354
G02 X170.654931 Y151.201307 Z-0.125000 I-3.887983 J-38.709007
G02 X174.952851 Y148.857871 Z-0.125000 I-2.581078 J-9.846727
G02 X177.287666 Y145.047076 Z-0.125000 I-5.481740 J-5.979226
G02 X178.023615 Y136.004952 Z-0.125000 I-23.216602 J-6.440640
G02 X172.384706 Y119.259906 Z-0.125000 I-40.860576 J4.437860
G02 X161.305930 Y108.118237 Z-0.125000 I-28.195152 J16.957041
G02 X148.204162 Y105.200722 Z-0.125000 I-10.837453 J17.791058
G02 X131.115977 Y113.660148 Z-0.125000 I3.015732 J27.580758
G02 X126.072146 Y126.601312 Z-0.125000 I13.277251 J12.628321
G03 X124.169459 Y140.121027 Z-0.125000 I-43.683861 J0.745927
G03 X121.643123 Y143.956821 Z-0.125000 I-7.792342 J-2.382356
G03 X116.681766 Y144.977971 Z-0.125000 I-3.415963 J-4.033602
G03 X103.657657 Y133.134717 Z-0.125000 I6.025842 J-19.709639
G02 X87.260415 Y123.405715 Z-0.125000 I-14.682104 J6.062750
G02 X81.531728 Y128.075615 Z-0.125000 I0.732872 J6.747746
G02 X80.232253 Y135.824381 Z-0.125000 I25.887778 J8.324748
G03 X79.526625 Y143.878165 Z-0.125000 I-61.084990 J-1.294128
G03 X75.746678 Y147.041024 Z-0.125000 I-3.691437 J-0.571507
G03 X74.905922 Y146.798438 Z-0.125000 I0.040771 J-1.719544
G02 X52.145641 Y135.346835 Z-0.125000 I-90.827172 J152.176710
G02 X43.365735 Y132.242836 Z-0.125000 I-32.896508 J79.081033
G02 X38.725380 Y131.824040 Z-0.125000 I-3.378013 J11.511661
G02 X36.795754 Y133.581924 Z-0.125000 I0.232005 J2.192686
G02 X37.688769 Y139.693249 Z-0.125000 I8.986975 J1.807689
G00 Z10.000000

(End cutting path id: path18934)


(Start cutting path id: path18938)
(Change tool to Default tool)

G00 Z10.000000
G00 X36.276013 Y154.228535

G00 Z4.875000 (Fast pre-penetrate)
G01 Z-0.125000 F100.0(Penetrate)
G03 X39.736892 Y163.917040 Z-0.125000 I-26.483523 J14.922702 F800.000000
G02 X43.034061 Y181.621347 Z-0.125000 I800.753539 J-139.969485
G02 X47.333086 Y197.988560 Z-0.125000 I134.712270 J-26.635431
G02 X52.194971 Y202.226570 Z-0.125000 I6.003667 J-1.979657
G02 X63.643501 Y197.918671 Z-0.125000 I2.143186 J-11.670908
G02 X69.114098 Y188.020592 Z-0.125000 I-27.080990 J-21.428285
G03 X74.344024 Y176.915977 Z-0.125000 I58.103286 J20.580958
G03 X85.185066 Y170.730817 Z-0.125000 I10.917769 J6.542723
G03 X97.299358 Y176.986407 Z-0.125000 I0.088534 J14.686339
G03 X106.563770 Y192.927542 Z-0.125000 I-88.934142 J62.347953
G02 X115.056997 Y209.773118 Z-0.125000 I334.299999 J-157.983989
G02 X122.538633 Y213.326998 Z-0.125000 I6.153345 J-3.301916
G02 X137.833887 Y208.159491 Z-0.125000 I-11.455925 J-59.128173
G02 X143.623176 Y203.519476 Z-0.125000 I-7.708960 J-15.549992
G02 X146.587989 Y196.693737 Z-0.125000 I-10.850052 J-8.769568
G02 X146.513914 Y189.321251 Z-0.125000 I-24.454649 J-3.440907
G02 X141.960136 Y173.145424 Z-0.125000 I-72.584279 J11.704846
G03 X142.480689 Y160.254420 Z-0.125000 I14.340091 J-5.876943
G03 X152.677377 Y152.674373 Z-0.125000 I12.712073 J6.451973
G03 X164.667967 Y150.850417 Z-0.125000 I40.508131 J225.973637
G02 X170.634152 Y149.624441 Z-0.125000 I-4.847066 J-38.718275
G02 X174.886252 Y147.169354 Z-0.125000 I-2.829347 J-9.810069
G02 X177.133987 Y143.291052 Z-0.125000 I-5.643067 J-5.861041
G02 X177.650343 Y134.206474 Z-0.125000 I-23.437128 J-5.889101
G02 X171.585860 Y117.554392 Z-0.125000 I-40.862177 J5.451156
G02 X160.204132 Y106.654124 Z-0.125000 I-27.855759 J17.693773
G02 X146.995487 Y104.049794 Z-0.125000 I-10.430743 J18.104681
G02 X130.068457 Y112.950818 Z-0.125000 I3.699754 J27.581337
G02 X125.328134 Y126.050534 Z-0.125000 I13.622566 J12.337060
G03 X123.751617 Y139.653386 Z-0.125000 I-43.783574 J1.818439
G03 X121.312455 Y143.561449 Z-0.125000 I-7.871778 J-2.197843
G03 X116.362727 Y144.706935 Z-0.125000 I-3.524030 J-3.960780
G03 X103.013221 Y133.150859 Z-0.125000 I5.559123 J-19.910534
G02 X86.333282 Y123.797407 Z-0.125000 I-14.573182 J6.438914
G02 X80.703562 Y128.620303 Z-0.125000 I0.900208 J6.748011
G02 X79.590464 Y136.421841 Z-0.125000 I26.161687 J7.712838
G03 X79.080292 Y144.514666 Z-0.125000 I-61.281737 J0.199293
G03 X75.367646 Y147.778695 Z-0.125000 I-3.715408 J-0.482589
G03 X74.518678 Y147.556123 Z-0.125000 I-0.001507 J-1.724671
G02 X51.416301 Y136.631326 Z-0.125000 I-87.343926 J154.814473
G02 X42.536617 Y133.734084 Z-0.125000 I-31.047777 J80.101366
G02 X37.873468 Y133.427859 Z-0.125000 I-3.105068 J11.625552
G02 X35.981711 Y135.237769 Z-0.125000 I0.286356 J2.192913
G02 X37.026897 Y141.343707 Z-0.125000 I9.055530 J1.592340
G00 Z10.000000

(End cutting path id: path18938)


(Start cutting path id: path18946)
(Change tool to Default tool)

G00 Z10.000000
G00 X35.752897 Y157.655719

G00 Z4.875000 (Fast pre-penetrate)
G01 Z-0.125000 F100.0(Penetrate)
G03 X39.706541 Y167.220726 Z-0.125000 I-25.877516 J16.295941 F800.000000
G02 X43.889611 Y184.848122 Z-0.125000 I797.724023 J-179.993924
G02 X49.013645 Y201.082759 Z-0.125000 I134.050997 J-33.383702
G02 X54.107176 Y205.102216 Z-0.125000 I5.935245 J-2.284216
G02 X65.399046 Y200.210986 Z-0.125000 I1.579942 J-11.832346
G02 X70.409521 Y189.996474 Z-0.125000 I-28.264253 J-20.200464
G03 X75.118875 Y178.581454 Z-0.125000 I59.394050 J17.824522
G03 X85.708083 Y171.833790 Z-0.125000 I11.291795 J6.037647
G03 X98.188041 Y177.524120 Z-0.125000 I0.810696 J14.752598
G03 X108.280396 Y193.086615 Z-0.125000 I-86.297746 J67.018235
G02 X117.642305 Y209.595800 Z-0.125000 I328.143528 J-175.172219
G02 X125.334562 Y212.799095 Z-0.125000 I6.020663 J-3.620187
G02 X140.449407 Y206.855083 Z-0.125000 I-14.416760 J-58.849480
G02 X146.038505 Y201.908254 Z-0.125000 I-8.510203 J-15.245912
G02 X148.682133 Y194.903997 Z-0.125000 I-11.333183 J-8.278524
G02 X148.245393 Y187.499704 Z-0.125000 I-24.741323 J-2.255668
G02 X142.874787 Y171.469893 Z-0.125000 I-72.358051 J15.328156
G03 X142.764337 Y158.491326 Z-0.125000 I14.120226 J-6.609919
G03 X152.637543 Y150.373736 Z-0.125000 I13.090265 J5.858283
G03 X164.596149 Y147.951754 Z-0.125000 I51.808007 J225.069577
G02 X170.530770 Y146.426686 Z-0.125000 I-6.773111 J-38.666217
G02 X174.682663 Y143.750832 Z-0.125000 I-3.325050 J-9.718191
G02 X176.750612 Y139.743422 Z-0.125000 I-5.958231 J-5.611902
G02 X176.823004 Y130.589789 Z-0.125000 I-23.839231 J-4.765637
G02 X169.911025 Y114.155673 Z-0.125000 I-40.790746 J7.485463
G02 X157.938899 Y103.762333 Z-0.125000 I-27.120155 J19.147766
G02 X144.538761 Y101.794598 Z-0.125000 I-9.591169 J18.704331
G02 X127.967770 Y111.570271 Z-0.125000 I5.072984 J27.532135
G02 X123.848420 Y124.965924 Z-0.125000 I14.294360 J11.726919
G03 X122.932812 Y138.711653 Z-0.125000 I-43.904749 J3.978847
G03 X120.673982 Y142.758372 Z-0.125000 I-8.017619 J-1.821554
G03 X115.756745 Y144.152616 Z-0.125000 I-3.735626 J-3.806647
G03 X101.775151 Y133.197018 Z-0.125000 I4.607383 J-20.279458
G02 X84.555355 Y124.618302 Z-0.125000 I-14.326821 J7.186048
G02 X79.135581 Y129.741048 Z-0.125000 I1.236155 J6.736215
G02 X78.400525 Y137.634796 Z-0.125000 I26.666503 J6.464247
G03 X78.285609 Y145.791603 Z-0.125000 I-61.566570 J3.211841
G03 X74.715517 Y149.253779 Z-0.125000 I-3.756990 J-0.302322
G03 X73.851524 Y149.071794 Z-0.125000 I-0.086055 J-1.733393
G02 X50.101195 Y139.229818 Z-0.125000 I-80.155221 J159.850166
G02 X41.036440 Y136.755038 Z-0.125000 I-27.260304 J82.011669
G02 X36.335822 Y136.676515 Z-0.125000 I-2.548651 J11.834017
G02 X34.523912 Y138.588102 Z-0.125000 I0.395508 J2.189393
G02 X35.874191 Y144.672039 Z-0.125000 I9.177334 J1.154978
G00 Z10.000000

(End cutting path id: path18946)


(Start cutting path id: path18950)
(Change tool to Default tool)

G00 Z10.000000
G00 X35.581488 Y159.370033

G00 Z4.875000 (Fast pre-penetrate)
G01 Z-0.125000 F100.0(Penetrate)
G03 X39.780204 Y168.863987 Z-0.125000 I-25.548071 J16.974094 F800.000000
G02 X44.406538 Y186.436479 Z-0.125000 I795.467249 J-200.028542
G02 X49.942248 Y202.589392 Z-0.125000 I133.594914 J-36.758836
G02 X55.148033 Y206.494885 Z-0.125000 I5.895299 J-2.435831
G02 X66.350535 Y201.313733 Z-0.125000 I1.294252 J-11.903016
G02 X71.124229 Y190.948852 Z-0.125000 I-28.835603 J-19.562385
G03 X75.566571 Y179.387599 Z-0.125000 I59.991252 J16.417177
G03 X86.019020 Y172.362218 Z-0.125000 I11.470245 J5.777241
G03 X98.672126 Y177.762088 Z-0.125000 I1.174404 J14.772573
G03 X109.173103 Y193.119293 Z-0.125000 I-84.888496 J69.313998
G02 X118.964860 Y209.443644 Z-0.125000 I324.737019 J-183.686601
G02 X126.756388 Y212.467086 Z-0.125000 I5.948207 J-3.777502
G02 X141.766391 Y206.136625 Z-0.125000 I-15.897832 J-58.655120
G02 X147.249359 Y201.039473 Z-0.125000 I-8.906795 J-15.078540
G02 X149.728483 Y193.951517 Z-0.125000 I-11.566660 J-8.023156
G02 X149.109119 Y186.537930 Z-0.125000 I-24.863415 J-1.655462
G02 X143.331192 Y170.596439 Z-0.125000 I-72.177839 J17.142719
G03 X142.902398 Y157.585530 Z-0.125000 I13.996378 J-6.973791
G03 X152.603341 Y149.204070 Z-0.125000 I13.269176 J5.553321
G03 X164.534892 Y146.482495 Z-0.125000 I57.463416 J224.408007
G02 X170.448167 Y144.807877 Z-0.125000 I-7.738941 J-38.604668
G02 X174.545700 Y142.023053 Z-0.125000 I-3.572180 J-9.662957
G02 X176.521031 Y137.954144 Z-0.125000 I-6.111845 J-5.481049
G02 X176.369305 Y128.774017 Z-0.125000 I-24.020390 J-4.194317
G02 X169.035933 Y112.464900 Z-0.125000 I-40.717473 J8.505277
G02 X156.776782 Y102.336875 Z-0.125000 I-26.724170 J19.864069
G02 X143.292236 Y100.692202 Z-0.125000 I-9.158714 J18.989881
G02 X126.916052 Y110.900352 Z-0.125000 I5.761369 J27.482169
G02 X123.113844 Y124.433127 Z-0.125000 I14.620325 J11.408295
G03 X122.532607 Y138.238420 Z-0.125000 I-43.925740 J5.065500
G03 X120.366841 Y142.351424 Z-0.125000 I-8.083919 J-1.630003
G03 X115.470493 Y143.869929 Z-0.125000 I-3.838994 J-3.725380
G03 X101.182669 Y133.227372 Z-0.125000 I4.122862 J-20.447126
G02 X83.706144 Y125.047467 Z-0.125000 I-14.189414 J7.556540
G02 X78.397268 Y130.316864 Z-0.125000 I1.404569 J6.724116
G02 X77.853668 Y138.249943 Z-0.125000 I26.896932 J5.828231
G03 X77.938328 Y146.431595 Z-0.125000 I-61.654150 J4.729232
G03 X74.443437 Y149.990605 Z-0.125000 I-3.774543 J-0.211071
G03 X73.572652 Y149.829303 Z-0.125000 I-0.128770 J-1.735952
G02 X49.517000 Y140.542760 Z-0.125000 I-76.454478 J162.246065
G02 X40.367119 Y138.283433 Z-0.125000 I-25.324186 J82.901164
G02 X35.651882 Y138.319888 Z-0.125000 I-2.265535 J11.928432
G02 X33.881923 Y140.281040 Z-0.125000 I0.450228 J2.185614
G02 X35.384938 Y146.348320 Z-0.125000 I9.230423 J0.933203
G00 Z10.000000

(End cutting path id: path18950)


(Start cutting path id: path18954)
(Change tool to Default tool)

G00 Z10.000000
G00 X35.470943 Y161.083627

G00 Z4.875000 (Fast pre-penetrate)
G01 Z-0.125000 F100.0(Penetrate)
G03 X39.913651 Y170.500327 Z-0.125000 I-25.201101 J17.645999 F800.000000
G02 X44.983101 Y188.006905 Z-0.125000 I792.714349 J-220.062233
G02 X50.929595 Y204.067786 Z-0.125000 I133.054963 J-40.131929
G02 X56.245144 Y207.856255 Z-0.125000 I5.851527 J-2.586875
G02 X67.350933 Y202.386589 Z-0.125000 I1.006059 J-11.966877
G02 X71.883523 Y191.876735 Z-0.125000 I-29.392861 J-18.908586
G03 X76.054548 Y180.175398 Z-0.125000 I60.555576 J14.991401
G03 X86.363066 Y172.874902 Z-0.125000 I11.642796 J5.511760
G03 X99.182670 Y177.979285 Z-0.125000 I1.539584 J14.783692
G03 X110.088341 Y193.120632 Z-0.125000 I-83.419154 J71.581408
G02 X120.306577 Y209.249116 Z-0.125000 I321.112818 J-192.140587
G02 X128.193238 Y212.089787 Z-0.125000 I5.871700 J-3.933466
G02 X143.088645 Y205.374403 Z-0.125000 I-17.378136 J-58.423935
G02 X148.461512 Y200.129122 Z-0.125000 I-9.300356 J-14.900995
G02 X150.773637 Y192.961272 Z-0.125000 I-11.794509 J-7.761377
G02 X149.970926 Y185.542842 Z-0.125000 I-24.971130 J-1.050643
G02 X143.786741 Y169.699890 Z-0.125000 I-71.952658 J18.957764
G03 X143.037951 Y156.664355 Z-0.125000 I13.863276 J-7.335611
G03 X152.559701 Y148.022533 Z-0.125000 I13.441098 J5.243151
G03 X164.456779 Y145.001221 Z-0.125000 I63.117794 J223.605790
G02 X170.344987 Y143.177173 Z-0.125000 I-8.705865 J-38.519278
G02 X174.385342 Y140.284416 Z-0.125000 I-3.818621 J-9.601513
G02 X176.266297 Y136.156113 Z-0.125000 I-6.262665 J-5.346077
G02 X175.889198 Y126.954914 Z-0.125000 I-24.188041 J-3.617012
G02 X168.136359 Y110.781461 Z-0.125000 I-40.619004 J9.526045
G02 X155.595908 Y100.926499 Z-0.125000 I-26.309567 J20.572605
G02 X142.034642 Y99.607830 Z-0.125000 I-8.718092 J19.265603
G02 X125.864388 Y110.244856 Z-0.125000 I6.450391 J27.415199
G02 X122.383540 Y123.907352 Z-0.125000 I14.939370 J11.080826
G03 X122.139040 Y137.764171 Z-0.125000 I-43.920257 J6.155606
G03 X120.068217 Y141.941354 Z-0.125000 I-8.145677 J-1.436296
G03 X115.195857 Y143.583947 Z-0.125000 I-3.940655 J-3.641369
G03 X100.608644 Y133.262777 Z-0.125000 I3.632932 J-20.603381
G02 X82.884471 Y125.489053 Z-0.125000 I-14.042556 J7.924664
G02 X77.690387 Y130.902775 Z-0.125000 I1.573139 J6.707854
G02 X77.339723 Y138.870600 Z-0.125000 I27.112396 J5.184848
G03 X77.625107 Y147.072273 Z-0.125000 I-61.704773 J6.252870
G03 X74.207993 Y150.726539 Z-0.125000 I-3.789909 J-0.119144
G03 X73.330905 Y150.586141 Z-0.125000 I-0.171658 J-1.737481
G02 X48.982715 Y141.864014 Z-0.125000 I-72.685033 J164.557791
G02 X39.752759 Y139.822808 Z-0.125000 I-23.361043 J83.745635
G02 X35.025680 Y139.974911 Z-0.125000 I-1.979342 J12.016165
G02 X33.299000 Y141.984732 Z-0.125000 I0.505004 J2.180483
G02 X34.954756 Y148.031565 Z-0.125000 I9.278219 J0.709528
G00 Z10.000000

(End cutting path id: path18954)


(Start cutting path id: path18958)
(Change tool to Default tool)

G00 Z10.000000
G00 X35.421803 Y162.795582

G00 Z4.875000 (Fast pre-penetrate)
G01 Z-0.125000 F100.0(Penetrate)
G03 X40.107271 Y172.128845 Z-0.125000 I-24.836743 J18.311224 F800.000000
G02 X45.619419 Y189.558470 Z-0.125000 I789.462819 J-240.082518
G02 X51.975552 Y205.517003 Z-0.125000 I132.430815 J-43.500879
G02 X57.398294 Y209.185443 Z-0.125000 I5.803936 J-2.737255
G02 X68.400039 Y203.428852 Z-0.125000 I0.715522 J-12.023849
G02 X72.687321 Y192.779541 Z-0.125000 I-29.935608 J-18.239368
G03 X76.582863 Y180.944391 Z-0.125000 I61.086490 J13.547947
G03 X86.740318 Y173.371565 Z-0.125000 I11.809305 J5.241332
G03 X99.719627 Y178.175583 Z-0.125000 I1.906024 J14.785887
G03 X111.025796 Y193.090571 Z-0.125000 I-81.890284 J73.818932
G02 X121.666863 Y209.012209 Z-0.125000 I317.271488 J-200.528470
G02 X129.644436 Y211.667288 Z-0.125000 I5.791169 J-4.087980
G02 X144.415506 Y204.568750 Z-0.125000 I-18.856768 J-58.155850
G02 X149.674344 Y199.177640 Z-0.125000 I-9.690627 J-14.713327
G02 X151.817063 Y191.933772 Z-0.125000 I-12.016557 J-7.493308
G02 X150.830392 Y184.514979 Z-0.125000 I-25.064316 J-0.441552
G02 X144.241267 Y168.780787 Z-0.125000 I-71.682410 J20.772194
G03 X143.171012 Y155.728396 Z-0.125000 I13.720956 J-7.695149
G03 X152.506704 Y146.829901 Z-0.125000 I13.605882 J4.927928
G03 X164.361873 Y143.508886 Z-0.125000 I68.767782 J222.662801
G02 X170.221284 Y141.535618 Z-0.125000 I-9.673308 J-38.409959
G02 X174.201662 Y138.536038 Z-0.125000 I-4.064223 J-9.533866
G02 X175.986530 Y134.350492 Z-0.125000 I-6.410587 J-5.207045
G02 X175.382933 Y125.133684 Z-0.125000 I-24.342005 J-3.034041
G02 X167.212818 Y109.106539 Z-0.125000 I-40.495261 J10.547161
G02 X154.397000 Y99.532274 Z-0.125000 I-25.876473 J21.272890
G02 X140.766796 Y98.542371 Z-0.125000 I-8.269521 J19.531271
G02 X124.813540 Y109.604382 Z-0.125000 I7.139635 J27.331165
G02 X121.658097 Y123.389076 Z-0.125000 I15.251267 J10.744657
G03 X121.752504 Y137.289307 Z-0.125000 I-43.888047 J7.248511
G03 X119.778453 Y141.528516 Z-0.125000 I-8.202877 J-1.240563
G03 X114.933185 Y143.294947 Z-0.125000 I-4.040533 J-3.554635
G03 X100.053654 Y133.303369 Z-0.125000 I3.137850 J-20.748052
G02 X82.091117 Y125.942992 Z-0.125000 I-13.886280 J8.290185
G02 X77.015673 Y131.498618 Z-0.125000 I1.741766 J6.687419
G02 X76.859316 Y139.496554 Z-0.125000 I27.312666 J4.534447
G03 X77.346458 Y147.713383 Z-0.125000 I-61.718192 J7.781867
G03 X74.009665 Y151.461257 Z-0.125000 I-3.803065 J-0.026592
G03 X73.126766 Y151.341973 Z-0.125000 I-0.214697 J-1.737978
G02 X48.499083 Y143.192954 Z-0.125000 I-68.848761 J166.783375
G02 X39.194180 Y141.372420 Z-0.125000 I-21.371904 J84.544262
G02 X34.458063 Y141.640774 Z-0.125000 I-1.690225 J12.097116
G02 X32.775973 Y143.698336 Z-0.125000 I0.559801 J2.173996
G02 X34.584382 Y149.720924 Z-0.125000 I9.320667 J0.484074
G00 Z10.000000

(End cutting path id: path18958)


(Start cutting path id: path18962)
(Change tool to Default tool)

G00 Z10.000000
G00 X35.434565 Y164.504970

G00 Z4.875000 (Fast pre-penetrate)
G01 Z-0.125000 F100.0(Penetrate)
G03 X40.361402 Y173.748618 Z-0.125000 I-24.455093 J18.969310 F800.000000
G02 X46.315557 Y191.090236 Z-0.125000 I785.710774 J-260.076779
G02 X53.079926 Y206.936106 Z-0.125000 I131.722409 J-46.863622
G02 X58.607210 Y210.481565 Z-0.125000 I5.752532 J-2.886876
G02 X69.497599 Y204.439826 Z-0.125000 I0.422804 J-12.073855
G02 X73.535492 Y193.656694 Z-0.125000 I-30.463406 J-17.555034
G03 X77.151529 Y181.694119 Z-0.125000 I61.583477 J12.087582
G03 X87.150838 Y173.851928 Z-0.125000 I11.969640 J4.966093
G03 X100.282923 Y178.350854 Z-0.125000 I2.273506 J14.779108
G03 X111.985125 Y193.029060 Z-0.125000 I-80.302502 J76.025075
G02 X123.045097 Y208.732931 Z-0.125000 I313.214026 J-208.844758
G02 X131.109277 Y211.199684 Z-0.125000 I5.706627 J-4.240934
G02 X145.746285 Y203.720003 Z-0.125000 I-20.332831 J-57.850812
G02 X150.887213 Y198.185463 Z-0.125000 I-10.077355 J-14.515587
G02 X152.858204 Y190.869525 Z-0.125000 I-12.232636 J-7.219072
G02 X151.687067 Y183.454876 Z-0.125000 I-25.142825 J0.171469
G02 X144.694575 Y167.839662 Z-0.125000 I-71.366980 J22.584908
G03 X143.301576 Y154.778248 Z-0.125000 I13.569437 J-8.052167
G03 X152.444419 Y145.626946 Z-0.125000 I13.763387 J4.607817
G03 X164.250220 Y142.006446 Z-0.125000 I74.409924 J221.578849
G02 X170.077099 Y139.884262 Z-0.125000 I-10.640685 J-38.276640
G02 X173.994720 Y136.779041 Z-0.125000 I-4.308831 J-9.460018
G02 X175.681840 Y132.538452 Z-0.125000 I-6.555500 J-5.064014
G02 X174.850751 Y123.311543 Z-0.125000 I-24.482095 J-2.445724
G02 X166.265820 Y107.441330 Z-0.125000 I-40.346159 J11.568001
G02 X153.180769 Y98.155265 Z-0.125000 I-25.425056 J21.964458
G02 X139.489497 Y97.496702 Z-0.125000 I-7.813232 J19.786668
G02 X123.764236 Y108.979529 Z-0.125000 I7.828678 J27.230016
G02 X120.938071 Y122.878775 Z-0.125000 I15.555751 J10.399934
G03 X121.373366 Y136.814231 Z-0.125000 I-43.828943 J8.343588
G03 X119.497869 Y141.113263 Z-0.125000 I-8.255427 J-1.042897
G03 X114.682802 Y143.003202 Z-0.125000 I-4.138556 J-3.465222
G03 X99.518240 Y133.349272 Z-0.125000 I2.637880 J-20.880974
G02 X81.326823 Y126.409195 Z-0.125000 I-13.720631 J8.652865
G02 X76.373816 Y132.104199 Z-0.125000 I1.910347 J6.662794
G02 X76.413031 Y140.127566 Z-0.125000 I27.497562 J3.877383
G03 X77.102843 Y148.354647 Z-0.125000 I-61.694064 J9.315295
G03 X73.848880 Y152.194414 Z-0.125000 I-3.813989 J0.066531
G03 X72.960673 Y152.096442 Z-0.125000 I-0.257865 J-1.737418
G02 X48.066785 Y144.528929 Z-0.125000 I-64.947583 J168.920947
G02 X38.692140 Y142.931500 Z-0.125000 I-19.357822 J85.296305
G02 X33.949809 Y143.316639 Z-0.125000 I-1.398344 J12.171207
G02 X32.313597 Y145.420978 Z-0.125000 I0.614588 J2.166149
G02 X34.274475 Y151.415515 Z-0.125000 I9.357698 J0.256976
G00 Z10.000000

(End cutting path id: path18962)


(Start cutting path id: path18966)
(Change tool to Default tool)

G00 Z10.000000
G00 X35.509705 Y166.209807

G00 Z4.875000 (Fast pre-penetrate)
G01 Z-0.125000 F100.0(Penetrate)
G03 X40.676368 Y175.357684 Z-0.125000 I-24.056274 J19.619818 F800.000000
G02 X47.071567 Y192.600226 Z-0.125000 I781.460152 J-280.033626
G02 X54.242514 Y208.323126 Z-0.125000 I130.929749 J-50.218106
G02 X59.871609 Y211.742712 Z-0.125000 I5.697324 J-3.035641
G02 X70.643352 Y205.417782 Z-0.125000 I0.128069 J-12.116824
G02 X74.427905 Y194.506578 Z-0.125000 I-30.975874 J-16.855924
G03 X77.760558 Y182.423085 Z-0.125000 I62.045975 J10.611089
G03 X87.594695 Y174.314678 Z-0.125000 I12.123661 J4.686184
G03 X100.872494 Y178.503947 Z-0.125000 I2.641815 J14.763309
G03 X112.965994 Y192.935024 Z-0.125000 I-78.656314 J78.198218
G02 X124.440665 Y208.410275 Z-0.125000 I308.942101 J-217.084243
G02 X132.587073 Y210.686075 Z-0.125000 I5.618115 J-4.392232
G02 X147.080316 Y202.827508 Z-0.125000 I-21.805404 J-57.508777
G02 X152.099502 Y197.152041 Z-0.125000 I-10.460281 J-14.307838
G02 X153.896534 Y189.768045 Z-0.125000 I-12.442578 J-6.938801
G02 X152.540536 Y182.362071 Z-0.125000 I-25.206524 J0.788070
G02 X145.146501 Y166.876041 Z-0.125000 I-71.006264 J24.394785
G03 X143.429665 Y153.813489 Z-0.125000 I13.408761 J-8.406439
G03 X152.372941 Y144.413424 Z-0.125000 I13.913473 J4.282984
G03 X164.121903 Y140.493840 Z-0.125000 I80.040844 J220.354007
G02 X169.912512 Y138.223134 Z-0.125000 I-11.607408 J-38.119247
G02 X173.764619 Y135.013523 Z-0.125000 I-4.552290 J-9.379975
G02 X175.352377 Y130.720139 Z-0.125000 I-6.697301 J-4.917043
G02 X174.292933 Y121.488679 Z-0.125000 I-24.608146 J-1.852382
G02 X165.295910 Y105.785983 Z-0.125000 I-40.171638 J12.587942
G02 X151.947963 Y96.795497 Z-0.125000 I-24.955467 J22.646826
G02 X138.203577 Y96.470666 Z-0.125000 I-7.349451 J20.031572
G02 X122.717241 Y108.369858 Z-0.125000 I8.517105 J27.111710
G02 X120.224052 Y122.375898 Z-0.125000 I15.852615 J10.046818
G03 X121.002016 Y136.338318 Z-0.125000 I-43.742777 J9.440162
G03 X119.226801 Y140.694922 Z-0.125000 I-8.303301 J-0.843422
G03 X114.445046 Y142.707957 Z-0.125000 I-4.234644 J-3.373156
G03 X99.002957 Y133.399572 Z-0.125000 I2.133306 J-21.002007
G02 X80.592341 Y126.886542 Z-0.125000 I-13.545642 J9.012464
G02 X75.765516 Y132.718303 Z-0.125000 I2.078782 J6.633975
G02 X76.001453 Y140.762376 Z-0.125000 I27.666826 J3.214014
G03 X76.894737 Y148.994771 Z-0.125000 I-61.632415 J10.852298
G03 X73.726083 Y152.924646 Z-0.125000 I-3.822658 J0.160174
G03 X72.833076 Y152.848176 Z-0.125000 I-0.301138 J-1.735790
G02 X47.686515 Y145.870263 Z-0.125000 I-60.983487 J170.968699
G02 X38.247407 Y144.498250 Z-0.125000 I-17.319872 J86.001028
G02 X33.501707 Y145.000642 Z-0.125000 I-1.103859 J12.238345
G02 X31.912643 Y147.150761 Z-0.125000 I0.669330 J2.156939
G02 X34.025715 Y153.113434 Z-0.125000 I9.389265 J0.028356
G00 Z10.000000

(End cutting path id: path18966)


(Start cutting path id: path18974)
(Change tool to Default tool)

G00 Z10.000000
G00 X35.810586 Y169.597827

G00 Z4.875000 (Fast pre-penetrate)
G01 Z-0.125000 F100.0(Penetrate)
G03 X41.451647 Y178.535780 Z-0.125000 I-23.207759 J20.896358 F800.000000
G02 X48.724950 Y195.546941 Z-0.125000 I771.454619 J-319.783167
G02 X56.703050 Y210.993031 Z-0.125000 I129.091317 J-56.893858
G02 X62.527260 Y214.152426 Z-0.125000 I5.575534 J-3.330222
G02 X73.039965 Y207.267726 Z-0.125000 I-0.466776 J-12.181375
G02 X76.306500 Y196.118076 Z-0.125000 I-31.953164 J-15.414710
G03 X79.061354 Y183.812710 Z-0.125000 I62.865733 J7.612960
