%
(Header)
(Generated by gcodetools from Inkscape.)
(Using default header. To add your own header create file "header" in the output dir.)
M3
(Header end.)
G21 (All units in mm)

(Start cutting path id: path146)
(Change tool to Default tool)

G00 Z3.000000
G00 X152.932080 Y74.002270

G00 Z4.875000 (Fast pre-penetrate)
G01 Z-0.125000 F400.0(Penetrate)
G02 X152.937726 Y73.985080 Z-0.125000 I-0.078032 J-0.035150 F800.000000
G02 X152.940080 Y73.969970 Z-0.125000 I-0.131578 J-0.028241
G02 X152.938495 Y73.954970 Z-0.125000 I-0.062489 J-0.000980
G02 X152.933080 Y73.941070 Z-0.125000 I-0.050228 J0.011563
G02 X152.924473 Y73.928729 Z-0.125000 I-0.064658 J0.035921
G02 X152.911980 Y73.917170 Z-0.125000 I-0.057011 J0.049089
G02 X152.897400 Y73.908027 Z-0.125000 I-0.052418 J0.067394
G02 X152.876780 Y73.899670 Z-0.125000 I-0.066623 J0.134764
G02 X152.855324 Y73.893791 Z-0.125000 I-0.049550 J0.138740
G02 X152.828180 Y73.889670 Z-0.125000 I-0.063540 J0.327085
G02 X152.800684 Y73.888052 Z-0.125000 I-0.029700 J0.270271
G02 X152.767380 Y73.888670 Z-0.125000 I-0.005065 J0.624707
G02 X152.734248 Y73.891382 Z-0.125000 I0.020826 J0.458161
G02 X152.696080 Y73.896670 Z-0.125000 I0.114786 J0.968902
G02 X152.658283 Y73.904159 Z-0.125000 I0.079122 J0.498469
G02 X152.616180 Y73.915170 Z-0.125000 I0.228917 J0.961298
G02 X152.574654 Y73.928022 Z-0.125000 I0.317790 J1.100349
G02 X152.530080 Y73.943970 Z-0.125000 I0.303296 J0.917945
G02 X152.486207 Y73.961922 Z-0.125000 I0.419752 J1.088384
G02 X152.440280 Y73.983070 Z-0.125000 I0.440980 J1.018148
G02 X152.395287 Y74.006136 Z-0.125000 I0.571080 J1.169355
G02 X152.349680 Y74.032070 Z-0.125000 I0.520142 J0.967795
G02 X152.305070 Y74.059985 Z-0.125000 I0.685706 J1.145398
G02 X152.261280 Y74.090170 Z-0.125000 I0.590095 J0.902926
G02 X152.218893 Y74.122429 Z-0.125000 I0.700032 J0.963813
G02 X152.178380 Y74.156470 Z-0.125000 I0.636085 J0.798130
G02 X152.139706 Y74.192588 Z-0.125000 I0.721922 J0.811775
G02 X152.104180 Y74.229570 Z-0.125000 I0.600877 J0.612775
G02 X152.070936 Y74.268723 Z-0.125000 I0.646643 J0.582745
G02 X152.041780 Y74.307970 Z-0.125000 I0.537521 J0.429766
G02 X152.015555 Y74.349203 Z-0.125000 I0.586595 J0.402048
G02 X151.994080 Y74.389770 Z-0.125000 I0.437038 J0.257319
G02 X151.976317 Y74.432060 Z-0.125000 I0.471989 J0.223122
G02 X151.963780 Y74.472870 Z-0.125000 I0.360039 J0.132938
G02 X151.955778 Y74.514896 Z-0.125000 I0.344457 J0.087362
G02 X151.953280 Y74.555070 Z-0.125000 I0.303451 J0.039033
G02 X151.956222 Y74.595330 Z-0.125000 I0.290244 J-0.000971
G02 X151.964380 Y74.634070 Z-0.125000 I0.301585 J-0.043281
G02 X151.978527 Y74.671228 Z-0.125000 I0.323486 J-0.101885
G02 X151.998580 Y74.707570 Z-0.125000 I0.231691 J-0.104142
G02 X152.023917 Y74.740611 Z-0.125000 I0.254615 J-0.169012
G02 X152.056880 Y74.773170 Z-0.125000 I0.251345 J-0.221499
G02 X152.093759 Y74.801326 Z-0.125000 I0.261075 J-0.303726
G02 X152.139580 Y74.828570 Z-0.125000 I0.258748 J-0.383031
G02 X152.188059 Y74.850948 Z-0.125000 I0.265955 J-0.512451
G02 X152.246630 Y74.871670 Z-0.125000 I0.253576 J-0.623605
G02 X152.306721 Y74.887468 Z-0.125000 I0.242606 J-0.800600
G02 X152.377360 Y74.900570 Z-0.125000 I0.214441 J-0.959202
G02 X152.448774 Y74.908967 Z-0.125000 I0.176186 J-1.190516
G02 X152.530720 Y74.913670 Z-0.125000 I0.119748 J-1.370281
G02 X152.612860 Y74.914089 Z-0.125000 I0.047724 J-1.302873
G02 X152.704830 Y74.909670 Z-0.125000 I-0.056228 J-2.129281
G02 X152.796593 Y74.901290 Z-0.125000 I-0.117137 J-1.789273
G02 X152.897200 Y74.887470 Z-0.125000 I-0.299632 J-2.554380
G02 X152.997268 Y74.869841 Z-0.125000 I-0.433213 J-2.751933
G02 X153.104780 Y74.846670 Z-0.125000 I-0.535450 J-2.745427
G02 X153.211440 Y74.819723 Z-0.125000 I-0.750324 J-3.194494
G02 X153.324010 Y74.787170 Z-0.125000 I-0.885646 J-3.273488
G02 X153.435484 Y74.750911 Z-0.125000 I-1.086003 J-3.528325
G02 X153.550870 Y74.709170 Z-0.125000 I-1.187395 J-3.462664
G02 X153.664963 Y74.663861 Z-0.125000 I-1.402680 J-3.698415
G02 X153.780970 Y74.613470 Z-0.125000 I-1.492613 J-3.594917
G02 X153.895408 Y74.559552 Z-0.125000 I-1.676591 J-3.706914
G02 X154.009620 Y74.501220 Z-0.125000 I-1.726354 J-3.521083
G02 X154.121982 Y74.439296 Z-0.125000 I-1.893680 J-3.569041
G02 X154.231950 Y74.373920 Z-0.125000 I-1.890731 J-3.305522
G02 X154.339672 Y74.304899 Z-0.125000 I-2.040151 J-3.302666
G02 X154.443000 Y74.233430 Z-0.125000 I-1.848558 J-2.783023
G02 X154.543760 Y74.158174 Z-0.125000 I-2.050152 J-2.850007
G02 X154.637840 Y74.081950 Z-0.125000 I-1.724447 J-2.224595
G02 X154.728756 Y74.001691 Z-0.125000 I-1.895618 J-2.238948
G02 X154.810750 Y73.921900 Z-0.125000 I-1.389031 J-1.509406
G02 X154.888039 Y73.837885 Z-0.125000 I-1.479092 J-1.438233
G02 X154.954750 Y73.755850 Z-0.125000 I-1.197540 J-1.041988
G02 X155.015673 Y73.669571 Z-0.125000 I-1.234086 J-0.936051
G02 X155.065320 Y73.586590 Z-0.125000 I-0.973236 J-0.638628
G02 X155.107696 Y73.499755 Z-0.125000 I-0.971070 J-0.527644
G02 X155.138720 Y73.417060 Z-0.125000 I-0.788795 J-0.343094
G02 X155.160869 Y73.331678 Z-0.125000 I-0.779645 J-0.247816
G02 X155.172120 Y73.250330 Z-0.125000 I-0.644810 J-0.130631
G02 X155.173215 Y73.168420 Z-0.125000 I-0.683886 J-0.050102
G02 X155.163120 Y73.089550 Z-0.125000 I-0.491470 J0.022822
G02 X155.142873 Y73.012801 Z-0.125000 I-0.571096 J0.109615
G02 X155.111620 Y72.937930 Z-0.125000 I-0.555725 J0.188014
G02 X155.070561 Y72.867836 Z-0.125000 I-0.555528 J0.278337
G02 X155.017120 Y72.798680 Z-0.125000 I-0.578272 J0.391642
G02 X154.955774 Y72.736284 Z-0.125000 I-0.588962 J0.517695
G02 X154.880620 Y72.674960 Z-0.125000 I-0.608503 J0.669022
G02 X154.799615 Y72.621318 Z-0.125000 I-0.612687 J0.837232
G02 X154.703970 Y72.569810 Z-0.125000 I-0.631752 J1.058548
G02 X154.604331 Y72.526245 Z-0.125000 I-0.615613 J1.272267
G02 X154.489880 Y72.486110 Z-0.125000 I-0.607905 J1.550272
G02 X154.372982 Y72.453851 Z-0.125000 I-0.567032 J1.826841
G02 X154.241790 Y72.426410 Z-0.125000 I-0.502979 J2.077354
G02 X154.109368 Y72.406710 Z-0.125000 I-0.427634 J2.419584
G02 X153.963370 Y72.393010 Z-0.125000 I-0.327796 J2.708514
G02 X153.816788 Y72.387178 Z-0.125000 I-0.206875 J3.354825
G02 X153.657820 Y72.388010 Z-0.125000 I-0.061541 J3.430242
G02 X153.499077 Y72.396117 Z-0.125000 I0.099755 J3.511387
G02 X153.329760 Y72.412310 Z-0.125000 I0.288538 J3.910386
G02 X153.161269 Y72.435492 Z-0.125000 I0.504621 J4.291572
G02 X152.984230 Y72.467110 Z-0.125000 I0.689334 J4.371258
G02 X152.808565 Y72.505656 Z-0.125000 I0.929782 J4.656856
G02 X152.626530 Y72.552910 Z-0.125000 I1.149664 J4.803040
G02 X152.446368 Y72.606875 Z-0.125000 I1.406550 J5.023513
G02 X152.262110 Y72.669510 Z-0.125000 I1.589413 J4.978006
G02 X152.080213 Y72.738732 Z-0.125000 I1.902750 J5.273523
G02 X151.896540 Y72.816190 Z-0.125000 I2.048194 J5.113295
G02 X151.715704 Y72.900128 Z-0.125000 I2.342034 J5.282443
G02 X151.535420 Y72.991650 Z-0.125000 I2.462028 J5.073135
G02 X151.358449 Y73.089505 Z-0.125000 I2.762944 J5.205738
G02 X151.184350 Y73.193950 Z-0.125000 I2.797886 J4.861117
G02 X151.014050 Y73.304581 Z-0.125000 I3.052280 J4.884928
G02 X150.848870 Y73.420570 Z-0.125000 I3.058617 J4.531384
G02 X150.688031 Y73.542591 Z-0.125000 I3.264436 J4.469925
G02 X150.534480 Y73.668430 Z-0.125000 I3.187244 J4.045757
G02 X150.385720 Y73.800154 Z-0.125000 I3.352398 J3.935833
G02 X150.246580 Y73.933850 Z-0.125000 I3.039700 J3.302721
G02 X150.112766 Y74.073577 Z-0.125000 I3.433473 J3.422116
G02 X149.992040 Y74.212590 Z-0.125000 I2.359042 J2.170639
G02 X149.879705 Y74.357819 Z-0.125000 I2.569948 J2.103923
G02 X149.783090 Y74.499540 Z-0.125000 I2.139708 J1.562488
G02 X149.696092 Y74.647230 Z-0.125000 I2.128303 J1.353167
G02 X149.625680 Y74.789250 Z-0.125000 I1.828848 J0.995184
G02 X149.566618 Y74.936303 Z-0.125000 I1.782754 J0.801405
G02 X149.524100 Y75.076010 Z-0.125000 I1.498412 J0.532349
G02 X149.494937 Y75.218986 Z-0.125000 I1.457802 J0.371809
G02 X149.481600 Y75.353940 Z-0.125000 I1.237384 J0.190425
G02 X149.483312 Y75.489359 Z-0.125000 I1.188358 J0.052699
G02 X149.500500 Y75.617160 Z-0.125000 I1.004221 J-0.070004
G02 X149.533475 Y75.741650 Z-0.125000 I0.997448 J-0.197596
G02 X149.582000 Y75.859940 Z-0.125000 I0.906017 J-0.302565
G02 X149.645542 Y75.970799 Z-0.125000 I0.894624 J-0.439137
G02 X149.726110 Y76.076810 Z-0.125000 I0.851389 J-0.563434
G02 X149.819288 Y76.172000 Z-0.125000 I0.847136 J-0.736036
G02 X149.931900 Y76.262780 Z-0.125000 I0.835035 J-0.920613
G02 X150.053830 Y76.340752 Z-0.125000 I0.816660 J-1.142742
G02 X150.197340 Y76.413390 Z-0.125000 I0.814708 J-1.431528
G02 X150.346996 Y76.472641 Z-0.125000 I0.765753 J-1.715498
G02 X150.519380 Y76.524900 Z-0.125000 I0.742620 J-2.139213
G02 X150.695271 Y76.564099 Z-0.125000 I0.644494 J-2.477673
G02 X150.893940 Y76.594300 Z-0.125000 I0.553752 J-2.974213
G02 X151.093988 Y76.612207 Z-0.125000 I0.407502 J-3.426112
G02 X151.316400 Y76.619500 Z-0.125000 I0.244348 J-4.056497
G02 X151.539290 Y76.615263 Z-0.125000 I0.024655 J-4.567621
G02 X151.783180 Y76.599200 Z-0.125000 I-0.237294 J-5.462533
G02 X152.026300 Y76.572519 Z-0.125000 I-0.526736 J-5.920664
G02 X152.287580 Y76.533200 Z-0.125000 I-0.878293 J-6.724176
G02 X152.547295 Y76.484153 Z-0.125000 I-1.247473 J-7.317804
G02 X152.821500 Y76.422450 Z-0.125000 I-1.689978 J-8.150300
G02 X153.093579 Y76.351674 Z-0.125000 I-2.076277 J-8.540041
G02 X153.375960 Y76.268730 Z-0.125000 I-2.585020 J-9.322788
G02 X153.655762 Y76.177285 Z-0.125000 I-2.999072 J-9.650289
G02 X153.941300 Y76.074710 Z-0.125000 I-3.410217 J-9.941746
G02 X154.223859 Y75.964066 Z-0.125000 I-3.789589 J-10.093795
G02 X154.507390 Y75.843780 Z-0.125000 I-4.176189 J-10.238216
G02 X154.787508 Y75.715675 Z-0.125000 I-4.571762 J-10.367094
G02 X155.063810 Y75.579940 Z-0.125000 I-4.671765 J-9.858889
G02 X155.336203 Y75.436483 Z-0.125000 I-5.017437 J-9.857343
G02 X155.600100 Y75.287690 Z-0.125000 I-4.915124 J-9.025801
G02 X155.859494 Y75.131162 Z-0.125000 I-5.171722 J-8.863622
G02 X156.106010 Y74.971870 Z-0.125000 I-4.862208 J-7.795029
G02 X156.347254 Y74.804731 Z-0.125000 I-5.039178 J-7.531095
G02 X156.571690 Y74.637600 Z-0.125000 I-4.530833 J-6.318597
G02 X156.790010 Y74.462405 Z-0.125000 I-4.692162 J-6.070776
G02 X156.987930 Y74.290170 Z-0.125000 I-3.881654 J-4.660358
G02 X157.179149 Y74.109271 Z-0.125000 I-4.453827 J-4.899438
G02 X157.344850 Y73.934800 Z-0.125000 I-2.510497 J-2.550218
G02 X157.497935 Y73.750475 Z-0.125000 I-2.721900 J-2.416318
G02 X157.622250 Y73.575640 Z-0.125000 I-2.015279 J-1.564560
G02 X157.730577 Y73.391042 Z-0.125000 I-1.977988 J-1.284816
G02 X157.810970 Y73.217120 Z-0.125000 I-1.620917 J-0.854791
G02 X157.871723 Y73.035736 Z-0.125000 I-1.536874 J-0.615631
G02 X157.906970 Y72.864120 Z-0.125000 I-1.346278 J-0.365928
G02 X157.919634 Y72.689531 Z-0.125000 I-1.288512 J-0.181214
G02 X157.908970 Y72.521750 Z-0.125000 I-1.226967 J-0.006248
G02 X157.874804 Y72.357026 Z-0.125000 I-1.179664 J0.158770
G02 X157.817170 Y72.195440 Z-0.125000 I-1.226149 J0.346271
G02 X157.738551 Y72.042613 Z-0.125000 I-1.210714 J0.526197
G02 X157.634850 Y71.890860 Z-0.125000 I-1.332138 J0.799009
G02 X157.514301 Y71.751686 Z-0.125000 I-1.321275 J1.022658
G02 X157.367060 Y71.613810 Z-0.125000 I-1.470947 J1.423301
G02 X157.207297 Y71.490292 Z-0.125000 I-1.447373 J1.706999
G02 X157.020640 Y71.370070 Z-0.125000 I-1.565352 J2.225367
G02 X156.825070 Y71.264665 Z-0.125000 I-1.509065 J2.565814
G02 X156.603950 Y71.165230 Z-0.125000 I-1.554962 J3.162285
G02 X156.376715 Y71.080558 Z-0.125000 I-1.467750 J3.591770
G02 X156.126470 Y71.004450 Z-0.125000 I-1.385615 J4.106466
G02 X155.872343 Y70.942913 Z-0.125000 I-1.243174 J4.578432
G02 X155.598480 Y70.892270 Z-0.125000 I-1.069099 J5.015525
G02 X155.322996 Y70.856050 Z-0.125000 I-0.859441 J5.471075
G02 X155.030240 Y70.832370 Z-0.125000 I-0.621277 J5.859265
G02 X154.736387 Y70.822834 Z-0.125000 I-0.351139 J6.288286
G02 X154.427320 Y70.827370 Z-0.125000 I-0.059145 J6.502194
G02 X154.118612 Y70.845650 Z-0.125000 I0.297705 J7.643574
G02 X153.797880 Y70.878370 Z-0.125000 I0.572932 J7.204287
G02 X153.478864 Y70.924918 Z-0.125000 I0.977938 J7.818724
G02 X153.151320 Y70.986620 Z-0.125000 I1.315849 J7.885406
G02 X152.826598 Y71.061667 Z-0.125000 I1.725937 J8.208043
G02 X152.496730 Y71.151950 Z-0.125000 I2.073943 J8.225343
G02 X152.170726 Y71.255177 Z-0.125000 I2.481852 J8.404384
G02 X151.842820 Y71.373240 Z-0.125000 I2.873415 J8.494977
G02 X151.519732 Y71.503807 Z-0.125000 I3.248173 J8.502594
G02 X151.197860 Y71.648370 Z-0.125000 I3.656913 J8.572820
G02 X150.881672 Y71.804960 Z-0.125000 I4.011791 J8.498173
G02 X150.569670 Y71.974270 Z-0.125000 I4.399860 J8.480124
G02 X150.264153 Y72.155080 Z-0.125000 I4.708078 J8.303830
G02 X149.965660 Y72.346970 Z-0.125000 I5.074479 J8.221663
G02 X149.674421 Y72.549784 Z-0.125000 I5.309702 J7.935219
G02 X149.392940 Y72.761660 Z-0.125000 I5.628571 J7.770549
G02 X149.119451 Y72.983863 Z-0.125000 I5.794756 J7.411617
G02 X148.858370 Y73.212700 Z-0.125000 I6.005273 J7.114807
G02 X148.605969 Y73.451334 Z-0.125000 I6.137172 J6.744015
G02 X148.368750 Y73.693700 Z-0.125000 I6.028475 J6.137738
G02 X148.139434 Y73.946117 Z-0.125000 I7.093855 J6.675019
G02 X147.931810 Y74.197430 Z-0.125000 I4.156150 J3.645046
G02 X147.739303 Y74.459328 Z-0.125000 I4.728182 J3.677135
G02 X147.575080 Y74.714240 Z-0.125000 I3.619860 J2.512388
G02 X147.429483 Y74.979416 Z-0.125000 I3.624719 J2.162739
G02 X147.313710 Y75.233410 Z-0.125000 I3.230449 J1.625853
G02 X147.218819 Y75.495752 Z-0.125000 I3.064329 J1.256721
G02 X147.152830 Y75.744250 Z-0.125000 I2.703313 J0.850881
G02 X147.110661 Y75.997669 Z-0.125000 I2.562316 J0.556592
G02 X147.095630 Y76.236040 Z-0.125000 I2.242976 J0.261092
G02 X147.106532 Y76.474416 Z-0.125000 I2.048267 J0.025761
G02 X147.143430 Y76.698320 Z-0.125000 I1.902706 J-0.198562
G02 X147.206949 Y76.915947 Z-0.125000 I1.804245 J-0.408527
G02 X147.295960 Y77.121120 Z-0.125000 I1.644478 J-0.591533
G02 X147.410046 Y77.313392 Z-0.125000 I1.597105 J-0.817671
G02 X147.551350 Y77.495250 Z-0.125000 I1.519077 J-1.034500
G02 X147.713655 Y77.658740 Z-0.125000 I1.475599 J-1.302594
G02 X147.906320 Y77.812500 Z-0.125000 I1.445584 J-1.613766
G02 X148.114623 Y77.944613 Z-0.125000 I1.387398 J-1.957237
G02 X148.356300 Y78.065860 Z-0.125000 I1.362523 J-2.414385
G02 X148.608299 Y78.164412 Z-0.125000 I1.256190 J-2.840643
G02 X148.895430 Y78.249700 Z-0.125000 I1.196289 J-3.501452
G02 X149.188413 Y78.312807 Z-0.125000 I1.022325 J-4.034637
G02 X149.516600 Y78.359950 Z-0.125000 I0.868083 J-4.877248
G02 X149.846680 Y78.386250 Z-0.125000 I0.604490 J-5.502116
G02 X150.211570 Y78.394250 Z-0.125000 I0.326931 J-6.586532
G02 X150.577003 Y78.382614 Z-0.125000 I-0.063676 J-7.743647
G02 X150.975920 Y78.351150 Z-0.125000 I-0.476507 J-8.586074
G02 X151.373667 Y78.302027 Z-0.125000 I-0.955370 J-9.370407
G02 X151.800490 Y78.231950 Z-0.125000 I-1.672840 J-11.523779
G02 X152.224589 Y78.146215 Z-0.125000 I-2.193595 J-11.942623
G02 X152.671340 Y78.040020 Z-0.125000 I-3.077509 J-13.939632
G02 X153.114602 Y77.919675 Z-0.125000 I-3.646161 J-14.306219
G02 X153.573190 Y77.780360 Z-0.125000 I-4.653206 J-16.141589
G02 X154.027711 Y77.628092 Z-0.125000 I-5.175611 J-16.203725
G02 X154.489700 Y77.459200 Z-0.125000 I-6.197636 J-17.669406
G02 X154.947117 Y77.278205 Z-0.125000 I-6.659353 J-17.498292
G02 X155.403910 Y77.083670 Z-0.125000 I-7.437466 J-18.097650
G02 X155.855601 Y76.877567 Z-0.125000 I-7.848825 J-17.799330
G02 X156.298680 Y76.661530 Z-0.125000 I-8.198774 J-17.377580
G02 X156.736009 Y76.434166 Z-0.125000 I-8.545647 J-16.971645
G02 X157.157110 Y76.200870 Z-0.125000 I-8.418949 J-15.692933
G02 X157.571628 Y75.956202 Z-0.125000 I-8.687427 J-15.191769
G02 X157.962980 Y75.709850 Z-0.125000 I-8.097549 J-13.297694
G02 X158.346658 Y75.451878 Z-0.125000 I-8.257784 J-12.696009
G02 X158.701150 Y75.196590 Z-0.125000 I-7.364813 J-10.600501
G02 X159.046526 Y74.929281 Z-0.125000 I-7.413230 J-9.935018
G02 X159.357850 Y74.669020 Z-0.125000 I-6.344054 J-7.905090
G02 X159.660310 Y74.395913 Z-0.125000 I-7.380544 J-8.477804
G02 X159.920820 Y74.134780 Z-0.125000 I-3.706504 J-3.958184
G02 X160.162973 Y73.858096 Z-0.125000 I-4.300402 J-4.007992
G02 X160.356230 Y73.597780 Z-0.125000 I-2.555157 J-2.098836
G02 X160.521311 Y73.320810 Z-0.125000 I-2.572652 J-1.721042
G02 X160.639260 Y73.060810 Z-0.125000 I-2.123496 J-1.120081
G02 X160.723453 Y72.788568 Z-0.125000 I-2.009054 J-0.770457
G02 X160.766280 Y72.529170 Z-0.125000 I-1.827386 J-0.434937
G02 X160.771095 Y72.266335 Z-0.125000 I-1.733759 J-0.163226
G02 X160.737980 Y72.009270 Z-0.125000 I-1.826777 J0.104663
G02 X160.667958 Y71.759135 Z-0.125000 I-1.749752 J0.354951
G02 X160.559110 Y71.508740 Z-0.125000 I-1.998658 J0.719972
G02 X160.419148 Y71.273454 Z-0.125000 I-1.960716 J1.007077
G02 X160.238040 Y71.036230 Z-0.125000 I-2.314582 J1.579317
G02 X160.033076 Y70.818537 Z-0.125000 I-2.277861 J1.939330
G02 X159.786390 Y70.601170 Z-0.125000 I-2.636911 J2.743926
G02 X159.522191 Y70.404938 Z-0.125000 I-2.572390 J3.187400
G02 X159.218430 Y70.213310 Z-0.125000 I-2.822775 J4.137973
G02 X158.902047 Y70.043086 Z-0.125000 I-2.710812 J4.659258
G02 X158.550600 Y69.882200 Z-0.125000 I-2.772249 J5.591530
G02 X158.190202 Y69.742637 Z-0.125000 I-2.604316 J6.190097
G02 X157.800850 Y69.616730 Z-0.125000 I-2.448613 J6.907064
G02 X157.405383 Y69.512066 Z-0.125000 I-2.190692 J7.477925
G02 X156.987920 Y69.424640 Z-0.125000 I-1.887186 J7.971013
G02 X156.567711 Y69.358662 Z-0.125000 I-1.541964 J8.449538
G02 X156.130610 Y69.312100 Z-0.125000 I-1.155145 J8.768990
G02 X155.692152 Y69.286875 Z-0.125000 I-0.751943 J9.246990
G02 X155.239210 Y69.282300 Z-0.125000 I-0.322991 J9.553419
G02 X154.785830 Y69.298671 Z-0.125000 I0.131798 J9.936254
G02 X154.321250 Y69.336700 Z-0.125000 I0.603270 J10.226571
G02 X153.858981 Y69.395541 Z-0.125000 I1.114401 J10.600224
G02 X153.390110 Y69.476360 Z-0.125000 I1.583657 J10.588100
G02 X152.925341 Y69.577612 Z-0.125000 I2.125804 J10.875223
G02 X152.458080 Y69.700660 Z-0.125000 I2.624206 J10.913848
G02 X151.996589 Y69.843497 Z-0.125000 I3.137133 J10.952670
G02 X151.536220 Y70.007470 Z-0.125000 I3.710091 J11.144667
G02 X151.083130 Y70.190403 Z-0.125000 I4.178739 J11.002491
G02 X150.634380 Y70.393290 Z-0.125000 I4.816872 J11.251803
G02 X150.194242 Y70.614135 Z-0.125000 I5.215552 J10.943485
G02 X149.761320 Y70.853350 Z-0.125000 I5.935925 J11.253937
G02 X149.338119 Y71.109379 Z-0.125000 I6.238347 J10.789406
G02 X148.924790 Y71.381800 Z-0.125000 I7.030125 J11.116179
G02 X148.522139 Y71.669830 Z-0.125000 I7.233414 J10.537379
G02 X148.131880 Y71.971870 Z-0.125000 I8.038735 J10.789825
G02 X147.753086 Y72.288308 Z-0.125000 I8.147791 J10.138293
G02 X147.389210 Y72.615930 Z-0.125000 I8.869657 J10.217044
G02 X147.037541 Y72.956820 Z-0.125000 I8.916731 J9.550517
G02 X146.703350 Y73.305610 Z-0.125000 I9.418522 J9.358798
G02 X146.379696 Y73.667650 Z-0.125000 I10.872420 J10.045331
G02 X146.081160 Y74.031730 Z-0.125000 I6.779052 J5.863085
G02 X145.799734 Y74.410477 Z-0.125000 I8.647805 J6.719626
G02 X145.556490 Y74.781620 Z-0.125000 I4.846814 J3.441848
G02 X145.342800 Y75.167369 Z-0.125000 I5.113780 J3.084894
G02 X145.172720 Y75.537630 Z-0.125000 I4.740428 J2.401721
G02 X145.033151 Y75.920210 Z-0.125000 I4.437387 J1.835555
G02 X144.935260 Y76.283310 Z-0.125000 I4.069294 J1.291816
G02 X144.871385 Y76.653660 Z-0.125000 I3.786473 J0.843748
G02 X144.846260 Y77.002450 Z-0.125000 I3.442948 J0.423308
G02 X144.857777 Y77.351696 Z-0.125000 I3.209776 J0.068968
G02 X144.905260 Y77.679490 Z-0.125000 I2.924293 J-0.256269
G02 X144.990160 Y77.999394 Z-0.125000 I2.745685 J-0.557467
G02 X145.109800 Y78.299800 Z-0.125000 I2.539844 J-0.837493
G02 X145.264733 Y78.583431 Z-0.125000 I2.416915 J-1.136103
G02 X145.455580 Y78.849990 Z-0.125000 I2.282732 J-1.432758
G02 X145.676692 Y79.092004 Z-0.125000 I2.190762 J-1.779535
G02 X145.937020 Y79.318170 Z-0.125000 I2.108300 J-2.163852
G02 X146.220608 Y79.514540 Z-0.125000 I2.008889 J-2.598176
G02 X146.547370 Y79.694160 Z-0.125000 I1.940540 J-3.143178
G02 X146.890014 Y79.841699 Z-0.125000 I1.792649 J-3.691603
G02 X147.278840 Y79.969810 Z-0.125000 I1.688512 J-4.470632
G02 X147.676999 Y80.065999 Z-0.125000 I1.450064 J-5.130138
G02 X148.122440 Y80.139310 Z-0.125000 I1.254860 J-6.234695
G02 X148.571443 Y80.182409 Z-0.125000 I0.896497 J-6.979334
G02 X149.067850 Y80.199410 Z-0.125000 I0.537242 J-8.430840
G02 X149.564474 Y80.188588 Z-0.125000 I0.053930 J-8.925219
G02 X150.108400 Y80.148710 Z-0.125000 I-0.574051 J-11.559495
G02 X150.651658 Y80.083691 Z-0.125000 I-1.181219 J-12.171601
G02 X151.237880 Y79.988760 Z-0.125000 I-2.197708 J-15.428875
G02 X151.820408 Y79.871900 Z-0.125000 I-2.865413 J-15.793962
G02 X152.436630 Y79.726210 Z-0.125000 I-4.339170 J-19.729340
G02 X153.048143 Y79.561250 Z-0.125000 I-4.971900 J-19.646985
G02 X153.682570 Y79.370120 Z-0.125000 I-6.758906 J-23.583637
G02 X154.311651 Y79.161802 Z-0.125000 I-7.310104 J-23.129171
G02 X154.952010 Y78.931220 Z-0.125000 I-9.138734 J-26.384013
G02 X155.586504 Y78.684951 Z-0.125000 I-9.580602 J-25.624202
G02 X156.220310 Y78.421240 Z-0.125000 I-11.038629 J-27.423884
G02 X156.847701 Y78.142753 Z-0.125000 I-11.421378 J-26.576630
G02 X157.462680 Y77.852250 Z-0.125000 I-12.119841 J-26.453268
G02 X158.070495 Y77.547359 Z-0.125000 I-12.455692 J-25.589351
G02 X158.654880 Y77.236210 Z-0.125000 I-12.280938 J-23.769796
G02 X159.231135 Y76.910587 Z-0.125000 I-12.546663 J-22.876519
G02 X159.774030 Y76.584620 Z-0.125000 I-11.617518 J-19.963962
G02 X160.307474 Y76.243737 Z-0.125000 I-11.758398 J-18.988450
G02 X160.799190 Y75.908360 Z-0.125000 I-10.373836 J-15.737821
G02 X161.279613 Y75.557396 Z-0.125000 I-10.368414 J-14.697271
G02 X161.711770 Y75.217630 Z-0.125000 I-8.813989 J-11.655460
G02 X162.132192 Y74.861293 Z-0.125000 I-9.668053 J-11.832967
G02 X162.495960 Y74.521950 Z-0.125000 I-5.556968 J-6.321597
G02 X162.841646 Y74.162827 Z-0.125000 I-7.236187 J-7.311369
G02 X163.117980 Y73.825930 Z-0.125000 I-2.913254 J-2.671326
G02 X163.352851 Y73.464125 Z-0.125000 I-3.109531 J-2.275739
G02 X163.518650 Y73.124550 Z-0.125000 I-2.502346 J-1.432042
G02 X163.635488 Y72.766034 Z-0.125000 I-2.368426 J-0.970152
G02 X163.693140 Y72.421220 Z-0.125000 I-2.245980 J-0.552747
G02 X163.696540 Y72.071348 Z-0.125000 I-2.170837 J-0.196048
G02 X163.645240 Y71.722690 Z-0.125000 I-2.331590 J0.164956
G02 X163.542927 Y71.384267 Z-0.125000 I-2.343352 J0.523773
G02 X163.384450 Y71.038740 Z-0.125000 I-2.828762 J1.088311
G02 X163.184301 Y70.714120 Z-0.125000 I-2.813265 J1.510545
G02 X162.925260 Y70.381780 Z-0.125000 I-3.462144 J2.431429
G02 X162.634895 Y70.075374 Z-0.125000 I-3.426861 J2.956675
G02 X162.286490 Y69.766210 Z-0.125000 I-4.053482 J4.217076
G02 X161.915053 Y69.484550 Z-0.125000 I-3.972702 J4.853225
G02 X161.490630 Y69.207430 Z-0.125000 I-4.385973 J6.253764
G02 X161.049202 Y68.958078 Z-0.125000 I-4.233889 J6.979854
G02 X160.563110 Y68.720820 Z-0.125000 I-4.324282 J8.242963
G02 X160.064467 Y68.511382 Z-0.125000 I-4.071574 J8.995536
G02 X159.531530 Y68.320720 Z-0.125000 I-3.838395 J9.888891
G02 X158.989574 Y68.158119 Z-0.125000 I-3.470378 J10.582457
G02 X158.424670 Y68.019550 Z-0.125000 I-2.996021 J10.993095
G02 X157.854587 Y67.909671 Z-0.125000 I-2.509751 J11.487522
G02 X157.271350 Y67.827100 Z-0.125000 I-1.937658 J11.585383
G02 X156.687102 Y67.773880 Z-0.125000 I-1.369238 J11.797910
G02 X156.093040 Y67.748900 Z-0.125000 I-0.814837 J12.301746
G02 X155.496833 Y67.752546 Z-0.125000 I-0.221436 J12.540236
G02 X154.892840 Y67.784900 Z-0.125000 I0.382448 J12.793404
G02 X154.291154 Y67.845883 Z-0.125000 I1.003898 J12.903634
G02 X153.686860 Y67.935900 Z-0.125000 I1.612731 J12.899815
G02 X153.087662 Y68.054035 Z-0.125000 I2.236749 J12.923763
G02 X152.490380 Y68.200740 Z-0.125000 I2.902687 J13.106991
G02 X151.900649 Y68.374663 Z-0.125000 I3.484753 J12.902729
G02 X151.316430 Y68.576090 Z-0.125000 I4.238966 J13.242653
G02 X150.741961 Y68.803427 Z-0.125000 I4.747136 J12.835268
G02 X150.175840 Y69.056780 Z-0.125000 I5.636794 J13.354678
G02 X149.621312 Y69.334385 Z-0.125000 I6.038731 J12.755267
G02 X149.077430 Y69.636140 Z-0.125000 I7.115291 J13.465601
G02 X148.546598 Y69.960228 Z-0.125000 I7.387953 J12.697701
G02 X148.028310 Y70.306280 Z-0.125000 I8.653264 J13.521283
G02 X147.524159 Y70.672630 Z-0.125000 I8.784140 J12.618331
G02 X147.034280 Y71.058440 Z-0.125000 I10.213706 J13.472676
G02 X146.559275 Y71.462531 Z-0.125000 I10.211950 J12.485287
G02 X146.100280 Y71.883230 Z-0.125000 I11.683877 J13.208178
G02 X145.656702 Y72.320323 Z-0.125000 I11.598637 J12.214354
G02 X145.231030 Y72.770790 Z-0.125000 I12.903729 J12.619819
G02 X144.819560 Y73.236755 Z-0.125000 I13.858643 J12.652535
G02 X144.431700 Y73.710880 Z-0.125000 I11.010461 J9.402851
G02 X144.057646 Y74.203121 Z-0.125000 I16.565252 J12.976175
G02 X143.727060 Y74.690720 Z-0.125000 I6.032396 J4.445756
G02 X143.436737 Y75.197084 Z-0.125000 I6.910431 J4.298494
G02 X143.203420 Y75.685480 Z-0.125000 I6.132439 J3.229524
G02 X143.011228 Y76.190547 Z-0.125000 I5.771600 J2.485356
G02 X142.874110 Y76.671540 Z-0.125000 I5.535188 J1.837971
G02 X142.781265 Y77.162753 Z-0.125000 I5.066387 J1.211987
G02 X142.739030 Y77.626730 Z-0.125000 I4.805331 J0.671332
G02 X142.743569 Y78.092333 Z-0.125000 I4.419021 J0.189743
G02 X142.794630 Y78.530090 Z-0.125000 I4.096890 J-0.256014
G02 X142.893007 Y78.959394 Z-0.125000 I3.848214 J-0.655915
G02 X143.034870 Y79.362210 Z-0.125000 I3.606469 J-1.043728
G02 X143.221897 Y79.745887 Z-0.125000 I3.393629 J-1.416834
G02 X143.452310 Y80.105360 Z-0.125000 I3.190777 J-1.791625
G02 X143.722423 Y80.435819 Z-0.125000 I3.035607 J-2.205640
G02 X144.038660 Y80.743660 Z-0.125000 I2.870084 J-2.632014
G02 X144.386642 Y81.014963 Z-0.125000 I2.730328 J-3.143195
G02 X144.785220 Y81.263250 Z-0.125000 I2.580892 J-3.699065
G02 X145.206513 Y81.470765 Z-0.125000 I2.400960 J-4.342965
G02 X145.682950 Y81.652700 Z-0.125000 I2.232905 J-5.132574
G02 X146.173500 Y81.792837 Z-0.125000 I1.955777 J-5.917555
G02 X146.722280 Y81.903450 Z-0.125000 I1.713065 J-7.082328
G02 X147.277620 Y81.973749 Z-0.125000 I1.295269 J-8.003499
G02 X147.892570 Y82.010380 Z-0.125000 I0.881533 J-9.618921
G02 X148.507636 Y82.009533 Z-0.125000 I0.293009 J-10.547553
G02 X149.184480 Y81.971680 Z-0.125000 I-0.408297 J-13.370897
G02 X149.861629 Y81.899399 Z-0.125000 I-1.151304 J-13.993771
G02 X150.598180 Y81.787750 Z-0.125000 I-2.444291 J-18.610371
G02 X151.330615 Y81.647054 Z-0.125000 I-3.251833 J-18.905206
G02 X152.111050 Y81.468480 Z-0.125000 I-5.289680 J-24.912545
G02 X152.885703 Y81.265219 Z-0.125000 I-5.993288 J-24.418991
G02 X153.693830 Y81.028000 Z-0.125000 I-8.726012 J-31.221721
G02 X154.495506 Y80.769485 Z-0.125000 I-9.216409 J-29.953188
G02 X155.314700 Y80.482700 Z-0.125000 I-12.201912 J-36.167771
G02 X156.126998 Y80.176989 Z-0.125000 I-12.505475 J-34.460111
G02 X156.940350 Y79.849830 Z-0.125000 I-14.968797 J-38.388570
G02 X157.746293 Y79.505195 Z-0.125000 I-15.228305 J-36.726685
G02 X158.537150 Y79.146540 Z-0.125000 I-16.437052 J-37.296023
G02 X159.319861 Y78.770983 Z-0.125000 I-16.747991 J-35.908403
G02 X160.072430 Y78.389020 Z-0.125000 I-16.466458 J-33.375738
G02 X160.815771 Y77.990002 Z-0.125000 I-16.777249 J-32.146680
G02 X161.515640 Y77.592110 Z-0.125000 I-15.344525 J-27.804588
G02 X162.204734 Y77.176478 Z-0.125000 I-15.515473 J-26.502797
G02 X162.839320 Y76.769220 Z-0.125000 I-13.508876 J-21.747467
G02 X163.461019 Y76.343192 Z-0.125000 I-13.453680 J-20.299439
G02 X164.019780 Y75.932430 Z-0.125000 I-11.340757 J-16.012324
G02 X164.563801 Y75.501665 Z-0.125000 I-11.589491 J-15.195498
G02 X165.037470 Y75.092690 Z-0.125000 I-8.160575 J-9.930242
G02 X165.496369 Y74.661501 Z-0.125000 I-11.928820 J-13.155203
G02 X165.866920 Y74.257460 Z-0.125000 I-3.380192 J-3.471956
G02 X166.186671 Y73.820438 Z-0.125000 I-3.889199 J-3.181051
G02 X166.413920 Y73.409820 Z-0.125000 I-2.722240 J-1.774767
G02 X166.575703 Y72.971216 Z-0.125000 I-2.660040 J-1.230321
G02 X166.658780 Y72.545340 Z-0.125000 I-2.585372 J-0.725377
G02 X166.669958 Y72.110675 Z-0.125000 I-2.508687 J-0.281992
G02 X166.609280 Y71.669740 Z-0.125000 I-2.916505 J0.176705
G02 X166.482206 Y71.241002 Z-0.125000 I-2.910753 J0.629519
G02 X166.280240 Y70.794780 Z-0.125000 I-3.710458 J1.410586
G02 X166.025401 Y70.374446 Z-0.125000 I-3.730557 J1.974332
G02 X165.692470 Y69.937410 Z-0.125000 I-4.742022 J3.267112
G02 X165.320085 Y69.532132 Z-0.125000 I-4.749479 J3.990283
G02 X164.871910 Y69.118420 Z-0.125000 I-5.685290 J5.709276
G02 X164.394410 Y68.738255 Z-0.125000 I-5.639532 J6.593475
G02 X163.849090 Y68.360730 Z-0.125000 I-6.230241 J8.416735
G02 X163.281587 Y68.017254 Z-0.125000 I-6.083619 J9.411024
G02 X162.658510 Y67.687590 Z-0.125000 I-6.194283 J10.953746
G02 X162.018480 Y67.392384 Z-0.125000 I-5.893582 J11.936322
G02 X161.337900 Y67.120820 Z-0.125000 I-5.556674 J12.937268
G02 X160.644572 Y66.884383 Z-0.125000 I-5.075917 J13.749830
G02 X159.927170 Y66.679290 Z-0.125000 I-4.426607 J14.126741
G02 X159.201080 Y66.510376 Z-0.125000 I-3.786776 J14.632740
G02 X158.466890 Y66.377800 Z-0.125000 I-2.991135 J14.465306
G02 X157.731284 Y66.283161 Z-0.125000 I-2.224170 J14.381789
G02 X156.994100 Y66.225820 Z-0.125000 I-1.522613 J14.807565
G02 X156.253651 Y66.205339 Z-0.125000 I-0.778203 J14.739470
G02 X155.512210 Y66.221820 Z-0.125000 I-0.038276 J14.964178
G02 X154.771885 Y66.275004 Z-0.125000 I0.705813 J15.004300
G02 X154.034980 Y66.364780 Z-0.125000 I1.440679 J14.894681
G02 X153.303824 Y66.490965 Z-0.125000 I2.159815 J14.696070
G02 X152.580880 Y66.652780 Z-0.125000 I2.964372 J14.939811
G02 X151.867065 Y66.849871 Z-0.125000 I3.607668 J14.457269
G02 X151.164820 Y67.081000 Z-0.125000 I4.521378 J14.919796
G02 X150.474715 Y67.345592 Z-0.125000 I5.059691 J14.228867
G02 X149.798340 Y67.642270 Z-0.125000 I6.177319 J15.002580
G02 X149.136626 Y67.970012 Z-0.125000 I6.574676 J14.106220
G02 X148.489980 Y68.327630 Z-0.125000 I7.964704 J15.165227
G02 X147.859852 Y68.713467 Z-0.125000 I8.184231 J14.073490
G02 X147.245590 Y69.126790 Z-0.125000 I9.937914 J15.432401
G02 X146.649066 Y69.565268 Z-0.125000 I9.954181 J14.167091
G02 X146.068940 Y70.028660 Z-0.125000 I12.067703 J15.702537
G02 X145.507155 Y70.514165 Z-0.125000 I11.887957 J14.323511
G02 X144.962240 Y71.021850 Z-0.125000 I14.309213 J15.904825
G02 X144.435858 Y71.548821 Z-0.125000 I13.972062 J14.482830
G02 X143.927010 Y72.095060 Z-0.125000 I16.440822 J15.825545
G02 X143.436182 Y72.658378 Z-0.125000 I16.414214 J14.797464
G02 X142.964980 Y73.237360 Z-0.125000 I17.088963 J14.389009
G02 X142.503559 Y73.836520 Z-0.125000 I29.231995 J22.989227
G02 X142.084690 Y74.437640 Z-0.125000 I7.802045 J5.883065
G02 X141.710113 Y75.061577 Z-0.125000 I10.069237 J6.469406
G02 X141.403250 Y75.668060 Z-0.125000 I7.088108 J3.967259
G02 X141.150820 Y76.295486 Z-0.125000 I6.988919 J3.176316
G02 X140.967790 Y76.895200 Z-0.125000 I7.004716 J2.465598
G02 X140.839646 Y77.508695 Z-0.125000 I6.308993 J1.637922
G02 X140.774410 Y78.090310 Z-0.125000 I6.267972 J0.997506
G02 X140.766276 Y78.675321 Z-0.125000 I5.657802 J0.371228
G02 X140.814710 Y79.226980 Z-0.125000 I5.551830 J-0.209478
G02 X140.920165 Y79.770436 Z-0.125000 I5.058317 J-0.699581
G02 X141.077590 Y80.281150 Z-0.125000 I4.882334 J-1.225336
G02 X141.289285 Y80.771614 Z-0.125000 I4.531633 J-1.665036
G02 X141.551040 Y81.230990 Z-0.125000 I4.295094 J-2.143104
G02 X141.861438 Y81.658667 Z-0.125000 I4.052786 J-2.614939
G02 X142.223230 Y82.056690 Z-0.125000 I3.787502 J-3.079294
G02 X142.625456 Y82.413389 Z-0.125000 I3.601471 J-3.656015
G02 X143.083270 Y82.740460 Z-0.125000 I3.326808 J-4.172712
G02 X143.571608 Y83.019550 Z-0.125000 I3.125660 J-4.902342
G02 X144.121330 Y83.266890 Z-0.125000 I2.848445 J-5.596218
G02 X144.691310 Y83.463136 Z-0.125000 I2.556536 J-6.499383
G02 X145.328310 Y83.623570 Z-0.125000 I2.241301 J-7.554235
G02 X145.976207 Y83.733213 Z-0.125000 I1.789390 J-8.604718
G02 X146.694980 Y83.802060 Z-0.125000 I1.349452 J-10.301959
G02 X147.415078 Y83.823278 Z-0.125000 I0.699536 J-11.510965
G02 X148.211240 Y83.799060 Z-0.125000 I-0.024810 J-13.914587
G02 X149.008185 Y83.730417 Z-0.125000 I-0.895848 J-15.061305
G02 X149.882610 Y83.612620 Z-0.125000 I-2.304989 J-20.414741
G02 X150.753627 Y83.457386 Z-0.125000 I-3.250911 J-20.762153
G02 X151.690660 Y83.254220 Z-0.125000 I-5.843184 J-29.212060
G02 X152.620960 Y83.020454 Z-0.125000 I-6.579066 J-28.150222
G02 X153.598680 Y82.744090 Z-0.125000 I-10.389965 J-38.625232
G02 X154.569039 Y82.442226 Z-0.125000 I-10.746550 J-36.255926
G02 X155.566030 Y82.105500 Z-0.125000 I-15.264675 J-46.840599
G02 X156.555320 Y81.746883 Z-0.125000 I-15.270401 J-43.669128
G02 X157.549570 Y81.362520 Z-0.125000 I-19.215265 J-51.183196
G02 X158.535717 Y80.958429 Z-0.125000 I-19.197968 J-48.256199
G02 X159.505500 Y80.538250 Z-0.125000 I-21.180968 J-50.215428
G02 X160.466442 Y80.099176 Z-0.125000 I-21.421335 J-48.153068
G02 X161.391230 Y79.653580 Z-0.125000 I-20.972772 J-44.709246
G02 X162.305986 Y79.188854 Z-0.125000 I-21.375923 J-43.208506
G02 X163.167260 Y78.726730 Z-0.125000 I-19.201267 J-36.819638
G02 X164.016763 Y78.244456 Z-0.125000 I-19.481479 J-35.305013
G02 X164.798660 Y77.773340 Z-0.125000 I-16.648758 J-28.515854
G02 X165.566434 Y77.280554 Z-0.125000 I-16.606073 J-26.717209
G02 X166.256110 Y76.806900 Z-0.125000 I-13.852390 J-20.909068
G02 X166.928586 Y76.309941 Z-0.125000 I-13.507417 J-18.981460
G02 X167.516260 Y75.839460 Z-0.125000 I-11.055083 J-14.411088
G02 X168.090508 Y75.344797 Z-0.125000 I-15.934665 J-19.078984
G02 X168.561010 Y74.881900 Z-0.125000 I-4.305874 J-4.847185
G02 X168.981739 Y74.381378 Z-0.125000 I-5.522961 J-5.069586
G02 X169.286800 Y73.910560 Z-0.125000 I-2.767168 J-2.127192
G02 X169.508246 Y73.399945 Z-0.125000 I-2.875895 J-1.550561
G02 X169.629570 Y72.899950 Z-0.125000 I-2.843212 J-0.954621
G02 X169.660857 Y72.384754 Z-0.125000 I-2.790267 J-0.427995
G02 X169.602370 Y71.853000 Z-0.125000 I-3.402666 J0.105160
G02 X169.461255 Y71.333683 Z-0.125000 I-3.442849 J0.656701
G02 X169.226000 Y70.782950 Z-0.125000 I-4.587060 J1.633828
G02 X168.925874 Y70.261978 Z-0.125000 I-4.679375 J2.348800
G02 X168.527550 Y69.711810 Z-0.125000 I-6.103707 J3.999829
G02 X168.080924 Y69.198534 Z-0.125000 I-6.208619 J4.951465
G02 X167.539410 Y68.668080 Z-0.125000 I-7.477125 J7.091393
G02 X166.961482 Y68.176868 Z-0.125000 I-7.547365 J8.294152
G02 X166.299130 Y67.684020 Z-0.125000 I-8.294115 J10.455195
G02 X165.608509 Y67.231436 Z-0.125000 I-8.236639 J11.815495
G02 X164.849350 Y66.792840 Z-0.125000 I-8.336640 J13.553446
G02 X164.067866 Y66.395505 Z-0.125000 I-8.045202 J14.856242
G02 X163.237500 Y66.026030 Z-0.125000 I-7.580987 J15.919832
G02 X162.389680 Y65.699071 Z-0.125000 I-7.011931 J16.919546
G02 X161.514940 Y65.410960 Z-0.125000 I-6.178602 J17.287049
G02 X160.627229 Y65.166883 Z-0.125000 I-5.366525 J17.781792
G02 X159.735290 Y64.969090 Z-0.125000 I-4.352681 J17.518224
G02 X158.838917 Y64.817938 Z-0.125000 I-3.368440 J17.242314
G02 X157.951990 Y64.714940 Z-0.125000 I-2.457090 J17.288089
G02 X157.062958 Y64.658527 Z-0.125000 I-1.504387 J16.674752
G02 X156.183930 Y64.648440 Z-0.125000 I-0.638924 J17.371979
G02 X155.303078 Y64.683552 Z-0.125000 I0.229540 J16.825029
G02 X154.433640 Y64.763670 Z-0.125000 I1.114518 J16.852292
G02 X153.570124 Y64.889031 Z-0.125000 I1.935119 J16.366224
G02 X152.723120 Y65.057520 Z-0.125000 I2.851844 J16.549645
G02 X151.886508 Y65.270017 Z-0.125000 I3.565700 J15.791480
G02 X151.069300 Y65.523340 Z-0.125000 I4.617983 J16.342204
G02 X150.266528 Y65.818358 Z-0.125000 I5.185129 J15.348950
G02 X149.484420 Y66.151630 Z-0.125000 I6.481338 J16.294459
G02 X148.720083 Y66.523393 Z-0.125000 I6.867078 J15.090182
G02 X147.976550 Y66.930740 Z-0.125000 I8.536160 J16.463366
G02 X147.253215 Y67.372707 Z-0.125000 I8.693203 J15.040416
G02 X146.550170 Y67.847570 Z-0.125000 I10.861421 J16.838449
G02 X145.868721 Y68.352813 Z-0.125000 I10.747346 J15.207701
G02 X145.206690 Y68.888220 Z-0.125000 I13.556760 J17.439958
G02 X144.566734 Y69.449752 Z-0.125000 I13.119983 J15.597763
G02 X143.945170 Y70.038760 Z-0.125000 I16.607177 J18.147562
G02 X143.345399 Y70.649907 Z-0.125000 I15.877047 J16.181382
G02 X142.763050 Y71.285930 Z-0.125000 I19.906464 J18.811176
G02 X142.201778 Y71.940661 Z-0.125000 I19.032102 J16.883331
G02 X141.657300 Y72.617830 Z-0.125000 I23.017531 J19.064726
G02 X141.124460 Y73.315175 Z-0.125000 I33.851175 J26.417861
G02 X140.626000 Y74.024330 Z-0.125000 I11.734855 J8.778106
G02 X140.160589 Y74.759921 Z-0.125000 I19.171996 J12.645222
G02 X139.767570 Y75.482890 Z-0.125000 I7.450180 J4.518361
G02 X139.446938 Y76.230526 Z-0.125000 I8.038358 J3.889911
G02 X139.211360 Y76.947630 Z-0.125000 I8.380255 J3.150269
G02 X139.042062 Y77.682750 Z-0.125000 I7.427333 J2.097569
G02 X138.948750 Y78.382310 Z-0.125000 I7.745522 J1.389152
G02 X138.922968 Y79.087390 Z-0.125000 I6.855666 J0.603701
G02 X138.964450 Y79.754860 Z-0.125000 I7.065550 J-0.104091
G02 X139.072200 Y80.414778 Z-0.125000 I6.339938 J-0.696413
G02 X139.240260 Y81.036950 Z-0.125000 I6.359545 J-1.384048
G02 X139.470901 Y81.638567 Z-0.125000 I5.816726 J-1.884930
G02 X139.757780 Y82.203160 Z-0.125000 I5.639191 J-2.510186
G02 X140.101241 Y82.734854 Z-0.125000 I5.268643 J-3.026631
G02 X140.500260 Y83.230260 Z-0.125000 I4.922640 J-3.556488
G02 X140.947794 Y83.681656 Z-0.125000 I4.673928 J-4.186394
G02 X141.453830 Y84.096730 Z-0.125000 I4.236290 J-4.648650
G02 X141.998472 Y84.458765 Z-0.125000 I4.020548 J-5.457790
G02 X142.607820 Y84.782820 Z-0.125000 I3.566798 J-5.972009
G02 X143.244693 Y85.047949 Z-0.125000 I3.285168 J-6.993903
G02 X143.954350 Y85.271320 Z-0.125000 I2.841664 J-7.789061
G02 X144.680466 Y85.433771 Z-0.125000 I2.395619 J-9.003835
G02 X145.487100 Y85.548920 Z-0.125000 I1.903265 J-10.449737
G02 X146.298875 Y85.605198 Z-0.125000 I1.229798 J-11.856261
G02 X147.199450 Y85.608120 Z-0.125000 I0.496170 J-14.139509
G02 X148.099948 Y85.556216 Z-0.125000 I-0.444748 J-15.553525
G02 X149.096140 Y85.445620 Z-0.125000 I-1.805369 J-20.803732
G02 X150.091535 Y85.287194 Z-0.125000 I-2.906135 J-21.465552
G02 X151.174760 Y85.069830 Z-0.125000 I-5.877048 J-32.095872
G02 X152.250518 Y84.814933 Z-0.125000 I-6.670572 J-30.549699
G02 X153.391590 Y84.507720 Z-0.125000 I-11.561029 J-45.213552
G02 X154.524460 Y84.170447 Z-0.125000 I-11.728325 J-41.465648
G02 X155.696560 Y83.790850 Z-0.125000 I-18.156655 J-58.062547
G02 X156.860313 Y83.386496 Z-0.125000 I-17.670710 J-52.734152
G02 X158.035620 Y82.951570 Z-0.125000 I-23.727317 J-65.924136
G02 X159.202353 Y82.495053 Z-0.125000 I-23.206125 J-61.027736
G02 X160.353240 Y82.020120 Z-0.125000 I-26.350727 J-65.486603
G02 X161.494868 Y81.524815 Z-0.125000 I-26.453706 J-62.536443
G02 X162.595180 Y81.022770 Z-0.125000 I-25.743893 J-57.878640
G02 X163.684959 Y80.499968 Z-0.125000 I-26.383370 J-56.393270
G02 X164.711340 Y79.981180 Z-0.125000 I-23.084775 J-46.946099
G02 X165.725228 Y79.440110 Z-0.125000 I-23.633078 J-45.505452
G02 X166.658020 Y78.912800 Z-0.125000 I-19.661246 J-35.868747
G02 X167.575669 Y78.361097 Z-0.125000 I-19.696542 J-33.800301
G02 X168.399460 Y77.832010 Z-0.125000 I-16.207318 J-26.140759
G02 X169.204685 Y77.276336 Z-0.125000 I-15.719000 J-23.639593
G02 X169.908340 Y76.751440 Z-0.125000 I-13.012877 J-18.178655
G02 X170.594328 Y76.198837 Z-0.125000 I-15.364877 J-19.775678
G02 X171.165390 Y75.683010 Z-0.125000 I-6.338927 J-7.591720
G02 X171.700366 Y75.131334 Z-0.125000 I-9.860495 J-10.097238
G02 X172.098880 Y74.612240 Z-0.125000 I-2.740403 J-2.516354
G02 X172.396021 Y74.039670 Z-0.125000 I-3.096436 J-1.970314
G02 X172.570080 Y73.475440 Z-0.125000 I-2.988330 J-1.230831
G02 X172.635456 Y72.886104 Z-0.125000 I-2.983964 J-0.629312
G02 X172.592980 Y72.267940 Z-0.125000 I-3.795251 J-0.049755
G02 X172.450928 Y71.660145 Z-0.125000 I-3.896633 J0.590213
G02 X172.195710 Y71.003610 Z-0.125000 I-5.424885 J1.730967
G02 X171.862857 Y70.379363 Z-0.125000 I-5.616937 J2.594125
G02 X171.411520 Y69.709760 Z-0.125000 I-7.494589 J4.564721
G02 X170.902307 Y69.081294 Z-0.125000 I-7.759973 J5.766969
G02 X170.278280 Y68.423550 Z-0.125000 I-9.368393 J8.263266
G02 X169.609907 Y67.810184 Z-0.125000 I-9.658474 J9.853813
G02 X168.838900 Y67.188080 Z-0.125000 I-10.510231 J12.237066
G02 X168.032559 Y66.612255 Z-0.125000 I-10.664043 J14.080610
G02 X167.142310 Y66.048490 Z-0.125000 I-10.667699 J15.860739
G02 X166.223286 Y65.532886 Z-0.125000 I-10.491981 J17.624304
G02 X165.244120 Y65.048100 Z-0.125000 I-9.859665 J18.683195
G02 X164.241679 Y64.613577 Z-0.125000 I-9.252648 J19.972202
G02 X163.206470 Y64.225060 Z-0.125000 I-8.236311 J20.372353
G02 X162.153236 Y63.888989 Z-0.125000 I-7.250750 J20.905181
G02 X161.096530 Y63.609530 Z-0.125000 I-6.040575 J20.703354
G02 X160.029593 Y63.385343 Z-0.125000 I-4.828722 J20.329620
G02 X158.983600 Y63.222020 Z-0.125000 I-3.647860 J19.931341
G02 X157.937745 Y63.116322 Z-0.125000 I-2.406905 J18.588674
G02 X156.916780 Y63.068370 Z-0.125000 I-1.441602 J19.800770
G02 X155.890647 Y63.074774 Z-0.125000 I-0.396544 J18.672858
G02 X154.886810 Y63.135170 Z-0.125000 I0.642680 J19.054594
G02 X153.888058 Y63.250372 Z-0.125000 I1.562949 J17.937060
G02 X152.916090 Y63.416910 Z-0.125000 I2.605126 J18.123971
G02 X151.955381 Y63.636791 Z-0.125000 I3.392998 J17.033512
G02 X151.023810 Y63.904680 Z-0.125000 I4.561369 J17.615602
G02 X150.108740 Y64.223191 Z-0.125000 I5.167042 J16.318468
G02 X149.222910 Y64.586320 Z-0.125000 I6.599725 J17.361618
G02 X148.357940 Y64.996079 Z-0.125000 I6.986093 J15.864911
G02 X147.520960 Y65.447200 Z-0.125000 I8.851100 J17.423767
G02 X146.707989 Y65.940010 Z-0.125000 I8.970343 J15.715020
G02 X145.921030 Y66.471070 Z-0.125000 I11.456750 J17.825967
G02 X145.159869 Y67.038299 Z-0.125000 I11.235184 J15.870747
G02 X144.422370 Y67.640780 Z-0.125000 I14.591705 J18.614370
G02 X143.711095 Y68.273814 Z-0.125000 I13.929841 J16.367631
G02 X143.020940 Y68.939240 Z-0.125000 I18.405259 J19.779867
G02 X142.356267 Y69.629889 Z-0.125000 I17.219422 J17.236962
G02 X141.710010 Y70.350410 Z-0.125000 I22.997246 J21.276985
G02 X141.087674 Y71.091473 Z-0.125000 I21.312818 J18.530088
G02 X140.481100 Y71.860500 Z-0.125000 I28.062314 J22.758043
G02 X139.891905 Y72.648524 Z-0.125000 I31.807008 J24.395952
G02 X139.325670 Y73.459050 Z-0.125000 I20.019389 J14.588632
G02 X138.773700 Y74.297692 Z-0.125000 I54.054130 J36.177828
G02 X138.291120 Y75.132540 Z-0.125000 I8.057003 J5.214214
G02 X137.894824 Y75.995876 Z-0.125000 I9.716990 J4.983005
G02 X137.597940 Y76.828100 Z-0.125000 I9.266986 J3.774927
G02 X137.381486 Y77.682677 Z-0.125000 I8.354617 J2.570823
G02 X137.255390 Y78.498630 Z-0.125000 I9.140753 J1.830318
G02 X137.208039 Y79.322713 Z-0.125000 I7.949680 J0.870185
G02 X137.239090 Y80.105980 Z-0.125000 I8.638290 J0.049799
G02 X137.345790 Y80.882552 Z-0.125000 I7.581462 J-0.646069
G02 X137.521320 Y81.617770 Z-0.125000 I8.024931 J-1.527352
G02 X137.767046 Y82.332538 Z-0.125000 I7.196402 J-2.074387
G02 X138.074960 Y83.005750 Z-0.125000 I7.255039 J-2.911290
G02 X138.446197 Y83.645882 Z-0.125000 I6.686292 J-3.449920
G02 X138.876420 Y84.244100 Z-0.125000 I6.346320 J-4.110301
G02 X139.362017 Y84.797469 Z-0.125000 I5.998102 J-4.773754
G02 X139.907460 Y85.308210 Z-0.125000 I5.381486 J-5.200510
G02 X140.499042 Y85.763329 Z-0.125000 I5.150660 J-6.082995
G02 X141.155930 Y86.174280 Z-0.125000 I4.444087 J-6.373208
G02 X141.848127 Y86.520787 Z-0.125000 I4.191919 J-7.509315
G02 X142.615350 Y86.819830 Z-0.125000 I3.532952 J-7.930413
G02 X143.405879 Y87.049139 Z-0.125000 I3.129984 J-9.313123
G02 X144.283380 Y87.225360 Z-0.125000 I2.523644 J-10.293721
G02 X145.171740 Y87.331395 Z-0.125000 I1.868814 J-11.882559
G02 X146.159450 Y87.377100 Z-0.125000 I1.139871 J-13.937883
G02 X147.147064 Y87.356546 Z-0.125000 I0.166643 J-15.730346
G02 X148.247970 Y87.268460 Z-0.125000 I-1.043110 J-19.960548
G02 X149.350992 Y87.120314 Z-0.125000 I-2.286861 J-21.207174
G02 X150.566220 Y86.901630 Z-0.125000 I-5.319418 J-33.045903
G02 X151.774263 Y86.636794 Z-0.125000 I-6.246632 J-31.381545
G02 X153.069930 Y86.308600 Z-0.125000 I-12.029173 J-50.211210
G02 X154.356637 Y85.945043 Z-0.125000 I-12.017507 J-44.991366
G02 X155.699200 Y85.530540 Z-0.125000 I-20.628979 J-69.198085
G02 X157.032901 Y85.088283 Z-0.125000 I-19.425186 J-60.812023
G02 X158.388070 Y84.609810 Z-0.125000 I-28.451849 J-82.741980
G02 X159.734378 Y84.108160 Z-0.125000 I-27.072243 J-74.712745
G02 X161.067660 Y83.585330 Z-0.125000 I-32.031894 J-83.646838
G02 X162.391491 Y83.041090 Z-0.125000 I-31.955497 J-79.612018
G02 X163.670120 Y82.489670 Z-0.125000 I-30.796344 J-73.168500
G02 X164.937896 Y81.916286 Z-0.125000 I-31.891671 J-72.202086
G02 X166.132680 Y81.348100 Z-0.125000 I-26.869021 J-58.040566
G02 X167.314405 Y80.755809 Z-0.125000 I-27.925051 J-57.190435
G02 X168.401210 Y80.179510 Z-0.125000 I-22.379617 J-43.517179
G02 X169.471949 Y79.576158 Z-0.125000 I-22.661967 J-41.468819
G02 X170.432410 Y78.998390 Z-0.125000 I-18.260183 J-31.442301
G02 X171.373013 Y78.390616 Z-0.125000 I-17.733047 J-28.475749
G02 X172.194530 Y77.817260 Z-0.125000 I-14.697964 J-21.934784
G02 X172.993627 Y77.211981 Z-0.125000 I-14.774071 J-20.335049
G02 X173.666660 Y76.648600 Z-0.125000 I-9.459599 J-11.984441
G02 X174.316703 Y76.053132 Z-0.125000 I-18.365680 J-20.701466
G02 X174.813450 Y75.493800 Z-0.125000 I-2.956047 J-3.125534
G02 X175.202066 Y74.870898 Z-0.125000 I-3.624075 J-2.693660
G02 X175.445400 Y74.255410 Z-0.125000 I-2.948174 J-1.521412
G02 X175.559803 Y73.600547 Z-0.125000 I-3.091835 J-0.877560
G02 X175.548660 Y72.903590 Z-0.125000 I-4.079431 J-0.283347
G02 X175.420096 Y72.212083 Z-0.125000 I-4.244614 J0.431446
G02 X175.160350 Y71.451560 Z-0.125000 I-6.179555 J1.685925
G02 X174.809509 Y70.724225 Z-0.125000 I-6.489364 J2.681956
G02 X174.320490 Y69.931780 Z-0.125000 I-8.865947 J4.924083
G02 X173.763457 Y69.183680 Z-0.125000 I-9.352233 J6.382214
G02 X173.071500 Y68.390630 Z-0.125000 I-11.297144 J9.158654
G02 X172.326623 Y67.646388 Z-0.125000 I-11.919444 J11.184742
G02 X171.459670 Y66.883070 Z-0.125000 I-12.804423 J13.668875
G02 X170.549433 Y66.171636 Z-0.125000 I-13.321950 J16.106608
G02 X169.537590 Y65.467630 Z-0.125000 I-13.120019 J17.777807
G02 X168.489431 Y64.818647 Z-0.125000 I-13.205840 J20.157573
G02 X167.366510 Y64.201490 Z-0.125000 I-12.303412 J21.055959
G02 X166.213319 Y63.642610 Z-0.125000 I-11.763398 J22.803350
G02 X165.017510 Y63.135890 Z-0.125000 I-10.531302 J23.188493
G02 X163.797438 Y62.690512 Z-0.125000 I-9.416791 J23.902622
G02 X162.570680 Y62.312060 Z-0.125000 I-8.033392 J23.862840
G02 X161.326823 Y61.997930 Z-0.125000 I-6.575162 J23.415905
G02 X160.112150 Y61.758480 Z-0.125000 I-5.148278 J22.915370
G02 X158.896682 Y61.587795 Z-0.125000 I-3.574424 J21.040789
G02 X157.723190 Y61.488540 Z-0.125000 I-2.467831 J22.190475
G02 X156.544053 Y61.454154 Z-0.125000 I-1.184814 J20.394648
G02 X155.402570 Y61.484540 Z-0.125000 I-0.005900 J21.234248
G02 X154.263431 Y61.579639 Z-0.125000 I1.062295 J19.594693
G02 X153.163450 Y61.735100 Z-0.125000 I2.227343 J19.729092
G02 X152.075091 Y61.953826 Z-0.125000 I3.108048 J18.282473
G02 X151.027580 Y62.228270 Z-0.125000 I4.380176 J18.854792
G02 X149.998281 Y62.562919 Z-0.125000 I5.036774 J17.242155
G02 X149.008530 Y62.948830 Z-0.125000 I6.571209 J18.315434
G02 X148.042587 Y63.390264 Z-0.125000 I6.977350 J16.545338
G02 X147.113230 Y63.878990 Z-0.125000 I8.968906 J18.183188
G02 X146.211800 Y64.417220 Z-0.125000 I9.077940 J16.227760
G02 X145.343360 Y64.999150 Z-0.125000 I11.758715 J18.487010
G02 X144.505203 Y65.623759 Z-0.125000 I11.485984 J16.287612
G02 X143.696260 Y66.288670 Z-0.125000 I15.184073 J19.297749
G02 X142.918165 Y66.989214 Z-0.125000 I14.380274 J16.754581
G02 X142.165360 Y67.726820 Z-0.125000 I19.566655 J20.722797
G02 X141.442330 Y68.493269 Z-0.125000 I18.008237 J17.712343
G02 X140.740350 Y69.293970 Z-0.125000 I25.307715 J22.895505
G02 X140.065746 Y70.117396 Z-0.125000 I22.755604 J19.330929
G02 X139.407550 Y70.973210 Z-0.125000 I32.722206 J25.847244
G02 X138.772439 Y71.847140 Z-0.125000 I30.406933 J22.765370
G02 X138.151200 Y72.752220 Z-0.125000 I35.359704 J24.936335
G02 X137.531177 Y73.683979 Z-0.125000 I273.700741 J182.801558
G02 X136.969430 Y74.623650 Z-0.125000 I9.785931 J6.487899
G02 X136.490503 Y75.595930 Z-0.125000 I13.855320 J7.428958
G02 X136.119920 Y76.540680 Z-0.125000 I9.368214 J4.219792
G02 X135.849516 Y77.511504 Z-0.125000 I9.056181 J3.045487
G02 X135.685680 Y78.441070 Z-0.125000 I10.373740 J2.307598
G02 X135.613016 Y79.381914 Z-0.125000 I8.836012 J1.155655
G02 X135.630980 Y80.279520 Z-0.125000 I10.175126 J0.245349
G02 X135.734563 Y81.171435 Z-0.125000 I8.733286 J-0.562276
G02 X135.915850 Y82.019630 Z-0.125000 I9.806467 J-1.652487
G02 X136.174712 Y82.847568 Z-0.125000 I8.596051 J-2.233194
G02 X136.501690 Y83.630910 Z-0.125000 I9.152875 J-3.360625
G02 X136.897646 Y84.381540 Z-0.125000 I8.273954 J-3.884740
G02 X137.355560 Y85.085950 Z-0.125000 I8.124037 J-4.780138
G02 X137.874169 Y85.746104 Z-0.125000 I7.609711 J-5.444310
G02 X138.452830 Y86.358140 Z-0.125000 I6.850146 J-5.897033
G02 X139.083828 Y86.914390 Z-0.125000 I6.589440 J-6.838900
G02 X139.778480 Y87.420500 Z-0.125000 I5.553396 J-6.892439
G02 X140.515880 Y87.859557 Z-0.125000 I5.352737 J-8.151195
G02 X141.326970 Y88.245590 Z-0.125000 I4.357295 J-8.109975
G02 X142.169112 Y88.555435 Z-0.125000 I4.032936 J-9.661944
G02 X143.100490 Y88.807080 Z-0.125000 I3.210903 J-10.034632
G02 X144.049810 Y88.978144 Z-0.125000 I2.621688 J-11.829433
G02 X145.106060 Y89.083080 Z-0.125000 I1.857650 J-13.330029
G02 X146.164830 Y89.109690 Z-0.125000 I0.914944 J-15.327367
G02 X147.352240 Y89.060680 Z-0.125000 I-0.174595 J-18.638747
G02 X148.543555 Y88.938376 Z-0.125000 I-1.491321 J-20.389510
G02 X149.872170 Y88.734140 Z-0.125000 I-4.214385 J-31.839504
G02 X151.196049 Y88.472544 Z-0.125000 I-5.383736 J-30.726662
G02 X152.634670 Y88.135120 Z-0.125000 I-11.624862 J-52.798530
G02 X154.063620 Y87.755797 Z-0.125000 I-11.572671 J-46.476667
G02 X155.569750 Y87.315420 Z-0.125000 I-22.291587 J-79.034989
G02 X157.066544 Y86.843827 Z-0.125000 I-20.294078 J-67.022781
G02 X158.598740 Y86.329250 Z-0.125000 I-33.180006 J-101.334580
G02 X160.121944 Y85.790020 Z-0.125000 I-30.404597 J-88.307096
G02 X161.637940 Y85.226130 Z-0.125000 I-38.352548 J-105.429161
G02 X163.144469 Y84.640218 Z-0.125000 I-37.763683 J-99.329899
G02 X164.603690 Y84.046260 Z-0.125000 I-36.211142 J-91.052031
G02 X166.051935 Y83.429603 Z-0.125000 I-38.055986 J-91.385021
G02 X167.418230 Y82.819000 Z-0.125000 I-30.529548 J-70.147349
G02 X168.770993 Y82.182709 Z-0.125000 I-32.488619 J-70.827357
G02 X170.014810 Y81.564190 Z-0.125000 I-24.697907 J-51.226406
G02 X171.241632 Y80.915932 Z-0.125000 I-25.445498 J-49.640411
G02 X172.341070 Y80.295560 Z-0.125000 I-19.884219 J-36.523659
G02 X173.419293 Y79.641465 Z-0.125000 I-19.415759 J-33.221053
G02 X174.360160 Y79.024550 Z-0.125000 I-16.034351 J-25.480165
G02 X175.274915 Y78.370994 Z-0.125000 I-14.871419 J-21.781859
G02 X176.049560 Y77.763650 Z-0.125000 I-12.673256 J-16.961956
G02 X176.805346 Y77.124612 Z-0.125000 I-22.911329 J-27.863523
G02 X177.397120 Y76.527350 Z-0.125000 I-3.710406 J-4.268112
G02 X177.892965 Y75.867063 Z-0.125000 I-5.046003 J-4.305639
G02 X178.223420 Y75.216010 Z-0.125000 I-2.725337 J-1.792689
G02 X178.402306 Y74.506212 Z-0.125000 I-3.104606 J-1.159873
G02 X178.437990 Y73.741270 Z-0.125000 I-4.239041 J-0.581054
G02 X178.337802 Y72.973497 Z-0.125000 I-4.459375 J0.191489
G02 X178.089970 Y72.114050 Z-0.125000 I-6.814227 J1.499508
G02 X177.736977 Y71.286887 Z-0.125000 I-7.240490 J2.600992
G02 X177.227450 Y70.371570 Z-0.125000 I-10.172544 J5.063240
G02 X176.639372 Y69.502598 Z-0.125000 I-10.916482 J6.754267
G02 X175.896920 Y68.569560 Z-0.125000 I-13.215991 J9.754525
G02 X175.092484 Y67.688818 Z-0.125000 I-14.282001 J12.236882
G02 X174.146100 Y66.775260 Z-0.125000 I-15.117855 J14.714107
G02 X173.147762 Y65.918513 Z-0.125000 I-16.162449 J17.823503
G02 X172.028290 Y65.061400 Z-0.125000 I-15.623255 J19.245856
G02 X170.863961 Y64.265823 Z-0.125000 I-16.141585 J22.373455
G02 X169.606970 Y63.500440 Z-0.125000 I-14.837766 J22.953249
G02 X168.311446 Y62.801400 Z-0.125000 I-14.517422 J25.354996
G02 X166.959010 Y62.158870 Z-0.125000 I-12.986726 J25.590625
G02 X165.574735 Y61.587002 Z-0.125000 I-11.830749 J26.676427
G02 X164.175490 Y61.091630 Z-0.125000 I-10.283279 J26.822622
G02 X162.751896 Y60.670426 Z-0.125000 I-8.579000 J26.379162
G02 X161.359140 Y60.337710 Z-0.125000 I-6.994541 J26.197848
G02 X159.959044 Y60.084174 Z-0.125000 I-5.078112 J24.050143
G02 X158.618390 Y59.918250 Z-0.125000 I-3.735602 J24.684194
G02 X157.276161 Y59.830246 Z-0.125000 I-2.108836 J21.883945
G02 X155.992030 Y59.820450 Z-0.125000 I-0.821774 J23.553103
G02 X154.705237 Y59.884696 Z-0.125000 I0.420497 J21.340860
G02 X153.472190 Y60.019420 Z-0.125000 I1.725201 J21.499817
G02 X152.250547 Y60.227778 Z-0.125000 I2.715737 J19.608438
G02 X151.083680 Y60.500220 Z-0.125000 I4.090676 J20.155393
G02 X149.936249 Y60.843048 Z-0.125000 I4.810091 J18.190778
G02 X148.840540 Y61.244150 Z-0.125000 I6.425682 J19.250496
G02 X147.771266 Y61.710361 Z-0.125000 I6.866518 J17.207974
G02 X146.748640 Y62.230010 Z-0.125000 I8.932311 J18.844072
G02 X145.757759 Y62.807752 Z-0.125000 I9.058351 J16.674500
G02 X144.808010 Y63.434830 Z-0.125000 I11.840038 J18.965254
G02 X143.893215 Y64.111886 Z-0.125000 I11.561687 J16.577957
G02 X143.014280 Y64.834470 Z-0.125000 I15.421006 J19.653609
G02 X142.171297 Y65.598551 Z-0.125000 I14.571012 J16.922723
G02 X141.359110 Y66.404390 Z-0.125000 I20.088354 J21.058820
G02 X140.581710 Y67.243458 Z-0.125000 I18.331366 J17.763751
G02 X139.829720 Y68.120840 Z-0.125000 I26.589464 J23.550355
G02 X139.109491 Y69.023780 Z-0.125000 I23.374559 J19.383415
G02 X138.408430 Y69.962640 Z-0.125000 I36.061388 J27.658745
G02 X137.734678 Y70.920344 Z-0.125000 I30.663017 J22.287500
G02 X137.072860 Y71.913760 Z-0.125000 I49.599939 J33.760870
G02 X136.415839 Y72.929405 Z-0.125000 I143.187821 J93.348563
G02 X135.798160 Y73.966520 Z-0.125000 I15.166733 J9.735411
G02 X135.230170 Y75.039245 Z-0.125000 I31.825828 J17.537968
G02 X134.769570 Y76.093430 Z-0.125000 I8.796730 J4.471233
G02 X134.436901 Y77.176671 Z-0.125000 I9.554837 J3.527048
G02 X134.229440 Y78.216330 Z-0.125000 I11.352226 J2.805828
G02 X134.127357 Y79.271108 Z-0.125000 I9.504888 J1.452223
G02 X134.129740 Y80.280820 Z-0.125000 I11.544869 J0.477616
G02 X134.228823 Y81.285881 Z-0.125000 I9.678713 J-0.446754
G02 X134.415420 Y82.245930 Z-0.125000 I11.636646 J-1.763561
G02 X134.687188 Y83.185739 Z-0.125000 I9.924989 J-2.360846
G02 X135.033290 Y84.079280 Z-0.125000 I11.313413 J-3.868311
G02 X135.453257 Y84.940517 Z-0.125000 I9.968234 J-4.327823
G02 X135.937950 Y85.752670 Z-0.125000 I10.323708 J-5.610478
G02 X136.487090 Y86.521932 Z-0.125000 I9.508926 J-6.207338
G02 X137.095680 Y87.238690 Z-0.125000 I8.756888 J-6.818613
G02 X137.760953 Y87.901403 Z-0.125000 I8.412247 J-7.779465
G02 X138.486510 Y88.508530 Z-0.125000 I6.998247 J-7.626262
G02 X139.260911 Y89.049008 Z-0.125000 I6.861926 J-9.006805
G02 X140.104510 Y89.530980 Z-0.125000 I5.381471 J-8.439954
G02 X140.986933 Y89.933611 Z-0.125000 I5.177733 J-10.179437
G02 X141.956230 Y90.273330 Z-0.125000 I3.985295 J-9.818304
G02 X142.951393 Y90.524332 Z-0.125000 I3.516727 J-11.844681
G02 X144.057280 Y90.704590 Z-0.125000 I2.602475 J-12.483805
G02 X145.172481 Y90.794025 Z-0.125000 I1.748729 J-14.807955
G02 X146.427240 Y90.801690 Z-0.125000 I0.732646 J-17.228182
G02 X147.685317 Y90.722612 Z-0.125000 I-0.588362 J-19.407654
G02 X149.104140 Y90.551490 Z-0.125000 I-2.741466 J-28.697741
G02 X150.523846 Y90.308457 Z-0.125000 I-4.203671 J-28.824388
G02 X152.090370 Y89.975800 Z-0.125000 I-10.321834 J-52.461717
G02 X153.646678 Y89.592843 Z-0.125000 I-10.444820 J-45.800812
G02 X155.306780 Y89.136970 Z-0.125000 I-22.751076 J-86.100664
G02 X156.957068 Y88.645530 Z-0.125000 I-20.063064 J-70.389759
G02 X158.661520 Y88.102820 Z-0.125000 I-37.547394 J-120.870317
G02 X160.356890 Y87.533857 Z-0.125000 I-32.754662 J-100.411202
G02 X162.054710 Y86.935740 Z-0.125000 I-45.474911 J-131.794274
G02 X163.743183 Y86.315341 Z-0.125000 I-43.761982 J-121.710229
G02 X165.384750 Y85.685430 Z-0.125000 I-42.172574 J-112.356846
G02 X167.015355 Y85.032560 Z-0.125000 I-45.099921 J-115.004056
G02 X168.556200 Y84.386130 Z-0.125000 I-34.057283 J-83.339330
G02 X170.083144 Y83.712784 Z-0.125000 I-37.421789 J-86.929185
G02 X171.487100 Y83.058440 Z-0.125000 I-26.568144 J-58.837794
G02 X172.873118 Y82.371624 Z-0.125000 I-28.076592 J-58.401481
G02 X174.114050 Y81.714180 Z-0.125000 I-21.005299 J-41.147535
G02 X175.332192 Y81.018864 Z-0.125000 I-20.761965 J-37.788134
G02 X176.393980 Y80.362460 Z-0.125000 I-16.961400 J-28.623435
G02 X177.427466 Y79.664365 Z-0.125000 I-15.634916 J-24.260549
G02 X178.302600 Y79.014870 Z-0.125000 I-13.813280 J-19.526454
G02 X179.151200 Y78.326684 Z-0.125000 I-16.649498 J-21.397745
G02 X179.830600 Y77.688430 Z-0.125000 I-5.717227 J-6.766521
G02 X180.444381 Y77.001519 Z-0.125000 I-9.578137 J-9.176097
G02 X180.875780 Y76.329000 Z-0.125000 I-2.478901 J-2.064759
G02 X181.134377 Y75.575848 Z-0.125000 I-3.118073 J-1.491571
G02 X181.232780 Y74.757290 Z-0.125000 I-4.216540 J-0.922085
G02 X181.175607 Y73.923012 Z-0.125000 I-4.531456 J-0.108557
G02 X180.956310 Y72.972930 Z-0.125000 I-7.291530 J1.182673
G02 X180.617067 Y72.052183 Z-0.125000 I-7.821704 J2.358984
G02 X180.104860 Y71.017390 Z-0.125000 I-11.368438 J4.983042
G02 X179.503356 Y70.029722 Z-0.125000 I-12.383204 J6.864556
G02 X178.729450 Y68.955700 Z-0.125000 I-15.082527 J10.052148
G02 X177.884316 Y67.936427 Z-0.125000 I-16.673158 J12.964610
G02 X176.877820 Y66.867260 Z-0.125000 I-17.416902 J15.387639
G02 X175.810278 Y65.858905 Z-0.125000 I-19.139312 J19.193428
G02 X174.601090 Y64.838980 Z-0.125000 I-18.119714 J20.255379
G02 X173.337680 Y63.886401 Z-0.125000 I-19.270128 J24.243942
G02 X171.961000 Y62.959150 Z-0.125000 I-17.394733 J24.340180
G02 X170.536370 Y62.106000 Z-0.125000 I-17.481948 J27.576161
G02 X169.036080 Y61.311070 Z-0.125000 I-15.519838 J27.477709
G02 X167.494990 Y60.596344 Z-0.125000 I-14.474084 J29.190158
G02 X165.924900 Y59.966040 Z-0.125000 I-12.705989 J29.379981
G02 X164.322523 Y59.420594 Z-0.125000 I-10.816216 J29.148765
G02 X162.745030 Y58.976650 Z-0.125000 I-9.149588 J29.487145
G02 X161.149394 Y58.621939 Z-0.125000 I-6.903501 J27.288521
G02 X159.626850 Y58.372740 Z-0.125000 I-5.295981 J27.581340
G02 X158.107124 Y58.215781 Z-0.125000 I-3.223870 J23.778769
G02 X156.669210 Y58.152890 Z-0.125000 I-1.867693 J26.232880
G02 X155.224567 Y58.174571 Z-0.125000 I-0.376293 J23.067463
G02 X153.852250 Y58.278360 Z-0.125000 I1.092846 J23.574191
G02 X152.489711 Y58.466410 Z-0.125000 I2.213873 J21.071075
G02 X151.198390 Y58.727740 Z-0.125000 I3.699364 J21.600957
G02 X149.927139 Y59.070112 Z-0.125000 I4.497505 J19.230843
G02 X148.721940 Y59.478170 Z-0.125000 I6.184514 J20.249777
G02 X147.545321 Y59.961564 Z-0.125000 I6.668086 J17.904342
G02 X146.426970 Y60.504770 Z-0.125000 I8.786683 J19.512824
G02 X145.343907 Y61.115397 Z-0.125000 I8.945200 J17.131838
G02 X144.311160 Y61.781230 Z-0.125000 I11.761218 J19.376195
G02 X143.318036 Y62.505132 Z-0.125000 I11.526962 J16.857086
G02 X142.368260 Y63.280110 Z-0.125000 I15.380669 J19.819285
G02 X141.459838 Y64.103241 Z-0.125000 I14.584803 J17.008886
G02 X140.588720 Y64.973200 Z-0.125000 I20.087328 J20.985212
G02 X139.758120 Y65.881585 Z-0.125000 I18.362561 J17.624101
G02 X138.958770 Y66.832490 Z-0.125000 I26.779815 J23.323088
G02 X138.196647 Y67.812687 Z-0.125000 I23.369354 J18.956531
G02 X137.458620 Y68.831880 Z-0.125000 I37.338700 J27.814831
G02 X136.752320 Y69.872062 Z-0.125000 I30.732595 J21.627819
G02 X136.061110 Y70.950030 Z-0.125000 I55.799244 J36.539915
G02 X135.386144 Y72.045915 Z-0.125000 I63.796383 J40.048581
G02 X134.732420 Y73.174680 Z-0.125000 I30.103969 J18.188401
G02 X134.088143 Y74.337918 Z-0.125000 I964.347671 J534.878778
G02 X133.540200 Y75.495070 Z-0.125000 I8.903873 J4.924534
G02 X133.137421 Y76.685270 Z-0.125000 I11.022017 J4.393245
G02 X132.875900 Y77.832400 Z-0.125000 I11.519069 J3.229475
G02 X132.739225 Y78.998247 Z-0.125000 I9.927010 J1.754705
G02 X132.723120 Y80.117570 Z-0.125000 I12.686049 J0.742301
G02 X132.816523 Y81.233450 Z-0.125000 I10.395145 J-0.308263
G02 X133.008650 Y82.303860 Z-0.125000 I13.393942 J-1.851617
G02 X133.294382 Y83.353688 Z-0.125000 I11.090801 J-2.454785
G02 X133.661410 Y84.356760 Z-0.125000 I13.685015 J-4.438721
G02 X134.106961 Y85.327584 Z-0.125000 I11.672339 J-4.769269
G02 X134.620090 Y86.247680 Z-0.125000 I12.997168 J-6.645261
G02 X135.200121 Y87.126406 Z-0.125000 I11.658474 J-7.064750
G02 X135.838470 Y87.949350 Z-0.125000 I11.233534 J-8.054680
G02 X136.535773 Y88.721131 Z-0.125000 I10.680500 J-8.948908
G02 X137.288670 Y89.432580 Z-0.125000 I8.918522 J-8.684009
G02 X138.094408 Y90.080330 Z-0.125000 I8.843523 J-10.175485
G02 X138.962260 Y90.664270 Z-0.125000 I6.708459 J-9.033238
G02 X139.875601 Y91.169363 Z-0.125000 I6.673499 J-10.989111
G02 X140.869060 Y91.606940 Z-0.125000 I4.898345 J-9.774486
G02 X141.896759 Y91.951191 Z-0.125000 I4.608434 J-12.051515
G02 X143.033490 Y92.221070 Z-0.125000 I3.370927 J-11.669455
G02 X144.188483 Y92.389339 Z-0.125000 I2.663858 J-14.236578
G02 X145.488790 Y92.471400 Z-0.125000 I1.642075 J-15.676583
G02 X146.793169 Y92.453246 Z-0.125000 I0.397663 J-18.297308
G02 X148.278850 Y92.334820 Z-0.125000 I-1.231630 J-24.829331
G02 X149.771703 Y92.127486 Z-0.125000 I-2.889221 J-26.281192
G02 X151.445970 Y91.816500 Z-0.125000 I-8.231882 J-48.980673
G02 X153.111082 Y91.443900 Z-0.125000 I-8.798341 J-43.225800
G02 X154.912440 Y90.984590 Z-0.125000 I-21.666478 J-88.735322
G02 X156.703443 Y90.483919 Z-0.125000 I-18.729459 J-70.452850
G02 X158.572960 Y89.921820 Z-0.125000 I-40.872154 J-139.329038
G02 X160.433309 Y89.331382 Z-0.125000 I-33.628551 J-109.182768
G02 X162.310510 Y88.705940 Z-0.125000 I-53.502260 J-163.711332
G02 X164.178591 Y88.058152 Z-0.125000 I-49.463575 J-145.659673
G02 X166.003550 Y87.398550 Z-0.125000 I-49.011431 J-138.457251
G02 X167.817698 Y86.716271 Z-0.125000 I-53.315000 J-144.514996
G02 X169.536080 Y86.040250 Z-0.125000 I-37.582382 J-98.052959
G02 X171.240292 Y85.336506 Z-0.125000 I-43.014124 J-106.579995
G02 X172.807900 Y84.652380 Z-0.125000 I-28.049830 J-66.411479
G02 X174.356636 Y83.933072 Z-0.125000 I-30.655700 J-68.031475
G02 X175.742030 Y83.243770 Z-0.125000 I-21.629284 J-45.208492
G02 X177.102882 Y82.511949 Z-0.125000 I-21.800973 J-42.170988
G02 X178.287630 Y81.819570 Z-0.125000 I-17.436419 J-31.195759
G02 X179.441538 Y81.079598 Z-0.125000 I-16.140154 J-26.438548
G02 X180.418130 Y80.389130 Z-0.125000 I-14.470470 J-21.502784
G02 X181.360169 Y79.651249 Z-0.125000 I-13.733678 J-18.503818
G02 X182.126080 Y78.970650 Z-0.125000 I-9.050327 J-10.956027
G02 X182.849976 Y78.254481 Z-0.125000 I-20.127044 J-21.068131
G02 X183.378630 Y77.560920 Z-0.125000 I-2.563907 J-2.502551
G02 X183.730706 Y76.775125 Z-0.125000 I-3.446447 J-2.015955
G02 X183.909430 Y75.921870 Z-0.125000 I-3.893185 J-1.260817
G02 X183.909476 Y75.032754 Z-0.125000 I-4.447592 J-0.444789
G02 X183.734680 Y74.003160 Z-0.125000 I-7.580264 J0.757282
G02 X183.424427 Y72.997676 Z-0.125000 I-8.181047 J1.973746
G02 X182.927010 Y71.849990 Z-0.125000 I-12.417948 J4.700405
G02 X182.329433 Y70.748963 Z-0.125000 I-13.664561 J6.703695
G02 X181.543470 Y69.536660 Z-0.125000 I-16.868904 J10.075554
G02 X180.677113 Y68.380490 Z-0.125000 I-19.014979 J13.345886
G02 X179.631380 Y67.154420 Z-0.125000 I-19.668471 J15.716525
G02 X178.515386 Y65.992059 Z-0.125000 I-22.197699 J20.195306
G02 X177.237370 Y64.803570 Z-0.125000 I-20.588393 J20.857896
G02 X175.895295 Y63.687219 Z-0.125000 I-22.556032 J25.751904
G02 X174.417600 Y62.587680 Z-0.125000 I-19.935315 J25.248808
G02 X172.881610 Y61.569303 Z-0.125000 I-20.646164 J29.472506
G02 X171.247320 Y60.607400 Z-0.125000 I-18.063238 J28.820463
G02 X169.561939 Y59.735035 Z-0.125000 I-17.317443 J31.392509
G02 X167.827680 Y58.952450 Z-0.125000 I-15.211958 J31.397772
G02 X166.051680 Y58.265845 Z-0.125000 I-13.268492 J31.680567
G02 X164.287460 Y57.692490 Z-0.125000 I-11.513864 J32.427361
G02 X162.493945 Y57.219364 Z-0.125000 I-8.954243 J30.307562
G02 X160.777840 Y56.869620 Z-0.125000 I-7.209933 J30.992194
G02 X159.061876 Y56.625531 Z-0.125000 I-4.644007 J26.494002
G02 X157.451070 Y56.494170 Z-0.125000 I-3.175602 J28.998727
G02 X155.835157 Y56.460297 Z-0.125000 I-1.324874 J24.642424
G02 X154.316270 Y56.522570 Z-0.125000 I0.307213 J26.047594
G02 X152.803131 Y56.679658 Z-0.125000 I1.595293 J22.732701
G02 X151.380610 Y56.920230 Z-0.125000 I3.205353 J23.279524
G02 X149.978155 Y57.252837 Z-0.125000 I4.100143 J20.411531
G02 X148.658640 Y57.659020 Z-0.125000 I5.859810 J21.382385
G02 X147.369280 Y58.151296 Z-0.125000 I6.396258 J18.687649
G02 X146.151600 Y58.709950 Z-0.125000 I8.554122 J20.251518
G02 X144.972310 Y59.346026 Z-0.125000 I8.753778 J17.640823
G02 X143.853550 Y60.043400 Z-0.125000 I11.571269 J19.809237
G02 X142.778817 Y60.807642 Z-0.125000 I11.403052 J17.173606
G02 X141.755500 Y61.628900 Z-0.125000 I15.179898 J19.962876
G02 X140.778994 Y62.505756 Z-0.125000 I14.510946 J17.142205
G02 X139.846890 Y63.435020 Z-0.125000 I19.760038 J20.752538
G02 X138.961486 Y64.408788 Z-0.125000 I18.248585 J17.482046
G02 X138.114230 Y65.429810 Z-0.125000 I26.153448 J22.564474
G02 X137.310683 Y66.484821 Z-0.125000 I23.003597 J18.354153
G02 X136.537990 Y67.582140 Z-0.125000 I36.521559 J26.537901
G02 X135.803050 Y68.703660 Z-0.125000 I29.842190 J20.357372
G02 X135.089100 Y69.864450 Z-0.125000 I56.985829 J35.849373
G02 X134.402348 Y71.041387 Z-0.125000 I44.629107 J26.830270
G02 X133.727250 Y72.257520 Z-0.125000 I72.431230 J41.003361
G03 X133.038983 Y73.502526 Z-0.125000 I-94.886834 J-51.642799
G02 X132.427320 Y74.755240 Z-0.125000 I10.599717 J5.951213
G02 X131.946547 Y76.045577 Z-0.125000 I15.802576 J6.622700
G02 X131.614730 Y77.298270 Z-0.125000 I10.709135 J3.506957
G02 X131.436284 Y78.572549 Z-0.125000 I10.128980 J2.068063
G02 X131.397450 Y79.799220 Z-0.125000 I13.537210 J1.042513
G02 X131.483397 Y81.023931 Z-0.125000 I10.872319 J-0.147617
G02 X131.681300 Y82.203530 Z-0.125000 I14.956711 J-1.902912
G02 X131.982748 Y83.361810 Z-0.125000 I12.027825 J-2.511934
G02 X132.373770 Y84.473790 Z-0.125000 I16.161141 J-5.058240
G02 X132.848368 Y85.553011 Z-0.125000 I13.273955 J-5.193389
G02 X133.393890 Y86.580770 Z-0.125000 I16.177118 J-7.927957
G02 X134.008077 Y87.568334 Z-0.125000 I13.973202 J-8.005463
G02 X134.679110 Y88.497580 Z-0.125000 I14.442686 J-9.722534
G02 X135.409614 Y89.378936 Z-0.125000 I13.419793 J-10.379458
G02 X136.189890 Y90.195740 Z-0.125000 I11.511566 J-10.215671
G02 X137.024538 Y90.953514 Z-0.125000 I11.427434 J-11.748158
G02 X137.912110 Y91.642290 Z-0.125000 I8.482730 J-10.014782
G02 X138.849613 Y92.256137 Z-0.125000 I8.666581 J-12.213273
G02 X139.856680 Y92.797720 Z-0.125000 I6.038650 J-10.021698
G02 X140.905720 Y93.245704 Z-0.125000 I5.994557 J-12.585144
G02 X142.056140 Y93.616180 Z-0.125000 I4.195320 J-11.056104
G02 X143.234676 Y93.877750 Z-0.125000 I3.699072 J-13.880818
G02 X144.558270 Y94.050610 Z-0.125000 I2.518777 J-14.132521
G02 X145.890289 Y94.110227 Z-0.125000 I1.436684 J-17.189241
G02 X147.418620 Y94.064210 Z-0.125000 I0.128288 J-21.141856
G02 X148.959018 Y93.911291 Z-0.125000 I-1.568612 J-23.636058
G02 X150.715080 Y93.641930 Z-0.125000 I-5.666765 J-42.802506
G02 X152.466350 Y93.295711 Z-0.125000 I-6.850536 J-39.254230
G02 X154.392660 Y92.847100 Z-0.125000 I-19.014697 J-86.007986
G02 X156.307927 Y92.349249 Z-0.125000 I-16.470024 J-67.294296
G02 X158.332450 Y91.777580 Z-0.125000 I-42.201315 J-153.323530
G02 X160.347654 Y91.174518 Z-0.125000 I-32.671952 J-112.845833
G02 X162.399790 Y90.528840 Z-0.125000 I-62.226457 J-201.356089
G02 X164.443125 Y89.860729 Z-0.125000 I-53.933389 J-168.407431
G02 X166.451480 Y89.177410 Z-0.125000 I-57.295593 J-171.691428
G02 X168.449374 Y88.472191 Z-0.125000 I-62.979478 J-181.604240
G02 X170.348140 Y87.772400 Z-0.125000 I-41.385913 J-115.219668
G02 X172.232621 Y87.044641 Z-0.125000 I-49.812146 J-131.788785
G02 X173.967840 Y86.336490 Z-0.125000 I-29.230855 J-74.105915
G02 X175.683274 Y85.590644 Z-0.125000 I-33.366074 J-79.087087
G02 X177.216910 Y84.874520 Z-0.125000 I-21.850894 J-48.795683
G02 X178.724041 Y84.110821 Z-0.125000 I-22.632321 J-46.532986
G02 X180.034570 Y83.385810 Z-0.125000 I-17.492232 J-33.165914
G02 X181.311247 Y82.606286 Z-0.125000 I-16.390652 J-28.279229
G02 X182.391110 Y81.875560 Z-0.125000 I-14.774879 J-22.997523
G02 X183.429946 Y81.088301 Z-0.125000 I-12.722122 J-17.866659
G02 X184.281090 Y80.362070 Z-0.125000 I-12.464277 J-15.470027
G02 X185.097278 Y79.601495 Z-0.125000 I-23.928217 J-26.496058
G02 X185.711950 Y78.876490 Z-0.125000 I-3.241178 J-3.370995
G02 X186.172010 Y78.068795 Z-0.125000 I-4.586500 J-3.147323
G02 X186.449110 Y77.202670 Z-0.125000 I-3.322643 J-1.540406
G02 X186.520171 Y76.271620 Z-0.125000 I-4.218103 J-0.790176
G02 X186.405110 Y75.176170 Z-0.125000 I-7.670866 J0.251943
G02 X186.137959 Y74.096843 Z-0.125000 I-8.288740 J1.478873
G02 X185.671720 Y72.845450 Z-0.125000 I-13.278585 J4.234731
G02 X185.094272 Y71.639069 Z-0.125000 I-14.685936 J6.288197
G02 X184.314870 Y70.294510 Z-0.125000 I-18.534137 J9.845528
G02 X183.446159 Y69.006441 Z-0.125000 I-21.216632 J13.372134
G02 X182.382230 Y67.626200 Z-0.125000 I-21.849788 J15.742263
G02 X181.239079 Y66.311426 Z-0.125000 I-25.254861 J20.803878
G02 X179.914780 Y64.953030 Z-0.125000 I-23.015234 J21.112810
G02 X178.516525 Y63.670307 Z-0.125000 I-25.955256 J26.889530
G02 X176.959870 Y62.392210 Z-0.125000 I-22.438001 J25.741295
G02 X175.334005 Y61.201149 Z-0.125000 I-23.986566 J31.037770
G02 X173.584430 Y60.060810 Z-0.125000 I-20.575126 J29.655254
G02 X171.772356 Y59.018628 Z-0.125000 I-20.371114 J33.323424
G02 X169.886160 Y58.067970 Z-0.125000 I-17.722306 J32.816233
G02 X167.947240 Y57.224469 Z-0.125000 I-15.926445 J33.959241
G02 X165.999510 Y56.503610 Z-0.125000 I-13.991396 J34.812374
G02 X164.011662 Y55.895281 Z-0.125000 I-11.195874 J33.032941
G02 X162.093110 Y55.426610 Z-0.125000 I-9.454586 J34.542070
G02 X160.162952 Y55.075680 Z-0.125000 I-6.418100 J29.816831
G02 X158.357690 Y54.858710 Z-0.125000 I-4.766540 J32.040487
G02 X156.554941 Y54.755166 Z-0.125000 I-2.416253 J26.322835
G02 X154.879510 Y54.764410 Z-0.125000 I-0.676868 J29.155805
G02 X153.203745 Y54.879120 Z-0.125000 I0.845693 J24.652160
G02 X151.641450 Y55.088810 Z-0.125000 I2.597514 J25.277582
G02 X150.098525 Y55.401743 Z-0.125000 I3.614356 J21.780883
G02 X148.658670 Y55.796730 Z-0.125000 I5.454687 J22.705943
G02 X147.249844 Y56.288918 Z-0.125000 I6.052961 J19.588240
G02 X145.928420 Y56.854230 Z-0.125000 I8.242388 J21.093750
G02 X144.647870 Y57.507526 Z-0.125000 I8.488418 J18.220138
G02 X143.439240 Y58.228360 Z-0.125000 I11.304329 J20.327772
G02 X142.278591 Y59.025514 Z-0.125000 I11.207906 J17.562136
G02 X141.177820 Y59.885970 Z-0.125000 I14.893223 J20.187049
G02 X140.129028 Y60.810145 Z-0.125000 I14.375385 J17.370963
G02 X139.131890 Y61.792950 Z-0.125000 I19.283549 J20.562033
G02 X138.187746 Y62.827085 Z-0.125000 I18.086246 J17.460427
G02 X137.289110 Y63.914030 Z-0.125000 I25.131065 J21.692158
G02 X136.441395 Y65.040606 Z-0.125000 I22.551863 J17.851837
G02 X135.632550 Y66.213570 Z-0.125000 I34.347832 J24.550718
G02 X134.869000 Y67.415136 Z-0.125000 I28.580275 J19.005077
G02 X134.134720 Y68.657730 Z-0.125000 I53.068022 J32.197475
G02 X133.436227 Y69.918456 Z-0.125000 I38.691305 J22.260383
G02 X132.752760 Y71.218970 Z-0.125000 I109.367631 J58.306535
G03 X132.065212 Y72.540568 Z-0.125000 I-375.163707 J-194.335507
G02 X131.427570 Y73.883890 Z-0.125000 I17.215101 J8.994583
G02 X130.860530 Y75.266683 Z-0.125000 I43.676959 J18.718212
G02 X130.436910 Y76.622670 Z-0.125000 I9.371526 J3.671895
G02 X130.206720 Y78.003012 Z-0.125000 I10.181576 J2.407274
G02 X130.138690 Y79.335140 Z-0.125000 I14.040340 J1.384824
G02 X130.213980 Y80.667404 Z-0.125000 I11.158498 J0.037661
G02 X130.417010 Y81.955820 Z-0.125000 I16.192016 J-1.891351
G02 X130.735799 Y83.221755 Z-0.125000 I12.710200 J-2.527587
G02 X131.154460 Y84.442930 Z-0.125000 I18.596068 J-5.693024
G02 X131.662800 Y85.630057 Z-0.125000 I14.680860 J-5.584093
G02 X132.246560 Y86.765740 Z-0.125000 I19.805731 J-9.462606
G02 X132.900683 Y87.861649 Z-0.125000 I16.326256 J-9.001598
G02 X133.610280 Y88.897070 Z-0.125000 I18.546180 J-11.949248
G02 X134.378678 Y89.887531 Z-0.125000 I16.586012 J-12.074099
G02 X135.190140 Y90.809290 Z-0.125000 I15.040285 J-12.422525
G02 X136.055174 Y91.677354 Z-0.125000 I14.738881 J-13.822387
G02 X136.962100 Y92.471090 Z-0.125000 I10.925915 J-11.569005
G02 X137.920539 Y93.196311 Z-0.125000 I11.356898 J-14.013128
G02 X138.934740 Y93.844070 Z-0.125000 I7.535276 J-10.680191
G02 X139.996665 Y94.402427 Z-0.125000 I7.826206 J-13.595470
G02 X141.146750 Y94.879990 Z-0.125000 I5.141304 J-10.757849
G02 X142.334208 Y95.246262 Z-0.125000 I4.937016 J-13.897864
G02 X143.660290 Y95.522750 Z-0.125000 I3.345255 J-12.726079
G02 X145.004267 Y95.674870 Z-0.125000 I2.510307 J-16.165431
G02 X146.550960 Y95.719230 Z-0.125000 I1.292673 J-18.085145
G02 X148.110987 Y95.640140 Z-0.125000 I-0.298385 J-21.310632
G02 X149.916640 Y95.435060 Z-0.125000 I-3.073207 J-35.110042
G02 X151.727120 Y95.133196 Z-0.125000 I-4.824492 J-34.515995
G02 X153.757790 Y94.711910 Z-0.125000 I-15.171460 J-78.233689
G02 X155.776826 Y94.230602 Z-0.125000 I-13.629352 J-61.649153
G02 X157.942880 Y93.660640 Z-0.125000 I-40.544978 J-158.485908
G02 X160.099307 Y93.054689 Z-0.125000 I-29.852973 J-110.379344
G02 X162.319440 Y92.396300 Z-0.125000 I-71.017053 J-243.546671
G02 X164.531093 Y91.715014 Z-0.125000 I-55.995330 J-185.707607
G02 X166.721470 Y91.013680 Z-0.125000 I-67.818277 J-215.578364
G02 X168.901852 Y90.291683 Z-0.125000 I-74.010019 J-227.158390
G02 X170.983480 Y89.573470 Z-0.125000 I-45.844248 J-136.248215
G02 X173.050903 Y88.827778 Z-0.125000 I-58.441741 J-165.267908
G02 X174.958160 Y88.101060 Z-0.125000 I-30.334744 J-82.479064
G02 X176.844817 Y87.334574 Z-0.125000 I-36.483922 J-92.508101
G02 X178.531350 Y86.596680 Z-0.125000 I-21.800343 J-52.123235
G02 X180.189331 Y85.805875 Z-0.125000 I-23.383324 J-51.158326
G02 X181.629520 Y85.051740 Z-0.125000 I-17.237144 J-34.670406
G02 X183.032380 Y84.235157 Z-0.125000 I-16.472084 J-29.911746
G02 X184.218350 Y83.464900 Z-0.125000 I-14.751967 J-24.011874
G02 X185.358442 Y82.629156 Z-0.125000 I-12.711746 J-18.536414
G02 X186.294310 Y81.852800 Z-0.125000 I-13.153711 J-16.808562
G02 X187.184504 Y81.026836 Z-0.125000 I-14.840108 J-16.886810
G02 X187.872720 Y80.253390 Z-0.125000 I-5.281040 J-5.392011
G02 X188.450735 Y79.429320 Z-0.125000 I-8.503208 J-6.579028
G02 X188.837540 Y78.565790 Z-0.125000 I-2.790284 J-1.768261
G02 X188.992516 Y77.604891 Z-0.125000 I-3.991315 J-1.136677
G02 X188.952700 Y76.461060 Z-0.125000 I-7.416852 J-0.314431
G02 X188.741620 Y75.320274 Z-0.125000 I-8.125798 J0.913596
G02 X188.321530 Y73.976320 Z-0.125000 I-13.914148 J3.611622
G02 X187.778766 Y72.674551 Z-0.125000 I-15.372189 J5.645304
G02 X187.022910 Y71.206260 Z-0.125000 I-20.049419 J9.392460
G02 X186.169144 Y69.793980 Z-0.125000 I-23.166820 J13.040845
G02 X185.106970 Y68.265830 Z-0.125000 I-23.943616 J15.509309
G02 X183.957107 Y66.803856 Z-0.125000 I-28.226922 J21.017690
G02 X182.609260 Y65.278660 Z-0.125000 I-25.381452 J21.071953
G02 X181.177928 Y63.831303 Z-0.125000 I-29.406555 J27.649545
G02 X179.566430 Y62.373150 Z-0.125000 I-24.890106 J25.888085
G02 X177.874757 Y61.006373 Z-0.125000 I-27.476890 J32.278116
G02 X176.032680 Y59.680290 Z-0.125000 I-23.042758 J30.066498
G02 X174.115980 Y58.459662 Z-0.125000 I-23.625802 J34.983404
G02 X172.095680 Y57.327860 Z-0.125000 I-20.189417 J33.669670
G02 X170.010307 Y56.313804 Z-0.125000 I-18.794905 J35.999852
G02 X167.888320 Y55.428270 Z-0.125000 I-16.480053 J36.505584
G02 X165.714925 Y54.668397 Z-0.125000 I-13.621856 J35.473233
G02 X163.590940 Y54.062050 Z-0.125000 I-11.902036 J37.668621
G02 X161.438536 Y53.585501 Z-0.125000 I-8.465353 J33.135890
G02 X159.420780 Y53.265070 Z-0.125000 I-6.696280 J35.653437
G02 X157.411002 Y53.074942 Z-0.125000 I-3.719945 J28.604848
G02 X155.560200 Y53.017650 Z-0.125000 I-1.934638 J32.574523
G02 X153.706107 Y53.077650 Z-0.125000 I-0.064663 J26.678959
G02 X151.994220 Y53.246000 Z-0.125000 I1.866980 J27.772558
G02 X150.299418 Y53.528797 Z-0.125000 I3.033669 J23.400620
G02 X148.731800 Y53.902870 Z-0.125000 I4.971027 J24.303698
G02 X147.195360 Y54.385481 Z-0.125000 I5.643494 J20.653620
G02 X145.765070 Y54.948070 Z-0.125000 I7.862412 J22.088332
G02 X144.377412 Y55.609712 Z-0.125000 I8.152842 J18.884894
G02 X143.074710 Y56.345080 Z-0.125000 I10.978214 J20.969419
G02 X141.823244 Y57.166858 Z-0.125000 I10.937280 J18.019928
G02 X140.640500 Y58.058450 Z-0.125000 I14.571041 J20.559535
G02 X139.514370 Y59.022472 Z-0.125000 I14.200162 J17.727793
G02 X138.446870 Y60.051950 Z-0.125000 I18.787048 J20.549117
G02 X137.438351 Y61.140186 Z-0.125000 I17.933606 J17.631355
G02 X136.482530 Y62.287750 Z-0.125000 I24.032806 J20.989068
G02 X135.585084 Y63.481342 Z-0.125000 I22.159379 J17.595531
G02 X134.735040 Y64.726580 Z-0.125000 I31.765001 J22.596677
G02 X133.939047 Y66.005861 Z-0.125000 I27.369181 J17.916908
G02 X133.182260 Y67.329070 Z-0.125000 I46.744889 J27.612968
G02 X132.470271 Y68.674658 Z-0.125000 I35.383502 J19.583585
G02 X131.783620 Y70.059290 Z-0.125000 I92.133625 J46.552428
G02 X131.114836 Y71.460067 Z-0.125000 I93.651219 J45.572664
G02 X130.475080 Y72.892300 Z-0.125000 I39.704330 J18.594308
G03 X129.842170 Y74.359691 Z-0.125000 I-146.640243 J-62.378143
G02 X129.335880 Y75.813400 Z-0.125000 I9.157374 J4.004302
G02 X129.044336 Y77.296264 Z-0.125000 I11.436245 J3.018559
G02 X128.933350 Y78.733490 Z-0.125000 I13.456107 J1.762010
G02 X128.991997 Y80.172715 Z-0.125000 I11.137458 J0.266968
G02 X129.198100 Y81.570530 Z-0.125000 I17.151075 J-1.814767
G02 X129.534756 Y82.944482 Z-0.125000 I13.140791 J-2.491635
G02 X129.984370 Y84.276530 Z-0.125000 I20.819951 J-6.285573
G02 X130.531473 Y85.572457 Z-0.125000 I15.838084 J-5.922937
G02 X131.160380 Y86.817780 Z-0.125000 I23.741617 J-11.208405
G02 X131.862074 Y88.022844 Z-0.125000 I18.569270 J-10.005833
G02 X132.618560 Y89.165270 Z-0.125000 I23.657998 J-14.844060
G02 X133.432830 Y90.264835 Z-0.125000 I20.032959 J-13.983894
G02 X134.282890 Y91.290980 Z-0.125000 I19.857685 J-15.584965
G02 X135.184112 Y92.268488 Z-0.125000 I18.827529 J-16.454003
G02 X136.114500 Y93.165510 Z-0.125000 I14.367801 J-13.971225
G02 X137.095080 Y94.001617 Z-0.125000 I14.975304 J-16.569868
G02 X138.114820 Y94.754160 Z-0.125000 I9.587786 J-11.924835
G02 X139.184857 Y95.425144 Z-0.125000 I10.323202 J-15.274004
G02 X140.325010 Y96.011230 Z-0.125000 I6.310583 J-10.874350
G02 X141.510217 Y96.489254 Z-0.125000 I6.499788 J-14.407190
G02 X142.820110 Y96.876970 Z-0.125000 I4.166090 J-11.668491
G02 X144.159248 Y97.133956 Z-0.125000 I3.654622 J-15.426416
G02 X145.698000 Y97.284150 Z-0.125000 I2.291993 J-15.524293
G02 X147.252154 Y97.296392 Z-0.125000 I0.929480 J-19.341907
G02 X149.075380 Y97.177610 Z-0.125000 I-0.898845 J-27.848746
G02 X150.915082 Y96.939240 Z-0.125000 I-2.925257 J-29.795103
G02 X153.022960 Y96.565000 Z-0.125000 I-10.733100 J-66.576734
G02 X155.120742 Y96.115891 Z-0.125000 I-10.570681 J-54.499458
G02 X157.410980 Y95.560820 Z-0.125000 I-35.602889 J-151.900714
G02 X159.690979 Y94.962897 Z-0.125000 I-25.683686 J-102.583017
G02 X162.069130 Y94.300090 Z-0.125000 I-77.854618 J-283.940066
G02 X164.439011 Y93.613050 Z-0.125000 I-54.510363 J-192.459342
G02 X166.808060 Y92.899280 Z-0.125000 I-81.769064 J-275.685206
G02 X169.167702 Y92.166334 Z-0.125000 I-85.553560 J-279.595460
G02 X171.433960 Y91.434550 Z-0.125000 I-51.580400 J-163.614107
G02 X173.686312 Y90.676623 Z-0.125000 I-70.109174 J-212.070987
G02 X175.770310 Y89.936450 Z-0.125000 I-31.560158 J-92.163253
G02 X177.833136 Y89.155170 Z-0.125000 I-40.438699 J-109.884884
G02 X179.678160 Y88.400630 Z-0.125000 I-21.613623 J-55.483283
G02 X181.492646 Y87.587881 Z-0.125000 I-24.213184 J-56.488451
G02 X183.067610 Y86.808570 Z-0.125000 I-16.771328 J-35.875491
G02 X184.601421 Y85.957983 Z-0.125000 I-16.473516 J-31.513866
G02 X185.897530 Y85.149490 Z-0.125000 I-14.474348 J-24.647243
G02 X187.142220 Y84.265111 Z-0.125000 I-12.651670 J-19.124251
G02 X188.165780 Y83.435880 Z-0.125000 I-13.377560 J-17.558913
G02 X189.132287 Y82.540110 Z-0.125000 I-11.717095 J-13.611668
G02 X189.894020 Y81.709270 Z-0.125000 I-8.919441 J-8.942153
G02 X190.578624 Y80.851733 Z-0.125000 I-17.762393 J-14.882421
G02 X191.063520 Y79.977380 Z-0.125000 I-2.778925 J-2.112761
G02 X191.313199 Y78.993625 Z-0.125000 I-4.166896 J-1.581131
G02 X191.367280 Y77.826560 Z-0.125000 I-6.576631 J-0.889539
G02 X191.224447 Y76.637695 Z-0.125000 I-7.698755 J0.321933
G02 X190.864160 Y75.213690 Z-0.125000 I-14.277580 J2.854787
G02 X190.368905 Y73.827766 Z-0.125000 I-15.660563 J4.814801
G02 X189.651530 Y72.245870 Z-0.125000 I-21.374348 J8.739450
G02 X188.827813 Y70.718894 Z-0.125000 I-24.775128 J12.379121
G02 X187.785280 Y69.051690 Z-0.125000 I-25.928256 J15.053845
G02 X186.647190 Y67.450558 Z-0.125000 I-30.993641 J20.825328
G02 X185.297310 Y65.765580 Z-0.125000 I-27.685590 J20.796460
G02 X183.855127 Y64.159360 Z-0.125000 I-32.804936 J28.004140
G02 X182.213390 Y62.524560 Z-0.125000 I-27.308737 J25.782862
G02 X180.481001 Y60.983773 Z-0.125000 I-31.066479 J33.185401
G02 X178.572010 Y59.469670 Z-0.125000 I-25.464291 J30.145056
G02 X176.576164 Y58.066488 Z-0.125000 I-27.075652 J36.390636
G02 X174.444650 Y56.744390 Z-0.125000 I-22.599970 J34.056850
G02 X172.234755 Y55.549266 Z-0.125000 I-21.884783 J37.826295
G02 X169.954210 Y54.483830 Z-0.125000 I-18.918838 J37.521938
G02 X167.609317 Y53.557041 Z-0.125000 I-16.256311 J37.700664
G02 X165.284490 Y52.794620 Z-0.125000 I-14.401118 J39.987191
G02 X162.915370 Y52.175761 Z-0.125000 I-10.672749 J36.013340
G02 X160.674040 Y51.733620 Z-0.125000 I-8.974099 J39.590032
G02 X158.434250 Y51.437335 Z-0.125000 I-5.337961 J31.738613
G02 X156.380340 Y51.297090 Z-0.125000 I-3.509678 J36.289860
G02 X154.328359 Y51.288962 Z-0.125000 I-1.138984 J28.523318
G02 X152.455000 Y51.405180 Z-0.125000 I1.001713 J31.303841
G02 X150.594218 Y51.646871 Z-0.125000 I2.342675 J25.320198
G02 X148.889620 Y51.990110 Z-0.125000 I4.404559 J26.278313
G02 X147.215633 Y52.453222 Z-0.125000 I5.165683 J21.929136
G02 X145.670590 Y53.003310 Z-0.125000 I7.414425 J23.269869
G02 X144.169152 Y53.663850 Z-0.125000 I7.750916 J19.654892
G02 X142.768020 Y54.404170 Z-0.125000 I10.579233 J21.718332
G02 X141.420625 Y55.241520 Z-0.125000 I10.586539 J18.537729
G02 X140.151390 Y56.155270 Z-0.125000 I14.214243 J21.082528
G02 X138.942613 Y57.150669 Z-0.125000 I13.955244 J18.178386
G02 X137.798920 Y58.218880 Z-0.125000 I18.347908 J20.790782
G02 X136.719491 Y59.353742 Z-0.125000 I17.806807 J18.017813
G02 X135.699150 Y60.555360 Z-0.125000 I23.085878 J20.637131
G02 X134.744315 Y61.809974 Z-0.125000 I21.918946 J17.672252
G02 X133.845150 Y63.122780 Z-0.125000 I29.372861 J21.082348
G02 X133.009309 Y64.475921 Z-0.125000 I26.426966 J17.258774
G02 X132.223440 Y65.877500 Z-0.125000 I40.548580 J23.656802
G02 X131.493329 Y67.306957 Z-0.125000 I32.584039 J17.543842
G02 X130.801180 Y68.776330 Z-0.125000 I70.912666 J34.301161
G02 X130.147326 Y70.261823 Z-0.125000 I48.255332 J22.126711
G02 X129.515820 Y71.782570 Z-0.125000 I131.654625 J55.562401
G03 X128.861404 Y73.330073 Z-0.125000 I-63.500630 J-25.941337
G02 X128.308870 Y74.877080 Z-0.125000 I10.870261 J4.754636
G02 X127.945542 Y76.458098 Z-0.125000 I16.321779 J4.583108
G02 X127.769850 Y78.000330 Z-0.125000 I11.834156 J2.129276
G02 X127.802865 Y79.546423 Z-0.125000 I11.016334 J0.538160
G02 X128.006870 Y81.055050 Z-0.125000 I17.675387 J-1.622061
G02 X128.359791 Y82.538377 Z-0.125000 I13.348785 J-2.392363
G02 X128.842350 Y83.984620 Z-0.125000 I22.676294 J-6.762635
G02 X129.432429 Y85.391871 Z-0.125000 I16.733088 J-6.189064
G02 X130.113520 Y86.750720 Z-0.125000 I27.724616 J-13.046198
G02 X130.871111 Y88.067787 Z-0.125000 I20.597767 J-10.971640
G02 X131.684430 Y89.320250 Z-0.125000 I29.686348 J-18.387277
G02 X132.555040 Y90.530782 Z-0.125000 I23.543680 J-16.014178
G02 X133.454280 Y91.662160 Z-0.125000 I26.283008 J-19.967176
G02 X134.401635 Y92.748892 Z-0.125000 I23.568765 J-19.589689
G02 X135.364110 Y93.747310 Z-0.125000 I19.269940 J-17.613110
G02 X136.373193 Y94.692200 Z-0.125000 I19.695740 J-20.022551
G02 X137.402260 Y95.545690 Z-0.125000 I12.516154 J-14.043803
G02 X138.480569 Y96.327524 Z-0.125000 I13.776652 J-17.866315
G02 X139.606800 Y97.018800 Z-0.125000 I7.862007 J-11.545749
G02 X140.782623 Y97.610441 Z-0.125000 I8.578116 J-15.583842
G02 X142.062010 Y98.110630 Z-0.125000 I5.062414 J-11.062383
G02 X143.381395 Y98.480353 Z-0.125000 I4.957633 J-15.152675
G02 X144.887410 Y98.746480 Z-0.125000 I3.155588 J-13.463153
G02 X146.414018 Y98.863950 Z-0.125000 I2.135687 J-17.776442
G02 X148.222810 Y98.850820 Z-0.125000 I0.745471 J-21.900909
G02 X150.058533 Y98.695359 Z-0.125000 I-1.244874 J-25.615855
G02 X152.208780 Y98.390860 Z-0.125000 I-6.436610 J-53.197038
G02 X154.355373 Y97.991474 Z-0.125000 I-7.605814 J-46.847568
G02 X156.747970 Y97.466800 Z-0.125000 I-28.224256 J-134.424809
G02 X159.129452 Y96.889352 Z-0.125000 I-20.859772 J-91.228390
G02 X161.651940 Y96.231630 Z-0.125000 I-79.177229 J-308.825439
G02 X164.166200 Y95.546808 Z-0.125000 I-49.297023 J-185.947309
G02 X166.708010 Y94.826250 Z-0.125000 I-100.570154 J-359.610415
G02 X169.241103 Y94.087945 Z-0.125000 I-94.863779 J-330.188224
G02 X171.692510 Y93.346920 Z-0.125000 I-59.462596 J-201.135282
G02 X174.130573 Y92.581987 Z-0.125000 I-86.533785 J-280.076116
G02 X176.396060 Y91.833000 Z-0.125000 I-33.169279 J-104.129012
G02 X178.640072 Y91.042673 Z-0.125000 I-45.800964 J-133.625751
G02 X180.650120 Y90.276640 Z-0.125000 I-21.443341 J-59.286850
G02 X182.627811 Y89.447578 Z-0.125000 I-25.287491 J-63.095598
G02 X184.343950 Y88.647690 Z-0.125000 I-16.207383 J-37.013420
G02 X186.014980 Y87.767077 Z-0.125000 I-16.489078 J-33.315018
G02 X187.426670 Y86.922640 Z-0.125000 I-14.021225 J-25.042256
G02 X188.780566 Y85.990381 Z-0.125000 I-12.531989 J-19.649141
G02 X189.896190 Y85.106530 Z-0.125000 I-13.375990 J-18.029592
G02 X190.944526 Y84.140640 Z-0.125000 I-10.757933 J-12.728064
G02 X191.780950 Y83.242380 Z-0.125000 I-12.879940 J-12.831835
G02 X192.551409 Y82.317882 Z-0.125000 I-21.375399 J-18.597123
G02 X193.117200 Y81.404310 Z-0.125000 I-3.536740 J-2.822356
G02 X193.474672 Y80.403487 Z-0.125000 I-5.219074 J-2.428392
G02 X193.642150 Y79.242150 Z-0.125000 I-5.302588 J-1.357437
G02 X193.579567 Y78.019352 Z-0.125000 I-7.046576 J-0.252354
G02 X193.292000 Y76.528930 Z-0.125000 I-14.316433 J1.989305
G02 X192.855606 Y75.070757 Z-0.125000 I-15.508133 J3.846804
G02 X192.189600 Y73.386090 Z-0.125000 I-22.466773 J7.907893
G02 X191.408721 Y71.754757 Z-0.125000 I-25.926746 J11.407929
G02 X190.401080 Y69.958810 Z-0.125000 I-27.767452 J14.398672
G02 X189.290575 Y68.228315 Z-0.125000 I-33.424071 J20.227551
G02 X187.957800 Y66.393490 Z-0.125000 I-29.915719 J20.328637
G02 X186.524788 Y64.637364 Z-0.125000 I-36.030448 J27.938388
G02 X184.876310 Y62.833840 Z-0.125000 I-29.691429 J25.483755
G02 X183.127668 Y61.125349 Z-0.125000 I-34.660439 J33.725865
G02 X181.178530 Y59.426400 Z-0.125000 I-27.863064 J29.998658
G02 X179.130869 Y57.841672 Z-0.125000 I-30.691096 J37.541330
G02 X176.914990 Y56.325200 Z-0.125000 I-24.960315 J34.095029
G02 X174.607076 Y54.942811 Z-0.125000 I-25.215547 J39.479901
G02 X172.189970 Y53.685530 Z-0.125000 I-21.283557 J37.965288
G02 X169.694162 Y52.578770 Z-0.125000 I-19.122681 J39.755259
G02 X167.180370 Y51.642760 Z-0.125000 I-16.853472 J41.418906
G02 X164.607629 Y50.865475 Z-0.125000 I-13.044335 J38.529104
G02 X162.137580 Y50.282220 Z-0.125000 I-11.472356 J43.062871
G02 X159.650519 Y49.859568 Z-0.125000 I-7.265293 J35.223254
G02 X157.366320 Y49.618500 Z-0.125000 I-5.429715 J40.506010
G02 X155.094852 Y49.527125 Z-0.125000 I-2.375402 J30.770804
G02 X153.043130 Y49.580200 Z-0.125000 I-0.118246 J35.112039
G02 X150.998970 Y49.769305 Z-0.125000 I1.518647 J27.558921
G02 X149.145710 Y50.071790 Z-0.125000 I3.747495 J28.788605
G02 X147.321909 Y50.505176 Z-0.125000 I4.618513 J23.490127
G02 X145.655070 Y51.032780 Z-0.125000 I6.902155 J24.702491
G02 X144.032015 Y51.682390 Z-0.125000 I7.290345 J20.567370
G02 X142.528050 Y52.417480 Z-0.125000 I10.105144 J22.580815
G02 X141.079485 Y53.260784 Z-0.125000 I10.150731 J19.101943
G02 X139.719660 Y54.186890 Z-0.125000 I13.813944 J21.744750
G02 X138.423231 Y55.204424 Z-0.125000 I13.626118 J18.695533
G02 X137.197780 Y56.302440 Z-0.125000 I17.973988 J21.292889
G02 X136.040825 Y57.475367 Z-0.125000 I17.674662 J18.591041
G02 X134.948050 Y58.723310 Z-0.125000 I22.371170 J20.691989
G02 X133.926956 Y60.031557 Z-0.125000 I21.840998 J18.099615
G02 X132.968720 Y61.405780 Z-0.125000 I27.473811 J20.178506
G02 X132.082833 Y62.827216 Z-0.125000 I25.875698 J17.113391
G02 X131.257590 Y64.303310 Z-0.125000 I35.498699 J20.815058
G02 X130.500197 Y65.813750 Z-0.125000 I30.523128 J16.250596
G02 X129.794760 Y67.367310 Z-0.125000 I54.641020 J25.748201
G02 X129.144181 Y68.941708 Z-0.125000 I38.521279 J16.839533
G02 X128.526460 Y70.550930 Z-0.125000 I158.256626 J61.672052
G03 X127.905078 Y72.179229 Z-0.125000 I-261.435485 J-98.834803
G02 X127.355500 Y73.819530 Z-0.125000 I18.192150 J7.007443
G02 X126.908067 Y75.493831 Z-0.125000 I46.866795 J13.421425
G02 X126.639630 Y77.139600 Z-0.125000 I9.918509 J2.462556
G02 X126.633548 Y78.792493 Z-0.125000 I10.805851 J0.866222
G02 X126.826770 Y80.413670 Z-0.125000 I17.707423 J-1.288383
G02 X127.191312 Y82.008420 Z-0.125000 I13.364423 J-2.215917
G02 X127.706420 Y83.573540 Z-0.125000 I24.101522 J-7.064902
G02 X128.341760 Y85.096128 Z-0.125000 I17.393381 J-6.363994
G02 X129.081030 Y86.574720 Z-0.125000 I31.466667 J-14.808678
G02 X129.902299 Y88.009026 Z-0.125000 I22.386241 J-11.865860
G02 X130.782840 Y89.377560 Z-0.125000 I36.277977 J-22.374392
G02 X131.721451 Y90.703824 Z-0.125000 I26.921666 J-18.057479
G02 X132.682610 Y91.944240 Z-0.125000 I34.401028 J-25.663676
G02 X133.689410 Y93.142433 Z-0.125000 I28.610741 J-23.018526
G02 X134.696590 Y94.242090 Z-0.125000 I26.185539 J-22.972365
G02 X135.745873 Y95.294246 Z-0.125000 I25.454458 J-24.335651
G02 X136.793610 Y96.244220 Z-0.125000 I16.804315 J-17.480912
G02 X137.886490 Y97.132650 Z-0.125000 I18.482974 J-21.619972
G02 X139.001260 Y97.922180 Z-0.125000 I10.047472 J-13.004676
G02 X140.165952 Y98.624137 Z-0.125000 I11.456805 J-17.692019
G02 X141.406770 Y99.231580 Z-0.125000 I6.148896 J-10.989255
G02 X142.695118 Y99.715888 Z-0.125000 I6.577523 J-15.541651
G02 X144.148240 Y100.100510 Z-0.125000 I3.926368 J-11.896714
G02 X145.631931 Y100.331509 Z-0.125000 I3.349564 J-16.633680
G02 X147.396280 Y100.437710 Z-0.125000 I1.941816 J-17.551087
G02 X149.192577 Y100.383132 Z-0.125000 I0.222761 J-22.256066
G02 X151.341800 Y100.172810 Z-0.125000 I-2.849524 J-40.204771
G02 X153.502043 Y99.842138 Z-0.125000 I-4.923633 J-39.387133
G02 X155.970030 Y99.365960 Z-0.125000 I-20.070864 J-110.659324
G02 X158.425938 Y98.823254 Z-0.125000 I-16.042866 J-78.426954
G02 X161.074880 Y98.181820 Z-0.125000 I-71.915379 J-302.780882
G02 X163.715295 Y97.508116 Z-0.125000 I-41.488153 J-168.113644
G02 X166.420730 Y96.786840 Z-0.125000 I-125.027819 J-474.401310
G02 X169.118121 Y96.048649 Z-0.125000 I-97.562792 J-361.797302
G02 X171.753370 Y95.302240 Z-0.125000 I-71.124765 J-256.136022
G02 X174.376068 Y94.534963 Z-0.125000 I-110.133858 J-381.324246
G02 X176.827390 Y93.781230 Z-0.125000 I-35.532829 J-119.924431
G02 X179.257308 Y92.987289 Z-0.125000 I-53.642217 J-168.291680
G02 X181.439590 Y92.214840 Z-0.125000 I-21.407768 J-63.948926
G02 X183.588109 Y91.375534 Z-0.125000 I-26.814597 J-71.811630
G02 X185.453130 Y90.560360 Z-0.125000 I-15.631881 J-38.304957
G02 X187.269226 Y89.654839 Z-0.125000 I-16.589378 J-35.545274
G02 X188.803330 Y88.778100 Z-0.125000 I-13.463335 J-25.338473
G02 X190.272775 Y87.800195 Z-0.125000 I-12.402441 J-20.229463
G02 X191.486140 Y86.861570 Z-0.125000 I-13.180713 J-18.292341
G02 X192.622936 Y85.827482 Z-0.125000 I-10.746431 J-12.955695
G02 X193.536530 Y84.852110 Z-0.125000 I-13.753546 J-13.797967
G02 X194.372831 Y83.823681 Z-0.125000 I-13.994540 J-12.234373
G02 X195.004340 Y82.837260 Z-0.125000 I-6.026577 J-4.553584
G02 X195.480514 Y81.817337 Z-0.125000 I-9.017706 J-4.831233
G02 X195.772340 Y80.678930 Z-0.125000 I-4.180534 J-1.678272
G02 X195.801411 Y79.434022 Z-0.125000 I-6.399257 J-0.772230
G02 X195.600930 Y77.895080 Z-0.125000 I-13.791061 J1.014062
G02 X195.233915 Y76.377045 Z-0.125000 I-14.897658 J2.798421
G02 X194.630540 Y74.600410 Z-0.125000 I-23.280704 J6.915740
G02 X193.903235 Y72.875158 Z-0.125000 I-26.548698 J10.176067
G02 X192.943050 Y70.961000 Z-0.125000 I-29.423026 J13.561345
G02 X191.873015 Y69.111498 Z-0.125000 I-35.410362 J19.252493
G02 X190.573380 Y67.138300 Z-0.125000 I-32.042338 J19.689890
G02 X189.166457 Y65.243212 Z-0.125000 I-38.937588 J27.437678
G02 X187.532260 Y63.282390 Z-0.125000 I-32.038621 J25.040360
G02 X185.789631 Y61.416357 Z-0.125000 I-38.137073 J33.868296
G02 X183.826510 Y59.541050 Z-0.125000 I-30.250181 J29.701510
G02 X181.754413 Y57.781059 Z-0.125000 I-34.403657 J38.404801
G02 X179.483360 Y56.072030 Z-0.125000 I-27.298644 J33.912510
G02 X177.107095 Y54.501484 Z-0.125000 I-28.790579 J40.977744
G02 X174.580880 Y53.045130 Z-0.125000 I-23.577658 J37.978992
G02 X171.960836 Y51.748980 Z-0.125000 I-22.256375 J41.692987
G02 X169.277460 Y50.623950 Z-0.125000 I-19.207581 J42.050488
G02 X166.520281 Y49.672912 Z-0.125000 I-15.625733 J40.828756
G02 X163.825650 Y48.928930 Z-0.125000 I-13.995778 J45.439505
G02 X161.090804 Y48.361289 Z-0.125000 I-9.396918 J38.401627
G02 X158.557440 Y48.000760 Z-0.125000 I-7.712943 J45.116255
G02 X156.040655 Y47.808818 Z-0.125000 I-3.830910 J33.635447
G02 X153.782170 Y47.785030 Z-0.125000 I-1.549473 J39.885592
G02 X151.532270 Y47.909534 Z-0.125000 I0.534430 J30.048743
G02 X149.516320 Y48.161400 Z-0.125000 I2.986834 J32.100623
G02 X147.527277 Y48.554682 Z-0.125000 I3.993931 J25.425998
G02 X145.729840 Y49.049870 Z-0.125000 I6.333183 J26.497991
G02 X143.975622 Y49.678479 Z-0.125000 I6.779391 J21.680809
G02 X142.364080 Y50.397790 Z-0.125000 I9.554707 J23.571225
G02 X140.808801 Y51.236990 Z-0.125000 I9.632902 J19.713328
G02 X139.354950 Y52.164920 Z-0.125000 I13.334928 J22.495627
G02 X137.966517 Y53.194679 Z-0.125000 I13.181094 J19.223077
G02 X136.654620 Y54.312730 Z-0.125000 I17.634847 J22.021056
G02 X135.414244 Y55.514289 Z-0.125000 I17.492624 J19.298746
G02 X134.241430 Y56.799840 Z-0.125000 I21.909620 J21.165990
G02 X133.145056 Y58.153175 Z-0.125000 I21.910275 J18.870883
G02 X132.116880 Y59.581350 Z-0.125000 I26.131871 J19.897131
G02 X131.168938 Y61.063914 Z-0.125000 I25.713516 J17.485393
G02 X130.291250 Y62.608900 Z-0.125000 I31.796711 J19.085127
G02 X129.493567 Y64.195369 Z-0.125000 I29.222362 J15.686882
G02 X128.762230 Y65.830550 Z-0.125000 I43.706891 J20.529123
G02 X128.101775 Y67.493367 Z-0.125000 I34.393771 J14.623442
G02 X127.492260 Y69.192090 Z-0.125000 I87.771561 J32.451845
G02 X126.916027 Y70.907746 Z-0.125000 I78.939513 J27.467831
G02 X126.391470 Y72.643890 Z-0.125000 I43.607448 J14.122821
G03 X125.885075 Y74.407282 Z-0.125000 I-147.131764 J-41.297586
G02 X125.538400 Y76.153330 Z-0.125000 I9.538744 J2.801341
G02 X125.480769 Y77.912251 Z-0.125000 I11.899360 J1.270286
G02 X125.643800 Y79.647540 Z-0.125000 I16.488960 J-0.673840
G02 X126.011425 Y81.355846 Z-0.125000 I13.212233 J-1.949542
G02 X126.555360 Y83.045250 Z-0.125000 I25.066444 J-7.138345
G02 X127.235313 Y84.688093 Z-0.125000 I17.846496 J-6.424320
G02 X128.036610 Y86.294660 Z-0.125000 I34.796282 J-16.351997
G02 X128.927399 Y87.853561 Z-0.125000 I23.970049 J-12.663030
G02 X129.884680 Y89.347450 Z-0.125000 I42.871878 J-26.418562
G02 X130.902514 Y90.797553 Z-0.125000 I30.097942 J-20.043621
G02 X131.939140 Y92.154870 Z-0.125000 I43.660560 J-32.270444
G02 X133.020486 Y93.470641 Z-0.125000 I33.520038 J-26.445704
G02 X134.087940 Y94.675150 Z-0.125000 I35.368828 J-30.269125
G02 X135.193643 Y95.835968 Z-0.125000 I31.678328 J-29.067229
G02 X136.274640 Y96.879850 Z-0.125000 I23.099384 J-22.839035
G02 X137.395077 Y97.870629 Z-0.125000 I24.443542 J-26.513406
G02 X138.507870 Y98.750030 Z-0.125000 I13.279246 J-15.659786
G02 X139.666677 Y99.555115 Z-0.125000 I15.465841 J-21.024405
G02 X140.868600 Y100.259230 Z-0.125000 I7.603864 J-11.601879
G02 X142.120951 Y100.853509 Z-0.125000 I8.732281 J-16.785240
G02 X143.507000 Y101.350720 Z-0.125000 I4.697780 J-10.915230
G02 X144.934032 Y101.697699 Z-0.125000 I4.661755 J-16.064541
G02 X146.624680 Y101.929600 Z-0.125000 I2.832260 J-14.369605
G02 X148.350341 Y101.988823 Z-0.125000 I1.540230 J-19.708815
G02 X150.455180 Y101.893900 Z-0.125000 I-0.276959 J-29.525444
G02 X152.590425 Y101.650849 Z-0.125000 I-2.653036 J-32.808115
G02 X155.098750 Y101.244300 Z-0.125000 I-12.581297 J-85.565307
G02 X157.596689 Y100.752456 Z-0.125000 I-11.666047 J-65.837708
G02 X160.349420 Y100.140690 Z-0.125000 I-57.071416 J-263.300246
G02 X163.092860 Y99.488351 Z-0.125000 I-32.863357 J-144.303355
G02 X165.948870 Y98.773300 Z-0.125000 I-150.632376 J-607.706841
G02 X168.797376 Y98.040878 Z-0.125000 I-90.150022 J-356.513064
G02 X171.612580 Y97.292610 Z-0.125000 I-89.482189 J-342.328330
G02 X174.416250 Y96.527051 Z-0.125000 I-142.681873 J-528.053852
G02 X177.056770 Y95.771880 Z-0.125000 I-39.091692 J-141.681373
G02 X179.676416 Y94.979265 Z-0.125000 I-65.768475 J-222.094658
G02 X182.038540 Y94.205180 Z-0.125000 I-21.635490 J-70.011838
G02 X184.366045 Y93.361967 Z-0.125000 I-29.091854 J-83.935623
G02 X186.388880 Y92.537400 Z-0.125000 I-15.116232 J-39.976759
G02 X188.359384 Y91.613292 Z-0.125000 I-16.855792 J-38.505082
G02 X190.024250 Y90.709420 Z-0.125000 I-12.868434 J-25.687915
G02 X191.617390 Y89.689935 Z-0.125000 I-12.299824 J-20.975370
G02 X192.935570 Y88.698440 Z-0.125000 I-12.832529 J-18.432674
G02 X194.166876 Y87.596358 Z-0.125000 I-10.747402 J-13.246464
G02 X195.163350 Y86.539900 Z-0.125000 I-14.136687 J-14.332208
G02 X196.069030 Y85.403460 Z-0.125000 I-11.569791 J-10.149600
G02 X196.769050 Y84.328600 Z-0.125000 I-10.748986 J-7.765826
G02 X197.353905 Y83.256097 Z-0.125000 I-17.788540 J-10.396122
G02 X197.752490 Y82.109620 Z-0.125000 I-4.021026 J-2.040478
G02 X197.882135 Y80.844837 Z-0.125000 I-6.403728 J-1.295441
G02 X197.788790 Y79.287630 Z-0.125000 I-12.089219 J-0.056728
G02 X197.501624 Y77.722662 Z-0.125000 I-13.848956 J1.732400
G02 X196.971300 Y75.864640 Z-0.125000 I-23.758682 J5.776606
G02 X196.306796 Y74.055486 Z-0.125000 I-26.583525 J8.737542
G02 X195.404310 Y72.032890 Z-0.125000 I-30.862157 J12.558105
G02 X194.384899 Y70.074136 Z-0.125000 I-36.870695 J17.944286
G02 X193.131170 Y67.974140 Z-0.125000 I-34.024608 J18.888950
G02 X191.763706 Y65.951515 Z-0.125000 I-41.382976 J26.504784
G02 X190.161400 Y63.846920 Z-0.125000 I-34.323842 J24.469767
G02 X188.443649 Y61.836057 Z-0.125000 I-41.317617 J33.555860
G02 X186.490470 Y59.797360 Z-0.125000 I-32.637109 J29.313105
G02 X184.419511 Y57.873172 Z-0.125000 I-38.089358 J38.918120
G02 X182.122890 Y55.979620 Z-0.125000 I-29.638403 J33.607845
G02 X179.709233 Y54.225940 Z-0.125000 I-32.574767 J42.296063
G02 X177.105400 Y52.569310 Z-0.125000 I-25.831591 J37.726562
G02 X174.392701 Y51.079352 Z-0.125000 I-25.693546 J43.564659
G02 X171.566390 Y49.753590 Z-0.125000 I-21.455308 J42.063752
G02 X168.649909 Y48.615316 Z-0.125000 I-18.472436 J43.024560
G02 X165.745100 Y47.691830 Z-0.125000 I-16.411051 J46.590423
G02 X162.779474 Y46.962375 Z-0.125000 I-11.672796 J41.063026
G02 X159.989330 Y46.462670 Z-0.125000 I-10.256849 J49.230597
G02 X157.202469 Y46.150365 Z-0.125000 I-5.562905 J37.050270
G02 X154.700920 Y46.033610 Z-0.125000 I-3.371168 J45.372310
G02 X152.218434 Y46.080480 Z-0.125000 I-0.625103 J32.657689
G02 X150.021270 Y46.272120 Z-0.125000 I2.083121 J36.574185
G02 X147.847529 Y46.614894 Z-0.125000 I3.273465 J27.822931
G02 X145.907990 Y47.068130 Z-0.125000 I5.717265 J28.842555
G02 X144.010473 Y47.665589 Z-0.125000 I6.230036 J23.098414
G02 X142.285790 Y48.358460 Z-0.125000 I8.925950 J24.711302
G02 X140.617436 Y49.183180 Z-0.125000 I9.043937 J20.395141
G02 X139.066730 Y50.101790 Z-0.125000 I12.737836 J23.270915
G02 X137.582631 Y51.133349 Z-0.125000 I12.596881 J19.706448
G02 X136.180910 Y52.260880 Z-0.125000 I17.274707 J22.910569
G02 X134.852576 Y53.480941 Z-0.125000 I17.183578 J20.041649
G02 X133.593320 Y54.794610 Z-0.125000 I21.675120 J22.037712
G02 X132.413529 Y56.183534 Z-0.125000 I22.060268 J19.934154
G02 X131.304680 Y57.657200 Z-0.125000 I25.338646 J20.219873
G02 X130.282071 Y59.192464 Z-0.125000 I25.940691 J18.386796
