%
(Header)
(Generated by gcodetools from Inkscape.)
(Using default header. To add your own header create file "header" in the output dir.)
M3
(Header end.)
G21 (All units in mm)

(Start cutting path id: line6622)
(Change tool to Default tool)

G00 Z5.000000
G00 X175.999970 Y79.668470

G00 Z4.875000 (Fast pre-penetrate)
G01 Z-0.125000 F400.0(Penetrate)
G01 X175.999970 Y79.668470 Z-0.125000 F800.000000
G00 Z5.000000

(End cutting path id: line6622)


(Start cutting path id: line6620)
(Change tool to Default tool)

G00 Z5.000000
G00 X176.511950 Y82.919140

G00 Z4.875000 (Fast pre-penetrate)
G01 Z-0.125000 F400.0(Penetrate)
G01 X176.511950 Y82.919140 Z-0.125000 F800.000000
G00 Z5.000000

(End cutting path id: line6620)


(Start cutting path id: line4694)
(Change tool to Default tool)

G00 Z5.000000
G00 X173.312240 Y82.356160

G00 Z4.875000 (Fast pre-penetrate)
G01 Z-0.125000 F400.0(Penetrate)
G01 X173.312240 Y82.356160 Z-0.125000 F800.000000
G00 Z5.000000

(End cutting path id: line4694)


(Start cutting path id: line4696)
(Change tool to Default tool)

G00 Z5.000000
G00 X170.135370 Y81.915940

G00 Z4.875000 (Fast pre-penetrate)
G01 Z-0.125000 F400.0(Penetrate)
G01 X170.135370 Y81.915940 Z-0.125000 F800.000000
G00 Z5.000000

(End cutting path id: line4696)


(Start cutting path id: line4690)
(Change tool to Default tool)

G00 Z5.000000
G00 X170.624550 Y85.043850

G00 Z4.875000 (Fast pre-penetrate)
G01 Z-0.125000 F400.0(Penetrate)
G01 X170.624550 Y85.043850 Z-0.125000 F800.000000
G00 Z5.000000

(End cutting path id: line4690)


(Start cutting path id: line4400)
(Change tool to Default tool)

G00 Z5.000000
G00 X167.521450 Y84.675410

G00 Z4.875000 (Fast pre-penetrate)
G01 Z-0.125000 F400.0(Penetrate)
G01 X167.521450 Y84.675410 Z-0.125000 F800.000000
G00 Z5.000000

(End cutting path id: line4400)


(Start cutting path id: line4332)
(Change tool to Default tool)

G00 Z5.000000
G00 X164.447300 Y84.426040

G00 Z4.875000 (Fast pre-penetrate)
G01 Z-0.125000 F400.0(Penetrate)
G01 X164.447300 Y84.426040 Z-0.125000 F800.000000
G00 Z5.000000

(End cutting path id: line4332)


(Start cutting path id: line4334)
(Change tool to Default tool)

G00 Z5.000000
G00 X161.406320 Y84.293860

G00 Z4.875000 (Fast pre-penetrate)
G01 Z-0.125000 F400.0(Penetrate)
G01 X161.406320 Y84.293860 Z-0.125000 F800.000000
G00 Z5.000000

(End cutting path id: line4334)


(Start cutting path id: line4336)
(Change tool to Default tool)

G00 Z5.000000
G00 X161.009980 Y86.460060

G00 Z4.875000 (Fast pre-penetrate)
G01 Z-0.125000 F400.0(Penetrate)
G01 X161.009980 Y86.460060 Z-0.125000 F800.000000
G00 Z5.000000

(End cutting path id: line4336)


(Start cutting path id: line4306)
(Change tool to Default tool)

G00 Z5.000000
G00 X161.866190 Y89.792400

G00 Z4.875000 (Fast pre-penetrate)
G01 Z-0.125000 F400.0(Penetrate)
G01 X161.866190 Y89.792400 Z-0.125000 F800.000000
G00 Z5.000000

(End cutting path id: line4306)


(Start cutting path id: line4308)
(Change tool to Default tool)

G00 Z5.000000
G00 X162.561480 Y93.106920

G00 Z4.875000 (Fast pre-penetrate)
G01 Z-0.125000 F400.0(Penetrate)
G01 X162.561480 Y93.106920 Z-0.125000 F800.000000
G00 Z5.000000

(End cutting path id: line4308)


(Start cutting path id: line4310)
(Change tool to Default tool)

G00 Z5.000000
G00 X163.098140 Y96.396580

G00 Z4.875000 (Fast pre-penetrate)
G01 Z-0.125000 F400.0(Penetrate)
G01 X163.098140 Y96.396580 Z-0.125000 F800.000000
G00 Z5.000000

(End cutting path id: line4310)


(Start cutting path id: line4272)
(Change tool to Default tool)

G00 Z5.000000
G00 X159.873820 Y95.794620

G00 Z4.875000 (Fast pre-penetrate)
G01 Z-0.125000 F400.0(Penetrate)
G01 X159.873820 Y95.794620 Z-0.125000 F800.000000
G00 Z5.000000

(End cutting path id: line4272)


(Start cutting path id: line4266)
(Change tool to Default tool)

G00 Z5.000000
G00 X160.320260 Y98.990930

G00 Z4.875000 (Fast pre-penetrate)
G01 Z-0.125000 F400.0(Penetrate)
G01 X160.320260 Y98.990930 Z-0.125000 F800.000000
G00 Z5.000000

(End cutting path id: line4266)


(Start cutting path id: line4264)
(Change tool to Default tool)

G00 Z5.000000
G00 X160.613830 Y102.152500

G00 Z4.875000 (Fast pre-penetrate)
G01 Z-0.125000 F400.0(Penetrate)
G01 X160.613830 Y102.152500 Z-0.125000 F800.000000
G00 Z5.000000

(End cutting path id: line4264)


(Start cutting path id: line2422)
(Change tool to Default tool)

G00 Z5.000000
G00 X160.757500 Y105.272570

G00 Z4.875000 (Fast pre-penetrate)
G01 Z-0.125000 F400.0(Penetrate)
G01 X160.757500 Y105.272570 Z-0.125000 F800.000000
G00 Z5.000000

(End cutting path id: line2422)


(Start cutting path id: line2420)
(Change tool to Default tool)

G00 Z5.000000
G00 X158.402580 Y105.411020

G00 Z4.875000 (Fast pre-penetrate)
G01 Z-0.125000 F400.0(Penetrate)
G01 X158.402580 Y105.411020 Z-0.125000 F800.000000
G00 Z5.000000

(End cutting path id: line2420)


(Start cutting path id: line2430)
(Change tool to Default tool)

G00 Z5.000000
G00 X158.720160 Y108.816200

G00 Z4.875000 (Fast pre-penetrate)
G01 Z-0.125000 F400.0(Penetrate)
G01 X158.720160 Y108.816200 Z-0.125000 F800.000000
G00 Z5.000000

(End cutting path id: line2430)


(Start cutting path id: line2380)
(Change tool to Default tool)

G00 Z5.000000
G00 X155.502140 Y107.867600

G00 Z4.875000 (Fast pre-penetrate)
G01 Z-0.125000 F400.0(Penetrate)
G01 X155.502140 Y107.867600 Z-0.125000 F800.000000
G00 Z5.000000

(End cutting path id: line2380)


(Start cutting path id: line2378)
(Change tool to Default tool)

G00 Z5.000000
G00 X155.720650 Y111.150820

G00 Z4.875000 (Fast pre-penetrate)
G01 Z-0.125000 F400.0(Penetrate)
G01 X155.720650 Y111.150820 Z-0.125000 F800.000000
G00 Z5.000000

(End cutting path id: line2378)


(Start cutting path id: line2364)
(Change tool to Default tool)

G00 Z5.000000
G00 X152.601670 Y110.324150

G00 Z4.875000 (Fast pre-penetrate)
G01 Z-0.125000 F400.0(Penetrate)
G01 X152.601670 Y110.324150 Z-0.125000 F800.000000
G00 Z5.000000

(End cutting path id: line2364)


(Start cutting path id: line2366)
(Change tool to Default tool)

G00 Z5.000000
G00 X152.721160 Y113.485410

G00 Z4.875000 (Fast pre-penetrate)
G01 Z-0.125000 F400.0(Penetrate)
G01 X152.721160 Y113.485410 Z-0.125000 F800.000000
G00 Z5.000000

(End cutting path id: line2366)


(Start cutting path id: line2348)
(Change tool to Default tool)

G00 Z5.000000
G00 X149.701240 Y112.780720

G00 Z4.875000 (Fast pre-penetrate)
G01 Z-0.125000 F400.0(Penetrate)
G01 X149.701240 Y112.780720 Z-0.125000 F800.000000
G00 Z5.000000

(End cutting path id: line2348)


(Start cutting path id: line2346)
(Change tool to Default tool)

G00 Z5.000000
G00 X149.721650 Y115.820020

G00 Z4.875000 (Fast pre-penetrate)
G01 Z-0.125000 F400.0(Penetrate)
G01 X149.721650 Y115.820020 Z-0.125000 F800.000000
G00 Z5.000000

(End cutting path id: line2346)


(Start cutting path id: line2344)
(Change tool to Default tool)

G00 Z5.000000
G00 X147.567710 Y116.163320

G00 Z4.875000 (Fast pre-penetrate)
G01 Z-0.125000 F400.0(Penetrate)
G01 X147.567710 Y116.163320 Z-0.125000 F800.000000
G00 Z5.000000

(End cutting path id: line2344)


(Start cutting path id: line2342)
(Change tool to Default tool)

G00 Z5.000000
G00 X144.300920 Y115.263680

G00 Z4.875000 (Fast pre-penetrate)
G01 Z-0.125000 F400.0(Penetrate)
G01 X144.300920 Y115.263680 Z-0.125000 F800.000000
G00 Z5.000000

(End cutting path id: line2342)


(Start cutting path id: line2132)
(Change tool to Default tool)

G00 Z5.000000
G00 X141.059980 Y114.608440

G00 Z4.875000 (Fast pre-penetrate)
G01 Z-0.125000 F400.0(Penetrate)
G01 X141.059980 Y114.608440 Z-0.125000 F800.000000
G00 Z5.000000

(End cutting path id: line2132)


(Start cutting path id: line2076)
(Change tool to Default tool)

G00 Z5.000000
G00 X137.861390 Y114.192170

G00 Z4.875000 (Fast pre-penetrate)
G01 Z-0.125000 F400.0(Penetrate)
G01 X137.861390 Y114.192170 Z-0.125000 F800.000000
G00 Z5.000000

(End cutting path id: line2076)


(Start cutting path id: line2074)
(Change tool to Default tool)

G00 Z5.000000
G00 X134.721050 Y114.008510

G00 Z4.875000 (Fast pre-penetrate)
G01 Z-0.125000 F400.0(Penetrate)
G01 X134.721050 Y114.008510 Z-0.125000 F800.000000
G00 Z5.000000

(End cutting path id: line2074)


(Start cutting path id: line952)
(Change tool to Default tool)

G00 Z5.000000
G00 X135.318050 Y117.016830

G00 Z4.875000 (Fast pre-penetrate)
G01 Z-0.125000 F400.0(Penetrate)
G01 X135.318050 Y117.016830 Z-0.125000 F800.000000
G00 Z5.000000

(End cutting path id: line952)


(Start cutting path id: line950)
(Change tool to Default tool)

G00 Z5.000000
G00 X135.686270 Y119.982120

G00 Z4.875000 (Fast pre-penetrate)
G01 Z-0.125000 F400.0(Penetrate)
G01 X135.686270 Y119.982120 Z-0.125000 F800.000000
G00 Z5.000000

(End cutting path id: line950)


(Start cutting path id: line888)
(Change tool to Default tool)

G00 Z5.000000
G00 X132.774690 Y119.841500

G00 Z4.875000 (Fast pre-penetrate)
G01 Z-0.125000 F400.0(Penetrate)
G01 X132.774690 Y119.841500 Z-0.125000 F800.000000
G00 Z5.000000

(End cutting path id: line888)


(Start cutting path id: line890)
(Change tool to Default tool)

G00 Z5.000000
G00 X129.886580 Y120.120180

G00 Z4.875000 (Fast pre-penetrate)
G01 Z-0.125000 F400.0(Penetrate)
G01 X129.886580 Y120.120180 Z-0.125000 F800.000000
G00 Z5.000000

(End cutting path id: line890)


(Start cutting path id: line884)
(Change tool to Default tool)

G00 Z5.000000
G00 X129.420170 Y117.125050

G00 Z4.875000 (Fast pre-penetrate)
G01 Z-0.125000 F400.0(Penetrate)
G01 X129.420170 Y117.125050 Z-0.125000 F800.000000
G00 Z5.000000

(End cutting path id: line884)


(Start cutting path id: line882)
(Change tool to Default tool)

G00 Z5.000000
G00 X128.675980 Y114.308330

G00 Z4.875000 (Fast pre-penetrate)
G01 Z-0.125000 F400.0(Penetrate)
G01 X128.675980 Y114.308330 Z-0.125000 F800.000000
G00 Z5.000000

(End cutting path id: line882)


(Start cutting path id: line784)
(Change tool to Default tool)

G00 Z5.000000
G00 X125.800070 Y114.774160

G00 Z4.875000 (Fast pre-penetrate)
G01 Z-0.125000 F400.0(Penetrate)
G01 X125.800070 Y114.774160 Z-0.125000 F800.000000
G00 Z5.000000

(End cutting path id: line784)


(Start cutting path id: line782)
(Change tool to Default tool)

G00 Z5.000000
G00 X125.521460 Y117.038960

G00 Z4.875000 (Fast pre-penetrate)
G01 Z-0.125000 F400.0(Penetrate)
G01 X125.521460 Y117.038960 Z-0.125000 F800.000000
G00 Z5.000000

(End cutting path id: line782)


(Start cutting path id: line780)
(Change tool to Default tool)

G00 Z5.000000
G00 X122.317120 Y117.416260

G00 Z4.875000 (Fast pre-penetrate)
G01 Z-0.125000 F400.0(Penetrate)
G01 X122.317120 Y117.416260 Z-0.125000 F800.000000
G00 Z5.000000

(End cutting path id: line780)


(Start cutting path id: line768)
(Change tool to Default tool)

G00 Z5.000000
G00 X123.546560 Y120.286560

G00 Z4.875000 (Fast pre-penetrate)
G01 Z-0.125000 F400.0(Penetrate)
G01 X123.546560 Y120.286560 Z-0.125000 F800.000000
G00 Z5.000000

(End cutting path id: line768)


(Start cutting path id: line766)
(Change tool to Default tool)

G00 Z5.000000
G00 X124.468740 Y123.162920

G00 Z4.875000 (Fast pre-penetrate)
G01 Z-0.125000 F400.0(Penetrate)
G01 X124.468740 Y123.162920 Z-0.125000 F800.000000
G00 Z5.000000

(End cutting path id: line766)


(Start cutting path id: line764)
(Change tool to Default tool)

G00 Z5.000000
G00 X121.787660 Y123.666730

G00 Z4.875000 (Fast pre-penetrate)
G01 Z-0.125000 F400.0(Penetrate)
G01 X121.787660 Y123.666730 Z-0.125000 F800.000000
G00 Z5.000000

(End cutting path id: line764)


(Start cutting path id: line770)
(Change tool to Default tool)

G00 Z5.000000
G00 X120.568400 Y120.791090

G00 Z4.875000 (Fast pre-penetrate)
G01 Z-0.125000 F400.0(Penetrate)
G01 X120.568400 Y120.791090 Z-0.125000 F800.000000
G00 Z5.000000

(End cutting path id: line770)


(Start cutting path id: line772)
(Change tool to Default tool)

G00 Z5.000000
G00 X119.263140 Y118.067080

G00 Z4.875000 (Fast pre-penetrate)
G01 Z-0.125000 F400.0(Penetrate)
G01 X119.263140 Y118.067080 Z-0.125000 F800.000000
G00 Z5.000000

(End cutting path id: line772)


(Start cutting path id: line774)
(Change tool to Default tool)

G00 Z5.000000
G00 X116.381430 Y118.972430

G00 Z4.875000 (Fast pre-penetrate)
G01 Z-0.125000 F400.0(Penetrate)
G01 X116.381430 Y118.972430 Z-0.125000 F800.000000
G00 Z5.000000

(End cutting path id: line774)


(Start cutting path id: line776)
(Change tool to Default tool)

G00 Z5.000000
G00 X116.576610 Y121.071950

G00 Z4.875000 (Fast pre-penetrate)
G01 Z-0.125000 F400.0(Penetrate)
G01 X116.576610 Y121.071950 Z-0.125000 F800.000000
G00 Z5.000000

(End cutting path id: line776)


(Start cutting path id: line732)
(Change tool to Default tool)

G00 Z5.000000
G00 X113.293790 Y121.973910

G00 Z4.875000 (Fast pre-penetrate)
G01 Z-0.125000 F400.0(Penetrate)
G01 X113.293790 Y121.973910 Z-0.125000 F800.000000
G00 Z5.000000

(End cutting path id: line732)


(Start cutting path id: line734)
(Change tool to Default tool)

G00 Z5.000000
G00 X110.279080 Y123.215130

G00 Z4.875000 (Fast pre-penetrate)
G01 Z-0.125000 F400.0(Penetrate)
G01 X110.279080 Y123.215130 Z-0.125000 F800.000000
G00 Z5.000000

(End cutting path id: line734)


(Start cutting path id: line704)
(Change tool to Default tool)

G00 Z5.000000
G00 X107.565620 Y124.753460

G00 Z4.875000 (Fast pre-penetrate)
G01 Z-0.125000 F400.0(Penetrate)
G01 X107.565620 Y124.753460 Z-0.125000 F800.000000
G00 Z5.000000

(End cutting path id: line704)


(Start cutting path id: line702)
(Change tool to Default tool)

G00 Z5.000000
G00 X105.181040 Y126.543690

G00 Z4.875000 (Fast pre-penetrate)
G01 Z-0.125000 F400.0(Penetrate)
G01 X105.181040 Y126.543690 Z-0.125000 F800.000000
G00 Z5.000000

(End cutting path id: line702)


(Start cutting path id: line700)
(Change tool to Default tool)

G00 Z5.000000
G00 X102.796430 Y124.753460

G00 Z4.875000 (Fast pre-penetrate)
G01 Z-0.125000 F400.0(Penetrate)
G01 X102.796430 Y124.753460 Z-0.125000 F800.000000
G00 Z5.000000

(End cutting path id: line700)


(Start cutting path id: line706)
(Change tool to Default tool)

G00 Z5.000000
G00 X105.181040 Y122.745080

G00 Z4.875000 (Fast pre-penetrate)
G01 Z-0.125000 F400.0(Penetrate)
G01 X105.181040 Y122.745080 Z-0.125000 F800.000000
G00 Z5.000000

(End cutting path id: line706)


(Start cutting path id: line748)
(Change tool to Default tool)

G00 Z5.000000
G00 X107.916330 Y120.968710

G00 Z4.875000 (Fast pre-penetrate)
G01 Z-0.125000 F400.0(Penetrate)
G01 X107.916330 Y120.968710 Z-0.125000 F800.000000
G00 Z5.000000

(End cutting path id: line748)


(Start cutting path id: line718)
(Change tool to Default tool)

G00 Z5.000000
G00 X105.181040 Y118.941770

G00 Z4.875000 (Fast pre-penetrate)
G01 Z-0.125000 F400.0(Penetrate)
G01 X105.181040 Y118.941770 Z-0.125000 F800.000000
G00 Z5.000000

(End cutting path id: line718)


(Start cutting path id: line720)
(Change tool to Default tool)

G00 Z5.000000
G00 X107.463460 Y117.119250

G00 Z4.875000 (Fast pre-penetrate)
G01 Z-0.125000 F400.0(Penetrate)
G01 X107.463460 Y117.119250 Z-0.125000 F800.000000
G00 Z5.000000

(End cutting path id: line720)


(Start cutting path id: line722)
(Change tool to Default tool)

G00 Z5.000000
G00 X105.181040 Y115.143160

G00 Z4.875000 (Fast pre-penetrate)
G01 Z-0.125000 F400.0(Penetrate)
G01 X105.181040 Y115.143160 Z-0.125000 F800.000000
G00 Z5.000000

(End cutting path id: line722)


(Start cutting path id: line716)
(Change tool to Default tool)

G00 Z5.000000
G00 X102.898580 Y117.119250

G00 Z4.875000 (Fast pre-penetrate)
G01 Z-0.125000 F400.0(Penetrate)
G01 X102.898580 Y117.119250 Z-0.125000 F800.000000
G00 Z5.000000

(End cutting path id: line716)


(Start cutting path id: line714)
(Change tool to Default tool)

G00 Z5.000000
G00 X100.368000 Y115.470000

G00 Z4.875000 (Fast pre-penetrate)
G01 Z-0.125000 F400.0(Penetrate)
G01 X100.368000 Y115.470000 Z-0.125000 F800.000000
G00 Z5.000000

(End cutting path id: line714)


(Start cutting path id: line712)
(Change tool to Default tool)

G00 Z5.000000
G00 X98.376220 Y117.740820

G00 Z4.875000 (Fast pre-penetrate)
G01 Z-0.125000 F400.0(Penetrate)
G01 X98.376220 Y117.740820 Z-0.125000 F800.000000
G00 Z5.000000

(End cutting path id: line712)


(Start cutting path id: line710)
(Change tool to Default tool)

G00 Z5.000000
G00 X99.384520 Y119.478860

G00 Z4.875000 (Fast pre-penetrate)
G01 Z-0.125000 F400.0(Penetrate)
G01 X99.384520 Y119.478860 Z-0.125000 F800.000000
G00 Z5.000000

(End cutting path id: line710)


(Start cutting path id: line696)
(Change tool to Default tool)

G00 Z5.000000
G00 X97.068220 Y121.973910

G00 Z4.875000 (Fast pre-penetrate)
G01 Z-0.125000 F400.0(Penetrate)
G01 X97.068220 Y121.973910 Z-0.125000 F800.000000
G00 Z5.000000

(End cutting path id: line696)


(Start cutting path id: line660)
(Change tool to Default tool)

G00 Z5.000000
G00 X95.158490 Y124.616260

G00 Z4.875000 (Fast pre-penetrate)
G01 Z-0.125000 F400.0(Penetrate)
G01 X95.158490 Y124.616260 Z-0.125000 F800.000000
G00 Z5.000000

(End cutting path id: line660)


(Start cutting path id: line662)
(Change tool to Default tool)

G00 Z5.000000
G00 X93.661260 Y127.352621

G00 Z4.875000 (Fast pre-penetrate)
G01 Z-0.125000 F400.0(Penetrate)
G01 X93.661260 Y127.352621 Z-0.125000 F800.000000
G00 Z5.000000

(End cutting path id: line662)


(Start cutting path id: line664)
(Change tool to Default tool)

G00 Z5.000000
G00 X90.575320 Y126.898384

G00 Z4.875000 (Fast pre-penetrate)
G01 Z-0.125000 F400.0(Penetrate)
G01 X90.575320 Y126.898384 Z-0.125000 F800.000000
G00 Z5.000000

(End cutting path id: line664)


(Start cutting path id: line666)
(Change tool to Default tool)

G00 Z5.000000
G00 X89.606410 Y129.863287

G00 Z4.875000 (Fast pre-penetrate)
G01 Z-0.125000 F400.0(Penetrate)
G01 X89.606410 Y129.863287 Z-0.125000 F800.000000
G00 Z5.000000

(End cutting path id: line666)


(Start cutting path id: line668)
(Change tool to Default tool)

G00 Z5.000000
G00 X92.236080 Y130.344669

G00 Z4.875000 (Fast pre-penetrate)
G01 Z-0.125000 F400.0(Penetrate)
G01 X92.236080 Y130.344669 Z-0.125000 F800.000000
G00 Z5.000000

(End cutting path id: line668)


(Start cutting path id: line670)
(Change tool to Default tool)

G00 Z5.000000
G00 X90.745790 Y133.828242

G00 Z4.875000 (Fast pre-penetrate)
G01 Z-0.125000 F400.0(Penetrate)
G01 X90.745790 Y133.828242 Z-0.125000 F800.000000
G00 Z5.000000

(End cutting path id: line670)


(Start cutting path id: line242)
(Change tool to Default tool)

G00 Z5.000000
G00 X94.291020 Y133.542230

G00 Z4.875000 (Fast pre-penetrate)
G01 Z-0.125000 F400.0(Penetrate)
G01 X94.291020 Y133.542230 Z-0.125000 F800.000000
G00 Z5.000000

(End cutting path id: line242)


(Start cutting path id: line244)
(Change tool to Default tool)

G00 Z5.000000
G00 X93.234880 Y136.700805

G00 Z4.875000 (Fast pre-penetrate)
G01 Z-0.125000 F400.0(Penetrate)
G01 X93.234880 Y136.700805 Z-0.125000 F800.000000
G00 Z5.000000

(End cutting path id: line244)


(Start cutting path id: line246)
(Change tool to Default tool)

G00 Z5.000000
G00 X89.958150 Y137.296700

G00 Z4.875000 (Fast pre-penetrate)
G01 Z-0.125000 F400.0(Penetrate)
G01 X89.958150 Y137.296700 Z-0.125000 F800.000000
G00 Z5.000000

(End cutting path id: line246)


(Start cutting path id: line248)
(Change tool to Default tool)

G00 Z5.000000
G00 X89.834640 Y140.624888

G00 Z4.875000 (Fast pre-penetrate)
G01 Z-0.125000 F400.0(Penetrate)
G01 X89.834640 Y140.624888 Z-0.125000 F800.000000
G00 Z5.000000

(End cutting path id: line248)


(Start cutting path id: line250)
(Change tool to Default tool)

G00 Z5.000000
G00 X92.404490 Y140.298472

G00 Z4.875000 (Fast pre-penetrate)
G01 Z-0.125000 F400.0(Penetrate)
G01 X92.404490 Y140.298472 Z-0.125000 F800.000000
G00 Z5.000000

(End cutting path id: line250)


(Start cutting path id: line252)
(Change tool to Default tool)

G00 Z5.000000
G00 X95.376210 Y142.668321

G00 Z4.875000 (Fast pre-penetrate)
G01 Z-0.125000 F400.0(Penetrate)
G01 X95.376210 Y142.668321 Z-0.125000 F800.000000
G00 Z5.000000

(End cutting path id: line252)


(Start cutting path id: line232)
(Change tool to Default tool)

G00 Z5.000000
G00 X98.546870 Y142.168446

G00 Z4.875000 (Fast pre-penetrate)
G01 Z-0.125000 F400.0(Penetrate)
G01 X98.546870 Y142.168446 Z-0.125000 F800.000000
G00 Z5.000000

(End cutting path id: line232)


(Start cutting path id: line230)
(Change tool to Default tool)

G00 Z5.000000
G00 X98.631490 Y144.991677

G00 Z4.875000 (Fast pre-penetrate)
G01 Z-0.125000 F400.0(Penetrate)
G01 X98.631490 Y144.991677 Z-0.125000 F800.000000
G00 Z5.000000

(End cutting path id: line230)


(Start cutting path id: line254)
(Change tool to Default tool)

G00 Z5.000000
G00 X95.594410 Y145.870739

G00 Z4.875000 (Fast pre-penetrate)
G01 Z-0.125000 F400.0(Penetrate)
G01 X95.594410 Y145.870739 Z-0.125000 F800.000000
G00 Z5.000000

(End cutting path id: line254)


(Start cutting path id: line256)
(Change tool to Default tool)

G00 Z5.000000
G00 X92.954610 Y147.696809

G00 Z4.875000 (Fast pre-penetrate)
G01 Z-0.125000 F400.0(Penetrate)
G01 X92.954610 Y147.696809 Z-0.125000 F800.000000
G00 Z5.000000

(End cutting path id: line256)


(Start cutting path id: line224)
(Change tool to Default tool)

G00 Z5.000000
G00 X94.540680 Y150.487401

G00 Z4.875000 (Fast pre-penetrate)
G01 Z-0.125000 F400.0(Penetrate)
G01 X94.540680 Y150.487401 Z-0.125000 F800.000000
G00 Z5.000000

(End cutting path id: line224)


(Start cutting path id: line226)
(Change tool to Default tool)

G00 Z5.000000
G00 X96.633590 Y150.487401

G00 Z4.875000 (Fast pre-penetrate)
G01 Z-0.125000 F400.0(Penetrate)
G01 X96.633590 Y150.487401 Z-0.125000 F800.000000
G00 Z5.000000

(End cutting path id: line226)


(Start cutting path id: line166)
(Change tool to Default tool)

G00 Z5.000000
G00 X98.932710 Y152.761598

G00 Z4.875000 (Fast pre-penetrate)
G01 Z-0.125000 F400.0(Penetrate)
G01 X98.932710 Y152.761598 Z-0.125000 F800.000000
G00 Z5.000000

(End cutting path id: line166)


(Start cutting path id: line164)
(Change tool to Default tool)

G00 Z5.000000
G00 X100.434560 Y150.487401

G00 Z4.875000 (Fast pre-penetrate)
G01 Z-0.125000 F400.0(Penetrate)
G01 X100.434560 Y150.487401 Z-0.125000 F800.000000
G00 Z5.000000

(End cutting path id: line164)


(Start cutting path id: line228)
(Change tool to Default tool)

G00 Z5.000000
G00 X98.932710 Y148.213201

G00 Z4.875000 (Fast pre-penetrate)
G01 Z-0.125000 F400.0(Penetrate)
G01 X98.932710 Y148.213201 Z-0.125000 F800.000000
G00 Z5.000000

(End cutting path id: line228)


(Start cutting path id: line162)
(Change tool to Default tool)

G00 Z5.000000
G00 X102.876650 Y148.813165

G00 Z4.875000 (Fast pre-penetrate)
G01 Z-0.125000 F400.0(Penetrate)
G01 X102.876650 Y148.813165 Z-0.125000 F800.000000
G00 Z5.000000

(End cutting path id: line162)


(Start cutting path id: line158)
(Change tool to Default tool)

G00 Z5.000000
G00 X103.713550 Y145.970977

G00 Z4.875000 (Fast pre-penetrate)
G01 Z-0.125000 F400.0(Penetrate)
G01 X103.713550 Y145.970977 Z-0.125000 F800.000000
G00 Z5.000000

(End cutting path id: line158)


(Start cutting path id: line156)
(Change tool to Default tool)

G00 Z5.000000
G00 X101.856360 Y144.728917

G00 Z4.875000 (Fast pre-penetrate)
G01 Z-0.125000 F400.0(Penetrate)
G01 X101.856360 Y144.728917 Z-0.125000 F800.000000
G00 Z5.000000

(End cutting path id: line156)


(Start cutting path id: line154)
(Change tool to Default tool)

G00 Z5.000000
G00 X103.696350 Y142.067484

G00 Z4.875000 (Fast pre-penetrate)
G01 Z-0.125000 F400.0(Penetrate)
G01 X103.696350 Y142.067484 Z-0.125000 F800.000000
G00 Z5.000000

(End cutting path id: line154)


(Start cutting path id: line152)
(Change tool to Default tool)

G00 Z5.000000
G00 X102.813330 Y140.113856

G00 Z4.875000 (Fast pre-penetrate)
G01 Z-0.125000 F400.0(Penetrate)
G01 X102.813330 Y140.113856 Z-0.125000 F800.000000
G00 Z5.000000

(End cutting path id: line152)


(Start cutting path id: line234)
(Change tool to Default tool)

G00 Z5.000000
G00 X99.739770 Y139.188526

G00 Z4.875000 (Fast pre-penetrate)
G01 Z-0.125000 F400.0(Penetrate)
G01 X99.739770 Y139.188526 Z-0.125000 F800.000000
G00 Z5.000000

(End cutting path id: line234)


(Start cutting path id: line6244)
(Change tool to Default tool)

G00 Z5.000000
G00 X96.177020 Y139.196731

G00 Z4.875000 (Fast pre-penetrate)
G01 Z-0.125000 F400.0(Penetrate)
G01 X96.177020 Y139.196731 Z-0.125000 F800.000000
G00 Z5.000000

(End cutting path id: line6244)


(Start cutting path id: line238)
(Change tool to Default tool)

G00 Z5.000000
G00 X98.090590 Y135.763960

G00 Z4.875000 (Fast pre-penetrate)
G01 Z-0.125000 F400.0(Penetrate)
G01 X98.090590 Y135.763960 Z-0.125000 F800.000000
G00 Z5.000000

(End cutting path id: line238)


(Start cutting path id: line240)
(Change tool to Default tool)

G00 Z5.000000
G00 X97.602920 Y133.893661

G00 Z4.875000 (Fast pre-penetrate)
G01 Z-0.125000 F400.0(Penetrate)
G01 X97.602920 Y133.893661 Z-0.125000 F800.000000
G00 Z5.000000

(End cutting path id: line240)


(Start cutting path id: line652)
(Change tool to Default tool)

G00 Z5.000000
G00 X99.506150 Y131.160560

G00 Z4.875000 (Fast pre-penetrate)
G01 Z-0.125000 F400.0(Penetrate)
G01 X99.506150 Y131.160560 Z-0.125000 F800.000000
G00 Z5.000000

(End cutting path id: line652)


(Start cutting path id: line650)
(Change tool to Default tool)

G00 Z5.000000
G00 X102.584860 Y132.430832

G00 Z4.875000 (Fast pre-penetrate)
G01 Z-0.125000 F400.0(Penetrate)
G01 X102.584860 Y132.430832 Z-0.125000 F800.000000
G00 Z5.000000

(End cutting path id: line650)


(Start cutting path id: line644)
(Change tool to Default tool)

G00 Z5.000000
G00 X105.181040 Y134.145615

G00 Z4.875000 (Fast pre-penetrate)
G01 Z-0.125000 F400.0(Penetrate)
G01 X105.181040 Y134.145615 Z-0.125000 F800.000000
G00 Z5.000000

(End cutting path id: line644)


(Start cutting path id: line646)
(Change tool to Default tool)

G00 Z5.000000
G00 X107.777150 Y132.430832

G00 Z4.875000 (Fast pre-penetrate)
G01 Z-0.125000 F400.0(Penetrate)
G01 X107.777150 Y132.430832 Z-0.125000 F800.000000
G00 Z5.000000

(End cutting path id: line646)


(Start cutting path id: line742)
(Change tool to Default tool)

G00 Z5.000000
G00 X110.855900 Y131.160560

G00 Z4.875000 (Fast pre-penetrate)
G01 Z-0.125000 F400.0(Penetrate)
G01 X110.855900 Y131.160560 Z-0.125000 F800.000000
G00 Z5.000000

(End cutting path id: line742)


(Start cutting path id: line638)
(Change tool to Default tool)

G00 Z5.000000
G00 X112.759130 Y133.893661

G00 Z4.875000 (Fast pre-penetrate)
G01 Z-0.125000 F400.0(Penetrate)
G01 X112.759130 Y133.893661 Z-0.125000 F800.000000
G00 Z5.000000

(End cutting path id: line638)


(Start cutting path id: line640)
(Change tool to Default tool)

G00 Z5.000000
G00 X112.271450 Y135.763960

G00 Z4.875000 (Fast pre-penetrate)
G01 Z-0.125000 F400.0(Penetrate)
G01 X112.271450 Y135.763960 Z-0.125000 F800.000000
G00 Z5.000000

(End cutting path id: line640)


(Start cutting path id: line146)
(Change tool to Default tool)

G00 Z5.000000
G00 X110.622270 Y139.188526

G00 Z4.875000 (Fast pre-penetrate)
G01 Z-0.125000 F400.0(Penetrate)
G01 X110.622270 Y139.188526 Z-0.125000 F800.000000
G00 Z5.000000

(End cutting path id: line146)


(Start cutting path id: line144)
(Change tool to Default tool)

G00 Z5.000000
G00 X111.815170 Y142.168446

G00 Z4.875000 (Fast pre-penetrate)
G01 Z-0.125000 F400.0(Penetrate)
G01 X111.815170 Y142.168446 Z-0.125000 F800.000000
G00 Z5.000000

(End cutting path id: line144)


(Start cutting path id: line142)
(Change tool to Default tool)

G00 Z5.000000
G00 X109.455940 Y143.083055

G00 Z4.875000 (Fast pre-penetrate)
G01 Z-0.125000 F400.0(Penetrate)
G01 X109.455940 Y143.083055 Z-0.125000 F800.000000
G00 Z5.000000

(End cutting path id: line142)


(Start cutting path id: line140)
(Change tool to Default tool)

G00 Z5.000000
G00 X110.274680 Y146.213290

G00 Z4.875000 (Fast pre-penetrate)
G01 Z-0.125000 F400.0(Penetrate)
G01 X110.274680 Y146.213290 Z-0.125000 F800.000000
G00 Z5.000000

(End cutting path id: line140)


(Start cutting path id: line138)
(Change tool to Default tool)

G00 Z5.000000
G00 X109.022910 Y147.696097

G00 Z4.875000 (Fast pre-penetrate)
G01 Z-0.125000 F400.0(Penetrate)
G01 X109.022910 Y147.696097 Z-0.125000 F800.000000
G00 Z5.000000

(End cutting path id: line138)


(Start cutting path id: line136)
(Change tool to Default tool)

G00 Z5.000000
G00 X108.031730 Y150.487401

G00 Z4.875000 (Fast pre-penetrate)
G01 Z-0.125000 F400.0(Penetrate)
G01 X108.031730 Y150.487401 Z-0.125000 F800.000000
G00 Z5.000000

(End cutting path id: line136)


(Start cutting path id: line184)
(Change tool to Default tool)

G00 Z5.000000
G00 X109.022910 Y153.278702

G00 Z4.875000 (Fast pre-penetrate)
G01 Z-0.125000 F400.0(Penetrate)
G01 X109.022910 Y153.278702 Z-0.125000 F800.000000
G00 Z5.000000

(End cutting path id: line184)


(Start cutting path id: line186)
(Change tool to Default tool)

G00 Z5.000000
G00 X110.274680 Y154.761509

G00 Z4.875000 (Fast pre-penetrate)
G01 Z-0.125000 F400.0(Penetrate)
G01 X110.274680 Y154.761509 Z-0.125000 F800.000000
G00 Z5.000000

(End cutting path id: line186)


(Start cutting path id: line188)
(Change tool to Default tool)

G00 Z5.000000
G00 X109.455940 Y157.891728

G00 Z4.875000 (Fast pre-penetrate)
G01 Z-0.125000 F400.0(Penetrate)
G01 X109.455940 Y157.891728 Z-0.125000 F800.000000
G00 Z5.000000

(End cutting path id: line188)


(Start cutting path id: line190)
(Change tool to Default tool)

G00 Z5.000000
G00 X111.815170 Y158.806353

G00 Z4.875000 (Fast pre-penetrate)
G01 Z-0.125000 F400.0(Penetrate)
G01 X111.815170 Y158.806353 Z-0.125000 F800.000000
G00 Z5.000000

(End cutting path id: line190)


(Start cutting path id: line192)
(Change tool to Default tool)

G00 Z5.000000
G00 X110.622270 Y161.786273

G00 Z4.875000 (Fast pre-penetrate)
G01 Z-0.125000 F400.0(Penetrate)
G01 X110.622270 Y161.786273 Z-0.125000 F800.000000
G00 Z5.000000

(End cutting path id: line192)


(Start cutting path id: line194)
(Change tool to Default tool)

G00 Z5.000000
G00 X107.548710 Y160.860975

G00 Z4.875000 (Fast pre-penetrate)
G01 Z-0.125000 F400.0(Penetrate)
G01 X107.548710 Y160.860975 Z-0.125000 F800.000000
G00 Z5.000000

(End cutting path id: line194)


(Start cutting path id: line196)
(Change tool to Default tool)

G00 Z5.000000
G00 X105.181040 Y163.028220

G00 Z4.875000 (Fast pre-penetrate)
G01 Z-0.125000 F400.0(Penetrate)
G01 X105.181040 Y163.028220 Z-0.125000 F800.000000
G00 Z5.000000

(End cutting path id: line196)


(Start cutting path id: line174)
(Change tool to Default tool)

G00 Z5.000000
G00 X102.813330 Y160.860975

G00 Z4.875000 (Fast pre-penetrate)
G01 Z-0.125000 F400.0(Penetrate)
G01 X102.813330 Y160.860975 Z-0.125000 F800.000000
G00 Z5.000000

(End cutting path id: line174)


(Start cutting path id: line176)
(Change tool to Default tool)

G00 Z5.000000
G00 X103.696350 Y158.907316

G00 Z4.875000 (Fast pre-penetrate)
G01 Z-0.125000 F400.0(Penetrate)
G01 X103.696350 Y158.907316 Z-0.125000 F800.000000
G00 Z5.000000

(End cutting path id: line176)


(Start cutting path id: line6250)
(Change tool to Default tool)

G00 Z5.000000
G00 X106.335650 Y157.035709

G00 Z4.875000 (Fast pre-penetrate)
G01 Z-0.125000 F400.0(Penetrate)
G01 X106.335650 Y157.035709 Z-0.125000 F800.000000
G00 Z5.000000

(End cutting path id: line6250)


(Start cutting path id: line180)
(Change tool to Default tool)

G00 Z5.000000
G00 X103.713550 Y155.003807

G00 Z4.875000 (Fast pre-penetrate)
G01 Z-0.125000 F400.0(Penetrate)
G01 X103.713550 Y155.003807 Z-0.125000 F800.000000
G00 Z5.000000

(End cutting path id: line180)


(Start cutting path id: line178)
(Change tool to Default tool)

G00 Z5.000000
G00 X101.856360 Y156.245867

G00 Z4.875000 (Fast pre-penetrate)
G01 Z-0.125000 F400.0(Penetrate)
G01 X101.856360 Y156.245867 Z-0.125000 F800.000000
G00 Z5.000000

(End cutting path id: line178)


(Start cutting path id: line168)
(Change tool to Default tool)

G00 Z5.000000
G00 X98.631490 Y155.983109

G00 Z4.875000 (Fast pre-penetrate)
G01 Z-0.125000 F400.0(Penetrate)
G01 X98.631490 Y155.983109 Z-0.125000 F800.000000
G00 Z5.000000

(End cutting path id: line168)


(Start cutting path id: line170)
(Change tool to Default tool)

G00 Z5.000000
G00 X98.546870 Y158.806353

G00 Z4.875000 (Fast pre-penetrate)
G01 Z-0.125000 F400.0(Penetrate)
G01 X98.546870 Y158.806353 Z-0.125000 F800.000000
G00 Z5.000000

(End cutting path id: line170)


(Start cutting path id: line172)
(Change tool to Default tool)

G00 Z5.000000
G00 X99.739770 Y161.786273

G00 Z4.875000 (Fast pre-penetrate)
G01 Z-0.125000 F400.0(Penetrate)
G01 X99.739770 Y161.786273 Z-0.125000 F800.000000
G00 Z5.000000

(End cutting path id: line172)


(Start cutting path id: line214)
(Change tool to Default tool)

G00 Z5.000000
G00 X101.967540 Y164.566610

G00 Z4.875000 (Fast pre-penetrate)
G01 Z-0.125000 F400.0(Penetrate)
G01 X101.967540 Y164.566610 Z-0.125000 F800.000000
G00 Z5.000000

(End cutting path id: line214)


(Start cutting path id: line200)
(Change tool to Default tool)

G00 Z5.000000
G00 X105.181040 Y166.826827

G00 Z4.875000 (Fast pre-penetrate)
G01 Z-0.125000 F400.0(Penetrate)
G01 X105.181040 Y166.826827 Z-0.125000 F800.000000
G00 Z5.000000

(End cutting path id: line200)


(Start cutting path id: line202)
(Change tool to Default tool)

G00 Z5.000000
G00 X107.777150 Y168.543986

G00 Z4.875000 (Fast pre-penetrate)
G01 Z-0.125000 F400.0(Penetrate)
G01 X107.777150 Y168.543986 Z-0.125000 F800.000000
G00 Z5.000000

(End cutting path id: line202)


(Start cutting path id: line204)
(Change tool to Default tool)

G00 Z5.000000
G00 X105.181040 Y170.630146

G00 Z4.875000 (Fast pre-penetrate)
G01 Z-0.125000 F400.0(Penetrate)
G01 X105.181040 Y170.630146 Z-0.125000 F800.000000
G00 Z5.000000

(End cutting path id: line204)


(Start cutting path id: line206)
(Change tool to Default tool)

G00 Z5.000000
G00 X102.584860 Y168.543986

G00 Z4.875000 (Fast pre-penetrate)
G01 Z-0.125000 F400.0(Penetrate)
G01 X102.584860 Y168.543986 Z-0.125000 F800.000000
G00 Z5.000000

(End cutting path id: line206)


(Start cutting path id: line208)
(Change tool to Default tool)

G00 Z5.000000
G00 X99.506150 Y169.814224

G00 Z4.875000 (Fast pre-penetrate)
G01 Z-0.125000 F400.0(Penetrate)
G01 X99.506150 Y169.814224 Z-0.125000 F800.000000
G00 Z5.000000

(End cutting path id: line208)


(Start cutting path id: line210)
(Change tool to Default tool)

G00 Z5.000000
G00 X97.602920 Y167.081139

G00 Z4.875000 (Fast pre-penetrate)
G01 Z-0.125000 F400.0(Penetrate)
G01 X97.602920 Y167.081139 Z-0.125000 F800.000000
G00 Z5.000000

(End cutting path id: line210)


(Start cutting path id: line212)
(Change tool to Default tool)

G00 Z5.000000
G00 X98.090590 Y165.210823

G00 Z4.875000 (Fast pre-penetrate)
G01 Z-0.125000 F400.0(Penetrate)
G01 X98.090590 Y165.210823 Z-0.125000 F800.000000
G00 Z5.000000

(End cutting path id: line212)


(Start cutting path id: line216)
(Change tool to Default tool)

G00 Z5.000000
G00 X96.177020 Y161.778071

G00 Z4.875000 (Fast pre-penetrate)
G01 Z-0.125000 F400.0(Penetrate)
G01 X96.177020 Y161.778071 Z-0.125000 F800.000000
G00 Z5.000000

(End cutting path id: line216)


(Start cutting path id: line218)
(Change tool to Default tool)

G00 Z5.000000
G00 X95.376210 Y158.306463

G00 Z4.875000 (Fast pre-penetrate)
G01 Z-0.125000 F400.0(Penetrate)
G01 X95.376210 Y158.306463 Z-0.125000 F800.000000
G00 Z5.000000

(End cutting path id: line218)


(Start cutting path id: line220)
(Change tool to Default tool)

G00 Z5.000000
G00 X95.594410 Y155.104060

G00 Z4.875000 (Fast pre-penetrate)
G01 Z-0.125000 F400.0(Penetrate)
G01 X95.594410 Y155.104060 Z-0.125000 F800.000000
G00 Z5.000000

(End cutting path id: line220)


(Start cutting path id: line222)
(Change tool to Default tool)

G00 Z5.000000
G00 X92.954610 Y153.277975

G00 Z4.875000 (Fast pre-penetrate)
G01 Z-0.125000 F400.0(Penetrate)
G01 X92.954610 Y153.277975 Z-0.125000 F800.000000
G00 Z5.000000

(End cutting path id: line222)


(Start cutting path id: line258)
(Change tool to Default tool)

G00 Z5.000000
G00 X90.742080 Y150.487401

G00 Z4.875000 (Fast pre-penetrate)
G01 Z-0.125000 F400.0(Penetrate)
G01 X90.742080 Y150.487401 Z-0.125000 F800.000000
G00 Z5.000000

(End cutting path id: line258)


(Start cutting path id: line260)
(Change tool to Default tool)

G00 Z5.000000
G00 X86.938750 Y150.487401

G00 Z4.875000 (Fast pre-penetrate)
G01 Z-0.125000 F400.0(Penetrate)
G01 X86.938750 Y150.487401 Z-0.125000 F800.000000
G00 Z5.000000

(End cutting path id: line260)


(Start cutting path id: line262)
(Change tool to Default tool)

G00 Z5.000000
G00 X85.243310 Y153.354005

G00 Z4.875000 (Fast pre-penetrate)
G01 Z-0.125000 F400.0(Penetrate)
G01 X85.243310 Y153.354005 Z-0.125000 F800.000000
G00 Z5.000000

(End cutting path id: line262)


(Start cutting path id: line264)
(Change tool to Default tool)

G00 Z5.000000
G00 X87.677680 Y155.626848

G00 Z4.875000 (Fast pre-penetrate)
G01 Z-0.125000 F400.0(Penetrate)
G01 X87.677680 Y155.626848 Z-0.125000 F800.000000
G00 Z5.000000

(End cutting path id: line264)


(Start cutting path id: line266)
(Change tool to Default tool)

G00 Z5.000000
G00 X89.248970 Y154.123773

G00 Z4.875000 (Fast pre-penetrate)
G01 Z-0.125000 F400.0(Penetrate)
G01 X89.248970 Y154.123773 Z-0.125000 F800.000000
G00 Z5.000000

(End cutting path id: line266)


(Start cutting path id: line268)
(Change tool to Default tool)

G00 Z5.000000
G00 X92.169850 Y156.753232

G00 Z4.875000 (Fast pre-penetrate)
G01 Z-0.125000 F400.0(Penetrate)
G01 X92.169850 Y156.753232 Z-0.125000 F800.000000
G00 Z5.000000

(End cutting path id: line268)


(Start cutting path id: line270)
(Change tool to Default tool)

G00 Z5.000000
G00 X92.404490 Y160.676346

G00 Z4.875000 (Fast pre-penetrate)
G01 Z-0.125000 F400.0(Penetrate)
G01 X92.404490 Y160.676346 Z-0.125000 F800.000000
G00 Z5.000000

(End cutting path id: line270)


(Start cutting path id: line272)
(Change tool to Default tool)

G00 Z5.000000
G00 X89.834640 Y160.349895

G00 Z4.875000 (Fast pre-penetrate)
G01 Z-0.125000 F400.0(Penetrate)
G01 X89.834640 Y160.349895 Z-0.125000 F800.000000
G00 Z5.000000

(End cutting path id: line272)


(Start cutting path id: line274)
(Change tool to Default tool)

G00 Z5.000000
G00 X86.858530 Y158.855010

G00 Z4.875000 (Fast pre-penetrate)
G01 Z-0.125000 F400.0(Penetrate)
G01 X86.858530 Y158.855010 Z-0.125000 F800.000000
G00 Z5.000000

(End cutting path id: line274)


(Start cutting path id: line292)
(Change tool to Default tool)

G00 Z5.000000
G00 X86.637080 Y162.404856

G00 Z4.875000 (Fast pre-penetrate)
G01 Z-0.125000 F400.0(Penetrate)
G01 X86.637080 Y162.404856 Z-0.125000 F800.000000
G00 Z5.000000

(End cutting path id: line292)


(Start cutting path id: line294)
(Change tool to Default tool)

G00 Z5.000000
G00 X89.958150 Y163.678100

G00 Z4.875000 (Fast pre-penetrate)
G01 Z-0.125000 F400.0(Penetrate)
G01 X89.958150 Y163.678100 Z-0.125000 F800.000000
G00 Z5.000000

(End cutting path id: line294)


(Start cutting path id: line296)
(Change tool to Default tool)

G00 Z5.000000
G00 X93.234880 Y164.273994

G00 Z4.875000 (Fast pre-penetrate)
G01 Z-0.125000 F400.0(Penetrate)
G01 X93.234880 Y164.273994 Z-0.125000 F800.000000
G00 Z5.000000

(End cutting path id: line296)


(Start cutting path id: line298)
(Change tool to Default tool)

G00 Z5.000000
G00 X94.291020 Y167.432553

G00 Z4.875000 (Fast pre-penetrate)
G01 Z-0.125000 F400.0(Penetrate)
G01 X94.291020 Y167.432553 Z-0.125000 F800.000000
G00 Z5.000000

(End cutting path id: line298)


(Start cutting path id: line300)
(Change tool to Default tool)

G00 Z5.000000
G00 X90.745790 Y167.146573

G00 Z4.875000 (Fast pre-penetrate)
G01 Z-0.125000 F400.0(Penetrate)
G01 X90.745790 Y167.146573 Z-0.125000 F800.000000
G00 Z5.000000

(End cutting path id: line300)


(Start cutting path id: line302)
(Change tool to Default tool)

G00 Z5.000000
G00 X92.236080 Y170.630130

G00 Z4.875000 (Fast pre-penetrate)
G01 Z-0.125000 F400.0(Penetrate)
G01 X92.236080 Y170.630130 Z-0.125000 F800.000000
G00 Z5.000000

(End cutting path id: line302)


(Start cutting path id: line304)
(Change tool to Default tool)

G00 Z5.000000
G00 X89.606410 Y171.111513

G00 Z4.875000 (Fast pre-penetrate)
G01 Z-0.125000 F400.0(Penetrate)
G01 X89.606410 Y171.111513 Z-0.125000 F800.000000
G00 Z5.000000

(End cutting path id: line304)


(Start cutting path id: line310)
(Change tool to Default tool)

G00 Z5.000000
G00 X90.575320 Y174.076399

G00 Z4.875000 (Fast pre-penetrate)
G01 Z-0.125000 F400.0(Penetrate)
G01 X90.575320 Y174.076399 Z-0.125000 F800.000000
G00 Z5.000000

(End cutting path id: line310)


(Start cutting path id: line312)
(Change tool to Default tool)

G00 Z5.000000
G00 X93.661260 Y173.622163

G00 Z4.875000 (Fast pre-penetrate)
G01 Z-0.125000 F400.0(Penetrate)
G01 X93.661260 Y173.622163 Z-0.125000 F800.000000
G00 Z5.000000

(End cutting path id: line312)


(Start cutting path id: line314)
(Change tool to Default tool)

G00 Z5.000000
G00 X95.158490 Y176.358536

G00 Z4.875000 (Fast pre-penetrate)
G01 Z-0.125000 F400.0(Penetrate)
G01 X95.158490 Y176.358536 Z-0.125000 F800.000000
G00 Z5.000000

(End cutting path id: line314)


(Start cutting path id: line316)
(Change tool to Default tool)

G00 Z5.000000
G00 X98.108430 Y175.345000

G00 Z4.875000 (Fast pre-penetrate)
G01 Z-0.125000 F400.0(Penetrate)
G01 X98.108430 Y175.345000 Z-0.125000 F800.000000
G00 Z5.000000

(End cutting path id: line316)


(Start cutting path id: line318)
(Change tool to Default tool)

G00 Z5.000000
G00 X98.435300 Y173.461217

G00 Z4.875000 (Fast pre-penetrate)
G01 Z-0.125000 F400.0(Penetrate)
G01 X98.435300 Y173.461217 Z-0.125000 F800.000000
G00 Z5.000000

(End cutting path id: line318)


(Start cutting path id: line6254)
(Change tool to Default tool)

G00 Z5.000000
G00 X96.023940 Y170.538632

G00 Z4.875000 (Fast pre-penetrate)
G01 Z-0.125000 F400.0(Penetrate)
G01 X96.023940 Y170.538632 Z-0.125000 F800.000000
G00 Z5.000000

(End cutting path id: line6254)


(Start cutting path id: line320)
(Change tool to Default tool)

G00 Z5.000000
G00 X102.043950 Y172.306255

G00 Z4.875000 (Fast pre-penetrate)
G01 Z-0.125000 F400.0(Penetrate)
G01 X102.043950 Y172.306255 Z-0.125000 F800.000000
G00 Z5.000000

(End cutting path id: line320)


(Start cutting path id: line322)
(Change tool to Default tool)

G00 Z5.000000
G00 X105.181040 Y174.433484

G00 Z4.875000 (Fast pre-penetrate)
G01 Z-0.125000 F400.0(Penetrate)
G01 X105.181040 Y174.433484 Z-0.125000 F800.000000
G00 Z5.000000

(End cutting path id: line322)


(Start cutting path id: line344)
(Change tool to Default tool)

G00 Z5.000000
G00 X107.565620 Y176.221350

G00 Z4.875000 (Fast pre-penetrate)
G01 Z-0.125000 F400.0(Penetrate)
G01 X107.565620 Y176.221350 Z-0.125000 F800.000000
G00 Z5.000000

(End cutting path id: line344)


(Start cutting path id: line342)
(Change tool to Default tool)

G00 Z5.000000
G00 X105.181040 Y178.232080

G00 Z4.875000 (Fast pre-penetrate)
G01 Z-0.125000 F400.0(Penetrate)
G01 X105.181040 Y178.232080 Z-0.125000 F800.000000
G00 Z5.000000

(End cutting path id: line342)


(Start cutting path id: line324)
(Change tool to Default tool)

G00 Z5.000000
G00 X102.796430 Y176.221350

G00 Z4.875000 (Fast pre-penetrate)
G01 Z-0.125000 F400.0(Penetrate)
G01 X102.796430 Y176.221350 Z-0.125000 F800.000000
G00 Z5.000000

(End cutting path id: line324)


(Start cutting path id: line326)
(Change tool to Default tool)

G00 Z5.000000
G00 X100.082940 Y177.759669

G00 Z4.875000 (Fast pre-penetrate)
G01 Z-0.125000 F400.0(Penetrate)
G01 X100.082940 Y177.759669 Z-0.125000 F800.000000
G00 Z5.000000

(End cutting path id: line326)


(Start cutting path id: line328)
(Change tool to Default tool)

G00 Z5.000000
G00 X97.068220 Y179.000880

G00 Z4.875000 (Fast pre-penetrate)
G01 Z-0.125000 F400.0(Penetrate)
G01 X97.068220 Y179.000880 Z-0.125000 F800.000000
G00 Z5.000000

(End cutting path id: line328)


(Start cutting path id: line338)
(Change tool to Default tool)

G00 Z5.000000
G00 X99.384520 Y181.495901

G00 Z4.875000 (Fast pre-penetrate)
G01 Z-0.125000 F400.0(Penetrate)
G01 X99.384520 Y181.495901 Z-0.125000 F800.000000
G00 Z5.000000

(End cutting path id: line338)


(Start cutting path id: line336)
(Change tool to Default tool)

G00 Z5.000000
G00 X98.376220 Y183.233972

G00 Z4.875000 (Fast pre-penetrate)
G01 Z-0.125000 F400.0(Penetrate)
G01 X98.376220 Y183.233972 Z-0.125000 F800.000000
G00 Z5.000000

(End cutting path id: line336)


(Start cutting path id: line446)
(Change tool to Default tool)

G00 Z5.000000
G00 X100.368000 Y185.504788

G00 Z4.875000 (Fast pre-penetrate)
G01 Z-0.125000 F400.0(Penetrate)
G01 X100.368000 Y185.504788 Z-0.125000 F800.000000
G00 Z5.000000

(End cutting path id: line446)


(Start cutting path id: line444)
(Change tool to Default tool)

G00 Z5.000000
G00 X102.898580 Y183.855558

G00 Z4.875000 (Fast pre-penetrate)
G01 Z-0.125000 F400.0(Penetrate)
G01 X102.898580 Y183.855558 Z-0.125000 F800.000000
G00 Z5.000000

(End cutting path id: line444)


(Start cutting path id: line438)
(Change tool to Default tool)

G00 Z5.000000
G00 X105.181040 Y182.030679

G00 Z4.875000 (Fast pre-penetrate)
G01 Z-0.125000 F400.0(Penetrate)
G01 X105.181040 Y182.030679 Z-0.125000 F800.000000
G00 Z5.000000

(End cutting path id: line438)


(Start cutting path id: line440)
(Change tool to Default tool)

G00 Z5.000000
G00 X107.463460 Y183.855558

G00 Z4.875000 (Fast pre-penetrate)
G01 Z-0.125000 F400.0(Penetrate)
G01 X107.463460 Y183.855558 Z-0.125000 F800.000000
G00 Z5.000000

(End cutting path id: line440)


(Start cutting path id: line442)
(Change tool to Default tool)

G00 Z5.000000
G00 X105.181040 Y185.834006

G00 Z4.875000 (Fast pre-penetrate)
G01 Z-0.125000 F400.0(Penetrate)
G01 X105.181040 Y185.834006 Z-0.125000 F800.000000
G00 Z5.000000

(End cutting path id: line442)


(Start cutting path id: line534)
(Change tool to Default tool)

G00 Z5.000000
G00 X107.722860 Y187.647672

G00 Z4.875000 (Fast pre-penetrate)
G01 Z-0.125000 F400.0(Penetrate)
G01 X107.722860 Y187.647672 Z-0.125000 F800.000000
G00 Z5.000000

(End cutting path id: line534)


(Start cutting path id: line532)
(Change tool to Default tool)

G00 Z5.000000
G00 X109.994040 Y185.504788

G00 Z4.875000 (Fast pre-penetrate)
G01 Z-0.125000 F400.0(Penetrate)
G01 X109.994040 Y185.504788 Z-0.125000 F800.000000
G00 Z5.000000

(End cutting path id: line532)


(Start cutting path id: line430)
(Change tool to Default tool)

G00 Z5.000000
G00 X111.985830 Y183.233972

G00 Z4.875000 (Fast pre-penetrate)
G01 Z-0.125000 F400.0(Penetrate)
G01 X111.985830 Y183.233972 Z-0.125000 F800.000000
G00 Z5.000000

(End cutting path id: line430)


(Start cutting path id: line432)
(Change tool to Default tool)

G00 Z5.000000
G00 X110.977530 Y181.495901

G00 Z4.875000 (Fast pre-penetrate)
G01 Z-0.125000 F400.0(Penetrate)
G01 X110.977530 Y181.495901 Z-0.125000 F800.000000
G00 Z5.000000

(End cutting path id: line432)


(Start cutting path id: line434)
(Change tool to Default tool)

G00 Z5.000000
G00 X113.293790 Y179.000880

G00 Z4.875000 (Fast pre-penetrate)
G01 Z-0.125000 F400.0(Penetrate)
G01 X113.293790 Y179.000880 Z-0.125000 F800.000000
G00 Z5.000000

(End cutting path id: line434)


(Start cutting path id: line346)
(Change tool to Default tool)

G00 Z5.000000
G00 X110.279080 Y177.759669

G00 Z4.875000 (Fast pre-penetrate)
G01 Z-0.125000 F400.0(Penetrate)
G01 X110.279080 Y177.759669 Z-0.125000 F800.000000
G00 Z5.000000

(End cutting path id: line346)


(Start cutting path id: line348)
(Change tool to Default tool)

G00 Z5.000000
G00 X112.253610 Y175.345000

G00 Z4.875000 (Fast pre-penetrate)
G01 Z-0.125000 F400.0(Penetrate)
G01 X112.253610 Y175.345000 Z-0.125000 F800.000000
G00 Z5.000000

(End cutting path id: line348)


(Start cutting path id: line350)
(Change tool to Default tool)

G00 Z5.000000
G00 X111.926750 Y173.461217

G00 Z4.875000 (Fast pre-penetrate)
G01 Z-0.125000 F400.0(Penetrate)
G01 X111.926750 Y173.461217 Z-0.125000 F800.000000
G00 Z5.000000

(End cutting path id: line350)


(Start cutting path id: line352)
(Change tool to Default tool)

G00 Z5.000000
G00 X114.338110 Y170.538632

G00 Z4.875000 (Fast pre-penetrate)
G01 Z-0.125000 F400.0(Penetrate)
G01 X114.338110 Y170.538632 Z-0.125000 F800.000000
G00 Z5.000000

(End cutting path id: line352)


(Start cutting path id: line354)
(Change tool to Default tool)

G00 Z5.000000
G00 X110.855900 Y169.814224

G00 Z4.875000 (Fast pre-penetrate)
G01 Z-0.125000 F400.0(Penetrate)
G01 X110.855900 Y169.814224 Z-0.125000 F800.000000
G00 Z5.000000

(End cutting path id: line354)


(Start cutting path id: line356)
(Change tool to Default tool)

G00 Z5.000000
G00 X112.759130 Y167.081139

G00 Z4.875000 (Fast pre-penetrate)
G01 Z-0.125000 F400.0(Penetrate)
G01 X112.759130 Y167.081139 Z-0.125000 F800.000000
G00 Z5.000000

(End cutting path id: line356)


(Start cutting path id: line358)
(Change tool to Default tool)

G00 Z5.000000
G00 X112.271450 Y165.210823

G00 Z4.875000 (Fast pre-penetrate)
G01 Z-0.125000 F400.0(Penetrate)
G01 X112.271450 Y165.210823 Z-0.125000 F800.000000
G00 Z5.000000

(End cutting path id: line358)


(Start cutting path id: line360)
(Change tool to Default tool)

G00 Z5.000000
G00 X114.185020 Y161.778071

G00 Z4.875000 (Fast pre-penetrate)
G01 Z-0.125000 F400.0(Penetrate)
G01 X114.185020 Y161.778071 Z-0.125000 F800.000000
G00 Z5.000000

(End cutting path id: line360)


(Start cutting path id: line362)
(Change tool to Default tool)

G00 Z5.000000
G00 X114.985830 Y158.306463

G00 Z4.875000 (Fast pre-penetrate)
G01 Z-0.125000 F400.0(Penetrate)
G01 X114.985830 Y158.306463 Z-0.125000 F800.000000
G00 Z5.000000

(End cutting path id: line362)


(Start cutting path id: line364)
(Change tool to Default tool)

G00 Z5.000000
G00 X114.767630 Y155.104060

G00 Z4.875000 (Fast pre-penetrate)
G01 Z-0.125000 F400.0(Penetrate)
G01 X114.767630 Y155.104060 Z-0.125000 F800.000000
G00 Z5.000000

(End cutting path id: line364)


(Start cutting path id: line366)
(Change tool to Default tool)

G00 Z5.000000
G00 X113.215210 Y153.411592

G00 Z4.875000 (Fast pre-penetrate)
G01 Z-0.125000 F400.0(Penetrate)
G01 X113.215210 Y153.411592 Z-0.125000 F800.000000
G00 Z5.000000

(End cutting path id: line366)


(Start cutting path id: line368)
(Change tool to Default tool)

G00 Z5.000000
G00 X111.827950 Y150.487401

G00 Z4.875000 (Fast pre-penetrate)
G01 Z-0.125000 F400.0(Penetrate)
G01 X111.827950 Y150.487401 Z-0.125000 F800.000000
G00 Z5.000000

(End cutting path id: line368)


(Start cutting path id: line370)
(Change tool to Default tool)

G00 Z5.000000
G00 X113.215210 Y147.563192

G00 Z4.875000 (Fast pre-penetrate)
G01 Z-0.125000 F400.0(Penetrate)
G01 X113.215210 Y147.563192 Z-0.125000 F800.000000
G00 Z5.000000

(End cutting path id: line370)


(Start cutting path id: line372)
(Change tool to Default tool)

G00 Z5.000000
G00 X114.767630 Y145.870739

G00 Z4.875000 (Fast pre-penetrate)
G01 Z-0.125000 F400.0(Penetrate)
G01 X114.767630 Y145.870739 Z-0.125000 F800.000000
G00 Z5.000000

(End cutting path id: line372)


(Start cutting path id: line378)
(Change tool to Default tool)

G00 Z5.000000
G00 X117.407410 Y147.696809

G00 Z4.875000 (Fast pre-penetrate)
G01 Z-0.125000 F400.0(Penetrate)
G01 X117.407410 Y147.696809 Z-0.125000 F800.000000
G00 Z5.000000

(End cutting path id: line378)


(Start cutting path id: line380)
(Change tool to Default tool)

G00 Z5.000000
G00 X115.818980 Y150.487401

G00 Z4.875000 (Fast pre-penetrate)
G01 Z-0.125000 F400.0(Penetrate)
G01 X115.818980 Y150.487401 Z-0.125000 F800.000000
G00 Z5.000000

(End cutting path id: line380)


(Start cutting path id: line382)
(Change tool to Default tool)

G00 Z5.000000
G00 X117.407410 Y153.277975

G00 Z4.875000 (Fast pre-penetrate)
G01 Z-0.125000 F400.0(Penetrate)
G01 X117.407410 Y153.277975 Z-0.125000 F800.000000
G00 Z5.000000

(End cutting path id: line382)


(Start cutting path id: line384)
(Change tool to Default tool)

G00 Z5.000000
G00 X119.622310 Y150.487401

G00 Z4.875000 (Fast pre-penetrate)
G01 Z-0.125000 F400.0(Penetrate)
G01 X119.622310 Y150.487401 Z-0.125000 F800.000000
G00 Z5.000000

(End cutting path id: line384)


(Start cutting path id: line386)
(Change tool to Default tool)

G00 Z5.000000
G00 X123.425640 Y150.487401

G00 Z4.875000 (Fast pre-penetrate)
G01 Z-0.125000 F400.0(Penetrate)
G01 X123.425640 Y150.487401 Z-0.125000 F800.000000
G00 Z5.000000

(End cutting path id: line386)


(Start cutting path id: line388)
(Change tool to Default tool)

G00 Z5.000000
G00 X125.118740 Y153.354005

G00 Z4.875000 (Fast pre-penetrate)
G01 Z-0.125000 F400.0(Penetrate)
G01 X125.118740 Y153.354005 Z-0.125000 F800.000000
G00 Z5.000000

(End cutting path id: line388)


(Start cutting path id: line390)
(Change tool to Default tool)

G00 Z5.000000
G00 X122.684330 Y155.626848

G00 Z4.875000 (Fast pre-penetrate)
G01 Z-0.125000 F400.0(Penetrate)
G01 X122.684330 Y155.626848 Z-0.125000 F800.000000
G00 Z5.000000

(End cutting path id: line390)


(Start cutting path id: line392)
(Change tool to Default tool)

G00 Z5.000000
G00 X121.113080 Y154.123773

G00 Z4.875000 (Fast pre-penetrate)
G01 Z-0.125000 F400.0(Penetrate)
G01 X121.113080 Y154.123773 Z-0.125000 F800.000000
G00 Z5.000000

(End cutting path id: line392)


(Start cutting path id: line394)
(Change tool to Default tool)

G00 Z5.000000
G00 X118.192180 Y156.753232

G00 Z4.875000 (Fast pre-penetrate)
G01 Z-0.125000 F400.0(Penetrate)
G01 X118.192180 Y156.753232 Z-0.125000 F800.000000
G00 Z5.000000

(End cutting path id: line394)


(Start cutting path id: line396)
(Change tool to Default tool)

G00 Z5.000000
G00 X117.957520 Y160.676346

G00 Z4.875000 (Fast pre-penetrate)
G01 Z-0.125000 F400.0(Penetrate)
G01 X117.957520 Y160.676346 Z-0.125000 F800.000000
G00 Z5.000000

(End cutting path id: line396)


(Start cutting path id: line398)
(Change tool to Default tool)

G00 Z5.000000
G00 X120.527390 Y160.349895

G00 Z4.875000 (Fast pre-penetrate)
G01 Z-0.125000 F400.0(Penetrate)
G01 X120.527390 Y160.349895 Z-0.125000 F800.000000
G00 Z5.000000

(End cutting path id: line398)


(Start cutting path id: line400)
(Change tool to Default tool)

G00 Z5.000000
G00 X123.503510 Y158.855010

G00 Z4.875000 (Fast pre-penetrate)
G01 Z-0.125000 F400.0(Penetrate)
G01 X123.503510 Y158.855010 Z-0.125000 F800.000000
G00 Z5.000000

(End cutting path id: line400)


(Start cutting path id: line402)
(Change tool to Default tool)

G00 Z5.000000
G00 X123.724960 Y162.404856

G00 Z4.875000 (Fast pre-penetrate)
G01 Z-0.125000 F400.0(Penetrate)
G01 X123.724960 Y162.404856 Z-0.125000 F800.000000
G00 Z5.000000

(End cutting path id: line402)


(Start cutting path id: line404)
(Change tool to Default tool)

G00 Z5.000000
G00 X120.403890 Y163.678100

G00 Z4.875000 (Fast pre-penetrate)
G01 Z-0.125000 F400.0(Penetrate)
G01 X120.403890 Y163.678100 Z-0.125000 F800.000000
G00 Z5.000000

(End cutting path id: line404)


(Start cutting path id: line406)
(Change tool to Default tool)

G00 Z5.000000
G00 X117.127160 Y164.273994

G00 Z4.875000 (Fast pre-penetrate)
G01 Z-0.125000 F400.0(Penetrate)
G01 X117.127160 Y164.273994 Z-0.125000 F800.000000
G00 Z5.000000

(End cutting path id: line406)


(Start cutting path id: line408)
(Change tool to Default tool)

G00 Z5.000000
G00 X116.071020 Y167.432553

G00 Z4.875000 (Fast pre-penetrate)
G01 Z-0.125000 F400.0(Penetrate)
G01 X116.071020 Y167.432553 Z-0.125000 F800.000000
G00 Z5.000000

(End cutting path id: line408)


(Start cutting path id: line410)
(Change tool to Default tool)

G00 Z5.000000
G00 X119.616250 Y167.146573

G00 Z4.875000 (Fast pre-penetrate)
G01 Z-0.125000 F400.0(Penetrate)
G01 X119.616250 Y167.146573 Z-0.125000 F800.000000
G00 Z5.000000

(End cutting path id: line410)


(Start cutting path id: line412)
(Change tool to Default tool)

G00 Z5.000000
G00 X118.125960 Y170.630130

G00 Z4.875000 (Fast pre-penetrate)
G01 Z-0.125000 F400.0(Penetrate)
G01 X118.125960 Y170.630130 Z-0.125000 F800.000000
G00 Z5.000000

(End cutting path id: line412)


(Start cutting path id: line414)
(Change tool to Default tool)

G00 Z5.000000
G00 X120.755630 Y171.111513

G00 Z4.875000 (Fast pre-penetrate)
G01 Z-0.125000 F400.0(Penetrate)
G01 X120.755630 Y171.111513 Z-0.125000 F800.000000
G00 Z5.000000

(End cutting path id: line414)


(Start cutting path id: line416)
(Change tool to Default tool)

G00 Z5.000000
G00 X119.786720 Y174.076399

G00 Z4.875000 (Fast pre-penetrate)
G01 Z-0.125000 F400.0(Penetrate)
G01 X119.786720 Y174.076399 Z-0.125000 F800.000000
G00 Z5.000000

(End cutting path id: line416)


(Start cutting path id: line418)
(Change tool to Default tool)

G00 Z5.000000
G00 X116.700750 Y173.622163

G00 Z4.875000 (Fast pre-penetrate)
G01 Z-0.125000 F400.0(Penetrate)
G01 X116.700750 Y173.622163 Z-0.125000 F800.000000
G00 Z5.000000

(End cutting path id: line418)


(Start cutting path id: line420)
(Change tool to Default tool)

G00 Z5.000000
G00 X115.203560 Y176.358536

G00 Z4.875000 (Fast pre-penetrate)
G01 Z-0.125000 F400.0(Penetrate)
G01 X115.203560 Y176.358536 Z-0.125000 F800.000000
G00 Z5.000000

(End cutting path id: line420)


(Start cutting path id: line422)
(Change tool to Default tool)

G00 Z5.000000
G00 X118.395010 Y177.024651

G00 Z4.875000 (Fast pre-penetrate)
G01 Z-0.125000 F400.0(Penetrate)
G01 X118.395010 Y177.024651 Z-0.125000 F800.000000
G00 Z5.000000

(End cutting path id: line422)


(Start cutting path id: line554)
(Change tool to Default tool)

G00 Z5.000000
G00 X121.787660 Y177.308049

G00 Z4.875000 (Fast pre-penetrate)
G01 Z-0.125000 F400.0(Penetrate)
G01 X121.787660 Y177.308049 Z-0.125000 F800.000000
G00 Z5.000000

(End cutting path id: line554)


(Start cutting path id: line552)
(Change tool to Default tool)

G00 Z5.000000
G00 X124.468740 Y177.811871

G00 Z4.875000 (Fast pre-penetrate)
G01 Z-0.125000 F400.0(Penetrate)
G01 X124.468740 Y177.811871 Z-0.125000 F800.000000
G00 Z5.000000

(End cutting path id: line552)


(Start cutting path id: line550)
(Change tool to Default tool)

G00 Z5.000000
G00 X123.546560 Y180.688236

G00 Z4.875000 (Fast pre-penetrate)
G01 Z-0.125000 F400.0(Penetrate)
G01 X123.546560 Y180.688236 Z-0.125000 F800.000000
G00 Z5.000000

(End cutting path id: line550)


(Start cutting path id: line548)
(Change tool to Default tool)

G00 Z5.000000
G00 X120.568400 Y180.183729

G00 Z4.875000 (Fast pre-penetrate)
G01 Z-0.125000 F400.0(Penetrate)
G01 X120.568400 Y180.183729 Z-0.125000 F800.000000
G00 Z5.000000

(End cutting path id: line548)


(Start cutting path id: line546)
(Change tool to Default tool)

G00 Z5.000000
G00 X119.263140 Y182.907715

G00 Z4.875000 (Fast pre-penetrate)
G01 Z-0.125000 F400.0(Penetrate)
G01 X119.263140 Y182.907715 Z-0.125000 F800.000000
G00 Z5.000000

(End cutting path id: line546)


(Start cutting path id: line426)
(Change tool to Default tool)

G00 Z5.000000
G00 X116.381430 Y182.002369

G00 Z4.875000 (Fast pre-penetrate)
G01 Z-0.125000 F400.0(Penetrate)
G01 X116.381430 Y182.002369 Z-0.125000 F800.000000
G00 Z5.000000

(End cutting path id: line426)


(Start cutting path id: line424)
(Change tool to Default tool)

G00 Z5.000000
G00 X116.576610 Y179.902844

G00 Z4.875000 (Fast pre-penetrate)
G01 Z-0.125000 F400.0(Penetrate)
G01 X116.576610 Y179.902844 Z-0.125000 F800.000000
G00 Z5.000000

(End cutting path id: line424)


(Start cutting path id: line428)
(Change tool to Default tool)

G00 Z5.000000
G00 X114.717410 Y184.523234

G00 Z4.875000 (Fast pre-penetrate)
G01 Z-0.125000 F400.0(Penetrate)
G01 X114.717410 Y184.523234 Z-0.125000 F800.000000
G00 Z5.000000

(End cutting path id: line428)


(Start cutting path id: line530)
(Change tool to Default tool)

G00 Z5.000000
G00 X112.759150 Y186.955416

G00 Z4.875000 (Fast pre-penetrate)
G01 Z-0.125000 F400.0(Penetrate)
G01 X112.759150 Y186.955416 Z-0.125000 F800.000000
G00 Z5.000000

(End cutting path id: line530)


(Start cutting path id: line528)
(Change tool to Default tool)

G00 Z5.000000
G00 X110.511620 Y189.270335

G00 Z4.875000 (Fast pre-penetrate)
G01 Z-0.125000 F400.0(Penetrate)
G01 X110.511620 Y189.270335 Z-0.125000 F800.000000
G00 Z5.000000

(End cutting path id: line528)


(Start cutting path id: line526)
(Change tool to Default tool)

G00 Z5.000000
G00 X109.491570 Y191.499608

G00 Z4.875000 (Fast pre-penetrate)
G01 Z-0.125000 F400.0(Penetrate)
G01 X109.491570 Y191.499608 Z-0.125000 F800.000000
G00 Z5.000000

(End cutting path id: line526)


(Start cutting path id: line524)
(Change tool to Default tool)

G00 Z5.000000
G00 X107.438720 Y193.566851

G00 Z4.875000 (Fast pre-penetrate)
G01 Z-0.125000 F400.0(Penetrate)
G01 X107.438720 Y193.566851 Z-0.125000 F800.000000
G00 Z5.000000

(End cutting path id: line524)


(Start cutting path id: line452)
(Change tool to Default tool)

G00 Z5.000000
G00 X105.181040 Y191.725483

G00 Z4.875000 (Fast pre-penetrate)
G01 Z-0.125000 F400.0(Penetrate)
G01 X105.181040 Y191.725483 Z-0.125000 F800.000000
G00 Z5.000000

(End cutting path id: line452)


(Start cutting path id: line450)
(Change tool to Default tool)

G00 Z5.000000
G00 X105.181040 Y189.637344

G00 Z4.875000 (Fast pre-penetrate)
G01 Z-0.125000 F400.0(Penetrate)
G01 X105.181040 Y189.637344 Z-0.125000 F800.000000
G00 Z5.000000

(End cutting path id: line450)


(Start cutting path id: line448)
(Change tool to Default tool)

G00 Z5.000000
G00 X102.639180 Y187.647672

G00 Z4.875000 (Fast pre-penetrate)
G01 Z-0.125000 F400.0(Penetrate)
G01 X102.639180 Y187.647672 Z-0.125000 F800.000000
G00 Z5.000000

(End cutting path id: line448)


(Start cutting path id: line458)
(Change tool to Default tool)

G00 Z5.000000
G00 X99.850420 Y189.270335

G00 Z4.875000 (Fast pre-penetrate)
G01 Z-0.125000 F400.0(Penetrate)
G01 X99.850420 Y189.270335 Z-0.125000 F800.000000
G00 Z5.000000

(End cutting path id: line458)


(Start cutting path id: line456)
(Change tool to Default tool)

G00 Z5.000000
G00 X100.870470 Y191.499608

G00 Z4.875000 (Fast pre-penetrate)
G01 Z-0.125000 F400.0(Penetrate)
G01 X100.870470 Y191.499608 Z-0.125000 F800.000000
G00 Z5.000000

(End cutting path id: line456)


(Start cutting path id: line454)
(Change tool to Default tool)

G00 Z5.000000
G00 X102.923320 Y193.566851

G00 Z4.875000 (Fast pre-penetrate)
G01 Z-0.125000 F400.0(Penetrate)
G01 X102.923320 Y193.566851 Z-0.125000 F800.000000
G00 Z5.000000

(End cutting path id: line454)


(Start cutting path id: line506)
(Change tool to Default tool)

G00 Z5.000000
G00 X100.473140 Y195.279740

G00 Z4.875000 (Fast pre-penetrate)
G01 Z-0.125000 F400.0(Penetrate)
G01 X100.473140 Y195.279740 Z-0.125000 F800.000000
G00 Z5.000000

(End cutting path id: line506)


(Start cutting path id: line504)
(Change tool to Default tool)

G00 Z5.000000
G00 X98.432650 Y193.094892

G00 Z4.875000 (Fast pre-penetrate)
G01 Z-0.125000 F400.0(Penetrate)
G01 X98.432650 Y193.094892 Z-0.125000 F800.000000
G00 Z5.000000

(End cutting path id: line504)


(Start cutting path id: line502)
(Change tool to Default tool)

G00 Z5.000000
G00 X96.607130 Y190.824344

G00 Z4.875000 (Fast pre-penetrate)
G01 Z-0.125000 F400.0(Penetrate)
G01 X96.607130 Y190.824344 Z-0.125000 F800.000000
G00 Z5.000000

(End cutting path id: line502)


(Start cutting path id: line500)
(Change tool to Default tool)

G00 Z5.000000
G00 X94.015930 Y192.156069

G00 Z4.875000 (Fast pre-penetrate)
G01 Z-0.125000 F400.0(Penetrate)
G01 X94.015930 Y192.156069 Z-0.125000 F800.000000
G00 Z5.000000

(End cutting path id: line500)


(Start cutting path id: line464)
(Change tool to Default tool)

G00 Z5.000000
G00 X92.437750 Y189.707162

G00 Z4.875000 (Fast pre-penetrate)
G01 Z-0.125000 F400.0(Penetrate)
G01 X92.437750 Y189.707162 Z-0.125000 F800.000000
G00 Z5.000000

(End cutting path id: line464)


(Start cutting path id: line462)
(Change tool to Default tool)

G00 Z5.000000
G00 X94.619130 Y188.183273

G00 Z4.875000 (Fast pre-penetrate)
G01 Z-0.125000 F400.0(Penetrate)
G01 X94.619130 Y188.183273 Z-0.125000 F800.000000
G00 Z5.000000

(End cutting path id: line462)


(Start cutting path id: line460)
(Change tool to Default tool)

G00 Z5.000000
G00 X97.602860 Y186.955416

G00 Z4.875000 (Fast pre-penetrate)
G01 Z-0.125000 F400.0(Penetrate)
G01 X97.602860 Y186.955416 Z-0.125000 F800.000000
G00 Z5.000000

(End cutting path id: line460)


(Start cutting path id: line334)
(Change tool to Default tool)

G00 Z5.000000
G00 X95.644600 Y184.523234

G00 Z4.875000 (Fast pre-penetrate)
G01 Z-0.125000 F400.0(Penetrate)
G01 X95.644600 Y184.523234 Z-0.125000 F800.000000
G00 Z5.000000

(End cutting path id: line334)


(Start cutting path id: line332)
(Change tool to Default tool)

G00 Z5.000000
G00 X93.980590 Y182.002369

G00 Z4.875000 (Fast pre-penetrate)
G01 Z-0.125000 F400.0(Penetrate)
G01 X93.980590 Y182.002369 Z-0.125000 F800.000000
G00 Z5.000000

(End cutting path id: line332)


(Start cutting path id: line330)
(Change tool to Default tool)

G00 Z5.000000
G00 X93.785410 Y179.902844

G00 Z4.875000 (Fast pre-penetrate)
G01 Z-0.125000 F400.0(Penetrate)
G01 X93.785410 Y179.902844 Z-0.125000 F800.000000
G00 Z5.000000

(End cutting path id: line330)


(Start cutting path id: line484)
(Change tool to Default tool)

G00 Z5.000000
G00 X91.967030 Y177.024651

G00 Z4.875000 (Fast pre-penetrate)
G01 Z-0.125000 F400.0(Penetrate)
G01 X91.967030 Y177.024651 Z-0.125000 F800.000000
G00 Z5.000000

(End cutting path id: line484)


(Start cutting path id: line482)
(Change tool to Default tool)

G00 Z5.000000
G00 X88.574380 Y177.308049

G00 Z4.875000 (Fast pre-penetrate)
G01 Z-0.125000 F400.0(Penetrate)
G01 X88.574380 Y177.308049 Z-0.125000 F800.000000
G00 Z5.000000

(End cutting path id: line482)


(Start cutting path id: line480)
(Change tool to Default tool)

G00 Z5.000000
G00 X85.893310 Y177.811871

G00 Z4.875000 (Fast pre-penetrate)
G01 Z-0.125000 F400.0(Penetrate)
G01 X85.893310 Y177.811871 Z-0.125000 F800.000000
G00 Z5.000000

(End cutting path id: line480)


(Start cutting path id: line478)
(Change tool to Default tool)

G00 Z5.000000
G00 X86.815480 Y180.688236

G00 Z4.875000 (Fast pre-penetrate)
G01 Z-0.125000 F400.0(Penetrate)
G01 X86.815480 Y180.688236 Z-0.125000 F800.000000
G00 Z5.000000

(End cutting path id: line478)


(Start cutting path id: line476)
(Change tool to Default tool)

G00 Z5.000000
G00 X89.793630 Y180.183729

G00 Z4.875000 (Fast pre-penetrate)
G01 Z-0.125000 F400.0(Penetrate)
G01 X89.793630 Y180.183729 Z-0.125000 F800.000000
G00 Z5.000000

(End cutting path id: line476)


(Start cutting path id: line474)
(Change tool to Default tool)

G00 Z5.000000
G00 X91.098900 Y182.907715

G00 Z4.875000 (Fast pre-penetrate)
G01 Z-0.125000 F400.0(Penetrate)
G01 X91.098900 Y182.907715 Z-0.125000 F800.000000
G00 Z5.000000

(End cutting path id: line474)


(Start cutting path id: line472)
(Change tool to Default tool)

G00 Z5.000000
G00 X92.707730 Y185.583869

G00 Z4.875000 (Fast pre-penetrate)
G01 Z-0.125000 F400.0(Penetrate)
G01 X92.707730 Y185.583869 Z-0.125000 F800.000000
G00 Z5.000000

(End cutting path id: line472)


(Start cutting path id: line470)
(Change tool to Default tool)

G00 Z5.000000
G00 X89.584590 Y186.394002

G00 Z4.875000 (Fast pre-penetrate)
G01 Z-0.125000 F400.0(Penetrate)
G01 X89.584590 Y186.394002 Z-0.125000 F800.000000
G00 Z5.000000

(End cutting path id: line470)


(Start cutting path id: line468)
(Change tool to Default tool)

G00 Z5.000000
G00 X88.407960 Y188.160278

G00 Z4.875000 (Fast pre-penetrate)
G01 Z-0.125000 F400.0(Penetrate)
G01 X88.407960 Y188.160278 Z-0.125000 F800.000000
G00 Z5.000000

(End cutting path id: line468)


(Start cutting path id: line492)
(Change tool to Default tool)

G00 Z5.000000
G00 X85.596530 Y188.924160

G00 Z4.875000 (Fast pre-penetrate)
G01 Z-0.125000 F400.0(Penetrate)
G01 X85.596530 Y188.924160 Z-0.125000 F800.000000
G00 Z5.000000

(End cutting path id: line492)


(Start cutting path id: line490)
(Change tool to Default tool)

G00 Z5.000000
G00 X84.561980 Y186.200642

G00 Z4.875000 (Fast pre-penetrate)
G01 Z-0.125000 F400.0(Penetrate)
G01 X84.561980 Y186.200642 Z-0.125000 F800.000000
G00 Z5.000000

(End cutting path id: line490)


(Start cutting path id: line488)
(Change tool to Default tool)

G00 Z5.000000
G00 X84.840560 Y183.935835

G00 Z4.875000 (Fast pre-penetrate)
G01 Z-0.125000 F400.0(Penetrate)
G01 X84.840560 Y183.935835 Z-0.125000 F800.000000
G00 Z5.000000

(End cutting path id: line488)


(Start cutting path id: line486)
(Change tool to Default tool)

G00 Z5.000000
G00 X88.044920 Y183.558539

G00 Z4.875000 (Fast pre-penetrate)
G01 Z-0.125000 F400.0(Penetrate)
G01 X88.044920 Y183.558539 Z-0.125000 F800.000000
G00 Z5.000000

(End cutting path id: line486)


(Start cutting path id: line1202)
(Change tool to Default tool)

G00 Z5.000000
G00 X83.701340 Y180.917148

G00 Z4.875000 (Fast pre-penetrate)
G01 Z-0.125000 F400.0(Penetrate)
G01 X83.701340 Y180.917148 Z-0.125000 F800.000000
G00 Z5.000000

(End cutting path id: line1202)


(Start cutting path id: line1204)
(Change tool to Default tool)

G00 Z5.000000
G00 X82.874200 Y177.906164

G00 Z4.875000 (Fast pre-penetrate)
G01 Z-0.125000 F400.0(Penetrate)
G01 X82.874200 Y177.906164 Z-0.125000 F800.000000
G00 Z5.000000

(End cutting path id: line1204)


(Start cutting path id: line1206)
(Change tool to Default tool)

G00 Z5.000000
G00 X82.352250 Y174.931030

G00 Z4.875000 (Fast pre-penetrate)
G01 Z-0.125000 F400.0(Penetrate)
G01 X82.352250 Y174.931030 Z-0.125000 F800.000000
G00 Z5.000000

(End cutting path id: line1206)


(Start cutting path id: line1208)
(Change tool to Default tool)

G00 Z5.000000
G00 X83.928850 Y173.799915

G00 Z4.875000 (Fast pre-penetrate)
G01 Z-0.125000 F400.0(Penetrate)
G01 X83.928850 Y173.799915 Z-0.125000 F800.000000
G00 Z5.000000

(End cutting path id: line1208)


(Start cutting path id: line308)
(Change tool to Default tool)

G00 Z5.000000
G00 X87.315810 Y174.144741

G00 Z4.875000 (Fast pre-penetrate)
G01 Z-0.125000 F400.0(Penetrate)
G01 X87.315810 Y174.144741 Z-0.125000 F800.000000
G00 Z5.000000

(End cutting path id: line308)


(Start cutting path id: line306)
(Change tool to Default tool)

G00 Z5.000000
G00 X86.489540 Y170.990961

G00 Z4.875000 (Fast pre-penetrate)
G01 Z-0.125000 F400.0(Penetrate)
G01 X86.489540 Y170.990961 Z-0.125000 F800.000000
G00 Z5.000000

(End cutting path id: line306)


(Start cutting path id: line288)
(Change tool to Default tool)

G00 Z5.000000
G00 X86.081930 Y167.898513

G00 Z4.875000 (Fast pre-penetrate)
G01 Z-0.125000 F400.0(Penetrate)
G01 X86.081930 Y167.898513 Z-0.125000 F800.000000
G00 Z5.000000

(End cutting path id: line288)


(Start cutting path id: line290)
(Change tool to Default tool)

G00 Z5.000000
G00 X87.085570 Y166.167191

G00 Z4.875000 (Fast pre-penetrate)
G01 Z-0.125000 F400.0(Penetrate)
G01 X87.085570 Y166.167191 Z-0.125000 F800.000000
G00 Z5.000000

(End cutting path id: line290)


(Start cutting path id: line286)
(Change tool to Default tool)

G00 Z5.000000
G00 X83.040300 Y167.207311

G00 Z4.875000 (Fast pre-penetrate)
G01 Z-0.125000 F400.0(Penetrate)
G01 X83.040300 Y167.207311 Z-0.125000 F800.000000
G00 Z5.000000

(End cutting path id: line286)


(Start cutting path id: line284)
(Change tool to Default tool)

G00 Z5.000000
G00 X83.207840 Y164.092609

G00 Z4.875000 (Fast pre-penetrate)
G01 Z-0.125000 F400.0(Penetrate)
G01 X83.207840 Y164.092609 Z-0.125000 F800.000000
G00 Z5.000000

(End cutting path id: line284)


(Start cutting path id: line282)
(Change tool to Default tool)

G00 Z5.000000
G00 X80.345000 Y162.854264

G00 Z4.875000 (Fast pre-penetrate)
G01 Z-0.125000 F400.0(Penetrate)
G01 X80.345000 Y162.854264 Z-0.125000 F800.000000
G00 Z5.000000

(End cutting path id: line282)


(Start cutting path id: line280)
(Change tool to Default tool)

G00 Z5.000000
G00 X81.082010 Y159.823409

G00 Z4.875000 (Fast pre-penetrate)
G01 Z-0.125000 F400.0(Penetrate)
G01 X81.082010 Y159.823409 Z-0.125000 F800.000000
G00 Z5.000000

(End cutting path id: line280)


(Start cutting path id: line278)
(Change tool to Default tool)

G00 Z5.000000
G00 X83.401070 Y160.433983

G00 Z4.875000 (Fast pre-penetrate)
G01 Z-0.125000 F400.0(Penetrate)
G01 X83.401070 Y160.433983 Z-0.125000 F800.000000
G00 Z5.000000

(End cutting path id: line278)


(Start cutting path id: line276)
(Change tool to Default tool)

G00 Z5.000000
G00 X84.030690 Y156.697696

G00 Z4.875000 (Fast pre-penetrate)
G01 Z-0.125000 F400.0(Penetrate)
G01 X84.030690 Y156.697696 Z-0.125000 F800.000000
G00 Z5.000000

(End cutting path id: line276)


(Start cutting path id: line1272)
(Change tool to Default tool)

G00 Z5.000000
G00 X81.481010 Y153.894943

G00 Z4.875000 (Fast pre-penetrate)
G01 Z-0.125000 F400.0(Penetrate)
G01 X81.481010 Y153.894943 Z-0.125000 F800.000000
G00 Z5.000000

(End cutting path id: line1272)


(Start cutting path id: line1270)
(Change tool to Default tool)

G00 Z5.000000
G00 X79.776880 Y155.236238

G00 Z4.875000 (Fast pre-penetrate)
G01 Z-0.125000 F400.0(Penetrate)
G01 X79.776880 Y155.236238 Z-0.125000 F800.000000
G00 Z5.000000

(End cutting path id: line1270)


(Start cutting path id: line1302)
(Change tool to Default tool)

G00 Z5.000000
G00 X77.554690 Y153.047337

G00 Z4.875000 (Fast pre-penetrate)
G01 Z-0.125000 F400.0(Penetrate)
G01 X77.554690 Y153.047337 Z-0.125000 F800.000000
G00 Z5.000000

(End cutting path id: line1302)


(Start cutting path id: line1300)
(Change tool to Default tool)

G00 Z5.000000
G00 X79.336830 Y150.487401

G00 Z4.875000 (Fast pre-penetrate)
G01 Z-0.125000 F400.0(Penetrate)
G01 X79.336830 Y150.487401 Z-0.125000 F800.000000
G00 Z5.000000

(End cutting path id: line1300)


(Start cutting path id: line1298)
(Change tool to Default tool)

G00 Z5.000000
G00 X77.554690 Y147.927446

G00 Z4.875000 (Fast pre-penetrate)
G01 Z-0.125000 F400.0(Penetrate)
G01 X77.554690 Y147.927446 Z-0.125000 F800.000000
G00 Z5.000000

(End cutting path id: line1298)


(Start cutting path id: line1294)
(Change tool to Default tool)

G00 Z5.000000
G00 X79.776880 Y145.738546

G00 Z4.875000 (Fast pre-penetrate)
G01 Z-0.125000 F400.0(Penetrate)
G01 X79.776880 Y145.738546 Z-0.125000 F800.000000
G00 Z5.000000

(End cutting path id: line1294)


(Start cutting path id: line1296)
(Change tool to Default tool)

G00 Z5.000000
G00 X81.481010 Y147.079856

G00 Z4.875000 (Fast pre-penetrate)
G01 Z-0.125000 F400.0(Penetrate)
G01 X81.481010 Y147.079856 Z-0.125000 F800.000000
G00 Z5.000000

(End cutting path id: line1296)


(Start cutting path id: line1286)
(Change tool to Default tool)

G00 Z5.000000
G00 X84.030690 Y144.277088

G00 Z4.875000 (Fast pre-penetrate)
G01 Z-0.125000 F400.0(Penetrate)
G01 X84.030690 Y144.277088 Z-0.125000 F800.000000
G00 Z5.000000

(End cutting path id: line1286)


(Start cutting path id: line1284)
(Change tool to Default tool)

G00 Z5.000000
G00 X86.858530 Y142.119792

G00 Z4.875000 (Fast pre-penetrate)
G01 Z-0.125000 F400.0(Penetrate)
G01 X86.858530 Y142.119792 Z-0.125000 F800.000000
G00 Z5.000000

(End cutting path id: line1284)


(Start cutting path id: line1278)
(Change tool to Default tool)

G00 Z5.000000
G00 X87.677680 Y145.347936

G00 Z4.875000 (Fast pre-penetrate)
G01 Z-0.125000 F400.0(Penetrate)
G01 X87.677680 Y145.347936 Z-0.125000 F800.000000
G00 Z5.000000

(End cutting path id: line1278)


(Start cutting path id: line1280)
(Change tool to Default tool)

G00 Z5.000000
G00 X89.248970 Y146.851010

G00 Z4.875000 (Fast pre-penetrate)
G01 Z-0.125000 F400.0(Penetrate)
G01 X89.248970 Y146.851010 Z-0.125000 F800.000000
G00 Z5.000000

(End cutting path id: line1280)


(Start cutting path id: line1282)
(Change tool to Default tool)

G00 Z5.000000
G00 X92.169850 Y144.221552

G00 Z4.875000 (Fast pre-penetrate)
G01 Z-0.125000 F400.0(Penetrate)
G01 X92.169850 Y144.221552 Z-0.125000 F800.000000
G00 Z5.000000

(End cutting path id: line1282)


(Start cutting path id: line1276)
(Change tool to Default tool)

G00 Z5.000000
G00 X85.243310 Y147.620794

G00 Z4.875000 (Fast pre-penetrate)
G01 Z-0.125000 F400.0(Penetrate)
G01 X85.243310 Y147.620794 Z-0.125000 F800.000000
G00 Z5.000000

(End cutting path id: line1276)


(Start cutting path id: line1274)
(Change tool to Default tool)

G00 Z5.000000
G00 X83.140160 Y150.487401

G00 Z4.875000 (Fast pre-penetrate)
G01 Z-0.125000 F400.0(Penetrate)
G01 X83.140160 Y150.487401 Z-0.125000 F800.000000
G00 Z5.000000

(End cutting path id: line1274)


(Start cutting path id: line1304)
(Change tool to Default tool)

G00 Z5.000000
G00 X75.538230 Y150.487401

G00 Z4.875000 (Fast pre-penetrate)
G01 Z-0.125000 F400.0(Penetrate)
G01 X75.538230 Y150.487401 Z-0.125000 F800.000000
G00 Z5.000000

(End cutting path id: line1304)


(Start cutting path id: line1318)
(Change tool to Default tool)

G00 Z5.000000
G00 X73.769940 Y147.576741

G00 Z4.875000 (Fast pre-penetrate)
G01 Z-0.125000 F400.0(Penetrate)
G01 X73.769940 Y147.576741 Z-0.125000 F800.000000
G00 Z5.000000

(End cutting path id: line1318)


(Start cutting path id: line1316)
(Change tool to Default tool)

G00 Z5.000000
G00 X72.046410 Y145.933157

G00 Z4.875000 (Fast pre-penetrate)
G01 Z-0.125000 F400.0(Penetrate)
G01 X72.046410 Y145.933157 Z-0.125000 F800.000000
G00 Z5.000000

(End cutting path id: line1316)


(Start cutting path id: line1372)
(Change tool to Default tool)

G00 Z5.000000
G00 X70.573720 Y143.295915

G00 Z4.875000 (Fast pre-penetrate)
G01 Z-0.125000 F400.0(Penetrate)
G01 X70.573720 Y143.295915 Z-0.125000 F800.000000
G00 Z5.000000

(End cutting path id: line1372)


(Start cutting path id: line1324)
(Change tool to Default tool)

G00 Z5.000000
G00 X72.975150 Y141.463757

G00 Z4.875000 (Fast pre-penetrate)
G01 Z-0.125000 F400.0(Penetrate)
G01 X72.975150 Y141.463757 Z-0.125000 F800.000000
G00 Z5.000000

(End cutting path id: line1324)


(Start cutting path id: line1322)
(Change tool to Default tool)

G00 Z5.000000
G00 X74.839620 Y141.854513

G00 Z4.875000 (Fast pre-penetrate)
G01 Z-0.125000 F400.0(Penetrate)
G01 X74.839620 Y141.854513 Z-0.125000 F800.000000
G00 Z5.000000

(End cutting path id: line1322)


(Start cutting path id: line1348)
(Change tool to Default tool)

G00 Z5.000000
G00 X77.537740 Y139.778333

G00 Z4.875000 (Fast pre-penetrate)
G01 Z-0.125000 F400.0(Penetrate)
G01 X77.537740 Y139.778333 Z-0.125000 F800.000000
G00 Z5.000000

(End cutting path id: line1348)


(Start cutting path id: line1292)
(Change tool to Default tool)

G00 Z5.000000
G00 X78.495480 Y142.894696

G00 Z4.875000 (Fast pre-penetrate)
G01 Z-0.125000 F400.0(Penetrate)
G01 X78.495480 Y142.894696 Z-0.125000 F800.000000
G00 Z5.000000

(End cutting path id: line1292)


(Start cutting path id: line1290)
(Change tool to Default tool)

G00 Z5.000000
G00 X81.082010 Y141.151390

G00 Z4.875000 (Fast pre-penetrate)
G01 Z-0.125000 F400.0(Penetrate)
G01 X81.082010 Y141.151390 Z-0.125000 F800.000000
G00 Z5.000000

(End cutting path id: line1290)


(Start cutting path id: line1288)
(Change tool to Default tool)

G00 Z5.000000
G00 X83.401070 Y140.540801

G00 Z4.875000 (Fast pre-penetrate)
G01 Z-0.125000 F400.0(Penetrate)
G01 X83.401070 Y140.540801 Z-0.125000 F800.000000
G00 Z5.000000

(End cutting path id: line1288)


(Start cutting path id: line1344)
(Change tool to Default tool)

G00 Z5.000000
G00 X83.207840 Y136.882174

G00 Z4.875000 (Fast pre-penetrate)
G01 Z-0.125000 F400.0(Penetrate)
G01 X83.207840 Y136.882174 Z-0.125000 F800.000000
G00 Z5.000000

(End cutting path id: line1344)


(Start cutting path id: line1342)
(Change tool to Default tool)

G00 Z5.000000
G00 X83.040300 Y133.767507

G00 Z4.875000 (Fast pre-penetrate)
G01 Z-0.125000 F400.0(Penetrate)
G01 X83.040300 Y133.767507 Z-0.125000 F800.000000
G00 Z5.000000

(End cutting path id: line1342)


(Start cutting path id: line674)
(Change tool to Default tool)

G00 Z5.000000
G00 X86.081930 Y133.076286

G00 Z4.875000 (Fast pre-penetrate)
G01 Z-0.125000 F400.0(Penetrate)
G01 X86.081930 Y133.076286 Z-0.125000 F800.000000
G00 Z5.000000

(End cutting path id: line674)


(Start cutting path id: line672)
(Change tool to Default tool)

G00 Z5.000000
G00 X87.085570 Y134.807608

G00 Z4.875000 (Fast pre-penetrate)
G01 Z-0.125000 F400.0(Penetrate)
G01 X87.085570 Y134.807608 Z-0.125000 F800.000000
G00 Z5.000000

(End cutting path id: line672)


(Start cutting path id: line6242)
(Change tool to Default tool)

G00 Z5.000000
G00 X86.637080 Y138.569928

G00 Z4.875000 (Fast pre-penetrate)
G01 Z-0.125000 F400.0(Penetrate)
G01 X86.637080 Y138.569928 Z-0.125000 F800.000000
G00 Z5.000000

(End cutting path id: line6242)


(Start cutting path id: line1346)
(Change tool to Default tool)

G00 Z5.000000
G00 X80.345000 Y138.120535

G00 Z4.875000 (Fast pre-penetrate)
G01 Z-0.125000 F400.0(Penetrate)
G01 X80.345000 Y138.120535 Z-0.125000 F800.000000
G00 Z5.000000

(End cutting path id: line1346)


(Start cutting path id: line1340)
(Change tool to Default tool)

G00 Z5.000000
G00 X79.976190 Y134.881247

G00 Z4.875000 (Fast pre-penetrate)
G01 Z-0.125000 F400.0(Penetrate)
G01 X79.976190 Y134.881247 Z-0.125000 F800.000000
G00 Z5.000000

(End cutting path id: line1340)


(Start cutting path id: line1330)
(Change tool to Default tool)

G00 Z5.000000
G00 X76.942510 Y136.426308

G00 Z4.875000 (Fast pre-penetrate)
G01 Z-0.125000 F400.0(Penetrate)
G01 X76.942510 Y136.426308 Z-0.125000 F800.000000
G00 Z5.000000

(End cutting path id: line1330)


(Start cutting path id: line1328)
(Change tool to Default tool)

G00 Z5.000000
G00 X74.503860 Y137.162421

G00 Z4.875000 (Fast pre-penetrate)
G01 Z-0.125000 F400.0(Penetrate)
G01 X74.503860 Y137.162421 Z-0.125000 F800.000000
G00 Z5.000000

(End cutting path id: line1328)


(Start cutting path id: line1350)
(Change tool to Default tool)

G00 Z5.000000
G00 X73.797290 Y134.225652

G00 Z4.875000 (Fast pre-penetrate)
G01 Z-0.125000 F400.0(Penetrate)
G01 X73.797290 Y134.225652 Z-0.125000 F800.000000
G00 Z5.000000

(End cutting path id: line1350)


(Start cutting path id: line1332)
(Change tool to Default tool)

G00 Z5.000000
G00 X76.603990 Y133.109327

G00 Z4.875000 (Fast pre-penetrate)
G01 Z-0.125000 F400.0(Penetrate)
G01 X76.603990 Y133.109327 Z-0.125000 F800.000000
G00 Z5.000000

(End cutting path id: line1332)


(Start cutting path id: line1334)
(Change tool to Default tool)

G00 Z5.000000
G00 X76.303910 Y130.103713

G00 Z4.875000 (Fast pre-penetrate)
G01 Z-0.125000 F400.0(Penetrate)
G01 X76.303910 Y130.103713 Z-0.125000 F800.000000
G00 Z5.000000

(End cutting path id: line1334)


(Start cutting path id: line1336)
(Change tool to Default tool)

G00 Z5.000000
G00 X79.236500 Y129.379935

G00 Z4.875000 (Fast pre-penetrate)
G01 Z-0.125000 F400.0(Penetrate)
G01 X79.236500 Y129.379935 Z-0.125000 F800.000000
G00 Z5.000000

(End cutting path id: line1336)


(Start cutting path id: line1338)
(Change tool to Default tool)

G00 Z5.000000
G00 X80.007040 Y131.476901

G00 Z4.875000 (Fast pre-penetrate)
G01 Z-0.125000 F400.0(Penetrate)
G01 X80.007040 Y131.476901 Z-0.125000 F800.000000
G00 Z5.000000

(End cutting path id: line1338)


(Start cutting path id: line1430)
(Change tool to Default tool)

G00 Z5.000000
G00 X83.272980 Y130.515590

G00 Z4.875000 (Fast pre-penetrate)
G01 Z-0.125000 F400.0(Penetrate)
G01 X83.272980 Y130.515590 Z-0.125000 F800.000000
G00 Z5.000000

(End cutting path id: line1430)


(Start cutting path id: line676)
(Change tool to Default tool)

G00 Z5.000000
G00 X86.489540 Y129.983823

G00 Z4.875000 (Fast pre-penetrate)
G01 Z-0.125000 F400.0(Penetrate)
G01 X86.489540 Y129.983823 Z-0.125000 F800.000000
G00 Z5.000000

(End cutting path id: line676)


(Start cutting path id: line678)
(Change tool to Default tool)

G00 Z5.000000
G00 X87.315810 Y126.830042

G00 Z4.875000 (Fast pre-penetrate)
G01 Z-0.125000 F400.0(Penetrate)
G01 X87.315810 Y126.830042 Z-0.125000 F800.000000
G00 Z5.000000

(End cutting path id: line678)


(Start cutting path id: line1428)
(Change tool to Default tool)

G00 Z5.000000
G00 X83.928850 Y127.174887

G00 Z4.875000 (Fast pre-penetrate)
G01 Z-0.125000 F400.0(Penetrate)
G01 X83.928850 Y127.174887 Z-0.125000 F800.000000
G00 Z5.000000

(End cutting path id: line1428)


(Start cutting path id: line1426)
(Change tool to Default tool)

G00 Z5.000000
G00 X82.352250 Y126.043750

G00 Z4.875000 (Fast pre-penetrate)
G01 Z-0.125000 F400.0(Penetrate)
G01 X82.352250 Y126.043750 Z-0.125000 F800.000000
G00 Z5.000000

(End cutting path id: line1426)


(Start cutting path id: line1432)
(Change tool to Default tool)

G00 Z5.000000
G00 X82.874200 Y123.068630

G00 Z4.875000 (Fast pre-penetrate)
G01 Z-0.125000 F400.0(Penetrate)
G01 X82.874200 Y123.068630 Z-0.125000 F800.000000
G00 Z5.000000

(End cutting path id: line1432)


(Start cutting path id: line682)
(Change tool to Default tool)

G00 Z5.000000
G00 X85.893310 Y123.162920

G00 Z4.875000 (Fast pre-penetrate)
G01 Z-0.125000 F400.0(Penetrate)
G01 X85.893310 Y123.162920 Z-0.125000 F800.000000
G00 Z5.000000

(End cutting path id: line682)


(Start cutting path id: line680)
(Change tool to Default tool)

G00 Z5.000000
G00 X88.574380 Y123.666730

G00 Z4.875000 (Fast pre-penetrate)
G01 Z-0.125000 F400.0(Penetrate)
G01 X88.574380 Y123.666730 Z-0.125000 F800.000000
G00 Z5.000000

(End cutting path id: line680)


(Start cutting path id: line686)
(Change tool to Default tool)

G00 Z5.000000
G00 X89.793630 Y120.791090

G00 Z4.875000 (Fast pre-penetrate)
G01 Z-0.125000 F400.0(Penetrate)
G01 X89.793630 Y120.791090 Z-0.125000 F800.000000
G00 Z5.000000

(End cutting path id: line686)


(Start cutting path id: line684)
(Change tool to Default tool)

G00 Z5.000000
G00 X86.815480 Y120.286560

G00 Z4.875000 (Fast pre-penetrate)
G01 Z-0.125000 F400.0(Penetrate)
G01 X86.815480 Y120.286560 Z-0.125000 F800.000000
G00 Z5.000000

(End cutting path id: line684)


(Start cutting path id: line1456)
(Change tool to Default tool)

G00 Z5.000000
G00 X88.044920 Y117.416260

G00 Z4.875000 (Fast pre-penetrate)
G01 Z-0.125000 F400.0(Penetrate)
G01 X88.044920 Y117.416260 Z-0.125000 F800.000000
G00 Z5.000000

(End cutting path id: line1456)


(Start cutting path id: line688)
(Change tool to Default tool)

G00 Z5.000000
G00 X91.098900 Y118.067080

G00 Z4.875000 (Fast pre-penetrate)
G01 Z-0.125000 F400.0(Penetrate)
G01 X91.098900 Y118.067080 Z-0.125000 F800.000000
G00 Z5.000000

(End cutting path id: line688)


(Start cutting path id: line690)
(Change tool to Default tool)

G00 Z5.000000
G00 X93.980590 Y118.972430

G00 Z4.875000 (Fast pre-penetrate)
G01 Z-0.125000 F400.0(Penetrate)
G01 X93.980590 Y118.972430 Z-0.125000 F800.000000
G00 Z5.000000

(End cutting path id: line690)


(Start cutting path id: line692)
(Change tool to Default tool)

G00 Z5.000000
G00 X93.785410 Y121.071950

G00 Z4.875000 (Fast pre-penetrate)
G01 Z-0.125000 F400.0(Penetrate)
G01 X93.785410 Y121.071950 Z-0.125000 F800.000000
G00 Z5.000000

(End cutting path id: line692)


(Start cutting path id: line694)
(Change tool to Default tool)

G00 Z5.000000
G00 X91.967030 Y123.950130

G00 Z4.875000 (Fast pre-penetrate)
G01 Z-0.125000 F400.0(Penetrate)
G01 X91.967030 Y123.950130 Z-0.125000 F800.000000
G00 Z5.000000

(End cutting path id: line694)


(Start cutting path id: line658)
(Change tool to Default tool)

G00 Z5.000000
G00 X98.108430 Y125.629790

G00 Z4.875000 (Fast pre-penetrate)
G01 Z-0.125000 F400.0(Penetrate)
G01 X98.108430 Y125.629790 Z-0.125000 F800.000000
G00 Z5.000000

(End cutting path id: line658)


(Start cutting path id: line656)
(Change tool to Default tool)

G00 Z5.000000
G00 X98.435300 Y127.513578

G00 Z4.875000 (Fast pre-penetrate)
G01 Z-0.125000 F400.0(Penetrate)
G01 X98.435300 Y127.513578 Z-0.125000 F800.000000
G00 Z5.000000

(End cutting path id: line656)


(Start cutting path id: line746)
(Change tool to Default tool)

G00 Z5.000000
G00 X102.043950 Y128.668529

G00 Z4.875000 (Fast pre-penetrate)
G01 Z-0.125000 F400.0(Penetrate)
G01 X102.043950 Y128.668529 Z-0.125000 F800.000000
G00 Z5.000000

(End cutting path id: line746)


(Start cutting path id: line648)
(Change tool to Default tool)

G00 Z5.000000
G00 X105.181040 Y130.342280

G00 Z4.875000 (Fast pre-penetrate)
G01 Z-0.125000 F400.0(Penetrate)
G01 X105.181040 Y130.342280 Z-0.125000 F800.000000
G00 Z5.000000

(End cutting path id: line648)


(Start cutting path id: line744)
(Change tool to Default tool)

G00 Z5.000000
G00 X108.318100 Y128.668529

G00 Z4.875000 (Fast pre-penetrate)
G01 Z-0.125000 F400.0(Penetrate)
G01 X108.318100 Y128.668529 Z-0.125000 F800.000000
G00 Z5.000000

(End cutting path id: line744)


(Start cutting path id: line738)
(Change tool to Default tool)

G00 Z5.000000
G00 X111.926750 Y127.513578

G00 Z4.875000 (Fast pre-penetrate)
G01 Z-0.125000 F400.0(Penetrate)
G01 X111.926750 Y127.513578 Z-0.125000 F800.000000
G00 Z5.000000

(End cutting path id: line738)


(Start cutting path id: line736)
(Change tool to Default tool)

G00 Z5.000000
G00 X112.253610 Y125.629790

G00 Z4.875000 (Fast pre-penetrate)
G01 Z-0.125000 F400.0(Penetrate)
G01 X112.253610 Y125.629790 Z-0.125000 F800.000000
G00 Z5.000000

(End cutting path id: line736)


(Start cutting path id: line750)
(Change tool to Default tool)

G00 Z5.000000
G00 X115.203560 Y124.616260

G00 Z4.875000 (Fast pre-penetrate)
G01 Z-0.125000 F400.0(Penetrate)
G01 X115.203560 Y124.616260 Z-0.125000 F800.000000
G00 Z5.000000

(End cutting path id: line750)


(Start cutting path id: line752)
(Change tool to Default tool)

G00 Z5.000000
G00 X116.700750 Y127.352621

G00 Z4.875000 (Fast pre-penetrate)
G01 Z-0.125000 F400.0(Penetrate)
G01 X116.700750 Y127.352621 Z-0.125000 F800.000000
G00 Z5.000000

(End cutting path id: line752)


(Start cutting path id: line754)
(Change tool to Default tool)

G00 Z5.000000
G00 X119.786720 Y126.898384

G00 Z4.875000 (Fast pre-penetrate)
G01 Z-0.125000 F400.0(Penetrate)
G01 X119.786720 Y126.898384 Z-0.125000 F800.000000
G00 Z5.000000

(End cutting path id: line754)


(Start cutting path id: line756)
(Change tool to Default tool)

G00 Z5.000000
G00 X120.755630 Y129.863287

G00 Z4.875000 (Fast pre-penetrate)
G01 Z-0.125000 F400.0(Penetrate)
G01 X120.755630 Y129.863287 Z-0.125000 F800.000000
G00 Z5.000000

(End cutting path id: line756)


(Start cutting path id: line758)
(Change tool to Default tool)

G00 Z5.000000
G00 X118.125960 Y130.344669

G00 Z4.875000 (Fast pre-penetrate)
G01 Z-0.125000 F400.0(Penetrate)
G01 X118.125960 Y130.344669 Z-0.125000 F800.000000
G00 Z5.000000

(End cutting path id: line758)


(Start cutting path id: line740)
(Change tool to Default tool)

G00 Z5.000000
G00 X114.338110 Y130.436186

G00 Z4.875000 (Fast pre-penetrate)
G01 Z-0.125000 F400.0(Penetrate)
G01 X114.338110 Y130.436186 Z-0.125000 F800.000000
G00 Z5.000000

(End cutting path id: line740)


(Start cutting path id: line636)
(Change tool to Default tool)

G00 Z5.000000
G00 X116.071020 Y133.542230

G00 Z4.875000 (Fast pre-penetrate)
G01 Z-0.125000 F400.0(Penetrate)
G01 X116.071020 Y133.542230 Z-0.125000 F800.000000
G00 Z5.000000

(End cutting path id: line636)


(Start cutting path id: line6550)
(Change tool to Default tool)

G00 Z5.000000
G00 X117.127160 Y136.700805

G00 Z4.875000 (Fast pre-penetrate)
G01 Z-0.125000 F400.0(Penetrate)
G01 X117.127160 Y136.700805 Z-0.125000 F800.000000
G00 Z5.000000

(End cutting path id: line6550)


(Start cutting path id: line6548)
(Change tool to Default tool)

G00 Z5.000000
G00 X120.403890 Y137.296700

G00 Z4.875000 (Fast pre-penetrate)
G01 Z-0.125000 F400.0(Penetrate)
G01 X120.403890 Y137.296700 Z-0.125000 F800.000000
G00 Z5.000000

(End cutting path id: line6548)


(Start cutting path id: line6554)
(Change tool to Default tool)

G00 Z5.000000
G00 X120.527390 Y140.624888

G00 Z4.875000 (Fast pre-penetrate)
G01 Z-0.125000 F400.0(Penetrate)
G01 X120.527390 Y140.624888 Z-0.125000 F800.000000
G00 Z5.000000

(End cutting path id: line6554)


(Start cutting path id: line6552)
(Change tool to Default tool)

G00 Z5.000000
G00 X117.957520 Y140.298472

G00 Z4.875000 (Fast pre-penetrate)
G01 Z-0.125000 F400.0(Penetrate)
G01 X117.957520 Y140.298472 Z-0.125000 F800.000000
G00 Z5.000000

(End cutting path id: line6552)


(Start cutting path id: line374)
(Change tool to Default tool)

G00 Z5.000000
G00 X114.985830 Y142.668321

G00 Z4.875000 (Fast pre-penetrate)
G01 Z-0.125000 F400.0(Penetrate)
G01 X114.985830 Y142.668321 Z-0.125000 F800.000000
G00 Z5.000000

(End cutting path id: line374)


(Start cutting path id: line376)
(Change tool to Default tool)

G00 Z5.000000
G00 X118.192180 Y144.221552

G00 Z4.875000 (Fast pre-penetrate)
G01 Z-0.125000 F400.0(Penetrate)
G01 X118.192180 Y144.221552 Z-0.125000 F800.000000
G00 Z5.000000

(End cutting path id: line376)


(Start cutting path id: line596)
(Change tool to Default tool)

G00 Z5.000000
G00 X121.113080 Y146.851010

G00 Z4.875000 (Fast pre-penetrate)
G01 Z-0.125000 F400.0(Penetrate)
G01 X121.113080 Y146.851010 Z-0.125000 F800.000000
G00 Z5.000000

(End cutting path id: line596)


(Start cutting path id: line594)
(Change tool to Default tool)

G00 Z5.000000
G00 X122.684330 Y145.347936

G00 Z4.875000 (Fast pre-penetrate)
G01 Z-0.125000 F400.0(Penetrate)
G01 X122.684330 Y145.347936 Z-0.125000 F800.000000
G00 Z5.000000

(End cutting path id: line594)


(Start cutting path id: line592)
(Change tool to Default tool)

G00 Z5.000000
G00 X123.503510 Y142.119792

G00 Z4.875000 (Fast pre-penetrate)
G01 Z-0.125000 F400.0(Penetrate)
G01 X123.503510 Y142.119792 Z-0.125000 F800.000000
G00 Z5.000000

(End cutting path id: line592)


(Start cutting path id: line6546)
(Change tool to Default tool)

G00 Z5.000000
G00 X123.724960 Y138.569928

G00 Z4.875000 (Fast pre-penetrate)
G01 Z-0.125000 F400.0(Penetrate)
G01 X123.724960 Y138.569928 Z-0.125000 F800.000000
G00 Z5.000000

(End cutting path id: line6546)


(Start cutting path id: line624)
(Change tool to Default tool)

G00 Z5.000000
G00 X126.960980 Y140.540801

G00 Z4.875000 (Fast pre-penetrate)
G01 Z-0.125000 F400.0(Penetrate)
G01 X126.960980 Y140.540801 Z-0.125000 F800.000000
G00 Z5.000000

(End cutting path id: line624)


(Start cutting path id: line622)
(Change tool to Default tool)

G00 Z5.000000
G00 X129.280020 Y141.151390

G00 Z4.875000 (Fast pre-penetrate)
G01 Z-0.125000 F400.0(Penetrate)
G01 X129.280020 Y141.151390 Z-0.125000 F800.000000
G00 Z5.000000

(End cutting path id: line622)


(Start cutting path id: line918)
(Change tool to Default tool)

G00 Z5.000000
G00 X130.017040 Y138.120535

G00 Z4.875000 (Fast pre-penetrate)
G01 Z-0.125000 F400.0(Penetrate)
G01 X130.017040 Y138.120535 Z-0.125000 F800.000000
G00 Z5.000000

(End cutting path id: line918)


(Start cutting path id: line626)
(Change tool to Default tool)

G00 Z5.000000
G00 X127.154200 Y136.882174

G00 Z4.875000 (Fast pre-penetrate)
G01 Z-0.125000 F400.0(Penetrate)
G01 X127.154200 Y136.882174 Z-0.125000 F800.000000
G00 Z5.000000

(End cutting path id: line626)


(Start cutting path id: line628)
(Change tool to Default tool)

G00 Z5.000000
G00 X127.321740 Y133.767507

G00 Z4.875000 (Fast pre-penetrate)
G01 Z-0.125000 F400.0(Penetrate)
G01 X127.321740 Y133.767507 Z-0.125000 F800.000000
G00 Z5.000000

(End cutting path id: line628)


(Start cutting path id: line630)
(Change tool to Default tool)

G00 Z5.000000
G00 X124.280110 Y133.076286

G00 Z4.875000 (Fast pre-penetrate)
G01 Z-0.125000 F400.0(Penetrate)
G01 X124.280110 Y133.076286 Z-0.125000 F800.000000
G00 Z5.000000

(End cutting path id: line630)


(Start cutting path id: line632)
(Change tool to Default tool)

G00 Z5.000000
G00 X123.276470 Y134.807608

G00 Z4.875000 (Fast pre-penetrate)
G01 Z-0.125000 F400.0(Penetrate)
G01 X123.276470 Y134.807608 Z-0.125000 F800.000000
G00 Z5.000000

(End cutting path id: line632)


(Start cutting path id: line634)
(Change tool to Default tool)

G00 Z5.000000
G00 X119.616250 Y133.828242

G00 Z4.875000 (Fast pre-penetrate)
G01 Z-0.125000 F400.0(Penetrate)
G01 X119.616250 Y133.828242 Z-0.125000 F800.000000
G00 Z5.000000

(End cutting path id: line634)


(Start cutting path id: line760)
(Change tool to Default tool)

G00 Z5.000000
G00 X123.872500 Y129.983823

G00 Z4.875000 (Fast pre-penetrate)
G01 Z-0.125000 F400.0(Penetrate)
G01 X123.872500 Y129.983823 Z-0.125000 F800.000000
G00 Z5.000000

(End cutting path id: line760)


(Start cutting path id: line762)
(Change tool to Default tool)

G00 Z5.000000
G00 X123.046230 Y126.830042

G00 Z4.875000 (Fast pre-penetrate)
G01 Z-0.125000 F400.0(Penetrate)
G01 X123.046230 Y126.830042 Z-0.125000 F800.000000
G00 Z5.000000

(End cutting path id: line762)


(Start cutting path id: line898)
(Change tool to Default tool)

G00 Z5.000000
G00 X126.433190 Y127.174887

G00 Z4.875000 (Fast pre-penetrate)
G01 Z-0.125000 F400.0(Penetrate)
G01 X126.433190 Y127.174887 Z-0.125000 F800.000000
G00 Z5.000000

(End cutting path id: line898)


(Start cutting path id: line896)
(Change tool to Default tool)

G00 Z5.000000
G00 X128.009790 Y126.043750

G00 Z4.875000 (Fast pre-penetrate)
G01 Z-0.125000 F400.0(Penetrate)
G01 X128.009790 Y126.043750 Z-0.125000 F800.000000
G00 Z5.000000

(End cutting path id: line896)


(Start cutting path id: line894)
(Change tool to Default tool)

G00 Z5.000000
G00 X127.487850 Y123.068630

G00 Z4.875000 (Fast pre-penetrate)
G01 Z-0.125000 F400.0(Penetrate)
G01 X127.487850 Y123.068630 Z-0.125000 F800.000000
G00 Z5.000000

(End cutting path id: line894)


(Start cutting path id: line944)
(Change tool to Default tool)

G00 Z5.000000
G00 X130.604130 Y123.265870

G00 Z4.875000 (Fast pre-penetrate)
G01 Z-0.125000 F400.0(Penetrate)
G01 X130.604130 Y123.265870 Z-0.125000 F800.000000
G00 Z5.000000

(End cutting path id: line944)


(Start cutting path id: line942)
(Change tool to Default tool)

G00 Z5.000000
G00 X131.013600 Y126.361450

G00 Z4.875000 (Fast pre-penetrate)
G01 Z-0.125000 F400.0(Penetrate)
G01 X131.013600 Y126.361450 Z-0.125000 F800.000000
G00 Z5.000000

(End cutting path id: line942)


(Start cutting path id: line904)
(Change tool to Default tool)

G00 Z5.000000
G00 X131.125540 Y129.379935

G00 Z4.875000 (Fast pre-penetrate)
G01 Z-0.125000 F400.0(Penetrate)
G01 X131.125540 Y129.379935 Z-0.125000 F800.000000
G00 Z5.000000

(End cutting path id: line904)


(Start cutting path id: line902)
(Change tool to Default tool)

G00 Z5.000000
G00 X130.355000 Y131.476901

G00 Z4.875000 (Fast pre-penetrate)
G01 Z-0.125000 F400.0(Penetrate)
G01 X130.355000 Y131.476901 Z-0.125000 F800.000000
G00 Z5.000000

(End cutting path id: line902)


(Start cutting path id: line900)
(Change tool to Default tool)

G00 Z5.000000
G00 X127.089070 Y130.515590

G00 Z4.875000 (Fast pre-penetrate)
G01 Z-0.125000 F400.0(Penetrate)
G01 X127.089070 Y130.515590 Z-0.125000 F800.000000
G00 Z5.000000

(End cutting path id: line900)


(Start cutting path id: line916)
(Change tool to Default tool)

G00 Z5.000000
G00 X130.385850 Y134.881247

G00 Z4.875000 (Fast pre-penetrate)
G01 Z-0.125000 F400.0(Penetrate)
G01 X130.385850 Y134.881247 Z-0.125000 F800.000000
G00 Z5.000000

(End cutting path id: line916)


(Start cutting path id: line914)
(Change tool to Default tool)

G00 Z5.000000
G00 X133.419510 Y136.426308

G00 Z4.875000 (Fast pre-penetrate)
G01 Z-0.125000 F400.0(Penetrate)
G01 X133.419510 Y136.426308 Z-0.125000 F800.000000
G00 Z5.000000

(End cutting path id: line914)


(Start cutting path id: line912)
(Change tool to Default tool)

G00 Z5.000000
G00 X135.858170 Y137.162421

G00 Z4.875000 (Fast pre-penetrate)
G01 Z-0.125000 F400.0(Penetrate)
G01 X135.858170 Y137.162421 Z-0.125000 F800.000000
G00 Z5.000000

(End cutting path id: line912)


(Start cutting path id: line910)
(Change tool to Default tool)

G00 Z5.000000
G00 X136.564750 Y134.225652

G00 Z4.875000 (Fast pre-penetrate)
G01 Z-0.125000 F400.0(Penetrate)
G01 X136.564750 Y134.225652 Z-0.125000 F800.000000
G00 Z5.000000

(End cutting path id: line910)


(Start cutting path id: line908)
(Change tool to Default tool)

G00 Z5.000000
G00 X133.758050 Y133.109327

G00 Z4.875000 (Fast pre-penetrate)
G01 Z-0.125000 F400.0(Penetrate)
G01 X133.758050 Y133.109327 Z-0.125000 F800.000000
G00 Z5.000000

(End cutting path id: line908)


(Start cutting path id: line906)
(Change tool to Default tool)

G00 Z5.000000
G00 X134.058130 Y130.103713

G00 Z4.875000 (Fast pre-penetrate)
G01 Z-0.125000 F400.0(Penetrate)
G01 X134.058130 Y130.103713 Z-0.125000 F800.000000
G00 Z5.000000

(End cutting path id: line906)


(Start cutting path id: line6544)
(Change tool to Default tool)

G00 Z5.000000
G00 X137.005640 Y131.134398

G00 Z4.875000 (Fast pre-penetrate)
G01 Z-0.125000 F400.0(Penetrate)
G01 X137.005640 Y131.134398 Z-0.125000 F800.000000
G00 Z5.000000

