%
(Header)
(Generated by gcodetools from Inkscape.)
(Using default header. To add your own header create file "header" in the output dir.)
M3
(Header end.)
G21 (All units in mm)

(Start cutting path id: path700)
(Change tool to Default tool)

G00 Z3.000000
G00 X162.588123 Y218.122254

G00 Z4.875000 (Fast pre-penetrate)
G01 Z-0.125000 F400.0(Penetrate)
G01 X153.845533 Y205.698204 Z-0.125000 F800.000000
G01 X157.548830 Y180.828267 Z-0.125000
G01 X160.828206 Y156.382250 Z-0.125000
G01 X159.566283 Y136.477533 Z-0.125000
G01 X164.238422 Y110.638755 Z-0.125000
G01 X157.918206 Y95.792330 Z-0.125000
G01 X159.549680 Y72.994216 Z-0.125000
G00 Z3.000000

(End cutting path id: path700)


(Start cutting path id: path640)
(Change tool to Default tool)

G00 Z3.000000
G00 X134.222613 Y214.737803

G00 Z4.875000 (Fast pre-penetrate)
G01 Z-0.125000 F400.0(Penetrate)
G01 X128.566239 Y199.227538 Z-0.125000 F800.000000
G01 X133.482320 Y173.144816 Z-0.125000
G01 X129.045827 Y156.414669 Z-0.125000
G01 X131.916132 Y132.377725 Z-0.125000
G01 X125.783410 Y117.343806 Z-0.125000
G01 X131.812950 Y90.147627 Z-0.125000
G01 X131.403545 Y69.390392 Z-0.125000
G00 Z3.000000

(End cutting path id: path640)


(Start cutting path id: path620)
(Change tool to Default tool)

G00 Z3.000000
G00 X125.248455 Y213.128641

G00 Z4.875000 (Fast pre-penetrate)
G01 Z-0.125000 F400.0(Penetrate)
G01 X116.921012 Y200.289444 Z-0.125000 F800.000000
G01 X125.133494 Y170.910323 Z-0.125000
G01 X121.555776 Y153.321401 Z-0.125000
G01 X124.655347 Y129.055189 Z-0.125000
G01 X113.080368 Y119.463529 Z-0.125000
G01 X119.628270 Y91.748986 Z-0.125000
G01 X123.732596 Y66.478021 Z-0.125000
G00 Z3.000000

(End cutting path id: path620)


(Start cutting path id: path622)
(Change tool to Default tool)

G00 Z3.000000
G00 X126.145873 Y213.289555

G00 Z4.875000 (Fast pre-penetrate)
G01 Z-0.125000 F400.0(Penetrate)
G01 X118.085534 Y200.183254 Z-0.125000 F800.000000
G01 X125.968375 Y171.133774 Z-0.125000
G01 X122.304781 Y153.630727 Z-0.125000
G01 X125.381427 Y129.387442 Z-0.125000
G01 X114.350670 Y119.251558 Z-0.125000
G01 X120.846736 Y91.588853 Z-0.125000
G01 X124.499690 Y66.769258 Z-0.125000
G00 Z3.000000

(End cutting path id: path622)


(Start cutting path id: path624)
(Change tool to Default tool)

G00 Z3.000000
G00 X127.043288 Y213.450472

G00 Z4.875000 (Fast pre-penetrate)
G01 Z-0.125000 F400.0(Penetrate)
G01 X119.250057 Y200.077064 Z-0.125000 F800.000000
G01 X126.803259 Y171.357222 Z-0.125000
G01 X123.053787 Y153.940054 Z-0.125000
G01 X126.107503 Y129.719697 Z-0.125000
G01 X115.620976 Y119.039585 Z-0.125000
G01 X122.065204 Y91.428716 Z-0.125000
G01 X125.266785 Y67.060495 Z-0.125000
G00 Z3.000000

(End cutting path id: path624)


(Start cutting path id: path626)
(Change tool to Default tool)

G00 Z3.000000
G00 X127.940704 Y213.611389

G00 Z4.875000 (Fast pre-penetrate)
G01 Z-0.125000 F400.0(Penetrate)
G01 X120.414579 Y199.970873 Z-0.125000 F800.000000
G01 X127.638142 Y171.580670 Z-0.125000
G01 X123.802792 Y154.249380 Z-0.125000
G01 X126.833582 Y130.051950 Z-0.125000
G01 X116.891278 Y118.827614 Z-0.125000
G01 X123.283672 Y91.268580 Z-0.125000
G01 X126.033880 Y67.351732 Z-0.125000
G00 Z3.000000

(End cutting path id: path626)


(Start cutting path id: path618)
(Change tool to Default tool)

G00 Z3.000000
G00 X123.600127 Y213.718638

G00 Z4.875000 (Fast pre-penetrate)
G01 Z-0.125000 F400.0(Penetrate)
G01 X115.849057 Y200.303068 Z-0.125000 F800.000000
G01 X123.637663 Y171.347821 Z-0.125000
G01 X120.188633 Y153.630211 Z-0.125000
G01 X123.424229 Y129.227975 Z-0.125000
G01 X112.009113 Y119.476451 Z-0.125000
G01 X118.915158 Y91.403766 Z-0.125000
G01 X122.535450 Y66.616834 Z-0.125000
G00 Z3.000000

(End cutting path id: path618)


(Start cutting path id: path628)
(Change tool to Default tool)

G00 Z3.000000
G00 X128.838119 Y213.772306

G00 Z4.875000 (Fast pre-penetrate)
G01 Z-0.125000 F400.0(Penetrate)
G01 X121.579102 Y199.864683 Z-0.125000 F800.000000
G01 X128.473023 Y171.804121 Z-0.125000
G01 X124.551797 Y154.558707 Z-0.125000
G01 X127.559662 Y130.384203 Z-0.125000
G01 X118.161584 Y118.615641 Z-0.125000
G01 X124.502141 Y91.108444 Z-0.125000
G01 X126.800975 Y67.642969 Z-0.125000
G00 Z3.000000

(End cutting path id: path628)


(Start cutting path id: path630)
(Change tool to Default tool)

G00 Z3.000000
G00 X129.735534 Y213.933222

G00 Z4.875000 (Fast pre-penetrate)
G01 Z-0.125000 F400.0(Penetrate)
G01 X122.743624 Y199.758492 Z-0.125000 F800.000000
G01 X129.307907 Y172.027569 Z-0.125000
G01 X125.300803 Y154.868034 Z-0.125000
G01 X128.285741 Y130.716456 Z-0.125000
G01 X119.431889 Y118.403668 Z-0.125000
G01 X125.720609 Y90.948308 Z-0.125000
G01 X127.568070 Y67.934206 Z-0.125000
G00 Z3.000000

(End cutting path id: path630)


(Start cutting path id: path632)
(Change tool to Default tool)

G00 Z3.000000
G00 X130.632949 Y214.094139

G00 Z4.875000 (Fast pre-penetrate)
G01 Z-0.125000 F400.0(Penetrate)
G01 X123.908149 Y199.652299 Z-0.125000 F800.000000
G01 X130.142791 Y172.251018 Z-0.125000
G01 X126.049808 Y155.177360 Z-0.125000
G01 X129.011818 Y131.048711 Z-0.125000
G01 X120.702192 Y118.191697 Z-0.125000
G01 X126.939077 Y90.788172 Z-0.125000
G01 X128.335165 Y68.225443 Z-0.125000
G00 Z3.000000

(End cutting path id: path632)


(Start cutting path id: path634)
(Change tool to Default tool)

G00 Z3.000000
G00 X131.530365 Y214.255056

G00 Z4.875000 (Fast pre-penetrate)
G01 Z-0.125000 F400.0(Penetrate)
G01 X125.072671 Y199.546109 Z-0.125000 F800.000000
G01 X130.977672 Y172.474469 Z-0.125000
G01 X126.798811 Y155.486690 Z-0.125000
G01 X129.737897 Y131.380964 Z-0.125000
G01 X121.972497 Y117.979724 Z-0.125000
G01 X128.157545 Y90.628035 Z-0.125000
G01 X129.102260 Y68.516681 Z-0.125000
G00 Z3.000000

(End cutting path id: path634)


(Start cutting path id: path636)
(Change tool to Default tool)

G00 Z3.000000
G00 X132.427783 Y214.415970

G00 Z4.875000 (Fast pre-penetrate)
G01 Z-0.125000 F400.0(Penetrate)
G01 X126.237194 Y199.439919 Z-0.125000 F800.000000
G01 X131.812556 Y172.697917 Z-0.125000
G01 X127.547816 Y155.796016 Z-0.125000
G01 X130.463976 Y131.713216 Z-0.125000
G01 X123.242800 Y117.767753 Z-0.125000
G01 X129.376013 Y90.467899 Z-0.125000
G01 X129.869355 Y68.807918 Z-0.125000
G00 Z3.000000

(End cutting path id: path636)


(Start cutting path id: path616)
(Change tool to Default tool)

G00 Z3.000000
G00 X121.951796 Y214.308637

G00 Z4.875000 (Fast pre-penetrate)
G01 Z-0.125000 F400.0(Penetrate)
G01 X114.777101 Y200.316691 Z-0.125000 F800.000000
G01 X122.141833 Y171.785320 Z-0.125000
G01 X118.821491 Y153.939022 Z-0.125000
G01 X122.193114 Y129.400758 Z-0.125000
G01 X110.937862 Y119.489371 Z-0.125000
G01 X118.202049 Y91.058544 Z-0.125000
G01 X121.338307 Y66.755645 Z-0.125000
G00 Z3.000000

(End cutting path id: path616)


(Start cutting path id: path614)
(Change tool to Default tool)

G00 Z3.000000
G00 X120.303465 Y214.898636

G00 Z4.875000 (Fast pre-penetrate)
G01 Z-0.125000 F400.0(Penetrate)
G01 X113.705149 Y200.330312 Z-0.125000 F800.000000
G01 X120.646002 Y172.222818 Z-0.125000
G01 X117.454348 Y154.247833 Z-0.125000
G01 X120.961996 Y129.573544 Z-0.125000
G01 X109.866610 Y119.502290 Z-0.125000
G01 X117.488937 Y90.713324 Z-0.125000
G01 X120.141162 Y66.894459 Z-0.125000
G00 Z3.000000

(End cutting path id: path614)


(Start cutting path id: path638)
(Change tool to Default tool)

G00 Z3.000000
G00 X133.325198 Y214.576887

G00 Z4.875000 (Fast pre-penetrate)
G01 Z-0.125000 F400.0(Penetrate)
G01 X127.401716 Y199.333728 Z-0.125000 F800.000000
G01 X132.647437 Y172.921368 Z-0.125000
G01 X128.296822 Y156.105343 Z-0.125000
G01 X131.190055 Y132.045469 Z-0.125000
G01 X124.513105 Y117.555780 Z-0.125000
G01 X130.594482 Y90.307763 Z-0.125000
G01 X130.636450 Y69.099155 Z-0.125000
G00 Z3.000000

(End cutting path id: path638)


(Start cutting path id: path642)
(Change tool to Default tool)

G00 Z3.000000
G00 X135.120028 Y214.898720

G00 Z4.875000 (Fast pre-penetrate)
G01 Z-0.125000 F400.0(Penetrate)
G01 X129.730761 Y199.121348 Z-0.125000 F800.000000
G01 X134.317204 Y173.368264 Z-0.125000
G01 X129.794832 Y156.723996 Z-0.125000
G01 X132.642211 Y132.709977 Z-0.125000
G01 X127.053713 Y117.131836 Z-0.125000
G01 X133.031418 Y89.987490 Z-0.125000
G01 X132.170640 Y69.681629 Z-0.125000
G00 Z3.000000

(End cutting path id: path642)


(Start cutting path id: path644)
(Change tool to Default tool)

G00 Z3.000000
G00 X136.017444 Y215.059637

G00 Z4.875000 (Fast pre-penetrate)
G01 Z-0.125000 F400.0(Penetrate)
G01 X130.895283 Y199.015157 Z-0.125000 F800.000000
G01 X135.152085 Y173.591715 Z-0.125000
G01 X130.543838 Y157.033323 Z-0.125000
G01 X133.368290 Y133.042230 Z-0.125000
G01 X128.324018 Y116.919862 Z-0.125000
G01 X134.249884 Y89.827357 Z-0.125000
G01 X132.937734 Y69.972866 Z-0.125000
G00 Z3.000000

(End cutting path id: path644)


(Start cutting path id: path646)
(Change tool to Default tool)

G00 Z3.000000
G00 X136.914859 Y215.220554

G00 Z4.875000 (Fast pre-penetrate)
G01 Z-0.125000 F400.0(Penetrate)
G01 X132.059806 Y198.908967 Z-0.125000 F800.000000
G01 X135.986969 Y173.815164 Z-0.125000
G01 X131.292843 Y157.342649 Z-0.125000
G01 X134.094370 Y133.374483 Z-0.125000
G01 X129.594321 Y116.707892 Z-0.125000
G01 X135.468352 Y89.667221 Z-0.125000
G01 X133.704829 Y70.264103 Z-0.125000
G00 Z3.000000

(End cutting path id: path646)


(Start cutting path id: path648)
(Change tool to Default tool)

G00 Z3.000000
G00 X137.812274 Y215.381470

G00 Z4.875000 (Fast pre-penetrate)
G01 Z-0.125000 F400.0(Penetrate)
G01 X133.224331 Y198.802774 Z-0.125000 F800.000000
G01 X136.821850 Y174.038615 Z-0.125000
G01 X132.041846 Y157.651979 Z-0.125000
G01 X134.820446 Y133.706738 Z-0.125000
G01 X130.864626 Y116.495918 Z-0.125000
G01 X136.686820 Y89.507084 Z-0.125000
G01 X134.471924 Y70.555340 Z-0.125000
G00 Z3.000000

(End cutting path id: path648)


(Start cutting path id: path650)
(Change tool to Default tool)

G00 Z3.000000
G00 X138.709692 Y215.542384

G00 Z4.875000 (Fast pre-penetrate)
G01 Z-0.125000 F400.0(Penetrate)
G01 X134.388853 Y198.696583 Z-0.125000 F800.000000
G01 X137.656734 Y174.262063 Z-0.125000
G01 X132.790851 Y157.961305 Z-0.125000
G01 X135.546526 Y134.038991 Z-0.125000
G01 X132.134931 Y116.283945 Z-0.125000
G01 X137.905288 Y89.346948 Z-0.125000
G01 X135.239019 Y70.846577 Z-0.125000
G00 Z3.000000

(End cutting path id: path650)


(Start cutting path id: path652)
(Change tool to Default tool)

G00 Z3.000000
G00 X139.607107 Y215.703301

G00 Z4.875000 (Fast pre-penetrate)
G01 Z-0.125000 F400.0(Penetrate)
G01 X135.553376 Y198.590393 Z-0.125000 F800.000000
G01 X138.491617 Y174.485511 Z-0.125000
G01 X133.539857 Y158.270632 Z-0.125000
G01 X136.272605 Y134.371244 Z-0.125000
G01 X133.405234 Y116.071974 Z-0.125000
G01 X139.123756 Y89.186812 Z-0.125000
G01 X136.006117 Y71.137812 Z-0.125000
G00 Z3.000000

(End cutting path id: path652)


(Start cutting path id: path654)
(Change tool to Default tool)

G00 Z3.000000
G00 X140.504523 Y215.864218

G00 Z4.875000 (Fast pre-penetrate)
G01 Z-0.125000 F400.0(Penetrate)
G01 X136.717898 Y198.484203 Z-0.125000 F800.000000
G01 X139.326498 Y174.708962 Z-0.125000
G01 X134.288862 Y158.579959 Z-0.125000
G01 X136.998684 Y134.703496 Z-0.125000
G01 X134.675539 Y115.860001 Z-0.125000
G01 X140.342225 Y89.026676 Z-0.125000
G01 X136.773212 Y71.429049 Z-0.125000
G00 Z3.000000

(End cutting path id: path654)


(Start cutting path id: path656)
(Change tool to Default tool)

G00 Z3.000000
G00 X141.401938 Y216.025135

G00 Z4.875000 (Fast pre-penetrate)
G01 Z-0.125000 F400.0(Penetrate)
G01 X137.882420 Y198.378012 Z-0.125000 F800.000000
G01 X140.161382 Y174.932410 Z-0.125000
G01 X135.037867 Y158.889285 Z-0.125000
G01 X137.724761 Y135.035752 Z-0.125000
G01 X135.945845 Y115.648028 Z-0.125000
G01 X141.560693 Y88.866540 Z-0.125000
G01 X137.540307 Y71.720286 Z-0.125000
G00 Z3.000000

(End cutting path id: path656)


(Start cutting path id: path658)
(Change tool to Default tool)

G00 Z3.000000
G00 X142.299353 Y216.186051

G00 Z4.875000 (Fast pre-penetrate)
G01 Z-0.125000 F400.0(Penetrate)
G01 X139.046943 Y198.271822 Z-0.125000 F800.000000
G01 X140.996266 Y175.155859 Z-0.125000
G01 X135.786873 Y159.198612 Z-0.125000
G01 X138.450840 Y135.368005 Z-0.125000
G01 X137.216147 Y115.436057 Z-0.125000
G01 X142.779161 Y88.706403 Z-0.125000
G01 X138.307401 Y72.011523 Z-0.125000
G00 Z3.000000

(End cutting path id: path658)


(Start cutting path id: path660)
(Change tool to Default tool)

G00 Z3.000000
G00 X143.196768 Y216.346968

G00 Z4.875000 (Fast pre-penetrate)
G01 Z-0.125000 F400.0(Penetrate)
G01 X140.211465 Y198.165631 Z-0.125000 F800.000000
G01 X141.831147 Y175.379310 Z-0.125000
G01 X136.535878 Y159.507938 Z-0.125000
G01 X139.176919 Y135.700257 Z-0.125000
G01 X138.486453 Y115.224084 Z-0.125000
G01 X143.997629 Y88.546267 Z-0.125000
G01 X139.074496 Y72.302760 Z-0.125000
G00 Z3.000000

(End cutting path id: path660)


(Start cutting path id: path662)
(Change tool to Default tool)

G00 Z3.000000
G00 X144.166338 Y216.435730

G00 Z4.875000 (Fast pre-penetrate)
G01 Z-0.125000 F400.0(Penetrate)
G01 X140.893169 Y198.542260 Z-0.125000 F800.000000
G01 X142.617033 Y175.651756 Z-0.125000
G01 X137.750494 Y159.351655 Z-0.125000
G01 X140.196387 Y135.739122 Z-0.125000
G01 X139.774051 Y114.994817 Z-0.125000
G01 X144.693657 Y88.908571 Z-0.125000
G01 X140.098255 Y72.337333 Z-0.125000
G00 Z3.000000

(End cutting path id: path662)


(Start cutting path id: path664)
(Change tool to Default tool)

G00 Z3.000000
G00 X145.135905 Y216.524495

G00 Z4.875000 (Fast pre-penetrate)
G01 Z-0.125000 F400.0(Penetrate)
G01 X141.574872 Y198.918889 Z-0.125000 F800.000000
G01 X143.402916 Y175.924205 Z-0.125000
G01 X138.965110 Y159.195371 Z-0.125000
G01 X141.215854 Y135.777987 Z-0.125000
G01 X141.061650 Y114.765551 Z-0.125000
G01 X145.389685 Y89.270875 Z-0.125000
G01 X141.122014 Y72.371906 Z-0.125000
G00 Z3.000000

(End cutting path id: path664)


(Start cutting path id: path666)
(Change tool to Default tool)

G00 Z3.000000
G00 X146.105472 Y216.613260

G00 Z4.875000 (Fast pre-penetrate)
G01 Z-0.125000 F400.0(Penetrate)
G01 X142.256575 Y199.295517 Z-0.125000 F800.000000
G01 X144.188798 Y176.196654 Z-0.125000
G01 X140.179726 Y159.039087 Z-0.125000
G01 X142.235324 Y135.816849 Z-0.125000
G01 X142.349248 Y114.536284 Z-0.125000
G01 X146.085716 Y89.633177 Z-0.125000
G01 X142.145773 Y72.406479 Z-0.125000
G00 Z3.000000

(End cutting path id: path666)


(Start cutting path id: path668)
(Change tool to Default tool)

G00 Z3.000000
G00 X147.075039 Y216.702025

G00 Z4.875000 (Fast pre-penetrate)
G01 Z-0.125000 F400.0(Penetrate)
G01 X142.938279 Y199.672146 Z-0.125000 F800.000000
G01 X144.974684 Y176.469100 Z-0.125000
G01 X141.394342 Y158.882803 Z-0.125000
G01 X143.254791 Y135.855713 Z-0.125000
G01 X143.636847 Y114.307018 Z-0.125000
G01 X146.781744 Y89.995481 Z-0.125000
G01 X143.169532 Y72.441052 Z-0.125000
G00 Z3.000000

(End cutting path id: path668)


(Start cutting path id: path670)
(Change tool to Default tool)

G00 Z3.000000
G00 X148.044606 Y216.790790

G00 Z4.875000 (Fast pre-penetrate)
G01 Z-0.125000 F400.0(Penetrate)
G01 X143.619982 Y200.048774 Z-0.125000 F800.000000
G01 X145.760567 Y176.741549 Z-0.125000
G01 X142.608960 Y158.726516 Z-0.125000
G01 X144.274259 Y135.894578 Z-0.125000
G01 X144.924445 Y114.077751 Z-0.125000
G01 X147.477772 Y90.357785 Z-0.125000
G01 X144.193291 Y72.475625 Z-0.125000
G00 Z3.000000

(End cutting path id: path670)


(Start cutting path id: path672)
(Change tool to Default tool)

G00 Z3.000000
G00 X149.014176 Y216.879553

G00 Z4.875000 (Fast pre-penetrate)
G01 Z-0.125000 F400.0(Penetrate)
G01 X144.301685 Y200.425403 Z-0.125000 F800.000000
G01 X146.546453 Y177.013996 Z-0.125000
G01 X143.823576 Y158.570232 Z-0.125000
G01 X145.293729 Y135.933440 Z-0.125000
G01 X146.212044 Y113.848485 Z-0.125000
G01 X148.173802 Y90.720086 Z-0.125000
G01 X145.217050 Y72.510198 Z-0.125000
G00 Z3.000000

(End cutting path id: path672)


(Start cutting path id: path674)
(Change tool to Default tool)

G00 Z3.000000
G00 X149.983743 Y216.968318

G00 Z4.875000 (Fast pre-penetrate)
G01 Z-0.125000 F400.0(Penetrate)
G01 X144.983389 Y200.802032 Z-0.125000 F800.000000
G01 X147.332336 Y177.286445 Z-0.125000
G01 X145.038192 Y158.413949 Z-0.125000
G01 X146.313196 Y135.972304 Z-0.125000
G01 X147.499642 Y113.619219 Z-0.125000
G01 X148.869830 Y91.082390 Z-0.125000
G01 X146.240812 Y72.544769 Z-0.125000
G00 Z3.000000

(End cutting path id: path674)


(Start cutting path id: path676)
(Change tool to Default tool)

G00 Z3.000000
G00 X150.953310 Y217.057082

G00 Z4.875000 (Fast pre-penetrate)
G01 Z-0.125000 F400.0(Penetrate)
G01 X145.665092 Y201.178660 Z-0.125000 F800.000000
G01 X148.118221 Y177.558891 Z-0.125000
G01 X146.252808 Y158.257665 Z-0.125000
G01 X147.332664 Y136.011169 Z-0.125000
G01 X148.787240 Y113.389952 Z-0.125000
G01 X149.565858 Y91.444695 Z-0.125000
G01 X147.264571 Y72.579342 Z-0.125000
G00 Z3.000000

(End cutting path id: path676)


(Start cutting path id: path678)
(Change tool to Default tool)

G00 Z3.000000
G00 X151.922877 Y217.145847

G00 Z4.875000 (Fast pre-penetrate)
G01 Z-0.125000 F400.0(Penetrate)
G01 X146.346796 Y201.555289 Z-0.125000 F800.000000
G01 X148.904104 Y177.831340 Z-0.125000
G01 X147.467424 Y158.101381 Z-0.125000
G01 X148.352134 Y136.050031 Z-0.125000
G01 X150.074839 Y113.160686 Z-0.125000
G01 X150.261888 Y91.806996 Z-0.125000
G01 X148.288330 Y72.613915 Z-0.125000
G00 Z3.000000

(End cutting path id: path678)


(Start cutting path id: path680)
(Change tool to Default tool)

G00 Z3.000000
G00 X152.892444 Y217.234612

G00 Z4.875000 (Fast pre-penetrate)
G01 Z-0.125000 F400.0(Penetrate)
G01 X147.028499 Y201.931917 Z-0.125000 F800.000000
G01 X149.689990 Y178.103787 Z-0.125000
G01 X148.682042 Y157.945094 Z-0.125000
G01 X149.371601 Y136.088895 Z-0.125000
G01 X151.362437 Y112.931419 Z-0.125000
G01 X150.957916 Y92.169300 Z-0.125000
G01 X149.312088 Y72.648488 Z-0.125000
G00 Z3.000000

(End cutting path id: path680)


(Start cutting path id: path682)
(Change tool to Default tool)

G00 Z3.000000
G00 X153.862014 Y217.323375

G00 Z4.875000 (Fast pre-penetrate)
G01 Z-0.125000 F400.0(Penetrate)
G01 X147.710202 Y202.308546 Z-0.125000 F800.000000
G01 X150.475873 Y178.376236 Z-0.125000
G01 X149.896658 Y157.788810 Z-0.125000
G01 X150.391068 Y136.127760 Z-0.125000
G01 X152.650036 Y112.702153 Z-0.125000
G01 X151.653944 Y92.531604 Z-0.125000
G01 X150.335847 Y72.683061 Z-0.125000
G00 Z3.000000

(End cutting path id: path682)


(Start cutting path id: path684)
(Change tool to Default tool)

G00 Z3.000000
G00 X154.831581 Y217.412140

G00 Z4.875000 (Fast pre-penetrate)
G01 Z-0.125000 F400.0(Penetrate)
G01 X148.391906 Y202.685175 Z-0.125000 F800.000000
G01 X151.261756 Y178.648685 Z-0.125000
G01 X151.111274 Y157.632526 Z-0.125000
G01 X151.410539 Y136.166622 Z-0.125000
G01 X153.937634 Y112.472886 Z-0.125000
G01 X152.349975 Y92.893906 Z-0.125000
G01 X151.359606 Y72.717634 Z-0.125000
G00 Z3.000000

(End cutting path id: path684)


(Start cutting path id: path686)
(Change tool to Default tool)

G00 Z3.000000
G00 X155.801148 Y217.500905

G00 Z4.875000 (Fast pre-penetrate)
G01 Z-0.125000 F400.0(Penetrate)
G01 X149.073609 Y203.061803 Z-0.125000 F800.000000
G01 X152.047641 Y178.921131 Z-0.125000
G01 X152.325890 Y157.476243 Z-0.125000
G01 X152.430006 Y136.205487 Z-0.125000
G01 X155.225233 Y112.243620 Z-0.125000
G01 X153.046003 Y93.256210 Z-0.125000
G01 X152.383365 Y72.752207 Z-0.125000
G00 Z3.000000

(End cutting path id: path686)


(Start cutting path id: path688)
(Change tool to Default tool)

G00 Z3.000000
G00 X156.770715 Y217.589670

G00 Z4.875000 (Fast pre-penetrate)
G01 Z-0.125000 F400.0(Penetrate)
G01 X149.755313 Y203.438432 Z-0.125000 F800.000000
G01 X152.833524 Y179.193580 Z-0.125000
G01 X153.540506 Y157.319959 Z-0.125000
G01 X153.449473 Y136.244351 Z-0.125000
G01 X156.512831 Y112.014353 Z-0.125000
G01 X153.742031 Y93.618514 Z-0.125000
G01 X153.407124 Y72.786780 Z-0.125000
G00 Z3.000000

(End cutting path id: path688)


(Start cutting path id: path690)
(Change tool to Default tool)

G00 Z3.000000
G00 X157.740285 Y217.678432

G00 Z4.875000 (Fast pre-penetrate)
G01 Z-0.125000 F400.0(Penetrate)
G01 X150.437016 Y203.815061 Z-0.125000 F800.000000
G01 X153.619410 Y179.466027 Z-0.125000
G01 X154.755124 Y157.163672 Z-0.125000
G01 X154.468943 Y136.283213 Z-0.125000
G01 X157.800430 Y111.785087 Z-0.125000
G01 X154.438061 Y93.980815 Z-0.125000
G01 X154.430891 Y72.821353 Z-0.125000
G00 Z3.000000

(End cutting path id: path690)


(Start cutting path id: path692)
(Change tool to Default tool)

G00 Z3.000000
G00 X158.709852 Y217.767197

G00 Z4.875000 (Fast pre-penetrate)
G01 Z-0.125000 F400.0(Penetrate)
G01 X151.118719 Y204.191689 Z-0.125000 F800.000000
G01 X154.405293 Y179.738476 Z-0.125000
G01 X155.969740 Y157.007388 Z-0.125000
G01 X155.488411 Y136.322078 Z-0.125000
G01 X159.088028 Y111.555820 Z-0.125000
G01 X155.134089 Y94.343119 Z-0.125000
G01 X155.454645 Y72.855924 Z-0.125000
G00 Z3.000000

(End cutting path id: path692)


(Start cutting path id: path694)
(Change tool to Default tool)

G00 Z3.000000
G00 X159.679419 Y217.855962

G00 Z4.875000 (Fast pre-penetrate)
G01 Z-0.125000 F400.0(Penetrate)
G01 X151.800423 Y204.568318 Z-0.125000 F800.000000
G01 X155.191178 Y180.010922 Z-0.125000
G01 X157.184356 Y156.851104 Z-0.125000
G01 X156.507878 Y136.360942 Z-0.125000
G01 X160.375627 Y111.326554 Z-0.125000
G01 X155.830120 Y94.705421 Z-0.125000
G01 X156.478404 Y72.890497 Z-0.125000
G00 Z3.000000

(End cutting path id: path694)


(Start cutting path id: path696)
(Change tool to Default tool)

G00 Z3.000000
G00 X160.648986 Y217.944727

G00 Z4.875000 (Fast pre-penetrate)
G01 Z-0.125000 F400.0(Penetrate)
G01 X152.482126 Y204.944946 Z-0.125000 F800.000000
G01 X155.977061 Y180.283371 Z-0.125000
G01 X158.398972 Y156.694821 Z-0.125000
G01 X157.527348 Y136.399804 Z-0.125000
G01 X161.663225 Y111.097287 Z-0.125000
G01 X156.526148 Y95.067725 Z-0.125000
G01 X157.502163 Y72.925070 Z-0.125000
G00 Z3.000000

(End cutting path id: path696)


(Start cutting path id: path698)
(Change tool to Default tool)

G00 Z3.000000
G00 X161.618553 Y218.033492

G00 Z4.875000 (Fast pre-penetrate)
G01 Z-0.125000 F400.0(Penetrate)
G01 X153.163830 Y205.321575 Z-0.125000 F800.000000
G01 X156.762947 Y180.555818 Z-0.125000
G01 X159.613588 Y156.538537 Z-0.125000
G01 X158.546816 Y136.438669 Z-0.125000
G01 X162.950824 Y110.868021 Z-0.125000
G01 X157.222176 Y95.430029 Z-0.125000
G01 X158.525922 Y72.959643 Z-0.125000
G00 Z3.000000

(End cutting path id: path698)


(Start cutting path id: path612)
(Change tool to Default tool)

G00 Z3.000000
G00 X118.655137 Y215.488632

G00 Z4.875000 (Fast pre-penetrate)
G01 Z-0.125000 F400.0(Penetrate)
G01 X112.633193 Y200.343935 Z-0.125000 F800.000000
G01 X119.150169 Y172.660320 Z-0.125000
G01 X116.087205 Y154.556643 Z-0.125000
G01 X119.730881 Y129.746328 Z-0.125000
G01 X108.795359 Y119.515210 Z-0.125000
G01 X116.775827 Y90.368101 Z-0.125000
G01 X118.944019 Y67.033270 Z-0.125000
G00 Z3.000000

(End cutting path id: path612)


(Start cutting path id: path610)
(Change tool to Default tool)

G00 Z3.000000
G00 X117.006806 Y216.078631

G00 Z4.875000 (Fast pre-penetrate)
G01 Z-0.125000 F400.0(Penetrate)
G01 X111.561238 Y200.357559 Z-0.125000 F800.000000
G01 X117.654338 Y173.097818 Z-0.125000
G01 X114.720063 Y154.865454 Z-0.125000
G01 X118.499763 Y129.919114 Z-0.125000
G01 X107.724107 Y119.528129 Z-0.125000
G01 X116.062718 Y90.022878 Z-0.125000
G01 X117.746874 Y67.172083 Z-0.125000
G00 Z3.000000

(End cutting path id: path610)


(Start cutting path id: path608)
(Change tool to Default tool)

G00 Z3.000000
G00 X115.358475 Y216.668630

G00 Z4.875000 (Fast pre-penetrate)
G01 Z-0.125000 F400.0(Penetrate)
G01 X110.489285 Y200.371179 Z-0.125000 F800.000000
G01 X116.158508 Y173.535317 Z-0.125000
G01 X113.352920 Y155.174265 Z-0.125000
G01 X117.268648 Y130.091897 Z-0.125000
G01 X106.652853 Y119.541052 Z-0.125000
G01 X115.349606 Y89.677658 Z-0.125000
G01 X116.549731 Y67.310894 Z-0.125000
G00 Z3.000000

(End cutting path id: path608)


(Start cutting path id: path606)
(Change tool to Default tool)

G00 Z3.000000
G00 X113.710144 Y217.258629

G00 Z4.875000 (Fast pre-penetrate)
G01 Z-0.125000 F400.0(Penetrate)
G01 X109.417330 Y200.384803 Z-0.125000 F800.000000
G01 X114.662677 Y173.972815 Z-0.125000
G01 X111.985777 Y155.483075 Z-0.125000
G01 X116.037530 Y130.264683 Z-0.125000
G01 X105.581601 Y119.553971 Z-0.125000
G01 X114.636497 Y89.332436 Z-0.125000
G01 X115.352585 Y67.449707 Z-0.125000
G00 Z3.000000

(End cutting path id: path606)


(Start cutting path id: path604)
(Change tool to Default tool)

G00 Z3.000000
G00 X112.061816 Y217.848625

G00 Z4.875000 (Fast pre-penetrate)
G01 Z-0.125000 F400.0(Penetrate)
G01 X108.345374 Y200.398426 Z-0.125000 F800.000000
G01 X113.166847 Y174.410314 Z-0.125000
G01 X110.618634 Y155.791886 Z-0.125000
G01 X114.806414 Y130.437466 Z-0.125000
G01 X104.510350 Y119.566891 Z-0.125000
G01 X113.923387 Y88.987213 Z-0.125000
G01 X114.155442 Y67.588518 Z-0.125000
G00 Z3.000000

(End cutting path id: path604)


(Start cutting path id: path602)
(Change tool to Default tool)

G00 Z3.000000
G00 X110.413485 Y218.438624

G00 Z4.875000 (Fast pre-penetrate)
G01 Z-0.125000 F400.0(Penetrate)
G01 X107.273422 Y200.412047 Z-0.125000 F800.000000
G01 X111.671016 Y174.847813 Z-0.125000
G01 X109.251492 Y156.100697 Z-0.125000
G01 X113.575297 Y130.610252 Z-0.125000
G01 X103.439098 Y119.579810 Z-0.125000
G01 X113.210275 Y88.641993 Z-0.125000
G01 X112.958297 Y67.727332 Z-0.125000
G00 Z3.000000

(End cutting path id: path602)


(Start cutting path id: path600)
(Change tool to Default tool)

G00 Z3.000000
G00 X108.765154 Y219.028623

G00 Z4.875000 (Fast pre-penetrate)
G01 Z-0.125000 F400.0(Penetrate)
G01 X106.201466 Y200.425670 Z-0.125000 F800.000000
G01 X110.175185 Y175.285311 Z-0.125000
G01 X107.884349 Y156.409507 Z-0.125000
G01 X112.344181 Y130.783035 Z-0.125000
G01 X102.367846 Y119.592730 Z-0.125000
G01 X112.497166 Y88.296771 Z-0.125000
G01 X111.761151 Y67.866145 Z-0.125000
G00 Z3.000000

(End cutting path id: path600)


(Start cutting path id: path598)
(Change tool to Default tool)

G00 Z3.000000
G00 X107.116826 Y219.618619

G00 Z4.875000 (Fast pre-penetrate)
G01 Z-0.125000 F400.0(Penetrate)
G01 X105.129511 Y200.439294 Z-0.125000 F800.000000
G01 X108.679355 Y175.722810 Z-0.125000
G01 X106.517206 Y156.718318 Z-0.125000
G01 X111.113063 Y130.955821 Z-0.125000
G01 X101.296592 Y119.605652 Z-0.125000
G01 X111.784056 Y87.951548 Z-0.125000
G01 X110.564009 Y68.004956 Z-0.125000
G00 Z3.000000

(End cutting path id: path598)


(Start cutting path id: path596)
(Change tool to Default tool)

G00 Z3.000000
G00 X105.468495 Y220.208618

G00 Z4.875000 (Fast pre-penetrate)
G01 Z-0.125000 F400.0(Penetrate)
G01 X104.057555 Y200.452917 Z-0.125000 F800.000000
G01 X107.183524 Y176.160308 Z-0.125000
G01 X105.150064 Y157.027129 Z-0.125000
G01 X109.881948 Y131.128604 Z-0.125000
G01 X100.225341 Y119.618572 Z-0.125000
G01 X111.070944 Y87.606328 Z-0.125000
G01 X109.366863 Y68.143769 Z-0.125000
G00 Z3.000000

(End cutting path id: path596)


(Start cutting path id: path594)
(Change tool to Default tool)

G00 Z3.000000
G00 X103.820164 Y220.798617

G00 Z4.875000 (Fast pre-penetrate)
G01 Z-0.125000 F400.0(Penetrate)
G01 X102.985603 Y200.466538 Z-0.125000 F800.000000
G01 X105.687694 Y176.597807 Z-0.125000
G01 X103.782921 Y157.335940 Z-0.125000
G01 X108.650830 Y131.301390 Z-0.125000
G01 X99.154089 Y119.631491 Z-0.125000
G01 X110.357835 Y87.261106 Z-0.125000
G01 X108.169720 Y68.282580 Z-0.125000
G00 Z3.000000

(End cutting path id: path594)


(Start cutting path id: path592)
(Change tool to Default tool)

G00 Z3.000000
G00 X102.171833 Y221.388616

G00 Z4.875000 (Fast pre-penetrate)
G01 Z-0.125000 F400.0(Penetrate)
G01 X101.913647 Y200.480161 Z-0.125000 F800.000000
G01 X104.191863 Y177.035305 Z-0.125000
G01 X102.415778 Y157.644750 Z-0.125000
G01 X107.419715 Y131.474174 Z-0.125000
G01 X98.082837 Y119.644411 Z-0.125000
G01 X109.644723 Y86.915886 Z-0.125000
G01 X106.972575 Y68.421394 Z-0.125000
G00 Z3.000000

(End cutting path id: path592)


(Start cutting path id: path590)
(Change tool to Default tool)

G00 Z3.000000
G00 X100.523504 Y221.978612

G00 Z4.875000 (Fast pre-penetrate)
G01 Z-0.125000 F400.0(Penetrate)
G01 X100.841692 Y200.493785 Z-0.125000 F800.000000
G01 X102.696030 Y177.472807 Z-0.125000
G01 X101.048636 Y157.953561 Z-0.125000
G01 X106.188597 Y131.646960 Z-0.125000
G01 X97.011586 Y119.657331 Z-0.125000
G01 X108.931614 Y86.570663 Z-0.125000
G01 X105.775432 Y68.560204 Z-0.125000
G00 Z3.000000

(End cutting path id: path590)


(Start cutting path id: path588)
(Change tool to Default tool)

G00 Z3.000000
G00 X98.875174 Y222.568611

G00 Z4.875000 (Fast pre-penetrate)
G01 Z-0.125000 F400.0(Penetrate)
G01 X99.769739 Y200.507405 Z-0.125000 F800.000000
G01 X101.200199 Y177.910305 Z-0.125000
G01 X99.681493 Y158.262372 Z-0.125000
G01 X104.957482 Y131.819743 Z-0.125000
G01 X95.940332 Y119.670253 Z-0.125000
G01 X108.218504 Y86.225440 Z-0.125000
G01 X104.578287 Y68.699018 Z-0.125000
G00 Z3.000000

(End cutting path id: path588)


(Start cutting path id: path586)
(Change tool to Default tool)

G00 Z3.000000
G00 X97.226843 Y223.158610

G00 Z4.875000 (Fast pre-penetrate)
G01 Z-0.125000 F400.0(Penetrate)
G01 X98.697784 Y200.521029 Z-0.125000 F800.000000
G01 X99.704369 Y178.347804 Z-0.125000
G01 X98.314350 Y158.571182 Z-0.125000
G01 X103.726364 Y131.992529 Z-0.125000
G01 X94.869080 Y119.683172 Z-0.125000
G01 X107.505392 Y85.880220 Z-0.125000
G01 X103.381144 Y68.837829 Z-0.125000
G00 Z3.000000

(End cutting path id: path586)


(Start cutting path id: path584)
(Change tool to Default tool)

G00 Z3.000000
G00 X95.578512 Y223.748609

G00 Z4.875000 (Fast pre-penetrate)
G01 Z-0.125000 F400.0(Penetrate)
G01 X97.625828 Y200.534652 Z-0.125000 F800.000000
G01 X98.208538 Y178.785302 Z-0.125000
G01 X96.947207 Y158.879993 Z-0.125000
G01 X102.495248 Y132.165312 Z-0.125000
G01 X93.797828 Y119.696092 Z-0.125000
G01 X106.792283 Y85.534998 Z-0.125000
G01 X102.183998 Y68.976642 Z-0.125000
G00 Z3.000000

(End cutting path id: path584)


(Start cutting path id: path582)
(Change tool to Default tool)

G00 Z3.000000
G00 X93.930183 Y224.338605

G00 Z4.875000 (Fast pre-penetrate)
G01 Z-0.125000 F400.0(Penetrate)
G01 X96.553876 Y200.548273 Z-0.125000 F800.000000
G01 X96.712708 Y179.222801 Z-0.125000
G01 X95.580065 Y159.188804 Z-0.125000
G01 X101.264130 Y132.338098 Z-0.125000
G01 X92.726577 Y119.709012 Z-0.125000
G01 X106.079173 Y85.189775 Z-0.125000
G01 X100.986855 Y69.115453 Z-0.125000
G00 Z3.000000

(End cutting path id: path582)


(Start cutting path id: path552)
(Change tool to Default tool)

G00 Z3.000000
G00 X79.301990 Y223.091819

G00 Z4.875000 (Fast pre-penetrate)
G01 Z-0.125000 F400.0(Penetrate)
G01 X81.022147 Y200.205021 Z-0.125000 F800.000000
G01 X88.229393 Y171.831135 Z-0.125000
G01 X79.389294 Y159.504594 Z-0.125000
G01 X83.543187 Y134.184062 Z-0.125000
G01 X82.924637 Y113.635972 Z-0.125000
G01 X82.984443 Y92.409526 Z-0.125000
G01 X84.751005 Y69.476323 Z-0.125000
G00 Z3.000000

(End cutting path id: path552)


(Start cutting path id: path540)
(Change tool to Default tool)

G00 Z3.000000
G00 X73.739191 Y222.304626

G00 Z4.875000 (Fast pre-penetrate)
G01 Z-0.125000 F400.0(Penetrate)
G01 X74.825100 Y200.052076 Z-0.125000 F800.000000
G01 X85.234758 Y168.475778 Z-0.125000
G01 X73.036313 Y159.507584 Z-0.125000
G01 X76.476119 Y134.901137 Z-0.125000
G01 X79.182914 Y111.027702 Z-0.125000
G01 X73.392320 Y95.651657 Z-0.125000
G01 X78.305846 Y69.571491 Z-0.125000
G00 Z3.000000

(End cutting path id: path540)


(Start cutting path id: path538)
(Change tool to Default tool)

G00 Z3.000000
G00 X72.707790 Y222.277694

G00 Z4.875000 (Fast pre-penetrate)
G01 Z-0.125000 F400.0(Penetrate)
G01 X73.544873 Y200.273972 Z-0.125000 F800.000000
G01 X83.622789 Y169.029415 Z-0.125000
G01 X72.561738 Y158.923826 Z-0.125000
G01 X75.315417 Y135.003507 Z-0.125000
G01 X78.114515 Y111.037770 Z-0.125000
G01 X72.806393 Y95.179252 Z-0.125000
G01 X77.122392 Y69.696612 Z-0.125000
G00 Z3.000000

(End cutting path id: path538)


(Start cutting path id: path536)
(Change tool to Default tool)

G00 Z3.000000
G00 X71.676390 Y222.250762

G00 Z4.875000 (Fast pre-penetrate)
G01 Z-0.125000 F400.0(Penetrate)
G01 X72.264643 Y200.495869 Z-0.125000 F800.000000
G01 X82.010822 Y169.583050 Z-0.125000
G01 X72.087166 Y158.340066 Z-0.125000
G01 X74.154716 Y135.105877 Z-0.125000
G01 X77.046118 Y111.047834 Z-0.125000
G01 X72.220468 Y94.706844 Z-0.125000
G01 X75.938939 Y69.821734 Z-0.125000
G00 Z3.000000

(End cutting path id: path536)


(Start cutting path id: path534)
(Change tool to Default tool)

G00 Z3.000000
G00 X70.644988 Y222.223833

G00 Z4.875000 (Fast pre-penetrate)
G01 Z-0.125000 F400.0(Penetrate)
G01 X70.984416 Y200.717765 Z-0.125000 F800.000000
G01 X80.398853 Y170.136687 Z-0.125000
G01 X71.612594 Y157.756306 Z-0.125000
G01 X72.994014 Y135.208247 Z-0.125000
G01 X75.977722 Y111.057899 Z-0.125000
G01 X71.634541 Y94.234439 Z-0.125000
G01 X74.755486 Y69.946855 Z-0.125000
G00 Z3.000000

(End cutting path id: path534)


(Start cutting path id: path532)
(Change tool to Default tool)

G00 Z3.000000
G00 X69.613588 Y222.196901

G00 Z4.875000 (Fast pre-penetrate)
G01 Z-0.125000 F400.0(Penetrate)
G01 X69.704186 Y200.939662 Z-0.125000 F800.000000
G01 X78.786884 Y170.690325 Z-0.125000
G01 X71.138022 Y157.172546 Z-0.125000
G01 X71.833312 Y135.310617 Z-0.125000
G01 X74.909325 Y111.067964 Z-0.125000
G01 X71.048617 Y93.762032 Z-0.125000
G01 X73.572035 Y70.071974 Z-0.125000
G00 Z3.000000

(End cutting path id: path532)


(Start cutting path id: path530)
(Change tool to Default tool)

G00 Z3.000000
G00 X68.582187 Y222.169969

G00 Z4.875000 (Fast pre-penetrate)
G01 Z-0.125000 F400.0(Penetrate)
G01 X68.423959 Y201.161558 Z-0.125000 F800.000000
G01 X77.174917 Y171.243959 Z-0.125000
G01 X70.663448 Y156.588789 Z-0.125000
G01 X70.672602 Y135.412986 Z-0.125000
G01 X73.840920 Y111.078028 Z-0.125000
G01 X70.462682 Y93.289627 Z-0.125000
G01 X72.388574 Y70.197095 Z-0.125000
G00 Z3.000000

(End cutting path id: path530)


(Start cutting path id: path528)
(Change tool to Default tool)

G00 Z3.000000
G00 X67.550785 Y222.143040

G00 Z4.875000 (Fast pre-penetrate)
G01 Z-0.125000 F400.0(Penetrate)
G01 X67.143729 Y201.383455 Z-0.125000 F800.000000
G01 X75.562948 Y171.797597 Z-0.125000
G01 X70.188876 Y156.005029 Z-0.125000
G01 X69.511908 Y135.515356 Z-0.125000
G01 X72.772531 Y111.088093 Z-0.125000
G01 X69.876766 Y92.817219 Z-0.125000
G01 X71.205128 Y70.322216 Z-0.125000
G00 Z3.000000

(End cutting path id: path528)


(Start cutting path id: path526)
(Change tool to Default tool)

G00 Z3.000000
G00 X66.519385 Y222.116108

G00 Z4.875000 (Fast pre-penetrate)
G01 Z-0.125000 F400.0(Penetrate)
G01 X65.863499 Y201.605353 Z-0.125000 F800.000000
G01 X73.950979 Y172.351234 Z-0.125000
G01 X69.714304 Y155.421269 Z-0.125000
G01 X68.351207 Y135.617726 Z-0.125000
G01 X71.704132 Y111.098161 Z-0.125000
G01 X69.290839 Y92.344814 Z-0.125000
G01 X70.021675 Y70.447337 Z-0.125000
G00 Z3.000000

(End cutting path id: path526)


(Start cutting path id: path524)
(Change tool to Default tool)

G00 Z3.000000
G00 X65.487985 Y222.089176

G00 Z4.875000 (Fast pre-penetrate)
G01 Z-0.125000 F400.0(Penetrate)
G01 X64.583272 Y201.827248 Z-0.125000 F800.000000
G01 X72.339009 Y172.904871 Z-0.125000
G01 X69.239732 Y154.837509 Z-0.125000
G01 X67.190507 Y135.720093 Z-0.125000
G01 X70.635735 Y111.108225 Z-0.125000
G01 X68.704914 Y91.872406 Z-0.125000
G01 X68.838222 Y70.572459 Z-0.125000
G00 Z3.000000

(End cutting path id: path524)


(Start cutting path id: path522)
(Change tool to Default tool)

G00 Z3.000000
G00 X64.456584 Y222.062244

G00 Z4.875000 (Fast pre-penetrate)
G01 Z-0.125000 F400.0(Penetrate)
G01 X63.303042 Y202.049146 Z-0.125000 F800.000000
G01 X70.727043 Y173.458506 Z-0.125000
G01 X68.765157 Y154.253751 Z-0.125000
G01 X66.029806 Y135.822463 Z-0.125000
G01 X69.567338 Y111.118290 Z-0.125000
G01 X68.118987 Y91.400001 Z-0.125000
G01 X67.654771 Y70.697577 Z-0.125000
G00 Z3.000000

(End cutting path id: path522)


(Start cutting path id: path420)
(Change tool to Default tool)

G00 Z3.000000
G00 X18.854207 Y213.689690

G00 Z4.875000 (Fast pre-penetrate)
G01 Z-0.125000 F400.0(Penetrate)
G01 X9.186350 Y202.190907 Z-0.125000 F800.000000
G01 X13.052982 Y177.157633 Z-0.125000
G01 X18.215239 Y150.828738 Z-0.125000
G01 X13.538537 Y134.338801 Z-0.125000
G01 X14.718670 Y111.992028 Z-0.125000
G01 X11.253442 Y94.290615 Z-0.125000
G01 X14.313455 Y70.063962 Z-0.125000
G00 Z3.000000

(End cutting path id: path420)


(Start cutting path id: path422)
(Change tool to Default tool)

G00 Z3.000000
G00 X19.557146 Y214.045083

G00 Z4.875000 (Fast pre-penetrate)
G01 Z-0.125000 F400.0(Penetrate)
G01 X10.200116 Y202.235474 Z-0.125000 F800.000000
G01 X13.827466 Y177.441483 Z-0.125000
G01 X18.983554 Y151.118755 Z-0.125000
G01 X14.302293 Y134.633374 Z-0.125000
G01 X15.728375 Y112.040653 Z-0.125000
G01 X12.214421 Y94.387966 Z-0.125000
G01 X15.472903 Y69.962846 Z-0.125000
G00 Z3.000000

(End cutting path id: path422)


(Start cutting path id: path424)
(Change tool to Default tool)

G00 Z3.000000
G00 X20.260084 Y214.400476

G00 Z4.875000 (Fast pre-penetrate)
G01 Z-0.125000 F400.0(Penetrate)
G01 X11.213882 Y202.280037 Z-0.125000 F800.000000
G01 X14.601950 Y177.725330 Z-0.125000
G01 X19.751866 Y151.408775 Z-0.125000
G01 X15.066050 Y134.927950 Z-0.125000
G01 X16.738080 Y112.089281 Z-0.125000
G01 X13.175401 Y94.485319 Z-0.125000
G01 X16.632350 Y69.861731 Z-0.125000
G00 Z3.000000

(End cutting path id: path424)


(Start cutting path id: path426)
(Change tool to Default tool)

G00 Z3.000000
G00 X20.963023 Y214.755869

G00 Z4.875000 (Fast pre-penetrate)
G01 Z-0.125000 F400.0(Penetrate)
G01 X12.227648 Y202.324604 Z-0.125000 F800.000000
G01 X15.376434 Y178.009177 Z-0.125000
G01 X20.520178 Y151.698795 Z-0.125000
G01 X15.829806 Y135.222526 Z-0.125000
G01 X17.747784 Y112.137908 Z-0.125000
G01 X14.136381 Y94.582673 Z-0.125000
G01 X17.791798 Y69.760615 Z-0.125000
G00 Z3.000000

(End cutting path id: path426)


(Start cutting path id: path428)
(Change tool to Default tool)

G00 Z3.000000
G00 X21.665965 Y215.111260

G00 Z4.875000 (Fast pre-penetrate)
G01 Z-0.125000 F400.0(Penetrate)
G01 X13.241415 Y202.369170 Z-0.125000 F800.000000
G01 X16.150917 Y178.293027 Z-0.125000
G01 X21.288490 Y151.988815 Z-0.125000
G01 X16.593562 Y135.517102 Z-0.125000
G01 X18.757489 Y112.186536 Z-0.125000
G01 X15.097360 Y94.680023 Z-0.125000
G01 X18.951245 Y69.659499 Z-0.125000
G00 Z3.000000

(End cutting path id: path428)


(Start cutting path id: path430)
(Change tool to Default tool)

G00 Z3.000000
G00 X22.368904 Y215.466653

G00 Z4.875000 (Fast pre-penetrate)
G01 Z-0.125000 F400.0(Penetrate)
G01 X14.255181 Y202.413736 Z-0.125000 F800.000000
G01 X16.925402 Y178.576874 Z-0.125000
G01 X22.056801 Y152.278835 Z-0.125000
G01 X17.357318 Y135.811679 Z-0.125000
G01 X19.767193 Y112.235164 Z-0.125000
G01 X16.058340 Y94.777377 Z-0.125000
G01 X20.110693 Y69.558384 Z-0.125000
G00 Z3.000000

(End cutting path id: path430)


(Start cutting path id: path432)
(Change tool to Default tool)

G00 Z3.000000
G00 X23.071842 Y215.822046

G00 Z4.875000 (Fast pre-penetrate)
G01 Z-0.125000 F400.0(Penetrate)
G01 X15.268947 Y202.458303 Z-0.125000 F800.000000
G01 X17.699887 Y178.860722 Z-0.125000
G01 X22.825113 Y152.568855 Z-0.125000
G01 X18.121076 Y136.106252 Z-0.125000
G01 X20.776897 Y112.283791 Z-0.125000
G01 X17.019318 Y94.874730 Z-0.125000
G01 X21.270141 Y69.457268 Z-0.125000
G00 Z3.000000

(End cutting path id: path432)


(Start cutting path id: path434)
(Change tool to Default tool)

G00 Z3.000000
G00 X23.774781 Y216.177439

G00 Z4.875000 (Fast pre-penetrate)
G01 Z-0.125000 F400.0(Penetrate)
G01 X16.282714 Y202.502866 Z-0.125000 F800.000000
G01 X18.474369 Y179.144572 Z-0.125000
G01 X23.593428 Y152.858872 Z-0.125000
G01 X18.884832 Y136.400828 Z-0.125000
G01 X21.786604 Y112.332416 Z-0.125000
G01 X17.980300 Y94.972081 Z-0.125000
G01 X22.429588 Y69.356152 Z-0.125000
G00 Z3.000000

(End cutting path id: path434)


(Start cutting path id: path436)
(Change tool to Default tool)

G00 Z3.000000
G00 X24.477720 Y216.532832

G00 Z4.875000 (Fast pre-penetrate)
G01 Z-0.125000 F400.0(Penetrate)
G01 X17.296480 Y202.547433 Z-0.125000 F800.000000
G01 X19.248854 Y179.428419 Z-0.125000
G01 X24.361740 Y153.148892 Z-0.125000
G01 X19.648588 Y136.695404 Z-0.125000
G01 X22.796308 Y112.381044 Z-0.125000
G01 X18.941278 Y95.069434 Z-0.125000
G01 X23.589036 Y69.255036 Z-0.125000
G00 Z3.000000

(End cutting path id: path436)


(Start cutting path id: path438)
(Change tool to Default tool)

G00 Z3.000000
G00 X25.180659 Y216.888226

G00 Z4.875000 (Fast pre-penetrate)
G01 Z-0.125000 F400.0(Penetrate)
G01 X18.310245 Y202.591999 Z-0.125000 F800.000000
G01 X20.023338 Y179.712266 Z-0.125000
G01 X25.130052 Y153.438912 Z-0.125000
G01 X20.412344 Y136.989980 Z-0.125000
G01 X23.806013 Y112.429672 Z-0.125000
G01 X19.902260 Y95.166785 Z-0.125000
G01 X24.748484 Y69.153921 Z-0.125000
G00 Z3.000000

(End cutting path id: path438)


(Start cutting path id: path440)
(Change tool to Default tool)

G00 Z3.000000
G00 X25.883600 Y217.243616

G00 Z4.875000 (Fast pre-penetrate)
G01 Z-0.125000 F400.0(Penetrate)
G01 X19.324011 Y202.636566 Z-0.125000 F800.000000
G01 X20.797820 Y179.996116 Z-0.125000
G01 X25.898364 Y153.728932 Z-0.125000
G01 X21.176100 Y137.284557 Z-0.125000
G01 X24.815717 Y112.478300 Z-0.125000
G01 X20.863238 Y95.264138 Z-0.125000
G01 X25.907931 Y69.052805 Z-0.125000
G00 Z3.000000

(End cutting path id: path440)


(Start cutting path id: path442)
(Change tool to Default tool)

G00 Z3.000000
G00 X26.586539 Y217.599009

G00 Z4.875000 (Fast pre-penetrate)
G01 Z-0.125000 F400.0(Penetrate)
G01 X20.337777 Y202.681132 Z-0.125000 F800.000000
G01 X21.572305 Y180.279963 Z-0.125000
G01 X26.666676 Y154.018952 Z-0.125000
G01 X21.939856 Y137.579133 Z-0.125000
G01 X25.825421 Y112.526927 Z-0.125000
G01 X21.824217 Y95.361491 Z-0.125000
G01 X27.067379 Y68.951689 Z-0.125000
G00 Z3.000000

(End cutting path id: path442)


(Start cutting path id: path444)
(Change tool to Default tool)

G00 Z3.000000
G00 X27.289478 Y217.954402

G00 Z4.875000 (Fast pre-penetrate)
G01 Z-0.125000 F400.0(Penetrate)
G01 X21.351545 Y202.725696 Z-0.125000 F800.000000
G01 X22.346790 Y180.563811 Z-0.125000
G01 X27.434988 Y154.308972 Z-0.125000
G01 X22.703614 Y137.873706 Z-0.125000
G01 X26.835128 Y112.575552 Z-0.125000
G01 X22.785198 Y95.458842 Z-0.125000
G01 X28.226827 Y68.850574 Z-0.125000
G00 Z3.000000

(End cutting path id: path444)


(Start cutting path id: path446)
(Change tool to Default tool)

G00 Z3.000000
G00 X27.992417 Y218.309796

G00 Z4.875000 (Fast pre-penetrate)
G01 Z-0.125000 F400.0(Penetrate)
G01 X22.365311 Y202.770262 Z-0.125000 F800.000000
G01 X23.121272 Y180.847661 Z-0.125000
G01 X28.203303 Y154.598990 Z-0.125000
G01 X23.467370 Y138.168282 Z-0.125000
G01 X27.844832 Y112.624180 Z-0.125000
G01 X23.746177 Y95.556195 Z-0.125000
G01 X29.386274 Y68.749458 Z-0.125000
G00 Z3.000000

(End cutting path id: path446)


(Start cutting path id: path448)
(Change tool to Default tool)

G00 Z3.000000
G00 X28.695356 Y218.665189

G00 Z4.875000 (Fast pre-penetrate)
G01 Z-0.125000 F400.0(Penetrate)
G01 X23.379076 Y202.814828 Z-0.125000 F800.000000
G01 X23.895757 Y181.131508 Z-0.125000
G01 X28.971615 Y154.889010 Z-0.125000
G01 X24.231126 Y138.462858 Z-0.125000
G01 X28.854537 Y112.672808 Z-0.125000
G01 X24.707156 Y95.653549 Z-0.125000
G01 X30.545722 Y68.648342 Z-0.125000
G00 Z3.000000

(End cutting path id: path448)


(Start cutting path id: path450)
(Change tool to Default tool)

G00 Z3.000000
G00 X29.398294 Y219.020582

G00 Z4.875000 (Fast pre-penetrate)
G01 Z-0.125000 F400.0(Penetrate)
G01 X24.392842 Y202.859395 Z-0.125000 F800.000000
G01 X24.670241 Y181.415355 Z-0.125000
G01 X29.739927 Y155.179030 Z-0.125000
G01 X24.994882 Y138.757435 Z-0.125000
G01 X29.864241 Y112.721435 Z-0.125000
G01 X25.668137 Y95.750899 Z-0.125000
G01 X31.705170 Y68.547227 Z-0.125000
G00 Z3.000000

(End cutting path id: path450)


(Start cutting path id: path452)
(Change tool to Default tool)

G00 Z3.000000
G00 X30.101236 Y219.375973

G00 Z4.875000 (Fast pre-penetrate)
G01 Z-0.125000 F400.0(Penetrate)
G01 X25.406610 Y202.903958 Z-0.125000 F800.000000
G01 X25.444723 Y181.699205 Z-0.125000
G01 X30.508239 Y155.469050 Z-0.125000
G01 X25.758638 Y139.052011 Z-0.125000
G01 X30.873945 Y112.770063 Z-0.125000
G01 X26.629116 Y95.848253 Z-0.125000
G01 X32.864618 Y68.446111 Z-0.125000
G00 Z3.000000

(End cutting path id: path452)


(Start cutting path id: path454)
(Change tool to Default tool)

G00 Z3.000000
G00 X30.804175 Y219.731366

G00 Z4.875000 (Fast pre-penetrate)
G01 Z-0.125000 F400.0(Penetrate)
G01 X26.420376 Y202.948525 Z-0.125000 F800.000000
G01 X26.219208 Y181.983052 Z-0.125000
G01 X31.276551 Y155.759070 Z-0.125000
G01 X26.522396 Y139.346584 Z-0.125000
G01 X31.883650 Y112.818691 Z-0.125000
G01 X27.590095 Y95.945606 Z-0.125000
G01 X34.024065 Y68.344995 Z-0.125000
G00 Z3.000000

(End cutting path id: path454)


(Start cutting path id: path456)
(Change tool to Default tool)

G00 Z3.000000
G00 X31.507114 Y220.086759

G00 Z4.875000 (Fast pre-penetrate)
G01 Z-0.125000 F400.0(Penetrate)
G01 X27.434141 Y202.993091 Z-0.125000 F800.000000
G01 X26.993693 Y182.266900 Z-0.125000
G01 X32.044863 Y156.049090 Z-0.125000
G01 X27.286152 Y139.641160 Z-0.125000
G01 X32.893357 Y112.867316 Z-0.125000
G01 X28.551076 Y96.042957 Z-0.125000
G01 X35.183513 Y68.243880 Z-0.125000
G00 Z3.000000

(End cutting path id: path456)


(Start cutting path id: path458)
(Change tool to Default tool)

G00 Z3.000000
G00 X32.210052 Y220.442152

G00 Z4.875000 (Fast pre-penetrate)
G01 Z-0.125000 F400.0(Penetrate)
G01 X28.447907 Y203.037657 Z-0.125000 F800.000000
G01 X27.768177 Y182.550747 Z-0.125000
G01 X32.813175 Y156.339110 Z-0.125000
G01 X28.049908 Y139.935736 Z-0.125000
G01 X33.903061 Y112.915944 Z-0.125000
G01 X29.512055 Y96.140310 Z-0.125000
G01 X36.342961 Y68.142764 Z-0.125000
G00 Z3.000000

(End cutting path id: path458)


(Start cutting path id: path460)
(Change tool to Default tool)

G00 Z3.000000
G00 X32.912991 Y220.797545

G00 Z4.875000 (Fast pre-penetrate)
G01 Z-0.125000 F400.0(Penetrate)
G01 X29.461673 Y203.082224 Z-0.125000 F800.000000
G01 X28.542660 Y182.834597 Z-0.125000
G01 X33.581489 Y156.629127 Z-0.125000
G01 X28.813664 Y140.230313 Z-0.125000
G01 X34.912765 Y112.964571 Z-0.125000
G01 X30.473033 Y96.237663 Z-0.125000
G01 X37.502408 Y68.041648 Z-0.125000
G00 Z3.000000

(End cutting path id: path460)


(Start cutting path id: path462)
(Change tool to Default tool)

G00 Z3.000000
G00 X33.922902 Y220.845967

G00 Z4.875000 (Fast pre-penetrate)
G01 Z-0.125000 F400.0(Penetrate)
G01 X30.449615 Y203.152613 Z-0.125000 F800.000000
G01 X29.765298 Y182.670291 Z-0.125000
G01 X35.079656 Y156.189292 Z-0.125000
G01 X30.036085 Y140.066223 Z-0.125000
G01 X36.057875 Y112.877793 Z-0.125000
G01 X32.033073 Y95.735956 Z-0.125000
G01 X38.359125 Y68.243263 Z-0.125000
G00 Z3.000000

(End cutting path id: path462)


(Start cutting path id: path464)
(Change tool to Default tool)

G00 Z3.000000
G00 X34.932810 Y220.894391

G00 Z4.875000 (Fast pre-penetrate)
G01 Z-0.125000 F400.0(Penetrate)
G01 X31.437560 Y203.223000 Z-0.125000 F800.000000
G01 X30.987933 Y182.505988 Z-0.125000
G01 X36.577826 Y155.749455 Z-0.125000
G01 X31.258506 Y139.902134 Z-0.125000
G01 X37.202985 Y112.791016 Z-0.125000
G01 X33.593112 Y95.234248 Z-0.125000
G01 X39.215845 Y68.444875 Z-0.125000
G00 Z3.000000

(End cutting path id: path464)


(Start cutting path id: path466)
(Change tool to Default tool)

G00 Z3.000000
G00 X35.942718 Y220.942815

G00 Z4.875000 (Fast pre-penetrate)
G01 Z-0.125000 F400.0(Penetrate)
G01 X32.425502 Y203.293390 Z-0.125000 F800.000000
G01 X32.210568 Y182.341684 Z-0.125000
G01 X38.075995 Y155.309617 Z-0.125000
G01 X32.480927 Y139.738045 Z-0.125000
G01 X38.348095 Y112.704238 Z-0.125000
G01 X35.153149 Y94.732543 Z-0.125000
G01 X40.072565 Y68.646488 Z-0.125000
G00 Z3.000000

(End cutting path id: path466)


(Start cutting path id: path468)
(Change tool to Default tool)

G00 Z3.000000
G00 X36.952629 Y220.991236

G00 Z4.875000 (Fast pre-penetrate)
G01 Z-0.125000 F400.0(Penetrate)
G01 X33.413445 Y203.363780 Z-0.125000 F800.000000
G01 X33.433209 Y182.177378 Z-0.125000
G01 X39.574165 Y154.869783 Z-0.125000
G01 X33.703351 Y139.573956 Z-0.125000
G01 X39.493207 Y112.617460 Z-0.125000
G01 X36.713192 Y94.230836 Z-0.125000
G01 X40.929287 Y68.848100 Z-0.125000
G00 Z3.000000

(End cutting path id: path468)


(Start cutting path id: path470)
(Change tool to Default tool)

G00 Z3.000000
G00 X37.962537 Y221.039660

G00 Z4.875000 (Fast pre-penetrate)
G01 Z-0.125000 F400.0(Penetrate)
G01 X34.401387 Y203.434169 Z-0.125000 F800.000000
G01 X34.655842 Y182.013075 Z-0.125000
G01 X41.072331 Y154.429945 Z-0.125000
G01 X34.925769 Y139.409867 Z-0.125000
G01 X40.638317 Y112.530679 Z-0.125000
G01 X38.273226 Y93.729131 Z-0.125000
G01 X41.786004 Y69.049712 Z-0.125000
G00 Z3.000000

(End cutting path id: path470)


(Start cutting path id: path472)
(Change tool to Default tool)

G00 Z3.000000
G00 X38.972447 Y221.088081

G00 Z4.875000 (Fast pre-penetrate)
G01 Z-0.125000 F400.0(Penetrate)
G01 X35.389329 Y203.504559 Z-0.125000 F800.000000
G01 X35.878480 Y181.848769 Z-0.125000
G01 X42.570501 Y153.990108 Z-0.125000
G01 X36.148190 Y139.245778 Z-0.125000
G01 X41.783427 Y112.443901 Z-0.125000
G01 X39.833265 Y93.227423 Z-0.125000
G01 X42.642721 Y69.251327 Z-0.125000
G00 Z3.000000

(End cutting path id: path472)


(Start cutting path id: path474)
(Change tool to Default tool)

G00 Z3.000000
G00 X39.982355 Y221.136505

G00 Z4.875000 (Fast pre-penetrate)
G01 Z-0.125000 F400.0(Penetrate)
G01 X36.377272 Y203.574949 Z-0.125000 F800.000000
G01 X37.101115 Y181.684465 Z-0.125000
G01 X44.068668 Y153.550273 Z-0.125000
G01 X37.370612 Y139.081689 Z-0.125000
G01 X42.928537 Y112.357123 Z-0.125000
G01 X41.393305 Y92.725715 Z-0.125000
G01 X43.499441 Y69.452939 Z-0.125000
G00 Z3.000000

(End cutting path id: path474)


(Start cutting path id: path476)
(Change tool to Default tool)

G00 Z3.000000
G00 X40.992263 Y221.184929

G00 Z4.875000 (Fast pre-penetrate)
G01 Z-0.125000 F400.0(Penetrate)
G01 X37.365214 Y203.645338 Z-0.125000 F800.000000
G01 X38.323751 Y181.520162 Z-0.125000
G01 X45.566837 Y153.110435 Z-0.125000
G01 X38.593033 Y138.917600 Z-0.125000
G01 X44.073647 Y112.270345 Z-0.125000
G01 X42.953342 Y92.224011 Z-0.125000
G01 X44.356161 Y69.654551 Z-0.125000
G00 Z3.000000

(End cutting path id: path476)


(Start cutting path id: path478)
(Change tool to Default tool)

G00 Z3.000000
G00 X42.002174 Y221.233351

G00 Z4.875000 (Fast pre-penetrate)
G01 Z-0.125000 F400.0(Penetrate)
G01 X38.353159 Y203.715725 Z-0.125000 F800.000000
G01 X39.546389 Y181.355856 Z-0.125000
G01 X47.065007 Y152.670598 Z-0.125000
G01 X39.815454 Y138.753511 Z-0.125000
G01 X45.218757 Y112.183567 Z-0.125000
G01 X44.513382 Y91.722303 Z-0.125000
G01 X45.212881 Y69.856164 Z-0.125000
G00 Z3.000000

(End cutting path id: path478)


(Start cutting path id: path480)
(Change tool to Default tool)

G00 Z3.000000
G00 X43.012082 Y221.281774

G00 Z4.875000 (Fast pre-penetrate)
G01 Z-0.125000 F400.0(Penetrate)
G01 X39.341101 Y203.786115 Z-0.125000 F800.000000
G01 X40.769024 Y181.191552 Z-0.125000
G01 X48.563174 Y152.230763 Z-0.125000
G01 X41.037875 Y138.589422 Z-0.125000
G01 X46.363867 Y112.096789 Z-0.125000
G01 X46.073418 Y91.220598 Z-0.125000
G01 X46.069608 Y70.057779 Z-0.125000
G00 Z3.000000

(End cutting path id: path480)


(Start cutting path id: path482)
(Change tool to Default tool)

G00 Z3.000000
G00 X44.021990 Y221.330198

G00 Z4.875000 (Fast pre-penetrate)
G01 Z-0.125000 F400.0(Penetrate)
G01 X40.329044 Y203.856505 Z-0.125000 F800.000000
G01 X41.991662 Y181.027246 Z-0.125000
G01 X50.061343 Y151.790925 Z-0.125000
G01 X42.260296 Y138.425333 Z-0.125000
G01 X47.508977 Y112.010011 Z-0.125000
G01 X47.633458 Y90.718890 Z-0.125000
G01 X46.926318 Y70.259391 Z-0.125000
G00 Z3.000000

(End cutting path id: path482)


(Start cutting path id: path484)
(Change tool to Default tool)

G00 Z3.000000
G00 X45.031901 Y221.378620

G00 Z4.875000 (Fast pre-penetrate)
G01 Z-0.125000 F400.0(Penetrate)
G01 X41.316986 Y203.926894 Z-0.125000 F800.000000
G01 X43.214298 Y180.862943 Z-0.125000
G01 X51.559513 Y151.351088 Z-0.125000
G01 X43.482717 Y138.261244 Z-0.125000
G01 X48.654087 Y111.923234 Z-0.125000
G01 X49.193498 Y90.217183 Z-0.125000
G01 X47.783037 Y70.461003 Z-0.125000
G00 Z3.000000

(End cutting path id: path484)


(Start cutting path id: path486)
(Change tool to Default tool)

G00 Z3.000000
G00 X46.041809 Y221.427044

G00 Z4.875000 (Fast pre-penetrate)
G01 Z-0.125000 F400.0(Penetrate)
G01 X42.304928 Y203.997284 Z-0.125000 F800.000000
G01 X44.436933 Y180.698640 Z-0.125000
G01 X53.057679 Y150.911253 Z-0.125000
G01 X44.705138 Y138.097154 Z-0.125000
G01 X49.799197 Y111.836456 Z-0.125000
G01 X50.753535 Y89.715478 Z-0.125000
G01 X48.639757 Y70.662615 Z-0.125000
G00 Z3.000000

(End cutting path id: path486)


(Start cutting path id: path488)
(Change tool to Default tool)

G00 Z3.000000
G00 X47.051719 Y221.475465

G00 Z4.875000 (Fast pre-penetrate)
G01 Z-0.125000 F400.0(Penetrate)
G01 X43.292871 Y204.067674 Z-0.125000 F800.000000
G01 X45.659571 Y180.534334 Z-0.125000
G01 X54.555849 Y150.471416 Z-0.125000
G01 X45.927559 Y137.933065 Z-0.125000
G01 X50.944309 Y111.749675 Z-0.125000
G01 X52.313574 Y89.213770 Z-0.125000
G01 X49.496474 Y70.864230 Z-0.125000
G00 Z3.000000

(End cutting path id: path488)


(Start cutting path id: path490)
(Change tool to Default tool)

G00 Z3.000000
G00 X48.061627 Y221.523889

G00 Z4.875000 (Fast pre-penetrate)
G01 Z-0.125000 F400.0(Penetrate)
G01 X44.280813 Y204.138063 Z-0.125000 F800.000000
G01 X46.882206 Y180.370030 Z-0.125000
G01 X56.054018 Y150.031578 Z-0.125000
G01 X47.149980 Y137.768976 Z-0.125000
G01 X52.089419 Y111.662897 Z-0.125000
G01 X53.873614 Y88.712063 Z-0.125000
G01 X50.353194 Y71.065843 Z-0.125000
G00 Z3.000000

(End cutting path id: path490)


(Start cutting path id: path492)
(Change tool to Default tool)

G00 Z3.000000
G00 X49.071535 Y221.572313

G00 Z4.875000 (Fast pre-penetrate)
G01 Z-0.125000 F400.0(Penetrate)
G01 X45.268755 Y204.208453 Z-0.125000 F800.000000
G01 X48.104842 Y180.205727 Z-0.125000
G01 X57.552185 Y149.591743 Z-0.125000
G01 X48.372401 Y137.604887 Z-0.125000
G01 X53.234529 Y111.576119 Z-0.125000
G01 X55.433651 Y88.210358 Z-0.125000
G01 X51.209914 Y71.267455 Z-0.125000
G00 Z3.000000

(End cutting path id: path492)


(Start cutting path id: path494)
(Change tool to Default tool)

G00 Z3.000000
G00 X50.081446 Y221.620734

G00 Z4.875000 (Fast pre-penetrate)
G01 Z-0.125000 F400.0(Penetrate)
G01 X46.256700 Y204.278840 Z-0.125000 F800.000000
G01 X49.327480 Y180.041421 Z-0.125000
G01 X59.050355 Y149.151906 Z-0.125000
G01 X49.594822 Y137.440798 Z-0.125000
G01 X54.379639 Y111.489341 Z-0.125000
G01 X56.993690 Y87.708650 Z-0.125000
G01 X52.066633 Y71.469067 Z-0.125000
G00 Z3.000000

(End cutting path id: path494)


(Start cutting path id: path496)
(Change tool to Default tool)

G00 Z3.000000
G00 X51.091354 Y221.669158

G00 Z4.875000 (Fast pre-penetrate)
G01 Z-0.125000 F400.0(Penetrate)
G01 X47.244643 Y204.349230 Z-0.125000 F800.000000
G01 X50.550115 Y179.877117 Z-0.125000
G01 X60.548524 Y148.712068 Z-0.125000
G01 X50.817243 Y137.276709 Z-0.125000
G01 X55.524749 Y111.402563 Z-0.125000
G01 X58.553727 Y87.206945 Z-0.125000
G01 X52.923351 Y71.670682 Z-0.125000
G00 Z3.000000

(End cutting path id: path496)


(Start cutting path id: path498)
(Change tool to Default tool)

G00 Z3.000000
G00 X52.101265 Y221.717580

G00 Z4.875000 (Fast pre-penetrate)
G01 Z-0.125000 F400.0(Penetrate)
G01 X48.232585 Y204.419619 Z-0.125000 F800.000000
G01 X51.772753 Y179.712811 Z-0.125000
G01 X62.046691 Y148.272233 Z-0.125000
G01 X52.039665 Y137.112620 Z-0.125000
G01 X56.669859 Y111.315785 Z-0.125000
G01 X60.113767 Y86.705238 Z-0.125000
G01 X53.780070 Y71.872294 Z-0.125000
G00 Z3.000000

(End cutting path id: path498)


(Start cutting path id: path500)
(Change tool to Default tool)

G00 Z3.000000
G00 X53.111173 Y221.766004

G00 Z4.875000 (Fast pre-penetrate)
G01 Z-0.125000 F400.0(Penetrate)
G01 X49.220527 Y204.490009 Z-0.125000 F800.000000
G01 X52.995389 Y179.548508 Z-0.125000
G01 X63.544861 Y147.832396 Z-0.125000
G01 X53.262086 Y136.948531 Z-0.125000
G01 X57.814969 Y111.229007 Z-0.125000
G01 X61.673806 Y86.203530 Z-0.125000
G01 X54.636790 Y72.073906 Z-0.125000
G00 Z3.000000

(End cutting path id: path500)


(Start cutting path id: path502)
(Change tool to Default tool)

G00 Z3.000000
G00 X54.142573 Y221.792936

G00 Z4.875000 (Fast pre-penetrate)
G01 Z-0.125000 F400.0(Penetrate)
G01 X50.500757 Y204.268111 Z-0.125000 F800.000000
G01 X54.607358 Y178.994871 Z-0.125000
G01 X64.019432 Y148.416156 Z-0.125000
G01 X54.422787 Y136.846161 Z-0.125000
G01 X58.883366 Y111.218943 Z-0.125000
G01 X62.259731 Y86.675938 Z-0.125000
G01 X55.820243 Y71.948785 Z-0.125000
G00 Z3.000000

(End cutting path id: path502)


(Start cutting path id: path504)
(Change tool to Default tool)

G00 Z3.000000
G00 X55.173976 Y221.819865

G00 Z4.875000 (Fast pre-penetrate)
G01 Z-0.125000 F400.0(Penetrate)
G01 X51.780984 Y204.046216 Z-0.125000 F800.000000
G01 X56.219325 Y178.441236 Z-0.125000
G01 X64.494004 Y148.999916 Z-0.125000
G01 X55.583489 Y136.743791 Z-0.125000
G01 X59.951765 Y111.208875 Z-0.125000
G01 X62.845658 Y87.148343 Z-0.125000
G01 X57.003697 Y71.823664 Z-0.125000
G00 Z3.000000

(End cutting path id: path504)


(Start cutting path id: path506)
(Change tool to Default tool)

G00 Z3.000000
G00 X56.205376 Y221.846797

G00 Z4.875000 (Fast pre-penetrate)
G01 Z-0.125000 F400.0(Penetrate)
G01 X53.061214 Y203.824318 Z-0.125000 F800.000000
G01 X57.831294 Y177.887599 Z-0.125000
G01 X64.968579 Y149.583674 Z-0.125000
G01 X56.744191 Y136.641421 Z-0.125000
G01 X61.020162 Y111.198811 Z-0.125000
G01 X63.431582 Y87.620751 Z-0.125000
G01 X58.187147 Y71.698545 Z-0.125000
G00 Z3.000000

(End cutting path id: path506)


(Start cutting path id: path508)
(Change tool to Default tool)

G00 Z3.000000
G00 X57.236776 Y221.873729

G00 Z4.875000 (Fast pre-penetrate)
G01 Z-0.125000 F400.0(Penetrate)
G01 X54.341441 Y203.602423 Z-0.125000 F800.000000
G01 X59.443263 Y177.333961 Z-0.125000
G01 X65.443151 Y150.167434 Z-0.125000
G01 X57.904893 Y136.539052 Z-0.125000
G01 X62.088559 Y111.188746 Z-0.125000
G01 X64.017509 Y88.093156 Z-0.125000
G01 X59.370601 Y71.573424 Z-0.125000
G00 Z3.000000

(End cutting path id: path508)


(Start cutting path id: path510)
(Change tool to Default tool)

G00 Z3.000000
G00 X58.268179 Y221.900658

G00 Z4.875000 (Fast pre-penetrate)
G01 Z-0.125000 F400.0(Penetrate)
G01 X55.621671 Y203.380525 Z-0.125000 F800.000000
G01 X61.055232 Y176.780324 Z-0.125000
G01 X65.917723 Y150.751194 Z-0.125000
G01 X59.065595 Y136.436682 Z-0.125000
G01 X63.156955 Y111.178681 Z-0.125000
G01 X64.603433 Y88.565563 Z-0.125000
G01 X60.554054 Y71.448303 Z-0.125000
G00 Z3.000000

(End cutting path id: path510)


(Start cutting path id: path512)
(Change tool to Default tool)

G00 Z3.000000
G00 X59.299579 Y221.927590

G00 Z4.875000 (Fast pre-penetrate)
G01 Z-0.125000 F400.0(Penetrate)
G01 X56.901898 Y203.158630 Z-0.125000 F800.000000
G01 X62.667199 Y176.226689 Z-0.125000
G01 X66.392295 Y151.334954 Z-0.125000
G01 X60.226296 Y136.334312 Z-0.125000
G01 X64.225352 Y111.168616 Z-0.125000
G01 X65.189360 Y89.037968 Z-0.125000
G01 X61.737507 Y71.323181 Z-0.125000
G00 Z3.000000

(End cutting path id: path512)


(Start cutting path id: path514)
(Change tool to Default tool)

G00 Z3.000000
G00 X60.330979 Y221.954522

G00 Z4.875000 (Fast pre-penetrate)
G01 Z-0.125000 F400.0(Penetrate)
G01 X58.182128 Y202.936732 Z-0.125000 F800.000000
G01 X64.279168 Y175.673052 Z-0.125000
G01 X66.866867 Y151.918714 Z-0.125000
G01 X61.386998 Y136.231942 Z-0.125000
G01 X65.293749 Y111.158552 Z-0.125000
G01 X65.775285 Y89.510376 Z-0.125000
G01 X62.920958 Y71.198063 Z-0.125000
G00 Z3.000000

(End cutting path id: path514)


(Start cutting path id: path516)
(Change tool to Default tool)

G00 Z3.000000
G00 X61.362381 Y221.981451

G00 Z4.875000 (Fast pre-penetrate)
G01 Z-0.125000 F400.0(Penetrate)
G01 X59.462358 Y202.714834 Z-0.125000 F800.000000
G01 X65.891138 Y175.119415 Z-0.125000
G01 X67.341441 Y152.502471 Z-0.125000
G01 X62.547700 Y136.129572 Z-0.125000
G01 X66.362148 Y111.148484 Z-0.125000
G01 X66.361090 Y89.982781 Z-0.125000
G01 X64.104290 Y71.072941 Z-0.125000
G00 Z3.000000

(End cutting path id: path516)


(Start cutting path id: path518)
(Change tool to Default tool)

G00 Z3.000000
G00 X62.393782 Y222.008383

G00 Z4.875000 (Fast pre-penetrate)
G01 Z-0.125000 F400.0(Penetrate)
G01 X60.742585 Y202.492939 Z-0.125000 F800.000000
G01 X67.503104 Y174.565780 Z-0.125000
G01 X67.816013 Y153.086231 Z-0.125000
G01 X63.708402 Y136.027203 Z-0.125000
G01 X67.430545 Y111.138420 Z-0.125000
G01 X66.947136 Y90.455189 Z-0.125000
G01 X65.287865 Y70.947820 Z-0.125000
G00 Z3.000000

(End cutting path id: path518)


(Start cutting path id: path520)
(Change tool to Default tool)

G00 Z3.000000
G00 X63.425182 Y222.035315

G00 Z4.875000 (Fast pre-penetrate)
G01 Z-0.125000 F400.0(Penetrate)
G01 X62.022815 Y202.271041 Z-0.125000 F800.000000
G01 X69.115073 Y174.012143 Z-0.125000
G01 X68.290585 Y153.669991 Z-0.125000
G01 X64.869104 Y135.924833 Z-0.125000
G01 X68.498942 Y111.128355 Z-0.125000
G01 X67.533063 Y90.927594 Z-0.125000
G01 X66.471318 Y70.822699 Z-0.125000
G00 Z3.000000

(End cutting path id: path520)


(Start cutting path id: path542)
(Change tool to Default tool)

G00 Z3.000000
G00 X74.666324 Y222.435825

G00 Z4.875000 (Fast pre-penetrate)
G01 Z-0.125000 F400.0(Penetrate)
G01 X75.857942 Y200.077566 Z-0.125000 F800.000000
G01 X85.733865 Y169.035003 Z-0.125000
G01 X74.095142 Y159.507086 Z-0.125000
G01 X77.653963 Y134.781625 Z-0.125000
G01 X79.806534 Y111.462415 Z-0.125000
G01 X74.991007 Y95.111302 Z-0.125000
G01 X79.380037 Y69.555632 Z-0.125000
G00 Z3.000000

(End cutting path id: path542)


(Start cutting path id: path544)
(Change tool to Default tool)

G00 Z3.000000
G00 X75.593457 Y222.567023

G00 Z4.875000 (Fast pre-penetrate)
G01 Z-0.125000 F400.0(Penetrate)
G01 X76.890784 Y200.103056 Z-0.125000 F800.000000
G01 X86.232969 Y169.594231 Z-0.125000
G01 X75.153971 Y159.506589 Z-0.125000
G01 X78.831807 Y134.662113 Z-0.125000
G01 X80.430153 Y111.897127 Z-0.125000
G01 X76.589694 Y94.570946 Z-0.125000
G01 X80.454230 Y69.539770 Z-0.125000
G00 Z3.000000

(End cutting path id: path544)


(Start cutting path id: path546)
(Change tool to Default tool)

G00 Z3.000000
G00 X76.520590 Y222.698222

G00 Z4.875000 (Fast pre-penetrate)
G01 Z-0.125000 F400.0(Penetrate)
G01 X77.923624 Y200.128549 Z-0.125000 F800.000000
G01 X86.732076 Y170.153457 Z-0.125000
G01 X76.212804 Y159.506089 Z-0.125000
G01 X80.009654 Y134.542598 Z-0.125000
G01 X81.053775 Y112.331837 Z-0.125000
G01 X78.188381 Y94.030591 Z-0.125000
G01 X81.528424 Y69.523908 Z-0.125000
G00 Z3.000000

(End cutting path id: path546)


(Start cutting path id: path548)
(Change tool to Default tool)

G00 Z3.000000
G00 X77.447723 Y222.829421

G00 Z4.875000 (Fast pre-penetrate)
G01 Z-0.125000 F400.0(Penetrate)
G01 X78.956466 Y200.154039 Z-0.125000 F800.000000
G01 X87.231183 Y170.712682 Z-0.125000
G01 X77.271633 Y159.505592 Z-0.125000
G01 X81.187498 Y134.423086 Z-0.125000
G01 X81.677395 Y112.766550 Z-0.125000
G01 X79.787068 Y93.490236 Z-0.125000
G01 X82.602618 Y69.508047 Z-0.125000
G00 Z3.000000

(End cutting path id: path548)


(Start cutting path id: path550)
(Change tool to Default tool)

G00 Z3.000000
G00 X78.374857 Y222.960620

G00 Z4.875000 (Fast pre-penetrate)
G01 Z-0.125000 F400.0(Penetrate)
G01 X79.989305 Y200.179531 Z-0.125000 F800.000000
G01 X87.730289 Y171.271907 Z-0.125000
G01 X78.330465 Y159.505092 Z-0.125000
G01 X82.365343 Y134.303574 Z-0.125000
G01 X82.301017 Y113.201259 Z-0.125000
G01 X81.385756 Y92.949881 Z-0.125000
G01 X83.676812 Y69.492185 Z-0.125000
G00 Z3.000000

(End cutting path id: path550)


(Start cutting path id: path554)
(Change tool to Default tool)

G00 Z3.000000
G00 X80.229123 Y223.223017

G00 Z4.875000 (Fast pre-penetrate)
G01 Z-0.125000 F400.0(Penetrate)
G01 X82.054987 Y200.230514 Z-0.125000 F800.000000
G01 X88.728500 Y172.390360 Z-0.125000
G01 X80.448126 Y159.504094 Z-0.125000
G01 X84.721033 Y134.064547 Z-0.125000
G01 X83.548256 Y114.070684 Z-0.125000
G01 X84.583130 Y91.869170 Z-0.125000
G01 X85.825197 Y69.460464 Z-0.125000
G00 Z3.000000

(End cutting path id: path554)


(Start cutting path id: path556)
(Change tool to Default tool)

G00 Z3.000000
G00 X81.156256 Y223.354216

G00 Z4.875000 (Fast pre-penetrate)
G01 Z-0.125000 F400.0(Penetrate)
G01 X83.087829 Y200.256004 Z-0.125000 F800.000000
G01 X89.227607 Y172.949586 Z-0.125000
G01 X81.506956 Y159.503597 Z-0.125000
G01 X85.898878 Y133.945035 Z-0.125000
G01 X84.171878 Y114.505394 Z-0.125000
G01 X86.181817 Y91.328815 Z-0.125000
G01 X86.899390 Y69.444602 Z-0.125000
G00 Z3.000000

(End cutting path id: path556)


(Start cutting path id: path558)
(Change tool to Default tool)

G00 Z3.000000
G00 X82.083390 Y223.485415

G00 Z4.875000 (Fast pre-penetrate)
G01 Z-0.125000 F400.0(Penetrate)
G01 X84.120671 Y200.281494 Z-0.125000 F800.000000
G01 X89.726711 Y173.508814 Z-0.125000
G01 X82.565785 Y159.503099 Z-0.125000
G01 X87.076722 Y133.825523 Z-0.125000
G01 X84.795498 Y114.940107 Z-0.125000
G01 X87.780502 Y90.788463 Z-0.125000
G01 X87.973584 Y69.428740 Z-0.125000
G00 Z3.000000

(End cutting path id: path558)


(Start cutting path id: path560)
(Change tool to Default tool)

G00 Z3.000000
G00 X83.010523 Y223.616614

G00 Z4.875000 (Fast pre-penetrate)
G01 Z-0.125000 F400.0(Penetrate)
G01 X85.153510 Y200.306986 Z-0.125000 F800.000000
G01 X90.225818 Y174.068039 Z-0.125000
G01 X83.624617 Y159.502599 Z-0.125000
G01 X88.254566 Y133.706011 Z-0.125000
G01 X85.419120 Y115.374817 Z-0.125000
G01 X89.379189 Y90.248107 Z-0.125000
G01 X89.047778 Y69.412879 Z-0.125000
G00 Z3.000000

(End cutting path id: path560)


(Start cutting path id: path562)
(Change tool to Default tool)

G00 Z3.000000
G00 X83.937656 Y223.747812

G00 Z4.875000 (Fast pre-penetrate)
G01 Z-0.125000 F400.0(Penetrate)
G01 X86.186352 Y200.332476 Z-0.125000 F800.000000
G01 X90.724924 Y174.627264 Z-0.125000
G01 X84.683447 Y159.502102 Z-0.125000
G01 X89.432413 Y133.586496 Z-0.125000
G01 X86.042739 Y115.809529 Z-0.125000
G01 X90.977876 Y89.707752 Z-0.125000
G01 X90.121972 Y69.397017 Z-0.125000
G00 Z3.000000

(End cutting path id: path562)


(Start cutting path id: path564)
(Change tool to Default tool)

G00 Z3.000000
G00 X84.864789 Y223.879011

G00 Z4.875000 (Fast pre-penetrate)
G01 Z-0.125000 F400.0(Penetrate)
G01 X87.219192 Y200.357969 Z-0.125000 F800.000000
G01 X91.224028 Y175.186492 Z-0.125000
G01 X85.742279 Y159.501602 Z-0.125000
G01 X90.610257 Y133.466984 Z-0.125000
G01 X86.666359 Y116.244242 Z-0.125000
G01 X92.576564 Y89.167397 Z-0.125000
G01 X91.196165 Y69.381155 Z-0.125000
G00 Z3.000000

(End cutting path id: path564)


(Start cutting path id: path566)
(Change tool to Default tool)

G00 Z3.000000
G00 X85.791923 Y224.010210

G00 Z4.875000 (Fast pre-penetrate)
G01 Z-0.125000 F400.0(Penetrate)
G01 X88.252034 Y200.383459 Z-0.125000 F800.000000
G01 X91.723135 Y175.745717 Z-0.125000
G01 X86.801108 Y159.501104 Z-0.125000
G01 X91.788101 Y133.347472 Z-0.125000
G01 X87.289981 Y116.678952 Z-0.125000
G01 X94.175251 Y88.627042 Z-0.125000
G01 X92.270356 Y69.365296 Z-0.125000
G00 Z3.000000

(End cutting path id: path566)


(Start cutting path id: path568)
(Change tool to Default tool)

G00 Z3.000000
G00 X86.719053 Y224.141411

G00 Z4.875000 (Fast pre-penetrate)
G01 Z-0.125000 F400.0(Penetrate)
G01 X89.284876 Y200.408949 Z-0.125000 F800.000000
G01 X92.222242 Y176.304943 Z-0.125000
G01 X87.859940 Y159.500604 Z-0.125000
G01 X92.965945 Y133.227959 Z-0.125000
G01 X87.913600 Y117.113664 Z-0.125000
G01 X95.773938 Y88.086687 Z-0.125000
G01 X93.344550 Y69.349434 Z-0.125000
G00 Z3.000000

(End cutting path id: path568)


(Start cutting path id: path570)
(Change tool to Default tool)

G00 Z3.000000
G00 X87.646186 Y224.272610

G00 Z4.875000 (Fast pre-penetrate)
G01 Z-0.125000 F400.0(Penetrate)
G01 X90.317715 Y200.434441 Z-0.125000 F800.000000
G01 X92.721346 Y176.864170 Z-0.125000
G01 X88.918770 Y159.500107 Z-0.125000
G01 X94.143789 Y133.108447 Z-0.125000
G01 X88.537223 Y117.548374 Z-0.125000
G01 X97.372625 Y87.546331 Z-0.125000
G01 X94.418744 Y69.333573 Z-0.125000
G00 Z3.000000

(End cutting path id: path570)


(Start cutting path id: path572)
(Change tool to Default tool)

G00 Z3.000000
G00 X88.573320 Y224.403809

G00 Z4.875000 (Fast pre-penetrate)
G01 Z-0.125000 F400.0(Penetrate)
G01 X91.350557 Y200.459931 Z-0.125000 F800.000000
G01 X93.220453 Y177.423396 Z-0.125000
G01 X89.977602 Y159.499607 Z-0.125000
G01 X95.321636 Y132.988932 Z-0.125000
G01 X89.160842 Y117.983086 Z-0.125000
G01 X98.971312 Y87.005976 Z-0.125000
G01 X95.492938 Y69.317711 Z-0.125000
G00 Z3.000000

(End cutting path id: path572)


(Start cutting path id: path574)
(Change tool to Default tool)

G00 Z3.000000
G00 X89.500453 Y224.535008

G00 Z4.875000 (Fast pre-penetrate)
G01 Z-0.125000 F400.0(Penetrate)
G01 X92.383397 Y200.485424 Z-0.125000 F800.000000
G01 X93.719559 Y177.982621 Z-0.125000
G01 X91.036431 Y159.499109 Z-0.125000
G01 X96.499480 Y132.869420 Z-0.125000
G01 X89.784461 Y118.417799 Z-0.125000
G01 X100.570000 Y86.465621 Z-0.125000
G01 X96.567131 Y69.301849 Z-0.125000
G00 Z3.000000

(End cutting path id: path574)


(Start cutting path id: path576)
(Change tool to Default tool)

G00 Z3.000000
G00 X90.427586 Y224.666206

G00 Z4.875000 (Fast pre-penetrate)
G01 Z-0.125000 F400.0(Penetrate)
G01 X93.416239 Y200.510914 Z-0.125000 F800.000000
G01 X94.218666 Y178.541846 Z-0.125000
G01 X92.095261 Y159.498612 Z-0.125000
G01 X97.677324 Y132.749908 Z-0.125000
G01 X90.408084 Y118.852509 Z-0.125000
G01 X102.168687 Y85.925266 Z-0.125000
G01 X97.641322 Y69.285990 Z-0.125000
G00 Z3.000000

(End cutting path id: path576)


(Start cutting path id: path578)
(Change tool to Default tool)

G00 Z3.000000
G00 X91.354719 Y224.797405

G00 Z4.875000 (Fast pre-penetrate)
G01 Z-0.125000 F400.0(Penetrate)
G01 X94.449078 Y200.536406 Z-0.125000 F800.000000
G01 X94.717770 Y179.101074 Z-0.125000
G01 X93.154093 Y159.498112 Z-0.125000
G01 X98.855168 Y132.630396 Z-0.125000
G01 X91.031703 Y119.287221 Z-0.125000
G01 X103.767374 Y85.384910 Z-0.125000
G01 X98.715516 Y69.270128 Z-0.125000
G00 Z3.000000

(End cutting path id: path578)


(Start cutting path id: path580)
(Change tool to Default tool)

G00 Z3.000000
G00 X92.281852 Y224.928604

G00 Z4.875000 (Fast pre-penetrate)
G01 Z-0.125000 F400.0(Penetrate)
G01 X95.481920 Y200.561896 Z-0.125000 F800.000000
G01 X95.216877 Y179.660299 Z-0.125000
G01 X94.212922 Y159.497614 Z-0.125000
G01 X100.033015 Y132.510881 Z-0.125000
G01 X91.655325 Y119.721931 Z-0.125000
G01 X105.366061 Y84.844555 Z-0.125000
G01 X99.789710 Y69.254267 Z-0.125000
G00 Z3.000000

(End cutting path id: path580)



(Footer)
M5
G00 X0.0000 Y0.0000
M2
(Using default footer. To add your own footer create file "footer" in the output dir.)
(end)
%