%
(Header)
(Generated by gcodetools from Inkscape.)
(Using default header. To add your own header create file "header" in the output dir.)
M3
(Header end.)
G21 (All units in mm)

(Start cutting path id: path612)
(Change tool to Default tool)

G00 Z3.000000
G00 X14.871012 Y211.670536

G00 Z4.875000 (Fast pre-penetrate)
G01 Z-0.125000 F400.0(Penetrate)
G02 X15.189012 Y211.598749 Z-0.125000 I-3.762322 J-17.406457 F800.000000
G02 X15.508562 Y211.519726 Z-0.125000 I-3.351208 J-14.237134
G02 X15.826339 Y211.433917 Z-0.125000 I-4.104715 J-15.832445
G02 X16.146109 Y211.339952 Z-0.125000 I-3.752696 J-13.361772
G02 X16.463643 Y211.238699 Z-0.125000 I-4.502990 J-14.670012
G02 X16.783659 Y211.128336 Z-0.125000 I-4.236042 J-12.802315
G02 X17.100937 Y211.010310 Z-0.125000 I-4.975874 J-13.861621
G02 X17.421209 Y210.882226 Z-0.125000 I-4.838202 J-12.562323
G02 X17.738237 Y210.746266 Z-0.125000 I-5.561382 J-13.405430
G02 X18.058758 Y210.599348 Z-0.125000 I-5.589687 J-12.617727
G02 X18.375570 Y210.444515 Z-0.125000 I-6.279554 J-13.250495
G02 X18.696308 Y210.277943 Z-0.125000 I-6.560271 J-13.024003
G02 X19.012954 Y210.103610 Z-0.125000 I-7.177266 J-13.410999
G02 X19.333858 Y209.916943 Z-0.125000 I-7.822334 J-13.816765
G02 X19.650413 Y209.722863 Z-0.125000 I-8.308385 J-13.906637
G02 X19.971408 Y209.516139 Z-0.125000 I-9.503215 J-15.108902
G02 X20.287964 Y209.302522 Z-0.125000 I-9.757311 J-14.800517
G02 X20.608955 Y209.076339 Z-0.125000 I-11.824997 J-17.122525
G02 X20.925614 Y208.843939 Z-0.125000 I-11.633063 J-16.182732
G02 X21.246505 Y208.599523 Z-0.125000 I-15.198341 J-20.286544
G02 X21.563371 Y208.349711 Z-0.125000 I-14.158416 J-18.284653
G02 X21.884054 Y208.088987 Z-0.125000 I-20.556860 J-25.611914
G02 X22.201235 Y207.823810 Z-0.125000 I-17.739540 J-21.540774
G02 X22.521604 Y207.549444 Z-0.125000 I-30.594687 J-36.048642
G02 X22.839206 Y207.271678 Z-0.125000 I-23.289098 J-26.949671
G02 X23.159154 Y206.987094 Z-0.125000 I-57.693289 J-65.184458
G02 X23.477276 Y206.700281 Z-0.125000 I-33.501612 J-37.478522
G02 X23.796704 Y206.409652 Z-0.125000 I-524.198734 J-576.463680
G02 X24.115439 Y206.118092 Z-0.125000 I-60.805176 J-66.792546
G03 X24.434253 Y205.826305 Z-0.125000 I68.687967 J74.730463
G02 X24.753682 Y205.535041 Z-0.125000 I-548.862975 J-602.257167
G03 X25.071801 Y205.247617 Z-0.125000 I29.940164 J32.817799
G03 X25.391986 Y204.962380 Z-0.125000 I65.271619 J72.946626
G03 X25.709350 Y204.685354 Z-0.125000 I17.669651 J19.922292
G03 X26.030322 Y204.412463 Z-0.125000 I26.905282 J31.320541
G03 X26.346900 Y204.152246 Z-0.125000 I11.456288 J13.614927
G02 X26.670685 Y203.892056 Z-0.125000 I-286.290041 J-356.596144
G03 X26.984450 Y203.661645 Z-0.125000 I2.774979 J3.450025
G02 X27.316626 Y203.410669 Z-0.125000 I-2.009509 J-3.004966
G03 X27.622000 Y203.299555 Z-0.125000 I0.302237 J0.355453
G03 X27.932512 Y203.429558 Z-0.125000 I-0.002754 J0.442410
G02 X28.259550 Y203.670210 Z-0.125000 I0.947017 J-0.944421
G02 X28.582058 Y203.830032 Z-0.125000 I3.806735 J-7.276380
G02 X28.897099 Y203.966635 Z-0.125000 I2.509199 J-5.355252
G02 X29.214056 Y204.067967 Z-0.125000 I0.874200 J-2.188046
G03 X29.534646 Y204.179654 Z-0.125000 I-0.416787 J1.712329
G03 X29.848668 Y204.351781 Z-0.125000 I-1.075406 J2.334436
G02 X30.172196 Y204.554044 Z-0.125000 I8.314861 J-12.940075
G03 X30.492460 Y204.759070 Z-0.125000 I-4.274806 J7.030179
G02 X30.809746 Y204.955001 Z-0.125000 I2.647215 J-3.931964
G02 X31.132843 Y205.127457 Z-0.125000 I3.819560 J-6.767048
G02 X31.447296 Y205.273747 Z-0.125000 I2.494479 J-4.950844
G02 X31.763744 Y205.380766 Z-0.125000 I0.842516 J-1.969893
G03 X32.084846 Y205.500360 Z-0.125000 I-0.388635 J1.534328
G03 X32.398812 Y205.691453 Z-0.125000 I-1.009126 J2.011466
G02 X32.722395 Y205.913437 Z-0.125000 I4.238017 J-5.830862
G03 X33.043738 Y206.126944 Z-0.125000 I-8.461255 J13.083386
G02 X33.359945 Y206.324988 Z-0.125000 I2.677526 J-3.923604
G02 X33.682720 Y206.496230 Z-0.125000 I2.795543 J-4.879519
G02 X33.997492 Y206.643953 Z-0.125000 I4.636273 J-9.469834
G02 X34.311780 Y206.759439 Z-0.125000 I0.978806 J-2.178372
G03 X34.635042 Y206.897935 Z-0.125000 I-0.399444 J1.378848
G03 X34.950069 Y207.129542 Z-0.125000 I-0.926724 J1.590554
G02 X35.272592 Y207.386900 Z-0.125000 I2.082537 J-2.279084
G02 X35.596898 Y207.600730 Z-0.125000 I4.673156 J-6.734714
G02 X35.910142 Y207.782708 Z-0.125000 I2.918868 J-4.663736
G02 X36.227807 Y207.924783 Z-0.125000 I1.133005 J-2.107112
G03 X36.547691 Y208.072535 Z-0.125000 I-0.707826 J1.952604
G03 X36.861932 Y208.276786 Z-0.125000 I-1.579588 J2.774053
G02 X37.185241 Y208.508771 Z-0.125000 I9.292286 J-12.609022
G03 X37.506608 Y208.743861 Z-0.125000 I-5.209606 J7.458704
G02 X37.822791 Y208.963145 Z-0.125000 I2.484856 J-3.245295
G02 X38.142445 Y209.137311 Z-0.125000 I1.599726 J-2.555622
G03 X38.460338 Y209.306934 Z-0.125000 I-1.480981 J3.158233
G03 X38.774876 Y209.506678 Z-0.125000 I-4.006782 J6.657002
G03 X39.097888 Y209.730632 Z-0.125000 I-6.638125 J9.919211
G03 X39.418074 Y209.980961 Z-0.125000 I-2.900443 J4.039768
G02 X39.735438 Y210.222433 Z-0.125000 I2.391822 J-2.814253
G02 X40.060935 Y210.428909 Z-0.125000 I3.478223 J-5.123409
G02 X40.372987 Y210.596265 Z-0.125000 I2.152398 J-3.638766
G02 X40.697304 Y210.736637 Z-0.125000 I1.835811 J-3.796646
G02 X41.010537 Y210.838975 Z-0.125000 I1.163349 J-3.030199
G02 X41.332048 Y210.908646 Z-0.125000 I0.835191 J-3.077502
G02 X41.648087 Y210.942305 Z-0.125000 I0.459923 J-2.817815
G02 X41.965813 Y210.940451 Z-0.125000 I0.142387 J-2.823876
G02 X42.285634 Y210.903316 Z-0.125000 I-0.186549 J-3.002437
G02 X42.600078 Y210.832117 Z-0.125000 I-0.506879 J-2.968544
G02 X42.923184 Y210.724583 Z-0.125000 I-1.030958 J-3.636863
G02 X43.235883 Y210.587993 Z-0.125000 I-1.343875 J-3.502815
G02 X43.560734 Y210.414116 Z-0.125000 I-2.383820 J-4.844017
G02 X43.873215 Y210.217609 Z-0.125000 I-2.588102 J-4.462262
G02 X44.198283 Y209.985036 Z-0.125000 I-4.708166 J-6.924086
G02 X44.511555 Y209.735969 Z-0.125000 I-4.484170 J-5.961648
G02 X44.835833 Y209.455021 Z-0.125000 I-8.968814 J-10.679667
G02 X45.150426 Y209.162763 Z-0.125000 I-7.413470 J-8.295472
G02 X45.473383 Y208.845514 Z-0.125000 I-18.340297 J-18.993292
G02 X45.789533 Y208.521215 Z-0.125000 I-12.256182 J-12.264427
G02 X46.110933 Y208.180778 Z-0.125000 I-57.168797 J-54.294046
G02 X46.428719 Y207.836887 Z-0.125000 I-22.148253 J-20.785757
G03 X46.748480 Y207.486825 Z-0.125000 I90.738470 J82.563002
G02 X47.067904 Y207.136522 Z-0.125000 I-62.147842 J-56.990319
G03 X47.386030 Y206.790273 Z-0.125000 I26.466477 J23.997555
G03 X47.707025 Y206.446886 Z-0.125000 I84.626504 J78.786337
G03 X48.023579 Y206.117198 Z-0.125000 I14.696638 J13.794364
G03 X48.346014 Y205.793621 Z-0.125000 I22.589945 J22.187742
G03 X48.661129 Y205.492057 Z-0.125000 I9.280230 J9.381840
G03 X48.984765 Y205.200200 Z-0.125000 I11.311375 J12.217648
G03 X49.298679 Y204.936689 Z-0.125000 I6.038993 J6.875374
G03 X49.623095 Y204.686986 Z-0.125000 I6.424652 J8.011341
G03 X49.936229 Y204.469497 Z-0.125000 I3.906035 J5.289620
G03 X50.260741 Y204.270407 Z-0.125000 I3.744167 J5.738894
G03 X50.573779 Y204.104790 Z-0.125000 I2.463474 J4.277643
G03 X50.897422 Y203.962305 Z-0.125000 I2.138730 J4.419132
G03 X51.211326 Y203.852381 Z-0.125000 I1.469194 J3.692329
G03 X51.533062 Y203.769575 Z-0.125000 I1.121784 J3.692179
G03 X51.848875 Y203.717366 Z-0.125000 I0.737462 J3.479679
G03 X52.168063 Y203.694309 Z-0.125000 I0.406169 J3.401911
G03 X52.486425 Y203.700169 Z-0.125000 I0.092328 J3.635471
G03 X52.803221 Y203.734447 Z-0.125000 I-0.217087 J3.487335
G03 X53.123975 Y203.796733 Z-0.125000 I-0.650165 J4.205146
G03 X53.439210 Y203.884231 Z-0.125000 I-0.920569 J3.928226
G03 X53.761525 Y203.998989 Z-0.125000 I-1.704457 J5.297247
G03 X54.076192 Y204.134373 Z-0.125000 I-1.861814 J4.760689
G03 X54.399075 Y204.295401 Z-0.125000 I-3.368746 J7.159022
G03 X54.713964 Y204.472227 Z-0.125000 I-3.211553 J6.087869
G03 X55.036624 Y204.671646 Z-0.125000 I-6.198303 J10.389629
G03 X55.352226 Y204.882446 Z-0.125000 I-5.216025 J8.150902
G03 X55.674172 Y205.111380 Z-0.125000 I-11.702795 J16.798201
G03 X55.990740 Y205.347876 Z-0.125000 I-8.384986 J11.554079
G03 X56.311721 Y205.597017 Z-0.125000 I-26.969859 J35.078059
G03 X56.629347 Y205.850447 Z-0.125000 I-14.211222 J18.136768
G03 X56.949271 Y206.110501 Z-0.125000 I-493.157511 J607.020113
G03 X57.267947 Y206.371989 Z-0.125000 I-29.923661 J36.792931
G02 X57.586821 Y206.634047 Z-0.125000 I36.731936 J-44.370598
G03 X57.906479 Y206.894956 Z-0.125000 I-607.190474 J744.241518
G02 X58.224371 Y207.150781 Z-0.125000 I18.105949 J-22.173251
G02 X58.544889 Y207.403028 Z-0.125000 I33.910136 J-42.758180
G02 X58.861920 Y207.645292 Z-0.125000 I11.670203 J-14.943321
G02 X59.183134 Y207.881635 Z-0.125000 I15.611122 J-20.880601
G02 X59.499470 Y208.104084 Z-0.125000 I8.207213 J-11.335010
G02 X59.821160 Y208.318312 Z-0.125000 I9.428573 J-13.809490
G02 X60.137017 Y208.515881 Z-0.125000 I5.971881 J-9.196118
G02 X60.458922 Y208.702992 Z-0.125000 I6.221911 J-10.333657
G02 X60.774567 Y208.871822 Z-0.125000 I4.390601 J-7.829228
G02 X61.096380 Y209.028110 Z-0.125000 I4.248351 J-8.338288
G02 X61.412117 Y209.165543 Z-0.125000 I3.219078 J-6.964075
G02 X61.733532 Y209.288645 Z-0.125000 I2.915037 J-7.129897
G02 X62.049667 Y209.393135 Z-0.125000 I2.316078 J-6.476854
G02 X62.370428 Y209.481998 Z-0.125000 I1.955086 J-6.433729
G02 X62.687216 Y209.553022 Z-0.125000 I1.581076 J-6.310078
G02 X63.007169 Y209.607802 Z-0.125000 I1.211599 J-6.114787
G02 X63.324766 Y209.645775 Z-0.125000 I0.932513 J-6.452330
G02 X63.643895 Y209.667646 Z-0.125000 I0.579497 J-6.116401
G02 X63.962316 Y209.673823 Z-0.125000 I0.293503 J-6.919416
G02 X64.280735 Y209.664770 Z-0.125000 I-0.024098 J-6.451925
G02 X64.599863 Y209.641197 Z-0.125000 I-0.411957 J-7.749073
G02 X64.917771 Y209.603844 Z-0.125000 I-0.666466 J-7.043672
G02 X65.237413 Y209.553178 Z-0.125000 I-1.278198 J-9.097622
G02 X65.555029 Y209.490560 Z-0.125000 I-1.417911 J-8.028862
G02 X65.874963 Y209.416000 Z-0.125000 I-2.419045 J-11.103663
G02 X66.192488 Y209.331455 Z-0.125000 I-2.355836 J-9.486292
G02 X66.512513 Y209.236518 Z-0.125000 I-4.021867 J-14.144207
G02 X66.830108 Y209.133563 Z-0.125000 I-3.586358 J-11.604556
G02 X67.150062 Y209.021935 Z-0.125000 I-6.439902 J-18.972864
G02 X67.467834 Y208.904149 Z-0.125000 I-5.281783 J-14.737142
G02 X67.787612 Y208.779525 Z-0.125000 I-10.528482 J-27.487830
G02 X68.105627 Y208.650450 Z-0.125000 I-7.797620 J-19.668153
G02 X68.425162 Y208.516415 Z-0.125000 I-18.966446 J-45.663326
G02 X68.743446 Y208.379461 Z-0.125000 I-11.968112 J-28.252483
G02 X69.062709 Y208.239386 Z-0.125000 I-47.590230 J-108.902923
G02 X69.381264 Y208.097757 Z-0.125000 I-20.452663 J-46.431668
G03 X69.700259 Y207.954735 Z-0.125000 I235.776489 J525.443588
G02 X70.019062 Y207.811362 Z-0.125000 I-49.091986 J-109.587307
G03 X70.337809 Y207.668159 Z-0.125000 I39.247334 J86.932061
G03 X70.656826 Y207.525654 Z-0.125000 I233.031967 J521.244204
G03 X70.975358 Y207.384677 Z-0.125000 I22.651808 J50.750735
G03 X71.294551 Y207.245309 Z-0.125000 I37.915882 J86.402858
G03 X71.612908 Y207.108601 Z-0.125000 I16.335228 J37.601370
G03 X71.932230 Y206.974275 Z-0.125000 I21.276814 J50.132740
G03 X72.250458 Y206.843510 Z-0.125000 I12.906540 J30.956656
G03 X72.569867 Y206.715772 Z-0.125000 I14.949188 J36.917255
G03 X72.888008 Y206.592275 Z-0.125000 I10.730802 J27.172147
G03 X73.207463 Y206.472325 Z-0.125000 I11.589006 J30.378923
G03 X73.525555 Y206.357085 Z-0.125000 I9.207914 J24.919450
G03 X73.845022 Y206.245795 Z-0.125000 I9.460809 J26.643914
G03 X74.163105 Y206.139502 Z-0.125000 I8.055341 J23.576659
G03 X74.482551 Y206.037441 Z-0.125000 I7.971277 J24.398632
G03 X74.800654 Y205.940507 Z-0.125000 I7.155796 J22.912421
G03 X75.120053 Y205.847978 Z-0.125000 I6.870808 J23.119823
G03 X75.438204 Y205.760574 Z-0.125000 I6.426698 J22.770485
G03 X75.757540 Y205.677652 Z-0.125000 I6.017574 J22.517473
G03 X76.075754 Y205.599745 Z-0.125000 I5.821595 J23.089657
G03 X76.395017 Y205.526298 Z-0.125000 I5.327187 J22.425840
G03 X76.713304 Y205.457680 Z-0.125000 I5.298846 J23.806320
G03 X77.032491 Y205.393420 Z-0.125000 I4.752392 J22.780907
G03 X77.350853 Y205.333741 Z-0.125000 I4.845426 J24.969428
G03 X77.669968 Y205.278248 Z-0.125000 I4.260829 J23.556861
G03 X77.988401 Y205.227048 Z-0.125000 I4.436424 J26.575849
G03 X78.307449 Y205.179805 Z-0.125000 I3.825206 J24.732207
G03 X78.625950 Y205.136537 Z-0.125000 I4.066064 J28.736542
G03 X78.944938 Y205.096959 Z-0.125000 I3.440195 J26.422198
G03 X79.263500 Y205.061019 Z-0.125000 I3.707248 J31.430256
G03 X79.582433 Y205.028472 Z-0.125000 I3.076457 J28.566947
G03 X79.901050 Y204.999218 Z-0.125000 I3.363716 J34.886571
G03 X80.219938 Y204.973048 Z-0.125000 I2.752124 J31.579046
G03 X80.538600 Y204.949818 Z-0.125000 I3.015318 J39.165873
G03 X80.857452 Y204.929344 Z-0.125000 I2.376347 J34.515480
G03 X81.176150 Y204.911493 Z-0.125000 I2.672955 J44.866710
G03 X81.494974 Y204.896074 Z-0.125000 I2.066232 J39.420863
G03 X81.813699 Y204.882934 Z-0.125000 I2.295049 J51.795699
G03 X82.132504 Y204.871923 Z-0.125000 I1.708321 J44.841186
G03 X82.451246 Y204.862879 Z-0.125000 I1.897324 J61.243750
G03 X82.770041 Y204.855658 Z-0.125000 I1.316051 J51.066599
G03 X83.088796 Y204.850126 Z-0.125000 I1.435547 J73.520544
G03 X83.407581 Y204.846114 Z-0.125000 I0.929819 J61.217148
G03 X83.726346 Y204.843511 Z-0.125000 I0.876196 J87.788439
G03 X84.045122 Y204.842221 Z-0.125000 I0.455396 J73.155837
G03 X84.363896 Y204.841924 Z-0.125000 I0.318775 J170.696063
G03 X84.682669 Y204.842820 Z-0.125000 I-0.071598 J82.154311
G03 X85.001446 Y204.844569 Z-0.125000 I-1.028172 J216.378004
G03 X85.320215 Y204.847109 Z-0.125000 I-0.569279 J91.450010
G03 X85.638995 Y204.850443 Z-0.125000 I-2.072476 J213.415148
G03 X85.957765 Y204.854349 Z-0.125000 I-1.704610 J152.129162
G03 X86.276545 Y204.858751 Z-0.125000 I-4.171614 J313.635922
G03 X86.595316 Y204.863609 Z-0.125000 I-2.882025 J199.560208
G03 X86.914092 Y204.868805 Z-0.125000 I-9.859586 J614.674503
G03 X87.232867 Y204.874292 Z-0.125000 I-5.026167 J301.270571
G03 X87.551642 Y204.879997 Z-0.125000 I-18.172541 J1024.383527
G03 X87.870418 Y204.885844 Z-0.125000 I-9.904079 J548.677627
G02 X88.189192 Y204.891771 Z-0.125000 I71.581308 J-3843.733479
G03 X88.507967 Y204.897734 Z-0.125000 I-19.156009 J1025.038169
G02 X88.826742 Y204.903677 Z-0.125000 I13.879767 J-732.059692
G02 X89.145517 Y204.909548 Z-0.125000 I284.041808 J-15256.910117
G02 X89.464291 Y204.915319 Z-0.125000 I9.752075 J-530.046655
G02 X89.783066 Y204.920938 Z-0.125000 I16.090619 J-903.865582
G02 X90.101841 Y204.926378 Z-0.125000 I7.246404 J-415.231239
G02 X90.420616 Y204.931604 Z-0.125000 I9.154591 J-548.776941
G02 X90.739391 Y204.936591 Z-0.125000 I5.622676 J-349.173365
G02 X91.058166 Y204.941308 Z-0.125000 I6.142122 J-404.365696
G02 X91.376938 Y204.945746 Z-0.125000 I4.810064 J-334.028408
G02 X91.695717 Y204.949883 Z-0.125000 I4.591733 J-341.502367
G02 X92.014488 Y204.953683 Z-0.125000 I3.372824 J-269.558054
G02 X92.333266 Y204.957153 Z-0.125000 I5.554455 J-495.720313
G02 X92.652038 Y204.960324 Z-0.125000 I2.750390 J-260.408925
G02 X92.970813 Y204.963076 Z-0.125000 I16.734534 J-1919.693717
G02 X93.289587 Y204.965590 Z-0.125000 I2.052244 J-240.065588
G02 X93.608362 Y204.967716 Z-0.125000 I1.490402 J-199.520144
G02 X93.927137 Y204.969426 Z-0.125000 I1.841094 J-313.515929
G02 X94.245911 Y204.970815 Z-0.125000 I1.275085 J-256.044754
G02 X94.564687 Y204.971807 Z-0.125000 I0.956338 J-256.041381
G02 X94.883461 Y204.972535 Z-0.125000 I1.912438 J-768.131047
G02 X95.202234 Y204.972866 Z-0.125000 I0.318782 J-153.625133
G02 X95.521011 Y204.972904 Z-0.125000 I0.195324 J-301.823464
G02 X95.839784 Y204.972622 Z-0.125000 I-0.137322 J-336.159748
G02 X96.158560 Y204.972027 Z-0.125000 I-0.318792 J-256.043442
G02 X96.477334 Y204.971035 Z-0.125000 I-0.637529 J-256.043896
G02 X96.796108 Y204.969811 Z-0.125000 I-5.736703 J-1536.532370
G02 X97.114883 Y204.968389 Z-0.125000 I-1.211414 J-307.248975
G02 X97.433658 Y204.966639 Z-0.125000 I-1.561187 J-313.546685
G02 X97.752433 Y204.964711 Z-0.125000 I-18.444362 J-3071.235546
G02 X98.071205 Y204.962538 Z-0.125000 I-1.677822 J-269.533879
G02 X98.389983 Y204.960108 Z-0.125000 I-5.420795 J-731.739941
G02 X98.708755 Y204.957528 Z-0.125000 I-1.912830 J-256.062587
G02 X99.027533 Y204.954710 Z-0.125000 I-11.161394 J-1280.810006
G02 X99.346305 Y204.951780 Z-0.125000 I-2.910528 J-333.996523
G02 X99.665080 Y204.948651 Z-0.125000 I-10.614516 J-1097.435646
G02 X99.983856 Y204.945407 Z-0.125000 I-7.289495 J-731.461049
G02 X100.302630 Y204.942063 Z-0.125000 I-17.722007 J-1706.937524
G01 X100.940179 Y204.935052 Z-0.125000
G02 X101.258954 Y204.931433 Z-0.125000 I-12.328578 J-1097.827379
G03 X101.577729 Y204.927775 Z-0.125000 I89.859901 J7699.840498
G02 X101.896504 Y204.924098 Z-0.125000 I-5.379966 J-480.215305
G03 X102.215279 Y204.920341 Z-0.125000 I22.794703 J1921.700577
G02 X102.534051 Y204.916637 Z-0.125000 I-4.304164 J-384.126743
G03 X102.852829 Y204.912853 Z-0.125000 I11.553083 J959.951341
G02 X103.171601 Y204.909169 Z-0.125000 I-5.058141 J-451.915388
G03 X103.490379 Y204.905445 Z-0.125000 I8.302781 J698.216557
G01 X104.127926 Y204.898195 Z-0.125000
G03 X104.446703 Y204.894663 Z-0.125000 I14.334806 J1280.981942
G03 X104.765475 Y204.891210 Z-0.125000 I14.047319 J1280.471358
G01 X105.403025 Y204.884543 Z-0.125000
G01 X106.040575 Y204.878272 Z-0.125000
G03 X106.359351 Y204.875272 Z-0.125000 I2.887285 J289.865520
G03 X106.678125 Y204.872451 Z-0.125000 I136.010668 J15419.048483
G03 X106.996898 Y204.869733 Z-0.125000 I7.437511 J853.494451
G03 X107.315675 Y204.867133 Z-0.125000 I7.118945 J853.349598
G02 X107.634448 Y204.864706 Z-0.125000 I-8.200459 J-1097.448049
G03 X107.953224 Y204.862318 Z-0.125000 I4.585816 J590.823653
G03 X108.271999 Y204.860089 Z-0.125000 I2.494564 J333.984049
G03 X108.590772 Y204.858058 Z-0.125000 I7.153198 J1097.363000
G03 X108.909549 Y204.856103 Z-0.125000 I10.617528 J1707.621606
G03 X109.228321 Y204.854327 Z-0.125000 I2.061970 J341.402671
G02 X109.547098 Y204.852736 Z-0.125000 I-66.817218 J-15324.915213
G02 X109.865871 Y204.851126 Z-0.125000 I-15.745515 J-3072.272181
G03 X110.184646 Y204.849700 Z-0.125000 I1.561328 J313.517623
G03 X110.503421 Y204.848453 Z-0.125000 I12.180809 J3073.577359
G03 X110.822196 Y204.847296 Z-0.125000 I5.732073 J1536.078093
G03 X111.140971 Y204.846337 Z-0.125000 I1.084070 J307.261907
G02 X111.459744 Y204.845444 Z-0.125000 I-1.275236 J-512.093883
G03 X111.778520 Y204.844749 Z-0.125000 I0.531305 J170.696124
G01 X112.416070 Y204.843426 Z-0.125000
G01 X113.053617 Y204.842633 Z-0.125000
G02 X113.372394 Y204.842281 Z-0.125000 I-19.673669 J-19191.534581
G03 X113.691167 Y204.842103 Z-0.125000 I0.318471 J286.614546
G03 X114.009944 Y204.841965 Z-0.125000 I0.677343 J1146.496555
G03 X114.328717 Y204.841902 Z-0.125000 I0.439384 J1634.312362
G03 X114.647492 Y204.841908 Z-0.125000 I0.169303 J1371.665574
G03 X114.966267 Y204.841976 Z-0.125000 I-0.319076 J1920.312810
G03 X115.285042 Y204.842100 Z-0.125000 I-1.070475 J2104.512413
G02 X115.603816 Y204.842241 Z-0.125000 I9.875147 J-8086.274076
G03 X115.922589 Y204.842458 Z-0.125000 I-3.387337 J4800.851447
G03 X116.241366 Y204.842770 Z-0.125000 I-0.424004 J600.122171
G03 X116.560139 Y204.843143 Z-0.125000 I-0.681581 J711.233208
G02 X116.878916 Y204.843564 Z-0.125000 I3.052480 J-2133.538056
G01 X117.516463 Y204.844358 Z-0.125000
G03 X117.835240 Y204.844788 Z-0.125000 I-1.917347 J1536.170580
G03 X118.154013 Y204.845416 Z-0.125000 I-0.446090 J307.251006
G01 X118.791563 Y204.846474 Z-0.125000
G01 X119.429113 Y204.847533 Z-0.125000
G03 X119.747887 Y204.848095 Z-0.125000 I-0.382762 J307.257933
G03 X120.066662 Y204.848856 Z-0.125000 I-3.500631 J1536.142636
G01 X120.704212 Y204.850179 Z-0.125000
G01 X121.341762 Y204.851501 Z-0.125000
G01 X121.979309 Y204.853089 Z-0.125000
G01 X122.616859 Y204.854676 Z-0.125000
G01 X123.254409 Y204.856264 Z-0.125000
G01 X123.891958 Y204.858116 Z-0.125000
G03 X124.210733 Y204.859075 Z-0.125000 I-0.765021 J307.262867
G03 X124.529508 Y204.860233 Z-0.125000 I-5.420144 J1536.079222
G02 X124.848278 Y204.860927 Z-0.125000 I0.382535 J-102.418942
G03 X125.167058 Y204.862614 Z-0.125000 I-0.021257 J34.142282
G02 X125.485766 Y204.864909 Z-0.125000 I0.575631 J-57.794096
G03 X125.804608 Y204.872245 Z-0.125000 I-0.038202 J8.593696
G03 X126.123264 Y204.892076 Z-0.125000 I-0.330971 J7.888400
G02 X126.442155 Y204.916184 Z-0.125000 I1.902499 J-23.043899
G02 X126.760934 Y204.938011 Z-0.125000 I84.997377 J-1238.171323
G02 X127.079705 Y204.959771 Z-0.125000 I144.447289 J-2116.222741
G02 X127.398483 Y204.981476 Z-0.125000 I78.256643 J-1146.144834
G02 X127.717254 Y205.003126 Z-0.125000 I387.851150 J-5730.471257
G02 X128.036030 Y205.024744 Z-0.125000 I285.045509 J-4140.518195
G02 X128.354804 Y205.046343 Z-0.125000 I604.995582 J-9226.746003
G01 X128.992354 Y205.089499 Z-0.125000
G01 X129.629904 Y205.132639 Z-0.125000
G01 X130.267453 Y205.175790 Z-0.125000
G01 X130.905001 Y205.218938 Z-0.125000
G03 X131.223778 Y205.240496 Z-0.125000 I-443.618653 J6613.040065
G02 X131.542550 Y205.262036 Z-0.125000 I135.392224 J-2006.006158
G02 X131.861329 Y205.283540 Z-0.125000 I502.721846 J-7469.012777
G02 X132.180100 Y205.304994 Z-0.125000 I80.745718 J-1196.890964
G02 X132.498878 Y205.326379 Z-0.125000 I486.533924 J-7256.223763
G02 X132.817650 Y205.347682 Z-0.125000 I46.050068 J-686.629578
G02 X133.136430 Y205.368871 Z-0.125000 I76.545112 J-1149.266389
G02 X133.455200 Y205.389912 Z-0.125000 I33.041685 J-498.133431
G02 X133.773980 Y205.410789 Z-0.125000 I42.603321 J-648.078586
G02 X134.092750 Y205.431446 Z-0.125000 I23.831149 J-365.276973
G02 X134.411532 Y205.451863 Z-0.125000 I32.230126 J-500.730590
G02 X134.730299 Y205.471986 Z-0.125000 I16.936832 J-265.768451
G02 X135.049074 Y205.491587 Z-0.125000 I9.896465 J-158.321998
G03 X135.367846 Y205.511160 Z-0.125000 I-10.481633 J173.283390
G02 X135.686384 Y205.528322 Z-0.125000 I1.187899 J-19.082889
G03 X136.005396 Y205.551443 Z-0.125000 I-0.270723 J5.947832
G03 X136.323811 Y205.591613 Z-0.125000 I-0.606596 J6.090379
G02 X136.642946 Y205.638086 Z-0.125000 I3.428195 J-22.422738
G03 X136.961669 Y205.682595 Z-0.125000 I-17.570392 J126.981420
G03 X137.280496 Y205.727877 Z-0.125000 I-20.871800 J148.101333
G03 X137.599222 Y205.773877 Z-0.125000 I-19.225505 J134.337667
G03 X137.918046 Y205.820582 Z-0.125000 I-24.815330 J170.510341
G03 X138.236775 Y205.867925 Z-0.125000 I-21.760246 J147.593755
G03 X138.555595 Y205.915877 Z-0.125000 I-31.982464 J213.727962
G03 X138.874333 Y205.964367 Z-0.125000 I-25.862062 J171.067039
G03 X139.193145 Y206.013344 Z-0.125000 I-46.824062 J305.864576
G03 X139.511894 Y206.062723 Z-0.125000 I-32.593227 J211.446521
G03 X139.830692 Y206.112435 Z-0.125000 I-102.095732 J655.773015
G03 X140.149458 Y206.162392 Z-0.125000 I-47.663511 J305.175522
G02 X140.468242 Y206.212493 Z-0.125000 I278.599451 J-1771.646805
G03 X140.787025 Y206.262639 Z-0.125000 I-103.115044 J656.521984
G02 X141.105792 Y206.312701 Z-0.125000 I51.146872 J-324.625532
G02 X141.424593 Y206.362580 Z-0.125000 I252.491461 J-1612.743848
G02 X141.743342 Y206.412107 Z-0.125000 I26.153349 J-167.267208
G02 X142.062164 Y206.461176 Z-0.125000 I50.427090 J-326.588670
G02 X142.380891 Y206.509585 Z-0.125000 I16.413313 J-106.992530
G02 X142.699736 Y206.557218 Z-0.125000 I25.016638 J-166.365394
G02 X143.018441 Y206.603837 Z-0.125000 I11.316674 J-76.251431
G02 X143.337309 Y206.649316 Z-0.125000 I15.413054 J-106.926229
G02 X143.655991 Y206.693383 Z-0.125000 I8.108382 J-57.463684
G02 X143.974881 Y206.735894 Z-0.125000 I10.306496 J-76.094132
G02 X144.293538 Y206.776552 Z-0.125000 I5.916040 J-45.098639
G02 X144.612376 Y206.814540 Z-0.125000 I4.129195 J-33.299723
G03 X144.931088 Y206.851492 Z-0.125000 I-11.206279 J98.046352
G02 X145.248947 Y206.882924 Z-0.125000 I1.006188 J-8.552281
G03 X145.568638 Y206.926494 Z-0.125000 I-0.232745 J2.902415
G03 X145.886106 Y207.005712 Z-0.125000 I-0.578804 J2.995305
G02 X146.206187 Y207.097888 Z-0.125000 I2.748941 J-8.943880
G03 X146.524995 Y207.183716 Z-0.125000 I-113.034262 J420.499777
G02 X146.843737 Y207.269248 Z-0.125000 I35.982724 J-133.456069
G02 X147.162616 Y207.354289 Z-0.125000 I124.856619 J-467.534303
G02 X147.481287 Y207.438417 Z-0.125000 I19.507303 J-73.246792
G02 X147.800244 Y207.521470 Z-0.125000 I34.971379 J-133.650671
G02 X148.118834 Y207.602903 Z-0.125000 I12.527727 J-48.348122
G02 X148.437874 Y207.682590 Z-0.125000 I18.361945 J-72.836591
G02 X148.756384 Y207.759869 Z-0.125000 I8.659977 J-34.997318
G02 X149.075498 Y207.834640 Z-0.125000 I11.400954 J-47.939871
G02 X149.393934 Y207.906144 Z-0.125000 I6.172929 J-26.745645
G02 X149.713105 Y207.974280 Z-0.125000 I7.556649 J-34.616038
G02 X150.031483 Y208.038232 Z-0.125000 I4.429452 J-21.227268
G02 X150.350547 Y208.096972 Z-0.125000 I3.539549 J-18.330119
G02 X150.669033 Y208.152357 Z-0.125000 I23.328000 J-133.202035
G02 X150.986158 Y208.197517 Z-0.125000 I0.922638 J-5.342985
G03 X151.306583 Y208.258410 Z-0.125000 I-0.240210 J2.137502
G03 X151.623141 Y208.368610 Z-0.125000 I-0.613128 J2.271018
G02 X151.944133 Y208.496603 Z-0.125000 I2.540337 J-5.904366
G02 X152.263294 Y208.613424 Z-0.125000 I35.512167 J-96.526997
G02 X152.581680 Y208.727526 Z-0.125000 I11.327240 J-31.105832
G02 X152.901027 Y208.838946 Z-0.125000 I16.984812 J-48.167710
G02 X153.219230 Y208.946233 Z-0.125000 I7.621878 J-22.080249
G02 X153.538740 Y209.049561 Z-0.125000 I10.049124 J-30.528204
G02 X153.856779 Y209.147266 Z-0.125000 I5.302823 J-16.694765
G02 X154.176408 Y209.239576 Z-0.125000 I6.391005 J-21.529669
G02 X154.494329 Y209.324737 Z-0.125000 I3.700829 J-13.179753
G02 X154.814000 Y209.402921 Z-0.125000 I4.133653 J-16.208707
G02 X155.131879 Y209.472449 Z-0.125000 I2.524081 J-10.778611
G02 X155.451474 Y209.533302 Z-0.125000 I2.599836 J-12.784466
G02 X155.769429 Y209.584045 Z-0.125000 I1.614583 J-9.095452
G02 X156.088797 Y209.624375 Z-0.125000 I1.485197 J-10.476203
G02 X156.406979 Y209.653215 Z-0.125000 I0.879413 J-7.932875
G02 X156.725946 Y209.669964 Z-0.125000 I0.627610 J-8.906400
G02 X157.044526 Y209.673905 Z-0.125000 I0.248017 J-7.170397
G02 X157.362925 Y209.664316 Z-0.125000 I-0.078731 J-7.904775
G02 X157.682075 Y209.640647 Z-0.125000 I-0.338245 J-6.724516
G02 X157.999780 Y209.602410 Z-0.125000 I-0.710600 J-7.243255
G02 X158.319625 Y209.548797 Z-0.125000 I-0.942351 J-6.602764
G02 X158.636601 Y209.480150 Z-0.125000 I-1.342066 J-6.963123
G02 X158.957175 Y209.394897 Z-0.125000 I-1.631959 J-6.781926
G02 X159.273505 Y209.294791 Z-0.125000 I-2.038158 J-6.990344
G02 X159.594725 Y209.177021 Z-0.125000 I-2.498235 J-7.310903
G02 X159.910594 Y209.045219 Z-0.125000 I-2.874015 J-7.332098
G02 X160.232275 Y208.895097 Z-0.125000 I-3.667834 J-8.279137
G02 X160.547943 Y208.732309 Z-0.125000 I-3.934158 J-8.016326
G02 X160.869824 Y208.551237 Z-0.125000 I-5.355801 J-9.897342
G02 X161.185579 Y208.359252 Z-0.125000 I-5.339522 J-9.137458
G02 X161.507372 Y208.149989 Z-0.125000 I-7.992413 J-12.642338
G02 X161.823494 Y207.931820 Z-0.125000 I-7.284543 J-10.893249
G02 X162.144921 Y207.698549 Z-0.125000 I-12.722649 J-17.868868
G02 X162.461658 Y207.458542 Z-0.125000 I-10.177968 J-13.760790
G02 X162.782471 Y207.206875 Z-0.125000 I-24.307134 J-31.315932
G02 X163.100033 Y206.950752 Z-0.125000 I-15.153087 J-19.112926
G02 X163.420021 Y206.687647 Z-0.125000 I-121.809817 J-148.471058
G02 X163.738582 Y206.422515 Z-0.125000 I-26.970631 J-32.729618
G03 X164.057571 Y206.156144 Z-0.125000 I41.067528 J48.855832
G02 X164.377255 Y205.890395 Z-0.125000 I-128.030673 J-154.340478
G03 X164.695120 Y205.629910 Z-0.125000 I16.325516 J19.597525
G03 X165.015995 Y205.373051 Z-0.125000 I37.759508 J46.841315
G03 X165.332670 Y205.128271 Z-0.125000 I9.165433 J11.530206
G02 X165.666058 Y204.833078 Z-0.125000 I-1.668519 J-2.220261
G03 X165.970217 Y204.671683 Z-0.125000 I0.397964 J0.382689
G03 X166.282706 Y204.732630 Z-0.125000 I0.076102 J0.441380
G02 X166.607767 Y204.908427 Z-0.125000 I1.620403 J-2.607819
G03 X166.926254 Y205.085729 Z-0.125000 I-1.062441 J2.283153
G02 X167.245317 Y205.265042 Z-0.125000 I1.468199 J-2.238936
G02 X167.568261 Y205.403356 Z-0.125000 I1.936493 J-4.075275
G02 X167.882867 Y205.514340 Z-0.125000 I2.245303 J-5.863340
G02 X168.195978 Y205.580367 Z-0.125000 I0.470617 J-1.456328
G03 X168.520416 Y205.677096 Z-0.125000 I-0.093874 J0.907326
G03 X168.833378 Y205.903307 Z-0.125000 I-0.594629 J1.152261
G02 X169.157966 Y206.172355 Z-0.125000 I1.775032 J-1.811133
G02 X169.482925 Y206.387206 Z-0.125000 I4.506969 J-6.463554
G02 X169.795516 Y206.566203 Z-0.125000 I2.425804 J-3.873855
G02 X170.118284 Y206.713664 Z-0.125000 I1.575555 J-3.021660
G02 X170.433063 Y206.837215 Z-0.125000 I25.565730 J-64.672512
G02 X170.745729 Y206.934279 Z-0.125000 I0.842764 J-2.162629
G03 X171.070613 Y207.063101 Z-0.125000 I-0.272335 J1.160906
G03 X171.385075 Y207.303567 Z-0.125000 I-0.775054 J1.339398
G02 X171.708163 Y207.575061 Z-0.125000 I1.808146 J-1.823772
G00 Z3.000000

(End cutting path id: path612)


(Start cutting path id: path610)
(Change tool to Default tool)

G00 Z3.000000
G00 X14.871012 Y208.378226

G00 Z4.875000 (Fast pre-penetrate)
G01 Z-0.125000 F400.0(Penetrate)
G02 X15.188397 Y208.250641 Z-0.125000 I-5.981811 J-15.339048 F800.000000
G02 X15.508562 Y208.114056 Z-0.125000 I-6.269147 J-15.138900
G02 X15.825818 Y207.970789 Z-0.125000 I-6.794615 J-15.469112
G02 X16.146109 Y207.818162 Z-0.125000 I-7.307318 J-15.747026
G02 X16.463277 Y207.659057 Z-0.125000 I-7.752008 J-15.848926
G02 X16.783659 Y207.490381 Z-0.125000 I-8.630665 J-16.781590
G02 X17.100785 Y207.315550 Z-0.125000 I-8.910247 J-16.537395
G02 X17.421209 Y207.131135 Z-0.125000 I-10.365651 J-18.381031
G02 X17.738355 Y206.941020 Z-0.125000 I-10.364554 J-17.649495
G02 X18.058758 Y206.741579 Z-0.125000 I-12.752000 J-20.843311
G02 X18.375997 Y206.537008 Z-0.125000 I-12.242721 J-19.333640
G02 X18.696308 Y206.323705 Z-0.125000 I-16.261174 J-24.766092
G02 X19.013714 Y206.105957 Z-0.125000 I-14.769184 J-21.868847
G02 X19.333858 Y205.880452 Z-0.125000 I-22.012478 J-31.590596
G02 X19.651511 Y205.651304 Z-0.125000 I-18.393906 J-25.833032
G02 X19.971408 Y205.415796 Z-0.125000 I-33.447790 J-45.768146
G02 X20.289388 Y205.177560 Z-0.125000 I-24.244596 J-32.691213
G02 X20.608955 Y204.934811 Z-0.125000 I-69.294971 J-91.555060
G02 X20.927342 Y204.690363 Z-0.125000 I-35.728525 J-46.865136
G03 X21.246505 Y204.443697 Z-0.125000 I577.174207 J746.478849
G02 X21.565365 Y204.196496 Z-0.125000 I-71.737122 J-92.861658
G03 X21.884054 Y203.949776 Z-0.125000 I51.495225 J66.187468
G03 X22.203447 Y203.703849 Z-0.125000 I559.016105 J725.680124
G03 X22.521604 Y203.461443 Z-0.125000 I25.042458 J32.538177
G03 X22.841572 Y203.221349 Z-0.125000 I48.754956 J64.641502
G03 X23.159154 Y202.988051 Z-0.125000 I15.330386 J20.535980
G03 X23.479711 Y202.758828 Z-0.125000 I22.568002 J31.221422
G03 X23.796704 Y202.539758 Z-0.125000 I10.171088 J14.378608
G02 X24.125758 Y202.295057 Z-0.125000 I-2.514631 J-3.725083
G03 X24.434253 Y202.127294 Z-0.125000 I0.597626 J0.731433
G03 X24.754442 Y202.083416 Z-0.125000 I0.284244 J0.884024
G03 X25.071801 Y202.129675 Z-0.125000 I-0.058654 J1.514141
G03 X25.385905 Y202.271906 Z-0.125000 I-0.247426 J0.964371
G02 X25.709350 Y202.454361 Z-0.125000 I1.224487 J-1.792778
G02 X26.031213 Y202.593084 Z-0.125000 I3.459152 J-7.583134
G02 X26.346900 Y202.711332 Z-0.125000 I2.305954 J-5.675677
G02 X26.662334 Y202.792179 Z-0.125000 I0.662075 J-1.927388
G03 X26.984450 Y202.892368 Z-0.125000 I-0.220265 J1.276084
G03 X27.298545 Y203.079977 Z-0.125000 I-0.722375 J1.566127
G02 X27.622000 Y203.299468 Z-0.125000 I2.423110 J-3.222764
G02 X27.943718 Y203.493511 Z-0.125000 I19.654368 J-32.222780
G02 X28.259550 Y203.670123 Z-0.125000 I3.325002 J-5.575335
G02 X28.582058 Y203.829945 Z-0.125000 I3.806735 J-7.276380
G02 X28.897099 Y203.966548 Z-0.125000 I2.509199 J-5.355252
G02 X29.214056 Y204.067880 Z-0.125000 I0.874200 J-2.188046
G03 X29.534646 Y204.179566 Z-0.125000 I-0.416787 J1.712329
G03 X29.848668 Y204.351693 Z-0.125000 I-1.075406 J2.334436
G02 X30.172196 Y204.553957 Z-0.125000 I8.314861 J-12.940075
G03 X30.492460 Y204.758983 Z-0.125000 I-4.274806 J7.030179
G02 X30.809746 Y204.954914 Z-0.125000 I2.647215 J-3.931964
G02 X31.132843 Y205.127370 Z-0.125000 I3.819560 J-6.767048
G02 X31.447296 Y205.273660 Z-0.125000 I2.494479 J-4.950844
G02 X31.763744 Y205.380679 Z-0.125000 I0.842516 J-1.969893
G03 X32.084846 Y205.500272 Z-0.125000 I-0.388635 J1.534328
G03 X32.398812 Y205.691365 Z-0.125000 I-1.009126 J2.011466
G02 X32.722395 Y205.913350 Z-0.125000 I4.238017 J-5.830862
G03 X33.043738 Y206.126856 Z-0.125000 I-8.461255 J13.083386
G02 X33.359945 Y206.324901 Z-0.125000 I2.677526 J-3.923604
G02 X33.682720 Y206.496142 Z-0.125000 I2.795543 J-4.879519
G02 X33.997492 Y206.643866 Z-0.125000 I4.636273 J-9.469834
G02 X34.311780 Y206.759351 Z-0.125000 I0.978806 J-2.178372
G03 X34.635042 Y206.897847 Z-0.125000 I-0.399444 J1.378848
G03 X34.950069 Y207.129455 Z-0.125000 I-0.926724 J1.590554
G02 X35.272592 Y207.386813 Z-0.125000 I2.082537 J-2.279084
G02 X35.596898 Y207.600643 Z-0.125000 I4.673156 J-6.734714
G02 X35.910142 Y207.782621 Z-0.125000 I2.918868 J-4.663736
G02 X36.227807 Y207.924696 Z-0.125000 I1.133005 J-2.107112
G03 X36.547691 Y208.072448 Z-0.125000 I-0.707826 J1.952604
G03 X36.861932 Y208.276699 Z-0.125000 I-1.579588 J2.774053
G02 X37.185241 Y208.508684 Z-0.125000 I9.292286 J-12.609022
G03 X37.506608 Y208.743774 Z-0.125000 I-5.209606 J7.458704
G02 X37.822791 Y208.963058 Z-0.125000 I2.484856 J-3.245295
G02 X38.147580 Y209.152782 Z-0.125000 I3.260388 J-5.208593
G02 X38.460338 Y209.306846 Z-0.125000 I2.063933 J-3.795398
G02 X38.783930 Y209.435046 Z-0.125000 I1.757966 J-3.964828
G02 X39.097888 Y209.528429 Z-0.125000 I1.129689 J-3.223599
G02 X39.418944 Y209.591087 Z-0.125000 I0.807458 J-3.283550
G02 X39.735438 Y209.620414 Z-0.125000 I0.440274 J-3.028870
G02 X40.053199 Y209.616660 Z-0.125000 I0.122988 J-3.039552
G02 X40.372987 Y209.580034 Z-0.125000 I-0.206322 J-3.215814
G02 X40.687859 Y209.511572 Z-0.125000 I-0.526310 J-3.178956
G02 X41.010537 Y209.409319 Z-0.125000 I-1.033542 J-3.821797
G02 X41.323776 Y209.279519 Z-0.125000 I-1.344842 J-3.688294
G02 X41.648087 Y209.115100 Z-0.125000 I-2.314835 J-4.967986
G02 X41.961002 Y208.928770 Z-0.125000 I-2.528778 J-4.602628
G02 X42.285634 Y208.708754 Z-0.125000 I-4.445766 J-6.909200
G02 X42.599151 Y208.472375 Z-0.125000 I-4.297348 J-6.025829
G02 X42.923184 Y208.205763 Z-0.125000 I-8.205986 J-10.303524
G02 X43.237824 Y207.927621 Z-0.125000 I-6.975639 J-8.208040
G02 X43.560734 Y207.625096 Z-0.125000 I-15.896534 J-17.291231
G02 X43.876753 Y207.315091 Z-0.125000 I-11.276923 J-11.811769
G02 X44.198283 Y206.988403 Z-0.125000 I-40.602212 J-40.282877
G02 X44.515787 Y206.657685 Z-0.125000 I-19.463411 J-19.003472
G03 X44.835833 Y206.319135 Z-0.125000 I234.616721 J221.473090
G02 X45.154837 Y205.979629 Z-0.125000 I-44.928844 J-42.535209
G03 X45.473383 Y205.641546 Z-0.125000 I33.007829 J30.781321
G03 X45.793848 Y205.305442 Z-0.125000 I214.623476 J204.316217
G03 X46.110933 Y204.979713 Z-0.125000 I17.151461 J16.379080
G03 X46.432761 Y204.658961 Z-0.125000 I29.123069 J28.898918
G03 X46.748480 Y204.356557 Z-0.125000 I10.711613 J10.867233
G03 X47.071488 Y204.062382 Z-0.125000 I13.761226 J14.785628
G03 X47.386030 Y203.792953 Z-0.125000 I7.030550 J7.889388
G03 X47.709892 Y203.535406 Z-0.125000 I7.791726 J9.465607
G03 X48.023579 Y203.306948 Z-0.125000 I4.637701 J6.038284
G03 X48.347766 Y203.094470 Z-0.125000 I4.622490 J6.699199
G03 X48.661129 Y202.913137 Z-0.125000 I3.009287 J4.838937
G03 X48.984874 Y202.752128 Z-0.125000 I2.732889 J5.089105
G03 X49.298679 Y202.622210 Z-0.125000 I1.879895 J4.096750
G03 X49.621063 Y202.516620 Z-0.125000 I1.538459 J4.152237
G03 X49.936229 Y202.440693 Z-0.125000 I1.065376 J3.730186
G03 X50.256502 Y202.391795 Z-0.125000 I0.726760 J3.686860
G03 X50.573779 Y202.370867 Z-0.125000 I0.404617 J3.718571
G03 X50.891748 Y202.377468 Z-0.125000 I0.084289 J3.601179
G03 X51.211326 Y202.410906 Z-0.125000 I-0.265035 J4.076896
G03 X51.527471 Y202.469974 Z-0.125000 I-0.558858 J3.866706
G03 X51.848875 Y202.555159 Z-0.125000 I-1.121611 J4.880768
G03 X52.164031 Y202.662334 Z-0.125000 I-1.350559 J4.488378
G03 X52.486425 Y202.794583 Z-0.125000 I-2.385584 J6.274621
G03 X52.801400 Y202.944450 Z-0.125000 I-2.437131 J5.528023
G03 X53.123975 Y203.117300 Z-0.125000 I-4.403404 J8.605118
G03 X53.439353 Y203.303463 Z-0.125000 I-3.997932 J7.133100
G03 X53.761525 Y203.509235 Z-0.125000 I-7.907617 J12.735861
G03 X54.077651 Y203.724451 Z-0.125000 I-6.333554 J9.643018
G03 X54.399075 Y203.954785 Z-0.125000 I-15.210423 J21.565075
G03 X54.716120 Y204.191210 Z-0.125000 I-10.146415 J13.937070
G03 X55.036624 Y204.437522 Z-0.125000 I-40.631310 J53.201824
G03 X55.354640 Y204.687016 Z-0.125000 I-17.737803 J22.936779
G02 X55.674172 Y204.940859 Z-0.125000 I144.772469 J-181.907809
G03 X55.993136 Y205.195304 Z-0.125000 I-43.781123 J55.209789
G02 X56.311721 Y205.448671 Z-0.125000 I29.040797 J-36.189202
G02 X56.631553 Y205.700269 Z-0.125000 I137.937426 J-175.016347
G02 X56.949271 Y205.945830 Z-0.125000 I16.202917 J-20.635821
G02 X57.269847 Y206.187383 Z-0.125000 I26.460999 J-34.784032
G02 X57.586821 Y206.418672 Z-0.125000 I10.887902 J-14.588714
G02 X57.907979 Y206.643791 Z-0.125000 I13.856932 J-19.426843
G02 X58.224371 Y206.855345 Z-0.125000 I7.833212 J-11.372676
G02 X58.545904 Y207.058624 Z-0.125000 I8.768329 J-13.513200
G02 X58.861920 Y207.246049 Z-0.125000 I5.787202 J-9.397650
G02 X59.183588 Y207.423188 Z-0.125000 I5.946699 J-10.418007
G02 X59.499470 Y207.583183 Z-0.125000 I4.317559 J-8.132428
G02 X59.821007 Y207.731057 Z-0.125000 I4.144517 J-8.588318
G02 X60.137017 Y207.861379 Z-0.125000 I3.209758 J-7.334869
G02 X60.458170 Y207.978058 Z-0.125000 I2.896476 J-7.472082
G02 X60.774567 Y208.077459 Z-0.125000 I2.341073 J-6.898491
G02 X61.095124 Y208.162156 Z-0.125000 I1.976989 J-6.833451
G02 X61.412117 Y208.230295 Z-0.125000 I1.622028 J-6.774458
G02 X61.731961 Y208.283275 Z-0.125000 I1.249584 J-6.551853
G02 X62.049667 Y208.320640 Z-0.125000 I0.978866 J-6.953823
G02 X62.368797 Y208.343053 Z-0.125000 I0.622110 J-6.574799
G02 X62.687216 Y208.350876 Z-0.125000 I0.342593 J-7.459756
G02 X63.005727 Y208.344605 Z-0.125000 I0.025402 J-6.800997
G02 X63.324766 Y208.324762 Z-0.125000 I-0.362479 J-8.402822
G02 X63.642823 Y208.292131 Z-0.125000 I-0.613463 J-7.545785
G02 X63.962316 Y208.247146 Z-0.125000 I-1.201359 J-9.689533
G02 X64.280105 Y208.190955 Z-0.125000 I-1.350889 J-8.566619
G02 X64.599863 Y208.123689 Z-0.125000 I-2.290923 J-11.683935
G02 X64.917558 Y208.046971 Z-0.125000 I-2.255463 J-10.036190
G02 X65.237413 Y207.960593 Z-0.125000 I-3.791214 J-14.673988
G02 X65.555148 Y207.866528 Z-0.125000 I-3.421590 J-12.141233
G02 X65.874963 Y207.764343 Z-0.125000 I-5.997127 J-19.321240
G02 X66.192833 Y207.656164 Z-0.125000 I-5.005468 J-15.228947
G02 X66.512513 Y207.541493 Z-0.125000 I-9.550157 J-27.126910
G02 X66.830578 Y207.422386 Z-0.125000 I-7.289358 J-19.949861
G02 X67.150062 Y207.298447 Z-0.125000 I-16.332271 J-42.574365
G02 X67.468350 Y207.171489 Z-0.125000 I-10.918162 J-27.834626
G02 X67.787612 Y207.041323 Z-0.125000 I-34.722189 J-85.620536
G02 X68.106128 Y206.909399 Z-0.125000 I-17.771608 J-43.358038
G02 X68.425162 Y206.775803 Z-0.125000 I-313.176838 J-748.331906
G02 X68.743893 Y206.641562 Z-0.125000 I-36.301091 J-86.636148
G03 X69.062709 Y206.507048 Z-0.125000 I55.937513 J132.133390
G02 X69.381633 Y206.372860 Z-0.125000 I-309.352105 J-735.685599
G03 X69.700259 Y206.239626 Z-0.125000 I27.636721 J65.644592
G03 X70.019340 Y206.107563 Z-0.125000 I54.638447 J131.562725
G03 X70.337809 Y205.977490 Z-0.125000 I19.014629 J46.100087
G03 X70.657009 Y205.849307 Z-0.125000 I26.281460 J64.984396
G03 X70.975358 Y205.723951 Z-0.125000 I14.782663 J37.074482
G03 X71.294644 Y205.601089 Z-0.125000 I17.700821 J45.523604
G03 X71.612908 Y205.481701 Z-0.125000 I12.204747 J32.051459
G03 X71.932243 Y205.365293 Z-0.125000 I13.480105 J36.482765
G03 X72.250458 Y205.252826 Z-0.125000 I10.442944 J29.041090
G03 X72.569812 Y205.143722 Z-0.125000 I10.954719 J31.543071
G03 X72.888008 Y205.038863 Z-0.125000 I9.164956 J27.276054
G03 X73.207355 Y204.937644 Z-0.125000 I9.235041 J28.582295
G03 X73.525555 Y204.840836 Z-0.125000 I8.195172 J26.365458
G03 X73.844878 Y204.747847 Z-0.125000 I8.000062 J26.877237
G03 X74.163105 Y204.659316 Z-0.125000 I7.412102 J26.026930
G03 X74.482384 Y204.574692 Z-0.125000 I7.050026 J25.954358
G03 X74.800654 Y204.494478 Z-0.125000 I6.773353 J26.203816
G03 X75.119879 Y204.418177 Z-0.125000 I6.295813 J25.634207
G03 X75.438204 Y204.346161 Z-0.125000 I6.250732 J26.889841
G03 X75.757371 Y204.277996 Z-0.125000 I5.695429 J25.886293
G03 X76.075754 Y204.213931 Z-0.125000 I5.795984 J27.980708
G03 X76.394860 Y204.153591 Z-0.125000 I5.194379 J26.596399
G03 X76.713304 Y204.097122 Z-0.125000 I5.397124 J29.510084
G03 X77.032353 Y204.044206 Z-0.125000 I4.758925 J27.704690
G03 X77.350853 Y203.994903 Z-0.125000 I5.058694 J31.626386
G03 X77.669851 Y203.948941 Z-0.125000 I4.388168 J29.325403
G03 X77.988401 Y203.906316 Z-0.125000 I4.745738 J34.254851
G03 X78.307355 Y203.866787 Z-0.125000 I4.058888 J31.444639
G03 X78.625950 Y203.830312 Z-0.125000 I4.460058 J37.546441
G03 X78.944865 Y203.796676 Z-0.125000 I3.770112 J34.217278
G03 X79.263500 Y203.765798 Z-0.125000 I4.201496 J41.697141
G03 X79.582379 Y203.737497 Z-0.125000 I3.516904 J37.815426
G03 X79.901050 Y203.711662 Z-0.125000 I3.945937 J46.694121
G03 X80.219902 Y203.688130 Z-0.125000 I3.204749 J41.251387
G03 X80.538600 Y203.666799 Z-0.125000 I3.745034 J53.562540
G03 X80.857428 Y203.647499 Z-0.125000 I2.962031 J46.286631
G03 X81.176150 Y203.630131 Z-0.125000 I3.523662 J61.730601
G03 X81.494961 Y203.614534 Z-0.125000 I2.770096 J53.356559
G03 X81.813699 Y203.600619 Z-0.125000 I3.226938 J70.260593
G03 X82.132499 Y203.588236 Z-0.125000 I2.531192 J61.053416
G03 X82.451246 Y203.577283 Z-0.125000 I3.095290 J85.435280
G03 X82.770041 Y203.567642 Z-0.125000 I2.302709 J70.865206
G03 X83.088796 Y203.559212 Z-0.125000 I2.887854 J103.167842
G03 X83.407584 Y203.551879 Z-0.125000 I2.091551 J83.998793
G03 X83.726346 Y203.545559 Z-0.125000 I2.636621 J124.941766
G03 X84.045127 Y203.540152 Z-0.125000 I1.863095 J100.433338
G03 X84.363896 Y203.535558 Z-0.125000 I2.540501 J165.228585
G03 X84.682674 Y203.531715 Z-0.125000 I1.677669 J125.936278
G03 X85.001446 Y203.528547 Z-0.125000 I2.021741 J187.373267
G03 X85.320220 Y203.525987 Z-0.125000 I2.028660 J232.777388
G03 X85.638995 Y203.523864 Z-0.125000 I1.709788 J232.766015
G03 X85.957769 Y203.522217 Z-0.125000 I0.937594 J150.616013
G03 X86.276545 Y203.521006 Z-0.125000 I2.103745 J512.063343
G03 X86.595319 Y203.520113 Z-0.125000 I0.637469 J170.695990
G02 X86.914092 Y203.519419 Z-0.125000 I-0.955586 J-512.088204
G03 X87.232869 Y203.519055 Z-0.125000 I1.908148 J1536.363442
G03 X87.551642 Y203.518890 Z-0.125000 I0.318957 J307.250726
G03 X87.870419 Y203.518857 Z-0.125000 I0.213066 J537.162109
G03 X88.189192 Y203.518948 Z-0.125000 I-0.338056 J1786.328411
G03 X88.507967 Y203.519136 Z-0.125000 I-0.249496 J695.150492
G03 X88.826742 Y203.519477 Z-0.125000 I-0.523715 J637.444147
G02 X89.145516 Y203.519702 Z-0.125000 I3.009298 J-3840.332535
G03 X89.464291 Y203.520006 Z-0.125000 I-0.367176 J548.658216
G02 X89.783064 Y203.520240 Z-0.125000 I1.083141 J-1269.626854
G03 X90.101841 Y203.520535 Z-0.125000 I-0.303077 J500.425843
G02 X90.420614 Y203.520759 Z-0.125000 I3.768223 J-4955.592849
G03 X90.739391 Y203.521064 Z-0.125000 I-0.373328 J554.624648
G02 X91.058164 Y203.521200 Z-0.125000 I1.172008 J-2194.647064
G02 X91.376938 Y203.521284 Z-0.125000 I0.577748 J-1786.340399
G02 X91.695715 Y203.521312 Z-0.125000 I0.267907 J-1850.949446
G02 X92.014488 Y203.521287 Z-0.125000 I0.064423 J-1944.619612
G02 X92.333265 Y203.521209 Z-0.125000 I-0.125868 J-1669.848005
G02 X92.652038 Y203.521083 Z-0.125000 I-1.392241 J-2954.304672
G02 X92.970813 Y203.520925 Z-0.125000 I-1.964567 J-4518.630405
G03 X93.289587 Y203.520818 Z-0.125000 I0.425764 J808.564473
G02 X93.608360 Y203.520599 Z-0.125000 I-6.069532 J-10973.550897
G02 X93.927137 Y203.520289 Z-0.125000 I-0.414992 J-586.378624
G03 X94.245910 Y203.520062 Z-0.125000 I1.966924 J2648.694820
G02 X94.564687 Y203.519760 Z-0.125000 I-0.346803 J-537.171097
G03 X94.883460 Y203.519537 Z-0.125000 I4.356910 J6982.976359
G02 X95.202234 Y203.519231 Z-0.125000 I-0.374852 J-560.676958
G03 X95.521011 Y203.519086 Z-0.125000 I1.496430 J2898.761083
G03 X95.839784 Y203.519006 Z-0.125000 I0.422058 J1059.486039
G03 X96.158561 Y203.519009 Z-0.125000 I0.128344 J1669.866552
G03 X96.477334 Y203.519106 Z-0.125000 I-0.077533 J783.800944
G03 X96.796108 Y203.519313 Z-0.125000 I-0.583160 J1172.746958
G03 X97.114883 Y203.519636 Z-0.125000 I-0.544242 J688.896145
G03 X97.433658 Y203.520066 Z-0.125000 I-1.909043 J1536.361855
G03 X97.752433 Y203.520694 Z-0.125000 I-0.446427 J307.249476
G03 X98.071206 Y203.521521 Z-0.125000 I-3.821690 J1536.291699
G03 X98.389983 Y203.522546 Z-0.125000 I-0.829011 J307.270171
G03 X98.708755 Y203.523776 Z-0.125000 I-4.785451 J1280.259594
G03 X99.027533 Y203.525245 Z-0.125000 I-1.020012 J256.063394
G03 X99.346306 Y203.526994 Z-0.125000 I-1.561461 J313.530617
G03 X99.665080 Y203.528923 Z-0.125000 I-18.418918 J3072.640325
G03 X99.983856 Y203.531122 Z-0.125000 I-1.471332 J236.349698
G03 X100.302630 Y203.533659 Z-0.125000 I-3.144591 J415.223034
G03 X100.621405 Y203.536493 Z-0.125000 I-7.874902 J903.521990
G03 X100.940179 Y203.539585 Z-0.125000 I-2.283811 J251.867051
G03 X101.258952 Y203.542982 Z-0.125000 I-2.284183 J229.333989
G03 X101.577729 Y203.546755 Z-0.125000 I-3.710161 J326.882249
G03 X101.896502 Y203.550843 Z-0.125000 I-5.314631 J426.870904
G03 X102.215279 Y203.555249 Z-0.125000 I-3.379359 J256.073352
G03 X102.534049 Y203.559991 Z-0.125000 I-4.074228 J284.561668
G03 X102.852829 Y203.565091 Z-0.125000 I-4.393910 J284.616244
G03 X103.171599 Y203.570535 Z-0.125000 I-5.089179 J307.349927
G03 X103.490379 Y203.576336 Z-0.125000 I-4.663204 J265.010695
G03 X103.809149 Y203.582477 Z-0.125000 I-5.035155 J269.618291
G03 X104.127926 Y203.588956 Z-0.125000 I-6.782163 J341.537363
G03 X104.446699 Y203.595799 Z-0.125000 I-6.064341 J289.939033
G03 X104.765475 Y203.602979 Z-0.125000 I-6.905710 J313.672489
G03 X105.084248 Y203.610497 Z-0.125000 I-6.678384 J289.960891
G03 X105.403025 Y203.618352 Z-0.125000 I-7.570468 J313.703116
G03 X105.721796 Y203.626527 Z-0.125000 I-8.056074 J320.334209
G03 X106.040575 Y203.635020 Z-0.125000 I-8.372147 J320.219810
G03 X106.359346 Y203.643827 Z-0.125000 I-8.880343 J327.191489
G03 X106.678125 Y203.652933 Z-0.125000 I-10.050851 J357.476832
G03 X106.996894 Y203.662332 Z-0.125000 I-9.697076 J334.279794
G03 X107.315675 Y203.672009 Z-0.125000 I-12.129767 J404.828490
G03 X107.634443 Y203.681947 Z-0.125000 I-11.534738 J375.088328
G03 X107.953224 Y203.692144 Z-0.125000 I-13.140839 J415.825666
G03 X108.271994 Y203.702568 Z-0.125000 I-11.270382 J349.522481
G03 X108.590772 Y203.713231 Z-0.125000 I-18.214090 J549.288031
G03 X108.909545 Y203.724085 Z-0.125000 I-17.288287 J512.396156
G03 X109.228321 Y203.735138 Z-0.125000 I-17.615293 J512.651121
G03 X109.547095 Y203.746357 Z-0.125000 I-16.746778 J480.419144
G03 X109.865871 Y203.757734 Z-0.125000 I-34.146948 J961.180034
G03 X110.184643 Y203.769253 Z-0.125000 I-20.439780 J570.035803
G03 X110.503421 Y203.780911 Z-0.125000 I-37.308982 J1024.564192
G03 X110.822194 Y203.792672 Z-0.125000 I-35.340703 J962.360702
G03 X111.140971 Y203.804512 Z-0.125000 I-71.151001 J1919.435919
G03 X111.459742 Y203.816441 Z-0.125000 I-30.133646 J809.847946
G02 X111.778520 Y203.828430 Z-0.125000 I563.400525 J-15100.521015
G03 X112.097293 Y203.840472 Z-0.125000 I-116.798320 J3079.192738
G03 X112.416070 Y203.852534 Z-0.125000 I-576.612217 J15682.059083
G01 X113.053617 Y203.876690 Z-0.125000
G02 X113.372395 Y203.888752 Z-0.125000 R15692.491232
G02 X113.691167 Y203.900794 Z-0.125000 I119.331241 J-3079.094486
G02 X114.009945 Y203.912799 Z-0.125000 I97.090329 J-2572.168295
G02 X114.328717 Y203.924765 Z-0.125000 I96.405255 J-2565.621553
G02 X114.647435 Y203.935380 Z-0.125000 I1.473289 J-39.445351
G03 X114.966267 Y203.948498 Z-0.125000 I-0.393275 J13.439661
G03 X115.284831 Y203.967425 Z-0.125000 I-1.300987 J24.587421
G03 X115.603816 Y203.992308 Z-0.125000 I-0.875243 J13.277394
G03 X115.922439 Y204.026284 Z-0.125000 I-0.880373 J9.766915
G02 X116.241366 Y204.063354 Z-0.125000 I2.861516 J-23.228569
G02 X116.560175 Y204.097850 Z-0.125000 I15.921074 J-145.648770
G02 X116.878916 Y204.131658 Z-0.125000 I16.776627 J-156.648749
G02 X117.197723 Y204.164813 Z-0.125000 I15.629476 J-148.741207
G02 X117.516463 Y204.197301 Z-0.125000 I16.846926 J-163.702055
G02 X117.835271 Y204.229157 Z-0.125000 I15.534329 J-153.853080
G02 X118.154013 Y204.260378 Z-0.125000 I17.171756 J-173.669644
G02 X118.472818 Y204.290990 Z-0.125000 I16.194440 J-166.979493
G02 X118.791563 Y204.321007 Z-0.125000 I17.270724 J-181.686171
G02 X119.110363 Y204.350446 Z-0.125000 I16.523785 J-177.197277
G02 X119.429113 Y204.379329 Z-0.125000 I17.842225 J-195.132278
G02 X119.747910 Y204.407670 Z-0.125000 I16.678544 J-185.802911
G02 X120.066662 Y204.435490 Z-0.125000 I18.597910 J-211.254115
G02 X120.385455 Y204.462813 Z-0.125000 I16.948059 J-195.868336
G02 X120.704212 Y204.489652 Z-0.125000 I19.824384 J-233.534748
G02 X121.023003 Y204.516040 Z-0.125000 I17.530848 J-209.849975
G02 X121.341762 Y204.541987 Z-0.125000 I21.515163 J-262.347385
G02 X121.660551 Y204.567525 Z-0.125000 I18.757712 J-232.147608
G02 X121.979309 Y204.592668 Z-0.125000 I23.516314 J-296.105057
G02 X122.298099 Y204.617443 Z-0.125000 I21.136876 J-269.912952
G02 X122.616859 Y204.641872 Z-0.125000 I25.630972 J-332.345655
G02 X122.935647 Y204.665981 Z-0.125000 I21.497259 J-282.139566
G02 X123.254409 Y204.689778 Z-0.125000 I29.887283 J-398.197291
G02 X123.573193 Y204.713295 Z-0.125000 I27.664937 J-372.831290
G02 X123.891958 Y204.736561 Z-0.125000 I33.147521 J-451.954753
G02 X124.210741 Y204.759593 Z-0.125000 I25.329220 J-348.367353
G02 X124.529508 Y204.782395 Z-0.125000 I44.928612 J-625.849148
G02 X124.848287 Y204.805004 Z-0.125000 I39.259134 J-551.280391
G02 X125.167058 Y204.827446 Z-0.125000 I48.604776 J-688.132731
G02 X125.485836 Y204.849730 Z-0.125000 I35.885882 J-511.058025
G02 X125.804608 Y204.871866 Z-0.125000 I75.465072 J-1084.419679
G02 X126.123385 Y204.893892 Z-0.125000 I43.871658 J-632.614985
G02 X126.442155 Y204.915806 Z-0.125000 I115.480048 J-1677.693666
G02 X126.760934 Y204.937632 Z-0.125000 I84.917105 J-1238.176821
G02 X127.079705 Y204.959393 Z-0.125000 I144.681783 J-2116.206757
G02 X127.398483 Y204.981097 Z-0.125000 I78.170236 J-1146.150714
G02 X127.717254 Y205.002748 Z-0.125000 I390.011129 J-5730.325021
G02 X128.036030 Y205.024365 Z-0.125000 I285.045509 J-4140.518195
G02 X128.354804 Y205.045965 Z-0.125000 I604.995569 J-9226.745908
G01 X128.992354 Y205.089121 Z-0.125000
G01 X129.629904 Y205.132261 Z-0.125000
G01 X130.267453 Y205.175412 Z-0.125000
G01 X130.905001 Y205.218560 Z-0.125000
G03 X131.223778 Y205.240118 Z-0.125000 I-443.618647 J6613.040016
G02 X131.542550 Y205.261658 Z-0.125000 I135.392225 J-2006.006163
G02 X131.861329 Y205.283162 Z-0.125000 I502.721837 J-7469.012715
G02 X132.180100 Y205.304616 Z-0.125000 I80.745717 J-1196.890963
G02 X132.498878 Y205.326001 Z-0.125000 I486.533924 J-7256.223763
G02 X132.817650 Y205.347304 Z-0.125000 I46.050068 J-686.629578
G02 X133.136430 Y205.368492 Z-0.125000 I76.549486 J-1149.266098
G02 X133.455200 Y205.389534 Z-0.125000 I33.040863 J-498.133485
G02 X133.773980 Y205.410410 Z-0.125000 I42.601982 J-648.078674
G02 X134.092750 Y205.431068 Z-0.125000 I23.831574 J-365.276945
G02 X134.411532 Y205.451485 Z-0.125000 I32.230126 J-500.730590
G02 X134.730299 Y205.471607 Z-0.125000 I16.936832 J-265.768451
G02 X135.049074 Y205.491208 Z-0.125000 I9.897623 J-158.321928
G03 X135.367846 Y205.510781 Z-0.125000 I-10.483021 J173.283306
G02 X135.686384 Y205.527944 Z-0.125000 I1.187899 J-19.082889
G03 X136.005396 Y205.551064 Z-0.125000 I-0.270723 J5.947832
G03 X136.323811 Y205.591234 Z-0.125000 I-0.606596 J6.090379
G02 X136.642946 Y205.637707 Z-0.125000 I3.428195 J-22.422738
G03 X136.961669 Y205.682217 Z-0.125000 I-17.570392 J126.981421
G03 X137.280496 Y205.727499 Z-0.125000 I-20.871801 J148.101333
G03 X137.599222 Y205.773499 Z-0.125000 I-19.225499 J134.337668
G03 X137.918046 Y205.820203 Z-0.125000 I-24.815340 J170.510340
G03 X138.236775 Y205.867546 Z-0.125000 I-21.760255 J147.593754
G03 X138.555595 Y205.915498 Z-0.125000 I-31.982446 J213.727964
G03 X138.874333 Y205.963989 Z-0.125000 I-25.862062 J171.067039
G03 X139.193145 Y206.012965 Z-0.125000 I-46.824062 J305.864576
G03 X139.511894 Y206.062345 Z-0.125000 I-32.593274 J211.446514
G03 X139.830692 Y206.112057 Z-0.125000 I-102.095280 J655.773085
G03 X140.149458 Y206.162014 Z-0.125000 I-47.663511 J305.175522
G02 X140.468242 Y206.212114 Z-0.125000 I278.599452 J-1771.646809
G03 X140.787025 Y206.262260 Z-0.125000 I-103.115044 J656.521984
G02 X141.105792 Y206.312322 Z-0.125000 I51.146872 J-324.625532
G02 X141.424593 Y206.362201 Z-0.125000 I252.491621 J-1612.743821
G02 X141.743342 Y206.411729 Z-0.125000 I26.153348 J-167.267208
G02 X142.062164 Y206.460798 Z-0.125000 I50.427052 J-326.588676
G02 X142.380891 Y206.509207 Z-0.125000 I16.413317 J-106.992529
G02 X142.699736 Y206.556839 Z-0.125000 I25.016634 J-166.365395
G02 X143.018441 Y206.603459 Z-0.125000 I11.316674 J-76.251430
G02 X143.337309 Y206.648938 Z-0.125000 I15.413053 J-106.926230
G02 X143.655991 Y206.693004 Z-0.125000 I8.108383 J-57.463684
G02 X143.974881 Y206.735516 Z-0.125000 I10.306496 J-76.094132
G02 X144.293538 Y206.776173 Z-0.125000 I5.916040 J-45.098639
G02 X144.612376 Y206.814162 Z-0.125000 I4.129195 J-33.299723
G03 X144.931088 Y206.851114 Z-0.125000 I-11.206279 J98.046352
G02 X145.248947 Y206.882546 Z-0.125000 I1.006188 J-8.552281
G03 X145.568638 Y206.926115 Z-0.125000 I-0.232745 J2.902415
G03 X145.886106 Y207.005334 Z-0.125000 I-0.578804 J2.995305
G02 X146.206187 Y207.097510 Z-0.125000 I2.748941 J-8.943880
G03 X146.524995 Y207.183337 Z-0.125000 I-113.034355 J420.499752
G02 X146.843737 Y207.268869 Z-0.125000 I35.982733 J-133.456067
G02 X147.162616 Y207.353911 Z-0.125000 I124.856693 J-467.534284
G02 X147.481287 Y207.438038 Z-0.125000 I19.507302 J-73.246793
G02 X147.800244 Y207.521091 Z-0.125000 I34.971379 J-133.650671
G02 X148.118834 Y207.602524 Z-0.125000 I12.527727 J-48.348122
G02 X148.437874 Y207.682211 Z-0.125000 I18.361945 J-72.836591
G02 X148.756384 Y207.759491 Z-0.125000 I8.659977 J-34.997318
G02 X149.075498 Y207.834261 Z-0.125000 I11.400954 J-47.939871
G02 X149.393934 Y207.905766 Z-0.125000 I6.172929 J-26.745645
G02 X149.713105 Y207.973902 Z-0.125000 I7.556649 J-34.616038
G02 X150.031483 Y208.037853 Z-0.125000 I4.429452 J-21.227268
G02 X150.350688 Y208.097490 Z-0.125000 I5.087028 J-26.343981
G02 X150.669033 Y208.151979 Z-0.125000 I3.142596 J-17.403310
G02 X150.988227 Y208.201125 Z-0.125000 I3.385581 J-20.927601
G02 X151.306583 Y208.244130 Z-0.125000 I2.135776 J-14.610561
G02 X151.625712 Y208.280702 Z-0.125000 I2.131768 J-17.191336
G02 X151.944133 Y208.310138 Z-0.125000 I1.322940 J-12.573649
G02 X152.263126 Y208.332021 Z-0.125000 I1.152318 J-14.461777
G02 X152.581680 Y208.345767 Z-0.125000 I0.638271 J-11.093500
G02 X152.900457 Y208.350869 Z-0.125000 I0.359510 J-12.500665
G02 X153.219230 Y208.346825 Z-0.125000 I0.032568 J-9.998947
G02 X153.537704 Y208.333146 Z-0.125000 I-0.314911 J-11.045543
G02 X153.856779 Y208.309337 Z-0.125000 I-0.535342 J-9.324211
G02 X154.174876 Y208.275051 Z-0.125000 I-0.929547 J-10.116817
G02 X154.494329 Y208.229673 Z-0.125000 I-1.101643 J-8.902662
G02 X154.812006 Y208.173226 Z-0.125000 I-1.525727 J-9.508685
G02 X155.131879 Y208.104753 Z-0.125000 I-1.713310 J-8.785172
G02 X155.449130 Y208.024947 Z-0.125000 I-2.147925 J-9.209113
G02 X155.769429 Y207.932264 Z-0.125000 I-2.423519 J-8.975034
G02 X156.086305 Y207.828340 Z-0.125000 I-2.847260 J-9.216732
G02 X156.406979 Y207.710855 Z-0.125000 I-3.297248 J-9.496174
G02 X156.723580 Y207.582597 Z-0.125000 I-3.672330 J-9.519919
G02 X157.044526 Y207.440388 Z-0.125000 I-4.440475 J-10.454790
G02 X157.360993 Y207.288210 Z-0.125000 I-4.694484 J-10.167733
G02 X157.682075 Y207.122134 Z-0.125000 I-6.017260 J-12.026895
G02 X157.998572 Y206.947183 Z-0.125000 I-6.008271 J-11.243043
G02 X158.319625 Y206.758984 Z-0.125000 I-8.354984 J-14.620890
G02 X158.636322 Y206.563245 Z-0.125000 I-7.767048 J-12.920844
G02 X158.957175 Y206.355629 Z-0.125000 I-12.237378 J-19.263585
G02 X159.274247 Y206.141992 Z-0.125000 I-10.290487 J-15.614876
G02 X159.594725 Y205.918671 Z-0.125000 I-20.257502 J-29.412102
G02 X159.912330 Y205.691006 Z-0.125000 I-14.337455 J-20.336926
G02 X160.232275 Y205.456693 Z-0.125000 I-49.987343 J-68.591222
G02 X160.550555 Y205.219876 Z-0.125000 I-22.517626 J-30.595768
G03 X160.869824 Y204.980245 Z-0.125000 I114.593172 J152.344664
G02 X161.188894 Y204.740146 Z-0.125000 I-52.308642 J-69.845437
G03 X161.507372 Y204.501736 Z-0.125000 I25.066422 J33.152815
G03 X161.827312 Y204.265146 Z-0.125000 I109.587371 J147.860388
G03 X162.144921 Y204.035202 Z-0.125000 I12.916348 J17.506333
G02 X162.470842 Y203.792440 Z-0.125000 I-5.213261 J-7.339226
G03 X162.782471 Y203.595984 Z-0.125000 I1.131997 J1.450246
G03 X163.109243 Y203.443329 Z-0.125000 I3.196947 J6.417303
G03 X163.420021 Y203.399967 Z-0.125000 I0.232751 J0.532777
G03 X163.731174 Y203.543836 Z-0.125000 I-0.078234 J0.577610
G02 X164.057571 Y203.768677 Z-0.125000 I1.034236 J-1.152045
G02 X164.380452 Y203.925086 Z-0.125000 I3.453572 J-6.717872
G02 X164.695120 Y204.055480 Z-0.125000 I2.045908 J-4.492347
G02 X165.015282 Y204.155566 Z-0.125000 I1.063422 J-2.839597
G03 X165.332670 Y204.246207 Z-0.125000 I-1.325259 J5.241557
G02 X165.645655 Y204.337100 Z-0.125000 I1.898842 J-5.954202
G03 X165.970217 Y204.462117 Z-0.125000 I-0.397963 J1.516985
G03 X166.285438 Y204.672757 Z-0.125000 I-0.793250 J1.528278
G02 X166.607767 Y204.908056 Z-0.125000 I1.868006 J-2.220496
G02 X166.931716 Y205.101610 Z-0.125000 I4.334051 J-6.885959
G02 X167.245317 Y205.264672 Z-0.125000 I2.427836 J-4.286149
G02 X167.568261 Y205.402986 Z-0.125000 I1.936493 J-4.075275
G02 X167.882867 Y205.513970 Z-0.125000 I2.245303 J-5.863340
G02 X168.195978 Y205.579996 Z-0.125000 I0.470617 J-1.456328
G03 X168.520416 Y205.676725 Z-0.125000 I-0.093874 J0.907326
G03 X168.833378 Y205.902937 Z-0.125000 I-0.594629 J1.152261
G02 X169.157966 Y206.171985 Z-0.125000 I1.775032 J-1.811133
G02 X169.482925 Y206.386836 Z-0.125000 I4.506969 J-6.463554
G02 X169.795516 Y206.565833 Z-0.125000 I2.425804 J-3.873855
G02 X170.118284 Y206.713293 Z-0.125000 I1.575555 J-3.021660
G02 X170.433063 Y206.836845 Z-0.125000 I25.565730 J-64.672512
G02 X170.745729 Y206.933909 Z-0.125000 I0.842764 J-2.162629
G03 X171.070613 Y207.062730 Z-0.125000 I-0.272335 J1.160906
G03 X171.385075 Y207.303197 Z-0.125000 I-0.775054 J1.339398
G02 X171.708163 Y207.574690 Z-0.125000 I1.808146 J-1.823772
G00 Z3.000000

(End cutting path id: path610)


(Start cutting path id: path608)
(Change tool to Default tool)

G00 Z3.000000
G00 X14.871012 Y204.428171

G00 Z4.875000 (Fast pre-penetrate)
G01 Z-0.125000 F400.0(Penetrate)
G02 X15.188612 Y204.274743 Z-0.125000 I-9.151220 J-19.348631 F800.000000
G02 X15.508562 Y204.114225 Z-0.125000 I-11.751368 J-23.822386
G02 X15.826244 Y203.949170 Z-0.125000 I-10.956121 J-21.475624
G02 X16.146109 Y203.777665 Z-0.125000 I-15.219099 J-28.768254
G02 X16.463933 Y203.602288 Z-0.125000 I-13.380194 J-24.623652
G02 X16.783659 Y203.421356 Z-0.125000 I-21.080752 J-37.625009
G02 X17.101679 Y203.237323 Z-0.125000 I-16.914904 J-29.596753
G02 X17.421209 Y203.048921 Z-0.125000 I-33.892397 J-57.846685
G02 X17.739483 Y202.858286 Z-0.125000 I-22.875364 J-38.552469
G02 X18.058758 Y202.664773 Z-0.125000 I-88.111884 J-145.735371
G02 X18.377344 Y202.470012 Z-0.125000 I-35.756849 J-58.848165
G03 X18.696308 Y202.274164 Z-0.125000 I128.842102 J209.478487
G02 X19.015251 Y202.078185 Z-0.125000 I-89.910612 J-146.681389
G03 X19.333858 Y201.883182 Z-0.125000 I34.478228 J55.974528
G03 X19.653199 Y201.689314 Z-0.125000 I125.415062 J206.224808
G03 X19.971408 Y201.498716 Z-0.125000 I18.560113 J30.625779
G03 X20.291167 Y201.310689 Z-0.125000 I32.372484 J54.686738
G03 X20.608955 Y201.128379 Z-0.125000 I11.834007 J20.260005
G02 X20.934174 Y200.931392 Z-0.125000 I-2.954929 J-5.245444
G03 X21.246505 Y200.780403 Z-0.125000 I0.752709 J1.158490
G03 X21.568212 Y200.698194 Z-0.125000 I0.713663 J2.122204
G03 X21.884054 Y200.699572 Z-0.125000 I0.154140 J0.866905
G03 X22.197050 Y200.831801 Z-0.125000 I-0.146208 J0.782646
G02 X22.521604 Y201.018620 Z-0.125000 I1.169756 J-1.656846
G02 X22.842917 Y201.159646 Z-0.125000 I4.497708 J-9.810993
G02 X23.159154 Y201.284118 Z-0.125000 I2.942033 J-7.010631
G02 X23.478061 Y201.386441 Z-0.125000 I1.372165 J-3.728472
G03 X23.796704 Y201.487882 Z-0.125000 I-1.111429 J4.042370
G03 X24.111365 Y201.604704 Z-0.125000 I-7.738731 J21.326515
G03 X24.434253 Y201.746818 Z-0.125000 I-1.210880 J3.189014
G03 X24.751384 Y201.932936 Z-0.125000 I-1.285591 J2.553791
G02 X25.071801 Y202.129763 Z-0.125000 I2.384723 J-3.522909
G02 X25.393739 Y202.301609 Z-0.125000 I5.423117 J-9.772195
G02 X25.709350 Y202.454448 Z-0.125000 I3.478967 J-6.781765
G02 X26.031213 Y202.593171 Z-0.125000 I3.459152 J-7.583134
G02 X26.346900 Y202.711419 Z-0.125000 I2.305954 J-5.675677
G02 X26.662334 Y202.792266 Z-0.125000 I0.662075 J-1.927388
G03 X26.984450 Y202.892455 Z-0.125000 I-0.220265 J1.276084
G03 X27.298545 Y203.080065 Z-0.125000 I-0.722375 J1.566127
G02 X27.622000 Y203.299555 Z-0.125000 I2.423110 J-3.222764
G02 X27.943718 Y203.493598 Z-0.125000 I19.654368 J-32.222780
G02 X28.259550 Y203.670210 Z-0.125000 I3.325002 J-5.575335
G02 X28.582058 Y203.830032 Z-0.125000 I3.806735 J-7.276380
G02 X28.897099 Y203.966635 Z-0.125000 I2.509199 J-5.355252
G02 X29.214056 Y204.067967 Z-0.125000 I0.874200 J-2.188046
G03 X29.534646 Y204.179654 Z-0.125000 I-0.416787 J1.712329
G03 X29.848668 Y204.351781 Z-0.125000 I-1.075406 J2.334436
G02 X30.172196 Y204.554044 Z-0.125000 I8.314861 J-12.940075
G03 X30.492460 Y204.759070 Z-0.125000 I-4.274806 J7.030179
G02 X30.809746 Y204.955001 Z-0.125000 I2.647215 J-3.931964
G02 X31.132843 Y205.127457 Z-0.125000 I3.819560 J-6.767048
G02 X31.447296 Y205.273747 Z-0.125000 I2.494479 J-4.950844
G02 X31.763744 Y205.380766 Z-0.125000 I0.842516 J-1.969893
G03 X32.084846 Y205.500360 Z-0.125000 I-0.388635 J1.534328
G03 X32.398812 Y205.691453 Z-0.125000 I-1.009126 J2.011466
G02 X32.722395 Y205.913437 Z-0.125000 I4.238017 J-5.830862
G03 X33.043738 Y206.126944 Z-0.125000 I-8.461255 J13.083386
G02 X33.359945 Y206.324988 Z-0.125000 I2.677526 J-3.923604
G02 X33.682720 Y206.496230 Z-0.125000 I2.795543 J-4.879519
G02 X33.997492 Y206.643953 Z-0.125000 I4.636273 J-9.469834
G02 X34.311780 Y206.759439 Z-0.125000 I0.978806 J-2.178372
G03 X34.635042 Y206.897935 Z-0.125000 I-0.399444 J1.378848
G03 X34.950069 Y207.129542 Z-0.125000 I-0.926724 J1.590554
G02 X35.272592 Y207.386900 Z-0.125000 I2.082537 J-2.279084
G02 X35.596898 Y207.600730 Z-0.125000 I4.673156 J-6.734714
G02 X35.910142 Y207.782708 Z-0.125000 I2.918868 J-4.663736
G02 X36.234076 Y207.943832 Z-0.125000 I2.695142 J-5.012307
G02 X36.547691 Y208.072535 Z-0.125000 I1.751017 J-3.820317
G02 X36.870180 Y208.175495 Z-0.125000 I1.445796 J-3.971945
G02 X37.185241 Y208.246837 Z-0.125000 I0.927379 J-3.364158
G02 X37.505256 Y208.288666 Z-0.125000 I0.610349 J-3.424411
G02 X37.822791 Y208.299804 Z-0.125000 I0.273484 J-3.265061
G02 X38.139935 Y208.280128 Z-0.125000 I-0.044047 J-3.275828
G02 X38.460338 Y208.229700 Z-0.125000 I-0.391919 J-3.533166
G02 X38.775145 Y208.150188 Z-0.125000 I-0.713027 J-3.486016
G02 X39.097888 Y208.039002 Z-0.125000 I-1.273277 J-4.219967
G02 X39.411443 Y207.902789 Z-0.125000 I-1.574988 J-4.054555
G02 X39.735438 Y207.734393 Z-0.125000 I-2.625203 J-5.446762
G02 X40.048807 Y207.545997 Z-0.125000 I-2.806970 J-5.023812
G02 X40.372987 Y207.326562 Z-0.125000 I-4.829361 J-7.483792
G02 X40.686931 Y207.092041 Z-0.125000 I-4.614488 J-6.504630
G02 X41.010537 Y206.829812 Z-0.125000 I-8.665881 J-11.025012
G02 X41.325505 Y206.556829 Z-0.125000 I-7.323576 J-8.768140
G02 X41.648087 Y206.261538 Z-0.125000 I-16.419595 J-18.260945
G02 X41.964311 Y205.959186 Z-0.125000 I-11.644368 J-12.495155
G02 X42.285634 Y205.641538 Z-0.125000 I-40.964211 J-41.759516
G02 X42.603217 Y205.320026 Z-0.125000 I-19.838350 J-19.913470
G03 X42.923184 Y204.991241 Z-0.125000 I275.579612 J267.868724
G02 X43.242146 Y204.661482 Z-0.125000 I-45.042485 J-43.886875
G03 X43.560734 Y204.332861 Z-0.125000 I34.483142 J33.111516
G03 X43.881042 Y204.006040 Z-0.125000 I253.154163 J247.789367
G03 X44.198283 Y203.688530 Z-0.125000 I17.810438 J17.478110
G03 X44.519853 Y203.375647 Z-0.125000 I30.670606 J31.200447
G03 X44.835833 Y203.079430 Z-0.125000 I11.166032 J11.594399
G03 X45.158498 Y202.790888 Z-0.125000 I14.514622 J15.906416
G03 X45.473383 Y202.525010 Z-0.125000 I7.396292 J8.440178
G03 X45.796861 Y202.270198 Z-0.125000 I8.304076 J10.209109
G03 X46.110933 Y202.042273 Z-0.125000 I4.946073 J6.485143
G03 X46.434772 Y201.829179 Z-0.125000 I5.005987 J7.254988
G03 X46.748480 Y201.645195 Z-0.125000 I3.265592 J5.208658
G03 X47.072024 Y201.480032 Z-0.125000 I3.023699 J5.523780
G03 X47.386030 Y201.344292 Z-0.125000 I2.088549 J4.400354
G03 X47.708476 Y201.231139 Z-0.125000 I1.758177 J4.494171
G03 X48.023579 Y201.146358 Z-0.125000 I1.237062 J3.969785
G03 X48.344214 Y201.086919 Z-0.125000 I0.897570 J3.947313
G03 X48.661129 Y201.054354 Z-0.125000 I0.559173 J3.883394
G03 X48.979663 Y201.048062 Z-0.125000 I0.234043 J3.782405
G03 X49.298679 Y201.067478 Z-0.125000 I-0.092593 J4.152025
G03 X49.615395 Y201.111935 Z-0.125000 I-0.394507 J3.960902
G03 X49.936229 Y201.181368 Z-0.125000 I-0.875954 J4.823557
G03 X50.250311 Y201.268482 Z-0.125000 I-1.661611 J6.600508
G03 X50.573779 Y201.388475 Z-0.125000 I-0.825207 J2.720513
G03 X50.888258 Y201.552831 Z-0.125000 I-1.092834 J2.474069
G02 X51.211326 Y201.744593 Z-0.125000 I8.457858 J-13.881221
G03 X51.527901 Y201.928866 Z-0.125000 I-30.267809 J52.363199
G03 X51.848875 Y202.125535 Z-0.125000 I-4.868146 J8.305370
G03 X52.167098 Y202.341402 Z-0.125000 I-3.870077 J6.047593
G02 X52.486425 Y202.560575 Z-0.125000 I5.299234 J-7.378575
G02 X52.804261 Y202.758414 Z-0.125000 I4.381083 J-6.684134
G03 X53.123975 Y202.961291 Z-0.125000 I-2.999360 J5.080055
G03 X53.440893 Y203.189341 Z-0.125000 I-4.189381 J6.156152
G02 X53.761525 Y203.428310 Z-0.125000 I12.759983 J-16.785945
G02 X54.079579 Y203.658624 Z-0.125000 I27.122921 J-37.120708
G03 X54.399075 Y203.892949 Z-0.125000 I-11.178226 J15.576208
G03 X54.717575 Y204.137643 Z-0.125000 I-10.087442 J13.459698
G02 X55.036624 Y204.383925 Z-0.125000 I12.924404 J-16.413320
G02 X55.356773 Y204.624757 Z-0.125000 I42.981220 J-56.803583
G02 X55.674172 Y204.857754 Z-0.125000 I13.258000 J-17.727986
G02 X55.994933 Y205.085833 Z-0.125000 I18.470077 J-25.635969
G02 X56.311721 Y205.302615 Z-0.125000 I9.375842 J-13.361233
G02 X56.632926 Y205.512484 Z-0.125000 I11.091222 J-16.624415
G02 X56.949271 Y205.708470 Z-0.125000 I6.920261 J-10.816847
G02 X57.270713 Y205.895629 Z-0.125000 I7.412473 J-12.361200
G02 X57.586821 Y206.067231 Z-0.125000 I5.200797 J-9.203383
G02 X57.908274 Y206.228219 Z-0.125000 I5.183102 J-9.947955
G02 X58.224371 Y206.372835 Z-0.125000 I3.924876 J-8.161088
G02 X58.545599 Y206.505281 Z-0.125000 I3.680386 J-8.470509
G02 X58.861920 Y206.621250 Z-0.125000 I2.937627 J-7.523396
G02 X59.182716 Y206.723839 Z-0.125000 I2.598152 J-7.571516
G02 X59.499470 Y206.810376 Z-0.125000 I2.143870 J-7.224291
G02 X59.819682 Y206.882801 Z-0.125000 I1.771380 J-7.087727
G02 X60.137017 Y206.939921 Z-0.125000 I1.464302 J-7.224955
G02 X60.456586 Y206.982761 Z-0.125000 I1.092509 J-6.936406
G02 X60.774567 Y207.011205 Z-0.125000 I0.833478 J-7.525870
G02 X61.093519 Y207.025775 Z-0.125000 I0.483586 J-7.088058
G02 X61.412117 Y207.026948 Z-0.125000 I0.189389 J-8.170626
G02 X61.730556 Y207.015158 Z-0.125000 I-0.118846 J-7.516406
G02 X62.049667 Y206.990986 Z-0.125000 I-0.534912 J-9.180060
G02 X62.367746 Y206.955152 Z-0.125000 I-0.773952 J-8.299684
G02 X62.687216 Y206.908076 Z-0.125000 I-1.417822 J-10.729234
G02 X63.005092 Y206.850857 Z-0.125000 I-1.535032 J-9.439234
G02 X63.324766 Y206.783616 Z-0.125000 I-2.566375 J-12.994595
G02 X63.642580 Y206.707850 Z-0.125000 I-2.475613 J-11.088762
G02 X63.962316 Y206.623403 Z-0.125000 I-4.145224 J-16.342415
G02 X64.280181 Y206.532038 Z-0.125000 I-3.692445 J-13.444893
G02 X64.599863 Y206.433433 Z-0.125000 I-6.465706 J-21.529504
G02 X64.917859 Y206.329432 Z-0.125000 I-5.338674 J-16.861821
G02 X65.237413 Y206.219684 Z-0.125000 I-10.243040 J-30.344892
G02 X65.555583 Y206.105955 Z-0.125000 I-7.734084 J-22.138883
G02 X65.874963 Y205.987978 Z-0.125000 I-17.460869 J-47.760338
G02 X66.193326 Y205.867296 Z-0.125000 I-11.579045 J-31.026171
G02 X66.512513 Y205.743821 Z-0.125000 I-37.526697 J-97.481806
G02 X66.831073 Y205.618784 Z-0.125000 I-18.906540 J-48.636972
G02 X67.150062 Y205.492314 Z-0.125000 I-418.386613 J-1055.741892
G02 X67.468805 Y205.365289 Z-0.125000 I-39.132228 J-98.657829
G03 X67.787612 Y205.238063 Z-0.125000 I55.958351 J139.758826
G02 X68.106517 Y205.111164 Z-0.125000 I-444.741003 J-1118.131369
G03 X68.425162 Y204.985142 Z-0.125000 I28.302174 J71.095915
G03 X68.744201 Y204.860209 Z-0.125000 I54.856295 J139.615086
G03 X69.062709 Y204.737059 Z-0.125000 I19.682265 J50.431581
G03 X69.381855 Y204.615644 Z-0.125000 I27.083591 J70.710488
G03 X69.700259 Y204.496751 Z-0.125000 I15.377861 J40.697396
G03 X70.019477 Y204.380132 Z-0.125000 I18.412574 J49.905003
G03 X70.337809 Y204.266604 Z-0.125000 I12.786909 J35.351205
G03 X70.657068 Y204.155784 Z-0.125000 I14.130621 J40.193555
G03 X70.975358 Y204.048468 Z-0.125000 I11.017005 J32.149873
G03 X71.294636 Y203.944198 Z-0.125000 I11.547603 J34.817937
G03 X71.612908 Y203.843707 Z-0.125000 I9.722671 J30.239340
G03 X71.932179 Y203.746503 Z-0.125000 I9.809878 J31.647957
G03 X72.250458 Y203.653232 Z-0.125000 I8.738269 J29.228666
G03 X72.569707 Y203.563404 Z-0.125000 I8.561632 J29.816114
G03 X72.888008 Y203.477562 Z-0.125000 I7.948585 J28.839952
G03 X73.207223 Y203.395237 Z-0.125000 I7.599907 J28.808917
G03 X73.525555 Y203.316865 Z-0.125000 I7.329278 J29.084042
G03 X73.844730 Y203.242017 Z-0.125000 I6.856107 J28.518705
G03 X74.163105 Y203.171018 Z-0.125000 I6.805922 J29.770162
G03 X74.482233 Y203.103489 Z-0.125000 I6.256456 J28.778552
G03 X74.800654 Y203.039656 Z-0.125000 I6.358410 J30.891879
G03 X75.119732 Y202.979183 Z-0.125000 I5.751619 J29.475899
G03 X75.438204 Y202.922215 Z-0.125000 I5.987507 J32.553686
G03 X75.757234 Y202.868458 Z-0.125000 I5.329154 J30.653319
G03 X76.075754 Y202.817985 Z-0.125000 I5.670532 J34.754722
G03 X76.394738 Y202.770542 Z-0.125000 I4.975942 J32.359538
G03 X76.713304 Y202.726143 Z-0.125000 I5.386726 J37.485315
G03 X77.032248 Y202.684572 Z-0.125000 I4.667051 J34.562254
G03 X77.350853 Y202.645797 Z-0.125000 I5.138346 J40.892838
G03 X77.669764 Y202.609625 Z-0.125000 I4.370478 J37.107945
G03 X77.988401 Y202.576008 Z-0.125000 I4.914306 J45.053570
G03 X78.307285 Y202.544760 Z-0.125000 I4.131757 J40.521491
G03 X78.625950 Y202.515818 Z-0.125000 I4.719395 J50.194271
G03 X78.944810 Y202.489018 Z-0.125000 I3.912679 J44.641224
G03 X79.263500 Y202.464283 Z-0.125000 I4.539401 J56.420776
G03 X79.582338 Y202.441462 Z-0.125000 I3.690911 J49.327403
G03 X79.901050 Y202.420478 Z-0.125000 I4.388020 J64.218577
G03 X80.219872 Y202.401192 Z-0.125000 I3.523248 J55.597412
G03 X80.538600 Y202.383524 Z-0.125000 I4.217156 J73.193840
G03 X80.857407 Y202.367342 Z-0.125000 I3.370381 J63.250561
G03 X81.176150 Y202.352581 Z-0.125000 I4.001877 J82.968904
G03 X81.494947 Y202.339120 Z-0.125000 I3.196296 J71.913074
G03 X81.813699 Y202.326890 Z-0.125000 I3.894598 J97.350174
G03 X82.132490 Y202.315780 Z-0.125000 I3.121046 J84.978154
G03 X82.451246 Y202.305724 Z-0.125000 I3.700614 J112.235460
G03 X82.770035 Y202.296638 Z-0.125000 I2.950806 J97.939929
G03 X83.088796 Y202.288446 Z-0.125000 I3.655428 J136.034737
G03 X83.407581 Y202.281084 Z-0.125000 I2.732048 J111.392730
G03 X83.726346 Y202.274476 Z-0.125000 I3.699263 J170.763665
G03 X84.045127 Y202.268579 Z-0.125000 I2.675062 J135.989815
G03 X84.363896 Y202.263337 Z-0.125000 I3.132474 J180.794103
G03 X84.682674 Y202.258691 Z-0.125000 I2.517025 J161.736116
G03 X85.001446 Y202.254580 Z-0.125000 I3.117068 J229.344482
G03 X85.320221 Y202.250961 Z-0.125000 I1.804587 J144.946152
G03 X85.638995 Y202.247859 Z-0.125000 I3.149465 J307.249917
G03 X85.957769 Y202.245200 Z-0.125000 I3.719184 J426.756343
G03 X86.276545 Y202.242859 Z-0.125000 I2.040155 J256.042689
G03 X86.595320 Y202.240930 Z-0.125000 I5.625932 J903.715640
G03 X86.914092 Y202.239340 Z-0.125000 I1.061336 J180.738703
G03 X87.232870 Y202.238083 Z-0.125000 I0.765089 J153.633361
G03 X87.551642 Y202.237223 Z-0.125000 I2.231401 J768.133388
G03 X87.870419 Y202.236595 Z-0.125000 I0.765052 J307.263384
G03 X88.189192 Y202.236165 Z-0.125000 I2.232103 J1536.265782
G03 X88.507967 Y202.236071 Z-0.125000 I0.266294 J362.325663
G03 X88.826742 Y202.236247 Z-0.125000 I-0.057095 J391.902534
G03 X89.145516 Y202.236655 Z-0.125000 I-0.500434 J515.535347
G03 X89.464291 Y202.237305 Z-0.125000 I-0.562716 J353.973375
G03 X89.783064 Y202.238264 Z-0.125000 I-0.764903 J307.255217
G03 X90.101841 Y202.239422 Z-0.125000 I-5.424416 J1536.576531
G03 X90.420614 Y202.241032 Z-0.125000 I-10.933108 J2194.844421
G03 X90.739391 Y202.242782 Z-0.125000 I-2.249810 J438.986625
G03 X91.058163 Y202.244908 Z-0.125000 I-2.224150 J357.283833
G03 X91.376938 Y202.247333 Z-0.125000 I-2.326478 J326.883491
G03 X91.695714 Y202.250137 Z-0.125000 I-16.729528 J1919.404790
G03 X92.014488 Y202.253180 Z-0.125000 I-2.131948 J240.060407
G03 X92.333262 Y202.256600 Z-0.125000 I-2.067819 J207.614356
G03 X92.652038 Y202.260456 Z-0.125000 I-3.045257 J264.908042
G03 X92.970810 Y202.264653 Z-0.125000 I-3.389974 J269.591616
G03 X93.289587 Y202.269267 Z-0.125000 I-3.063453 J222.679393
G03 X93.608357 Y202.274304 Z-0.125000 I-3.956018 J260.452761
G03 X93.927137 Y202.279797 Z-0.125000 I-3.193209 J194.549933
G03 X94.245905 Y202.285737 Z-0.125000 I-4.051841 J226.003561
G03 X94.564687 Y202.292153 Z-0.125000 I-3.911425 J202.256929
G03 X94.883455 Y202.299078 Z-0.125000 I-4.121476 J197.048307
G03 X95.202234 Y202.306520 Z-0.125000 I-4.440893 J197.070115
G03 X95.521004 Y202.314510 Z-0.125000 I-4.909701 J202.235040
G03 X95.839784 Y202.323056 Z-0.125000 I-4.320488 J167.107095
G03 X96.158552 Y202.332174 Z-0.125000 I-5.269056 J189.785273
G03 X96.477334 Y202.341868 Z-0.125000 I-4.868466 J165.344944
G03 X96.796098 Y202.352173 Z-0.125000 I-5.245226 J167.183011
G03 X97.114883 Y202.363114 Z-0.125000 I-5.118794 J153.796954
G03 X97.433646 Y202.374689 Z-0.125000 I-5.912994 J167.231551
G03 X97.752433 Y202.386900 Z-0.125000 I-5.733135 J153.840192
G03 X98.071192 Y202.399778 Z-0.125000 I-5.935333 J150.864490
G03 X98.389983 Y202.413332 Z-0.125000 I-6.257454 J150.932768
G03 X98.708740 Y202.427560 Z-0.125000 I-6.563460 J150.623973
G03 X99.027533 Y202.442468 Z-0.125000 I-6.832802 J149.528213
G03 X99.346289 Y202.458073 Z-0.125000 I-7.486093 J156.179344
G03 X99.665080 Y202.474366 Z-0.125000 I-7.063208 J141.324552
G03 X99.983838 Y202.491351 Z-0.125000 I-7.453403 J142.881200
G03 X100.302630 Y202.509048 Z-0.125000 I-7.835440 J144.027396
G03 X100.621386 Y202.527431 Z-0.125000 I-7.861074 J139.078765
G03 X100.940179 Y202.546507 Z-0.125000 I-9.254591 J157.331536
G03 X101.258933 Y202.566266 Z-0.125000 I-8.809590 J144.702427
G03 X101.577729 Y202.586713 Z-0.125000 I-9.634991 J152.713029
G03 X101.896482 Y202.607823 Z-0.125000 I-9.365880 J143.838656
G03 X102.215279 Y202.629605 Z-0.125000 I-10.950348 J162.613818
G03 X102.534030 Y202.652030 Z-0.125000 I-11.026697 J159.008084
G03 X102.852829 Y202.675084 Z-0.125000 I-11.998149 J168.132182
G03 X103.171579 Y202.698752 Z-0.125000 I-11.230603 J153.410438
G03 X103.490379 Y202.723032 Z-0.125000 I-13.941944 J185.162682
G03 X103.809130 Y202.747889 Z-0.125000 I-13.489572 J175.039558
G03 X104.127926 Y202.773303 Z-0.125000 I-15.422715 J195.476816
G03 X104.446682 Y202.799257 Z-0.125000 I-14.804915 J183.796027
G03 X104.765475 Y202.825724 Z-0.125000 I-18.159881 J220.663560
G03 X105.084233 Y202.852683 Z-0.125000 I-17.093722 J204.012388
G03 X105.403025 Y202.880101 Z-0.125000 I-21.238574 J248.807180
G03 X105.721782 Y202.907956 Z-0.125000 I-19.009141 J219.372897
G03 X106.040575 Y202.936222 Z-0.125000 I-25.727952 J291.975899
G03 X106.359335 Y202.964867 Z-0.125000 I-24.057721 J269.503817
G03 X106.678125 Y202.993854 Z-0.125000 I-31.046202 J343.206213
G03 X106.996885 Y203.023161 Z-0.125000 I-26.368753 J288.550258
G03 X107.315675 Y203.052758 Z-0.125000 I-43.104224 J466.006639
G03 X107.634438 Y203.082612 Z-0.125000 I-36.874591 J395.435178
G03 X107.953224 Y203.112683 Z-0.125000 I-57.059526 J606.601278
G03 X108.271991 Y203.142950 Z-0.125000 I-46.123796 J487.456614
G03 X108.590772 Y203.173373 Z-0.125000 I-98.473731 J1033.540380
G03 X108.909544 Y203.203928 Z-0.125000 I-65.167956 J681.558202
G03 X109.228321 Y203.234577 Z-0.125000 I-270.394050 J2814.167856
G03 X109.547097 Y203.265294 Z-0.125000 I-125.717741 J1308.704616
G02 X109.865871 Y203.296039 Z-0.125000 I438.481570 J-4573.603515
G01 X110.503421 Y203.357518 Z-0.125000
G02 X110.822011 Y203.386393 Z-0.125000 I2.758026 J-28.658136
G03 X111.140971 Y203.418785 Z-0.125000 I-0.829517 J9.754864
G03 X111.459539 Y203.461803 Z-0.125000 I-1.134909 J9.605587
G02 X111.778520 Y203.508137 Z-0.125000 I3.672769 J-24.163510
G02 X112.097332 Y203.552071 Z-0.125000 I30.974856 J-223.594119
G02 X112.416070 Y203.595423 Z-0.125000 I20.845178 J-152.067039
G02 X112.734886 Y203.638138 Z-0.125000 I22.961312 J-170.167465
G02 X113.053617 Y203.680200 Z-0.125000 I20.398997 J-153.345236
G02 X113.372436 Y203.721612 Z-0.125000 I21.052099 J-160.828140
G02 X113.691167 Y203.762346 Z-0.125000 I19.272072 J-149.531978
G02 X114.009986 Y203.802404 Z-0.125000 I19.415678 J-153.238293
G02 X114.328717 Y203.841763 Z-0.125000 I18.277522 J-146.702050
G02 X114.647533 Y203.880434 Z-0.125000 I18.213174 J-148.820032
G02 X114.966267 Y203.918399 Z-0.125000 I17.689439 J-147.153916
G02 X115.285082 Y203.955671 Z-0.125000 I17.042469 J-144.395360
G02 X115.603816 Y203.992231 Z-0.125000 I17.232948 J-148.831146
G02 X115.922628 Y204.028107 Z-0.125000 I16.132863 J-141.928563
G02 X116.241366 Y204.063277 Z-0.125000 I17.035605 J-152.930432
G02 X116.560175 Y204.097773 Z-0.125000 I15.921067 J-145.648771
G02 X116.878916 Y204.131582 Z-0.125000 I16.776635 J-156.648748
G02 X117.197723 Y204.164736 Z-0.125000 I15.629492 J-148.741206
G02 X117.516463 Y204.197225 Z-0.125000 I16.846907 J-163.702057
G02 X117.835271 Y204.229081 Z-0.125000 I15.534329 J-153.853080
G02 X118.154013 Y204.260301 Z-0.125000 I17.171756 J-173.669644
G02 X118.472818 Y204.290913 Z-0.125000 I16.194444 J-166.979493
G02 X118.791563 Y204.320931 Z-0.125000 I17.270720 J-181.686171
G02 X119.110363 Y204.350370 Z-0.125000 I16.523790 J-177.197277
G02 X119.429113 Y204.379253 Z-0.125000 I17.842220 J-195.132279
G02 X119.747910 Y204.407594 Z-0.125000 I16.678563 J-185.802910
G02 X120.066662 Y204.435413 Z-0.125000 I18.597886 J-211.254117
G02 X120.385455 Y204.462736 Z-0.125000 I16.948045 J-195.868337
G02 X120.704212 Y204.489576 Z-0.125000 I19.824403 J-233.534747
G02 X121.023003 Y204.515964 Z-0.125000 I17.530833 J-209.849976
G02 X121.341762 Y204.541910 Z-0.125000 I21.515186 J-262.347383
G02 X121.660551 Y204.567448 Z-0.125000 I18.757724 J-232.147607
G02 X121.979309 Y204.592591 Z-0.125000 I23.516293 J-296.105059
G02 X122.298099 Y204.617366 Z-0.125000 I21.136804 J-269.912958
G02 X122.616859 Y204.641796 Z-0.125000 I25.631082 J-332.345647
G02 X122.935647 Y204.665904 Z-0.125000 I21.497192 J-282.139571
G02 X123.254409 Y204.689701 Z-0.125000 I29.887416 J-398.197281
G02 X123.573193 Y204.713219 Z-0.125000 I27.664678 J-372.831309
G02 X123.891958 Y204.736485 Z-0.125000 I33.147902 J-451.954725
G02 X124.210741 Y204.759516 Z-0.125000 I25.329220 J-348.367353
G02 X124.529508 Y204.782318 Z-0.125000 I44.928612 J-625.849148
G02 X124.848287 Y204.804927 Z-0.125000 I39.259134 J-551.280391
G02 X125.167058 Y204.827369 Z-0.125000 I48.604776 J-688.132731
G02 X125.485836 Y204.849653 Z-0.125000 I35.886746 J-511.057965
G02 X125.804608 Y204.871790 Z-0.125000 I75.461181 J-1084.419949
G02 X126.123385 Y204.893815 Z-0.125000 I43.871658 J-632.614985
G02 X126.442155 Y204.915729 Z-0.125000 I115.480048 J-1677.693666
G02 X126.760934 Y204.937556 Z-0.125000 I84.942754 J-1238.175066
G02 X127.079705 Y204.959316 Z-0.125000 I144.606860 J-2116.211862
G02 X127.398483 Y204.981021 Z-0.125000 I78.256643 J-1146.144833
G02 X127.717254 Y205.002671 Z-0.125000 I387.851155 J-5730.471293
G02 X128.036030 Y205.024288 Z-0.125000 I285.045509 J-4140.518195
G02 X128.354804 Y205.045888 Z-0.125000 I604.995582 J-9226.746003
G01 X128.992354 Y205.089044 Z-0.125000
G01 X129.629904 Y205.132184 Z-0.125000
G01 X130.267453 Y205.175335 Z-0.125000
G01 X130.905001 Y205.218483 Z-0.125000
G03 X131.223778 Y205.240041 Z-0.125000 I-438.647204 J6613.367510
G02 X131.542550 Y205.261581 Z-0.125000 I134.934776 J-2006.036840
G02 X131.861329 Y205.283085 Z-0.125000 I503.535663 J-7468.957966
G02 X132.180100 Y205.304539 Z-0.125000 I80.724818 J-1196.892373
G02 X132.498878 Y205.325924 Z-0.125000 I486.533991 J-7256.223813
G02 X132.817650 Y205.347227 Z-0.125000 I46.050068 J-686.629578
G02 X133.136430 Y205.368416 Z-0.125000 I76.545112 J-1149.266389
G02 X133.455200 Y205.389457 Z-0.125000 I33.041685 J-498.133431
G02 X133.773980 Y205.410334 Z-0.125000 I42.603321 J-648.078586
G02 X134.092750 Y205.430991 Z-0.125000 I23.831149 J-365.276973
G02 X134.411532 Y205.451408 Z-0.125000 I32.230126 J-500.730590
G02 X134.730299 Y205.471531 Z-0.125000 I16.936832 J-265.768451
G02 X135.049074 Y205.491132 Z-0.125000 I9.896465 J-158.321998
G03 X135.367846 Y205.510705 Z-0.125000 I-10.481633 J173.283390
G02 X135.686384 Y205.527867 Z-0.125000 I1.187899 J-19.082889
G03 X136.005396 Y205.550987 Z-0.125000 I-0.270723 J5.947832
G03 X136.323811 Y205.591157 Z-0.125000 I-0.606596 J6.090379
G02 X136.642946 Y205.637630 Z-0.125000 I3.428195 J-22.422738
G03 X136.961669 Y205.682140 Z-0.125000 I-17.570392 J126.981421
G03 X137.280496 Y205.727422 Z-0.125000 I-20.871801 J148.101333
G03 X137.599222 Y205.773422 Z-0.125000 I-19.225502 J134.337668
G03 X137.918046 Y205.820127 Z-0.125000 I-24.815335 J170.510340
G03 X138.236775 Y205.867470 Z-0.125000 I-21.760246 J147.593755
G03 X138.555595 Y205.915421 Z-0.125000 I-31.982464 J213.727962
G03 X138.874333 Y205.963912 Z-0.125000 I-25.862077 J171.067036
G03 X139.193145 Y206.012889 Z-0.125000 I-46.824013 J305.864583
G03 X139.511894 Y206.062268 Z-0.125000 I-32.593227 J211.446521
G03 X139.830692 Y206.111980 Z-0.125000 I-102.095732 J655.773014
G03 X140.149458 Y206.161937 Z-0.125000 I-47.663164 J305.175577
G02 X140.468242 Y206.212038 Z-0.125000 I278.587757 J-1771.648652
G03 X140.787025 Y206.262183 Z-0.125000 I-103.117481 J656.521599
G02 X141.105792 Y206.312246 Z-0.125000 I51.147469 J-324.625438
G02 X141.424593 Y206.362125 Z-0.125000 I252.489003 J-1612.744233
G02 X141.743342 Y206.411652 Z-0.125000 I26.153376 J-167.267204
G02 X142.062164 Y206.460721 Z-0.125000 I50.427052 J-326.588676
G02 X142.380891 Y206.509130 Z-0.125000 I16.413317 J-106.992529
G02 X142.699736 Y206.556763 Z-0.125000 I25.016634 J-166.365395
G02 X143.018441 Y206.603382 Z-0.125000 I11.316674 J-76.251430
G02 X143.337309 Y206.648861 Z-0.125000 I15.413054 J-106.926229
G02 X143.655991 Y206.692928 Z-0.125000 I8.108382 J-57.463684
G02 X143.974881 Y206.735439 Z-0.125000 I10.306496 J-76.094132
G02 X144.293538 Y206.776097 Z-0.125000 I5.916040 J-45.098639
G02 X144.612448 Y206.814740 Z-0.125000 I7.093173 J-57.202592
G02 X144.931088 Y206.851037 Z-0.125000 I4.309176 J-36.411725
G02 X145.250006 Y206.884806 Z-0.125000 I4.970719 J-45.421856
G02 X145.568638 Y206.915709 Z-0.125000 I3.076732 J-30.064647
G02 X145.887550 Y206.943523 Z-0.125000 I3.331903 J-36.361655
G02 X146.206187 Y206.967898 Z-0.125000 I2.106342 J-25.439398
G02 X146.525076 Y206.988586 Z-0.125000 I2.103858 J-29.961705
G02 X146.843737 Y207.005234 Z-0.125000 I1.304467 J-21.911310
G02 X147.162581 Y207.017555 Z-0.125000 I1.139163 J-25.345909
G02 X147.481287 Y207.025210 Z-0.125000 I0.618986 J-19.134491
G02 X147.800058 Y207.027885 Z-0.125000 I0.342755 J-21.849524
G02 X148.118834 Y207.025260 Z-0.125000 I0.018748 J-17.081695
G02 X148.437503 Y207.016982 Z-0.125000 I-0.339672 J-19.213470
G02 X148.756384 Y207.002744 Z-0.125000 I-0.528093 J-15.405602
G02 X149.074911 Y206.982218 Z-0.125000 I-0.935213 J-16.995055
G02 X149.393934 Y206.955040 Z-0.125000 I-1.047017 J-14.175679
G02 X149.712284 Y206.920999 Z-0.125000 I-1.487794 J-15.419497
G02 X150.031483 Y206.879631 Z-0.125000 I-1.560736 J-13.294972
G02 X150.349630 Y206.830893 Z-0.125000 I-2.032381 J-14.329605
G02 X150.669033 Y206.774184 Z-0.125000 I-2.092997 J-12.716212
G02 X150.986956 Y206.709709 Z-0.125000 I-2.579129 J-13.533559
G02 X151.306583 Y206.636640 Z-0.125000 I-2.676192 J-12.442255
G02 X151.624280 Y206.555572 Z-0.125000 I-3.158855 J-13.042170
G02 X151.944133 Y206.465349 Z-0.125000 I-3.344846 J-12.470082
G02 X152.261621 Y206.367067 Z-0.125000 I-3.807372 J-12.861129
G02 X152.581680 Y206.259178 Z-0.125000 I-4.144738 J-12.824349
G02 X152.899001 Y206.143367 Z-0.125000 I-4.551963 J-12.964888
G02 X153.219230 Y206.017656 Z-0.125000 I-5.147616 J-13.583540
G02 X153.536439 Y205.884365 Z-0.125000 I-5.450338 J-13.414905
G02 X153.856779 Y205.741114 Z-0.125000 I-6.453866 J-14.862082
G02 X154.173954 Y205.590820 Z-0.125000 I-6.560172 J-14.254168
G02 X154.494329 Y205.430814 Z-0.125000 I-8.261284 J-16.942015
G02 X154.811564 Y205.264490 Z-0.125000 I-7.988386 J-15.622204
G02 X155.131879 Y205.089092 Z-0.125000 I-10.962675 J-20.400377
G02 X155.449273 Y204.908271 Z-0.125000 I-9.923432 J-17.787547
G02 X155.769429 Y204.719467 Z-0.125000 I-15.522989 J-26.688182
G02 X156.087087 Y204.526299 Z-0.125000 I-12.726013 J-21.285370
G02 X156.406979 Y204.326741 Z-0.125000 I-25.348923 J-40.990349
G02 X156.725004 Y204.124040 Z-0.125000 I-17.372604 J-27.607332
G02 X157.044526 Y203.917066 Z-0.125000 I-65.754764 J-101.860987
G02 X157.363016 Y203.708327 Z-0.125000 I-27.240489 J-41.910291
G03 X157.682075 Y203.497953 Z-0.125000 I100.293028 J151.760880
G02 X158.001106 Y203.287372 Z-0.125000 I-68.109572 J-103.533256
G03 X158.319625 Y203.078242 Z-0.125000 I26.430011 J39.907572
G03 X158.639252 Y202.870690 Z-0.125000 I96.615862 J148.436929
G03 X158.957175 Y202.668012 Z-0.125000 I14.032918 J21.661448
G02 X159.281822 Y202.453966 Z-0.125000 I-4.558543 J-7.267267
G03 X159.594725 Y202.278405 Z-0.125000 I1.084970 J1.567117
G03 X159.919970 Y202.142664 Z-0.125000 I3.295100 J7.437774
G03 X160.232275 Y202.103111 Z-0.125000 I0.234343 J0.597606
G03 X160.544423 Y202.233361 Z-0.125000 I-0.076052 J0.621425
G02 X160.869824 Y202.434435 Z-0.125000 I1.030543 J-1.303904
G02 X161.191716 Y202.577686 Z-0.125000 I3.841493 J-8.198772
G02 X161.507372 Y202.700550 Z-0.125000 I2.346617 J-5.561859
G02 X161.828900 Y202.806334 Z-0.125000 I2.252493 J-6.304878
G02 X162.144921 Y202.889986 Z-0.125000 I1.395044 J-4.631443
G02 X162.459725 Y202.927822 Z-0.125000 I0.336305 J-1.469600
G03 X162.782471 Y202.992351 Z-0.125000 I-0.012893 J0.903871
G03 X163.095020 Y203.173487 Z-0.125000 I-0.464700 J1.162054
G02 X163.420021 Y203.399891 Z-0.125000 I1.997446 J-2.520851
G02 X163.741990 Y203.593748 Z-0.125000 I19.973923 J-32.809634
G02 X164.057571 Y203.768600 Z-0.125000 I2.967390 J-4.983434
G02 X164.380452 Y203.925009 Z-0.125000 I3.453572 J-6.717872
G02 X164.695120 Y204.055403 Z-0.125000 I2.045908 J-4.492347
G02 X165.015282 Y204.155490 Z-0.125000 I1.063422 J-2.839597
G03 X165.332670 Y204.246130 Z-0.125000 I-1.325259 J5.241557
G02 X165.645655 Y204.337024 Z-0.125000 I1.898842 J-5.954202
G03 X165.970217 Y204.462041 Z-0.125000 I-0.397963 J1.516985
G03 X166.285438 Y204.672680 Z-0.125000 I-0.793250 J1.528278
G02 X166.607767 Y204.907979 Z-0.125000 I1.868006 J-2.220496
G02 X166.931716 Y205.101534 Z-0.125000 I4.334051 J-6.885959
G02 X167.245317 Y205.264595 Z-0.125000 I2.427836 J-4.286149
G02 X167.568261 Y205.402909 Z-0.125000 I1.936493 J-4.075275
G02 X167.882867 Y205.513893 Z-0.125000 I2.245303 J-5.863340
G02 X168.195978 Y205.579920 Z-0.125000 I0.470617 J-1.456328
G03 X168.520416 Y205.676649 Z-0.125000 I-0.093874 J0.907326
G03 X168.833378 Y205.902860 Z-0.125000 I-0.594629 J1.152261
G02 X169.157966 Y206.171908 Z-0.125000 I1.775032 J-1.811133
G02 X169.482925 Y206.386759 Z-0.125000 I4.506969 J-6.463554
G02 X169.795516 Y206.565756 Z-0.125000 I2.425804 J-3.873855
G02 X170.118284 Y206.713217 Z-0.125000 I1.575555 J-3.021660
G02 X170.433063 Y206.836768 Z-0.125000 I25.565730 J-64.672512
G02 X170.745729 Y206.933832 Z-0.125000 I0.842764 J-2.162629
G03 X171.070613 Y207.062653 Z-0.125000 I-0.272335 J1.160906
G03 X171.385075 Y207.303120 Z-0.125000 I-0.775054 J1.339398
G02 X171.708163 Y207.574614 Z-0.125000 I1.808146 J-1.823772
G00 Z3.000000

(End cutting path id: path608)


(Start cutting path id: path606)
(Change tool to Default tool)

G00 Z3.000000
G00 X14.871012 Y200.550424

G00 Z4.875000 (Fast pre-penetrate)
G01 Z-0.125000 F400.0(Penetrate)
G02 X15.189494 Y200.415231 Z-0.125000 I-18.339763 J-43.646463 F800.000000
G02 X15.508562 Y200.278166 Z-0.125000 I-106.041155 J-247.289349
G02 X15.827261 Y200.140169 Z-0.125000 I-30.696536 J-71.329527
G03 X16.146109 Y200.001698 Z-0.125000 I60.093845 J137.937780
G02 X16.465058 Y199.863377 Z-0.125000 I-108.341891 J-250.258469
G03 X16.783659 Y199.726156 Z-0.125000 I21.964839 J50.559601
G03 X17.102871 Y199.590302 Z-0.125000 I58.354614 J136.671798
G03 X17.421209 Y199.457268 Z-0.125000 I12.572956 J29.638403
G02 X17.745800 Y199.294797 Z-0.125000 I-0.939377 J-2.282196
G03 X18.058758 Y199.201308 Z-0.125000 I0.341553 J0.572797
G03 X18.372343 Y199.264477 Z-0.125000 I0.028675 J0.667589
G02 X18.696308 Y199.402557 Z-0.125000 I1.998109 J-4.238876
G03 X19.014160 Y199.542552 Z-0.125000 I-1.252476 J3.274531
G02 X19.333858 Y199.689024 Z-0.125000 I2.262845 J-4.516872
G02 X19.654513 Y199.817847 Z-0.125000 I5.193041 J-12.462584
G02 X19.971408 Y199.933877 Z-0.125000 I3.340653 J-8.633043
G02 X20.290907 Y200.034405 Z-0.125000 I1.959230 J-5.668853
G03 X20.608955 Y200.129711 Z-0.125000 I-3.189045 J11.220628
G02 X20.924190 Y200.221512 Z-0.125000 I2.244134 J-7.119011
G03 X21.246505 Y200.335829 Z-0.125000 I-0.556722 J2.081197
G03 X21.562589 Y200.508631 Z-0.125000 I-0.919430 J2.057287
G02 X21.884054 Y200.699572 Z-0.125000 I2.312355 J-3.526951
G02 X22.205271 Y200.866473 Z-0.125000 I6.874962 J-12.838964
G02 X22.521604 Y201.018620 Z-0.125000 I4.278505 J-8.490665
G02 X22.842917 Y201.159646 Z-0.125000 I4.497708 J-9.810993
G02 X23.159154 Y201.284118 Z-0.125000 I2.942033 J-7.010631
G02 X23.478061 Y201.386441 Z-0.125000 I1.372165 J-3.728472
G03 X23.796704 Y201.487882 Z-0.125000 I-1.111429 J4.042370
G03 X24.111365 Y201.604704 Z-0.125000 I-7.738731 J21.326515
G03 X24.434253 Y201.746818 Z-0.125000 I-1.210880 J3.189014
G03 X24.751384 Y201.932936 Z-0.125000 I-1.285591 J2.553791
G02 X25.071801 Y202.129763 Z-0.125000 I2.384723 J-3.522909
G02 X25.393739 Y202.301609 Z-0.125000 I5.423117 J-9.772195
G02 X25.709350 Y202.454448 Z-0.125000 I3.478967 J-6.781765
G02 X26.031213 Y202.593171 Z-0.125000 I3.459152 J-7.583134
G02 X26.346900 Y202.711419 Z-0.125000 I2.305954 J-5.675677
G02 X26.662334 Y202.792266 Z-0.125000 I0.662075 J-1.927388
G03 X26.984450 Y202.892455 Z-0.125000 I-0.220265 J1.276084
G03 X27.298545 Y203.080065 Z-0.125000 I-0.722375 J1.566127
G02 X27.622000 Y203.299555 Z-0.125000 I2.423110 J-3.222764
G02 X27.943718 Y203.493598 Z-0.125000 I19.654368 J-32.222780
G02 X28.259550 Y203.670210 Z-0.125000 I3.325002 J-5.575335
G02 X28.582058 Y203.830032 Z-0.125000 I3.806735 J-7.276380
G02 X28.897099 Y203.966635 Z-0.125000 I2.509199 J-5.355252
G02 X29.214056 Y204.067967 Z-0.125000 I0.874200 J-2.188046
G03 X29.534646 Y204.179654 Z-0.125000 I-0.416787 J1.712329
G03 X29.848668 Y204.351781 Z-0.125000 I-1.075406 J2.334436
G02 X30.172196 Y204.554044 Z-0.125000 I8.314861 J-12.940075
G03 X30.492460 Y204.759070 Z-0.125000 I-4.274806 J7.030179
G02 X30.809746 Y204.955001 Z-0.125000 I2.647215 J-3.931964
G02 X31.132843 Y205.127457 Z-0.125000 I3.819560 J-6.767048
G02 X31.447296 Y205.273747 Z-0.125000 I2.494479 J-4.950844
G02 X31.763744 Y205.380766 Z-0.125000 I0.842516 J-1.969893
G03 X32.084846 Y205.500360 Z-0.125000 I-0.388635 J1.534328
G03 X32.398812 Y205.691453 Z-0.125000 I-1.009126 J2.011466
G02 X32.722395 Y205.913437 Z-0.125000 I4.238017 J-5.830862
G03 X33.043738 Y206.126944 Z-0.125000 I-8.461255 J13.083386
G02 X33.359945 Y206.324988 Z-0.125000 I2.677526 J-3.923604
G02 X33.683559 Y206.499130 Z-0.125000 I3.435329 J-5.996241
G02 X33.997492 Y206.643953 Z-0.125000 I2.233804 J-4.429528
G02 X34.320266 Y206.766709 Z-0.125000 I1.968002 J-4.688949
G02 X34.635042 Y206.860152 Z-0.125000 I1.299374 J-3.800203
G02 X34.956054 Y206.927609 Z-0.125000 I0.991777 J-3.922085
G02 X35.272592 Y206.966393 Z-0.125000 I0.592226 J-3.522411
G02 X35.591198 Y206.976834 Z-0.125000 I0.276478 J-3.570257
G02 X35.910142 Y206.958852 Z-0.125000 I-0.042189 J-3.585813
G02 X36.226369 Y206.912588 Z-0.125000 I-0.362593 J-3.582269
G02 X36.547691 Y206.837337 Z-0.125000 I-0.770660 J-4.014402
G02 X36.862221 Y206.736262 Z-0.125000 I-1.089651 J-3.930741
G02 X37.185241 Y206.605377 Z-0.125000 I-1.789207 J-4.879760
G02 X37.499020 Y206.452672 Z-0.125000 I-2.061760 J-4.635223
G02 X37.822791 Y206.270182 Z-0.125000 I-3.356455 J-6.333454
G02 X38.136648 Y206.070366 Z-0.125000 I-3.443113 J-5.754594
G02 X38.460338 Y205.842449 Z-0.125000 I-5.896036 J-8.717442
G02 X38.774849 Y205.601478 Z-0.125000 I-5.449492 J-7.438298
G02 X39.097888 Y205.336006 Z-0.125000 I-10.347568 J-12.920677
G02 X39.413391 Y205.061256 Z-0.125000 I-8.450791 J-10.022805
G02 X39.735438 Y204.767330 Z-0.125000 I-19.814893 J-22.034014
G02 X40.052113 Y204.467406 Z-0.125000 I-13.347460 J-14.410083
G02 X40.372987 Y204.154939 Z-0.125000 I-55.981946 J-57.809306
G02 X40.690914 Y203.839384 Z-0.125000 I-23.223778 J-23.716286
G03 X41.010537 Y203.518712 Z-0.125000 I117.652569 J116.948035
G02 X41.329735 Y203.197640 Z-0.125000 I-60.452336 J-60.418486
G03 X41.648087 Y202.879133 Z-0.125000 I30.009329 J29.676445
G03 X41.968521 Y202.562849 Z-0.125000 I110.711101 J111.843165
G03 X42.285634 Y202.256530 Z-0.125000 I16.513423 J16.778016
G03 X42.607219 Y201.955138 Z-0.125000 I26.480314 J27.932181
G03 X42.923184 Y201.670312 Z-0.125000 I10.585647 J11.425273
G03 X43.245751 Y201.393338 Z-0.125000 I13.397518 J15.276616
G03 X43.560734 Y201.138272 Z-0.125000 I7.103090 J8.449634
G03 X43.884005 Y200.894298 Z-0.125000 I7.872668 J10.095320
G03 X44.198283 Y200.675961 Z-0.125000 I4.800103 J6.573992
G03 X44.521827 Y200.472276 Z-0.125000 I4.830801 J7.314684
G03 X44.835833 Y200.296165 Z-0.125000 I3.201466 J5.340232
G03 X45.159038 Y200.138428 Z-0.125000 I2.959157 J5.653318
G03 X45.473383 Y200.008527 Z-0.125000 I2.067790 J4.558519
G03 X45.795533 Y199.900442 Z-0.125000 I1.741809 J4.657407
G03 X46.110933 Y199.819286 Z-0.125000 I1.233977 J4.142196
G03 X46.431410 Y199.762424 Z-0.125000 I0.897105 J4.124579
G03 X46.748480 Y199.731191 Z-0.125000 I0.560330 J4.063255
G03 X47.067038 Y199.725069 Z-0.125000 I0.235563 J3.966649
G03 X47.386030 Y199.743547 Z-0.125000 I-0.090273 J4.321168
G03 X47.699287 Y199.773893 Z-0.125000 I-7.982200 J84.029655
G03 X48.023579 Y199.852380 Z-0.125000 I-0.118315 J1.198052
G03 X48.336454 Y200.028774 Z-0.125000 I-0.483964 J1.224100
G02 X48.661129 Y200.247675 Z-0.125000 I2.080086 J-2.734953
G02 X48.981730 Y200.434204 Z-0.125000 I10.227735 J-17.210355
G02 X49.298679 Y200.610138 Z-0.125000 I8.202837 J-14.404147
G02 X49.615839 Y200.769366 Z-0.125000 I2.765950 J-5.113917
G03 X49.936229 Y200.937332 Z-0.125000 I-1.584154 J3.411266
G03 X50.253416 Y201.143244 Z-0.125000 I-2.136866 J3.638884
G02 X50.573779 Y201.358911 Z-0.125000 I3.994830 J-5.588361
G02 X50.893693 Y201.554953 Z-0.125000 I6.861852 J-10.838544
G03 X51.211326 Y201.744591 Z-0.125000 I-30.582753 J51.585339
G02 X51.528706 Y201.931205 Z-0.125000 I9.700328 J-16.134472
G03 X51.848875 Y202.125532 Z-0.125000 I-3.928796 J6.833909
G03 X52.167098 Y202.341399 Z-0.125000 I-3.870077 J6.047593
G02 X52.486425 Y202.560573 Z-0.125000 I5.299234 J-7.378575
G02 X52.804261 Y202.758412 Z-0.125000 I4.381083 J-6.684134
G03 X53.123975 Y202.961289 Z-0.125000 I-2.999360 J5.080055
G03 X53.441528 Y203.191163 Z-0.125000 I-3.796749 J5.579193
G02 X53.761525 Y203.428307 Z-0.125000 I6.798312 J-8.839006
G02 X54.082022 Y203.654772 Z-0.125000 I23.888847 J-33.467803
G02 X54.399075 Y203.871423 Z-0.125000 I10.071213 J-14.398214
G02 X54.720065 Y204.081711 Z-0.125000 I12.461847 J-18.671964
G02 X55.036624 Y204.279330 Z-0.125000 I7.560670 J-11.758848
G02 X55.357886 Y204.468883 Z-0.125000 I8.274874 J-13.657580
G02 X55.674172 Y204.643978 Z-0.125000 I5.709083 J-9.939437
G02 X55.995501 Y204.809295 Z-0.125000 I5.799788 J-10.878260
G02 X56.311721 Y204.959174 Z-0.125000 I4.345093 J-8.758917
G02 X56.632904 Y205.097755 Z-0.125000 I4.152380 J-9.182266
G02 X56.949271 Y205.220608 Z-0.125000 I3.294634 J-8.015453
G02 X57.270106 Y205.330942 Z-0.125000 I2.977642 J-8.136876
G02 X57.586821 Y205.425797 Z-0.125000 I2.454356 J-7.618764
G02 X57.907156 Y205.507323 Z-0.125000 I2.087811 J-7.533473
G02 X58.224371 Y205.573974 Z-0.125000 I1.748084 J-7.531449
G02 X58.544122 Y205.626979 Z-0.125000 I1.371757 J-7.284205
G02 X58.861920 Y205.665920 Z-0.125000 I1.109280 J-7.736673
G02 X59.181090 Y205.691426 Z-0.125000 I0.745980 J-7.324919
G02 X59.499470 Y205.703771 Z-0.125000 I0.479836 J-8.263620
G02 X59.818128 Y205.703411 Z-0.125000 I0.150623 J-7.705830
G02 X60.137017 Y205.690806 Z-0.125000 I-0.196540 J-9.012545
G02 X60.455293 Y205.666577 Z-0.125000 I-0.473543 J-8.322961
G02 X60.774567 Y205.631198 Z-0.125000 I-1.001559 J-10.496934
G02 X61.092596 Y205.585518 Z-0.125000 I-1.178906 J-9.337545
G02 X61.412117 Y205.529816 Z-0.125000 I-2.004444 J-12.442113
G02 X61.730031 Y205.465295 Z-0.125000 I-2.024028 J-10.788504
G02 X62.049667 Y205.391976 Z-0.125000 I-3.340023 J-15.294294
G02 X62.367580 Y205.311353 Z-0.125000 I-3.086537 J-12.837956
G02 X62.687216 Y205.223246 Z-0.125000 I-5.223954 J-19.575468
G02 X63.005212 Y205.129303 Z-0.125000 I-4.485397 J-15.768190
G02 X63.324766 Y205.029256 Z-0.125000 I-8.108110 J-26.458076
G02 X63.642899 Y204.924748 Z-0.125000 I-6.439262 J-20.138144
G02 X63.962316 Y204.815534 Z-0.125000 I-13.041519 J-38.664165
G02 X64.280618 Y204.703123 Z-0.125000 I-9.380510 J-27.068510
G02 X64.599863 Y204.587382 Z-0.125000 I-23.665609 J-65.774290
G02 X64.918346 Y204.469578 Z-0.125000 I-14.380839 J-39.368042
G02 X65.237413 Y204.349752 Z-0.125000 I-64.990215 J-173.537350
G02 X65.556069 Y204.228875 Z-0.125000 I-25.094072 J-66.633805
G03 X65.874963 Y204.107177 Z-0.125000 I156.993470 J410.900166
G02 X66.193774 Y203.985322 Z-0.125000 I-66.538460 J-174.563425
G03 X66.512513 Y203.863713 Z-0.125000 I40.383426 J105.366986
G03 X66.831459 Y203.742720 Z-0.125000 I154.178513 J405.945513
G03 X67.150062 Y203.622897 Z-0.125000 I24.473222 J64.589772
G03 X67.469115 Y203.504355 Z-0.125000 I39.065305 J104.654937
G03 X67.787612 Y203.387749 Z-0.125000 I18.075045 J48.876607
G03 X68.106746 Y203.272982 Z-0.125000 I23.206730 J64.030357
G03 X68.425162 Y203.160763 Z-0.125000 I14.580460 J40.863420
G03 X68.744351 Y203.050842 Z-0.125000 I16.842603 J48.389122
G03 X69.062709 Y202.943935 Z-0.125000 I12.346721 J36.239738
G03 X69.381931 Y202.839689 Z-0.125000 I13.376985 J40.422340
G03 X69.700259 Y202.738788 Z-0.125000 I10.794293 J33.501589
G03 X70.019489 Y202.640824 Z-0.125000 I11.180058 J35.862803
G03 X70.337809 Y202.546415 Z-0.125000 I9.626218 J31.872912
G03 X70.657027 Y202.455131 Z-0.125000 I9.629955 J33.071986
G03 X70.975358 Y202.367509 Z-0.125000 I8.738509 J31.125093
G03 X71.294554 Y202.283130 Z-0.125000 I8.502062 J31.516250
G03 X71.612908 Y202.202433 Z-0.125000 I8.026318 J30.996071
G03 X71.932068 Y202.125024 Z-0.125000 I7.631772 J30.769581
G03 X72.250458 Y202.051248 Z-0.125000 I7.443495 J31.399096
G03 X72.569579 Y201.980743 Z-0.125000 I6.943380 J30.669778
G03 X72.888008 Y201.913762 Z-0.125000 I6.963334 J32.313781
G03 X73.207087 Y201.849988 Z-0.125000 I6.383929 J31.110517
G03 X73.525555 Y201.789594 Z-0.125000 I6.543421 J33.634227
G03 X73.844595 Y201.732290 Z-0.125000 I5.914997 J32.015122
G03 X74.163105 Y201.678186 Z-0.125000 I6.198766 J35.527342
G03 X74.482105 Y201.627029 Z-0.125000 I5.522537 J33.417301
G03 X74.800654 Y201.578872 Z-0.125000 I5.893496 J37.906179
G03 X75.119615 Y201.533490 Z-0.125000 I5.187757 J35.318345
