%
(Header)
(Generated by gcodetools from Inkscape.)
(Using default header. To add your own header create file "header" in the output dir.)
M3
(Header end.)
G21 (All units in mm)

(Start cutting path id: polyline534)
(Change tool to Default tool)

G00 Z5.000000
G00 X187.760674 Y45.427191

G00 Z4.875000 (Fast pre-penetrate)
G01 Z-0.125000 F100.0(Penetrate)
G01 X187.777634 Y49.778523 Z-0.125000 F800.000000
G01 X188.265022 Y51.954189 Z-0.125000
G01 X188.374454 Y53.042022 Z-0.125000
G01 X188.362627 Y54.129855 Z-0.125000
G01 X188.230891 Y55.217688 Z-0.125000
G01 X187.981971 Y56.305521 Z-0.125000
G01 X187.619863 Y57.393328 Z-0.125000
G01 X187.149752 Y58.481161 Z-0.125000
G01 X185.912006 Y60.656827 Z-0.125000
G01 X185.159955 Y61.744660 Z-0.125000
G01 X183.434768 Y63.920326 Z-0.125000
G01 X180.448076 Y67.183825 Z-0.125000
G01 X174.125442 Y73.710797 Z-0.125000
G01 X172.226001 Y75.886463 Z-0.125000
G01 X170.552884 Y78.062129 Z-0.125000
G01 X169.162659 Y80.237795 Z-0.125000
G01 X168.097421 Y82.413434 Z-0.125000
G01 X167.384291 Y84.589259 Z-0.125000
G01 X167.035015 Y86.764898 Z-0.125000
G01 X166.996385 Y87.852731 Z-0.125000
G01 X167.182387 Y90.028397 Z-0.125000
G01 X167.698483 Y92.204063 Z-0.125000
G01 X168.509615 Y94.379729 Z-0.125000
G01 X169.571360 Y96.555395 Z-0.125000
G01 X170.832442 Y98.731061 Z-0.125000
G01 X172.237140 Y100.906701 Z-0.125000
G01 X177.456965 Y108.521532 Z-0.125000
G01 X179.443534 Y111.785031 Z-0.125000
G01 X180.576081 Y113.960697 Z-0.125000
G01 X181.913178 Y117.224170 Z-0.125000
G01 X182.535477 Y119.399836 Z-0.125000
G01 X182.931029 Y121.575502 Z-0.125000
G01 X183.098933 Y123.751168 Z-0.125000
G01 X183.045435 Y125.926807 Z-0.125000
G01 X182.783101 Y128.102473 Z-0.125000
G01 X182.329790 Y130.278139 Z-0.125000
G01 X181.707518 Y132.453805 Z-0.125000
G01 X180.941365 Y134.629604 Z-0.125000
G01 X179.581488 Y137.893103 Z-0.125000
G01 X173.802942 Y149.859239 Z-0.125000
G01 X172.347682 Y153.122738 Z-0.125000
G01 X171.045458 Y156.386211 Z-0.125000
G01 X169.593744 Y160.737543 Z-0.125000
G01 X168.732764 Y164.001015 Z-0.125000
G01 X168.065036 Y167.264541 Z-0.125000
G01 X167.453479 Y171.615846 Z-0.125000
G01 X167.069569 Y177.055011 Z-0.125000
G01 X167.002709 Y182.494309 Z-0.125000
G01 X167.136773 Y187.933447 Z-0.125000
G01 X167.810296 Y204.250916 Z-0.125000
G01 X167.934914 Y214.041386 Z-0.125000
G01 X167.759760 Y222.744050 Z-0.125000
G01 X167.082931 Y239.061651 Z-0.125000
G01 X167.003582 Y245.588649 Z-0.125000
G01 X167.144393 Y249.939955 Z-0.125000
G01 X167.510259 Y254.291260 Z-0.125000
G01 X168.157640 Y258.642592 Z-0.125000
G01 X168.855160 Y261.906092 Z-0.125000
G00 Z5.000000

(End cutting path id: polyline534)


(Start cutting path id: polyline474)
(Change tool to Default tool)

G00 Z5.000000
G00 X169.364430 Y45.427191

G00 Z4.875000 (Fast pre-penetrate)
G01 Z-0.125000 F100.0(Penetrate)
G01 X169.319504 Y50.866356 Z-0.125000 F800.000000
G01 X169.522783 Y57.393328 Z-0.125000
G01 X168.805498 Y58.481161 Z-0.125000
G01 X164.269620 Y62.832493 Z-0.125000
G01 X161.124389 Y66.095992 Z-0.125000
G01 X159.322367 Y68.271658 Z-0.125000
G01 X158.538090 Y69.359491 Z-0.125000
G01 X157.239729 Y71.535157 Z-0.125000
G01 X156.336469 Y73.710797 Z-0.125000
G01 X156.041379 Y74.798630 Z-0.125000
G01 X155.852626 Y75.886463 Z-0.125000
G01 X155.770102 Y76.974296 Z-0.125000
G01 X155.792460 Y78.062129 Z-0.125000
G01 X156.140757 Y80.237795 Z-0.125000
G01 X156.864656 Y82.413434 Z-0.125000
G01 X157.915950 Y84.589259 Z-0.125000
G01 X159.234182 Y86.764898 Z-0.125000
G01 X160.749845 Y88.940564 Z-0.125000
G01 X165.729006 Y95.467562 Z-0.125000
G01 X167.286977 Y97.643228 Z-0.125000
G01 X168.684690 Y99.818894 Z-0.125000
G01 X169.869968 Y101.994534 Z-0.125000
G01 X170.802094 Y104.170200 Z-0.125000
G01 X171.452783 Y106.345866 Z-0.125000
G01 X171.806531 Y108.521532 Z-0.125000
G01 X171.870666 Y109.609365 Z-0.125000
G01 X171.860426 Y110.697198 Z-0.125000
G01 X171.623307 Y112.872838 Z-0.125000
G01 X171.114593 Y115.048504 Z-0.125000
G01 X170.362701 Y117.224170 Z-0.125000
G01 X169.403191 Y119.399836 Z-0.125000
G01 X168.276782 Y121.575502 Z-0.125000
G01 X166.370779 Y124.838974 Z-0.125000
G01 X161.684485 Y132.453805 Z-0.125000
G01 X159.890533 Y135.717437 Z-0.125000
G01 X158.841699 Y137.893103 Z-0.125000
G01 X157.537464 Y141.156602 Z-0.125000
G01 X156.864259 Y143.332241 Z-0.125000
G01 X156.353958 Y145.507907 Z-0.125000
G01 X155.890488 Y148.771406 Z-0.125000
G01 X155.773092 Y150.947072 Z-0.125000
G01 X155.856515 Y154.210545 Z-0.125000
G01 X156.064054 Y156.386211 Z-0.125000
G01 X156.561973 Y159.649710 Z-0.125000
G01 X157.745056 Y165.088875 Z-0.125000
G01 X160.283915 Y174.879345 Z-0.125000
G01 X161.594209 Y180.318510 Z-0.125000
G01 X162.700298 Y185.757781 Z-0.125000
G01 X163.413191 Y190.109113 Z-0.125000
G01 X163.973022 Y194.460419 Z-0.125000
G01 X164.473692 Y199.899584 Z-0.125000
G01 X164.732402 Y204.250916 Z-0.125000
G01 X164.899777 Y209.690081 Z-0.125000
G01 X164.890940 Y216.217052 Z-0.125000
G01 X164.650804 Y222.744050 Z-0.125000
G01 X164.148493 Y229.271022 Z-0.125000
G01 X163.495767 Y234.710293 Z-0.125000
G01 X162.605948 Y240.149458 Z-0.125000
G01 X161.478348 Y245.588649 Z-0.125000
G01 X157.363077 Y261.906092 Z-0.125000
G00 Z5.000000

(End cutting path id: polyline474)


(Start cutting path id: polyline144)
(Change tool to Default tool)

G00 Z5.000000
G00 X156.460002 Y45.427191

G00 Z4.875000 (Fast pre-penetrate)
G01 Z-0.125000 F100.0(Penetrate)
G01 X156.452197 Y53.042022 Z-0.125000 F800.000000
G01 X156.810125 Y60.656827 Z-0.125000
G01 X156.461616 Y61.744660 Z-0.125000
G01 X154.540876 Y63.920326 Z-0.125000
G01 X153.696459 Y65.008159 Z-0.125000
G01 X152.282369 Y67.183825 Z-0.125000
G01 X151.726057 Y68.271658 Z-0.125000
G01 X151.276874 Y69.359491 Z-0.125000
G01 X150.938102 Y70.447324 Z-0.125000
G01 X150.711540 Y71.535157 Z-0.125000
G01 X150.597610 Y72.622964 Z-0.125000
G01 X150.595494 Y73.710797 Z-0.125000
G01 X150.702729 Y74.798630 Z-0.125000
G01 X150.915877 Y75.886463 Z-0.125000
G01 X151.639750 Y78.062129 Z-0.125000
G01 X152.137722 Y79.149962 Z-0.125000
G01 X153.366974 Y81.325628 Z-0.125000
G01 X155.656014 Y84.589259 Z-0.125000
G01 X161.637072 Y92.204063 Z-0.125000
G01 X163.147417 Y94.379729 Z-0.125000
G01 X164.443054 Y96.555395 Z-0.125000
G01 X165.473234 Y98.731061 Z-0.125000
G01 X166.201446 Y100.906701 Z-0.125000
G01 X166.605940 Y103.082367 Z-0.125000
G01 X166.679918 Y105.258033 Z-0.125000
G01 X166.430839 Y107.433699 Z-0.125000
G01 X165.879290 Y109.609365 Z-0.125000
G01 X165.057071 Y111.785031 Z-0.125000
G01 X164.005063 Y113.960697 Z-0.125000
G01 X162.101759 Y117.224170 Z-0.125000
G01 X155.700305 Y127.014640 Z-0.125000
G01 X153.875476 Y130.278139 Z-0.125000
G01 X152.851778 Y132.453805 Z-0.125000
G01 X152.008102 Y134.629604 Z-0.125000
G01 X151.357572 Y136.805270 Z-0.125000
G01 X150.905638 Y138.980936 Z-0.125000
G01 X150.650580 Y141.156602 Z-0.125000
G01 X150.584355 Y143.332241 Z-0.125000
G01 X150.693548 Y145.507907 Z-0.125000
G01 X150.960513 Y147.683573 Z-0.125000
G01 X151.610540 Y150.947072 Z-0.125000
G01 X152.820743 Y155.298378 Z-0.125000
G01 X156.092735 Y165.088875 Z-0.125000
G01 X157.451924 Y169.440180 Z-0.125000
G01 X158.619979 Y173.791539 Z-0.125000
G01 X159.346206 Y177.055011 Z-0.125000
G01 X159.939877 Y180.318510 Z-0.125000
G01 X160.536221 Y184.669975 Z-0.125000
G01 X160.938176 Y189.021280 Z-0.125000
G01 X161.186222 Y193.372586 Z-0.125000
G01 X161.397333 Y203.163083 Z-0.125000
G01 X161.393391 Y222.744050 Z-0.125000
G01 X161.209770 Y231.446820 Z-0.125000
G01 X160.810435 Y237.973792 Z-0.125000
G01 X160.476716 Y241.237291 Z-0.125000
G01 X160.031000 Y244.500790 Z-0.125000
G01 X159.006561 Y249.939955 Z-0.125000
G01 X157.618373 Y255.379093 Z-0.125000
G01 X155.559018 Y261.906092 Z-0.125000
G00 Z5.000000

(End cutting path id: polyline144)


(Start cutting path id: polyline142)
(Change tool to Default tool)

G00 Z5.000000
G00 X154.464597 Y45.427191

G00 Z4.875000 (Fast pre-penetrate)
G01 Z-0.125000 F100.0(Penetrate)
G01 X154.419009 Y49.778523 Z-0.125000 F800.000000
G01 X154.483938 Y54.129855 Z-0.125000
G01 X154.869594 Y61.744660 Z-0.125000
G01 X152.398548 Y65.008159 Z-0.125000
G01 X151.089655 Y67.183825 Z-0.125000
G01 X150.591816 Y68.271658 Z-0.125000
G01 X150.204070 Y69.359491 Z-0.125000
G01 X149.928877 Y70.447324 Z-0.125000
G01 X149.767323 Y71.535157 Z-0.125000
G01 X149.719063 Y72.622964 Z-0.125000
G01 X149.782351 Y73.710797 Z-0.125000
G01 X149.954145 Y74.798630 Z-0.125000
G01 X150.230105 Y75.886463 Z-0.125000
G01 X151.071584 Y78.062129 Z-0.125000
G01 X151.623002 Y79.149962 Z-0.125000
G01 X152.945282 Y81.325628 Z-0.125000
G01 X155.332217 Y84.589259 Z-0.125000
G01 X160.515848 Y91.116230 Z-0.125000
G01 X162.064003 Y93.291896 Z-0.125000
G01 X163.404063 Y95.467562 Z-0.125000
G01 X164.482212 Y97.643228 Z-0.125000
G01 X165.258737 Y99.818894 Z-0.125000
G01 X165.709216 Y101.994534 Z-0.125000
G01 X165.824362 Y104.170200 Z-0.125000
G01 X165.609891 Y106.345866 Z-0.125000
G01 X165.085038 Y108.521532 Z-0.125000
G01 X164.280917 Y110.697198 Z-0.125000
G01 X163.238460 Y112.872838 Z-0.125000
G01 X161.334521 Y116.136337 Z-0.125000
G01 X154.865281 Y125.926834 Z-0.125000
G01 X153.014947 Y129.190306 Z-0.125000
G01 X151.978099 Y131.365972 Z-0.125000
G01 X151.125771 Y133.541771 Z-0.125000
G01 X150.471907 Y135.717437 Z-0.125000
G01 X150.022407 Y137.893103 Z-0.125000
G01 X149.775630 Y140.068742 Z-0.125000
G01 X149.723322 Y142.244435 Z-0.125000
G01 X149.851592 Y144.420074 Z-0.125000
G01 X150.141919 Y146.595740 Z-0.125000
G01 X150.832931 Y149.859239 Z-0.125000
G01 X152.102876 Y154.210545 Z-0.125000
G01 X155.486893 Y164.001042 Z-0.125000
G01 X156.542129 Y167.264541 Z-0.125000
G01 X157.772837 Y171.615846 Z-0.125000
G01 X158.537535 Y174.879345 Z-0.125000
G01 X159.159490 Y178.142844 Z-0.125000
G01 X159.776048 Y182.494309 Z-0.125000
G01 X160.095955 Y185.757781 Z-0.125000
G01 X160.367073 Y190.109113 Z-0.125000
G01 X160.554954 Y198.811751 Z-0.125000
G01 X160.557335 Y226.007523 Z-0.125000
G01 X160.466503 Y232.534653 Z-0.125000
G01 X160.218430 Y237.973792 Z-0.125000
G01 X159.953001 Y241.237291 Z-0.125000
G01 X159.576076 Y244.500790 Z-0.125000
G01 X158.657444 Y249.939955 Z-0.125000
G01 X157.346673 Y255.379093 Z-0.125000
G01 X156.382771 Y258.642592 Z-0.125000
G01 X155.313167 Y261.906092 Z-0.125000
G00 Z5.000000

(End cutting path id: polyline142)


(Start cutting path id: polyline148)
(Change tool to Default tool)

G00 Z5.000000
G00 X152.561451 Y45.427191

G00 Z4.875000 (Fast pre-penetrate)
G01 Z-0.125000 F100.0(Penetrate)
G01 X152.519832 Y49.778523 Z-0.125000 F800.000000
G01 X152.579152 Y54.129855 Z-0.125000
G01 X152.933217 Y61.744660 Z-0.125000
G01 X152.727080 Y62.832493 Z-0.125000
G01 X151.133444 Y65.008159 Z-0.125000
G01 X150.481035 Y66.095992 Z-0.125000
G01 X149.495305 Y68.271658 Z-0.125000
G01 X149.169735 Y69.359491 Z-0.125000
G01 X148.958466 Y70.447324 Z-0.125000
G01 X148.861840 Y71.535157 Z-0.125000
G01 X148.878641 Y72.622964 Z-0.125000
G01 X149.006382 Y73.710797 Z-0.125000
G01 X149.241226 Y74.798630 Z-0.125000
G01 X150.010871 Y76.974296 Z-0.125000
G01 X150.532232 Y78.062129 Z-0.125000
G01 X151.807231 Y80.237795 Z-0.125000
G01 X154.156781 Y83.501294 Z-0.125000
G01 X160.190967 Y91.116230 Z-0.125000
G01 X161.684538 Y93.291896 Z-0.125000
G01 X162.947631 Y95.467562 Z-0.125000
G01 X163.929974 Y97.643228 Z-0.125000
G01 X164.596274 Y99.818894 Z-0.125000
G01 X164.804130 Y100.906701 Z-0.125000
G01 X164.964414 Y103.082367 Z-0.125000
G01 X164.788599 Y105.258033 Z-0.125000
G01 X164.294437 Y107.433699 Z-0.125000
G01 X163.512277 Y109.609365 Z-0.125000
G01 X162.482652 Y111.785031 Z-0.125000
G01 X161.254167 Y113.960697 Z-0.125000
G01 X159.880505 Y116.136337 Z-0.125000
G01 X154.047085 Y124.838974 Z-0.125000
G01 X152.169128 Y128.102473 Z-0.125000
G01 X151.117172 Y130.278139 Z-0.125000
G01 X150.253944 Y132.453805 Z-0.125000
G01 X149.594312 Y134.629604 Z-0.125000
G01 X149.144706 Y136.805270 Z-0.125000
G01 X148.903750 Y138.980936 Z-0.125000
G01 X148.862978 Y141.156602 Z-0.125000
G01 X149.007996 Y143.332241 Z-0.125000
G01 X149.319569 Y145.507907 Z-0.125000
G01 X150.048760 Y148.771406 Z-0.125000
G01 X151.375141 Y153.122738 Z-0.125000
G01 X155.592064 Y165.088875 Z-0.125000
G01 X156.888812 Y169.440180 Z-0.125000
G01 X157.695393 Y172.703706 Z-0.125000
G01 X158.348887 Y175.967178 Z-0.125000
G01 X158.852335 Y179.230677 Z-0.125000
G01 X159.217725 Y182.494309 Z-0.125000
G01 X159.521678 Y186.845614 Z-0.125000
G01 X159.695641 Y194.460419 Z-0.125000
G01 X159.566974 Y212.953553 Z-0.125000
G01 X159.696567 Y230.358855 Z-0.125000
G01 X159.626823 Y235.798126 Z-0.125000
G01 X159.431534 Y240.149458 Z-0.125000
G01 X158.926260 Y245.588649 Z-0.125000
G01 X158.047474 Y251.027761 Z-0.125000
G01 X156.748451 Y256.466926 Z-0.125000
G01 X155.061046 Y261.906092 Z-0.125000
G00 Z5.000000

(End cutting path id: polyline148)


(Start cutting path id: polyline146)
(Change tool to Default tool)

G00 Z5.000000
G00 X158.531132 Y45.427191

G00 Z4.875000 (Fast pre-penetrate)
G01 Z-0.125000 F100.0(Penetrate)
G01 X158.522956 Y53.042022 Z-0.125000 F800.000000
G01 X158.898029 Y60.656827 Z-0.125000
G01 X156.875662 Y62.832493 Z-0.125000
G01 X155.026598 Y65.008159 Z-0.125000
G01 X153.511490 Y67.183825 Z-0.125000
G01 X152.898239 Y68.271658 Z-0.125000
G01 X151.986962 Y70.447324 Z-0.125000
G01 X151.695551 Y71.535157 Z-0.125000
G01 X151.515713 Y72.622964 Z-0.125000
G01 X151.447292 Y73.710797 Z-0.125000
G01 X151.488805 Y74.798630 Z-0.125000
G01 X151.637475 Y75.886463 Z-0.125000
G01 X151.889305 Y76.974296 Z-0.125000
G01 X152.680831 Y79.149962 Z-0.125000
G01 X153.207193 Y80.237795 Z-0.125000
G01 X154.481186 Y82.413434 Z-0.125000
G01 X156.806289 Y85.677065 Z-0.125000
G01 X162.740753 Y93.291896 Z-0.125000
G01 X164.213528 Y95.467562 Z-0.125000
G01 X165.465958 Y97.643228 Z-0.125000
G01 X166.450445 Y99.818894 Z-0.125000
G01 X167.133334 Y101.994534 Z-0.125000
G01 X167.495363 Y104.170200 Z-0.125000
G01 X167.554100 Y105.258033 Z-0.125000
G01 X167.532007 Y106.345866 Z-0.125000
G01 X167.252396 Y108.521532 Z-0.125000
G01 X166.678039 Y110.697198 Z-0.125000
G01 X165.841295 Y112.872838 Z-0.125000
G01 X164.782911 Y115.048504 Z-0.125000
G01 X163.549980 Y117.224170 Z-0.125000
G01 X157.213482 Y127.014640 Z-0.125000
G01 X155.918216 Y129.190306 Z-0.125000
G01 X154.750558 Y131.365972 Z-0.125000
G01 X153.296648 Y134.629604 Z-0.125000
G01 X152.552244 Y136.805270 Z-0.125000
G01 X151.998948 Y138.980936 Z-0.125000
G01 X151.529022 Y142.244435 Z-0.125000
G01 X151.446604 Y144.420074 Z-0.125000
G01 X151.534605 Y146.595740 Z-0.125000
G01 X151.776195 Y148.771406 Z-0.125000
G01 X152.382461 Y152.034905 Z-0.125000
G01 X152.917157 Y154.210545 Z-0.125000
G01 X153.858146 Y157.474044 Z-0.125000
G01 X156.682649 Y166.176681 Z-0.125000
G01 X158.013554 Y170.528013 Z-0.125000
G01 X159.172454 Y174.879345 Z-0.125000
G01 X160.120297 Y179.230677 Z-0.125000
G01 X160.850704 Y183.582115 Z-0.125000
G01 X161.380770 Y187.933447 Z-0.125000
G01 X161.741952 Y192.284753 Z-0.125000
G01 X162.012859 Y197.723944 Z-0.125000
G01 X162.204867 Y208.602248 Z-0.125000
G01 X162.157559 Y221.656217 Z-0.125000
G01 X161.900014 Y230.358855 Z-0.125000
G01 X161.437364 Y236.885959 Z-0.125000
G01 X161.075388 Y240.149458 Z-0.125000
G01 X160.606574 Y243.412957 Z-0.125000
G01 X159.560492 Y248.852095 Z-0.125000
G01 X158.177702 Y254.291260 Z-0.125000
G01 X155.806562 Y261.906092 Z-0.125000
G00 Z5.000000

(End cutting path id: polyline146)


(Start cutting path id: polyline152)
(Change tool to Default tool)

G00 Z5.000000
G00 X160.660231 Y45.427191

G00 Z4.875000 (Fast pre-penetrate)
G01 Z-0.125000 F100.0(Penetrate)
G01 X160.651791 Y53.042022 Z-0.125000 F800.000000
G01 X160.958601 Y59.568994 Z-0.125000
G01 X160.463434 Y60.656827 Z-0.125000
G01 X158.310708 Y62.832493 Z-0.125000
G01 X156.388142 Y65.008159 Z-0.125000
G01 X154.776805 Y67.183825 Z-0.125000
G01 X154.108389 Y68.271658 Z-0.125000
G01 X153.076145 Y70.447324 Z-0.125000
G01 X152.720360 Y71.535157 Z-0.125000
G01 X152.474615 Y72.622964 Z-0.125000
G01 X152.339519 Y73.710797 Z-0.125000
G01 X152.314331 Y74.798630 Z-0.125000
G01 X152.397145 Y75.886463 Z-0.125000
G01 X152.584655 Y76.974296 Z-0.125000
G01 X153.255188 Y79.149962 Z-0.125000
G01 X153.726225 Y80.237795 Z-0.125000
G01 X154.903064 Y82.413434 Z-0.125000
G01 X157.123471 Y85.677065 Z-0.125000
G01 X162.224022 Y92.204063 Z-0.125000
G01 X163.827369 Y94.379729 Z-0.125000
G01 X165.263049 Y96.555395 Z-0.125000
G01 X166.473808 Y98.731061 Z-0.125000
G01 X167.414982 Y100.906701 Z-0.125000
G01 X168.055538 Y103.082367 Z-0.125000
G01 X168.257335 Y104.170200 Z-0.125000
G01 X168.420001 Y106.345866 Z-0.125000
G01 X168.266357 Y108.521532 Z-0.125000
G01 X167.813021 Y110.697198 Z-0.125000
G01 X167.087825 Y112.872838 Z-0.125000
G01 X166.127521 Y115.048504 Z-0.125000
G01 X164.975897 Y117.224170 Z-0.125000
G01 X163.681319 Y119.399836 Z-0.125000
G01 X159.443626 Y125.926834 Z-0.125000
G01 X157.420254 Y129.190306 Z-0.125000
G01 X155.640324 Y132.453805 Z-0.125000
G01 X154.637370 Y134.629604 Z-0.125000
G01 X153.804700 Y136.805270 Z-0.125000
G01 X153.154117 Y138.980936 Z-0.125000
G01 X152.690409 Y141.156602 Z-0.125000
G01 X152.411883 Y143.332241 Z-0.125000
G01 X152.311129 Y145.507907 Z-0.125000
G01 X152.465487 Y148.771406 Z-0.125000
G01 X152.747585 Y150.947072 Z-0.125000
G01 X153.389940 Y154.210545 Z-0.125000
G01 X154.543231 Y158.561877 Z-0.125000
G01 X157.593211 Y168.352374 Z-0.125000
G01 X158.859056 Y172.703706 Z-0.125000
G01 X160.202264 Y178.142844 Z-0.125000
G01 X161.051840 Y182.494309 Z-0.125000
G01 X161.702794 Y186.845614 Z-0.125000
G01 X162.175921 Y191.196946 Z-0.125000
G01 X162.563694 Y196.636111 Z-0.125000
G01 X162.784409 Y202.075250 Z-0.125000
G01 X162.921357 Y211.865720 Z-0.125000
G01 X162.800337 Y222.744050 Z-0.125000
G01 X162.469714 Y230.358855 Z-0.125000
G01 X161.903057 Y236.885959 Z-0.125000
G01 X161.485360 Y240.149458 Z-0.125000
G01 X160.962226 Y243.412957 Z-0.125000
G01 X159.838383 Y248.852095 Z-0.125000
G01 X158.409979 Y254.291260 Z-0.125000
G01 X156.064213 Y261.906092 Z-0.125000
G00 Z5.000000

(End cutting path id: polyline152)


(Start cutting path id: polyline150)
(Change tool to Default tool)

G00 Z5.000000
G00 X150.765409 Y45.427191

G00 Z4.875000 (Fast pre-penetrate)
G01 Z-0.125000 F100.0(Penetrate)
G01 X150.781152 Y54.129855 Z-0.125000 F800.000000
G01 X151.168395 Y62.832493 Z-0.125000
G01 X149.303376 Y66.095992 Z-0.125000
G01 X148.813580 Y67.183825 Z-0.125000
G01 X148.436020 Y68.271658 Z-0.125000
G01 X148.173157 Y69.359491 Z-0.125000
G01 X148.025917 Y70.447324 Z-0.125000
G01 X147.993770 Y71.535157 Z-0.125000
G01 X148.074812 Y72.622964 Z-0.125000
G01 X148.265708 Y73.710797 Z-0.125000
G01 X148.561935 Y74.798630 Z-0.125000
G01 X149.445934 Y76.974296 Z-0.125000
G01 X150.018941 Y78.062129 Z-0.125000
G01 X151.383290 Y80.237795 Z-0.125000
G01 X152.972402 Y82.413434 Z-0.125000
G01 X159.051725 Y90.028397 Z-0.125000
G01 X160.587365 Y92.204063 Z-0.125000
G01 X161.899802 Y94.379729 Z-0.125000
G01 X162.935380 Y96.555395 Z-0.125000
G01 X163.655417 Y98.731061 Z-0.125000
G01 X164.037289 Y100.906701 Z-0.125000
G01 X164.098725 Y101.994534 Z-0.125000
G01 X163.965719 Y104.170200 Z-0.125000
G01 X163.506456 Y106.345866 Z-0.125000
G01 X162.750119 Y108.521532 Z-0.125000
G01 X161.736899 Y110.697198 Z-0.125000
G01 X160.515531 Y112.872864 Z-0.125000
G01 X159.140519 Y115.048530 Z-0.125000
G01 X153.245795 Y123.751168 Z-0.125000
G01 X151.337967 Y127.014640 Z-0.125000
G01 X150.268945 Y129.190306 Z-0.125000
G01 X149.392488 Y131.365972 Z-0.125000
G01 X148.724495 Y133.541771 Z-0.125000
G01 X148.272164 Y135.717437 Z-0.125000
G01 X148.034357 Y137.893103 Z-0.125000
G01 X148.002554 Y140.068742 Z-0.125000
G01 X148.161965 Y142.244435 Z-0.125000
G01 X148.492588 Y144.420074 Z-0.125000
G01 X149.256968 Y147.683573 Z-0.125000
G01 X150.636610 Y152.034905 Z-0.125000
G01 X153.839467 Y160.737543 Z-0.125000
G01 X154.964765 Y164.001042 Z-0.125000
G01 X155.967719 Y167.264541 Z-0.125000
G01 X156.820073 Y170.528013 Z-0.125000
G01 X157.509259 Y173.791539 Z-0.125000
G01 X158.035938 Y177.055011 Z-0.125000
G01 X158.411170 Y180.318510 Z-0.125000
G01 X158.653290 Y183.582115 Z-0.125000
G01 X158.785184 Y186.845641 Z-0.125000
G01 X158.832280 Y191.196946 Z-0.125000
G01 X158.512320 Y211.865720 Z-0.125000
G01 X158.553489 Y218.392692 Z-0.125000
G01 X158.830243 Y233.622460 Z-0.125000
G01 X158.798863 Y237.973792 Z-0.125000
G01 X158.683849 Y241.237291 Z-0.125000
G01 X158.245012 Y246.676456 Z-0.125000
G01 X157.797390 Y249.939955 Z-0.125000
G01 X157.411813 Y252.115594 Z-0.125000
G01 X156.421876 Y256.466926 Z-0.125000
G01 X154.794982 Y261.906092 Z-0.125000
G00 Z5.000000

(End cutting path id: polyline150)


(Start cutting path id: polyline140)
(Change tool to Default tool)

G00 Z5.000000
G00 X149.089355 Y45.427191

G00 Z4.875000 (Fast pre-penetrate)
G01 Z-0.125000 F100.0(Penetrate)
G01 X149.102928 Y54.129855 Z-0.125000 F800.000000
G01 X149.439504 Y62.832493 Z-0.125000
G01 X149.352456 Y63.920326 Z-0.125000
G01 X148.160642 Y66.095992 Z-0.125000
G01 X147.729716 Y67.183825 Z-0.125000
G01 X147.413433 Y68.271658 Z-0.125000
G01 X147.213488 Y69.359491 Z-0.125000
G01 X147.130012 Y70.447324 Z-0.125000
G01 X147.161709 Y71.535157 Z-0.125000
G01 X147.305880 Y72.622964 Z-0.125000
G01 X147.558451 Y73.710797 Z-0.125000
G01 X148.366303 Y75.886463 Z-0.125000
G01 X148.907481 Y76.974296 Z-0.125000
G01 X150.221903 Y79.149962 Z-0.125000
G01 X152.624475 Y82.413434 Z-0.125000
G01 X157.894122 Y88.940564 Z-0.125000
G01 X159.471566 Y91.116230 Z-0.125000
G01 X160.834300 Y93.291896 Z-0.125000
G01 X161.925123 Y95.467562 Z-0.125000
G01 X162.701886 Y97.643228 Z-0.125000
G01 X163.138659 Y99.818894 Z-0.125000
G01 X163.225945 Y100.906701 Z-0.125000
G01 X163.225945 Y101.994534 Z-0.125000
G01 X162.970252 Y104.170200 Z-0.125000
G01 X162.392747 Y106.345866 Z-0.125000
G01 X161.527402 Y108.521532 Z-0.125000
G01 X160.418746 Y110.697198 Z-0.125000
G01 X159.119088 Y112.872864 Z-0.125000
G01 X152.461492 Y122.663335 Z-0.125000
G01 X151.131460 Y124.838974 Z-0.125000
G01 X149.954541 Y127.014640 Z-0.125000
G01 X148.541377 Y130.278139 Z-0.125000
G01 X147.862431 Y132.453805 Z-0.125000
G01 X147.404570 Y134.629604 Z-0.125000
G01 X147.167133 Y136.805270 Z-0.125000
G01 X147.141627 Y138.980936 Z-0.125000
G01 X147.312839 Y141.156602 Z-0.125000
G01 X147.660210 Y143.332241 Z-0.125000
G01 X148.456790 Y146.595740 Z-0.125000
G01 X149.886385 Y150.947072 Z-0.125000
G01 X153.176316 Y159.649710 Z-0.125000
G01 X154.319182 Y162.913209 Z-0.125000
G01 X155.328116 Y166.176681 Z-0.125000
G01 X156.174279 Y169.440180 Z-0.125000
G01 X156.641268 Y171.615846 Z-0.125000
G01 X157.195967 Y174.879345 Z-0.125000
G01 X157.584983 Y178.142844 Z-0.125000
G01 X157.826732 Y181.406343 Z-0.125000
G01 X157.945054 Y184.669975 Z-0.125000
G01 X157.957145 Y189.021280 Z-0.125000
G01 X157.469466 Y205.338749 Z-0.125000
G01 X157.375063 Y212.953553 Z-0.125000
G01 X157.482431 Y220.568384 Z-0.125000
G01 X157.949314 Y235.798126 Z-0.125000
G01 X157.900789 Y242.325124 Z-0.125000
G01 X157.534130 Y247.764262 Z-0.125000
G01 X156.945380 Y252.115594 Z-0.125000
G01 X156.052703 Y256.466926 Z-0.125000
G01 X155.489486 Y258.642592 Z-0.125000
G01 X154.507618 Y261.906092 Z-0.125000
G00 Z5.000000

(End cutting path id: polyline140)


(Start cutting path id: polyline158)
(Change tool to Default tool)

G00 Z5.000000
G00 X147.544164 Y45.427191

G00 Z4.875000 (Fast pre-penetrate)
G01 Z-0.125000 F100.0(Penetrate)
G01 X147.574882 Y55.217688 Z-0.125000 F800.000000
G01 X147.893043 Y63.920326 Z-0.125000
G01 X146.681332 Y67.183825 Z-0.125000
G01 X146.426724 Y68.271658 Z-0.125000
G01 X146.289644 Y69.359491 Z-0.125000
G01 X146.269482 Y70.447324 Z-0.125000
G01 X146.364124 Y71.535157 Z-0.125000
G01 X146.570128 Y72.622964 Z-0.125000
G01 X147.295535 Y74.798630 Z-0.125000
G01 X147.801735 Y75.886463 Z-0.125000
G01 X149.060092 Y78.062129 Z-0.125000
G01 X151.415542 Y81.325628 Z-0.125000
G01 X157.548629 Y88.940564 Z-0.125000
G01 X159.750224 Y92.204063 Z-0.125000
G01 X160.898065 Y94.379729 Z-0.125000
G01 X161.734332 Y96.555395 Z-0.125000
G01 X162.229526 Y98.731061 Z-0.125000
G01 X162.344672 Y99.818894 Z-0.125000
G01 X162.371184 Y100.906701 Z-0.125000
G01 X162.163115 Y103.082393 Z-0.125000
G01 X161.624610 Y105.258033 Z-0.125000
G01 X160.788475 Y107.433699 Z-0.125000
G01 X159.698657 Y109.609365 Z-0.125000
G01 X158.407651 Y111.785031 Z-0.125000
G01 X151.694333 Y121.575502 Z-0.125000
G01 X150.341574 Y123.751168 Z-0.125000
G01 X149.142457 Y125.926834 Z-0.125000
G01 X147.700797 Y129.190306 Z-0.125000
G01 X147.008092 Y131.365972 Z-0.125000
G01 X146.541818 Y133.541771 Z-0.125000
G01 X146.301841 Y135.717437 Z-0.125000
G01 X146.264402 Y136.805270 Z-0.125000
G01 X146.345920 Y138.980936 Z-0.125000
G01 X146.619923 Y141.156602 Z-0.125000
G01 X147.062861 Y143.332241 Z-0.125000
G01 X147.647536 Y145.507907 Z-0.125000
G01 X148.344580 Y147.683573 Z-0.125000
G01 X152.896334 Y159.649710 Z-0.125000
G01 X154.668802 Y165.088875 Z-0.125000
G01 X155.506922 Y168.352374 Z-0.125000
G01 X156.157822 Y171.615846 Z-0.125000
G01 X156.624494 Y174.879345 Z-0.125000
G01 X156.921620 Y178.142844 Z-0.125000
G01 X157.094181 Y182.494309 Z-0.125000
G01 X157.072062 Y186.845641 Z-0.125000
G01 X156.318424 Y204.250916 Z-0.125000
G01 X156.162876 Y212.953553 Z-0.125000
G01 X156.336971 Y221.656217 Z-0.125000
G01 X157.058330 Y237.973792 Z-0.125000
G01 X157.057008 Y244.500790 Z-0.125000
G01 X156.795785 Y248.852095 Z-0.125000
G01 X156.253099 Y253.203427 Z-0.125000
G01 X155.387436 Y257.554759 Z-0.125000
G01 X154.192209 Y261.906092 Z-0.125000
G00 Z5.000000

(End cutting path id: polyline158)


(Start cutting path id: polyline160)
(Change tool to Default tool)

G00 Z5.000000
G00 X146.138461 Y45.427191

G00 Z4.875000 (Fast pre-penetrate)
G01 Z-0.125000 F100.0(Penetrate)
G01 X146.147113 Y54.129855 Z-0.125000 F800.000000
G01 X146.406536 Y65.008159 Z-0.125000
G01 X145.978891 Y66.095992 Z-0.125000
G01 X145.667821 Y67.183825 Z-0.125000
G01 X145.474993 Y68.271658 Z-0.125000
G01 X145.400486 Y69.359491 Z-0.125000
G01 X145.442899 Y70.447324 Z-0.125000
G01 X145.599373 Y71.535157 Z-0.125000
G01 X145.865623 Y72.622964 Z-0.125000
G01 X146.704034 Y74.798630 Z-0.125000
G01 X147.261563 Y75.886463 Z-0.125000
G01 X148.609243 Y78.062129 Z-0.125000
G01 X151.057773 Y81.325628 Z-0.125000
G01 X156.372505 Y87.852731 Z-0.125000
G01 X157.943017 Y90.028397 Z-0.125000
G01 X159.285749 Y92.204063 Z-0.125000
G01 X160.343234 Y94.379729 Z-0.125000
G01 X161.073986 Y96.555395 Z-0.125000
G01 X161.453451 Y98.731061 Z-0.125000
G01 X161.508458 Y99.818894 Z-0.125000
G01 X161.352460 Y101.994534 Z-0.125000
G01 X160.857478 Y104.170200 Z-0.125000
G01 X160.054812 Y106.345866 Z-0.125000
G01 X158.987749 Y108.521532 Z-0.125000
G01 X157.007848 Y111.785031 Z-0.125000
G01 X151.677109 Y119.399836 Z-0.125000
G01 X150.239577 Y121.575502 Z-0.125000
G01 X148.934759 Y123.751168 Z-0.125000
G01 X147.801947 Y125.926834 Z-0.125000
G01 X146.870959 Y128.102473 Z-0.125000
G01 X146.161612 Y130.278139 Z-0.125000
G01 X145.683960 Y132.453805 Z-0.125000
G01 X145.438401 Y134.629604 Z-0.125000
G01 X145.400433 Y135.717437 Z-0.125000
G01 X145.485470 Y137.893103 Z-0.125000
G01 X145.768680 Y140.068742 Z-0.125000
G01 X146.225773 Y142.244435 Z-0.125000
G01 X146.828626 Y144.420074 Z-0.125000
G01 X147.546651 Y146.595740 Z-0.125000
G01 X152.205878 Y158.561877 Z-0.125000
G01 X153.332049 Y161.825376 Z-0.125000
G01 X153.990358 Y164.001042 Z-0.125000
G01 X154.819032 Y167.264541 Z-0.125000
G01 X155.260595 Y169.440180 Z-0.125000
G01 X155.757984 Y172.703706 Z-0.125000
G01 X156.069716 Y175.967178 Z-0.125000
G01 X156.236589 Y180.318510 Z-0.125000
G01 X156.183143 Y184.669975 Z-0.125000
G01 X155.984282 Y189.021280 Z-0.125000
G01 X155.116609 Y203.163083 Z-0.125000
G01 X154.926083 Y208.602248 Z-0.125000
G01 X154.881236 Y212.953553 Z-0.125000
G01 X154.937936 Y217.304885 Z-0.125000
G01 X155.141374 Y222.744050 Z-0.125000
G01 X156.163617 Y240.149458 Z-0.125000
G01 X156.238123 Y243.412957 Z-0.125000
G01 X156.204706 Y246.676456 Z-0.125000
G01 X155.938747 Y251.027761 Z-0.125000
G01 X155.538248 Y254.291260 Z-0.125000
G01 X154.944365 Y257.554759 Z-0.125000
G01 X153.842403 Y261.906092 Z-0.125000
G00 Z5.000000

(End cutting path id: polyline160)


(Start cutting path id: polyline162)
(Change tool to Default tool)

G00 Z5.000000
G00 X144.878543 Y45.427191

G00 Z4.875000 (Fast pre-penetrate)
G01 Z-0.125000 F100.0(Penetrate)
G01 X144.907832 Y56.305521 Z-0.125000 F800.000000
G01 X145.112911 Y65.008159 Z-0.125000
G01 X144.688334 Y67.183825 Z-0.125000
G01 X144.557181 Y68.271658 Z-0.125000
G01 X144.544719 Y69.359491 Z-0.125000
G01 X144.648779 Y70.447324 Z-0.125000
G01 X144.865684 Y71.535157 Z-0.125000
G01 X145.616836 Y73.710797 Z-0.125000
G01 X146.137297 Y74.798630 Z-0.125000
G01 X147.425631 Y76.974296 Z-0.125000
G01 X149.824737 Y80.237795 Z-0.125000
G01 X154.310821 Y85.677065 Z-0.125000
G01 X156.007618 Y87.852731 Z-0.125000
G01 X158.191116 Y91.116230 Z-0.125000
G01 X159.311069 Y93.291896 Z-0.125000
G01 X160.107041 Y95.467562 Z-0.125000
G01 X160.550641 Y97.643228 Z-0.125000
G01 X160.636313 Y98.731061 Z-0.125000
G01 X160.631206 Y99.818894 Z-0.125000
G01 X160.355193 Y101.994534 Z-0.125000
G01 X159.744880 Y104.170200 Z-0.125000
G01 X158.836434 Y106.345866 Z-0.125000
G01 X157.677534 Y108.521532 Z-0.125000
G01 X156.324192 Y110.697198 Z-0.125000
G01 X150.212298 Y119.399836 Z-0.125000
G01 X148.810696 Y121.575502 Z-0.125000
G01 X147.561785 Y123.751168 Z-0.125000
G01 X146.052127 Y127.014640 Z-0.125000
G01 X145.323307 Y129.190306 Z-0.125000
G01 X144.831103 Y131.365972 Z-0.125000
G01 X144.576813 Y133.541771 Z-0.125000
G01 X144.536808 Y134.629604 Z-0.125000
G01 X144.622321 Y136.805270 Z-0.125000
G01 X144.911960 Y138.980936 Z-0.125000
G01 X145.380748 Y141.156602 Z-0.125000
G01 X145.999608 Y143.332241 Z-0.125000
G01 X146.736789 Y145.507907 Z-0.125000
G01 X151.086216 Y156.386211 Z-0.125000
G01 X152.274485 Y159.649710 Z-0.125000
G01 X152.975047 Y161.825376 Z-0.125000
G01 X153.862459 Y165.088875 Z-0.125000
G01 X154.337465 Y167.264541 Z-0.125000
G01 X154.873060 Y170.528013 Z-0.125000
G01 X155.206461 Y173.791539 Z-0.125000
G01 X155.375265 Y178.142844 Z-0.125000
G01 X155.295335 Y182.494309 Z-0.125000
G01 X155.046865 Y186.845641 Z-0.125000
G01 X153.872090 Y202.075250 Z-0.125000
G01 X153.619651 Y207.514415 Z-0.125000
G01 X153.537445 Y212.953553 Z-0.125000
G01 X153.602533 Y217.304885 Z-0.125000
G01 X153.778560 Y221.656217 Z-0.125000
G01 X154.128920 Y227.095356 Z-0.125000
G01 X155.152804 Y240.149458 Z-0.125000
G01 X155.348648 Y244.500790 Z-0.125000
G01 X155.369815 Y247.764262 Z-0.125000
G01 X155.166641 Y252.115594 Z-0.125000
G01 X154.802655 Y255.379093 Z-0.125000
G01 X154.233986 Y258.642592 Z-0.125000
G01 X153.452779 Y261.906092 Z-0.125000
G00 Z5.000000

(End cutting path id: polyline162)


(Start cutting path id: polyline154)
(Change tool to Default tool)

G00 Z5.000000
G00 X162.828171 Y45.427191

G00 Z4.875000 (Fast pre-penetrate)
G01 Z-0.125000 F100.0(Penetrate)
G01 X162.796316 Y51.954189 Z-0.125000 F800.000000
G01 X163.103549 Y59.568994 Z-0.125000
G01 X160.846074 Y61.744660 Z-0.125000
G01 X158.743751 Y63.920326 Z-0.125000
G01 X156.888389 Y66.095992 Z-0.125000
G01 X155.356427 Y68.271658 Z-0.125000
G01 X154.206126 Y70.447324 Z-0.125000
G01 X153.786762 Y71.535157 Z-0.125000
G01 X153.475400 Y72.622964 Z-0.125000
G01 X153.273418 Y73.710797 Z-0.125000
G01 X153.180946 Y74.798630 Z-0.125000
G01 X153.196742 Y75.886463 Z-0.125000
G01 X153.318397 Y76.974296 Z-0.125000
G01 X153.542208 Y78.062129 Z-0.125000
G01 X154.276320 Y80.237795 Z-0.125000
G01 X155.349151 Y82.413434 Z-0.125000
G01 X157.452480 Y85.677065 Z-0.125000
G01 X163.323656 Y93.291896 Z-0.125000
G01 X164.897157 Y95.467562 Z-0.125000
G01 X166.296510 Y97.643228 Z-0.125000
G01 X167.467370 Y99.818894 Z-0.125000
G01 X168.367746 Y101.994534 Z-0.125000
G01 X168.969143 Y104.170200 Z-0.125000
G01 X169.152684 Y105.258033 Z-0.125000
G01 X169.282700 Y107.433699 Z-0.125000
G01 X169.102678 Y109.609365 Z-0.125000
G01 X168.630185 Y111.785031 Z-0.125000
G01 X167.893401 Y113.960697 Z-0.125000
G01 X166.929023 Y116.136337 Z-0.125000
G01 X165.780230 Y118.312003 Z-0.125000
G01 X164.494277 Y120.487669 Z-0.125000
G01 X160.303441 Y127.014640 Z-0.125000
G01 X158.305284 Y130.278139 Z-0.125000
G01 X156.544881 Y133.541771 Z-0.125000
G01 X155.549758 Y135.717437 Z-0.125000
G01 X154.719708 Y137.893103 Z-0.125000
G01 X154.066055 Y140.068742 Z-0.125000
G01 X153.593299 Y142.244408 Z-0.125000
G01 X153.299955 Y144.420074 Z-0.125000
G01 X153.178882 Y146.595740 Z-0.125000
G01 X153.294055 Y149.859239 Z-0.125000
G01 X153.545436 Y152.034905 Z-0.125000
G01 X154.137493 Y155.298378 Z-0.125000
G01 X155.528115 Y160.737543 Z-0.125000
G01 X158.463002 Y170.528013 Z-0.125000
G01 X159.663997 Y174.879345 Z-0.125000
G01 X160.936006 Y180.318510 Z-0.125000
G01 X161.743169 Y184.669975 Z-0.125000
G01 X162.366448 Y189.021280 Z-0.125000
G01 X162.917071 Y194.460419 Z-0.125000
G01 X163.263040 Y199.899584 Z-0.125000
G01 X163.456397 Y205.338722 Z-0.125000
G01 X163.539423 Y214.041386 Z-0.125000
G01 X163.377022 Y222.744050 Z-0.125000
G01 X162.962341 Y230.358855 Z-0.125000
G01 X162.301969 Y236.885959 Z-0.125000
G01 X161.468188 Y242.325124 Z-0.125000
G01 X160.342573 Y247.764262 Z-0.125000
G01 X158.937928 Y253.203427 Z-0.125000
G01 X156.340332 Y261.906092 Z-0.125000
G00 Z5.000000

(End cutting path id: polyline154)


(Start cutting path id: polyline156)
(Change tool to Default tool)

G00 Z5.000000
G00 X165.015109 Y45.427191

G00 Z4.875000 (Fast pre-penetrate)
G01 Z-0.125000 F100.0(Penetrate)
G01 X164.983226 Y51.954189 Z-0.125000 F800.000000
G01 X165.245269 Y58.481161 Z-0.125000
G01 X164.620218 Y59.568994 Z-0.125000
G01 X160.197978 Y63.920326 Z-0.125000
G01 X158.269830 Y66.095992 Z-0.125000
G01 X156.641850 Y68.271658 Z-0.125000
G01 X155.377064 Y70.447324 Z-0.125000
G01 X154.518916 Y72.622964 Z-0.125000
G01 X154.250258 Y73.710797 Z-0.125000
G01 X154.090133 Y74.798630 Z-0.125000
G01 X154.038142 Y75.886463 Z-0.125000
G01 X154.092593 Y76.974296 Z-0.125000
G01 X154.508227 Y79.149962 Z-0.125000
G01 X155.300759 Y81.325628 Z-0.125000
G01 X156.418357 Y83.501294 Z-0.125000
G01 X158.561294 Y86.764898 Z-0.125000
G01 X165.197433 Y95.467562 Z-0.125000
G01 X166.658460 Y97.643228 Z-0.125000
G01 X167.912636 Y99.818894 Z-0.125000
G01 X168.914242 Y101.994534 Z-0.125000
G01 X169.630494 Y104.170200 Z-0.125000
G01 X170.042133 Y106.345866 Z-0.125000
G01 X170.131324 Y107.433699 Z-0.125000
G01 X170.143150 Y108.521532 Z-0.125000
G01 X169.940453 Y110.697198 Z-0.125000
G01 X169.452457 Y112.872838 Z-0.125000
G01 X168.707444 Y115.048504 Z-0.125000
G01 X167.741927 Y117.224170 Z-0.125000
G01 X165.974116 Y120.487669 Z-0.125000
G01 X159.844575 Y130.278139 Z-0.125000
G01 X158.595531 Y132.453805 Z-0.125000
G01 X157.464465 Y134.629604 Z-0.125000
G01 X156.040242 Y137.893103 Z-0.125000
G01 X155.295440 Y140.068742 Z-0.125000
G01 X154.724153 Y142.244408 Z-0.125000
G01 X154.194140 Y145.507907 Z-0.125000
G01 X154.051001 Y147.683573 Z-0.125000
G01 X154.124370 Y150.947072 Z-0.125000
G01 X154.343444 Y153.122738 Z-0.125000
G01 X154.882823 Y156.386211 Z-0.125000
G01 X156.183381 Y161.825376 Z-0.125000
G01 X158.989098 Y171.615846 Z-0.125000
G01 X160.428245 Y177.055011 Z-0.125000
G01 X161.629928 Y182.494309 Z-0.125000
G01 X162.394440 Y186.845614 Z-0.125000
G01 X162.988006 Y191.196946 Z-0.125000
G01 X163.516166 Y196.636111 Z-0.125000
G01 X163.848403 Y202.075250 Z-0.125000
G01 X164.026468 Y207.514415 Z-0.125000
G01 X164.067610 Y215.129219 Z-0.125000
G01 X163.873856 Y222.744050 Z-0.125000
G01 X163.475447 Y229.271022 Z-0.125000
G01 X162.788590 Y235.798126 Z-0.125000
G01 X161.741026 Y242.325124 Z-0.125000
G01 X160.567548 Y247.764262 Z-0.125000
G01 X159.149886 Y253.203427 Z-0.125000
G01 X156.643358 Y261.906092 Z-0.125000
G00 Z5.000000

(End cutting path id: polyline156)


(Start cutting path id: polyline472)
(Change tool to Default tool)

G00 Z5.000000
G00 X167.200749 Y45.427191

G00 Z4.875000 (Fast pre-penetrate)
G01 Z-0.125000 F100.0(Penetrate)
G01 X167.154447 Y50.866356 Z-0.125000 F800.000000
G01 X167.364235 Y57.393328 Z-0.125000
G01 X167.288723 Y58.481161 Z-0.125000
G01 X161.676203 Y63.920326 Z-0.125000
G01 X159.682306 Y66.095992 Z-0.125000
G01 X157.964130 Y68.271658 Z-0.125000
G01 X156.589066 Y70.447324 Z-0.125000
G01 X155.605876 Y72.622964 Z-0.125000
G01 X155.270993 Y73.710797 Z-0.125000
G01 X155.043240 Y74.798630 Z-0.125000
G01 X154.922934 Y75.886463 Z-0.125000
G01 X154.909229 Y76.974296 Z-0.125000
G01 X155.000007 Y78.062129 Z-0.125000
G01 X155.191988 Y79.149962 Z-0.125000
G01 X155.480887 Y80.237795 Z-0.125000
G01 X156.326811 Y82.413434 Z-0.125000
G01 X157.484362 Y84.589259 Z-0.125000
G01 X158.888636 Y86.764898 Z-0.125000
G01 X160.466742 Y88.940564 Z-0.125000
G01 X165.473657 Y95.467562 Z-0.125000
G01 X166.987760 Y97.643228 Z-0.125000
G01 X168.317739 Y99.818894 Z-0.125000
G01 X169.414595 Y101.994534 Z-0.125000
G01 X170.241364 Y104.170200 Z-0.125000
G01 X170.774154 Y106.345866 Z-0.125000
G01 X171.002251 Y108.521532 Z-0.125000
G01 X171.002172 Y109.609365 Z-0.125000
G01 X170.780478 Y111.785031 Z-0.125000
G01 X170.280416 Y113.960697 Z-0.125000
G01 X169.530429 Y116.136337 Z-0.125000
G01 X168.566553 Y118.312003 Z-0.125000
G01 X167.430460 Y120.487669 Z-0.125000
G01 X165.502497 Y123.751168 Z-0.125000
G01 X160.755904 Y131.365972 Z-0.125000
G01 X158.944040 Y134.629604 Z-0.125000
G01 X157.888883 Y136.805270 Z-0.125000
G01 X156.585521 Y140.068742 Z-0.125000
G01 X155.920333 Y142.244408 Z-0.125000
G01 X155.424107 Y144.420074 Z-0.125000
G01 X154.992519 Y147.683573 Z-0.125000
G01 X154.902773 Y149.859239 Z-0.125000
G01 X155.035329 Y153.122738 Z-0.125000
G01 X155.279380 Y155.298378 Z-0.125000
G01 X155.835243 Y158.561877 Z-0.125000
G01 X157.115189 Y164.001042 Z-0.125000
G01 X159.794092 Y173.791539 Z-0.125000
G01 X160.896213 Y178.142844 Z-0.125000
G01 X162.076729 Y183.582115 Z-0.125000
G01 X162.838543 Y187.933447 Z-0.125000
G01 X163.437929 Y192.284753 Z-0.125000
G01 X163.978658 Y197.723944 Z-0.125000
G01 X164.321054 Y203.163083 Z-0.125000
G01 X164.498695 Y208.602248 Z-0.125000
G01 X164.508855 Y216.217052 Z-0.125000
G01 X164.296237 Y222.744050 Z-0.125000
G01 X163.841762 Y229.271022 Z-0.125000
G01 X163.086219 Y235.798126 Z-0.125000
G01 X162.186822 Y241.237291 Z-0.125000
G01 X161.032208 Y246.676456 Z-0.125000
G01 X159.657038 Y252.115594 Z-0.125000
G01 X156.981575 Y261.906092 Z-0.125000
G00 Z5.000000

(End cutting path id: polyline472)


(Start cutting path id: polyline164)
(Change tool to Default tool)

G00 Z5.000000
G00 X143.768300 Y45.427191

G00 Z4.875000 (Fast pre-penetrate)
G01 Z-0.125000 F100.0(Penetrate)
G01 X143.792800 Y57.393328 Z-0.125000 F800.000000
G01 X143.931971 Y66.095992 Z-0.125000
G01 X143.741974 Y67.183825 Z-0.125000
G01 X143.672124 Y68.271658 Z-0.125000
G01 X143.720966 Y69.359491 Z-0.125000
G01 X143.885484 Y70.447324 Z-0.125000
G01 X144.161312 Y71.535157 Z-0.125000
G01 X145.022661 Y73.710797 Z-0.125000
G01 X145.593049 Y74.798630 Z-0.125000
G01 X146.967849 Y76.974296 Z-0.125000
G01 X149.455855 Y80.237795 Z-0.125000
G01 X154.813026 Y86.764898 Z-0.125000
G01 X157.075899 Y90.028397 Z-0.125000
G01 X158.259670 Y92.204063 Z-0.125000
G01 X159.123374 Y94.379729 Z-0.125000
G01 X159.634681 Y96.555395 Z-0.125000
G01 X159.753002 Y97.643228 Z-0.125000
G01 X159.779223 Y98.731061 Z-0.125000
G01 X159.560360 Y100.906701 Z-0.125000
G01 X158.997936 Y103.082393 Z-0.125000
G01 X158.126531 Y105.258033 Z-0.125000
G01 X156.992899 Y107.433699 Z-0.125000
G01 X155.653024 Y109.609365 Z-0.125000
G01 X149.497792 Y118.312003 Z-0.125000
G01 X148.070287 Y120.487669 Z-0.125000
G01 X146.793912 Y122.663335 Z-0.125000
G01 X145.244779 Y125.926834 Z-0.125000
G01 X144.493469 Y128.102473 Z-0.125000
G01 X143.983565 Y130.278139 Z-0.125000
G01 X143.717262 Y132.453805 Z-0.125000
G01 X143.673553 Y133.541771 Z-0.125000
G01 X143.756473 Y135.717437 Z-0.125000
G01 X144.049605 Y137.893103 Z-0.125000
G01 X144.527494 Y140.068742 Z-0.125000
G01 X145.160112 Y142.244435 Z-0.125000
G01 X145.914650 Y144.420074 Z-0.125000
G01 X150.355940 Y155.298378 Z-0.125000
G01 X151.557994 Y158.561877 Z-0.125000
G01 X152.261308 Y160.737543 Z-0.125000
G01 X153.142211 Y164.001042 Z-0.125000
G01 X153.605575 Y166.176681 Z-0.125000
G01 X153.968636 Y168.352374 Z-0.125000
G01 X154.331882 Y171.615846 Z-0.125000
G01 X154.512116 Y175.967178 Z-0.125000
G01 X154.353684 Y181.406343 Z-0.125000
G01 X154.024013 Y185.757808 Z-0.125000
G01 X152.592910 Y200.987417 Z-0.125000
G01 X152.273611 Y206.426582 Z-0.125000
G01 X152.152194 Y210.777887 Z-0.125000
G01 X152.182092 Y216.217052 Z-0.125000
G01 X152.477235 Y222.744050 Z-0.125000
G01 X152.905118 Y228.183189 Z-0.125000
G01 X154.160009 Y241.237291 Z-0.125000
G01 X154.382814 Y244.500790 Z-0.125000
G01 X154.502565 Y247.764262 Z-0.125000
G01 X154.438879 Y252.115594 Z-0.125000
G01 X154.180038 Y255.379093 Z-0.125000
G01 X153.711197 Y258.642592 Z-0.125000
G01 X153.018307 Y261.906092 Z-0.125000
G00 Z5.000000

(End cutting path id: polyline164)


(Start cutting path id: polyline166)
(Change tool to Default tool)

G00 Z5.000000
G00 X142.809160 Y45.427191

G00 Z4.875000 (Fast pre-penetrate)
G01 Z-0.125000 F100.0(Penetrate)
G01 X142.818579 Y68.271658 Z-0.125000 F800.000000
G01 X142.927720 Y69.359491 Z-0.125000
G01 X143.151372 Y70.447324 Z-0.125000
G01 X143.484376 Y71.535157 Z-0.125000
G01 X144.451400 Y73.710797 Z-0.125000
G01 X145.068990 Y74.798630 Z-0.125000
G01 X146.524011 Y76.974296 Z-0.125000
G01 X148.199166 Y79.149962 Z-0.125000
G01 X153.598246 Y85.677065 Z-0.125000
G01 X155.213076 Y87.852731 Z-0.125000
G01 X156.599940 Y90.028397 Z-0.125000
G01 X157.696769 Y92.204063 Z-0.125000
G01 X158.458239 Y94.379729 Z-0.125000
G01 X158.856833 Y96.555395 Z-0.125000
G01 X158.916523 Y97.643228 Z-0.125000
G01 X158.883477 Y98.731061 Z-0.125000
G01 X158.546954 Y100.906701 Z-0.125000
G01 X157.872347 Y103.082393 Z-0.125000
G01 X156.899131 Y105.258033 Z-0.125000
G01 X155.678318 Y107.433699 Z-0.125000
G01 X154.269467 Y109.609365 Z-0.125000
G01 X149.568568 Y116.136337 Z-0.125000
G01 X147.347050 Y119.399836 Z-0.125000
G01 X146.041624 Y121.575502 Z-0.125000
G01 X144.926009 Y123.751168 Z-0.125000
G01 X144.030899 Y125.926834 Z-0.125000
G01 X143.375950 Y128.102473 Z-0.125000
G01 X142.969894 Y130.278139 Z-0.125000
G01 X142.810959 Y132.453805 Z-0.125000
G01 X142.887979 Y134.629604 Z-0.125000
G01 X143.181587 Y136.805270 Z-0.125000
G01 X143.665880 Y138.980936 Z-0.125000
G01 X144.309981 Y141.156602 Z-0.125000
G01 X145.940235 Y145.507907 Z-0.125000
G01 X150.032567 Y155.298378 Z-0.125000
G01 X151.189350 Y158.561877 Z-0.125000
G01 X151.847871 Y160.737543 Z-0.125000
G01 X152.405189 Y162.913209 Z-0.125000
G01 X152.856805 Y165.088875 Z-0.125000
G01 X153.202430 Y167.264541 Z-0.125000
G01 X153.529587 Y170.528013 Z-0.125000
G01 X153.646268 Y174.879345 Z-0.125000
G01 X153.470744 Y179.230677 Z-0.125000
G01 X152.979678 Y184.669975 Z-0.125000
G01 X151.838134 Y194.460445 Z-0.125000
G01 X151.287008 Y199.899584 Z-0.125000
G01 X150.897489 Y205.338749 Z-0.125000
G01 X150.710587 Y210.777887 Z-0.125000
G01 X150.776098 Y217.304885 Z-0.125000
G01 X151.148366 Y223.831883 Z-0.125000
G01 X151.656207 Y229.271022 Z-0.125000
G01 X153.146233 Y242.325124 Z-0.125000
G01 X153.430554 Y245.588649 Z-0.125000
G01 X153.608856 Y248.852095 Z-0.125000
G01 X153.641902 Y252.115594 Z-0.125000
G01 X153.492704 Y255.379093 Z-0.125000
G01 X153.130358 Y258.642592 Z-0.125000
G01 X152.534834 Y261.906092 Z-0.125000
G00 Z5.000000

(End cutting path id: polyline166)


(Start cutting path id: polyline168)
(Change tool to Default tool)

G00 Z5.000000
G00 X142.000039 Y45.427191

G00 Z4.875000 (Fast pre-penetrate)
G01 Z-0.125000 F100.0(Penetrate)
G01 X141.943974 Y67.183825 Z-0.125000 F800.000000
G01 X141.995144 Y68.271658 Z-0.125000
G01 X142.163445 Y69.359491 Z-0.125000
G01 X142.444671 Y70.447324 Z-0.125000
G01 X143.321155 Y72.622964 Z-0.125000
G01 X143.900909 Y73.710797 Z-0.125000
G01 X145.296822 Y75.886463 Z-0.125000
G01 X146.936152 Y78.062129 Z-0.125000
G01 X153.216532 Y85.677065 Z-0.125000
G01 X155.472737 Y88.940564 Z-0.125000
G01 X156.638808 Y91.116230 Z-0.125000
G01 X157.473858 Y93.291896 Z-0.125000
G01 X157.946059 Y95.467562 Z-0.125000
G01 X158.041309 Y96.555395 Z-0.125000
G01 X157.950610 Y98.731061 Z-0.125000
G01 X157.498623 Y100.906701 Z-0.125000
G01 X156.715669 Y103.082393 Z-0.125000
G01 X155.645881 Y105.258033 Z-0.125000
G01 X153.626319 Y108.521532 Z-0.125000
G01 X148.122728 Y116.136337 Z-0.125000
G01 X146.641380 Y118.312003 Z-0.125000
G01 X145.305421 Y120.487669 Z-0.125000
G01 X144.158507 Y122.663335 Z-0.125000
G01 X143.233445 Y124.838974 Z-0.125000
G01 X142.551880 Y127.014640 Z-0.125000
G01 X142.124049 Y129.190306 Z-0.125000
G01 X141.949318 Y131.365972 Z-0.125000
G01 X141.953922 Y132.453805 Z-0.125000
G01 X142.136140 Y134.629604 Z-0.125000
G01 X142.529178 Y136.805270 Z-0.125000
G01 X143.103906 Y138.980936 Z-0.125000
G01 X143.826720 Y141.156602 Z-0.125000
G01 X144.661453 Y143.332241 Z-0.125000
G01 X148.845568 Y153.122738 Z-0.125000
G01 X150.441983 Y157.474044 Z-0.125000
G01 X151.390354 Y160.737543 Z-0.125000
G01 X151.886579 Y162.913209 Z-0.125000
G01 X152.270569 Y165.088875 Z-0.125000
G01 X152.640694 Y168.352374 Z-0.125000
G01 X152.783728 Y172.703706 Z-0.125000
G01 X152.599049 Y177.055011 Z-0.125000
G01 X152.053822 Y182.494309 Z-0.125000
G01 X150.459895 Y194.460445 Z-0.125000
G01 X149.854159 Y199.899584 Z-0.125000
G01 X149.374946 Y206.426582 Z-0.125000
G01 X149.221303 Y211.865720 Z-0.125000
G01 X149.347747 Y218.392692 Z-0.125000
G01 X149.800131 Y224.919690 Z-0.125000
G01 X150.524480 Y231.446820 Z-0.125000
G01 X152.115497 Y243.412957 Z-0.125000
G01 X152.461862 Y246.676456 Z-0.125000
G01 X152.699220 Y249.939955 Z-0.125000
G01 X152.785633 Y253.203427 Z-0.125000
G01 X152.681440 Y256.466926 Z-0.125000
G01 X152.353383 Y259.730426 Z-0.125000
G01 X151.998895 Y261.906092 Z-0.125000
G00 Z5.000000

(End cutting path id: polyline168)


(Start cutting path id: polyline170)
(Change tool to Default tool)

G00 Z5.000000
G00 X141.337576 Y45.427191

G00 Z4.875000 (Fast pre-penetrate)
G01 Z-0.125000 F100.0(Penetrate)
G01 X141.323606 Y55.217688 Z-0.125000 F800.000000
G01 X141.155728 Y67.183825 Z-0.125000
G01 X141.200416 Y68.271658 Z-0.125000
G01 X141.426502 Y69.359491 Z-0.125000
G01 X141.763607 Y70.447324 Z-0.125000
G01 X142.743279 Y72.622964 Z-0.125000
G01 X143.369018 Y73.710797 Z-0.125000
G01 X144.842851 Y75.886463 Z-0.125000
G01 X146.538272 Y78.062129 Z-0.125000
G01 X151.982173 Y84.589259 Z-0.125000
G01 X154.322701 Y87.852731 Z-0.125000
G01 X155.558859 Y90.028397 Z-0.125000
G01 X156.469686 Y92.204063 Z-0.125000
G01 X157.018881 Y94.379729 Z-0.125000
G01 X157.151728 Y95.467562 Z-0.125000
G01 X157.189193 Y96.555395 Z-0.125000
G01 X156.982236 Y98.731061 Z-0.125000
G01 X156.417510 Y100.906701 Z-0.125000
G01 X155.530443 Y103.082393 Z-0.125000
G01 X154.369823 Y105.258033 Z-0.125000
G01 X152.994600 Y107.433699 Z-0.125000
G01 X146.693662 Y116.136337 Z-0.125000
G01 X145.248959 Y118.312003 Z-0.125000
G01 X143.969806 Y120.487669 Z-0.125000
G01 X142.897028 Y122.663335 Z-0.125000
G01 X142.447740 Y123.751168 Z-0.125000
G01 X141.736355 Y125.926834 Z-0.125000
G01 X141.283310 Y128.102473 Z-0.125000
G01 X141.089159 Y130.278139 Z-0.125000
G01 X141.086487 Y131.365972 Z-0.125000
G01 X141.259339 Y133.541771 Z-0.125000
G01 X141.649784 Y135.717437 Z-0.125000
G01 X142.228189 Y137.893103 Z-0.125000
G01 X142.960078 Y140.068742 Z-0.125000
G01 X143.808146 Y142.244435 Z-0.125000
G01 X148.065789 Y152.034905 Z-0.125000
G01 X149.678978 Y156.386211 Z-0.125000
G01 X150.626318 Y159.649710 Z-0.125000
G01 X151.114500 Y161.825376 Z-0.125000
G01 X151.484493 Y164.001042 Z-0.125000
G01 X151.738175 Y166.176681 Z-0.125000
G01 X151.881023 Y168.352374 Z-0.125000
G01 X151.921504 Y170.528013 Z-0.125000
G01 X151.870202 Y172.703706 Z-0.125000
G01 X151.648084 Y175.967178 Z-0.125000
G01 X151.000306 Y181.406343 Z-0.125000
G01 X149.345604 Y192.284779 Z-0.125000
G01 X148.502192 Y198.811751 Z-0.125000
G01 X147.940562 Y205.338749 Z-0.125000
G01 X147.717572 Y211.865720 Z-0.125000
G01 X147.850419 Y218.392692 Z-0.125000
G01 X148.048327 Y221.656217 Z-0.125000
G01 X148.440227 Y226.007523 Z-0.125000
G01 X149.262604 Y232.534653 Z-0.125000
G01 X151.217740 Y245.588649 Z-0.125000
G01 X151.776698 Y251.027761 Z-0.125000
G01 X151.916398 Y254.291260 Z-0.125000
G01 X151.901290 Y256.466926 Z-0.125000
G01 X151.688592 Y259.730426 Z-0.125000
G01 X151.407843 Y261.906092 Z-0.125000
G00 Z5.000000

(End cutting path id: polyline170)


(Start cutting path id: polyline442)
(Change tool to Default tool)

G00 Z5.000000
G00 X141.104584 Y45.427218

G00 Z4.875000 (Fast pre-penetrate)
G01 Z-0.125000 F100.0(Penetrate)
G01 X141.111701 Y53.042022 Z-0.125000 F800.000000
G01 X140.784306 Y60.656853 Z-0.125000
G01 X140.100359 Y68.271658 Z-0.125000
G01 X139.027131 Y75.886489 Z-0.125000
G01 X139.649722 Y76.974296 Z-0.125000
G01 X142.158127 Y80.237795 Z-0.125000
G01 X143.475962 Y82.413461 Z-0.125000
G01 X144.001345 Y83.501294 Z-0.125000
G01 X144.753263 Y85.677092 Z-0.125000
G01 X144.971385 Y86.764925 Z-0.125000
G01 X145.081293 Y87.852758 Z-0.125000
G01 X145.082616 Y88.940564 Z-0.125000
G01 X144.976359 Y90.028397 Z-0.125000
G01 X144.765090 Y91.116257 Z-0.125000
G01 X144.044498 Y93.291896 Z-0.125000
G01 X143.546765 Y94.379729 Z-0.125000
G01 X142.313728 Y96.555395 Z-0.125000
G01 X140.007808 Y99.818894 Z-0.125000
G01 X133.976506 Y107.433699 Z-0.125000
G01 X132.463118 Y109.609365 Z-0.125000
G01 X131.173038 Y111.785031 Z-0.125000
G01 X130.156378 Y113.960697 Z-0.125000
G01 X129.447004 Y116.136337 Z-0.125000
G01 X129.213536 Y117.224170 Z-0.125000
G01 X128.991604 Y119.399836 Z-0.125000
G01 X129.001129 Y120.487669 Z-0.125000
G01 X129.248911 Y122.663335 Z-0.125000
G01 X129.479707 Y123.751168 Z-0.125000
G01 X130.130687 Y125.926834 Z-0.125000
G01 X130.994762 Y128.102473 Z-0.125000
G01 X132.018433 Y130.278139 Z-0.125000
G01 X136.025543 Y137.893103 Z-0.125000
G01 X137.540016 Y141.156602 Z-0.125000
G01 X138.372844 Y143.332241 Z-0.125000
G01 X139.030650 Y145.507907 Z-0.125000
G01 X139.495708 Y147.683573 Z-0.125000
G01 X139.760026 Y149.859239 Z-0.125000
G01 X139.824876 Y152.034905 Z-0.125000
G01 X139.699675 Y154.210545 Z-0.125000
G01 X139.400775 Y156.386211 Z-0.125000
G01 X138.675659 Y159.649710 Z-0.125000
G01 X137.332398 Y164.001042 Z-0.125000
G01 X134.180897 Y172.703706 Z-0.125000
G01 X133.078406 Y175.967178 Z-0.125000
G01 X131.807799 Y180.318510 Z-0.125000
G01 X130.810083 Y184.669975 Z-0.125000
G01 X130.087030 Y189.021280 Z-0.125000
G01 X129.604960 Y193.372612 Z-0.125000
G01 X129.311617 Y197.723944 Z-0.125000
G01 X129.125430 Y203.163083 Z-0.125000
G01 X129.046478 Y215.129246 Z-0.125000
G01 X129.197979 Y224.919690 Z-0.125000
G01 X129.556647 Y231.446820 Z-0.125000
G01 X130.158891 Y236.885959 Z-0.125000
G01 X130.699276 Y240.149458 Z-0.125000
G01 X131.144384 Y242.325124 Z-0.125000
G01 X131.659897 Y244.500790 Z-0.125000
G01 X132.562839 Y247.764289 Z-0.125000
G01 X133.979390 Y252.115621 Z-0.125000
G01 X137.506784 Y261.906092 Z-0.125000
G00 Z5.000000

(End cutting path id: polyline442)


(Start cutting path id: polyline432)
(Change tool to Default tool)

G00 Z5.000000
G00 X137.271200 Y45.427218

G00 Z4.875000 (Fast pre-penetrate)
G01 Z-0.125000 F100.0(Penetrate)
G01 X137.299590 Y70.447324 Z-0.125000 F800.000000
G01 X137.186560 Y75.886489 Z-0.125000
G01 X136.918034 Y81.325628 Z-0.125000
G01 X137.275751 Y83.501294 Z-0.125000
G01 X137.319936 Y84.589259 Z-0.125000
G01 X137.249001 Y85.677092 Z-0.125000
G01 X137.065037 Y86.764925 Z-0.125000
G01 X136.771667 Y87.852758 Z-0.125000
G01 X135.878673 Y90.028397 Z-0.125000
G01 X135.293468 Y91.116257 Z-0.125000
G01 X133.890464 Y93.291896 Z-0.125000
G01 X132.247853 Y95.467562 Z-0.125000
G01 X125.986020 Y103.082393 Z-0.125000
G01 X124.437178 Y105.258033 Z-0.125000
G01 X123.753681 Y106.345866 Z-0.125000
G01 X122.605761 Y108.521532 Z-0.125000
G01 X121.786665 Y110.697198 Z-0.125000
G01 X121.322348 Y112.872864 Z-0.125000
G01 X121.225881 Y113.960697 Z-0.125000
G01 X121.218737 Y115.048530 Z-0.125000
G01 X121.461969 Y117.224170 Z-0.125000
G01 X121.704380 Y118.312003 Z-0.125000
G01 X122.403672 Y120.487669 Z-0.125000
G01 X123.883750 Y123.751168 Z-0.125000
G01 X128.176133 Y131.365972 Z-0.125000
G01 X129.310665 Y133.541771 Z-0.125000
G01 X130.295257 Y135.717437 Z-0.125000
G01 X131.086043 Y137.893103 Z-0.125000
G01 X131.651695 Y140.068742 Z-0.125000
G01 X131.973984 Y142.244435 Z-0.125000
G01 X132.041796 Y143.332241 Z-0.125000
G01 X131.993589 Y145.507907 Z-0.125000
G01 X131.712258 Y147.683573 Z-0.125000
G01 X131.221033 Y149.859239 Z-0.125000
G01 X130.551109 Y152.034905 Z-0.125000
G01 X129.293176 Y155.298378 Z-0.125000
G01 X124.959147 Y165.088875 Z-0.125000
G01 X123.719708 Y168.352374 Z-0.125000
G01 X123.020495 Y170.528013 Z-0.125000
G01 X122.436110 Y172.703706 Z-0.125000
G01 X121.971053 Y174.879372 Z-0.125000
G01 X121.623920 Y177.055011 Z-0.125000
G01 X121.309886 Y180.318510 Z-0.125000
G01 X121.211091 Y183.582115 Z-0.125000
G01 X121.280623 Y186.845641 Z-0.125000
G01 X121.547111 Y191.196946 Z-0.125000
G01 X122.565862 Y204.250916 Z-0.125000
G01 X122.754377 Y208.602248 Z-0.125000
G01 X122.813961 Y212.953553 Z-0.125000
G01 X122.738582 Y217.304885 Z-0.125000
G01 X122.535964 Y221.656217 Z-0.125000
G01 X121.306473 Y237.973792 Z-0.125000
G01 X121.212573 Y241.237291 Z-0.125000
G01 X121.278136 Y244.500790 Z-0.125000
G01 X121.434505 Y246.676456 Z-0.125000
G01 X121.695437 Y248.852122 Z-0.125000
G01 X122.069980 Y251.027788 Z-0.125000
G01 X122.563242 Y253.203454 Z-0.125000
G01 X123.175355 Y255.379093 Z-0.125000
G01 X123.900366 Y257.554759 Z-0.125000
G01 X125.634628 Y261.906092 Z-0.125000
G00 Z5.000000

(End cutting path id: polyline432)


(Start cutting path id: polyline418)
(Change tool to Default tool)

G00 Z5.000000
G00 X125.889315 Y45.427218

G00 Z4.875000 (Fast pre-penetrate)
G01 Z-0.125000 F100.0(Penetrate)
G01 X125.881166 Y53.042022 Z-0.125000 F800.000000
G01 X126.045975 Y57.393354 Z-0.125000
G01 X126.328894 Y61.744660 Z-0.125000
G01 X127.207547 Y70.447324 Z-0.125000
G01 X129.277354 Y85.677092 Z-0.125000
G01 X129.137548 Y86.764925 Z-0.125000
G01 X127.906443 Y88.940564 Z-0.125000
G01 X126.365644 Y91.116257 Z-0.125000
G01 X119.078102 Y99.818894 Z-0.125000
G01 X117.485445 Y101.994534 Z-0.125000
G01 X116.785623 Y103.082393 Z-0.125000
G01 X115.620214 Y105.258033 Z-0.125000
G01 X114.806939 Y107.433699 Z-0.125000
G01 X114.542091 Y108.521532 Z-0.125000
G01 X114.302855 Y110.697198 Z-0.125000
G01 X114.326932 Y111.785031 Z-0.125000
G01 X114.648507 Y113.960697 Z-0.125000
G01 X114.936611 Y115.048530 Z-0.125000
G01 X115.735758 Y117.224170 Z-0.125000
G01 X117.370087 Y120.487669 Z-0.125000
G01 X121.873686 Y128.102473 Z-0.125000
G01 X122.991338 Y130.278139 Z-0.125000
G01 X123.914203 Y132.453805 Z-0.125000
G01 X124.597277 Y134.629604 Z-0.125000
G01 X124.838974 Y135.717437 Z-0.125000
G01 X125.111812 Y137.893103 Z-0.125000
G01 X125.141630 Y138.980936 Z-0.125000
G01 X125.101149 Y140.068742 Z-0.125000
G01 X124.817172 Y142.244435 Z-0.125000
G01 X124.579762 Y143.332241 Z-0.125000
G01 X123.934867 Y145.507907 Z-0.125000
G01 X122.622112 Y148.771406 Z-0.125000
G01 X118.298403 Y157.474044 Z-0.125000
G01 X117.299258 Y159.649710 Z-0.125000
G01 X116.413937 Y161.825376 Z-0.125000
G01 X115.669030 Y164.001042 Z-0.125000
G01 X115.081841 Y166.176708 Z-0.125000
G01 X114.660254 Y168.352374 Z-0.125000
G01 X114.403397 Y170.528013 Z-0.125000
G01 X114.306374 Y173.791539 Z-0.125000
G01 X114.505129 Y177.055011 Z-0.125000
G01 X115.101340 Y181.406343 Z-0.125000
G01 X117.125136 Y192.284779 Z-0.125000
G01 X117.941480 Y197.723944 Z-0.125000
G01 X118.565790 Y204.250916 Z-0.125000
G01 X118.823679 Y210.777887 Z-0.125000
G01 X118.815398 Y215.129246 Z-0.125000
G01 X118.715862 Y218.392692 Z-0.125000
G01 X118.448659 Y222.744050 Z-0.125000
G01 X118.137933 Y226.007523 Z-0.125000
G01 X117.222873 Y232.534653 Z-0.125000
G01 X115.016780 Y244.500790 Z-0.125000
G01 X114.565401 Y247.764289 Z-0.125000
G01 X114.375007 Y249.939955 Z-0.125000
G01 X114.313042 Y253.203454 Z-0.125000
G01 X114.576646 Y256.466926 Z-0.125000
G01 X114.954285 Y258.642592 Z-0.125000
G01 X115.831007 Y261.906092 Z-0.125000
G00 Z5.000000

(End cutting path id: polyline418)


(Start cutting path id: polyline410)
(Change tool to Default tool)

G00 Z5.000000
G00 X116.723023 Y45.427218

G00 Z4.875000 (Fast pre-penetrate)
G01 Z-0.125000 F100.0(Penetrate)
G01 X116.672699 Y50.866356 Z-0.125000 F800.000000
G01 X116.841291 Y56.305521 Z-0.125000
G01 X117.230175 Y61.744660 Z-0.125000
G01 X117.700736 Y66.095992 Z-0.125000
G01 X118.486151 Y71.535157 Z-0.125000
G01 X119.479131 Y76.974296 Z-0.125000
G01 X120.650360 Y82.413461 Z-0.125000
G01 X122.210686 Y88.940564 Z-0.125000
G01 X121.692632 Y90.028397 Z-0.125000
G01 X115.177540 Y97.643228 Z-0.125000
G01 X112.765972 Y100.906727 Z-0.125000
G01 X111.512113 Y103.082393 Z-0.125000
G01 X110.612240 Y105.258033 Z-0.125000
G01 X110.101383 Y107.433699 Z-0.125000
G01 X109.996106 Y108.521532 Z-0.125000
G01 X109.990205 Y109.609365 Z-0.125000
G01 X110.265425 Y111.785031 Z-0.125000
G01 X110.537601 Y112.872864 Z-0.125000
G01 X111.319470 Y115.048530 Z-0.125000
G01 X112.961208 Y118.312003 Z-0.125000
G01 X117.565666 Y125.926834 Z-0.125000
G01 X118.708930 Y128.102473 Z-0.125000
G01 X119.646268 Y130.278139 Z-0.125000
G01 X120.328495 Y132.453805 Z-0.125000
G01 X120.563180 Y133.541771 Z-0.125000
G01 X120.808025 Y135.717437 Z-0.125000
G01 X120.816836 Y136.805270 Z-0.125000
G01 X120.750928 Y137.893103 Z-0.125000
G01 X120.404060 Y140.068742 Z-0.125000
G01 X120.130058 Y141.156602 Z-0.125000
G01 X119.404677 Y143.332241 Z-0.125000
G01 X117.964155 Y146.595740 Z-0.125000
G01 X113.956305 Y154.210571 Z-0.125000
G01 X112.900407 Y156.386211 Z-0.125000
G01 X111.971403 Y158.561877 Z-0.125000
G01 X111.202181 Y160.737543 Z-0.125000
G01 X110.614568 Y162.913209 Z-0.125000
G01 X110.093499 Y166.176708 Z-0.125000
G01 X109.992454 Y169.440180 Z-0.125000
G01 X110.132816 Y171.615846 Z-0.125000
G01 X110.411316 Y173.791539 Z-0.125000
G01 X111.265257 Y178.142844 Z-0.125000
G01 X113.568558 Y187.933474 Z-0.125000
G01 X114.189005 Y191.196946 Z-0.125000
G01 X114.675335 Y194.460445 Z-0.125000
G01 X115.027098 Y197.723944 Z-0.125000
G01 X115.316473 Y202.075250 Z-0.125000
G01 X115.509169 Y210.777887 Z-0.125000
G01 X115.418708 Y220.568384 Z-0.125000
G01 X115.230748 Y224.919690 Z-0.125000
G01 X114.980188 Y228.183215 Z-0.125000
G01 X114.454012 Y232.534653 Z-0.125000
G01 X113.900530 Y235.798126 Z-0.125000
G01 X112.972267 Y240.149458 Z-0.125000
G01 X111.149899 Y247.764289 Z-0.125000
G01 X110.334666 Y252.115621 Z-0.125000
G01 X110.014626 Y255.379093 Z-0.125000
G01 X109.992084 Y257.554759 Z-0.125000
G01 X110.146759 Y259.730426 Z-0.125000
G01 X110.491246 Y261.906092 Z-0.125000
G00 Z5.000000

(End cutting path id: polyline410)


(Start cutting path id: polyline180)
(Change tool to Default tool)

G00 Z5.000000
G00 X109.700831 Y45.427218

G00 Z4.875000 (Fast pre-penetrate)
G01 Z-0.125000 F100.0(Penetrate)
G01 X109.672706 Y51.954189 Z-0.125000 F800.000000
G01 X109.848812 Y57.393354 Z-0.125000
G01 X110.314558 Y63.920326 Z-0.125000
G01 X110.936539 Y69.359491 Z-0.125000
G01 X111.793577 Y74.798630 Z-0.125000
G01 X112.900354 Y80.237795 Z-0.125000
G01 X114.254384 Y85.677092 Z-0.125000
G01 X115.823678 Y91.116257 Z-0.125000
G01 X115.484060 Y92.204063 Z-0.125000
G01 X112.610371 Y95.467562 Z-0.125000
G01 X110.828722 Y97.643228 Z-0.125000
G01 X109.269746 Y99.818894 Z-0.125000
G01 X108.014167 Y101.994534 Z-0.125000
G01 X107.121570 Y104.170200 Z-0.125000
G01 X106.823464 Y105.258033 Z-0.125000
G01 X106.627488 Y106.345866 Z-0.125000
G01 X106.534063 Y107.433699 Z-0.125000
G01 X106.542133 Y108.521532 Z-0.125000
G01 X106.649025 Y109.609365 Z-0.125000
G01 X107.141573 Y111.785031 Z-0.125000
G01 X107.515005 Y112.872864 Z-0.125000
G01 X108.477108 Y115.048530 Z-0.125000
G01 X109.663207 Y117.224170 Z-0.125000
G01 X114.330663 Y124.839001 Z-0.125000
G01 X115.942106 Y128.102473 Z-0.125000
G01 X116.714662 Y130.278139 Z-0.125000
G01 X116.993691 Y131.365972 Z-0.125000
G01 X117.321139 Y133.541771 Z-0.125000
G01 X117.366647 Y134.629604 Z-0.125000
G01 X117.333548 Y135.717437 Z-0.125000
G01 X117.038538 Y137.893103 Z-0.125000
G01 X116.783030 Y138.980936 Z-0.125000
G01 X116.079001 Y141.156602 Z-0.125000
G01 X114.633452 Y144.420074 Z-0.125000
G01 X110.504158 Y152.034905 Z-0.125000
G01 X109.409525 Y154.210571 Z-0.125000
G01 X108.450465 Y156.386211 Z-0.125000
G01 X107.664627 Y158.561877 Z-0.125000
G01 X107.077279 Y160.737543 Z-0.125000
G01 X106.862437 Y161.825376 Z-0.125000
G01 X106.592219 Y164.001042 Z-0.125000
G01 X106.568856 Y167.264541 Z-0.125000
G01 X106.780205 Y169.440180 Z-0.125000
G01 X107.140276 Y171.615846 Z-0.125000
G01 X107.883966 Y174.879372 Z-0.125000
G01 X110.472170 Y184.669975 Z-0.125000
G01 X111.140930 Y187.933474 Z-0.125000
G01 X111.487957 Y190.109113 Z-0.125000
G01 X111.753201 Y192.284779 Z-0.125000
G01 X112.007836 Y195.548278 Z-0.125000
G01 X112.137138 Y200.987417 Z-0.125000
G01 X112.024372 Y212.953553 Z-0.125000
G01 X112.128142 Y226.007523 Z-0.125000
G01 X112.036755 Y229.271048 Z-0.125000
G01 X111.810007 Y232.534653 Z-0.125000
G01 X111.413530 Y235.798126 Z-0.125000
G01 X110.601921 Y240.149458 Z-0.125000
G01 X109.808675 Y243.412957 Z-0.125000
G01 X107.754955 Y251.027788 Z-0.125000
G01 X107.043703 Y254.291260 Z-0.125000
G01 X106.715779 Y256.466926 Z-0.125000
G01 X106.543985 Y258.642592 Z-0.125000
G01 X106.555786 Y260.818259 Z-0.125000
G01 X106.636960 Y261.906092 Z-0.125000
G00 Z5.000000

(End cutting path id: polyline180)


(Start cutting path id: polyline182)
(Change tool to Default tool)

G00 Z5.000000
G00 X106.586689 Y45.427218

G00 Z4.875000 (Fast pre-penetrate)
G01 Z-0.125000 F100.0(Penetrate)
G01 X106.564305 Y51.954189 Z-0.125000 F800.000000
G01 X106.752027 Y58.481187 Z-0.125000
G01 X107.175836 Y65.008159 Z-0.125000
G01 X107.744637 Y70.447324 Z-0.125000
G01 X108.546402 Y75.886489 Z-0.125000
G01 X109.612645 Y81.325628 Z-0.125000
G01 X110.959743 Y86.764925 Z-0.125000
G01 X112.574864 Y92.204063 Z-0.125000
G01 X112.361134 Y93.291896 Z-0.125000
G01 X110.465344 Y95.467562 Z-0.125000
G01 X108.719016 Y97.643228 Z-0.125000
G01 X107.217481 Y99.818894 Z-0.125000
G01 X106.037997 Y101.994534 Z-0.125000
G01 X105.235570 Y104.170200 Z-0.125000
G01 X104.986200 Y105.258033 Z-0.125000
G01 X104.840388 Y106.345866 Z-0.125000
G01 X104.797817 Y107.433699 Z-0.125000
G01 X104.856660 Y108.521532 Z-0.125000
G01 X105.263377 Y110.697198 Z-0.125000
G01 X105.600218 Y111.785031 Z-0.125000
G01 X106.503848 Y113.960697 Z-0.125000
G01 X108.293488 Y117.224170 Z-0.125000
G01 X112.353831 Y123.751168 Z-0.125000
G01 X114.037479 Y127.014667 Z-0.125000
G01 X114.866946 Y129.190306 Z-0.125000
G01 X115.407172 Y131.365972 Z-0.125000
G01 X115.632676 Y133.541771 Z-0.125000
G01 X115.624871 Y134.629604 Z-0.125000
G01 X115.537797 Y135.717437 Z-0.125000
G01 X115.136292 Y137.893103 Z-0.125000
G01 X114.829667 Y138.980936 Z-0.125000
G01 X114.031473 Y141.156602 Z-0.125000
G01 X112.474137 Y144.420074 Z-0.125000
G01 X108.281793 Y152.034905 Z-0.125000
G01 X107.225234 Y154.210571 Z-0.125000
G01 X106.326974 Y156.386211 Z-0.125000
G01 X105.621305 Y158.561877 Z-0.125000
G01 X105.347832 Y159.649710 Z-0.125000
G01 X105.129339 Y160.737543 Z-0.125000
G01 X104.858459 Y162.913209 Z-0.125000
G01 X104.804670 Y164.001042 Z-0.125000
G01 X104.851263 Y166.176708 Z-0.125000
G01 X105.260573 Y169.440180 Z-0.125000
G01 X105.978545 Y172.703706 Z-0.125000
G01 X108.124049 Y180.318510 Z-0.125000
G01 X108.958385 Y183.582115 Z-0.125000
G01 X109.797219 Y187.933474 Z-0.125000
G01 X110.184171 Y191.196946 Z-0.125000
G01 X110.374009 Y194.460445 Z-0.125000
G01 X110.404992 Y197.723944 Z-0.125000
G01 X110.062278 Y208.602248 Z-0.125000
G01 X110.014362 Y214.041386 Z-0.125000
G01 X110.408564 Y228.183215 Z-0.125000
G01 X110.355912 Y231.446820 Z-0.125000
G01 X110.231108 Y233.622486 Z-0.125000
G01 X109.717182 Y237.973792 Z-0.125000
G01 X109.320599 Y240.149458 Z-0.125000
G01 X108.566855 Y243.412957 Z-0.125000
G01 X106.127294 Y252.115621 Z-0.125000
G01 X105.368152 Y255.379093 Z-0.125000
G01 X104.895766 Y258.642592 Z-0.125000
G01 X104.797473 Y260.818259 Z-0.125000
G01 X104.823402 Y261.906092 Z-0.125000
G00 Z5.000000

(End cutting path id: polyline182)


(Start cutting path id: polyline184)
(Change tool to Default tool)

G00 Z5.000000
G00 X105.164370 Y45.427218

G00 Z4.875000 (Fast pre-penetrate)
G01 Z-0.125000 F100.0(Penetrate)
G01 X105.159211 Y53.042022 Z-0.125000 F800.000000
G01 X105.351298 Y59.569020 Z-0.125000
G01 X105.759391 Y66.095992 Z-0.125000
G01 X106.307342 Y71.535157 Z-0.125000
G01 X107.089000 Y76.974296 Z-0.125000
G01 X108.143681 Y82.413461 Z-0.125000
G01 X109.495567 Y87.852758 Z-0.125000
G01 X111.138522 Y93.291896 Z-0.125000
G01 X110.338397 Y94.379729 Z-0.125000
G01 X108.517378 Y96.555395 Z-0.125000
G01 X106.906279 Y98.731061 Z-0.125000
G01 X105.590561 Y100.906727 Z-0.125000
G01 X105.064570 Y101.994534 Z-0.125000
G01 X104.305560 Y104.170200 Z-0.125000
G01 X104.079421 Y105.258033 Z-0.125000
G01 X103.957395 Y106.345866 Z-0.125000
G01 X103.938795 Y107.433699 Z-0.125000
G01 X104.021425 Y108.521532 Z-0.125000
G01 X104.473782 Y110.697198 Z-0.125000
G01 X104.831763 Y111.785031 Z-0.125000
G01 X105.772647 Y113.960697 Z-0.125000
G01 X107.601550 Y117.224170 Z-0.125000
G01 X111.664381 Y123.751168 Z-0.125000
G01 X113.310325 Y127.014667 Z-0.125000
G01 X114.102619 Y129.190306 Z-0.125000
G01 X114.389533 Y130.278166 Z-0.125000
G01 X114.727326 Y132.453805 Z-0.125000
G01 X114.774977 Y133.541771 Z-0.125000
G01 X114.741799 Y134.629604 Z-0.125000
G01 X114.440015 Y136.805270 Z-0.125000
G01 X114.177919 Y137.893103 Z-0.125000
G01 X113.455131 Y140.068769 Z-0.125000
G01 X111.971191 Y143.332241 Z-0.125000
G01 X107.757310 Y150.947072 Z-0.125000
G01 X106.155525 Y154.210571 Z-0.125000
G01 X105.289465 Y156.386211 Z-0.125000
G01 X104.624806 Y158.561877 Z-0.125000
G01 X104.180333 Y160.737543 Z-0.125000
G01 X104.042724 Y161.825376 Z-0.125000
G01 X103.960967 Y162.913209 Z-0.125000
G01 X103.958322 Y165.088875 Z-0.125000
G01 X104.152737 Y167.264541 Z-0.125000
G01 X104.514660 Y169.440180 Z-0.125000
G01 X105.291238 Y172.703706 Z-0.125000
G01 X107.184885 Y179.230677 Z-0.125000
G01 X108.052135 Y182.494309 Z-0.125000
G01 X108.929863 Y186.845641 Z-0.125000
G01 X109.332187 Y190.109113 Z-0.125000
G01 X109.520412 Y193.372612 Z-0.125000
G01 X109.532106 Y196.636111 Z-0.125000
G01 X109.048131 Y207.514415 Z-0.125000
G01 X108.941875 Y212.953553 Z-0.125000
G01 X109.026726 Y217.304885 Z-0.125000
G01 X109.445958 Y226.007523 Z-0.125000
G01 X109.545203 Y230.358881 Z-0.125000
G01 X109.380130 Y234.710319 Z-0.125000
G01 X108.846122 Y239.061651 Z-0.125000
G01 X107.925611 Y243.412957 Z-0.125000
G01 X105.448347 Y252.115621 Z-0.125000
G01 X104.633775 Y255.379093 Z-0.125000
G01 X104.090560 Y258.642592 Z-0.125000
G01 X103.939748 Y261.906092 Z-0.125000
G00 Z5.000000

(End cutting path id: polyline184)


(Start cutting path id: polyline186)
(Change tool to Default tool)

G00 Z5.000000
G00 X103.841402 Y45.427218

G00 Z4.875000 (Fast pre-penetrate)
G01 Z-0.125000 F100.0(Penetrate)
G01 X103.837248 Y53.042022 Z-0.125000 F800.000000
G01 X104.036665 Y60.656853 Z-0.125000
G01 X104.416077 Y67.183825 Z-0.125000
G01 X104.932119 Y72.622990 Z-0.125000
G01 X105.682530 Y78.062129 Z-0.125000
G01 X106.714668 Y83.501294 Z-0.125000
G01 X107.765883 Y87.852758 Z-0.125000
G01 X109.366107 Y93.291896 Z-0.125000
G01 X109.285171 Y94.379729 Z-0.125000
G01 X107.477646 Y96.555395 Z-0.125000
G01 X105.890307 Y98.731061 Z-0.125000
G01 X104.607211 Y100.906727 Z-0.125000
G01 X104.100270 Y101.994534 Z-0.125000
G01 X103.383356 Y104.170200 Z-0.125000
G01 X103.179627 Y105.258033 Z-0.125000
G01 X103.080462 Y106.345866 Z-0.125000
G01 X103.084827 Y107.433699 Z-0.125000
G01 X103.190184 Y108.521532 Z-0.125000
G01 X103.685880 Y110.697198 Z-0.125000
G01 X104.063758 Y111.785031 Z-0.125000
G01 X105.039487 Y113.960697 Z-0.125000
G01 X106.243551 Y116.136363 Z-0.125000
G01 X110.964982 Y123.751168 Z-0.125000
G01 X112.093138 Y125.926834 Z-0.125000
G01 X112.572615 Y127.014667 Z-0.125000
G01 X113.328158 Y129.190306 Z-0.125000
G01 X113.594038 Y130.278166 Z-0.125000
G01 X113.886031 Y132.453805 Z-0.125000
G01 X113.909606 Y133.541771 Z-0.125000
G01 X113.851953 Y134.629604 Z-0.125000
G01 X113.501698 Y136.805270 Z-0.125000
G01 X113.216239 Y137.893103 Z-0.125000
G01 X112.450245 Y140.068769 Z-0.125000
G01 X110.914844 Y143.332241 Z-0.125000
G01 X106.671673 Y150.947072 Z-0.125000
G01 X105.100447 Y154.210571 Z-0.125000
G01 X104.267434 Y156.386211 Z-0.125000
G01 X103.643865 Y158.561877 Z-0.125000
G01 X103.416376 Y159.649710 Z-0.125000
G01 X103.133696 Y161.825376 Z-0.125000
G01 X103.077340 Y162.913209 Z-0.125000
G01 X103.125811 Y165.088875 Z-0.125000
G01 X103.554330 Y168.352374 Z-0.125000
G01 X104.306539 Y171.615846 Z-0.125000
G01 X106.540440 Y179.230677 Z-0.125000
G01 X107.392027 Y182.494309 Z-0.125000
G01 X108.215753 Y186.845641 Z-0.125000
G01 X108.559314 Y190.109113 Z-0.125000
G01 X108.662422 Y192.284779 Z-0.125000
G01 X108.658215 Y195.548278 Z-0.125000
G01 X107.969717 Y207.514415 Z-0.125000
G01 X107.841553 Y212.953553 Z-0.125000
G01 X107.943762 Y217.304885 Z-0.125000
G01 X108.545027 Y227.095382 Z-0.125000
G01 X108.681472 Y231.446820 Z-0.125000
G01 X108.520817 Y235.798126 Z-0.125000
G01 X108.293514 Y237.973792 Z-0.125000
G01 X107.960060 Y240.149458 Z-0.125000
G01 X106.994650 Y244.500790 Z-0.125000
G01 X104.770115 Y252.115621 Z-0.125000
G01 X103.905431 Y255.379093 Z-0.125000
G01 X103.295806 Y258.642592 Z-0.125000
G01 X103.069746 Y261.906092 Z-0.125000
G00 Z5.000000

(End cutting path id: polyline186)


(Start cutting path id: polyline188)
(Change tool to Default tool)

G00 Z5.000000
G00 X102.622839 Y45.427218

G00 Z4.875000 (Fast pre-penetrate)
G01 Z-0.125000 F100.0(Penetrate)
G01 X102.631120 Y54.129855 Z-0.125000 F800.000000
G01 X102.809396 Y61.744660 Z-0.125000
G01 X103.147242 Y68.271658 Z-0.125000
G01 X103.620528 Y73.710823 Z-0.125000
G01 X104.328711 Y79.149962 Z-0.125000
G01 X105.327618 Y84.589259 Z-0.125000
G01 X106.364333 Y88.940564 Z-0.125000
G01 X107.967945 Y94.379729 Z-0.125000
G01 X107.321806 Y95.467562 Z-0.125000
G01 X105.631597 Y97.643228 Z-0.125000
G01 X104.884097 Y98.731061 Z-0.125000
G01 X103.632990 Y100.906727 Z-0.125000
G01 X103.144570 Y101.994534 Z-0.125000
G01 X102.468322 Y104.170200 Z-0.125000
G01 X102.286157 Y105.258033 Z-0.125000
G01 X102.208899 Y106.345866 Z-0.125000
G01 X102.235251 Y107.433699 Z-0.125000
G01 X102.362225 Y108.521532 Z-0.125000
G01 X102.898905 Y110.697198 Z-0.125000
G01 X103.295541 Y111.785031 Z-0.125000
G01 X104.303735 Y113.960697 Z-0.125000
G01 X105.531955 Y116.136363 Z-0.125000
G01 X109.631775 Y122.663335 Z-0.125000
G01 X110.834887 Y124.839001 Z-0.125000
G01 X111.824797 Y127.014667 Z-0.125000
G01 X112.544119 Y129.190306 Z-0.125000
G01 X112.789494 Y130.278166 Z-0.125000
G01 X113.037117 Y132.453805 Z-0.125000
G01 X113.037381 Y133.541771 Z-0.125000
G01 X112.795976 Y135.717437 Z-0.125000
G01 X112.559809 Y136.805270 Z-0.125000
G01 X111.878799 Y138.980936 Z-0.125000
G01 X110.429836 Y142.244435 Z-0.125000
G01 X106.179840 Y149.859239 Z-0.125000
G01 X104.532255 Y153.122738 Z-0.125000
G01 X103.634234 Y155.298404 Z-0.125000
G01 X102.940418 Y157.474044 Z-0.125000
G01 X102.472529 Y159.649710 Z-0.125000
G01 X102.326109 Y160.737543 Z-0.125000
G01 X102.237685 Y161.825376 Z-0.125000
G01 X102.228769 Y164.001042 Z-0.125000
G01 X102.593179 Y167.264541 Z-0.125000
G01 X103.311734 Y170.528013 Z-0.125000
G01 X105.884248 Y179.230677 Z-0.125000
G01 X106.714932 Y182.494309 Z-0.125000
G01 X107.329109 Y185.757808 Z-0.125000
G01 X107.693651 Y189.021280 Z-0.125000
G01 X107.817159 Y192.284779 Z-0.125000
G01 X107.742097 Y195.548278 Z-0.125000
G01 X106.861300 Y207.514415 Z-0.125000
G01 X106.711572 Y212.953553 Z-0.125000
G01 X106.891012 Y218.392692 Z-0.125000
G01 X107.647773 Y228.183215 Z-0.125000
G01 X107.816735 Y232.534653 Z-0.125000
G01 X107.652985 Y236.885959 Z-0.125000
G01 X107.411685 Y239.061651 Z-0.125000
G01 X107.057991 Y241.237291 Z-0.125000
G01 X106.043394 Y245.588649 Z-0.125000
G01 X103.769780 Y253.203454 Z-0.125000
G01 X102.923273 Y256.466926 Z-0.125000
G01 X102.362489 Y259.730426 Z-0.125000
G01 X102.211386 Y261.906092 Z-0.125000
G00 Z5.000000

(End cutting path id: polyline188)


(Start cutting path id: polyline190)
(Change tool to Default tool)

G00 Z5.000000
G00 X101.511908 Y45.427218

G00 Z4.875000 (Fast pre-penetrate)
G01 Z-0.125000 F100.0(Penetrate)
G01 X101.526751 Y55.217688 Z-0.125000 F800.000000
G01 X101.669308 Y62.832493 Z-0.125000
G01 X101.953047 Y69.359491 Z-0.125000
G01 X102.373020 Y74.798630 Z-0.125000
G01 X103.028497 Y80.237795 Z-0.125000
G01 X103.766049 Y84.589259 Z-0.125000
G01 X104.998053 Y90.028397 Z-0.125000
G01 X106.247256 Y94.379729 Z-0.125000
G01 X106.293425 Y95.467562 Z-0.125000
G01 X104.622107 Y97.643228 Z-0.125000
G01 X103.887387 Y98.731061 Z-0.125000
G01 X102.667421 Y100.906727 Z-0.125000
G01 X102.196940 Y101.994534 Z-0.125000
G01 X101.559903 Y104.170200 Z-0.125000
G01 X101.398375 Y105.258033 Z-0.125000
G01 X101.342072 Y106.345866 Z-0.125000
G01 X101.389300 Y107.433699 Z-0.125000
G01 X101.779851 Y109.609365 Z-0.125000
G01 X102.112220 Y110.697198 Z-0.125000
G01 X103.013840 Y112.872864 Z-0.125000
G01 X104.815094 Y116.136363 Z-0.125000
G01 X108.920973 Y122.663335 Z-0.125000
G01 X110.618087 Y125.926834 Z-0.125000
G01 X111.446841 Y128.102473 Z-0.125000
G01 X111.751243 Y129.190306 Z-0.125000
G01 X112.120495 Y131.365972 Z-0.125000
G01 X112.181429 Y132.453805 Z-0.125000
G01 X112.159468 Y133.541771 Z-0.125000
G01 X111.873454 Y135.717437 Z-0.125000
G01 X111.615592 Y136.805270 Z-0.125000
G01 X110.894047 Y138.980936 Z-0.125000
G01 X109.395820 Y142.244435 Z-0.125000
G01 X105.113226 Y149.859239 Z-0.125000
G01 X103.491862 Y153.122738 Z-0.125000
G01 X102.623315 Y155.298404 Z-0.125000
G01 X101.966805 Y157.474044 Z-0.125000
G01 X101.541991 Y159.649710 Z-0.125000
G01 X101.418483 Y160.737543 Z-0.125000
G01 X101.353555 Y161.825376 Z-0.125000
G01 X101.391946 Y164.001042 Z-0.125000
G01 X101.823269 Y167.264541 Z-0.125000
G01 X102.596804 Y170.528013 Z-0.125000
G01 X104.906243 Y178.142844 Z-0.125000
G01 X105.776086 Y181.406343 Z-0.125000
G01 X106.428680 Y184.669975 Z-0.125000
G01 X106.820686 Y187.933474 Z-0.125000
G01 X106.953507 Y191.196946 Z-0.125000
G01 X106.866327 Y194.460445 Z-0.125000
G01 X105.803074 Y206.426582 Z-0.125000
G01 X105.615696 Y209.690081 Z-0.125000
G01 X105.557197 Y212.953553 Z-0.125000
G01 X105.761878 Y218.392692 Z-0.125000
G01 X106.757689 Y229.271048 Z-0.125000
G01 X106.952528 Y233.622486 Z-0.125000
G01 X106.919032 Y235.798126 Z-0.125000
G01 X106.776765 Y237.973792 Z-0.125000
G01 X106.517157 Y240.149458 Z-0.125000
G01 X106.139491 Y242.325124 Z-0.125000
G01 X105.071819 Y246.676456 Z-0.125000
G01 X103.076122 Y253.203454 Z-0.125000
G01 X102.183314 Y256.466926 Z-0.125000
G01 X101.560776 Y259.730426 Z-0.125000
G01 X101.363450 Y261.906092 Z-0.125000
G00 Z5.000000

(End cutting path id: polyline190)


(Start cutting path id: polyline192)
(Change tool to Default tool)

G00 Z5.000000
G00 X100.510117 Y45.427218

G00 Z4.875000 (Fast pre-penetrate)
G01 Z-0.125000 F100.0(Penetrate)
G01 X100.614892 Y63.920326 Z-0.125000 F800.000000
G01 X100.832512 Y70.447324 Z-0.125000
G01 X101.189196 Y75.886489 Z-0.125000
G01 X101.782047 Y81.325628 Z-0.125000
G01 X102.475678 Y85.677092 Z-0.125000
G01 X103.668048 Y91.116257 Z-0.125000
G01 X104.903015 Y95.467562 Z-0.125000
G01 X104.417188 Y96.555395 Z-0.125000
G01 X102.899804 Y98.731061 Z-0.125000
G01 X102.259884 Y99.818894 Z-0.125000
G01 X101.256929 Y101.994534 Z-0.125000
G01 X100.905034 Y103.082393 Z-0.125000
G01 X100.657490 Y104.170200 Z-0.125000
G01 X100.515700 Y105.258033 Z-0.125000
G01 X100.479320 Y106.345866 Z-0.125000
G01 X100.546391 Y107.433699 Z-0.125000
G01 X100.975122 Y109.609365 Z-0.125000
G01 X101.325192 Y110.697198 Z-0.125000
G01 X102.258138 Y112.872864 Z-0.125000
G01 X104.092571 Y116.136363 Z-0.125000
G01 X108.200857 Y122.663335 Z-0.125000
G01 X109.866248 Y125.926834 Z-0.125000
G01 X110.663728 Y128.102473 Z-0.125000
G01 X110.950113 Y129.190306 Z-0.125000
G01 X111.279809 Y131.365972 Z-0.125000
G01 X111.319788 Y132.453805 Z-0.125000
G01 X111.276555 Y133.541771 Z-0.125000
G01 X110.948102 Y135.717437 Z-0.125000
G01 X110.669787 Y136.805270 Z-0.125000
G01 X109.910248 Y138.980936 Z-0.125000
G01 X108.366565 Y142.244435 Z-0.125000
G01 X104.058440 Y149.859239 Z-0.125000
G01 X102.464645 Y153.122738 Z-0.125000
G01 X101.625758 Y155.298404 Z-0.125000
G01 X101.006104 Y157.474044 Z-0.125000
G01 X100.784596 Y158.561877 Z-0.125000
G01 X100.522023 Y160.737543 Z-0.125000
G01 X100.494374 Y162.913209 Z-0.125000
G01 X100.849260 Y166.176708 Z-0.125000
G01 X101.579218 Y169.440180 Z-0.125000
G01 X104.229307 Y178.142844 Z-0.125000
G01 X105.076978 Y181.406343 Z-0.125000
G01 X105.513144 Y183.582115 Z-0.125000
G01 X105.828632 Y185.757808 Z-0.125000
G01 X106.019159 Y187.933474 Z-0.125000
G01 X106.089220 Y190.109113 Z-0.125000
G01 X106.051094 Y192.284779 Z-0.125000
G01 X105.832125 Y195.548278 Z-0.125000
G01 X104.863830 Y204.250916 Z-0.125000
G01 X104.573953 Y207.514415 Z-0.125000
G01 X104.383268 Y212.953553 Z-0.125000
G01 X104.472486 Y216.217052 Z-0.125000
G01 X104.702885 Y219.480551 Z-0.125000
G01 X105.960183 Y231.446820 Z-0.125000
G01 X106.089035 Y234.710319 Z-0.125000
G01 X105.985371 Y237.973792 Z-0.125000
G01 X105.608552 Y241.237291 Z-0.125000
G01 X104.957810 Y244.500790 Z-0.125000
G01 X104.079368 Y247.764289 Z-0.125000
G01 X102.049435 Y254.291260 Z-0.125000
G01 X101.445233 Y256.466926 Z-0.125000
G01 X100.765281 Y259.730426 Z-0.125000
G01 X100.524219 Y261.906092 Z-0.125000
G00 Z5.000000

(End cutting path id: polyline192)


(Start cutting path id: polyline194)
(Change tool to Default tool)

G00 Z5.000000
G00 X99.617097 Y45.427218

G00 Z4.875000 (Fast pre-penetrate)
G01 Z-0.125000 F100.0(Penetrate)
G01 X99.656334 Y66.095992 Z-0.125000 F800.000000
G01 X99.783731 Y71.535157 Z-0.125000
G01 X100.067867 Y76.974296 Z-0.125000
G01 X100.588778 Y82.413461 Z-0.125000
G01 X101.231079 Y86.764925 Z-0.125000
G01 X101.868804 Y90.028397 Z-0.125000
G01 X103.259849 Y95.467562 Z-0.125000
G01 X103.416006 Y96.555395 Z-0.125000
G01 X101.921059 Y98.731061 Z-0.125000
G01 X101.295003 Y99.818894 Z-0.125000
G01 X100.324009 Y101.994534 Z-0.125000
G01 X99.989735 Y103.082393 Z-0.125000
G01 X99.760527 Y104.170200 Z-0.125000
G01 X99.637522 Y105.258033 Z-0.125000
G01 X99.620060 Y106.345866 Z-0.125000
G01 X99.705891 Y107.433699 Z-0.125000
G01 X100.170551 Y109.609365 Z-0.125000
G01 X100.537237 Y110.697198 Z-0.125000
G01 X101.499287 Y112.872864 Z-0.125000
G01 X103.364015 Y116.136363 Z-0.125000
G01 X107.471534 Y122.663335 Z-0.125000
G01 X108.618051 Y124.839001 Z-0.125000
G01 X109.105413 Y125.926834 Z-0.125000
G01 X109.872413 Y128.102473 Z-0.125000
G01 X110.141362 Y129.190306 Z-0.125000
G01 X110.433064 Y131.365972 Z-0.125000
G01 X110.453067 Y132.453805 Z-0.125000
G01 X110.389567 Y133.541771 Z-0.125000
G01 X110.020976 Y135.717437 Z-0.125000
G01 X109.723347 Y136.805270 Z-0.125000
G01 X108.928328 Y138.980936 Z-0.125000
G01 X107.342920 Y142.244435 Z-0.125000
G01 X103.607458 Y148.771406 Z-0.125000
G01 X101.930452 Y152.034905 Z-0.125000
G01 X101.018963 Y154.210571 Z-0.125000
G01 X100.319617 Y156.386211 Z-0.125000
G01 X99.855883 Y158.561877 Z-0.125000
G01 X99.715416 Y159.649710 Z-0.125000
G01 X99.635512 Y160.737543 Z-0.125000
G01 X99.651148 Y162.913209 Z-0.125000
G01 X100.067681 Y166.176708 Z-0.125000
G01 X100.848598 Y169.440180 Z-0.125000
G01 X103.221802 Y177.055011 Z-0.125000
G01 X104.113499 Y180.318510 Z-0.125000
G01 X104.769401 Y183.582115 Z-0.125000
G01 X105.139023 Y186.845641 Z-0.125000
G01 X105.221017 Y190.109113 Z-0.125000
G01 X105.056473 Y193.372612 Z-0.125000
G01 X103.498185 Y206.426582 Z-0.125000
G01 X103.266728 Y209.690081 Z-0.125000
G01 X103.195185 Y212.953553 Z-0.125000
G01 X103.241963 Y215.129246 Z-0.125000
G01 X103.446988 Y218.392692 Z-0.125000
G01 X103.786739 Y221.656217 Z-0.125000
G01 X104.900025 Y230.358881 Z-0.125000
G01 X105.164053 Y233.622486 Z-0.125000
G01 X105.225939 Y235.798126 Z-0.125000
G01 X105.173657 Y237.973792 Z-0.125000
G01 X104.994667 Y240.149458 Z-0.125000
G01 X104.481455 Y243.412957 Z-0.125000
G01 X103.392167 Y247.764289 Z-0.125000
G01 X100.707575 Y256.466926 Z-0.125000
G01 X99.974548 Y259.730426 Z-0.125000
G01 X99.692291 Y261.906092 Z-0.125000
G00 Z5.000000

(End cutting path id: polyline194)


(Start cutting path id: polyline196)
(Change tool to Default tool)

G00 Z5.000000
G00 X98.830782 Y45.427218

G00 Z4.875000 (Fast pre-penetrate)
G01 Z-0.125000 F100.0(Penetrate)
G01 X98.759027 Y69.359491 Z-0.125000 F800.000000
G01 X98.862506 Y74.798630 Z-0.125000
G01 X99.073273 Y79.149962 Z-0.125000
G01 X99.447552 Y83.501294 Z-0.125000
G01 X100.031672 Y87.852758 Z-0.125000
G01 X100.866669 Y92.204063 Z-0.125000
G01 X101.981013 Y96.555395 Z-0.125000
G01 X101.649147 Y97.643228 Z-0.125000
G01 X100.338138 Y99.818894 Z-0.125000
G01 X99.818471 Y100.906727 Z-0.125000
G01 X99.080258 Y103.082393 Z-0.125000
G01 X98.868485 Y104.170200 Z-0.125000
G01 X98.763261 Y105.258033 Z-0.125000
G01 X98.763790 Y106.345866 Z-0.125000
G01 X98.867348 Y107.433699 Z-0.125000
G01 X99.365690 Y109.609365 Z-0.125000
G01 X99.747853 Y110.697198 Z-0.125000
G01 X100.736944 Y112.872864 Z-0.125000
G01 X101.958815 Y115.048530 Z-0.125000
G01 X105.428292 Y120.487669 Z-0.125000
G01 X106.733294 Y122.663335 Z-0.125000
G01 X107.861000 Y124.839001 Z-0.125000
G01 X108.336059 Y125.926834 Z-0.125000
G01 X109.073584 Y128.102473 Z-0.125000
G01 X109.325785 Y129.190306 Z-0.125000
G01 X109.581134 Y131.365972 Z-0.125000
G01 X109.582192 Y132.453805 Z-0.125000
G01 X109.335283 Y134.629604 Z-0.125000
G01 X109.093031 Y135.717437 Z-0.125000
G01 X108.393923 Y137.893103 Z-0.125000
G01 X106.906861 Y141.156602 Z-0.125000
G01 X102.571430 Y148.771406 Z-0.125000
G01 X100.916861 Y152.034905 Z-0.125000
G01 X100.030904 Y154.210571 Z-0.125000
G01 X99.363996 Y156.386211 Z-0.125000
G01 X98.937780 Y158.561877 Z-0.125000
G01 X98.817289 Y159.649710 Z-0.125000
G01 X98.757863 Y160.737543 Z-0.125000
G01 X98.814616 Y162.913209 Z-0.125000
G01 X99.288934 Y166.176708 Z-0.125000
G01 X100.116418 Y169.440180 Z-0.125000
G01 X102.524837 Y177.055011 Z-0.125000
G01 X103.394813 Y180.318510 Z-0.125000
G01 X103.836428 Y182.494309 Z-0.125000
G01 X104.146863 Y184.669975 Z-0.125000
G01 X104.320218 Y186.845641 Z-0.125000
G01 X104.360355 Y189.021280 Z-0.125000
G01 X104.279737 Y191.196946 Z-0.125000
G01 X103.976393 Y194.460445 Z-0.125000
G01 X102.720655 Y203.163083 Z-0.125000
G01 X102.327379 Y206.426582 Z-0.125000
G01 X102.075893 Y209.690081 Z-0.125000
G01 X101.998449 Y212.953553 Z-0.125000
G01 X102.104468 Y216.217052 Z-0.125000
G01 X102.380957 Y219.480551 Z-0.125000
G01 X103.761260 Y229.271048 Z-0.125000
G01 X104.148636 Y232.534653 Z-0.125000
G01 X104.350090 Y235.798126 Z-0.125000
G01 X104.291643 Y239.061651 Z-0.125000
G01 X103.931599 Y242.325124 Z-0.125000
G01 X103.273078 Y245.588649 Z-0.125000
G01 X102.370427 Y248.852122 Z-0.125000
G01 X99.969098 Y256.466926 Z-0.125000
G01 X99.187281 Y259.730426 Z-0.125000
G01 X98.866448 Y261.906092 Z-0.125000
G00 Z5.000000

(End cutting path id: polyline196)


(Start cutting path id: polyline198)
(Change tool to Default tool)

G00 Z5.000000
G00 X98.147364 Y45.427218

G00 Z4.875000 (Fast pre-penetrate)
G01 Z-0.125000 F100.0(Penetrate)
G01 X98.140803 Y54.129855 Z-0.125000 F800.000000
G01 X97.888496 Y71.535157 Z-0.125000
G01 X97.913209 Y75.886489 Z-0.125000
G01 X98.052538 Y80.237795 Z-0.125000
G01 X98.356597 Y84.589259 Z-0.125000
G01 X98.876344 Y88.940564 Z-0.125000
G01 X99.657737 Y93.291896 Z-0.125000
G01 X100.675773 Y97.643228 Z-0.125000
G01 X99.388894 Y99.818894 Z-0.125000
G01 X98.883302 Y100.906727 Z-0.125000
G01 X98.176125 Y103.082393 Z-0.125000
G01 X97.980836 Y104.170200 Z-0.125000
G01 X97.892386 Y105.258033 Z-0.125000
G01 X97.909663 Y106.345866 Z-0.125000
G01 X98.029810 Y107.433699 Z-0.125000
G01 X98.559717 Y109.609365 Z-0.125000
G01 X98.956274 Y110.697198 Z-0.125000
G01 X99.970315 Y112.872864 Z-0.125000
G01 X101.210706 Y115.048530 Z-0.125000
G01 X105.356987 Y121.575502 Z-0.125000
G01 X107.095191 Y124.839001 Z-0.125000
G01 X107.950958 Y127.014667 Z-0.125000
G01 X108.267479 Y128.102473 Z-0.125000
G01 X108.656416 Y130.278166 Z-0.125000
G01 X108.724414 Y131.365972 Z-0.125000
G01 X108.707401 Y132.453805 Z-0.125000
G01 X108.424377 Y134.629604 Z-0.125000
G01 X108.164583 Y135.717437 Z-0.125000
G01 X107.432693 Y137.893103 Z-0.125000
G01 X105.905970 Y141.156602 Z-0.125000
G01 X101.546436 Y148.771406 Z-0.125000
G01 X99.914858 Y152.034905 Z-0.125000
G01 X99.054117 Y154.210571 Z-0.125000
G01 X98.418774 Y156.386211 Z-0.125000
G01 X98.192449 Y157.474044 Z-0.125000
G01 X97.927284 Y159.649710 Z-0.125000
G01 X97.906832 Y161.825376 Z-0.125000
G01 X97.982900 Y162.913209 Z-0.125000
G01 X98.289684 Y165.088875 Z-0.125000
G01 X99.062716 Y168.352374 Z-0.125000
G01 X101.815623 Y177.055011 Z-0.125000
G01 X102.661177 Y180.318510 Z-0.125000
G01 X103.075514 Y182.494309 Z-0.125000
G01 X103.351315 Y184.669975 Z-0.125000
G01 X103.498344 Y187.933474 Z-0.125000
G01 X103.430187 Y190.109113 Z-0.125000
G01 X103.123589 Y193.372612 Z-0.125000
G01 X101.575857 Y203.163083 Z-0.125000
G01 X101.150514 Y206.426582 Z-0.125000
G01 X100.880639 Y209.690081 Z-0.125000
G01 X100.797851 Y212.953553 Z-0.125000
G01 X100.911225 Y216.217052 Z-0.125000
G01 X101.208219 Y219.480551 Z-0.125000
G01 X101.653618 Y222.744050 Z-0.125000
G01 X102.896576 Y230.358881 Z-0.125000
G01 X103.300806 Y233.622486 Z-0.125000
G01 X103.492470 Y236.885959 Z-0.125000
G01 X103.400210 Y240.149458 Z-0.125000
G01 X103.162191 Y242.325124 Z-0.125000
G01 X102.544655 Y245.588649 Z-0.125000
G01 X101.663090 Y248.852122 Z-0.125000
G01 X98.921323 Y257.554759 Z-0.125000
G01 X98.401549 Y259.730426 Z-0.125000
G01 X98.044759 Y261.906092 Z-0.125000
G00 Z5.000000

(End cutting path id: polyline198)


(Start cutting path id: polyline200)
(Change tool to Default tool)

G00 Z5.000000
G00 X97.561472 Y45.427218

G00 Z4.875000 (Fast pre-penetrate)
G01 Z-0.125000 F100.0(Penetrate)
G01 X97.516916 Y56.305521 Z-0.125000 F800.000000
G01 X97.036433 Y74.798630 Z-0.125000
G01 X97.085302 Y81.325628 Z-0.125000
G01 X97.313743 Y85.677092 Z-0.125000
G01 X97.763560 Y90.028397 Z-0.125000
G01 X98.485766 Y94.379729 Z-0.125000
G01 X99.229932 Y97.643228 Z-0.125000
G01 X99.034670 Y98.731061 Z-0.125000
G01 X97.954695 Y100.906727 Z-0.125000
G01 X97.563403 Y101.994534 Z-0.125000
G01 X97.276860 Y103.082393 Z-0.125000
G01 X97.097076 Y104.170200 Z-0.125000
G01 X97.024448 Y105.258033 Z-0.125000
G01 X97.057494 Y106.345866 Z-0.125000
G01 X97.426852 Y108.521532 Z-0.125000
G01 X97.752421 Y109.609365 Z-0.125000
G01 X98.647903 Y111.785031 Z-0.125000
G01 X100.456513 Y115.048530 Z-0.125000
G01 X104.607317 Y121.575502 Z-0.125000
G01 X106.321286 Y124.839001 Z-0.125000
G01 X107.152579 Y127.014667 Z-0.125000
G01 X107.454918 Y128.102473 Z-0.125000
G01 X107.812581 Y130.278166 Z-0.125000
G01 X107.863911 Y131.365972 Z-0.125000
G01 X107.829938 Y132.453805 Z-0.125000
G01 X107.513047 Y134.629604 Z-0.125000
G01 X107.236875 Y135.717437 Z-0.125000
G01 X106.474612 Y137.893103 Z-0.125000
G01 X104.911641 Y141.156602 Z-0.125000
G01 X100.532951 Y148.771406 Z-0.125000
G01 X98.924603 Y152.034905 Z-0.125000
G01 X98.088548 Y154.210571 Z-0.125000
G01 X97.755702 Y155.298404 Z-0.125000
G01 X97.274214 Y157.474044 Z-0.125000
G01 X97.128032 Y158.561877 Z-0.125000
G01 X97.044821 Y159.649710 Z-0.125000
G01 X97.061145 Y161.825376 Z-0.125000
G01 X97.155337 Y162.913209 Z-0.125000
G01 X97.496358 Y165.088875 Z-0.125000
G01 X98.312200 Y168.352374 Z-0.125000
G01 X100.770626 Y175.967178 Z-0.125000
G01 X101.669731 Y179.230677 Z-0.125000
G01 X102.124312 Y181.406343 Z-0.125000
G01 X102.438901 Y183.582115 Z-0.125000
G01 X102.633158 Y186.845641 Z-0.125000
G01 X102.584739 Y189.021280 Z-0.125000
G01 X102.285654 Y192.284779 Z-0.125000
G01 X101.789958 Y195.548278 Z-0.125000
G01 X100.427885 Y203.163083 Z-0.125000
G01 X99.973093 Y206.426582 Z-0.125000
G01 X99.686682 Y209.690081 Z-0.125000
G01 X99.599131 Y212.953553 Z-0.125000
G01 X99.719040 Y216.217052 Z-0.125000
G01 X100.177986 Y220.568384 Z-0.125000
G01 X101.876953 Y230.358881 Z-0.125000
G01 X102.348096 Y233.622486 Z-0.125000
G01 X102.608128 Y236.885959 Z-0.125000
G01 X102.579394 Y240.149458 Z-0.125000
G01 X102.221546 Y243.412957 Z-0.125000
G01 X101.544002 Y246.676456 Z-0.125000
G01 X100.611241 Y249.939955 Z-0.125000
G01 X98.164959 Y257.554759 Z-0.125000
G01 X97.616637 Y259.730426 Z-0.125000
G01 X97.226510 Y261.906092 Z-0.125000
G00 Z5.000000

(End cutting path id: polyline200)


(Start cutting path id: polyline202)
(Change tool to Default tool)

G00 Z5.000000
G00 X97.066173 Y45.427218

G00 Z4.875000 (Fast pre-penetrate)
G01 Z-0.125000 F100.0(Penetrate)
G01 X97.091149 Y50.866356 Z-0.125000 F800.000000
G01 X97.008811 Y56.305521 Z-0.125000
G01 X96.240039 Y75.886489 Z-0.125000
G01 X96.187254 Y83.501294 Z-0.125000
G01 X96.386565 Y87.852758 Z-0.125000
G01 X96.691444 Y91.116257 Z-0.125000
G01 X97.349514 Y95.467562 Z-0.125000
G01 X98.055686 Y98.731061 Z-0.125000
G01 X97.032279 Y100.906727 Z-0.125000
G01 X96.654428 Y101.994534 Z-0.125000
G01 X96.382014 Y103.082393 Z-0.125000
G01 X96.216782 Y104.170200 Z-0.125000
G01 X96.158891 Y105.258033 Z-0.125000
G01 X96.206648 Y106.345866 Z-0.125000
G01 X96.604449 Y108.521532 Z-0.125000
G01 X96.943221 Y109.609365 Z-0.125000
G01 X97.862197 Y111.785031 Z-0.125000
G01 X99.695889 Y115.048530 Z-0.125000
G01 X103.849102 Y121.575502 Z-0.125000
G01 X105.539496 Y124.839001 Z-0.125000
G01 X106.347480 Y127.014667 Z-0.125000
G01 X106.636325 Y128.102473 Z-0.125000
G01 X106.964434 Y130.278166 Z-0.125000
G01 X107.000153 Y131.365972 Z-0.125000
G01 X106.950305 Y132.453805 Z-0.125000
G01 X106.601850 Y134.629604 Z-0.125000
G01 X106.310517 Y135.717437 Z-0.125000
G01 X105.520181 Y137.893103 Z-0.125000
G01 X103.924137 Y141.156602 Z-0.125000
G01 X100.132028 Y147.683573 Z-0.125000
G01 X98.430574 Y150.947072 Z-0.125000
G01 X97.511545 Y153.122738 Z-0.125000
G01 X96.814528 Y155.298404 Z-0.125000
G01 X96.364207 Y157.474044 Z-0.125000
G01 X96.234747 Y158.561877 Z-0.125000
G01 X96.168654 Y159.649710 Z-0.125000
G01 X96.219454 Y161.825376 Z-0.125000
G01 X96.703165 Y165.088875 Z-0.125000
G01 X97.557847 Y168.352374 Z-0.125000
G01 X100.042440 Y175.967178 Z-0.125000
G01 X100.920009 Y179.230677 Z-0.125000
G01 X101.349904 Y181.406343 Z-0.125000
G01 X101.632690 Y183.582115 Z-0.125000
G01 X101.769109 Y186.845641 Z-0.125000
G01 X101.677801 Y189.021280 Z-0.125000
G01 X101.312465 Y192.284779 Z-0.125000
G01 X100.753533 Y195.548278 Z-0.125000
G01 X99.472872 Y202.075250 Z-0.125000
G01 X98.799641 Y206.426582 Z-0.125000
G01 X98.498651 Y209.690081 Z-0.125000
G01 X98.406973 Y212.953553 Z-0.125000
G01 X98.532597 Y216.217052 Z-0.125000
G01 X99.015964 Y220.568384 Z-0.125000
G01 X99.567620 Y223.831883 Z-0.125000
G01 X101.045527 Y231.446820 Z-0.125000
G01 X101.521962 Y234.710319 Z-0.125000
G01 X101.758393 Y237.973792 Z-0.125000
G01 X101.681717 Y241.237291 Z-0.125000
G01 X101.439359 Y243.412957 Z-0.125000
G01 X100.798909 Y246.676456 Z-0.125000
G01 X99.884616 Y249.939955 Z-0.125000
G01 X97.405394 Y257.554759 Z-0.125000
G01 X96.831143 Y259.730426 Z-0.125000
G01 X96.410351 Y261.906092 Z-0.125000
G00 Z5.000000

(End cutting path id: polyline202)


(Start cutting path id: polyline204)
(Change tool to Default tool)

G00 Z5.000000
G00 X96.313116 Y45.427218

G00 Z4.875000 (Fast pre-penetrate)
G01 Z-0.125000 F100.0(Penetrate)
G01 X96.336479 Y51.954189 Z-0.125000 F800.000000
G01 X96.148043 Y58.481187 Z-0.125000
G01 X95.776516 Y65.008159 Z-0.125000
G01 X94.725856 Y79.149962 Z-0.125000
G01 X94.445346 Y85.677092 Z-0.125000
G01 X94.474847 Y90.028397 Z-0.125000
G01 X94.660187 Y93.291896 Z-0.125000
G01 X95.016633 Y96.555395 Z-0.125000
G01 X95.568262 Y99.818894 Z-0.125000
G01 X94.851004 Y101.994534 Z-0.125000
G01 X94.603937 Y103.082393 Z-0.125000
G01 X94.464819 Y104.170200 Z-0.125000
G01 X94.433254 Y105.258033 Z-0.125000
G01 X94.507258 Y106.345866 Z-0.125000
G01 X94.955435 Y108.521532 Z-0.125000
G01 X95.317570 Y109.609365 Z-0.125000
G01 X96.277662 Y111.785031 Z-0.125000
G01 X98.154402 Y115.048530 Z-0.125000
G01 X102.307429 Y121.575502 Z-0.125000
G01 X103.463922 Y123.751168 Z-0.125000
G01 X103.953638 Y124.839001 Z-0.125000
G01 X104.718786 Y127.014667 Z-0.125000
G01 X104.983104 Y128.102473 Z-0.125000
G01 X105.257768 Y130.278166 Z-0.125000
G01 X105.265388 Y131.365972 Z-0.125000
G01 X105.187071 Y132.453805 Z-0.125000
G01 X104.782392 Y134.629604 Z-0.125000
G01 X104.464151 Y135.717437 Z-0.125000
G01 X103.624603 Y137.893103 Z-0.125000
G01 X101.971674 Y141.156602 Z-0.125000
G01 X97.559355 Y148.771406 Z-0.125000
G01 X96.018953 Y152.034905 Z-0.125000
G01 X95.251530 Y154.210571 Z-0.125000
G01 X94.958637 Y155.298404 Z-0.125000
G01 X94.565466 Y157.474044 Z-0.125000
G01 X94.466301 Y158.561877 Z-0.125000
G01 X94.457940 Y160.737543 Z-0.125000
G01 X94.543744 Y161.825376 Z-0.125000
G01 X94.876166 Y164.001042 Z-0.125000
G01 X95.698358 Y167.264541 Z-0.125000
G01 X98.219887 Y174.879372 Z-0.125000
G01 X99.137752 Y178.142844 Z-0.125000
G01 X99.592702 Y180.318510 Z-0.125000
G01 X99.894538 Y182.494309 Z-0.125000
G01 X100.041223 Y185.757808 Z-0.125000
G01 X99.837812 Y189.021280 Z-0.125000
G01 X99.349153 Y192.284779 Z-0.125000
G01 X97.218705 Y202.075250 Z-0.125000
G01 X96.636516 Y205.338749 Z-0.125000
G01 X96.158415 Y209.690081 Z-0.125000
G01 X96.060625 Y212.953553 Z-0.125000
G01 X96.194715 Y216.217052 Z-0.125000
G01 X96.716817 Y220.568384 Z-0.125000
G01 X97.323771 Y223.831883 Z-0.125000
G01 X99.240674 Y232.534653 Z-0.125000
G01 X99.769973 Y235.798126 Z-0.125000
G01 X100.029529 Y239.061651 Z-0.125000
G01 X99.947137 Y242.325124 Z-0.125000
G01 X99.687952 Y244.500790 Z-0.125000
G01 X99.010302 Y247.764289 Z-0.125000
G01 X98.056216 Y251.027788 Z-0.125000
G01 X95.872824 Y257.554759 Z-0.125000
G01 X95.254308 Y259.730426 Z-0.125000
G01 X94.779858 Y261.906092 Z-0.125000
G00 Z5.000000

(End cutting path id: polyline204)


(Start cutting path id: polyline206)
(Change tool to Default tool)

G00 Z5.000000
G00 X94.829388 Y45.427218

G00 Z4.875000 (Fast pre-penetrate)
G01 Z-0.125000 F100.0(Penetrate)
G01 X94.874340 Y50.866356 Z-0.125000 F800.000000
G01 X94.723396 Y56.305521 Z-0.125000
G01 X94.371739 Y61.744660 Z-0.125000
G01 X93.811828 Y67.183825 Z-0.125000
G01 X93.211886 Y71.535157 Z-0.125000
G01 X92.281903 Y76.974296 Z-0.125000
G01 X89.097144 Y92.204063 Z-0.125000
G01 X88.303263 Y96.555395 Z-0.125000
G01 X87.738881 Y100.906727 Z-0.125000
G01 X87.579126 Y103.082393 Z-0.125000
G01 X87.553673 Y105.258033 Z-0.125000
G01 X87.925915 Y107.433699 Z-0.125000
G01 X88.255903 Y108.521532 Z-0.125000
G01 X89.165274 Y110.697198 Z-0.125000
G01 X91.002830 Y113.960697 Z-0.125000
G01 X95.200836 Y120.487669 Z-0.125000
G01 X96.398339 Y122.663335 Z-0.125000
G01 X96.911074 Y123.751168 Z-0.125000
G01 X97.724349 Y125.926834 Z-0.125000
G01 X98.012639 Y127.014667 Z-0.125000
G01 X98.332414 Y129.190306 Z-0.125000
G01 X98.360274 Y130.278166 Z-0.125000
G01 X98.300082 Y131.365972 Z-0.125000
G01 X97.924268 Y133.541771 Z-0.125000
G01 X97.616320 Y134.629604 Z-0.125000
G01 X96.788704 Y136.805270 Z-0.125000
G01 X95.133076 Y140.068769 Z-0.125000
G01 X90.656808 Y147.683573 Z-0.125000
G01 X89.091085 Y150.947072 Z-0.125000
G01 X88.315778 Y153.122738 Z-0.125000
G01 X88.022487 Y154.210571 Z-0.125000
G01 X87.636620 Y156.386237 Z-0.125000
G01 X87.545259 Y157.474044 Z-0.125000
G01 X87.560420 Y159.649710 Z-0.125000
G01 X87.661596 Y160.737543 Z-0.125000
G01 X88.030504 Y162.913209 Z-0.125000
G01 X88.914979 Y166.176708 Z-0.125000
G01 X91.179016 Y172.703706 Z-0.125000
G01 X92.167339 Y175.967178 Z-0.125000
G01 X92.846814 Y179.230677 Z-0.125000
G01 X93.126770 Y182.494309 Z-0.125000
G01 X92.984609 Y185.757808 Z-0.125000
G01 X92.463354 Y189.021280 Z-0.125000
G01 X91.659340 Y192.284779 Z-0.125000
G01 X89.425015 Y199.899584 Z-0.125000
G01 X88.402217 Y204.250916 Z-0.125000
G01 X88.043337 Y206.426582 Z-0.125000
G01 X87.798015 Y208.602248 Z-0.125000
G01 X87.627227 Y212.953553 Z-0.125000
G01 X87.685303 Y215.129246 Z-0.125000
G01 X87.845667 Y217.304885 Z-0.125000
G01 X88.296595 Y220.568384 Z-0.125000
G01 X89.270420 Y224.919690 Z-0.125000
G01 X91.497891 Y232.534653 Z-0.125000
G01 X92.338921 Y235.798126 Z-0.125000
G01 X92.761434 Y237.973792 Z-0.125000
G01 X93.033875 Y240.149458 Z-0.125000
G01 X93.110974 Y243.412957 Z-0.125000
G01 X92.764926 Y246.676456 Z-0.125000
G01 X92.029200 Y249.939955 Z-0.125000
G01 X91.004655 Y253.203454 Z-0.125000
G01 X89.100451 Y258.642592 Z-0.125000
G01 X88.160891 Y261.906092 Z-0.125000
G00 Z5.000000

(End cutting path id: polyline206)


(Start cutting path id: polyline208)
(Change tool to Default tool)

G00 Z5.000000
G00 X87.697897 Y45.427218

G00 Z4.875000 (Fast pre-penetrate)
G01 Z-0.125000 F100.0(Penetrate)
G01 X87.694669 Y53.042022 Z-0.125000 F800.000000
G01 X87.974862 Y68.271658 Z-0.125000
G01 X87.978064 Y73.710823 Z-0.125000
G01 X87.775552 Y79.149962 Z-0.125000
G01 X87.254615 Y84.589259 Z-0.125000
G01 X86.748600 Y87.852758 Z-0.125000
G01 X86.321986 Y90.028397 Z-0.125000
G01 X85.822109 Y92.204063 Z-0.125000
G01 X84.938138 Y95.467562 Z-0.125000
G01 X83.537250 Y99.818894 Z-0.125000
G01 X79.208751 Y111.785031 Z-0.125000
G01 X80.396756 Y113.960697 Z-0.125000
G01 X84.585025 Y120.487669 Z-0.125000
G01 X86.349794 Y123.751168 Z-0.125000
G01 X87.217917 Y125.926834 Z-0.125000
G01 X87.538036 Y127.014667 Z-0.125000
G01 X87.927846 Y129.190306 Z-0.125000
G01 X87.992801 Y130.278166 Z-0.125000
G01 X87.970365 Y131.365972 Z-0.125000
G01 X87.669640 Y133.541771 Z-0.125000
G01 X87.397833 Y134.629604 Z-0.125000
G01 X86.636787 Y136.805270 Z-0.125000
G01 X85.058999 Y140.068769 Z-0.125000
G01 X80.612126 Y147.683573 Z-0.125000
G01 X78.987190 Y150.947072 Z-0.125000
G01 X78.152007 Y153.122738 Z-0.125000
G01 X77.823898 Y154.210571 Z-0.125000
G01 X77.361142 Y156.386237 Z-0.125000
G01 X77.228930 Y157.474070 Z-0.125000
G01 X77.162572 Y158.561877 Z-0.125000
G01 X77.220490 Y160.737543 Z-0.125000
G01 X77.338732 Y161.825376 Z-0.125000
G01 X77.732193 Y164.001042 Z-0.125000
G01 X78.629050 Y167.264541 Z-0.125000
G01 X80.851098 Y173.791539 Z-0.125000
G01 X81.808306 Y177.055011 Z-0.125000
G01 X82.287836 Y179.230677 Z-0.125000
G01 X82.608114 Y181.406343 Z-0.125000
G01 X82.763451 Y184.669975 Z-0.125000
G01 X82.539137 Y187.933474 Z-0.125000
G01 X81.997694 Y191.196973 Z-0.125000
G01 X79.576945 Y200.987417 Z-0.125000
G01 X78.700884 Y205.338749 Z-0.125000
G01 X78.397831 Y207.514415 Z-0.125000
G01 X78.197674 Y209.690081 Z-0.125000
G01 X78.096497 Y212.953553 Z-0.125000
G01 X78.162458 Y215.129246 Z-0.125000
G01 X78.334754 Y217.304885 Z-0.125000
G01 X78.985205 Y221.656217 Z-0.125000
G01 X79.699183 Y224.919690 Z-0.125000
G01 X81.631988 Y232.534653 Z-0.125000
G01 X82.297202 Y235.798126 Z-0.125000
G01 X82.693865 Y239.061651 Z-0.125000
G01 X82.736542 Y242.325124 Z-0.125000
G01 X82.388722 Y245.588649 Z-0.125000
G01 X81.674586 Y248.852122 Z-0.125000
G01 X80.681791 Y252.115621 Z-0.125000
G01 X78.469427 Y258.642592 Z-0.125000
G01 X77.622100 Y261.906092 Z-0.125000
G00 Z5.000000

(End cutting path id: polyline208)


(Start cutting path id: polyline210)
(Change tool to Default tool)

G00 Z5.000000
G00 X76.952282 Y45.427218

G00 Z4.875000 (Fast pre-penetrate)
G01 Z-0.125000 F100.0(Penetrate)
G01 X76.913600 Y51.954189 Z-0.125000 F800.000000
G01 X77.027794 Y55.217688 Z-0.125000
G01 X77.314443 Y59.569020 Z-0.125000
G01 X78.148938 Y67.183825 Z-0.125000
G01 X80.103730 Y80.237795 Z-0.125000
G01 X80.659751 Y84.589259 Z-0.125000
G01 X81.013155 Y88.940564 Z-0.125000
G01 X81.059351 Y93.291896 Z-0.125000
G01 X80.835937 Y96.555395 Z-0.125000
G01 X80.547594 Y98.731061 Z-0.125000
G01 X80.142042 Y100.906727 Z-0.125000
G01 X79.313685 Y104.170200 Z-0.125000
G01 X78.622092 Y106.345866 Z-0.125000
G01 X77.403925 Y109.609365 Z-0.125000
G01 X74.570823 Y116.136363 Z-0.125000
G01 X74.763149 Y117.224170 Z-0.125000
G01 X78.176640 Y122.663335 Z-0.125000
G01 X79.311807 Y124.839001 Z-0.125000
G01 X79.791707 Y125.926834 Z-0.125000
G01 X80.540874 Y128.102500 Z-0.125000
G01 X80.799610 Y129.190306 Z-0.125000
G01 X81.069246 Y131.365972 Z-0.125000
G01 X81.077660 Y132.453805 Z-0.125000
G01 X80.845726 Y134.629604 Z-0.125000
G01 X80.610803 Y135.717437 Z-0.125000
G01 X79.925401 Y137.893103 Z-0.125000
G01 X78.455087 Y141.156602 Z-0.125000
G01 X74.130795 Y148.771406 Z-0.125000
G01 X72.467071 Y152.034905 Z-0.125000
G01 X71.570981 Y154.210571 Z-0.125000
G01 X70.891267 Y156.386237 Z-0.125000
G01 X70.450260 Y158.561877 Z-0.125000
G01 X70.321938 Y159.649710 Z-0.125000
G01 X70.254469 Y160.737543 Z-0.125000
