%
(Header)
(Generated by gcodetools from Inkscape.)
(Using default header. To add your own header create file "header" in the output dir.)
M3
(Header end.)
G21 (All units in mm)

(Start cutting path id: polyline11381)
(Change tool to Default tool)

G00 Z5.000000
G00 X106.650619 Y126.550996

G00 Z4.875000 (Fast pre-penetrate)
G01 Z-0.125000 F100.0(Penetrate)
G01 X106.784137 Y126.778284 Z-0.125000 F800.000000
G01 X106.429152 Y126.892883 Z-0.125000
G01 X106.099179 Y126.404291 Z-0.125000
G01 X106.676086 Y125.806010 Z-0.125000
G01 X107.226617 Y125.940255 Z-0.125000
G01 X107.567594 Y126.419934 Z-0.125000
G01 X107.494651 Y127.128175 Z-0.125000
G01 X106.957309 Y127.620588 Z-0.125000
G01 X106.102635 Y127.632957 Z-0.125000
G01 X105.445782 Y127.051776 Z-0.125000
G01 X105.337550 Y126.060311 Z-0.125000
G01 X105.940469 Y125.239018 Z-0.125000
G01 X107.060175 Y125.009274 Z-0.125000
G01 X108.059007 Y125.620287 Z-0.125000
G01 X108.405987 Y126.867963 Z-0.125000
G01 X107.797702 Y128.039875 Z-0.125000
G01 X106.425696 Y128.525921 Z-0.125000
G01 X105.087524 Y127.939283 Z-0.125000
G01 X104.466778 Y126.460135 Z-0.125000
G01 X105.044412 Y124.944425 Z-0.125000
G01 X105.779211 Y124.399351 Z-0.125000
G01 X106.655076 Y124.169426 Z-0.125000
G01 X108.324222 Y124.715318 Z-0.125000
G01 X108.926777 Y125.457665 Z-0.125000
G01 X109.214730 Y126.392740 Z-0.125000
G01 X109.137330 Y127.367560 Z-0.125000
G01 X108.699670 Y128.257795 Z-0.125000
G01 X107.918577 Y128.956395 Z-0.125000
G01 X106.922383 Y129.317474 Z-0.125000
G01 X105.862705 Y129.289006 Z-0.125000
G01 X104.898253 Y128.872811 Z-0.125000
G01 X104.118342 Y128.069980 Z-0.125000
G01 X103.687413 Y126.994749 Z-0.125000
G01 X103.689232 Y125.860945 Z-0.125000
G01 X104.116432 Y124.810908 Z-0.125000
G01 X104.977017 Y123.930405 Z-0.125000
G01 X106.113550 Y123.422803 Z-0.125000
G01 X107.321661 Y123.371143 Z-0.125000
G01 X108.461923 Y123.787883 Z-0.125000
G01 X109.387629 Y124.642283 Z-0.125000
G01 X109.936522 Y125.809739 Z-0.125000
G01 X110.016378 Y127.114714 Z-0.125000
G01 X109.612916 Y128.343927 Z-0.125000
G01 X108.738416 Y129.378775 Z-0.125000
G01 X107.526484 Y130.020076 Z-0.125000
G01 X106.136742 Y130.180242 Z-0.125000
G01 X104.829039 Y129.827622 Z-0.125000
G01 X103.705967 Y128.948846 Z-0.125000
G01 X102.994179 Y127.685436 Z-0.125000
G01 X102.794995 Y126.237667 Z-0.125000
G01 X103.152435 Y124.836920 Z-0.125000
G01 X104.082325 Y123.606980 Z-0.125000
G01 X105.451421 Y122.773590 Z-0.125000
G01 X106.985049 Y122.499461 Z-0.125000
G01 X108.442550 Y122.818520 Z-0.125000
G01 X109.714600 Y123.724581 Z-0.125000
G01 X110.564908 Y125.083672 Z-0.125000
G01 X110.858864 Y126.686241 Z-0.125000
G01 X110.541806 Y128.285354 Z-0.125000
G01 X109.626650 Y129.674095 Z-0.125000
G01 X108.242911 Y130.627906 Z-0.125000
G01 X106.562123 Y131.030640 Z-0.125000
G01 X104.904983 Y130.807444 Z-0.125000
G01 X103.433658 Y129.937219 Z-0.125000
G01 X102.395353 Y128.518827 Z-0.125000
G01 X101.940322 Y126.773100 Z-0.125000
G01 X102.167792 Y125.018460 Z-0.125000
G01 X103.106686 Y123.433263 Z-0.125000
G01 X104.644953 Y122.249435 Z-0.125000
G01 X106.464350 Y121.683716 Z-0.125000
G01 X108.261738 Y121.830512 Z-0.125000
G01 X109.898323 Y122.718837 Z-0.125000
G01 X111.070872 Y124.191072 Z-0.125000
G01 X111.640048 Y126.063222 Z-0.125000
G01 X111.497617 Y127.983940 Z-0.125000
G01 X110.648765 Y129.733305 Z-0.125000
G01 X109.179804 Y131.060836 Z-0.125000
G01 X107.259359 Y131.795998 Z-0.125000
G01 X105.251873 Y131.811824 Z-0.125000
G01 X103.398005 Y131.068567 Z-0.125000
G01 X101.984252 Y129.617160 Z-0.125000
G01 X101.175327 Y127.652148 Z-0.125000
G01 X101.140220 Y125.541159 Z-0.125000
G01 X101.555232 Y124.261014 Z-0.125000
G01 X102.310041 Y123.099834 Z-0.125000
G01 X104.681151 Y121.337281 Z-0.125000
G01 X107.444719 Y120.803121 Z-0.125000
G01 X108.741781 Y121.056422 Z-0.125000
G01 X109.925790 Y121.641787 Z-0.125000
G01 X111.676610 Y123.540767 Z-0.125000
G01 X112.461069 Y126.088052 Z-0.125000
G01 X112.114179 Y128.718648 Z-0.125000
G01 X110.711613 Y130.896213 Z-0.125000
G01 X108.656286 Y132.245482 Z-0.125000
G01 X106.200590 Y132.765816 Z-0.125000
G01 X103.880413 Y132.372359 Z-0.125000
G01 X102.004807 Y131.130323 Z-0.125000
G01 X100.736394 Y129.238437 Z-0.125000
G01 X100.174404 Y126.975649 Z-0.125000
G01 X100.414425 Y124.805269 Z-0.125000
G01 X101.434721 Y122.868634 Z-0.125000
G01 X103.337977 Y121.158106 Z-0.125000
G01 X105.718819 Y120.117709 Z-0.125000
G01 X108.014895 Y119.969731 Z-0.125000
G01 X110.125702 Y120.704439 Z-0.125000
G01 X112.126276 Y122.634343 Z-0.125000
G01 X113.183316 Y125.320056 Z-0.125000
G01 X113.107008 Y128.210410 Z-0.125000
G01 X111.905354 Y130.769154 Z-0.125000
G01 X109.714418 Y132.650217 Z-0.125000
G01 X106.812604 Y133.593659 Z-0.125000
G01 X103.923342 Y133.386107 Z-0.125000
G01 X101.551776 Y132.044842 Z-0.125000
G01 X100.035793 Y129.969506 Z-0.125000
G01 X99.292718 Y127.433773 Z-0.125000
G01 X99.441242 Y124.974621 Z-0.125000
G01 X100.477455 Y122.755945 Z-0.125000
G01 X102.585442 Y120.707986 Z-0.125000
G01 X105.304170 Y119.368540 Z-0.125000
G01 X107.962871 Y119.057212 Z-0.125000
G01 X110.334072 Y119.763907 Z-0.125000
G01 X111.619493 Y120.678881 Z-0.125000
G01 X112.653886 Y121.854978 Z-0.125000
G01 X113.931212 Y124.857566 Z-0.125000
G01 X113.944400 Y128.138285 Z-0.125000
G01 X113.459446 Y129.699107 Z-0.125000
G01 X112.666802 Y131.104038 Z-0.125000
G01 X111.585477 Y132.315878 Z-0.125000
G01 X110.231479 Y133.304160 Z-0.125000
G01 X106.972316 Y134.450424 Z-0.125000
G01 X103.639300 Y134.306447 Z-0.125000
G01 X102.216451 Y133.752006 Z-0.125000
G01 X100.955042 Y132.863044 Z-0.125000
G01 X99.265705 Y130.611171 Z-0.125000
G01 X98.378108 Y127.743736 Z-0.125000
G01 X98.494890 Y125.003453 Z-0.125000
G01 X99.578033 Y122.568585 Z-0.125000
G01 X101.937957 Y120.201658 Z-0.125000
G01 X105.031043 Y118.585264 Z-0.125000
G01 X107.963234 Y118.142511 Z-0.125000
G01 X110.627301 Y118.853572 Z-0.125000
G01 X112.032959 Y119.811475 Z-0.125000
G01 X113.238797 Y121.140734 Z-0.125000
G01 X114.121938 Y122.696190 Z-0.125000
G01 X114.695752 Y124.484391 Z-0.125000
G01 X114.905123 Y126.359361 Z-0.125000
G01 X114.743138 Y128.216321 Z-0.125000
G01 X114.219165 Y129.962503 Z-0.125000
G01 X113.356397 Y131.530874 Z-0.125000
G01 X112.173934 Y132.884872 Z-0.125000
G01 X110.680871 Y133.997121 Z-0.125000
G01 X108.922047 Y134.829783 Z-0.125000
G01 X106.985867 Y135.335202 Z-0.125000
G01 X105.053508 Y135.466445 Z-0.125000
G01 X103.248480 Y135.221967 Z-0.125000
G01 X101.663647 Y134.623505 Z-0.125000
G01 X100.309467 Y133.683337 Z-0.125000
G01 X98.439409 Y131.208632 Z-0.125000
G01 X97.445762 Y128.098812 Z-0.125000
G01 X97.522161 Y125.076214 Z-0.125000
G01 X98.670335 Y122.388591 Z-0.125000
G01 X101.301022 Y119.698786 Z-0.125000
G01 X104.791658 Y117.792256 Z-0.125000
G01 X108.050548 Y117.220443 Z-0.125000
G01 X110.950179 Y117.937961 Z-0.125000
G01 X112.508091 Y118.976174 Z-0.125000
G01 X113.810519 Y120.385744 Z-0.125000
G01 X114.801438 Y122.094544 Z-0.125000
G01 X115.453198 Y124.071289 Z-0.125000
G01 X115.704861 Y126.152355 Z-0.125000
G01 X115.550243 Y128.217504 Z-0.125000
G01 X115.000258 Y130.159141 Z-0.125000
G01 X114.048540 Y131.948615 Z-0.125000
G01 X112.768849 Y133.447045 Z-0.125000
G01 X111.139541 Y134.685716 Z-0.125000
G01 X109.202269 Y135.626975 Z-0.125000
G01 X107.054718 Y136.217888 Z-0.125000
G01 X104.903710 Y136.401429 Z-0.125000
G01 X102.894678 Y136.170320 Z-0.125000
G01 X101.136945 Y135.544027 Z-0.125000
G01 X99.644883 Y134.534281 Z-0.125000
G01 X97.594377 Y131.840929 Z-0.125000
G01 X96.476489 Y128.381217 Z-0.125000
G01 X96.546067 Y125.079488 Z-0.125000
G01 X97.761910 Y122.201686 Z-0.125000
G01 X100.634801 Y119.228838 Z-0.125000
G01 X104.539812 Y117.005160 Z-0.125000
G01 X108.132314 Y116.285005 Z-0.125000
G01 X109.752891 Y116.467090 Z-0.125000
G01 X111.318443 Y117.023169 Z-0.125000
G01 X113.023878 Y118.151697 Z-0.125000
G01 X114.446726 Y119.694875 Z-0.125000
G01 X115.526414 Y121.572845 Z-0.125000
G01 X116.233472 Y123.750411 Z-0.125000
G01 X116.503508 Y126.045032 Z-0.125000
G01 X116.332792 Y128.320097 Z-0.125000
G01 X115.735785 Y130.452915 Z-0.125000
G01 X114.706484 Y132.410832 Z-0.125000
G01 X113.322472 Y134.047508 Z-0.125000
G01 X111.548732 Y135.406144 Z-0.125000
G01 X109.423555 Y136.449360 Z-0.125000
G01 X107.054809 Y137.119129 Z-0.125000
G01 X104.677695 Y137.348145 Z-0.125000
G01 X102.462021 Y137.122858 Z-0.125000
G01 X100.534390 Y136.460820 Z-0.125000
G01 X98.912176 Y135.373402 Z-0.125000
G01 X96.728880 Y132.507605 Z-0.125000
G01 X95.492574 Y128.751481 Z-0.125000
G01 X95.532957 Y125.166347 Z-0.125000
G01 X96.825289 Y122.047977 Z-0.125000
G01 X98.191657 Y120.362369 Z-0.125000
G01 X100.060623 Y118.698772 Z-0.125000
G01 X102.182253 Y117.267283 Z-0.125000
G01 X104.419210 Y116.167222 Z-0.125000
G01 X106.432517 Y115.547750 Z-0.125000
G01 X108.279382 Y115.336287 Z-0.125000
G01 X110.046574 Y115.516099 Z-0.125000
G01 X111.687888 Y116.086912 Z-0.125000
G01 X113.490278 Y117.261189 Z-0.125000
G01 X115.044188 Y118.925878 Z-0.125000
G01 X116.223741 Y120.965197 Z-0.125000
G01 X116.997649 Y123.341128 Z-0.125000
G01 X117.297425 Y125.852942 Z-0.125000
G01 X117.109883 Y128.417961 Z-0.125000
G01 X116.439114 Y130.811628 Z-0.125000
G01 X115.320954 Y132.931894 Z-0.125000
G01 X113.822434 Y134.699177 Z-0.125000
G01 X111.892621 Y136.169138 Z-0.125000
G01 X109.566713 Y137.305307 Z-0.125000
G01 X106.964767 Y138.043926 Z-0.125000
G01 X104.432489 Y138.307049 Z-0.125000
G01 X102.003351 Y138.091766 Z-0.125000
G01 X99.901912 Y137.397168 Z-0.125000
G01 X98.149455 Y136.234623 Z-0.125000
G01 X96.867764 Y134.843517 Z-0.125000
G01 X95.777708 Y133.083238 Z-0.125000
G01 X94.462819 Y129.017242 Z-0.125000
G01 X94.506658 Y125.218372 Z-0.125000
G01 X95.028811 Y123.494382 Z-0.125000
G01 X95.900219 Y121.867165 Z-0.125000
G01 X97.382914 Y120.050769 Z-0.125000
G01 X99.415048 Y118.234736 Z-0.125000
G01 X101.797255 Y116.596423 Z-0.125000
G01 X104.235852 Y115.353386 Z-0.125000
G01 X106.427606 Y114.636414 Z-0.125000
G01 X108.434819 Y114.373655 Z-0.125000
G01 X110.279683 Y114.533730 Z-0.125000
G01 X112.059699 Y115.130646 Z-0.125000
G01 X114.008703 Y116.390781 Z-0.125000
G01 X115.684215 Y118.189078 Z-0.125000
G01 X116.951263 Y120.400114 Z-0.125000
G01 X117.776650 Y122.983234 Z-0.125000
G01 X118.091252 Y125.799644 Z-0.125000
G01 X117.866965 Y128.589496 Z-0.125000
G01 X117.130529 Y131.182165 Z-0.125000
G01 X115.922781 Y133.465599 Z-0.125000
G01 X114.310026 Y135.362578 Z-0.125000
G01 X112.222593 Y136.943046 Z-0.125000
G01 X109.690862 Y138.171804 Z-0.125000
G01 X106.848076 Y138.980182 Z-0.125000
G01 X103.996012 Y139.280050 Z-0.125000
G01 X101.360232 Y139.044485 Z-0.125000
G01 X99.171115 Y138.319327 Z-0.125000
G01 X97.301512 Y137.068559 Z-0.125000
G01 X95.945786 Y135.569403 Z-0.125000
G01 X94.828536 Y133.739454 Z-0.125000
G01 X93.943666 Y131.572348 Z-0.125000
G01 X93.416329 Y129.368407 Z-0.125000
G01 X93.256254 Y127.300984 Z-0.125000
G01 X93.455620 Y125.290041 Z-0.125000
G01 X94.015973 Y123.445450 Z-0.125000
G01 X94.913030 Y121.770211 Z-0.125000
G01 X96.499136 Y119.822116 Z-0.125000
G01 X98.755102 Y117.794075 Z-0.125000
G01 X101.412893 Y115.933567 Z-0.125000
G01 X104.056768 Y114.539005 Z-0.125000
G01 X106.345295 Y113.738539 Z-0.125000
G01 X108.518222 Y113.401472 Z-0.125000
G01 X110.513702 Y113.535717 Z-0.125000
G01 X112.435239 Y114.155734 Z-0.125000
G01 X114.532494 Y115.501456 Z-0.125000
G01 X116.329881 Y117.433816 Z-0.125000
G01 X117.682879 Y119.818023 Z-0.125000
G01 X118.556652 Y122.611514 Z-0.125000
G01 X118.878985 Y125.575266 Z-0.125000
G01 X118.644329 Y128.602593 Z-0.125000
G01 X117.868511 Y131.414820 Z-0.125000
G01 X116.554077 Y133.948734 Z-0.125000
G01 X114.842002 Y135.984415 Z-0.125000
G01 X112.610866 Y137.683939 Z-0.125000
G01 X109.881497 Y139.016108 Z-0.125000
G01 X106.797143 Y139.908435 Z-0.125000
G01 X103.694871 Y140.261783 Z-0.125000
G01 X100.833076 Y140.040588 Z-0.125000
G01 X98.470151 Y139.287781 Z-0.125000
G01 X96.471487 Y137.965616 Z-0.125000
G01 X95.080290 Y136.432807 Z-0.125000
G01 X93.850714 Y134.417226 Z-0.125000
G01 X92.908545 Y132.099322 Z-0.125000
G01 X92.342462 Y129.739762 Z-0.125000
G01 X92.168016 Y127.527271 Z-0.125000
G01 X92.365382 Y125.454118 Z-0.125000
G01 X92.951838 Y123.484832 Z-0.125000
G01 X93.901283 Y121.700178 Z-0.125000
G01 X95.652831 Y119.560175 Z-0.125000
G01 X98.159369 Y117.315305 Z-0.125000
G01 X101.118300 Y115.224235 Z-0.125000
G01 X103.974820 Y113.683058 Z-0.125000
G01 X106.441158 Y112.790549 Z-0.125000
G01 X108.776979 Y112.410462 Z-0.125000
G01 X110.915436 Y112.553984 Z-0.125000
G01 X112.891179 Y113.199013 Z-0.125000
G01 X115.127864 Y114.649602 Z-0.125000
G01 X117.033666 Y116.733124 Z-0.125000
G01 X118.455332 Y119.304601 Z-0.125000
G01 X119.338564 Y122.227061 Z-0.125000
G01 X119.666081 Y125.518512 Z-0.125000
G01 X119.384312 Y128.781950 Z-0.125000
G01 X118.504627 Y131.883585 Z-0.125000
G01 X117.082688 Y134.576938 Z-0.125000
G01 X115.242645 Y136.730310 Z-0.125000
G01 X112.835608 Y138.526788 Z-0.125000
G01 X109.877586 Y139.936994 Z-0.125000
G01 X106.529472 Y140.883619 Z-0.125000
G01 X103.170807 Y141.257067 Z-0.125000
G01 X100.185318 Y141.031052 Z-0.125000
G01 X97.658952 Y140.234224 Z-0.125000
G01 X95.547691 Y138.825110 Z-0.125000
G01 X94.091281 Y137.189616 Z-0.125000
G01 X92.805861 Y135.038336 Z-0.125000
G01 X91.818762 Y132.563358 Z-0.125000
G01 X91.227303 Y130.044723 Z-0.125000
G01 X91.053585 Y127.686892 Z-0.125000
G01 X91.280055 Y125.483587 Z-0.125000
G01 X91.894070 Y123.472827 Z-0.125000
G01 X92.913184 Y121.583760 Z-0.125000
G01 X94.792973 Y119.317971 Z-0.125000
G01 X97.565181 Y116.848541 Z-0.125000
G01 X100.842262 Y114.511719 Z-0.125000
G01 X104.012383 Y112.773087 Z-0.125000
G01 X106.658168 Y111.803541 Z-0.125000
G01 X109.060930 Y111.406628 Z-0.125000
G01 X111.255140 Y111.545421 Z-0.125000
G01 X113.363492 Y112.231651 Z-0.125000
G01 X115.739787 Y113.790654 Z-0.125000
G01 X117.751820 Y116.028157 Z-0.125000
G01 X119.237698 Y118.789905 Z-0.125000
G01 X120.141849 Y121.930559 Z-0.125000
G01 X120.448720 Y125.468853 Z-0.125000
G01 X120.094281 Y129.070540 Z-0.125000
G01 X119.119552 Y132.378908 Z-0.125000
G01 X117.587925 Y135.230244 Z-0.125000
G01 X115.618548 Y137.498397 Z-0.125000
G01 X113.031063 Y139.388192 Z-0.125000
G01 X109.836567 Y140.872796 Z-0.125000
G01 X106.215416 Y141.870445 Z-0.125000
G01 X102.593355 Y142.261083 Z-0.125000
G01 X99.397039 Y142.011421 Z-0.125000
G01 X96.723150 Y141.149653 Z-0.125000
G01 X94.583603 Y139.692152 Z-0.125000
G01 X93.065710 Y137.954611 Z-0.125000
G01 X91.727265 Y135.667630 Z-0.125000
G01 X90.697146 Y133.034579 Z-0.125000
G01 X90.082403 Y130.355233 Z-0.125000
G01 X89.911687 Y127.939101 Z-0.125000
G01 X90.156256 Y125.601005 Z-0.125000
G01 X90.816292 Y123.473372 Z-0.125000
G01 X91.858963 Y121.555383 Z-0.125000
G01 X93.851260 Y119.164626 Z-0.125000
G01 X96.886773 Y116.463361 Z-0.125000
G01 X100.487641 Y113.859868 Z-0.125000
G01 X103.878412 Y111.943789 Z-0.125000
G01 X106.601506 Y110.887840 Z-0.125000
G01 X109.170800 Y110.404613 Z-0.125000
G01 X111.517081 Y110.509935 Z-0.125000
G01 X113.768590 Y111.216175 Z-0.125000
G01 X116.297593 Y112.864493 Z-0.125000
G01 X118.429501 Y115.239879 Z-0.125000
G01 X119.993143 Y118.179710 Z-0.125000
G01 X120.930764 Y121.532372 Z-0.125000
G01 X121.228449 Y125.318964 Z-0.125000
G01 X120.828716 Y129.178590 Z-0.125000
G01 X119.786683 Y132.719340 Z-0.125000
G01 X118.121448 Y135.833526 Z-0.125000
G01 X116.038927 Y138.225556 Z-0.125000
G01 X113.287092 Y140.216125 Z-0.125000
G01 X109.865944 Y141.783678 Z-0.125000
G01 X105.971665 Y142.844902 Z-0.125000
G01 X102.076658 Y143.269555 Z-0.125000
G01 X98.655601 Y143.014800 Z-0.125000
G01 X95.819363 Y142.106829 Z-0.125000
G01 X93.578859 Y140.564561 Z-0.125000
G01 X92.003394 Y138.725427 Z-0.125000
G01 X90.614925 Y136.302746 Z-0.125000
G01 X89.543423 Y133.510529 Z-0.125000
G01 X88.907671 Y130.668743 Z-0.125000
G01 X88.744413 Y128.109362 Z-0.125000
G01 X89.008900 Y125.728611 Z-0.125000
G01 X89.719597 Y123.483559 Z-0.125000
G01 X90.837484 Y121.467160 Z-0.125000
G01 X93.041971 Y118.883586 Z-0.125000
G01 X96.392996 Y115.946300 Z-0.125000
G01 X100.357944 Y113.073955 Z-0.125000
G01 X103.980368 Y111.006259 Z-0.125000
G01 X106.878635 Y109.874274 Z-0.125000
G01 X109.498044 Y109.380770 Z-0.125000
G01 X111.985391 Y109.500008 Z-0.125000
G01 X114.273372 Y110.231987 Z-0.125000
G01 X116.943169 Y111.994631 Z-0.125000
G01 X119.177852 Y114.528727 Z-0.125000
G01 X120.797520 Y117.663014 Z-0.125000
G01 X121.742963 Y121.239598 Z-0.125000
G01 X122.003175 Y125.281492 Z-0.125000
G01 X121.531318 Y129.398875 Z-0.125000
G01 X120.360224 Y133.262231 Z-0.125000
G01 X118.579117 Y136.537402 Z-0.125000
G01 X116.365261 Y139.038300 Z-0.125000
G01 X113.523203 Y141.058338 Z-0.125000
G01 X109.870855 Y142.704291 Z-0.125000
G01 X105.695627 Y143.825543 Z-0.125000
G01 X101.519761 Y144.282212 Z-0.125000
G01 X97.869324 Y144.021544 Z-0.125000
G01 X94.871010 Y143.066369 Z-0.125000
G01 X92.533460 Y141.439516 Z-0.125000
G01 X90.904334 Y139.499517 Z-0.125000
G01 X89.468570 Y136.941409 Z-0.125000
G01 X88.357413 Y133.988571 Z-0.125000
G01 X87.703198 Y130.982345 Z-0.125000
G01 X87.549034 Y128.377306 Z-0.125000
G01 X87.838534 Y125.863674 Z-0.125000
G01 X88.566602 Y123.588335 Z-0.125000
G01 X89.746791 Y121.468342 Z-0.125000
G01 X91.995663 Y118.842930 Z-0.125000
G01 X95.720044 Y115.588224 Z-0.125000
G01 X100.155668 Y112.346978 Z-0.125000
G01 X104.006744 Y110.108838 Z-0.125000
G01 X107.081458 Y108.880627 Z-0.125000
G01 X109.855757 Y108.348741 Z-0.125000
G01 X112.378848 Y108.467342 Z-0.125000
G01 X114.798891 Y109.244343 Z-0.125000
G01 X117.609754 Y111.125678 Z-0.125000
G01 X119.944666 Y113.821214 Z-0.125000
G01 X121.574793 Y117.043542 Z-0.125000
G01 X122.542610 Y120.835409 Z-0.125000
G01 X122.777811 Y125.132422 Z-0.125000
G01 X122.219550 Y129.635805 Z-0.125000
G01 X120.950773 Y133.733815 Z-0.125000
G01 X119.009136 Y137.270381 Z-0.125000
G01 X116.662310 Y139.876148 Z-0.125000
G01 X113.634891 Y141.972675 Z-0.125000
G01 X109.725605 Y143.676928 Z-0.125000
G01 X105.250873 Y144.835744 Z-0.125000
G01 X100.922118 Y145.296960 Z-0.125000
G01 X97.037843 Y145.028925 Z-0.125000
G01 X93.877727 Y144.025819 Z-0.125000
G01 X91.447315 Y142.314381 Z-0.125000
G01 X89.768529 Y140.274243 Z-0.125000
G01 X88.288199 Y137.580709 Z-0.125000
G01 X87.139297 Y134.465886 Z-0.125000
G01 X86.483262 Y131.399540 Z-0.125000
G01 X86.327098 Y128.651343 Z-0.125000
G01 X86.624328 Y126.102422 Z-0.125000
G01 X87.391961 Y123.705572 Z-0.125000
G01 X88.638545 Y121.481348 Z-0.125000
G01 X91.011384 Y118.742701 Z-0.125000
G01 X95.048639 Y115.246154 Z-0.125000
G01 X99.863167 Y111.694672 Z-0.125000
G01 X104.064863 Y109.202323 Z-0.125000
G01 X107.191964 Y107.916357 Z-0.125000
G01 X110.126157 Y107.320077 Z-0.125000
G01 X112.793224 Y107.430948 Z-0.125000
G01 X115.245828 Y108.208312 Z-0.125000
G01 X118.214764 Y110.185511 Z-0.125000
G01 X120.667550 Y113.023113 Z-0.125000
G01 X122.364527 Y116.420250 Z-0.125000
G01 X123.349443 Y120.428036 Z-0.125000
G01 X123.551173 Y124.982443 Z-0.125000
G01 X122.920241 Y129.765957 Z-0.125000
G01 X121.519767 Y134.227319 Z-0.125000
G01 X119.472444 Y137.946152 Z-0.125000
G01 X117.013292 Y140.667336 Z-0.125000
G01 X113.821797 Y142.846994 Z-0.125000
G01 X109.671125 Y144.616641 Z-0.125000
G01 X104.899435 Y145.824843 Z-0.125000
G01 X100.283273 Y146.311435 Z-0.125000
G01 X96.160887 Y146.034487 Z-0.125000
G01 X92.839604 Y144.982085 Z-0.125000
G01 X90.320696 Y143.186062 Z-0.125000
G01 X88.596343 Y141.046969 Z-0.125000
G01 X87.074176 Y138.217916 Z-0.125000
G01 X85.889075 Y134.939471 Z-0.125000
G01 X85.220125 Y131.709776 Z-0.125000
G01 X85.082606 Y128.818876 Z-0.125000
G01 X85.431315 Y126.144533 Z-0.125000
G01 X86.239148 Y123.735404 Z-0.125000
G01 X87.577047 Y121.413407 Z-0.125000
G01 X90.193819 Y118.484581 Z-0.125000
G01 X94.608523 Y114.738280 Z-0.125000
G01 X99.974765 Y110.786792 Z-0.125000
G01 X104.289331 Y108.220499 Z-0.125000
G01 X107.453996 Y106.908703 Z-0.125000
G01 X110.417566 Y106.289049 Z-0.125000
G01 X113.229884 Y106.393371 Z-0.125000
G01 X115.812093 Y107.218666 Z-0.125000
G01 X118.923824 Y109.322470 Z-0.125000
G01 X121.472927 Y112.326241 Z-0.125000
G01 X123.210741 Y115.916741 Z-0.125000
G01 X124.181742 Y120.154090 Z-0.125000
G01 X124.307346 Y125.111776 Z-0.125000
G01 X123.549445 Y130.165962 Z-0.125000
G01 X122.016909 Y134.857797 Z-0.125000
G01 X119.780589 Y138.828566 Z-0.125000
G01 X117.252950 Y141.555116 Z-0.125000
G01 X113.869456 Y143.797530 Z-0.125000
G01 X109.448203 Y145.609288 Z-0.125000
G01 X104.359364 Y146.841502 Z-0.125000
G01 X99.453520 Y147.326638 Z-0.125000
G01 X95.109031 Y147.011763 Z-0.125000
G01 X91.756824 Y145.932348 Z-0.125000
G01 X89.154059 Y144.051922 Z-0.125000
G01 X87.388323 Y141.814601 Z-0.125000
G01 X85.826773 Y138.850121 Z-0.125000
G01 X84.607293 Y135.405962 Z-0.125000
G01 X83.928247 Y132.010644 Z-0.125000
G01 X83.809191 Y129.090458 Z-0.125000
G01 X84.195736 Y126.283871 Z-0.125000
G01 X85.071510 Y123.762599 Z-0.125000
G01 X86.440515 Y121.436054 Z-0.125000
G01 X89.104217 Y118.485672 Z-0.125000
G01 X93.961493 Y114.412946 Z-0.125000
G01 X99.881357 Y110.033258 Z-0.125000
G01 X104.425122 Y107.292974 Z-0.125000
G01 X107.751954 Y105.895046 Z-0.125000
G01 X110.864412 Y105.245378 Z-0.125000
G01 X113.690281 Y105.356885 Z-0.125000
G01 X116.403188 Y106.233659 Z-0.125000
G01 X119.657804 Y108.469161 Z-0.125000
G01 X122.232283 Y111.534324 Z-0.125000
G01 X124.030853 Y115.300180 Z-0.125000
G01 X125.006219 Y119.754630 Z-0.125000
G01 X125.087530 Y124.834192 Z-0.125000
G01 X124.223488 Y130.322854 Z-0.125000
G01 X122.535789 Y135.404871 Z-0.125000
G01 X120.188598 Y139.561727 Z-0.125000
G01 X117.459683 Y142.470090 Z-0.125000
G01 X114.003337 Y144.704228 Z-0.125000
G01 X109.481582 Y146.517077 Z-0.125000
G01 X104.094058 Y147.803589 Z-0.125000
G01 X98.722815 Y148.333200 Z-0.125000
G01 X94.270456 Y148.028512 Z-0.125000
G01 X90.735527 Y146.925632 Z-0.125000
G01 X88.023802 Y144.985632 Z-0.125000
G01 X86.204586 Y142.669092 Z-0.125000
G01 X84.594014 Y139.584647 Z-0.125000
G01 X83.327329 Y135.982960 Z-0.125000
G01 X82.622363 Y132.422201 Z-0.125000
G01 X82.510401 Y129.358584 Z-0.125000
G01 X82.911498 Y126.532260 Z-0.125000
G01 X83.840115 Y123.889476 Z-0.125000
G01 X85.289703 Y121.460338 Z-0.125000
G01 X88.096927 Y118.405725 Z-0.125000
G01 X93.325468 Y114.097434 Z-0.125000
G01 X99.970672 Y109.174492 Z-0.125000
G01 X104.745818 Y106.283501 Z-0.125000
G01 X108.231906 Y104.831093 Z-0.125000
G01 X111.348457 Y104.202253 Z-0.125000
G01 X114.305478 Y104.347867 Z-0.125000
G01 X117.020478 Y105.256111 Z-0.125000
G01 X120.418251 Y107.628768 Z-0.125000
G01 X123.151986 Y110.973698 Z-0.125000
G01 X124.954376 Y114.955927 Z-0.125000
G01 X125.856344 Y119.508060 Z-0.125000
G01 X125.832515 Y125.009910 Z-0.125000
G01 X124.811855 Y130.781432 Z-0.125000
G01 X122.918059 Y136.226529 Z-0.125000
G01 X120.425527 Y140.516902 Z-0.125000
G01 X117.632492 Y143.412350 Z-0.125000
G01 X113.982964 Y145.689780 Z-0.125000
G01 X109.186808 Y147.523457 Z-0.125000
G01 X103.466037 Y148.817245 Z-0.125000
G01 X97.950362 Y149.331577 Z-0.125000
G01 X93.257163 Y149.011245 Z-0.125000
G01 X89.568344 Y147.856977 Z-0.125000
G01 X86.780493 Y145.833666 Z-0.125000
G01 X84.927715 Y143.421809 Z-0.125000
G01 X83.234104 Y140.086519 Z-0.125000
G01 X81.950957 Y136.304110 Z-0.125000
G01 X81.274822 Y132.699149 Z-0.125000
G01 X81.186872 Y129.619615 Z-0.125000
G01 X81.633172 Y126.663230 Z-0.125000
G01 X82.588983 Y124.016172 Z-0.125000
G01 X84.125521 Y121.482712 Z-0.125000
G01 X86.878447 Y118.510593 Z-0.125000
G01 X92.175384 Y114.197208 Z-0.125000
G01 X99.818419 Y108.502631 Z-0.125000
G01 X104.968832 Y105.338604 Z-0.125000
G01 X108.463560 Y103.856182 Z-0.125000
G01 X111.726179 Y103.174044 Z-0.125000
G01 X114.823357 Y103.322750 Z-0.125000
G01 X117.665052 Y104.288930 Z-0.125000
G01 X121.206075 Y106.804472 Z-0.125000
G01 X123.955908 Y110.205156 Z-0.125000
G01 X125.811232 Y114.363832 Z-0.125000
G01 X126.703377 Y119.126881 Z-0.125000
G01 X126.601875 Y124.898949 Z-0.125000
G01 X125.457521 Y130.970885 Z-0.125000
G01 X123.378547 Y136.838179 Z-0.125000
G01 X120.697564 Y141.412322 Z-0.125000
G01 X117.770101 Y144.382259 Z-0.125000
G01 X113.923754 Y146.692068 Z-0.125000
G01 X108.845921 Y148.534386 Z-0.125000
G01 X102.783444 Y149.825627 Z-0.125000
G01 X96.960443 Y150.321859 Z-0.125000
G01 X92.049688 Y149.953505 Z-0.125000
G01 X88.357959 Y148.773134 Z-0.125000
G01 X85.499256 Y146.666420 Z-0.125000
G01 X83.616920 Y144.160518 Z-0.125000
G01 X81.890292 Y140.684253 Z-0.125000
G01 X80.612239 Y136.861008 Z-0.125000
G01 X79.914549 Y133.091151 Z-0.125000
G01 X79.839150 Y129.870096 Z-0.125000
G01 X80.302912 Y126.906981 Z-0.125000
G01 X81.318479 Y124.139502 Z-0.125000
G01 X82.948425 Y121.499993 Z-0.125000
G01 X85.638412 Y118.620371 Z-0.125000
G01 X90.326608 Y114.837417 Z-0.125000
G01 X99.854890 Y107.725267 Z-0.125000
G01 X105.394667 Y104.306757 Z-0.125000
G01 X109.037920 Y102.785317 Z-0.125000
G01 X112.282985 Y102.139378 Z-0.125000
G01 X115.368886 Y102.306638 Z-0.125000
G01 X118.338095 Y103.335120 Z-0.125000
G01 X122.022548 Y105.999459 Z-0.125000
G01 X124.856057 Y109.572042 Z-0.125000
G01 X126.687734 Y113.782560 Z-0.125000
G01 X127.564326 Y118.755435 Z-0.125000
G01 X127.374055 Y124.796992 Z-0.125000
G01 X126.046797 Y131.333054 Z-0.125000
G01 X123.811113 Y137.478206 Z-0.125000
G01 X120.934675 Y142.342940 Z-0.125000
G01 X117.979745 Y145.297324 Z-0.125000
G01 X113.969139 Y147.645515 Z-0.125000
G01 X108.636277 Y149.500293 Z-0.125000
G01 X102.045826 Y150.825641 Z-0.125000
G01 X95.911407 Y151.297134 Z-0.125000
G01 X90.940714 Y150.905133 Z-0.125000
G01 X87.105099 Y149.671009 Z-0.125000
G01 X84.180911 Y147.481074 Z-0.125000
G01 X82.273290 Y144.882129 Z-0.125000
G01 X80.516103 Y141.263798 Z-0.125000
G01 X79.211037 Y137.270017 Z-0.125000
G01 X78.514711 Y133.329353 Z-0.125000
G01 X78.468053 Y130.106298 Z-0.125000
G01 X78.983840 Y127.015668 Z-0.125000
G01 X80.088630 Y124.136137 Z-0.125000
G01 X81.758867 Y121.508816 Z-0.125000
G01 X84.160174 Y118.927606 Z-0.125000
G01 X87.889830 Y115.899188 Z-0.125000
G01 X99.777672 Y107.054680 Z-0.125000
G01 X105.713453 Y103.349763 Z-0.125000
G01 X109.504866 Y101.764293 Z-0.125000
G01 X112.881357 Y101.113533 Z-0.125000
G01 X116.090860 Y101.332636 Z-0.125000
G01 X119.040697 Y102.397499 Z-0.125000
G01 X120.942951 Y103.583691 Z-0.125000
G01 X122.868672 Y105.216728 Z-0.125000
G01 X125.783128 Y108.964211 Z-0.125000
G01 X127.628993 Y113.367820 Z-0.125000
G01 X128.450014 Y118.566710 Z-0.125000
G01 X128.125771 Y124.884761 Z-0.125000
G01 X126.616973 Y131.722691 Z-0.125000
G01 X124.148817 Y138.288404 Z-0.125000
G01 X121.135860 Y143.309392 Z-0.125000
G01 X118.049687 Y146.320985 Z-0.125000
G01 X113.837350 Y148.677634 Z-0.125000
G01 X108.211169 Y150.513949 Z-0.125000
G01 X101.252909 Y151.814286 Z-0.125000
G01 X94.803433 Y152.254037 Z-0.125000
G01 X89.626644 Y151.806464 Z-0.125000
G01 X85.690709 Y150.485572 Z-0.125000
G01 X82.826731 Y148.274446 Z-0.125000
G01 X80.897918 Y145.583458 Z-0.125000
G01 X79.112537 Y141.821877 Z-0.125000
G01 X77.782095 Y137.653743 Z-0.125000
G01 X77.103414 Y133.686884 Z-0.125000
G01 X77.074309 Y130.324309 Z-0.125000
G01 X77.608923 Y127.240864 Z-0.125000
G01 X78.719534 Y124.362971 Z-0.125000
G01 X80.468445 Y121.618776 Z-0.125000
G01 X82.758790 Y119.145163 Z-0.125000
G01 X85.928639 Y116.557405 Z-0.125000
G01 X100.248347 Y106.027290 Z-0.125000
G01 X106.079898 Y102.391223 Z-0.125000
G01 X109.846844 Y100.800296 Z-0.125000
G01 X113.358853 Y100.109609 Z-0.125000
G01 X116.547529 Y100.312249 Z-0.125000
G01 X119.634975 Y101.406853 Z-0.125000
G01 X121.625635 Y102.644705 Z-0.125000
G01 X123.635577 Y104.351141 Z-0.125000
G01 X126.660448 Y108.249058 Z-0.125000
G01 X128.549697 Y112.823201 Z-0.125000
G01 X129.341795 Y118.230280 Z-0.125000
G01 X128.932513 Y124.629823 Z-0.125000
G01 X127.222166 Y131.964168 Z-0.125000
G01 X124.449503 Y139.139893 Z-0.125000
G01 X121.300210 Y144.312317 Z-0.125000
G01 X118.082066 Y147.371659 Z-0.125000
G01 X113.823161 Y149.658730 Z-0.125000
G01 X107.935949 Y151.478856 Z-0.125000
G01 X100.620522 Y152.762548 Z-0.125000
G01 X93.839436 Y153.190749 Z-0.125000
G01 X88.424899 Y152.714708 Z-0.125000
G01 X84.352901 Y151.335243 Z-0.125000
G01 X81.437990 Y149.043624 Z-0.125000
G01 X79.427957 Y146.146903 Z-0.125000
G01 X77.628296 Y142.217699 Z-0.125000
G01 X76.290942 Y137.857384 Z-0.125000
G01 X75.655462 Y133.870516 Z-0.125000
G01 X75.659101 Y130.520492 Z-0.125000
G01 X76.251742 Y127.312807 Z-0.125000
G01 X77.459489 Y124.326226 Z-0.125000
G01 X79.249601 Y121.604860 Z-0.125000
G01 X81.441446 Y119.260489 Z-0.125000
G01 X84.455221 Y116.811888 Z-0.125000
G01 X100.978053 Y104.850102 Z-0.125000
G01 X106.674358 Y101.340822 Z-0.125000
G01 X110.574640 Y99.737889 Z-0.125000
G01 X114.038353 Y99.108412 Z-0.125000
G01 X117.342992 Y99.373809 Z-0.125000
G01 X120.394240 Y100.505703 Z-0.125000
G01 X122.461390 Y101.818682 Z-0.125000
G01 X124.540546 Y103.616979 Z-0.125000
G01 X126.229155 Y105.544882 Z-0.125000
G01 X127.643090 Y107.695071 Z-0.125000
G01 X129.537341 Y112.463851 Z-0.125000
G01 X130.252404 Y117.912040 Z-0.125000
G01 X129.721973 Y124.569249 Z-0.125000
G01 X127.817809 Y132.220470 Z-0.125000
G01 X124.786116 Y139.882696 Z-0.125000
G01 X123.102691 Y142.966322 Z-0.125000
G01 X121.427360 Y145.351986 Z-0.125000
G01 X118.076609 Y148.448982 Z-0.125000
G01 X113.617247 Y150.715862 Z-0.125000
G01 X107.218340 Y152.530530 Z-0.125000
G01 X99.501088 Y153.744008 Z-0.125000
G01 X92.413222 Y154.099902 Z-0.125000
G01 X87.008508 Y153.562468 Z-0.125000
G01 X82.976529 Y152.157628 Z-0.125000
G01 X81.388421 Y151.108773 Z-0.125000
G01 X80.016324 Y149.785608 Z-0.125000
G01 X77.992739 Y146.794661 Z-0.125000
G01 X76.168794 Y142.716751 Z-0.125000
G01 X74.810339 Y138.172804 Z-0.125000
G01 X74.186320 Y134.017767 Z-0.125000
G01 X74.238617 Y130.535226 Z-0.125000
G01 X74.878007 Y127.358192 Z-0.125000
G01 X76.116315 Y124.397714 Z-0.125000
G01 X78.018115 Y121.572755 Z-0.125000
G01 X80.218236 Y119.260126 Z-0.125000
G01 X82.946242 Y117.056093 Z-0.125000
G01 X101.804076 Y103.641900 Z-0.125000
G01 X107.147489 Y100.381099 Z-0.125000
G01 X110.998111 Y98.791718 Z-0.125000
G01 X114.586610 Y98.133319 Z-0.125000
G01 X118.016217 Y98.422636 Z-0.125000
G01 X121.185247 Y99.629202 Z-0.125000
G01 X123.329342 Y101.020945 Z-0.125000
G01 X125.477530 Y102.914286 Z-0.125000
G01 X127.212707 Y104.932232 Z-0.125000
G01 X128.655201 Y107.175464 Z-0.125000
G01 X129.786367 Y109.639619 Z-0.125000
G01 X130.548633 Y112.139972 Z-0.125000
G01 X131.183840 Y117.806445 Z-0.125000
G01 X130.481784 Y124.728506 Z-0.125000
G01 X128.339053 Y132.686143 Z-0.125000
G01 X124.935822 Y140.970024 Z-0.125000
G01 X123.171541 Y144.120772 Z-0.125000
G01 X121.422813 Y146.540360 Z-0.125000
G01 X118.032315 Y149.552044 Z-0.125000
G01 X113.369494 Y151.782180 Z-0.125000
G01 X106.649801 Y153.527452 Z-0.125000
G01 X98.304164 Y154.700638 Z-0.125000
G01 X91.132349 Y154.982133 Z-0.125000
G01 X85.718450 Y154.415322 Z-0.125000
G01 X81.562321 Y152.949818 Z-0.125000
G01 X79.946291 Y151.862308 Z-0.125000
G01 X78.562734 Y150.497487 Z-0.125000
G01 X76.529690 Y147.413042 Z-0.125000
G01 X74.683553 Y143.183879 Z-0.125000
G01 X73.342106 Y138.615466 Z-0.125000
G01 X72.706899 Y134.291349 Z-0.125000
G01 X72.784936 Y130.669925 Z-0.125000
G01 X73.488902 Y127.373199 Z-0.125000
G01 X74.832350 Y124.309127 Z-0.125000
G01 X76.774077 Y121.519366 Z-0.125000
G01 X78.978110 Y119.243936 Z-0.125000
G01 X81.687288 Y117.082196 Z-0.125000
G01 X91.203565 Y110.713667 Z-0.125000
G01 X102.726508 Y102.407139 Z-0.125000
G01 X107.863188 Y99.329516 Z-0.125000
G01 X111.833775 Y97.749412 Z-0.125000
G01 X115.351150 Y97.168049 Z-0.125000
G01 X118.722275 Y97.493747 Z-0.125000
G01 X122.009087 Y98.779986 Z-0.125000
G01 X124.230401 Y100.254222 Z-0.125000
G01 X126.326201 Y102.121460 Z-0.125000
G01 X128.125862 Y104.217078 Z-0.125000
G01 X129.615287 Y106.540439 Z-0.125000
G01 X130.774648 Y109.089543 Z-0.125000
G01 X131.544645 Y111.675663 Z-0.125000
G01 X131.997858 Y114.434865 Z-0.125000
G01 X132.133103 Y117.540138 Z-0.125000
G01 X131.902540 Y120.979113 Z-0.125000
G01 X131.284615 Y124.714954 Z-0.125000
G01 X128.911503 Y132.984464 Z-0.125000
G01 X125.201128 Y141.789407 Z-0.125000
G01 X123.280956 Y145.187545 Z-0.125000
G01 X121.469653 Y147.655883 Z-0.125000
G01 X119.793504 Y149.332578 Z-0.125000
G01 X117.949094 Y150.679663 Z-0.125000
G01 X113.260989 Y152.796564 Z-0.125000
G01 X106.262438 Y154.472440 Z-0.125000
G01 X97.279320 Y155.608518 Z-0.125000
G01 X89.795632 Y155.832896 Z-0.125000
G01 X84.204831 Y155.197234 Z-0.125000
G01 X80.112187 Y153.708992 Z-0.125000
G01 X78.471054 Y152.582555 Z-0.125000
G01 X77.079038 Y151.176532 Z-0.125000
G01 X75.040629 Y147.999135 Z-0.125000
G01 X73.119820 Y143.460281 Z-0.125000
G01 X71.779192 Y138.688682 Z-0.125000
G01 X71.197738 Y134.360291 Z-0.125000
G01 X71.312883 Y130.771155 Z-0.125000
G01 X72.085426 Y127.354281 Z-0.125000
G01 X73.456250 Y124.331502 Z-0.125000
G01 X75.517125 Y121.441420 Z-0.125000
G01 X77.719793 Y119.209284 Z-0.125000
G01 X80.557486 Y116.982513 Z-0.125000
G01 X91.210295 Y110.105473 Z-0.125000
G01 X103.549166 Y101.281976 Z-0.125000
G01 X108.448280 Y98.377888 Z-0.125000
G01 X112.343832 Y96.830254 Z-0.125000
G01 X115.974533 Y96.231792 Z-0.125000
G01 X119.461803 Y96.589687 Z-0.125000
G01 X122.866307 Y97.960602 Z-0.125000
G01 X125.165111 Y99.521242 Z-0.125000
G01 X127.326124 Y101.484162 Z-0.125000
G01 X129.171807 Y103.673551 Z-0.125000
G01 X130.687880 Y106.092139 Z-0.125000
G01 X131.852972 Y108.740561 Z-0.125000
G01 X132.607871 Y111.424637 Z-0.125000
G01 X133.025066 Y114.286705 Z-0.125000
G01 X133.105468 Y117.300753 Z-0.125000
G01 X132.809784 Y120.857692 Z-0.125000
G01 X132.148110 Y124.508494 Z-0.125000
G01 X129.553804 Y133.093243 Z-0.125000
G01 X125.348288 Y142.808612 Z-0.125000
G01 X123.350807 Y146.295518 Z-0.125000
G01 X121.477384 Y148.808150 Z-0.125000
G01 X119.741661 Y150.494940 Z-0.125000
G01 X117.826673 Y151.830748 Z-0.125000
G01 X112.937838 Y153.877434 Z-0.125000
G01 X105.608859 Y155.445350 Z-0.125000
G01 X95.939511 Y156.505483 Z-0.125000
G01 X88.404344 Y156.649005 Z-0.125000
G01 X82.643191 Y155.940128 Z-0.125000
G01 X78.495338 Y154.355931 Z-0.125000
G01 X76.964348 Y153.266693 Z-0.125000
G01 X75.566966 Y151.820016 Z-0.125000
G01 X73.527102 Y148.550120 Z-0.125000
G01 X71.587284 Y143.847099 Z-0.125000
G01 X70.268575 Y139.059674 Z-0.125000
G01 X69.679663 Y134.560839 Z-0.125000
G01 X69.823639 Y130.835094 Z-0.125000
G01 X70.611736 Y127.460331 Z-0.125000
G01 X72.061415 Y124.326590 Z-0.125000
G01 X74.247075 Y121.335916 Z-0.125000
G01 X76.581078 Y119.032019 Z-0.125000
G01 X79.416770 Y116.856454 Z-0.125000
G01 X90.122604 Y110.246721 Z-0.125000
G01 X103.851308 Y100.547450 Z-0.125000
G01 X109.289219 Y97.336764 Z-0.125000
G01 X113.290821 Y95.820599 Z-0.125000
G01 X116.827751 Y95.313544 Z-0.125000
G01 X120.419252 Y95.761481 Z-0.125000
G01 X123.757361 Y97.173779 Z-0.125000
G01 X126.133929 Y98.824734 Z-0.125000
G01 X128.359972 Y100.886245 Z-0.125000
G01 X130.250858 Y103.171498 Z-0.125000
G01 X131.792125 Y105.686676 Z-0.125000
G01 X132.899098 Y108.256516 Z-0.125000
G01 X133.659363 Y111.026086 Z-0.125000
G01 X134.060460 Y113.979470 Z-0.125000
G01 X134.102389 Y117.090746 Z-0.125000
G01 X133.736945 Y120.764194 Z-0.125000
G01 X132.981955 Y124.536870 Z-0.125000
G01 X130.203290 Y133.206750 Z-0.125000
G01 X125.543652 Y143.701212 Z-0.125000
G01 X123.380821 Y147.444784 Z-0.125000
G01 X121.446005 Y149.996798 Z-0.125000
G01 X119.771766 Y151.590545 Z-0.125000
G01 X117.807846 Y152.923715 Z-0.125000
G01 X112.768849 Y154.907826 Z-0.125000
G01 X105.158193 Y156.366236 Z-0.125000
G01 X94.795065 Y157.350880 Z-0.125000
G01 X86.959940 Y157.427370 Z-0.125000
G01 X81.228255 Y156.687660 Z-0.125000
G01 X77.110599 Y155.117742 Z-0.125000
G01 X75.534497 Y154.004403 Z-0.125000
G01 X74.112194 Y152.530894 Z-0.125000
G01 X71.990837 Y149.063179 Z-0.125000
G01 X70.034011 Y144.191715 Z-0.125000
G01 X68.702751 Y139.211291 Z-0.125000
G01 X68.137122 Y134.535918 Z-0.125000
G01 X68.318662 Y130.858105 Z-0.125000
G01 X69.177791 Y127.367469 Z-0.125000
G01 X70.742524 Y124.136137 Z-0.125000
G01 X72.963474 Y121.199580 Z-0.125000
G01 X75.435723 Y118.823376 Z-0.125000
G01 X78.263593 Y116.702018 Z-0.125000
G01 X90.423472 Y109.482818 Z-0.125000
G01 X104.618668 Y99.543707 Z-0.125000
G01 X109.989911 Y96.403691 Z-0.125000
G01 X114.095471 Y94.885616 Z-0.125000
G01 X117.728900 Y94.424945 Z-0.125000
G01 X121.422631 Y94.972929 Z-0.125000
G01 X124.854693 Y96.525202 Z-0.125000
G01 X127.290743 Y98.295486 Z-0.125000
G01 X129.559625 Y100.472870 Z-0.125000
G01 X131.472248 Y102.869993 Z-0.125000
G01 X132.928385 Y105.326416 Z-0.125000
G01 X134.037359 Y107.990755 Z-0.125000
G01 X134.777796 Y110.858644 Z-0.125000
G01 X135.136055 Y113.914621 Z-0.125000
G01 X135.111953 Y117.131947 Z-0.125000
G01 X134.685844 Y120.701346 Z-0.125000
G01 X133.831262 Y124.593715 Z-0.125000
G01 X130.772375 Y133.552094 Z-0.125000
G01 X125.519004 Y144.980175 Z-0.125000
G01 X123.370725 Y148.635342 Z-0.125000
G01 X121.375154 Y151.221463 Z-0.125000
G01 X119.645889 Y152.812935 Z-0.125000
G01 X117.758823 Y154.040874 Z-0.125000
G01 X115.375161 Y155.104463 Z-0.125000
G01 X112.573030 Y155.945858 Z-0.125000
G01 X104.421302 Y157.303767 Z-0.125000
G01 X93.032149 Y158.184270 Z-0.125000
G01 X85.212667 Y158.149799 Z-0.125000
G01 X79.580665 Y157.347423 Z-0.125000
G01 X75.426264 Y155.680097 Z-0.125000
G01 X73.863896 Y154.516734 Z-0.125000
G01 X72.548552 Y153.098342 Z-0.125000
G01 X70.433653 Y149.535673 Z-0.125000
G01 X68.461729 Y144.490946 Z-0.125000
G01 X67.119918 Y139.311156 Z-0.125000
G01 X66.586487 Y134.648790 Z-0.125000
G01 X66.799223 Y130.836458 Z-0.125000
G01 X67.732478 Y127.229586 Z-0.125000
G01 X69.316129 Y124.061011 Z-0.125000
G01 X71.665775 Y121.029409 Z-0.125000
G01 X74.283183 Y118.580444 Z-0.125000
G01 X77.269673 Y116.403242 Z-0.125000
G01 X90.816292 Y108.691629 Z-0.125000
G01 X105.459971 Y98.537508 Z-0.125000
G01 X110.957819 Y95.386032 Z-0.125000
G01 X114.951508 Y93.974189 Z-0.125000
G01 X118.678436 Y93.569181 Z-0.125000
G01 X122.278031 Y94.165187 Z-0.125000
G01 X125.820145 Y95.816688 Z-0.125000
G01 X128.333414 Y97.685746 Z-0.125000
G01 X130.665688 Y99.967815 Z-0.125000
G01 X132.620604 Y102.464621 Z-0.125000
G01 X134.097205 Y105.013906 Z-0.125000
G01 X135.205997 Y107.773381 Z-0.125000
G01 X135.923788 Y110.740225 Z-0.125000
G01 X136.226930 Y113.682695 Z-0.125000
G01 X136.158352 Y116.995519 Z-0.125000
G01 X135.657845 Y120.671605 Z-0.125000
G01 X134.765063 Y124.443736 Z-0.125000
G01 X131.535914 Y133.456140 Z-0.125000
G01 X125.541833 Y146.132897 Z-0.125000
G01 X123.320520 Y149.867101 Z-0.125000
G01 X121.264921 Y152.481507 Z-0.125000
G01 X119.480903 Y154.063521 Z-0.125000
G01 X117.529170 Y155.258718 Z-0.125000
G01 X115.056739 Y156.265826 Z-0.125000
G01 X112.142192 Y157.035641 Z-0.125000
G01 X103.364444 Y158.242206 Z-0.125000
G01 X91.173732 Y158.965636 Z-0.125000
G01 X83.402092 Y158.821932 Z-0.125000
G01 X77.891692 Y157.959983 Z-0.125000
G01 X73.847888 Y156.278832 Z-0.125000
G01 X72.274060 Y155.077906 Z-0.125000
G01 X70.961900 Y153.622951 Z-0.125000
G01 X68.857369 Y149.965056 Z-0.125000
G01 X66.815321 Y144.559796 Z-0.125000
G01 X65.522079 Y139.355631 Z-0.125000
G01 X65.017570 Y134.515363 Z-0.125000
G01 X65.298520 Y130.574426 Z-0.125000
G01 X66.276978 Y127.043135 Z-0.125000
G01 X67.978684 Y123.783972 Z-0.125000
G01 X70.353524 Y120.822130 Z-0.125000
G01 X72.957562 Y118.433375 Z-0.125000
G01 X76.093304 Y116.182866 Z-0.125000
G01 X91.084873 Y108.007036 Z-0.125000
G01 X106.375218 Y97.532037 Z-0.125000
G01 X111.776112 Y94.482791 Z-0.125000
G01 X115.859297 Y93.089047 Z-0.125000
G01 X119.676449 Y92.749524 Z-0.125000
G01 X123.368815 Y93.458402 Z-0.125000
G01 X126.820250 Y95.147830 Z-0.125000
G01 X129.410828 Y97.119753 Z-0.125000
G01 X131.806313 Y99.509600 Z-0.125000
G01 X133.802885 Y102.107908 Z-0.125000
G01 X135.298677 Y104.751329 Z-0.125000
G01 X136.405468 Y107.606848 Z-0.125000
G01 X137.064777 Y110.462186 Z-0.125000
G01 X137.348182 Y113.488786 Z-0.125000
G01 X137.233129 Y116.896291 Z-0.125000
G01 X136.703790 Y120.437586 Z-0.125000
G01 X135.731061 Y124.313493 Z-0.125000
G01 X132.331378 Y133.355547 Z-0.125000
G01 X125.523006 Y147.330276 Z-0.125000
G01 X123.230114 Y151.139788 Z-0.125000
G01 X121.115396 Y153.776023 Z-0.125000
G01 X119.277080 Y155.340938 Z-0.125000
G01 X117.260681 Y156.494387 Z-0.125000
G01 X114.883840 Y157.379620 Z-0.125000
G01 X111.887618 Y158.081222 Z-0.125000
G01 X102.523140 Y159.122437 Z-0.125000
G01 X88.920404 Y159.693250 Z-0.125000
G01 X81.271275 Y159.416211 Z-0.125000
G01 X75.962515 Y158.465129 Z-0.125000
G01 X72.105800 Y156.743049 Z-0.125000
G01 X69.354420 Y154.102540 Z-0.125000
G01 X67.263895 Y150.348963 Z-0.125000
G01 X65.209933 Y144.752068 Z-0.125000
G01 X63.911142 Y139.341442 Z-0.125000
G01 X63.441286 Y134.527096 Z-0.125000
G01 X63.722963 Y130.645914 Z-0.125000
G01 X64.737529 Y126.989474 Z-0.125000
G01 X66.521911 Y123.624898 Z-0.125000
G01 X69.026357 Y120.574742 Z-0.125000
G01 X71.778646 Y118.117954 Z-0.125000
G01 X75.090107 Y115.807963 Z-0.125000
G01 X91.433309 Y107.299795 Z-0.125000
G01 X96.647206 Y103.985879 Z-0.125000
G01 X107.364136 Y96.530568 Z-0.125000
G01 X112.650976 Y93.598922 Z-0.125000
G01 X116.600281 Y92.278758 Z-0.125000
G01 X120.508202 Y91.955152 Z-0.125000
G01 X124.300888 Y92.726241 Z-0.125000
G01 X127.855008 Y94.520718 Z-0.125000
G01 X130.355452 Y96.450076 Z-0.125000
G01 X132.840161 Y98.938242 Z-0.125000
G01 X134.904219 Y101.626774 Z-0.125000
G01 X136.444395 Y104.351687 Z-0.125000
G01 X137.575744 Y107.289700 Z-0.125000
G01 X138.237235 Y110.224984 Z-0.125000
G01 X138.500631 Y113.335259 Z-0.125000
G01 X138.337555 Y116.836354 Z-0.125000
G01 X137.732908 Y120.474786 Z-0.125000
G01 X136.731712 Y124.205624 Z-0.125000
G01 X133.277366 Y133.004474 Z-0.125000
G01 X125.462251 Y148.572040 Z-0.125000
G01 X123.099871 Y152.452858 Z-0.125000
G01 X121.043089 Y154.987682 Z-0.125000
G01 X119.304911 Y156.460280 Z-0.125000
G01 X117.272687 Y157.606636 Z-0.125000
G01 X114.870561 Y158.457125 Z-0.125000
G01 X111.828318 Y159.096516 Z-0.125000
G01 X101.933319 Y159.956100 Z-0.125000
G01 X86.870262 Y160.354196 Z-0.125000
G01 X79.604403 Y160.003213 Z-0.125000
G01 X74.400602 Y159.033304 Z-0.125000
G01 X70.613464 Y157.338874 Z-0.125000
G01 X69.132134 Y156.165051 Z-0.125000
G01 X67.810696 Y154.649978 Z-0.125000
G01 X65.655050 Y150.685211 Z-0.125000
G01 X63.591174 Y144.889860 Z-0.125000
G01 X62.289110 Y139.265407 Z-0.125000
G01 X61.853451 Y134.271704 Z-0.125000
G01 X62.206616 Y130.265099 Z-0.125000
G01 X63.259837 Y126.701248 Z-0.125000
G01 X65.047948 Y123.421348 Z-0.125000
G01 X67.683819 Y120.283969 Z-0.125000
G01 X70.589271 Y117.760332 Z-0.125000
G01 X74.085090 Y115.390586 Z-0.125000
G01 X91.863510 Y106.569726 Z-0.125000
G01 X97.245395 Y103.229252 Z-0.125000
G01 X108.201255 Y95.679715 Z-0.125000
G01 X113.582776 Y92.736700 Z-0.125000
G01 X117.607207 Y91.451643 Z-0.125000
G01 X121.598077 Y91.210894 Z-0.125000
G01 X125.479168 Y92.112226 Z-0.125000
G01 X129.117326 Y94.069506 Z-0.125000
G01 X131.840420 Y96.284817 Z-0.125000
G01 X134.334043 Y98.910865 Z-0.125000
G01 X136.269041 Y101.548828 Z-0.125000
G01 X137.799940 Y104.384338 Z-0.125000
G01 X138.897363 Y107.434404 Z-0.125000
G01 X139.502555 Y110.476192 Z-0.125000
G01 X139.684823 Y113.693791 Z-0.125000
G01 X139.441436 Y117.063187 Z-0.125000
G01 X138.789949 Y120.552095 Z-0.125000
G01 X137.684158 Y124.380252 Z-0.125000
G01 X134.160780 Y132.897151 Z-0.125000
G01 X125.144829 Y150.237365 Z-0.125000
G01 X122.824015 Y153.956198 Z-0.125000
G01 X120.819075 Y156.348956 Z-0.125000
G01 X119.032329 Y157.792632 Z-0.125000
G01 X116.937984 Y158.881051 Z-0.125000
G01 X114.455367 Y159.649411 Z-0.125000
G01 X111.529087 Y160.155739 Z-0.125000
G01 X101.321305 Y160.766571 Z-0.125000
G01 X84.417567 Y160.944563 Z-0.125000
G01 X77.356805 Y160.473069 Z-0.125000
G01 X72.398937 Y159.423942 Z-0.125000
G01 X68.822443 Y157.700862 Z-0.125000
G01 X66.166744 Y155.036250 Z-0.125000
G01 X64.033018 Y150.971709 Z-0.125000
G01 X61.903020 Y144.765529 Z-0.125000
G01 X60.658164 Y139.124432 Z-0.125000
G01 X60.260523 Y133.947006 Z-0.125000
G01 X60.690088 Y129.814252 Z-0.125000
G01 X61.861000 Y126.159449 Z-0.125000
G01 X63.811550 Y122.814245 Z-0.125000
G01 X66.491806 Y119.786918 Z-0.125000
G01 X69.582981 Y117.214531 Z-0.125000
G01 X73.291719 Y114.803674 Z-0.125000
G01 X77.293139 Y112.742527 Z-0.125000
G01 X87.505378 Y108.303083 Z-0.125000
G01 X92.377478 Y105.817283 Z-0.125000
G01 X98.162279 Y102.304728 Z-0.125000
G01 X109.331785 Y94.696618 Z-0.125000
G01 X114.798800 Y91.804809 Z-0.125000
G01 X118.893082 Y90.620254 Z-0.125000
G01 X122.736246 Y90.511203 Z-0.125000
G01 X126.487822 Y91.464468 Z-0.125000
G01 X130.226573 Y93.538894 Z-0.125000
G01 X133.026249 Y95.869167 Z-0.125000
G01 X135.581082 Y98.611452 Z-0.125000
G01 X137.552733 Y101.350099 Z-0.125000
G01 X139.099730 Y104.283564 Z-0.125000
G01 X140.189877 Y107.432221 Z-0.125000
G01 X140.764328 Y110.567872 Z-0.125000
G01 X140.890751 Y113.881060 Z-0.125000
G01 X140.565781 Y117.346684 Z-0.125000
G01 X138.755296 Y124.331502 Z-0.125000
G01 X135.091853 Y132.795740 Z-0.125000
G01 X124.774201 Y151.954260 Z-0.125000
G01 X122.503319 Y155.499558 Z-0.125000
G01 X120.556680 Y157.741517 Z-0.125000
G01 X118.722002 Y159.147721 Z-0.125000
G01 X116.732524 Y160.106625 Z-0.125000
G01 X114.200429 Y160.803861 Z-0.125000
G01 X111.205299 Y161.217964 Z-0.125000
G01 X101.318849 Y161.547664 Z-0.125000
G01 X81.551588 Y161.444525 Z-0.125000
G01 X75.058546 Y160.870165 Z-0.125000
G01 X70.368622 Y159.748366 Z-0.125000
G01 X67.013050 Y158.005004 Z-0.125000
G01 X64.508058 Y155.372043 Z-0.125000
G01 X62.334404 Y151.043925 Z-0.125000
G01 X60.263070 Y144.778717 Z-0.125000
G01 X59.020306 Y138.915789 Z-0.125000
G01 X58.660046 Y133.780656 Z-0.125000
G01 X59.082062 Y129.725938 Z-0.125000
G01 X60.285898 Y125.946895 Z-0.125000
G01 X62.316122 Y122.502372 Z-0.125000
G01 X65.126166 Y119.396462 Z-0.125000
G01 X69.003619 Y116.326388 Z-0.125000
G01 X73.667804 Y113.548359 Z-0.125000
G01 X87.925302 Y107.512349 Z-0.125000
G01 X94.229437 Y104.357235 Z-0.125000
G01 X99.415321 Y101.209033 Z-0.125000
G01 X110.301875 Y93.870777 Z-0.125000
G01 X115.847110 Y90.995521 Z-0.125000
G01 X120.006877 Y89.868902 Z-0.125000
G01 X123.921983 Y89.859079 Z-0.125000
G01 X127.752687 Y90.953046 Z-0.125000
G01 X131.572386 Y93.205101 Z-0.125000
G01 X134.246093 Y95.504542 Z-0.125000
G01 X136.861955 Y98.366064 Z-0.125000
G01 X138.869895 Y101.207214 Z-0.125000
G01 X140.431991 Y104.239907 Z-0.125000
G01 X141.457016 Y107.264779 Z-0.125000
G01 X142.031649 Y110.481468 Z-0.125000
G01 X142.133060 Y113.878150 Z-0.125000
G01 X141.755884 Y117.429632 Z-0.125000
G01 X139.867999 Y124.312765 Z-0.125000
G01 X136.214742 Y132.433934 Z-0.125000
G01 X124.352276 Y153.720179 Z-0.125000
G01 X122.250382 Y156.931774 Z-0.125000
G01 X120.256812 Y159.163911 Z-0.125000
G01 X118.519089 Y160.440509 Z-0.125000
G01 X116.498233 Y161.353027 Z-0.125000
G01 X111.325992 Y162.252721 Z-0.125000
G01 X103.822022 Y162.365320 Z-0.125000
G01 X79.244326 Y161.891461 Z-0.125000
G01 X72.983665 Y161.237700 Z-0.125000
G01 X68.515026 Y160.081704 Z-0.125000
G01 X65.322622 Y158.353713 Z-0.125000
G01 X62.917222 Y155.777142 Z-0.125000
G01 X60.756937 Y151.387722 Z-0.125000
G01 X58.615752 Y144.729785 Z-0.125000
G01 X57.377718 Y138.636931 Z-0.125000
G01 X57.060387 Y133.316620 Z-0.125000
G01 X57.560531 Y129.138845 Z-0.125000
G01 X58.889244 Y125.269759 Z-0.125000
G01 X60.947572 Y121.950568 Z-0.125000
G01 X63.929787 Y118.786995 Z-0.125000
G01 X68.042441 Y115.667443 Z-0.125000
G01 X73.223050 Y112.727702 Z-0.125000
G01 X88.432175 Y106.690510 Z-0.125000
G01 X94.953048 Y103.564682 Z-0.125000
G01 X100.521748 Y100.260316 Z-0.125000
G01 X111.570561 Y92.918785 Z-0.125000
G01 X116.950809 Y90.216156 Z-0.125000
G01 X121.171149 Y89.157842 Z-0.125000
G01 X125.154743 Y89.257252 Z-0.125000
G01 X129.062483 Y90.501198 Z-0.125000
G01 X132.961218 Y92.938249 Z-0.125000
G01 X135.681856 Y95.374936 Z-0.125000
G01 X138.326459 Y98.367247 Z-0.125000
G01 X140.339857 Y101.324087 Z-0.125000
G01 X141.884126 Y104.471197 Z-0.125000
G01 X142.867495 Y107.603665 Z-0.125000
G01 X143.373551 Y110.928768 Z-0.125000
G01 X143.394742 Y114.177563 Z-0.125000
G01 X142.929070 Y117.824180 Z-0.125000
G01 X140.917491 Y124.601628 Z-0.125000
G01 X137.264325 Y132.348803 Z-0.125000
G01 X123.881055 Y155.531936 Z-0.125000
G01 X121.845101 Y158.549441 Z-0.125000
G01 X120.047441 Y160.503084 Z-0.125000
G01 X118.285707 Y161.759672 Z-0.125000
G01 X116.405371 Y162.566687 Z-0.125000
G01 X111.433406 Y163.317948 Z-0.125000
G01 X76.544333 Y162.241352 Z-0.125000
G01 X70.871858 Y161.538660 Z-0.125000
G01 X66.639329 Y160.355287 Z-0.125000
G01 X63.483033 Y158.541983 Z-0.125000
G01 X61.234434 Y156.010251 Z-0.125000
G01 X59.042680 Y151.341519 Z-0.125000
G01 X56.904951 Y144.385351 Z-0.125000
G01 X55.732584 Y138.285493 Z-0.125000
G01 X55.453089 Y133.022118 Z-0.125000
G01 X55.990432 Y128.704823 Z-0.125000
G01 X57.296589 Y124.937422 Z-0.125000
G01 X59.427860 Y121.523641 Z-0.125000
G01 X62.540682 Y118.285396 Z-0.125000
G01 X67.092360 Y114.951653 Z-0.125000
G01 X72.827592 Y111.851473 Z-0.125000
G01 X77.052390 Y110.097197 Z-0.125000
G01 X88.754508 Y105.946343 Z-0.125000
G01 X95.497849 Y102.891366 Z-0.125000
G01 X101.465372 Y99.464124 Z-0.125000
G01 X112.670803 Y92.128415 Z-0.125000
G01 X118.109260 Y89.468896 Z-0.125000
G01 X122.384991 Y88.489710 Z-0.125000
G01 X126.433797 Y88.708267 Z-0.125000
G01 X130.416390 Y90.111379 Z-0.125000
G01 X134.392252 Y92.740611 Z-0.125000
G01 X137.157457 Y95.315999 Z-0.125000
G01 X139.827617 Y98.440190 Z-0.125000
G01 X141.843379 Y101.513812 Z-0.125000
G01 X143.280325 Y104.552508 Z-0.125000
G01 X144.252053 Y107.779838 Z-0.125000
G01 X144.720727 Y111.200532 Z-0.125000
G01 X144.681800 Y114.538277 Z-0.125000
G01 X144.123357 Y118.279666 Z-0.125000
G01 X141.996906 Y124.936330 Z-0.125000
G01 X138.374936 Y132.280316 Z-0.125000
G01 X123.362358 Y157.386078 Z-0.125000
G01 X121.397346 Y160.199669 Z-0.125000
G01 X119.677631 Y161.982777 Z-0.125000
G01 X118.022583 Y163.104393 Z-0.125000
G01 X116.287407 Y163.808632 Z-0.125000
G01 X114.091651 Y164.254023 Z-0.125000
G01 X111.294068 Y164.418645 Z-0.125000
G01 X74.111194 Y162.535581 Z-0.125000
G01 X68.728308 Y161.771132 Z-0.125000
G01 X64.744987 Y160.567750 Z-0.125000
G01 X61.765410 Y158.779913 Z-0.125000
G01 X59.622224 Y156.314121 Z-0.125000
G01 X57.452207 Y151.584087 Z-0.125000
G01 X55.248993 Y144.197263 Z-0.125000
G01 X54.087176 Y137.859385 Z-0.125000
G01 X53.855068 Y132.409741 Z-0.125000
G01 X54.476904 Y127.966022 Z-0.125000
G01 X55.908120 Y124.115218 Z-0.125000
G01 X58.210108 Y120.649959 Z-0.125000
G01 X61.340847 Y117.553326 Z-0.125000
G01 X66.402764 Y114.028220 Z-0.125000
G01 X72.482340 Y110.918581 Z-0.125000
G01 X76.932242 Y109.179312 Z-0.125000
G01 X89.146146 Y105.165341 Z-0.125000
G01 X96.387175 Y102.061523 Z-0.125000
G01 X102.489488 Y98.662840 Z-0.125000
G01 X114.072187 Y91.220535 Z-0.125000
G01 X119.560668 Y88.676525 Z-0.125000
G01 X123.889059 Y87.853776 Z-0.125000
G01 X127.999439 Y88.273427 Z-0.125000
G01 X132.047245 Y89.914469 Z-0.125000
G01 X136.077223 Y92.797547 Z-0.125000
G01 X139.039156 Y95.730375 Z-0.125000
G01 X141.514134 Y98.793719 Z-0.125000
G01 X143.495790 Y101.996493 Z-0.125000
G01 X144.875709 Y105.157246 Z-0.125000
G01 X145.761215 Y108.508270 Z-0.125000
G01 X146.105194 Y111.792809 Z-0.125000
G01 X145.965765 Y115.230783 Z-0.125000
G01 X145.338744 Y118.797000 Z-0.125000
G01 X143.231666 Y125.031193 Z-0.125000
G01 X139.550123 Y132.231566 Z-0.125000
G01 X129.337793 Y148.346116 Z-0.125000
G01 X122.798002 Y159.278874 Z-0.125000
G01 X121.028446 Y161.735843 Z-0.125000
G01 X119.404503 Y163.380159 Z-0.125000
G01 X117.878334 Y164.398454 Z-0.125000
G01 X116.144249 Y165.079227 Z-0.125000
G01 X111.601666 Y165.548720 Z-0.125000
G01 X93.524379 Y164.072938 Z-0.125000
G01 X71.302514 Y162.716029 Z-0.125000
G01 X66.294804 Y161.871088 Z-0.125000
G01 X62.638637 Y160.626960 Z-0.125000
G01 X59.907812 Y158.848126 Z-0.125000
G01 X57.923792 Y156.440271 Z-0.125000
G01 X55.730855 Y151.413462 Z-0.125000
G01 X53.534372 Y143.689934 Z-0.125000
G01 X52.443679 Y137.356967 Z-0.125000
G01 X52.262685 Y131.716325 Z-0.125000
G01 X52.909625 Y127.389571 Z-0.125000
G01 X54.417786 Y123.433353 Z-0.125000
G01 X56.843286 Y119.896788 Z-0.125000
G01 X60.145287 Y116.755498 Z-0.125000
G01 X65.488245 Y113.192192 Z-0.125000
G01 X72.188293 Y109.928390 Z-0.125000
G01 X77.164624 Y108.112540 Z-0.125000
G01 X89.901045 Y104.245819 Z-0.125000
G01 X97.363541 Y101.215036 Z-0.125000
G01 X103.593733 Y97.858008 Z-0.125000
G01 X115.297579 Y90.476277 Z-0.125000
G01 X120.827625 Y88.005029 Z-0.125000
G01 X125.202038 Y87.285510 Z-0.125000
G01 X129.371991 Y87.846773 Z-0.125000
G01 X133.490921 Y89.666443 Z-0.125000
G01 X137.807761 Y92.951073 Z-0.125000
G01 X140.776789 Y96.043431 Z-0.125000
G01 X143.233940 Y99.237837 Z-0.125000
G01 X145.061978 Y102.342928 Z-0.125000
G01 X146.412884 Y105.614096 Z-0.125000
G01 X147.200980 Y108.822054 Z-0.125000
G01 X147.503667 Y112.196544 Z-0.125000
G01 X147.296570 Y115.723742 Z-0.125000
G01 X146.574869 Y119.377090 Z-0.125000
G01 X144.383478 Y125.455755 Z-0.125000
G01 X140.615622 Y132.498509 Z-0.125000
G01 X129.344069 Y149.473280 Z-0.125000
G01 X122.188990 Y161.205594 Z-0.125000
G01 X120.502018 Y163.444643 Z-0.125000
G01 X118.968299 Y164.911058 Z-0.125000
G01 X117.409478 Y165.867688 Z-0.125000
G01 X115.806454 Y166.420947 Z-0.125000
G01 X111.659057 Y166.718450 Z-0.125000
G01 X93.062890 Y164.639021 Z-0.125000
G01 X68.781333 Y162.848364 Z-0.125000
G01 X64.107507 Y161.956219 Z-0.125000
G01 X60.719829 Y160.709453 Z-0.125000
G01 X58.173727 Y158.971821 Z-0.125000
G01 X56.298303 Y156.639364 Z-0.125000
G01 X54.072533 Y151.361983 Z-0.125000
G01 X51.878505 Y143.354868 Z-0.125000
G01 X50.804184 Y136.776605 Z-0.125000
G01 X50.678307 Y130.940507 Z-0.125000
G01 X51.412105 Y126.492059 Z-0.125000
G01 X53.052783 Y122.454713 Z-0.125000
G01 X55.658913 Y118.874127 Z-0.125000
G01 X59.185292 Y115.714556 Z-0.125000
G01 X64.864043 Y112.143883 Z-0.125000
G01 X71.946088 Y108.880445 Z-0.125000
G01 X77.174447 Y107.087878 Z-0.125000
G01 X90.746623 Y103.296374 Z-0.125000
G01 X98.140178 Y100.482147 Z-0.125000
G01 X104.777105 Y97.050903 Z-0.125000
G01 X116.824113 Y89.625879 Z-0.125000
G01 X119.722016 Y88.225132 Z-0.125000
G01 X122.388902 Y87.306520 Z-0.125000
G01 X126.808699 Y86.773816 Z-0.125000
G01 X129.044292 Y87.027935 Z-0.125000
G01 X131.285069 Y87.650772 Z-0.125000
G01 X135.697409 Y89.964401 Z-0.125000
G01 X140.007519 Y93.626117 Z-0.125000
G01 X142.906150 Y96.885826 Z-0.125000
G01 X145.127918 Y99.999011 Z-0.125000
G01 X146.878102 Y103.237347 Z-0.125000
G01 X148.049650 Y106.396554 Z-0.125000
G01 X148.743339 Y109.721202 Z-0.125000
G01 X148.921513 Y113.210928 Z-0.125000
G01 X148.607548 Y116.564135 Z-0.125000
G01 X147.746417 Y120.312073 Z-0.125000
G01 X145.426331 Y126.228208 Z-0.125000
G01 X141.731236 Y132.800742 Z-0.125000
G01 X129.505963 Y150.363970 Z-0.125000
G01 X121.658741 Y162.985337 Z-0.125000
G01 X120.062175 Y165.038754 Z-0.125000
G01 X118.499261 Y166.462421 Z-0.125000
G01 X115.613909 Y167.745476 Z-0.125000
G01 X111.696529 Y167.926743 Z-0.125000
G01 X92.208399 Y165.139346 Z-0.125000
G01 X66.230774 Y162.899752 Z-0.125000
G01 X61.906749 Y161.968770 Z-0.125000
G01 X58.793745 Y160.728280 Z-0.125000
G01 X56.435004 Y159.039398 Z-0.125000
G01 X54.593141 Y156.655918 Z-0.125000
G01 X52.290062 Y150.853927 Z-0.125000
G01 X50.057834 Y142.125747 Z-0.125000
G01 X49.101022 Y135.243705 Z-0.125000
G01 X49.186062 Y129.246713 Z-0.125000
G01 X50.170159 Y124.748151 Z-0.125000
G01 X52.125894 Y120.719719 Z-0.125000
G01 X55.095558 Y117.184426 Z-0.125000
G01 X59.266148 Y113.912348 Z-0.125000
G01 X65.481151 Y110.440266 Z-0.125000
G01 X72.720906 Y107.424308 Z-0.125000
G01 X77.889873 Y105.832835 Z-0.125000
G01 X91.369188 Y102.410505 Z-0.125000
G01 X98.989030 Y99.726702 Z-0.125000
G01 X105.768297 Y96.395505 Z-0.125000
G01 X118.410129 Y88.811952 Z-0.125000
G01 X121.562514 Y87.397744 Z-0.125000
G01 X124.493979 Y86.562171 Z-0.125000
G01 X126.967046 Y86.290953 Z-0.125000
G01 X129.469673 Y86.456849 Z-0.125000
G01 X131.992037 Y87.087417 Z-0.125000
G01 X134.511217 Y88.183931 Z-0.125000
G01 X136.990288 Y89.716467 Z-0.125000
G01 X139.378133 Y91.617175 Z-0.125000
G01 X144.359467 Y96.943944 Z-0.125000
G01 X146.475549 Y99.933162 Z-0.125000
G01 X148.170434 Y103.020518 Z-0.125000
G01 X149.336071 Y105.994184 Z-0.125000
G01 X150.083967 Y109.106005 Z-0.125000
G01 X150.380015 Y112.359893 Z-0.125000
G01 X150.198748 Y115.746116 Z-0.125000
G01 X149.603924 Y118.948525 Z-0.125000
G01 X148.495314 Y122.522927 Z-0.125000
G01 X146.003510 Y127.974117 Z-0.125000
G01 X142.496958 Y133.745366 Z-0.125000
G01 X129.473130 Y151.555619 Z-0.125000
G01 X121.090657 Y164.796095 Z-0.125000
G01 X119.589954 Y166.659240 Z-0.125000
G01 X117.998663 Y168.031792 Z-0.125000
G01 X115.397263 Y169.098656 Z-0.125000
G01 X111.932003 Y169.196156 Z-0.125000
G01 X90.928254 Y165.546082 Z-0.125000
G01 X63.977810 Y162.924309 Z-0.125000
G01 X59.950923 Y161.988416 Z-0.125000
G01 X56.864114 Y160.683077 Z-0.125000
G01 X54.694006 Y159.050585 Z-0.125000
G01 X52.962650 Y156.748597 Z-0.125000
G01 X51.851402 Y154.311456 Z-0.125000
G01 X50.574804 Y150.461652 Z-0.125000
G01 X48.357492 Y141.328191 Z-0.125000
G01 X47.465074 Y134.171020 Z-0.125000
G01 X47.637973 Y128.277714 Z-0.125000
G01 X48.819527 Y123.408433 Z-0.125000
G01 X50.988452 Y119.343801 Z-0.125000
G01 X54.220148 Y115.810146 Z-0.125000
G01 X58.706886 Y112.560714 Z-0.125000
G01 X65.329170 Y109.121467 Z-0.125000
G01 X72.970477 Y106.150711 Z-0.125000
G01 X78.384650 Y104.621359 Z-0.125000
G01 X92.061876 Y101.485890 Z-0.125000
G01 X99.909643 Y98.948064 Z-0.125000
G01 X107.103286 Y95.585580 Z-0.125000
G01 X120.052716 Y88.038499 Z-0.125000
G01 X123.213924 Y86.721791 Z-0.125000
G01 X126.161669 Y86.003455 Z-0.125000
G01 X128.907410 Y85.860024 Z-0.125000
G01 X131.441051 Y86.210006 Z-0.125000
G01 X133.997795 Y87.040759 Z-0.125000
G01 X136.803928 Y88.500715 Z-0.125000
G01 X139.546212 Y90.474731 Z-0.125000
G01 X142.144429 Y92.842022 Z-0.125000
G01 X144.897537 Y95.881810 Z-0.125000
G01 X147.216897 Y98.955522 Z-0.125000
G01 X148.974538 Y101.852516 Z-0.125000
G01 X150.347454 Y104.850739 Z-0.125000
G01 X151.302720 Y107.978113 Z-0.125000
G01 X151.778852 Y110.968969 Z-0.125000
G01 X151.845520 Y114.076515 Z-0.125000
G01 X151.485533 Y117.288748 Z-0.125000
G01 X150.694344 Y120.586383 Z-0.125000
G01 X149.483231 Y123.944957 Z-0.125000
G01 X147.033902 Y128.885180 Z-0.125000
G01 X143.482329 Y134.439419 Z-0.125000
G01 X129.417740 Y152.781102 Z-0.125000
G01 X120.486556 Y166.634138 Z-0.125000
G01 X118.956657 Y168.433981 Z-0.125000
G01 X117.467778 Y169.616353 Z-0.125000
G01 X114.986979 Y170.507771 Z-0.125000
G01 X111.922089 Y170.491399 Z-0.125000
G01 X97.708794 Y167.331646 Z-0.125000
G01 X90.463673 Y166.020941 Z-0.125000
G01 X82.176790 Y164.976816 Z-0.125000
G01 X66.579392 Y163.578615 Z-0.125000
G01 X61.391234 Y162.816531 Z-0.125000
G01 X57.735704 Y161.859446 Z-0.125000
G01 X54.934573 Y160.573571 Z-0.125000
G01 X52.953463 Y159.005291 Z-0.125000
G01 X51.332522 Y156.788616 Z-0.125000
G01 X50.242102 Y154.331192 Z-0.125000
G01 X48.989788 Y150.426727 Z-0.125000
G01 X46.719088 Y140.734277 Z-0.125000
G01 X45.859776 Y133.307616 Z-0.125000
G01 X46.105164 Y127.223311 Z-0.125000
G01 X47.401135 Y122.234064 Z-0.125000
G01 X49.728407 Y118.107131 Z-0.125000
G01 X53.168928 Y114.552920 Z-0.125000
G01 X57.924883 Y111.309128 Z-0.125000
G01 X64.918614 Y107.885797 Z-0.125000
G01 X73.306726 Y104.824090 Z-0.125000
G01 X78.968105 Y103.363224 Z-0.125000
G01 X93.493092 Y100.360544 Z-0.125000
G01 X101.209707 Y98.032999 Z-0.125000
G01 X108.513674 Y94.777656 Z-0.125000
G01 X121.505943 Y87.422756 Z-0.125000
G01 X124.670334 Y86.175717 Z-0.125000
G01 X127.627992 Y85.538964 Z-0.125000
G01 X130.391196 Y85.487122 Z-0.125000
G01 X133.206515 Y86.007184 Z-0.125000
G01 X135.796456 Y86.998739 Z-0.125000
G01 X138.640788 Y88.644055 Z-0.125000
G01 X141.662385 Y91.016985 Z-0.125000
G01 X144.484526 Y93.811021 Z-0.125000
G01 X147.348777 Y97.233443 Z-0.125000
G01 X149.540167 Y100.431578 Z-0.125000
G01 X151.161290 Y103.457177 Z-0.125000
G01 X152.285271 Y106.328249 Z-0.125000
G01 X153.031803 Y109.311738 Z-0.125000
G01 X153.369052 Y112.413918 Z-0.125000
G01 X153.270733 Y115.629152 Z-0.125000
G01 X152.790144 Y118.637652 Z-0.125000
G01 X151.829785 Y122.020692 Z-0.125000
G01 X150.432312 Y125.455119 Z-0.125000
G01 X147.884937 Y130.171510 Z-0.125000
G01 X144.499260 Y135.181494 Z-0.125000
G01 X129.340977 Y154.039419 Z-0.125000
G01 X119.847893 Y168.495373 Z-0.125000
G01 X118.421770 Y170.095850 Z-0.125000
G01 X116.908152 Y171.213101 Z-0.125000
G01 X114.724311 Y171.913338 Z-0.125000
G01 X111.888255 Y171.827844 Z-0.125000
G01 X97.382914 Y168.027245 Z-0.125000
G01 X89.575802 Y166.401392 Z-0.125000
G01 X80.612694 Y165.130251 Z-0.125000
G01 X64.285954 Y163.527409 Z-0.125000
G01 X59.111075 Y162.692473 Z-0.125000
G01 X55.768691 Y161.747939 Z-0.125000
G01 X53.008944 Y160.400035 Z-0.125000
G01 X51.095593 Y158.772455 Z-0.125000
G01 X49.632726 Y156.641092 Z-0.125000
G01 X48.521842 Y153.972570 Z-0.125000
G01 X47.226417 Y149.673010 Z-0.125000
G01 X45.038665 Y139.754181 Z-0.125000
G01 X44.257935 Y132.039385 Z-0.125000
G01 X44.637840 Y125.783182 Z-0.125000
G01 X46.004208 Y120.974292 Z-0.125000
G01 X48.494283 Y116.788331 Z-0.125000
G01 X52.148541 Y113.219387 Z-0.125000
G01 X57.489861 Y109.821977 Z-0.125000
G01 X65.269142 Y106.305238 Z-0.125000
G01 X73.730288 Y103.445626 Z-0.125000
G01 X79.640602 Y102.059613 Z-0.125000
G01 X94.689289 Y99.296228 Z-0.125000
G01 X102.593082 Y97.106111 Z-0.125000
G01 X109.997278 Y93.973279 Z-0.125000
G01 X123.010011 Y86.842029 Z-0.125000
G01 X126.172856 Y85.672845 Z-0.125000
G01 X129.136699 Y85.124679 Z-0.125000
G01 X131.914728 Y85.170974 Z-0.125000
G01 X134.754968 Y85.805635 Z-0.125000
G01 X137.638591 Y87.053219 Z-0.125000
G01 X140.520487 Y88.889352 Z-0.125000
G01 X143.575463 Y91.461375 Z-0.125000
G01 X146.631622 Y94.673516 Z-0.125000
G01 X149.617021 Y98.477207 Z-0.125000
G01 X151.845247 Y102.057430 Z-0.125000
G01 X153.207067 Y104.948694 Z-0.125000
G01 X154.196803 Y107.940368 Z-0.125000
G01 X154.779894 Y111.047005 Z-0.125000
G01 X154.929328 Y113.972830 Z-0.125000
G01 X154.696492 Y116.988243 Z-0.125000
G01 X154.071199 Y120.079600 Z-0.125000
G01 X153.054632 Y123.228075 Z-0.125000
G01 X151.501177 Y126.732081 Z-0.125000
G01 X148.924151 Y131.208723 Z-0.125000
G01 X145.790046 Y135.656534 Z-0.125000
G01 X130.146718 Y154.171390 Z-0.125000
G01 X125.985314 Y159.847868 Z-0.125000
G01 X119.696731 Y169.702302 Z-0.125000
G01 X118.126359 Y171.529340 Z-0.125000
G01 X116.467036 Y172.746547 Z-0.125000
G01 X114.097381 Y173.373931 Z-0.125000
G01 X111.198204 Y173.080885 Z-0.125000
G01 X96.275213 Y168.508379 Z-0.125000
G01 X85.974388 Y166.242954 Z-0.125000
G01 X77.616563 Y165.051214 Z-0.125000
G01 X62.350593 Y163.456012 Z-0.125000
G01 X56.826096 Y162.496381 Z-0.125000
G01 X53.801588 Y161.573221 Z-0.125000
G01 X51.266764 Y160.282799 Z-0.125000
G01 X49.483565 Y158.747079 Z-0.125000
G01 X48.010420 Y156.575425 Z-0.125000
G01 X46.869522 Y153.718178 Z-0.125000
G01 X45.534988 Y149.055994 Z-0.125000
G01 X43.372702 Y138.674767 Z-0.125000
G01 X42.684380 Y131.000808 Z-0.125000
G01 X43.147415 Y124.549331 Z-0.125000
G01 X44.630837 Y119.629208 Z-0.125000
G01 X45.885425 Y117.296751 Z-0.125000
G01 X47.287718 Y115.387766 Z-0.125000
G01 X51.160442 Y111.809635 Z-0.125000
G01 X56.799720 Y108.433690 Z-0.125000
G01 X64.985919 Y104.948967 Z-0.125000
G01 X74.241254 Y102.016684 Z-0.125000
G01 X80.401868 Y100.711891 Z-0.125000
G01 X95.973617 Y98.207445 Z-0.125000
G01 X104.057768 Y96.169217 Z-0.125000
G01 X111.551825 Y93.174087 Z-0.125000
G01 X124.562647 Y86.298047 Z-0.125000
G01 X127.719399 Y85.214631 Z-0.125000
G01 X130.685880 Y84.762419 Z-0.125000
G01 X133.733580 Y84.955873 Z-0.125000
G01 X136.602924 Y85.767799 Z-0.125000
G01 X139.522383 Y87.206655 Z-0.125000
G01 X142.440932 Y89.238243 Z-0.125000
G01 X145.774948 Y92.260022 Z-0.125000
G01 X149.019923 Y95.914916 Z-0.125000
G01 X151.719097 Y99.585454 Z-0.125000
G01 X153.862556 Y103.295829 Z-0.125000
G01 X155.136243 Y106.295779 Z-0.125000
G01 X155.950897 Y109.112826 Z-0.125000
G01 X156.409203 Y112.025100 Z-0.125000
G01 X156.485148 Y115.032691 Z-0.125000
G01 X156.158995 Y118.127322 Z-0.125000
G01 X155.421104 Y121.293442 Z-0.125000
G01 X154.273657 Y124.510949 Z-0.125000
G01 X152.732572 Y127.756924 Z-0.125000
G01 X150.191836 Y131.981631 Z-0.125000
G01 X146.886924 Y136.491653 Z-0.125000
G01 X129.835026 Y155.773140 Z-0.125000
G01 X125.532647 Y161.509282 Z-0.125000
G01 X119.265984 Y171.272038 Z-0.125000
G01 X117.675875 Y173.110990 Z-0.125000
G01 X116.003365 Y174.299638 Z-0.125000
G01 X113.793420 Y174.825612 Z-0.125000
G01 X111.128626 Y174.483906 Z-0.125000
G01 X96.341972 Y169.298568 Z-0.125000
G01 X85.471152 Y166.564469 Z-0.125000
G01 X76.437556 Y165.119792 Z-0.125000
G01 X60.017500 Y163.269380 Z-0.125000
G01 X54.844713 Y162.306292 Z-0.125000
G01 X51.838123 Y161.335837 Z-0.125000
G01 X49.530405 Y160.110354 Z-0.125000
G01 X47.759121 Y158.535162 Z-0.125000
G01 X46.394754 Y156.458643 Z-0.125000
G01 X45.282051 Y153.579840 Z-0.125000
G01 X43.916775 Y148.607147 Z-0.125000
G01 X41.771043 Y137.834828 Z-0.125000
G01 X41.128469 Y129.880374 Z-0.125000
G01 X41.678727 Y123.230349 Z-0.125000
G01 X43.282751 Y118.199538 Z-0.125000
G01 X44.621287 Y115.832429 Z-0.125000
G01 X46.110348 Y113.905981 Z-0.125000
G01 X50.205813 Y110.324576 Z-0.125000
G01 X56.148415 Y106.977553 Z-0.125000
G01 X65.145266 Y103.395603 Z-0.125000
G01 X74.839626 Y100.538901 Z-0.125000
G01 X81.251448 Y99.321421 Z-0.125000
G01 X97.344442 Y97.096015 Z-0.125000
G01 X105.601673 Y95.223683 Z-0.125000
G01 X113.174676 Y92.381806 Z-0.125000
G01 X126.161305 Y85.792447 Z-0.125000
G01 X129.307506 Y84.802710 Z-0.125000
G01 X132.273260 Y84.453274 Z-0.125000
G01 X135.332329 Y84.767876 Z-0.125000
G01 X138.490263 Y85.824371 Z-0.125000
G01 X141.445557 Y87.461229 Z-0.125000
G01 X144.665702 Y89.920381 Z-0.125000
G01 X148.010450 Y93.193005 Z-0.125000
G01 X151.416500 Y97.281829 Z-0.125000
G01 X154.001530 Y101.073878 Z-0.125000
G01 X156.008288 Y104.923591 Z-0.125000
G01 X157.060417 Y107.755008 Z-0.125000
G01 X157.762564 Y110.675013 Z-0.125000
G01 X158.084079 Y113.690153 Z-0.125000
G01 X157.998766 Y116.797608 Z-0.125000
G01 X157.488345 Y119.986011 Z-0.125000
G01 X156.659502 Y122.909745 Z-0.125000
G01 X153.791249 Y129.173406 Z-0.125000
G01 X150.797847 Y133.789842 Z-0.125000
G01 X146.933218 Y138.665853 Z-0.125000
G01 X133.186233 Y153.238680 Z-0.125000
G01 X128.752246 Y158.295140 Z-0.125000
G01 X124.662239 Y163.763611 Z-0.125000
G01 X118.679437 Y173.041867 Z-0.125000
G01 X117.067772 Y174.837253 Z-0.125000
G01 X115.518774 Y175.871010 Z-0.125000
G01 X113.469177 Y176.303486 Z-0.125000
G01 X110.827031 Y175.869646 Z-0.125000
G01 X96.017001 Y169.985890 Z-0.125000
G01 X84.982468 Y166.867884 Z-0.125000
G01 X75.256094 Y165.137982 Z-0.125000
G01 X57.672492 Y163.013714 Z-0.125000
G01 X52.562644 Y161.972772 Z-0.125000
G01 X49.881934 Y161.036515 Z-0.125000
G01 X47.626513 Y159.757462 Z-0.125000
G01 X45.930810 Y158.127698 Z-0.125000
G01 X44.720152 Y156.150954 Z-0.125000
G01 X43.600172 Y153.042134 Z-0.125000
G01 X42.189239 Y147.580302 Z-0.125000
G01 X40.138915 Y136.568871 Z-0.125000
G01 X39.594205 Y128.322826 Z-0.125000
G01 X40.233868 Y121.826965 Z-0.125000
G01 X40.998135 Y119.010554 Z-0.125000
G01 X41.961950 Y116.686011 Z-0.125000
G01 X43.386163 Y114.285795 Z-0.125000
G01 X44.963720 Y112.343795 Z-0.125000
G01 X49.285654 Y108.764936 Z-0.125000
G01 X55.536583 Y105.454658 Z-0.125000
G01 X65.389380 Y101.787849 Z-0.125000
G01 X75.524856 Y99.014186 Z-0.125000
G01 X82.188705 Y97.890023 Z-0.125000
G01 X99.170479 Y95.908368 Z-0.125000
G01 X107.550314 Y94.182195 Z-0.125000
G01 X114.862830 Y91.597803 Z-0.125000
G01 X127.564053 Y85.417089 Z-0.125000
G01 X130.691791 Y84.485562 Z-0.125000
G01 X133.645903 Y84.193971 Z-0.125000
G01 X136.704244 Y84.575513 Z-0.125000
G01 X139.876549 Y85.712409 Z-0.125000
G01 X143.133256 Y87.625305 Z-0.125000
G01 X146.395694 Y90.250171 Z-0.125000
G01 X150.031124 Y93.973643 Z-0.125000
G01 X153.416983 Y98.212811 Z-0.125000
G01 X156.122160 Y102.407776 Z-0.125000
G01 X158.021959 Y106.392734 Z-0.125000
G01 X158.973677 Y109.326017 Z-0.125000
G01 X159.511384 Y112.043108 Z-0.125000
G01 X159.724938 Y115.151565 Z-0.125000
G01 X159.550311 Y118.025638 Z-0.125000
G01 X159.014424 Y120.962105 Z-0.125000
G01 X158.112365 Y123.946685 Z-0.125000
G01 X155.037833 Y130.324491 Z-0.125000
G01 X151.852523 Y135.008049 Z-0.125000
G01 X147.753785 Y139.937267 Z-0.125000
G01 X133.241531 Y154.586585 Z-0.125000
G01 X128.591262 Y159.676242 Z-0.125000
G01 X124.333085 Y165.210471 Z-0.125000
G01 X118.204942 Y174.655441 Z-0.125000
G01 X116.574359 Y176.457740 Z-0.125000
G01 X115.014538 Y177.459027 Z-0.125000
G01 X112.955300 Y177.801187 Z-0.125000
G01 X110.507699 Y177.282672 Z-0.125000
G01 X95.693668 Y170.679942 Z-0.125000
G01 X90.124877 Y168.725299 Z-0.125000
G01 X84.508428 Y167.155837 Z-0.125000
G01 X75.078465 Y165.264041 Z-0.125000
G01 X56.875846 Y162.930403 Z-0.125000
G01 X50.587173 Y161.656715 Z-0.125000
G01 X47.936840 Y160.676165 Z-0.125000
G01 X45.909709 Y159.474511 Z-0.125000
G01 X44.343885 Y157.950069 Z-0.125000
G01 X43.125041 Y155.933397 Z-0.125000
G01 X42.037622 Y152.802385 Z-0.125000
G01 X40.538556 Y146.719990 Z-0.125000
G01 X38.571635 Y135.569312 Z-0.125000
G01 X38.082951 Y127.029402 Z-0.125000
G01 X38.310694 Y123.424349 Z-0.125000
G01 X38.889784 Y120.009659 Z-0.125000
G01 X39.753552 Y117.151501 Z-0.125000
G01 X40.819324 Y114.807403 Z-0.125000
G01 X42.181690 Y112.658124 Z-0.125000
G01 X44.079306 Y110.471281 Z-0.125000
G01 X46.091249 Y108.720552 Z-0.125000
G01 X48.709839 Y106.943719 Z-0.125000
G01 X54.964496 Y103.866369 Z-0.125000
G01 X65.718534 Y100.127799 Z-0.125000
G01 X76.296399 Y97.444542 Z-0.125000
G01 X83.639476 Y96.372130 Z-0.125000
G01 X101.094653 Y94.716900 Z-0.125000
G01 X109.248746 Y93.232478 Z-0.125000
G01 X116.613287 Y90.823804 Z-0.125000
G01 X129.248752 Y84.984705 Z-0.125000
G01 X132.356753 Y84.161046 Z-0.125000
G01 X135.053107 Y83.974322 Z-0.125000
G01 X138.366296 Y84.498022 Z-0.125000
G01 X141.558973 Y85.784170 Z-0.125000
G01 X144.849515 Y87.860143 Z-0.125000
G01 X148.153608 Y90.653633 Z-0.125000
G01 X151.832423 Y94.559099 Z-0.125000
G01 X155.438748 Y99.232470 Z-0.125000
G01 X158.096175 Y103.559043 Z-0.125000
G01 X159.924759 Y107.672697 Z-0.125000
G01 X160.802989 Y110.700479 Z-0.125000
G01 X161.255746 Y113.502883 Z-0.125000
G01 X161.352701 Y116.704565 Z-0.125000
G01 X161.053015 Y119.659131 Z-0.125000
G01 X160.374061 Y122.670996 Z-0.125000
G01 X159.312563 Y125.723881 Z-0.125000
G01 X156.080686 Y131.875399 Z-0.125000
G01 X152.647805 Y136.619167 Z-0.125000
G01 X148.578989 Y141.261979 Z-0.125000
G01 X133.286280 Y155.968232 Z-0.125000
G01 X128.415270 Y161.083719 Z-0.125000
G01 X123.986195 Y166.677794 Z-0.125000
G01 X117.712165 Y176.287114 Z-0.125000
G01 X116.201185 Y177.973632 Z-0.125000
G01 X114.640090 Y179.003114 Z-0.125000
G01 X112.594950 Y179.324810 Z-0.125000
G01 X110.171451 Y178.722892 Z-0.125000
G01 X95.371608 Y171.383363 Z-0.125000
G01 X89.747064 Y169.197066 Z-0.125000
G01 X83.556891 Y167.298176 Z-0.125000
G01 X73.919467 Y165.200375 Z-0.125000
G01 X54.512376 Y162.556955 Z-0.125000
G01 X48.329388 Y161.188950 Z-0.125000
G01 X46.006482 Y160.256059 Z-0.125000
G01 X44.037377 Y159.005200 Z-0.125000
G01 X42.657913 Y157.579350 Z-0.125000
G01 X41.543118 Y155.668364 Z-0.125000
G01 X40.440238 Y152.333620 Z-0.125000
G01 X38.904791 Y145.777458 Z-0.125000
G01 X36.981890 Y134.117359 Z-0.125000
G01 X36.607806 Y125.278491 Z-0.125000
G01 X36.913858 Y121.579121 Z-0.125000
G01 X37.504408 Y118.433284 Z-0.125000
G01 X38.432843 Y115.511006 Z-0.125000
G01 X39.567283 Y113.125979 Z-0.125000
G01 X41.009322 Y110.950869 Z-0.125000
G01 X42.768237 Y108.983675 Z-0.125000
G01 X44.845301 Y107.212300 Z-0.125000
G01 X47.552660 Y105.427464 Z-0.125000
G01 X54.432338 Y102.213867 Z-0.125000
G01 X66.132638 Y98.417543 Z-0.125000
G01 X77.153073 Y95.832241 Z-0.125000
G01 X84.763820 Y94.871427 Z-0.125000
G01 X103.112780 Y93.524978 Z-0.125000
G01 X111.351003 Y92.205451 Z-0.125000
G01 X118.705267 Y89.951668 Z-0.125000
G01 X130.736267 Y84.671285 Z-0.125000
G01 X133.815982 Y83.918569 Z-0.125000
G01 X136.741444 Y83.809791 Z-0.125000
G01 X140.057179 Y84.482197 Z-0.125000
G01 X143.268774 Y85.922599 Z-0.125000
G01 X146.872008 Y88.387117 Z-0.125000
G01 X150.486974 Y91.681933 Z-0.125000
G01 X154.399625 Y96.131927 Z-0.125000
G01 X157.867523 Y100.933267 Z-0.125000
G01 X160.231266 Y105.097491 Z-0.125000
G01 X161.930972 Y109.350392 Z-0.125000
G01 X162.631209 Y112.164984 Z-0.125000
G01 X162.991650 Y115.052973 Z-0.125000
G01 X162.987103 Y118.014178 Z-0.125000
G01 X162.597557 Y121.041597 Z-0.125000
G01 X160.777613 Y126.890882 Z-0.125000
G01 X157.338366 Y133.147268 Z-0.125000
G01 X153.704845 Y137.953429 Z-0.125000
G01 X149.409015 Y142.638805 Z-0.125000
G01 X133.321660 Y157.382349 Z-0.125000
G01 X128.225909 Y162.516027 Z-0.125000
G01 X123.414837 Y168.454991 Z-0.125000
G01 X117.063407 Y178.115516 Z-0.125000
G01 X115.534691 Y179.748554 Z-0.125000
G01 X114.102292 Y180.624965 Z-0.125000
G01 X112.217773 Y180.871535 Z-0.125000
G01 X109.819013 Y180.189670 Z-0.125000
G01 X95.050367 Y172.098698 Z-0.125000
G01 X89.377164 Y169.670378 Z-0.125000
G01 X83.104407 Y167.548384 Z-0.125000
G01 X72.762016 Y165.089960 Z-0.125000
G01 X52.545909 Y162.183962 Z-0.125000
G01 X46.377655 Y160.751291 Z-0.125000
G01 X44.094677 Y159.777471 Z-0.125000
G01 X42.350951 Y158.616563 Z-0.125000
G01 X40.989495 Y157.158335 Z-0.125000
G01 X39.976384 Y155.357673 Z-0.125000
G01 X38.908611 Y151.998827 Z-0.125000
G01 X37.289762 Y144.752341 Z-0.125000
G01 X35.456539 Y132.961545 Z-0.125000
G01 X35.149577 Y123.816988 Z-0.125000
G01 X35.503470 Y120.006021 Z-0.125000
G01 X36.148409 Y116.777053 Z-0.125000
G01 X37.143329 Y113.790654 Z-0.125000
G01 X38.347712 Y111.365427 Z-0.125000
G01 X39.870698 Y109.166033 Z-0.125000
G01 X41.722020 Y107.189289 Z-0.125000
G01 X43.903224 Y105.421279 Z-0.125000
G01 X46.741644 Y103.652905 Z-0.125000
G01 X53.940562 Y100.499155 Z-0.125000
G01 X66.631508 Y96.659447 Z-0.125000
G01 X78.093696 Y94.179558 Z-0.125000
G01 X86.427873 Y93.304511 Z-0.125000
G01 X105.220404 Y92.336331 Z-0.125000
G01 X113.189319 Y91.260645 Z-0.125000
G01 X120.287099 Y89.311732 Z-0.125000
G01 X132.497001 Y84.314663 Z-0.125000
G01 X135.548248 Y83.683550 Z-0.125000
G01 X138.211041 Y83.674091 Z-0.125000
G01 X141.512679 Y84.432082 Z-0.125000
G01 X145.003678 Y86.127695 Z-0.125000
G01 X148.642474 Y88.777391 Z-0.125000
G01 X152.301188 Y92.258476 Z-0.125000
G01 X156.251402 Y96.892101 Z-0.125000
G01 X159.727940 Y101.837691 Z-0.125000
G01 X162.224200 Y106.432480 Z-0.125000
G01 X163.834409 Y110.817079 Z-0.125000
G01 X164.454518 Y113.717893 Z-0.125000
G01 X164.715003 Y116.691650 Z-0.125000
G01 X164.590036 Y119.736167 Z-0.125000
G01 X164.139825 Y122.494823 Z-0.125000
G01 X162.094594 Y128.467621 Z-0.125000
G01 X158.606596 Y134.474435 Z-0.125000
G01 X154.769526 Y139.341352 Z-0.125000
G01 X150.243587 Y144.066201 Z-0.125000
G01 X133.348854 Y158.827389 Z-0.125000
G01 X128.024724 Y163.971527 Z-0.125000
G01 X123.031021 Y169.961878 Z-0.125000
G01 X116.537615 Y179.779842 Z-0.125000
G01 X114.991891 Y181.415426 Z-0.125000
G01 X113.549670 Y182.259003 Z-0.125000
G01 X111.657420 Y182.417896 Z-0.125000
G01 X109.451204 Y181.682642 Z-0.125000
G01 X95.943785 Y173.472614 Z-0.125000
G01 X90.847580 Y170.946522 Z-0.125000
G01 X85.664060 Y168.829348 Z-0.125000
G01 X79.052872 Y166.702806 Z-0.125000
G01 X72.143090 Y165.042756 Z-0.125000
G01 X65.225940 Y163.814908 Z-0.125000
G01 X50.985451 Y161.822156 Z-0.125000
G01 X45.618664 Y160.645787 Z-0.125000
G01 X42.887657 Y159.602389 Z-0.125000
G01 X40.850157 Y158.319515 Z-0.125000
G01 X39.450137 Y156.842732 Z-0.125000
G01 X38.364174 Y154.853528 Z-0.125000
G01 X37.349608 Y151.432743 Z-0.125000
G01 X35.633713 Y143.324308 Z-0.125000
G01 X33.953562 Y131.736789 Z-0.125000
G01 X33.718543 Y122.280268 Z-0.125000
G01 X34.122278 Y118.355884 Z-0.125000
G01 X34.823424 Y115.043150 Z-0.125000
G01 X35.886286 Y111.992812 Z-0.125000
G01 X37.161884 Y109.528203 Z-0.125000
G01 X38.766908 Y107.305707 Z-0.125000
G01 X40.978854 Y105.089396 Z-0.125000
G01 X43.307399 Y103.353401 Z-0.125000
G01 X46.323357 Y101.629684 Z-0.125000
G01 X53.925282 Y98.577982 Z-0.125000
G01 X67.711923 Y94.735545 Z-0.125000
G01 X79.116538 Y92.488857 Z-0.125000
G01 X87.732757 Y91.744417 Z-0.125000
G01 X107.412249 Y91.154413 Z-0.125000
G01 X115.426640 Y90.259176 Z-0.125000
G01 X122.484128 Y88.483798 Z-0.125000
G01 X134.060097 Y84.063091 Z-0.125000
G01 X137.073872 Y83.515289 Z-0.125000
G01 X139.709652 Y83.576590 Z-0.125000
G01 X143.253222 Y84.527218 Z-0.125000
G01 X146.761320 Y86.399186 Z-0.125000
G01 X150.435041 Y89.237333 Z-0.125000
G01 X154.416269 Y93.214378 Z-0.125000
G01 X158.604777 Y98.366883 Z-0.125000
G01 X161.979813 Y103.437077 Z-0.125000
G01 X164.223864 Y107.852600 Z-0.125000
G01 X165.735663 Y112.370080 Z-0.125000
G01 X166.423713 Y118.073661 Z-0.125000
G01 X166.216343 Y121.193759 Z-0.125000
G01 X165.677363 Y124.016536 Z-0.125000
G01 X164.662888 Y127.232679 Z-0.125000
G01 X163.398205 Y130.111209 Z-0.125000
G01 X159.623527 Y136.211249 Z-0.125000
G01 X155.522788 Y141.127461 Z-0.125000
G01 X150.721357 Y145.875504 Z-0.125000
G01 X133.723575 Y159.999120 Z-0.125000
G01 X127.813352 Y165.448400 Z-0.125000
G01 X122.634926 Y171.483682 Z-0.125000
G01 X115.856205 Y181.635347 Z-0.125000
G01 X114.436176 Y183.094031 Z-0.125000
G01 X112.984132 Y183.903410 Z-0.125000
G01 X111.252139 Y184.003457 Z-0.125000
G01 X109.069116 Y183.200717 Z-0.125000
G01 X95.224812 Y174.044700 Z-0.125000
G01 X90.050206 Y171.289773 Z-0.125000
G01 X84.277502 Y168.786328 Z-0.125000
G01 X77.511787 Y166.505350 Z-0.125000
G01 X70.456663 Y164.734429 Z-0.125000
G01 X63.415728 Y163.432274 Z-0.125000
G01 X49.031353 Y161.340931 Z-0.125000
G01 X43.994721 Y160.208855 Z-0.125000
G01 X41.482908 Y159.263685 Z-0.125000
G01 X39.374647 Y157.978992 Z-0.125000
G01 X37.932790 Y156.486293 Z-0.125000
G01 X36.834639 Y154.454796 Z-0.125000
G01 X35.856363 Y151.009454 Z-0.125000
G01 X34.121641 Y142.454628 Z-0.125000
G01 X32.474506 Y130.445184 Z-0.125000
G01 X32.213111 Y125.317145 Z-0.125000
G01 X32.316068 Y120.670423 Z-0.125000
G01 X32.771918 Y116.631349 Z-0.125000
G01 X33.531001 Y113.234212 Z-0.125000
G01 X34.663349 Y110.119844 Z-0.125000
G01 X36.011163 Y107.616671 Z-0.125000
G01 X37.699226 Y105.372620 Z-0.125000
G01 X40.017949 Y103.150852 Z-0.125000
G01 X42.453726 Y101.424770 Z-0.125000
G01 X45.603929 Y99.725156 Z-0.125000
G01 X53.531734 Y96.749216 Z-0.125000
G01 X68.397881 Y92.892955 Z-0.125000
G01 X80.219964 Y90.762684 Z-0.125000
G01 X89.601632 Y90.140757 Z-0.125000
G01 X109.682858 Y89.982773 Z-0.125000
G01 X117.723443 Y89.278807 Z-0.125000
G01 X124.446047 Y87.773557 Z-0.125000
G01 X135.658937 Y83.838531 Z-0.125000
G01 X138.630692 Y83.380317 Z-0.125000
G01 X141.235276 Y83.516380 Z-0.125000
G01 X144.753652 Y84.567236 Z-0.125000
G01 X148.539243 Y86.736434 Z-0.125000
G01 X152.536753 Y90.036435 Z-0.125000
G01 X156.555181 Y94.269509 Z-0.125000
G01 X160.729318 Y99.609010 Z-0.125000
G01 X164.052056 Y104.813085 Z-0.125000
G01 X166.227075 Y109.356122 Z-0.125000
G01 X167.630915 Y114.007574 Z-0.125000
G01 X168.068938 Y117.082196 Z-0.125000
G01 X168.122054 Y119.874232 Z-0.125000
G01 X167.207717 Y125.604552 Z-0.125000
G01 X164.878444 Y131.452747 Z-0.125000
G01 X160.896032 Y137.648286 Z-0.125000
G01 X156.585377 Y142.620706 Z-0.125000
G01 X151.547016 Y147.400673 Z-0.125000
G01 X133.384325 Y161.804057 Z-0.125000
G01 X127.286105 Y167.248789 Z-0.125000
G01 X122.003175 Y173.318997 Z-0.125000
G01 X115.305219 Y183.324229 Z-0.125000
G01 X113.869547 Y184.782549 Z-0.125000
G01 X112.557023 Y185.511436 Z-0.125000
G01 X110.834580 Y185.607663 Z-0.125000
G01 X108.674022 Y184.742985 Z-0.125000
G01 X94.497471 Y174.597414 Z-0.125000
G01 X88.779884 Y171.368174 Z-0.125000
G01 X82.867568 Y168.681915 Z-0.125000
G01 X75.950328 Y166.247593 Z-0.125000
G01 X68.754775 Y164.367621 Z-0.125000
G01 X61.596512 Y162.993432 Z-0.125000
G01 X47.496634 Y160.879533 Z-0.125000
G01 X42.390879 Y159.724992 Z-0.125000
G01 X39.858056 Y158.763632 Z-0.125000
G01 X37.748431 Y157.454928 Z-0.125000
G01 X36.325128 Y155.931669 Z-0.125000
G01 X35.326387 Y154.016681 Z-0.125000
G01 X34.383855 Y150.545328 Z-0.125000
G01 X32.510886 Y140.830140 Z-0.125000
G01 X30.989264 Y128.649706 Z-0.125000
G01 X30.943789 Y118.990272 Z-0.125000
G01 X31.453755 Y114.835053 Z-0.125000
G01 X32.272593 Y111.352876 Z-0.125000
G01 X33.475884 Y108.174842 Z-0.125000
G01 X34.897004 Y105.633742 Z-0.125000
G01 X36.668743 Y103.369318 Z-0.125000
G01 X39.094880 Y101.144366 Z-0.125000
G01 X41.638344 Y99.430563 Z-0.125000
G01 X44.923156 Y97.758234 Z-0.125000
G01 X53.177841 Y94.865243 Z-0.125000
G01 X67.553667 Y91.352233 Z-0.125000
G01 X79.311994 Y89.235332 Z-0.125000
G01 X89.577621 Y88.553195 Z-0.125000
G01 X110.407925 Y88.836873 Z-0.125000
G01 X118.023220 Y88.540643 Z-0.125000
G01 X125.892543 Y87.227574 Z-0.125000
G01 X137.514351 Y83.593144 Z-0.125000
G01 X140.216617 Y83.277723 Z-0.125000
G01 X142.786003 Y83.492733 Z-0.125000
G01 X146.534122 Y84.771696 Z-0.125000
G01 X150.334994 Y87.138805 Z-0.125000
G01 X154.369702 Y90.647448 Z-0.125000
G01 X158.714829 Y95.420957 Z-0.125000
G01 X162.864682 Y100.930721 Z-0.125000
G01 X166.131121 Y106.269222 Z-0.125000
G01 X168.230377 Y110.940956 Z-0.125000
G01 X169.516162 Y115.727471 Z-0.125000
G01 X169.851501 Y118.889225 Z-0.125000
G01 X169.794929 Y121.757023 Z-0.125000
G01 X169.385464 Y124.673116 Z-0.125000
G01 X168.611192 Y127.627318 Z-0.125000
G01 X165.955766 Y133.589202 Z-0.125000
G01 X161.882676 Y139.499517 Z-0.125000
G01 X157.653786 Y144.161792 Z-0.125000
G01 X152.376769 Y148.970954 Z-0.125000
G01 X133.395240 Y163.332136 Z-0.125000
G01 X127.366870 Y168.459447 Z-0.125000
G01 X124.370284 Y171.509694 Z-0.125000
G01 X121.581614 Y174.867813 Z-0.125000
G01 X114.453457 Y185.366550 Z-0.125000
G01 X112.711914 Y186.864160 Z-0.125000
G01 X111.050226 Y187.299728 Z-0.125000
G01 X109.381353 Y186.897540 Z-0.125000
G01 X107.465001 Y185.781017 Z-0.125000
G01 X98.016484 Y178.169997 Z-0.125000
G01 X92.064059 Y174.033695 Z-0.125000
G01 X86.516551 Y170.880673 Z-0.125000
G01 X80.377402 Y168.081361 Z-0.125000
G01 X73.811962 Y165.756818 Z-0.125000
G01 X66.473979 Y163.815363 Z-0.125000
G01 X42.142399 Y159.568191 Z-0.125000
G01 X38.509788 Y158.338251 Z-0.125000
G01 X35.976965 Y156.740776 Z-0.125000
G01 X34.441336 Y154.843341 Z-0.125000
G01 X33.440049 Y152.281232 Z-0.125000
G01 X30.456469 Y135.942577 Z-0.125000
G01 X29.729220 Y129.477003 Z-0.125000
G01 X29.417346 Y123.559231 Z-0.125000
G01 X29.508389 Y118.572622 Z-0.125000
G01 X30.023266 Y113.801477 Z-0.125000
G01 X30.932965 Y109.783595 Z-0.125000
G01 X32.325072 Y106.160716 Z-0.125000
G01 X34.250065 Y102.984137 Z-0.125000
G01 X36.468377 Y100.517891 Z-0.125000
G01 X39.161093 Y98.406720 Z-0.125000
G01 X42.705935 Y96.429794 Z-0.125000
G01 X46.804492 Y94.766742 Z-0.125000
G01 X52.371373 Y93.061034 Z-0.125000
G01 X68.341218 Y89.420783 Z-0.125000
G01 X80.504279 Y87.416116 Z-0.125000
G01 X91.600933 Y86.893872 Z-0.125000
G01 X113.220516 Y87.664597 Z-0.125000
G01 X120.780057 Y87.533262 Z-0.125000
G01 X127.090923 Y86.711968 Z-0.125000
G01 X137.857330 Y83.700467 Z-0.125000
G01 X142.054569 Y83.211601 Z-0.125000
G01 X145.802780 Y83.913748 Z-0.125000
G01 X149.927257 Y85.992086 Z-0.125000
G01 X154.451650 Y89.598321 Z-0.125000
G01 X159.167313 Y94.565921 Z-0.125000
G01 X164.064517 Y100.936996 Z-0.125000
G01 X167.683121 Y106.781280 Z-0.125000
G01 X170.112896 Y112.258937 Z-0.125000
G01 X171.387129 Y117.527405 Z-0.125000
G01 X171.608051 Y120.411847 Z-0.125000
G01 X171.479172 Y123.348586 Z-0.125000
G01 X170.982303 Y126.331166 Z-0.125000
G01 X170.105711 Y129.347943 Z-0.125000
G01 X167.204897 Y135.418241 Z-0.125000
G01 X162.842217 Y141.405955 Z-0.125000
G01 X158.356206 Y146.102610 Z-0.125000
G01 X152.793418 Y150.919230 Z-0.125000
G01 X133.403516 Y164.884227 Z-0.125000
G01 X127.135307 Y169.989710 Z-0.125000
G01 X124.030671 Y173.044232 Z-0.125000
G01 X121.153868 Y176.425179 Z-0.125000
G01 X113.883644 Y187.072349 Z-0.125000
G01 X112.124457 Y188.556317 Z-0.125000
G01 X110.452128 Y188.931129 Z-0.125000
G01 X108.952880 Y188.516935 Z-0.125000
G01 X107.056628 Y187.337473 Z-0.125000
G01 X97.683600 Y179.215032 Z-0.125000
G01 X91.736633 Y174.760308 Z-0.125000
G01 X86.168751 Y171.344253 Z-0.125000
G01 X79.982308 Y168.293642 Z-0.125000
G01 X72.773294 Y165.557451 Z-0.125000
G01 X65.313708 Y163.466563 Z-0.125000
G01 X40.251149 Y158.910883 Z-0.125000
G01 X36.682113 Y157.633466 Z-0.125000
G01 X34.242607 Y155.978146 Z-0.125000
G01 X32.810118 Y154.028596 Z-0.125000
G01 X31.908240 Y151.428469 Z-0.125000
G01 X29.963238 Y140.970569 Z-0.125000
G01 X28.807515 Y133.033760 Z-0.125000
G01 X28.222059 Y126.662685 Z-0.125000
G01 X28.043248 Y121.000123 Z-0.125000
G01 X28.254529 Y115.885363 Z-0.125000
G01 X28.919840 Y111.039547 Z-0.125000
G01 X29.992161 Y107.000655 Z-0.125000
G01 X31.570992 Y103.398240 Z-0.125000
G01 X33.705719 Y100.277142 Z-0.125000
G01 X36.130855 Y97.883384 Z-0.125000
G01 X39.045038 Y95.858435 Z-0.125000
G01 X42.849093 Y93.983557 Z-0.125000
G01 X47.214502 Y92.419460 Z-0.125000
G01 X53.101442 Y90.816891 Z-0.125000
G01 X70.938798 Y87.136986 Z-0.125000
G01 X82.328043 Y85.520228 Z-0.125000
G01 X94.251265 Y85.244827 Z-0.125000
G01 X115.686853 Y86.512511 Z-0.125000
G01 X123.231933 Y86.585727 Z-0.125000
G01 X129.464398 Y85.956251 Z-0.125000
G01 X139.569314 Y83.507922 Z-0.125000
G01 X143.467140 Y83.165398 Z-0.125000
G01 X145.491725 Y83.438617 Z-0.125000
G01 X147.620086 Y84.101018 Z-0.125000
G01 X151.739925 Y86.402733 Z-0.125000
G01 X156.294604 Y90.248534 Z-0.125000
G01 X161.059654 Y95.451608 Z-0.125000
G01 X165.985417 Y102.020504 Z-0.125000
G01 X169.601838 Y108.014585 Z-0.125000
G01 X171.999689 Y113.635127 Z-0.125000
G01 X173.199887 Y119.038204 Z-0.125000
G01 X173.360417 Y121.993406 Z-0.125000
G01 X173.155594 Y124.999178 Z-0.125000
G01 X172.567318 Y128.047879 Z-0.125000
G01 X171.584585 Y131.126776 Z-0.125000
G01 X168.673949 Y136.918944 Z-0.125000
G01 X164.104808 Y142.992244 Z-0.125000
G01 X159.417794 Y147.735193 Z-0.125000
G01 X153.612711 Y152.573823 Z-0.125000
G01 X147.772884 Y156.800349 Z-0.125000
G01 X133.410611 Y166.458419 Z-0.125000
G01 X126.900652 Y171.533888 Z-0.125000
G01 X123.687237 Y174.588591 Z-0.125000
G01 X120.721757 Y177.989185 Z-0.125000
G01 X113.309466 Y188.782241 Z-0.125000
G01 X111.680158 Y190.173347 Z-0.125000
G01 X110.006373 Y190.578992 Z-0.125000
G01 X108.340775 Y190.063932 Z-0.125000
G01 X106.434882 Y188.751317 Z-0.125000
G01 X96.985637 Y179.975388 Z-0.125000
G01 X90.970364 Y175.196331 Z-0.125000
G01 X84.829397 Y171.243934 Z-0.125000
G01 X78.509345 Y168.012874 Z-0.125000
G01 X71.161175 Y165.129251 Z-0.125000
G01 X63.579078 Y162.937042 Z-0.125000
G01 X57.239198 Y161.570493 Z-0.125000
G01 X43.017991 Y159.229487 Z-0.125000
G01 X38.386639 Y158.208281 Z-0.125000
G01 X35.135389 Y157.007901 Z-0.125000
G01 X32.701248 Y155.326295 Z-0.125000
G01 X31.299774 Y153.340728 Z-0.125000
G01 X30.449375 Y150.697581 Z-0.125000
G01 X28.369310 Y138.836933 Z-0.125000
G01 X27.258790 Y130.364055 Z-0.125000
G01 X26.778656 Y123.688018 Z-0.125000
G01 X26.741729 Y117.841461 Z-0.125000
G01 X27.124090 Y112.631475 Z-0.125000
G01 X27.896543 Y108.187029 Z-0.125000
G01 X29.140671 Y104.141134 Z-0.125000
G01 X30.914957 Y100.573098 Z-0.125000
G01 X33.005118 Y97.802437 Z-0.125000
G01 X35.905931 Y95.209768 Z-0.125000
G01 X39.047312 Y93.279318 Z-0.125000
G01 X43.115400 Y91.513127 Z-0.125000
G01 X48.243166 Y89.918016 Z-0.125000
G01 X54.503371 Y88.435867 Z-0.125000
G01 X73.132826 Y84.955145 Z-0.125000
G01 X84.254127 Y83.618428 Z-0.125000
G01 X90.454941 Y83.442346 Z-0.125000
G01 X97.019835 Y83.621884 Z-0.125000
G01 X118.618954 Y85.412269 Z-0.125000
G01 X125.721281 Y85.668752 Z-0.125000
G01 X131.583664 Y85.277660 Z-0.125000
G01 X141.308492 Y83.335841 Z-0.125000
G01 X145.127099 Y83.153392 Z-0.125000
G01 X147.113212 Y83.500828 Z-0.125000
G01 X149.208102 Y84.235899 Z-0.125000
G01 X153.562961 Y86.873226 Z-0.125000
G01 X158.446430 Y91.265738 Z-0.125000
G01 X163.554460 Y97.142127 Z-0.125000
G01 X168.393272 Y103.892654 Z-0.125000
G01 X171.879360 Y110.019433 Z-0.125000
G01 X173.998080 Y115.430877 Z-0.125000
G01 X175.041296 Y120.980386 Z-0.125000
G01 X175.091501 Y124.012807 Z-0.125000
G01 X174.757981 Y127.093159 Z-0.125000
G01 X173.045179 Y132.960726 Z-0.125000
G01 X169.892793 Y138.851577 Z-0.125000
G01 X165.024876 Y144.996455 Z-0.125000
G01 X160.074920 Y149.766235 Z-0.125000
G01 X153.979792 Y154.600955 Z-0.125000
G01 X133.417887 Y168.052711 Z-0.125000
G01 X126.664632 Y173.089889 Z-0.125000
G01 X123.341803 Y176.140773 Z-0.125000
G01 X120.287463 Y179.557647 Z-0.125000
G01 X112.733014 Y190.494225 Z-0.125000
G01 X111.085424 Y191.874235 Z-0.125000
G01 X109.398725 Y192.221761 Z-0.125000
G01 X107.899841 Y191.710704 Z-0.125000
G01 X106.011684 Y190.343063 Z-0.125000
G01 X96.641294 Y181.060987 Z-0.125000
G01 X90.640210 Y175.953867 Z-0.125000
G01 X84.486873 Y171.703422 Z-0.125000
G01 X77.575180 Y167.940022 Z-0.125000
G01 X70.123234 Y164.855395 Z-0.125000
G01 X61.838171 Y162.358407 Z-0.125000
G01 X55.423166 Y160.937924 Z-0.125000
G01 X41.573678 Y158.598919 Z-0.125000
G01 X36.891029 Y157.560887 Z-0.125000
G01 X33.618860 Y156.345408 Z-0.125000
G01 X31.191632 Y154.638609 Z-0.125000
G01 X29.902483 Y152.791653 Z-0.125000
G01 X29.056541 Y150.099119 Z-0.125000
G01 X26.921359 Y137.339232 Z-0.125000
G01 X25.843763 Y128.490814 Z-0.125000
G01 X25.428478 Y121.566934 Z-0.125000
G01 X25.476682 Y115.540656 Z-0.125000
G01 X25.960181 Y110.204065 Z-0.125000
G01 X26.843322 Y105.681401 Z-0.125000
G01 X28.215783 Y101.594213 Z-0.125000
G01 X30.136047 Y98.020994 Z-0.125000
G01 X32.372731 Y95.273252 Z-0.125000
G01 X35.452810 Y92.731061 Z-0.125000
G01 X39.169551 Y90.676735 Z-0.125000
G01 X43.506037 Y89.024779 Z-0.125000
G01 X48.933580 Y87.544358 Z-0.125000
G01 X56.087477 Y86.054388 Z-0.125000
G01 X76.085755 Y82.682444 Z-0.125000
G01 X86.864532 Y81.693526 Z-0.125000
G01 X93.205048 Y81.682157 Z-0.125000
G01 X99.899639 Y82.029957 Z-0.125000
G01 X121.594529 Y84.358866 Z-0.125000
G01 X128.241189 Y84.785248 Z-0.125000
G01 X133.729760 Y84.618806 Z-0.125000
G01 X143.071955 Y83.183042 Z-0.125000
G01 X146.596060 Y83.142660 Z-0.125000
G01 X148.751889 Y83.593871 Z-0.125000
G01 X150.810216 Y84.403887 Z-0.125000
G01 X155.121327 Y87.183735 Z-0.125000
G01 X160.009435 Y91.732866 Z-0.125000
G01 X165.469630 Y98.172883 Z-0.125000
G01 X170.325814 Y105.101038 Z-0.125000
G01 X173.803534 Y111.377615 Z-0.125000
G01 X175.881780 Y116.924213 Z-0.125000
G01 X176.836773 Y122.608967 Z-0.125000
G01 X176.817582 Y125.712148 Z-0.125000
G01 X176.398659 Y128.860987 Z-0.125000
G01 X175.563722 Y132.044842 Z-0.125000
G01 X174.484853 Y134.846882 Z-0.125000
G01 X171.084715 Y140.834142 Z-0.125000
G01 X166.279282 Y146.667147 Z-0.125000
G01 X161.126504 Y151.479583 Z-0.125000
G01 X154.787625 Y156.329492 Z-0.125000
G01 X148.444745 Y160.511997 Z-0.125000
G01 X132.980136 Y169.954148 Z-0.125000
G01 X126.061349 Y174.955854 Z-0.125000
G01 X122.683403 Y178.007466 Z-0.125000
G01 X119.599140 Y181.441984 Z-0.125000
G01 X112.156290 Y192.206027 Z-0.125000
G01 X110.489600 Y193.574941 Z-0.125000
G01 X108.788530 Y193.863803 Z-0.125000
G01 X107.279369 Y193.267342 Z-0.125000
G01 X105.378842 Y191.767185 Z-0.125000
G01 X96.290311 Y182.179057 Z-0.125000
G01 X89.865301 Y176.380795 Z-0.125000
G01 X83.639839 Y171.854401 Z-0.125000
G01 X76.641379 Y167.844614 Z-0.125000
G01 X69.090933 Y164.554891 Z-0.125000
G01 X60.692634 Y161.890552 Z-0.125000
G01 X53.610862 Y160.261698 Z-0.125000
G01 X39.720173 Y157.851296 Z-0.125000
G01 X35.084092 Y156.778975 Z-0.125000
G01 X31.886958 Y155.520295 Z-0.125000
G01 X29.566052 Y153.756014 Z-0.125000
G01 X28.377950 Y151.862399 Z-0.125000
G01 X27.660978 Y149.303109 Z-0.125000
G01 X25.384002 Y134.927556 Z-0.125000
G01 X24.387172 Y125.533064 Z-0.125000
G01 X24.113316 Y118.843567 Z-0.125000
G01 X24.292582 Y112.651120 Z-0.125000
G01 X24.928243 Y107.223487 Z-0.125000
G01 X25.974915 Y102.670899 Z-0.125000
G01 X27.720551 Y98.224544 Z-0.125000
G01 X29.909850 Y94.768470 Z-0.125000
G01 X32.719984 Y91.892122 Z-0.125000
G01 X36.559783 Y89.362574 Z-0.125000
G01 X41.183313 Y87.402838 Z-0.125000
G01 X46.545552 Y85.871939 Z-0.125000
G01 X64.647396 Y82.565299 Z-0.125000
G01 X80.455347 Y80.299055 Z-0.125000
G01 X90.788552 Y79.798275 Z-0.125000
G01 X103.986735 Y80.587008 Z-0.125000
G01 X124.202842 Y83.306373 Z-0.125000
G01 X130.452406 Y83.918296 Z-0.125000
G01 X135.898230 Y83.980689 Z-0.125000
G01 X144.856973 Y83.048343 Z-0.125000
G01 X148.093307 Y83.143478 Z-0.125000
G01 X150.189198 Y83.642530 Z-0.125000
G01 X152.424154 Y84.603344 Z-0.125000
G01 X156.956550 Y87.754548 Z-0.125000
G01 X162.180543 Y92.897957 Z-0.125000
G01 X167.688396 Y99.658033 Z-0.125000
G01 X172.495103 Y106.741170 Z-0.125000
G01 X175.895605 Y113.161359 Z-0.125000
G01 X177.858161 Y118.850024 Z-0.125000
G01 X178.622792 Y124.287299 Z-0.125000
G01 X178.530567 Y127.461240 Z-0.125000
G01 X178.109369 Y130.274286 Z-0.125000
G01 X177.224409 Y133.519806 Z-0.125000
G01 X176.090514 Y136.373779 Z-0.125000
G01 X172.537395 Y142.461904 Z-0.125000
G01 X167.534870 Y148.373310 Z-0.125000
G01 X162.180179 Y153.228039 Z-0.125000
G01 X155.598460 Y158.091135 Z-0.125000
G01 X149.015285 Y162.255541 Z-0.125000
G01 X132.976043 Y171.578272 Z-0.125000
G01 X125.815871 Y176.527227 Z-0.125000
G01 X122.330511 Y179.568652 Z-0.125000
G01 X119.160298 Y183.014903 Z-0.125000
G01 X111.581475 Y193.915555 Z-0.125000
G01 X109.894594 Y195.273464 Z-0.125000
G01 X108.338228 Y195.531039 Z-0.125000
G01 X106.833341 Y194.934941 Z-0.125000
G01 X104.946639 Y193.389672 Z-0.125000
G01 X95.574340 Y182.952874 Z-0.125000
G01 X89.083299 Y176.794898 Z-0.125000
G01 X82.788622 Y171.989101 Z-0.125000
G01 X75.707942 Y167.729378 Z-0.125000
G01 X69.265651 Y164.714875 Z-0.125000
G01 X61.993880 Y162.109018 Z-0.125000
G01 X52.972654 Y159.787930 Z-0.125000
G01 X34.345837 Y156.260914 Z-0.125000
G01 X30.436460 Y154.790498 Z-0.125000
G01 X28.127014 Y153.002479 Z-0.125000
G01 X27.043871 Y151.257479 Z-0.125000
G01 X26.329900 Y148.649167 Z-0.125000
G01 X23.994169 Y133.246496 Z-0.125000
G01 X23.050000 Y123.462094 Z-0.125000
G01 X22.853180 Y116.545308 Z-0.125000
G01 X23.132948 Y110.182327 Z-0.125000
G01 X23.883572 Y104.641641 Z-0.125000
G01 X25.052483 Y100.026570 Z-0.125000
G01 X27.158652 Y95.184847 Z-0.125000
G01 X29.842091 Y91.502394 Z-0.125000
G01 X33.304804 Y88.553558 Z-0.125000
G01 X37.573895 Y86.275127 Z-0.125000
G01 X42.635448 Y84.543862 Z-0.125000
G01 X48.985241 Y83.089271 Z-0.125000
G01 X74.066627 Y79.218822 Z-0.125000
G01 X85.644415 Y78.026809 Z-0.125000
G01 X96.073392 Y78.070011 Z-0.125000
G01 X108.181428 Y79.248199 Z-0.125000
G01 X133.018609 Y83.097457 Z-0.125000
G01 X138.084618 Y83.364036 Z-0.125000
G01 X146.462361 Y82.933744 Z-0.125000
G01 X149.418655 Y83.118285 Z-0.125000
G01 X151.650701 Y83.705378 Z-0.125000
G01 X153.820718 Y84.704392 Z-0.125000
G01 X158.522739 Y88.138000 Z-0.125000
G01 X164.053603 Y93.797742 Z-0.125000
G01 X169.911438 Y101.218674 Z-0.125000
G01 X174.660663 Y108.443786 Z-0.125000
G01 X177.816050 Y114.623863 Z-0.125000
G01 X179.727127 Y120.448228 Z-0.125000
G01 X180.396714 Y126.012107 Z-0.125000
G01 X180.227634 Y129.256718 Z-0.125000
G01 X179.726127 Y132.129609 Z-0.125000
G01 X178.734935 Y135.440160 Z-0.125000
G01 X177.496355 Y138.346704 Z-0.125000
G01 X175.657948 Y141.659074 Z-0.125000
G01 X173.687207 Y144.529146 Z-0.125000
G01 X168.395182 Y150.499943 Z-0.125000
G01 X162.773366 Y155.371225 Z-0.125000
G01 X155.899692 Y160.214403 Z-0.125000
G01 X149.055031 Y164.330968 Z-0.125000
G01 X132.976316 Y173.215494 Z-0.125000
G01 X125.188213 Y178.400650 Z-0.125000
G01 X121.655831 Y181.440347 Z-0.125000
G01 X118.725640 Y184.585638 Z-0.125000
G01 X111.010753 Y195.620717 Z-0.125000
G01 X109.302407 Y196.967803 Z-0.125000
G01 X107.729761 Y197.173990 Z-0.125000
G01 X106.211050 Y196.495582 Z-0.125000
G01 X104.308158 Y194.820160 Z-0.125000
G01 X94.850364 Y183.718323 Z-0.125000
G01 X88.294293 Y177.197723 Z-0.125000
G01 X81.933404 Y172.109885 Z-0.125000
G01 X74.774959 Y167.597043 Z-0.125000
G01 X68.259725 Y164.400000 Z-0.125000
G01 X60.903551 Y161.633704 Z-0.125000
G01 X51.183725 Y159.040944 Z-0.125000
G01 X32.949456 Y155.517020 Z-0.125000
G01 X29.021888 Y154.032143 Z-0.125000
G01 X26.724994 Y152.221658 Z-0.125000
G01 X25.669591 Y150.449010 Z-0.125000
G01 X25.031110 Y147.972759 Z-0.125000
G01 X22.634350 Y131.495039 Z-0.125000
G01 X21.750300 Y121.315361 Z-0.125000
G01 X21.637611 Y114.172379 Z-0.125000
G01 X22.024610 Y107.642865 Z-0.125000
G01 X22.895927 Y101.995037 Z-0.125000
G01 X24.191807 Y97.324031 Z-0.125000
G01 X26.470875 Y92.467392 Z-0.125000
G01 X29.332761 Y88.816773 Z-0.125000
G01 X32.992930 Y85.934695 Z-0.125000
G01 X37.477577 Y83.746579 Z-0.125000
G01 X42.769874 Y82.116452 Z-0.125000
G01 X49.383154 Y80.769366 Z-0.125000
G01 X78.659597 Y76.728473 Z-0.125000
G01 X89.111948 Y76.009500 Z-0.125000
G01 X100.315561 Y76.442248 Z-0.125000
G01 X112.458886 Y78.019078 Z-0.125000
G01 X135.916694 Y82.359111 Z-0.125000
G01 X140.548045 Y82.783037 Z-0.125000
G01 X148.092307 Y82.812869 Z-0.125000
G01 X150.781021 Y83.087907 Z-0.125000
G01 X152.933211 Y83.701012 Z-0.125000
G01 X155.236290 Y84.821083 Z-0.125000
G01 X157.782665 Y86.575632 Z-0.125000
G01 X160.359963 Y88.801311 Z-0.125000
G01 X166.238899 Y95.120544 Z-0.125000
G01 X172.428526 Y103.270635 Z-0.125000
G01 X177.042688 Y110.603161 Z-0.125000
G01 X180.045276 Y116.918483 Z-0.125000
G01 X181.667218 Y122.491276 Z-0.125000
G01 X182.147988 Y128.191855 Z-0.125000
G01 X181.843664 Y131.512411 Z-0.125000
G01 X181.208548 Y134.448514 Z-0.125000
G01 X178.873727 Y140.361648 Z-0.125000
G01 X175.124153 Y146.223485 Z-0.125000
G01 X169.635126 Y152.272319 Z-0.125000
G01 X163.812581 Y157.182983 Z-0.125000
G01 X156.698066 Y162.033164 Z-0.125000
G01 X149.615111 Y166.122807 Z-0.125000
G01 X132.491907 Y175.139850 Z-0.125000
G01 X124.940915 Y179.977116 Z-0.125000
G01 X121.303939 Y183.000805 Z-0.125000
G01 X118.029678 Y186.471613 Z-0.125000
G01 X110.446125 Y197.319422 Z-0.125000
G01 X108.714859 Y198.656139 Z-0.125000
G01 X107.124114 Y198.811121 Z-0.125000
G01 X105.589668 Y198.050401 Z-0.125000
G01 X103.873318 Y196.468205 Z-0.125000
G01 X94.483647 Y184.898785 Z-0.125000
G01 X87.954497 Y178.019471 Z-0.125000
G01 X81.073728 Y172.219118 Z-0.125000
G01 X73.842522 Y167.450520 Z-0.125000
G01 X66.646606 Y163.793716 Z-0.125000
G01 X59.202482 Y160.930011 Z-0.125000
G01 X49.405619 Y158.259851 Z-0.125000
G01 X31.230650 Y154.646431 Z-0.125000
G01 X27.644970 Y153.248230 Z-0.125000
G01 X25.361446 Y151.416372 Z-0.125000
G01 X24.333965 Y149.616802 Z-0.125000
G01 X23.765880 Y147.277160 Z-0.125000
G01 X21.361027 Y130.158504 Z-0.125000
G01 X20.489345 Y119.096322 Z-0.125000
G01 X20.468063 Y111.728961 Z-0.125000
G01 X20.969298 Y105.037554 Z-0.125000
G01 X21.967038 Y99.288860 Z-0.125000
G01 X23.394161 Y94.568922 Z-0.125000
G01 X25.612473 Y90.075544 Z-0.125000
G01 X28.583956 Y86.390545 Z-0.125000
G01 X32.367728 Y83.512288 Z-0.125000
G01 X37.454566 Y81.196930 Z-0.125000
G01 X42.978063 Y79.672307 Z-0.125000
G01 X49.854102 Y78.435455 Z-0.125000
G01 X82.096844 Y74.454681 Z-0.125000
G01 X92.712544 Y74.072047 Z-0.125000
G01 X104.682243 Y74.933723 Z-0.125000
G01 X116.792098 Y76.904828 Z-0.125000
G01 X138.491809 Y81.632680 Z-0.125000
G01 X152.178130 Y83.046433 Z-0.125000
G01 X154.445465 Y83.778412 Z-0.125000
G01 X156.882789 Y85.086298 Z-0.125000
G01 X161.924423 Y89.249248 Z-0.125000
G01 X168.114596 Y96.136747 Z-0.125000
G01 X174.645110 Y104.969976 Z-0.125000
G01 X178.969772 Y112.024372 Z-0.125000
G01 X181.948895 Y118.481488 Z-0.125000
G01 X183.509172 Y124.181249 Z-0.125000
G01 X183.879163 Y130.008070 Z-0.125000
G01 X183.488526 Y133.398749 Z-0.125000
G01 X182.765005 Y136.394062 Z-0.125000
G01 X180.220267 Y142.414882 Z-0.125000
G01 X176.224395 Y148.361850 Z-0.125000
G01 X170.442778 Y154.465073 Z-0.125000
G01 X164.352652 Y159.384741 Z-0.125000
G01 X156.948183 Y164.203635 Z-0.125000
G01 X149.607471 Y168.232432 Z-0.125000
G01 X132.489634 Y176.791260 Z-0.125000
G01 X124.701349 Y181.553945 Z-0.125000
G01 X120.959959 Y184.557716 Z-0.125000
G01 X117.603296 Y188.032981 Z-0.125000
G01 X109.727788 Y199.178748 Z-0.125000
G01 X108.134133 Y200.336472 Z-0.125000
G01 X106.523105 Y200.440703 Z-0.125000
G01 X104.970469 Y199.598035 Z-0.125000
G01 X103.234746 Y197.900785 Z-0.125000
G01 X93.747393 Y185.672420 Z-0.125000
G01 X87.155214 Y178.427845 Z-0.125000
G01 X80.209596 Y172.319256 Z-0.125000
G01 X72.910449 Y167.292901 Z-0.125000
G01 X65.646410 Y163.433274 Z-0.125000
