%
(Header)
(Generated by gcodetools from Inkscape.)
(Using default header. To add your own header create file "header" in the output dir.)
M3
(Header end.)
G21 (All units in mm)

(Start cutting path id: polyline204)
(Change tool to Default tool)

G00 Z5.000000
G00 X42.421662 Y138.222451

G00 Z4.875000 (Fast pre-penetrate)
G01 Z-0.125000 F100.0(Penetrate)
G01 X42.219861 Y120.670370 Z-0.125000 F800.000000
G01 X48.508423 Y110.269028 Z-0.125000
G01 X42.810912 Y94.483672 Z-0.125000
G01 X41.796225 Y80.730614 Z-0.125000
G01 X47.666768 Y64.062887 Z-0.125000
G01 X41.994162 Y53.676578 Z-0.125000
G01 X45.904492 Y38.484222 Z-0.125000
G01 X41.760151 Y23.094124 Z-0.125000
G01 X53.012856 Y10.523071 Z-0.125000
G00 Z5.000000

(End cutting path id: polyline204)


(Start cutting path id: polyline14)
(Change tool to Default tool)

G00 Z5.000000
G00 X52.828200 Y9.888185

G00 Z4.875000 (Fast pre-penetrate)
G01 Z-0.125000 F100.0(Penetrate)
G01 X39.929167 Y23.329109 Z-0.125000 F800.000000
G01 X44.976694 Y38.552182 Z-0.125000
G01 X40.339978 Y54.028910 Z-0.125000
G01 X46.608084 Y63.683670 Z-0.125000
G01 X39.836530 Y80.708762 Z-0.125000
G01 X40.830567 Y94.259987 Z-0.125000
G01 X47.631733 Y110.431735 Z-0.125000
G01 X40.680945 Y120.628874 Z-0.125000
G01 X41.231539 Y138.747004 Z-0.125000
G00 Z5.000000

(End cutting path id: polyline14)


(Start cutting path id: polyline16)
(Change tool to Default tool)

G00 Z5.000000
G00 X40.210325 Y138.185045

G00 Z4.875000 (Fast pre-penetrate)
G01 Z-0.125000 F100.0(Penetrate)
G01 X39.861695 Y121.083811 Z-0.125000 F800.000000
G01 X45.912771 Y109.674015 Z-0.125000
G01 X39.993783 Y94.262682 Z-0.125000
G01 X38.646375 Y80.829648 Z-0.125000
G01 X44.980882 Y64.211340 Z-0.125000
G01 X39.139951 Y53.588097 Z-0.125000
G01 X44.262516 Y38.635889 Z-0.125000
G01 X39.029294 Y23.774013 Z-0.125000
G01 X50.487470 Y10.124177 Z-0.125000
G00 Z5.000000

(End cutting path id: polyline16)


(Start cutting path id: polyline18)
(Change tool to Default tool)

G00 Z5.000000
G00 X54.859360 Y16.871963

G00 Z4.875000 (Fast pre-penetrate)
G01 Z-0.125000 F100.0(Penetrate)
G01 X60.069756 Y20.744108 Z-0.125000 F800.000000
G01 X55.182599 Y37.804495 Z-0.125000
G01 X58.536101 Y50.153291 Z-0.125000
G01 X58.253709 Y67.855123 Z-0.125000
G01 X61.393298 Y80.949170 Z-0.125000
G01 X62.614625 Y96.720368 Z-0.125000
G01 X57.275388 Y108.641761 Z-0.125000
G01 X57.608758 Y121.085402 Z-0.125000
G01 X54.322826 Y132.976630 Z-0.125000
G00 Z5.000000

(End cutting path id: polyline18)


(Start cutting path id: polyline20)
(Change tool to Default tool)

G00 Z5.000000
G00 X53.132703 Y133.501216

G00 Z4.875000 (Fast pre-penetrate)
G01 Z-0.125000 F100.0(Penetrate)
G01 X56.069874 Y121.043905 Z-0.125000 F800.000000
G01 X56.398698 Y108.804501 Z-0.125000
G01 X60.634280 Y96.496683 Z-0.125000
G01 X59.433604 Y80.927285 Z-0.125000
G01 X57.195025 Y67.475873 Z-0.125000
G01 X56.881917 Y50.505623 Z-0.125000
G01 X54.254769 Y37.872455 Z-0.125000
G01 X58.238805 Y20.979126 Z-0.125000
G01 X54.674703 Y16.237077 Z-0.125000
G00 Z5.000000

(End cutting path id: polyline20)


(Start cutting path id: polyline22)
(Change tool to Default tool)

G00 Z5.000000
G00 X65.805939 Y10.036963

G00 Z4.875000 (Fast pre-penetrate)
G01 Z-0.125000 F100.0(Penetrate)
G01 X73.026877 Y31.546390 Z-0.125000 F800.000000
G01 X72.955476 Y43.981718 Z-0.125000
G01 X66.551190 Y56.920558 Z-0.125000
G01 X72.977718 Y64.822977 Z-0.125000
G01 X74.503191 Y87.999413 Z-0.125000
G01 X67.422458 Y97.755252 Z-0.125000
G01 X64.722383 Y105.239457 Z-0.125000
G01 X68.178262 Y124.164889 Z-0.125000
G01 X74.983097 Y133.126349 Z-0.125000
G00 Z5.000000

(End cutting path id: polyline22)


(Start cutting path id: polyline24)
(Change tool to Default tool)

G00 Z5.000000
G00 X76.148478 Y133.592359

G00 Z4.875000 (Fast pre-penetrate)
G01 Z-0.125000 F100.0(Penetrate)
G01 X69.912874 Y123.858307 Z-0.125000 F800.000000
G01 X66.639249 Y104.819815 Z-0.125000
G01 X69.699157 Y97.585889 Z-0.125000
G01 X75.532944 Y87.034113 Z-0.125000
G01 X74.092348 Y64.700045 Z-0.125000
G01 X68.226480 Y57.018910 Z-0.125000
G01 X74.300546 Y43.254227 Z-0.125000
G01 X74.524329 Y31.258186 Z-0.125000
G01 X67.453889 Y10.524760 Z-0.125000
G00 Z5.000000

(End cutting path id: polyline24)


(Start cutting path id: polyline26)
(Change tool to Default tool)

G00 Z5.000000
G00 X83.933420 Y15.402955

G00 Z4.875000 (Fast pre-penetrate)
G01 Z-0.125000 F100.0(Penetrate)
G01 X89.498908 Y28.376311 Z-0.125000 F800.000000
G01 X87.751016 Y35.979486 Z-0.125000
G01 X84.979442 Y58.002556 Z-0.125000
G01 X85.830578 Y77.381334 Z-0.125000
G01 X92.466082 Y95.892416 Z-0.125000
G01 X85.807978 Y100.623555 Z-0.125000
G01 X87.258673 Y120.792490 Z-0.125000
G01 X87.802091 Y138.252648 Z-0.125000
G00 Z5.000000

(End cutting path id: polyline26)


(Start cutting path id: polyline28)
(Change tool to Default tool)

G00 Z5.000000
G00 X88.933736 Y138.238621

G00 Z4.875000 (Fast pre-penetrate)
G01 Z-0.125000 F100.0(Penetrate)
G01 X88.444283 Y121.274182 Z-0.125000 F800.000000
G01 X87.247276 Y101.307146 Z-0.125000
G01 X93.217308 Y95.735099 Z-0.125000
G01 X87.378877 Y77.146738 Z-0.125000
G01 X85.977147 Y63.684514 Z-0.125000
G01 X86.036340 Y57.968787 Z-0.125000
G01 X89.007637 Y36.710289 Z-0.125000
G01 X89.913778 Y28.240586 Z-0.125000
G01 X85.274983 Y15.422827 Z-0.125000
G00 Z5.000000

(End cutting path id: polyline28)


(Start cutting path id: polyline30)
(Change tool to Default tool)

G00 Z5.000000
G00 X98.690516 Y15.621413

G00 Z4.875000 (Fast pre-penetrate)
G01 Z-0.125000 F100.0(Penetrate)
G01 X94.062502 Y26.883503 Z-0.125000 F800.000000
G01 X101.573949 Y44.018571 Z-0.125000
G01 X96.605325 Y57.631456 Z-0.125000
G01 X93.361442 Y65.820910 Z-0.125000
G01 X102.861969 Y74.800423 Z-0.125000
G01 X100.729762 Y94.161992 Z-0.125000
G01 X101.640221 Y108.143152 Z-0.125000
G01 X100.300249 Y126.091204 Z-0.125000
G01 X100.249985 Y138.098416 Z-0.125000
G00 Z5.000000

(End cutting path id: polyline30)


(Start cutting path id: polyline32)
(Change tool to Default tool)

G00 Z5.000000
G00 X99.118373 Y138.112443

G00 Z4.875000 (Fast pre-penetrate)
G01 Z-0.125000 F100.0(Penetrate)
G01 X99.114639 Y125.609512 Z-0.125000 F800.000000
G01 X100.200923 Y107.459529 Z-0.125000
G01 X99.978503 Y94.319277 Z-0.125000
G01 X101.313670 Y75.035052 Z-0.125000
G01 X92.623009 Y65.607290 Z-0.125000
G01 X95.548427 Y57.665193 Z-0.125000
G01 X100.317328 Y43.287736 Z-0.125000
G01 X93.647633 Y27.019227 Z-0.125000
G01 X97.348985 Y15.601542 Z-0.125000
G00 Z5.000000

(End cutting path id: polyline32)


(Start cutting path id: polyline34)
(Change tool to Default tool)

G00 Z5.000000
G00 X116.784521 Y9.823245

G00 Z4.875000 (Fast pre-penetrate)
G01 Z-0.125000 F100.0(Penetrate)
G01 X113.670356 Y24.588978 Z-0.125000 F800.000000
G01 X116.452385 Y40.031937 Z-0.125000
G01 X114.652671 Y53.226933 Z-0.125000
G01 X111.910287 Y69.015536 Z-0.125000
G01 X120.122697 Y84.641658 Z-0.125000
G01 X109.532996 Y92.660482 Z-0.125000
G01 X114.467819 Y105.596725 Z-0.125000
G01 X112.071013 Y121.867182 Z-0.125000
G01 X113.926804 Y138.461008 Z-0.125000
G00 Z5.000000

(End cutting path id: polyline34)


(Start cutting path id: polyline36)
(Change tool to Default tool)

G00 Z5.000000
G00 X115.134428 Y138.237225

G00 Z4.875000 (Fast pre-penetrate)
G01 Z-0.125000 F100.0(Penetrate)
G01 X113.364683 Y121.950533 Z-0.125000 F800.000000
G01 X115.324897 Y106.060104 Z-0.125000
G01 X110.675583 Y92.795784 Z-0.125000
G01 X120.865123 Y84.213931 Z-0.125000
G01 X113.772441 Y68.776492 Z-0.125000
G01 X115.371589 Y53.522930 Z-0.125000
G01 X117.608057 Y40.022878 Z-0.125000
G01 X114.643676 Y24.684602 Z-0.125000
G01 X117.892657 Y9.971438 Z-0.125000
G00 Z5.000000

(End cutting path id: polyline36)


(Start cutting path id: polyline38)
(Change tool to Default tool)

G00 Z5.000000
G00 X128.974116 Y11.453402

G00 Z4.875000 (Fast pre-penetrate)
G01 Z-0.125000 F100.0(Penetrate)
G01 X124.377078 Y25.640811 Z-0.125000 F800.000000
G01 X129.164650 Y39.932222 Z-0.125000
G01 X122.560707 Y56.482863 Z-0.125000
G01 X132.394084 Y66.386278 Z-0.125000
G01 X128.289161 Y79.936788 Z-0.125000
G01 X122.101353 Y94.148809 Z-0.125000
G01 X123.895711 Y110.693930 Z-0.125000
G01 X126.301153 Y122.784167 Z-0.125000
G01 X127.210378 Y135.999327 Z-0.125000
G00 Z5.000000

(End cutting path id: polyline38)


(Start cutting path id: polyline40)
(Change tool to Default tool)

G00 Z5.000000
G00 X127.924556 Y136.019978

G00 Z4.875000 (Fast pre-penetrate)
G01 Z-0.125000 F100.0(Penetrate)
G01 X127.510823 Y122.562495 Z-0.125000 F800.000000
G01 X125.380661 Y110.190256 Z-0.125000
G01 X124.028286 Y94.308334 Z-0.125000
G01 X129.179197 Y80.062154 Z-0.125000
G01 X133.538554 Y66.237143 Z-0.125000
G01 X124.091342 Y55.973700 Z-0.125000
G01 X130.767369 Y39.759384 Z-0.125000
G01 X125.755138 Y25.784361 Z-0.125000
G01 X130.560405 Y11.823462 Z-0.125000
G00 Z5.000000

(End cutting path id: polyline40)


(Start cutting path id: polyline42)
(Change tool to Default tool)

G00 Z5.000000
G00 X146.423494 Y15.524133

G00 Z4.875000 (Fast pre-penetrate)
G01 Z-0.125000 F100.0(Penetrate)
G01 X139.535893 Y27.219665 Z-0.125000 F800.000000
G01 X146.794756 Y38.030941 Z-0.125000
G01 X139.397668 Y50.881982 Z-0.125000
G01 X144.983320 Y64.745861 Z-0.125000
G01 X138.079386 Y81.315561 Z-0.125000
G01 X143.297802 Y95.903780 Z-0.125000
G01 X140.229971 Y105.153607 Z-0.125000
G01 X139.607781 Y120.345638 Z-0.125000
G01 X135.066332 Y136.226715 Z-0.125000
G00 Z5.000000

(End cutting path id: polyline42)


(Start cutting path id: polyline44)
(Change tool to Default tool)

G00 Z5.000000
G00 X134.352155 Y136.206064

G00 Z4.875000 (Fast pre-penetrate)
G01 Z-0.125000 F100.0(Penetrate)
G01 X138.398079 Y120.567311 Z-0.125000 F800.000000
G01 X138.745053 Y105.657249 Z-0.125000
G01 X141.370870 Y95.744223 Z-0.125000
G01 X137.189351 Y81.190227 Z-0.125000
G01 X143.838850 Y64.894995 Z-0.125000
G01 X137.867032 Y51.391144 Z-0.125000
G01 X145.192004 Y38.203779 Z-0.125000
G01 X138.157833 Y27.076115 Z-0.125000
G01 X144.837172 Y15.154072 Z-0.125000
G00 Z5.000000

(End cutting path id: polyline44)


(Start cutting path id: polyline10)
(Change tool to Default tool)

G00 Z5.000000
G00 X27.080399 Y12.483934

G00 Z4.875000 (Fast pre-penetrate)
G01 Z-0.125000 F100.0(Penetrate)
G01 X30.030493 Y28.222988 Z-0.125000 F800.000000
G01 X37.120805 Y39.472836 Z-0.125000
G01 X27.139819 Y49.180165 Z-0.125000
G01 X28.709029 Y69.488072 Z-0.125000
G01 X26.744984 Y82.038279 Z-0.125000
G01 X31.626166 Y94.289632 Z-0.125000
G01 X28.723218 Y102.096719 Z-0.125000
G01 X31.668962 Y125.633183 Z-0.125000
G01 X29.998023 Y132.565463 Z-0.125000
G00 Z5.000000

(End cutting path id: polyline10)


(Start cutting path id: polyline12)
(Change tool to Default tool)

G00 Z5.000000
G00 X29.377229 Y132.644040

G00 Z4.875000 (Fast pre-penetrate)
G01 Z-0.125000 F100.0(Penetrate)
G01 X30.295773 Y125.135612 Z-0.125000 F800.000000
G01 X27.392370 Y103.238039 Z-0.125000
G01 X30.020330 Y94.370612 Z-0.125000
G01 X26.447201 Y81.954863 Z-0.125000
G01 X27.886272 Y69.266496 Z-0.125000
G01 X26.036878 Y49.783750 Z-0.125000
G01 X35.331188 Y39.599534 Z-0.125000
G01 X28.770430 Y28.247373 Z-0.125000
G01 X25.464594 Y12.269990 Z-0.125000
G00 Z5.000000

(End cutting path id: polyline12)


(Start cutting path id: polyline6)
(Change tool to Default tool)

G00 Z5.000000
G00 X9.306418 Y10.130866

G00 Z4.875000 (Fast pre-penetrate)
G01 Z-0.125000 F100.0(Penetrate)
G01 X16.169959 Y28.491093 Z-0.125000 F800.000000
G01 X17.435055 Y40.866384 Z-0.125000
G01 X15.007598 Y55.819598 Z-0.125000
G01 X19.658828 Y67.050938 Z-0.125000
G01 X23.469150 Y81.120904 Z-0.125000
G01 X13.961902 Y95.180219 Z-0.125000
G01 X14.083892 Y114.651277 Z-0.125000
G01 X16.563918 Y120.159974 Z-0.125000
G01 X23.169290 Y133.429944 Z-0.125000
G00 Z5.000000

(End cutting path id: polyline6)


(Start cutting path id: polyline8)
(Change tool to Default tool)

G00 Z5.000000
G00 X23.790084 Y133.351366

G00 Z4.875000 (Fast pre-penetrate)
G01 Z-0.125000 F100.0(Penetrate)
G01 X17.937106 Y120.657545 Z-0.125000 F800.000000
G01 X15.414739 Y113.509924 Z-0.125000
G01 X15.567738 Y95.099239 Z-0.125000
G01 X23.766965 Y81.204287 Z-0.125000
G01 X20.481586 Y67.272481 Z-0.125000
G01 X16.110507 Y55.215981 Z-0.125000
G01 X19.224672 Y40.739686 Z-0.125000
G01 X17.429990 Y28.466740 Z-0.125000
G01 X10.922223 Y10.344778 Z-0.125000
G00 Z5.000000

(End cutting path id: polyline8)


(Start cutting path id: polyline128)
(Change tool to Default tool)

G00 Z5.000000
G00 X26.273259 Y133.036992

G00 Z4.875000 (Fast pre-penetrate)
G01 Z-0.125000 F100.0(Penetrate)
G01 X23.429861 Y122.647826 Z-0.125000 F800.000000
G01 X20.738131 Y108.944642 Z-0.125000
G01 X21.991116 Y94.775415 Z-0.125000
G01 X24.958192 Y81.537883 Z-0.125000
G01 X23.772550 Y68.158717 Z-0.125000
G01 X20.522238 Y52.801674 Z-0.125000
G01 X26.383105 Y40.232959 Z-0.125000
G01 X22.470178 Y28.369233 Z-0.125000
G01 X17.385506 Y11.200428 Z-0.125000
G00 Z5.000000

(End cutting path id: polyline128)


(Start cutting path id: polyline120)
(Change tool to Default tool)

G00 Z5.000000
G00 X28.756435 Y132.722617

G00 Z4.875000 (Fast pre-penetrate)
G01 Z-0.125000 F100.0(Penetrate)
G01 X28.922584 Y124.638074 Z-0.125000 F800.000000
G01 X26.061523 Y104.379360 Z-0.125000
G01 X28.414494 Y94.451560 Z-0.125000
G01 X26.149386 Y81.871480 Z-0.125000
G01 X27.063514 Y69.044954 Z-0.125000
G01 X24.933969 Y50.387334 Z-0.125000
G01 X33.541571 Y39.726200 Z-0.125000
G01 X27.510366 Y28.271725 Z-0.125000
G01 X23.848757 Y12.056077 Z-0.125000
G00 Z5.000000

(End cutting path id: polyline120)


(Start cutting path id: polyline122)
(Change tool to Default tool)

G00 Z5.000000
G00 X28.135641 Y132.801227

G00 Z4.875000 (Fast pre-penetrate)
G01 Z-0.125000 F100.0(Penetrate)
G01 X27.549395 Y124.140504 Z-0.125000 F800.000000
G01 X24.730675 Y105.520680 Z-0.125000
G01 X26.808657 Y94.532507 Z-0.125000
G01 X25.851572 Y81.788065 Z-0.125000
G01 X26.240789 Y68.823411 Z-0.125000
G01 X23.831028 Y50.990919 Z-0.125000
G01 X31.751955 Y39.852897 Z-0.125000
G01 X26.250336 Y28.296110 Z-0.125000
G01 X22.232952 Y11.842165 Z-0.125000
G00 Z5.000000

(End cutting path id: polyline122)


(Start cutting path id: polyline124)
(Change tool to Default tool)

G00 Z5.000000
G00 X27.514847 Y132.879837

G00 Z4.875000 (Fast pre-penetrate)
G01 Z-0.125000 F100.0(Penetrate)
G01 X26.176239 Y123.642934 Z-0.125000 F800.000000
G01 X23.399827 Y106.662001 Z-0.125000
G01 X25.202788 Y94.613488 Z-0.125000
G01 X25.553789 Y81.704682 Z-0.125000
G01 X25.418032 Y68.601835 Z-0.125000
G01 X22.728087 Y51.594504 Z-0.125000
G01 X29.962338 Y39.979563 Z-0.125000
G01 X24.990272 Y28.320495 Z-0.125000
G01 X20.617148 Y11.628253 Z-0.125000
G00 Z5.000000

(End cutting path id: polyline124)


(Start cutting path id: polyline126)
(Change tool to Default tool)

G00 Z5.000000
G00 X26.894053 Y132.958415

G00 Z4.875000 (Fast pre-penetrate)
G01 Z-0.125000 F100.0(Penetrate)
G01 X24.803050 Y123.145396 Z-0.125000 F800.000000
G01 X22.068979 Y107.803321 Z-0.125000
G01 X23.596952 Y94.694435 Z-0.125000
G01 X25.255974 Y81.621299 Z-0.125000
G01 X24.595307 Y68.380260 Z-0.125000
G01 X21.625179 Y52.198089 Z-0.125000
G01 X28.172722 Y40.106261 Z-0.125000
G01 X23.730241 Y28.344848 Z-0.125000
G01 X19.001311 Y11.414340 Z-0.125000
G00 Z5.000000

(End cutting path id: polyline126)


(Start cutting path id: polyline130)
(Change tool to Default tool)

G00 Z5.000000
G00 X25.652465 Y133.115602

G00 Z4.875000 (Fast pre-penetrate)
G01 Z-0.125000 F100.0(Penetrate)
G01 X22.056673 Y122.150256 Z-0.125000 F800.000000
G01 X19.407283 Y110.085962 Z-0.125000
G01 X20.385279 Y94.856363 Z-0.125000
G01 X24.660377 Y81.454468 Z-0.125000
G01 X22.949825 Y67.937175 Z-0.125000
G01 X19.419297 Y53.405259 Z-0.125000
G01 X24.593489 Y40.359624 Z-0.125000
G01 X21.210147 Y28.393618 Z-0.125000
G01 X15.769669 Y10.986515 Z-0.125000
G00 Z5.000000

(End cutting path id: polyline130)


(Start cutting path id: polyline132)
(Change tool to Default tool)

G00 Z5.000000
G00 X25.031672 Y133.194179

G00 Z4.875000 (Fast pre-penetrate)
G01 Z-0.125000 F100.0(Penetrate)
G01 X20.683484 Y121.652685 Z-0.125000 F800.000000
G01 X18.076435 Y111.227283 Z-0.125000
G01 X18.779443 Y94.937311 Z-0.125000
G01 X24.362562 Y81.371085 Z-0.125000
G01 X22.127068 Y67.715599 Z-0.125000
G01 X18.316388 Y54.008843 Z-0.125000
G01 X22.803905 Y40.486322 Z-0.125000
G01 X19.950084 Y28.417970 Z-0.125000
G01 X14.153864 Y10.772603 Z-0.125000
G00 Z5.000000

(End cutting path id: polyline132)


(Start cutting path id: polyline134)
(Change tool to Default tool)

G00 Z5.000000
G00 X24.410878 Y133.272757

G00 Z4.875000 (Fast pre-penetrate)
G01 Z-0.125000 F100.0(Penetrate)
G01 X19.310295 Y121.155115 Z-0.125000 F800.000000
G01 X16.745587 Y112.368603 Z-0.125000
G01 X17.173574 Y95.018291 Z-0.125000
G01 X24.064780 Y81.287702 Z-0.125000
G01 X21.304343 Y67.494056 Z-0.125000
G01 X17.213448 Y54.612428 Z-0.125000
G01 X21.014288 Y40.612988 Z-0.125000
G01 X18.690053 Y28.442355 Z-0.125000
G01 X12.538060 Y10.558691 Z-0.125000
G00 Z5.000000

(End cutting path id: polyline134)


(Start cutting path id: polyline118)
(Change tool to Default tool)

G00 Z5.000000
G00 X31.019237 Y133.127421

G00 Z4.875000 (Fast pre-penetrate)
G01 Z-0.125000 F100.0(Penetrate)
G01 X32.488245 Y125.178245 Z-0.125000 F800.000000
G01 X30.442180 Y102.854438 Z-0.125000
G01 X32.462951 Y94.286937 Z-0.125000
G01 X27.935139 Y81.917393 Z-0.125000
G01 X30.336198 Y68.960402 Z-0.125000
G01 X28.339813 Y49.620977 Z-0.125000
G01 X37.834982 Y39.389128 Z-0.125000
G01 X30.930367 Y27.778084 Z-0.125000
G01 X29.421096 Y12.247943 Z-0.125000
G00 Z5.000000

(End cutting path id: polyline118)


(Start cutting path id: polyline136)
(Change tool to Default tool)

G00 Z5.000000
G00 X32.040483 Y133.689379

G00 Z4.875000 (Fast pre-penetrate)
G01 Z-0.125000 F100.0(Penetrate)
G01 X33.307495 Y124.723308 Z-0.125000 F800.000000
G01 X32.161142 Y103.612191 Z-0.125000
G01 X33.299702 Y94.284242 Z-0.125000
G01 X29.125262 Y81.796540 Z-0.125000
G01 X31.963400 Y68.432732 Z-0.125000
G01 X29.539839 Y50.061758 Z-0.125000
G01 X38.549160 Y39.305453 Z-0.125000
G01 X31.830240 Y27.333180 Z-0.125000
G01 X31.761826 Y12.011983 Z-0.125000
G00 Z5.000000

(End cutting path id: polyline136)


(Start cutting path id: polyline138)
(Change tool to Default tool)

G00 Z5.000000
G00 X33.061730 Y134.251337

G00 Z4.875000 (Fast pre-penetrate)
G01 Z-0.125000 F100.0(Penetrate)
G01 X34.126778 Y124.268371 Z-0.125000 F800.000000
G01 X33.880071 Y104.369911 Z-0.125000
G01 X34.136454 Y94.281547 Z-0.125000
G01 X30.315417 Y81.675686 Z-0.125000
G01 X33.590569 Y67.905062 Z-0.125000
G01 X30.739865 Y50.502538 Z-0.125000
G01 X39.263305 Y39.221746 Z-0.125000
G01 X32.730114 Y26.888276 Z-0.125000
G01 X34.102523 Y11.775991 Z-0.125000
G00 Z5.000000

(End cutting path id: polyline138)


(Start cutting path id: polyline140)
(Change tool to Default tool)

G00 Z5.000000
G00 X34.082944 Y134.813296

G00 Z4.875000 (Fast pre-penetrate)
G01 Z-0.125000 F100.0(Penetrate)
G01 X34.946061 Y123.813434 Z-0.125000 F800.000000
G01 X35.599033 Y105.127663 Z-0.125000
G01 X34.973239 Y94.278852 Z-0.125000
G01 X31.505540 Y81.554833 Z-0.125000
G01 X35.217770 Y67.377392 Z-0.125000
G01 X31.939859 Y50.943351 Z-0.125000
G01 X39.977483 Y39.138038 Z-0.125000
G01 X33.630020 Y26.443404 Z-0.125000
G01 X36.443221 Y11.540032 Z-0.125000
G00 Z5.000000

(End cutting path id: polyline140)


(Start cutting path id: polyline98)
(Change tool to Default tool)

G00 Z5.000000
G00 X56.201021 Y132.990235

G00 Z4.875000 (Fast pre-penetrate)
G01 Z-0.125000 F100.0(Penetrate)
G01 X58.569642 Y121.365358 Z-0.125000 F800.000000
G01 X57.952388 Y108.332485 Z-0.125000
G01 X63.051704 Y96.814434 Z-0.125000
G01 X62.585110 Y81.590095 Z-0.125000
G01 X59.592252 Y67.579453 Z-0.125000
G01 X59.264760 Y50.768500 Z-0.125000
G01 X56.798306 Y38.366031 Z-0.125000
G01 X61.247670 Y21.726130 Z-0.125000
G01 X55.854501 Y16.250584 Z-0.125000
G00 Z5.000000

(End cutting path id: polyline98)


(Start cutting path id: polyline96)
(Change tool to Default tool)

G00 Z5.000000
G00 X58.079215 Y133.003840

G00 Z4.875000 (Fast pre-penetrate)
G01 Z-0.125000 F100.0(Penetrate)
G01 X59.530495 Y121.645315 Z-0.125000 F800.000000
G01 X58.629387 Y108.023175 Z-0.125000
G01 X63.488782 Y96.908532 Z-0.125000
G01 X63.776921 Y82.231021 Z-0.125000
G01 X60.930796 Y67.303815 Z-0.125000
G01 X59.993387 Y51.383709 Z-0.125000
G01 X58.414014 Y38.927600 Z-0.125000
G01 X62.425585 Y22.708153 Z-0.125000
G01 X56.849674 Y15.629238 Z-0.125000
G00 Z5.000000

(End cutting path id: polyline96)


(Start cutting path id: polyline100)
(Change tool to Default tool)

G00 Z5.000000
G00 X59.957443 Y133.017477

G00 Z4.875000 (Fast pre-penetrate)
G01 Z-0.125000 F100.0(Penetrate)
G01 X60.491379 Y121.925271 Z-0.125000 F800.000000
G01 X59.306387 Y107.713866 Z-0.125000
G01 X63.925861 Y97.002598 Z-0.125000
G01 X64.968732 Y82.871946 Z-0.125000
G01 X62.269339 Y67.028177 Z-0.125000
G01 X60.722046 Y51.998918 Z-0.125000
G01 X60.029753 Y39.489169 Z-0.125000
G01 X63.603531 Y23.690176 Z-0.125000
G01 X57.844814 Y15.007860 Z-0.125000
G00 Z5.000000

(End cutting path id: polyline100)


(Start cutting path id: polyline94)
(Change tool to Default tool)

G00 Z5.000000
G00 X61.835637 Y133.031082

G00 Z4.875000 (Fast pre-penetrate)
G01 Z-0.125000 F100.0(Penetrate)
G01 X61.452231 Y122.205227 Z-0.125000 F800.000000
G01 X59.983386 Y107.404557 Z-0.125000
G01 X64.362940 Y97.096663 Z-0.125000
G01 X66.160511 Y83.512871 Z-0.125000
G01 X61.450673 Y52.614127 Z-0.125000
G01 X61.645460 Y40.050737 Z-0.125000
G01 X64.781446 Y24.672198 Z-0.125000
G01 X58.839955 Y14.386514 Z-0.125000
G00 Z5.000000

(End cutting path id: polyline94)


(Start cutting path id: polyline102)
(Change tool to Default tool)

G00 Z5.000000
G00 X63.713864 Y133.044687

G00 Z4.875000 (Fast pre-penetrate)
G01 Z-0.125000 F100.0(Penetrate)
G01 X60.660386 Y107.095248 Z-0.125000 F800.000000
G01 X64.800018 Y97.190761 Z-0.125000
G01 X67.352323 Y84.153797 Z-0.125000
G01 X64.946426 Y66.476869 Z-0.125000
G01 X62.179332 Y53.229304 Z-0.125000
G01 X63.261168 Y40.612306 Z-0.125000
G01 X65.959360 Y25.654254 Z-0.125000
G01 X59.835096 Y13.765136 Z-0.125000
G00 Z5.000000

(End cutting path id: polyline102)


(Start cutting path id: polyline104)
(Change tool to Default tool)

G00 Z5.000000
G00 X65.592059 Y133.058292

G00 Z4.875000 (Fast pre-penetrate)
G01 Z-0.125000 F100.0(Penetrate)
G01 X63.373968 Y122.765140 Z-0.125000 F800.000000
G01 X61.337385 Y106.785971 Z-0.125000
G01 X65.237097 Y97.284859 Z-0.125000
G01 X68.544134 Y84.794754 Z-0.125000
G01 X66.284969 Y66.201199 Z-0.125000
G01 X62.907959 Y53.844513 Z-0.125000
G01 X67.137274 Y26.636244 Z-0.125000
G01 X60.830236 Y13.143790 Z-0.125000
G00 Z5.000000

(End cutting path id: polyline104)


(Start cutting path id: polyline92)
(Change tool to Default tool)

G00 Z5.000000
G00 X67.470286 Y133.071897

G00 Z4.875000 (Fast pre-penetrate)
G01 Z-0.125000 F100.0(Penetrate)
G01 X64.334821 Y123.045096 Z-0.125000 F800.000000
G01 X62.014385 Y106.476662 Z-0.125000
G01 X65.674176 Y97.378925 Z-0.125000
G01 X69.735945 Y85.435680 Z-0.125000
G01 X67.623512 Y65.925561 Z-0.125000
G01 X63.636618 Y54.459722 Z-0.125000
G01 X66.492615 Y41.735443 Z-0.125000
G01 X68.315188 Y27.618266 Z-0.125000
G01 X61.825377 Y12.522411 Z-0.125000
G00 Z5.000000

(End cutting path id: polyline92)


(Start cutting path id: polyline106)
(Change tool to Default tool)

G00 Z5.000000
G00 X69.348481 Y133.085502

G00 Z4.875000 (Fast pre-penetrate)
G01 Z-0.125000 F100.0(Penetrate)
G01 X65.295673 Y123.325053 Z-0.125000 F800.000000
G01 X62.691384 Y106.167353 Z-0.125000
G01 X66.111254 Y97.472991 Z-0.125000
G01 X70.927757 Y86.076605 Z-0.125000
G01 X68.962055 Y65.649923 Z-0.125000
G01 X64.365245 Y55.074931 Z-0.125000
G01 X68.108322 Y42.297012 Z-0.125000
G01 X69.493102 Y28.600322 Z-0.125000
G01 X62.820517 Y11.901066 Z-0.125000
G00 Z5.000000

(End cutting path id: polyline106)


(Start cutting path id: polyline108)
(Change tool to Default tool)

G00 Z5.000000
G00 X71.226708 Y133.099107

G00 Z4.875000 (Fast pre-penetrate)
G01 Z-0.125000 F100.0(Penetrate)
G01 X66.256558 Y123.605009 Z-0.125000 F800.000000
G01 X63.368384 Y105.858043 Z-0.125000
G01 X66.548333 Y97.567089 Z-0.125000
G01 X72.119568 Y86.717530 Z-0.125000
G01 X70.300599 Y65.374253 Z-0.125000
G01 X65.093904 Y55.690140 Z-0.125000
G01 X69.724061 Y42.858580 Z-0.125000
G01 X70.671049 Y29.582344 Z-0.125000
G01 X63.815658 Y11.279687 Z-0.125000
G00 Z5.000000

(End cutting path id: polyline108)


(Start cutting path id: polyline110)
(Change tool to Default tool)

G00 Z5.000000
G00 X73.104903 Y133.112712

G00 Z4.875000 (Fast pre-penetrate)
G01 Z-0.125000 F100.0(Penetrate)
G01 X67.217410 Y123.884965 Z-0.125000 F800.000000
G01 X64.045383 Y105.548734 Z-0.125000
G01 X66.985412 Y97.661154 Z-0.125000
G01 X73.311379 Y87.358488 Z-0.125000
G01 X71.639142 Y65.098615 Z-0.125000
G01 X65.822531 Y56.305349 Z-0.125000
G01 X71.339769 Y43.420149 Z-0.125000
G01 X71.848963 Y30.564367 Z-0.125000
G01 X64.810798 Y10.658309 Z-0.125000
G00 Z5.000000

(End cutting path id: polyline110)


(Start cutting path id: polyline90)
(Change tool to Default tool)

G00 Z5.000000
G00 X77.313827 Y134.058401

G00 Z4.875000 (Fast pre-penetrate)
G01 Z-0.125000 F100.0(Penetrate)
G01 X71.647454 Y123.551726 Z-0.125000 F800.000000
G01 X68.556116 Y104.400205 Z-0.125000
G01 X71.975856 Y97.416558 Z-0.125000
G01 X76.562698 Y86.068845 Z-0.125000
G01 X75.206978 Y64.577114 Z-0.125000
G01 X69.901770 Y57.117261 Z-0.125000
G01 X75.645583 Y42.526770 Z-0.125000
G01 X76.021780 Y30.970015 Z-0.125000
G01 X69.101839 Y11.012589 Z-0.125000
G00 Z5.000000

(End cutting path id: polyline90)


(Start cutting path id: polyline152)
(Change tool to Default tool)

G00 Z5.000000
G00 X78.479207 Y134.524410

G00 Z4.875000 (Fast pre-penetrate)
G01 Z-0.125000 F100.0(Penetrate)
G01 X73.382034 Y123.245176 Z-0.125000 F800.000000
G01 X70.472982 Y103.980563 Z-0.125000
G01 X74.252555 Y97.247194 Z-0.125000
G01 X77.592484 Y85.103577 Z-0.125000
G01 X76.321608 Y64.454215 Z-0.125000
G01 X71.577059 Y57.215646 Z-0.125000
G01 X76.990620 Y41.799279 Z-0.125000
G01 X77.519232 Y30.681811 Z-0.125000
G01 X70.749821 Y11.500418 Z-0.125000
G00 Z5.000000

(End cutting path id: polyline152)


(Start cutting path id: polyline154)
(Change tool to Default tool)

G00 Z5.000000
G00 X79.644556 Y134.990452

G00 Z4.875000 (Fast pre-penetrate)
G01 Z-0.125000 F100.0(Penetrate)
G01 X75.116614 Y122.938562 Z-0.125000 F800.000000
G01 X72.389881 Y103.560953 Z-0.125000
G01 X76.529221 Y97.077863 Z-0.125000
G01 X78.622238 Y84.138308 Z-0.125000
G01 X77.436238 Y64.331316 Z-0.125000
G01 X73.252381 Y57.313997 Z-0.125000
G01 X78.335690 Y41.071789 Z-0.125000
G01 X79.016683 Y30.393640 Z-0.125000
G01 X72.397771 Y11.988215 Z-0.125000
G00 Z5.000000

(End cutting path id: polyline154)


(Start cutting path id: polyline112)
(Change tool to Default tool)

G00 Z5.000000
G00 X51.942580 Y134.025801

G00 Z4.875000 (Fast pre-penetrate)
G01 Z-0.125000 F100.0(Penetrate)
G01 X54.530991 Y121.002409 Z-0.125000 F800.000000
G01 X55.521976 Y108.967241 Z-0.125000
G01 X58.653902 Y96.272997 Z-0.125000
G01 X57.473877 Y80.905433 Z-0.125000
G01 X56.136341 Y67.096656 Z-0.125000
G01 X55.227732 Y50.857955 Z-0.125000
G01 X53.326971 Y37.940414 Z-0.125000
G01 X56.407822 Y21.214111 Z-0.125000
G01 X54.490079 Y15.602191 Z-0.125000
G00 Z5.000000

(End cutting path id: polyline112)


(Start cutting path id: polyline114)
(Change tool to Default tool)

G00 Z5.000000
G00 X50.752457 Y134.550386

G00 Z4.875000 (Fast pre-penetrate)
G01 Z-0.125000 F100.0(Penetrate)
G01 X52.992076 Y120.960879 Z-0.125000 F800.000000
G01 X54.645286 Y109.129948 Z-0.125000
G01 X56.673524 Y96.049343 Z-0.125000
G01 X55.514183 Y80.883581 Z-0.125000
G01 X55.077624 Y66.717439 Z-0.125000
G01 X52.399141 Y38.008407 Z-0.125000
G01 X54.576871 Y21.449129 Z-0.125000
G01 X54.305422 Y14.967305 Z-0.125000
G00 Z5.000000

(End cutting path id: polyline114)


(Start cutting path id: polyline116)
(Change tool to Default tool)

G00 Z5.000000
G00 X49.562367 Y135.074971

G00 Z4.875000 (Fast pre-penetrate)
G01 Z-0.125000 F100.0(Penetrate)
G01 X51.453192 Y120.919383 Z-0.125000 F800.000000
G01 X53.768596 Y109.292688 Z-0.125000
G01 X54.693146 Y95.825690 Z-0.125000
G01 X53.554488 Y80.861728 Z-0.125000
G01 X54.018939 Y66.338222 Z-0.125000
G01 X51.919332 Y51.562619 Z-0.125000
G01 X51.471343 Y38.076366 Z-0.125000
G01 X52.745921 Y21.684114 Z-0.125000
G01 X54.120765 Y14.332419 Z-0.125000
G00 Z5.000000

(End cutting path id: polyline116)


(Start cutting path id: polyline146)
(Change tool to Default tool)

G00 Z5.000000
G00 X48.372244 Y135.599557

G00 Z4.875000 (Fast pre-penetrate)
G01 Z-0.125000 F100.0(Penetrate)
G01 X49.914309 Y120.877886 Z-0.125000 F800.000000
G01 X52.891906 Y109.455395 Z-0.125000
G01 X52.712769 Y95.602004 Z-0.125000
G01 X51.594762 Y80.839876 Z-0.125000
G01 X52.960255 Y65.959005 Z-0.125000
G01 X50.265148 Y51.914918 Z-0.125000
G01 X50.914970 Y21.919100 Z-0.125000
G01 X53.936108 Y13.697501 Z-0.125000
G00 Z5.000000

(End cutting path id: polyline146)


(Start cutting path id: polyline148)
(Change tool to Default tool)

G00 Z5.000000
G00 X47.182121 Y136.124110

G00 Z4.875000 (Fast pre-penetrate)
G01 Z-0.125000 F100.0(Penetrate)
G01 X48.375426 Y120.836389 Z-0.125000 F800.000000
G01 X52.015216 Y109.618134 Z-0.125000
G01 X50.732391 Y95.378351 Z-0.125000
G01 X49.635067 Y80.818056 Z-0.125000
G01 X51.901538 Y65.579788 Z-0.125000
G01 X48.610963 Y52.267282 Z-0.125000
G01 X49.615748 Y38.212318 Z-0.125000
G01 X49.083986 Y22.154117 Z-0.125000
G01 X53.751451 Y13.062615 Z-0.125000
G00 Z5.000000

(End cutting path id: polyline148)


(Start cutting path id: polyline142)
(Change tool to Default tool)

G00 Z5.000000
G00 X35.104190 Y135.375254

G00 Z4.875000 (Fast pre-penetrate)
G01 Z-0.125000 F100.0(Penetrate)
G01 X35.765312 Y123.358497 Z-0.125000 F800.000000
G01 X37.317995 Y105.885383 Z-0.125000
G01 X35.809991 Y94.276157 Z-0.125000
G01 X32.695696 Y81.433947 Z-0.125000
G01 X36.844972 Y66.849689 Z-0.125000
G01 X33.139885 Y51.384131 Z-0.125000
G01 X40.691660 Y39.054363 Z-0.125000
G01 X34.529893 Y25.998500 Z-0.125000
G01 X38.783950 Y11.304040 Z-0.125000
G00 Z5.000000

(End cutting path id: polyline142)


(Start cutting path id: polyline144)
(Change tool to Default tool)

G00 Z5.000000
G00 X36.125404 Y135.937212

G00 Z4.875000 (Fast pre-penetrate)
G01 Z-0.125000 F100.0(Penetrate)
G01 X36.584595 Y122.903560 Z-0.125000 F800.000000
G01 X39.036957 Y106.643103 Z-0.125000
G01 X36.646743 Y94.273462 Z-0.125000
G01 X33.885818 Y81.313094 Z-0.125000
G01 X38.472141 Y66.322019 Z-0.125000
G01 X34.339911 Y51.824944 Z-0.125000
G01 X41.405838 Y38.970655 Z-0.125000
G01 X35.429767 Y25.553597 Z-0.125000
G01 X41.124648 Y11.068080 Z-0.125000
G00 Z5.000000

(End cutting path id: polyline144)


(Start cutting path id: polyline196)
(Change tool to Default tool)

G00 Z5.000000
G00 X37.146651 Y136.499171

G00 Z4.875000 (Fast pre-penetrate)
G01 Z-0.125000 F100.0(Penetrate)
G01 X37.403878 Y122.448622 Z-0.125000 F800.000000
G01 X40.755918 Y107.400823 Z-0.125000
G01 X37.483494 Y94.270767 Z-0.125000
G01 X35.075974 Y81.192240 Z-0.125000
G01 X40.099343 Y65.794349 Z-0.125000
G01 X35.539905 Y52.265724 Z-0.125000
G01 X42.120016 Y38.886980 Z-0.125000
G01 X36.329641 Y25.108693 Z-0.125000
G01 X43.465345 Y10.832088 Z-0.125000
G00 Z5.000000

(End cutting path id: polyline196)


(Start cutting path id: polyline150)
(Change tool to Default tool)

G00 Z5.000000
G00 X45.991998 Y136.648695

G00 Z4.875000 (Fast pre-penetrate)
G01 Z-0.125000 F100.0(Penetrate)
G01 X46.836543 Y120.794860 Z-0.125000 F800.000000
G01 X51.138493 Y109.780841 Z-0.125000
G01 X48.752046 Y95.154665 Z-0.125000
G01 X47.675340 Y80.796204 Z-0.125000
G01 X50.842854 Y65.200571 Z-0.125000
G01 X46.956747 Y52.619582 Z-0.125000
G01 X48.687917 Y38.280278 Z-0.125000
G01 X47.253036 Y22.389103 Z-0.125000
G01 X53.566795 Y12.427729 Z-0.125000
G00 Z5.000000

(End cutting path id: polyline150)


(Start cutting path id: polyline194)
(Change tool to Default tool)

G00 Z5.000000
G00 X44.801908 Y137.173280

G00 Z4.875000 (Fast pre-penetrate)
G01 Z-0.125000 F100.0(Penetrate)
G01 X45.297627 Y120.753364 Z-0.125000 F800.000000
G01 X50.261803 Y109.943581 Z-0.125000
G01 X46.771668 Y94.931012 Z-0.125000
G01 X45.715646 Y80.774351 Z-0.125000
G01 X49.784169 Y64.821321 Z-0.125000
G01 X45.302563 Y52.971914 Z-0.125000
G01 X47.760120 Y38.348270 Z-0.125000
G01 X45.422052 Y22.624121 Z-0.125000
G01 X53.382138 Y11.792843 Z-0.125000
G00 Z5.000000

(End cutting path id: polyline194)


(Start cutting path id: polyline198)
(Change tool to Default tool)

G00 Z5.000000
G00 X38.167865 Y137.061129

G00 Z4.875000 (Fast pre-penetrate)
G01 Z-0.125000 F100.0(Penetrate)
G01 X38.223129 Y121.993685 Z-0.125000 F800.000000
G01 X42.474848 Y108.158543 Z-0.125000
G01 X38.320279 Y94.268072 Z-0.125000
G01 X36.266097 Y81.071355 Z-0.125000
G01 X41.726512 Y65.266679 Z-0.125000
G01 X36.739931 Y52.706504 Z-0.125000
G01 X42.834161 Y38.803272 Z-0.125000
G01 X37.229547 Y24.663789 Z-0.125000
G01 X45.806075 Y10.596129 Z-0.125000
G00 Z5.000000

(End cutting path id: polyline198)


(Start cutting path id: polyline200)
(Change tool to Default tool)

G00 Z5.000000
G00 X43.611785 Y137.697866

G00 Z4.875000 (Fast pre-penetrate)
G01 Z-0.125000 F100.0(Penetrate)
G01 X43.758744 Y120.711867 Z-0.125000 F800.000000
G01 X49.385113 Y110.106321 Z-0.125000
G01 X44.791290 Y94.707326 Z-0.125000
G01 X43.755952 Y80.752499 Z-0.125000
G01 X48.725485 Y64.442104 Z-0.125000
G01 X43.648346 Y53.324246 Z-0.125000
G01 X46.832322 Y38.416230 Z-0.125000
G01 X43.591101 Y22.859106 Z-0.125000
G01 X53.197481 Y11.157957 Z-0.125000
G00 Z5.000000

(End cutting path id: polyline200)


(Start cutting path id: polyline202)
(Change tool to Default tool)

G00 Z5.000000
G00 X39.189111 Y137.623087

G00 Z4.875000 (Fast pre-penetrate)
G01 Z-0.125000 F100.0(Penetrate)
G01 X39.042412 Y121.538748 Z-0.125000 F800.000000
G01 X44.193810 Y108.916295 Z-0.125000
G01 X39.157031 Y94.265377 Z-0.125000
G01 X37.456252 Y80.950501 Z-0.125000
G01 X43.353713 Y64.739009 Z-0.125000
G01 X37.939958 Y53.147317 Z-0.125000
G01 X43.548338 Y38.719597 Z-0.125000
G01 X38.129420 Y24.218917 Z-0.125000
G01 X48.146772 Y10.360137 Z-0.125000
G00 Z5.000000

(End cutting path id: polyline202)


(Start cutting path id: polyline156)
(Change tool to Default tool)

G00 Z5.000000
G00 X80.809936 Y135.456462

G00 Z4.875000 (Fast pre-penetrate)
G01 Z-0.125000 F100.0(Penetrate)
G01 X76.851194 Y122.631980 Z-0.125000 F800.000000
G01 X74.306747 Y103.141311 Z-0.125000
G01 X78.805920 Y96.908500 Z-0.125000
G01 X79.651991 Y83.173008 Z-0.125000
G01 X78.550901 Y64.208385 Z-0.125000
G01 X74.927671 Y57.412349 Z-0.125000
G01 X79.680727 Y40.344331 Z-0.125000
G01 X80.514167 Y30.105436 Z-0.125000
G01 X74.045721 Y12.476044 Z-0.125000
G00 Z5.000000

(End cutting path id: polyline156)


(Start cutting path id: polyline158)
(Change tool to Default tool)

G00 Z5.000000
G00 X81.975285 Y135.922503

G00 Z4.875000 (Fast pre-penetrate)
G01 Z-0.125000 F100.0(Penetrate)
G01 X78.585774 Y122.325399 Z-0.125000 F800.000000
G01 X76.223614 Y102.721701 Z-0.125000
G01 X81.082619 Y96.739169 Z-0.125000
G01 X80.681745 Y82.207740 Z-0.125000
G01 X79.665531 Y64.085486 Z-0.125000
G01 X76.602961 Y57.510733 Z-0.125000
G01 X81.025764 Y39.616841 Z-0.125000
G01 X82.011619 Y29.817265 Z-0.125000
G01 X75.693671 Y12.963874 Z-0.125000
G00 Z5.000000

(End cutting path id: polyline158)


(Start cutting path id: polyline160)
(Change tool to Default tool)

G00 Z5.000000
G00 X83.140665 Y136.388513

G00 Z4.875000 (Fast pre-penetrate)
G01 Z-0.125000 F100.0(Penetrate)
G01 X80.320354 Y122.018817 Z-0.125000 F800.000000
G01 X78.140480 Y102.302059 Z-0.125000
G01 X83.359318 Y96.569805 Z-0.125000
G01 X81.711498 Y81.242471 Z-0.125000
G01 X80.780161 Y63.962554 Z-0.125000
G01 X78.278250 Y57.609085 Z-0.125000
G01 X82.370802 Y38.889383 Z-0.125000
G01 X83.509070 Y29.529061 Z-0.125000
G01 X77.341621 Y13.451670 Z-0.125000
G00 Z5.000000

(End cutting path id: polyline160)


(Start cutting path id: polyline162)
(Change tool to Default tool)

G00 Z5.000000
G00 X84.306014 Y136.854555

G00 Z4.875000 (Fast pre-penetrate)
G01 Z-0.125000 F100.0(Penetrate)
G01 X82.054934 Y121.712235 Z-0.125000 F800.000000
G01 X80.057347 Y101.882449 Z-0.125000
G01 X85.636017 Y96.400474 Z-0.125000
G01 X82.741284 Y80.277171 Z-0.125000
G01 X81.894792 Y63.839623 Z-0.125000
G01 X79.953573 Y57.707436 Z-0.125000
G01 X83.715871 Y38.161892 Z-0.125000
G01 X85.006521 Y29.240890 Z-0.125000
G01 X78.989571 Y13.939500 Z-0.125000
G00 Z5.000000

(End cutting path id: polyline162)


(Start cutting path id: polyline164)
(Change tool to Default tool)

G00 Z5.000000
G00 X85.471362 Y137.320564

G00 Z4.875000 (Fast pre-penetrate)
G01 Z-0.125000 F100.0(Penetrate)
G01 X83.789513 Y121.405653 Z-0.125000 F800.000000
G01 X81.974213 Y101.462807 Z-0.125000
G01 X87.912684 Y96.231110 Z-0.125000
G01 X83.771038 Y79.311903 Z-0.125000
G01 X83.009422 Y63.716724 Z-0.125000
G01 X81.628862 Y57.805820 Z-0.125000
G01 X86.504005 Y28.952686 Z-0.125000
G01 X80.637521 Y14.427329 Z-0.125000
G00 Z5.000000

(End cutting path id: polyline164)


(Start cutting path id: polyline166)
(Change tool to Default tool)

G00 Z5.000000
G00 X86.636743 Y137.786606

G00 Z4.875000 (Fast pre-penetrate)
G01 Z-0.125000 F100.0(Penetrate)
G01 X85.524093 Y121.099072 Z-0.125000 F800.000000
G01 X83.891112 Y101.043164 Z-0.125000
G01 X90.189383 Y96.061779 Z-0.125000
G01 X84.800824 Y78.346634 Z-0.125000
G01 X84.124084 Y63.593793 Z-0.125000
G01 X83.304152 Y57.904172 Z-0.125000
G01 X86.405946 Y36.706944 Z-0.125000
G01 X88.001457 Y28.664515 Z-0.125000
G01 X82.285471 Y14.915126 Z-0.125000
G00 Z5.000000

(End cutting path id: polyline166)


(Start cutting path id: polyline168)
(Change tool to Default tool)

G00 Z5.000000
G00 X90.065347 Y138.224594

G00 Z4.875000 (Fast pre-penetrate)
G01 Z-0.125000 F100.0(Penetrate)
G01 X89.629860 Y121.755907 Z-0.125000 F800.000000
G01 X88.686574 Y101.990736 Z-0.125000
G01 X93.968566 Y95.577814 Z-0.125000
G01 X88.927177 Y76.912077 Z-0.125000
G01 X86.715580 Y63.898166 Z-0.125000
G01 X87.093239 Y57.935083 Z-0.125000
G01 X90.264259 Y37.441123 Z-0.125000
G01 X90.328647 Y28.104894 Z-0.125000
G01 X86.616546 Y15.442666 Z-0.125000
G00 Z5.000000

(End cutting path id: polyline168)


(Start cutting path id: polyline170)
(Change tool to Default tool)

G00 Z5.000000
G00 X91.196959 Y138.210567

G00 Z4.875000 (Fast pre-penetrate)
G01 Z-0.125000 F100.0(Penetrate)
G01 X90.815469 Y122.237600 Z-0.125000 F800.000000
G01 X90.125872 Y102.674360 Z-0.125000
G01 X94.719792 Y95.420497 Z-0.125000
G01 X90.475509 Y76.677449 Z-0.125000
G01 X87.453980 Y64.111819 Z-0.125000
G01 X88.150137 Y57.901315 Z-0.125000
G01 X91.520880 Y38.171958 Z-0.125000
G01 X90.743516 Y27.969170 Z-0.125000
G01 X87.958077 Y15.462537 Z-0.125000
G00 Z5.000000

(End cutting path id: polyline170)


(Start cutting path id: polyline172)
(Change tool to Default tool)

G00 Z5.000000
G00 X92.328604 Y138.196572

G00 Z4.875000 (Fast pre-penetrate)
G01 Z-0.125000 F100.0(Penetrate)
G01 X91.565169 Y103.357951 Z-0.125000 F800.000000
G01 X95.471050 Y95.263180 Z-0.125000
G01 X92.023808 Y76.442821 Z-0.125000
G01 X88.192445 Y64.325439 Z-0.125000
G01 X89.207036 Y57.867611 Z-0.125000
G01 X92.777534 Y38.902793 Z-0.125000
G01 X89.299640 Y15.482409 Z-0.125000
G00 Z5.000000

(End cutting path id: polyline172)


(Start cutting path id: polyline174)
(Change tool to Default tool)

G00 Z5.000000
G00 X93.460216 Y138.182545

G00 Z4.875000 (Fast pre-penetrate)
G01 Z-0.125000 F100.0(Penetrate)
G01 X93.186656 Y123.201017 Z-0.125000 F800.000000
G01 X93.004467 Y104.041542 Z-0.125000
G01 X96.222309 Y95.105863 Z-0.125000
G01 X93.572107 Y76.208193 Z-0.125000
G01 X88.930878 Y64.539092 Z-0.125000
G01 X94.034156 Y39.633595 Z-0.125000
G01 X91.573254 Y27.697753 Z-0.125000
G01 X90.641203 Y15.502248 Z-0.125000
G00 Z5.000000

(End cutting path id: polyline174)


(Start cutting path id: polyline176)
(Change tool to Default tool)

G00 Z5.000000
G00 X94.591860 Y138.168518

G00 Z4.875000 (Fast pre-penetrate)
G01 Z-0.125000 F100.0(Penetrate)
G01 X94.372266 Y123.682710 Z-0.125000 F800.000000
G01 X94.443732 Y104.725133 Z-0.125000
G01 X96.973535 Y94.948545 Z-0.125000
G01 X95.120407 Y75.973565 Z-0.125000
G01 X89.669278 Y64.752712 Z-0.125000
G01 X95.290777 Y40.364430 Z-0.125000
G01 X91.988123 Y27.562061 Z-0.125000
G01 X91.982766 Y15.522120 Z-0.125000
G00 Z5.000000

(End cutting path id: polyline176)


(Start cutting path id: polyline178)
(Change tool to Default tool)

G00 Z5.000000
G00 X95.723472 Y138.154524

G00 Z4.875000 (Fast pre-penetrate)
G01 Z-0.125000 F100.0(Penetrate)
G01 X95.557875 Y124.164402 Z-0.125000 F800.000000
G01 X95.883030 Y105.408756 Z-0.125000
G01 X97.724793 Y94.791228 Z-0.125000
G01 X96.668739 Y75.738936 Z-0.125000
G01 X90.407711 Y64.966364 Z-0.125000
G01 X92.377731 Y57.766402 Z-0.125000
G01 X96.547431 Y41.095265 Z-0.125000
G01 X92.402993 Y27.426336 Z-0.125000
G01 X93.324296 Y15.541959 Z-0.125000
G00 Z5.000000

(End cutting path id: polyline178)


(Start cutting path id: polyline180)
(Change tool to Default tool)

G00 Z5.000000
G00 X96.855117 Y138.140497

G00 Z4.875000 (Fast pre-penetrate)
G01 Z-0.125000 F100.0(Penetrate)
G01 X96.743452 Y124.646127 Z-0.125000 F800.000000
G01 X97.322328 Y106.092347 Z-0.125000
G01 X98.476019 Y94.633911 Z-0.125000
G01 X98.217038 Y75.504308 Z-0.125000
G01 X91.146144 Y65.180017 Z-0.125000
G01 X93.434630 Y57.732665 Z-0.125000
G01 X97.804052 Y41.826099 Z-0.125000
G01 X92.817862 Y27.290644 Z-0.125000
G01 X94.665859 Y15.561831 Z-0.125000
G00 Z5.000000

(End cutting path id: polyline180)


(Start cutting path id: polyline182)
(Change tool to Default tool)

G00 Z5.000000
G00 X97.986729 Y138.126470

G00 Z4.875000 (Fast pre-penetrate)
G01 Z-0.125000 F100.0(Penetrate)
G01 X97.929062 Y125.127819 Z-0.125000 F800.000000
G01 X99.227278 Y94.476627 Z-0.125000
G01 X99.765338 Y75.269680 Z-0.125000
G01 X91.884577 Y65.393637 Z-0.125000
G01 X94.491528 Y57.698929 Z-0.125000
G01 X99.060674 Y42.556902 Z-0.125000
G01 X93.232731 Y27.154920 Z-0.125000
G01 X96.007422 Y15.581670 Z-0.125000
G00 Z5.000000

(End cutting path id: polyline182)


(Start cutting path id: polyline184)
(Change tool to Default tool)

G00 Z5.000000
G00 X101.493359 Y138.131405

G00 Z4.875000 (Fast pre-penetrate)
G01 Z-0.125000 F100.0(Penetrate)
G01 X101.370330 Y125.707214 Z-0.125000 F800.000000
G01 X102.806381 Y107.911641 Z-0.125000
G01 X101.530050 Y94.025488 Z-0.125000
G01 X104.431115 Y75.695069 Z-0.125000
G01 X95.047707 Y66.111354 Z-0.125000
G01 X98.246002 Y57.231036 Z-0.125000
G01 X102.926520 Y43.656141 Z-0.125000
G01 X95.845007 Y26.674916 Z-0.125000
G01 X100.335446 Y15.094295 Z-0.125000
G00 Z5.000000

(End cutting path id: polyline184)


(Start cutting path id: polyline186)
(Change tool to Default tool)

G00 Z5.000000
G00 X102.736700 Y138.164362

G00 Z4.875000 (Fast pre-penetrate)
G01 Z-0.125000 F100.0(Penetrate)
G01 X102.440411 Y125.323224 Z-0.125000 F800.000000
G01 X103.972508 Y107.680162 Z-0.125000
G01 X102.330338 Y93.888984 Z-0.125000
G01 X106.000292 Y76.589748 Z-0.125000
G01 X96.733971 Y66.401766 Z-0.125000
G01 X104.279122 Y43.293743 Z-0.125000
G01 X97.627546 Y26.466328 Z-0.125000
G01 X101.980344 Y14.567177 Z-0.125000
G00 Z5.000000

(End cutting path id: polyline186)


(Start cutting path id: polyline188)
(Change tool to Default tool)

G00 Z5.000000
G00 X103.980041 Y138.197319

G00 Z4.875000 (Fast pre-penetrate)
G01 Z-0.125000 F100.0(Penetrate)
G01 X103.510460 Y124.939201 Z-0.125000 F800.000000
G01 X105.138668 Y107.448684 Z-0.125000
G01 X103.130659 Y93.752481 Z-0.125000
G01 X107.569437 Y77.484394 Z-0.125000
G01 X98.420236 Y66.692177 Z-0.125000
G01 X105.631693 Y42.931313 Z-0.125000
G01 X99.410084 Y26.257741 Z-0.125000
G01 X103.625242 Y14.040092 Z-0.125000
G00 Z5.000000

(End cutting path id: polyline188)


(Start cutting path id: polyline190)
(Change tool to Default tool)

G00 Z5.000000
G00 X105.223383 Y138.230276

G00 Z4.875000 (Fast pre-penetrate)
G01 Z-0.125000 F100.0(Penetrate)
G01 X104.580541 Y124.555211 Z-0.125000 F800.000000
G01 X106.304828 Y107.217173 Z-0.125000
G01 X103.930947 Y93.615977 Z-0.125000
G01 X109.138583 Y78.379040 Z-0.125000
G01 X100.106468 Y66.982589 Z-0.125000
G01 X106.984296 Y42.568883 Z-0.125000
G01 X101.192622 Y26.049121 Z-0.125000
G01 X105.270172 Y13.512974 Z-0.125000
G00 Z5.000000

(End cutting path id: polyline190)


(Start cutting path id: polyline62)
(Change tool to Default tool)

G00 Z5.000000
G00 X126.002786 Y136.223111

G00 Z4.875000 (Fast pre-penetrate)
G01 Z-0.125000 F100.0(Penetrate)
G01 X125.007483 Y122.700817 Z-0.125000 F800.000000
G01 X123.038632 Y110.230551 Z-0.125000
G01 X120.958767 Y94.013507 Z-0.125000
G01 X127.546767 Y80.364515 Z-0.125000
G01 X130.531929 Y66.625289 Z-0.125000
G01 X121.841788 Y56.186899 Z-0.125000
G01 X128.008978 Y39.941281 Z-0.125000
G01 X123.403725 Y25.545187 Z-0.125000
G01 X127.865947 Y11.305176 Z-0.125000
G00 Z5.000000

(End cutting path id: polyline62)


(Start cutting path id: polyline60)
(Change tool to Default tool)

G00 Z5.000000
G00 X128.638733 Y136.040662

G00 Z4.875000 (Fast pre-penetrate)
G01 Z-0.125000 F100.0(Penetrate)
G01 X128.720525 Y122.340822 Z-0.125000 F800.000000
G01 X126.865579 Y109.686614 Z-0.125000
G01 X125.955250 Y94.467892 Z-0.125000
G01 X130.069199 Y80.187489 Z-0.125000
G01 X134.683024 Y66.088008 Z-0.125000
G01 X125.621978 Y55.464538 Z-0.125000
G01 X132.370121 Y39.586546 Z-0.125000
G01 X127.133229 Y25.927878 Z-0.125000
G01 X132.146727 Y12.193523 Z-0.125000
G00 Z5.000000

(End cutting path id: polyline60)


(Start cutting path id: polyline58)
(Change tool to Default tool)

G00 Z5.000000
G00 X129.352911 Y136.061345

G00 Z4.875000 (Fast pre-penetrate)
G01 Z-0.125000 F100.0(Penetrate)
G01 X129.930228 Y122.119117 Z-0.125000 F800.000000
G01 X128.350530 Y109.182939 Z-0.125000
G01 X127.882215 Y94.627417 Z-0.125000
G01 X130.959234 Y80.312823 Z-0.125000
G01 X135.827494 Y65.938873 Z-0.125000
G01 X127.152614 Y54.955376 Z-0.125000
G01 X133.972840 Y39.413708 Z-0.125000
G01 X128.511289 Y26.071396 Z-0.125000
G01 X133.733017 Y12.563583 Z-0.125000
G00 Z5.000000

(End cutting path id: polyline58)


(Start cutting path id: polyline56)
(Change tool to Default tool)

G00 Z5.000000
G00 X130.067089 Y136.082029

G00 Z4.875000 (Fast pre-penetrate)
G01 Z-0.125000 F100.0(Penetrate)
G01 X131.139897 Y121.897444 Z-0.125000 F800.000000
G01 X129.835448 Y108.679264 Z-0.125000
G01 X129.809147 Y94.786975 Z-0.125000
G01 X131.849237 Y80.438157 Z-0.125000
G01 X136.971964 Y65.789771 Z-0.125000
G01 X128.683250 Y54.446182 Z-0.125000
G01 X135.575592 Y39.240838 Z-0.125000
G01 X129.889380 Y26.214945 Z-0.125000
G01 X135.319338 Y12.933644 Z-0.125000
G00 Z5.000000

(End cutting path id: polyline56)


(Start cutting path id: polyline52)
(Change tool to Default tool)

G00 Z5.000000
G00 X131.495444 Y136.123363

G00 Z4.875000 (Fast pre-penetrate)
G01 Z-0.125000 F100.0(Penetrate)
G01 X133.559302 Y121.454066 Z-0.125000 F800.000000
G01 X132.805316 Y107.671915 Z-0.125000
G01 X133.663044 Y95.106057 Z-0.125000
G01 X133.629275 Y80.688858 Z-0.125000
G01 X139.260937 Y65.491502 Z-0.125000
G01 X131.744521 Y53.427858 Z-0.125000
G01 X138.781063 Y38.895162 Z-0.125000
G01 X132.645531 Y26.501980 Z-0.125000
G01 X138.491950 Y13.673798 Z-0.125000
G00 Z5.000000

(End cutting path id: polyline52)


(Start cutting path id: polyline46)
(Change tool to Default tool)

G00 Z5.000000
G00 X133.637977 Y136.185381

G00 Z4.875000 (Fast pre-penetrate)
G01 Z-0.125000 F100.0(Penetrate)
G01 X137.188377 Y120.789016 Z-0.125000 F800.000000
G01 X137.260103 Y106.160924 Z-0.125000
G01 X139.443905 Y95.584698 Z-0.125000
G01 X136.299348 Y81.064893 Z-0.125000
G01 X142.694347 Y65.044130 Z-0.125000
G01 X136.336396 Y51.900339 Z-0.125000
G01 X143.589285 Y38.376616 Z-0.125000
G01 X136.779742 Y26.932597 Z-0.125000
G01 X143.250883 Y14.784012 Z-0.125000
G00 Z5.000000

(End cutting path id: polyline46)


(Start cutting path id: polyline48)
(Change tool to Default tool)

G00 Z5.000000
G00 X132.923799 Y136.164697

G00 Z4.875000 (Fast pre-penetrate)
G01 Z-0.125000 F100.0(Penetrate)
G01 X135.978674 Y121.010688 Z-0.125000 F800.000000
G01 X135.775185 Y106.664598 Z-0.125000
G01 X137.516973 Y95.425140 Z-0.125000
G01 X135.409313 Y80.939526 Z-0.125000
G01 X141.549877 Y65.193265 Z-0.125000
G01 X134.805793 Y52.409501 Z-0.125000
G01 X141.986533 Y38.549487 Z-0.125000
G01 X135.401682 Y26.789048 Z-0.125000
G01 X141.664561 Y14.413919 Z-0.125000
G00 Z5.000000

(End cutting path id: polyline48)


(Start cutting path id: polyline50)
(Change tool to Default tool)

G00 Z5.000000
G00 X132.209622 Y136.144046

G00 Z4.875000 (Fast pre-penetrate)
G01 Z-0.125000 F100.0(Penetrate)
G01 X134.768972 Y121.232394 Z-0.125000 F800.000000
G01 X134.290234 Y107.168273 Z-0.125000
G01 X135.590008 Y95.265615 Z-0.125000
G01 X134.519310 Y80.814192 Z-0.125000
G01 X140.405407 Y65.342367 Z-0.125000
G01 X133.275157 Y52.918663 Z-0.125000
G01 X140.383814 Y38.722325 Z-0.125000
G01 X134.023591 Y26.645530 Z-0.125000
G01 X140.078239 Y14.043858 Z-0.125000
G00 Z5.000000

(End cutting path id: polyline50)


(Start cutting path id: polyline54)
(Change tool to Default tool)

G00 Z5.000000
G00 X130.781266 Y136.102679

G00 Z4.875000 (Fast pre-penetrate)
G01 Z-0.125000 F100.0(Penetrate)
G01 X132.349600 Y121.675771 Z-0.125000 F800.000000
G01 X131.320398 Y108.175590 Z-0.125000
G01 X131.736112 Y94.946500 Z-0.125000
G01 X132.739272 Y80.563524 Z-0.125000
G01 X138.116434 Y65.640636 Z-0.125000
G01 X130.213886 Y53.937020 Z-0.125000
G01 X137.178343 Y39.068000 Z-0.125000
G01 X131.267440 Y26.358463 Z-0.125000
G01 X136.905628 Y13.303737 Z-0.125000
G00 Z5.000000

(End cutting path id: polyline54)


(Start cutting path id: polyline64)
(Change tool to Default tool)

G00 Z5.000000
G00 X124.795195 Y136.446894

G00 Z4.875000 (Fast pre-penetrate)
G01 Z-0.125000 F100.0(Penetrate)
G01 X123.713846 Y122.617466 Z-0.125000 F800.000000
G01 X122.181554 Y109.767172 Z-0.125000
G01 X119.816180 Y93.878204 Z-0.125000
G01 X126.804373 Y80.792210 Z-0.125000
G01 X128.669775 Y66.864301 Z-0.125000
G01 X121.122902 Y55.890870 Z-0.125000
G01 X126.853338 Y39.950340 Z-0.125000
G01 X122.430404 Y25.449563 Z-0.125000
G01 X126.757811 Y11.156983 Z-0.125000
G00 Z5.000000

(End cutting path id: polyline64)


(Start cutting path id: polyline66)
(Change tool to Default tool)

G00 Z5.000000
G00 X123.587570 Y136.670677

G00 Z4.875000 (Fast pre-penetrate)
G01 Z-0.125000 F100.0(Penetrate)
G01 X121.324476 Y109.303792 Z-0.125000 F800.000000
G01 X118.673625 Y93.742902 Z-0.125000
G01 X126.061947 Y81.219937 Z-0.125000
G01 X126.807588 Y67.103345 Z-0.125000
G01 X120.403984 Y55.594905 Z-0.125000
G01 X125.697666 Y39.959432 Z-0.125000
G01 X121.457051 Y25.353939 Z-0.125000
G01 X125.649675 Y11.008822 Z-0.125000
G00 Z5.000000

(End cutting path id: polyline66)


(Start cutting path id: polyline68)
(Change tool to Default tool)

G00 Z5.000000
G00 X122.379979 Y136.894493

G00 Z4.875000 (Fast pre-penetrate)
G01 Z-0.125000 F100.0(Penetrate)
G01 X121.126539 Y122.450733 Z-0.125000 F800.000000
G01 X120.467398 Y108.840380 Z-0.125000
G01 X117.531039 Y93.607599 Z-0.125000
G01 X125.319553 Y81.647665 Z-0.125000
G01 X124.945433 Y67.342357 Z-0.125000
G01 X119.685066 Y55.298909 Z-0.125000
G01 X124.541993 Y39.968491 Z-0.125000
G01 X120.483731 Y25.258314 Z-0.125000
G01 X124.541506 Y10.860597 Z-0.125000
G00 Z5.000000

(End cutting path id: polyline68)


(Start cutting path id: polyline70)
(Change tool to Default tool)

G00 Z5.000000
G00 X121.172419 Y137.118276

G00 Z4.875000 (Fast pre-penetrate)
G01 Z-0.125000 F100.0(Penetrate)
G01 X119.832902 Y122.367382 Z-0.125000 F800.000000
G01 X119.610320 Y108.377001 Z-0.125000
G01 X116.388452 Y93.472297 Z-0.125000
G01 X124.577126 Y82.075359 Z-0.125000
G01 X123.083279 Y67.581401 Z-0.125000
G01 X118.966148 Y55.002912 Z-0.125000
G01 X123.386354 Y39.977550 Z-0.125000
G01 X119.510377 Y25.162723 Z-0.125000
G01 X123.433370 Y10.712404 Z-0.125000
G00 Z5.000000

(End cutting path id: polyline70)


(Start cutting path id: polyline72)
(Change tool to Default tool)

G00 Z5.000000
G00 X119.964795 Y137.342059

G00 Z4.875000 (Fast pre-penetrate)
G01 Z-0.125000 F100.0(Penetrate)
G01 X118.539265 Y122.283999 Z-0.125000 F800.000000
G01 X118.753242 Y107.913622 Z-0.125000
G01 X115.245897 Y93.336994 Z-0.125000
G01 X123.834732 Y82.503087 Z-0.125000
G01 X121.221092 Y67.820412 Z-0.125000
G01 X118.247229 Y54.706916 Z-0.125000
G01 X122.230681 Y39.986609 Z-0.125000
G01 X118.537024 Y25.067099 Z-0.125000
G01 X122.325234 Y10.564211 Z-0.125000
G00 Z5.000000

(End cutting path id: polyline72)


(Start cutting path id: polyline74)
(Change tool to Default tool)

G00 Z5.000000
G00 X118.757203 Y137.565843

G00 Z4.875000 (Fast pre-penetrate)
G01 Z-0.125000 F100.0(Penetrate)
G01 X117.245595 Y122.200649 Z-0.125000 F800.000000
G01 X117.896131 Y107.450242 Z-0.125000
G01 X114.103311 Y93.201692 Z-0.125000
G01 X123.092338 Y82.930782 Z-0.125000
G01 X119.358937 Y68.059424 Z-0.125000
G01 X117.528311 Y54.410919 Z-0.125000
G01 X121.075042 Y39.995668 Z-0.125000
G01 X117.563703 Y24.971474 Z-0.125000
G01 X121.217098 Y10.416018 Z-0.125000
G00 Z5.000000

(End cutting path id: polyline74)


(Start cutting path id: polyline76)
(Change tool to Default tool)

G00 Z5.000000
G00 X117.549611 Y137.789626

G00 Z4.875000 (Fast pre-penetrate)
G01 Z-0.125000 F100.0(Penetrate)
G01 X115.951958 Y122.117266 Z-0.125000 F800.000000
G01 X117.039053 Y106.986863 Z-0.125000
G01 X112.960724 Y93.066389 Z-0.125000
G01 X122.349911 Y83.358509 Z-0.125000
G01 X117.496783 Y68.298468 Z-0.125000
G01 X116.809425 Y54.114923 Z-0.125000
G01 X119.919369 Y40.004760 Z-0.125000
G01 X116.590350 Y24.875850 Z-0.125000
G01 X120.108962 Y10.267825 Z-0.125000
G00 Z5.000000

(End cutting path id: polyline76)


(Start cutting path id: polyline78)
(Change tool to Default tool)

G00 Z5.000000
G00 X116.342020 Y138.013442

G00 Z4.875000 (Fast pre-penetrate)
G01 Z-0.125000 F100.0(Penetrate)
G01 X114.658320 Y122.033916 Z-0.125000 F800.000000
G01 X116.181975 Y106.523484 Z-0.125000
G01 X111.818137 Y92.931087 Z-0.125000
G01 X121.607517 Y83.786204 Z-0.125000
G01 X115.634628 Y68.537480 Z-0.125000
G01 X116.090507 Y53.818926 Z-0.125000
G01 X118.763697 Y40.013819 Z-0.125000
G01 X115.617030 Y24.780226 Z-0.125000
G01 X119.000826 Y10.119631 Z-0.125000
G00 Z5.000000

(End cutting path id: polyline78)


(Start cutting path id: polyline80)
(Change tool to Default tool)

G00 Z5.000000
G00 X112.683462 Y138.428051

G00 Z4.875000 (Fast pre-penetrate)
G01 Z-0.125000 F100.0(Penetrate)
G01 X111.000964 Y122.251172 Z-0.125000 F800.000000
G01 X113.301691 Y105.828203 Z-0.125000
G01 X108.732708 Y92.796986 Z-0.125000
G01 X118.553551 Y83.746980 Z-0.125000
G01 X110.224022 Y68.725092 Z-0.125000
G01 X113.012026 Y53.627321 Z-0.125000
G01 X115.099815 Y40.394367 Z-0.125000
G01 X111.887818 Y24.797565 Z-0.125000
G01 X115.139623 Y10.350363 Z-0.125000
G00 Z5.000000

(End cutting path id: polyline80)


(Start cutting path id: polyline82)
(Change tool to Default tool)

G00 Z5.000000
G00 X111.440121 Y138.395094

G00 Z4.875000 (Fast pre-penetrate)
G01 Z-0.125000 F100.0(Penetrate)
G01 X109.930883 Y122.635195 Z-0.125000 F800.000000
G01 X112.135531 Y106.059715 Z-0.125000
G01 X107.932387 Y92.933490 Z-0.125000
G01 X116.984374 Y82.852334 Z-0.125000
G01 X108.537758 Y68.434680 Z-0.125000
G01 X111.371350 Y54.027741 Z-0.125000
G01 X113.747212 Y40.756765 Z-0.125000
G01 X110.105279 Y25.006152 Z-0.125000
G01 X113.494693 Y10.877449 Z-0.125000
G00 Z5.000000

(End cutting path id: polyline82)


(Start cutting path id: polyline84)
(Change tool to Default tool)

G00 Z5.000000
G00 X110.196780 Y138.362137

G00 Z4.875000 (Fast pre-penetrate)
G01 Z-0.125000 F100.0(Penetrate)
G01 X108.860802 Y123.019185 Z-0.125000 F800.000000
G01 X110.969371 Y106.291193 Z-0.125000
G01 X107.132099 Y93.069994 Z-0.125000
G01 X115.415228 Y81.957688 Z-0.125000
G01 X106.851526 Y68.144268 Z-0.125000
G01 X109.730673 Y54.428161 Z-0.125000
G01 X112.394642 Y41.119195 Z-0.125000
G01 X108.322741 Y25.214772 Z-0.125000
G01 X111.849795 Y11.404567 Z-0.125000
G00 Z5.000000

(End cutting path id: polyline84)


(Start cutting path id: polyline86)
(Change tool to Default tool)

G00 Z5.000000
G00 X108.953439 Y138.329180

G00 Z4.875000 (Fast pre-penetrate)
G01 Z-0.125000 F100.0(Penetrate)
G01 X107.790753 Y123.403175 Z-0.125000 F800.000000
G01 X109.803244 Y106.522704 Z-0.125000
G01 X106.331811 Y93.206498 Z-0.125000
G01 X113.846083 Y81.063010 Z-0.125000
G01 X105.165261 Y67.853857 Z-0.125000
G01 X111.042039 Y41.481625 Z-0.125000
G01 X106.540203 Y25.423359 Z-0.125000
G01 X110.204865 Y11.931652 Z-0.125000
G00 Z5.000000

(End cutting path id: polyline86)


(Start cutting path id: polyline88)
(Change tool to Default tool)

G00 Z5.000000
G00 X106.466724 Y138.263266

G00 Z4.875000 (Fast pre-penetrate)
G01 Z-0.125000 F100.0(Penetrate)
G01 X105.650590 Y124.171188 Z-0.125000 F800.000000
G01 X107.470956 Y106.985662 Z-0.125000
G01 X104.731235 Y93.479473 Z-0.125000
G01 X110.707760 Y79.273718 Z-0.125000
G01 X101.792732 Y67.273001 Z-0.125000
G01 X108.336866 Y42.206485 Z-0.125000
G01 X102.975160 Y25.840534 Z-0.125000
G01 X106.915070 Y12.985856 Z-0.125000
G00 Z5.000000

(End cutting path id: polyline88)


(Start cutting path id: polyline192)
(Change tool to Default tool)

G00 Z5.000000
G00 X107.710065 Y138.296223

G00 Z4.875000 (Fast pre-penetrate)
G01 Z-0.125000 F100.0(Penetrate)
G01 X106.720672 Y123.787198 Z-0.125000 F800.000000
G01 X108.637084 Y106.754183 Z-0.125000
G01 X105.531523 Y93.343001 Z-0.125000
G01 X112.276906 Y80.168364 Z-0.125000
G01 X103.478997 Y67.563445 Z-0.125000
G01 X109.689469 Y41.844055 Z-0.125000
G01 X104.757665 Y25.631947 Z-0.125000
G01 X108.560000 Y12.458770 Z-0.125000
G00 Z5.000000

(End cutting path id: polyline192)



(Footer)
M5
G00 X0.0000 Y0.0000
M2
(Using default footer. To add your own footer create file "footer" in the output dir.)
(end)
%