%
(Header)
(Generated by gcodetools from Inkscape.)
(Using default header. To add your own header create file "header" in the output dir.)
M3
(Header end.)
G21 (All units in mm)

(Start cutting path id: polyline991216)
(Change tool to Default tool)

G00 Z3.000000
G00 X105.258365 Y148.100925

G00 Z4.875000 (Fast pre-penetrate)
G01 Z-0.125000 F400.0(Penetrate)
G01 X105.345255 Y148.117594 Z-0.125000 F800.000000
G01 X105.047308 Y147.836924 Z-0.125000
G01 X104.811882 Y147.741753 Z-0.125000
G01 X104.685093 Y147.774032 Z-0.125000
G01 X104.859745 Y148.086161 Z-0.125000
G01 X105.446484 Y148.542276 Z-0.125000
G01 X105.996446 Y148.803525 Z-0.125000
G01 X106.313443 Y148.779421 Z-0.125000
G01 X106.281667 Y148.556669 Z-0.125000
G01 X106.018936 Y148.187893 Z-0.125000
G01 X105.039926 Y147.353610 Z-0.125000
G01 X104.186593 Y146.972928 Z-0.125000
G01 X103.833083 Y146.952185 Z-0.125000
G01 X103.625253 Y147.062622 Z-0.125000
G01 X103.618242 Y147.331121 Z-0.125000
G01 X103.884545 Y147.725482 Z-0.125000
G01 X104.408948 Y148.205488 Z-0.125000
G01 X105.221747 Y148.786115 Z-0.125000
G01 X106.010205 Y149.236541 Z-0.125000
G01 X106.633589 Y149.492340 Z-0.125000
G01 X107.101001 Y149.575763 Z-0.125000
G01 X107.344788 Y149.464295 Z-0.125000
G01 X107.360689 Y149.263794 Z-0.125000
G01 X107.241653 Y148.966693 Z-0.125000
G01 X106.711746 Y148.246498 Z-0.125000
G01 X105.859207 Y147.418406 Z-0.125000
G01 X104.944835 Y146.733004 Z-0.125000
G01 X104.237948 Y146.362429 Z-0.125000
G01 X103.478939 Y146.149810 Z-0.125000
G01 X102.882754 Y146.175025 Z-0.125000
G01 X102.532817 Y146.402990 Z-0.125000
G01 X102.467544 Y146.604867 Z-0.125000
G01 X102.510036 Y146.853125 Z-0.125000
G01 X102.928527 Y147.462989 Z-0.125000
G01 X103.763419 Y148.181940 Z-0.125000
G01 X104.907184 Y148.959364 Z-0.125000
G01 X106.008670 Y149.598782 Z-0.125000
G01 X107.165480 Y150.099876 Z-0.125000
G01 X108.008917 Y150.267992 Z-0.125000
G01 X108.263208 Y150.209731 Z-0.125000
G01 X108.371026 Y150.101860 Z-0.125000
G01 X108.400712 Y149.874239 Z-0.125000
G01 X108.257705 Y149.456357 Z-0.125000
G01 X107.430274 Y148.283805 Z-0.125000
G01 X106.132548 Y147.004943 Z-0.125000
G01 X104.744492 Y145.975397 Z-0.125000
G01 X103.744871 Y145.503275 Z-0.125000
G01 X102.685534 Y145.300287 Z-0.125000
G01 X101.869322 Y145.438479 Z-0.125000
G01 X101.622386 Y145.581698 Z-0.125000
G01 X101.405825 Y145.831411 Z-0.125000
G01 X101.328885 Y146.133300 Z-0.125000
G01 X101.400851 Y146.484323 Z-0.125000
G01 X101.895568 Y147.192929 Z-0.125000
G01 X102.840156 Y147.993980 Z-0.125000
G01 X104.361456 Y148.993866 Z-0.125000
G01 X106.104819 Y149.985285 Z-0.125000
G01 X107.713775 Y150.668227 Z-0.125000
G01 X108.882941 Y150.911458 Z-0.125000
G01 X109.234572 Y150.843989 Z-0.125000
G01 X109.384458 Y150.707120 Z-0.125000
G01 X109.414091 Y150.317151 Z-0.125000
G01 X109.180570 Y149.727184 Z-0.125000
G01 X108.105966 Y148.212076 Z-0.125000
G01 X106.513124 Y146.613810 Z-0.125000
G01 X104.728353 Y145.260044 Z-0.125000
G01 X103.431473 Y144.654096 Z-0.125000
G01 X102.226800 Y144.437218 Z-0.125000
G01 X101.695173 Y144.464311 Z-0.125000
G01 X101.088749 Y144.620071 Z-0.125000
G01 X100.622501 Y144.885818 Z-0.125000
G01 X100.316246 Y145.230252 Z-0.125000
G01 X100.184007 Y145.625222 Z-0.125000
G01 X100.206338 Y145.952220 Z-0.125000
G01 X100.404511 Y146.423521 Z-0.125000
G01 X100.680974 Y146.798859 Z-0.125000
G01 X101.648474 Y147.667564 Z-0.125000
G01 X103.195915 Y148.685786 Z-0.125000
G01 X105.812878 Y150.162820 Z-0.125000
G01 X107.828922 Y151.047215 Z-0.125000
G01 X108.847698 Y151.367043 Z-0.125000
G01 X109.570380 Y151.497985 Z-0.125000
G01 X110.088884 Y151.471897 Z-0.125000
G01 X110.386196 Y151.280921 Z-0.125000
G01 X110.442525 Y150.809778 Z-0.125000
G01 X110.169687 Y150.079953 Z-0.125000
G01 X109.603718 Y149.140948 Z-0.125000
G01 X108.785601 Y148.075445 Z-0.125000
G01 X107.835377 Y147.039391 Z-0.125000
G01 X106.747756 Y146.022387 Z-0.125000
G01 X105.567134 Y145.071000 Z-0.125000
G01 X104.513379 Y144.357657 Z-0.125000
G01 X103.713095 Y143.960704 Z-0.125000
G01 X102.924214 Y143.694930 Z-0.125000
G01 X102.165946 Y143.558273 Z-0.125000
G01 X101.344654 Y143.551473 Z-0.125000
G01 X100.714523 Y143.662042 Z-0.125000
G01 X100.086350 Y143.904136 Z-0.125000
G01 X99.532869 Y144.293787 Z-0.125000
G01 X99.174861 Y144.760511 Z-0.125000
G01 X99.026245 Y145.266235 Z-0.125000
G01 X99.060535 Y145.670439 Z-0.125000
G01 X99.224180 Y146.092369 Z-0.125000
G01 X99.519401 Y146.528614 Z-0.125000
G01 X100.609722 Y147.518736 Z-0.125000
G01 X102.477995 Y148.697295 Z-0.125000
G01 X105.854524 Y150.504794 Z-0.125000
G01 X108.386054 Y151.551114 Z-0.125000
G01 X109.538604 Y151.892611 Z-0.125000
G01 X110.515683 Y152.053795 Z-0.125000
G01 X111.110306 Y151.997518 Z-0.125000
G01 X111.429552 Y151.740872 Z-0.125000
G01 X111.485803 Y151.536138 Z-0.125000
G01 X111.445427 Y151.134607 Z-0.125000
G01 X111.073529 Y150.209387 Z-0.125000
G01 X110.363389 Y149.040909 Z-0.125000
G01 X109.364694 Y147.741330 Z-0.125000
G01 X108.220240 Y146.501388 Z-0.125000
G01 X107.017895 Y145.386039 Z-0.125000
G01 X105.621320 Y144.268863 Z-0.125000
G01 X104.374738 Y143.437411 Z-0.125000
G01 X103.530824 Y143.033525 Z-0.125000
G01 X102.591633 Y142.737563 Z-0.125000
G01 X101.637468 Y142.601805 Z-0.125000
G01 X100.792786 Y142.628052 Z-0.125000
G01 X99.908286 Y142.824796 Z-0.125000
G01 X99.159198 Y143.166637 Z-0.125000
G01 X98.567696 Y143.613915 Z-0.125000
G01 X98.104517 Y144.201606 Z-0.125000
G01 X97.913991 Y144.662827 Z-0.125000
G01 X97.864117 Y145.134896 Z-0.125000
G01 X97.961087 Y145.620248 Z-0.125000
G01 X98.264617 Y146.197171 Z-0.125000
G01 X98.690886 Y146.699111 Z-0.125000
G01 X99.383221 Y147.295084 Z-0.125000
G01 X101.154154 Y148.421229 Z-0.125000
G01 X105.514958 Y150.668147 Z-0.125000
G01 X108.524246 Y151.885573 Z-0.125000
G01 X110.107907 Y152.351742 Z-0.125000
G01 X111.263659 Y152.553671 Z-0.125000
G01 X112.008857 Y152.517424 Z-0.125000
G01 X112.423696 Y152.247152 Z-0.125000
G01 X112.507569 Y152.020801 Z-0.125000
G01 X112.485238 Y151.567703 Z-0.125000
G01 X112.028833 Y150.374592 Z-0.125000
G01 X111.173383 Y148.934441 Z-0.125000
G01 X110.054964 Y147.453120 Z-0.125000
G01 X108.786368 Y146.061202 Z-0.125000
G01 X107.350106 Y144.725904 Z-0.125000
G01 X105.711014 Y143.424526 Z-0.125000
G01 X104.271524 Y142.475837 Z-0.125000
G01 X103.263251 Y142.017765 Z-0.125000
G01 X102.174121 Y141.716405 Z-0.125000
G01 X101.124600 Y141.613270 Z-0.125000
G01 X100.038222 Y141.709870 Z-0.125000
G01 X99.113240 Y141.978236 Z-0.125000
G01 X98.241413 Y142.432975 Z-0.125000
G01 X97.468883 Y143.092554 Z-0.125000
G01 X96.957444 Y143.826745 Z-0.125000
G01 X96.751810 Y144.382819 Z-0.125000
G01 X96.704926 Y144.939502 Z-0.125000
G01 X96.859099 Y145.592096 Z-0.125000
G01 X97.175037 Y146.149969 Z-0.125000
G01 X97.664701 Y146.706519 Z-0.125000
G01 X98.289223 Y147.233780 Z-0.125000
G01 X100.282750 Y148.461869 Z-0.125000
G01 X105.449289 Y150.972867 Z-0.125000
G01 X107.192097 Y151.686977 Z-0.125000
G01 X108.985864 Y152.309726 Z-0.125000
G01 X110.796035 Y152.805872 Z-0.125000
G01 X112.221608 Y153.028624 Z-0.125000
G01 X113.043985 Y152.957319 Z-0.125000
G01 X113.308912 Y152.821112 Z-0.125000
G01 X113.476684 Y152.614235 Z-0.125000
G01 X113.549762 Y152.335417 Z-0.125000
G01 X113.490813 Y151.782386 Z-0.125000
G01 X112.946274 Y150.391896 Z-0.125000
G01 X111.953321 Y148.696210 Z-0.125000
G01 X110.619478 Y146.922948 Z-0.125000
G01 X109.247139 Y145.427843 Z-0.125000
G01 X107.611990 Y143.927816 Z-0.125000
G01 X105.648440 Y142.404188 Z-0.125000
G01 X104.112668 Y141.427348 Z-0.125000
G01 X102.964246 Y140.943373 Z-0.125000
G01 X101.723907 Y140.653390 Z-0.125000
G01 X100.562626 Y140.596345 Z-0.125000
G01 X99.445371 Y140.745703 Z-0.125000
G01 X98.329492 Y141.121463 Z-0.125000
G01 X97.290925 Y141.732306 Z-0.125000
G01 X96.449127 Y142.516292 Z-0.125000
G01 X95.858869 Y143.403412 Z-0.125000
G01 X95.614024 Y144.061695 Z-0.125000
G01 X95.543460 Y144.705505 Z-0.125000
G01 X95.653844 Y145.340345 Z-0.125000
G01 X95.949753 Y145.962565 Z-0.125000
G01 X96.436480 Y146.573011 Z-0.125000
G01 X97.163396 Y147.209386 Z-0.125000
G01 X99.188038 Y148.442978 Z-0.125000
G01 X105.128058 Y151.182073 Z-0.125000
G01 X107.081792 Y151.943966 Z-0.125000
G01 X108.987583 Y152.576452 Z-0.125000
G01 X111.163514 Y153.158826 Z-0.125000
G01 X112.801891 Y153.439019 Z-0.125000
G01 X113.910865 Y153.407243 Z-0.125000
G01 X114.244371 Y153.275295 Z-0.125000
G01 X114.465325 Y153.063126 Z-0.125000
G01 X114.576820 Y152.767878 Z-0.125000
G01 X114.550124 Y152.167724 Z-0.125000
G01 X114.349993 Y151.467003 Z-0.125000
G01 X113.949150 Y150.505931 Z-0.125000
G01 X112.823111 Y148.500445 Z-0.125000
G01 X111.408147 Y146.566185 Z-0.125000
G01 X109.907644 Y144.905080 Z-0.125000
G01 X108.132451 Y143.269904 Z-0.125000
G01 X105.945223 Y141.577737 Z-0.125000
G01 X104.114123 Y140.407486 Z-0.125000
G01 X102.777027 Y139.860699 Z-0.125000
G01 X101.495678 Y139.583945 Z-0.125000
G01 X100.145431 Y139.545448 Z-0.125000
G01 X98.780659 Y139.779816 Z-0.125000
G01 X97.498993 Y140.283714 Z-0.125000
G01 X96.435422 Y140.968878 Z-0.125000
G01 X95.438367 Y141.952386 Z-0.125000
G01 X94.768761 Y143.004897 Z-0.125000
G01 X94.454859 Y143.898130 Z-0.125000
G01 X94.391545 Y144.632030 Z-0.125000
G01 X94.524313 Y145.342012 Z-0.125000
G01 X94.857978 Y146.026144 Z-0.125000
G01 X95.363676 Y146.651116 Z-0.125000
G01 X96.108715 Y147.296645 Z-0.125000
G01 X97.047217 Y147.917040 Z-0.125000
G01 X98.237656 Y148.559870 Z-0.125000
G01 X104.952746 Y151.476554 Z-0.125000
G01 X107.163760 Y152.278399 Z-0.125000
G01 X109.399089 Y152.960045 Z-0.125000
G01 X111.829126 Y153.553795 Z-0.125000
G01 X113.760158 Y153.845472 Z-0.125000
G01 X114.481464 Y153.851795 Z-0.125000
G01 X114.960624 Y153.771759 Z-0.125000
G01 X115.310138 Y153.605601 Z-0.125000
G01 X115.532123 Y153.347606 Z-0.125000
G01 X115.638115 Y152.890221 Z-0.125000
G01 X115.567101 Y152.280886 Z-0.125000
G01 X115.277436 Y151.335505 Z-0.125000
G01 X114.837223 Y150.293842 Z-0.125000
G01 X113.632735 Y148.114339 Z-0.125000
G01 X112.057408 Y145.941901 Z-0.125000
G01 X110.385746 Y144.107865 Z-0.125000
G01 X108.502418 Y142.405405 Z-0.125000
G01 X106.076350 Y140.569967 Z-0.125000
G01 X104.044353 Y139.298989 Z-0.125000
G01 X102.583458 Y138.731908 Z-0.125000
G01 X101.131691 Y138.460658 Z-0.125000
G01 X99.678919 Y138.469363 Z-0.125000
G01 X98.158836 Y138.787630 Z-0.125000
G01 X96.796737 Y139.375374 Z-0.125000
G01 X95.547825 Y140.235110 Z-0.125000
G01 X94.476211 Y141.347338 Z-0.125000
G01 X93.711752 Y142.577067 Z-0.125000
G01 X93.363825 Y143.516918 Z-0.125000
G01 X93.242752 Y144.354773 Z-0.125000
G01 X93.330329 Y145.153232 Z-0.125000
G01 X93.630525 Y145.910627 Z-0.125000
G01 X94.186123 Y146.669981 Z-0.125000
G01 X94.949762 Y147.359722 Z-0.125000
G01 X95.988224 Y148.050337 Z-0.125000
G01 X97.279362 Y148.730050 Z-0.125000
G01 X99.491832 Y149.697207 Z-0.125000
G01 X104.761690 Y151.787995 Z-0.125000
G01 X107.183048 Y152.600291 Z-0.125000
G01 X109.783264 Y153.324005 Z-0.125000
G01 X112.622001 Y153.946780 Z-0.125000
G01 X114.737131 Y154.217422 Z-0.125000
G01 X115.514846 Y154.202288 Z-0.125000
G01 X116.023163 Y154.094550 Z-0.125000
G01 X116.385165 Y153.889763 Z-0.125000
G01 X116.604716 Y153.580465 Z-0.125000
G01 X116.690203 Y153.039340 Z-0.125000
G01 X116.584079 Y152.322585 Z-0.125000
G01 X116.240068 Y151.216892 Z-0.125000
G01 X115.728206 Y149.990947 Z-0.125000
G01 X114.390659 Y147.541252 Z-0.125000
G01 X112.744583 Y145.262558 Z-0.125000
G01 X110.996033 Y143.350813 Z-0.125000
G01 X108.944668 Y141.522651 Z-0.125000
G01 X106.277830 Y139.551031 Z-0.125000
G01 X104.892368 Y138.642374 Z-0.125000
G01 X103.947912 Y138.130300 Z-0.125000
G01 X102.375310 Y137.559091 Z-0.125000
G01 X100.774424 Y137.307817 Z-0.125000
G01 X99.120172 Y137.382720 Z-0.125000
G01 X97.574981 Y137.768138 Z-0.125000
G01 X96.005051 Y138.511643 Z-0.125000
G01 X94.670812 Y139.498564 Z-0.125000
G01 X93.510483 Y140.762953 Z-0.125000
G01 X92.670327 Y142.152464 Z-0.125000
G01 X92.253767 Y143.287869 Z-0.125000
G01 X92.107691 Y144.233938 Z-0.125000
G01 X92.182568 Y145.122117 Z-0.125000
G01 X92.481070 Y145.952193 Z-0.125000
G01 X93.010818 Y146.730332 Z-0.125000
G01 X93.784538 Y147.466561 Z-0.125000
G01 X94.818529 Y148.173500 Z-0.125000
G01 X96.226745 Y148.912374 Z-0.125000
G01 X98.635721 Y149.923452 Z-0.125000
G01 X104.308433 Y152.035221 Z-0.125000
G01 X106.950771 Y152.863578 Z-0.125000
G01 X109.796281 Y153.594276 Z-0.125000
G01 X113.202920 Y154.277165 Z-0.125000
G01 X115.664256 Y154.554580 Z-0.125000
G01 X116.458190 Y154.529419 Z-0.125000
G01 X116.979472 Y154.421283 Z-0.125000
G01 X117.390951 Y154.201309 Z-0.125000
G01 X117.643337 Y153.865051 Z-0.125000
G01 X117.749382 Y153.270295 Z-0.125000
G01 X117.631695 Y152.414871 Z-0.125000
G01 X117.286520 Y151.242001 Z-0.125000
G01 X116.724361 Y149.818783 Z-0.125000
G01 X116.050071 Y148.421917 Z-0.125000
G01 X115.312123 Y147.121968 Z-0.125000
G01 X114.452731 Y145.817150 Z-0.125000
G01 X113.551587 Y144.628141 Z-0.125000
G01 X111.714482 Y142.607917 Z-0.125000
G01 X109.577683 Y140.714667 Z-0.125000
G01 X106.761065 Y138.661397 Z-0.125000
G01 X104.947136 Y137.495274 Z-0.125000
G01 X104.063323 Y137.017067 Z-0.125000
G01 X102.385444 Y136.404240 Z-0.125000
G01 X100.608795 Y136.135159 Z-0.125000
G01 X98.850059 Y136.232261 Z-0.125000
G01 X97.144637 Y136.677104 Z-0.125000
G01 X95.406168 Y137.526283 Z-0.125000
G01 X93.922069 Y138.649279 Z-0.125000
G01 X92.667363 Y140.027889 Z-0.125000
G01 X91.692190 Y141.625838 Z-0.125000
G01 X91.205092 Y142.897688 Z-0.125000
G01 X90.996707 Y143.974753 Z-0.125000
G01 X91.037717 Y145.077905 Z-0.125000
G01 X91.320636 Y145.988997 Z-0.125000
G01 X91.843584 Y146.831270 Z-0.125000
G01 X92.620717 Y147.617214 Z-0.125000
G01 X93.738951 Y148.401518 Z-0.125000
G01 X95.154814 Y149.142112 Z-0.125000
G01 X97.747939 Y150.193776 Z-0.125000
G01 X103.806916 Y152.306842 Z-0.125000
G01 X106.564559 Y153.113661 Z-0.125000
G01 X109.670128 Y153.846477 Z-0.125000
G01 X113.627761 Y154.567042 Z-0.125000
G01 X116.447157 Y154.859830 Z-0.125000
G01 X117.278530 Y154.840330 Z-0.125000
G01 X117.927340 Y154.721030 Z-0.125000
G01 X118.393536 Y154.486821 Z-0.125000
G01 X118.683227 Y154.124316 Z-0.125000
G01 X118.814725 Y153.424705 Z-0.125000
G01 X118.696007 Y152.500728 Z-0.125000
G01 X118.315484 Y151.133152 Z-0.125000
G01 X117.739433 Y149.596030 Z-0.125000
G01 X117.055222 Y148.104417 Z-0.125000
G01 X116.265442 Y146.653180 Z-0.125000
G01 X115.368399 Y145.248403 Z-0.125000
G01 X114.414948 Y143.963508 Z-0.125000
G01 X112.450552 Y141.790012 Z-0.125000
G01 X110.138546 Y139.768121 Z-0.125000
G01 X107.174132 Y137.660533 Z-0.125000
G01 X105.206745 Y136.423157 Z-0.125000
G01 X104.055783 Y135.802551 Z-0.125000
G01 X103.178399 Y135.447269 Z-0.125000
G01 X102.197855 Y135.162737 Z-0.125000
G01 X100.346488 Y134.927893 Z-0.125000
G01 X99.345253 Y134.958690 Z-0.125000
G01 X98.369365 Y135.094104 Z-0.125000
G01 X96.520353 Y135.644331 Z-0.125000
G01 X94.759262 Y136.562037 Z-0.125000
G01 X93.120223 Y137.848942 Z-0.125000
G01 X91.746085 Y139.406833 Z-0.125000
G01 X90.705983 Y141.142921 Z-0.125000
G01 X90.183723 Y142.478324 Z-0.125000
G01 X89.895486 Y143.834736 Z-0.125000
G01 X89.908397 Y145.060866 Z-0.125000
G01 X90.219944 Y146.165156 Z-0.125000
G01 X90.762022 Y147.067860 Z-0.125000
G01 X91.648031 Y147.967152 Z-0.125000
G01 X92.831590 Y148.779845 Z-0.125000
G01 X94.286267 Y149.518111 Z-0.125000
G01 X97.090979 Y150.599752 Z-0.125000
G01 X103.478860 Y152.674348 Z-0.125000
G01 X106.487062 Y153.473574 Z-0.125000
G01 X109.821311 Y154.170829 Z-0.125000
G01 X114.329170 Y154.883484 Z-0.125000
G01 X117.457441 Y155.144204 Z-0.125000
G01 X118.337603 Y155.099860 Z-0.125000
G01 X119.015359 Y154.946401 Z-0.125000
G01 X119.492243 Y154.665229 Z-0.125000
G01 X119.777146 Y154.239991 Z-0.125000
G01 X119.884381 Y153.428833 Z-0.125000
G01 X119.730500 Y152.362907 Z-0.125000
G01 X119.277163 Y150.721090 Z-0.125000
G01 X118.632084 Y148.973890 Z-0.125000
G01 X117.899215 Y147.358161 Z-0.125000
G01 X117.117425 Y145.906341 Z-0.125000
G01 X116.210461 Y144.469973 Z-0.125000
G01 X115.182874 Y143.079589 Z-0.125000
G01 X113.194400 Y140.888868 Z-0.125000
G01 X110.783599 Y138.808849 Z-0.125000
G01 X107.734465 Y136.691391 Z-0.125000
G01 X105.164333 Y135.126224 Z-0.125000
G01 X104.165214 Y134.602482 Z-0.125000
G01 X103.216896 Y134.222144 Z-0.125000
G01 X102.262175 Y133.947322 Z-0.125000
G01 X101.308141 Y133.774602 Z-0.125000
G01 X100.256635 Y133.697079 Z-0.125000
G01 X99.221613 Y133.733406 Z-0.125000
G01 X98.210562 Y133.875355 Z-0.125000
G01 X97.229700 Y134.114776 Z-0.125000
G01 X96.177506 Y134.486172 Z-0.125000
G01 X95.235697 Y134.925141 Z-0.125000
G01 X94.250125 Y135.501720 Z-0.125000
G01 X92.495384 Y136.882076 Z-0.125000
G01 X90.999511 Y138.557681 Z-0.125000
G01 X90.368031 Y139.486843 Z-0.125000
G01 X89.801718 Y140.512579 Z-0.125000
G01 X89.159389 Y142.118386 Z-0.125000
G01 X88.818104 Y143.635161 Z-0.125000
G01 X88.782703 Y144.938840 Z-0.125000
G01 X89.046783 Y146.162272 Z-0.125000
G01 X89.623177 Y147.252407 Z-0.125000
G01 X90.478865 Y148.188502 Z-0.125000
G01 X91.638003 Y149.032522 Z-0.125000
G01 X93.207906 Y149.849157 Z-0.125000
G01 X96.230476 Y150.985435 Z-0.125000
G01 X102.827297 Y152.988064 Z-0.125000
G01 X105.851719 Y153.737098 Z-0.125000
G01 X109.317466 Y154.397339 Z-0.125000
G01 X114.471357 Y155.120153 Z-0.125000
G01 X118.163798 Y155.402675 Z-0.125000
G01 X119.199958 Y155.356531 Z-0.125000
G01 X120.012307 Y155.177515 Z-0.125000
G01 X120.497367 Y154.900311 Z-0.125000
G01 X120.824948 Y154.446948 Z-0.125000
G01 X120.965124 Y153.636107 Z-0.125000
G01 X120.837356 Y152.487473 Z-0.125000
G01 X120.399366 Y150.718180 Z-0.125000
G01 X119.726796 Y148.742221 Z-0.125000
G01 X119.015702 Y147.063892 Z-0.125000
G01 X118.166814 Y145.397522 Z-0.125000
G01 X117.225058 Y143.845822 Z-0.125000
G01 X116.151142 Y142.351007 Z-0.125000
G01 X115.173084 Y141.180386 Z-0.125000
G01 X114.039293 Y139.997144 Z-0.125000
G01 X112.826683 Y138.891426 Z-0.125000
G01 X111.547133 Y137.861325 Z-0.125000
G01 X108.370364 Y135.703280 Z-0.125000
G01 X104.343940 Y133.397280 Z-0.125000
G01 X103.352548 Y132.995564 Z-0.125000
G01 X102.353641 Y132.705422 Z-0.125000
G01 X101.254828 Y132.510292 Z-0.125000
G01 X100.206365 Y132.439648 Z-0.125000
G01 X99.200235 Y132.474415 Z-0.125000
G01 X98.105629 Y132.624513 Z-0.125000
G01 X97.042164 Y132.882878 Z-0.125000
G01 X95.916125 Y133.279700 Z-0.125000
G01 X94.843029 Y133.781957 Z-0.125000
G01 X93.829756 Y134.376079 Z-0.125000
G01 X92.882046 Y135.049495 Z-0.125000
G01 X91.929150 Y135.859913 Z-0.125000
G01 X91.066371 Y136.734069 Z-0.125000
G01 X90.288445 Y137.669819 Z-0.125000
G01 X89.577642 Y138.693306 Z-0.125000
G01 X88.982119 Y139.735101 Z-0.125000
G01 X88.225570 Y141.517676 Z-0.125000
G01 X87.791337 Y143.222252 Z-0.125000
G01 X87.677645 Y144.736673 Z-0.125000
G01 X87.897170 Y146.167511 Z-0.125000
G01 X88.431707 Y147.361124 Z-0.125000
G01 X89.327320 Y148.447581 Z-0.125000
G01 X90.543159 Y149.381771 Z-0.125000
G01 X92.210614 Y150.263864 Z-0.125000
G01 X93.693760 Y150.860790 Z-0.125000
G01 X95.465355 Y151.453138 Z-0.125000
G01 X102.144356 Y153.344616 Z-0.125000
G01 X105.393118 Y154.084866 Z-0.125000
G01 X108.997452 Y154.691581 Z-0.125000
G01 X115.045714 Y155.403125 Z-0.125000
G01 X117.528402 Y155.596799 Z-0.125000
G01 X119.189957 Y155.640588 Z-0.125000
G01 X120.277605 Y155.563541 Z-0.125000
G01 X121.007827 Y155.385821 Z-0.125000
G01 X121.574035 Y155.048398 Z-0.125000
G01 X121.912833 Y154.537330 Z-0.125000
G01 X122.048353 Y153.554271 Z-0.125000
G01 X121.888201 Y152.240537 Z-0.125000
G01 X121.396420 Y150.204624 Z-0.125000
G01 X120.699403 Y148.094892 Z-0.125000
G01 X119.955290 Y146.294220 Z-0.125000
G01 X119.093358 Y144.569985 Z-0.125000
G01 X118.094160 Y142.905256 Z-0.125000
G01 X117.015032 Y141.396153 Z-0.125000
G01 X115.953525 Y140.128960 Z-0.125000
G01 X114.803832 Y138.941458 Z-0.125000
G01 X113.575691 Y137.836745 Z-0.125000
G01 X112.197319 Y136.750790 Z-0.125000
G01 X109.003485 Y134.646482 Z-0.125000
G01 X104.437682 Y132.117757 Z-0.125000
G01 X103.386705 Y131.701674 Z-0.125000
G01 X102.315726 Y131.403541 Z-0.125000
G01 X101.244588 Y131.223995 Z-0.125000
G01 X100.074814 Y131.156447 Z-0.125000
G01 X99.026007 Y131.206215 Z-0.125000
G01 X97.895206 Y131.374570 Z-0.125000
G01 X96.795123 Y131.652038 Z-0.125000
G01 X95.636990 Y132.067407 Z-0.125000
G01 X94.529419 Y132.587577 Z-0.125000
G01 X93.393749 Y133.254564 Z-0.125000
G01 X92.309303 Y134.031486 Z-0.125000
G01 X91.359926 Y134.841454 Z-0.125000
G01 X90.490348 Y135.710847 Z-0.125000
G01 X89.637517 Y136.712849 Z-0.125000
G01 X88.888853 Y137.755465 Z-0.125000
G01 X88.198927 Y138.911984 Z-0.125000
G01 X87.327311 Y140.858971 Z-0.125000
G01 X86.778354 Y142.851651 Z-0.125000
G01 X86.599919 Y144.704605 Z-0.125000
G01 X86.796505 Y146.279377 Z-0.125000
G01 X87.028332 Y146.982347 Z-0.125000
G01 X87.349880 Y147.636502 Z-0.125000
G01 X87.764217 Y148.247848 Z-0.125000
G01 X88.276344 Y148.821887 Z-0.125000
G01 X89.555020 Y149.833308 Z-0.125000
G01 X91.209326 Y150.720270 Z-0.125000
G01 X92.777218 Y151.347861 Z-0.125000
G01 X94.653376 Y151.954708 Z-0.125000
G01 X101.486020 Y153.757709 Z-0.125000
G01 X104.723855 Y154.438587 Z-0.125000
G01 X108.437859 Y154.991672 Z-0.125000
G01 X115.243225 Y155.649345 Z-0.125000
G01 X118.146442 Y155.830770 Z-0.125000
G01 X119.983706 Y155.861753 Z-0.125000
G01 X121.124588 Y155.781161 Z-0.125000
G01 X122.001019 Y155.573728 Z-0.125000
G01 X122.616016 Y155.206328 Z-0.125000
G01 X122.985162 Y154.649407 Z-0.125000
G01 X123.139678 Y153.652696 Z-0.125000
G01 X122.974288 Y152.087450 Z-0.125000
G01 X122.481925 Y149.895882 Z-0.125000
G01 X121.777817 Y147.627427 Z-0.125000
G01 X121.016215 Y145.689965 Z-0.125000
G01 X120.128592 Y143.843996 Z-0.125000
G01 X119.138548 Y142.140187 Z-0.125000
G01 X118.006477 Y140.516891 Z-0.125000
G01 X116.960131 Y139.244247 Z-0.125000
G01 X115.748843 Y137.977688 Z-0.125000
G01 X114.449767 Y136.808575 Z-0.125000
G01 X112.986967 Y135.669625 Z-0.125000
G01 X109.774136 Y133.604184 Z-0.125000
G01 X104.910095 Y130.984680 Z-0.125000
G01 X103.804535 Y130.511606 Z-0.125000
G01 X102.687836 Y130.169473 Z-0.125000
G01 X101.568597 Y129.953547 Z-0.125000
G01 X100.353817 Y129.854805 Z-0.125000
G01 X99.228175 Y129.884174 Z-0.125000
G01 X98.012310 Y130.043109 Z-0.125000
G01 X96.827137 Y130.323381 Z-0.125000
G01 X95.679085 Y130.713615 Z-0.125000
G01 X94.475629 Y131.251486 Z-0.125000
G01 X93.329985 Y131.892094 Z-0.125000
G01 X92.248026 Y132.622184 Z-0.125000
G01 X91.154266 Y133.498907 Z-0.125000
G01 X90.147951 Y134.450215 Z-0.125000
G01 X89.168174 Y135.541858 Z-0.125000
G01 X88.359899 Y136.603047 Z-0.125000
G01 X87.588640 Y137.805445 Z-0.125000
G01 X86.536737 Y139.957430 Z-0.125000
G01 X85.858108 Y142.115555 Z-0.125000
G01 X85.549287 Y144.236955 Z-0.125000
G01 X85.549102 Y145.198529 Z-0.125000
G01 X85.665439 Y146.176745 Z-0.125000
G01 X85.864723 Y146.960837 Z-0.125000
G01 X86.154256 Y147.685106 Z-0.125000
G01 X86.597961 Y148.448904 Z-0.125000
G01 X87.089689 Y149.069060 Z-0.125000
G01 X87.684710 Y149.650402 Z-0.125000
G01 X88.413265 Y150.212747 Z-0.125000
G01 X90.228490 Y151.225571 Z-0.125000
G01 X91.878244 Y151.886076 Z-0.125000
G01 X93.855341 Y152.507846 Z-0.125000
G01 X100.696743 Y154.193001 Z-0.125000
G01 X104.237445 Y154.873033 Z-0.125000
G01 X108.159597 Y155.367697 Z-0.125000
G01 X115.913096 Y155.929380 Z-0.125000
G01 X119.054252 Y156.063524 Z-0.125000
G01 X121.031269 Y156.058550 Z-0.125000
G01 X122.219882 Y155.943377 Z-0.125000
G01 X123.121607 Y155.689694 Z-0.125000
G01 X123.742504 Y155.258847 Z-0.125000
G01 X124.102813 Y154.616757 Z-0.125000
G01 X124.232671 Y153.425049 Z-0.125000
G01 X124.042806 Y151.735713 Z-0.125000
G01 X123.513772 Y149.284828 Z-0.125000
G01 X122.783417 Y146.853389 Z-0.125000
G01 X121.980805 Y144.767285 Z-0.125000
G01 X121.086673 Y142.880543 Z-0.125000
G01 X120.034162 Y141.055397 Z-0.125000
G01 X118.890925 Y139.414268 Z-0.125000
G01 X117.755811 Y138.042246 Z-0.125000
G01 X116.523145 Y136.771454 Z-0.125000
G01 X115.122893 Y135.539000 Z-0.125000
G01 X113.638450 Y134.418200 Z-0.125000
G01 X112.084898 Y133.396883 Z-0.125000
G01 X110.296237 Y132.355485 Z-0.125000
G01 X105.071358 Y129.676846 Z-0.125000
G01 X104.012841 Y129.221816 Z-0.125000
G01 X102.846533 Y128.860158 Z-0.125000
G01 X101.677287 Y128.632458 Z-0.125000
G01 X100.491426 Y128.531175 Z-0.125000
G01 X99.317789 Y128.553956 Z-0.125000
G01 X98.058930 Y128.710034 Z-0.125000
G01 X96.829545 Y128.991338 Z-0.125000
G01 X95.635640 Y129.386334 Z-0.125000
G01 X94.388820 Y129.928782 Z-0.125000
G01 X93.196714 Y130.576085 Z-0.125000
G01 X92.064908 Y131.315091 Z-0.125000
G01 X90.919687 Y132.198560 Z-0.125000
G01 X89.856566 Y133.159261 Z-0.125000
G01 X88.881075 Y134.183515 Z-0.125000
G01 X87.931036 Y135.347495 Z-0.125000
G01 X87.119587 Y136.515999 Z-0.125000
G01 X86.417172 Y137.712761 Z-0.125000
G01 X85.826014 Y138.923599 Z-0.125000
G01 X84.971543 Y141.347073 Z-0.125000
G01 X84.680925 Y142.670094 Z-0.125000
G01 X84.525218 Y143.874661 Z-0.125000
G01 X84.485346 Y144.961833 Z-0.125000
G01 X84.564429 Y146.062101 Z-0.125000
G01 X84.760194 Y147.033597 Z-0.125000
G01 X85.032768 Y147.829383 Z-0.125000
G01 X85.397284 Y148.562358 Z-0.125000
G01 X85.930445 Y149.334093 Z-0.125000
G01 X86.578012 Y150.028941 Z-0.125000
G01 X87.297625 Y150.626634 Z-0.125000
G01 X88.145375 Y151.186836 Z-0.125000
G01 X89.173174 Y151.731189 Z-0.125000
G01 X90.492041 Y152.288771 Z-0.125000
G01 X92.123037 Y152.838019 Z-0.125000
G01 X96.395576 Y153.913099 Z-0.125000
G01 X102.162242 Y155.113036 Z-0.125000
G01 X104.606459 Y155.461994 Z-0.125000
G01 X107.251760 Y155.728985 Z-0.125000
G01 X115.515269 Y156.163457 Z-0.125000
G01 X119.588869 Y156.276169 Z-0.125000
G01 X121.894260 Y156.246456 Z-0.125000
G01 X123.218736 Y156.102126 Z-0.125000
G01 X124.152555 Y155.823335 Z-0.125000
G01 X124.790465 Y155.372406 Z-0.125000
G01 X125.160166 Y154.744286 Z-0.125000
G01 X125.329923 Y153.757471 Z-0.125000
G01 X125.249834 Y152.252497 Z-0.125000
G01 X124.901589 Y150.128927 Z-0.125000
G01 X124.343743 Y147.792580 Z-0.125000
G01 X123.721020 Y145.774394 Z-0.125000
G01 X122.977304 Y143.822988 Z-0.125000
G01 X122.121272 Y141.977733 Z-0.125000
G01 X121.176129 Y140.283714 Z-0.125000
G01 X120.223550 Y138.840467 Z-0.125000
G01 X119.174108 Y137.481542 Z-0.125000
G01 X118.019997 Y136.202707 Z-0.125000
G01 X116.832549 Y135.071085 Z-0.125000
G01 X115.488811 Y133.966081 Z-0.125000
G01 X114.075806 Y132.960401 Z-0.125000
G01 X112.511776 Y131.987556 Z-0.125000
G01 X110.703880 Y130.993173 Z-0.125000
G01 X105.341577 Y128.388115 Z-0.125000
G01 X103.404141 Y127.635641 Z-0.125000
G01 X102.164041 Y127.348807 Z-0.125000
G01 X100.823769 Y127.197307 Z-0.125000
G01 X99.496197 Y127.201117 Z-0.125000
G01 X98.189845 Y127.348225 Z-0.125000
G01 X96.621450 Y127.707687 Z-0.125000
G01 X95.106898 Y128.242330 Z-0.125000
G01 X93.567448 Y128.977183 Z-0.125000
G01 X92.110151 Y129.858324 Z-0.125000
G01 X90.641239 Y130.946051 Z-0.125000
G01 X89.328511 Y132.113074 Z-0.125000
G01 X88.064095 Y133.450488 Z-0.125000
G01 X86.943216 Y134.866404 Z-0.125000
G01 X86.133460 Y136.076580 Z-0.125000
G01 X85.377863 Y137.414523 Z-0.125000
G01 X84.767682 Y138.723971 Z-0.125000
G01 X84.244099 Y140.132399 Z-0.125000
G01 X83.850981 Y141.543817 Z-0.125000
G01 X83.587271 Y142.952431 Z-0.125000
G01 X83.453869 Y144.374247 Z-0.125000
G01 X83.466225 Y145.663851 Z-0.125000
G01 X83.591002 Y146.694984 Z-0.125000
G01 X83.847753 Y147.730244 Z-0.125000
G01 X84.225446 Y148.663878 Z-0.125000
G01 X84.725560 Y149.511708 Z-0.125000
G01 X85.354739 Y150.287941 Z-0.125000
G01 X86.124199 Y151.003506 Z-0.125000
G01 X87.048679 Y151.665678 Z-0.125000
G01 X88.046924 Y152.229293 Z-0.125000
G01 X89.334861 Y152.805793 Z-0.125000
G01 X90.934503 Y153.367582 Z-0.125000
G01 X95.052235 Y154.401546 Z-0.125000
G01 X101.423526 Y155.631645 Z-0.125000
G01 X103.886212 Y155.944779 Z-0.125000
G01 X106.652427 Y156.172241 Z-0.125000
G01 X110.307271 Y156.335171 Z-0.125000
G01 X115.513047 Y156.439073 Z-0.125000
G01 X120.451542 Y156.485137 Z-0.125000
G01 X122.966826 Y156.407323 Z-0.125000
G01 X124.355199 Y156.215738 Z-0.125000
G01 X125.289256 Y155.886862 Z-0.125000
G01 X125.883933 Y155.417386 Z-0.125000
G01 X126.287660 Y154.643295 Z-0.125000
G01 X126.432890 Y153.682594 Z-0.125000
G01 X126.381826 Y152.267525 Z-0.125000
G01 X126.107294 Y150.261854 Z-0.125000
G01 X125.654884 Y148.046368 Z-0.125000
G01 X125.107964 Y145.994183 Z-0.125000
G01 X124.477357 Y144.085798 Z-0.125000
G01 X123.754728 Y142.280231 Z-0.125000
G01 X122.957645 Y140.611189 Z-0.125000
G01 X122.105953 Y139.097800 Z-0.125000
G01 X121.219996 Y137.745517 Z-0.125000
G01 X120.252787 Y136.469565 Z-0.125000
G01 X119.208742 Y135.277566 Z-0.125000
G01 X118.093181 Y134.173540 Z-0.125000
G01 X116.831755 Y133.093354 Z-0.125000
G01 X115.504448 Y132.110084 Z-0.125000
G01 X114.120547 Y131.215344 Z-0.125000
G01 X110.753966 Y129.413983 Z-0.125000
G01 X104.509119 Y126.601228 Z-0.125000
G01 X103.419699 Y126.241104 Z-0.125000
G01 X102.326495 Y125.995227 Z-0.125000
G01 X101.195667 Y125.853357 Z-0.125000
G01 X100.111618 Y125.819676 Z-0.125000
G01 X98.613496 Y125.931489 Z-0.125000
G01 X97.147150 Y126.212476 Z-0.125000
G01 X95.620109 Y126.682031 Z-0.125000
G01 X94.051265 Y127.350659 Z-0.125000
G01 X92.553063 Y128.169067 Z-0.125000
G01 X91.048221 Y129.176996 Z-0.125000
G01 X89.642121 Y130.303935 Z-0.125000
G01 X88.270523 Y131.603804 Z-0.125000
G01 X87.094240 Y132.913252 Z-0.125000
G01 X85.983123 Y134.368300 Z-0.125000
G01 X85.050389 Y135.820464 Z-0.125000
G01 X84.239072 Y137.345546 Z-0.125000
G01 X83.578620 Y138.888515 Z-0.125000
G01 X83.050168 Y140.498847 Z-0.125000
G01 X82.683615 Y142.084995 Z-0.125000
G01 X82.460439 Y143.760441 Z-0.125000
G01 X82.410274 Y145.298356 Z-0.125000
G01 X82.523965 Y146.695407 Z-0.125000
G01 X82.796010 Y147.948737 Z-0.125000
G01 X83.217173 Y149.058609 Z-0.125000
G01 X83.786926 Y150.050081 Z-0.125000
G01 X84.587607 Y151.022768 Z-0.125000
G01 X85.502614 Y151.831889 Z-0.125000
G01 X86.575657 Y152.550047 Z-0.125000
G01 X87.922914 Y153.237063 Z-0.125000
G01 X89.383518 Y153.809409 Z-0.125000
G01 X91.074335 Y154.326986 Z-0.125000
G01 X93.124483 Y154.823397 Z-0.125000
G01 X100.287486 Y156.144645 Z-0.125000
G01 X102.698102 Y156.437962 Z-0.125000
G01 X105.368802 Y156.633753 Z-0.125000
G01 X112.361281 Y156.755937 Z-0.125000
G01 X121.050928 Y156.688072 Z-0.125000
G01 X123.945201 Y156.560384 Z-0.125000
G01 X125.387311 Y156.334986 Z-0.125000
G01 X126.328221 Y155.982826 Z-0.125000
G01 X126.957294 Y155.468000 Z-0.125000
G01 X127.376763 Y154.645914 Z-0.125000
G01 X127.529878 Y153.729558 Z-0.125000
G01 X127.528026 Y152.508772 Z-0.125000
G01 X127.344326 Y150.680503 Z-0.125000
G01 X127.020238 Y148.692929 Z-0.125000
G01 X126.097372 Y144.886109 Z-0.125000
G01 X125.512644 Y143.099486 Z-0.125000
G01 X124.858357 Y141.421739 Z-0.125000
G01 X123.457443 Y138.566888 Z-0.125000
G01 X122.640595 Y137.220346 Z-0.125000
G01 X121.749136 Y135.943177 Z-0.125000
G01 X119.827364 Y133.697979 Z-0.125000
G01 X117.614894 Y131.722364 Z-0.125000
G01 X115.037882 Y129.966274 Z-0.125000
G01 X111.994490 Y128.363007 Z-0.125000
G01 X104.794102 Y125.272360 Z-0.125000
G01 X103.644965 Y124.887285 Z-0.125000
G01 X102.518106 Y124.629423 Z-0.125000
G01 X101.262924 Y124.473001 Z-0.125000
G01 X100.017082 Y124.446993 Z-0.125000
G01 X98.684510 Y124.555604 Z-0.125000
G01 X97.375300 Y124.795211 Z-0.125000
G01 X95.997325 Y125.186026 Z-0.125000
G01 X94.657795 Y125.699899 Z-0.125000
G01 X93.361603 Y126.322357 Z-0.125000
G01 X92.025829 Y127.095151 Z-0.125000
G01 X90.339033 Y128.270085 Z-0.125000
G01 X88.695549 Y129.650626 Z-0.125000
G01 X87.188722 Y131.159252 Z-0.125000
G01 X85.784792 Y132.834909 Z-0.125000
G01 X84.620098 Y134.502708 Z-0.125000
G01 X83.581795 Y136.317271 Z-0.125000
G01 X82.743543 Y138.169617 Z-0.125000
G01 X82.109443 Y140.031461 Z-0.125000
G01 X81.642983 Y142.065787 Z-0.125000
G01 X81.411605 Y144.041904 Z-0.125000
G01 X81.404753 Y145.967592 Z-0.125000
G01 X81.624383 Y147.629808 Z-0.125000
G01 X82.047610 Y149.062075 Z-0.125000
G01 X82.692611 Y150.353426 Z-0.125000
G01 X83.628890 Y151.569555 Z-0.125000
G01 X84.747653 Y152.571425 Z-0.125000
G01 X85.985558 Y153.380202 Z-0.125000
G01 X87.509371 Y154.120849 Z-0.125000
G01 X89.254745 Y154.752092 Z-0.125000
G01 X91.232318 Y155.290439 Z-0.125000
G01 X94.233218 Y155.902763 Z-0.125000
G01 X99.258919 Y156.729453 Z-0.125000
G01 X101.518987 Y156.994142 Z-0.125000
G01 X103.985695 Y157.160935 Z-0.125000
G01 X106.972731 Y157.232055 Z-0.125000
G01 X110.470995 Y157.196839 Z-0.125000
G01 X122.041791 Y156.877302 Z-0.125000
G01 X124.886984 Y156.706302 Z-0.125000
G01 X126.424423 Y156.439919 Z-0.125000
G01 X127.435369 Y156.024815 Z-0.125000
G01 X128.105160 Y155.403521 Z-0.125000
G01 X128.481927 Y154.577044 Z-0.125000
G01 X128.633903 Y153.660343 Z-0.125000
G01 X128.645386 Y152.329623 Z-0.125000
G01 X128.488541 Y150.497676 Z-0.125000
G01 X128.203744 Y148.519204 Z-0.125000
G01 X127.356867 Y144.650392 Z-0.125000
G01 X126.202729 Y141.116542 Z-0.125000
G01 X124.831078 Y138.078891 Z-0.125000
G01 X123.252814 Y135.443248 Z-0.125000
G01 X121.410284 Y133.089597 Z-0.125000
G01 X119.307035 Y131.034528 Z-0.125000
G01 X118.092731 Y130.069673 Z-0.125000
G01 X116.738622 Y129.139769 Z-0.125000
G01 X115.331146 Y128.303449 Z-0.125000
G01 X113.693192 Y127.459376 Z-0.125000
G01 X109.900606 Y125.832006 Z-0.125000
G01 X104.868926 Y123.851470 Z-0.125000
G01 X103.455947 Y123.406944 Z-0.125000
G01 X102.343984 Y123.187498 Z-0.125000
G01 X101.135369 Y123.067140 Z-0.125000
G01 X99.891299 Y123.065817 Z-0.125000
G01 X98.707079 Y123.175619 Z-0.125000
G01 X97.435546 Y123.410119 Z-0.125000
G01 X96.189148 Y123.753971 Z-0.125000
G01 X94.971220 Y124.196697 Z-0.125000
G01 X93.687516 Y124.776108 Z-0.125000
G01 X91.701185 Y125.901300 Z-0.125000
G01 X89.835478 Y127.220140 Z-0.125000
G01 X88.025678 Y128.766840 Z-0.125000
G01 X86.308693 Y130.525893 Z-0.125000
G01 X84.787102 Y132.398850 Z-0.125000
G01 X83.475882 Y134.360759 Z-0.125000
G01 X82.383260 Y136.398286 Z-0.125000
G01 X81.524926 Y138.478015 Z-0.125000
G01 X80.882122 Y140.665402 Z-0.125000
G01 X80.491386 Y142.871045 Z-0.125000
G01 X80.353168 Y145.195698 Z-0.125000
G01 X80.490354 Y147.212667 Z-0.125000
G01 X80.875878 Y148.946797 Z-0.125000
G01 X81.555697 Y150.554773 Z-0.125000
G01 X82.463535 Y151.884726 Z-0.125000
G01 X83.641008 Y153.050214 Z-0.125000
G01 X84.953102 Y153.975038 Z-0.125000
G01 X86.448922 Y154.751668 Z-0.125000
G01 X88.158789 Y155.410110 Z-0.125000
G01 X90.221823 Y155.994812 Z-0.125000
G01 X93.212245 Y156.601447 Z-0.125000
G01 X98.104226 Y157.349450 Z-0.125000
G01 X100.540295 Y157.626098 Z-0.125000
G01 X103.190094 Y157.777254 Z-0.125000
G01 X106.062857 Y157.801887 Z-0.125000
G01 X109.375621 Y157.709204 Z-0.125000
G01 X123.318880 Y157.040946 Z-0.125000
G01 X125.893987 Y156.836185 Z-0.125000
G01 X127.466589 Y156.532127 Z-0.125000
G01 X128.502405 Y156.076224 Z-0.125000
G01 X129.184289 Y155.413126 Z-0.125000
G01 X129.589180 Y154.482587 Z-0.125000
G01 X129.745972 Y153.486829 Z-0.125000
G01 X129.762323 Y152.062447 Z-0.125000
G01 X129.626804 Y150.231929 Z-0.125000
G01 X129.369232 Y148.229750 Z-0.125000
G01 X128.581251 Y144.295163 Z-0.125000
G01 X128.069389 Y142.438981 Z-0.125000
G01 X127.453307 Y140.585339 Z-0.125000
G01 X126.174763 Y137.550995 Z-0.125000
G01 X124.611104 Y134.749432 Z-0.125000
G01 X122.806383 Y132.282327 Z-0.125000
G01 X120.763035 Y130.144761 Z-0.125000
G01 X119.420858 Y129.014780 Z-0.125000
G01 X118.030263 Y128.019551 Z-0.125000
G01 X116.580084 Y127.133833 Z-0.125000
G01 X114.886594 Y126.253301 Z-0.125000
G01 X111.547450 Y124.839502 Z-0.125000
G01 X103.959131 Y122.095273 Z-0.125000
G01 X102.930353 Y121.858657 Z-0.125000
G01 X101.765526 Y121.699748 Z-0.125000
G01 X100.608108 Y121.649689 Z-0.125000
G01 X99.461828 Y121.701918 Z-0.125000
G01 X97.214381 Y122.085510 Z-0.125000
G01 X94.849220 Y122.872962 Z-0.125000
G01 X92.684482 Y123.925711 Z-0.125000
G01 X90.548477 Y125.273153 Z-0.125000
G01 X88.474675 Y126.888697 Z-0.125000
G01 X86.501759 Y128.745779 Z-0.125000
G01 X84.736647 Y130.742110 Z-0.125000
G01 X83.223390 Y132.810250 Z-0.125000
G01 X81.916562 Y135.017375 Z-0.125000
G01 X80.870851 Y137.291042 Z-0.125000
G01 X80.064402 Y139.717771 Z-0.125000
G01 X79.558202 Y142.142860 Z-0.125000
G01 X79.338412 Y144.661134 Z-0.125000
G01 X79.427180 Y147.065955 Z-0.125000
G01 X79.807941 Y149.076098 Z-0.125000
G01 X80.465139 Y150.804778 Z-0.125000
G01 X81.376284 Y152.269800 Z-0.125000
G01 X82.635990 Y153.610760 Z-0.125000
G01 X83.949433 Y154.595432 Z-0.125000
G01 X85.522326 Y155.458608 Z-0.125000
G01 X87.306250 Y156.173299 Z-0.125000
G01 X89.442917 Y156.789169 Z-0.125000
G01 X92.706336 Y157.429116 Z-0.125000
G01 X97.735054 Y158.122932 Z-0.125000
G01 X100.072962 Y158.349627 Z-0.125000
G01 X102.613250 Y158.451914 Z-0.125000
G01 X105.369940 Y158.427705 Z-0.125000
G01 X108.663337 Y158.271178 Z-0.125000
G01 X124.572078 Y157.187869 Z-0.125000
G01 X127.021614 Y156.940537 Z-0.125000
G01 X128.513915 Y156.613248 Z-0.125000
G01 X129.571850 Y156.114482 Z-0.125000
G01 X130.003411 Y155.741844 Z-0.125000
G01 X130.279530 Y155.384392 Z-0.125000
G01 X130.708789 Y154.319260 Z-0.125000
G01 X130.862830 Y153.240185 Z-0.125000
G01 X130.880398 Y151.735025 Z-0.125000
G01 X130.755197 Y149.831986 Z-0.125000
G01 X130.506410 Y147.732070 Z-0.125000
G01 X129.753592 Y143.731839 Z-0.125000
G01 X128.658430 Y139.932851 Z-0.125000
G01 X127.364011 Y136.715283 Z-0.125000
G01 X125.806225 Y133.804368 Z-0.125000
G01 X124.029259 Y131.265932 Z-0.125000
G01 X123.031041 Y130.098036 Z-0.125000
G01 X121.992288 Y129.036450 Z-0.125000
G01 X120.662123 Y127.866781 Z-0.125000
G01 X119.178606 Y126.767703 Z-0.125000
G01 X117.625504 Y125.803907 Z-0.125000
G01 X115.828350 Y124.874347 Z-0.125000
G01 X112.440101 Y123.490340 Z-0.125000
G01 X104.453054 Y120.774422 Z-0.125000
G01 X102.408727 Y120.341697 Z-0.125000
G01 X100.274574 Y120.248299 Z-0.125000
G01 X98.083562 Y120.506585 Z-0.125000
G01 X95.859531 Y121.113062 Z-0.125000
G01 X93.534640 Y122.099136 Z-0.125000
G01 X91.234487 Y123.416257 Z-0.125000
G01 X88.910417 Y125.093158 Z-0.125000
G01 X86.693397 Y127.043452 Z-0.125000
G01 X84.688625 Y129.163476 Z-0.125000
G01 X82.916950 Y131.424444 Z-0.125000
G01 X81.412240 Y133.790556 Z-0.125000
G01 X80.193148 Y136.243188 Z-0.125000
G01 X79.271473 Y138.767283 Z-0.125000
G01 X78.638670 Y141.434200 Z-0.125000
G01 X78.337812 Y144.136731 Z-0.125000
G01 X78.370488 Y146.858972 Z-0.125000
G01 X78.700847 Y149.010720 Z-0.125000
G01 X79.349155 Y150.971624 Z-0.125000
G01 X80.309591 Y152.668659 Z-0.125000
G01 X80.899770 Y153.418091 Z-0.125000
G01 X81.648037 Y154.189112 Z-0.125000
G01 X82.970449 Y155.238475 Z-0.125000
G01 X84.628141 Y156.197509 Z-0.125000
G01 X86.492419 Y156.974509 Z-0.125000
G01 X88.673271 Y157.617420 Z-0.125000
G01 X91.761113 Y158.224029 Z-0.125000
G01 X95.968063 Y158.773251 Z-0.125000
G01 X99.057916 Y159.081384 Z-0.125000
G01 X101.969228 Y159.174596 Z-0.125000
G01 X104.790768 Y159.102683 Z-0.125000
G01 X107.853687 Y158.898795 Z-0.125000
G01 X118.055742 Y157.929601 Z-0.125000
G01 X125.858718 Y157.316377 Z-0.125000
G01 X128.052350 Y157.050339 Z-0.125000
G01 X129.566505 Y156.684765 Z-0.125000
G01 X130.660371 Y156.128267 Z-0.125000
G01 X131.104156 Y155.715465 Z-0.125000
G01 X131.397658 Y155.302609 Z-0.125000
G01 X131.813397 Y154.198954 Z-0.125000
G01 X132.001859 Y152.510439 Z-0.125000
G01 X131.935925 Y150.074053 Z-0.125000
G01 X131.619643 Y147.031083 Z-0.125000
G01 X131.110612 Y144.034469 Z-0.125000
G01 X130.466035 Y141.307571 Z-0.125000
G01 X129.690939 Y138.779745 Z-0.125000
G01 X128.780879 Y136.408605 Z-0.125000
G01 X127.739745 Y134.199284 Z-0.125000
G01 X126.602303 Y132.205757 Z-0.125000
G01 X125.383104 Y130.423923 Z-0.125000
G01 X124.046510 Y128.791313 Z-0.125000
G01 X122.609877 Y127.329440 Z-0.125000
G01 X121.033545 Y126.003138 Z-0.125000
G01 X119.382653 Y124.862124 Z-0.125000
G01 X117.561687 Y123.835965 Z-0.125000
G01 X115.569721 Y122.925217 Z-0.125000
G01 X112.000681 Y121.652811 Z-0.125000
G01 X104.623340 Y119.360279 Z-0.125000
G01 X103.327095 Y119.041033 Z-0.125000
G01 X101.686416 Y118.842146 Z-0.125000
G01 X100.101749 Y118.846009 Z-0.125000
G01 X98.438633 Y119.046669 Z-0.125000
G01 X96.809357 Y119.429467 Z-0.125000
G01 X94.632130 Y120.215967 Z-0.125000
G01 X92.443526 Y121.307425 Z-0.125000
G01 X90.178352 Y122.743846 Z-0.125000
G01 X87.963951 Y124.451464 Z-0.125000
G01 X85.836544 Y126.398901 Z-0.125000
G01 X83.838070 Y128.560676 Z-0.125000
G01 X82.132197 Y130.754255 Z-0.125000
G01 X80.662280 Y133.039299 Z-0.125000
G01 X79.713935 Y134.829203 Z-0.125000
G01 X78.914207 Y136.668796 Z-0.125000
G01 X78.272196 Y138.543261 Z-0.125000
G01 X77.791210 Y140.439130 Z-0.125000
G01 X77.472070 Y142.336429 Z-0.125000
G01 X77.310066 Y144.247697 Z-0.125000
G01 X77.304140 Y146.268476 Z-0.125000
G01 X77.473129 Y148.145004 Z-0.125000
G01 X77.790020 Y149.732582 Z-0.125000
G01 X78.229783 Y151.094337 Z-0.125000
G01 X78.832821 Y152.380978 Z-0.125000
G01 X79.565531 Y153.519399 Z-0.125000
G01 X80.432595 Y154.541880 Z-0.125000
G01 X81.523709 Y155.532638 Z-0.125000
G01 X82.800084 Y156.425579 Z-0.125000
G01 X84.149378 Y157.157522 Z-0.125000
G01 X85.509414 Y157.735635 Z-0.125000
G01 X86.956604 Y158.217970 Z-0.125000
G01 X88.637103 Y158.648182 Z-0.125000
G01 X90.472330 Y159.001321 Z-0.125000
G01 X93.119430 Y159.370838 Z-0.125000
G01 X96.979246 Y159.774882 Z-0.125000
G01 X98.996585 Y159.913497 Z-0.125000
G01 X101.010671 Y159.948846 Z-0.125000
G01 X104.064646 Y159.837192 Z-0.125000
G01 X107.606884 Y159.529746 Z-0.125000
G01 X118.343185 Y158.264748 Z-0.125000
G01 X127.488920 Y157.391042 Z-0.125000
G01 X129.093351 Y157.153341 Z-0.125000
G01 X130.280059 Y156.865581 Z-0.125000
G01 X131.034094 Y156.573746 Z-0.125000
G01 X131.576569 Y156.260241 Z-0.125000
G01 X132.068032 Y155.834289 Z-0.125000
G01 X132.396088 Y155.407279 Z-0.125000
G01 X132.693427 Y154.815036 Z-0.125000
G01 X132.883979 Y154.206733 Z-0.125000
G01 X133.110171 Y152.438022 Z-0.125000
G01 X133.041062 Y149.330230 Z-0.125000
G01 X132.635800 Y145.618978 Z-0.125000
G01 X131.981936 Y142.094758 Z-0.125000
G01 X131.097356 Y138.773660 Z-0.125000
G01 X130.157081 Y136.090180 Z-0.125000
G01 X129.093748 Y133.658873 Z-0.125000
G01 X127.867380 Y131.373591 Z-0.125000
G01 X126.515308 Y129.306986 Z-0.125000
G01 X125.036394 Y127.449031 Z-0.125000
G01 X123.388122 Y125.758901 Z-0.125000
G01 X121.638408 Y124.308722 Z-0.125000
G01 X119.788576 Y123.080131 Z-0.125000
G01 X117.418045 Y121.856355 Z-0.125000
G01 X114.700169 Y120.799081 Z-0.125000
G01 X104.075706 Y117.740105 Z-0.125000
G01 X102.518979 Y117.473088 Z-0.125000
G01 X100.874807 Y117.398343 Z-0.125000
G01 X99.254660 Y117.518755 Z-0.125000
G01 X97.565403 Y117.839535 Z-0.125000
G01 X95.149549 Y118.627067 Z-0.125000
G01 X92.733033 Y119.777817 Z-0.125000
G01 X90.252435 Y121.315097 Z-0.125000
G01 X87.752999 Y123.220492 Z-0.125000
G01 X85.366910 Y125.393697 Z-0.125000
G01 X83.142560 Y127.796217 Z-0.125000
G01 X81.215735 Y130.288218 Z-0.125000
G01 X79.592571 Y132.862479 Z-0.125000
G01 X78.606655 Y134.789569 Z-0.125000
G01 X77.822987 Y136.671415 Z-0.125000
G01 X77.196110 Y138.592923 Z-0.125000
G01 X76.708775 Y140.649130 Z-0.125000
G01 X76.406171 Y142.666258 Z-0.125000
G01 X76.269117 Y144.759824 Z-0.125000
G01 X76.300153 Y146.808516 Z-0.125000
G01 X76.506316 Y148.740978 Z-0.125000
G01 X76.865382 Y150.397823 Z-0.125000
G01 X77.348722 Y151.813448 Z-0.125000
G01 X78.006766 Y153.159037 Z-0.125000
G01 X78.797155 Y154.346142 Z-0.125000
G01 X79.724254 Y155.410718 Z-0.125000
G01 X80.882228 Y156.441004 Z-0.125000
G01 X82.227288 Y157.367256 Z-0.125000
G01 X83.666514 Y158.135262 Z-0.125000
G01 X85.106957 Y158.733616 Z-0.125000
G01 X86.607592 Y159.217988 Z-0.125000
G01 X88.258299 Y159.624626 Z-0.125000
G01 X90.164223 Y159.971520 Z-0.125000
G01 X92.922077 Y160.319976 Z-0.125000
G01 X96.955777 Y160.678592 Z-0.125000
G01 X100.699547 Y160.764661 Z-0.125000
G01 X103.538788 Y160.609642 Z-0.125000
G01 X106.727568 Y160.277537 Z-0.125000
G01 X118.684815 Y158.608865 Z-0.125000
G01 X128.525424 Y157.519550 Z-0.125000
G01 X131.068966 Y157.019356 Z-0.125000
G01 X131.841019 Y156.738290 Z-0.125000
G01 X132.488110 Y156.388855 Z-0.125000
G01 X133.015689 Y155.959331 Z-0.125000
G01 X133.380310 Y155.518403 Z-0.125000
G01 X133.693524 Y154.953730 Z-0.125000
G01 X133.933395 Y154.273143 Z-0.125000
G01 X134.210254 Y152.426883 Z-0.125000
G01 X134.181679 Y149.119834 Z-0.125000
G01 X133.797928 Y145.227051 Z-0.125000
G01 X133.149118 Y141.535668 Z-0.125000
G01 X132.235036 Y137.984938 Z-0.125000
G01 X131.283649 Y135.198561 Z-0.125000
G01 X130.141841 Y132.534369 Z-0.125000
G01 X128.841759 Y130.081367 Z-0.125000
G01 X127.433728 Y127.908956 Z-0.125000
G01 X125.887823 Y125.952920 Z-0.125000
G01 X124.157688 Y124.174314 Z-0.125000
G01 X122.323995 Y122.663386 Z-0.125000
G01 X120.322901 Y121.362722 Z-0.125000
G01 X117.942660 Y120.181915 Z-0.125000
G01 X115.156998 Y119.163535 Z-0.125000
G01 X104.027790 Y116.257937 Z-0.125000
G01 X102.402192 Y116.017193 Z-0.125000
G01 X100.802232 Y115.976077 Z-0.125000
G01 X99.122395 Y116.131678 Z-0.125000
G01 X97.372681 Y116.500110 Z-0.125000
G01 X94.872001 Y117.370456 Z-0.125000
G01 X92.300942 Y118.658525 Z-0.125000
G01 X89.650112 Y120.373500 Z-0.125000
G01 X86.998884 Y122.467251 Z-0.125000
G01 X84.479816 Y124.827913 Z-0.125000
G01 X82.136775 Y127.422917 Z-0.125000
G01 X80.138009 Y130.075732 Z-0.125000
G01 X78.498917 Y132.752174 Z-0.125000
G01 X77.516520 Y134.737261 Z-0.125000
G01 X76.726237 Y136.713114 Z-0.125000
G01 X76.100763 Y138.736830 Z-0.125000
G01 X75.625546 Y140.902389 Z-0.125000
G01 X75.338209 Y143.087500 Z-0.125000
G01 X75.234571 Y145.373709 Z-0.125000
G01 X75.318100 Y147.606816 Z-0.125000
G01 X75.571280 Y149.521736 Z-0.125000
G01 X75.962598 Y151.149715 Z-0.125000
G01 X76.499781 Y152.620955 Z-0.125000
G01 X77.193729 Y153.972498 Z-0.125000
G01 X78.112679 Y155.292026 Z-0.125000
G01 X79.115607 Y156.391792 Z-0.125000
G01 X80.359121 Y157.455759 Z-0.125000
G01 X81.805808 Y158.416778 Z-0.125000
G01 X83.330044 Y159.200605 Z-0.125000
G01 X84.757099 Y159.773136 Z-0.125000
G01 X86.390846 Y160.278754 Z-0.125000
G01 X88.040547 Y160.661738 Z-0.125000
G01 X89.956737 Y160.985059 Z-0.125000
G01 X92.566372 Y161.282635 Z-0.125000
G01 X96.144487 Y161.556478 Z-0.125000
G01 X98.203736 Y161.649268 Z-0.125000
G01 X100.353976 Y161.619423 Z-0.125000
G01 X103.023433 Y161.429214 Z-0.125000
G01 X106.142866 Y161.047209 Z-0.125000
G01 X119.021153 Y158.968407 Z-0.125000
G01 X129.578253 Y157.644063 Z-0.125000
G01 X132.071286 Y157.108785 Z-0.125000
G01 X132.852785 Y156.809172 Z-0.125000
G01 X133.505008 Y156.444232 Z-0.125000
G01 X134.070660 Y155.969332 Z-0.125000
G01 X134.460947 Y155.478187 Z-0.125000
G01 X134.798528 Y154.835488 Z-0.125000
G01 X135.050279 Y154.067562 Z-0.125000
G01 X135.324493 Y152.118353 Z-0.125000
G01 X135.302638 Y148.628159 Z-0.125000
G01 X134.917458 Y144.571493 Z-0.125000
G01 X134.234093 Y140.638467 Z-0.125000
G01 X133.270932 Y136.900227 Z-0.125000
G01 X132.247366 Y133.921604 Z-0.125000
G01 X131.033512 Y131.117183 Z-0.125000
G01 X129.677895 Y128.582505 Z-0.125000
G01 X128.147123 Y126.247216 Z-0.125000
G01 X126.516922 Y124.217335 Z-0.125000
G01 X124.683414 Y122.372054 Z-0.125000
G01 X122.766299 Y120.838557 Z-0.125000
G01 X120.730200 Y119.565675 Z-0.125000
G01 X118.271457 Y118.411431 Z-0.125000
G01 X115.395228 Y117.445333 Z-0.125000
G01 X103.706851 Y114.732960 Z-0.125000
G01 X102.051117 Y114.553652 Z-0.125000
G01 X100.303784 Y114.584450 Z-0.125000
G01 X98.588228 Y114.823739 Z-0.125000
G01 X96.907491 Y115.249479 Z-0.125000
G01 X95.550656 Y115.724379 Z-0.125000
G01 X94.219222 Y116.298895 Z-0.125000
G01 X91.545267 Y117.756827 Z-0.125000
G01 X88.758282 Y119.677408 Z-0.125000
G01 X86.019371 Y121.946181 Z-0.125000
G01 X83.368726 Y124.527479 Z-0.125000
G01 X80.994094 Y127.248477 Z-0.125000
G01 X78.961540 Y130.038717 Z-0.125000
G01 X77.313797 Y132.839248 Z-0.125000
G01 X76.344312 Y134.897730 Z-0.125000
G01 X75.549293 Y137.018231 Z-0.125000
G01 X74.959167 Y139.097986 Z-0.125000
G01 X74.521944 Y141.325377 Z-0.125000
G01 X74.265113 Y143.684294 Z-0.125000
G01 X74.207037 Y146.024636 Z-0.125000
G01 X74.330121 Y148.268670 Z-0.125000
G01 X74.626798 Y150.247513 Z-0.125000
G01 X75.064127 Y151.927456 Z-0.125000
G01 X75.649438 Y153.437934 Z-0.125000
G01 X76.452659 Y154.916583 Z-0.125000
G01 X77.382509 Y156.192720 Z-0.125000
G01 X78.539134 Y157.414326 Z-0.125000
G01 X79.827891 Y158.478479 Z-0.125000
G01 X81.338157 Y159.456404 Z-0.125000
G01 X82.978069 Y160.278278 Z-0.125000
G01 X84.459681 Y160.854064 Z-0.125000
G01 X86.077447 Y161.338224 Z-0.125000
G01 X87.811895 Y161.722901 Z-0.125000
G01 X89.686862 Y162.018282 Z-0.125000
G01 X92.336978 Y162.288500 Z-0.125000
G01 X96.199864 Y162.529668 Z-0.125000
G01 X98.175346 Y162.573139 Z-0.125000
G01 X100.141039 Y162.505591 Z-0.125000
G01 X102.628410 Y162.281568 Z-0.125000
G01 X105.529219 Y161.873661 Z-0.125000
G01 X118.223832 Y159.532736 Z-0.125000
G01 X122.733358 Y158.830136 Z-0.125000
G01 X130.227222 Y157.834642 Z-0.125000
G01 X131.939127 Y157.513306 Z-0.125000
G01 X133.178381 Y157.163210 Z-0.125000
G01 X133.962922 Y156.831873 Z-0.125000
G01 X134.613770 Y156.433226 Z-0.125000
G01 X135.113356 Y155.989176 Z-0.125000
G01 X135.566824 Y155.389790 Z-0.125000
G01 X135.926313 Y154.643295 Z-0.125000
G01 X136.174571 Y153.805149 Z-0.125000
G01 X136.444790 Y151.648559 Z-0.125000
G01 X136.408648 Y147.917542 Z-0.125000
G01 X136.010160 Y143.760943 Z-0.125000
G01 X135.292611 Y139.667447 Z-0.125000
G01 X134.291032 Y135.813955 Z-0.125000
G01 X133.226694 Y132.735241 Z-0.125000
G01 X131.946032 Y129.790088 Z-0.125000
G01 X130.465188 Y127.042711 Z-0.125000
G01 X128.865016 Y124.626116 Z-0.125000
G01 X127.117657 Y122.476299 Z-0.125000
G01 X125.211601 Y120.589214 Z-0.125000
G01 X123.254825 Y119.054527 Z-0.125000
G01 X121.087361 Y117.743095 Z-0.125000
G01 X118.562763 Y116.622692 Z-0.125000
G01 X115.784033 Y115.760389 Z-0.125000
G01 X113.312563 Y115.203442 Z-0.125000
G01 X107.622600 Y114.141273 Z-0.125000
G01 X103.661501 Y113.269605 Z-0.125000
G01 X101.940336 Y113.114215 Z-0.125000
G01 X100.181388 Y113.181895 Z-0.125000
G01 X98.411116 Y113.466746 Z-0.125000
G01 X96.577477 Y113.979269 Z-0.125000
G01 X93.888837 Y115.104620 Z-0.125000
G01 X91.037717 Y116.737441 Z-0.125000
G01 X88.152334 Y118.802644 Z-0.125000
G01 X85.207207 Y121.313536 Z-0.125000
G01 X82.433346 Y124.078482 Z-0.125000
G01 X79.957325 Y126.973205 Z-0.125000
G01 X77.852726 Y129.927909 Z-0.125000
G01 X76.195457 Y132.826098 Z-0.125000
G01 X75.198667 Y135.027508 Z-0.125000
G01 X74.431641 Y137.181161 Z-0.125000
G01 X73.839928 Y139.416226 Z-0.125000
G01 X73.433290 Y141.711087 Z-0.125000
G01 X73.208633 Y144.147817 Z-0.125000
G01 X73.186170 Y146.754144 Z-0.125000
G01 X73.359472 Y149.084512 Z-0.125000
G01 X73.720284 Y151.157202 Z-0.125000
G01 X74.207540 Y152.843734 Z-0.125000
G01 X74.905589 Y154.488884 Z-0.125000
G01 X75.781464 Y155.973645 Z-0.125000
G01 X76.801432 Y157.281664 Z-0.125000
G01 X78.049893 Y158.526977 Z-0.125000
G01 X79.481922 Y159.648676 Z-0.125000
G01 X81.052752 Y160.616706 Z-0.125000
G01 X82.761005 Y161.434823 Z-0.125000
G01 X84.300481 Y162.004735 Z-0.125000
G01 X85.919676 Y162.463813 Z-0.125000
G01 X87.628936 Y162.820391 Z-0.125000
G01 X89.573753 Y163.100797 Z-0.125000
G01 X92.322691 Y163.339106 Z-0.125000
G01 X96.299162 Y163.521351 Z-0.125000
G01 X98.084832 Y163.524367 Z-0.125000
G01 X99.961758 Y163.423588 Z-0.125000
G01 X102.362187 Y163.160645 Z-0.125000
G01 X105.025638 Y162.733582 Z-0.125000
G01 X118.624622 Y159.933077 Z-0.125000
G01 X123.432572 Y159.109165 Z-0.125000
G01 X131.221075 Y157.977358 Z-0.125000
G01 X132.933800 Y157.629511 Z-0.125000
G01 X134.193242 Y157.249967 Z-0.125000
G01 X134.982360 Y156.899341 Z-0.125000
G01 X135.704275 Y156.430606 Z-0.125000
G01 X136.223070 Y155.932582 Z-0.125000
G01 X136.696541 Y155.247550 Z-0.125000
G01 X137.050447 Y154.436973 Z-0.125000
G01 X137.283836 Y153.580862 Z-0.125000
G01 X137.554901 Y151.292140 Z-0.125000
G01 X137.587339 Y149.416749 Z-0.125000
G01 X137.517542 Y147.343794 Z-0.125000
G01 X137.095188 Y142.959178 Z-0.125000
G01 X136.337952 Y138.700688 Z-0.125000
G01 X135.292319 Y134.730593 Z-0.125000
G01 X134.145802 Y131.456987 Z-0.125000
G01 X132.830401 Y128.463045 Z-0.125000
G01 X131.328760 Y125.683098 Z-0.125000
G01 X129.602250 Y123.075792 Z-0.125000
G01 X127.716832 Y120.769078 Z-0.125000
G01 X125.765744 Y118.853285 Z-0.125000
G01 X123.696017 Y117.251976 Z-0.125000
G01 X121.469974 Y115.939962 Z-0.125000
G01 X118.957997 Y114.869935 Z-0.125000
G01 X116.037159 Y114.031604 Z-0.125000
G01 X113.398817 Y113.515032 Z-0.125000
G01 X107.607307 Y112.600898 Z-0.125000
G01 X103.507382 Y111.792147 Z-0.125000
G01 X101.731395 Y111.682504 Z-0.125000
G01 X99.987687 Y111.795586 Z-0.125000
G01 X98.179156 Y112.133009 Z-0.125000
G01 X96.312761 Y112.704164 Z-0.125000
G01 X94.965081 Y113.248835 Z-0.125000
G01 X93.546758 Y113.934793 Z-0.125000
G01 X90.562711 Y115.723427 Z-0.125000
G01 X87.437748 Y118.045301 Z-0.125000
G01 X84.282199 Y120.820751 Z-0.125000
G01 X81.361150 Y123.809771 Z-0.125000
G01 X78.840176 Y126.828055 Z-0.125000
G01 X76.710918 Y129.892958 Z-0.125000
G01 X75.041690 Y132.906294 Z-0.125000
G01 X74.051409 Y135.188163 Z-0.125000
G01 X73.288590 Y137.456327 Z-0.125000
G01 X72.714974 Y139.805904 Z-0.125000
G01 X72.342997 Y142.162545 Z-0.125000
G01 X72.152100 Y144.684232 Z-0.125000
G01 X72.166784 Y147.437483 Z-0.125000
G01 X72.386521 Y149.875033 Z-0.125000
G01 X72.793026 Y151.982966 Z-0.125000
G01 X73.355291 Y153.779141 Z-0.125000
G01 X74.076994 Y155.377513 Z-0.125000
G01 X75.027191 Y156.917862 Z-0.125000
G01 X76.126930 Y158.275067 Z-0.125000
G01 X77.466620 Y159.569248 Z-0.125000
G01 X78.975061 Y160.721375 Z-0.125000
G01 X80.689426 Y161.752587 Z-0.125000
G01 X82.463508 Y162.579647 Z-0.125000
G01 X84.030686 Y163.144188 Z-0.125000
G01 X85.660914 Y163.592418 Z-0.125000
G01 X87.491908 Y163.954950 Z-0.125000
G01 X89.412331 Y164.207494 Z-0.125000
G01 X91.957143 Y164.398894 Z-0.125000
G01 X95.604393 Y164.522533 Z-0.125000
G01 X97.722883 Y164.517982 Z-0.125000
G01 X99.819465 Y164.373282 Z-0.125000
G01 X102.440160 Y164.023636 Z-0.125000
G01 X105.249184 Y163.495237 Z-0.125000
G01 X115.583452 Y161.093167 Z-0.125000
G01 X119.912930 Y160.169085 Z-0.125000
G01 X124.380334 Y159.355492 Z-0.125000
G01 X132.229136 Y158.122350 Z-0.125000
G01 X133.956017 Y157.744102 Z-0.125000
G01 X135.213289 Y157.339237 Z-0.125000
G01 X136.094588 Y156.918100 Z-0.125000
G01 X136.750939 Y156.462621 Z-0.125000
G01 X137.354850 Y155.840216 Z-0.125000
G01 X137.775113 Y155.186749 Z-0.125000
G01 X138.113409 Y154.393582 Z-0.125000
G01 X138.369684 Y153.447856 Z-0.125000
G01 X138.552935 Y152.299143 Z-0.125000
G01 X138.664906 Y150.861187 Z-0.125000
G01 X138.622123 Y146.801320 Z-0.125000
G01 X138.184609 Y142.272585 Z-0.125000
G01 X137.412582 Y137.945039 Z-0.125000
G01 X136.303741 Y133.754679 Z-0.125000
G01 X135.112773 Y130.372753 Z-0.125000
G01 X133.684660 Y127.143279 Z-0.125000
G01 X132.051945 Y124.152142 Z-0.125000
G01 X130.243044 Y121.449373 Z-0.125000
G01 X128.259280 Y119.044129 Z-0.125000
G01 X126.189738 Y117.036817 Z-0.125000
G01 X124.054289 Y115.415055 Z-0.125000
G01 X121.715322 Y114.079970 Z-0.125000
G01 X119.145983 Y113.047778 Z-0.125000
G01 X116.261685 Y112.295013 Z-0.125000
G01 X113.775239 Y111.872210 Z-0.125000
G01 X107.623076 Y111.071714 Z-0.125000
G01 X103.229913 Y110.318393 Z-0.125000
G01 X101.409582 Y110.269948 Z-0.125000
G01 X99.619784 Y110.450446 Z-0.125000
G01 X97.765931 Y110.865286 Z-0.125000
G01 X95.982588 Y111.471499 Z-0.125000
G01 X94.495896 Y112.122029 Z-0.125000
G01 X93.035874 Y112.880350 Z-0.125000
G01 X89.871991 Y114.888800 Z-0.125000
G01 X86.604523 Y117.422896 Z-0.125000
G01 X83.249875 Y120.469411 Z-0.125000
G01 X80.239688 Y123.629908 Z-0.125000
G01 X77.647674 Y126.810460 Z-0.125000
G01 X75.517437 Y129.965903 Z-0.125000
G01 X73.856120 Y133.077585 Z-0.125000
G01 X72.894890 Y135.399327 Z-0.125000
G01 X72.158318 Y137.718926 Z-0.125000
G01 X71.592242 Y140.233629 Z-0.125000
G01 X71.246671 Y142.735631 Z-0.125000
G01 X71.092842 Y145.497243 Z-0.125000
G01 X71.156580 Y148.283170 Z-0.125000
G01 X71.414469 Y150.689658 Z-0.125000
G01 X71.897783 Y152.947980 Z-0.125000
G01 X72.526194 Y154.783762 Z-0.125000
G01 X73.318752 Y156.413276 Z-0.125000
G01 X74.358008 Y157.994556 Z-0.125000
G01 X75.553103 Y159.391713 Z-0.125000
G01 X76.992408 Y160.720370 Z-0.125000
G01 X78.627610 Y161.920148 Z-0.125000
G01 X80.443893 Y162.971363 Z-0.125000
G01 X82.362120 Y163.827209 Z-0.125000
G01 X83.938770 Y164.366482 Z-0.125000
G01 X85.630884 Y164.803759 Z-0.125000
G01 X87.426133 Y165.131392 Z-0.125000
G01 X89.411431 Y165.361791 Z-0.125000
G01 X92.050938 Y165.514667 Z-0.125000
G01 X95.911495 Y165.579728 Z-0.125000
G01 X97.829589 Y165.524827 Z-0.125000
G01 X99.715378 Y165.352980 Z-0.125000
G01 X102.178699 Y164.974864 Z-0.125000
G01 X104.990343 Y164.386511 Z-0.125000
G01 X115.353503 Y161.740126 Z-0.125000
G01 X119.983944 Y160.656949 Z-0.125000
G01 X124.833645 Y159.694449 Z-0.125000
G01 X133.213967 Y158.278242 Z-0.125000
G01 X135.007919 Y157.855809 Z-0.125000
G01 X136.347768 Y157.385645 Z-0.125000
G01 X137.154534 Y156.968265 Z-0.125000
G01 X137.894626 Y156.410577 Z-0.125000
G01 X138.497055 Y155.721074 Z-0.125000
G01 X138.919858 Y154.986697 Z-0.125000
G01 X139.258048 Y154.090396 Z-0.125000
G01 X139.515196 Y152.991451 Z-0.125000
G01 X139.776869 Y150.258467 Z-0.125000
G01 X139.707416 Y146.045141 Z-0.125000
G01 X139.235850 Y141.401736 Z-0.125000
G01 X138.404451 Y136.901338 Z-0.125000
G01 X137.231104 Y132.593186 Z-0.125000
G01 X135.978013 Y129.113443 Z-0.125000
G01 X134.461079 Y125.744164 Z-0.125000
G01 X132.739305 Y122.635737 Z-0.125000
G01 X130.828381 Y119.812848 Z-0.125000
G01 X128.746933 Y117.313412 Z-0.125000
G01 X126.611272 Y115.259533 Z-0.125000
G01 X124.365915 Y113.576256 Z-0.125000
G01 X123.135815 Y112.836985 Z-0.125000
G01 X121.911696 Y112.216459 Z-0.125000
G01 X119.292615 Y111.224325 Z-0.125000
G01 X116.353574 Y110.536859 Z-0.125000
G01 X113.856069 Y110.183853 Z-0.125000
G01 X107.860910 Y109.578831 Z-0.125000
G01 X103.024888 Y108.873823 Z-0.125000
G01 X101.257183 Y108.869351 Z-0.125000
G01 X99.426162 Y109.098163 Z-0.125000
G01 X97.537331 Y109.569120 Z-0.125000
G01 X95.594657 Y110.287331 Z-0.125000
G01 X94.071823 Y111.004748 Z-0.125000
G01 X92.477340 Y111.888614 Z-0.125000
G01 X89.218180 Y114.068487 Z-0.125000
G01 X85.703486 Y116.900504 Z-0.125000
G01 X82.199745 Y120.175115 Z-0.125000
G01 X79.131456 Y123.466766 Z-0.125000
G01 X76.496712 Y126.763549 Z-0.125000
G01 X74.352849 Y130.014031 Z-0.125000
G01 X73.449562 Y131.651350 Z-0.125000
G01 X72.687113 Y133.237525 Z-0.125000
G01 X71.766761 Y135.554531 Z-0.125000
G01 X71.021219 Y138.035579 Z-0.125000
G01 X70.484724 Y140.618729 Z-0.125000
G01 X70.166669 Y143.204393 Z-0.125000
G01 X70.041521 Y146.191006 Z-0.125000
G01 X70.145185 Y149.099805 Z-0.125000
G01 X70.444243 Y151.542197 Z-0.125000
G01 X70.973912 Y153.827586 Z-0.125000
G01 X71.668151 Y155.732134 Z-0.125000
G01 X72.533814 Y157.414723 Z-0.125000
G01 X73.640221 Y159.020186 Z-0.125000
G01 X74.927020 Y160.467852 Z-0.125000
G01 X76.471920 Y161.849425 Z-0.125000
G01 X78.231424 Y163.105533 Z-0.125000
G01 X80.178411 Y164.202017 Z-0.125000
G01 X82.211122 Y165.080010 Z-0.125000
G01 X83.889769 Y165.628781 Z-0.125000
G01 X85.550504 Y166.034149 Z-0.125000
G01 X87.348187 Y166.339001 Z-0.125000
G01 X89.247496 Y166.536010 Z-0.125000
G01 X92.096949 Y166.657692 Z-0.125000
G01 X96.093528 Y166.650998 Z-0.125000
G01 X97.800168 Y166.567654 Z-0.125000
G01 X99.546071 Y166.376466 Z-0.125000
G01 X101.951369 Y165.961309 Z-0.125000
G01 X104.655275 Y165.338401 Z-0.125000
G01 X115.211846 Y162.403541 Z-0.125000
G01 X120.128724 Y161.156138 Z-0.125000
G01 X125.372785 Y160.034756 Z-0.125000
G01 X134.165328 Y158.450195 Z-0.125000
G01 X136.071543 Y157.970003 Z-0.125000
G01 X137.422821 Y157.460231 Z-0.125000
G01 X138.312402 Y156.957021 Z-0.125000
G01 X138.967668 Y156.420764 Z-0.125000
G01 X139.521361 Y155.764995 Z-0.125000
G01 X139.989276 Y154.934998 Z-0.125000
G01 X140.349321 Y153.941065 Z-0.125000
G01 X140.603850 Y152.809285 Z-0.125000
G01 X140.786253 Y151.376330 Z-0.125000
G01 X140.879413 Y149.730200 Z-0.125000
G01 X140.883196 Y147.552656 Z-0.125000
G01 X140.782496 Y145.287032 Z-0.125000
G01 X140.272830 Y140.539063 Z-0.125000
G01 X139.400817 Y135.975747 Z-0.125000
G01 X138.166352 Y131.549194 Z-0.125000
G01 X136.813857 Y127.871517 Z-0.125000
G01 X135.203473 Y124.364443 Z-0.125000
G01 X133.375019 Y121.116158 Z-0.125000
G01 X131.353578 Y118.169417 Z-0.125000
G01 X129.199582 Y115.606481 Z-0.125000
G01 X126.899297 Y113.417321 Z-0.125000
G01 X124.537603 Y111.683297 Z-0.125000
G01 X123.299963 Y110.961647 Z-0.125000
G01 X122.059677 Y110.355726 Z-0.125000
G01 X119.498937 Y109.432199 Z-0.125000
G01 X116.623793 Y108.814953 Z-0.125000
G01 X113.947007 Y108.504386 Z-0.125000
G01 X107.680570 Y108.042212 Z-0.125000
G01 X102.949191 Y107.448038 Z-0.125000
G01 X101.104756 Y107.483307 Z-0.125000
G01 X99.228175 Y107.763050 Z-0.125000
G01 X97.338894 Y108.280998 Z-0.125000
G01 X95.272553 Y109.101735 Z-0.125000
G01 X93.707677 Y109.885085 Z-0.125000
G01 X92.078613 Y110.834965 Z-0.125000
G01 X90.361390 Y111.969682 Z-0.125000
G01 X88.626969 Y113.239469 Z-0.125000
G01 X84.889814 Y116.342657 Z-0.125000
G01 X81.122787 Y119.944452 Z-0.125000
G01 X77.902335 Y123.473222 Z-0.125000
G01 X75.276587 Y126.834934 Z-0.125000
G01 X73.185350 Y130.085706 Z-0.125000
G01 X72.284577 Y131.765888 Z-0.125000
G01 X71.524800 Y133.402387 Z-0.125000
G01 X70.594659 Y135.858167 Z-0.125000
G01 X69.870733 Y138.438962 Z-0.125000
G01 X69.373185 Y141.064234 Z-0.125000
G01 X69.079207 Y143.814045 Z-0.125000
G01 X68.991577 Y146.950650 Z-0.125000
G01 X69.133949 Y149.945597 Z-0.125000
G01 X69.489919 Y152.508904 Z-0.125000
G01 X70.062000 Y154.772914 Z-0.125000
G01 X70.817411 Y156.717917 Z-0.125000
G01 X71.748717 Y158.433420 Z-0.125000
G01 X72.900632 Y160.036820 Z-0.125000
G01 X74.353298 Y161.612173 Z-0.125000
G01 X76.005990 Y163.039942 Z-0.125000
G01 X77.897335 Y164.351163 Z-0.125000
G01 X79.873161 Y165.438493 Z-0.125000
G01 X82.022237 Y166.347706 Z-0.125000
G01 X83.661434 Y166.872136 Z-0.125000
G01 X85.341854 Y167.273456 Z-0.125000
G01 X87.193114 Y167.573704 Z-0.125000
G01 X89.070490 Y167.749467 Z-0.125000
G01 X91.675442 Y167.832943 Z-0.125000
G01 X95.386139 Y167.778571 Z-0.125000
G01 X97.418427 Y167.677924 Z-0.125000
G01 X99.418992 Y167.433528 Z-0.125000
G01 X101.760446 Y166.981753 Z-0.125000
G01 X104.435354 Y166.306220 Z-0.125000
G01 X115.044126 Y163.110507 Z-0.125000
G01 X120.246119 Y161.688823 Z-0.125000
G01 X125.976220 Y160.379031 Z-0.125000
G01 X135.136110 Y158.629688 Z-0.125000
G01 X137.044785 Y158.120868 Z-0.125000
G01 X138.414267 Y157.581542 Z-0.125000
G01 X139.309695 Y157.058144 Z-0.125000
G01 X140.013142 Y156.463018 Z-0.125000
G01 X140.589033 Y155.751422 Z-0.125000
G01 X141.080840 Y154.832789 Z-0.125000
G01 X141.446996 Y153.759032 Z-0.125000
G01 X141.699514 Y152.567033 Z-0.125000
G01 X141.885728 Y151.001337 Z-0.125000
G01 X141.973225 Y149.290543 Z-0.125000
G01 X141.969759 Y147.048123 Z-0.125000
G01 X141.851464 Y144.603878 Z-0.125000
G01 X141.318515 Y139.846332 Z-0.125000
G01 X140.408746 Y135.195016 Z-0.125000
G01 X139.822219 Y132.944473 Z-0.125000
G01 X139.111443 Y130.626673 Z-0.125000
G01 X137.659623 Y126.747039 Z-0.125000
G01 X135.959360 Y123.101271 Z-0.125000
G01 X134.003668 Y119.672407 Z-0.125000
G01 X131.847846 Y116.564642 Z-0.125000
G01 X129.598546 Y113.910345 Z-0.125000
G01 X127.211955 Y111.651256 Z-0.125000
G01 X125.975267 Y110.685608 Z-0.125000
G01 X124.722837 Y109.841270 Z-0.125000
G01 X123.485700 Y109.132558 Z-0.125000
G01 X122.209431 Y108.524150 Z-0.125000
G01 X120.875139 Y108.011176 Z-0.125000
G01 X119.566670 Y107.618403 Z-0.125000
G01 X116.668957 Y107.067462 Z-0.125000
G01 X114.120282 Y106.838941 Z-0.125000
G01 X107.633474 Y106.535253 Z-0.125000
G01 X102.702123 Y106.034186 Z-0.125000
G01 X100.845544 Y106.127266 Z-0.125000
G01 X98.933747 Y106.471277 Z-0.125000
G01 X96.969906 Y107.074923 Z-0.125000
G01 X94.984475 Y107.925319 Z-0.125000
G01 X93.377927 Y108.774022 Z-0.125000
G01 X91.621625 Y109.848705 Z-0.125000
G01 X89.842993 Y111.075153 Z-0.125000
G01 X87.991229 Y112.480909 Z-0.125000
G01 X83.962530 Y115.924986 Z-0.125000
G01 X79.954706 Y119.842005 Z-0.125000
G01 X76.689434 Y123.488594 Z-0.125000
G01 X74.036301 Y126.957251 Z-0.125000
G01 X72.947225 Y128.604624 Z-0.125000
G01 X71.949694 Y130.295944 Z-0.125000
G01 X71.054054 Y132.032323 Z-0.125000
G01 X70.303088 Y133.728988 Z-0.125000
G01 X69.392764 Y136.286474 Z-0.125000
G01 X68.704769 Y138.953920 Z-0.125000
G01 X68.232991 Y141.771306 Z-0.125000
G01 X67.984865 Y144.634358 Z-0.125000
G01 X67.943802 Y147.878913 Z-0.125000
G01 X68.128084 Y150.881560 Z-0.125000
G01 X68.548083 Y153.553266 Z-0.125000
G01 X69.189961 Y155.858684 Z-0.125000
G01 X69.969290 Y157.729285 Z-0.125000
G01 X71.006509 Y159.534641 Z-0.125000
G01 X72.278227 Y161.210774 Z-0.125000
G01 X73.848236 Y162.835182 Z-0.125000
G01 X75.671768 Y164.347432 Z-0.125000
G01 X77.674582 Y165.685561 Z-0.125000
G01 X79.825298 Y166.824670 Z-0.125000
G01 X82.016760 Y167.711923 Z-0.125000
G01 X83.718319 Y168.228574 Z-0.125000
G01 X85.372572 Y168.598196 Z-0.125000
G01 X87.108130 Y168.858255 Z-0.125000
G01 X89.038766 Y169.014835 Z-0.125000
G01 X91.820168 Y169.053570 Z-0.125000
G01 X95.731181 Y168.917151 Z-0.125000
G01 X97.577415 Y168.775440 Z-0.125000
G01 X99.229392 Y168.541099 Z-0.125000
G01 X101.511182 Y168.060325 Z-0.125000
G01 X103.980456 Y167.387120 Z-0.125000
G01 X114.876619 Y163.855863 Z-0.125000
G01 X120.429343 Y162.231588 Z-0.125000
G01 X126.346530 Y160.790325 Z-0.125000
G01 X136.159967 Y158.808334 Z-0.125000
G01 X138.025912 Y158.282158 Z-0.125000
G01 X139.505275 Y157.663563 Z-0.125000
G01 X140.396522 Y157.104843 Z-0.125000
G01 X141.109018 Y156.459499 Z-0.125000
G01 X141.737112 Y155.612119 Z-0.125000
G01 X142.189707 Y154.684041 Z-0.125000
G01 X142.564886 Y153.483337 Z-0.125000
G01 X142.815605 Y152.165158 Z-0.125000
G01 X142.987610 Y150.524690 Z-0.125000
G01 X143.063307 Y148.752566 Z-0.125000
G01 X143.048094 Y146.512395 Z-0.125000
G01 X142.921385 Y144.079554 Z-0.125000
G01 X142.685033 Y141.596945 Z-0.125000
G01 X142.340758 Y139.104097 Z-0.125000
G01 X141.897078 Y136.658451 Z-0.125000
G01 X141.361245 Y134.279003 Z-0.125000
G01 X140.723891 Y131.918182 Z-0.125000
G01 X139.988033 Y129.592180 Z-0.125000
G01 X138.438608 Y125.557924 Z-0.125000
G01 X136.587930 Y121.688133 Z-0.125000
G01 X134.500052 Y118.110944 Z-0.125000
G01 X132.226596 Y114.894700 Z-0.125000
G01 X129.797804 Y112.078214 Z-0.125000
G01 X128.540161 Y110.841130 Z-0.125000
G01 X127.286752 Y109.748825 Z-0.125000
G01 X126.041942 Y108.798178 Z-0.125000
G01 X124.766970 Y107.958551 Z-0.125000
G01 X123.441144 Y107.223963 Z-0.125000
G01 X122.147863 Y106.636853 Z-0.125000
G01 X120.816798 Y106.157032 Z-0.125000
G01 X119.494307 Y105.794024 Z-0.125000
G01 X116.644880 Y105.329733 Z-0.125000
G01 X114.170050 Y105.173921 Z-0.125000
G01 X107.817730 Y105.056631 Z-0.125000
G01 X103.952728 Y104.701666 Z-0.125000
G01 X102.523477 Y104.648273 Z-0.125000
G01 X100.657664 Y104.785857 Z-0.125000
G01 X98.705121 Y105.189002 Z-0.125000
G01 X96.684553 Y105.868239 Z-0.125000
G01 X94.641523 Y106.804704 Z-0.125000
G01 X92.908610 Y107.776147 Z-0.125000
G01 X91.116404 Y108.930311 Z-0.125000
G01 X89.184207 Y110.321912 Z-0.125000
G01 X87.235395 Y111.858028 Z-0.125000
G01 X82.920866 Y115.652254 Z-0.125000
G01 X78.691401 Y119.872485 Z-0.125000
G01 X75.426738 Y123.587892 Z-0.125000
G01 X72.789772 Y127.108407 Z-0.125000
G01 X71.700034 Y128.800733 Z-0.125000
G01 X70.705836 Y130.542033 Z-0.125000
G01 X69.861684 Y132.239359 Z-0.125000
G01 X69.124715 Y133.972484 Z-0.125000
G01 X68.242251 Y136.576695 Z-0.125000
G01 X67.578413 Y139.319944 Z-0.125000
G01 X67.131188 Y142.236628 Z-0.125000
G01 X66.902588 Y145.324523 Z-0.125000
G01 X66.894492 Y148.750820 Z-0.125000
G01 X67.106396 Y151.714705 Z-0.125000
G01 X67.561850 Y154.418505 Z-0.125000
G01 X68.253417 Y156.778983 Z-0.125000
G01 X69.105797 Y158.729753 Z-0.125000
G01 X70.243266 Y160.616574 Z-0.125000
G01 X71.590443 Y162.320012 Z-0.125000
G01 X73.264407 Y163.999109 Z-0.125000
G01 X75.300955 Y165.642619 Z-0.125000
G01 X77.441379 Y167.034643 Z-0.125000
G01 X79.703325 Y168.201930 Z-0.125000
G01 X81.988661 Y169.099846 Z-0.125000
G01 X83.740148 Y169.610464 Z-0.125000
G01 X85.436839 Y169.967255 Z-0.125000
G01 X87.169487 Y170.202098 Z-0.125000
G01 X89.047577 Y170.326056 Z-0.125000
G01 X91.490445 Y170.327114 Z-0.125000
G01 X94.751642 Y170.162041 Z-0.125000
G01 X97.085714 Y169.986675 Z-0.125000
G01 X99.189255 Y169.666688 Z-0.125000
G01 X101.303961 Y169.176098 Z-0.125000
G01 X103.847900 Y168.422222 Z-0.125000
G01 X114.613941 Y164.670832 Z-0.125000
G01 X120.561873 Y162.815444 Z-0.125000
G01 X126.914934 Y161.178733 Z-0.125000
G01 X137.095717 Y159.020900 Z-0.125000
G01 X139.046673 Y158.443951 Z-0.125000
G01 X140.509208 Y157.802257 Z-0.125000
G01 X141.400536 Y157.224620 Z-0.125000
G01 X142.142294 Y156.532312 Z-0.125000
G01 X142.745755 Y155.704617 Z-0.125000
G01 X143.234546 Y154.696370 Z-0.125000
G01 X143.609962 Y153.494264 Z-0.125000
G01 X143.887060 Y152.041121 Z-0.125000
G01 X144.066209 Y150.311040 Z-0.125000
G01 X144.144632 Y148.357200 Z-0.125000
G01 X144.119311 Y146.008126 Z-0.125000
G01 X143.975748 Y143.483819 Z-0.125000
G01 X143.718759 Y140.938081 Z-0.125000
G01 X143.367340 Y138.493281 Z-0.125000
G01 X142.897811 Y135.980774 Z-0.125000
G01 X142.346922 Y133.593416 Z-0.125000
G01 X141.693773 Y131.218413 Z-0.125000
G01 X140.909919 Y128.782371 Z-0.125000
G01 X139.313293 Y124.684536 Z-0.125000
G01 X137.377234 Y120.672267 Z-0.125000
G01 X135.123436 Y116.840734 Z-0.125000
G01 X132.722822 Y113.463888 Z-0.125000
G01 X130.207140 Y110.544215 Z-0.125000
G01 X128.874779 Y109.226829 Z-0.125000
G01 X127.547023 Y108.063934 Z-0.125000
G01 X126.227256 Y107.053227 Z-0.125000
G01 X124.825866 Y106.135733 Z-0.125000
G01 X123.533828 Y105.428873 Z-0.125000
G01 X122.129580 Y104.806521 Z-0.125000
G01 X120.921626 Y104.386416 Z-0.125000
G01 X119.592441 Y104.037007 Z-0.125000
G01 X118.237008 Y103.788802 Z-0.125000
G01 X116.694913 Y103.617829 Z-0.125000
G01 X114.106788 Y103.522737 Z-0.125000
G01 X107.652762 Y103.575389 Z-0.125000
G01 X102.446007 Y103.275908 Z-0.125000
G01 X100.505396 Y103.460216 Z-0.125000
G01 X98.518166 Y103.918051 Z-0.125000
G01 X96.483153 Y104.652957 Z-0.125000
G01 X94.363790 Y105.680094 Z-0.125000
G01 X92.591983 Y106.719800 Z-0.125000
G01 X90.649151 Y108.023188 Z-0.125000
G01 X88.599188 Y109.554251 Z-0.125000
G01 X86.503638 Y111.257028 Z-0.125000
G01 X81.785197 Y115.507289 Z-0.125000
G01 X77.406851 Y119.955511 Z-0.125000
G01 X74.114168 Y123.770216 Z-0.125000
G01 X72.720636 Y125.589436 Z-0.125000
G01 X71.474265 Y127.380636 Z-0.125000
G01 X70.391459 Y129.118497 Z-0.125000
G01 X69.460100 Y130.811140 Z-0.125000
G01 X68.626902 Y132.557441 Z-0.125000
G01 X67.895436 Y134.370258 Z-0.125000
G01 X67.030805 Y137.111152 Z-0.125000
G01 X66.410623 Y139.939280 Z-0.125000
G01 X66.005784 Y142.965766 Z-0.125000
G01 X65.814332 Y146.290754 Z-0.125000
G01 X65.849865 Y149.798463 Z-0.125000
G01 X66.108495 Y152.790738 Z-0.125000
G01 X66.604403 Y155.443764 Z-0.125000
G01 X67.367963 Y157.861445 Z-0.125000
G01 X68.320065 Y159.892278 Z-0.125000
G01 X69.548683 Y161.805372 Z-0.125000
G01 X71.075671 Y163.629804 Z-0.125000
G01 X72.873697 Y165.347900 Z-0.125000
G01 X75.002188 Y167.006491 Z-0.125000
G01 X77.263341 Y168.438811 Z-0.125000
G01 X79.679195 Y169.652242 Z-0.125000
G01 X82.055309 Y170.553570 Z-0.125000
G01 X83.798118 Y171.039609 Z-0.125000
G01 X85.468748 Y171.372296 Z-0.125000
G01 X87.268124 Y171.593355 Z-0.125000
G01 X89.155871 Y171.687203 Z-0.125000
G01 X91.724654 Y171.633836 Z-0.125000
G01 X95.075492 Y171.383091 Z-0.125000
G01 X97.435069 Y171.139357 Z-0.125000
G01 X99.088105 Y170.847575 Z-0.125000
G01 X101.141136 Y170.329866 Z-0.125000
G01 X103.362734 Y169.624434 Z-0.125000
G01 X114.234397 Y165.571076 Z-0.125000
G01 X120.483053 Y163.491956 Z-0.125000
G01 X123.888395 Y162.507998 Z-0.125000
G01 X127.393988 Y161.608019 Z-0.125000
G01 X138.143836 Y159.219734 Z-0.125000
G01 X140.188587 Y158.572855 Z-0.125000
G01 X141.625352 Y157.891686 Z-0.125000
G01 X142.596477 Y157.199537 Z-0.125000
G01 X143.326224 Y156.434601 Z-0.125000
G01 X143.929208 Y155.497290 Z-0.125000
G01 X144.370824 Y154.469887 Z-0.125000
G01 X144.728249 Y153.198222 Z-0.125000
G01 X145.000902 Y151.588764 Z-0.125000
G01 X145.161662 Y149.773619 Z-0.125000
G01 X145.222172 Y147.631634 Z-0.125000
G01 X145.168118 Y145.176198 Z-0.125000
G01 X144.998679 Y142.662606 Z-0.125000
G01 X144.721079 Y140.151343 Z-0.125000
G01 X144.335819 Y137.638943 Z-0.125000
G01 X143.845388 Y135.145301 Z-0.125000
G01 X143.241636 Y132.642372 Z-0.125000
G01 X142.527977 Y130.158731 Z-0.125000
G01 X141.745975 Y127.815531 Z-0.125000
G01 X140.001474 Y123.474492 Z-0.125000
G01 X137.946510 Y119.338954 Z-0.125000
G01 X135.603892 Y115.442995 Z-0.125000
G01 X133.024579 Y111.873744 Z-0.125000
G01 X131.662691 Y110.239600 Z-0.125000
G01 X130.280879 Y108.742034 Z-0.125000
G01 X128.933226 Y107.431237 Z-0.125000
G01 X127.516648 Y106.210028 Z-0.125000
G01 X126.194077 Y105.214243 Z-0.125000
G01 X124.796709 Y104.313788 Z-0.125000
G01 X123.399181 Y103.568352 Z-0.125000
G01 X121.990885 Y102.970791 Z-0.125000
G01 X120.788409 Y102.577224 Z-0.125000
G01 X119.452344 Y102.256470 Z-0.125000
G01 X118.129429 Y102.046629 Z-0.125000
G01 X116.619533 Y101.917565 Z-0.125000
G01 X114.088347 Y101.893250 Z-0.125000
G01 X107.586855 Y102.117537 Z-0.125000
G01 X102.161951 Y101.934975 Z-0.125000
G01 X100.187209 Y102.190218 Z-0.125000
G01 X98.175822 Y102.723432 Z-0.125000
G01 X96.114403 Y103.539486 Z-0.125000
G01 X93.945775 Y104.664413 Z-0.125000
G01 X92.051044 Y105.841146 Z-0.125000
G01 X90.055506 Y107.244759 Z-0.125000
G01 X87.890767 Y108.923723 Z-0.125000
G01 X85.604267 Y110.839595 Z-0.125000
G01 X80.621323 Y115.425189 Z-0.125000
G01 X78.180730 Y117.871126 Z-0.125000
G01 X76.027553 Y120.167178 Z-0.125000
G01 X72.720583 Y124.074592 Z-0.125000
G01 X71.378592 Y125.869867 Z-0.125000
G01 X70.147990 Y127.688981 Z-0.125000
G01 X69.074973 Y129.472191 Z-0.125000
G01 X68.156606 Y131.215476 Z-0.125000
G01 X67.340156 Y133.021890 Z-0.125000
G01 X66.671422 Y134.783457 Z-0.125000
G01 X65.827852 Y137.663231 Z-0.125000
G01 X65.245425 Y140.612088 Z-0.125000
G01 X64.875062 Y143.862120 Z-0.125000
G01 X64.728589 Y147.437271 Z-0.125000
G01 X64.805556 Y150.872432 Z-0.125000
G01 X65.109853 Y153.878888 Z-0.125000
G01 X65.674288 Y156.593060 Z-0.125000
G01 X66.474175 Y158.935810 Z-0.125000
G01 X67.485015 Y160.972332 Z-0.125000
G01 X68.803035 Y162.931040 Z-0.125000
G01 X70.436756 Y164.811828 Z-0.125000
G01 X72.441633 Y166.669201 Z-0.125000
G01 X74.712258 Y168.393568 Z-0.125000
G01 X77.138352 Y169.897140 Z-0.125000
G01 X79.621199 Y171.118667 Z-0.125000
G01 X82.153576 Y172.053386 Z-0.125000
G01 X83.958640 Y172.532969 Z-0.125000
G01 X85.685097 Y172.850045 Z-0.125000
G01 X87.423249 Y173.035227 Z-0.125000
G01 X89.275753 Y173.097033 Z-0.125000
G01 X91.363604 Y173.025331 Z-0.125000
G01 X93.830920 Y172.808876 Z-0.125000
G01 X96.929134 Y172.455128 Z-0.125000
G01 X99.032913 Y172.069472 Z-0.125000
G01 X100.868748 Y171.570733 Z-0.125000
G01 X103.024518 Y170.838606 Z-0.125000
G01 X113.944017 Y166.485607 Z-0.125000
G01 X120.649979 Y164.125553 Z-0.125000
G01 X124.221505 Y163.041398 Z-0.125000
G01 X127.847007 Y162.066118 Z-0.125000
G01 X138.912556 Y159.511516 Z-0.125000
G01 X141.056207 Y158.821378 Z-0.125000
G01 X142.612220 Y158.069645 Z-0.125000
G01 X143.588849 Y157.356541 Z-0.125000
G01 X144.348572 Y156.543583 Z-0.125000
G01 X144.942138 Y155.609976 Z-0.125000
G01 X145.419737 Y154.488832 Z-0.125000
G01 X145.804572 Y153.078816 Z-0.125000
G01 X146.072278 Y151.439327 Z-0.125000
G01 X146.234943 Y149.525307 Z-0.125000
G01 X146.290426 Y147.306594 Z-0.125000
G01 X146.228064 Y144.825361 Z-0.125000
G01 X146.050741 Y142.301424 Z-0.125000
G01 X145.758747 Y139.733329 Z-0.125000
G01 X145.334752 Y137.055669 Z-0.125000
G01 X144.801935 Y134.444606 Z-0.125000
G01 X144.189346 Y131.984433 Z-0.125000
G01 X143.450498 Y129.474361 Z-0.125000
G01 X142.600710 Y126.987387 Z-0.125000
G01 X140.743735 Y122.479607 Z-0.125000
G01 X138.588944 Y118.232282 Z-0.125000
G01 X136.057864 Y114.098093 Z-0.125000
G01 X134.666978 Y112.118510 Z-0.125000
G01 X133.280986 Y110.318499 Z-0.125000
G01 X131.827976 Y108.600297 Z-0.125000
G01 X130.378775 Y107.049311 Z-0.125000
G01 X128.939364 Y105.665595 Z-0.125000
G01 X127.513315 Y104.448751 Z-0.125000
G01 X126.102003 Y103.397775 Z-0.125000
G01 X124.616581 Y102.459802 Z-0.125000
G01 X123.225668 Y101.739977 Z-0.125000
G01 X121.810731 Y101.164086 Z-0.125000
G01 X120.623256 Y100.798300 Z-0.125000
G01 X119.283752 Y100.505803 Z-0.125000
G01 X117.937209 Y100.326707 Z-0.125000
G01 X116.523225 Y100.243337 Z-0.125000
G01 X114.156477 Y100.278579 Z-0.125000
G01 X107.726502 Y100.677862 Z-0.125000
G01 X105.600868 Y100.678655 Z-0.125000
G01 X103.610569 Y100.570758 Z-0.125000
G01 X101.855960 Y100.631851 Z-0.125000
G01 X99.848728 Y100.960013 Z-0.125000
G01 X97.800115 Y101.578264 Z-0.125000
G01 X95.703824 Y102.485493 Z-0.125000
G01 X93.560542 Y103.668708 Z-0.125000
G01 X91.553442 Y104.977018 Z-0.125000
G01 X89.501019 Y106.478976 Z-0.125000
G01 X87.220949 Y108.302826 Z-0.125000
G01 X84.668675 Y110.496246 Z-0.125000
G01 X79.274542 Y115.553591 Z-0.125000
G01 X76.781377 Y118.091207 Z-0.125000
G01 X74.553217 Y120.507087 Z-0.125000
G01 X71.311308 Y124.418550 Z-0.125000
G01 X69.979001 Y126.250100 Z-0.125000
G01 X68.815285 Y128.025557 Z-0.125000
G01 X67.807647 Y129.756856 Z-0.125000
G01 X66.901212 Y131.544088 Z-0.125000
G01 X66.099579 Y133.404054 Z-0.125000
G01 X65.445159 Y135.233460 Z-0.125000
G01 X64.643420 Y138.184566 Z-0.125000
G01 X64.083456 Y141.340379 Z-0.125000
G01 X63.750055 Y144.828986 Z-0.125000
G01 X63.647265 Y148.662820 Z-0.125000
G01 X63.771619 Y152.119332 Z-0.125000
G01 X64.118593 Y155.028660 Z-0.125000
G01 X64.691865 Y157.566805 Z-0.125000
G01 X65.539615 Y159.928923 Z-0.125000
G01 X66.665389 Y162.087232 Z-0.125000
G01 X68.083078 Y164.097190 Z-0.125000
G01 X69.900896 Y166.106142 Z-0.125000
G01 X72.045182 Y168.030454 Z-0.125000
G01 X74.466593 Y169.829195 Z-0.125000
G01 X77.064771 Y171.409364 Z-0.125000
G01 X79.717851 Y172.684125 Z-0.125000
G01 X82.318464 Y173.611727 Z-0.125000
G01 X83.992745 Y174.041092 Z-0.125000
G01 X85.778707 Y174.355469 Z-0.125000
G01 X87.510164 Y174.522104 Z-0.125000
G01 X89.318033 Y174.559860 Z-0.125000
G01 X91.239329 Y174.467573 Z-0.125000
G01 X93.378906 Y174.245059 Z-0.125000
G01 X97.266980 Y173.699013 Z-0.125000
G01 X98.945944 Y173.349419 Z-0.125000
G01 X100.743521 Y172.824539 Z-0.125000
G01 X102.738027 Y172.098920 Z-0.125000
G01 X113.474408 Y167.518671 Z-0.125000
G01 X117.111499 Y166.101644 Z-0.125000
G01 X120.604418 Y164.859189 Z-0.125000
G01 X124.418487 Y163.640546 Z-0.125000
G01 X128.177180 Y162.579436 Z-0.125000
G01 X140.026186 Y159.726834 Z-0.125000
G01 X142.126657 Y159.009073 Z-0.125000
G01 X143.684257 Y158.212255 Z-0.125000
G01 X144.655039 Y157.464702 Z-0.125000
G01 X145.424843 Y156.597585 Z-0.125000
G01 X146.029494 Y155.592672 Z-0.125000
G01 X146.517994 Y154.370536 Z-0.125000
G01 X146.891347 Y152.908848 Z-0.125000
G01 X147.153337 Y151.197128 Z-0.125000
G01 X147.309838 Y149.192700 Z-0.125000
G01 X147.353865 Y146.879054 Z-0.125000
G01 X147.272426 Y144.292967 Z-0.125000
G01 X147.068671 Y141.675421 Z-0.125000
G01 X146.746409 Y139.044963 Z-0.125000
G01 X146.306936 Y136.414902 Z-0.125000
G01 X145.756657 Y133.819264 Z-0.125000
G01 X145.101337 Y131.272070 Z-0.125000
G01 X144.304413 Y128.653122 Z-0.125000
G01 X143.433671 Y126.180832 Z-0.125000
G01 X141.485229 Y121.564758 Z-0.125000
G01 X140.343209 Y119.256007 Z-0.125000
G01 X139.159809 Y117.085130 Z-0.125000
G01 X137.836814 Y114.872422 Z-0.125000
G01 X136.488499 Y112.810103 Z-0.125000
G01 X135.071419 Y110.821974 Z-0.125000
G01 X133.589622 Y108.917241 Z-0.125000
G01 X132.068667 Y107.131993 Z-0.125000
G01 X130.533741 Y105.496288 Z-0.125000
G01 X128.963865 Y103.993378 Z-0.125000
G01 X127.456959 Y102.715204 Z-0.125000
G01 X125.966007 Y101.614935 Z-0.125000
G01 X124.488390 Y100.692705 Z-0.125000
G01 X123.018949 Y99.947348 Z-0.125000
G01 X121.600811 Y99.392173 Z-0.125000
G01 X120.226831 Y99.004321 Z-0.125000
G01 X118.778927 Y98.744395 Z-0.125000
G01 X117.222703 Y98.613903 Z-0.125000
G01 X115.581177 Y98.610040 Z-0.125000
G01 X107.521979 Y99.268719 Z-0.125000
G01 X102.166766 Y99.294701 Z-0.125000
G01 X100.211445 Y99.593680 Z-0.125000
G01 X98.230538 Y100.165497 Z-0.125000
G01 X96.368694 Y100.934110 Z-0.125000
G01 X94.458828 Y101.933440 Z-0.125000
G01 X92.473477 Y103.168778 Z-0.125000
G01 X90.360808 Y104.665551 Z-0.125000
G01 X87.926644 Y106.573670 Z-0.125000
G01 X85.208663 Y108.878347 Z-0.125000
G01 X82.353442 Y111.451761 Z-0.125000
G01 X79.434218 Y114.222156 Z-0.125000
G01 X76.648371 Y117.008586 Z-0.125000
G01 X74.106786 Y119.712465 Z-0.125000
G01 X71.896672 Y122.251668 Z-0.125000
G01 X70.061550 Y124.565870 Z-0.125000
G01 X68.455611 Y126.835384 Z-0.125000
G01 X67.115260 Y129.007134 Z-0.125000
G01 X65.979114 Y131.171105 Z-0.125000
G01 X64.996638 Y133.446096 Z-0.125000
G01 X64.182569 Y135.837741 Z-0.125000
G01 X63.543257 Y138.346729 Z-0.125000
G01 X63.072432 Y140.992453 Z-0.125000
G01 X62.752630 Y143.891065 Z-0.125000
G01 X62.580360 Y147.320405 Z-0.125000
G01 X62.590996 Y150.918628 Z-0.125000
G01 X62.779115 Y153.772447 Z-0.125000
G01 X63.151595 Y156.310935 Z-0.125000
G01 X63.606228 Y158.217547 Z-0.125000
G01 X64.231940 Y160.063093 Z-0.125000
G01 X65.029102 Y161.803070 Z-0.125000
G01 X65.972050 Y163.401310 Z-0.125000
G01 X67.097903 Y164.943432 Z-0.125000
G01 X68.482149 Y166.518177 Z-0.125000
G01 X70.123198 Y168.107739 Z-0.125000
G01 X71.923686 Y169.620201 Z-0.125000
G01 X73.924727 Y171.084853 Z-0.125000
G01 X76.032898 Y172.413642 Z-0.125000
G01 X78.115272 Y173.524255 Z-0.125000
G01 X80.152614 Y174.419207 Z-0.125000
G01 X82.255175 Y175.144059 Z-0.125000
G01 X84.287543 Y175.649836 Z-0.125000
G01 X86.261359 Y175.956488 Z-0.125000
G01 X88.328440 Y176.085789 Z-0.125000
G01 X90.686589 Y176.011944 Z-0.125000
G01 X93.359698 Y175.700213 Z-0.125000
G01 X97.837976 Y174.927683 Z-0.125000
G01 X99.980570 Y174.357216 Z-0.125000
G01 X103.430494 Y173.004535 Z-0.125000
G01 X113.509889 Y168.390260 Z-0.125000
G01 X119.467134 Y166.023195 Z-0.125000
G01 X123.709564 Y164.557617 Z-0.125000
G01 X128.102012 Y163.232903 Z-0.125000
G01 X131.998949 Y162.206427 Z-0.125000
G01 X139.226960 Y160.484441 Z-0.125000
G01 X141.532562 Y159.834175 Z-0.125000
G01 X142.954802 Y159.317709 Z-0.125000
G01 X144.067321 Y158.789787 Z-0.125000
G01 X145.020851 Y158.184500 Z-0.125000
G01 X145.792851 Y157.518228 Z-0.125000
G01 X146.504897 Y156.660502 Z-0.125000
G01 X147.132435 Y155.551741 Z-0.125000
G01 X147.629984 Y154.208109 Z-0.125000
G01 X147.983228 Y152.711839 Z-0.125000
G01 X148.248420 Y150.805439 Z-0.125000
G01 X148.387776 Y148.696342 Z-0.125000
G01 X148.410106 Y146.365551 Z-0.125000
G01 X148.312449 Y143.841482 Z-0.125000
G01 X148.104275 Y141.333897 Z-0.125000
G01 X147.804873 Y138.928097 Z-0.125000
G01 X147.389266 Y136.422125 Z-0.125000
G01 X146.873911 Y133.952561 Z-0.125000
G01 X146.253570 Y131.488155 Z-0.125000
G01 X145.530438 Y129.041424 Z-0.125000
G01 X144.710442 Y126.632263 Z-0.125000
G01 X143.803558 Y124.280279 Z-0.125000
G01 X141.706658 Y119.667089 Z-0.125000
G01 X139.256514 Y115.221963 Z-0.125000
G01 X136.463496 Y110.959001 Z-0.125000
G01 X134.995987 Y108.979629 Z-0.125000
G01 X133.406769 Y107.009015 Z-0.125000
G01 X131.858006 Y105.249406 Z-0.125000
G01 X130.224153 Y103.559832 Z-0.125000
G01 X128.640782 Y102.087031 Z-0.125000
G01 X127.122605 Y100.833198 Z-0.125000
G01 X125.627658 Y99.759256 Z-0.125000
G01 X124.152449 Y98.865918 Z-0.125000
G01 X122.785164 Y98.193401 Z-0.125000
G01 X121.335407 Y97.647884 Z-0.125000
G01 X119.911739 Y97.277732 Z-0.125000
G01 X118.464285 Y97.058578 Z-0.125000
G01 X116.892636 Y96.976742 Z-0.125000
G01 X115.262540 Y97.027278 Z-0.125000
G01 X107.523381 Y97.874472 Z-0.125000
G01 X101.762695 Y98.051426 Z-0.125000
G01 X99.680665 Y98.466689 Z-0.125000
G01 X97.561646 Y99.190720 Z-0.125000
G01 X95.590450 Y100.116919 Z-0.125000
G01 X93.561363 Y101.293784 Z-0.125000
G01 X91.374955 Y102.773835 Z-0.125000
G01 X88.993417 Y104.583054 Z-0.125000
G01 X86.056810 Y107.021001 Z-0.125000
G01 X82.979471 Y109.752185 Z-0.125000
G01 X79.601778 Y112.912365 Z-0.125000
G01 X76.432788 Y116.035661 Z-0.125000
G01 X73.873451 Y118.706627 Z-0.125000
G01 X71.577241 Y121.272817 Z-0.125000
G01 X69.676185 Y123.585564 Z-0.125000
G01 X68.026616 Y125.808960 Z-0.125000
G01 X66.601466 Y127.985658 Z-0.125000
G01 X65.432882 Y130.054221 Z-0.125000
G01 X64.409714 Y132.208668 Z-0.125000
G01 X63.536008 Y134.478604 Z-0.125000
G01 X62.800811 Y136.953408 Z-0.125000
G01 X62.255214 Y139.469698 Z-0.125000
G01 X61.848788 Y142.246867 Z-0.125000
G01 X61.590370 Y145.285418 Z-0.125000
G01 X61.471599 Y148.978943 Z-0.125000
G01 X61.530812 Y152.320812 Z-0.125000
G01 X61.773620 Y155.164656 Z-0.125000
G01 X62.195127 Y157.616758 Z-0.125000
G01 X62.740354 Y159.625525 Z-0.125000
G01 X63.426788 Y161.428711 Z-0.125000
G01 X64.292424 Y163.146093 Z-0.125000
G01 X65.356286 Y164.805187 Z-0.125000
G01 X66.620516 Y166.411868 Z-0.125000
G01 X68.151102 Y168.048922 Z-0.125000
G01 X69.915104 Y169.679335 Z-0.125000
G01 X71.839654 Y171.240745 Z-0.125000
G01 X73.933961 Y172.732544 Z-0.125000
G01 X76.052080 Y174.040563 Z-0.125000
G01 X78.140143 Y175.139058 Z-0.125000
G01 X80.263315 Y176.059384 Z-0.125000
G01 X82.392229 Y176.779579 Z-0.125000
G01 X84.432773 Y177.273926 Z-0.125000
G01 X86.471623 Y177.572190 Z-0.125000
G01 X88.510394 Y177.675351 Z-0.125000
G01 X90.737839 Y177.575550 Z-0.125000
G01 X93.240185 Y177.242943 Z-0.125000
G01 X97.657610 Y176.371698 Z-0.125000
G01 X99.810390 Y175.770406 Z-0.125000
G01 X103.046954 Y174.428071 Z-0.125000
G01 X109.413536 Y171.240322 Z-0.125000
G01 X112.894760 Y169.589165 Z-0.125000
G01 X116.243613 Y168.124725 Z-0.125000
G01 X119.485708 Y166.822395 Z-0.125000
G01 X123.975205 Y165.204496 Z-0.125000
G01 X128.499495 Y163.785458 Z-0.125000
G01 X132.883476 Y162.593115 Z-0.125000
G01 X140.095004 Y160.822234 Z-0.125000
G01 X142.555996 Y160.104077 Z-0.125000
G01 X143.995698 Y159.557607 Z-0.125000
G01 X145.079985 Y159.021932 Z-0.125000
G01 X146.028119 Y158.401617 Z-0.125000
G01 X146.817158 Y157.701716 Z-0.125000
G01 X147.604187 Y156.709477 Z-0.125000
G01 X148.202462 Y155.595080 Z-0.125000
G01 X148.665297 Y154.315583 Z-0.125000
G01 X149.039470 Y152.715332 Z-0.125000
G01 X149.301645 Y150.815705 Z-0.125000
G01 X149.447007 Y148.597124 Z-0.125000
G01 X149.467036 Y146.245219 Z-0.125000
G01 X149.364219 Y143.675959 Z-0.125000
G01 X149.152738 Y141.168083 Z-0.125000
G01 X148.829047 Y138.626419 Z-0.125000
G01 X148.384283 Y136.023425 Z-0.125000
G01 X147.854535 Y133.548728 Z-0.125000
G01 X147.189162 Y130.970102 Z-0.125000
G01 X146.444149 Y128.512602 Z-0.125000
G01 X145.604468 Y126.096721 Z-0.125000
G01 X144.639905 Y123.644063 Z-0.125000
G01 X143.551728 Y121.177488 Z-0.125000
G01 X142.445374 Y118.913292 Z-0.125000
G01 X139.879898 Y114.335768 Z-0.125000
G01 X138.449244 Y112.090543 Z-0.125000
G01 X136.890956 Y109.840027 Z-0.125000
G01 X135.255516 Y107.665763 Z-0.125000
G01 X133.639655 Y105.685915 Z-0.125000
G01 X131.960611 Y103.793723 Z-0.125000
G01 X130.313979 Y102.097720 Z-0.125000
G01 X128.678485 Y100.572902 Z-0.125000
G01 X127.084875 Y99.249325 Z-0.125000
G01 X125.517486 Y98.116963 Z-0.125000
G01 X124.060321 Y97.228705 Z-0.125000
G01 X122.530820 Y96.480252 Z-0.125000
G01 X121.102813 Y95.959500 Z-0.125000
G01 X119.684066 Y95.612473 Z-0.125000
G01 X118.137393 Y95.415835 Z-0.125000
G01 X116.552250 Y95.384164 Z-0.125000
G01 X114.903924 Y95.491876 Z-0.125000
G01 X107.632416 Y96.495889 Z-0.125000
G01 X105.410792 Y96.649929 Z-0.125000
G01 X103.197026 Y96.666413 Z-0.125000
G01 X101.436464 Y96.846197 Z-0.125000
G01 X99.227619 Y97.374358 Z-0.125000
G01 X96.979934 Y98.248037 Z-0.125000
G01 X94.879939 Y99.339945 Z-0.125000
G01 X92.727873 Y100.693790 Z-0.125000
G01 X90.341440 Y102.417468 Z-0.125000
G01 X87.688361 Y104.538710 Z-0.125000
G01 X84.408722 Y107.365197 Z-0.125000
G01 X80.670270 Y110.780249 Z-0.125000
G01 X77.092447 Y114.215145 Z-0.125000
G01 X73.922901 Y117.428823 Z-0.125000
G01 X71.526864 Y120.019673 Z-0.125000
G01 X69.524897 Y122.352686 Z-0.125000
G01 X67.791190 Y124.564574 Z-0.125000
G01 X66.281903 Y126.716374 Z-0.125000
G01 X65.032410 Y128.749033 Z-0.125000
G01 X63.916372 Y130.872735 Z-0.125000
G01 X62.984114 Y133.011862 Z-0.125000
G01 X62.203356 Y135.244466 Z-0.125000
G01 X61.521367 Y137.811530 Z-0.125000
G01 X61.024903 Y140.443919 Z-0.125000
G01 X60.666817 Y143.366847 Z-0.125000
G01 X60.449065 Y146.639236 Z-0.125000
G01 X60.371833 Y150.451745 Z-0.125000
G01 X60.463141 Y153.527496 Z-0.125000
G01 X60.737090 Y156.286488 Z-0.125000
G01 X61.198946 Y158.728245 Z-0.125000
G01 X61.791585 Y160.748971 Z-0.125000
G01 X62.529402 Y162.561021 Z-0.125000
G01 X63.452214 Y164.288510 Z-0.125000
G01 X64.587831 Y165.973956 Z-0.125000
G01 X65.993322 Y167.686152 Z-0.125000
G01 X67.629371 Y169.378028 Z-0.125000
G01 X69.618453 Y171.170975 Z-0.125000
G01 X71.710961 Y172.834355 Z-0.125000
G01 X73.901073 Y174.370154 Z-0.125000
G01 X76.117062 Y175.720982 Z-0.125000
G01 X78.303814 Y176.854853 Z-0.125000
G01 X80.425293 Y177.759647 Z-0.125000
G01 X82.523330 Y178.458649 Z-0.125000
G01 X84.639889 Y178.958737 Z-0.125000
G01 X86.648126 Y179.236417 Z-0.125000
G01 X88.715816 Y179.319708 Z-0.125000
G01 X90.881745 Y179.193793 Z-0.125000
G01 X93.208753 Y178.843406 Z-0.125000
G01 X97.998181 Y177.744725 Z-0.125000
G01 X99.768295 Y177.206140 Z-0.125000
G01 X101.173654 Y176.643954 Z-0.125000
G01 X102.808009 Y175.867720 Z-0.125000
G01 X109.134480 Y172.453726 Z-0.125000
G01 X112.521989 Y170.739599 Z-0.125000
G01 X115.930532 Y169.161785 Z-0.125000
G01 X119.478590 Y167.666176 Z-0.125000
G01 X124.155545 Y165.908789 Z-0.125000
G01 X128.982412 Y164.338304 Z-0.125000
G01 X133.445398 Y163.084551 Z-0.125000
G01 X140.894230 Y161.202969 Z-0.125000
G01 X143.510373 Y160.417898 Z-0.125000
G01 X144.873373 Y159.890690 Z-0.125000
G01 X146.101144 Y159.272519 Z-0.125000
G01 X147.059595 Y158.623258 Z-0.125000
G01 X147.878771 Y157.867212 Z-0.125000
G01 X148.624181 Y156.899527 Z-0.125000
G01 X149.244998 Y155.722053 Z-0.125000
G01 X149.743446 Y154.296189 Z-0.125000
G01 X150.117937 Y152.609657 Z-0.125000
G01 X150.376382 Y150.612320 Z-0.125000
G01 X150.509837 Y148.379769 Z-0.125000
G01 X150.518965 Y145.927217 Z-0.125000
G01 X150.396066 Y143.256754 Z-0.125000
G01 X150.154158 Y140.634604 Z-0.125000
G01 X149.812370 Y138.115060 Z-0.125000
G01 X149.361891 Y135.583979 Z-0.125000
G01 X148.787005 Y132.992971 Z-0.125000
G01 X148.110943 Y130.457737 Z-0.125000
G01 X147.335291 Y127.965471 Z-0.125000
G01 X146.426634 Y125.421955 Z-0.125000
G01 X145.474267 Y123.060499 Z-0.125000
G01 X144.387307 Y120.639088 Z-0.125000
G01 X143.159880 Y118.170132 Z-0.125000
G01 X141.840511 Y115.758325 Z-0.125000
G01 X140.435892 Y113.407664 Z-0.125000
G01 X138.900385 Y111.043509 Z-0.125000
G01 X137.312808 Y108.787066 Z-0.125000
G01 X135.658000 Y106.609548 Z-0.125000
G01 X133.906725 Y104.477882 Z-0.125000
G01 X132.155212 Y102.511290 Z-0.125000
G01 X130.373483 Y100.677147 Z-0.125000
G01 X128.603450 Y99.026837 Z-0.125000
G01 X126.942159 Y97.646375 Z-0.125000
G01 X125.385353 Y96.517294 Z-0.125000
G01 X123.862995 Y95.585486 Z-0.125000
G01 X122.356830 Y94.848834 Z-0.125000
G01 X120.858735 Y94.311704 Z-0.125000
G01 X119.548520 Y94.004549 Z-0.125000
G01 X118.115512 Y93.833973 Z-0.125000
G01 X116.643451 Y93.817092 Z-0.125000
G01 X114.969223 Y93.951103 Z-0.125000
G01 X107.436783 Y95.175673 Z-0.125000
G01 X105.565017 Y95.338762 Z-0.125000
G01 X102.668680 Y95.455628 Z-0.125000
G01 X101.366535 Y95.631814 Z-0.125000
G01 X99.125993 Y96.211886 Z-0.125000
G01 X96.666535 Y97.234526 Z-0.125000
G01 X94.505395 Y98.426684 Z-0.125000
G01 X92.118697 Y100.006006 Z-0.125000
G01 X89.524593 Y101.961274 Z-0.125000
G01 X86.589706 Y104.385939 Z-0.125000
G01 X82.742961 Y107.782233 Z-0.125000
G01 X78.501007 Y111.728197 Z-0.125000
G01 X74.764275 Y115.382856 Z-0.125000
G01 X71.617140 Y118.656515 Z-0.125000
G01 X69.510874 Y121.010219 Z-0.125000
G01 X67.621434 Y123.298332 Z-0.125000
G01 X66.037349 Y125.416743 Z-0.125000
G01 X64.636673 Y127.528962 Z-0.125000
G01 X63.433984 Y129.625782 Z-0.125000
G01 X62.415499 Y131.733397 Z-0.125000
G01 X61.586269 Y133.823788 Z-0.125000
G01 X60.886500 Y136.041655 Z-0.125000
G01 X60.257057 Y138.714393 Z-0.125000
G01 X59.781601 Y141.688915 Z-0.125000
G01 X59.476273 Y144.836976 Z-0.125000
G01 X59.302653 Y148.475574 Z-0.125000
G01 X59.277994 Y152.122772 Z-0.125000
G01 X59.412587 Y154.959657 Z-0.125000
G01 X59.718260 Y157.525160 Z-0.125000
G01 X60.208903 Y159.860078 Z-0.125000
G01 X60.848003 Y161.877709 Z-0.125000
G01 X61.638365 Y163.695791 Z-0.125000
G01 X62.618910 Y165.431852 Z-0.125000
G01 X63.827313 Y167.144260 Z-0.125000
G01 X65.362689 Y168.946335 Z-0.125000
G01 X67.204266 Y170.794579 Z-0.125000
G01 X69.354955 Y172.692512 Z-0.125000
G01 X71.620738 Y174.468341 Z-0.125000
G01 X73.910201 Y176.057135 Z-0.125000
G01 X76.134762 Y177.405027 Z-0.125000
G01 X78.331515 Y178.543130 Z-0.125000
G01 X80.525861 Y179.478960 Z-0.125000
G01 X82.607653 Y180.171427 Z-0.125000
G01 X84.702965 Y180.666912 Z-0.125000
G01 X86.821799 Y180.953773 Z-0.125000
G01 X88.889277 Y181.020791 Z-0.125000
G01 X91.108228 Y180.861989 Z-0.125000
G01 X93.385732 Y180.474957 Z-0.125000
G01 X97.368659 Y179.450650 Z-0.125000
G01 X99.856216 Y178.668014 Z-0.125000
G01 X101.446201 Y177.972663 Z-0.125000
G01 X102.974273 Y177.176797 Z-0.125000
G01 X108.804730 Y173.762274 Z-0.125000
G01 X112.145514 Y171.950251 Z-0.125000
G01 X115.641079 Y170.237050 Z-0.125000
G01 X119.377043 Y168.584173 Z-0.125000
G01 X124.272146 Y166.666370 Z-0.125000
G01 X129.316686 Y164.962667 Z-0.125000
G01 X133.890056 Y163.631524 Z-0.125000
G01 X142.008203 Y161.520045 Z-0.125000
G01 X144.384397 Y160.785351 Z-0.125000
G01 X145.844286 Y160.209328 Z-0.125000
G01 X147.067295 Y159.578932 Z-0.125000
G01 X148.105386 Y158.855404 Z-0.125000
G01 X148.936415 Y158.059115 Z-0.125000
G01 X149.735720 Y156.966678 Z-0.125000
G01 X150.337488 Y155.753168 Z-0.125000
G01 X150.821463 Y154.294046 Z-0.125000
G01 X151.189577 Y152.559916 Z-0.125000
G01 X151.447175 Y150.464577 Z-0.125000
G01 X151.572985 Y148.140771 Z-0.125000
G01 X151.567270 Y145.614876 Z-0.125000
G01 X151.432967 Y142.995505 Z-0.125000
G01 X151.180740 Y140.379546 Z-0.125000
G01 X150.816965 Y137.781897 Z-0.125000
G01 X150.340266 Y135.194778 Z-0.125000
G01 X149.754532 Y132.628640 Z-0.125000
G01 X149.065240 Y130.098459 Z-0.125000
G01 X148.237334 Y127.497741 Z-0.125000
G01 X147.342911 Y125.041590 Z-0.125000
G01 X146.314768 Y122.534984 Z-0.125000
G01 X145.139252 Y119.972630 Z-0.125000
G01 X143.900766 Y117.533042 Z-0.125000
G01 X142.579782 Y115.155288 Z-0.125000
G01 X141.055996 Y112.640585 Z-0.125000
G01 X139.430080 Y110.173904 Z-0.125000
G01 X137.719101 Y107.776385 Z-0.125000
G01 X135.972430 Y105.506951 Z-0.125000
G01 X134.090266 Y103.239501 Z-0.125000
G01 X132.181432 Y101.115270 Z-0.125000
G01 X130.336442 Y99.227576 Z-0.125000
G01 X128.486081 Y97.505855 Z-0.125000
G01 X126.770313 Y96.078906 Z-0.125000
G01 X125.165220 Y94.912572 Z-0.125000
G01 X123.566292 Y93.937213 Z-0.125000
G01 X121.986705 Y93.181061 Z-0.125000
G01 X120.508559 Y92.677427 Z-0.125000
G01 X119.406544 Y92.433905 Z-0.125000
G01 X118.291539 Y92.298042 Z-0.125000
G01 X115.961330 Y92.329845 Z-0.125000
G01 X113.776033 Y92.635861 Z-0.125000
G01 X107.187943 Y93.898293 Z-0.125000
G01 X101.833921 Y94.353005 Z-0.125000
G01 X100.526695 Y94.622800 Z-0.125000
G01 X99.147795 Y95.038963 Z-0.125000
G01 X97.792495 Y95.573103 Z-0.125000
G01 X96.304109 Y96.288959 Z-0.125000
G01 X94.087433 Y97.583854 Z-0.125000
G01 X91.561565 Y99.330631 Z-0.125000
G01 X88.670387 Y101.586731 Z-0.125000
G01 X85.376990 Y104.378478 Z-0.125000
G01 X80.903024 Y108.397256 Z-0.125000
G01 X76.386592 Y112.651565 Z-0.125000
G01 X72.626339 Y116.385678 Z-0.125000
G01 X69.569400 Y119.640075 Z-0.125000
G01 X67.545340 Y121.976793 Z-0.125000
G01 X65.842695 Y124.124043 Z-0.125000
G01 X64.350632 Y126.218191 Z-0.125000
G01 X63.052932 Y128.291516 Z-0.125000
G01 X61.942795 Y130.362063 Z-0.125000
G01 X61.028158 Y132.402580 Z-0.125000
G01 X60.254596 Y134.523028 Z-0.125000
G01 X59.634096 Y136.678453 Z-0.125000
G01 X59.043071 Y139.461761 Z-0.125000
G01 X58.605689 Y142.579554 Z-0.125000
G01 X58.321553 Y146.075754 Z-0.125000
G01 X58.171825 Y150.120778 Z-0.125000
G01 X58.181297 Y153.373826 Z-0.125000
G01 X58.343593 Y156.114773 Z-0.125000
G01 X58.676121 Y158.606140 Z-0.125000
G01 X59.172240 Y160.812524 Z-0.125000
G01 X59.843302 Y162.835605 Z-0.125000
G01 X60.704917 Y164.732586 Z-0.125000
G01 X61.778568 Y166.549609 Z-0.125000
G01 X63.037930 Y168.266171 Z-0.125000
G01 X64.690172 Y170.150955 Z-0.125000
G01 X66.736721 Y172.164934 Z-0.125000
G01 X69.044520 Y174.179363 Z-0.125000
G01 X71.484848 Y176.083461 Z-0.125000
G01 X73.787620 Y177.683341 Z-0.125000
G01 X76.089280 Y179.086505 Z-0.125000
G01 X78.401709 Y180.290807 Z-0.125000
G01 X80.573724 Y181.222166 Z-0.125000
G01 X82.740447 Y181.945879 Z-0.125000
G01 X84.819011 Y182.436046 Z-0.125000
G01 X86.883949 Y182.715419 Z-0.125000
G01 X89.025934 Y182.779395 Z-0.125000
G01 X91.249939 Y182.601357 Z-0.125000
G01 X93.587715 Y182.163287 Z-0.125000
G01 X96.165574 Y181.452062 Z-0.125000
G01 X99.865767 Y180.222677 Z-0.125000
G01 X101.199609 Y179.625910 Z-0.125000
G01 X102.735619 Y178.790621 Z-0.125000
G01 X108.621057 Y175.062435 Z-0.125000
G01 X111.880825 Y173.163814 Z-0.125000
G01 X115.563159 Y171.257811 Z-0.125000
G01 X119.438982 Y169.469865 Z-0.125000
G01 X124.479262 Y167.422257 Z-0.125000
G01 X129.735759 Y165.587427 Z-0.125000
G01 X134.719339 Y164.098857 Z-0.125000
G01 X142.953003 Y161.904643 Z-0.125000
G01 X145.418070 Y161.119864 Z-0.125000
G01 X146.942861 Y160.491638 Z-0.125000
G01 X148.132321 Y159.849415 Z-0.125000
G01 X149.142552 Y159.119113 Z-0.125000
G01 X149.933470 Y158.345499 Z-0.125000
G01 X150.714968 Y157.275975 Z-0.125000
G01 X151.358963 Y155.981741 Z-0.125000
G01 X151.851802 Y154.497325 Z-0.125000
G01 X152.223753 Y152.765020 Z-0.125000
G01 X152.492490 Y150.630153 Z-0.125000
G01 X152.624887 Y148.293224 Z-0.125000
G01 X152.627533 Y145.797994 Z-0.125000
G01 X152.491881 Y143.040378 Z-0.125000
G01 X152.231161 Y140.342028 Z-0.125000
G01 X151.848812 Y137.654526 Z-0.125000
G01 X151.368832 Y135.079631 Z-0.125000
G01 X150.757593 Y132.433404 Z-0.125000
G01 X150.055204 Y129.892323 Z-0.125000
G01 X149.214862 Y127.281603 Z-0.125000
G01 X148.232307 Y124.624766 Z-0.125000
G01 X147.202867 Y122.159117 Z-0.125000
G01 X146.034654 Y119.642801 Z-0.125000
G01 X144.674935 Y116.998108 Z-0.125000
G01 X143.166389 Y114.335795 Z-0.125000
G01 X141.623209 Y111.841941 Z-0.125000
G01 X139.899556 Y109.273105 Z-0.125000
G01 X138.169924 Y106.884132 Z-0.125000
G01 X136.277891 Y104.453805 Z-0.125000
G01 X134.330560 Y102.128173 Z-0.125000
G01 X132.342484 Y99.924276 Z-0.125000
G01 X130.368271 Y97.904608 Z-0.125000
G01 X128.413109 Y96.080441 Z-0.125000
G01 X126.593016 Y94.560173 Z-0.125000
G01 X124.849493 Y93.293191 Z-0.125000
G01 X123.266308 Y92.333443 Z-0.125000
G01 X121.709052 Y91.595786 Z-0.125000
G01 X120.258317 Y91.113398 Z-0.125000
G01 X119.263749 Y90.901387 Z-0.125000
G01 X118.159221 Y90.776795 Z-0.125000
G01 X115.920293 Y90.839872 Z-0.125000
G01 X113.814318 Y91.180496 Z-0.125000
G01 X107.484620 Y92.573076 Z-0.125000
G01 X105.590735 Y92.839881 Z-0.125000
G01 X103.162604 Y93.001012 Z-0.125000
G01 X101.769362 Y93.196910 Z-0.125000
G01 X100.400383 Y93.503429 Z-0.125000
G01 X98.967058 Y93.973461 Z-0.125000
G01 X97.555190 Y94.565809 Z-0.125000
G01 X95.989970 Y95.364691 Z-0.125000
G01 X93.628487 Y96.815109 Z-0.125000
G01 X90.963131 Y98.732092 Z-0.125000
G01 X87.778451 Y101.289630 Z-0.125000
G01 X84.124216 Y104.444333 Z-0.125000
G01 X79.180509 Y108.927771 Z-0.125000
G01 X74.544274 Y113.324056 Z-0.125000
G01 X70.821618 Y117.058883 Z-0.125000
G01 X67.844504 Y120.282562 Z-0.125000
G01 X65.976918 Y122.487174 Z-0.125000
G01 X64.306341 Y124.652786 Z-0.125000
G01 X62.895664 Y126.702325 Z-0.125000
G01 X61.677471 Y128.727761 Z-0.125000
G01 X60.636681 Y130.757271 Z-0.125000
G01 X59.742628 Y132.860018 Z-0.125000
G01 X59.009469 Y135.003220 Z-0.125000
G01 X58.432678 Y137.156634 Z-0.125000
G01 X57.867767 Y140.051754 Z-0.125000
G01 X57.455864 Y143.318296 Z-0.125000
G01 X57.181332 Y147.197242 Z-0.125000
G01 X57.048327 Y151.474041 Z-0.125000
G01 X57.078330 Y154.444514 Z-0.125000
G01 X57.255892 Y157.080978 Z-0.125000
G01 X57.595987 Y159.479211 Z-0.125000
G01 X58.105389 Y161.662391 Z-0.125000
G01 X58.803861 Y163.705183 Z-0.125000
G01 X59.697914 Y165.620315 Z-0.125000
G01 X60.850093 Y167.520153 Z-0.125000
