%
(Header)
(Generated by gcodetools from Inkscape.)
(Using default header. To add your own header create file "header" in the output dir.)
M3
(Header end.)
G21 (All units in mm)

(Start cutting path id: polyline724)
(Change tool to Default tool)

G00 Z3.000000
G00 X10.922682 Y67.014174

G00 Z4.875000 (Fast pre-penetrate)
G01 Z-0.125000 F400.0(Penetrate)
G01 X12.518146 Y66.975774 Z-0.125000 F800.000000
G01 X14.113636 Y67.155184 Z-0.125000
G01 X15.609379 Y67.494774 Z-0.125000
G01 X19.498357 Y68.588964 Z-0.125000
G01 X20.794683 Y68.837164 Z-0.125000
G01 X22.091009 Y68.975944 Z-0.125000
G01 X24.583939 Y68.952444 Z-0.125000
G01 X30.267824 Y68.336814 Z-0.125000
G01 X33.373318 Y68.201844 Z-0.125000
G01 X36.151152 Y68.328134 Z-0.125000
G01 X40.937597 Y68.901644 Z-0.125000
G01 X42.718243 Y69.007924 Z-0.125000
G01 X44.028830 Y68.940624 Z-0.125000
G01 X45.325156 Y68.714564 Z-0.125000
G01 X46.521760 Y68.366234 Z-0.125000
G01 X49.612993 Y67.253934 Z-0.125000
G01 X50.510460 Y67.046974 Z-0.125000
G01 X51.265448 Y66.969174 Z-0.125000
G01 X52.105924 Y67.000974 Z-0.125000
G01 X52.903669 Y67.145274 Z-0.125000
G01 X56.294066 Y68.331614 Z-0.125000
G01 X57.191507 Y68.531564 Z-0.125000
G01 X57.989252 Y68.594564 Z-0.125000
G01 X59.584716 Y68.393844 Z-0.125000
G01 X62.775696 Y67.493624 Z-0.125000
G01 X64.371160 Y67.331174 Z-0.125000
G01 X65.966651 Y67.471454 Z-0.125000
G01 X69.556464 Y68.139614 Z-0.125000
G01 X71.664770 Y68.275284 Z-0.125000
G01 X73.345721 Y68.205284 Z-0.125000
G01 X79.072336 Y67.729854 Z-0.125000
G01 X84.656526 Y67.623894 Z-0.125000
G01 X90.012751 Y67.724404 Z-0.125000
G01 X95.283542 Y68.223914 Z-0.125000
G01 X96.850510 Y68.267914 Z-0.125000
G01 X98.175329 Y68.125334 Z-0.125000
G01 X100.867709 Y67.458954 Z-0.125000
G01 X102.064313 Y67.332854 Z-0.125000
G01 X103.161193 Y67.504804 Z-0.125000
G01 X105.454713 Y68.432274 Z-0.125000
G01 X106.451873 Y68.592644 Z-0.125000
G01 X107.449063 Y68.348064 Z-0.125000
G01 X109.443413 Y67.180404 Z-0.125000
G01 X109.842273 Y67.030224 Z-0.125000
G01 X110.340853 Y66.968024 Z-0.125000
G01 X110.739733 Y67.023024 Z-0.125000
G01 X111.238313 Y67.236624 Z-0.125000
G01 X113.033223 Y68.620634 Z-0.125000
G01 X113.631523 Y68.934164 Z-0.125000
G01 X114.030383 Y69.003564 Z-0.125000
G01 X114.429273 Y68.950664 Z-0.125000
G01 X114.894623 Y68.734424 Z-0.125000
G01 X115.498953 Y68.246684 Z-0.125000
G01 X116.862383 Y66.904374 Z-0.125000
G01 X117.420783 Y66.586054 Z-0.125000
G01 X117.819673 Y66.504654 Z-0.125000
G01 X118.318253 Y66.621014 Z-0.125000
G01 X118.834953 Y66.953914 Z-0.125000
G01 X120.938103 Y69.188344 Z-0.125000
G01 X121.409483 Y69.442904 Z-0.125000
G01 X121.808343 Y69.514804 Z-0.125000
G01 X122.306953 Y69.383284 Z-0.125000
G01 X122.896173 Y68.966584 Z-0.125000
G01 X124.999293 Y66.545014 Z-0.125000
G01 X125.398183 Y66.361974 Z-0.125000
G01 X126.195903 Y66.263174 Z-0.125000
G01 X127.093363 Y66.341674 Z-0.125000
G01 X127.465053 Y66.505724 Z-0.125000
G01 X129.568173 Y68.824604 Z-0.125000
G01 X130.184603 Y69.402194 Z-0.125000
G01 X131.082063 Y69.954884 Z-0.125000
G01 X131.879813 Y70.114554 Z-0.125000
G01 X132.577813 Y70.015354 Z-0.125000
G01 X133.331233 Y69.705924 Z-0.125000
G01 X136.876763 Y67.308904 Z-0.125000
G01 X138.062283 Y66.682794 Z-0.125000
G01 X138.860023 Y66.388524 Z-0.125000
G01 X139.586513 Y66.275834 Z-0.125000
G01 X146.139373 Y66.291334 Z-0.125000
G01 X146.837393 Y66.435294 Z-0.125000
G01 X150.427233 Y68.107054 Z-0.125000
G01 X153.219303 Y69.780624 Z-0.125000
G01 X153.917333 Y70.025284 Z-0.125000
G01 X154.615353 Y70.115384 Z-0.125000
G01 X155.512823 Y69.956284 Z-0.125000
G01 X156.465663 Y69.430244 Z-0.125000
G01 X157.271453 Y68.737804 Z-0.125000
G01 X159.084513 Y66.869504 Z-0.125000
G01 X159.601213 Y66.494344 Z-0.125000
G01 X160.199513 Y66.270584 Z-0.125000
G01 X161.396123 Y66.238784 Z-0.125000
G01 X161.695283 Y66.289684 Z-0.125000
G01 X161.934603 Y66.448434 Z-0.125000
G01 X163.290753 Y67.639194 Z-0.125000
G01 X164.567153 Y68.943194 Z-0.125000
G01 X165.285103 Y69.401104 Z-0.125000
G01 X165.783703 Y69.513584 Z-0.125000
G01 X166.282283 Y69.433284 Z-0.125000
G01 X166.747633 Y69.202014 Z-0.125000
G01 X167.279453 Y68.776404 Z-0.125000
G00 Z3.000000

(End cutting path id: polyline724)


(Start cutting path id: polyline722)
(Change tool to Default tool)

G00 Z3.000000
G00 X10.922682 Y69.181594

G00 Z4.875000 (Fast pre-penetrate)
G01 Z-0.125000 F400.0(Penetrate)
G01 X13.814472 Y68.628184 Z-0.125000 F800.000000
G01 X15.025337 Y68.553084 Z-0.125000
G01 X16.207681 Y68.599384 Z-0.125000
G01 X18.202031 Y68.924134 Z-0.125000
G01 X21.891566 Y69.896214 Z-0.125000
G01 X23.586778 Y70.262104 Z-0.125000
G01 X25.381685 Y70.500844 Z-0.125000
G01 X27.333304 Y70.593144 Z-0.125000
G01 X33.601230 Y70.457444 Z-0.125000
G01 X39.641271 Y70.594074 Z-0.125000
G01 X41.835037 Y70.521774 Z-0.125000
G01 X43.131363 Y70.356964 Z-0.125000
G01 X44.427689 Y70.079204 Z-0.125000
G01 X48.715527 Y68.766024 Z-0.125000
G01 X50.353747 Y68.553114 Z-0.125000
G01 X51.208484 Y68.598814 Z-0.125000
G01 X52.006202 Y68.741874 Z-0.125000
G01 X55.496321 Y69.910934 Z-0.125000
G01 X56.393761 Y70.109614 Z-0.125000
G01 X57.191507 Y70.180714 Z-0.125000
G01 X57.989252 Y70.144614 Z-0.125000
G01 X58.886718 Y69.989754 Z-0.125000
G01 X62.277089 Y69.063154 Z-0.125000
G01 X63.801354 Y68.918564 Z-0.125000
G01 X65.368322 Y69.049904 Z-0.125000
G01 X69.057884 Y69.726384 Z-0.125000
G01 X71.208920 Y69.862464 Z-0.125000
G01 X72.918366 Y69.791664 Z-0.125000
G01 X78.730468 Y69.316264 Z-0.125000
G01 X84.314632 Y69.211484 Z-0.125000
G01 X89.784839 Y69.315304 Z-0.125000
G01 X95.084099 Y69.816794 Z-0.125000
G01 X96.508642 Y69.857394 Z-0.125000
G01 X97.876194 Y69.718514 Z-0.125000
G01 X100.668259 Y69.033644 Z-0.125000
G01 X101.864873 Y68.921144 Z-0.125000
G01 X102.862063 Y69.081744 Z-0.125000
G01 X105.055823 Y69.977284 Z-0.125000
G01 X105.654153 Y70.141984 Z-0.125000
G01 X106.152733 Y70.178984 Z-0.125000
G01 X107.050173 Y69.984004 Z-0.125000
G01 X109.044523 Y68.819734 Z-0.125000
G01 X109.642823 Y68.594734 Z-0.125000
G01 X110.041713 Y68.555334 Z-0.125000
G01 X110.440573 Y68.612434 Z-0.125000
G01 X110.905923 Y68.801744 Z-0.125000
G01 X112.855953 Y70.300114 Z-0.125000
G01 X113.332393 Y70.521694 Z-0.125000
G01 X113.731253 Y70.594894 Z-0.125000
G01 X114.229833 Y70.493164 Z-0.125000
G01 X114.708483 Y70.225804 Z-0.125000
G01 X116.151653 Y68.808614 Z-0.125000
G01 X116.756013 Y68.320934 Z-0.125000
G01 X117.121643 Y68.150064 Z-0.125000
G01 X117.520503 Y68.098864 Z-0.125000
G01 X117.996943 Y68.227524 Z-0.125000
G01 X118.528753 Y68.615064 Z-0.125000
G01 X120.013433 Y70.308104 Z-0.125000
G01 X120.478783 Y70.737234 Z-0.125000
G01 X120.921963 Y71.014804 Z-0.125000
G01 X121.309763 Y71.096604 Z-0.125000
G01 X121.808343 Y70.997504 Z-0.125000
G01 X122.366773 Y70.604254 Z-0.125000
G01 X122.871993 Y70.074084 Z-0.125000
G01 X124.068603 Y68.553524 Z-0.125000
G01 X124.680213 Y67.944744 Z-0.125000
G01 X125.198743 Y67.630654 Z-0.125000
G01 X125.697323 Y67.540254 Z-0.125000
G01 X126.295623 Y67.720994 Z-0.125000
G01 X126.884873 Y68.156174 Z-0.125000
G01 X128.855043 Y70.461964 Z-0.125000
G01 X129.626193 Y71.192004 Z-0.125000
G01 X130.284323 Y71.572394 Z-0.125000
G01 X130.982343 Y71.701784 Z-0.125000
G01 X131.580653 Y71.597984 Z-0.125000
G01 X132.356223 Y71.214074 Z-0.125000
G01 X135.813113 Y68.377604 Z-0.125000
G01 X136.876763 Y67.737554 Z-0.125000
G01 X137.862833 Y67.332794 Z-0.125000
G01 X138.959723 Y67.066734 Z-0.125000
G01 X140.270303 Y66.926584 Z-0.125000
G01 X145.626553 Y66.893984 Z-0.125000
G01 X147.734863 Y67.007734 Z-0.125000
G01 X148.432883 Y67.190394 Z-0.125000
G01 X150.704233 Y68.255054 Z-0.125000
G01 X153.363343 Y69.923864 Z-0.125000
G01 X155.047473 Y71.150894 Z-0.125000
G01 X155.712233 Y71.493134 Z-0.125000
G01 X156.210843 Y71.649524 Z-0.125000
G01 X157.108283 Y71.662324 Z-0.125000
G01 X158.061153 Y71.257194 Z-0.125000
G01 X158.939463 Y70.533394 Z-0.125000
G01 X161.216653 Y68.150774 Z-0.125000
G01 X161.894723 Y67.704574 Z-0.125000
G01 X162.493033 Y67.540934 Z-0.125000
G01 X162.991613 Y67.585234 Z-0.125000
G01 X163.363273 Y67.761424 Z-0.125000
G01 X164.886243 Y69.188294 Z-0.125000
G01 X166.242383 Y70.600904 Z-0.125000
G01 X166.780863 Y70.950254 Z-0.125000
G01 X167.279453 Y71.096994 Z-0.125000
G00 Z3.000000

(End cutting path id: polyline722)


(Start cutting path id: polyline718)
(Change tool to Default tool)

G00 Z3.000000
G00 X10.922682 Y71.498304

G00 Z4.875000 (Fast pre-penetrate)
G01 Z-0.125000 F400.0(Penetrate)
G01 X16.008265 Y70.355704 Z-0.125000 F800.000000
G01 X17.304591 Y70.185314 Z-0.125000
G01 X18.672142 Y70.143414 Z-0.125000
G01 X20.894404 Y70.376564 Z-0.125000
G01 X25.979987 Y71.507924 Z-0.125000
G01 X28.672360 Y71.912634 Z-0.125000
G01 X32.461617 Y72.123184 Z-0.125000
G01 X37.589930 Y72.096484 Z-0.125000
G01 X39.641271 Y71.972664 Z-0.125000
G01 X41.535899 Y71.731974 Z-0.125000
G01 X43.330806 Y71.361524 Z-0.125000
G01 X47.219784 Y70.350714 Z-0.125000
G01 X48.216946 Y70.191834 Z-0.125000
G01 X49.214134 Y70.140134 Z-0.125000
G01 X50.909319 Y70.342644 Z-0.125000
G01 X54.598854 Y71.510094 Z-0.125000
G01 X55.496321 Y71.697794 Z-0.125000
G01 X56.294066 Y71.767494 Z-0.125000
G01 X57.077550 Y71.739094 Z-0.125000
G01 X57.989252 Y71.595554 Z-0.125000
G01 X61.579065 Y70.644384 Z-0.125000
G01 X63.117565 Y70.506344 Z-0.125000
G01 X64.670325 Y70.636074 Z-0.125000
G01 X68.459581 Y71.320604 Z-0.125000
G01 X70.525157 Y71.450064 Z-0.125000
G01 X72.348559 Y71.375364 Z-0.125000
G01 X78.160635 Y70.899194 Z-0.125000
G01 X84.086693 Y70.793604 Z-0.125000
G01 X89.670883 Y70.898984 Z-0.125000
G01 X94.799196 Y71.392724 Z-0.125000
G01 X96.280704 Y71.447224 Z-0.125000
G01 X97.676751 Y71.311964 Z-0.125000
G01 X100.468849 Y70.626934 Z-0.125000
G01 X101.636963 Y70.507504 Z-0.125000
G01 X102.762333 Y70.693664 Z-0.125000
G01 X104.956133 Y71.598804 Z-0.125000
G01 X105.953293 Y71.768054 Z-0.125000
G01 X106.850763 Y71.573434 Z-0.125000
G01 X108.867253 Y70.387644 Z-0.125000
G01 X109.443413 Y70.182494 Z-0.125000
G01 X109.842273 Y70.140294 Z-0.125000
G01 X110.241133 Y70.206794 Z-0.125000
G01 X110.728653 Y70.411814 Z-0.125000
G01 X112.678683 Y71.918964 Z-0.125000
G01 X113.033223 Y72.094354 Z-0.125000
G01 X113.531803 Y72.177954 Z-0.125000
G01 X114.008243 Y72.074844 Z-0.125000
G01 X114.540053 Y71.742424 Z-0.125000
G01 X116.401453 Y69.968604 Z-0.125000
G01 X116.844653 Y69.734734 Z-0.125000
G01 X117.221343 Y69.684234 Z-0.125000
G01 X117.719943 Y69.824064 Z-0.125000
G01 X118.138753 Y70.115534 Z-0.125000
G01 X120.140353 Y72.324884 Z-0.125000
G01 X120.611733 Y72.605474 Z-0.125000
G01 X121.010623 Y72.689974 Z-0.125000
G01 X121.509203 Y72.553054 Z-0.125000
G01 X122.025913 Y72.178584 Z-0.125000
G01 X124.201583 Y69.578294 Z-0.125000
G01 X124.733393 Y69.228534 Z-0.125000
G01 X125.198743 Y69.127604 Z-0.125000
G01 X125.797043 Y69.291644 Z-0.125000
G01 X126.355473 Y69.718994 Z-0.125000
G01 X128.190253 Y71.955014 Z-0.125000
G01 X128.987993 Y72.771654 Z-0.125000
G01 X129.608473 Y73.158104 Z-0.125000
G01 X130.284323 Y73.288064 Z-0.125000
G01 X130.982343 Y73.117144 Z-0.125000
G01 X131.700323 Y72.672854 Z-0.125000
G01 X134.253073 Y70.221414 Z-0.125000
G01 X135.192633 Y69.462884 Z-0.125000
G01 X136.079013 Y68.949404 Z-0.125000
G01 X136.965393 Y68.636034 Z-0.125000
G01 X137.877093 Y68.493764 Z-0.125000
G01 X138.788793 Y68.487764 Z-0.125000
G01 X142.350113 Y68.901204 Z-0.125000
G01 X144.145023 Y68.978004 Z-0.125000
G01 X145.640793 Y68.898204 Z-0.125000
G01 X148.532613 Y68.547524 Z-0.125000
G01 X149.729213 Y68.477124 Z-0.125000
G01 X150.925813 Y68.557524 Z-0.125000
G01 X151.501943 Y68.748924 Z-0.125000
G01 X153.363343 Y69.923354 Z-0.125000
G01 X155.224743 Y71.239044 Z-0.125000
G01 X156.997503 Y72.698694 Z-0.125000
G01 X157.617953 Y73.061914 Z-0.125000
G01 X158.205163 Y73.254724 Z-0.125000
G01 X158.604053 Y73.289424 Z-0.125000
G01 X159.102633 Y73.213024 Z-0.125000
G01 X159.922523 Y72.794744 Z-0.125000
G01 X160.752493 Y72.050104 Z-0.125000
G01 X162.812113 Y69.786834 Z-0.125000
G01 X163.390473 Y69.360454 Z-0.125000
G01 X163.988773 Y69.140294 Z-0.125000
G01 X164.587073 Y69.174994 Z-0.125000
G01 X165.031283 Y69.407144 Z-0.125000
G01 X166.481703 Y70.793664 Z-0.125000
G01 X167.279453 Y71.716084 Z-0.125000
G00 Z3.000000

(End cutting path id: polyline718)


(Start cutting path id: polyline720)
(Change tool to Default tool)

G00 Z3.000000
G00 X10.922682 Y73.354254

G00 Z4.875000 (Fast pre-penetrate)
G01 Z-0.125000 F400.0(Penetrate)
G01 X12.290234 Y73.320954 Z-0.125000 F800.000000
G01 X13.714750 Y73.157684 Z-0.125000
G01 X18.800333 Y72.019764 Z-0.125000
G01 X21.065352 Y71.742324 Z-0.125000
G01 X22.432903 Y71.744324 Z-0.125000
G01 X23.885916 Y71.873734 Z-0.125000
G01 X28.871777 Y72.723314 Z-0.125000
G01 X30.965848 Y73.003484 Z-0.125000
G01 X33.031424 Y73.167074 Z-0.125000
G01 X35.082765 Y73.220474 Z-0.125000
G01 X37.362018 Y73.154274 Z-0.125000
G01 X39.441828 Y72.967264 Z-0.125000
G01 X41.436178 Y72.666084 Z-0.125000
G01 X45.424877 Y71.902104 Z-0.125000
G01 X47.504687 Y71.727184 Z-0.125000
G01 X48.516110 Y71.782384 Z-0.125000
G01 X49.513272 Y71.939964 Z-0.125000
G01 X53.501971 Y73.108074 Z-0.125000
G01 X55.254148 Y73.355094 Z-0.125000
G01 X56.792647 Y73.224654 Z-0.125000
G01 X60.382461 Y72.291674 Z-0.125000
G01 X62.205863 Y72.093714 Z-0.125000
G01 X63.772858 Y72.214634 Z-0.125000
G01 X67.661836 Y72.910304 Z-0.125000
G01 X69.727412 Y73.037534 Z-0.125000
G01 X71.550814 Y72.961534 Z-0.125000
G01 X77.476872 Y72.473324 Z-0.125000
G01 X83.630842 Y72.372644 Z-0.125000
G01 X89.556900 Y72.469744 Z-0.125000
G01 X94.799196 Y72.981634 Z-0.125000
G01 X96.280704 Y73.033634 Z-0.125000
G01 X97.676751 Y72.888854 Z-0.125000
G01 X100.269399 Y72.237694 Z-0.125000
G01 X101.523003 Y72.095104 Z-0.125000
G01 X102.662613 Y72.282144 Z-0.125000
G01 X104.856413 Y73.191274 Z-0.125000
G01 X105.853573 Y73.355974 Z-0.125000
G01 X106.751033 Y73.151294 Z-0.125000
G01 X108.778623 Y71.953184 Z-0.125000
G01 X109.642823 Y71.728654 Z-0.125000
G01 X110.141433 Y71.806654 Z-0.125000
G01 X110.640013 Y72.035704 Z-0.125000
G01 X112.412753 Y73.435584 Z-0.125000
G01 X112.855953 Y73.677444 Z-0.125000
G01 X113.332393 Y73.764744 Z-0.125000
G01 X113.731253 Y73.701444 Z-0.125000
G01 X114.096873 Y73.525054 Z-0.125000
G01 X114.701213 Y73.036444 Z-0.125000
G01 X116.064633 Y71.654154 Z-0.125000
G01 X116.623043 Y71.336624 Z-0.125000
G01 X117.021923 Y71.267824 Z-0.125000
G01 X117.420783 Y71.369854 Z-0.125000
G01 X117.964683 Y71.730024 Z-0.125000
G01 X119.348643 Y73.350994 Z-0.125000
G01 X119.973563 Y73.965594 Z-0.125000
G01 X120.412293 Y74.209964 Z-0.125000
G01 X120.811183 Y74.271964 Z-0.125000
G01 X121.276533 Y74.131134 Z-0.125000
G01 X121.874833 Y73.650064 Z-0.125000
G01 X123.342473 Y71.755434 Z-0.125000
G01 X123.984013 Y71.084294 Z-0.125000
G01 X124.400993 Y70.821644 Z-0.125000
G01 X124.899573 Y70.715144 Z-0.125000
G01 X125.442503 Y70.882894 Z-0.125000
G01 X126.014613 Y71.327634 Z-0.125000
G01 X127.924343 Y73.747774 Z-0.125000
G01 X128.509363 Y74.346394 Z-0.125000
G01 X129.187443 Y74.776084 Z-0.125000
G01 X129.785743 Y74.876194 Z-0.125000
G01 X130.483763 Y74.666514 Z-0.125000
G01 X131.141893 Y74.205424 Z-0.125000
G01 X133.484353 Y71.735854 Z-0.125000
G01 X134.412613 Y70.917234 Z-0.125000
G01 X135.281273 Y70.395904 Z-0.125000
G01 X136.067933 Y70.139254 Z-0.125000
G01 X136.865673 Y70.066054 Z-0.125000
G01 X137.763113 Y70.159254 Z-0.125000
G01 X142.050973 Y71.394094 Z-0.125000
G01 X143.347303 Y71.613464 Z-0.125000
G01 X144.600873 Y71.678064 Z-0.125000
G01 X145.640793 Y71.618764 Z-0.125000
G01 X146.737673 Y71.451444 Z-0.125000
G01 X151.025543 Y70.255634 Z-0.125000
G01 X152.578273 Y70.065584 Z-0.125000
G01 X153.418743 Y70.141884 Z-0.125000
G01 X153.895183 Y70.332224 Z-0.125000
G01 X155.393153 Y71.365474 Z-0.125000
G01 X158.947503 Y74.388654 Z-0.125000
G01 X159.700933 Y74.777534 Z-0.125000
G01 X160.299233 Y74.877034 Z-0.125000
G01 X160.986173 Y74.732464 Z-0.125000
G01 X161.767803 Y74.233144 Z-0.125000
G01 X162.559493 Y73.435774 Z-0.125000
G01 X164.088493 Y71.645204 Z-0.125000
G01 X164.646923 Y71.136754 Z-0.125000
G01 X165.085683 Y70.867754 Z-0.125000
G01 X165.584263 Y70.719714 Z-0.125000
G01 X166.182563 Y70.793614 Z-0.125000
G01 X166.626743 Y71.047714 Z-0.125000
G01 X167.279453 Y71.716634 Z-0.125000
G00 Z3.000000

(End cutting path id: polyline720)


(Start cutting path id: polyline716)
(Change tool to Default tool)

G00 Z3.000000
G00 X10.922682 Y74.603004

G00 Z4.875000 (Fast pre-penetrate)
G01 Z-0.125000 F400.0(Penetrate)
G01 X13.543803 Y74.917144 Z-0.125000 F800.000000
G01 X15.808822 Y74.882444 Z-0.125000
G01 X17.703450 Y74.597444 Z-0.125000
G01 X22.190730 Y73.595674 Z-0.125000
G01 X24.712157 Y73.327044 Z-0.125000
G01 X26.877454 Y73.362944 Z-0.125000
G01 X32.461617 Y73.881604 Z-0.125000
G01 X35.538615 Y74.001594 Z-0.125000
G01 X38.387675 Y73.899304 Z-0.125000
G01 X43.330806 Y73.405544 Z-0.125000
G01 X45.225434 Y73.314744 Z-0.125000
G01 X46.521760 Y73.372444 Z-0.125000
G01 X47.818086 Y73.554744 Z-0.125000
G01 X52.105924 Y74.694334 Z-0.125000
G01 X53.886596 Y74.940104 Z-0.125000
G01 X55.695764 Y74.797014 Z-0.125000
G01 X59.285578 Y73.887514 Z-0.125000
G01 X60.952268 Y73.685284 Z-0.125000
G01 X62.576254 Y73.775184 Z-0.125000
G01 X66.265789 Y74.440974 Z-0.125000
G01 X68.245904 Y74.618114 Z-0.125000
G01 X70.297218 Y74.567014 Z-0.125000
G01 X76.793083 Y74.035284 Z-0.125000
G01 X83.858781 Y73.954084 Z-0.125000
G01 X89.784839 Y74.047984 Z-0.125000
G01 X94.784935 Y74.558864 Z-0.125000
G01 X96.052792 Y74.625364 Z-0.125000
G01 X97.676751 Y74.483314 Z-0.125000
G01 X100.269399 Y73.825824 Z-0.125000
G01 X101.409023 Y73.682364 Z-0.125000
G01 X102.562893 Y73.847124 Z-0.125000
G01 X104.856413 Y74.791494 Z-0.125000
G01 X105.753853 Y74.944774 Z-0.125000
G01 X106.739953 Y74.721944 Z-0.125000
G01 X108.745383 Y73.527264 Z-0.125000
G01 X109.144243 Y73.379844 Z-0.125000
G01 X109.642823 Y73.317444 Z-0.125000
G01 X110.041713 Y73.383944 Z-0.125000
G01 X110.540293 Y73.611464 Z-0.125000
G01 X112.235483 Y74.966264 Z-0.125000
G01 X112.833783 Y75.288154 Z-0.125000
G01 X113.232663 Y75.353654 Z-0.125000
G01 X113.731253 Y75.252724 Z-0.125000
G01 X114.150053 Y75.008724 Z-0.125000
G01 X116.144403 Y73.101054 Z-0.125000
G01 X116.523343 Y72.919414 Z-0.125000
G01 X116.922203 Y72.857614 Z-0.125000
G01 X117.376463 Y72.994874 Z-0.125000
G01 X117.886133 Y73.365024 Z-0.125000
G01 X119.282183 Y75.029814 Z-0.125000
G01 X119.813993 Y75.540724 Z-0.125000
G01 X120.212883 Y75.786654 Z-0.125000
G01 X120.611733 Y75.858054 Z-0.125000
G01 X121.090393 Y75.732434 Z-0.125000
G01 X121.648803 Y75.279834 Z-0.125000
G01 X123.219733 Y73.246724 Z-0.125000
G01 X123.722923 Y72.721784 Z-0.125000
G01 X124.121783 Y72.433074 Z-0.125000
G01 X124.600433 Y72.306444 Z-0.125000
G01 X125.176563 Y72.451624 Z-0.125000
G01 X125.797043 Y72.956504 Z-0.125000
G01 X127.392533 Y75.051894 Z-0.125000
G01 X128.190253 Y75.945474 Z-0.125000
G01 X128.810723 Y76.354784 Z-0.125000
G01 X129.386853 Y76.462234 Z-0.125000
G01 X130.051643 Y76.269774 Z-0.125000
G01 X130.728533 Y75.774154 Z-0.125000
G01 X132.910203 Y73.306204 Z-0.125000
G01 X133.774443 Y72.480964 Z-0.125000
G01 X134.572163 Y71.960344 Z-0.125000
G01 X135.369903 Y71.695624 Z-0.125000
G01 X136.267373 Y71.677624 Z-0.125000
G01 X137.264533 Y71.927974 Z-0.125000
G01 X140.754653 Y73.574444 Z-0.125000
G01 X142.250393 Y74.126974 Z-0.125000
G01 X143.646443 Y74.439664 Z-0.125000
G01 X145.056723 Y74.547404 Z-0.125000
G01 X146.538263 Y74.438814 Z-0.125000
G01 X148.034003 Y74.104934 Z-0.125000
G01 X149.629493 Y73.522884 Z-0.125000
G01 X153.019893 Y71.991844 Z-0.125000
G01 X154.017053 Y71.716144 Z-0.125000
G01 X154.814793 Y71.653944 Z-0.125000
G01 X155.612513 Y71.781504 Z-0.125000
G01 X156.190893 Y72.041054 Z-0.125000
G01 X157.786353 Y73.380434 Z-0.125000
G01 X160.454363 Y75.875904 Z-0.125000
G01 X161.196703 Y76.322544 Z-0.125000
G01 X161.894723 Y76.464364 Z-0.125000
G01 X162.581663 Y76.302574 Z-0.125000
G01 X163.363273 Y75.763164 Z-0.125000
G01 X165.484543 Y73.310474 Z-0.125000
G01 X166.162613 Y72.683674 Z-0.125000
G01 X166.681143 Y72.393564 Z-0.125000
G01 X167.279453 Y72.306764 Z-0.125000
G00 Z3.000000

(End cutting path id: polyline716)


(Start cutting path id: polyline714)
(Change tool to Default tool)

G00 Z3.000000
G00 X10.922682 Y75.609774

G00 Z4.875000 (Fast pre-penetrate)
G01 Z-0.125000 F400.0(Penetrate)
G01 X15.409936 Y76.377624 Z-0.125000 F800.000000
G01 X16.734757 Y76.505844 Z-0.125000
G01 X17.988353 Y76.527344 Z-0.125000
G01 X20.096659 Y76.328344 Z-0.125000
G01 X25.182242 Y75.295044 Z-0.125000
G01 X27.903111 Y74.969734 Z-0.125000
G01 X30.068408 Y74.902334 Z-0.125000
G01 X35.880483 Y74.989934 Z-0.125000
G01 X42.490331 Y74.911534 Z-0.125000
G01 X44.028830 Y74.990634 Z-0.125000
G01 X45.524572 Y75.170094 Z-0.125000
G01 X50.610181 Y76.324814 Z-0.125000
G01 X52.633000 Y76.531904 Z-0.125000
G01 X54.299717 Y76.382024 Z-0.125000
G01 X57.989252 Y75.485904 Z-0.125000
G01 X59.812654 Y75.271194 Z-0.125000
G01 X61.379649 Y75.358094 Z-0.125000
G01 X65.069184 Y76.020904 Z-0.125000
G01 X67.106264 Y76.206134 Z-0.125000
G01 X69.043623 Y76.158934 Z-0.125000
G01 X73.545164 Y75.736284 Z-0.125000
G01 X76.109320 Y75.590134 Z-0.125000
G01 X86.251990 Y75.541234 Z-0.125000
G01 X90.582584 Y75.652754 Z-0.125000
G01 X94.984378 Y76.145464 Z-0.125000
G01 X96.166748 Y76.212764 Z-0.125000
G01 X97.776473 Y76.076474 Z-0.125000
G01 X100.468849 Y75.389274 Z-0.125000
G01 X101.523003 Y75.269554 Z-0.125000
G01 X102.662613 Y75.446774 Z-0.125000
G01 X104.856413 Y76.367524 Z-0.125000
G01 X105.753853 Y76.532384 Z-0.125000
G01 X106.252453 Y76.475384 Z-0.125000
G01 X106.739953 Y76.318304 Z-0.125000
G01 X108.745383 Y75.118074 Z-0.125000
G01 X109.144243 Y74.968634 Z-0.125000
G01 X109.642823 Y74.904934 Z-0.125000
G01 X110.041713 Y74.971734 Z-0.125000
G01 X110.540293 Y75.201394 Z-0.125000
G01 X112.235483 Y76.563704 Z-0.125000
G01 X112.833783 Y76.881314 Z-0.125000
G01 X113.232663 Y76.941114 Z-0.125000
G01 X113.631523 Y76.867714 Z-0.125000
G01 X114.070283 Y76.637584 Z-0.125000
G01 X115.984863 Y74.776394 Z-0.125000
G01 X116.423623 Y74.527584 Z-0.125000
G01 X116.822483 Y74.445484 Z-0.125000
G01 X117.199193 Y74.518784 Z-0.125000
G01 X117.642373 Y74.793154 Z-0.125000
G01 X118.085573 Y75.214274 Z-0.125000
G01 X119.503773 Y76.912184 Z-0.125000
G01 X120.035603 Y77.325244 Z-0.125000
G01 X120.512013 Y77.446034 Z-0.125000
G01 X121.010623 Y77.317914 Z-0.125000
G01 X121.489253 Y76.940704 Z-0.125000
G01 X123.137923 Y74.805434 Z-0.125000
G01 X123.581103 Y74.334664 Z-0.125000
G01 X124.024283 Y74.010314 Z-0.125000
G01 X124.500713 Y73.892864 Z-0.125000
G01 X125.079073 Y74.060974 Z-0.125000
G01 X125.637503 Y74.538204 Z-0.125000
G01 X127.331153 Y76.801214 Z-0.125000
G01 X128.045203 Y77.585334 Z-0.125000
G01 X128.589133 Y77.938684 Z-0.125000
G01 X129.087713 Y78.053354 Z-0.125000
G01 X129.785743 Y77.860504 Z-0.125000
G01 X130.423913 Y77.374564 Z-0.125000
G01 X132.644303 Y74.757994 Z-0.125000
G01 X133.455323 Y73.967874 Z-0.125000
G01 X134.173303 Y73.499244 Z-0.125000
G01 X134.871323 Y73.271964 Z-0.125000
G01 X135.669073 Y73.272964 Z-0.125000
G01 X136.666233 Y73.590944 Z-0.125000
G01 X137.585843 Y74.087404 Z-0.125000
G01 X140.244983 Y75.762164 Z-0.125000
G01 X142.050973 Y76.611134 Z-0.125000
G01 X143.845883 Y77.094154 Z-0.125000
G01 X145.740513 Y77.250314 Z-0.125000
G01 X147.635143 Y77.074524 Z-0.125000
G01 X149.529773 Y76.550964 Z-0.125000
G01 X151.324673 Y75.719564 Z-0.125000
G01 X154.814793 Y73.692224 Z-0.125000
G01 X155.811953 Y73.331544 Z-0.125000
G01 X156.609703 Y73.240344 Z-0.125000
G01 X157.407443 Y73.365644 Z-0.125000
G01 X158.061153 Y73.703254 Z-0.125000
G01 X159.374593 Y74.849504 Z-0.125000
G01 X161.872553 Y77.388424 Z-0.125000
G01 X162.592753 Y77.871424 Z-0.125000
G01 X163.290753 Y78.052584 Z-0.125000
G01 X163.988773 Y77.904494 Z-0.125000
G01 X164.726693 Y77.400964 Z-0.125000
G01 X167.279453 Y74.485544 Z-0.125000
G00 Z3.000000

(End cutting path id: polyline714)


(Start cutting path id: polyline712)
(Change tool to Default tool)

G00 Z3.000000
G00 X10.922682 Y76.866754

G00 Z4.875000 (Fast pre-penetrate)
G01 Z-0.125000 F400.0(Penetrate)
G01 X13.615029 Y77.103004 Z-0.125000 F800.000000
G01 X18.700612 Y77.984834 Z-0.125000
G01 X20.951396 Y78.118764 Z-0.125000
G01 X23.287613 Y77.937874 Z-0.125000
G01 X28.273475 Y77.078424 Z-0.125000
G01 X30.965848 Y76.757774 Z-0.125000
G01 X34.512932 Y76.587494 Z-0.125000
G01 X38.957482 Y76.608494 Z-0.125000
G01 X42.931947 Y76.905014 Z-0.125000
G01 X48.615832 Y77.935774 Z-0.125000
G01 X50.809598 Y78.119504 Z-0.125000
G01 X52.704226 Y77.953634 Z-0.125000
G01 X56.593204 Y77.062384 Z-0.125000
G01 X58.445102 Y76.858394 Z-0.125000
G01 X60.083323 Y76.952094 Z-0.125000
G01 X63.872580 Y77.624694 Z-0.125000
G01 X65.852668 Y77.795404 Z-0.125000
G01 X67.761558 Y77.741504 Z-0.125000
G01 X72.248838 Y77.304934 Z-0.125000
G01 X74.855725 Y77.161164 Z-0.125000
G01 X87.619542 Y77.128664 Z-0.125000
G01 X91.152391 Y77.238754 Z-0.125000
G01 X95.283542 Y77.733264 Z-0.125000
G01 X96.508642 Y77.799764 Z-0.125000
G01 X97.975919 Y77.666704 Z-0.125000
G01 X100.668259 Y76.967044 Z-0.125000
G01 X101.750913 Y76.857504 Z-0.125000
G01 X102.762333 Y77.025434 Z-0.125000
G01 X104.956133 Y77.953624 Z-0.125000
G01 X105.853573 Y78.119644 Z-0.125000
G01 X106.751033 Y77.937984 Z-0.125000
G01 X108.867253 Y76.681104 Z-0.125000
G01 X109.343693 Y76.527114 Z-0.125000
G01 X109.742553 Y76.492414 Z-0.125000
G01 X110.141433 Y76.571514 Z-0.125000
G01 X110.640013 Y76.807874 Z-0.125000
G01 X112.335203 Y78.178444 Z-0.125000
G01 X112.833783 Y78.451544 Z-0.125000
G01 X113.232663 Y78.527644 Z-0.125000
G01 X113.631523 Y78.471044 Z-0.125000
G01 X114.070283 Y78.255304 Z-0.125000
G01 X116.064633 Y76.327784 Z-0.125000
G01 X116.523343 Y76.091254 Z-0.125000
G01 X116.922203 Y76.033754 Z-0.125000
G01 X117.376463 Y76.181554 Z-0.125000
G01 X117.886133 Y76.567444 Z-0.125000
G01 X119.282183 Y78.261314 Z-0.125000
G01 X119.769673 Y78.724624 Z-0.125000
G01 X120.124243 Y78.952484 Z-0.125000
G01 X120.512013 Y79.033284 Z-0.125000
G01 X121.010623 Y78.905944 Z-0.125000
G01 X121.489253 Y78.524944 Z-0.125000
G01 X123.137923 Y76.370224 Z-0.125000
G01 X123.581103 Y75.901174 Z-0.125000
G01 X124.024283 Y75.584074 Z-0.125000
G01 X124.500713 Y75.481044 Z-0.125000
G01 X124.999293 Y75.627384 Z-0.125000
G01 X125.557723 Y76.093024 Z-0.125000
G01 X127.269793 Y78.408444 Z-0.125000
G01 X127.900163 Y79.119354 Z-0.125000
G01 X128.489413 Y79.526044 Z-0.125000
G01 X128.987993 Y79.640984 Z-0.125000
G01 X129.586303 Y79.482254 Z-0.125000
G01 X130.264373 Y78.975954 Z-0.125000
G01 X132.469043 Y76.292414 Z-0.125000
G01 X133.295783 Y75.473184 Z-0.125000
G01 X134.173303 Y74.956924 Z-0.125000
G01 X134.971043 Y74.829824 Z-0.125000
G01 X135.669073 Y74.959284 Z-0.125000
G01 X136.522193 Y75.357354 Z-0.125000
G01 X139.890413 Y77.784634 Z-0.125000
G01 X141.751813 Y78.792114 Z-0.125000
G01 X142.848693 Y79.179094 Z-0.125000
G01 X143.945603 Y79.432594 Z-0.125000
G01 X145.170703 Y79.587534 Z-0.125000
G01 X146.538263 Y79.628334 Z-0.125000
G01 X148.831743 Y79.400554 Z-0.125000
G01 X149.928633 Y79.135414 Z-0.125000
G01 X150.925813 Y78.785554 Z-0.125000
G01 X152.831533 Y77.796274 Z-0.125000
G01 X156.465663 Y75.334144 Z-0.125000
G01 X157.407443 Y74.939144 Z-0.125000
G01 X158.205163 Y74.828054 Z-0.125000
G01 X159.102633 Y75.009104 Z-0.125000
G01 X160.011163 Y75.544014 Z-0.125000
G01 X161.115103 Y76.644284 Z-0.125000
G01 X163.073213 Y78.814264 Z-0.125000
G01 X163.645313 Y79.276274 Z-0.125000
G01 X164.188213 Y79.554114 Z-0.125000
G01 X164.886243 Y79.626314 Z-0.125000
G01 X165.584263 Y79.352544 Z-0.125000
G01 X166.322163 Y78.725774 Z-0.125000
G01 X167.279453 Y77.585604 Z-0.125000
G00 Z3.000000

(End cutting path id: polyline712)


(Start cutting path id: polyline710)
(Change tool to Default tool)

G00 Z3.000000
G00 X10.922682 Y78.577734

G00 Z4.875000 (Fast pre-penetrate)
G01 Z-0.125000 F400.0(Penetrate)
G01 X13.315891 Y78.445074 Z-0.125000 F800.000000
G01 X15.409936 Y78.525274 Z-0.125000
G01 X17.204869 Y78.758004 Z-0.125000
G01 X21.293264 Y79.490954 Z-0.125000
G01 X23.572517 Y79.696954 Z-0.125000
G01 X26.279151 Y79.609654 Z-0.125000
G01 X33.059919 Y78.858554 Z-0.125000
G01 X36.678229 Y78.724444 Z-0.125000
G01 X40.438990 Y78.884164 Z-0.125000
G01 X46.322317 Y79.588704 Z-0.125000
G01 X48.416389 Y79.707074 Z-0.125000
G01 X50.709876 Y79.530814 Z-0.125000
G01 X54.898019 Y78.648264 Z-0.125000
G01 X56.849612 Y78.445704 Z-0.125000
G01 X58.587554 Y78.545304 Z-0.125000
G01 X62.376811 Y79.209594 Z-0.125000
G01 X64.371160 Y79.382974 Z-0.125000
G01 X66.166067 Y79.334674 Z-0.125000
G01 X70.653348 Y78.883664 Z-0.125000
G01 X73.260261 Y78.738964 Z-0.125000
G01 X82.491229 Y78.788464 Z-0.125000
G01 X88.873138 Y78.715964 Z-0.125000
G01 X91.793423 Y78.825684 Z-0.125000
G01 X95.482959 Y79.300534 Z-0.125000
G01 X96.850510 Y79.387634 Z-0.125000
G01 X98.275049 Y79.250684 Z-0.125000
G01 X100.867709 Y78.558694 Z-0.125000
G01 X101.864873 Y78.443544 Z-0.125000
G01 X102.862063 Y78.586074 Z-0.125000
G01 X105.055823 Y79.515104 Z-0.125000
G01 X106.053013 Y79.704574 Z-0.125000
G01 X106.950453 Y79.503044 Z-0.125000
G01 X108.955893 Y78.291114 Z-0.125000
G01 X109.443413 Y78.121014 Z-0.125000
G01 X109.842273 Y78.078014 Z-0.125000
G01 X110.340853 Y78.185164 Z-0.125000
G01 X110.817283 Y78.426444 Z-0.125000
G01 X112.678683 Y79.909724 Z-0.125000
G01 X113.033223 Y80.066594 Z-0.125000
G01 X113.432083 Y80.112994 Z-0.125000
G01 X113.830973 Y80.032194 Z-0.125000
G01 X114.185513 Y79.835604 Z-0.125000
G01 X114.701213 Y79.405864 Z-0.125000
G01 X116.064633 Y77.993204 Z-0.125000
G01 X116.523343 Y77.716904 Z-0.125000
G01 X116.922203 Y77.618004 Z-0.125000
G01 X117.376463 Y77.721374 Z-0.125000
G01 X117.819673 Y78.009434 Z-0.125000
G01 X119.734223 Y80.209494 Z-0.125000
G01 X120.133103 Y80.504394 Z-0.125000
G01 X120.611733 Y80.619944 Z-0.125000
G01 X121.010623 Y80.533044 Z-0.125000
G01 X121.409483 Y80.259974 Z-0.125000
G01 X121.931083 Y79.708154 Z-0.125000
G01 X123.403833 Y77.724304 Z-0.125000
G01 X123.962233 Y77.238774 Z-0.125000
G01 X124.500713 Y77.068694 Z-0.125000
G01 X125.079073 Y77.230384 Z-0.125000
G01 X125.637503 Y77.717534 Z-0.125000
G01 X127.331153 Y80.041184 Z-0.125000
G01 X127.972683 Y80.758704 Z-0.125000
G01 X128.489413 Y81.108964 Z-0.125000
G01 X128.987993 Y81.228454 Z-0.125000
G01 X129.586303 Y81.064934 Z-0.125000
G01 X130.184603 Y80.620654 Z-0.125000
G01 X130.782903 Y79.966944 Z-0.125000
G01 X132.396513 Y77.875964 Z-0.125000
G01 X133.242603 Y77.019884 Z-0.125000
G01 X133.973853 Y76.568924 Z-0.125000
G01 X134.771603 Y76.415304 Z-0.125000
G01 X135.469623 Y76.548844 Z-0.125000
G01 X136.344923 Y76.995594 Z-0.125000
G01 X139.801783 Y79.745464 Z-0.125000
G01 X140.776793 Y80.365754 Z-0.125000
G01 X141.751813 Y80.842874 Z-0.125000
G01 X142.848693 Y81.220564 Z-0.125000
G01 X144.145023 Y81.492184 Z-0.125000
G01 X145.626553 Y81.641044 Z-0.125000
G01 X147.222023 Y81.674744 Z-0.125000
G01 X148.703533 Y81.606544 Z-0.125000
G01 X150.028353 Y81.440194 Z-0.125000
G01 X151.224953 Y81.166324 Z-0.125000
G01 X152.321863 Y80.775774 Z-0.125000
G01 X153.274713 Y80.309024 Z-0.125000
G01 X154.249723 Y79.703924 Z-0.125000
G01 X157.883853 Y76.978104 Z-0.125000
G01 X158.803473 Y76.546884 Z-0.125000
G01 X159.601213 Y76.416204 Z-0.125000
G01 X160.498683 Y76.603854 Z-0.125000
G01 X161.376193 Y77.148444 Z-0.125000
G01 X162.202943 Y77.944654 Z-0.125000
G01 X164.088493 Y80.141514 Z-0.125000
G01 X164.646923 Y80.670944 Z-0.125000
G01 X165.185403 Y81.030014 Z-0.125000
G01 X165.683983 Y81.206544 Z-0.125000
G01 X166.182563 Y81.202544 Z-0.125000
G01 X166.659003 Y81.035114 Z-0.125000
G01 X167.279453 Y80.584424 Z-0.125000
G00 Z3.000000

(End cutting path id: polyline710)


(Start cutting path id: polyline708)
(Change tool to Default tool)

G00 Z3.000000
G00 X10.922682 Y80.563384

G00 Z4.875000 (Fast pre-penetrate)
G01 Z-0.125000 F400.0(Penetrate)
G01 X14.711939 Y80.124074 Z-0.125000 F800.000000
G01 X17.190608 Y80.036274 Z-0.125000
G01 X19.298914 Y80.195444 Z-0.125000
G01 X24.384497 Y81.029204 Z-0.125000
G01 X26.991410 Y81.267804 Z-0.125000
G01 X29.384619 Y81.279204 Z-0.125000
G01 X36.906167 Y81.009064 Z-0.125000
G01 X45.225434 Y81.294464 Z-0.125000
G01 X48.216946 Y81.100974 Z-0.125000
G01 X53.003391 Y80.214964 Z-0.125000
G01 X54.912253 Y80.034624 Z-0.125000
G01 X56.792647 Y80.129624 Z-0.125000
G01 X60.781347 Y80.806164 Z-0.125000
G01 X62.775696 Y80.971714 Z-0.125000
G01 X64.570603 Y80.917114 Z-0.125000
G01 X68.958162 Y80.458934 Z-0.125000
G01 X71.550814 Y80.317724 Z-0.125000
G01 X81.921422 Y80.449754 Z-0.125000
G01 X89.784839 Y80.303644 Z-0.125000
G01 X92.391726 Y80.405724 Z-0.125000
G01 X95.981566 Y80.894914 Z-0.125000
G01 X97.192405 Y80.974814 Z-0.125000
G01 X98.673909 Y80.828284 Z-0.125000
G01 X100.967433 Y80.189984 Z-0.125000
G01 X102.092813 Y80.032604 Z-0.125000
G01 X103.161193 Y80.189004 Z-0.125000
G01 X105.354993 Y81.126364 Z-0.125000
G01 X106.252453 Y81.291784 Z-0.125000
G01 X107.149893 Y81.092584 Z-0.125000
G01 X109.044523 Y79.935454 Z-0.125000
G01 X109.543103 Y79.730024 Z-0.125000
G01 X109.941993 Y79.667124 Z-0.125000
G01 X110.340853 Y79.713824 Z-0.125000
G01 X110.817283 Y79.902054 Z-0.125000
G01 X112.767323 Y81.448324 Z-0.125000
G01 X113.232663 Y81.655154 Z-0.125000
G01 X113.631523 Y81.702454 Z-0.125000
G01 X114.096873 Y81.576044 Z-0.125000
G01 X114.628693 Y81.216524 Z-0.125000
G01 X116.323903 Y79.517924 Z-0.125000
G01 X116.722763 Y79.286174 Z-0.125000
G01 X117.121643 Y79.206574 Z-0.125000
G01 X117.620223 Y79.349184 Z-0.125000
G01 X118.037213 Y79.645354 Z-0.125000
G01 X119.973563 Y81.877144 Z-0.125000
G01 X120.412293 Y82.140304 Z-0.125000
G01 X120.811183 Y82.209104 Z-0.125000
G01 X121.276533 Y82.058104 Z-0.125000
G01 X121.869723 Y81.546214 Z-0.125000
G01 X123.281093 Y79.626164 Z-0.125000
G01 X123.802693 Y79.059454 Z-0.125000
G01 X124.201583 Y78.769604 Z-0.125000
G01 X124.700163 Y78.657024 Z-0.125000
G01 X125.238643 Y78.834874 Z-0.125000
G01 X125.858403 Y79.395154 Z-0.125000
G01 X127.335543 Y81.471554 Z-0.125000
G01 X128.045203 Y82.307474 Z-0.125000
G01 X128.589133 Y82.691124 Z-0.125000
G01 X129.087713 Y82.815714 Z-0.125000
G01 X129.686023 Y82.653654 Z-0.125000
G01 X130.344143 Y82.139304 Z-0.125000
G01 X132.511343 Y79.392964 Z-0.125000
G01 X133.295783 Y78.595104 Z-0.125000
G01 X134.073583 Y78.125074 Z-0.125000
G01 X134.771603 Y78.003024 Z-0.125000
G01 X135.469623 Y78.146484 Z-0.125000
G01 X136.256283 Y78.565894 Z-0.125000
G01 X139.801783 Y81.560424 Z-0.125000
G01 X140.865433 Y82.255564 Z-0.125000
G01 X141.851533 Y82.728744 Z-0.125000
G01 X143.048143 Y83.104214 Z-0.125000
G01 X144.444183 Y83.337764 Z-0.125000
G01 X146.082403 Y83.444234 Z-0.125000
G01 X148.475613 Y83.457134 Z-0.125000
G01 X150.128073 Y83.385634 Z-0.125000
G01 X151.424403 Y83.233394 Z-0.125000
G01 X152.621003 Y82.962274 Z-0.125000
G01 X153.618193 Y82.601434 Z-0.125000
G01 X154.604263 Y82.100054 Z-0.125000
G01 X155.579283 Y81.457984 Z-0.125000
G01 X159.124803 Y78.608024 Z-0.125000
G01 X160.000103 Y78.159984 Z-0.125000
G01 X160.897543 Y78.003344 Z-0.125000
G01 X161.783923 Y78.217394 Z-0.125000
G01 X162.638073 Y78.782254 Z-0.125000
G01 X163.423733 Y79.564784 Z-0.125000
G01 X165.248853 Y81.726804 Z-0.125000
G01 X165.949893 Y82.370954 Z-0.125000
G01 X166.581423 Y82.725894 Z-0.125000
G01 X167.279453 Y82.800594 Z-0.125000
G00 Z3.000000

(End cutting path id: polyline708)


(Start cutting path id: polyline706)
(Change tool to Default tool)

G00 Z3.000000
G00 X10.922682 Y82.487164

G00 Z4.875000 (Fast pre-penetrate)
G01 Z-0.125000 F400.0(Penetrate)
G01 X13.116448 Y82.295954 Z-0.125000 F800.000000
G01 X17.703450 Y81.724954 Z-0.125000
G01 X20.153650 Y81.620504 Z-0.125000
G01 X22.390173 Y81.763694 Z-0.125000
G01 X27.575451 Y82.503174 Z-0.125000
G01 X30.410276 Y82.765964 Z-0.125000
G01 X34.057081 Y82.873244 Z-0.125000
G01 X41.122779 Y82.857144 Z-0.125000
G01 X45.025991 Y82.636324 Z-0.125000
G01 X50.809598 Y81.768494 Z-0.125000
G01 X53.088851 Y81.618794 Z-0.125000
G01 X54.898019 Y81.735124 Z-0.125000
G01 X58.886718 Y82.388864 Z-0.125000
G01 X60.952268 Y82.559144 Z-0.125000
G01 X62.775696 Y82.502144 Z-0.125000
G01 X67.063534 Y82.040894 Z-0.125000
G01 X69.499473 Y81.902914 Z-0.125000
G01 X81.351589 Y82.130244 Z-0.125000
G01 X90.810496 Y81.891194 Z-0.125000
G01 X93.089749 Y81.992314 Z-0.125000
G01 X96.480147 Y82.482694 Z-0.125000
G01 X97.762212 Y82.561894 Z-0.125000
G01 X98.973079 Y82.434474 Z-0.125000
G01 X101.466013 Y81.740554 Z-0.125000
G01 X102.463203 Y81.618794 Z-0.125000
G01 X103.560083 Y81.803704 Z-0.125000
G01 X105.654153 Y82.725464 Z-0.125000
G01 X106.551593 Y82.881564 Z-0.125000
G01 X107.449063 Y82.667364 Z-0.125000
G01 X109.443413 Y81.450094 Z-0.125000
G01 X109.842273 Y81.301684 Z-0.125000
G01 X110.241133 Y81.256984 Z-0.125000
G01 X110.640013 Y81.311684 Z-0.125000
G01 X111.083193 Y81.509994 Z-0.125000
G01 X112.953453 Y83.008064 Z-0.125000
G01 X113.432083 Y83.233094 Z-0.125000
G01 X113.830973 Y83.294594 Z-0.125000
G01 X114.229833 Y83.202294 Z-0.125000
G01 X114.708483 Y82.929164 Z-0.125000
G01 X116.490083 Y81.153994 Z-0.125000
G01 X116.933293 Y80.874204 Z-0.125000
G01 X117.321063 Y80.799204 Z-0.125000
G01 X117.719943 Y80.874004 Z-0.125000
G01 X118.138753 Y81.132054 Z-0.125000
G01 X118.683873 Y81.676914 Z-0.125000
G01 X120.067833 Y83.355054 Z-0.125000
G01 X120.611733 Y83.718144 Z-0.125000
G01 X121.010623 Y83.801844 Z-0.125000
G01 X121.453803 Y83.665584 Z-0.125000
G01 X121.941293 Y83.293844 Z-0.125000
G01 X123.403833 Y81.344944 Z-0.125000
G01 X124.056533 Y80.607734 Z-0.125000
G01 X124.500713 Y80.325824 Z-0.125000
G01 X124.899573 Y80.239524 Z-0.125000
G01 X125.442503 Y80.419684 Z-0.125000
G01 X125.996483 Y80.894904 Z-0.125000
G01 X128.190253 Y83.831514 Z-0.125000
G01 X128.810723 Y84.289134 Z-0.125000
G01 X129.287163 Y84.400254 Z-0.125000
G01 X129.945283 Y84.212164 Z-0.125000
G01 X130.583483 Y83.686864 Z-0.125000
G01 X132.710793 Y80.949724 Z-0.125000
G01 X133.455323 Y80.187374 Z-0.125000
G01 X134.173303 Y79.734914 Z-0.125000
G01 X134.871323 Y79.590634 Z-0.125000
G01 X135.569343 Y79.723214 Z-0.125000
G01 X136.344923 Y80.139194 Z-0.125000
G01 X139.996783 Y83.332794 Z-0.125000
G01 X141.053793 Y84.026694 Z-0.125000
G01 X142.150703 Y84.529644 Z-0.125000
G01 X143.447003 Y84.878144 Z-0.125000
G01 X144.843043 Y85.043274 Z-0.125000
G01 X150.299023 Y85.088874 Z-0.125000
G01 X151.823253 Y85.018674 Z-0.125000
G01 X152.920163 Y84.875954 Z-0.125000
G01 X154.017053 Y84.604284 Z-0.125000
G01 X155.014213 Y84.208524 Z-0.125000
G01 X155.933853 Y83.697824 Z-0.125000
G01 X156.820203 Y83.073354 Z-0.125000
G01 X159.302073 Y80.927904 Z-0.125000
G01 X160.277093 Y80.183894 Z-0.125000
G01 X161.196703 Y79.718704 Z-0.125000
G01 X161.994453 Y79.592044 Z-0.125000
G01 X162.792163 Y79.774134 Z-0.125000
G01 X163.689633 Y80.357374 Z-0.125000
G01 X164.420893 Y81.082864 Z-0.125000
G01 X166.348753 Y83.371804 Z-0.125000
G01 X167.279453 Y84.150894 Z-0.125000
G00 Z3.000000

(End cutting path id: polyline706)


(Start cutting path id: polyline704)
(Change tool to Default tool)

G00 Z3.000000
G00 X10.922682 Y84.137374

G00 Z4.875000 (Fast pre-penetrate)
G01 Z-0.125000 F400.0(Penetrate)
G01 X14.683443 Y84.048874 Z-0.125000 F800.000000
G01 X20.395823 Y83.360274 Z-0.125000
G01 X22.660815 Y83.212314 Z-0.125000
G01 X25.581128 Y83.307014 Z-0.125000
G01 X32.803512 Y84.010404 Z-0.125000
G01 X37.134079 Y84.146614 Z-0.125000
G01 X41.692585 Y83.988504 Z-0.125000
G01 X48.117224 Y83.315134 Z-0.125000
G01 X50.353747 Y83.206204 Z-0.125000
G01 X52.504810 Y83.324954 Z-0.125000
G01 X56.892369 Y83.990804 Z-0.125000
G01 X58.900953 Y84.146274 Z-0.125000
G01 X60.781347 Y84.089374 Z-0.125000
G01 X65.069184 Y83.621564 Z-0.125000
G01 X67.448159 Y83.486864 Z-0.125000
G01 X69.841368 Y83.504964 Z-0.125000
G01 X76.679127 Y83.764864 Z-0.125000
G01 X80.895739 Y83.813664 Z-0.125000
G01 X85.226333 Y83.750064 Z-0.125000
G01 X91.722198 Y83.478764 Z-0.125000
G01 X93.787773 Y83.578364 Z-0.125000
G01 X96.978727 Y84.068024 Z-0.125000
G01 X98.218059 Y84.149024 Z-0.125000
G01 X99.471659 Y84.010064 Z-0.125000
G01 X101.765173 Y83.346204 Z-0.125000
G01 X102.762333 Y83.207194 Z-0.125000
G01 X103.759503 Y83.347104 Z-0.125000
G01 X105.853573 Y84.266184 Z-0.125000
G01 X106.850763 Y84.467004 Z-0.125000
G01 X107.748203 Y84.257004 Z-0.125000
G01 X109.665003 Y83.068704 Z-0.125000
G01 X110.540293 Y82.840134 Z-0.125000
G01 X110.939153 Y82.905634 Z-0.125000
G01 X111.437733 Y83.130954 Z-0.125000
G01 X113.121863 Y84.508614 Z-0.125000
G01 X113.653703 Y84.806054 Z-0.125000
G01 X114.030383 Y84.877254 Z-0.125000
G01 X114.429273 Y84.821254 Z-0.125000
G01 X114.868033 Y84.602974 Z-0.125000
G01 X116.782613 Y82.723274 Z-0.125000
G01 X117.221343 Y82.467894 Z-0.125000
G01 X117.620223 Y82.383194 Z-0.125000
G01 X118.085573 Y82.500034 Z-0.125000
G01 X118.617393 Y82.891094 Z-0.125000
G01 X120.013433 Y84.587764 Z-0.125000
G01 X120.478783 Y85.041674 Z-0.125000
G01 X120.921963 Y85.324124 Z-0.125000
G01 X121.309763 Y85.382224 Z-0.125000
G01 X121.808343 Y85.221464 Z-0.125000
G01 X122.243473 Y84.855674 Z-0.125000
G01 X124.201583 Y82.333504 Z-0.125000
G01 X124.733393 Y81.936154 Z-0.125000
G01 X125.198743 Y81.829184 Z-0.125000
G01 X125.697323 Y81.982534 Z-0.125000
G01 X126.232173 Y82.428434 Z-0.125000
G01 X128.006153 Y84.868164 Z-0.125000
G01 X128.589133 Y85.514484 Z-0.125000
G01 X129.087713 Y85.867204 Z-0.125000
G01 X129.586303 Y85.988224 Z-0.125000
G01 X130.140283 Y85.850034 Z-0.125000
G01 X130.801053 Y85.354364 Z-0.125000
G01 X131.503943 Y84.535474 Z-0.125000
G01 X132.915343 Y82.638304 Z-0.125000
G01 X133.701923 Y81.806114 Z-0.125000
G01 X134.483523 Y81.309064 Z-0.125000
G01 X135.170463 Y81.179444 Z-0.125000
G01 X135.768763 Y81.287684 Z-0.125000
G01 X136.522193 Y81.671994 Z-0.125000
G01 X137.284483 Y82.265244 Z-0.125000
G01 X139.278833 Y84.157574 Z-0.125000
G01 X140.333623 Y85.043584 Z-0.125000
G01 X141.397273 Y85.735434 Z-0.125000
G01 X142.549563 Y86.239494 Z-0.125000
G01 X143.646443 Y86.514694 Z-0.125000
G01 X145.056723 Y86.662534 Z-0.125000
G01 X151.894483 Y86.681234 Z-0.125000
G01 X153.219303 Y86.608834 Z-0.125000
G01 X154.216493 Y86.458784 Z-0.125000
G01 X155.213653 Y86.183564 Z-0.125000
G01 X156.111123 Y85.801484 Z-0.125000
G01 X156.908843 Y85.343254 Z-0.125000
G01 X157.786353 Y84.712694 Z-0.125000
G01 X161.163443 Y81.820454 Z-0.125000
G01 X162.094143 Y81.324154 Z-0.125000
G01 X162.891893 Y81.178704 Z-0.125000
G01 X163.290753 Y81.219804 Z-0.125000
G01 X163.789353 Y81.387974 Z-0.125000
G01 X164.646923 Y81.963994 Z-0.125000
G01 X165.393893 Y82.715624 Z-0.125000
G01 X167.279453 Y84.952734 Z-0.125000
G00 Z3.000000

(End cutting path id: polyline704)


(Start cutting path id: polyline702)
(Change tool to Default tool)

G00 Z3.000000
G00 X10.922682 Y85.536784

G00 Z4.875000 (Fast pre-penetrate)
G01 Z-0.125000 F400.0(Penetrate)
G01 X14.341548 Y85.724054 Z-0.125000 F800.000000
G01 X16.848740 Y85.701654 Z-0.125000
G01 X18.999776 Y85.529784 Z-0.125000
G01 X23.786194 Y84.953234 Z-0.125000
G01 X26.421603 Y84.801174 Z-0.125000
G01 X28.700856 Y84.818774 Z-0.125000
G01 X34.171063 Y85.073544 Z-0.125000
G01 X37.248035 Y85.131844 Z-0.125000
G01 X46.934881 Y84.793784 Z-0.125000
G01 X49.712715 Y84.929914 Z-0.125000
G01 X54.598854 Y85.591694 Z-0.125000
G01 X56.621700 Y85.733614 Z-0.125000
G01 X58.673014 Y85.669514 Z-0.125000
G01 X62.975113 Y85.200084 Z-0.125000
G01 X65.282862 Y85.071814 Z-0.125000
G01 X67.562115 Y85.098814 Z-0.125000
G01 X74.513830 Y85.410234 Z-0.125000
G01 X80.325932 Y85.476934 Z-0.125000
G01 X85.796139 Y85.404534 Z-0.125000
G01 X92.633899 Y85.066074 Z-0.125000
G01 X94.485797 Y85.164474 Z-0.125000
G01 X97.577030 Y85.662094 Z-0.125000
G01 X98.673909 Y85.737394 Z-0.125000
G01 X99.870539 Y85.610764 Z-0.125000
G01 X102.263753 Y84.914994 Z-0.125000
G01 X103.260923 Y84.794294 Z-0.125000
G01 X104.258103 Y84.968594 Z-0.125000
G01 X106.352153 Y85.904134 Z-0.125000
G01 X107.249623 Y86.054444 Z-0.125000
G01 X108.147083 Y85.820054 Z-0.125000
G01 X109.842273 Y84.745664 Z-0.125000
G01 X110.440573 Y84.484704 Z-0.125000
G01 X110.839433 Y84.430804 Z-0.125000
G01 X111.615033 Y84.629424 Z-0.125000
G01 X112.315253 Y85.120864 Z-0.125000
G01 X113.565033 Y86.178724 Z-0.125000
G01 X114.030383 Y86.402614 Z-0.125000
G01 X114.429273 Y86.467014 Z-0.125000
G01 X114.805983 Y86.396114 Z-0.125000
G01 X115.249163 Y86.148384 Z-0.125000
G01 X116.949403 Y84.446774 Z-0.125000
G01 X117.465103 Y84.093204 Z-0.125000
G01 X117.919363 Y83.969564 Z-0.125000
G01 X118.318253 Y84.046164 Z-0.125000
G01 X118.762433 Y84.305634 Z-0.125000
G01 X120.720533 Y86.550254 Z-0.125000
G01 X121.110323 Y86.833544 Z-0.125000
G01 X121.608923 Y86.973454 Z-0.125000
G01 X122.074273 Y86.851084 Z-0.125000
G01 X122.672573 Y86.367564 Z-0.125000
G01 X124.078833 Y84.472404 Z-0.125000
G01 X124.709203 Y83.781844 Z-0.125000
G01 X125.099023 Y83.520094 Z-0.125000
G01 X125.597603 Y83.419104 Z-0.125000
G01 X126.062953 Y83.569754 Z-0.125000
G01 X126.656143 Y84.071374 Z-0.125000
G01 X128.190253 Y86.198334 Z-0.125000
G01 X128.921533 Y87.066694 Z-0.125000
G01 X129.519833 Y87.478124 Z-0.125000
G01 X129.985183 Y87.576724 Z-0.125000
G01 X130.663263 Y87.363764 Z-0.125000
G01 X131.301433 Y86.819884 Z-0.125000
G01 X133.375553 Y84.148594 Z-0.125000
G01 X134.093533 Y83.400514 Z-0.125000
G01 X134.871323 Y82.901694 Z-0.125000
G01 X135.569343 Y82.765094 Z-0.125000
G01 X136.256283 Y82.905314 Z-0.125000
G01 X137.045163 Y83.343704 Z-0.125000
G01 X140.794523 Y86.695074 Z-0.125000
G01 X141.951253 Y87.427204 Z-0.125000
G01 X143.048143 Y87.881284 Z-0.125000
G01 X144.145023 Y88.137084 Z-0.125000
G01 X145.398623 Y88.256124 Z-0.125000
G01 X152.806183 Y88.270524 Z-0.125000
G01 X154.116773 Y88.198624 Z-0.125000
G01 X155.113933 Y88.040934 Z-0.125000
G01 X156.011403 Y87.786904 Z-0.125000
G01 X156.908843 Y87.402304 Z-0.125000
G01 X157.706583 Y86.940214 Z-0.125000
G01 X158.584103 Y86.304584 Z-0.125000
G01 X161.136853 Y84.043844 Z-0.125000
G01 X161.961193 Y83.403424 Z-0.125000
G01 X162.891893 Y82.909424 Z-0.125000
G01 X163.689633 Y82.766014 Z-0.125000
G01 X164.487383 Y82.932414 Z-0.125000
G01 X165.285103 Y83.416834 Z-0.125000
G01 X166.046593 Y84.136264 Z-0.125000
G01 X167.279453 Y85.601894 Z-0.125000
G00 Z3.000000

(End cutting path id: polyline702)


(Start cutting path id: polyline700)
(Change tool to Default tool)

G00 Z3.000000
G00 X10.922682 Y86.857874

G00 Z4.875000 (Fast pre-penetrate)
G01 Z-0.125000 F400.0(Penetrate)
G01 X16.278907 Y87.255194 Z-0.125000 F800.000000
G01 X19.014011 Y87.321894 Z-0.125000
G01 X21.392985 Y87.205604 Z-0.125000
G01 X26.777732 Y86.643524 Z-0.125000
G01 X29.726513 Y86.447254 Z-0.125000
G01 X42.034480 Y86.387954 Z-0.125000
G01 X46.023180 Y86.541384 Z-0.125000
G01 X52.105924 Y87.212184 Z-0.125000
G01 X54.456403 Y87.325024 Z-0.125000
G01 X56.393761 Y87.243124 Z-0.125000
G01 X60.781347 Y86.774044 Z-0.125000
G01 X63.003609 Y86.657544 Z-0.125000
G01 X65.168906 Y86.690444 Z-0.125000
G01 X72.348559 Y87.043954 Z-0.125000
G01 X79.984037 Y87.098754 Z-0.125000
G01 X86.707841 Y87.034754 Z-0.125000
G01 X93.545600 Y86.653804 Z-0.125000
G01 X95.183821 Y86.751904 Z-0.125000
G01 X98.075609 Y87.240424 Z-0.125000
G01 X99.243749 Y87.324524 Z-0.125000
G01 X100.369129 Y87.197814 Z-0.125000
G01 X102.562893 Y86.537184 Z-0.125000
G01 X103.659803 Y86.382764 Z-0.125000
G01 X104.656963 Y86.553664 Z-0.125000
G01 X106.551593 Y87.420224 Z-0.125000
G01 X107.548783 Y87.643294 Z-0.125000
G01 X108.446223 Y87.447584 Z-0.125000
G01 X110.374083 Y86.246824 Z-0.125000
G01 X110.839433 Y86.070534 Z-0.125000
G01 X111.238313 Y86.016734 Z-0.125000
G01 X111.637173 Y86.076534 Z-0.125000
G01 X112.135753 Y86.306244 Z-0.125000
G01 X113.830973 Y87.694044 Z-0.125000
G01 X114.329553 Y87.968464 Z-0.125000
G01 X114.728413 Y88.054664 Z-0.125000
G01 X115.127293 Y87.995964 Z-0.125000
G01 X115.585973 Y87.770114 Z-0.125000
G01 X117.500553 Y85.895624 Z-0.125000
G01 X117.919363 Y85.645914 Z-0.125000
G01 X118.318253 Y85.560714 Z-0.125000
G01 X118.706023 Y85.627914 Z-0.125000
G01 X119.149223 Y85.906144 Z-0.125000
G01 X119.614573 Y86.351704 Z-0.125000
G01 X121.010623 Y88.040644 Z-0.125000
G01 X121.542433 Y88.441914 Z-0.125000
G01 X122.007783 Y88.560664 Z-0.125000
G01 X122.506363 Y88.422094 Z-0.125000
G01 X122.968703 Y88.061284 Z-0.125000
G01 X124.999293 Y85.485694 Z-0.125000
G01 X125.531133 Y85.103034 Z-0.125000
G01 X125.996483 Y85.004334 Z-0.125000
G01 X126.495063 Y85.160524 Z-0.125000
G01 X127.029923 Y85.601904 Z-0.125000
G01 X128.803903 Y88.012014 Z-0.125000
G01 X129.386853 Y88.660534 Z-0.125000
G01 X129.885463 Y89.023224 Z-0.125000
G01 X130.483763 Y89.163644 Z-0.125000
G01 X131.082063 Y88.975024 Z-0.125000
G01 X131.671293 Y88.517104 Z-0.125000
G01 X132.301693 Y87.800774 Z-0.125000
G01 X133.713053 Y85.922604 Z-0.125000
G01 X134.572163 Y85.004654 Z-0.125000
G01 X135.369903 Y84.491734 Z-0.125000
G01 X136.067933 Y84.353594 Z-0.125000
G01 X136.765953 Y84.491044 Z-0.125000
G01 X137.497203 Y84.880384 Z-0.125000
G01 X138.241773 Y85.462254 Z-0.125000
G01 X140.236123 Y87.342914 Z-0.125000
G01 X141.308633 Y88.240724 Z-0.125000
G01 X142.460923 Y88.976344 Z-0.125000
G01 X143.546723 Y89.437384 Z-0.125000
G01 X144.643633 Y89.705084 Z-0.125000
G01 X145.968423 Y89.840574 Z-0.125000
G01 X152.920163 Y89.860674 Z-0.125000
G01 X154.401673 Y89.806274 Z-0.125000
G01 X155.512823 Y89.653054 Z-0.125000
G01 X156.509983 Y89.387624 Z-0.125000
G01 X157.507173 Y88.966704 Z-0.125000
G01 X158.327063 Y88.491004 Z-0.125000
G01 X159.213443 Y87.849344 Z-0.125000
G01 X162.333483 Y85.160194 Z-0.125000
G01 X163.113473 Y84.670024 Z-0.125000
G01 X163.789353 Y84.415734 Z-0.125000
G01 X164.686793 Y84.387934 Z-0.125000
G01 X165.484543 Y84.695274 Z-0.125000
G01 X166.322163 Y85.339454 Z-0.125000
G01 X167.279453 Y86.375214 Z-0.125000
G00 Z3.000000

(End cutting path id: polyline700)


(Start cutting path id: polyline698)
(Change tool to Default tool)

G00 Z3.000000
G00 X10.922682 Y88.269664

G00 Z4.875000 (Fast pre-penetrate)
G01 Z-0.125000 F400.0(Penetrate)
G01 X13.999654 Y88.410424 Z-0.125000 F800.000000
G01 X19.469861 Y88.836874 Z-0.125000
G01 X22.091009 Y88.912374 Z-0.125000
G01 X24.826113 Y88.815574 Z-0.125000
G01 X32.575573 Y88.260504 Z-0.125000
G01 X38.729570 Y88.175604 Z-0.125000
G01 X42.604287 Y88.315804 Z-0.125000
G01 X48.872239 Y88.818114 Z-0.125000
G01 X51.379405 Y88.912614 Z-0.125000
G01 X53.544702 Y88.833614 Z-0.125000
G01 X58.288416 Y88.357414 Z-0.125000
G01 X60.496417 Y88.244854 Z-0.125000
G01 X62.661714 Y88.280354 Z-0.125000
G01 X70.297218 Y88.665954 Z-0.125000
G01 X84.770482 Y88.686954 Z-0.125000
G01 X88.531243 Y88.616154 Z-0.125000
G01 X94.343345 Y88.241354 Z-0.125000
G01 X95.881844 Y88.341054 Z-0.125000
G01 X98.574219 Y88.819184 Z-0.125000
G01 X99.699599 Y88.911784 Z-0.125000
G01 X100.867709 Y88.784834 Z-0.125000
G01 X103.161193 Y88.090014 Z-0.125000
G01 X104.158383 Y87.969494 Z-0.125000
G01 X105.255273 Y88.196344 Z-0.125000
G01 X107.249623 Y89.109714 Z-0.125000
G01 X108.047363 Y89.229444 Z-0.125000
G01 X108.944803 Y88.991204 Z-0.125000
G01 X110.640013 Y87.909754 Z-0.125000
G01 X111.238313 Y87.654164 Z-0.125000
G01 X111.637173 Y87.605764 Z-0.125000
G01 X112.412753 Y87.816924 Z-0.125000
G01 X114.362783 Y89.367464 Z-0.125000
G01 X114.828133 Y89.584134 Z-0.125000
G01 X115.227013 Y89.641434 Z-0.125000
G01 X115.603703 Y89.565334 Z-0.125000
G01 X116.046913 Y89.313294 Z-0.125000
G01 X117.747143 Y87.619904 Z-0.125000
G01 X118.262843 Y87.269144 Z-0.125000
G01 X118.717113 Y87.144814 Z-0.125000
G01 X119.115973 Y87.217114 Z-0.125000
G01 X119.560173 Y87.469134 Z-0.125000
G01 X121.590773 Y89.758464 Z-0.125000
G01 X122.007783 Y90.035384 Z-0.125000
G01 X122.506363 Y90.149684 Z-0.125000
G01 X122.960633 Y90.006914 Z-0.125000
G01 X123.536783 Y89.542174 Z-0.125000
G01 X124.937943 Y87.683264 Z-0.125000
G01 X125.579473 Y86.976664 Z-0.125000
G01 X125.996483 Y86.700044 Z-0.125000
G01 X126.495063 Y86.590824 Z-0.125000
G01 X127.037963 Y86.780684 Z-0.125000
G01 X127.591953 Y87.250644 Z-0.125000
G01 X129.320393 Y89.589534 Z-0.125000
G01 X129.874373 Y90.213684 Z-0.125000
G01 X130.406193 Y90.606534 Z-0.125000
G01 X130.982343 Y90.749864 Z-0.125000
G01 X131.558473 Y90.605004 Z-0.125000
G01 X132.311903 Y90.022384 Z-0.125000
G01 X134.372743 Y87.422034 Z-0.125000
G01 X135.224863 Y86.548144 Z-0.125000
G01 X135.990383 Y86.077664 Z-0.125000
G01 X136.765953 Y85.943304 Z-0.125000
G01 X137.364253 Y86.061944 Z-0.125000
G01 X138.117683 Y86.442414 Z-0.125000
G01 X138.879943 Y87.018284 Z-0.125000
G01 X141.929083 Y89.724174 Z-0.125000
G01 X143.081373 Y90.464744 Z-0.125000
G01 X144.244743 Y90.968774 Z-0.125000
G01 X145.441353 Y91.265744 Z-0.125000
G01 X146.766173 Y91.411024 Z-0.125000
G01 X152.806183 Y91.447324 Z-0.125000
G01 X154.401673 Y91.394024 Z-0.125000
G01 X155.612513 Y91.246284 Z-0.125000
G01 X156.709423 Y90.977674 Z-0.125000
G01 X157.706583 Y90.584534 Z-0.125000
G01 X158.592963 Y90.099794 Z-0.125000
G01 X159.461623 Y89.501774 Z-0.125000
G01 X162.847573 Y86.682034 Z-0.125000
G01 X163.490193 Y86.289764 Z-0.125000
G01 X164.088493 Y86.043114 Z-0.125000
G01 X164.886243 Y85.943314 Z-0.125000
G01 X165.683983 Y86.139504 Z-0.125000
G01 X166.481703 Y86.635414 Z-0.125000
G01 X167.279453 Y87.387624 Z-0.125000
G00 Z3.000000

(End cutting path id: polyline698)


(Start cutting path id: polyline696)
(Change tool to Default tool)

G00 Z3.000000
G00 X10.922682 Y89.840734

G00 Z4.875000 (Fast pre-penetrate)
G01 Z-0.125000 F400.0(Penetrate)
G01 X15.709100 Y89.899234 Z-0.125000 F800.000000
G01 X22.318947 Y90.380784 Z-0.125000
G01 X24.940069 Y90.490554 Z-0.125000
G01 X27.561216 Y90.481554 Z-0.125000
G01 X37.020123 Y90.215814 Z-0.125000
G01 X47.504687 Y90.500214 Z-0.125000
G01 X50.353747 Y90.409714 Z-0.125000
G01 X55.496321 Y89.942914 Z-0.125000
G01 X57.875296 Y89.831174 Z-0.125000
G01 X60.040566 Y89.870874 Z-0.125000
G01 X64.827011 Y90.171204 Z-0.125000
G01 X67.562115 Y90.263804 Z-0.125000
G01 X78.502530 Y90.194904 Z-0.125000
G01 X86.935779 Y90.274504 Z-0.125000
G01 X89.784839 Y90.206804 Z-0.125000
G01 X95.141090 Y89.829534 Z-0.125000
G01 X96.480147 Y89.920234 Z-0.125000
G01 X99.172519 Y90.411904 Z-0.125000
G01 X100.269399 Y90.500004 Z-0.125000
G01 X101.366293 Y90.374964 Z-0.125000
G01 X103.560083 Y89.697954 Z-0.125000
G01 X104.557243 Y89.558144 Z-0.125000
G01 X105.454713 Y89.700884 Z-0.125000
G01 X107.449063 Y90.610074 Z-0.125000
G01 X108.047363 Y90.787664 Z-0.125000
G01 X108.446223 Y90.816764 Z-0.125000
G01 X108.944803 Y90.743664 Z-0.125000
G01 X109.443413 Y90.544064 Z-0.125000
G01 X111.349103 Y89.352164 Z-0.125000
G01 X112.135753 Y89.192514 Z-0.125000
G01 X112.634363 Y89.312374 Z-0.125000
G01 X113.112993 Y89.569414 Z-0.125000
G01 X114.469143 Y90.722124 Z-0.125000
G01 X114.927853 Y91.025414 Z-0.125000
G01 X115.326713 Y91.195944 Z-0.125000
G01 X115.625873 Y91.228644 Z-0.125000
G01 X116.024733 Y91.156244 Z-0.125000
G01 X116.383723 Y90.981514 Z-0.125000
G01 X118.378073 Y89.064074 Z-0.125000
G01 X118.816833 Y88.815604 Z-0.125000
G01 X119.215693 Y88.733004 Z-0.125000
G01 X119.681043 Y88.843944 Z-0.125000
G01 X120.279343 Y89.279314 Z-0.125000
G01 X121.675393 Y90.949184 Z-0.125000
G01 X122.162913 Y91.409844 Z-0.125000
G01 X122.606083 Y91.676204 Z-0.125000
G01 X123.004943 Y91.731704 Z-0.125000
G01 X123.483603 Y91.587964 Z-0.125000
G01 X123.962233 Y91.199894 Z-0.125000
G01 X125.597603 Y89.098544 Z-0.125000
G01 X126.116133 Y88.565754 Z-0.125000
G01 X126.515013 Y88.289474 Z-0.125000
G01 X126.993643 Y88.181104 Z-0.125000
G01 X127.552073 Y88.341094 Z-0.125000
G01 X128.190253 Y88.885794 Z-0.125000
G01 X129.724383 Y90.951394 Z-0.125000
G01 X130.510963 Y91.845794 Z-0.125000
G01 X131.026663 Y92.200734 Z-0.125000
G01 X131.580653 Y92.339744 Z-0.125000
G01 X132.258723 Y92.152554 Z-0.125000
G01 X132.976693 Y91.579304 Z-0.125000
G01 X135.104003 Y88.951944 Z-0.125000
G01 X135.928333 Y88.134614 Z-0.125000
G01 X136.666233 Y87.683764 Z-0.125000
G01 X137.463973 Y87.529514 Z-0.125000
G01 X138.162003 Y87.662574 Z-0.125000
G01 X139.004063 Y88.096514 Z-0.125000
G01 X142.638193 Y91.128854 Z-0.125000
G01 X143.701843 Y91.823204 Z-0.125000
G01 X144.843043 Y92.358904 Z-0.125000
G01 X146.039653 Y92.711774 Z-0.125000
G01 X147.435703 Y92.922654 Z-0.125000
G01 X149.159383 Y93.012454 Z-0.125000
G01 X151.894483 Y93.024254 Z-0.125000
G01 X153.717883 Y92.976854 Z-0.125000
G01 X155.213653 Y92.836124 Z-0.125000
G01 X156.509983 Y92.564904 Z-0.125000
G01 X157.606863 Y92.178054 Z-0.125000
G01 X158.592963 Y91.681644 Z-0.125000
G01 X159.567983 Y91.048894 Z-0.125000
G01 X163.113473 Y88.228384 Z-0.125000
G01 X163.789353 Y87.840844 Z-0.125000
G01 X164.387663 Y87.617064 Z-0.125000
G01 X165.085683 Y87.529164 Z-0.125000
G01 X165.783703 Y87.654124 Z-0.125000
G01 X166.561503 Y88.053914 Z-0.125000
G01 X167.279453 Y88.646264 Z-0.125000
G00 Z3.000000

(End cutting path id: polyline696)


(Start cutting path id: polyline694)
(Change tool to Default tool)

G00 Z3.000000
G00 X10.922682 Y91.536524

G00 Z4.875000 (Fast pre-penetrate)
G01 Z-0.125000 F400.0(Penetrate)
G01 X17.304591 Y91.426724 Z-0.125000 F800.000000
G01 X28.586874 Y92.042644 Z-0.125000
G01 X41.236735 Y92.087444 Z-0.125000
G01 X46.137136 Y91.986374 Z-0.125000
G01 X52.519044 Y91.513064 Z-0.125000
G01 X54.798297 Y91.419564 Z-0.125000
G01 X57.191507 Y91.459964 Z-0.125000
G01 X62.091907 Y91.768284 Z-0.125000
G01 X64.713055 Y91.855584 Z-0.125000
G01 X77.704784 Y91.701144 Z-0.125000
G01 X88.531243 Y91.861984 Z-0.125000
G01 X90.924452 Y91.792584 Z-0.125000
G01 X94.485797 Y91.467704 Z-0.125000
G01 X95.824853 Y91.417104 Z-0.125000
G01 X97.178170 Y91.515804 Z-0.125000
G01 X99.770819 Y92.005714 Z-0.125000
G01 X100.839209 Y92.086714 Z-0.125000
G01 X101.864873 Y91.964524 Z-0.125000
G01 X104.058663 Y91.276324 Z-0.125000
G01 X105.055823 Y91.144084 Z-0.125000
G01 X105.953293 Y91.298494 Z-0.125000
G01 X107.947643 Y92.218264 Z-0.125000
G01 X108.845113 Y92.406034 Z-0.125000
G01 X109.742553 Y92.201274 Z-0.125000
G01 X111.637173 Y91.022104 Z-0.125000
G01 X112.135753 Y90.822114 Z-0.125000
G01 X112.534643 Y90.782314 Z-0.125000
G01 X113.033223 Y90.875614 Z-0.125000
G01 X113.476403 Y91.106994 Z-0.125000
G01 X115.337803 Y92.594454 Z-0.125000
G01 X115.725603 Y92.758734 Z-0.125000
G01 X116.124453 Y92.819034 Z-0.125000
G01 X116.523343 Y92.732334 Z-0.125000
G01 X117.094443 Y92.393714 Z-0.125000
G01 X118.472343 Y90.987354 Z-0.125000
G01 X118.971953 Y90.580764 Z-0.125000
G01 X119.326493 Y90.386954 Z-0.125000
G01 X119.714293 Y90.323354 Z-0.125000
G01 X120.212883 Y90.445164 Z-0.125000
G01 X120.691513 Y90.792724 Z-0.125000
G01 X122.606083 Y92.938604 Z-0.125000
G01 X123.104673 Y93.248164 Z-0.125000
G01 X123.503553 Y93.325964 Z-0.125000
G01 X124.002133 Y93.180074 Z-0.125000
G01 X124.491643 Y92.811594 Z-0.125000
G01 X126.594783 Y90.234574 Z-0.125000
G01 X127.126603 Y89.867894 Z-0.125000
G01 X127.591953 Y89.765734 Z-0.125000
G01 X128.190253 Y89.950384 Z-0.125000
G01 X128.668913 Y90.338764 Z-0.125000
G01 X129.172093 Y90.903364 Z-0.125000
G01 X130.522103 Y92.736684 Z-0.125000
G01 X131.163643 Y93.426934 Z-0.125000
G01 X131.780093 Y93.825104 Z-0.125000
G01 X132.278673 Y93.928314 Z-0.125000
G01 X132.976693 Y93.727494 Z-0.125000
G01 X133.614873 Y93.237804 Z-0.125000
G01 X135.901743 Y90.513264 Z-0.125000
G01 X136.726053 Y89.724244 Z-0.125000
G01 X137.563693 Y89.243654 Z-0.125000
G01 X138.361413 Y89.117954 Z-0.125000
G01 X139.059443 Y89.254484 Z-0.125000
G01 X139.890413 Y89.660294 Z-0.125000
G01 X143.613213 Y92.569944 Z-0.125000
G01 X144.588223 Y93.181634 Z-0.125000
G01 X145.640793 Y93.685564 Z-0.125000
G01 X146.837393 Y94.076224 Z-0.125000
G01 X148.233443 Y94.339484 Z-0.125000
G01 X149.843173 Y94.475684 Z-0.125000
G01 X151.780523 Y94.508184 Z-0.125000
G01 X153.603933 Y94.438284 Z-0.125000
G01 X155.014213 Y94.280804 Z-0.125000
G01 X156.310533 Y94.003094 Z-0.125000
G01 X157.507173 Y93.589074 Z-0.125000
G01 X158.504333 Y93.104914 Z-0.125000
G01 X159.479343 Y92.506004 Z-0.125000
G01 X163.024843 Y89.849594 Z-0.125000
G01 X163.789353 Y89.426624 Z-0.125000
G01 X164.387663 Y89.210274 Z-0.125000
G01 X165.085683 Y89.115974 Z-0.125000
G01 X165.783703 Y89.217894 Z-0.125000
G01 X166.481703 Y89.527514 Z-0.125000
G01 X167.279453 Y90.120414 Z-0.125000
G00 Z3.000000

(End cutting path id: polyline694)


(Start cutting path id: polyline692)
(Change tool to Default tool)

G00 Z3.000000
G00 X10.922682 Y93.274394

G00 Z4.875000 (Fast pre-penetrate)
G01 Z-0.125000 F400.0(Penetrate)
G01 X17.190608 Y93.041024 Z-0.125000 F800.000000
G01 X20.495545 Y93.007824 Z-0.125000
G01 X31.435960 Y93.473464 Z-0.125000
G01 X37.703886 Y93.544464 Z-0.125000
G01 X42.148436 Y93.449664 Z-0.125000
G01 X49.214134 Y93.070454 Z-0.125000
G01 X52.063194 Y93.003854 Z-0.125000
G01 X61.750013 Y93.444624 Z-0.125000
G01 X76.907066 Y93.218744 Z-0.125000
G01 X82.377273 Y93.260844 Z-0.125000
G01 X89.784839 Y93.449494 Z-0.125000
G01 X91.836154 Y93.383094 Z-0.125000
G01 X96.394660 Y93.003894 Z-0.125000
G01 X97.776473 Y93.103194 Z-0.125000
G01 X100.169679 Y93.572804 Z-0.125000
G01 X101.295063 Y93.674114 Z-0.125000
G01 X102.363483 Y93.549814 Z-0.125000
G01 X104.557243 Y92.859354 Z-0.125000
G01 X105.511673 Y92.733094 Z-0.125000
G01 X106.451873 Y92.902724 Z-0.125000
G01 X108.446223 Y93.819764 Z-0.125000
G01 X109.343693 Y93.990814 Z-0.125000
G01 X110.141433 Y93.811964 Z-0.125000
G01 X112.058213 Y92.619534 Z-0.125000
G01 X112.933503 Y92.365144 Z-0.125000
G01 X113.332393 Y92.416244 Z-0.125000
G01 X113.830973 Y92.622984 Z-0.125000
G01 X115.781003 Y94.155084 Z-0.125000
G01 X116.224183 Y94.358444 Z-0.125000
G01 X116.623043 Y94.400544 Z-0.125000
G01 X117.110563 Y94.282324 Z-0.125000
G01 X117.553733 Y93.995884 Z-0.125000
G01 X119.415133 Y92.207484 Z-0.125000
G01 X119.813993 Y91.991244 Z-0.125000
G01 X120.212883 Y91.904644 Z-0.125000
G01 X120.711463 Y92.027524 Z-0.125000
G01 X121.228163 Y92.377984 Z-0.125000
G01 X123.244293 Y94.595034 Z-0.125000
G01 X123.702973 Y94.846494 Z-0.125000
G01 X124.101853 Y94.912494 Z-0.125000
G01 X124.556123 Y94.780384 Z-0.125000
G01 X125.132253 Y94.347794 Z-0.125000
G01 X127.247483 Y91.791254 Z-0.125000
G01 X127.691673 Y91.489334 Z-0.125000
G01 X128.190253 Y91.350884 Z-0.125000
G01 X128.788553 Y91.512174 Z-0.125000
G01 X129.350603 Y91.942094 Z-0.125000
G01 X131.258493 Y94.363454 Z-0.125000
G01 X131.939633 Y95.060654 Z-0.125000
G01 X132.478113 Y95.396894 Z-0.125000
G01 X133.076413 Y95.514764 Z-0.125000
G01 X133.774443 Y95.299974 Z-0.125000
G01 X134.412613 Y94.818244 Z-0.125000
G01 X136.747833 Y92.126054 Z-0.125000
G01 X137.603573 Y91.331434 Z-0.125000
G01 X138.461133 Y90.846824 Z-0.125000
G01 X139.358603 Y90.704794 Z-0.125000
G01 X140.156353 Y90.865214 Z-0.125000
G01 X141.042703 Y91.288544 Z-0.125000
G01 X144.676863 Y93.894904 Z-0.125000
G01 X145.651873 Y94.465424 Z-0.125000
G01 X146.637953 Y94.922284 Z-0.125000
G01 X147.734863 Y95.294184 Z-0.125000
G01 X149.031193 Y95.577524 Z-0.125000
G01 X150.427233 Y95.737484 Z-0.125000
G01 X152.008463 Y95.784584 Z-0.125000
G01 X153.518473 Y95.712384 Z-0.125000
G01 X154.914513 Y95.525984 Z-0.125000
G01 X156.111123 Y95.245954 Z-0.125000
G01 X157.307723 Y94.825744 Z-0.125000
G01 X159.302073 Y93.773574 Z-0.125000
G01 X162.758933 Y91.403194 Z-0.125000
G01 X164.088493 Y90.812804 Z-0.125000
G01 X164.886243 Y90.702664 Z-0.125000
G01 X165.683983 Y90.824424 Z-0.125000
G01 X166.481703 Y91.193514 Z-0.125000
G01 X167.279453 Y91.794224 Z-0.125000
G00 Z3.000000

(End cutting path id: polyline692)


(Start cutting path id: polyline690)
(Change tool to Default tool)

G00 Z3.000000
G00 X10.922682 Y94.981134

G00 Z4.875000 (Fast pre-penetrate)
G01 Z-0.125000 F400.0(Penetrate)
G01 X22.774798 Y94.596464 Z-0.125000 F800.000000
G01 X36.222378 Y94.808784 Z-0.125000
G01 X47.732600 Y94.591114 Z-0.125000
G01 X50.695642 Y94.651814 Z-0.125000
G01 X58.673014 Y95.033104 Z-0.125000
G01 X68.815711 Y94.806404 Z-0.125000
G01 X76.223276 Y94.771804 Z-0.125000
G01 X83.402930 Y94.812704 Z-0.125000
G01 X90.924452 Y95.036454 Z-0.125000
G01 X92.747855 Y94.965554 Z-0.125000
G01 X96.964493 Y94.590954 Z-0.125000
G01 X98.275049 Y94.681754 Z-0.125000
G01 X100.767989 Y95.174964 Z-0.125000
G01 X101.750913 Y95.262864 Z-0.125000
G01 X102.862063 Y95.133934 Z-0.125000
G01 X104.956133 Y94.459644 Z-0.125000
G01 X105.953293 Y94.319674 Z-0.125000
G01 X106.850763 Y94.470964 Z-0.125000
G01 X108.845113 Y95.394014 Z-0.125000
G01 X109.742553 Y95.582134 Z-0.125000
G01 X110.640013 Y95.380784 Z-0.125000
G01 X112.634363 Y94.153964 Z-0.125000
G01 X113.033223 Y94.003764 Z-0.125000
G01 X113.432083 Y93.956964 Z-0.125000
G01 X113.830973 Y94.008464 Z-0.125000
G01 X114.274143 Y94.200424 Z-0.125000
G01 X116.144403 Y95.673544 Z-0.125000
G01 X116.623043 Y95.912094 Z-0.125000
G01 X117.021923 Y95.994794 Z-0.125000
G01 X117.420783 Y95.935094 Z-0.125000
G01 X117.899443 Y95.707364 Z-0.125000
G01 X119.893763 Y93.831074 Z-0.125000
G01 X120.312603 Y93.589664 Z-0.125000
G01 X120.811183 Y93.496564 Z-0.125000
G01 X121.276533 Y93.620754 Z-0.125000
G01 X121.880863 Y94.056814 Z-0.125000
G01 X123.270883 Y95.660324 Z-0.125000
G01 X123.802693 Y96.156394 Z-0.125000
G01 X124.201583 Y96.404144 Z-0.125000
G01 X124.700163 Y96.496244 Z-0.125000
G01 X125.176563 Y96.365614 Z-0.125000
G01 X125.797043 Y95.884864 Z-0.125000
G01 X127.326043 Y93.985664 Z-0.125000
G01 X127.950933 Y93.344764 Z-0.125000
G01 X128.389693 Y93.062504 Z-0.125000
G01 X128.888273 Y92.939134 Z-0.125000
G01 X129.486573 Y93.100634 Z-0.125000
G01 X130.075833 Y93.541954 Z-0.125000
G01 X131.979503 Y95.902304 Z-0.125000
G01 X132.657613 Y96.594294 Z-0.125000
G01 X133.275833 Y96.984164 Z-0.125000
G01 X133.874133 Y97.103094 Z-0.125000
G01 X134.572163 Y96.911534 Z-0.125000
G01 X135.369903 Y96.327464 Z-0.125000
G01 X137.618073 Y93.817684 Z-0.125000
G01 X138.481083 Y93.022684 Z-0.125000
G01 X139.358603 Y92.499074 Z-0.125000
G01 X140.156353 Y92.300104 Z-0.125000
G01 X141.053793 Y92.369504 Z-0.125000
G01 X142.050973 Y92.737084 Z-0.125000
G01 X145.740513 Y95.028064 Z-0.125000
G01 X147.535423 Y95.907454 Z-0.125000
G01 X149.430053 Y96.477534 Z-0.125000
G01 X151.438633 Y96.734074 Z-0.125000
G01 X152.806183 Y96.737074 Z-0.125000
G01 X154.116773 Y96.614044 Z-0.125000
G01 X155.313373 Y96.384544 Z-0.125000
G01 X156.509983 Y96.028994 Z-0.125000
G01 X158.592963 Y95.087344 Z-0.125000
G01 X162.315763 Y92.872274 Z-0.125000
G01 X163.091333 Y92.536364 Z-0.125000
G01 X163.789353 Y92.346394 Z-0.125000
G01 X164.686793 Y92.304194 Z-0.125000
G01 X165.484543 Y92.490384 Z-0.125000
G01 X166.393063 Y92.970444 Z-0.125000
G01 X167.279453 Y93.685534 Z-0.125000
G00 Z3.000000

(End cutting path id: polyline690)


(Start cutting path id: polyline688)
(Change tool to Default tool)

G00 Z3.000000
G00 X10.922682 Y96.621814

G00 Z4.875000 (Fast pre-penetrate)
G01 Z-0.125000 F400.0(Penetrate)
G01 X15.937039 Y96.552314 Z-0.125000 F800.000000
G01 X26.649515 Y96.201284 Z-0.125000
G01 X41.122779 Y96.178684 Z-0.125000
G01 X46.137136 Y96.243184 Z-0.125000
G01 X55.482060 Y96.622194 Z-0.125000
G01 X66.422501 Y96.369594 Z-0.125000
G01 X81.123677 Y96.357394 Z-0.125000
G01 X85.454245 Y96.401194 Z-0.125000
G01 X91.722198 Y96.624264 Z-0.125000
G01 X93.388914 Y96.560264 Z-0.125000
G01 X97.534300 Y96.178914 Z-0.125000
G01 X98.773639 Y96.265514 Z-0.125000
G01 X101.266573 Y96.764894 Z-0.125000
G01 X102.320723 Y96.848394 Z-0.125000
G01 X103.360643 Y96.709644 Z-0.125000
G01 X105.454713 Y96.033574 Z-0.125000
G01 X106.352153 Y95.907554 Z-0.125000
G01 X107.349343 Y96.081074 Z-0.125000
G01 X109.343693 Y96.999734 Z-0.125000
G01 X110.241133 Y97.165864 Z-0.125000
G01 X110.739733 Y97.093264 Z-0.125000
G01 X111.238313 Y96.891334 Z-0.125000
G01 X113.132943 Y95.722834 Z-0.125000
G01 X113.930693 Y95.541754 Z-0.125000
G01 X114.429273 Y95.642244 Z-0.125000
G01 X114.894623 Y95.872484 Z-0.125000
G01 X116.844653 Y97.385684 Z-0.125000
G01 X117.221343 Y97.531604 Z-0.125000
G01 X117.620223 Y97.578804 Z-0.125000
G01 X118.085573 Y97.467524 Z-0.125000
G01 X118.617393 Y97.141664 Z-0.125000
G01 X120.067833 Y95.715054 Z-0.125000
G01 X120.567423 Y95.330514 Z-0.125000
G01 X120.921963 Y95.148104 Z-0.125000
G01 X121.309763 Y95.085004 Z-0.125000
G01 X121.808343 Y95.192634 Z-0.125000
G01 X122.287003 Y95.508864 Z-0.125000
G01 X124.378853 Y97.720174 Z-0.125000
G01 X124.822023 Y97.994754 Z-0.125000
G01 X125.298463 Y98.085154 Z-0.125000
G01 X125.797043 Y97.959234 Z-0.125000
G01 X126.355473 Y97.550434 Z-0.125000
G01 X128.057293 Y95.514964 Z-0.125000
G01 X128.668913 Y94.917584 Z-0.125000
G01 X129.187443 Y94.611944 Z-0.125000
G01 X129.686023 Y94.528644 Z-0.125000
G01 X130.184603 Y94.666844 Z-0.125000
G01 X130.801053 Y95.100224 Z-0.125000
G01 X132.843743 Y97.544714 Z-0.125000
G01 X133.535103 Y98.212994 Z-0.125000
G01 X134.173303 Y98.585394 Z-0.125000
G01 X134.771603 Y98.689774 Z-0.125000
G01 X135.458543 Y98.514864 Z-0.125000
G01 X136.240173 Y97.989264 Z-0.125000
G01 X138.560863 Y95.544194 Z-0.125000
G01 X139.624513 Y94.609454 Z-0.125000
G01 X140.555213 Y94.092584 Z-0.125000
G01 X141.452673 Y93.887404 Z-0.125000
G01 X142.350113 Y93.941904 Z-0.125000
G01 X143.447003 Y94.275724 Z-0.125000
G01 X147.036843 Y96.083944 Z-0.125000
G01 X148.632303 Y96.731244 Z-0.125000
G01 X150.128073 Y97.133014 Z-0.125000
G01 X151.552613 Y97.327804 Z-0.125000
G01 X153.717883 Y97.288104 Z-0.125000
G01 X155.811953 Y96.868314 Z-0.125000
G01 X157.806303 Y96.126874 Z-0.125000
G01 X161.495843 Y94.346464 Z-0.125000
G01 X162.393313 Y94.041024 Z-0.125000
G01 X163.191053 Y93.894764 Z-0.125000
G01 X164.188213 Y93.932764 Z-0.125000
G01 X165.185403 Y94.257594 Z-0.125000
G01 X166.127163 Y94.834774 Z-0.125000
G01 X167.279453 Y95.831644 Z-0.125000
G00 Z3.000000

(End cutting path id: polyline688)


(Start cutting path id: polyline686)
(Change tool to Default tool)

G00 Z3.000000
G00 X10.922682 Y98.198864

G00 Z4.875000 (Fast pre-penetrate)
G01 Z-0.125000 F400.0(Penetrate)
G01 X17.874397 Y98.186864 Z-0.125000 F800.000000
G01 X28.814812 Y97.890794 Z-0.125000
G01 X35.310677 Y97.828894 Z-0.125000
G01 X41.578629 Y97.895894 Z-0.125000
G01 X51.835255 Y98.210224 Z-0.125000
G01 X63.231547 Y97.950874 Z-0.125000
G01 X83.630842 Y97.944874 Z-0.125000
G01 X86.821797 Y97.987674 Z-0.125000
G01 X92.405987 Y98.211874 Z-0.125000
G01 X94.086938 Y98.143274 Z-0.125000
G01 X97.990149 Y97.766534 Z-0.125000
G01 X99.272219 Y97.857534 Z-0.125000
G01 X101.665453 Y98.348074 Z-0.125000
G01 X102.662613 Y98.437774 Z-0.125000
G01 X103.659803 Y98.325724 Z-0.125000
G01 X105.753853 Y97.649794 Z-0.125000
G01 X106.751033 Y97.494644 Z-0.125000
G01 X107.648473 Y97.630294 Z-0.125000
G01 X109.742553 Y98.584464 Z-0.125000
G01 X110.640013 Y98.757104 Z-0.125000
G01 X111.526393 Y98.551734 Z-0.125000
G01 X113.531803 Y97.329124 Z-0.125000
G01 X114.329553 Y97.130764 Z-0.125000
G01 X114.728413 Y97.176464 Z-0.125000
G01 X115.227013 Y97.386094 Z-0.125000
G01 X117.021923 Y98.780244 Z-0.125000
G01 X117.620223 Y99.095414 Z-0.125000
G01 X118.019083 Y99.166214 Z-0.125000
G01 X118.417973 Y99.115114 Z-0.125000
G01 X118.883323 Y98.903294 Z-0.125000
G01 X119.487653 Y98.424104 Z-0.125000
G01 X120.930823 Y97.034324 Z-0.125000
G01 X121.509203 Y96.728174 Z-0.125000
G01 X121.908063 Y96.668974 Z-0.125000
G01 X122.406643 Y96.798814 Z-0.125000
G01 X122.925173 Y97.142234 Z-0.125000
G01 X124.999293 Y99.313704 Z-0.125000
G01 X125.497903 Y99.597224 Z-0.125000
G01 X125.896763 Y99.676524 Z-0.125000
G01 X126.495063 Y99.521714 Z-0.125000
G01 X126.993643 Y99.166884 Z-0.125000
G01 X128.788553 Y97.081864 Z-0.125000
G01 X129.386853 Y96.515524 Z-0.125000
G01 X129.885463 Y96.215964 Z-0.125000
G01 X130.384043 Y96.115394 Z-0.125000
G01 X130.982343 Y96.264064 Z-0.125000
G01 X131.598773 Y96.688424 Z-0.125000
G01 X133.641463 Y99.048434 Z-0.125000
G01 X134.412613 Y99.781564 Z-0.125000
G01 X135.070763 Y100.160714 Z-0.125000
G01 X135.669073 Y100.277424 Z-0.125000
G01 X136.367093 Y100.139734 Z-0.125000
G01 X137.204713 Y99.638614 Z-0.125000
G01 X139.837233 Y97.068974 Z-0.125000
G01 X140.794523 Y96.288084 Z-0.125000
G01 X141.663183 Y95.797734 Z-0.125000
G01 X142.549563 Y95.526934 Z-0.125000
G01 X143.447003 Y95.468934 Z-0.125000
G01 X144.344463 Y95.586334 Z-0.125000
G01 X145.341653 Y95.858934 Z-0.125000
G01 X148.034003 Y96.837914 Z-0.125000
G01 X149.529773 Y97.290434 Z-0.125000
G01 X151.125233 Y97.594174 Z-0.125000
G01 X152.692233 Y97.686674 Z-0.125000
G01 X154.116773 Y97.590774 Z-0.125000
G01 X155.512823 Y97.338254 Z-0.125000
G01 X157.008563 Y96.917274 Z-0.125000
G01 X160.498683 Y95.732394 Z-0.125000
G01 X161.396123 Y95.537284 Z-0.125000
G01 X162.265093 Y95.465084 Z-0.125000
G01 X163.490193 Y95.626934 Z-0.125000
G01 X164.620333 Y96.097494 Z-0.125000
G01 X165.763753 Y96.881264 Z-0.125000
G01 X167.279453 Y98.239054 Z-0.125000
G00 Z3.000000

(End cutting path id: polyline686)


(Start cutting path id: polyline684)
(Change tool to Default tool)

G00 Z3.000000
G00 X10.922682 Y99.735334

G00 Z4.875000 (Fast pre-penetrate)
G01 Z-0.125000 F400.0(Penetrate)
G01 X20.267606 Y99.796134 Z-0.125000 F800.000000
G01 X35.082765 Y99.615824 Z-0.125000
G01 X48.530345 Y99.798964 Z-0.125000
G01 X59.812654 Y99.536584 Z-0.125000
G01 X73.716111 Y99.621484 Z-0.125000
G01 X85.226333 Y99.532284 Z-0.125000
G01 X93.089749 Y99.799164 Z-0.125000
G01 X94.685240 Y99.726064 Z-0.125000
G01 X98.445999 Y99.353504 Z-0.125000
G01 X99.671099 Y99.441804 Z-0.125000
G01 X102.064313 Y99.934934 Z-0.125000
G01 X103.118463 Y100.023334 Z-0.125000
G01 X104.158383 Y99.884584 Z-0.125000
G01 X106.252453 Y99.206434 Z-0.125000
G01 X107.149893 Y99.082344 Z-0.125000
G01 X108.147083 Y99.256384 Z-0.125000
G01 X110.141433 Y100.168754 Z-0.125000
G01 X111.038873 Y100.341284 Z-0.125000
G01 X111.437733 Y100.300484 Z-0.125000
G01 X111.936343 Y100.133054 Z-0.125000
G01 X113.742333 Y99.024344 Z-0.125000
G01 X114.329553 Y98.779974 Z-0.125000
G01 X114.728413 Y98.717074 Z-0.125000
G01 X115.127293 Y98.757474 Z-0.125000
G01 X115.603703 Y98.929344 Z-0.125000
G01 X117.642373 Y100.464704 Z-0.125000
G01 X118.118803 Y100.682424 Z-0.125000
G01 X118.617393 Y100.756024 Z-0.125000
G01 X119.115973 Y100.629134 Z-0.125000
G01 X119.574673 Y100.367594 Z-0.125000
G01 X121.631073 Y98.514904 Z-0.125000
G01 X122.107503 Y98.304404 Z-0.125000
G01 X122.506363 Y98.257804 Z-0.125000
G01 X123.004943 Y98.398294 Z-0.125000
G01 X123.548873 Y98.760084 Z-0.125000
G01 X125.637503 Y100.908264 Z-0.125000
G01 X126.096203 Y101.165384 Z-0.125000
G01 X126.594783 Y101.264584 Z-0.125000
G01 X127.093363 Y101.141334 Z-0.125000
G01 X127.711623 Y100.727054 Z-0.125000
G01 X129.568173 Y98.625734 Z-0.125000
G01 X130.140283 Y98.106514 Z-0.125000
G01 X130.683183 Y97.794254 Z-0.125000
G01 X131.181793 Y97.702454 Z-0.125000
G01 X131.780093 Y97.842954 Z-0.125000
G01 X132.418263 Y98.259214 Z-0.125000
G01 X133.109653 Y98.944594 Z-0.125000
G01 X134.505693 Y100.564244 Z-0.125000
G01 X135.290133 Y101.299204 Z-0.125000
G01 X136.079013 Y101.749844 Z-0.125000
G01 X136.765953 Y101.864084 Z-0.125000
G01 X137.563693 Y101.681734 Z-0.125000
G01 X138.383593 Y101.201574 Z-0.125000
G01 X141.033843 Y98.829584 Z-0.125000
G01 X142.195013 Y97.953914 Z-0.125000
G01 X143.147863 Y97.455334 Z-0.125000
G01 X144.145023 Y97.155274 Z-0.125000
G01 X145.056723 Y97.055374 Z-0.125000
G01 X146.039653 Y97.091274 Z-0.125000
G01 X150.427233 Y97.842644 Z-0.125000
G01 X152.806183 Y98.002614 Z-0.125000
G01 X154.814793 Y97.865664 Z-0.125000
G01 X158.903193 Y97.165094 Z-0.125000
G01 X160.441693 Y97.053234 Z-0.125000
G01 X161.994453 Y97.255244 Z-0.125000
G01 X163.468043 Y97.852694 Z-0.125000
G01 X164.886243 Y98.808234 Z-0.125000
G01 X167.279453 Y100.797434 Z-0.125000
G00 Z3.000000

(End cutting path id: polyline684)


(Start cutting path id: polyline682)
(Change tool to Default tool)

G00 Z3.000000
G00 X10.922682 Y101.257924

G00 Z4.875000 (Fast pre-penetrate)
G01 Z-0.125000 F400.0(Penetrate)
G01 X22.660815 Y101.383604 Z-0.125000 F800.000000
G01 X42.946181 Y101.386604 Z-0.125000
G01 X56.393761 Y101.122814 Z-0.125000
G01 X72.918366 Y101.241694 Z-0.125000
G01 X86.479929 Y101.120014 Z-0.125000
G01 X93.545600 Y101.386924 Z-0.125000
G01 X94.984378 Y101.326524 Z-0.125000
G01 X98.787899 Y100.941554 Z-0.125000
G01 X100.069959 Y101.036954 Z-0.125000
G01 X102.363483 Y101.517814 Z-0.125000
G01 X103.346403 Y101.612814 Z-0.125000
G01 X104.457523 Y101.480944 Z-0.125000
G01 X106.551593 Y100.801414 Z-0.125000
G01 X107.449063 Y100.668854 Z-0.125000
G01 X108.446223 Y100.827344 Z-0.125000
G01 X110.440573 Y101.738324 Z-0.125000
G01 X111.437733 Y101.931474 Z-0.125000
G01 X112.412753 Y101.680754 Z-0.125000
G01 X114.429273 Y100.472954 Z-0.125000
G01 X115.227013 Y100.304314 Z-0.125000
G01 X115.625873 Y100.361714 Z-0.125000
G01 X116.124453 Y100.570684 Z-0.125000
G01 X118.085573 Y102.035234 Z-0.125000
G01 X118.528753 Y102.257424 Z-0.125000
G01 X119.016273 Y102.340824 Z-0.125000
G01 X119.415133 Y102.288524 Z-0.125000
G01 X119.858313 Y102.086414 Z-0.125000
G01 X120.372423 Y101.716104 Z-0.125000
G01 X121.985613 Y100.231684 Z-0.125000
G01 X122.517453 Y99.929584 Z-0.125000
G01 X123.004943 Y99.846684 Z-0.125000
G01 X123.492473 Y99.945184 Z-0.125000
G01 X124.112913 Y100.339574 Z-0.125000
G01 X125.724523 Y102.017984 Z-0.125000
G01 X126.355473 Y102.550724 Z-0.125000
G01 X126.794203 Y102.772104 Z-0.125000
G01 X127.292813 Y102.849904 Z-0.125000
G01 X127.791393 Y102.721764 Z-0.125000
G01 X128.429593 Y102.299914 Z-0.125000
G01 X130.293393 Y100.253574 Z-0.125000
G01 X130.938033 Y99.684144 Z-0.125000
G01 X131.480923 Y99.384684 Z-0.125000
G01 X132.079233 Y99.291184 Z-0.125000
G01 X132.677533 Y99.450594 Z-0.125000
G01 X133.375553 Y99.910494 Z-0.125000
G01 X135.529453 Y102.176894 Z-0.125000
G01 X136.344923 Y102.891614 Z-0.125000
G01 X137.065093 Y103.295844 Z-0.125000
G01 X137.862833 Y103.453634 Z-0.125000
G01 X138.560863 Y103.347834 Z-0.125000
G01 X139.358603 Y102.992394 Z-0.125000
G01 X140.236123 Y102.395624 Z-0.125000
G01 X142.310243 Y100.701174 Z-0.125000
G01 X143.347303 Y99.962034 Z-0.125000
G01 X144.543913 Y99.318304 Z-0.125000
G01 X145.740513 Y98.911244 Z-0.125000
G01 X146.737673 Y98.727944 Z-0.125000
G01 X147.905813 Y98.645944 Z-0.125000
G01 X152.692233 Y98.750984 Z-0.125000
G01 X157.364693 Y98.641414 Z-0.125000
G01 X158.504333 Y98.695714 Z-0.125000
G01 X159.601213 Y98.853084 Z-0.125000
G01 X160.598403 Y99.117374 Z-0.125000
G01 X161.495843 Y99.472134 Z-0.125000
G01 X163.113473 Y100.397144 Z-0.125000
G01 X166.215793 Y102.650334 Z-0.125000
G01 X167.279453 Y103.207384 Z-0.125000
G00 Z3.000000

(End cutting path id: polyline682)


(Start cutting path id: polyline680)
(Change tool to Default tool)

G00 Z3.000000
G00 X10.922682 Y102.786394

G00 Z4.875000 (Fast pre-penetrate)
G01 Z-0.125000 F400.0(Penetrate)
G01 X34.398976 Y102.965574 Z-0.125000 F800.000000
G01 X41.578629 Y102.921374 Z-0.125000
G01 X52.746956 Y102.709634 Z-0.125000
G01 X72.348559 Y102.842374 Z-0.125000
G01 X87.277647 Y102.707464 Z-0.125000
G01 X93.887495 Y102.974584 Z-0.125000
G01 X95.369002 Y102.911884 Z-0.125000
G01 X97.975919 Y102.595364 Z-0.125000
G01 X99.129759 Y102.528964 Z-0.125000
G01 X100.369129 Y102.625864 Z-0.125000
G01 X102.562893 Y103.092274 Z-0.125000
G01 X103.688273 Y103.198844 Z-0.125000
G01 X104.656963 Y103.084364 Z-0.125000
G01 X106.850763 Y102.388134 Z-0.125000
G01 X107.847923 Y102.258864 Z-0.125000
G01 X108.745383 Y102.418034 Z-0.125000
G01 X110.739733 Y103.315074 Z-0.125000
G01 X111.238313 Y103.468724 Z-0.125000
G01 X111.736903 Y103.516624 Z-0.125000
G01 X112.634363 Y103.317314 Z-0.125000
G01 X114.540053 Y102.181994 Z-0.125000
G01 X115.127293 Y101.950614 Z-0.125000
G01 X115.526153 Y101.891814 Z-0.125000
G01 X115.925013 Y101.930414 Z-0.125000
G01 X116.401453 Y102.093244 Z-0.125000
G01 X117.101693 Y102.538214 Z-0.125000
G01 X118.528753 Y103.636604 Z-0.125000
G01 X119.016273 Y103.855314 Z-0.125000
G01 X119.514853 Y103.931314 Z-0.125000
G01 X119.913713 Y103.860014 Z-0.125000
G01 X120.390153 Y103.641994 Z-0.125000
G01 X122.446543 Y101.851694 Z-0.125000
G01 X123.004943 Y101.538134 Z-0.125000
G01 X123.503553 Y101.430894 Z-0.125000
G01 X124.002133 Y101.519694 Z-0.125000
G01 X124.440893 Y101.743184 Z-0.125000
G01 X125.071823 Y102.267794 Z-0.125000
G01 X126.772053 Y103.975234 Z-0.125000
G01 X127.303873 Y104.308264 Z-0.125000
G01 X127.891113 Y104.436954 Z-0.125000
G01 X128.489413 Y104.306144 Z-0.125000
G01 X129.147543 Y103.881224 Z-0.125000
G01 X131.091113 Y101.827344 Z-0.125000
G01 X131.735773 Y101.281274 Z-0.125000
G01 X132.278673 Y100.986504 Z-0.125000
G01 X132.876973 Y100.876304 Z-0.125000
G01 X133.475273 Y100.996474 Z-0.125000
G01 X134.217623 Y101.424364 Z-0.125000
G01 X134.862253 Y101.982154 Z-0.125000
G01 X136.646283 Y103.800104 Z-0.125000
G01 X137.497203 Y104.484374 Z-0.125000
G01 X138.361413 Y104.912234 Z-0.125000
G01 X139.258883 Y105.038724 Z-0.125000
G01 X140.056633 Y104.898474 Z-0.125000
G01 X140.954073 Y104.516384 Z-0.125000
G01 X144.676863 Y102.093544 Z-0.125000
G01 X145.740513 Y101.537414 Z-0.125000
G01 X146.837393 Y101.100114 Z-0.125000
G01 X148.133723 Y100.748324 Z-0.125000
G01 X149.529773 Y100.527104 Z-0.125000
G01 X151.210723 Y100.404574 Z-0.125000
G01 X153.148083 Y100.381674 Z-0.125000
G01 X156.210843 Y100.586534 Z-0.125000
G01 X157.507173 Y100.821174 Z-0.125000
G01 X158.604053 Y101.126044 Z-0.125000
G01 X159.700933 Y101.545594 Z-0.125000
G01 X160.797823 Y102.083814 Z-0.125000
G01 X163.999863 Y104.047924 Z-0.125000
G01 X165.085683 Y104.616084 Z-0.125000
G01 X166.282283 Y104.992194 Z-0.125000
G01 X167.279453 Y105.014094 Z-0.125000
G00 Z3.000000

(End cutting path id: polyline680)


(Start cutting path id: polyline678)
(Change tool to Default tool)

G00 Z3.000000
G00 X10.922682 Y104.330854

G00 Z4.875000 (Fast pre-penetrate)
G01 Z-0.125000 F400.0(Penetrate)
G01 X32.119722 Y104.472584 Z-0.125000 F800.000000
G01 X48.872239 Y104.296084 Z-0.125000
G01 X61.636057 Y104.423404 Z-0.125000
G01 X77.021022 Y104.430404 Z-0.125000
G01 X87.961437 Y104.295334 Z-0.125000
G01 X94.229389 Y104.561984 Z-0.125000
G01 X95.582680 Y104.503884 Z-0.125000
G01 X98.275049 Y104.174824 Z-0.125000
G01 X99.357699 Y104.116224 Z-0.125000
G01 X100.468849 Y104.197924 Z-0.125000
G01 X102.862063 Y104.695044 Z-0.125000
G01 X103.916213 Y104.786444 Z-0.125000
G01 X104.956133 Y104.651964 Z-0.125000
G01 X107.149893 Y103.954674 Z-0.125000
G01 X108.047363 Y103.844714 Z-0.125000
G01 X109.044523 Y104.022174 Z-0.125000
G01 X111.138593 Y104.953584 Z-0.125000
G01 X112.036063 Y105.105774 Z-0.125000
G01 X112.534643 Y105.036874 Z-0.125000
G01 X113.033223 Y104.860764 Z-0.125000
G01 X115.027573 Y103.693584 Z-0.125000
G01 X115.426433 Y103.545414 Z-0.125000
G01 X115.925013 Y103.480214 Z-0.125000
G01 X116.323903 Y103.526214 Z-0.125000
G01 X116.822483 Y103.717904 Z-0.125000
G01 X118.971953 Y105.244204 Z-0.125000
G01 X119.415133 Y105.443624 Z-0.125000
G01 X119.913713 Y105.517324 Z-0.125000
G01 X120.412293 Y105.428624 Z-0.125000
G01 X121.010623 Y105.111284 Z-0.125000
G01 X122.526313 Y103.769454 Z-0.125000
G01 X123.226563 Y103.256424 Z-0.125000
G01 X123.702973 Y103.065524 Z-0.125000
G01 X124.101853 Y103.018924 Z-0.125000
G01 X124.600433 Y103.130414 Z-0.125000
G01 X125.238643 Y103.507604 Z-0.125000
G01 X127.481163 Y105.625804 Z-0.125000
G01 X128.012983 Y105.921134 Z-0.125000
G01 X128.589133 Y106.024584 Z-0.125000
G01 X129.165263 Y105.901844 Z-0.125000
G01 X129.865513 Y105.468194 Z-0.125000
G01 X131.888863 Y103.424554 Z-0.125000
G01 X132.533493 Y102.897924 Z-0.125000
G01 X133.176143 Y102.565744 Z-0.125000
G01 X133.774443 Y102.463294 Z-0.125000
G01 X134.572163 Y102.642044 Z-0.125000
G01 X135.281273 Y103.061044 Z-0.125000
G01 X137.683343 Y105.248674 Z-0.125000
G01 X138.649493 Y105.986914 Z-0.125000
G01 X139.458323 Y106.400954 Z-0.125000
G01 X140.355763 Y106.613814 Z-0.125000
G01 X141.253233 Y106.583014 Z-0.125000
G01 X142.350113 Y106.281494 Z-0.125000
G01 X146.239093 Y104.386064 Z-0.125000
G01 X148.133723 Y103.660234 Z-0.125000
G01 X150.028353 Y103.220874 Z-0.125000
G01 X152.008463 Y103.040764 Z-0.125000
G01 X154.415913 Y103.163744 Z-0.125000
G01 X156.709423 Y103.642884 Z-0.125000
G01 X158.703773 Y104.364454 Z-0.125000
G01 X162.393313 Y106.077814 Z-0.125000
G01 X163.889073 Y106.540754 Z-0.125000
G01 X164.786513 Y106.628954 Z-0.125000
G01 X165.584263 Y106.551854 Z-0.125000
G01 X166.382013 Y106.314364 Z-0.125000
G01 X167.279453 Y105.859364 Z-0.125000
G00 Z3.000000

(End cutting path id: polyline678)


(Start cutting path id: polyline676)
(Change tool to Default tool)

G00 Z3.000000
G00 X10.922682 Y105.893214

G00 Z4.875000 (Fast pre-penetrate)
G01 Z-0.125000 F400.0(Penetrate)
G01 X30.752171 Y105.960214 Z-0.125000 F800.000000
G01 X45.681285 Y105.882814 Z-0.125000
G01 X58.331146 Y106.013624 Z-0.125000
G01 X79.186319 Y106.017624 Z-0.125000
G01 X88.303331 Y105.882324 Z-0.125000
G01 X94.457301 Y106.149204 Z-0.125000
G01 X95.782123 Y106.087604 Z-0.125000
G01 X98.374779 Y105.765004 Z-0.125000
G01 X99.471659 Y105.703504 Z-0.125000
G01 X100.568539 Y105.782104 Z-0.125000
G01 X103.061503 Y106.295314 Z-0.125000
G01 X104.030173 Y106.374214 Z-0.125000
G01 X105.055823 Y106.248434 Z-0.125000
G01 X107.249623 Y105.554484 Z-0.125000
G01 X108.147083 Y105.430894 Z-0.125000
G01 X109.144243 Y105.584064 Z-0.125000
G01 X111.238313 Y106.505184 Z-0.125000
G01 X112.235483 Y106.694224 Z-0.125000
G01 X113.132943 Y106.506164 Z-0.125000
G01 X115.249163 Y105.299214 Z-0.125000
G01 X115.725603 Y105.130594 Z-0.125000
G01 X116.224183 Y105.064594 Z-0.125000
G01 X116.722763 Y105.143394 Z-0.125000
G01 X117.287833 Y105.385014 Z-0.125000
G01 X119.415133 Y106.880704 Z-0.125000
G01 X119.913713 Y107.064224 Z-0.125000
G01 X120.312603 Y107.106324 Z-0.125000
G01 X120.811183 Y107.010624 Z-0.125000
G01 X121.365163 Y106.731544 Z-0.125000
G01 X123.603253 Y104.902024 Z-0.125000
G01 X124.101853 Y104.671334 Z-0.125000
G01 X124.600433 Y104.608634 Z-0.125000
G01 X125.176563 Y104.739234 Z-0.125000
G01 X125.797043 Y105.113964 Z-0.125000
G01 X128.110483 Y107.224364 Z-0.125000
G01 X128.688863 Y107.519424 Z-0.125000
G01 X129.287163 Y107.611724 Z-0.125000
G01 X129.874373 Y107.482154 Z-0.125000
G01 X130.583483 Y107.058534 Z-0.125000
G01 X132.657613 Y105.071824 Z-0.125000
G01 X133.419873 Y104.477014 Z-0.125000
G01 X134.073583 Y104.159754 Z-0.125000
G01 X134.771603 Y104.051094 Z-0.125000
G01 X135.569343 Y104.217354 Z-0.125000
G01 X136.344923 Y104.629604 Z-0.125000
G01 X139.039513 Y106.839354 Z-0.125000
G01 X140.156353 Y107.584634 Z-0.125000
G01 X141.352953 Y108.066254 Z-0.125000
G01 X142.549563 Y108.215824 Z-0.125000
G01 X143.447003 Y108.148024 Z-0.125000
G01 X144.344463 Y107.969934 Z-0.125000
G01 X147.734863 Y106.966744 Z-0.125000
G01 X149.230603 Y106.612094 Z-0.125000
G01 X150.726373 Y106.394444 Z-0.125000
G01 X152.122423 Y106.328844 Z-0.125000
G01 X153.717883 Y106.417744 Z-0.125000
G01 X155.313373 Y106.671214 Z-0.125000
G01 X160.698123 Y108.082164 Z-0.125000
G01 X161.695283 Y108.204084 Z-0.125000
G01 X162.692443 Y108.185784 Z-0.125000
G01 X163.789353 Y107.964114 Z-0.125000
G01 X164.786513 Y107.562374 Z-0.125000
G01 X165.861253 Y106.932534 Z-0.125000
G01 X167.279453 Y105.894914 Z-0.125000
G00 Z3.000000

(End cutting path id: polyline676)


(Start cutting path id: polyline674)
(Change tool to Default tool)

G00 Z3.000000
G00 X10.922682 Y107.470634

G00 Z4.875000 (Fast pre-penetrate)
G01 Z-0.125000 F400.0(Penetrate)
G01 X40.552972 Y107.470904 Z-0.125000 F800.000000
G01 X55.026209 Y107.602504 Z-0.125000
G01 X80.211976 Y107.605504 Z-0.125000
G01 X88.645199 Y107.470494 Z-0.125000
G01 X94.457301 Y107.737354 Z-0.125000
G01 X95.782123 Y107.680354 Z-0.125000
G01 X98.474499 Y107.346054 Z-0.125000
G01 X99.471659 Y107.291354 Z-0.125000
G01 X100.668259 Y107.380154 Z-0.125000
G01 X103.061503 Y107.876884 Z-0.125000
G01 X104.030173 Y107.962584 Z-0.125000
G01 X105.155543 Y107.826054 Z-0.125000
G01 X107.249623 Y107.161794 Z-0.125000
G01 X108.246783 Y107.018864 Z-0.125000
G01 X109.243963 Y107.172484 Z-0.125000
G01 X111.338043 Y108.081564 Z-0.125000
G01 X112.335203 Y108.281374 Z-0.125000
G01 X112.833783 Y108.231174 Z-0.125000
G01 X113.332393 Y108.078614 Z-0.125000
G01 X115.337803 Y106.943204 Z-0.125000
G01 X115.925013 Y106.720744 Z-0.125000
G01 X116.423623 Y106.654644 Z-0.125000
G01 X116.922203 Y106.718544 Z-0.125000
G01 X117.321063 Y106.863244 Z-0.125000
G01 X117.908303 Y107.198974 Z-0.125000
G01 X119.514853 Y108.355884 Z-0.125000
G01 X120.113153 Y108.624704 Z-0.125000
G01 X120.611733 Y108.692604 Z-0.125000
G01 X121.110323 Y108.616404 Z-0.125000
G01 X121.608923 Y108.387514 Z-0.125000
G01 X123.935643 Y106.543154 Z-0.125000
G01 X124.500713 Y106.277434 Z-0.125000
G01 X124.999293 Y106.192534 Z-0.125000
G01 X125.597603 Y106.306094 Z-0.125000
G01 X126.151583 Y106.595974 Z-0.125000
G01 X126.754333 Y107.068514 Z-0.125000
G01 X128.110483 Y108.350024 Z-0.125000
G01 X128.810723 Y108.871364 Z-0.125000
G01 X129.386853 Y109.127504 Z-0.125000
G01 X129.885463 Y109.202704 Z-0.125000
G01 X130.583483 Y109.063144 Z-0.125000
G01 X131.292573 Y108.661824 Z-0.125000
G01 X133.535103 Y106.650904 Z-0.125000
G01 X134.306253 Y106.087794 Z-0.125000
G01 X135.070763 Y105.742144 Z-0.125000
G01 X135.768763 Y105.639374 Z-0.125000
G01 X136.566513 Y105.764954 Z-0.125000
G01 X137.408573 Y106.134704 Z-0.125000
G01 X140.422253 Y108.269314 Z-0.125000
G01 X141.574543 Y108.961034 Z-0.125000
G01 X142.649283 Y109.415964 Z-0.125000
G01 X143.646443 Y109.670804 Z-0.125000
G01 X144.600873 Y109.784204 Z-0.125000
G01 X145.740513 Y109.794904 Z-0.125000
G01 X149.843173 Y109.451344 Z-0.125000
G01 X151.894483 Y109.388844 Z-0.125000
G01 X158.390373 Y109.803874 Z-0.125000
G01 X160.299233 Y109.622394 Z-0.125000
G01 X161.994453 Y109.096004 Z-0.125000
G01 X163.024843 Y108.590154 Z-0.125000
G01 X165.418053 Y107.211014 Z-0.125000
G01 X167.279453 Y106.001464 Z-0.125000
G00 Z3.000000

(End cutting path id: polyline674)


(Start cutting path id: polyline672)
(Change tool to Default tool)

G00 Z3.000000
G00 X10.922682 Y109.058534

G00 Z4.875000 (Fast pre-penetrate)
G01 Z-0.125000 F400.0(Penetrate)
G01 X36.108422 Y109.066534 Z-0.125000 F800.000000
G01 X51.949238 Y109.192104 Z-0.125000
G01 X81.009721 Y109.193104 Z-0.125000
G01 X88.759182 Y109.058054 Z-0.125000
G01 X94.457301 Y109.324834 Z-0.125000
G01 X95.782123 Y109.263434 Z-0.125000
G01 X98.374779 Y108.937124 Z-0.125000
G01 X99.471659 Y108.879124 Z-0.125000
G01 X100.568539 Y108.962824 Z-0.125000
G01 X102.961783 Y109.456724 Z-0.125000
G01 X104.030173 Y109.549824 Z-0.125000
G01 X105.055823 Y109.427214 Z-0.125000
G01 X107.249623 Y108.745834 Z-0.125000
G01 X108.246783 Y108.606524 Z-0.125000
G01 X109.243963 Y108.755884 Z-0.125000
G01 X111.338043 Y109.651074 Z-0.125000
G01 X111.936343 Y109.821444 Z-0.125000
G01 X112.434923 Y109.868344 Z-0.125000
G01 X113.332393 Y109.699434 Z-0.125000
G01 X115.526153 Y108.507544 Z-0.125000
G01 X116.124453 Y108.293074 Z-0.125000
G01 X116.623043 Y108.243074 Z-0.125000
G01 X117.221343 Y108.343074 Z-0.125000
G01 X117.819673 Y108.614534 Z-0.125000
G01 X119.326493 Y109.680464 Z-0.125000
G01 X120.035603 Y110.091784 Z-0.125000
G01 X120.910903 Y110.282284 Z-0.125000
G01 X121.509203 Y110.161504 Z-0.125000
G01 X122.074273 Y109.878634 Z-0.125000
G01 X124.400993 Y108.083094 Z-0.125000
G01 X124.999293 Y107.833704 Z-0.125000
G01 X125.497903 Y107.783704 Z-0.125000
G01 X126.096203 Y107.912844 Z-0.125000
G01 X126.754333 Y108.272684 Z-0.125000
G01 X128.748683 Y110.003634 Z-0.125000
G01 X129.342533 Y110.420464 Z-0.125000
G01 X129.985183 Y110.708034 Z-0.125000
G01 X130.583483 Y110.789834 Z-0.125000
G01 X131.281483 Y110.648734 Z-0.125000
G01 X132.001683 Y110.271884 Z-0.125000
G01 X134.412613 Y108.271524 Z-0.125000
G01 X135.281273 Y107.684864 Z-0.125000
G01 X136.167653 Y107.322704 Z-0.125000
G01 X136.965393 Y107.226104 Z-0.125000
G01 X137.763113 Y107.335034 Z-0.125000
G01 X138.660583 Y107.657534 Z-0.125000
G01 X142.549563 Y109.890324 Z-0.125000
G01 X143.646443 Y110.389784 Z-0.125000
G01 X144.843043 Y110.792184 Z-0.125000
G01 X146.139373 Y111.075394 Z-0.125000
G01 X147.635143 Y111.252934 Z-0.125000
G01 X152.008463 Y111.352534 Z-0.125000
G01 X155.213653 Y111.209864 Z-0.125000
G01 X156.509983 Y111.036644 Z-0.125000
G01 X157.706583 Y110.776404 Z-0.125000
G01 X159.202353 Y110.284304 Z-0.125000
G01 X160.897543 Y109.501194 Z-0.125000
G01 X162.293583 Y108.962334 Z-0.125000
G01 X164.985963 Y107.473444 Z-0.125000
G01 X166.082843 Y107.238054 Z-0.125000
G01 X167.279453 Y107.320654 Z-0.125000
G00 Z3.000000

(End cutting path id: polyline672)


(Start cutting path id: polyline670)
(Change tool to Default tool)

G00 Z3.000000
G00 X10.922682 Y110.652404

G00 Z4.875000 (Fast pre-penetrate)
G01 Z-0.125000 F400.0(Penetrate)
G01 X32.005766 Y110.671204 Z-0.125000 F800.000000
G01 X48.302433 Y110.779124 Z-0.125000
G01 X81.465572 Y110.780124 Z-0.125000
G01 X88.759182 Y110.645214 Z-0.125000
G01 X94.343345 Y110.911594 Z-0.125000
G01 X95.582680 Y110.853894 Z-0.125000
G01 X98.175329 Y110.527294 Z-0.125000
G01 X99.243749 Y110.466094 Z-0.125000
G01 X100.369129 Y110.545594 Z-0.125000
G01 X102.662613 Y111.019864 Z-0.125000
G01 X103.802253 Y111.136514 Z-0.125000
G01 X104.956133 Y111.004284 Z-0.125000
G01 X107.149893 Y110.330254 Z-0.125000
G01 X108.147083 Y110.193434 Z-0.125000
G01 X109.144243 Y110.337294 Z-0.125000
G01 X111.338043 Y111.254024 Z-0.125000
G01 X112.434923 Y111.455284 Z-0.125000
G01 X113.033223 Y111.377384 Z-0.125000
G01 X113.531803 Y111.205064 Z-0.125000
G01 X115.825323 Y109.989464 Z-0.125000
G01 X116.722763 Y109.830104 Z-0.125000
G01 X117.321063 Y109.934614 Z-0.125000
G01 X117.908303 Y110.191104 Z-0.125000
G01 X120.124243 Y111.642894 Z-0.125000
G01 X120.611733 Y111.813134 Z-0.125000
G01 X121.110323 Y111.869134 Z-0.125000
G01 X121.708623 Y111.756214 Z-0.125000
G01 X122.251543 Y111.498374 Z-0.125000
G01 X124.733393 Y109.662144 Z-0.125000
G01 X125.298463 Y109.435654 Z-0.125000
G01 X125.797043 Y109.366954 Z-0.125000
G01 X126.495063 Y109.500784 Z-0.125000
G01 X127.126603 Y109.827124 Z-0.125000
G01 X129.165263 Y111.495134 Z-0.125000
G01 X129.885463 Y111.992544 Z-0.125000
G01 X130.583483 Y112.293014 Z-0.125000
G01 X131.181793 Y112.376414 Z-0.125000
G01 X131.879813 Y112.269604 Z-0.125000
G01 X132.710793 Y111.890374 Z-0.125000
G01 X135.290133 Y109.941714 Z-0.125000
G01 X136.267373 Y109.329764 Z-0.125000
G01 X137.164813 Y108.967254 Z-0.125000
G01 X137.991053 Y108.822154 Z-0.125000
G01 X138.959723 Y108.867554 Z-0.125000
G01 X140.056633 Y109.141614 Z-0.125000
G01 X143.945603 Y110.785604 Z-0.125000
G01 X145.840233 Y111.421604 Z-0.125000
G01 X147.635143 Y111.803264 Z-0.125000
G01 X149.615233 Y111.997524 Z-0.125000
G01 X152.321863 Y111.931924 Z-0.125000
G01 X154.914513 Y111.503454 Z-0.125000
G01 X158.504333 Y110.537834 Z-0.125000
G01 X159.601213 Y110.119764 Z-0.125000
G01 X160.997263 Y109.460134 Z-0.125000
G01 X162.393313 Y108.927714 Z-0.125000
G01 X162.792163 Y108.845714 Z-0.125000
G01 X163.974533 Y108.836714 Z-0.125000
G01 X164.985963 Y109.036524 Z-0.125000
G01 X166.082843 Y109.481444 Z-0.125000
G01 X167.279453 Y110.184924 Z-0.125000
G00 Z3.000000

(End cutting path id: polyline670)


(Start cutting path id: polyline668)
(Change tool to Default tool)

G00 Z3.000000
G00 X10.922682 Y112.248714

G00 Z4.875000 (Fast pre-penetrate)
G01 Z-0.125000 F400.0(Penetrate)
G01 X44.655628 Y112.366754 Z-0.125000 F800.000000
G01 X81.693484 Y112.367754 Z-0.125000
G01 X88.531243 Y112.232604 Z-0.125000
G01 X94.001451 Y112.499414 Z-0.125000
G01 X95.369002 Y112.435514 Z-0.125000
G01 X97.876194 Y112.115714 Z-0.125000
G01 X99.015809 Y112.054414 Z-0.125000
G01 X100.169679 Y112.146214 Z-0.125000
G01 X102.562893 Y112.638154 Z-0.125000
G01 X103.574313 Y112.724654 Z-0.125000
G01 X104.656963 Y112.602734 Z-0.125000
G01 X106.950453 Y111.914314 Z-0.125000
G01 X108.018863 Y111.782364 Z-0.125000
G01 X109.044523 Y111.951614 Z-0.125000
G01 X111.238313 Y112.857944 Z-0.125000
G01 X112.235483 Y113.044264 Z-0.125000
G01 X113.232663 Y112.871704 Z-0.125000
G01 X115.526153 Y111.679124 Z-0.125000
G01 X116.124453 Y111.473174 Z-0.125000
G01 X116.623043 Y111.416974 Z-0.125000
G01 X117.121643 Y111.468974 Z-0.125000
G01 X117.719943 Y111.681034 Z-0.125000
G01 X120.035603 Y113.149204 Z-0.125000
G01 X120.711463 Y113.402704 Z-0.125000
G01 X121.210043 Y113.456304 Z-0.125000
G01 X121.808343 Y113.356804 Z-0.125000
G01 X122.506363 Y113.027744 Z-0.125000
G01 X124.999293 Y111.245404 Z-0.125000
G01 X125.597603 Y111.017174 Z-0.125000
G01 X126.096203 Y110.956174 Z-0.125000
G01 X126.794203 Y111.072294 Z-0.125000
G01 X127.481163 Y111.398504 Z-0.125000
G01 X129.705973 Y113.118164 Z-0.125000
G01 X130.494823 Y113.614654 Z-0.125000
G01 X131.181793 Y113.880214 Z-0.125000
G01 X131.879813 Y113.963714 Z-0.125000
G01 X132.677533 Y113.831134 Z-0.125000
G01 X133.475273 Y113.490194 Z-0.125000
G01 X136.167653 Y111.671974 Z-0.125000
G01 X137.264533 Y111.037024 Z-0.125000
G01 X138.162003 Y110.673144 Z-0.125000
G01 X139.159163 Y110.450764 Z-0.125000
G01 X140.256043 Y110.407264 Z-0.125000
G01 X141.352953 Y110.528914 Z-0.125000
G01 X145.441353 Y111.497264 Z-0.125000
G01 X147.236283 Y111.822224 Z-0.125000
G01 X148.703533 Y111.963854 Z-0.125000
G01 X150.526933 Y112.016854 Z-0.125000
G01 X152.122423 Y111.949554 Z-0.125000
G01 X153.717883 Y111.748994 Z-0.125000
G01 X155.113933 Y111.454334 Z-0.125000
G01 X158.504333 Y110.537894 Z-0.125000
G01 X159.985843 Y110.400174 Z-0.125000
G01 X161.495843 Y110.563344 Z-0.125000
G01 X162.891893 Y111.013824 Z-0.125000
G01 X164.088493 Y111.610804 Z-0.125000
G01 X167.279453 Y113.468394 Z-0.125000
G00 Z3.000000

(End cutting path id: polyline668)


(Start cutting path id: polyline666)
(Change tool to Default tool)

G00 Z3.000000
G00 X10.922682 Y113.845034

G00 Z4.875000 (Fast pre-penetrate)
G01 Z-0.125000 F400.0(Penetrate)
G01 X40.780884 Y113.954064 Z-0.125000 F800.000000
G01 X81.693484 Y113.955064 Z-0.125000
G01 X88.189349 Y113.819624 Z-0.125000
G01 X93.659556 Y114.086794 Z-0.125000
G01 X94.884656 Y114.031494 Z-0.125000
G01 X97.477308 Y113.702854 Z-0.125000
G01 X98.559959 Y113.640854 Z-0.125000
G01 X99.671099 Y113.718854 Z-0.125000
G01 X102.164033 Y114.221874 Z-0.125000
G01 X103.232423 Y114.311874 Z-0.125000
G01 X104.357833 Y114.176694 Z-0.125000
G01 X106.551593 Y113.514524 Z-0.125000
G01 X107.648473 Y113.369504 Z-0.125000
G01 X108.645663 Y113.512884 Z-0.125000
G01 X111.038873 Y114.463424 Z-0.125000
G01 X112.036063 Y114.631304 Z-0.125000
G01 X112.534643 Y114.585004 Z-0.125000
G01 X113.132943 Y114.416414 Z-0.125000
G01 X115.326713 Y113.279314 Z-0.125000
G01 X115.925013 Y113.074314 Z-0.125000
G01 X116.523343 Y113.004014 Z-0.125000
G01 X117.121643 Y113.084614 Z-0.125000
G01 X117.819673 Y113.364334 Z-0.125000
G01 X120.124243 Y114.790674 Z-0.125000
G01 X120.711463 Y114.990514 Z-0.125000
G01 X121.210043 Y115.044014 Z-0.125000
G01 X121.808343 Y114.955714 Z-0.125000
G01 X122.506363 Y114.653644 Z-0.125000
G01 X124.556123 Y113.196894 Z-0.125000
G01 X125.198743 Y112.824474 Z-0.125000
G01 X125.797043 Y112.606194 Z-0.125000
G01 X126.395343 Y112.543694 Z-0.125000
G01 X126.993643 Y112.638794 Z-0.125000
G01 X127.747073 Y112.960504 Z-0.125000
G01 X130.140283 Y114.682334 Z-0.125000
G01 X130.982343 Y115.181064 Z-0.125000
G01 X131.780093 Y115.469354 Z-0.125000
G01 X132.478113 Y115.551854 Z-0.125000
G01 X133.176143 Y115.478254 Z-0.125000
G01 X133.973853 Y115.226764 Z-0.125000
G01 X134.838093 Y114.804204 Z-0.125000
G01 X138.162003 Y112.880594 Z-0.125000
G01 X139.358603 Y112.411784 Z-0.125000
G01 X140.654933 Y112.111564 Z-0.125000
G01 X142.777473 Y111.991304 Z-0.125000
G01 X146.994113 Y112.252424 Z-0.125000
G01 X149.045423 Y112.297824 Z-0.125000
G01 X155.541293 Y111.988764 Z-0.125000
G01 X157.208003 Y112.103804 Z-0.125000
G01 X158.803473 Y112.449164 Z-0.125000
G01 X160.498683 Y113.102974 Z-0.125000
G01 X163.589913 Y114.722384 Z-0.125000
G01 X164.686793 Y115.202344 Z-0.125000
G01 X165.983123 Y115.521774 Z-0.125000
G01 X167.279453 Y115.480074 Z-0.125000
G00 Z3.000000

(End cutting path id: polyline666)


(Start cutting path id: polyline664)
(Change tool to Default tool)

G00 Z3.000000
G00 X10.922682 Y115.439934

G00 Z4.875000 (Fast pre-penetrate)
G01 Z-0.125000 F400.0(Penetrate)
G01 X36.906167 Y115.541324 Z-0.125000 F800.000000
G01 X81.579528 Y115.542324 Z-0.125000
G01 X87.847481 Y115.407184 Z-0.125000
G01 X93.089749 Y115.674174 Z-0.125000
G01 X94.386075 Y115.618274 Z-0.125000
G01 X96.978727 Y115.287864 Z-0.125000
G01 X98.104109 Y115.228964 Z-0.125000
G01 X99.272219 Y115.323764 Z-0.125000
G01 X101.665453 Y115.811844 Z-0.125000
G01 X102.662613 Y115.899744 Z-0.125000
G01 X103.759503 Y115.786634 Z-0.125000
G01 X106.152733 Y115.088634 Z-0.125000
G01 X107.221123 Y114.956444 Z-0.125000
G01 X108.346503 Y115.135864 Z-0.125000
G01 X110.540293 Y116.016634 Z-0.125000
G01 X111.637173 Y116.217794 Z-0.125000
G01 X112.235483 Y116.163094 Z-0.125000
G01 X112.734063 Y116.021964 Z-0.125000
G01 X115.127293 Y114.831824 Z-0.125000
G01 X115.725603 Y114.647224 Z-0.125000
G01 X116.224183 Y114.589524 Z-0.125000
G01 X116.722763 Y114.636924 Z-0.125000
G01 X117.321063 Y114.820334 Z-0.125000
