%
(Header)
(Generated by gcodetools from Inkscape.)
(Using default header. To add your own header create file "header" in the output dir.)
M3
(Header end.)
G21 (All units in mm)

(Start cutting path id: rect234-0-2)
(Change tool to Default tool)

G00 Z3.000000
G00 X11.589873 Y285.717745

G00 Z4.875000 (Fast pre-penetrate)
G01 Z-0.125000 F400.0(Penetrate)
G01 X94.864243 Y285.717745 Z-0.125000 F800.000000
G01 X94.864243 Y150.620274 Z-0.125000
G01 X11.589873 Y150.620274 Z-0.125000
G01 X11.589873 Y285.717745 Z-0.125000
G00 Z3.000000

(End cutting path id: rect234-0-2)


(Start cutting path id: path16697)
(Change tool to Default tool)

G00 Z3.000000
G00 X34.894571 Y278.160112

G00 Z4.875000 (Fast pre-penetrate)
G01 Z-0.125000 F400.0(Penetrate)
G01 X35.210476 Y278.476017 Z-0.125000 F800.000000
G02 X36.168617 Y278.872892 Z-0.125000 I0.958141 J-0.958141
G02 X36.333008 Y278.476017 Z-0.125000 I-0.000000 J-0.232484
G01 X35.315520 Y277.458529 Z-0.125000
G03 X34.918645 Y276.500388 Z-0.125000 I0.958141 J-0.958141
G03 X35.315520 Y276.335997 Z-0.125000 I0.232484 J0.000000
G01 X35.508418 Y276.528895 Z-0.125000
G02 X35.905293 Y276.364504 Z-0.125000 I0.164391 J-0.164391
G02 X35.508418 Y275.406363 Z-0.125000 I-1.355016 J0.000000
G01 X35.315520 Y275.213465 Z-0.125000
G03 X34.918645 Y274.255324 Z-0.125000 I0.958141 J-0.958141
G03 X35.315520 Y274.090933 Z-0.125000 I0.232484 J0.000000
G01 X35.508418 Y274.283831 Z-0.125000
G02 X35.905293 Y274.119440 Z-0.125000 I0.164391 J-0.164391
G02 X35.508418 Y273.161299 Z-0.125000 I-1.355016 J-0.000000
G01 X35.315520 Y272.968401 Z-0.125000
G03 X34.918645 Y272.010260 Z-0.125000 I0.958141 J-0.958141
G03 X35.315520 Y271.845869 Z-0.125000 I0.232484 J0.000000
G01 X36.176858 Y272.707207 Z-0.125000
G02 X37.147210 Y273.116292 Z-0.125000 I0.987885 J-0.987885
G02 X37.313657 Y272.721477 Z-0.125000 I0.002903 J-0.231270
G01 X37.289937 Y272.697757 Z-0.125000
G03 X37.453403 Y272.299950 Z-0.125000 I0.164778 J-0.164778
G03 X38.406185 Y272.691457 Z-0.125000 I0.007531 J1.336785
G01 X39.192999 Y273.478271 Z-0.125000
G00 Z3.000000

(Change tool to Default tool)

G00 Z3.000000
G00 X36.912451 Y277.932916

G00 Z4.875000 (Fast pre-penetrate)
G01 Z-0.125000 F400.0(Penetrate)
G01 X37.369017 Y278.389482 Z-0.125000 F800.000000
G02 X38.264311 Y278.723509 Z-0.125000 I0.813451 J-0.813451
G02 X38.416814 Y278.314752 Z-0.125000 I-0.017060 J-0.239192
G01 X38.390994 Y278.288932 Z-0.125000
G03 X38.528905 Y277.865577 Z-0.125000 I0.176609 J-0.176609
G03 X39.361343 Y278.136749 Z-0.125000 I0.149618 J0.953993
G01 X39.367843 Y278.143249 Z-0.125000
G02 X40.050895 Y278.265034 Z-0.125000 I0.428843 J-0.428843
G02 X40.135823 Y277.788697 Z-0.125000 I-0.123626 J-0.267782
G01 X40.135823 Y277.788697 Z-0.125000
G03 X40.133262 Y277.224870 Z-0.125000 I0.283206 J-0.283206
G03 X40.691989 Y277.222331 Z-0.125000 I0.280622 J0.275568
G01 X40.713789 Y277.244131 Z-0.125000
G02 X41.209046 Y277.178122 Z-0.125000 I0.222387 J-0.222387
G02 X41.122735 Y276.530545 Z-0.125000 I-0.466527 J-0.267360
G01 X41.026825 Y276.434635 Z-0.125000
G03 X40.580317 Y275.426860 Z-0.125000 I1.082356 J-1.082356
G03 X40.969255 Y275.254536 Z-0.125000 I0.227723 J-0.011109
G01 X41.285122 Y275.570403 Z-0.125000
G02 X41.672433 Y275.396447 Z-0.125000 I0.160592 J-0.160592
G02 X41.214812 Y274.377559 Z-0.125000 I-1.568997 J0.092485
G01 X39.348842 Y272.511589 Z-0.125000
G00 Z3.000000

(Change tool to Default tool)

G00 Z3.000000
G00 X34.894612 Y270.302421

G00 Z4.875000 (Fast pre-penetrate)
G01 Z-0.125000 F400.0(Penetrate)
G01 X35.508459 Y270.916268 Z-0.125000 F800.000000
G02 X35.905334 Y270.751877 Z-0.125000 I0.164391 J-0.164391
G02 X35.508459 Y269.793736 Z-0.125000 I-1.355016 J0.000000
G01 X35.315561 Y269.600838 Z-0.125000
G03 X34.918686 Y268.642697 Z-0.125000 I0.958141 J-0.958141
G03 X35.315561 Y268.478306 Z-0.125000 I0.232484 J0.000000
G01 X35.929408 Y269.092153 Z-0.125000
G00 Z3.000000

(End cutting path id: path16697)


(Start cutting path id: path8179)
(Change tool to Default tool)

G00 Z3.000000
G00 X41.847719 Y275.668124

G00 Z4.875000 (Fast pre-penetrate)
G01 Z-0.125000 F400.0(Penetrate)
G02 X41.521205 Y274.129517 Z-0.125000 I-3.788379 J-0.000000 F800.000000
G02 X40.685920 Y273.054078 Z-0.125000 I-2.594754 J1.153225
G02 X39.435458 Y272.422314 Z-0.125000 I-2.186632 J2.774631
G02 X37.376325 Y272.144512 Z-0.125000 I-2.059132 J7.492467
G01 X36.061659 Y272.144512 Z-0.125000
G01 X36.061659 Y267.749553 Z-0.125000
G01 X34.762279 Y267.749553 Z-0.125000
G01 X34.762279 Y278.924215 Z-0.125000
G01 X37.659131 Y278.924215 Z-0.125000
G02 X40.778039 Y277.854534 Z-0.125000 I0.000000 J-5.081798
G02 X41.847719 Y275.668124 Z-0.125000 I-1.699654 J-2.186410
G01 X41.847719 Y275.668124 Z-0.125000
G00 Z3.000000

(Change tool to Default tool)

G00 Z3.000000
G00 X36.061659 Y273.260450

G00 Z4.875000 (Fast pre-penetrate)
G01 Z-0.125000 F400.0(Penetrate)
G01 X37.231100 Y273.260450 Z-0.125000 F800.000000
G03 X38.899006 Y273.444360 Z-0.125000 I0.000000 J7.655207
G03 X39.730494 Y273.818419 Z-0.125000 I-0.492419 J2.205766
G03 X40.272521 Y274.493916 Z-0.125000 I-0.955366 J1.321808
G03 X40.502479 Y275.606976 Z-0.125000 I-2.578769 J1.113060
G03 X40.291722 Y276.609669 Z-0.125000 I-2.490564 J-0.000000
G03 X39.776355 Y277.257952 Z-0.125000 I-1.489465 J-0.655089
G03 X38.992126 Y277.625827 Z-0.125000 I-1.284831 J-1.719140
G03 X37.513906 Y277.800634 Z-0.125000 I-1.478220 J-6.162719
G01 X36.061659 Y277.800634 Z-0.125000
G01 X36.061659 Y273.260450 Z-0.125000
G00 Z3.000000

(End cutting path id: path8179)


(Start cutting path id: path13192)
(Change tool to Default tool)

G00 Z3.000000
G00 X34.894571 Y278.160112

G00 Z4.875000 (Fast pre-penetrate)
G01 Z-0.125000 F400.0(Penetrate)
G01 X35.210476 Y278.476017 Z-0.125000 F800.000000
G02 X36.168617 Y278.872892 Z-0.125000 I0.958141 J-0.958141
G02 X36.333008 Y278.476017 Z-0.125000 I-0.000000 J-0.232484
G01 X35.315520 Y277.458529 Z-0.125000
G03 X34.918645 Y276.500388 Z-0.125000 I0.958141 J-0.958141
G03 X35.315520 Y276.335997 Z-0.125000 I0.232484 J0.000000
G01 X35.508418 Y276.528895 Z-0.125000
G02 X35.905293 Y276.364504 Z-0.125000 I0.164391 J-0.164391
G02 X35.508418 Y275.406363 Z-0.125000 I-1.355016 J0.000000
G01 X35.315520 Y275.213465 Z-0.125000
G03 X34.918645 Y274.255324 Z-0.125000 I0.958141 J-0.958141
G03 X35.315520 Y274.090933 Z-0.125000 I0.232484 J0.000000
G01 X35.508418 Y274.283831 Z-0.125000
G02 X35.905293 Y274.119440 Z-0.125000 I0.164391 J-0.164391
G02 X35.508418 Y273.161299 Z-0.125000 I-1.355016 J-0.000000
G01 X35.315520 Y272.968401 Z-0.125000
G03 X34.918645 Y272.010260 Z-0.125000 I0.958141 J-0.958141
G03 X35.315520 Y271.845869 Z-0.125000 I0.232484 J0.000000
G01 X36.176858 Y272.707207 Z-0.125000
G02 X37.147210 Y273.116292 Z-0.125000 I0.987885 J-0.987885
G02 X37.313657 Y272.721477 Z-0.125000 I0.002903 J-0.231270
G01 X37.289937 Y272.697757 Z-0.125000
G03 X37.453403 Y272.299950 Z-0.125000 I0.164778 J-0.164778
G03 X38.406185 Y272.691457 Z-0.125000 I0.007531 J1.336785
G01 X39.192999 Y273.478271 Z-0.125000
G00 Z3.000000

(Change tool to Default tool)

G00 Z3.000000
G00 X36.912451 Y277.932916

G00 Z4.875000 (Fast pre-penetrate)
G01 Z-0.125000 F400.0(Penetrate)
G01 X37.369017 Y278.389482 Z-0.125000 F800.000000
G02 X38.264311 Y278.723509 Z-0.125000 I0.813451 J-0.813451
G02 X38.416814 Y278.314752 Z-0.125000 I-0.017060 J-0.239192
G01 X38.390994 Y278.288932 Z-0.125000
G03 X38.528905 Y277.865577 Z-0.125000 I0.176609 J-0.176609
G03 X39.361343 Y278.136749 Z-0.125000 I0.149618 J0.953993
G01 X39.367843 Y278.143249 Z-0.125000
G02 X40.050895 Y278.265034 Z-0.125000 I0.428843 J-0.428843
G02 X40.135823 Y277.788697 Z-0.125000 I-0.123626 J-0.267782
G01 X40.135823 Y277.788697 Z-0.125000
G03 X40.133262 Y277.224870 Z-0.125000 I0.283206 J-0.283206
G03 X40.691989 Y277.222331 Z-0.125000 I0.280622 J0.275568
G01 X40.713789 Y277.244131 Z-0.125000
G02 X41.209046 Y277.178122 Z-0.125000 I0.222387 J-0.222387
G02 X41.122735 Y276.530545 Z-0.125000 I-0.466527 J-0.267360
G01 X41.026825 Y276.434635 Z-0.125000
G03 X40.580317 Y275.426860 Z-0.125000 I1.082356 J-1.082356
G03 X40.969255 Y275.254536 Z-0.125000 I0.227723 J-0.011109
G01 X41.285122 Y275.570403 Z-0.125000
G02 X41.672433 Y275.396447 Z-0.125000 I0.160592 J-0.160592
G02 X41.214812 Y274.377559 Z-0.125000 I-1.568997 J0.092485
G01 X39.348842 Y272.511589 Z-0.125000
G00 Z3.000000

(Change tool to Default tool)

G00 Z3.000000
G00 X34.894612 Y270.302421

G00 Z4.875000 (Fast pre-penetrate)
G01 Z-0.125000 F400.0(Penetrate)
G01 X35.508459 Y270.916268 Z-0.125000 F800.000000
G02 X35.905334 Y270.751877 Z-0.125000 I0.164391 J-0.164391
G02 X35.508459 Y269.793736 Z-0.125000 I-1.355016 J0.000000
G01 X35.315561 Y269.600838 Z-0.125000
G03 X34.918686 Y268.642697 Z-0.125000 I0.958141 J-0.958141
G03 X35.315561 Y268.478306 Z-0.125000 I0.232484 J0.000000
G01 X35.929408 Y269.092153 Z-0.125000
G00 Z3.000000

(End cutting path id: path13192)


(Start cutting path id: path8193)
(Change tool to Default tool)

G00 Z3.000000
G00 X37.964867 Y259.357091

G00 Z4.875000 (Fast pre-penetrate)
G01 Z-0.125000 F400.0(Penetrate)
G01 X39.363611 Y259.357091 Z-0.125000 F800.000000
G01 X35.335535 Y248.182428 Z-0.125000
G01 X34.051442 Y248.182428 Z-0.125000
G01 X30.046297 Y259.357091 Z-0.125000
G01 X31.422110 Y259.357091 Z-0.125000
G01 X33.990295 Y252.126426 Z-0.125000
G02 X34.395851 Y250.869710 Z-0.125000 I-20.949060 J-7.454275
G02 X34.693489 Y249.703466 Z-0.125000 I-17.740854 J-5.148769
G02 X35.007971 Y250.930297 Z-0.125000 I19.162139 J-4.258243
G02 X35.411969 Y252.172287 Z-0.125000 I20.043155 J-5.832989
G01 X37.964867 Y259.357091 Z-0.125000
G00 Z3.000000

(End cutting path id: path8193)


(Start cutting path id: path16753)
(Change tool to Default tool)

G00 Z3.000000
G00 X41.032228 Y258.711328

G00 Z4.875000 (Fast pre-penetrate)
G01 Z-0.125000 F400.0(Penetrate)
G01 X41.288964 Y258.968064 Z-0.125000 F800.000000
G02 X42.247105 Y259.364939 Z-0.125000 I0.958141 J-0.958141
G02 X42.411496 Y258.968064 Z-0.125000 I0.000000 J-0.232484
G01 X41.453178 Y258.009746 Z-0.125000
G03 X41.056303 Y257.051605 Z-0.125000 I0.958141 J-0.958141
G03 X41.453178 Y256.887214 Z-0.125000 I0.232484 J0.000000
G01 X41.646075 Y257.080111 Z-0.125000
G02 X42.042950 Y256.915720 Z-0.125000 I0.164391 J-0.164391
G02 X41.646075 Y255.957579 Z-0.125000 I-1.355016 J0.000000
G01 X41.453178 Y255.764682 Z-0.125000
G03 X41.056303 Y254.806541 Z-0.125000 I0.958141 J-0.958141
G03 X41.453178 Y254.642150 Z-0.125000 I0.232484 J0.000000
G01 X41.646075 Y254.835047 Z-0.125000
G02 X42.116824 Y254.744530 Z-0.125000 I0.204714 J-0.204714
G02 X41.983210 Y254.049650 Z-0.125000 I-0.579668 J-0.248825
G01 X41.453178 Y253.519618 Z-0.125000
G03 X41.056303 Y252.561477 Z-0.125000 I0.958141 J-0.958141
G03 X41.453178 Y252.397086 Z-0.125000 I0.232484 J0.000000
G01 X41.646075 Y252.589983 Z-0.125000
G02 X42.042950 Y252.425592 Z-0.125000 I0.164391 J-0.164391
G02 X41.646075 Y251.467451 Z-0.125000 I-1.355016 J0.000000
G01 X41.453178 Y251.274554 Z-0.125000
G03 X41.056303 Y250.316413 Z-0.125000 I0.958141 J-0.958141
G03 X41.453178 Y250.152022 Z-0.125000 I0.232484 J0.000000
G01 X41.646075 Y250.344919 Z-0.125000
G02 X42.042950 Y250.180528 Z-0.125000 I0.164391 J-0.164391
G02 X41.646075 Y249.222387 Z-0.125000 I-1.355016 J-0.000000
G01 X41.453178 Y249.029490 Z-0.125000
G03 X41.556669 Y248.571715 Z-0.125000 I0.196225 J-0.196225
G03 X42.281888 Y248.735668 Z-0.125000 I0.232740 J0.656432
G01 X42.337208 Y248.790988 Z-0.125000
G02 X43.295349 Y249.187863 Z-0.125000 I0.958141 J-0.958141
G02 X43.459740 Y248.790988 Z-0.125000 I-0.000000 J-0.232484
G01 X43.404420 Y248.735668 Z-0.125000
G03 X43.568811 Y248.338793 Z-0.125000 I0.164391 J-0.164391
G03 X44.526952 Y248.735668 Z-0.125000 I-0.000000 J1.355016
G01 X44.582272 Y248.790988 Z-0.125000
G02 X45.540413 Y249.187863 Z-0.125000 I0.958141 J-0.958141
G02 X45.704804 Y248.790988 Z-0.125000 I-0.000000 J-0.232484
G01 X45.551517 Y248.637701 Z-0.125000
G03 X45.715908 Y248.240826 Z-0.125000 I0.164391 J-0.164391
G03 X46.674049 Y248.637701 Z-0.125000 I-0.000000 J1.355016
G01 X46.997027 Y248.960679 Z-0.125000
G00 Z3.000000

(Change tool to Default tool)

G00 Z3.000000
G00 X42.901195 Y258.335232

G00 Z4.875000 (Fast pre-penetrate)
G01 Z-0.125000 F400.0(Penetrate)
G01 X43.369817 Y258.803854 Z-0.125000 F800.000000
G02 X44.327958 Y259.200729 Z-0.125000 I0.958141 J-0.958141
G02 X44.492349 Y258.803854 Z-0.125000 I-0.000000 J-0.232484
G01 X44.444679 Y258.756184 Z-0.125000
G03 X44.609070 Y258.359309 Z-0.125000 I0.164391 J-0.164391
G03 X45.567211 Y258.756184 Z-0.125000 I0.000000 J1.355016
G01 X45.671716 Y258.860689 Z-0.125000
G02 X46.496902 Y259.124608 Z-0.125000 I0.668653 J-0.668653
G02 X46.632911 Y258.699352 Z-0.125000 I-0.041572 J-0.247674
G01 X46.268794 Y258.335235 Z-0.125000
G00 Z3.000000

(Change tool to Default tool)

G00 Z3.000000
G00 X42.644769 Y253.588679

G00 Z4.875000 (Fast pre-penetrate)
G01 Z-0.125000 F400.0(Penetrate)
G01 X43.105747 Y254.049657 Z-0.125000 F800.000000
G02 X44.063888 Y254.446532 Z-0.125000 I0.958141 J-0.958141
G02 X44.228279 Y254.049657 Z-0.125000 I-0.000000 J-0.232484
G01 X44.188249 Y254.009627 Z-0.125000
G03 X44.352640 Y253.612752 Z-0.125000 I0.164391 J-0.164391
G03 X45.310781 Y254.009627 Z-0.125000 I-0.000000 J1.355016
G01 X45.428474 Y254.127320 Z-0.125000
G02 X46.227065 Y254.364645 Z-0.125000 I0.618309 J-0.618309
G02 X46.355649 Y253.931964 Z-0.125000 I-0.052922 J-0.251174
G01 X46.012363 Y253.588678 Z-0.125000
G00 Z3.000000

(End cutting path id: path16753)


(Start cutting path id: path8195)
(Change tool to Default tool)

G00 Z3.000000
G00 X47.129313 Y248.182428

G00 Z4.875000 (Fast pre-penetrate)
G01 Z-0.125000 F400.0(Penetrate)
G01 X40.899936 Y248.182428 Z-0.125000 F800.000000
G01 X40.899936 Y259.357091 Z-0.125000
G01 X47.129313 Y259.357091 Z-0.125000
G01 X47.129313 Y258.202936 Z-0.125000
G01 X42.199315 Y258.202936 Z-0.125000
G01 X42.199315 Y254.602891 Z-0.125000
G01 X46.831221 Y254.602891 Z-0.125000
G01 X46.831221 Y253.456380 Z-0.125000
G01 X42.199315 Y253.456380 Z-0.125000
G01 X42.199315 Y249.344226 Z-0.125000
G01 X47.129313 Y249.344226 Z-0.125000
G01 X47.129313 Y248.182428 Z-0.125000
G00 Z3.000000

(End cutting path id: path8195)


(Start cutting path id: path8197)
(Change tool to Default tool)

G00 Z3.000000
G00 X56.630069 Y248.182428

G00 Z4.875000 (Fast pre-penetrate)
G01 Z-0.125000 F400.0(Penetrate)
G01 X55.238969 Y251.736613 Z-0.125000 F800.000000
G01 X50.759931 Y251.736613 Z-0.125000
G01 X49.384118 Y248.182428 Z-0.125000
G01 X48.069452 Y248.182428 Z-0.125000
G01 X52.487342 Y259.402951 Z-0.125000
G01 X53.580349 Y259.402951 Z-0.125000
G01 X57.975309 Y248.182428 Z-0.125000
G01 X56.630069 Y248.182428 Z-0.125000
G00 Z3.000000

(Change tool to Default tool)

G00 Z3.000000
G00 X54.833868 Y252.906054

G00 Z4.875000 (Fast pre-penetrate)
G01 Z-0.125000 F400.0(Penetrate)
G01 X53.534489 Y256.368518 Z-0.125000 F800.000000
G02 X53.300515 Y257.031896 Z-0.125000 I12.023124 J4.613535
G02 X53.014737 Y257.981277 Z-0.125000 I24.349863 J7.847353
G02 X52.823137 Y257.254350 Z-0.125000 I-11.296871 J2.588867
G02 X52.533202 Y256.368518 Z-0.125000 I-17.071775 J5.097263
G01 X51.218536 Y252.906054 Z-0.125000
G01 X54.833868 Y252.906054 Z-0.125000
G00 Z3.000000

(End cutting path id: path8197)


(Start cutting path id: path16760)
(Change tool to Default tool)

G00 Z3.000000
G00 X51.959194 Y257.700467

G00 Z4.875000 (Fast pre-penetrate)
G01 Z-0.125000 F400.0(Penetrate)
G01 X53.192402 Y258.933675 Z-0.125000 F800.000000
G02 X53.656641 Y258.836647 Z-0.125000 I0.200379 J-0.200379
G02 X53.508337 Y258.127078 Z-0.125000 I-0.616425 J-0.241447
G01 X53.508337 Y258.127078 Z-0.125000
G03 X53.323614 Y257.381088 Z-0.125000 I0.526153 J-0.526153
G03 X53.773482 Y257.269691 Z-0.125000 I0.258523 J0.079948
G01 X53.798882 Y257.295091 Z-0.125000
G02 X54.263120 Y257.198063 Z-0.125000 I0.200379 J-0.200379
G02 X54.114817 Y256.488494 Z-0.125000 I-0.616425 J-0.241447
G01 X54.105917 Y256.479594 Z-0.125000
G03 X53.950842 Y255.763253 Z-0.125000 I0.478555 J-0.478555
G03 X54.412226 Y255.663371 Z-0.125000 I0.262858 J0.098644
G01 X54.417026 Y255.668171 Z-0.125000
G02 X54.881265 Y255.571143 Z-0.125000 I0.200379 J-0.200379
G02 X54.732961 Y254.861574 Z-0.125000 I-0.616425 J-0.241447
G01 X54.728161 Y254.856774 Z-0.125000
G03 X54.573086 Y254.140433 Z-0.125000 I0.478555 J-0.478555
G03 X55.034470 Y254.040551 Z-0.125000 I0.262858 J0.098644
G01 X55.039270 Y254.045351 Z-0.125000
G02 X55.503508 Y253.948323 Z-0.125000 I0.200379 J-0.200379
G02 X55.355205 Y253.238754 Z-0.125000 I-0.616425 J-0.241447
G01 X54.406306 Y252.289855 Z-0.125000
G03 X54.570697 Y251.892980 Z-0.125000 I0.164391 J-0.164391
G03 X55.528838 Y252.289855 Z-0.125000 I0.000000 J1.355016
G01 X55.647724 Y252.408741 Z-0.125000
G02 X56.111963 Y252.311713 Z-0.125000 I0.200379 J-0.200379
G02 X55.963659 Y251.602144 Z-0.125000 I-0.616425 J-0.241447
G01 X55.963659 Y251.602144 Z-0.125000
G03 X55.815238 Y250.892456 Z-0.125000 I0.468303 J-0.468303
G03 X56.279425 Y250.795378 Z-0.125000 I0.263842 J0.103267
G01 X56.279510 Y250.795463 Z-0.125000
G02 X56.743748 Y250.698435 Z-0.125000 I0.200379 J-0.200379
G02 X56.595445 Y249.988866 Z-0.125000 I-0.616425 J-0.241447
G01 X56.595360 Y249.988781 Z-0.125000
G03 X56.446939 Y249.279094 Z-0.125000 I0.468303 J-0.468303
G03 X56.911126 Y249.182015 Z-0.125000 I0.263842 J0.103267
G01 X57.071399 Y249.342288 Z-0.125000
G02 X57.535638 Y249.245260 Z-0.125000 I0.200379 J-0.200379
G02 X57.387334 Y248.535691 Z-0.125000 I-0.616425 J-0.241447
G01 X57.166361 Y248.314718 Z-0.125000
G00 Z3.000000

(Change tool to Default tool)

G00 Z3.000000
G00 X51.230181 Y255.848922

G00 Z4.875000 (Fast pre-penetrate)
G01 Z-0.125000 F400.0(Penetrate)
G01 X52.283484 Y256.902225 Z-0.125000 F800.000000
G02 X52.628038 Y256.685511 Z-0.125000 I0.147596 J-0.147596
G02 X51.676564 Y255.172773 Z-0.125000 I-3.796490 J1.332300
G01 X50.922115 Y254.418324 Z-0.125000
G03 X49.854073 Y252.789016 Z-0.125000 I3.381070 J-3.381070
G03 X50.193100 Y252.566777 Z-0.125000 I0.192635 J-0.075847
G01 X50.989463 Y253.363140 Z-0.125000
G02 X51.404967 Y253.217378 Z-0.125000 I0.172725 J-0.172725
G02 X51.101670 Y252.352815 Z-0.125000 I-1.051121 J-0.116738
G01 X49.464085 Y250.715230 Z-0.125000
G03 X48.396043 Y249.085922 Z-0.125000 I3.381070 J-3.381070
G03 X48.735070 Y248.863683 Z-0.125000 I0.192635 J-0.075847
G01 X49.992859 Y250.121472 Z-0.125000
G00 Z3.000000

(Change tool to Default tool)

G00 Z3.000000
G00 X52.645151 Y252.773764

G00 Z4.875000 (Fast pre-penetrate)
G01 Z-0.125000 F400.0(Penetrate)
G01 X52.161243 Y252.289856 Z-0.125000 F800.000000
G03 X52.325634 Y251.892981 Z-0.125000 I0.164391 J-0.164391
G03 X53.283775 Y252.289856 Z-0.125000 I0.000000 J1.355016
G01 X53.767683 Y252.773764 Z-0.125000
G00 Z3.000000

(End cutting path id: path16760)


(Start cutting path id: path13237)
(Change tool to Default tool)

G00 Z3.000000
G00 X51.959194 Y257.700467

G00 Z4.875000 (Fast pre-penetrate)
G01 Z-0.125000 F400.0(Penetrate)
G01 X53.192402 Y258.933675 Z-0.125000 F800.000000
G02 X53.656641 Y258.836647 Z-0.125000 I0.200379 J-0.200379
G02 X53.508337 Y258.127078 Z-0.125000 I-0.616425 J-0.241447
G01 X53.508337 Y258.127078 Z-0.125000
G03 X53.323614 Y257.381088 Z-0.125000 I0.526153 J-0.526153
G03 X53.773482 Y257.269691 Z-0.125000 I0.258523 J0.079948
G01 X53.798882 Y257.295091 Z-0.125000
G02 X54.263120 Y257.198063 Z-0.125000 I0.200379 J-0.200379
G02 X54.114817 Y256.488494 Z-0.125000 I-0.616425 J-0.241447
G01 X54.105917 Y256.479594 Z-0.125000
G03 X53.950842 Y255.763253 Z-0.125000 I0.478555 J-0.478555
G03 X54.412226 Y255.663371 Z-0.125000 I0.262858 J0.098644
G01 X54.417026 Y255.668171 Z-0.125000
G02 X54.881265 Y255.571143 Z-0.125000 I0.200379 J-0.200379
G02 X54.732961 Y254.861574 Z-0.125000 I-0.616425 J-0.241447
G01 X54.728161 Y254.856774 Z-0.125000
G03 X54.573086 Y254.140433 Z-0.125000 I0.478555 J-0.478555
G03 X55.034470 Y254.040551 Z-0.125000 I0.262858 J0.098644
G01 X55.039270 Y254.045351 Z-0.125000
G02 X55.503508 Y253.948323 Z-0.125000 I0.200379 J-0.200379
G02 X55.355205 Y253.238754 Z-0.125000 I-0.616425 J-0.241447
G01 X54.406306 Y252.289855 Z-0.125000
G03 X54.570697 Y251.892980 Z-0.125000 I0.164391 J-0.164391
G03 X55.528838 Y252.289855 Z-0.125000 I0.000000 J1.355016
G01 X55.647724 Y252.408741 Z-0.125000
G02 X56.111963 Y252.311713 Z-0.125000 I0.200379 J-0.200379
G02 X55.963659 Y251.602144 Z-0.125000 I-0.616425 J-0.241447
G01 X55.963659 Y251.602144 Z-0.125000
G03 X55.815238 Y250.892456 Z-0.125000 I0.468303 J-0.468303
G03 X56.279425 Y250.795378 Z-0.125000 I0.263842 J0.103267
G01 X56.279510 Y250.795463 Z-0.125000
G02 X56.743748 Y250.698435 Z-0.125000 I0.200379 J-0.200379
G02 X56.595445 Y249.988866 Z-0.125000 I-0.616425 J-0.241447
G01 X56.595360 Y249.988781 Z-0.125000
G03 X56.446939 Y249.279094 Z-0.125000 I0.468303 J-0.468303
G03 X56.911126 Y249.182015 Z-0.125000 I0.263842 J0.103267
G01 X57.071399 Y249.342288 Z-0.125000
G02 X57.535638 Y249.245260 Z-0.125000 I0.200379 J-0.200379
G02 X57.387334 Y248.535691 Z-0.125000 I-0.616425 J-0.241447
G01 X57.166361 Y248.314718 Z-0.125000
G00 Z3.000000

(Change tool to Default tool)

G00 Z3.000000
G00 X51.230181 Y255.848922

G00 Z4.875000 (Fast pre-penetrate)
G01 Z-0.125000 F400.0(Penetrate)
G01 X52.283484 Y256.902225 Z-0.125000 F800.000000
G02 X52.628038 Y256.685511 Z-0.125000 I0.147596 J-0.147596
G02 X51.676564 Y255.172773 Z-0.125000 I-3.796490 J1.332300
G01 X50.922115 Y254.418324 Z-0.125000
G03 X49.854073 Y252.789016 Z-0.125000 I3.381070 J-3.381070
G03 X50.193100 Y252.566777 Z-0.125000 I0.192635 J-0.075847
G01 X50.989463 Y253.363140 Z-0.125000
G02 X51.404967 Y253.217378 Z-0.125000 I0.172725 J-0.172725
G02 X51.101670 Y252.352815 Z-0.125000 I-1.051121 J-0.116738
G01 X49.464085 Y250.715230 Z-0.125000
G03 X48.396043 Y249.085922 Z-0.125000 I3.381070 J-3.381070
G03 X48.735070 Y248.863683 Z-0.125000 I0.192635 J-0.075847
G01 X49.992859 Y250.121472 Z-0.125000
G00 Z3.000000

(Change tool to Default tool)

G00 Z3.000000
G00 X52.645151 Y252.773764

G00 Z4.875000 (Fast pre-penetrate)
G01 Z-0.125000 F400.0(Penetrate)
G01 X52.161243 Y252.289856 Z-0.125000 F800.000000
G03 X52.325634 Y251.892981 Z-0.125000 I0.164391 J-0.164391
G03 X53.283775 Y252.289856 Z-0.125000 I0.000000 J1.355016
G01 X53.767683 Y252.773764 Z-0.125000
G00 Z3.000000

(End cutting path id: path13237)


(Start cutting path id: path16767)
(Change tool to Default tool)

G00 Z3.000000
G00 X58.508307 Y258.644013

G00 Z4.875000 (Fast pre-penetrate)
G01 Z-0.125000 F400.0(Penetrate)
G01 X58.798700 Y258.934406 Z-0.125000 F800.000000
G02 X59.340027 Y258.914467 Z-0.125000 I0.261402 J-0.261402
G02 X59.318562 Y258.331736 Z-0.125000 I-0.324383 J-0.279812
G01 X59.165164 Y258.178338 Z-0.125000
G03 X58.958743 Y257.410651 Z-0.125000 I0.562972 J-0.562972
G03 X59.401072 Y257.291714 Z-0.125000 I0.255429 J0.067963
G01 X59.416672 Y257.307314 Z-0.125000
G02 X59.857211 Y257.186587 Z-0.125000 I0.185874 J-0.185874
G02 X59.645336 Y256.413446 Z-0.125000 I-0.784364 J-0.200651
G01 X59.636936 Y256.405046 Z-0.125000
G03 X59.430515 Y255.637359 Z-0.125000 I0.562972 J-0.562972
G03 X59.872844 Y255.518422 Z-0.125000 I0.255429 J0.067963
G01 X59.877044 Y255.522622 Z-0.125000
G02 X60.317583 Y255.401895 Z-0.125000 I0.185874 J-0.185874
G02 X60.105708 Y254.628754 Z-0.125000 I-0.784364 J-0.200651
G01 X60.102108 Y254.625154 Z-0.125000
G03 X59.895687 Y253.857467 Z-0.125000 I0.562972 J-0.562972
G03 X60.338016 Y253.738530 Z-0.125000 I0.255429 J0.067963
G01 X60.341616 Y253.742130 Z-0.125000
G02 X60.782155 Y253.621403 Z-0.125000 I0.185874 J-0.185874
G02 X60.570280 Y252.848262 Z-0.125000 I-0.784364 J-0.200651
G01 X60.567480 Y252.845462 Z-0.125000
G03 X60.361059 Y252.077775 Z-0.125000 I0.562972 J-0.562972
G03 X60.803388 Y251.958838 Z-0.125000 I0.255429 J0.067963
G01 X60.815958 Y251.971408 Z-0.125000
G02 X61.252201 Y251.846384 Z-0.125000 I0.183459 J-0.183459
G02 X61.026726 Y251.059644 Z-0.125000 I-0.822160 J-0.190054
G01 X61.002886 Y251.035804 Z-0.125000
G03 X60.796465 Y250.268117 Z-0.125000 I0.562972 J-0.562972
G03 X61.238794 Y250.149180 Z-0.125000 I0.255430 J0.067963
G01 X61.238794 Y250.149180 Z-0.125000
G02 X62.521505 Y250.870626 Z-0.125000 I1.929419 J-1.929419
G02 X62.723547 Y250.511401 Z-0.125000 I0.050720 J-0.207903
G01 X61.524272 Y249.312126 Z-0.125000
G03 X61.516590 Y248.743178 Z-0.125000 I0.288420 J-0.288420
G03 X62.070378 Y248.735701 Z-0.125000 I0.280533 J0.265778
G01 X62.627611 Y249.292934 Z-0.125000
G00 Z3.000000

(Change tool to Default tool)

G00 Z3.000000
G00 X64.516584 Y259.039630

G00 Z4.875000 (Fast pre-penetrate)
G01 Z-0.125000 F400.0(Penetrate)
G01 X64.609184 Y259.132230 Z-0.125000 F800.000000
G02 X65.519458 Y259.481246 Z-0.125000 I0.846679 J-0.846679
G02 X65.675020 Y259.075530 Z-0.125000 I-0.012633 J-0.237525
G01 X64.397578 Y257.798088 Z-0.125000
G03 X64.581975 Y257.421219 Z-0.125000 I0.156818 J-0.156818
G03 X65.680953 Y257.958932 Z-0.125000 I-0.234515 J1.871204
G01 X65.680953 Y257.958932 Z-0.125000
G02 X66.130356 Y257.847068 Z-0.125000 I0.191064 J-0.191064
G02 X65.944346 Y257.099793 Z-0.125000 I-0.714297 J-0.218988
G01 X65.926926 Y257.082373 Z-0.125000
G03 X65.731564 Y256.325744 Z-0.125000 I0.543997 J-0.543997
G03 X66.177649 Y256.210564 Z-0.125000 I0.256996 J0.073909
G01 X66.183949 Y256.216864 Z-0.125000
G02 X66.633352 Y256.105000 Z-0.125000 I0.191064 J-0.191064
G02 X66.447342 Y255.357725 Z-0.125000 I-0.714298 J-0.218987
G01 X66.445642 Y255.356025 Z-0.125000
G03 X66.257084 Y254.606201 Z-0.125000 I0.532538 J-0.532538
G03 X66.705569 Y254.493420 Z-0.125000 I0.257971 J0.077734
G01 X66.707269 Y254.495120 Z-0.125000
G02 X67.156672 Y254.383256 Z-0.125000 I0.191064 J-0.191064
G02 X66.970662 Y253.635981 Z-0.125000 I-0.714297 J-0.218988
G01 X66.968962 Y253.634281 Z-0.125000
G03 X66.780404 Y252.884457 Z-0.125000 I0.532538 J-0.532538
G03 X67.228889 Y252.771676 Z-0.125000 I0.257971 J0.077734
G01 X67.230589 Y252.773376 Z-0.125000
G02 X67.679358 Y252.660880 Z-0.125000 I0.190684 J-0.190684
G02 X67.491592 Y251.911847 Z-0.125000 I-0.718980 J-0.217818
G01 X67.479912 Y251.900167 Z-0.125000
G03 X67.291354 Y251.150343 Z-0.125000 I0.532538 J-0.532538
G03 X67.739839 Y251.037562 Z-0.125000 I0.257971 J0.077734
G01 X67.767819 Y251.065542 Z-0.125000
G02 X68.202475 Y250.938932 Z-0.125000 I0.182583 J-0.182583
G02 X67.971788 Y250.146979 Z-0.125000 I-0.836821 J-0.185818
G01 X67.971788 Y250.146979 Z-0.125000
G03 X67.783230 Y249.397155 Z-0.125000 I0.532538 J-0.532538
G03 X68.231715 Y249.284374 Z-0.125000 I0.257971 J0.077734
G01 X69.436054 Y250.488713 Z-0.125000
G02 X69.791954 Y250.283347 Z-0.125000 I0.150410 J-0.150410
G02 X69.026241 Y248.956368 Z-0.125000 I-2.856689 J0.763998
G01 X68.384511 Y248.314638 Z-0.125000
G00 Z3.000000

(Change tool to Default tool)

G00 Z3.000000
G00 X63.578349 Y255.856327

G00 Z4.875000 (Fast pre-penetrate)
G01 Z-0.125000 F400.0(Penetrate)
G01 X64.529663 Y256.807641 Z-0.125000 F800.000000
G02 X64.882713 Y256.599425 Z-0.125000 I0.149660 J-0.149660
G02 X64.075825 Y255.231271 Z-0.125000 I-3.054408 J0.879366
G01 X63.530234 Y254.685680 Z-0.125000
G03 X62.671812 Y253.265991 Z-0.125000 I2.451961 J-2.451961
G03 X63.021585 Y253.054499 Z-0.125000 I0.200940 J-0.062659
G01 X63.608493 Y253.641407 Z-0.125000
G02 X63.960710 Y253.432359 Z-0.125000 I0.149446 J-0.149446
G02 X63.141180 Y252.051562 Z-0.125000 I-3.116354 J0.916016
G01 X62.236435 Y251.146817 Z-0.125000
G00 Z3.000000

(Change tool to Default tool)

G00 Z3.000000
G00 X70.823491 Y258.611342

G00 Z4.875000 (Fast pre-penetrate)
G01 Z-0.125000 F400.0(Penetrate)
G01 X71.130179 Y258.918030 Z-0.125000 F800.000000
G02 X71.649163 Y258.875748 Z-0.125000 I0.241536 J-0.241536
G02 X71.599380 Y258.264699 Z-0.125000 I-0.384614 J-0.276217
G01 X70.859667 Y257.524986 Z-0.125000
G03 X70.117280 Y256.221332 Z-0.125000 I2.004978 J-2.004978
G03 X70.474895 Y256.017682 Z-0.125000 I0.206740 J-0.052775
G01 X71.075306 Y256.618093 Z-0.125000
G02 X71.431206 Y256.412727 Z-0.125000 I0.150410 J-0.150410
G02 X70.665493 Y255.085748 Z-0.125000 I-2.856689 J0.763998
G01 X70.090123 Y254.510378 Z-0.125000
G03 X69.312768 Y253.171757 Z-0.125000 I2.134628 J-2.134628
G03 X69.667839 Y252.965562 Z-0.125000 I0.204882 J-0.056006
G01 X70.255680 Y253.553403 Z-0.125000
G02 X70.611580 Y253.348037 Z-0.125000 I0.150410 J-0.150410
G02 X69.845867 Y252.021058 Z-0.125000 I-2.856689 J0.763998
G01 X68.921832 Y251.097023 Z-0.125000
G00 Z3.000000

(End cutting path id: path16767)


(Start cutting path id: path8199)
(Change tool to Default tool)

G00 Z3.000000
G00 X69.264623 Y248.182428

G00 Z4.875000 (Fast pre-penetrate)
G01 Z-0.125000 F400.0(Penetrate)
G01 X67.980530 Y248.182428 Z-0.125000 F800.000000
G01 X65.725725 Y255.665324 Z-0.125000
G02 X65.573579 Y256.164594 Z-0.125000 I14.876374 J4.806221
G02 X65.366485 Y256.918843 Z-0.125000 I33.750018 J9.672256
G02 X65.180838 Y257.677563 Z-0.125000 I22.409991 J5.885459
G02 X65.160113 Y257.828409 Z-0.125000 I0.858607 J0.194810
G02 X64.955862 Y256.827966 Z-0.125000 I-13.897321 J2.316220
G02 X64.625074 Y255.619464 Z-0.125000 I-20.618284 J4.994052
G01 X62.439059 Y248.182428 Z-0.125000
G01 X61.154967 Y248.182428 Z-0.125000
G01 X58.181681 Y259.357091 Z-0.125000
G01 X59.557494 Y259.357091 Z-0.125000
G01 X61.323122 Y252.455093 Z-0.125000
G02 X61.655674 Y250.996076 Z-0.125000 I-31.066285 J-7.848309
G02 X61.858160 Y249.825761 Z-0.125000 I-19.779370 J-4.024868
G02 X62.115169 Y251.213166 Z-0.125000 I19.030347 J-2.807757
G02 X62.469633 Y252.562101 Z-0.125000 I18.342660 J-4.098921
G01 X64.472206 Y259.357091 Z-0.125000
G01 X65.848019 Y259.357091 Z-0.125000
G01 X67.949957 Y252.500953 Z-0.125000
G02 X68.272864 Y251.305744 Z-0.125000 I-16.229595 J-5.025932
G02 X68.569073 Y249.825761 Z-0.125000 I-24.600863 J-5.693344
G02 X68.753067 Y250.903524 Z-0.125000 I15.022845 J-2.010088
G02 X69.119398 Y252.470380 Z-0.125000 I32.140225 J-6.688135
G01 X70.877382 Y259.357091 Z-0.125000
G01 X72.253195 Y259.357091 Z-0.125000
G01 X69.264623 Y248.182428 Z-0.125000
G00 Z3.000000

(End cutting path id: path8199)


(Start cutting path id: path8201)
(Change tool to Default tool)

G00 Z3.000000
G00 X81.027827 Y248.182428

G00 Z4.875000 (Fast pre-penetrate)
G01 Z-0.125000 F400.0(Penetrate)
G01 X79.636727 Y251.736613 Z-0.125000 F800.000000
G01 X75.157690 Y251.736613 Z-0.125000
G01 X73.781877 Y248.182428 Z-0.125000
G01 X72.467210 Y248.182428 Z-0.125000
G01 X76.885100 Y259.402951 Z-0.125000
G01 X77.978108 Y259.402951 Z-0.125000
G01 X82.373067 Y248.182428 Z-0.125000
G01 X81.027827 Y248.182428 Z-0.125000
G00 Z3.000000

(Change tool to Default tool)

G00 Z3.000000
G00 X79.231627 Y252.906054

G00 Z4.875000 (Fast pre-penetrate)
G01 Z-0.125000 F400.0(Penetrate)
G01 X77.932247 Y256.368518 Z-0.125000 F800.000000
G02 X77.698273 Y257.031895 Z-0.125000 I12.023416 J4.613629
G02 X77.412495 Y257.981277 Z-0.125000 I24.350480 J7.847552
G02 X77.220895 Y257.254350 Z-0.125000 I-11.296971 J2.588890
G02 X76.930961 Y256.368518 Z-0.125000 I-17.071915 J5.097295
G01 X75.616294 Y252.906054 Z-0.125000
G01 X79.231627 Y252.906054 Z-0.125000
G00 Z3.000000

(End cutting path id: path8201)


(Start cutting path id: path16774)
(Change tool to Default tool)

G00 Z3.000000
G00 X76.356952 Y257.700467

G00 Z4.875000 (Fast pre-penetrate)
G01 Z-0.125000 F400.0(Penetrate)
G01 X77.590160 Y258.933675 Z-0.125000 F800.000000
G02 X78.054399 Y258.836647 Z-0.125000 I0.200379 J-0.200379
G02 X77.906095 Y258.127078 Z-0.125000 I-0.616425 J-0.241447
G01 X77.906095 Y258.127078 Z-0.125000
G03 X77.721372 Y257.381088 Z-0.125000 I0.526153 J-0.526153
G03 X78.171240 Y257.269691 Z-0.125000 I0.258523 J0.079948
G01 X78.196640 Y257.295091 Z-0.125000
G02 X78.660878 Y257.198063 Z-0.125000 I0.200379 J-0.200379
G02 X78.512575 Y256.488494 Z-0.125000 I-0.616425 J-0.241447
G01 X78.503675 Y256.479594 Z-0.125000
G03 X78.348600 Y255.763253 Z-0.125000 I0.478555 J-0.478555
G03 X78.809984 Y255.663371 Z-0.125000 I0.262858 J0.098644
G01 X78.814784 Y255.668171 Z-0.125000
G02 X79.279022 Y255.571143 Z-0.125000 I0.200378 J-0.200378
G02 X79.130719 Y254.861574 Z-0.125000 I-0.616426 J-0.241447
G01 X79.125919 Y254.856774 Z-0.125000
G03 X78.970844 Y254.140433 Z-0.125000 I0.478555 J-0.478555
G03 X79.432228 Y254.040551 Z-0.125000 I0.262858 J0.098644
G01 X79.437028 Y254.045351 Z-0.125000
G02 X79.901266 Y253.948323 Z-0.125000 I0.200378 J-0.200378
G02 X79.752963 Y253.238754 Z-0.125000 I-0.616426 J-0.241447
G01 X78.804064 Y252.289855 Z-0.125000
G03 X78.968455 Y251.892980 Z-0.125000 I0.164391 J-0.164391
G03 X79.926596 Y252.289855 Z-0.125000 I-0.000000 J1.355016
G01 X80.045483 Y252.408742 Z-0.125000
G02 X80.509722 Y252.311714 Z-0.125000 I0.200379 J-0.200379
G02 X80.361418 Y251.602145 Z-0.125000 I-0.616425 J-0.241447
G01 X80.361418 Y251.602145 Z-0.125000
G03 X80.212997 Y250.892458 Z-0.125000 I0.468303 J-0.468303
G03 X80.677184 Y250.795379 Z-0.125000 I0.263842 J0.103267
G01 X80.677269 Y250.795464 Z-0.125000
G02 X81.141508 Y250.698436 Z-0.125000 I0.200379 J-0.200379
G02 X80.993204 Y249.988867 Z-0.125000 I-0.616425 J-0.241447
G01 X80.993119 Y249.988782 Z-0.125000
G03 X80.844698 Y249.279095 Z-0.125000 I0.468303 J-0.468303
G03 X81.308885 Y249.182016 Z-0.125000 I0.263842 J0.103267
G01 X81.469158 Y249.342289 Z-0.125000
G02 X81.933397 Y249.245261 Z-0.125000 I0.200379 J-0.200379
G02 X81.785093 Y248.535692 Z-0.125000 I-0.616425 J-0.241447
G01 X81.564120 Y248.314719 Z-0.125000
G00 Z3.000000

(Change tool to Default tool)

G00 Z3.000000
G00 X75.627939 Y255.848922

G00 Z4.875000 (Fast pre-penetrate)
G01 Z-0.125000 F400.0(Penetrate)
G01 X76.681243 Y256.902226 Z-0.125000 F800.000000
G02 X77.025796 Y256.685512 Z-0.125000 I0.147596 J-0.147596
G02 X76.074324 Y255.172775 Z-0.125000 I-3.796497 J1.332303
G01 X75.319874 Y254.418325 Z-0.125000
G03 X74.251832 Y252.789017 Z-0.125000 I3.381070 J-3.381070
G03 X74.590859 Y252.566778 Z-0.125000 I0.192635 J-0.075847
G01 X75.387222 Y253.363141 Z-0.125000
G02 X75.802726 Y253.217379 Z-0.125000 I0.172725 J-0.172725
G02 X75.499429 Y252.352816 Z-0.125000 I-1.051121 J-0.116738
G01 X73.861844 Y250.715231 Z-0.125000
G03 X72.793802 Y249.085923 Z-0.125000 I3.381070 J-3.381070
G03 X73.132829 Y248.863684 Z-0.125000 I0.192635 J-0.075847
G01 X74.390620 Y250.121475 Z-0.125000
G00 Z3.000000

(Change tool to Default tool)

G00 Z3.000000
G00 X77.042909 Y252.773764

G00 Z4.875000 (Fast pre-penetrate)
G01 Z-0.125000 F400.0(Penetrate)
G01 X76.559001 Y252.289856 Z-0.125000 F800.000000
G03 X76.723392 Y251.892981 Z-0.125000 I0.164391 J-0.164391
G03 X77.681533 Y252.289856 Z-0.125000 I-0.000000 J1.355016
G01 X78.165441 Y252.773764 Z-0.125000
G00 Z3.000000

(End cutting path id: path16774)


(Start cutting path id: path13247)
(Change tool to Default tool)

G00 Z3.000000
G00 X76.356952 Y257.700467

G00 Z4.875000 (Fast pre-penetrate)
G01 Z-0.125000 F400.0(Penetrate)
G01 X77.590160 Y258.933675 Z-0.125000 F800.000000
G02 X78.054399 Y258.836647 Z-0.125000 I0.200379 J-0.200379
G02 X77.906095 Y258.127078 Z-0.125000 I-0.616425 J-0.241447
G01 X77.906095 Y258.127078 Z-0.125000
G03 X77.721372 Y257.381088 Z-0.125000 I0.526153 J-0.526153
G03 X78.171240 Y257.269691 Z-0.125000 I0.258523 J0.079948
G01 X78.196640 Y257.295091 Z-0.125000
G02 X78.660878 Y257.198063 Z-0.125000 I0.200379 J-0.200379
G02 X78.512575 Y256.488494 Z-0.125000 I-0.616425 J-0.241447
G01 X78.503675 Y256.479594 Z-0.125000
G03 X78.348600 Y255.763253 Z-0.125000 I0.478555 J-0.478555
G03 X78.809984 Y255.663371 Z-0.125000 I0.262858 J0.098644
G01 X78.814784 Y255.668171 Z-0.125000
G02 X79.279022 Y255.571143 Z-0.125000 I0.200378 J-0.200378
G02 X79.130719 Y254.861574 Z-0.125000 I-0.616426 J-0.241447
G01 X79.125919 Y254.856774 Z-0.125000
G03 X78.970844 Y254.140433 Z-0.125000 I0.478555 J-0.478555
G03 X79.432228 Y254.040551 Z-0.125000 I0.262858 J0.098644
G01 X79.437028 Y254.045351 Z-0.125000
G02 X79.901266 Y253.948323 Z-0.125000 I0.200378 J-0.200378
G02 X79.752963 Y253.238754 Z-0.125000 I-0.616426 J-0.241447
G01 X78.804064 Y252.289855 Z-0.125000
G03 X78.968455 Y251.892980 Z-0.125000 I0.164391 J-0.164391
G03 X79.926596 Y252.289855 Z-0.125000 I-0.000000 J1.355016
G01 X80.045483 Y252.408742 Z-0.125000
G02 X80.509722 Y252.311714 Z-0.125000 I0.200379 J-0.200379
G02 X80.361418 Y251.602145 Z-0.125000 I-0.616425 J-0.241447
G01 X80.361418 Y251.602145 Z-0.125000
G03 X80.212997 Y250.892458 Z-0.125000 I0.468303 J-0.468303
G03 X80.677184 Y250.795379 Z-0.125000 I0.263842 J0.103267
G01 X80.677269 Y250.795464 Z-0.125000
G02 X81.141508 Y250.698436 Z-0.125000 I0.200379 J-0.200379
G02 X80.993204 Y249.988867 Z-0.125000 I-0.616425 J-0.241447
G01 X80.993119 Y249.988782 Z-0.125000
G03 X80.844698 Y249.279095 Z-0.125000 I0.468303 J-0.468303
G03 X81.308885 Y249.182016 Z-0.125000 I0.263842 J0.103267
G01 X81.469158 Y249.342289 Z-0.125000
G02 X81.933397 Y249.245261 Z-0.125000 I0.200379 J-0.200379
G02 X81.785093 Y248.535692 Z-0.125000 I-0.616425 J-0.241447
G01 X81.564120 Y248.314719 Z-0.125000
G00 Z3.000000

(Change tool to Default tool)

G00 Z3.000000
G00 X75.627939 Y255.848922

G00 Z4.875000 (Fast pre-penetrate)
G01 Z-0.125000 F400.0(Penetrate)
G01 X76.681243 Y256.902226 Z-0.125000 F800.000000
G02 X77.025796 Y256.685512 Z-0.125000 I0.147596 J-0.147596
G02 X76.074324 Y255.172775 Z-0.125000 I-3.796497 J1.332303
G01 X75.319874 Y254.418325 Z-0.125000
G03 X74.251832 Y252.789017 Z-0.125000 I3.381070 J-3.381070
G03 X74.590859 Y252.566778 Z-0.125000 I0.192635 J-0.075847
G01 X75.387222 Y253.363141 Z-0.125000
G02 X75.802726 Y253.217379 Z-0.125000 I0.172725 J-0.172725
G02 X75.499429 Y252.352816 Z-0.125000 I-1.051121 J-0.116738
G01 X73.861844 Y250.715231 Z-0.125000
G03 X72.793802 Y249.085923 Z-0.125000 I3.381070 J-3.381070
G03 X73.132829 Y248.863684 Z-0.125000 I0.192635 J-0.075847
G01 X74.390620 Y250.121475 Z-0.125000
G00 Z3.000000

(Change tool to Default tool)

G00 Z3.000000
G00 X77.042909 Y252.773764

G00 Z4.875000 (Fast pre-penetrate)
G01 Z-0.125000 F400.0(Penetrate)
G01 X76.559001 Y252.289856 Z-0.125000 F800.000000
G03 X76.723392 Y251.892981 Z-0.125000 I0.164391 J-0.164391
G03 X77.681533 Y252.289856 Z-0.125000 I-0.000000 J1.355016
G01 X78.165441 Y252.773764 Z-0.125000
G00 Z3.000000

(End cutting path id: path13247)


(Start cutting path id: path16781)
(Change tool to Default tool)

G00 Z3.000000
G00 X82.838631 Y258.772533

G00 Z4.875000 (Fast pre-penetrate)
G01 Z-0.125000 F400.0(Penetrate)
G01 X83.064764 Y258.998666 Z-0.125000 F800.000000
G02 X83.683198 Y259.055833 Z-0.125000 I0.343623 J-0.343623
G02 X83.730690 Y258.542060 Z-0.125000 I-0.189666 J-0.276614
G01 X83.592011 Y258.403381 Z-0.125000
G03 X83.495725 Y257.745828 Z-0.125000 I0.393438 J-0.393438
G03 X83.985301 Y257.674139 Z-0.125000 I0.271476 J0.146411
G01 X83.987701 Y257.676539 Z-0.125000
G02 X84.475603 Y257.603175 Z-0.125000 I0.216858 J-0.216858
G02 X84.376270 Y256.942576 Z-0.125000 I-0.496878 J-0.263053
G01 X84.373870 Y256.940176 Z-0.125000
G03 X84.277583 Y256.282625 Z-0.125000 I0.393437 J-0.393437
G03 X84.767160 Y256.210934 Z-0.125000 I0.271477 J0.146411
G01 X84.769560 Y256.213334 Z-0.125000
G02 X85.257462 Y256.139970 Z-0.125000 I0.216858 J-0.216858
G02 X85.158129 Y255.479371 Z-0.125000 I-0.496878 J-0.263053
G01 X85.155729 Y255.476971 Z-0.125000
G03 X85.059443 Y254.819418 Z-0.125000 I0.393438 J-0.393438
G03 X85.549019 Y254.747729 Z-0.125000 I0.271476 J0.146411
G01 X85.551419 Y254.750129 Z-0.125000
G02 X86.039321 Y254.676765 Z-0.125000 I0.216858 J-0.216858
G02 X85.939988 Y254.016166 Z-0.125000 I-0.496878 J-0.263053
G01 X85.939988 Y254.016166 Z-0.125000
G03 X85.843702 Y253.358612 Z-0.125000 I0.393438 J-0.393438
G03 X86.333278 Y253.286924 Z-0.125000 I0.271475 J0.146411
G01 X89.293929 Y256.247575 Z-0.125000
G00 Z3.000000

(Change tool to Default tool)

G00 Z3.000000
G00 X89.569398 Y258.768109

G00 Z4.875000 (Fast pre-penetrate)
G01 Z-0.125000 F400.0(Penetrate)
G01 X89.797763 Y258.996474 Z-0.125000 F800.000000
G02 X90.386488 Y259.023933 Z-0.125000 I0.309435 J-0.309435
G02 X90.411499 Y258.487678 Z-0.125000 I-0.231725 J-0.279518
G01 X88.285565 Y256.361744 Z-0.125000
G00 Z3.000000

(Change tool to Default tool)

G00 Z3.000000
G00 X87.947992 Y253.779108

G00 Z4.875000 (Fast pre-penetrate)
G01 Z-0.125000 F400.0(Penetrate)
G01 X86.648687 Y252.479803 Z-0.125000 F800.000000
G03 X86.251812 Y251.521662 Z-0.125000 I0.958141 J-0.958141
G03 X86.648687 Y251.357271 Z-0.125000 I0.232484 J0.000000
G01 X86.856871 Y251.565455 Z-0.125000
G02 X87.253746 Y251.401064 Z-0.125000 I0.164391 J-0.164391
G02 X86.856871 Y250.442923 Z-0.125000 I-1.355016 J0.000000
G01 X86.648687 Y250.234739 Z-0.125000
G03 X86.251812 Y249.276598 Z-0.125000 I0.958141 J-0.958141
G03 X86.648687 Y249.112207 Z-0.125000 I0.232484 J0.000000
G01 X87.125795 Y249.589315 Z-0.125000
G02 X87.522670 Y249.424924 Z-0.125000 I0.164391 J-0.164391
G02 X87.125795 Y248.466783 Z-0.125000 I-1.355016 J0.000000
G01 X86.973770 Y248.314758 Z-0.125000
G00 Z3.000000

(End cutting path id: path16781)


(Start cutting path id: path8203)
(Change tool to Default tool)

G00 Z3.000000
G00 X86.752740 Y253.769759

G00 Z4.875000 (Fast pre-penetrate)
G01 Z-0.125000 F400.0(Penetrate)
G01 X89.733669 Y259.357091 Z-0.125000 F800.000000
G01 X91.140057 Y259.357091 Z-0.125000
G01 X87.410073 Y252.516240 Z-0.125000
G01 X87.410073 Y248.182428 Z-0.125000
G01 X86.095407 Y248.182428 Z-0.125000
G01 X86.095407 Y252.455093 Z-0.125000
G01 X82.373067 Y259.357091 Z-0.125000
G01 X83.794741 Y259.357091 Z-0.125000
G01 X86.752740 Y253.769759 Z-0.125000
G00 Z3.000000

(End cutting path id: path8203)


(Start cutting path id: path13252)
(Change tool to Default tool)

G00 Z3.000000
G00 X82.838631 Y258.772533

G00 Z4.875000 (Fast pre-penetrate)
G01 Z-0.125000 F400.0(Penetrate)
G01 X83.064764 Y258.998666 Z-0.125000 F800.000000
G02 X83.683198 Y259.055833 Z-0.125000 I0.343623 J-0.343623
G02 X83.730690 Y258.542060 Z-0.125000 I-0.189666 J-0.276614
G01 X83.592011 Y258.403381 Z-0.125000
G03 X83.495725 Y257.745828 Z-0.125000 I0.393438 J-0.393438
G03 X83.985301 Y257.674139 Z-0.125000 I0.271476 J0.146411
G01 X83.987701 Y257.676539 Z-0.125000
G02 X84.475603 Y257.603175 Z-0.125000 I0.216858 J-0.216858
G02 X84.376270 Y256.942576 Z-0.125000 I-0.496878 J-0.263053
G01 X84.373870 Y256.940176 Z-0.125000
G03 X84.277583 Y256.282625 Z-0.125000 I0.393437 J-0.393437
G03 X84.767160 Y256.210934 Z-0.125000 I0.271477 J0.146411
G01 X84.769560 Y256.213334 Z-0.125000
G02 X85.257462 Y256.139970 Z-0.125000 I0.216858 J-0.216858
G02 X85.158129 Y255.479371 Z-0.125000 I-0.496878 J-0.263053
G01 X85.155729 Y255.476971 Z-0.125000
G03 X85.059443 Y254.819418 Z-0.125000 I0.393438 J-0.393438
G03 X85.549019 Y254.747729 Z-0.125000 I0.271476 J0.146411
G01 X85.551419 Y254.750129 Z-0.125000
G02 X86.039321 Y254.676765 Z-0.125000 I0.216858 J-0.216858
G02 X85.939988 Y254.016166 Z-0.125000 I-0.496878 J-0.263053
G01 X85.939988 Y254.016166 Z-0.125000
G03 X85.843702 Y253.358612 Z-0.125000 I0.393438 J-0.393438
G03 X86.333278 Y253.286924 Z-0.125000 I0.271475 J0.146411
G01 X89.293929 Y256.247575 Z-0.125000
G00 Z3.000000

(Change tool to Default tool)

G00 Z3.000000
G00 X89.569398 Y258.768109

G00 Z4.875000 (Fast pre-penetrate)
G01 Z-0.125000 F400.0(Penetrate)
G01 X89.797763 Y258.996474 Z-0.125000 F800.000000
G02 X90.386488 Y259.023933 Z-0.125000 I0.309435 J-0.309435
G02 X90.411499 Y258.487678 Z-0.125000 I-0.231725 J-0.279518
G01 X88.285565 Y256.361744 Z-0.125000
G00 Z3.000000

(Change tool to Default tool)

G00 Z3.000000
G00 X87.947992 Y253.779108

G00 Z4.875000 (Fast pre-penetrate)
G01 Z-0.125000 F400.0(Penetrate)
G01 X86.648687 Y252.479803 Z-0.125000 F800.000000
G03 X86.251812 Y251.521662 Z-0.125000 I0.958141 J-0.958141
G03 X86.648687 Y251.357271 Z-0.125000 I0.232484 J0.000000
G01 X86.856871 Y251.565455 Z-0.125000
G02 X87.253746 Y251.401064 Z-0.125000 I0.164391 J-0.164391
G02 X86.856871 Y250.442923 Z-0.125000 I-1.355016 J0.000000
G01 X86.648687 Y250.234739 Z-0.125000
G03 X86.251812 Y249.276598 Z-0.125000 I0.958141 J-0.958141
G03 X86.648687 Y249.112207 Z-0.125000 I0.232484 J0.000000
G01 X87.125795 Y249.589315 Z-0.125000
G02 X87.522670 Y249.424924 Z-0.125000 I0.164391 J-0.164391
G02 X87.125795 Y248.466783 Z-0.125000 I-1.355016 J0.000000
G01 X86.973770 Y248.314758 Z-0.125000
G00 Z3.000000

(End cutting path id: path13252)


(Start cutting path id: path8187)
(Change tool to Default tool)

G00 Z3.000000
G00 X66.658222 Y268.643831

G00 Z4.875000 (Fast pre-penetrate)
G01 Z-0.125000 F400.0(Penetrate)
G03 X66.993672 Y268.655656 Z-0.125000 I0.000000 J4.764073 F800.000000
G03 X67.307912 Y268.689691 Z-0.125000 I-0.297456 J4.214010
G03 X67.619755 Y268.749864 Z-0.125000 I-1.241434 J7.271788
G03 X67.804733 Y268.796699 Z-0.125000 I-0.560698 J2.603231
G01 X67.804733 Y267.825986 Z-0.125000
G02 X67.591880 Y267.747634 Z-0.125000 I-0.513259 J1.066046
G02 X67.193261 Y267.665474 Z-0.125000 I-0.967257 J3.684776
G02 X66.794493 Y267.611954 Z-0.125000 I-0.903949 J5.222865
G02 X66.474780 Y267.596684 Z-0.125000 I-0.319712 J3.339253
G02 X64.774516 Y268.327022 Z-0.125000 I-0.000000 J2.344321
G02 X64.044177 Y270.157225 Z-0.125000 I1.928044 J1.830203
G01 X64.044177 Y275.140727 Z-0.125000
G01 X62.844162 Y275.140727 Z-0.125000
G01 X62.844162 Y275.752200 Z-0.125000
G01 X64.044177 Y276.279595 Z-0.125000
G01 X64.579215 Y278.068153 Z-0.125000
G01 X65.312982 Y278.068153 Z-0.125000
G01 X65.312982 Y276.126727 Z-0.125000
G01 X67.743586 Y276.126727 Z-0.125000
G01 X67.743586 Y275.140727 Z-0.125000
G01 X65.312982 Y275.140727 Z-0.125000
G01 X65.312982 Y270.210729 Z-0.125000
G03 X65.421102 Y269.495067 Z-0.125000 I2.422597 J0.000000
G03 X65.672223 Y269.048931 Z-0.125000 I1.157979 J0.358060
G03 X66.082577 Y268.757474 Z-0.125000 I0.833938 J0.739529
G03 X66.658222 Y268.643830 Z-0.125000 I0.575645 J1.401097
G01 X66.658222 Y268.643831 Z-0.125000
G00 Z3.000000

(End cutting path id: path8187)


(Start cutting path id: path8185)
(Change tool to Default tool)

G00 Z3.000000
G00 X60.077247 Y267.749553

G00 Z4.875000 (Fast pre-penetrate)
G01 Z-0.125000 F400.0(Penetrate)
G01 X60.077247 Y273.168729 Z-0.125000 F800.000000
G03 X59.932947 Y274.136475 Z-0.125000 I-3.317237 J0.000000
G03 X59.610999 Y274.697411 Z-0.125000 I-1.386362 J-0.422840
G03 X59.076762 Y275.046455 Z-0.125000 I-0.962126 J-0.889238
G03 X58.151108 Y275.201876 Z-0.125000 I-0.925653 J-2.678784
G03 X56.936041 Y274.984822 Z-0.125000 I0.000000 J-3.509496
G03 X56.224969 Y274.491039 Z-0.125000 I0.597718 J-1.619624
G03 X55.813603 Y273.705976 Z-0.125000 I1.488018 J-1.280016
G03 X55.613496 Y272.144512 Z-0.125000 I5.992118 J-1.561464
G01 X55.613496 Y267.749553 Z-0.125000
G01 X54.344691 Y267.749553 Z-0.125000
G01 X54.344691 Y276.126728 Z-0.125000
G01 X55.376551 Y276.126728 Z-0.125000
G01 X55.582923 Y274.980217 Z-0.125000
G01 X55.644073 Y274.980217 Z-0.125000
G02 X56.104973 Y275.519498 Z-0.125000 I2.073509 J-1.305543
G02 X56.737080 Y275.935643 Z-0.125000 I1.835261 J-2.099538
G02 X57.461427 Y276.188209 Z-0.125000 I1.414660 J-2.892199
G02 X58.303979 Y276.279596 Z-0.125000 I0.842552 J-3.838299
G02 X59.727410 Y276.055977 Z-0.125000 I0.000000 J-4.642187
G02 X60.581715 Y275.545829 Z-0.125000 I-0.678812 J-2.107146
G02 X61.106094 Y274.716687 Z-0.125000 I-1.381239 J-1.453934
G02 X61.346055 Y273.214590 Z-0.125000 I-4.581400 J-1.502097
G01 X61.346055 Y267.749553 Z-0.125000
G01 X60.077247 Y267.749553 Z-0.125000
G00 Z3.000000

(End cutting path id: path8185)


(Start cutting path id: path8183)
(Change tool to Default tool)

G00 Z3.000000
G00 X51.654211 Y267.749553

G00 Z4.875000 (Fast pre-penetrate)
G01 Z-0.125000 F400.0(Penetrate)
G01 X50.385405 Y267.749553 Z-0.125000 F800.000000
G01 X50.385405 Y276.126728 Z-0.125000
G01 X51.654211 Y276.126728 Z-0.125000
G01 X51.654211 Y267.749553 Z-0.125000
G00 Z3.000000

(Change tool to Default tool)

G00 Z3.000000
G00 X50.278397 Y278.396820

G00 Z4.875000 (Fast pre-penetrate)
G01 Z-0.125000 F400.0(Penetrate)
G02 X50.345129 Y278.803395 Z-0.125000 I1.271934 J0.000000 F800.000000
G02 X50.492413 Y279.031223 Z-0.125000 I0.522517 J-0.176271
G02 X50.728864 Y279.182006 Z-0.125000 I0.491017 J-0.509201
G02 X51.027451 Y279.237595 Z-0.125000 I0.298587 J-0.774114
G02 X51.312058 Y279.183894 Z-0.125000 I-0.000000 J-0.781030
G02 X51.554846 Y279.031223 Z-0.125000 I-0.279074 J-0.713190
G02 X51.708876 Y278.795413 Z-0.125000 I-0.399664 J-0.429269
G02 X51.776505 Y278.396820 Z-0.125000 I-1.140800 J-0.398593
G02 X51.709472 Y277.997246 Z-0.125000 I-1.224417 J0.000000
G02 X51.554846 Y277.754774 Z-0.125000 I-0.583105 J0.201310
G02 X51.312058 Y277.602103 Z-0.125000 I-0.521862 J0.560519
G02 X51.027451 Y277.548402 Z-0.125000 I-0.284607 J0.727329
G02 X50.728864 Y277.603991 Z-0.125000 I-0.000000 J0.829703
G02 X50.492413 Y277.754774 Z-0.125000 I0.254566 J0.659985
G02 X50.343483 Y277.995748 Z-0.125000 I0.435925 J0.435927
G02 X50.278397 Y278.396820 Z-0.125000 I1.203211 J0.401072
G01 X50.278397 Y278.396820 Z-0.125000
G00 Z3.000000

(End cutting path id: path8183)


(Start cutting path id: path16711)
(Change tool to Default tool)

G00 Z3.000000
G00 X50.443254 Y278.856365

G00 Z4.875000 (Fast pre-penetrate)
G01 Z-0.125000 F400.0(Penetrate)
G01 X50.548750 Y278.961861 Z-0.125000 F800.000000
G02 X51.319724 Y279.171567 Z-0.125000 I0.568691 J-0.568691
G02 X51.439741 Y278.730321 Z-0.125000 I-0.066258 J-0.254967
G01 X50.788524 Y278.079104 Z-0.125000
G03 X49.947412 Y276.115450 Z-0.125000 I2.032622 J-2.032622
G03 X50.733304 Y275.778824 Z-0.125000 I0.460309 J-0.011047
G01 X50.733304 Y275.778824 Z-0.125000
G02 X51.300499 Y275.784751 Z-0.125000 I0.286623 J-0.286623
G02 X51.306303 Y275.229291 Z-0.125000 I-0.269083 J-0.280572
G01 X50.938642 Y274.861630 Z-0.125000
G03 X50.541767 Y273.903489 Z-0.125000 I0.958141 J-0.958141
G03 X50.938642 Y273.739098 Z-0.125000 I0.232484 J0.000000
G01 X51.100966 Y273.901422 Z-0.125000
G02 X51.497841 Y273.737031 Z-0.125000 I0.164391 J-0.164391
G02 X51.100966 Y272.778890 Z-0.125000 I-1.355016 J0.000000
G01 X50.938642 Y272.616566 Z-0.125000
G03 X50.541767 Y271.658425 Z-0.125000 I0.958141 J-0.958141
G03 X50.938642 Y271.494034 Z-0.125000 I0.232484 J0.000000
G01 X51.100966 Y271.656358 Z-0.125000
G02 X51.497841 Y271.491967 Z-0.125000 I0.164391 J-0.164391
G02 X51.100966 Y270.533826 Z-0.125000 I-1.355016 J-0.000000
G01 X50.938642 Y270.371502 Z-0.125000
G03 X50.541767 Y269.413361 Z-0.125000 I0.958141 J-0.958141
G03 X50.938642 Y269.248970 Z-0.125000 I0.232484 J0.000000
G01 X51.107982 Y269.418310 Z-0.125000
G02 X51.504857 Y269.253919 Z-0.125000 I0.164391 J-0.164391
G02 X51.107982 Y268.295778 Z-0.125000 I-1.355017 J0.000000
G01 X50.694052 Y267.881844 Z-0.125000
G00 Z3.000000

(End cutting path id: path16711)


(Start cutting path id: path16718)
(Change tool to Default tool)

G00 Z3.000000
G00 X54.476983 Y275.326880

G00 Z4.875000 (Fast pre-penetrate)
G01 Z-0.125000 F400.0(Penetrate)
G01 X54.810761 Y275.660658 Z-0.125000 F800.000000
G02 X55.263048 Y275.551679 Z-0.125000 I0.192814 J-0.192814
G02 X55.084882 Y274.812247 Z-0.125000 I-0.693523 J-0.224077
G01 X54.897932 Y274.625297 Z-0.125000
G03 X54.501057 Y273.667156 Z-0.125000 I0.958141 J-0.958141
G03 X54.897932 Y273.502765 Z-0.125000 I0.232484 J0.000000
G01 X57.042046 Y275.646879 Z-0.125000
G02 X58.072903 Y276.116470 Z-0.125000 I1.143114 J-1.143114
G02 X58.248563 Y275.730859 Z-0.125000 I0.015708 J-0.225660
G01 X58.198703 Y275.680999 Z-0.125000
G03 X58.351558 Y275.272586 Z-0.125000 I0.169407 J-0.169407
G03 X59.248530 Y275.608289 Z-0.125000 I0.079841 J1.152843
G01 X59.248530 Y275.608289 Z-0.125000
G02 X59.910938 Y275.709430 Z-0.125000 I0.400000 J-0.400000
G02 X59.985283 Y275.222510 Z-0.125000 I-0.141789 J-0.270785
G01 X59.984283 Y275.221510 Z-0.125000
G03 X59.913373 Y274.589331 Z-0.125000 I0.360503 J-0.360503
G03 X60.418031 Y274.532726 Z-0.125000 I0.274923 J0.173128
G01 X60.457491 Y274.572186 Z-0.125000
G02 X60.911490 Y274.464919 Z-0.125000 I0.193866 J-0.193866
G02 X60.737853 Y273.730016 Z-0.125000 I-0.681624 J-0.226916
G01 X60.630537 Y273.622700 Z-0.125000
G03 X60.233662 Y272.664559 Z-0.125000 I0.958141 J-0.958141
G03 X60.630537 Y272.500168 Z-0.125000 I0.232484 J0.000000
G01 X60.830817 Y272.700448 Z-0.125000
G02 X61.222355 Y272.530718 Z-0.125000 I0.162231 J-0.162231
G02 X60.792867 Y271.539962 Z-0.125000 I-1.468269 J0.048019
G01 X60.630541 Y271.377636 Z-0.125000
G03 X60.233666 Y270.419495 Z-0.125000 I0.958141 J-0.958141
G03 X60.630541 Y270.255104 Z-0.125000 I0.232484 J0.000000
G01 X60.792867 Y270.417430 Z-0.125000
G02 X61.189742 Y270.253039 Z-0.125000 I0.164391 J-0.164391
G02 X60.792867 Y269.294898 Z-0.125000 I-1.355016 J-0.000000
G01 X60.565309 Y269.067340 Z-0.125000
G03 X60.400619 Y268.341383 Z-0.125000 I0.493648 J-0.493648
G03 X60.858100 Y268.237599 Z-0.125000 I0.261442 J0.092255
G01 X61.213817 Y268.593316 Z-0.125000
G00 Z3.000000

(Change tool to Default tool)

G00 Z3.000000
G00 X55.533997 Y273.016285

G00 Z4.875000 (Fast pre-penetrate)
G01 Z-0.125000 F400.0(Penetrate)
G01 X54.897984 Y272.380272 Z-0.125000 F800.000000
G03 X54.501109 Y271.422131 Z-0.125000 I0.958141 J-0.958141
G03 X54.897984 Y271.257740 Z-0.125000 I0.232484 J0.000000
G01 X55.060307 Y271.420063 Z-0.125000
G02 X55.457182 Y271.255672 Z-0.125000 I0.164391 J-0.164391
G02 X55.060307 Y270.297531 Z-0.125000 I-1.355016 J0.000000
G01 X54.897984 Y270.135208 Z-0.125000
G03 X54.501109 Y269.177067 Z-0.125000 I0.958141 J-0.958141
G03 X54.897984 Y269.012676 Z-0.125000 I0.232484 J0.000000
G01 X55.185489 Y269.300181 Z-0.125000
G02 X55.582364 Y269.135790 Z-0.125000 I0.164391 J-0.164391
G02 X55.185489 Y268.177649 Z-0.125000 I-1.355016 J0.000000
G01 X54.889670 Y267.881844 Z-0.125000
G00 Z3.000000

(End cutting path id: path16718)


(Start cutting path id: path13207)
(Change tool to Default tool)

G00 Z3.000000
G00 X54.476983 Y275.326880

G00 Z4.875000 (Fast pre-penetrate)
G01 Z-0.125000 F400.0(Penetrate)
G01 X54.810761 Y275.660658 Z-0.125000 F800.000000
G02 X55.263048 Y275.551679 Z-0.125000 I0.192814 J-0.192814
G02 X55.084882 Y274.812247 Z-0.125000 I-0.693523 J-0.224077
G01 X54.897932 Y274.625297 Z-0.125000
G03 X54.501057 Y273.667156 Z-0.125000 I0.958141 J-0.958141
G03 X54.897932 Y273.502765 Z-0.125000 I0.232484 J0.000000
G01 X57.042046 Y275.646879 Z-0.125000
G02 X58.072903 Y276.116470 Z-0.125000 I1.143114 J-1.143114
G02 X58.248563 Y275.730859 Z-0.125000 I0.015708 J-0.225660
G01 X58.198703 Y275.680999 Z-0.125000
G03 X58.351558 Y275.272586 Z-0.125000 I0.169407 J-0.169407
G03 X59.248530 Y275.608289 Z-0.125000 I0.079841 J1.152843
G01 X59.248530 Y275.608289 Z-0.125000
G02 X59.910938 Y275.709430 Z-0.125000 I0.400000 J-0.400000
G02 X59.985283 Y275.222510 Z-0.125000 I-0.141789 J-0.270785
G01 X59.984283 Y275.221510 Z-0.125000
G03 X59.913373 Y274.589331 Z-0.125000 I0.360503 J-0.360503
G03 X60.418031 Y274.532726 Z-0.125000 I0.274923 J0.173128
G01 X60.457491 Y274.572186 Z-0.125000
G02 X60.911490 Y274.464919 Z-0.125000 I0.193866 J-0.193866
G02 X60.737853 Y273.730016 Z-0.125000 I-0.681624 J-0.226916
G01 X60.630537 Y273.622700 Z-0.125000
G03 X60.233662 Y272.664559 Z-0.125000 I0.958141 J-0.958141
G03 X60.630537 Y272.500168 Z-0.125000 I0.232484 J0.000000
G01 X60.830817 Y272.700448 Z-0.125000
G02 X61.222355 Y272.530718 Z-0.125000 I0.162231 J-0.162231
G02 X60.792867 Y271.539962 Z-0.125000 I-1.468269 J0.048019
G01 X60.630541 Y271.377636 Z-0.125000
G03 X60.233666 Y270.419495 Z-0.125000 I0.958141 J-0.958141
G03 X60.630541 Y270.255104 Z-0.125000 I0.232484 J0.000000
G01 X60.792867 Y270.417430 Z-0.125000
G02 X61.189742 Y270.253039 Z-0.125000 I0.164391 J-0.164391
G02 X60.792867 Y269.294898 Z-0.125000 I-1.355016 J-0.000000
G01 X60.565309 Y269.067340 Z-0.125000
G03 X60.400619 Y268.341383 Z-0.125000 I0.493648 J-0.493648
G03 X60.858100 Y268.237599 Z-0.125000 I0.261442 J0.092255
G01 X61.213817 Y268.593316 Z-0.125000
G00 Z3.000000

(Change tool to Default tool)

G00 Z3.000000
G00 X55.533997 Y273.016285

G00 Z4.875000 (Fast pre-penetrate)
G01 Z-0.125000 F400.0(Penetrate)
G01 X54.897984 Y272.380272 Z-0.125000 F800.000000
G03 X54.501109 Y271.422131 Z-0.125000 I0.958141 J-0.958141
G03 X54.897984 Y271.257740 Z-0.125000 I0.232484 J0.000000
G01 X55.060307 Y271.420063 Z-0.125000
G02 X55.457182 Y271.255672 Z-0.125000 I0.164391 J-0.164391
G02 X55.060307 Y270.297531 Z-0.125000 I-1.355016 J0.000000
G01 X54.897984 Y270.135208 Z-0.125000
G03 X54.501109 Y269.177067 Z-0.125000 I0.958141 J-0.958141
G03 X54.897984 Y269.012676 Z-0.125000 I0.232484 J0.000000
G01 X55.185489 Y269.300181 Z-0.125000
G02 X55.582364 Y269.135790 Z-0.125000 I0.164391 J-0.164391
G02 X55.185489 Y268.177649 Z-0.125000 I-1.355016 J0.000000
G01 X54.889670 Y267.881844 Z-0.125000
G00 Z3.000000

(End cutting path id: path13207)


(Start cutting path id: path13242)
(Change tool to Default tool)

G00 Z3.000000
G00 X58.508307 Y258.644013

G00 Z4.875000 (Fast pre-penetrate)
G01 Z-0.125000 F400.0(Penetrate)
G01 X58.798700 Y258.934406 Z-0.125000 F800.000000
G02 X59.340027 Y258.914467 Z-0.125000 I0.261402 J-0.261402
G02 X59.318562 Y258.331736 Z-0.125000 I-0.324383 J-0.279812
G01 X59.165164 Y258.178338 Z-0.125000
G03 X58.958743 Y257.410651 Z-0.125000 I0.562972 J-0.562972
G03 X59.401072 Y257.291714 Z-0.125000 I0.255429 J0.067963
G01 X59.416672 Y257.307314 Z-0.125000
G02 X59.857211 Y257.186587 Z-0.125000 I0.185874 J-0.185874
G02 X59.645336 Y256.413446 Z-0.125000 I-0.784364 J-0.200651
G01 X59.636936 Y256.405046 Z-0.125000
G03 X59.430515 Y255.637359 Z-0.125000 I0.562972 J-0.562972
G03 X59.872844 Y255.518422 Z-0.125000 I0.255429 J0.067963
G01 X59.877044 Y255.522622 Z-0.125000
G02 X60.317583 Y255.401895 Z-0.125000 I0.185874 J-0.185874
G02 X60.105708 Y254.628754 Z-0.125000 I-0.784364 J-0.200651
G01 X60.102108 Y254.625154 Z-0.125000
G03 X59.895687 Y253.857467 Z-0.125000 I0.562972 J-0.562972
G03 X60.338016 Y253.738530 Z-0.125000 I0.255429 J0.067963
G01 X60.341616 Y253.742130 Z-0.125000
G02 X60.782155 Y253.621403 Z-0.125000 I0.185874 J-0.185874
G02 X60.570280 Y252.848262 Z-0.125000 I-0.784364 J-0.200651
G01 X60.567480 Y252.845462 Z-0.125000
G03 X60.361059 Y252.077775 Z-0.125000 I0.562972 J-0.562972
G03 X60.803388 Y251.958838 Z-0.125000 I0.255429 J0.067963
G01 X60.815958 Y251.971408 Z-0.125000
G02 X61.252201 Y251.846384 Z-0.125000 I0.183459 J-0.183459
G02 X61.026726 Y251.059644 Z-0.125000 I-0.822160 J-0.190054
G01 X61.002886 Y251.035804 Z-0.125000
G03 X60.796465 Y250.268117 Z-0.125000 I0.562972 J-0.562972
G03 X61.238794 Y250.149180 Z-0.125000 I0.255430 J0.067963
G01 X61.238794 Y250.149180 Z-0.125000
G02 X62.521505 Y250.870626 Z-0.125000 I1.929419 J-1.929419
G02 X62.723547 Y250.511401 Z-0.125000 I0.050720 J-0.207903
G01 X61.524272 Y249.312126 Z-0.125000
G03 X61.516590 Y248.743178 Z-0.125000 I0.288420 J-0.288420
G03 X62.070378 Y248.735701 Z-0.125000 I0.280533 J0.265778
G01 X62.627611 Y249.292934 Z-0.125000
G00 Z3.000000

(Change tool to Default tool)

G00 Z3.000000
G00 X64.516584 Y259.039630

G00 Z4.875000 (Fast pre-penetrate)
G01 Z-0.125000 F400.0(Penetrate)
G01 X64.609184 Y259.132230 Z-0.125000 F800.000000
G02 X65.519458 Y259.481246 Z-0.125000 I0.846679 J-0.846679
G02 X65.675020 Y259.075530 Z-0.125000 I-0.012633 J-0.237525
G01 X64.397578 Y257.798088 Z-0.125000
G03 X64.581975 Y257.421219 Z-0.125000 I0.156818 J-0.156818
G03 X65.680953 Y257.958932 Z-0.125000 I-0.234515 J1.871204
G01 X65.680953 Y257.958932 Z-0.125000
G02 X66.130356 Y257.847068 Z-0.125000 I0.191064 J-0.191064
G02 X65.944346 Y257.099793 Z-0.125000 I-0.714297 J-0.218988
G01 X65.926926 Y257.082373 Z-0.125000
G03 X65.731564 Y256.325744 Z-0.125000 I0.543997 J-0.543997
G03 X66.177649 Y256.210564 Z-0.125000 I0.256996 J0.073909
G01 X66.183949 Y256.216864 Z-0.125000
G02 X66.633352 Y256.105000 Z-0.125000 I0.191064 J-0.191064
G02 X66.447342 Y255.357725 Z-0.125000 I-0.714298 J-0.218987
G01 X66.445642 Y255.356025 Z-0.125000
G03 X66.257084 Y254.606201 Z-0.125000 I0.532538 J-0.532538
G03 X66.705569 Y254.493420 Z-0.125000 I0.257971 J0.077734
G01 X66.707269 Y254.495120 Z-0.125000
G02 X67.156672 Y254.383256 Z-0.125000 I0.191064 J-0.191064
G02 X66.970662 Y253.635981 Z-0.125000 I-0.714297 J-0.218988
G01 X66.968962 Y253.634281 Z-0.125000
G03 X66.780404 Y252.884457 Z-0.125000 I0.532538 J-0.532538
G03 X67.228889 Y252.771676 Z-0.125000 I0.257971 J0.077734
G01 X67.230589 Y252.773376 Z-0.125000
G02 X67.679358 Y252.660880 Z-0.125000 I0.190684 J-0.190684
G02 X67.491592 Y251.911847 Z-0.125000 I-0.718980 J-0.217818
G01 X67.479912 Y251.900167 Z-0.125000
G03 X67.291354 Y251.150343 Z-0.125000 I0.532538 J-0.532538
G03 X67.739839 Y251.037562 Z-0.125000 I0.257971 J0.077734
G01 X67.767819 Y251.065542 Z-0.125000
G02 X68.202475 Y250.938932 Z-0.125000 I0.182583 J-0.182583
G02 X67.971788 Y250.146979 Z-0.125000 I-0.836821 J-0.185818
G01 X67.971788 Y250.146979 Z-0.125000
G03 X67.783230 Y249.397155 Z-0.125000 I0.532538 J-0.532538
G03 X68.231715 Y249.284374 Z-0.125000 I0.257971 J0.077734
G01 X69.436054 Y250.488713 Z-0.125000
G02 X69.791954 Y250.283347 Z-0.125000 I0.150410 J-0.150410
G02 X69.026241 Y248.956368 Z-0.125000 I-2.856689 J0.763998
G01 X68.384511 Y248.314638 Z-0.125000
G00 Z3.000000

(Change tool to Default tool)

G00 Z3.000000
G00 X63.578349 Y255.856327

G00 Z4.875000 (Fast pre-penetrate)
G01 Z-0.125000 F400.0(Penetrate)
G01 X64.529663 Y256.807641 Z-0.125000 F800.000000
G02 X64.882713 Y256.599425 Z-0.125000 I0.149660 J-0.149660
G02 X64.075825 Y255.231271 Z-0.125000 I-3.054408 J0.879366
G01 X63.530234 Y254.685680 Z-0.125000
G03 X62.671812 Y253.265991 Z-0.125000 I2.451961 J-2.451961
G03 X63.021585 Y253.054499 Z-0.125000 I0.200940 J-0.062659
G01 X63.608493 Y253.641407 Z-0.125000
G02 X63.960710 Y253.432359 Z-0.125000 I0.149446 J-0.149446
G02 X63.141180 Y252.051562 Z-0.125000 I-3.116354 J0.916016
G01 X62.236435 Y251.146817 Z-0.125000
G00 Z3.000000

(Change tool to Default tool)

G00 Z3.000000
G00 X70.823491 Y258.611342

G00 Z4.875000 (Fast pre-penetrate)
G01 Z-0.125000 F400.0(Penetrate)
G01 X71.130179 Y258.918030 Z-0.125000 F800.000000
G02 X71.649163 Y258.875748 Z-0.125000 I0.241536 J-0.241536
G02 X71.599380 Y258.264699 Z-0.125000 I-0.384614 J-0.276217
G01 X70.859667 Y257.524986 Z-0.125000
G03 X70.117280 Y256.221332 Z-0.125000 I2.004978 J-2.004978
G03 X70.474895 Y256.017682 Z-0.125000 I0.206740 J-0.052775
G01 X71.075306 Y256.618093 Z-0.125000
G02 X71.431206 Y256.412727 Z-0.125000 I0.150410 J-0.150410
G02 X70.665493 Y255.085748 Z-0.125000 I-2.856689 J0.763998
G01 X70.090123 Y254.510378 Z-0.125000
G03 X69.312768 Y253.171757 Z-0.125000 I2.134628 J-2.134628
G03 X69.667839 Y252.965562 Z-0.125000 I0.204882 J-0.056006
G01 X70.255680 Y253.553403 Z-0.125000
G02 X70.611580 Y253.348037 Z-0.125000 I0.150410 J-0.150410
G02 X69.845867 Y252.021058 Z-0.125000 I-2.856689 J0.763998
G01 X68.921832 Y251.097023 Z-0.125000
G00 Z3.000000

(End cutting path id: path13242)


(Start cutting path id: path16725)
(Change tool to Default tool)

G00 Z3.000000
G00 X64.283120 Y276.616753

G00 Z4.875000 (Fast pre-penetrate)
G01 Z-0.125000 F400.0(Penetrate)
G01 X64.759741 Y277.093374 Z-0.125000 F800.000000
G02 X65.156616 Y276.928983 Z-0.125000 I0.164391 J-0.164391
G02 X64.759741 Y275.970842 Z-0.125000 I-1.355016 J-0.000000
G01 X64.482868 Y275.693969 Z-0.125000
G03 X64.181475 Y274.831309 Z-0.125000 I0.743871 J-0.743871
G03 X64.597419 Y274.685988 Z-0.125000 I0.243007 J0.027616
G01 X65.545159 Y275.633728 Z-0.125000
G02 X66.503300 Y276.030603 Z-0.125000 I0.958141 J-0.958141
G02 X66.667691 Y275.633728 Z-0.125000 I-0.000000 J-0.232484
G01 X66.397873 Y275.363910 Z-0.125000
G03 X66.562264 Y274.967035 Z-0.125000 I0.164391 J-0.164391
G03 X67.520405 Y275.363910 Z-0.125000 I-0.000000 J1.355016
G01 X67.611295 Y275.454800 Z-0.125000
G00 Z3.000000

(Change tool to Default tool)

G00 Z3.000000
G00 X62.976454 Y275.310086

G00 Z4.875000 (Fast pre-penetrate)
G01 Z-0.125000 F400.0(Penetrate)
G01 X63.611145 Y275.944777 Z-0.125000 F800.000000
G00 Z3.000000

(Change tool to Default tool)

G00 Z3.000000
G00 X65.180690 Y274.146727

G00 Z4.875000 (Fast pre-penetrate)
G01 Z-0.125000 F400.0(Penetrate)
G01 X64.597418 Y273.563455 Z-0.125000 F800.000000
G03 X64.200543 Y272.605314 Z-0.125000 I0.958141 J-0.958141
G03 X64.597418 Y272.440923 Z-0.125000 I0.232484 J0.000000
G01 X64.759741 Y272.603246 Z-0.125000
G02 X65.156616 Y272.438855 Z-0.125000 I0.164391 J-0.164391
G02 X64.759741 Y271.480714 Z-0.125000 I-1.355016 J0.000000
G01 X64.597418 Y271.318391 Z-0.125000
G03 X64.213891 Y270.373597 Z-0.125000 I0.926235 J-0.926235
G03 X64.613098 Y270.211544 Z-0.125000 I0.233840 J0.003313
G01 X64.765320 Y270.363766 Z-0.125000
G02 X65.169390 Y270.206571 Z-0.125000 I0.167464 J-0.167464
G02 X64.812010 Y269.287927 Z-0.125000 I-1.222943 J-0.053076
G01 X64.759050 Y269.234967 Z-0.125000
G03 X64.709045 Y268.623696 Z-0.125000 I0.335094 J-0.335094
G03 X65.227868 Y268.581253 Z-0.125000 I0.277424 J0.198957
G01 X65.237668 Y268.591053 Z-0.125000
G02 X65.890062 Y268.682181 Z-0.125000 I0.386556 J-0.386556
G02 X65.958852 Y268.189705 Z-0.125000 I-0.151484 J-0.272202
G01 X65.958852 Y268.189705 Z-0.125000
G03 X66.106097 Y267.775684 Z-0.125000 I0.172017 J-0.172017
G03 X66.977150 Y268.085472 Z-0.125000 I0.109648 J1.071191
G01 X67.511858 Y268.620180 Z-0.125000
G00 Z3.000000

(End cutting path id: path16725)


(Start cutting path id: path13212)
(Change tool to Default tool)

G00 Z3.000000
G00 X64.283120 Y276.616753

G00 Z4.875000 (Fast pre-penetrate)
G01 Z-0.125000 F400.0(Penetrate)
G01 X64.759741 Y277.093374 Z-0.125000 F800.000000
G02 X65.156616 Y276.928983 Z-0.125000 I0.164391 J-0.164391
G02 X64.759741 Y275.970842 Z-0.125000 I-1.355016 J-0.000000
G01 X64.482868 Y275.693969 Z-0.125000
G03 X64.181475 Y274.831309 Z-0.125000 I0.743871 J-0.743871
G03 X64.597419 Y274.685988 Z-0.125000 I0.243007 J0.027616
G01 X65.545159 Y275.633728 Z-0.125000
G02 X66.503300 Y276.030603 Z-0.125000 I0.958141 J-0.958141
G02 X66.667691 Y275.633728 Z-0.125000 I-0.000000 J-0.232484
G01 X66.397873 Y275.363910 Z-0.125000
G03 X66.562264 Y274.967035 Z-0.125000 I0.164391 J-0.164391
G03 X67.520405 Y275.363910 Z-0.125000 I-0.000000 J1.355016
G01 X67.611295 Y275.454800 Z-0.125000
G00 Z3.000000

(Change tool to Default tool)

G00 Z3.000000
G00 X62.976454 Y275.310086

G00 Z4.875000 (Fast pre-penetrate)
G01 Z-0.125000 F400.0(Penetrate)
G01 X63.611145 Y275.944777 Z-0.125000 F800.000000
G00 Z3.000000

(Change tool to Default tool)

G00 Z3.000000
G00 X65.180690 Y274.146727

G00 Z4.875000 (Fast pre-penetrate)
G01 Z-0.125000 F400.0(Penetrate)
G01 X64.597418 Y273.563455 Z-0.125000 F800.000000
G03 X64.200543 Y272.605314 Z-0.125000 I0.958141 J-0.958141
G03 X64.597418 Y272.440923 Z-0.125000 I0.232484 J0.000000
G01 X64.759741 Y272.603246 Z-0.125000
G02 X65.156616 Y272.438855 Z-0.125000 I0.164391 J-0.164391
G02 X64.759741 Y271.480714 Z-0.125000 I-1.355016 J0.000000
G01 X64.597418 Y271.318391 Z-0.125000
G03 X64.213891 Y270.373597 Z-0.125000 I0.926235 J-0.926235
G03 X64.613098 Y270.211544 Z-0.125000 I0.233840 J0.003313
G01 X64.765320 Y270.363766 Z-0.125000
G02 X65.169390 Y270.206571 Z-0.125000 I0.167464 J-0.167464
G02 X64.812010 Y269.287927 Z-0.125000 I-1.222943 J-0.053076
G01 X64.759050 Y269.234967 Z-0.125000
G03 X64.709045 Y268.623696 Z-0.125000 I0.335094 J-0.335094
G03 X65.227868 Y268.581253 Z-0.125000 I0.277424 J0.198957
G01 X65.237668 Y268.591053 Z-0.125000
G02 X65.890062 Y268.682181 Z-0.125000 I0.386556 J-0.386556
G02 X65.958852 Y268.189705 Z-0.125000 I-0.151484 J-0.272202
G01 X65.958852 Y268.189705 Z-0.125000
G03 X66.106097 Y267.775684 Z-0.125000 I0.172017 J-0.172017
G03 X66.977150 Y268.085472 Z-0.125000 I0.109648 J1.071191
G01 X67.511858 Y268.620180 Z-0.125000
G00 Z3.000000

(End cutting path id: path13212)


(Start cutting path id: path13202)
(Change tool to Default tool)

G00 Z3.000000
G00 X50.443254 Y278.856365

G00 Z4.875000 (Fast pre-penetrate)
G01 Z-0.125000 F400.0(Penetrate)
G01 X50.548750 Y278.961861 Z-0.125000 F800.000000
G02 X51.319724 Y279.171567 Z-0.125000 I0.568691 J-0.568691
G02 X51.439741 Y278.730321 Z-0.125000 I-0.066258 J-0.254967
G01 X50.788524 Y278.079104 Z-0.125000
G03 X49.947412 Y276.115450 Z-0.125000 I2.032622 J-2.032622
G03 X50.733304 Y275.778824 Z-0.125000 I0.460309 J-0.011047
G01 X50.733304 Y275.778824 Z-0.125000
G02 X51.300499 Y275.784751 Z-0.125000 I0.286623 J-0.286623
G02 X51.306303 Y275.229291 Z-0.125000 I-0.269083 J-0.280572
G01 X50.938642 Y274.861630 Z-0.125000
G03 X50.541767 Y273.903489 Z-0.125000 I0.958141 J-0.958141
G03 X50.938642 Y273.739098 Z-0.125000 I0.232484 J0.000000
G01 X51.100966 Y273.901422 Z-0.125000
G02 X51.497841 Y273.737031 Z-0.125000 I0.164391 J-0.164391
G02 X51.100966 Y272.778890 Z-0.125000 I-1.355016 J0.000000
G01 X50.938642 Y272.616566 Z-0.125000
G03 X50.541767 Y271.658425 Z-0.125000 I0.958141 J-0.958141
G03 X50.938642 Y271.494034 Z-0.125000 I0.232484 J0.000000
G01 X51.100966 Y271.656358 Z-0.125000
G02 X51.497841 Y271.491967 Z-0.125000 I0.164391 J-0.164391
G02 X51.100966 Y270.533826 Z-0.125000 I-1.355016 J-0.000000
G01 X50.938642 Y270.371502 Z-0.125000
G03 X50.541767 Y269.413361 Z-0.125000 I0.958141 J-0.958141
G03 X50.938642 Y269.248970 Z-0.125000 I0.232484 J0.000000
G01 X51.107982 Y269.418310 Z-0.125000
G02 X51.504857 Y269.253919 Z-0.125000 I0.164391 J-0.164391
G02 X51.107982 Y268.295778 Z-0.125000 I-1.355017 J0.000000
G01 X50.694052 Y267.881844 Z-0.125000
G00 Z3.000000

(End cutting path id: path13202)


(Start cutting path id: path8181)
(Change tool to Default tool)

G00 Z3.000000
G00 X47.817220 Y276.279596

G00 Z4.875000 (Fast pre-penetrate)
G01 Z-0.125000 F400.0(Penetrate)
G02 X48.372591 Y276.254213 Z-0.125000 I0.000000 J-6.088242 F800.000000
G02 X48.818507 Y276.187876 Z-0.125000 I-0.365194 J-3.986746
G01 X48.642708 Y275.010791 Z-0.125000
G03 X48.120278 Y275.100865 Z-0.125000 I-1.231593 J-5.583181
G03 X47.725499 Y275.125443 Z-0.125000 I-0.394778 J-3.158203
G03 X46.802754 Y274.917949 Z-0.125000 I0.000000 J-2.155513
G03 X45.982802 Y274.299955 Z-0.125000 I1.087509 J-2.295853
G03 X45.460672 Y273.400985 Z-0.125000 I2.075962 J-1.806853
G03 X45.264322 Y272.243878 Z-0.125000 I3.311298 J-1.157107
G01 X45.264322 Y267.749554 Z-0.125000
G01 X43.995516 Y267.749554 Z-0.125000
G01 X43.995516 Y276.126729 Z-0.125000
G01 X45.042663 Y276.126729 Z-0.125000
G01 X45.187888 Y274.575117 Z-0.125000
G01 X45.249038 Y274.575117 Z-0.125000
G02 X45.788068 Y275.325459 Z-0.125000 I3.835751 J-2.186736
G02 X46.372619 Y275.836280 Z-0.125000 I2.327571 J-2.073653
G02 X47.064467 Y276.166693 Z-0.125000 I1.455564 J-2.158253
G02 X47.817223 Y276.279597 Z-0.125000 I0.752757 J-2.452952
G01 X47.817220 Y276.279596 Z-0.125000
G00 Z3.000000

(End cutting path id: path8181)


(Start cutting path id: path16704)
(Change tool to Default tool)

G00 Z3.000000
G00 X44.127808 Y275.541868

G00 Z4.875000 (Fast pre-penetrate)
G01 Z-0.125000 F400.0(Penetrate)
G01 X44.354092 Y275.768152 Z-0.125000 F800.000000
G02 X44.849228 Y275.702022 Z-0.125000 I0.222294 J-0.222294
G02 X44.762710 Y275.054238 Z-0.125000 I-0.467005 J-0.267296
G01 X44.548757 Y274.840285 Z-0.125000
G03 X44.151882 Y273.882144 Z-0.125000 I0.958141 J-0.958141
G03 X44.548757 Y273.717753 Z-0.125000 I0.232484 J0.000000
G01 X46.390047 Y275.559043 Z-0.125000
G02 X47.489097 Y276.096826 Z-0.125000 I1.333700 J-1.333700
G02 X47.673501 Y275.719965 Z-0.125000 I0.027590 J-0.220047
G01 X47.229365 Y275.275829 Z-0.125000
G03 X47.404889 Y274.890087 Z-0.125000 I0.160000 J-0.160000
G03 X48.434794 Y275.358729 Z-0.125000 I-0.110659 J1.609188
G01 X48.583057 Y275.506992 Z-0.125000
G00 Z3.000000

(Change tool to Default tool)

G00 Z3.000000
G00 X45.284148 Y273.330616

G00 Z4.875000 (Fast pre-penetrate)
G01 Z-0.125000 F400.0(Penetrate)
G01 X44.548757 Y272.595225 Z-0.125000 F800.000000
G03 X44.151882 Y271.637084 Z-0.125000 I0.958141 J-0.958141
G03 X44.548757 Y271.472693 Z-0.125000 I0.232484 J0.000000
G01 X44.711081 Y271.635017 Z-0.125000
G02 X45.107956 Y271.470626 Z-0.125000 I0.164391 J-0.164391
G02 X44.711081 Y270.512485 Z-0.125000 I-1.355016 J0.000000
G01 X44.548757 Y270.350161 Z-0.125000
G03 X44.151882 Y269.392020 Z-0.125000 I0.958141 J-0.958141
G03 X44.548757 Y269.227629 Z-0.125000 I0.232484 J0.000000
G01 X44.728769 Y269.407641 Z-0.125000
G02 X45.125644 Y269.243250 Z-0.125000 I0.164391 J-0.164391
G02 X44.728769 Y268.285109 Z-0.125000 I-1.355016 J0.000000
G01 X44.325508 Y267.881848 Z-0.125000
G00 Z3.000000

(End cutting path id: path16704)


(Start cutting path id: path13197)
(Change tool to Default tool)

G00 Z3.000000
G00 X44.127808 Y275.541868

G00 Z4.875000 (Fast pre-penetrate)
G01 Z-0.125000 F400.0(Penetrate)
G01 X44.354092 Y275.768152 Z-0.125000 F800.000000
G02 X44.849228 Y275.702022 Z-0.125000 I0.222294 J-0.222294
G02 X44.762710 Y275.054238 Z-0.125000 I-0.467005 J-0.267296
G01 X44.548757 Y274.840285 Z-0.125000
G03 X44.151882 Y273.882144 Z-0.125000 I0.958141 J-0.958141
G03 X44.548757 Y273.717753 Z-0.125000 I0.232484 J0.000000
G01 X46.390047 Y275.559043 Z-0.125000
G02 X47.489097 Y276.096826 Z-0.125000 I1.333700 J-1.333700
G02 X47.673501 Y275.719965 Z-0.125000 I0.027590 J-0.220047
G01 X47.229365 Y275.275829 Z-0.125000
G03 X47.404889 Y274.890087 Z-0.125000 I0.160000 J-0.160000
G03 X48.434794 Y275.358729 Z-0.125000 I-0.110659 J1.609188
G01 X48.583057 Y275.506992 Z-0.125000
G00 Z3.000000

(Change tool to Default tool)

G00 Z3.000000
G00 X45.284148 Y273.330616

G00 Z4.875000 (Fast pre-penetrate)
G01 Z-0.125000 F400.0(Penetrate)
G01 X44.548757 Y272.595225 Z-0.125000 F800.000000
G03 X44.151882 Y271.637084 Z-0.125000 I0.958141 J-0.958141
G03 X44.548757 Y271.472693 Z-0.125000 I0.232484 J0.000000
G01 X44.711081 Y271.635017 Z-0.125000
G02 X45.107956 Y271.470626 Z-0.125000 I0.164391 J-0.164391
G02 X44.711081 Y270.512485 Z-0.125000 I-1.355016 J0.000000
G01 X44.548757 Y270.350161 Z-0.125000
G03 X44.151882 Y269.392020 Z-0.125000 I0.958141 J-0.958141
G03 X44.548757 Y269.227629 Z-0.125000 I0.232484 J0.000000
G01 X44.728769 Y269.407641 Z-0.125000
G02 X45.125644 Y269.243250 Z-0.125000 I0.164391 J-0.164391
G02 X44.728769 Y268.285109 Z-0.125000 I-1.355016 J0.000000
G01 X44.325508 Y267.881848 Z-0.125000
G00 Z3.000000

(End cutting path id: path13197)


(Start cutting path id: path13232)
(Change tool to Default tool)

G00 Z3.000000
G00 X41.032228 Y258.711328

G00 Z4.875000 (Fast pre-penetrate)
G01 Z-0.125000 F400.0(Penetrate)
G01 X41.288964 Y258.968064 Z-0.125000 F800.000000
G02 X42.247105 Y259.364939 Z-0.125000 I0.958141 J-0.958141
G02 X42.411496 Y258.968064 Z-0.125000 I0.000000 J-0.232484
G01 X41.453178 Y258.009746 Z-0.125000
G03 X41.056303 Y257.051605 Z-0.125000 I0.958141 J-0.958141
G03 X41.453178 Y256.887214 Z-0.125000 I0.232484 J0.000000
G01 X41.646075 Y257.080111 Z-0.125000
G02 X42.042950 Y256.915720 Z-0.125000 I0.164391 J-0.164391
G02 X41.646075 Y255.957579 Z-0.125000 I-1.355016 J0.000000
G01 X41.453178 Y255.764682 Z-0.125000
G03 X41.056303 Y254.806541 Z-0.125000 I0.958141 J-0.958141
G03 X41.453178 Y254.642150 Z-0.125000 I0.232484 J0.000000
G01 X41.646075 Y254.835047 Z-0.125000
G02 X42.116824 Y254.744530 Z-0.125000 I0.204714 J-0.204714
G02 X41.983210 Y254.049650 Z-0.125000 I-0.579668 J-0.248825
G01 X41.453178 Y253.519618 Z-0.125000
G03 X41.056303 Y252.561477 Z-0.125000 I0.958141 J-0.958141
G03 X41.453178 Y252.397086 Z-0.125000 I0.232484 J0.000000
G01 X41.646075 Y252.589983 Z-0.125000
G02 X42.042950 Y252.425592 Z-0.125000 I0.164391 J-0.164391
G02 X41.646075 Y251.467451 Z-0.125000 I-1.355016 J0.000000
G01 X41.453178 Y251.274554 Z-0.125000
G03 X41.056303 Y250.316413 Z-0.125000 I0.958141 J-0.958141
G03 X41.453178 Y250.152022 Z-0.125000 I0.232484 J0.000000
G01 X41.646075 Y250.344919 Z-0.125000
G02 X42.042950 Y250.180528 Z-0.125000 I0.164391 J-0.164391
G02 X41.646075 Y249.222387 Z-0.125000 I-1.355016 J-0.000000
G01 X41.453178 Y249.029490 Z-0.125000
G03 X41.556669 Y248.571715 Z-0.125000 I0.196225 J-0.196225
G03 X42.281888 Y248.735668 Z-0.125000 I0.232740 J0.656432
G01 X42.337208 Y248.790988 Z-0.125000
G02 X43.295349 Y249.187863 Z-0.125000 I0.958141 J-0.958141
G02 X43.459740 Y248.790988 Z-0.125000 I-0.000000 J-0.232484
G01 X43.404420 Y248.735668 Z-0.125000
G03 X43.568811 Y248.338793 Z-0.125000 I0.164391 J-0.164391
G03 X44.526952 Y248.735668 Z-0.125000 I-0.000000 J1.355016
G01 X44.582272 Y248.790988 Z-0.125000
G02 X45.540413 Y249.187863 Z-0.125000 I0.958141 J-0.958141
G02 X45.704804 Y248.790988 Z-0.125000 I-0.000000 J-0.232484
G01 X45.551517 Y248.637701 Z-0.125000
G03 X45.715908 Y248.240826 Z-0.125000 I0.164391 J-0.164391
G03 X46.674049 Y248.637701 Z-0.125000 I-0.000000 J1.355016
G01 X46.997027 Y248.960679 Z-0.125000
G00 Z3.000000

(Change tool to Default tool)

G00 Z3.000000
G00 X42.901195 Y258.335232

G00 Z4.875000 (Fast pre-penetrate)
G01 Z-0.125000 F400.0(Penetrate)
G01 X43.369817 Y258.803854 Z-0.125000 F800.000000
G02 X44.327958 Y259.200729 Z-0.125000 I0.958141 J-0.958141
G02 X44.492349 Y258.803854 Z-0.125000 I-0.000000 J-0.232484
G01 X44.444679 Y258.756184 Z-0.125000
G03 X44.609070 Y258.359309 Z-0.125000 I0.164391 J-0.164391
G03 X45.567211 Y258.756184 Z-0.125000 I0.000000 J1.355016
G01 X45.671716 Y258.860689 Z-0.125000
G02 X46.496902 Y259.124608 Z-0.125000 I0.668653 J-0.668653
G02 X46.632911 Y258.699352 Z-0.125000 I-0.041572 J-0.247674
G01 X46.268794 Y258.335235 Z-0.125000
G00 Z3.000000

(Change tool to Default tool)

G00 Z3.000000
G00 X42.644769 Y253.588679

G00 Z4.875000 (Fast pre-penetrate)
G01 Z-0.125000 F400.0(Penetrate)
G01 X43.105747 Y254.049657 Z-0.125000 F800.000000
G02 X44.063888 Y254.446532 Z-0.125000 I0.958141 J-0.958141
G02 X44.228279 Y254.049657 Z-0.125000 I-0.000000 J-0.232484
G01 X44.188249 Y254.009627 Z-0.125000
G03 X44.352640 Y253.612752 Z-0.125000 I0.164391 J-0.164391
G03 X45.310781 Y254.009627 Z-0.125000 I-0.000000 J1.355016
G01 X45.428474 Y254.127320 Z-0.125000
G02 X46.227065 Y254.364645 Z-0.125000 I0.618309 J-0.618309
G02 X46.355649 Y253.931964 Z-0.125000 I-0.052922 J-0.251174
G01 X46.012363 Y253.588678 Z-0.125000
G00 Z3.000000

(End cutting path id: path13232)


(Start cutting path id: path16746)
(Change tool to Default tool)

G00 Z3.000000
G00 X30.434845 Y258.665108

G00 Z4.875000 (Fast pre-penetrate)
G01 Z-0.125000 F400.0(Penetrate)
G01 X30.714691 Y258.944954 Z-0.125000 F800.000000
G02 X31.265908 Y258.934905 Z-0.125000 I0.270764 J-0.270764
G02 X31.255485 Y258.363216 Z-0.125000 I-0.301672 J-0.280439
G01 X31.132191 Y258.239922 Z-0.125000
G03 X30.969921 Y257.516385 Z-0.125000 I0.489819 J-0.489819
G03 X31.428368 Y257.413567 Z-0.125000 I0.261798 J0.093832
G01 X31.429354 Y257.414553 Z-0.125000
G02 X31.887239 Y257.311171 Z-0.125000 I0.196294 J-0.196294
G02 X31.723559 Y256.586226 Z-0.125000 I-0.655724 J-0.232900
G01 X31.722573 Y256.585240 Z-0.125000
G03 X31.560303 Y255.861703 Z-0.125000 I0.489819 J-0.489819
G03 X32.018750 Y255.758885 Z-0.125000 I0.261798 J0.093832
G01 X32.019736 Y255.759871 Z-0.125000
G02 X32.477621 Y255.656489 Z-0.125000 I0.196294 J-0.196294
G02 X32.313941 Y254.931544 Z-0.125000 I-0.655724 J-0.232900
G01 X32.312955 Y254.930558 Z-0.125000
G03 X32.150685 Y254.207021 Z-0.125000 I0.489819 J-0.489819
G03 X32.609132 Y254.104203 Z-0.125000 I0.261798 J0.093832
G01 X32.610118 Y254.105189 Z-0.125000
G02 X33.068003 Y254.001807 Z-0.125000 I0.196294 J-0.196294
G02 X32.904323 Y253.276862 Z-0.125000 I-0.655724 J-0.232900
G01 X32.903337 Y253.275876 Z-0.125000
G03 X32.741067 Y252.552339 Z-0.125000 I0.489819 J-0.489819
G03 X33.199514 Y252.449521 Z-0.125000 I0.261798 J0.093832
G01 X33.200914 Y252.450921 Z-0.125000
G02 X33.658580 Y252.347321 Z-0.125000 I0.196156 J-0.196156
G02 X33.494353 Y251.621828 Z-0.125000 I-0.657140 J-0.232580
G01 X33.484953 Y251.612428 Z-0.125000
G03 X33.322682 Y250.888891 Z-0.125000 I0.489819 J-0.489819
G03 X33.781130 Y250.786073 Z-0.125000 I0.261798 J0.093832
G01 X33.804670 Y250.809613 Z-0.125000
G02 X34.250338 Y250.694015 Z-0.125000 I0.188843 J-0.188843
G02 X34.053768 Y249.936179 Z-0.125000 I-0.742616 J-0.211789
G01 X34.053768 Y249.936179 Z-0.125000
G03 X33.891498 Y249.212642 Z-0.125000 I0.489819 J-0.489819
G03 X34.349945 Y249.109824 Z-0.125000 I0.261798 J0.093832
G01 X35.772945 Y250.532824 Z-0.125000
G03 X36.748950 Y252.070094 Z-0.125000 I-2.953843 J2.953843
G03 X36.405645 Y252.288056 Z-0.125000 I-0.195990 J0.070647
G01 X35.554729 Y251.437140 Z-0.125000
G02 X35.211335 Y251.655012 Z-0.125000 I-0.147335 J0.147335
G02 X36.185535 Y253.190477 Z-0.125000 I3.919962 J-1.410301
G01 X37.038345 Y254.043287 Z-0.125000
G03 X38.014350 Y255.580557 Z-0.125000 I-2.953843 J2.953843
G03 X37.671045 Y255.798519 Z-0.125000 I-0.195990 J0.070647
G01 X36.804224 Y254.931698 Z-0.125000
G02 X36.460247 Y255.148988 Z-0.125000 I-0.147466 J0.147466
G02 X37.422913 Y256.672919 Z-0.125000 I3.857062 J-1.370480
G01 X38.303745 Y257.553751 Z-0.125000
G03 X38.811814 Y258.623086 Z-0.125000 I-1.248615 J1.248615
G03 X38.431327 Y258.803865 Z-0.125000 I-0.222406 J0.022698
G01 X37.620653 Y257.993191 Z-0.125000
G00 Z3.000000

(Change tool to Default tool)

G00 Z3.000000
G00 X35.561191 Y249.198539

G00 Z4.875000 (Fast pre-penetrate)
G01 Z-0.125000 F400.0(Penetrate)
G01 X34.677383 Y248.314731 Z-0.125000 F800.000000
G00 Z3.000000

(End cutting path id: path16746)


(Start cutting path id: path8191)
(Change tool to Default tool)

G00 Z3.000000
G00 X27.218235 Y248.182428

G00 Z4.875000 (Fast pre-penetrate)
G01 Z-0.125000 F400.0(Penetrate)
G01 X27.218235 Y259.357091 Z-0.125000 F800.000000
G01 X28.517614 Y259.357091 Z-0.125000
G01 X28.517614 Y248.182428 Z-0.125000
G01 X27.218235 Y248.182428 Z-0.125000
G00 Z3.000000

(End cutting path id: path8191)


(Start cutting path id: path8189)
(Change tool to Default tool)

G00 Z3.000000
G00 X20.736625 Y254.037279

G00 Z4.875000 (Fast pre-penetrate)
G01 Z-0.125000 F400.0(Penetrate)
G01 X24.535399 Y254.037279 Z-0.125000 F800.000000
G01 X24.535399 Y248.602815 Z-0.125000
G02 X23.640622 Y248.354338 Z-0.125000 I-3.724533 J11.676915
G02 X22.731555 Y248.174784 Z-0.125000 I-2.817524 J11.873847
G02 X21.811112 Y248.070670 Z-0.125000 I-1.632034 J10.307637
G02 X20.606687 Y248.029560 Z-0.125000 I-1.204425 J17.622730
G02 X18.256289 Y248.462191 Z-0.125000 I0.000000 J6.600936
G02 X16.655045 Y249.535311 Z-0.125000 I1.529021 J4.012710
G02 X15.656683 Y251.212676 Z-0.125000 I3.348978 J3.129094
G02 X15.241015 Y253.769759 Z-0.125000 I7.657428 J2.557083
G02 X15.431863 Y255.464836 Z-0.125000 I7.623112 J0.000000
G02 X15.936565 Y256.819479 Z-0.125000 I5.337921 J-1.217420
G02 X16.797329 Y257.975136 Z-0.125000 I4.279197 J-2.288872
G02 X17.954425 Y258.822052 Z-0.125000 I3.384981 J-3.410821
G02 X19.316644 Y259.326037 Z-0.125000 I2.575051 J-4.867130
G02 X21.034718 Y259.517602 Z-0.125000 I1.718074 J-7.608614
G02 X22.788330 Y259.346304 Z-0.125000 I0.000000 J-9.061701
G02 X24.367244 Y258.860269 Z-0.125000 I-1.541622 J-7.815668
G01 X23.862779 Y257.713758 Z-0.125000
G03 X22.319073 Y258.206743 Z-0.125000 I-3.440236 J-8.109131
G03 X20.950641 Y258.355804 Z-0.125000 I-1.368432 J-6.206816
G03 X19.060060 Y258.007596 Z-0.125000 I-0.000000 J-5.306527
G03 X17.763339 Y257.140502 Z-0.125000 I1.244854 J-3.264807
G03 X16.951385 Y255.792295 Z-0.125000 I2.692673 J-2.540257
G03 X16.616828 Y253.769759 Z-0.125000 I5.946256 J-2.022536
G03 X16.950075 Y251.639468 Z-0.125000 I6.975610 J0.000000
G03 X17.717479 Y250.337869 Z-0.125000 I3.261852 J1.046118
G03 X18.975173 Y249.515850 Z-0.125000 I2.358174 J2.234872
G03 X20.965927 Y249.168428 Z-0.125000 I1.990754 J5.529874
G03 X22.119666 Y249.236175 Z-0.125000 I0.000000 J9.858055
G03 X23.236020 Y249.435947 Z-0.125000 I-1.110943 J9.427154
G01 X23.236020 Y252.875480 Z-0.125000
G01 X20.736625 Y252.875480 Z-0.125000
G01 X20.736625 Y254.037279 Z-0.125000
G00 Z3.000000

(End cutting path id: path8189)


(Start cutting path id: path16732)
(Change tool to Default tool)

G00 Z3.000000
G00 X16.243556 Y257.210274

G00 Z4.875000 (Fast pre-penetrate)
G01 Z-0.125000 F400.0(Penetrate)
G01 X17.137370 Y258.104088 Z-0.125000 F800.000000
G02 X18.719587 Y259.125039 Z-0.125000 I3.158708 J-3.158708
G02 X18.939713 Y258.783899 Z-0.125000 I0.073287 J-0.194301
G01 X15.968312 Y255.812498 Z-0.125000
G03 X15.426379 Y254.709299 Z-0.125000 I1.345832 J-1.345832
G03 X15.802755 Y254.524409 Z-0.125000 I0.219727 J-0.028241
G01 X16.270645 Y254.992299 Z-0.125000
G02 X16.643559 Y254.803947 Z-0.125000 I0.155489 J-0.155489
G02 X16.070763 Y253.669885 Z-0.125000 I-2.010786 J0.303929
G01 X15.825948 Y253.425070 Z-0.125000
G03 X15.547822 Y252.585677 Z-0.125000 I0.696581 J-0.696581
G03 X15.969400 Y252.445990 Z-0.125000 I0.245868 J0.036024
G01 X16.098826 Y252.575416 Z-0.125000
G02 X16.524309 Y252.439632 Z-0.125000 I0.177699 J-0.177699
G02 X16.261239 Y251.615297 Z-0.125000 I-0.930074 J-0.157331
G01 X16.206449 Y251.560507 Z-0.125000
G03 X16.092905 Y250.885696 Z-0.125000 I0.417147 J-0.417147
G03 X16.573333 Y250.804859 Z-0.125000 I0.268990 J0.130601
G01 X16.596833 Y250.828359 Z-0.125000
G02 X17.097693 Y250.767952 Z-0.125000 I0.226727 J-0.226727
G02 X17.020716 Y250.129710 Z-0.125000 I-0.445142 J-0.270076
G01 X17.011116 Y250.120110 Z-0.125000
G03 X17.016981 Y249.564708 Z-0.125000 I0.274830 J-0.274830
G03 X17.584235 Y249.570697 Z-0.125000 I0.280569 J0.292675
G01 X17.584235 Y249.570697 Z-0.125000
G02 X18.214966 Y249.640161 Z-0.125000 I0.358695 J-0.358695
G02 X18.270647 Y249.134577 Z-0.125000 I-0.174794 J-0.275109
G01 X18.266947 Y249.130877 Z-0.125000
G03 X18.359821 Y248.662484 Z-0.125000 I0.203127 J-0.203127
G03 X19.059899 Y248.801297 Z-0.125000 I0.246302 J0.592589
G01 X19.075809 Y248.817207 Z-0.125000
G02 X19.908662 Y249.088794 Z-0.125000 I0.683636 J-0.683636
G02 X20.046680 Y248.665546 Z-0.125000 I-0.038536 J-0.246694
G01 X20.022680 Y248.641546 Z-0.125000
G03 X20.176409 Y248.234007 Z-0.125000 I0.169011 J-0.169011
G03 X21.077626 Y248.573956 Z-0.125000 I0.074730 J1.166441
G01 X21.136176 Y248.632506 Z-0.125000
G02 X22.269939 Y249.205003 Z-0.125000 I1.437082 J-1.437082
G02 X22.458259 Y248.832057 Z-0.125000 I0.032821 J-0.217446
G01 X22.240923 Y248.614721 Z-0.125000
G03 X22.427894 Y248.240426 Z-0.125000 I0.155947 J-0.155947
G03 X23.549365 Y248.800631 Z-0.125000 I-0.278514 J1.960190
G01 X23.982115 Y249.233381 Z-0.125000
G03 X24.378990 Y250.191522 Z-0.125000 I-0.958141 J0.958141
G03 X23.982115 Y250.355913 Z-0.125000 I-0.232484 J0.000000
G01 X23.789218 Y250.163016 Z-0.125000
G02 X23.392343 Y250.327407 Z-0.125000 I-0.164391 J0.164391
G02 X23.789218 Y251.285548 Z-0.125000 I1.355016 J0.000000
G01 X23.982115 Y251.478445 Z-0.125000
G03 X24.378990 Y252.436586 Z-0.125000 I-0.958141 J0.958141
G03 X23.982115 Y252.600977 Z-0.125000 I-0.232484 J0.000000
G01 X23.789218 Y252.408080 Z-0.125000
G02 X23.375619 Y252.555747 Z-0.125000 I-0.171817 J0.171817
G02 X23.687279 Y253.428673 Z-0.125000 I1.077012 J0.107574
G01 X23.742599 Y253.483993 Z-0.125000
G03 X23.578208 Y253.880868 Z-0.125000 I-0.164391 J0.164391
G03 X22.620067 Y253.483993 Z-0.125000 I-0.000000 J-1.355016
G01 X22.564747 Y253.428673 Z-0.125000
G02 X21.606606 Y253.031798 Z-0.125000 I-0.958141 J0.958141
G02 X21.442215 Y253.428673 Z-0.125000 I-0.000000 J0.232484
G01 X21.918481 Y253.904939 Z-0.125000
G00 Z3.000000

(Change tool to Default tool)

G00 Z3.000000
G00 X19.608551 Y258.330202

G00 Z4.875000 (Fast pre-penetrate)
G01 Z-0.125000 F400.0(Penetrate)
G01 X20.233099 Y258.954750 Z-0.125000 F800.000000
G02 X21.173649 Y259.334034 Z-0.125000 I0.916223 J-0.916223
G02 X21.334941 Y258.934060 Z-0.125000 I-0.004399 J-0.234282
G01 X21.293271 Y258.892390 Z-0.125000
G03 X21.445491 Y258.483343 Z-0.125000 I0.169697 J-0.169697
G03 X22.339415 Y258.816000 Z-0.125000 I0.083470 J1.143116
G01 X22.354945 Y258.831530 Z-0.125000
G02 X23.125628 Y259.040946 Z-0.125000 I0.568185 J-0.568185
G02 X23.245552 Y258.599605 Z-0.125000 I-0.066407 J-0.255009
G01 X22.961092 Y258.315145 Z-0.125000
G03 X23.066936 Y257.859723 Z-0.125000 I0.194749 J-0.194749
G03 X23.798140 Y258.029661 Z-0.125000 I0.229180 J0.671962
G01 X23.903648 Y258.135169 Z-0.125000
G00 Z3.000000

(End cutting path id: path16732)


(Start cutting path id: path16739)
(Change tool to Default tool)

G00 Z3.000000
G00 X27.350527 Y258.962217

G00 Z4.875000 (Fast pre-penetrate)
G01 Z-0.125000 F400.0(Penetrate)
G01 X27.481818 Y259.093508 Z-0.125000 F800.000000
G02 X28.167725 Y259.218148 Z-0.125000 I0.432952 J-0.432952
G02 X28.254031 Y258.743190 Z-0.125000 I-0.121290 J-0.267360
G01 X27.771476 Y258.260635 Z-0.125000
G03 X27.374601 Y257.302494 Z-0.125000 I0.958141 J-0.958141
G03 X27.771476 Y257.138103 Z-0.125000 I0.232484 J0.000000
G01 X27.964373 Y257.331000 Z-0.125000
G02 X28.361248 Y257.166609 Z-0.125000 I0.164391 J-0.164391
G02 X27.964373 Y256.208468 Z-0.125000 I-1.355016 J0.000000
G01 X27.771476 Y256.015571 Z-0.125000
G03 X27.374601 Y255.057430 Z-0.125000 I0.958141 J-0.958141
G03 X27.771476 Y254.893039 Z-0.125000 I0.232484 J0.000000
G01 X27.964373 Y255.085936 Z-0.125000
G02 X28.361248 Y254.921545 Z-0.125000 I0.164391 J-0.164391
G02 X27.964373 Y253.963404 Z-0.125000 I-1.355016 J0.000000
G01 X27.771476 Y253.770507 Z-0.125000
G03 X27.374601 Y252.812366 Z-0.125000 I0.958141 J-0.958141
G03 X27.771476 Y252.647975 Z-0.125000 I0.232484 J0.000000
G01 X27.964373 Y252.840872 Z-0.125000
G02 X28.361248 Y252.676481 Z-0.125000 I0.164391 J-0.164391
G02 X27.964373 Y251.718340 Z-0.125000 I-1.355016 J-0.000000
G01 X27.771476 Y251.525443 Z-0.125000
G03 X27.374601 Y250.567302 Z-0.125000 I0.958141 J-0.958141
G03 X27.771476 Y250.402911 Z-0.125000 I0.232484 J0.000000
G01 X27.964373 Y250.595808 Z-0.125000
G02 X28.361248 Y250.431417 Z-0.125000 I0.164391 J-0.164391
G02 X27.964373 Y249.473276 Z-0.125000 I-1.355016 J0.000000
G01 X27.579014 Y249.087917 Z-0.125000
G03 X27.587170 Y248.534807 Z-0.125000 I0.272596 J-0.272596
G03 X28.156835 Y248.543207 Z-0.125000 I0.280507 J0.297558
G01 X28.385322 Y248.771694 Z-0.125000
G00 Z3.000000

(End cutting path id: path16739)


(Start cutting path id: path13227)
(Change tool to Default tool)

G00 Z3.000000
G00 X30.434845 Y258.665108

G00 Z4.875000 (Fast pre-penetrate)
G01 Z-0.125000 F400.0(Penetrate)
G01 X30.714691 Y258.944954 Z-0.125000 F800.000000
G02 X31.265908 Y258.934905 Z-0.125000 I0.270764 J-0.270764
G02 X31.255485 Y258.363216 Z-0.125000 I-0.301672 J-0.280439
G01 X31.132191 Y258.239922 Z-0.125000
G03 X30.969921 Y257.516385 Z-0.125000 I0.489819 J-0.489819
G03 X31.428368 Y257.413567 Z-0.125000 I0.261798 J0.093832
G01 X31.429354 Y257.414553 Z-0.125000
G02 X31.887239 Y257.311171 Z-0.125000 I0.196294 J-0.196294
G02 X31.723559 Y256.586226 Z-0.125000 I-0.655724 J-0.232900
G01 X31.722573 Y256.585240 Z-0.125000
G03 X31.560303 Y255.861703 Z-0.125000 I0.489819 J-0.489819
G03 X32.018750 Y255.758885 Z-0.125000 I0.261798 J0.093832
G01 X32.019736 Y255.759871 Z-0.125000
G02 X32.477621 Y255.656489 Z-0.125000 I0.196294 J-0.196294
G02 X32.313941 Y254.931544 Z-0.125000 I-0.655724 J-0.232900
G01 X32.312955 Y254.930558 Z-0.125000
G03 X32.150685 Y254.207021 Z-0.125000 I0.489819 J-0.489819
G03 X32.609132 Y254.104203 Z-0.125000 I0.261798 J0.093832
G01 X32.610118 Y254.105189 Z-0.125000
G02 X33.068003 Y254.001807 Z-0.125000 I0.196294 J-0.196294
G02 X32.904323 Y253.276862 Z-0.125000 I-0.655724 J-0.232900
G01 X32.903337 Y253.275876 Z-0.125000
G03 X32.741067 Y252.552339 Z-0.125000 I0.489819 J-0.489819
G03 X33.199514 Y252.449521 Z-0.125000 I0.261798 J0.093832
G01 X33.200914 Y252.450921 Z-0.125000
G02 X33.658580 Y252.347321 Z-0.125000 I0.196156 J-0.196156
G02 X33.494353 Y251.621828 Z-0.125000 I-0.657140 J-0.232580
G01 X33.484953 Y251.612428 Z-0.125000
G03 X33.322682 Y250.888891 Z-0.125000 I0.489819 J-0.489819
G03 X33.781130 Y250.786073 Z-0.125000 I0.261798 J0.093832
G01 X33.804670 Y250.809613 Z-0.125000
G02 X34.250338 Y250.694015 Z-0.125000 I0.188843 J-0.188843
G02 X34.053768 Y249.936179 Z-0.125000 I-0.742616 J-0.211789
G01 X34.053768 Y249.936179 Z-0.125000
G03 X33.891498 Y249.212642 Z-0.125000 I0.489819 J-0.489819
G03 X34.349945 Y249.109824 Z-0.125000 I0.261798 J0.093832
G01 X35.772945 Y250.532824 Z-0.125000
G03 X36.748950 Y252.070094 Z-0.125000 I-2.953843 J2.953843
G03 X36.405645 Y252.288056 Z-0.125000 I-0.195990 J0.070647
G01 X35.554729 Y251.437140 Z-0.125000
G02 X35.211335 Y251.655012 Z-0.125000 I-0.147335 J0.147335
G02 X36.185535 Y253.190477 Z-0.125000 I3.919962 J-1.410301
G01 X37.038345 Y254.043287 Z-0.125000
G03 X38.014350 Y255.580557 Z-0.125000 I-2.953843 J2.953843
G03 X37.671045 Y255.798519 Z-0.125000 I-0.195990 J0.070647
G01 X36.804224 Y254.931698 Z-0.125000
G02 X36.460247 Y255.148988 Z-0.125000 I-0.147466 J0.147466
G02 X37.422913 Y256.672919 Z-0.125000 I3.857062 J-1.370480
G01 X38.303745 Y257.553751 Z-0.125000
G03 X38.811814 Y258.623086 Z-0.125000 I-1.248615 J1.248615
G03 X38.431327 Y258.803865 Z-0.125000 I-0.222406 J0.022698
G01 X37.620653 Y257.993191 Z-0.125000
G00 Z3.000000

(Change tool to Default tool)

G00 Z3.000000
G00 X35.561191 Y249.198539

G00 Z4.875000 (Fast pre-penetrate)
G01 Z-0.125000 F400.0(Penetrate)
G01 X34.677383 Y248.314731 Z-0.125000 F800.000000
G00 Z3.000000

(End cutting path id: path13227)


(Start cutting path id: path13222)
(Change tool to Default tool)

G00 Z3.000000
G00 X27.350527 Y258.962217

G00 Z4.875000 (Fast pre-penetrate)
G01 Z-0.125000 F400.0(Penetrate)
G01 X27.481818 Y259.093508 Z-0.125000 F800.000000
G02 X28.167725 Y259.218148 Z-0.125000 I0.432952 J-0.432952
G02 X28.254031 Y258.743190 Z-0.125000 I-0.121290 J-0.267360
G01 X27.771476 Y258.260635 Z-0.125000
G03 X27.374601 Y257.302494 Z-0.125000 I0.958141 J-0.958141
G03 X27.771476 Y257.138103 Z-0.125000 I0.232484 J0.000000
G01 X27.964373 Y257.331000 Z-0.125000
G02 X28.361248 Y257.166609 Z-0.125000 I0.164391 J-0.164391
G02 X27.964373 Y256.208468 Z-0.125000 I-1.355016 J0.000000
G01 X27.771476 Y256.015571 Z-0.125000
G03 X27.374601 Y255.057430 Z-0.125000 I0.958141 J-0.958141
G03 X27.771476 Y254.893039 Z-0.125000 I0.232484 J0.000000
G01 X27.964373 Y255.085936 Z-0.125000
G02 X28.361248 Y254.921545 Z-0.125000 I0.164391 J-0.164391
G02 X27.964373 Y253.963404 Z-0.125000 I-1.355016 J0.000000
G01 X27.771476 Y253.770507 Z-0.125000
G03 X27.374601 Y252.812366 Z-0.125000 I0.958141 J-0.958141
G03 X27.771476 Y252.647975 Z-0.125000 I0.232484 J0.000000
G01 X27.964373 Y252.840872 Z-0.125000
G02 X28.361248 Y252.676481 Z-0.125000 I0.164391 J-0.164391
G02 X27.964373 Y251.718340 Z-0.125000 I-1.355016 J-0.000000
G01 X27.771476 Y251.525443 Z-0.125000
G03 X27.374601 Y250.567302 Z-0.125000 I0.958141 J-0.958141
G03 X27.771476 Y250.402911 Z-0.125000 I0.232484 J0.000000
G01 X27.964373 Y250.595808 Z-0.125000
G02 X28.361248 Y250.431417 Z-0.125000 I0.164391 J-0.164391
G02 X27.964373 Y249.473276 Z-0.125000 I-1.355016 J0.000000
G01 X27.579014 Y249.087917 Z-0.125000
G03 X27.587170 Y248.534807 Z-0.125000 I0.272596 J-0.272596
G03 X28.156835 Y248.543207 Z-0.125000 I0.280507 J0.297558
G01 X28.385322 Y248.771694 Z-0.125000
G00 Z3.000000

(End cutting path id: path13222)


(Start cutting path id: path13217)
(Change tool to Default tool)

G00 Z3.000000
G00 X16.243556 Y257.210274

G00 Z4.875000 (Fast pre-penetrate)
G01 Z-0.125000 F400.0(Penetrate)
G01 X17.137370 Y258.104088 Z-0.125000 F800.000000
G02 X18.719587 Y259.125039 Z-0.125000 I3.158708 J-3.158708
G02 X18.939713 Y258.783899 Z-0.125000 I0.073287 J-0.194301
G01 X15.968312 Y255.812498 Z-0.125000
G03 X15.426379 Y254.709299 Z-0.125000 I1.345832 J-1.345832
G03 X15.802755 Y254.524409 Z-0.125000 I0.219727 J-0.028241
G01 X16.270645 Y254.992299 Z-0.125000
G02 X16.643559 Y254.803947 Z-0.125000 I0.155489 J-0.155489
G02 X16.070763 Y253.669885 Z-0.125000 I-2.010786 J0.303929
G01 X15.825948 Y253.425070 Z-0.125000
G03 X15.547822 Y252.585677 Z-0.125000 I0.696581 J-0.696581
G03 X15.969400 Y252.445990 Z-0.125000 I0.245868 J0.036024
G01 X16.098826 Y252.575416 Z-0.125000
G02 X16.524309 Y252.439632 Z-0.125000 I0.177699 J-0.177699
G02 X16.261239 Y251.615297 Z-0.125000 I-0.930074 J-0.157331
G01 X16.206449 Y251.560507 Z-0.125000
G03 X16.092905 Y250.885696 Z-0.125000 I0.417147 J-0.417147
G03 X16.573333 Y250.804859 Z-0.125000 I0.268990 J0.130601
G01 X16.596833 Y250.828359 Z-0.125000
G02 X17.097693 Y250.767952 Z-0.125000 I0.226727 J-0.226727
G02 X17.020716 Y250.129710 Z-0.125000 I-0.445142 J-0.270076
G01 X17.011116 Y250.120110 Z-0.125000
G03 X17.016981 Y249.564708 Z-0.125000 I0.274830 J-0.274830
G03 X17.584235 Y249.570697 Z-0.125000 I0.280569 J0.292675
G01 X17.584235 Y249.570697 Z-0.125000
G02 X18.214966 Y249.640161 Z-0.125000 I0.358695 J-0.358695
G02 X18.270647 Y249.134577 Z-0.125000 I-0.174794 J-0.275109
G01 X18.266947 Y249.130877 Z-0.125000
G03 X18.359821 Y248.662484 Z-0.125000 I0.203127 J-0.203127
G03 X19.059899 Y248.801297 Z-0.125000 I0.246302 J0.592589
G01 X19.075809 Y248.817207 Z-0.125000
G02 X19.908662 Y249.088794 Z-0.125000 I0.683636 J-0.683636
G02 X20.046680 Y248.665546 Z-0.125000 I-0.038536 J-0.246694
G01 X20.022680 Y248.641546 Z-0.125000
G03 X20.176409 Y248.234007 Z-0.125000 I0.169011 J-0.169011
G03 X21.077626 Y248.573956 Z-0.125000 I0.074730 J1.166441
G01 X21.136176 Y248.632506 Z-0.125000
G02 X22.269939 Y249.205003 Z-0.125000 I1.437082 J-1.437082
G02 X22.458259 Y248.832057 Z-0.125000 I0.032821 J-0.217446
G01 X22.240923 Y248.614721 Z-0.125000
G03 X22.427894 Y248.240426 Z-0.125000 I0.155947 J-0.155947
G03 X23.549365 Y248.800631 Z-0.125000 I-0.278514 J1.960190
G01 X23.982115 Y249.233381 Z-0.125000
G03 X24.378990 Y250.191522 Z-0.125000 I-0.958141 J0.958141
G03 X23.982115 Y250.355913 Z-0.125000 I-0.232484 J0.000000
G01 X23.789218 Y250.163016 Z-0.125000
G02 X23.392343 Y250.327407 Z-0.125000 I-0.164391 J0.164391
G02 X23.789218 Y251.285548 Z-0.125000 I1.355016 J0.000000
G01 X23.982115 Y251.478445 Z-0.125000
G03 X24.378990 Y252.436586 Z-0.125000 I-0.958141 J0.958141
G03 X23.982115 Y252.600977 Z-0.125000 I-0.232484 J0.000000
G01 X23.789218 Y252.408080 Z-0.125000
G02 X23.375619 Y252.555747 Z-0.125000 I-0.171817 J0.171817
G02 X23.687279 Y253.428673 Z-0.125000 I1.077012 J0.107574
G01 X23.742599 Y253.483993 Z-0.125000
G03 X23.578208 Y253.880868 Z-0.125000 I-0.164391 J0.164391
G03 X22.620067 Y253.483993 Z-0.125000 I-0.000000 J-1.355016
G01 X22.564747 Y253.428673 Z-0.125000
G02 X21.606606 Y253.031798 Z-0.125000 I-0.958141 J0.958141
G02 X21.442215 Y253.428673 Z-0.125000 I-0.000000 J0.232484
G01 X21.918481 Y253.904939 Z-0.125000
G00 Z3.000000

(Change tool to Default tool)

G00 Z3.000000
G00 X19.608551 Y258.330202

G00 Z4.875000 (Fast pre-penetrate)
G01 Z-0.125000 F400.0(Penetrate)
G01 X20.233099 Y258.954750 Z-0.125000 F800.000000
G02 X21.173649 Y259.334034 Z-0.125000 I0.916223 J-0.916223
G02 X21.334941 Y258.934060 Z-0.125000 I-0.004399 J-0.234282
G01 X21.293271 Y258.892390 Z-0.125000
G03 X21.445491 Y258.483343 Z-0.125000 I0.169697 J-0.169697
G03 X22.339415 Y258.816000 Z-0.125000 I0.083470 J1.143116
G01 X22.354945 Y258.831530 Z-0.125000
G02 X23.125628 Y259.040946 Z-0.125000 I0.568185 J-0.568185
G02 X23.245552 Y258.599605 Z-0.125000 I-0.066407 J-0.255009
G01 X22.961092 Y258.315145 Z-0.125000
G03 X23.066936 Y257.859723 Z-0.125000 I0.194749 J-0.194749
G03 X23.798140 Y258.029661 Z-0.125000 I0.229180 J0.671962
G01 X23.903648 Y258.135169 Z-0.125000
G00 Z3.000000

(End cutting path id: path13217)


(Start cutting path id: path17030)
(Change tool to Default tool)

G00 Z3.000000
G00 X25.437574 Y222.491352

G00 Z4.875000 (Fast pre-penetrate)
G01 Z-0.125000 F400.0(Penetrate)
G01 X25.622988 Y222.676766 Z-0.125000 F800.000000
G02 X26.103768 Y222.596280 Z-0.125000 I0.211689 J-0.211689
G02 X25.990916 Y221.922162 Z-0.125000 I-0.529028 J-0.257942
G01 X25.664494 Y221.595740 Z-0.125000
G03 X25.267619 Y220.637599 Z-0.125000 I0.958141 J-0.958141
G03 X25.664494 Y220.473208 Z-0.125000 I0.232484 J0.000000
G01 X25.664494 Y220.473208 Z-0.125000
G02 X26.089145 Y220.336593 Z-0.125000 I0.177271 J-0.177271
G02 X25.822937 Y219.509119 Z-0.125000 I-0.939313 J-0.154370
G01 X25.523416 Y219.209598 Z-0.125000
G03 X25.652629 Y218.777545 Z-0.125000 I0.181167 J-0.181167
G03 X26.453371 Y219.017021 Z-0.125000 I0.178456 J0.861762
G01 X26.453371 Y219.017021 Z-0.125000
G02 X27.260548 Y219.262929 Z-0.125000 I0.634282 J-0.634282
G02 X27.391609 Y218.832727 Z-0.125000 I-0.049113 J-0.250027
G01 X27.307399 Y218.748517 Z-0.125000
G03 X27.488639 Y218.368491 Z-0.125000 I0.157918 J-0.157918
G03 X28.561632 Y218.880218 Z-0.125000 I-0.185923 J1.770638
G01 X28.732614 Y219.051200 Z-0.125000
G03 X29.407192 Y220.287044 Z-0.125000 I-1.765974 J1.765974
G03 X29.044111 Y220.485229 Z-0.125000 I-0.210653 J0.045757
G01 X28.948121 Y220.389239 Z-0.125000
G02 X28.560912 Y220.563295 Z-0.125000 I-0.160554 J0.160554
G02 X29.019231 Y221.582877 Z-0.125000 I1.571498 J-0.093613
G01 X29.057041 Y221.620687 Z-0.125000
G03 X29.178315 Y222.303224 Z-0.125000 I-0.428119 J0.428111
G03 X28.701725 Y222.387907 Z-0.125000 I-0.267860 J-0.124047
G01 X28.694325 Y222.380507 Z-0.125000
G02 X28.106244 Y222.353692 Z-0.125000 I-0.308729 J0.308729
G02 X28.081768 Y222.890481 Z-0.125000 I0.232747 J0.279565
G01 X28.081768 Y222.890481 Z-0.125000
G03 X27.936905 Y223.306884 Z-0.125000 I-0.173159 J0.173159
G03 X27.076210 Y223.007455 Z-0.125000 I-0.120891 J-1.039232
G01 X26.728806 Y222.660051 Z-0.125000
G00 Z3.000000

(Change tool to Default tool)

G00 Z3.000000
