%
(Header)
(Generated by gcodetools from Inkscape.)
(Using default header. To add your own header create file "header" in the output dir.)
M3
(Header end.)
G21 (All units in mm)

(Start cutting path id: polyline30)
(Change tool to Default tool)

G00 Z10.000000
G00 X40.678266 Y168.372340

G00 Z4.875000 (Fast pre-penetrate)
G01 Z-0.125000 F100.0(Penetrate)
G01 X40.212596 Y167.441000 Z-0.125000 F600.000000
G01 X39.842186 Y166.714280 Z-0.125000
G01 X39.567016 Y166.195700 Z-0.125000
G01 X39.387096 Y165.874670 Z-0.125000
G01 X39.302396 Y165.737090 Z-0.125000
G01 X39.312996 Y165.751190 Z-0.125000
G01 X39.418826 Y165.871130 Z-0.125000
G01 X39.619916 Y166.040470 Z-0.125000
G01 X39.916246 Y166.192160 Z-0.125000
G01 X40.307826 Y166.255660 Z-0.125000
G01 X40.791136 Y166.153360 Z-0.125000
G01 X41.369696 Y165.818220 Z-0.125000
G01 X42.039966 Y165.186740 Z-0.125000
G01 X42.801966 Y164.216610 Z-0.125000
G01 X43.655696 Y162.879580 Z-0.125000
G01 X44.597606 Y161.168610 Z-0.125000
G01 X45.631246 Y159.097800 Z-0.125000
G01 X46.749556 Y156.695380 Z-0.125000
G01 X47.956056 Y154.010750 Z-0.125000
G01 X49.247216 Y151.093270 Z-0.125000
G01 X50.619526 Y148.006470 Z-0.125000
G01 X52.076496 Y144.803250 Z-0.125000
G01 X53.611076 Y141.550630 Z-0.125000
G01 X55.223276 Y138.298020 Z-0.125000
G01 X56.913076 Y135.101860 Z-0.125000
G01 X58.673446 Y132.011520 Z-0.125000
G01 X60.507886 Y129.087000 Z-0.125000
G01 X62.409356 Y126.388250 Z-0.125000
G01 X64.381386 Y123.985830 Z-0.125000
G01 X66.416916 Y121.960880 Z-0.125000
G01 X68.512416 Y120.405130 Z-0.125000
G01 X70.667886 Y119.431470 Z-0.125000
G01 X72.883326 Y119.145720 Z-0.125000
G01 X75.148166 Y119.671360 Z-0.125000
G01 X77.469446 Y121.110690 Z-0.125000
G01 X79.836576 Y123.562500 Z-0.125000
G01 X82.249576 Y127.090270 Z-0.125000
G01 X84.704916 Y131.722250 Z-0.125000
G01 X87.202576 Y137.440770 Z-0.125000
G01 X89.735526 Y144.171770 Z-0.125000
G01 X92.300216 Y151.791770 Z-0.125000
G01 X94.896666 Y160.120860 Z-0.125000
G01 X97.521326 Y168.943830 Z-0.125000
G01 X100.170690 Y178.017270 Z-0.125000
G01 X102.837700 Y187.083660 Z-0.125000
G01 X105.525870 Y195.892520 Z-0.125000
G01 X108.224620 Y204.218076 Z-0.125000
G01 X110.937480 Y211.862766 Z-0.125000
G01 X113.657400 Y218.678436 Z-0.125000
G01 X116.380840 Y224.562766 Z-0.125000
G01 X119.104290 Y229.462851 Z-0.125000
G01 X121.827730 Y233.364573 Z-0.125000
G01 X124.544120 Y236.289101 Z-0.125000
G01 X127.253450 Y238.285823 Z-0.125000
G01 X129.948680 Y239.407656 Z-0.125000
G01 X132.629790 Y239.725156 Z-0.125000
G01 X135.289730 Y239.294767 Z-0.125000
G01 X137.928510 Y238.169406 Z-0.125000
G01 X140.542590 Y236.384351 Z-0.125000
G01 X143.128450 Y233.971351 Z-0.125000
G01 X145.682560 Y230.948045 Z-0.125000
G01 X148.201400 Y227.332073 Z-0.125000
G01 X150.681430 Y223.144596 Z-0.125000
G01 X153.122650 Y218.410326 Z-0.125000
G01 X155.518010 Y213.178626 Z-0.125000
G01 X157.867510 Y207.520076 Z-0.125000
G01 X160.167620 Y201.522856 Z-0.125000
G01 X162.414810 Y195.303380 Z-0.125000
G01 X164.605560 Y189.009830 Z-0.125000
G01 X166.739870 Y182.790360 Z-0.125000
G01 X168.814200 Y176.810770 Z-0.125000
G01 X170.825040 Y171.229830 Z-0.125000
G01 X172.768840 Y166.185110 Z-0.125000
G01 X174.645620 Y161.796550 Z-0.125000
G01 X176.451840 Y158.148830 Z-0.125000
G01 X178.187510 Y155.280750 Z-0.125000
G01 X179.845560 Y153.199360 Z-0.125000
G01 X181.429540 Y151.872910 Z-0.125000
G01 X182.935900 Y151.241440 Z-0.125000
G01 X184.357590 Y151.213240 Z-0.125000
G01 X185.701670 Y151.689490 Z-0.125000
G01 X186.961090 Y152.560850 Z-0.125000
G01 X188.132310 Y153.728540 Z-0.125000
G01 X189.218870 Y155.083210 Z-0.125000
G01 X190.217230 Y156.547240 Z-0.125000
G01 X191.127400 Y158.032430 Z-0.125000
G01 X191.945840 Y159.485880 Z-0.125000
G01 X192.672560 Y160.851130 Z-0.125000
G01 X193.307560 Y162.092900 Z-0.125000
G01 X193.850840 Y163.175930 Z-0.125000
G01 X194.298870 Y164.075520 Z-0.125000
G01 X194.655170 Y164.784600 Z-0.125000
G01 X194.912700 Y165.292600 Z-0.125000
G01 X195.078510 Y165.599510 Z-0.125000
G01 X195.145510 Y165.722990 Z-0.125000
G01 X195.120810 Y165.684190 Z-0.125000
G01 X195.000870 Y165.518390 Z-0.125000
G01 X194.785670 Y165.278500 Z-0.125000
G01 X194.471700 Y165.024500 Z-0.125000
G01 X194.066010 Y164.830470 Z-0.125000
G01 X193.568590 Y164.766970 Z-0.125000
G01 X192.975920 Y164.915140 Z-0.125000
G01 X192.288010 Y165.345520 Z-0.125000
G01 X191.511890 Y166.114580 Z-0.125000
G01 X190.644060 Y167.264640 Z-0.125000
G01 X189.688030 Y168.820390 Z-0.125000
G01 X188.640280 Y170.781830 Z-0.125000
G01 X187.507870 Y173.127800 Z-0.125000
G01 X186.287260 Y175.815970 Z-0.125000
G01 X184.981980 Y178.796940 Z-0.125000
G01 X183.595560 Y182.007220 Z-0.125000
G01 X182.128010 Y185.376250 Z-0.125000
G01 X180.579310 Y188.840520 Z-0.125000
G01 X178.953010 Y192.336550 Z-0.125000
G01 X177.252620 Y195.800830 Z-0.125000
G01 X175.481670 Y199.176906 Z-0.125000
G01 X173.636650 Y202.418936 Z-0.125000
G01 X171.721060 Y205.466936 Z-0.125000
G01 X169.741980 Y208.264466 Z-0.125000
G01 X167.695870 Y210.744496 Z-0.125000
G01 X165.589780 Y212.832936 Z-0.125000
G01 X163.423730 Y214.434546 Z-0.125000
G01 X161.201230 Y215.450546 Z-0.125000
G01 X158.925810 Y215.768046 Z-0.125000
G01 X156.597480 Y215.277686 Z-0.125000
G01 X154.223280 Y213.870106 Z-0.125000
G01 X151.803230 Y211.446516 Z-0.125000
G01 X149.340840 Y207.943436 Z-0.125000
G01 X146.836120 Y203.325576 Z-0.125000
G01 X144.299650 Y197.603516 Z-0.125000
G01 X141.727900 Y190.851360 Z-0.125000
G01 X139.127920 Y183.181970 Z-0.125000
G01 X136.499730 Y174.771750 Z-0.125000
G01 X133.846840 Y165.839410 Z-0.125000
G01 X131.176310 Y156.621330 Z-0.125000
G01 X128.484620 Y147.385610 Z-0.125000
G01 X125.782340 Y138.389780 Z-0.125000
G01 X123.069480 Y129.870190 Z-0.125000
G01 X120.349560 Y122.031470 Z-0.125000
G01 X117.626120 Y115.032360 Z-0.125000
G01 X114.899150 Y108.982220 Z-0.125000
G01 X112.179230 Y103.948080 Z-0.125000
G01 X109.462840 Y99.940530 Z-0.125000
G01 X106.757040 Y96.945440 Z-0.125000
G01 X104.061810 Y94.906390 Z-0.125000
G01 X101.384230 Y93.766920 Z-0.125000
G01 X98.727796 Y93.449420 Z-0.125000
G01 X96.092546 Y93.890390 Z-0.125000
G01 X93.481996 Y95.026330 Z-0.125000
G01 X90.903186 Y96.804330 Z-0.125000
G01 X88.352606 Y99.192640 Z-0.125000
G01 X85.840826 Y102.159500 Z-0.125000
G01 X83.367856 Y105.676690 Z-0.125000
G01 X80.933686 Y109.726580 Z-0.125000
G01 X78.545386 Y114.270360 Z-0.125000
G01 X76.202936 Y119.269220 Z-0.125000
G01 X73.913416 Y124.656140 Z-0.125000
G01 X71.673276 Y130.346440 Z-0.125000
G01 X69.489576 Y136.230780 Z-0.125000
G01 X67.365856 Y142.182140 Z-0.125000
G01 X65.302106 Y148.048830 Z-0.125000
G01 X63.301856 Y153.689750 Z-0.125000
G01 X61.368636 Y158.949660 Z-0.125000
G01 X59.502436 Y163.701580 Z-0.125000
G01 X57.706796 Y167.836140 Z-0.125000
G01 X55.985246 Y171.272190 Z-0.125000
G01 X54.337776 Y173.970940 Z-0.125000
G01 X52.767916 Y175.928860 Z-0.125000
G01 X51.275666 Y177.174160 Z-0.125000
G01 X49.864546 Y177.766830 Z-0.125000
G01 X48.534576 Y177.795030 Z-0.125000
G01 X47.289276 Y177.357590 Z-0.125000
G01 X46.132166 Y176.549730 Z-0.125000
G01 X45.059716 Y175.480810 Z-0.125000
G01 X44.075466 Y174.249620 Z-0.125000
G01 X43.179416 Y172.933750 Z-0.125000
G01 X42.375076 Y171.610840 Z-0.125000
G01 X41.662466 Y170.344370 Z-0.125000
G01 X41.045106 Y169.176670 Z-0.125000
G01 X40.515936 Y168.146560 Z-0.125000
G01 X40.082026 Y167.282250 Z-0.125000
G01 X39.743356 Y166.601390 Z-0.125000
G01 X39.499936 Y166.118090 Z-0.125000
G01 X39.351776 Y165.828810 Z-0.125000
G01 X39.295276 Y165.726500 Z-0.125000
G01 X39.337576 Y165.797100 Z-0.125000
G01 X39.475156 Y166.008770 Z-0.125000
G01 X39.704456 Y166.319210 Z-0.125000
G01 X40.032546 Y166.671990 Z-0.125000
G01 X40.452346 Y167.003600 Z-0.125000
G01 X40.967406 Y167.236430 Z-0.125000
G01 X41.574186 Y167.289330 Z-0.125000
G01 X42.276206 Y167.088250 Z-0.125000
G01 X43.069956 Y166.559080 Z-0.125000
G01 X43.951906 Y165.645390 Z-0.125000
G01 X44.922046 Y164.304830 Z-0.125000
G01 X45.983906 Y162.519780 Z-0.125000
G01 X47.130436 Y160.300800 Z-0.125000
G01 X48.365156 Y157.672610 Z-0.125000
G01 X49.684546 Y154.681050 Z-0.125000
G01 X51.081546 Y151.396690 Z-0.125000
G01 X52.563206 Y147.883030 Z-0.125000
G01 X54.126016 Y144.221190 Z-0.125000
G01 X55.762906 Y140.488800 Z-0.125000
G01 X57.473876 Y136.745830 Z-0.125000
G01 X59.258936 Y133.066360 Z-0.125000
G01 X61.118076 Y129.503300 Z-0.125000
G01 X63.040706 Y126.109580 Z-0.125000
G01 X65.033906 Y122.938110 Z-0.125000
G01 X67.087076 Y120.045330 Z-0.125000
G01 X69.203736 Y117.494750 Z-0.125000
G01 X71.380376 Y115.353390 Z-0.125000
G01 X73.609936 Y113.709440 Z-0.125000
G01 X75.895936 Y112.658170 Z-0.125000
G01 X78.231326 Y112.305390 Z-0.125000
G01 X80.612566 Y112.764000 Z-0.125000
G01 X83.039686 Y114.136300 Z-0.125000
G01 X85.509126 Y116.521080 Z-0.125000
G01 X88.017376 Y119.985360 Z-0.125000
G01 X90.560906 Y124.571470 Z-0.125000
G01 X93.136186 Y130.268830 Z-0.125000
G01 X95.743206 Y137.017470 Z-0.125000
G01 X98.374936 Y144.704500 Z-0.125000
G01 X101.031360 Y153.157050 Z-0.125000
G01 X103.705420 Y162.167000 Z-0.125000
G01 X106.397110 Y171.490910 Z-0.125000
G01 X109.102920 Y180.857160 Z-0.125000
G01 X111.815780 Y190.008220 Z-0.125000
G01 X114.539220 Y198.700656 Z-0.125000
G01 X117.262670 Y206.712246 Z-0.125000
G01 X119.986110 Y213.880686 Z-0.125000
G01 X122.709560 Y220.078996 Z-0.125000
G01 X125.422420 Y225.247186 Z-0.125000
G01 X128.128220 Y229.357047 Z-0.125000
G01 X130.816390 Y232.429742 Z-0.125000
G01 X133.490440 Y234.511131 Z-0.125000
G01 X136.146860 Y235.675297 Z-0.125000
G01 X138.778580 Y235.996325 Z-0.125000
G01 X141.382080 Y235.551825 Z-0.125000
G01 X143.957360 Y234.412353 Z-0.125000
G01 X146.500890 Y232.637881 Z-0.125000
G01 X149.009140 Y230.277797 Z-0.125000
G01 X151.475060 Y227.367381 Z-0.125000
G01 X153.902170 Y223.941906 Z-0.125000
G01 X156.283420 Y220.029606 Z-0.125000
G01 X158.618810 Y215.662216 Z-0.125000
G01 X160.901280 Y210.889136 Z-0.125000
G01 X163.130830 Y205.766796 Z-0.125000
G01 X165.303940 Y200.379886 Z-0.125000
G01 X167.417080 Y194.823640 Z-0.125000
G01 X169.470250 Y189.221520 Z-0.125000
G01 X171.459920 Y183.704080 Z-0.125000
G01 X173.382560 Y178.412410 Z-0.125000
G01 X175.238170 Y173.477050 Z-0.125000
G01 X177.023220 Y169.025000 Z-0.125000
G01 X178.734190 Y165.155020 Z-0.125000
G01 X180.367550 Y161.944750 Z-0.125000
G01 X181.926830 Y159.425910 Z-0.125000
G01 X183.404970 Y157.602050 Z-0.125000
G01 X184.801970 Y156.448470 Z-0.125000
G01 X186.117830 Y155.898140 Z-0.125000
G01 X187.349030 Y155.873440 Z-0.125000
G01 X188.495550 Y156.282660 Z-0.125000
G01 X189.553890 Y157.023500 Z-0.125000
G01 X190.520500 Y157.993640 Z-0.125000
G01 X191.402440 Y159.101360 Z-0.125000
G01 X192.192670 Y160.265530 Z-0.125000
G01 X192.887640 Y161.419110 Z-0.125000
G01 X193.494420 Y162.498610 Z-0.125000
G01 X194.005940 Y163.465220 Z-0.125000
G01 X194.425750 Y164.283660 Z-0.125000
G01 X194.746780 Y164.925720 Z-0.125000
G01 X194.976080 Y165.384330 Z-0.125000
G01 X195.110140 Y165.652440 Z-0.125000
G01 X195.148940 Y165.726540 Z-0.125000
G01 X195.092540 Y165.620710 Z-0.125000
G01 X194.940840 Y165.363180 Z-0.125000
G01 X194.693900 Y164.985710 Z-0.125000
G01 X194.351710 Y164.534160 Z-0.125000
G01 X193.914260 Y164.072020 Z-0.125000
G01 X193.385090 Y163.666320 Z-0.125000
G01 X192.764210 Y163.401740 Z-0.125000
G01 X192.048070 Y163.359440 Z-0.125000
G01 X191.240210 Y163.616960 Z-0.125000
G01 X190.344150 Y164.251960 Z-0.125000
G01 X189.356370 Y165.317350 Z-0.125000
G01 X188.283930 Y166.851940 Z-0.125000
G01 X187.119760 Y168.869820 Z-0.125000
G01 X185.874460 Y171.360440 Z-0.125000
G01 X184.540960 Y174.281440 Z-0.125000
G01 X183.129840 Y177.579910 Z-0.125000
G01 X181.634070 Y181.185300 Z-0.125000
G01 X180.060680 Y185.009410 Z-0.125000
G01 X178.413210 Y188.971100 Z-0.125000
G01 X176.688120 Y192.989240 Z-0.125000
G01 X174.888960 Y196.982690 Z-0.125000
G01 X173.022760 Y200.884406 Z-0.125000
G01 X171.086010 Y204.637956 Z-0.125000
G01 X169.085760 Y208.183376 Z-0.125000
G01 X167.018480 Y211.474796 Z-0.125000
G01 X164.894760 Y214.459296 Z-0.125000
G01 X162.711070 Y217.076906 Z-0.125000
G01 X160.470930 Y219.267656 Z-0.125000
G01 X158.177870 Y220.946876 Z-0.125000
G01 X155.831900 Y222.026376 Z-0.125000
G01 X153.443600 Y222.407376 Z-0.125000
G01 X151.009430 Y221.984046 Z-0.125000
G01 X148.532930 Y220.647016 Z-0.125000
G01 X146.017620 Y218.308096 Z-0.125000
G01 X143.470570 Y214.893206 Z-0.125000
G01 X140.888230 Y210.356486 Z-0.125000
G01 X138.277680 Y204.704986 Z-0.125000
G01 X135.642430 Y197.988096 Z-0.125000
G01 X132.982480 Y190.318710 Z-0.125000
G01 X130.304900 Y181.855570 Z-0.125000
G01 X127.613210 Y172.806820 Z-0.125000
G01 X124.903870 Y163.419410 Z-0.125000
G01 X122.191010 Y153.954380 Z-0.125000
G01 X119.467570 Y144.679850 Z-0.125000
G01 X116.744120 Y135.849830 Z-0.125000
G01 X114.017150 Y127.690080 Z-0.125000
G01 X111.297240 Y120.373460 Z-0.125000
G01 X108.584370 Y114.030520 Z-0.125000
G01 X105.882100 Y108.742380 Z-0.125000
G01 X103.193930 Y104.530220 Z-0.125000
G01 X100.523390 Y101.383440 Z-0.125000
G01 X97.870496 Y99.249130 Z-0.125000
G01 X95.245836 Y98.060270 Z-0.125000
G01 X92.645856 Y97.728660 Z-0.125000
G01 X90.074106 Y98.173160 Z-0.125000
G01 X87.537636 Y99.312630 Z-0.125000
G01 X85.036446 Y101.076520 Z-0.125000
G01 X82.574056 Y103.408380 Z-0.125000
G01 X80.153996 Y106.262350 Z-0.125000
G01 X77.779806 Y109.599630 Z-0.125000
G01 X75.454996 Y113.381410 Z-0.125000
G01 X73.179586 Y117.572410 Z-0.125000
G01 X70.960616 Y122.130300 Z-0.125000
G01 X68.794556 Y126.991580 Z-0.125000
G01 X66.691996 Y132.085690 Z-0.125000
G01 X64.649416 Y137.317380 Z-0.125000
G01 X62.670336 Y142.577300 Z-0.125000
G01 X60.758276 Y147.745490 Z-0.125000
G01 X58.913246 Y152.691440 Z-0.125000
G01 X57.142306 Y157.295190 Z-0.125000
G01 X55.445446 Y161.440330 Z-0.125000
G01 X53.822666 Y165.038660 Z-0.125000
G01 X52.277496 Y168.016100 Z-0.125000
G01 X50.809946 Y170.344440 Z-0.125000
G01 X49.423526 Y172.023660 Z-0.125000
G01 X48.121776 Y173.081990 Z-0.125000
G01 X46.904696 Y173.579410 Z-0.125000
G01 X45.775806 Y173.593510 Z-0.125000
G01 X44.731586 Y173.216040 Z-0.125000
G01 X43.775556 Y172.542230 Z-0.125000
G01 X42.911246 Y171.670870 Z-0.125000
G01 X42.135136 Y170.690150 Z-0.125000
G01 X41.454276 Y169.677680 Z-0.125000
G01 X40.861616 Y168.696950 Z-0.125000
G01 X40.364196 Y167.807950 Z-0.125000
G01 X39.962026 Y167.045950 Z-0.125000
G01 X39.655116 Y166.439180 Z-0.125000
G01 X39.439916 Y166.015840 Z-0.125000
G01 X39.323496 Y165.779480 Z-0.125000
G01 X39.298796 Y165.733580 Z-0.125000
G01 X39.372896 Y165.871160 Z-0.125000
G01 X39.538706 Y166.174550 Z-0.125000
G01 X39.803286 Y166.619050 Z-0.125000
G01 X40.159596 Y167.158800 Z-0.125000
G01 X40.611146 Y167.747940 Z-0.125000
G01 X41.154426 Y168.315910 Z-0.125000
G01 X41.792956 Y168.788640 Z-0.125000
G01 X42.523206 Y169.084970 Z-0.125000
G01 X43.345176 Y169.113170 Z-0.125000
G01 X44.255346 Y168.792140 Z-0.125000
G01 X45.257236 Y168.051310 Z-0.125000
G01 X46.347316 Y166.830700 Z-0.125000
G01 X47.522066 Y165.098560 Z-0.125000
G01 X48.781486 Y162.840780 Z-0.125000
G01 X50.125566 Y160.078530 Z-0.125000
G01 X51.554316 Y156.857670 Z-0.125000
G01 X53.060676 Y153.238170 Z-0.125000
G01 X54.644646 Y149.308230 Z-0.125000
G01 X56.309756 Y145.159560 Z-0.125000
G01 X58.045426 Y140.887420 Z-0.125000
G01 X59.851646 Y136.580010 Z-0.125000
G01 X61.731956 Y132.325510 Z-0.125000
G01 X63.679286 Y128.194480 Z-0.125000
G01 X65.690126 Y124.250420 Z-0.125000
G01 X67.767986 Y120.546260 Z-0.125000
G01 X69.902286 Y117.134890 Z-0.125000
G01 X72.096566 Y114.062200 Z-0.125000
G01 X74.343756 Y111.381090 Z-0.125000
G01 X76.647396 Y109.148010 Z-0.125000
G01 X78.996896 Y107.440560 Z-0.125000
G01 X81.392256 Y106.336370 Z-0.125000
G01 X83.837006 Y105.930670 Z-0.125000
G01 X86.317036 Y106.325780 Z-0.125000
G01 X88.835866 Y107.620480 Z-0.125000
G01 X91.393506 Y109.910010 Z-0.125000
G01 X93.979366 Y113.268450 Z-0.125000
G01 X96.593456 Y117.741670 Z-0.125000
G01 X99.232236 Y123.326140 Z-0.125000
G01 X101.895720 Y129.983060 Z-0.125000
G01 X104.576830 Y137.603060 Z-0.125000
G01 X107.272050 Y146.041510 Z-0.125000
G01 X109.981380 Y155.090260 Z-0.125000
G01 X112.697770 Y164.505890 Z-0.125000
G01 X115.421220 Y174.030890 Z-0.125000
G01 X118.144660 Y183.390090 Z-0.125000
G01 X120.868110 Y192.325950 Z-0.125000
G01 X123.588020 Y200.612696 Z-0.125000
G01 X126.297360 Y208.056306 Z-0.125000
G01 X128.999630 Y214.522726 Z-0.125000
G01 X131.684270 Y219.923746 Z-0.125000
G01 X134.354800 Y224.231166 Z-0.125000
G01 X137.000630 Y227.452027 Z-0.125000
G01 X139.625300 Y229.635722 Z-0.125000
G01 X142.221740 Y230.859861 Z-0.125000
G01 X144.786440 Y231.205583 Z-0.125000
G01 X147.315860 Y230.771666 Z-0.125000
G01 X149.809990 Y229.635722 Z-0.125000
G01 X152.265330 Y227.885944 Z-0.125000
G01 X154.678330 Y225.582306 Z-0.125000
G01 X157.045470 Y222.784776 Z-0.125000
G01 X159.363220 Y219.535696 Z-0.125000
G01 X161.628050 Y215.880916 Z-0.125000
G01 X163.839970 Y211.855726 Z-0.125000
G01 X165.995440 Y207.509496 Z-0.125000
G01 X168.090940 Y202.898696 Z-0.125000
G01 X170.122940 Y198.093866 Z-0.125000
G01 X172.091440 Y193.179670 Z-0.125000
G01 X173.992910 Y188.254890 Z-0.125000
G01 X175.823830 Y183.432420 Z-0.125000
G01 X177.584190 Y178.828670 Z-0.125000
G01 X179.270470 Y174.560060 Z-0.125000
G01 X180.879130 Y170.721840 Z-0.125000
G01 X182.413720 Y167.402200 Z-0.125000
G01 X183.867160 Y164.661120 Z-0.125000
G01 X185.235940 Y162.530340 Z-0.125000
G01 X186.527100 Y160.999280 Z-0.125000
G01 X187.730080 Y160.043260 Z-0.125000
G01 X188.844850 Y159.605810 Z-0.125000
G01 X189.874970 Y159.601810 Z-0.125000
G01 X190.816880 Y159.951060 Z-0.125000
G01 X191.667080 Y160.557840 Z-0.125000
G01 X192.429080 Y161.330420 Z-0.125000
G01 X193.095830 Y162.184150 Z-0.125000
G01 X193.670850 Y163.041400 Z-0.125000
G01 X194.150630 Y163.845730 Z-0.125000
G01 X194.538690 Y164.544230 Z-0.125000
G01 X194.831490 Y165.101620 Z-0.125000
G01 X195.029050 Y165.489670 Z-0.125000
G01 X195.134880 Y165.694280 Z-0.125000
G01 X195.141880 Y165.708380 Z-0.125000
G01 X195.053680 Y165.539040 Z-0.125000
G01 X194.870240 Y165.189790 Z-0.125000
G01 X194.591540 Y164.685320 Z-0.125000
G01 X194.221130 Y164.060900 Z-0.125000
G01 X193.755460 Y163.358880 Z-0.125000
G01 X193.194540 Y162.639210 Z-0.125000
G01 X192.541910 Y161.968930 Z-0.125000
G01 X191.797540 Y161.425650 Z-0.125000
G01 X190.961460 Y161.104630 Z-0.125000
G01 X190.033660 Y161.090530 Z-0.125000
G01 X189.017660 Y161.471530 Z-0.125000
G01 X187.916990 Y162.321720 Z-0.125000
G01 X186.724600 Y163.697550 Z-0.125000
G01 X185.451070 Y165.630770 Z-0.125000
G01 X184.092880 Y168.128440 Z-0.125000
G01 X182.653540 Y171.169390 Z-0.125000
G01 X181.133070 Y174.697160 Z-0.125000
G01 X179.534990 Y178.637690 Z-0.125000
G01 X177.862820 Y182.902770 Z-0.125000
G01 X176.113050 Y187.383050 Z-0.125000
G01 X174.292710 Y191.976220 Z-0.125000
G01 X172.401820 Y196.583500 Z-0.125000
G01 X170.447430 Y201.109636 Z-0.125000
G01 X168.422490 Y205.477016 Z-0.125000
G01 X166.337570 Y209.618636 Z-0.125000
G01 X164.192680 Y213.481546 Z-0.125000
G01 X161.991350 Y217.012856 Z-0.125000
G01 X159.733570 Y220.173746 Z-0.125000
G01 X157.422880 Y222.914826 Z-0.125000
G01 X155.066320 Y225.186716 Z-0.125000
G01 X152.660380 Y226.918853 Z-0.125000
G01 X150.212100 Y228.040686 Z-0.125000
G01 X147.725020 Y228.464020 Z-0.125000
G01 X145.199130 Y228.097131 Z-0.125000
G01 X142.637960 Y226.837714 Z-0.125000
G01 X140.045050 Y224.597576 Z-0.125000
G01 X137.427430 Y221.306156 Z-0.125000
G01 X134.785130 Y216.914076 Z-0.125000
G01 X132.118130 Y211.410746 Z-0.125000
G01 X129.437020 Y204.838496 Z-0.125000
G01 X126.738270 Y197.292577 Z-0.125000
G01 X124.025410 Y188.917640 Z-0.125000
G01 X121.309020 Y179.904160 Z-0.125000
G01 X118.585570 Y170.499110 Z-0.125000
G01 X115.862130 Y160.952940 Z-0.125000
G01 X113.138690 Y151.544360 Z-0.125000
G01 X110.418770 Y142.534410 Z-0.125000
G01 X107.709440 Y134.159470 Z-0.125000
G01 X105.010690 Y126.613550 Z-0.125000
G01 X102.326050 Y120.041300 Z-0.125000
G01 X99.662553 Y114.537970 Z-0.125000
G01 X97.020256 Y110.145890 Z-0.125000
G01 X94.399116 Y106.850940 Z-0.125000
G01 X91.809726 Y104.614330 Z-0.125000
G01 X89.248556 Y103.354920 Z-0.125000
G01 X86.722676 Y102.988030 Z-0.125000
G01 X84.235586 Y103.411360 Z-0.125000
G01 X81.787306 Y104.533190 Z-0.125000
G01 X79.381366 Y106.265330 Z-0.125000
G01 X77.021286 Y108.533690 Z-0.125000
G01 X74.714116 Y111.278300 Z-0.125000
G01 X72.456336 Y114.435670 Z-0.125000
G01 X70.255006 Y117.970500 Z-0.125000
G01 X68.106586 Y121.833410 Z-0.125000
G01 X66.021676 Y125.975030 Z-0.125000
G01 X64.000256 Y130.342410 Z-0.125000
G01 X62.042336 Y134.868550 Z-0.125000
G01 X60.151446 Y139.475830 Z-0.125000
G01 X58.331116 Y144.069000 Z-0.125000
G01 X56.584866 Y148.549280 Z-0.125000
G01 X54.909176 Y152.810830 Z-0.125000
G01 X53.311086 Y156.754890 Z-0.125000
G01 X51.794146 Y160.282660 Z-0.125000
G01 X50.351286 Y163.323610 Z-0.125000
G01 X48.993086 Y165.821270 Z-0.125000
G01 X47.719566 Y167.754500 Z-0.125000
G01 X46.530696 Y169.130330 Z-0.125000
G01 X45.426506 Y169.980520 Z-0.125000
G01 X44.410506 Y170.361520 Z-0.125000
G01 X43.486226 Y170.347420 Z-0.125000
G01 X42.650146 Y170.026400 Z-0.125000
G01 X41.905786 Y169.483120 Z-0.125000
G01 X41.253146 Y168.812840 Z-0.125000
G01 X40.692226 Y168.089650 Z-0.125000
G01 X40.226566 Y167.391150 Z-0.125000
G01 X39.852616 Y166.766730 Z-0.125000
G01 X39.573926 Y166.262260 Z-0.125000
G01 X39.394006 Y165.913010 Z-0.125000
G01 X39.305806 Y165.743670 Z-0.125000
G01 X39.312806 Y165.757770 Z-0.125000
G01 X39.415116 Y165.962390 Z-0.125000
G01 X39.612666 Y166.350440 Z-0.125000
G01 X39.905476 Y166.907830 Z-0.125000
G01 X40.293526 Y167.606330 Z-0.125000
G01 X40.776836 Y168.410660 Z-0.125000
G01 X41.351866 Y169.267910 Z-0.125000
G01 X42.018616 Y170.121640 Z-0.125000
G01 X42.777086 Y170.894220 Z-0.125000
G01 X43.630806 Y171.501000 Z-0.125000
G01 X44.569196 Y171.850250 Z-0.125000
G01 X45.599306 Y171.846250 Z-0.125000
G01 X46.717616 Y171.408800 Z-0.125000
G01 X47.920586 Y170.452780 Z-0.125000
G01 X49.208226 Y168.921720 Z-0.125000
G01 X50.580526 Y166.787420 Z-0.125000
G01 X52.033976 Y164.049860 Z-0.125000
G01 X53.565026 Y160.730220 Z-0.125000
G01 X55.177226 Y156.892000 Z-0.125000
G01 X56.863506 Y152.623390 Z-0.125000
G01 X58.623866 Y148.019640 Z-0.125000
G01 X60.454776 Y143.197170 Z-0.125000
G01 X62.356256 Y138.272390 Z-0.125000
G01 X64.324756 Y133.358190 Z-0.125000
G01 X66.356756 Y128.553360 Z-0.125000
G01 X68.452256 Y123.942560 Z-0.125000
G01 X70.607726 Y119.596330 Z-0.125000
G01 X72.816116 Y115.571140 Z-0.125000
G01 X75.084476 Y111.916360 Z-0.125000
G01 X77.402226 Y108.667280 Z-0.125000
G01 X79.765836 Y105.869750 Z-0.125000
G01 X82.178836 Y103.566110 Z-0.125000
G01 X84.634166 Y101.816330 Z-0.125000
G01 X87.128306 Y100.680390 Z-0.125000
G01 X89.661246 Y100.246470 Z-0.125000
G01 X92.225946 Y100.592200 Z-0.125000
G01 X94.822386 Y101.816330 Z-0.125000
G01 X97.443526 Y104.000030 Z-0.125000
G01 X100.092890 Y107.220890 Z-0.125000
G01 X102.759900 Y111.528310 Z-0.125000
G01 X105.448070 Y116.929330 Z-0.125000
G01 X108.146820 Y123.395750 Z-0.125000
G01 X110.859680 Y130.839360 Z-0.125000
G01 X113.579600 Y139.122580 Z-0.125000
G01 X116.303040 Y148.061970 Z-0.125000
G01 X119.026490 Y157.421170 Z-0.125000
G01 X121.749930 Y166.946170 Z-0.125000
G01 X124.466320 Y176.361800 Z-0.125000
G01 X127.175650 Y185.410550 Z-0.125000
G01 X129.870870 Y193.849000 Z-0.125000
G01 X132.551990 Y201.468996 Z-0.125000
G01 X135.211930 Y208.125916 Z-0.125000
G01 X137.854240 Y213.710386 Z-0.125000
G01 X140.468320 Y218.183606 Z-0.125000
G01 X143.054180 Y221.542046 Z-0.125000
G01 X145.608290 Y223.831576 Z-0.125000
G01 X148.127120 Y225.126276 Z-0.125000
G01 X150.610680 Y225.521386 Z-0.125000
G01 X153.051900 Y225.115686 Z-0.125000
G01 X155.450790 Y224.011496 Z-0.125000
G01 X157.800290 Y222.304046 Z-0.125000
G01 X160.100400 Y220.070966 Z-0.125000
G01 X162.351120 Y217.389856 Z-0.125000
G01 X164.545400 Y214.317166 Z-0.125000
G01 X166.679710 Y210.905796 Z-0.125000
G01 X168.754040 Y207.201636 Z-0.125000
G01 X170.768400 Y203.257576 Z-0.125000
G01 X172.712210 Y199.126546 Z-0.125000
G01 X174.592510 Y194.872050 Z-0.125000
G01 X176.402260 Y190.564640 Z-0.125000
G01 X178.137930 Y186.288970 Z-0.125000
G01 X179.799510 Y182.140300 Z-0.125000
G01 X181.387010 Y178.213890 Z-0.125000
G01 X182.893370 Y174.594390 Z-0.125000
G01 X184.318600 Y171.373530 Z-0.125000
G01 X185.662680 Y168.611280 Z-0.125000
G01 X186.925620 Y166.353500 Z-0.125000
G01 X188.100370 Y164.621360 Z-0.125000
G01 X189.190460 Y163.400750 Z-0.125000
G01 X190.188820 Y162.659920 Z-0.125000
G01 X191.102510 Y162.338890 Z-0.125000
G01 X191.924480 Y162.367090 Z-0.125000
G01 X192.654730 Y162.663420 Z-0.125000
G01 X193.293260 Y163.136150 Z-0.125000
G01 X193.836540 Y163.704120 Z-0.125000
G01 X194.288100 Y164.293260 Z-0.125000
G01 X194.644400 Y164.833010 Z-0.125000
G01 X194.905460 Y165.277510 Z-0.125000
G01 X195.074790 Y165.580900 Z-0.125000
G01 X195.145390 Y165.718480 Z-0.125000
G01 X195.124190 Y165.672580 Z-0.125000
G01 X195.004240 Y165.436220 Z-0.125000
G01 X194.792580 Y165.009360 Z-0.125000
G01 X194.482130 Y164.406110 Z-0.125000
G01 X194.079970 Y163.644110 Z-0.125000
G01 X193.582550 Y162.755110 Z-0.125000
G01 X192.993410 Y161.774380 Z-0.125000
G01 X192.309020 Y160.761910 Z-0.125000
G01 X191.536440 Y159.781190 Z-0.125000
G01 X190.672130 Y158.909830 Z-0.125000
G01 X189.716110 Y158.236020 Z-0.125000
G01 X188.671880 Y157.858550 Z-0.125000
G01 X187.539470 Y157.872650 Z-0.125000
G01 X186.322380 Y158.370070 Z-0.125000
G01 X185.020630 Y159.428400 Z-0.125000
G01 X183.637740 Y161.107620 Z-0.125000
G01 X182.170190 Y163.435960 Z-0.125000
G01 X180.625020 Y166.413400 Z-0.125000
G01 X179.002250 Y170.011730 Z-0.125000
G01 X177.305380 Y174.156870 Z-0.125000
G01 X175.530910 Y178.760620 Z-0.125000
G01 X173.689410 Y183.706570 Z-0.125000
G01 X171.777360 Y188.874760 Z-0.125000
G01 X169.798270 Y194.134680 Z-0.125000
G01 X167.755690 Y199.366366 Z-0.125000
G01 X165.649610 Y204.460476 Z-0.125000
G01 X163.487080 Y209.321756 Z-0.125000
G01 X161.264580 Y213.879646 Z-0.125000
G01 X158.989160 Y218.070646 Z-0.125000
G01 X156.664360 Y221.852426 Z-0.125000
G01 X154.290160 Y225.189706 Z-0.125000
G01 X151.873630 Y228.043674 Z-0.125000
G01 X149.411250 Y230.375535 Z-0.125000
G01 X146.910050 Y232.139424 Z-0.125000
G01 X144.373580 Y233.278896 Z-0.125000
G01 X141.801830 Y233.723396 Z-0.125000
G01 X139.201860 Y233.391785 Z-0.125000
G01 X136.573660 Y232.202924 Z-0.125000
G01 X133.924300 Y230.068618 Z-0.125000
G01 X131.250250 Y226.921841 Z-0.125000
G01 X128.562080 Y222.709676 Z-0.125000
G01 X125.859800 Y217.421536 Z-0.125000
G01 X123.146940 Y211.078596 Z-0.125000
G01 X120.427020 Y203.761976 Z-0.125000
G01 X117.703580 Y195.602230 Z-0.125000
G01 X114.980140 Y186.772210 Z-0.125000
G01 X112.256690 Y177.497680 Z-0.125000
G01 X109.540300 Y168.032650 Z-0.125000
G01 X106.834500 Y158.645240 Z-0.125000
G01 X104.139270 Y149.596490 Z-0.125000
G01 X101.461690 Y141.133350 Z-0.125000
G01 X98.805256 Y133.463960 Z-0.125000
G01 X96.166486 Y126.747070 Z-0.125000
G01 X93.555926 Y121.095570 Z-0.125000
G01 X90.977126 Y116.558850 Z-0.125000
G01 X88.426536 Y113.143960 Z-0.125000
G01 X85.911236 Y110.801510 Z-0.125000
G01 X83.438256 Y109.468010 Z-0.125000
G01 X81.004096 Y109.044680 Z-0.125000
G01 X78.612256 Y109.425680 Z-0.125000
G01 X76.269816 Y110.505180 Z-0.125000
G01 X73.976766 Y112.184400 Z-0.125000
G01 X71.736626 Y114.375150 Z-0.125000
G01 X69.552926 Y116.992760 Z-0.125000
G01 X67.425676 Y119.977260 Z-0.125000
G01 X65.361926 Y123.268680 Z-0.125000
G01 X63.358146 Y126.814100 Z-0.125000
G01 X61.424926 Y130.567650 Z-0.125000
G01 X59.555206 Y134.469370 Z-0.125000
G01 X57.759566 Y138.462820 Z-0.125000
G01 X56.034486 Y142.480960 Z-0.125000
G01 X54.383486 Y146.442650 Z-0.125000
G01 X52.810096 Y150.266760 Z-0.125000
G01 X51.317846 Y153.872150 Z-0.125000
G01 X49.903206 Y157.170620 Z-0.125000
G01 X48.573236 Y160.091620 Z-0.125000
G01 X47.324396 Y162.582240 Z-0.125000
G01 X46.163766 Y164.600120 Z-0.125000
G01 X45.087786 Y166.134710 Z-0.125000
G01 X44.103536 Y167.200100 Z-0.125000
G01 X43.203956 Y167.835100 Z-0.125000
G01 X42.399626 Y168.092620 Z-0.125000
G01 X41.683486 Y168.050320 Z-0.125000
G01 X41.059066 Y167.785740 Z-0.125000
G01 X40.529896 Y167.380040 Z-0.125000
G01 X40.095986 Y166.917900 Z-0.125000
G01 X39.753786 Y166.466350 Z-0.125000
G01 X39.506846 Y166.088880 Z-0.125000
G01 X39.355146 Y165.827820 Z-0.125000
G01 X39.295146 Y165.725510 Z-0.125000
G01 X39.333946 Y165.799610 Z-0.125000
G01 X39.467996 Y166.067720 Z-0.125000
G01 X39.697306 Y166.522800 Z-0.125000
G01 X40.021856 Y167.168390 Z-0.125000
G01 X40.438136 Y167.986830 Z-0.125000
G01 X40.953196 Y168.953440 Z-0.125000
G01 X41.556446 Y170.032940 Z-0.125000
G01 X42.254946 Y171.186520 Z-0.125000
G01 X43.045166 Y172.350690 Z-0.125000
G01 X43.923586 Y173.458410 Z-0.125000
G01 X44.893726 Y174.428550 Z-0.125000
G01 X45.952056 Y175.169390 Z-0.125000
G01 X47.098586 Y175.575080 Z-0.125000
G01 X48.329776 Y175.553880 Z-0.125000
G01 X49.642106 Y175.003550 Z-0.125000
G01 X51.042636 Y173.849970 Z-0.125000
G01 X52.520776 Y172.026110 Z-0.125000
G01 X54.080056 Y169.507270 Z-0.125000
G01 X55.713416 Y166.296990 Z-0.125000
G01 X57.424386 Y162.427020 Z-0.125000
G01 X59.205916 Y157.974970 Z-0.125000
G01 X61.061526 Y153.039610 Z-0.125000
G01 X62.984166 Y147.747940 Z-0.125000
G01 X64.973836 Y142.230500 Z-0.125000
G01 X67.026996 Y136.628380 Z-0.125000
G01 X69.143666 Y131.072130 Z-0.125000
G01 X71.316776 Y125.685220 Z-0.125000
G01 X73.546336 Y120.562880 Z-0.125000
G01 X75.828806 Y115.789800 Z-0.125000
G01 X78.160666 Y111.422410 Z-0.125000
G01 X80.541916 Y107.510110 Z-0.125000
G01 X82.969026 Y104.084640 Z-0.125000
G01 X85.438466 Y101.174220 Z-0.125000
G01 X87.943196 Y98.814140 Z-0.125000
G01 X90.486716 Y97.039660 Z-0.125000
G01 X93.061996 Y95.900190 Z-0.125000
G01 X95.669026 Y95.455690 Z-0.125000
G01 X98.300746 Y95.776720 Z-0.125000
G01 X100.953650 Y96.940890 Z-0.125000
G01 X103.627710 Y99.022270 Z-0.125000
G01 X106.319400 Y102.094970 Z-0.125000
G01 X109.025210 Y106.204830 Z-0.125000
G01 X111.738070 Y111.369500 Z-0.125000
G01 X114.457980 Y117.571330 Z-0.125000
G01 X117.184960 Y124.739770 Z-0.125000
G01 X119.908400 Y132.751360 Z-0.125000
G01 X122.628320 Y141.440270 Z-0.125000
G01 X125.344710 Y150.594860 Z-0.125000
G01 X128.050510 Y159.961110 Z-0.125000
G01 X130.738680 Y169.285020 Z-0.125000
G01 X133.416260 Y178.294970 Z-0.125000
G01 X136.069150 Y186.747520 Z-0.125000
G01 X138.700870 Y194.434550 Z-0.125000
G01 X141.307900 Y201.183186 Z-0.125000
G01 X143.883180 Y206.880546 Z-0.125000
G01 X146.426710 Y211.466656 Z-0.125000
G01 X148.934960 Y214.930936 Z-0.125000
G01 X151.404400 Y217.315716 Z-0.125000
G01 X153.831510 Y218.688016 Z-0.125000
G01 X156.216290 Y219.146626 Z-0.125000
G01 X158.551680 Y218.793846 Z-0.125000
G01 X160.834150 Y217.742576 Z-0.125000
G01 X163.067230 Y216.098626 Z-0.125000
G01 X165.240340 Y213.957266 Z-0.125000
G01 X167.357010 Y211.406686 Z-0.125000
G01 X169.413710 Y208.513906 Z-0.125000
G01 X171.403370 Y205.342436 Z-0.125000
G01 X173.329540 Y201.948716 Z-0.125000
G01 X175.185150 Y198.385656 Z-0.125000
G01 X176.970210 Y194.706190 Z-0.125000
G01 X178.684710 Y190.963220 Z-0.125000
G01 X180.321590 Y187.230830 Z-0.125000
G01 X181.880870 Y183.568990 Z-0.125000
G01 X183.362540 Y180.055330 Z-0.125000
G01 X184.763070 Y176.770970 Z-0.125000
G01 X186.082450 Y173.779410 Z-0.125000
G01 X187.313650 Y171.151220 Z-0.125000
G01 X188.463700 Y168.932240 Z-0.125000
G01 X189.522040 Y167.147190 Z-0.125000
G01 X190.495700 Y165.806630 Z-0.125000
G01 X191.377650 Y164.892940 Z-0.125000
G01 X192.171400 Y164.363770 Z-0.125000
G01 X192.869900 Y164.162690 Z-0.125000
G01 X193.476680 Y164.215590 Z-0.125000
G01 X193.991730 Y164.448420 Z-0.125000
G01 X194.415070 Y164.780030 Z-0.125000
G01 X194.739620 Y165.132810 Z-0.125000
G01 X194.972450 Y165.443250 Z-0.125000
G01 X195.106510 Y165.654920 Z-0.125000
G01 X195.148810 Y165.725420 Z-0.125000
G01 X195.095910 Y165.623120 Z-0.125000
G01 X194.947740 Y165.333840 Z-0.125000
G01 X194.700800 Y164.850540 Z-0.125000
G01 X194.362130 Y164.169680 Z-0.125000
G01 X193.928210 Y163.305370 Z-0.125000
G01 X193.402570 Y162.275260 Z-0.125000
G01 X192.781680 Y161.107560 Z-0.125000
G01 X192.069070 Y159.837560 Z-0.125000
G01 X191.264740 Y158.518180 Z-0.125000
G01 X190.372210 Y157.202310 Z-0.125000
G01 X189.387960 Y155.971120 Z-0.125000
G01 X188.315520 Y154.902200 Z-0.125000
G01 X187.154880 Y154.094340 Z-0.125000
G01 X185.909570 Y153.653370 Z-0.125000
G01 X184.583130 Y153.681570 Z-0.125000
G01 X183.172020 Y154.277770 Z-0.125000
G01 X181.679770 Y155.523070 Z-0.125000
G01 X180.106380 Y157.480990 Z-0.125000
G01 X178.458910 Y160.179740 Z-0.125000
G01 X176.737350 Y163.615790 Z-0.125000
G01 X174.941710 Y167.750350 Z-0.125000
G01 X173.079050 Y172.502270 Z-0.125000
G01 X171.142300 Y177.762180 Z-0.125000
G01 X169.142050 Y183.403100 Z-0.125000
G01 X167.078300 Y189.269790 Z-0.125000
G01 X164.954570 Y195.221150 Z-0.125000
G01 X162.774410 Y201.101956 Z-0.125000
G01 X160.534270 Y206.792266 Z-0.125000
G01 X158.244740 Y212.182706 Z-0.125000
G01 X155.902300 Y217.181566 Z-0.125000
G01 X153.513990 Y221.725346 Z-0.125000
G01 X151.079820 Y225.775233 Z-0.125000
G01 X148.603320 Y229.292427 Z-0.125000
G01 X146.091550 Y232.259288 Z-0.125000
G01 X143.544490 Y234.644066 Z-0.125000
G01 X140.962160 Y236.425594 Z-0.125000
G01 X138.355130 Y237.561538 Z-0.125000
G01 X135.719880 Y238.002511 Z-0.125000
G01 X133.059940 Y237.685011 Z-0.125000
G01 X130.382350 Y236.545538 Z-0.125000
G01 X127.690660 Y234.506483 Z-0.125000
G01 X124.984850 Y231.507872 Z-0.125000
G01 X122.268460 Y227.503844 Z-0.125000
G01 X119.545020 Y222.469706 Z-0.125000
G01 X116.821580 Y216.419566 Z-0.125000
G01 X114.098130 Y209.420456 Z-0.125000
G01 X111.378210 Y201.581736 Z-0.125000
G01 X108.661830 Y193.062150 Z-0.125000
G01 X105.959550 Y184.066320 Z-0.125000
G01 X103.271380 Y174.830600 Z-0.125000
G01 X100.600850 Y165.612520 Z-0.125000
G01 X97.947946 Y156.676660 Z-0.125000
G01 X95.319756 Y148.269960 Z-0.125000
G01 X92.719786 Y140.600570 Z-0.125000
G01 X90.148036 Y133.844880 Z-0.125000
G01 X87.608036 Y128.126350 Z-0.125000
G01 X85.106836 Y123.508490 Z-0.125000
G01 X82.644446 Y120.005410 Z-0.125000
G01 X80.224396 Y117.581820 Z-0.125000
G01 X77.850206 Y116.174240 Z-0.125000
G01 X75.521866 Y115.683880 Z-0.125000
G01 X73.246456 Y116.001380 Z-0.125000
G01 X71.023956 Y117.017380 Z-0.125000
G01 X68.857896 Y118.618990 Z-0.125000
G01 X66.751816 Y120.703910 Z-0.125000
G01 X64.705706 Y123.187460 Z-0.125000
G01 X62.726616 Y125.984990 Z-0.125000
G01 X60.811036 Y129.032990 Z-0.125000
G01 X58.966006 Y132.275020 Z-0.125000
G01 X57.191536 Y135.651100 Z-0.125000
G01 X55.491146 Y139.115380 Z-0.125000
G01 X53.864836 Y142.611410 Z-0.125000
G01 X52.319676 Y146.075680 Z-0.125000
G01 X50.852116 Y149.444710 Z-0.125000
G01 X49.462176 Y152.654990 Z-0.125000
G01 X48.160426 Y155.632430 Z-0.125000
G01 X46.939816 Y158.324130 Z-0.125000
G01 X45.807396 Y160.670100 Z-0.125000
G01 X44.759646 Y162.631540 Z-0.125000
G01 X43.800086 Y164.187290 Z-0.125000
G01 X42.932256 Y165.337350 Z-0.125000
G01 X42.156146 Y166.106400 Z-0.125000
G01 X41.471756 Y166.536790 Z-0.125000
G01 X40.879086 Y166.684960 Z-0.125000
G01 X40.378146 Y166.621460 Z-0.125000
G01 X39.972456 Y166.427430 Z-0.125000
G01 X39.662006 Y166.173430 Z-0.125000
G01 X39.446816 Y165.933540 Z-0.125000
G01 X39.323336 Y165.767740 Z-0.125000
G01 X39.298636 Y165.728940 Z-0.125000
G01 X39.369236 Y165.852410 Z-0.125000
G01 X39.531506 Y166.159330 Z-0.125000
G01 X39.792566 Y166.667330 Z-0.125000
G01 X40.145346 Y167.376410 Z-0.125000
G01 X40.596896 Y168.276000 Z-0.125000
G01 X41.136646 Y169.359030 Z-0.125000
G01 X41.771646 Y170.597280 Z-0.125000
G01 X42.501896 Y171.966050 Z-0.125000
G01 X43.320346 Y173.419500 Z-0.125000
G01 X44.226986 Y174.904690 Z-0.125000
G01 X45.225346 Y176.368720 Z-0.125000
G01 X46.311896 Y177.723390 Z-0.125000
G01 X47.486646 Y178.887550 Z-0.125000
G01 X48.746066 Y179.762440 Z-0.125000
G01 X50.086616 Y180.238690 Z-0.125000
G01 X51.511846 Y180.210490 Z-0.125000
G01 X53.014676 Y179.579020 Z-0.125000
G01 X54.598646 Y178.252570 Z-0.125000
G01 X56.260236 Y176.171180 Z-0.125000
G01 X57.992366 Y173.303100 Z-0.125000
G01 X59.798596 Y169.655380 Z-0.125000
G01 X61.675366 Y165.266820 Z-0.125000
G01 X63.622706 Y160.222100 Z-0.125000
G01 X65.633536 Y154.641160 Z-0.125000
G01 X67.704346 Y148.661570 Z-0.125000
G01 X69.838646 Y142.442100 Z-0.125000
G01 X72.032926 Y136.148550 Z-0.125000
G01 X74.280116 Y129.929070 Z-0.125000
G01 X76.580236 Y123.931850 Z-0.125000
G01 X78.929726 Y118.273300 Z-0.125000
G01 X81.325096 Y113.041600 Z-0.125000
G01 X83.762786 Y108.307330 Z-0.125000
G01 X86.246346 Y104.119850 Z-0.125000
G01 X88.765176 Y100.503880 Z-0.125000
G01 X91.319286 Y97.480580 Z-0.125000
G01 X93.905146 Y95.067580 Z-0.125000
G01 X96.515706 Y93.282520 Z-0.125000
G01 X99.158006 Y92.157160 Z-0.125000
G01 X101.817970 Y91.726770 Z-0.125000
G01 X104.499080 Y92.044270 Z-0.125000
G01 X107.194300 Y93.166100 Z-0.125000
G01 X109.900110 Y95.162830 Z-0.125000
G01 X112.620020 Y98.087350 Z-0.125000
G01 X115.339940 Y101.989080 Z-0.125000
G01 X118.066910 Y106.889160 Z-0.125000
G01 X120.790360 Y112.773490 Z-0.125000
G01 X123.510270 Y119.589160 Z-0.125000
G01 X126.219610 Y127.233850 Z-0.125000
G01 X128.921880 Y135.559410 Z-0.125000
G01 X131.606520 Y144.368270 Z-0.125000
G01 X134.277050 Y153.434660 Z-0.125000
G01 X136.926410 Y162.508100 Z-0.125000
G01 X139.547550 Y171.331070 Z-0.125000
G01 X142.143990 Y179.660160 Z-0.125000
G01 X144.712220 Y187.280160 Z-0.125000
G01 X147.245160 Y194.011160 Z-0.125000
G01 X149.739300 Y199.729676 Z-0.125000
G01 X152.194630 Y204.361656 Z-0.125000
G01 X154.611160 Y207.889426 Z-0.125000
G01 X156.978300 Y210.341236 Z-0.125000
G01 X159.296050 Y211.780566 Z-0.125000
G01 X161.564410 Y212.306206 Z-0.125000
G01 X163.776330 Y212.020456 Z-0.125000
G01 X165.935330 Y211.046796 Z-0.125000
G01 X168.030830 Y209.491046 Z-0.125000
G01 X170.066350 Y207.466096 Z-0.125000
G01 X172.034850 Y205.063676 Z-0.125000
G01 X173.939850 Y202.364926 Z-0.125000
G01 X175.770770 Y199.440406 Z-0.125000
G01 X177.534660 Y196.350070 Z-0.125000
G01 X179.220940 Y193.153910 Z-0.125000
G01 X180.836660 Y189.901300 Z-0.125000
G01 X182.371240 Y186.648680 Z-0.125000
G01 X183.824690 Y183.445460 Z-0.125000
G01 X185.200520 Y180.358660 Z-0.125000
G01 X186.488160 Y177.441180 Z-0.125000
G01 X187.694660 Y174.756550 Z-0.125000
G01 X188.816490 Y172.354130 Z-0.125000
G01 X189.846600 Y170.283320 Z-0.125000
G01 X190.792050 Y168.572350 Z-0.125000
G01 X191.645770 Y167.235320 Z-0.125000
G01 X192.407770 Y166.265180 Z-0.125000
G01 X193.078050 Y165.633710 Z-0.125000
G01 X193.656600 Y165.298570 Z-0.125000
G01 X194.139910 Y165.196270 Z-0.125000
G01 X194.527960 Y165.259770 Z-0.125000
G01 X194.824300 Y165.411460 Z-0.125000
G01 X195.025380 Y165.580800 Z-0.125000
G01 X195.131210 Y165.700740 Z-0.125000
G01 X195.141810 Y165.714840 Z-0.125000
G01 X195.057110 Y165.577260 Z-0.125000
G01 X194.877190 Y165.256230 Z-0.125000
G01 X194.602030 Y164.737650 Z-0.125000
G01 X194.231610 Y164.010930 Z-0.125000
G01 X193.769470 Y163.076060 Z-0.125000
G00 Z10.000000

(End cutting path id: polyline30)


(Start cutting path id: polyline28)
(Change tool to Default tool)

G00 Z10.000000
G00 X169.286950 Y168.372340

G00 Z4.875000 (Fast pre-penetrate)
G01 Z-0.125000 F100.0(Penetrate)
G01 X169.752610 Y167.441000 Z-0.125000 F600.000000
G01 X170.123030 Y166.714280 Z-0.125000
G01 X170.394670 Y166.195700 Z-0.125000
G01 X170.578110 Y165.874670 Z-0.125000
G01 X170.662810 Y165.737090 Z-0.125000
G01 X170.652210 Y165.751190 Z-0.125000
G01 X170.546370 Y165.871130 Z-0.125000
G01 X170.345290 Y166.040470 Z-0.125000
G01 X170.048960 Y166.192160 Z-0.125000
G01 X169.657370 Y166.255660 Z-0.125000
G01 X169.174070 Y166.153360 Z-0.125000
G01 X168.595510 Y165.818220 Z-0.125000
G01 X167.925230 Y165.186740 Z-0.125000
G01 X167.163230 Y164.216610 Z-0.125000
G01 X166.309510 Y162.879580 Z-0.125000
G01 X165.367590 Y161.168610 Z-0.125000
G01 X164.333960 Y159.097800 Z-0.125000
G01 X163.215650 Y156.695380 Z-0.125000
G01 X162.009150 Y154.010750 Z-0.125000
G01 X160.717980 Y151.093270 Z-0.125000
G01 X159.345680 Y148.006470 Z-0.125000
G01 X157.888710 Y144.803250 Z-0.125000
G01 X156.354120 Y141.550630 Z-0.125000
G01 X154.741930 Y138.298020 Z-0.125000
G01 X153.052120 Y135.101860 Z-0.125000
G01 X151.291760 Y132.011520 Z-0.125000
G01 X149.457320 Y129.087000 Z-0.125000
G01 X147.555840 Y126.388250 Z-0.125000
G01 X145.583820 Y123.985830 Z-0.125000
G01 X143.548290 Y121.960880 Z-0.125000
G01 X141.452790 Y120.405130 Z-0.125000
G01 X139.297320 Y119.431470 Z-0.125000
G01 X137.081870 Y119.145720 Z-0.125000
G01 X134.813510 Y119.671360 Z-0.125000
G01 X132.495760 Y121.110690 Z-0.125000
G01 X130.128620 Y123.562500 Z-0.125000
G01 X127.715620 Y127.090270 Z-0.125000
G01 X125.260290 Y131.722250 Z-0.125000
G01 X122.762620 Y137.440770 Z-0.125000
G01 X120.229680 Y144.171770 Z-0.125000
G01 X117.664980 Y151.791770 Z-0.125000
G01 X115.068540 Y160.120860 Z-0.125000
G01 X112.443870 Y168.943830 Z-0.125000
G01 X109.794510 Y178.017270 Z-0.125000
G01 X107.127510 Y187.083660 Z-0.125000
G01 X104.439350 Y195.892520 Z-0.125000
G01 X101.740600 Y204.218076 Z-0.125000
G01 X99.027716 Y211.862766 Z-0.125000
G01 X96.307806 Y218.678436 Z-0.125000
G01 X93.584356 Y224.562766 Z-0.125000
G01 X90.860916 Y229.462851 Z-0.125000
G01 X88.137466 Y233.364573 Z-0.125000
G01 X85.421086 Y236.289101 Z-0.125000
G01 X82.711746 Y238.285823 Z-0.125000
G01 X80.016526 Y239.407656 Z-0.125000
G01 X77.335416 Y239.725156 Z-0.125000
G01 X74.675476 Y239.294767 Z-0.125000
G01 X72.036696 Y238.169406 Z-0.125000
G01 X69.422606 Y236.384351 Z-0.125000
G01 X66.836746 Y233.971351 Z-0.125000
G01 X64.282636 Y230.948045 Z-0.125000
G01 X61.763806 Y227.332073 Z-0.125000
G01 X59.283776 Y223.144596 Z-0.125000
G01 X56.842556 Y218.410326 Z-0.125000
G01 X54.447196 Y213.178626 Z-0.125000
G01 X52.097696 Y207.520076 Z-0.125000
G01 X49.797586 Y201.522856 Z-0.125000
G01 X47.550386 Y195.303380 Z-0.125000
G01 X45.359636 Y189.009830 Z-0.125000
G01 X43.225336 Y182.790360 Z-0.125000
G01 X41.150996 Y176.810770 Z-0.125000
G01 X39.140166 Y171.229830 Z-0.125000
G01 X37.196356 Y166.185110 Z-0.125000
G01 X35.319586 Y161.796550 Z-0.125000
G01 X33.513356 Y158.148830 Z-0.125000
G01 X31.777696 Y155.280750 Z-0.125000
G01 X30.119636 Y153.199360 Z-0.125000
G01 X28.535666 Y151.872910 Z-0.125000
G01 X27.029306 Y151.241440 Z-0.125000
G01 X25.607616 Y151.213240 Z-0.125000
G01 X24.263526 Y151.689490 Z-0.125000
G01 X23.004116 Y152.560850 Z-0.125000
G01 X21.832886 Y153.728540 Z-0.125000
G01 X20.746336 Y155.083210 Z-0.125000
G01 X19.747976 Y156.547240 Z-0.125000
G01 X18.837806 Y158.032430 Z-0.125000
G01 X18.019366 Y159.485880 Z-0.125000
G01 X17.292636 Y160.851130 Z-0.125000
G01 X16.657636 Y162.092900 Z-0.125000
G01 X16.114366 Y163.175930 Z-0.125000
G01 X15.666336 Y164.075520 Z-0.125000
G01 X15.310026 Y164.784600 Z-0.125000
G01 X15.052496 Y165.292600 Z-0.125000
G01 X14.886696 Y165.599510 Z-0.125000
G01 X14.816096 Y165.722990 Z-0.125000
G01 X14.844296 Y165.684190 Z-0.125000
G01 X14.964236 Y165.518390 Z-0.125000
G01 X15.179426 Y165.278500 Z-0.125000
G01 X15.493406 Y165.024500 Z-0.125000
G01 X15.899096 Y164.830470 Z-0.125000
G01 X16.396516 Y164.766970 Z-0.125000
G01 X16.989176 Y164.915140 Z-0.125000
G01 X17.677096 Y165.345520 Z-0.125000
G01 X18.453206 Y166.114580 Z-0.125000
G01 X19.321046 Y167.264640 Z-0.125000
G01 X20.277066 Y168.820390 Z-0.125000
G01 X21.324816 Y170.781830 Z-0.125000
G01 X22.457236 Y173.127800 Z-0.125000
G01 X23.677846 Y175.815970 Z-0.125000
G01 X24.983126 Y178.796940 Z-0.125000
G01 X26.369546 Y182.007220 Z-0.125000
G01 X27.837096 Y185.376250 Z-0.125000
G01 X29.385786 Y188.840520 Z-0.125000
G01 X31.012096 Y192.336550 Z-0.125000
G01 X32.712486 Y195.800830 Z-0.125000
G01 X34.483426 Y199.176906 Z-0.125000
G01 X36.328456 Y202.418936 Z-0.125000
G01 X38.244036 Y205.466936 Z-0.125000
G01 X40.223126 Y208.264466 Z-0.125000
G01 X42.269236 Y210.744496 Z-0.125000
G01 X44.375316 Y212.832936 Z-0.125000
G01 X46.541376 Y214.434546 Z-0.125000
G01 X48.763876 Y215.450546 Z-0.125000
G01 X51.039286 Y215.768046 Z-0.125000
G01 X53.367626 Y215.277686 Z-0.125000
G01 X55.741816 Y213.870106 Z-0.125000
G01 X58.161876 Y211.446516 Z-0.125000
G01 X60.624266 Y207.943436 Z-0.125000
G01 X63.128986 Y203.325576 Z-0.125000
G01 X65.665456 Y197.603516 Z-0.125000
G01 X68.237206 Y190.851360 Z-0.125000
G01 X70.837176 Y183.181970 Z-0.125000
G01 X73.465376 Y174.771750 Z-0.125000
G01 X76.118266 Y165.839410 Z-0.125000
G01 X78.788786 Y156.621330 Z-0.125000
G01 X81.480486 Y147.385610 Z-0.125000
G01 X84.182766 Y138.389780 Z-0.125000
G01 X86.895626 Y129.870190 Z-0.125000
G01 X89.615536 Y122.031470 Z-0.125000
G01 X92.338986 Y115.032360 Z-0.125000
G01 X95.065956 Y108.982220 Z-0.125000
G01 X97.785876 Y103.948080 Z-0.125000
G01 X100.502270 Y99.940530 Z-0.125000
G01 X103.208080 Y96.945440 Z-0.125000
G01 X105.903300 Y94.906390 Z-0.125000
G01 X108.580890 Y93.766920 Z-0.125000
G01 X111.237300 Y93.449420 Z-0.125000
G01 X113.872550 Y93.890390 Z-0.125000
G01 X116.483110 Y95.026330 Z-0.125000
G01 X119.061910 Y96.804330 Z-0.125000
G01 X121.608970 Y99.192640 Z-0.125000
G01 X124.124280 Y102.159500 Z-0.125000
G01 X126.597250 Y105.676690 Z-0.125000
G01 X129.031410 Y109.726580 Z-0.125000
G01 X131.419720 Y114.270360 Z-0.125000
G01 X133.762160 Y119.269220 Z-0.125000
G01 X136.051690 Y124.656140 Z-0.125000
G01 X138.291830 Y130.346440 Z-0.125000
G01 X140.475520 Y136.230780 Z-0.125000
G01 X142.599250 Y142.182140 Z-0.125000
G01 X144.663000 Y148.048830 Z-0.125000
G01 X146.663250 Y153.689750 Z-0.125000
G01 X148.596470 Y158.949660 Z-0.125000
G01 X150.462660 Y163.701580 Z-0.125000
G01 X152.258300 Y167.836140 Z-0.125000
G01 X153.979860 Y171.272190 Z-0.125000
G01 X155.627330 Y173.970940 Z-0.125000
G01 X157.197190 Y175.928860 Z-0.125000
G01 X158.689440 Y177.174160 Z-0.125000
G01 X160.100550 Y177.766830 Z-0.125000
G01 X161.430520 Y177.795030 Z-0.125000
G01 X162.672300 Y177.357590 Z-0.125000
G01 X163.832940 Y176.549730 Z-0.125000
G01 X164.905390 Y175.480810 Z-0.125000
G01 X165.889640 Y174.249620 Z-0.125000
G01 X166.785690 Y172.933750 Z-0.125000
G01 X167.590020 Y171.610840 Z-0.125000
G01 X168.302640 Y170.344370 Z-0.125000
G01 X168.920000 Y169.176670 Z-0.125000
G01 X169.449160 Y168.146560 Z-0.125000
G01 X169.883080 Y167.282250 Z-0.125000
G01 X170.221750 Y166.601390 Z-0.125000
G01 X170.465160 Y166.118090 Z-0.125000
G01 X170.613330 Y165.828810 Z-0.125000
G01 X170.669730 Y165.726500 Z-0.125000
G01 X170.627430 Y165.797100 Z-0.125000
G01 X170.489850 Y166.008770 Z-0.125000
G01 X170.257010 Y166.319210 Z-0.125000
G01 X169.932460 Y166.671990 Z-0.125000
G01 X169.512650 Y167.003600 Z-0.125000
G01 X168.997600 Y167.236430 Z-0.125000
G01 X168.387290 Y167.289330 Z-0.125000
G01 X167.688790 Y167.088250 Z-0.125000
G01 X166.895040 Y166.559080 Z-0.125000
G01 X166.013100 Y165.645390 Z-0.125000
G01 X165.042960 Y164.304830 Z-0.125000
G01 X163.981100 Y162.519780 Z-0.125000
G01 X162.834570 Y160.300800 Z-0.125000
G01 X161.599850 Y157.672610 Z-0.125000
G01 X160.280460 Y154.681050 Z-0.125000
G01 X158.883460 Y151.396690 Z-0.125000
G01 X157.401790 Y147.883030 Z-0.125000
G01 X155.838990 Y144.221190 Z-0.125000
G01 X154.202100 Y140.488800 Z-0.125000
G01 X152.491130 Y136.745830 Z-0.125000
G01 X150.706070 Y133.066360 Z-0.125000
G01 X148.846930 Y129.503300 Z-0.125000
G01 X146.924290 Y126.109580 Z-0.125000
G01 X144.931100 Y122.938110 Z-0.125000
G01 X142.877930 Y120.045330 Z-0.125000
G01 X140.761260 Y117.494750 Z-0.125000
G01 X138.584630 Y115.353390 Z-0.125000
G01 X136.355070 Y113.709440 Z-0.125000
G01 X134.069070 Y112.658170 Z-0.125000
G01 X131.733680 Y112.305390 Z-0.125000
G01 X129.352430 Y112.764000 Z-0.125000
G01 X126.925320 Y114.136300 Z-0.125000
G01 X124.455880 Y116.521080 Z-0.125000
G01 X121.947630 Y119.985360 Z-0.125000
G01 X119.404100 Y124.571470 Z-0.125000
G01 X116.828820 Y130.268830 Z-0.125000
G01 X114.221790 Y137.017470 Z-0.125000
G01 X111.590070 Y144.704500 Z-0.125000
G01 X108.933650 Y153.157050 Z-0.125000
G01 X106.259600 Y162.167000 Z-0.125000
G01 X103.567900 Y171.490910 Z-0.125000
G01 X100.862100 Y180.857160 Z-0.125000
G01 X98.149226 Y190.008220 Z-0.125000
G01 X95.425776 Y198.700656 Z-0.125000
G01 X92.702336 Y206.712246 Z-0.125000
G01 X89.978886 Y213.880686 Z-0.125000
G01 X87.255446 Y220.078996 Z-0.125000
G01 X84.542586 Y225.247186 Z-0.125000
G01 X81.836776 Y229.357047 Z-0.125000
G01 X79.148616 Y232.429742 Z-0.125000
G01 X76.474556 Y234.511131 Z-0.125000
G01 X73.818146 Y235.675297 Z-0.125000
G01 X71.186416 Y235.996325 Z-0.125000
G01 X68.582916 Y235.551825 Z-0.125000
G01 X66.007646 Y234.412353 Z-0.125000
G01 X63.464116 Y232.637881 Z-0.125000
G01 X60.955866 Y230.277797 Z-0.125000
G01 X58.489946 Y227.367381 Z-0.125000
G01 X56.062836 Y223.941906 Z-0.125000
G01 X53.681586 Y220.029606 Z-0.125000
G01 X51.346196 Y215.662216 Z-0.125000
G01 X49.063726 Y210.889136 Z-0.125000
G01 X46.834166 Y205.766796 Z-0.125000
G01 X44.661056 Y200.379886 Z-0.125000
G01 X42.547916 Y194.823640 Z-0.125000
G01 X40.494756 Y189.221520 Z-0.125000
G01 X38.505086 Y183.704080 Z-0.125000
G01 X36.582446 Y178.412410 Z-0.125000
G01 X34.726836 Y173.477050 Z-0.125000
G01 X32.941776 Y169.025000 Z-0.125000
G01 X31.230806 Y165.155020 Z-0.125000
G01 X29.597446 Y161.944750 Z-0.125000
G01 X28.038166 Y159.425910 Z-0.125000
G01 X26.560036 Y157.602050 Z-0.125000
G01 X25.163036 Y156.448470 Z-0.125000
G01 X23.847166 Y155.898140 Z-0.125000
G01 X22.615976 Y155.873440 Z-0.125000
G01 X21.469446 Y156.282660 Z-0.125000
G01 X20.411116 Y157.023500 Z-0.125000
G01 X19.444506 Y157.993640 Z-0.125000
G01 X18.562556 Y159.101360 Z-0.125000
G01 X17.772336 Y160.265530 Z-0.125000
G01 X17.077366 Y161.419110 Z-0.125000
G01 X16.470586 Y162.498610 Z-0.125000
G01 X15.959056 Y163.465220 Z-0.125000
G01 X15.539256 Y164.283660 Z-0.125000
G01 X15.218226 Y164.925720 Z-0.125000
G01 X14.988916 Y165.384330 Z-0.125000
G01 X14.854866 Y165.652440 Z-0.125000
G01 X14.816066 Y165.726540 Z-0.125000
G01 X14.872566 Y165.620710 Z-0.125000
G01 X15.024256 Y165.363180 Z-0.125000
G01 X15.271206 Y164.985710 Z-0.125000
G01 X15.613396 Y164.534160 Z-0.125000
G01 X16.047316 Y164.072020 Z-0.125000
G01 X16.580006 Y163.666320 Z-0.125000
G01 X17.200896 Y163.401740 Z-0.125000
G01 X17.917036 Y163.359440 Z-0.125000
G01 X18.724896 Y163.616960 Z-0.125000
G01 X19.620956 Y164.251960 Z-0.125000
G01 X20.608726 Y165.317350 Z-0.125000
G01 X21.681176 Y166.851940 Z-0.125000
G01 X22.845346 Y168.869820 Z-0.125000
G01 X24.090646 Y171.360440 Z-0.125000
G01 X25.424146 Y174.281440 Z-0.125000
G01 X26.835256 Y177.579910 Z-0.125000
G01 X28.331036 Y181.185300 Z-0.125000
G01 X29.904426 Y185.009410 Z-0.125000
G01 X31.551896 Y188.971100 Z-0.125000
G01 X33.276976 Y192.989240 Z-0.125000
G01 X35.076146 Y196.982690 Z-0.125000
G01 X36.942336 Y200.884406 Z-0.125000
G01 X38.879086 Y204.637956 Z-0.125000
G01 X40.879336 Y208.183376 Z-0.125000
G01 X42.946616 Y211.474796 Z-0.125000
G01 X45.070336 Y214.459296 Z-0.125000
G01 X47.254036 Y217.076906 Z-0.125000
G01 X49.494176 Y219.267656 Z-0.125000
G01 X51.787226 Y220.946876 Z-0.125000
G01 X54.129676 Y222.026376 Z-0.125000
G01 X56.521506 Y222.407376 Z-0.125000
G01 X58.955676 Y221.984046 Z-0.125000
G01 X61.432176 Y220.647016 Z-0.125000
G01 X63.947476 Y218.308096 Z-0.125000
G01 X66.494536 Y214.893206 Z-0.125000
G01 X69.076866 Y210.356486 Z-0.125000
G01 X71.687426 Y204.704986 Z-0.125000
G01 X74.322676 Y197.988096 Z-0.125000
G01 X76.982616 Y190.318710 Z-0.125000
G01 X79.660196 Y181.855570 Z-0.125000
G01 X82.351896 Y172.806820 Z-0.125000
G01 X85.061226 Y163.419410 Z-0.125000
G01 X87.774086 Y153.954380 Z-0.125000
G01 X90.497536 Y144.679850 Z-0.125000
G01 X93.220976 Y135.849830 Z-0.125000
G01 X95.947946 Y127.690080 Z-0.125000
G01 X98.667866 Y120.373460 Z-0.125000
G01 X101.380740 Y114.030520 Z-0.125000
G01 X104.083020 Y108.742380 Z-0.125000
G01 X106.771190 Y104.530220 Z-0.125000
G01 X109.441710 Y101.383440 Z-0.125000
G01 X112.094600 Y99.249130 Z-0.125000
G01 X114.719270 Y98.060270 Z-0.125000
G01 X117.319240 Y97.728660 Z-0.125000
G01 X119.890990 Y98.173160 Z-0.125000
G01 X122.427460 Y99.312630 Z-0.125000
G01 X124.928660 Y101.076520 Z-0.125000
G01 X127.391050 Y103.408380 Z-0.125000
G01 X129.811100 Y106.262350 Z-0.125000
G01 X132.185300 Y109.599630 Z-0.125000
G01 X134.510100 Y113.381410 Z-0.125000
G01 X136.785520 Y117.572410 Z-0.125000
G01 X139.004490 Y122.130300 Z-0.125000
G01 X141.170550 Y126.991580 Z-0.125000
G01 X143.273100 Y132.085690 Z-0.125000
G01 X145.315690 Y137.317380 Z-0.125000
G01 X147.294770 Y142.577300 Z-0.125000
G01 X149.206820 Y147.745490 Z-0.125000
G01 X151.051850 Y152.691440 Z-0.125000
G01 X152.822800 Y157.295190 Z-0.125000
G01 X154.519660 Y161.440330 Z-0.125000
G01 X156.142440 Y165.038660 Z-0.125000
G01 X157.687600 Y168.016100 Z-0.125000
G01 X159.155160 Y170.344440 Z-0.125000
G01 X160.538050 Y172.023660 Z-0.125000
G01 X161.839800 Y173.081990 Z-0.125000
G01 X163.060410 Y173.579410 Z-0.125000
G01 X164.189300 Y173.593510 Z-0.125000
G01 X165.233520 Y173.216040 Z-0.125000
G01 X166.189550 Y172.542230 Z-0.125000
G01 X167.053850 Y171.670870 Z-0.125000
G01 X167.829960 Y170.690150 Z-0.125000
G01 X168.510820 Y169.677680 Z-0.125000
G01 X169.103490 Y168.696950 Z-0.125000
G01 X169.597380 Y167.807950 Z-0.125000
G01 X170.003070 Y167.045950 Z-0.125000
G01 X170.309990 Y166.439180 Z-0.125000
G01 X170.525190 Y166.015840 Z-0.125000
G01 X170.641600 Y165.779480 Z-0.125000
G01 X170.666300 Y165.733580 Z-0.125000
G01 X170.592200 Y165.871160 Z-0.125000
G01 X170.426400 Y166.174550 Z-0.125000
G01 X170.161810 Y166.619050 Z-0.125000
G01 X169.805510 Y167.158800 Z-0.125000
G01 X169.353950 Y167.747940 Z-0.125000
G01 X168.810680 Y168.315910 Z-0.125000
G01 X168.172150 Y168.788640 Z-0.125000
G01 X167.441900 Y169.084970 Z-0.125000
G01 X166.619930 Y169.113170 Z-0.125000
G01 X165.709760 Y168.792140 Z-0.125000
G01 X164.707870 Y168.051310 Z-0.125000
G01 X163.617790 Y166.830700 Z-0.125000
G01 X162.443040 Y165.098560 Z-0.125000
G01 X161.183620 Y162.840780 Z-0.125000
G01 X159.836010 Y160.078530 Z-0.125000
G01 X158.410790 Y156.857670 Z-0.125000
G01 X156.904430 Y153.238170 Z-0.125000
G01 X155.320450 Y149.308230 Z-0.125000
G01 X153.655340 Y145.159560 Z-0.125000
G01 X151.919680 Y140.887420 Z-0.125000
G01 X150.109930 Y136.580010 Z-0.125000
G01 X148.233150 Y132.325510 Z-0.125000
G01 X146.285810 Y128.194480 Z-0.125000
G01 X144.274980 Y124.250420 Z-0.125000
G01 X142.197120 Y120.546260 Z-0.125000
G01 X140.062810 Y117.134890 Z-0.125000
G01 X137.868540 Y114.062200 Z-0.125000
G01 X135.621340 Y111.381090 Z-0.125000
G01 X133.317700 Y109.148010 Z-0.125000
G01 X130.968200 Y107.440560 Z-0.125000
G01 X128.569320 Y106.336370 Z-0.125000
G01 X126.128090 Y105.930670 Z-0.125000
G01 X123.648070 Y106.325780 Z-0.125000
G01 X121.129230 Y107.620480 Z-0.125000
G01 X118.571590 Y109.910010 Z-0.125000
G01 X115.985730 Y113.268450 Z-0.125000
G01 X113.371650 Y117.741670 Z-0.125000
G01 X110.732870 Y123.326140 Z-0.125000
G01 X108.069400 Y129.983060 Z-0.125000
G01 X105.388290 Y137.603060 Z-0.125000
G01 X102.693070 Y146.041510 Z-0.125000
G01 X99.983723 Y155.090260 Z-0.125000
G01 X97.267326 Y164.505890 Z-0.125000
G01 X94.543886 Y174.030890 Z-0.125000
G01 X91.820436 Y183.390090 Z-0.125000
G01 X89.096996 Y192.325950 Z-0.125000
G01 X86.377076 Y200.612696 Z-0.125000
G01 X83.664216 Y208.056306 Z-0.125000
G01 X80.965466 Y214.522726 Z-0.125000
G01 X78.280826 Y219.923746 Z-0.125000
G01 X75.610306 Y224.231166 Z-0.125000
G01 X72.964466 Y227.452027 Z-0.125000
G01 X70.339806 Y229.635722 Z-0.125000
G01 X67.743356 Y230.859861 Z-0.125000
G01 X65.178666 Y231.205583 Z-0.125000
G01 X62.649246 Y230.771666 Z-0.125000
G01 X60.151576 Y229.635722 Z-0.125000
G01 X57.699776 Y227.885944 Z-0.125000
G01 X55.286776 Y225.582306 Z-0.125000
G01 X52.919636 Y222.784776 Z-0.125000
G01 X50.601886 Y219.535696 Z-0.125000
G01 X48.337056 Y215.880916 Z-0.125000
G01 X46.125136 Y211.855726 Z-0.125000
G01 X43.969666 Y207.509496 Z-0.125000
G01 X41.874166 Y202.898696 Z-0.125000
G01 X39.842166 Y198.093866 Z-0.125000
G01 X37.873666 Y193.179670 Z-0.125000
G01 X35.972196 Y188.254890 Z-0.125000
G01 X34.141276 Y183.432420 Z-0.125000
G01 X32.380916 Y178.828670 Z-0.125000
G01 X30.694636 Y174.560060 Z-0.125000
G01 X29.085966 Y170.721840 Z-0.125000
G01 X27.551386 Y167.402200 Z-0.125000
G01 X26.097946 Y164.661120 Z-0.125000
G01 X24.729166 Y162.530340 Z-0.125000
G01 X23.437996 Y160.999280 Z-0.125000
G01 X22.235026 Y160.043260 Z-0.125000
G01 X21.120246 Y159.605810 Z-0.125000
G01 X20.090136 Y159.601810 Z-0.125000
G01 X19.148216 Y159.951060 Z-0.125000
G01 X18.298026 Y160.557840 Z-0.125000
G01 X17.536026 Y161.330420 Z-0.125000
G01 X16.869276 Y162.184150 Z-0.125000
G01 X16.294246 Y163.041400 Z-0.125000
G01 X15.814466 Y163.845730 Z-0.125000
G01 X15.426416 Y164.544230 Z-0.125000
G01 X15.133606 Y165.101620 Z-0.125000
G01 X14.936056 Y165.489670 Z-0.125000
G01 X14.830216 Y165.694280 Z-0.125000
G01 X14.823216 Y165.708380 Z-0.125000
G01 X14.911416 Y165.539040 Z-0.125000
G01 X15.094866 Y165.189790 Z-0.125000
G01 X15.370026 Y164.685320 Z-0.125000
G01 X15.743976 Y164.060900 Z-0.125000
G01 X16.209646 Y163.358880 Z-0.125000
G01 X16.770556 Y162.639210 Z-0.125000
G01 X17.423196 Y161.968930 Z-0.125000
G01 X18.167556 Y161.425650 Z-0.125000
G01 X19.003646 Y161.104630 Z-0.125000
G01 X19.931446 Y161.090530 Z-0.125000
G01 X20.947446 Y161.471530 Z-0.125000
G01 X22.048116 Y162.321720 Z-0.125000
G01 X23.240506 Y163.697550 Z-0.125000
G01 X24.514026 Y165.630770 Z-0.125000
G01 X25.872226 Y168.128440 Z-0.125000
G01 X27.311556 Y171.169390 Z-0.125000
G01 X28.832026 Y174.697160 Z-0.125000
G01 X30.430116 Y178.637690 Z-0.125000
G01 X32.102276 Y182.902770 Z-0.125000
G01 X33.852056 Y187.383050 Z-0.125000
G01 X35.672386 Y191.976220 Z-0.125000
G01 X37.563276 Y196.583500 Z-0.125000
G01 X39.517666 Y201.109636 Z-0.125000
G01 X41.542616 Y205.477016 Z-0.125000
G01 X43.627526 Y209.618636 Z-0.125000
G01 X45.772416 Y213.481546 Z-0.125000
G01 X47.973756 Y217.012856 Z-0.125000
G01 X50.231526 Y220.173746 Z-0.125000
G01 X52.542226 Y222.914826 Z-0.125000
G01 X54.898776 Y225.186716 Z-0.125000
G01 X57.304726 Y226.918853 Z-0.125000
G01 X59.753006 Y228.040686 Z-0.125000
G01 X62.240086 Y228.464020 Z-0.125000
G01 X64.765976 Y228.097131 Z-0.125000
G01 X67.327136 Y226.837714 Z-0.125000
G01 X69.920056 Y224.597576 Z-0.125000
G01 X72.537666 Y221.306156 Z-0.125000
G01 X75.179976 Y216.914076 Z-0.125000
G01 X77.846976 Y211.410746 Z-0.125000
G01 X80.528086 Y204.838496 Z-0.125000
G01 X83.226836 Y197.292577 Z-0.125000
G01 X85.939696 Y188.917640 Z-0.125000
G01 X88.656086 Y179.904160 Z-0.125000
G01 X91.379526 Y170.499110 Z-0.125000
G01 X94.102976 Y160.952940 Z-0.125000
G01 X96.826416 Y151.544360 Z-0.125000
G01 X99.546333 Y142.534410 Z-0.125000
G01 X102.255680 Y134.159470 Z-0.125000
G01 X104.954430 Y126.613550 Z-0.125000
G01 X107.639070 Y120.041300 Z-0.125000
G01 X110.302540 Y114.537970 Z-0.125000
G01 X112.944850 Y110.145890 Z-0.125000
G01 X115.565990 Y106.850940 Z-0.125000
G01 X118.155380 Y104.614330 Z-0.125000
G01 X120.716540 Y103.354920 Z-0.125000
G01 X123.242430 Y102.988030 Z-0.125000
G01 X125.729510 Y103.411360 Z-0.125000
G01 X128.177790 Y104.533190 Z-0.125000
G01 X130.583740 Y106.265330 Z-0.125000
G01 X132.943820 Y108.533690 Z-0.125000
G01 X135.250990 Y111.278300 Z-0.125000
G01 X137.508760 Y114.435670 Z-0.125000
G01 X139.710100 Y117.970500 Z-0.125000
G01 X141.858510 Y121.833410 Z-0.125000
G01 X143.943430 Y125.975030 Z-0.125000
G01 X145.964850 Y130.342410 Z-0.125000
G01 X147.922760 Y134.868550 Z-0.125000
G01 X149.813650 Y139.475830 Z-0.125000
G01 X151.633990 Y144.069000 Z-0.125000
G01 X153.380240 Y148.549280 Z-0.125000
G01 X155.055930 Y152.810830 Z-0.125000
G01 X156.654010 Y156.754890 Z-0.125000
G01 X158.170960 Y160.282660 Z-0.125000
G01 X159.613820 Y163.323610 Z-0.125000
G01 X160.972010 Y165.821270 Z-0.125000
G01 X162.245540 Y167.754500 Z-0.125000
G01 X163.434400 Y169.130330 Z-0.125000
G01 X164.538600 Y169.980520 Z-0.125000
G01 X165.554600 Y170.361520 Z-0.125000
G01 X166.478870 Y170.347420 Z-0.125000
G01 X167.314960 Y170.026400 Z-0.125000
G01 X168.059320 Y169.483120 Z-0.125000
G01 X168.711960 Y168.812840 Z-0.125000
G01 X169.272870 Y168.089650 Z-0.125000
G01 X169.738540 Y167.391150 Z-0.125000
G01 X170.112490 Y166.766730 Z-0.125000
G01 X170.391180 Y166.262260 Z-0.125000
G01 X170.571100 Y165.913010 Z-0.125000
G01 X170.659300 Y165.743670 Z-0.125000
G01 X170.652300 Y165.757770 Z-0.125000
G01 X170.549990 Y165.962390 Z-0.125000
G01 X170.352430 Y166.350440 Z-0.125000
G01 X170.059630 Y166.907830 Z-0.125000
G01 X169.671570 Y167.606330 Z-0.125000
G01 X169.188270 Y168.410660 Z-0.125000
G01 X168.613240 Y169.267910 Z-0.125000
G01 X167.946490 Y170.121640 Z-0.125000
G01 X167.188020 Y170.894220 Z-0.125000
G01 X166.334300 Y171.501000 Z-0.125000
G01 X165.395910 Y171.850250 Z-0.125000
G01 X164.365800 Y171.846250 Z-0.125000
G01 X163.247490 Y171.408800 Z-0.125000
G01 X162.044520 Y170.452780 Z-0.125000
G01 X160.756880 Y168.921720 Z-0.125000
G01 X159.384570 Y166.787420 Z-0.125000
G01 X157.931130 Y164.049860 Z-0.125000
G01 X156.400070 Y160.730220 Z-0.125000
G01 X154.787880 Y156.892000 Z-0.125000
G01 X153.101600 Y152.623390 Z-0.125000
G01 X151.341240 Y148.019640 Z-0.125000
G01 X149.510320 Y143.197170 Z-0.125000
G01 X147.608850 Y138.272390 Z-0.125000
G01 X145.640350 Y133.358190 Z-0.125000
G01 X143.608350 Y128.553360 Z-0.125000
G01 X141.512850 Y123.942560 Z-0.125000
G01 X139.357380 Y119.596330 Z-0.125000
G01 X137.148990 Y115.571140 Z-0.125000
G01 X134.880630 Y111.916360 Z-0.125000
G01 X132.562880 Y108.667280 Z-0.125000
G01 X130.195740 Y105.869750 Z-0.125000
G01 X127.786270 Y103.566110 Z-0.125000
G01 X125.330940 Y101.816330 Z-0.125000
G01 X122.836800 Y100.680390 Z-0.125000
G01 X120.303850 Y100.246470 Z-0.125000
G01 X117.739160 Y100.592200 Z-0.125000
G01 X115.142710 Y101.816330 Z-0.125000
G01 X112.521570 Y104.000030 Z-0.125000
G01 X109.872210 Y107.220890 Z-0.125000
G01 X107.205210 Y111.528310 Z-0.125000
G01 X104.517050 Y116.929330 Z-0.125000
G01 X101.818300 Y123.395750 Z-0.125000
G01 X99.105426 Y130.839360 Z-0.125000
G01 X96.385506 Y139.122580 Z-0.125000
G01 X93.662056 Y148.061970 Z-0.125000
G01 X90.938616 Y157.421170 Z-0.125000
G01 X88.215176 Y166.946170 Z-0.125000
G01 X85.498786 Y176.361800 Z-0.125000
G01 X82.789446 Y185.410550 Z-0.125000
G01 X80.094226 Y193.849000 Z-0.125000
G01 X77.413116 Y201.468996 Z-0.125000
G01 X74.753176 Y208.125916 Z-0.125000
G01 X72.110866 Y213.710386 Z-0.125000
G01 X69.496786 Y218.183606 Z-0.125000
G01 X66.910926 Y221.542046 Z-0.125000
G01 X64.356816 Y223.831576 Z-0.125000
G01 X61.837976 Y225.126276 Z-0.125000
G01 X59.354426 Y225.521386 Z-0.125000
G01 X56.913196 Y225.115686 Z-0.125000
G01 X54.514316 Y224.011496 Z-0.125000
G01 X52.164816 Y222.304046 Z-0.125000
G01 X49.864696 Y220.070966 Z-0.125000
G01 X47.613976 Y217.389856 Z-0.125000
G01 X45.419696 Y214.317166 Z-0.125000
G01 X43.285396 Y210.905796 Z-0.125000
G01 X41.211066 Y207.201636 Z-0.125000
G01 X39.196696 Y203.257576 Z-0.125000
G01 X37.249366 Y199.126546 Z-0.125000
G01 X35.372586 Y194.872050 Z-0.125000
G01 X33.562836 Y190.564640 Z-0.125000
G01 X31.827176 Y186.288970 Z-0.125000
G01 X30.165586 Y182.140300 Z-0.125000
G01 X28.578086 Y178.213890 Z-0.125000
G01 X27.071726 Y174.594390 Z-0.125000
G01 X25.646506 Y171.373530 Z-0.125000
G01 X24.302426 Y168.611280 Z-0.125000
G01 X23.039476 Y166.353500 Z-0.125000
G01 X21.864726 Y164.621360 Z-0.125000
G01 X20.774646 Y163.400750 Z-0.125000
G01 X19.776286 Y162.659920 Z-0.125000
G01 X18.862586 Y162.338890 Z-0.125000
G01 X18.040616 Y162.367090 Z-0.125000
G01 X17.310366 Y162.663420 Z-0.125000
G01 X16.671836 Y163.136150 Z-0.125000
G01 X16.128566 Y163.704120 Z-0.125000
G01 X15.677006 Y164.293260 Z-0.125000
G01 X15.320706 Y164.833010 Z-0.125000
G01 X15.059646 Y165.277510 Z-0.125000
G01 X14.890316 Y165.580900 Z-0.125000
G01 X14.819716 Y165.718480 Z-0.125000
G01 X14.840916 Y165.672580 Z-0.125000
G01 X14.960856 Y165.436220 Z-0.125000
G01 X15.172526 Y165.009360 Z-0.125000
G01 X15.482966 Y164.406110 Z-0.125000
G01 X15.885136 Y163.644110 Z-0.125000
G01 X16.382556 Y162.755110 Z-0.125000
G01 X16.971696 Y161.774380 Z-0.125000
G01 X17.656076 Y160.761910 Z-0.125000
G01 X18.428666 Y159.781190 Z-0.125000
G01 X19.292966 Y158.909830 Z-0.125000
G01 X20.248996 Y158.236020 Z-0.125000
G01 X21.293216 Y157.858550 Z-0.125000
G01 X22.425636 Y157.872650 Z-0.125000
G01 X23.642716 Y158.370070 Z-0.125000
G01 X24.944466 Y159.428400 Z-0.125000
G01 X26.327356 Y161.107620 Z-0.125000
G01 X27.794916 Y163.435960 Z-0.125000
G01 X29.340076 Y166.413400 Z-0.125000
G01 X30.962856 Y170.011730 Z-0.125000
G01 X32.659716 Y174.156870 Z-0.125000
G01 X34.434186 Y178.760620 Z-0.125000
G01 X36.275686 Y183.706570 Z-0.125000
G01 X38.187746 Y188.874760 Z-0.125000
G01 X40.166826 Y194.134680 Z-0.125000
G01 X42.209416 Y199.366366 Z-0.125000
G01 X44.315496 Y204.460476 Z-0.125000
G01 X46.478026 Y209.321756 Z-0.125000
G01 X48.700526 Y213.879646 Z-0.125000
G01 X50.975936 Y218.070646 Z-0.125000
G01 X53.300746 Y221.852426 Z-0.125000
G01 X55.674936 Y225.189706 Z-0.125000
G01 X58.091466 Y228.043674 Z-0.125000
G01 X60.553856 Y230.375535 Z-0.125000
G01 X63.055056 Y232.139424 Z-0.125000
G01 X65.591526 Y233.278896 Z-0.125000
G01 X68.163276 Y233.723396 Z-0.125000
G01 X70.763246 Y233.391785 Z-0.125000
G01 X73.391436 Y232.202924 Z-0.125000
G01 X76.040806 Y230.068618 Z-0.125000
G01 X78.714856 Y226.921841 Z-0.125000
G01 X81.403026 Y222.709676 Z-0.125000
G01 X84.105296 Y217.421536 Z-0.125000
G01 X86.818166 Y211.078596 Z-0.125000
G01 X89.538076 Y203.761976 Z-0.125000
G01 X92.261526 Y195.602230 Z-0.125000
G01 X94.984966 Y186.772210 Z-0.125000
G01 X97.708416 Y177.497680 Z-0.125000
G01 X100.424800 Y168.032650 Z-0.125000
G01 X103.130620 Y158.645240 Z-0.125000
G01 X105.825840 Y149.596490 Z-0.125000
G01 X108.503430 Y141.133350 Z-0.125000
G01 X111.159840 Y133.463960 Z-0.125000
G01 X113.798620 Y126.747070 Z-0.125000
G01 X116.405650 Y121.095570 Z-0.125000
G01 X118.987980 Y116.558850 Z-0.125000
G01 X121.538560 Y113.143960 Z-0.125000
G01 X124.050340 Y110.801510 Z-0.125000
G01 X126.526840 Y109.468010 Z-0.125000
G01 X128.961010 Y109.044680 Z-0.125000
G01 X131.352840 Y109.425680 Z-0.125000
G01 X133.695290 Y110.505180 Z-0.125000
G01 X135.988340 Y112.184400 Z-0.125000
G01 X138.228480 Y114.375150 Z-0.125000
G01 X140.412170 Y116.992760 Z-0.125000
G01 X142.539420 Y119.977260 Z-0.125000
G01 X144.603170 Y123.268680 Z-0.125000
G01 X146.606950 Y126.814100 Z-0.125000
G01 X148.540170 Y130.567650 Z-0.125000
G01 X150.409900 Y134.469370 Z-0.125000
G01 X152.205540 Y138.462820 Z-0.125000
G01 X153.930620 Y142.480960 Z-0.125000
G01 X155.581620 Y146.442650 Z-0.125000
G01 X157.155010 Y150.266760 Z-0.125000
G01 X158.647260 Y153.872150 Z-0.125000
G01 X160.061900 Y157.170620 Z-0.125000
G01 X161.391870 Y160.091620 Z-0.125000
G01 X162.640700 Y162.582240 Z-0.125000
G01 X163.801340 Y164.600120 Z-0.125000
G01 X164.877310 Y166.134710 Z-0.125000
G01 X165.861560 Y167.200100 Z-0.125000
G01 X166.761150 Y167.835100 Z-0.125000
G01 X167.565480 Y168.092620 Z-0.125000
G01 X168.281620 Y168.050320 Z-0.125000
G01 X168.906040 Y167.785740 Z-0.125000
G01 X169.435200 Y167.380040 Z-0.125000
G01 X169.869120 Y166.917900 Z-0.125000
G01 X170.211310 Y166.466350 Z-0.125000
G01 X170.458260 Y166.088880 Z-0.125000
G01 X170.609950 Y165.827820 Z-0.125000
G01 X170.666450 Y165.725510 Z-0.125000
G01 X170.631150 Y165.799610 Z-0.125000
G01 X170.497090 Y166.067720 Z-0.125000
G01 X170.267790 Y166.522800 Z-0.125000
G01 X169.943230 Y167.168390 Z-0.125000
G01 X169.523430 Y167.986830 Z-0.125000
G01 X169.011900 Y168.953440 Z-0.125000
G01 X168.408650 Y170.032940 Z-0.125000
G01 X167.710150 Y171.186520 Z-0.125000
G01 X166.919930 Y172.350690 Z-0.125000
G01 X166.041510 Y173.458410 Z-0.125000
G01 X165.071370 Y174.428550 Z-0.125000
G01 X164.013040 Y175.169390 Z-0.125000
G01 X162.866510 Y175.575080 Z-0.125000
G01 X161.635320 Y175.553880 Z-0.125000
G01 X160.322980 Y175.003550 Z-0.125000
G01 X158.922450 Y173.849970 Z-0.125000
G01 X157.444320 Y172.026110 Z-0.125000
G01 X155.885040 Y169.507270 Z-0.125000
G01 X154.251680 Y166.296990 Z-0.125000
G01 X152.540700 Y162.427020 Z-0.125000
G01 X150.759180 Y157.974970 Z-0.125000
G01 X148.903570 Y153.039610 Z-0.125000
G01 X146.980930 Y147.747940 Z-0.125000
G01 X144.991260 Y142.230500 Z-0.125000
G01 X142.938090 Y136.628380 Z-0.125000
G01 X140.821430 Y131.072130 Z-0.125000
G01 X138.648320 Y125.685220 Z-0.125000
G01 X136.418760 Y120.562880 Z-0.125000
G01 X134.136290 Y115.789800 Z-0.125000
G01 X131.804430 Y111.422410 Z-0.125000
G01 X129.423180 Y107.510110 Z-0.125000
G01 X126.996070 Y104.084640 Z-0.125000
G01 X124.526620 Y101.174220 Z-0.125000
G01 X122.018370 Y98.814140 Z-0.125000
G01 X119.478370 Y97.039660 Z-0.125000
G01 X116.903090 Y95.900190 Z-0.125000
G01 X114.296070 Y95.455690 Z-0.125000
G01 X111.664340 Y95.776720 Z-0.125000
G01 X109.011460 Y96.940890 Z-0.125000
G01 X106.337400 Y99.022270 Z-0.125000
G01 X103.645710 Y102.094970 Z-0.125000
G01 X100.939900 Y106.204830 Z-0.125000
G01 X98.227026 Y111.369500 Z-0.125000
G01 X95.507106 Y117.571330 Z-0.125000
G01 X92.780136 Y124.739770 Z-0.125000
G01 X90.056696 Y132.751360 Z-0.125000
G01 X87.336776 Y141.440270 Z-0.125000
G01 X84.620386 Y150.594860 Z-0.125000
G01 X81.914576 Y159.961110 Z-0.125000
G01 X79.226416 Y169.285020 Z-0.125000
G01 X76.548836 Y178.294970 Z-0.125000
G01 X73.895946 Y186.747520 Z-0.125000
G01 X71.264216 Y194.434550 Z-0.125000
G01 X68.657196 Y201.183186 Z-0.125000
G01 X66.081916 Y206.880546 Z-0.125000
G01 X63.534856 Y211.466656 Z-0.125000
G01 X61.030136 Y214.930936 Z-0.125000
G01 X58.560696 Y217.315716 Z-0.125000
G01 X56.130056 Y218.688016 Z-0.125000
G01 X53.748806 Y219.146626 Z-0.125000
G01 X51.413416 Y218.793846 Z-0.125000
G01 X49.130946 Y217.742576 Z-0.125000
G01 X46.897856 Y216.098626 Z-0.125000
G01 X44.724746 Y213.957266 Z-0.125000
G01 X42.608086 Y211.406686 Z-0.125000
G01 X40.551386 Y208.513906 Z-0.125000
G01 X38.561716 Y205.342436 Z-0.125000
G01 X36.635556 Y201.948716 Z-0.125000
G01 X34.779946 Y198.385656 Z-0.125000
G01 X32.994886 Y194.706190 Z-0.125000
G01 X31.280386 Y190.963220 Z-0.125000
G01 X29.643496 Y187.230830 Z-0.125000
G01 X28.084226 Y183.568990 Z-0.125000
G01 X26.602556 Y180.055330 Z-0.125000
G01 X25.202026 Y176.770970 Z-0.125000
G01 X23.882636 Y173.779410 Z-0.125000
G01 X22.651446 Y171.151220 Z-0.125000
G01 X21.501386 Y168.932240 Z-0.125000
G01 X20.443056 Y167.147190 Z-0.125000
G01 X19.469386 Y165.806630 Z-0.125000
G01 X18.587446 Y164.892940 Z-0.125000
G01 X17.793696 Y164.363770 Z-0.125000
G01 X17.095196 Y164.162690 Z-0.125000
G01 X16.488416 Y164.215590 Z-0.125000
G01 X15.973356 Y164.448420 Z-0.125000
G01 X15.550026 Y164.780030 Z-0.125000
G01 X15.225476 Y165.132810 Z-0.125000
G01 X14.992636 Y165.443250 Z-0.125000
G01 X14.858586 Y165.654920 Z-0.125000
G01 X14.816286 Y165.725420 Z-0.125000
G01 X14.869186 Y165.623120 Z-0.125000
G01 X15.017356 Y165.333840 Z-0.125000
G01 X15.264296 Y164.850540 Z-0.125000
G01 X15.602966 Y164.169680 Z-0.125000
G01 X16.036876 Y163.305370 Z-0.125000
G01 X16.562516 Y162.275260 Z-0.125000
G01 X17.183406 Y161.107560 Z-0.125000
G01 X17.896016 Y159.837560 Z-0.125000
G01 X18.700356 Y158.518180 Z-0.125000
G01 X19.592876 Y157.202310 Z-0.125000
G01 X20.577126 Y155.971120 Z-0.125000
G01 X21.649576 Y154.902200 Z-0.125000
G01 X22.810216 Y154.094340 Z-0.125000
G01 X24.055516 Y153.653370 Z-0.125000
G01 X25.381966 Y153.681570 Z-0.125000
G01 X26.793076 Y154.277770 Z-0.125000
G01 X28.285326 Y155.523070 Z-0.125000
G01 X29.855186 Y157.480990 Z-0.125000
G01 X31.502656 Y160.179740 Z-0.125000
G01 X33.227736 Y163.615790 Z-0.125000
G01 X35.023376 Y167.750350 Z-0.125000
G01 X36.886046 Y172.502270 Z-0.125000
G01 X38.822796 Y177.762180 Z-0.125000
G01 X40.823046 Y183.403100 Z-0.125000
G01 X42.883266 Y189.269790 Z-0.125000
G01 X45.010516 Y195.221150 Z-0.125000
G01 X47.190686 Y201.101956 Z-0.125000
G01 X49.430826 Y206.792266 Z-0.125000
G01 X51.720356 Y212.182706 Z-0.125000
G01 X54.062796 Y217.181566 Z-0.125000
G01 X56.451106 Y221.725346 Z-0.125000
G01 X58.885266 Y225.775233 Z-0.125000
G01 X61.361766 Y229.292427 Z-0.125000
G01 X63.873546 Y232.259288 Z-0.125000
G01 X66.420606 Y234.644066 Z-0.125000
G01 X69.002936 Y236.425594 Z-0.125000
G01 X71.609966 Y237.561538 Z-0.125000
G01 X74.245216 Y238.002511 Z-0.125000
G01 X76.905156 Y237.685011 Z-0.125000
G01 X79.582736 Y236.545538 Z-0.125000
G01 X82.274436 Y234.506483 Z-0.125000
G01 X84.980236 Y231.507872 Z-0.125000
G01 X87.696626 Y227.503844 Z-0.125000
G01 X90.420076 Y222.469706 Z-0.125000
G01 X93.143516 Y216.419566 Z-0.125000
G01 X95.866966 Y209.420456 Z-0.125000
G01 X98.586876 Y201.581736 Z-0.125000
G01 X101.303280 Y193.062150 Z-0.125000
G01 X104.005560 Y184.066320 Z-0.125000
G01 X106.693730 Y174.830600 Z-0.125000
G01 X109.364250 Y165.612520 Z-0.125000
G01 X112.017140 Y156.676660 Z-0.125000
G01 X114.645340 Y148.269960 Z-0.125000
G01 X117.245310 Y140.600570 Z-0.125000
G01 X119.817060 Y133.844880 Z-0.125000
G01 X122.357060 Y128.126350 Z-0.125000
G01 X124.858250 Y123.508490 Z-0.125000
G01 X127.320640 Y120.005410 Z-0.125000
G01 X129.740700 Y117.581820 Z-0.125000
G01 X132.114890 Y116.174240 Z-0.125000
G01 X134.443220 Y115.683880 Z-0.125000
G01 X136.718640 Y116.001380 Z-0.125000
G01 X138.941140 Y117.017380 Z-0.125000
G01 X141.107200 Y118.618990 Z-0.125000
G01 X143.213280 Y120.703910 Z-0.125000
G01 X145.259390 Y123.187460 Z-0.125000
G01 X147.238470 Y125.984990 Z-0.125000
G01 X149.154060 Y129.032990 Z-0.125000
G01 X150.999090 Y132.275020 Z-0.125000
G01 X152.773560 Y135.651100 Z-0.125000
G01 X154.473950 Y139.115380 Z-0.125000
G01 X156.096720 Y142.611410 Z-0.125000
G01 X157.645420 Y146.075680 Z-0.125000
G01 X159.112970 Y149.444710 Z-0.125000
G01 X160.502920 Y152.654990 Z-0.125000
G01 X161.804670 Y155.632430 Z-0.125000
G01 X163.025280 Y158.324130 Z-0.125000
G01 X164.157700 Y160.670100 Z-0.125000
G01 X165.205450 Y162.631540 Z-0.125000
G01 X166.161470 Y164.187290 Z-0.125000
G01 X167.032840 Y165.337350 Z-0.125000
G01 X167.808950 Y166.106400 Z-0.125000
G01 X168.493340 Y166.536790 Z-0.125000
G01 X169.086000 Y166.684960 Z-0.125000
G01 X169.586950 Y166.621460 Z-0.125000
G01 X169.992640 Y166.427430 Z-0.125000
G01 X170.303090 Y166.173430 Z-0.125000
G01 X170.518280 Y165.933540 Z-0.125000
G01 X170.641750 Y165.767740 Z-0.125000
G01 X170.666450 Y165.728940 Z-0.125000
G01 X170.595850 Y165.852410 Z-0.125000
G01 X170.433570 Y166.159330 Z-0.125000
G01 X170.172520 Y166.667330 Z-0.125000
G01 X169.819740 Y167.376410 Z-0.125000
G01 X169.368180 Y168.276000 Z-0.125000
G01 X168.828430 Y169.359030 Z-0.125000
G01 X168.193430 Y170.597280 Z-0.125000
G01 X167.463180 Y171.966050 Z-0.125000
G01 X166.644740 Y173.419500 Z-0.125000
G01 X165.738100 Y174.904690 Z-0.125000
G01 X164.739740 Y176.368720 Z-0.125000
G01 X163.653180 Y177.723390 Z-0.125000
G01 X162.478430 Y178.887550 Z-0.125000
G01 X161.219020 Y179.762440 Z-0.125000
G01 X159.878460 Y180.238690 Z-0.125000
G01 X158.453240 Y180.210490 Z-0.125000
G01 X156.950410 Y179.579020 Z-0.125000
G01 X155.366430 Y178.252570 Z-0.125000
G01 X153.704850 Y176.171180 Z-0.125000
G01 X151.972710 Y173.303100 Z-0.125000
G01 X150.166490 Y169.655380 Z-0.125000
G01 X148.286180 Y165.266820 Z-0.125000
G01 X146.342380 Y160.222100 Z-0.125000
G01 X144.331550 Y154.641160 Z-0.125000
G01 X142.260740 Y148.661570 Z-0.125000
G01 X140.126430 Y142.442100 Z-0.125000
G01 X137.932160 Y136.148550 Z-0.125000
G01 X135.684960 Y129.929070 Z-0.125000
G01 X133.384850 Y123.931850 Z-0.125000
G01 X131.035350 Y118.273300 Z-0.125000
G01 X128.639990 Y113.041600 Z-0.125000
G01 X126.202300 Y108.307330 Z-0.125000
G01 X123.718740 Y104.119850 Z-0.125000
G01 X121.199910 Y100.503880 Z-0.125000
G01 X118.645800 Y97.480580 Z-0.125000
G01 X116.059940 Y95.067580 Z-0.125000
G01 X113.449380 Y93.282520 Z-0.125000
G01 X110.807070 Y92.157160 Z-0.125000
G01 X108.147130 Y91.726770 Z-0.125000
G01 X105.466020 Y92.044270 Z-0.125000
G01 X102.770800 Y93.166100 Z-0.125000
G01 X100.064980 Y95.162830 Z-0.125000
G01 X97.345056 Y98.087350 Z-0.125000
G01 X94.625146 Y101.989080 Z-0.125000
G01 X91.898176 Y106.889160 Z-0.125000
G01 X89.174726 Y112.773490 Z-0.125000
G01 X86.454806 Y119.589160 Z-0.125000
G01 X83.745476 Y127.233850 Z-0.125000
G01 X81.043196 Y135.559410 Z-0.125000
G01 X78.355036 Y144.368270 Z-0.125000
G01 X75.688036 Y153.434660 Z-0.125000
G01 X73.038676 Y162.508100 Z-0.125000
G01 X70.417536 Y171.331070 Z-0.125000
G01 X67.817566 Y179.660160 Z-0.125000
G01 X65.252866 Y187.280160 Z-0.125000
G01 X62.719926 Y194.011160 Z-0.125000
G01 X60.225786 Y199.729676 Z-0.125000
G01 X57.766926 Y204.361656 Z-0.125000
G01 X55.353926 Y207.889426 Z-0.125000
G01 X52.986786 Y210.341236 Z-0.125000
G01 X50.669036 Y211.780566 Z-0.125000
G01 X48.400676 Y212.306206 Z-0.125000
G01 X46.188756 Y212.020456 Z-0.125000
G01 X44.029756 Y211.046796 Z-0.125000
G01 X41.934256 Y209.491046 Z-0.125000
G01 X39.898726 Y207.466096 Z-0.125000
G01 X37.930226 Y205.063676 Z-0.125000
G01 X36.025226 Y202.364926 Z-0.125000
G01 X34.194316 Y199.440406 Z-0.125000
G01 X32.430426 Y196.350070 Z-0.125000
G01 X30.740616 Y193.153910 Z-0.125000
G01 X29.128426 Y189.901300 Z-0.125000
G01 X27.593836 Y186.648680 Z-0.125000
G01 X26.140396 Y183.445460 Z-0.125000
G01 X24.764566 Y180.358660 Z-0.125000
G01 X23.476926 Y177.441180 Z-0.125000
G01 X22.270426 Y174.756550 Z-0.125000
G01 X21.148586 Y172.354130 Z-0.125000
G01 X20.118476 Y170.283320 Z-0.125000
G01 X19.173036 Y168.572350 Z-0.125000
G01 X18.319316 Y167.235320 Z-0.125000
G01 X17.557316 Y166.265180 Z-0.125000
G01 X16.887036 Y165.633710 Z-0.125000
G01 X16.308476 Y165.298570 Z-0.125000
G01 X15.825176 Y165.196270 Z-0.125000
G01 X15.437116 Y165.259770 Z-0.125000
G01 X15.140786 Y165.411460 Z-0.125000
G01 X14.939706 Y165.580800 Z-0.125000
G01 X14.833866 Y165.700740 Z-0.125000
G01 X14.823266 Y165.714840 Z-0.125000
G01 X14.907966 Y165.577260 Z-0.125000
G01 X15.087876 Y165.256230 Z-0.125000
G01 X15.363046 Y164.737650 Z-0.125000
G01 X15.733466 Y164.010930 Z-0.125000
G01 X16.195596 Y163.076060 Z-0.125000
G00 Z10.000000

(End cutting path id: polyline28)


(Start cutting path id: polyline26)
(Change tool to Default tool)

G00 Z10.000000
G00 X40.678266 Y130.741530

G00 Z4.875000 (Fast pre-penetrate)
G01 Z-0.125000 F100.0(Penetrate)
G01 X40.212596 Y131.676390 Z-0.125000 F600.000000
G01 X39.842186 Y132.403120 Z-0.125000
G01 X39.567016 Y132.921700 Z-0.125000
G01 X39.387096 Y133.242730 Z-0.125000
G01 X39.302396 Y133.380310 Z-0.125000
G01 X39.312996 Y133.366210 Z-0.125000
G01 X39.418826 Y133.246270 Z-0.125000
G01 X39.619916 Y133.076930 Z-0.125000
G01 X39.916246 Y132.925240 Z-0.125000
G01 X40.307826 Y132.861740 Z-0.125000
G01 X40.791136 Y132.964040 Z-0.125000
G01 X41.369696 Y133.299180 Z-0.125000
G01 X42.039966 Y133.930650 Z-0.125000
G01 X42.801966 Y134.900790 Z-0.125000
G01 X43.655696 Y136.237820 Z-0.125000
G01 X44.597606 Y137.948790 Z-0.125000
G01 X45.631246 Y140.019600 Z-0.125000
G01 X46.749556 Y142.422020 Z-0.125000
G01 X47.956056 Y145.106650 Z-0.125000
G01 X49.247216 Y148.024130 Z-0.125000
G01 X50.619526 Y151.110930 Z-0.125000
G01 X52.076496 Y154.314150 Z-0.125000
G01 X53.611076 Y157.566770 Z-0.125000
G01 X55.223276 Y160.819380 Z-0.125000
G01 X56.913076 Y164.015540 Z-0.125000
G01 X58.673446 Y167.105880 Z-0.125000
G01 X60.507886 Y170.030400 Z-0.125000
G01 X62.409356 Y172.729150 Z-0.125000
G01 X64.381386 Y175.131570 Z-0.125000
G01 X66.416916 Y177.156510 Z-0.125000
G01 X68.512416 Y178.712260 Z-0.125000
G01 X70.667886 Y179.685930 Z-0.125000
G01 X72.883326 Y179.971680 Z-0.125000
G01 X75.148166 Y179.446040 Z-0.125000
G01 X77.469446 Y178.006710 Z-0.125000
G01 X79.836576 Y175.554900 Z-0.125000
G01 X82.249576 Y172.027130 Z-0.125000
G01 X84.704916 Y167.395150 Z-0.125000
G01 X87.202576 Y161.676630 Z-0.125000
G01 X89.735526 Y154.945630 Z-0.125000
G01 X92.300216 Y147.325630 Z-0.125000
G01 X94.896666 Y138.996540 Z-0.125000
G01 X97.521326 Y130.173570 Z-0.125000
G01 X100.170690 Y121.100130 Z-0.125000
G01 X102.837700 Y112.033740 Z-0.125000
G01 X105.525870 Y103.224880 Z-0.125000
G01 X108.224620 Y94.899320 Z-0.125000
G01 X110.937480 Y87.254630 Z-0.125000
G01 X113.657400 Y80.438960 Z-0.125000
G01 X116.380840 Y74.554630 Z-0.125000
G01 X119.104290 Y69.654540 Z-0.125000
G01 X121.827730 Y65.752820 Z-0.125000
G01 X124.544120 Y62.828300 Z-0.125000
G01 X127.253450 Y60.831570 Z-0.125000
G01 X129.948680 Y59.709740 Z-0.125000
G01 X132.629790 Y59.392240 Z-0.125000
G01 X135.289730 Y59.822630 Z-0.125000
G01 X137.928510 Y60.947990 Z-0.125000
G01 X140.542590 Y62.733050 Z-0.125000
G01 X143.128450 Y65.146040 Z-0.125000
G01 X145.682560 Y68.169350 Z-0.125000
G01 X148.201400 Y71.785320 Z-0.125000
G01 X150.681430 Y75.972790 Z-0.125000
G01 X153.122650 Y80.707070 Z-0.125000
G01 X155.518010 Y85.938770 Z-0.125000
G01 X157.867510 Y91.597320 Z-0.125000
G01 X160.167620 Y97.594540 Z-0.125000
G01 X162.414810 Y103.814020 Z-0.125000
G01 X164.605560 Y110.107570 Z-0.125000
G01 X166.739870 Y116.327040 Z-0.125000
G01 X168.814200 Y122.306630 Z-0.125000
G01 X170.825040 Y127.887570 Z-0.125000
G01 X172.768840 Y132.932290 Z-0.125000
G01 X174.645620 Y137.320850 Z-0.125000
G01 X176.451840 Y140.968570 Z-0.125000
G01 X178.187510 Y143.836650 Z-0.125000
G01 X179.845560 Y145.918040 Z-0.125000
G01 X181.429540 Y147.244490 Z-0.125000
G01 X182.935900 Y147.875960 Z-0.125000
G01 X184.357590 Y147.904160 Z-0.125000
G01 X185.701670 Y147.427910 Z-0.125000
G01 X186.961090 Y146.556550 Z-0.125000
G01 X188.132310 Y145.388860 Z-0.125000
G01 X189.218870 Y144.034190 Z-0.125000
G01 X190.217230 Y142.570160 Z-0.125000
G01 X191.127400 Y141.084970 Z-0.125000
G01 X191.945840 Y139.631520 Z-0.125000
G01 X192.672560 Y138.262750 Z-0.125000
G01 X193.307560 Y137.024500 Z-0.125000
G01 X193.850840 Y135.941470 Z-0.125000
G01 X194.298870 Y135.041880 Z-0.125000
G01 X194.655170 Y134.332800 Z-0.125000
G01 X194.912700 Y133.824800 Z-0.125000
G01 X195.078510 Y133.517880 Z-0.125000
G01 X195.145510 Y133.394410 Z-0.125000
G01 X195.120810 Y133.433210 Z-0.125000
G01 X195.000870 Y133.599010 Z-0.125000
G01 X194.785670 Y133.838900 Z-0.125000
G01 X194.471700 Y134.092900 Z-0.125000
G01 X194.066010 Y134.286930 Z-0.125000
G01 X193.568590 Y134.350430 Z-0.125000
G01 X192.975920 Y134.202260 Z-0.125000
G01 X192.288010 Y133.771870 Z-0.125000
G01 X191.511890 Y133.002820 Z-0.125000
G01 X190.644060 Y131.852760 Z-0.125000
G01 X189.688030 Y130.297010 Z-0.125000
G01 X188.640280 Y128.335570 Z-0.125000
G01 X187.507870 Y125.989600 Z-0.125000
G01 X186.287260 Y123.301430 Z-0.125000
G01 X184.981980 Y120.320460 Z-0.125000
G01 X183.595560 Y117.110180 Z-0.125000
G01 X182.128010 Y113.741150 Z-0.125000
G01 X180.579310 Y110.276880 Z-0.125000
G01 X178.953010 Y106.780850 Z-0.125000
G01 X177.252620 Y103.316570 Z-0.125000
G01 X175.481670 Y99.940490 Z-0.125000
G01 X173.636650 Y96.698460 Z-0.125000
G01 X171.721060 Y93.650460 Z-0.125000
G01 X169.741980 Y90.852930 Z-0.125000
G01 X167.695870 Y88.372900 Z-0.125000
G01 X165.589780 Y86.284460 Z-0.125000
G01 X163.423730 Y84.682850 Z-0.125000
G01 X161.201230 Y83.666850 Z-0.125000
G01 X158.925810 Y83.349350 Z-0.125000
G01 X156.597480 Y83.839710 Z-0.125000
G01 X154.223280 Y85.247290 Z-0.125000
G01 X151.803230 Y87.670880 Z-0.125000
G01 X149.340840 Y91.173960 Z-0.125000
G01 X146.836120 Y95.791820 Z-0.125000
G01 X144.299650 Y101.513880 Z-0.125000
G01 X141.727900 Y108.266040 Z-0.125000
G01 X139.127920 Y115.935430 Z-0.125000
G01 X136.499730 Y124.345650 Z-0.125000
G01 X133.846840 Y133.277990 Z-0.125000
G01 X131.176310 Y142.496070 Z-0.125000
G01 X128.484620 Y151.731790 Z-0.125000
G01 X125.782340 Y160.727620 Z-0.125000
G01 X123.069480 Y169.247210 Z-0.125000
G01 X120.349560 Y177.085930 Z-0.125000
G01 X117.626120 Y184.085040 Z-0.125000
G01 X114.899150 Y190.135180 Z-0.125000
G01 X112.179230 Y195.169320 Z-0.125000
G01 X109.462840 Y199.173346 Z-0.125000
G01 X106.757040 Y202.171956 Z-0.125000
G01 X104.061810 Y204.211006 Z-0.125000
G01 X101.384230 Y205.350476 Z-0.125000
G01 X98.727796 Y205.667976 Z-0.125000
G01 X96.092546 Y205.227006 Z-0.125000
G01 X93.481996 Y204.091066 Z-0.125000
G01 X90.903186 Y202.309536 Z-0.125000
G01 X88.352606 Y199.924756 Z-0.125000
G01 X85.840826 Y196.957900 Z-0.125000
G01 X83.367856 Y193.440710 Z-0.125000
G01 X80.933686 Y189.390820 Z-0.125000
G01 X78.545386 Y184.847040 Z-0.125000
G01 X76.202936 Y179.848180 Z-0.125000
G01 X73.913416 Y174.457730 Z-0.125000
G01 X71.673276 Y168.767430 Z-0.125000
G01 X69.489576 Y162.886620 Z-0.125000
G01 X67.365856 Y156.935260 Z-0.125000
G01 X65.302106 Y151.068570 Z-0.125000
G01 X63.301856 Y145.427650 Z-0.125000
G01 X61.368636 Y140.167740 Z-0.125000
G01 X59.502436 Y135.415820 Z-0.125000
G01 X57.706796 Y131.281260 Z-0.125000
G01 X55.985246 Y127.845210 Z-0.125000
G01 X54.337776 Y125.146460 Z-0.125000
G01 X52.767916 Y123.188540 Z-0.125000
G01 X51.275666 Y121.943240 Z-0.125000
G01 X49.864546 Y121.347040 Z-0.125000
G01 X48.534576 Y121.318840 Z-0.125000
G01 X47.289276 Y121.759810 Z-0.125000
G01 X46.132166 Y122.567670 Z-0.125000
G01 X45.059716 Y123.636590 Z-0.125000
G01 X44.075466 Y124.867780 Z-0.125000
G01 X43.179416 Y126.183640 Z-0.125000
G01 X42.375076 Y127.506560 Z-0.125000
G01 X41.662466 Y128.773030 Z-0.125000
G01 X41.045106 Y129.940730 Z-0.125000
G01 X40.515936 Y130.970840 Z-0.125000
G01 X40.082026 Y131.835140 Z-0.125000
G01 X39.743356 Y132.516010 Z-0.125000
G01 X39.499936 Y132.999310 Z-0.125000
G01 X39.351776 Y133.288590 Z-0.125000
G01 X39.295276 Y133.390890 Z-0.125000
G01 X39.337576 Y133.320390 Z-0.125000
G01 X39.475156 Y133.108720 Z-0.125000
G01 X39.704456 Y132.798280 Z-0.125000
G01 X40.032546 Y132.445500 Z-0.125000
G01 X40.452346 Y132.113890 Z-0.125000
G01 X40.967406 Y131.881060 Z-0.125000
G01 X41.574186 Y131.828160 Z-0.125000
G01 X42.276206 Y132.029240 Z-0.125000
G01 X43.069956 Y132.558410 Z-0.125000
G01 X43.951906 Y133.472100 Z-0.125000
G01 X44.922046 Y134.812660 Z-0.125000
G01 X45.983906 Y136.597710 Z-0.125000
G01 X47.130436 Y138.816690 Z-0.125000
G01 X48.365156 Y141.444880 Z-0.125000
G01 X49.684546 Y144.436440 Z-0.125000
G01 X51.081546 Y147.720800 Z-0.125000
G01 X52.563206 Y151.234460 Z-0.125000
G01 X54.126016 Y154.896300 Z-0.125000
G01 X55.762906 Y158.628690 Z-0.125000
G01 X57.473876 Y162.371660 Z-0.125000
G01 X59.258936 Y166.051130 Z-0.125000
G01 X61.118076 Y169.614190 Z-0.125000
G01 X63.040706 Y173.007910 Z-0.125000
G01 X65.033906 Y176.179380 Z-0.125000
G01 X67.087076 Y179.072160 Z-0.125000
G01 X69.203736 Y181.622740 Z-0.125000
G01 X71.380376 Y183.764100 Z-0.125000
G01 X73.609936 Y185.408050 Z-0.125000
G01 X75.895936 Y186.459320 Z-0.125000
G01 X78.231326 Y186.812100 Z-0.125000
G01 X80.612566 Y186.353490 Z-0.125000
G01 X83.039686 Y184.981190 Z-0.125000
G01 X85.509126 Y182.596410 Z-0.125000
G01 X88.017376 Y179.132130 Z-0.125000
G01 X90.560906 Y174.546020 Z-0.125000
G01 X93.136186 Y168.848660 Z-0.125000
G01 X95.743206 Y162.100020 Z-0.125000
G01 X98.374936 Y154.412990 Z-0.125000
G01 X101.031360 Y145.960440 Z-0.125000
G01 X103.705420 Y136.950490 Z-0.125000
G01 X106.397110 Y127.626580 Z-0.125000
G01 X109.102920 Y118.260330 Z-0.125000
G01 X111.815780 Y109.105740 Z-0.125000
G01 X114.539220 Y100.416830 Z-0.125000
G01 X117.262670 Y92.405240 Z-0.125000
G01 X119.986110 Y85.236800 Z-0.125000
G01 X122.709560 Y79.038490 Z-0.125000
G01 X125.422420 Y73.870300 Z-0.125000
G01 X128.128220 Y69.760440 Z-0.125000
G01 X130.816390 Y66.687740 Z-0.125000
G01 X133.490440 Y64.606350 Z-0.125000
G01 X136.146860 Y63.442190 Z-0.125000
G01 X138.778580 Y63.121160 Z-0.125000
G01 X141.382080 Y63.565660 Z-0.125000
G01 X143.957360 Y64.705130 Z-0.125000
G01 X146.500890 Y66.479600 Z-0.125000
G01 X149.009140 Y68.839690 Z-0.125000
G01 X151.475060 Y71.750100 Z-0.125000
G01 X153.902170 Y75.175580 Z-0.125000
G01 X156.283420 Y79.087880 Z-0.125000
G01 X158.618810 Y83.455270 Z-0.125000
G01 X160.901280 Y88.228350 Z-0.125000
G01 X163.130830 Y93.350690 Z-0.125000
G01 X165.303940 Y98.737600 Z-0.125000
G01 X167.417080 Y104.293850 Z-0.125000
G01 X169.470250 Y109.895970 Z-0.125000
G01 X171.459920 Y115.413410 Z-0.125000
G01 X173.382560 Y120.705080 Z-0.125000
G01 X175.238170 Y125.640440 Z-0.125000
G01 X177.023220 Y130.092490 Z-0.125000
G01 X178.734190 Y133.962460 Z-0.125000
G01 X180.367550 Y137.172740 Z-0.125000
G01 X181.926830 Y139.691580 Z-0.125000
G01 X183.404970 Y141.515440 Z-0.125000
G01 X184.801970 Y142.669020 Z-0.125000
G01 X186.117830 Y143.219350 Z-0.125000
G01 X187.349030 Y143.244050 Z-0.125000
G01 X188.495550 Y142.834830 Z-0.125000
G01 X189.553890 Y142.093990 Z-0.125000
G01 X190.520500 Y141.123850 Z-0.125000
G01 X191.402440 Y140.016130 Z-0.125000
G01 X192.192670 Y138.851960 Z-0.125000
G01 X192.887640 Y137.698380 Z-0.125000
G01 X193.494420 Y136.618880 Z-0.125000
G01 X194.005940 Y135.652270 Z-0.125000
G01 X194.425750 Y134.833830 Z-0.125000
G01 X194.746780 Y134.191770 Z-0.125000
G01 X194.976080 Y133.733160 Z-0.125000
G01 X195.110140 Y133.465050 Z-0.125000
G01 X195.148940 Y133.390950 Z-0.125000
G01 X195.092540 Y133.496790 Z-0.125000
G01 X194.940840 Y133.754320 Z-0.125000
G01 X194.693900 Y134.131790 Z-0.125000
G01 X194.351710 Y134.583340 Z-0.125000
G01 X193.914260 Y135.045480 Z-0.125000
G01 X193.385090 Y135.451180 Z-0.125000
G01 X192.764210 Y135.715760 Z-0.125000
G01 X192.048070 Y135.758060 Z-0.125000
G01 X191.240210 Y135.500540 Z-0.125000
G01 X190.344150 Y134.865540 Z-0.125000
G01 X189.356370 Y133.800150 Z-0.125000
G01 X188.283930 Y132.265560 Z-0.125000
G01 X187.119760 Y130.247670 Z-0.125000
G01 X185.874460 Y127.757060 Z-0.125000
G01 X184.540960 Y124.836060 Z-0.125000
G01 X183.129840 Y121.537590 Z-0.125000
G01 X181.634070 Y117.932200 Z-0.125000
G01 X180.060680 Y114.108090 Z-0.125000
G01 X178.413210 Y110.146400 Z-0.125000
G01 X176.688120 Y106.128260 Z-0.125000
G01 X174.888960 Y102.134810 Z-0.125000
G01 X173.022760 Y98.233090 Z-0.125000
G01 X171.086010 Y94.479540 Z-0.125000
G01 X169.085760 Y90.934120 Z-0.125000
G01 X167.018480 Y87.642700 Z-0.125000
G01 X164.894760 Y84.658200 Z-0.125000
G01 X162.711070 Y82.040590 Z-0.125000
G01 X160.470930 Y79.849840 Z-0.125000
G01 X158.177870 Y78.170620 Z-0.125000
G01 X155.831900 Y77.091120 Z-0.125000
G01 X153.443600 Y76.710120 Z-0.125000
G01 X151.009430 Y77.133450 Z-0.125000
G01 X148.532930 Y78.466950 Z-0.125000
G01 X146.017620 Y80.809400 Z-0.125000
G01 X143.470570 Y84.224290 Z-0.125000
G01 X140.888230 Y88.761010 Z-0.125000
G01 X138.277680 Y94.412510 Z-0.125000
G01 X135.642430 Y101.129400 Z-0.125000
G01 X132.982480 Y108.798790 Z-0.125000
G01 X130.304900 Y117.261920 Z-0.125000
G01 X127.613210 Y126.310670 Z-0.125000
G01 X124.903870 Y135.698090 Z-0.125000
G01 X122.191010 Y145.163120 Z-0.125000
G01 X119.467570 Y154.437650 Z-0.125000
G01 X116.744120 Y163.267670 Z-0.125000
G01 X114.017150 Y171.427420 Z-0.125000
G01 X111.297240 Y178.744030 Z-0.125000
G01 X108.584370 Y185.086980 Z-0.125000
G01 X105.882100 Y190.375120 Z-0.125000
G01 X103.193930 Y194.587280 Z-0.125000
G01 X100.523390 Y197.734056 Z-0.125000
G01 X97.870496 Y199.868366 Z-0.125000
G01 X95.245836 Y201.057226 Z-0.125000
G01 X92.645856 Y201.388836 Z-0.125000
G01 X90.074106 Y200.944336 Z-0.125000
G01 X87.537636 Y199.804866 Z-0.125000
G01 X85.036446 Y198.040976 Z-0.125000
G01 X82.574056 Y195.709120 Z-0.125000
G01 X80.153996 Y192.855150 Z-0.125000
G01 X77.779806 Y189.517870 Z-0.125000
G01 X75.454996 Y185.736090 Z-0.125000
G01 X73.179586 Y181.545090 Z-0.125000
G01 X70.960616 Y176.987200 Z-0.125000
G01 X68.794556 Y172.125920 Z-0.125000
G01 X66.691996 Y167.031810 Z-0.125000
G01 X64.649416 Y161.800120 Z-0.125000
G01 X62.670336 Y156.540200 Z-0.125000
G01 X60.758276 Y151.372010 Z-0.125000
G01 X58.913246 Y146.426060 Z-0.125000
G01 X57.142306 Y141.822310 Z-0.125000
G01 X55.445446 Y137.677170 Z-0.125000
G01 X53.822666 Y134.078840 Z-0.125000
G01 X52.277496 Y131.101400 Z-0.125000
G01 X50.809946 Y128.773060 Z-0.125000
G01 X49.423526 Y127.093840 Z-0.125000
G01 X48.121776 Y126.035510 Z-0.125000
G01 X46.904696 Y125.538090 Z-0.125000
G01 X45.775806 Y125.523990 Z-0.125000
G01 X44.731586 Y125.901460 Z-0.125000
G01 X43.775556 Y126.575270 Z-0.125000
G01 X42.911246 Y127.446630 Z-0.125000
G01 X42.135136 Y128.427350 Z-0.125000
G01 X41.454276 Y129.439820 Z-0.125000
G01 X40.861616 Y130.420550 Z-0.125000
G01 X40.364196 Y131.309550 Z-0.125000
G01 X39.962026 Y132.071550 Z-0.125000
G01 X39.655116 Y132.674800 Z-0.125000
G01 X39.439916 Y133.101660 Z-0.125000
G01 X39.323496 Y133.338020 Z-0.125000
G01 X39.298796 Y133.383920 Z-0.125000
G01 X39.372896 Y133.246340 Z-0.125000
G01 X39.538706 Y132.942950 Z-0.125000
G01 X39.803286 Y132.498450 Z-0.125000
G01 X40.159596 Y131.958700 Z-0.125000
G01 X40.611146 Y131.369560 Z-0.125000
G01 X41.154426 Y130.801590 Z-0.125000
G01 X41.792956 Y130.328860 Z-0.125000
G01 X42.523206 Y130.032530 Z-0.125000
G01 X43.345176 Y130.004330 Z-0.125000
G01 X44.255346 Y130.325360 Z-0.125000
G01 X45.257236 Y131.066190 Z-0.125000
G01 X46.347316 Y132.286800 Z-0.125000
G01 X47.522066 Y134.018940 Z-0.125000
G01 X48.781486 Y136.276720 Z-0.125000
G01 X50.125566 Y139.038970 Z-0.125000
G01 X51.554316 Y142.259830 Z-0.125000
G01 X53.060676 Y145.879330 Z-0.125000
G01 X54.644646 Y149.805740 Z-0.125000
G01 X56.309756 Y153.954410 Z-0.125000
G01 X58.045426 Y158.230080 Z-0.125000
G01 X59.851646 Y162.537490 Z-0.125000
G01 X61.731956 Y166.791990 Z-0.125000
G01 X63.679286 Y170.923020 Z-0.125000
G01 X65.690126 Y174.867080 Z-0.125000
G01 X67.767986 Y178.571240 Z-0.125000
G01 X69.902286 Y181.982600 Z-0.125000
G01 X72.096566 Y185.055300 Z-0.125000
G01 X74.343756 Y187.736410 Z-0.125000
G01 X76.647396 Y189.969490 Z-0.125000
G01 X78.996896 Y191.676940 Z-0.125000
G01 X81.392256 Y192.781130 Z-0.125000
G01 X83.837006 Y193.186830 Z-0.125000
G01 X86.317036 Y192.791720 Z-0.125000
G01 X88.835866 Y191.497020 Z-0.125000
G01 X91.393506 Y189.207490 Z-0.125000
G01 X93.979366 Y185.849050 Z-0.125000
G01 X96.593456 Y181.375830 Z-0.125000
G01 X99.232236 Y175.791350 Z-0.125000
G01 X101.895720 Y169.134440 Z-0.125000
G01 X104.576830 Y161.514440 Z-0.125000
G01 X107.272050 Y153.075990 Z-0.125000
G01 X109.981380 Y144.027240 Z-0.125000
G01 X112.697770 Y134.611610 Z-0.125000
G01 X115.421220 Y125.086610 Z-0.125000
G01 X118.144660 Y115.727410 Z-0.125000
G01 X120.868110 Y106.791550 Z-0.125000
G01 X123.588020 Y98.504800 Z-0.125000
G01 X126.297360 Y91.061190 Z-0.125000
G01 X128.999630 Y84.594770 Z-0.125000
G01 X131.684270 Y79.193750 Z-0.125000
G01 X134.354800 Y74.886330 Z-0.125000
G01 X137.000630 Y71.665470 Z-0.125000
G01 X139.625300 Y69.481770 Z-0.125000
G01 X142.221740 Y68.257630 Z-0.125000
G01 X144.786440 Y67.911910 Z-0.125000
G01 X147.315860 Y68.345830 Z-0.125000
G01 X149.809990 Y69.481770 Z-0.125000
G01 X152.265330 Y71.231550 Z-0.125000
G01 X154.678330 Y73.535190 Z-0.125000
G01 X157.045470 Y76.332720 Z-0.125000
G01 X159.363220 Y79.581800 Z-0.125000
G01 X161.628050 Y83.236580 Z-0.125000
G01 X163.839970 Y87.261770 Z-0.125000
G01 X165.995440 Y91.608000 Z-0.125000
G01 X168.090940 Y96.218800 Z-0.125000
G01 X170.122940 Y101.023630 Z-0.125000
G01 X172.091440 Y105.937830 Z-0.125000
G01 X173.992910 Y110.862610 Z-0.125000
G01 X175.823830 Y115.685080 Z-0.125000
G01 X177.584190 Y120.288830 Z-0.125000
G01 X179.270470 Y124.557440 Z-0.125000
G01 X180.879130 Y128.395660 Z-0.125000
G01 X182.413720 Y131.715300 Z-0.125000
G01 X183.867160 Y134.452860 Z-0.125000
G01 X185.235940 Y136.587160 Z-0.125000
G01 X186.527100 Y138.118220 Z-0.125000
G01 X187.730080 Y139.074240 Z-0.125000
G01 X188.844850 Y139.511690 Z-0.125000
G01 X189.874970 Y139.515690 Z-0.125000
G01 X190.816880 Y139.166440 Z-0.125000
G01 X191.667080 Y138.559660 Z-0.125000
G01 X192.429080 Y137.787080 Z-0.125000
G01 X193.095830 Y136.933350 Z-0.125000
G01 X193.670850 Y136.076100 Z-0.125000
G01 X194.150630 Y135.271770 Z-0.125000
G01 X194.538690 Y134.573270 Z-0.125000
G01 X194.831490 Y134.015880 Z-0.125000
G01 X195.029050 Y133.627830 Z-0.125000
G01 X195.134880 Y133.423210 Z-0.125000
G01 X195.141880 Y133.409110 Z-0.125000
G01 X195.053680 Y133.578450 Z-0.125000
G01 X194.870240 Y133.927700 Z-0.125000
G01 X194.591540 Y134.432170 Z-0.125000
G01 X194.221130 Y135.056590 Z-0.125000
G01 X193.755460 Y135.755090 Z-0.125000
G01 X193.194540 Y136.478280 Z-0.125000
G01 X192.541910 Y137.148560 Z-0.125000
G01 X191.797540 Y137.691840 Z-0.125000
G01 X190.961460 Y138.012860 Z-0.125000
G01 X190.033660 Y138.026960 Z-0.125000
G01 X189.017660 Y137.645960 Z-0.125000
G01 X187.916990 Y136.795770 Z-0.125000
G01 X186.724600 Y135.419940 Z-0.125000
G01 X185.451070 Y133.486710 Z-0.125000
G01 X184.092880 Y130.989050 Z-0.125000
G01 X182.653540 Y127.948100 Z-0.125000
G01 X181.133070 Y124.420330 Z-0.125000
G01 X179.534990 Y120.479800 Z-0.125000
G01 X177.862820 Y116.214710 Z-0.125000
G01 X176.113050 Y111.734440 Z-0.125000
G01 X174.292710 Y107.141270 Z-0.125000
G01 X172.401820 Y102.533990 Z-0.125000
G01 X170.447430 Y98.007850 Z-0.125000
G01 X168.422490 Y93.640470 Z-0.125000
G01 X166.337570 Y89.498850 Z-0.125000
G01 X164.192680 Y85.635940 Z-0.125000
G01 X161.991350 Y82.101100 Z-0.125000
G01 X159.733570 Y78.943740 Z-0.125000
G01 X157.422880 Y76.202660 Z-0.125000
G01 X155.066320 Y73.930770 Z-0.125000
G01 X152.660380 Y72.198630 Z-0.125000
G01 X150.212100 Y71.076800 Z-0.125000
G01 X147.725020 Y70.653470 Z-0.125000
G01 X145.199130 Y71.020350 Z-0.125000
G01 X142.637960 Y72.279770 Z-0.125000
G01 X140.045050 Y74.519910 Z-0.125000
G01 X137.427430 Y77.811330 Z-0.125000
G01 X134.785130 Y82.203410 Z-0.125000
G01 X132.118130 Y87.706740 Z-0.125000
G01 X129.437020 Y94.278990 Z-0.125000
G01 X126.738270 Y101.824910 Z-0.125000
G01 X124.025410 Y110.199850 Z-0.125000
G01 X121.309020 Y119.213330 Z-0.125000
G01 X118.585570 Y128.618380 Z-0.125000
G01 X115.862130 Y138.164550 Z-0.125000
G01 X113.138690 Y147.569600 Z-0.125000
G01 X110.418770 Y156.583080 Z-0.125000
G01 X107.709440 Y164.958020 Z-0.125000
G01 X105.010690 Y172.503940 Z-0.125000
G01 X102.326050 Y179.076190 Z-0.125000
G01 X99.662553 Y184.579520 Z-0.125000
G01 X97.020256 Y188.971600 Z-0.125000
G01 X94.399116 Y192.263020 Z-0.125000
G01 X91.809726 Y194.503160 Z-0.125000
G01 X89.248556 Y195.762570 Z-0.125000
G01 X86.722676 Y196.129460 Z-0.125000
G01 X84.235586 Y195.706130 Z-0.125000
G01 X81.787306 Y194.584300 Z-0.125000
G01 X79.381366 Y192.852160 Z-0.125000
G01 X77.021286 Y190.580270 Z-0.125000
G01 X74.714116 Y187.839190 Z-0.125000
G01 X72.456336 Y184.678300 Z-0.125000
G01 X70.255006 Y181.146990 Z-0.125000
G01 X68.106586 Y177.284070 Z-0.125000
G01 X66.021676 Y173.142460 Z-0.125000
G01 X64.000256 Y168.775070 Z-0.125000
G01 X62.042336 Y164.248940 Z-0.125000
G01 X60.151446 Y159.641660 Z-0.125000
G01 X58.331116 Y155.048490 Z-0.125000
G01 X56.584866 Y150.568210 Z-0.125000
G01 X54.909176 Y146.303130 Z-0.125000
G01 X53.311086 Y142.362600 Z-0.125000
G01 X51.794146 Y138.834830 Z-0.125000
G01 X50.351286 Y135.793880 Z-0.125000
G01 X48.993086 Y133.296210 Z-0.125000
G01 X47.719566 Y131.362990 Z-0.125000
G01 X46.530696 Y129.987160 Z-0.125000
G01 X45.426506 Y129.136960 Z-0.125000
G01 X44.410506 Y128.755960 Z-0.125000
G01 X43.486226 Y128.770060 Z-0.125000
G01 X42.650146 Y129.091080 Z-0.125000
G01 X41.905786 Y129.634360 Z-0.125000
G01 X41.253146 Y130.304640 Z-0.125000
G01 X40.692226 Y131.027830 Z-0.125000
G01 X40.226566 Y131.726330 Z-0.125000
G01 X39.852616 Y132.350750 Z-0.125000
G01 X39.573926 Y132.855220 Z-0.125000
G01 X39.394006 Y133.204470 Z-0.125000
G01 X39.305806 Y133.373810 Z-0.125000
G01 X39.312806 Y133.359710 Z-0.125000
G01 X39.415116 Y133.155100 Z-0.125000
G01 X39.612666 Y132.767050 Z-0.125000
G01 X39.905476 Y132.209660 Z-0.125000
G01 X40.293526 Y131.511160 Z-0.125000
G01 X40.776836 Y130.706830 Z-0.125000
G01 X41.351866 Y129.849580 Z-0.125000
G01 X42.018616 Y128.995850 Z-0.125000
G01 X42.777086 Y128.223270 Z-0.125000
G01 X43.630806 Y127.616490 Z-0.125000
G01 X44.569196 Y127.267240 Z-0.125000
G01 X45.599306 Y127.271240 Z-0.125000
G01 X46.717616 Y127.708680 Z-0.125000
G01 X47.920586 Y128.664710 Z-0.125000
G01 X49.208226 Y130.195770 Z-0.125000
G01 X50.580526 Y132.326550 Z-0.125000
G01 X52.033976 Y135.067630 Z-0.125000
G01 X53.565026 Y138.387270 Z-0.125000
G01 X55.177226 Y142.225490 Z-0.125000
G01 X56.863506 Y146.494100 Z-0.125000
G01 X58.623866 Y151.097850 Z-0.125000
G01 X60.454776 Y155.920320 Z-0.125000
G01 X62.356256 Y160.845100 Z-0.125000
G01 X64.324756 Y165.759290 Z-0.125000
G01 X66.356756 Y170.564130 Z-0.125000
G01 X68.452256 Y175.174930 Z-0.125000
G01 X70.607726 Y179.521160 Z-0.125000
G01 X72.816116 Y183.546350 Z-0.125000
G01 X75.084476 Y187.201130 Z-0.125000
G01 X77.402226 Y190.450210 Z-0.125000
G01 X79.765836 Y193.247740 Z-0.125000
G01 X82.178836 Y195.551380 Z-0.125000
G01 X84.634166 Y197.301157 Z-0.125000
G01 X87.128306 Y198.437096 Z-0.125000
G01 X89.661246 Y198.871016 Z-0.125000
G01 X92.225946 Y198.525286 Z-0.125000
