%
(Header)
(Generated by gcodetools from Inkscape.)
(Using default header. To add your own header create file "header" in the output dir.)
M3
(Header end.)
G21 (All units in mm)

(Start cutting path id: polyline7191)
(Change tool to Default tool)
 
G00 Z5.000000
G00 X107.847051 Y142.142653

G00 Z4.875000 (Fast pre-penetrate)
G01 Z-0.125000 F100.0(Penetrate)
G01 X107.050057 Y142.440517 Z-0.125000 F800.000000
G01 X108.262010 Y141.772138 Z-0.125000
G01 X109.393058 Y141.528785 Z-0.125000
G01 X107.481887 Y142.623553 Z-0.125000
G01 X105.542235 Y143.076334 Z-0.125000
G01 X108.199970 Y141.535225 Z-0.125000
G01 X110.075133 Y140.903308 Z-0.125000
G01 X110.916752 Y140.881902 Z-0.125000
G01 X109.997130 Y141.674543 Z-0.125000
G01 X107.542022 Y142.859467 Z-0.125000
G01 X105.125462 Y143.684488 Z-0.125000
G01 X104.017180 Y143.718592 Z-0.125000
G01 X105.120836 Y142.759696 Z-0.125000
G01 X108.106548 Y141.311011 Z-0.125000
G01 X111.102600 Y140.283635 Z-0.125000
G01 X112.452419 Y140.234203 Z-0.125000
G01 X111.154028 Y141.367881 Z-0.125000
G01 X107.587735 Y143.099282 Z-0.125000
G01 X104.095546 Y144.300714 Z-0.125000
G01 X102.489495 Y144.355135 Z-0.125000
G01 X103.986432 Y143.047854 Z-0.125000
G01 X108.092036 Y141.053691 Z-0.125000
G01 X112.130066 Y139.664235 Z-0.125000
G01 X113.996794 Y139.586322 Z-0.125000
G01 X113.628637 Y140.161551 Z-0.125000
G01 X112.266935 Y141.087704 Z-0.125000
G01 X107.576579 Y143.360049 Z-0.125000
G01 X103.070438 Y144.912677 Z-0.125000
G01 X101.595178 Y145.159657 Z-0.125000
G01 X100.962263 Y144.985238 Z-0.125000
G01 X101.362801 Y144.346337 Z-0.125000
G01 X102.829897 Y143.344992 Z-0.125000
G01 X108.065641 Y140.800452 Z-0.125000
G01 X113.172952 Y139.041660 Z-0.125000
G01 X114.842041 Y138.753410 Z-0.125000
G01 X115.551327 Y138.940346 Z-0.125000
G01 X115.083670 Y139.659518 Z-0.125000
G01 X113.407416 Y140.792017 Z-0.125000
G01 X107.492408 Y143.647663 Z-0.125000
G01 X101.971045 Y145.538789 Z-0.125000
G01 X100.206901 Y145.822322 Z-0.125000
G01 X99.434668 Y145.601827 Z-0.125000
G01 X99.904774 Y144.840569 Z-0.125000
G01 X101.708283 Y143.616190 Z-0.125000
G01 X108.166864 Y140.493337 Z-0.125000
G01 X114.232346 Y138.415547 Z-0.125000
G01 X116.254264 Y138.068795 Z-0.125000
G01 X117.115384 Y138.292465 Z-0.125000
G01 X116.554032 Y139.152588 Z-0.125000
G01 X114.534200 Y140.505400 Z-0.125000
G01 X107.396264 Y143.936547 Z-0.125000
G01 X100.955279 Y146.139959 Z-0.125000
G01 X98.826787 Y146.475373 Z-0.125000
G01 X97.909432 Y146.207985 Z-0.125000
G01 X98.455636 Y145.315029 Z-0.125000
G01 X100.530796 Y143.913419 Z-0.125000
G01 X108.222283 Y140.203637 Z-0.125000
G01 X115.330106 Y137.780818 Z-0.125000
G01 X117.696055 Y137.384271 Z-0.125000
G01 X118.689871 Y137.643405 Z-0.125000
G01 X118.040539 Y138.641031 Z-0.125000
G01 X115.675044 Y140.211709 Z-0.125000
G01 X107.147017 Y144.284569 Z-0.125000
G01 X99.810263 Y146.766797 Z-0.125000
G01 X97.425267 Y147.118175 Z-0.125000
G01 X96.382744 Y146.790652 Z-0.125000
G01 X97.001147 Y145.780418 Z-0.125000
G01 X99.378070 Y144.188335 Z-0.125000
G01 X108.426543 Y139.850626 Z-0.125000
G01 X116.431766 Y137.146089 Z-0.125000
G01 X119.147551 Y136.701198 Z-0.125000
G01 X120.280594 Y137.004776 Z-0.125000
G01 X119.544188 Y138.125393 Z-0.125000
G01 X116.774346 Y139.943142 Z-0.125000
G01 X106.844527 Y144.650005 Z-0.125000
G01 X98.704430 Y147.378488 Z-0.125000
G01 X96.024927 Y147.748822 Z-0.125000
G01 X94.858415 Y147.355994 Z-0.125000
G01 X95.568879 Y146.211341 Z-0.125000
G01 X98.269426 Y144.429057 Z-0.125000
G01 X108.752887 Y139.445735 Z-0.125000
G01 X113.515532 Y137.676874 Z-0.125000
G01 X117.600909 Y136.496485 Z-0.125000
G01 X120.609477 Y136.019939 Z-0.125000
G01 X121.884378 Y136.368777 Z-0.125000
G01 X121.755310 Y136.893576 Z-0.125000
G01 X121.034142 Y137.632340 Z-0.125000
G01 X117.937139 Y139.640290 Z-0.125000
G01 X112.650058 Y142.333217 Z-0.125000
G01 X106.487889 Y145.033491 Z-0.125000
G01 X101.545473 Y146.868564 Z-0.125000
G01 X97.593609 Y147.985190 Z-0.125000
G01 X94.663497 Y148.367044 Z-0.125000
G01 X93.765734 Y148.243236 Z-0.125000
G01 X93.342883 Y147.916257 Z-0.125000
G01 X93.436669 Y147.384293 Z-0.125000
G01 X94.078472 Y146.675461 Z-0.125000
G01 X97.037790 Y144.729279 Z-0.125000
G01 X102.724502 Y141.834087 Z-0.125000
G01 X109.042043 Y139.053088 Z-0.125000
G01 X114.245407 Y137.135568 Z-0.125000
G01 X118.788554 Y135.844160 Z-0.125000
G01 X122.082016 Y135.341038 Z-0.125000
G01 X123.071751 Y135.427930 Z-0.125000
G01 X123.501767 Y135.736225 Z-0.125000
G01 X123.351021 Y136.320977 Z-0.125000
G01 X122.534708 Y137.141917 Z-0.125000
G01 X119.043425 Y139.370997 Z-0.125000
G01 X112.930416 Y142.450494 Z-0.125000
G01 X105.978328 Y145.474664 Z-0.125000
G01 X100.729251 Y147.406605 Z-0.125000
G01 X96.409410 Y148.601235 Z-0.125000
G01 X93.270685 Y148.971206 Z-0.125000
G01 X92.288297 Y148.816832 Z-0.125000
G01 X91.825991 Y148.443414 Z-0.125000
G01 X91.932294 Y147.851224 Z-0.125000
G01 X92.611285 Y147.100760 Z-0.125000
G01 X95.783479 Y145.029501 Z-0.125000
G01 X102.394530 Y141.697672 Z-0.125000
G01 X109.471333 Y138.600488 Z-0.125000
G01 X114.992152 Y136.586279 Z-0.125000
G01 X119.917516 Y135.206709 Z-0.125000
G01 X123.565439 Y134.664949 Z-0.125000
G01 X124.633450 Y134.757737 Z-0.125000
G01 X125.126594 Y135.091972 Z-0.125000
G01 X124.976755 Y135.728152 Z-0.125000
G01 X124.085885 Y136.622832 Z-0.125000
G01 X120.228713 Y139.060163 Z-0.125000
G01 X113.261023 Y142.540016 Z-0.125000
G01 X105.395117 Y145.941413 Z-0.125000
G01 X99.789039 Y147.981290 Z-0.125000
G01 X95.209067 Y149.213198 Z-0.125000
G01 X91.836603 Y149.558317 Z-0.125000
G01 X90.815486 Y149.371381 Z-0.125000
G01 X90.313725 Y148.948350 Z-0.125000
G01 X90.431547 Y148.294845 Z-0.125000
G01 X91.176024 Y147.478622 Z-0.125000
G01 X94.580505 Y145.286911 Z-0.125000
G01 X102.209771 Y141.490328 Z-0.125000
G01 X109.955861 Y138.122128 Z-0.125000
G01 X115.860438 Y135.995359 Z-0.125000
G01 X121.135455 Y134.550938 Z-0.125000
G01 X125.059837 Y133.992126 Z-0.125000
G01 X126.232426 Y134.098609 Z-0.125000
G01 X126.771102 Y134.466585 Z-0.125000
G01 X126.601037 Y135.161903 Z-0.125000
G01 X125.655655 Y136.102205 Z-0.125000
G01 X121.341892 Y138.791596 Z-0.125000
G01 X113.325421 Y142.748630 Z-0.125000
G01 X104.622431 Y146.479364 Z-0.125000
G01 X98.703795 Y148.597788 Z-0.125000
G01 X93.914847 Y149.835047 Z-0.125000
G01 X90.399982 Y150.127741 Z-0.125000
G01 X89.319909 Y149.893822 Z-0.125000
G01 X88.806811 Y149.429884 Z-0.125000
G01 X88.919643 Y148.740008 Z-0.125000
G01 X89.706025 Y147.864920 Z-0.125000
G01 X93.288734 Y145.577610 Z-0.125000
G01 X101.968233 Y141.306295 Z-0.125000
G01 X110.494900 Y137.617646 Z-0.125000
G01 X116.762373 Y135.391559 Z-0.125000
G01 X122.372170 Y133.893080 Z-0.125000
G01 X126.620084 Y133.322658 Z-0.125000
G01 X127.876210 Y133.453722 Z-0.125000
G01 X128.429217 Y133.846731 Z-0.125000
G01 X128.238562 Y134.600823 Z-0.125000
G01 X127.197400 Y135.617678 Z-0.125000
G01 X122.454255 Y138.525931 Z-0.125000
G01 X113.437438 Y142.930940 Z-0.125000
G01 X103.884030 Y147.000081 Z-0.125000
G01 X97.671159 Y149.192881 Z-0.125000
G01 X92.679492 Y150.436761 Z-0.125000
G01 X89.011252 Y150.683560 Z-0.125000
G01 X87.856622 Y150.405560 Z-0.125000
G01 X87.305973 Y149.886657 Z-0.125000
G01 X87.411096 Y149.162859 Z-0.125000
G01 X88.195392 Y148.264007 Z-0.125000
G01 X91.893292 Y145.905949 Z-0.125000
G01 X102.142561 Y140.926618 Z-0.125000
G01 X111.087725 Y137.087133 Z-0.125000
G01 X117.697687 Y134.775242 Z-0.125000
G01 X123.726435 Y133.213725 Z-0.125000
G01 X128.199470 Y132.658360 Z-0.125000
G01 X129.503122 Y132.806113 Z-0.125000
G01 X130.100573 Y133.233136 Z-0.125000
G01 X129.888967 Y134.045821 Z-0.125000
G01 X128.749756 Y135.138139 Z-0.125000
G01 X123.670018 Y138.208294 Z-0.125000
G01 X113.491042 Y143.136560 Z-0.125000
G01 X103.073794 Y147.546014 Z-0.125000
G01 X96.597797 Y149.796227 Z-0.125000
G01 X91.430714 Y151.032398 Z-0.125000
G01 X87.575447 Y151.215978 Z-0.125000
G01 X86.400500 Y150.895529 Z-0.125000
G01 X85.812119 Y150.317761 Z-0.125000
G01 X85.922866 Y149.531923 Z-0.125000
G01 X86.721039 Y148.608219 Z-0.125000
G01 X90.469550 Y146.228302 Z-0.125000
G01 X102.280156 Y140.560456 Z-0.125000
G01 X111.593930 Y136.584102 Z-0.125000
G01 X118.535406 Y134.185955 Z-0.125000
G01 X124.900928 Y132.573373 Z-0.125000
G01 X129.734683 Y131.999504 Z-0.125000
G01 X131.142280 Y132.165125 Z-0.125000
G01 X131.784628 Y132.626615 Z-0.125000
G01 X131.574926 Y133.465241 Z-0.125000
G01 X130.367780 Y134.622048 Z-0.125000
G01 X124.901382 Y137.886757 Z-0.125000
G01 X113.337757 Y143.432701 Z-0.125000
G01 X102.192719 Y148.116798 Z-0.125000
G01 X95.484981 Y150.407374 Z-0.125000
G01 X90.169601 Y151.621323 Z-0.125000
G01 X86.195152 Y151.736332 Z-0.125000
G01 X84.952360 Y151.363005 Z-0.125000
G01 X84.326156 Y150.722108 Z-0.125000
G01 X84.424114 Y149.904525 Z-0.125000
G01 X85.246958 Y148.927760 Z-0.125000
G01 X89.110661 Y146.493151 Z-0.125000
G01 X103.079145 Y139.889084 Z-0.125000
G01 X112.282717 Y136.004066 Z-0.125000
G01 X119.527771 Y133.546781 Z-0.125000
G01 X126.192518 Y131.912340 Z-0.125000
G01 X131.279602 Y131.346454 Z-0.125000
G01 X132.792775 Y131.531303 Z-0.125000
G01 X133.480655 Y132.028075 Z-0.125000
G01 X133.251180 Y132.922664 Z-0.125000
G01 X131.944353 Y134.152123 Z-0.125000
G01 X126.148437 Y137.561865 Z-0.125000
G01 X113.261205 Y143.691926 Z-0.125000
G01 X101.242258 Y148.711981 Z-0.125000
G01 X94.334432 Y151.025414 Z-0.125000
G01 X88.897421 Y152.203082 Z-0.125000
G01 X84.821840 Y152.239272 Z-0.125000
G01 X83.513290 Y151.807442 Z-0.125000
G01 X82.848992 Y151.098973 Z-0.125000
G01 X82.931712 Y150.251186 Z-0.125000
G01 X83.730429 Y149.260544 Z-0.125000
G01 X87.544246 Y146.841626 Z-0.125000
G01 X104.035774 Y139.143245 Z-0.125000
G01 X113.022569 Y135.397908 Z-0.125000
G01 X120.552336 Y132.895907 Z-0.125000
G01 X127.501703 Y131.251308 Z-0.125000
G01 X132.905971 Y130.701475 Z-0.125000
G01 X134.495696 Y130.919068 Z-0.125000
G01 X135.187839 Y131.438334 Z-0.125000
G01 X134.938319 Y132.388614 Z-0.125000
G01 X133.593579 Y133.642199 Z-0.125000
G01 X127.540251 Y137.168129 Z-0.125000
G01 X113.124064 Y143.977182 Z-0.125000
G01 X100.380685 Y149.272880 Z-0.125000
G01 X93.279029 Y151.613704 Z-0.125000
G01 X87.615356 Y152.777132 Z-0.125000
G01 X83.396557 Y152.711827 Z-0.125000
G01 X82.047372 Y152.205622 Z-0.125000
G01 X81.381351 Y151.447448 Z-0.125000
G01 X81.463164 Y150.534900 Z-0.125000
G01 X82.258162 Y149.528386 Z-0.125000
G01 X86.046492 Y147.126247 Z-0.125000
G01 X104.980067 Y138.397679 Z-0.125000
G01 X113.646595 Y134.827396 Z-0.125000
G01 X121.451913 Y132.277505 Z-0.125000
G01 X128.828031 Y130.590819 Z-0.125000
G01 X134.472839 Y130.062574 Z-0.125000
G01 X136.124876 Y130.288783 Z-0.125000
G01 X136.905181 Y130.858298 Z-0.125000
G01 X136.663280 Y131.825630 Z-0.125000
G01 X135.259040 Y133.135450 Z-0.125000
G01 X128.827396 Y136.834529 Z-0.125000
G01 X112.566975 Y144.448739 Z-0.125000
G01 X99.304058 Y149.913414 Z-0.125000
G01 X92.063357 Y152.243263 Z-0.125000
G01 X86.325036 Y153.343109 Z-0.125000
G01 X83.921084 Y153.423017 Z-0.125000
G01 X82.037667 Y153.176944 Z-0.125000
G01 X80.627531 Y152.600173 Z-0.125000
G01 X79.924413 Y151.767080 Z-0.125000
G01 X79.986271 Y150.825508 Z-0.125000
G01 X80.744173 Y149.810104 Z-0.125000
G01 X84.527877 Y147.392003 Z-0.125000
G01 X105.879191 Y137.664992 Z-0.125000
G01 X114.302367 Y134.235931 Z-0.125000
G01 X122.365186 Y131.650757 Z-0.125000
G01 X130.034180 Y129.953732 Z-0.125000
G01 X136.046963 Y129.431654 Z-0.125000
G01 X137.804577 Y129.681628 Z-0.125000
G01 X138.631593 Y130.288783 Z-0.125000
G01 X138.371099 Y131.309085 Z-0.125000
G01 X136.939648 Y132.632964 Z-0.125000
G01 X130.275446 Y136.426554 Z-0.125000
G01 X112.096960 Y144.881657 Z-0.125000
G01 X98.334368 Y150.514764 Z-0.125000
G01 X90.815486 Y152.877629 Z-0.125000
G01 X85.027733 Y153.900470 Z-0.125000
G01 X82.642192 Y153.930039 Z-0.125000
G01 X80.624628 Y153.606053 Z-0.125000
G01 X79.219571 Y152.970508 Z-0.125000
G01 X78.478812 Y152.057234 Z-0.125000
G01 X78.518993 Y151.088089 Z-0.125000
G01 X79.278346 Y150.021439 Z-0.125000
G01 X82.990577 Y147.635990 Z-0.125000
G01 X106.702035 Y136.956795 Z-0.125000
G01 X114.989159 Y133.623515 Z-0.125000
G01 X123.466303 Y130.969589 Z-0.125000
G01 X131.385451 Y129.296237 Z-0.125000
G01 X137.713694 Y128.813251 Z-0.125000
G01 X139.541783 Y129.101864 Z-0.125000
G01 X140.365806 Y129.730606 Z-0.125000
G01 X140.116831 Y130.761882 Z-0.125000
G01 X138.634587 Y132.135647 Z-0.125000
G01 X131.755059 Y136.011050 Z-0.125000
G01 X111.545404 Y145.352035 Z-0.125000
G01 X97.316697 Y151.135072 Z-0.125000
G01 X89.682896 Y153.480613 Z-0.125000
G01 X83.833466 Y154.442412 Z-0.125000
G01 X81.370104 Y154.425450 Z-0.125000
G01 X79.350816 Y154.053302 Z-0.125000
G01 X77.824764 Y153.316443 Z-0.125000
G01 X77.045728 Y152.317547 Z-0.125000
G01 X77.078018 Y151.279015 Z-0.125000
G01 X77.818052 Y150.202116 Z-0.125000
G01 X81.541802 Y147.803152 Z-0.125000
G01 X107.611771 Y136.200344 Z-0.125000
G01 X115.706154 Y132.990056 Z-0.125000
G01 X124.414224 Y130.325518 Z-0.125000
G01 X132.751778 Y128.641281 Z-0.125000
G01 X139.304145 Y128.201016 Z-0.125000
G01 X141.238173 Y128.517746 Z-0.125000
G01 X142.106459 Y129.184856 Z-0.125000
G01 X141.840613 Y130.266471 Z-0.125000
G01 X140.342314 Y131.644408 Z-0.125000
G01 X133.425146 Y135.510741 Z-0.125000
G01 X110.913306 Y145.860689 Z-0.125000
G01 X96.252678 Y151.774064 Z-0.125000
G01 X88.530806 Y154.087950 Z-0.125000
G01 X82.529723 Y154.983627 Z-0.125000
G01 X80.015205 Y154.899003 Z-0.125000
G01 X77.956372 Y154.440870 Z-0.125000
G01 X76.443924 Y153.638071 Z-0.125000
G01 X75.625978 Y152.547748 Z-0.125000
G01 X75.632327 Y151.482187 Z-0.125000
G01 X76.364016 Y150.351502 Z-0.125000
G01 X77.772520 Y149.226168 Z-0.125000
G01 X79.975387 Y147.995440 Z-0.125000
G01 X108.404593 Y135.483712 Z-0.125000
G01 X116.452265 Y132.335644 Z-0.125000
G01 X125.373755 Y129.673827 Z-0.125000
G01 X133.971713 Y128.011178 Z-0.125000
G01 X140.898405 Y127.598940 Z-0.125000
G01 X142.939461 Y127.945964 Z-0.125000
G01 X143.852009 Y128.652256 Z-0.125000
G01 X143.601491 Y129.738860 Z-0.125000
G01 X142.139565 Y131.104009 Z-0.125000
G01 X135.138860 Y134.999729 Z-0.125000
G01 X110.201390 Y146.408254 Z-0.125000
G01 X95.143762 Y152.431287 Z-0.125000
G01 X87.360757 Y154.699460 Z-0.125000
G01 X81.223621 Y155.515320 Z-0.125000
G01 X78.664932 Y155.355322 Z-0.125000
G01 X76.571632 Y154.803857 Z-0.125000
G01 X75.033244 Y153.896661 Z-0.125000
G01 X74.205683 Y152.701759 Z-0.125000
G01 X74.214753 Y151.607808 Z-0.125000
G01 X74.918143 Y150.468869 Z-0.125000
G01 X76.348506 Y149.305804 Z-0.125000
G01 X78.505932 Y148.105461 Z-0.125000
G01 X93.869496 Y141.648874 Z-0.125000
G01 X109.262992 Y134.726989 Z-0.125000
G01 X117.017698 Y131.732661 Z-0.125000
G01 X126.142813 Y129.062862 Z-0.125000
G01 X135.189109 Y127.384249 Z-0.125000
G01 X142.495749 Y127.007838 Z-0.125000
G01 X144.644831 Y127.387242 Z-0.125000
G01 X145.601732 Y128.133716 Z-0.125000
G01 X145.368175 Y129.221771 Z-0.125000
G01 X143.872145 Y130.626556 Z-0.125000
G01 X136.895657 Y134.479828 Z-0.125000
G01 X109.411742 Y146.995456 Z-0.125000
G01 X94.189854 Y153.039804 Z-0.125000
G01 X86.174834 Y155.315232 Z-0.125000
G01 X80.032982 Y156.038032 Z-0.125000
G01 X77.415065 Y155.811551 Z-0.125000
G01 X75.269430 Y155.173466 Z-0.125000
G01 X73.682245 Y154.165953 Z-0.125000
G01 X72.814594 Y152.867561 Z-0.125000
G01 X72.810059 Y151.698873 Z-0.125000
G01 X73.528052 Y150.501613 Z-0.125000
G01 X74.927939 Y149.351608 Z-0.125000
G01 X77.029765 Y148.183917 Z-0.125000
G01 X93.108420 Y141.594181 Z-0.125000
G01 X109.967743 Y134.022148 Z-0.125000
G01 X117.593743 Y131.112353 Z-0.125000
G01 X127.115224 Y128.396841 Z-0.125000
G01 X136.402332 Y126.760767 Z-0.125000
G01 X140.656958 Y126.403766 Z-0.125000
G01 X144.094363 Y126.428256 Z-0.125000
G01 X146.352468 Y126.842489 Z-0.125000
G01 X147.353540 Y127.630141 Z-0.125000
G01 X147.106560 Y128.763910 Z-0.125000
G01 X145.694429 Y130.099399 Z-0.125000
G01 X138.693180 Y133.952671 Z-0.125000
G01 X108.785811 Y147.518531 Z-0.125000
G01 X100.119283 Y151.126002 Z-0.125000
G01 X93.207375 Y153.664102 Z-0.125000
G01 X84.974400 Y155.934995 Z-0.125000
G01 X81.675314 Y156.439386 Z-0.125000
G01 X78.729965 Y156.552763 Z-0.125000
G01 X76.176445 Y156.257076 Z-0.125000
G01 X73.982739 Y155.525569 Z-0.125000
G01 X72.348298 Y154.410938 Z-0.125000
G01 X71.439559 Y153.002525 Z-0.125000
G01 X71.418607 Y151.755017 Z-0.125000
G01 X72.100229 Y150.551680 Z-0.125000
G01 X73.430911 Y149.416551 Z-0.125000
G01 X75.547702 Y148.229268 Z-0.125000
G01 X92.551785 Y141.436451 Z-0.125000
G01 X110.717481 Y133.283475 Z-0.125000
G01 X118.406157 Y130.398986 Z-0.125000
G01 X128.096524 Y127.723926 Z-0.125000
G01 X137.796686 Y126.120959 Z-0.125000
G01 X142.234348 Y125.800510 Z-0.125000
G01 X145.803089 Y125.870713 Z-0.125000
G01 X148.060196 Y126.312339 Z-0.125000
G01 X149.105258 Y127.142348 Z-0.125000
G01 X148.878505 Y128.271945 Z-0.125000
G01 X147.444060 Y129.640268 Z-0.125000
G01 X140.528615 Y133.420253 Z-0.125000
G01 X107.853400 Y148.182557 Z-0.125000
G01 X99.109140 Y151.798553 Z-0.125000
G01 X91.987531 Y154.373478 Z-0.125000
G01 X83.760723 Y156.558750 Z-0.125000
G01 X80.408940 Y157.015613 Z-0.125000
G01 X77.429577 Y157.057245 Z-0.125000
G01 X74.852657 Y156.667954 Z-0.125000
G01 X72.637908 Y155.821074 Z-0.125000
G01 X70.935622 Y154.529576 Z-0.125000
G01 X70.064071 Y153.049690 Z-0.125000
G01 X70.041396 Y151.776150 Z-0.125000
G01 X70.730818 Y150.511953 Z-0.125000
G01 X72.099594 Y149.338547 Z-0.125000
G01 X74.176477 Y148.185369 Z-0.125000
G01 X90.904373 Y141.717535 Z-0.125000
G01 X109.884025 Y133.192864 Z-0.125000
G01 X119.008868 Y129.742126 Z-0.125000
G01 X128.856330 Y127.093279 Z-0.125000
G01 X139.006100 Y125.506365 Z-0.125000
G01 X143.661445 Y125.212855 Z-0.125000
G01 X147.404515 Y125.317888 Z-0.125000
G01 X149.766926 Y125.797699 Z-0.125000
G01 X150.855707 Y126.671154 Z-0.125000
G01 X150.650359 Y127.793404 Z-0.125000
G01 X149.281764 Y129.131342 Z-0.125000
G01 X142.583186 Y132.797678 Z-0.125000
G01 X107.106564 Y148.775835 Z-0.125000
G01 X98.293190 Y152.404349 Z-0.125000
G01 X90.945461 Y155.031064 Z-0.125000
G01 X82.535981 Y157.186223 Z-0.125000
G01 X79.139754 Y157.588574 Z-0.125000
G01 X76.253904 Y157.561908 Z-0.125000
G01 X73.637620 Y157.089535 Z-0.125000
G01 X71.383143 Y156.135264 Z-0.125000
G01 X69.634962 Y154.717781 Z-0.125000
G01 X68.721870 Y153.119349 Z-0.125000
G01 X68.679241 Y151.762182 Z-0.125000
G01 X69.325035 Y150.493450 Z-0.125000
G01 X70.694175 Y149.278412 Z-0.125000
G01 X72.806431 Y148.105007 Z-0.125000
G01 X90.552180 Y141.440261 Z-0.125000
G01 X110.187512 Y132.604574 Z-0.125000
G01 X119.619743 Y129.067578 Z-0.125000
G01 X129.844614 Y126.407485 Z-0.125000
G01 X140.207532 Y124.896307 Z-0.125000
G01 X145.083100 Y124.634905 Z-0.125000
G01 X149.002766 Y124.778939 Z-0.125000
G01 X151.470935 Y125.299385 Z-0.125000
G01 X152.603071 Y126.217375 Z-0.125000
G01 X152.387564 Y127.381075 Z-0.125000
G01 X151.040828 Y128.694977 Z-0.125000
G01 X144.491182 Y132.259636 Z-0.125000
G01 X106.306486 Y149.403218 Z-0.125000
G01 X97.196064 Y153.129235 Z-0.125000
G01 X89.879084 Y155.705067 Z-0.125000
G01 X81.471599 Y157.790567 Z-0.125000
G01 X78.013967 Y158.152647 Z-0.125000
G01 X75.087211 Y158.063034 Z-0.125000
G01 X72.338321 Y157.468667 Z-0.125000
G01 X70.070692 Y156.383968 Z-0.125000
G01 X68.304281 Y154.821362 Z-0.125000
G01 X67.379851 Y153.092592 Z-0.125000
G01 X67.332868 Y151.713022 Z-0.125000
G01 X67.979660 Y150.380073 Z-0.125000
G01 X69.295920 Y149.181997 Z-0.125000
G01 X71.438380 Y147.987367 Z-0.125000
G01 X89.991191 Y141.232554 Z-0.125000
G01 X110.750043 Y131.886581 Z-0.125000
G01 X120.238055 Y128.375254 Z-0.125000
G01 X130.839609 Y125.716067 Z-0.125000
G01 X141.612770 Y124.275093 Z-0.125000
G01 X146.673370 Y124.067023 Z-0.125000
G01 X150.596028 Y124.254503 Z-0.125000
G01 X153.170590 Y124.818122 Z-0.125000
G01 X154.345719 Y125.781917 Z-0.125000
G01 X154.154067 Y126.933100 Z-0.125000
G01 X152.884971 Y128.209179 Z-0.125000
G01 X146.616500 Y131.635157 Z-0.125000
G01 X105.454527 Y150.065157 Z-0.125000
G01 X96.311543 Y153.783556 Z-0.125000
G01 X88.790121 Y156.395578 Z-0.125000
G01 X80.232616 Y158.427473 Z-0.125000
G01 X76.746141 Y158.721890 Z-0.125000
G01 X73.808138 Y158.543571 Z-0.125000
G01 X71.152671 Y157.867300 Z-0.125000
G01 X68.852843 Y156.661061 Z-0.125000
G01 X67.042895 Y154.957415 Z-0.125000
G01 X66.073749 Y153.096673 Z-0.125000
G01 X66.003002 Y151.628670 Z-0.125000
G01 X66.647618 Y150.228420 Z-0.125000
G01 X67.990453 Y148.989347 Z-0.125000
G01 X70.072960 Y147.831633 Z-0.125000
G01 X89.685436 Y140.906210 Z-0.125000
G01 X110.830495 Y131.353347 Z-0.125000
G01 X120.602040 Y127.745604 Z-0.125000
G01 X131.323139 Y125.113991 Z-0.125000
G01 X142.580374 Y123.691791 Z-0.125000
G01 X147.904371 Y123.511205 Z-0.125000
G01 X152.182760 Y123.745305 Z-0.125000
G01 X154.864259 Y124.354638 Z-0.125000
G01 X156.081655 Y125.365234 Z-0.125000
G01 X155.914401 Y126.501180 Z-0.125000
G01 X154.644853 Y127.799934 Z-0.125000
G01 X148.582092 Y131.101378 Z-0.125000
G01 X104.839208 Y150.639388 Z-0.125000
G01 X95.664570 Y154.361143 Z-0.125000
G01 X87.911587 Y157.032574 Z-0.125000
G01 X83.124543 Y158.319447 Z-0.125000
G01 X79.162339 Y159.045513 Z-0.125000
G01 X75.627973 Y159.288411 Z-0.125000
G01 X72.661944 Y159.035626 Z-0.125000
G01 X69.984072 Y158.257317 Z-0.125000
G01 X67.655765 Y156.922825 Z-0.125000
G01 X65.803187 Y155.070610 Z-0.125000
G01 X64.767738 Y152.995269 Z-0.125000
G01 X64.703159 Y151.436836 Z-0.125000
G01 X65.329544 Y150.038400 Z-0.125000
G01 X66.609614 Y148.818102 Z-0.125000
G01 X68.710986 Y147.637169 Z-0.125000
G01 X89.407889 Y140.553109 Z-0.125000
G01 X96.099665 Y137.713427 Z-0.125000
G01 X111.168540 Y130.689412 Z-0.125000
G01 X121.224162 Y127.018541 Z-0.125000
G01 X126.632692 Y125.566954 Z-0.125000
G01 X132.309971 Y124.410510 Z-0.125000
G01 X143.749063 Y123.097969 Z-0.125000
G01 X149.300811 Y122.966361 Z-0.125000
G01 X153.761329 Y123.252070 Z-0.125000
G01 X156.549947 Y123.909566 Z-0.125000
G01 X157.809246 Y124.968415 Z-0.125000
G01 X157.666664 Y126.086039 Z-0.125000
G01 X156.485095 Y127.341982 Z-0.125000
G01 X150.758656 Y130.486331 Z-0.125000
G01 X103.897001 Y151.368266 Z-0.125000
G01 X94.459056 Y155.163307 Z-0.125000
G01 X86.786979 Y157.756644 Z-0.125000
G01 X82.124559 Y158.973949 Z-0.125000
G01 X78.092514 Y159.671897 Z-0.125000
G01 X74.516426 Y159.858198 Z-0.125000
G01 X71.528447 Y159.525596 Z-0.125000
G01 X68.732664 Y158.591642 Z-0.125000
G01 X66.401091 Y157.104410 Z-0.125000
G01 X64.531915 Y155.083943 Z-0.125000
G01 X63.480321 Y152.854047 Z-0.125000
G01 X63.407125 Y151.278652 Z-0.125000
G01 X64.025891 Y149.809923 Z-0.125000
G01 X65.325099 Y148.546814 Z-0.125000
G01 X67.353366 Y147.403612 Z-0.125000
G01 X88.896333 Y140.274747 Z-0.125000
G01 X96.061751 Y137.247765 Z-0.125000
G01 X111.516652 Y129.999264 Z-0.125000
G01 X121.851272 Y126.273609 Z-0.125000
G01 X127.430775 Y124.829460 Z-0.125000
G01 X133.022703 Y123.747935 Z-0.125000
G01 X139.029501 Y122.950760 Z-0.125000
G01 X145.145594 Y122.499339 Z-0.125000
G01 X150.884640 Y122.438841 Z-0.125000
G01 X155.471143 Y122.795933 Z-0.125000
G01 X158.305021 Y123.518189 Z-0.125000
G01 X159.526589 Y124.591913 Z-0.125000
G01 X159.408677 Y125.688494 Z-0.125000
G01 X158.318445 Y126.899268 Z-0.125000
G01 X156.169454 Y128.283101 Z-0.125000
G01 X152.763794 Y129.967156 Z-0.125000
G01 X133.670312 Y138.260538 Z-0.125000
G01 X103.212567 Y152.003267 Z-0.125000
G01 X93.493811 Y155.889463 Z-0.125000
G01 X85.644503 Y158.497676 Z-0.125000
G01 X80.910701 Y159.685775 Z-0.125000
G01 X76.845460 Y160.325401 Z-0.125000
G01 X73.412771 Y160.431885 Z-0.125000
G01 X70.408828 Y160.014023 Z-0.125000
G01 X67.600891 Y158.960979 Z-0.125000
G01 X65.247459 Y157.331436 Z-0.125000
G01 X63.281504 Y155.063535 Z-0.125000
G01 X62.212042 Y152.672735 Z-0.125000
G01 X62.141839 Y151.005006 Z-0.125000
G01 X62.787906 Y149.470337 Z-0.125000
G01 X64.052648 Y148.235254 Z-0.125000
G01 X66.129168 Y147.072280 Z-0.125000
G01 X70.010013 Y145.671939 Z-0.125000
G01 X82.309499 Y142.097484 Z-0.125000
G01 X88.666858 Y139.869220 Z-0.125000
G01 X95.773683 Y136.878882 Z-0.125000
G01 X111.874016 Y129.282450 Z-0.125000
G01 X122.197298 Y125.592895 Z-0.125000
G01 X127.942694 Y124.143303 Z-0.125000
G01 X133.719200 Y123.078649 Z-0.125000
G01 X139.942412 Y122.318752 Z-0.125000
G01 X146.043720 Y121.929008 Z-0.125000
G01 X152.057411 Y121.913588 Z-0.125000
G01 X156.887175 Y122.315940 Z-0.125000
G01 X159.890937 Y123.077833 Z-0.125000
G01 X160.757227 Y123.590840 Z-0.125000
G01 X161.231958 Y124.236454 Z-0.125000
G01 X161.109239 Y125.367139 Z-0.125000
G01 X160.062272 Y126.538095 Z-0.125000
G01 X154.781268 Y129.458774 Z-0.125000
G01 X134.341775 Y138.255006 Z-0.125000
G01 X102.500288 Y152.667474 Z-0.125000
G01 X92.792507 Y156.534804 Z-0.125000
G01 X84.485972 Y159.255577 Z-0.125000
G01 X79.688589 Y160.408031 Z-0.125000
G01 X75.598858 Y160.982080 Z-0.125000
G01 X72.168437 Y160.998497 Z-0.125000
G01 X69.180276 Y160.465989 Z-0.125000
G01 X66.388665 Y159.264194 Z-0.125000
G01 X64.036684 Y157.467216 Z-0.125000
G01 X62.052589 Y155.009205 Z-0.125000
G01 X60.963173 Y152.451241 Z-0.125000
G01 X60.894694 Y150.688458 Z-0.125000
G01 X61.514548 Y149.162133 Z-0.125000
G01 X62.792623 Y147.883151 Z-0.125000
G01 X64.783521 Y146.758725 Z-0.125000
G01 X68.725589 Y145.361196 Z-0.125000
G01 X81.625701 Y141.783747 Z-0.125000
G01 X88.186956 Y139.541334 Z-0.125000
G01 X95.777039 Y136.359707 Z-0.125000
G01 X111.960092 Y128.657698 Z-0.125000
G01 X117.326174 Y126.556780 Z-0.125000
G01 X122.823501 Y124.812771 Z-0.125000
G01 X128.439103 Y123.444811 Z-0.125000
G01 X134.398282 Y122.402651 Z-0.125000
G01 X140.837726 Y121.686835 Z-0.125000
G01 X147.166695 Y121.354595 Z-0.125000
G01 X153.414396 Y121.406748 Z-0.125000
G01 X158.431096 Y121.874315 Z-0.125000
G01 X161.542702 Y122.692261 Z-0.125000
G01 X162.436021 Y123.231118 Z-0.125000
G01 X162.923451 Y123.902763 Z-0.125000
G01 X162.825946 Y125.007961 Z-0.125000
G01 X161.795940 Y126.195425 Z-0.125000
G01 X156.806632 Y128.963544 Z-0.125000
G01 X135.336227 Y138.112423 Z-0.125000
G01 X101.761434 Y153.361522 Z-0.125000
G01 X91.787625 Y157.308851 Z-0.125000
G01 X83.563175 Y159.962142 Z-0.125000
G01 X78.674455 Y161.101353 Z-0.125000
G01 X74.534113 Y161.631412 Z-0.125000
G01 X71.083647 Y161.577445 Z-0.125000
G01 X68.092130 Y160.948067 Z-0.125000
G01 X65.298796 Y159.614120 Z-0.125000
G01 X62.849311 Y157.576783 Z-0.125000
G01 X60.845624 Y154.920771 Z-0.125000
G01 X59.733987 Y152.189386 Z-0.125000
G01 X59.665870 Y150.328826 Z-0.125000
G01 X60.256790 Y148.815744 Z-0.125000
G01 X61.545477 Y147.490776 Z-0.125000
G01 X63.577009 Y146.345670 Z-0.125000
G01 X67.629643 Y144.955579 Z-0.125000
G01 X80.953512 Y141.440986 Z-0.125000
G01 X88.006551 Y139.081296 Z-0.125000
G01 X95.804341 Y135.810691 Z-0.125000
G01 X112.327524 Y127.889094 Z-0.125000
G01 X117.814964 Y125.759785 Z-0.125000
G01 X123.151568 Y124.097136 Z-0.125000
G01 X128.919186 Y122.733530 Z-0.125000
G01 X135.059133 Y121.719850 Z-0.125000
G01 X141.417399 Y121.076141 Z-0.125000
G01 X148.271621 Y120.787348 Z-0.125000
G01 X154.754873 Y120.913604 Z-0.125000
G01 X159.959960 Y121.451011 Z-0.125000
G01 X163.179501 Y122.327731 Z-0.125000
G01 X164.099668 Y122.893255 Z-0.125000
G01 X164.599251 Y123.591294 Z-0.125000
G01 X164.526327 Y124.668465 Z-0.125000
G01 X163.596093 Y125.805408 Z-0.125000
G01 X161.710681 Y127.063438 Z-0.125000
G01 X158.834899 Y128.483552 Z-0.125000
G01 X136.339748 Y137.972380 Z-0.125000
G01 X100.997364 Y154.085864 Z-0.125000
G01 X90.761609 Y158.107931 Z-0.125000
G01 X82.381698 Y160.754964 Z-0.125000
G01 X77.660685 Y161.809097 Z-0.125000
G01 X73.475173 Y162.290812 Z-0.125000
G01 X70.010648 Y162.161472 Z-0.125000
G01 X67.021671 Y161.430055 Z-0.125000
G01 X64.231874 Y159.957970 Z-0.125000
G01 X61.686155 Y157.660138 Z-0.125000
G01 X59.604556 Y154.694743 Z-0.125000
G01 X58.504619 Y151.785402 Z-0.125000
G01 X58.455458 Y149.926293 Z-0.125000
G01 X59.067512 Y148.349448 Z-0.125000
G01 X60.311392 Y147.057858 Z-0.125000
G01 X62.381291 Y145.891437 Z-0.125000
G01 X66.543039 Y144.510144 Z-0.125000
G01 X80.293114 Y141.068475 Z-0.125000
G01 X87.559302 Y138.701710 Z-0.125000
G01 X95.560081 Y135.368249 Z-0.125000
G01 X112.701849 Y127.092825 Z-0.125000
G01 X118.307383 Y124.939844 Z-0.125000
G01 X123.773690 Y123.281911 Z-0.125000
G01 X129.696951 Y121.949778 Z-0.125000
G01 X135.700665 Y121.030156 Z-0.125000
G01 X142.263735 Y120.441866 Z-0.125000
G01 X149.357046 Y120.227720 Z-0.125000
G01 X156.077483 Y120.434700 Z-0.125000
G01 X161.472227 Y121.046663 Z-0.125000
G01 X164.799793 Y121.984880 Z-0.125000
G01 X165.746263 Y122.577705 Z-0.125000
G01 X166.257547 Y123.302591 Z-0.125000
G01 X166.181902 Y124.410510 Z-0.125000
G01 X165.302188 Y125.501105 Z-0.125000
G01 X160.861443 Y128.020974 Z-0.125000
G01 X137.351432 Y137.835239 Z-0.125000
G01 X100.209350 Y154.840863 Z-0.125000
G01 X90.025657 Y158.822568 Z-0.125000
G01 X81.447926 Y161.498353 Z-0.125000
G01 X76.648456 Y162.531988 Z-0.125000
G01 X72.423217 Y162.960643 Z-0.125000
G01 X68.950801 Y162.751032 Z-0.125000
G01 X65.970168 Y161.912406 Z-0.125000
G01 X63.188716 Y160.296377 Z-0.125000
G01 X60.629936 Y157.816326 Z-0.125000
G01 X58.441853 Y154.531118 Z-0.125000
G01 X57.314887 Y151.437199 Z-0.125000
G01 X57.263459 Y149.480677 Z-0.125000
G01 X57.896011 Y147.839252 Z-0.125000
G01 X59.186150 Y146.512833 Z-0.125000
G01 X61.196639 Y145.395753 Z-0.125000
G01 X65.466049 Y144.024528 Z-0.125000
G01 X79.644689 Y140.665761 Z-0.125000
G01 X87.124479 Y138.296093 Z-0.125000
G01 X95.326072 Y134.902315 Z-0.125000
G01 X112.785748 Y126.394877 Z-0.125000
G01 X118.497040 Y124.200536 Z-0.125000
G01 X124.081168 Y122.530631 Z-0.125000
G01 X130.150640 Y121.213917 Z-0.125000
G01 X136.322061 Y120.333568 Z-0.125000
G01 X143.088665 Y119.807862 Z-0.125000
G01 X150.421428 Y119.676073 Z-0.125000
G01 X157.380410 Y119.970399 Z-0.125000
G01 X162.966171 Y120.661817 Z-0.125000
G01 X166.401672 Y121.664069 Z-0.125000
G01 X167.374173 Y122.285011 Z-0.125000
G01 X167.896705 Y123.037199 Z-0.125000
G01 X167.845277 Y124.113009 Z-0.125000
G01 X166.991413 Y125.217572 Z-0.125000
G01 X162.698057 Y127.659800 Z-0.125000
G01 X138.370645 Y137.701273 Z-0.125000
G01 X99.398750 Y155.626882 Z-0.125000
G01 X88.968350 Y159.671262 Z-0.125000
G01 X80.250122 Y162.326549 Z-0.125000
G01 X75.416820 Y163.303676 Z-0.125000
G01 X71.379696 Y163.641267 Z-0.125000
G01 X67.905194 Y163.346487 Z-0.125000
G01 X64.938711 Y162.395573 Z-0.125000
G01 X62.070094 Y160.545988 Z-0.125000
G01 X59.435942 Y157.748300 Z-0.125000
G01 X57.244321 Y154.214932 Z-0.125000
G01 X56.125518 Y150.935257 Z-0.125000
G01 X56.107106 Y148.890663 Z-0.125000
G01 X56.742470 Y147.285156 Z-0.125000
G01 X57.980001 Y145.997739 Z-0.125000
G01 X60.023234 Y144.858800 Z-0.125000
G01 X64.398583 Y143.498459 Z-0.125000
G01 X79.008328 Y140.232208 Z-0.125000
G01 X87.014458 Y137.752519 Z-0.125000
G01 X95.410515 Y134.269037 Z-0.125000
G01 X113.166150 Y125.544823 Z-0.125000
G01 X118.987735 Y123.335062 Z-0.125000
G01 X124.696034 Y121.680939 Z-0.125000
G01 X130.917159 Y120.409939 Z-0.125000
G01 X137.256831 Y119.597979 Z-0.125000
G01 X144.217899 Y119.163247 Z-0.125000
G01 X151.763266 Y119.140209 Z-0.125000
G01 X158.910544 Y119.543740 Z-0.125000
G01 X164.614580 Y120.332208 Z-0.125000
G01 X168.078380 Y121.413097 Z-0.125000
G01 X169.037820 Y122.068688 Z-0.125000
G01 X169.515001 Y122.795660 Z-0.125000
G01 X169.486339 Y123.836823 Z-0.125000
G01 X168.734877 Y124.887418 Z-0.125000
G01 X167.160571 Y126.008942 Z-0.125000
G01 X164.709454 Y127.236134 Z-0.125000
G01 X139.396479 Y137.570663 Z-0.125000
G01 X108.941727 Y151.857237 Z-0.125000
G01 X98.927647 Y156.293176 Z-0.125000
G01 X88.218430 Y160.433246 Z-0.125000
G01 X79.310908 Y163.107851 Z-0.125000
G01 X74.409308 Y164.055591 Z-0.125000
G01 X70.345699 Y164.333229 Z-0.125000
G01 X66.875097 Y163.948473 Z-0.125000
G01 X63.928478 Y162.880009 Z-0.125000
G01 X61.078001 Y160.868703 Z-0.125000
G01 X58.350154 Y157.753198 Z-0.125000
G01 X56.068286 Y153.849133 Z-0.125000
G01 X54.956467 Y150.381343 Z-0.125000
G01 X54.952838 Y148.354980 Z-0.125000
G01 X55.606978 Y146.687343 Z-0.125000
G01 X56.888046 Y145.367364 Z-0.125000
G01 X58.861529 Y144.280578 Z-0.125000
G01 X63.341276 Y142.931756 Z-0.125000
G01 X78.384573 Y139.767453 Z-0.125000
G01 X86.613648 Y137.292663 Z-0.125000
G01 X95.203987 Y133.751676 Z-0.125000
G01 X113.244969 Y124.797080 Z-0.125000
G01 X119.162335 Y122.551401 Z-0.125000
G01 X124.980564 Y120.893741 Z-0.125000
G01 X131.341460 Y119.649860 Z-0.125000
G01 X137.844577 Y118.890961 Z-0.125000
G01 X145.007183 Y118.534232 Z-0.125000
G01 X152.482166 Y118.597995 Z-0.125000
G01 X160.178460 Y119.113905 Z-0.125000
G01 X166.072969 Y119.990535 Z-0.125000
G01 X169.641620 Y121.140358 Z-0.125000
G01 X170.624734 Y121.825245 Z-0.125000
G01 X171.110984 Y122.578249 Z-0.125000
G01 X171.080781 Y123.647075 Z-0.125000
G01 X170.310906 Y124.714723 Z-0.125000
G01 X166.527112 Y126.914869 Z-0.125000
G01 X150.098621 Y133.356490 Z-0.125000
G01 X140.428209 Y137.443862 Z-0.125000
G01 X108.739100 Y152.411696 Z-0.125000
G01 X98.455727 Y156.983686 Z-0.125000
G01 X87.467784 Y161.218448 Z-0.125000
G01 X78.373780 Y163.908836 Z-0.125000
G01 X73.407873 Y164.823470 Z-0.125000
G01 X69.322859 Y165.036891 Z-0.125000
G01 X65.862143 Y164.557080 Z-0.125000
G01 X62.940920 Y163.366260 Z-0.125000
G01 X60.014073 Y161.089290 Z-0.125000
G01 X57.291758 Y157.731883 Z-0.125000
G01 X54.972702 Y153.567323 Z-0.125000
G01 X53.825600 Y149.899990 Z-0.125000
G01 X53.798843 Y147.887323 Z-0.125000
G01 X54.429219 Y146.139778 Z-0.125000
G01 X55.710287 Y144.770638 Z-0.125000
G01 X57.710890 Y143.661268 Z-0.125000
G01 X62.293311 Y142.324419 Z-0.125000
G01 X77.772610 Y139.271044 Z-0.125000
G01 X86.225355 Y136.805596 Z-0.125000
G01 X95.327704 Y133.058717 Z-0.125000
G01 X113.317984 Y124.025301 Z-0.125000
G01 X119.325688 Y121.745791 Z-0.125000
G01 X125.248950 Y120.088221 Z-0.125000
G01 X131.398240 Y118.927241 Z-0.125000
G01 X138.056455 Y118.202627 Z-0.125000
G01 X145.424864 Y117.909208 Z-0.125000
G01 X153.475529 Y118.072289 Z-0.125000
G01 X161.422069 Y118.700216 Z-0.125000
G01 X167.507867 Y119.669905 Z-0.125000
G01 X171.181097 Y120.890929 Z-0.125000
G01 X172.187520 Y121.605929 Z-0.125000
G01 X172.682297 Y122.385327 Z-0.125000
G01 X172.650824 Y123.481817 Z-0.125000
G01 X171.936731 Y124.496495 Z-0.125000
G01 X168.329804 Y126.615010 Z-0.125000
G01 X151.378964 Y133.150597 Z-0.125000
G01 X141.464111 Y137.321052 Z-0.125000
G01 X108.535022 Y152.989646 Z-0.125000
G01 X97.603586 Y157.858230 Z-0.125000
G01 X86.377371 Y162.142969 Z-0.125000
G01 X77.165092 Y164.791543 Z-0.125000
G01 X72.186486 Y165.632165 Z-0.125000
G01 X68.129227 Y165.741279 Z-0.125000
G01 X64.721299 Y165.127865 Z-0.125000
G01 X61.858488 Y163.779133 Z-0.125000
G01 X58.979078 Y161.291463 Z-0.125000
G01 X56.176946 Y157.552838 Z-0.125000
G01 X53.780249 Y152.967152 Z-0.125000
G01 X52.678952 Y149.117599 Z-0.125000
G01 X52.719042 Y147.041623 Z-0.125000
G01 X53.388691 Y145.361922 Z-0.125000
G01 X54.650712 Y144.055820 Z-0.125000
G01 X56.723967 Y142.939012 Z-0.125000
G01 X61.255142 Y141.676447 Z-0.125000
G01 X77.172892 Y138.742798 Z-0.125000
G01 X86.186354 Y136.175583 Z-0.125000
G01 X95.147843 Y132.488386 Z-0.125000
G01 X108.398697 Y125.580922 Z-0.125000
G01 X113.700381 Y123.093887 Z-0.125000
G01 X119.805499 Y120.812019 Z-0.125000
G01 X125.843408 Y119.187736 Z-0.125000
G01 X132.128840 Y118.090702 Z-0.125000
G01 X138.949774 Y117.457605 Z-0.125000
G01 X146.509744 Y117.280102 Z-0.125000
G01 X154.442588 Y117.555835 Z-0.125000
G01 X162.640099 Y118.303215 Z-0.125000
G01 X168.918003 Y119.370590 Z-0.125000
G01 X172.695721 Y120.665354 Z-0.125000
G01 X173.724911 Y121.411102 Z-0.125000
G01 X174.227760 Y122.217257 Z-0.125000
G01 X174.218327 Y123.273748 Z-0.125000
G01 X173.537431 Y124.301124 Z-0.125000
G01 X170.114810 Y126.337645 Z-0.125000
G01 X153.023835 Y132.808108 Z-0.125000
G01 X142.503459 Y137.202687 Z-0.125000
G01 X108.330943 Y153.591450 Z-0.125000
G01 X97.123050 Y158.602617 Z-0.125000
G01 X85.620195 Y162.977423 Z-0.125000
G01 X76.230685 Y165.631802 Z-0.125000
G01 X71.426136 Y166.408751 Z-0.125000
G01 X67.314092 Y166.480315 Z-0.125000
G01 X63.890474 Y165.795972 Z-0.125000
G01 X61.036460 Y164.345655 Z-0.125000
G01 X58.071428 Y161.590053 Z-0.125000
G01 X55.172518 Y157.471025 Z-0.125000
G01 X52.666979 Y152.450062 Z-0.125000
G01 X51.569582 Y148.407859 Z-0.125000
G01 X51.619286 Y146.374241 Z-0.125000
G01 X52.306078 Y144.634858 Z-0.125000
G01 X53.609277 Y143.298735 Z-0.125000
G01 X55.599087 Y142.237799 Z-0.125000
G01 X60.226586 Y140.987932 Z-0.125000
G01 X76.585509 Y138.182354 Z-0.125000
G01 X85.832255 Y135.632553 Z-0.125000
G01 X94.978413 Y131.892749 Z-0.125000
G01 X108.717876 Y124.651504 Z-0.125000
G01 X113.766049 Y122.270680 Z-0.125000
G01 X119.950894 Y119.961057 Z-0.125000
G01 X126.085036 Y118.346208 Z-0.125000
G01 X132.491102 Y117.291440 Z-0.125000
G01 X139.465957 Y116.731449 Z-0.125000
G01 X147.221388 Y116.655350 Z-0.125000
G01 X155.382165 Y117.049086 Z-0.125000
G01 X163.831191 Y117.923176 Z-0.125000
G01 X170.302018 Y119.092953 Z-0.125000
G01 X174.183860 Y120.463816 Z-0.125000
G01 X175.235454 Y121.240946 Z-0.125000
G01 X175.745922 Y122.074311 Z-0.125000
G01 X175.756262 Y123.088082 Z-0.125000
G01 X175.240714 Y123.989020 Z-0.125000
G01 X172.538172 Y125.780647 Z-0.125000
G01 X153.929943 Y132.763665 Z-0.125000
G01 X143.126488 Y137.274159 Z-0.125000
G01 X100.673560 Y157.639277 Z-0.125000
G01 X86.298279 Y163.349752 Z-0.125000
G01 X80.127221 Y165.299472 Z-0.125000
G01 X75.022450 Y166.549701 Z-0.125000
G01 X70.219534 Y167.244928 Z-0.125000
G01 X66.149394 Y167.200394 Z-0.125000
G01 X62.934570 Y166.426710 Z-0.125000
G01 X60.121917 Y164.839615 Z-0.125000
G01 X57.097022 Y161.764018 Z-0.125000
G01 X54.110947 Y157.213070 Z-0.125000
G01 X51.573663 Y151.881636 Z-0.125000
G01 X50.479441 Y147.646330 Z-0.125000
G01 X50.560890 Y145.542599 Z-0.125000
G01 X51.240880 Y143.865347 Z-0.125000
G01 X52.474329 Y142.581104 Z-0.125000
G01 X54.485726 Y141.496405 Z-0.125000
G01 X59.207918 Y140.258964 Z-0.125000
G01 X76.010371 Y137.589529 Z-0.125000
G01 X85.491127 Y135.061496 Z-0.125000
G01 X95.156097 Y131.109813 Z-0.125000
G01 X108.726402 Y123.853421 Z-0.125000
G01 X113.825640 Y121.422712 Z-0.125000
G01 X120.084407 Y119.087511 Z-0.125000
G01 X126.309523 Y117.486085 Z-0.125000
G01 X132.831777 Y116.479117 Z-0.125000
G01 X139.956924 Y115.999034 Z-0.125000
G01 X147.905368 Y116.032412 Z-0.125000
G01 X156.293080 Y116.552313 Z-0.125000
G01 X164.993984 Y117.560461 Z-0.125000
G01 X171.658277 Y118.837266 Z-0.125000
G01 X175.644155 Y120.286676 Z-0.125000
G01 X176.717516 Y121.095824 Z-0.125000
G01 X177.235150 Y121.956581 Z-0.125000
G01 X177.262995 Y122.925182 Z-0.125000
G01 X176.780826 Y123.838909 Z-0.125000
G01 X174.108669 Y125.629629 Z-0.125000
G01 X155.197678 Y132.583804 Z-0.125000
G01 X144.159850 Y137.169399 Z-0.125000
G01 X99.880375 Y158.573139 Z-0.125000
G01 X85.579379 Y164.226020 Z-0.125000
G01 X79.281702 Y166.192882 Z-0.125000
G01 X74.096841 Y167.429596 Z-0.125000
G01 X69.251749 Y168.076570 Z-0.125000
G01 X65.183061 Y167.948590 Z-0.125000
G01 X61.999982 Y167.065430 Z-0.125000
G01 X59.233859 Y165.336841 Z-0.125000
G01 X56.154452 Y161.919843 Z-0.125000
G01 X52.989695 Y156.749404 Z-0.125000
G01 X50.439260 Y151.095254 Z-0.125000
G01 X49.408346 Y146.833463 Z-0.125000
G01 X49.496871 Y144.787237 Z-0.125000
G01 X50.192914 Y143.053931 Z-0.125000
G01 X51.465184 Y141.741753 Z-0.125000
G01 X53.383975 Y140.715465 Z-0.125000
G01 X58.198773 Y139.489906 Z-0.125000
G01 X75.802483 Y136.893939 Z-0.125000
G01 X85.522963 Y134.343685 Z-0.125000
G01 X95.013151 Y130.459756 Z-0.125000
G01 X108.733930 Y123.029942 Z-0.125000
G01 X113.879335 Y120.549891 Z-0.125000
G01 X120.205856 Y118.191380 Z-0.125000
G01 X126.516685 Y116.607188 Z-0.125000
G01 X132.774181 Y115.690831 Z-0.125000
G01 X140.034836 Y115.267255 Z-0.125000
G01 X148.175568 Y115.393058 Z-0.125000
G01 X157.174245 Y116.065609 Z-0.125000
G01 X166.127118 Y117.215432 Z-0.125000
G01 X172.985603 Y118.603891 Z-0.125000
G01 X177.075061 Y120.134025 Z-0.125000
G01 X178.169829 Y120.975735 Z-0.125000
G01 X178.693992 Y121.864428 Z-0.125000
G01 X178.721475 Y122.856430 Z-0.125000
G01 X178.231506 Y123.783490 Z-0.125000
G01 X175.654313 Y125.501830 Z-0.125000
G01 X156.849080 Y132.264897 Z-0.125000
G01 X145.193212 Y137.069718 Z-0.125000
G01 X133.543602 Y142.554801 Z-0.125000
G01 X109.055467 Y154.899638 Z-0.125000
G01 X99.073676 Y159.540652 Z-0.125000
G01 X84.865649 Y165.127139 Z-0.125000
G01 X78.442169 Y167.109511 Z-0.125000
G01 X73.179577 Y168.330262 Z-0.125000
G01 X68.296118 Y168.925446 Z-0.125000
G01 X64.413186 Y168.739508 Z-0.125000
G01 X61.227478 Y167.778979 Z-0.125000
G01 X58.484573 Y165.938645 Z-0.125000
G01 X55.339045 Y162.197390 Z-0.125000
G01 X51.977829 Y156.391224 Z-0.125000
G01 X49.322996 Y150.240846 Z-0.125000
G01 X48.346051 Y145.819148 Z-0.125000
G01 X48.506320 Y143.731743 Z-0.125000
G01 X49.234290 Y142.094763 Z-0.125000
G01 X50.473908 Y140.861585 Z-0.125000
G01 X52.458457 Y139.831307 Z-0.125000
G01 X57.445679 Y138.642120 Z-0.125000
G01 X74.896647 Y136.306284 Z-0.125000
G01 X80.045318 Y135.197004 Z-0.125000
G01 X85.215938 Y133.715849 Z-0.125000
G01 X89.941668 Y131.990071 Z-0.125000
G01 X94.880727 Y129.783848 Z-0.125000
G01 X108.740642 Y122.180886 Z-0.125000
G01 X114.255565 Y119.509001 Z-0.125000
G01 X120.660996 Y117.167632 Z-0.125000
G01 X127.071687 Y115.642759 Z-0.125000
G01 X133.446551 Y114.815017 Z-0.125000
G01 X140.860583 Y114.515974 Z-0.125000
G01 X149.186799 Y114.792886 Z-0.125000
G01 X158.393455 Y115.632147 Z-0.125000
G01 X167.534261 Y116.940879 Z-0.125000
G01 X174.492880 Y118.451784 Z-0.125000
G01 X178.475402 Y120.006045 Z-0.125000
G01 X179.590849 Y120.880952 Z-0.125000
G01 X180.121271 Y121.797672 Z-0.125000
G01 X180.148300 Y122.813257 Z-0.125000
G01 X179.710303 Y123.681270 Z-0.125000
G01 X177.327756 Y125.325144 Z-0.125000
G01 X158.108017 Y132.104355 Z-0.125000
G01 X146.225214 Y136.975570 Z-0.125000
G01 X134.346582 Y142.597975 Z-0.125000
G01 X108.891841 Y155.579173 Z-0.125000
G01 X98.688648 Y160.351251 Z-0.125000
G01 X84.158268 Y166.053111 Z-0.125000
G01 X77.609982 Y168.049360 Z-0.125000
G01 X72.271655 Y169.251790 Z-0.125000
G01 X67.353729 Y169.791464 Z-0.125000
G01 X63.480866 Y169.518361 Z-0.125000
G01 X60.336426 Y168.440283 Z-0.125000
G01 X57.649757 Y166.450474 Z-0.125000
G01 X54.461327 Y162.326004 Z-0.125000
G01 X50.814583 Y155.622982 Z-0.125000
G01 X48.283648 Y149.500812 Z-0.125000
G01 X47.313051 Y144.899435 Z-0.125000
G01 X47.477130 Y142.885680 Z-0.125000
G01 X48.222334 Y141.198269 Z-0.125000
G01 X49.500227 Y139.941056 Z-0.125000
G01 X51.381830 Y138.971819 Z-0.125000
G01 X56.461114 Y137.795602 Z-0.125000
G01 X74.731480 Y135.550287 Z-0.125000
G01 X80.013209 Y134.441189 Z-0.125000
G01 X84.921884 Y133.059714 Z-0.125000
G01 X90.105384 Y131.173939 Z-0.125000
G01 X95.109476 Y128.909304 Z-0.125000
G01 X109.070070 Y121.131923 Z-0.125000
G01 X114.299556 Y118.583936 Z-0.125000
G01 X120.761584 Y116.226241 Z-0.125000
G01 X127.248283 Y114.729032 Z-0.125000
G01 X133.719835 Y113.963420 Z-0.125000
G01 X141.272096 Y113.765782 Z-0.125000
G01 X149.782708 Y114.176660 Z-0.125000
G01 X159.221922 Y115.173106 Z-0.125000
G01 X168.923264 Y116.694987 Z-0.125000
G01 X175.763699 Y118.267207 Z-0.125000
G01 X179.843725 Y119.902736 Z-0.125000
G01 X180.979580 Y120.811384 Z-0.125000
G01 X181.515716 Y121.756584 Z-0.125000
G01 X181.557892 Y122.721467 Z-0.125000
G01 X181.154724 Y123.602813 Z-0.125000
G01 X178.817619 Y125.245871 Z-0.125000
G01 X159.356251 Y131.954970 Z-0.125000
G01 X146.799808 Y137.089945 Z-0.125000
G01 X134.682632 Y142.883140 Z-0.125000
G01 X108.733477 Y156.283017 Z-0.125000
G01 X97.867709 Y161.382618 Z-0.125000
G01 X90.034455 Y164.622294 Z-0.125000
G01 X83.065315 Y167.134998 Z-0.125000
G01 X76.786322 Y169.012610 Z-0.125000
G01 X71.374526 Y170.194269 Z-0.125000
G01 X66.657867 Y170.671177 Z-0.125000
G01 X62.746365 Y170.349278 Z-0.125000
G01 X59.605553 Y169.188299 Z-0.125000
G01 X56.951083 Y167.080668 Z-0.125000
G01 X53.710500 Y162.594027 Z-0.125000
G01 X49.757094 Y154.957868 Z-0.125000
G01 X47.201035 Y148.518334 Z-0.125000
G01 X46.297920 Y143.929654 Z-0.125000
G01 X46.497735 Y141.863293 Z-0.125000
G01 X47.226975 Y140.261504 Z-0.125000
G01 X48.544052 Y138.981071 Z-0.125000
G01 X50.488964 Y138.010021 Z-0.125000
G01 X55.485891 Y136.910174 Z-0.125000
G01 X74.213937 Y134.829935 Z-0.125000
G01 X79.623828 Y133.748320 Z-0.125000
G01 X84.640709 Y132.375190 Z-0.125000
G01 X89.922620 Y130.477261 Z-0.125000
G01 X95.002539 Y128.178432 Z-0.125000
G01 X109.076782 Y120.227901 Z-0.125000
G01 X114.337197 Y117.633929 Z-0.125000
G01 X120.849564 Y115.262175 Z-0.125000
G01 X127.406467 Y113.796893 Z-0.125000
G01 X133.969899 Y113.099035 Z-0.125000
G01 X141.656216 Y113.009785 Z-0.125000
G01 X150.347960 Y113.563155 Z-0.125000
G01 X160.017737 Y114.725222 Z-0.125000
G01 X169.977578 Y116.414810 Z-0.125000
G01 X177.219186 Y118.172151 Z-0.125000
G01 X181.178851 Y119.824279 Z-0.125000
G01 X182.334660 Y120.767121 Z-0.125000
G01 X182.875876 Y121.741074 Z-0.125000
G01 X182.917780 Y122.727997 Z-0.125000
G01 X182.509805 Y123.621407 Z-0.125000
G01 X180.277096 Y125.190906 Z-0.125000
G01 X160.592331 Y131.817285 Z-0.125000
G01 X147.816934 Y137.011488 Z-0.125000
G01 X135.488968 Y142.940645 Z-0.125000
G01 X109.052564 Y156.775073 Z-0.125000
G01 X97.489393 Y162.248999 Z-0.125000
G01 X89.919264 Y165.390990 Z-0.125000
G01 X82.366460 Y168.112307 Z-0.125000
G01 X75.623438 Y170.087876 Z-0.125000
G01 X70.196949 Y171.202597 Z-0.125000
G01 X65.513577 Y171.575471 Z-0.125000
G01 X61.674817 Y171.115252 Z-0.125000
G01 X58.761122 Y169.873548 Z-0.125000
G01 X56.172139 Y167.608641 Z-0.125000
G01 X52.807204 Y162.529539 Z-0.125000
G01 X48.536796 Y153.813578 Z-0.125000
G01 X46.076518 Y147.271551 Z-0.125000
G01 X45.298208 Y142.747451 Z-0.125000
G01 X45.538658 Y140.794375 Z-0.125000
G01 X46.329938 Y139.172723 Z-0.125000
G01 X47.605201 Y137.982175 Z-0.125000
G01 X49.437008 Y137.074707 Z-0.125000
G01 X54.519739 Y135.986380 Z-0.125000
G01 X73.708185 Y134.077476 Z-0.125000
G01 X79.247145 Y133.025338 Z-0.125000
G01 X84.372414 Y131.662458 Z-0.125000
G01 X89.752011 Y129.753735 Z-0.125000
G01 X94.905942 Y127.421618 Z-0.125000
G01 X109.082224 Y119.298301 Z-0.125000
G01 X114.704356 Y116.512133 Z-0.125000
G01 X120.924847 Y114.275615 Z-0.125000
G01 X127.546147 Y112.846522 Z-0.125000
G01 X134.196653 Y112.221770 Z-0.125000
G01 X141.593542 Y112.230840 Z-0.125000
G01 X150.459432 Y112.907020 Z-0.125000
G01 X160.382176 Y114.226455 Z-0.125000
G01 X170.670901 Y116.084929 Z-0.125000
G01 X178.205656 Y117.966803 Z-0.125000
G01 X182.479692 Y119.770765 Z-0.125000
G01 X183.654911 Y120.748346 Z-0.125000
G01 X184.200934 Y121.751233 Z-0.125000
G01 X184.242294 Y122.760196 Z-0.125000
G01 X183.884204 Y123.591385 Z-0.125000
G01 X181.704557 Y125.160702 Z-0.125000
G01 X161.814715 Y131.692208 Z-0.125000
G01 X148.828891 Y136.939471 Z-0.125000
G01 X135.810323 Y143.254472 Z-0.125000
G01 X108.437064 Y157.763991 Z-0.125000
G01 X96.659293 Y163.344129 Z-0.125000
G01 X88.943407 Y166.522854 Z-0.125000
G01 X81.271149 Y169.246166 Z-0.125000
G01 X74.814925 Y171.097474 Z-0.125000
G01 X69.321952 Y172.184713 Z-0.125000
G01 X64.617990 Y172.493733 Z-0.125000
G01 X60.977867 Y171.984082 Z-0.125000
G01 X58.074058 Y170.657754 Z-0.125000
G01 X55.629109 Y168.395295 Z-0.125000
G01 X52.215195 Y162.956652 Z-0.125000
G01 X47.508241 Y152.987015 Z-0.125000
G01 X45.083427 Y146.352473 Z-0.125000
G01 X44.319630 Y141.675359 Z-0.125000
G01 X44.599716 Y139.680017 Z-0.125000
G01 X45.369227 Y138.155234 Z-0.125000
G01 X46.683583 Y136.945548 Z-0.125000
G01 X48.576160 Y136.038442 Z-0.125000
G01 X53.834308 Y134.994196 Z-0.125000
G01 X73.213953 Y133.293180 Z-0.125000
G01 X78.882797 Y132.272697 Z-0.125000
G01 X84.514634 Y130.800612 Z-0.125000
G01 X89.593374 Y129.003634 Z-0.125000
G01 X94.819413 Y126.639137 Z-0.125000
G01 X109.414645 Y118.159997 Z-0.125000
G01 X114.730660 Y115.510697 Z-0.125000
G01 X120.987431 Y113.266742 Z-0.125000
G01 X127.667324 Y111.878193 Z-0.125000
G01 X134.399824 Y111.332170 Z-0.125000
G01 X141.914081 Y111.456975 Z-0.125000
G01 X150.952394 Y112.291792 Z-0.125000
G01 X161.100804 Y113.794534 Z-0.125000
G01 X171.983079 Y115.911507 Z-0.125000
G01 X179.603094 Y117.925625 Z-0.125000
G01 X183.745159 Y119.741741 Z-0.125000
G01 X184.939335 Y120.754423 Z-0.125000
G01 X185.489621 Y121.786516 Z-0.125000
G01 X185.530618 Y122.817701 Z-0.125000
G01 X185.169082 Y123.659502 Z-0.125000
G01 X183.098457 Y125.154988 Z-0.125000
G01 X163.021862 Y131.579738 Z-0.125000
G01 X149.355595 Y137.089401 Z-0.125000
G01 X136.617295 Y143.326398 Z-0.125000
G01 X108.789802 Y158.290876 Z-0.125000
G01 X96.292587 Y164.265928 Z-0.125000
G01 X88.413982 Y167.510956 Z-0.125000
G01 X80.585536 Y170.274177 Z-0.125000
G01 X74.018566 Y172.129930 Z-0.125000
G01 X68.461285 Y173.187328 Z-0.125000
G01 X63.972014 Y173.438571 Z-0.125000
G01 X60.301052 Y172.875768 Z-0.125000
G01 X57.408944 Y171.463001 Z-0.125000
G01 X55.005990 Y169.080545 Z-0.125000
G01 X51.564049 Y163.217600 Z-0.125000
G01 X46.399324 Y151.861410 Z-0.125000
G01 X44.047253 Y145.170541 Z-0.125000
G01 X43.358103 Y140.555377 Z-0.125000
G01 X43.635740 Y138.664251 Z-0.125000
G01 X44.424208 Y137.099559 Z-0.125000
G01 X45.643327 Y135.961165 Z-0.125000
G01 X47.547877 Y135.030114 Z-0.125000
G01 X52.891556 Y133.997658 Z-0.125000
G01 X66.267216 Y133.144792 Z-0.125000
G01 X72.731149 Y132.477048 Z-0.125000
G01 X78.530693 Y131.490125 Z-0.125000
G01 X84.279173 Y130.031826 Z-0.125000
G01 X89.834821 Y128.070315 Z-0.125000
G01 X95.109476 Y125.644050 Z-0.125000
G01 X109.418545 Y117.176068 Z-0.125000
G01 X114.750342 Y114.484501 Z-0.125000
G01 X121.037316 Y112.235466 Z-0.125000
G01 X127.769907 Y110.891633 Z-0.125000
G01 X134.579232 Y110.429962 Z-0.125000
G01 X142.206321 Y110.677668 Z-0.125000
G01 X151.413340 Y111.679375 Z-0.125000
G01 X162.201829 Y113.451501 Z-0.125000
G01 X173.272855 Y115.768652 Z-0.125000
G01 X180.741579 Y117.836828 Z-0.125000
G01 X184.974346 Y119.737297 Z-0.125000
G01 X186.187025 Y120.785534 Z-0.125000
G01 X186.741120 Y121.847013 Z-0.125000
G01 X186.781573 Y122.900239 Z-0.125000
G01 X186.361444 Y123.827209 Z-0.125000
G01 X185.464225 Y124.621935 Z-0.125000
G01 X183.998398 Y125.378204 Z-0.125000
G01 X162.909029 Y131.940004 Z-0.125000
G01 X154.670612 Y135.145849 Z-0.125000
G01 X146.423306 Y138.861254 Z-0.125000
G01 X135.408244 Y144.475677 Z-0.125000
G01 X109.668065 Y158.566518 Z-0.125000
G01 X95.938216 Y165.212852 Z-0.125000
G01 X87.896984 Y168.524182 Z-0.125000
G01 X79.912259 Y171.326677 Z-0.125000
G01 X73.235358 Y173.185514 Z-0.125000
G01 X67.615947 Y174.210713 Z-0.125000
G01 X63.112527 Y174.395925 Z-0.125000
G01 X59.469682 Y173.732444 Z-0.125000
G01 X56.765780 Y172.289746 Z-0.125000
G01 X54.408176 Y169.785114 Z-0.125000
G01 X51.037255 Y163.671108 Z-0.125000
G01 X45.298027 Y150.641837 Z-0.125000
G01 X43.025410 Y143.924031 Z-0.125000
G01 X42.413175 Y139.388502 Z-0.125000
G01 X42.782602 Y137.318966 Z-0.125000
G01 X43.786758 Y135.661940 Z-0.125000
G01 X45.336484 Y134.504861 Z-0.125000
G01 X47.725289 Y133.628322 Z-0.125000
G01 X52.534192 Y132.914048 Z-0.125000
G01 X66.043636 Y132.214013 Z-0.125000
G01 X73.104023 Y131.520691 Z-0.125000
G01 X80.301731 Y130.222481 Z-0.125000
G01 X86.914959 Y128.315754 Z-0.125000
G01 X91.651210 Y126.439230 Z-0.125000
G01 X96.147827 Y124.226839 Z-0.125000
G01 X109.091385 Y116.357940 Z-0.125000
G01 X114.423817 Y113.585830 Z-0.125000
G01 X121.074504 Y111.182059 Z-0.125000
G01 X127.853897 Y109.887295 Z-0.125000
G01 X134.734785 Y109.515600 Z-0.125000
G01 X142.470172 Y109.893191 Z-0.125000
G01 X151.841723 Y111.070043 Z-0.125000
G01 X162.859960 Y113.050510 Z-0.125000
G01 X174.193838 Y115.570651 Z-0.125000
G01 X181.843058 Y117.770979 Z-0.125000
G01 X186.166254 Y119.757342 Z-0.125000
G01 X187.397074 Y120.841406 Z-0.125000
G01 X187.954525 Y121.932454 Z-0.125000
G01 X187.994434 Y123.007811 Z-0.125000
G01 X187.570948 Y123.945211 Z-0.125000
G01 X185.326993 Y125.419020 Z-0.125000
G01 X164.063750 Y131.853747 Z-0.125000
G01 X156.191132 Y134.874288 Z-0.125000
G01 X147.851945 Y138.603753 Z-0.125000
G01 X136.193174 Y144.582433 Z-0.125000
G01 X109.577001 Y159.369952 Z-0.125000
G01 X95.597178 Y166.184628 Z-0.125000
G01 X87.393318 Y169.562261 Z-0.125000
G01 X79.252315 Y172.403304 Z-0.125000
G01 X72.466482 Y174.263864 Z-0.125000
G01 X66.787026 Y175.254506 Z-0.125000
G01 X62.272631 Y175.370331 Z-0.125000
G01 X58.834500 Y174.667123 Z-0.125000
G01 X56.145019 Y173.138440 Z-0.125000
G01 X53.932537 Y170.652493 Z-0.125000
G01 X50.721341 Y164.535947 Z-0.125000
G01 X44.107116 Y149.078597 Z-0.125000
G01 X42.017716 Y142.614210 Z-0.125000
G01 X41.555773 Y140.069217 Z-0.125000
G01 X41.495366 Y137.999318 Z-0.125000
G01 X41.963295 Y135.931233 Z-0.125000
G01 X42.989764 Y134.415067 Z-0.125000
G01 X44.641983 Y133.278123 Z-0.125000
G01 X46.948068 Y132.493646 Z-0.125000
G01 X51.919780 Y131.828441 Z-0.125000
G01 X65.435755 Y131.280967 Z-0.125000
G01 X72.662578 Y130.648506 Z-0.125000
G01 X79.587638 Y129.484805 Z-0.125000
G01 X86.342451 Y127.631320 Z-0.125000
G01 X91.168950 Y125.771939 Z-0.125000
G01 X95.736224 Y123.553744 Z-0.125000
G01 X109.092020 Y115.328025 Z-0.125000
G01 X114.429712 Y112.512650 Z-0.125000
G01 X120.735825 Y110.205839 Z-0.125000
G01 X127.525920 Y108.907991 Z-0.125000
G01 X134.444631 Y108.583370 Z-0.125000
G01 X142.259381 Y109.056741 Z-0.125000
G01 X151.322638 Y110.308785 Z-0.125000
G01 X162.608716 Y112.474646 Z-0.125000
G01 X174.720723 Y115.299181 Z-0.125000
G01 X182.906986 Y117.727805 Z-0.125000
G01 X187.320159 Y119.801423 Z-0.125000
G01 X188.568665 Y120.921767 Z-0.125000
G01 X189.129109 Y122.042475 Z-0.125000
G01 X189.168383 Y123.139963 Z-0.125000
G01 X188.741905 Y124.087431 Z-0.125000
G01 X186.459583 Y125.550174 Z-0.125000
G01 X165.199877 Y131.781186 Z-0.125000
G01 X157.224403 Y134.810707 Z-0.125000
G01 X148.778914 Y138.588152 Z-0.125000
G01 X136.980010 Y144.693089 Z-0.125000
G01 X109.496639 Y160.196877 Z-0.125000
G01 X95.270562 Y167.180984 Z-0.125000
G01 X86.904074 Y170.624738 Z-0.125000
G01 X78.606792 Y173.503967 Z-0.125000
G01 X71.712843 Y175.364889 Z-0.125000
G01 X65.975520 Y176.318525 Z-0.125000
G01 X61.686699 Y176.383739 Z-0.125000
G01 X58.221086 Y175.625656 Z-0.125000
G01 X55.546661 Y174.009355 Z-0.125000
G01 X53.382705 Y171.403048 Z-0.125000
G01 X50.517898 Y165.642051 Z-0.125000
G01 X43.015342 Y147.661295 Z-0.125000
G01 X41.023809 Y141.242622 Z-0.125000
G01 X40.586084 Y136.738930 Z-0.125000
G01 X41.046938 Y134.790299 Z-0.125000
G01 X42.102159 Y133.243203 Z-0.125000
G01 X43.807166 Y132.098641 Z-0.125000
G01 X46.190257 Y131.327134 Z-0.125000
G01 X51.019024 Y130.732132 Z-0.125000
G01 X64.837216 Y130.315722 Z-0.125000
G01 X72.231928 Y129.746207 Z-0.125000
G01 X79.744824 Y128.529446 Z-0.125000
G01 X86.186172 Y126.780903 Z-0.125000
G01 X91.083327 Y124.909005 Z-0.125000
G01 X96.070640 Y122.458704 Z-0.125000
G01 X109.091566 Y114.273529 Z-0.125000
G01 X114.429349 Y111.415706 Z-0.125000
G01 X120.746800 Y109.107625 Z-0.125000
G01 X127.570092 Y107.864289 Z-0.125000
G01 X134.548121 Y107.638442 Z-0.125000
G01 X142.459650 Y108.253761 Z-0.125000
G01 X152.134689 Y109.774009 Z-0.125000
G01 X163.623394 Y112.182587 Z-0.125000
G01 X175.923424 Y115.232153 Z-0.125000
G01 X184.177714 Y117.799096 Z-0.125000
G01 X188.560592 Y119.958518 Z-0.125000
G01 X189.701164 Y121.026165 Z-0.125000
G01 X190.264148 Y122.176895 Z-0.125000
G01 X190.302787 Y123.296423 Z-0.125000
G01 X189.931092 Y124.177588 Z-0.125000
G01 X189.045845 Y124.975127 Z-0.125000
G01 X187.715708 Y125.639152 Z-0.125000
G01 X173.222334 Y129.572604 Z-0.125000
G01 X166.316140 Y131.722956 Z-0.125000
G01 X158.242528 Y134.757284 Z-0.125000
G01 X149.696542 Y138.579354 Z-0.125000
G01 X137.244133 Y145.099522 Z-0.125000
G01 X109.427887 Y161.047023 Z-0.125000
G01 X94.959456 Y168.201557 Z-0.125000
G01 X86.430431 Y171.711524 Z-0.125000
G01 X77.976689 Y174.628212 Z-0.125000
G01 X70.975621 Y176.488227 Z-0.125000
G01 X65.182335 Y177.402589 Z-0.125000
G01 X60.887800 Y177.397147 Z-0.125000
G01 X57.629803 Y176.608135 Z-0.125000
G01 X55.096056 Y175.017503 Z-0.125000
G01 X52.949968 Y172.328112 Z-0.125000
G01 X50.664925 Y167.592134 Z-0.125000
G01 X41.927922 Y146.152476 Z-0.125000
G01 X40.043779 Y139.810627 Z-0.125000
G01 X39.693127 Y135.435187 Z-0.125000
G01 X40.210126 Y133.466692 Z-0.125000
G01 X41.349790 Y131.925401 Z-0.125000
G01 X42.989129 Y130.886416 Z-0.125000
G01 X45.451856 Y130.129693 Z-0.125000
G01 X50.442071 Y129.586210 Z-0.125000
G01 X64.247747 Y129.318640 Z-0.125000
G01 X71.811708 Y128.813977 Z-0.125000
G01 X79.483694 Y127.640935 Z-0.125000
G01 X86.041231 Y125.904092 Z-0.125000
G01 X91.008317 Y124.020584 Z-0.125000
G01 X96.045334 Y121.537631 Z-0.125000
G01 X109.419180 Y112.993459 Z-0.125000
G01 X114.423000 Y110.295089 Z-0.125000
G01 X120.745893 Y107.987915 Z-0.125000
G01 X127.596305 Y106.803263 Z-0.125000
G01 X134.628301 Y106.681632 Z-0.125000
G01 X142.631711 Y107.445611 Z-0.125000
G01 X151.983036 Y109.068986 Z-0.125000
G01 X164.164066 Y111.808806 Z-0.125000
G01 X177.100367 Y115.196689 Z-0.125000
G01 X185.169535 Y117.805173 Z-0.125000
G01 X189.638308 Y120.052938 Z-0.125000
G01 X190.793845 Y121.154235 Z-0.125000
G01 X191.359096 Y122.334897 Z-0.125000
G01 X191.397010 Y123.476466 Z-0.125000
G01 X191.023501 Y124.366701 Z-0.125000
G01 X188.933013 Y125.752257 Z-0.125000
G01 X174.393381 Y129.558001 Z-0.125000
G01 X167.411361 Y131.679147 Z-0.125000
G01 X159.244326 Y134.714291 Z-0.125000
G01 X150.603375 Y138.577449 Z-0.125000
G01 X138.025798 Y145.224599 Z-0.125000
G01 X109.371743 Y161.919843 Z-0.125000
G01 X94.664858 Y169.245531 Z-0.125000
G01 X85.973205 Y172.821710 Z-0.125000
G01 X77.363093 Y175.775404 Z-0.125000
G01 X70.255633 Y177.633334 Z-0.125000
G01 X64.408470 Y178.506245 Z-0.125000
G01 X60.346403 Y178.457085 Z-0.125000
G01 X57.061013 Y177.614921 Z-0.125000
G01 X54.541326 Y175.939302 Z-0.125000
G01 X52.537095 Y173.285285 Z-0.125000
G01 X50.719437 Y169.396368 Z-0.125000
G01 X40.941361 Y144.832950 Z-0.125000
G01 X39.124429 Y138.558674 Z-0.125000
G01 X38.775591 Y136.071458 Z-0.125000
G01 X38.816316 Y134.089902 Z-0.125000
G01 X39.394447 Y132.105988 Z-0.125000
G01 X40.495382 Y130.685693 Z-0.125000
G01 X42.187781 Y129.643261 Z-0.125000
G01 X44.732775 Y128.903137 Z-0.125000
G01 X49.562539 Y128.426228 Z-0.125000
G01 X63.666985 Y128.290902 Z-0.125000
G01 X71.401465 Y127.852813 Z-0.125000
G01 X79.233449 Y126.725303 Z-0.125000
G01 X85.907356 Y125.001702 Z-0.125000
G01 X90.943556 Y123.107674 Z-0.125000
G01 X96.028555 Y120.592702 Z-0.125000
G01 X109.415733 Y111.887989 Z-0.125000
G01 X114.750523 Y108.993976 Z-0.125000
G01 X121.098993 Y106.753830 Z-0.125000
G01 X127.604649 Y105.725638 Z-0.125000
G01 X134.685262 Y105.713575 Z-0.125000
G01 X142.775654 Y106.633016 Z-0.125000
G01 X152.745926 Y108.559697 Z-0.125000
G01 X165.132032 Y111.567087 Z-0.125000
G01 X178.250644 Y115.193151 Z-0.125000
G01 X186.372328 Y117.933969 Z-0.125000
G01 X190.676114 Y120.170668 Z-0.125000
G01 X191.846345 Y121.305798 Z-0.125000
G01 X192.413501 Y122.516481 Z-0.125000
G01 X192.450689 Y123.680181 Z-0.125000
G01 X192.075548 Y124.579215 Z-0.125000
G01 X191.275107 Y125.304192 Z-0.125000
G01 X189.953405 Y125.951710 Z-0.125000
G01 X175.538397 Y129.562627 Z-0.125000
G01 X168.484450 Y131.650757 Z-0.125000
G01 X160.228346 Y134.682546 Z-0.125000
G01 X151.498145 Y138.583164 Z-0.125000
G01 X138.805922 Y145.354031 Z-0.125000
G01 X109.865885 Y162.517294 Z-0.125000
G01 X101.825741 Y166.785072 Z-0.125000
G01 X94.387492 Y170.313088 Z-0.125000
G01 X85.533303 Y173.955297 Z-0.125000
G01 X77.227313 Y176.806045 Z-0.125000
G01 X69.943347 Y178.719121 Z-0.125000
G01 X63.963488 Y179.609357 Z-0.125000
G01 X59.829858 Y179.541421 Z-0.125000
G01 X56.692675 Y178.725017 Z-0.125000
G01 X54.259607 Y177.129759 Z-0.125000
G01 X52.232882 Y174.436741 Z-0.125000
G01 X50.766239 Y171.249762 Z-0.125000
G01 X40.058745 Y143.732469 Z-0.125000
G01 X38.215419 Y137.260373 Z-0.125000
G01 X37.930434 Y132.891735 Z-0.125000
G01 X38.521355 Y130.857935 Z-0.125000
G01 X39.655486 Y129.414693 Z-0.125000
G01 X41.403032 Y128.370084 Z-0.125000
G01 X43.785035 Y127.693541 Z-0.125000
G01 X48.690353 Y127.234955 Z-0.125000
G01 X63.548982 Y127.225522 Z-0.125000
G01 X71.001018 Y126.863169 Z-0.125000
G01 X78.993997 Y125.783005 Z-0.125000
G01 X85.784274 Y124.074007 Z-0.125000
G01 X90.888863 Y122.170455 Z-0.125000
G01 X96.020119 Y119.624282 Z-0.125000
G01 X100.393564 Y116.942058 Z-0.125000
G01 X109.410835 Y110.759571 Z-0.125000
G01 X114.392343 Y107.985647 Z-0.125000
G01 X120.708524 Y105.686636 Z-0.125000
G01 X127.195404 Y104.657719 Z-0.125000
G01 X133.849538 Y104.671777 Z-0.125000
G01 X141.955803 Y105.654891 Z-0.125000
G01 X151.536603 Y107.611504 Z-0.125000
G01 X164.662380 Y110.967459 Z-0.125000
G01 X178.614629 Y114.985536 Z-0.125000
G01 X187.033814 Y117.883902 Z-0.125000
G01 X191.673559 Y120.311165 Z-0.125000
G01 X192.858211 Y121.480217 Z-0.125000
G01 X193.426909 Y122.720922 Z-0.125000
G01 X193.476069 Y123.818955 Z-0.125000
G01 X193.141381 Y124.736582 Z-0.125000
G01 X192.380849 Y125.468724 Z-0.125000
G01 X191.093341 Y126.111617 Z-0.125000
G01 X176.656202 Y129.586754 Z-0.125000
G01 X169.062309 Y131.790800 Z-0.125000
G01 X160.685391 Y134.868846 Z-0.125000
G01 X151.851972 Y138.855177 Z-0.125000
G01 X139.045918 Y145.801007 Z-0.125000
G01 X109.844026 Y163.427393 Z-0.125000
G01 X101.690505 Y167.798933 Z-0.125000
G01 X94.128540 Y171.403320 Z-0.125000
G01 X85.111813 Y175.111741 Z-0.125000
G01 X76.656891 Y177.997591 Z-0.125000
G01 X69.265354 Y179.908581 Z-0.125000
G01 X63.232162 Y180.755370 Z-0.125000
G01 X59.338800 Y180.649975 Z-0.125000
G01 X56.170960 Y179.784773 Z-0.125000
G01 X53.746962 Y178.109154 Z-0.125000
G01 X51.856561 Y175.463482 Z-0.125000
G01 X38.981665 Y141.988189 Z-0.125000
G01 X37.270490 Y135.666566 Z-0.125000
G01 X37.081559 Y131.469354 Z-0.125000
G01 X37.660688 Y129.578591 Z-0.125000
G01 X38.829740 Y128.113580 Z-0.125000
G01 X40.634609 Y127.068427 Z-0.125000
G01 X43.096248 Y126.409934 Z-0.125000
G01 X48.163559 Y126.005859 Z-0.125000
G01 X62.994796 Y126.142818 Z-0.125000
G01 X70.609822 Y125.845589 Z-0.125000
G01 X78.764794 Y124.814494 Z-0.125000
G01 X85.671623 Y123.121460 Z-0.125000
G01 X90.843966 Y121.209291 Z-0.125000
G01 X96.019847 Y118.632734 Z-0.125000
G01 X100.408984 Y115.906428 Z-0.125000
G01 X109.404668 Y109.608660 Z-0.125000
G01 X114.706533 Y106.637551 Z-0.125000
G01 X120.672606 Y104.505794 Z-0.125000
G01 X127.167468 Y103.542272 Z-0.125000
G01 X133.854799 Y103.665716 Z-0.125000
G01 X142.033897 Y104.813635 Z-0.125000
G01 X152.234642 Y107.106115 Z-0.125000
G01 X165.568216 Y110.758574 Z-0.125000
G01 X179.702230 Y115.033063 Z-0.125000
G01 X188.166585 Y118.065033 Z-0.125000
G01 X192.630278 Y120.473883 Z-0.125000
G01 X193.829170 Y121.676857 Z-0.125000
G01 X194.398957 Y122.947767 Z-0.125000
G01 X194.447392 Y124.066479 Z-0.125000
G01 X194.111978 Y124.993448 Z-0.125000
G01 X193.343101 Y125.723414 Z-0.125000
G01 X192.192008 Y126.294924 Z-0.125000
G01 X177.324128 Y129.735414 Z-0.125000
G01 X170.083427 Y131.792433 Z-0.125000
G01 X161.625875 Y134.861046 Z-0.125000
G01 X152.714271 Y138.880120 Z-0.125000
G01 X139.815157 Y145.945404 Z-0.125000
G01 X109.836679 Y164.359260 Z-0.125000
G01 X101.573228 Y168.834835 Z-0.125000
G01 X93.888634 Y172.515683 Z-0.125000
G01 X84.709370 Y176.290135 Z-0.125000
G01 X76.105607 Y179.210996 Z-0.125000
G01 X68.607224 Y181.118811 Z-0.125000
G01 X62.522514 Y181.920068 Z-0.125000
G01 X58.628335 Y181.746103 Z-0.125000
G01 X55.673190 Y180.868747 Z-0.125000
G01 X53.257355 Y179.111859 Z-0.125000
G01 X51.499107 Y176.523057 Z-0.125000
G01 X46.527848 Y162.516024 Z-0.125000
G01 X38.006805 Y140.466036 Z-0.125000
G01 X36.380981 Y134.273119 Z-0.125000
G01 X36.132096 Y131.881683 Z-0.125000
G01 X36.248647 Y130.009786 Z-0.125000
G01 X36.895621 Y128.115666 Z-0.125000
G01 X38.159637 Y126.670791 Z-0.125000
G01 X39.882512 Y125.739559 Z-0.125000
G01 X42.426599 Y125.101020 Z-0.125000
G01 X47.311056 Y124.757715 Z-0.125000
G01 X62.448320 Y125.031815 Z-0.125000
G01 X70.227606 Y124.801071 Z-0.125000
G01 X78.545568 Y123.820406 Z-0.125000
G01 X85.568948 Y122.144877 Z-0.125000
G01 X90.808411 Y120.224999 Z-0.125000
G01 X96.027466 Y117.618691 Z-0.125000
G01 X100.430117 Y114.848667 Z-0.125000
G01 X109.722123 Y108.223013 Z-0.125000
G01 X114.675604 Y105.427049 Z-0.125000
G01 X120.625532 Y103.305631 Z-0.125000
G01 X127.122843 Y102.411043 Z-0.125000
G01 X133.838291 Y102.648771 Z-0.125000
G01 X142.085234 Y103.967843 Z-0.125000
G01 X152.412961 Y106.489345 Z-0.125000
G01 X166.453734 Y110.581071 Z-0.125000
G01 X181.150280 Y115.243037 Z-0.125000
G01 X189.263257 Y118.275733 Z-0.125000
G01 X193.675794 Y120.762586 Z-0.125000
G01 X194.758861 Y121.895267 Z-0.125000
G01 X195.329736 Y123.196198 Z-0.125000
G01 X195.364565 Y124.426020 Z-0.125000
G01 X195.041396 Y125.271811 Z-0.125000
G01 X194.264265 Y125.999056 Z-0.125000
G01 X193.095577 Y126.559501 Z-0.125000
G01 X178.807007 Y129.694326 Z-0.125000
G01 X171.079602 Y131.810210 Z-0.125000
G01 X162.545770 Y134.865490 Z-0.125000
G01 X153.561151 Y138.913408 Z-0.125000
G01 X140.035471 Y146.422403 Z-0.125000
G01 X109.844751 Y165.312261 Z-0.125000
G01 X101.474636 Y169.892052 Z-0.125000
G01 X93.668683 Y173.649633 Z-0.125000
G01 X84.326882 Y177.490116 Z-0.125000
G01 X75.574187 Y180.445625 Z-0.125000
G01 X67.969683 Y182.349358 Z-0.125000
G01 X61.835268 Y183.102906 Z-0.125000
G01 X57.942269 Y182.857831 Z-0.125000
G01 X55.020230 Y181.885239 Z-0.125000
G01 X52.790787 Y180.137965 Z-0.125000
G01 X51.160155 Y177.615738 Z-0.125000
G01 X46.272070 Y162.983681 Z-0.125000
G01 X39.600703 Y146.065040 Z-0.125000
G01 X37.034666 Y138.879213 Z-0.125000
G01 X35.500360 Y132.836861 Z-0.125000
G01 X35.275602 Y130.404609 Z-0.125000
G01 X35.431880 Y128.514753 Z-0.125000
G01 X36.152504 Y126.622538 Z-0.125000
G01 X37.365999 Y125.312899 Z-0.125000
G01 X39.146560 Y124.385114 Z-0.125000
G01 X41.775997 Y123.768162 Z-0.125000
G01 X46.820451 Y123.480638 Z-0.125000
G01 X61.909281 Y123.893511 Z-0.125000
G01 X70.356584 Y123.700226 Z-0.125000
G01 X78.335776 Y122.801556 Z-0.125000
G01 X85.475979 Y121.144530 Z-0.125000
G01 X91.205049 Y119.034269 Z-0.125000
G01 X96.426009 Y116.360026 Z-0.125000
G01 X100.807526 Y113.524335 Z-0.125000
G01 X109.711511 Y107.025753 Z-0.125000
G01 X114.638961 Y104.195867 Z-0.125000
G01 X120.567483 Y102.086694 Z-0.125000
G01 X127.061892 Y101.264757 Z-0.125000
G01 X133.800650 Y101.621305 Z-0.125000
G01 X142.110449 Y103.117789 Z-0.125000
G01 X152.050699 Y105.728087 Z-0.125000
G01 X166.323487 Y110.116588 Z-0.125000
G01 X181.792628 Y115.222811 Z-0.125000
G01 X189.798396 Y118.279996 Z-0.125000
G01 X194.420635 Y120.863628 Z-0.125000
G01 X195.573179 Y122.030140 Z-0.125000
G01 X196.197659 Y123.365357 Z-0.125000
G01 X196.274846 Y124.533138 Z-0.125000
G01 X195.980338 Y125.491128 Z-0.125000
G01 X195.246744 Y126.228440 Z-0.125000
G01 X194.113701 Y126.786799 Z-0.125000
G01 X179.410534 Y129.876182 Z-0.125000
G01 X172.050198 Y131.844496 Z-0.125000
G01 X163.443986 Y134.882452 Z-0.125000
G01 X154.391251 Y138.955584 Z-0.125000
G01 X147.881332 Y142.405597 Z-0.125000
G01 X140.790380 Y146.582038 Z-0.125000
G01 X110.431046 Y165.955244 Z-0.125000
G01 X101.961975 Y170.675259 Z-0.125000
G01 X93.469321 Y174.804263 Z-0.125000
G01 X83.965164 Y178.710868 Z-0.125000
G01 X75.063356 Y181.700752 Z-0.125000
G01 X67.353548 Y183.599497 Z-0.125000
G01 X61.170971 Y184.303522 Z-0.125000
G01 X57.524226 Y184.033504 Z-0.125000
G01 X54.570532 Y183.013384 Z-0.125000
G01 X52.470066 Y181.330055 Z-0.125000
G01 X50.839525 Y178.741797 Z-0.125000
G01 X45.947268 Y163.187941 Z-0.125000
G01 X38.797904 Y144.976168 Z-0.125000
G01 X36.165020 Y137.549439 Z-0.125000
G01 X34.628174 Y131.359333 Z-0.125000
G01 X34.432168 Y129.120730 Z-0.125000
G01 X34.590170 Y127.182076 Z-0.125000
G01 X35.238323 Y125.407138 Z-0.125000
G01 X36.434676 Y124.043169 Z-0.125000
G01 X38.215600 Y123.081552 Z-0.125000
G01 X40.867530 Y122.450541 Z-0.125000
G01 X45.986632 Y122.180795 Z-0.125000
G01 X61.377226 Y122.728904 Z-0.125000
G01 X70.001306 Y122.607908 Z-0.125000
G01 X78.135053 Y121.758579 Z-0.125000
G01 X85.392262 Y120.121417 Z-0.125000
G01 X91.191534 Y118.003900 Z-0.125000
G01 X96.450226 Y115.299907 Z-0.125000
G01 X100.838999 Y112.420407 Z-0.125000
G01 X109.699448 Y105.807995 Z-0.125000
G01 X114.596784 Y102.944730 Z-0.125000
G01 X117.660409 Y101.671190 Z-0.125000
G01 X120.498822 Y100.849616 Z-0.125000
G01 X126.584530 Y100.110490 Z-0.125000
G01 X133.300613 Y100.523363 Z-0.125000
G01 X141.143481 Y102.028010 Z-0.125000
G01 X151.131258 Y104.790687 Z-0.125000
G01 X165.629530 Y109.471973 Z-0.125000
G01 X182.395339 Y115.220634 Z-0.125000
G01 X190.553123 Y118.417680 Z-0.125000
G01 X195.254182 Y121.089384 Z-0.125000
G01 X196.419787 Y122.287279 Z-0.125000
G01 X197.045536 Y123.652971 Z-0.125000
G01 X197.112020 Y124.936125 Z-0.125000
G01 X196.827218 Y125.810034 Z-0.125000
G01 X196.086640 Y126.544898 Z-0.125000
G01 X194.937180 Y127.091737 Z-0.125000
G01 X180.409339 Y129.976680 Z-0.125000
G01 X172.502980 Y132.043676 Z-0.125000
G01 X163.792371 Y135.123536 Z-0.125000
G01 X154.660272 Y139.280114 Z-0.125000
G01 X148.110898 Y142.810488 Z-0.125000
G01 X140.989651 Y147.089241 Z-0.125000
G01 X118.925604 Y161.652546 Z-0.125000
G01 X110.477304 Y166.941078 Z-0.125000
G01 X101.910547 Y171.767033 Z-0.125000
G01 X93.865505 Y175.718807 Z-0.125000
G01 X84.183574 Y179.742234 Z-0.125000
G01 X75.076962 Y182.827718 Z-0.125000
G01 X67.177224 Y184.791133 Z-0.125000
G01 X60.850431 Y185.517562 Z-0.125000
G01 X57.133937 Y185.232396 Z-0.125000
G01 X54.327180 Y184.265881 Z-0.125000
G01 X52.173110 Y182.554525 Z-0.125000
G01 X50.620119 Y180.085721 Z-0.125000
G01 X49.612788 Y177.317421 Z-0.125000
G01 X45.755434 Y163.691697 Z-0.125000
G01 X37.996828 Y143.839225 Z-0.125000
G01 X35.196328 Y135.845611 Z-0.125000
G01 X33.764061 Y129.842169 Z-0.125000
G01 X33.595991 Y127.572818 Z-0.125000
G01 X33.800614 Y125.622554 Z-0.125000
G01 X34.523686 Y123.856233 Z-0.125000
G01 X35.819538 Y122.521379 Z-0.125000
G01 X37.722728 Y121.605294 Z-0.125000
G01 X40.245953 Y121.071878 Z-0.125000
G01 X45.531583 Y120.861179 Z-0.125000
G01 X61.359267 Y121.552415 Z-0.125000
G01 X69.653738 Y121.491101 Z-0.125000
G01 X77.942948 Y120.692202 Z-0.125000
G01 X85.317342 Y119.075992 Z-0.125000
G01 X91.186274 Y116.952216 Z-0.125000
G01 X96.481246 Y114.219380 Z-0.125000
G01 X100.875461 Y111.296524 Z-0.125000
G01 X109.685933 Y104.570645 Z-0.125000
G01 X114.549257 Y101.674365 Z-0.125000
G01 X117.594650 Y100.401369 Z-0.125000
G01 X120.419911 Y99.595033 Z-0.125000
G01 X126.492286 Y98.929193 Z-0.125000
G01 X133.220342 Y99.467235 Z-0.125000
G01 X141.110103 Y101.147661 Z-0.125000
G01 X151.199193 Y104.147251 Z-0.125000
G01 X167.452086 Y109.700359 Z-0.125000
G01 X183.766655 Y115.536638 Z-0.125000
G01 X191.542223 Y118.702120 Z-0.125000
G01 X196.046641 Y121.334822 Z-0.125000
G01 X197.225216 Y122.563918 Z-0.125000
G01 X197.852054 Y123.960086 Z-0.125000
G01 X197.917359 Y125.265916 Z-0.125000
G01 X197.632738 Y126.148260 Z-0.125000
G01 X196.984676 Y126.814009 Z-0.125000
G01 X195.873945 Y127.360576 Z-0.125000
G01 X181.377759 Y130.097313 Z-0.125000
G01 X173.416616 Y132.109344 Z-0.125000
G01 X164.641065 Y135.166529 Z-0.125000
G01 X155.451007 Y139.343514 Z-0.125000
G01 X148.870704 Y142.915883 Z-0.125000
G01 X141.726873 Y147.264476 Z-0.125000
G01 X119.610582 Y162.161744 Z-0.125000
G01 X111.112668 Y167.598211 Z-0.125000
G01 X102.460742 Y172.567927 Z-0.125000
G01 X93.718660 Y176.907994 Z-0.125000
G01 X83.874826 Y180.999176 Z-0.125000
G01 X74.617286 Y184.120940 Z-0.125000
G01 X66.610249 Y186.080274 Z-0.125000
G01 X60.235022 Y186.756091 Z-0.125000
G01 X56.772038 Y186.454145 Z-0.125000
G01 X53.928819 Y185.445998 Z-0.125000
G01 X51.900552 Y183.811285 Z-0.125000
G01 X50.335225 Y181.283706 Z-0.125000
G01 X49.355921 Y178.441484 Z-0.125000
G01 X47.239311 Y169.631557 Z-0.125000
G01 X45.491946 Y163.916092 Z-0.125000
G01 X37.195843 Y142.654663 Z-0.125000
G01 X34.330129 Y134.417425 Z-0.125000
G01 X32.907930 Y128.286729 Z-0.125000
G01 X32.771787 Y125.990711 Z-0.125000
G01 X32.978677 Y124.233370 Z-0.125000
G01 X33.725876 Y122.436029 Z-0.125000
G01 X35.066263 Y121.090835 Z-0.125000
G01 X37.034939 Y120.183276 Z-0.125000
G01 X39.643242 Y119.674168 Z-0.125000
G01 X44.715360 Y119.515169 Z-0.125000
G01 X60.850613 Y120.343001 Z-0.125000
G01 X69.313516 Y120.351164 Z-0.125000
G01 X77.758914 Y119.603603 Z-0.125000
G01 X85.250677 Y118.009524 Z-0.125000
G01 X91.188813 Y115.880397 Z-0.125000
G01 X96.518887 Y113.119443 Z-0.125000
G01 X100.916459 Y110.153776 Z-0.125000
G01 X109.671058 Y103.314702 Z-0.125000
G01 X114.496559 Y100.385859 Z-0.125000
G01 X119.972662 Y98.404848 Z-0.125000
G01 X122.902502 Y97.904085 Z-0.125000
G01 X125.988076 Y97.733203 Z-0.125000
G01 X132.239496 Y98.255644 Z-0.125000
G01 X140.080641 Y99.993575 Z-0.125000
G01 X149.666429 Y102.970308 Z-0.125000
G01 X165.085956 Y108.467272 Z-0.125000
G01 X183.896540 Y115.426345 Z-0.125000
G01 X191.940402 Y118.750646 Z-0.125000
G01 X196.798103 Y121.599398 Z-0.125000
G01 X197.989648 Y122.859696 Z-0.125000
G01 X198.617484 Y124.286067 Z-0.125000
G01 X198.690589 Y125.517885 Z-0.125000
G01 X198.444244 Y126.423176 Z-0.125000
G01 X197.838086 Y127.101623 Z-0.125000
G01 X196.767718 Y127.649733 Z-0.125000
G01 X194.060187 Y128.315663 Z-0.125000
G01 X181.875438 Y130.327694 Z-0.125000
G01 X173.801644 Y132.339182 Z-0.125000
G01 X164.930131 Y135.437998 Z-0.125000
G01 X155.672863 Y139.698611 Z-0.125000
G01 X149.064261 Y143.351523 Z-0.125000
G01 X141.904013 Y147.802427 Z-0.125000
G01 X119.747813 Y163.053975 Z-0.125000
G01 X111.197927 Y168.614702 Z-0.125000
G01 X102.458203 Y173.691356 Z-0.125000
G01 X93.594489 Y178.115957 Z-0.125000
G01 X83.588753 Y182.274802 Z-0.125000
G01 X74.180105 Y185.432756 Z-0.125000
G01 X66.066584 Y187.387464 Z-0.125000
G01 X59.644192 Y188.010855 Z-0.125000
G01 X56.183749 Y187.643151 Z-0.125000
G01 X53.556217 Y186.649698 Z-0.125000
G01 X51.523233 Y184.948773 Z-0.125000
G01 X49.987566 Y182.321876 Z-0.125000
G01 X49.003092 Y179.150407 Z-0.125000
G01 X46.937366 Y169.747836 Z-0.125000
G01 X45.361518 Y164.456311 Z-0.125000
G01 X36.539255 Y141.809688 Z-0.125000
G01 X33.465200 Y132.946247 Z-0.125000
G01 X32.059598 Y126.695281 Z-0.125000
G01 X31.960008 Y124.376950 Z-0.125000
G01 X32.216331 Y122.616706 Z-0.125000
G01 X33.048970 Y120.836871 Z-0.125000
G01 X34.326048 Y119.639520 Z-0.125000
G01 X36.129556 Y118.812504 Z-0.125000
G01 X38.760444 Y118.290608 Z-0.125000
G01 X43.904398 Y118.147390 Z-0.125000
G01 X60.347764 Y119.110821 Z-0.125000
G01 X68.980098 Y119.188462 Z-0.125000
G01 X77.582591 Y118.493144 Z-0.125000
G01 X85.191902 Y116.922103 Z-0.125000
G01 X91.198791 Y114.788532 Z-0.125000
G01 X96.562787 Y112.000368 Z-0.125000
G01 X101.307473 Y108.729581 Z-0.125000
G01 X109.654822 Y102.040527 Z-0.125000
G01 X114.438964 Y99.079395 Z-0.125000
G01 X117.100599 Y97.930207 Z-0.125000
G01 X119.876428 Y97.114619 Z-0.125000
G01 X122.791756 Y96.644332 Z-0.125000
G01 X125.867806 Y96.518710 Z-0.125000
G01 X133.002568 Y97.327949 Z-0.125000
G01 X142.460013 Y99.839201 Z-0.125000
G01 X153.387548 Y103.653472 Z-0.125000
G01 X177.613919 Y112.860944 Z-0.125000
G01 X188.678323 Y117.217881 Z-0.125000
G01 X194.433787 Y119.882328 Z-0.125000
G01 X197.906928 Y122.239570 Z-0.125000
G01 X198.860745 Y123.402091 Z-0.125000
G01 X199.342008 Y124.629554 Z-0.125000
G01 X199.413662 Y125.882686 Z-0.125000
G01 X199.168133 Y126.797229 Z-0.125000
G01 X198.557167 Y127.474135 Z-0.125000
G01 X197.472650 Y128.011178 Z-0.125000
G01 X182.780095 Y130.484699 Z-0.125000
G01 X174.657322 Y132.436504 Z-0.125000
G01 X165.727669 Y135.507748 Z-0.125000
G01 X156.421695 Y139.784233 Z-0.125000
G01 X149.791143 Y143.476147 Z-0.125000
G01 X142.620192 Y147.993807 Z-0.125000
G01 X119.896473 Y163.964618 Z-0.125000
G01 X111.300873 Y169.648971 Z-0.125000
G01 X102.477250 Y174.832290 Z-0.125000
G01 X93.493357 Y179.341062 Z-0.125000
G01 X83.325900 Y183.567661 Z-0.125000
G01 X73.766144 Y186.761805 Z-0.125000
G01 X65.546592 Y188.711343 Z-0.125000
G01 X59.078396 Y189.280676 Z-0.125000
G01 X55.621762 Y188.845218 Z-0.125000
G01 X53.023618 Y187.762968 Z-0.125000
G01 X51.169498 Y186.109026 Z-0.125000
G01 X49.740586 Y183.582717 Z-0.125000
G01 X48.782869 Y180.329436 Z-0.125000
G01 X46.809295 Y170.426193 Z-0.125000
G01 X45.260658 Y165.017662 Z-0.125000
G01 X35.738361 Y140.544311 Z-0.125000
G01 X32.600724 Y131.432892 Z-0.125000
G01 X31.249997 Y125.350903 Z-0.125000
G01 X31.147051 Y122.974433 Z-0.125000
G01 X31.413078 Y121.177274 Z-0.125000
G01 X32.276012 Y119.371316 Z-0.125000
G01 X33.598984 Y118.168614 Z-0.125000
G01 X35.465621 Y117.351756 Z-0.125000
G01 X38.185941 Y116.856254 Z-0.125000
G01 X43.495879 Y116.772899 Z-0.125000
G01 X59.850447 Y117.856692 Z-0.125000
G01 X68.653028 Y118.004354 Z-0.125000
G01 X77.413251 Y117.361915 Z-0.125000
G01 X85.140475 Y115.814910 Z-0.125000
G01 X91.215752 Y113.677892 Z-0.125000
G01 X96.612491 Y110.863334 Z-0.125000
G01 X101.355907 Y107.546924 Z-0.125000
G01 X109.948151 Y100.519735 Z-0.125000
G01 X114.376652 Y97.756242 Z-0.125000
G01 X117.015703 Y96.608414 Z-0.125000
G01 X119.771214 Y95.809152 Z-0.125000
G01 X125.341647 Y95.282358 Z-0.125000
G01 X132.422713 Y96.150553 Z-0.125000
G01 X141.866100 Y98.815544 Z-0.125000
G01 X152.853951 Y102.859108 Z-0.125000
G01 X181.289869 Y114.128497 Z-0.125000
G01 X190.622782 Y117.980590 Z-0.125000
G01 X195.770273 Y120.525583 Z-0.125000
G01 X198.820655 Y122.790037 Z-0.125000
G01 X199.611391 Y123.853966 Z-0.125000
G01 X200.026078 Y124.990002 Z-0.125000
G01 X199.851659 Y127.187971 Z-0.125000
G01 X199.235796 Y127.863153 Z-0.125000
G01 X198.136947 Y128.388678 Z-0.125000
G01 X183.653823 Y130.661657 Z-0.125000
G01 X175.485336 Y132.551151 Z-0.125000
G01 X166.500718 Y135.591465 Z-0.125000
G01 X157.149937 Y139.880195 Z-0.125000
G01 X150.501064 Y143.608571 Z-0.125000
G01 X143.324670 Y148.190357 Z-0.125000
G01 X120.623446 Y164.493589 Z-0.125000
G01 X112.006077 Y170.326875 Z-0.125000
G01 X103.119417 Y175.657674 Z-0.125000
G01 X94.025956 Y180.300230 Z-0.125000
G01 X83.686167 Y184.651725 Z-0.125000
G01 X73.375764 Y188.107543 Z-0.125000
G01 X65.050727 Y190.051367 Z-0.125000
G01 X58.538087 Y190.564919 Z-0.125000
G01 X55.338955 Y190.128372 Z-0.125000
G01 X52.701537 Y189.008028 Z-0.125000
G01 X50.839435 Y187.292046 Z-0.125000
G01 X49.512653 Y184.877300 Z-0.125000
G01 X48.576886 Y181.541934 Z-0.125000
G01 X46.773196 Y171.414748 Z-0.125000
G01 X45.084787 Y165.277341 Z-0.125000
G01 X42.738158 Y158.788374 Z-0.125000
G01 X35.088394 Y139.645822 Z-0.125000
G01 X31.736066 Y129.878903 Z-0.125000
G01 X30.445565 Y123.984122 Z-0.125000
G01 X30.340533 Y121.550238 Z-0.125000
G01 X30.617626 Y119.717161 Z-0.125000
G01 X31.394938 Y118.046258 Z-0.125000
G01 X32.705030 Y116.793942 Z-0.125000
G01 X34.574570 Y115.945702 Z-0.125000
G01 X37.317746 Y115.436141 Z-0.125000
G01 X42.700971 Y115.367570 Z-0.125000
G01 X59.358120 Y116.581973 Z-0.125000
G01 X68.331763 Y116.799838 Z-0.125000
G01 X77.250532 Y116.211004 Z-0.125000
G01 X85.095849 Y114.688851 Z-0.125000
G01 X91.239153 Y112.549293 Z-0.125000
G01 X96.667637 Y109.709157 Z-0.125000
G01 X101.408151 Y106.347669 Z-0.125000
G01 X109.926201 Y99.209189 Z-0.125000
G01 X114.309805 Y96.417306 Z-0.125000
G01 X116.924457 Y95.271474 Z-0.125000
G01 X119.657656 Y94.489355 Z-0.125000
G01 X125.196978 Y94.036845 Z-0.125000
G01 X128.412618 Y94.323462 Z-0.125000
G01 X132.269155 Y95.050434 Z-0.125000
G01 X141.748823 Y97.946896 Z-0.125000
G01 X151.738867 Y101.821029 Z-0.125000
G01 X184.825142 Y115.459270 Z-0.125000
G01 X192.477446 Y118.784477 Z-0.125000
G01 X197.029210 Y121.201309 Z-0.125000
G01 X199.570213 Y123.243544 Z-0.125000
G01 X200.670331 Y125.366232 Z-0.125000
G01 X200.495277 Y127.594495 Z-0.125000
G01 X199.874516 Y128.267773 Z-0.125000
G01 X198.911448 Y128.731439 Z-0.125000
G01 X196.410716 Y129.277915 Z-0.125000
G01 X184.045925 Y130.937934 Z-0.125000
G01 X175.771862 Y132.825070 Z-0.125000
G01 X166.702438 Y135.906562 Z-0.125000
G01 X157.301046 Y140.278737 Z-0.125000
G01 X150.639112 Y144.087203 Z-0.125000
G01 X143.466437 Y148.770212 Z-0.125000
G01 X120.797139 Y165.431080 Z-0.125000
G01 X112.149204 Y171.387266 Z-0.125000
G01 X103.189347 Y176.824911 Z-0.125000
G01 X93.981331 Y181.552727 Z-0.125000
G01 X83.480818 Y185.973609 Z-0.125000
G01 X73.556170 Y189.311515 Z-0.125000
G01 X65.026056 Y191.332888 Z-0.125000
G01 X58.354417 Y191.878004 Z-0.125000
G01 X55.086170 Y191.432388 Z-0.125000
G01 X52.596504 Y190.396668 Z-0.125000
G01 X50.661932 Y188.666990 Z-0.125000
G01 X49.304221 Y186.205442 Z-0.125000
G01 X48.385052 Y182.787991 Z-0.125000
G01 X46.692653 Y172.134374 Z-0.125000
G01 X45.040525 Y165.873794 Z-0.125000
G01 X42.673760 Y159.260838 Z-0.125000
G01 X34.442236 Y138.728558 Z-0.125000
G01 X30.870774 Y128.285732 Z-0.125000
G01 X29.613016 Y122.300249 Z-0.125000
G01 X29.555421 Y119.853939 Z-0.125000
G01 X29.893737 Y118.028117 Z-0.125000
G01 X30.761207 Y116.384244 Z-0.125000
G01 X32.183587 Y115.175827 Z-0.125000
G01 X34.185007 Y114.384457 Z-0.125000
G01 X36.770816 Y113.971765 Z-0.125000
G01 X42.326645 Y113.965416 Z-0.125000
G01 X58.870599 Y115.287844 Z-0.125000
G01 X68.015850 Y115.575821 Z-0.125000
G01 X77.093800 Y115.041045 Z-0.125000
G01 X85.057573 Y113.544652 Z-0.125000
G01 X91.268631 Y111.403371 Z-0.125000
G01 X97.116610 Y108.292672 Z-0.125000
G01 X101.463842 Y105.132813 Z-0.125000
G01 X109.903163 Y97.883405 Z-0.125000
G01 X114.238967 Y95.063405 Z-0.125000
G01 X116.827225 Y93.919931 Z-0.125000
G01 X119.189908 Y93.229874 Z-0.125000
G01 X121.665062 Y92.840039 Z-0.125000
G01 X124.653948 Y92.762580 Z-0.125000
G01 X127.834124 Y93.065886 Z-0.125000
G01 X131.658190 Y93.831860 Z-0.125000
G01 X141.105930 Y96.883784 Z-0.125000
G01 X186.932863 Y116.295175 Z-0.125000
G01 X193.615659 Y119.318709 Z-0.125000
G01 X197.806159 Y121.635951 Z-0.125000
G01 X200.276777 Y123.717097 Z-0.125000
G01 X201.275310 Y125.757155 Z-0.125000
G01 X201.099531 Y128.015713 Z-0.125000
G01 X200.473872 Y128.686904 Z-0.125000
G01 X199.498286 Y129.140140 Z-0.125000
G01 X184.856162 Y131.149541 Z-0.125000
G01 X176.541555 Y132.971099 Z-0.125000
G01 X167.422971 Y136.017762 Z-0.125000
G01 X157.984572 Y140.398191 Z-0.125000
G01 X151.312207 Y144.240125 Z-0.125000
G01 X144.145247 Y148.983814 Z-0.125000
G01 X120.983077 Y166.385350 Z-0.125000
G01 X112.311016 Y172.463258 Z-0.125000
G01 X103.281954 Y178.007024 Z-0.125000
G01 X93.961105 Y182.819736 Z-0.125000
G01 X83.299960 Y187.309823 Z-0.125000
G01 X73.222207 Y190.686459 Z-0.125000
G01 X64.584340 Y192.704204 Z-0.125000
G01 X60.774333 Y193.158619 Z-0.125000
G01 X57.866624 Y193.193720 Z-0.125000
G01 X54.864223 Y192.756176 Z-0.125000
G01 X52.330295 Y191.689345 Z-0.125000
G01 X50.379215 Y189.900530 Z-0.125000
G01 X49.115925 Y187.566962 Z-0.125000
G01 X48.164013 Y183.816364 Z-0.125000
G01 X46.635602 Y172.870417 Z-0.125000
G01 X44.917987 Y166.153971 Z-0.125000
G01 X42.491450 Y159.383920 Z-0.125000
G01 X33.798709 Y137.793426 Z-0.125000
G01 X30.004212 Y126.654737 Z-0.125000
G01 X28.788267 Y120.587351 Z-0.125000
G01 X28.761420 Y118.385481 Z-0.125000
G01 X29.116153 Y116.527824 Z-0.125000
G01 X30.019087 Y114.865991 Z-0.125000
G01 X31.495254 Y113.657394 Z-0.125000
G01 X33.568509 Y112.881352 Z-0.125000
G01 X36.242752 Y112.496596 Z-0.125000
G01 X41.546975 Y112.529158 Z-0.125000
G01 X58.387251 Y113.975847 Z-0.125000
G01 X67.704834 Y114.333845 Z-0.125000
G01 X76.942601 Y113.853400 Z-0.125000
G01 X85.025012 Y112.383582 Z-0.125000
G01 X91.303551 Y110.241484 Z-0.125000
G01 X97.182368 Y107.104392 Z-0.125000
G01 X101.522889 Y103.903626 Z-0.125000
G01 X109.878764 Y96.543653 Z-0.125000
G01 X114.164048 Y93.695807 Z-0.125000
G01 X116.724279 Y92.555145 Z-0.125000
G01 X119.064015 Y91.880689 Z-0.125000
G01 X121.518669 Y91.518971 Z-0.125000
G01 X124.488599 Y91.488768 Z-0.125000
G01 X127.655714 Y91.854567 Z-0.125000
G01 X131.473703 Y92.707252 Z-0.125000
G01 X140.441360 Y95.796364 Z-0.125000
G01 X188.970563 Y117.176068 Z-0.125000
G01 X195.013006 Y120.038607 Z-0.125000
G01 X198.743740 Y122.230227 Z-0.125000
G01 X200.940621 Y124.209878 Z-0.125000
G01 X201.841650 Y126.162137 Z-0.125000
G01 X201.708228 Y128.365095 Z-0.125000
G01 X201.128283 Y129.054699 Z-0.125000
G01 X200.193876 Y129.514193 Z-0.125000
G01 X197.709108 Y130.017132 Z-0.125000
G01 X185.635741 Y131.380648 Z-0.125000
G01 X176.761506 Y133.274405 Z-0.125000
G01 X167.565463 Y136.363516 Z-0.125000
G01 X158.087700 Y140.828751 Z-0.125000
G01 X151.412523 Y144.750775 Z-0.125000
G01 X144.262433 Y149.594961 Z-0.125000
G01 X121.747600 Y166.930013 Z-0.125000
G01 X113.083430 Y173.155491 Z-0.125000
G01 X104.016001 Y178.848462 Z-0.125000
G01 X94.601367 Y183.799675 Z-0.125000
G01 X83.774419 Y188.420917 Z-0.125000
G01 X72.913005 Y192.075371 Z-0.125000
G01 X64.167839 Y194.089307 Z-0.125000
G01 X60.325995 Y194.520593 Z-0.125000
G01 X57.405135 Y194.521500 Z-0.125000
G01 X54.405092 Y194.024818 Z-0.125000
G01 X51.895472 Y192.873544 Z-0.125000
G01 X50.120353 Y191.155658 Z-0.125000
G01 X48.866677 Y188.741637 Z-0.125000
G01 X47.962565 Y184.863785 Z-0.125000
G01 X46.708072 Y174.242005 Z-0.125000
G01 X45.423013 Y168.474024 Z-0.125000
G01 X42.922464 Y161.042306 Z-0.125000
G01 X34.564865 Y140.501772 Z-0.125000
G01 X30.078134 Y128.151493 Z-0.125000
G01 X28.751805 Y123.496511 Z-0.125000
G01 X28.095489 Y120.078153 Z-0.125000
G01 X27.954630 Y117.161465 Z-0.125000
G01 X28.345826 Y115.011476 Z-0.125000
G01 X29.286944 Y113.333408 Z-0.125000
G01 X30.619531 Y112.237824 Z-0.125000
G01 X32.698863 Y111.431035 Z-0.125000
G01 X35.396416 Y111.033671 Z-0.125000
G01 X40.771205 Y111.078115 Z-0.125000
G01 X58.491376 Y112.690697 Z-0.125000
G01 X67.994989 Y113.076723 Z-0.125000
G01 X76.796209 Y112.648612 Z-0.125000
G01 X84.997620 Y111.206004 Z-0.125000
G01 X91.343550 Y109.064088 Z-0.125000
G01 X97.252390 Y105.901508 Z-0.125000
G01 X101.919436 Y102.376485 Z-0.125000
G01 X109.853277 Y95.190568 Z-0.125000
G01 X114.085591 Y92.314968 Z-0.125000
G01 X116.616163 Y91.177571 Z-0.125000
G01 X118.931409 Y90.519260 Z-0.125000
G01 X123.933778 Y90.179492 Z-0.125000
G01 X127.059533 Y90.559259 Z-0.125000
G01 X130.837795 Y91.449041 Z-0.125000
G01 X139.256799 Y94.475296 Z-0.125000
G01 X190.536252 Y117.913108 Z-0.125000
G01 X196.051539 Y120.631523 Z-0.125000
G01 X199.437698 Y122.707680 Z-0.125000
G01 X201.466055 Y124.590825 Z-0.125000
G01 X202.370168 Y126.579364 Z-0.125000
G01 X202.236292 Y128.812072 Z-0.125000
G01 X201.651993 Y129.500497 Z-0.125000
G01 X200.705705 Y129.950195 Z-0.125000
G01 X198.182661 Y130.422840 Z-0.125000
G01 X186.385117 Y131.630077 Z-0.125000
G01 X177.473695 Y133.451091 Z-0.125000
G01 X168.233570 Y136.502471 Z-0.125000
G01 X158.725785 Y140.972422 Z-0.125000
G01 X152.047252 Y144.925012 Z-0.125000
G01 X144.913035 Y149.826249 Z-0.125000
G01 X121.958300 Y167.907775 Z-0.125000
G01 X113.285603 Y174.252798 Z-0.125000
G01 X104.160579 Y180.050982 Z-0.125000
G01 X94.639371 Y185.087546 Z-0.125000
G01 X83.653333 Y189.779535 Z-0.125000
G01 X72.628838 Y193.476528 Z-0.125000
G01 X63.776915 Y195.486564 Z-0.125000
G01 X59.903598 Y195.894176 Z-0.125000
G01 X56.969949 Y195.861070 Z-0.125000
G01 X53.972990 Y195.303981 Z-0.125000
G01 X51.681235 Y194.204135 Z-0.125000
G01 X49.885618 Y192.432644 Z-0.125000
G01 X48.718924 Y190.164925 Z-0.125000
G01 X47.815537 Y186.198821 Z-0.125000
G01 X46.638232 Y174.706396 Z-0.125000
G01 X45.357708 Y168.809620 Z-0.125000
G01 X42.945502 Y161.604928 Z-0.125000
G01 X34.153987 Y140.122459 Z-0.125000
G01 X29.340458 Y126.927204 Z-0.125000
G01 X27.976670 Y122.145331 Z-0.125000
G01 X27.305661 Y118.643074 Z-0.125000
G01 X27.169246 Y115.665616 Z-0.125000
G01 X27.582754 Y113.481705 Z-0.125000
G01 X28.564870 Y111.789124 Z-0.125000
G01 X29.949700 Y110.695899 Z-0.125000
G01 X32.105221 Y109.906433 Z-0.125000
G01 X34.895472 Y109.538820 Z-0.125000
G01 X40.441052 Y109.644850 Z-0.125000
G01 X58.026077 Y111.351217 Z-0.125000
G01 X67.702748 Y111.805904 Z-0.125000
G01 X77.233481 Y111.368360 Z-0.125000
G01 X84.974763 Y110.013824 Z-0.125000
G01 X91.387994 Y107.872996 Z-0.125000
G01 X97.326130 Y104.686018 Z-0.125000
G01 X101.982201 Y101.117548 Z-0.125000
G01 X109.826792 Y93.826146 Z-0.125000
G01 X114.003778 Y90.922881 Z-0.125000
G01 X116.503148 Y89.789203 Z-0.125000
G01 X118.792636 Y89.147490 Z-0.125000
G01 X121.201758 Y88.844366 Z-0.125000
G01 X123.751468 Y88.880102 Z-0.125000
G01 X126.859899 Y89.323451 Z-0.125000
G01 X130.193996 Y90.169605 Z-0.125000
G01 X138.557037 Y93.329011 Z-0.125000
G01 X170.371223 Y108.625909 Z-0.125000
G01 X192.046432 Y118.685068 Z-0.125000
G01 X197.042543 Y121.250198 Z-0.125000
G01 X200.092653 Y123.203908 Z-0.125000
G01 X202.051624 Y125.115896 Z-0.125000
G01 X202.861861 Y127.008745 Z-0.125000
G01 X202.727441 Y129.271113 Z-0.125000
G01 X202.227948 Y129.892327 Z-0.125000
G01 X201.324742 Y130.351277 Z-0.125000
G01 X198.861199 Y130.814671 Z-0.125000
G01 X186.643616 Y131.963042 Z-0.125000
G01 X177.629157 Y133.782968 Z-0.125000
G01 X168.318466 Y136.879154 Z-0.125000
G01 X158.781657 Y141.435454 Z-0.125000
G01 X152.110018 Y145.468496 Z-0.125000
G01 X145.005551 Y150.469142 Z-0.125000
G01 X122.743865 Y168.457426 Z-0.125000
G01 X113.507006 Y175.363801 Z-0.125000
G01 X104.328468 Y181.266020 Z-0.125000
G01 X94.702499 Y186.387298 Z-0.125000
G01 X84.209333 Y190.900333 Z-0.125000
G01 X72.953640 Y194.722766 Z-0.125000
G01 X63.883127 Y196.823504 Z-0.125000
G01 X59.910401 Y197.260866 Z-0.125000
G01 X56.902377 Y197.240731 Z-0.125000
G01 X53.833582 Y196.680195 Z-0.125000
G01 X51.494662 Y195.554590 Z-0.125000
G01 X49.674918 Y193.730492 Z-0.125000
G01 X48.510492 Y191.389486 Z-0.125000
G01 X47.647921 Y187.293406 Z-0.125000
G01 X46.640590 Y175.494865 Z-0.125000
G01 X45.315078 Y169.150113 Z-0.125000
G01 X42.845005 Y161.802748 Z-0.125000
G01 X33.754537 Y139.758383 Z-0.125000
G01 X28.741647 Y126.120777 Z-0.125000
G01 X27.296319 Y121.163668 Z-0.125000
G01 X26.562997 Y117.527717 Z-0.125000
G01 X26.373249 Y114.432891 Z-0.125000
G01 X26.826666 Y111.939689 Z-0.125000
G01 X27.852772 Y110.234682 Z-0.125000
G01 X29.292840 Y109.145447 Z-0.125000
G01 X31.247004 Y108.438248 Z-0.125000
G01 X34.061471 Y108.056667 Z-0.125000
G01 X39.679159 Y108.173037 Z-0.125000
G01 X57.563863 Y109.997769 Z-0.125000
G01 X67.413955 Y110.520392 Z-0.125000
G01 X77.104231 Y110.136361 Z-0.125000
G01 X85.484687 Y108.674163 Z-0.125000
G01 X91.897918 Y106.468846 Z-0.125000
G01 X97.789434 Y103.198513 Z-0.125000
G01 X102.047234 Y99.847546 Z-0.125000
G01 X109.799401 Y92.450839 Z-0.125000
G01 X113.918881 Y89.520092 Z-0.125000
G01 X116.071137 Y88.507863 Z-0.125000
G01 X118.317995 Y87.833860 Z-0.125000
G01 X120.683581 Y87.510691 Z-0.125000
G01 X123.190026 Y87.540169 Z-0.125000
G01 X126.251746 Y87.993948 Z-0.125000
G01 X129.544119 Y88.869309 Z-0.125000
G01 X137.842853 Y92.158326 Z-0.125000
G01 X169.834633 Y108.184193 Z-0.125000
G01 X193.124873 Y119.302564 Z-0.125000
G01 X197.710741 Y121.731369 Z-0.125000
G01 X200.709151 Y123.717097 Z-0.125000
G01 X202.504678 Y125.522873 Z-0.125000
G01 X203.317636 Y127.448557 Z-0.125000
G01 X203.182581 Y129.740584 Z-0.125000
G01 X202.679369 Y130.361254 Z-0.125000
G01 X201.764826 Y130.811133 Z-0.125000
G01 X199.263823 Y131.245140 Z-0.125000
G01 X187.332675 Y132.244580 Z-0.125000
G01 X178.285654 Y133.990312 Z-0.125000
G01 X168.935146 Y137.046589 Z-0.125000
G01 X159.374301 Y141.604884 Z-0.125000
G01 X152.705382 Y145.665772 Z-0.125000
G01 X145.626040 Y150.719841 Z-0.125000
G01 X122.978419 Y169.457319 Z-0.125000
G01 X114.342639 Y176.063472 Z-0.125000
G01 X105.152309 Y182.114714 Z-0.125000
G01 X95.451058 Y187.377759 Z-0.125000
G01 X84.148744 Y192.277454 Z-0.125000
G01 X72.728156 Y196.145329 Z-0.125000
G01 X63.548166 Y198.245159 Z-0.125000
G01 X59.542788 Y198.659937 Z-0.125000
G01 X56.520977 Y198.605697 Z-0.125000
G01 X53.726101 Y198.073189 Z-0.125000
G01 X51.336025 Y196.924092 Z-0.125000
G01 X49.625758 Y195.243302 Z-0.125000
G01 X48.405097 Y192.873181 Z-0.125000
G01 X47.498173 Y188.406677 Z-0.125000
G01 X46.618006 Y175.967691 Z-0.125000
G01 X45.293582 Y169.495505 Z-0.125000
G01 X42.762375 Y162.011270 Z-0.125000
G01 X33.365519 Y139.410724 Z-0.125000
G01 X28.004697 Y124.876897 Z-0.125000
G01 X26.522816 Y119.790992 Z-0.125000
G01 X25.776796 Y116.070688 Z-0.125000
G01 X25.594396 Y112.915546 Z-0.125000
G01 X26.077562 Y110.387242 Z-0.125000
G01 X27.150833 Y108.671804 Z-0.125000
G01 X28.649041 Y107.588375 Z-0.125000
G01 X30.675856 Y106.899134 Z-0.125000
G01 X33.587647 Y106.549117 Z-0.125000
G01 X39.382384 Y106.728434 Z-0.125000
G01 X57.104278 Y108.631714 Z-0.125000
G01 X67.127882 Y109.221455 Z-0.125000
G01 X76.978156 Y108.890848 Z-0.125000
G01 X85.475617 Y107.455951 Z-0.125000
G01 X91.953155 Y105.251814 Z-0.125000
G01 X97.869886 Y101.957444 Z-0.125000
G01 X102.114444 Y98.567385 Z-0.125000
G01 X110.056086 Y90.818302 Z-0.125000
G01 X113.831264 Y88.107869 Z-0.125000
G01 X115.953951 Y87.098543 Z-0.125000
G01 X118.172237 Y86.440322 Z-0.125000
G01 X120.511429 Y86.146450 Z-0.125000
G01 X122.994746 Y86.218467 Z-0.125000
G01 X128.890252 Y87.549058 Z-0.125000
G01 X136.626093 Y90.731048 Z-0.125000
G01 X169.258406 Y107.723974 Z-0.125000
G01 X194.527300 Y120.133209 Z-0.125000
G01 X198.615035 Y122.393671 Z-0.125000
G01 X201.462790 Y124.392188 Z-0.125000
G01 X203.015328 Y126.075427 Z-0.125000
G01 X203.738581 Y127.897711 Z-0.125000
G01 X203.602892 Y130.219397 Z-0.125000
G01 X203.095689 Y130.839523 Z-0.125000
G01 X202.169536 Y131.280332 Z-0.125000
G01 X199.873156 Y131.663637 Z-0.125000
G01 X187.525235 Y132.602307 Z-0.125000
G01 X178.379168 Y134.349762 Z-0.125000
G01 X168.964533 Y137.454111 Z-0.125000
G01 X163.883979 Y139.725549 Z-0.125000
G01 X159.384369 Y142.101112 Z-0.125000
G01 X152.731504 Y146.242724 Z-0.125000
G01 X145.693975 Y151.394932 Z-0.125000
G01 X123.781581 Y170.010508 Z-0.125000
G01 X114.603859 Y177.191255 Z-0.125000
G01 X105.372260 Y183.344354 Z-0.125000
G01 X95.573052 Y188.691933 Z-0.125000
G01 X84.113734 Y193.663554 Z-0.125000
G01 X72.528159 Y197.577324 Z-0.125000
G01 X63.239146 Y199.676429 Z-0.125000
G01 X59.201297 Y200.068350 Z-0.125000
G01 X56.165971 Y199.979372 Z-0.125000
G01 X53.372183 Y199.391807 Z-0.125000
G01 X51.001428 Y198.163074 Z-0.125000
G01 X49.325990 Y196.386957 Z-0.125000
G01 X48.237753 Y194.145814 Z-0.125000
G01 X47.365658 Y189.538631 Z-0.125000
G01 X46.659728 Y176.777021 Z-0.125000
G01 X45.389091 Y170.204790 Z-0.125000
G01 X42.854075 Y162.634390 Z-0.125000
G01 X33.193004 Y139.600199 Z-0.125000
G01 X27.415228 Y124.080356 Z-0.125000
G01 X25.851262 Y118.814409 Z-0.125000
G01 X24.991412 Y114.601233 Z-0.125000
G01 X24.819079 Y111.387498 Z-0.125000
G01 X25.335352 Y108.826360 Z-0.125000
G01 X26.301867 Y107.266747 Z-0.125000
G01 X27.794088 Y106.138330 Z-0.125000
G01 X29.828342 Y105.419702 Z-0.125000
G01 X32.765256 Y105.054266 Z-0.125000
G01 X38.633643 Y105.241927 Z-0.125000
G01 X57.275613 Y107.313912 Z-0.125000
G01 X67.482888 Y107.924696 Z-0.125000
G01 X76.854620 Y107.632819 Z-0.125000
G01 X85.469358 Y106.226038 Z-0.125000
G01 X92.011295 Y104.023987 Z-0.125000
G01 X97.952787 Y100.706761 Z-0.125000
G01 X102.183377 Y97.278426 Z-0.125000
G01 X110.022889 Y89.421953 Z-0.125000
G01 X113.741288 Y86.687393 Z-0.125000
G01 X115.833318 Y85.681151 Z-0.125000
G01 X118.022127 Y85.039166 Z-0.125000
G01 X122.431761 Y84.851051 Z-0.125000
G01 X125.034350 Y85.284150 Z-0.125000
G01 X128.234299 Y86.209759 Z-0.125000
G01 X135.893134 Y89.503766 Z-0.125000
G01 X168.644992 Y107.244072 Z-0.125000
G01 X195.516128 Y120.802041 Z-0.125000
G01 X199.470169 Y123.075475 Z-0.125000
G01 X201.999380 Y124.936941 Z-0.125000
G01 X203.487338 Y126.640406 Z-0.125000
G01 X204.125786 Y128.355027 Z-0.125000
G01 X203.989462 Y130.706373 Z-0.125000
G01 X203.478087 Y131.325864 Z-0.125000
G01 X202.682907 Y131.713432 Z-0.125000
G01 X200.208660 Y132.114242 Z-0.125000
G01 X188.157061 Y132.913231 Z-0.125000
G01 X178.982423 Y134.586039 Z-0.125000
G01 X169.531599 Y137.649392 Z-0.125000
G01 X164.437259 Y139.915478 Z-0.125000
G01 X159.932115 Y142.296302 Z-0.125000
G01 X152.741119 Y146.840356 Z-0.125000
G01 X145.752115 Y152.090250 Z-0.125000
G01 X124.038992 Y171.030083 Z-0.125000
G01 X115.477949 Y177.888931 Z-0.125000
G01 X105.615703 Y184.582883 Z-0.125000
G01 X95.720442 Y190.014089 Z-0.125000
G01 X84.104391 Y195.057364 Z-0.125000
G01 X72.353740 Y199.017573 Z-0.125000
G01 X62.955976 Y201.116315 Z-0.125000
G01 X58.886018 Y201.485017 Z-0.125000
G01 X55.837360 Y201.360846 Z-0.125000
G01 X53.044932 Y200.717228 Z-0.125000
G01 X50.895035 Y199.565047 Z-0.125000
G01 X49.187851 Y197.744396 Z-0.125000
G01 X48.091361 Y195.438220 Z-0.125000
G01 X47.249923 Y190.688908 Z-0.125000
G01 X46.717052 Y177.598867 Z-0.125000
G01 X45.407413 Y170.565329 Z-0.125000
G01 X42.807454 Y162.872028 Z-0.125000
G01 X32.827931 Y139.303968 Z-0.125000
G01 X26.674923 Y122.821782 Z-0.125000
G01 X25.076127 Y117.425769 Z-0.125000
G01 X24.206300 Y113.121166 Z-0.125000
G01 X24.047119 Y109.850652 Z-0.125000
G01 X24.600216 Y107.258856 Z-0.125000
G01 X25.613715 Y105.692713 Z-0.125000
G01 X27.168339 Y104.572096 Z-0.125000
G01 X29.279598 Y103.873241 Z-0.125000
G01 X32.318370 Y103.540820 Z-0.125000
G01 X37.887805 Y103.749887 Z-0.125000
G01 X56.830904 Y105.930986 Z-0.125000
G01 X67.211600 Y106.606350 Z-0.125000
G01 X76.732899 Y106.363632 Z-0.125000
G01 X85.465277 Y104.985332 Z-0.125000
G01 X92.071520 Y102.786275 Z-0.125000
G01 X95.204532 Y101.231197 Z-0.125000
G01 X98.037774 Y99.447462 Z-0.125000
G01 X102.573121 Y95.677000 Z-0.125000
G01 X109.988876 Y88.018529 Z-0.125000
G01 X113.649135 Y85.259661 Z-0.125000
G01 X115.709782 Y84.256774 Z-0.125000
G01 X117.868115 Y83.631388 Z-0.125000
G01 X122.227411 Y83.510755 Z-0.125000
G01 X127.578164 Y84.852502 Z-0.125000
G01 X134.673561 Y88.008098 Z-0.125000
G01 X168.594290 Y107.067385 Z-0.125000
G01 X196.462688 Y121.491917 Z-0.125000
G01 X200.027983 Y123.609706 Z-0.125000
G01 X202.499690 Y125.494211 Z-0.125000
G01 X203.921889 Y127.216633 Z-0.125000
G01 X204.498206 Y128.947399 Z-0.125000
G01 X204.343470 Y131.200152 Z-0.125000
G01 X203.827560 Y131.819281 Z-0.125000
G01 X203.022130 Y132.199229 Z-0.125000
G01 X200.752597 Y132.555051 Z-0.125000
G01 X188.287399 Y133.293271 Z-0.125000
G01 X179.561280 Y134.838008 Z-0.125000
G01 X174.590475 Y136.236716 Z-0.125000
G01 X170.075717 Y137.859093 Z-0.125000
G01 X164.968134 Y140.118831 Z-0.125000
G01 X160.458184 Y142.504099 Z-0.125000
G01 X153.278072 Y147.074729 Z-0.125000
G01 X146.326981 Y152.373420 Z-0.125000
G01 X124.856031 Y171.585358 Z-0.125000
G01 X115.778081 Y179.030137 Z-0.125000
G01 X105.882728 Y185.829031 Z-0.125000
G01 X95.893228 Y191.342866 Z-0.125000
G01 X84.120627 Y196.457705 Z-0.125000
G01 X72.204899 Y200.464806 Z-0.125000
G01 X62.698747 Y202.563639 Z-0.125000
G01 X58.596862 Y202.909121 Z-0.125000
G01 X55.535142 Y202.749214 Z-0.125000
G01 X52.744076 Y202.048454 Z-0.125000
G01 X50.610867 Y200.822805 Z-0.125000
G01 X49.074111 Y199.120338 Z-0.125000
G01 X47.965648 Y196.749945 Z-0.125000
G01 X47.150151 Y191.857234 Z-0.125000
G01 X46.754874 Y178.083576 Z-0.125000
G01 X45.442696 Y170.930039 Z-0.125000
G01 X42.939062 Y163.534965 Z-0.125000
G01 X32.691788 Y139.576526 Z-0.125000
G01 X26.090805 Y122.040570 Z-0.125000
G01 X24.298090 Y116.026426 Z-0.125000
G01 X23.421278 Y111.631848 Z-0.125000
G01 X23.278605 Y108.306640 Z-0.125000
G01 X23.872155 Y105.686636 Z-0.125000
G01 X24.935903 Y104.115959 Z-0.125000
G01 X26.556194 Y103.004865 Z-0.125000
G01 X28.747452 Y102.327325 Z-0.125000
G01 X31.507136 Y102.040436 Z-0.125000
G01 X37.633659 Y102.298119 Z-0.125000
G01 X56.387646 Y104.539444 Z-0.125000
G01 X66.941491 Y105.278117 Z-0.125000
G01 X77.233843 Y105.032407 Z-0.125000
G01 X85.462646 Y103.735012 Z-0.125000
G01 X92.133469 Y101.539945 Z-0.125000
G01 X95.284712 Y99.977975 Z-0.125000
G01 X98.124213 Y98.180725 Z-0.125000
G01 X102.642236 Y94.370082 Z-0.125000
G01 X109.954319 Y86.609118 Z-0.125000
G01 X113.555259 Y83.826033 Z-0.125000
G01 X115.583798 Y82.826593 Z-0.125000
G01 X117.710839 Y82.218168 Z-0.125000
G01 X119.633983 Y82.019441 Z-0.125000
G01 X122.018344 Y82.166014 Z-0.125000
G01 X127.329280 Y83.632113 Z-0.125000
G01 X133.932802 Y86.727121 Z-0.125000
G01 X167.920650 Y106.559094 Z-0.125000
G01 X197.366529 Y122.200749 Z-0.125000
G01 X200.796043 Y124.323709 Z-0.125000
G01 X202.964716 Y126.062547 Z-0.125000
G01 X204.243607 Y127.662431 Z-0.125000
G01 X204.821557 Y129.419137 Z-0.125000
G01 X204.666186 Y131.699645 Z-0.125000
G01 X204.145559 Y132.318411 Z-0.125000
G01 X203.329518 Y132.691013 Z-0.125000
G01 X201.025609 Y133.021620 Z-0.125000
G01 X189.810096 Y133.536713 Z-0.125000
G01 X181.737209 Y134.745402 Z-0.125000
G01 X173.435392 Y137.035433 Z-0.125000
G01 X164.909904 Y140.614968 Z-0.125000
G01 X157.623853 Y144.741705 Z-0.125000
G01 X150.041751 Y150.116313 Z-0.125000
G01 X142.229087 Y156.704053 Z-0.125000
G01 X127.281480 Y170.676710 Z-0.125000
G01 X120.150981 Y176.932030 Z-0.125000
G01 X111.870479 Y183.301815 Z-0.125000
