%
(Header)
(Generated by gcodetools from Inkscape.)
(Using default header. To add your own header create file "header" in the output dir.)
M3
(Header end.)
G21 (All units in mm)

(Start cutting path id: polyline375)
(Change tool to Default tool)

G00 Z3.000000
G00 X16.048917 Y204.174027

G00 Z4.875000 (Fast pre-penetrate)
G01 Z-0.125000 F400.0(Penetrate)
G01 X17.324022 Y203.865497 Z-0.125000 F800.000000
G01 X18.599101 Y203.438275 Z-0.125000
G01 X19.874205 Y202.874290 Z-0.125000
G01 X21.058241 Y202.218944 Z-0.125000
G01 X23.221339 Y200.707778 Z-0.125000
G01 X27.615878 Y197.089024 Z-0.125000
G01 X28.617748 Y196.380312 Z-0.125000
G01 X29.118683 Y196.237172 Z-0.125000
G01 X29.543709 Y196.295513 Z-0.125000
G01 X30.712557 Y196.741573 Z-0.125000
G01 X31.987635 Y197.553420 Z-0.125000
G01 X33.262740 Y198.077506 Z-0.125000
G01 X34.355680 Y198.819000 Z-0.125000
G01 X35.721854 Y199.489638 Z-0.125000
G01 X36.905889 Y200.273201 Z-0.125000
G01 X37.725594 Y200.639516 Z-0.125000
G01 X38.636368 Y201.327008 Z-0.125000
G01 X39.638238 Y201.879802 Z-0.125000
G01 X41.277647 Y203.036188 Z-0.125000
G01 X42.082191 Y203.369113 Z-0.125000
G01 X42.932243 Y203.497488 Z-0.125000
G01 X43.569783 Y203.439121 Z-0.125000
G01 X44.192161 Y203.257168 Z-0.125000
G01 X44.829700 Y202.950807 Z-0.125000
G01 X45.535581 Y202.485591 Z-0.125000
G01 X46.730967 Y201.462448 Z-0.125000
G01 X49.599947 Y198.619530 Z-0.125000
G01 X50.931963 Y197.568289 Z-0.125000
G01 X52.176721 Y196.943609 Z-0.125000
G01 X53.345542 Y196.729535 Z-0.125000
G01 X53.983108 Y196.767291 Z-0.125000
G01 X54.620647 Y196.907864 Z-0.125000
G01 X55.941287 Y197.483173 Z-0.125000
G01 X57.125296 Y198.242050 Z-0.125000
G01 X60.313045 Y200.605279 Z-0.125000
G01 X61.952480 Y201.561905 Z-0.125000
G01 X63.440072 Y202.105200 Z-0.125000
G01 X64.927690 Y202.308135 Z-0.125000
G01 X66.309051 Y202.214764 Z-0.125000
G01 X67.902926 Y201.838897 Z-0.125000
G01 X69.390543 Y201.313726 Z-0.125000
G01 X73.959654 Y199.472387 Z-0.125000
G01 X76.934890 Y198.580795 Z-0.125000
G01 X80.122639 Y198.038718 Z-0.125000
G01 X83.841670 Y197.815516 Z-0.125000
G01 X96.167613 Y197.922804 Z-0.125000
G01 X113.593976 Y197.802154 Z-0.125000
G01 X131.764134 Y197.868141 Z-0.125000
G01 X136.120704 Y198.156563 Z-0.125000
G01 X146.108977 Y199.499613 Z-0.125000
G01 X149.721779 Y200.387765 Z-0.125000
G01 X151.953192 Y200.828058 Z-0.125000
G01 X155.778480 Y202.009315 Z-0.125000
G01 X157.053585 Y202.239952 Z-0.125000
G01 X158.222434 Y202.310252 Z-0.125000
G01 X159.178742 Y202.243391 Z-0.125000
G01 X160.028821 Y202.077921 Z-0.125000
G01 X160.878873 Y201.806777 Z-0.125000
G01 X161.774487 Y201.406754 Z-0.125000
G01 X163.504992 Y200.338949 Z-0.125000
G01 X166.965949 Y197.740586 Z-0.125000
G01 X167.679397 Y197.501376 Z-0.125000
G01 X169.698324 Y198.315313 Z-0.125000
G01 X170.791264 Y199.051224 Z-0.125000
G01 X172.248508 Y199.697124 Z-0.125000
G01 X172.886073 Y200.174934 Z-0.125000
G00 Z3.000000

(End cutting path id: polyline375)


(Start cutting path id: polyline373)
(Change tool to Default tool)

G00 Z3.000000
G00 X16.048917 Y201.013028

G00 Z4.875000 (Fast pre-penetrate)
G01 Z-0.125000 F400.0(Penetrate)
G01 X17.688327 Y200.319106 Z-0.125000 F800.000000
G01 X19.418805 Y199.376661 Z-0.125000
G01 X21.058241 Y198.311027 Z-0.125000
G01 X24.519198 Y195.859956 Z-0.125000
G01 X26.249703 Y194.837581 Z-0.125000
G01 X28.162347 Y195.514940 Z-0.125000
G01 X29.437452 Y196.266091 Z-0.125000
G01 X30.712557 Y196.741573 Z-0.125000
G01 X32.078731 Y197.600568 Z-0.125000
G01 X33.262740 Y198.077506 Z-0.125000
G01 X34.355680 Y198.819000 Z-0.125000
G01 X35.721854 Y199.489638 Z-0.125000
G01 X36.905889 Y200.273201 Z-0.125000
G01 X37.725594 Y200.639516 Z-0.125000
G01 X38.636368 Y201.327008 Z-0.125000
G01 X39.365003 Y201.755686 Z-0.125000
G01 X40.169521 Y202.060485 Z-0.125000
G01 X40.913343 Y202.172483 Z-0.125000
G01 X41.550882 Y202.134780 Z-0.125000
G01 X42.082191 Y202.010082 Z-0.125000
G01 X43.281387 Y201.439588 Z-0.125000
G01 X44.658939 Y200.380912 Z-0.125000
G01 X47.607610 Y197.544609 Z-0.125000
G01 X48.928250 Y196.464475 Z-0.125000
G01 X49.656885 Y196.007858 Z-0.125000
G01 X50.370333 Y195.679061 Z-0.125000
G01 X51.114129 Y195.471390 Z-0.125000
G01 X51.751668 Y195.406223 Z-0.125000
G01 X53.026773 Y195.578228 Z-0.125000
G01 X54.392947 Y196.151341 Z-0.125000
G01 X55.668052 Y196.946943 Z-0.125000
G01 X58.855801 Y199.244555 Z-0.125000
G01 X60.495210 Y200.186629 Z-0.125000
G01 X62.058737 Y200.760245 Z-0.125000
G01 X63.546328 Y200.980246 Z-0.125000
G01 X65.033946 Y200.905871 Z-0.125000
G01 X66.627821 Y200.565459 Z-0.125000
G01 X68.221695 Y200.044098 Z-0.125000
G01 X73.322088 Y198.130713 Z-0.125000
G01 X75.128476 Y197.596864 Z-0.125000
G01 X76.828633 Y197.207054 Z-0.125000
G01 X78.847534 Y196.879130 Z-0.125000
G01 X80.972691 Y196.665453 Z-0.125000
G01 X86.391853 Y196.485060 Z-0.125000
G01 X104.030729 Y196.520885 Z-0.125000
G01 X119.331908 Y196.993377 Z-0.125000
G01 X136.120704 Y198.156563 Z-0.125000
G01 X146.002721 Y199.482918 Z-0.125000
G01 X151.103114 Y200.676002 Z-0.125000
G01 X152.696988 Y200.911348 Z-0.125000
G01 X154.184606 Y200.987337 Z-0.125000
G01 X155.353454 Y200.916719 Z-0.125000
G01 X156.416046 Y200.734131 Z-0.125000
G01 X157.478611 Y200.427849 Z-0.125000
G01 X158.495669 Y200.015814 Z-0.125000
G01 X160.135078 Y199.125334 Z-0.125000
G01 X164.324697 Y196.298211 Z-0.125000
G01 X164.704188 Y196.177271 Z-0.125000
G01 X166.783810 Y196.913473 Z-0.125000
G01 X168.332150 Y197.800964 Z-0.125000
G01 X169.592068 Y198.262343 Z-0.125000
G01 X170.791264 Y199.051224 Z-0.125000
G01 X172.248508 Y199.697124 Z-0.125000
G01 X172.886073 Y200.174934 Z-0.125000
G00 Z3.000000

(End cutting path id: polyline373)


(Start cutting path id: polyline371)
(Change tool to Default tool)

G00 Z3.000000
G00 X16.048917 Y197.238116

G00 Z4.875000 (Fast pre-penetrate)
G01 Z-0.125000 F400.0(Penetrate)
G01 X18.052631 Y196.249634 Z-0.125000 F800.000000
G01 X21.877945 Y194.110560 Z-0.125000
G01 X22.879789 Y193.594200 Z-0.125000
G01 X23.168211 Y193.527022 Z-0.125000
G01 X23.699494 Y193.614890 Z-0.125000
G01 X24.974598 Y194.052854 Z-0.125000
G01 X26.705104 Y194.962808 Z-0.125000
G01 X28.162347 Y195.514940 Z-0.125000
G01 X29.437452 Y196.266091 Z-0.125000
G01 X30.712557 Y196.741573 Z-0.125000
G01 X32.078731 Y197.600568 Z-0.125000
G01 X33.262740 Y198.077506 Z-0.125000
G01 X34.264610 Y198.765607 Z-0.125000
G01 X35.721854 Y199.489638 Z-0.125000
G01 X37.088028 Y200.369006 Z-0.125000
G01 X37.938107 Y200.705926 Z-0.125000
G01 X38.788186 Y200.847848 Z-0.125000
G01 X39.957008 Y200.710874 Z-0.125000
G01 X41.277647 Y200.117255 Z-0.125000
G01 X42.666602 Y199.086810 Z-0.125000
G01 X45.774659 Y196.187272 Z-0.125000
G01 X47.106675 Y195.132221 Z-0.125000
G01 X47.835310 Y194.688197 Z-0.125000
G01 X48.563919 Y194.359823 Z-0.125000
G01 X49.307741 Y194.153925 Z-0.125000
G01 X50.051537 Y194.082540 Z-0.125000
G01 X51.326642 Y194.262880 Z-0.125000
G01 X52.753538 Y194.856896 Z-0.125000
G01 X54.028643 Y195.637945 Z-0.125000
G01 X57.307461 Y197.939076 Z-0.125000
G01 X58.977245 Y198.868635 Z-0.125000
G01 X60.464862 Y199.408834 Z-0.125000
G01 X62.058737 Y199.654950 Z-0.125000
G01 X63.546328 Y199.596530 Z-0.125000
G01 X65.246486 Y199.259292 Z-0.125000
G01 X66.840334 Y198.767485 Z-0.125000
G01 X72.472036 Y196.786526 Z-0.125000
G01 X74.490936 Y196.249317 Z-0.125000
G01 X76.616094 Y195.832545 Z-0.125000
G01 X78.953790 Y195.530101 Z-0.125000
G01 X81.716486 Y195.329758 Z-0.125000
G01 X89.685859 Y195.192096 Z-0.125000
G01 X98.186514 Y195.307401 Z-0.125000
G01 X105.305834 Y195.693719 Z-0.125000
G01 X121.457091 Y197.173875 Z-0.125000
G01 X135.801935 Y198.124178 Z-0.125000
G01 X145.577695 Y199.441881 Z-0.125000
G01 X147.596595 Y199.621903 Z-0.125000
G01 X149.296726 Y199.662226 Z-0.125000
G01 X150.678088 Y199.586766 Z-0.125000
G01 X151.953192 Y199.408570 Z-0.125000
G01 X153.228297 Y199.109829 Z-0.125000
G01 X154.503376 Y198.681019 Z-0.125000
G01 X156.583024 Y197.710212 Z-0.125000
G01 X161.136948 Y195.007681 Z-0.125000
G01 X161.516439 Y194.891609 Z-0.125000
G01 X163.960366 Y195.607782 Z-0.125000
G01 X165.341727 Y196.408146 Z-0.125000
G01 X166.874880 Y196.954615 Z-0.125000
G01 X168.241054 Y197.757175 Z-0.125000
G01 X169.698324 Y198.315313 Z-0.125000
G01 X170.791264 Y199.051224 Z-0.125000
G01 X172.248508 Y199.697124 Z-0.125000
G01 X172.886073 Y200.174934 Z-0.125000
G00 Z3.000000

(End cutting path id: polyline371)


(Start cutting path id: polyline369)
(Change tool to Default tool)

G00 Z3.000000
G00 X16.048917 Y193.530673

G00 Z4.875000 (Fast pre-penetrate)
G01 Z-0.125000 F400.0(Penetrate)
G01 X19.661692 Y192.090072 Z-0.125000 F800.000000
G01 X19.980462 Y192.063825 Z-0.125000
G01 X21.999363 Y192.781136 Z-0.125000
G01 X23.699494 Y193.614890 Z-0.125000
G01 X25.065694 Y194.092409 Z-0.125000
G01 X26.796173 Y195.003686 Z-0.125000
G01 X28.162347 Y195.514940 Z-0.125000
G01 X29.437452 Y196.266091 Z-0.125000
G01 X30.712557 Y196.741573 Z-0.125000
G01 X32.078731 Y197.600568 Z-0.125000
G01 X33.262740 Y198.077506 Z-0.125000
G01 X34.173541 Y198.710520 Z-0.125000
G01 X34.993245 Y199.142426 Z-0.125000
G01 X35.919206 Y199.443468 Z-0.125000
G01 X36.769259 Y199.528691 Z-0.125000
G01 X37.938107 Y199.337503 Z-0.125000
G01 X39.182838 Y198.763490 Z-0.125000
G01 X40.594573 Y197.738019 Z-0.125000
G01 X43.702603 Y194.913172 Z-0.125000
G01 X45.011866 Y193.885823 Z-0.125000
G01 X45.831570 Y193.386132 Z-0.125000
G01 X46.545019 Y193.063340 Z-0.125000
G01 X47.288841 Y192.848287 Z-0.125000
G01 X47.926380 Y192.766081 Z-0.125000
G01 X49.201485 Y192.879164 Z-0.125000
G01 X50.476590 Y193.324272 Z-0.125000
G01 X52.480303 Y194.541804 Z-0.125000
G01 X55.668052 Y196.686752 Z-0.125000
G01 X57.398531 Y197.606521 Z-0.125000
G01 X59.083501 Y198.156775 Z-0.125000
G01 X60.783632 Y198.341692 Z-0.125000
G01 X62.164993 Y198.245331 Z-0.125000
G01 X63.758868 Y197.919920 Z-0.125000
G01 X70.771905 Y195.604237 Z-0.125000
G01 X72.790805 Y195.072557 Z-0.125000
G01 X74.809706 Y194.669095 Z-0.125000
G01 X77.147403 Y194.347573 Z-0.125000
G01 X79.803842 Y194.129636 Z-0.125000
G01 X86.604366 Y193.964616 Z-0.125000
G01 X93.192377 Y194.083017 Z-0.125000
G01 X98.824079 Y194.445866 Z-0.125000
G01 X103.393190 Y194.956617 Z-0.125000
G01 X114.762797 Y196.516016 Z-0.125000
G01 X122.413400 Y197.248197 Z-0.125000
G01 X137.820835 Y198.228027 Z-0.125000
G01 X141.114841 Y198.337961 Z-0.125000
G01 X143.771307 Y198.294702 Z-0.125000
G01 X145.471438 Y198.162887 Z-0.125000
G01 X147.065312 Y197.938282 Z-0.125000
G01 X148.552930 Y197.622264 Z-0.125000
G01 X150.040548 Y197.191126 Z-0.125000
G01 X152.757710 Y196.103134 Z-0.125000
G01 X157.402729 Y193.762951 Z-0.125000
G01 X158.116177 Y193.592215 Z-0.125000
G01 X159.284999 Y193.975173 Z-0.125000
G01 X160.666360 Y194.314342 Z-0.125000
G01 X162.366491 Y195.157118 Z-0.125000
G01 X163.960366 Y195.607782 Z-0.125000
G01 X165.235471 Y196.358087 Z-0.125000
G01 X166.783810 Y196.913473 Z-0.125000
G01 X168.241054 Y197.757175 Z-0.125000
G01 X169.698324 Y198.315313 Z-0.125000
G01 X170.518029 Y198.892818 Z-0.125000
G01 X171.292199 Y199.286994 Z-0.125000
G01 X172.142251 Y199.509323 Z-0.125000
G01 X172.886073 Y199.498184 Z-0.125000
G00 Z3.000000

(End cutting path id: polyline369)


(Start cutting path id: polyline367)
(Change tool to Default tool)

G00 Z3.000000
G00 X16.048917 Y190.590733

G00 Z4.875000 (Fast pre-penetrate)
G01 Z-0.125000 F400.0(Penetrate)
G01 X17.430279 Y191.088122 Z-0.125000 F800.000000
G01 X18.599101 Y191.398028 Z-0.125000
G01 X20.192975 Y192.156456 Z-0.125000
G01 X21.893106 Y192.737453 Z-0.125000
G01 X23.699494 Y193.614890 Z-0.125000
G01 X25.065694 Y194.092409 Z-0.125000
G01 X26.705104 Y194.962808 Z-0.125000
G01 X28.162347 Y195.514940 Z-0.125000
G01 X29.543709 Y196.317103 Z-0.125000
G01 X30.712557 Y196.741573 Z-0.125000
G01 X31.714401 Y197.401734 Z-0.125000
G01 X32.534105 Y197.813611 Z-0.125000
G01 X33.368997 Y198.088698 Z-0.125000
G01 X34.219076 Y198.203738 Z-0.125000
G01 X35.494180 Y198.048402 Z-0.125000
G01 X36.814793 Y197.488306 Z-0.125000
G01 X38.363133 Y196.407908 Z-0.125000
G01 X41.471190 Y193.653334 Z-0.125000
G01 X42.917056 Y192.542244 Z-0.125000
G01 X43.736761 Y192.056814 Z-0.125000
G01 X44.526118 Y191.714179 Z-0.125000
G01 X45.269914 Y191.514207 Z-0.125000
G01 X46.013736 Y191.437557 Z-0.125000
G01 X47.182584 Y191.553153 Z-0.125000
G01 X48.472850 Y192.178813 Z-0.125000
G01 X50.567659 Y193.375151 Z-0.125000
G01 X54.028643 Y195.536768 Z-0.125000
G01 X55.394817 Y196.239474 Z-0.125000
G01 X57.064600 Y196.801819 Z-0.125000
G01 X58.658475 Y197.012956 Z-0.125000
G01 X60.252349 Y196.934428 Z-0.125000
G01 X61.952480 Y196.600841 Z-0.125000
G01 X68.965517 Y194.343128 Z-0.125000
G01 X70.878161 Y193.845659 Z-0.125000
G01 X72.897062 Y193.440636 Z-0.125000
G01 X75.128476 Y193.125755 Z-0.125000
G01 X77.572429 Y192.909459 Z-0.125000
G01 X83.735414 Y192.729225 Z-0.125000
G01 X90.004628 Y192.870539 Z-0.125000
G01 X95.530074 Y193.320277 Z-0.125000
G01 X99.992928 Y193.958478 Z-0.125000
G01 X110.512483 Y195.831699 Z-0.125000
G01 X113.700232 Y196.263234 Z-0.125000
G01 X116.994237 Y196.588803 Z-0.125000
G01 X121.244552 Y196.850476 Z-0.125000
G01 X126.026175 Y196.991816 Z-0.125000
G01 X131.126568 Y197.008696 Z-0.125000
G01 X135.376909 Y196.886776 Z-0.125000
G01 X137.927092 Y196.712892 Z-0.125000
G01 X140.158532 Y196.465798 Z-0.125000
G01 X142.283689 Y196.120861 Z-0.125000
G01 X144.302590 Y195.672049 Z-0.125000
G01 X147.809108 Y194.580036 Z-0.125000
G01 X153.759580 Y192.215802 Z-0.125000
G01 X155.353454 Y192.664032 Z-0.125000
G01 X156.841072 Y192.957295 Z-0.125000
G01 X158.753716 Y193.804120 Z-0.125000
G01 X160.666360 Y194.314342 Z-0.125000
G01 X162.366491 Y195.157118 Z-0.125000
G01 X163.960366 Y195.607782 Z-0.125000
G01 X165.235471 Y196.358087 Z-0.125000
G01 X166.783810 Y196.913473 Z-0.125000
G01 X168.241054 Y197.757175 Z-0.125000
G01 X169.167015 Y198.102985 Z-0.125000
G01 X170.123351 Y198.202892 Z-0.125000
G01 X170.973403 Y198.046047 Z-0.125000
G01 X171.884203 Y197.613427 Z-0.125000
G01 X172.886073 Y196.838622 Z-0.125000
G00 Z3.000000

(End cutting path id: polyline367)


(Start cutting path id: polyline365)
(Change tool to Default tool)

G00 Z3.000000
G00 X16.048917 Y190.590733

G00 Z4.875000 (Fast pre-penetrate)
G01 Z-0.125000 F400.0(Penetrate)
G01 X17.430279 Y191.088122 Z-0.125000 F800.000000
G01 X18.599101 Y191.398028 Z-0.125000
G01 X20.299232 Y192.200667 Z-0.125000
G01 X21.999363 Y192.781136 Z-0.125000
G01 X23.699494 Y193.614890 Z-0.125000
G01 X25.065694 Y194.092409 Z-0.125000
G01 X26.796173 Y195.003686 Z-0.125000
G01 X28.162347 Y195.514940 Z-0.125000
G01 X29.073148 Y196.076200 Z-0.125000
G01 X29.968735 Y196.501967 Z-0.125000
G01 X30.925070 Y196.789225 Z-0.125000
G01 X31.775122 Y196.882596 Z-0.125000
G01 X32.412688 Y196.846851 Z-0.125000
G01 X33.156484 Y196.689953 Z-0.125000
G01 X34.537845 Y196.086783 Z-0.125000
G01 X36.052027 Y195.039326 Z-0.125000
G01 X39.319468 Y192.217918 Z-0.125000
G01 X40.731178 Y191.173583 Z-0.125000
G01 X41.550882 Y190.706858 Z-0.125000
G01 X42.294704 Y190.393618 Z-0.125000
G01 X43.038500 Y190.195022 Z-0.125000
G01 X43.782322 Y190.113557 Z-0.125000
G01 X44.419861 Y190.143773 Z-0.125000
G01 X44.829700 Y190.253919 Z-0.125000
G01 X48.563919 Y192.226464 Z-0.125000
G01 X52.115999 Y194.319131 Z-0.125000
G01 X53.345542 Y194.932037 Z-0.125000
G01 X55.045673 Y195.490731 Z-0.125000
G01 X56.745804 Y195.694116 Z-0.125000
G01 X58.233422 Y195.607888 Z-0.125000
G01 X59.933553 Y195.273667 Z-0.125000
G01 X66.840334 Y193.063314 Z-0.125000
G01 X68.753004 Y192.563993 Z-0.125000
G01 X70.665648 Y192.174527 Z-0.125000
G01 X72.897062 Y191.850307 Z-0.125000
G01 X75.234759 Y191.634169 Z-0.125000
G01 X81.078947 Y191.447162 Z-0.125000
G01 X87.241932 Y191.602922 Z-0.125000
G01 X90.004628 Y191.808476 Z-0.125000
G01 X92.554838 Y192.096713 Z-0.125000
G01 X96.911435 Y192.819739 Z-0.125000
G01 X106.155886 Y194.762360 Z-0.125000
G01 X110.831253 Y195.424294 Z-0.125000
G01 X113.381462 Y195.613762 Z-0.125000
G01 X116.037902 Y195.692502 Z-0.125000
G01 X122.413400 Y195.530894 Z-0.125000
G01 X130.170259 Y194.936429 Z-0.125000
G01 X133.464265 Y194.545614 Z-0.125000
G01 X136.439500 Y194.082593 Z-0.125000
G01 X138.989684 Y193.578669 Z-0.125000
G01 X141.539893 Y192.963116 Z-0.125000
G01 X148.659187 Y190.874551 Z-0.125000
G01 X150.784344 Y191.359002 Z-0.125000
G01 X152.378219 Y191.604244 Z-0.125000
G01 X154.715915 Y192.489407 Z-0.125000
G01 X156.841072 Y192.957295 Z-0.125000
G01 X158.753716 Y193.804120 Z-0.125000
G01 X160.772617 Y194.356596 Z-0.125000
G01 X162.472748 Y195.197811 Z-0.125000
G01 X163.960366 Y195.607782 Z-0.125000
G01 X164.962236 Y196.219207 Z-0.125000
G01 X165.766753 Y196.587215 Z-0.125000
G01 X166.616832 Y196.823726 Z-0.125000
G01 X167.360628 Y196.882173 Z-0.125000
G01 X167.998193 Y196.811132 Z-0.125000
G01 X168.635733 Y196.623358 Z-0.125000
G01 X169.857709 Y195.938458 Z-0.125000
G01 X171.185942 Y194.758550 Z-0.125000
G01 X172.886073 Y192.810293 Z-0.125000
G00 Z3.000000

(End cutting path id: polyline365)


(Start cutting path id: polyline363)
(Change tool to Default tool)

G00 Z3.000000
G00 X16.048917 Y190.590733

G00 Z4.875000 (Fast pre-penetrate)
G01 Z-0.125000 F400.0(Penetrate)
G01 X17.430279 Y191.088122 Z-0.125000 F800.000000
G01 X18.599101 Y191.398028 Z-0.125000
G01 X20.299232 Y192.200667 Z-0.125000
G01 X21.893106 Y192.737453 Z-0.125000
G01 X23.699494 Y193.614890 Z-0.125000
G01 X25.065694 Y194.092409 Z-0.125000
G01 X27.206039 Y195.171485 Z-0.125000
G01 X28.268604 Y195.472712 Z-0.125000
G01 X29.224939 Y195.560184 Z-0.125000
G01 X30.606300 Y195.356428 Z-0.125000
G01 X32.078731 Y194.721614 Z-0.125000
G01 X33.581510 Y193.704742 Z-0.125000
G01 X36.848951 Y190.950963 Z-0.125000
G01 X38.272064 Y189.905807 Z-0.125000
G01 X39.850751 Y189.105417 Z-0.125000
G01 X40.594573 Y188.893830 Z-0.125000
G01 X41.338369 Y188.791304 Z-0.125000
G01 X41.869652 Y188.824562 Z-0.125000
G01 X42.279517 Y188.947408 Z-0.125000
G01 X46.651275 Y191.185833 Z-0.125000
G01 X50.021189 Y193.084110 Z-0.125000
G01 X51.220385 Y193.662462 Z-0.125000
G01 X52.920516 Y194.194671 Z-0.125000
G01 X54.620647 Y194.372841 Z-0.125000
G01 X56.108265 Y194.267008 Z-0.125000
G01 X57.702140 Y193.942576 Z-0.125000
G01 X64.502664 Y191.739393 Z-0.125000
G01 X66.415308 Y191.231130 Z-0.125000
G01 X68.327952 Y190.835049 Z-0.125000
G01 X70.559392 Y190.506595 Z-0.125000
G01 X72.897062 Y190.289161 Z-0.125000
G01 X78.741277 Y190.105249 Z-0.125000
G01 X84.160440 Y190.232435 Z-0.125000
G01 X88.835806 Y190.633198 Z-0.125000
G01 X93.511173 Y191.415306 Z-0.125000
G01 X101.480519 Y193.311704 Z-0.125000
G01 X104.774525 Y193.947921 Z-0.125000
G01 X106.687195 Y194.194644 Z-0.125000
G01 X108.599839 Y194.335932 Z-0.125000
G01 X110.512483 Y194.371994 Z-0.125000
G01 X112.531384 Y194.306325 Z-0.125000
G01 X117.631777 Y193.796050 Z-0.125000
G01 X126.026175 Y192.520548 Z-0.125000
G01 X133.251752 Y191.274865 Z-0.125000
G01 X142.389946 Y189.468345 Z-0.125000
G01 X144.940155 Y189.988515 Z-0.125000
G01 X146.959056 Y190.261301 Z-0.125000
G01 X150.040548 Y191.193929 Z-0.125000
G01 X152.484475 Y191.632132 Z-0.125000
G01 X154.397119 Y192.388204 Z-0.125000
G01 X155.459711 Y192.689299 Z-0.125000
G01 X156.841072 Y192.957295 Z-0.125000
G01 X158.753716 Y193.804120 Z-0.125000
G01 X160.666360 Y194.314342 Z-0.125000
G01 X161.774487 Y194.898991 Z-0.125000
G01 X162.685261 Y195.273032 Z-0.125000
G01 X163.535340 Y195.491022 Z-0.125000
G01 X164.385392 Y195.559813 Z-0.125000
G01 X165.129214 Y195.483560 Z-0.125000
G01 X165.766753 Y195.311026 Z-0.125000
G01 X166.419480 Y195.030224 Z-0.125000
G01 X167.148115 Y194.594879 Z-0.125000
G01 X168.024758 Y193.912572 Z-0.125000
G01 X169.060759 Y192.918666 Z-0.125000
G01 X172.106823 Y189.474775 Z-0.125000
G01 X172.248508 Y189.397358 Z-0.125000
G01 X172.430673 Y189.433473 Z-0.125000
G01 X172.886073 Y189.788041 Z-0.125000
G00 Z3.000000

(End cutting path id: polyline363)


(Start cutting path id: polyline355)
(Change tool to Default tool)

G00 Z3.000000
G00 X16.048917 Y190.221163

G00 Z4.875000 (Fast pre-penetrate)
G01 Z-0.125000 F400.0(Penetrate)
G01 X17.217739 Y190.266328 Z-0.125000 F800.000000
G01 X18.386588 Y190.161632 Z-0.125000
G01 X19.555436 Y189.890382 Z-0.125000
G01 X20.693910 Y189.460831 Z-0.125000
G01 X21.695780 Y188.953414 Z-0.125000
G01 X22.788719 Y188.279521 Z-0.125000
G01 X26.614008 Y185.462585 Z-0.125000
G01 X28.071278 Y184.519770 Z-0.125000
G01 X29.649965 Y183.800448 Z-0.125000
G01 X31.137583 Y183.484854 Z-0.125000
G01 X31.532262 Y183.568621 Z-0.125000
G01 X32.807340 Y184.276539 Z-0.125000
G01 X33.900306 Y184.729743 Z-0.125000
G01 X35.266480 Y185.502378 Z-0.125000
G01 X36.450489 Y186.012018 Z-0.125000
G01 X37.816663 Y186.767297 Z-0.125000
G01 X39.091768 Y187.332420 Z-0.125000
G01 X41.019599 Y188.346672 Z-0.125000
G01 X42.507217 Y188.860386 Z-0.125000
G01 X43.994835 Y189.074170 Z-0.125000
G01 X45.482453 Y188.999398 Z-0.125000
G01 X47.182584 Y188.621230 Z-0.125000
G01 X48.776459 Y188.071850 Z-0.125000
G01 X53.664339 Y186.131795 Z-0.125000
G01 X55.364469 Y185.597655 Z-0.125000
G01 X56.958344 Y185.210940 Z-0.125000
G01 X58.764731 Y184.903310 Z-0.125000
G01 X60.677376 Y184.706645 Z-0.125000
G01 X65.458999 Y184.571522 Z-0.125000
G01 X77.678685 Y184.590863 Z-0.125000
G01 X80.335152 Y184.702729 Z-0.125000
G01 X82.566565 Y184.924556 Z-0.125000
G01 X84.797979 Y185.306640 Z-0.125000
G01 X87.029419 Y185.868217 Z-0.125000
G01 X93.404917 Y188.076030 Z-0.125000
G01 X95.423817 Y188.663299 Z-0.125000
G01 X97.548974 Y189.026677 Z-0.125000
G01 X99.567875 Y189.049775 Z-0.125000
G01 X101.480519 Y188.758204 Z-0.125000
G01 X103.499446 Y188.151648 Z-0.125000
G01 X105.305834 Y187.416425 Z-0.125000
G01 X109.981200 Y185.284732 Z-0.125000
G01 X112.531384 Y184.350331 Z-0.125000
G01 X115.081593 Y183.749331 Z-0.125000
G01 X117.844290 Y183.481996 Z-0.125000
G01 X118.147899 Y183.527028 Z-0.125000
G01 X119.650677 Y184.175733 Z-0.125000
G01 X123.475992 Y185.474174 Z-0.125000
G01 X124.857353 Y185.837737 Z-0.125000
G01 X126.344945 Y186.111184 Z-0.125000
G01 X129.320180 Y186.936974 Z-0.125000
G01 X131.020311 Y187.269211 Z-0.125000
G01 X133.251752 Y187.577159 Z-0.125000
G01 X137.395809 Y188.515450 Z-0.125000
G01 X140.477302 Y188.909440 Z-0.125000
G01 X144.727642 Y189.950759 Z-0.125000
G01 X146.321517 Y190.181714 Z-0.125000
G01 X147.702852 Y190.266672 Z-0.125000
G01 X149.190470 Y190.209548 Z-0.125000
G01 X150.571831 Y189.994707 Z-0.125000
G01 X151.953192 Y189.606008 Z-0.125000
G01 X153.304180 Y189.048902 Z-0.125000
G01 X154.579284 Y188.365061 Z-0.125000
G01 X155.854389 Y187.542842 Z-0.125000
G01 X159.896001 Y184.410762 Z-0.125000
G01 X160.241334 Y184.265532 Z-0.125000
G01 X161.728952 Y184.804064 Z-0.125000
G01 X162.897800 Y185.095688 Z-0.125000
G01 X164.597931 Y185.964631 Z-0.125000
G01 X166.146245 Y186.446384 Z-0.125000
G01 X167.785680 Y187.340939 Z-0.125000
G01 X169.060759 Y187.692014 Z-0.125000
G01 X170.244794 Y188.476503 Z-0.125000
G01 X170.867146 Y188.770931 Z-0.125000
G01 X171.702038 Y189.027259 Z-0.125000
G01 X172.886073 Y189.788041 Z-0.125000
G00 Z3.000000

(End cutting path id: polyline355)


(Start cutting path id: polyline361)
(Change tool to Default tool)

G00 Z3.000000
G00 X16.048917 Y190.590733

G00 Z4.875000 (Fast pre-penetrate)
G01 Z-0.125000 F400.0(Penetrate)
G01 X17.430279 Y191.088122 Z-0.125000 F800.000000
G01 X18.599101 Y191.398028 Z-0.125000
G01 X20.086719 Y192.111265 Z-0.125000
G01 X21.893106 Y192.737453 Z-0.125000
G01 X23.517355 Y193.534668 Z-0.125000
G01 X24.443316 Y193.898470 Z-0.125000
G01 X25.824677 Y194.205281 Z-0.125000
G01 X27.099756 Y194.194221 Z-0.125000
G01 X28.587373 Y193.798934 Z-0.125000
G01 X30.074991 Y193.017832 Z-0.125000
G01 X31.509481 Y191.980402 Z-0.125000
G01 X34.720010 Y189.336795 Z-0.125000
G01 X36.177254 Y188.354186 Z-0.125000
G01 X37.513081 Y187.744137 Z-0.125000
G01 X38.894442 Y187.467039 Z-0.125000
G01 X39.638238 Y187.630419 Z-0.125000
G01 X41.550882 Y188.563524 Z-0.125000
G01 X48.670176 Y192.273375 Z-0.125000
G01 X50.157794 Y192.788888 Z-0.125000
G01 X51.539155 Y193.020875 Z-0.125000
G01 X53.239286 Y192.997644 Z-0.125000
G01 X55.045673 Y192.669032 Z-0.125000
G01 X56.745804 Y192.168335 Z-0.125000
G01 X62.164993 Y190.320170 Z-0.125000
G01 X64.183894 Y189.782379 Z-0.125000
G01 X66.096538 Y189.394236 Z-0.125000
G01 X68.221695 Y189.091156 Z-0.125000
G01 X70.665648 Y188.876341 Z-0.125000
G01 X76.616094 Y188.712961 Z-0.125000
G01 X82.566565 Y188.868721 Z-0.125000
G01 X85.010492 Y189.057712 Z-0.125000
G01 X87.348189 Y189.340102 Z-0.125000
G01 X91.598503 Y190.150149 Z-0.125000
G01 X98.505310 Y191.979899 Z-0.125000
G01 X101.055493 Y192.555738 Z-0.125000
G01 X103.818216 Y192.950840 Z-0.125000
G01 X106.580939 Y193.043470 Z-0.125000
G01 X108.918609 Y192.884456 Z-0.125000
G01 X111.468792 Y192.505229 Z-0.125000
G01 X124.857353 Y189.517320 Z-0.125000
G01 X129.851490 Y188.627686 Z-0.125000
G01 X134.633086 Y187.945458 Z-0.125000
G01 X137.714579 Y188.569927 Z-0.125000
G01 X140.477302 Y188.909440 Z-0.125000
G01 X144.090077 Y189.826061 Z-0.125000
G01 X147.065313 Y190.285430 Z-0.125000
G01 X150.040548 Y191.193929 Z-0.125000
G01 X152.484475 Y191.632132 Z-0.125000
G01 X154.715915 Y192.489407 Z-0.125000
G01 X156.947329 Y192.992194 Z-0.125000
G01 X158.222434 Y193.598301 Z-0.125000
G01 X159.284999 Y193.975173 Z-0.125000
G01 X160.241334 Y194.180912 Z-0.125000
G01 X161.091386 Y194.236978 Z-0.125000
G01 X161.941465 Y194.158423 Z-0.125000
G01 X162.791544 Y193.935300 Z-0.125000
G01 X163.687131 Y193.539643 Z-0.125000
G01 X164.597931 Y192.972694 Z-0.125000
G01 X166.191806 Y191.631920 Z-0.125000
G01 X168.919101 Y188.795378 Z-0.125000
G01 X169.618632 Y188.160988 Z-0.125000
G01 X169.880463 Y188.187684 Z-0.125000
G01 X170.335864 Y188.525742 Z-0.125000
G01 X170.760890 Y188.727751 Z-0.125000
G01 X171.702038 Y189.027259 Z-0.125000
G01 X172.886073 Y189.788041 Z-0.125000
G00 Z3.000000

(End cutting path id: polyline361)


(Start cutting path id: polyline359)
(Change tool to Default tool)

G00 Z3.000000
G00 X16.048917 Y190.590733

G00 Z4.875000 (Fast pre-penetrate)
G01 Z-0.125000 F400.0(Penetrate)
G01 X17.430279 Y191.088122 Z-0.125000 F800.000000
G01 X18.599101 Y191.398028 Z-0.125000
G01 X20.299232 Y192.200667 Z-0.125000
G01 X21.786849 Y192.697052 Z-0.125000
G01 X23.274467 Y192.910888 Z-0.125000
G01 X24.762085 Y192.780184 Z-0.125000
G01 X26.143447 Y192.329228 Z-0.125000
G01 X27.615878 Y191.524129 Z-0.125000
G01 X28.959298 Y190.561655 Z-0.125000
G01 X32.078731 Y188.057589 Z-0.125000
G01 X33.535975 Y187.081463 Z-0.125000
G01 X34.962871 Y186.427334 Z-0.125000
G01 X36.344233 Y186.142537 Z-0.125000
G01 X36.981772 Y186.319305 Z-0.125000
G01 X39.091768 Y187.332420 Z-0.125000
G01 X46.226249 Y190.978823 Z-0.125000
G01 X47.820123 Y191.512090 Z-0.125000
G01 X49.413998 Y191.722592 Z-0.125000
G01 X50.901616 Y191.646551 Z-0.125000
G01 X52.601747 Y191.300688 Z-0.125000
G01 X54.195621 Y190.805759 Z-0.125000
G01 X59.508527 Y188.916928 Z-0.125000
G01 X61.421171 Y188.385407 Z-0.125000
G01 X63.333815 Y187.981468 Z-0.125000
G01 X65.458999 Y187.671589 Z-0.125000
G01 X67.902926 Y187.458679 Z-0.125000
G01 X74.278423 Y187.298315 Z-0.125000
G01 X80.653921 Y187.434416 Z-0.125000
G01 X83.204104 Y187.621265 Z-0.125000
G01 X85.435545 Y187.890875 Z-0.125000
G01 X87.560702 Y188.259783 Z-0.125000
G01 X89.685859 Y188.742832 Z-0.125000
G01 X96.486383 Y190.716648 Z-0.125000
G01 X98.930336 Y191.308388 Z-0.125000
G01 X101.693059 Y191.685392 Z-0.125000
G01 X104.243242 Y191.680127 Z-0.125000
G01 X106.368399 Y191.413295 Z-0.125000
G01 X108.599839 Y190.918551 Z-0.125000
G01 X116.462928 Y188.479810 Z-0.125000
G01 X119.969473 Y187.545832 Z-0.125000
G01 X123.263479 Y186.891227 Z-0.125000
G01 X126.876254 Y186.409184 Z-0.125000
G01 X127.620049 Y186.501920 Z-0.125000
G01 X130.489029 Y187.176686 Z-0.125000
G01 X133.251752 Y187.577159 Z-0.125000
G01 X137.077040 Y188.458035 Z-0.125000
G01 X140.477302 Y188.909440 Z-0.125000
G01 X144.515103 Y189.910993 Z-0.125000
G01 X146.959056 Y190.261301 Z-0.125000
G01 X150.040548 Y191.193929 Z-0.125000
G01 X152.484475 Y191.632132 Z-0.125000
G01 X153.865836 Y192.201382 Z-0.125000
G01 X155.034685 Y192.581588 Z-0.125000
G01 X156.734816 Y192.891229 Z-0.125000
G01 X157.903664 Y192.888848 Z-0.125000
G01 X158.966229 Y192.707450 Z-0.125000
G01 X160.028821 Y192.342193 Z-0.125000
G01 X161.045852 Y191.818133 Z-0.125000
G01 X162.924365 Y190.441243 Z-0.125000
G01 X166.351191 Y187.160255 Z-0.125000
G01 X166.723089 Y186.987165 Z-0.125000
G01 X167.148115 Y187.024445 Z-0.125000
G01 X168.104450 Y187.465637 Z-0.125000
G01 X169.060759 Y187.692067 Z-0.125000
G01 X170.244794 Y188.476556 Z-0.125000
G01 X170.867146 Y188.770984 Z-0.125000
G01 X171.702038 Y189.027312 Z-0.125000
G01 X172.886073 Y189.788094 Z-0.125000
G00 Z3.000000

(End cutting path id: polyline359)


(Start cutting path id: polyline357)
(Change tool to Default tool)

G00 Z3.000000
G00 X16.048917 Y190.590733

G00 Z4.875000 (Fast pre-penetrate)
G01 Z-0.125000 F400.0(Penetrate)
G01 X17.961561 Y191.244121 Z-0.125000 F800.000000
G01 X19.661692 Y191.559609 Z-0.125000
G01 X21.149310 Y191.548761 Z-0.125000
G01 X22.636928 Y191.224568 Z-0.125000
G01 X23.881659 Y190.706647 Z-0.125000
G01 X25.247833 Y189.905145 Z-0.125000
G01 X29.346383 Y186.787432 Z-0.125000
G01 X30.803626 Y185.819613 Z-0.125000
G01 X32.306431 Y185.123337 Z-0.125000
G01 X33.794049 Y184.814383 Z-0.125000
G01 X34.112819 Y184.890662 Z-0.125000
G01 X35.448619 Y185.592363 Z-0.125000
G01 X36.450489 Y186.012018 Z-0.125000
G01 X37.816663 Y186.767297 Z-0.125000
G01 X39.091768 Y187.332420 Z-0.125000
G01 X43.676039 Y189.674508 Z-0.125000
G01 X45.269914 Y190.204759 Z-0.125000
G01 X46.757532 Y190.399413 Z-0.125000
G01 X48.245149 Y190.320011 Z-0.125000
G01 X49.945280 Y189.956130 Z-0.125000
G01 X51.539155 Y189.434241 Z-0.125000
G01 X56.745804 Y187.488497 Z-0.125000
G01 X58.658475 Y186.936445 Z-0.125000
G01 X60.571119 Y186.525653 Z-0.125000
G01 X62.696276 Y186.222256 Z-0.125000
G01 X65.140203 Y186.028343 Z-0.125000
G01 X72.047010 Y185.904968 Z-0.125000
G01 X79.378816 Y186.011251 Z-0.125000
G01 X81.929026 Y186.184526 Z-0.125000
G01 X84.160440 Y186.456571 Z-0.125000
G01 X86.179340 Y186.824367 Z-0.125000
G01 X88.304497 Y187.343850 Z-0.125000
G01 X94.679995 Y189.373969 Z-0.125000
G01 X96.911435 Y189.973540 Z-0.125000
G01 X99.355362 Y190.354460 Z-0.125000
G01 X101.586776 Y190.368192 Z-0.125000
G01 X103.605703 Y190.089216 Z-0.125000
G01 X105.730860 Y189.532480 Z-0.125000
G01 X107.749760 Y188.823768 Z-0.125000
G01 X112.850153 Y186.827013 Z-0.125000
G01 X115.825389 Y185.874382 Z-0.125000
G01 X118.800625 Y185.226577 Z-0.125000
G01 X121.669604 Y184.906273 Z-0.125000
G01 X121.988374 Y184.949850 Z-0.125000
G01 X124.113531 Y185.655228 Z-0.125000
G01 X126.344945 Y186.111184 Z-0.125000
G01 X129.532694 Y186.984228 Z-0.125000
G01 X133.251752 Y187.577159 Z-0.125000
G01 X137.395809 Y188.515450 Z-0.125000
G01 X140.477302 Y188.909440 Z-0.125000
G01 X144.090077 Y189.826061 Z-0.125000
G01 X147.065313 Y190.285430 Z-0.125000
G01 X149.934292 Y191.167524 Z-0.125000
G01 X152.059449 Y191.546168 Z-0.125000
G01 X153.440810 Y191.581781 Z-0.125000
G01 X154.715915 Y191.430519 Z-0.125000
G01 X155.884737 Y191.117809 Z-0.125000
G01 X157.129494 Y190.592214 Z-0.125000
G01 X158.131338 Y190.026774 Z-0.125000
G01 X159.224277 Y189.277554 Z-0.125000
G01 X160.772617 Y188.029252 Z-0.125000
G01 X163.163442 Y185.906291 Z-0.125000
G01 X163.747853 Y185.658509 Z-0.125000
G01 X164.051462 Y185.681342 Z-0.125000
G01 X164.916701 Y186.088853 Z-0.125000
G01 X166.055175 Y186.407252 Z-0.125000
G01 X167.998193 Y187.426532 Z-0.125000
G01 X169.060759 Y187.692014 Z-0.125000
G01 X170.244794 Y188.476503 Z-0.125000
G01 X170.867146 Y188.770931 Z-0.125000
G01 X171.702038 Y189.027259 Z-0.125000
G01 X172.886073 Y189.788041 Z-0.125000
G00 Z3.000000

(End cutting path id: polyline357)


(Start cutting path id: polyline353)
(Change tool to Default tool)

G00 Z3.000000
G00 X16.048917 Y188.621944

G00 Z4.875000 (Fast pre-penetrate)
G01 Z-0.125000 F400.0(Penetrate)
G01 X17.642792 Y188.080237 Z-0.125000 F800.000000
G01 X19.327736 Y187.222485 Z-0.125000
G01 X20.784980 Y186.287608 Z-0.125000
G01 X24.063824 Y183.963193 Z-0.125000
G01 X25.521068 Y183.085862 Z-0.125000
G01 X26.993499 Y182.460812 Z-0.125000
G01 X28.481117 Y182.168103 Z-0.125000
G01 X28.890982 Y182.220253 Z-0.125000
G01 X29.983922 Y182.862025 Z-0.125000
G01 X31.350096 Y183.455353 Z-0.125000
G01 X32.625201 Y184.186210 Z-0.125000
G01 X33.900306 Y184.729743 Z-0.125000
G01 X35.175384 Y185.456050 Z-0.125000
G01 X36.450489 Y186.012018 Z-0.125000
G01 X38.469390 Y187.076092 Z-0.125000
G01 X40.063264 Y187.596050 Z-0.125000
G01 X41.550882 Y187.758345 Z-0.125000
G01 X43.038500 Y187.623620 Z-0.125000
G01 X44.632374 Y187.209653 Z-0.125000
G01 X50.476590 Y184.808853 Z-0.125000
G01 X53.239286 Y183.939883 Z-0.125000
G01 X54.726904 Y183.629369 Z-0.125000
G01 X56.320778 Y183.411696 Z-0.125000
G01 X59.933553 Y183.248660 Z-0.125000
G01 X68.646748 Y183.400240 Z-0.125000
G01 X77.891198 Y183.251042 Z-0.125000
G01 X81.610230 Y183.461200 Z-0.125000
G01 X83.841670 Y183.821271 Z-0.125000
G01 X86.073084 Y184.397850 Z-0.125000
G01 X88.091984 Y185.090899 Z-0.125000
G01 X92.342325 Y186.753036 Z-0.125000
G01 X94.254969 Y187.354883 Z-0.125000
G01 X96.167613 Y187.705191 Z-0.125000
G01 X97.974001 Y187.729294 Z-0.125000
G01 X99.674132 Y187.454631 Z-0.125000
G01 X101.586776 Y186.827516 Z-0.125000
G01 X103.302094 Y186.047393 Z-0.125000
G01 X107.582782 Y183.844184 Z-0.125000
G01 X109.874944 Y182.907269 Z-0.125000
G01 X112.106358 Y182.347464 Z-0.125000
G01 X113.275206 Y182.210093 Z-0.125000
G01 X114.444028 Y182.176120 Z-0.125000
G01 X115.506620 Y182.281874 Z-0.125000
G01 X119.331908 Y184.056565 Z-0.125000
G01 X122.944683 Y185.306137 Z-0.125000
G01 X124.432301 Y185.737222 Z-0.125000
G01 X126.344945 Y186.111184 Z-0.125000
G01 X129.638950 Y187.007221 Z-0.125000
G01 X133.251752 Y187.577159 Z-0.125000
G01 X136.970783 Y188.438244 Z-0.125000
G01 X139.308453 Y188.792706 Z-0.125000
G01 X141.539893 Y188.942248 Z-0.125000
G01 X143.346281 Y188.893142 Z-0.125000
G01 X145.046412 Y188.680496 Z-0.125000
G01 X146.746543 Y188.284786 Z-0.125000
G01 X148.340417 Y187.734586 Z-0.125000
G01 X149.752126 Y187.100539 Z-0.125000
G01 X151.209397 Y186.310574 Z-0.125000
G01 X153.213110 Y185.043750 Z-0.125000
G01 X156.127624 Y183.019611 Z-0.125000
G01 X156.522303 Y182.933225 Z-0.125000
G01 X158.222434 Y183.506788 Z-0.125000
G01 X159.497539 Y183.747664 Z-0.125000
G01 X161.091386 Y184.573983 Z-0.125000
G01 X162.791544 Y185.055736 Z-0.125000
G01 X164.597931 Y185.964631 Z-0.125000
G01 X166.055175 Y186.407252 Z-0.125000
G01 X167.785680 Y187.340939 Z-0.125000
G01 X169.060759 Y187.692014 Z-0.125000
G01 X170.244794 Y188.476503 Z-0.125000
G01 X170.867146 Y188.770931 Z-0.125000
G01 X171.702038 Y189.027259 Z-0.125000
G01 X172.886073 Y189.788041 Z-0.125000
G00 Z3.000000

(End cutting path id: polyline353)


(Start cutting path id: polyline351)
(Change tool to Default tool)

G00 Z3.000000
G00 X16.048917 Y185.952910

G00 Z4.875000 (Fast pre-penetrate)
G01 Z-0.125000 F400.0(Penetrate)
G01 X17.779396 Y184.926381 Z-0.125000 F800.000000
G01 X21.240380 Y182.609031 Z-0.125000
G01 X22.606554 Y181.816552 Z-0.125000
G01 X24.337059 Y181.107655 Z-0.125000
G01 X25.187111 Y180.918293 Z-0.125000
G01 X25.930934 Y180.859264 Z-0.125000
G01 X26.340773 Y180.941073 Z-0.125000
G01 X27.342643 Y181.525881 Z-0.125000
G01 X28.799886 Y182.186783 Z-0.125000
G01 X30.166087 Y182.952513 Z-0.125000
G01 X31.350096 Y183.455353 Z-0.125000
G01 X32.807340 Y184.276539 Z-0.125000
G01 X33.900306 Y184.729743 Z-0.125000
G01 X35.721854 Y185.719892 Z-0.125000
G01 X37.088028 Y186.207069 Z-0.125000
G01 X38.363133 Y186.418100 Z-0.125000
G01 X39.744495 Y186.380767 Z-0.125000
G01 X41.338369 Y186.036386 Z-0.125000
G01 X42.932243 Y185.455230 Z-0.125000
G01 X46.651275 Y183.774202 Z-0.125000
G01 X48.563919 Y183.020510 Z-0.125000
G01 X50.582846 Y182.435306 Z-0.125000
G01 X52.708003 Y182.072642 Z-0.125000
G01 X54.408134 Y181.946436 Z-0.125000
G01 X56.320778 Y181.933947 Z-0.125000
G01 X63.758868 Y182.318466 Z-0.125000
G01 X67.371643 Y182.383104 Z-0.125000
G01 X78.422481 Y181.925640 Z-0.125000
G01 X81.397717 Y182.079944 Z-0.125000
G01 X84.054183 Y182.561009 Z-0.125000
G01 X86.710649 Y183.410479 Z-0.125000
G01 X91.173477 Y185.296665 Z-0.125000
G01 X92.873608 Y185.913540 Z-0.125000
G01 X94.786252 Y186.350605 Z-0.125000
G01 X96.486383 Y186.422148 Z-0.125000
G01 X98.186514 Y186.156084 Z-0.125000
G01 X99.992928 Y185.523889 Z-0.125000
G01 X101.662684 Y184.692754 Z-0.125000
G01 X105.579069 Y182.462161 Z-0.125000
G01 X107.537247 Y181.569458 Z-0.125000
G01 X109.449891 Y181.023782 Z-0.125000
G01 X111.362535 Y180.853787 Z-0.125000
G01 X112.531384 Y180.931390 Z-0.125000
G01 X113.593976 Y181.128742 Z-0.125000
G01 X115.779854 Y182.427024 Z-0.125000
G01 X118.694368 Y183.794151 Z-0.125000
G01 X119.863217 Y184.250663 Z-0.125000
G01 X124.007274 Y185.626627 Z-0.125000
G01 X126.344945 Y186.111184 Z-0.125000
G01 X129.107667 Y186.888132 Z-0.125000
G01 X131.020311 Y187.269211 Z-0.125000
G01 X133.570521 Y187.565941 Z-0.125000
G01 X136.014448 Y187.610364 Z-0.125000
G01 X137.820835 Y187.481486 Z-0.125000
G01 X139.627249 Y187.205473 Z-0.125000
G01 X141.433637 Y186.774097 Z-0.125000
G01 X143.240024 Y186.182489 Z-0.125000
G01 X146.200073 Y184.877301 Z-0.125000
G01 X148.294883 Y183.743166 Z-0.125000
G01 X151.664770 Y181.749507 Z-0.125000
G01 X152.378219 Y181.557314 Z-0.125000
G01 X154.184606 Y182.153842 Z-0.125000
G01 X155.672224 Y182.425543 Z-0.125000
G01 X156.856259 Y183.018182 Z-0.125000
G01 X157.903664 Y183.414104 Z-0.125000
G01 X159.497539 Y183.747664 Z-0.125000
G01 X161.091386 Y184.573983 Z-0.125000
G01 X162.791544 Y185.055736 Z-0.125000
G01 X164.597931 Y185.964631 Z-0.125000
G01 X166.146245 Y186.446384 Z-0.125000
G01 X167.891937 Y187.384939 Z-0.125000
G01 X169.060759 Y187.692014 Z-0.125000
G01 X170.153698 Y188.424803 Z-0.125000
G01 X170.973403 Y188.810857 Z-0.125000
G01 X171.929738 Y189.027524 Z-0.125000
G01 X172.886073 Y188.968918 Z-0.125000
G00 Z3.000000

(End cutting path id: polyline351)


(Start cutting path id: polyline349)
(Change tool to Default tool)

G00 Z3.000000
G00 X16.048917 Y182.718859

G00 Z4.875000 (Fast pre-penetrate)
G01 Z-0.125000 F400.0(Penetrate)
G01 X18.690197 Y181.062861 Z-0.125000 F800.000000
G01 X20.405488 Y180.187964 Z-0.125000
G01 X21.999363 Y179.672689 Z-0.125000
G01 X22.849441 Y179.544684 Z-0.125000
G01 X23.486980 Y179.550610 Z-0.125000
G01 X23.790589 Y179.636706 Z-0.125000
G01 X27.342643 Y181.525881 Z-0.125000
G01 X28.799886 Y182.186783 Z-0.125000
G01 X30.166087 Y182.952513 Z-0.125000
G01 X31.350096 Y183.455353 Z-0.125000
G01 X33.262740 Y184.484819 Z-0.125000
G01 X34.856615 Y184.986547 Z-0.125000
G01 X36.344233 Y185.109605 Z-0.125000
G01 X37.725594 Y184.935430 Z-0.125000
G01 X39.213212 Y184.490057 Z-0.125000
G01 X40.640108 Y183.888554 Z-0.125000
G01 X44.207348 Y182.191016 Z-0.125000
G01 X46.119992 Y181.447670 Z-0.125000
G01 X47.820123 Y180.980787 Z-0.125000
G01 X49.626511 Y180.696122 Z-0.125000
G01 X51.220385 Y180.605609 Z-0.125000
G01 X53.026773 Y180.643259 Z-0.125000
G01 X61.102402 Y181.389409 Z-0.125000
G01 X65.565255 Y181.548424 Z-0.125000
G01 X69.178030 Y181.420101 Z-0.125000
G01 X76.828633 Y180.701758 Z-0.125000
G01 X79.803842 Y180.610953 Z-0.125000
G01 X82.035283 Y180.804601 Z-0.125000
G01 X84.160440 Y181.272543 Z-0.125000
G01 X86.391853 Y182.067906 Z-0.125000
G01 X90.429681 Y183.924167 Z-0.125000
G01 X92.023555 Y184.558426 Z-0.125000
G01 X93.723686 Y185.000755 Z-0.125000
G01 X95.317561 Y185.107038 Z-0.125000
G01 X97.017692 Y184.843170 Z-0.125000
G01 X98.748170 Y184.191343 Z-0.125000
G01 X100.296510 Y183.353938 Z-0.125000
G01 X103.939659 Y181.091171 Z-0.125000
G01 X105.837116 Y180.161241 Z-0.125000
G01 X107.537247 Y179.662000 Z-0.125000
G01 X109.237378 Y179.535661 Z-0.125000
G01 X110.512483 Y179.684119 Z-0.125000
G01 X111.772401 Y180.021118 Z-0.125000
G01 X112.318871 Y180.295094 Z-0.125000
G01 X114.960150 Y181.970592 Z-0.125000
G01 X116.144159 Y182.609190 Z-0.125000
G01 X119.225651 Y184.015052 Z-0.125000
G01 X122.838426 Y185.270657 Z-0.125000
G01 X124.538557 Y185.763310 Z-0.125000
G01 X126.132432 Y186.078799 Z-0.125000
G01 X127.726306 Y186.255064 Z-0.125000
G01 X129.426437 Y186.296392 Z-0.125000
G01 X131.232825 Y186.184420 Z-0.125000
G01 X133.145495 Y185.903010 Z-0.125000
G01 X135.058139 Y185.466131 Z-0.125000
G01 X137.077040 Y184.849229 Z-0.125000
G01 X138.883427 Y184.173828 Z-0.125000
G01 X140.826445 Y183.334041 Z-0.125000
G01 X147.201943 Y180.133645 Z-0.125000
G01 X147.490339 Y180.072500 Z-0.125000
G01 X149.721779 Y180.774280 Z-0.125000
G01 X151.315653 Y181.078974 Z-0.125000
G01 X153.759580 Y182.034092 Z-0.125000
G01 X155.672224 Y182.425543 Z-0.125000
G01 X156.765163 Y182.977648 Z-0.125000
G01 X157.797381 Y183.380105 Z-0.125000
G01 X159.497539 Y183.747664 Z-0.125000
G01 X160.985130 Y184.529454 Z-0.125000
G01 X161.835209 Y184.836079 Z-0.125000
G01 X162.897800 Y185.095688 Z-0.125000
G01 X164.506836 Y185.925738 Z-0.125000
G01 X166.055175 Y186.407252 Z-0.125000
G01 X167.512445 Y187.215871 Z-0.125000
G01 X168.529476 Y187.594357 Z-0.125000
G01 X169.592068 Y187.715456 Z-0.125000
G01 X170.654633 Y187.529719 Z-0.125000
G01 X171.793134 Y186.982905 Z-0.125000
G01 X172.886073 Y186.136293 Z-0.125000
G00 Z3.000000

(End cutting path id: polyline349)


(Start cutting path id: polyline347)
(Change tool to Default tool)

G00 Z3.000000
G00 X16.048917 Y179.577783

G00 Z4.875000 (Fast pre-penetrate)
G01 Z-0.125000 F400.0(Penetrate)
G01 X17.430279 Y178.913468 Z-0.125000 F800.000000
G01 X18.705357 Y178.468254 Z-0.125000
G01 X19.874205 Y178.244787 Z-0.125000
G01 X21.043054 Y178.228013 Z-0.125000
G01 X30.530392 Y183.122375 Z-0.125000
G01 X31.987635 Y183.617780 Z-0.125000
G01 X33.475253 Y183.789680 Z-0.125000
G01 X34.750358 Y183.667363 Z-0.125000
G01 X36.025463 Y183.326395 Z-0.125000
G01 X37.452359 Y182.748651 Z-0.125000
G01 X41.004412 Y180.980258 Z-0.125000
G01 X42.719730 Y180.239796 Z-0.125000
G01 X44.632374 Y179.650226 Z-0.125000
G01 X46.438762 Y179.351670 Z-0.125000
G01 X48.032636 Y179.279968 Z-0.125000
G01 X49.732767 Y179.360507 Z-0.125000
G01 X58.658475 Y180.577986 Z-0.125000
G01 X61.314915 Y180.788806 Z-0.125000
G01 X63.971381 Y180.857730 Z-0.125000
G01 X66.202795 Y180.802987 Z-0.125000
G01 X68.540491 Y180.637120 Z-0.125000
G01 X71.196931 Y180.326182 Z-0.125000
G01 X77.253659 Y179.437157 Z-0.125000
G01 X79.060047 Y179.294706 Z-0.125000
G01 X80.653921 Y179.302405 Z-0.125000
G01 X82.460309 Y179.515050 Z-0.125000
G01 X84.266696 Y179.977885 Z-0.125000
G01 X86.270436 Y180.771396 Z-0.125000
G01 X89.822489 Y182.543309 Z-0.125000
G01 X91.279733 Y183.180424 Z-0.125000
G01 X92.873608 Y183.651329 Z-0.125000
G01 X94.361226 Y183.788463 Z-0.125000
G01 X95.955100 Y183.557720 Z-0.125000
G01 X97.655231 Y182.892770 Z-0.125000
G01 X99.112501 Y182.051264 Z-0.125000
G01 X102.573485 Y179.732511 Z-0.125000
G01 X104.349498 Y178.798904 Z-0.125000
G01 X105.943373 Y178.312415 Z-0.125000
G01 X107.430991 Y178.216953 Z-0.125000
G01 X109.024865 Y178.497649 Z-0.125000
G01 X110.770531 Y179.182999 Z-0.125000
G01 X112.865340 Y180.673553 Z-0.125000
G01 X115.233385 Y182.129633 Z-0.125000
G01 X119.119395 Y183.972612 Z-0.125000
G01 X120.394499 Y184.421821 Z-0.125000
G01 X121.669604 Y184.737601 Z-0.125000
G01 X122.944683 Y184.920613 Z-0.125000
G01 X124.326044 Y184.976070 Z-0.125000
G01 X125.813662 Y184.883678 Z-0.125000
G01 X127.407536 Y184.630233 Z-0.125000
G01 X129.001411 Y184.240926 Z-0.125000
G01 X130.807798 Y183.665193 Z-0.125000
G01 X133.889291 Y182.440042 Z-0.125000
G01 X142.071176 Y178.658145 Z-0.125000
G01 X142.496202 Y178.575913 Z-0.125000
G01 X143.027511 Y178.669734 Z-0.125000
G01 X145.046412 Y179.387839 Z-0.125000
G01 X146.852799 Y179.743518 Z-0.125000
G01 X149.402983 Y180.686888 Z-0.125000
G01 X151.315653 Y181.078974 Z-0.125000
G01 X153.865836 Y182.065816 Z-0.125000
G01 X155.672224 Y182.425543 Z-0.125000
G01 X157.691125 Y183.344704 Z-0.125000
G01 X159.497539 Y183.747664 Z-0.125000
G01 X160.985130 Y184.529454 Z-0.125000
G01 X161.835209 Y184.836079 Z-0.125000
G01 X162.897800 Y185.095688 Z-0.125000
G01 X164.916701 Y186.088853 Z-0.125000
G01 X165.766753 Y186.320337 Z-0.125000
G01 X166.510576 Y186.393547 Z-0.125000
G01 X167.254371 Y186.337588 Z-0.125000
G01 X167.998193 Y186.147643 Z-0.125000
G01 X168.787524 Y185.798262 Z-0.125000
G01 X169.516159 Y185.343920 Z-0.125000
G01 X171.044258 Y184.017459 Z-0.125000
G01 X172.886073 Y181.907621 Z-0.125000
G00 Z3.000000

(End cutting path id: polyline347)


(Start cutting path id: polyline345)
(Change tool to Default tool)

G00 Z3.000000
G00 X16.048917 Y177.108033

G00 Z4.875000 (Fast pre-penetrate)
G01 Z-0.125000 F400.0(Penetrate)
G01 X17.430279 Y176.896128 Z-0.125000 F800.000000
G01 X18.280331 Y176.886842 Z-0.125000
G01 X18.690197 Y176.959152 Z-0.125000
G01 X27.737321 Y181.718894 Z-0.125000
G01 X29.118683 Y182.232715 Z-0.125000
G01 X30.393761 Y182.451392 Z-0.125000
G01 X31.775122 Y182.397841 Z-0.125000
G01 X33.262740 Y182.031499 Z-0.125000
G01 X34.811080 Y181.389568 Z-0.125000
G01 X38.272064 Y179.597362 Z-0.125000
G01 X39.850751 Y178.887407 Z-0.125000
G01 X41.657139 Y178.304371 Z-0.125000
G01 X43.463526 Y178.005578 Z-0.125000
G01 X45.163657 Y177.968113 Z-0.125000
G01 X47.076328 Y178.146733 Z-0.125000
G01 X53.876852 Y179.449989 Z-0.125000
G01 X56.958344 Y179.906527 Z-0.125000
G01 X59.721040 Y180.147086 Z-0.125000
G01 X62.590020 Y180.228498 Z-0.125000
G01 X65.671512 Y180.128433 Z-0.125000
G01 X68.646748 Y179.841069 Z-0.125000
G01 X71.515701 Y179.386648 Z-0.125000
G01 X77.359916 Y178.224176 Z-0.125000
G01 X78.953790 Y178.019124 Z-0.125000
G01 X80.335152 Y177.956947 Z-0.125000
G01 X82.247796 Y178.113554 Z-0.125000
G01 X84.160440 Y178.601842 Z-0.125000
G01 X85.997175 Y179.372123 Z-0.125000
G01 X89.458159 Y181.223225 Z-0.125000
G01 X90.854707 Y181.873861 Z-0.125000
G01 X92.342325 Y182.335902 Z-0.125000
G01 X93.617430 Y182.466659 Z-0.125000
G01 X95.105048 Y182.260496 Z-0.125000
G01 X96.744457 Y181.594858 Z-0.125000
G01 X98.201701 Y180.696757 Z-0.125000
G01 X101.480519 Y178.346863 Z-0.125000
G01 X103.074394 Y177.456753 Z-0.125000
G01 X104.455755 Y176.998998 Z-0.125000
G01 X105.837116 Y176.892345 Z-0.125000
G01 X107.324734 Y177.175713 Z-0.125000
G01 X108.948956 Y177.896490 Z-0.125000
G01 X110.315131 Y178.743500 Z-0.125000
G01 X112.956410 Y180.733614 Z-0.125000
G01 X115.142315 Y182.077325 Z-0.125000
G01 X116.356672 Y182.709070 Z-0.125000
G01 X117.419264 Y183.135736 Z-0.125000
G01 X118.375599 Y183.411247 Z-0.125000
G01 X119.438164 Y183.595185 Z-0.125000
G01 X120.500756 Y183.653975 Z-0.125000
G01 X121.669604 Y183.583887 Z-0.125000
G01 X122.838426 Y183.387090 Z-0.125000
G01 X124.113531 Y183.048424 Z-0.125000
G01 X125.494892 Y182.562676 Z-0.125000
G01 X128.075450 Y181.425392 Z-0.125000
G01 X134.997417 Y177.994333 Z-0.125000
G01 X136.970783 Y177.138513 Z-0.125000
G01 X137.714579 Y176.985901 Z-0.125000
G01 X140.264789 Y177.939564 Z-0.125000
G01 X142.389946 Y178.412295 Z-0.125000
G01 X144.621386 Y179.266316 Z-0.125000
G01 X146.852799 Y179.743518 Z-0.125000
G01 X149.296726 Y180.655773 Z-0.125000
G01 X151.421910 Y181.112602 Z-0.125000
G01 X153.759580 Y182.034092 Z-0.125000
G01 X155.672224 Y182.425543 Z-0.125000
G01 X157.691125 Y183.344704 Z-0.125000
G01 X159.497539 Y183.747664 Z-0.125000
G01 X160.681547 Y184.393537 Z-0.125000
G01 X161.728952 Y184.804064 Z-0.125000
G01 X162.579004 Y185.004513 Z-0.125000
G01 X163.429083 Y185.070870 Z-0.125000
G01 X164.385392 Y184.972895 Z-0.125000
G01 X165.341727 Y184.683785 Z-0.125000
G01 X166.328410 Y184.184226 Z-0.125000
G01 X167.387192 Y183.431355 Z-0.125000
G01 X168.343527 Y182.577651 Z-0.125000
G01 X169.344127 Y181.539692 Z-0.125000
G01 X172.886073 Y177.371849 Z-0.125000
G00 Z3.000000

(End cutting path id: polyline345)


(Start cutting path id: polyline343)
(Change tool to Default tool)

G00 Z3.000000
G00 X16.048917 Y175.621420

G00 Z4.875000 (Fast pre-penetrate)
G01 Z-0.125000 F400.0(Penetrate)
G01 X16.777526 Y175.825599 Z-0.125000 F800.000000
G01 X19.509901 Y177.394206 Z-0.125000
G01 X25.187111 Y180.408388 Z-0.125000
G01 X26.568473 Y180.918055 Z-0.125000
G01 X27.843578 Y181.131097 Z-0.125000
G01 X29.224939 Y181.066988 Z-0.125000
G01 X30.712557 Y180.682443 Z-0.125000
G01 X32.260870 Y180.014768 Z-0.125000
G01 X35.539715 Y178.259419 Z-0.125000
G01 X37.088028 Y177.536313 Z-0.125000
G01 X38.788186 Y176.966137 Z-0.125000
G01 X40.488317 Y176.675863 Z-0.125000
G01 X42.188448 Y176.656072 Z-0.125000
G01 X44.101092 Y176.892371 Z-0.125000
G01 X50.795359 Y178.479525 Z-0.125000
G01 X54.195621 Y179.087908 Z-0.125000
G01 X57.595883 Y179.427923 Z-0.125000
G01 X61.314915 Y179.543810 Z-0.125000
G01 X65.246486 Y179.409799 Z-0.125000
G01 X68.753004 Y179.028244 Z-0.125000
G01 X71.940753 Y178.421370 Z-0.125000
G01 X77.891198 Y176.949495 Z-0.125000
G01 X79.378816 Y176.712878 Z-0.125000
G01 X80.760178 Y176.634085 Z-0.125000
G01 X82.460309 Y176.784845 Z-0.125000
G01 X84.160440 Y177.247997 Z-0.125000
G01 X85.906105 Y178.030025 Z-0.125000
G01 X89.184924 Y179.907400 Z-0.125000
G01 X90.429681 Y180.528033 Z-0.125000
G01 X91.811042 Y180.997006 Z-0.125000
G01 X93.086121 Y181.143770 Z-0.125000
G01 X93.829943 Y181.083022 Z-0.125000
G01 X94.573739 Y180.911070 Z-0.125000
G01 X96.015822 Y180.279087 Z-0.125000
G01 X97.381996 Y179.387045 Z-0.125000
G01 X100.478676 Y177.023604 Z-0.125000
G01 X101.935919 Y176.149131 Z-0.125000
G01 X103.286933 Y175.668940 Z-0.125000
G01 X104.562011 Y175.570991 Z-0.125000
G01 X105.943373 Y175.864361 Z-0.125000
G01 X107.491713 Y176.627577 Z-0.125000
G01 X108.857887 Y177.577906 Z-0.125000
G01 X112.227801 Y180.229504 Z-0.125000
G01 X114.140445 Y181.427880 Z-0.125000
G01 X115.081593 Y181.847693 Z-0.125000
G01 X115.931646 Y182.116430 Z-0.125000
G01 X116.781724 Y182.277112 Z-0.125000
G01 X117.631777 Y182.331113 Z-0.125000
G01 X118.588112 Y182.270232 Z-0.125000
G01 X119.544421 Y182.091560 Z-0.125000
G01 X120.607013 Y181.771467 Z-0.125000
G01 X121.669604 Y181.344774 Z-0.125000
G01 X123.703692 Y180.314117 Z-0.125000
G01 X128.075450 Y177.752478 Z-0.125000
G01 X130.079163 Y176.663613 Z-0.125000
G01 X132.507929 Y175.544162 Z-0.125000
G01 X133.251752 Y175.431132 Z-0.125000
G01 X133.995547 Y175.610467 Z-0.125000
G01 X136.014448 Y176.510710 Z-0.125000
G01 X137.927092 Y177.028949 Z-0.125000
G01 X140.264789 Y177.939564 Z-0.125000
G01 X142.283689 Y178.378375 Z-0.125000
G01 X144.940155 Y179.358841 Z-0.125000
G01 X146.852799 Y179.743518 Z-0.125000
G01 X149.402983 Y180.686888 Z-0.125000
G01 X151.315653 Y181.078974 Z-0.125000
G01 X153.865836 Y182.065816 Z-0.125000
G01 X155.672224 Y182.425543 Z-0.125000
G01 X156.856259 Y183.018182 Z-0.125000
G01 X158.009921 Y183.446595 Z-0.125000
G01 X158.966229 Y183.666834 Z-0.125000
G01 X159.922565 Y183.747955 Z-0.125000
G01 X161.091386 Y183.639344 Z-0.125000
G01 X162.153978 Y183.331316 Z-0.125000
G01 X163.231731 Y182.812575 Z-0.125000
G01 X164.415766 Y182.012899 Z-0.125000
G01 X165.474548 Y181.114904 Z-0.125000
G01 X166.581404 Y180.024981 Z-0.125000
G01 X170.902574 Y175.263942 Z-0.125000
G01 X171.292199 Y175.236743 Z-0.125000
G01 X172.886073 Y175.858011 Z-0.125000
G00 Z3.000000

(End cutting path id: polyline343)


(Start cutting path id: polyline341)
(Change tool to Default tool)

G00 Z3.000000
G00 X16.048917 Y175.388773

G00 Z4.875000 (Fast pre-penetrate)
G01 Z-0.125000 F400.0(Penetrate)
G01 X19.418805 Y177.343882 Z-0.125000 F800.000000
G01 X22.606554 Y179.055946 Z-0.125000
G01 X24.018290 Y179.587546 Z-0.125000
G01 X25.399625 Y179.813156 Z-0.125000
G01 X26.780986 Y179.727775 Z-0.125000
G01 X28.162347 Y179.354898 Z-0.125000
G01 X29.710687 Y178.671718 Z-0.125000
G01 X32.989505 Y176.871575 Z-0.125000
G01 X34.431589 Y176.183024 Z-0.125000
G01 X36.131720 Y175.605440 Z-0.125000
G01 X37.725594 Y175.341624 Z-0.125000
G01 X39.319468 Y175.342947 Z-0.125000
G01 X41.125856 Y175.607927 Z-0.125000
G01 X47.820123 Y177.458738 Z-0.125000
G01 X51.326642 Y178.157581 Z-0.125000
G01 X55.258186 Y178.550592 Z-0.125000
G01 X60.252349 Y178.679577 Z-0.125000
G01 X65.246486 Y178.534162 Z-0.125000
G01 X69.178030 Y178.105061 Z-0.125000
G01 X72.472036 Y177.400768 Z-0.125000
G01 X78.422481 Y175.659547 Z-0.125000
G01 X79.803842 Y175.401552 Z-0.125000
G01 X81.078947 Y175.311223 Z-0.125000
G01 X82.672822 Y175.457061 Z-0.125000
G01 X84.266696 Y175.924368 Z-0.125000
G01 X85.906105 Y176.714572 Z-0.125000
G01 X88.911689 Y178.551465 Z-0.125000
G01 X90.110911 Y179.191280 Z-0.125000
G01 X91.385990 Y179.659354 Z-0.125000
G01 X92.661095 Y179.820697 Z-0.125000
G01 X93.298634 Y179.768680 Z-0.125000
G01 X94.042456 Y179.592388 Z-0.125000
G01 X95.469352 Y178.926327 Z-0.125000
G01 X96.698922 Y178.073761 Z-0.125000
G01 X99.567875 Y175.749479 Z-0.125000
G01 X101.025145 Y174.816056 Z-0.125000
G01 X102.224341 Y174.357640 Z-0.125000
G01 X103.393190 Y174.243763 Z-0.125000
G01 X104.668268 Y174.509722 Z-0.125000
G01 X106.125538 Y175.260873 Z-0.125000
G01 X107.457555 Y176.257266 Z-0.125000
G01 X110.645304 Y178.989588 Z-0.125000
G01 X112.318871 Y180.132957 Z-0.125000
G01 X113.168949 Y180.548088 Z-0.125000
G01 X113.912745 Y180.804998 Z-0.125000
G01 X114.656541 Y180.958377 Z-0.125000
G01 X115.506620 Y181.007060 Z-0.125000
G01 X116.250415 Y180.942846 Z-0.125000
G01 X117.100494 Y180.755892 Z-0.125000
G01 X118.056803 Y180.416934 Z-0.125000
G01 X118.967603 Y179.987225 Z-0.125000
G01 X120.698082 Y178.960643 Z-0.125000
G01 X126.071710 Y175.358954 Z-0.125000
G01 X127.984380 Y174.337399 Z-0.125000
G01 X129.532694 Y173.723381 Z-0.125000
G01 X130.807798 Y174.239054 Z-0.125000
G01 X132.401673 Y175.084873 Z-0.125000
G01 X133.995547 Y175.610520 Z-0.125000
G01 X135.695678 Y176.390166 Z-0.125000
G01 X136.758270 Y176.751507 Z-0.125000
G01 X137.927092 Y177.029002 Z-0.125000
G01 X140.052276 Y177.871963 Z-0.125000
G01 X141.221097 Y178.194252 Z-0.125000
G01 X142.283689 Y178.378428 Z-0.125000
G01 X144.940155 Y179.358893 Z-0.125000
G01 X146.852799 Y179.743571 Z-0.125000
G01 X149.402983 Y180.686941 Z-0.125000
G01 X151.315653 Y181.079027 Z-0.125000
G01 X153.972093 Y182.096428 Z-0.125000
G01 X155.140941 Y182.346750 Z-0.125000
G01 X156.203533 Y182.425225 Z-0.125000
G01 X157.478611 Y182.311931 Z-0.125000
G01 X158.647460 Y181.996865 Z-0.125000
G01 X159.861843 Y181.451507 Z-0.125000
G01 X161.045852 Y180.712844 Z-0.125000
G01 X163.083749 Y179.024011 Z-0.125000
G01 X167.546577 Y174.447280 Z-0.125000
G01 X168.332150 Y173.861864 Z-0.125000
G01 X168.605385 Y173.881205 Z-0.125000
G01 X169.060759 Y174.141502 Z-0.125000
G01 X170.335864 Y174.644977 Z-0.125000
G01 X171.717225 Y175.413194 Z-0.125000
G01 X172.886073 Y175.858063 Z-0.125000
G00 Z3.000000

(End cutting path id: polyline341)


(Start cutting path id: polyline339)
(Change tool to Default tool)

G00 Z3.000000
G00 X16.048917 Y175.388773

G00 Z4.875000 (Fast pre-penetrate)
G01 Z-0.125000 F400.0(Penetrate)
G01 X19.418805 Y177.343882 Z-0.125000 F800.000000
G01 X20.511745 Y177.886648 Z-0.125000
G01 X21.999363 Y178.366972 Z-0.125000
G01 X23.380724 Y178.496591 Z-0.125000
G01 X24.762085 Y178.311780 Z-0.125000
G01 X26.249703 Y177.802510 Z-0.125000
G01 X27.615878 Y177.128009 Z-0.125000
G01 X30.712557 Y175.384407 Z-0.125000
G01 X32.306431 Y174.652015 Z-0.125000
G01 X33.687766 Y174.220744 Z-0.125000
G01 X35.069128 Y174.010454 Z-0.125000
G01 X36.556746 Y174.027255 Z-0.125000
G01 X38.256877 Y174.307634 Z-0.125000
G01 X39.850751 Y174.746180 Z-0.125000
G01 X44.844888 Y176.351617 Z-0.125000
G01 X46.651275 Y176.792544 Z-0.125000
G01 X48.457663 Y177.112928 Z-0.125000
G01 X50.370333 Y177.332055 Z-0.125000
G01 X52.601747 Y177.467919 Z-0.125000
G01 X59.614784 Y177.539356 Z-0.125000
G01 X65.777768 Y177.454451 Z-0.125000
G01 X67.902926 Y177.307529 Z-0.125000
G01 X69.709313 Y177.079246 Z-0.125000
G01 X71.409444 Y176.752089 Z-0.125000
G01 X73.109575 Y176.305976 Z-0.125000
G01 X79.060047 Y174.324382 Z-0.125000
G01 X80.441408 Y174.054639 Z-0.125000
G01 X81.716486 Y173.992489 Z-0.125000
G01 X82.991591 Y174.152535 Z-0.125000
G01 X84.372953 Y174.595156 Z-0.125000
G01 X85.906105 Y175.382026 Z-0.125000
G01 X88.729550 Y177.213972 Z-0.125000
G01 X89.913559 Y177.881621 Z-0.125000
G01 X91.173477 Y178.357235 Z-0.125000
G01 X92.342325 Y178.497173 Z-0.125000
G01 X93.617430 Y178.268520 Z-0.125000
G01 X95.013952 Y177.574995 Z-0.125000
G01 X96.220741 Y176.681896 Z-0.125000
G01 X98.850643 Y174.430770 Z-0.125000
G01 X100.205441 Y173.508910 Z-0.125000
G01 X101.374263 Y173.032608 Z-0.125000
G01 X102.436854 Y172.919393 Z-0.125000
G01 X103.074394 Y173.005594 Z-0.125000
G01 X103.711959 Y173.204640 Z-0.125000
G01 X105.032599 Y173.938911 Z-0.125000
G01 X106.262142 Y174.923159 Z-0.125000
G01 X109.290507 Y177.718717 Z-0.125000
G01 X110.861627 Y178.868013 Z-0.125000
G01 X111.590236 Y179.247107 Z-0.125000
G01 X112.318871 Y179.511690 Z-0.125000
G01 X112.956410 Y179.644749 Z-0.125000
G01 X113.700232 Y179.682955 Z-0.125000
G01 X115.081593 Y179.434696 Z-0.125000
G01 X116.690628 Y178.696245 Z-0.125000
G01 X118.238968 Y177.660271 Z-0.125000
G01 X121.722733 Y174.920328 Z-0.125000
G01 X123.430457 Y173.705548 Z-0.125000
G01 X125.343101 Y172.630918 Z-0.125000
G01 X126.238688 Y172.239415 Z-0.125000
G01 X126.663741 Y172.203035 Z-0.125000
G01 X127.164676 Y172.340168 Z-0.125000
G01 X129.350555 Y173.630539 Z-0.125000
G01 X130.807798 Y174.239001 Z-0.125000
G01 X132.189160 Y174.990099 Z-0.125000
G01 X133.995547 Y175.610467 Z-0.125000
G01 X136.120704 Y176.548625 Z-0.125000
G01 X137.927092 Y177.028949 Z-0.125000
G01 X140.371045 Y177.971870 Z-0.125000
G01 X142.389946 Y178.412295 Z-0.125000
G01 X144.727642 Y179.298119 Z-0.125000
G01 X146.852799 Y179.743518 Z-0.125000
G01 X149.402983 Y180.686888 Z-0.125000
G01 X150.784344 Y180.994387 Z-0.125000
G01 X152.165705 Y181.102231 Z-0.125000
G01 X153.547067 Y180.987878 Z-0.125000
G01 X154.822172 Y180.672098 Z-0.125000
G01 X156.218694 Y180.090042 Z-0.125000
G01 X157.584868 Y179.289387 Z-0.125000
G01 X158.780280 Y178.418142 Z-0.125000
G01 X160.055385 Y177.342506 Z-0.125000
G01 X164.996393 Y172.610678 Z-0.125000
G01 X165.235471 Y172.460897 Z-0.125000
G01 X165.447984 Y172.480794 Z-0.125000
G01 X167.148115 Y173.162386 Z-0.125000
G01 X168.787524 Y174.020349 Z-0.125000
G01 X170.335864 Y174.644924 Z-0.125000
G01 X171.717225 Y175.413141 Z-0.125000
G01 X172.886073 Y175.858011 Z-0.125000
G00 Z3.000000

(End cutting path id: polyline339)


(Start cutting path id: polyline337)
(Change tool to Default tool)

G00 Z3.000000
G00 X16.048917 Y175.388773

G00 Z4.875000 (Fast pre-penetrate)
G01 Z-0.125000 F400.0(Penetrate)
G01 X17.688327 Y176.334233 Z-0.125000 F800.000000
G01 X19.130410 Y176.911130 Z-0.125000
G01 X20.511745 Y177.162563 Z-0.125000
G01 X21.893106 Y177.090835 Z-0.125000
G01 X23.061954 Y176.789660 Z-0.125000
G01 X24.245963 Y176.297165 Z-0.125000
G01 X28.162347 Y174.091125 Z-0.125000
G01 X29.862478 Y173.290550 Z-0.125000
G01 X31.562609 Y172.799061 Z-0.125000
G01 X33.156484 Y172.666293 Z-0.125000
G01 X34.325332 Y172.761675 Z-0.125000
G01 X35.600437 Y173.020861 Z-0.125000
G01 X42.294704 Y175.279685 Z-0.125000
G01 X44.313605 Y175.759427 Z-0.125000
G01 X46.332505 Y176.053484 Z-0.125000
G01 X49.626511 Y176.216229 Z-0.125000
G01 X57.914653 Y176.085155 Z-0.125000
G01 X65.352742 Y176.214219 Z-0.125000
G01 X67.690413 Y176.187152 Z-0.125000
G01 X70.134339 Y175.983449 Z-0.125000
G01 X72.365779 Y175.557682 Z-0.125000
G01 X74.490936 Y174.909454 Z-0.125000
G01 X79.272560 Y173.089440 Z-0.125000
G01 X80.653921 Y172.759823 Z-0.125000
G01 X81.929026 Y172.666928 Z-0.125000
G01 X83.204104 Y172.828138 Z-0.125000
G01 X84.448862 Y173.247661 Z-0.125000
G01 X85.906105 Y174.033367 Z-0.125000
G01 X88.638454 Y175.905027 Z-0.125000
G01 X89.731393 Y176.553388 Z-0.125000
G01 X90.960964 Y177.039903 Z-0.125000
G01 X92.129812 Y177.171639 Z-0.125000
G01 X93.298634 Y176.933858 Z-0.125000
G01 X94.558578 Y176.277295 Z-0.125000
G01 X95.742587 Y175.361309 Z-0.125000
G01 X98.292797 Y173.070840 Z-0.125000
G01 X99.476806 Y172.219862 Z-0.125000
G01 X100.524210 Y171.744380 Z-0.125000
G01 X101.586776 Y171.594044 Z-0.125000
G01 X102.224341 Y171.675694 Z-0.125000
G01 X102.846720 Y171.877571 Z-0.125000
G01 X104.110421 Y172.622160 Z-0.125000
G01 X105.385526 Y173.720841 Z-0.125000
G01 X108.174786 Y176.472240 Z-0.125000
G01 X109.586522 Y177.568672 Z-0.125000
G01 X110.315131 Y177.967240 Z-0.125000
G01 X110.937509 Y178.201502 Z-0.125000
G01 X111.575075 Y178.334481 Z-0.125000
G01 X112.212614 Y178.357844 Z-0.125000
G01 X113.487719 Y178.088101 Z-0.125000
G01 X114.869080 Y177.380130 Z-0.125000
G01 X116.303544 Y176.310368 Z-0.125000
G01 X119.570985 Y173.421333 Z-0.125000
G01 X121.062413 Y172.239944 Z-0.125000
G01 X122.701822 Y171.222569 Z-0.125000
G01 X124.326044 Y170.542035 Z-0.125000
G01 X124.614466 Y170.613817 Z-0.125000
G01 X126.709275 Y172.094820 Z-0.125000
G01 X129.168389 Y173.532511 Z-0.125000
G01 X130.807798 Y174.239001 Z-0.125000
G01 X132.614186 Y175.173825 Z-0.125000
G01 X133.995547 Y175.610467 Z-0.125000
G01 X136.014448 Y176.510710 Z-0.125000
G01 X137.927092 Y177.028949 Z-0.125000
G01 X140.158532 Y177.906253 Z-0.125000
G01 X141.221097 Y178.194199 Z-0.125000
G01 X142.283689 Y178.378375 Z-0.125000
G01 X144.940155 Y179.358841 Z-0.125000
G01 X146.746543 Y179.714678 Z-0.125000
G01 X148.446674 Y179.762647 Z-0.125000
G01 X150.040548 Y179.533068 Z-0.125000
G01 X151.634423 Y179.028509 Z-0.125000
G01 X153.213110 Y178.262303 Z-0.125000
G01 X154.670354 Y177.337373 Z-0.125000
G01 X156.150378 Y176.216335 Z-0.125000
G01 X161.808645 Y171.229819 Z-0.125000
G01 X162.047722 Y171.092130 Z-0.125000
G01 X162.260235 Y171.111444 Z-0.125000
G01 X164.066622 Y171.822987 Z-0.125000
G01 X165.873010 Y172.699657 Z-0.125000
G01 X167.148115 Y173.162386 Z-0.125000
G01 X168.787524 Y174.020349 Z-0.125000
G01 X170.335864 Y174.644924 Z-0.125000
G01 X171.717225 Y175.413141 Z-0.125000
G01 X172.886073 Y175.858011 Z-0.125000
G00 Z3.000000

(End cutting path id: polyline337)


(Start cutting path id: polyline335)
(Change tool to Default tool)

G00 Z3.000000
G00 X16.048917 Y175.271509

G00 Z4.875000 (Fast pre-penetrate)
G01 Z-0.125000 F400.0(Penetrate)
G01 X17.111483 Y175.643592 Z-0.125000 F800.000000
G01 X18.174074 Y175.831658 Z-0.125000
G01 X19.236666 Y175.822636 Z-0.125000
G01 X20.299232 Y175.620045 Z-0.125000
G01 X21.255567 Y175.289395 Z-0.125000
G01 X22.242250 Y174.827777 Z-0.125000
G01 X25.703234 Y172.811470 Z-0.125000
G01 X27.099756 Y172.107811 Z-0.125000
G01 X28.587373 Y171.585974 Z-0.125000
G01 X30.074991 Y171.353776 Z-0.125000
G01 X31.456353 Y171.401242 Z-0.125000
G01 X32.837714 Y171.668974 Z-0.125000
G01 X34.325332 Y172.137788 Z-0.125000
G01 X37.725594 Y173.461312 Z-0.125000
G01 X39.425725 Y174.041886 Z-0.125000
G01 X41.338369 Y174.521734 Z-0.125000
G01 X43.251013 Y174.797403 Z-0.125000
G01 X44.844888 Y174.887679 Z-0.125000
G01 X46.545019 Y174.877466 Z-0.125000
G01 X53.664339 Y174.439925 Z-0.125000
G01 X57.383370 Y174.351078 Z-0.125000
G01 X60.571119 Y174.437120 Z-0.125000
G01 X66.309051 Y174.821057 Z-0.125000
G01 X68.540491 Y174.894664 Z-0.125000
G01 X70.984418 Y174.759462 Z-0.125000
G01 X73.109575 Y174.358195 Z-0.125000
G01 X75.234759 Y173.657765 Z-0.125000
G01 X79.697586 Y171.784385 Z-0.125000
G01 X80.972691 Y171.447306 Z-0.125000
G01 X82.141539 Y171.342558 Z-0.125000
G01 X83.310361 Y171.479585 Z-0.125000
G01 X84.539931 Y171.901569 Z-0.125000
G01 X85.906105 Y172.669547 Z-0.125000
G01 X88.547385 Y174.571502 Z-0.125000
G01 X89.640324 Y175.249919 Z-0.125000
G01 X90.854707 Y175.737519 Z-0.125000
G01 X91.917299 Y175.847639 Z-0.125000
G01 X93.086121 Y175.580251 Z-0.125000
G01 X94.285343 Y174.902099 Z-0.125000
G01 X95.344125 Y174.038076 Z-0.125000
G01 X97.734923 Y171.786528 Z-0.125000
G01 X98.930336 Y170.883612 Z-0.125000
G01 X99.886645 Y170.427921 Z-0.125000
G01 X100.842980 Y170.269991 Z-0.125000
G01 X101.480519 Y170.342699 Z-0.125000
G01 X102.011828 Y170.511317 Z-0.125000
G01 X102.664554 Y170.844718 Z-0.125000
G01 X103.302094 Y171.290938 Z-0.125000
G01 X104.429191 Y172.307333 Z-0.125000
G01 X107.138785 Y175.141387 Z-0.125000
G01 X108.493583 Y176.261447 Z-0.125000
G01 X109.131122 Y176.634641 Z-0.125000
G01 X109.768661 Y176.890413 Z-0.125000
G01 X110.406227 Y177.021488 Z-0.125000
G01 X110.937509 Y177.033632 Z-0.125000
G01 X112.106358 Y176.759736 Z-0.125000
G01 X113.320741 Y176.085949 Z-0.125000
G01 X114.629977 Y175.025288 Z-0.125000
G01 X117.817726 Y171.916994 Z-0.125000
G01 X119.252215 Y170.687133 Z-0.125000
G01 X120.789178 Y169.696428 Z-0.125000
G01 X122.413400 Y169.076060 Z-0.125000
G01 X122.701822 Y169.126966 Z-0.125000
G01 X123.157222 Y169.395438 Z-0.125000
G01 X124.614466 Y170.618923 Z-0.125000
G01 X126.891441 Y172.209728 Z-0.125000
G01 X129.350555 Y173.630539 Z-0.125000
G01 X130.807798 Y174.239001 Z-0.125000
G01 X132.082903 Y174.940648 Z-0.125000
G01 X133.039239 Y175.334427 Z-0.125000
G01 X133.995547 Y175.610467 Z-0.125000
G01 X136.226961 Y176.585376 Z-0.125000
G01 X137.927092 Y177.028949 Z-0.125000
G01 X140.371045 Y177.971870 Z-0.125000
G01 X142.177433 Y178.364776 Z-0.125000
G01 X143.877564 Y178.450977 Z-0.125000
G01 X145.577695 Y178.251428 Z-0.125000
G01 X147.277826 Y177.765839 Z-0.125000
G01 X148.932422 Y177.029902 Z-0.125000
G01 X150.389666 Y176.185273 Z-0.125000
G01 X151.938005 Y175.116331 Z-0.125000
G01 X157.983356 Y170.204613 Z-0.125000
G01 X158.586738 Y169.788794 Z-0.125000
G01 X158.859973 Y169.696084 Z-0.125000
G01 X161.197669 Y170.598656 Z-0.125000
G01 X162.685261 Y171.317713 Z-0.125000
G01 X164.385392 Y171.958110 Z-0.125000
G01 X165.873010 Y172.699657 Z-0.125000
G01 X167.148115 Y173.162386 Z-0.125000
G01 X168.787524 Y174.020349 Z-0.125000
G01 X170.335864 Y174.644924 Z-0.125000
G01 X171.717225 Y175.413141 Z-0.125000
G01 X172.886073 Y175.858011 Z-0.125000
G00 Z3.000000

(End cutting path id: polyline335)


(Start cutting path id: polyline333)
(Change tool to Default tool)

G00 Z3.000000
G00 X16.048917 Y174.506150

G00 Z4.875000 (Fast pre-penetrate)
G01 Z-0.125000 F400.0(Penetrate)
G01 X17.430279 Y174.459504 Z-0.125000 F800.000000
G01 X18.811614 Y174.082844 Z-0.125000
G01 X20.329606 Y173.363892 Z-0.125000
G01 X23.426259 Y171.500805 Z-0.125000
G01 X24.701364 Y170.832547 Z-0.125000
G01 X26.143447 Y170.291555 Z-0.125000
G01 X27.631065 Y170.034168 Z-0.125000
G01 X28.906169 Y170.065574 Z-0.125000
G01 X30.287504 Y170.332512 Z-0.125000
G01 X31.775122 Y170.822705 Z-0.125000
G01 X35.175384 Y172.227138 Z-0.125000
G01 X36.769259 Y172.798267 Z-0.125000
G01 X38.575646 Y173.264885 Z-0.125000
G01 X40.382034 Y173.515049 Z-0.125000
G01 X41.869652 Y173.571749 Z-0.125000
G01 X43.463526 Y173.514731 Z-0.125000
G01 X51.645411 Y172.635099 Z-0.125000
G01 X54.089365 Y172.482196 Z-0.125000
G01 X56.427035 Y172.436397 Z-0.125000
G01 X60.783632 Y172.623721 Z-0.125000
G01 X67.796669 Y173.432790 Z-0.125000
G01 X70.240622 Y173.571775 Z-0.125000
G01 X72.259523 Y173.439695 Z-0.125000
G01 X74.065910 Y173.053986 Z-0.125000
G01 X75.978554 Y172.357260 Z-0.125000
G01 X80.122639 Y170.465597 Z-0.125000
G01 X81.291460 Y170.131350 Z-0.125000
G01 X82.354052 Y170.019484 Z-0.125000
G01 X83.522900 Y170.156009 Z-0.125000
G01 X84.631001 Y170.551190 Z-0.125000
G01 X85.997175 Y171.354411 Z-0.125000
G01 X88.547385 Y173.280522 Z-0.125000
G01 X89.549255 Y173.927798 Z-0.125000
G01 X90.748451 Y174.424764 Z-0.125000
G01 X91.811042 Y174.518930 Z-0.125000
G01 X92.873608 Y174.245721 Z-0.125000
G01 X93.989328 Y173.584343 Z-0.125000
G01 X95.105048 Y172.625097 Z-0.125000
G01 X97.336461 Y170.430805 Z-0.125000
G01 X98.383866 Y169.600887 Z-0.125000
G01 X99.355362 Y169.106223 Z-0.125000
G01 X100.311697 Y168.947499 Z-0.125000
G01 X100.842980 Y169.010841 Z-0.125000
G01 X101.480519 Y169.228778 Z-0.125000
G01 X102.675932 Y170.015939 Z-0.125000
G01 X103.747360 Y171.044611 Z-0.125000
G01 X106.297570 Y173.857816 Z-0.125000
G01 X107.582782 Y174.970970 Z-0.125000
G01 X108.706096 Y175.557391 Z-0.125000
G01 X109.237378 Y175.685899 Z-0.125000
G01 X109.874944 Y175.707754 Z-0.125000
G01 X110.512483 Y175.587051 Z-0.125000
G01 X111.134862 Y175.338713 Z-0.125000
G01 X112.398563 Y174.489720 Z-0.125000
G01 X113.664804 Y173.297694 Z-0.125000
G01 X116.622340 Y170.156168 Z-0.125000
G01 X118.147899 Y168.846191 Z-0.125000
G01 X118.876534 Y168.373434 Z-0.125000
G01 X119.650677 Y167.996773 Z-0.125000
G01 X121.138295 Y167.624082 Z-0.125000
G01 X121.483655 Y167.799394 Z-0.125000
G01 X122.679041 Y168.984329 Z-0.125000
G01 X124.705535 Y170.686154 Z-0.125000
G01 X126.800345 Y172.153081 Z-0.125000
G01 X129.168389 Y173.532511 Z-0.125000
G01 X130.807798 Y174.239001 Z-0.125000
G01 X132.720442 Y175.216132 Z-0.125000
G01 X133.995547 Y175.610467 Z-0.125000
G01 X136.226961 Y176.585376 Z-0.125000
G01 X137.927092 Y177.012201 Z-0.125000
G01 X139.520966 Y177.133115 Z-0.125000
G01 X141.221097 Y176.967248 Z-0.125000
G01 X142.921228 Y176.510896 Z-0.125000
G01 X144.651733 Y175.773185 Z-0.125000
G01 X146.108977 Y174.964381 Z-0.125000
G01 X147.748413 Y173.885571 Z-0.125000
G01 X154.761450 Y168.510382 Z-0.125000
G01 X155.247198 Y168.320358 Z-0.125000
G01 X155.778480 Y168.414841 Z-0.125000
G01 X157.691125 Y169.144799 Z-0.125000
G01 X159.497539 Y169.980405 Z-0.125000
G01 X161.091386 Y170.555132 Z-0.125000
G01 X162.685261 Y171.317713 Z-0.125000
G01 X164.279135 Y171.911252 Z-0.125000
G01 X165.873010 Y172.699657 Z-0.125000
G01 X167.239184 Y173.203714 Z-0.125000
G01 X168.878620 Y174.061783 Z-0.125000
G01 X170.229607 Y174.594442 Z-0.125000
G01 X171.717225 Y175.413141 Z-0.125000
G01 X172.886073 Y175.858011 Z-0.125000
G00 Z3.000000

(End cutting path id: polyline333)


(Start cutting path id: polyline331)
(Change tool to Default tool)

G00 Z3.000000
G00 X16.048917 Y173.008769

G00 Z4.875000 (Fast pre-penetrate)
G01 Z-0.125000 F400.0(Penetrate)
G01 X17.005226 Y172.679125 Z-0.125000 F800.000000
G01 X17.961561 Y172.220894 Z-0.125000
G01 X21.422545 Y170.109627 Z-0.125000
G01 X22.697650 Y169.438433 Z-0.125000
G01 X24.124546 Y168.918819 Z-0.125000
G01 X25.399625 Y168.710142 Z-0.125000
G01 X26.674729 Y168.750412 Z-0.125000
G01 X28.056091 Y169.043490 Z-0.125000
G01 X29.437452 Y169.530296 Z-0.125000
G01 X32.625201 Y170.922479 Z-0.125000
G01 X34.112819 Y171.489269 Z-0.125000
G01 X35.812950 Y171.957687 Z-0.125000
G01 X37.513081 Y172.203405 Z-0.125000
G01 X39.213212 Y172.240208 Z-0.125000
G01 X41.019599 Y172.100456 Z-0.125000
G01 X47.395097 Y171.087473 Z-0.125000
G01 X50.370333 Y170.723381 Z-0.125000
G01 X52.920516 Y170.541797 Z-0.125000
G01 X55.576983 Y170.480546 Z-0.125000
G01 X58.445935 Y170.559815 Z-0.125000
G01 X61.208658 Y170.787674 Z-0.125000
G01 X63.865124 Y171.151344 Z-0.125000
G01 X68.965517 Y172.037485 Z-0.125000
G01 X71.515701 Y172.248807 Z-0.125000
G01 X73.215832 Y172.131174 Z-0.125000
G01 X74.915963 Y171.734484 Z-0.125000
G01 X76.616094 Y171.059163 Z-0.125000
G01 X80.441408 Y169.173691 Z-0.125000
G01 X81.610230 Y168.810340 Z-0.125000
G01 X82.672822 Y168.696701 Z-0.125000
G01 X83.735414 Y168.833782 Z-0.125000
G01 X84.797979 Y169.234255 Z-0.125000
G01 X86.088271 Y170.031628 Z-0.125000
G01 X88.490473 Y171.930170 Z-0.125000
G01 X89.458159 Y172.588003 Z-0.125000
G01 X90.535937 Y173.073909 Z-0.125000
G01 X91.598503 Y173.200274 Z-0.125000
G01 X92.645908 Y172.937411 Z-0.125000
G01 X93.738847 Y172.269789 Z-0.125000
G01 X94.706559 Y171.416720 Z-0.125000
G01 X96.937999 Y169.134427 Z-0.125000
G01 X98.019535 Y168.245455 Z-0.125000
G01 X98.930336 Y167.774259 Z-0.125000
G01 X99.780388 Y167.624373 Z-0.125000
G01 X100.311697 Y167.683586 Z-0.125000
G01 X100.842980 Y167.860645 Z-0.125000
G01 X101.480519 Y168.220002 Z-0.125000
G01 X102.038392 Y168.652807 Z-0.125000
G01 X103.038992 Y169.645125 Z-0.125000
G01 X105.589176 Y172.589749 Z-0.125000
G01 X106.763077 Y173.652288 Z-0.125000
G01 X107.856017 Y174.247150 Z-0.125000
G01 X108.387326 Y174.372351 Z-0.125000
G01 X108.918609 Y174.385024 Z-0.125000
G01 X109.449891 Y174.286308 Z-0.125000
G01 X110.041896 Y174.050379 Z-0.125000
G01 X111.282843 Y173.176277 Z-0.125000
G01 X112.460555 Y171.991474 Z-0.125000
G01 X115.294106 Y168.749724 Z-0.125000
G01 X116.781724 Y167.395508 Z-0.125000
G01 X117.510333 Y166.914550 Z-0.125000
G01 X118.269342 Y166.561358 Z-0.125000
G01 X118.906882 Y166.386283 Z-0.125000
G01 X119.756934 Y166.296325 Z-0.125000
G01 X120.049166 Y166.378504 Z-0.125000
G01 X120.367935 Y166.621365 Z-0.125000
G01 X122.519657 Y168.837433 Z-0.125000
G01 X124.523397 Y170.549788 Z-0.125000
G01 X126.709275 Y172.094820 Z-0.125000
G01 X128.986224 Y173.429350 Z-0.125000
G01 X129.851490 Y173.872077 Z-0.125000
G01 X130.807798 Y174.239001 Z-0.125000
G01 X132.082903 Y174.940648 Z-0.125000
G01 X133.145495 Y175.370940 Z-0.125000
G01 X134.633086 Y175.728682 Z-0.125000
G01 X136.120704 Y175.803242 Z-0.125000
G01 X137.395809 Y175.652244 Z-0.125000
G01 X138.670914 Y175.317944 Z-0.125000
G01 X140.097810 Y174.748879 Z-0.125000
G01 X141.555054 Y173.984922 Z-0.125000
G01 X144.287429 Y172.177873 Z-0.125000
G01 X150.025361 Y167.839796 Z-0.125000
G01 X151.482632 Y166.864173 Z-0.125000
G01 X151.846936 Y166.725214 Z-0.125000
G01 X153.122041 Y167.323066 Z-0.125000
G01 X154.488215 Y167.807544 Z-0.125000
G01 X156.203533 Y168.616691 Z-0.125000
G01 X157.797381 Y169.187741 Z-0.125000
G01 X159.497539 Y169.980405 Z-0.125000
G01 X161.091386 Y170.555132 Z-0.125000
G01 X162.685261 Y171.317713 Z-0.125000
G01 X164.279135 Y171.911252 Z-0.125000
G01 X165.873010 Y172.699657 Z-0.125000
G01 X167.239184 Y173.203714 Z-0.125000
G01 X168.878620 Y174.061783 Z-0.125000
G01 X170.229607 Y174.594442 Z-0.125000
G01 X171.717225 Y175.413141 Z-0.125000
G01 X172.886073 Y175.858011 Z-0.125000
G00 Z3.000000

(End cutting path id: polyline331)


(Start cutting path id: polyline329)
(Change tool to Default tool)

G00 Z3.000000
G00 X16.048917 Y170.911526

G00 Z4.875000 (Fast pre-penetrate)
G01 Z-0.125000 F400.0(Penetrate)
G01 X19.327736 Y168.855477 Z-0.125000 F800.000000
G01 X20.602841 Y168.151951 Z-0.125000
G01 X21.999363 Y167.613075 Z-0.125000
G01 X23.380724 Y167.382068 Z-0.125000
G01 X24.549572 Y167.430698 Z-0.125000
G01 X25.824677 Y167.711817 Z-0.125000
G01 X27.206039 Y168.219605 Z-0.125000
G01 X30.287504 Y169.633378 Z-0.125000
G01 X31.775122 Y170.223716 Z-0.125000
G01 X33.368997 Y170.671496 Z-0.125000
G01 X34.962871 Y170.895545 Z-0.125000
G01 X36.556746 Y170.906869 Z-0.125000
G01 X38.256877 Y170.731821 Z-0.125000
G01 X44.738631 Y169.450207 Z-0.125000
G01 X47.926380 Y168.980017 Z-0.125000
G01 X51.220385 Y168.712523 Z-0.125000
G01 X54.833160 Y168.623782 Z-0.125000
G01 X58.658475 Y168.732790 Z-0.125000
G01 X61.952480 Y169.037696 Z-0.125000
G01 X64.821433 Y169.510902 Z-0.125000
G01 X70.134339 Y170.675782 Z-0.125000
G01 X71.409444 Y170.860276 Z-0.125000
G01 X72.578292 Y170.925919 Z-0.125000
G01 X74.065910 Y170.814715 Z-0.125000
G01 X75.553528 Y170.446785 Z-0.125000
G01 X77.071494 Y169.813056 Z-0.125000
G01 X80.866434 Y167.828102 Z-0.125000
G01 X82.035283 Y167.462818 Z-0.125000
G01 X82.991591 Y167.374633 Z-0.125000
G01 X83.947927 Y167.513221 Z-0.125000
G01 X84.995331 Y167.932691 Z-0.125000
G01 X86.179340 Y168.701702 Z-0.125000
G01 X88.490473 Y170.605641 Z-0.125000
G01 X89.458159 Y171.286651 Z-0.125000
G01 X90.535937 Y171.773537 Z-0.125000
G01 X91.492246 Y171.876618 Z-0.125000
G01 X92.448582 Y171.632964 Z-0.125000
G01 X93.511173 Y170.973173 Z-0.125000
G01 X94.538337 Y170.031046 Z-0.125000
G01 X96.698922 Y167.741080 Z-0.125000
G01 X97.655231 Y166.931112 Z-0.125000
G01 X98.611566 Y166.428034 Z-0.125000
G01 X99.461619 Y166.303574 Z-0.125000
G01 X99.992928 Y166.392369 Z-0.125000
G01 X100.478676 Y166.583927 Z-0.125000
G01 X101.560211 Y167.356191 Z-0.125000
G01 X102.543111 Y168.384546 Z-0.125000
G01 X104.880781 Y171.213335 Z-0.125000
G01 X106.034442 Y172.318525 Z-0.125000
G01 X106.580939 Y172.688147 Z-0.125000
G01 X107.112221 Y172.932622 Z-0.125000
G01 X108.068530 Y173.064517 Z-0.125000
G01 X108.599839 Y172.964160 Z-0.125000
G01 X109.222191 Y172.694762 Z-0.125000
G01 X110.406227 Y171.784782 Z-0.125000
G01 X111.468792 Y170.636544 Z-0.125000
G01 X114.089831 Y167.429402 Z-0.125000
G01 X115.506620 Y166.045765 Z-0.125000
G01 X116.235255 Y165.538771 Z-0.125000
G01 X116.887981 Y165.222674 Z-0.125000
G01 X117.525520 Y165.046038 Z-0.125000
G01 X118.163086 Y164.999974 Z-0.125000
G01 X119.013138 Y165.129249 Z-0.125000
G01 X119.331908 Y165.287814 Z-0.125000
G01 X120.890381 Y167.168920 Z-0.125000
G01 X122.599349 Y168.911966 Z-0.125000
G01 X124.523397 Y170.549788 Z-0.125000
G01 X126.709275 Y172.094820 Z-0.125000
G01 X129.168389 Y173.532511 Z-0.125000
G01 X130.276516 Y174.047284 Z-0.125000
G01 X131.551621 Y174.395237 Z-0.125000
G01 X132.932956 Y174.481491 Z-0.125000
G01 X133.995547 Y174.353909 Z-0.125000
G01 X135.164396 Y174.036542 Z-0.125000
G01 X136.363592 Y173.540898 Z-0.125000
G01 X137.638696 Y172.854544 Z-0.125000
G01 X140.097810 Y171.190661 Z-0.125000
G01 X146.108977 Y166.569639 Z-0.125000
G01 X147.839482 Y165.410263 Z-0.125000
G01 X148.446674 Y165.259027 Z-0.125000
G01 X148.750256 Y165.316257 Z-0.125000
G01 X149.934292 Y165.925856 Z-0.125000
G01 X151.209397 Y166.402714 Z-0.125000
G01 X153.015784 Y167.278907 Z-0.125000
G01 X154.397119 Y167.769893 Z-0.125000
G01 X156.203533 Y168.616691 Z-0.125000
G01 X157.797381 Y169.187741 Z-0.125000
G01 X159.497539 Y169.980405 Z-0.125000
G01 X161.091386 Y170.555132 Z-0.125000
G01 X162.685261 Y171.317713 Z-0.125000
G01 X164.279135 Y171.911252 Z-0.125000
G01 X165.873010 Y172.699657 Z-0.125000
G01 X167.239184 Y173.203714 Z-0.125000
G01 X168.878620 Y174.061783 Z-0.125000
G01 X170.229607 Y174.594442 Z-0.125000
G01 X171.717225 Y175.413141 Z-0.125000
G01 X172.886073 Y175.858011 Z-0.125000
G00 Z3.000000

(End cutting path id: polyline329)


(Start cutting path id: polyline327)
(Change tool to Default tool)

G00 Z3.000000
G00 X16.048917 Y168.488871

G00 Z4.875000 (Fast pre-penetrate)
G01 Z-0.125000 F400.0(Penetrate)
G01 X17.961561 Y167.248930 Z-0.125000 F800.000000
G01 X19.342923 Y166.550827 Z-0.125000
G01 X20.618028 Y166.160012 Z-0.125000
G01 X21.893106 Y166.052988 Z-0.125000
G01 X23.061954 Y166.199196 Z-0.125000
G01 X24.337059 Y166.583053 Z-0.125000
G01 X28.374860 Y168.460958 Z-0.125000
G01 X29.862478 Y169.043966 Z-0.125000
G01 X31.243840 Y169.410043 Z-0.125000
G01 X32.518945 Y169.578292 Z-0.125000
G01 X34.006562 Y169.578292 Z-0.125000
G01 X35.600437 Y169.385834 Z-0.125000
G01 X41.975908 Y167.917213 Z-0.125000
G01 X45.376197 Y167.361430 Z-0.125000
G01 X49.201485 Y167.063880 Z-0.125000
G01 X54.195621 Y166.972573 Z-0.125000
G01 X59.189758 Y167.078459 Z-0.125000
G01 X62.802533 Y167.396011 Z-0.125000
G01 X65.884025 Y167.958277 Z-0.125000
G01 X71.303188 Y169.356995 Z-0.125000
G01 X72.684549 Y169.564798 Z-0.125000
G01 X73.853397 Y169.595913 Z-0.125000
G01 X75.128476 Y169.435126 Z-0.125000
G01 X76.297324 Y169.091512 Z-0.125000
G01 X77.617964 Y168.494084 Z-0.125000
G01 X81.185204 Y166.515267 Z-0.125000
G01 X82.247796 Y166.155329 Z-0.125000
G01 X83.204104 Y166.051374 Z-0.125000
G01 X84.160440 Y166.194196 Z-0.125000
G01 X85.177470 Y166.625202 Z-0.125000
G01 X86.259033 Y167.356906 Z-0.125000
G01 X88.490473 Y169.266745 Z-0.125000
G01 X89.367089 Y169.916138 Z-0.125000
G01 X90.323424 Y170.399346 Z-0.125000
G01 X91.279733 Y170.559948 Z-0.125000
G01 X92.129812 Y170.391964 Z-0.125000
G01 X93.010238 Y169.912857 Z-0.125000
G01 X94.042456 Y169.021186 Z-0.125000
G01 X96.238468 Y166.616312 Z-0.125000
G01 X97.108761 Y165.800285 Z-0.125000
G01 X98.110631 Y165.169466 Z-0.125000
G01 X99.036592 Y164.978754 Z-0.125000
G01 X99.567875 Y165.056780 Z-0.125000
G01 X99.992928 Y165.218334 Z-0.125000
G01 X100.478676 Y165.504375 Z-0.125000
G01 X101.082057 Y165.997584 Z-0.125000
G01 X102.118085 Y167.124258 Z-0.125000
G01 X104.314071 Y169.895368 Z-0.125000
G01 X105.396903 Y170.980820 Z-0.125000
G01 X106.398773 Y171.592139 Z-0.125000
G01 X106.899708 Y171.725515 Z-0.125000
G01 X107.324734 Y171.743983 Z-0.125000
G01 X107.856017 Y171.643785 Z-0.125000
G01 X108.402487 Y171.402539 Z-0.125000
G01 X109.529584 Y170.513593 Z-0.125000
G01 X110.597494 Y169.303390 Z-0.125000
G01 X113.168949 Y165.976735 Z-0.125000
G01 X114.470592 Y164.652153 Z-0.125000
G01 X115.142315 Y164.169422 Z-0.125000
G01 X115.719133 Y163.882137 Z-0.125000
G01 X116.250415 Y163.726404 Z-0.125000
G01 X116.887981 Y163.678673 Z-0.125000
G01 X117.844290 Y163.874967 Z-0.125000
G01 X118.603299 Y164.326716 Z-0.125000
G01 X120.415745 Y166.618825 Z-0.125000
G01 X121.244552 Y167.549390 Z-0.125000
G01 X122.679041 Y168.984329 Z-0.125000
G01 X124.796631 Y170.751823 Z-0.125000
G01 X126.709275 Y172.094820 Z-0.125000
G01 X127.832563 Y172.700636 Z-0.125000
G01 X129.001411 Y173.065734 Z-0.125000
G01 X130.276516 Y173.158708 Z-0.125000
G01 X131.232825 Y173.031656 Z-0.125000
G01 X132.189160 Y172.752177 Z-0.125000
G01 X133.266912 Y172.275980 Z-0.125000
G01 X134.359852 Y171.646881 Z-0.125000
G01 X136.545757 Y170.068643 Z-0.125000
G01 X142.374759 Y165.321204 Z-0.125000
G01 X144.651733 Y163.797788 Z-0.125000
G01 X145.258925 Y163.648590 Z-0.125000
G01 X145.562508 Y163.713783 Z-0.125000
G01 X146.746543 Y164.410986 Z-0.125000
G01 X148.112717 Y165.004498 Z-0.125000
G01 X149.934292 Y165.925856 Z-0.125000
G01 X151.209397 Y166.402714 Z-0.125000
G01 X153.122041 Y167.323066 Z-0.125000
G01 X154.488215 Y167.807544 Z-0.125000
G01 X156.203533 Y168.616691 Z-0.125000
G01 X157.797381 Y169.187741 Z-0.125000
G01 X159.497539 Y169.980405 Z-0.125000
G01 X161.091386 Y170.555132 Z-0.125000
G01 X162.685261 Y171.317713 Z-0.125000
G01 X164.279135 Y171.911252 Z-0.125000
G01 X165.873010 Y172.699657 Z-0.125000
G01 X167.239184 Y173.203714 Z-0.125000
G01 X169.273272 Y174.229105 Z-0.125000
G01 X170.229607 Y174.550521 Z-0.125000
G01 X171.079686 Y174.730966 Z-0.125000
G01 X172.035995 Y174.810765 Z-0.125000
G01 X172.886073 Y174.770072 Z-0.125000
G00 Z3.000000

(End cutting path id: polyline327)


(Start cutting path id: polyline325)
(Change tool to Default tool)

G00 Z3.000000
G00 X16.048917 Y166.057089

G00 Z4.875000 (Fast pre-penetrate)
G01 Z-0.125000 F400.0(Penetrate)
G01 X17.324022 Y165.350520 Z-0.125000 F800.000000
G01 X18.492844 Y164.917080 Z-0.125000
G01 X19.555436 Y164.739413 Z-0.125000
G01 X20.724284 Y164.789101 Z-0.125000
G01 X21.680593 Y165.004842 Z-0.125000
G01 X22.636928 Y165.348059 Z-0.125000
G01 X26.249703 Y167.122353 Z-0.125000
G01 X27.737321 Y167.734942 Z-0.125000
G01 X29.331196 Y168.149385 Z-0.125000
G01 X30.925070 Y168.280062 Z-0.125000
G01 X32.093892 Y168.209260 Z-0.125000
G01 X33.262740 Y168.024899 Z-0.125000
G01 X39.744495 Y166.355433 Z-0.125000
G01 X41.657139 Y166.003061 Z-0.125000
G01 X43.676039 Y165.762105 Z-0.125000
G01 X48.245149 Y165.575468 Z-0.125000
G01 X60.677376 Y165.622353 Z-0.125000
G01 X63.121302 Y165.790786 Z-0.125000
G01 X65.352742 Y166.118896 Z-0.125000
G01 X67.477899 Y166.620333 Z-0.125000
G01 X72.047010 Y167.984788 Z-0.125000
G01 X73.322088 Y168.220187 Z-0.125000
G01 X74.384680 Y168.279295 Z-0.125000
G01 X75.659785 Y168.138669 Z-0.125000
G01 X76.828633 Y167.786615 Z-0.125000
G01 X78.073364 Y167.195378 Z-0.125000
G01 X81.534348 Y165.177906 Z-0.125000
G01 X82.566565 Y164.821989 Z-0.125000
G01 X83.522900 Y164.730787 Z-0.125000
G01 X84.585466 Y164.948301 Z-0.125000
G01 X85.632871 Y165.488553 Z-0.125000
G01 X86.577802 Y166.204594 Z-0.125000
G01 X88.649858 Y168.048737 Z-0.125000
G01 X89.640324 Y168.761842 Z-0.125000
G01 X90.535937 Y169.152181 Z-0.125000
G01 X91.279733 Y169.234942 Z-0.125000
G01 X91.811042 Y169.146730 Z-0.125000
G01 X92.281603 Y168.965279 Z-0.125000
G01 X93.272070 Y168.291439 Z-0.125000
G01 X94.113285 Y167.467660 Z-0.125000
G01 X96.167613 Y165.138033 Z-0.125000
G01 X97.108761 Y164.281261 Z-0.125000
G01 X97.974001 Y163.789957 Z-0.125000
G01 X98.824079 Y163.659888 Z-0.125000
G01 X99.249105 Y163.736537 Z-0.125000
G01 X99.750040 Y163.946113 Z-0.125000
G01 X100.763288 Y164.733989 Z-0.125000
G01 X101.671786 Y165.761814 Z-0.125000
G01 X103.839462 Y168.599467 Z-0.125000
G01 X104.827653 Y169.631129 Z-0.125000
G01 X105.761207 Y170.244618 Z-0.125000
G01 X106.262142 Y170.396330 Z-0.125000
G01 X106.687195 Y170.422232 Z-0.125000
G01 X107.218478 Y170.320183 Z-0.125000
G01 X107.673878 Y170.116877 Z-0.125000
G01 X108.174786 Y169.779031 Z-0.125000
G01 X108.776924 Y169.230815 Z-0.125000
G01 X109.832425 Y167.981031 Z-0.125000
G01 X112.255106 Y164.674325 Z-0.125000
G01 X113.514283 Y163.316697 Z-0.125000
G01 X114.140445 Y162.841241 Z-0.125000
G01 X114.686915 Y162.553984 Z-0.125000
G01 X115.294106 Y162.381714 Z-0.125000
G01 X115.825389 Y162.359198 Z-0.125000
G01 X116.356672 Y162.453627 Z-0.125000
G01 X116.872794 Y162.651826 Z-0.125000
G01 X117.897418 Y163.322438 Z-0.125000
G01 X119.331908 Y165.287814 Z-0.125000
G01 X120.961210 Y167.246681 Z-0.125000
G01 X122.599349 Y168.911966 Z-0.125000
G01 X124.523397 Y170.550158 Z-0.125000
G01 X125.434171 Y171.165657 Z-0.125000
G01 X126.238688 Y171.546683 Z-0.125000
G01 X127.088767 Y171.779384 Z-0.125000
G01 X127.938819 Y171.840265 Z-0.125000
G01 X128.788898 Y171.738003 Z-0.125000
G01 X129.638950 Y171.486041 Z-0.125000
G01 X130.625633 Y171.026857 Z-0.125000
G01 X131.627503 Y170.407257 Z-0.125000
G01 X133.517393 Y168.930989 Z-0.125000
G01 X138.936555 Y164.129602 Z-0.125000
G01 X140.644280 Y162.879526 Z-0.125000
G01 X142.010454 Y162.022357 Z-0.125000
G01 X142.283689 Y161.926657 Z-0.125000
G01 X142.556924 Y162.019817 Z-0.125000
G01 X144.105264 Y163.008828 Z-0.125000
G01 X146.564378 Y164.317482 Z-0.125000
G01 X149.752126 Y165.844417 Z-0.125000
G01 X151.209397 Y166.402714 Z-0.125000
G01 X153.122041 Y167.323066 Z-0.125000
G01 X154.488215 Y167.807544 Z-0.125000
G01 X156.203533 Y168.616691 Z-0.125000
G01 X157.691125 Y169.144799 Z-0.125000
G01 X159.497539 Y169.980405 Z-0.125000
G01 X161.197669 Y170.598656 Z-0.125000
G01 X162.594191 Y171.278185 Z-0.125000
G01 X164.279135 Y171.911252 Z-0.125000
G01 X166.616832 Y172.992682 Z-0.125000
G01 X168.210706 Y173.397389 Z-0.125000
G01 X169.698324 Y173.482293 Z-0.125000
G01 X171.292199 Y173.250572 Z-0.125000
G01 X172.886073 Y172.694206 Z-0.125000
G00 Z3.000000

(End cutting path id: polyline325)


(Start cutting path id: polyline323)
(Change tool to Default tool)

G00 Z3.000000
G00 X16.048917 Y163.883169

G00 Z4.875000 (Fast pre-penetrate)
G01 Z-0.125000 F400.0(Penetrate)
G01 X16.898970 Y163.584561 Z-0.125000 F800.000000
G01 X17.749048 Y163.428166 Z-0.125000
G01 X18.599101 Y163.418588 Z-0.125000
G01 X19.555436 Y163.574560 Z-0.125000
G01 X21.240380 Y164.196039 Z-0.125000
G01 X24.245963 Y165.761021 Z-0.125000
G01 X25.505881 Y166.323365 Z-0.125000
G01 X26.887242 Y166.751513 Z-0.125000
G01 X28.268604 Y166.945109 Z-0.125000
G01 X29.543709 Y166.919338 Z-0.125000
G01 X30.818814 Y166.728310 Z-0.125000
G01 X37.194311 Y164.937797 Z-0.125000
G01 X39.000699 Y164.583520 Z-0.125000
G01 X40.913343 Y164.356799 Z-0.125000
G01 X44.207348 Y164.248188 Z-0.125000
G01 X53.345542 Y164.422151 Z-0.125000
G01 X61.421171 Y164.247553 Z-0.125000
G01 X64.077637 Y164.348994 Z-0.125000
G01 X66.415308 Y164.677738 Z-0.125000
G01 X68.540491 Y165.222674 Z-0.125000
G01 X72.790805 Y166.637028 Z-0.125000
G01 X73.959654 Y166.883117 Z-0.125000
G01 X75.022219 Y166.956751 Z-0.125000
G01 X76.191067 Y166.827952 Z-0.125000
G01 X77.359916 Y166.459282 Z-0.125000
G01 X78.619834 Y165.819123 Z-0.125000
G01 X80.896782 Y164.366430 Z-0.125000
G01 X81.822769 Y163.859701 Z-0.125000
G01 X82.779078 Y163.508969 Z-0.125000
G01 X83.735414 Y163.407846 Z-0.125000
G01 X84.585466 Y163.562468 Z-0.125000
G01 X85.541801 Y164.014588 Z-0.125000
G01 X86.498110 Y164.719093 Z-0.125000
G01 X88.570165 Y166.620360 Z-0.125000
G01 X89.367089 Y167.253533 Z-0.125000
G01 X90.323424 Y167.766718 Z-0.125000
G01 X91.173477 Y167.914356 Z-0.125000
G01 X92.099438 Y167.696207 Z-0.125000
G01 X93.112685 Y167.020039 Z-0.125000
G01 X93.971627 Y166.164324 Z-0.125000
G01 X96.025929 Y163.768287 Z-0.125000
G01 X96.937999 Y162.923553 Z-0.125000
G01 X97.761488 Y162.456511 Z-0.125000
G01 X98.505310 Y162.334380 Z-0.125000
G01 X99.021405 Y162.429921 Z-0.125000
G01 X99.476806 Y162.637010 Z-0.125000
G01 X100.417954 Y163.393664 Z-0.125000
G01 X101.353017 Y164.492795 Z-0.125000
G01 X103.329425 Y167.180217 Z-0.125000
G01 X104.349498 Y168.299747 Z-0.125000
G01 X105.214738 Y168.901700 Z-0.125000
G01 X106.049629 Y169.101831 Z-0.125000
G01 X106.580939 Y169.022694 Z-0.125000
G01 X107.036312 Y168.828331 Z-0.125000
G01 X107.537247 Y168.489056 Z-0.125000
G01 X108.139385 Y167.924727 Z-0.125000
G01 X109.189092 Y166.625810 Z-0.125000
G01 X111.553802 Y163.250366 Z-0.125000
G01 X112.717333 Y161.952798 Z-0.125000
G01 X113.229645 Y161.543303 Z-0.125000
G01 X113.806489 Y161.220988 Z-0.125000
G01 X114.337771 Y161.061788 Z-0.125000
G01 X114.869080 Y161.037050 Z-0.125000
G01 X115.400363 Y161.144471 Z-0.125000
G01 X115.962020 Y161.393893 Z-0.125000
G01 X116.599559 Y161.831196 Z-0.125000
G01 X117.259879 Y162.421480 Z-0.125000
G01 X119.204405 Y165.120227 Z-0.125000
G01 X120.543248 Y166.772812 Z-0.125000
G01 X122.918119 Y169.198245 Z-0.125000
G01 X123.703692 Y169.788979 Z-0.125000
G01 X124.432301 Y170.183975 Z-0.125000
G01 X125.176123 Y170.430223 Z-0.125000
G01 X126.026175 Y170.518487 Z-0.125000
G01 X126.769997 Y170.433794 Z-0.125000
G01 X127.620049 Y170.166539 Z-0.125000
G01 X128.439754 Y169.755271 Z-0.125000
G01 X129.350555 Y169.148027 Z-0.125000
G01 X131.046876 Y167.707346 Z-0.125000
G01 X134.633086 Y164.155478 Z-0.125000
G01 X136.306653 Y162.625342 Z-0.125000
G01 X138.094070 Y161.263771 Z-0.125000
G01 X139.460271 Y160.427107 Z-0.125000
G01 X139.733506 Y160.333180 Z-0.125000
G01 X140.371045 Y160.607050 Z-0.125000
G01 X141.555054 Y161.470992 Z-0.125000
G01 X144.105264 Y163.008828 Z-0.125000
G01 X146.746543 Y164.410986 Z-0.125000
G01 X148.112717 Y165.004498 Z-0.125000
G01 X149.569961 Y165.759645 Z-0.125000
G01 X151.209397 Y166.402714 Z-0.125000
G01 X153.015784 Y167.278907 Z-0.125000
G01 X154.488215 Y167.807544 Z-0.125000
G01 X156.203533 Y168.616691 Z-0.125000
G01 X157.797381 Y169.187741 Z-0.125000
G01 X159.497539 Y169.980405 Z-0.125000
G01 X161.303926 Y170.644217 Z-0.125000
G01 X162.791544 Y171.362745 Z-0.125000
G01 X164.066622 Y171.812351 Z-0.125000
G01 X165.235471 Y172.067780 Z-0.125000
G01 X166.298062 Y172.162686 Z-0.125000
G01 X167.360628 Y172.123448 Z-0.125000
G01 X168.423220 Y171.949829 Z-0.125000
G01 X169.485811 Y171.644526 Z-0.125000
G01 X170.609098 Y171.185131 Z-0.125000
G01 X171.702038 Y170.612997 Z-0.125000
G01 X172.886073 Y169.868619 Z-0.125000
G00 Z3.000000

(End cutting path id: polyline323)


(Start cutting path id: polyline321)
(Change tool to Default tool)

G00 Z3.000000
G00 X16.048917 Y162.126894

G00 Z4.875000 (Fast pre-penetrate)
G01 Z-0.125000 F400.0(Penetrate)
G01 X17.217739 Y162.111548 Z-0.125000 F800.000000
G01 X18.492844 Y162.409098 Z-0.125000
G01 X19.783136 Y162.966442 Z-0.125000
G01 X22.333319 Y164.361059 Z-0.125000
G01 X23.593237 Y164.962483 Z-0.125000
G01 X24.974598 Y165.421984 Z-0.125000
G01 X26.249703 Y165.618225 Z-0.125000
G01 X27.418552 Y165.605313 Z-0.125000
G01 X28.693630 Y165.410527 Z-0.125000
G01 X30.074991 Y165.045641 Z-0.125000
G01 X34.856615 Y163.543471 Z-0.125000
G01 X36.556746 Y163.194592 Z-0.125000
G01 X38.363133 Y162.986841 Z-0.125000
G01 X41.444626 Y162.946069 Z-0.125000
G01 X48.563919 Y163.363581 Z-0.125000
G01 X52.389234 Y163.450020 Z-0.125000
G01 X55.683239 Y163.367973 Z-0.125000
G01 X61.527428 Y162.992450 Z-0.125000
G01 X63.652611 Y162.924559 Z-0.125000
G01 X65.777768 Y163.026053 Z-0.125000
G01 X67.690412 Y163.339134 Z-0.125000
G01 X69.603057 Y163.888540 Z-0.125000
G01 X73.428345 Y165.285406 Z-0.125000
G01 X74.597193 Y165.556921 Z-0.125000
G01 X75.553528 Y165.634127 Z-0.125000
G01 X76.616094 Y165.527605 Z-0.125000
G01 X77.784942 Y165.155840 Z-0.125000
G01 X78.984138 Y164.524492 Z-0.125000
G01 X82.080817 Y162.546708 Z-0.125000
G01 X82.991591 Y162.194309 Z-0.125000
G01 X83.947927 Y162.085090 Z-0.125000
G01 X84.797979 Y162.250242 Z-0.125000
G01 X85.632871 Y162.654843 Z-0.125000
G01 X86.657495 Y163.432108 Z-0.125000
G01 X89.367089 Y165.907494 Z-0.125000
G01 X90.323424 Y166.442216 Z-0.125000
G01 X91.173477 Y166.590938 Z-0.125000
G01 X91.598503 Y166.533259 Z-0.125000
G01 X92.099438 Y166.351358 Z-0.125000
G01 X93.032992 Y165.701304 Z-0.125000
G01 X93.900772 Y164.809474 Z-0.125000
G01 X95.884271 Y162.429921 Z-0.125000
G01 X96.778615 Y161.583334 Z-0.125000
G01 X97.564162 Y161.129733 Z-0.125000
G01 X98.292797 Y161.011809 Z-0.125000
G01 X98.717823 Y161.087850 Z-0.125000
G01 X99.203571 Y161.303697 Z-0.125000
G01 X100.205441 Y162.146923 Z-0.125000
G01 X101.034247 Y163.159720 Z-0.125000
G01 X103.010656 Y165.929004 Z-0.125000
G01 X103.959900 Y166.995433 Z-0.125000
G01 X104.774525 Y167.577065 Z-0.125000
G01 X105.199577 Y167.732905 Z-0.125000
G01 X105.624603 Y167.778201 Z-0.125000
G01 X106.049629 Y167.713273 Z-0.125000
G01 X106.580939 Y167.478349 Z-0.125000
G01 X107.138785 Y167.059753 Z-0.125000
G01 X107.643504 Y166.547414 Z-0.125000
G01 X108.609496 Y165.295804 Z-0.125000
G01 X110.852499 Y161.951449 Z-0.125000
G01 X112.000101 Y160.612050 Z-0.125000
G01 X112.501036 Y160.197660 Z-0.125000
G01 X113.062666 Y159.878573 Z-0.125000
G01 X113.593976 Y159.727205 Z-0.125000
G01 X114.019002 Y159.713764 Z-0.125000
G01 X114.550284 Y159.828249 Z-0.125000
G01 X115.142315 Y160.119555 Z-0.125000
G01 X116.285843 Y161.106662 Z-0.125000
G01 X117.291761 Y162.339433 Z-0.125000
G01 X119.395672 Y165.369385 Z-0.125000
G01 X120.748697 Y167.011308 Z-0.125000
G01 X121.643040 Y167.932400 Z-0.125000
G01 X122.337491 Y168.485829 Z-0.125000
G01 X123.066126 Y168.899266 Z-0.125000
G01 X123.794761 Y169.134957 Z-0.125000
G01 X124.538557 Y169.193244 Z-0.125000
G01 X125.176123 Y169.102254 Z-0.125000
G01 X125.889571 Y168.856986 Z-0.125000
G01 X126.618180 Y168.465535 Z-0.125000
G01 X127.380972 Y167.924066 Z-0.125000
G01 X128.965983 Y166.475448 Z-0.125000
G01 X132.578785 Y162.566816 Z-0.125000
G01 X134.234624 Y160.957040 Z-0.125000
G01 X136.090357 Y159.530832 Z-0.125000
G01 X137.001131 Y159.003650 Z-0.125000
G01 X137.714579 Y158.704883 Z-0.125000
G01 X137.980247 Y158.787168 Z-0.125000
G01 X139.278106 Y159.884024 Z-0.125000
G01 X141.646150 Y161.529095 Z-0.125000
G01 X144.014194 Y162.957843 Z-0.125000
G01 X146.746543 Y164.410986 Z-0.125000
G01 X148.112717 Y165.004498 Z-0.125000
G01 X149.752126 Y165.844417 Z-0.125000
G01 X151.209397 Y166.402714 Z-0.125000
G01 X153.015784 Y167.278907 Z-0.125000
G01 X154.488215 Y167.807544 Z-0.125000
G01 X155.990994 Y168.526045 Z-0.125000
G01 X157.797381 Y169.187741 Z-0.125000
G01 X159.710052 Y170.066818 Z-0.125000
G01 X161.410183 Y170.599635 Z-0.125000
G01 X162.791544 Y170.812863 Z-0.125000
G01 X164.066622 Y170.827150 Z-0.125000
G01 X165.447984 Y170.643238 Z-0.125000
G01 X166.829345 Y170.256683 Z-0.125000
G01 X168.241054 Y169.664202 Z-0.125000
G01 X169.698324 Y168.863680 Z-0.125000
G01 X171.246638 Y167.834161 Z-0.125000
G01 X172.886073 Y166.588425 Z-0.125000
G00 Z3.000000

(End cutting path id: polyline321)


(Start cutting path id: polyline319)
(Change tool to Default tool)

G00 Z3.000000
G00 X16.048917 Y160.824193

G00 Z4.875000 (Fast pre-penetrate)
G01 Z-0.125000 F400.0(Penetrate)
G01 X16.898970 Y161.040966 Z-0.125000 F800.000000
G01 X17.855305 Y161.434824 Z-0.125000
G01 X20.967145 Y163.170197 Z-0.125000
G01 X22.105619 Y163.713757 Z-0.125000
G01 X23.380724 Y164.130634 Z-0.125000
G01 X24.549572 Y164.300522 Z-0.125000
G01 X25.718421 Y164.268693 Z-0.125000
G01 X26.887242 Y164.063482 Z-0.125000
G01 X32.625201 Y162.189653 Z-0.125000
G01 X34.219076 Y161.841356 Z-0.125000
G01 X35.919206 Y161.643342 Z-0.125000
G01 X38.788186 Y161.649930 Z-0.125000
G01 X46.863788 Y162.394625 Z-0.125000
G01 X51.751668 Y162.564355 Z-0.125000
G01 X56.214522 Y162.400367 Z-0.125000
G01 X63.015046 Y161.715652 Z-0.125000
G01 X65.352742 Y161.601802 Z-0.125000
G01 X67.052873 Y161.696788 Z-0.125000
G01 X68.753004 Y162.004815 Z-0.125000
G01 X70.453135 Y162.536362 Z-0.125000
G01 X74.065910 Y163.956961 Z-0.125000
G01 X75.128476 Y164.224349 Z-0.125000
G01 X76.084811 Y164.311212 Z-0.125000
G01 X77.147403 Y164.194398 Z-0.125000
G01 X78.209968 Y163.835571 Z-0.125000
G01 X79.348469 Y163.212107 Z-0.125000
G01 X81.534348 Y161.701947 Z-0.125000
G01 X82.354052 Y161.218845 Z-0.125000
G01 X83.310361 Y160.849064 Z-0.125000
G01 X84.160440 Y160.762466 Z-0.125000
G01 X85.010492 Y160.940900 Z-0.125000
G01 X85.815036 Y161.353729 Z-0.125000
G01 X86.816906 Y162.145362 Z-0.125000
G01 X88.649858 Y163.938599 Z-0.125000
G01 X89.458159 Y164.619874 Z-0.125000
G01 X90.323424 Y165.112898 Z-0.125000
G01 X91.173477 Y165.267811 Z-0.125000
G01 X92.008368 Y165.057812 Z-0.125000
G01 X92.953300 Y164.400746 Z-0.125000
G01 X93.893681 Y163.402739 Z-0.125000
G01 X95.671758 Y161.198869 Z-0.125000
G01 X96.562292 Y160.312013 Z-0.125000
G01 X97.336461 Y159.828593 Z-0.125000
G01 X98.080257 Y159.688391 Z-0.125000
G01 X98.505310 Y159.762712 Z-0.125000
G01 X99.021405 Y160.002954 Z-0.125000
G01 X99.922072 Y160.785061 Z-0.125000
G01 X100.842980 Y161.948671 Z-0.125000
G01 X102.691886 Y164.621382 Z-0.125000
G01 X103.632267 Y165.700166 Z-0.125000
G01 X104.395033 Y166.256505 Z-0.125000
G01 X104.774525 Y166.402528 Z-0.125000
G01 X105.199577 Y166.455816 Z-0.125000
G01 X105.624603 Y166.389829 Z-0.125000
G01 X106.125538 Y166.163266 Z-0.125000
G01 X106.651767 Y165.761047 Z-0.125000
G01 X107.147649 Y165.243814 Z-0.125000
G01 X108.029901 Y164.070415 Z-0.125000
G01 X110.290313 Y160.576199 Z-0.125000
G01 X111.362535 Y159.280774 Z-0.125000
G01 X112.318871 Y158.579206 Z-0.125000
G01 X112.850153 Y158.408868 Z-0.125000
G01 X113.275206 Y158.390162 Z-0.125000
G01 X113.806489 Y158.511155 Z-0.125000
G01 X114.311207 Y158.768595 Z-0.125000
G01 X114.939909 Y159.266302 Z-0.125000
G01 X115.506620 Y159.860740 Z-0.125000
G01 X116.491927 Y161.140052 Z-0.125000
G01 X119.140641 Y165.034740 Z-0.125000
G01 X120.536184 Y166.655682 Z-0.125000
G01 X121.244552 Y167.239616 Z-0.125000
G01 X121.882117 Y167.606513 Z-0.125000
G01 X122.519657 Y167.817016 Z-0.125000
G01 X123.157222 Y167.871467 Z-0.125000
G01 X123.794761 Y167.775185 Z-0.125000
G01 X124.432301 Y167.537881 Z-0.125000
G01 X125.069866 Y167.172677 Z-0.125000
G01 X125.787098 Y166.628879 Z-0.125000
G01 X127.265852 Y165.167825 Z-0.125000
G01 X130.666114 Y161.163362 Z-0.125000
G01 X132.321980 Y159.433254 Z-0.125000
G01 X133.278316 Y158.604580 Z-0.125000
G01 X134.177713 Y157.963125 Z-0.125000
G01 X135.589422 Y157.209275 Z-0.125000
G01 X135.908191 Y157.136170 Z-0.125000
G01 X136.272522 Y157.341804 Z-0.125000
G01 X137.342681 Y158.321582 Z-0.125000
G01 X139.187036 Y159.814756 Z-0.125000
G01 X141.372915 Y161.351136 Z-0.125000
G01 X144.014194 Y162.957843 Z-0.125000
G01 X146.746543 Y164.410986 Z-0.125000
G01 X148.112717 Y165.004498 Z-0.125000
G01 X149.843196 Y165.885560 Z-0.125000
G01 X151.209397 Y166.402714 Z-0.125000
G01 X152.803245 Y167.187440 Z-0.125000
G01 X154.488215 Y167.807544 Z-0.125000
G01 X156.628559 Y168.785628 Z-0.125000
G01 X158.541203 Y169.334108 Z-0.125000
G01 X160.347591 Y169.519210 Z-0.125000
G01 X161.622696 Y169.450842 Z-0.125000
G01 X163.004057 Y169.193562 Z-0.125000
G01 X164.385392 Y168.753587 Z-0.125000
G01 X165.873010 Y168.090594 Z-0.125000
G01 X167.330280 Y167.272133 Z-0.125000
G01 X168.878620 Y166.249123 Z-0.125000
G01 X172.886073 Y163.139770 Z-0.125000
G00 Z3.000000

(End cutting path id: polyline319)


(Start cutting path id: polyline317)
(Change tool to Default tool)

G00 Z3.000000
G00 X16.048917 Y159.905666

G00 Z4.875000 (Fast pre-penetrate)
G01 Z-0.125000 F400.0(Penetrate)
G01 X20.511745 Y162.361076 Z-0.125000 F800.000000
G01 X21.786849 Y162.804173 Z-0.125000
G01 X22.955698 Y162.979645 Z-0.125000
G01 X24.018290 Y162.947207 Z-0.125000
G01 X25.080855 Y162.755993 Z-0.125000
G01 X26.355960 Y162.371898 Z-0.125000
G01 X30.606300 Y160.842237 Z-0.125000
G01 X32.093892 Y160.498385 Z-0.125000
G01 X33.687766 Y160.309103 Z-0.125000
G01 X35.175384 Y160.285502 Z-0.125000
G01 X36.769259 Y160.386202 Z-0.125000
G01 X42.825987 Y161.176035 Z-0.125000
G01 X45.694966 Y161.463425 Z-0.125000
G01 X48.351406 Y161.617704 Z-0.125000
G01 X51.114129 Y161.669483 Z-0.125000
G01 X54.089365 Y161.604369 Z-0.125000
G01 X56.852061 Y161.420060 Z-0.125000
G01 X59.402271 Y161.134205 Z-0.125000
G01 X64.290151 Y160.431710 Z-0.125000
G01 X66.627821 Y160.278861 Z-0.125000
G01 X68.221695 Y160.383186 Z-0.125000
G01 X69.709313 Y160.686345 Z-0.125000
G01 X71.196931 Y161.188497 Z-0.125000
G01 X74.597193 Y162.616319 Z-0.125000
G01 X75.659785 Y162.901407 Z-0.125000
G01 X76.616094 Y162.988270 Z-0.125000
G01 X77.572429 Y162.874473 Z-0.125000
G01 X78.528764 Y162.547607 Z-0.125000
G01 X79.621704 Y161.939410 Z-0.125000
G01 X81.716486 Y160.442532 Z-0.125000
G01 X82.627287 Y159.882859 Z-0.125000
G01 X83.522900 Y159.527075 Z-0.125000
G01 X84.372953 Y159.440926 Z-0.125000
G01 X85.329288 Y159.680295 Z-0.125000
G01 X86.259033 Y160.244571 Z-0.125000
G01 X87.055983 Y160.937037 Z-0.125000
G01 X88.888935 Y162.774275 Z-0.125000
G01 X89.731393 Y163.457296 Z-0.125000
G01 X90.429681 Y163.820463 Z-0.125000
