%
(Header)
(Generated by gcodetools from Inkscape.)
(Using default header. To add your own header create file "header" in the output dir.)
M3
(Header end.)
G21 (All units in mm)

(Start cutting path id: polyline917)
(Change tool to Default tool)

G00 Z5.000000
G00 X85.079539 Y161.057015

G00 Z4.875000 (Fast pre-penetrate)
G01 Z-0.125000 F100.0(Penetrate)
G01 X85.230077 Y168.994592 Z-0.125000 F800.000000
G01 X85.626839 Y179.191184 Z-0.125000
G01 X86.152360 Y188.652175 Z-0.125000
G01 X86.733842 Y196.136987 Z-0.125000
G01 X87.632384 Y204.239424 Z-0.125000
G01 X88.745568 Y212.339432 Z-0.125000
G01 X90.080509 Y220.307185 Z-0.125000
G01 X91.087778 Y224.906279 Z-0.125000
G01 X90.991710 Y223.358785 Z-0.125000
G01 X88.876458 Y206.236317 Z-0.125000
G01 X87.693248 Y193.421627 Z-0.125000
G01 X86.821003 Y178.767699 Z-0.125000
G01 X86.479308 Y164.773123 Z-0.125000
G01 X86.622643 Y150.975543 Z-0.125000
G01 X87.198457 Y137.032965 Z-0.125000
G01 X88.261432 Y122.436960 Z-0.125000
G01 X90.355672 Y100.882857 Z-0.125000
G01 X90.490952 Y98.131396 Z-0.125000
G01 X90.444623 Y97.437862 Z-0.125000
G01 X90.318166 Y97.208560 Z-0.125000
G01 X89.857344 Y98.048072 Z-0.125000
G01 X89.182947 Y100.321833 Z-0.125000
G01 X87.631958 Y107.529947 Z-0.125000
G01 X86.260703 Y115.963551 Z-0.125000
G01 X85.138953 Y125.130413 Z-0.125000
G01 X84.358216 Y133.964998 Z-0.125000
G01 X83.849275 Y142.934907 Z-0.125000
G01 X83.633867 Y151.603866 Z-0.125000
G01 X83.684672 Y160.612773 Z-0.125000
G01 X84.004204 Y169.787263 Z-0.125000
G01 X84.593741 Y178.928424 Z-0.125000
G01 X85.432145 Y187.666132 Z-0.125000
G01 X86.566426 Y196.557105 Z-0.125000
G01 X88.115540 Y206.137564 Z-0.125000
G01 X89.857813 Y214.781888 Z-0.125000
G01 X91.704082 Y221.977003 Z-0.125000
G01 X92.412789 Y223.957487 Z-0.125000
G01 X92.882434 Y224.599108 Z-0.125000
G01 X93.021763 Y224.356038 Z-0.125000
G01 X93.084544 Y223.602110 Z-0.125000
G01 X92.950116 Y220.612269 Z-0.125000
G01 X91.152648 Y201.105395 Z-0.125000
G01 X90.214596 Y188.551163 Z-0.125000
G01 X89.711494 Y179.087487 Z-0.125000
G01 X89.379986 Y169.144790 Z-0.125000
G01 X89.217343 Y156.368501 Z-0.125000
G01 X89.346528 Y143.698254 Z-0.125000
G01 X90.780862 Y104.452391 Z-0.125000
G01 X90.740628 Y101.322538 Z-0.125000
G01 X90.576238 Y99.157802 Z-0.125000
G01 X90.273967 Y97.825801 Z-0.125000
G01 X90.065379 Y97.475966 Z-0.125000
G01 X89.820988 Y97.340984 Z-0.125000
G01 X89.484237 Y97.460068 Z-0.125000
G01 X89.170630 Y97.791363 Z-0.125000
G01 X88.389083 Y99.253317 Z-0.125000
G01 X87.505245 Y101.707238 Z-0.125000
G01 X86.619532 Y104.853926 Z-0.125000
G01 X84.948777 Y112.754722 Z-0.125000
G01 X83.596829 Y121.853048 Z-0.125000
G01 X82.712395 Y130.709754 Z-0.125000
G01 X82.194929 Y139.855646 Z-0.125000
G01 X82.027854 Y149.520068 Z-0.125000
G01 X82.223060 Y159.289722 Z-0.125000
G01 X82.772363 Y168.831694 Z-0.125000
G01 X83.704064 Y178.519387 Z-0.125000
G01 X85.002863 Y188.242031 Z-0.125000
G01 X86.644252 Y197.793336 Z-0.125000
G01 X88.757587 Y207.556896 Z-0.125000
G01 X91.066255 Y216.078897 Z-0.125000
G01 X92.174963 Y219.453395 Z-0.125000
G01 X93.217011 Y222.114158 Z-0.125000
G01 X94.095223 Y223.764753 Z-0.125000
G01 X94.408447 Y224.113949 Z-0.125000
G01 X94.733562 Y224.218585 Z-0.125000
G01 X95.026455 Y223.858563 Z-0.125000
G01 X95.234660 Y222.770782 Z-0.125000
G01 X95.235001 Y218.608599 Z-0.125000
G01 X93.047591 Y187.383851 Z-0.125000
G01 X92.450083 Y175.638827 Z-0.125000
G01 X92.055452 Y164.355605 Z-0.125000
G01 X91.821163 Y149.533281 Z-0.125000
G01 X91.863486 Y118.298474 Z-0.125000
G01 X91.674546 Y108.328457 Z-0.125000
G01 X91.363368 Y103.695522 Z-0.125000
G01 X90.886137 Y100.470922 Z-0.125000
G01 X90.198357 Y98.376426 Z-0.125000
G01 X89.744739 Y97.751853 Z-0.125000
G01 X89.240145 Y97.495955 Z-0.125000
G01 X88.783160 Y97.566152 Z-0.125000
G01 X88.395135 Y97.808881 Z-0.125000
G01 X87.454739 Y98.965452 Z-0.125000
G01 X86.492989 Y100.843986 Z-0.125000
G01 X85.498847 Y103.449980 Z-0.125000
G01 X84.550523 Y106.579066 Z-0.125000
G01 X83.674954 Y110.109047 Z-0.125000
G01 X82.146767 Y118.384953 Z-0.125000
G01 X81.119765 Y127.044237 Z-0.125000
G01 X80.504952 Y136.356565 Z-0.125000
G01 X80.324153 Y145.975340 Z-0.125000
G01 X80.587425 Y155.610268 Z-0.125000
G01 X81.364965 Y166.156611 Z-0.125000
G01 X82.613087 Y176.694599 Z-0.125000
G01 X84.277619 Y186.905640 Z-0.125000
G01 X86.385584 Y196.891725 Z-0.125000
G01 X89.085174 Y207.099569 Z-0.125000
G01 X90.564304 Y211.816596 Z-0.125000
G01 X92.023060 Y215.925971 Z-0.125000
G01 X93.432291 Y219.361674 Z-0.125000
G01 X94.762416 Y221.996097 Z-0.125000
G01 X95.869377 Y223.494236 Z-0.125000
G01 X96.329943 Y223.807161 Z-0.125000
G01 X96.671595 Y223.839937 Z-0.125000
G01 X96.961846 Y223.652616 Z-0.125000
G01 X97.218384 Y223.195162 Z-0.125000
G01 X97.545033 Y221.605174 Z-0.125000
G01 X97.681762 Y218.942068 Z-0.125000
G01 X97.633302 Y215.313333 Z-0.125000
G01 X95.155129 Y172.250306 Z-0.125000
G01 X94.527147 Y155.463182 Z-0.125000
G01 X93.708477 Y126.584737 Z-0.125000
G01 X93.210362 Y115.862241 Z-0.125000
G01 X92.515677 Y108.058792 Z-0.125000
G01 X91.559937 Y102.598662 Z-0.125000
G01 X90.942568 Y100.523090 Z-0.125000
G01 X90.243749 Y98.993156 Z-0.125000
G01 X89.464333 Y98.026463 Z-0.125000
G01 X88.669489 Y97.648625 Z-0.125000
G01 X87.680930 Y97.842253 Z-0.125000
G01 X86.551295 Y98.786315 Z-0.125000
G01 X85.384409 Y100.472201 Z-0.125000
G01 X84.294583 Y102.683223 Z-0.125000
G01 X83.224191 Y105.498275 Z-0.125000
G01 X82.213342 Y108.845368 Z-0.125000
G01 X81.316078 Y112.557470 Z-0.125000
G01 X80.511559 Y116.720506 Z-0.125000
G01 X79.345653 Y125.347994 Z-0.125000
G01 X78.690137 Y134.680184 Z-0.125000
G01 X78.582945 Y144.097531 Z-0.125000
G01 X78.996883 Y154.068954 Z-0.125000
G01 X80.008585 Y165.005537 Z-0.125000
G01 X81.580884 Y175.810122 Z-0.125000
G01 X83.730490 Y186.551030 Z-0.125000
G01 X86.440906 Y197.168380 Z-0.125000
G01 X88.075603 Y202.588786 Z-0.125000
G01 X89.785527 Y207.639197 Z-0.125000
G01 X91.528952 Y212.221712 Z-0.125000
G01 X93.267986 Y216.235786 Z-0.125000
G01 X94.945645 Y219.526448 Z-0.125000
G01 X96.435388 Y221.846240 Z-0.125000
G01 X97.693867 Y223.144400 Z-0.125000
G01 X98.185205 Y223.386148 Z-0.125000
G01 X98.702329 Y223.381715 Z-0.125000
G01 X99.141798 Y223.058390 Z-0.125000
G01 X99.505187 Y222.418687 Z-0.125000
G01 X100.038720 Y219.959523 Z-0.125000
G01 X100.238742 Y216.108092 Z-0.125000
G01 X100.149195 Y210.486002 Z-0.125000
G01 X97.855572 Y169.538483 Z-0.125000
G01 X96.225861 Y137.791070 Z-0.125000
G01 X95.275534 Y123.718241 Z-0.125000
G01 X94.699507 Y117.723300 Z-0.125000
G01 X94.059890 Y112.721690 Z-0.125000
G01 X93.313378 Y108.358803 Z-0.125000
G01 X92.489550 Y104.819616 Z-0.125000
G01 X91.554226 Y101.962966 Z-0.125000
G01 X90.527053 Y99.875843 Z-0.125000
G01 X89.451717 Y98.569458 Z-0.125000
G01 X88.882169 Y98.162126 Z-0.125000
G01 X88.175465 Y97.889435 Z-0.125000
G01 X87.447493 Y97.852184 Z-0.125000
G01 X86.827822 Y98.000805 Z-0.125000
G01 X85.563674 Y98.787381 Z-0.125000
G01 X84.283501 Y100.225253 Z-0.125000
G01 X83.015688 Y102.300441 Z-0.125000
G01 X81.793863 Y104.982088 Z-0.125000
G01 X80.688011 Y108.093315 Z-0.125000
G01 X79.671535 Y111.699077 Z-0.125000
G01 X78.769754 Y115.764595 Z-0.125000
G01 X78.067909 Y119.848696 Z-0.125000
G01 X77.519714 Y124.097699 Z-0.125000
G01 X77.118008 Y128.597144 Z-0.125000
G01 X76.872595 Y133.172796 Z-0.125000
G01 X76.820341 Y143.004593 Z-0.125000
G01 X77.372713 Y153.133289 Z-0.125000
G01 X77.920056 Y158.625597 Z-0.125000
G01 X78.646621 Y164.149233 Z-0.125000
G01 X79.563064 Y169.794168 Z-0.125000
G01 X80.631495 Y175.353733 Z-0.125000
G01 X81.907278 Y181.098658 Z-0.125000
G01 X83.309391 Y186.646758 Z-0.125000
G01 X84.815244 Y191.946035 Z-0.125000
G01 X86.485701 Y197.198939 Z-0.125000
G01 X88.421092 Y202.647220 Z-0.125000
G01 X90.435374 Y207.708031 Z-0.125000
G01 X92.478000 Y212.264376 Z-0.125000
G01 X94.547222 Y216.291151 Z-0.125000
G01 X96.502431 Y219.484339 Z-0.125000
G01 X98.180858 Y221.609692 Z-0.125000
G01 X99.620477 Y222.752028 Z-0.125000
G01 X100.245647 Y222.949919 Z-0.125000
G01 X100.805009 Y222.896472 Z-0.125000
G01 X101.445010 Y222.431047 Z-0.125000
G01 X101.933749 Y221.576235 Z-0.125000
G01 X102.320793 Y220.286386 Z-0.125000
G01 X102.618161 Y218.461342 Z-0.125000
G01 X102.894390 Y213.490889 Z-0.125000
G01 X102.789158 Y206.181208 Z-0.125000
G01 X102.004202 Y190.775483 Z-0.125000
G01 X99.818368 Y156.949344 Z-0.125000
G01 X98.706378 Y141.860679 Z-0.125000
G01 X97.641187 Y130.287888 Z-0.125000
G01 X96.765959 Y122.928895 Z-0.125000
G01 X95.805360 Y116.618683 Z-0.125000
G01 X94.730365 Y111.216945 Z-0.125000
G01 X93.570299 Y106.872599 Z-0.125000
G01 X92.239065 Y103.313891 Z-0.125000
G01 X90.837677 Y100.756527 Z-0.125000
G01 X90.043514 Y99.729482 Z-0.125000
G01 X89.220966 Y98.941286 Z-0.125000
G01 X88.373228 Y98.395265 Z-0.125000
G01 X87.613375 Y98.118951 Z-0.125000
G01 X86.838861 Y98.032941 Z-0.125000
G01 X86.164976 Y98.112515 Z-0.125000
G01 X84.696288 Y98.766496 Z-0.125000
G01 X83.259439 Y100.030303 Z-0.125000
G01 X81.849867 Y101.888592 Z-0.125000
G01 X80.496385 Y104.318219 Z-0.125000
G01 X79.227720 Y107.296084 Z-0.125000
G01 X78.136998 Y110.578776 Z-0.125000
G01 X77.142473 Y114.437624 Z-0.125000
G01 X76.360159 Y118.442321 Z-0.125000
G01 X75.753274 Y122.632591 Z-0.125000
G01 X75.303023 Y127.104631 Z-0.125000
G01 X75.020017 Y131.822468 Z-0.125000
G01 X74.915425 Y136.571120 Z-0.125000
G01 X74.985664 Y141.482756 Z-0.125000
G01 X75.230737 Y146.389917 Z-0.125000
G01 X75.661468 Y151.499103 Z-0.125000
G01 X76.329685 Y157.147022 Z-0.125000
G01 X77.218381 Y162.973354 Z-0.125000
G01 X78.297126 Y168.766355 Z-0.125000
G01 X79.588765 Y174.631856 Z-0.125000
G01 X81.050420 Y180.352743 Z-0.125000
G01 X82.682219 Y185.947769 Z-0.125000
G01 X84.503384 Y191.503327 Z-0.125000
G01 X86.471721 Y196.888827 Z-0.125000
G01 X88.733335 Y202.438077 Z-0.125000
G01 X91.065743 Y207.544280 Z-0.125000
G01 X93.416393 Y212.099985 Z-0.125000
G01 X95.769643 Y216.063937 Z-0.125000
G01 X97.943756 Y219.114940 Z-0.125000
G01 X99.894788 Y221.210501 Z-0.125000
G01 X100.812936 Y221.912602 Z-0.125000
G01 X101.578713 Y222.308170 Z-0.125000
G01 X102.355614 Y222.471197 Z-0.125000
G01 X102.979974 Y222.362086 Z-0.125000
G01 X103.750354 Y221.790662 Z-0.125000
G01 X104.382214 Y220.737831 Z-0.125000
G01 X104.880756 Y219.212074 Z-0.125000
G01 X105.251092 Y217.221702 Z-0.125000
G01 X105.635195 Y211.617512 Z-0.125000
G01 X105.551700 Y203.328905 Z-0.125000
G01 X104.816824 Y189.023748 Z-0.125000
G01 X103.247934 Y167.054471 Z-0.125000
G01 X101.663615 Y149.038106 Z-0.125000
G01 X100.153073 Y135.408326 Z-0.125000
G01 X98.957418 Y126.983672 Z-0.125000
G01 X97.688752 Y119.896901 Z-0.125000
G01 X96.304370 Y113.894841 Z-0.125000
G01 X94.797792 Y108.948853 Z-0.125000
G01 X93.056669 Y104.725551 Z-0.125000
G01 X91.229409 Y101.613045 Z-0.125000
G01 X90.224612 Y100.382611 Z-0.125000
G01 X89.266229 Y99.492294 Z-0.125000
G01 X88.196690 Y98.801659 Z-0.125000
G01 X87.186054 Y98.420326 Z-0.125000
G01 X85.514276 Y98.320166 Z-0.125000
G01 X83.831630 Y98.855234 Z-0.125000
G01 X82.167439 Y100.016366 Z-0.125000
G01 X80.551196 Y101.794271 Z-0.125000
G01 X79.012227 Y104.179742 Z-0.125000
G01 X77.682698 Y106.926344 Z-0.125000
G01 X76.437133 Y110.278978 Z-0.125000
G01 X75.388862 Y113.949567 Z-0.125000
G01 X74.540016 Y117.851036 Z-0.125000
G01 X73.864298 Y122.089724 Z-0.125000
G01 X73.380291 Y126.633282 Z-0.125000
G01 X73.117402 Y131.136436 Z-0.125000
G01 X73.050998 Y135.809137 Z-0.125000
G01 X73.184616 Y140.803927 Z-0.125000
G01 X73.519790 Y145.933741 Z-0.125000
G01 X74.052769 Y151.159155 Z-0.125000
G01 X74.857673 Y156.937368 Z-0.125000
G01 X75.889620 Y162.731222 Z-0.125000
G01 X77.156580 Y168.547879 Z-0.125000
G01 X78.645215 Y174.341477 Z-0.125000
G01 X80.410376 Y180.310207 Z-0.125000
G01 X82.390945 Y186.216539 Z-0.125000
G01 X84.559815 Y191.980430 Z-0.125000
G01 X86.824924 Y197.378503 Z-0.125000
G01 X89.398441 Y202.867061 Z-0.125000
G01 X92.096838 Y207.991334 Z-0.125000
G01 X94.814670 Y212.532250 Z-0.125000
G01 X97.395901 Y216.243884 Z-0.125000
G01 X99.774767 Y219.062643 Z-0.125000
G01 X101.921729 Y220.952600 Z-0.125000
G01 X102.986154 Y221.569543 Z-0.125000
G01 X103.824259 Y221.851355 Z-0.125000
G01 X104.592764 Y221.904632 Z-0.125000
G01 X105.290900 Y221.728861 Z-0.125000
G01 X106.204062 Y221.034774 Z-0.125000
G01 X106.953813 Y219.822539 Z-0.125000
G01 X107.510234 Y218.201650 Z-0.125000
G01 X107.949532 Y215.992631 Z-0.125000
G01 X108.258409 Y213.153456 Z-0.125000
G01 X108.424546 Y209.810625 Z-0.125000
G01 X108.362618 Y201.087238 Z-0.125000
G01 X107.611375 Y186.886844 Z-0.125000
G01 X106.223241 Y169.705047 Z-0.125000
G01 X104.465965 Y152.587821 Z-0.125000
G01 X102.622296 Y138.625510 Z-0.125000
G01 X101.140268 Y129.817733 Z-0.125000
G01 X99.562214 Y122.328403 Z-0.125000
G01 X97.778811 Y115.691841 Z-0.125000
G01 X95.837326 Y110.119106 Z-0.125000
G01 X93.755872 Y105.648131 Z-0.125000
G01 X92.644564 Y103.797600 Z-0.125000
G01 X91.512670 Y102.251725 Z-0.125000
G01 X90.345401 Y100.975984 Z-0.125000
G01 X89.146847 Y99.967607 Z-0.125000
G01 X87.924212 Y99.228554 Z-0.125000
G01 X86.684785 Y98.760614 Z-0.125000
G01 X85.713744 Y98.585398 Z-0.125000
G01 X84.740274 Y98.576277 Z-0.125000
G01 X82.937606 Y99.003002 Z-0.125000
G01 X81.081576 Y100.070239 Z-0.125000
G01 X79.291524 Y101.763796 Z-0.125000
G01 X77.600183 Y104.055501 Z-0.125000
G01 X76.110909 Y106.764554 Z-0.125000
G01 X74.768722 Y109.958636 Z-0.125000
G01 X73.601836 Y113.609705 Z-0.125000
G01 X72.681216 Y117.475968 Z-0.125000
G01 X72.000724 Y121.476276 Z-0.125000
G01 X71.512242 Y125.876115 Z-0.125000
G01 X71.241000 Y130.536371 Z-0.125000
G01 X71.191815 Y135.417063 Z-0.125000
G01 X71.369588 Y140.478343 Z-0.125000
G01 X71.761661 Y145.505014 Z-0.125000
G01 X72.374769 Y150.627114 Z-0.125000
G01 X73.322496 Y156.423696 Z-0.125000
G01 X74.590991 Y162.518584 Z-0.125000
G01 X76.112614 Y168.572897 Z-0.125000
G01 X77.907738 Y174.684025 Z-0.125000
G01 X79.908893 Y180.629781 Z-0.125000
G01 X82.085393 Y186.348025 Z-0.125000
G01 X84.552996 Y192.120271 Z-0.125000
G01 X87.164616 Y197.598983 Z-0.125000
G01 X90.061287 Y203.047306 Z-0.125000
G01 X93.103936 Y208.137824 Z-0.125000
G01 X96.058189 Y212.480892 Z-0.125000
G01 X98.964536 Y216.139163 Z-0.125000
G01 X101.579779 Y218.809814 Z-0.125000
G01 X102.850661 Y219.840439 Z-0.125000
G01 X104.041883 Y220.606643 Z-0.125000
G01 X105.148162 Y221.103863 Z-0.125000
G01 X106.066864 Y221.317651 Z-0.125000
G01 X106.997287 Y221.291396 Z-0.125000
G01 X107.760933 Y221.020964 Z-0.125000
G01 X108.727626 Y220.208304 Z-0.125000
G01 X109.584144 Y218.790165 Z-0.125000
G01 X110.215579 Y216.982298 Z-0.125000
G01 X110.727247 Y214.520960 Z-0.125000
G01 X111.072863 Y211.541263 Z-0.125000
G01 X111.260141 Y208.096055 Z-0.125000
G01 X111.211255 Y199.169535 Z-0.125000
G01 X110.460864 Y185.991967 Z-0.125000
G01 X108.967456 Y169.531195 Z-0.125000
G01 X107.180175 Y154.601124 Z-0.125000
G01 X105.127448 Y141.277961 Z-0.125000
G01 X103.364247 Y132.220807 Z-0.125000
G01 X101.461462 Y124.339020 Z-0.125000
G01 X99.406305 Y117.534573 Z-0.125000
G01 X97.167238 Y111.736328 Z-0.125000
G01 X96.024433 Y109.326605 Z-0.125000
G01 X94.744729 Y107.003872 Z-0.125000
G01 X93.517747 Y105.103133 Z-0.125000
G01 X92.145256 Y103.314956 Z-0.125000
G01 X90.734150 Y101.816008 Z-0.125000
G01 X89.291078 Y100.614130 Z-0.125000
G01 X87.822603 Y99.716951 Z-0.125000
G01 X86.450283 Y99.165986 Z-0.125000
G01 X84.413198 Y98.851909 Z-0.125000
G01 X83.389050 Y98.919720 Z-0.125000
G01 X82.244029 Y99.173828 Z-0.125000
G01 X80.121659 Y100.157655 Z-0.125000
G01 X78.201569 Y101.670754 Z-0.125000
G01 X76.389610 Y103.736566 Z-0.125000
G01 X74.718003 Y106.338852 Z-0.125000
G01 X73.225405 Y109.446797 Z-0.125000
G01 X71.955887 Y112.992207 Z-0.125000
G01 X70.911196 Y116.967496 Z-0.125000
G01 X70.133016 Y121.166674 Z-0.125000
G01 X69.595647 Y125.684916 Z-0.125000
G01 X69.320313 Y130.300462 Z-0.125000
G01 X69.296659 Y135.139812 Z-0.125000
G01 X69.518076 Y139.893621 Z-0.125000
G01 X70.003192 Y145.006387 Z-0.125000
G01 X70.735809 Y150.219015 Z-0.125000
G01 X71.870261 Y156.292678 Z-0.125000
G01 X73.298415 Y162.383603 Z-0.125000
G01 X75.001690 Y168.430201 Z-0.125000
G01 X76.999691 Y174.479442 Z-0.125000
G01 X79.280442 Y180.489259 Z-0.125000
G01 X81.888994 Y186.565692 Z-0.125000
G01 X84.652772 Y192.315902 Z-0.125000
G01 X87.664606 Y197.941189 Z-0.125000
G01 X90.945551 Y203.418282 Z-0.125000
G01 X94.356747 Y208.460510 Z-0.125000
G01 X97.663350 Y212.725197 Z-0.125000
G01 X100.784167 Y216.133878 Z-0.125000
G01 X103.653177 Y218.631998 Z-0.125000
G01 X105.016632 Y219.548867 Z-0.125000
G01 X106.211180 Y220.167728 Z-0.125000
G01 X107.323212 Y220.550681 Z-0.125000
G01 X108.350044 Y220.696616 Z-0.125000
G01 X109.291677 Y220.606302 Z-0.125000
G01 X110.263442 Y220.214527 Z-0.125000
G01 X111.321473 Y219.293438 Z-0.125000
G01 X112.205397 Y217.894820 Z-0.125000
G01 X112.915084 Y216.020548 Z-0.125000
G01 X113.478410 Y213.537005 Z-0.125000
G01 X113.874788 Y210.477989 Z-0.125000
G01 X114.101618 Y206.929126 Z-0.125000
G01 X114.084229 Y198.111078 Z-0.125000
G01 X113.334392 Y185.502078 Z-0.125000
G01 X111.921027 Y171.261023 Z-0.125000
G01 X109.970804 Y156.792029 Z-0.125000
G01 X107.728668 Y143.875559 Z-0.125000
G01 X105.703517 Y134.589656 Z-0.125000
G01 X103.539634 Y126.529585 Z-0.125000
G01 X101.213235 Y119.565136 Z-0.125000
G01 X98.638952 Y113.491431 Z-0.125000
G01 X97.221623 Y110.730892 Z-0.125000
G01 X95.830037 Y108.366603 Z-0.125000
G01 X94.304706 Y106.133588 Z-0.125000
G01 X92.819056 Y104.292177 Z-0.125000
G01 X91.293384 Y102.722563 Z-0.125000
G01 X89.713753 Y101.423551 Z-0.125000
G01 X88.220644 Y100.485626 Z-0.125000
G01 X86.559692 Y99.752668 Z-0.125000
G01 X85.346306 Y99.415789 Z-0.125000
G01 X84.133730 Y99.243769 Z-0.125000
G01 X82.926652 Y99.236226 Z-0.125000
G01 X81.729803 Y99.392944 Z-0.125000
G01 X80.548000 Y99.713541 Z-0.125000
G01 X79.385930 Y100.197719 Z-0.125000
G01 X77.276730 Y101.545405 Z-0.125000
G01 X75.200433 Y103.563438 Z-0.125000
G01 X73.336859 Y106.119608 Z-0.125000
G01 X71.673222 Y109.210633 Z-0.125000
G01 X70.239527 Y112.797172 Z-0.125000
G01 X69.109125 Y116.662882 Z-0.125000
G01 X68.275623 Y120.720557 Z-0.125000
G01 X67.705264 Y125.128452 Z-0.125000
G01 X67.425072 Y129.808697 Z-0.125000
G01 X67.434619 Y134.725703 Z-0.125000
G01 X67.730709 Y139.834761 Z-0.125000
G01 X68.310103 Y145.091246 Z-0.125000
G01 X69.169604 Y150.450448 Z-0.125000
G01 X70.467380 Y156.546616 Z-0.125000
G01 X72.071263 Y162.530859 Z-0.125000
G01 X74.037213 Y168.653409 Z-0.125000
G01 X76.336504 Y174.814105 Z-0.125000
G01 X79.009499 Y181.086426 Z-0.125000
G01 X81.895557 Y187.087164 Z-0.125000
G01 X85.008873 Y192.862861 Z-0.125000
G01 X88.325961 Y198.375074 Z-0.125000
G01 X91.971872 Y203.788619 Z-0.125000
G01 X95.671870 Y208.645529 Z-0.125000
G01 X99.330354 Y212.814148 Z-0.125000
G01 X102.732855 Y216.061465 Z-0.125000
G01 X105.926384 Y218.419147 Z-0.125000
G01 X107.313580 Y219.173416 Z-0.125000
G01 X108.615277 Y219.691052 Z-0.125000
G01 X109.828066 Y219.969284 Z-0.125000
G01 X110.948452 Y220.005512 Z-0.125000
G01 X111.972983 Y219.797051 Z-0.125000
G01 X112.898121 Y219.341174 Z-0.125000
G01 X114.013818 Y218.295034 Z-0.125000
G01 X114.952723 Y216.752398 Z-0.125000
G01 X115.707248 Y214.739949 Z-0.125000
G01 X116.315795 Y212.105228 Z-0.125000
G01 X116.734677 Y208.978359 Z-0.125000
G01 X116.973484 Y205.378905 Z-0.125000
G01 X117.042147 Y201.211010 Z-0.125000
G01 X116.946888 Y196.569338 Z-0.125000
G01 X116.181452 Y184.819498 Z-0.125000
G01 X114.680160 Y171.346265 Z-0.125000
G01 X112.670523 Y158.022634 Z-0.125000
G01 X110.268557 Y145.688797 Z-0.125000
G01 X108.020198 Y136.450460 Z-0.125000
G01 X105.604423 Y128.365327 Z-0.125000
G01 X102.895498 Y121.034421 Z-0.125000
G01 X99.966008 Y114.695781 Z-0.125000
G01 X98.402105 Y111.879536 Z-0.125000
G01 X96.849965 Y109.433073 Z-0.125000
G01 X95.326339 Y107.346036 Z-0.125000
G01 X93.645824 Y105.379148 Z-0.125000
G01 X92.054984 Y103.810855 Z-0.125000
G01 X90.298304 Y102.384064 Z-0.125000
G01 X88.516947 Y101.244925 Z-0.125000
G01 X86.721269 Y100.398040 Z-0.125000
G01 X84.092131 Y99.695640 Z-0.125000
G01 X82.715677 Y99.585635 Z-0.125000
G01 X81.486222 Y99.641980 Z-0.125000
G01 X80.152602 Y99.874820 Z-0.125000
G01 X78.910788 Y100.260202 Z-0.125000
G01 X76.509163 Y101.499587 Z-0.125000
G01 X74.140484 Y103.448148 Z-0.125000
G01 X72.070836 Y105.891371 Z-0.125000
G01 X70.222308 Y108.879678 Z-0.125000
G01 X68.633599 Y112.385280 Z-0.125000
G01 X67.411476 Y116.130925 Z-0.125000
G01 X66.471548 Y120.330061 Z-0.125000
G01 X65.845015 Y124.881504 Z-0.125000
G01 X65.546325 Y129.570444 Z-0.125000
G01 X65.558089 Y134.499470 Z-0.125000
G01 X65.889043 Y139.624766 Z-0.125000
G01 X66.533307 Y144.808496 Z-0.125000
G01 X67.483293 Y150.040772 Z-0.125000
G01 X68.972396 Y156.263653 Z-0.125000
G01 X70.829491 Y162.496506 Z-0.125000
G01 X73.077850 Y168.826451 Z-0.125000
G01 X75.637472 Y175.026572 Z-0.125000
G01 X78.477883 Y181.042398 Z-0.125000
G01 X81.706532 Y187.094068 Z-0.125000
G01 X85.192997 Y192.927518 Z-0.125000
G01 X88.874199 Y198.449065 Z-0.125000
G01 X92.856264 Y203.782438 Z-0.125000
G01 X96.897062 Y208.556195 Z-0.125000
G01 X100.889910 Y212.630620 Z-0.125000
G01 X104.624730 Y215.782252 Z-0.125000
G01 X106.374291 Y216.996448 Z-0.125000
G01 X108.034135 Y217.961224 Z-0.125000
G01 X109.595780 Y218.670357 Z-0.125000
G01 X110.950583 Y219.094524 Z-0.125000
G01 X112.250362 Y219.290412 Z-0.125000
G01 X113.506199 Y219.226948 Z-0.125000
G01 X114.524635 Y218.939596 Z-0.125000
G01 X115.561185 Y218.358625 Z-0.125000
G01 X116.672450 Y217.281329 Z-0.125000
G01 X117.691525 Y215.650084 Z-0.125000
G01 X118.511175 Y213.548385 Z-0.125000
G01 X119.132125 Y210.990340 Z-0.125000
G01 X119.568439 Y207.960945 Z-0.125000
G01 X119.834354 Y204.356931 Z-0.125000
G01 X119.918573 Y200.326789 Z-0.125000
G01 X119.824338 Y195.730082 Z-0.125000
G01 X119.529441 Y190.372115 Z-0.125000
G01 X119.029962 Y184.448479 Z-0.125000
G01 X117.501178 Y171.824263 Z-0.125000
G01 X115.419384 Y159.354890 Z-0.125000
G01 X112.884823 Y147.558977 Z-0.125000
G01 X110.431370 Y138.384060 Z-0.125000
G01 X107.764428 Y130.192545 Z-0.125000
G01 X104.823302 Y122.800690 Z-0.125000
G01 X101.737051 Y116.538896 Z-0.125000
G01 X100.142333 Y113.819870 Z-0.125000
G01 X98.381093 Y111.169508 Z-0.125000
G01 X96.559245 Y108.775171 Z-0.125000
G01 X94.796727 Y106.764980 Z-0.125000
G01 X92.881368 Y104.897613 Z-0.125000
G01 X91.045839 Y103.401861 Z-0.125000
G01 X89.068850 Y102.100803 Z-0.125000
G01 X87.190316 Y101.156613 Z-0.125000
G01 X84.299100 Y100.256793 Z-0.125000
G01 X82.904276 Y100.060735 Z-0.125000
G01 X81.366925 Y100.024080 Z-0.125000
G01 X80.000146 Y100.152541 Z-0.125000
G01 X78.506695 Y100.472669 Z-0.125000
G01 X77.046447 Y100.977647 Z-0.125000
G01 X75.766444 Y101.588410 Z-0.125000
G01 X73.194334 Y103.357066 Z-0.125000
G01 X70.838399 Y105.764445 Z-0.125000
G01 X68.835113 Y108.646497 Z-0.125000
G01 X67.113553 Y112.062850 Z-0.125000
G01 X65.705771 Y115.957840 Z-0.125000
G01 X64.670926 Y120.115676 Z-0.125000
G01 X63.974281 Y124.629101 Z-0.125000
G01 X63.638894 Y129.454812 Z-0.125000
G01 X63.683561 Y134.473044 Z-0.125000
G01 X64.096263 Y139.629284 Z-0.125000
G01 X64.861699 Y144.936744 Z-0.125000
G01 X66.003311 Y150.507561 Z-0.125000
G01 X67.679479 Y156.779711 Z-0.125000
G01 X69.702967 Y162.889773 Z-0.125000
G01 X72.124838 Y169.014156 Z-0.125000
G01 X74.986474 Y175.239465 Z-0.125000
G01 X78.213887 Y181.398755 Z-0.125000
G01 X81.843474 Y187.544363 Z-0.125000
G01 X85.739061 Y193.427807 Z-0.125000
G01 X89.820349 Y198.931836 Z-0.125000
G01 X94.170236 Y204.152775 Z-0.125000
G01 X98.551834 Y208.771773 Z-0.125000
G01 X102.858588 Y212.658409 Z-0.125000
G01 X106.867249 Y215.605417 Z-0.125000
G01 X108.719912 Y216.699846 Z-0.125000
G01 X110.375068 Y217.499763 Z-0.125000
G01 X112.100335 Y218.118326 Z-0.125000
G01 X113.548095 Y218.430186 Z-0.125000
G01 X115.037156 Y218.502599 Z-0.125000
G01 X116.267079 Y218.319498 Z-0.125000
G01 X117.390235 Y217.899593 Z-0.125000
G01 X118.404196 Y217.241350 Z-0.125000
G01 X119.553010 Y216.029840 Z-0.125000
G01 X120.550434 Y214.339862 Z-0.125000
G01 X121.354655 Y212.225505 Z-0.125000
G01 X121.972792 Y209.704625 Z-0.125000
G01 X122.431142 Y206.622637 Z-0.125000
G01 X122.698292 Y203.128969 Z-0.125000
G01 X122.782426 Y199.244719 Z-0.125000
G01 X122.689128 Y194.907959 Z-0.125000
G01 X122.398195 Y189.840031 Z-0.125000
G01 X121.916106 Y184.429768 Z-0.125000
G01 X120.425383 Y172.996306 Z-0.125000
G01 X118.300669 Y161.184282 Z-0.125000
G01 X115.697274 Y149.911971 Z-0.125000
G01 X113.092303 Y140.792504 Z-0.125000
G01 X110.243069 Y132.559391 Z-0.125000
G01 X107.181198 Y125.281207 Z-0.125000
G01 X103.894712 Y118.907405 Z-0.125000
G01 X102.145321 Y116.007707 Z-0.125000
G01 X100.331955 Y113.317621 Z-0.125000
G01 X98.459559 Y110.850658 Z-0.125000
G01 X96.533246 Y108.620498 Z-0.125000
G01 X94.558047 Y106.640653 Z-0.125000
G01 X92.591628 Y104.965679 Z-0.125000
G01 X90.611443 Y103.565782 Z-0.125000
G01 X88.608796 Y102.425876 Z-0.125000
G01 X85.355682 Y101.136752 Z-0.125000
G01 X83.656584 Y100.735131 Z-0.125000
G01 X81.969932 Y100.522579 Z-0.125000
G01 X80.302757 Y100.499734 Z-0.125000
G01 X78.809861 Y100.644220 Z-0.125000
G01 X77.199116 Y100.985574 Z-0.125000
G01 X75.769129 Y101.462251 Z-0.125000
G01 X74.296521 Y102.140441 Z-0.125000
G01 X72.906171 Y102.974412 Z-0.125000
G01 X71.572252 Y103.971878 Z-0.125000
G01 X70.197034 Y105.230783 Z-0.125000
G01 X68.901218 Y106.668613 Z-0.125000
G01 X67.781514 Y108.148723 Z-0.125000
G01 X65.784067 Y111.527782 Z-0.125000
G01 X64.205928 Y115.257316 Z-0.125000
G01 X62.995227 Y119.429771 Z-0.125000
G01 X62.193137 Y123.972733 Z-0.125000
G01 X61.804985 Y128.893874 Z-0.125000
G01 X61.838826 Y134.098701 Z-0.125000
G01 X62.293894 Y139.529337 Z-0.125000
G01 X63.169548 Y145.127815 Z-0.125000
G01 X64.419716 Y150.662234 Z-0.125000
G01 X66.228436 Y156.758870 Z-0.125000
G01 X68.568644 Y163.115922 Z-0.125000
G01 X71.384207 Y169.541765 Z-0.125000
G01 X74.565035 Y175.811869 Z-0.125000
G01 X78.135464 Y181.990466 Z-0.125000
G01 X81.996399 Y187.905109 Z-0.125000
G01 X86.284145 Y193.759656 Z-0.125000
G01 X90.777197 Y199.233808 Z-0.125000
G01 X95.592850 Y204.435567 Z-0.125000
G01 X100.291337 Y208.870143 Z-0.125000
G01 X104.850239 Y212.529011 Z-0.125000
G01 X109.096045 Y215.259289 Z-0.125000
G01 X111.142123 Y216.285184 Z-0.125000
G01 X112.937162 Y216.992612 Z-0.125000
G01 X114.624283 Y217.459230 Z-0.125000
G01 X116.196583 Y217.680222 Z-0.125000
G01 X117.647284 Y217.650983 Z-0.125000
G01 X119.017261 Y217.351611 Z-0.125000
G01 X120.189815 Y216.816245 Z-0.125000
G01 X121.243542 Y216.039003 Z-0.125000
G01 X122.353272 Y214.791819 Z-0.125000
G01 X123.367702 Y213.059859 Z-0.125000
G01 X124.189995 Y210.938853 Z-0.125000
G01 X124.823305 Y208.436173 Z-0.125000
G01 X125.272831 Y205.543082 Z-0.125000
G01 X125.548506 Y202.186484 Z-0.125000
G01 X125.643168 Y198.473657 Z-0.125000
G01 X125.556178 Y194.275289 Z-0.125000
G01 X125.273556 Y189.590441 Z-0.125000
G01 X124.802292 Y184.608011 Z-0.125000
G01 X123.309822 Y173.837352 Z-0.125000
G01 X121.207697 Y162.863433 Z-0.125000
G01 X118.627446 Y152.349440 Z-0.125000
G01 X115.981516 Y143.564764 Z-0.125000
G01 X113.086976 Y135.577490 Z-0.125000
G01 X109.821289 Y128.093573 Z-0.125000
G01 X106.362485 Y121.523585 Z-0.125000
G01 X102.688700 Y115.797712 Z-0.125000
G01 X100.794524 Y113.289150 Z-0.125000
G01 X98.873070 Y111.028644 Z-0.125000
G01 X96.928431 Y109.010739 Z-0.125000
G01 X94.807808 Y107.093420 Z-0.125000
G01 X92.785641 Y105.521674 Z-0.125000
G01 X90.602322 Y104.091900 Z-0.125000
G01 X88.677885 Y103.054497 Z-0.125000
G01 X86.885702 Y102.273590 Z-0.125000
G01 X85.094329 Y101.671734 Z-0.125000
G01 X83.309562 Y101.252256 Z-0.125000
G01 X81.537070 Y101.018435 Z-0.125000
G01 X79.795947 Y100.973043 Z-0.125000
G01 X78.114878 Y101.108920 Z-0.125000
G01 X76.319796 Y101.456880 Z-0.125000
G01 X74.717150 Y101.955251 Z-0.125000
G01 X73.023678 Y102.690554 Z-0.125000
G01 X71.396013 Y103.621446 Z-0.125000
G01 X69.842936 Y104.743452 Z-0.125000
G01 X68.373183 Y106.052181 Z-0.125000
G01 X67.106606 Y107.412014 Z-0.125000
G01 X65.821062 Y109.066104 Z-0.125000
G01 X64.738140 Y110.735069 Z-0.125000
G01 X62.883645 Y114.471337 Z-0.125000
G01 X61.443300 Y118.765731 Z-0.125000
G01 X60.465312 Y123.506669 Z-0.125000
G01 X59.969839 Y128.629621 Z-0.125000
G01 X59.968561 Y133.890198 Z-0.125000
G01 X60.465184 Y139.458032 Z-0.125000
G01 X61.453913 Y145.130713 Z-0.125000
G01 X62.910922 Y150.912335 Z-0.125000
G01 X64.970682 Y157.204816 Z-0.125000
G01 X67.563932 Y163.633984 Z-0.125000
G01 X70.525431 Y169.818206 Z-0.125000
G01 X73.970169 Y176.010442 Z-0.125000
G01 X77.945074 Y182.261282 Z-0.125000
G01 X82.287588 Y188.306517 Z-0.125000
G01 X87.018382 Y194.169929 Z-0.125000
G01 X91.942762 Y199.601502 Z-0.125000
G01 X97.062390 Y204.591007 Z-0.125000
G01 X102.213515 Y208.950228 Z-0.125000
G01 X107.096637 Y212.412996 Z-0.125000
G01 X109.466296 Y213.822056 Z-0.125000
G01 X111.608144 Y214.915591 Z-0.125000
G01 X113.637558 Y215.766823 Z-0.125000
G01 X115.486129 Y216.353293 Z-0.125000
G01 X117.274007 Y216.709649 Z-0.125000
G01 X118.932913 Y216.810576 Z-0.125000
G01 X120.461228 Y216.655520 Z-0.125000
G01 X121.857416 Y216.243884 Z-0.125000
G01 X123.119902 Y215.575198 Z-0.125000
G01 X124.247065 Y214.648867 Z-0.125000
G01 X125.328751 Y213.331741 Z-0.125000
G01 X126.299706 Y211.578002 Z-0.125000
G01 X127.055851 Y209.565382 Z-0.125000
G01 X127.675138 Y207.103661 Z-0.125000
G01 X128.115715 Y204.312733 Z-0.125000
G01 X128.382822 Y201.210073 Z-0.125000
G01 X128.481576 Y197.813198 Z-0.125000
G01 X128.409376 Y193.938836 Z-0.125000
G01 X127.720061 Y185.111709 Z-0.125000
G01 X126.368668 Y175.560873 Z-0.125000
G01 X124.400970 Y165.605816 Z-0.125000
G01 X121.911503 Y155.749853 Z-0.125000
G01 X119.296771 Y147.277889 Z-0.125000
G01 X116.375038 Y139.347600 Z-0.125000
G01 X113.134456 Y131.944237 Z-0.125000
G01 X109.682344 Y125.327238 Z-0.125000
G01 X106.087919 Y119.594034 Z-0.125000
G01 X102.213600 Y114.514257 Z-0.125000
G01 X100.191091 Y112.247699 Z-0.125000
G01 X98.120762 Y110.175110 Z-0.125000
G01 X96.009388 Y108.305271 Z-0.125000
G01 X93.863746 Y106.646961 Z-0.125000
G01 X91.812000 Y105.282909 Z-0.125000
G01 X89.863695 Y104.185283 Z-0.125000
G01 X87.779897 Y103.223448 Z-0.125000
G01 X85.811858 Y102.515167 Z-0.125000
G01 X83.848977 Y101.998981 Z-0.125000
G01 X81.738072 Y101.655155 Z-0.125000
G01 X79.653549 Y101.533812 Z-0.125000
G01 X77.606022 Y101.633461 Z-0.125000
G01 X75.606017 Y101.952524 Z-0.125000
G01 X73.664106 Y102.489509 Z-0.125000
G01 X71.790857 Y103.242883 Z-0.125000
G01 X70.131823 Y104.129023 Z-0.125000
G01 X68.420322 Y105.294204 Z-0.125000
G01 X66.914682 Y106.570797 Z-0.125000
G01 X65.427497 Y108.112580 Z-0.125000
G01 X64.056839 Y109.840746 Z-0.125000
G01 X62.809611 Y111.745662 Z-0.125000
G01 X61.762875 Y113.674660 Z-0.125000
G01 X60.773507 Y115.894334 Z-0.125000
G01 X59.979344 Y118.100456 Z-0.125000
G01 X58.787823 Y122.870546 Z-0.125000
G01 X58.401546 Y125.419002 Z-0.125000
G01 X58.157070 Y128.153669 Z-0.125000
G01 X58.134566 Y133.598455 Z-0.125000
G01 X58.701089 Y139.460418 Z-0.125000
G01 X59.845982 Y145.518823 Z-0.125000
G01 X61.549896 Y151.695758 Z-0.125000
G01 X63.793567 Y157.913310 Z-0.125000
G01 X66.540510 Y164.072344 Z-0.125000
G01 X69.873623 Y170.368618 Z-0.125000
G01 X73.792396 Y176.757338 Z-0.125000
G01 X78.164191 Y183.003702 Z-0.125000
G01 X82.814260 Y188.886635 Z-0.125000
G01 X87.889434 Y194.589962 Z-0.125000
G01 X93.232951 Y199.922909 Z-0.125000
G01 X98.780966 Y204.793288 Z-0.125000
G01 X104.269225 Y208.943793 Z-0.125000
G01 X109.501118 Y212.216256 Z-0.125000
G01 X111.876701 Y213.440468 Z-0.125000
G01 X114.137591 Y214.421951 Z-0.125000
G01 X116.277478 Y215.156572 Z-0.125000
G01 X118.290099 Y215.640153 Z-0.125000
G01 X120.169187 Y215.868561 Z-0.125000
G01 X121.908519 Y215.837617 Z-0.125000
G01 X123.501746 Y215.543147 Z-0.125000
G01 X124.842399 Y215.031436 Z-0.125000
G01 X126.100026 Y214.249377 Z-0.125000
G01 X127.216618 Y213.216663 Z-0.125000
G01 X128.194095 Y211.938408 Z-0.125000
G01 X129.098349 Y210.282656 Z-0.125000
G01 X129.844136 Y208.351357 Z-0.125000
G01 X130.433845 Y206.151160 Z-0.125000
G01 X130.869988 Y203.688672 Z-0.125000
G01 X131.155040 Y200.970370 Z-0.125000
G01 X131.280858 Y194.520532 Z-0.125000
G01 X130.785385 Y187.010403 Z-0.125000
G01 X129.683028 Y178.745025 Z-0.125000
G01 X127.996290 Y169.917855 Z-0.125000
G01 X125.841527 Y161.123333 Z-0.125000
G01 X123.469311 Y153.170241 Z-0.125000
G01 X120.740312 Y145.456127 Z-0.125000
G01 X117.748339 Y138.268599 Z-0.125000
G01 X114.562695 Y131.748733 Z-0.125000
G01 X111.101377 Y125.731203 Z-0.125000
G01 X107.359142 Y120.222570 Z-0.125000
G01 X103.472122 Y115.423454 Z-0.125000
G01 X99.488309 Y111.366631 Z-0.125000
G01 X97.214164 Y109.413979 Z-0.125000
G01 X94.937633 Y107.711982 Z-0.125000
G01 X92.661144 Y106.249390 Z-0.125000
G01 X90.210078 Y104.927874 Z-0.125000
G01 X87.902007 Y103.915192 Z-0.125000
G01 X85.441351 Y103.078962 Z-0.125000
G01 X82.994590 Y102.497352 Z-0.125000
G01 X80.724793 Y102.185875 Z-0.125000
G01 X78.341453 Y102.105705 Z-0.125000
G01 X76.153701 Y102.269285 Z-0.125000
G01 X73.994975 Y102.672951 Z-0.125000
G01 X71.948300 Y103.300039 Z-0.125000
G01 X69.983501 Y104.148842 Z-0.125000
G01 X67.980555 Y105.295781 Z-0.125000
G01 X66.095415 Y106.679311 Z-0.125000
G01 X64.340441 Y108.290098 Z-0.125000
G01 X62.727992 Y110.118807 Z-0.125000
G01 X61.362533 Y112.014091 Z-0.125000
G01 X60.141987 Y114.083526 Z-0.125000
G01 X59.076412 Y116.319610 Z-0.125000
G01 X58.187161 Y118.680702 Z-0.125000
G01 X57.441246 Y121.288571 Z-0.125000
G01 X56.905496 Y123.887703 Z-0.125000
G01 X56.521435 Y126.754029 Z-0.125000
G01 X56.324781 Y129.733385 Z-0.125000
G01 X56.316683 Y132.812391 Z-0.125000
G01 X56.498249 Y135.977661 Z-0.125000
G01 X56.846167 Y139.043795 Z-0.125000
G01 X57.366190 Y142.163973 Z-0.125000
G01 X58.059297 Y145.326899 Z-0.125000
G01 X58.926172 Y148.521536 Z-0.125000
G01 X60.012205 Y151.881714 Z-0.125000
G01 X62.501545 Y158.178329 Z-0.125000
G01 X65.611877 Y164.577619 Z-0.125000
G01 X69.311789 Y170.996856 Z-0.125000
G01 X73.464425 Y177.207376 Z-0.125000
G01 X78.105075 Y183.269702 Z-0.125000
G01 X83.311863 Y189.274233 Z-0.125000
G01 X88.823948 Y194.910218 Z-0.125000
G01 X94.635703 Y200.170752 Z-0.125000
G01 X100.568205 Y204.871498 Z-0.125000
G01 X106.328601 Y208.779786 Z-0.125000
G01 X109.232305 Y210.478714 Z-0.125000
G01 X111.879173 Y211.846559 Z-0.125000
G01 X114.412328 Y212.972145 Z-0.125000
G01 X116.819536 Y213.848396 Z-0.125000
G01 X119.088438 Y214.468195 Z-0.125000
G01 X121.093259 Y214.811808 Z-0.125000
G01 X123.034276 Y214.912906 Z-0.125000
G01 X124.819554 Y214.748984 Z-0.125000
G01 X126.306867 Y214.370720 Z-0.125000
G01 X127.793114 Y213.703271 Z-0.125000
G01 X129.121833 Y212.773231 Z-0.125000
G01 X130.292427 Y211.581540 Z-0.125000
G01 X131.304257 Y210.129048 Z-0.125000
G01 X132.156768 Y208.416567 Z-0.125000
G01 X132.840456 Y206.477213 Z-0.125000
G01 X133.401353 Y204.154863 Z-0.125000
G01 X133.798072 Y201.571118 Z-0.125000
G01 X134.033768 Y198.740978 Z-0.125000
G01 X134.034620 Y192.401614 Z-0.125000
G01 X133.381065 Y184.860925 Z-0.125000
G01 X132.095649 Y176.643922 Z-0.125000
G01 X130.256583 Y168.181506 Z-0.125000
G01 X127.889992 Y159.609084 Z-0.125000
G01 X125.267035 Y151.774735 Z-0.125000
G01 X122.336437 Y144.376572 Z-0.125000
G01 X119.153436 Y137.531719 Z-0.125000
G01 X115.616976 Y131.020804 Z-0.125000
G01 X111.838470 Y125.084169 Z-0.125000
G01 X107.955115 Y119.909858 Z-0.125000
G01 X103.975437 Y115.465649 Z-0.125000
G01 X99.669790 Y111.515891 Z-0.125000
G01 X97.253376 Y109.645029 Z-0.125000
G01 X94.801543 Y107.982841 Z-0.125000
G01 X92.324095 Y106.535976 Z-0.125000
G01 X89.830748 Y105.311125 Z-0.125000
G01 X87.331308 Y104.314894 Z-0.125000
G01 X84.835532 Y103.554019 Z-0.125000
G01 X82.321302 Y103.030075 Z-0.125000
G01 X79.967412 Y102.767315 Z-0.125000
G01 X77.487876 Y102.734283 Z-0.125000
G01 X75.065835 Y102.953442 Z-0.125000
G01 X72.715185 Y103.419847 Z-0.125000
G01 X70.449778 Y104.128426 Z-0.125000
G01 X68.283465 Y105.074150 Z-0.125000
G01 X66.230141 Y106.252075 Z-0.125000
G01 X64.303659 Y107.657214 Z-0.125000
G01 X62.632264 Y109.169162 Z-0.125000
G01 X61.088776 Y110.877935 Z-0.125000
G01 X59.631980 Y112.859698 Z-0.125000
G01 X58.344689 Y115.025755 Z-0.125000
G01 X57.232700 Y117.363277 Z-0.125000
G01 X56.301850 Y119.859479 Z-0.125000
G01 X55.557938 Y122.501531 Z-0.125000
G01 X55.006760 Y125.276689 Z-0.125000
G01 X54.669242 Y127.998656 Z-0.125000
G01 X54.512480 Y130.816520 Z-0.125000
G01 X54.541250 Y133.719542 Z-0.125000
G01 X54.765694 Y136.749661 Z-0.125000
G01 X55.184661 Y139.834548 Z-0.125000
G01 X55.792696 Y142.969643 Z-0.125000
G01 X56.583876 Y146.143822 Z-0.125000
G01 X57.552274 Y149.346003 Z-0.125000
G01 X58.750401 Y152.718541 Z-0.125000
G01 X61.461628 Y159.009232 Z-0.125000
G01 X64.845546 Y165.387552 Z-0.125000
G01 X68.729071 Y171.528045 Z-0.125000
G01 X73.271436 Y177.719855 Z-0.125000
G01 X78.415486 Y183.854637 Z-0.125000
G01 X84.083479 Y189.814373 Z-0.125000
G01 X89.963471 Y195.281705 Z-0.125000
G01 X96.215504 Y200.408920 Z-0.125000
G01 X102.499546 Y204.895835 Z-0.125000
G01 X108.662544 Y208.620254 Z-0.125000
G01 X111.598640 Y210.132756 Z-0.125000
G01 X114.412754 Y211.399930 Z-0.125000
G01 X117.185312 Y212.445346 Z-0.125000
G01 X119.629899 Y213.167137 Z-0.125000
G01 X121.928381 Y213.639253 Z-0.125000
G01 X124.075727 Y213.858370 Z-0.125000
G01 X126.066824 Y213.821332 Z-0.125000
G01 X127.896641 Y213.524815 Z-0.125000
G01 X129.560065 Y212.965581 Z-0.125000
G01 X130.943510 Y212.213358 Z-0.125000
G01 X132.229310 Y211.182093 Z-0.125000
G01 X133.367852 Y209.879671 Z-0.125000
G01 X134.343028 Y208.325059 Z-0.125000
G01 X135.208965 Y206.387921 Z-0.125000
G01 X135.852504 Y204.334427 Z-0.125000
G01 X136.368221 Y201.879866 Z-0.125000
G01 X136.689543 Y199.359370 Z-0.125000
G01 X136.865015 Y196.421442 Z-0.125000
G01 X136.709149 Y189.924038 Z-0.125000
G01 X135.888348 Y182.517223 Z-0.125000
G01 X134.415058 Y174.484940 Z-0.125000
G01 X132.351547 Y166.188363 Z-0.125000
G01 X129.725905 Y157.771126 Z-0.125000
G01 X126.866740 Y150.176734 Z-0.125000
G01 X123.689791 Y143.006724 Z-0.125000
G01 X120.181291 Y136.228658 Z-0.125000
G01 X116.464543 Y130.078703 Z-0.125000
G01 X112.498802 Y124.489431 Z-0.125000
G01 X108.313092 Y119.496559 Z-0.125000
G01 X103.889981 Y115.066671 Z-0.125000
G01 X99.400296 Y111.355933 Z-0.125000
G01 X96.788676 Y109.537282 Z-0.125000
G01 X94.267924 Y108.011312 Z-0.125000
G01 X91.647780 Y106.661240 Z-0.125000
G01 X89.006623 Y105.541322 Z-0.125000
G01 X86.363250 Y104.655737 Z-0.125000
G01 X83.730959 Y104.004185 Z-0.125000
G01 X81.122919 Y103.586155 Z-0.125000
G01 X78.552343 Y103.401222 Z-0.125000
G01 X76.032444 Y103.449000 Z-0.125000
G01 X73.576434 Y103.729065 Z-0.125000
G01 X71.197526 Y104.240946 Z-0.125000
G01 X68.908975 Y104.984219 Z-0.125000
G01 X66.703408 Y105.968942 Z-0.125000
G01 X64.716702 Y107.119674 Z-0.125000
G01 X62.732254 Y108.564835 Z-0.125000
G01 X60.897194 Y110.223613 Z-0.125000
G01 X59.221878 Y112.084715 Z-0.125000
G01 X57.805700 Y114.003185 Z-0.125000
G01 X56.469736 Y116.224053 Z-0.125000
G01 X55.390096 Y118.459881 Z-0.125000
G01 X54.432693 Y120.998065 Z-0.125000
G01 X53.726373 Y123.511443 Z-0.125000
G01 X53.221993 Y126.091608 Z-0.125000
G01 X52.903228 Y128.834332 Z-0.125000
G01 X52.782098 Y131.670268 Z-0.125000
G01 X52.856643 Y134.587610 Z-0.125000
G01 X53.124944 Y137.574724 Z-0.125000
G01 X53.614492 Y140.781423 Z-0.125000
G01 X54.314249 Y144.038671 Z-0.125000
G01 X55.171661 Y147.167415 Z-0.125000
G01 X56.214775 Y150.317640 Z-0.125000
G01 X57.441672 Y153.477626 Z-0.125000
G01 X58.841483 Y156.618816 Z-0.125000
G01 X60.443916 Y159.810427 Z-0.125000
G01 X64.129551 Y166.117399 Z-0.125000
G01 X68.476923 Y172.395772 Z-0.125000
G01 X73.529252 Y178.683011 Z-0.125000
G01 X79.001742 Y184.623013 Z-0.125000
G01 X85.007509 Y190.354470 Z-0.125000
G01 X91.456325 Y195.783443 Z-0.125000
G01 X98.060964 Y200.665159 Z-0.125000
G01 X104.776973 Y204.958957 Z-0.125000
G01 X111.256306 Y208.424580 Z-0.125000
G01 X114.317197 Y209.796304 Z-0.125000
G01 X117.245365 Y210.919716 Z-0.125000
G01 X120.028792 Y211.788125 Z-0.125000
G01 X122.513869 Y212.367903 Z-0.125000
G01 X124.981430 Y212.720764 Z-0.125000
G01 X127.146634 Y212.801447 Z-0.125000
G01 X129.064806 Y212.642512 Z-0.125000
G01 X130.920367 Y212.216000 Z-0.125000
G01 X132.463343 Y211.592408 Z-0.125000
G01 X133.974353 Y210.660621 Z-0.125000
G01 X135.305800 Y209.468844 Z-0.125000
G01 X136.457939 Y208.019507 Z-0.125000
G01 X137.430898 Y206.315081 Z-0.125000
G01 X138.224805 Y204.358124 Z-0.125000
G01 X138.839873 Y202.151023 Z-0.125000
G01 X139.264126 Y199.799393 Z-0.125000
G01 X139.535751 Y197.142466 Z-0.125000
G01 X139.641154 Y194.120573 Z-0.125000
G01 X139.572533 Y191.037732 Z-0.125000
G01 X139.325458 Y187.602754 Z-0.125000
G01 X138.303356 Y180.195427 Z-0.125000
G01 X136.620667 Y172.302602 Z-0.125000
G01 X134.350572 Y164.238226 Z-0.125000
G01 X131.583597 Y156.298986 Z-0.125000
G01 X128.532253 Y148.972470 Z-0.125000
G01 X125.167557 Y142.083759 Z-0.125000
G01 X121.565801 Y135.759568 Z-0.125000
G01 X117.581349 Y129.753843 Z-0.125000
G01 X113.367040 Y124.306074 Z-0.125000
G01 X108.868447 Y119.357784 Z-0.125000
G01 X104.235554 Y115.090966 Z-0.125000
G01 X99.596226 Y111.594058 Z-0.125000
G01 X96.924041 Y109.906425 Z-0.125000
G01 X94.220444 Y108.424397 Z-0.125000
G01 X91.497199 Y107.151768 Z-0.125000
G01 X88.614294 Y106.039736 Z-0.125000
G01 X85.736291 Y105.169622 Z-0.125000
G01 X83.026897 Y104.572412 Z-0.125000
G01 X80.346017 Y104.200073 Z-0.125000
G01 X77.705457 Y104.056354 Z-0.125000
G01 X75.011749 Y104.153573 Z-0.125000
G01 X72.525009 Y104.478262 Z-0.125000
G01 X70.118951 Y105.022749 Z-0.125000
G01 X67.654460 Y105.838180 Z-0.125000
G01 X65.308924 Y106.887687 Z-0.125000
G01 X63.096453 Y108.163044 Z-0.125000
G01 X61.030982 Y109.655983 Z-0.125000
G01 X59.240589 Y111.245885 Z-0.125000
G01 X57.499893 Y113.136907 Z-0.125000
G01 X56.038664 Y115.085425 Z-0.125000
G01 X54.766333 Y117.175104 Z-0.125000
G01 X53.679234 Y119.408077 Z-0.125000
G01 X52.778859 Y121.774710 Z-0.125000
G01 X52.031665 Y124.413352 Z-0.125000
G01 X51.499325 Y127.175127 Z-0.125000
G01 X51.196373 Y129.884137 Z-0.125000
G01 X51.089862 Y132.846019 Z-0.125000
G01 X51.194114 Y135.719504 Z-0.125000
G01 X51.499879 Y138.655217 Z-0.125000
G01 X52.009459 Y141.641563 Z-0.125000
G01 X52.713648 Y144.625395 Z-0.125000
G01 X53.659415 Y147.772936 Z-0.125000
G01 X54.753333 Y150.793294 Z-0.125000
G01 X56.090619 Y153.964148 Z-0.125000
G01 X57.614544 Y157.131763 Z-0.125000
G01 X59.315773 Y160.285782 Z-0.125000
G01 X63.213107 Y166.511944 Z-0.125000
G01 X67.816932 Y172.695059 Z-0.125000
G01 X73.022740 Y178.683096 Z-0.125000
G01 X79.061071 Y184.726242 Z-0.125000
G01 X85.547478 Y190.418061 Z-0.125000
G01 X92.459588 Y195.749432 Z-0.125000
G01 X99.546785 Y200.525063 Z-0.125000
G01 X106.535741 Y204.579158 Z-0.125000
G01 X109.986063 Y206.326163 Z-0.125000
G01 X113.328894 Y207.841904 Z-0.125000
G01 X116.545268 Y209.117815 Z-0.125000
G01 X119.616260 Y210.145244 Z-0.125000
G01 X122.522777 Y210.915582 Z-0.125000
G01 X125.159118 Y211.406792 Z-0.125000
G01 X127.586486 Y211.641806 Z-0.125000
G01 X129.839746 Y211.627272 Z-0.125000
G01 X131.915191 Y211.361017 Z-0.125000
G01 X133.809025 Y210.840867 Z-0.125000
G01 X135.517585 Y210.064648 Z-0.125000
G01 X137.037077 Y209.030271 Z-0.125000
G01 X138.363793 Y207.735564 Z-0.125000
G01 X139.435506 Y206.274762 Z-0.125000
G01 X140.326121 Y204.606905 Z-0.125000
G01 X141.095819 Y202.588701 Z-0.125000
G01 X141.681563 Y200.333438 Z-0.125000
G01 X142.085485 Y197.851088 Z-0.125000
G01 X142.309716 Y195.151625 Z-0.125000
G01 X142.356344 Y192.245066 Z-0.125000
G01 X142.213647 Y188.941063 Z-0.125000
G01 X141.894840 Y185.588727 Z-0.125000
G01 X140.706303 Y178.253899 Z-0.125000
G01 X138.848184 Y170.541234 Z-0.125000
G01 X136.372100 Y162.656677 Z-0.125000
G01 X133.327618 Y154.784566 Z-0.125000
G01 X130.049102 Y147.679638 Z-0.125000
G01 X126.407155 Y140.940997 Z-0.125000
G01 X122.426794 Y134.604744 Z-0.125000
G01 X118.158186 Y128.761023 Z-0.125000
G01 X113.753999 Y123.600692 Z-0.125000
G01 X109.120765 Y119.007011 Z-0.125000
G01 X104.284782 Y115.000182 Z-0.125000
G01 X99.272688 Y111.590990 Z-0.125000
G01 X96.372351 Y109.939414 Z-0.125000
G01 X93.585259 Y108.566923 Z-0.125000
G01 X90.783462 Y107.397480 Z-0.125000
G01 X87.976381 Y106.438245 Z-0.125000
G01 X85.213626 Y105.705627 Z-0.125000
G01 X82.455388 Y105.187267 Z-0.125000
G01 X79.728307 Y104.885082 Z-0.125000
G01 X76.878775 Y104.797410 Z-0.125000
G01 X74.093345 Y104.946627 Z-0.125000
G01 X71.386892 Y105.328940 Z-0.125000
G01 X68.774292 Y105.940641 Z-0.125000
G01 X66.270504 Y106.778022 Z-0.125000
G01 X63.890360 Y107.837332 Z-0.125000
G01 X61.776599 Y109.033669 Z-0.125000
G01 X59.661730 Y110.526736 Z-0.125000
G01 X57.801225 Y112.148306 Z-0.125000
G01 X56.107668 Y113.947266 Z-0.125000
G01 X54.588048 Y115.912278 Z-0.125000
G01 X53.171870 Y118.169374 Z-0.125000
G01 X52.033114 Y120.441047 Z-0.125000
G01 X51.037395 Y122.998282 Z-0.125000
G01 X50.309168 Y125.528368 Z-0.125000
G01 X49.790680 Y128.166371 Z-0.125000
G01 X49.488963 Y130.900953 Z-0.125000
G01 X49.409304 Y133.583879 Z-0.125000
G01 X49.546460 Y136.484343 Z-0.125000
G01 X49.882827 Y139.294536 Z-0.125000
G01 X50.448710 Y142.299466 Z-0.125000
G01 X51.226762 Y145.341263 Z-0.125000
G01 X52.211697 Y148.408632 Z-0.125000
G01 X53.398317 Y151.490323 Z-0.125000
G01 X54.781336 Y154.574912 Z-0.125000
G01 X56.355596 Y157.651232 Z-0.125000
G01 X58.115813 Y160.707861 Z-0.125000
G01 X60.009605 Y163.664586 Z-0.125000
G01 X62.167649 Y166.725179 Z-0.125000
G01 X67.057549 Y172.813077 Z-0.125000
G01 X72.727034 Y178.864322 Z-0.125000
G01 X78.975359 Y184.662779 Z-0.125000
G01 X85.613882 Y190.060724 Z-0.125000
G01 X92.882988 Y195.247140 Z-0.125000
G01 X100.300245 Y199.860171 Z-0.125000
G01 X107.817406 Y203.858986 Z-0.125000
G01 X111.443200 Y205.533236 Z-0.125000
G01 X115.024284 Y207.008189 Z-0.125000
G01 X118.458581 Y208.234830 Z-0.125000
G01 X121.549392 Y209.155876 Z-0.125000
G01 X124.482078 Y209.840502 Z-0.125000
G01 X127.246965 Y210.283082 Z-0.125000
G01 X129.834419 Y210.477946 Z-0.125000
G01 X132.098888 Y210.430040 Z-0.125000
G01 X134.314258 Y210.127983 Z-0.125000
G01 X136.211460 Y209.602334 Z-0.125000
G01 X137.968140 Y208.811624 Z-0.125000
G01 X139.528676 Y207.767914 Z-0.125000
G01 X140.893751 Y206.475252 Z-0.125000
G01 X142.064004 Y204.937945 Z-0.125000
G01 X143.040160 Y203.160125 Z-0.125000
G01 X143.822857 Y201.146013 Z-0.125000
G01 X144.412821 Y198.899742 Z-0.125000
G01 X144.810691 Y196.425533 Z-0.125000
G01 X145.016765 Y193.755778 Z-0.125000
G01 X145.037010 Y190.775142 Z-0.125000
G01 X144.875092 Y187.740591 Z-0.125000
G01 X144.517414 Y184.381351 Z-0.125000
G01 X143.231913 Y177.184616 Z-0.125000
G01 X141.253006 Y169.655990 Z-0.125000
G01 X138.605286 Y161.878242 Z-0.125000
G01 X135.418747 Y154.259770 Z-0.125000
G01 X131.937013 Y147.254448 Z-0.125000
G01 X128.129098 Y140.691876 Z-0.125000
G01 X123.971603 Y134.529006 Z-0.125000
G01 X119.587875 Y128.955291 Z-0.125000
G01 X114.848557 Y123.800756 Z-0.125000
G01 X109.814342 Y119.152136 Z-0.125000
G01 X104.664964 Y115.173182 Z-0.125000
G01 X99.463588 Y111.889893 Z-0.125000
G01 X96.595175 Y110.384295 Z-0.125000
G01 X93.685930 Y109.074202 Z-0.125000
G01 X90.761896 Y107.969500 Z-0.125000
G01 X87.673429 Y107.027101 Z-0.125000
G01 X84.758942 Y106.346950 Z-0.125000
G01 X81.708961 Y105.854376 Z-0.125000
G01 X78.700793 Y105.594087 Z-0.125000
G01 X75.749396 Y105.567066 Z-0.125000
G01 X72.869730 Y105.774120 Z-0.125000
G01 X70.221370 Y106.187035 Z-0.125000
G01 X67.737316 Y106.790212 Z-0.125000
G01 X65.214945 Y107.643021 Z-0.125000
G01 X62.819116 Y108.706124 Z-0.125000
G01 X60.560912 Y109.969974 Z-0.125000
G01 X58.451243 Y111.424894 Z-0.125000
G01 X56.384877 Y113.169469 Z-0.125000
G01 X54.616519 Y114.988376 Z-0.125000
G01 X53.030453 Y116.969030 Z-0.125000
G01 X51.637716 Y119.101843 Z-0.125000
G01 X50.449392 Y121.377309 Z-0.125000
G01 X49.506694 Y123.699317 Z-0.125000
G01 X48.750848 Y126.219600 Z-0.125000
G01 X48.243569 Y128.696068 Z-0.125000
G01 X47.924591 Y131.408317 Z-0.125000
G01 X47.829418 Y134.201248 Z-0.125000
G01 X47.957367 Y137.062629 Z-0.125000
G01 X48.307927 Y139.980185 Z-0.125000
G01 X48.880417 Y142.941726 Z-0.125000
G01 X49.674281 Y145.934935 Z-0.125000
G01 X50.688881 Y148.947621 Z-0.125000
G01 X51.909725 Y151.936611 Z-0.125000
G01 X53.326031 Y154.894486 Z-0.125000
G01 X54.936349 Y157.839192 Z-0.125000
G01 X56.815480 Y160.895480 Z-0.125000
G01 X58.882314 Y163.920441 Z-0.125000
G01 X61.124365 Y166.905382 Z-0.125000
G01 X66.198431 Y172.844319 Z-0.125000
G01 X71.971188 Y178.622957 Z-0.125000
G01 X78.529370 Y184.293721 Z-0.125000
G01 X85.653776 Y189.669375 Z-0.125000
G01 X93.242584 Y194.677378 Z-0.125000
G01 X100.976133 Y199.117409 Z-0.125000
G01 X108.929012 Y203.015553 Z-0.125000
G01 X116.347462 Y205.991458 Z-0.125000
G01 X119.933065 Y207.160816 Z-0.125000
G01 X123.209193 Y208.046401 Z-0.125000
G01 X126.318161 Y208.696632 Z-0.125000
G01 X129.243389 Y209.103964 Z-0.125000
G01 X132.050513 Y209.261407 Z-0.125000
G01 X134.449922 Y209.161460 Z-0.125000
G01 X136.656810 Y208.823515 Z-0.125000
G01 X138.668706 Y208.246764 Z-0.125000
G01 X140.483180 Y207.430353 Z-0.125000
G01 X142.097718 Y206.373515 Z-0.125000
G01 X143.509846 Y205.075398 Z-0.125000
G01 X144.717137 Y203.535150 Z-0.125000
G01 X145.699644 Y201.789040 Z-0.125000
G01 X146.481020 Y199.818743 Z-0.125000
G01 X147.069279 Y197.625834 Z-0.125000
G01 X147.466083 Y195.221695 Z-0.125000
G01 X147.673095 Y192.617491 Z-0.125000
G01 X147.687331 Y189.654671 Z-0.125000
G01 X147.509003 Y186.674206 Z-0.125000
G01 X147.119018 Y183.338280 Z-0.125000
G01 X146.524067 Y179.830206 Z-0.125000
G01 X145.748658 Y176.259478 Z-0.125000
G01 X143.656037 Y168.860335 Z-0.125000
G01 X140.892046 Y161.301149 Z-0.125000
G01 X137.512433 Y153.766045 Z-0.125000
G01 X133.835110 Y146.874053 Z-0.125000
G01 X129.847205 Y140.487805 Z-0.125000
G01 X125.423540 Y134.398414 Z-0.125000
G01 X120.693812 Y128.793202 Z-0.125000
G01 X115.721569 Y123.741726 Z-0.125000
G01 X110.564775 Y119.301779 Z-0.125000
G01 X105.355046 Y115.569773 Z-0.125000
G01 X99.905657 Y112.396106 Z-0.125000
G01 X96.908442 Y110.941697 Z-0.125000
G01 X93.738440 Y109.618263 Z-0.125000
G01 X90.557996 Y108.508873 Z-0.125000
G01 X87.531415 Y107.656276 Z-0.125000
G01 X84.368829 Y106.980345 Z-0.125000
G01 X81.383335 Y106.550382 Z-0.125000
G01 X78.435390 Y106.333695 Z-0.125000
G01 X75.453817 Y106.336252 Z-0.125000
G01 X72.544444 Y106.562870 Z-0.125000
G01 X69.720783 Y107.007325 Z-0.125000
G01 X66.996430 Y107.663181 Z-0.125000
G01 X64.235081 Y108.581073 Z-0.125000
G01 X61.616300 Y109.721321 Z-0.125000
G01 X59.288410 Y110.995655 Z-0.125000
G01 X57.115619 Y112.455264 Z-0.125000
G01 X55.111480 Y114.093840 Z-0.125000
G01 X53.283367 Y115.911681 Z-0.125000
G01 X51.612996 Y117.946720 Z-0.125000
G01 X50.238970 Y120.004690 Z-0.125000
G01 X48.994088 Y122.330151 Z-0.125000
G01 X47.975225 Y124.785564 Z-0.125000
G01 X47.187115 Y127.357546 Z-0.125000
G01 X46.634445 Y130.032715 Z-0.125000
G01 X46.333538 Y132.632827 Z-0.125000
G01 X46.249191 Y135.301304 Z-0.125000
G01 X46.385366 Y138.027064 Z-0.125000
G01 X46.758217 Y140.871226 Z-0.125000
G01 X47.353551 Y143.694077 Z-0.125000
G01 X48.169280 Y146.539646 Z-0.125000
G01 X49.254845 Y149.542402 Z-0.125000
G01 X50.498918 Y152.407107 Z-0.125000
G01 X52.017429 Y155.410545 Z-0.125000
G01 X53.744786 Y158.399321 Z-0.125000
G01 X55.672206 Y161.363291 Z-0.125000
G01 X57.790911 Y164.292227 Z-0.125000
G01 X60.092120 Y167.175984 Z-0.125000
G01 X62.590027 Y170.029693 Z-0.125000
G01 X65.305302 Y172.876157 Z-0.125000
G01 X71.412977 Y178.559878 Z-0.125000
G01 X78.277734 Y184.078015 Z-0.125000
G01 X85.642481 Y189.237451 Z-0.125000
G01 X93.537395 Y194.062438 Z-0.125000
G01 X101.760962 Y198.420423 Z-0.125000
G01 X109.933639 Y202.098855 Z-0.125000
G01 X117.701584 Y204.943571 Z-0.125000
G01 X121.371960 Y206.032971 Z-0.125000
G01 X124.840779 Y206.883095 Z-0.125000
G01 X128.127606 Y207.494796 Z-0.125000
G01 X131.216414 Y207.860444 Z-0.125000
G01 X134.098424 Y207.974584 Z-0.125000
G01 X136.614104 Y207.847530 Z-0.125000
G01 X138.931509 Y207.488446 Z-0.125000
G01 X141.043267 Y206.892898 Z-0.125000
G01 X142.942088 Y206.056370 Z-0.125000
G01 X144.610627 Y204.982313 Z-0.125000
G01 X146.054168 Y203.673243 Z-0.125000
G01 X147.286349 Y202.127837 Z-0.125000
G01 X148.308067 Y200.352106 Z-0.125000
G01 X149.120173 Y198.352144 Z-0.125000
G01 X149.723563 Y196.133961 Z-0.125000
G01 X150.119131 Y193.703694 Z-0.125000
G01 X150.307731 Y191.067311 Z-0.125000
G01 X150.293410 Y188.310907 Z-0.125000
G01 X150.072674 Y185.242514 Z-0.125000
G01 X149.644074 Y181.996476 Z-0.125000
G01 X149.009315 Y178.592909 Z-0.125000
G01 X148.169974 Y175.051932 Z-0.125000
G01 X145.942585 Y167.803327 Z-0.125000
G01 X143.025626 Y160.426305 Z-0.125000
G01 X139.451190 Y153.038669 Z-0.125000
G01 X135.542007 Y146.248628 Z-0.125000
G01 X131.274251 Y139.895752 Z-0.125000
G01 X126.632366 Y133.944029 Z-0.125000
G01 X121.785471 Y128.599446 Z-0.125000
G01 X116.634559 Y123.755620 Z-0.125000
G01 X111.275229 Y119.494939 Z-0.125000
G01 X105.540448 Y115.695506 Z-0.125000
G01 X99.768160 Y112.594125 Z-0.125000
G01 X96.622282 Y111.196700 Z-0.125000
G01 X93.455136 Y109.996442 Z-0.125000
G01 X90.249929 Y108.994372 Z-0.125000
G01 X87.171861 Y108.235457 Z-0.125000
G01 X84.109777 Y107.676522 Z-0.125000
G01 X80.908917 Y107.301156 Z-0.125000
G01 X77.754856 Y107.143968 Z-0.125000
G01 X74.662510 Y107.202445 Z-0.125000
G01 X71.646712 Y107.474283 Z-0.125000
G01 X68.722422 Y107.957055 Z-0.125000
G01 X65.904472 Y108.648372 Z-0.125000
G01 X63.207780 Y109.545807 Z-0.125000
G01 X60.647262 Y110.647013 Z-0.125000
G01 X58.303134 Y111.908433 Z-0.125000
G01 X56.098163 Y113.359603 Z-0.125000
G01 X53.941057 Y115.085894 Z-0.125000
G01 X52.094446 Y116.872877 Z-0.125000
G01 X50.337042 Y118.931699 Z-0.125000
G01 X48.800416 Y121.142934 Z-0.125000
G01 X47.564910 Y123.351826 Z-0.125000
G01 X46.485611 Y125.822156 Z-0.125000
G01 X45.698353 Y128.252082 Z-0.125000
G01 X45.141378 Y130.772748 Z-0.125000
G01 X44.822229 Y133.361651 Z-0.125000
G01 X44.737584 Y136.014017 Z-0.125000
G01 X44.898607 Y138.871136 Z-0.125000
G01 X45.284543 Y141.621404 Z-0.125000
G01 X45.934219 Y144.558693 Z-0.125000
G01 X46.775521 Y147.363089 Z-0.125000
G01 X47.897740 Y150.334433 Z-0.125000
G01 X49.256379 Y153.305308 Z-0.125000
G01 X50.757714 Y156.108383 Z-0.125000
G01 X52.544314 Y159.012641 Z-0.125000
G01 X54.500760 Y161.821854 Z-0.125000
G01 X56.746220 Y164.710981 Z-0.125000
G01 X59.184926 Y167.550583 Z-0.125000
G01 X61.801788 Y170.334095 Z-0.125000
G01 X64.700676 Y173.166877 Z-0.125000
G01 X67.759223 Y175.924347 Z-0.125000
G01 X71.091058 Y178.704279 Z-0.125000
G01 X78.139896 Y183.962511 Z-0.125000
G01 X85.791400 Y188.912293 Z-0.125000
G01 X94.074764 Y193.573316 Z-0.125000
G01 X102.518641 Y197.675318 Z-0.125000
G01 X111.177243 Y201.233003 Z-0.125000
G01 X115.436986 Y202.732505 Z-0.125000
G01 X119.393053 Y203.959573 Z-0.125000
G01 X123.192102 Y204.966927 Z-0.125000
G01 X126.817811 Y205.746897 Z-0.125000
G01 X130.253812 Y206.291640 Z-0.125000
G01 X133.341768 Y206.585173 Z-0.125000
G01 X136.227827 Y206.650596 Z-0.125000
G01 X138.897881 Y206.481219 Z-0.125000
G01 X141.290300 Y206.080366 Z-0.125000
G01 X143.417614 Y205.459203 Z-0.125000
G01 X145.472174 Y204.537645 Z-0.125000
G01 X147.158826 Y203.447861 Z-0.125000
G01 X148.631009 Y202.133420 Z-0.125000
G01 X149.887186 Y200.594919 Z-0.125000
G01 X150.925867 Y198.832870 Z-0.125000
G01 X151.745475 Y196.847996 Z-0.125000
G01 X152.342173 Y194.655556 Z-0.125000
G01 X152.714726 Y192.340495 Z-0.125000
G01 X152.894076 Y189.695502 Z-0.125000
G01 X152.855291 Y186.857989 Z-0.125000
G01 X152.599947 Y183.842447 Z-0.125000
G01 X152.129621 Y180.663367 Z-0.125000
G01 X151.445890 Y177.335197 Z-0.125000
G01 X150.550331 Y173.872472 Z-0.125000
G01 X149.435656 Y170.263045 Z-0.125000
G01 X148.152712 Y166.669856 Z-0.125000
G01 X145.063308 Y159.433910 Z-0.125000
G01 X141.316981 Y152.235428 Z-0.125000
G01 X137.262203 Y145.660198 Z-0.125000
G01 X132.854990 Y139.531852 Z-0.125000
G01 X128.119465 Y133.870763 Z-0.125000
G01 X122.977717 Y128.587980 Z-0.125000
G01 X117.591663 Y123.844869 Z-0.125000
G01 X111.902530 Y119.597699 Z-0.125000
G01 X106.098915 Y116.000888 Z-0.125000
G01 X103.157150 Y114.448279 Z-0.125000
G01 X100.163004 Y113.050343 Z-0.125000
G01 X96.980940 Y111.757767 Z-0.125000
G01 X93.619782 Y110.600002 Z-0.125000
G01 X90.252444 Y109.648481 Z-0.125000
G01 X86.893502 Y108.905336 Z-0.125000
G01 X83.557447 Y108.372570 Z-0.125000
G01 X80.258857 Y108.052228 Z-0.125000
G01 X77.012307 Y107.946357 Z-0.125000
G01 X73.981933 Y108.046815 Z-0.125000
G01 X70.878761 Y108.365580 Z-0.125000
G01 X68.003102 Y108.874564 Z-0.125000
G01 X65.143000 Y109.602365 Z-0.125000
G01 X62.406670 Y110.526949 Z-0.125000
G01 X59.806131 Y111.639621 Z-0.125000
G01 X57.214031 Y113.013135 Z-0.125000
G01 X54.931064 Y114.485786 Z-0.125000
G01 X52.702183 Y116.220984 Z-0.125000
G01 X50.681209 Y118.127051 Z-0.125000
G01 X48.976229 Y120.074802 Z-0.125000
G01 X47.481458 Y122.157108 Z-0.125000
G01 X46.180826 Y124.418211 Z-0.125000
G01 X45.171468 Y126.661711 Z-0.125000
G01 X44.335665 Y129.144572 Z-0.125000
G01 X43.744763 Y131.717151 Z-0.125000
G01 X43.399957 Y134.366789 Z-0.125000
G01 X43.302311 Y137.080786 Z-0.125000
G01 X43.453020 Y139.846482 Z-0.125000
G01 X43.853192 Y142.651177 Z-0.125000
G01 X44.458712 Y145.315136 Z-0.125000
G01 X45.346386 Y148.159340 Z-0.125000
G01 X46.440944 Y150.905985 Z-0.125000
G01 X47.773499 Y153.669934 Z-0.125000
G01 X49.403508 Y156.548661 Z-0.125000
G01 X51.261328 Y159.402200 Z-0.125000
G01 X53.334939 Y162.222451 Z-0.125000
G01 X55.612494 Y165.001403 Z-0.125000
G01 X58.198669 Y167.853791 Z-0.125000
G01 X60.856235 Y170.523163 Z-0.125000
G01 X63.813599 Y173.243425 Z-0.125000
G01 X66.873723 Y175.828449 Z-0.125000
G01 X70.258749 Y178.466409 Z-0.125000
G01 X77.556794 Y183.538855 Z-0.125000
G01 X85.674831 Y188.415371 Z-0.125000
G01 X94.310801 Y192.902712 Z-0.125000
G01 X103.173133 Y196.863169 Z-0.125000
G01 X112.075615 Y200.221514 Z-0.125000
G01 X120.532448 Y202.780497 Z-0.125000
G01 X124.532542 Y203.740286 Z-0.125000
G01 X128.347830 Y204.476313 Z-0.125000
G01 X131.982149 Y204.983677 Z-0.125000
G01 X135.205939 Y205.236762 Z-0.125000
G01 X138.213170 Y205.262548 Z-0.125000
G01 X140.997278 Y205.056986 Z-0.125000
G01 X143.551743 Y204.615941 Z-0.125000
G01 X145.732206 Y203.985018 Z-0.125000
G01 X147.823207 Y203.076246 Z-0.125000
G01 X149.557724 Y201.999590 Z-0.125000
G01 X151.068180 Y200.702112 Z-0.125000
G01 X152.429930 Y199.070824 Z-0.125000
G01 X153.475260 Y197.313420 Z-0.125000
G01 X154.297638 Y195.343378 Z-0.125000
G01 X154.898045 Y193.168627 Z-0.125000
G01 X155.277332 Y190.797092 Z-0.125000
G01 X155.436394 Y188.236746 Z-0.125000
G01 X155.376170 Y185.495429 Z-0.125000
G01 X155.097598 Y182.581112 Z-0.125000
G01 X154.575487 Y179.367040 Z-0.125000
G01 X153.838351 Y176.071050 Z-0.125000
G01 X152.879031 Y172.643146 Z-0.125000
G01 X151.699657 Y169.104769 Z-0.125000
G01 X150.364971 Y165.630067 Z-0.125000
G01 X147.102992 Y158.511117 Z-0.125000
G01 X143.159712 Y151.449236 Z-0.125000
G01 X138.963390 Y145.110980 Z-0.125000
G01 X134.257444 Y139.020950 Z-0.125000
G01 X129.152734 Y133.332669 Z-0.125000
G01 X123.720521 Y128.131336 Z-0.125000
G01 X118.156864 Y123.587053 Z-0.125000
G01 X112.355083 Y119.605968 Z-0.125000
G01 X106.391382 Y116.230190 Z-0.125000
G01 X100.110622 Y113.377163 Z-0.125000
G01 X96.626416 Y112.088465 Z-0.125000
G01 X93.279707 Y111.044712 Z-0.125000
G01 X89.779049 Y110.157380 Z-0.125000
G01 X86.440949 Y109.509493 Z-0.125000
G01 X83.124713 Y109.063887 Z-0.125000
G01 X79.834605 Y108.824654 Z-0.125000
G01 X76.687235 Y108.789236 Z-0.125000
G01 X73.433311 Y108.957547 Z-0.125000
G01 X70.263693 Y109.331720 Z-0.125000
G01 X67.192999 Y109.906297 Z-0.125000
G01 X64.235720 Y110.675868 Z-0.125000
G01 X61.261307 Y111.690510 Z-0.125000
G01 X58.445617 Y112.908798 Z-0.125000
G01 X55.933176 Y114.248939 Z-0.125000
G01 X53.593821 Y115.761612 Z-0.125000
G01 X51.429937 Y117.450481 Z-0.125000
G01 X49.498511 Y119.262696 Z-0.125000
G01 X47.669844 Y121.337160 Z-0.125000
G01 X46.165141 Y123.417548 Z-0.125000
G01 X44.802879 Y125.750723 Z-0.125000
G01 X43.691018 Y128.196717 Z-0.125000
G01 X42.879508 Y130.589477 Z-0.125000
G01 X42.273433 Y133.214778 Z-0.125000
G01 X41.950236 Y135.751555 Z-0.125000
G01 X41.872580 Y138.340458 Z-0.125000
G01 X42.046688 Y140.982681 Z-0.125000
G01 X42.481255 Y143.704221 Z-0.125000
G01 X43.168267 Y146.444174 Z-0.125000
G01 X44.100821 Y149.193077 Z-0.125000
G01 X45.271799 Y151.941682 Z-0.125000
G01 X46.674253 Y154.680698 Z-0.125000
G01 X48.392829 Y157.543144 Z-0.125000
G01 X50.248390 Y160.233145 Z-0.125000
G01 X52.428341 Y163.023348 Z-0.125000
G01 X54.832822 Y165.760488 Z-0.125000
G01 X57.390782 Y168.377607 Z-0.125000
G01 X60.191982 Y170.981896 Z-0.125000
G01 X63.292127 Y173.615594 Z-0.125000
G01 X66.563696 Y176.168354 Z-0.125000
G01 X70.121892 Y178.728530 Z-0.125000
G01 X77.787461 Y183.635861 Z-0.125000
G01 X86.010601 Y188.169574 Z-0.125000
G01 X94.939849 Y192.416233 Z-0.125000
G01 X104.191441 Y196.181143 Z-0.125000
G01 X113.518218 Y199.347948 Z-0.125000
G01 X122.432463 Y201.744586 Z-0.125000
G01 X126.643618 Y202.625398 Z-0.125000
G01 X130.470073 Y203.252698 Z-0.125000
G01 X134.093608 Y203.664079 Z-0.125000
G01 X137.500328 Y203.852337 Z-0.125000
G01 X140.530490 Y203.817516 Z-0.125000
G01 X143.339361 Y203.567457 Z-0.125000
G01 X145.914924 Y203.095809 Z-0.125000
G01 X148.158594 Y202.427891 Z-0.125000
G01 X150.127229 Y201.566429 Z-0.125000
G01 X152.002268 Y200.408025 Z-0.125000
G01 X153.622261 Y199.013030 Z-0.125000
G01 X154.986228 Y197.384172 Z-0.125000
G01 X156.022565 Y195.664530 Z-0.125000
G01 X156.889866 Y193.592154 Z-0.125000
G01 X157.463293 Y191.465352 Z-0.125000
G01 X157.812574 Y189.145773 Z-0.125000
G01 X157.938776 Y186.594376 Z-0.125000
G01 X157.836613 Y183.861456 Z-0.125000
G01 X157.485200 Y180.813863 Z-0.125000
G01 X156.919573 Y177.758299 Z-0.125000
G01 X156.130269 Y174.569373 Z-0.125000
G01 X155.118695 Y171.262898 Z-0.125000
G01 X153.886471 Y167.854686 Z-0.125000
G01 X152.435088 Y164.360506 Z-0.125000
G01 X150.799026 Y160.864665 Z-0.125000
G01 X148.990519 Y157.393202 Z-0.125000
G01 X144.873941 Y150.542766 Z-0.125000
G01 X140.439365 Y144.294100 Z-0.125000
G01 X135.532673 Y138.359553 Z-0.125000
G01 X130.340334 Y132.957644 Z-0.125000
G01 X124.823816 Y128.044261 Z-0.125000
G01 X118.950601 Y123.594980 Z-0.125000
G01 X112.765483 Y119.652468 Z-0.125000
G01 X106.482677 Y116.350894 Z-0.125000
G01 X100.032583 Y113.658719 Z-0.125000
G01 X96.616017 Y112.514636 Z-0.125000
G01 X93.108667 Y111.543808 Z-0.125000
G01 X89.749853 Y110.803945 Z-0.125000
G01 X86.236707 Y110.225574 Z-0.125000
G01 X82.752160 Y109.849313 Z-0.125000
G01 X79.311130 Y109.673884 Z-0.125000
G01 X75.928533 Y109.698050 Z-0.125000
G01 X72.463805 Y109.936132 Z-0.125000
G01 X69.247431 Y110.365116 Z-0.125000
G01 X66.134968 Y110.989944 Z-0.125000
G01 X63.141333 Y111.809339 Z-0.125000
G01 X60.318056 Y112.806592 Z-0.125000
G01 X57.581342 Y114.010729 Z-0.125000
G01 X55.010638 Y115.389400 Z-0.125000
G01 X52.616173 Y116.931737 Z-0.125000
G01 X50.408305 Y118.626871 Z-0.125000
G01 X48.397304 Y120.464020 Z-0.125000
G01 X46.494050 Y122.551995 Z-0.125000
G01 X44.920855 Y124.647386 Z-0.125000
G01 X43.576068 Y126.851631 Z-0.125000
G01 X42.469960 Y129.153949 Z-0.125000
G01 X41.608328 Y131.557577 Z-0.125000
G01 X41.001187 Y134.046149 Z-0.125000
G01 X40.652204 Y136.594860 Z-0.125000
G01 X40.559119 Y139.192671 Z-0.125000
G01 X40.719759 Y141.828415 Z-0.125000
G01 X41.163873 Y144.648198 Z-0.125000
G01 X41.839804 Y147.327074 Z-0.125000
G01 X42.762640 Y150.009872 Z-0.125000
G01 X43.930166 Y152.685552 Z-0.125000
G01 X45.340164 Y155.342990 Z-0.125000
G01 X47.014797 Y158.008484 Z-0.125000
G01 X48.889452 Y160.590482 Z-0.125000
G01 X51.077715 Y163.244681 Z-0.125000
G01 X53.485222 Y165.847393 Z-0.125000
G01 X56.215542 Y168.502402 Z-0.125000
G01 X59.152448 Y171.089216 Z-0.125000
G01 X62.279445 Y173.601614 Z-0.125000
G01 X65.580124 Y176.033415 Z-0.125000
G01 X69.185332 Y178.474166 Z-0.125000
G01 X76.931497 Y183.107613 Z-0.125000
G01 X85.491772 Y187.493771 Z-0.125000
G01 X94.605868 Y191.502219 Z-0.125000
G01 X104.205762 Y195.099073 Z-0.125000
G01 X113.989695 Y198.152975 Z-0.125000
G01 X123.191974 Y200.420598 Z-0.125000
G01 X127.541606 Y201.248389 Z-0.125000
G01 X131.541530 Y201.842146 Z-0.125000
G01 X135.476200 Y202.239292 Z-0.125000
G01 X139.031840 Y202.402659 Z-0.125000
G01 X142.287510 Y202.345035 Z-0.125000
G01 X145.147399 Y202.080144 Z-0.125000
G01 X147.941694 Y201.568177 Z-0.125000
G01 X150.316340 Y200.870423 Z-0.125000
G01 X152.449238 Y199.959223 Z-0.125000
G01 X154.335699 Y198.831932 Z-0.125000
G01 X155.971292 Y197.485994 Z-0.125000
G01 X157.351327 Y195.918809 Z-0.125000
G01 X158.431308 Y194.204708 Z-0.125000
G01 X159.272738 Y192.286749 Z-0.125000
G01 X159.878344 Y190.172094 Z-0.125000
G01 X160.249021 Y187.870629 Z-0.125000
G01 X160.385793 Y185.392285 Z-0.125000
G01 X160.289511 Y182.746952 Z-0.125000
G01 X159.932941 Y179.764356 Z-0.125000
G01 X159.358960 Y176.805883 Z-0.125000
G01 X158.554782 Y173.710682 Z-0.125000
G01 X157.519553 Y170.487190 Z-0.125000
G01 X156.233455 Y167.106043 Z-0.125000
G01 X154.779643 Y163.779791 Z-0.125000
G01 X153.114215 Y160.394850 Z-0.125000
G01 X151.240242 Y156.970825 Z-0.125000
G01 X147.076397 Y150.370832 Z-0.125000
G01 X142.520052 Y144.259577 Z-0.125000
G01 X137.569588 Y138.573895 Z-0.125000
G01 X132.203907 Y133.274917 Z-0.125000
G01 X126.382520 Y128.334213 Z-0.125000
G01 X120.297690 Y123.932754 Z-0.125000
G01 X114.025198 Y120.124967 Z-0.125000
G01 X107.786463 Y117.022605 Z-0.125000
G01 X101.226832 Y114.447597 Z-0.125000
G01 X97.748039 Y113.347626 Z-0.125000
G01 X94.097609 Y112.384556 Z-0.125000
G01 X90.447692 Y111.615539 Z-0.125000
G01 X86.970220 Y111.064489 Z-0.125000
G01 X83.363137 Y110.684349 Z-0.125000
G01 X79.953262 Y110.511051 Z-0.125000
G01 X76.595769 Y110.526650 Z-0.125000
G01 X73.291383 Y110.734941 Z-0.125000
G01 X70.096873 Y111.130083 Z-0.125000
G01 X66.828416 Y111.743276 Z-0.125000
G01 X63.679725 Y112.549628 Z-0.125000
G01 X60.664439 Y113.540871 Z-0.125000
G01 X57.796196 Y114.708695 Z-0.125000
G01 X55.088635 Y116.044702 Z-0.125000
G01 X52.555438 Y117.540625 Z-0.125000
G01 X50.210244 Y119.188108 Z-0.125000
G01 X48.066733 Y120.978842 Z-0.125000
G01 X46.138503 Y122.904515 Z-0.125000
G01 X44.435995 Y124.957200 Z-0.125000
G01 X42.970547 Y127.117716 Z-0.125000
G01 X41.745057 Y129.373917 Z-0.125000
G01 X40.708976 Y131.862660 Z-0.125000
G01 X39.987227 Y134.278521 Z-0.125000
G01 X39.492777 Y136.909704 Z-0.125000
G01 X39.286746 Y139.434078 Z-0.125000
G01 X39.335078 Y141.992720 Z-0.125000
G01 X39.640630 Y144.573568 Z-0.125000
G01 X40.206172 Y147.164687 Z-0.125000
G01 X41.021006 Y149.724054 Z-0.125000
G01 X42.130524 Y152.375610 Z-0.125000
G01 X43.496664 Y155.007433 Z-0.125000
G01 X45.109284 Y157.612361 Z-0.125000
G01 X46.860337 Y160.055499 Z-0.125000
G01 X48.924444 Y162.587162 Z-0.125000
G01 X51.086111 Y164.947700 Z-0.125000
G01 X53.563134 Y167.378734 Z-0.125000
G01 X56.098760 Y169.630630 Z-0.125000
G01 X58.950168 Y171.933629 Z-0.125000
G01 X65.161583 Y176.318466 Z-0.125000
G01 X72.394417 Y180.652839 Z-0.125000
G01 X80.253870 Y184.691037 Z-0.125000
G01 X88.903309 Y188.519026 Z-0.125000
G01 X98.081934 Y192.007111 Z-0.125000
G01 X108.032089 Y195.213298 Z-0.125000
G01 X117.684663 Y197.754977 Z-0.125000
G01 X126.802126 Y199.584411 Z-0.125000
G01 X131.217608 Y200.233832 Z-0.125000
G01 X135.176999 Y200.652330 Z-0.125000
G01 X138.913352 Y200.872043 Z-0.125000
G01 X142.245699 Y200.890498 Z-0.125000
G01 X145.356329 Y200.717626 Z-0.125000
G01 X148.235227 Y200.347588 Z-0.125000
G01 X150.872378 Y199.774630 Z-0.125000
G01 X153.138765 Y199.039370 Z-0.125000
G01 X155.170736 Y198.111802 Z-0.125000
G01 X156.993990 Y196.963030 Z-0.125000
G01 X158.595570 Y195.581163 Z-0.125000
G01 X159.939505 Y193.989598 Z-0.125000
G01 X161.025411 Y192.192855 Z-0.125000
G01 X161.902003 Y190.045253 Z-0.125000
G01 X162.451860 Y187.837810 Z-0.125000
G01 X162.753065 Y185.260500 Z-0.125000
G01 X162.764956 Y182.661709 Z-0.125000
G01 X162.510592 Y179.835107 Z-0.125000
G01 X161.967810 Y176.734663 Z-0.125000
G01 X161.143045 Y173.474006 Z-0.125000
G01 X160.038898 Y170.075298 Z-0.125000
G01 X158.723562 Y166.715845 Z-0.125000
G01 X157.157101 Y163.269955 Z-0.125000
G01 X155.341775 Y159.757235 Z-0.125000
G01 X153.279714 Y156.197121 Z-0.125000
G01 X151.123332 Y152.833959 Z-0.125000
G01 X148.859161 Y149.615455 Z-0.125000
G01 X146.405239 Y146.416087 Z-0.125000
G01 X143.768430 Y143.254140 Z-0.125000
G01 X141.067049 Y140.265961 Z-0.125000
G01 X138.209163 Y137.345422 Z-0.125000
G01 X135.200909 Y134.508718 Z-0.125000
G01 X132.177312 Y131.879410 Z-0.125000
G01 X129.026234 Y129.356613 Z-0.125000
G01 X125.891906 Y127.052207 Z-0.125000
G01 X122.616033 Y124.850604 Z-0.125000
G01 X119.399190 Y122.881031 Z-0.125000
G01 X115.958373 Y120.968443 Z-0.125000
G01 X112.443778 Y119.208524 Z-0.125000
G01 X109.017622 Y117.671643 Z-0.125000
G01 X105.393831 Y116.230957 Z-0.125000
G01 X101.885501 Y115.012926 Z-0.125000
G01 X98.199313 Y113.918454 Z-0.125000
G01 X94.653647 Y113.045100 Z-0.125000
G01 X91.106020 Y112.349862 Z-0.125000
G01 X87.454739 Y111.825705 Z-0.125000
G01 X83.951140 Y111.509285 Z-0.125000
G01 X80.314606 Y111.375027 Z-0.125000
G01 X76.736164 Y111.439130 Z-0.125000
G01 X73.230818 Y111.697244 Z-0.125000
G01 X69.813527 Y112.144853 Z-0.125000
G01 X66.499337 Y112.777524 Z-0.125000
G01 X63.303251 Y113.590824 Z-0.125000
G01 X60.098044 Y114.631678 Z-0.125000
G01 X57.190590 Y115.800951 Z-0.125000
G01 X54.447014 Y117.137214 Z-0.125000
G01 X51.889267 Y118.629514 Z-0.125000
G01 X49.432490 Y120.336113 Z-0.125000
G01 X47.192357 Y122.186858 Z-0.125000
G01 X45.177009 Y124.168919 Z-0.125000
G01 X43.394714 Y126.269424 Z-0.125000
G01 X41.770757 Y128.608226 Z-0.125000
G01 X40.494122 Y130.911949 Z-0.125000
G01 X39.475686 Y133.294651 Z-0.125000
G01 X38.723633 Y135.743457 Z-0.125000
G01 X38.246232 Y138.245498 Z-0.125000
G01 X38.051410 Y140.721455 Z-0.125000
G01 X38.132774 Y143.359117 Z-0.125000
G01 X38.474938 Y145.864695 Z-0.125000
G01 X39.112297 Y148.523113 Z-0.125000
G01 X39.968814 Y151.029800 Z-0.125000
G01 X41.139408 Y153.669806 Z-0.125000
G01 X42.575405 Y156.285091 Z-0.125000
G01 X44.270752 Y158.865385 Z-0.125000
G01 X46.104662 Y161.260830 Z-0.125000
G01 X48.159477 Y163.607090 Z-0.125000
G01 X50.439333 Y165.908299 Z-0.125000
G01 X52.845860 Y168.086077 Z-0.125000
G01 X55.550480 Y170.300253 Z-0.125000
G01 X58.563123 Y172.539875 Z-0.125000
G01 X65.107454 Y176.791222 Z-0.125000
G01 X72.389217 Y180.798604 Z-0.125000
G01 X80.403556 Y184.561170 Z-0.125000
G01 X89.249223 Y188.117108 Z-0.125000
G01 X98.578813 Y191.323295 Z-0.125000
G01 X108.804558 Y194.273669 Z-0.125000
G01 X118.893872 Y196.631863 Z-0.125000
G01 X128.398166 Y198.303641 Z-0.125000
G01 X136.786976 Y199.198219 Z-0.125000
G01 X140.657160 Y199.363803 Z-0.125000
G01 X144.145458 Y199.336483 Z-0.125000
G01 X147.394181 Y199.119754 Z-0.125000
G01 X150.285397 Y198.724484 Z-0.125000
G01 X152.894247 Y198.146454 Z-0.125000
G01 X155.260326 Y197.378759 Z-0.125000
G01 X157.380437 Y196.420291 Z-0.125000
G01 X159.251342 Y195.270027 Z-0.125000
G01 X160.975757 Y193.823546 Z-0.125000
G01 X162.320374 Y192.272599 Z-0.125000
G01 X163.473578 Y190.394449 Z-0.125000
G01 X164.278183 Y188.438344 Z-0.125000
G01 X164.830640 Y186.225830 Z-0.125000
G01 X165.107977 Y183.816917 Z-0.125000
G01 X165.111387 Y181.225542 Z-0.125000
G01 X164.842404 Y178.465514 Z-0.125000
G01 X164.264246 Y175.384633 Z-0.125000
G01 X163.439225 Y172.321654 Z-0.125000
G01 X162.277070 Y168.951929 Z-0.125000
G01 X160.901468 Y165.644686 Z-0.125000
G01 X159.288763 Y162.300406 Z-0.125000
G01 X157.381844 Y158.823232 Z-0.125000
G01 X155.300091 Y155.433049 Z-0.125000
G01 X152.983112 Y152.024794 Z-0.125000
G01 X150.640305 Y148.882240 Z-0.125000
G01 X148.106000 Y145.761296 Z-0.125000
G01 X145.384502 Y142.679776 Z-0.125000
G01 X142.604783 Y139.780078 Z-0.125000
G01 X136.774445 Y134.388271 Z-0.125000
G01 X130.505576 Y129.470668 Z-0.125000
G01 X127.190492 Y127.178238 Z-0.125000
G01 X123.768683 Y125.011158 Z-0.125000
G01 X120.250508 Y122.980253 Z-0.125000
G01 X116.646280 Y121.096307 Z-0.125000
G01 X113.114893 Y119.436037 Z-0.125000
G01 X109.522812 Y117.930737 Z-0.125000
G01 X105.879202 Y116.590042 Z-0.125000
G01 X102.261464 Y115.443358 Z-0.125000
G01 X98.646410 Y114.479350 Z-0.125000
G01 X94.853583 Y113.656844 Z-0.125000
G01 X91.061950 Y113.023705 Z-0.125000
G01 X87.286640 Y112.579719 Z-0.125000
G01 X83.542658 Y112.324715 Z-0.125000
G01 X79.845217 Y112.258567 Z-0.125000
G01 X76.209322 Y112.381061 Z-0.125000
G01 X72.650188 Y112.692026 Z-0.125000
G01 X69.182860 Y113.191292 Z-0.125000
G01 X65.966145 Y113.844932 Z-0.125000
G01 X62.734427 Y114.706734 Z-0.125000
G01 X59.670467 Y115.732373 Z-0.125000
G01 X56.754233 Y116.919377 Z-0.125000
G01 X53.848100 Y118.336791 Z-0.125000
G01 X51.131162 Y119.911989 Z-0.125000
G01 X48.615994 Y121.633633 Z-0.125000
G01 X46.315211 Y123.490430 Z-0.125000
G01 X44.241429 Y125.471085 Z-0.125000
G01 X42.407264 Y127.564217 Z-0.125000
G01 X40.825332 Y129.758532 Z-0.125000
G01 X39.516645 Y132.024493 Z-0.125000
G01 X38.469653 Y134.375186 Z-0.125000
G01 X37.693220 Y136.784525 Z-0.125000
G01 X37.186922 Y139.240876 Z-0.125000
G01 X36.950246 Y141.732602 Z-0.125000
G01 X36.993805 Y144.405768 Z-0.125000
G01 X37.311973 Y146.933637 Z-0.125000
G01 X37.898485 Y149.461123 Z-0.125000
G01 X38.752871 Y151.976675 Z-0.125000
G01 X39.874706 Y154.468614 Z-0.125000
G01 X41.263692 Y156.927522 Z-0.125000
G01 X42.926903 Y159.367378 Z-0.125000
G01 X44.742528 Y161.645700 Z-0.125000
G01 X46.880199 Y163.986249 Z-0.125000
G01 X49.242612 Y166.269472 Z-0.125000
G01 X51.817365 Y168.491022 Z-0.125000
G01 X54.592140 Y170.646551 Z-0.125000
G01 X57.554490 Y172.731671 Z-0.125000
G01 X64.153589 Y176.763134 Z-0.125000
G01 X71.665550 Y180.593979 Z-0.125000
G01 X80.048777 Y184.207285 Z-0.125000
G01 X89.263629 Y187.575561 Z-0.125000
G01 X98.984440 Y190.582281 Z-0.125000
G01 X109.750751 Y193.355734 Z-0.125000
G01 X120.348707 Y195.536794 Z-0.125000
G01 X130.180674 Y196.999983 Z-0.125000
G01 X134.797669 Y197.460208 Z-0.125000
G01 X139.174706 Y197.730427 Z-0.125000
G01 X143.001928 Y197.803139 Z-0.125000
G01 X146.677888 Y197.687806 Z-0.125000
G01 X149.911907 Y197.394955 Z-0.125000
G01 X152.895653 Y196.918022 Z-0.125000
G01 X155.620646 Y196.251766 Z-0.125000
G01 X158.078489 Y195.390773 Z-0.125000
G01 X160.260657 Y194.329759 Z-0.125000
G01 X162.060938 Y193.139175 Z-0.125000
G01 X163.671511 Y191.686855 Z-0.125000
G01 X164.931397 Y190.121118 Z-0.125000
G01 X165.936279 Y188.373688 Z-0.125000
G01 X166.729931 Y186.306853 Z-0.125000
G01 X167.206479 Y184.202682 Z-0.125000
G01 X167.433907 Y181.767685 Z-0.125000
G01 X167.368398 Y179.153379 Z-0.125000
G01 X167.009910 Y176.367353 Z-0.125000
G01 X166.372466 Y173.470809 Z-0.125000
G01 X165.437994 Y170.386732 Z-0.125000
G01 X164.216553 Y167.176837 Z-0.125000
G01 X162.780215 Y164.003766 Z-0.125000
G01 X161.087084 Y160.756364 Z-0.125000
G01 X159.140484 Y157.454748 Z-0.125000
G01 X156.943654 Y154.119119 Z-0.125000
G01 X154.611289 Y150.915276 Z-0.125000
G01 X152.176845 Y147.861460 Z-0.125000
G01 X149.635465 Y144.933334 Z-0.125000
G01 X144.115325 Y139.312736 Z-0.125000
G01 X141.048978 Y136.544780 Z-0.125000
G01 X137.951091 Y133.964444 Z-0.125000
G01 X131.485184 Y129.190987 Z-0.125000
G01 X124.693693 Y124.962996 Z-0.125000
G01 X117.852719 Y121.436680 Z-0.125000
G01 X114.380916 Y119.911861 Z-0.125000
G01 X110.695494 Y118.474415 Z-0.125000
G01 X107.115689 Y117.247774 Z-0.125000
G01 X103.343107 Y116.129050 Z-0.125000
G01 X99.545677 Y115.178808 Z-0.125000
G01 X95.895546 Y114.429909 Z-0.125000
G01 X92.088143 Y113.821021 Z-0.125000
G01 X88.452844 Y113.406444 Z-0.125000
G01 X84.686443 Y113.153913 Z-0.125000
G01 X81.114991 Y113.088063 Z-0.125000
G01 X77.625457 Y113.195895 Z-0.125000
G01 X74.083926 Y113.486274 Z-0.125000
G01 X70.625548 Y113.952124 Z-0.125000
G01 X67.097527 Y114.622941 Z-0.125000
G01 X63.848889 Y115.428015 Z-0.125000
G01 X60.568754 Y116.440612 Z-0.125000
G01 X57.582620 Y117.557460 Z-0.125000
G01 X54.605821 Y118.882983 Z-0.125000
G01 X51.805857 Y120.357552 Z-0.125000
G01 X49.197263 Y121.973666 Z-0.125000
G01 X46.794573 Y123.723739 Z-0.125000
G01 X44.520812 Y125.682785 Z-0.125000
G01 X42.556950 Y127.693061 Z-0.125000
G01 X40.834453 Y129.800173 Z-0.125000
G01 X39.357966 Y131.991717 Z-0.125000
G01 X38.132049 Y134.255377 Z-0.125000
G01 X37.109309 Y136.725537 Z-0.125000
G01 X36.414880 Y139.098649 Z-0.125000
G01 X35.985172 Y141.505857 Z-0.125000
G01 X35.824873 Y143.934802 Z-0.125000
G01 X35.938544 Y146.373039 Z-0.125000
G01 X36.322136 Y148.773854 Z-0.125000
G01 X36.951780 Y151.103407 Z-0.125000
G01 X37.885357 Y153.548037 Z-0.125000
G01 X39.085275 Y155.963343 Z-0.125000
G01 X40.543179 Y158.342379 Z-0.125000
G01 X42.250716 Y160.678324 Z-0.125000
G01 X44.199575 Y162.964147 Z-0.125000
G01 X46.381359 Y165.193028 Z-0.125000
G01 X48.927897 Y167.476294 Z-0.125000
G01 X51.562319 Y169.566400 Z-0.125000
G01 X54.502507 Y171.646532 Z-0.125000
G01 X57.762269 Y173.715711 Z-0.125000
G01 X61.219368 Y175.696579 Z-0.125000
G01 X64.997746 Y177.659758 Z-0.125000
G01 X68.946652 Y179.526870 Z-0.125000
G01 X77.587610 Y183.091204 Z-0.125000
G01 X87.008366 Y186.341035 Z-0.125000
G01 X97.354516 Y189.322054 Z-0.125000
G01 X108.807840 Y192.027228 Z-0.125000
G01 X120.270668 Y194.139071 Z-0.125000
G01 X131.168593 Y195.554780 Z-0.125000
G01 X136.232515 Y195.972043 Z-0.125000
G01 X140.846697 Y196.178372 Z-0.125000
G01 X145.020601 Y196.186300 Z-0.125000
G01 X148.767013 Y196.009677 Z-0.125000
G01 X152.241161 Y195.644370 Z-0.125000
G01 X155.425995 Y195.082366 Z-0.125000
G01 X158.214621 Y194.344207 Z-0.125000
G01 X160.630567 Y193.438121 Z-0.125000
G01 X162.909272 Y192.254357 Z-0.125000
G01 X164.744204 Y190.951509 Z-0.125000
G01 X166.294725 Y189.458229 Z-0.125000
G01 X167.558361 Y187.775370 Z-0.125000
G01 X168.532471 Y185.903570 Z-0.125000
G01 X169.175583 Y183.996949 Z-0.125000
G01 X169.584279 Y181.762954 Z-0.125000
G01 X169.698376 Y179.440732 Z-0.125000
G01 X169.537992 Y176.929656 Z-0.125000
G01 X169.102104 Y174.269618 Z-0.125000
G01 X168.347750 Y171.325338 Z-0.125000
G01 X167.352159 Y168.407228 Z-0.125000
G01 X166.086690 Y165.386657 Z-0.125000
G01 X164.553133 Y162.278882 Z-0.125000
G01 X162.753321 Y159.099163 Z-0.125000
G01 X160.783577 Y156.004132 Z-0.125000
G01 X158.526566 Y152.817167 Z-0.125000
G01 X156.122086 Y149.739525 Z-0.125000
G01 X151.000156 Y143.985564 Z-0.125000
G01 X145.273985 Y138.513245 Z-0.125000
G01 X139.170614 Y133.535674 Z-0.125000
G01 X132.618442 Y129.001450 Z-0.125000
G01 X125.837606 Y125.071340 Z-0.125000
G01 X118.688991 Y121.643266 Z-0.125000
G01 X111.261548 Y118.776003 Z-0.125000
G01 X103.800902 Y116.567666 Z-0.125000
G01 X100.028321 Y115.703732 Z-0.125000
G01 X96.241461 Y115.009133 Z-0.125000
G01 X92.539545 Y114.500575 Z-0.125000
G01 X88.765642 Y114.155471 Z-0.125000
G01 X85.019315 Y113.984687 Z-0.125000
G01 X81.146701 Y113.989333 Z-0.125000
G01 X77.498574 Y114.165785 Z-0.125000
G01 X73.758171 Y114.526702 Z-0.125000
G01 X70.264631 Y115.037646 Z-0.125000
G01 X66.715300 Y115.741665 Z-0.125000
G01 X63.286416 Y116.615913 Z-0.125000
G01 X60.133505 Y117.608222 Z-0.125000
G01 X57.118304 Y118.750089 Z-0.125000
G01 X54.153694 Y120.085415 Z-0.125000
G01 X51.409692 Y121.537821 Z-0.125000
G01 X48.701578 Y123.213136 Z-0.125000
G01 X46.205717 Y125.017594 Z-0.125000
G01 X43.931657 Y126.938707 Z-0.125000
G01 X41.889032 Y128.963986 Z-0.125000
G01 X39.994557 Y131.201007 Z-0.125000
G01 X38.457591 Y133.401246 Z-0.125000
G01 X37.181296 Y135.667506 Z-0.125000
G01 X36.175177 Y137.987298 Z-0.125000
G01 X35.434505 Y140.403415 Z-0.125000
G01 X34.991030 Y142.825242 Z-0.125000
G01 X34.834226 Y145.260879 Z-0.125000
G01 X34.960385 Y147.700480 Z-0.125000
G01 X35.365714 Y150.134156 Z-0.125000
G01 X36.046504 Y152.552062 Z-0.125000
G01 X36.999005 Y154.944225 Z-0.125000
G01 X38.219423 Y157.300842 Z-0.125000
G01 X39.704008 Y159.612025 Z-0.125000
G01 X41.449052 Y161.867842 Z-0.125000
G01 X43.506723 Y164.116585 Z-0.125000
G01 X45.750308 Y166.230814 Z-0.125000
G01 X48.338956 Y168.365928 Z-0.125000
G01 X51.160613 Y170.422534 Z-0.125000
G01 X54.336497 Y172.482890 Z-0.125000
G01 X57.731326 Y174.453870 Z-0.125000
G01 X61.327328 Y176.333426 Z-0.125000
G01 X65.106729 Y178.119685 Z-0.125000
G01 X69.219514 Y179.878964 Z-0.125000
G01 X77.967365 Y183.107954 Z-0.125000
G01 X87.831767 Y186.121237 Z-0.125000
G01 X98.442041 Y188.788862 Z-0.125000
G01 X110.489335 Y191.222623 Z-0.125000
G01 X122.746454 Y193.109511 Z-0.125000
G01 X133.718157 Y194.222864 Z-0.125000
G01 X138.767673 Y194.499988 Z-0.125000
G01 X143.540576 Y194.586168 Z-0.125000
G01 X147.869196 Y194.478933 Z-0.125000
G01 X151.673147 Y194.195544 Z-0.125000
G01 X155.184716 Y193.720274 Z-0.125000
G01 X158.215047 Y193.090033 Z-0.125000
G01 X161.112529 Y192.225545 Z-0.125000
G01 X163.547654 Y191.218020 Z-0.125000
G01 X165.682683 Y190.020362 Z-0.125000
G01 X167.510455 Y188.627924 Z-0.125000
G01 X168.943553 Y187.135496 Z-0.125000
G01 X170.056907 Y185.525093 Z-0.125000
G01 X170.924208 Y183.700944 Z-0.125000
G01 X171.545328 Y181.569666 Z-0.125000
G01 X171.843038 Y179.406848 Z-0.125000
G01 X171.857571 Y176.934131 Z-0.125000
G01 X171.587480 Y174.469725 Z-0.125000
G01 X171.043334 Y171.872724 Z-0.125000
G01 X170.225517 Y169.151780 Z-0.125000
G01 X169.083564 Y166.196248 Z-0.125000
G01 X167.722282 Y163.282358 Z-0.125000
G01 X166.095939 Y160.289235 Z-0.125000
G01 X164.209563 Y157.237038 Z-0.125000
G01 X162.068055 Y154.145886 Z-0.125000
G01 X159.780997 Y151.165719 Z-0.125000
G01 X157.268556 Y148.186064 Z-0.125000
G01 X151.982023 Y142.678241 Z-0.125000
G01 X146.272644 Y137.615172 Z-0.125000
G01 X140.055049 Y132.919455 Z-0.125000
G01 X133.302514 Y128.588066 Z-0.125000
G01 X126.239909 Y124.781387 Z-0.125000
G01 X118.964197 Y121.552994 Z-0.125000
G01 X111.724245 Y118.996696 Z-0.125000
G01 X104.323525 Y117.038120 Z-0.125000
G01 X100.420778 Y116.257766 Z-0.125000
G01 X96.507759 Y115.644147 Z-0.125000
G01 X92.598320 Y115.198030 Z-0.125000
G01 X88.706399 Y114.920310 Z-0.125000
G01 X84.845804 Y114.811711 Z-0.125000
G01 X81.030473 Y114.873171 Z-0.125000
G01 X77.274258 Y115.105457 Z-0.125000
G01 X73.742955 Y115.489134 Z-0.125000
G01 X70.290928 Y116.031191 Z-0.125000
G01 X66.900660 Y116.737256 Z-0.125000
G01 X63.588004 Y117.604088 Z-0.125000
G01 X60.233878 Y118.674479 Z-0.125000
G01 X57.028032 Y119.897412 Z-0.125000
G01 X53.982612 Y121.263382 Z-0.125000
G01 X51.109809 Y122.762800 Z-0.125000
G01 X48.421769 Y124.386202 Z-0.125000
G01 X45.930682 Y126.124000 Z-0.125000
G01 X43.540266 Y128.061437 Z-0.125000
G01 X41.490949 Y130.003988 Z-0.125000
G01 X39.642548 Y132.072144 Z-0.125000
G01 X38.060744 Y134.194301 Z-0.125000
G01 X36.652195 Y136.521509 Z-0.125000
G01 X35.594292 Y138.751413 Z-0.125000
G01 X34.747534 Y141.168851 Z-0.125000
G01 X34.192946 Y143.613395 Z-0.125000
G01 X33.932146 Y146.071962 Z-0.125000
G01 X33.966670 Y148.531297 Z-0.125000
G01 X34.268642 Y150.825942 Z-0.125000
G01 X34.832820 Y153.098766 Z-0.125000
G01 X35.702038 Y155.434498 Z-0.125000
G01 X36.853794 Y157.721386 Z-0.125000
G01 X38.278070 Y159.955169 Z-0.125000
G01 X39.964211 Y162.131839 Z-0.125000
G01 X42.010247 Y164.357011 Z-0.125000
G01 X44.322239 Y166.509941 Z-0.125000
G01 X46.887700 Y168.585982 Z-0.125000
G01 X49.694228 Y170.580488 Z-0.125000
G01 X52.886947 Y172.581942 Z-0.125000
G01 X56.148797 Y174.394924 Z-0.125000
G01 X59.785289 Y176.193415 Z-0.125000
G01 X63.613662 Y177.886845 Z-0.125000
G01 X67.765574 Y179.537269 Z-0.125000
G01 X76.857038 Y182.626376 Z-0.125000
G01 X86.938083 Y185.413937 Z-0.125000
G01 X97.995285 Y187.890021 Z-0.125000
G01 X110.764669 Y190.151976 Z-0.125000
G01 X123.331900 Y191.788037 Z-0.125000
G01 X129.426575 Y192.352770 Z-0.125000
G01 X135.269572 Y192.733463 Z-0.125000
G01 X140.580825 Y192.919803 Z-0.125000
G01 X145.607582 Y192.916394 Z-0.125000
G01 X149.943702 Y192.731460 Z-0.125000
G01 X153.969838 Y192.361976 Z-0.125000
G01 X157.521002 Y191.825715 Z-0.125000
G01 X160.755703 Y191.102303 Z-0.125000
G01 X163.539258 Y190.227331 Z-0.125000
G01 X166.059966 Y189.138271 Z-0.125000
G01 X168.129699 Y187.918450 Z-0.125000
G01 X170.006145 Y186.405095 Z-0.125000
G01 X171.345263 Y184.923749 Z-0.125000
G01 X172.487599 Y183.155178 Z-0.125000
G01 X173.268422 Y181.354642 Z-0.125000
G01 X173.778258 Y179.404376 Z-0.125000
G01 X174.022606 Y177.139395 Z-0.125000
G01 X173.965067 Y174.885964 Z-0.125000
G01 X173.614336 Y172.397434 Z-0.125000
G01 X172.993344 Y169.853923 Z-0.125000
G01 X172.046384 Y167.059543 Z-0.125000
G01 X170.866498 Y164.297256 Z-0.125000
G01 X169.338780 Y161.308693 Z-0.125000
G01 X167.611595 Y158.395272 Z-0.125000
G01 X165.621649 Y155.432751 Z-0.125000
G01 X163.371628 Y152.437198 Z-0.125000
G01 X160.995746 Y149.575476 Z-0.125000
G01 X158.394313 Y146.721255 Z-0.125000
G01 X152.838754 Y141.375308 Z-0.125000
G01 X146.800552 Y136.433454 Z-0.125000
G01 X140.278811 Y131.883715 Z-0.125000
G01 X133.366062 Y127.807499 Z-0.125000
G01 X126.382988 Y124.379383 Z-0.125000
G01 X119.200788 Y121.512333 Z-0.125000
G01 X111.610957 Y119.128609 Z-0.125000
G01 X104.015032 Y117.359484 Z-0.125000
G01 X96.190955 Y116.166301 Z-0.125000
G01 X88.549893 Y115.631745 Z-0.125000
G01 X84.778462 Y115.610136 Z-0.125000
G01 X81.074586 Y115.751724 Z-0.125000
G01 X73.849551 Y116.503222 Z-0.125000
G01 X70.187358 Y117.134827 Z-0.125000
G01 X66.626732 Y117.922298 Z-0.125000
G01 X63.181099 Y118.859711 Z-0.125000
G01 X59.863883 Y119.941056 Z-0.125000
G01 X56.688511 Y121.160409 Z-0.125000
G01 X53.535046 Y122.576289 Z-0.125000
G01 X50.691523 Y124.059425 Z-0.125000
G01 X47.965252 Y125.704735 Z-0.125000
G01 X45.479535 Y127.437632 Z-0.125000
G01 X43.067724 Y129.384402 Z-0.125000
G01 X40.898470 Y131.427028 Z-0.125000
G01 X38.978380 Y133.552339 Z-0.125000
G01 X37.313933 Y135.747165 Z-0.125000
G01 X35.911735 Y137.998337 Z-0.125000
G01 X34.778264 Y140.292727 Z-0.125000
G01 X33.920085 Y142.617080 Z-0.125000
G01 X33.343759 Y144.958268 Z-0.125000
G01 X33.064632 Y147.165326 Z-0.125000
G01 X33.050780 Y149.480047 Z-0.125000
G01 X33.323045 Y151.789524 Z-0.125000
G01 X33.876142 Y154.070062 Z-0.125000
G01 X34.703677 Y156.314585 Z-0.125000
G01 X35.799300 Y158.516231 Z-0.125000
G01 X37.250001 Y160.800733 Z-0.125000
G01 X38.988482 Y163.020621 Z-0.125000
G01 X41.007069 Y165.167541 Z-0.125000
G01 X43.298092 Y167.233225 Z-0.125000
G01 X45.853921 Y169.209319 Z-0.125000
G01 X48.648855 Y171.081459 Z-0.125000
G01 X51.748446 Y172.900621 Z-0.125000
G01 X55.211427 Y174.691228 Z-0.125000
G01 X58.898425 Y176.379883 Z-0.125000
G01 X62.942462 Y178.026898 Z-0.125000
G01 X67.183281 Y179.566763 Z-0.125000
G01 X76.507501 Y182.425161 Z-0.125000
G01 X87.019362 Y184.987766 Z-0.125000
G01 X98.408029 Y187.192396 Z-0.125000
G01 X111.782167 Y189.165123 Z-0.125000
G01 X125.328623 Y190.554620 Z-0.125000
G01 X131.623661 Y190.984754 Z-0.125000
G01 X137.642641 Y191.237157 Z-0.125000
G01 X143.019147 Y191.299810 Z-0.125000
G01 X148.081663 Y191.180982 Z-0.125000
G01 X152.512701 Y190.894397 Z-0.125000
G01 X156.479508 Y190.446958 Z-0.125000
G01 X160.015286 Y189.842119 Z-0.125000
G01 X163.294910 Y189.033977 Z-0.125000
G01 X166.218049 Y188.029137 Z-0.125000
G01 X168.637149 Y186.900355 Z-0.125000
G01 X170.847745 Y185.502973 Z-0.125000
G01 X172.583497 Y183.998015 Z-0.125000
G01 X173.901689 Y182.417105 Z-0.125000
G01 X174.857642 Y180.790847 Z-0.125000
G01 X175.562172 Y178.958174 Z-0.125000
G01 X175.981779 Y176.959064 Z-0.125000
G01 X176.113607 Y174.812016 Z-0.125000
G01 X175.939669 Y172.380983 Z-0.125000
G01 X175.481575 Y169.963588 Z-0.125000
G01 X174.739155 Y167.431968 Z-0.125000
G01 X173.713559 Y164.797034 Z-0.125000
G01 X172.405852 Y162.069867 Z-0.125000
G01 X170.817228 Y159.261422 Z-0.125000
G01 X168.923052 Y156.348341 Z-0.125000
G01 X166.836143 Y153.506353 Z-0.125000
G01 X164.493591 Y150.640369 Z-0.125000
G01 X161.902514 Y147.769910 Z-0.125000
G01 X159.187836 Y145.028124 Z-0.125000
G01 X153.519885 Y139.984319 Z-0.125000
G01 X147.431731 Y135.370990 Z-0.125000
G01 X140.992249 Y131.221678 Z-0.125000
G01 X134.086277 Y127.477142 Z-0.125000
G01 X126.754135 Y124.174545 Z-0.125000
G01 X119.237698 Y121.428454 Z-0.125000
G01 X111.634996 Y119.267512 Z-0.125000
G01 X104.034254 Y117.713923 Z-0.125000
G01 X96.318350 Y116.762147 Z-0.125000
G01 X88.447858 Y116.427186 Z-0.125000
G01 X80.716652 Y116.723489 Z-0.125000
G01 X73.231201 Y117.634264 Z-0.125000
G01 X69.537938 Y118.331037 Z-0.125000
G01 X66.097887 Y119.142973 Z-0.125000
G01 X62.767672 Y120.094109 Z-0.125000
G01 X59.501389 Y121.203584 Z-0.125000
G01 X56.372985 Y122.447572 Z-0.125000
G01 X53.236910 Y123.893670 Z-0.125000
G01 X50.431960 Y125.379705 Z-0.125000
G01 X47.655949 Y127.060135 Z-0.125000
G01 X45.079406 Y128.844561 Z-0.125000
G01 X42.593519 Y130.823041 Z-0.125000
G01 X40.457126 Y132.786008 Z-0.125000
G01 X38.456440 Y134.927771 Z-0.125000
G01 X36.721540 Y137.134148 Z-0.125000
G01 X35.329997 Y139.278255 Z-0.125000
G01 X34.157954 Y141.543833 Z-0.125000
G01 X33.306551 Y143.716283 Z-0.125000
G01 X32.709853 Y145.897769 Z-0.125000
G01 X32.351450 Y148.235377 Z-0.125000
G01 X32.281850 Y150.562926 Z-0.125000
G01 X32.499176 Y152.869847 Z-0.125000
G01 X33.001553 Y155.145526 Z-0.125000
G01 X33.787063 Y157.379478 Z-0.125000
G01 X34.853832 Y159.561135 Z-0.125000
G01 X36.200026 Y161.679840 Z-0.125000
G01 X37.867627 Y163.775913 Z-0.125000
G01 X39.931862 Y165.898283 Z-0.125000
G01 X42.178942 Y167.836572 Z-0.125000
G01 X44.807653 Y169.774093 Z-0.125000
G01 X47.701810 Y171.615248 Z-0.125000
G01 X50.994135 Y173.435689 Z-0.125000
G01 X54.381931 Y175.075800 Z-0.125000
G01 X58.155749 Y176.683347 Z-0.125000
G01 X62.148939 Y178.180037 Z-0.125000
G01 X66.267733 Y179.541148 Z-0.125000
G01 X75.760434 Y182.148378 Z-0.125000
G01 X86.307118 Y184.409609 Z-0.125000
G01 X98.038460 Y186.350369 Z-0.125000
G01 X112.288636 Y188.086591 Z-0.125000
G01 X126.310916 Y189.215842 Z-0.125000
G01 X132.837771 Y189.519860 Z-0.125000
G01 X139.083965 Y189.651346 Z-0.125000
G01 X144.850585 Y189.605870 Z-0.125000
G01 X150.097863 Y189.389609 Z-0.125000
G01 X154.662221 Y189.016843 Z-0.125000
G01 X158.868602 Y188.466815 Z-0.125000
G01 X162.541578 Y187.765098 Z-0.125000
G01 X165.856961 Y186.882539 Z-0.125000
G01 X168.674570 Y185.862952 Z-0.125000
G01 X171.140255 Y184.662310 Z-0.125000
G01 X173.241229 Y183.272643 Z-0.125000
G01 X174.965303 Y181.688750 Z-0.125000
G01 X176.076782 Y180.279732 Z-0.125000
G01 X177.011723 Y178.615499 Z-0.125000
G01 X177.665960 Y176.812532 Z-0.125000
G01 X178.038811 Y174.875437 Z-0.125000
G01 X178.129637 Y172.808900 Z-0.125000
G01 X177.937713 Y170.617612 Z-0.125000
G01 X177.462315 Y168.306173 Z-0.125000
G01 X176.715121 Y165.913286 Z-0.125000
G01 X175.697367 Y163.430680 Z-0.125000
G01 X174.408797 Y160.861937 Z-0.125000
G01 X172.853589 Y158.223508 Z-0.125000
G01 X171.035833 Y155.531717 Z-0.125000
G01 X168.959579 Y152.803016 Z-0.125000
G01 X166.745658 Y150.184960 Z-0.125000
G01 X161.778316 Y145.079781 Z-0.125000
G01 X156.394010 Y140.400857 Z-0.125000
G01 X150.448210 Y135.999398 Z-0.125000
G01 X143.900641 Y131.868244 Z-0.125000
G01 X137.119635 Y128.239722 Z-0.125000
G01 X130.068197 Y125.079523 Z-0.125000
G01 X122.828969 Y122.431504 Z-0.125000
G01 X115.534418 Y120.345490 Z-0.125000
G01 X108.171035 Y118.795907 Z-0.125000
G01 X100.716825 Y117.759911 Z-0.125000
G01 X93.254645 Y117.248285 Z-0.125000
G01 X85.867479 Y117.271897 Z-0.125000
G01 X78.638267 Y117.841531 Z-0.125000
G01 X71.856622 Y118.922066 Z-0.125000
G01 X65.167294 Y120.556337 Z-0.125000
G01 X58.738254 Y122.724312 Z-0.125000
G01 X52.824847 Y125.336103 Z-0.125000
G01 X50.086216 Y126.791365 Z-0.125000
G01 X47.381468 Y128.416600 Z-0.125000
G01 X44.863018 Y130.133642 Z-0.125000
G01 X42.648074 Y131.847061 Z-0.125000
G01 X40.503328 Y133.741450 Z-0.125000
G01 X38.646318 Y135.627101 Z-0.125000
G01 X36.999473 Y137.560617 Z-0.125000
G01 X35.470690 Y139.675315 Z-0.125000
G01 X34.266255 Y141.679795 Z-0.125000
G01 X33.216663 Y143.850114 Z-0.125000
G01 X32.419005 Y146.033220 Z-0.125000
G01 X31.876010 Y148.218158 Z-0.125000
G01 X31.590490 Y150.394060 Z-0.125000
G01 X31.565215 Y152.549974 Z-0.125000
G01 X31.802914 Y154.674986 Z-0.125000
G01 X32.287177 Y156.696856 Z-0.125000
G01 X33.155117 Y158.977266 Z-0.125000
G01 X34.342376 Y161.186669 Z-0.125000
G01 X35.838256 Y163.320163 Z-0.125000
G01 X37.740317 Y165.484515 Z-0.125000
G01 X39.837072 Y167.446757 Z-0.125000
G01 X42.349597 Y169.419399 Z-0.125000
G01 X45.157105 Y171.285189 Z-0.125000
G01 X48.247064 Y173.038331 Z-0.125000
G01 X51.423544 Y174.590172 Z-0.125000
G01 X55.052023 Y176.124070 Z-0.125000
G01 X58.914962 Y177.543743 Z-0.125000
G01 X63.139372 Y178.898163 Z-0.125000
G01 X72.496026 Y181.345606 Z-0.125000
G01 X83.016455 Y183.437928 Z-0.125000
G01 X89.952816 Y184.533807 Z-0.125000
G01 X97.397862 Y185.515035 Z-0.125000
G01 X105.159201 Y186.357061 Z-0.125000
G01 X113.052879 Y187.037084 Z-0.125000
G01 X120.985853 Y187.546877 Z-0.125000
G01 X128.699371 Y187.873783 Z-0.125000
G01 X136.384929 Y188.022914 Z-0.125000
G01 X143.196239 Y187.975051 Z-0.125000
G01 X148.883497 Y187.761390 Z-0.125000
G01 X154.188357 Y187.370681 Z-0.125000
G01 X158.929380 Y186.808889 Z-0.125000
G01 X163.113897 Y186.080150 Z-0.125000
G01 X166.753884 Y185.190729 Z-0.125000
G01 X169.929128 Y184.121744 Z-0.125000
G01 X172.770136 Y182.803723 Z-0.125000
G01 X175.029747 Y181.363507 Z-0.125000
G01 X176.347171 Y180.260425 Z-0.125000
G01 X177.470072 Y179.064897 Z-0.125000
G01 X178.396659 Y177.776498 Z-0.125000
G01 X179.067050 Y176.524412 Z-0.125000
G01 X179.613582 Y175.057771 Z-0.125000
G01 X179.935373 Y173.642999 Z-0.125000
G01 X180.095587 Y171.983709 Z-0.125000
G01 X180.052752 Y170.277110 Z-0.125000
G01 X179.814925 Y168.487612 Z-0.125000
G01 X179.383172 Y166.622334 Z-0.125000
G01 X177.942742 Y162.692010 Z-0.125000
G01 X175.740755 Y158.542017 Z-0.125000
G01 X172.904777 Y154.384394 Z-0.125000
G01 X169.443544 Y150.197747 Z-0.125000
G01 X165.408244 Y146.057599 Z-0.125000
G01 X160.888127 Y142.057675 Z-0.125000
G01 X155.826848 Y138.162642 Z-0.125000
G01 X150.548925 Y134.619193 Z-0.125000
G01 X144.998907 Y131.370256 Z-0.125000
G01 X139.235953 Y128.449461 Z-0.125000
G01 X133.240628 Y125.856808 Z-0.125000
G01 X125.737063 Y123.186498 Z-0.125000
G01 X117.937535 Y121.015156 Z-0.125000
G01 X110.094875 Y119.410890 Z-0.125000
G01 X102.141698 Y118.363940 Z-0.125000
G01 X94.489086 Y117.919230 Z-0.125000
G01 X86.923294 Y118.048159 Z-0.125000
G01 X79.305845 Y118.759764 Z-0.125000
G01 X71.950602 Y120.024211 Z-0.125000
G01 X64.649189 Y121.897502 Z-0.125000
G01 X61.249459 Y123.008256 Z-0.125000
G01 X57.841374 Y124.296570 Z-0.125000
G01 X54.589625 Y125.711597 Z-0.125000
G01 X51.562021 Y127.219453 Z-0.125000
G01 X48.701322 Y128.840085 Z-0.125000
G01 X46.029734 Y130.554783 Z-0.125000
G01 X43.553564 Y132.353061 Z-0.125000
G01 X41.151811 Y134.336443 Z-0.125000
G01 X38.983793 Y136.389127 Z-0.125000
G01 X37.057140 Y138.498669 Z-0.125000
G01 X35.379310 Y140.652493 Z-0.125000
G01 X33.886584 Y142.960224 Z-0.125000
G01 X32.743992 Y145.165876 Z-0.125000
G01 X31.873282 Y147.377581 Z-0.125000
G01 X31.194069 Y150.036894 Z-0.125000
G01 X30.921719 Y152.651327 Z-0.125000
G01 X31.045448 Y155.218323 Z-0.125000
G01 X31.557756 Y157.725819 Z-0.125000
G01 X32.451312 Y160.161584 Z-0.125000
G01 X33.718699 Y162.513470 Z-0.125000
G01 X35.352459 Y164.769287 Z-0.125000
G01 X37.345217 Y166.916932 Z-0.125000
G01 X39.689517 Y168.944171 Z-0.125000
G01 X42.226294 Y170.744794 Z-0.125000
G01 X45.183061 Y172.500535 Z-0.125000
G01 X48.570560 Y174.194988 Z-0.125000
G01 X52.253978 Y175.758337 Z-0.125000
G01 X56.367658 Y177.246417 Z-0.125000
G01 X60.749980 Y178.599856 Z-0.125000
G01 X65.375243 Y179.822108 Z-0.125000
G01 X71.505465 Y181.179937 Z-0.125000
G01 X78.038287 Y182.363957 Z-0.125000
G01 X85.237962 Y183.430342 Z-0.125000
G01 X92.947005 Y184.347680 Z-0.125000
G01 X101.097178 Y185.107447 Z-0.125000
G01 X109.597868 Y185.704444 Z-0.125000
G01 X118.654212 Y186.149453 Z-0.125000
G01 X127.651441 Y186.409954 Z-0.125000
G01 X135.600569 Y186.464850 Z-0.125000
G01 X142.828588 Y186.334386 Z-0.125000
G01 X149.464980 Y186.018605 Z-0.125000
G01 X155.334828 Y185.530549 Z-0.125000
G01 X160.562799 Y184.865315 Z-0.125000
G01 X165.077759 Y184.029469 Z-0.125000
G01 X169.098993 Y182.983969 Z-0.125000
G01 X172.466033 Y181.776550 Z-0.125000
G01 X174.736257 Y180.697805 Z-0.125000
G01 X176.709026 Y179.486550 Z-0.125000
G01 X178.376798 Y178.137927 Z-0.125000
G01 X179.747072 Y176.627172 Z-0.125000
G01 X180.718369 Y175.108021 Z-0.125000
G01 X181.459000 Y173.333015 Z-0.125000
G01 X181.883124 Y171.421535 Z-0.125000
G01 X181.990956 Y169.381423 Z-0.125000
G01 X181.755601 Y167.061759 Z-0.125000
G01 X181.208642 Y164.780156 Z-0.125000
G01 X180.345902 Y162.394087 Z-0.125000
G01 X179.167551 Y159.911354 Z-0.125000
G01 X177.698309 Y157.379734 Z-0.125000
G01 X175.909195 Y154.758865 Z-0.125000
G01 X173.816830 Y152.088513 Z-0.125000
G01 X171.533820 Y149.501741 Z-0.125000
G01 X168.985407 Y146.905891 Z-0.125000
G01 X166.305423 Y144.430872 Z-0.125000
G01 X163.394132 Y141.979508 Z-0.125000
G01 X160.404589 Y139.675912 Z-0.125000
G01 X153.910509 Y135.281357 Z-0.125000
G01 X146.980414 Y131.355424 Z-0.125000
G01 X139.452427 Y127.814787 Z-0.125000
G01 X131.578227 Y124.792767 Z-0.125000
G01 X123.473872 Y122.337226 Z-0.125000
G01 X115.411499 Y120.518959 Z-0.125000
G01 X107.307911 Y119.311327 Z-0.125000
G01 X99.047051 Y118.703930 Z-0.125000
G01 X90.815897 Y118.703803 Z-0.125000
G01 X82.562623 Y119.319425 Z-0.125000
G01 X74.720475 Y120.517041 Z-0.125000
G01 X70.925986 Y121.333452 Z-0.125000
G01 X67.233830 Y122.293326 Z-0.125000
G01 X63.600620 Y123.412519 Z-0.125000
G01 X60.133889 Y124.653949 Z-0.125000
G01 X56.811303 Y126.016936 Z-0.125000
G01 X53.488291 Y127.568479 Z-0.125000
G01 X50.200952 Y129.314205 Z-0.125000
G01 X47.124760 Y131.170405 Z-0.125000
G01 X44.272457 Y133.124293 Z-0.125000
G01 X41.656916 Y135.163041 Z-0.125000
G01 X39.290837 Y137.273818 Z-0.125000
G01 X37.187092 Y139.443881 Z-0.125000
G01 X35.391500 Y141.616545 Z-0.125000
G01 X33.787831 Y143.947248 Z-0.125000
G01 X32.492782 Y146.292187 Z-0.125000
G01 X31.506355 Y148.639001 Z-0.125000
G01 X30.828549 Y150.975159 Z-0.125000
G01 X30.459278 Y153.288217 Z-0.125000
G01 X30.398585 Y155.565729 Z-0.125000
G01 X30.646428 Y157.795207 Z-0.125000
G01 X31.202764 Y159.964247 Z-0.125000
G01 X32.067550 Y162.060363 Z-0.125000
G01 X33.310088 Y164.173186 Z-0.125000
G01 X34.903102 Y166.200255 Z-0.125000
G01 X36.821615 Y168.118085 Z-0.125000
G01 X39.051604 Y169.925527 Z-0.125000
G01 X41.578834 Y171.621471 Z-0.125000
G01 X44.536965 Y173.280931 Z-0.125000
G01 X47.629439 Y174.744589 Z-0.125000
G01 X51.149830 Y176.157656 Z-0.125000
G01 X54.934048 Y177.442518 Z-0.125000
G01 X58.922378 Y178.586559 Z-0.125000
G01 X63.292127 Y179.645954 Z-0.125000
G01 X68.024072 Y180.614224 Z-0.125000
G01 X78.533632 Y182.263157 Z-0.125000
G01 X90.317015 Y183.517161 Z-0.125000
G01 X98.161934 Y184.097621 Z-0.125000
G01 X106.845768 Y184.558783 Z-0.125000
G01 X124.055013 Y184.993137 Z-0.125000
G01 X132.410109 Y184.962492 Z-0.125000
G01 X140.249786 Y184.768608 Z-0.125000
G01 X147.657325 Y184.409268 Z-0.125000
G01 X154.006833 Y183.911579 Z-0.125000
G01 X159.168358 Y183.322637 Z-0.125000
G01 X163.908486 Y182.576168 Z-0.125000
G01 X168.058309 Y181.691947 Z-0.125000
G01 X171.762526 Y180.633404 Z-0.125000
G01 X174.888287 Y179.434936 Z-0.125000
G01 X177.433290 Y178.121091 Z-0.125000
G01 X179.698697 Y176.510944 Z-0.125000
G01 X181.379767 Y174.815810 Z-0.125000
G01 X182.486983 Y173.203318 Z-0.125000
G01 X183.218492 Y171.598200 Z-0.125000
G01 X183.693805 Y169.734328 Z-0.125000
G01 X183.837566 Y167.899864 Z-0.125000
G01 X183.696149 Y165.957228 Z-0.125000
G01 X183.240058 Y163.808475 Z-0.125000
G01 X182.476242 Y161.568513 Z-0.125000
G01 X181.470124 Y159.362392 Z-0.125000
G01 X180.113530 Y156.959531 Z-0.125000
G01 X178.552696 Y154.626526 Z-0.125000
G01 X176.617859 Y152.118689 Z-0.125000
G01 X174.516032 Y149.713654 Z-0.125000
G01 X172.156048 Y147.293446 Z-0.125000
G01 X169.541104 Y144.871022 Z-0.125000
G01 X166.691699 Y142.473830 Z-0.125000
G01 X163.752023 Y140.221209 Z-0.125000
G01 X157.642260 Y136.106889 Z-0.125000
G01 X150.993380 Y132.318964 Z-0.125000
G01 X143.911254 Y128.928354 Z-0.125000
G01 X136.658856 Y126.054656 Z-0.125000
G01 X129.393672 Y123.730474 Z-0.125000
G01 X121.807038 Y121.862297 Z-0.125000
G01 X114.004015 Y120.484947 Z-0.125000
G01 X106.073044 Y119.616453 Z-0.125000
G01 X98.264864 Y119.276207 Z-0.125000
G01 X90.662333 Y119.448993 Z-0.125000
G01 X83.276829 Y120.126033 Z-0.125000
G01 X75.931687 Y121.339632 Z-0.125000
