%
(Header)
(Generated by gcodetools from Inkscape.)
(Using default header. To add your own header create file "header" in the output dir.)
M3
(Header end.)
G21 (All units in mm)

(Start cutting path id: path14580)
(Change tool to Default tool)

G00 Z3.000000
G00 X77.963011 Y107.458152

G00 Z4.875000 (Fast pre-penetrate)
G01 Z-0.125000 F400.0(Penetrate)
G01 X79.380454 Y87.519900 Z-0.125000 F800.000000
G01 X74.002672 Y74.376872 Z-0.125000
G00 Z3.000000

(End cutting path id: path14580)


(Start cutting path id: path14582)
(Change tool to Default tool)

G00 Z3.000000
G00 X78.631208 Y107.502293

G00 Z4.875000 (Fast pre-penetrate)
G01 Z-0.125000 F400.0(Penetrate)
G01 X79.935186 Y87.677507 Z-0.125000 F800.000000
G01 X74.695408 Y74.396475 Z-0.125000
G00 Z3.000000

(End cutting path id: path14582)


(Start cutting path id: path14584)
(Change tool to Default tool)

G00 Z3.000000
G00 X79.299407 Y107.546433

G00 Z4.875000 (Fast pre-penetrate)
G01 Z-0.125000 F400.0(Penetrate)
G01 X80.489919 Y87.835113 Z-0.125000 F800.000000
G01 X75.388142 Y74.416077 Z-0.125000
G00 Z3.000000

(End cutting path id: path14584)


(Start cutting path id: path14586)
(Change tool to Default tool)

G00 Z3.000000
G00 X79.967606 Y107.590574

G00 Z4.875000 (Fast pre-penetrate)
G01 Z-0.125000 F400.0(Penetrate)
G01 X81.044652 Y87.992718 Z-0.125000 F800.000000
G01 X76.080879 Y74.435683 Z-0.125000
G00 Z3.000000

(End cutting path id: path14586)


(Start cutting path id: path14588)
(Change tool to Default tool)

G00 Z3.000000
G00 X80.635805 Y107.634714

G00 Z4.875000 (Fast pre-penetrate)
G01 Z-0.125000 F400.0(Penetrate)
G01 X81.599384 Y88.150324 Z-0.125000 F800.000000
G01 X76.773613 Y74.455286 Z-0.125000
G00 Z3.000000

(End cutting path id: path14588)


(Start cutting path id: path14590)
(Change tool to Default tool)

G00 Z3.000000
G00 X81.304004 Y107.678854

G00 Z4.875000 (Fast pre-penetrate)
G01 Z-0.125000 F400.0(Penetrate)
G01 X82.154117 Y88.307931 Z-0.125000 F800.000000
G01 X77.466349 Y74.474889 Z-0.125000
G00 Z3.000000

(End cutting path id: path14590)


(Start cutting path id: path14592)
(Change tool to Default tool)

G00 Z3.000000
G00 X81.972200 Y107.722995

G00 Z4.875000 (Fast pre-penetrate)
G01 Z-0.125000 F400.0(Penetrate)
G01 X82.708850 Y88.465535 Z-0.125000 F800.000000
G01 X78.159086 Y74.494492 Z-0.125000
G00 Z3.000000

(End cutting path id: path14592)


(Start cutting path id: path14594)
(Change tool to Default tool)

G00 Z3.000000
G00 X82.640399 Y107.767135

G00 Z4.875000 (Fast pre-penetrate)
G01 Z-0.125000 F400.0(Penetrate)
G01 X83.263582 Y88.623142 Z-0.125000 F800.000000
G01 X78.851820 Y74.514095 Z-0.125000
G00 Z3.000000

(End cutting path id: path14594)


(Start cutting path id: path14596)
(Change tool to Default tool)

G00 Z3.000000
G00 X83.308598 Y107.811275

G00 Z4.875000 (Fast pre-penetrate)
G01 Z-0.125000 F400.0(Penetrate)
G01 X83.818315 Y88.780749 Z-0.125000 F800.000000
G01 X79.544556 Y74.533698 Z-0.125000
G00 Z3.000000

(End cutting path id: path14596)


(Start cutting path id: path14598)
(Change tool to Default tool)

G00 Z3.000000
G00 X83.976798 Y107.855416

G00 Z4.875000 (Fast pre-penetrate)
G01 Z-0.125000 F400.0(Penetrate)
G01 X84.373048 Y88.938356 Z-0.125000 F800.000000
G01 X80.237290 Y74.553303 Z-0.125000
G00 Z3.000000

(End cutting path id: path14598)


(Start cutting path id: path14600)
(Change tool to Default tool)

G00 Z3.000000
G00 X84.644997 Y107.899556

G00 Z4.875000 (Fast pre-penetrate)
G01 Z-0.125000 F400.0(Penetrate)
G01 X84.927780 Y89.095960 Z-0.125000 F800.000000
G01 X80.930026 Y74.572906 Z-0.125000
G00 Z3.000000

(End cutting path id: path14600)


(Start cutting path id: path14602)
(Change tool to Default tool)

G00 Z3.000000
G00 X85.313193 Y107.943697

G00 Z4.875000 (Fast pre-penetrate)
G01 Z-0.125000 F400.0(Penetrate)
G01 X85.482513 Y89.253567 Z-0.125000 F800.000000
G01 X81.622763 Y74.592509 Z-0.125000
G00 Z3.000000

(End cutting path id: path14602)


(Start cutting path id: path14604)
(Change tool to Default tool)

G00 Z3.000000
G00 X85.981392 Y107.987837

G00 Z4.875000 (Fast pre-penetrate)
G01 Z-0.125000 F400.0(Penetrate)
G01 X86.037246 Y89.411173 Z-0.125000 F800.000000
G01 X82.315497 Y74.612112 Z-0.125000
G00 Z3.000000

(End cutting path id: path14604)


(Start cutting path id: path14606)
(Change tool to Default tool)

G00 Z3.000000
G00 X86.649591 Y108.031977

G00 Z4.875000 (Fast pre-penetrate)
G01 Z-0.125000 F400.0(Penetrate)
G01 X86.591978 Y89.568780 Z-0.125000 F800.000000
G01 X83.008233 Y74.631715 Z-0.125000
G00 Z3.000000

(End cutting path id: path14606)


(Start cutting path id: path14608)
(Change tool to Default tool)

G00 Z3.000000
G00 X87.317790 Y108.076118

G00 Z4.875000 (Fast pre-penetrate)
G01 Z-0.125000 F400.0(Penetrate)
G01 X87.146714 Y89.726384 Z-0.125000 F800.000000
G01 X83.700967 Y74.651318 Z-0.125000
G00 Z3.000000

(End cutting path id: path14608)


(Start cutting path id: path14610)
(Change tool to Default tool)

G00 Z3.000000
G00 X87.985987 Y108.120258

G00 Z4.875000 (Fast pre-penetrate)
G01 Z-0.125000 F400.0(Penetrate)
G01 X87.701446 Y89.883991 Z-0.125000 F800.000000
G01 X84.393704 Y74.670924 Z-0.125000
G00 Z3.000000

(End cutting path id: path14610)


(Start cutting path id: path14612)
(Change tool to Default tool)

G00 Z3.000000
G00 X88.654186 Y108.164398

G00 Z4.875000 (Fast pre-penetrate)
G01 Z-0.125000 F400.0(Penetrate)
G01 X88.256179 Y90.041598 Z-0.125000 F800.000000
G01 X85.086440 Y74.690527 Z-0.125000
G00 Z3.000000

(End cutting path id: path14612)


(Start cutting path id: path14614)
(Change tool to Default tool)

G00 Z3.000000
G00 X89.322385 Y108.208539

G00 Z4.875000 (Fast pre-penetrate)
G01 Z-0.125000 F400.0(Penetrate)
G01 X88.810911 Y90.199202 Z-0.125000 F800.000000
G01 X85.779174 Y74.710130 Z-0.125000
G00 Z3.000000

(End cutting path id: path14614)


(Start cutting path id: path14616)
(Change tool to Default tool)

G00 Z3.000000
G00 X89.990584 Y108.252679

G00 Z4.875000 (Fast pre-penetrate)
G01 Z-0.125000 F400.0(Penetrate)
G01 X89.365644 Y90.356809 Z-0.125000 F800.000000
G01 X86.471910 Y74.729733 Z-0.125000
G00 Z3.000000

(End cutting path id: path14616)


(Start cutting path id: path14618)
(Change tool to Default tool)

G00 Z3.000000
G00 X90.658783 Y108.296820

G00 Z4.875000 (Fast pre-penetrate)
G01 Z-0.125000 F400.0(Penetrate)
G01 X89.920377 Y90.514416 Z-0.125000 F800.000000
G01 X87.164644 Y74.749336 Z-0.125000
G00 Z3.000000

(End cutting path id: path14618)


(Start cutting path id: path14620)
(Change tool to Default tool)

G00 Z3.000000
G00 X91.326979 Y108.340960

G00 Z4.875000 (Fast pre-penetrate)
G01 Z-0.125000 F400.0(Penetrate)
G01 X90.475109 Y90.672023 Z-0.125000 F800.000000
G01 X87.857381 Y74.768939 Z-0.125000
G00 Z3.000000

(End cutting path id: path14620)


(Start cutting path id: path14622)
(Change tool to Default tool)

G00 Z3.000000
G00 X91.995178 Y108.385100

G00 Z4.875000 (Fast pre-penetrate)
G01 Z-0.125000 F400.0(Penetrate)
G01 X91.029842 Y90.829627 Z-0.125000 F800.000000
G01 X88.550117 Y74.788544 Z-0.125000
G00 Z3.000000

(End cutting path id: path14622)


(Start cutting path id: path14624)
(Change tool to Default tool)

G00 Z3.000000
G00 X92.663378 Y108.429241

G00 Z4.875000 (Fast pre-penetrate)
G01 Z-0.125000 F400.0(Penetrate)
G01 X91.584575 Y90.987234 Z-0.125000 F800.000000
G01 X89.242851 Y74.808147 Z-0.125000
G00 Z3.000000

(End cutting path id: path14624)


(Start cutting path id: path14626)
(Change tool to Default tool)

G00 Z3.000000
G00 X93.331577 Y108.473381

G00 Z4.875000 (Fast pre-penetrate)
G01 Z-0.125000 F400.0(Penetrate)
G01 X92.139307 Y91.144840 Z-0.125000 F800.000000
G01 X89.935588 Y74.827750 Z-0.125000
G00 Z3.000000

(End cutting path id: path14626)


(Start cutting path id: path14628)
(Change tool to Default tool)

G00 Z3.000000
G00 X93.999776 Y108.517522

G00 Z4.875000 (Fast pre-penetrate)
G01 Z-0.125000 F400.0(Penetrate)
G01 X92.694040 Y91.302445 Z-0.125000 F800.000000
G01 X90.628322 Y74.847353 Z-0.125000
G00 Z3.000000

(End cutting path id: path14628)


(Start cutting path id: path14630)
(Change tool to Default tool)

G00 Z3.000000
G00 X94.667972 Y108.561662

G00 Z4.875000 (Fast pre-penetrate)
G01 Z-0.125000 F400.0(Penetrate)
G01 X93.248773 Y91.460051 Z-0.125000 F800.000000
G01 X91.321058 Y74.866956 Z-0.125000
G00 Z3.000000

(End cutting path id: path14630)


(Start cutting path id: path14632)
(Change tool to Default tool)

G00 Z3.000000
G00 X95.336171 Y108.605802

G00 Z4.875000 (Fast pre-penetrate)
G01 Z-0.125000 F400.0(Penetrate)
G01 X93.803505 Y91.617658 Z-0.125000 F800.000000
G01 X92.013792 Y74.886562 Z-0.125000
G00 Z3.000000

(End cutting path id: path14632)


(Start cutting path id: path14634)
(Change tool to Default tool)

G00 Z3.000000
G00 X95.650422 Y109.003891

G00 Z4.875000 (Fast pre-penetrate)
G01 Z-0.125000 F400.0(Penetrate)
G01 X94.571426 Y91.562075 Z-0.125000 F800.000000
G01 X92.736156 Y74.876537 Z-0.125000
G00 Z3.000000

(End cutting path id: path14634)


(Start cutting path id: path14636)
(Change tool to Default tool)

G00 Z3.000000
G00 X95.964672 Y109.401978

G00 Z4.875000 (Fast pre-penetrate)
G01 Z-0.125000 F400.0(Penetrate)
G01 X95.339349 Y91.506494 Z-0.125000 F800.000000
G01 X93.458521 Y74.866512 Z-0.125000
G00 Z3.000000

(End cutting path id: path14636)


(Start cutting path id: path14638)
(Change tool to Default tool)

G00 Z3.000000
G00 X96.278923 Y109.800066

G00 Z4.875000 (Fast pre-penetrate)
G01 Z-0.125000 F400.0(Penetrate)
G01 X96.107269 Y91.450910 Z-0.125000 F800.000000
G01 X94.180885 Y74.856486 Z-0.125000
G00 Z3.000000

(End cutting path id: path14638)


(Start cutting path id: path14640)
(Change tool to Default tool)

G00 Z3.000000
G00 X96.593173 Y110.198155

G00 Z4.875000 (Fast pre-penetrate)
G01 Z-0.125000 F400.0(Penetrate)
G01 X96.875190 Y91.395329 Z-0.125000 F800.000000
G01 X94.903247 Y74.846461 Z-0.125000
G00 Z3.000000

(End cutting path id: path14640)


(Start cutting path id: path14642)
(Change tool to Default tool)

G00 Z3.000000
G00 X96.907424 Y110.596242

G00 Z4.875000 (Fast pre-penetrate)
G01 Z-0.125000 F400.0(Penetrate)
G01 X97.643113 Y91.339745 Z-0.125000 F800.000000
G01 X95.625612 Y74.836436 Z-0.125000
G00 Z3.000000

(End cutting path id: path14642)


(Start cutting path id: path14644)
(Change tool to Default tool)

G00 Z3.000000
G00 X97.221677 Y110.994331

G00 Z4.875000 (Fast pre-penetrate)
G01 Z-0.125000 F400.0(Penetrate)
G01 X98.411033 Y91.284162 Z-0.125000 F800.000000
G01 X96.347976 Y74.826411 Z-0.125000
G00 Z3.000000

(End cutting path id: path14644)


(Start cutting path id: path14646)
(Change tool to Default tool)

G00 Z3.000000
G00 X97.535927 Y111.392420

G00 Z4.875000 (Fast pre-penetrate)
G01 Z-0.125000 F400.0(Penetrate)
G01 X99.178954 Y91.228581 Z-0.125000 F800.000000
G01 X97.070341 Y74.816386 Z-0.125000
G00 Z3.000000

(End cutting path id: path14646)


(Start cutting path id: path14648)
(Change tool to Default tool)

G00 Z3.000000
G00 X97.850178 Y111.790506

G00 Z4.875000 (Fast pre-penetrate)
G01 Z-0.125000 F400.0(Penetrate)
G01 X99.946877 Y91.172997 Z-0.125000 F800.000000
G01 X97.792703 Y74.806361 Z-0.125000
G00 Z3.000000

(End cutting path id: path14648)


(Start cutting path id: path14650)
(Change tool to Default tool)

G00 Z3.000000
G00 X98.164429 Y112.188595

G00 Z4.875000 (Fast pre-penetrate)
G01 Z-0.125000 F400.0(Penetrate)
G01 X100.714797 Y91.117416 Z-0.125000 F800.000000
G01 X98.515067 Y74.796336 Z-0.125000
G00 Z3.000000

(End cutting path id: path14650)


(Start cutting path id: path14652)
(Change tool to Default tool)

G00 Z3.000000
G00 X98.478679 Y112.586684

G00 Z4.875000 (Fast pre-penetrate)
G01 Z-0.125000 F400.0(Penetrate)
G01 X101.482717 Y91.061833 Z-0.125000 F800.000000
G01 X99.237432 Y74.786311 Z-0.125000
G00 Z3.000000

(End cutting path id: path14652)


(Start cutting path id: path14654)
(Change tool to Default tool)

G00 Z3.000000
G00 X98.792930 Y112.984773

G00 Z4.875000 (Fast pre-penetrate)
G01 Z-0.125000 F400.0(Penetrate)
G01 X102.250640 Y91.006252 Z-0.125000 F800.000000
G01 X99.959796 Y74.776286 Z-0.125000
G00 Z3.000000

(End cutting path id: path14654)


(Start cutting path id: path14656)
(Change tool to Default tool)

G00 Z3.000000
G00 X99.107180 Y113.382859

G00 Z4.875000 (Fast pre-penetrate)
G01 Z-0.125000 F400.0(Penetrate)
G01 X103.018561 Y90.950668 Z-0.125000 F800.000000
G01 X100.682158 Y74.766261 Z-0.125000
G00 Z3.000000

(End cutting path id: path14656)


(Start cutting path id: path14658)
(Change tool to Default tool)

G00 Z3.000000
G00 X99.421431 Y113.780948

G00 Z4.875000 (Fast pre-penetrate)
G01 Z-0.125000 F400.0(Penetrate)
G01 X103.786481 Y90.895087 Z-0.125000 F800.000000
G01 X101.404523 Y74.756236 Z-0.125000
G00 Z3.000000

(End cutting path id: path14658)


(Start cutting path id: path14660)
(Change tool to Default tool)

G00 Z3.000000
G00 X99.735681 Y114.179037

G00 Z4.875000 (Fast pre-penetrate)
G01 Z-0.125000 F400.0(Penetrate)
G01 X104.554404 Y90.839504 Z-0.125000 F800.000000
G01 X102.126887 Y74.746211 Z-0.125000
G00 Z3.000000

(End cutting path id: path14660)


(Start cutting path id: path14662)
(Change tool to Default tool)

G00 Z3.000000
G00 X100.049932 Y114.577123

G00 Z4.875000 (Fast pre-penetrate)
G01 Z-0.125000 F400.0(Penetrate)
G01 X105.322325 Y90.783920 Z-0.125000 F800.000000
G01 X102.849249 Y74.736186 Z-0.125000
G00 Z3.000000

(End cutting path id: path14662)


(Start cutting path id: path14664)
(Change tool to Default tool)

G00 Z3.000000
G00 X100.364182 Y114.975212

G00 Z4.875000 (Fast pre-penetrate)
G01 Z-0.125000 F400.0(Penetrate)
G01 X106.090248 Y90.728339 Z-0.125000 F800.000000
G01 X103.571613 Y74.726161 Z-0.125000
G00 Z3.000000

(End cutting path id: path14664)


(Start cutting path id: path14666)
(Change tool to Default tool)

G00 Z3.000000
G00 X100.678433 Y115.373301

G00 Z4.875000 (Fast pre-penetrate)
G01 Z-0.125000 F400.0(Penetrate)
G01 X106.858168 Y90.672755 Z-0.125000 F800.000000
G01 X104.293978 Y74.716136 Z-0.125000
G00 Z3.000000

(End cutting path id: path14666)


(Start cutting path id: path14668)
(Change tool to Default tool)

G00 Z3.000000
G00 X100.992683 Y115.771387

G00 Z4.875000 (Fast pre-penetrate)
G01 Z-0.125000 F400.0(Penetrate)
G01 X107.626089 Y90.617175 Z-0.125000 F800.000000
G01 X105.016342 Y74.706111 Z-0.125000
G00 Z3.000000

(End cutting path id: path14668)


(Start cutting path id: path14670)
(Change tool to Default tool)

G00 Z3.000000
G00 X101.306934 Y116.169476

G00 Z4.875000 (Fast pre-penetrate)
G01 Z-0.125000 F400.0(Penetrate)
G01 X108.394012 Y90.561591 Z-0.125000 F800.000000
G01 X105.738704 Y74.696086 Z-0.125000
G00 Z3.000000

(End cutting path id: path14670)


(Start cutting path id: path14672)
(Change tool to Default tool)

G00 Z3.000000
G00 X101.621184 Y116.567565

G00 Z4.875000 (Fast pre-penetrate)
G01 Z-0.125000 F400.0(Penetrate)
G01 X109.161932 Y90.506010 Z-0.125000 F800.000000
G01 X106.461069 Y74.686061 Z-0.125000
G00 Z3.000000

(End cutting path id: path14672)


(Start cutting path id: path14674)
(Change tool to Default tool)

G00 Z3.000000
G00 X101.935437 Y116.965654

G00 Z4.875000 (Fast pre-penetrate)
G01 Z-0.125000 F400.0(Penetrate)
G01 X109.929852 Y90.450426 Z-0.125000 F800.000000
G01 X107.183433 Y74.676036 Z-0.125000
G00 Z3.000000

(End cutting path id: path14674)


(Start cutting path id: path14676)
(Change tool to Default tool)

G00 Z3.000000
G00 X102.249688 Y117.363740

G00 Z4.875000 (Fast pre-penetrate)
G01 Z-0.125000 F400.0(Penetrate)
G01 X110.697776 Y90.394843 Z-0.125000 F800.000000
G01 X107.905798 Y74.666011 Z-0.125000
G00 Z3.000000

(End cutting path id: path14676)


(Start cutting path id: path14678)
(Change tool to Default tool)

G00 Z3.000000
G00 X102.563938 Y117.761829

G00 Z4.875000 (Fast pre-penetrate)
G01 Z-0.125000 F400.0(Penetrate)
G01 X111.465696 Y90.339262 Z-0.125000 F800.000000
G01 X108.628160 Y74.655985 Z-0.125000
G00 Z3.000000

(End cutting path id: path14678)


(Start cutting path id: path14680)
(Change tool to Default tool)

G00 Z3.000000
G00 X102.878189 Y118.159918

G00 Z4.875000 (Fast pre-penetrate)
G01 Z-0.125000 F400.0(Penetrate)
G01 X112.233616 Y90.283678 Z-0.125000 F800.000000
G01 X109.350524 Y74.645960 Z-0.125000
G00 Z3.000000

(End cutting path id: path14680)


(Start cutting path id: path14682)
(Change tool to Default tool)

G00 Z3.000000
G00 X103.192440 Y118.558005

G00 Z4.875000 (Fast pre-penetrate)
G01 Z-0.125000 F400.0(Penetrate)
G01 X113.001539 Y90.228097 Z-0.125000 F800.000000
G01 X110.072889 Y74.635938 Z-0.125000
G00 Z3.000000

(End cutting path id: path14682)


(Start cutting path id: path14684)
(Change tool to Default tool)

G00 Z3.000000
G00 X103.506690 Y118.956093

G00 Z4.875000 (Fast pre-penetrate)
G01 Z-0.125000 F400.0(Penetrate)
G01 X113.769460 Y90.172514 Z-0.125000 F800.000000
G01 X110.795251 Y74.625913 Z-0.125000
G00 Z3.000000

(End cutting path id: path14684)



(Footer)
M5
G00 X0.0000 Y0.0000
M2
(Using default footer. To add your own footer create file "footer" in the output dir.)
(end)
%