%
(Header)
(Generated by gcodetools from Inkscape.)
(Using default header. To add your own header create file "header" in the output dir.)
M3
(Header end.)
G21 (All units in mm)

(Start cutting path id: path59840)
(Change tool to Default tool)

G00 Z3.000000
G00 X158.206128 Y73.649574

G00 Z4.875000 (Fast pre-penetrate)
G01 Z-0.125000 F400.0(Penetrate)
G02 X158.211753 Y73.637486 Z-0.125000 I-0.087402 J-0.048026 F800.000000
G02 X158.214780 Y73.626925 Z-0.125000 I-0.057298 J-0.022135
G02 X158.215738 Y73.616100 Z-0.125000 I-0.056468 J-0.010457
G01 X158.214515 Y73.606685 Z-0.125000
G01 X158.210977 Y73.597949 Z-0.125000
G01 X158.204937 Y73.589937 Z-0.125000
G01 X158.197141 Y73.583555 Z-0.125000
G02 X158.185993 Y73.577687 Z-0.125000 I-0.035889 J0.054656
G02 X158.173943 Y73.573761 Z-0.125000 I-0.033937 J0.083712
G02 X158.157963 Y73.570834 Z-0.125000 I-0.030973 J0.124021
G02 X158.141688 Y73.569661 Z-0.125000 I-0.019775 J0.160969
G02 X158.121408 Y73.570040 Z-0.125000 I-0.005439 J0.251977
G02 X158.101178 Y73.571972 Z-0.125000 I0.016453 J0.279146
G02 X158.077199 Y73.575940 Z-0.125000 I0.049161 J0.371511
G02 X158.053468 Y73.581282 Z-0.125000 I0.095035 J0.477570
G02 X158.026481 Y73.588852 Z-0.125000 I0.126242 J0.501953
G02 X157.999878 Y73.597733 Z-0.125000 I0.192119 J0.619769
G02 X157.970659 Y73.608960 Z-0.125000 I0.229066 J0.639776
G02 X157.941941 Y73.621419 Z-0.125000 I0.307774 J0.748778
G02 X157.911356 Y73.636202 Z-0.125000 I0.327297 J0.716198
G02 X157.881374 Y73.652180 Z-0.125000 I0.413533 J0.812067
G02 X157.850383 Y73.670306 Z-0.125000 I0.417284 J0.749006
G02 X157.820117 Y73.689631 Z-0.125000 I0.524584 J0.854960
G02 X157.789716 Y73.710782 Z-0.125000 I0.471394 J0.709946
G02 X157.760204 Y73.733161 Z-0.125000 I0.578210 J0.793185
G02 X157.731447 Y73.756931 Z-0.125000 I0.499911 J0.634065
G02 X157.703761 Y73.781945 Z-0.125000 I0.571825 J0.660735
G02 X157.677673 Y73.807837 Z-0.125000 I0.493904 J0.523734
G02 X157.652904 Y73.834983 Z-0.125000 I0.548126 J0.525013
G02 X157.630469 Y73.862402 Z-0.125000 I0.450442 J0.391451
G02 X157.609677 Y73.891066 Z-0.125000 I0.482958 J0.372194
G02 X157.591824 Y73.919361 Z-0.125000 I0.387901 J0.264527
G02 X157.576041 Y73.948832 Z-0.125000 I0.412756 J0.240014
G02 X157.563585 Y73.977299 Z-0.125000 I0.315438 J0.154976
G02 X157.553723 Y74.006742 Z-0.125000 I0.326388 J0.125707
G02 X157.547419 Y74.034693 Z-0.125000 I0.241667 J0.069186
G02 X157.544284 Y74.063143 Z-0.125000 I0.250852 J0.042044
G02 X157.544720 Y74.089946 Z-0.125000 I0.192000 J0.010276
G02 X157.548840 Y74.116380 Z-0.125000 I0.203368 J-0.018158
G02 X157.556600 Y74.141420 Z-0.125000 I0.159395 J-0.035673
G02 X157.568126 Y74.164934 Z-0.125000 I0.165863 J-0.066723
G02 X157.583879 Y74.187484 Z-0.125000 I0.147345 J-0.086149
G02 X157.602852 Y74.207426 Z-0.125000 I0.154344 J-0.127852
G02 X157.627006 Y74.226555 Z-0.125000 I0.145206 J-0.158531
G02 X157.653479 Y74.242431 Z-0.125000 I0.149675 J-0.219569
G02 X157.686069 Y74.257144 Z-0.125000 I0.142887 J-0.273064
G02 X157.720065 Y74.268408 Z-0.125000 I0.139462 J-0.363982
G02 X157.760821 Y74.277887 Z-0.125000 I0.124556 J-0.443173
G02 X157.802281 Y74.284013 Z-0.125000 I0.104988 J-0.567154
G02 X157.850708 Y74.287624 Z-0.125000 I0.074405 J-0.671434
G02 X157.899314 Y74.288063 Z-0.125000 I0.031203 J-0.762220
G02 X157.954713 Y74.285242 Z-0.125000 I-0.022549 J-0.988152
G02 X158.009925 Y74.279588 Z-0.125000 I-0.091015 J-1.161065
G02 X158.071450 Y74.270267 Z-0.125000 I-0.159688 J-1.261777
G02 X158.132523 Y74.258205 Z-0.125000 I-0.259286 J-1.473436
G02 X158.199190 Y74.242134 Z-0.125000 I-0.354036 J-1.614993
G02 X158.265201 Y74.223489 Z-0.125000 I-0.480562 J-1.827563
G02 X158.335887 Y74.200684 Z-0.125000 I-0.576165 J-1.906854
G02 X158.405752 Y74.175428 Z-0.125000 I-0.731926 J-2.133959
G02 X158.479212 Y74.146064 Z-0.125000 I-0.830403 J-2.183951
G02 X158.551702 Y74.114341 Z-0.125000 I-0.994412 J-2.371050
G02 X158.626590 Y74.078730 Z-0.125000 I-1.076239 J-2.359799
G02 X158.700365 Y74.040825 Z-0.125000 I-1.262602 J-2.548161
G02 X158.775251 Y73.999445 Z-0.125000 I-1.287949 J-2.419288
G02 X158.848875 Y73.955817 Z-0.125000 I-1.459033 J-2.546132
G02 X158.922280 Y73.909270 Z-0.125000 I-1.454302 J-2.374566
G02 X158.994245 Y73.860504 Z-0.125000 I-1.605233 J-2.446363
G02 X159.064655 Y73.809538 Z-0.125000 I-1.543457 J-2.206412
G02 X159.133436 Y73.756351 Z-0.125000 I-1.680638 J-2.244495
G02 X159.199317 Y73.701837 Z-0.125000 I-1.520795 J-1.904934
G02 X159.263311 Y73.645061 Z-0.125000 I-1.649655 J-1.923849
G02 X159.323060 Y73.587968 Z-0.125000 I-1.390416 J-1.514900
G02 X159.380462 Y73.528557 Z-0.125000 I-1.474526 J-1.482095
G02 X159.432451 Y73.469914 Z-0.125000 I-1.242644 J-1.154029
G02 X159.481657 Y73.408923 Z-0.125000 I-1.281948 J-1.084580
G02 X159.524577 Y73.349793 Z-0.125000 I-1.047471 J-0.805452
G02 X159.564101 Y73.288366 Z-0.125000 I-1.058845 J-0.724731
G02 X159.596768 Y73.229837 Z-0.125000 I-0.838533 J-0.506389
G02 X159.625248 Y73.169206 Z-0.125000 I-0.833868 J-0.428697
G02 X159.646663 Y73.112330 Z-0.125000 I-0.645564 J-0.275539
G02 X159.662925 Y73.053842 Z-0.125000 I-0.628473 J-0.206241
G02 X159.672248 Y72.999578 Z-0.125000 I-0.487052 J-0.111618
G02 X159.675415 Y72.944705 Z-0.125000 I-0.476009 J-0.054996
G02 X159.671984 Y72.893867 Z-0.125000 I-0.376925 J-0.000097
G02 X159.661660 Y72.844073 Z-0.125000 I-0.367417 J0.050209
G02 X159.644660 Y72.797431 Z-0.125000 I-0.312889 J0.087623
G02 X159.620934 Y72.753856 Z-0.125000 I-0.312299 J0.141793
G02 X159.589672 Y72.712400 Z-0.125000 I-0.290975 J0.186911
G02 X159.552803 Y72.675732 Z-0.125000 I-0.292493 J0.257228
G02 X159.506908 Y72.640777 Z-0.125000 I-0.291585 J0.335240
G02 X159.457050 Y72.611531 Z-0.125000 I-0.289487 J0.436386
G02 X159.396796 Y72.584405 Z-0.125000 I-0.289369 J0.562282
G02 X159.334137 Y72.563148 Z-0.125000 I-0.273957 J0.704578
G02 X159.260314 Y72.544919 Z-0.125000 I-0.258093 J0.886579
G02 X159.185280 Y72.532320 Z-0.125000 I-0.220243 J1.082018
G02 X159.098865 Y72.523725 Z-0.125000 I-0.174378 J1.314492
G02 X159.011980 Y72.520372 Z-0.125000 I-0.103738 J1.560370
G02 X158.914083 Y72.521873 Z-0.125000 I-0.020204 J1.874592
G02 X158.816329 Y72.528338 Z-0.125000 I0.091896 J2.131997
G02 X158.708476 Y72.540447 Z-0.125000 I0.211370 J2.368952
G02 X158.601194 Y72.557112 Z-0.125000 I0.366261 J2.711537
G02 X158.485109 Y72.579891 Z-0.125000 I0.516390 J2.938711
G02 X158.369924 Y72.607005 Z-0.125000 I0.715489 J3.297724
G02 X158.247522 Y72.640457 Z-0.125000 I0.865110 J3.406194
G02 X158.126312 Y72.678080 Z-0.125000 I1.099428 J3.756114
G02 X157.999689 Y72.722028 Z-0.125000 I1.237359 J3.769427
G02 X157.874530 Y72.770042 Z-0.125000 I1.502100 J4.102726
G02 X157.745939 Y72.824101 Z-0.125000 I1.591911 J3.966634
G02 X157.619089 Y72.882177 Z-0.125000 I1.869522 J4.251023
G02 X157.490886 Y72.945786 Z-0.125000 I1.898672 J3.987751
G02 X157.364723 Y73.013385 Z-0.125000 I2.169546 J4.200615
G02 X157.239334 Y73.085763 Z-0.125000 I2.132546 J3.839271
G02 X157.116322 Y73.162141 Z-0.125000 I2.377427 J3.966239
G02 X156.996187 Y73.242312 Z-0.125000 I2.275340 J3.539681
G02 X156.878818 Y73.326500 Z-0.125000 I2.475669 J3.575327
G02 X156.766341 Y73.413283 Z-0.125000 I2.312485 J3.113415
G02 X156.657061 Y73.504112 Z-0.125000 I2.471514 J3.084736
G02 X156.554577 Y73.596133 Z-0.125000 I2.222695 J2.578486
G02 X156.455808 Y73.692252 Z-0.125000 I2.364355 J2.528357
G02 X156.365710 Y73.787937 Z-0.125000 I1.968482 J1.943799
G02 X156.280337 Y73.887743 Z-0.125000 I2.037524 J1.829293
G02 X156.205092 Y73.985409 Z-0.125000 I1.758640 J1.432733
G02 X156.135405 Y74.087070 Z-0.125000 I1.756076 J1.278474
G02 X156.076655 Y74.184973 Z-0.125000 I1.496793 J0.964772
G02 X156.024525 Y74.286508 Z-0.125000 I1.463538 J0.815564
G02 X155.983604 Y74.382863 Z-0.125000 I1.225335 J0.577254
G02 X155.950542 Y74.482119 Z-0.125000 I1.175946 J0.446840
G02 X155.928462 Y74.575175 Z-0.125000 I0.978595 J0.281341
G02 X155.915560 Y74.669841 Z-0.125000 I0.934100 J0.175522
G02 X155.913037 Y74.757978 Z-0.125000 I0.777114 J0.066350
G02 X155.920725 Y74.845700 Z-0.125000 I0.729451 J-0.019726
G02 X155.938358 Y74.927396 Z-0.125000 I0.638351 J-0.095031
G02 X155.966487 Y75.006016 Z-0.125000 I0.610862 J-0.174213
G02 X156.004718 Y75.079708 Z-0.125000 I0.550679 J-0.238926
G02 X156.052556 Y75.147567 Z-0.125000 I0.535444 J-0.326677
G02 X156.111638 Y75.211434 Z-0.125000 I0.511018 J-0.413480
G02 X156.178365 Y75.267384 Z-0.125000 I0.496648 J-0.524540
G02 X156.257897 Y75.319423 Z-0.125000 I0.487355 J-0.658037
G02 X156.342725 Y75.362528 Z-0.125000 I0.463015 J-0.806174
G02 X156.441576 Y75.400936 Z-0.125000 I0.446331 J-1.002307
G02 X156.543572 Y75.430282 Z-0.125000 I0.399174 J-1.195446
G02 X156.660098 Y75.453710 Z-0.125000 I0.353675 J-1.457640
G02 X156.778029 Y75.468439 Z-0.125000 I0.272095 J-1.699014
G02 X156.910438 Y75.476014 Z-0.125000 I0.182434 J-2.028000
G02 X157.043221 Y75.475464 Z-0.125000 I0.056612 J-2.361227
G02 X157.189804 Y75.466648 Z-0.125000 I-0.085132 J-2.638421
G02 X157.335808 Y75.450349 Z-0.125000 I-0.265246 J-3.038262
G02 X157.494145 Y75.425087 Z-0.125000 I-0.470919 J-3.460422
G02 X157.651264 Y75.392931 Z-0.125000 I-0.690862 J-3.775535
G02 X157.818791 Y75.351477 Z-0.125000 I-0.962832 J-4.250388
G02 X157.984641 Y75.303654 Z-0.125000 I-1.219158 J-4.539472
G02 X158.158669 Y75.246618 Z-0.125000 I-1.532552 J-4.970143
G02 X158.330670 Y75.183655 Z-0.125000 I-1.810330 J-5.211793
G02 X158.508401 Y75.111940 Z-0.125000 I-2.150949 J-5.586793
G02 X158.683818 Y75.034678 Z-0.125000 I-2.427020 J-5.748110
G02 X158.862386 Y74.949483 Z-0.125000 I-2.766498 J-6.028344
G02 X159.038383 Y74.859061 Z-0.125000 I-3.018940 J-6.092504
G02 X159.214882 Y74.761857 Z-0.125000 I-3.322325 J-6.241394
G02 X159.388572 Y74.659678 Z-0.125000 I-3.533144 J-6.204600
G02 X159.560107 Y74.552170 Z-0.125000 I-3.758016 J-6.186682
G02 X159.728577 Y74.439886 Z-0.125000 I-3.912488 J-6.052775
G02 X159.892297 Y74.323972 Z-0.125000 I-4.015102 J-5.844629
G02 X160.052655 Y74.203431 Z-0.125000 I-4.112939 J-5.638447
G02 X160.205785 Y74.081175 Z-0.125000 I-4.056205 J-5.237586
G02 X160.355220 Y73.954375 Z-0.125000 I-4.119563 J-5.006395
G02 X160.495072 Y73.827961 Z-0.125000 I-3.827440 J-4.374882
G02 X160.630909 Y73.696958 Z-0.125000 I-4.000629 J-4.284167
G02 X160.754599 Y73.568685 Z-0.125000 I-3.112999 J-3.125566
G02 X160.872870 Y73.435637 Z-0.125000 I-3.209867 J-2.972447
G02 X160.976854 Y73.307695 Z-0.125000 I-2.629136 J-2.243045
G02 X161.074395 Y73.174894 Z-0.125000 I-2.594898 J-2.008137
G02 X161.156543 Y73.049306 Z-0.125000 I-2.114175 J-1.472563
G02 X161.230907 Y72.919055 Z-0.125000 I-2.038423 J-1.250138
G02 X161.289589 Y72.797765 Z-0.125000 I-1.618597 J-0.857940
G02 X161.338731 Y72.672447 Z-0.125000 I-1.536455 J-0.674801
G02 X161.372684 Y72.557185 Z-0.125000 I-1.204982 J-0.417582
G02 X161.395085 Y72.439325 Z-0.125000 I-1.129686 J-0.275777
G02 X161.403365 Y72.331503 Z-0.125000 I-0.899595 J-0.123308
G02 X161.398339 Y72.223696 Z-0.125000 I-0.831579 J-0.015253
G02 X161.380055 Y72.124435 Z-0.125000 I-0.710494 J0.079558
G02 X161.347855 Y72.028917 Z-0.125000 I-0.675135 J0.174408
G02 X161.302119 Y71.939442 Z-0.125000 I-0.617936 J0.259432
G02 X161.243770 Y71.857552 Z-0.125000 I-0.600920 J0.366447
G02 X161.169849 Y71.779707 Z-0.125000 I-0.600432 J0.496147
G02 X161.086242 Y71.712062 Z-0.125000 I-0.586872 J0.639864
G02 X160.984495 Y71.648114 Z-0.125000 I-0.609547 J0.856925
G02 X160.876321 Y71.595299 Z-0.125000 I-0.584319 J1.059595
G02 X160.748252 Y71.547216 Z-0.125000 I-0.594747 J1.389498
G02 X160.616446 Y71.510055 Z-0.125000 I-0.540978 J1.666462
G02 X160.464222 Y71.479223 Z-0.125000 I-0.505630 J2.105233
G02 X160.310338 Y71.458652 Z-0.125000 I-0.407359 J2.461455
G02 X160.136263 Y71.445962 Z-0.125000 I-0.305759 J2.993997
G02 X159.961523 Y71.442729 Z-0.125000 I-0.151461 J3.461903
G02 X159.767556 Y71.448714 Z-0.125000 I0.027018 J4.021646
G02 X159.573926 Y71.463467 Z-0.125000 I0.253272 J4.602372
G02 X159.363152 Y71.488449 Z-0.125000 I0.493087 J5.061724
G02 X159.153466 Y71.521683 Z-0.125000 I0.793801 J5.686504
G02 X158.929418 Y71.565774 Z-0.125000 I1.071060 J6.033951
G02 X158.707031 Y71.617759 Z-0.125000 I1.444047 J6.679135
G02 X158.473505 Y71.680801 Z-0.125000 I1.702572 J6.770867
G02 X158.242153 Y71.751526 Z-0.125000 I2.135984 J7.400913
G02 X158.003203 Y71.833103 Z-0.125000 I2.336047 J7.233306
G02 X157.766943 Y71.922255 Z-0.125000 I2.805854 J7.793401
G02 X157.526824 Y72.021640 Z-0.125000 I2.916925 J7.387202
G02 X157.289945 Y72.128572 Z-0.125000 I3.388390 J7.821864
G02 X157.053038 Y72.244707 Z-0.125000 I3.399302 J7.234052
G02 X156.819970 Y72.368407 Z-0.125000 I3.835257 J7.507555
G02 X156.590679 Y72.499876 Z-0.125000 I3.747712 J6.801956
G02 X156.365901 Y72.638944 Z-0.125000 I4.117872 J6.906964
G02 X156.148556 Y72.783961 Z-0.125000 I3.941823 J6.143218
G02 X155.936493 Y72.936608 Z-0.125000 I4.222721 J6.090018
G02 X155.735253 Y73.093021 Z-0.125000 I3.976010 J5.323156
G02 X155.540162 Y73.257063 Z-0.125000 I4.162420 J5.148297
G02 X155.358926 Y73.422368 Z-0.125000 I3.834622 J4.386159
G02 X155.184607 Y73.595340 Z-0.125000 I4.030377 J4.236109
G02 X155.027253 Y73.766631 Z-0.125000 I3.310985 J3.199514
G02 X154.878959 Y73.945576 Z-0.125000 I3.399319 J2.967971
G02 X154.750084 Y74.119701 Z-0.125000 I2.927028 J2.301142
G02 X154.631993 Y74.301125 Z-0.125000 I2.862916 J1.992645
G02 X154.534255 Y74.474932 Z-0.125000 I2.527522 J1.535690
G02 X154.449045 Y74.655118 Z-0.125000 I2.404654 J1.247413
G02 X154.383991 Y74.825418 Z-0.125000 I2.092504 J0.896907
G02 X154.333488 Y75.000456 Z-0.125000 I1.964569 J0.661629
G02 X154.302147 Y75.164139 Z-0.125000 I1.696719 J0.409717
G02 X154.287293 Y75.329978 Z-0.125000 I1.581563 J0.225252
G02 X154.290188 Y75.484166 Z-0.125000 I1.377246 J0.051256
G02 X154.310891 Y75.636830 Z-0.125000 I1.285858 J-0.096639
G02 X154.348288 Y75.778821 Z-0.125000 I1.144711 J-0.225569
G02 X154.403402 Y75.914822 Z-0.125000 I1.079908 J-0.358463
G02 X154.475306 Y76.041859 Z-0.125000 I1.004292 J-0.484572
G02 X154.563016 Y76.158567 Z-0.125000 I0.955683 J-0.626910
G02 X154.668918 Y76.267601 Z-0.125000 I0.924941 J-0.792423
G02 X154.787263 Y76.363161 Z-0.125000 I0.878712 J-0.967173
G02 X154.925709 Y76.451079 Z-0.125000 I0.863935 J-1.207487
G02 X155.072756 Y76.524018 Z-0.125000 I0.801395 J-1.430939
G02 X155.241269 Y76.588146 Z-0.125000 I0.769316 J-1.768105
G02 X155.414913 Y76.637139 Z-0.125000 I0.671647 J-2.048283
G02 X155.610314 Y76.675567 Z-0.125000 I0.590739 J-2.487828
G02 X155.807863 Y76.699477 Z-0.125000 I0.443046 J-2.832516
G02 X156.026840 Y76.711085 Z-0.125000 I0.286514 J-3.333662
G02 X156.246334 Y76.709065 Z-0.125000 I0.075304 J-3.743448
G02 X156.486285 Y76.693252 Z-0.125000 I-0.169720 J-4.403894
G02 X156.725306 Y76.664916 Z-0.125000 I-0.449136 J-4.810875
G02 X156.982474 Y76.621836 Z-0.125000 I-0.804971 J-5.594368
G02 X157.237521 Y76.567339 Z-0.125000 I-1.142607 J-5.971465
G02 X157.507499 Y76.497849 Z-0.125000 I-1.605478 J-6.796789
G02 X157.774609 Y76.417912 Z-0.125000 I-1.981496 J-7.107394
G02 X158.053027 Y76.323381 Z-0.125000 I-2.540281 J-7.939017
G02 X158.328022 Y76.219254 Z-0.125000 I-2.921502 J-8.130796
G02 X158.610448 Y76.101541 Z-0.125000 I-3.556535 J-8.930754
G02 X158.889035 Y75.974964 Z-0.125000 I-3.904817 J-8.964063
G02 X159.171059 Y75.836360 Z-0.125000 I-4.581552 J-9.678576
G02 X159.448904 Y75.689527 Z-0.125000 I-4.859355 J-9.531425
G02 X159.726189 Y75.532712 Z-0.125000 I-5.523934 J-10.091076
G02 X159.998993 Y75.368209 Z-0.125000 I-5.705536 J-9.770267
G02 X160.267319 Y75.196188 Z-0.125000 I-6.294783 J-10.114211
G02 X160.530878 Y75.016935 Z-0.125000 I-6.356948 J-9.630105
G02 X160.786193 Y74.832979 Z-0.125000 I-6.797366 J-9.703319
G02 X161.036424 Y74.642152 Z-0.125000 I-6.745593 J-9.104922
G02 X161.274859 Y74.449723 Z-0.125000 I-6.946117 J-8.850758
G02 X161.507828 Y74.250687 Z-0.125000 I-6.812266 J-8.209536
G02 X161.725722 Y74.053364 Z-0.125000 I-6.684002 J-7.599775
G02 X161.938090 Y73.849477 Z-0.125000 I-6.872204 J-7.370597
G02 X162.131529 Y73.650979 Z-0.125000 I-5.218040 J-5.278537
G02 X162.317380 Y73.445553 Z-0.125000 I-5.490717 J-5.154322
G02 X162.480495 Y73.249334 Z-0.125000 I-4.094063 J-3.569251
G02 X162.633779 Y73.045801 Z-0.125000 I-4.066823 J-3.222275
G02 X162.762422 Y72.854727 Z-0.125000 I-3.300797 J-2.361137
G02 X162.879423 Y72.656488 Z-0.125000 I-3.139665 J-1.986701
G02 X162.971622 Y72.473195 Z-0.125000 I-2.487913 J-1.366287
G02 X163.049518 Y72.283620 Z-0.125000 I-2.327468 J-1.067132
G02 X163.103686 Y72.110418 Z-0.125000 I-1.825294 J-0.665928
G02 X163.140478 Y71.933019 Z-0.125000 I-1.688823 J-0.442776
G02 X163.155544 Y71.771669 Z-0.125000 I-1.347035 J-0.207157
G02 X163.150493 Y71.610026 Z-0.125000 I-1.248783 J-0.041874
G02 X163.125498 Y71.461808 Z-0.125000 I-1.053670 J0.101467
G02 X163.079473 Y71.318909 Z-0.125000 I-0.991767 J0.240572
G02 X163.013241 Y71.185266 Z-0.125000 I-0.923634 J0.374507
G02 X162.928061 Y71.062684 Z-0.125000 I-0.888840 J0.526754
G02 X162.819836 Y70.946046 Z-0.125000 I-0.905212 J0.731388
G02 X162.697100 Y70.844293 Z-0.125000 I-0.878526 J0.934787
G02 X162.547691 Y70.747731 Z-0.125000 I-0.932047 J1.278271
G02 X162.388637 Y70.667348 Z-0.125000 I-0.890155 J1.563813
G02 X162.200516 Y70.593497 Z-0.125000 I-0.926782 J2.084272
G02 X162.006693 Y70.535438 Z-0.125000 I-0.846566 J2.473585
G02 X161.783277 Y70.486111 Z-0.125000 I-0.815305 J3.162141
G02 X161.557248 Y70.451591 Z-0.125000 I-0.674958 J3.662245
G02 X161.302130 Y70.427919 Z-0.125000 I-0.545390 J4.491085
G02 X161.045983 Y70.417855 Z-0.125000 I-0.329445 J5.120240
G02 X160.761809 Y70.420457 Z-0.125000 I-0.086589 J6.060637
G02 X160.477604 Y70.435574 Z-0.125000 I0.223406 J6.879283
G02 X160.168037 Y70.464817 Z-0.125000 I0.562974 J7.612798
G02 X159.859742 Y70.505912 Z-0.125000 I0.984897 J8.565846
G02 X159.530239 Y70.562118 Z-0.125000 I1.362273 J8.980129
G02 X159.202833 Y70.629765 Z-0.125000 I1.897658 J10.010569
G02 X158.859034 Y70.712972 Z-0.125000 I2.232659 J9.976864
G02 X158.518105 Y70.807441 Z-0.125000 I2.865974 J11.005528
G02 X158.166062 Y70.917365 Z-0.125000 I3.096696 J10.536097
G02 X157.817689 Y71.038537 Z-0.125000 I3.789144 J11.455280
G02 X157.463782 Y71.174487 Z-0.125000 I3.883183 J10.637399
G02 X157.114408 Y71.321780 Z-0.125000 I4.581738 J11.355772
G02 X156.765193 Y71.482573 Z-0.125000 I4.542220 J10.324523
G02 X156.421474 Y71.654855 Z-0.125000 I5.186326 J10.776215
G02 X156.083550 Y71.838757 Z-0.125000 I5.030691 J9.646416
G02 X155.752196 Y72.034284 Z-0.125000 I5.574154 J9.824906
G02 X155.432020 Y72.238952 Z-0.125000 I5.328138 J8.687933
G02 X155.119625 Y72.455334 Z-0.125000 I5.735545 J8.614223
G02 X154.823349 Y72.677819 Z-0.125000 I5.424086 J7.531592
G02 X154.536224 Y72.911994 Z-0.125000 I5.676292 J7.252896
G02 X154.269535 Y73.148750 Z-0.125000 I5.314866 J6.255400
G02 X154.013174 Y73.397152 Z-0.125000 I5.538826 J5.972759
G02 X153.781512 Y73.643973 Z-0.125000 I4.719228 J4.661548
G02 X153.562792 Y73.902395 Z-0.125000 I4.893384 J4.363372
G02 X153.372720 Y74.154493 Z-0.125000 I4.032196 J3.237799
G02 X153.199186 Y74.417628 Z-0.125000 I3.962600 J2.802080
G02 X153.055879 Y74.670131 Z-0.125000 I3.604958 J2.212886
G02 X152.931243 Y74.932207 Z-0.125000 I3.387123 J1.771502
G02 X152.836172 Y75.180366 Z-0.125000 I3.045805 J1.309149
G02 X152.762469 Y75.435515 Z-0.125000 I2.824290 J0.954062
G02 X152.716573 Y75.674602 Z-0.125000 I2.518784 J0.607459
G02 X152.694508 Y75.916858 Z-0.125000 I2.320310 J0.333469
G02 X152.697973 Y76.142477 Z-0.125000 I2.078126 J0.080923
G02 X152.726833 Y76.366085 Z-0.125000 I1.920617 J-0.134224
G02 X152.779374 Y76.574134 Z-0.125000 I1.745713 J-0.330206
G02 X152.857045 Y76.774043 Z-0.125000 I1.628305 J-0.517603
G02 X152.957997 Y76.960454 Z-0.125000 I1.529068 J-0.707533
G02 X153.081484 Y77.132775 Z-0.125000 I1.438199 J-0.900224
G02 X153.229515 Y77.293268 Z-0.125000 I1.393871 J-1.137122
G02 X153.395569 Y77.435206 Z-0.125000 I1.309718 J-1.364149
G02 X153.588212 Y77.565516 Z-0.125000 I1.285568 J-1.692961
G02 X153.793621 Y77.674936 Z-0.125000 I1.184074 J-1.975292
G02 X154.027156 Y77.771406 Z-0.125000 I1.138581 J-2.425357
G02 X154.268568 Y77.846515 Z-0.125000 I0.994432 J-2.770764
G02 X154.538362 Y77.906516 Z-0.125000 I0.887545 J-3.354279
G02 X154.811783 Y77.945859 Z-0.125000 I0.681420 J-3.765868
G02 X155.112943 Y77.967870 Z-0.125000 I0.475531 J-4.435049
G02 X155.414809 Y77.970409 Z-0.125000 I0.192278 J-4.914862
G02 X155.743532 Y77.953662 Z-0.125000 I-0.128141 J-5.749904
G02 X156.071472 Y77.918860 Z-0.125000 I-0.499856 J-6.272658
G02 X156.423772 Y77.863463 Z-0.125000 I-0.976173 J-7.355952
G02 X156.773190 Y77.791712 Z-0.125000 I-1.417388 J-7.789184
G02 X157.142515 Y77.699088 Z-0.125000 I-2.055993 J-8.980605
G02 X157.507828 Y77.591610 Z-0.125000 I-2.537343 J-9.298887
G02 X157.888020 Y77.463913 Z-0.125000 I-3.328150 J-10.538756
G02 X158.263403 Y77.322674 Z-0.125000 I-3.804298 J-10.680453
G02 X158.648349 Y77.162717 Z-0.125000 I-4.724553 J-11.913127
G02 X159.027903 Y76.990368 Z-0.125000 I-5.140063 J-11.823759
G02 X159.411631 Y76.801554 Z-0.125000 I-6.161408 J-13.006172
G02 X159.789534 Y76.601352 Z-0.125000 I-6.455472 J-12.642159
G02 X160.166315 Y76.387582 Z-0.125000 I-7.540481 J-13.729429
G02 X160.536931 Y76.163311 Z-0.125000 I-7.661134 J-13.078659
G02 X160.901339 Y75.928914 Z-0.125000 I-8.747619 J-14.000098
G02 X161.259304 Y75.684790 Z-0.125000 I-8.661382 J-13.084903
G02 X161.606255 Y75.434437 Z-0.125000 I-9.659924 J-13.752764
G02 X161.946504 Y75.175025 Z-0.125000 I-9.361484 J-12.631527
G02 X162.271263 Y74.913640 Z-0.125000 I-10.137162 J-12.927394
G02 X162.589018 Y74.643752 Z-0.125000 I-9.668867 J-11.705731
G02 X162.887170 Y74.376410 Z-0.125000 I-10.039840 J-11.496784
G02 X163.178349 Y74.100871 Z-0.125000 I-9.891404 J-10.744489
G02 X163.445316 Y73.832792 Z-0.125000 I-8.272582 J-8.505234
G02 X163.704163 Y73.556179 Z-0.125000 I-9.003006 J-8.684201
G02 X163.932786 Y73.292397 Z-0.125000 I-5.626040 J-5.107123
G02 X164.148396 Y73.019092 Z-0.125000 I-5.777104 J-4.779251
G02 X164.330041 Y72.763332 Z-0.125000 I-4.614987 J-3.470027
G02 X164.496708 Y72.497872 Z-0.125000 I-4.376587 J-2.932858
G02 X164.629137 Y72.253255 Z-0.125000 I-3.457622 J-2.030011
G02 X164.743130 Y71.999866 Z-0.125000 I-3.211882 J-1.597273
G02 X164.824431 Y71.769209 Z-0.125000 I-2.513053 J-1.015447
G02 X164.883181 Y71.532234 Z-0.125000 I-2.304471 J-0.697089
G02 X164.912172 Y71.317592 Z-0.125000 I-1.832555 J-0.356794
G02 X164.914761 Y71.101472 Z-0.125000 I-1.679146 J-0.128191
G02 X164.890476 Y70.904173 Z-0.125000 I-1.414431 J0.073953
G02 X164.838155 Y70.712667 Z-0.125000 I-1.317847 J0.257145
G02 X164.759301 Y70.534114 Z-0.125000 I-1.224732 J0.434189
G02 X164.654760 Y70.369111 Z-0.125000 I-1.169685 J0.625460
G02 X164.520361 Y70.212019 Z-0.125000 I-1.199415 J0.890108
G02 X164.366000 Y70.073848 Z-0.125000 I-1.160094 J1.140717
G02 X164.177062 Y69.941967 Z-0.125000 I-1.249865 J1.589328
G02 X163.974664 Y69.830944 Z-0.125000 I-1.196021 J1.940379
G02 X163.734420 Y69.727575 Z-0.125000 I-1.274612 J2.631523
G02 X163.486046 Y69.644643 Z-0.125000 I-1.177696 J3.113669
G02 X163.198994 Y69.572038 Z-0.125000 I-1.174841 J4.041117
G02 X162.907811 Y69.518580 Z-0.125000 I-1.007521 J4.668226
G02 X162.578804 Y69.478169 Z-0.125000 I-0.877093 J5.781284
G02 X162.248498 Y69.455458 Z-0.125000 I-0.616385 J6.551277
G02 X161.881220 Y69.447975 Z-0.125000 I-0.345460 J7.938533
G02 X161.513050 Y69.456556 Z-0.125000 I0.029768 J9.178972
G02 X161.110307 Y69.482201 Z-0.125000 I0.432598 J9.969116
G02 X160.708638 Y69.523101 Z-0.125000 I0.959391 J11.414832
G02 X160.277633 Y69.582692 Z-0.125000 I1.413194 J11.809600
G02 X159.848843 Y69.657081 Z-0.125000 I2.098251 J13.367743
G02 X159.397016 Y69.751115 Z-0.125000 I2.486114 J13.078065
G02 X158.948439 Y69.859885 Z-0.125000 I3.318403 J14.664749
G02 X158.483834 Y69.988592 Z-0.125000 I3.550674 J13.720153
G02 X158.023573 Y70.132231 Z-0.125000 I4.480563 J15.166268
G02 X157.554756 Y70.295373 Z-0.125000 I4.526199 J13.761960
G02 X157.091494 Y70.473795 Z-0.125000 I5.479394 J14.917524
G02 X156.627350 Y70.670499 Z-0.125000 I5.355670 J13.283245
G02 X156.170134 Y70.882878 Z-0.125000 I6.249093 J14.051555
G02 X155.719656 Y71.111477 Z-0.125000 I6.001980 J12.385718
G02 X155.277646 Y71.356089 Z-0.125000 I6.759657 J12.736242
G02 X154.849660 Y71.614007 Z-0.125000 I6.440441 J11.171250
G02 X154.431872 Y71.888152 Z-0.125000 I7.012482 J11.142221
G02 X154.034797 Y72.171864 Z-0.125000 I6.650777 J9.727931
G02 X153.649840 Y72.471809 Z-0.125000 I7.014044 J9.399010
G02 X153.291424 Y72.776849 Z-0.125000 I6.626687 J8.149298
G02 X152.947006 Y73.097952 Z-0.125000 I6.855979 J7.699067
G02 X152.634378 Y73.418918 Z-0.125000 I6.175985 J6.328289
G02 X152.337992 Y73.755844 Z-0.125000 I6.474837 J5.994574
G02 X152.079155 Y74.086247 Z-0.125000 I5.112463 J4.271683
G02 X151.842752 Y74.431871 Z-0.125000 I5.093872 J3.737818
G02 X151.646816 Y74.764781 Z-0.125000 I4.684134 J2.980989
G02 X151.475980 Y75.110947 Z-0.125000 I4.382326 J2.377959
G02 X151.344654 Y75.439846 Z-0.125000 I4.061076 J1.812205
G02 X151.241620 Y75.778469 Z-0.125000 I3.733644 J1.321039
G02 X151.175525 Y76.096805 Z-0.125000 I3.428061 J0.877785
G02 X151.140645 Y76.419832 Z-0.125000 I3.135090 J0.501920
G02 X151.139465 Y76.721464 Z-0.125000 I2.871526 J0.162051
G02 X151.171278 Y77.021205 Z-0.125000 I2.631271 J-0.127711
G02 X151.234006 Y77.300446 Z-0.125000 I2.436397 J-0.400639
G02 X151.329414 Y77.570125 Z-0.125000 I2.252162 J-0.645067
G02 X151.454533 Y77.821479 Z-0.125000 I2.129298 J-0.903102
G02 X151.609304 Y78.055717 Z-0.125000 I1.986022 J-1.143996
G02 X151.794583 Y78.273630 Z-0.125000 I1.922908 J-1.447218
G02 X152.004109 Y78.468484 Z-0.125000 I1.795559 J-1.720677
G02 X152.246110 Y78.647512 Z-0.125000 I1.757467 J-2.122578
G02 X152.505820 Y78.800029 Z-0.125000 I1.615769 J-2.454002
G02 X152.799707 Y78.935439 Z-0.125000 I1.557598 J-2.993903
G02 X153.104974 Y79.043265 Z-0.125000 I1.370221 J-3.393218
G02 X153.444790 Y79.131562 Z-0.125000 I1.244155 J-4.090168
G02 X153.790486 Y79.192856 Z-0.125000 I0.986344 J-4.557420
G02 X154.169750 Y79.231958 Z-0.125000 I0.746539 J-5.382124
G02 X154.550147 Y79.245482 Z-0.125000 I0.400827 J-5.917336
G02 X154.963454 Y79.234339 Z-0.125000 I0.023429 J-6.801233
G02 X155.376466 Y79.199254 Z-0.125000 I-0.424967 J-7.451041
G02 X155.820311 Y79.137718 Z-0.125000 I-0.996655 J-8.820211
G02 X156.260871 Y79.054467 Z-0.125000 I-1.530853 J-9.308472
G02 X156.726852 Y78.944329 Z-0.125000 I-2.320193 J-10.857337
G02 X157.187799 Y78.814586 Z-0.125000 I-2.901606 J-11.192364
G02 X157.667640 Y78.658802 Z-0.125000 I-3.894263 J-12.811917
G02 X158.141339 Y78.485243 Z-0.125000 I-4.467255 J-12.925764
G02 X158.627066 Y78.287595 Z-0.125000 I-5.638342 J-14.552111
G02 X159.105846 Y78.073765 Z-0.125000 I-6.131793 J-14.372447
G02 X159.589791 Y77.838748 Z-0.125000 I-7.453025 J-15.962992
G02 X160.066211 Y77.588947 Z-0.125000 I-7.785315 J-15.427328
G02 X160.541184 Y77.321655 Z-0.125000 I-9.244959 J-16.983794
G02 X161.008223 Y77.040833 Z-0.125000 I-9.324047 J-16.035751
G02 X161.467613 Y76.746875 Z-0.125000 I-10.919003 J-17.569870
G02 X161.918798 Y76.440529 Z-0.125000 I-10.673515 J-16.205332
G02 X162.356625 Y76.125944 Z-0.125000 I-12.351527 J-17.652319
G02 X162.786078 Y75.800023 Z-0.125000 I-11.737622 J-15.912111
G02 X163.196962 Y75.471201 Z-0.125000 I-13.390098 J-17.152901
G02 X163.599347 Y75.131990 Z-0.125000 I-12.436527 J-15.160922
G02 X163.978408 Y74.795581 Z-0.125000 I-13.806619 J-15.938868
G02 X164.349032 Y74.449521 Z-0.125000 I-12.864050 J-14.148682
G02 X164.691539 Y74.112329 Z-0.125000 I-12.616140 J-13.157544
G02 X165.026353 Y73.765493 Z-0.125000 I-13.972533 J-13.823256
G02 X165.324974 Y73.434476 Z-0.125000 I-7.544261 J-7.106113
G02 X165.608494 Y73.092218 Z-0.125000 I-8.132779 J-7.025607
G02 X165.849187 Y72.772235 Z-0.125000 I-5.980265 J-4.748905
G02 X166.071752 Y72.440118 Z-0.125000 I-5.757079 J-4.098669
G02 X166.250390 Y72.134611 Z-0.125000 I-4.538361 J-2.858695
G02 X166.407037 Y71.817716 Z-0.125000 I-4.197116 J-2.271871
G02 X166.521641 Y71.529896 Z-0.125000 I-3.278609 J-1.472199
G02 X166.609171 Y71.233271 Z-0.125000 I-2.987135 J-1.042694
G02 X166.658480 Y70.965480 Z-0.125000 I-2.365704 J-0.574039
G02 X166.675675 Y70.694325 Z-0.125000 I-2.148622 J-0.272369
G02 X166.658745 Y70.447892 Z-0.125000 I-1.787468 J-0.001002
G02 X166.607120 Y70.206739 Z-0.125000 I-1.657018 J0.228624
G02 X166.522871 Y69.982882 Z-0.125000 I-1.526163 J0.446593
G02 X166.405965 Y69.774062 Z-0.125000 I-1.445769 J0.672268
G02 X166.253084 Y69.575467 Z-0.125000 I-1.481126 J0.982045
G02 X166.074247 Y69.399126 Z-0.125000 I-1.427391 J1.268742
G02 X165.853698 Y69.230030 Z-0.125000 I-1.554919 J1.799671
G02 X165.615308 Y69.086085 Z-0.125000 I-1.490943 J2.199816
G02 X165.330872 Y68.950418 Z-0.125000 I-1.623855 J3.038534
G02 X165.035416 Y68.839612 Z-0.125000 I-1.515100 J3.590588
G02 X164.692507 Y68.740054 Z-0.125000 I-1.563741 J4.745663
G02 X164.343515 Y68.663767 Z-0.125000 I-1.380182 J5.477584
G02 X163.948182 Y68.602029 Z-0.125000 I-1.274367 J6.863598
G02 X163.551063 Y68.561962 Z-0.125000 I-0.978103 J7.706444
G02 X163.108263 Y68.538973 Z-0.125000 I-0.721328 J9.617764
G02 X162.663755 Y68.535233 Z-0.125000 I-0.313494 J10.840986
G02 X162.174997 Y68.550800 Z-0.125000 I0.149486 J12.373736
G02 X161.686577 Y68.584469 Z-0.125000 I0.732969 J14.192429
G02 X161.159443 Y68.639565 Z-0.125000 I1.258985 J14.594586
G02 X160.634337 Y68.712438 Z-0.125000 I2.064653 J16.805668
G02 X160.078172 Y68.808393 Z-0.125000 I2.495919 J16.126482
G02 X159.525289 Y68.922285 Z-0.125000 I3.515556 J18.464961
G02 X158.950024 Y69.060218 Z-0.125000 I3.731432 J16.830971
G02 X158.379424 Y69.216635 Z-0.125000 I4.905367 J19.013390
G02 X157.795818 Y69.397230 Z-0.125000 I4.873665 J16.782893
G02 X157.218453 Y69.597065 Z-0.125000 I6.100770 J18.560357
G02 X156.637833 Y69.820240 Z-0.125000 I5.868597 J16.134821
G02 X156.065269 Y70.063457 Z-0.125000 I7.036333 J17.360015
G02 X155.499211 Y70.328076 Z-0.125000 I6.680679 J15.028703
G02 X154.943282 Y70.613414 Z-0.125000 I7.685886 J15.658779
G02 X154.403239 Y70.917064 Z-0.125000 I7.282125 J13.583333
G02 X153.875639 Y71.241871 Z-0.125000 I8.058671 J13.681020
G02 X153.372569 Y71.580744 Z-0.125000 I7.646267 J11.894008
G02 X152.884494 Y71.940867 Z-0.125000 I8.158992 J11.568693
G02 X152.428498 Y72.309765 Z-0.125000 I7.755304 J10.052642
G02 X151.990207 Y72.699603 Z-0.125000 I8.019070 J9.457058
G02 X151.590291 Y73.092018 Z-0.125000 I7.547769 J8.092039
G02 X151.209937 Y73.505129 Z-0.125000 I7.935757 J7.688145
G02 X150.875366 Y73.912934 Z-0.125000 I6.271785 J5.486633
G02 X150.568370 Y74.340603 Z-0.125000 I6.359639 J4.889204
G02 X150.312117 Y74.754613 Z-0.125000 I5.694473 J3.810932
G02 X150.087895 Y75.186033 Z-0.125000 I5.360666 J3.060062
G02 X149.913723 Y75.597548 Z-0.125000 I5.115905 J2.407905
G02 X149.774898 Y76.022041 Z-0.125000 I4.666539 J1.761078
G02 X149.682663 Y76.422565 Z-0.125000 I4.406443 J1.225627
G02 X149.629058 Y76.829816 Z-0.125000 I3.999411 J0.733579
G02 X149.617745 Y77.211260 Z-0.125000 I3.753574 J0.302219
G02 X149.647036 Y77.591518 Z-0.125000 I3.416089 J-0.071886
G02 X149.714731 Y77.946441 Z-0.125000 I3.213823 J-0.429051
G02 X149.822716 Y78.291066 Z-0.125000 I2.949673 J-0.735029
G02 X149.966899 Y78.612431 Z-0.125000 I2.808726 J-1.067130
G02 X150.148085 Y78.914410 Z-0.125000 I2.602194 J-1.355955
G02 X150.365520 Y79.195329 Z-0.125000 I2.517911 J-1.724294
G02 X150.613918 Y79.449364 Z-0.125000 I2.340820 J-2.040413
G02 X150.900226 Y79.683180 Z-0.125000 I2.283681 J-2.504174
G02 X151.209881 Y79.885324 Z-0.125000 I2.100065 J-2.878746
G02 X151.559247 Y80.066161 Z-0.125000 I2.026384 J-3.486946
G02 X151.924250 Y80.213360 Z-0.125000 I1.798419 J-3.933342
G02 X152.329591 Y80.336724 Z-0.125000 I1.657415 J-4.718205
G02 X152.743772 Y80.426661 Z-0.125000 I1.352716 J-5.230879
G02 X153.197140 Y80.489730 Z-0.125000 I1.093343 J-6.198469
G02 X153.652814 Y80.520951 Z-0.125000 I0.694442 J-6.794387
G02 X154.146999 Y80.522480 Z-0.125000 I0.271059 J-7.748698
G02 X154.641285 Y80.493748 Z-0.125000 I-0.242933 J-8.445298
G02 X155.172866 Y80.432857 Z-0.125000 I-0.875065 J-9.990300
G02 X155.701449 Y80.344386 Z-0.125000 I-1.496447 J-10.563950
G02 X156.261697 Y80.222911 Z-0.125000 I-2.411376 J-12.474047
G02 X156.816076 Y80.076744 Z-0.125000 I-3.087401 J-12.834220
G02 X157.393948 Y79.898548 Z-0.125000 I-4.255532 J-14.826383
G02 X157.964445 Y79.698064 Z-0.125000 I-4.927432 J-14.933462
G02 X158.549800 Y79.467921 Z-0.125000 I-6.305813 J-16.897890
G02 X159.126697 Y79.217545 Z-0.125000 I-6.893023 J-16.672234
G02 X159.709904 Y78.941041 Z-0.125000 I-8.446275 J-18.568275
G02 X160.283868 Y78.646087 Z-0.125000 I-8.845349 J-17.918509
G02 X160.856069 Y78.329460 Z-0.125000 I-10.581196 J-19.797439
G02 X161.418482 Y77.995989 Z-0.125000 I-10.671911 J-18.639606
G02 X161.971792 Y77.646031 Z-0.125000 I-12.651825 J-20.615929
G02 X162.514988 Y77.280746 Z-0.125000 I-12.305083 J-18.884732
G02 X163.042559 Y76.904765 Z-0.125000 I-14.607735 J-21.055517
G02 X163.559916 Y76.514914 Z-0.125000 I-13.713332 J-18.736677
G02 X164.055894 Y76.120689 Z-0.125000 I-16.350905 J-21.080302
G02 X164.541743 Y75.714006 Z-0.125000 I-14.845349 J-18.228748
G02 X165.001095 Y75.309732 Z-0.125000 I-17.654400 J-20.522719
G02 X165.450523 Y74.894297 Z-0.125000 I-15.633242 J-17.363241
G02 X165.868750 Y74.488469 Z-0.125000 I-18.004110 J-18.972607
G02 X166.279355 Y74.072130 Z-0.125000 I-18.998966 J-19.147928
G02 X166.649905 Y73.673751 Z-0.125000 I-10.638397 J-10.266795
G02 X167.005857 Y73.263232 Z-0.125000 I-12.266195 J-10.995292
G02 X167.311410 Y72.879060 Z-0.125000 I-7.254283 J-6.083350
G02 X167.595386 Y72.480575 Z-0.125000 I-7.281957 J-5.489822
G02 X167.825567 Y72.114278 Z-0.125000 I-5.737029 J-3.860614
G02 X168.030655 Y71.733917 Z-0.125000 I-5.291165 J-3.098435
G02 X168.184042 Y71.388881 Z-0.125000 I-4.134139 J-2.044464
G02 X168.306407 Y71.032324 Z-0.125000 I-3.746779 J-1.485112
G02 X168.381699 Y70.711210 Z-0.125000 I-2.960740 J-0.863591
G02 X168.419804 Y70.384314 Z-0.125000 I-2.667835 J-0.476649
G02 X168.416383 Y70.088527 Z-0.125000 I-2.210696 J-0.122345
G02 X168.371843 Y69.796633 Z-0.125000 I-2.017502 J0.158505
G02 X168.288664 Y69.527117 Z-0.125000 I-1.837142 J0.419393
G02 X168.165824 Y69.273157 Z-0.125000 I-1.723366 J0.676903
G02 X168.001538 Y69.032341 Z-0.125000 I-1.753840 J1.020028
G02 X167.804857 Y68.816376 Z-0.125000 I-1.681397 J1.333718
G02 X167.560206 Y68.608760 Z-0.125000 I-1.841823 J1.922417
G02 X167.292794 Y68.430183 Z-0.125000 I-1.766782 J2.356182
G02 X166.971871 Y68.260251 Z-0.125000 I-1.959735 J3.313028
G02 X166.636604 Y68.119397 Z-0.125000 I-1.841692 J3.914240
G02 X166.245596 Y67.990215 Z-0.125000 I-1.959612 J5.275010
G02 X165.846274 Y67.888270 Z-0.125000 I-1.765657 J6.083085
G02 X165.392234 Y67.801750 Z-0.125000 I-1.712205 J7.750697
G02 X164.935178 Y67.740620 Z-0.125000 I-1.393925 J8.682946
G02 X164.424394 Y67.697851 Z-0.125000 I-1.177093 J10.986162
G02 X163.911907 Y67.677672 Z-0.125000 I-0.736518 J12.188000
G02 X163.345793 Y67.678113 Z-0.125000 I-0.271550 J14.797689
G02 X162.778499 Y67.698903 Z-0.125000 I0.335914 J16.916201
G02 X162.161966 Y67.742832 Z-0.125000 I0.930841 J17.412305
G02 X161.547013 Y67.806986 Z-0.125000 I1.818160 J20.407804
G02 X160.891611 Y67.896761 Z-0.125000 I2.297693 J19.211375
G02 X160.239218 Y68.007227 Z-0.125000 I3.479663 J22.532072
G02 X159.556591 Y68.145194 Z-0.125000 I3.673255 J19.932034
G02 X158.878587 Y68.304894 Z-0.125000 I5.085006 J23.107497
G02 X158.181619 Y68.493124 Z-0.125000 I4.959260 J19.747339
G02 X157.491200 Y68.704434 Z-0.125000 I6.470303 J22.374160
G02 X156.793704 Y68.944187 Z-0.125000 I6.104551 J18.893938
G02 X156.105040 Y69.208411 Z-0.125000 I7.567466 J20.753180
G02 X155.421349 Y69.499624 Z-0.125000 I7.079553 J17.569084
G02 X154.749130 Y69.816498 Z-0.125000 I8.361703 J18.610048
G02 X154.093571 Y70.157393 Z-0.125000 I7.859210 J15.914448
G02 X153.452458 Y70.524748 Z-0.125000 I8.869980 J16.223137
G02 X152.838829 Y70.911605 Z-0.125000 I8.407340 J14.015733
G02 X152.242902 Y71.325191 Z-0.125000 I9.097998 J13.745250
G02 X151.683950 Y71.752318 Z-0.125000 I8.694186 J11.956764
G02 X151.146209 Y72.205811 Z-0.125000 I9.055517 J11.283397
G02 X150.653214 Y72.665680 Z-0.125000 I8.688954 J9.809027
G02 X150.183928 Y73.151339 Z-0.125000 I9.044691 J9.209324
G02 X149.767602 Y73.634400 Z-0.125000 I7.642063 J7.007248
G02 X149.382042 Y74.142399 Z-0.125000 I7.906569 J6.401220
G02 X149.057051 Y74.637204 Z-0.125000 I6.570896 J4.669939
G02 X148.771806 Y75.154027 Z-0.125000 I6.297181 J3.812666
G02 X148.547838 Y75.649030 Z-0.125000 I6.180485 J3.094590
G02 X148.366437 Y76.160857 Z-0.125000 I5.596301 J2.271493
G02 X148.241845 Y76.645603 Z-0.125000 I5.435494 J1.655443
G02 X148.163381 Y77.139647 Z-0.125000 I4.895952 J1.030821
G02 X148.136242 Y77.603904 Z-0.125000 I4.710315 J0.508279
G02 X148.157309 Y78.068241 Z-0.125000 I4.253999 J0.039638
G02 X148.224589 Y78.502661 Z-0.125000 I4.078123 J-0.409167
G02 X148.339755 Y78.926709 Z-0.125000 I3.716810 J-0.781778
G02 X148.497733 Y79.322612 Z-0.125000 I3.572359 J-1.196021
G02 X148.700174 Y79.697607 Z-0.125000 I3.290348 J-1.534145
G02 X148.944503 Y80.046701 Z-0.125000 I3.185648 J-1.969570
G02 X149.226834 Y80.365840 Z-0.125000 I2.951413 J-2.326558
G02 X149.552176 Y80.660222 Z-0.125000 I2.869847 J-2.844703
G02 X149.907073 Y80.918361 Z-0.125000 I2.642092 J-3.259390
G02 X150.306772 Y81.150957 Z-0.125000 I2.546914 J-3.916958
G02 X150.727092 Y81.344179 Z-0.125000 I2.281019 J-4.408176
G02 X151.193157 Y81.509364 Z-0.125000 I2.123435 J-5.251129
G02 X151.671663 Y81.634738 Z-0.125000 I1.778454 J-5.811856
G02 X152.195037 Y81.728764 Z-0.125000 I1.505146 J-6.874429
G02 X152.723176 Y81.784410 Z-0.125000 I1.058906 J-7.516001
G02 X153.294949 Y81.805477 Z-0.125000 I0.603466 J-8.608726
G02 X153.866620 Y81.790072 Z-0.125000 I0.032643 J-9.403801
G02 X154.481699 Y81.737154 Z-0.125000 I-0.621490 J-10.824665
G02 X155.095016 Y81.650182 Z-0.125000 I-1.328462 J-11.574181
G02 X155.747189 Y81.524024 Z-0.125000 I-2.343260 J-13.862294
G02 X156.392942 Y81.367715 Z-0.125000 I-3.108347 J-14.253438
G02 X157.067614 Y81.173237 Z-0.125000 I-4.432119 J-16.643176
G02 X157.733848 Y80.951686 Z-0.125000 I-5.202959 J-16.758450
G02 X158.418294 Y80.694736 Z-0.125000 I-6.760963 J-19.049528
G02 X159.092873 Y80.413268 Z-0.125000 I-7.450890 J-18.806244
G02 X159.775097 Y80.100557 Z-0.125000 I-9.170393 J-20.907037
G02 X160.446378 Y79.765481 Z-0.125000 I-9.668705 J-20.209906
G02 X161.115501 Y79.404357 Z-0.125000 I-11.560756 J-22.221312
G02 X161.772904 Y79.022777 Z-0.125000 I-11.719906 J-20.948642
G02 X162.419501 Y78.621120 Z-0.125000 I-13.911045 J-23.115632
G02 X163.053912 Y78.200823 Z-0.125000 I-13.552189 J-21.145115
G02 X163.670169 Y77.767033 Z-0.125000 I-16.268156 J-23.765706
G02 X164.274120 Y77.316453 Z-0.125000 I-15.191714 J-20.992841
G02 X164.853786 Y76.859513 Z-0.125000 I-18.677505 J-24.290093
G02 X165.421407 Y76.387694 Z-0.125000 I-16.692457 J-20.659177
G02 X165.959545 Y75.917227 Z-0.125000 I-21.078404 J-24.653266
G02 X166.486224 Y75.433791 Z-0.125000 I-18.061299 J-20.205488
G02 X166.978790 Y74.960006 Z-0.125000 I-23.064579 J-24.471774
G02 X167.462197 Y74.474735 Z-0.125000 I-21.425693 J-21.826828
G02 X167.903949 Y74.008547 Z-0.125000 I-16.686308 J-16.254058
G02 X168.335006 Y73.530277 Z-0.125000 I-21.171313 J-19.514757
G02 X168.710337 Y73.081466 Z-0.125000 I-8.485204 J-7.477350
G02 X169.060488 Y72.616639 Z-0.125000 I-9.116954 J-7.232021
G02 X169.347107 Y72.189245 Z-0.125000 I-7.010378 J-5.011098
G02 X169.605738 Y71.745126 Z-0.125000 I-6.489909 J-4.076743
G02 X169.802766 Y71.342389 Z-0.125000 I-5.086950 J-2.738218
G02 X169.965291 Y70.925285 Z-0.125000 I-4.589392 J-2.028479
G02 X170.071548 Y70.550211 Z-0.125000 I-3.630354 J-1.231053
G02 X170.136125 Y70.166593 Z-0.125000 I-3.246603 J-0.743763
G02 X170.151338 Y69.820788 Z-0.125000 I-2.674610 J-0.290907
G02 X170.119612 Y69.476792 Z-0.125000 I-2.416755 J0.049435
G02 X170.043193 Y69.161024 Z-0.125000 I-2.169095 J0.357811
G02 X169.920233 Y68.860393 Z-0.125000 I-2.013421 J0.648044
G02 X169.750897 Y68.576690 Z-0.125000 I-2.024028 J1.015701
G02 X169.542387 Y68.319629 Z-0.125000 I-1.927479 J1.350351
G02 X169.280588 Y68.072500 Z-0.125000 I-2.110402 J1.973442
G02 X168.990562 Y67.857864 Z-0.125000 I-2.021384 J2.428118
G02 X168.640474 Y67.652268 Z-0.125000 I-2.272582 J3.468882
G02 X168.272246 Y67.479786 Z-0.125000 I-2.144019 J4.097925
G02 X167.840669 Y67.319134 Z-0.125000 I-2.343679 J5.636059
G02 X167.398324 Y67.189605 Z-0.125000 I-2.138881 J6.484212
G02 X166.893097 Y67.075877 Z-0.125000 I-2.167226 J8.448669
G02 X166.382800 Y66.990925 Z-0.125000 I-1.841787 J9.488264
G02 X165.811479 Y66.925250 Z-0.125000 I-1.668148 J11.993730
G02 X165.239230 Y66.885839 Z-0.125000 I-1.184086 J13.018716
G02 X164.604851 Y66.867756 Z-0.125000 I-0.810566 J17.299495
G02 X163.967437 Y66.871707 Z-0.125000 I-0.198091 J19.458525
G02 X163.269654 Y66.899395 Z-0.125000 I0.461544 J20.438637
G02 X162.572614 Y66.949048 Z-0.125000 I1.379673 J24.285568
G02 X161.824448 Y67.025754 Z-0.125000 I1.923604 J22.449100
G02 X161.078744 Y67.125266 Z-0.125000 I3.231868 J27.062294
G02 X160.293468 Y67.254814 Z-0.125000 I3.409412 J23.111393
G02 X159.512429 Y67.408842 Z-0.125000 I5.043534 J27.631865
G02 X158.704875 Y67.595150 Z-0.125000 I4.812082 J22.701342
G02 X157.903774 Y67.808072 Z-0.125000 I6.608484 J26.477368
G02 X157.090225 Y68.054321 Z-0.125000 I6.089971 J21.586869
G02 X156.285860 Y68.329399 Z-0.125000 I7.859467 J24.295705
G02 X155.483521 Y68.637229 Z-0.125000 I7.222540 J20.024621
G02 X154.693608 Y68.975808 Z-0.125000 I8.798940 J21.618892
G02 X153.919923 Y69.344650 Z-0.125000 I8.184890 J18.164531
G02 X153.162360 Y69.745582 Z-0.125000 I9.452151 J18.776051
G02 X152.434279 Y70.172263 Z-0.125000 I8.936540 J16.083701
G02 X151.726365 Y70.631593 Z-0.125000 I9.831278 J15.927009
G02 X151.059617 Y71.110230 Z-0.125000 I9.430505 J13.840534
G02 X150.417353 Y71.621189 Z-0.125000 I9.937298 J13.150117
G02 X149.825855 Y72.143385 Z-0.125000 I9.619670 J11.492398
G02 X149.262674 Y72.696883 Z-0.125000 I9.908471 J10.645084
G02 X148.758808 Y73.251839 Z-0.125000 I9.077281 J8.747824
G02 X148.287885 Y73.837162 Z-0.125000 I9.537149 J8.155244
G02 X147.886568 Y74.411279 Z-0.125000 I7.449130 J5.634385
G02 X147.532365 Y75.012533 Z-0.125000 I7.299699 J4.705264
G02 X147.251000 Y75.591031 Z-0.125000 I7.178336 J3.849013
G02 X147.019875 Y76.190741 Z-0.125000 I6.494204 J2.847217
G02 X146.856454 Y76.760850 Z-0.125000 I6.489369 J2.168653
G02 X146.746779 Y77.343391 Z-0.125000 I5.798002 J1.393184
G02 X146.697958 Y77.892657 Z-0.125000 I5.726784 J0.785821
G02 X146.704974 Y78.443802 Z-0.125000 I5.131014 J0.210303
G02 X146.766347 Y78.960837 Z-0.125000 I5.023725 J-0.334172
G02 X146.883154 Y79.468029 Z-0.125000 I4.545187 J-0.779714
G02 X147.049589 Y79.942411 Z-0.125000 I4.422019 J-1.285057
G02 X147.267925 Y80.395095 Z-0.125000 I4.050425 J-1.674583
G02 X147.533778 Y80.817064 Z-0.125000 I3.934425 J-2.184076
G02 X147.844851 Y81.206806 Z-0.125000 I3.634483 J-2.581855
G02 X148.203779 Y81.567175 Z-0.125000 I3.523802 J-3.150776
G02 X148.598915 Y81.887459 Z-0.125000 I3.249082 J-3.604528
G02 X149.043513 Y82.177917 Z-0.125000 I3.123112 J-4.294974
G02 X149.514376 Y82.423753 Z-0.125000 I2.821174 J-4.829699
G02 X150.035998 Y82.637440 Z-0.125000 I2.640779 J-5.702806
G02 X150.574372 Y82.805103 Z-0.125000 I2.261989 J-6.315133
G02 X151.163188 Y82.937143 Z-0.125000 I1.974918 J-7.427989
G02 X151.760127 Y83.024154 Z-0.125000 I1.486889 J-8.109736
G02 X152.405741 Y83.071925 Z-0.125000 I1.019086 J-9.386134
G02 X153.051471 Y83.077011 Z-0.125000 I0.403127 J-10.186206
G02 X153.746452 Y83.039410 Z-0.125000 I-0.273811 J-11.502232
G02 X154.441029 Y82.960999 Z-0.125000 I-1.046664 J-12.387086
G02 X155.182193 Y82.837319 Z-0.125000 I-2.120714 J-14.991126
G02 X155.917101 Y82.677535 Z-0.125000 I-2.971743 J-15.438198
G02 X156.687522 Y82.473271 Z-0.125000 I-4.440350 J-18.302641
G02 X157.448670 Y82.236879 Z-0.125000 I-5.303823 J-18.421143
G02 X158.232197 Y81.959168 Z-0.125000 I-7.031082 J-21.081464
G02 X159.004609 Y81.652452 Z-0.125000 I-7.830403 J-20.845514
G02 X159.786360 Y81.309233 Z-0.125000 I-9.675771 J-23.100429
G02 X160.555564 Y80.939521 Z-0.125000 I-10.300472 J-22.415693
G02 X161.322138 Y80.539270 Z-0.125000 I-12.238272 J-24.373316
G02 X162.075051 Y80.114659 Z-0.125000 I-12.529443 J-23.096833
G02 X162.815066 Y79.666236 Z-0.125000 I-14.728218 J-25.140224
G02 X163.540662 Y79.195490 Z-0.125000 I-14.467851 J-23.094976
G02 X164.245049 Y78.708205 Z-0.125000 I-17.287054 J-25.741774
G02 X164.934750 Y78.200746 Z-0.125000 I-16.205172 J-22.747294
G02 X165.596783 Y77.684541 Z-0.125000 I-20.157054 J-26.534061
G02 X166.244458 Y77.150534 Z-0.125000 I-17.906188 J-22.377436
G02 X166.859442 Y76.616200 Z-0.125000 I-23.558766 J-27.735691
G02 X167.461024 Y76.066626 Z-0.125000 I-19.743796 J-22.216271
G02 X168.025729 Y75.525933 Z-0.125000 I-27.525006 J-29.312603
G02 X168.579133 Y74.972472 Z-0.125000 I-22.676450 J-23.227514
G02 X169.090329 Y74.438224 Z-0.125000 I-26.620732 J-25.983801
G02 X169.594724 Y73.892211 Z-0.125000 I-35.593477 J-33.386425
G02 X170.040775 Y73.377680 Z-0.125000 I-10.515483 J-9.566570
G02 X170.460766 Y72.846460 Z-0.125000 I-12.270481 J-10.132875
G02 X170.808872 Y72.357155 Z-0.125000 I-8.156950 J-6.171577
G02 X171.125556 Y71.848654 Z-0.125000 I-7.785068 J-5.201243
G02 X171.370571 Y71.387273 Z-0.125000 I-6.138649 J-3.555663
G02 X171.577922 Y70.908615 Z-0.125000 I-5.515478 J-2.673502
G02 X171.719540 Y70.478401 Z-0.125000 I-4.387233 J-1.682611
G02 X171.815479 Y70.036668 Z-0.125000 I-3.896268 J-1.077499
G02 X171.853872 Y69.639593 Z-0.125000 I-3.203140 J-0.510105
G02 X171.840074 Y69.241725 Z-0.125000 I-2.865451 J-0.099804
G02 X171.775325 Y68.878597 Z-0.125000 I-2.538903 J0.265375
G02 X171.657451 Y68.529350 Z-0.125000 I-2.329705 J0.591783
G02 X171.488641 Y68.201812 Z-0.125000 I-2.304643 J0.980517
G02 X171.273665 Y67.901889 Z-0.125000 I-2.175676 J1.332455
G02 X171.001004 Y67.614264 Z-0.125000 I-2.365677 J1.969543
G02 X170.694126 Y67.362100 Z-0.125000 I-2.257705 J2.434771
G02 X170.321669 Y67.119708 Z-0.125000 I-2.557847 J3.523002
G02 X169.926768 Y66.914313 Z-0.125000 I-2.415381 J4.161592
G02 X169.461745 Y66.720894 Z-0.125000 I-2.699954 J5.835576
G02 X168.983151 Y66.562461 Z-0.125000 I-2.481151 J6.692995
G02 X168.434100 Y66.419976 Z-0.125000 I-2.613402 J8.941335
G02 X167.877674 Y66.309545 Z-0.125000 I-2.282973 J10.046148
G02 X167.253345 Y66.219027 Z-0.125000 I-2.166448 J12.744335
G02 X166.628302 Y66.158423 Z-0.125000 I-1.634465 J13.603526
G02 X165.933748 Y66.119563 Z-0.125000 I-1.435782 J19.435593
G02 X165.235336 Y66.104503 Z-0.125000 I-0.806437 J21.197330
G02 X164.465947 Y66.112922 Z-0.125000 I-0.122195 J23.994789
G02 X163.695710 Y66.144078 Z-0.125000 I0.772785 J28.641003
G02 X162.862511 Y66.202425 Z-0.125000 I1.402903 J26.011846
G02 X162.031030 Y66.284866 Z-0.125000 I2.785369 J32.326804
G02 X161.149190 Y66.398695 Z-0.125000 I2.973248 J26.506629
G02 X160.270903 Y66.539021 Z-0.125000 I4.797914 J32.848471
G02 X159.356924 Y66.714462 Z-0.125000 I4.466083 J25.735045
G02 X158.448905 Y66.919541 Z-0.125000 I6.537997 J31.060716
G02 X157.521390 Y67.162316 Z-0.125000 I5.853101 J24.254739
G02 X156.602960 Y67.438026 Z-0.125000 I7.934401 J28.098251
G02 X155.682040 Y67.752180 Z-0.125000 I7.129354 J22.406027
G02 X154.774044 Y68.102195 Z-0.125000 I9.015238 J24.739777
G02 X153.880505 Y68.489057 Z-0.125000 I8.271739 J20.330643
G02 X153.004359 Y68.913890 Z-0.125000 I9.817170 J21.362100
G02 X152.158633 Y69.371394 Z-0.125000 I9.235408 J18.082716
G02 X151.335232 Y69.867881 Z-0.125000 I10.356896 J18.107490
G02 X150.556398 Y70.390345 Z-0.125000 I9.962478 J15.692715
G02 X149.805107 Y70.951583 Z-0.125000 I10.633806 J15.018229
G02 X149.110058 Y71.529957 Z-0.125000 I10.380997 J13.181968
G02 X148.447755 Y72.145692 Z-0.125000 I10.660376 J12.130677
G02 X147.850825 Y72.767999 Z-0.125000 I10.343692 J10.519332
G02 X147.289606 Y73.426380 Z-0.125000 I10.892376 J9.853313
G02 X146.805873 Y74.077108 Z-0.125000 I8.500381 J6.824095
G02 X146.374488 Y74.760657 Z-0.125000 I8.526946 J5.859228
G02 X146.027248 Y75.421849 Z-0.125000 I8.021978 J4.634701
G02 X145.738817 Y76.109124 Z-0.125000 I7.334141 J3.482101
G02 X145.529787 Y76.764864 Z-0.125000 I7.543351 J2.765780
G02 X145.382325 Y77.436776 Z-0.125000 I6.680798 J1.818347
G02 X145.305817 Y78.072441 Z-0.125000 I6.782782 J1.138800
G02 X145.292865 Y78.712313 Z-0.125000 I6.027363 J0.442075
G02 X145.342790 Y79.314351 Z-0.125000 I6.039929 J-0.197784
G02 X145.455661 Y79.907626 Z-0.125000 I5.421970 J-0.724156
G02 X145.625206 Y80.463795 Z-0.125000 I5.360327 J-1.330142
G02 X145.854005 Y80.998147 Z-0.125000 I4.880177 J-1.773439
G02 X146.136021 Y81.497164 Z-0.125000 I4.771674 J-2.367476
G02 X146.470483 Y81.962496 Z-0.125000 I4.394234 J-2.805531
G02 X146.857475 Y82.393854 Z-0.125000 I4.255627 J-3.428659
G02 X147.287599 Y82.782115 Z-0.125000 I3.929343 J-3.920628
G02 X147.771453 Y83.136245 Z-0.125000 I3.761952 J-4.632415
G02 X148.287770 Y83.441160 Z-0.125000 I3.425635 J-5.211077
G02 X148.859403 Y83.709882 Z-0.125000 I3.210188 J-6.086434
G02 X149.452821 Y83.926707 Z-0.125000 I2.804115 J-6.753985
G02 X150.101977 Y84.103833 Z-0.125000 I2.497658 J-7.875661
G02 X150.763265 Y84.229301 Z-0.125000 I1.974930 J-8.603608
G02 X151.478549 Y84.311102 Z-0.125000 I1.509211 J-10.028616
G02 X152.195524 Y84.343730 Z-0.125000 I0.854342 J-10.879792
G02 X152.967236 Y84.328829 Z-0.125000 I0.152336 J-12.101560
G02 X153.739086 Y84.266384 Z-0.125000 I-0.672259 J-13.110803
G02 X154.565296 Y84.152902 Z-0.125000 I-1.746108 J-15.777096
G02 X155.386611 Y83.996676 Z-0.125000 I-2.688494 J-16.370961
G02 X156.251600 Y83.789458 Z-0.125000 I-4.284689 J-19.794556
G02 X157.106773 Y83.544759 Z-0.125000 I-5.236250 J-19.916272
G02 X157.989688 Y83.252601 Z-0.125000 I-7.138828 J-23.054047
G02 X158.860473 Y82.926782 Z-0.125000 I-8.043551 J-22.823771
G02 X159.742953 Y82.559033 Z-0.125000 I-10.012825 J-25.270315
G02 X160.611458 Y82.160512 Z-0.125000 I-10.775708 J-24.629325
G02 X161.476937 Y81.726867 Z-0.125000 I-12.695889 J-26.419270
G02 X162.326893 Y81.264737 Z-0.125000 I-13.161226 J-25.219008
G02 X163.161431 Y80.775006 Z-0.125000 I-15.206332 J-26.868633
G02 X163.979254 Y80.258895 Z-0.125000 I-15.132679 J-24.885082
G02 X164.772067 Y79.723100 Z-0.125000 I-17.767202 J-27.144504
G02 X165.547550 Y79.163238 Z-0.125000 I-16.830618 J-24.129642
G02 X166.291162 Y78.591982 Z-0.125000 I-20.791798 J-27.834562
G02 X167.017654 Y77.999397 Z-0.125000 I-18.545577 J-23.477961
G02 X167.707600 Y77.404298 Z-0.125000 I-24.812838 J-29.464982
G02 X168.381625 Y76.791070 Z-0.125000 I-20.596772 J-23.315847
G02 X169.015746 Y76.185152 Z-0.125000 I-30.564812 J-32.622250
G02 X169.636119 Y75.564573 Z-0.125000 I-23.383044 J-23.995671
G02 X170.213447 Y74.962421 Z-0.125000 I-38.397341 J-37.392234
G02 X170.785035 Y74.348334 Z-0.125000 I-43.582811 J-41.139660
G02 X171.298888 Y73.766432 Z-0.125000 I-14.898215 J-13.673806
G02 X171.791390 Y73.168774 Z-0.125000 I-19.746201 J-16.773682
G02 X172.206355 Y72.616324 Z-0.125000 I-8.977793 J-7.175608
G02 X172.585152 Y72.042526 Z-0.125000 I-9.160249 J-6.459143
G02 X172.882094 Y71.521173 Z-0.125000 I-7.281468 J-4.492477
G02 X173.138366 Y70.979574 Z-0.125000 I-6.520529 J-3.416789
G02 X173.319254 Y70.492487 Z-0.125000 I-5.238587 J-2.222573
G02 X173.450819 Y69.990793 Z-0.125000 I-4.622873 J-1.480401
G02 X173.516358 Y69.540520 Z-0.125000 I-3.812922 J-0.784894
G02 X173.524998 Y69.086505 Z-0.125000 I-3.377790 J-0.291369
G02 X173.476131 Y68.674210 Z-0.125000 I-2.965340 J0.142421
G02 X173.367989 Y68.273818 Z-0.125000 I-2.688716 J0.511398
G02 X173.204505 Y67.900955 Z-0.125000 I-2.611016 J0.922545
G02 X172.987808 Y67.555825 Z-0.125000 I-2.440002 J1.291409
G02 X172.709861 Y67.226422 Z-0.125000 I-2.617937 J1.927019
G02 X172.391216 Y66.934902 Z-0.125000 I-2.484767 J2.396060
G02 X172.002578 Y66.654523 Z-0.125000 I-2.816933 J3.495063
G02 X171.586620 Y66.414884 Z-0.125000 I-2.656769 J4.130709
G02 X171.094765 Y66.187624 Z-0.125000 I-3.018930 J5.887946
G02 X170.586112 Y65.999285 Z-0.125000 I-2.781386 J6.730737
G02 X170.000169 Y65.827050 Z-0.125000 I-3.027837 J9.217903
G02 X169.404561 Y65.690267 Z-0.125000 I-2.682914 J10.317300
G02 X168.734168 Y65.573768 Z-0.125000 I-2.663454 J13.339662
G02 X168.061724 Y65.490342 Z-0.125000 I-2.102698 J14.196858
G02 X167.313919 Y65.429184 Z-0.125000 I-2.052041 J20.488486
G02 X166.563715 Y65.394823 Z-0.125000 I-1.350504 J21.278762
G02 X165.733638 Y65.383331 Z-0.125000 I-0.816364 J28.984301
G02 X164.899985 Y65.394057 Z-0.125000 I0.015742 J33.627083
G02 X163.990566 Y65.430745 Z-0.125000 I0.763404 J30.213098
G02 X163.082031 Y65.491800 Z-0.125000 I2.150704 J38.794102
G02 X162.111024 Y65.584168 Z-0.125000 I2.396741 J30.345166
G02 X161.142649 Y65.704105 Z-0.125000 I4.368075 J39.237373
G02 X160.127786 Y65.860756 Z-0.125000 I3.951699 J28.966881
G02 X159.118027 Y66.049307 Z-0.125000 I6.279171 J36.425300
G02 X158.079951 Y66.279075 Z-0.125000 I5.423685 J26.963724
G02 X157.050394 Y66.545419 Z-0.125000 I7.813105 J32.324690
G02 X156.012097 Y66.855548 Z-0.125000 I6.822962 J24.736087
G02 X154.986722 Y67.206495 Z-0.125000 I9.026155 J28.045444
G02 X153.972506 Y67.601016 Z-0.125000 I8.135171 J22.414446
G02 X152.976482 Y68.039532 Z-0.125000 I9.974884 J24.006887
G02 X152.010623 Y68.518169 Z-0.125000 I9.313934 J20.008758
G02 X151.068850 Y69.042497 Z-0.125000 I10.683171 J20.296557
G02 X150.174203 Y69.600269 Z-0.125000 I10.284864 J17.492961
G02 X149.309868 Y70.203766 Z-0.125000 I11.142684 J16.879362
G02 X148.506687 Y70.831244 Z-0.125000 I10.961978 J14.859282
G02 X147.740149 Y71.502816 Z-0.125000 I11.328749 J13.703967
G02 X147.045339 Y72.186832 Z-0.125000 I11.263061 J12.135691
G02 X146.390978 Y72.912836 Z-0.125000 I11.675372 J11.181135
G02 X145.820318 Y73.636358 Z-0.125000 I9.906480 J8.400307
G02 X145.303253 Y74.398869 Z-0.125000 I10.192450 J7.468147
G02 X144.880659 Y75.141160 Z-0.125000 I8.647817 J5.414728
G02 X144.526788 Y75.914845 Z-0.125000 I8.099788 J4.172483
G02 X144.264990 Y76.655636 Z-0.125000 I8.564800 J3.443482
G02 X144.072871 Y77.417023 Z-0.125000 I7.516475 J2.301546
G02 X143.962511 Y78.139685 Z-0.125000 I7.853155 J1.569041
G02 X143.923573 Y78.869423 Z-0.125000 I6.914527 J0.734857
G02 X143.956505 Y79.558114 Z-0.125000 I7.108216 J0.005233
G02 X144.059887 Y80.239622 Z-0.125000 I6.328787 J-0.611462
G02 X144.227277 Y80.880214 Z-0.125000 I6.382370 J-1.325570
G02 X144.461140 Y81.499471 Z-0.125000 I5.771970 J-1.826012
G02 X144.754045 Y82.079119 Z-0.125000 I5.704453 J-2.518716
G02 X145.106507 Y82.624400 Z-0.125000 I5.234285 J-2.996815
G02 X145.516095 Y83.131260 Z-0.125000 I5.076631 J-3.683442
G02 X145.975815 Y83.592906 Z-0.125000 I4.692107 J-4.212810
G02 X146.493192 Y84.016134 Z-0.125000 I4.473105 J-4.940316
G02 X147.049623 Y84.386375 Z-0.125000 I4.104104 J-5.564767
G02 X147.665414 Y84.716427 Z-0.125000 I3.835322 J-6.416224
G02 X148.308692 Y84.989249 Z-0.125000 I3.409253 J-7.143776
G02 X149.012575 Y85.218471 Z-0.125000 I3.069804 J-8.231276
G02 X149.733061 Y85.389585 Z-0.125000 I2.525232 J-9.030243
G02 X150.513393 Y85.512846 Z-0.125000 I2.054386 J-10.474124
G02 X151.299133 Y85.579976 Z-0.125000 I1.367653 J-11.375927
G02 X152.144568 Y85.595009 Z-0.125000 I0.650203 J-12.785963
G02 X152.989135 Y85.556296 Z-0.125000 I-0.211098 J-13.837143
G02 X153.895264 Y85.461268 Z-0.125000 I-1.235387 J-16.147540
G02 X154.799376 Y85.316014 Z-0.125000 I-2.269554 J-17.012835
G02 X155.757190 Y85.113069 Z-0.125000 I-3.967431 J-21.086327
G02 X156.705041 Y84.866899 Z-0.125000 I-4.998995 J-21.195997
G02 X157.687691 Y84.566842 Z-0.125000 I-7.093971 J-24.990972
G02 X158.657472 Y84.228305 Z-0.125000 I-8.096387 J-24.751345
G02 X159.642401 Y83.842189 Z-0.125000 I-10.215480 J-27.507600
G02 X160.612171 Y83.420940 Z-0.125000 I-11.120174 J-26.926932
G02 X161.578905 Y82.959869 Z-0.125000 I-13.004547 J-28.510835
G02 X162.528425 Y82.466056 Z-0.125000 I-13.671727 J-27.448243
G02 X163.459706 Y81.940822 Z-0.125000 I-15.451087 J-28.484249
G02 X164.372003 Y81.384875 Z-0.125000 I-15.629237 J-26.673762
G02 X165.254669 Y80.806089 Z-0.125000 I-17.857709 J-28.195955
G02 X166.117171 Y80.198856 Z-0.125000 I-17.191336 J-25.334394
G02 X166.942518 Y79.577469 Z-0.125000 I-20.743745 J-28.411351
G02 X167.747536 Y78.930576 Z-0.125000 I-18.741035 J-24.146402
G02 X168.511101 Y78.278628 Z-0.125000 I-24.892810 J-29.927720
G02 X169.255560 Y77.604919 Z-0.125000 I-20.746026 J-23.672834
G02 X169.956343 Y76.936253 Z-0.125000 I-31.647830 J-33.869520
G02 X170.640725 Y76.250198 Z-0.125000 I-23.771412 J-24.397826
G02 X171.279870 Y75.580940 Z-0.125000 I-43.905081 J-42.569350
G02 X171.909886 Y74.898498 Z-0.125000 I-36.211832 J-34.062092
G02 X172.485540 Y74.247444 Z-0.125000 I-26.559465 J-24.063550
G02 X173.050550 Y73.583111 Z-0.125000 I-46.444899 J-40.073481
G02 X173.536302 Y72.965740 Z-0.125000 I-9.702997 J-8.134175
G02 X173.980696 Y72.325615 Z-0.125000 I-10.897459 J-8.039660
G02 X174.333483 Y71.742624 Z-0.125000 I-8.423274 J-5.495426
G02 X174.642332 Y71.136375 Z-0.125000 I-7.589304 J-4.248113
G02 X174.866009 Y70.590214 Z-0.125000 I-6.184786 J-2.851826
G02 X175.036916 Y70.026272 Z-0.125000 I-5.426476 J-1.952400
G02 X175.133087 Y69.520208 Z-0.125000 I-4.518892 J-1.120933
G02 X175.168112 Y69.007235 Z-0.125000 I-3.967282 J-0.528565
G02 X175.138749 Y68.543156 Z-0.125000 I-3.468451 J-0.013512
G02 X175.044475 Y68.088434 Z-0.125000 I-3.108220 J0.407269
G02 X174.890396 Y67.667982 Z-0.125000 I-2.963656 J0.847608
G02 X174.676183 Y67.274550 Z-0.125000 I-2.738644 J1.236084
G02 X174.397811 Y66.901519 Z-0.125000 I-2.882331 J1.860540
G02 X174.071833 Y66.568139 Z-0.125000 I-2.716376 J2.330002
G02 X173.672578 Y66.248227 Z-0.125000 I-3.057197 J3.406328
G02 X173.240499 Y65.972605 Z-0.125000 I-2.874583 J4.029863
G02 X172.727842 Y65.710314 Z-0.125000 I-3.295931 J5.809851
G02 X172.194652 Y65.491004 Z-0.125000 I-3.035834 J6.622982
G02 X171.578216 Y65.288232 Z-0.125000 I-3.393145 J9.276943
G02 X170.949789 Y65.124606 Z-0.125000 I-3.020157 J10.310691
G02 X170.239802 Y64.981530 Z-0.125000 I-3.144661 J13.771696
G02 X169.525025 Y64.874154 Z-0.125000 I-2.583802 J14.766992
G02 X168.730313 Y64.789930 Z-0.125000 I-2.566442 J20.424664
G02 X167.936119 Y64.736968 Z-0.125000 I-1.749225 J20.249537
G02 X167.055373 Y64.706446 Z-0.125000 I-1.674596 J35.599389
G02 X166.168292 Y64.696953 Z-0.125000 I-0.852774 J38.235859
G02 X165.192725 Y64.711103 Z-0.125000 I0.032163 J35.855114
G02 X164.216841 Y64.748612 Z-0.125000 I1.331398 J47.352361
G02 X163.165215 Y64.815769 Z-0.125000 I1.705510 J34.974474
G02 X162.115191 Y64.910374 Z-0.125000 I3.760250 J47.609730
G02 X161.006331 Y65.041752 Z-0.125000 I3.300678 J32.603574
G02 X159.901423 Y65.206270 Z-0.125000 I5.854169 J43.109437
G02 X158.757553 Y65.414311 Z-0.125000 I4.828647 J29.797897
G02 X157.621179 Y65.661846 Z-0.125000 I7.517220 J37.242059
G02 X156.467918 Y65.957810 Z-0.125000 I6.328595 J27.055045
G02 X155.327018 Y66.299207 Z-0.125000 I8.851077 J31.656136
G02 X154.192258 Y66.690774 Z-0.125000 I7.797048 J24.435856
G02 X153.075936 Y67.132382 Z-0.125000 I9.941867 J26.763356
G02 X151.988152 Y67.621926 Z-0.125000 I9.183186 J21.858687
G02 X150.925743 Y68.164175 Z-0.125000 I10.817465 J22.506147
G02 X149.912062 Y68.748031 Z-0.125000 I10.403229 J19.233828
G02 X148.931126 Y69.385050 Z-0.125000 I11.467247 J18.732002
G02 X148.015655 Y70.053766 Z-0.125000 I11.355643 J16.506842
G02 X147.140334 Y70.773929 Z-0.125000 I11.857708 J15.304480
G02 X146.343073 Y71.513230 Z-0.125000 I11.934439 J13.669618
G02 X145.591857 Y72.300853 Z-0.125000 I12.164208 J12.353972
G02 X144.929657 Y73.092365 Z-0.125000 I11.418716 J10.225979
G02 X144.320840 Y73.929262 Z-0.125000 I11.968214 J9.346395
G02 X143.815495 Y74.749824 Z-0.125000 I9.316947 J6.303757
G02 X143.387770 Y75.607739 Z-0.125000 I8.974848 J5.010119
G02 X143.065109 Y76.432413 Z-0.125000 I9.444175 J4.170574
G02 X142.821068 Y77.282676 Z-0.125000 I8.281361 J2.837049
G02 X142.670465 Y78.092171 Z-0.125000 I8.910350 J2.076496
G02 X142.599432 Y78.912199 Z-0.125000 I7.763643 J1.085596
G02 X142.609814 Y79.688453 Z-0.125000 I8.212032 J0.278359
G02 X142.698228 Y80.459584 Z-0.125000 I7.240901 J-0.439571
G02 X142.858316 Y81.186538 Z-0.125000 I7.480385 J-1.266205
G02 X143.091977 Y81.893152 Z-0.125000 I6.711471 J-1.827389
G02 X143.390689 Y82.556382 Z-0.125000 I6.737056 J-2.635415
G02 X143.755852 Y83.185251 Z-0.125000 I6.153676 J-3.152778
G02 X144.182734 Y83.771569 Z-0.125000 I5.999167 J-3.919267
G02 X144.666644 Y84.311444 Z-0.125000 I5.546247 J-4.484501
G02 X145.211861 Y84.808735 Z-0.125000 I5.271067 J-5.231539
G02 X145.802922 Y85.250205 Z-0.125000 I4.868325 J-5.901535
G02 X146.456859 Y85.647556 Z-0.125000 I4.526105 J-6.712026
G02 X147.144517 Y85.983076 Z-0.125000 I4.086494 J-7.502928
G02 X147.897072 Y86.271252 Z-0.125000 I3.691388 J-8.513136
G02 X148.671376 Y86.495230 Z-0.125000 I3.137650 J-9.396638
G02 X149.511211 Y86.667441 Z-0.125000 I2.647554 J-10.777558
G02 X150.361205 Y86.776462 Z-0.125000 I1.936531 J-11.730345
G02 X151.275979 Y86.829080 Z-0.125000 I1.229529 J-13.397470
G02 X152.189592 Y86.821691 Z-0.125000 I0.339563 J-14.499537
G02 X153.171703 Y86.753102 Z-0.125000 I-0.646654 J-16.325080
G02 X154.154341 Y86.626537 Z-0.125000 I-1.749508 J-17.460837
G02 X155.201632 Y86.435748 Z-0.125000 I-3.472238 J-22.029831
G02 X156.239942 Y86.195278 Z-0.125000 I-4.592310 J-22.190647
G02 X157.322333 Y85.894139 Z-0.125000 I-6.893402 J-26.872955
G02 X158.391435 Y85.549497 Z-0.125000 I-7.977767 J-26.578061
G02 X159.480777 Y85.151312 Z-0.125000 I-10.302778 J-29.875211
G02 X160.554088 Y84.713609 Z-0.125000 I-11.340011 J-29.342193
G02 X161.625165 Y84.231208 Z-0.125000 I-13.218322 J-30.778938
G02 X162.677624 Y83.711780 Z-0.125000 I-14.102448 J-29.900162
G02 X163.708975 Y83.157083 Z-0.125000 I-15.571103 J-30.187609
G02 X164.719246 Y82.567153 Z-0.125000 I-16.041550 J-28.631583
G02 X165.694480 Y81.951286 Z-0.125000 I-17.711576 J-29.126617
G02 X166.646666 Y81.302172 Z-0.125000 I-17.393521 J-26.537503
G02 X167.555157 Y80.636179 Z-0.125000 I-20.257780 J-28.586595
G02 X168.439745 Y79.939835 Z-0.125000 I-18.654635 J-24.607590
G02 X169.276587 Y79.235741 Z-0.125000 I-24.117304 J-29.513702
G02 X170.090434 Y78.505420 Z-0.125000 I-20.403748 J-23.555920
G02 X170.855632 Y77.777370 Z-0.125000 I-30.939568 J-33.284367
G02 X171.600883 Y77.028309 Z-0.125000 I-23.329238 J-23.955829
G02 X172.297884 Y76.293464 Z-0.125000 I-45.162446 J-43.534647
G02 X172.981253 Y75.543290 Z-0.125000 I-30.727825 J-28.677741
G02 X173.613492 Y74.822362 Z-0.125000 I-52.626434 J-46.789950
G02 X174.243485 Y74.090055 Z-0.125000 I-135.008224 J-116.782800
G02 X174.796477 Y73.404932 Z-0.125000 I-11.677725 J-9.991327
G02 X175.308694 Y72.697659 Z-0.125000 I-14.700023 J-11.185069
G02 X175.722197 Y72.050990 Z-0.125000 I-9.232965 J-6.359427
G02 X176.086967 Y71.378206 Z-0.125000 I-8.698219 J-5.151276
G02 X176.356683 Y70.770421 Z-0.125000 I-7.219526 J-3.567541
G02 X176.570186 Y70.141606 Z-0.125000 I-6.298991 J-2.489368
G02 X176.700096 Y69.576559 Z-0.125000 I-5.332614 J-1.523473
G02 X176.764929 Y69.001333 Z-0.125000 I-4.642547 J-0.814525
G02 X176.758185 Y68.482030 Z-0.125000 I-4.069066 J-0.206851
G02 X176.681452 Y67.969131 Z-0.125000 I-3.606797 J0.277414
G02 X176.540219 Y67.497926 Z-0.125000 I-3.385372 J0.757919
G02 X176.332245 Y67.052237 Z-0.125000 I-3.091892 J1.171414
G02 X176.057614 Y66.632928 Z-0.125000 I-3.179413 J1.782798
G02 X175.728184 Y66.254294 Z-0.125000 I-2.971428 J2.252660
G02 X175.323267 Y65.892662 Z-0.125000 I-3.293105 J3.279762
G02 X174.879338 Y65.578594 Z-0.125000 I-3.083495 J3.887682
G02 X174.351361 Y65.279615 Z-0.125000 I-3.536301 J5.629202
G02 X173.798470 Y65.027850 Z-0.125000 I-3.251123 J6.406687
G02 X173.157366 Y64.793557 Z-0.125000 I-3.701336 J9.133821
G02 X172.501541 Y64.602460 Z-0.125000 I-3.294321 J10.084841
G02 X171.758127 Y64.432500 Z-0.125000 I-3.568576 J13.898247
G02 X171.007153 Y64.301111 Z-0.125000 I-3.005063 J14.964124
G02 X170.171904 Y64.194018 Z-0.125000 I-3.003455 J20.113983
G02 X169.338657 Y64.122689 Z-0.125000 I-2.081246 J19.410062
G02 X168.414200 Y64.073947 Z-0.125000 I-2.619245 J40.886715
G02 X167.483149 Y64.046486 Z-0.125000 I-1.619748 J39.118925
G02 X166.452923 Y64.040038 Z-0.125000 I-0.799561 J45.448069
G02 X165.420080 Y64.054250 Z-0.125000 I0.299605 J59.310376
G02 X164.297339 Y64.094833 Z-0.125000 I0.923644 J41.103686
G02 X163.175195 Y64.161330 Z-0.125000 I2.972324 J59.660159
G02 X161.980481 Y64.262859 Z-0.125000 I2.539870 J36.966981
G02 X160.788388 Y64.397443 Z-0.125000 I5.272920 J52.052650
G02 X159.544865 Y64.576274 Z-0.125000 I4.097364 J32.904377
G02 X158.307411 Y64.796482 Z-0.125000 I7.062848 J43.276622
G02 X157.042875 Y65.068687 Z-0.125000 I5.672336 J29.424286
G02 X155.789577 Y65.390324 Z-0.125000 I8.510569 J35.765041
G02 X154.535422 Y65.768302 Z-0.125000 I7.274717 J26.407643
G02 X153.299326 Y66.202203 Z-0.125000 I9.735653 J29.712601
G02 X152.088527 Y66.692025 Z-0.125000 I8.855828 J23.632251
G02 X150.903828 Y67.241791 Z-0.125000 I10.773631 J24.767591
G02 X149.768364 Y67.841916 Z-0.125000 I10.321918 J20.903786
G02 X148.667644 Y68.503117 Z-0.125000 I11.610596 J20.575304
G02 X147.636087 Y69.204532 Z-0.125000 I11.559028 J18.108878
G02 X146.647910 Y69.965330 Z-0.125000 I12.211950 J16.883879
G02 X145.743819 Y70.752829 Z-0.125000 I12.438275 J15.192529
G02 X144.891005 Y71.595670 Z-0.125000 I12.575753 J13.577426
G02 X144.132717 Y72.449444 Z-0.125000 I12.693204 J12.037225
G02 X143.429204 Y73.355022 Z-0.125000 I13.316076 J11.070868
G02 X142.836430 Y74.249846 Z-0.125000 I10.278653 J7.452821
G02 X142.326102 Y75.188738 Z-0.125000 I10.187237 J6.145342
G02 X141.933220 Y76.095620 Z-0.125000 I10.071421 J4.901709
G02 X141.629446 Y77.033514 Z-0.125000 I8.953926 J3.418229
G02 X141.431888 Y77.928982 Z-0.125000 I9.926102 J2.659414
G02 X141.322451 Y78.839079 Z-0.125000 I8.550627 J1.489824
G02 X141.304661 Y79.703114 Z-0.125000 I9.324110 J0.624179
G02 X141.372692 Y80.564542 Z-0.125000 I8.131322 J-0.208773
G02 X141.520476 Y81.379102 Z-0.125000 I8.637874 J-1.146463
G02 X141.748874 Y82.174748 Z-0.125000 I7.677612 J-1.773329
G02 X142.048568 Y82.923838 Z-0.125000 I7.869585 J-2.713946
G02 X142.421347 Y83.639159 Z-0.125000 I7.144383 J-3.268394
G02 X142.860499 Y84.308263 Z-0.125000 I7.035957 J-4.139234
G02 X143.363316 Y84.930536 Z-0.125000 I6.497783 J-4.736133
G02 X143.930896 Y85.506303 Z-0.125000 I6.172349 J-5.516953
G02 X144.551087 Y86.024423 Z-0.125000 I5.732131 J-6.231125
G02 X145.237158 Y86.494589 Z-0.125000 I5.295442 J-6.991523
G02 X145.963543 Y86.899260 Z-0.125000 I4.848375 J-7.848562
G02 X146.758415 Y87.252976 Z-0.125000 I4.367984 J-8.745772
G02 X147.580857 Y87.536990 Z-0.125000 I3.817023 J-9.720480
G02 X148.473950 Y87.765595 Z-0.125000 I3.285145 J-10.975228
G02 X149.382440 Y87.924123 Z-0.125000 I2.562142 J-12.000693
G02 X150.361348 Y88.022207 Z-0.125000 I1.877901 J-13.808106
G02 X151.341028 Y88.053506 Z-0.125000 I0.969483 J-14.997448
G02 X152.395602 Y88.019111 Z-0.125000 I-0.011215 J-16.528166
G02 X153.451410 Y87.919387 Z-0.125000 I-1.153750 J-17.853984
G02 X154.582791 Y87.749406 Z-0.125000 I-2.791432 J-22.429731
G02 X155.708019 Y87.522223 Z-0.125000 I-4.020680 J-22.814560
G02 X156.889401 Y87.227166 Z-0.125000 I-6.518188 J-28.610839
G02 X158.057406 Y86.883291 Z-0.125000 I-7.671329 J-28.211923
G02 X159.253011 Y86.479489 Z-0.125000 I-10.277946 J-32.403610
G02 X160.432053 Y86.031781 Z-0.125000 I-11.422831 J-31.858455
G02 X161.611073 Y85.534213 Z-0.125000 I-13.381679 J-33.354449
G02 X162.770427 Y84.995421 Z-0.125000 I-14.474686 J-32.662790
G02 X163.906185 Y84.417406 Z-0.125000 I-15.641285 J-32.138884
G02 X165.019065 Y83.799610 Z-0.125000 I-16.427196 J-30.902739
G02 X166.090937 Y83.152826 Z-0.125000 I-17.462506 J-30.151009
G02 X167.136975 Y82.467700 Z-0.125000 I-17.534114 J-27.911836
G02 X168.131507 Y81.763075 Z-0.125000 I-19.547033 J-28.643543
G02 X169.098331 Y81.022641 Z-0.125000 I-18.425976 J-25.061233
G02 X170.009472 Y80.271785 Z-0.125000 I-22.837054 J-28.640287
G02 X170.893094 Y79.489376 Z-0.125000 I-19.773366 J-23.221467
G02 X171.721477 Y78.706173 Z-0.125000 I-29.026119 J-31.530191
G02 X172.525346 Y77.897358 Z-0.125000 I-22.326953 J-22.994291
G02 X173.276696 Y77.099384 Z-0.125000 I-42.870778 J-41.118669
G02 X174.009516 Y76.282851 Z-0.125000 I-27.458963 J-25.380935
G02 X174.692157 Y75.492265 Z-0.125000 I-87.659417 J-76.380453
G02 X175.373986 Y74.690233 Z-0.125000 I-125.000811 J-106.957460
G02 X175.985290 Y73.933858 Z-0.125000 I-17.162849 J-14.496271
G02 X176.566669 Y73.158946 Z-0.125000 I-26.593168 J-20.557123
G02 X177.046668 Y72.446414 Z-0.125000 I-9.535648 J-6.941650
G02 X177.470552 Y71.705180 Z-0.125000 I-9.821682 J-6.108464
G02 X177.789387 Y71.033070 Z-0.125000 I-8.320252 J-4.358637
G02 X178.048396 Y70.336548 Z-0.125000 I-7.224574 J-3.082959
G02 X178.214857 Y69.708893 Z-0.125000 I-6.257626 J-1.995492
G02 X178.312461 Y69.067732 Z-0.125000 I-5.404857 J-1.150785
G02 X178.331059 Y68.489028 Z-0.125000 I-4.789307 J-0.443574
G02 X178.275097 Y67.913524 Z-0.125000 I-4.201509 J0.118086
G02 X178.149614 Y67.387444 Z-0.125000 I-3.903722 J0.653131
G02 X177.951251 Y66.884683 Z-0.125000 I-3.524227 J1.099958
G02 X177.683892 Y66.415501 Z-0.125000 I-3.533631 J1.702841
G02 X177.354439 Y65.987169 Z-0.125000 I-3.272035 J2.175827
G02 X176.948232 Y65.580806 Z-0.125000 I-3.543826 J3.136255
G02 X176.496169 Y65.224833 Z-0.125000 I-3.301626 J3.727829
G02 X175.957832 Y64.886775 Z-0.125000 I-3.751616 J5.376566
G02 X175.389447 Y64.600284 Z-0.125000 I-3.440495 J6.118712
G02 X174.728979 Y64.332934 Z-0.125000 I-3.951492 J8.812375
G02 X174.050501 Y64.113274 Z-0.125000 I-3.509407 J9.682069
G02 X173.279231 Y63.915888 Z-0.125000 I-3.918615 J13.706128
G02 X172.497967 Y63.760621 Z-0.125000 I-3.325966 J14.692244
G02 X171.627481 Y63.630839 Z-0.125000 I-3.419796 J19.953407
G02 X170.757509 Y63.540215 Z-0.125000 I-2.451420 J19.311926
G02 X169.794030 Y63.473487 Z-0.125000 I-3.220790 J39.515394
G02 X168.827846 Y63.432130 Z-0.125000 I-1.940384 J34.024656
G02 X167.755375 Y63.410016 Z-0.125000 I-1.922997 J67.243719
G02 X166.676337 Y63.403805 Z-0.125000 I-0.989468 J78.163094
G02 X165.492659 Y63.419118 Z-0.125000 I0.057525 J50.202973
G02 X164.308749 Y63.457246 Z-0.125000 I1.960802 J79.284174
G02 X163.037416 Y63.526694 Z-0.125000 I1.693042 J42.664293
G02 X161.767350 Y63.627516 Z-0.125000 I4.545145 J65.305626
G02 X160.431670 Y63.771349 Z-0.125000 I3.256624 J36.515879
G02 X159.100337 Y63.957074 Z-0.125000 I6.467605 J51.226210
G02 X157.729579 Y64.196849 Z-0.125000 I4.878847 J31.929819
G02 X156.368389 Y64.489123 Z-0.125000 I8.019081 J40.662579
G02 X154.997112 Y64.843098 Z-0.125000 I6.591583 J28.368499
G02 X153.642827 Y65.258473 Z-0.125000 I9.371001 J32.968572
G02 X152.308673 Y65.737690 Z-0.125000 I8.348477 J25.339151
G02 X151.000680 Y66.284171 Z-0.125000 I10.565761 J27.127560
G02 X149.741086 Y66.890245 Z-0.125000 I10.052041 J22.502916
G02 X148.517723 Y67.565754 Z-0.125000 I11.587368 J22.430527
G02 X147.366511 Y68.290755 Z-0.125000 I11.571830 J19.651132
G02 X146.261596 Y69.083689 Z-0.125000 I12.395388 J18.438667
G02 X145.246540 Y69.911699 Z-0.125000 I12.766566 J16.686693
G02 X144.287167 Y70.802993 Z-0.125000 I12.941780 J14.892275
G02 X143.429085 Y71.712482 Z-0.125000 I13.492430 J13.589323
G02 X142.630973 Y72.680118 Z-0.125000 I13.831090 J12.220941
G02 X141.948489 Y73.644290 Z-0.125000 I11.787082 J9.067045
G02 X141.346444 Y74.659821 Z-0.125000 I12.045290 J7.827125
G02 X140.872597 Y75.646683 Z-0.125000 I10.392856 J5.597378
G02 X140.500530 Y76.670375 Z-0.125000 I9.527525 J4.042292
G02 X140.248829 Y77.650307 Z-0.125000 I10.866145 J3.313324
G02 X140.094353 Y78.649708 Z-0.125000 I9.249922 J1.941385
G02 X140.042648 Y79.601104 Z-0.125000 I10.413231 J1.043033
G02 X140.084910 Y80.552880 Z-0.125000 I8.968956 J0.078575
G02 X140.215518 Y81.455619 Z-0.125000 I9.833670 J-0.961921
G02 X140.433833 Y82.341246 Z-0.125000 I8.644014 J-1.661102
G02 X140.729976 Y83.177782 Z-0.125000 I9.094679 J-2.748933
G02 X141.105599 Y83.981625 Z-0.125000 I8.191722 J-3.338171
G02 X141.552371 Y84.736176 Z-0.125000 I8.195839 J-4.343251
G02 X142.069073 Y85.444242 Z-0.125000 I7.548531 J-4.965878
G02 X142.653883 Y86.102268 Z-0.125000 I7.195587 J-5.806079
G02 X143.297836 Y86.701832 Z-0.125000 I6.709567 J-6.560704
G02 X144.010218 Y87.249783 Z-0.125000 I6.161822 J-7.273838
G02 X144.769642 Y87.729658 Z-0.125000 I5.711816 J-8.198367
G02 X145.600364 Y88.155088 Z-0.125000 I5.110464 J-8.955238
G02 X146.465032 Y88.506153 Z-0.125000 I4.575147 J-10.028160
G02 X147.404638 Y88.798414 Z-0.125000 I3.965995 J-11.093973
G02 X148.365093 Y89.014119 Z-0.125000 I3.253812 J-12.241868
G02 X149.402327 Y89.165626 Z-0.125000 I2.564360 J-13.929675
G02 X150.445555 Y89.242762 Z-0.125000 I1.648121 J-15.196774
G02 X151.569100 Y89.250057 Z-0.125000 I0.671952 J-16.967229
G02 X152.691709 Y89.185751 Z-0.125000 I-0.488716 J-18.362622
G02 X153.899738 Y89.045979 Z-0.125000 I-1.949823 J-22.142317
G02 X155.106694 Y88.840167 Z-0.125000 I-3.301270 J-23.001824
G02 X156.384953 Y88.558884 Z-0.125000 I-5.945646 J-30.064383
G02 X157.650220 Y88.222968 Z-0.125000 I-7.160652 J-29.522318
G02 X158.953408 Y87.820213 Z-0.125000 I-10.121522 J-35.059773
G02 X160.239851 Y87.369130 Z-0.125000 I-11.342388 J-34.407293
G02 X161.530576 Y86.862619 Z-0.125000 I-13.505414 J-36.313153
G02 X162.800997 Y86.310864 Z-0.125000 I-14.793632 J-35.800956
G02 X164.046300 Y85.715728 Z-0.125000 I-15.717978 J-34.489812
G02 X165.267347 Y85.076386 Z-0.125000 I-16.831284 J-33.630930
G02 X166.441197 Y84.405000 Z-0.125000 I-17.204589 J-31.442295
G02 X167.586736 Y83.690029 Z-0.125000 I-17.692156 J-29.621870
G02 X168.671772 Y82.953079 Z-0.125000 I-18.769014 J-28.801506
G02 X169.725281 Y82.174350 Z-0.125000 I-18.158156 J-25.667376
G02 X170.713400 Y81.382668 Z-0.125000 I-21.373846 J-27.689744
G02 X171.668983 Y80.553256 Z-0.125000 I-19.024191 J-22.883337
G02 X172.560777 Y79.719925 Z-0.125000 I-26.558083 J-29.315146
G02 X173.422486 Y78.855333 Z-0.125000 I-21.052373 J-21.843906
G02 X174.225655 Y77.997673 Z-0.125000 I-38.548550 J-36.904220
G02 X175.005170 Y77.116994 Z-0.125000 I-25.425530 J-23.290257
G02 X175.731923 Y76.258023 Z-0.125000 I-81.077361 J-69.334340
G02 X176.450682 Y75.384941 Z-0.125000 I-52.973577 J-44.342537
G02 X177.108181 Y74.554064 Z-0.125000 I-36.973741 J-29.934036
G02 X177.756244 Y73.710753 Z-0.125000 I-136.676400 J-105.702978
G02 X178.306064 Y72.929585 Z-0.125000 I-9.776029 J-7.464884
G02 X178.791841 Y72.118198 Z-0.125000 I-11.343315 J-7.342338
G02 X179.163295 Y71.379079 Z-0.125000 I-9.342750 J-5.158219
G02 X179.470501 Y70.611998 Z-0.125000 I-8.178074 J-3.720277
G02 X179.676123 Y69.917877 Z-0.125000 I-7.287283 J-2.536248
G02 X179.809050 Y69.206864 Z-0.125000 I-6.247299 J-1.535895
G02 X179.855380 Y68.564005 Z-0.125000 I-5.646789 J-0.730059
G02 X179.822984 Y67.921020 Z-0.125000 I-4.906628 J-0.075093
G02 X179.715691 Y67.335046 Z-0.125000 I-4.547158 J0.529786
G02 X179.529983 Y66.769641 Z-0.125000 I-4.060204 J1.020376
G02 X179.272840 Y66.245970 Z-0.125000 I-3.975031 J1.626929
G02 X178.946452 Y65.762416 Z-0.125000 I-3.645481 J2.108688
G02 X178.542774 Y65.307330 Z-0.125000 I-3.834639 J2.994888
G02 X178.085830 Y64.904813 Z-0.125000 I-3.552478 J3.572197
G02 X177.541666 Y64.524350 Z-0.125000 I-3.961479 J5.086602
G02 X176.961449 Y64.199795 Z-0.125000 I-3.623428 J5.796808
G02 X176.286481 Y63.896978 Z-0.125000 I-4.155032 J8.357767
G02 X175.589495 Y63.646837 Z-0.125000 I-3.681601 J9.162188
G02 X174.795413 Y63.420829 Z-0.125000 I-4.190006 J13.213670
G02 X173.989011 Y63.241383 Z-0.125000 I-3.545730 J14.032275
G02 X173.088040 Y63.088796 Z-0.125000 I-3.818300 J19.809462
G02 X172.183798 Y62.977757 Z-0.125000 I-2.872430 J19.654141
G02 X171.185247 Y62.893214 Z-0.125000 I-3.357775 J33.719865
G02 X170.189982 Y62.841763 Z-0.125000 I-1.924473 J27.575148
G02 X169.085077 Y62.809426 Z-0.125000 I-4.258240 J126.603112
G02 X167.969956 Y62.787932 Z-0.125000 I-2.466229 J99.013811
G02 X166.736577 Y62.782428 Z-0.125000 I-0.916520 J67.180216
G02 X165.501743 Y62.794712 Z-0.125000 I0.555161 J117.875885
G02 X164.163873 Y62.832624 Z-0.125000 I0.773124 J50.906933
G02 X162.826065 Y62.898362 Z-0.125000 I3.643695 J87.796764
G02 X161.406992 Y63.003608 Z-0.125000 I2.330339 J41.040434
G02 X159.990408 Y63.149537 Z-0.125000 I5.739342 J62.662513
G02 X158.519910 Y63.349577 Z-0.125000 I3.973711 J34.715682
G02 X157.056836 Y63.603878 Z-0.125000 I7.390704 J46.856997
G02 X155.571968 Y63.923968 Z-0.125000 I5.769426 J30.367922
G02 X154.102315 Y64.310225 Z-0.125000 I8.863771 J36.714505
G02 X152.645321 Y64.767848 Z-0.125000 I7.680540 J27.001755
G02 X151.213779 Y65.299953 Z-0.125000 I10.212216 J29.666031
G02 X149.828112 Y65.901226 Z-0.125000 I9.603987 J24.030202
G02 X148.479521 Y66.580674 Z-0.125000 I11.410986 J24.327018
G02 X147.205201 Y67.319616 Z-0.125000 I11.399594 J21.127088
G02 X145.979688 Y68.135701 Z-0.125000 I12.417287 J19.975214
G02 X144.849605 Y68.996032 Z-0.125000 I12.912222 J18.133150
G02 X143.779122 Y69.928427 Z-0.125000 I13.186372 J16.219987
G02 X142.817427 Y70.886748 Z-0.125000 I13.982879 J14.993809
G02 X141.922572 Y71.910002 Z-0.125000 I13.966141 J13.116571
G02 X141.147435 Y72.937980 Z-0.125000 I13.499701 J10.985545
G02 X140.448686 Y74.024579 Z-0.125000 I14.092883 J9.830552
G02 X139.886933 Y75.087828 Z-0.125000 I10.827421 J6.400542
G02 X139.437711 Y76.194572 Z-0.125000 I10.274188 J4.814778
G02 X139.123309 Y77.257229 Z-0.125000 I11.574244 J4.002243
G02 X138.916658 Y78.344717 Z-0.125000 I9.843426 J2.433885
G02 X138.825045 Y79.382476 Z-0.125000 I11.445320 J1.533317
G02 X138.836083 Y80.424132 Z-0.125000 I9.727034 J0.417814
G02 X138.944713 Y81.415019 Z-0.125000 I11.038745 J-0.708774
G02 X139.148356 Y82.390913 Z-0.125000 I9.578710 J-1.489629
G02 X139.436731 Y83.315841 Z-0.125000 I10.399231 J-2.734866
G02 X139.810812 Y84.209489 Z-0.125000 I9.273351 J-3.356700
G02 X140.261000 Y85.051461 Z-0.125000 I9.484368 J-4.529794
G02 X140.786952 Y85.847893 Z-0.125000 I8.693828 J-5.169391
G02 X141.384324 Y86.591278 Z-0.125000 I8.358653 J-6.105167
G02 X142.046951 Y87.276329 Z-0.125000 I7.812661 J-6.893933
G02 X142.780190 Y87.906388 Z-0.125000 I7.147440 J-7.576233
G02 X143.567078 Y88.466958 Z-0.125000 I6.696266 J-8.567166
G02 X144.427299 Y88.969728 Z-0.125000 I5.935298 J-9.167772
G02 X145.328186 Y89.394552 Z-0.125000 I5.428226 J-10.343555
G02 X146.307280 Y89.757384 Z-0.125000 I4.695846 J-11.169175
G02 X147.313271 Y90.037839 Z-0.125000 I4.015085 J-12.457651
G02 X148.401822 Y90.250715 Z-0.125000 I3.282409 J-13.895104
G02 X149.502769 Y90.381608 Z-0.125000 I2.370793 J-15.245383
G02 X150.689446 Y90.438841 Z-0.125000 I1.429644 J-17.311220
G02 X151.874052 Y90.418072 Z-0.125000 I0.263038 J-18.789900
G02 X153.153336 Y90.317181 Z-0.125000 I-1.061720 J-21.623559
G02 X154.435724 Y90.141166 Z-0.125000 I-2.494403 J-22.932907
G02 X155.805897 Y89.882326 Z-0.125000 I-5.131433 J-30.919232
G02 X157.165075 Y89.561985 Z-0.125000 I-6.436100 J-30.351479
G02 X158.576147 Y89.167261 Z-0.125000 I-9.794816 J-37.734313
G02 X159.970637 Y88.719657 Z-0.125000 I-11.056606 J-36.842404
G02 X161.376589 Y88.210521 Z-0.125000 I-13.589986 J-39.723798
G02 X162.762030 Y87.652350 Z-0.125000 I-15.035858 J-39.319166
G02 X164.122500 Y87.046305 Z-0.125000 I-15.833970 J-37.374658
G02 X165.457849 Y86.391927 Z-0.125000 I-17.282208 J-36.956406
G02 X166.740136 Y85.702330 Z-0.125000 I-17.000132 J-33.148241
G02 X167.992107 Y84.963963 Z-0.125000 I-17.924867 J-31.823945
G02 X169.173678 Y84.201226 Z-0.125000 I-18.038475 J-29.240297
G02 X170.320130 Y83.390363 Z-0.125000 I-17.937431 J-26.577027
G02 X171.389711 Y82.564230 Z-0.125000 I-19.929183 J-26.907447
G02 X172.421472 Y81.693381 Z-0.125000 I-18.278757 J-22.702849
G02 X173.378725 Y80.815624 Z-0.125000 I-24.016687 J-27.152681
G02 X174.299422 Y79.899867 Z-0.125000 I-19.717966 J-20.745055
G02 X175.153396 Y78.986882 Z-0.125000 I-33.671022 J-32.350580
G02 X175.977220 Y78.045236 Z-0.125000 I-23.280540 J-21.198766
G02 X176.743739 Y77.120141 Z-0.125000 I-66.064628 J-55.520201
G02 X177.493545 Y76.176978 Z-0.125000 I-35.105863 J-28.678491
G02 X178.189087 Y75.270833 Z-0.125000 I-121.130453 J-93.697675
G03 X178.889530 Y74.356121 Z-0.125000 I178.025795 J135.598164
G02 X179.499982 Y73.501484 Z-0.125000 I-11.614796 J-8.941582
G02 X180.048933 Y72.618815 Z-0.125000 I-15.465468 J-10.230360
G02 X180.478362 Y71.810076 Z-0.125000 I-9.832869 J-5.739492
G02 X180.836398 Y70.969778 Z-0.125000 I-9.126640 J-4.385121
G02 X181.083686 Y70.205354 Z-0.125000 I-8.402750 J-3.140462
G02 X181.254164 Y69.420548 Z-0.125000 I-7.151405 J-1.964375
G02 X181.330343 Y68.708420 Z-0.125000 I-6.653423 J-1.071879
G02 X181.323878 Y67.992805 Z-0.125000 I-5.723450 J-0.306125
G02 X181.236805 Y67.341166 Z-0.125000 I-5.349535 J0.383172
G02 X181.066451 Y66.706957 Z-0.125000 I-4.725199 J0.929250
G02 X180.821931 Y66.123172 Z-0.125000 I-4.538397 J1.557813
G02 X180.501434 Y65.577869 Z-0.125000 I-4.122585 J2.056180
G02 X180.103557 Y65.069036 Z-0.125000 I-4.195569 J2.870712
G02 X179.644651 Y64.614073 Z-0.125000 I-3.864210 J3.438771
G02 X179.098795 Y64.186832 Z-0.125000 I-4.190227 J4.791240
G02 X178.509975 Y63.819596 Z-0.125000 I-3.823802 J5.475359
G02 X177.825055 Y63.477818 Z-0.125000 I-4.330893 J7.821883
G02 X177.113212 Y63.194123 Z-0.125000 I-3.831890 J8.579994
G02 X176.300964 Y62.937291 Z-0.125000 I-4.391975 J12.477089
G02 X175.473473 Y62.732243 Z-0.125000 I-3.704666 J13.178358
G02 X174.546745 Y62.556228 Z-0.125000 I-4.120348 J19.166125
G02 X173.613189 Y62.425003 Z-0.125000 I-3.202271 J19.395121
G02 X172.584023 Y62.323585 Z-0.125000 I-3.421480 J29.447932
G02 X171.561254 Y62.262780 Z-0.125000 I-1.931485 J23.856158
G02 X170.428190 Y62.222779 Z-0.125000 I-8.007288 J210.748052
G02 X169.285589 Y62.192887 Z-0.125000 I-2.885201 J88.433096
G02 X168.015069 Y62.174585 Z-0.125000 I-2.364494 J120.033419
G02 X166.740277 Y62.166460 Z-0.125000 I-2.115839 J231.951068
G02 X165.346469 Y62.176437 Z-0.125000 I-0.234324 J64.625962
G02 X163.951866 Y62.208661 Z-0.125000 I2.442736 J135.913199
G02 X162.459249 Y62.274449 Z-0.125000 I1.333527 J47.220471
G02 X160.967330 Y62.377625 Z-0.125000 I4.869122 J81.245525
G02 X159.405027 Y62.532521 Z-0.125000 I2.979881 J38.011784
G02 X157.847664 Y62.741712 Z-0.125000 I6.633653 J55.287234
G02 X156.254161 Y63.018960 Z-0.125000 I4.830943 J32.484233
G02 X154.673404 Y63.366032 Z-0.125000 I8.226038 J41.239234
G02 X153.095106 Y63.791177 Z-0.125000 I6.869631 J28.644839
G02 X151.540698 Y64.297645 Z-0.125000 I9.725422 J32.486985
G02 X150.027481 Y64.882994 Z-0.125000 I8.992952 J25.496770
G02 X148.551411 Y65.555511 Z-0.125000 I11.096872 J26.312050
G02 X147.150530 Y66.298249 Z-0.125000 I11.050471 J22.534815
G02 X145.800459 Y67.128001 Z-0.125000 I12.291150 J21.511867
G02 X144.551129 Y68.012014 Z-0.125000 I12.874796 J19.520100
G02 X143.365122 Y68.977678 Z-0.125000 I13.268536 J17.507254
G02 X142.295691 Y69.977678 Z-0.125000 I14.299753 J16.364450
G02 X141.299555 Y71.050378 Z-0.125000 I14.055864 J14.051481
G02 X140.428389 Y72.136032 Z-0.125000 I14.915431 J12.861022
G02 X139.632799 Y73.287143 Z-0.125000 I15.531963 J11.585393
G02 X138.980617 Y74.422026 Z-0.125000 I11.722747 J7.491536
G02 X138.444952 Y75.608110 Z-0.125000 I11.507330 J5.910991
G02 X138.057508 Y76.751592 Z-0.125000 I11.911898 J4.673474
G02 X137.790797 Y77.925592 Z-0.125000 I10.317592 J2.961261
G02 X137.652860 Y79.048226 Z-0.125000 I12.389296 J2.092052
G02 X137.626990 Y80.178888 Z-0.125000 I10.378271 J0.803082
G02 X137.708838 Y81.257364 Z-0.125000 I12.213263 J-0.384541
G02 X137.893397 Y82.323271 Z-0.125000 I10.446593 J-1.259876
G02 X138.170075 Y83.336926 Z-0.125000 I11.759421 J-2.665150
G02 X138.538638 Y84.320961 Z-0.125000 I10.357008 J-3.318104
G02 X138.988515 Y85.251665 Z-0.125000 I10.901529 J-4.695415
G02 X139.519579 Y86.138209 Z-0.125000 I9.919530 J-5.339745
G02 X140.125417 Y86.969349 Z-0.125000 I9.680270 J-6.419809
G02 X140.802058 Y87.743087 Z-0.125000 I9.048057 J-7.229874
G02 X141.551226 Y88.458856 Z-0.125000 I8.277811 J-7.914119
G02 X142.360277 Y89.104897 Z-0.125000 I7.822923 J-8.967207
G02 X143.243983 Y89.689966 Z-0.125000 I6.865211 J-9.409492
G02 X144.175162 Y90.194775 Z-0.125000 I6.397787 J-10.690208
G02 X145.186681 Y90.634575 Z-0.125000 I5.487172 J-11.237131
G02 X146.231737 Y90.987136 Z-0.125000 I4.857035 J-12.672001
G02 X147.363934 Y91.269100 Z-0.125000 I4.032605 J-13.778385
G02 X148.515213 Y91.461913 Z-0.125000 I3.145607 J-15.248804
G02 X149.758114 Y91.577591 Z-0.125000 I2.243714 J-17.372548
G02 X151.001094 Y91.608033 Z-0.125000 I1.087106 J-18.996131
G02 X152.346871 Y91.554255 Z-0.125000 I-0.173799 J-21.214721
G02 X153.696765 Y91.417018 Z-0.125000 I-1.639602 J-22.835169
G02 X155.150625 Y91.190397 Z-0.125000 I-4.057877 J-30.809677
G02 X156.598154 Y90.893788 Z-0.125000 I-5.505904 J-30.550690
G02 X158.115871 Y90.514557 Z-0.125000 I-9.248848 J-40.241335
G02 X159.617503 Y90.077572 Z-0.125000 I-10.520693 J-38.951304
G02 X161.141486 Y89.572287 Z-0.125000 I-13.606076 J-43.587970
G02 X162.645162 Y89.014408 Z-0.125000 I-15.152488 J-43.146552
G02 X164.126530 Y88.403693 Z-0.125000 I-16.008646 J-40.933013
G02 X165.582461 Y87.740960 Z-0.125000 I-17.780712 J-40.992342
G02 X166.980491 Y87.039585 Z-0.125000 I-16.894634 J-35.419587
G02 X168.346807 Y86.284555 Z-0.125000 I-18.272374 J-34.679794
G02 X169.632380 Y85.502720 Z-0.125000 I-17.414034 J-30.081792
G02 X170.879712 Y84.666267 Z-0.125000 I-17.822818 J-27.925913
G02 X172.037090 Y83.812387 Z-0.125000 I-18.611947 J-26.438574
G02 X173.151389 Y82.906116 Z-0.125000 I-17.611239 J-22.791966
G02 X174.178189 Y81.990182 Z-0.125000 I-21.657168 J-25.312073
G02 X175.161290 Y81.028419 Z-0.125000 I-18.450327 J-19.843024
G02 X176.067020 Y80.065283 Z-0.125000 I-29.093416 J-28.266776
G02 X176.934685 Y79.066597 Z-0.125000 I-21.195927 J-19.291422
G02 X177.738214 Y78.078706 Z-0.125000 I-52.231297 J-43.304526
G02 X178.516032 Y77.067537 Z-0.125000 I-28.062685 J-22.391294
G02 X179.241511 Y76.086740 Z-0.125000 I-462.830023 J-343.106487
G03 X179.973264 Y75.096921 Z-0.125000 I622.545634 J459.469723
G02 X180.628098 Y74.163140 Z-0.125000 I-17.750205 J-13.144209
G02 X181.240822 Y73.208775 Z-0.125000 I-31.491783 J-20.892326
G02 X181.735055 Y72.328159 Z-0.125000 I-9.682588 J-6.013207
G02 X182.146701 Y71.412389 Z-0.125000 I-10.038175 J-5.062645
G02 X182.438189 Y70.574114 Z-0.125000 I-9.566099 J-3.796181
G02 X182.648233 Y69.711773 Z-0.125000 I-8.085699 J-2.426215
G02 X182.756163 Y68.925177 Z-0.125000 I-7.810309 J-1.472362
G02 X182.777551 Y68.131731 Z-0.125000 I-6.655825 J-0.576431
G02 X182.712374 Y67.408122 Z-0.125000 I-6.335409 J0.205906
G02 X182.559674 Y66.698595 Z-0.125000 I-5.542122 J0.821548
G02 X182.329673 Y66.048152 Z-0.125000 I-5.263245 J1.495229
G02 X182.017654 Y65.433765 Z-0.125000 I-4.738207 J2.019898
G02 X181.628290 Y64.865114 Z-0.125000 I-4.663313 J2.775411
G02 X181.170098 Y64.350568 Z-0.125000 I-4.269123 J3.340287
G02 X180.626291 Y63.871105 Z-0.125000 I-4.467927 J4.519398
G02 X180.031774 Y63.455181 Z-0.125000 I-4.069294 J5.183749
G02 X179.341235 Y63.069757 Z-0.125000 I-4.504455 J7.259020
G02 X178.617816 Y62.748063 Z-0.125000 I-3.985485 J7.988240
G02 X177.791818 Y62.456940 Z-0.125000 I-4.545187 J11.578612
G02 X176.946850 Y62.223620 Z-0.125000 I-3.828779 J12.219246
G02 X175.998684 Y62.022410 Z-0.125000 I-4.331887 J18.078599
G02 X175.040842 Y61.870678 Z-0.125000 I-3.403927 J18.388891
G02 X173.984292 Y61.752133 Z-0.125000 I-3.576735 J27.110609
G02 X172.932327 Y61.679215 Z-0.125000 I-2.104976 J22.743066
G02 X171.772253 Y61.631232 Z-0.125000 I-5.597805 J121.289762
G02 X170.609627 Y61.601218 Z-0.125000 I-1.977649 J54.073276
G03 X169.315137 Y61.581369 Z-0.125000 I36.209699 J-2403.693241
G02 X168.011113 Y61.561118 Z-0.125000 I-144.314223 J9250.993255
G02 X166.572123 Y61.550098 Z-0.125000 I-1.425974 J92.243140
G02 X165.131970 Y61.553578 Z-0.125000 I0.044644 J316.441682
G02 X163.576461 Y61.582176 Z-0.125000 I0.266614 J56.820355
G02 X162.020161 Y61.642499 Z-0.125000 I3.788949 J117.858700
G02 X160.375362 Y61.749318 Z-0.125000 I1.915165 J42.206322
G02 X158.732895 Y61.908276 Z-0.125000 I5.737785 J67.852076
G02 X157.037290 Y62.135139 Z-0.125000 I3.798501 J34.840598
G02 X155.351343 Y62.433919 Z-0.125000 I7.464054 J47.024021
G02 X153.654565 Y62.816091 Z-0.125000 I5.935929 J30.312316
G02 X151.979179 Y63.285690 Z-0.125000 I9.116747 J35.749176
G02 X150.337572 Y63.843697 Z-0.125000 I8.235293 J26.921245
G02 X148.732249 Y64.497927 Z-0.125000 I10.661133 J28.456500
G02 X147.201343 Y65.233771 Z-0.125000 I10.537041 J23.882500
G02 X145.722585 Y66.067148 Z-0.125000 I12.037020 J23.087337
G02 X144.349419 Y66.965731 Z-0.125000 I12.659267 J20.843700
G02 X143.043028 Y67.956462 Z-0.125000 I13.204286 J18.768023
G02 X141.861428 Y68.990677 Z-0.125000 I14.430488 J17.679051
G02 X140.758556 Y70.106741 Z-0.125000 I14.145097 J15.080859
G02 X139.788756 Y71.243411 Z-0.125000 I15.674446 J14.355382
G02 X138.900349 Y72.451890 Z-0.125000 I15.764732 J12.520157
G02 X138.158666 Y73.653000 Z-0.125000 I13.433163 J9.124504
G02 X137.526724 Y74.913749 Z-0.125000 I13.663006 J7.637242
G02 X137.053995 Y76.135873 Z-0.125000 I11.855012 J5.288120
G02 X136.718323 Y77.394497 Z-0.125000 I10.678047 J3.521886
G02 X136.526985 Y78.600102 Z-0.125000 I13.208151 J2.714207
G02 X136.458105 Y79.818620 Z-0.125000 I10.902377 J1.227493
G02 X136.508200 Y80.983682 Z-0.125000 I13.319702 J0.010896
G02 X136.669332 Y82.138932 Z-0.125000 I11.213452 J-0.975173
G02 X136.930599 Y83.241139 Z-0.125000 I13.144772 J-2.533760
G02 X137.290081 Y84.315543 Z-0.125000 I11.406325 J-3.219078
G02 X137.736413 Y85.335684 Z-0.125000 I12.438342 J-4.834305
G02 X138.269016 Y86.313313 Z-0.125000 I11.200810 J-5.468207
G02 X138.879856 Y87.233908 Z-0.125000 I11.176436 J-6.752914
G02 X139.566414 Y88.098658 Z-0.125000 I10.417010 J-7.565548
G02 X140.327249 Y88.902998 Z-0.125000 I9.581533 J-8.301277
G02 X141.153598 Y89.638443 Z-0.125000 I9.112572 J-9.406966
G02 X142.055320 Y90.310005 Z-0.125000 I7.928097 J-9.704061
G02 X143.011113 Y90.900369 Z-0.125000 I7.510675 J-11.090822
G02 X144.048238 Y91.422849 Z-0.125000 I6.359322 J-11.332686
G02 X145.125897 Y91.854486 Z-0.125000 I5.799336 J-12.917993
G02 X146.293815 Y92.212810 Z-0.125000 I4.819662 J-13.626659
G02 X147.487353 Y92.475601 Z-0.125000 I3.990760 J-15.283305
G02 X148.779086 Y92.658166 Z-0.125000 I3.070994 J-17.067638
G02 X150.077736 Y92.747116 Z-0.125000 I1.941931 J-18.827245
G02 X151.485349 Y92.748286 Z-0.125000 I0.721432 J-21.214315
G02 X152.893430 Y92.659343 Z-0.125000 I-0.741848 J-22.934625
G02 X154.419657 Y92.475726 Z-0.125000 I-2.780551 J-29.546825
G02 X155.947453 Y92.211636 Z-0.125000 I-4.407533 J-30.049539
G02 X157.568319 Y91.856070 Z-0.125000 I-8.421663 J-42.262688
G02 X159.174092 Y91.437224 Z-0.125000 I-9.693434 J-40.450265
G02 X160.817662 Y90.942523 Z-0.125000 I-13.503865 J-47.842194
G02 X162.441507 Y90.391818 Z-0.125000 I-15.072352 J-47.112799
G02 X164.049150 Y89.782721 Z-0.125000 I-16.239131 J-45.287435
G02 X165.631591 Y89.118483 Z-0.125000 I-18.310452 J-45.838843
G02 X167.153142 Y88.411808 Z-0.125000 I-16.907574 J-38.395268
G02 X168.642310 Y87.647119 Z-0.125000 I-18.766592 J-38.378732
G02 X170.040544 Y86.853022 Z-0.125000 I-16.928978 J-31.436359
G02 X171.398131 Y85.997926 Z-0.125000 I-17.851242 J-29.846604
G02 X172.651391 Y85.123298 Z-0.125000 I-17.482564 J-26.386091
G02 X173.856683 Y84.188079 Z-0.125000 I-17.076805 J-23.252549
G02 X174.959256 Y83.240689 Z-0.125000 I-19.593866 J-23.918634
G02 X176.010630 Y82.238570 Z-0.125000 I-17.323053 J-19.227071
G02 X176.971362 Y81.231128 Z-0.125000 I-25.159087 J-24.954421
G02 X177.884847 Y80.179961 Z-0.125000 I-19.304916 J-17.698847
G02 X178.724717 Y79.133551 Z-0.125000 I-41.413930 J-34.099920
G02 X179.529765 Y78.057362 Z-0.125000 I-24.538639 J-19.195462
G02 X180.278208 Y77.003817 Z-0.125000 I-174.634208 J-124.853374
G02 X181.020050 Y75.936117 Z-0.125000 I-71.462922 J-50.444353
G02 X181.700196 Y74.918289 Z-0.125000 I-47.159029 J-32.249326
G03 X182.372079 Y73.891200 Z-0.125000 I554.202682 J361.805497
G02 X182.934065 Y72.935663 Z-0.125000 I-9.547408 J-6.258208
G02 X183.401849 Y71.942748 Z-0.125000 I-11.359375 J-5.958298
G02 X183.740919 Y71.027683 Z-0.125000 I-10.557655 J-4.432408
G02 X183.992493 Y70.084511 Z-0.125000 I-9.010962 J-2.908640
G02 X184.133949 Y69.218446 Z-0.125000 I-9.098672 J-1.930697
G02 X184.184724 Y68.342167 Z-0.125000 I-7.675495 J-0.884354
G02 X184.142760 Y67.540016 Z-0.125000 I-7.537072 J-0.007877
G02 X184.009539 Y66.748551 Z-0.125000 I-6.526282 J0.691573
G02 X183.795463 Y66.024191 Z-0.125000 I-6.195756 J1.437268
G02 X183.494208 Y65.332830 Z-0.125000 I-5.530630 J1.998610
G02 X183.115482 Y64.697310 Z-0.125000 I-5.281255 J2.716657
G02 X182.660484 Y64.114958 Z-0.125000 I-4.806990 J3.286830
G02 X182.122018 Y63.576788 Z-0.125000 I-4.829730 J4.293920
G02 X181.524472 Y63.104759 Z-0.125000 I-4.391158 J4.944574
G02 X180.832475 Y62.669821 Z-0.125000 I-4.705535 J6.718666
G02 X180.100490 Y62.304188 Z-0.125000 I-4.169667 J7.432000
G02 X179.265085 Y61.973912 Z-0.125000 I-4.678310 J10.611726
G02 X178.405956 Y61.708160 Z-0.125000 I-3.946993 J11.238322
G02 X177.440494 Y61.478531 Z-0.125000 I-4.478116 J16.683563
G02 X176.462758 Y61.304626 Z-0.125000 I-3.512300 J16.911487
G02 X175.381864 Y61.167418 Z-0.125000 I-3.805343 J25.651660
G02 X174.300265 Y61.078791 Z-0.125000 I-2.426167 J22.964619
G02 X173.113970 Y61.021453 Z-0.125000 I-3.470837 J59.509114
G02 X171.934861 Y60.996981 Z-0.125000 I-1.285440 J33.516179
G03 X170.625101 Y60.984986 Z-0.125000 I0.346748 J-109.376383
G03 X169.301058 Y60.962876 Z-0.125000 I6.421357 J-424.197570
G02 X167.828493 Y60.941472 Z-0.125000 I-3.609902 J197.695507
G03 X166.353901 Y60.924164 Z-0.125000 I8.512089 J-788.013137
G02 X164.746561 Y60.921443 Z-0.125000 I-0.927549 J73.187974
G02 X163.137492 Y60.942108 Z-0.125000 I2.104484 J226.521639
G02 X161.420692 Y61.000988 Z-0.125000 I0.787135 J48.009794
G02 X159.703768 Y61.107211 Z-0.125000 I4.659191 J89.236443
G02 X157.914258 Y61.278173 Z-0.125000 I2.691551 J37.624549
G02 X156.130873 Y61.521028 Z-0.125000 I6.572387 J54.933319
G02 X154.319986 Y61.850535 Z-0.125000 I4.898450 J32.061489
G02 X152.527062 Y62.272355 Z-0.125000 I8.393598 J39.697733
G02 X150.757151 Y62.791450 Z-0.125000 I7.346309 J28.324977
G02 X149.021563 Y63.415592 Z-0.125000 I10.115546 J30.854052
G02 X147.357259 Y64.133277 Z-0.125000 I9.872580 J25.183009
G02 X145.745562 Y64.959566 Z-0.125000 I11.670739 J24.749051
G02 X144.243450 Y65.863060 Z-0.125000 I12.275223 J22.108689
G02 X142.811155 Y66.870186 Z-0.125000 I13.011659 J20.026715
G02 X141.512314 Y67.930829 Z-0.125000 I14.376348 J18.930566
G02 X140.297181 Y69.083739 Z-0.125000 I14.141336 J16.121361
G02 X139.225293 Y70.264890 Z-0.125000 I16.016809 J15.612106
G02 X138.243706 Y71.524769 Z-0.125000 I15.487893 J13.079126
G02 X137.411798 Y72.786530 Z-0.125000 I15.519250 J11.137319
G02 X136.680154 Y74.115949 Z-0.125000 I16.150519 J9.754458
G02 X136.116043 Y75.412914 Z-0.125000 I12.030189 J6.003663
G02 X135.702145 Y76.753471 Z-0.125000 I11.300875 J4.223324
G02 X135.448378 Y78.040292 Z-0.125000 I13.676368 J3.365475
G02 X135.329694 Y79.345336 Z-0.125000 I11.289448 J1.684611
G02 X135.342677 Y80.595637 Z-0.125000 I14.321544 J0.476501
G02 X135.475947 Y81.839276 Z-0.125000 I11.849644 J-0.640861
G02 X135.718200 Y83.029451 Z-0.125000 I14.513643 J-2.334421
G02 X136.065371 Y84.193742 Z-0.125000 I12.377692 J-3.056911
G02 X136.505377 Y85.303500 Z-0.125000 I14.077263 J-4.939351
G02 X137.036547 Y86.372524 Z-0.125000 I12.503919 J-5.546392
G02 X137.649595 Y87.383638 Z-0.125000 I12.858460 J-7.104806
G02 X138.342655 Y88.340887 Z-0.125000 I11.911503 J-7.894566
G02 X139.111659 Y89.235912 Z-0.125000 I11.087729 J-8.748677
G02 X139.951040 Y90.063780 Z-0.125000 I10.582730 J-9.890434
G02 X140.866035 Y90.825217 Z-0.125000 I9.157747 J-10.074102
G02 X141.841184 Y91.505884 Z-0.125000 I8.796561 J-11.563439
G02 X142.897593 Y92.115941 Z-0.125000 I7.338823 J-11.488631
G02 X144.001604 Y92.633040 Z-0.125000 I6.869024 J-13.228340
G02 X145.197375 Y93.074332 Z-0.125000 I5.656519 J-13.486758
G02 X146.425766 Y93.414810 Z-0.125000 I4.914983 J-15.346284
G02 X147.757618 Y93.672466 Z-0.125000 I3.906974 J-16.624503
G02 X149.104629 Y93.828296 Z-0.125000 I2.825214 J-18.521674
G02 X150.566143 Y93.893253 Z-0.125000 I1.670055 J-21.101604
G02 X152.025714 Y93.861268 Z-0.125000 I0.226627 J-22.976919
G02 X153.616232 Y93.730201 Z-0.125000 I-1.500614 J-27.926222
G02 X155.214728 Y93.507790 Z-0.125000 I-3.244791 J-29.176269
G02 X156.930920 Y93.185411 Z-0.125000 I-7.224492 J-43.189032
G02 X158.635192 Y92.792708 Z-0.125000 I-8.564648 J-41.063729
G02 X160.398103 Y92.315711 Z-0.125000 I-13.206341 J-52.304955
G02 X162.142193 Y91.779269 Z-0.125000 I-14.702770 J-50.905321
G02 X163.880613 Y91.178166 Z-0.125000 I-16.509028 J-50.559271
G02 X165.594575 Y90.519416 Z-0.125000 I-18.821161 J-51.528768
G02 X167.247482 Y89.813949 Z-0.125000 I-17.054661 J-42.248147
G02 X168.868086 Y89.046889 Z-0.125000 I-19.424937 J-43.135463
G02 X170.388513 Y88.247507 Z-0.125000 I-16.601183 J-33.421124
G02 X171.866782 Y87.381170 Z-0.125000 I-18.062085 J-32.514500
G02 X173.225565 Y86.493078 Z-0.125000 I-16.552145 J-26.808366
G02 X174.532202 Y85.535922 Z-0.125000 I-16.702026 J-24.170780
G02 X175.718869 Y84.564226 Z-0.125000 I-17.854802 J-23.015292
G02 X176.846885 Y83.527923 Z-0.125000 I-16.368494 J-18.949204
G02 X177.868325 Y82.482616 Z-0.125000 I-21.910444 J-22.431881
G02 X178.832371 Y81.384053 Z-0.125000 I-17.660493 J-16.470279
G02 X179.710442 Y80.284212 Z-0.125000 I-33.366506 J-27.538961
G02 X180.542751 Y79.146781 Z-0.125000 I-21.656304 J-16.720125
G02 X181.311068 Y78.023493 Z-0.125000 I-92.367603 J-64.002886
G02 X182.058014 Y76.879675 Z-0.125000 I-36.891579 J-24.907037
G02 X182.753226 Y75.777324 Z-0.125000 I-1115.007092 J-703.963771
G03 X183.462313 Y74.672240 Z-0.125000 I66.708737 J42.024255
G02 X184.075910 Y73.634635 Z-0.125000 I-11.272438 J-7.366293
G02 X184.600591 Y72.563655 Z-0.125000 I-15.608620 J-8.310777
G02 X184.993530 Y71.569761 Z-0.125000 I-10.761526 J-4.829221
G02 X185.288771 Y70.543137 Z-0.125000 I-9.879609 J-3.396992
G02 X185.465535 Y69.593127 Z-0.125000 I-10.479163 J-2.441262
G02 X185.546922 Y68.629464 Z-0.125000 I-8.744887 J-1.223819
G02 X185.529176 Y67.742253 Z-0.125000 I-8.969576 J-0.264379
G02 X185.416721 Y66.862389 Z-0.125000 I-7.677863 J0.534192
G02 X185.219464 Y66.056386 Z-0.125000 I-7.386894 J1.380689
G02 X184.930836 Y65.279919 Z-0.125000 I-6.539024 J1.988802
G02 X184.564241 Y64.569625 Z-0.125000 I-6.102205 J2.699706
G02 X184.114712 Y63.910420 Z-0.125000 I-5.525521 J3.285116
G02 X183.584318 Y63.306090 Z-0.125000 I-5.317075 J4.131655
G02 X182.986236 Y62.769226 Z-0.125000 I-4.827050 J4.775892
G02 X182.296712 Y62.277820 Z-0.125000 I-4.966008 J6.238683
G02 X181.558981 Y61.860765 Z-0.125000 I-4.411860 J6.943138
G02 X180.718553 Y61.485103 Z-0.125000 I-4.821350 J9.658360
G02 X179.848411 Y61.181125 Z-0.125000 I-4.086081 J10.299076
G02 X178.869811 Y60.918226 Z-0.125000 I-4.591425 J15.138078
G02 X177.875476 Y60.718376 Z-0.125000 I-3.611314 J15.394208
G02 X176.773973 Y60.559764 Z-0.125000 I-3.960188 J23.597980
G02 X175.667061 Y60.454251 Z-0.125000 I-2.687296 J22.332889
G02 X174.457019 Y60.387229 Z-0.125000 I-2.841206 J40.339619
G02 X173.259117 Y60.366805 Z-0.125000 I-1.037237 J25.696176
G03 X171.934646 Y60.364422 Z-0.125000 I-0.514156 J-82.297677
G02 X170.597469 Y60.351616 Z-0.125000 I-24.404975 J2478.552651
G03 X169.104331 Y60.334490 Z-0.125000 I3.212276 J-345.150365
G03 X167.605885 Y60.307547 Z-0.125000 I2.344829 J-172.089868
G02 X165.957767 Y60.282997 Z-0.125000 I-2.474338 J110.775794
G02 X164.307693 Y60.270784 Z-0.125000 I-101.656241 J13623.779359
G02 X162.530242 Y60.285378 Z-0.125000 I-0.419535 J57.153023
G02 X160.750678 Y60.339588 Z-0.125000 I3.218058 J134.875108
G02 X158.877097 Y60.451835 Z-0.125000 I1.525729 J41.159615
G02 X157.005930 Y60.633267 Z-0.125000 I5.527006 J66.741580
G02 X155.087149 Y60.901758 Z-0.125000 I3.778028 J33.990296
G02 X153.182040 Y61.265660 Z-0.125000 I7.555403 J44.723055
G02 X151.285211 Y61.734380 Z-0.125000 I6.342924 J29.741176
G02 X149.419527 Y62.316319 Z-0.125000 I9.468273 J33.636696
G02 X147.618791 Y63.003992 Z-0.125000 I9.070354 J26.453105
G02 X145.870009 Y63.811699 Z-0.125000 I11.206817 J26.561137
G02 X144.233290 Y64.709767 Z-0.125000 I11.736734 J23.330541
G02 X142.668790 Y65.723966 Z-0.125000 I12.714683 J21.327426
G02 X141.246662 Y66.802838 Z-0.125000 I14.143090 J20.119623
G02 X139.913228 Y67.985627 Z-0.125000 I14.000817 J17.127037
G02 X138.734525 Y69.204828 Z-0.125000 I16.156467 J16.799172
G02 X137.654826 Y70.511163 Z-0.125000 I15.217592 J13.676847
G02 X136.730510 Y71.827761 Z-0.125000 I17.240074 J13.086135
G02 X135.902812 Y73.219005 Z-0.125000 I17.767108 J11.512101
G02 X135.247957 Y74.585790 Z-0.125000 I12.894773 J7.018420
G02 X134.746000 Y76.004727 Z-0.125000 I12.600243 J5.255655
G02 X134.418301 Y77.371201 Z-0.125000 I13.628441 J3.990818
