%
(Header)
(Generated by gcodetools from Inkscape.)
(Using default header. To add your own header create file "header" in the output dir.)
M3
(Header end.)
G21 (All units in mm)

(Start cutting path id: path9275)
(Change tool to Default tool)

G00 Z3.000000
G00 X94.193428 Y79.132884

G00 Z4.875000 (Fast pre-penetrate)
G01 Z-0.125000 F400.0(Penetrate)
G03 X93.919134 Y79.268036 Z-0.125000 I-0.549700 J-0.769711 F800.000000
G03 X93.428229 Y79.365774 Z-0.125000 I-0.737833 J-2.424190
G02 X92.746392 Y79.577729 Z-0.125000 I0.171801 J1.755342
G02 X91.643218 Y80.353014 Z-0.125000 I3.044831 J5.505086
G03 X90.979393 Y80.908771 Z-0.125000 I-12.441741 J-14.186745
G03 X90.369320 Y81.370744 Z-0.125000 I-9.202645 J-11.519016
G02 X86.323131 Y84.402154 Z-0.125000 I70.683722 J98.561479
G02 X80.664356 Y88.962604 Z-0.125000 I154.424183 J197.406266
G03 X77.181266 Y91.844474 Z-0.125000 I-895.519642 J-1078.798498
G03 X76.364454 Y92.508634 Z-0.125000 I-48.380499 J-58.666021
G02 X69.666844 Y97.985189 Z-0.125000 I280.069253 J349.347339
G02 X58.283787 Y107.586804 Z-0.125000 I849.487404 J1018.645939
G03 X56.617207 Y109.004344 Z-0.125000 I-474.248205 J-555.878121
G03 X55.270709 Y110.141864 Z-0.125000 I-306.555423 J-361.507952
G02 X52.615995 Y112.407166 Z-0.125000 I165.085062 J196.151813
G02 X49.949102 Y114.745814 Z-0.125000 I173.322069 J200.338953
G03 X49.009909 Y115.576902 Z-0.125000 I-188.652954 J-212.246104
G03 X46.220139 Y118.030904 Z-0.125000 I-1647.784333 J-1870.428870
G02 X41.552080 Y122.153860 Z-0.125000 I744.507572 J847.644383
G02 X39.536849 Y123.966684 Z-0.125000 I141.911112 J159.782377
G02 X33.398711 Y129.688005 Z-0.125000 I248.884548 J273.169940
G02 X30.546072 Y132.539734 Z-0.125000 I58.931737 J61.803175
G03 X29.438156 Y133.645892 Z-0.125000 I-23.354584 J-22.283790
G03 X25.670306 Y137.177164 Z-0.125000 I-241.975271 J-254.410640
G03 X24.510098 Y138.208267 Z-0.125000 I-27.574030 J-29.858315
G03 X23.699250 Y138.862644 Z-0.125000 I-11.906568 J-13.924034
G02 X21.147028 Y141.146515 Z-0.125000 I13.074193 J17.178376
G02 X20.206314 Y142.527214 Z-0.125000 I3.718566 J3.544396
G02 X19.513692 Y144.401798 Z-0.125000 I11.224510 J5.212485
G02 X18.477349 Y148.700044 Z-0.125000 I58.332580 J16.338528
G02 X17.588669 Y153.486971 Z-0.125000 I144.327151 J29.269906
G02 X17.130601 Y156.688014 Z-0.125000 I64.056737 J10.799785
G02 X16.831913 Y159.759193 Z-0.125000 I75.521923 J8.895000
G02 X16.548918 Y164.261014 Z-0.125000 I162.015331 J12.444484
G02 X16.632087 Y167.819854 Z-0.125000 I24.622247 J1.204975
G02 X17.064080 Y169.631584 Z-0.125000 I6.717477 J-0.644361
G03 X17.289069 Y170.242775 Z-0.125000 I-15.314518 J5.984518
G03 X17.301967 Y170.319544 Z-0.125000 I-0.222014 J0.076769
G02 X17.382970 Y170.768490 Z-0.125000 I1.284612 J0.000000
G02 X18.197290 Y172.719854 Z-0.125000 I25.854966 J-9.643899
G02 X20.455279 Y177.110198 Z-0.125000 I54.157338 J-25.077733
G02 X23.800554 Y182.588364 Z-0.125000 I87.732443 J-49.813850
G03 X24.887999 Y184.248277 Z-0.125000 I-12411.696888 J8131.171402
G03 X25.684665 Y185.464754 Z-0.125000 I-6734.027648 J4411.435666
G02 X29.218767 Y190.448922 Z-0.125000 I68.971413 J-45.160217
G02 X33.655910 Y195.867054 Z-0.125000 I85.968238 J-65.877162
G02 X35.804341 Y198.218127 Z-0.125000 I54.813901 J-47.932254
G02 X37.669533 Y200.070827 Z-0.125000 I35.887672 J-34.264415
G02 X40.634548 Y202.715361 Z-0.125000 I50.059591 J-53.141695
G02 X45.138795 Y206.376357 Z-0.125000 I100.518526 J-119.069965
G03 X46.105205 Y207.136125 Z-0.125000 I-158.041014 J202.019739
G03 X47.248169 Y208.042887 Z-0.125000 I-224.071667 J283.613532
G02 X49.096880 Y209.441179 Z-0.125000 I28.746171 J-36.084657
G02 X50.237329 Y210.187877 Z-0.125000 I9.301318 J-12.961849
G02 X52.398873 Y211.297908 Z-0.125000 I9.942886 J-16.702023
G02 X54.205362 Y211.921337 Z-0.125000 I4.812757 J-11.016750
G02 X54.966780 Y212.058528 Z-0.125000 I1.299837 J-5.032612
G02 X56.066047 Y212.115127 Z-0.125000 I1.089921 J-10.465220
G02 X57.911954 Y211.870133 Z-0.125000 I-0.008870 J-7.143327
G02 X60.658158 Y210.879767 Z-0.125000 I-4.546804 J-16.910594
G02 X61.647833 Y210.411607 Z-0.125000 I-18.546778 J-40.487404
G02 X62.041355 Y210.204527 Z-0.125000 I-3.223897 J-6.603959
G02 X64.151330 Y208.827647 Z-0.125000 I-9.768018 J-17.273959
G02 X65.499101 Y207.620977 Z-0.125000 I-6.123932 J-8.196051
G02 X66.765886 Y206.100849 Z-0.125000 I-12.612161 J-11.798124
G02 X68.585032 Y203.453877 Z-0.125000 I-36.565719 J-27.078591
G03 X69.241048 Y202.443189 Z-0.125000 I57.076249 J36.328729
G03 X69.761338 Y201.676477 Z-0.125000 I33.346658 J22.069118
G02 X73.685670 Y195.508024 Z-0.125000 I-72.863233 J-50.687689
G02 X78.783145 Y186.115514 Z-0.125000 I-164.069403 J-95.122751
G02 X81.292177 Y180.708544 Z-0.125000 I-76.866529 J-38.954519
G02 X83.252386 Y175.541024 Z-0.125000 I-68.240393 J-28.841345
G03 X83.921389 Y173.621738 Z-0.125000 I94.913034 J32.007470
G03 X83.980604 Y173.518104 Z-0.125000 I0.325143 J0.117048
G03 X84.138265 Y173.538834 Z-0.125000 I0.072303 J0.060006
G03 X85.099159 Y175.949024 Z-0.125000 I-22.725049 J10.456659
G02 X86.396629 Y179.508756 Z-0.125000 I81.417711 J-27.659246
G02 X87.908005 Y183.157614 Z-0.125000 I87.052097 J-33.919986
G03 X88.654257 Y184.873261 Z-0.125000 I-241.165123 J105.919294
G03 X89.435341 Y186.703374 Z-0.125000 I-273.454992 J117.791102
G02 X90.214331 Y188.534410 Z-0.125000 I419.541400 J-177.407230
G02 X90.868428 Y190.051544 Z-0.125000 I288.274278 J-123.386868
G03 X91.511859 Y191.573016 Z-0.125000 I-79.020008 J34.314403
G03 X92.073507 Y192.979034 Z-0.125000 I-66.907726 J27.542125
G02 X93.686609 Y196.945467 Z-0.125000 I119.671164 J-46.357616
G02 X95.780930 Y201.676477 Z-0.125000 I172.352826 J-73.468019
G03 X96.184726 Y202.579575 Z-0.125000 I-44.555057 J20.463430
G03 X96.728745 Y203.855017 Z-0.125000 I-88.277250 J38.406948
G02 X99.476702 Y209.580596 Z-0.125000 I56.904431 J-23.788716
G02 X100.944253 Y211.590147 Z-0.125000 I8.314044 J-4.531003
G02 X102.995147 Y213.088733 Z-0.125000 I5.209307 J-4.976540
G02 X106.933103 Y214.511367 Z-0.125000 I8.582160 J-17.594459
G03 X108.347238 Y214.871119 Z-0.125000 I-18.051911 J73.918702
G03 X109.388263 Y215.161087 Z-0.125000 I-10.672003 J40.327724
G02 X110.427527 Y215.457912 Z-0.125000 I23.754882 J-81.204380
G02 X111.878023 Y215.855017 Z-0.125000 I43.955298 J-157.706906
G03 X113.328844 Y216.250962 Z-0.125000 I-51.368667 J191.081203
G03 X114.748153 Y216.650037 Z-0.125000 I-50.774483 J183.302523
G02 X118.652334 Y217.652235 Z-0.125000 I20.716407 J-72.597528
G02 X123.185653 Y218.577397 Z-0.125000 I22.151626 J-96.974283
G02 X126.128926 Y218.953900 Z-0.125000 I5.172397 J-28.742025
G02 X130.067053 Y219.104187 Z-0.125000 I3.932071 J-51.363732
G02 X133.313485 Y219.045680 Z-0.125000 I-0.016074 J-90.989935
G02 X134.424123 Y218.947657 Z-0.125000 I-0.383344 J-10.684427
G02 X136.068301 Y218.674212 Z-0.125000 I-4.729229 J-33.515917
G02 X136.740983 Y218.503467 Z-0.125000 I-1.105250 J-5.764772
G02 X138.570425 Y217.706347 Z-0.125000 I-2.934477 J-9.232721
G02 X140.942183 Y216.130887 Z-0.125000 I-9.698856 J-17.174026
G02 X141.457771 Y215.692466 Z-0.125000 I-4.494043 J-5.807423
G02 X142.758133 Y214.436467 Z-0.125000 I-35.731087 J-38.294289
G03 X144.046673 Y213.166113 Z-0.125000 I91.381683 J91.401162
G03 X145.054563 Y212.203947 Z-0.125000 I53.374802 J54.902334
G02 X146.040552 Y211.221403 Z-0.125000 I-15.596456 J-16.637124
G02 X147.314773 Y209.809747 Z-0.125000 I-30.938272 J-29.207132
G03 X148.564204 Y208.373813 Z-0.125000 I174.124753 J150.247461
G03 X149.785713 Y206.993607 Z-0.125000 I161.838049 J141.999126
G02 X152.641451 Y203.609202 Z-0.125000 I-59.279014 J-52.916265
G02 X155.485353 Y199.843747 Z-0.125000 I-70.552715 J-56.242392
G02 X158.130664 Y195.938194 Z-0.125000 I-75.643686 J-54.083644
G02 X160.405643 Y192.167004 Z-0.125000 I-68.250308 J-43.743952
G03 X161.151854 Y190.900232 Z-0.125000 I38.300818 J21.708514
G03 X162.373103 Y188.951074 Z-0.125000 I91.896528 J56.220773
G02 X163.613279 Y187.013243 Z-0.125000 I-880.868170 J-565.105074
G02 X164.315893 Y185.908034 Z-0.125000 I-287.006858 J-183.234696
G03 X165.029219 Y184.809985 Z-0.125000 I47.067184 J29.795554
G03 X166.067443 Y183.279964 Z-0.125000 I92.372313 J61.563670
G02 X167.755907 Y180.792218 Z-0.125000 I-150.415679 J-103.905854
G02 X170.125423 Y177.193894 Z-0.125000 I-312.187195 J-208.156292
G02 X172.132588 Y173.900082 Z-0.125000 I-55.177079 J-35.881963
G02 X172.852313 Y172.408894 Z-0.125000 I-10.538891 J-6.005902
G02 X173.532778 Y169.316827 Z-0.125000 I-8.959375 J-3.592581
G02 X173.252023 Y164.710554 Z-0.125000 I-20.480656 J-1.063383
G02 X172.610568 Y162.044820 Z-0.125000 I-21.613971 J3.790924
G02 X170.111483 Y154.509484 Z-0.125000 I-175.821563 J54.128925
G03 X168.829360 Y150.809583 Z-0.125000 I223.999455 J-79.694389
G03 X168.375423 Y149.363004 Z-0.125000 I33.765083 J-11.390013
G02 X167.286434 Y146.427912 Z-0.125000 I-20.759676 J6.032765
G02 X166.228673 Y144.654204 Z-0.125000 I-8.559623 J3.902328
G02 X165.328662 Y143.632132 Z-0.125000 I-7.319861 J5.538383
G02 X161.950083 Y140.467334 Z-0.125000 I-74.171784 J75.796274
G03 X161.260185 Y139.846115 Z-0.125000 I143.543018 J-160.106157
G03 X159.391173 Y138.153164 Z-0.125000 I1073.644778 J-1187.178271
G02 X157.515855 Y136.467316 Z-0.125000 I-185.829647 J204.828765
G02 X155.033753 Y134.271754 Z-0.125000 I-317.836086 J356.815721
G03 X152.551537 Y132.076348 Z-0.125000 I320.368994 J-364.723229
G03 X151.160803 Y130.822694 Z-0.125000 I103.191307 J-115.872943
G02 X148.035701 Y128.002793 Z-0.125000 I-256.000817 J280.566482
G02 X145.697173 Y125.947294 Z-0.125000 I-138.392463 J155.090178
G03 X144.110604 Y124.565418 Z-0.125000 I232.871009 J-268.967154
G03 X142.342923 Y123.008294 Z-0.125000 I293.408145 J-334.865268
G02 X140.574422 Y121.452133 Z-0.125000 I-245.421495 J277.126663
G02 X139.057833 Y120.136124 Z-0.125000 I-177.187225 J202.661316
G03 X137.541695 Y118.819586 Z-0.125000 I160.525694 J-186.394230
G03 X135.150303 Y116.714944 Z-0.125000 I407.696255 J-465.654337
G02 X132.759572 Y114.609483 Z-0.125000 I-470.304140 J531.615928
G02 X130.691643 Y112.806034 Z-0.125000 I-347.265385 J396.105259
G03 X125.362301 Y107.980344 Z-0.125000 I110.825998 J-127.748399
G03 X117.998663 Y100.811854 Z-0.125000 I237.329446 J-251.156583
G02 X108.546587 Y91.546467 Z-0.125000 I-410.467502 J409.284087
G02 X105.688223 Y89.017124 Z-0.125000 I-33.347001 J34.805070
G03 X104.284145 Y87.842389 Z-0.125000 I48.674327 J-59.603450
G03 X101.092643 Y85.078304 Z-0.125000 I266.221224 J-310.612212
G03 X98.363673 Y82.623926 Z-0.125000 I89.139156 J-101.856235
G03 X96.263110 Y80.614804 Z-0.125000 I57.617737 J-62.342734
G02 X94.607387 Y79.007348 Z-0.125000 I-83.957381 J84.821880
G02 X94.534119 Y78.968394 Z-0.125000 I-0.106388 J0.111724
G02 X94.455437 Y78.977615 Z-0.125000 I-0.026013 J0.118336
G02 X94.193428 Y79.132884 Z-0.125000 I0.777267 J1.610297
G01 X94.193428 Y79.132884 Z-0.125000
G00 Z3.000000

(End cutting path id: path9275)


(Start cutting path id: circle9284)
(Change tool to Default tool)

G00 Z3.000000
G00 X115.242723 Y140.640624

G00 Z4.875000 (Fast pre-penetrate)
G01 Z-0.125000 F400.0(Penetrate)
G02 X113.529572 Y132.028015 Z-0.125000 I-22.505821 J-0.000009 F800.000000
G02 X108.650922 Y124.726598 Z-0.125000 I-20.792670 J8.612600
G02 X101.349506 Y119.847947 Z-0.125000 I-15.914020 J15.914017
G02 X92.736898 Y118.134794 Z-0.125000 I-8.612604 J20.792668
G02 X84.124291 Y119.847948 Z-0.125000 I-0.000000 J22.505821
G02 X76.822876 Y124.726600 Z-0.125000 I8.612607 J20.792667
G02 X71.944228 Y132.028016 Z-0.125000 I15.914022 J15.914015
G02 X70.231077 Y140.640624 Z-0.125000 I20.792670 J8.612599
G02 X76.822880 Y156.554642 Z-0.125000 I22.505821 J-0.000001
G02 X92.736898 Y163.146444 Z-0.125000 I15.914018 J-15.914019
G02 X101.349504 Y161.433292 Z-0.125000 I0.000004 J-22.505821
G02 X108.650919 Y156.554643 Z-0.125000 I-8.612602 J-20.792669
G02 X113.529569 Y149.253229 Z-0.125000 I-15.914017 J-15.914020
G02 X115.242723 Y140.640624 Z-0.125000 I-20.792667 J-8.612606
G01 X115.242723 Y140.640624 Z-0.125000
G00 Z3.000000

(End cutting path id: circle9284)



(Footer)
M5
G00 X0.0000 Y0.0000
M2
(Using default footer. To add your own footer create file "footer" in the output dir.)
(end)
%