%
(Header)
(Generated by gcodetools from Inkscape.)
(Using default header. To add your own header create file "header" in the output dir.)
M3
(Header end.)
G21 (All units in mm)

(Start cutting path id: path150015)
(Change tool to Default tool)

G00 Z10.000000
G00 X65.965029 Y53.608794

G00 Z4.875000 (Fast pre-penetrate)
G01 Z-0.125000 F100.0(Penetrate)
G01 X65.966875 Y53.612792 Z-0.125000 F800.000000
G01 X65.968828 Y53.616743 Z-0.125000
G01 X65.971049 Y53.620561 Z-0.125000
G01 X65.973323 Y53.624351 Z-0.125000
G01 X65.975764 Y53.628045 Z-0.125000
G01 X65.978813 Y53.631386 Z-0.125000
G01 X65.981638 Y53.634832 Z-0.125000
G01 X65.984722 Y53.638098 Z-0.125000
G01 X65.987906 Y53.641271 Z-0.125000
G01 X65.991381 Y53.644220 Z-0.125000
G01 X65.994938 Y53.647078 Z-0.125000
G01 X65.998660 Y53.649773 Z-0.125000
G01 X66.003856 Y53.651185 Z-0.125000
G01 X66.007989 Y53.653395 Z-0.125000
G01 X66.012429 Y53.655253 Z-0.125000
G01 X66.016687 Y53.657229 Z-0.125000
G01 X66.021404 Y53.658664 Z-0.125000
G01 X66.026246 Y53.659865 Z-0.125000
G01 X66.031026 Y53.661047 Z-0.125000
G01 X66.035899 Y53.662030 Z-0.125000
G01 X66.041043 Y53.662561 Z-0.125000
G01 X66.046076 Y53.663121 Z-0.125000
G01 X66.051171 Y53.663477 Z-0.125000
G01 X66.056503 Y53.663349 Z-0.125000
G01 X66.061700 Y53.663340 Z-0.125000
G01 X66.066932 Y53.663131 Z-0.125000
G01 X66.072366 Y53.662406 Z-0.125000
G01 X66.077646 Y53.661803 Z-0.125000
G01 X66.082931 Y53.660993 Z-0.125000
G01 X66.088382 Y53.659685 Z-0.125000
G01 X66.093661 Y53.658502 Z-0.125000
G01 X66.099087 Y53.656812 Z-0.125000
G01 X66.104347 Y53.655342 Z-0.125000
G01 X66.109584 Y53.653684 Z-0.125000
G01 X66.114919 Y53.651457 Z-0.125000
G01 X66.120101 Y53.649470 Z-0.125000
G01 X66.125248 Y53.647334 Z-0.125000
G01 X66.130462 Y53.644625 Z-0.125000
G01 X66.135529 Y53.642184 Z-0.125000
G01 X66.140561 Y53.639593 Z-0.125000
G01 X66.145619 Y53.636419 Z-0.125000
G01 X66.150553 Y53.633536 Z-0.125000
G01 X66.155435 Y53.630516 Z-0.125000
G01 X66.160310 Y53.626889 Z-0.125000
G01 X66.165075 Y53.623581 Z-0.125000
G01 X66.169778 Y53.620128 Z-0.125000
G01 X66.174452 Y53.616052 Z-0.125000
G01 X66.179019 Y53.612313 Z-0.125000
G01 X66.183522 Y53.608430 Z-0.125000
G01 X66.187954 Y53.603892 Z-0.125000
G01 X66.192302 Y53.599717 Z-0.125000
G01 X66.196567 Y53.595391 Z-0.125000
G01 X66.200759 Y53.590923 Z-0.125000
G01 X66.204859 Y53.586306 Z-0.125000
G01 X66.208812 Y53.580999 Z-0.125000
G01 X66.212725 Y53.576134 Z-0.125000
G01 X66.216545 Y53.571178 Z-0.125000
G01 X66.220189 Y53.565585 Z-0.125000
G01 X66.223722 Y53.559904 Z-0.125000
G01 X66.227258 Y53.554697 Z-0.125000
G01 X66.230693 Y53.549410 Z-0.125000
G01 X66.233917 Y53.543501 Z-0.125000
G01 X66.237164 Y53.538072 Z-0.125000
G01 X66.240321 Y53.532571 Z-0.125000
G01 X66.243230 Y53.526455 Z-0.125000
G01 X66.246193 Y53.520832 Z-0.125000
G01 X66.249059 Y53.515148 Z-0.125000
G01 X66.251647 Y53.508854 Z-0.125000
G01 X66.254318 Y53.503049 Z-0.125000
G01 X66.256892 Y53.497182 Z-0.125000
G01 X66.259161 Y53.490711 Z-0.125000
G01 X66.261532 Y53.484734 Z-0.125000
G01 X66.263816 Y53.478694 Z-0.125000
G01 X66.265755 Y53.472046 Z-0.125000
G01 X66.267824 Y53.465879 Z-0.125000
G01 X66.269786 Y53.459652 Z-0.125000
G01 X66.271373 Y53.452803 Z-0.125000
G01 X66.273107 Y53.446431 Z-0.125000
G01 X66.274723 Y53.439983 Z-0.125000
G01 X66.275914 Y53.432910 Z-0.125000
G01 X66.277261 Y53.426305 Z-0.125000
G01 X66.278476 Y53.419605 Z-0.125000
G01 X66.279203 Y53.412244 Z-0.125000
G01 X66.280104 Y53.405346 Z-0.125000
G01 X66.280852 Y53.398339 Z-0.125000
G01 X66.281038 Y53.390635 Z-0.125000
G01 X66.281840 Y53.384005 Z-0.125000
G01 X66.281641 Y53.376086 Z-0.125000
G01 X66.281254 Y53.368082 Z-0.125000
G01 X66.281143 Y53.360630 Z-0.125000
G01 X66.280917 Y53.353179 Z-0.125000
G01 X66.280148 Y53.345202 Z-0.125000
G01 X66.279785 Y53.337909 Z-0.125000
G01 X66.279442 Y53.330738 Z-0.125000
G01 X66.278653 Y53.323218 Z-0.125000
G01 X66.278363 Y53.316358 Z-0.125000
G01 X66.278096 Y53.309638 Z-0.125000
G01 X66.277485 Y53.302590 Z-0.125000
G01 X66.277352 Y53.296090 Z-0.125000
G01 X66.277233 Y53.289674 Z-0.125000
G01 X66.276674 Y53.282936 Z-0.125000
G01 X66.276482 Y53.276658 Z-0.125000
G01 X66.276296 Y53.270418 Z-0.125000
G01 X66.275665 Y53.263828 Z-0.125000
G01 X66.275389 Y53.257622 Z-0.125000
G01 X66.275018 Y53.251432 Z-0.125000
G01 X66.274198 Y53.244864 Z-0.125000
G01 X66.273725 Y53.238643 Z-0.125000
G01 X66.273153 Y53.232401 Z-0.125000
G01 X66.272479 Y53.226127 Z-0.125000
G01 X66.271253 Y53.219454 Z-0.125000
G01 X66.270277 Y53.213106 Z-0.125000
G01 X66.268744 Y53.206330 Z-0.125000
G01 X66.267552 Y53.199853 Z-0.125000
G01 X66.266158 Y53.193325 Z-0.125000
G01 X66.264015 Y53.186362 Z-0.125000
G01 X66.262212 Y53.179699 Z-0.125000
G01 X66.260202 Y53.172956 Z-0.125000
G01 X66.257404 Y53.165727 Z-0.125000
G01 X66.254939 Y53.158809 Z-0.125000
G01 X66.252217 Y53.151799 Z-0.125000
G01 X66.248529 Y53.144276 Z-0.125000
G01 X66.245194 Y53.137071 Z-0.125000
G01 X66.241533 Y53.129765 Z-0.125000
G01 X66.237518 Y53.122366 Z-0.125000
G01 X66.232286 Y53.114398 Z-0.125000
G01 X66.227440 Y53.106772 Z-0.125000
G01 X66.221200 Y53.098559 Z-0.125000
G01 X66.215372 Y53.090722 Z-0.125000
G01 X66.199179 Y53.078258 Z-0.125000
G01 X66.191663 Y53.070155 Z-0.125000
G01 X66.183476 Y53.061973 Z-0.125000
G01 X66.173218 Y53.053204 Z-0.125000
G01 X66.163456 Y53.044905 Z-0.125000
G01 X66.152858 Y53.036578 Z-0.125000
G01 X66.139683 Y53.027739 Z-0.125000
G01 X66.128858 Y53.019954 Z-0.125000
G01 X66.113413 Y53.011252 Z-0.125000
G01 X66.096558 Y53.002723 Z-0.125000
G01 X66.080394 Y52.994881 Z-0.125000
G01 X66.062918 Y52.987315 Z-0.125000
G01 X66.041525 Y52.979795 Z-0.125000
G01 X66.021022 Y52.973139 Z-0.125000
G01 X65.998975 Y52.967092 Z-0.125000
G01 X65.972251 Y52.961743 Z-0.125000
G01 X65.946780 Y52.957479 Z-0.125000
G01 X65.919655 Y52.954316 Z-0.125000
G01 X65.890890 Y52.952444 Z-0.125000
G01 X65.856729 Y52.952674 Z-0.125000
G01 X65.824739 Y52.954199 Z-0.125000
G01 X65.787325 Y52.958728 Z-0.125000
G01 X65.752797 Y52.964487 Z-0.125000
G01 X65.717440 Y52.972466 Z-0.125000
G01 X65.677289 Y52.984716 Z-0.125000
G01 X65.641264 Y52.997630 Z-0.125000
G01 X65.605474 Y53.012834 Z-0.125000
G01 X65.566275 Y53.032984 Z-0.125000
G01 X65.532242 Y53.052563 Z-0.125000
G01 X65.499553 Y53.073830 Z-0.125000
G01 X65.465119 Y53.099763 Z-0.125000
G01 X65.436175 Y53.123472 Z-0.125000
G01 X65.409274 Y53.147720 Z-0.125000
G01 X65.384543 Y53.172048 Z-0.125000
G01 X65.359900 Y53.199152 Z-0.125000
G01 X65.340198 Y53.221619 Z-0.125000
G01 X65.322076 Y53.243695 Z-0.125000
G01 X65.311684 Y53.253415 Z-0.125000
G01 X65.306366 Y53.254024 Z-0.125000
G01 X65.302508 Y53.251893 Z-0.125000
G01 X65.300017 Y53.247222 Z-0.125000
G01 X65.298763 Y53.240379 Z-0.125000
G01 X65.299085 Y53.230739 Z-0.125000
G01 X65.299971 Y53.220318 Z-0.125000
G01 X65.301691 Y53.208719 Z-0.125000
G01 X65.304953 Y53.194924 Z-0.125000
G01 X65.308075 Y53.181780 Z-0.125000
G01 X65.311694 Y53.168268 Z-0.125000
G01 X65.315716 Y53.154564 Z-0.125000
G01 X65.320068 Y53.140806 Z-0.125000
G01 X65.325704 Y53.125732 Z-0.125000
G01 X65.328422 Y53.114893 Z-0.125000
G01 X65.333339 Y53.101507 Z-0.125000
G01 X65.337287 Y53.089652 Z-0.125000
G01 X65.343367 Y53.075547 Z-0.125000
G01 X65.348377 Y53.063053 Z-0.125000
G01 X65.353322 Y53.050924 Z-0.125000
G01 X65.359149 Y53.038123 Z-0.125000
G01 X65.363795 Y53.026851 Z-0.125000
G01 X65.368224 Y53.016012 Z-0.125000
G01 X65.373288 Y53.004750 Z-0.125000
G01 X65.376271 Y52.995703 Z-0.125000
G01 X65.380570 Y52.985525 Z-0.125000
G01 X65.383605 Y52.976672 Z-0.125000
G01 X65.386172 Y52.968362 Z-0.125000
G01 X65.388774 Y52.960094 Z-0.125000
G01 X65.389118 Y52.953899 Z-0.125000
G01 X65.389972 Y52.947290 Z-0.125000
G01 X65.390427 Y52.941067 Z-0.125000
G01 X65.389488 Y52.936084 Z-0.125000
G01 X65.388127 Y52.931463 Z-0.125000
G01 X65.385642 Y52.927796 Z-0.125000
G01 X65.382243 Y52.924901 Z-0.125000
G01 X65.378381 Y52.922404 Z-0.125000
G01 X65.373397 Y52.920879 Z-0.125000
G01 X65.367564 Y52.920097 Z-0.125000
G01 X65.361456 Y52.919584 Z-0.125000
G01 X65.354224 Y52.920131 Z-0.125000
G01 X65.346375 Y52.921264 Z-0.125000
G01 X65.337295 Y52.923573 Z-0.125000
G01 X65.328415 Y52.925751 Z-0.125000
G01 X65.319076 Y52.928500 Z-0.125000
G01 X65.308364 Y52.932698 Z-0.125000
G01 X65.297961 Y52.936757 Z-0.125000
G01 X65.287049 Y52.941492 Z-0.125000
G01 X65.275658 Y52.946916 Z-0.125000
G01 X65.263842 Y52.953012 Z-0.125000
G01 X65.250554 Y52.960980 Z-0.125000
G01 X65.238128 Y52.968309 Z-0.125000
G01 X65.224404 Y52.977462 Z-0.125000
G01 X65.211783 Y52.985685 Z-0.125000
G01 X65.199178 Y52.994223 Z-0.125000
G01 X65.186635 Y53.003032 Z-0.125000
G01 X65.173078 Y53.013558 Z-0.125000
G01 X65.160761 Y53.022850 Z-0.125000
G01 X65.148569 Y53.032343 Z-0.125000
G01 X65.127237 Y53.055892 Z-0.125000
G01 X65.114501 Y53.067507 Z-0.125000
G01 X65.089616 Y53.100113 Z-0.125000
G01 X65.075715 Y53.115777 Z-0.125000
G01 X65.064699 Y53.126859 Z-0.125000
G01 X65.053804 Y53.138191 Z-0.125000
G01 X65.042188 Y53.151483 Z-0.125000
G01 X65.031564 Y53.163342 Z-0.125000
G01 X65.021075 Y53.175451 Z-0.125000
G01 X65.009944 Y53.189598 Z-0.125000
G01 X64.999758 Y53.202240 Z-0.125000
G01 X64.988987 Y53.216970 Z-0.125000
G01 X64.979125 Y53.230148 Z-0.125000
G01 X64.969421 Y53.243586 Z-0.125000
G01 X64.959880 Y53.257283 Z-0.125000
G01 X64.950509 Y53.271247 Z-0.125000
G01 X64.941313 Y53.285476 Z-0.125000
G01 X64.931710 Y53.301961 Z-0.125000
G01 X64.922349 Y53.318773 Z-0.125000
G01 X64.913762 Y53.333871 Z-0.125000
G01 X64.905375 Y53.349250 Z-0.125000
G01 X64.896724 Y53.367009 Z-0.125000
G01 X64.888785 Y53.382984 Z-0.125000
G01 X64.881478 Y53.397096 Z-0.125000
G01 X64.873199 Y53.417994 Z-0.125000
G01 X64.865977 Y53.434882 Z-0.125000
G01 X64.859001 Y53.452073 Z-0.125000
G01 X64.852005 Y53.471844 Z-0.125000
G01 X64.845819 Y53.487379 Z-0.125000
G01 X64.839431 Y53.507836 Z-0.125000
G01 X64.833568 Y53.526307 Z-0.125000
G01 X64.827874 Y53.547501 Z-0.125000
G01 X64.822657 Y53.566650 Z-0.125000
G01 X64.817765 Y53.586128 Z-0.125000
G01 X64.813207 Y53.608434 Z-0.125000
G01 X64.809043 Y53.628609 Z-0.125000
G01 X64.805234 Y53.649117 Z-0.125000
G01 X64.802962 Y53.688201 Z-0.125000
G01 X64.800272 Y53.709608 Z-0.125000
G01 X64.808773 Y53.807372 Z-0.125000
G01 X64.808532 Y53.830292 Z-0.125000
G01 X64.809409 Y53.856331 Z-0.125000
G01 X64.810262 Y53.879894 Z-0.125000
G01 X64.812404 Y53.906616 Z-0.125000
G01 X64.813615 Y53.927894 Z-0.125000
G01 X64.817038 Y53.955221 Z-0.125000
G01 X64.820239 Y53.979922 Z-0.125000
G01 X64.825054 Y54.007829 Z-0.125000
G01 X64.829603 Y54.033014 Z-0.125000
G01 X64.834769 Y54.058422 Z-0.125000
G01 X64.841886 Y54.087019 Z-0.125000
G01 X64.847120 Y54.109796 Z-0.125000
G01 X64.855771 Y54.138726 Z-0.125000
G01 X64.865306 Y54.167797 Z-0.125000
G01 X64.874097 Y54.193953 Z-0.125000
G01 X64.883615 Y54.220180 Z-0.125000
G01 X64.895678 Y54.249451 Z-0.125000
G01 X64.906770 Y54.275728 Z-0.125000
G01 X64.918603 Y54.301986 Z-0.125000
G01 X64.933266 Y54.331152 Z-0.125000
G01 X64.946688 Y54.357260 Z-0.125000
G01 X64.960862 Y54.383250 Z-0.125000
G01 X64.978125 Y54.411960 Z-0.125000
G01 X64.993870 Y54.437585 Z-0.125000
G01 X65.010346 Y54.462992 Z-0.125000
G01 X65.030144 Y54.490892 Z-0.125000
G01 X65.048129 Y54.515716 Z-0.125000
G01 X65.066806 Y54.540218 Z-0.125000
G01 X65.088996 Y54.566955 Z-0.125000
G01 X65.109076 Y54.590666 Z-0.125000
G01 X65.129788 Y54.613961 Z-0.125000
G01 X65.154155 Y54.639204 Z-0.125000
G01 X65.176125 Y54.661521 Z-0.125000
G01 X65.198650 Y54.683339 Z-0.125000
G01 X65.221704 Y54.704638 Z-0.125000
G01 X65.248531 Y54.727487 Z-0.125000
G01 X65.275925 Y54.749608 Z-0.125000
G01 X65.300475 Y54.769068 Z-0.125000
G01 X65.325428 Y54.787933 Z-0.125000
G01 X65.350753 Y54.806189 Z-0.125000
G01 X65.379887 Y54.825489 Z-0.125000
G01 X65.405887 Y54.842413 Z-0.125000
G01 X65.432165 Y54.858703 Z-0.125000
G01 X65.462225 Y54.875752 Z-0.125000
G01 X65.488982 Y54.890675 Z-0.125000
G01 X65.515923 Y54.904955 Z-0.125000
G01 X65.546589 Y54.919728 Z-0.125000
G01 X65.573825 Y54.932642 Z-0.125000
G01 X65.601170 Y54.944923 Z-0.125000
G01 X65.632159 Y54.957450 Z-0.125000
G01 X65.656085 Y54.967600 Z-0.125000
G01 X65.687166 Y54.978730 Z-0.125000
G01 X65.714708 Y54.988455 Z-0.125000
G01 X65.891098 Y55.013156 Z-0.125000
G01 X65.917963 Y55.018683 Z-0.125000
G01 X65.948127 Y55.023733 Z-0.125000
G01 X65.971531 Y55.028193 Z-0.125000
G01 X66.001561 Y55.032112 Z-0.125000
G01 X66.028208 Y55.035559 Z-0.125000
G01 X66.058105 Y55.038302 Z-0.125000
G01 X66.081401 Y55.040991 Z-0.125000
G01 X66.111237 Y55.042653 Z-0.125000
G01 X66.141057 Y55.043708 Z-0.125000
G01 X66.193586 Y55.040701 Z-0.125000
G01 X66.223465 Y55.040064 Z-0.125000
G01 X66.250220 Y55.039444 Z-0.125000
G01 X66.277119 Y55.038307 Z-0.125000
G01 X66.307457 Y55.035853 Z-0.125000
G01 X66.334731 Y55.033570 Z-0.125000
G01 X66.362189 Y55.030724 Z-0.125000
G01 X66.389769 Y55.027317 Z-0.125000
G01 X66.420567 Y55.022302 Z-0.125000
G01 X66.444527 Y55.019023 Z-0.125000
G01 X66.476949 Y55.012265 Z-0.125000
G01 X66.498696 Y55.008878 Z-0.125000
G01 X66.523857 Y55.003753 Z-0.125000
G01 X66.543912 Y55.000320 Z-0.125000
G01 X66.563494 Y54.996815 Z-0.125000
G01 X66.578866 Y54.994893 Z-0.125000
G01 X66.592424 Y54.993643 Z-0.125000
G01 X66.424593 Y54.615536 Z-0.125000
G01 X66.426150 Y54.613833 Z-0.125000
G01 X66.428147 Y54.592095 Z-0.125000
G01 X66.435081 Y54.553384 Z-0.125000
G01 X66.442776 Y54.532062 Z-0.125000
G01 X66.452382 Y54.511088 Z-0.125000
G01 X66.471903 Y54.471841 Z-0.125000
G01 X66.484483 Y54.454636 Z-0.125000
G01 X66.499563 Y54.435179 Z-0.125000
G01 X66.514199 Y54.418591 Z-0.125000
G01 X66.531321 Y54.399768 Z-0.125000
G01 X66.547591 Y54.383656 Z-0.125000
G01 X66.564517 Y54.367711 Z-0.125000
G01 X66.599085 Y54.330485 Z-0.125000
G01 X66.617555 Y54.314913 Z-0.125000
G01 X66.638442 Y54.297034 Z-0.125000
G01 X66.655692 Y54.283827 Z-0.125000
G01 X66.677335 Y54.265931 Z-0.125000
G01 X66.699315 Y54.247988 Z-0.125000
G01 X66.719469 Y54.232287 Z-0.125000
G01 X66.739831 Y54.216484 Z-0.125000
G01 X66.762504 Y54.198231 Z-0.125000
G01 X66.783194 Y54.182162 Z-0.125000
G01 X66.803996 Y54.165938 Z-0.125000
G01 X66.827031 Y54.147188 Z-0.125000
G01 X66.847975 Y54.130598 Z-0.125000
G01 X66.868951 Y54.113810 Z-0.125000
G01 X66.892067 Y54.094418 Z-0.125000
G01 X66.913023 Y54.077187 Z-0.125000
G01 X66.933936 Y54.059725 Z-0.125000
G01 X66.956882 Y54.039571 Z-0.125000
G01 X66.977630 Y54.021598 Z-0.125000
G01 X67.000325 Y54.000869 Z-0.125000
G01 X67.020811 Y53.982341 Z-0.125000
G01 X67.041143 Y53.963532 Z-0.125000
G01 X67.063280 Y53.941863 Z-0.125000
G01 X67.083211 Y53.922438 Z-0.125000
G01 X67.102921 Y53.902701 Z-0.125000
G01 X67.124264 Y53.879987 Z-0.125000
G01 X67.143425 Y53.859570 Z-0.125000
G01 X67.162289 Y53.838811 Z-0.125000
G01 X67.182585 Y53.814946 Z-0.125000
G01 X67.200735 Y53.793442 Z-0.125000
G01 X67.218507 Y53.771570 Z-0.125000
G01 X67.237465 Y53.746448 Z-0.125000
G01 X67.254335 Y53.723772 Z-0.125000
G01 X67.270731 Y53.700703 Z-0.125000
G01 X67.288021 Y53.674243 Z-0.125000
G01 X67.303301 Y53.650331 Z-0.125000
G01 X67.318002 Y53.626012 Z-0.125000
G01 X67.333252 Y53.598173 Z-0.125000
G01 X67.346601 Y53.573003 Z-0.125000
G01 X67.359257 Y53.547437 Z-0.125000
G01 X67.371185 Y53.521482 Z-0.125000
G01 X67.382348 Y53.495149 Z-0.125000
G01 X67.393503 Y53.465180 Z-0.125000
G01 X67.403602 Y53.438332 Z-0.125000
G01 X67.413487 Y53.411358 Z-0.125000
G01 X67.423799 Y53.380948 Z-0.125000
G01 X67.433825 Y53.350406 Z-0.125000
G01 X67.442970 Y53.323059 Z-0.125000
G01 X67.451871 Y53.295598 Z-0.125000
G01 X67.461045 Y53.264690 Z-0.125000
G01 X67.469400 Y53.237000 Z-0.125000
G01 X67.477481 Y53.209203 Z-0.125000
G01 X67.485704 Y53.177951 Z-0.125000
G01 X67.493169 Y53.149936 Z-0.125000
G01 X67.500326 Y53.121816 Z-0.125000
G01 X67.507463 Y53.090231 Z-0.125000
G01 X67.513910 Y53.061900 Z-0.125000
G01 X67.519994 Y53.033467 Z-0.125000
G01 X67.525866 Y53.001558 Z-0.125000
G01 X67.531111 Y52.972917 Z-0.125000
G01 X67.535919 Y52.944177 Z-0.125000
G01 X67.540263 Y52.911949 Z-0.125000
G01 X67.544038 Y52.883010 Z-0.125000
G01 X67.547265 Y52.853978 Z-0.125000
G01 X67.549699 Y52.821453 Z-0.125000
G01 X67.551612 Y52.792247 Z-0.125000
G01 X67.552807 Y52.762970 Z-0.125000
G01 X67.552731 Y52.730231 Z-0.125000
G01 X67.552161 Y52.700864 Z-0.125000
G01 X67.550616 Y52.671495 Z-0.125000
G01 X67.547096 Y52.638793 Z-0.125000
G01 X67.543123 Y52.609584 Z-0.125000
G01 X67.537736 Y52.580582 Z-0.125000
G01 X67.529333 Y52.548667 Z-0.125000
G01 X67.522094 Y52.523742 Z-0.125000
G01 X67.509633 Y52.493256 Z-0.125000
G01 X67.494631 Y52.464130 Z-0.125000
G01 X67.479511 Y52.439482 Z-0.125000
G01 X67.462421 Y52.416651 Z-0.125000
G01 X67.440674 Y52.393873 Z-0.125000
G01 X67.420209 Y52.375812 Z-0.125000
G01 X67.398684 Y52.360151 Z-0.125000
G01 X67.373205 Y52.345663 Z-0.125000
G01 X67.350472 Y52.334729 Z-0.125000
G01 X67.327526 Y52.325700 Z-0.125000
G01 X67.301235 Y52.317920 Z-0.125000
G01 X67.278247 Y52.312212 Z-0.125000
G01 X67.255340 Y52.307755 Z-0.125000
G01 X67.229316 Y52.304425 Z-0.125000
G01 X67.206659 Y52.302110 Z-0.125000
G01 X67.184126 Y52.300606 Z-0.125000
G01 X67.158546 Y52.300157 Z-0.125000
G01 X67.136258 Y52.300051 Z-0.125000
G01 X67.114065 Y52.300480 Z-0.125000
G01 X67.088835 Y52.301944 Z-0.125000
G01 X67.066801 Y52.303312 Z-0.125000
G01 X67.044817 Y52.305048 Z-0.125000
G01 X67.022867 Y52.307108 Z-0.125000
G01 X66.997849 Y52.310198 Z-0.125000
G01 X66.975919 Y52.312824 Z-0.125000
G01 X66.950888 Y52.316477 Z-0.125000
G01 X66.928897 Y52.319519 Z-0.125000
G01 X66.906856 Y52.322763 Z-0.125000
G01 X66.881648 Y52.327022 Z-0.125000
G01 X66.859440 Y52.330584 Z-0.125000
G01 X66.837102 Y52.334169 Z-0.125000
G01 X66.811509 Y52.338786 Z-0.125000
G01 X66.788874 Y52.342588 Z-0.125000
G01 X66.766060 Y52.346448 Z-0.125000
G01 X66.739852 Y52.351266 Z-0.125000
G01 X66.716581 Y52.355211 Z-0.125000
G01 X66.693052 Y52.359177 Z-0.125000
G01 X66.669237 Y52.363155 Z-0.125000
G01 X66.641795 Y52.368086 Z-0.125000
G01 X66.617270 Y52.372040 Z-0.125000
G01 X66.588973 Y52.377018 Z-0.125000
G01 X66.563581 Y52.380925 Z-0.125000
G01 X66.505987 Y52.393786 Z-0.125000
G01 X66.479061 Y52.397759 Z-0.125000
G01 X66.451502 Y52.401647 Z-0.125000
G01 X66.419500 Y52.406575 Z-0.125000
G01 X66.390454 Y52.410511 Z-0.125000
G01 X66.360600 Y52.414467 Z-0.125000
G01 X66.325799 Y52.419482 Z-0.125000
G01 X66.298189 Y52.422538 Z-0.125000
G01 X66.261189 Y52.427818 Z-0.125000
G01 X66.222810 Y52.433323 Z-0.125000
G01 X66.187538 Y52.437992 Z-0.125000
G01 X66.150974 Y52.442967 Z-0.125000
G01 X66.108137 Y52.449631 Z-0.125000
G01 X66.068576 Y52.455548 Z-0.125000
G01 X66.027486 Y52.462110 Z-0.125000
G01 X65.979345 Y52.470928 Z-0.125000
G01 X65.934852 Y52.479321 Z-0.125000
G01 X65.888703 Y52.488797 Z-0.125000
G01 X65.840914 Y52.499565 Z-0.125000
G01 X65.785344 Y52.513996 Z-0.125000
G01 X65.734313 Y52.528134 Z-0.125000
G01 X65.675460 Y52.546823 Z-0.125000
G01 X65.621854 Y52.565136 Z-0.125000
G01 X65.567394 Y52.585635 Z-0.125000
G01 X65.505711 Y52.611901 Z-0.125000
G01 X65.450500 Y52.637208 Z-0.125000
G01 X65.395475 Y52.664729 Z-0.125000
G01 X65.334558 Y52.698608 Z-0.125000
G01 X65.281134 Y52.730258 Z-0.125000
G01 X65.228957 Y52.763434 Z-0.125000
G01 X65.172452 Y52.802523 Z-0.125000
G01 X65.123724 Y52.837643 Z-0.125000
G01 X65.076840 Y52.872950 Z-0.125000
G01 X65.031863 Y52.907849 Z-0.125000
G01 X64.984014 Y52.945977 Z-0.125000
G01 X64.943129 Y52.976969 Z-0.125000
G01 X64.900218 Y53.005663 Z-0.125000
G01 X64.867398 Y53.013368 Z-0.125000
G01 X64.841054 Y53.005057 Z-0.125000
G01 X64.814570 Y52.990772 Z-0.125000
G01 X64.793102 Y52.973402 Z-0.125000
G01 X64.774088 Y52.952169 Z-0.125000
G01 X64.756136 Y52.924480 Z-0.125000
G01 X64.742317 Y52.896594 Z-0.125000
G01 X64.730768 Y52.866414 Z-0.125000
G01 X64.720710 Y52.830654 Z-0.125000
G01 X64.713302 Y52.797247 Z-0.125000
G01 X64.707486 Y52.762938 Z-0.125000
G01 X64.703032 Y52.728028 Z-0.125000
G01 X64.699724 Y52.692752 Z-0.125000
G01 X64.697567 Y52.653193 Z-0.125000
G01 X64.695495 Y52.625909 Z-0.125000
G01 X64.694432 Y52.590479 Z-0.125000
G01 X64.693462 Y52.559255 Z-0.125000
G01 X64.693539 Y52.520167 Z-0.125000
G01 X64.693413 Y52.485417 Z-0.125000
G01 X64.693325 Y52.451009 Z-0.125000
G01 X64.693503 Y52.413145 Z-0.125000
G01 X64.693060 Y52.379606 Z-0.125000
G01 X64.692251 Y52.346535 Z-0.125000
G01 X64.691125 Y52.310334 Z-0.125000
G01 X64.689014 Y52.281962 Z-0.125000
G01 X64.686302 Y52.247069 Z-0.125000
G01 X64.682567 Y52.216406 Z-0.125000
G01 X64.677795 Y52.186473 Z-0.125000
G01 X64.671255 Y52.154198 Z-0.125000
G01 X64.664930 Y52.132227 Z-0.125000
G01 X64.656102 Y52.104936 Z-0.125000
G01 X64.644470 Y52.076040 Z-0.125000
G01 X64.633134 Y52.053979 Z-0.125000
G01 X64.617114 Y52.028251 Z-0.125000
G01 X64.600314 Y52.006786 Z-0.125000
G01 X64.581370 Y51.987169 Z-0.125000
G01 X64.565048 Y51.972920 Z-0.125000
G01 X64.542448 Y51.956865 Z-0.125000
G01 X64.517936 Y51.942957 Z-0.125000
G01 X64.494702 Y51.932144 Z-0.125000
G01 X64.467140 Y51.922254 Z-0.125000
G01 X64.438285 Y51.914409 Z-0.125000
G01 X64.404943 Y51.908267 Z-0.125000
G01 X64.374068 Y51.904375 Z-0.125000
G01 X64.342363 Y51.902518 Z-0.125000
G01 X64.306157 Y51.903586 Z-0.125000
G01 X64.272933 Y51.906933 Z-0.125000
G01 X64.239238 Y51.913114 Z-0.125000
G01 X64.205326 Y51.922280 Z-0.125000
G01 X64.171519 Y51.934500 Z-0.125000
G01 X64.134460 Y51.952177 Z-0.125000
G01 X64.102025 Y51.970496 Z-0.125000
G01 X64.067274 Y51.994388 Z-0.125000
G01 X64.037377 Y52.017534 Z-0.125000
G01 X64.008854 Y52.042442 Z-0.125000
G01 X63.981723 Y52.068819 Z-0.125000
G01 X63.953269 Y52.100273 Z-0.125000
G01 X63.928973 Y52.129002 Z-0.125000
G01 X63.905906 Y52.158575 Z-0.125000
G01 X63.864781 Y52.226420 Z-0.125000
G01 X63.843212 Y52.262161 Z-0.125000
G01 X63.800926 Y52.355094 Z-0.125000
G01 X63.780216 Y52.401417 Z-0.125000
G01 X63.764849 Y52.434920 Z-0.125000
G01 X63.750107 Y52.468768 Z-0.125000
G01 X63.734772 Y52.507484 Z-0.125000
G01 X63.721384 Y52.542013 Z-0.125000
G01 X63.708639 Y52.576849 Z-0.125000
G01 X63.695578 Y52.616620 Z-0.125000
G01 X63.684215 Y52.652070 Z-0.125000
G01 X63.672722 Y52.692484 Z-0.125000
G01 X63.662750 Y52.728501 Z-0.125000
G01 X63.653432 Y52.764774 Z-0.125000
G01 X63.644768 Y52.801294 Z-0.125000
G01 X63.636759 Y52.838056 Z-0.125000
G01 X63.629402 Y52.875051 Z-0.125000
G01 X63.622432 Y52.917094 Z-0.125000
G01 X63.616290 Y52.959397 Z-0.125000
G01 X63.611047 Y52.997090 Z-0.125000
G01 X63.606449 Y53.034990 Z-0.125000
G01 X63.602583 Y53.077995 Z-0.125000
G01 X63.599350 Y53.116318 Z-0.125000
G01 X63.596507 Y53.149908 Z-0.125000
G01 X63.595148 Y53.198506 Z-0.125000
G01 X63.593904 Y53.237436 Z-0.125000
G01 X63.593301 Y53.276558 Z-0.125000
G01 X63.593923 Y53.320867 Z-0.125000
G01 X63.593990 Y53.355384 Z-0.125000
G01 X63.596045 Y53.400107 Z-0.125000
G01 X63.598058 Y53.440016 Z-0.125000
G01 X63.601636 Y53.485173 Z-0.125000
G01 X63.605003 Y53.525484 Z-0.125000
G01 X63.609021 Y53.565991 Z-0.125000
G01 X63.614862 Y53.611791 Z-0.125000
G01 X63.620264 Y53.652706 Z-0.125000
G01 X63.626344 Y53.693808 Z-0.125000
G01 X63.643344 Y53.771136 Z-0.125000
G01 X63.651345 Y53.812733 Z-0.125000
G01 X63.711078 Y53.999583 Z-0.125000
G01 X63.722901 Y54.041898 Z-0.125000
G01 X63.737614 Y54.089587 Z-0.125000
G01 X63.751011 Y54.132239 Z-0.125000
G01 X63.767521 Y54.180265 Z-0.125000
G01 X63.780093 Y54.217982 Z-0.125000
G01 X63.798353 Y54.266285 Z-0.125000
G01 X63.814963 Y54.309476 Z-0.125000
G01 X63.835136 Y54.358007 Z-0.125000
G01 X63.853474 Y54.401379 Z-0.125000
G01 X63.872652 Y54.444827 Z-0.125000
G01 X63.895748 Y54.493550 Z-0.125000
G01 X63.913561 Y54.531855 Z-0.125000
G01 X63.938582 Y54.580584 Z-0.125000
G01 X63.964708 Y54.629277 Z-0.125000
G01 X63.988426 Y54.672721 Z-0.125000
G01 X64.013035 Y54.716093 Z-0.125000
G01 X64.042265 Y54.764483 Z-0.125000
G01 X64.068779 Y54.807606 Z-0.125000
G01 X64.096193 Y54.850564 Z-0.125000
G01 X64.128565 Y54.898349 Z-0.125000
G01 X64.157887 Y54.940857 Z-0.125000
G01 X64.188102 Y54.983104 Z-0.125000
G01 X64.223584 Y55.029933 Z-0.125000
G01 X64.255671 Y55.071512 Z-0.125000
G01 X64.288629 Y55.112730 Z-0.125000
G01 X64.327130 Y55.158248 Z-0.125000
G01 X64.361883 Y55.198579 Z-0.125000
G01 X64.397460 Y55.238443 Z-0.125000
G01 X64.438818 Y55.282291 Z-0.125000
G01 X64.476074 Y55.321058 Z-0.125000
G01 X64.514086 Y55.359262 Z-0.125000
G01 X64.558067 Y55.401102 Z-0.125000
G01 X64.597605 Y55.438014 Z-0.125000
G01 X64.637818 Y55.474279 Z-0.125000
G01 X64.678686 Y55.509876 Z-0.125000
G01 X64.725695 Y55.548626 Z-0.125000
G01 X64.773422 Y55.586455 Z-0.125000
G01 X64.816173 Y55.619711 Z-0.125000
G01 X64.859447 Y55.652218 Z-0.125000
G01 X64.903209 Y55.683954 Z-0.125000
G01 X64.953224 Y55.718225 Z-0.125000
G01 X64.997911 Y55.748282 Z-0.125000
G01 X65.042992 Y55.777538 Z-0.125000
G01 X65.094345 Y55.808970 Z-0.125000
G01 X65.140152 Y55.836492 Z-0.125000
G01 X65.186261 Y55.863194 Z-0.125000
G01 X65.238628 Y55.891723 Z-0.125000
G01 X65.285278 Y55.916665 Z-0.125000
G01 X65.332156 Y55.940782 Z-0.125000
G01 X65.385261 Y55.966389 Z-0.125000
G01 X65.426494 Y55.986535 Z-0.125000
G01 X65.479961 Y56.010278 Z-0.125000
G01 X65.527531 Y56.030983 Z-0.125000
G01 X65.834534 Y56.119940 Z-0.125000
G01 X65.882368 Y56.134520 Z-0.125000
G01 X65.936285 Y56.149369 Z-0.125000
G01 X65.978285 Y56.161151 Z-0.125000
G01 X66.032383 Y56.174064 Z-0.125000
G01 X66.080575 Y56.185086 Z-0.125000
G01 X66.134885 Y56.195838 Z-0.125000
G01 X66.177300 Y56.204347 Z-0.125000
G01 X66.231884 Y56.212912 Z-0.125000
G01 X66.286640 Y56.220154 Z-0.125000
G01 X66.383959 Y56.226075 Z-0.125000
G01 X66.439270 Y56.229089 Z-0.125000
G01 X66.488753 Y56.230727 Z-0.125000
G01 X66.538459 Y56.230768 Z-0.125000
G01 X66.594487 Y56.228126 Z-0.125000
G01 X66.644527 Y56.224071 Z-0.125000
G01 X66.694537 Y56.217653 Z-0.125000
G01 X66.744228 Y56.208573 Z-0.125000
G01 X66.798924 Y56.194202 Z-0.125000
G01 X66.840287 Y56.181110 Z-0.125000
G01 X66.894826 Y56.156381 Z-0.125000
G01 X66.929506 Y56.137762 Z-0.125000
G01 X66.967696 Y56.110547 Z-0.125000
G01 X66.995879 Y56.085791 Z-0.125000
G01 X67.021070 Y56.057226 Z-0.125000
G01 X67.038742 Y56.032601 Z-0.125000
G01 X67.052503 Y56.008522 Z-0.125000
G01 X66.884283 Y55.621869 Z-0.125000
G01 X66.885562 Y55.614463 Z-0.125000
G01 X66.887599 Y55.567038 Z-0.125000
G01 X66.899247 Y55.485794 Z-0.125000
G01 X66.912367 Y55.439363 Z-0.125000
G01 X66.929141 Y55.393720 Z-0.125000
G01 X66.965133 Y55.311889 Z-0.125000
G01 X66.987470 Y55.274034 Z-0.125000
G01 X67.014542 Y55.231855 Z-0.125000
G01 X67.040626 Y55.195505 Z-0.125000
G01 X67.071393 Y55.154911 Z-0.125000
G01 X67.100383 Y55.119830 Z-0.125000
G01 X67.130508 Y55.085247 Z-0.125000
G01 X67.194448 Y55.009389 Z-0.125000
G01 X67.227253 Y54.976036 Z-0.125000
G01 X67.264586 Y54.938415 Z-0.125000
G01 X67.294830 Y54.910024 Z-0.125000
G01 X67.333399 Y54.872797 Z-0.125000
G01 X67.372514 Y54.835710 Z-0.125000
G01 X67.408047 Y54.803121 Z-0.125000
G01 X67.443899 Y54.770534 Z-0.125000
G01 X67.484104 Y54.733498 Z-0.125000
G01 X67.520452 Y54.700800 Z-0.125000
G01 X67.556960 Y54.667994 Z-0.125000
G01 X67.597701 Y54.630623 Z-0.125000
G01 X67.634395 Y54.597493 Z-0.125000
G01 X67.671116 Y54.564161 Z-0.125000
G01 X67.711922 Y54.526133 Z-0.125000
G01 X67.748561 Y54.492299 Z-0.125000
G01 X67.785106 Y54.458183 Z-0.125000
G01 X67.825555 Y54.419218 Z-0.125000
G01 X67.861768 Y54.384438 Z-0.125000
G01 X67.901741 Y54.344692 Z-0.125000
G01 X67.937460 Y54.309146 Z-0.125000
G01 X67.972889 Y54.273199 Z-0.125000
G01 X68.011826 Y54.232089 Z-0.125000
G01 X68.046509 Y54.195227 Z-0.125000
G01 X68.080779 Y54.157893 Z-0.125000
G01 X68.118251 Y54.115179 Z-0.125000
G01 X68.151501 Y54.076785 Z-0.125000
G01 X68.184201 Y54.037855 Z-0.125000
G01 X68.219729 Y53.993297 Z-0.125000
G01 X68.251100 Y53.953169 Z-0.125000
G01 X68.281763 Y53.912444 Z-0.125000
G01 X68.314798 Y53.865828 Z-0.125000
G01 X68.343773 Y53.823785 Z-0.125000
G01 X68.371861 Y53.781096 Z-0.125000
G01 X68.401770 Y53.732254 Z-0.125000
G01 X68.427759 Y53.688169 Z-0.125000
G01 X68.452658 Y53.643415 Z-0.125000
G01 X68.478727 Y53.592271 Z-0.125000
G01 X68.501078 Y53.546111 Z-0.125000
G01 X68.522121 Y53.499302 Z-0.125000
G01 X68.541789 Y53.451860 Z-0.125000
G01 X68.560015 Y53.403808 Z-0.125000
G01 X68.578366 Y53.349173 Z-0.125000
G01 X68.594652 Y53.300340 Z-0.125000
G01 X68.610598 Y53.251346 Z-0.125000
G01 X68.627574 Y53.196119 Z-0.125000
G01 X68.644089 Y53.140716 Z-0.125000
G01 X68.658848 Y53.091230 Z-0.125000
G01 X68.673210 Y53.041591 Z-0.125000
G01 X68.688335 Y52.985688 Z-0.125000
G01 X68.701796 Y52.935738 Z-0.125000
G01 X68.714805 Y52.885638 Z-0.125000
G01 X68.728339 Y52.829247 Z-0.125000
G01 X68.740311 Y52.778841 Z-0.125000
G01 X68.751755 Y52.728288 Z-0.125000
G01 X68.763438 Y52.671413 Z-0.125000
G01 X68.773659 Y52.620557 Z-0.125000
G01 X68.783250 Y52.569555 Z-0.125000
G01 X68.792721 Y52.512204 Z-0.125000
G01 X68.800834 Y52.460906 Z-0.125000
G01 X68.808172 Y52.409468 Z-0.125000
G01 X68.814922 Y52.351658 Z-0.125000
G01 X68.820410 Y52.299943 Z-0.125000
G01 X68.824910 Y52.248106 Z-0.125000
G01 X68.828188 Y52.189902 Z-0.125000
G01 X68.830283 Y52.137858 Z-0.125000
G01 X68.831067 Y52.085745 Z-0.125000
G01 X68.829724 Y52.027344 Z-0.125000
G01 X68.827239 Y51.975219 Z-0.125000
G01 X68.822933 Y51.923179 Z-0.125000
G01 X68.815167 Y51.865139 Z-0.125000
G01 X68.806263 Y51.813631 Z-0.125000
G01 X68.794703 Y51.762641 Z-0.125000
G01 X68.777713 Y51.706515 Z-0.125000
G01 X68.762441 Y51.663295 Z-0.125000
G01 X68.737709 Y51.610245 Z-0.125000
G01 X68.708103 Y51.559995 Z-0.125000
G01 X68.677974 Y51.518148 Z-0.125000
G01 X68.644018 Y51.479935 Z-0.125000
G01 X68.601293 Y51.442353 Z-0.125000
G01 X68.560699 Y51.413525 Z-0.125000
G01 X68.517982 Y51.389372 Z-0.125000
G01 X68.467782 Y51.367925 Z-0.125000
G01 X68.422581 Y51.352918 Z-0.125000
G01 X68.376918 Y51.341588 Z-0.125000
G01 X68.324948 Y51.333074 Z-0.125000
G01 X68.279137 Y51.328143 Z-0.125000
G01 X68.233476 Y51.325630 Z-0.125000
G01 X68.181986 Y51.325698 Z-0.125000
G01 X68.136836 Y51.327341 Z-0.125000
G01 X68.091961 Y51.330571 Z-0.125000
G01 X68.041429 Y51.336256 Z-0.125000
G01 X67.997132 Y51.342249 Z-0.125000
G01 X67.953083 Y51.349311 Z-0.125000
G01 X67.903447 Y51.358806 Z-0.125000
G01 X67.859874 Y51.367769 Z-0.125000
G01 X67.816490 Y51.377483 Z-0.125000
G01 X67.773274 Y51.387873 Z-0.125000
G01 X67.724487 Y51.400723 Z-0.125000
G01 X67.681562 Y51.412340 Z-0.125000
G01 X67.633050 Y51.426429 Z-0.125000
G01 X67.590309 Y51.439030 Z-0.125000
G01 X67.547619 Y51.452028 Z-0.125000
G01 X67.499303 Y51.467523 Z-0.125000
G01 X67.456647 Y51.481240 Z-0.125000
G01 X67.413969 Y51.495241 Z-0.125000
G01 X67.365593 Y51.511762 Z-0.125000
G01 X67.322791 Y51.526286 Z-0.125000
G01 X67.279887 Y51.541011 Z-0.125000
G01 X67.231176 Y51.558264 Z-0.125000
G01 X67.187971 Y51.573360 Z-0.125000
G01 X67.144575 Y51.588593 Z-0.125000
G01 X67.100957 Y51.603951 Z-0.125000
G01 X67.051317 Y51.621845 Z-0.125000
G01 X67.007123 Y51.637426 Z-0.125000
G01 X66.956754 Y51.655540 Z-0.125000
G01 X66.911811 Y51.671286 Z-0.125000
G01 X66.812816 Y51.709477 Z-0.125000
G01 X66.766471 Y51.725442 Z-0.125000
G01 X66.719549 Y51.741465 Z-0.125000
G01 X66.665800 Y51.760073 Z-0.125000
G01 X66.617466 Y51.776238 Z-0.125000
G01 X66.568359 Y51.792486 Z-0.125000
G01 X66.511944 Y51.811409 Z-0.125000
G01 X66.467541 Y51.825306 Z-0.125000
G01 X66.408987 Y51.844571 Z-0.125000
G01 X66.349085 Y51.864113 Z-0.125000
G01 X66.294705 Y51.881292 Z-0.125000
G01 X66.239055 Y51.898810 Z-0.125000
G01 X66.174758 Y51.919570 Z-0.125000
G01 X66.116146 Y51.938101 Z-0.125000
G01 X66.056015 Y51.957276 Z-0.125000
G01 X65.986467 Y51.980337 Z-0.125000
G01 X65.922945 Y52.001343 Z-0.125000
G01 X65.857773 Y52.023459 Z-0.125000
G01 X65.790959 Y52.046863 Z-0.125000
G01 X65.713981 Y52.075506 Z-0.125000
G01 X65.643909 Y52.102258 Z-0.125000
G01 X65.563620 Y52.135114 Z-0.125000
G01 X65.490937 Y52.165989 Z-0.125000
G01 X65.417373 Y52.199007 Z-0.125000
G01 X65.334160 Y52.239293 Z-0.125000
G01 X65.259765 Y52.276995 Z-0.125000
G01 X65.185502 Y52.316827 Z-0.125000
G01 X65.102867 Y52.364436 Z-0.125000
G01 X65.030051 Y52.408155 Z-0.125000
G01 X64.958385 Y52.453242 Z-0.125000
G01 X64.879810 Y52.505487 Z-0.125000
G01 X64.811300 Y52.552020 Z-0.125000
G01 X64.744432 Y52.598385 Z-0.125000
G01 X64.679209 Y52.643856 Z-0.125000
G01 X64.608154 Y52.693007 Z-0.125000
G01 X64.546086 Y52.732525 Z-0.125000
G01 X64.478387 Y52.767838 Z-0.125000
G01 X64.423138 Y52.773527 Z-0.125000
G01 X64.375767 Y52.756317 Z-0.125000
G01 X64.326653 Y52.729884 Z-0.125000
G01 X64.286211 Y52.699816 Z-0.125000
G01 X64.249481 Y52.664181 Z-0.125000
G01 X64.213258 Y52.618441 Z-0.125000
G01 X64.184731 Y52.573088 Z-0.125000
G01 X64.159902 Y52.524329 Z-0.125000
G01 X64.136526 Y52.466605 Z-0.125000
G01 X64.118588 Y52.412935 Z-0.125000
G01 X64.103336 Y52.357828 Z-0.125000
G01 X64.090406 Y52.301712 Z-0.125000
G01 X64.079449 Y52.244917 Z-0.125000
G01 X64.069490 Y52.180877 Z-0.125000
G01 X64.062673 Y52.137137 Z-0.125000
G01 X64.055640 Y52.079663 Z-0.125000
G01 X64.049752 Y52.029069 Z-0.125000
G01 X64.043817 Y51.965000 Z-0.125000
G01 X64.038555 Y51.907994 Z-0.125000
G01 X64.033434 Y51.851307 Z-0.125000
G01 X64.027972 Y51.788378 Z-0.125000
G01 X64.022439 Y51.732572 Z-0.125000
G01 X64.016383 Y51.677271 Z-0.125000
G01 X64.009078 Y51.616131 Z-0.125000
G01 X64.001882 Y51.568432 Z-0.125000
G01 X63.992187 Y51.508814 Z-0.125000
G01 X63.981680 Y51.456340 Z-0.125000
G01 X63.969495 Y51.404798 Z-0.125000
G01 X63.953811 Y51.348512 Z-0.125000
G01 X63.940818 Y51.310763 Z-0.125000
G01 X63.922310 Y51.262789 Z-0.125000
G01 X63.898585 Y51.211225 Z-0.125000
G01 X63.876889 Y51.172078 Z-0.125000
G01 X63.846227 Y51.125241 Z-0.125000
G01 X63.815114 Y51.085981 Z-0.125000
G01 X63.780621 Y51.049640 Z-0.125000
G01 X63.751844 Y51.023636 Z-0.125000
G01 X63.711625 Y50.993054 Z-0.125000
G01 X63.668431 Y50.966017 Z-0.125000
G01 X63.628076 Y50.944902 Z-0.125000
G01 X63.580187 Y50.924610 Z-0.125000
G01 X63.530331 Y50.907799 Z-0.125000
G01 X63.472729 Y50.893206 Z-0.125000
G01 X63.419851 Y50.883204 Z-0.125000
G01 X63.365780 Y50.876741 Z-0.125000
G01 X63.304079 Y50.874681 Z-0.125000
G01 X63.248034 Y50.877307 Z-0.125000
G01 X63.191554 Y50.884925 Z-0.125000
G01 X63.135122 Y50.897841 Z-0.125000
G01 X63.079327 Y50.916195 Z-0.125000
G01 X63.018497 Y50.943587 Z-0.125000
G01 X62.966054 Y50.972899 Z-0.125000
G01 X62.910274 Y51.011531 Z-0.125000
G01 X62.863103 Y51.049605 Z-0.125000
G01 X62.818664 Y51.090882 Z-0.125000
G01 X62.776944 Y51.134826 Z-0.125000
G01 X62.733593 Y51.187207 Z-0.125000
G01 X62.697318 Y51.235379 Z-0.125000
G01 X62.663378 Y51.285032 Z-0.125000
G01 X62.602459 Y51.397174 Z-0.125000
G01 X62.572057 Y51.457040 Z-0.125000
G01 X62.512370 Y51.610300 Z-0.125000
G01 X62.484850 Y51.687280 Z-0.125000
G01 X62.465132 Y51.743204 Z-0.125000
G01 X62.446543 Y51.799565 Z-0.125000
G01 X62.427489 Y51.863704 Z-0.125000
G01 X62.411336 Y51.920904 Z-0.125000
G01 X62.396335 Y51.978467 Z-0.125000
G01 X62.381344 Y52.043862 Z-0.125000
G01 X62.368804 Y52.102122 Z-0.125000
G01 X62.356591 Y52.168219 Z-0.125000
G01 X62.346509 Y52.227075 Z-0.125000
G01 X62.337576 Y52.286184 Z-0.125000
G01 X62.329790 Y52.345526 Z-0.125000
G01 X62.323141 Y52.405087 Z-0.125000
G01 X62.317624 Y52.464847 Z-0.125000
G01 X62.313287 Y52.532448 Z-0.125000
G01 X62.310363 Y52.600243 Z-0.125000
G01 X62.308464 Y52.660528 Z-0.125000
G01 X62.307656 Y52.720953 Z-0.125000
G01 X62.308574 Y52.789200 Z-0.125000
G01 X62.310050 Y52.849873 Z-0.125000
G01 X62.311670 Y52.902943 Z-0.125000
G01 X62.317227 Y52.979238 Z-0.125000
G01 X62.321972 Y53.040209 Z-0.125000
G01 X62.327735 Y53.101265 Z-0.125000
G01 X62.335975 Y53.170111 Z-0.125000
G01 X62.342288 Y53.223612 Z-0.125000
G01 X62.352775 Y53.292601 Z-0.125000
G01 X62.362666 Y53.353948 Z-0.125000
G01 X62.375505 Y53.423070 Z-0.125000
G01 X62.387465 Y53.484542 Z-0.125000
G01 X62.400393 Y53.546077 Z-0.125000
G01 X62.416634 Y53.615371 Z-0.125000
G01 X62.431602 Y53.677026 Z-0.125000
G01 X62.447525 Y53.738732 Z-0.125000
G01 X62.483794 Y53.854303 Z-0.125000
G01 X62.502448 Y53.916097 Z-0.125000
G01 X62.613412 Y54.192032 Z-0.125000
G01 X62.637287 Y54.253744 Z-0.125000
G01 X62.665840 Y54.323083 Z-0.125000
G01 X62.691773 Y54.384825 Z-0.125000
G01 X62.722653 Y54.454154 Z-0.125000
G01 X62.746581 Y54.508311 Z-0.125000
G01 X62.779681 Y54.577590 Z-0.125000
G01 X62.809692 Y54.639274 Z-0.125000
G01 X62.845183 Y54.708435 Z-0.125000
G01 X62.877338 Y54.769989 Z-0.125000
G01 X62.910523 Y54.831479 Z-0.125000
G01 X62.949597 Y54.900326 Z-0.125000
G01 X62.979992 Y54.954158 Z-0.125000
G01 X63.021385 Y55.022686 Z-0.125000
G01 X63.064104 Y55.091002 Z-0.125000
G01 X63.102747 Y55.151734 Z-0.125000
G01 X63.142444 Y55.212251 Z-0.125000
G01 X63.188840 Y55.279761 Z-0.125000
G01 X63.230781 Y55.339727 Z-0.125000
G01 X63.273773 Y55.399386 Z-0.125000
G01 X63.323854 Y55.465792 Z-0.125000
G01 X63.369072 Y55.524699 Z-0.125000
G01 X63.415330 Y55.583203 Z-0.125000
G01 X63.469029 Y55.648151 Z-0.125000
G01 X63.517461 Y55.705685 Z-0.125000
G01 X63.566899 Y55.762715 Z-0.125000
G01 X63.624104 Y55.825849 Z-0.125000
G01 X63.675625 Y55.881687 Z-0.125000
G01 X63.728101 Y55.936915 Z-0.125000
G01 X63.788627 Y55.997873 Z-0.125000
G01 X63.843058 Y56.051696 Z-0.125000
G01 X63.898373 Y56.104809 Z-0.125000
G01 X63.961967 Y56.163245 Z-0.125000
G01 X64.019071 Y56.214754 Z-0.125000
G01 X64.076975 Y56.265466 Z-0.125000
G01 X64.135655 Y56.315359 Z-0.125000
G01 X64.202847 Y56.370012 Z-0.125000
G01 X64.270906 Y56.423546 Z-0.125000
G01 X64.331859 Y56.470601 Z-0.125000
G01 X64.393454 Y56.516747 Z-0.125000
G01 X64.455653 Y56.561963 Z-0.125000
G01 X64.526550 Y56.611207 Z-0.125000
G01 X64.589922 Y56.654397 Z-0.125000
G01 X64.653805 Y56.696618 Z-0.125000
G01 X64.726451 Y56.742434 Z-0.125000
G01 X64.791308 Y56.782557 Z-0.125000
G01 X64.856585 Y56.821678 Z-0.125000
G01 X64.930654 Y56.863962 Z-0.125000
G01 X64.996719 Y56.900934 Z-0.125000
G01 X65.063131 Y56.936888 Z-0.125000
G01 X65.138351 Y56.975574 Z-0.125000
G01 X65.196892 Y57.005715 Z-0.125000
G01 X65.272744 Y57.042072 Z-0.125000
G01 X65.340341 Y57.073757 Z-0.125000
G01 X65.777958 Y57.226968 Z-0.125000
G01 X65.846762 Y57.250603 Z-0.125000
G01 X65.924431 Y57.275250 Z-0.125000
G01 X65.985025 Y57.294353 Z-0.125000
G01 X66.063191 Y57.316264 Z-0.125000
G01 X66.132929 Y57.334862 Z-0.125000
G01 X66.211653 Y57.353623 Z-0.125000
G01 X66.273187 Y57.367951 Z-0.125000
G01 X66.352518 Y57.383421 Z-0.125000
G01 X66.432213 Y57.396848 Z-0.125000
G01 X66.574320 Y57.411701 Z-0.125000
G01 X66.655062 Y57.418366 Z-0.125000
G01 X66.727273 Y57.422258 Z-0.125000
G01 X66.799786 Y57.423470 Z-0.125000
G01 X66.881502 Y57.420627 Z-0.125000
G01 X66.954307 Y57.414800 Z-0.125000
G01 X67.026870 Y57.404819 Z-0.125000
G01 X67.098667 Y57.390030 Z-0.125000
G01 X67.177253 Y57.366263 Z-0.125000
G01 X67.236024 Y57.343383 Z-0.125000
G01 X67.312682 Y57.300687 Z-0.125000
G01 X67.360300 Y57.266861 Z-0.125000
G01 X67.411515 Y57.217542 Z-0.125000
G01 X67.447828 Y57.171463 Z-0.125000
G01 X67.478627 Y57.117845 Z-0.125000
G01 X67.498596 Y57.070506 Z-0.125000
G01 X67.512560 Y57.023595 Z-0.125000
G01 X67.343951 Y56.628395 Z-0.125000
G01 X67.344943 Y56.615290 Z-0.125000
G01 X67.347019 Y56.542178 Z-0.125000
G01 X67.363382 Y56.418402 Z-0.125000
G01 X67.381926 Y56.346861 Z-0.125000
G01 X67.405869 Y56.276548 Z-0.125000
G01 X67.458332 Y56.152132 Z-0.125000
G01 X67.490425 Y56.093629 Z-0.125000
G01 X67.529490 Y56.028729 Z-0.125000
G01 X67.567022 Y55.972616 Z-0.125000
G01 X67.611434 Y55.910252 Z-0.125000
G01 X67.653141 Y55.856201 Z-0.125000
G01 X67.696467 Y55.802979 Z-0.125000
G01 X67.789779 Y55.688488 Z-0.125000
G01 X67.836919 Y55.637356 Z-0.125000
G01 X67.890699 Y55.579994 Z-0.125000
G01 X67.933936 Y55.536418 Z-0.125000
G01 X67.989432 Y55.479860 Z-0.125000
G01 X68.045684 Y55.423627 Z-0.125000
G01 X68.096594 Y55.374151 Z-0.125000
G01 X68.147935 Y55.324780 Z-0.125000
G01 X68.205675 Y55.268962 Z-0.125000
G01 X68.257679 Y55.219636 Z-0.125000
G01 X68.309892 Y55.170246 Z-0.125000
G01 X68.368338 Y55.114254 Z-0.125000
G01 X68.420784 Y55.064585 Z-0.125000
G01 X68.473250 Y55.014708 Z-0.125000
G01 X68.531745 Y54.958044 Z-0.125000
G01 X68.584069 Y54.907606 Z-0.125000
G01 X68.636244 Y54.856838 Z-0.125000
G01 X68.694194 Y54.799061 Z-0.125000
G01 X68.745875 Y54.747476 Z-0.125000
G01 X68.803127 Y54.688712 Z-0.125000
G01 X68.854078 Y54.636147 Z-0.125000
G01 X68.904603 Y54.583062 Z-0.125000
G01 X68.960341 Y54.522512 Z-0.125000
G01 X69.009775 Y54.468212 Z-0.125000
G01 X69.058605 Y54.413283 Z-0.125000
G01 X69.112205 Y54.350566 Z-0.125000
G01 X69.159544 Y54.294197 Z-0.125000
G01 X69.206081 Y54.237095 Z-0.125000
G01 X69.256842 Y54.171846 Z-0.125000
G01 X69.301432 Y54.113093 Z-0.125000
G01 X69.344987 Y54.053514 Z-0.125000
G01 X69.392101 Y53.985405 Z-0.125000
G01 X69.433180 Y53.923994 Z-0.125000
G01 X69.472959 Y53.861685 Z-0.125000
G01 X69.515488 Y53.790462 Z-0.125000
G01 X69.552186 Y53.726203 Z-0.125000
G01 X69.587281 Y53.661014 Z-0.125000
G01 X69.624170 Y53.586566 Z-0.125000
G01 X69.655523 Y53.519417 Z-0.125000
G01 X69.684954 Y53.451364 Z-0.125000
G01 X69.712362 Y53.382434 Z-0.125000
G01 X69.737650 Y53.312664 Z-0.125000
G01 X69.763197 Y53.233363 Z-0.125000
G01 X69.785670 Y53.162544 Z-0.125000
G01 X69.807679 Y53.091529 Z-0.125000
G01 X69.831317 Y53.011487 Z-0.125000
G01 X69.854322 Y52.931223 Z-0.125000
G01 X69.874695 Y52.859598 Z-0.125000
G01 X69.894518 Y52.787782 Z-0.125000
G01 X69.915592 Y52.706882 Z-0.125000
G01 X69.934161 Y52.634671 Z-0.125000
G01 X69.952097 Y52.562270 Z-0.125000
G01 X69.970944 Y52.480740 Z-0.125000
G01 X69.987421 Y52.407943 Z-0.125000
G01 X70.003152 Y52.334956 Z-0.125000
G01 X70.019380 Y52.252793 Z-0.125000
G01 X70.033377 Y52.179410 Z-0.125000
G01 X70.046475 Y52.105840 Z-0.125000
G01 X70.059546 Y52.023048 Z-0.125000
G01 X70.070527 Y51.949091 Z-0.125000
G01 X70.080394 Y51.874954 Z-0.125000
G01 X70.089549 Y51.791563 Z-0.125000
G01 X70.096748 Y51.717073 Z-0.125000
G01 X70.102519 Y51.642432 Z-0.125000
G01 X70.106644 Y51.558548 Z-0.125000
G01 X70.108921 Y51.483667 Z-0.125000
G01 X70.109290 Y51.408718 Z-0.125000
G01 X70.106685 Y51.324655 Z-0.125000
G01 X70.102274 Y51.249773 Z-0.125000
G01 X70.095207 Y51.175063 Z-0.125000
G01 X70.083185 Y51.091685 Z-0.125000
G01 X70.069314 Y51.017885 Z-0.125000
G01 X70.051599 Y50.944902 Z-0.125000
G01 X70.026025 Y50.864566 Z-0.125000
G01 X70.002715 Y50.803054 Z-0.125000
G01 X69.965716 Y50.727438 Z-0.125000
G01 X69.921505 Y50.656065 Z-0.125000
G01 X69.876366 Y50.597017 Z-0.125000
G01 X69.825546 Y50.543423 Z-0.125000
G01 X69.761842 Y50.491035 Z-0.125000
G01 X69.701119 Y50.451442 Z-0.125000
G01 X69.637211 Y50.418796 Z-0.125000
G01 X69.562289 Y50.390392 Z-0.125000
G01 X69.494621 Y50.371312 Z-0.125000
G01 X69.426239 Y50.357680 Z-0.125000
G01 X69.348592 Y50.348432 Z-0.125000
G01 X69.279958 Y50.344280 Z-0.125000
G01 X69.211543 Y50.343713 Z-0.125000
G01 X69.134587 Y50.347188 Z-0.125000
G01 X69.066948 Y50.352799 Z-0.125000
G01 X68.999730 Y50.360764 Z-0.125000
G01 X68.924244 Y50.372563 Z-0.125000
G01 X68.857935 Y50.384646 Z-0.125000
G01 X68.792030 Y50.398332 Z-0.125000
G01 X68.717986 Y50.415859 Z-0.125000
G01 X68.652874 Y50.432416 Z-0.125000
G01 X68.588091 Y50.450117 Z-0.125000
G01 X68.523613 Y50.468848 Z-0.125000
G01 X68.451057 Y50.491456 Z-0.125000
G01 X68.387135 Y50.512060 Z-0.125000
G01 X68.315142 Y50.536580 Z-0.125000
G01 X68.251646 Y50.558715 Z-0.125000
G01 X68.188307 Y50.581473 Z-0.125000
G01 X68.116882 Y50.608198 Z-0.125000
G01 X68.053787 Y50.632104 Z-0.125000
G01 X67.990760 Y50.656478 Z-0.125000
G01 X67.919595 Y50.684864 Z-0.125000
G01 X67.856624 Y50.710104 Z-0.125000
G01 X67.793631 Y50.735695 Z-0.125000
G01 X67.722409 Y50.765334 Z-0.125000
G01 X67.659269 Y50.791575 Z-0.125000
G01 X67.596007 Y50.818078 Z-0.125000
G01 X67.532587 Y50.844819 Z-0.125000
G01 X67.460743 Y50.875642 Z-0.125000
G01 X67.396873 Y50.902822 Z-0.125000
G01 X67.324437 Y50.934099 Z-0.125000
G01 X67.259935 Y50.961637 Z-0.125000
G01 X67.119539 Y51.025155 Z-0.125000
G01 X67.053781 Y51.053154 Z-0.125000
G01 X66.987490 Y51.081279 Z-0.125000
G01 X66.911998 Y51.113581 Z-0.125000
G01 X66.844376 Y51.141976 Z-0.125000
G01 X66.776015 Y51.170509 Z-0.125000
G01 X66.697979 Y51.203318 Z-0.125000
G01 X66.636787 Y51.228054 Z-0.125000
G01 X66.556678 Y51.261302 Z-0.125000
G01 X66.475251 Y51.294873 Z-0.125000
G01 X66.401763 Y51.324560 Z-0.125000
G01 X66.327025 Y51.354619 Z-0.125000
G01 X66.241276 Y51.389520 Z-0.125000
G01 X66.163610 Y51.420646 Z-0.125000
G01 X66.084437 Y51.452435 Z-0.125000
G01 X65.993479 Y51.489701 Z-0.125000
G01 X65.910930 Y51.523343 Z-0.125000
G01 X65.826734 Y51.558097 Z-0.125000
G01 X65.740896 Y51.594140 Z-0.125000
G01 X65.642509 Y51.636990 Z-0.125000
G01 X65.553399 Y51.676356 Z-0.125000
G01 X65.451671 Y51.723377 Z-0.125000
G01 X65.359911 Y51.766812 Z-0.125000
G01 X65.267244 Y51.812346 Z-0.125000
G01 X65.162498 Y51.866653 Z-0.125000
G01 X65.068918 Y51.916749 Z-0.125000
G01 X64.975418 Y51.968893 Z-0.125000
G01 X64.871065 Y52.030233 Z-0.125000
G01 X64.778858 Y52.086023 Z-0.125000
G01 X64.687705 Y52.143019 Z-0.125000
G01 X64.587059 Y52.208420 Z-0.125000
G01 X64.498766 Y52.266364 Z-0.125000
G01 X64.411914 Y52.323788 Z-0.125000
G01 X64.326445 Y52.379829 Z-0.125000
G01 X64.232184 Y52.440005 Z-0.125000
G01 X64.148933 Y52.488049 Z-0.125000
G01 X64.056445 Y52.529979 Z-0.125000
G01 X63.978767 Y52.533654 Z-0.125000
G01 X63.910369 Y52.507544 Z-0.125000
G01 X63.838628 Y52.468962 Z-0.125000
G01 X63.779210 Y52.426196 Z-0.125000
G01 X63.724764 Y52.376160 Z-0.125000
G01 X63.670269 Y52.312370 Z-0.125000
G01 X63.627039 Y52.249547 Z-0.125000
G01 X63.588933 Y52.182211 Z-0.125000
G01 X63.552236 Y52.102521 Z-0.125000
G01 X63.523768 Y52.028588 Z-0.125000
G01 X63.499084 Y51.952685 Z-0.125000
G01 X63.477678 Y51.875362 Z-0.125000
G01 X63.459062 Y51.797049 Z-0.125000
G01 X63.441338 Y51.708520 Z-0.125000
G01 X63.429692 Y51.648340 Z-0.125000
G01 X63.416727 Y51.568815 Z-0.125000
G01 X63.405921 Y51.498852 Z-0.125000
G01 X63.393983 Y51.409800 Z-0.125000
G01 X63.383585 Y51.330538 Z-0.125000
G01 X63.373430 Y51.251571 Z-0.125000
G01 X63.362329 Y51.163578 Z-0.125000
G01 X63.351707 Y51.085506 Z-0.125000
G01 X63.340412 Y51.007972 Z-0.125000
G01 X63.326929 Y50.921893 Z-0.125000
G01 X63.314629 Y50.854869 Z-0.125000
G01 X63.297884 Y50.770538 Z-0.125000
G01 X63.280616 Y50.696250 Z-0.125000
G01 X63.261046 Y50.623096 Z-0.125000
G01 X63.236213 Y50.542800 Z-0.125000
G01 X63.216557 Y50.489271 Z-0.125000
G01 X63.188368 Y50.420614 Z-0.125000
G01 X63.152553 Y50.346382 Z-0.125000
G01 X63.120495 Y50.290150 Z-0.125000
G01 X63.075191 Y50.222205 Z-0.125000
G01 X63.029765 Y50.165150 Z-0.125000
G01 X62.979725 Y50.112084 Z-0.125000
G01 X62.938492 Y50.074325 Z-0.125000
G01 X62.880654 Y50.029217 Z-0.125000
G01 X62.818778 Y49.989049 Z-0.125000
G01 X62.761301 Y49.957633 Z-0.125000
G01 X62.693086 Y49.926938 Z-0.125000
G01 X62.622227 Y49.901162 Z-0.125000
G01 X62.540368 Y49.878117 Z-0.125000
G01 X62.465486 Y49.862008 Z-0.125000
G01 X62.389048 Y49.850937 Z-0.125000
G01 X62.301854 Y49.845748 Z-0.125000
G01 X62.222989 Y49.847662 Z-0.125000
G01 X62.143723 Y49.856717 Z-0.125000
G01 X62.064772 Y49.873383 Z-0.125000
G01 X61.986987 Y49.897867 Z-0.125000
G01 X61.902386 Y49.934972 Z-0.125000
G01 X61.829934 Y49.975278 Z-0.125000
G01 X61.753128 Y50.028651 Z-0.125000
G01 X61.688681 Y50.081654 Z-0.125000
G01 X61.628324 Y50.139299 Z-0.125000
G01 X61.572017 Y50.200809 Z-0.125000
G01 X61.513770 Y50.274117 Z-0.125000
G01 X61.465516 Y50.341732 Z-0.125000
G01 X61.420702 Y50.411467 Z-0.125000
G01 X61.339990 Y50.567904 Z-0.125000
G01 X61.300754 Y50.651895 Z-0.125000
G01 X61.223664 Y50.865483 Z-0.125000
G01 X61.189337 Y50.973121 Z-0.125000
G01 X61.165267 Y51.051465 Z-0.125000
G01 X61.142832 Y51.130340 Z-0.125000
G01 X61.120059 Y51.219902 Z-0.125000
G01 X61.101140 Y51.299774 Z-0.125000
G01 X61.083885 Y51.380063 Z-0.125000
G01 X61.066963 Y51.471081 Z-0.125000
G01 X61.053247 Y51.552150 Z-0.125000
G01 X61.040312 Y51.643931 Z-0.125000
G01 X61.030121 Y51.725626 Z-0.125000
G01 X61.021573 Y51.807570 Z-0.125000
G01 X61.014664 Y51.889733 Z-0.125000
G01 X61.009377 Y51.972095 Z-0.125000
G01 X61.005698 Y52.054619 Z-0.125000
G01 X61.003994 Y52.147779 Z-0.125000
G01 X61.004288 Y52.241065 Z-0.125000
G01 X61.005733 Y52.323943 Z-0.125000
G01 X61.008714 Y52.406892 Z-0.125000
G01 X61.014418 Y52.500384 Z-0.125000
G01 X61.020601 Y52.583405 Z-0.125000
G01 X61.026684 Y52.655953 Z-0.125000
G01 X61.039158 Y52.759947 Z-0.125000
G01 X61.049881 Y52.842961 Z-0.125000
G01 X61.062020 Y52.925948 Z-0.125000
G01 X61.077883 Y53.019331 Z-0.125000
G01 X61.090431 Y53.091818 Z-0.125000
G01 X61.109360 Y53.185072 Z-0.125000
G01 X61.127119 Y53.267858 Z-0.125000
G01 X61.149228 Y53.360944 Z-0.125000
G01 X61.169773 Y53.443577 Z-0.125000
G01 X61.191611 Y53.526143 Z-0.125000
G01 X61.218254 Y53.618929 Z-0.125000
G01 X61.242791 Y53.701324 Z-0.125000
G01 X61.268577 Y53.783628 Z-0.125000
G01 X61.324113 Y53.937443 Z-0.125000
G01 X61.353445 Y54.019431 Z-0.125000
G01 X61.515641 Y54.384450 Z-0.125000
G01 X61.551571 Y54.465560 Z-0.125000
G01 X61.593962 Y54.556547 Z-0.125000
G01 X61.632434 Y54.637379 Z-0.125000
G01 X61.677682 Y54.728012 Z-0.125000
G01 X61.712970 Y54.798608 Z-0.125000
G01 X61.760908 Y54.888863 Z-0.125000
G01 X61.804325 Y54.969039 Z-0.125000
G01 X61.855133 Y55.058831 Z-0.125000
G01 X61.901104 Y55.138567 Z-0.125000
G01 X61.948296 Y55.218099 Z-0.125000
G01 X62.003348 Y55.307071 Z-0.125000
G01 X62.046326 Y55.376430 Z-0.125000
G01 X62.104092 Y55.464757 Z-0.125000
G01 X62.163403 Y55.552695 Z-0.125000
G01 X62.216971 Y55.630716 Z-0.125000
G01 X62.271756 Y55.708377 Z-0.125000
G01 X62.335318 Y55.795006 Z-0.125000
G01 X62.392685 Y55.871818 Z-0.125000
G01 X62.451257 Y55.948177 Z-0.125000
G01 X62.519045 Y56.033204 Z-0.125000
G01 X62.580162 Y56.108510 Z-0.125000
G01 X62.642461 Y56.183270 Z-0.125000
G01 X62.714378 Y56.266337 Z-0.125000
G01 X62.779152 Y56.339826 Z-0.125000
G01 X62.845072 Y56.412667 Z-0.125000
G01 X62.920981 Y56.493418 Z-0.125000
G01 X62.989270 Y56.564764 Z-0.125000
G01 X63.058645 Y56.635354 Z-0.125000
G01 X63.138339 Y56.713423 Z-0.125000
G01 X63.209946 Y56.782302 Z-0.125000
G01 X63.282561 Y56.850323 Z-0.125000
G01 X63.365770 Y56.925356 Z-0.125000
G01 X63.440442 Y56.991462 Z-0.125000
G01 X63.516035 Y57.056620 Z-0.125000
G01 X63.592528 Y57.120811 Z-0.125000
G01 X63.679901 Y57.191364 Z-0.125000
G01 X63.768294 Y57.260606 Z-0.125000
G01 X63.847448 Y57.321458 Z-0.125000
G01 X63.927363 Y57.381244 Z-0.125000
G01 X64.007999 Y57.439941 Z-0.125000
G01 X64.099778 Y57.504156 Z-0.125000
G01 X64.181836 Y57.560480 Z-0.125000
G01 X64.264522 Y57.615667 Z-0.125000
G01 X64.358461 Y57.675866 Z-0.125000
G01 X64.442369 Y57.728588 Z-0.125000
G01 X64.526812 Y57.780131 Z-0.125000
G01 X64.622583 Y57.836171 Z-0.125000
G01 X64.708062 Y57.885171 Z-0.125000
G01 X64.794008 Y57.932961 Z-0.125000
G01 X64.891343 Y57.984727 Z-0.125000
G01 X64.967191 Y58.024863 Z-0.125000
G01 X65.065430 Y58.073834 Z-0.125000
G01 X65.153053 Y58.116499 Z-0.125000
G01 X65.721285 Y58.333966 Z-0.125000
G01 X65.811057 Y58.366654 Z-0.125000
G01 X65.912479 Y58.401100 Z-0.125000
G01 X65.991669 Y58.427524 Z-0.125000
G01 X66.093903 Y58.458431 Z-0.125000
G01 X66.185186 Y58.484606 Z-0.125000
G01 X66.288323 Y58.511376 Z-0.125000
G01 X66.368976 Y58.531524 Z-0.125000
G01 X66.473056 Y58.553899 Z-0.125000
G01 X66.577687 Y58.573512 Z-0.125000
G01 X66.764585 Y58.597295 Z-0.125000
G01 X66.870758 Y58.607610 Z-0.125000
G01 X66.965696 Y58.613757 Z-0.125000
G01 X67.061017 Y58.616142 Z-0.125000
G01 X67.168421 Y58.613104 Z-0.125000
G01 X67.263991 Y58.605505 Z-0.125000
G01 X67.359107 Y58.591962 Z-0.125000
G01 X67.453014 Y58.571482 Z-0.125000
G01 X67.555489 Y58.538317 Z-0.125000
G01 X67.631667 Y58.505648 Z-0.125000
G01 X67.730444 Y58.444984 Z-0.125000
G01 X67.790999 Y58.395953 Z-0.125000
G01 X67.855242 Y58.324530 Z-0.125000
G01 X67.899682 Y58.257128 Z-0.125000
G01 X67.936091 Y58.178455 Z-0.125000
G01 X67.958358 Y58.108401 Z-0.125000
G01 X67.972524 Y58.038659 Z-0.125000
G01 X67.803526 Y57.634914 Z-0.125000
G01 X67.804240 Y57.616104 Z-0.125000
G01 X67.806357 Y57.517305 Z-0.125000
G01 X67.827434 Y57.350998 Z-0.125000
G01 X67.851401 Y57.254346 Z-0.125000
G01 X67.882513 Y57.159365 Z-0.125000
G01 X67.951446 Y56.992364 Z-0.125000
G01 X67.993295 Y56.913212 Z-0.125000
G01 X68.044355 Y56.825590 Z-0.125000
G01 X68.093336 Y56.749717 Z-0.125000
G01 X68.151392 Y56.665580 Z-0.125000
G01 X68.205818 Y56.592559 Z-0.125000
G01 X68.262342 Y56.520700 Z-0.125000
G01 X68.385026 Y56.367575 Z-0.125000
G01 X68.446502 Y56.298664 Z-0.125000
G01 X68.516729 Y56.221560 Z-0.125000
G01 X68.572959 Y56.162801 Z-0.125000
G01 X68.645382 Y56.086912 Z-0.125000
G01 X68.718769 Y56.011533 Z-0.125000
G01 X68.785057 Y55.945171 Z-0.125000
G01 X68.851889 Y55.879015 Z-0.125000
G01 X68.927161 Y55.804413 Z-0.125000
G01 X68.994823 Y55.738459 Z-0.125000
G01 X69.062741 Y55.672487 Z-0.125000
G01 X69.138893 Y55.597874 Z-0.125000
G01 X69.207089 Y55.531664 Z-0.125000
G01 X69.275302 Y55.465243 Z-0.125000
G01 X69.351485 Y55.389944 Z-0.125000
G01 X69.419493 Y55.322903 Z-0.125000
G01 X69.487299 Y55.255481 Z-0.125000
G01 X69.562752 Y55.178892 Z-0.125000
G01 X69.629899 Y55.110502 Z-0.125000
G01 X69.704429 Y55.032719 Z-0.125000
G01 X69.770612 Y54.963138 Z-0.125000
G01 X69.836235 Y54.892914 Z-0.125000
G01 X69.908773 Y54.812921 Z-0.125000
G01 X69.972958 Y54.741186 Z-0.125000
G01 X70.036348 Y54.668659 Z-0.125000
G01 X70.106077 Y54.585941 Z-0.125000
G01 X70.167505 Y54.511597 Z-0.125000
G01 X70.227877 Y54.436323 Z-0.125000
G01 X70.293873 Y54.350383 Z-0.125000
G01 X70.351682 Y54.273005 Z-0.125000
G01 X70.408129 Y54.194573 Z-0.125000
G01 X70.469319 Y54.104968 Z-0.125000
G01 X70.522504 Y54.024191 Z-0.125000
G01 X70.573973 Y53.942262 Z-0.125000
G01 X70.629122 Y53.848657 Z-0.125000
G01 X70.676530 Y53.764227 Z-0.125000
G01 X70.721822 Y53.678601 Z-0.125000
G01 X70.769532 Y53.580849 Z-0.125000
G01 X70.809886 Y53.492709 Z-0.125000
G01 X70.847703 Y53.403413 Z-0.125000
G01 X70.882851 Y53.312996 Z-0.125000
G01 X70.915202 Y53.221507 Z-0.125000
G01 X70.947946 Y53.117541 Z-0.125000
G01 X70.976605 Y53.024736 Z-0.125000
G01 X71.004676 Y52.931700 Z-0.125000
G01 X71.034978 Y52.826843 Z-0.125000
G01 X71.064472 Y52.721717 Z-0.125000
G01 X71.090458 Y52.627953 Z-0.125000
G01 X71.115742 Y52.533960 Z-0.125000
G01 X71.142767 Y52.428065 Z-0.125000
G01 X71.166444 Y52.333593 Z-0.125000
G01 X71.189306 Y52.238889 Z-0.125000
G01 X71.213466 Y52.132220 Z-0.125000
G01 X71.234449 Y52.037032 Z-0.125000
G01 X71.254468 Y51.941612 Z-0.125000
G01 X71.275240 Y51.834160 Z-0.125000
G01 X71.293011 Y51.738252 Z-0.125000
G01 X71.309616 Y51.642112 Z-0.125000
G01 X71.326286 Y51.533880 Z-0.125000
G01 X71.340136 Y51.437264 Z-0.125000
G01 X71.352533 Y51.340429 Z-0.125000
G01 X71.364093 Y51.231457 Z-0.125000
G01 X71.373003 Y51.134191 Z-0.125000
G01 X71.380044 Y51.036746 Z-0.125000
G01 X71.385016 Y50.927184 Z-0.125000
G01 X71.387476 Y50.829463 Z-0.125000
G01 X71.387430 Y50.731679 Z-0.125000
G01 X71.383560 Y50.621955 Z-0.125000
G01 X71.377236 Y50.524313 Z-0.125000
G01 X71.367407 Y50.426933 Z-0.125000
G01 X71.351140 Y50.318216 Z-0.125000
G01 X71.332347 Y50.222115 Z-0.125000
G01 X71.308478 Y50.127142 Z-0.125000
G01 X71.274319 Y50.022594 Z-0.125000
G01 X71.242972 Y49.942789 Z-0.125000
G01 X71.193706 Y49.844607 Z-0.125000
G01 X71.134891 Y49.752111 Z-0.125000
G01 X71.074743 Y49.675863 Z-0.125000
G01 X71.007056 Y49.606886 Z-0.125000
G01 X70.922375 Y49.539694 Z-0.125000
G01 X70.841523 Y49.489334 Z-0.125000
G01 X70.756423 Y49.448197 Z-0.125000
G01 X70.656779 Y49.412833 Z-0.125000
G01 X70.566643 Y49.389681 Z-0.125000
G01 X70.475543 Y49.373749 Z-0.125000
G01 X70.372218 Y49.363766 Z-0.125000
G01 X70.280761 Y49.360392 Z-0.125000
G01 X70.189593 Y49.361773 Z-0.125000
G01 X70.087171 Y49.368646 Z-0.125000
G01 X69.997039 Y49.378215 Z-0.125000
G01 X69.907478 Y49.390916 Z-0.125000
G01 X69.807049 Y49.408884 Z-0.125000
G01 X69.718729 Y49.427066 Z-0.125000
G01 X69.630969 Y49.447386 Z-0.125000
G01 X69.532518 Y49.472944 Z-0.125000
G01 X69.445867 Y49.497097 Z-0.125000
G01 X69.359686 Y49.522780 Z-0.125000
G01 X69.273941 Y49.549843 Z-0.125000
G01 X69.177618 Y49.582211 Z-0.125000
G01 X69.092700 Y49.611802 Z-0.125000
G01 X68.997226 Y49.646753 Z-0.125000
G01 X68.912975 Y49.678423 Z-0.125000
G01 X68.828986 Y49.710943 Z-0.125000
G01 X68.734453 Y49.748900 Z-0.125000
G01 X68.650918 Y49.782999 Z-0.125000
G01 X68.567543 Y49.817746 Z-0.125000
G01 X68.473589 Y49.858004 Z-0.125000
G01 X68.390451 Y49.893961 Z-0.125000
G01 X68.307369 Y49.930417 Z-0.125000
G01 X68.213635 Y49.972444 Z-0.125000
G01 X68.130561 Y50.009833 Z-0.125000
G01 X68.047431 Y50.047603 Z-0.125000
G01 X67.964209 Y50.085726 Z-0.125000
G01 X67.870162 Y50.129481 Z-0.125000
G01 X67.786619 Y50.168260 Z-0.125000
G01 X67.692116 Y50.212700 Z-0.125000
G01 X67.608054 Y50.252031 Z-0.125000
G01 X67.426256 Y50.340875 Z-0.125000
G01 X67.341087 Y50.380908 Z-0.125000
G01 X67.255425 Y50.421134 Z-0.125000
G01 X67.158190 Y50.467128 Z-0.125000
G01 X67.071279 Y50.507754 Z-0.125000
G01 X66.983666 Y50.548574 Z-0.125000
G01 X66.884010 Y50.595265 Z-0.125000
G01 X66.806027 Y50.630840 Z-0.125000
G01 X66.704362 Y50.678071 Z-0.125000
G01 X66.601411 Y50.725674 Z-0.125000
G01 X66.508816 Y50.767873 Z-0.125000
G01 X66.414989 Y50.810474 Z-0.125000
G01 X66.307789 Y50.859514 Z-0.125000
G01 X66.211069 Y50.903234 Z-0.125000
G01 X66.112855 Y50.947636 Z-0.125000
G01 X66.000484 Y50.999106 Z-0.125000
G01 X65.898908 Y51.045385 Z-0.125000
G01 X65.795690 Y51.092778 Z-0.125000
G01 X65.690827 Y51.141458 Z-0.125000
G01 X65.571032 Y51.198516 Z-0.125000
G01 X65.462881 Y51.250497 Z-0.125000
G01 X65.339716 Y51.311682 Z-0.125000
G01 X65.228879 Y51.367675 Z-0.125000
G01 X65.117108 Y51.425727 Z-0.125000
G01 X64.990831 Y51.494056 Z-0.125000
G01 X64.878066 Y51.556544 Z-0.125000
G01 X64.765331 Y51.621002 Z-0.125000
G01 X64.639258 Y51.696072 Z-0.125000
G01 X64.527660 Y51.763931 Z-0.125000
G01 X64.417019 Y51.832837 Z-0.125000
G01 X64.294302 Y51.911394 Z-0.125000
G01 X64.186227 Y51.980749 Z-0.125000
G01 X64.079390 Y52.049232 Z-0.125000
G01 X63.973676 Y52.115845 Z-0.125000
G01 X63.856209 Y52.187045 Z-0.125000
G01 X63.751774 Y52.243615 Z-0.125000
G01 X63.634498 Y52.292162 Z-0.125000
G01 X63.534390 Y52.293818 Z-0.125000
G01 X63.444965 Y52.258809 Z-0.125000
G01 X63.350595 Y52.208077 Z-0.125000
G01 X63.272202 Y52.152614 Z-0.125000
G01 X63.200039 Y52.088176 Z-0.125000
G01 X63.127275 Y52.006335 Z-0.125000
G01 X63.069340 Y51.926045 Z-0.125000
G01 X63.017958 Y51.840130 Z-0.125000
G01 X62.967940 Y51.738476 Z-0.125000
G01 X62.928943 Y51.644281 Z-0.125000
G01 X62.894823 Y51.547579 Z-0.125000
G01 X62.864939 Y51.449049 Z-0.125000
G01 X62.838674 Y51.349218 Z-0.125000
G01 X62.813156 Y51.236205 Z-0.125000
G01 X62.796719 Y51.159579 Z-0.125000
G01 X62.777738 Y51.058018 Z-0.125000
G01 X62.762050 Y50.968678 Z-0.125000
G01 X62.744110 Y50.854642 Z-0.125000
G01 X62.728576 Y50.753124 Z-0.125000
G01 X62.713388 Y50.651880 Z-0.125000
G01 X62.696647 Y50.538821 Z-0.125000
G01 X62.680935 Y50.438482 Z-0.125000
G01 X62.664356 Y50.338725 Z-0.125000
G01 X62.644712 Y50.227702 Z-0.125000
G01 X62.627327 Y50.141352 Z-0.125000
G01 X62.603571 Y50.032302 Z-0.125000
G01 X62.579531 Y49.936200 Z-0.125000
G01 X62.552589 Y49.841433 Z-0.125000
G01 X62.518610 Y49.737125 Z-0.125000
G01 X62.492289 Y49.667818 Z-0.125000
G01 X62.454419 Y49.578478 Z-0.125000
G01 X62.406511 Y49.481578 Z-0.125000
G01 X62.364093 Y49.408259 Z-0.125000
G01 X62.304147 Y49.319206 Z-0.125000
G01 X62.244408 Y49.244357 Z-0.125000
G01 X62.178820 Y49.174566 Z-0.125000
G01 X62.125131 Y49.125052 Z-0.125000
G01 X62.049675 Y49.065417 Z-0.125000
G01 X61.969117 Y49.012119 Z-0.125000
G01 X61.894519 Y48.970403 Z-0.125000
G01 X61.805976 Y48.929305 Z-0.125000
G01 X61.714116 Y48.894564 Z-0.125000
G01 X61.607998 Y48.863067 Z-0.125000
G01 X61.511112 Y48.840850 Z-0.125000
G01 X61.412309 Y48.825171 Z-0.125000
G01 X61.299620 Y48.816853 Z-0.125000
G01 X61.197934 Y48.818052 Z-0.125000
G01 X61.095883 Y48.828545 Z-0.125000
G01 X60.994412 Y48.848951 Z-0.125000
G01 X60.894635 Y48.879566 Z-0.125000
G01 X60.786266 Y48.926384 Z-0.125000
G01 X60.693806 Y48.977682 Z-0.125000
G01 X60.595971 Y49.045798 Z-0.125000
G01 X60.514249 Y49.113728 Z-0.125000
G01 X60.437975 Y49.187743 Z-0.125000
G01 X60.367080 Y49.266819 Z-0.125000
G01 X60.293937 Y49.361054 Z-0.125000
G01 X60.233703 Y49.448113 Z-0.125000
G01 X60.178015 Y49.537928 Z-0.125000
G01 X60.077510 Y49.738661 Z-0.125000
G01 X60.029440 Y49.846777 Z-0.125000
G01 X59.934950 Y50.120693 Z-0.125000
G01 X59.893814 Y50.258989 Z-0.125000
G01 X59.865392 Y50.359752 Z-0.125000
G01 X59.839111 Y50.461141 Z-0.125000
G01 X59.812617 Y50.576127 Z-0.125000
G01 X59.790935 Y50.678669 Z-0.125000
G01 X59.771423 Y50.781685 Z-0.125000
G01 X59.752572 Y50.898327 Z-0.125000
G01 X59.737679 Y51.002205 Z-0.125000
G01 X59.724024 Y51.119669 Z-0.125000
G01 X59.713722 Y51.224203 Z-0.125000
G01 X59.705561 Y51.328984 Z-0.125000
G01 X59.699527 Y51.433969 Z-0.125000
G01 X59.695601 Y51.539128 Z-0.125000
G01 X59.693762 Y51.644418 Z-0.125000
G01 X59.694691 Y51.763138 Z-0.125000
G01 X59.698204 Y51.881915 Z-0.125000
G01 X59.702993 Y51.987386 Z-0.125000
G01 X59.709762 Y52.092857 Z-0.125000
G01 X59.720255 Y52.211594 Z-0.125000
G01 X59.731144 Y52.316963 Z-0.125000
G01 X59.741681 Y52.408991 Z-0.125000
G01 X59.761072 Y52.540686 Z-0.125000
G01 X59.777774 Y52.645741 Z-0.125000
G01 X59.796289 Y52.750660 Z-0.125000
G01 X59.819767 Y52.868581 Z-0.125000
G01 X59.838587 Y52.960046 Z-0.125000
G01 X59.865959 Y53.077566 Z-0.125000
G01 X59.891595 Y53.181790 Z-0.125000
G01 X59.922970 Y53.298840 Z-0.125000
G01 X59.952108 Y53.402634 Z-0.125000
G01 X59.982860 Y53.506227 Z-0.125000
G01 X60.019900 Y53.622507 Z-0.125000
G01 X60.054008 Y53.725643 Z-0.125000
G01 X60.089658 Y53.828545 Z-0.125000
G01 X60.164462 Y54.020604 Z-0.125000
G01 X60.204468 Y54.122786 Z-0.125000
G01 X60.417895 Y54.576890 Z-0.125000
G01 X60.465881 Y54.677397 Z-0.125000
G01 X60.522110 Y54.790033 Z-0.125000
G01 X60.573121 Y54.889955 Z-0.125000
G01 X60.632737 Y55.001891 Z-0.125000
G01 X60.679383 Y55.088926 Z-0.125000
G01 X60.742161 Y55.200158 Z-0.125000
G01 X60.798983 Y55.298824 Z-0.125000
G01 X60.865109 Y55.409248 Z-0.125000
G01 X60.924897 Y55.507166 Z-0.125000
G01 X60.986096 Y55.604739 Z-0.125000
G01 X61.057125 Y55.713838 Z-0.125000
G01 X61.112686 Y55.798722 Z-0.125000
G01 X61.186824 Y55.906849 Z-0.125000
G01 X61.262728 Y56.014408 Z-0.125000
G01 X61.331221 Y56.109718 Z-0.125000
G01 X61.401094 Y56.204524 Z-0.125000
G01 X61.481822 Y56.310272 Z-0.125000
G01 X61.554615 Y56.403928 Z-0.125000
G01 X61.628766 Y56.496988 Z-0.125000
G01 X61.714262 Y56.600635 Z-0.125000
G01 X61.791276 Y56.692342 Z-0.125000
G01 X61.869616 Y56.783359 Z-0.125000
G01 X61.959753 Y56.884545 Z-0.125000
G01 X62.040870 Y56.973988 Z-0.125000
G01 X62.123270 Y57.062640 Z-0.125000
G01 X62.217882 Y57.161009 Z-0.125000
G01 X62.302941 Y57.247861 Z-0.125000
G01 X62.389216 Y57.333814 Z-0.125000
G01 X62.488078 Y57.428994 Z-0.125000
G01 X62.576860 Y57.512929 Z-0.125000
G01 X62.666776 Y57.595859 Z-0.125000
G01 X62.769598 Y57.687489 Z-0.125000
G01 X62.861837 Y57.768190 Z-0.125000
G01 X62.955121 Y57.847795 Z-0.125000
G01 X63.049426 Y57.926283 Z-0.125000
G01 X63.156981 Y58.012739 Z-0.125000
G01 X63.265707 Y58.097687 Z-0.125000
G01 X63.363062 Y58.172336 Z-0.125000
G01 X63.461297 Y58.245763 Z-0.125000
G01 X63.560371 Y58.317940 Z-0.125000
G01 X63.673032 Y58.397127 Z-0.125000
G01 X63.773776 Y58.466584 Z-0.125000
G01 X63.875264 Y58.534736 Z-0.125000
G01 X63.990497 Y58.609319 Z-0.125000
G01 X64.093455 Y58.674640 Z-0.125000
G01 X64.197064 Y58.738604 Z-0.125000
G01 X64.314538 Y58.808400 Z-0.125000
G01 X64.419432 Y58.869428 Z-0.125000
G01 X64.524910 Y58.929056 Z-0.125000
G01 X64.644362 Y58.993901 Z-0.125000
G01 X64.737517 Y59.044032 Z-0.125000
G01 X64.858141 Y59.105616 Z-0.125000
G01 X64.965791 Y59.159261 Z-0.125000
G01 X65.664638 Y59.440983 Z-0.125000
G01 X65.775380 Y59.482725 Z-0.125000
G01 X65.900553 Y59.526970 Z-0.125000
G01 X65.998338 Y59.560714 Z-0.125000
G01 X66.124641 Y59.600620 Z-0.125000
G01 X66.237469 Y59.634372 Z-0.125000
G01 X66.365019 Y59.669150 Z-0.125000
G01 X66.464790 Y59.695117 Z-0.125000
G01 X66.593619 Y59.724397 Z-0.125000
G01 X66.723188 Y59.750195 Z-0.125000
G01 X66.954876 Y59.782909 Z-0.125000
G01 X67.086480 Y59.796875 Z-0.125000
G01 X67.204146 Y59.805277 Z-0.125000
G01 X67.322273 Y59.808836 Z-0.125000
G01 X67.455366 Y59.805600 Z-0.125000
G01 X67.573700 Y59.796227 Z-0.125000
G01 X67.691370 Y59.779122 Z-0.125000
G01 X67.807385 Y59.752951 Z-0.125000
G01 X67.933750 Y59.710390 Z-0.125000
G01 X68.027336 Y59.667929 Z-0.125000
G01 X68.148232 Y59.589299 Z-0.125000
G01 X68.221725 Y59.525061 Z-0.125000
G01 X68.298993 Y59.431534 Z-0.125000
G01 X68.351562 Y59.342809 Z-0.125000
G01 X68.393579 Y59.239083 Z-0.125000
G01 X68.418146 Y59.146316 Z-0.125000
G01 X68.432513 Y59.053741 Z-0.125000
G01 X68.263126 Y58.641451 Z-0.125000
G01 X68.263552 Y58.616939 Z-0.125000
G01 X68.265709 Y58.492452 Z-0.125000
G01 X68.291501 Y58.283612 Z-0.125000
G01 X68.320892 Y58.161851 Z-0.125000
G01 X68.359174 Y58.042201 Z-0.125000
G01 X68.444577 Y57.832615 Z-0.125000
G01 X68.496182 Y57.732814 Z-0.125000
G01 X68.559235 Y57.622471 Z-0.125000
G01 X68.619664 Y57.526835 Z-0.125000
G01 X68.691364 Y57.420929 Z-0.125000
G01 X68.758508 Y57.328938 Z-0.125000
G01 X68.828233 Y57.238440 Z-0.125000
G01 X68.980290 Y57.046683 Z-0.125000
G01 X69.056101 Y56.959991 Z-0.125000
G01 X69.142774 Y56.863146 Z-0.125000
G01 X69.211997 Y56.789203 Z-0.125000
G01 X69.301346 Y56.693982 Z-0.125000
G01 X69.391870 Y56.599458 Z-0.125000
G01 X69.473536 Y56.516208 Z-0.125000
G01 X69.555857 Y56.433269 Z-0.125000
G01 X69.648662 Y56.339884 Z-0.125000
G01 X69.731981 Y56.257302 Z-0.125000
G01 X69.815606 Y56.174747 Z-0.125000
G01 X69.909462 Y56.081513 Z-0.125000
G01 X69.993408 Y55.998763 Z-0.125000
G01 X70.077368 Y55.915798 Z-0.125000
G01 X70.171240 Y55.821863 Z-0.125000
G01 X70.254932 Y55.738218 Z-0.125000
G01 X70.338368 Y55.654145 Z-0.125000
G01 X70.431323 Y55.558742 Z-0.125000
G01 X70.513937 Y55.473548 Z-0.125000
G01 X70.605746 Y55.376748 Z-0.125000
G01 X70.687162 Y55.290147 Z-0.125000
G01 X70.767881 Y55.202785 Z-0.125000
G01 X70.857218 Y55.103352 Z-0.125000
G01 X70.936155 Y55.014180 Z-0.125000
G01 X71.014106 Y54.924056 Z-0.125000
G01 X71.099963 Y54.821336 Z-0.125000
G01 X71.175481 Y54.729016 Z-0.125000
G01 X71.249689 Y54.635571 Z-0.125000
G01 X71.330918 Y54.528939 Z-0.125000
G01 X71.401946 Y54.432936 Z-0.125000
G01 X71.471285 Y54.335651 Z-0.125000
G01 X71.546553 Y54.224552 Z-0.125000
G01 X71.611843 Y54.124408 Z-0.125000
G01 X71.675002 Y54.022859 Z-0.125000
G01 X71.742772 Y53.906872 Z-0.125000
G01 X71.800887 Y53.802270 Z-0.125000
G01 X71.856378 Y53.696207 Z-0.125000
G01 X71.914907 Y53.575153 Z-0.125000
G01 X71.964263 Y53.466021 Z-0.125000
G01 X72.010467 Y53.355481 Z-0.125000
G01 X72.053357 Y53.243578 Z-0.125000
G01 X72.092769 Y53.130370 Z-0.125000
G01 X72.132709 Y53.001738 Z-0.125000
G01 X72.167555 Y52.886948 Z-0.125000
G01 X72.201688 Y52.771892 Z-0.125000
G01 X72.238653 Y52.642219 Z-0.125000
G01 X72.274636 Y52.512231 Z-0.125000
G01 X72.306237 Y52.396328 Z-0.125000
G01 X72.336982 Y52.280158 Z-0.125000
G01 X72.369957 Y52.149267 Z-0.125000
G01 X72.398741 Y52.032533 Z-0.125000
G01 X72.426530 Y51.915528 Z-0.125000
G01 X72.456002 Y51.783720 Z-0.125000
G01 X72.481491 Y51.666142 Z-0.125000
G01 X72.505797 Y51.548288 Z-0.125000
G01 X72.531115 Y51.415546 Z-0.125000
G01 X72.552661 Y51.297112 Z-0.125000
G01 X72.572772 Y51.178404 Z-0.125000
G01 X72.593042 Y51.044732 Z-0.125000
G01 X72.609761 Y50.925458 Z-0.125000
G01 X72.624686 Y50.805923 Z-0.125000
G01 X72.638653 Y50.671370 Z-0.125000
G01 X72.649274 Y50.551329 Z-0.125000
G01 X72.657584 Y50.431081 Z-0.125000
G01 X72.663404 Y50.295837 Z-0.125000
G01 X72.666046 Y50.175278 Z-0.125000
G01 X72.665585 Y50.054660 Z-0.125000
G01 X72.660451 Y49.919273 Z-0.125000
G01 X72.652208 Y49.798874 Z-0.125000
G01 X72.639619 Y49.678823 Z-0.125000
G01 X72.619105 Y49.544768 Z-0.125000
G01 X72.595382 Y49.426367 Z-0.125000
G01 X72.565358 Y49.309403 Z-0.125000
G01 X72.522614 Y49.180644 Z-0.125000
G01 X72.483230 Y49.082546 Z-0.125000
G01 X72.421698 Y48.961798 Z-0.125000
G01 X72.348278 Y48.848179 Z-0.125000
G01 X72.273120 Y48.754731 Z-0.125000
G01 X72.188568 Y48.670372 Z-0.125000
G01 X72.082909 Y48.588376 Z-0.125000
G01 X71.981927 Y48.527250 Z-0.125000
G01 X71.875636 Y48.477619 Z-0.125000
G01 X71.751270 Y48.435298 Z-0.125000
G01 X71.638667 Y48.408073 Z-0.125000
G01 X71.524849 Y48.389838 Z-0.125000
G01 X71.395845 Y48.379121 Z-0.125000
G01 X71.281566 Y48.376527 Z-0.125000
G01 X71.167644 Y48.379855 Z-0.125000
G01 X71.039757 Y48.390130 Z-0.125000
G01 X70.927132 Y48.403657 Z-0.125000
G01 X70.815229 Y48.421092 Z-0.125000
G01 X70.689849 Y48.445194 Z-0.125000
G01 X70.579517 Y48.469466 Z-0.125000
G01 X70.469902 Y48.496419 Z-0.125000
G01 X70.347043 Y48.530004 Z-0.125000
G01 X70.238853 Y48.561754 Z-0.125000
G01 X70.131272 Y48.595419 Z-0.125000
G01 X70.024264 Y48.630816 Z-0.125000
G01 X69.904172 Y48.672945 Z-0.125000
G01 X69.798258 Y48.711524 Z-0.125000
G01 X69.679302 Y48.756906 Z-0.125000
G01 X69.574298 Y48.798111 Z-0.125000
G01 X69.469660 Y48.840391 Z-0.125000
G01 X69.352018 Y48.889582 Z-0.125000
G01 X69.248043 Y48.933873 Z-0.125000
G01 X69.144320 Y48.978993 Z-0.125000
G01 X69.027578 Y49.031120 Z-0.125000
G01 X68.924271 Y49.077797 Z-0.125000
G01 X68.821100 Y49.125119 Z-0.125000
G01 X68.704855 Y49.179533 Z-0.125000
G01 X68.601848 Y49.228069 Z-0.125000
G01 X68.498850 Y49.277108 Z-0.125000
G01 X68.395826 Y49.326613 Z-0.125000
G01 X68.279574 Y49.383299 Z-0.125000
G01 X68.176357 Y49.433678 Z-0.125000
G01 X68.059787 Y49.491280 Z-0.125000
G01 X67.956167 Y49.542403 Z-0.125000
G01 X67.732967 Y49.656574 Z-0.125000
G01 X67.628386 Y49.708641 Z-0.125000
G01 X67.523355 Y49.760968 Z-0.125000
G01 X67.404375 Y49.820652 Z-0.125000
G01 X67.298177 Y49.873510 Z-0.125000
G01 X67.191310 Y49.926617 Z-0.125000
G01 X67.070034 Y49.987191 Z-0.125000
G01 X66.975259 Y50.033605 Z-0.125000
G01 X66.852040 Y50.094819 Z-0.125000
G01 X66.727564 Y50.156456 Z-0.125000
G01 X66.615862 Y50.211164 Z-0.125000
G01 X66.502948 Y50.266307 Z-0.125000
G01 X66.374296 Y50.329487 Z-0.125000
G01 X66.258522 Y50.385801 Z-0.125000
G01 X66.141265 Y50.442815 Z-0.125000
G01 X66.007483 Y50.508491 Z-0.125000
G01 X65.886881 Y50.567404 Z-0.125000
G01 X65.764640 Y50.627437 Z-0.125000
G01 X65.640752 Y50.688754 Z-0.125000
G01 X65.499548 Y50.760021 Z-0.125000
G01 X65.372358 Y50.824616 Z-0.125000
G01 X65.227755 Y50.899967 Z-0.125000
G01 X65.097840 Y50.968517 Z-0.125000
G01 X64.966965 Y51.039088 Z-0.125000
G01 X64.819157 Y51.121436 Z-0.125000
G01 X64.687208 Y51.196319 Z-0.125000
G01 X64.555235 Y51.273089 Z-0.125000
G01 X64.407445 Y51.361888 Z-0.125000
G01 X64.276456 Y51.441818 Z-0.125000
G01 X64.146327 Y51.522635 Z-0.125000
G01 X64.001539 Y51.614346 Z-0.125000
G01 X63.873680 Y51.695114 Z-0.125000
G01 X63.746860 Y51.774655 Z-0.125000
G01 X63.620901 Y51.851839 Z-0.125000
G01 X63.480227 Y51.934063 Z-0.125000
G01 X63.354610 Y51.999158 Z-0.125000
G01 X63.212545 Y52.054324 Z-0.125000
G01 X63.090009 Y52.053965 Z-0.125000
G01 X62.979556 Y52.010057 Z-0.125000
G01 X62.862556 Y51.947175 Z-0.125000
G01 X62.765188 Y51.879015 Z-0.125000
G01 X62.675311 Y51.800176 Z-0.125000
G01 X62.584275 Y51.700282 Z-0.125000
G01 X62.511635 Y51.602525 Z-0.125000
G01 X62.446978 Y51.498032 Z-0.125000
G01 X62.383638 Y51.374413 Z-0.125000
G01 X62.334111 Y51.259955 Z-0.125000
G01 X62.290556 Y51.142456 Z-0.125000
G01 X62.252196 Y51.022720 Z-0.125000
G01 X62.218273 Y50.901371 Z-0.125000
G01 X62.184968 Y50.763873 Z-0.125000
G01 X62.163750 Y50.670798 Z-0.125000
G01 X62.138789 Y50.547194 Z-0.125000
G01 X62.118146 Y50.438492 Z-0.125000
G01 X62.094156 Y50.299481 Z-0.125000
G01 X62.073514 Y50.175702 Z-0.125000
G01 X62.053302 Y50.052177 Z-0.125000
G01 X62.030912 Y49.914055 Z-0.125000
G01 X62.010108 Y49.791449 Z-0.125000
G01 X61.988328 Y49.669455 Z-0.125000
G01 X61.962477 Y49.533496 Z-0.125000
G01 X61.939997 Y49.427821 Z-0.125000
G01 X61.909230 Y49.294050 Z-0.125000
G01 X61.878415 Y49.176139 Z-0.125000
G01 X61.844099 Y49.059756 Z-0.125000
G01 X61.800973 Y48.931439 Z-0.125000
G01 X61.767985 Y48.846351 Z-0.125000
G01 X61.720434 Y48.736329 Z-0.125000
G01 X61.660436 Y48.616761 Z-0.125000
G01 X61.607655 Y48.526356 Z-0.125000
G01 X61.533068 Y48.416195 Z-0.125000
G01 X61.459016 Y48.323551 Z-0.125000
G01 X61.377881 Y48.237036 Z-0.125000
G01 X61.311736 Y48.175767 Z-0.125000
G01 X61.218659 Y48.101605 Z-0.125000
G01 X61.119422 Y48.035177 Z-0.125000
G01 X61.027701 Y47.983160 Z-0.125000
G01 X60.918832 Y47.931659 Z-0.125000
G01 X60.805971 Y47.887953 Z-0.125000
G01 X60.675594 Y47.848003 Z-0.125000
G01 X60.556704 Y47.819680 Z-0.125000
G01 X60.435534 Y47.799392 Z-0.125000
G01 X60.297351 Y47.787946 Z-0.125000
G01 X60.172845 Y47.788429 Z-0.125000
G01 X60.048007 Y47.800359 Z-0.125000
G01 X59.924018 Y47.824515 Z-0.125000
G01 X59.802252 Y47.861262 Z-0.125000
G01 X59.670111 Y47.917793 Z-0.125000
G01 X59.557643 Y47.980085 Z-0.125000
G01 X59.438780 Y48.062942 Z-0.125000
G01 X59.339784 Y48.145799 Z-0.125000
G01 X59.247593 Y48.236183 Z-0.125000
G01 X59.162109 Y48.332826 Z-0.125000
G01 X59.074070 Y48.447989 Z-0.125000
G01 X59.001857 Y48.554489 Z-0.125000
G01 X58.935296 Y48.664386 Z-0.125000
G01 X58.814997 Y48.909414 Z-0.125000
G01 X58.758094 Y49.041657 Z-0.125000
G01 X58.646203 Y49.375899 Z-0.125000
G01 X58.598258 Y49.544854 Z-0.125000
G01 X58.565484 Y49.668037 Z-0.125000
G01 X58.535357 Y49.791939 Z-0.125000
G01 X58.505143 Y49.932349 Z-0.125000
G01 X58.480695 Y50.057562 Z-0.125000
G01 X58.458928 Y50.183304 Z-0.125000
G01 X58.438147 Y50.325570 Z-0.125000
G01 X58.422078 Y50.452258 Z-0.125000
G01 X58.407701 Y50.595406 Z-0.125000
G01 X58.397289 Y50.722778 Z-0.125000
G01 X58.389514 Y50.850394 Z-0.125000
G01 X58.384358 Y50.978201 Z-0.125000
G01 X58.381793 Y51.106159 Z-0.125000
G01 X58.381793 Y51.234214 Z-0.125000
G01 X58.385355 Y51.378492 Z-0.125000
G01 X58.392086 Y51.522761 Z-0.125000
G01 X58.400219 Y51.650825 Z-0.125000
G01 X58.410778 Y51.778819 Z-0.125000
G01 X58.426052 Y51.922801 Z-0.125000
G01 X58.441648 Y52.050519 Z-0.125000
G01 X58.456648 Y52.162027 Z-0.125000
G01 X58.482927 Y52.321424 Z-0.125000
G01 X58.505617 Y52.448521 Z-0.125000
G01 X58.530490 Y52.575374 Z-0.125000
G01 X58.561595 Y52.717831 Z-0.125000
G01 X58.586660 Y52.828280 Z-0.125000
G01 X58.622471 Y52.970066 Z-0.125000
G01 X58.655984 Y53.095728 Z-0.125000
G01 X58.696625 Y53.236742 Z-0.125000
G01 X58.734352 Y53.361697 Z-0.125000
G01 X58.774014 Y53.486319 Z-0.125000
G01 X58.821455 Y53.626093 Z-0.125000
G01 X58.865131 Y53.749968 Z-0.125000
G01 X58.910646 Y53.873469 Z-0.125000
G01 X59.004717 Y54.103772 Z-0.125000
G01 X59.055398 Y54.226147 Z-0.125000
G01 X59.320056 Y54.769335 Z-0.125000
G01 X59.380098 Y54.889241 Z-0.125000
G01 X59.450166 Y55.023526 Z-0.125000
G01 X59.513715 Y55.142537 Z-0.125000
G01 X59.587699 Y55.275777 Z-0.125000
G01 X59.645705 Y55.379253 Z-0.125000
G01 X59.723322 Y55.511459 Z-0.125000
G01 X59.793549 Y55.628617 Z-0.125000
G01 X59.874992 Y55.759672 Z-0.125000
G01 X59.948596 Y55.875771 Z-0.125000
G01 X60.023803 Y55.991386 Z-0.125000
G01 X60.110810 Y56.120610 Z-0.125000
G01 X60.178953 Y56.221023 Z-0.125000
G01 X60.269464 Y56.348946 Z-0.125000
G01 X60.361961 Y56.476129 Z-0.125000
G01 X60.445377 Y56.588727 Z-0.125000
G01 X60.530339 Y56.700679 Z-0.125000
G01 X60.628233 Y56.825545 Z-0.125000
G01 X60.716453 Y56.936046 Z-0.125000
G01 X60.806183 Y57.045807 Z-0.125000
G01 X60.909387 Y57.168074 Z-0.125000
G01 X61.002298 Y57.276181 Z-0.125000
G01 X61.096680 Y57.383454 Z-0.125000
G01 X61.205034 Y57.502758 Z-0.125000
G01 X61.302495 Y57.608155 Z-0.125000
G01 X61.401376 Y57.712620 Z-0.125000
G01 X61.514692 Y57.828605 Z-0.125000
G01 X61.616518 Y57.930965 Z-0.125000
G01 X61.719693 Y58.032281 Z-0.125000
G01 X61.837724 Y58.144573 Z-0.125000
G01 X61.943681 Y58.243563 Z-0.125000
G01 X62.050898 Y58.341401 Z-0.125000
G01 X62.173334 Y58.449628 Z-0.125000
G01 X62.283141 Y58.544926 Z-0.125000
G01 X62.394113 Y58.638977 Z-0.125000
G01 X62.506231 Y58.731762 Z-0.125000
G01 X62.633968 Y58.834120 Z-0.125000
G01 X62.763027 Y58.934774 Z-0.125000
G01 X62.878584 Y59.023221 Z-0.125000
G01 X62.995140 Y59.110288 Z-0.125000
G01 X63.112651 Y59.195945 Z-0.125000
G01 X63.246194 Y59.290103 Z-0.125000
G01 X63.365623 Y59.372695 Z-0.125000
G01 X63.485913 Y59.453813 Z-0.125000
G01 X63.622439 Y59.542778 Z-0.125000
G01 X63.744448 Y59.620699 Z-0.125000
G01 X63.867224 Y59.697084 Z-0.125000
G01 X64.006400 Y59.780636 Z-0.125000
G01 X64.130708 Y59.853693 Z-0.125000
G01 X64.255721 Y59.925156 Z-0.125000
G01 X64.397287 Y60.003081 Z-0.125000
G01 X64.507750 Y60.063207 Z-0.125000
G01 X64.650759 Y60.137406 Z-0.125000
G01 X64.778436 Y60.202032 Z-0.125000
G01 X65.607898 Y60.548009 Z-0.125000
G01 X65.739608 Y60.598805 Z-0.125000
G01 X65.888535 Y60.652848 Z-0.125000
G01 X66.004915 Y60.693912 Z-0.125000
G01 X66.155286 Y60.742815 Z-0.125000
G01 X66.289660 Y60.784143 Z-0.125000
G01 X66.441624 Y60.826930 Z-0.125000
G01 X66.560513 Y60.858718 Z-0.125000
G01 X66.714090 Y60.894902 Z-0.125000
G01 X66.868595 Y60.926885 Z-0.125000
G01 X67.145073 Y60.968531 Z-0.125000
G01 X67.302109 Y60.986147 Z-0.125000
G01 X67.442502 Y60.996805 Z-0.125000
G01 X67.583436 Y61.001536 Z-0.125000
G01 X67.742218 Y60.998105 Z-0.125000
G01 X67.883318 Y60.986959 Z-0.125000
G01 X68.023540 Y60.966281 Z-0.125000
G01 X68.161663 Y60.934420 Z-0.125000
G01 X68.311918 Y60.882463 Z-0.125000
G01 X68.422911 Y60.830212 Z-0.125000
G01 X68.565926 Y60.733615 Z-0.125000
G01 X68.652356 Y60.654170 Z-0.125000
G01 X68.742651 Y60.538540 Z-0.125000
G01 X68.803347 Y60.428492 Z-0.125000
G01 X68.850974 Y60.299712 Z-0.125000
G01 X68.877839 Y60.184230 Z-0.125000
G01 X68.892408 Y60.068824 Z-0.125000
G01 X68.722634 Y59.647987 Z-0.125000
G01 X68.722781 Y59.617772 Z-0.125000
G01 X68.724978 Y59.467599 Z-0.125000
G01 X68.755485 Y59.216226 Z-0.125000
G01 X68.790300 Y59.069355 Z-0.125000
G01 X68.835750 Y58.925036 Z-0.125000
G01 X68.937623 Y58.672866 Z-0.125000
G01 X68.998986 Y58.552416 Z-0.125000
G01 X69.074031 Y58.419351 Z-0.125000
G01 X69.145908 Y58.303953 Z-0.125000
G01 X69.231253 Y58.176276 Z-0.125000
G01 X69.311116 Y58.065315 Z-0.125000
G01 X69.394040 Y57.956178 Z-0.125000
G01 X69.575469 Y57.725788 Z-0.125000
G01 X69.665615 Y57.621316 Z-0.125000
G01 X69.768736 Y57.504730 Z-0.125000
G01 X69.850952 Y57.415603 Z-0.125000
G01 X69.957227 Y57.301051 Z-0.125000
G01 X70.064886 Y57.187383 Z-0.125000
G01 X70.161931 Y57.087246 Z-0.125000
G01 X70.259742 Y56.987522 Z-0.125000
G01 X70.370080 Y56.875354 Z-0.125000
G01 X70.469056 Y56.776143 Z-0.125000
G01 X70.568387 Y56.677006 Z-0.125000
G01 X70.679949 Y56.565151 Z-0.125000
G01 X70.779645 Y56.465861 Z-0.125000
G01 X70.879350 Y56.366352 Z-0.125000
G01 X70.990912 Y56.253780 Z-0.125000
G01 X71.090288 Y56.153533 Z-0.125000
G01 X71.189355 Y56.052806 Z-0.125000
G01 X71.299813 Y55.938593 Z-0.125000
G01 X71.397893 Y55.836591 Z-0.125000
G01 X71.506980 Y55.720774 Z-0.125000
G01 X71.603628 Y55.617155 Z-0.125000
G01 X71.699443 Y55.512655 Z-0.125000
G01 X71.805581 Y55.393781 Z-0.125000
G01 X71.899270 Y55.287171 Z-0.125000
G01 X71.991781 Y55.179452 Z-0.125000
G01 X72.093766 Y55.056730 Z-0.125000
G01 X72.183374 Y54.946434 Z-0.125000
G01 X72.271418 Y54.834818 Z-0.125000
G01 X72.367880 Y54.707494 Z-0.125000
G01 X72.452128 Y54.592867 Z-0.125000
G01 X72.534358 Y54.476729 Z-0.125000
G01 X72.623703 Y54.344135 Z-0.125000
G01 X72.701099 Y54.224624 Z-0.125000
G01 X72.775948 Y54.103454 Z-0.125000
G01 X72.856337 Y53.965086 Z-0.125000
G01 X72.925162 Y53.840311 Z-0.125000
G01 X72.990850 Y53.713813 Z-0.125000
G01 X73.060199 Y53.569454 Z-0.125000
G01 X73.118556 Y53.439332 Z-0.125000
G01 X73.173148 Y53.307549 Z-0.125000
G01 X73.223778 Y53.174159 Z-0.125000
G01 X73.270253 Y53.039231 Z-0.125000
G01 X73.317389 Y52.885934 Z-0.125000
G01 X73.358421 Y52.749158 Z-0.125000
G01 X73.398616 Y52.612081 Z-0.125000
G01 X73.442245 Y52.457593 Z-0.125000
G01 X73.484718 Y52.302744 Z-0.125000
G01 X73.521931 Y52.164703 Z-0.125000
G01 X73.558137 Y52.026356 Z-0.125000
G01 X73.597062 Y51.870468 Z-0.125000
G01 X73.630956 Y51.731473 Z-0.125000
G01 X73.663670 Y51.592166 Z-0.125000
G01 X73.698456 Y51.435220 Z-0.125000
G01 X73.728449 Y51.295250 Z-0.125000
G01 X73.757043 Y51.154962 Z-0.125000
G01 X73.786905 Y50.996932 Z-0.125000
G01 X73.812226 Y50.855973 Z-0.125000
G01 X73.835844 Y50.714695 Z-0.125000
G01 X73.859715 Y50.555582 Z-0.125000
G01 X73.879301 Y50.413649 Z-0.125000
G01 X73.896757 Y50.271416 Z-0.125000
G01 X73.913128 Y50.111281 Z-0.125000
G01 X73.925460 Y49.968466 Z-0.125000
G01 X73.935039 Y49.825413 Z-0.125000
G01 X73.941708 Y49.664490 Z-0.125000
G01 X73.944532 Y49.521093 Z-0.125000
G01 X73.943657 Y49.377639 Z-0.125000
G01 X73.937259 Y49.216590 Z-0.125000
G01 X73.927097 Y49.073433 Z-0.125000
G01 X73.911747 Y48.930711 Z-0.125000
G01 X73.886987 Y48.771318 Z-0.125000
G01 X73.858343 Y48.630616 Z-0.125000
G01 X73.822166 Y48.491660 Z-0.125000
G01 X73.770836 Y48.338690 Z-0.125000
G01 X73.723415 Y48.222299 Z-0.125000
G01 X73.649616 Y48.078987 Z-0.125000
G01 X73.561592 Y47.944243 Z-0.125000
G01 X73.471424 Y47.833595 Z-0.125000
G01 X73.370007 Y47.733855 Z-0.125000
G01 X73.243369 Y47.637054 Z-0.125000
G01 X73.122259 Y47.565162 Z-0.125000
G01 X72.994776 Y47.507039 Z-0.125000
G01 X72.845690 Y47.457759 Z-0.125000
G01 X72.710617 Y47.426461 Z-0.125000
G01 X72.574082 Y47.405926 Z-0.125000
G01 X72.419401 Y47.394475 Z-0.125000
G01 X72.282298 Y47.392659 Z-0.125000
G01 X72.145622 Y47.397934 Z-0.125000
G01 X71.992270 Y47.411611 Z-0.125000
G01 X71.857154 Y47.429106 Z-0.125000
G01 X71.722900 Y47.451229 Z-0.125000
G01 X71.572570 Y47.481472 Z-0.125000
G01 X71.440229 Y47.511843 Z-0.125000
G01 X71.308758 Y47.545423 Z-0.125000
G01 X71.161492 Y47.587039 Z-0.125000
G01 X71.031762 Y47.626382 Z-0.125000
G01 X70.902782 Y47.668030 Z-0.125000
G01 X70.774510 Y47.711762 Z-0.125000
G01 X70.630649 Y47.763651 Z-0.125000
G01 X70.503739 Y47.811217 Z-0.125000
G01 X70.361301 Y47.867031 Z-0.125000
G01 X70.235543 Y47.917769 Z-0.125000
G01 X70.110256 Y47.969812 Z-0.125000
G01 X69.969505 Y48.030235 Z-0.125000
G01 X69.845091 Y48.084718 Z-0.125000
G01 X69.721021 Y48.140210 Z-0.125000
G01 X69.581489 Y48.204209 Z-0.125000
G01 X69.458013 Y48.261605 Z-0.125000
G01 X69.334753 Y48.319791 Z-0.125000
G01 X69.195997 Y48.386593 Z-0.125000
G01 X69.073056 Y48.446278 Z-0.125000
G01 X68.950191 Y48.506585 Z-0.125000
G01 X68.827365 Y48.567470 Z-0.125000
G01 X68.688909 Y48.637088 Z-0.125000
G01 X68.566019 Y48.699067 Z-0.125000
G01 X68.427381 Y48.769831 Z-0.125000
G01 X68.304201 Y48.832746 Z-0.125000
G01 X68.039600 Y48.972244 Z-0.125000
G01 X67.915608 Y49.036345 Z-0.125000
G01 X67.791206 Y49.100775 Z-0.125000
G01 X67.650483 Y49.174149 Z-0.125000
G01 X67.524997 Y49.239239 Z-0.125000
G01 X67.398877 Y49.304632 Z-0.125000
G01 X67.255980 Y49.379087 Z-0.125000
G01 X67.144415 Y49.436341 Z-0.125000
G01 X66.999640 Y49.511539 Z-0.125000
G01 X66.853641 Y49.587209 Z-0.125000
G01 X66.722830 Y49.654428 Z-0.125000
G01 X66.590829 Y49.722111 Z-0.125000
G01 X66.440725 Y49.799432 Z-0.125000
G01 X66.305897 Y49.868340 Z-0.125000
G01 X66.169598 Y49.937966 Z-0.125000
G01 X66.014406 Y50.017846 Z-0.125000
G01 X65.874777 Y50.089396 Z-0.125000
G01 X65.733512 Y50.162067 Z-0.125000
G01 X65.590600 Y50.236023 Z-0.125000
G01 X65.427988 Y50.321497 Z-0.125000
G01 X65.281756 Y50.398706 Z-0.125000
G01 X65.115716 Y50.488222 Z-0.125000
G01 X64.966724 Y50.569331 Z-0.125000
G01 X64.816746 Y50.652418 Z-0.125000
G01 X64.647407 Y50.748788 Z-0.125000
G01 X64.496272 Y50.836065 Z-0.125000
G01 X64.345062 Y50.925148 Z-0.125000
G01 X64.175553 Y51.027677 Z-0.125000
G01 X64.025174 Y51.119677 Z-0.125000
G01 X63.875557 Y51.212403 Z-0.125000
G01 X63.708698 Y51.317271 Z-0.125000
G01 X63.561057 Y51.409450 Z-0.125000
G01 X63.414252 Y51.500050 Z-0.125000
G01 X63.268048 Y51.587805 Z-0.125000
G01 X63.104167 Y51.681053 Z-0.125000
G01 X62.957367 Y51.754674 Z-0.125000
G01 X62.790514 Y51.816458 Z-0.125000
G01 X62.645549 Y51.814082 Z-0.125000
G01 X62.514069 Y51.761275 Z-0.125000
G01 X62.374441 Y51.686245 Z-0.125000
G01 X62.258097 Y51.605388 Z-0.125000
G01 X62.150503 Y51.512147 Z-0.125000
G01 X62.041198 Y51.394202 Z-0.125000
G01 X61.953853 Y51.278978 Z-0.125000
G01 X61.875919 Y51.155905 Z-0.125000
G01 X61.799259 Y51.010322 Z-0.125000
G01 X61.739202 Y50.875600 Z-0.125000
G01 X61.686213 Y50.737304 Z-0.125000
G01 X61.639376 Y50.596362 Z-0.125000
G01 X61.597797 Y50.453495 Z-0.125000
G01 X61.556706 Y50.291512 Z-0.125000
G01 X61.530697 Y50.181991 Z-0.125000
G01 X61.499766 Y50.036342 Z-0.125000
G01 X61.474205 Y49.908271 Z-0.125000
G01 X61.444258 Y49.744268 Z-0.125000
G01 X61.418462 Y49.598236 Z-0.125000
G01 X61.393226 Y49.452431 Z-0.125000
G01 X61.365243 Y49.289236 Z-0.125000
G01 X61.339353 Y49.144364 Z-0.125000
G01 X61.312335 Y49.000136 Z-0.125000
G01 X61.280295 Y48.839240 Z-0.125000
G01 X61.252721 Y48.714240 Z-0.125000
G01 X61.214945 Y48.555749 Z-0.125000
G01 X61.177361 Y48.416024 Z-0.125000
G01 X61.135668 Y48.278028 Z-0.125000
G01 X61.083396 Y48.125700 Z-0.125000
G01 X61.043743 Y48.024833 Z-0.125000
G01 X60.986511 Y47.894128 Z-0.125000
G01 X60.914422 Y47.751892 Z-0.125000
G01 X60.851280 Y47.644402 Z-0.125000
G01 X60.762050 Y47.513132 Z-0.125000
G01 X60.673684 Y47.402693 Z-0.125000
G01 X60.577003 Y47.299455 Z-0.125000
G01 X60.498401 Y47.226429 Z-0.125000
G01 X60.387706 Y47.137741 Z-0.125000
G01 X60.269787 Y47.058184 Z-0.125000
G01 X60.160945 Y46.995864 Z-0.125000
G01 X60.031748 Y46.933961 Z-0.125000
G01 X59.897885 Y46.881290 Z-0.125000
G01 X59.743250 Y46.832888 Z-0.125000
G01 X59.602357 Y46.798457 Z-0.125000
G01 X59.458820 Y46.773562 Z-0.125000
G01 X59.295143 Y46.758987 Z-0.125000
G01 X59.147816 Y46.758754 Z-0.125000
G01 X59.000194 Y46.772123 Z-0.125000
G01 X58.853684 Y46.800020 Z-0.125000
G01 X58.709927 Y46.842897 Z-0.125000
G01 X58.554017 Y46.909143 Z-0.125000
G01 X58.421540 Y46.982428 Z-0.125000
G01 X58.281650 Y47.080025 Z-0.125000
G01 X58.165378 Y47.177810 Z-0.125000
G01 X58.057271 Y47.284565 Z-0.125000
G01 X57.957198 Y47.398774 Z-0.125000
G01 X57.854262 Y47.534863 Z-0.125000
G01 X57.770071 Y47.660806 Z-0.125000
G01 X57.692635 Y47.790784 Z-0.125000
G01 X57.552544 Y48.080108 Z-0.125000
G01 X57.486806 Y48.236476 Z-0.125000
G01 X57.357513 Y48.631045 Z-0.125000
G01 X57.302760 Y48.830658 Z-0.125000
G01 X57.265634 Y48.976261 Z-0.125000
G01 X57.231661 Y49.122676 Z-0.125000
G01 X57.197729 Y49.288509 Z-0.125000
G01 X57.170516 Y49.436393 Z-0.125000
G01 X57.146494 Y49.584863 Z-0.125000
G01 X57.123782 Y49.752752 Z-0.125000
G01 X57.106536 Y49.902250 Z-0.125000
G01 X57.091439 Y50.071081 Z-0.125000
G01 X57.080917 Y50.221293 Z-0.125000
G01 X57.073526 Y50.371744 Z-0.125000
G01 X57.069247 Y50.522373 Z-0.125000
G01 X57.068043 Y50.673131 Z-0.125000
G01 X57.069883 Y50.823950 Z-0.125000
G01 X57.076078 Y50.993786 Z-0.125000
G01 X57.086028 Y51.163546 Z-0.125000
G01 X57.097505 Y51.314205 Z-0.125000
G01 X57.111852 Y51.464721 Z-0.125000
G01 X57.131916 Y51.633947 Z-0.125000
G01 X57.152219 Y51.784013 Z-0.125000
G01 X57.171683 Y51.915000 Z-0.125000
G01 X57.204906 Y52.102092 Z-0.125000
G01 X57.233576 Y52.251230 Z-0.125000
G01 X57.264824 Y52.400016 Z-0.125000
G01 X57.303545 Y52.567009 Z-0.125000
G01 X57.334864 Y52.696442 Z-0.125000
G01 X57.379114 Y52.862493 Z-0.125000
G01 X57.420502 Y53.009593 Z-0.125000
G01 X57.470410 Y53.174571 Z-0.125000
G01 X57.516725 Y53.320688 Z-0.125000
G01 X57.565299 Y53.466339 Z-0.125000
G01 X57.623139 Y53.629607 Z-0.125000
G01 X57.676385 Y53.774221 Z-0.125000
G01 X57.731765 Y53.918320 Z-0.125000
G01 X57.845103 Y54.186866 Z-0.125000
G01 X57.906459 Y54.329436 Z-0.125000
G01 X58.222347 Y54.961709 Z-0.125000
G01 X58.294445 Y55.101012 Z-0.125000
G01 X58.378351 Y55.256947 Z-0.125000
G01 X58.454439 Y55.395048 Z-0.125000
G01 X58.542790 Y55.549590 Z-0.125000
G01 X58.612156 Y55.669505 Z-0.125000
G01 X58.704613 Y55.822687 Z-0.125000
G01 X58.788245 Y55.958337 Z-0.125000
G01 X58.885005 Y56.110023 Z-0.125000
G01 X58.972425 Y56.244305 Z-0.125000
G01 X59.061640 Y56.377961 Z-0.125000
G01 X59.164625 Y56.527310 Z-0.125000
G01 X59.245349 Y56.643250 Z-0.125000
G01 X59.352233 Y56.790972 Z-0.125000
G01 X59.461323 Y56.937777 Z-0.125000
G01 X59.559664 Y57.067664 Z-0.125000
G01 X59.659714 Y57.196761 Z-0.125000
G01 X59.774774 Y57.340747 Z-0.125000
G01 X59.878420 Y57.468092 Z-0.125000
G01 X59.983729 Y57.594553 Z-0.125000
G01 X60.104642 Y57.735440 Z-0.125000
G01 X60.213450 Y57.859947 Z-0.125000
G01 X60.323874 Y57.983477 Z-0.125000
G01 X60.450447 Y58.120901 Z-0.125000
G01 X60.564250 Y58.242252 Z-0.125000
G01 X60.679612 Y58.362527 Z-0.125000
G01 X60.811632 Y58.496130 Z-0.125000
G01 X60.930226 Y58.613997 Z-0.125000
G01 X61.050300 Y58.730677 Z-0.125000
G01 X61.187499 Y58.860079 Z-0.125000
G01 X61.310632 Y58.974124 Z-0.125000
G01 X61.435150 Y59.086872 Z-0.125000
G01 X61.577199 Y59.211694 Z-0.125000
G01 X61.704573 Y59.321589 Z-0.125000
G01 X61.833236 Y59.430087 Z-0.125000
G01 X61.963166 Y59.537169 Z-0.125000
G01 X62.111085 Y59.655429 Z-0.125000
G01 X62.260477 Y59.771790 Z-0.125000
G01 X62.394236 Y59.874034 Z-0.125000
G01 X62.529112 Y59.974742 Z-0.125000
G01 X62.665059 Y60.073879 Z-0.125000
G01 X62.819485 Y60.183009 Z-0.125000
G01 X62.957600 Y60.278733 Z-0.125000
G01 X63.096693 Y60.372817 Z-0.125000
G01 X63.254512 Y60.476165 Z-0.125000
G01 X63.395571 Y60.566686 Z-0.125000
G01 X63.537514 Y60.655492 Z-0.125000
G01 X63.698392 Y60.752799 Z-0.125000
G01 X63.842115 Y60.837884 Z-0.125000
G01 X63.986661 Y60.921185 Z-0.125000
G01 X64.150343 Y61.012190 Z-0.125000
G01 X64.278113 Y61.082311 Z-0.125000
G01 X64.443508 Y61.169124 Z-0.125000
G01 X64.591211 Y61.244729 Z-0.125000
G01 X65.551288 Y61.654962 Z-0.125000
G01 X65.703968 Y61.714810 Z-0.125000
G01 X65.876646 Y61.778653 Z-0.125000
G01 X66.011621 Y61.827037 Z-0.125000
G01 X66.186060 Y61.884938 Z-0.125000
G01 X66.341980 Y61.933843 Z-0.125000
G01 X66.518357 Y61.984638 Z-0.125000
G01 X66.656365 Y62.022245 Z-0.125000
G01 X66.834690 Y62.065335 Z-0.125000
G01 X67.014132 Y62.103504 Z-0.125000
G01 X67.335401 Y62.154080 Z-0.125000
G01 X67.517869 Y62.175346 Z-0.125000
G01 X67.680989 Y62.188259 Z-0.125000
G01 X67.844729 Y62.194165 Z-0.125000
G01 X68.029200 Y62.190536 Z-0.125000
G01 X68.193065 Y62.177618 Z-0.125000
G01 X68.355840 Y62.153378 Z-0.125000
G01 X68.516071 Y62.115825 Z-0.125000
G01 X68.690216 Y62.054470 Z-0.125000
G01 X68.818618 Y61.992430 Z-0.125000
G01 X68.983750 Y61.877865 Z-0.125000
G01 X69.083118 Y61.783215 Z-0.125000
G01 X69.186439 Y61.645479 Z-0.125000
G01 X69.255265 Y61.514109 Z-0.125000
G01 X69.308501 Y61.360275 Z-0.125000
G01 X69.337664 Y61.222079 Z-0.125000
G01 X69.352433 Y61.083842 Z-0.125000
G01 X69.182271 Y60.654458 Z-0.125000
G01 X69.182131 Y60.618541 Z-0.125000
G01 X69.184368 Y60.442680 Z-0.125000
G01 X69.219588 Y60.148776 Z-0.125000
G01 X69.259829 Y59.976796 Z-0.125000
G01 X69.312447 Y59.807807 Z-0.125000
G01 X69.430791 Y59.513052 Z-0.125000
G01 X69.501910 Y59.371953 Z-0.125000
G01 X69.588949 Y59.216166 Z-0.125000
G01 X69.672273 Y59.081007 Z-0.125000
G01 X69.771263 Y58.931558 Z-0.125000
G01 X69.863844 Y58.801628 Z-0.125000
G01 X69.959968 Y58.673853 Z-0.125000
G01 X70.170769 Y58.404831 Z-0.125000
G01 X70.275251 Y58.282578 Z-0.125000
G01 X70.394818 Y58.146251 Z-0.125000
G01 X70.490027 Y58.041940 Z-0.125000
G01 X70.613229 Y57.908056 Z-0.125000
G01 X70.738025 Y57.775242 Z-0.125000
G01 X70.850447 Y57.658218 Z-0.125000
G01 X70.963748 Y57.541710 Z-0.125000
G01 X71.091618 Y57.410759 Z-0.125000
G01 X71.206253 Y57.294921 Z-0.125000
G01 X71.321288 Y57.179202 Z-0.125000
G01 X71.450555 Y57.048725 Z-0.125000
G01 X71.566002 Y56.932896 Z-0.125000
G01 X71.681454 Y56.816842 Z-0.125000
G01 X71.810704 Y56.685634 Z-0.125000
G01 X71.925764 Y56.568784 Z-0.125000
G01 X72.040462 Y56.451403 Z-0.125000
G01 X72.168421 Y56.318378 Z-0.125000
G01 X72.281969 Y56.199572 Z-0.125000
G01 X72.408335 Y56.064736 Z-0.125000
G01 X72.520215 Y55.944100 Z-0.125000
G01 X72.631127 Y55.822460 Z-0.125000
G01 X72.754065 Y55.684146 Z-0.125000
G01 X72.862505 Y55.560100 Z-0.125000
G01 X72.969577 Y55.434783 Z-0.125000
G01 X73.087690 Y55.292059 Z-0.125000
G01 X73.191387 Y55.163788 Z-0.125000
G01 X73.293267 Y55.034000 Z-0.125000
G01 X73.404962 Y54.885985 Z-0.125000
G01 X73.502430 Y54.752733 Z-0.125000
G01 X73.597550 Y54.617742 Z-0.125000
G01 X73.700974 Y54.463654 Z-0.125000
G01 X73.790475 Y54.324775 Z-0.125000
G01 X73.877015 Y54.183986 Z-0.125000
G01 X73.970024 Y54.023237 Z-0.125000
G01 X74.049558 Y53.878288 Z-0.125000
G01 X74.125444 Y53.731354 Z-0.125000
G01 X74.205612 Y53.563692 Z-0.125000
G01 X74.272970 Y53.412579 Z-0.125000
G01 X74.335949 Y53.259553 Z-0.125000
G01 X74.394319 Y53.104675 Z-0.125000
G01 X74.447857 Y52.948030 Z-0.125000
G01 X74.502190 Y52.770066 Z-0.125000
G01 X74.549409 Y52.611304 Z-0.125000
G01 X74.595666 Y52.452208 Z-0.125000
G01 X74.645958 Y52.272903 Z-0.125000
G01 X74.694919 Y52.093194 Z-0.125000
G01 X74.737747 Y51.933012 Z-0.125000
G01 X74.779414 Y51.772489 Z-0.125000
G01 X74.824290 Y51.591605 Z-0.125000
G01 X74.863290 Y51.430349 Z-0.125000
G01 X74.900931 Y51.268741 Z-0.125000
G01 X74.941030 Y51.086654 Z-0.125000
G01 X74.975529 Y50.924294 Z-0.125000
G01 X75.008409 Y50.761574 Z-0.125000
G01 X75.042817 Y50.578253 Z-0.125000
G01 X75.071913 Y50.414768 Z-0.125000
G01 X75.099038 Y50.250922 Z-0.125000
G01 X75.126507 Y50.066368 Z-0.125000
G01 X75.148963 Y49.901777 Z-0.125000
G01 X75.168948 Y49.736845 Z-0.125000
G01 X75.187725 Y49.551129 Z-0.125000
G01 X75.201768 Y49.385539 Z-0.125000
G01 X75.212617 Y49.219682 Z-0.125000
G01 X75.220133 Y49.033079 Z-0.125000
G01 X75.223139 Y48.866844 Z-0.125000
G01 X75.221849 Y48.700555 Z-0.125000
G01 X75.214187 Y48.513844 Z-0.125000
G01 X75.202107 Y48.347928 Z-0.125000
G01 X75.183989 Y48.182537 Z-0.125000
G01 X75.154983 Y47.997805 Z-0.125000
G01 X75.121408 Y47.834804 Z-0.125000
G01 X75.079077 Y47.673857 Z-0.125000
G01 X75.019163 Y47.496676 Z-0.125000
G01 X74.963704 Y47.361992 Z-0.125000
G01 X74.877639 Y47.196113 Z-0.125000
G01 X74.775010 Y47.040247 Z-0.125000
G01 X74.669832 Y46.912398 Z-0.125000
G01 X74.551549 Y46.797276 Z-0.125000
G01 X74.403934 Y46.685671 Z-0.125000
G01 X74.262695 Y46.603012 Z-0.125000
G01 X74.114021 Y46.536398 Z-0.125000
G01 X73.940212 Y46.480159 Z-0.125000
G01 X73.782673 Y46.444789 Z-0.125000
G01 X73.623419 Y46.421952 Z-0.125000
G01 X73.443059 Y46.409766 Z-0.125000
G01 X73.283134 Y46.408730 Z-0.125000
G01 X73.123705 Y46.415951 Z-0.125000
G01 X72.944886 Y46.433031 Z-0.125000
G01 X72.787278 Y46.454484 Z-0.125000
G01 X72.630684 Y46.481351 Z-0.125000
G01 X72.455404 Y46.517736 Z-0.125000
G01 X72.301053 Y46.554203 Z-0.125000
G01 X72.147726 Y46.594413 Z-0.125000
G01 X71.976053 Y46.644059 Z-0.125000
G01 X71.824783 Y46.690997 Z-0.125000
G01 X71.674405 Y46.740626 Z-0.125000
G01 X71.524867 Y46.792693 Z-0.125000
G01 X71.357239 Y46.854343 Z-0.125000
G01 X71.209332 Y46.910896 Z-0.125000
G01 X71.043413 Y46.977141 Z-0.125000
G01 X70.896900 Y47.037413 Z-0.125000
G01 X70.750966 Y47.099218 Z-0.125000
G01 X70.587106 Y47.170873 Z-0.125000
G01 X70.442251 Y47.235549 Z-0.125000
G01 X70.297833 Y47.301414 Z-0.125000
G01 X70.135513 Y47.377283 Z-0.125000
G01 X69.991869 Y47.445399 Z-0.125000
G01 X69.848521 Y47.514450 Z-0.125000
G01 X69.687253 Y47.593640 Z-0.125000
G01 X69.544376 Y47.664472 Z-0.125000
G01 X69.401646 Y47.736047 Z-0.125000
G01 X69.259017 Y47.808315 Z-0.125000
G01 X69.098358 Y47.890862 Z-0.125000
G01 X68.955792 Y47.964442 Z-0.125000
G01 X68.795087 Y48.048368 Z-0.125000
G01 X68.652349 Y48.123076 Z-0.125000
G01 X68.346347 Y48.287900 Z-0.125000
G01 X68.202943 Y48.364036 Z-0.125000
G01 X68.059171 Y48.440567 Z-0.125000
G01 X67.896703 Y48.527631 Z-0.125000
G01 X67.751929 Y48.604953 Z-0.125000
G01 X67.606556 Y48.682632 Z-0.125000
G01 X67.442039 Y48.770971 Z-0.125000
G01 X67.313684 Y48.839063 Z-0.125000
G01 X67.147353 Y48.928244 Z-0.125000
G01 X66.979830 Y49.017947 Z-0.125000
G01 X66.829912 Y49.097676 Z-0.125000
G01 X66.678822 Y49.177902 Z-0.125000
G01 X66.507267 Y49.269362 Z-0.125000
G01 X66.353384 Y49.350865 Z-0.125000
G01 X66.198045 Y49.433102 Z-0.125000
G01 X66.021440 Y49.527188 Z-0.125000
G01 X65.862785 Y49.611374 Z-0.125000
G01 X65.702497 Y49.696684 Z-0.125000
G01 X65.540559 Y49.783278 Z-0.125000
G01 X65.356540 Y49.882959 Z-0.125000
G01 X65.191268 Y49.972783 Z-0.125000
G01 X65.003791 Y50.076463 Z-0.125000
G01 X64.835722 Y50.170131 Z-0.125000
G01 X64.666639 Y50.265736 Z-0.125000
G01 X64.475768 Y50.376126 Z-0.125000
G01 X64.305450 Y50.475797 Z-0.125000
G01 X64.135003 Y50.577192 Z-0.125000
G01 X63.943775 Y50.693451 Z-0.125000
G01 X63.774005 Y50.797522 Z-0.125000
G01 X63.604900 Y50.902158 Z-0.125000
G01 X63.415970 Y51.020180 Z-0.125000
G01 X63.248546 Y51.123772 Z-0.125000
G01 X63.081757 Y51.225430 Z-0.125000
G01 X62.915308 Y51.323756 Z-0.125000
G01 X62.728221 Y51.428029 Z-0.125000
G01 X62.560237 Y51.510176 Z-0.125000
G01 X62.368596 Y51.578578 Z-0.125000
G01 X62.201202 Y51.574186 Z-0.125000
G01 X62.048695 Y51.512480 Z-0.125000
G01 X61.886437 Y51.425301 Z-0.125000
G01 X61.751119 Y51.331747 Z-0.125000
G01 X61.625810 Y51.224103 Z-0.125000
G01 X61.498233 Y51.088108 Z-0.125000
G01 X61.396183 Y50.955416 Z-0.125000
G01 X61.304974 Y50.813764 Z-0.125000
G01 X61.214992 Y50.646216 Z-0.125000
G01 X61.144405 Y50.491232 Z-0.125000
G01 X61.081982 Y50.332139 Z-0.125000
G01 X61.026668 Y50.169989 Z-0.125000
G01 X60.977435 Y50.005604 Z-0.125000
G01 X60.928556 Y49.819136 Z-0.125000
G01 X60.897755 Y49.693169 Z-0.125000
G01 X60.860855 Y49.525476 Z-0.125000
G01 X60.830375 Y49.378034 Z-0.125000
G01 X60.794416 Y49.189050 Z-0.125000
G01 X60.763485 Y49.020762 Z-0.125000
G01 X60.733197 Y48.852682 Z-0.125000
G01 X60.699527 Y48.664430 Z-0.125000
G01 X60.668547 Y48.497291 Z-0.125000
G01 X60.636282 Y48.330834 Z-0.125000
G01 X60.598063 Y48.144997 Z-0.125000
G01 X60.565404 Y48.000670 Z-0.125000
G01 X60.520615 Y47.817459 Z-0.125000
G01 X60.476260 Y47.655922 Z-0.125000
G01 X60.427191 Y47.496313 Z-0.125000
G01 X60.365773 Y47.319974 Z-0.125000
G01 X60.319454 Y47.203329 Z-0.125000
G01 X60.252540 Y47.051940 Z-0.125000
G01 X60.168361 Y46.887035 Z-0.125000
G01 X60.094857 Y46.762461 Z-0.125000
G01 X59.990986 Y46.610082 Z-0.125000
G01 X59.888308 Y46.481848 Z-0.125000
G01 X59.776078 Y46.361885 Z-0.125000
G01 X59.685020 Y46.277104 Z-0.125000
G01 X59.556706 Y46.173890 Z-0.125000
G01 X59.420105 Y46.081203 Z-0.125000
G01 X59.294142 Y46.008581 Z-0.125000
G01 X59.144618 Y45.936276 Z-0.125000
G01 X58.989754 Y45.874639 Z-0.125000
G01 X58.810860 Y45.817786 Z-0.125000
G01 X58.647963 Y45.777248 Z-0.125000
G01 X58.482061 Y45.747745 Z-0.125000
G01 X58.292888 Y45.730040 Z-0.125000
G01 X58.122741 Y45.729092 Z-0.125000
G01 X57.952334 Y45.743900 Z-0.125000
G01 X57.783305 Y45.775546 Z-0.125000
G01 X57.617558 Y45.824554 Z-0.125000
G01 X57.437877 Y45.900514 Z-0.125000
G01 X57.285392 Y45.984791 Z-0.125000
G01 X57.124474 Y46.097130 Z-0.125000
G01 X56.990929 Y46.209844 Z-0.125000
G01 X56.866903 Y46.332967 Z-0.125000
G01 X56.752243 Y46.464743 Z-0.125000
G01 X56.634410 Y46.621759 Z-0.125000
G01 X56.538240 Y46.767144 Z-0.125000
G01 X56.449931 Y46.917204 Z-0.125000
G01 X56.290045 Y47.250823 Z-0.125000
G01 X56.215475 Y47.431316 Z-0.125000
G01 X56.068781 Y47.886213 Z-0.125000
G01 X56.007219 Y48.116485 Z-0.125000
G01 X55.965741 Y48.284508 Z-0.125000
G01 X55.927921 Y48.453436 Z-0.125000
G01 X55.890269 Y48.644693 Z-0.125000
G01 X55.860292 Y48.815248 Z-0.125000
G01 X55.834014 Y48.986444 Z-0.125000
G01 X55.809372 Y49.179957 Z-0.125000
G01 X55.790950 Y49.352264 Z-0.125000
G01 X55.775131 Y49.546778 Z-0.125000
G01 X55.764500 Y49.719828 Z-0.125000
G01 X55.757495 Y49.893116 Z-0.125000
G01 X55.754093 Y50.066566 Z-0.125000
G01 X55.754250 Y50.240123 Z-0.125000
G01 X55.757929 Y50.413708 Z-0.125000
G01 X55.766757 Y50.609102 Z-0.125000
G01 X55.779924 Y50.804354 Z-0.125000
G01 X55.794745 Y50.977606 Z-0.125000
G01 X55.812882 Y51.150644 Z-0.125000
G01 X55.837728 Y51.345117 Z-0.125000
G01 X55.862738 Y51.517531 Z-0.125000
G01 X55.886665 Y51.667997 Z-0.125000
G01 X55.926804 Y51.882787 Z-0.125000
G01 X55.961453 Y52.053969 Z-0.125000
G01 X55.999077 Y52.224685 Z-0.125000
G01 X56.045418 Y52.416216 Z-0.125000
G01 X56.082983 Y52.564631 Z-0.125000
G01 X56.135673 Y52.754949 Z-0.125000
G01 X56.184936 Y52.923487 Z-0.125000
G01 X56.244110 Y53.112430 Z-0.125000
G01 X56.299014 Y53.279707 Z-0.125000
G01 X56.356499 Y53.446387 Z-0.125000
G01 X56.424739 Y53.633149 Z-0.125000
G01 X56.487553 Y53.798503 Z-0.125000
G01 X56.552797 Y53.963201 Z-0.125000
G01 X56.685404 Y54.269991 Z-0.125000
G01 X56.757434 Y54.432754 Z-0.125000
G01 X57.124555 Y55.154112 Z-0.125000
G01 X57.208707 Y55.312812 Z-0.125000
G01 X57.306451 Y55.490396 Z-0.125000
G01 X57.395078 Y55.647587 Z-0.125000
G01 X57.497797 Y55.823433 Z-0.125000
G01 X57.578521 Y55.959787 Z-0.125000
