%
(Header)
(Generated by gcodetools from Inkscape.)
(Using default header. To add your own header create file "header" in the output dir.)
M3
(Header end.)
G21 (All units in mm)

(Start cutting path id: path11464)
(Change tool to Default tool)

G00 Z3.000000
G00 X9.646745 Y66.643850

G00 Z4.875000 (Fast pre-penetrate)
G01 Z-0.125000 F400.0(Penetrate)
G01 X38.630346 Y58.826888 Z-0.125000 F800.000000
G01 X60.438525 Y58.185348 Z-0.125000
G01 X73.291827 Y66.498686 Z-0.125000
G01 X103.954841 Y57.002313 Z-0.125000
G01 X114.540224 Y67.583569 Z-0.125000
G01 X132.856414 Y70.434020 Z-0.125000
G01 X164.867766 Y59.589308 Z-0.125000
G00 Z3.000000

(End cutting path id: path11464)


(Start cutting path id: path11384)
(Change tool to Default tool)

G00 Z3.000000
G00 X16.751374 Y101.872499

G00 Z4.875000 (Fast pre-penetrate)
G01 Z-0.125000 F400.0(Penetrate)
G01 X31.191600 Y108.598914 Z-0.125000 F800.000000
G01 X59.485513 Y101.471640 Z-0.125000
G01 X76.128088 Y105.995705 Z-0.125000
G01 X96.555235 Y106.735199 Z-0.125000
G01 X114.355979 Y110.101094 Z-0.125000
G01 X139.510216 Y106.113498 Z-0.125000
G01 X152.460744 Y114.329609 Z-0.125000
G00 Z3.000000

(End cutting path id: path11384)


(Start cutting path id: path11354)
(Change tool to Default tool)

G00 Z3.000000
G00 X17.096073 Y117.402781

G00 Z4.875000 (Fast pre-penetrate)
G01 Z-0.125000 F400.0(Penetrate)
G01 X30.956835 Y124.708658 Z-0.125000 F800.000000
G01 X56.522623 Y120.309511 Z-0.125000
G01 X72.659450 Y125.339324 Z-0.125000
G01 X100.057414 Y119.108000 Z-0.125000
G01 X115.642112 Y124.689942 Z-0.125000
G01 X135.468782 Y126.029912 Z-0.125000
G01 X161.604269 Y121.061064 Z-0.125000
G00 Z3.000000

(End cutting path id: path11354)


(Start cutting path id: path11344)
(Change tool to Default tool)

G00 Z3.000000
G00 X17.210973 Y122.579540

G00 Z4.875000 (Fast pre-penetrate)
G01 Z-0.125000 F400.0(Penetrate)
G01 X30.878582 Y130.078571 Z-0.125000 F800.000000
G01 X55.534993 Y126.588801 Z-0.125000
G01 X71.503238 Y131.787195 Z-0.125000
G01 X101.224804 Y123.232269 Z-0.125000
G01 X116.070824 Y129.552890 Z-0.125000
G01 X134.121636 Y132.668717 Z-0.125000
G01 X164.652112 Y123.304881 Z-0.125000
G00 Z3.000000

(End cutting path id: path11344)


(Start cutting path id: path11342)
(Change tool to Default tool)

G00 Z3.000000
G00 X17.192913 Y123.655933

G00 Z4.875000 (Fast pre-penetrate)
G01 Z-0.125000 F400.0(Penetrate)
G01 X30.948744 Y131.066741 Z-0.125000 F800.000000
G01 X55.712022 Y127.470103 Z-0.125000
G01 X71.855671 Y132.493095 Z-0.125000
G01 X101.049653 Y124.465752 Z-0.125000
G01 X116.082584 Y130.599461 Z-0.125000
G01 X134.428367 Y133.420318 Z-0.125000
G01 X164.146637 Y124.868689 Z-0.125000
G00 Z3.000000

(End cutting path id: path11342)


(Start cutting path id: path11340)
(Change tool to Default tool)

G00 Z3.000000
G00 X17.174852 Y124.732325

G00 Z4.875000 (Fast pre-penetrate)
G01 Z-0.125000 F400.0(Penetrate)
G01 X31.018909 Y132.054908 Z-0.125000 F800.000000
G01 X55.889052 Y128.351405 Z-0.125000
G01 X72.208103 Y133.198994 Z-0.125000
G01 X100.874499 Y125.699238 Z-0.125000
G01 X116.094348 Y131.646030 Z-0.125000
G01 X134.735099 Y134.171919 Z-0.125000
G01 X163.641164 Y126.432493 Z-0.125000
G00 Z3.000000

(End cutting path id: path11340)


(Start cutting path id: path11338)
(Change tool to Default tool)

G00 Z3.000000
G00 X17.156792 Y125.808718

G00 Z4.875000 (Fast pre-penetrate)
G01 Z-0.125000 F400.0(Penetrate)
G01 X31.089071 Y133.043078 Z-0.125000 F800.000000
G01 X56.066080 Y129.232710 Z-0.125000
G01 X72.560536 Y133.904894 Z-0.125000
G01 X100.699345 Y126.932724 Z-0.125000
G01 X116.106108 Y132.692601 Z-0.125000
G01 X135.041832 Y134.923517 Z-0.125000
G01 X163.135692 Y127.996298 Z-0.125000
G00 Z3.000000

(End cutting path id: path11338)


(Start cutting path id: path11336)
(Change tool to Default tool)

G00 Z3.000000
G00 X17.138732 Y126.885110

G00 Z4.875000 (Fast pre-penetrate)
G01 Z-0.125000 F400.0(Penetrate)
G01 X31.159236 Y134.031245 Z-0.125000 F800.000000
G01 X56.243109 Y130.114012 Z-0.125000
G01 X72.912968 Y134.610793 Z-0.125000
G01 X100.524191 Y128.166210 Z-0.125000
G01 X116.117869 Y133.739172 Z-0.125000
G01 X135.348563 Y135.675118 Z-0.125000
G01 X162.630217 Y129.560105 Z-0.125000
G00 Z3.000000

(End cutting path id: path11336)


(Start cutting path id: path11334)
(Change tool to Default tool)

G00 Z3.000000
G00 X17.120671 Y127.961502

G00 Z4.875000 (Fast pre-penetrate)
G01 Z-0.125000 F400.0(Penetrate)
G01 X31.229401 Y135.019413 Z-0.125000 F800.000000
G01 X56.420139 Y130.995314 Z-0.125000
G01 X73.265401 Y135.316693 Z-0.125000
G01 X100.349037 Y129.399696 Z-0.125000
G01 X116.129633 Y134.785741 Z-0.125000
G01 X135.655294 Y136.426719 Z-0.125000
G01 X162.124744 Y131.123910 Z-0.125000
G00 Z3.000000

(End cutting path id: path11334)


(Start cutting path id: path11332)
(Change tool to Default tool)

G00 Z3.000000
G00 X17.102611 Y129.037895

G00 Z4.875000 (Fast pre-penetrate)
G01 Z-0.125000 F400.0(Penetrate)
G01 X31.299563 Y136.007583 Z-0.125000 F800.000000
G01 X56.597169 Y131.876616 Z-0.125000
G01 X73.617833 Y136.022592 Z-0.125000
G01 X100.173883 Y130.633182 Z-0.125000
G01 X116.141393 Y135.832312 Z-0.125000
G01 X135.962028 Y137.178317 Z-0.125000
G01 X161.619271 Y132.687714 Z-0.125000
G00 Z3.000000

(End cutting path id: path11332)


(Start cutting path id: path11330)
(Change tool to Default tool)

G00 Z3.000000
G00 X17.084550 Y130.114287

G00 Z4.875000 (Fast pre-penetrate)
G01 Z-0.125000 F400.0(Penetrate)
G01 X31.369728 Y136.995750 Z-0.125000 F800.000000
G01 X56.774196 Y132.757921 Z-0.125000
G01 X73.970263 Y136.728495 Z-0.125000
G01 X99.998732 Y131.866665 Z-0.125000
G01 X116.153154 Y136.878884 Z-0.125000
G01 X136.268759 Y137.929918 Z-0.125000
G01 X161.113796 Y134.251521 Z-0.125000
G00 Z3.000000

(End cutting path id: path11330)


(Start cutting path id: path11326)
(Change tool to Default tool)

G00 Z3.000000
G00 X17.048429 Y132.267072

G00 Z4.875000 (Fast pre-penetrate)
G01 Z-0.125000 F400.0(Penetrate)
G01 X31.510055 Y138.972087 Z-0.125000 F800.000000
G01 X57.128256 Y134.520526 Z-0.125000
G01 X74.675128 Y138.140294 Z-0.125000
G01 X99.648424 Y134.333637 Z-0.125000
G01 X116.176678 Y138.972023 Z-0.125000
G01 X136.882224 Y139.433118 Z-0.125000
G01 X160.102848 Y137.379133 Z-0.125000
G00 Z3.000000

(End cutting path id: path11326)


(Start cutting path id: path11320)
(Change tool to Default tool)

G00 Z3.000000
G00 X16.994245 Y135.496252

G00 Z4.875000 (Fast pre-penetrate)
G01 Z-0.125000 F400.0(Penetrate)
G01 X31.720546 Y141.936591 Z-0.125000 F800.000000
G01 X57.659343 Y137.164435 Z-0.125000
G01 X75.732425 Y140.257992 Z-0.125000
G01 X99.122962 Y138.034095 Z-0.125000
G01 X116.211963 Y142.111735 Z-0.125000
G01 X137.802420 Y141.687918 Z-0.125000
G01 X158.586428 Y142.070550 Z-0.125000
G00 Z3.000000

(End cutting path id: path11320)


(Start cutting path id: path11312)
(Change tool to Default tool)

G00 Z3.000000
G00 X16.922004 Y139.801822

G00 Z4.875000 (Fast pre-penetrate)
G01 Z-0.125000 F400.0(Penetrate)
G01 X32.001200 Y145.889266 Z-0.125000 F800.000000
G01 X58.367460 Y140.689646 Z-0.125000
G01 X77.142155 Y143.081590 Z-0.125000
G01 X98.422349 Y142.968036 Z-0.125000
G01 X116.259008 Y146.298017 Z-0.125000
G01 X139.029347 Y144.694319 Z-0.125000
G01 X156.564535 Y148.325771 Z-0.125000
G00 Z3.000000

(End cutting path id: path11312)


(Start cutting path id: path11304)
(Change tool to Default tool)

G00 Z3.000000
G00 X16.849762 Y144.107392

G00 Z4.875000 (Fast pre-penetrate)
G01 Z-0.125000 F400.0(Penetrate)
G01 X32.281856 Y149.841937 Z-0.125000 F800.000000
G01 X59.075576 Y144.214857 Z-0.125000
G01 X78.551885 Y145.905188 Z-0.125000
G01 X97.721736 Y147.901977 Z-0.125000
G01 X116.306057 Y150.484297 Z-0.125000
G01 X140.256274 Y147.700720 Z-0.125000
G01 X154.542639 Y154.580994 Z-0.125000
G00 Z3.000000

(End cutting path id: path11304)


(Start cutting path id: path11306)
(Change tool to Default tool)

G00 Z3.000000
G00 X16.867822 Y143.030999

G00 Z4.875000 (Fast pre-penetrate)
G01 Z-0.125000 F400.0(Penetrate)
G01 X32.211692 Y148.853770 Z-0.125000 F800.000000
G01 X58.898546 Y143.333555 Z-0.125000
G01 X78.199453 Y145.199289 Z-0.125000
G01 X97.896890 Y146.668492 Z-0.125000
G01 X116.294293 Y149.437728 Z-0.125000
G01 X139.949543 Y146.949119 Z-0.125000
G01 X155.048114 Y153.017187 Z-0.125000
G00 Z3.000000

(End cutting path id: path11306)


(Start cutting path id: path11308)
(Change tool to Default tool)

G00 Z3.000000
G00 X16.885883 Y141.954607

G00 Z4.875000 (Fast pre-penetrate)
G01 Z-0.125000 F400.0(Penetrate)
G01 X32.141530 Y147.865600 Z-0.125000 F800.000000
G01 X58.721519 Y142.452250 Z-0.125000
G01 X77.847020 Y144.493389 Z-0.125000
G01 X98.072041 Y145.435008 Z-0.125000
G01 X116.282532 Y148.391157 Z-0.125000
G01 X139.642812 Y146.197518 Z-0.125000
G01 X155.553587 Y151.453383 Z-0.125000
G00 Z3.000000

(End cutting path id: path11308)


(Start cutting path id: path11310)
(Change tool to Default tool)

G00 Z3.000000
G00 X16.903943 Y140.878214

G00 Z4.875000 (Fast pre-penetrate)
G01 Z-0.125000 F400.0(Penetrate)
G01 X32.071365 Y146.877433 Z-0.125000 F800.000000
G01 X58.544489 Y141.570948 Z-0.125000
G01 X77.494588 Y143.787490 Z-0.125000
G01 X98.247195 Y144.201522 Z-0.125000
G01 X116.270772 Y147.344586 Z-0.125000
G01 X139.336078 Y145.445920 Z-0.125000
G01 X156.059060 Y149.889578 Z-0.125000
G00 Z3.000000

(End cutting path id: path11310)


(Start cutting path id: path11302)
(Change tool to Default tool)

G00 Z3.000000
G00 X16.608462 Y145.407023

G00 Z4.875000 (Fast pre-penetrate)
G01 Z-0.125000 F400.0(Penetrate)
G01 X32.393913 Y150.788213 Z-0.125000 F800.000000
G01 X58.475425 Y145.873340 Z-0.125000
G01 X78.680597 Y146.834808 Z-0.125000
G01 X97.256840 Y149.425206 Z-0.125000
G01 X116.352332 Y151.496353 Z-0.125000
G01 X140.487562 Y148.527764 Z-0.125000
G01 X154.892103 Y155.289862 Z-0.125000
G00 Z3.000000

(End cutting path id: path11302)


(Start cutting path id: path11300)
(Change tool to Default tool)

G00 Z3.000000
G00 X16.367162 Y146.706655

G00 Z4.875000 (Fast pre-penetrate)
G01 Z-0.125000 F400.0(Penetrate)
G01 X32.505971 Y151.734486 Z-0.125000 F800.000000
G01 X57.875274 Y147.531823 Z-0.125000
G01 X78.809311 Y147.764426 Z-0.125000
G01 X96.791944 Y150.948434 Z-0.125000
G01 X116.398608 Y152.508410 Z-0.125000
G01 X140.718849 Y149.354808 Z-0.125000
G01 X155.241567 Y155.998731 Z-0.125000
G00 Z3.000000

(End cutting path id: path11300)


(Start cutting path id: path11298)
(Change tool to Default tool)

G00 Z3.000000
G00 X16.125863 Y148.006287

G00 Z4.875000 (Fast pre-penetrate)
G01 Z-0.125000 F400.0(Penetrate)
G01 X32.618028 Y152.680762 Z-0.125000 F800.000000
G01 X57.275123 Y149.190306 Z-0.125000
G01 X78.938026 Y148.694044 Z-0.125000
G01 X96.327050 Y152.471659 Z-0.125000
G01 X116.444886 Y153.520464 Z-0.125000
G01 X140.950137 Y150.181852 Z-0.125000
G01 X155.591031 Y156.707599 Z-0.125000
G00 Z3.000000

(End cutting path id: path11298)


(Start cutting path id: path11314)
(Change tool to Default tool)

G00 Z3.000000
G00 X16.940064 Y138.725429

G00 Z4.875000 (Fast pre-penetrate)
G01 Z-0.125000 F400.0(Penetrate)
G01 X31.931038 Y144.901096 Z-0.125000 F800.000000
G01 X58.190430 Y139.808344 Z-0.125000
G01 X76.789723 Y142.375691 Z-0.125000
G01 X98.597503 Y141.734550 Z-0.125000
G01 X116.247248 Y145.251446 Z-0.125000
G01 X138.722616 Y143.942718 Z-0.125000
G01 X157.070007 Y146.761966 Z-0.125000
G00 Z3.000000

(End cutting path id: path11314)


(Start cutting path id: path11316)
(Change tool to Default tool)

G00 Z3.000000
G00 X16.958125 Y137.649037

G00 Z4.875000 (Fast pre-penetrate)
G01 Z-0.125000 F400.0(Penetrate)
G01 X31.860873 Y143.912928 Z-0.125000 F800.000000
G01 X58.013402 Y138.927039 Z-0.125000
G01 X76.437290 Y141.669791 Z-0.125000
G01 X98.772657 Y140.501064 Z-0.125000
G01 X116.235487 Y144.204875 Z-0.125000
G01 X138.415882 Y143.191120 Z-0.125000
G01 X157.575483 Y145.198159 Z-0.125000
G00 Z3.000000

(End cutting path id: path11316)


(Start cutting path id: path11318)
(Change tool to Default tool)

G00 Z3.000000
G00 X16.976185 Y136.572645

G00 Z4.875000 (Fast pre-penetrate)
G01 Z-0.125000 F400.0(Penetrate)
G01 X31.790708 Y142.924761 Z-0.125000 F800.000000
G01 X57.836373 Y138.045737 Z-0.125000
G01 X76.084858 Y140.963892 Z-0.125000
G01 X98.947811 Y139.267579 Z-0.125000
G01 X116.223724 Y143.158306 Z-0.125000
G01 X138.109151 Y142.439519 Z-0.125000
G01 X158.080955 Y143.634354 Z-0.125000
G00 Z3.000000

(End cutting path id: path11318)


(Start cutting path id: path11322)
(Change tool to Default tool)

G00 Z3.000000
G00 X17.012308 Y134.419857

G00 Z4.875000 (Fast pre-penetrate)
G01 Z-0.125000 F400.0(Penetrate)
G01 X31.650381 Y140.948424 Z-0.125000 F800.000000
G01 X57.482313 Y136.283133 Z-0.125000
G01 X75.379993 Y139.552093 Z-0.125000
G01 X99.298116 Y136.800609 Z-0.125000
G01 X116.200202 Y141.065163 Z-0.125000
G01 X137.495686 Y140.936319 Z-0.125000
G01 X159.091903 Y140.506742 Z-0.125000
G00 Z3.000000

(End cutting path id: path11322)


(Start cutting path id: path11324)
(Change tool to Default tool)

G00 Z3.000000
G00 X17.030369 Y133.343465

G00 Z4.875000 (Fast pre-penetrate)
G01 Z-0.125000 F400.0(Penetrate)
G01 X31.580219 Y139.960254 Z-0.125000 F800.000000
G01 X57.305286 Y135.401828 Z-0.125000
G01 X75.027560 Y138.846193 Z-0.125000
G01 X99.473270 Y135.567123 Z-0.125000
G01 X116.188439 Y140.018595 Z-0.125000
G01 X137.188955 Y140.184718 Z-0.125000
G01 X159.597376 Y138.942938 Z-0.125000
G00 Z3.000000

(End cutting path id: path11324)


(Start cutting path id: path11328)
(Change tool to Default tool)

G00 Z3.000000
G00 X17.066490 Y131.190680

G00 Z4.875000 (Fast pre-penetrate)
G01 Z-0.125000 F400.0(Penetrate)
G01 X31.439890 Y137.983920 Z-0.125000 F800.000000
G01 X56.951226 Y133.639223 Z-0.125000
G01 X74.322695 Y137.434394 Z-0.125000
G01 X99.823578 Y133.100151 Z-0.125000
G01 X116.164917 Y137.925452 Z-0.125000
G01 X136.575490 Y138.681519 Z-0.125000
G01 X160.608324 Y135.815326 Z-0.125000
G00 Z3.000000

(End cutting path id: path11328)


(Start cutting path id: path11346)
(Change tool to Default tool)

G00 Z3.000000
G00 X17.187994 Y121.544187

G00 Z4.875000 (Fast pre-penetrate)
G01 Z-0.125000 F400.0(Penetrate)
G01 X30.894232 Y129.004589 Z-0.125000 F800.000000
G01 X55.732520 Y125.332942 Z-0.125000
G01 X71.734481 Y130.497620 Z-0.125000
G01 X100.991326 Y122.407416 Z-0.125000
G01 X115.985080 Y128.580301 Z-0.125000
G01 X134.391064 Y131.340958 Z-0.125000
G01 X164.042542 Y122.856119 Z-0.125000
G00 Z3.000000

(End cutting path id: path11346)


(Start cutting path id: path11348)
(Change tool to Default tool)

G00 Z3.000000
G00 X17.165013 Y120.508837

G00 Z4.875000 (Fast pre-penetrate)
G01 Z-0.125000 F400.0(Penetrate)
G01 X30.909882 Y127.930607 Z-0.125000 F800.000000
G01 X55.930044 Y124.077085 Z-0.125000
G01 X71.965724 Y129.208046 Z-0.125000
G01 X100.757847 Y121.582562 Z-0.125000
G01 X115.899340 Y127.607710 Z-0.125000
G01 X134.660494 Y130.013195 Z-0.125000
G01 X163.432975 Y122.407355 Z-0.125000
G00 Z3.000000

(End cutting path id: path11348)


(Start cutting path id: path11350)
(Change tool to Default tool)

G00 Z3.000000
G00 X17.142034 Y119.473484

G00 Z4.875000 (Fast pre-penetrate)
G01 Z-0.125000 F400.0(Penetrate)
G01 X30.925535 Y126.856622 Z-0.125000 F800.000000
G01 X56.127571 Y122.821226 Z-0.125000
G01 X72.196967 Y127.918471 Z-0.125000
G01 X100.524371 Y120.757706 Z-0.125000
G01 X115.813596 Y126.635121 Z-0.125000
G01 X134.929922 Y128.685436 Z-0.125000
G01 X162.823407 Y121.958590 Z-0.125000
G00 Z3.000000

(End cutting path id: path11350)


(Start cutting path id: path11352)
(Change tool to Default tool)

G00 Z3.000000
G00 X17.119052 Y118.438134

G00 Z4.875000 (Fast pre-penetrate)
G01 Z-0.125000 F400.0(Penetrate)
G01 X30.941185 Y125.782640 Z-0.125000 F800.000000
G01 X56.325096 Y121.565370 Z-0.125000
G01 X72.428207 Y126.628898 Z-0.125000
G01 X100.290892 Y119.932853 Z-0.125000
G01 X115.727855 Y125.662530 Z-0.125000
G01 X135.199352 Y127.357674 Z-0.125000
G01 X162.213837 Y121.509829 Z-0.125000
G00 Z3.000000

(End cutting path id: path11352)


(Start cutting path id: path11356)
(Change tool to Default tool)

G00 Z3.000000
G00 X17.073094 Y116.367428

G00 Z4.875000 (Fast pre-penetrate)
G01 Z-0.125000 F400.0(Penetrate)
G01 X30.972488 Y123.634673 Z-0.125000 F800.000000
G01 X56.720150 Y119.053652 Z-0.125000
G01 X72.890693 Y124.049749 Z-0.125000
G01 X99.823935 Y118.283146 Z-0.125000
G01 X115.556371 Y123.717350 Z-0.125000
G01 X135.738209 Y124.702152 Z-0.125000
G01 X160.994702 Y120.612300 Z-0.125000
G00 Z3.000000

(End cutting path id: path11356)


(Start cutting path id: path11358)
(Change tool to Default tool)

G00 Z3.000000
G00 X17.050112 Y115.332077

G00 Z4.875000 (Fast pre-penetrate)
G01 Z-0.125000 F400.0(Penetrate)
G01 X30.988138 Y122.560691 Z-0.125000 F800.000000
G01 X56.917674 Y117.797795 Z-0.125000
G01 X73.121936 Y122.760174 Z-0.125000
G01 X99.590457 Y117.458293 Z-0.125000
G01 X115.470628 Y122.744762 Z-0.125000
G01 X136.007640 Y123.374390 Z-0.125000
G01 X160.385132 Y120.163538 Z-0.125000
G00 Z3.000000

(End cutting path id: path11358)


(Start cutting path id: path11360)
(Change tool to Default tool)

G00 Z3.000000
G00 X17.027133 Y114.296724

G00 Z4.875000 (Fast pre-penetrate)
G01 Z-0.125000 F400.0(Penetrate)
G01 X31.003788 Y121.486709 Z-0.125000 F800.000000
G01 X57.115201 Y116.541936 Z-0.125000
G01 X73.353179 Y121.470599 Z-0.125000
G01 X99.356978 Y116.633439 Z-0.125000
G01 X115.384887 Y121.772171 Z-0.125000
G01 X136.277067 Y122.046630 Z-0.125000
G01 X159.775564 Y119.714773 Z-0.125000
G00 Z3.000000

(End cutting path id: path11360)


(Start cutting path id: path11362)
(Change tool to Default tool)

G00 Z3.000000
G00 X17.004154 Y113.261371

G00 Z4.875000 (Fast pre-penetrate)
G01 Z-0.125000 F400.0(Penetrate)
G01 X31.019438 Y120.412727 Z-0.125000 F800.000000
G01 X57.312726 Y115.286080 Z-0.125000
G01 X73.584422 Y120.181024 Z-0.125000
G01 X99.123499 Y115.808586 Z-0.125000
G01 X115.299144 Y120.799582 Z-0.125000
G01 X136.546497 Y120.718868 Z-0.125000
G01 X159.165997 Y119.266009 Z-0.125000
G00 Z3.000000

(End cutting path id: path11362)


(Start cutting path id: path11364)
(Change tool to Default tool)

G00 Z3.000000
G00 X16.981172 Y112.226021

G00 Z4.875000 (Fast pre-penetrate)
G01 Z-0.125000 F400.0(Penetrate)
G01 X31.035091 Y119.338742 Z-0.125000 F800.000000
G01 X57.510253 Y114.030221 Z-0.125000
G01 X73.815664 Y118.891449 Z-0.125000
G01 X98.890021 Y114.983733 Z-0.125000
G01 X115.213400 Y119.826993 Z-0.125000
G01 X136.815925 Y119.391109 Z-0.125000
G01 X158.556427 Y118.817247 Z-0.125000
G00 Z3.000000

(End cutting path id: path11364)


(Start cutting path id: path11366)
(Change tool to Default tool)

G00 Z3.000000
G00 X16.958193 Y111.190668

G00 Z4.875000 (Fast pre-penetrate)
G01 Z-0.125000 F400.0(Penetrate)
G01 X31.050741 Y118.264760 Z-0.125000 F800.000000
G01 X57.707780 Y112.774362 Z-0.125000
G01 X74.046907 Y117.601874 Z-0.125000
G01 X98.656542 Y114.158879 Z-0.125000
G01 X115.127659 Y118.854402 Z-0.125000
G01 X137.085355 Y118.063347 Z-0.125000
G01 X157.946859 Y118.368482 Z-0.125000
G00 Z3.000000

(End cutting path id: path11366)


(Start cutting path id: path11368)
(Change tool to Default tool)

G00 Z3.000000
G00 X16.935214 Y110.155315

G00 Z4.875000 (Fast pre-penetrate)
G01 Z-0.125000 F400.0(Penetrate)
G01 X31.066391 Y117.190778 Z-0.125000 F800.000000
G01 X57.905304 Y111.518505 Z-0.125000
G01 X74.278148 Y116.312302 Z-0.125000
G01 X98.423064 Y113.334026 Z-0.125000
G01 X115.041916 Y117.881814 Z-0.125000
G01 X137.354782 Y116.735587 Z-0.125000
G01 X157.337292 Y117.919718 Z-0.125000
G00 Z3.000000

(End cutting path id: path11368)


(Start cutting path id: path11370)
(Change tool to Default tool)

G00 Z3.000000
G00 X16.912233 Y109.119965

G00 Z4.875000 (Fast pre-penetrate)
G01 Z-0.125000 F400.0(Penetrate)
G01 X31.082044 Y116.116794 Z-0.125000 F800.000000
G01 X58.102832 Y110.262646 Z-0.125000
G01 X74.509391 Y115.022727 Z-0.125000
G01 X98.189585 Y112.509173 Z-0.125000
G01 X114.956175 Y116.909222 Z-0.125000
G01 X137.624213 Y115.407825 Z-0.125000
G01 X156.727722 Y117.470956 Z-0.125000
G00 Z3.000000

(End cutting path id: path11370)


(Start cutting path id: path11372)
(Change tool to Default tool)

G00 Z3.000000
G00 X16.889254 Y108.084612

G00 Z4.875000 (Fast pre-penetrate)
G01 Z-0.125000 F400.0(Penetrate)
G01 X31.097694 Y115.042811 Z-0.125000 F800.000000
G01 X58.300359 Y109.006787 Z-0.125000
G01 X74.740633 Y113.733152 Z-0.125000
G01 X97.956106 Y111.684319 Z-0.125000
G01 X114.870432 Y115.936634 Z-0.125000
G01 X137.893640 Y114.080065 Z-0.125000
G01 X156.118154 Y117.022191 Z-0.125000
G00 Z3.000000

(End cutting path id: path11372)


(Start cutting path id: path11374)
(Change tool to Default tool)

G00 Z3.000000
G00 X16.866272 Y107.049262

G00 Z4.875000 (Fast pre-penetrate)
G01 Z-0.125000 F400.0(Penetrate)
G01 X31.113344 Y113.968829 Z-0.125000 F800.000000
G01 X58.497883 Y107.750930 Z-0.125000
G01 X74.971876 Y112.443577 Z-0.125000
G01 X97.722628 Y110.859466 Z-0.125000
G01 X114.784691 Y114.964042 Z-0.125000
G01 X138.163070 Y112.752303 Z-0.125000
G01 X155.508587 Y116.573427 Z-0.125000
G00 Z3.000000

(End cutting path id: path11374)


(Start cutting path id: path11376)
(Change tool to Default tool)

G00 Z3.000000
G00 X16.843293 Y106.013909

G00 Z4.875000 (Fast pre-penetrate)
G01 Z-0.125000 F400.0(Penetrate)
G01 X31.128997 Y112.894845 Z-0.125000 F800.000000
G01 X58.695410 Y106.495071 Z-0.125000
G01 X75.203119 Y111.154002 Z-0.125000
G01 X97.489149 Y110.034612 Z-0.125000
G01 X114.698948 Y113.991454 Z-0.125000
G01 X138.432500 Y111.424541 Z-0.125000
G01 X154.899017 Y116.124665 Z-0.125000
G00 Z3.000000

(End cutting path id: path11376)


(Start cutting path id: path11378)
(Change tool to Default tool)

G00 Z3.000000
G00 X16.820314 Y104.978556

G00 Z4.875000 (Fast pre-penetrate)
G01 Z-0.125000 F400.0(Penetrate)
G01 X31.144647 Y111.820863 Z-0.125000 F800.000000
G01 X58.892935 Y105.239215 Z-0.125000
G01 X75.434362 Y109.864427 Z-0.125000
G01 X97.255670 Y109.209759 Z-0.125000
G01 X114.613204 Y113.018865 Z-0.125000
G01 X138.701928 Y110.096782 Z-0.125000
G01 X154.289449 Y115.675900 Z-0.125000
G00 Z3.000000

(End cutting path id: path11378)


(Start cutting path id: path11380)
(Change tool to Default tool)

G00 Z3.000000
G00 X16.797332 Y103.943205

G00 Z4.875000 (Fast pre-penetrate)
G01 Z-0.125000 F400.0(Penetrate)
G01 X31.160297 Y110.746880 Z-0.125000 F800.000000
G01 X59.090462 Y103.983356 Z-0.125000
G01 X75.665605 Y108.574853 Z-0.125000
G01 X97.022192 Y108.384906 Z-0.125000
G01 X114.527463 Y112.046274 Z-0.125000
G01 X138.971358 Y108.769019 Z-0.125000
G01 X153.679879 Y115.227139 Z-0.125000
G00 Z3.000000

(End cutting path id: path11380)


(Start cutting path id: path11382)
(Change tool to Default tool)

G00 Z3.000000
G00 X16.774353 Y102.907852

G00 Z4.875000 (Fast pre-penetrate)
G01 Z-0.125000 F400.0(Penetrate)
G01 X31.175950 Y109.672896 Z-0.125000 F800.000000
G01 X59.287989 Y102.727497 Z-0.125000
G01 X75.896845 Y107.285280 Z-0.125000
G01 X96.788713 Y107.560052 Z-0.125000
G01 X114.441720 Y111.073685 Z-0.125000
G01 X139.240786 Y107.441260 Z-0.125000
G01 X153.070312 Y114.778374 Z-0.125000
G00 Z3.000000

(End cutting path id: path11382)


(Start cutting path id: path11386)
(Change tool to Default tool)

G00 Z3.000000
G00 X16.297580 Y101.267962

G00 Z4.875000 (Fast pre-penetrate)
G01 Z-0.125000 F400.0(Penetrate)
G01 X31.256732 Y107.475449 Z-0.125000 F800.000000
G01 X59.023104 Y100.875717 Z-0.125000
G01 X76.098648 Y104.966814 Z-0.125000
G01 X96.610699 Y105.621402 Z-0.125000
G01 X114.239229 Y109.159512 Z-0.125000
G01 X139.458003 Y105.107379 Z-0.125000
G01 X152.982790 Y112.749231 Z-0.125000
G00 Z3.000000

(End cutting path id: path11386)


(Start cutting path id: path11388)
(Change tool to Default tool)

G00 Z3.000000
G00 X15.843788 Y100.663421

G00 Z4.875000 (Fast pre-penetrate)
G01 Z-0.125000 F400.0(Penetrate)
G01 X31.321867 Y106.351982 Z-0.125000 F800.000000
G01 X58.560695 Y100.279794 Z-0.125000
G01 X76.069210 Y103.937919 Z-0.125000
G01 X96.666164 Y104.507606 Z-0.125000
G01 X114.122479 Y108.217930 Z-0.125000
G01 X139.405793 Y104.101257 Z-0.125000
G01 X153.504839 Y111.168851 Z-0.125000
G00 Z3.000000

(End cutting path id: path11388)


(Start cutting path id: path11390)
(Change tool to Default tool)

G00 Z3.000000
G00 X15.389994 Y100.058884

G00 Z4.875000 (Fast pre-penetrate)
G01 Z-0.125000 F400.0(Penetrate)
G01 X31.387000 Y105.228518 Z-0.125000 F800.000000
G01 X58.098283 Y99.683874 Z-0.125000
G01 X76.039770 Y102.909027 Z-0.125000
G01 X96.721628 Y103.393809 Z-0.125000
G01 X114.005727 Y107.276351 Z-0.125000
G01 X139.353583 Y103.095135 Z-0.125000
G01 X154.026888 Y109.588470 Z-0.125000
G00 Z3.000000

(End cutting path id: path11390)


(Start cutting path id: path11392)
(Change tool to Default tool)

G00 Z3.000000
G00 X14.936202 Y99.454343

G00 Z4.875000 (Fast pre-penetrate)
G01 Z-0.125000 F400.0(Penetrate)
G01 X31.452132 Y104.105053 Z-0.125000 F800.000000
G01 X57.635874 Y99.087951 Z-0.125000
G01 X76.010330 Y101.880135 Z-0.125000
G01 X96.777095 Y102.280010 Z-0.125000
G01 X113.888977 Y106.334768 Z-0.125000
G01 X139.301372 Y102.089013 Z-0.125000
G01 X154.548934 Y108.008092 Z-0.125000
G00 Z3.000000

(End cutting path id: path11392)


(Start cutting path id: path11394)
(Change tool to Default tool)

G00 Z3.000000
G00 X14.482408 Y98.849805

G00 Z4.875000 (Fast pre-penetrate)
G01 Z-0.125000 F400.0(Penetrate)
G01 X31.517267 Y102.981586 Z-0.125000 F800.000000
G01 X57.173465 Y98.492028 Z-0.125000
G01 X75.980890 Y100.851243 Z-0.125000
G01 X96.832560 Y101.166214 Z-0.125000
G01 X113.772227 Y105.393186 Z-0.125000
G01 X139.249162 Y101.082891 Z-0.125000
G01 X155.070982 Y106.427711 Z-0.125000
G00 Z3.000000

(End cutting path id: path11394)


(Start cutting path id: path11396)
(Change tool to Default tool)

G00 Z3.000000
G00 X14.028617 Y98.245265

G00 Z4.875000 (Fast pre-penetrate)
G01 Z-0.125000 F400.0(Penetrate)
G01 X31.582399 Y101.858122 Z-0.125000 F800.000000
G01 X56.711056 Y97.896105 Z-0.125000
G01 X75.951450 Y99.822352 Z-0.125000
G01 X96.888024 Y100.052417 Z-0.125000
G01 X113.655477 Y104.451604 Z-0.125000
G01 X139.196950 Y100.076772 Z-0.125000
G01 X155.593031 Y104.847330 Z-0.125000
G00 Z3.000000

(End cutting path id: path11396)


(Start cutting path id: path11398)
(Change tool to Default tool)

G00 Z3.000000
G00 X13.574824 Y97.640725

G00 Z4.875000 (Fast pre-penetrate)
G01 Z-0.125000 F400.0(Penetrate)
G01 X31.647532 Y100.734658 Z-0.125000 F800.000000
G01 X56.248647 Y97.300182 Z-0.125000
G01 X75.922010 Y98.793460 Z-0.125000
G01 X96.943489 Y98.938621 Z-0.125000
G01 X113.538727 Y103.510022 Z-0.125000
G01 X139.144739 Y99.070650 Z-0.125000
G01 X156.115077 Y103.266952 Z-0.125000
G00 Z3.000000

(End cutting path id: path11398)


(Start cutting path id: path11400)
(Change tool to Default tool)

G00 Z3.000000
G00 X13.121031 Y97.036187

G00 Z4.875000 (Fast pre-penetrate)
G01 Z-0.125000 F400.0(Penetrate)
G01 X31.712667 Y99.611191 Z-0.125000 F800.000000
G01 X55.786235 Y96.704262 Z-0.125000
G01 X75.892570 Y97.764568 Z-0.125000
G01 X96.998953 Y97.824824 Z-0.125000
G01 X113.421977 Y102.568440 Z-0.125000
G01 X139.092529 Y98.064528 Z-0.125000
G01 X156.637126 Y101.686572 Z-0.125000
G00 Z3.000000

(End cutting path id: path11400)


(Start cutting path id: path11402)
(Change tool to Default tool)

G00 Z3.000000
G00 X12.667238 Y96.431646

G00 Z4.875000 (Fast pre-penetrate)
G01 Z-0.125000 F400.0(Penetrate)
G01 X31.777799 Y98.487726 Z-0.125000 F800.000000
G01 X55.323826 Y96.108339 Z-0.125000
G01 X75.863129 Y96.735676 Z-0.125000
G01 X97.054418 Y96.711017 Z-0.125000
G01 X113.305228 Y101.626847 Z-0.125000
G01 X139.040319 Y97.058396 Z-0.125000
G01 X157.159175 Y100.106180 Z-0.125000
G00 Z3.000000

(End cutting path id: path11402)


(Start cutting path id: path11404)
(Change tool to Default tool)

G00 Z3.000000
G00 X12.213445 Y95.827109

G00 Z4.875000 (Fast pre-penetrate)
G01 Z-0.125000 F400.0(Penetrate)
G01 X31.842932 Y97.364262 Z-0.125000 F800.000000
G01 X54.861417 Y95.512416 Z-0.125000
G01 X75.833689 Y95.706784 Z-0.125000
G01 X97.109883 Y95.597231 Z-0.125000
G01 X113.188475 Y100.685278 Z-0.125000
G01 X138.988109 Y96.052285 Z-0.125000
G01 X157.681221 Y98.525813 Z-0.125000
G00 Z3.000000

(End cutting path id: path11404)


(Start cutting path id: path11406)
(Change tool to Default tool)

G00 Z3.000000
G00 X11.759653 Y95.222568

G00 Z4.875000 (Fast pre-penetrate)
G01 Z-0.125000 F400.0(Penetrate)
G01 X31.908064 Y96.240797 Z-0.125000 F800.000000
G01 X54.399008 Y94.916493 Z-0.125000
G01 X75.804249 Y94.677892 Z-0.125000
G01 X97.165347 Y94.483434 Z-0.125000
G01 X113.071725 Y99.743696 Z-0.125000
G01 X138.935896 Y95.046165 Z-0.125000
G01 X158.203269 Y96.945432 Z-0.125000
G00 Z3.000000

(End cutting path id: path11406)


(Start cutting path id: path11408)
(Change tool to Default tool)

G00 Z3.000000
G00 X11.305860 Y94.618030

G00 Z4.875000 (Fast pre-penetrate)
G01 Z-0.125000 F400.0(Penetrate)
G01 X31.973199 Y95.117330 Z-0.125000 F800.000000
G01 X53.936596 Y94.320573 Z-0.125000
G01 X75.774809 Y93.649001 Z-0.125000
G01 X97.220812 Y93.369638 Z-0.125000
G01 X112.954975 Y98.802114 Z-0.125000
G01 X138.883686 Y94.040044 Z-0.125000
G01 X158.725315 Y95.365054 Z-0.125000
G00 Z3.000000

(End cutting path id: path11408)


(Start cutting path id: path11410)
(Change tool to Default tool)

G00 Z3.000000
G00 X10.852067 Y94.013490

G00 Z4.875000 (Fast pre-penetrate)
G01 Z-0.125000 F400.0(Penetrate)
G01 X32.038332 Y93.993858 Z-0.125000 F800.000000
G01 X53.474187 Y93.724642 Z-0.125000
G01 X75.745371 Y92.620098 Z-0.125000
G01 X97.276276 Y92.255833 Z-0.125000
G01 X112.838225 Y97.860524 Z-0.125000
G01 X138.831476 Y93.033914 Z-0.125000
G01 X159.247364 Y93.784665 Z-0.125000
G00 Z3.000000

(End cutting path id: path11410)


(Start cutting path id: path11412)
(Change tool to Default tool)

G00 Z3.000000
G00 X10.398274 Y93.408952

G00 Z4.875000 (Fast pre-penetrate)
G01 Z-0.125000 F400.0(Penetrate)
G01 X32.103464 Y92.870402 Z-0.125000 F800.000000
G01 X53.011778 Y93.128727 Z-0.125000
G01 X75.715931 Y91.591214 Z-0.125000
G01 X97.331741 Y91.142045 Z-0.125000
G01 X112.721475 Y96.918950 Z-0.125000
G01 X138.779266 Y92.027800 Z-0.125000
G01 X159.769413 Y92.204293 Z-0.125000
G00 Z3.000000

(End cutting path id: path11412)


(Start cutting path id: path11414)
(Change tool to Default tool)

G00 Z3.000000
G00 X9.944482 Y92.804412

G00 Z4.875000 (Fast pre-penetrate)
G01 Z-0.125000 F400.0(Penetrate)
G01 X32.168599 Y91.746934 Z-0.125000 F800.000000
G01 X52.549369 Y92.532804 Z-0.125000
G01 X75.686491 Y90.562322 Z-0.125000
G01 X97.387205 Y90.028248 Z-0.125000
G01 X112.604726 Y95.977368 Z-0.125000
G01 X138.727053 Y91.021681 Z-0.125000
G01 X160.291459 Y90.623915 Z-0.125000
G00 Z3.000000

(End cutting path id: path11414)


(Start cutting path id: path11416)
(Change tool to Default tool)

G00 Z3.000000
G00 X9.490689 Y92.199871

G00 Z4.875000 (Fast pre-penetrate)
G01 Z-0.125000 F400.0(Penetrate)
G01 X32.233731 Y90.623470 Z-0.125000 F800.000000
G01 X52.086958 Y91.936884 Z-0.125000
G01 X75.657051 Y89.533430 Z-0.125000
G01 X97.442670 Y88.914452 Z-0.125000
G01 X112.487976 Y95.035786 Z-0.125000
G01 X138.674843 Y90.015559 Z-0.125000
G01 X160.813508 Y89.043534 Z-0.125000
G00 Z3.000000

(End cutting path id: path11416)


(Start cutting path id: path11418)
(Change tool to Default tool)

G00 Z3.000000
G00 X9.036896 Y91.595334

G00 Z4.875000 (Fast pre-penetrate)
G01 Z-0.125000 F400.0(Penetrate)
G01 X32.298864 Y89.500006 Z-0.125000 F800.000000
G01 X51.624549 Y91.340961 Z-0.125000
G01 X75.627611 Y88.504539 Z-0.125000
G01 X97.498134 Y87.800655 Z-0.125000
G01 X112.371223 Y94.094206 Z-0.125000
G01 X138.622632 Y89.009437 Z-0.125000
G01 X161.335556 Y87.463153 Z-0.125000
G00 Z3.000000

(End cutting path id: path11418)


(Start cutting path id: path11420)
(Change tool to Default tool)

G00 Z3.000000
G00 X8.583103 Y90.990793

G00 Z4.875000 (Fast pre-penetrate)
G01 Z-0.125000 F400.0(Penetrate)
G01 X32.363999 Y88.376539 Z-0.125000 F800.000000
G01 X51.162139 Y90.745038 Z-0.125000
G01 X75.598171 Y87.475647 Z-0.125000
G01 X97.553599 Y86.686859 Z-0.125000
G01 X112.254473 Y93.152624 Z-0.125000
G01 X138.570422 Y88.003315 Z-0.125000
G01 X161.857602 Y85.882775 Z-0.125000
G00 Z3.000000

(End cutting path id: path11420)


(Start cutting path id: path11454)
(Change tool to Default tool)

G00 Z3.000000
G00 X9.153938 Y72.428317

G00 Z4.875000 (Fast pre-penetrate)
G01 Z-0.125000 F400.0(Penetrate)
G01 X37.096325 Y65.652568 Z-0.125000 F800.000000
G01 X57.888226 Y66.027308 Z-0.125000
G01 X73.853693 Y71.228481 Z-0.125000
G01 X102.382262 Y63.866551 Z-0.125000
G01 X113.910411 Y73.505043 Z-0.125000
G01 X134.258809 Y74.323284 Z-0.125000
G01 X164.376250 Y65.372483 Z-0.125000
G00 Z3.000000

(End cutting path id: path11454)


(Start cutting path id: path11462)
(Change tool to Default tool)

G00 Z3.000000
G00 X9.548183 Y67.800742

G00 Z4.875000 (Fast pre-penetrate)
G01 Z-0.125000 F400.0(Penetrate)
G01 X38.323540 Y60.192025 Z-0.125000 F800.000000
G01 X59.928467 Y59.753738 Z-0.125000
G01 X73.404201 Y67.444645 Z-0.125000
G01 X103.640323 Y58.375163 Z-0.125000
G01 X114.414262 Y68.767864 Z-0.125000
G01 X133.136893 Y71.211873 Z-0.125000
G01 X164.769463 Y60.745943 Z-0.125000
G00 Z3.000000

(End cutting path id: path11462)


(Start cutting path id: path11460)
(Change tool to Default tool)

G00 Z3.000000
G00 X9.449622 Y68.957636

G00 Z4.875000 (Fast pre-penetrate)
G01 Z-0.125000 F400.0(Penetrate)
G01 X38.016738 Y61.557160 Z-0.125000 F800.000000
G01 X59.418407 Y61.322131 Z-0.125000
G01 X73.516575 Y68.390603 Z-0.125000
G01 X103.325808 Y59.748010 Z-0.125000
G01 X114.288299 Y69.952159 Z-0.125000
G01 X133.417372 Y71.989725 Z-0.125000
G01 X164.671160 Y61.902578 Z-0.125000
G00 Z3.000000

(End cutting path id: path11460)


(Start cutting path id: path11458)
(Change tool to Default tool)

G00 Z3.000000
G00 X9.351061 Y70.114528

G00 Z4.875000 (Fast pre-penetrate)
G01 Z-0.125000 F400.0(Penetrate)
G01 X37.709933 Y62.922297 Z-0.125000 F800.000000
G01 X58.908347 Y62.890523 Z-0.125000
G01 X73.628948 Y69.336561 Z-0.125000
G01 X103.011293 Y61.120857 Z-0.125000
G01 X114.162336 Y71.136453 Z-0.125000
G01 X133.697851 Y72.767578 Z-0.125000
G01 X164.572856 Y63.059213 Z-0.125000
G00 Z3.000000

(End cutting path id: path11458)


(Start cutting path id: path11456)
(Change tool to Default tool)

G00 Z3.000000
G00 X9.252499 Y71.271422

G00 Z4.875000 (Fast pre-penetrate)
G01 Z-0.125000 F400.0(Penetrate)
G01 X37.403130 Y64.287431 Z-0.125000 F800.000000
G01 X58.398286 Y64.458915 Z-0.125000
G01 X73.741319 Y70.282522 Z-0.125000
G01 X102.696777 Y62.493704 Z-0.125000
G01 X114.036374 Y72.320748 Z-0.125000
G01 X133.978330 Y73.545431 Z-0.125000
G01 X164.474553 Y64.215848 Z-0.125000
G00 Z3.000000

(End cutting path id: path11456)


(Start cutting path id: path11452)
(Change tool to Default tool)

G00 Z3.000000
G00 X9.055377 Y73.585209

G00 Z4.875000 (Fast pre-penetrate)
G01 Z-0.125000 F400.0(Penetrate)
G01 X36.789523 Y67.017703 Z-0.125000 F800.000000
G01 X57.378165 Y67.595700 Z-0.125000
G01 X73.966067 Y72.174439 Z-0.125000
G01 X102.067747 Y65.239398 Z-0.125000
G01 X113.784448 Y74.689337 Z-0.125000
G01 X134.539289 Y75.101137 Z-0.125000
G01 X164.277947 Y66.529119 Z-0.125000
G00 Z3.000000

(End cutting path id: path11452)


(Start cutting path id: path11450)
(Change tool to Default tool)

G00 Z3.000000
G00 X8.956815 Y74.742103

G00 Z4.875000 (Fast pre-penetrate)
G01 Z-0.125000 F400.0(Penetrate)
G01 X36.482717 Y68.382840 Z-0.125000 F800.000000
G01 X56.868105 Y69.164093 Z-0.125000
G01 X74.078440 Y73.120397 Z-0.125000
G01 X101.753230 Y66.612248 Z-0.125000
G01 X113.658486 Y75.873632 Z-0.125000
G01 X134.819768 Y75.879003 Z-0.125000
G01 X164.179644 Y67.685767 Z-0.125000
G00 Z3.000000

(End cutting path id: path11450)


(Start cutting path id: path11448)
(Change tool to Default tool)

G00 Z3.000000
G00 X8.858254 Y75.898995

G00 Z4.875000 (Fast pre-penetrate)
G01 Z-0.125000 F400.0(Penetrate)
G01 X36.175912 Y69.747977 Z-0.125000 F800.000000
G01 X56.358044 Y70.732485 Z-0.125000
G01 X74.190814 Y74.066355 Z-0.125000
G01 X101.438714 Y67.985095 Z-0.125000
G01 X113.532523 Y77.057927 Z-0.125000
G01 X135.100247 Y76.656843 Z-0.125000
G01 X164.081341 Y68.842389 Z-0.125000
G00 Z3.000000

(End cutting path id: path11448)


(Start cutting path id: path11446)
(Change tool to Default tool)

G00 Z3.000000
G00 X8.759692 Y77.055889

G00 Z4.875000 (Fast pre-penetrate)
G01 Z-0.125000 F400.0(Penetrate)
G01 X35.869110 Y71.113112 Z-0.125000 F800.000000
G01 X55.847984 Y72.300878 Z-0.125000
G01 X74.303185 Y75.012316 Z-0.125000
G01 X101.124199 Y69.357942 Z-0.125000
G01 X113.406560 Y78.242221 Z-0.125000
G01 X135.380729 Y77.434693 Z-0.125000
G01 X163.983035 Y69.999027 Z-0.125000
G00 Z3.000000

(End cutting path id: path11446)


(Start cutting path id: path11444)
(Change tool to Default tool)

G00 Z3.000000
G00 X8.661131 Y78.212781

G00 Z4.875000 (Fast pre-penetrate)
G01 Z-0.125000 F400.0(Penetrate)
G01 X35.562305 Y72.478249 Z-0.125000 F800.000000
G01 X55.337923 Y73.869270 Z-0.125000
G01 X74.415559 Y75.958275 Z-0.125000
G01 X100.809684 Y70.730789 Z-0.125000
G01 X113.280598 Y79.426516 Z-0.125000
G01 X135.661208 Y78.212546 Z-0.125000
G01 X163.884732 Y71.155662 Z-0.125000
G00 Z3.000000

(End cutting path id: path11444)


(Start cutting path id: path11442)
(Change tool to Default tool)

G00 Z3.000000
G00 X8.562570 Y79.369676

G00 Z4.875000 (Fast pre-penetrate)
G01 Z-0.125000 F400.0(Penetrate)
G01 X35.255502 Y73.843383 Z-0.125000 F800.000000
G01 X54.827863 Y75.437663 Z-0.125000
G01 X74.527932 Y76.904233 Z-0.125000
G01 X100.495169 Y72.103636 Z-0.125000
G01 X113.154635 Y80.610811 Z-0.125000
G01 X135.941687 Y78.990399 Z-0.125000
G01 X163.786428 Y72.312297 Z-0.125000
G00 Z3.000000

(End cutting path id: path11442)


(Start cutting path id: path11440)
(Change tool to Default tool)

G00 Z3.000000
G00 X8.464008 Y80.526570

G00 Z4.875000 (Fast pre-penetrate)
G01 Z-0.125000 F400.0(Penetrate)
G01 X34.948697 Y75.208521 Z-0.125000 F800.000000
G01 X54.317802 Y77.006055 Z-0.125000
G01 X74.640306 Y77.850191 Z-0.125000
G01 X100.180654 Y73.476484 Z-0.125000
G01 X113.028675 Y81.795103 Z-0.125000
G01 X136.222166 Y79.768251 Z-0.125000
G01 X163.688125 Y73.468932 Z-0.125000
G00 Z3.000000

(End cutting path id: path11440)


(Start cutting path id: path11438)
(Change tool to Default tool)

G00 Z3.000000
G00 X8.365447 Y81.683462

G00 Z4.875000 (Fast pre-penetrate)
G01 Z-0.125000 F400.0(Penetrate)
G01 X34.641892 Y76.573658 Z-0.125000 F800.000000
G01 X53.807742 Y78.574448 Z-0.125000
G01 X74.752680 Y78.796150 Z-0.125000
G01 X99.866136 Y74.849333 Z-0.125000
G01 X112.902712 Y82.979397 Z-0.125000
G01 X136.502645 Y80.546104 Z-0.125000
G01 X163.589822 Y74.625567 Z-0.125000
G00 Z3.000000

(End cutting path id: path11438)


(Start cutting path id: path11436)
(Change tool to Default tool)

G00 Z3.000000
G00 X8.266886 Y82.840356

G00 Z4.875000 (Fast pre-penetrate)
G01 Z-0.125000 F400.0(Penetrate)
G01 X34.335089 Y77.938792 Z-0.125000 F800.000000
G01 X53.297681 Y80.142840 Z-0.125000
G01 X74.865051 Y79.742111 Z-0.125000
G01 X99.551621 Y76.222180 Z-0.125000
G01 X112.776749 Y84.163692 Z-0.125000
G01 X136.783124 Y81.323957 Z-0.125000
G01 X163.491519 Y75.782203 Z-0.125000
G00 Z3.000000

(End cutting path id: path11436)


(Start cutting path id: path11434)
(Change tool to Default tool)

G00 Z3.000000
G00 X8.168325 Y83.997248

G00 Z4.875000 (Fast pre-penetrate)
G01 Z-0.125000 F400.0(Penetrate)
G01 X34.028284 Y79.303929 Z-0.125000 F800.000000
G01 X52.787621 Y81.711233 Z-0.125000
G01 X74.977425 Y80.688069 Z-0.125000
G01 X99.237106 Y77.595027 Z-0.125000
G01 X112.650787 Y85.347987 Z-0.125000
G01 X137.063604 Y82.101810 Z-0.125000
G01 X163.393216 Y76.938838 Z-0.125000
G00 Z3.000000

(End cutting path id: path11434)


(Start cutting path id: path11432)
(Change tool to Default tool)

G00 Z3.000000
G00 X8.069763 Y85.154143

G00 Z4.875000 (Fast pre-penetrate)
G01 Z-0.125000 F400.0(Penetrate)
G01 X33.721482 Y80.669064 Z-0.125000 F800.000000
G01 X52.277561 Y83.279625 Z-0.125000
G01 X75.089798 Y81.634027 Z-0.125000
G01 X98.922591 Y78.967875 Z-0.125000
G01 X112.524824 Y86.532281 Z-0.125000
G01 X137.344083 Y82.879663 Z-0.125000
G01 X163.294913 Y78.095473 Z-0.125000
G00 Z3.000000

(End cutting path id: path11432)


(Start cutting path id: path11430)
(Change tool to Default tool)

G00 Z3.000000
G00 X7.971202 Y86.311037

G00 Z4.875000 (Fast pre-penetrate)
G01 Z-0.125000 F400.0(Penetrate)
G01 X33.414676 Y82.034201 Z-0.125000 F800.000000
G01 X51.767500 Y84.848017 Z-0.125000
G01 X75.202172 Y82.579986 Z-0.125000
G01 X98.608076 Y80.340722 Z-0.125000
G01 X112.398861 Y87.716576 Z-0.125000
G01 X137.624562 Y83.657516 Z-0.125000
G01 X163.196609 Y79.252108 Z-0.125000
G00 Z3.000000

(End cutting path id: path11430)


(Start cutting path id: path11422)
(Change tool to Default tool)

G00 Z3.000000
G00 X8.129310 Y90.386256

G00 Z4.875000 (Fast pre-penetrate)
G01 Z-0.125000 F400.0(Penetrate)
G01 X32.429131 Y87.253074 Z-0.125000 F800.000000
G01 X50.699730 Y90.149115 Z-0.125000
G01 X75.568731 Y86.446755 Z-0.125000
G01 X97.609063 Y85.573062 Z-0.125000
G01 X112.137723 Y92.211042 Z-0.125000
G01 X138.518212 Y86.997193 Z-0.125000
G01 X162.379651 Y84.302394 Z-0.125000
G00 Z3.000000

(End cutting path id: path11422)


(Start cutting path id: path11428)
(Change tool to Default tool)

G00 Z3.000000
G00 X7.872640 Y87.467929

G00 Z4.875000 (Fast pre-penetrate)
G01 Z-0.125000 F400.0(Penetrate)
G01 X33.107874 Y83.399336 Z-0.125000 F800.000000
G01 X51.257440 Y86.416410 Z-0.125000
G01 X75.314546 Y83.525944 Z-0.125000
G01 X98.293561 Y81.713569 Z-0.125000
G01 X112.272899 Y88.900871 Z-0.125000
G01 X137.905041 Y84.435368 Z-0.125000
G01 X163.098306 Y80.408743 Z-0.125000
G00 Z3.000000

(End cutting path id: path11428)


(Start cutting path id: path11426)
(Change tool to Default tool)

G00 Z3.000000
G00 X7.774079 Y88.624823

G00 Z4.875000 (Fast pre-penetrate)
G01 Z-0.125000 F400.0(Penetrate)
G01 X32.801069 Y84.764473 Z-0.125000 F800.000000
G01 X50.747379 Y87.984802 Z-0.125000
G01 X75.426917 Y84.471905 Z-0.125000
G01 X97.979043 Y83.086419 Z-0.125000
G01 X112.146936 Y90.085165 Z-0.125000
G01 X138.185520 Y85.213221 Z-0.125000
G01 X163.000003 Y81.565378 Z-0.125000
G00 Z3.000000

(End cutting path id: path11426)


(Start cutting path id: path11424)
(Change tool to Default tool)

G00 Z3.000000
G00 X7.675518 Y89.781715

G00 Z4.875000 (Fast pre-penetrate)
G01 Z-0.125000 F400.0(Penetrate)
G01 X32.494264 Y86.129610 Z-0.125000 F800.000000
G01 X50.237319 Y89.553195 Z-0.125000
G01 X75.539290 Y85.417863 Z-0.125000
G01 X97.664528 Y84.459266 Z-0.125000
G01 X112.020973 Y91.269460 Z-0.125000
G01 X138.465999 Y85.991074 Z-0.125000
G01 X162.901700 Y82.722014 Z-0.125000
G00 Z3.000000

(End cutting path id: path11424)


(Start cutting path id: path11296)
(Change tool to Default tool)

G00 Z3.000000
G00 X15.884566 Y149.305916

G00 Z4.875000 (Fast pre-penetrate)
G01 Z-0.125000 F400.0(Penetrate)
G01 X32.730086 Y153.627035 Z-0.125000 F800.000000
G01 X56.674972 Y150.848789 Z-0.125000
G01 X79.066740 Y149.623661 Z-0.125000
G01 X95.862154 Y153.994887 Z-0.125000
G01 X116.491161 Y154.532520 Z-0.125000
G01 X141.181425 Y151.008896 Z-0.125000
G01 X155.940492 Y157.416469 Z-0.125000
G00 Z3.000000

(End cutting path id: path11296)


(Start cutting path id: path11294)
(Change tool to Default tool)

G00 Z3.000000
G00 X15.643266 Y150.605547

G00 Z4.875000 (Fast pre-penetrate)
G01 Z-0.125000 F400.0(Penetrate)
G01 X32.842143 Y154.573311 Z-0.125000 F800.000000
G01 X56.074821 Y152.507272 Z-0.125000
G01 X79.195454 Y150.553279 Z-0.125000
G01 X95.397261 Y155.518113 Z-0.125000
G01 X116.537437 Y155.544577 Z-0.125000
G01 X141.412710 Y151.835943 Z-0.125000
G01 X156.289956 Y158.125338 Z-0.125000
G00 Z3.000000

(End cutting path id: path11294)


(Start cutting path id: path11292)
(Change tool to Default tool)

G00 Z3.000000
G00 X15.401966 Y151.905179

G00 Z4.875000 (Fast pre-penetrate)
G01 Z-0.125000 F400.0(Penetrate)
G01 X32.954201 Y155.519584 Z-0.125000 F800.000000
G01 X55.474670 Y154.165755 Z-0.125000
G01 X79.324169 Y151.482897 Z-0.125000
G01 X94.932364 Y157.041341 Z-0.125000
G01 X116.583715 Y156.556630 Z-0.125000
G01 X141.643998 Y152.662987 Z-0.125000
G01 X156.639420 Y158.834206 Z-0.125000
G00 Z3.000000

(End cutting path id: path11292)


(Start cutting path id: path11290)
(Change tool to Default tool)

G00 Z3.000000
G00 X15.160667 Y153.204811

G00 Z4.875000 (Fast pre-penetrate)
G01 Z-0.125000 F400.0(Penetrate)
G01 X33.066258 Y156.465860 Z-0.125000 F800.000000
G01 X54.874519 Y155.824238 Z-0.125000
G01 X79.452880 Y152.412517 Z-0.125000
G01 X94.467468 Y158.564569 Z-0.125000
G01 X116.629991 Y157.568687 Z-0.125000
G01 X141.875286 Y153.490031 Z-0.125000
G01 X156.988884 Y159.543074 Z-0.125000
G00 Z3.000000

(End cutting path id: path11290)


(Start cutting path id: path11288)
(Change tool to Default tool)

G00 Z3.000000
G00 X14.919367 Y154.504443

G00 Z4.875000 (Fast pre-penetrate)
G01 Z-0.125000 F400.0(Penetrate)
G01 X33.178317 Y157.412133 Z-0.125000 F800.000000
G01 X54.274368 Y157.482721 Z-0.125000
G01 X79.581595 Y153.342135 Z-0.125000
G01 X94.002575 Y160.087795 Z-0.125000
G01 X116.676269 Y158.580741 Z-0.125000
G01 X142.106574 Y154.317075 Z-0.125000
G01 X157.338345 Y160.251945 Z-0.125000
G00 Z3.000000

(End cutting path id: path11288)


(Start cutting path id: path11286)
(Change tool to Default tool)

G00 Z3.000000
G00 X14.678067 Y155.804074

G00 Z4.875000 (Fast pre-penetrate)
G01 Z-0.125000 F400.0(Penetrate)
G01 X33.290373 Y158.358409 Z-0.125000 F800.000000
G01 X53.674217 Y159.141204 Z-0.125000
G01 X79.710309 Y154.271752 Z-0.125000
G01 X93.537679 Y161.611023 Z-0.125000
G01 X116.722545 Y159.592797 Z-0.125000
G01 X142.337862 Y155.144120 Z-0.125000
G01 X157.687809 Y160.960813 Z-0.125000
G00 Z3.000000

(End cutting path id: path11286)


(Start cutting path id: path11284)
(Change tool to Default tool)

G00 Z3.000000
G00 X14.436768 Y157.103706

G00 Z4.875000 (Fast pre-penetrate)
G01 Z-0.125000 F400.0(Penetrate)
G01 X33.402432 Y159.304682 Z-0.125000 F800.000000
G01 X53.074066 Y160.799687 Z-0.125000
G01 X79.839023 Y155.201370 Z-0.125000
G01 X93.072785 Y163.134248 Z-0.125000
G01 X116.768820 Y160.604853 Z-0.125000
G01 X142.569150 Y155.971164 Z-0.125000
G01 X158.037273 Y161.669681 Z-0.125000
G00 Z3.000000

(End cutting path id: path11284)


(Start cutting path id: path11282)
(Change tool to Default tool)

G00 Z3.000000
G00 X14.195468 Y158.403338

G00 Z4.875000 (Fast pre-penetrate)
G01 Z-0.125000 F400.0(Penetrate)
G01 X33.514488 Y160.250958 Z-0.125000 F800.000000
G01 X52.473916 Y162.458170 Z-0.125000
G01 X79.967738 Y156.130988 Z-0.125000
G01 X92.607889 Y164.657476 Z-0.125000
G01 X116.815098 Y161.616907 Z-0.125000
G01 X142.800438 Y156.798208 Z-0.125000
G01 X158.386736 Y162.378549 Z-0.125000
G00 Z3.000000

(End cutting path id: path11282)


(Start cutting path id: path11280)
(Change tool to Default tool)

G00 Z3.000000
G00 X13.954169 Y159.702969

G00 Z4.875000 (Fast pre-penetrate)
G01 Z-0.125000 F400.0(Penetrate)
G01 X33.626547 Y161.197231 Z-0.125000 F800.000000
G01 X51.873762 Y164.116656 Z-0.125000
G01 X80.096452 Y157.060605 Z-0.125000
G01 X92.142993 Y166.180705 Z-0.125000
G01 X116.861374 Y162.628964 Z-0.125000
G01 X143.031723 Y157.625255 Z-0.125000
G01 X158.736200 Y163.087417 Z-0.125000
G00 Z3.000000

(End cutting path id: path11280)


(Start cutting path id: path11278)
(Change tool to Default tool)

G00 Z3.000000
G00 X13.712870 Y161.002601

G00 Z4.875000 (Fast pre-penetrate)
G01 Z-0.125000 F400.0(Penetrate)
G01 X33.738603 Y162.143507 Z-0.125000 F800.000000
G01 X51.273611 Y165.775139 Z-0.125000
G01 X80.225166 Y157.990223 Z-0.125000
G01 X91.678099 Y167.703930 Z-0.125000
G01 X116.907649 Y163.641020 Z-0.125000
G01 X143.263011 Y158.452299 Z-0.125000
G01 X159.085662 Y163.796288 Z-0.125000
G00 Z3.000000

(End cutting path id: path11278)


(Start cutting path id: path11276)
(Change tool to Default tool)

G00 Z3.000000
G00 X13.471570 Y162.302233

G00 Z4.875000 (Fast pre-penetrate)
G01 Z-0.125000 F400.0(Penetrate)
G01 X33.850662 Y163.089780 Z-0.125000 F800.000000
G01 X50.673460 Y167.433622 Z-0.125000
G01 X80.353878 Y158.919843 Z-0.125000
G01 X91.213203 Y169.227158 Z-0.125000
G01 X116.953928 Y164.653074 Z-0.125000
G01 X143.494299 Y159.279343 Z-0.125000
G01 X159.435125 Y164.505156 Z-0.125000
G00 Z3.000000

(End cutting path id: path11276)


(Start cutting path id: path11274)
(Change tool to Default tool)

G00 Z3.000000
G00 X13.230271 Y163.601862

G00 Z4.875000 (Fast pre-penetrate)
G01 Z-0.125000 F400.0(Penetrate)
G01 X33.962718 Y164.036056 Z-0.125000 F800.000000
G01 X50.073309 Y169.092105 Z-0.125000
G01 X80.482593 Y159.849461 Z-0.125000
G01 X90.748307 Y170.750386 Z-0.125000
G01 X117.000203 Y165.665130 Z-0.125000
G01 X143.725587 Y160.106387 Z-0.125000
G01 X159.784589 Y165.214024 Z-0.125000
G00 Z3.000000

(End cutting path id: path11274)


(Start cutting path id: path11272)
(Change tool to Default tool)

G00 Z3.000000
G00 X12.988971 Y164.901493

G00 Z4.875000 (Fast pre-penetrate)
G01 Z-0.125000 F400.0(Penetrate)
G01 X34.074777 Y164.982329 Z-0.125000 F800.000000
G01 X49.473158 Y170.750588 Z-0.125000
G01 X80.611307 Y160.779079 Z-0.125000
G01 X90.283414 Y172.273612 Z-0.125000
G01 X117.046481 Y166.677184 Z-0.125000
G01 X143.956874 Y160.933431 Z-0.125000
G01 X160.134053 Y165.922892 Z-0.125000
G00 Z3.000000

(End cutting path id: path11272)


(Start cutting path id: path11270)
(Change tool to Default tool)

G00 Z3.000000
G00 X12.747672 Y166.201125

G00 Z4.875000 (Fast pre-penetrate)
G01 Z-0.125000 F400.0(Penetrate)
G01 X34.186833 Y165.928605 Z-0.125000 F800.000000
G01 X48.873007 Y172.409070 Z-0.125000
G01 X80.740021 Y161.708696 Z-0.125000
G01 X89.818517 Y173.796840 Z-0.125000
G01 X117.092757 Y167.689240 Z-0.125000
G01 X144.188162 Y161.760475 Z-0.125000
G01 X160.483514 Y166.631763 Z-0.125000
G00 Z3.000000

(End cutting path id: path11270)


(Start cutting path id: path11268)
(Change tool to Default tool)

G00 Z3.000000
G00 X12.506372 Y167.500757

G00 Z4.875000 (Fast pre-penetrate)
G01 Z-0.125000 F400.0(Penetrate)
G01 X34.298892 Y166.874878 Z-0.125000 F800.000000
G01 X48.272856 Y174.067553 Z-0.125000
G01 X80.868736 Y162.638314 Z-0.125000
G01 X89.353624 Y175.320066 Z-0.125000
G01 X117.139033 Y168.701297 Z-0.125000
G01 X144.419450 Y162.587519 Z-0.125000
G01 X160.832978 Y167.340631 Z-0.125000
G00 Z3.000000

(End cutting path id: path11268)


(Start cutting path id: path11266)
(Change tool to Default tool)

G00 Z3.000000
G00 X12.265073 Y168.800389

G00 Z4.875000 (Fast pre-penetrate)
G01 Z-0.125000 F400.0(Penetrate)
G01 X34.410948 Y167.821154 Z-0.125000 F800.000000
G01 X47.672705 Y175.726036 Z-0.125000
G01 X80.997450 Y163.567932 Z-0.125000
G01 X88.888728 Y176.843294 Z-0.125000
G01 X117.185311 Y169.713351 Z-0.125000
G01 X144.650735 Y163.414566 Z-0.125000
G01 X161.182442 Y168.049499 Z-0.125000
G00 Z3.000000

(End cutting path id: path11266)


(Start cutting path id: path11264)
(Change tool to Default tool)

G00 Z3.000000
G00 X12.023773 Y170.100020

G00 Z4.875000 (Fast pre-penetrate)
G01 Z-0.125000 F400.0(Penetrate)
G01 X34.523007 Y168.767427 Z-0.125000 F800.000000
G01 X47.072554 Y177.384519 Z-0.125000
G01 X81.126164 Y164.497549 Z-0.125000
G01 X88.423832 Y178.366522 Z-0.125000
G01 X117.231586 Y170.725407 Z-0.125000
G01 X144.882023 Y164.241610 Z-0.125000
G01 X161.531906 Y168.758367 Z-0.125000
G00 Z3.000000

(End cutting path id: path11264)


(Start cutting path id: path11262)
(Change tool to Default tool)

G00 Z3.000000
G00 X11.730861 Y171.451264

G00 Z4.875000 (Fast pre-penetrate)
G01 Z-0.125000 F400.0(Penetrate)
G01 X34.706781 Y169.641985 Z-0.125000 F800.000000
G01 X47.305030 Y178.210376 Z-0.125000
G01 X80.965972 Y165.716073 Z-0.125000
G01 X88.913120 Y178.935566 Z-0.125000
G01 X117.219204 Y171.796122 Z-0.125000
G01 X144.542463 Y165.639503 Z-0.125000
G01 X161.313525 Y170.035081 Z-0.125000
G00 Z3.000000

(End cutting path id: path11262)


(Start cutting path id: path11260)
(Change tool to Default tool)

G00 Z3.000000
G00 X11.437948 Y172.802508

G00 Z4.875000 (Fast pre-penetrate)
G01 Z-0.125000 F400.0(Penetrate)
G01 X34.890555 Y170.516543 Z-0.125000 F800.000000
G01 X47.537508 Y179.036229 Z-0.125000
G01 X80.805783 Y166.934594 Z-0.125000
G01 X89.402408 Y179.504610 Z-0.125000
G01 X117.206821 Y172.866836 Z-0.125000
G01 X144.202900 Y167.037398 Z-0.125000
G01 X161.095143 Y171.311795 Z-0.125000
G00 Z3.000000

(End cutting path id: path11260)


(Start cutting path id: path11258)
(Change tool to Default tool)

G00 Z3.000000
G00 X11.145036 Y174.153755

G00 Z4.875000 (Fast pre-penetrate)
G01 Z-0.125000 F400.0(Penetrate)
G01 X35.074329 Y171.391101 Z-0.125000 F800.000000
G01 X47.769984 Y179.862085 Z-0.125000
G01 X80.645594 Y168.153115 Z-0.125000
G01 X89.891693 Y180.073656 Z-0.125000
G01 X117.194439 Y173.937551 Z-0.125000
G01 X143.863339 Y168.435290 Z-0.125000
G01 X160.876761 Y172.588508 Z-0.125000
G00 Z3.000000

(End cutting path id: path11258)


(Start cutting path id: path11256)
(Change tool to Default tool)

G00 Z3.000000
G00 X10.852123 Y175.504998

G00 Z4.875000 (Fast pre-penetrate)
G01 Z-0.125000 F400.0(Penetrate)
G01 X35.258103 Y172.265659 Z-0.125000 F800.000000
G01 X48.002460 Y180.687941 Z-0.125000
G01 X80.485405 Y169.371636 Z-0.125000
G01 X90.380981 Y180.642700 Z-0.125000
G01 X117.182056 Y175.008265 Z-0.125000
G01 X143.523776 Y169.833186 Z-0.125000
G01 X160.658377 Y173.865224 Z-0.125000
G00 Z3.000000

(End cutting path id: path11256)


(Start cutting path id: path11254)
(Change tool to Default tool)

G00 Z3.000000
G00 X10.559211 Y176.856242

G00 Z4.875000 (Fast pre-penetrate)
G01 Z-0.125000 F400.0(Penetrate)
G01 X35.441877 Y173.140216 Z-0.125000 F800.000000
G01 X48.234939 Y181.513795 Z-0.125000
G01 X80.325216 Y170.590158 Z-0.125000
G01 X90.870269 Y181.211744 Z-0.125000
G01 X117.169674 Y176.078980 Z-0.125000
G01 X143.184215 Y171.231078 Z-0.125000
G01 X160.439996 Y175.141938 Z-0.125000
G00 Z3.000000

(End cutting path id: path11254)


(Start cutting path id: path11252)
(Change tool to Default tool)

G00 Z3.000000
G00 X10.266298 Y178.207486

G00 Z4.875000 (Fast pre-penetrate)
G01 Z-0.125000 F400.0(Penetrate)
G01 X35.625651 Y174.014774 Z-0.125000 F800.000000
G01 X48.467415 Y182.339651 Z-0.125000
G01 X80.165024 Y171.808681 Z-0.125000
G01 X91.359557 Y181.780788 Z-0.125000
G01 X117.157291 Y177.149694 Z-0.125000
G01 X142.844652 Y172.628973 Z-0.125000
G01 X160.221614 Y176.418651 Z-0.125000
G00 Z3.000000

(End cutting path id: path11252)


(Start cutting path id: path11250)
(Change tool to Default tool)

G00 Z3.000000
G00 X9.973386 Y179.558733

G00 Z4.875000 (Fast pre-penetrate)
G01 Z-0.125000 F400.0(Penetrate)
G01 X35.809425 Y174.889332 Z-0.125000 F800.000000
G01 X48.699890 Y183.165507 Z-0.125000
G01 X80.004835 Y173.027203 Z-0.125000
G01 X91.848843 Y182.349835 Z-0.125000
G01 X117.144912 Y178.220406 Z-0.125000
G01 X142.505092 Y174.026866 Z-0.125000
G01 X160.003233 Y177.695365 Z-0.125000
G00 Z3.000000

(End cutting path id: path11250)


(Start cutting path id: path11248)
(Change tool to Default tool)

G00 Z3.000000
G00 X9.680473 Y180.909977

G00 Z4.875000 (Fast pre-penetrate)
G01 Z-0.125000 F400.0(Penetrate)
G01 X35.993199 Y175.763890 Z-0.125000 F800.000000
G01 X48.932369 Y183.991361 Z-0.125000
G01 X79.844646 Y174.245724 Z-0.125000
G01 X92.338131 Y182.918879 Z-0.125000
G01 X117.132529 Y179.291120 Z-0.125000
G01 X142.165528 Y175.424761 Z-0.125000
G01 X159.784851 Y178.972078 Z-0.125000
G00 Z3.000000

(End cutting path id: path11248)


(Start cutting path id: path11246)
(Change tool to Default tool)

G00 Z3.000000
G00 X9.387561 Y182.261221

G00 Z4.875000 (Fast pre-penetrate)
G01 Z-0.125000 F400.0(Penetrate)
G01 X36.176973 Y176.638448 Z-0.125000 F800.000000
G01 X49.164845 Y184.817217 Z-0.125000
G01 X79.684457 Y175.464245 Z-0.125000
G01 X92.827419 Y183.487923 Z-0.125000
G01 X117.120147 Y180.361835 Z-0.125000
G01 X141.825965 Y176.822656 Z-0.125000
G01 X159.566470 Y180.248792 Z-0.125000
G00 Z3.000000

(End cutting path id: path11246)


(Start cutting path id: path11244)
(Change tool to Default tool)

G00 Z3.000000
G00 X9.094648 Y183.612465

G00 Z4.875000 (Fast pre-penetrate)
G01 Z-0.125000 F400.0(Penetrate)
G01 X36.360750 Y177.513004 Z-0.125000 F800.000000
G01 X49.397321 Y185.643073 Z-0.125000
G01 X79.524268 Y176.682766 Z-0.125000
G01 X93.316707 Y184.056967 Z-0.125000
G01 X117.107764 Y181.432549 Z-0.125000
G01 X141.486405 Y178.220549 Z-0.125000
G01 X159.348088 Y181.525505 Z-0.125000
G00 Z3.000000

(End cutting path id: path11244)


(Start cutting path id: path11242)
(Change tool to Default tool)

G00 Z3.000000
G00 X8.801735 Y184.963711

G00 Z4.875000 (Fast pre-penetrate)
G01 Z-0.125000 F400.0(Penetrate)
G01 X36.544524 Y178.387561 Z-0.125000 F800.000000
G01 X49.629796 Y186.468929 Z-0.125000
G01 X79.364076 Y177.901290 Z-0.125000
G01 X93.805992 Y184.626013 Z-0.125000
G01 X117.095382 Y182.503264 Z-0.125000
G01 X141.146842 Y179.618444 Z-0.125000
G01 X159.129707 Y182.802219 Z-0.125000
G00 Z3.000000

(End cutting path id: path11242)


(Start cutting path id: path11240)
(Change tool to Default tool)

G00 Z3.000000
G00 X8.508823 Y186.314955

G00 Z4.875000 (Fast pre-penetrate)
G01 Z-0.125000 F400.0(Penetrate)
G01 X36.728298 Y179.262119 Z-0.125000 F800.000000
G01 X49.862275 Y187.294783 Z-0.125000
G01 X79.203887 Y179.119811 Z-0.125000
G01 X94.295280 Y185.195057 Z-0.125000
G01 X117.082999 Y183.573978 Z-0.125000
G01 X140.807281 Y181.016336 Z-0.125000
G01 X158.911325 Y184.078932 Z-0.125000
G00 Z3.000000

(End cutting path id: path11240)


(Start cutting path id: path11238)
(Change tool to Default tool)

G00 Z3.000000
G00 X8.215911 Y187.666199

G00 Z4.875000 (Fast pre-penetrate)
G01 Z-0.125000 F400.0(Penetrate)
G01 X36.912072 Y180.136677 Z-0.125000 F800.000000
G01 X50.094751 Y188.120639 Z-0.125000
G01 X79.043698 Y180.338332 Z-0.125000
G01 X94.784568 Y185.764101 Z-0.125000
G01 X117.070617 Y184.644693 Z-0.125000
G01 X140.467718 Y182.414232 Z-0.125000
G01 X158.692944 Y185.355646 Z-0.125000
G00 Z3.000000

(End cutting path id: path11238)


(Start cutting path id: path11236)
(Change tool to Default tool)

G00 Z3.000000
G00 X7.922998 Y189.017443

G00 Z4.875000 (Fast pre-penetrate)
G01 Z-0.125000 F400.0(Penetrate)
G01 X37.095846 Y181.011235 Z-0.125000 F800.000000
G01 X50.327227 Y188.946495 Z-0.125000
G01 X78.883508 Y181.556853 Z-0.125000
G01 X95.273854 Y186.333148 Z-0.125000
G01 X117.058234 Y185.715407 Z-0.125000
G01 X140.128157 Y183.812124 Z-0.125000
G01 X158.474562 Y186.632359 Z-0.125000
G00 Z3.000000

(End cutting path id: path11236)


(Start cutting path id: path11184)
(Change tool to Default tool)

G00 Z3.000000
G00 X10.373623 Y214.083451

G00 Z4.875000 (Fast pre-penetrate)
G01 Z-0.125000 F400.0(Penetrate)
G01 X33.894376 Y211.729337 Z-0.125000 F800.000000
G01 X58.350804 Y208.439549 Z-0.125000
G01 X78.064582 Y209.892412 Z-0.125000
G01 X99.767717 Y209.355917 Z-0.125000
G01 X120.914558 Y209.375708 Z-0.125000
G01 X144.328526 Y207.128379 Z-0.125000
G01 X158.538978 Y214.084568 Z-0.125000
G00 Z3.000000

(End cutting path id: path11184)


(Start cutting path id: path11186)
(Change tool to Default tool)

G00 Z3.000000
G00 X10.163218 Y213.235524

G00 Z4.875000 (Fast pre-penetrate)
G01 Z-0.125000 F400.0(Penetrate)
G01 X34.109583 Y210.455799 Z-0.125000 F800.000000
G01 X58.019366 Y207.712655 Z-0.125000
G01 X78.057470 Y208.841192 Z-0.125000
G01 X99.689810 Y208.375491 Z-0.125000
G01 X120.718028 Y208.513913 Z-0.125000
G01 X144.016638 Y206.381943 Z-0.125000
G01 X158.470242 Y213.094980 Z-0.125000
G00 Z3.000000

(End cutting path id: path11186)


(Start cutting path id: path11188)
(Change tool to Default tool)

G00 Z3.000000
G00 X9.952813 Y212.387596

G00 Z4.875000 (Fast pre-penetrate)
G01 Z-0.125000 F400.0(Penetrate)
G01 X34.324786 Y209.182263 Z-0.125000 F800.000000
G01 X57.687931 Y206.985759 Z-0.125000
G01 X78.050360 Y207.789969 Z-0.125000
G01 X99.611904 Y207.395066 Z-0.125000
G01 X120.521496 Y207.652113 Z-0.125000
G01 X143.704751 Y205.635499 Z-0.125000
G01 X158.401508 Y212.105381 Z-0.125000
G00 Z3.000000

(End cutting path id: path11188)


(Start cutting path id: path11190)
(Change tool to Default tool)

G00 Z3.000000
G00 X9.742408 Y211.539669

G00 Z4.875000 (Fast pre-penetrate)
G01 Z-0.125000 F400.0(Penetrate)
G01 X34.539993 Y207.908725 Z-0.125000 F800.000000
G01 X57.356496 Y206.258862 Z-0.125000
G01 X78.043248 Y206.738749 Z-0.125000
G01 X99.533997 Y206.414640 Z-0.125000
G01 X120.324966 Y206.790311 Z-0.125000
G01 X143.392865 Y204.889052 Z-0.125000
G01 X158.332772 Y211.115785 Z-0.125000
G00 Z3.000000

(End cutting path id: path11190)


(Start cutting path id: path11192)
(Change tool to Default tool)

G00 Z3.000000
G00 X9.532003 Y210.691743

G00 Z4.875000 (Fast pre-penetrate)
G01 Z-0.125000 F400.0(Penetrate)
G01 X34.755199 Y206.635186 Z-0.125000 F800.000000
G01 X57.025061 Y205.531965 Z-0.125000
G01 X78.036139 Y205.687526 Z-0.125000
G01 X99.456088 Y205.434217 Z-0.125000
G01 X120.128434 Y205.928511 Z-0.125000
G01 X143.080978 Y204.142608 Z-0.125000
G01 X158.264036 Y210.126189 Z-0.125000
G00 Z3.000000

(End cutting path id: path11192)


(Start cutting path id: path11194)
(Change tool to Default tool)

G00 Z3.000000
G00 X9.321598 Y209.843816

G00 Z4.875000 (Fast pre-penetrate)
G01 Z-0.125000 F400.0(Penetrate)
G01 X34.970406 Y205.361648 Z-0.125000 F800.000000
G01 X56.693625 Y204.805068 Z-0.125000
G01 X78.029027 Y204.636306 Z-0.125000
G01 X99.378182 Y204.453792 Z-0.125000
G01 X119.931905 Y205.066709 Z-0.125000
G01 X142.769090 Y203.396164 Z-0.125000
G01 X158.195300 Y209.136593 Z-0.125000
G00 Z3.000000

(End cutting path id: path11194)


(Start cutting path id: path11196)
(Change tool to Default tool)

G00 Z3.000000
G00 X9.111193 Y208.995888

G00 Z4.875000 (Fast pre-penetrate)
G01 Z-0.125000 F400.0(Penetrate)
G01 X35.185610 Y204.088112 Z-0.125000 F800.000000
G01 X56.362188 Y204.078163 Z-0.125000
G01 X78.021918 Y203.585073 Z-0.125000
G01 X99.300275 Y203.473356 Z-0.125000
G01 X119.735372 Y204.204899 Z-0.125000
G01 X142.457202 Y202.649709 Z-0.125000
G01 X158.126567 Y208.146984 Z-0.125000
G00 Z3.000000

(End cutting path id: path11196)


(Start cutting path id: path11198)
(Change tool to Default tool)

G00 Z3.000000
G00 X8.900788 Y208.147961

G00 Z4.875000 (Fast pre-penetrate)
G01 Z-0.125000 F400.0(Penetrate)
G01 X35.400816 Y202.814573 Z-0.125000 F800.000000
G01 X56.030752 Y203.351277 Z-0.125000
G01 X78.014808 Y202.533861 Z-0.125000
G01 X99.222369 Y202.492941 Z-0.125000
G01 X119.538843 Y203.343107 Z-0.125000
G01 X142.145317 Y201.903273 Z-0.125000
G01 X158.057831 Y207.157399 Z-0.125000
G00 Z3.000000

(End cutting path id: path11198)


(Start cutting path id: path11200)
(Change tool to Default tool)

G00 Z3.000000
G00 X8.690383 Y207.300035

G00 Z4.875000 (Fast pre-penetrate)
G01 Z-0.125000 F400.0(Penetrate)
G01 X35.616023 Y201.541035 Z-0.125000 F800.000000
G01 X55.699317 Y202.624380 Z-0.125000
G01 X78.007696 Y201.482641 Z-0.125000
G01 X99.144462 Y201.512515 Z-0.125000
G01 X119.342310 Y202.481307 Z-0.125000
G01 X141.833429 Y201.156828 Z-0.125000
G01 X157.989095 Y206.167803 Z-0.125000
G00 Z3.000000

(End cutting path id: path11200)


(Start cutting path id: path11202)
(Change tool to Default tool)

G00 Z3.000000
G00 X8.479978 Y206.452108

G00 Z4.875000 (Fast pre-penetrate)
G01 Z-0.125000 F400.0(Penetrate)
G01 X35.831227 Y200.267499 Z-0.125000 F800.000000
G01 X55.367882 Y201.897483 Z-0.125000
G01 X78.000587 Y200.431418 Z-0.125000
G01 X99.066556 Y200.532090 Z-0.125000
G01 X119.145781 Y201.619505 Z-0.125000
G01 X141.521541 Y200.410384 Z-0.125000
G01 X157.920359 Y205.178207 Z-0.125000
G00 Z3.000000

(End cutting path id: path11202)


(Start cutting path id: path11204)
(Change tool to Default tool)

G00 Z3.000000
G00 X8.269573 Y205.604180

G00 Z4.875000 (Fast pre-penetrate)
G01 Z-0.125000 F400.0(Penetrate)
G01 X36.046433 Y198.993960 Z-0.125000 F800.000000
G01 X55.036444 Y201.170589 Z-0.125000
G01 X77.993475 Y199.380198 Z-0.125000
G01 X98.988647 Y199.551667 Z-0.125000
G01 X118.949249 Y200.757705 Z-0.125000
G01 X141.209656 Y199.663937 Z-0.125000
G01 X157.851625 Y204.188608 Z-0.125000
G00 Z3.000000

(End cutting path id: path11204)


(Start cutting path id: path11206)
(Change tool to Default tool)

G00 Z3.000000
G00 X8.059168 Y204.756253

G00 Z4.875000 (Fast pre-penetrate)
G01 Z-0.125000 F400.0(Penetrate)
G01 X36.261640 Y197.720422 Z-0.125000 F800.000000
G01 X54.705009 Y200.443692 Z-0.125000
G01 X77.986366 Y198.328976 Z-0.125000
G01 X98.910740 Y198.571241 Z-0.125000
G01 X118.752719 Y199.895902 Z-0.125000
G01 X140.897768 Y198.917493 Z-0.125000
G01 X157.782889 Y203.199012 Z-0.125000
G00 Z3.000000

(End cutting path id: path11206)


(Start cutting path id: path11208)
(Change tool to Default tool)

G00 Z3.000000
G00 X7.848763 Y203.908328

G00 Z4.875000 (Fast pre-penetrate)
G01 Z-0.125000 F400.0(Penetrate)
G01 X36.476846 Y196.446883 Z-0.125000 F800.000000
G01 X54.373574 Y199.716796 Z-0.125000
G01 X77.979254 Y197.277756 Z-0.125000
G01 X98.832834 Y197.590816 Z-0.125000
G01 X118.556187 Y199.034103 Z-0.125000
G01 X140.585881 Y198.171049 Z-0.125000
G01 X157.714153 Y202.209416 Z-0.125000
G00 Z3.000000

(End cutting path id: path11208)


(Start cutting path id: path11210)
(Change tool to Default tool)

G00 Z3.000000
G00 X7.638358 Y203.060400

G00 Z4.875000 (Fast pre-penetrate)
G01 Z-0.125000 F400.0(Penetrate)
G01 X36.692050 Y195.173347 Z-0.125000 F800.000000
G01 X54.042139 Y198.989899 Z-0.125000
G01 X77.972144 Y196.226533 Z-0.125000
G01 X98.754927 Y196.610390 Z-0.125000
G01 X118.359657 Y198.172300 Z-0.125000
G01 X140.273995 Y197.424602 Z-0.125000
G01 X157.645417 Y201.219820 Z-0.125000
G00 Z3.000000

(End cutting path id: path11210)


(Start cutting path id: path11212)
(Change tool to Default tool)

G00 Z3.000000
G00 X7.427953 Y202.212472

G00 Z4.875000 (Fast pre-penetrate)
G01 Z-0.125000 F400.0(Penetrate)
G01 X36.907257 Y193.899809 Z-0.125000 F800.000000
G01 X53.710701 Y198.263005 Z-0.125000
G01 X77.965032 Y195.175313 Z-0.125000
G01 X98.677021 Y195.629965 Z-0.125000
G01 X118.163125 Y197.310501 Z-0.125000
G01 X139.962108 Y196.678158 Z-0.125000
G01 X157.576684 Y200.230222 Z-0.125000
G00 Z3.000000

(End cutting path id: path11212)


(Start cutting path id: path11234)
(Change tool to Default tool)

G00 Z3.000000
G00 X7.630085 Y190.368689

G00 Z4.875000 (Fast pre-penetrate)
G01 Z-0.125000 F400.0(Penetrate)
G01 X37.279620 Y181.885793 Z-0.125000 F800.000000
G01 X50.559705 Y189.772348 Z-0.125000
G01 X78.723319 Y182.775374 Z-0.125000
G01 X95.763142 Y186.902192 Z-0.125000
G01 X117.045852 Y186.786122 Z-0.125000
G01 X139.788594 Y185.210019 Z-0.125000
G01 X158.256178 Y187.909076 Z-0.125000
G00 Z3.000000

(End cutting path id: path11234)


(Start cutting path id: path11232)
(Change tool to Default tool)

G00 Z3.000000
G00 X7.337173 Y191.719933

G00 Z4.875000 (Fast pre-penetrate)
G01 Z-0.125000 F400.0(Penetrate)
G01 X37.463394 Y182.760351 Z-0.125000 F800.000000
G01 X50.792181 Y190.598205 Z-0.125000
G01 X78.563128 Y183.993898 Z-0.125000
G01 X96.252430 Y187.471236 Z-0.125000
G01 X117.033469 Y187.856836 Z-0.125000
G01 X139.449034 Y186.607912 Z-0.125000
G01 X158.037796 Y189.185789 Z-0.125000
G00 Z3.000000

(End cutting path id: path11232)


(Start cutting path id: path11230)
(Change tool to Default tool)

G00 Z3.000000
G00 X7.044260 Y193.071177

G00 Z4.875000 (Fast pre-penetrate)
G01 Z-0.125000 F400.0(Penetrate)
G01 X37.647168 Y183.634909 Z-0.125000 F800.000000
G01 X51.024657 Y191.424061 Z-0.125000
G01 X78.402938 Y185.212419 Z-0.125000
G01 X96.741718 Y188.040280 Z-0.125000
G01 X117.021087 Y188.927551 Z-0.125000
G01 X139.109470 Y188.005807 Z-0.125000
G01 X157.819415 Y190.462503 Z-0.125000
G00 Z3.000000

(End cutting path id: path11230)


(Start cutting path id: path11214)
(Change tool to Default tool)

G00 Z3.000000
G00 X7.217548 Y201.364545

G00 Z4.875000 (Fast pre-penetrate)
G01 Z-0.125000 F400.0(Penetrate)
G01 X37.122463 Y192.626270 Z-0.125000 F800.000000
G01 X53.379266 Y197.536108 Z-0.125000
G01 X77.957923 Y194.124090 Z-0.125000
G01 X98.599114 Y194.649539 Z-0.125000
G01 X117.966595 Y196.448698 Z-0.125000
G01 X139.650220 Y195.931714 Z-0.125000
G01 X157.507948 Y199.240626 Z-0.125000
G00 Z3.000000

(End cutting path id: path11214)


(Start cutting path id: path11216)
(Change tool to Default tool)

G00 Z3.000000
G00 X7.007143 Y200.516620

G00 Z4.875000 (Fast pre-penetrate)
G01 Z-0.125000 F400.0(Penetrate)
G01 X37.337667 Y191.352734 Z-0.125000 F800.000000
G01 X53.047830 Y196.809211 Z-0.125000
G01 X77.950811 Y193.072870 Z-0.125000
G01 X98.521205 Y193.669116 Z-0.125000
G01 X117.770063 Y195.586898 Z-0.125000
G01 X139.338332 Y195.185269 Z-0.125000
G01 X157.439212 Y198.251030 Z-0.125000
G00 Z3.000000

(End cutting path id: path11216)


(Start cutting path id: path11218)
(Change tool to Default tool)

G00 Z3.000000
G00 X6.796738 Y199.668692

G00 Z4.875000 (Fast pre-penetrate)
G01 Z-0.125000 F400.0(Penetrate)
G01 X37.552874 Y190.079196 Z-0.125000 F800.000000
G01 X52.716395 Y196.082314 Z-0.125000
G01 X77.943702 Y192.021648 Z-0.125000
G01 X98.443299 Y192.688691 Z-0.125000
G01 X117.573533 Y194.725096 Z-0.125000
G01 X139.026447 Y194.438823 Z-0.125000
G01 X157.370476 Y197.261434 Z-0.125000
G00 Z3.000000

(End cutting path id: path11218)


(Start cutting path id: path11228)
(Change tool to Default tool)

G00 Z3.000000
G00 X6.751348 Y194.422421

G00 Z4.875000 (Fast pre-penetrate)
G01 Z-0.125000 F400.0(Penetrate)
G01 X37.830942 Y184.509467 Z-0.125000 F800.000000
G01 X51.257135 Y192.249914 Z-0.125000
G01 X78.242749 Y186.430940 Z-0.125000
G01 X97.231003 Y188.609326 Z-0.125000
G01 X117.008704 Y189.998265 Z-0.125000
G01 X138.769910 Y189.403700 Z-0.125000
G01 X157.601033 Y191.739216 Z-0.125000
G00 Z3.000000

(End cutting path id: path11228)


(Start cutting path id: path11220)
(Change tool to Default tool)

G00 Z3.000000
G00 X6.586333 Y198.820764

G00 Z4.875000 (Fast pre-penetrate)
G01 Z-0.125000 F400.0(Penetrate)
G01 X37.768080 Y188.805657 Z-0.125000 F800.000000
G01 X52.384960 Y195.355417 Z-0.125000
G01 X77.936592 Y190.970425 Z-0.125000
G01 X98.365392 Y191.708265 Z-0.125000
G01 X117.377001 Y193.863296 Z-0.125000
G01 X138.714559 Y193.692378 Z-0.125000
G01 X157.301742 Y196.271835 Z-0.125000
G00 Z3.000000

(End cutting path id: path11220)


(Start cutting path id: path11226)
(Change tool to Default tool)

G00 Z3.000000
G00 X6.458435 Y195.773665

G00 Z4.875000 (Fast pre-penetrate)
G01 Z-0.125000 F400.0(Penetrate)
G01 X38.014716 Y185.384025 Z-0.125000 F800.000000
G01 X51.489611 Y193.075770 Z-0.125000
G01 X78.082560 Y187.649461 Z-0.125000
G01 X97.720291 Y189.178370 Z-0.125000
G01 X116.996322 Y191.068980 Z-0.125000
G01 X138.430347 Y190.801595 Z-0.125000
G01 X157.382652 Y193.015930 Z-0.125000
G00 Z3.000000

(End cutting path id: path11226)


(Start cutting path id: path11222)
(Change tool to Default tool)

G00 Z3.000000
G00 X6.375928 Y197.972837

G00 Z4.875000 (Fast pre-penetrate)
G01 Z-0.125000 F400.0(Penetrate)
G01 X37.983287 Y187.532119 Z-0.125000 F800.000000
G01 X52.053522 Y194.628523 Z-0.125000
G01 X77.929480 Y189.919205 Z-0.125000
G01 X98.287486 Y190.727840 Z-0.125000
G01 X117.180472 Y193.001494 Z-0.125000
G01 X138.402671 Y192.945934 Z-0.125000
G01 X157.233006 Y195.282239 Z-0.125000
G00 Z3.000000

(End cutting path id: path11222)


(Start cutting path id: path11224)
(Change tool to Default tool)

G00 Z3.000000
G00 X6.165523 Y197.124912

G00 Z4.875000 (Fast pre-penetrate)
G01 Z-0.125000 F400.0(Penetrate)
G01 X38.198491 Y186.258583 Z-0.125000 F800.000000
G01 X51.722087 Y193.901626 Z-0.125000
G01 X77.922371 Y188.867983 Z-0.125000
G01 X98.209579 Y189.747414 Z-0.125000
G01 X116.983939 Y192.139694 Z-0.125000
G01 X138.090786 Y192.199487 Z-0.125000
G01 X157.164270 Y194.292643 Z-0.125000
G00 Z3.000000

(End cutting path id: path11224)



(Footer)
M5
G00 X0.0000 Y0.0000
M2
(Using default footer. To add your own footer create file "footer" in the output dir.)
(end)
%