%
(Header)
(Generated by gcodetools from Inkscape.)
(Using default header. To add your own header create file "header" in the output dir.)
M3
(Header end.)
G21 (All units in mm)

(Start cutting path id: line10790)
(Change tool to Default tool)

G00 Z5.000000
G00 X200.095423 Y143.784624

G00 Z4.875000 (Fast pre-penetrate)
G01 Z-0.125000 F400.0(Penetrate)
G01 X200.095423 Y143.784624 Z-0.125000 F800.000000
G00 Z5.000000

(End cutting path id: line10790)


(Start cutting path id: line10528)
(Change tool to Default tool)

G00 Z5.000000
G00 X198.401853 Y146.104124

G00 Z4.875000 (Fast pre-penetrate)
G01 Z-0.125000 F400.0(Penetrate)
G01 X198.401853 Y146.104124 Z-0.125000 F800.000000
G00 Z5.000000

(End cutting path id: line10528)


(Start cutting path id: line10530)
(Change tool to Default tool)

G00 Z5.000000
G00 X196.652473 Y148.339154

G00 Z4.875000 (Fast pre-penetrate)
G01 Z-0.125000 F400.0(Penetrate)
G01 X196.652473 Y148.339154 Z-0.125000 F800.000000
G00 Z5.000000

(End cutting path id: line10530)


(Start cutting path id: line10532)
(Change tool to Default tool)

G00 Z5.000000
G00 X194.850313 Y150.488384

G00 Z4.875000 (Fast pre-penetrate)
G01 Z-0.125000 F400.0(Penetrate)
G01 X194.850313 Y150.488384 Z-0.125000 F800.000000
G00 Z5.000000

(End cutting path id: line10532)


(Start cutting path id: line10534)
(Change tool to Default tool)

G00 Z5.000000
G00 X192.998553 Y152.550584

G00 Z4.875000 (Fast pre-penetrate)
G01 Z-0.125000 F400.0(Penetrate)
G01 X192.998553 Y152.550584 Z-0.125000 F800.000000
G00 Z5.000000

(End cutting path id: line10534)


(Start cutting path id: line10536)
(Change tool to Default tool)

G00 Z5.000000
G00 X191.100403 Y154.524634

G00 Z4.875000 (Fast pre-penetrate)
G01 Z-0.125000 F400.0(Penetrate)
G01 X191.100403 Y154.524634 Z-0.125000 F800.000000
G00 Z5.000000

(End cutting path id: line10536)


(Start cutting path id: line10538)
(Change tool to Default tool)

G00 Z5.000000
G00 X189.159133 Y156.409534

G00 Z4.875000 (Fast pre-penetrate)
G01 Z-0.125000 F400.0(Penetrate)
G01 X189.159133 Y156.409534 Z-0.125000 F800.000000
G00 Z5.000000

(End cutting path id: line10538)


(Start cutting path id: line8416)
(Change tool to Default tool)

G00 Z5.000000
G00 X187.177813 Y158.204424

G00 Z4.875000 (Fast pre-penetrate)
G01 Z-0.125000 F400.0(Penetrate)
G01 X187.177813 Y158.204424 Z-0.125000 F800.000000
G00 Z5.000000

(End cutting path id: line8416)


(Start cutting path id: line8418)
(Change tool to Default tool)

G00 Z5.000000
G00 X185.477913 Y157.945664

G00 Z4.875000 (Fast pre-penetrate)
G01 Z-0.125000 F400.0(Penetrate)
G01 X185.477913 Y157.945664 Z-0.125000 F800.000000
G00 Z5.000000

(End cutting path id: line8418)


(Start cutting path id: line8420)
(Change tool to Default tool)

G00 Z5.000000
G00 X184.007553 Y156.031184

G00 Z4.875000 (Fast pre-penetrate)
G01 Z-0.125000 F400.0(Penetrate)
G01 X184.007553 Y156.031184 Z-0.125000 F800.000000
G00 Z5.000000

(End cutting path id: line8420)


(Start cutting path id: line8402)
(Change tool to Default tool)

G00 Z5.000000
G00 X182.492703 Y154.184424

G00 Z4.875000 (Fast pre-penetrate)
G01 Z-0.125000 F400.0(Penetrate)
G01 X182.492703 Y154.184424 Z-0.125000 F800.000000
G00 Z5.000000

(End cutting path id: line8402)


(Start cutting path id: line8400)
(Change tool to Default tool)

G00 Z5.000000
G00 X180.935553 Y152.406494

G00 Z4.875000 (Fast pre-penetrate)
G01 Z-0.125000 F400.0(Penetrate)
G01 X180.935553 Y152.406494 Z-0.125000 F800.000000
G00 Z5.000000

(End cutting path id: line8400)


(Start cutting path id: line8398)
(Change tool to Default tool)

G00 Z5.000000
G00 X179.338393 Y150.698334

G00 Z4.875000 (Fast pre-penetrate)
G01 Z-0.125000 F400.0(Penetrate)
G01 X179.338393 Y150.698334 Z-0.125000 F800.000000
G00 Z5.000000

(End cutting path id: line8398)


(Start cutting path id: line8396)
(Change tool to Default tool)

G00 Z5.000000
G00 X177.703473 Y149.060784

G00 Z4.875000 (Fast pre-penetrate)
G01 Z-0.125000 F400.0(Penetrate)
G01 X177.703473 Y149.060784 Z-0.125000 F800.000000
G00 Z5.000000

(End cutting path id: line8396)


(Start cutting path id: line8232)
(Change tool to Default tool)

G00 Z5.000000
G00 X176.033083 Y147.494694

G00 Z4.875000 (Fast pre-penetrate)
G01 Z-0.125000 F400.0(Penetrate)
G01 X176.033083 Y147.494694 Z-0.125000 F800.000000
G00 Z5.000000

(End cutting path id: line8232)


(Start cutting path id: line3588)
(Change tool to Default tool)

G00 Z5.000000
G00 X174.320863 Y146.000754

G00 Z4.875000 (Fast pre-penetrate)
G01 Z-0.125000 F400.0(Penetrate)
G01 X174.320863 Y146.000754 Z-0.125000 F800.000000
G00 Z5.000000

(End cutting path id: line3588)


(Start cutting path id: line3590)
(Change tool to Default tool)

G00 Z5.000000
G00 X172.598303 Y144.751134

G00 Z4.875000 (Fast pre-penetrate)
G01 Z-0.125000 F400.0(Penetrate)
G01 X172.598303 Y144.751134 Z-0.125000 F800.000000
G00 Z5.000000

(End cutting path id: line3590)


(Start cutting path id: line3592)
(Change tool to Default tool)

G00 Z5.000000
G00 X170.890273 Y145.832284

G00 Z4.875000 (Fast pre-penetrate)
G01 Z-0.125000 F400.0(Penetrate)
G01 X170.890273 Y145.832284 Z-0.125000 F800.000000
G00 Z5.000000

(End cutting path id: line3592)


(Start cutting path id: line3594)
(Change tool to Default tool)

G00 Z5.000000
G00 X169.165273 Y146.858264

G00 Z4.875000 (Fast pre-penetrate)
G01 Z-0.125000 F400.0(Penetrate)
G01 X169.165273 Y146.858264 Z-0.125000 F800.000000
G00 Z5.000000

(End cutting path id: line3594)


(Start cutting path id: line3596)
(Change tool to Default tool)

G00 Z5.000000
G00 X167.424573 Y147.828784

G00 Z4.875000 (Fast pre-penetrate)
G01 Z-0.125000 F400.0(Penetrate)
G01 X167.424573 Y147.828784 Z-0.125000 F800.000000
G00 Z5.000000

(End cutting path id: line3596)


(Start cutting path id: line3598)
(Change tool to Default tool)

G00 Z5.000000
G00 X165.669553 Y148.743694

G00 Z4.875000 (Fast pre-penetrate)
G01 Z-0.125000 F400.0(Penetrate)
G01 X165.669553 Y148.743694 Z-0.125000 F800.000000
G00 Z5.000000

(End cutting path id: line3598)


(Start cutting path id: line3600)
(Change tool to Default tool)

G00 Z5.000000
G00 X163.901563 Y149.602654

G00 Z4.875000 (Fast pre-penetrate)
G01 Z-0.125000 F400.0(Penetrate)
G01 X163.901563 Y149.602654 Z-0.125000 F800.000000
G00 Z5.000000

(End cutting path id: line3600)


(Start cutting path id: line3602)
(Change tool to Default tool)

G00 Z5.000000
G00 X162.121913 Y150.405624

G00 Z4.875000 (Fast pre-penetrate)
G01 Z-0.125000 F400.0(Penetrate)
G01 X162.121913 Y150.405624 Z-0.125000 F800.000000
G00 Z5.000000

(End cutting path id: line3602)


(Start cutting path id: line3604)
(Change tool to Default tool)

G00 Z5.000000
G00 X160.331993 Y151.152394

G00 Z4.875000 (Fast pre-penetrate)
G01 Z-0.125000 F400.0(Penetrate)
G01 X160.331993 Y151.152394 Z-0.125000 F800.000000
G00 Z5.000000

(End cutting path id: line3604)


(Start cutting path id: line3562)
(Change tool to Default tool)

G00 Z5.000000
G00 X158.729463 Y149.645554

G00 Z4.875000 (Fast pre-penetrate)
G01 Z-0.125000 F400.0(Penetrate)
G01 X158.729463 Y149.645554 Z-0.125000 F800.000000
G00 Z5.000000

(End cutting path id: line3562)


(Start cutting path id: line3560)
(Change tool to Default tool)

G00 Z5.000000
G00 X156.931383 Y150.576454

G00 Z4.875000 (Fast pre-penetrate)
G01 Z-0.125000 F400.0(Penetrate)
G01 X156.931383 Y150.576454 Z-0.125000 F800.000000
G00 Z5.000000

(End cutting path id: line3560)


(Start cutting path id: line3558)
(Change tool to Default tool)

G00 Z5.000000
G00 X155.118173 Y151.435674

G00 Z4.875000 (Fast pre-penetrate)
G01 Z-0.125000 F400.0(Penetrate)
G01 X155.118173 Y151.435674 Z-0.125000 F800.000000
G00 Z5.000000

(End cutting path id: line3558)


(Start cutting path id: line3556)
(Change tool to Default tool)

G00 Z5.000000
G00 X153.292043 Y152.222964

G00 Z4.875000 (Fast pre-penetrate)
G01 Z-0.125000 F400.0(Penetrate)
G01 X153.292043 Y152.222964 Z-0.125000 F800.000000
G00 Z5.000000

(End cutting path id: line3556)


(Start cutting path id: line3554)
(Change tool to Default tool)

G00 Z5.000000
G00 X151.455083 Y152.938014

G00 Z4.875000 (Fast pre-penetrate)
G01 Z-0.125000 F400.0(Penetrate)
G01 X151.455083 Y152.938014 Z-0.125000 F800.000000
G00 Z5.000000

(End cutting path id: line3554)


(Start cutting path id: line3552)
(Change tool to Default tool)

G00 Z5.000000
G00 X149.609473 Y153.580894

G00 Z4.875000 (Fast pre-penetrate)
G01 Z-0.125000 F400.0(Penetrate)
G01 X149.609473 Y153.580894 Z-0.125000 F800.000000
G00 Z5.000000

(End cutting path id: line3552)


(Start cutting path id: line3550)
(Change tool to Default tool)

G00 Z5.000000
G00 X147.757493 Y154.151544

G00 Z4.875000 (Fast pre-penetrate)
G01 Z-0.125000 F400.0(Penetrate)
G01 X147.757493 Y154.151544 Z-0.125000 F800.000000
G00 Z5.000000

(End cutting path id: line3550)


(Start cutting path id: line3548)
(Change tool to Default tool)

G00 Z5.000000
G00 X145.901243 Y154.649884

G00 Z4.875000 (Fast pre-penetrate)
G01 Z-0.125000 F400.0(Penetrate)
G01 X145.901243 Y154.649884 Z-0.125000 F800.000000
G00 Z5.000000

(End cutting path id: line3548)


(Start cutting path id: line3546)
(Change tool to Default tool)

G00 Z5.000000
G00 X144.172053 Y154.509854

G00 Z4.875000 (Fast pre-penetrate)
G01 Z-0.125000 F400.0(Penetrate)
G01 X144.172053 Y154.509854 Z-0.125000 F800.000000
G00 Z5.000000

(End cutting path id: line3546)


(Start cutting path id: line3544)
(Change tool to Default tool)

G00 Z5.000000
G00 X142.704453 Y153.112264

G00 Z4.875000 (Fast pre-penetrate)
G01 Z-0.125000 F400.0(Penetrate)
G01 X142.704453 Y153.112264 Z-0.125000 F800.000000
G00 Z5.000000

(End cutting path id: line3544)


(Start cutting path id: line3542)
(Change tool to Default tool)

G00 Z5.000000
G00 X141.190273 Y151.802944

G00 Z4.875000 (Fast pre-penetrate)
G01 Z-0.125000 F400.0(Penetrate)
G01 X141.190273 Y151.802944 Z-0.125000 F800.000000
G00 Z5.000000

(End cutting path id: line3542)


(Start cutting path id: line3540)
(Change tool to Default tool)

G00 Z5.000000
G00 X139.633383 Y150.583234

G00 Z4.875000 (Fast pre-penetrate)
G01 Z-0.125000 F400.0(Penetrate)
G01 X139.633383 Y150.583234 Z-0.125000 F800.000000
G00 Z5.000000

(End cutting path id: line3540)


(Start cutting path id: line3538)
(Change tool to Default tool)

G00 Z5.000000
G00 X137.779273 Y151.352314

G00 Z4.875000 (Fast pre-penetrate)
G01 Z-0.125000 F400.0(Penetrate)
G01 X137.779273 Y151.352314 Z-0.125000 F800.000000
G00 Z5.000000

(End cutting path id: line3538)


(Start cutting path id: line3536)
(Change tool to Default tool)

G00 Z5.000000
G00 X135.879563 Y152.171864

G00 Z4.875000 (Fast pre-penetrate)
G01 Z-0.125000 F400.0(Penetrate)
G01 X135.879563 Y152.171864 Z-0.125000 F800.000000
G00 Z5.000000

(End cutting path id: line3536)


(Start cutting path id: line3534)
(Change tool to Default tool)

G00 Z5.000000
G00 X133.964993 Y152.861364

G00 Z4.875000 (Fast pre-penetrate)
G01 Z-0.125000 F400.0(Penetrate)
G01 X133.964993 Y152.861364 Z-0.125000 F800.000000
G00 Z5.000000

(End cutting path id: line3534)


(Start cutting path id: line3532)
(Change tool to Default tool)

G00 Z5.000000
G00 X132.042403 Y153.420894

G00 Z4.875000 (Fast pre-penetrate)
G01 Z-0.125000 F400.0(Penetrate)
G01 X132.042403 Y153.420894 Z-0.125000 F800.000000
G00 Z5.000000

(End cutting path id: line3532)


(Start cutting path id: line3530)
(Change tool to Default tool)

G00 Z5.000000
G00 X130.220593 Y153.524754

G00 Z4.875000 (Fast pre-penetrate)
G01 Z-0.125000 F400.0(Penetrate)
G01 X130.220593 Y153.524754 Z-0.125000 F800.000000
G00 Z5.000000

(End cutting path id: line3530)


(Start cutting path id: line3856)
(Change tool to Default tool)

G00 Z5.000000
G00 X128.143293 Y154.309974

G00 Z4.875000 (Fast pre-penetrate)
G01 Z-0.125000 F400.0(Penetrate)
G01 X128.143293 Y154.309974 Z-0.125000 F800.000000
G00 Z5.000000

(End cutting path id: line3856)


(Start cutting path id: line3854)
(Change tool to Default tool)

G00 Z5.000000
G00 X126.061023 Y154.886724

G00 Z4.875000 (Fast pre-penetrate)
G01 Z-0.125000 F400.0(Penetrate)
G01 X126.061023 Y154.886724 Z-0.125000 F800.000000
G00 Z5.000000

(End cutting path id: line3854)


(Start cutting path id: line3852)
(Change tool to Default tool)

G00 Z5.000000
G00 X123.990623 Y155.257214

G00 Z4.875000 (Fast pre-penetrate)
G01 Z-0.125000 F400.0(Penetrate)
G01 X123.990623 Y155.257214 Z-0.125000 F800.000000
G00 Z5.000000

(End cutting path id: line3852)


(Start cutting path id: line3846)
(Change tool to Default tool)

G00 Z5.000000
G00 X121.882373 Y155.539104

G00 Z4.875000 (Fast pre-penetrate)
G01 Z-0.125000 F400.0(Penetrate)
G01 X121.882373 Y155.539104 Z-0.125000 F800.000000
G00 Z5.000000

(End cutting path id: line3846)


(Start cutting path id: line3848)
(Change tool to Default tool)

G00 Z5.000000
G00 X122.791393 Y157.334374

G00 Z4.875000 (Fast pre-penetrate)
G01 Z-0.125000 F400.0(Penetrate)
G01 X122.791393 Y157.334374 Z-0.125000 F800.000000
G00 Z5.000000

(End cutting path id: line3848)


(Start cutting path id: line3850)
(Change tool to Default tool)

G00 Z5.000000
G00 X124.890763 Y157.206744

G00 Z4.875000 (Fast pre-penetrate)
G01 Z-0.125000 F400.0(Penetrate)
G01 X124.890763 Y157.206744 Z-0.125000 F800.000000
G00 Z5.000000

(End cutting path id: line3850)


(Start cutting path id: line3858)
(Change tool to Default tool)

G00 Z5.000000
G00 X127.025903 Y156.875594

G00 Z4.875000 (Fast pre-penetrate)
G01 Z-0.125000 F400.0(Penetrate)
G01 X127.025903 Y156.875594 Z-0.125000 F800.000000
G00 Z5.000000

(End cutting path id: line3858)


(Start cutting path id: line3640)
(Change tool to Default tool)

G00 Z5.000000
G00 X129.180373 Y156.336834

G00 Z4.875000 (Fast pre-penetrate)
G01 Z-0.125000 F400.0(Penetrate)
G01 X129.180373 Y156.336834 Z-0.125000 F800.000000
G00 Z5.000000

(End cutting path id: line3640)


(Start cutting path id: line3642)
(Change tool to Default tool)

G00 Z5.000000
G00 X130.260543 Y158.094694

G00 Z4.875000 (Fast pre-penetrate)
G01 Z-0.125000 F400.0(Penetrate)
G01 X130.260543 Y158.094694 Z-0.125000 F800.000000
G00 Z5.000000

(End cutting path id: line3642)


(Start cutting path id: line3644)
(Change tool to Default tool)

G00 Z5.000000
G00 X132.252633 Y157.892584

G00 Z4.875000 (Fast pre-penetrate)
G01 Z-0.125000 F400.0(Penetrate)
G01 X132.252633 Y157.892584 Z-0.125000 F800.000000
G00 Z5.000000

(End cutting path id: line3644)


(Start cutting path id: line3646)
(Change tool to Default tool)

G00 Z5.000000
G00 X134.260473 Y157.561274

G00 Z4.875000 (Fast pre-penetrate)
G01 Z-0.125000 F400.0(Penetrate)
G01 X134.260473 Y157.561274 Z-0.125000 F800.000000
G00 Z5.000000

(End cutting path id: line3646)


(Start cutting path id: line3648)
(Change tool to Default tool)

G00 Z5.000000
G00 X136.277133 Y157.099324

G00 Z4.875000 (Fast pre-penetrate)
G01 Z-0.125000 F400.0(Penetrate)
G01 X136.277133 Y157.099324 Z-0.125000 F800.000000
G00 Z5.000000

(End cutting path id: line3648)


(Start cutting path id: line3650)
(Change tool to Default tool)

G00 Z5.000000
G00 X138.037853 Y157.278494

G00 Z4.875000 (Fast pre-penetrate)
G01 Z-0.125000 F400.0(Penetrate)
G01 X138.037853 Y157.278494 Z-0.125000 F800.000000
G00 Z5.000000

(End cutting path id: line3650)


(Start cutting path id: line3652)
(Change tool to Default tool)

G00 Z5.000000
G00 X139.320613 Y158.783854

G00 Z4.875000 (Fast pre-penetrate)
G01 Z-0.125000 F400.0(Penetrate)
G01 X139.320613 Y158.783854 Z-0.125000 F800.000000
G00 Z5.000000

(End cutting path id: line3652)


(Start cutting path id: line3654)
(Change tool to Default tool)

G00 Z5.000000
G00 X140.543583 Y160.368524

G00 Z4.875000 (Fast pre-penetrate)
G01 Z-0.125000 F400.0(Penetrate)
G01 X140.543583 Y160.368524 Z-0.125000 F800.000000
G00 Z5.000000

(End cutting path id: line3654)


(Start cutting path id: line3656)
(Change tool to Default tool)

G00 Z5.000000
G00 X141.703453 Y162.030444

G00 Z4.875000 (Fast pre-penetrate)
G01 Z-0.125000 F400.0(Penetrate)
G01 X141.703453 Y162.030444 Z-0.125000 F800.000000
G00 Z5.000000

(End cutting path id: line3656)


(Start cutting path id: line3658)
(Change tool to Default tool)

G00 Z5.000000
G00 X143.191713 Y162.914694

G00 Z4.875000 (Fast pre-penetrate)
G01 Z-0.125000 F400.0(Penetrate)
G01 X143.191713 Y162.914694 Z-0.125000 F800.000000
G00 Z5.000000

(End cutting path id: line3658)


(Start cutting path id: line3660)
(Change tool to Default tool)

G00 Z5.000000
G00 X145.111193 Y162.816524

G00 Z4.875000 (Fast pre-penetrate)
G01 Z-0.125000 F400.0(Penetrate)
G01 X145.111193 Y162.816524 Z-0.125000 F800.000000
G00 Z5.000000

(End cutting path id: line3660)


(Start cutting path id: line3662)
(Change tool to Default tool)

G00 Z5.000000
G00 X147.041643 Y162.646804

G00 Z4.875000 (Fast pre-penetrate)
G01 Z-0.125000 F400.0(Penetrate)
G01 X147.041643 Y162.646804 Z-0.125000 F800.000000
G00 Z5.000000

(End cutting path id: line3662)


(Start cutting path id: line3664)
(Change tool to Default tool)

G00 Z5.000000
G00 X148.980963 Y162.405134

G00 Z4.875000 (Fast pre-penetrate)
G01 Z-0.125000 F400.0(Penetrate)
G01 X148.980963 Y162.405134 Z-0.125000 F800.000000
G00 Z5.000000

(End cutting path id: line3664)


(Start cutting path id: line3666)
(Change tool to Default tool)

G00 Z5.000000
G00 X150.927033 Y162.091004

G00 Z4.875000 (Fast pre-penetrate)
G01 Z-0.125000 F400.0(Penetrate)
G01 X150.927033 Y162.091004 Z-0.125000 F800.000000
G00 Z5.000000

(End cutting path id: line3666)


(Start cutting path id: line3668)
(Change tool to Default tool)

G00 Z5.000000
G00 X152.877683 Y161.704074

G00 Z4.875000 (Fast pre-penetrate)
G01 Z-0.125000 F400.0(Penetrate)
G01 X152.877683 Y161.704074 Z-0.125000 F800.000000
G00 Z5.000000

(End cutting path id: line3668)


(Start cutting path id: line3670)
(Change tool to Default tool)

G00 Z5.000000
G00 X154.830703 Y161.244014

G00 Z4.875000 (Fast pre-penetrate)
G01 Z-0.125000 F400.0(Penetrate)
G01 X154.830703 Y161.244014 Z-0.125000 F800.000000
G00 Z5.000000

(End cutting path id: line3670)


(Start cutting path id: line3672)
(Change tool to Default tool)

G00 Z5.000000
G00 X156.783993 Y160.710714

G00 Z4.875000 (Fast pre-penetrate)
G01 Z-0.125000 F400.0(Penetrate)
G01 X156.783993 Y160.710714 Z-0.125000 F800.000000
G00 Z5.000000

(End cutting path id: line3672)


(Start cutting path id: line3674)
(Change tool to Default tool)

G00 Z5.000000
G00 X158.410863 Y161.274904

G00 Z4.875000 (Fast pre-penetrate)
G01 Z-0.125000 F400.0(Penetrate)
G01 X158.410863 Y161.274904 Z-0.125000 F800.000000
G00 Z5.000000

(End cutting path id: line3674)


(Start cutting path id: line3676)
(Change tool to Default tool)

G00 Z5.000000
G00 X160.308603 Y160.875014

G00 Z4.875000 (Fast pre-penetrate)
G01 Z-0.125000 F400.0(Penetrate)
G01 X160.308603 Y160.875014 Z-0.125000 F800.000000
G00 Z5.000000

(End cutting path id: line3676)


(Start cutting path id: line3678)
(Change tool to Default tool)

G00 Z5.000000
G00 X162.206753 Y160.417984

G00 Z4.875000 (Fast pre-penetrate)
G01 Z-0.125000 F400.0(Penetrate)
G01 X162.206753 Y160.417984 Z-0.125000 F800.000000
G00 Z5.000000

(End cutting path id: line3678)


(Start cutting path id: line3680)
(Change tool to Default tool)

G00 Z5.000000
G00 X164.103913 Y159.903744

G00 Z4.875000 (Fast pre-penetrate)
G01 Z-0.125000 F400.0(Penetrate)
G01 X164.103913 Y159.903744 Z-0.125000 F800.000000
G00 Z5.000000

(End cutting path id: line3680)


(Start cutting path id: line3682)
(Change tool to Default tool)

G00 Z5.000000
G00 X165.998743 Y159.332134

G00 Z4.875000 (Fast pre-penetrate)
G01 Z-0.125000 F400.0(Penetrate)
G01 X165.998743 Y159.332134 Z-0.125000 F800.000000
G00 Z5.000000

(End cutting path id: line3682)


(Start cutting path id: line3684)
(Change tool to Default tool)

G00 Z5.000000
G00 X167.889893 Y158.703214

G00 Z4.875000 (Fast pre-penetrate)
G01 Z-0.125000 F400.0(Penetrate)
G01 X167.889893 Y158.703214 Z-0.125000 F800.000000
G00 Z5.000000

(End cutting path id: line3684)


(Start cutting path id: line3686)
(Change tool to Default tool)

G00 Z5.000000
G00 X169.775943 Y158.016854

G00 Z4.875000 (Fast pre-penetrate)
G01 Z-0.125000 F400.0(Penetrate)
G01 X169.775943 Y158.016854 Z-0.125000 F800.000000
G00 Z5.000000

(End cutting path id: line3686)


(Start cutting path id: line3688)
(Change tool to Default tool)

G00 Z5.000000
G00 X171.655623 Y157.273094

G00 Z4.875000 (Fast pre-penetrate)
G01 Z-0.125000 F400.0(Penetrate)
G01 X171.655623 Y157.273094 Z-0.125000 F800.000000
G00 Z5.000000

(End cutting path id: line3688)


(Start cutting path id: line3690)
(Change tool to Default tool)

G00 Z5.000000
G00 X173.313013 Y157.780544

G00 Z4.875000 (Fast pre-penetrate)
G01 Z-0.125000 F400.0(Penetrate)
G01 X173.313013 Y157.780544 Z-0.125000 F800.000000
G00 Z5.000000

(End cutting path id: line3690)


(Start cutting path id: line3692)
(Change tool to Default tool)

G00 Z5.000000
G00 X174.735593 Y159.544284

G00 Z4.875000 (Fast pre-penetrate)
G01 Z-0.125000 F400.0(Penetrate)
G01 X174.735593 Y159.544284 Z-0.125000 F800.000000
G00 Z5.000000

(End cutting path id: line3692)


(Start cutting path id: line8258)
(Change tool to Default tool)

G00 Z5.000000
G00 X176.113043 Y161.373334

G00 Z4.875000 (Fast pre-penetrate)
G01 Z-0.125000 F400.0(Penetrate)
G01 X176.113043 Y161.373334 Z-0.125000 F800.000000
G00 Z5.000000

(End cutting path id: line8258)


(Start cutting path id: line8360)
(Change tool to Default tool)

G00 Z5.000000
G00 X177.443323 Y163.266734

G00 Z4.875000 (Fast pre-penetrate)
G01 Z-0.125000 F400.0(Penetrate)
G01 X177.443323 Y163.266734 Z-0.125000 F800.000000
G00 Z5.000000

(End cutting path id: line8360)


(Start cutting path id: line8362)
(Change tool to Default tool)

G00 Z5.000000
G00 X178.724273 Y165.223224

G00 Z4.875000 (Fast pre-penetrate)
G01 Z-0.125000 F400.0(Penetrate)
G01 X178.724273 Y165.223224 Z-0.125000 F800.000000
G00 Z5.000000

(End cutting path id: line8362)


(Start cutting path id: line8364)
(Change tool to Default tool)

G00 Z5.000000
G00 X179.953843 Y167.241604

G00 Z4.875000 (Fast pre-penetrate)
G01 Z-0.125000 F400.0(Penetrate)
G01 X179.953843 Y167.241604 Z-0.125000 F800.000000
G00 Z5.000000

(End cutting path id: line8364)


(Start cutting path id: line8374)
(Change tool to Default tool)

G00 Z5.000000
G00 X181.129953 Y169.320554

G00 Z4.875000 (Fast pre-penetrate)
G01 Z-0.125000 F400.0(Penetrate)
G01 X181.129953 Y169.320554 Z-0.125000 F800.000000
G00 Z5.000000

(End cutting path id: line8374)


(Start cutting path id: line8372)
(Change tool to Default tool)

G00 Z5.000000
G00 X182.250683 Y171.458594

G00 Z4.875000 (Fast pre-penetrate)
G01 Z-0.125000 F400.0(Penetrate)
G01 X182.250683 Y171.458594 Z-0.125000 F800.000000
G00 Z5.000000

(End cutting path id: line8372)


(Start cutting path id: line8370)
(Change tool to Default tool)

G00 Z5.000000
G00 X180.056753 Y172.550144

G00 Z4.875000 (Fast pre-penetrate)
G01 Z-0.125000 F400.0(Penetrate)
G01 X180.056753 Y172.550144 Z-0.125000 F800.000000
G00 Z5.000000

(End cutting path id: line8370)


(Start cutting path id: line8368)
(Change tool to Default tool)

G00 Z5.000000
G00 X178.971113 Y170.422564

G00 Z4.875000 (Fast pre-penetrate)
G01 Z-0.125000 F400.0(Penetrate)
G01 X178.971113 Y170.422564 Z-0.125000 F800.000000
G00 Z5.000000

(End cutting path id: line8368)


(Start cutting path id: line8366)
(Change tool to Default tool)

G00 Z5.000000
G00 X177.829543 Y168.353164

G00 Z4.875000 (Fast pre-penetrate)
G01 Z-0.125000 F400.0(Penetrate)
G01 X177.829543 Y168.353164 Z-0.125000 F800.000000
G00 Z5.000000

(End cutting path id: line8366)


(Start cutting path id: line8264)
(Change tool to Default tool)

G00 Z5.000000
G00 X176.633973 Y166.343334

G00 Z4.875000 (Fast pre-penetrate)
G01 Z-0.125000 F400.0(Penetrate)
G01 X176.633973 Y166.343334 Z-0.125000 F800.000000
G00 Z5.000000

(End cutting path id: line8264)


(Start cutting path id: line8262)
(Change tool to Default tool)

G00 Z5.000000
G00 X175.386383 Y164.394494

G00 Z4.875000 (Fast pre-penetrate)
G01 Z-0.125000 F400.0(Penetrate)
G01 X175.386383 Y164.394494 Z-0.125000 F800.000000
G00 Z5.000000

(End cutting path id: line8262)


(Start cutting path id: line8260)
(Change tool to Default tool)

G00 Z5.000000
G00 X174.088833 Y162.507814

G00 Z4.875000 (Fast pre-penetrate)
G01 Z-0.125000 F400.0(Penetrate)
G01 X174.088833 Y162.507814 Z-0.125000 F800.000000
G00 Z5.000000

(End cutting path id: line8260)


(Start cutting path id: line3694)
(Change tool to Default tool)

G00 Z5.000000
G00 X172.743473 Y160.684584

G00 Z4.875000 (Fast pre-penetrate)
G01 Z-0.125000 F400.0(Penetrate)
G01 X172.743473 Y160.684584 Z-0.125000 F800.000000
G00 Z5.000000

(End cutting path id: line3694)


(Start cutting path id: line3696)
(Change tool to Default tool)

G00 Z5.000000
G00 X171.054653 Y160.358774

G00 Z4.875000 (Fast pre-penetrate)
G01 Z-0.125000 F400.0(Penetrate)
G01 X171.054653 Y160.358774 Z-0.125000 F800.000000
G00 Z5.000000

(End cutting path id: line3696)


(Start cutting path id: line3698)
(Change tool to Default tool)

G00 Z5.000000
G00 X169.142183 Y161.013604

G00 Z4.875000 (Fast pre-penetrate)
G01 Z-0.125000 F400.0(Penetrate)
G01 X169.142183 Y161.013604 Z-0.125000 F800.000000
G00 Z5.000000

(End cutting path id: line3698)


(Start cutting path id: line3700)
(Change tool to Default tool)

G00 Z5.000000
G00 X167.226013 Y161.610754

G00 Z4.875000 (Fast pre-penetrate)
G01 Z-0.125000 F400.0(Penetrate)
G01 X167.226013 Y161.610754 Z-0.125000 F800.000000
G00 Z5.000000

(End cutting path id: line3700)


(Start cutting path id: line3702)
(Change tool to Default tool)

G00 Z5.000000
G00 X165.307463 Y162.150374

G00 Z4.875000 (Fast pre-penetrate)
G01 Z-0.125000 F400.0(Penetrate)
G01 X165.307463 Y162.150374 Z-0.125000 F800.000000
G00 Z5.000000

(End cutting path id: line3702)


(Start cutting path id: line3704)
(Change tool to Default tool)

G00 Z5.000000
G00 X163.387923 Y162.632544

G00 Z4.875000 (Fast pre-penetrate)
G01 Z-0.125000 F400.0(Penetrate)
G01 X163.387923 Y162.632544 Z-0.125000 F800.000000
G00 Z5.000000

(End cutting path id: line3704)


(Start cutting path id: line3706)
(Change tool to Default tool)

G00 Z5.000000
G00 X161.468763 Y163.057344

G00 Z4.875000 (Fast pre-penetrate)
G01 Z-0.125000 F400.0(Penetrate)
G01 X161.468763 Y163.057344 Z-0.125000 F800.000000
G00 Z5.000000

(End cutting path id: line3706)


(Start cutting path id: line3708)
(Change tool to Default tool)

G00 Z5.000000
G00 X159.551263 Y163.424854

G00 Z4.875000 (Fast pre-penetrate)
G01 Z-0.125000 F400.0(Penetrate)
G01 X159.551263 Y163.424854 Z-0.125000 F800.000000
G00 Z5.000000

(End cutting path id: line3708)


(Start cutting path id: line3710)
(Change tool to Default tool)

G00 Z5.000000
G00 X157.636833 Y163.735394

G00 Z4.875000 (Fast pre-penetrate)
G01 Z-0.125000 F400.0(Penetrate)
G01 X157.636833 Y163.735394 Z-0.125000 F800.000000
G00 Z5.000000

(End cutting path id: line3710)


(Start cutting path id: line3712)
(Change tool to Default tool)

G00 Z5.000000
G00 X155.936243 Y163.393634

G00 Z4.875000 (Fast pre-penetrate)
G01 Z-0.125000 F400.0(Penetrate)
G01 X155.936243 Y163.393634 Z-0.125000 F800.000000
G00 Z5.000000

(End cutting path id: line3712)


(Start cutting path id: line3714)
(Change tool to Default tool)

G00 Z5.000000
G00 X153.957573 Y163.823134

G00 Z4.875000 (Fast pre-penetrate)
G01 Z-0.125000 F400.0(Penetrate)
G01 X153.957573 Y163.823134 Z-0.125000 F800.000000
G00 Z5.000000

(End cutting path id: line3714)


(Start cutting path id: line3716)
(Change tool to Default tool)

G00 Z5.000000
G00 X151.983003 Y164.179394

G00 Z4.875000 (Fast pre-penetrate)
G01 Z-0.125000 F400.0(Penetrate)
G01 X151.983003 Y164.179394 Z-0.125000 F800.000000
G00 Z5.000000

(End cutting path id: line3716)


(Start cutting path id: line3718)
(Change tool to Default tool)

G00 Z5.000000
G00 X150.014653 Y164.462844

G00 Z4.875000 (Fast pre-penetrate)
G01 Z-0.125000 F400.0(Penetrate)
G01 X150.014653 Y164.462844 Z-0.125000 F800.000000
G00 Z5.000000

(End cutting path id: line3718)


(Start cutting path id: line3720)
(Change tool to Default tool)

G00 Z5.000000
G00 X148.054713 Y164.673804

G00 Z4.875000 (Fast pre-penetrate)
G01 Z-0.125000 F400.0(Penetrate)
G01 X148.054713 Y164.673804 Z-0.125000 F800.000000
G00 Z5.000000

(End cutting path id: line3720)


(Start cutting path id: line3722)
(Change tool to Default tool)

G00 Z5.000000
G00 X146.105333 Y164.812844

G00 Z4.875000 (Fast pre-penetrate)
G01 Z-0.125000 F400.0(Penetrate)
G01 X146.105333 Y164.812844 Z-0.125000 F800.000000
G00 Z5.000000

(End cutting path id: line3722)


(Start cutting path id: line3724)
(Change tool to Default tool)

G00 Z5.000000
G00 X144.168593 Y164.880474

G00 Z4.875000 (Fast pre-penetrate)
G01 Z-0.125000 F400.0(Penetrate)
G01 X144.168593 Y164.880474 Z-0.125000 F800.000000
G00 Z5.000000

(End cutting path id: line3724)


(Start cutting path id: line3726)
(Change tool to Default tool)

G00 Z5.000000
G00 X142.246653 Y164.877184

G00 Z4.875000 (Fast pre-penetrate)
G01 Z-0.125000 F400.0(Penetrate)
G01 X142.246653 Y164.877184 Z-0.125000 F800.000000
G00 Z5.000000

(End cutting path id: line3726)


(Start cutting path id: line3728)
(Change tool to Default tool)

G00 Z5.000000
G00 X140.552073 Y164.408774

G00 Z4.875000 (Fast pre-penetrate)
G01 Z-0.125000 F400.0(Penetrate)
G01 X140.552073 Y164.408774 Z-0.125000 F800.000000
G00 Z5.000000

(End cutting path id: line3728)


(Start cutting path id: line3730)
(Change tool to Default tool)

G00 Z5.000000
G00 X139.505813 Y162.673144

G00 Z4.875000 (Fast pre-penetrate)
G01 Z-0.125000 F400.0(Penetrate)
G01 X139.505813 Y162.673144 Z-0.125000 F800.000000
G00 Z5.000000

(End cutting path id: line3730)


(Start cutting path id: line3732)
(Change tool to Default tool)

G00 Z5.000000
G00 X138.391383 Y161.010234

G00 Z4.875000 (Fast pre-penetrate)
G01 Z-0.125000 F400.0(Penetrate)
G01 X138.391383 Y161.010234 Z-0.125000 F800.000000
G00 Z5.000000

(End cutting path id: line3732)


(Start cutting path id: line3734)
(Change tool to Default tool)

G00 Z5.000000
G00 X137.212053 Y159.422614

G00 Z4.875000 (Fast pre-penetrate)
G01 Z-0.125000 F400.0(Penetrate)
G01 X137.212053 Y159.422614 Z-0.125000 F800.000000
G00 Z5.000000

(End cutting path id: line3734)


(Start cutting path id: line3736)
(Change tool to Default tool)

G00 Z5.000000
G00 X135.140653 Y159.846674

G00 Z4.875000 (Fast pre-penetrate)
G01 Z-0.125000 F400.0(Penetrate)
G01 X135.140653 Y159.846674 Z-0.125000 F800.000000
G00 Z5.000000

(End cutting path id: line3736)


(Start cutting path id: line3738)
(Change tool to Default tool)

G00 Z5.000000
G00 X136.244883 Y161.506794

G00 Z4.875000 (Fast pre-penetrate)
G01 Z-0.125000 F400.0(Penetrate)
G01 X136.244883 Y161.506794 Z-0.125000 F800.000000
G00 Z5.000000

(End cutting path id: line3738)


(Start cutting path id: line3740)
(Change tool to Default tool)

G00 Z5.000000
G00 X137.315533 Y163.169654

G00 Z4.875000 (Fast pre-penetrate)
G01 Z-0.125000 F400.0(Penetrate)
G01 X137.315533 Y163.169654 Z-0.125000 F800.000000
G00 Z5.000000

(End cutting path id: line3740)


(Start cutting path id: line3742)
(Change tool to Default tool)

G00 Z5.000000
G00 X138.316413 Y164.903324

G00 Z4.875000 (Fast pre-penetrate)
G01 Z-0.125000 F400.0(Penetrate)
G01 X138.316413 Y164.903324 Z-0.125000 F800.000000
G00 Z5.000000

(End cutting path id: line3742)


(Start cutting path id: line3744)
(Change tool to Default tool)

G00 Z5.000000
G00 X139.244403 Y166.704944

G00 Z4.875000 (Fast pre-penetrate)
G01 Z-0.125000 F400.0(Penetrate)
G01 X139.244403 Y166.704944 Z-0.125000 F800.000000
G00 Z5.000000

(End cutting path id: line3744)


(Start cutting path id: line3746)
(Change tool to Default tool)

G00 Z5.000000
G00 X141.199283 Y166.787034

G00 Z4.875000 (Fast pre-penetrate)
G01 Z-0.125000 F400.0(Penetrate)
G01 X141.199283 Y166.787034 Z-0.125000 F800.000000
G00 Z5.000000

(End cutting path id: line3746)


(Start cutting path id: line3748)
(Change tool to Default tool)

G00 Z5.000000
G00 X143.118413 Y166.891714

G00 Z4.875000 (Fast pre-penetrate)
G01 Z-0.125000 F400.0(Penetrate)
G01 X143.118413 Y166.891714 Z-0.125000 F800.000000
G00 Z5.000000

(End cutting path id: line3748)


(Start cutting path id: line3750)
(Change tool to Default tool)

G00 Z5.000000
G00 X145.056013 Y166.926424

G00 Z4.875000 (Fast pre-penetrate)
G01 Z-0.125000 F400.0(Penetrate)
G01 X145.056013 Y166.926424 Z-0.125000 F800.000000
G00 Z5.000000

(End cutting path id: line3750)


(Start cutting path id: line3752)
(Change tool to Default tool)

G00 Z5.000000
G00 X147.010033 Y166.890494

G00 Z4.875000 (Fast pre-penetrate)
G01 Z-0.125000 F400.0(Penetrate)
G01 X147.010033 Y166.890494 Z-0.125000 F800.000000
G00 Z5.000000

(End cutting path id: line3752)


(Start cutting path id: line3754)
(Change tool to Default tool)

G00 Z5.000000
G00 X148.978323 Y166.783244

G00 Z4.875000 (Fast pre-penetrate)
G01 Z-0.125000 F400.0(Penetrate)
G01 X148.978323 Y166.783244 Z-0.125000 F800.000000
G00 Z5.000000

(End cutting path id: line3754)


(Start cutting path id: line3756)
(Change tool to Default tool)

G00 Z5.000000
G00 X150.958923 Y166.604094

G00 Z4.875000 (Fast pre-penetrate)
G01 Z-0.125000 F400.0(Penetrate)
G01 X150.958923 Y166.604094 Z-0.125000 F800.000000
G00 Z5.000000

(End cutting path id: line3756)


(Start cutting path id: line3758)
(Change tool to Default tool)

G00 Z5.000000
G00 X152.949563 Y166.352524

G00 Z4.875000 (Fast pre-penetrate)
G01 Z-0.125000 F400.0(Penetrate)
G01 X152.949563 Y166.352524 Z-0.125000 F800.000000
G00 Z5.000000

(End cutting path id: line3758)


(Start cutting path id: line3760)
(Change tool to Default tool)

G00 Z5.000000
G00 X154.948173 Y166.028004

G00 Z4.875000 (Fast pre-penetrate)
G01 Z-0.125000 F400.0(Penetrate)
G01 X154.948173 Y166.028004 Z-0.125000 F800.000000
G00 Z5.000000

(End cutting path id: line3760)


(Start cutting path id: line3762)
(Change tool to Default tool)

G00 Z5.000000
G00 X156.748313 Y166.156844

G00 Z4.875000 (Fast pre-penetrate)
G01 Z-0.125000 F400.0(Penetrate)
G01 X156.748313 Y166.156844 Z-0.125000 F800.000000
G00 Z5.000000

(End cutting path id: line3762)


(Start cutting path id: line3764)
(Change tool to Default tool)

G00 Z5.000000
G00 X158.675233 Y165.936484

G00 Z4.875000 (Fast pre-penetrate)
G01 Z-0.125000 F400.0(Penetrate)
G01 X158.675233 Y165.936484 Z-0.125000 F800.000000
G00 Z5.000000

(End cutting path id: line3764)


(Start cutting path id: line3766)
(Change tool to Default tool)

G00 Z5.000000
G00 X160.607823 Y165.659144

G00 Z4.875000 (Fast pre-penetrate)
G01 Z-0.125000 F400.0(Penetrate)
G01 X160.607823 Y165.659144 Z-0.125000 F800.000000
G00 Z5.000000

(End cutting path id: line3766)


(Start cutting path id: line3768)
(Change tool to Default tool)

G00 Z5.000000
G00 X162.544783 Y165.324794

G00 Z4.875000 (Fast pre-penetrate)
G01 Z-0.125000 F400.0(Penetrate)
G01 X162.544783 Y165.324794 Z-0.125000 F800.000000
G00 Z5.000000

(End cutting path id: line3768)


(Start cutting path id: line3770)
(Change tool to Default tool)

G00 Z5.000000
G00 X164.484783 Y164.933194

G00 Z4.875000 (Fast pre-penetrate)
G01 Z-0.125000 F400.0(Penetrate)
G01 X164.484783 Y164.933194 Z-0.125000 F800.000000
G00 Z5.000000

(End cutting path id: line3770)


(Start cutting path id: line3772)
(Change tool to Default tool)

G00 Z5.000000
G00 X166.426523 Y164.484114

G00 Z4.875000 (Fast pre-penetrate)
G01 Z-0.125000 F400.0(Penetrate)
G01 X166.426523 Y164.484114 Z-0.125000 F800.000000
G00 Z5.000000

(End cutting path id: line3772)


(Start cutting path id: line3774)
(Change tool to Default tool)

G00 Z5.000000
G00 X168.368573 Y163.977354

G00 Z4.875000 (Fast pre-penetrate)
G01 Z-0.125000 F400.0(Penetrate)
G01 X168.368573 Y163.977354 Z-0.125000 F800.000000
G00 Z5.000000

(End cutting path id: line3774)


(Start cutting path id: line3776)
(Change tool to Default tool)

G00 Z5.000000
G00 X170.309623 Y163.412964

G00 Z4.875000 (Fast pre-penetrate)
G01 Z-0.125000 F400.0(Penetrate)
G01 X170.309623 Y163.412964 Z-0.125000 F800.000000
G00 Z5.000000

(End cutting path id: line3776)


(Start cutting path id: line3778)
(Change tool to Default tool)

G00 Z5.000000
G00 X172.049573 Y163.561404

G00 Z4.875000 (Fast pre-penetrate)
G01 Z-0.125000 F400.0(Penetrate)
G01 X172.049573 Y163.561404 Z-0.125000 F800.000000
G00 Z5.000000

(End cutting path id: line3778)


(Start cutting path id: line3780)
(Change tool to Default tool)

G00 Z5.000000
G00 X173.315203 Y165.440774

G00 Z4.875000 (Fast pre-penetrate)
G01 Z-0.125000 F400.0(Penetrate)
G01 X173.315203 Y165.440774 Z-0.125000 F800.000000
G00 Z5.000000

(End cutting path id: line3780)


(Start cutting path id: line8266)
(Change tool to Default tool)

G00 Z5.000000
G00 X174.530363 Y167.381554

G00 Z4.875000 (Fast pre-penetrate)
G01 Z-0.125000 F400.0(Penetrate)
G01 X174.530363 Y167.381554 Z-0.125000 F800.000000
G00 Z5.000000

(End cutting path id: line8266)


(Start cutting path id: line8332)
(Change tool to Default tool)

G00 Z5.000000
G00 X175.692963 Y169.382284

G00 Z4.875000 (Fast pre-penetrate)
G01 Z-0.125000 F400.0(Penetrate)
G01 X175.692963 Y169.382284 Z-0.125000 F800.000000
G00 Z5.000000

(End cutting path id: line8332)


(Start cutting path id: line8330)
(Change tool to Default tool)

G00 Z5.000000
G00 X176.800963 Y171.441684

G00 Z4.875000 (Fast pre-penetrate)
G01 Z-0.125000 F400.0(Penetrate)
G01 X176.800963 Y171.441684 Z-0.125000 F800.000000
G00 Z5.000000

(End cutting path id: line8330)


(Start cutting path id: line8328)
(Change tool to Default tool)

G00 Z5.000000
G00 X177.852483 Y173.558284

G00 Z4.875000 (Fast pre-penetrate)
G01 Z-0.125000 F400.0(Penetrate)
G01 X177.852483 Y173.558284 Z-0.125000 F800.000000
G00 Z5.000000

(End cutting path id: line8328)


(Start cutting path id: line8326)
(Change tool to Default tool)

G00 Z5.000000
G00 X178.845563 Y175.730654

G00 Z4.875000 (Fast pre-penetrate)
G01 Z-0.125000 F400.0(Penetrate)
G01 X178.845563 Y175.730654 Z-0.125000 F800.000000
G00 Z5.000000

(End cutting path id: line8326)


(Start cutting path id: line8324)
(Change tool to Default tool)

G00 Z5.000000
G00 X179.778283 Y177.957114

G00 Z4.875000 (Fast pre-penetrate)
G01 Z-0.125000 F400.0(Penetrate)
G01 X179.778283 Y177.957114 Z-0.125000 F800.000000
G00 Z5.000000

(End cutting path id: line8324)


(Start cutting path id: line8322)
(Change tool to Default tool)

G00 Z5.000000
G00 X181.705233 Y177.817584

G00 Z4.875000 (Fast pre-penetrate)
G01 Z-0.125000 F400.0(Penetrate)
G01 X181.705233 Y177.817584 Z-0.125000 F800.000000
G00 Z5.000000

(End cutting path id: line8322)


(Start cutting path id: line10602)
(Change tool to Default tool)

G00 Z5.000000
G00 X184.065703 Y176.562444

G00 Z4.875000 (Fast pre-penetrate)
G01 Z-0.125000 F400.0(Penetrate)
G01 X184.065703 Y176.562444 Z-0.125000 F800.000000
G00 Z5.000000

(End cutting path id: line10602)


(Start cutting path id: line8346)
(Change tool to Default tool)

G00 Z5.000000
G00 X183.185523 Y174.012944

G00 Z4.875000 (Fast pre-penetrate)
G01 Z-0.125000 F400.0(Penetrate)
G01 X183.185523 Y174.012944 Z-0.125000 F800.000000
G00 Z5.000000

(End cutting path id: line8346)


(Start cutting path id: line8344)
(Change tool to Default tool)

G00 Z5.000000
G00 X181.084423 Y174.734464

G00 Z4.875000 (Fast pre-penetrate)
G01 Z-0.125000 F400.0(Penetrate)
G01 X181.084423 Y174.734464 Z-0.125000 F800.000000
G00 Z5.000000

(End cutting path id: line8344)


(Start cutting path id: line8348)
(Change tool to Default tool)

G00 Z5.000000
G00 X185.481023 Y172.642634

G00 Z4.875000 (Fast pre-penetrate)
G01 Z-0.125000 F400.0(Penetrate)
G01 X185.481023 Y172.642634 Z-0.125000 F800.000000
G00 Z5.000000

(End cutting path id: line8348)


(Start cutting path id: line8350)
(Change tool to Default tool)

G00 Z5.000000
G00 X184.475823 Y170.139774

G00 Z4.875000 (Fast pre-penetrate)
G01 Z-0.125000 F400.0(Penetrate)
G01 X184.475823 Y170.139774 Z-0.125000 F800.000000
G00 Z5.000000

(End cutting path id: line8350)


(Start cutting path id: line8352)
(Change tool to Default tool)

G00 Z5.000000
G00 X183.274903 Y168.135604

G00 Z4.875000 (Fast pre-penetrate)
G01 Z-0.125000 F400.0(Penetrate)
G01 X183.274903 Y168.135604 Z-0.125000 F800.000000
G00 Z5.000000

(End cutting path id: line8352)


(Start cutting path id: line8354)
(Change tool to Default tool)

G00 Z5.000000
G00 X182.063283 Y166.047694

G00 Z4.875000 (Fast pre-penetrate)
G01 Z-0.125000 F400.0(Penetrate)
G01 X182.063283 Y166.047694 Z-0.125000 F800.000000
G00 Z5.000000

(End cutting path id: line8354)


(Start cutting path id: line8356)
(Change tool to Default tool)

G00 Z5.000000
G00 X180.798773 Y164.021374

G00 Z4.875000 (Fast pre-penetrate)
G01 Z-0.125000 F400.0(Penetrate)
G01 X180.798773 Y164.021374 Z-0.125000 F800.000000
G00 Z5.000000

(End cutting path id: line8356)


(Start cutting path id: line8358)
(Change tool to Default tool)

G00 Z5.000000
G00 X179.483513 Y162.057744

G00 Z4.875000 (Fast pre-penetrate)
G01 Z-0.125000 F400.0(Penetrate)
G01 X179.483513 Y162.057744 Z-0.125000 F800.000000
G00 Z5.000000

(End cutting path id: line8358)


(Start cutting path id: line8256)
(Change tool to Default tool)

G00 Z5.000000
G00 X178.119573 Y160.158134

G00 Z4.875000 (Fast pre-penetrate)
G01 Z-0.125000 F400.0(Penetrate)
G01 X178.119573 Y160.158134 Z-0.125000 F800.000000
G00 Z5.000000

(End cutting path id: line8256)


(Start cutting path id: line8254)
(Change tool to Default tool)

G00 Z5.000000
G00 X176.709073 Y158.323704

G00 Z4.875000 (Fast pre-penetrate)
G01 Z-0.125000 F400.0(Penetrate)
G01 X176.709073 Y158.323704 Z-0.125000 F800.000000
G00 Z5.000000

(End cutting path id: line8254)


(Start cutting path id: line8252)
(Change tool to Default tool)

G00 Z5.000000
G00 X175.254203 Y156.555594

G00 Z4.875000 (Fast pre-penetrate)
G01 Z-0.125000 F400.0(Penetrate)
G01 X175.254203 Y156.555594 Z-0.125000 F800.000000
G00 Z5.000000

(End cutting path id: line8252)


(Start cutting path id: line8146)
(Change tool to Default tool)

G00 Z5.000000
G00 X173.757103 Y154.854724

G00 Z4.875000 (Fast pre-penetrate)
G01 Z-0.125000 F400.0(Penetrate)
G01 X173.757103 Y154.854724 Z-0.125000 F800.000000
G00 Z5.000000

(End cutting path id: line8146)


(Start cutting path id: line8148)
(Change tool to Default tool)

G00 Z5.000000
G00 X172.111353 Y154.162674

G00 Z4.875000 (Fast pre-penetrate)
G01 Z-0.125000 F400.0(Penetrate)
G01 X172.111353 Y154.162674 Z-0.125000 F800.000000
G00 Z5.000000

(End cutting path id: line8148)


(Start cutting path id: line8150)
(Change tool to Default tool)

G00 Z5.000000
G00 X170.268583 Y154.993674

G00 Z4.875000 (Fast pre-penetrate)
G01 Z-0.125000 F400.0(Penetrate)
G01 X170.268583 Y154.993674 Z-0.125000 F800.000000
G00 Z5.000000

(End cutting path id: line8150)


(Start cutting path id: line8152)
(Change tool to Default tool)

G00 Z5.000000
G00 X168.416753 Y155.767674

G00 Z4.875000 (Fast pre-penetrate)
G01 Z-0.125000 F400.0(Penetrate)
G01 X168.416753 Y155.767674 Z-0.125000 F800.000000
G00 Z5.000000

(End cutting path id: line8152)


(Start cutting path id: line8154)
(Change tool to Default tool)

G00 Z5.000000
G00 X166.557193 Y156.484564

G00 Z4.875000 (Fast pre-penetrate)
G01 Z-0.125000 F400.0(Penetrate)
G01 X166.557193 Y156.484564 Z-0.125000 F800.000000
G00 Z5.000000

(End cutting path id: line8154)


(Start cutting path id: line8156)
(Change tool to Default tool)

G00 Z5.000000
G00 X164.691243 Y157.144324

G00 Z4.875000 (Fast pre-penetrate)
G01 Z-0.125000 F400.0(Penetrate)
G01 X164.691243 Y157.144324 Z-0.125000 F800.000000
G00 Z5.000000

(End cutting path id: line8156)


(Start cutting path id: line8158)
(Change tool to Default tool)

G00 Z5.000000
G00 X162.820293 Y157.746934

G00 Z4.875000 (Fast pre-penetrate)
G01 Z-0.125000 F400.0(Penetrate)
G01 X162.820293 Y157.746934 Z-0.125000 F800.000000
G00 Z5.000000

(End cutting path id: line8158)


(Start cutting path id: line8160)
(Change tool to Default tool)

G00 Z5.000000
G00 X160.945663 Y158.292444

G00 Z4.875000 (Fast pre-penetrate)
G01 Z-0.125000 F400.0(Penetrate)
G01 X160.945663 Y158.292444 Z-0.125000 F800.000000
G00 Z5.000000

(End cutting path id: line8160)


(Start cutting path id: line8162)
(Change tool to Default tool)

G00 Z5.000000
G00 X159.068713 Y158.780844

G00 Z4.875000 (Fast pre-penetrate)
G01 Z-0.125000 F400.0(Penetrate)
G01 X159.068713 Y158.780844 Z-0.125000 F800.000000
G00 Z5.000000

(End cutting path id: line8162)


(Start cutting path id: line8164)
(Change tool to Default tool)

G00 Z5.000000
G00 X157.488923 Y157.986834

G00 Z4.875000 (Fast pre-penetrate)
G01 Z-0.125000 F400.0(Penetrate)
G01 X157.488923 Y157.986834 Z-0.125000 F800.000000
G00 Z5.000000

(End cutting path id: line8164)


(Start cutting path id: line8166)
(Change tool to Default tool)

G00 Z5.000000
G00 X155.566533 Y158.622514

G00 Z4.875000 (Fast pre-penetrate)
G01 Z-0.125000 F400.0(Penetrate)
G01 X155.566533 Y158.622514 Z-0.125000 F800.000000
G00 Z5.000000

(End cutting path id: line8166)


(Start cutting path id: line8168)
(Change tool to Default tool)

G00 Z5.000000
G00 X153.640473 Y159.184954

G00 Z4.875000 (Fast pre-penetrate)
G01 Z-0.125000 F400.0(Penetrate)
G01 X153.640473 Y159.184954 Z-0.125000 F800.000000
G00 Z5.000000

(End cutting path id: line8168)


(Start cutting path id: line8170)
(Change tool to Default tool)

G00 Z5.000000
G00 X151.712993 Y159.674294

G00 Z4.875000 (Fast pre-penetrate)
G01 Z-0.125000 F400.0(Penetrate)
G01 X151.712993 Y159.674294 Z-0.125000 F800.000000
G00 Z5.000000

(End cutting path id: line8170)


(Start cutting path id: line8172)
(Change tool to Default tool)

G00 Z5.000000
G00 X149.786223 Y160.090664

G00 Z4.875000 (Fast pre-penetrate)
G01 Z-0.125000 F400.0(Penetrate)
G01 X149.786223 Y160.090664 Z-0.125000 F800.000000
G00 Z5.000000

(End cutting path id: line8172)


(Start cutting path id: line8174)
(Change tool to Default tool)

G00 Z5.000000
G00 X147.862353 Y160.434414

G00 Z4.875000 (Fast pre-penetrate)
G01 Z-0.125000 F400.0(Penetrate)
G01 X147.862353 Y160.434414 Z-0.125000 F800.000000
G00 Z5.000000

(End cutting path id: line8174)


(Start cutting path id: line8176)
(Change tool to Default tool)

G00 Z5.000000
G00 X145.943513 Y160.705734

G00 Z4.875000 (Fast pre-penetrate)
G01 Z-0.125000 F400.0(Penetrate)
G01 X145.943513 Y160.705734 Z-0.125000 F800.000000
G00 Z5.000000

(End cutting path id: line8176)


(Start cutting path id: line8102)
(Change tool to Default tool)

G00 Z5.000000
G00 X144.031893 Y160.905054

G00 Z4.875000 (Fast pre-penetrate)
G01 Z-0.125000 F400.0(Penetrate)
G01 X144.031893 Y160.905054 Z-0.125000 F800.000000
G00 Z5.000000

(End cutting path id: line8102)


(Start cutting path id: line8104)
(Change tool to Default tool)

G00 Z5.000000
G00 X142.693403 Y159.580494

G00 Z4.875000 (Fast pre-penetrate)
G01 Z-0.125000 F400.0(Penetrate)
G01 X142.693403 Y159.580494 Z-0.125000 F800.000000
G00 Z5.000000

(End cutting path id: line8104)


(Start cutting path id: line8106)
(Change tool to Default tool)

G00 Z5.000000
G00 X141.425113 Y157.999744

G00 Z4.875000 (Fast pre-penetrate)
G01 Z-0.125000 F400.0(Penetrate)
G01 X141.425113 Y157.999744 Z-0.125000 F800.000000
G00 Z5.000000

(End cutting path id: line8106)


(Start cutting path id: line8108)
(Change tool to Default tool)

G00 Z5.000000
G00 X140.099013 Y156.500304

G00 Z4.875000 (Fast pre-penetrate)
G01 Z-0.125000 F400.0(Penetrate)
G01 X140.099013 Y156.500304 Z-0.125000 F800.000000
G00 Z5.000000

(End cutting path id: line8108)


(Start cutting path id: line3630)
(Change tool to Default tool)

G00 Z5.000000
G00 X138.718583 Y155.083974

G00 Z4.875000 (Fast pre-penetrate)
G01 Z-0.125000 F400.0(Penetrate)
G01 X138.718583 Y155.083974 Z-0.125000 F800.000000
G00 Z5.000000

(End cutting path id: line3630)


(Start cutting path id: line3632)
(Change tool to Default tool)

G00 Z5.000000
G00 X137.159143 Y154.260014

G00 Z4.875000 (Fast pre-penetrate)
G01 Z-0.125000 F400.0(Penetrate)
G01 X137.159143 Y154.260014 Z-0.125000 F800.000000
G00 Z5.000000

(End cutting path id: line3632)


(Start cutting path id: line3634)
(Change tool to Default tool)

G00 Z5.000000
G00 X135.192783 Y154.903404

G00 Z4.875000 (Fast pre-penetrate)
G01 Z-0.125000 F400.0(Penetrate)
G01 X135.192783 Y154.903404 Z-0.125000 F800.000000
G00 Z5.000000

(End cutting path id: line3634)


(Start cutting path id: line3636)
(Change tool to Default tool)

G00 Z5.000000
G00 X133.223443 Y155.415994

G00 Z4.875000 (Fast pre-penetrate)
G01 Z-0.125000 F400.0(Penetrate)
G01 X133.223443 Y155.415994 Z-0.125000 F800.000000
G00 Z5.000000

(End cutting path id: line3636)


(Start cutting path id: line3638)
(Change tool to Default tool)

G00 Z5.000000
G00 X131.257943 Y155.798384

G00 Z4.875000 (Fast pre-penetrate)
G01 Z-0.125000 F400.0(Penetrate)
G01 X131.257943 Y155.798384 Z-0.125000 F800.000000
G00 Z5.000000

(End cutting path id: line3638)


(Start cutting path id: line3864)
(Change tool to Default tool)

G00 Z5.000000
G00 X131.060683 Y160.270694

G00 Z4.875000 (Fast pre-penetrate)
G01 Z-0.125000 F400.0(Penetrate)
G01 X131.060683 Y160.270694 Z-0.125000 F800.000000
G00 Z5.000000

(End cutting path id: line3864)


(Start cutting path id: line3862)
(Change tool to Default tool)

G00 Z5.000000
G00 X129.058393 Y160.290774

G00 Z4.875000 (Fast pre-penetrate)
G01 Z-0.125000 F400.0(Penetrate)
G01 X129.058393 Y160.290774 Z-0.125000 F800.000000
G00 Z5.000000

(End cutting path id: line3862)


(Start cutting path id: line3860)
(Change tool to Default tool)

G00 Z5.000000
G00 X127.820683 Y159.009204

G00 Z4.875000 (Fast pre-penetrate)
G01 Z-0.125000 F400.0(Penetrate)
G01 X127.820683 Y159.009204 Z-0.125000 F800.000000
G00 Z5.000000

(End cutting path id: line3860)


(Start cutting path id: line4218)
(Change tool to Default tool)

G00 Z5.000000
G00 X125.618273 Y159.294154

G00 Z4.875000 (Fast pre-penetrate)
G01 Z-0.125000 F400.0(Penetrate)
G01 X125.618273 Y159.294154 Z-0.125000 F800.000000
G00 Z5.000000

(End cutting path id: line4218)


(Start cutting path id: line4216)
(Change tool to Default tool)

G00 Z5.000000
G00 X123.459123 Y159.375214

G00 Z4.875000 (Fast pre-penetrate)
G01 Z-0.125000 F400.0(Penetrate)
G01 X123.459123 Y159.375214 Z-0.125000 F800.000000
G00 Z5.000000

(End cutting path id: line4216)


(Start cutting path id: line3840)
(Change tool to Default tool)

G00 Z5.000000
G00 X121.359113 Y159.258254

G00 Z4.875000 (Fast pre-penetrate)
G01 Z-0.125000 F400.0(Penetrate)
G01 X121.359113 Y159.258254 Z-0.125000 F800.000000
G00 Z5.000000

(End cutting path id: line3840)


(Start cutting path id: line3842)
(Change tool to Default tool)

G00 Z5.000000
G00 X120.140953 Y158.033964

G00 Z4.875000 (Fast pre-penetrate)
G01 Z-0.125000 F400.0(Penetrate)
G01 X120.140953 Y158.033964 Z-0.125000 F800.000000
G00 Z5.000000

(End cutting path id: line3842)


(Start cutting path id: line3844)
(Change tool to Default tool)

G00 Z5.000000
G00 X119.536113 Y156.001384

G00 Z4.875000 (Fast pre-penetrate)
G01 Z-0.125000 F400.0(Penetrate)
G01 X119.536113 Y156.001384 Z-0.125000 F800.000000
G00 Z5.000000

(End cutting path id: line3844)


(Start cutting path id: line1544)
(Change tool to Default tool)

G00 Z5.000000
G00 X118.727313 Y154.113854

G00 Z4.875000 (Fast pre-penetrate)
G01 Z-0.125000 F400.0(Penetrate)
G01 X118.727313 Y154.113854 Z-0.125000 F800.000000
G00 Z5.000000

(End cutting path id: line1544)


(Start cutting path id: line1546)
(Change tool to Default tool)

G00 Z5.000000
G00 X117.731943 Y152.389374

G00 Z4.875000 (Fast pre-penetrate)
G01 Z-0.125000 F400.0(Penetrate)
G01 X117.731943 Y152.389374 Z-0.125000 F800.000000
G00 Z5.000000

(End cutting path id: line1546)


(Start cutting path id: line1548)
(Change tool to Default tool)

G00 Z5.000000
G00 X115.990893 Y151.988234

G00 Z4.875000 (Fast pre-penetrate)
G01 Z-0.125000 F400.0(Penetrate)
G01 X115.990893 Y151.988234 Z-0.125000 F800.000000
G00 Z5.000000

(End cutting path id: line1548)


(Start cutting path id: line1550)
(Change tool to Default tool)

G00 Z5.000000
G00 X114.914903 Y150.329024

G00 Z4.875000 (Fast pre-penetrate)
G01 Z-0.125000 F400.0(Penetrate)
G01 X114.914903 Y150.329024 Z-0.125000 F800.000000
G00 Z5.000000

(End cutting path id: line1550)


(Start cutting path id: line1552)
(Change tool to Default tool)

G00 Z5.000000
G00 X113.723413 Y148.668314

G00 Z4.875000 (Fast pre-penetrate)
G01 Z-0.125000 F400.0(Penetrate)
G01 X113.723413 Y148.668314 Z-0.125000 F800.000000
G00 Z5.000000

(End cutting path id: line1552)


(Start cutting path id: line1554)
(Change tool to Default tool)

G00 Z5.000000
G00 X112.056503 Y148.231194

G00 Z4.875000 (Fast pre-penetrate)
G01 Z-0.125000 F400.0(Penetrate)
G01 X112.056503 Y148.231194 Z-0.125000 F800.000000
G00 Z5.000000

(End cutting path id: line1554)


(Start cutting path id: line1556)
(Change tool to Default tool)

G00 Z5.000000
G00 X112.420133 Y146.000754

G00 Z4.875000 (Fast pre-penetrate)
G01 Z-0.125000 F400.0(Penetrate)
G01 X112.420133 Y146.000754 Z-0.125000 F800.000000
G00 Z5.000000

(End cutting path id: line1556)


(Start cutting path id: line1558)
(Change tool to Default tool)

G00 Z5.000000
G00 X114.147243 Y145.872964

G00 Z4.875000 (Fast pre-penetrate)
G01 Z-0.125000 F400.0(Penetrate)
G01 X114.147243 Y145.872964 Z-0.125000 F800.000000
G00 Z5.000000

(End cutting path id: line1558)


(Start cutting path id: line1560)
(Change tool to Default tool)

G00 Z5.000000
G00 X115.876233 Y146.000754

G00 Z4.875000 (Fast pre-penetrate)
G01 Z-0.125000 F400.0(Penetrate)
G01 X115.876233 Y146.000754 Z-0.125000 F800.000000
G00 Z5.000000

(End cutting path id: line1560)


(Start cutting path id: line1562)
(Change tool to Default tool)

G00 Z5.000000
G00 X117.540823 Y147.054764

G00 Z4.875000 (Fast pre-penetrate)
G01 Z-0.125000 F400.0(Penetrate)
G01 X117.540823 Y147.054764 Z-0.125000 F800.000000
G00 Z5.000000

(End cutting path id: line1562)


(Start cutting path id: line1564)
(Change tool to Default tool)

G00 Z5.000000
G00 X119.128563 Y148.205954

G00 Z4.875000 (Fast pre-penetrate)
G01 Z-0.125000 F400.0(Penetrate)
G01 X119.128563 Y148.205954 Z-0.125000 F800.000000
G00 Z5.000000

(End cutting path id: line1564)


(Start cutting path id: line1566)
(Change tool to Default tool)

G00 Z5.000000
G00 X120.618823 Y149.526514

G00 Z4.875000 (Fast pre-penetrate)
G01 Z-0.125000 F400.0(Penetrate)
G01 X120.618823 Y149.526514 Z-0.125000 F800.000000
G00 Z5.000000

(End cutting path id: line1566)


(Start cutting path id: line1568)
(Change tool to Default tool)

G00 Z5.000000
G00 X121.983743 Y151.060744

G00 Z4.875000 (Fast pre-penetrate)
G01 Z-0.125000 F400.0(Penetrate)
G01 X121.983743 Y151.060744 Z-0.125000 F800.000000
G00 Z5.000000

(End cutting path id: line1568)


(Start cutting path id: line1570)
(Change tool to Default tool)

G00 Z5.000000
G00 X123.201073 Y152.797214

G00 Z4.875000 (Fast pre-penetrate)
G01 Z-0.125000 F400.0(Penetrate)
G01 X123.201073 Y152.797214 Z-0.125000 F800.000000
G00 Z5.000000

(End cutting path id: line1570)


(Start cutting path id: line1572)
(Change tool to Default tool)

G00 Z5.000000
G00 X124.940583 Y153.054894

G00 Z4.875000 (Fast pre-penetrate)
G01 Z-0.125000 F400.0(Penetrate)
G01 X124.940583 Y153.054894 Z-0.125000 F800.000000
G00 Z5.000000

(End cutting path id: line1572)


(Start cutting path id: line1574)
(Change tool to Default tool)

G00 Z5.000000
G00 X126.953983 Y152.446544

G00 Z4.875000 (Fast pre-penetrate)
G01 Z-0.125000 F400.0(Penetrate)
G01 X126.953983 Y152.446544 Z-0.125000 F800.000000
G00 Z5.000000

(End cutting path id: line1574)


(Start cutting path id: line1576)
(Change tool to Default tool)

G00 Z5.000000
G00 X125.628503 Y150.757174

G00 Z4.875000 (Fast pre-penetrate)
G01 Z-0.125000 F400.0(Penetrate)
G01 X125.628503 Y150.757174 Z-0.125000 F800.000000
G00 Z5.000000

(End cutting path id: line1576)


(Start cutting path id: line1578)
(Change tool to Default tool)

G00 Z5.000000
G00 X124.062863 Y149.879284

G00 Z4.875000 (Fast pre-penetrate)
G01 Z-0.125000 F400.0(Penetrate)
G01 X124.062863 Y149.879284 Z-0.125000 F800.000000
G00 Z5.000000

(End cutting path id: line1578)


(Start cutting path id: line1580)
(Change tool to Default tool)

G00 Z5.000000
G00 X122.582713 Y148.360594

G00 Z4.875000 (Fast pre-penetrate)
G01 Z-0.125000 F400.0(Penetrate)
G01 X122.582713 Y148.360594 Z-0.125000 F800.000000
G00 Z5.000000

(End cutting path id: line1580)


(Start cutting path id: line1582)
(Change tool to Default tool)

G00 Z5.000000
G00 X120.989373 Y147.065134

G00 Z4.875000 (Fast pre-penetrate)
G01 Z-0.125000 F400.0(Penetrate)
G01 X120.989373 Y147.065134 Z-0.125000 F800.000000
G00 Z5.000000

(End cutting path id: line1582)


(Start cutting path id: line1584)
(Change tool to Default tool)

G00 Z5.000000
G00 X119.315183 Y146.000754

G00 Z4.875000 (Fast pre-penetrate)
G01 Z-0.125000 F400.0(Penetrate)
G01 X119.315183 Y146.000754 Z-0.125000 F800.000000
G00 Z5.000000

(End cutting path id: line1584)


(Start cutting path id: line1586)
(Change tool to Default tool)

G00 Z5.000000
G00 X120.960293 Y144.576244

G00 Z4.875000 (Fast pre-penetrate)
G01 Z-0.125000 F400.0(Penetrate)
G01 X120.960293 Y144.576244 Z-0.125000 F800.000000
G00 Z5.000000

(End cutting path id: line1586)


(Start cutting path id: line1588)
(Change tool to Default tool)

G00 Z5.000000
G00 X119.128563 Y143.795574

G00 Z4.875000 (Fast pre-penetrate)
G01 Z-0.125000 F400.0(Penetrate)
G01 X119.128563 Y143.795574 Z-0.125000 F800.000000
G00 Z5.000000

(End cutting path id: line1588)


(Start cutting path id: line1590)
(Change tool to Default tool)

G00 Z5.000000
G00 X117.487333 Y144.454494

G00 Z4.875000 (Fast pre-penetrate)
G01 Z-0.125000 F400.0(Penetrate)
G01 X117.487333 Y144.454494 Z-0.125000 F800.000000
G00 Z5.000000

(End cutting path id: line1590)


(Start cutting path id: line1592)
(Change tool to Default tool)

G00 Z5.000000
G00 X115.626663 Y143.784774

G00 Z4.875000 (Fast pre-penetrate)
G01 Z-0.125000 F400.0(Penetrate)
G01 X115.626663 Y143.784774 Z-0.125000 F800.000000
G00 Z5.000000

(End cutting path id: line1592)


(Start cutting path id: line1594)
(Change tool to Default tool)

G00 Z5.000000
G00 X113.632333 Y143.094364

G00 Z4.875000 (Fast pre-penetrate)
G01 Z-0.125000 F400.0(Penetrate)
G01 X113.632333 Y143.094364 Z-0.125000 F800.000000
G00 Z5.000000

(End cutting path id: line1594)


(Start cutting path id: line1596)
(Change tool to Default tool)

G00 Z5.000000
G00 X112.056503 Y143.770304

G00 Z4.875000 (Fast pre-penetrate)
G01 Z-0.125000 F400.0(Penetrate)
G01 X112.056503 Y143.770304 Z-0.125000 F800.000000
G00 Z5.000000

(End cutting path id: line1596)


(Start cutting path id: line1598)
(Change tool to Default tool)

G00 Z5.000000
G00 X110.980293 Y141.781564

G00 Z4.875000 (Fast pre-penetrate)
G01 Z-0.125000 F400.0(Penetrate)
G01 X110.980293 Y141.781564 Z-0.125000 F800.000000
G00 Z5.000000

(End cutting path id: line1598)


(Start cutting path id: line1600)
(Change tool to Default tool)

G00 Z5.000000
G00 X112.257903 Y140.625174

G00 Z4.875000 (Fast pre-penetrate)
G01 Z-0.125000 F400.0(Penetrate)
G01 X112.257903 Y140.625174 Z-0.125000 F800.000000
G00 Z5.000000

(End cutting path id: line1600)


(Start cutting path id: line1602)
(Change tool to Default tool)

G00 Z5.000000
G00 X113.765713 Y139.762484

G00 Z4.875000 (Fast pre-penetrate)
G01 Z-0.125000 F400.0(Penetrate)
G01 X113.765713 Y139.762484 Z-0.125000 F800.000000
G00 Z5.000000

(End cutting path id: line1602)


(Start cutting path id: line1604)
(Change tool to Default tool)

G00 Z5.000000
G00 X115.735623 Y139.589074

G00 Z4.875000 (Fast pre-penetrate)
G01 Z-0.125000 F400.0(Penetrate)
G01 X115.735623 Y139.589074 Z-0.125000 F800.000000
G00 Z5.000000

(End cutting path id: line1604)


(Start cutting path id: line1606)
(Change tool to Default tool)

G00 Z5.000000
G00 X117.731943 Y139.612154

G00 Z4.875000 (Fast pre-penetrate)
G01 Z-0.125000 F400.0(Penetrate)
G01 X117.731943 Y139.612154 Z-0.125000 F800.000000
G00 Z5.000000

(End cutting path id: line1606)


(Start cutting path id: line1608)
(Change tool to Default tool)

G00 Z5.000000
G00 X119.716623 Y139.772594

G00 Z4.875000 (Fast pre-penetrate)
G01 Z-0.125000 F400.0(Penetrate)
G01 X119.716623 Y139.772594 Z-0.125000 F800.000000
G00 Z5.000000

(End cutting path id: line1608)


(Start cutting path id: line1610)
(Change tool to Default tool)

G00 Z5.000000
G00 X121.737563 Y140.176274

G00 Z4.875000 (Fast pre-penetrate)
G01 Z-0.125000 F400.0(Penetrate)
G01 X121.737563 Y140.176274 Z-0.125000 F800.000000
G00 Z5.000000

(End cutting path id: line1610)


(Start cutting path id: line1612)
(Change tool to Default tool)

G00 Z5.000000
G00 X123.745823 Y140.836064

G00 Z4.875000 (Fast pre-penetrate)
G01 Z-0.125000 F400.0(Penetrate)
G01 X123.745823 Y140.836064 Z-0.125000 F800.000000
G00 Z5.000000

(End cutting path id: line1612)


(Start cutting path id: line1614)
(Change tool to Default tool)

G00 Z5.000000
G00 X125.628503 Y141.244304

G00 Z4.875000 (Fast pre-penetrate)
G01 Z-0.125000 F400.0(Penetrate)
G01 X125.628503 Y141.244304 Z-0.125000 F800.000000
G00 Z5.000000

(End cutting path id: line1614)


(Start cutting path id: line1616)
(Change tool to Default tool)

G00 Z5.000000
G00 X126.976363 Y139.629654

G00 Z4.875000 (Fast pre-penetrate)
G01 Z-0.125000 F400.0(Penetrate)
G01 X126.976363 Y139.629654 Z-0.125000 F800.000000
G00 Z5.000000

(End cutting path id: line1616)


(Start cutting path id: line1618)
(Change tool to Default tool)

G00 Z5.000000
G00 X124.940583 Y138.946604

G00 Z4.875000 (Fast pre-penetrate)
G01 Z-0.125000 F400.0(Penetrate)
G01 X124.940583 Y138.946604 Z-0.125000 F800.000000
G00 Z5.000000

(End cutting path id: line1618)


(Start cutting path id: line1620)
(Change tool to Default tool)

G00 Z5.000000
G00 X126.091903 Y137.186334

G00 Z4.875000 (Fast pre-penetrate)
G01 Z-0.125000 F400.0(Penetrate)
G01 X126.091903 Y137.186334 Z-0.125000 F800.000000
G00 Z5.000000

(End cutting path id: line1620)


(Start cutting path id: line1622)
(Change tool to Default tool)

G00 Z5.000000
G00 X123.990623 Y136.744274

G00 Z4.875000 (Fast pre-penetrate)
G01 Z-0.125000 F400.0(Penetrate)
G01 X123.990623 Y136.744274 Z-0.125000 F800.000000
G00 Z5.000000

(End cutting path id: line1622)


(Start cutting path id: line1624)
(Change tool to Default tool)

G00 Z5.000000
G00 X122.681853 Y137.985674

G00 Z4.875000 (Fast pre-penetrate)
G01 Z-0.125000 F400.0(Penetrate)
G01 X122.681853 Y137.985674 Z-0.125000 F800.000000
G00 Z5.000000

(End cutting path id: line1624)


(Start cutting path id: line1626)
(Change tool to Default tool)

G00 Z5.000000
G00 X120.586243 Y137.660664

G00 Z4.875000 (Fast pre-penetrate)
G01 Z-0.125000 F400.0(Penetrate)
G01 X120.586243 Y137.660664 Z-0.125000 F800.000000
G00 Z5.000000

(End cutting path id: line1626)


(Start cutting path id: line1628)
(Change tool to Default tool)

G00 Z5.000000
G00 X118.534233 Y137.582274

G00 Z4.875000 (Fast pre-penetrate)
G01 Z-0.125000 F400.0(Penetrate)
G01 X118.534233 Y137.582274 Z-0.125000 F800.000000
G00 Z5.000000

(End cutting path id: line1628)


(Start cutting path id: line1630)
(Change tool to Default tool)

G00 Z5.000000
G00 X116.549513 Y137.742304

G00 Z4.875000 (Fast pre-penetrate)
G01 Z-0.125000 F400.0(Penetrate)
G01 X116.549513 Y137.742304 Z-0.125000 F800.000000
G00 Z5.000000

(End cutting path id: line1630)


(Start cutting path id: line1632)
(Change tool to Default tool)

G00 Z5.000000
G00 X117.015783 Y135.609984

G00 Z4.875000 (Fast pre-penetrate)
G01 Z-0.125000 F400.0(Penetrate)
G01 X117.015783 Y135.609984 Z-0.125000 F800.000000
G00 Z5.000000

(End cutting path id: line1632)


(Start cutting path id: line1634)
(Change tool to Default tool)

G00 Z5.000000
G00 X115.082403 Y136.086304

G00 Z4.875000 (Fast pre-penetrate)
G01 Z-0.125000 F400.0(Penetrate)
G01 X115.082403 Y136.086304 Z-0.125000 F800.000000
G00 Z5.000000

(End cutting path id: line1634)


(Start cutting path id: line1636)
(Change tool to Default tool)

G00 Z5.000000
G00 X114.119393 Y137.551394

G00 Z4.875000 (Fast pre-penetrate)
G01 Z-0.125000 F400.0(Penetrate)
G01 X114.119393 Y137.551394 Z-0.125000 F800.000000
G00 Z5.000000

(End cutting path id: line1636)


(Start cutting path id: line1638)
(Change tool to Default tool)

G00 Z5.000000
G00 X112.232843 Y138.144284

G00 Z4.875000 (Fast pre-penetrate)
G01 Z-0.125000 F400.0(Penetrate)
G01 X112.232843 Y138.144284 Z-0.125000 F800.000000
G00 Z5.000000

(End cutting path id: line1638)


(Start cutting path id: line1640)
(Change tool to Default tool)

G00 Z5.000000
G00 X110.149523 Y138.741484

G00 Z4.875000 (Fast pre-penetrate)
G01 Z-0.125000 F400.0(Penetrate)
G01 X110.149523 Y138.741484 Z-0.125000 F800.000000
G00 Z5.000000

(End cutting path id: line1640)


(Start cutting path id: line1642)
(Change tool to Default tool)

G00 Z5.000000
G00 X109.316573 Y140.250054

G00 Z4.875000 (Fast pre-penetrate)
G01 Z-0.125000 F400.0(Penetrate)
G01 X109.316573 Y140.250054 Z-0.125000 F800.000000
G00 Z5.000000

(End cutting path id: line1642)


(Start cutting path id: line1644)
(Change tool to Default tool)

G00 Z5.000000
G00 X107.245773 Y139.341684

G00 Z4.875000 (Fast pre-penetrate)
G01 Z-0.125000 F400.0(Penetrate)
G01 X107.245773 Y139.341684 Z-0.125000 F800.000000
G00 Z5.000000

(End cutting path id: line1644)


(Start cutting path id: line1646)
(Change tool to Default tool)

G00 Z5.000000
G00 X107.543753 Y137.644404

G00 Z4.875000 (Fast pre-penetrate)
G01 Z-0.125000 F400.0(Penetrate)
G01 X107.543753 Y137.644404 Z-0.125000 F800.000000
G00 Z5.000000

(End cutting path id: line1646)


(Start cutting path id: line1648)
(Change tool to Default tool)

G00 Z5.000000
G00 X108.317203 Y136.068284

G00 Z4.875000 (Fast pre-penetrate)
G01 Z-0.125000 F400.0(Penetrate)
G01 X108.317203 Y136.068284 Z-0.125000 F800.000000
G00 Z5.000000

(End cutting path id: line1648)


(Start cutting path id: line1650)
(Change tool to Default tool)

G00 Z5.000000
G00 X109.780433 Y134.738094

G00 Z4.875000 (Fast pre-penetrate)
G01 Z-0.125000 F400.0(Penetrate)
G01 X109.780433 Y134.738094 Z-0.125000 F800.000000
G00 Z5.000000

(End cutting path id: line1650)


(Start cutting path id: line1652)
(Change tool to Default tool)

G00 Z5.000000
G00 X109.384133 Y132.796384

G00 Z4.875000 (Fast pre-penetrate)
G01 Z-0.125000 F400.0(Penetrate)
G01 X109.384133 Y132.796384 Z-0.125000 F800.000000
G00 Z5.000000

(End cutting path id: line1652)


(Start cutting path id: line1654)
(Change tool to Default tool)

G00 Z5.000000
G00 X110.874703 Y131.476184

G00 Z4.875000 (Fast pre-penetrate)
G01 Z-0.125000 F400.0(Penetrate)
G01 X110.874703 Y131.476184 Z-0.125000 F800.000000
G00 Z5.000000

(End cutting path id: line1654)


(Start cutting path id: line1656)
(Change tool to Default tool)

G00 Z5.000000
G00 X112.562303 Y130.306124

G00 Z4.875000 (Fast pre-penetrate)
G01 Z-0.125000 F400.0(Penetrate)
G01 X112.562303 Y130.306124 Z-0.125000 F800.000000
G00 Z5.000000

(End cutting path id: line1656)


(Start cutting path id: line1658)
(Change tool to Default tool)

G00 Z5.000000
G00 X114.432843 Y129.306994

G00 Z4.875000 (Fast pre-penetrate)
G01 Z-0.125000 F400.0(Penetrate)
G01 X114.432843 Y129.306994 Z-0.125000 F800.000000
G00 Z5.000000

(End cutting path id: line1658)


(Start cutting path id: line1660)
(Change tool to Default tool)

G00 Z5.000000
G00 X115.871963 Y128.138964

G00 Z4.875000 (Fast pre-penetrate)
G01 Z-0.125000 F400.0(Penetrate)
G01 X115.871963 Y128.138964 Z-0.125000 F800.000000
G00 Z5.000000

(End cutting path id: line1660)


(Start cutting path id: line1662)
(Change tool to Default tool)

G00 Z5.000000
G00 X115.622473 Y126.050564

G00 Z4.875000 (Fast pre-penetrate)
G01 Z-0.125000 F400.0(Penetrate)
G01 X115.622473 Y126.050564 Z-0.125000 F800.000000
G00 Z5.000000

(End cutting path id: line1662)


(Start cutting path id: line1664)
(Change tool to Default tool)

G00 Z5.000000
G00 X113.728593 Y127.062574

G00 Z4.875000 (Fast pre-penetrate)
G01 Z-0.125000 F400.0(Penetrate)
G01 X113.728593 Y127.062574 Z-0.125000 F800.000000
G00 Z5.000000

(End cutting path id: line1664)


(Start cutting path id: line1666)
(Change tool to Default tool)

G00 Z5.000000
G00 X113.238353 Y125.017204

G00 Z4.875000 (Fast pre-penetrate)
G01 Z-0.125000 F400.0(Penetrate)
G01 X113.238353 Y125.017204 Z-0.125000 F800.000000
G00 Z5.000000

(End cutting path id: line1666)


(Start cutting path id: line1668)
(Change tool to Default tool)

G00 Z5.000000
G00 X111.474763 Y126.242224

G00 Z4.875000 (Fast pre-penetrate)
G01 Z-0.125000 F400.0(Penetrate)
G01 X111.474763 Y126.242224 Z-0.125000 F800.000000
G00 Z5.000000

(End cutting path id: line1668)


(Start cutting path id: line1670)
(Change tool to Default tool)

G00 Z5.000000
G00 X111.640053 Y128.099804

G00 Z4.875000 (Fast pre-penetrate)
G01 Z-0.125000 F400.0(Penetrate)
G01 X111.640053 Y128.099804 Z-0.125000 F800.000000
G00 Z5.000000

(End cutting path id: line1670)


(Start cutting path id: line1672)
(Change tool to Default tool)

G00 Z5.000000
G00 X109.954043 Y129.386054

G00 Z4.875000 (Fast pre-penetrate)
G01 Z-0.125000 F400.0(Penetrate)
G01 X109.954043 Y129.386054 Z-0.125000 F800.000000
G00 Z5.000000

(End cutting path id: line1672)


(Start cutting path id: line1674)
(Change tool to Default tool)

G00 Z5.000000
G00 X108.475983 Y130.811624

G00 Z4.875000 (Fast pre-penetrate)
G01 Z-0.125000 F400.0(Penetrate)
G01 X108.475983 Y130.811624 Z-0.125000 F800.000000
G00 Z5.000000

(End cutting path id: line1674)


(Start cutting path id: line1676)
(Change tool to Default tool)

G00 Z5.000000
G00 X107.216473 Y132.353864

G00 Z4.875000 (Fast pre-penetrate)
G01 Z-0.125000 F400.0(Penetrate)
G01 X107.216473 Y132.353864 Z-0.125000 F800.000000
G00 Z5.000000

(End cutting path id: line1676)


(Start cutting path id: line1678)
(Change tool to Default tool)

G00 Z5.000000
G00 X107.260643 Y134.094014

G00 Z4.875000 (Fast pre-penetrate)
G01 Z-0.125000 F400.0(Penetrate)
G01 X107.260643 Y134.094014 Z-0.125000 F800.000000
G00 Z5.000000

(End cutting path id: line1678)


(Start cutting path id: line1680)
(Change tool to Default tool)

G00 Z5.000000
G00 X106.117513 Y135.707664

G00 Z4.875000 (Fast pre-penetrate)
G01 Z-0.125000 F400.0(Penetrate)
G01 X106.117513 Y135.707664 Z-0.125000 F800.000000
G00 Z5.000000

(End cutting path id: line1680)


(Start cutting path id: line2180)
(Change tool to Default tool)

G00 Z5.000000
G00 X103.891803 Y135.828354

G00 Z4.875000 (Fast pre-penetrate)
G01 Z-0.125000 F400.0(Penetrate)
G01 X103.891803 Y135.828354 Z-0.125000 F800.000000
G00 Z5.000000

(End cutting path id: line2180)


(Start cutting path id: line1682)
(Change tool to Default tool)

G00 Z5.000000
G00 X104.722933 Y137.452854

G00 Z4.875000 (Fast pre-penetrate)
G01 Z-0.125000 F400.0(Penetrate)
G01 X104.722933 Y137.452854 Z-0.125000 F800.000000
G00 Z5.000000

(End cutting path id: line1682)


(Start cutting path id: line1684)
(Change tool to Default tool)

G00 Z5.000000
G00 X104.992223 Y139.154934

G00 Z4.875000 (Fast pre-penetrate)
G01 Z-0.125000 F400.0(Penetrate)
G01 X104.992223 Y139.154934 Z-0.125000 F800.000000
G00 Z5.000000

(End cutting path id: line1684)


(Start cutting path id: line1686)
(Change tool to Default tool)

G00 Z5.000000
G00 X102.800123 Y139.710044

G00 Z4.875000 (Fast pre-penetrate)
G01 Z-0.125000 F400.0(Penetrate)
G01 X102.800123 Y139.710044 Z-0.125000 F800.000000
G00 Z5.000000

(End cutting path id: line1686)


(Start cutting path id: line1688)
(Change tool to Default tool)

G00 Z5.000000
G00 X101.992743 Y138.187634

G00 Z4.875000 (Fast pre-penetrate)
G01 Z-0.125000 F400.0(Penetrate)
G01 X101.992743 Y138.187634 Z-0.125000 F800.000000
G00 Z5.000000

(End cutting path id: line1688)


(Start cutting path id: line1690)
(Change tool to Default tool)

G00 Z5.000000
G00 X101.744033 Y136.424684

G00 Z4.875000 (Fast pre-penetrate)
G01 Z-0.125000 F400.0(Penetrate)
G01 X101.744033 Y136.424684 Z-0.125000 F800.000000
G00 Z5.000000

(End cutting path id: line1690)


(Start cutting path id: line1692)
(Change tool to Default tool)

G00 Z5.000000
G00 X102.103883 Y134.480194

G00 Z4.875000 (Fast pre-penetrate)
G01 Z-0.125000 F400.0(Penetrate)
G01 X102.103883 Y134.480194 Z-0.125000 F800.000000
G00 Z5.000000

(End cutting path id: line1692)


(Start cutting path id: line1694)
(Change tool to Default tool)

G00 Z5.000000
G00 X100.684654 Y133.146984

G00 Z4.875000 (Fast pre-penetrate)
G01 Z-0.125000 F400.0(Penetrate)
G01 X100.684654 Y133.146984 Z-0.125000 F800.000000
G00 Z5.000000

(End cutting path id: line1694)


(Start cutting path id: line1696)
(Change tool to Default tool)

G00 Z5.000000
G00 X101.083183 Y131.196104

G00 Z4.875000 (Fast pre-penetrate)
G01 Z-0.125000 F400.0(Penetrate)
G01 X101.083183 Y131.196104 Z-0.125000 F800.000000
G00 Z5.000000

(End cutting path id: line1696)


(Start cutting path id: line1698)
(Change tool to Default tool)

G00 Z5.000000
G00 X101.729423 Y129.246884

G00 Z4.875000 (Fast pre-penetrate)
G01 Z-0.125000 F400.0(Penetrate)
G01 X101.729423 Y129.246884 Z-0.125000 F800.000000
G00 Z5.000000

(End cutting path id: line1698)


(Start cutting path id: line1700)
(Change tool to Default tool)

G00 Z5.000000
G00 X102.624563 Y127.324464

G00 Z4.875000 (Fast pre-penetrate)
G01 Z-0.125000 F400.0(Penetrate)
G01 X102.624563 Y127.324464 Z-0.125000 F800.000000
G00 Z5.000000

(End cutting path id: line1700)


(Start cutting path id: line1702)
(Change tool to Default tool)

G00 Z5.000000
G00 X101.977953 Y125.689154

G00 Z4.875000 (Fast pre-penetrate)
G01 Z-0.125000 F400.0(Penetrate)
G01 X101.977953 Y125.689154 Z-0.125000 F800.000000
G00 Z5.000000

(End cutting path id: line1702)


(Start cutting path id: line1704)
(Change tool to Default tool)

G00 Z5.000000
G00 X100.444444 Y124.249634

G00 Z4.875000 (Fast pre-penetrate)
G01 Z-0.125000 F400.0(Penetrate)
G01 X100.444444 Y124.249634 Z-0.125000 F800.000000
G00 Z5.000000

(End cutting path id: line1704)


(Start cutting path id: line1706)
(Change tool to Default tool)

G00 Z5.000000
G00 X99.644154 Y126.242224

G00 Z4.875000 (Fast pre-penetrate)
G01 Z-0.125000 F400.0(Penetrate)
G01 X99.644154 Y126.242224 Z-0.125000 F800.000000
G00 Z5.000000

(End cutting path id: line1706)


(Start cutting path id: line1708)
(Change tool to Default tool)

G00 Z5.000000
G00 X99.666674 Y128.037044

G00 Z4.875000 (Fast pre-penetrate)
G01 Z-0.125000 F400.0(Penetrate)
G01 X99.666674 Y128.037044 Z-0.125000 F800.000000
G00 Z5.000000

(End cutting path id: line1708)


(Start cutting path id: line1710)
(Change tool to Default tool)

G00 Z5.000000
G00 X99.091534 Y130.078274

G00 Z4.875000 (Fast pre-penetrate)
G01 Z-0.125000 F400.0(Penetrate)
G01 X99.091534 Y130.078274 Z-0.125000 F800.000000
G00 Z5.000000

(End cutting path id: line1710)


(Start cutting path id: line1712)
(Change tool to Default tool)

G00 Z5.000000
G00 X98.766294 Y132.105854

G00 Z4.875000 (Fast pre-penetrate)
G01 Z-0.125000 F400.0(Penetrate)
G01 X98.766294 Y132.105854 Z-0.125000 F800.000000
G00 Z5.000000

(End cutting path id: line1712)


(Start cutting path id: line1714)
(Change tool to Default tool)

G00 Z5.000000
G00 X98.685904 Y134.095374

G00 Z4.875000 (Fast pre-penetrate)
G01 Z-0.125000 F400.0(Penetrate)
G01 X98.685904 Y134.095374 Z-0.125000 F800.000000
G00 Z5.000000

(End cutting path id: line1714)


(Start cutting path id: line1716)
(Change tool to Default tool)

G00 Z5.000000
G00 X99.708124 Y135.492384

G00 Z4.875000 (Fast pre-penetrate)
G01 Z-0.125000 F400.0(Penetrate)
G01 X99.708124 Y135.492384 Z-0.125000 F800.000000
G00 Z5.000000

(End cutting path id: line1716)


(Start cutting path id: line1718)
(Change tool to Default tool)

G00 Z5.000000
G00 X99.774624 Y137.468794

G00 Z4.875000 (Fast pre-penetrate)
G01 Z-0.125000 F400.0(Penetrate)
G01 X99.774624 Y137.468794 Z-0.125000 F800.000000
G00 Z5.000000

(End cutting path id: line1718)


(Start cutting path id: line1720)
(Change tool to Default tool)

G00 Z5.000000
G00 X98.075744 Y138.911864

G00 Z4.875000 (Fast pre-penetrate)
G01 Z-0.125000 F400.0(Penetrate)
G01 X98.075744 Y138.911864 Z-0.125000 F800.000000
G00 Z5.000000

(End cutting path id: line1720)


(Start cutting path id: line1722)
(Change tool to Default tool)

G00 Z5.000000
G00 X99.649114 Y139.769104

G00 Z4.875000 (Fast pre-penetrate)
G01 Z-0.125000 F400.0(Penetrate)
G01 X99.649114 Y139.769104 Z-0.125000 F800.000000
G00 Z5.000000

(End cutting path id: line1722)


(Start cutting path id: line1724)
(Change tool to Default tool)

G00 Z5.000000
G00 X100.907024 Y140.946854

G00 Z4.875000 (Fast pre-penetrate)
G01 Z-0.125000 F400.0(Penetrate)
G01 X100.907024 Y140.946854 Z-0.125000 F800.000000
G00 Z5.000000

(End cutting path id: line1724)


(Start cutting path id: line1726)
(Change tool to Default tool)

G00 Z5.000000
G00 X99.518144 Y142.731364

G00 Z4.875000 (Fast pre-penetrate)
G01 Z-0.125000 F400.0(Penetrate)
G01 X99.518144 Y142.731364 Z-0.125000 F800.000000
G00 Z5.000000

(End cutting path id: line1726)


(Start cutting path id: line1728)
(Change tool to Default tool)

G00 Z5.000000
G00 X97.945904 Y142.025834

G00 Z4.875000 (Fast pre-penetrate)
G01 Z-0.125000 F400.0(Penetrate)
G01 X97.945904 Y142.025834 Z-0.125000 F800.000000
G00 Z5.000000

(End cutting path id: line1728)


(Start cutting path id: line1730)
(Change tool to Default tool)

G00 Z5.000000
G00 X96.726844 Y140.686334

G00 Z4.875000 (Fast pre-penetrate)
G01 Z-0.125000 F400.0(Penetrate)
G01 X96.726844 Y140.686334 Z-0.125000 F800.000000
G00 Z5.000000

(End cutting path id: line1730)


(Start cutting path id: line1732)
(Change tool to Default tool)

G00 Z5.000000
G00 X95.836564 Y138.920504

G00 Z4.875000 (Fast pre-penetrate)
G01 Z-0.125000 F400.0(Penetrate)
G01 X95.836564 Y138.920504 Z-0.125000 F800.000000
G00 Z5.000000

(End cutting path id: line1732)


(Start cutting path id: line1734)
(Change tool to Default tool)

G00 Z5.000000
G00 X93.940554 Y138.653394

G00 Z4.875000 (Fast pre-penetrate)
G01 Z-0.125000 F400.0(Penetrate)
G01 X93.940554 Y138.653394 Z-0.125000 F800.000000
G00 Z5.000000

(End cutting path id: line1734)


(Start cutting path id: line1736)
(Change tool to Default tool)

G00 Z5.000000
G00 X93.087131 Y136.854374

G00 Z4.875000 (Fast pre-penetrate)
G01 Z-0.125000 F400.0(Penetrate)
G01 X93.087131 Y136.854374 Z-0.125000 F800.000000
G00 Z5.000000

(End cutting path id: line1736)


(Start cutting path id: line1738)
(Change tool to Default tool)

G00 Z5.000000
G00 X92.432834 Y134.907904

G00 Z4.875000 (Fast pre-penetrate)
G01 Z-0.125000 F400.0(Penetrate)
G01 X92.432834 Y134.907904 Z-0.125000 F800.000000
G00 Z5.000000

(End cutting path id: line1738)


(Start cutting path id: line1740)
(Change tool to Default tool)

G00 Z5.000000
G00 X91.993543 Y132.833234

G00 Z4.875000 (Fast pre-penetrate)
G01 Z-0.125000 F400.0(Penetrate)
G01 X91.993543 Y132.833234 Z-0.125000 F800.000000
G00 Z5.000000

(End cutting path id: line1740)


(Start cutting path id: line1742)
(Change tool to Default tool)

G00 Z5.000000
G00 X91.405758 Y130.998704

G00 Z4.875000 (Fast pre-penetrate)
G01 Z-0.125000 F400.0(Penetrate)
G01 X91.405758 Y130.998704 Z-0.125000 F800.000000
G00 Z5.000000

(End cutting path id: line1742)


(Start cutting path id: line1744)
(Change tool to Default tool)

G00 Z5.000000
G00 X89.333491 Y130.638754

G00 Z4.875000 (Fast pre-penetrate)
G01 Z-0.125000 F400.0(Penetrate)
G01 X89.333491 Y130.638754 Z-0.125000 F800.000000
G00 Z5.000000

(End cutting path id: line1744)


(Start cutting path id: line1746)
(Change tool to Default tool)

G00 Z5.000000
G00 X89.759817 Y132.743254

G00 Z4.875000 (Fast pre-penetrate)
G01 Z-0.125000 F400.0(Penetrate)
G01 X89.759817 Y132.743254 Z-0.125000 F800.000000
G00 Z5.000000

(End cutting path id: line1746)


(Start cutting path id: line1748)
(Change tool to Default tool)

G00 Z5.000000
G00 X87.659811 Y132.626294

G00 Z4.875000 (Fast pre-penetrate)
G01 Z-0.125000 F400.0(Penetrate)
G01 X87.659811 Y132.626294 Z-0.125000 F800.000000
G00 Z5.000000

(End cutting path id: line1748)


(Start cutting path id: line1750)
(Change tool to Default tool)

G00 Z5.000000
G00 X88.327532 Y134.667164

G00 Z4.875000 (Fast pre-penetrate)
G01 Z-0.125000 F400.0(Penetrate)
G01 X88.327532 Y134.667164 Z-0.125000 F800.000000
G00 Z5.000000

(End cutting path id: line1750)


(Start cutting path id: line1752)
(Change tool to Default tool)

G00 Z5.000000
G00 X90.056983 Y135.179854

G00 Z4.875000 (Fast pre-penetrate)
G01 Z-0.125000 F400.0(Penetrate)
G01 X90.056983 Y135.179854 Z-0.125000 F800.000000
G00 Z5.000000

(End cutting path id: line1752)


(Start cutting path id: line1754)
(Change tool to Default tool)

G00 Z5.000000
G00 X90.823379 Y137.157194

G00 Z4.875000 (Fast pre-penetrate)
G01 Z-0.125000 F400.0(Penetrate)
G01 X90.823379 Y137.157194 Z-0.125000 F800.000000
G00 Z5.000000

(End cutting path id: line1754)


(Start cutting path id: line1756)
(Change tool to Default tool)

G00 Z5.000000
G00 X91.781494 Y138.973524

G00 Z4.875000 (Fast pre-penetrate)
G01 Z-0.125000 F400.0(Penetrate)
G01 X91.781494 Y138.973524 Z-0.125000 F800.000000
G00 Z5.000000

(End cutting path id: line1756)


(Start cutting path id: line1758)
(Change tool to Default tool)

G00 Z5.000000
G00 X92.912379 Y140.612364

G00 Z4.875000 (Fast pre-penetrate)
G01 Z-0.125000 F400.0(Penetrate)
G01 X92.912379 Y140.612364 Z-0.125000 F800.000000
G00 Z5.000000

(End cutting path id: line1758)


(Start cutting path id: line1760)
(Change tool to Default tool)

G00 Z5.000000
G00 X94.541844 Y141.176174

G00 Z4.875000 (Fast pre-penetrate)
G01 Z-0.125000 F400.0(Penetrate)
G01 X94.541844 Y141.176174 Z-0.125000 F800.000000
G00 Z5.000000

(End cutting path id: line1760)


(Start cutting path id: line1762)
(Change tool to Default tool)

G00 Z5.000000
G00 X95.790894 Y142.709334

G00 Z4.875000 (Fast pre-penetrate)
G01 Z-0.125000 F400.0(Penetrate)
G01 X95.790894 Y142.709334 Z-0.125000 F800.000000
G00 Z5.000000

(End cutting path id: line1762)


(Start cutting path id: line1764)
(Change tool to Default tool)

G00 Z5.000000
G00 X95.311694 Y144.886254

G00 Z4.875000 (Fast pre-penetrate)
G01 Z-0.125000 F400.0(Penetrate)
G01 X95.311694 Y144.886254 Z-0.125000 F800.000000
G00 Z5.000000

(End cutting path id: line1764)


(Start cutting path id: line1766)
(Change tool to Default tool)

G00 Z5.000000
G00 X97.067774 Y144.713304

G00 Z4.875000 (Fast pre-penetrate)
G01 Z-0.125000 F400.0(Penetrate)
G01 X97.067774 Y144.713304 Z-0.125000 F800.000000
G00 Z5.000000

(End cutting path id: line1766)


(Start cutting path id: line1768)
(Change tool to Default tool)

G00 Z5.000000
G00 X98.783904 Y144.870084

G00 Z4.875000 (Fast pre-penetrate)
G01 Z-0.125000 F400.0(Penetrate)
G01 X98.783904 Y144.870084 Z-0.125000 F800.000000
G00 Z5.000000

(End cutting path id: line1768)


(Start cutting path id: line1770)
(Change tool to Default tool)

G00 Z5.000000
G00 X98.783904 Y147.131384

G00 Z4.875000 (Fast pre-penetrate)
G01 Z-0.125000 F400.0(Penetrate)
G01 X98.783904 Y147.131384 Z-0.125000 F800.000000
G00 Z5.000000

(End cutting path id: line1770)


(Start cutting path id: line1772)
(Change tool to Default tool)

G00 Z5.000000
G00 X97.109854 Y147.540314

G00 Z4.875000 (Fast pre-penetrate)
G01 Z-0.125000 F400.0(Penetrate)
G01 X97.109854 Y147.540314 Z-0.125000 F800.000000
G00 Z5.000000

(End cutting path id: line1772)


(Start cutting path id: line1774)
(Change tool to Default tool)

G00 Z5.000000
G00 X95.311694 Y147.115274

G00 Z4.875000 (Fast pre-penetrate)
G01 Z-0.125000 F400.0(Penetrate)
G01 X95.311694 Y147.115274 Z-0.125000 F800.000000
G00 Z5.000000

(End cutting path id: line1774)


(Start cutting path id: line1776)
(Change tool to Default tool)

G00 Z5.000000
G00 X93.534385 Y146.248284

G00 Z4.875000 (Fast pre-penetrate)
G01 Z-0.125000 F400.0(Penetrate)
G01 X93.534385 Y146.248284 Z-0.125000 F800.000000
G00 Z5.000000

(End cutting path id: line1776)


(Start cutting path id: line1778)
(Change tool to Default tool)

G00 Z5.000000
G00 X91.856923 Y147.106954

G00 Z4.875000 (Fast pre-penetrate)
G01 Z-0.125000 F400.0(Penetrate)
G01 X91.856923 Y147.106954 Z-0.125000 F800.000000
G00 Z5.000000

(End cutting path id: line1778)


(Start cutting path id: line1780)
(Change tool to Default tool)

G00 Z5.000000
G00 X90.093929 Y146.181404

G00 Z4.875000 (Fast pre-penetrate)
G01 Z-0.125000 F400.0(Penetrate)
G01 X90.093929 Y146.181404 Z-0.125000 F800.000000
G00 Z5.000000

(End cutting path id: line1780)


(Start cutting path id: line1782)
(Change tool to Default tool)

G00 Z5.000000
G00 X88.401506 Y145.018374

G00 Z4.875000 (Fast pre-penetrate)
G01 Z-0.125000 F400.0(Penetrate)
G01 X88.401506 Y145.018374 Z-0.125000 F800.000000
G00 Z5.000000

(End cutting path id: line1782)


(Start cutting path id: line1784)
(Change tool to Default tool)

G00 Z5.000000
G00 X86.803974 Y143.623684

G00 Z4.875000 (Fast pre-penetrate)
G01 Z-0.125000 F400.0(Penetrate)
G01 X86.803974 Y143.623684 Z-0.125000 F800.000000
G00 Z5.000000

(End cutting path id: line1784)


(Start cutting path id: line1786)
(Change tool to Default tool)

G00 Z5.000000
G00 X85.073968 Y143.606364

G00 Z4.875000 (Fast pre-penetrate)
G01 Z-0.125000 F400.0(Penetrate)
G01 X85.073968 Y143.606364 Z-0.125000 F800.000000
G00 Z5.000000

(End cutting path id: line1786)


(Start cutting path id: line1788)
(Change tool to Default tool)

G00 Z5.000000
G00 X83.255117 Y144.662584

G00 Z4.875000 (Fast pre-penetrate)
G01 Z-0.125000 F400.0(Penetrate)
G01 X83.255117 Y144.662584 Z-0.125000 F800.000000
G00 Z5.000000

(End cutting path id: line1788)


(Start cutting path id: line1790)
(Change tool to Default tool)

G00 Z5.000000
G00 X84.934479 Y146.000754

G00 Z4.875000 (Fast pre-penetrate)
G01 Z-0.125000 F400.0(Penetrate)
G01 X84.934479 Y146.000754 Z-0.125000 F800.000000
G00 Z5.000000

(End cutting path id: line1790)


(Start cutting path id: line1792)
(Change tool to Default tool)

G00 Z5.000000
G00 X86.665581 Y146.663054

G00 Z4.875000 (Fast pre-penetrate)
G01 Z-0.125000 F400.0(Penetrate)
G01 X86.665581 Y146.663054 Z-0.125000 F800.000000
G00 Z5.000000

(End cutting path id: line1792)


(Start cutting path id: line1794)
(Change tool to Default tool)

G00 Z5.000000
G00 X88.466104 Y147.783394

G00 Z4.875000 (Fast pre-penetrate)
G01 Z-0.125000 F400.0(Penetrate)
G01 X88.466104 Y147.783394 Z-0.125000 F800.000000
G00 Z5.000000

(End cutting path id: line1794)


(Start cutting path id: line1796)
(Change tool to Default tool)

G00 Z5.000000
G00 X90.331687 Y148.658424

G00 Z4.875000 (Fast pre-penetrate)
G01 Z-0.125000 F400.0(Penetrate)
G01 X90.331687 Y148.658424 Z-0.125000 F800.000000
G00 Z5.000000

(End cutting path id: line1796)


(Start cutting path id: line1798)
(Change tool to Default tool)

G00 Z5.000000
G00 X92.211819 Y149.290654

G00 Z4.875000 (Fast pre-penetrate)
G01 Z-0.125000 F400.0(Penetrate)
G01 X92.211819 Y149.290654 Z-0.125000 F800.000000
G00 Z5.000000

(End cutting path id: line1798)


(Start cutting path id: line1800)
(Change tool to Default tool)

G00 Z5.000000
G00 X93.868714 Y148.827534

G00 Z4.875000 (Fast pre-penetrate)
G01 Z-0.125000 F400.0(Penetrate)
G01 X93.868714 Y148.827534 Z-0.125000 F800.000000
G00 Z5.000000

(End cutting path id: line1800)


(Start cutting path id: line1802)
(Change tool to Default tool)

G00 Z5.000000
G00 X95.790894 Y149.292154

G00 Z4.875000 (Fast pre-penetrate)
G01 Z-0.125000 F400.0(Penetrate)
G01 X95.790894 Y149.292154 Z-0.125000 F800.000000
G00 Z5.000000

(End cutting path id: line1802)


(Start cutting path id: line1452)
(Change tool to Default tool)

G00 Z5.000000
G00 X96.726844 Y151.315154

G00 Z4.875000 (Fast pre-penetrate)
G01 Z-0.125000 F400.0(Penetrate)
G01 X96.726844 Y151.315154 Z-0.125000 F800.000000
G00 Z5.000000

(End cutting path id: line1452)


(Start cutting path id: line1454)
(Change tool to Default tool)

G00 Z5.000000
G00 X98.067554 Y150.200464

G00 Z4.875000 (Fast pre-penetrate)
G01 Z-0.125000 F400.0(Penetrate)
G01 X98.067554 Y150.200464 Z-0.125000 F800.000000
G00 Z5.000000

(End cutting path id: line1454)


(Start cutting path id: line1456)
(Change tool to Default tool)

G00 Z5.000000
G00 X99.518144 Y149.270144

G00 Z4.875000 (Fast pre-penetrate)
G01 Z-0.125000 F400.0(Penetrate)
G01 X99.518144 Y149.270144 Z-0.125000 F800.000000
G00 Z5.000000

(End cutting path id: line1456)


(Start cutting path id: line1458)
(Change tool to Default tool)

G00 Z5.000000
G00 X100.907024 Y151.054624

G00 Z4.875000 (Fast pre-penetrate)
G01 Z-0.125000 F400.0(Penetrate)
G01 X100.907024 Y151.054624 Z-0.125000 F800.000000
G00 Z5.000000

(End cutting path id: line1458)


(Start cutting path id: line1460)
(Change tool to Default tool)

G00 Z5.000000
G00 X99.837144 Y152.405504

G00 Z4.875000 (Fast pre-penetrate)
G01 Z-0.125000 F400.0(Penetrate)
G01 X99.837144 Y152.405504 Z-0.125000 F800.000000
G00 Z5.000000

(End cutting path id: line1460)


(Start cutting path id: line1462)
(Change tool to Default tool)

G00 Z5.000000
G00 X98.075744 Y153.089694

G00 Z4.875000 (Fast pre-penetrate)
G01 Z-0.125000 F400.0(Penetrate)
G01 X98.075744 Y153.089694 Z-0.125000 F800.000000
G00 Z5.000000

(End cutting path id: line1462)


(Start cutting path id: line1212)
(Change tool to Default tool)

G00 Z5.000000
G00 X96.136144 Y153.475074

G00 Z4.875000 (Fast pre-penetrate)
G01 Z-0.125000 F400.0(Penetrate)
G01 X96.136144 Y153.475074 Z-0.125000 F800.000000
G00 Z5.000000

(End cutting path id: line1212)


(Start cutting path id: line1214)
(Change tool to Default tool)

G00 Z5.000000
G00 X95.269614 Y155.116764

G00 Z4.875000 (Fast pre-penetrate)
G01 Z-0.125000 F400.0(Penetrate)
G01 X95.269614 Y155.116764 Z-0.125000 F800.000000
G00 Z5.000000

(End cutting path id: line1214)


(Start cutting path id: line1216)
(Change tool to Default tool)

G00 Z5.000000
G00 X93.304179 Y155.435934

G00 Z4.875000 (Fast pre-penetrate)
G01 Z-0.125000 F400.0(Penetrate)
G01 X93.304179 Y155.435934 Z-0.125000 F800.000000
G00 Z5.000000

(End cutting path id: line1216)


(Start cutting path id: line1218)
(Change tool to Default tool)

G00 Z5.000000
G00 X91.252484 Y155.522884

G00 Z4.875000 (Fast pre-penetrate)
G01 Z-0.125000 F400.0(Penetrate)
G01 X91.252484 Y155.522884 Z-0.125000 F800.000000
G00 Z5.000000

(End cutting path id: line1218)


(Start cutting path id: line1082)
(Change tool to Default tool)

G00 Z5.000000
G00 X89.145017 Y155.363394

G00 Z4.875000 (Fast pre-penetrate)
G01 Z-0.125000 F400.0(Penetrate)
G01 X89.145017 Y155.363394 Z-0.125000 F800.000000
G00 Z5.000000

(End cutting path id: line1082)


(Start cutting path id: line1084)
(Change tool to Default tool)

G00 Z5.000000
G00 X87.128297 Y155.257214

G00 Z4.875000 (Fast pre-penetrate)
G01 Z-0.125000 F400.0(Penetrate)
G01 X87.128297 Y155.257214 Z-0.125000 F800.000000
G00 Z5.000000

(End cutting path id: line1084)


(Start cutting path id: line1086)
(Change tool to Default tool)

G00 Z5.000000
G00 X86.189121 Y157.139184

G00 Z4.875000 (Fast pre-penetrate)
G01 Z-0.125000 F400.0(Penetrate)
G01 X86.189121 Y157.139184 Z-0.125000 F800.000000
G00 Z5.000000

(End cutting path id: line1086)


(Start cutting path id: line1080)
(Change tool to Default tool)

G00 Z5.000000
G00 X88.327532 Y157.334374

G00 Z4.875000 (Fast pre-penetrate)
G01 Z-0.125000 F400.0(Penetrate)
G01 X88.327532 Y157.334374 Z-0.125000 F800.000000
G00 Z5.000000

(End cutting path id: line1080)


(Start cutting path id: line1078)
(Change tool to Default tool)

G00 Z5.000000
G00 X87.613229 Y159.312624

G00 Z4.875000 (Fast pre-penetrate)
G01 Z-0.125000 F400.0(Penetrate)
G01 X87.613229 Y159.312624 Z-0.125000 F800.000000
G00 Z5.000000

(End cutting path id: line1078)


(Start cutting path id: line1222)
(Change tool to Default tool)

G00 Z5.000000
G00 X89.759817 Y159.258254

G00 Z4.875000 (Fast pre-penetrate)
G01 Z-0.125000 F400.0(Penetrate)
G01 X89.759817 Y159.258254 Z-0.125000 F800.000000
G00 Z5.000000

(End cutting path id: line1222)


(Start cutting path id: line1220)
(Change tool to Default tool)

G00 Z5.000000
G00 X90.852772 Y157.880604

G00 Z4.875000 (Fast pre-penetrate)
G01 Z-0.125000 F400.0(Penetrate)
G01 X90.852772 Y157.880604 Z-0.125000 F800.000000
G00 Z5.000000

(End cutting path id: line1220)


(Start cutting path id: line1472)
(Change tool to Default tool)

G00 Z5.000000
G00 X92.965247 Y157.694584

G00 Z4.875000 (Fast pre-penetrate)
G01 Z-0.125000 F400.0(Penetrate)
G01 X92.965247 Y157.694584 Z-0.125000 F800.000000
G00 Z5.000000

(End cutting path id: line1472)


(Start cutting path id: line1470)
(Change tool to Default tool)

G00 Z5.000000
G00 X94.976404 Y157.279644

G00 Z4.875000 (Fast pre-penetrate)
G01 Z-0.125000 F400.0(Penetrate)
G01 X94.976404 Y157.279644 Z-0.125000 F800.000000
G00 Z5.000000

(End cutting path id: line1470)


(Start cutting path id: line1468)
(Change tool to Default tool)

G00 Z5.000000
G00 X96.865144 Y156.649324

G00 Z4.875000 (Fast pre-penetrate)
G01 Z-0.125000 F400.0(Penetrate)
G01 X96.865144 Y156.649324 Z-0.125000 F800.000000
G00 Z5.000000

(End cutting path id: line1468)


(Start cutting path id: line1466)
(Change tool to Default tool)

G00 Z5.000000
G00 X97.963234 Y155.326044

G00 Z4.875000 (Fast pre-penetrate)
G01 Z-0.125000 F400.0(Penetrate)
G01 X97.963234 Y155.326044 Z-0.125000 F800.000000
G00 Z5.000000

(End cutting path id: line1466)


(Start cutting path id: line1464)
(Change tool to Default tool)

G00 Z5.000000
G00 X99.774624 Y154.532734

G00 Z4.875000 (Fast pre-penetrate)
G01 Z-0.125000 F400.0(Penetrate)
G01 X99.774624 Y154.532734 Z-0.125000 F800.000000
G00 Z5.000000

(End cutting path id: line1464)


(Start cutting path id: line10764)
(Change tool to Default tool)

G00 Z5.000000
G00 X101.744033 Y155.576814

G00 Z4.875000 (Fast pre-penetrate)
G01 Z-0.125000 F400.0(Penetrate)
G01 X101.744033 Y155.576814 Z-0.125000 F800.000000
G00 Z5.000000

(End cutting path id: line10764)


(Start cutting path id: line10766)
(Change tool to Default tool)

G00 Z5.000000
G00 X102.226813 Y153.916534

G00 Z4.875000 (Fast pre-penetrate)
G01 Z-0.125000 F400.0(Penetrate)
G01 X102.226813 Y153.916534 Z-0.125000 F800.000000
G00 Z5.000000

(End cutting path id: line10766)


(Start cutting path id: line10768)
(Change tool to Default tool)

G00 Z5.000000
G00 X102.800123 Y152.291394

G00 Z4.875000 (Fast pre-penetrate)
G01 Z-0.125000 F400.0(Penetrate)
G01 X102.800123 Y152.291394 Z-0.125000 F800.000000
G00 Z5.000000

(End cutting path id: line10768)


(Start cutting path id: line1496)
(Change tool to Default tool)

G00 Z5.000000
G00 X104.992223 Y152.846594

G00 Z4.875000 (Fast pre-penetrate)
G01 Z-0.125000 F400.0(Penetrate)
G01 X104.992223 Y152.846594 Z-0.125000 F800.000000
G00 Z5.000000

(End cutting path id: line1496)


(Start cutting path id: line1494)
(Change tool to Default tool)

G00 Z5.000000
G00 X104.977663 Y154.569754

G00 Z4.875000 (Fast pre-penetrate)
G01 Z-0.125000 F400.0(Penetrate)
G01 X104.977663 Y154.569754 Z-0.125000 F800.000000
G00 Z5.000000

(End cutting path id: line1494)


(Start cutting path id: line4362)
(Change tool to Default tool)

G00 Z5.000000
G00 X103.891803 Y156.173154

G00 Z4.875000 (Fast pre-penetrate)
G01 Z-0.125000 F400.0(Penetrate)
G01 X103.891803 Y156.173154 Z-0.125000 F800.000000
G00 Z5.000000

(End cutting path id: line4362)


(Start cutting path id: line4364)
(Change tool to Default tool)

G00 Z5.000000
G00 X102.580943 Y157.653764

G00 Z4.875000 (Fast pre-penetrate)
G01 Z-0.125000 F400.0(Penetrate)
G01 X102.580943 Y157.653764 Z-0.125000 F800.000000
G00 Z5.000000

(End cutting path id: line4364)


(Start cutting path id: line4366)
(Change tool to Default tool)

G00 Z5.000000
G00 X102.809673 Y159.470054

G00 Z4.875000 (Fast pre-penetrate)
G01 Z-0.125000 F400.0(Penetrate)
G01 X102.809673 Y159.470054 Z-0.125000 F800.000000
G00 Z5.000000

(End cutting path id: line4366)


(Start cutting path id: line4368)
(Change tool to Default tool)

G00 Z5.000000
G00 X101.430203 Y160.905964

G00 Z4.875000 (Fast pre-penetrate)
G01 Z-0.125000 F400.0(Penetrate)
G01 X101.430203 Y160.905964 Z-0.125000 F800.000000
G00 Z5.000000

(End cutting path id: line4368)


(Start cutting path id: line4370)
(Change tool to Default tool)

G00 Z5.000000
G00 X99.842244 Y162.207954

G00 Z4.875000 (Fast pre-penetrate)
G01 Z-0.125000 F400.0(Penetrate)
G01 X99.842244 Y162.207954 Z-0.125000 F800.000000
G00 Z5.000000

(End cutting path id: line4370)


(Start cutting path id: line1474)
(Change tool to Default tool)

G00 Z5.000000
G00 X98.058184 Y163.354424

G00 Z4.875000 (Fast pre-penetrate)
G01 Z-0.125000 F400.0(Penetrate)
G01 X98.058184 Y163.354424 Z-0.125000 F800.000000
G00 Z5.000000

(End cutting path id: line1474)


(Start cutting path id: line1476)
(Change tool to Default tool)

G00 Z5.000000
G00 X97.390324 Y164.938914

G00 Z4.875000 (Fast pre-penetrate)
G01 Z-0.125000 F400.0(Penetrate)
G01 X97.390324 Y164.938914 Z-0.125000 F800.000000
G00 Z5.000000

(End cutting path id: line1476)


(Start cutting path id: line1478)
(Change tool to Default tool)

G00 Z5.000000
G00 X97.880574 Y166.984284

G00 Z4.875000 (Fast pre-penetrate)
G01 Z-0.125000 F400.0(Penetrate)
G01 X97.880574 Y166.984284 Z-0.125000 F800.000000
G00 Z5.000000

(End cutting path id: line1478)


(Start cutting path id: line1480)
(Change tool to Default tool)

G00 Z5.000000
G00 X99.644154 Y165.759274

G00 Z4.875000 (Fast pre-penetrate)
G01 Z-0.125000 F400.0(Penetrate)
G01 X99.644154 Y165.759274 Z-0.125000 F800.000000
G00 Z5.000000

(End cutting path id: line1480)


(Start cutting path id: line1482)
(Change tool to Default tool)

G00 Z5.000000
G00 X100.939014 Y164.332944

G00 Z4.875000 (Fast pre-penetrate)
G01 Z-0.125000 F400.0(Penetrate)
G01 X100.939014 Y164.332944 Z-0.125000 F800.000000
G00 Z5.000000

(End cutting path id: line1482)


(Start cutting path id: line1484)
(Change tool to Default tool)

G00 Z5.000000
G00 X102.516063 Y162.915174

G00 Z4.875000 (Fast pre-penetrate)
G01 Z-0.125000 F400.0(Penetrate)
G01 X102.516063 Y162.915174 Z-0.125000 F800.000000
G00 Z5.000000

(End cutting path id: line1484)


(Start cutting path id: line1486)
(Change tool to Default tool)

G00 Z5.000000
G00 X103.874613 Y161.375274

G00 Z4.875000 (Fast pre-penetrate)
G01 Z-0.125000 F400.0(Penetrate)
G01 X103.874613 Y161.375274 Z-0.125000 F800.000000
G00 Z5.000000

(End cutting path id: line1486)


(Start cutting path id: line1488)
(Change tool to Default tool)

G00 Z5.000000
G00 X105.005913 Y159.736714

G00 Z4.875000 (Fast pre-penetrate)
G01 Z-0.125000 F400.0(Penetrate)
G01 X105.005913 Y159.736714 Z-0.125000 F800.000000
G00 Z5.000000

(End cutting path id: line1488)


(Start cutting path id: line1490)
(Change tool to Default tool)

G00 Z5.000000
G00 X105.155633 Y158.021634

G00 Z4.875000 (Fast pre-penetrate)
G01 Z-0.125000 F400.0(Penetrate)
G01 X105.155633 Y158.021634 Z-0.125000 F800.000000
G00 Z5.000000

(End cutting path id: line1490)


(Start cutting path id: line1492)
(Change tool to Default tool)

G00 Z5.000000
G00 X106.117513 Y156.293794

G00 Z4.875000 (Fast pre-penetrate)
G01 Z-0.125000 F400.0(Penetrate)
G01 X106.117513 Y156.293794 Z-0.125000 F800.000000
G00 Z5.000000

(End cutting path id: line1492)


(Start cutting path id: line1502)
(Change tool to Default tool)

G00 Z5.000000
G00 X108.317203 Y155.933184

G00 Z4.875000 (Fast pre-penetrate)
G01 Z-0.125000 F400.0(Penetrate)
G01 X108.317203 Y155.933184 Z-0.125000 F800.000000
G00 Z5.000000

(End cutting path id: line1502)


(Start cutting path id: line1500)
(Change tool to Default tool)

G00 Z5.000000
G00 X107.791513 Y154.294334

G00 Z4.875000 (Fast pre-penetrate)
G01 Z-0.125000 F400.0(Penetrate)
G01 X107.791513 Y154.294334 Z-0.125000 F800.000000
G00 Z5.000000

(End cutting path id: line1500)


(Start cutting path id: line1498)
(Change tool to Default tool)

G00 Z5.000000
G00 X107.245773 Y152.659824

G00 Z4.875000 (Fast pre-penetrate)
G01 Z-0.125000 F400.0(Penetrate)
G01 X107.245773 Y152.659824 Z-0.125000 F800.000000
G00 Z5.000000

(End cutting path id: line1498)


(Start cutting path id: line1508)
(Change tool to Default tool)

G00 Z5.000000
G00 X109.316573 Y151.751484

G00 Z4.875000 (Fast pre-penetrate)
G01 Z-0.125000 F400.0(Penetrate)
G01 X109.316573 Y151.751484 Z-0.125000 F800.000000
G00 Z5.000000

(End cutting path id: line1508)


(Start cutting path id: line1506)
(Change tool to Default tool)

G00 Z5.000000
G00 X110.363523 Y153.120264

G00 Z4.875000 (Fast pre-penetrate)
G01 Z-0.125000 F400.0(Penetrate)
G01 X110.363523 Y153.120264 Z-0.125000 F800.000000
G00 Z5.000000

(End cutting path id: line1506)


(Start cutting path id: line1504)
(Change tool to Default tool)

G00 Z5.000000
G00 X110.387923 Y155.108134

G00 Z4.875000 (Fast pre-penetrate)
G01 Z-0.125000 F400.0(Penetrate)
G01 X110.387923 Y155.108134 Z-0.125000 F800.000000
G00 Z5.000000

(End cutting path id: line1504)


(Start cutting path id: line4182)
