%
(Header)
(Generated by gcodetools from Inkscape.)
(Using default header. To add your own header create file "header" in the output dir.)
M3
(Header end.)
G21 (All units in mm)

(Start cutting path id: path6146)
(Change tool to Default tool)

G00 Z3.000000
G00 X101.419865 Y59.875466

G00 Z4.875000 (Fast pre-penetrate)
G01 Z-0.125000 F100.0(Penetrate)
G01 X106.731176 Y36.043346 Z-0.125000 F400.000000
G01 X100.499047 Y23.754664 Z-0.125000
G00 Z3.000000

(End cutting path id: path6146)


(Start cutting path id: path6144)
(Change tool to Default tool)

G00 Z3.000000
G00 X100.705689 Y59.928185

G00 Z4.875000 (Fast pre-penetrate)
G01 Z-0.125000 F100.0(Penetrate)
G01 X105.918107 Y36.194957 Z-0.125000 F400.000000
G01 X99.893822 Y23.698432 Z-0.125000
G00 Z3.000000

(End cutting path id: path6144)


(Start cutting path id: path6142)
(Change tool to Default tool)

G00 Z3.000000
G00 X99.991514 Y59.980903

G00 Z4.875000 (Fast pre-penetrate)
G01 Z-0.125000 F100.0(Penetrate)
G01 X105.105035 Y36.346571 Z-0.125000 F400.000000
G01 X99.288599 Y23.642198 Z-0.125000
G00 Z3.000000

(End cutting path id: path6142)


(Start cutting path id: path6140)
(Change tool to Default tool)

G00 Z3.000000
G00 X99.277341 Y60.033618

G00 Z4.875000 (Fast pre-penetrate)
G01 Z-0.125000 F100.0(Penetrate)
G01 X104.291964 Y36.498185 Z-0.125000 F400.000000
G01 X98.683373 Y23.585966 Z-0.125000
G00 Z3.000000

(End cutting path id: path6140)


(Start cutting path id: path6138)
(Change tool to Default tool)

G00 Z3.000000
G00 X98.563165 Y60.086336

G00 Z4.875000 (Fast pre-penetrate)
G01 Z-0.125000 F100.0(Penetrate)
G01 X103.478895 Y36.649797 Z-0.125000 F400.000000
G01 X98.078147 Y23.529734 Z-0.125000
G00 Z3.000000

(End cutting path id: path6138)


(Start cutting path id: path6136)
(Change tool to Default tool)

G00 Z3.000000
G00 X97.848989 Y60.139055

G00 Z4.875000 (Fast pre-penetrate)
G01 Z-0.125000 F100.0(Penetrate)
G01 X102.665823 Y36.801411 Z-0.125000 F400.000000
G01 X97.472922 Y23.473502 Z-0.125000
G00 Z3.000000

(End cutting path id: path6136)


(Start cutting path id: path6134)
(Change tool to Default tool)

G00 Z3.000000
G00 X97.134816 Y60.191770

G00 Z4.875000 (Fast pre-penetrate)
G01 Z-0.125000 F100.0(Penetrate)
G01 X101.852755 Y36.953022 Z-0.125000 F400.000000
G01 X96.867696 Y23.417270 Z-0.125000
G00 Z3.000000

(End cutting path id: path6134)



(Footer)
M5
G00 X0.0000 Y0.0000
M2
(Using default footer. To add your own footer create file "footer" in the output dir.)
(end)
%