%
(Header)
(Generated by gcodetools from Inkscape.)
(Using default header. To add your own header create file "header" in the output dir.)
M3
(Header end.)
G21 (All units in mm)

(Start cutting path id: path428)
(Change tool to Default tool)

G00 Z3.000000
G00 X92.144479 Y139.288542

G00 Z4.875000 (Fast pre-penetrate)
G01 Z-0.125000 F400.0(Penetrate)
G01 X102.407249 Y110.504963 Z-0.125000 F800.000000
G01 X99.433040 Y94.958362 Z-0.125000
G00 Z3.000000

(End cutting path id: path428)


(Start cutting path id: path356)
(Change tool to Default tool)

G00 Z3.000000
G00 X83.973960 Y128.938251

G00 Z4.875000 (Fast pre-penetrate)
G01 Z-0.125000 F400.0(Penetrate)
G01 X82.441294 Y111.950107 Z-0.125000 F800.000000
G01 X80.651581 Y95.219011 Z-0.125000
G00 Z3.000000

(End cutting path id: path356)


(Start cutting path id: path334)
(Change tool to Default tool)

G00 Z3.000000
G00 X78.665494 Y128.587581

G00 Z4.875000 (Fast pre-penetrate)
G01 Z-0.125000 F400.0(Penetrate)
G01 X78.034252 Y110.698013 Z-0.125000 F800.000000
G01 X75.148183 Y95.063272 Z-0.125000
G00 Z3.000000

(End cutting path id: path334)


(Start cutting path id: path310)
(Change tool to Default tool)

G00 Z3.000000
G00 X72.874441 Y128.205031

G00 Z4.875000 (Fast pre-penetrate)
G01 Z-0.125000 F400.0(Penetrate)
G01 X73.226567 Y109.332095 Z-0.125000 F800.000000
G01 X69.144477 Y94.893375 Z-0.125000
G00 Z3.000000

(End cutting path id: path310)


(Start cutting path id: path286)
(Change tool to Default tool)

G00 Z3.000000
G00 X67.083386 Y127.822481

G00 Z4.875000 (Fast pre-penetrate)
G01 Z-0.125000 F400.0(Penetrate)
G01 X68.418882 Y107.966175 Z-0.125000 F800.000000
G01 X63.140769 Y94.723478 Z-0.125000
G00 Z3.000000

(End cutting path id: path286)


(Start cutting path id: path284)
(Change tool to Default tool)

G00 Z3.000000
G00 X66.600800 Y127.790601

G00 Z4.875000 (Fast pre-penetrate)
G01 Z-0.125000 F400.0(Penetrate)
G01 X68.018243 Y107.852349 Z-0.125000 F800.000000
G01 X62.640461 Y94.709321 Z-0.125000
G00 Z3.000000

(End cutting path id: path284)


(Start cutting path id: path288)
(Change tool to Default tool)

G00 Z3.000000
G00 X67.565975 Y127.854361

G00 Z4.875000 (Fast pre-penetrate)
G01 Z-0.125000 F400.0(Penetrate)
G01 X68.819522 Y108.080001 Z-0.125000 F800.000000
G01 X63.641079 Y94.737636 Z-0.125000
G00 Z3.000000

(End cutting path id: path288)


(Start cutting path id: path290)
(Change tool to Default tool)

G00 Z3.000000
G00 X68.048561 Y127.886240

G00 Z4.875000 (Fast pre-penetrate)
G01 Z-0.125000 F400.0(Penetrate)
G01 X69.220164 Y108.193830 Z-0.125000 F800.000000
G01 X64.141387 Y94.751794 Z-0.125000
G00 Z3.000000

(End cutting path id: path290)


(Start cutting path id: path292)
(Change tool to Default tool)

G00 Z3.000000
G00 X68.531150 Y127.918120

G00 Z4.875000 (Fast pre-penetrate)
G01 Z-0.125000 F400.0(Penetrate)
G01 X69.620803 Y108.307656 Z-0.125000 F800.000000
G01 X64.641695 Y94.765952 Z-0.125000
G00 Z3.000000

(End cutting path id: path292)


(Start cutting path id: path294)
(Change tool to Default tool)

G00 Z3.000000
G00 X69.013739 Y127.949997

G00 Z4.875000 (Fast pre-penetrate)
G01 Z-0.125000 F400.0(Penetrate)
G01 X70.021443 Y108.421483 Z-0.125000 F800.000000
G01 X65.142006 Y94.780110 Z-0.125000
G00 Z3.000000

(End cutting path id: path294)


(Start cutting path id: path296)
(Change tool to Default tool)

G00 Z3.000000
G00 X69.496325 Y127.981876

G00 Z4.875000 (Fast pre-penetrate)
G01 Z-0.125000 F400.0(Penetrate)
G01 X70.422085 Y108.535309 Z-0.125000 F800.000000
G01 X65.642314 Y94.794268 Z-0.125000
G00 Z3.000000

(End cutting path id: path296)


(Start cutting path id: path298)
(Change tool to Default tool)

G00 Z3.000000
G00 X69.978914 Y128.013756

G00 Z4.875000 (Fast pre-penetrate)
G01 Z-0.125000 F400.0(Penetrate)
G01 X70.822725 Y108.649135 Z-0.125000 F800.000000
G01 X66.142624 Y94.808428 Z-0.125000
G00 Z3.000000

(End cutting path id: path298)


(Start cutting path id: path300)
(Change tool to Default tool)

G00 Z3.000000
G00 X70.461503 Y128.045636

G00 Z4.875000 (Fast pre-penetrate)
G01 Z-0.125000 F400.0(Penetrate)
G01 X71.223364 Y108.762961 Z-0.125000 F800.000000
G01 X66.642932 Y94.822586 Z-0.125000
G00 Z3.000000

(End cutting path id: path300)


(Start cutting path id: path302)
(Change tool to Default tool)

G00 Z3.000000
G00 X70.944089 Y128.077515

G00 Z4.875000 (Fast pre-penetrate)
G01 Z-0.125000 F400.0(Penetrate)
G01 X71.624006 Y108.876788 Z-0.125000 F800.000000
G01 X67.143240 Y94.836744 Z-0.125000
G00 Z3.000000

(End cutting path id: path302)


(Start cutting path id: path304)
(Change tool to Default tool)

G00 Z3.000000
G00 X71.426678 Y128.109395

G00 Z4.875000 (Fast pre-penetrate)
G01 Z-0.125000 F400.0(Penetrate)
G01 X72.024646 Y108.990614 Z-0.125000 F800.000000
G01 X67.643551 Y94.850902 Z-0.125000
G00 Z3.000000

(End cutting path id: path304)


(Start cutting path id: path306)
(Change tool to Default tool)

G00 Z3.000000
G00 X71.909264 Y128.141272

G00 Z4.875000 (Fast pre-penetrate)
G01 Z-0.125000 F400.0(Penetrate)
G01 X72.425285 Y109.104443 Z-0.125000 F800.000000
G01 X68.143859 Y94.865059 Z-0.125000
G00 Z3.000000

(End cutting path id: path306)


(Start cutting path id: path308)
(Change tool to Default tool)

G00 Z3.000000
G00 X72.391853 Y128.173151

G00 Z4.875000 (Fast pre-penetrate)
G01 Z-0.125000 F400.0(Penetrate)
G01 X72.825927 Y109.218269 Z-0.125000 F800.000000
G01 X68.644167 Y94.879217 Z-0.125000
G00 Z3.000000

(End cutting path id: path308)


(Start cutting path id: path312)
(Change tool to Default tool)

G00 Z3.000000
G00 X73.357028 Y128.236911

G00 Z4.875000 (Fast pre-penetrate)
G01 Z-0.125000 F400.0(Penetrate)
G01 X73.627207 Y109.445922 Z-0.125000 F800.000000
G01 X69.644785 Y94.907533 Z-0.125000
G00 Z3.000000

(End cutting path id: path312)


(Start cutting path id: path314)
(Change tool to Default tool)

G00 Z3.000000
G00 X73.839616 Y128.268790

G00 Z4.875000 (Fast pre-penetrate)
G01 Z-0.125000 F400.0(Penetrate)
G01 X74.027849 Y109.559748 Z-0.125000 F800.000000
G01 X70.145096 Y94.921691 Z-0.125000
G00 Z3.000000

(End cutting path id: path314)


(Start cutting path id: path316)
(Change tool to Default tool)

G00 Z3.000000
G00 X74.322205 Y128.300667

G00 Z4.875000 (Fast pre-penetrate)
G01 Z-0.125000 F400.0(Penetrate)
G01 X74.428488 Y109.673574 Z-0.125000 F800.000000
G01 X70.645404 Y94.935849 Z-0.125000
G00 Z3.000000

(End cutting path id: path316)


(Start cutting path id: path318)
(Change tool to Default tool)

G00 Z3.000000
G00 X74.804791 Y128.332547

G00 Z4.875000 (Fast pre-penetrate)
G01 Z-0.125000 F400.0(Penetrate)
G01 X74.829133 Y109.787400 Z-0.125000 F800.000000
G01 X71.145717 Y94.950006 Z-0.125000
G00 Z3.000000

(End cutting path id: path318)


(Start cutting path id: path320)
(Change tool to Default tool)

G00 Z3.000000
G00 X75.287380 Y128.364426

G00 Z4.875000 (Fast pre-penetrate)
G01 Z-0.125000 F400.0(Penetrate)
G01 X75.229767 Y109.901229 Z-0.125000 F800.000000
G01 X71.646022 Y94.964164 Z-0.125000
G00 Z3.000000

(End cutting path id: path320)


(Start cutting path id: path322)
(Change tool to Default tool)

G00 Z3.000000
G00 X75.769969 Y128.396306

G00 Z4.875000 (Fast pre-penetrate)
G01 Z-0.125000 F400.0(Penetrate)
G01 X75.630409 Y110.015056 Z-0.125000 F800.000000
G01 X72.146330 Y94.978322 Z-0.125000
G00 Z3.000000

(End cutting path id: path322)


(Start cutting path id: path324)
(Change tool to Default tool)

G00 Z3.000000
G00 X76.252555 Y128.428186

G00 Z4.875000 (Fast pre-penetrate)
G01 Z-0.125000 F400.0(Penetrate)
G01 X76.031049 Y110.128882 Z-0.125000 F800.000000
G01 X72.646638 Y94.992480 Z-0.125000
G00 Z3.000000

(End cutting path id: path324)


(Start cutting path id: path326)
(Change tool to Default tool)

G00 Z3.000000
G00 X76.735144 Y128.460065

G00 Z4.875000 (Fast pre-penetrate)
G01 Z-0.125000 F400.0(Penetrate)
G01 X76.431688 Y110.242708 Z-0.125000 F800.000000
G01 X73.146949 Y95.006638 Z-0.125000
G00 Z3.000000

(End cutting path id: path326)


(Start cutting path id: path328)
(Change tool to Default tool)

G00 Z3.000000
G00 X77.217730 Y128.491942

G00 Z4.875000 (Fast pre-penetrate)
G01 Z-0.125000 F400.0(Penetrate)
G01 X76.832331 Y110.356534 Z-0.125000 F800.000000
G01 X73.647257 Y95.020798 Z-0.125000
G00 Z3.000000

(End cutting path id: path328)


(Start cutting path id: path330)
(Change tool to Default tool)

G00 Z3.000000
G00 X77.700319 Y128.523822

G00 Z4.875000 (Fast pre-penetrate)
G01 Z-0.125000 F400.0(Penetrate)
G01 X77.232970 Y110.470361 Z-0.125000 F800.000000
G01 X74.147567 Y95.034956 Z-0.125000
G00 Z3.000000

(End cutting path id: path330)


(Start cutting path id: path332)
(Change tool to Default tool)

G00 Z3.000000
G00 X78.182908 Y128.555701

G00 Z4.875000 (Fast pre-penetrate)
G01 Z-0.125000 F400.0(Penetrate)
G01 X77.633610 Y110.584187 Z-0.125000 F800.000000
G01 X74.647875 Y95.049114 Z-0.125000
G00 Z3.000000

(End cutting path id: path332)


(Start cutting path id: path336)
(Change tool to Default tool)

G00 Z3.000000
G00 X79.148083 Y128.619461

G00 Z4.875000 (Fast pre-penetrate)
G01 Z-0.125000 F400.0(Penetrate)
G01 X78.434891 Y110.811842 Z-0.125000 F800.000000
G01 X75.648494 Y95.077430 Z-0.125000
G00 Z3.000000

(End cutting path id: path336)


(Start cutting path id: path338)
(Change tool to Default tool)

G00 Z3.000000
G00 X79.630672 Y128.651337

G00 Z4.875000 (Fast pre-penetrate)
G01 Z-0.125000 F400.0(Penetrate)
G01 X78.835531 Y110.925668 Z-0.125000 F800.000000
G01 X76.148802 Y95.091587 Z-0.125000
G00 Z3.000000

(End cutting path id: path338)


(Start cutting path id: path340)
(Change tool to Default tool)

G00 Z3.000000
G00 X80.113258 Y128.683217

G00 Z4.875000 (Fast pre-penetrate)
G01 Z-0.125000 F400.0(Penetrate)
G01 X79.236173 Y111.039494 Z-0.125000 F800.000000
G01 X76.649109 Y95.105745 Z-0.125000
G00 Z3.000000

(End cutting path id: path340)


(Start cutting path id: path342)
(Change tool to Default tool)

G00 Z3.000000
G00 X80.595846 Y128.715097

G00 Z4.875000 (Fast pre-penetrate)
G01 Z-0.125000 F400.0(Penetrate)
G01 X79.636812 Y111.153321 Z-0.125000 F800.000000
G01 X77.149420 Y95.119903 Z-0.125000
G00 Z3.000000

(End cutting path id: path342)


(Start cutting path id: path344)
(Change tool to Default tool)

G00 Z3.000000
G00 X81.078433 Y128.746976

G00 Z4.875000 (Fast pre-penetrate)
G01 Z-0.125000 F400.0(Penetrate)
G01 X80.037452 Y111.267147 Z-0.125000 F800.000000
G01 X77.649728 Y95.134061 Z-0.125000
G00 Z3.000000

(End cutting path id: path344)


(Start cutting path id: path346)
(Change tool to Default tool)

G00 Z3.000000
G00 X81.561021 Y128.778856

G00 Z4.875000 (Fast pre-penetrate)
G01 Z-0.125000 F400.0(Penetrate)
G01 X80.438094 Y111.380973 Z-0.125000 F800.000000
G01 X78.150039 Y95.148219 Z-0.125000
G00 Z3.000000

(End cutting path id: path346)


(Start cutting path id: path348)
(Change tool to Default tool)

G00 Z3.000000
G00 X82.043610 Y128.810736

G00 Z4.875000 (Fast pre-penetrate)
G01 Z-0.125000 F400.0(Penetrate)
G01 X80.838734 Y111.494799 Z-0.125000 F800.000000
G01 X78.650347 Y95.162377 Z-0.125000
G00 Z3.000000

(End cutting path id: path348)


(Start cutting path id: path350)
(Change tool to Default tool)

G00 Z3.000000
G00 X82.526196 Y128.842612

G00 Z4.875000 (Fast pre-penetrate)
G01 Z-0.125000 F400.0(Penetrate)
G01 X81.239373 Y111.608628 Z-0.125000 F800.000000
G01 X79.150654 Y95.176534 Z-0.125000
G00 Z3.000000

(End cutting path id: path350)


(Start cutting path id: path352)
(Change tool to Default tool)

G00 Z3.000000
G00 X83.008785 Y128.874492

G00 Z4.875000 (Fast pre-penetrate)
G01 Z-0.125000 F400.0(Penetrate)
G01 X81.640013 Y111.722455 Z-0.125000 F800.000000
G01 X79.650965 Y95.190692 Z-0.125000
G00 Z3.000000

(End cutting path id: path352)


(Start cutting path id: path354)
(Change tool to Default tool)

G00 Z3.000000
G00 X83.491374 Y128.906372

G00 Z4.875000 (Fast pre-penetrate)
G01 Z-0.125000 F400.0(Penetrate)
G01 X82.040655 Y111.836281 Z-0.125000 F800.000000
G01 X80.151273 Y95.204850 Z-0.125000
G00 Z3.000000

(End cutting path id: path354)


(Start cutting path id: path358)
(Change tool to Default tool)

G00 Z3.000000
G00 X84.200919 Y129.225758

G00 Z4.875000 (Fast pre-penetrate)
G01 Z-0.125000 F400.0(Penetrate)
G01 X82.995905 Y111.909965 Z-0.125000 F800.000000
G01 X81.173288 Y95.211769 Z-0.125000
G00 Z3.000000

(End cutting path id: path358)


(Start cutting path id: path360)
(Change tool to Default tool)

G00 Z3.000000
G00 X84.427879 Y129.513267

G00 Z4.875000 (Fast pre-penetrate)
G01 Z-0.125000 F400.0(Penetrate)
G01 X83.550514 Y111.869822 Z-0.125000 F800.000000
G01 X81.694996 Y95.204530 Z-0.125000
G00 Z3.000000

(End cutting path id: path360)


(Start cutting path id: path362)
(Change tool to Default tool)

G00 Z3.000000
G00 X84.654838 Y129.800776

G00 Z4.875000 (Fast pre-penetrate)
G01 Z-0.125000 F400.0(Penetrate)
G01 X84.105125 Y111.829680 Z-0.125000 F800.000000
G01 X82.216703 Y95.197288 Z-0.125000
G00 Z3.000000

(End cutting path id: path362)


(Start cutting path id: path364)
(Change tool to Default tool)

G00 Z3.000000
G00 X84.881795 Y130.088282

G00 Z4.875000 (Fast pre-penetrate)
G01 Z-0.125000 F400.0(Penetrate)
G01 X84.659733 Y111.789534 Z-0.125000 F800.000000
G01 X82.738411 Y95.190049 Z-0.125000
G00 Z3.000000

(End cutting path id: path364)


(Start cutting path id: path366)
(Change tool to Default tool)

G00 Z3.000000
G00 X85.108754 Y130.375792

G00 Z4.875000 (Fast pre-penetrate)
G01 Z-0.125000 F400.0(Penetrate)
G01 X85.214344 Y111.749392 Z-0.125000 F800.000000
G01 X83.260118 Y95.182808 Z-0.125000
G00 Z3.000000

(End cutting path id: path366)


(Start cutting path id: path368)
(Change tool to Default tool)

G00 Z3.000000
G00 X85.335713 Y130.663301

G00 Z4.875000 (Fast pre-penetrate)
G01 Z-0.125000 F400.0(Penetrate)
G01 X85.768955 Y111.709249 Z-0.125000 F800.000000
G01 X83.781825 Y95.175569 Z-0.125000
G00 Z3.000000

(End cutting path id: path368)


(Start cutting path id: path370)
(Change tool to Default tool)

G00 Z3.000000
G00 X85.562673 Y130.950807

G00 Z4.875000 (Fast pre-penetrate)
G01 Z-0.125000 F400.0(Penetrate)
G01 X86.323563 Y111.669107 Z-0.125000 F800.000000
G01 X84.303533 Y95.168327 Z-0.125000
G00 Z3.000000

(End cutting path id: path370)


(Start cutting path id: path372)
(Change tool to Default tool)

G00 Z3.000000
G00 X85.789632 Y131.238316

G00 Z4.875000 (Fast pre-penetrate)
G01 Z-0.125000 F400.0(Penetrate)
G01 X86.878174 Y111.628964 Z-0.125000 F800.000000
G01 X84.825240 Y95.161088 Z-0.125000
G00 Z3.000000

(End cutting path id: path372)


(Start cutting path id: path374)
(Change tool to Default tool)

G00 Z3.000000
G00 X86.016591 Y131.525823

G00 Z4.875000 (Fast pre-penetrate)
G01 Z-0.125000 F400.0(Penetrate)
G01 X87.432782 Y111.588822 Z-0.125000 F800.000000
G01 X85.346948 Y95.153846 Z-0.125000
G00 Z3.000000

(End cutting path id: path374)


(Start cutting path id: path376)
(Change tool to Default tool)

G00 Z3.000000
G00 X86.243548 Y131.813332

G00 Z4.875000 (Fast pre-penetrate)
G01 Z-0.125000 F400.0(Penetrate)
G01 X87.987393 Y111.548679 Z-0.125000 F800.000000
G01 X85.868655 Y95.146607 Z-0.125000
G00 Z3.000000

(End cutting path id: path376)


(Start cutting path id: path378)
(Change tool to Default tool)

G00 Z3.000000
G00 X86.470507 Y132.100841

G00 Z4.875000 (Fast pre-penetrate)
G01 Z-0.125000 F400.0(Penetrate)
G01 X88.542002 Y111.508534 Z-0.125000 F800.000000
G01 X86.390362 Y95.139366 Z-0.125000
G00 Z3.000000

(End cutting path id: path378)


(Start cutting path id: path380)
(Change tool to Default tool)

G00 Z3.000000
G00 X86.697466 Y132.388347

G00 Z4.875000 (Fast pre-penetrate)
G01 Z-0.125000 F400.0(Penetrate)
G01 X89.096613 Y111.468391 Z-0.125000 F800.000000
G01 X86.912067 Y95.132127 Z-0.125000
G00 Z3.000000

(End cutting path id: path380)


(Start cutting path id: path382)
(Change tool to Default tool)

G00 Z3.000000
G00 X86.924426 Y132.675857

G00 Z4.875000 (Fast pre-penetrate)
G01 Z-0.125000 F400.0(Penetrate)
G01 X89.651223 Y111.428249 Z-0.125000 F800.000000
G01 X87.433775 Y95.124885 Z-0.125000
G00 Z3.000000

(End cutting path id: path382)


(Start cutting path id: path384)
(Change tool to Default tool)

G00 Z3.000000
G00 X87.151385 Y132.963366

G00 Z4.875000 (Fast pre-penetrate)
G01 Z-0.125000 F400.0(Penetrate)
G01 X90.205832 Y111.388106 Z-0.125000 F800.000000
G01 X87.955482 Y95.117646 Z-0.125000
G00 Z3.000000

(End cutting path id: path384)


(Start cutting path id: path386)
(Change tool to Default tool)

G00 Z3.000000
G00 X87.378344 Y133.250872

G00 Z4.875000 (Fast pre-penetrate)
G01 Z-0.125000 F400.0(Penetrate)
G01 X90.760443 Y111.347964 Z-0.125000 F800.000000
G01 X88.477189 Y95.110405 Z-0.125000
G00 Z3.000000

(End cutting path id: path386)


(Start cutting path id: path388)
(Change tool to Default tool)

G00 Z3.000000
G00 X87.605301 Y133.538381

G00 Z4.875000 (Fast pre-penetrate)
G01 Z-0.125000 F400.0(Penetrate)
G01 X91.315051 Y111.307821 Z-0.125000 F800.000000
G01 X88.998897 Y95.103166 Z-0.125000
G00 Z3.000000

(End cutting path id: path388)


(Start cutting path id: path390)
(Change tool to Default tool)

G00 Z3.000000
G00 X87.832260 Y133.825888

G00 Z4.875000 (Fast pre-penetrate)
G01 Z-0.125000 F400.0(Penetrate)
G01 X91.869662 Y111.267679 Z-0.125000 F800.000000
G01 X89.520604 Y95.095927 Z-0.125000
G00 Z3.000000

(End cutting path id: path390)


(Start cutting path id: path392)
(Change tool to Default tool)

G00 Z3.000000
G00 X88.059220 Y134.113397

G00 Z4.875000 (Fast pre-penetrate)
G01 Z-0.125000 F400.0(Penetrate)
G01 X92.424270 Y111.227536 Z-0.125000 F800.000000
G01 X90.042312 Y95.088685 Z-0.125000
G00 Z3.000000

(End cutting path id: path392)


(Start cutting path id: path394)
(Change tool to Default tool)

G00 Z3.000000
G00 X88.286179 Y134.400906

G00 Z4.875000 (Fast pre-penetrate)
G01 Z-0.125000 F400.0(Penetrate)
G01 X92.978881 Y111.187391 Z-0.125000 F800.000000
G01 X90.564019 Y95.081446 Z-0.125000
G00 Z3.000000

(End cutting path id: path394)


(Start cutting path id: path396)
(Change tool to Default tool)

G00 Z3.000000
G00 X88.513138 Y134.688412

G00 Z4.875000 (Fast pre-penetrate)
G01 Z-0.125000 F400.0(Penetrate)
G01 X93.533492 Y111.147249 Z-0.125000 F800.000000
G01 X91.085726 Y95.074204 Z-0.125000
G00 Z3.000000

(End cutting path id: path396)


(Start cutting path id: path398)
(Change tool to Default tool)

G00 Z3.000000
G00 X88.740095 Y134.975922

G00 Z4.875000 (Fast pre-penetrate)
G01 Z-0.125000 F400.0(Penetrate)
G01 X94.088100 Y111.107106 Z-0.125000 F800.000000
G01 X91.607434 Y95.066965 Z-0.125000
G00 Z3.000000

(End cutting path id: path398)


(Start cutting path id: path400)
(Change tool to Default tool)

G00 Z3.000000
G00 X88.967054 Y135.263428

G00 Z4.875000 (Fast pre-penetrate)
G01 Z-0.125000 F400.0(Penetrate)
G01 X94.642711 Y111.066963 Z-0.125000 F800.000000
G01 X92.129141 Y95.059724 Z-0.125000
G00 Z3.000000

(End cutting path id: path400)


(Start cutting path id: path402)
(Change tool to Default tool)

G00 Z3.000000
G00 X89.194013 Y135.550937

G00 Z4.875000 (Fast pre-penetrate)
G01 Z-0.125000 F400.0(Penetrate)
G01 X95.197320 Y111.026821 Z-0.125000 F800.000000
G01 X92.650849 Y95.052485 Z-0.125000
G00 Z3.000000

(End cutting path id: path402)


(Start cutting path id: path404)
(Change tool to Default tool)

G00 Z3.000000
G00 X89.420973 Y135.838446

G00 Z4.875000 (Fast pre-penetrate)
G01 Z-0.125000 F400.0(Penetrate)
G01 X95.751931 Y110.986678 Z-0.125000 F800.000000
G01 X93.172553 Y95.045243 Z-0.125000
G00 Z3.000000

(End cutting path id: path404)


(Start cutting path id: path406)
(Change tool to Default tool)

G00 Z3.000000
G00 X89.647932 Y136.125953

G00 Z4.875000 (Fast pre-penetrate)
G01 Z-0.125000 F400.0(Penetrate)
G01 X96.306542 Y110.946536 Z-0.125000 F800.000000
G01 X93.694261 Y95.038004 Z-0.125000
G00 Z3.000000

(End cutting path id: path406)


(Start cutting path id: path408)
(Change tool to Default tool)

G00 Z3.000000
G00 X89.874891 Y136.413462

G00 Z4.875000 (Fast pre-penetrate)
G01 Z-0.125000 F400.0(Penetrate)
G01 X96.861150 Y110.906391 Z-0.125000 F800.000000
G01 X94.215968 Y95.030762 Z-0.125000
G00 Z3.000000

(End cutting path id: path408)


(Start cutting path id: path410)
(Change tool to Default tool)

G00 Z3.000000
G00 X90.101848 Y136.700971

G00 Z4.875000 (Fast pre-penetrate)
G01 Z-0.125000 F400.0(Penetrate)
G01 X97.415761 Y110.866248 Z-0.125000 F800.000000
G01 X94.737676 Y95.023523 Z-0.125000
G00 Z3.000000

(End cutting path id: path410)


(Start cutting path id: path412)
(Change tool to Default tool)

G00 Z3.000000
G00 X90.328807 Y136.988477

G00 Z4.875000 (Fast pre-penetrate)
G01 Z-0.125000 F400.0(Penetrate)
G01 X97.970369 Y110.826106 Z-0.125000 F800.000000
G01 X95.259383 Y95.016282 Z-0.125000
G00 Z3.000000

(End cutting path id: path412)


(Start cutting path id: path414)
(Change tool to Default tool)

G00 Z3.000000
G00 X90.555767 Y137.275987

G00 Z4.875000 (Fast pre-penetrate)
G01 Z-0.125000 F400.0(Penetrate)
G01 X98.524980 Y110.785963 Z-0.125000 F800.000000
G01 X95.781090 Y95.009043 Z-0.125000
G00 Z3.000000

(End cutting path id: path414)


(Start cutting path id: path416)
(Change tool to Default tool)

G00 Z3.000000
G00 X90.782726 Y137.563493

G00 Z4.875000 (Fast pre-penetrate)
G01 Z-0.125000 F400.0(Penetrate)
G01 X99.079588 Y110.745821 Z-0.125000 F800.000000
G01 X96.302798 Y95.001801 Z-0.125000
G00 Z3.000000

(End cutting path id: path416)


(Start cutting path id: path418)
(Change tool to Default tool)

G00 Z3.000000
G00 X91.009685 Y137.851002

G00 Z4.875000 (Fast pre-penetrate)
G01 Z-0.125000 F400.0(Penetrate)
G01 X99.634199 Y110.705678 Z-0.125000 F800.000000
G01 X96.824505 Y94.994562 Z-0.125000
G00 Z3.000000

(End cutting path id: path418)


(Start cutting path id: path420)
(Change tool to Default tool)

G00 Z3.000000
G00 X91.236644 Y138.138511

G00 Z4.875000 (Fast pre-penetrate)
G01 Z-0.125000 F400.0(Penetrate)
G01 X100.188810 Y110.665535 Z-0.125000 F800.000000
G01 X97.346213 Y94.987321 Z-0.125000
G00 Z3.000000

(End cutting path id: path420)


(Start cutting path id: path422)
(Change tool to Default tool)

G00 Z3.000000
G00 X91.463601 Y138.426018

G00 Z4.875000 (Fast pre-penetrate)
G01 Z-0.125000 F400.0(Penetrate)
G01 X100.743419 Y110.625390 Z-0.125000 F800.000000
G01 X97.867920 Y94.980082 Z-0.125000
G00 Z3.000000

(End cutting path id: path422)


(Start cutting path id: path424)
(Change tool to Default tool)

G00 Z3.000000
G00 X91.690560 Y138.713527

G00 Z4.875000 (Fast pre-penetrate)
G01 Z-0.125000 F400.0(Penetrate)
G01 X101.298030 Y110.585248 Z-0.125000 F800.000000
G01 X98.389627 Y94.972843 Z-0.125000
G00 Z3.000000

(End cutting path id: path424)


(Start cutting path id: path426)
(Change tool to Default tool)

G00 Z3.000000
G00 X91.917520 Y139.001036

G00 Z4.875000 (Fast pre-penetrate)
G01 Z-0.125000 F400.0(Penetrate)
G01 X101.852638 Y110.545105 Z-0.125000 F800.000000
G01 X98.911335 Y94.965601 Z-0.125000
G00 Z3.000000

(End cutting path id: path426)



(Footer)
M5
G00 X0.0000 Y0.0000
M2
(Using default footer. To add your own footer create file "footer" in the output dir.)
(end)
%