%
(Header)
(Generated by gcodetools from Inkscape.)
(Using default header. To add your own header create file "header" in the output dir.)
M3
(Header end.)
G21 (All units in mm)

(Start cutting path id: polyline40766)
(Change tool to Default tool)

G00 Z3.000000
G00 X10.085817 Y227.621245

G00 Z4.875000 (Fast pre-penetrate)
G01 Z-0.125000 F400.0(Penetrate)
G01 X16.992598 Y227.358647 Z-0.125000 F800.000000
G01 X25.068227 Y227.273504 Z-0.125000
G01 X66.083910 Y227.375792 Z-0.125000
G01 X88.079356 Y227.270091 Z-0.125000
G01 X116.450300 Y227.533510 Z-0.125000
G01 X145.246297 Y227.268186 Z-0.125000
G01 X152.046821 Y227.359282 Z-0.125000
G01 X166.922973 Y227.816058 Z-0.125000
G00 Z3.000000

(End cutting path id: polyline40766)


(Start cutting path id: polyline40764)
(Change tool to Default tool)

G00 Z3.000000
G00 X10.085817 Y226.353152

G00 Z4.875000 (Fast pre-penetrate)
G01 Z-0.125000 F400.0(Penetrate)
G01 X17.736394 Y226.051977 Z-0.125000 F800.000000
G01 X26.343331 Y225.952917 Z-0.125000
G01 X64.490035 Y226.001865 Z-0.125000
G01 X84.679094 Y225.948181 Z-0.125000
G01 X114.325143 Y226.221072 Z-0.125000
G01 X142.908600 Y225.945271 Z-0.125000
G01 X148.646559 Y226.018613 Z-0.125000
G01 X160.866245 Y226.443507 Z-0.125000
G01 X166.922973 Y226.531745 Z-0.125000
G00 Z3.000000

(End cutting path id: polyline40764)


(Start cutting path id: polyline40762)
(Change tool to Default tool)

G00 Z3.000000
G00 X10.085817 Y225.081645

G00 Z4.875000 (Fast pre-penetrate)
G01 Z-0.125000 F400.0(Penetrate)
G01 X18.586472 Y224.743455 Z-0.125000 F800.000000
G01 X27.618410 Y224.632410 Z-0.125000
G01 X81.172576 Y224.627356 Z-0.125000
G01 X112.306242 Y224.910725 Z-0.125000
G01 X122.507028 Y224.860904 Z-0.125000
G01 X140.677186 Y224.622144 Z-0.125000
G01 X147.052684 Y224.715145 Z-0.125000
G01 X159.697397 Y225.171365 Z-0.125000
G01 X166.922973 Y225.169249 Z-0.125000
G00 Z3.000000

(End cutting path id: polyline40762)


(Start cutting path id: polyline40760)
(Change tool to Default tool)

G00 Z3.000000
G00 X10.085817 Y223.804424

G00 Z4.875000 (Fast pre-penetrate)
G01 Z-0.125000 F400.0(Penetrate)
G01 X21.349195 Y223.390881 Z-0.125000 F800.000000
G01 X35.375269 Y223.300605 Z-0.125000
G01 X77.984827 Y223.309654 Z-0.125000
G01 X110.287315 Y223.601489 Z-0.125000
G01 X120.806897 Y223.551112 Z-0.125000
G01 X139.508338 Y223.300261 Z-0.125000
G01 X145.140014 Y223.396278 Z-0.125000
G01 X157.891009 Y223.868056 Z-0.125000
G01 X162.141350 Y223.870755 Z-0.125000
G01 X166.922973 Y223.732484 Z-0.125000
G00 Z3.000000

(End cutting path id: polyline40760)


(Start cutting path id: polyline40758)
(Change tool to Default tool)

G00 Z3.000000
G00 X10.085817 Y222.519027

G00 Z4.875000 (Fast pre-penetrate)
G01 Z-0.125000 F400.0(Penetrate)
G01 X21.667965 Y222.092704 Z-0.125000 F800.000000
G01 X33.356368 Y221.981500 Z-0.125000
G01 X74.265795 Y221.992030 Z-0.125000
G01 X108.587184 Y222.292464 Z-0.125000
G01 X119.425536 Y222.240368 Z-0.125000
G01 X138.233233 Y221.978431 Z-0.125000
G01 X143.014857 Y222.063203 Z-0.125000
G01 X152.790616 Y222.476111 Z-0.125000
G01 X157.253470 Y222.562842 Z-0.125000
G01 X161.503784 Y222.493706 Z-0.125000
G01 X166.922973 Y222.242299 Z-0.125000
G00 Z3.000000

(End cutting path id: polyline40758)


(Start cutting path id: polyline40756)
(Change tool to Default tool)

G00 Z3.000000
G00 X10.085817 Y221.223231

G00 Z4.875000 (Fast pre-penetrate)
G01 Z-0.125000 F400.0(Penetrate)
G01 X22.518017 Y220.783759 Z-0.125000 F800.000000
G01 X33.037599 Y220.663136 Z-0.125000
G01 X70.759250 Y220.676894 Z-0.125000
G01 X106.993310 Y220.982805 Z-0.125000
G01 X118.362944 Y220.927772 Z-0.125000
G01 X136.851872 Y220.655542 Z-0.125000
G01 X141.420982 Y220.740076 Z-0.125000
G01 X150.771716 Y221.154096 Z-0.125000
G01 X155.022030 Y221.240032 Z-0.125000
G01 X159.803653 Y221.135416 Z-0.125000
G01 X166.922973 Y220.731477 Z-0.125000
G00 Z3.000000

(End cutting path id: polyline40756)


(Start cutting path id: polyline40754)
(Change tool to Default tool)

G00 Z3.000000
G00 X10.085817 Y219.915001

G00 Z4.875000 (Fast pre-penetrate)
G01 Z-0.125000 F400.0(Penetrate)
G01 X23.580609 Y219.469655 Z-0.125000 F800.000000
G01 X33.037599 Y219.345803 Z-0.125000
G01 X67.358988 Y219.362657 Z-0.125000
G01 X93.604775 Y219.627822 Z-0.125000
G01 X105.505692 Y219.671875 Z-0.125000
G01 X117.619148 Y219.612450 Z-0.125000
G01 X134.726715 Y219.330458 Z-0.125000
G01 X139.614595 Y219.404673 Z-0.125000
G01 X149.177841 Y219.839542 Z-0.125000
G01 X153.428156 Y219.916509 Z-0.125000
G01 X157.997266 Y219.787710 Z-0.125000
G01 X166.922973 Y219.237166 Z-0.125000
G00 Z3.000000

(End cutting path id: polyline40754)


(Start cutting path id: polyline40752)
(Change tool to Default tool)

G00 Z3.000000
G00 X10.085817 Y218.592694

G00 Z4.875000 (Fast pre-penetrate)
G01 Z-0.125000 F400.0(Penetrate)
G01 X13.804849 Y218.540651 Z-0.125000 F800.000000
G01 X25.386996 Y218.137162 Z-0.125000
G01 X34.525217 Y218.022042 Z-0.125000
G01 X64.277522 Y218.048394 Z-0.125000
G01 X91.267105 Y218.314988 Z-0.125000
G01 X104.124357 Y218.359200 Z-0.125000
G01 X116.769070 Y218.298743 Z-0.125000
G01 X133.664149 Y218.007543 Z-0.125000
G01 X138.339490 Y218.081520 Z-0.125000
G01 X147.583967 Y218.518188 Z-0.125000
G01 X151.728025 Y218.592985 Z-0.125000
G01 X155.872109 Y218.467520 Z-0.125000
G01 X166.922973 Y217.792966 Z-0.125000
G00 Z3.000000

(End cutting path id: polyline40752)


(Start cutting path id: polyline40750)
(Change tool to Default tool)

G00 Z3.000000
G00 X10.085817 Y217.255201

G00 Z4.875000 (Fast pre-penetrate)
G01 Z-0.125000 F400.0(Penetrate)
G01 X14.548645 Y217.230012 Z-0.125000 F800.000000
G01 X27.405897 Y216.800197 Z-0.125000
G01 X36.119091 Y216.697169 Z-0.125000
G01 X61.196030 Y216.730533 Z-0.125000
G01 X88.823152 Y216.999693 Z-0.125000
G01 X102.742996 Y217.044487 Z-0.125000
G01 X115.919017 Y216.985114 Z-0.125000
G01 X132.707814 Y216.684654 Z-0.125000
G01 X137.276924 Y216.761674 Z-0.125000
G01 X146.096349 Y217.194770 Z-0.125000
G01 X150.027894 Y217.270388 Z-0.125000
G01 X154.278234 Y217.130767 Z-0.125000
G01 X162.885146 Y216.531460 Z-0.125000
G01 X166.922973 Y216.422214 Z-0.125000
G00 Z3.000000

(End cutting path id: polyline40750)


(Start cutting path id: polyline40748)
(Change tool to Default tool)

G00 Z3.000000
G00 X10.085817 Y215.902097

G00 Z4.875000 (Fast pre-penetrate)
G01 Z-0.125000 F400.0(Penetrate)
G01 X14.867441 Y215.927179 Z-0.125000 F800.000000
G01 X27.724666 Y215.501201 Z-0.125000
G01 X37.606683 Y215.372216 Z-0.125000
G01 X57.902024 Y215.406110 Z-0.125000
G01 X86.485482 Y215.683366 Z-0.125000
G01 X101.574147 Y215.727631 Z-0.125000
G01 X115.281452 Y215.668761 Z-0.125000
G01 X131.751479 Y215.361713 Z-0.125000
G01 X136.214333 Y215.438759 Z-0.125000
G01 X144.821244 Y215.874580 Z-0.125000
G01 X148.540276 Y215.947499 Z-0.125000
G01 X152.578103 Y215.810287 Z-0.125000
G01 X161.503784 Y215.171107 Z-0.125000
G01 X164.160251 Y215.100887 Z-0.125000
G01 X166.922973 Y215.134356 Z-0.125000
G00 Z3.000000

(End cutting path id: polyline40748)


(Start cutting path id: polyline40746)
(Change tool to Default tool)

G00 Z3.000000
G00 X10.085817 Y214.533621

G00 Z4.875000 (Fast pre-penetrate)
G01 Z-0.125000 F400.0(Penetrate)
G01 X15.717493 Y214.610535 Z-0.125000 F800.000000
G01 X29.212284 Y214.174634 Z-0.125000
G01 X39.200557 Y214.046497 Z-0.125000
G01 X54.926789 Y214.077056 Z-0.125000
G01 X84.147811 Y214.364923 Z-0.125000
G01 X100.405299 Y214.408764 Z-0.125000
G01 X114.537656 Y214.353254 Z-0.125000
G01 X131.007683 Y214.038877 Z-0.125000
G01 X135.257997 Y214.116902 Z-0.125000
G01 X143.546139 Y214.549787 Z-0.125000
G01 X147.052684 Y214.625166 Z-0.125000
G01 X150.877972 Y214.499781 Z-0.125000
G01 X160.441219 Y213.812367 Z-0.125000
G01 X163.522711 Y213.784375 Z-0.125000
G01 X166.922973 Y213.924074 Z-0.125000
G00 Z3.000000

(End cutting path id: polyline40746)


(Start cutting path id: polyline40744)
(Change tool to Default tool)

G00 Z3.000000
G00 X10.085817 Y213.150883

G00 Z4.875000 (Fast pre-penetrate)
G01 Z-0.125000 F400.0(Penetrate)
G01 X13.273566 Y213.282884 Z-0.125000 F800.000000
G01 X16.673828 Y213.291589 Z-0.125000
G01 X30.806159 Y212.844840 Z-0.125000
G01 X40.688175 Y212.721121 Z-0.125000
G01 X55.776841 Y212.768402 Z-0.125000
G01 X83.297733 Y213.054364 Z-0.125000
G01 X99.342734 Y213.088151 Z-0.125000
G01 X113.900117 Y213.035922 Z-0.125000
G01 X130.157604 Y212.715935 Z-0.125000
G01 X134.407945 Y212.796739 Z-0.125000
G01 X142.377317 Y213.225390 Z-0.125000
G01 X145.777579 Y213.302384 Z-0.125000
G01 X149.496611 Y213.178268 Z-0.125000
G01 X156.297135 Y212.621082 Z-0.125000
G01 X159.272371 Y212.470852 Z-0.125000
G01 X162.778889 Y212.495591 Z-0.125000
G01 X166.922973 Y212.773641 Z-0.125000
G00 Z3.000000

(End cutting path id: polyline40744)


(Start cutting path id: polyline40742)
(Change tool to Default tool)

G00 Z3.000000
G00 X10.085817 Y211.755817

G00 Z4.875000 (Fast pre-penetrate)
G01 Z-0.125000 F400.0(Penetrate)
G01 X13.804849 Y211.944067 Z-0.125000 F800.000000
G01 X17.523880 Y211.973383 Z-0.125000
G01 X33.037599 Y211.500018 Z-0.125000
G01 X44.300950 Y211.392968 Z-0.125000
G01 X82.022628 Y211.738090 Z-0.125000
G01 X107.418362 Y211.758251 Z-0.125000
G01 X115.281452 Y211.689353 Z-0.125000
G01 X129.520065 Y211.393206 Z-0.125000
G01 X133.557866 Y211.474724 Z-0.125000
G01 X141.314726 Y211.902158 Z-0.125000
G01 X144.714988 Y211.979178 Z-0.125000
G01 X148.540276 Y211.836118 Z-0.125000
G01 X155.872109 Y211.226333 Z-0.125000
G01 X158.953601 Y211.130290 Z-0.125000
G01 X162.460120 Y211.253400 Z-0.125000
G01 X166.922973 Y211.656995 Z-0.125000
G00 Z3.000000

(End cutting path id: polyline40742)


(Start cutting path id: polyline40740)
(Change tool to Default tool)

G00 Z3.000000
G00 X10.085817 Y210.351066

G00 Z4.875000 (Fast pre-penetrate)
G01 Z-0.125000 F400.0(Penetrate)
G01 X14.017362 Y210.588265 Z-0.125000 F800.000000
G01 X17.842650 Y210.656501 Z-0.125000
G01 X33.568882 Y210.193375 Z-0.125000
G01 X41.644510 Y210.078466 Z-0.125000
G01 X53.120401 Y210.109952 Z-0.125000
G01 X79.897471 Y210.414566 Z-0.125000
G01 X101.467891 Y210.443247 Z-0.125000
G01 X113.475064 Y210.388240 Z-0.125000
G01 X128.776269 Y210.070317 Z-0.125000
G01 X132.707814 Y210.151174 Z-0.125000
G01 X140.358417 Y210.580724 Z-0.125000
G01 X143.652422 Y210.656263 Z-0.125000
G01 X146.840145 Y210.548710 Z-0.125000
G01 X153.959465 Y209.937840 Z-0.125000
G01 X157.465983 Y209.807375 Z-0.125000
G01 X161.185015 Y209.961044 Z-0.125000
G01 X166.922973 Y210.544820 Z-0.125000
G00 Z3.000000

(End cutting path id: polyline40740)


(Start cutting path id: polyline40738)
(Change tool to Default tool)

G00 Z3.000000
G00 X10.085817 Y208.939966

G00 Z4.875000 (Fast pre-penetrate)
G01 Z-0.125000 F400.0(Penetrate)
G01 X14.761184 Y209.246617 Z-0.125000 F800.000000
G01 X19.011498 Y209.333745 Z-0.125000
G01 X23.155583 Y209.262836 Z-0.125000
G01 X34.950243 Y208.866782 Z-0.125000
G01 X42.707076 Y208.754519 Z-0.125000
G01 X52.907888 Y208.785502 Z-0.125000
G01 X78.516109 Y209.093291 Z-0.125000
G01 X102.105430 Y209.120358 Z-0.125000
G01 X113.156295 Y209.064187 Z-0.125000
G01 X128.138704 Y208.747667 Z-0.125000
G01 X131.963992 Y208.830640 Z-0.125000
G01 X139.402082 Y209.256883 Z-0.125000
G01 X142.589830 Y209.333586 Z-0.125000
G01 X146.202605 Y209.196849 Z-0.125000
G01 X153.321899 Y208.572777 Z-0.125000
G01 X156.190878 Y208.484698 Z-0.125000
G01 X159.909910 Y208.660169 Z-0.125000
G01 X166.922973 Y209.409204 Z-0.125000
G00 Z3.000000

(End cutting path id: polyline40738)


(Start cutting path id: polyline40736)
(Change tool to Default tool)

G00 Z3.000000
G00 X10.085817 Y207.526404

G00 Z4.875000 (Fast pre-penetrate)
G01 Z-0.125000 F400.0(Penetrate)
G01 X15.504980 Y207.902033 Z-0.125000 F800.000000
G01 X20.286603 Y208.010856 Z-0.125000
G01 X24.536944 Y207.938334 Z-0.125000
G01 X36.331604 Y207.539739 Z-0.125000
G01 X43.663411 Y207.431181 Z-0.125000
G01 X52.907888 Y207.461000 Z-0.125000
G01 X77.453544 Y207.771832 Z-0.125000
G01 X102.211686 Y207.797470 Z-0.125000
G01 X112.625012 Y207.742119 Z-0.125000
G01 X127.501165 Y207.425096 Z-0.125000
G01 X131.220196 Y207.509312 Z-0.125000
G01 X138.445746 Y207.930793 Z-0.125000
G01 X141.633495 Y208.010697 Z-0.125000
G01 X144.714988 Y207.906055 Z-0.125000
G01 X151.621768 Y207.285158 Z-0.125000
G01 X154.915773 Y207.161756 Z-0.125000
G01 X158.422292 Y207.330137 Z-0.125000
G01 X166.922973 Y208.227444 Z-0.125000
G00 Z3.000000

(End cutting path id: polyline40736)


(Start cutting path id: polyline40734)
(Change tool to Default tool)

G00 Z3.000000
G00 X10.085817 Y206.114563

G00 Z4.875000 (Fast pre-penetrate)
G01 Z-0.125000 F400.0(Penetrate)
G01 X16.355059 Y206.559724 Z-0.125000 F800.000000
G01 X21.455452 Y206.688020 Z-0.125000
G01 X25.812022 Y206.617430 Z-0.125000
G01 X37.712939 Y206.212406 Z-0.125000
G01 X44.619746 Y206.107922 Z-0.125000
G01 X53.120401 Y206.136920 Z-0.125000
G01 X76.603465 Y206.449605 Z-0.125000
G01 X102.105430 Y206.474528 Z-0.125000
G01 X112.199986 Y206.417352 Z-0.125000
G01 X126.757342 Y206.102101 Z-0.125000
G01 X130.476400 Y206.187482 Z-0.125000
G01 X137.595694 Y206.608196 Z-0.125000
G01 X140.677186 Y206.687915 Z-0.125000
G01 X144.289961 Y206.546521 Z-0.125000
G01 X151.090485 Y205.923243 Z-0.125000
G01 X153.853208 Y205.839423 Z-0.125000
G01 X156.934700 Y205.989204 Z-0.125000
G01 X163.628968 Y206.766840 Z-0.125000
G01 X166.922973 Y206.984380 Z-0.125000
G00 Z3.000000

(End cutting path id: polyline40734)


(Start cutting path id: polyline40732)
(Change tool to Default tool)

G00 Z3.000000
G00 X10.085817 Y204.708860

G00 Z4.875000 (Fast pre-penetrate)
G01 Z-0.125000 F400.0(Penetrate)
G01 X17.205111 Y205.214716 Z-0.125000 F800.000000
G01 X22.199247 Y205.363465 Z-0.125000
G01 X26.980871 Y205.300044 Z-0.125000
G01 X39.306814 Y204.879675 Z-0.125000
G01 X45.682311 Y204.784266 Z-0.125000
G01 X53.545427 Y204.813635 Z-0.125000
G01 X75.965926 Y205.126637 Z-0.125000
G01 X101.574147 Y205.151640 Z-0.125000
G01 X111.668677 Y205.092876 Z-0.125000
G01 X125.588521 Y204.778393 Z-0.125000
G01 X129.520065 Y204.856550 Z-0.125000
G01 X136.851872 Y205.289567 Z-0.125000
G01 X139.827108 Y205.364973 Z-0.125000
G01 X142.908600 Y205.256759 Z-0.125000
G01 X149.602867 Y204.631999 Z-0.125000
G01 X152.684360 Y204.516111 Z-0.125000
G01 X156.084622 Y204.697218 Z-0.125000
G01 X163.310172 Y205.547218 Z-0.125000
G01 X166.922973 Y205.673318 Z-0.125000
G00 Z3.000000

(End cutting path id: polyline40732)


(Start cutting path id: polyline40730)
(Change tool to Default tool)

G00 Z3.000000
G00 X10.085817 Y203.313476

G00 Z4.875000 (Fast pre-penetrate)
G01 Z-0.125000 F400.0(Penetrate)
G01 X18.373959 Y203.884499 Z-0.125000 F800.000000
G01 X23.580609 Y204.040656 Z-0.125000
G01 X28.468489 Y203.974113 Z-0.125000
G01 X40.581919 Y203.554908 Z-0.125000
G01 X46.638647 Y203.461378 Z-0.125000
G01 X54.076710 Y203.490164 Z-0.125000
G01 X75.540873 Y203.803007 Z-0.125000
G01 X100.830352 Y203.828725 Z-0.125000
G01 X110.924881 Y203.770331 Z-0.125000
G01 X124.844698 Y203.455478 Z-0.125000
G01 X128.882526 Y203.538927 Z-0.125000
G01 X135.895563 Y203.959482 Z-0.125000
G01 X138.870799 Y204.042190 Z-0.125000
G01 X141.952291 Y203.939347 Z-0.125000
G01 X148.646559 Y203.308025 Z-0.125000
G01 X151.728025 Y203.193646 Z-0.125000
G01 X155.022030 Y203.378828 Z-0.125000
G01 X162.460120 Y204.262985 Z-0.125000
G01 X164.691533 Y204.353261 Z-0.125000
G01 X166.922973 Y204.295449 Z-0.125000
G00 Z3.000000

(End cutting path id: polyline40730)


(Start cutting path id: polyline40728)
(Change tool to Default tool)

G00 Z3.000000
G00 X10.085817 Y201.932406

G00 Z4.875000 (Fast pre-penetrate)
G01 Z-0.125000 F400.0(Penetrate)
G01 X19.755321 Y202.563701 Z-0.125000 F800.000000
G01 X24.855714 Y202.717053 Z-0.125000
G01 X29.212284 Y202.669137 Z-0.125000
G01 X40.900688 Y202.256520 Z-0.125000
G01 X47.701239 Y202.138145 Z-0.125000
G01 X54.714276 Y202.166614 Z-0.125000
G01 X75.328360 Y202.478769 Z-0.125000
G01 X99.767760 Y202.505810 Z-0.125000
G01 X110.074802 Y202.447813 Z-0.125000
G01 X124.100903 Y202.132563 Z-0.125000
G01 X128.032447 Y202.212916 Z-0.125000
G01 X135.151741 Y202.639530 Z-0.125000
G01 X138.126977 Y202.719222 Z-0.125000
G01 X141.102213 Y202.616644 Z-0.125000
G01 X147.690223 Y201.987465 Z-0.125000
G01 X150.665459 Y201.870202 Z-0.125000
G01 X153.853208 Y202.042869 Z-0.125000
G01 X159.378627 Y202.759095 Z-0.125000
G01 X161.716297 Y202.974175 Z-0.125000
G01 X164.266507 Y203.023546 Z-0.125000
G01 X166.922973 Y202.858605 Z-0.125000
G00 Z3.000000

(End cutting path id: polyline40728)


(Start cutting path id: polyline40726)
(Change tool to Default tool)

G00 Z3.000000
G00 X10.085817 Y200.569036

G00 Z4.875000 (Fast pre-penetrate)
G01 Z-0.125000 F400.0(Penetrate)
G01 X21.455452 Y201.257084 Z-0.125000 F800.000000
G01 X26.449588 Y201.395064 Z-0.125000
G01 X31.337468 Y201.327172 Z-0.125000
G01 X43.769667 Y200.890689 Z-0.125000
G01 X50.570191 Y200.809648 Z-0.125000
G01 X72.671921 Y201.129819 Z-0.125000
G01 X85.529146 Y201.182895 Z-0.125000
G01 X106.887053 Y201.152521 Z-0.125000
G01 X123.994646 Y200.812029 Z-0.125000
G01 X127.926191 Y200.920984 Z-0.125000
G01 X134.939228 Y201.344132 Z-0.125000
G01 X137.595694 Y201.394985 Z-0.125000
G01 X140.464673 Y201.280552 Z-0.125000
G01 X146.733888 Y200.669974 Z-0.125000
G01 X149.602867 Y200.546970 Z-0.125000
G01 X152.790616 Y200.711620 Z-0.125000
G01 X158.528575 Y201.466343 Z-0.125000
G01 X160.972502 Y201.674702 Z-0.125000
G01 X163.841481 Y201.669622 Z-0.125000
G01 X166.922973 Y201.375485 Z-0.125000
G00 Z3.000000

(End cutting path id: polyline40726)


(Start cutting path id: polyline40724)
(Change tool to Default tool)

G00 Z3.000000
G00 X10.085817 Y199.225986

G00 Z4.875000 (Fast pre-penetrate)
G01 Z-0.125000 F400.0(Penetrate)
G01 X14.017362 Y199.357034 Z-0.125000 F800.000000
G01 X23.155583 Y199.947372 Z-0.125000
G01 X27.937206 Y200.072281 Z-0.125000
G01 X32.187520 Y200.021005 Z-0.125000
G01 X43.557154 Y199.607964 Z-0.125000
G01 X49.932652 Y199.491971 Z-0.125000
G01 X56.308150 Y199.519409 Z-0.125000
G01 X75.328360 Y199.826563 Z-0.125000
G01 X96.048728 Y199.859953 Z-0.125000
G01 X107.843389 Y199.804867 Z-0.125000
G01 X122.400772 Y199.486759 Z-0.125000
G01 X126.332316 Y199.563647 Z-0.125000
G01 X133.664149 Y199.999680 Z-0.125000
G01 X136.745615 Y200.072361 Z-0.125000
G01 X139.614595 Y199.959833 Z-0.125000
G01 X145.777579 Y199.354891 Z-0.125000
G01 X148.646559 Y199.224134 Z-0.125000
G01 X151.728025 Y199.375661 Z-0.125000
G01 X157.678496 Y200.165600 Z-0.125000
G01 X160.334962 Y200.370810 Z-0.125000
G01 X163.310172 Y200.304585 Z-0.125000
G01 X166.922973 Y199.861488 Z-0.125000
G00 Z3.000000

(End cutting path id: polyline40724)


(Start cutting path id: polyline40722)
(Change tool to Default tool)

G00 Z3.000000
G00 X10.085817 Y197.905029

G00 Z4.875000 (Fast pre-penetrate)
G01 Z-0.125000 F400.0(Penetrate)
G01 X14.229875 Y197.978609 Z-0.125000 F800.000000
G01 X24.218148 Y198.604454 Z-0.125000
G01 X29.637337 Y198.750107 Z-0.125000
G01 X34.418934 Y198.677109 Z-0.125000
G01 X46.319877 Y198.245177 Z-0.125000
G01 X52.801631 Y198.163818 Z-0.125000
G01 X74.478308 Y198.488355 Z-0.125000
G01 X89.992000 Y198.536959 Z-0.125000
G01 X105.718231 Y198.492562 Z-0.125000
G01 X122.294515 Y198.166410 Z-0.125000
G01 X125.694777 Y198.249833 Z-0.125000
G01 X132.814071 Y198.675256 Z-0.125000
G01 X135.895563 Y198.749684 Z-0.125000
G01 X138.764542 Y198.639300 Z-0.125000
G01 X145.033757 Y198.024118 Z-0.125000
G01 X147.902736 Y197.901192 Z-0.125000
G01 X150.665459 Y198.036474 Z-0.125000
G01 X157.147214 Y198.893564 Z-0.125000
G01 X160.228706 Y199.062315 Z-0.125000
G01 X163.097659 Y198.897242 Z-0.125000
G01 X166.922973 Y198.333071 Z-0.125000
G00 Z3.000000

(End cutting path id: polyline40722)


(Start cutting path id: polyline40720)
(Change tool to Default tool)

G00 Z3.000000
G00 X10.085817 Y196.606958

G00 Z4.875000 (Fast pre-penetrate)
G01 Z-0.125000 F400.0(Penetrate)
G01 X15.398723 Y196.646646 Z-0.125000 F800.000000
G01 X25.599509 Y197.274739 Z-0.125000
G01 X30.699902 Y197.424943 Z-0.125000
G01 X35.269013 Y197.373296 Z-0.125000
G01 X46.319877 Y196.960759 Z-0.125000
G01 X52.376579 Y196.846088 Z-0.125000
G01 X58.433307 Y196.873420 Z-0.125000
G01 X75.753386 Y197.166604 Z-0.125000
G01 X91.160848 Y197.212562 Z-0.125000
G01 X105.186922 Y197.157582 Z-0.125000
G01 X120.594384 Y196.840903 Z-0.125000
G01 X124.738442 Y196.924670 Z-0.125000
G01 X131.857735 Y197.346574 Z-0.125000
G01 X134.832971 Y197.427589 Z-0.125000
G01 X137.808207 Y197.325698 Z-0.125000
G01 X144.289961 Y196.694429 Z-0.125000
G01 X147.265197 Y196.579389 Z-0.125000
G01 X150.346690 Y196.769253 Z-0.125000
G01 X156.509648 Y197.602452 Z-0.125000
G01 X159.166114 Y197.739506 Z-0.125000
G01 X162.353863 Y197.536465 Z-0.125000
G01 X166.922973 Y196.806110 Z-0.125000
G00 Z3.000000

(End cutting path id: polyline40720)


(Start cutting path id: polyline40718)
(Change tool to Default tool)

G00 Z3.000000
G00 X10.085817 Y195.331404

G00 Z4.875000 (Fast pre-penetrate)
G01 Z-0.125000 F400.0(Penetrate)
G01 X13.167310 Y195.256103 Z-0.125000 F800.000000
G01 X16.355059 Y195.305527 Z-0.125000
G01 X27.299640 Y195.958651 Z-0.125000
G01 X32.293777 Y196.102160 Z-0.125000
G01 X36.862887 Y196.049561 Z-0.125000
G01 X47.807495 Y195.636336 Z-0.125000
G01 X53.651684 Y195.523570 Z-0.125000
G01 X59.602155 Y195.549394 Z-0.125000
G01 X76.390952 Y195.835196 Z-0.125000
G01 X90.629539 Y195.885255 Z-0.125000
G01 X104.018100 Y195.827020 Z-0.125000
G01 X119.531792 Y195.517988 Z-0.125000
G01 X123.782133 Y195.601940 Z-0.125000
G01 X131.007683 Y196.024770 Z-0.125000
G01 X133.982919 Y196.104674 Z-0.125000
G01 X137.064411 Y195.996724 Z-0.125000
G01 X143.546139 Y195.365217 Z-0.125000
G01 X146.415119 Y195.256315 Z-0.125000
G01 X149.496611 Y195.446074 Z-0.125000
G01 X155.659596 Y196.285411 Z-0.125000
G01 X158.209779 Y196.416591 Z-0.125000
G01 X159.803653 Y196.361901 Z-0.125000
G01 X161.503784 Y196.192754 Z-0.125000
G01 X166.922973 Y195.294865 Z-0.125000
G00 Z3.000000

(End cutting path id: polyline40718)


(Start cutting path id: polyline40716)
(Change tool to Default tool)

G00 Z3.000000
G00 X10.085817 Y194.077042

G00 Z4.875000 (Fast pre-penetrate)
G01 Z-0.125000 F400.0(Penetrate)
G01 X13.804849 Y193.940967 Z-0.125000 F800.000000
G01 X17.417624 Y193.968563 Z-0.125000
G01 X28.999771 Y194.639889 Z-0.125000
G01 X33.993908 Y194.779722 Z-0.125000
G01 X38.456761 Y194.727043 Z-0.125000
G01 X49.295086 Y194.313950 Z-0.125000
G01 X55.033045 Y194.201026 Z-0.125000
G01 X60.983517 Y194.226399 Z-0.125000
G01 X77.347261 Y194.502624 Z-0.125000
G01 X90.204513 Y194.553450 Z-0.125000
G01 X102.849252 Y194.492384 Z-0.125000
G01 X118.362944 Y194.195073 Z-0.125000
G01 X122.719541 Y194.277781 Z-0.125000
G01 X130.157604 Y194.704845 Z-0.125000
G01 X133.132840 Y194.781732 Z-0.125000
G01 X136.214333 Y194.673518 Z-0.125000
G01 X142.696087 Y194.044075 Z-0.125000
G01 X145.565066 Y193.933215 Z-0.125000
G01 X148.646559 Y194.121413 Z-0.125000
G01 X154.809517 Y194.965459 Z-0.125000
G01 X157.359727 Y195.093570 Z-0.125000
G01 X158.953601 Y195.032980 Z-0.125000
G01 X160.653732 Y194.854440 Z-0.125000
G01 X166.922973 Y193.811216 Z-0.125000
G00 Z3.000000

(End cutting path id: polyline40716)


(Start cutting path id: polyline40714)
(Change tool to Default tool)

G00 Z3.000000
G00 X10.085817 Y192.841439

G00 Z4.875000 (Fast pre-penetrate)
G01 Z-0.125000 F400.0(Penetrate)
G01 X14.442388 Y192.635197 Z-0.125000 F800.000000
G01 X18.480216 Y192.632392 Z-0.125000
G01 X22.092991 Y192.780030 Z-0.125000
G01 X31.018672 Y193.333511 Z-0.125000
G01 X36.331604 Y193.458870 Z-0.125000
G01 X40.369405 Y193.397143 Z-0.125000
G01 X50.782704 Y192.994157 Z-0.125000
G01 X56.520663 Y192.878534 Z-0.125000
G01 X62.364852 Y192.901315 Z-0.125000
G01 X78.303596 Y193.164813 Z-0.125000
G01 X89.885743 Y193.215322 Z-0.125000
G01 X101.361634 Y193.156717 Z-0.125000
G01 X117.831661 Y192.873877 Z-0.125000
G01 X121.869463 Y192.965529 Z-0.125000
G01 X129.201296 Y193.382247 Z-0.125000
G01 X132.176531 Y193.458844 Z-0.125000
G01 X135.364280 Y193.348354 Z-0.125000
G01 X141.846008 Y192.722086 Z-0.125000
G01 X144.714988 Y192.610141 Z-0.125000
G01 X147.902736 Y192.808049 Z-0.125000
G01 X153.959465 Y193.643285 Z-0.125000
G01 X156.509648 Y193.770549 Z-0.125000
G01 X158.103522 Y193.706282 Z-0.125000
G01 X159.697397 Y193.535626 Z-0.125000
G01 X164.904046 Y192.631149 Z-0.125000
G01 X166.922973 Y192.364317 Z-0.125000
G00 Z3.000000

(End cutting path id: polyline40714)


(Start cutting path id: polyline40712)
(Change tool to Default tool)

G00 Z3.000000
G00 X10.085817 Y191.621262

G00 Z4.875000 (Fast pre-penetrate)
G01 Z-0.125000 F400.0(Penetrate)
G01 X15.186210 Y191.336571 Z-0.125000 F800.000000
G01 X19.755321 Y191.301831 Z-0.125000
G01 X23.580609 Y191.446346 Z-0.125000
G01 X32.825086 Y192.014115 Z-0.125000
G01 X38.137992 Y192.135929 Z-0.125000
G01 X42.175793 Y192.071820 Z-0.125000
G01 X52.482835 Y191.670527 Z-0.125000
G01 X58.114537 Y191.556201 Z-0.125000
G01 X63.852470 Y191.575357 Z-0.125000
G01 X79.472445 Y191.822742 Z-0.125000
G01 X89.566974 Y191.868859 Z-0.125000
G01 X99.980273 Y191.813482 Z-0.125000
G01 X116.344043 Y191.550433 Z-0.125000
G01 X120.594384 Y191.640286 Z-0.125000
G01 X128.244960 Y192.062507 Z-0.125000
G01 X131.326453 Y192.135691 Z-0.125000
G01 X134.514202 Y192.020518 Z-0.125000
G01 X140.995956 Y191.398668 Z-0.125000
G01 X143.864935 Y191.287173 Z-0.125000
G01 X147.052684 Y191.483150 Z-0.125000
G01 X153.109386 Y192.319629 Z-0.125000
G01 X155.659596 Y192.447581 Z-0.125000
G01 X158.634831 Y192.235624 Z-0.125000
G01 X164.372764 Y191.236849 Z-0.125000
G01 X166.922973 Y190.960545 Z-0.125000
G00 Z3.000000

(End cutting path id: polyline40712)


(Start cutting path id: polyline40710)
(Change tool to Default tool)

G00 Z3.000000
G00 X10.085817 Y190.412356

G00 Z4.875000 (Fast pre-penetrate)
G01 Z-0.125000 F400.0(Penetrate)
G01 X16.142519 Y190.039400 Z-0.125000 F800.000000
G01 X21.030399 Y189.971772 Z-0.125000
G01 X25.174483 Y190.114859 Z-0.125000
G01 X34.737730 Y190.696597 Z-0.125000
G01 X40.050636 Y190.812935 Z-0.125000
G01 X44.619746 Y190.728797 Z-0.125000
G01 X55.033045 Y190.324170 Z-0.125000
G01 X59.920925 Y190.233445 Z-0.125000
G01 X89.354461 Y190.512421 Z-0.125000
G01 X98.598911 Y190.462891 Z-0.125000
G01 X114.750169 Y190.227333 Z-0.125000
G01 X119.213023 Y190.316021 Z-0.125000
G01 X127.182395 Y190.741338 Z-0.125000
G01 X130.263861 Y190.812882 Z-0.125000
G01 X133.451610 Y190.703662 Z-0.125000
G01 X140.039621 Y190.081230 Z-0.125000
G01 X143.014857 Y189.964337 Z-0.125000
G01 X145.777579 Y190.114435 Z-0.125000
G01 X151.940564 Y190.961736 Z-0.125000
G01 X154.809517 Y191.124693 Z-0.125000
G01 X157.572240 Y190.937924 Z-0.125000
G01 X163.841481 Y189.852022 Z-0.125000
G01 X165.435355 Y189.671523 Z-0.125000
G01 X166.922973 Y189.603579 Z-0.125000
G00 Z3.000000

(End cutting path id: polyline40710)


(Start cutting path id: polyline40708)
(Change tool to Default tool)

G00 Z3.000000
G00 X10.085817 Y189.209985

G00 Z4.875000 (Fast pre-penetrate)
G01 Z-0.125000 F400.0(Penetrate)
G01 X16.886341 Y188.760696 Z-0.125000 F800.000000
G01 X21.880478 Y188.641105 Z-0.125000
G01 X26.024535 Y188.744160 Z-0.125000
G01 X35.800295 Y189.335821 Z-0.125000
G01 X40.900688 Y189.486950 Z-0.125000
G01 X45.576055 Y189.433769 Z-0.125000
G01 X56.095637 Y189.027819 Z-0.125000
G01 X61.727312 Y188.912144 Z-0.125000
G01 X89.141948 Y189.145241 Z-0.125000
G01 X112.412499 Y188.903413 Z-0.125000
G01 X117.619148 Y188.989984 Z-0.125000
G01 X126.013547 Y189.419535 Z-0.125000
G01 X129.307552 Y189.489385 Z-0.125000
G01 X132.495301 Y189.375561 Z-0.125000
G01 X139.189568 Y188.752706 Z-0.125000
G01 X142.058548 Y188.641026 Z-0.125000
G01 X144.821244 Y188.782525 Z-0.125000
G01 X151.090485 Y189.637551 Z-0.125000
G01 X153.959465 Y189.801804 Z-0.125000
G01 X155.553339 Y189.735367 Z-0.125000
G01 X157.147214 Y189.557356 Z-0.125000
G01 X163.735224 Y188.423168 Z-0.125000
G01 X165.329099 Y188.296803 Z-0.125000
G01 X166.922973 Y188.294686 Z-0.125000
G00 Z3.000000

(End cutting path id: polyline40708)


(Start cutting path id: polyline40706)
(Change tool to Default tool)

G00 Z3.000000
G00 X10.085817 Y188.008910

G00 Z4.875000 (Fast pre-penetrate)
G01 Z-0.125000 F400.0(Penetrate)
G01 X18.267703 Y187.460589 Z-0.125000 F800.000000
G01 X23.580609 Y187.317846 Z-0.125000
G01 X27.830949 Y187.416879 Z-0.125000
G01 X37.712939 Y188.011583 Z-0.125000
G01 X42.813359 Y188.163691 Z-0.125000
G01 X47.488699 Y188.112627 Z-0.125000
G01 X58.114537 Y187.706942 Z-0.125000
G01 X63.852470 Y187.590208 Z-0.125000
G01 X89.035691 Y187.768166 Z-0.125000
G01 X110.287315 Y187.580498 Z-0.125000
G01 X115.919017 Y187.667360 Z-0.125000
G01 X124.738442 Y188.097995 Z-0.125000
G01 X128.138704 Y188.166311 Z-0.125000
G01 X131.432709 Y188.049524 Z-0.125000
G01 X138.126977 Y187.436670 Z-0.125000
G01 X141.102212 Y187.318005 Z-0.125000
G01 X143.971192 Y187.463896 Z-0.125000
G01 X150.240433 Y188.314715 Z-0.125000
G01 X153.109386 Y188.478916 Z-0.125000
G01 X154.703260 Y188.412823 Z-0.125000
G01 X156.297135 Y188.234653 Z-0.125000
G01 X161.185015 Y187.341950 Z-0.125000
G01 X163.097659 Y187.070964 Z-0.125000
G01 X165.010303 Y186.957801 Z-0.125000
G01 X166.922973 Y187.032493 Z-0.125000
G00 Z3.000000

(End cutting path id: polyline40706)


(Start cutting path id: polyline40704)
(Change tool to Default tool)

G00 Z3.000000
G00 X10.085817 Y186.803761

G00 Z4.875000 (Fast pre-penetrate)
G01 Z-0.125000 F400.0(Penetrate)
G01 X19.967834 Y186.150426 Z-0.125000 F800.000000
G01 X25.493253 Y185.994905 Z-0.125000
G01 X29.849850 Y186.095234 Z-0.125000
G01 X39.731866 Y186.688297 Z-0.125000
G01 X44.832259 Y186.840485 Z-0.125000
G01 X49.613883 Y186.788865 Z-0.125000
G01 X60.239695 Y186.389027 Z-0.125000
G01 X66.083910 Y186.269965 Z-0.125000
G01 X88.929408 Y186.384900 Z-0.125000
G01 X107.737132 Y186.257583 Z-0.125000
G01 X114.006373 Y186.346033 Z-0.125000
G01 X123.357080 Y186.777700 Z-0.125000
G01 X126.863599 Y186.843184 Z-0.125000
G01 X130.263861 Y186.724439 Z-0.125000
G01 X137.170668 Y186.108067 Z-0.125000
G01 X140.145877 Y185.995169 Z-0.125000
G01 X143.014857 Y186.138811 Z-0.125000
G01 X149.390354 Y186.993891 Z-0.125000
G01 X152.259334 Y187.155974 Z-0.125000
G01 X153.746952 Y187.097872 Z-0.125000
G01 X155.340826 Y186.926528 Z-0.125000
G01 X160.547476 Y185.979453 Z-0.125000
G01 X162.566376 Y185.713362 Z-0.125000
G01 X164.691533 Y185.637823 Z-0.125000
G01 X166.922973 Y185.814327 Z-0.125000
G00 Z3.000000

(End cutting path id: polyline40704)


(Start cutting path id: polyline40702)
(Change tool to Default tool)

G00 Z3.000000
G00 X10.085817 Y185.589087

G00 Z4.875000 (Fast pre-penetrate)
G01 Z-0.125000 F400.0(Penetrate)
G01 X21.774221 Y184.840767 Z-0.125000 F800.000000
G01 X26.874614 Y184.674477 Z-0.125000
G01 X31.656237 Y184.760625 Z-0.125000
G01 X41.857023 Y185.365303 Z-0.125000
G01 X46.957416 Y185.517173 Z-0.125000
G01 X51.739040 Y185.468887 Z-0.125000
G01 X62.471108 Y185.075637 Z-0.125000
G01 X68.421580 Y184.952791 Z-0.125000
G01 X89.035691 Y185.002560 Z-0.125000
G01 X104.549383 Y184.934668 Z-0.125000
G01 X111.774933 Y185.025023 Z-0.125000
G01 X121.656949 Y185.451795 Z-0.125000
G01 X125.057211 Y185.521354 Z-0.125000
G01 X128.882526 Y185.405493 Z-0.125000
G01 X136.108076 Y184.781977 Z-0.125000
G01 X139.083312 Y184.672175 Z-0.125000
G01 X142.058548 Y184.818463 Z-0.125000
G01 X148.434019 Y185.664626 Z-0.125000
G01 X151.409255 Y185.832953 Z-0.125000
G01 X152.896873 Y185.773713 Z-0.125000
G01 X154.490747 Y185.602078 Z-0.125000
G01 X159.803653 Y184.636165 Z-0.125000
G01 X161.928837 Y184.370153 Z-0.125000
G01 X164.372764 Y184.336340 Z-0.125000
G01 X166.922973 Y184.635213 Z-0.125000
G00 Z3.000000

(End cutting path id: polyline40702)


(Start cutting path id: polyline40700)
(Change tool to Default tool)

G00 Z3.000000
G00 X10.085817 Y184.359729

G00 Z4.875000 (Fast pre-penetrate)
G01 Z-0.125000 F400.0(Penetrate)
G01 X24.111891 Y183.508645 Z-0.125000 F800.000000
G01 X28.999771 Y183.351906 Z-0.125000
G01 X33.887651 Y183.439959 Z-0.125000
G01 X44.088437 Y184.041753 Z-0.125000
G01 X49.188830 Y184.193544 Z-0.125000
G01 X54.182966 Y184.145099 Z-0.125000
G01 X64.915061 Y183.765608 Z-0.125000
G01 X70.971790 Y183.639878 Z-0.125000
G01 X100.299042 Y183.611753 Z-0.125000
G01 X109.118493 Y183.704833 Z-0.125000
G01 X119.850562 Y184.130124 Z-0.125000
G01 X123.357080 Y184.198465 Z-0.125000
G01 X127.394908 Y184.084245 Z-0.125000
G01 X134.832971 Y183.464459 Z-0.125000
G01 X137.914464 Y183.349127 Z-0.125000
G01 X140.995956 Y183.494040 Z-0.125000
G01 X147.583967 Y184.351050 Z-0.125000
G01 X150.559203 Y184.509668 Z-0.125000
G01 X153.534439 Y184.289561 Z-0.125000
G01 X159.059858 Y183.292851 Z-0.125000
G01 X161.397528 Y183.023082 Z-0.125000
G01 X164.053994 Y183.052927 Z-0.125000
G01 X166.922973 Y183.488801 Z-0.125000
G00 Z3.000000

(End cutting path id: polyline40700)


(Start cutting path id: polyline40698)
(Change tool to Default tool)

G00 Z3.000000
G00 X10.085817 Y183.110950

G00 Z4.875000 (Fast pre-penetrate)
G01 Z-0.125000 F400.0(Penetrate)
G01 X15.930006 Y182.870682 Z-0.125000 F800.000000
G01 X26.768358 Y182.166150 Z-0.125000
G01 X31.549981 Y182.027218 Z-0.125000
G01 X36.756630 Y182.142814 Z-0.125000
G01 X47.701239 Y182.773183 Z-0.125000
G01 X52.801631 Y182.875550 Z-0.125000
G01 X57.370715 Y182.807738 Z-0.125000
G01 X71.503072 Y182.369297 Z-0.125000
G01 X84.891607 Y182.288864 Z-0.125000
G01 X103.805561 Y182.348184 Z-0.125000
G01 X118.469201 Y182.829460 Z-0.125000
G01 X122.400772 Y182.870894 Z-0.125000
G01 X126.651086 Y182.707672 Z-0.125000
G01 X134.089176 Y182.105720 Z-0.125000
G01 X136.958128 Y182.027482 Z-0.125000
G01 X140.039621 Y182.186417 Z-0.125000
G01 X146.521375 Y183.019960 Z-0.125000
G01 X149.390354 Y183.187388 Z-0.125000
G01 X150.984229 Y183.134736 Z-0.125000
G01 X152.578103 Y182.972943 Z-0.125000
G01 X158.316035 Y181.948346 Z-0.125000
G01 X160.759989 Y181.686805 Z-0.125000
G01 X162.141350 Y181.671989 Z-0.125000
G01 X163.628968 Y181.775335 Z-0.125000
G01 X166.922973 Y182.367181 Z-0.125000
G00 Z3.000000

(End cutting path id: polyline40698)


(Start cutting path id: polyline40696)
(Change tool to Default tool)

G00 Z3.000000
G00 X10.085817 Y181.838755

G00 Z4.875000 (Fast pre-penetrate)
G01 Z-0.125000 F400.0(Penetrate)
G01 X16.567572 Y181.644710 Z-0.125000 F800.000000
G01 X28.681002 Y180.868424 Z-0.125000
G01 X33.993908 Y180.704065 Z-0.125000
G01 X39.094301 Y180.816565 Z-0.125000
G01 X50.251422 Y181.448919 Z-0.125000
G01 X55.564328 Y181.552635 Z-0.125000
G01 X60.133438 Y181.489744 Z-0.125000
G01 X74.584565 Y181.077365 Z-0.125000
G01 X88.185612 Y180.986216 Z-0.125000
G01 X101.786660 Y181.074137 Z-0.125000
G01 X116.025274 Y181.505857 Z-0.125000
G01 X120.381845 Y181.547344 Z-0.125000
G01 X124.844698 Y181.385419 Z-0.125000
G01 X132.707814 Y180.780370 Z-0.125000
G01 X135.683050 Y180.704911 Z-0.125000
G01 X138.870799 Y180.867551 Z-0.125000
G01 X145.565066 Y181.706543 Z-0.125000
G01 X148.540276 Y181.864341 Z-0.125000
G01 X151.409255 Y181.678074 Z-0.125000
G01 X157.891009 Y180.555290 Z-0.125000
G01 X159.378627 Y180.393973 Z-0.125000
G01 X160.866245 Y180.342486 Z-0.125000
G01 X163.522711 Y180.554893 Z-0.125000
G01 X166.922973 Y181.261144 Z-0.125000
G00 Z3.000000

(End cutting path id: polyline40696)


(Start cutting path id: polyline40694)
(Change tool to Default tool)

G00 Z3.000000
G00 X10.085817 Y180.539917

G00 Z4.875000 (Fast pre-penetrate)
G01 Z-0.125000 F400.0(Penetrate)
G01 X18.267703 Y180.366483 Z-0.125000 F800.000000
G01 X31.337468 Y179.537915 Z-0.125000
G01 X36.862887 Y179.380330 Z-0.125000
G01 X41.857023 Y179.503281 Z-0.125000
G01 X52.907888 Y180.120104 Z-0.125000
G01 X58.645820 Y180.229720 Z-0.125000
G01 X77.134748 Y179.819484 Z-0.125000
G01 X88.185613 Y179.734342 Z-0.125000
G01 X99.023964 Y179.813637 Z-0.125000
G01 X113.368808 Y180.188366 Z-0.125000
G01 X118.150431 Y180.222391 Z-0.125000
G01 X122.932054 Y180.054064 Z-0.125000
G01 X131.113940 Y179.457773 Z-0.125000
G01 X134.301689 Y179.382684 Z-0.125000
G01 X138.020720 Y179.589165 Z-0.125000
G01 X144.927501 Y180.428766 Z-0.125000
G01 X147.690223 Y180.539785 Z-0.125000
G01 X150.559203 Y180.336533 Z-0.125000
G01 X156.828444 Y179.252113 Z-0.125000
G01 X158.422292 Y179.074207 Z-0.125000
G01 X159.803653 Y179.019253 Z-0.125000
G01 X161.291271 Y179.077885 Z-0.125000
G01 X162.885146 Y179.273464 Z-0.125000
G01 X166.922973 Y180.160294 Z-0.125000
G00 Z3.000000

(End cutting path id: polyline40694)


(Start cutting path id: polyline40692)
(Change tool to Default tool)

G00 Z3.000000
G00 X10.085817 Y179.212293

G00 Z4.875000 (Fast pre-penetrate)
G01 Z-0.125000 F400.0(Penetrate)
G01 X15.717493 Y179.197397 Z-0.125000 F800.000000
G01 X20.392860 Y179.074207 Z-0.125000
G01 X33.675138 Y178.231801 Z-0.125000
G01 X38.669274 Y178.061595 Z-0.125000
G01 X43.663411 Y178.141367 Z-0.125000
G01 X54.501762 Y178.734959 Z-0.125000
G01 X60.133438 Y178.896328 Z-0.125000
G01 X65.021318 Y178.886247 Z-0.125000
G01 X79.047392 Y178.600445 Z-0.125000
G01 X88.291869 Y178.531706 Z-0.125000
G01 X97.111294 Y178.596053 Z-0.125000
G01 X113.793834 Y178.906805 Z-0.125000
G01 X119.531792 Y178.782054 Z-0.125000
G01 X128.669986 Y178.170100 Z-0.125000
G01 X132.176531 Y178.057441 Z-0.125000
G01 X135.895563 Y178.206666 Z-0.125000
G01 X143.227370 Y179.060766 Z-0.125000
G01 X146.521375 Y179.217346 Z-0.125000
G01 X149.496611 Y179.013803 Z-0.125000
G01 X155.872109 Y177.928483 Z-0.125000
G01 X157.359727 Y177.760473 Z-0.125000
G01 X158.847345 Y177.696417 Z-0.125000
G01 X160.441219 Y177.761187 Z-0.125000
G01 X162.141350 Y177.979495 Z-0.125000
G01 X166.922973 Y179.053252 Z-0.125000
G00 Z3.000000

(End cutting path id: polyline40692)


(Start cutting path id: polyline40690)
(Change tool to Default tool)

G00 Z3.000000
G00 X10.085817 Y177.854823

G00 Z4.875000 (Fast pre-penetrate)
G01 Z-0.125000 F400.0(Penetrate)
G01 X17.098854 Y177.892474 Z-0.125000 F800.000000
G01 X22.411760 Y177.789471 Z-0.125000
G01 X26.980871 Y177.563359 Z-0.125000
G01 X36.544117 Y176.904626 Z-0.125000
G01 X41.538254 Y176.738257 Z-0.125000
G01 X46.532390 Y176.816600 Z-0.125000
G01 X57.583228 Y177.398497 Z-0.125000
G01 X63.533700 Y177.568042 Z-0.125000
G01 X88.398126 Y177.359127 Z-0.125000
G01 X109.968546 Y177.583890 Z-0.125000
G01 X116.662813 Y177.455726 Z-0.125000
G01 X126.651086 Y176.843137 Z-0.125000
G01 X130.370144 Y176.734500 Z-0.125000
G01 X134.301689 Y176.888064 Z-0.125000
G01 X141.952291 Y177.742878 Z-0.125000
G01 X145.246297 Y177.894934 Z-0.125000
G01 X148.327763 Y177.694671 Z-0.125000
G01 X154.915773 Y176.598425 Z-0.125000
G01 X156.509648 Y176.427081 Z-0.125000
G01 X157.997266 Y176.373450 Z-0.125000
G01 X159.591140 Y176.447295 Z-0.125000
G01 X161.291271 Y176.672164 Z-0.125000
G01 X166.922973 Y177.927981 Z-0.125000
G00 Z3.000000

(End cutting path id: polyline40690)


(Start cutting path id: polyline40688)
(Change tool to Default tool)

G00 Z3.000000
G00 X10.085817 Y176.467826

G00 Z4.875000 (Fast pre-penetrate)
G01 Z-0.125000 F400.0(Penetrate)
G01 X18.905242 Y176.572390 Z-0.125000 F800.000000
G01 X24.643200 Y176.498386 Z-0.125000
G01 X29.531080 Y176.270924 Z-0.125000
G01 X39.519353 Y175.581050 Z-0.125000
G01 X44.513490 Y175.415844 Z-0.125000
G01 X49.613883 Y175.490166 Z-0.125000
G01 X61.089773 Y176.059998 Z-0.125000
G01 X67.358988 Y176.234411 Z-0.125000
G01 X88.823152 Y176.177685 Z-0.125000
G01 X104.868153 Y176.260975 Z-0.125000
G01 X113.156295 Y176.128128 Z-0.125000
G01 X124.419672 Y175.510486 Z-0.125000
G01 X128.244960 Y175.411585 Z-0.125000
G01 X132.495301 Y175.569461 Z-0.125000
G01 X140.570930 Y176.427425 Z-0.125000
G01 X143.971192 Y176.571463 Z-0.125000
G01 X147.158941 Y176.364348 Z-0.125000
G01 X153.853208 Y175.274927 Z-0.125000
G01 X155.447083 Y175.105991 Z-0.125000
G01 X156.934700 Y175.050455 Z-0.125000
G01 X158.634831 Y175.127555 Z-0.125000
G01 X160.334962 Y175.352239 Z-0.125000
G01 X166.922973 Y176.772150 Z-0.125000
G00 Z3.000000

(End cutting path id: polyline40688)


(Start cutting path id: polyline40686)
(Change tool to Default tool)

G00 Z3.000000
G00 X10.085817 Y175.052810

G00 Z4.875000 (Fast pre-penetrate)
G01 Z-0.125000 F400.0(Penetrate)
G01 X21.136656 Y175.241167 Z-0.125000 F800.000000
G01 X27.087127 Y175.201188 Z-0.125000
G01 X32.293777 Y174.974520 Z-0.125000
G01 X42.813359 Y174.251626 Z-0.125000
G01 X47.913752 Y174.092056 Z-0.125000
G01 X53.226658 Y174.170214 Z-0.125000
G01 X64.596292 Y174.693771 Z-0.125000
G01 X70.971790 Y174.876121 Z-0.125000
G01 X96.048728 Y174.938060 Z-0.125000
G01 X108.268415 Y174.810029 Z-0.125000
G01 X121.763206 Y174.178416 Z-0.125000
G01 X125.801034 Y174.088696 Z-0.125000
G01 X130.370144 Y174.247499 Z-0.125000
G01 X138.870799 Y175.099112 Z-0.125000
G01 X142.483574 Y175.248681 Z-0.125000
G01 X145.777579 Y175.045508 Z-0.125000
G01 X152.790616 Y173.941879 Z-0.125000
G01 X154.384491 Y173.780298 Z-0.125000
G01 X155.872109 Y173.727540 Z-0.125000
G01 X157.572240 Y173.802761 Z-0.125000
G01 X159.272371 Y174.021360 Z-0.125000
G01 X164.797790 Y175.238574 Z-0.125000
G01 X166.922973 Y175.574012 Z-0.125000
G00 Z3.000000

(End cutting path id: polyline40686)


(Start cutting path id: polyline40684)
(Change tool to Default tool)

G00 Z3.000000
G00 X10.085817 Y173.612685

G00 Z4.875000 (Fast pre-penetrate)
G01 Z-0.125000 F400.0(Penetrate)
G01 X23.899378 Y173.904467 Z-0.125000 F800.000000
G01 X29.743593 Y173.898170 Z-0.125000
G01 X35.162756 Y173.681476 Z-0.125000
G01 X46.426134 Y172.920086 Z-0.125000
G01 X52.376579 Y172.765781 Z-0.125000
G01 X57.264459 Y172.847643 Z-0.125000
G01 X68.634093 Y173.310584 Z-0.125000
G01 X75.115847 Y173.485314 Z-0.125000
G01 X84.147811 Y173.573209 Z-0.125000
G01 X95.623676 Y173.555191 Z-0.125000
G01 X105.080666 Y173.395700 Z-0.125000
G01 X118.362944 Y172.852432 Z-0.125000
G01 X122.932054 Y172.765940 Z-0.125000
G01 X128.032447 Y172.935035 Z-0.125000
G01 X137.064411 Y173.779928 Z-0.125000
G01 X140.783443 Y173.926189 Z-0.125000
G01 X144.289961 Y173.722540 Z-0.125000
G01 X151.621768 Y172.611741 Z-0.125000
G01 X153.321899 Y172.449551 Z-0.125000
G01 X154.809517 Y172.404837 Z-0.125000
G01 X156.403391 Y172.474343 Z-0.125000
G01 X158.103522 Y172.682305 Z-0.125000
G01 X164.266507 Y174.004691 Z-0.125000
G01 X166.922973 Y174.323037 Z-0.125000
G00 Z3.000000

(End cutting path id: polyline40684)


(Start cutting path id: polyline40682)
(Change tool to Default tool)

G00 Z3.000000
G00 X10.085817 Y172.151631

G00 Z4.875000 (Fast pre-penetrate)
G01 Z-0.125000 F400.0(Penetrate)
G01 X15.930006 Y172.242515 Z-0.125000 F800.000000
G01 X26.874614 Y172.561920 Z-0.125000
G01 X31.549981 Y172.601025 Z-0.125000
G01 X37.181657 Y172.442805 Z-0.125000
G01 X48.976317 Y171.663026 Z-0.125000
G01 X54.926789 Y171.454190 Z-0.125000
G01 X61.089773 Y171.499725 Z-0.125000
G01 X77.666057 Y171.999813 Z-0.125000
G01 X88.291869 Y172.095619 Z-0.125000
G01 X99.555247 Y171.982748 Z-0.125000
G01 X114.643913 Y171.509700 Z-0.125000
G01 X119.531792 Y171.443633 Z-0.125000
G01 X125.163468 Y171.618020 Z-0.125000
G01 X135.045484 Y172.464738 Z-0.125000
G01 X138.977055 Y172.602798 Z-0.125000
G01 X142.696087 Y172.392375 Z-0.125000
G01 X150.240433 Y171.294461 Z-0.125000
G01 X152.046821 Y171.126663 Z-0.125000
G01 X153.640695 Y171.082266 Z-0.125000
G01 X155.447083 Y171.170742 Z-0.125000
G01 X157.253470 Y171.405930 Z-0.125000
G01 X164.160251 Y172.831742 Z-0.125000
G01 X165.541612 Y172.978770 Z-0.125000
G01 X166.922973 Y173.010917 Z-0.125000
G00 Z3.000000

(End cutting path id: polyline40682)


(Start cutting path id: polyline40680)
(Change tool to Default tool)

G00 Z3.000000
G00 X10.085817 Y170.675020

G00 Z4.875000 (Fast pre-penetrate)
G01 Z-0.125000 F400.0(Penetrate)
G01 X16.780085 Y170.752860 Z-0.125000 F800.000000
G01 X29.849850 Y171.208181 Z-0.125000
G01 X35.269013 Y171.279354 Z-0.125000
G01 X40.794432 Y171.130341 Z-0.125000
G01 X52.907888 Y170.357017 Z-0.125000
G01 X59.283386 Y170.137572 Z-0.125000
G01 X64.808805 Y170.140430 Z-0.125000
G01 X79.366188 Y170.443536 Z-0.125000
G01 X88.291869 Y170.515582 Z-0.125000
G01 X96.154985 Y170.456580 Z-0.125000
G01 X115.175195 Y170.121724 Z-0.125000
G01 X121.763206 Y170.307567 Z-0.125000
G01 X132.495301 Y171.137087 Z-0.125000
G01 X136.745615 Y171.280465 Z-0.125000
G01 X140.783443 Y171.072476 Z-0.125000
G01 X148.859072 Y169.961307 Z-0.125000
G01 X150.665459 Y169.803033 Z-0.125000
G01 X152.259334 Y169.759060 Z-0.125000
G01 X154.065721 Y169.838170 Z-0.125000
G01 X155.978365 Y170.072802 Z-0.125000
G01 X161.610041 Y171.252393 Z-0.125000
G01 X163.416428 Y171.549969 Z-0.125000
G01 X165.222842 Y171.687552 Z-0.125000
G01 X166.922973 Y171.632784 Z-0.125000
G00 Z3.000000

(End cutting path id: polyline40680)


(Start cutting path id: polyline40678)
(Change tool to Default tool)

G00 Z3.000000
G00 X10.085817 Y169.189307

G00 Z4.875000 (Fast pre-penetrate)
G01 Z-0.125000 F400.0(Penetrate)
G01 X18.905242 Y169.267994 Z-0.125000 F800.000000
G01 X33.462625 Y169.861189 Z-0.125000
G01 X39.200557 Y169.957418 Z-0.125000
G01 X44.726003 Y169.817744 Z-0.125000
G01 X57.264459 Y169.064556 Z-0.125000
G01 X64.277522 Y168.829315 Z-0.125000
G01 X70.227967 Y168.800820 Z-0.125000
G01 X88.610639 Y168.933429 Z-0.125000
G01 X109.649776 Y168.802539 Z-0.125000
G01 X117.512892 Y169.001268 Z-0.125000
G01 X129.732578 Y169.826290 Z-0.125000
G01 X134.195432 Y169.957682 Z-0.125000
G01 X138.658286 Y169.745540 Z-0.125000
G01 X147.265197 Y168.634159 Z-0.125000
G01 X149.177841 Y168.477261 Z-0.125000
G01 X150.877972 Y168.436647 Z-0.125000
G01 X152.790616 Y168.524410 Z-0.125000
G01 X154.703260 Y168.755708 Z-0.125000
G01 X160.547476 Y169.944215 Z-0.125000
G01 X162.566376 Y170.256026 Z-0.125000
G01 X164.797790 Y170.366304 Z-0.125000
G01 X166.922973 Y170.187975 Z-0.125000
G00 Z3.000000

(End cutting path id: polyline40678)


(Start cutting path id: polyline40676)
(Change tool to Default tool)

G00 Z3.000000
G00 X10.085817 Y167.701795

G00 Z4.875000 (Fast pre-penetrate)
G01 Z-0.125000 F400.0(Penetrate)
G01 X15.611236 Y167.672823 Z-0.125000 F800.000000
G01 X21.136656 Y167.767014 Z-0.125000
G01 X37.394170 Y168.514647 Z-0.125000
G01 X43.450898 Y168.635111 Z-0.125000
G01 X49.082573 Y168.506392 Z-0.125000
G01 X62.152339 Y167.797150 Z-0.125000
G01 X69.590428 Y167.554078 Z-0.125000
G01 X78.303596 Y167.476317 Z-0.125000
G01 X102.211686 Y167.494362 Z-0.125000
G01 X112.093703 Y167.708303 Z-0.125000
G01 X126.226060 Y168.509646 Z-0.125000
G01 X131.113940 Y168.634952 Z-0.125000
G01 X133.664149 Y168.576797 Z-0.125000
G01 X136.214333 Y168.414237 Z-0.125000
G01 X145.458810 Y167.307619 Z-0.125000
G01 X149.177841 Y167.113283 Z-0.125000
G01 X151.196742 Y167.195991 Z-0.125000
G01 X153.215642 Y167.424803 Z-0.125000
G01 X159.484884 Y168.648552 Z-0.125000
G01 X161.822580 Y168.973381 Z-0.125000
G01 X164.372764 Y169.018466 Z-0.125000
G01 X166.922973 Y168.680725 Z-0.125000
G00 Z3.000000

(End cutting path id: polyline40676)


(Start cutting path id: polyline40674)
(Change tool to Default tool)

G00 Z3.000000
G00 X10.085817 Y166.220315

G00 Z4.875000 (Fast pre-penetrate)
G01 Z-0.125000 F400.0(Penetrate)
G01 X16.992598 Y166.158059 Z-0.125000 F800.000000
G01 X23.899378 Y166.271856 Z-0.125000
G01 X29.743593 Y166.507970 Z-0.125000
G01 X41.219484 Y167.147546 Z-0.125000
G01 X46.851160 Y167.306561 Z-0.125000
G01 X53.757940 Y167.208612 Z-0.125000
G01 X66.508936 Y166.624095 Z-0.125000
G01 X72.778177 Y166.411397 Z-0.125000
G01 X88.291869 Y166.244180 Z-0.125000
G01 X97.005037 Y166.291303 Z-0.125000
G01 X104.230614 Y166.428330 Z-0.125000
G01 X122.081976 Y167.206522 Z-0.125000
G01 X127.394908 Y167.311852 Z-0.125000
G01 X130.370144 Y167.250072 Z-0.125000
G01 X133.239097 Y167.085343 Z-0.125000
G01 X143.333626 Y165.985789 Z-0.125000
G01 X147.371454 Y165.790526 Z-0.125000
G01 X149.496611 Y165.873526 Z-0.125000
G01 X151.621768 Y166.101226 Z-0.125000
G01 X158.422292 Y167.365959 Z-0.125000
G01 X160.972502 Y167.678458 Z-0.125000
G01 X162.460120 Y167.721638 Z-0.125000
G01 X163.841481 Y167.651021 Z-0.125000
G01 X165.329099 Y167.454066 Z-0.125000
G01 X166.922973 Y167.120003 Z-0.125000
G00 Z3.000000

(End cutting path id: polyline40674)


(Start cutting path id: polyline40672)
(Change tool to Default tool)

G00 Z3.000000
G00 X10.085817 Y164.753044

G00 Z4.875000 (Fast pre-penetrate)
G01 Z-0.125000 F400.0(Penetrate)
G01 X18.480216 Y164.661842 Z-0.125000 F800.000000
G01 X26.874614 Y164.785640 Z-0.125000
G01 X33.356368 Y165.052049 Z-0.125000
G01 X46.213621 Y165.809180 Z-0.125000
G01 X53.120401 Y165.987773 Z-0.125000
G01 X59.602155 Y165.906996 Z-0.125000
G01 X77.028491 Y165.359309 Z-0.125000
G01 X88.079356 Y165.241146 Z-0.125000
G01 X98.705168 Y165.346027 Z-0.125000
G01 X117.406635 Y165.925887 Z-0.125000
G01 X124.207159 Y165.972639 Z-0.125000
G01 X130.263861 Y165.705569 Z-0.125000
G01 X140.783443 Y164.668853 Z-0.125000
G01 X144.927501 Y164.467400 Z-0.125000
G01 X147.371454 Y164.538229 Z-0.125000
G01 X149.709124 Y164.761828 Z-0.125000
G01 X157.147214 Y166.062862 Z-0.125000
G01 X160.016166 Y166.374752 Z-0.125000
G01 X161.716297 Y166.386870 Z-0.125000
G01 X163.310172 Y166.258891 Z-0.125000
G01 X165.010303 Y165.977613 Z-0.125000
G01 X166.922973 Y165.518958 Z-0.125000
G00 Z3.000000

(End cutting path id: polyline40672)


(Start cutting path id: polyline40670)
(Change tool to Default tool)

G00 Z3.000000
G00 X10.085817 Y163.307997

G00 Z4.875000 (Fast pre-penetrate)
G01 Z-0.125000 F400.0(Penetrate)
G01 X20.499116 Y163.208408 Z-0.125000 F800.000000
G01 X30.806159 Y163.340303 Z-0.125000
G01 X37.606683 Y163.617903 Z-0.125000
G01 X51.101500 Y164.429750 Z-0.125000
G01 X58.220794 Y164.647581 Z-0.125000
G01 X64.490035 Y164.649168 Z-0.125000
G01 X79.791214 Y164.395116 Z-0.125000
G01 X88.398126 Y164.338468 Z-0.125000
G01 X115.387708 Y164.666578 Z-0.125000
G01 X120.275588 Y164.604083 Z-0.125000
G01 X124.738442 Y164.424670 Z-0.125000
G01 X129.095039 Y164.122913 Z-0.125000
G01 X138.339490 Y163.305960 Z-0.125000
G01 X143.121113 Y163.147422 Z-0.125000
G01 X145.458810 Y163.236904 Z-0.125000
G01 X147.690223 Y163.442855 Z-0.125000
G01 X156.084622 Y164.807442 Z-0.125000
G01 X157.891009 Y165.005350 Z-0.125000
G01 X159.591140 Y165.076973 Z-0.125000
G01 X161.291271 Y165.013023 Z-0.125000
G01 X162.991402 Y164.805907 Z-0.125000
G01 X164.691533 Y164.469120 Z-0.125000
G01 X166.922973 Y163.894260 Z-0.125000
G00 Z3.000000

(End cutting path id: polyline40670)


(Start cutting path id: polyline40668)
(Change tool to Default tool)

G00 Z3.000000
G00 X10.085817 Y161.892690

G00 Z4.875000 (Fast pre-penetrate)
G01 Z-0.125000 F400.0(Penetrate)
G01 X25.280740 Y161.825644 Z-0.125000 F800.000000
G01 X35.587782 Y161.934705 Z-0.125000
G01 X42.494563 Y162.201458 Z-0.125000
G01 X57.051946 Y163.038361 Z-0.125000
G01 X65.552601 Y163.293868 Z-0.125000
G01 X103.699304 Y163.343636 Z-0.125000
G01 X111.349907 Y163.285164 Z-0.125000
G01 X117.831661 Y163.098924 Z-0.125000
G01 X123.782133 Y162.776503 Z-0.125000
G01 X134.939228 Y161.966985 Z-0.125000
G01 X140.358417 Y161.826544 Z-0.125000
G01 X142.908600 Y161.919889 Z-0.125000
G01 X145.352553 Y162.126422 Z-0.125000
G01 X148.008993 Y162.472259 Z-0.125000
G01 X154.490747 Y163.495375 Z-0.125000
G01 X156.403391 Y163.687859 Z-0.125000
G01 X158.103522 Y163.753819 Z-0.125000
G01 X160.016166 Y163.681773 Z-0.125000
G01 X162.035093 Y163.426768 Z-0.125000
G01 X164.053994 Y163.009336 Z-0.125000
G01 X166.922973 Y162.264535 Z-0.125000
G00 Z3.000000

(End cutting path id: polyline40668)


(Start cutting path id: polyline40666)
(Change tool to Default tool)

G00 Z3.000000
G00 X10.085817 Y160.513657

G00 Z4.875000 (Fast pre-penetrate)
G01 Z-0.125000 F400.0(Penetrate)
G01 X40.581919 Y160.548158 Z-0.125000 F800.000000
G01 X47.169929 Y160.752019 Z-0.125000
G01 X60.770977 Y161.446470 Z-0.125000
G01 X67.890297 Y161.717747 Z-0.125000
G01 X76.922235 Y161.895706 Z-0.125000
G01 X88.291869 Y161.952776 Z-0.125000
G01 X99.661503 Y161.893245 Z-0.125000
G01 X108.693441 Y161.711450 Z-0.125000
G01 X116.662813 Y161.394242 Z-0.125000
G01 X130.688914 Y160.619331 Z-0.125000
G01 X136.851872 Y160.505825 Z-0.125000
G01 X139.827108 Y160.606234 Z-0.125000
G01 X142.696087 Y160.826341 Z-0.125000
G01 X145.671323 Y161.178157 Z-0.125000
G01 X152.684360 Y162.183308 Z-0.125000
G01 X154.703260 Y162.368172 Z-0.125000
G01 X156.615904 Y162.431169 Z-0.125000
G01 X158.741088 Y162.339782 Z-0.125000
G01 X160.972502 Y162.047577 Z-0.125000
G01 X163.097659 Y161.606570 Z-0.125000
G01 X166.922973 Y160.650658 Z-0.125000
G00 Z3.000000

(End cutting path id: polyline40666)


(Start cutting path id: polyline40664)
(Change tool to Default tool)

G00 Z3.000000
G00 X10.085817 Y159.176057

G00 Z4.875000 (Fast pre-penetrate)
G01 Z-0.125000 F400.0(Penetrate)
G01 X25.174483 Y159.358434 Z-0.125000 F800.000000
G01 X41.219484 Y159.184286 Z-0.125000
G01 X47.488699 Y159.200955 Z-0.125000
G01 X53.651684 Y159.346211 Z-0.125000
G01 X73.203203 Y160.036481 Z-0.125000
G01 X88.079356 Y160.221292 Z-0.125000
G01 X102.211686 Y160.059685 Z-0.125000
G01 X124.844698 Y159.268317 Z-0.125000
G01 X132.282788 Y159.186958 Z-0.125000
G01 X135.895563 Y159.295675 Z-0.125000
G01 X139.295825 Y159.521629 Z-0.125000
G01 X142.802343 Y159.883446 Z-0.125000
G01 X150.665459 Y160.878781 Z-0.125000
G01 X152.790616 Y161.050257 Z-0.125000
G01 X154.809517 Y161.108201 Z-0.125000
G01 X157.253470 Y161.001706 Z-0.125000
G01 X159.591140 Y160.701563 Z-0.125000
G01 X166.922973 Y159.073320 Z-0.125000
G00 Z3.000000

(End cutting path id: polyline40664)


(Start cutting path id: polyline40662)
(Change tool to Default tool)

G00 Z3.000000
G00 X10.085817 Y157.883278

G00 Z4.875000 (Fast pre-penetrate)
G01 Z-0.125000 F400.0(Penetrate)
G01 X20.392860 Y158.208954 Z-0.125000 F800.000000
G01 X26.024535 Y158.299414 Z-0.125000
G01 X32.400033 Y158.261500 Z-0.125000
G01 X46.532390 Y157.921431 Z-0.125000
G01 X53.545427 Y157.852560 Z-0.125000
G01 X78.409853 Y158.242370 Z-0.125000
G01 X88.291869 Y158.308648 Z-0.125000
G01 X98.917681 Y158.229247 Z-0.125000
G01 X118.362944 Y157.879019 Z-0.125000
G01 X125.907290 Y157.873304 Z-0.125000
G01 X130.688914 Y157.997896 Z-0.125000
G01 X135.045484 Y158.239936 Z-0.125000
G01 X139.295825 Y158.608394 Z-0.125000
G01 X148.221506 Y159.570789 Z-0.125000
G01 X152.684360 Y159.785313 Z-0.125000
G01 X155.340826 Y159.681040 Z-0.125000
G01 X157.891009 Y159.379760 Z-0.125000
G01 X160.228706 Y158.944970 Z-0.125000
G01 X164.904046 Y157.896111 Z-0.125000
G01 X166.922973 Y157.552417 Z-0.125000
G00 Z3.000000

(End cutting path id: polyline40662)


(Start cutting path id: polyline40660)
(Change tool to Default tool)

G00 Z3.000000
G00 X10.085817 Y156.636404

G00 Z4.875000 (Fast pre-penetrate)
G01 Z-0.125000 F400.0(Penetrate)
G01 X21.561708 Y157.204491 Z-0.125000 F800.000000
G01 X29.849850 Y157.350117 Z-0.125000
G01 X36.756630 Y157.258201 Z-0.125000
G01 X53.120401 Y156.718901 Z-0.125000
G01 X62.152339 Y156.556447 Z-0.125000
G01 X116.344043 Y156.579678 Z-0.125000
G01 X123.250824 Y156.729564 Z-0.125000
G01 X129.307552 Y156.991739 Z-0.125000
G01 X134.939228 Y157.375940 Z-0.125000
G01 X145.352553 Y158.275337 Z-0.125000
G01 X150.240433 Y158.462186 Z-0.125000
G01 X153.109386 Y158.360110 Z-0.125000
G01 X155.872109 Y158.068354 Z-0.125000
G01 X158.422292 Y157.636343 Z-0.125000
G01 X164.053994 Y156.468527 Z-0.125000
G01 X166.922973 Y156.105836 Z-0.125000
G00 Z3.000000

(End cutting path id: polyline40660)


(Start cutting path id: polyline40658)
(Change tool to Default tool)

G00 Z3.000000
G00 X10.085817 Y155.434113

G00 Z4.875000 (Fast pre-penetrate)
G01 Z-0.125000 F400.0(Penetrate)
G01 X21.986734 Y156.229846 Z-0.125000 F800.000000
G01 X26.980871 Y156.396401 Z-0.125000
G01 X32.293777 Y156.450191 Z-0.125000
G01 X40.900688 Y156.324990 Z-0.125000
G01 X59.495899 Y155.673534 Z-0.125000
G01 X70.546737 Y155.428821 Z-0.125000
G01 X86.910508 Y155.315685 Z-0.125000
G01 X103.911844 Y155.402892 Z-0.125000
G01 X113.262551 Y155.574183 Z-0.125000
G01 X121.763206 Y155.846756 Z-0.125000
G01 X129.201296 Y156.207780 Z-0.125000
G01 X141.846008 Y156.994174 Z-0.125000
G01 X147.158941 Y157.138980 Z-0.125000
G01 X150.346690 Y157.042407 Z-0.125000
G01 X153.428156 Y156.764092 Z-0.125000
G01 X156.403391 Y156.316047 Z-0.125000
G01 X163.203915 Y155.037397 Z-0.125000
G01 X165.116586 Y154.813957 Z-0.125000
G01 X166.922973 Y154.748023 Z-0.125000
G00 Z3.000000

(End cutting path id: polyline40658)


(Start cutting path id: polyline40656)
(Change tool to Default tool)

G00 Z3.000000
G00 X10.085817 Y154.272408

G00 Z4.875000 (Fast pre-penetrate)
G01 Z-0.125000 F400.0(Penetrate)
G01 X16.355059 Y154.853909 Z-0.125000 F800.000000
G01 X20.711629 Y155.167307 Z-0.125000
G01 X25.493253 Y155.384424 Z-0.125000
G01 X30.806159 Y155.498698 Z-0.125000
G01 X43.769667 Y155.432975 Z-0.125000
G01 X73.840742 Y154.684496 Z-0.125000
G01 X90.842079 Y154.578346 Z-0.125000
G01 X100.724095 Y154.658541 Z-0.125000
G01 X110.712368 Y154.844569 Z-0.125000
G01 X121.550693 Y155.152438 Z-0.125000
G01 X137.170668 Y155.723858 Z-0.125000
G01 X143.121113 Y155.815007 Z-0.125000
G01 X146.840145 Y155.721662 Z-0.125000
G01 X150.240433 Y155.475520 Z-0.125000
G01 X153.959465 Y155.001731 Z-0.125000
G01 X162.247606 Y153.621666 Z-0.125000
G01 X164.691533 Y153.433177 Z-0.125000
G01 X166.922973 Y153.488581 Z-0.125000
G00 Z3.000000

(End cutting path id: polyline40656)


(Start cutting path id: polyline40654)
(Change tool to Default tool)

G00 Z3.000000
G00 X10.085817 Y153.144491

G00 Z4.875000 (Fast pre-penetrate)
G01 Z-0.125000 F400.0(Penetrate)
G01 X15.611236 Y153.745332 Z-0.125000 F800.000000
G01 X19.967834 Y154.089872 Z-0.125000
G01 X24.749457 Y154.309582 Z-0.125000
G01 X30.487389 Y154.421977 Z-0.125000
G01 X46.319877 Y154.426792 Z-0.125000
G01 X74.372052 Y154.092809 Z-0.125000
G01 X89.035691 Y154.025711 Z-0.125000
G01 X102.636739 Y154.098921 Z-0.125000
G01 X136.851872 Y154.489816 Z-0.125000
G01 X142.802343 Y154.362234 Z-0.125000
G01 X147.796480 Y154.031347 Z-0.125000
G01 X151.302998 Y153.633864 Z-0.125000
G01 X158.741088 Y152.506634 Z-0.125000
G01 X161.716297 Y152.177414 Z-0.125000
G01 X164.372764 Y152.110448 Z-0.125000
G01 X166.922973 Y152.330951 Z-0.125000
G00 Z3.000000

(End cutting path id: polyline40654)


(Start cutting path id: polyline40652)
(Change tool to Default tool)

G00 Z3.000000
G00 X10.085817 Y152.041048

G00 Z4.875000 (Fast pre-penetrate)
G01 Z-0.125000 F400.0(Penetrate)
G01 X14.229875 Y152.546666 Z-0.125000 F800.000000
G01 X17.842650 Y152.869351 Z-0.125000
G01 X21.561708 Y153.065698 Z-0.125000
G01 X25.812022 Y153.157773 Z-0.125000
G01 X124.525929 Y153.148248 Z-0.125000
G01 X135.151741 Y153.014607 Z-0.125000
G01 X142.696087 Y152.693298 Z-0.125000
G01 X147.902736 Y152.249116 Z-0.125000
G01 X157.040957 Y151.100481 Z-0.125000
G01 X160.441219 Y150.812668 Z-0.125000
G01 X163.735224 Y150.840687 Z-0.125000
G01 X165.329099 Y151.003485 Z-0.125000
G01 X166.922973 Y151.271032 Z-0.125000
G00 Z3.000000

(End cutting path id: polyline40652)


(Start cutting path id: polyline40650)
(Change tool to Default tool)

G00 Z3.000000
G00 X10.085817 Y150.950489

G00 Z4.875000 (Fast pre-penetrate)
G01 Z-0.125000 F400.0(Penetrate)
G01 X13.167310 Y151.349269 Z-0.125000 F800.000000
G01 X16.036263 Y151.620387 Z-0.125000
G01 X18.905242 Y151.781068 Z-0.125000
G01 X21.986734 Y151.845653 Z-0.125000
G01 X44.832259 Y151.471083 Z-0.125000
G01 X80.853806 Y151.601655 Z-0.125000
G01 X108.268415 Y151.565671 Z-0.125000
G01 X126.544829 Y151.433089 Z-0.125000
G01 X137.064411 Y151.167580 Z-0.125000
G01 X144.077448 Y150.755730 Z-0.125000
G01 X155.128286 Y149.687714 Z-0.125000
G01 X158.953601 Y149.464036 Z-0.125000
G01 X161.078758 Y149.480731 Z-0.125000
G01 X162.991402 Y149.616488 Z-0.125000
G01 X164.904046 Y149.880886 Z-0.125000
G01 X166.922973 Y150.295937 Z-0.125000
G00 Z3.000000

(End cutting path id: polyline40650)


(Start cutting path id: polyline40648)
(Change tool to Default tool)

G00 Z3.000000
G00 X10.085817 Y149.859481

G00 Z4.875000 (Fast pre-penetrate)
G01 Z-0.125000 F400.0(Penetrate)
G01 X14.761184 Y150.374413 Z-0.125000 F800.000000
G01 X19.542781 Y150.524220 Z-0.125000
G01 X23.899378 Y150.407406 Z-0.125000
G01 X37.712939 Y149.717585 Z-0.125000
G01 X47.913752 Y149.492584 Z-0.125000
G01 X129.201296 Y149.398498 Z-0.125000
G01 X139.720851 Y149.119046 Z-0.125000
G01 X153.109386 Y148.262696 Z-0.125000
G01 X157.040957 Y148.132680 Z-0.125000
G01 X159.591140 Y148.199355 Z-0.125000
G01 X162.035093 Y148.423828 Z-0.125000
G01 X164.372764 Y148.803980 Z-0.125000
G01 X166.922973 Y149.383444 Z-0.125000
G00 Z3.000000

(End cutting path id: polyline40648)


(Start cutting path id: polyline40646)
(Change tool to Default tool)

G00 Z3.000000
G00 X10.085817 Y148.753657

G00 Z4.875000 (Fast pre-penetrate)
G01 Z-0.125000 F400.0(Penetrate)
G01 X14.229875 Y149.143890 Z-0.125000 F800.000000
G01 X18.586472 Y149.168179 Z-0.125000
G01 X22.092991 Y148.973843 Z-0.125000
G01 X31.549981 Y148.181575 Z-0.125000
G01 X37.075400 Y147.820340 Z-0.125000
G01 X43.769667 Y147.547238 Z-0.125000
G01 X51.845296 Y147.381609 Z-0.125000
G01 X87.229277 Y147.197485 Z-0.125000
G01 X131.963992 Y147.362664 Z-0.125000
G01 X139.295825 Y147.251910 Z-0.125000
G01 X153.534439 Y146.809845 Z-0.125000
G01 X157.040957 Y146.891918 Z-0.125000
G01 X160.228706 Y147.174202 Z-0.125000
G01 X163.310172 Y147.676989 Z-0.125000
G01 X166.922973 Y148.501800 Z-0.125000
G00 Z3.000000

(End cutting path id: polyline40646)


(Start cutting path id: polyline40644)
(Change tool to Default tool)

G00 Z3.000000
G00 X10.085817 Y147.618410

G00 Z4.875000 (Fast pre-penetrate)
G01 Z-0.125000 F400.0(Penetrate)
G01 X13.592336 Y147.867171 Z-0.125000 F800.000000
G01 X17.311367 Y147.793723 Z-0.125000
G01 X20.499116 Y147.528293 Z-0.125000
G01 X32.081264 Y146.280494 Z-0.125000
G01 X36.650374 Y145.963682 Z-0.125000
G01 X41.644510 Y145.748232 Z-0.125000
G01 X53.757940 Y145.542333 Z-0.125000
G01 X76.603465 Y145.486745 Z-0.125000
G01 X110.499828 Y145.494206 Z-0.125000
G01 X133.345353 Y145.583450 Z-0.125000
G01 X151.728025 Y145.521643 Z-0.125000
G01 X155.553339 Y145.699787 Z-0.125000
G01 X159.059858 Y146.066763 Z-0.125000
G01 X162.353863 Y146.622097 Z-0.125000
G01 X166.922973 Y147.610870 Z-0.125000
G00 Z3.000000

(End cutting path id: polyline40644)


(Start cutting path id: polyline40642)
(Change tool to Default tool)

G00 Z3.000000
G00 X10.085817 Y146.440116

G00 Z4.875000 (Fast pre-penetrate)
G01 Z-0.125000 F400.0(Penetrate)
G01 X12.848514 Y146.556189 Z-0.125000 F800.000000
G01 X15.717493 Y146.439217 Z-0.125000
G01 X18.480216 Y146.154393 Z-0.125000
G01 X25.705766 Y145.148793 Z-0.125000
G01 X29.637337 Y144.702203 Z-0.125000
G01 X34.206421 Y144.367691 Z-0.125000
G01 X39.306814 Y144.197141 Z-0.125000
G01 X47.807495 Y144.185552 Z-0.125000
G01 X74.584565 Y144.561471 Z-0.125000
G01 X88.291869 Y144.642301 Z-0.125000
G01 X101.361634 Y144.566207 Z-0.125000
G01 X126.119803 Y144.227329 Z-0.125000
G01 X138.658286 Y144.183462 Z-0.125000
G01 X148.008993 Y144.282151 Z-0.125000
G01 X154.171978 Y144.613409 Z-0.125000
G01 X159.272371 Y145.245286 Z-0.125000
G01 X166.922973 Y146.664430 Z-0.125000
G00 Z3.000000

(End cutting path id: polyline40642)


(Start cutting path id: polyline40640)
(Change tool to Default tool)

G00 Z3.000000
G00 X10.085817 Y145.206922

G00 Z4.875000 (Fast pre-penetrate)
G01 Z-0.125000 F400.0(Penetrate)
G01 X12.529744 Y145.207054 Z-0.125000 F800.000000
G01 X15.186210 Y144.991181 Z-0.125000
G01 X24.005635 Y143.621249 Z-0.125000
G01 X27.830949 Y143.163917 Z-0.125000
G01 X31.549981 Y142.915580 Z-0.125000
G01 X35.694039 Y142.841391 Z-0.125000
G01 X41.963280 Y142.989425 Z-0.125000
G01 X58.114537 Y143.716049 Z-0.125000
G01 X68.421580 Y144.096070 Z-0.125000
G01 X77.453544 Y144.318981 Z-0.125000
G01 X86.166712 Y144.411559 Z-0.125000
G01 X94.986136 Y144.376290 Z-0.125000
G01 X103.911844 Y144.210661 Z-0.125000
G01 X132.389045 Y143.232074 Z-0.125000
G01 X138.552003 Y143.159102 Z-0.125000
G01 X144.183705 Y143.206886 Z-0.125000
G01 X149.602867 Y143.411461 Z-0.125000
G01 X154.278234 Y143.789868 Z-0.125000
G01 X157.678496 Y144.216587 Z-0.125000
G01 X164.372764 Y145.291138 Z-0.125000
G01 X166.922973 Y145.614221 Z-0.125000
G00 Z3.000000

(End cutting path id: polyline40640)


(Start cutting path id: polyline40638)
(Change tool to Default tool)

G00 Z3.000000
G00 X10.085817 Y143.909883

G00 Z4.875000 (Fast pre-penetrate)
G01 Z-0.125000 F400.0(Penetrate)
G01 X11.998461 Y143.827280 Z-0.125000 F800.000000
G01 X14.123619 Y143.590002 Z-0.125000
G01 X21.349195 Y142.309209 Z-0.125000
G01 X24.430661 Y141.866561 Z-0.125000
G01 X27.512153 Y141.601423 Z-0.125000
G01 X30.806159 Y141.518291 Z-0.125000
G01 X36.650374 Y141.752764 Z-0.125000
G01 X49.932652 Y142.843534 Z-0.125000
G01 X57.476972 Y143.346347 Z-0.125000
G01 X65.552601 Y143.728670 Z-0.125000
G01 X73.946999 Y143.976743 Z-0.125000
G01 X88.716895 Y144.119036 Z-0.125000
G01 X103.274278 Y143.957958 Z-0.125000
G01 X114.431399 Y143.576244 Z-0.125000
G01 X132.920327 Y142.593424 Z-0.125000
G01 X137.595694 Y142.452930 Z-0.125000
G01 X141.952291 Y142.420122 Z-0.125000
G01 X146.946428 Y142.528125 Z-0.125000
G01 X151.621768 Y142.806413 Z-0.125000
G01 X155.765852 Y143.217390 Z-0.125000
G01 X163.416428 Y144.182271 Z-0.125000
G01 X166.922973 Y144.415448 Z-0.125000
G00 Z3.000000

(End cutting path id: polyline40638)


(Start cutting path id: polyline40636)
(Change tool to Default tool)

G00 Z3.000000
G00 X10.085817 Y142.543973

G00 Z4.875000 (Fast pre-penetrate)
G01 Z-0.125000 F400.0(Penetrate)
G01 X13.273566 Y142.162100 Z-0.125000 F800.000000
G01 X19.224011 Y140.986161 Z-0.125000
G01 X21.880478 Y140.553198 Z-0.125000
G01 X24.643200 Y140.276735 Z-0.125000
G01 X27.405897 Y140.195455 Z-0.125000
G01 X29.956106 Y140.275888 Z-0.125000
G01 X32.825086 Y140.501683 Z-0.125000
G01 X44.088437 Y141.837404 Z-0.125000
G01 X49.932652 Y142.390462 Z-0.125000
G01 X56.308150 Y142.783526 Z-0.125000
G01 X63.321187 Y143.009904 Z-0.125000
G01 X72.990690 Y143.096025 Z-0.125000
G01 X111.243651 Y143.041733 Z-0.125000
G01 X120.275588 Y142.779716 Z-0.125000
G01 X136.108076 Y141.948079 Z-0.125000
G01 X142.802343 Y141.810073 Z-0.125000
G01 X146.733888 Y141.868837 Z-0.125000
G01 X150.665459 Y142.048144 Z-0.125000
G01 X162.778889 Y143.039008 Z-0.125000
G01 X164.904046 Y143.096290 Z-0.125000
G01 X166.922973 Y143.034034 Z-0.125000
G00 Z3.000000

(End cutting path id: polyline40636)


(Start cutting path id: polyline40634)
(Change tool to Default tool)

G00 Z3.000000
G00 X10.085817 Y141.108531

G00 Z4.875000 (Fast pre-penetrate)
G01 Z-0.125000 F400.0(Penetrate)
G01 X12.423488 Y140.736898 Z-0.125000 F800.000000
G01 X17.417624 Y139.660098 Z-0.125000
G01 X19.649064 Y139.256079 Z-0.125000
G01 X22.199247 Y138.960831 Z-0.125000
G01 X24.643200 Y138.872249 Z-0.125000
G01 X27.087127 Y138.964218 Z-0.125000
G01 X29.743593 Y139.227266 Z-0.125000
G01 X39.200557 Y140.663211 Z-0.125000
G01 X43.663411 Y141.212644 Z-0.125000
G01 X48.232521 Y141.573244 Z-0.125000
G01 X53.014145 Y141.748002 Z-0.125000
G01 X60.664721 Y141.720511 Z-0.125000
G01 X78.197340 Y141.175523 Z-0.125000
G01 X87.229277 Y141.043285 Z-0.125000
G01 X96.792524 Y141.142345 Z-0.125000
G01 X113.262551 Y141.661007 Z-0.125000
G01 X119.531792 Y141.770650 Z-0.125000
G01 X126.119803 Y141.699583 Z-0.125000
G01 X137.914464 Y141.266011 Z-0.125000
G01 X143.014857 Y141.163405 Z-0.125000
G01 X149.390354 Y141.249289 Z-0.125000
G01 X161.078758 Y141.768639 Z-0.125000
G01 X164.160251 Y141.714082 Z-0.125000
G01 X166.922973 Y141.454182 Z-0.125000
G00 Z3.000000

(End cutting path id: polyline40634)


(Start cutting path id: polyline40632)
(Change tool to Default tool)

G00 Z3.000000
G00 X10.085817 Y139.607895

G00 Z4.875000 (Fast pre-penetrate)
G01 Z-0.125000 F400.0(Penetrate)
G01 X17.842650 Y137.939514 Z-0.125000 F800.000000
G01 X20.180347 Y137.641250 Z-0.125000
G01 X22.411760 Y137.549281 Z-0.125000
G01 X24.643200 Y137.643340 Z-0.125000
G01 X27.087127 Y137.923454 Z-0.125000
G01 X35.481526 Y139.440309 Z-0.125000
G01 X39.094301 Y139.973232 Z-0.125000
G01 X42.600819 Y140.301606 Z-0.125000
G01 X46.107364 Y140.441279 Z-0.125000
G01 X49.826396 Y140.415747 Z-0.125000
G01 X54.076710 Y140.229295 Z-0.125000
G01 X69.059119 Y139.123523 Z-0.125000
G01 X75.328360 Y138.744879 Z-0.125000
G01 X80.960062 Y138.524216 Z-0.125000
G01 X86.591738 Y138.426876 Z-0.125000
G01 X93.498519 Y138.477226 Z-0.125000
G01 X100.511556 Y138.718923 Z-0.125000
G01 X107.099566 Y139.108733 Z-0.125000
G01 X120.913154 Y140.130500 Z-0.125000
G01 X128.563730 Y140.429823 Z-0.125000
G01 X145.352553 Y140.304410 Z-0.125000
G01 X159.166114 Y140.434003 Z-0.125000
G01 X163.310172 Y140.206144 Z-0.125000
G01 X166.922973 Y139.685762 Z-0.125000
G00 Z3.000000

(End cutting path id: polyline40632)


(Start cutting path id: polyline40630)
(Change tool to Default tool)

G00 Z3.000000
G00 X10.085817 Y138.051168

G00 Z4.875000 (Fast pre-penetrate)
G01 Z-0.125000 F400.0(Penetrate)
G01 X14.548645 Y136.972093 Z-0.125000 F800.000000
G01 X16.780085 Y136.530822 Z-0.125000
G01 X19.011498 Y136.274652 Z-0.125000
G01 X21.242939 Y136.239436 Z-0.125000
G01 X23.155583 Y136.379401 Z-0.125000
G01 X25.174483 Y136.667452 Z-0.125000
G01 X32.612546 Y138.210633 Z-0.125000
G01 X35.906552 Y138.750197 Z-0.125000
G01 X39.519353 Y139.073411 Z-0.125000
G01 X43.238385 Y139.107781 Z-0.125000
G01 X48.657547 Y138.747101 Z-0.125000
G01 X61.939826 Y137.208869 Z-0.125000
G01 X69.271659 Y136.554978 Z-0.125000
G01 X77.666057 Y136.131857 Z-0.125000
G01 X87.441817 Y135.976600 Z-0.125000
G01 X97.111294 Y136.085661 Z-0.125000
G01 X105.505692 Y136.448722 Z-0.125000
G01 X112.518755 Y137.013130 Z-0.125000
G01 X127.288652 Y138.579964 Z-0.125000
G01 X131.751479 Y138.885452 Z-0.125000
G01 X136.426846 Y139.055446 Z-0.125000
G01 X149.709124 Y139.121565 Z-0.125000
G01 X157.040957 Y138.998270 Z-0.125000
G01 X159.803653 Y138.831503 Z-0.125000
G01 X162.247606 Y138.581763 Z-0.125000
G01 X164.585277 Y138.232064 Z-0.125000
G01 X166.922973 Y137.769414 Z-0.125000
G00 Z3.000000

(End cutting path id: polyline40630)


(Start cutting path id: polyline40628)
(Change tool to Default tool)

G00 Z3.000000
G00 X10.085817 Y136.452082

G00 Z4.875000 (Fast pre-penetrate)
G01 Z-0.125000 F400.0(Penetrate)
G01 X13.486079 Y135.585387 Z-0.125000 F800.000000
G01 X15.611236 Y135.162636 Z-0.125000
G01 X17.736394 Y134.933084 Z-0.125000
G01 X19.755321 Y134.926073 Z-0.125000
G01 X21.455452 Y135.074980 Z-0.125000
G01 X23.368096 Y135.383193 Z-0.125000
G01 X29.956106 Y136.905815 Z-0.125000
G01 X32.825086 Y137.436807 Z-0.125000
G01 X35.906552 Y137.752931 Z-0.125000
G01 X38.988044 Y137.784548 Z-0.125000
G01 X41.325741 Y137.641303 Z-0.125000
G01 X43.875924 Y137.359787 Z-0.125000
G01 X54.820532 Y135.658280 Z-0.125000
G01 X60.664721 Y134.955230 Z-0.125000
G01 X67.252732 Y134.508640 Z-0.125000
G01 X75.009591 Y134.349070 Z-0.125000
G01 X101.680404 Y134.350658 Z-0.125000
G01 X109.649776 Y134.532162 Z-0.125000
G01 X113.475064 Y134.763222 Z-0.125000
G01 X117.300379 Y135.108159 Z-0.125000
G01 X128.988783 Y136.558973 Z-0.125000
G01 X133.557866 Y137.034694 Z-0.125000
G01 X138.552003 Y137.375185 Z-0.125000
G01 X144.077448 Y137.549043 Z-0.125000
G01 X151.302998 Y137.529464 Z-0.125000
G01 X157.147214 Y137.252604 Z-0.125000
G01 X161.928837 Y136.712961 Z-0.125000
G01 X166.922973 Y135.777633 Z-0.125000
G00 Z3.000000

(End cutting path id: polyline40628)


(Start cutting path id: polyline40626)
(Change tool to Default tool)

G00 Z3.000000
G00 X10.085817 Y134.827939

G00 Z4.875000 (Fast pre-penetrate)
G01 Z-0.125000 F400.0(Penetrate)
G01 X12.742257 Y134.143965 Z-0.125000 F800.000000
G01 X14.761184 Y133.764950 Z-0.125000
G01 X16.673828 Y133.592283 Z-0.125000
G01 X18.480216 Y133.618901 Z-0.125000
G01 X20.074090 Y133.789292 Z-0.125000
G01 X21.774221 Y134.097425 Z-0.125000
G01 X27.618410 Y135.572449 Z-0.125000
G01 X29.956106 Y136.063515 Z-0.125000
G01 X32.400033 Y136.385777 Z-0.125000
G01 X34.843986 Y136.480921 Z-0.125000
G01 X37.287913 Y136.358525 Z-0.125000
G01 X39.944379 Y136.025574 Z-0.125000
G01 X49.082573 Y134.273426 Z-0.125000
G01 X53.120401 Y133.637342 Z-0.125000
G01 X57.051946 Y133.234726 Z-0.125000
G01 X61.196030 Y133.042215 Z-0.125000
G01 X67.146475 Y133.088888 Z-0.125000
G01 X81.491345 Y133.741852 Z-0.125000
G01 X88.079356 Y133.875969 Z-0.125000
G01 X94.773623 Y133.745821 Z-0.125000
G01 X109.543520 Y133.079389 Z-0.125000
G01 X113.050038 Y133.022610 Z-0.125000
G01 X116.237787 Y133.067801 Z-0.125000
G01 X119.425536 Y133.223005 Z-0.125000
G01 X122.825798 Y133.508702 Z-0.125000
G01 X133.664149 Y134.822039 Z-0.125000
G01 X138.020720 Y135.260294 Z-0.125000
G01 X142.589830 Y135.557844 Z-0.125000
G01 X147.158941 Y135.679261 Z-0.125000
G01 X152.259334 Y135.601924 Z-0.125000
G01 X157.040957 Y135.288710 Z-0.125000
G01 X161.397528 Y134.757375 Z-0.125000
G01 X166.922973 Y133.809321 Z-0.125000
G00 Z3.000000

(End cutting path id: polyline40626)


(Start cutting path id: polyline40624)
(Change tool to Default tool)

G00 Z3.000000
G00 X10.085817 Y133.198584

G00 Z4.875000 (Fast pre-penetrate)
G01 Z-0.125000 F400.0(Penetrate)
G01 X12.210974 Y132.674683 Z-0.125000 F800.000000
G01 X14.017362 Y132.373561 Z-0.125000
G01 X15.717493 Y132.259288 Z-0.125000
G01 X17.417624 Y132.324217 Z-0.125000
G01 X18.798985 Y132.501778 Z-0.125000
G01 X20.392860 Y132.822003 Z-0.125000
G01 X25.705766 Y134.263875 Z-0.125000
G01 X27.830949 Y134.745495 Z-0.125000
G01 X30.062363 Y135.065138 Z-0.125000
G01 X32.187520 Y135.158430 Z-0.125000
G01 X34.418934 Y135.037171 Z-0.125000
G01 X36.862887 Y134.688133 Z-0.125000
G01 X44.938516 Y132.877513 Z-0.125000
G01 X48.232521 Y132.263918 Z-0.125000
G01 X51.314014 Y131.887046 Z-0.125000
G01 X54.395506 Y131.714829 Z-0.125000
G01 X57.689511 Y131.734064 Z-0.125000
G01 X61.408543 Y131.948958 Z-0.125000
G01 X73.415716 Y133.204140 Z-0.125000
G01 X77.666057 Y133.548363 Z-0.125000
G01 X82.341397 Y133.771618 Z-0.125000
G01 X87.866843 Y133.875652 Z-0.125000
G01 X93.923545 Y133.775031 Z-0.125000
G01 X99.236477 Y133.513173 Z-0.125000
G01 X103.274278 Y133.172364 Z-0.125000
G01 X113.581321 Y132.069846 Z-0.125000
G01 X119.531792 Y131.719539 Z-0.125000
G01 X122.825798 Y131.717422 Z-0.125000
G01 X126.119803 Y131.863207 Z-0.125000
G01 X140.570930 Y133.241843 Z-0.125000
G01 X144.502474 Y133.477719 Z-0.125000
G01 X148.221506 Y133.567069 Z-0.125000
G01 X152.365590 Y133.497748 Z-0.125000
G01 X156.403391 Y133.247585 Z-0.125000
G01 X160.016166 Y132.874205 Z-0.125000
G01 X166.922973 Y131.978354 Z-0.125000
G00 Z3.000000

(End cutting path id: polyline40624)


(Start cutting path id: polyline40622)
(Change tool to Default tool)

G00 Z3.000000
G00 X10.085817 Y131.584760

G00 Z4.875000 (Fast pre-penetrate)
G01 Z-0.125000 F400.0(Penetrate)
G01 X11.785948 Y131.208867 Z-0.125000 F800.000000
G01 X13.379823 Y130.992094 Z-0.125000
G01 X14.867441 Y130.935764 Z-0.125000
G01 X16.355059 Y131.027337 Z-0.125000
G01 X19.117755 Y131.541792 Z-0.125000
G01 X24.005635 Y132.950088 Z-0.125000
G01 X26.024535 Y133.435280 Z-0.125000
G01 X28.255976 Y133.763151 Z-0.125000
G01 X30.381133 Y133.829218 Z-0.125000
G01 X32.400033 Y133.671420 Z-0.125000
G01 X34.525217 Y133.310264 Z-0.125000
G01 X41.857023 Y131.446780 Z-0.125000
G01 X44.938516 Y130.821808 Z-0.125000
G01 X48.232521 Y130.446630 Z-0.125000
G01 X51.526527 Y130.392126 Z-0.125000
G01 X53.970453 Y130.532011 Z-0.125000
G01 X56.626920 Y130.815749 Z-0.125000
G01 X68.102810 Y132.566442 Z-0.125000
G01 X74.265795 Y133.284732 Z-0.125000
G01 X81.597602 Y133.745821 Z-0.125000
G01 X89.673230 Y133.858031 Z-0.125000
G01 X96.473754 Y133.673510 Z-0.125000
G01 X102.742996 Y133.224857 Z-0.125000
G01 X108.055902 Y132.596552 Z-0.125000
G01 X119.106766 Y130.956772 Z-0.125000
G01 X122.081976 Y130.635410 Z-0.125000
G01 X124.950955 Y130.442476 Z-0.125000
G01 X127.926191 Y130.376621 Z-0.125000
G01 X131.007683 Y130.441523 Z-0.125000
G01 X143.333626 Y131.243289 Z-0.125000
G01 X149.496611 Y131.408759 Z-0.125000
G01 X155.447083 Y131.226620 Z-0.125000
G01 X164.160251 Y130.540398 Z-0.125000
G01 X166.922973 Y130.393925 Z-0.125000
G00 Z3.000000

(End cutting path id: polyline40622)


(Start cutting path id: polyline40620)
(Change tool to Default tool)

G00 Z3.000000
G00 X10.085817 Y130.006681

G00 Z4.875000 (Fast pre-penetrate)
G01 Z-0.125000 F400.0(Penetrate)
G01 X11.467179 Y129.757709 Z-0.125000 F800.000000
G01 X12.848514 Y129.627269 Z-0.125000
G01 X14.123619 Y129.625417 Z-0.125000
G01 X15.504980 Y129.752867 Z-0.125000
G01 X17.948933 Y130.262374 Z-0.125000
G01 X22.411760 Y131.614790 Z-0.125000
G01 X24.324404 Y132.103316 Z-0.125000
G01 X26.343331 Y132.427933 Z-0.125000
G01 X28.362232 Y132.508737 Z-0.125000
G01 X30.274876 Y132.356416 Z-0.125000
G01 X32.293777 Y131.987773 Z-0.125000
G01 X39.094301 Y130.085553 Z-0.125000
G01 X41.857023 Y129.467778 Z-0.125000
G01 X44.619746 Y129.119799 Z-0.125000
G01 X47.488699 Y129.072465 Z-0.125000
G01 X49.613883 Y129.224838 Z-0.125000
G01 X51.845296 Y129.521198 Z-0.125000
G01 X63.533700 Y131.799310 Z-0.125000
G01 X66.933962 Y132.307283 Z-0.125000
G01 X70.334224 Y132.671085 Z-0.125000
G01 X74.159539 Y132.923550 Z-0.125000
G01 X78.516109 Y133.061371 Z-0.125000
G01 X93.923545 Y133.105424 Z-0.125000
G01 X101.786660 Y132.942970 Z-0.125000
G01 X107.843389 Y132.496460 Z-0.125000
G01 X113.050038 Y131.781266 Z-0.125000
G01 X124.207159 Y129.806524 Z-0.125000
G01 X127.394908 Y129.403961 Z-0.125000
G01 X130.476400 Y129.160915 Z-0.125000
G01 X135.895563 Y129.061855 Z-0.125000
G01 X145.777579 Y129.354934 Z-0.125000
G01 X150.027894 Y129.407242 Z-0.125000
G01 X154.278234 Y129.345250 Z-0.125000
G01 X162.778889 Y129.063178 Z-0.125000
G01 X166.922973 Y129.136044 Z-0.125000
G00 Z3.000000

(End cutting path id: polyline40620)


(Start cutting path id: polyline40618)
(Change tool to Default tool)

G00 Z3.000000
G00 X10.085817 Y128.482101

G00 Z4.875000 (Fast pre-penetrate)
G01 Z-0.125000 F400.0(Penetrate)
G01 X12.423488 Y128.288876 Z-0.125000 F800.000000
G01 X14.761184 Y128.496494 Z-0.125000
G01 X16.886341 Y128.989359 Z-0.125000
G01 X22.518017 Y130.706027 Z-0.125000
G01 X24.218148 Y131.036941 Z-0.125000
G01 X25.812022 Y131.180900 Z-0.125000
G01 X27.830949 Y131.112135 Z-0.125000
G01 X30.062363 Y130.736216 Z-0.125000
G01 X32.081264 Y130.195064 Z-0.125000
G01 X36.756630 Y128.732793 Z-0.125000
G01 X39.200557 Y128.137746 Z-0.125000
G01 X41.325741 Y127.825459 Z-0.125000
G01 X43.450898 Y127.731294 Z-0.125000
G01 X45.469798 Y127.837736 Z-0.125000
G01 X47.701239 Y128.144520 Z-0.125000
G01 X50.145165 Y128.646142 Z-0.125000
G01 X56.201893 Y130.143021 Z-0.125000
G01 X59.177103 Y130.786063 Z-0.125000
G01 X62.577391 Y131.333380 Z-0.125000
G01 X65.977653 Y131.659637 Z-0.125000
G01 X68.740349 Y131.777773 Z-0.125000
G01 X71.928098 Y131.788118 Z-0.125000
G01 X83.297733 Y131.433418 Z-0.125000
G01 X88.823152 Y131.371400 Z-0.125000
G01 X105.930745 Y131.797220 Z-0.125000
G01 X110.393572 Y131.663817 Z-0.125000
G01 X114.537656 Y131.267102 Z-0.125000
G01 X118.469201 Y130.652475 Z-0.125000
G01 X128.988783 Y128.666092 Z-0.125000
G01 X132.495301 Y128.200823 Z-0.125000
G01 X136.108076 Y127.903617 Z-0.125000
G01 X141.846008 Y127.736850 Z-0.125000
G01 X158.953601 Y127.740739 Z-0.125000
G01 X163.310172 Y127.881868 Z-0.125000
G01 X166.922973 Y128.231938 Z-0.125000
G00 Z3.000000

(End cutting path id: polyline40618)


(Start cutting path id: polyline40616)
(Change tool to Default tool)

G00 Z3.000000
G00 X10.085817 Y127.025148

G00 Z4.875000 (Fast pre-penetrate)
G01 Z-0.125000 F400.0(Penetrate)
G01 X11.998461 Y126.983635 Z-0.125000 F800.000000
G01 X13.911105 Y127.221945 Z-0.125000
G01 X15.823749 Y127.696316 Z-0.125000
G01 X19.755321 Y128.980311 Z-0.125000
G01 X21.455452 Y129.451110 Z-0.125000
G01 X23.261839 Y129.774404 Z-0.125000
G01 X25.068227 Y129.864865 Z-0.125000
G01 X26.768358 Y129.726144 Z-0.125000
G01 X28.681002 Y129.338741 Z-0.125000
G01 X34.737730 Y127.386516 Z-0.125000
G01 X37.075400 Y126.783161 Z-0.125000
G01 X39.519353 Y126.446955 Z-0.125000
G01 X41.857023 Y126.447087 Z-0.125000
G01 X43.769667 Y126.666162 Z-0.125000
G01 X45.788568 Y127.069281 Z-0.125000
G01 X53.120401 Y129.104003 Z-0.125000
G01 X56.308150 Y129.827241 Z-0.125000
G01 X59.708412 Y130.306771 Z-0.125000
G01 X63.214930 Y130.473882 Z-0.125000
G01 X65.552601 Y130.428400 Z-0.125000
G01 X68.209067 Y130.264914 Z-0.125000
G01 X81.066319 Y129.071962 Z-0.125000
G01 X84.572837 Y128.893236 Z-0.125000
G01 X88.079356 Y128.829763 Z-0.125000
G01 X91.904644 Y128.897020 Z-0.125000
G01 X95.942472 Y129.115857 Z-0.125000
G01 X109.756033 Y130.370033 Z-0.125000
G01 X112.731268 Y130.472427 Z-0.125000
G01 X115.493991 Y130.421362 Z-0.125000
G01 X118.362944 Y130.204245 Z-0.125000
G01 X121.338180 Y129.815335 Z-0.125000
G01 X131.326453 Y127.958200 Z-0.125000
G01 X135.576793 Y127.307352 Z-0.125000
G01 X140.145877 Y126.854307 Z-0.125000
G01 X145.246297 Y126.609991 Z-0.125000
G01 X152.153077 Y126.544136 Z-0.125000
G01 X158.209779 Y126.687805 Z-0.125000
G01 X162.778889 Y127.031101 Z-0.125000
G01 X166.922973 Y127.636970 Z-0.125000
G00 Z3.000000

(End cutting path id: polyline40616)


(Start cutting path id: polyline40614)
(Change tool to Default tool)

G00 Z3.000000
G00 X10.085817 Y125.644872

G00 Z4.875000 (Fast pre-penetrate)
G01 Z-0.125000 F400.0(Penetrate)
G01 X11.573435 Y125.707948 Z-0.125000 F800.000000
G01 X13.061053 Y125.942475 Z-0.125000
G01 X14.867441 Y126.417136 Z-0.125000
G01 X18.586472 Y127.665651 Z-0.125000
G01 X20.180347 Y128.120654 Z-0.125000
G01 X21.986734 Y128.454770 Z-0.125000
G01 X23.686865 Y128.542214 Z-0.125000
G01 X25.386996 Y128.395318 Z-0.125000
G01 X27.193384 Y128.008206 Z-0.125000
G01 X28.893515 Y127.482797 Z-0.125000
G01 X32.931342 Y126.056483 Z-0.125000
G01 X35.162756 Y125.447228 Z-0.125000
G01 X37.394170 Y125.123035 Z-0.125000
G01 X39.519353 Y125.122505 Z-0.125000
G01 X41.325741 Y125.347639 Z-0.125000
G01 X43.238385 Y125.771104 Z-0.125000
G01 X49.720139 Y127.785004 Z-0.125000
G01 X52.482835 Y128.503664 Z-0.125000
G01 X55.245558 Y128.967875 Z-0.125000
G01 X58.114537 Y129.149485 Z-0.125000
G01 X60.664721 Y129.075799 Z-0.125000
G01 X63.533700 Y128.787668 Z-0.125000
G01 X73.521973 Y127.167123 Z-0.125000
G01 X77.984827 Y126.577262 Z-0.125000
G01 X82.235141 Y126.210947 Z-0.125000
G01 X86.485482 Y126.040370 Z-0.125000
G01 X91.904644 Y126.097441 Z-0.125000
G01 X97.323833 Y126.467116 Z-0.125000
G01 X102.211686 Y127.071106 Z-0.125000
G01 X112.625012 Y128.720358 Z-0.125000
G01 X115.493991 Y129.017776 Z-0.125000
G01 X118.256688 Y129.146575 Z-0.125000
G01 X121.125667 Y129.094240 Z-0.125000
G01 X124.207159 Y128.835161 Z-0.125000
G01 X127.394908 Y128.392513 Z-0.125000
G01 X134.726715 Y127.128150 Z-0.125000
G01 X138.339490 Y126.590756 Z-0.125000
G01 X142.483574 Y126.143505 Z-0.125000
G01 X146.840145 Y125.875747 Z-0.125000
G01 X152.365590 Y125.800685 Z-0.125000
G01 X157.572240 Y125.999360 Z-0.125000
G01 X162.247606 Y126.457988 Z-0.125000
G01 X166.922973 Y127.229618 Z-0.125000
G00 Z3.000000

(End cutting path id: polyline40614)


(Start cutting path id: polyline40612)
(Change tool to Default tool)

G00 Z3.000000
G00 X10.085817 Y124.344764

G00 Z4.875000 (Fast pre-penetrate)
G01 Z-0.125000 F400.0(Penetrate)
G01 X11.467179 Y124.508964 Z-0.125000 F800.000000
G01 X12.954797 Y124.841492 Z-0.125000
G01 X17.630137 Y126.394885 Z-0.125000
G01 X19.330268 Y126.871029 Z-0.125000
G01 X20.924142 Y127.148100 Z-0.125000
G01 X22.411760 Y127.219723 Z-0.125000
G01 X24.111891 Y127.067614 Z-0.125000
G01 X25.812022 Y126.688678 Z-0.125000
G01 X27.405897 Y126.178562 Z-0.125000
G01 X31.443724 Y124.690785 Z-0.125000
G01 X33.462625 Y124.117619 Z-0.125000
G01 X35.587782 Y123.796468 Z-0.125000
G01 X37.606683 Y123.805226 Z-0.125000
G01 X39.200557 Y124.021311 Z-0.125000
G01 X41.006945 Y124.451920 Z-0.125000
G01 X47.063673 Y126.507492 Z-0.125000
G01 X49.507626 Y127.205197 Z-0.125000
G01 X51.951553 Y127.657422 Z-0.125000
G01 X54.289249 Y127.825459 Z-0.125000
G01 X56.733176 Y127.736903 Z-0.125000
G01 X59.495899 Y127.372678 Z-0.125000
G01 X62.046082 Y126.869494 Z-0.125000
G01 X69.696685 Y125.152377 Z-0.125000
G01 X74.797078 Y124.300287 Z-0.125000
G01 X80.428753 Y123.765353 Z-0.125000
G01 X86.910508 Y123.548184 Z-0.125000
G01 X90.735822 Y123.564905 Z-0.125000
G01 X94.348597 Y123.678941 Z-0.125000
G01 X97.642603 Y123.886374 Z-0.125000
G01 X100.724095 Y124.193343 Z-0.125000
G01 X105.930745 Y124.996114 Z-0.125000
G01 X116.662813 Y127.176648 Z-0.125000
G01 X119.638049 Y127.588340 Z-0.125000
G01 X122.400772 Y127.793921 Z-0.125000
G01 X125.269725 Y127.812547 Z-0.125000
G01 X128.351217 Y127.630329 Z-0.125000
G01 X131.432709 Y127.290975 Z-0.125000
G01 X141.846008 Y125.904480 Z-0.125000
G01 X145.671323 Y125.576371 Z-0.125000
G01 X149.496611 Y125.409975 Z-0.125000
G01 X153.746952 Y125.423945 Z-0.125000
G01 X157.997266 Y125.656725 Z-0.125000
G01 X162.141350 Y126.099690 Z-0.125000
G01 X166.922973 Y126.824250 Z-0.125000
G00 Z3.000000

(End cutting path id: polyline40612)


(Start cutting path id: polyline40610)
(Change tool to Default tool)

G00 Z3.000000
G00 X10.085817 Y123.122602

G00 Z4.875000 (Fast pre-penetrate)
G01 Z-0.125000 F400.0(Penetrate)
G01 X12.423488 Y123.650339 Z-0.125000 F800.000000
G01 X16.461315 Y125.034479 Z-0.125000
G01 X18.055190 Y125.502208 Z-0.125000
G01 X19.755321 Y125.819364 Z-0.125000
G01 X21.349195 Y125.894903 Z-0.125000
G01 X22.943069 Y125.739883 Z-0.125000
G01 X24.643200 Y125.342929 Z-0.125000
G01 X26.237075 Y124.808128 Z-0.125000
G01 X29.956106 Y123.382078 Z-0.125000
G01 X31.975007 Y122.784041 Z-0.125000
G01 X33.887651 Y122.478898 Z-0.125000
G01 X35.800295 Y122.476517 Z-0.125000
G01 X37.394170 Y122.702100 Z-0.125000
G01 X39.094301 Y123.135090 Z-0.125000
G01 X44.938516 Y125.265513 Z-0.125000
G01 X47.169929 Y125.939247 Z-0.125000
G01 X49.507626 Y126.379037 Z-0.125000
G01 X51.845296 Y126.503840 Z-0.125000
G01 X53.864197 Y126.368242 Z-0.125000
G01 X55.989380 Y126.022908 Z-0.125000
G01 X58.327051 Y125.472655 Z-0.125000
G01 X63.852470 Y123.931776 Z-0.125000
G01 X66.615192 Y123.243437 Z-0.125000
G01 X69.696685 Y122.638812 Z-0.125000
G01 X72.884434 Y122.211563 Z-0.125000
G01 X76.284696 Y121.949520 Z-0.125000
G01 X80.428753 Y121.816012 Z-0.125000
G01 X96.580011 Y121.827389 Z-0.125000
G01 X101.892917 Y122.065857 Z-0.125000
G01 X106.462027 Y122.586821 Z-0.125000
G01 X110.606111 Y123.361362 Z-0.125000
G01 X120.488128 Y125.638442 Z-0.125000
G01 X123.569594 Y126.139298 Z-0.125000
G01 X126.438573 Y126.416925 Z-0.125000
G01 X129.307552 Y126.505507 Z-0.125000
G01 X132.282788 Y126.422851 Z-0.125000
G01 X144.714988 Y125.358831 Z-0.125000
G01 X148.008993 Y125.178385 Z-0.125000
G01 X151.090485 Y125.110202 Z-0.125000
G01 X154.490747 Y125.158012 Z-0.125000
G01 X157.891009 Y125.334066 Z-0.125000
G01 X166.922973 Y126.205893 Z-0.125000
G00 Z3.000000

(End cutting path id: polyline40610)


(Start cutting path id: polyline40608)
(Change tool to Default tool)

G00 Z3.000000
G00 X10.085817 Y121.971004

G00 Z4.875000 (Fast pre-penetrate)
G01 Z-0.125000 F400.0(Penetrate)
G01 X11.892205 Y122.461012 Z-0.125000 F800.000000
G01 X15.504980 Y123.725745 Z-0.125000
G01 X16.992598 Y124.168498 Z-0.125000
G01 X18.692729 Y124.494491 Z-0.125000
G01 X20.392860 Y124.568257 Z-0.125000
G01 X21.986734 Y124.389902 Z-0.125000
G01 X23.580609 Y123.994297 Z-0.125000
G01 X28.681002 Y122.049400 Z-0.125000
G01 X30.593646 Y121.463031 Z-0.125000
G01 X32.506290 Y121.150453 Z-0.125000
G01 X34.312677 Y121.157306 Z-0.125000
G01 X35.800295 Y121.381249 Z-0.125000
G01 X37.500426 Y121.842549 Z-0.125000
G01 X42.919615 Y123.946381 Z-0.125000
G01 X45.044772 Y124.631942 Z-0.125000
G01 X47.169929 Y125.059058 Z-0.125000
G01 X49.295086 Y125.180978 Z-0.125000
G01 X51.101500 Y125.048660 Z-0.125000
G01 X53.014145 Y124.705655 Z-0.125000
G01 X55.245558 Y124.111640 Z-0.125000
G01 X60.664721 Y122.368726 Z-0.125000
G01 X63.321187 Y121.623501 Z-0.125000
G01 X66.296423 Y121.002789 Z-0.125000
G01 X69.271659 Y120.629674 Z-0.125000
G01 X71.715585 Y120.488466 Z-0.125000
G01 X74.478308 Y120.464733 Z-0.125000
G01 X84.254068 Y120.790938 Z-0.125000
G01 X88.823152 Y120.843431 Z-0.125000
G01 X100.617839 Y120.488361 Z-0.125000
G01 X104.124357 Y120.472512 Z-0.125000
G01 X107.843389 Y120.675950 Z-0.125000
G01 X111.456164 Y121.153046 Z-0.125000
G01 X114.962682 Y121.863610 Z-0.125000
G01 X121.656949 Y123.519609 Z-0.125000
G01 X124.525929 Y124.154899 Z-0.125000
G01 X127.713678 Y124.699067 Z-0.125000
G01 X130.795170 Y125.028949 Z-0.125000
G01 X133.451610 Y125.161399 Z-0.125000
G01 X136.426846 Y125.172300 Z-0.125000
G01 X147.265197 Y124.746163 Z-0.125000
G01 X152.259334 Y124.675519 Z-0.125000
G01 X156.403391 Y124.758333 Z-0.125000
G01 X166.922973 Y125.180740 Z-0.125000
G00 Z3.000000

(End cutting path id: polyline40608)


(Start cutting path id: polyline40606)
(Change tool to Default tool)

G00 Z3.000000
G00 X10.085817 Y120.878329

G00 Z4.875000 (Fast pre-penetrate)
G01 Z-0.125000 F400.0(Penetrate)
G01 X14.654928 Y122.437491 Z-0.125000 F800.000000
G01 X16.142519 Y122.875243 Z-0.125000
G01 X17.842650 Y123.187478 Z-0.125000
G01 X19.436525 Y123.243225 Z-0.125000
G01 X20.924142 Y123.072331 Z-0.125000
G01 X22.518017 Y122.671065 Z-0.125000
G01 X27.512153 Y120.721247 Z-0.125000
G01 X29.318541 Y120.149324 Z-0.125000
G01 X31.124928 Y119.834523 Z-0.125000
G01 X32.825086 Y119.824099 Z-0.125000
G01 X34.312677 Y120.043993 Z-0.125000
G01 X35.906552 Y120.485424 Z-0.125000
G01 X41.219484 Y122.645268 Z-0.125000
G01 X43.238385 Y123.329030 Z-0.125000
G01 X45.257285 Y123.749425 Z-0.125000
G01 X47.169929 Y123.857561 Z-0.125000
G01 X49.188830 Y123.668357 Z-0.125000
G01 X51.314014 Y123.185705 Z-0.125000
G01 X53.332914 Y122.540731 Z-0.125000
G01 X58.220794 Y120.781360 Z-0.125000
G01 X60.877234 Y119.996686 Z-0.125000
G01 X63.214930 Y119.508848 Z-0.125000
G01 X65.658857 Y119.219579 Z-0.125000
G01 X67.996554 Y119.136818 Z-0.125000
G01 X70.546737 Y119.218600 Z-0.125000
G01 X81.916371 Y120.302465 Z-0.125000
G01 X85.104120 Y120.488096 Z-0.125000
G01 X88.291869 Y120.555009 Z-0.125000
G01 X93.604775 Y120.363954 Z-0.125000
G01 X104.761896 Y119.304299 Z-0.125000
G01 X107.312106 Y119.161689 Z-0.125000
G01 X109.543520 Y119.143326 Z-0.125000
G01 X112.625012 Y119.318295 Z-0.125000
G01 X115.706504 Y119.733558 Z-0.125000
G01 X118.894253 Y120.373532 Z-0.125000
G01 X125.588521 Y121.994288 Z-0.125000
G01 X128.776269 Y122.680722 Z-0.125000
G01 X132.176531 Y123.243358 Z-0.125000
G01 X135.683050 Y123.615467 Z-0.125000
G01 X139.189568 Y123.801363 Z-0.125000
G01 X143.439883 Y123.859783 Z-0.125000
G01 X161.397528 Y123.852454 Z-0.125000
G01 X166.922973 Y123.631633 Z-0.125000
G00 Z3.000000

(End cutting path id: polyline40606)


(Start cutting path id: polyline40604)
(Change tool to Default tool)

G00 Z3.000000
G00 X10.085817 Y119.829893

G00 Z4.875000 (Fast pre-penetrate)
G01 Z-0.125000 F400.0(Penetrate)
G01 X13.698592 Y121.101955 Z-0.125000 F800.000000
G01 X15.398723 Y121.596514 Z-0.125000
G01 X17.098854 Y121.884380 Z-0.125000
G01 X18.692729 Y121.909198 Z-0.125000
G01 X20.180347 Y121.705125 Z-0.125000
G01 X21.667965 Y121.303382 Z-0.125000
G01 X26.449588 Y119.391108 Z-0.125000
G01 X28.149719 Y118.838183 Z-0.125000
G01 X29.849850 Y118.521795 Z-0.125000
G01 X31.549981 Y118.496977 Z-0.125000
G01 X33.037599 Y118.719438 Z-0.125000
G01 X34.631473 Y119.178860 Z-0.125000
G01 X39.731866 Y121.342514 Z-0.125000
G01 X41.644510 Y122.017862 Z-0.125000
G01 X43.557154 Y122.431908 Z-0.125000
G01 X45.363542 Y122.533719 Z-0.125000
G01 X47.276186 Y122.334674 Z-0.125000
G01 X49.295086 Y121.832707 Z-0.125000
G01 X51.101500 Y121.204216 Z-0.125000
G01 X55.670584 Y119.404973 Z-0.125000
G01 X58.114537 Y118.614187 Z-0.125000
G01 X60.345951 Y118.116162 Z-0.125000
G01 X62.471108 Y117.864994 Z-0.125000
G01 X65.021318 Y117.834143 Z-0.125000
G01 X67.784041 Y118.067611 Z-0.125000
G01 X77.347261 Y119.666354 Z-0.125000
G01 X81.385089 Y120.197055 Z-0.125000
G01 X84.891607 Y120.470237 Z-0.125000
G01 X88.291869 Y120.555009 Z-0.125000
G01 X91.692131 Y120.460526 Z-0.125000
G01 X95.198649 Y120.177714 Z-0.125000
G01 X98.917681 Y119.690299 Z-0.125000
G01 X108.374671 Y118.162914 Z-0.125000
G01 X111.243651 Y117.888224 Z-0.125000
G01 X114.006373 Y117.816549 Z-0.125000
G01 X116.769070 Y117.958180 Z-0.125000
G01 X119.638049 Y118.318754 Z-0.125000
G01 X122.613285 Y118.871123 Z-0.125000
G01 X129.732578 Y120.460156 Z-0.125000
G01 X133.132840 Y121.127911 Z-0.125000
G01 X137.064411 Y121.713195 Z-0.125000
G01 X141.102213 Y122.096073 Z-0.125000
G01 X147.796480 Y122.367535 Z-0.125000
G01 X156.084622 Y122.358036 Z-0.125000
G01 X162.035093 Y122.098137 Z-0.125000
G01 X166.922973 Y121.565425 Z-0.125000
G00 Z3.000000

(End cutting path id: polyline40604)


(Start cutting path id: polyline40602)
(Change tool to Default tool)

G00 Z3.000000
G00 X10.085817 Y118.809317

G00 Z4.875000 (Fast pre-penetrate)
G01 Z-0.125000 F400.0(Penetrate)
G01 X12.954797 Y119.826586 Z-0.125000 F800.000000
G01 X14.654928 Y120.307439 Z-0.125000
G01 X16.355059 Y120.574509 Z-0.125000
G01 X17.948933 Y120.574773 Z-0.125000
G01 X19.330268 Y120.368822 Z-0.125000
G01 X20.817886 Y119.954564 Z-0.125000
G01 X25.386996 Y118.094731 Z-0.125000
G01 X27.087127 Y117.525190 Z-0.125000
G01 X28.787258 Y117.199065 Z-0.125000
G01 X30.381133 Y117.169061 Z-0.125000
G01 X31.868751 Y117.389776 Z-0.125000
G01 X33.462625 Y117.861528 Z-0.125000
G01 X38.456761 Y120.053545 Z-0.125000
G01 X40.369405 Y120.741858 Z-0.125000
G01 X42.175793 Y121.127302 Z-0.125000
G01 X43.982180 Y121.202999 Z-0.125000
G01 X45.682311 Y120.990936 Z-0.125000
G01 X47.594956 Y120.472036 Z-0.125000
G01 X49.295086 Y119.833068 Z-0.125000
G01 X53.757940 Y117.949713 Z-0.125000
G01 X56.201893 Y117.134745 Z-0.125000
G01 X58.752077 Y116.624655 Z-0.125000
G01 X61.302286 Y116.494613 Z-0.125000
G01 X63.321187 Y116.633677 Z-0.125000
G01 X65.552601 Y116.979223 Z-0.125000
G01 X74.478308 Y119.052336 Z-0.125000
G01 X79.153675 Y119.885826 Z-0.125000
G01 X81.703858 Y120.188165 Z-0.125000
G01 X84.360324 Y120.391470 Z-0.125000
G01 X87.016764 Y120.488122 Z-0.125000
G01 X89.673230 Y120.483122 Z-0.125000
G01 X93.604775 Y120.287145 Z-0.125000
G01 X97.430090 Y119.865532 Z-0.125000
G01 X101.574147 Y119.154042 Z-0.125000
G01 X108.799697 Y117.577683 Z-0.125000
G01 X111.668677 Y117.033595 Z-0.125000
G01 X114.856426 Y116.625608 Z-0.125000
G01 X117.937918 Y116.490935 Z-0.125000
G01 X120.488128 Y116.583459 Z-0.125000
G01 X123.250824 Y116.869050 Z-0.125000
G01 X126.226060 Y117.337680 Z-0.125000
G01 X133.664149 Y118.764708 Z-0.125000
G01 X137.383181 Y119.386611 Z-0.125000
G01 X141.633495 Y119.914427 Z-0.125000
G01 X145.883836 Y120.237245 Z-0.125000
G01 X151.515511 Y120.386549 Z-0.125000
G01 X157.040957 Y120.248040 Z-0.125000
G01 X162.035093 Y119.841535 Z-0.125000
G01 X166.922973 Y119.131288 Z-0.125000
G00 Z3.000000

(End cutting path id: polyline40602)


(Start cutting path id: polyline40600)
(Change tool to Default tool)

G00 Z3.000000
G00 X10.085817 Y117.799880

G00 Z4.875000 (Fast pre-penetrate)
G01 Z-0.125000 F400.0(Penetrate)
G01 X12.529744 Y118.642841 Z-0.125000 F800.000000
G01 X14.229875 Y119.075964 Z-0.125000
G01 X15.823749 Y119.272364 Z-0.125000
G01 X17.311367 Y119.231486 Z-0.125000
G01 X18.692729 Y118.994525 Z-0.125000
G01 X20.074090 Y118.587649 Z-0.125000
G01 X24.430661 Y116.787400 Z-0.125000
G01 X26.024535 Y116.236697 Z-0.125000
G01 X27.724666 Y115.886786 Z-0.125000
G01 X29.318541 Y115.841833 Z-0.125000
G01 X30.806159 Y116.059162 Z-0.125000
G01 X32.400033 Y116.539406 Z-0.125000
G01 X37.287913 Y118.745738 Z-0.125000
G01 X39.094301 Y119.416667 Z-0.125000
G01 X40.900688 Y119.812113 Z-0.125000
G01 X42.600819 Y119.878894 Z-0.125000
G01 X44.194694 Y119.669900 Z-0.125000
G01 X46.001081 Y119.158011 Z-0.125000
G01 X47.701239 Y118.483351 Z-0.125000
G01 X51.845296 Y116.623782 Z-0.125000
G01 X54.182966 Y115.790822 Z-0.125000
G01 X56.520663 Y115.293485 Z-0.125000
G01 X58.858333 Y115.173708 Z-0.125000
G01 X60.770977 Y115.335421 Z-0.125000
G01 X63.002417 Y115.757722 Z-0.125000
G01 X71.821842 Y118.271023 Z-0.125000
G01 X74.265795 Y118.848184 Z-0.125000
G01 X76.603465 Y119.286307 Z-0.125000
G01 X79.366188 Y119.663602 Z-0.125000
G01 X82.341397 Y119.922947 Z-0.125000
G01 X85.529146 Y120.067277 Z-0.125000
G01 X89.035691 Y120.100164 Z-0.125000
G01 X94.773623 Y119.877782 Z-0.125000
G01 X97.323833 Y119.640928 Z-0.125000
G01 X99.767760 Y119.314829 Z-0.125000
G01 X104.336870 Y118.434165 Z-0.125000
G01 X111.774933 Y116.572056 Z-0.125000
G01 X114.537656 Y115.958091 Z-0.125000
G01 X117.619148 Y115.455463 Z-0.125000
G01 X120.594384 Y115.203791 Z-0.125000
G01 X123.463337 Y115.186858 Z-0.125000
G01 X126.651086 Y115.393921 Z-0.125000
G01 X129.838835 Y115.771772 Z-0.125000
G01 X140.783443 Y117.327626 Z-0.125000
G01 X144.714988 Y117.698703 Z-0.125000
G01 X148.646559 Y117.904469 Z-0.125000
G01 X153.109386 Y117.929526 Z-0.125000
G01 X157.572240 Y117.727913 Z-0.125000
G01 X162.035093 Y117.297648 Z-0.125000
G01 X166.922973 Y116.599837 Z-0.125000
G00 Z3.000000

(End cutting path id: polyline40600)


(Start cutting path id: polyline40598)
(Change tool to Default tool)

G00 Z3.000000
G00 X10.085817 Y116.785654

G00 Z4.875000 (Fast pre-penetrate)
G01 Z-0.125000 F400.0(Penetrate)
G01 X12.104718 Y117.442349 Z-0.125000 F800.000000
G01 X13.698592 Y117.807262 Z-0.125000
G01 X15.186210 Y117.956645 Z-0.125000
G01 X16.673828 Y117.887854 Z-0.125000
G01 X17.948933 Y117.652878 Z-0.125000
G01 X19.330268 Y117.236530 Z-0.125000
G01 X23.580609 Y115.464670 Z-0.125000
G01 X25.174483 Y114.909311 Z-0.125000
G01 X26.768358 Y114.572682 Z-0.125000
G01 X28.362232 Y114.515981 Z-0.125000
G01 X29.849850 Y114.730611 Z-0.125000
G01 X31.337468 Y115.178497 Z-0.125000
G01 X32.764364 Y115.774021 Z-0.125000
G01 X36.225348 Y117.426527 Z-0.125000
G01 X38.031735 Y118.111850 Z-0.125000
G01 X39.731866 Y118.490071 Z-0.125000
G01 X41.431997 Y118.552486 Z-0.125000
G01 X43.025872 Y118.320235 Z-0.125000
G01 X44.726003 Y117.803981 Z-0.125000
G01 X46.319877 Y117.137338 Z-0.125000
G01 X50.251422 Y115.282955 Z-0.125000
G01 X52.482835 Y114.446767 Z-0.125000
G01 X54.608019 Y113.969565 Z-0.125000
G01 X56.733176 Y113.849788 Z-0.125000
G01 X58.539564 Y114.014861 Z-0.125000
G01 X60.558464 Y114.437242 Z-0.125000
G01 X62.577391 Y115.035543 Z-0.125000
G01 X69.696685 Y117.416261 Z-0.125000
G01 X72.353125 Y118.089122 Z-0.125000
G01 X75.009591 Y118.576246 Z-0.125000
G01 X78.091083 Y118.932189 Z-0.125000
G01 X81.597602 Y119.136447 Z-0.125000
G01 X86.379225 Y119.225903 Z-0.125000
G01 X92.223414 Y119.203837 Z-0.125000
G01 X98.173885 Y118.958224 Z-0.125000
G01 X100.617839 Y118.721131 Z-0.125000
G01 X103.061765 Y118.373893 Z-0.125000
G01 X107.418362 Y117.473781 Z-0.125000
G01 X114.750169 Y115.521820 Z-0.125000
G01 X117.725405 Y114.817130 Z-0.125000
G01 X120.913154 Y114.253065 Z-0.125000
G01 X123.994646 Y113.937709 Z-0.125000
G01 X126.969856 Y113.845158 Z-0.125000
G01 X130.157604 Y113.938264 Z-0.125000
G01 X143.439883 Y115.093275 Z-0.125000
G01 X146.946428 Y115.292215 Z-0.125000
G01 X150.240433 Y115.374104 Z-0.125000
G01 X153.853208 Y115.337088 Z-0.125000
G01 X157.572240 Y115.162305 Z-0.125000
G01 X166.922973 Y114.300584 Z-0.125000
G00 Z3.000000

(End cutting path id: polyline40598)


(Start cutting path id: polyline40594)
(Change tool to Default tool)

G00 Z3.000000
G00 X10.085817 Y114.688675

G00 Z4.875000 (Fast pre-penetrate)
G01 Z-0.125000 F400.0(Penetrate)
G01 X11.573435 Y115.064383 Z-0.125000 F800.000000
G01 X12.954797 Y115.271313 Z-0.125000
G01 X14.336132 Y115.306026 Z-0.125000
G01 X15.611236 Y115.171618 Z-0.125000
G01 X16.780085 Y114.911956 Z-0.125000
G01 X17.948933 Y114.538815 Z-0.125000
G01 X21.986734 Y112.844240 Z-0.125000
G01 X23.580609 Y112.278456 Z-0.125000
G01 X25.174483 Y111.930847 Z-0.125000
G01 X26.662101 Y111.864278 Z-0.125000
G01 X28.149719 Y112.066049 Z-0.125000
G01 X29.743593 Y112.555316 Z-0.125000
G01 X31.216024 Y113.196056 Z-0.125000
G01 X34.525217 Y114.828692 Z-0.125000
G01 X36.225348 Y115.488589 Z-0.125000
G01 X37.925479 Y115.863344 Z-0.125000
G01 X39.519353 Y115.897978 Z-0.125000
G01 X41.006945 Y115.649058 Z-0.125000
G01 X42.600819 Y115.119892 Z-0.125000
G01 X44.058089 Y114.462192 Z-0.125000
G01 X47.701239 Y112.609582 Z-0.125000
G01 X49.613883 Y111.825040 Z-0.125000
G01 X51.526527 Y111.337255 Z-0.125000
G01 X53.439171 Y111.202026 Z-0.125000
G01 X55.351815 Y111.413084 Z-0.125000
G01 X57.370715 Y111.948362 Z-0.125000
G01 X59.283386 Y112.658503 Z-0.125000
G01 X63.958726 Y114.610967 Z-0.125000
G01 X66.615192 Y115.525921 Z-0.125000
G01 X68.846606 Y116.080911 Z-0.125000
G01 X71.184303 Y116.442357 Z-0.125000
G01 X73.309460 Y116.597826 Z-0.125000
G01 X75.753386 Y116.620686 Z-0.125000
G01 X84.679094 Y116.204312 Z-0.125000
G01 X88.823152 Y116.135785 Z-0.125000
G01 X92.435953 Y116.221960 Z-0.125000
G01 X99.980273 Y116.588963 Z-0.125000
G01 X103.380535 Y116.615844 Z-0.125000
G01 X106.780797 Y116.416243 Z-0.125000
G01 X110.181059 Y115.946026 Z-0.125000
G01 X113.581321 Y115.234536 Z-0.125000
G01 X120.913154 Y113.364014 Z-0.125000
