%
(Header)
(Generated by gcodetools from Inkscape.)
(Using default header. To add your own header create file "header" in the output dir.)
M3
(Header end.)
G21 (All units in mm)

(Start cutting path id: path258)
(Change tool to Default tool)

G00 Z10.000000
G00 X78.828650 Y110.146008

G00 Z4.875000 (Fast pre-penetrate)
G01 Z-0.125000 F100.0(Penetrate)
G01 X78.836852 Y111.145602 Z-0.125000 F800.000000
G01 X78.845318 Y112.145197 Z-0.125000
G00 Z10.000000

(End cutting path id: path258)


(Start cutting path id: path166)
(Change tool to Default tool)

G00 Z10.000000
G00 X80.689462 Y112.122443

G00 Z4.875000 (Fast pre-penetrate)
G01 Z-0.125000 F100.0(Penetrate)
G01 X80.689197 Y111.196402 Z-0.125000 F800.000000
G01 X80.688933 Y110.270097 Z-0.125000
G01 X80.688668 Y109.343792 Z-0.125000
G01 X80.688403 Y108.417752 Z-0.125000
G01 X80.688139 Y107.491447 Z-0.125000
G01 X80.687874 Y106.565406 Z-0.125000
G01 X80.687610 Y105.639101 Z-0.125000
G01 X80.687345 Y104.713060 Z-0.125000
G01 X80.687081 Y103.786755 Z-0.125000
G01 X80.686551 Y102.860715 Z-0.125000
G01 X80.686287 Y101.934410 Z-0.125000
G01 X80.766985 Y100.589799 Z-0.125000
G01 X80.847418 Y99.245453 Z-0.125000
G01 X80.927851 Y97.900842 Z-0.125000
G01 X81.008284 Y96.556496 Z-0.125000
G01 X81.088718 Y95.211885 Z-0.125000
G01 X81.169151 Y93.867274 Z-0.125000
G01 X81.249584 Y92.522928 Z-0.125000
G01 X81.330282 Y91.178317 Z-0.125000
G01 X81.410715 Y89.833971 Z-0.125000
G01 X81.491148 Y88.489360 Z-0.125000
G01 X81.571582 Y87.144749 Z-0.125000
G01 X81.555177 Y86.171348 Z-0.125000
G01 X81.538509 Y85.197948 Z-0.125000
G01 X81.522104 Y84.224547 Z-0.125000
G01 X81.505700 Y83.251146 Z-0.125000
G01 X81.489296 Y82.277745 Z-0.125000
G01 X81.472627 Y81.304344 Z-0.125000
G01 X81.456223 Y80.330943 Z-0.125000
G01 X81.439819 Y79.357542 Z-0.125000
G01 X81.423150 Y78.384142 Z-0.125000
G01 X81.406746 Y77.410741 Z-0.125000
G01 X81.390342 Y76.437340 Z-0.125000
G01 X81.489296 Y75.008856 Z-0.125000
G01 X81.588250 Y73.580373 Z-0.125000
G01 X81.686940 Y72.151889 Z-0.125000
G01 X81.785894 Y70.723405 Z-0.125000
G01 X81.884848 Y69.294922 Z-0.125000
G01 X81.983802 Y67.866174 Z-0.125000
G01 X82.082756 Y66.437690 Z-0.125000
G01 X82.181445 Y65.009206 Z-0.125000
G01 X82.280399 Y63.580723 Z-0.125000
G01 X82.379353 Y62.152239 Z-0.125000
G01 X82.478307 Y60.723755 Z-0.125000
G01 X81.834577 Y60.025256 Z-0.125000
G01 X81.190582 Y59.326757 Z-0.125000
G01 X80.546852 Y58.628523 Z-0.125000
G01 X79.903121 Y57.930024 Z-0.125000
G01 X79.259391 Y57.231789 Z-0.125000
G01 X78.615660 Y56.533290 Z-0.125000
G01 X77.971665 Y55.834791 Z-0.125000
G01 X77.327935 Y55.136556 Z-0.125000
G01 X76.684204 Y54.438057 Z-0.125000
G01 X76.040474 Y53.739823 Z-0.125000
G01 X75.396743 Y53.041323 Z-0.125000
G01 X75.613437 Y52.453155 Z-0.125000
G01 X75.830130 Y51.864723 Z-0.125000
G01 X76.046824 Y51.276290 Z-0.125000
G01 X76.263517 Y50.688122 Z-0.125000
G01 X76.480211 Y50.099690 Z-0.125000
G01 X76.696904 Y49.511257 Z-0.125000
G01 X76.913598 Y48.923089 Z-0.125000
G01 X77.130291 Y48.334656 Z-0.125000
G01 X77.346985 Y47.746488 Z-0.125000
G01 X77.563678 Y47.158056 Z-0.125000
G01 X77.780372 Y46.569623 Z-0.125000
G01 X78.133590 Y45.504677 Z-0.125000
G01 X78.487073 Y44.439730 Z-0.125000
G01 X78.840291 Y43.374519 Z-0.125000
G01 X79.193510 Y42.309572 Z-0.125000
G01 X79.546728 Y41.244361 Z-0.125000
G01 X79.899946 Y40.179415 Z-0.125000
G01 X80.253429 Y39.114468 Z-0.125000
G01 X80.606647 Y38.049257 Z-0.125000
G01 X80.959866 Y36.984310 Z-0.125000
G01 X81.313084 Y35.919364 Z-0.125000
G01 X81.666302 Y34.854153 Z-0.125000
G01 X81.172326 Y33.648977 Z-0.125000
G01 X80.678349 Y32.444066 Z-0.125000
G01 X80.184108 Y31.238891 Z-0.125000
G01 X79.690132 Y30.033715 Z-0.125000
G01 X79.195891 Y28.828539 Z-0.125000
G01 X78.701914 Y27.623364 Z-0.125000
G01 X78.207938 Y26.418188 Z-0.125000
G01 X77.713697 Y25.213013 Z-0.125000
G01 X77.219720 Y24.008102 Z-0.125000
G01 X76.725744 Y22.802926 Z-0.125000
G01 X76.231503 Y21.597751 Z-0.125000
G01 X76.505875 Y20.751879 Z-0.125000
G01 X76.779983 Y19.906271 Z-0.125000
G01 X77.054091 Y19.060400 Z-0.125000
G01 X77.328199 Y18.214528 Z-0.125000
G01 X77.602572 Y17.368656 Z-0.125000
G01 X77.876680 Y16.523049 Z-0.125000
G01 X78.150788 Y15.677177 Z-0.125000
G01 X78.425160 Y14.831305 Z-0.125000
G01 X78.699268 Y13.985698 Z-0.125000
G01 X78.973376 Y13.139826 Z-0.125000
G01 X79.247749 Y12.293954 Z-0.125000
G00 Z10.000000

(End cutting path id: path166)


(Start cutting path id: path168)
(Change tool to Default tool)

G00 Z10.000000
G00 X80.340741 Y12.310094

G00 Z4.875000 (Fast pre-penetrate)
G01 Z-0.125000 F100.0(Penetrate)
G01 X79.997842 Y13.144324 Z-0.125000 F800.000000
G01 X79.655207 Y13.978819 Z-0.125000
G01 X79.312307 Y14.813049 Z-0.125000
G01 X78.969408 Y15.647279 Z-0.125000
G01 X78.626508 Y16.481509 Z-0.125000
G01 X78.283873 Y17.315739 Z-0.125000
G01 X77.940974 Y18.149970 Z-0.125000
G01 X77.598074 Y18.984464 Z-0.125000
G01 X77.255174 Y19.818694 Z-0.125000
G01 X76.912539 Y20.652925 Z-0.125000
G01 X76.569640 Y21.487155 Z-0.125000
G01 X77.126058 Y22.756360 Z-0.125000
G01 X77.682476 Y24.025829 Z-0.125000
G01 X78.238894 Y25.295033 Z-0.125000
G01 X78.795312 Y26.564503 Z-0.125000
G01 X79.351730 Y27.833707 Z-0.125000
G01 X79.908148 Y29.103177 Z-0.125000
G01 X80.464566 Y30.372381 Z-0.125000
G01 X81.020984 Y31.641850 Z-0.125000
G01 X81.577402 Y32.911055 Z-0.125000
G01 X82.133820 Y34.180524 Z-0.125000
G01 X82.690238 Y35.449729 Z-0.125000
G01 X82.322203 Y36.458055 Z-0.125000
G01 X81.954169 Y37.466645 Z-0.125000
G01 X81.586134 Y38.474971 Z-0.125000
G01 X81.218099 Y39.483297 Z-0.125000
G01 X80.850064 Y40.491887 Z-0.125000
G01 X80.482029 Y41.500213 Z-0.125000
G01 X80.113994 Y42.508539 Z-0.125000
G01 X79.745959 Y43.517129 Z-0.125000
G01 X79.377924 Y44.525455 Z-0.125000
G01 X79.009624 Y45.533781 Z-0.125000
G01 X78.641589 Y46.542371 Z-0.125000
G01 X78.401348 Y47.148795 Z-0.125000
G01 X78.161107 Y47.755484 Z-0.125000
G01 X77.920865 Y48.362173 Z-0.125000
G01 X77.680359 Y48.968862 Z-0.125000
G01 X77.440118 Y49.575551 Z-0.125000
G01 X77.199877 Y50.182240 Z-0.125000
G01 X76.959635 Y50.788928 Z-0.125000
G01 X76.719394 Y51.395617 Z-0.125000
G01 X76.478888 Y52.002041 Z-0.125000
G01 X76.238647 Y52.608730 Z-0.125000
G01 X75.998405 Y53.215419 Z-0.125000
G01 X76.702196 Y53.880581 Z-0.125000
G01 X77.405987 Y54.545742 Z-0.125000
G01 X78.109778 Y55.210904 Z-0.125000
G01 X78.813568 Y55.876066 Z-0.125000
G01 X79.517359 Y56.541227 Z-0.125000
G01 X80.221150 Y57.206654 Z-0.125000
G01 X80.924941 Y57.871815 Z-0.125000
G01 X81.628467 Y58.536977 Z-0.125000
G01 X82.332258 Y59.202139 Z-0.125000
G01 X83.036048 Y59.867300 Z-0.125000
G01 X83.739839 Y60.532462 Z-0.125000
G01 X83.581883 Y61.966766 Z-0.125000
G01 X83.423927 Y63.401071 Z-0.125000
G01 X83.265971 Y64.835111 Z-0.125000
G01 X83.108015 Y66.269415 Z-0.125000
G01 X82.950059 Y67.703720 Z-0.125000
G01 X82.792103 Y69.138024 Z-0.125000
G01 X82.634147 Y70.572328 Z-0.125000
G01 X82.476455 Y72.006368 Z-0.125000
G01 X82.318499 Y73.440673 Z-0.125000
G01 X82.160543 Y74.874977 Z-0.125000
G01 X82.002587 Y76.309282 Z-0.125000
G01 X82.070056 Y77.344860 Z-0.125000
G01 X82.137260 Y78.380702 Z-0.125000
G01 X82.204729 Y79.416280 Z-0.125000
G01 X82.272197 Y80.452122 Z-0.125000
G01 X82.339666 Y81.487700 Z-0.125000
G01 X82.407135 Y82.523543 Z-0.125000
G01 X82.474603 Y83.559120 Z-0.125000
G01 X82.542072 Y84.594698 Z-0.125000
G01 X82.609541 Y85.630541 Z-0.125000
G01 X82.677009 Y86.666119 Z-0.125000
G01 X82.744478 Y87.701961 Z-0.125000
G01 X82.644995 Y89.031491 Z-0.125000
G01 X82.545776 Y90.361020 Z-0.125000
G01 X82.446557 Y91.690550 Z-0.125000
G01 X82.347339 Y93.020079 Z-0.125000
G01 X82.248120 Y94.349609 Z-0.125000
G01 X82.148902 Y95.679139 Z-0.125000
G01 X82.049418 Y97.008668 Z-0.125000
G01 X81.950200 Y98.338198 Z-0.125000
G01 X81.850981 Y99.667727 Z-0.125000
G01 X81.751763 Y100.997257 Z-0.125000
G01 X81.652544 Y102.327051 Z-0.125000
G01 X81.648840 Y103.216314 Z-0.125000
G01 X81.645136 Y104.105842 Z-0.125000
G01 X81.641431 Y104.995371 Z-0.125000
G01 X81.637727 Y105.884899 Z-0.125000
G01 X81.633759 Y106.774162 Z-0.125000
G01 X81.630054 Y107.663690 Z-0.125000
G01 X81.626350 Y108.553218 Z-0.125000
G01 X81.622646 Y109.442746 Z-0.125000
G01 X81.618942 Y110.332010 Z-0.125000
G01 X81.615238 Y111.221538 Z-0.125000
G01 X81.611534 Y112.111066 Z-0.125000
G00 Z10.000000

(End cutting path id: path168)


(Start cutting path id: path170)
(Change tool to Default tool)

G00 Z10.000000
G00 X82.624622 Y112.137789

G00 Z4.875000 (Fast pre-penetrate)
G01 Z-0.125000 F100.0(Penetrate)
G01 X82.615626 Y111.217569 Z-0.125000 F800.000000
G01 X82.606366 Y110.297085 Z-0.125000
G01 X82.597370 Y109.376865 Z-0.125000
G01 X82.588109 Y108.456381 Z-0.125000
G01 X82.579114 Y107.536161 Z-0.125000
G01 X82.570118 Y106.615677 Z-0.125000
G01 X82.560857 Y105.695457 Z-0.125000
G01 X82.551862 Y104.774973 Z-0.125000
G01 X82.542601 Y103.854753 Z-0.125000
G01 X82.533605 Y102.934269 Z-0.125000
G01 X82.524345 Y102.014049 Z-0.125000
G01 X82.630707 Y100.695632 Z-0.125000
G01 X82.737334 Y99.377480 Z-0.125000
G01 X82.843697 Y98.059327 Z-0.125000
G01 X82.950059 Y96.740910 Z-0.125000
G01 X83.056421 Y95.422758 Z-0.125000
G01 X83.162784 Y94.104605 Z-0.125000
G01 X83.269146 Y92.786188 Z-0.125000
G01 X83.375508 Y91.468035 Z-0.125000
G01 X83.481871 Y90.149618 Z-0.125000
G01 X83.588233 Y88.831466 Z-0.125000
G01 X83.694595 Y87.513313 Z-0.125000
G01 X83.600139 Y86.484615 Z-0.125000
G01 X83.505419 Y85.455916 Z-0.125000
G01 X83.410963 Y84.427217 Z-0.125000
G01 X83.316506 Y83.398519 Z-0.125000
G01 X83.221786 Y82.370084 Z-0.125000
G01 X83.127330 Y81.341386 Z-0.125000
G01 X83.032873 Y80.312687 Z-0.125000
G01 X82.938153 Y79.283988 Z-0.125000
G01 X82.843697 Y78.255290 Z-0.125000
G01 X82.749240 Y77.226591 Z-0.125000
G01 X82.654520 Y76.198157 Z-0.125000
G01 X82.869626 Y74.840052 Z-0.125000
G01 X83.084467 Y73.482212 Z-0.125000
G01 X83.299308 Y72.124372 Z-0.125000
G01 X83.514150 Y70.766532 Z-0.125000
G01 X83.728991 Y69.408692 Z-0.125000
G01 X83.944097 Y68.050852 Z-0.125000
G01 X84.158939 Y66.693013 Z-0.125000
G01 X84.373780 Y65.335173 Z-0.125000
G01 X84.588621 Y63.977333 Z-0.125000
G01 X84.803727 Y62.619228 Z-0.125000
G01 X85.018569 Y61.261388 Z-0.125000
G01 X84.323509 Y60.551512 Z-0.125000
G01 X83.628450 Y59.841636 Z-0.125000
G01 X82.933126 Y59.131495 Z-0.125000
G01 X82.238066 Y58.421619 Z-0.125000
G01 X81.543007 Y57.711743 Z-0.125000
G01 X80.847947 Y57.001866 Z-0.125000
G01 X80.152887 Y56.291990 Z-0.125000
G01 X79.457828 Y55.581849 Z-0.125000
G01 X78.762768 Y54.871973 Z-0.125000
G01 X78.067444 Y54.162097 Z-0.125000
G01 X77.372385 Y53.452221 Z-0.125000
G01 X77.609451 Y52.794203 Z-0.125000
G01 X77.846253 Y52.136450 Z-0.125000
G01 X78.083319 Y51.478696 Z-0.125000
G01 X78.320121 Y50.820678 Z-0.125000
G01 X78.556923 Y50.162925 Z-0.125000
G01 X78.793989 Y49.505172 Z-0.125000
G01 X79.030791 Y48.847154 Z-0.125000
G01 X79.267857 Y48.189400 Z-0.125000
G01 X79.504659 Y47.531647 Z-0.125000
G01 X79.741725 Y46.873894 Z-0.125000
G01 X79.978527 Y46.215876 Z-0.125000
G01 X80.325396 Y45.210460 Z-0.125000
G01 X80.671999 Y44.204780 Z-0.125000
G01 X81.018868 Y43.199100 Z-0.125000
G01 X81.365471 Y42.193685 Z-0.125000
G01 X81.712075 Y41.188005 Z-0.125000
G01 X82.058943 Y40.182325 Z-0.125000
G01 X82.405547 Y39.176910 Z-0.125000
G01 X82.752415 Y38.171230 Z-0.125000
G01 X83.099019 Y37.165550 Z-0.125000
G01 X83.445887 Y36.160134 Z-0.125000
G01 X83.792491 Y35.154454 Z-0.125000
G01 X83.267823 Y33.896362 Z-0.125000
G01 X82.743420 Y32.638535 Z-0.125000
G01 X82.218752 Y31.380707 Z-0.125000
G01 X81.694083 Y30.122615 Z-0.125000
G01 X81.169680 Y28.864787 Z-0.125000
G01 X80.645012 Y27.606960 Z-0.125000
G01 X80.120344 Y26.348868 Z-0.125000
G01 X79.595940 Y25.091040 Z-0.125000
G01 X79.071272 Y23.832948 Z-0.125000
G01 X78.546604 Y22.575120 Z-0.125000
G01 X78.022201 Y21.317293 Z-0.125000
G01 X78.354781 Y20.459250 Z-0.125000
G01 X78.687362 Y19.601472 Z-0.125000
G01 X79.019943 Y18.743694 Z-0.125000
G01 X79.352788 Y17.885651 Z-0.125000
G01 X79.685369 Y17.027873 Z-0.125000
G01 X80.017950 Y16.170095 Z-0.125000
G01 X80.350531 Y15.312052 Z-0.125000
G01 X80.683112 Y14.454274 Z-0.125000
G01 X81.015957 Y13.596496 Z-0.125000
G01 X81.348538 Y12.738453 Z-0.125000
G01 X81.681119 Y11.880675 Z-0.125000
G00 Z10.000000

(End cutting path id: path170)


(Start cutting path id: path172)
(Change tool to Default tool)

G00 Z10.000000
G00 X82.698970 Y12.332583

G00 Z4.875000 (Fast pre-penetrate)
G01 Z-0.125000 F100.0(Penetrate)
G01 X82.376708 Y13.214174 Z-0.125000 F800.000000
G01 X82.054181 Y14.095500 Z-0.125000
G01 X81.731654 Y14.977090 Z-0.125000
G01 X81.409392 Y15.858416 Z-0.125000
G01 X81.086865 Y16.740007 Z-0.125000
G01 X80.764339 Y17.621333 Z-0.125000
G01 X80.442077 Y18.502923 Z-0.125000
G01 X80.119550 Y19.384249 Z-0.125000
G01 X79.797023 Y20.265840 Z-0.125000
G01 X79.474497 Y21.147166 Z-0.125000
G01 X79.967415 Y22.393616 Z-0.125000
G01 X80.460068 Y23.640331 Z-0.125000
G01 X80.952722 Y24.886782 Z-0.125000
G01 X81.445640 Y26.133232 Z-0.125000
G01 X81.938294 Y27.379947 Z-0.125000
G01 X82.430947 Y28.626398 Z-0.125000
G01 X82.923865 Y29.872848 Z-0.125000
G01 X83.416519 Y31.119564 Z-0.125000
G01 X83.909172 Y32.366014 Z-0.125000
G01 X84.401826 Y33.612465 Z-0.125000
G01 X84.894744 Y34.859180 Z-0.125000
G01 X84.569307 Y35.861949 Z-0.125000
G01 X84.243870 Y36.864719 Z-0.125000
G01 X83.918433 Y37.867488 Z-0.125000
G01 X83.593260 Y38.870258 Z-0.125000
G01 X83.267823 Y39.873028 Z-0.125000
G01 X82.942386 Y40.875797 Z-0.125000
G01 X82.616949 Y41.878567 Z-0.125000
G01 X82.291512 Y42.881336 Z-0.125000
G01 X81.966339 Y43.884106 Z-0.125000
G01 X81.640902 Y44.886875 Z-0.125000
G01 X81.315465 Y45.889645 Z-0.125000
G01 X81.081838 Y46.598727 Z-0.125000
G01 X80.848476 Y47.307810 Z-0.125000
G01 X80.614849 Y48.016628 Z-0.125000
G01 X80.381223 Y48.725710 Z-0.125000
G01 X80.147860 Y49.434793 Z-0.125000
G01 X79.914234 Y50.143610 Z-0.125000
G01 X79.680607 Y50.852693 Z-0.125000
G01 X79.447245 Y51.561775 Z-0.125000
G01 X79.213618 Y52.270858 Z-0.125000
G01 X78.979991 Y52.979676 Z-0.125000
G01 X78.746364 Y53.688758 Z-0.125000
G01 X79.432957 Y54.443349 Z-0.125000
G01 X80.119285 Y55.198204 Z-0.125000
G01 X80.805878 Y55.952795 Z-0.125000
G01 X81.492207 Y56.707650 Z-0.125000
G01 X82.178535 Y57.462241 Z-0.125000
G01 X82.865128 Y58.217096 Z-0.125000
G01 X83.551456 Y58.971687 Z-0.125000
G01 X84.237784 Y59.726278 Z-0.125000
G01 X84.924377 Y60.481133 Z-0.125000
G01 X85.610706 Y61.235724 Z-0.125000
G01 X86.297298 Y61.990579 Z-0.125000
G01 X86.025307 Y63.271954 Z-0.125000
G01 X85.753580 Y64.553330 Z-0.125000
G01 X85.481589 Y65.834970 Z-0.125000
G01 X85.209862 Y67.116345 Z-0.125000
G01 X84.937871 Y68.397985 Z-0.125000
G01 X84.666144 Y69.679361 Z-0.125000
G01 X84.394153 Y70.961001 Z-0.125000
G01 X84.122426 Y72.242376 Z-0.125000
G01 X83.850435 Y73.523752 Z-0.125000
G01 X83.578708 Y74.805392 Z-0.125000
G01 X83.306717 Y76.086767 Z-0.125000
G01 X83.428425 Y77.108322 Z-0.125000
G01 X83.550133 Y78.130142 Z-0.125000
G01 X83.671577 Y79.151697 Z-0.125000
G01 X83.793285 Y80.173252 Z-0.125000
G01 X83.914993 Y81.194807 Z-0.125000
G01 X84.036701 Y82.216626 Z-0.125000
G01 X84.158145 Y83.238181 Z-0.125000
G01 X84.279853 Y84.259736 Z-0.125000
G01 X84.401561 Y85.281291 Z-0.125000
G01 X84.523269 Y86.303111 Z-0.125000
G01 X84.644978 Y87.324666 Z-0.125000
G01 X84.531472 Y88.631706 Z-0.125000
G01 X84.417965 Y89.938481 Z-0.125000
G01 X84.304459 Y91.245521 Z-0.125000
G01 X84.190953 Y92.552297 Z-0.125000
G01 X84.077447 Y93.859337 Z-0.125000
G01 X83.963941 Y95.166377 Z-0.125000
G01 X83.850435 Y96.473417 Z-0.125000
G01 X83.736929 Y97.780192 Z-0.125000
G01 X83.623423 Y99.087232 Z-0.125000
G01 X83.509917 Y100.394272 Z-0.125000
G01 X83.396410 Y101.701048 Z-0.125000
G01 X83.418371 Y102.652488 Z-0.125000
G01 X83.440331 Y103.603664 Z-0.125000
G01 X83.462292 Y104.554840 Z-0.125000
G01 X83.484252 Y105.506016 Z-0.125000
G01 X83.506212 Y106.457192 Z-0.125000
G01 X83.528173 Y107.408632 Z-0.125000
G01 X83.550133 Y108.359808 Z-0.125000
G01 X83.572094 Y109.310984 Z-0.125000
G01 X83.594054 Y110.262424 Z-0.125000
G01 X83.616014 Y111.213600 Z-0.125000
G01 X83.637710 Y112.164776 Z-0.125000
G00 Z10.000000

(End cutting path id: path172)


(Start cutting path id: path174)
(Change tool to Default tool)

G00 Z10.000000
G00 X84.651063 Y112.191764

G00 Z4.875000 (Fast pre-penetrate)
G01 Z-0.125000 F100.0(Penetrate)
G01 X84.616138 Y111.209367 Z-0.125000 F800.000000
G01 X84.581478 Y110.227499 Z-0.125000
G01 X84.546553 Y109.245367 Z-0.125000
G01 X84.511892 Y108.263235 Z-0.125000
G01 X84.476967 Y107.281103 Z-0.125000
G01 X84.442307 Y106.298971 Z-0.125000
G01 X84.407382 Y105.316839 Z-0.125000
G01 X84.372722 Y104.334707 Z-0.125000
G01 X84.337797 Y103.352575 Z-0.125000
G01 X84.303136 Y102.370443 Z-0.125000
G01 X84.268211 Y101.388310 Z-0.125000
G01 X84.388861 Y100.092648 Z-0.125000
G01 X84.509511 Y98.796985 Z-0.125000
G01 X84.630161 Y97.501322 Z-0.125000
G01 X84.750811 Y96.205659 Z-0.125000
G01 X84.871461 Y94.909996 Z-0.125000
G01 X84.992111 Y93.614333 Z-0.125000
G01 X85.112760 Y92.318670 Z-0.125000
G01 X85.233146 Y91.023007 Z-0.125000
G01 X85.353795 Y89.727344 Z-0.125000
G01 X85.474445 Y88.431681 Z-0.125000
G01 X85.595095 Y87.136018 Z-0.125000
G01 X85.446400 Y86.121342 Z-0.125000
G01 X85.297704 Y85.106931 Z-0.125000
G01 X85.148744 Y84.092255 Z-0.125000
G01 X85.000048 Y83.077579 Z-0.125000
G01 X84.851352 Y82.063168 Z-0.125000
G01 X84.702657 Y81.048492 Z-0.125000
G01 X84.553961 Y80.033817 Z-0.125000
G01 X84.405001 Y79.019405 Z-0.125000
G01 X84.256305 Y78.004730 Z-0.125000
G01 X84.107610 Y76.990054 Z-0.125000
G01 X83.958914 Y75.975642 Z-0.125000
G01 X84.287791 Y74.770467 Z-0.125000
G01 X84.616403 Y73.565291 Z-0.125000
G01 X84.945279 Y72.360380 Z-0.125000
G01 X85.274156 Y71.155205 Z-0.125000
G01 X85.603033 Y69.950029 Z-0.125000
G01 X85.931645 Y68.744854 Z-0.125000
G01 X86.260521 Y67.539943 Z-0.125000
G01 X86.589398 Y66.334767 Z-0.125000
G01 X86.918275 Y65.129592 Z-0.125000
G01 X87.246887 Y63.924681 Z-0.125000
G01 X87.575764 Y62.719505 Z-0.125000
G01 X86.898166 Y61.919935 Z-0.125000
G01 X86.220305 Y61.120630 Z-0.125000
G01 X85.542443 Y60.321060 Z-0.125000
G01 X84.864846 Y59.521755 Z-0.125000
G01 X84.186984 Y58.722185 Z-0.125000
G01 X83.509387 Y57.922615 Z-0.125000
G01 X82.831526 Y57.123310 Z-0.125000
G01 X82.153929 Y56.323740 Z-0.125000
G01 X81.476067 Y55.524435 Z-0.125000
G01 X80.798205 Y54.724865 Z-0.125000
G01 X80.120608 Y53.925295 Z-0.125000
G01 X80.350796 Y53.165148 Z-0.125000
G01 X80.580983 Y52.405001 Z-0.125000
G01 X80.811170 Y51.644854 Z-0.125000
G01 X81.041093 Y50.884707 Z-0.125000
G01 X81.271280 Y50.124560 Z-0.125000
G01 X81.501467 Y49.364414 Z-0.125000
G01 X81.731654 Y48.604002 Z-0.125000
G01 X81.961841 Y47.843855 Z-0.125000
G01 X82.192029 Y47.083708 Z-0.125000
G01 X82.422216 Y46.323561 Z-0.125000
G01 X82.652403 Y45.563414 Z-0.125000
G01 X82.956409 Y44.563555 Z-0.125000
G01 X83.260415 Y43.563431 Z-0.125000
G01 X83.564421 Y42.563572 Z-0.125000
G01 X83.868427 Y41.563448 Z-0.125000
G01 X84.172697 Y40.563589 Z-0.125000
G01 X84.476703 Y39.563730 Z-0.125000
G01 X84.780709 Y38.563606 Z-0.125000
G01 X85.084715 Y37.563747 Z-0.125000
G01 X85.388720 Y36.563623 Z-0.125000
G01 X85.692726 Y35.563764 Z-0.125000
G01 X85.996732 Y34.563641 Z-0.125000
G01 X85.536093 Y33.328567 Z-0.125000
G01 X85.075190 Y32.093494 Z-0.125000
G01 X84.614286 Y30.858420 Z-0.125000
G01 X84.153382 Y29.623347 Z-0.125000
G01 X83.692479 Y28.388009 Z-0.125000
G01 X83.231575 Y27.152935 Z-0.125000
G01 X82.770672 Y25.917862 Z-0.125000
G01 X82.309768 Y24.682524 Z-0.125000
G01 X81.848864 Y23.447450 Z-0.125000
G01 X81.387961 Y22.212377 Z-0.125000
G01 X80.927057 Y20.977303 Z-0.125000
G01 X81.239265 Y20.072165 Z-0.125000
G01 X81.551738 Y19.167027 Z-0.125000
G01 X81.863946 Y18.262153 Z-0.125000
G01 X82.176154 Y17.357014 Z-0.125000
G01 X82.488362 Y16.451876 Z-0.125000
G01 X82.800570 Y15.547002 Z-0.125000
G01 X83.112777 Y14.641864 Z-0.125000
G01 X83.425250 Y13.736725 Z-0.125000
G01 X83.737458 Y12.831851 Z-0.125000
G01 X84.049666 Y11.926713 Z-0.125000
G01 X84.361874 Y11.021574 Z-0.125000
G00 Z10.000000

(End cutting path id: path174)


(Start cutting path id: path178)
(Change tool to Default tool)

G00 Z10.000000
G00 X85.400098 Y11.520842

G00 Z4.875000 (Fast pre-penetrate)
G01 Z-0.125000 F100.0(Penetrate)
G01 X85.098208 Y12.449529 Z-0.125000 F800.000000
G01 X84.796055 Y13.377951 Z-0.125000
G01 X84.493901 Y14.306637 Z-0.125000
G01 X84.192012 Y15.235323 Z-0.125000
G01 X83.889858 Y16.164010 Z-0.125000
G01 X83.587969 Y17.092696 Z-0.125000
G01 X83.285815 Y18.021382 Z-0.125000
G01 X82.983661 Y18.950069 Z-0.125000
G01 X82.681772 Y19.878490 Z-0.125000
G01 X82.379618 Y20.807177 Z-0.125000
G01 X82.808772 Y22.031138 Z-0.125000
G01 X83.237661 Y23.254834 Z-0.125000
G01 X83.666814 Y24.478530 Z-0.125000
G01 X84.095703 Y25.702227 Z-0.125000
G01 X84.524857 Y26.925923 Z-0.125000
G01 X84.953746 Y28.149619 Z-0.125000
G01 X85.382900 Y29.373580 Z-0.125000
G01 X85.811789 Y30.597277 Z-0.125000
G01 X86.240942 Y31.820973 Z-0.125000
G01 X86.670096 Y33.044669 Z-0.125000
G01 X87.098985 Y34.268366 Z-0.125000
G01 X86.816410 Y35.265579 Z-0.125000
G01 X86.533571 Y36.262793 Z-0.125000
G01 X86.250996 Y37.260006 Z-0.125000
G01 X85.968157 Y38.256955 Z-0.125000
G01 X85.685583 Y39.254168 Z-0.125000
G01 X85.402743 Y40.251381 Z-0.125000
G01 X85.120169 Y41.248595 Z-0.125000
G01 X84.837329 Y42.245543 Z-0.125000
G01 X84.554755 Y43.242757 Z-0.125000
G01 X84.271916 Y44.239970 Z-0.125000
G01 X83.989341 Y45.237183 Z-0.125000
G01 X83.762593 Y46.048395 Z-0.125000
G01 X83.535581 Y46.859871 Z-0.125000
G01 X83.308833 Y47.671082 Z-0.125000
G01 X83.082086 Y48.482558 Z-0.125000
G01 X82.855338 Y49.294034 Z-0.125000
G01 X82.628591 Y50.105246 Z-0.125000
G01 X82.401843 Y50.916722 Z-0.125000
G01 X82.175095 Y51.727933 Z-0.125000
G01 X81.948083 Y52.539410 Z-0.125000
G01 X81.721335 Y53.350621 Z-0.125000
G01 X81.494588 Y54.162097 Z-0.125000
G01 X82.163718 Y55.006381 Z-0.125000
G01 X82.832849 Y55.850401 Z-0.125000
G01 X83.501714 Y56.694686 Z-0.125000
G01 X84.170845 Y57.538970 Z-0.125000
G01 X84.839975 Y58.383254 Z-0.125000
G01 X85.509106 Y59.227274 Z-0.125000
G01 X86.178236 Y60.071558 Z-0.125000
G01 X86.847102 Y60.915843 Z-0.125000
G01 X87.516232 Y61.760127 Z-0.125000
G01 X88.185363 Y62.604147 Z-0.125000
G01 X88.854493 Y63.448431 Z-0.125000
G01 X88.468731 Y64.577142 Z-0.125000
G01 X88.082969 Y65.705853 Z-0.125000
G01 X87.697207 Y66.834564 Z-0.125000
G01 X87.311445 Y67.963276 Z-0.125000
G01 X86.925683 Y69.091987 Z-0.125000
G01 X86.539921 Y70.220698 Z-0.125000
G01 X86.154159 Y71.349409 Z-0.125000
G01 X85.768397 Y72.478120 Z-0.125000
G01 X85.382635 Y73.606831 Z-0.125000
G01 X84.996608 Y74.735542 Z-0.125000
G01 X84.610846 Y75.864253 Z-0.125000
G01 X84.786794 Y76.871785 Z-0.125000
G01 X84.962742 Y77.879582 Z-0.125000
G01 X85.138425 Y78.887114 Z-0.125000
G01 X85.314373 Y79.894646 Z-0.125000
G01 X85.490320 Y80.902178 Z-0.125000
G01 X85.666003 Y81.909710 Z-0.125000
G01 X85.841951 Y82.917242 Z-0.125000
G01 X86.017899 Y83.924774 Z-0.125000
G01 X86.193582 Y84.932306 Z-0.125000
G01 X86.369530 Y85.939838 Z-0.125000
G01 X86.545213 Y86.947370 Z-0.125000
G01 X86.417684 Y88.231656 Z-0.125000
G01 X86.289890 Y89.515942 Z-0.125000
G01 X86.162097 Y90.800493 Z-0.125000
G01 X86.034303 Y92.084778 Z-0.125000
G01 X85.906774 Y93.369064 Z-0.125000
G01 X85.778980 Y94.653615 Z-0.125000
G01 X85.651187 Y95.937901 Z-0.125000
G01 X85.523393 Y97.222187 Z-0.125000
G01 X85.395864 Y98.506472 Z-0.125000
G01 X85.268071 Y99.791023 Z-0.125000
G01 X85.140277 Y101.075309 Z-0.125000
G01 X85.187902 Y102.088397 Z-0.125000
G01 X85.235527 Y103.101221 Z-0.125000
G01 X85.283152 Y104.114309 Z-0.125000
G01 X85.330777 Y105.127397 Z-0.125000
G01 X85.378402 Y106.140486 Z-0.125000
G01 X85.426027 Y107.153309 Z-0.125000
G01 X85.473652 Y108.166398 Z-0.125000
G01 X85.521277 Y109.179486 Z-0.125000
G01 X85.568901 Y110.192574 Z-0.125000
G01 X85.616526 Y111.205398 Z-0.125000
G01 X85.664151 Y112.218486 Z-0.125000
G00 Z10.000000

(End cutting path id: path178)


(Start cutting path id: path180)
(Change tool to Default tool)

G00 Z10.000000
G00 X86.677240 Y112.245474

G00 Z4.875000 (Fast pre-penetrate)
G01 Z-0.125000 F100.0(Penetrate)
G01 X86.616915 Y111.201429 Z-0.125000 F800.000000
G01 X86.556325 Y110.157649 Z-0.125000
G01 X86.496000 Y109.113605 Z-0.125000
G01 X86.435411 Y108.069825 Z-0.125000
G01 X86.375086 Y107.025780 Z-0.125000
G01 X86.314496 Y105.982001 Z-0.125000
G01 X86.254171 Y104.937956 Z-0.125000
G01 X86.193582 Y103.894176 Z-0.125000
G01 X86.133257 Y102.850132 Z-0.125000
G01 X86.072668 Y101.806352 Z-0.125000
G01 X86.012343 Y100.762307 Z-0.125000
G01 X86.147015 Y99.489398 Z-0.125000
G01 X86.281953 Y98.216225 Z-0.125000
G01 X86.416890 Y96.943316 Z-0.125000
G01 X86.551563 Y95.670143 Z-0.125000
G01 X86.686500 Y94.396969 Z-0.125000
G01 X86.821437 Y93.124060 Z-0.125000
G01 X86.956110 Y91.850887 Z-0.125000
G01 X87.091047 Y90.577978 Z-0.125000
G01 X87.225985 Y89.304805 Z-0.125000
G01 X87.360658 Y88.031896 Z-0.125000
G01 X87.495595 Y86.758723 Z-0.125000
G01 X87.292660 Y85.758334 Z-0.125000
G01 X87.089725 Y84.757681 Z-0.125000
G01 X86.886789 Y83.757293 Z-0.125000
G01 X86.683854 Y82.756640 Z-0.125000
G01 X86.480919 Y81.756252 Z-0.125000
G01 X86.277719 Y80.755599 Z-0.125000
G01 X86.074784 Y79.755211 Z-0.125000
G01 X85.871849 Y78.754558 Z-0.125000
G01 X85.668914 Y77.754169 Z-0.125000
G01 X85.465979 Y76.753781 Z-0.125000
G01 X85.263044 Y75.753128 Z-0.125000
G01 X85.705691 Y74.700882 Z-0.125000
G01 X86.148603 Y73.648370 Z-0.125000
G01 X86.591250 Y72.596124 Z-0.125000
G01 X87.033898 Y71.543877 Z-0.125000
G01 X87.476809 Y70.491366 Z-0.125000
G01 X87.919457 Y69.439119 Z-0.125000
G01 X88.362104 Y68.386873 Z-0.125000
G01 X88.805016 Y67.334626 Z-0.125000
G01 X89.247664 Y66.282115 Z-0.125000
G01 X89.690311 Y65.229869 Z-0.125000
G01 X90.132958 Y64.177622 Z-0.125000
G01 X89.472559 Y63.288623 Z-0.125000
G01 X88.812160 Y62.399624 Z-0.125000
G01 X88.151761 Y61.510625 Z-0.125000
G01 X87.491362 Y60.621626 Z-0.125000
G01 X86.830962 Y59.732628 Z-0.125000
G01 X86.170563 Y58.843629 Z-0.125000
G01 X85.510164 Y57.954630 Z-0.125000
G01 X84.849765 Y57.065631 Z-0.125000
G01 X84.189366 Y56.176632 Z-0.125000
G01 X83.528967 Y55.287633 Z-0.125000
G01 X82.868567 Y54.398634 Z-0.125000
G01 X83.092140 Y53.536094 Z-0.125000
G01 X83.315448 Y52.673553 Z-0.125000
G01 X83.539021 Y51.811013 Z-0.125000
G01 X83.762329 Y50.948472 Z-0.125000
G01 X83.985637 Y50.085931 Z-0.125000
G01 X84.209209 Y49.223391 Z-0.125000
G01 X84.432517 Y48.360850 Z-0.125000
G01 X84.655826 Y47.498574 Z-0.125000
G01 X84.879398 Y46.636034 Z-0.125000
G01 X85.102706 Y45.773493 Z-0.125000
G01 X85.326279 Y44.910952 Z-0.125000
G01 X85.587687 Y43.916385 Z-0.125000
G01 X85.848830 Y42.922082 Z-0.125000
G01 X86.110238 Y41.927779 Z-0.125000
G01 X86.371646 Y40.933476 Z-0.125000
G01 X86.633054 Y39.939173 Z-0.125000
G01 X86.894462 Y38.944870 Z-0.125000
G01 X87.155606 Y37.950567 Z-0.125000
G01 X87.417014 Y36.956265 Z-0.125000
G01 X87.678422 Y35.961697 Z-0.125000
G01 X87.939830 Y34.967394 Z-0.125000
G01 X88.201238 Y33.973091 Z-0.125000
G01 X87.804099 Y32.760772 Z-0.125000
G01 X87.406695 Y31.548453 Z-0.125000
G01 X87.009556 Y30.336133 Z-0.125000
G01 X86.612417 Y29.123814 Z-0.125000
G01 X86.215278 Y27.911495 Z-0.125000
G01 X85.818139 Y26.698911 Z-0.125000
G01 X85.421000 Y25.486592 Z-0.125000
G01 X85.023596 Y24.274272 Z-0.125000
G01 X84.626457 Y23.061953 Z-0.125000
G01 X84.229318 Y21.849634 Z-0.125000
G01 X83.832179 Y20.637314 Z-0.125000
G01 X84.124014 Y19.685080 Z-0.125000
G01 X84.415849 Y18.732846 Z-0.125000
G01 X84.707684 Y17.780612 Z-0.125000
G01 X84.999519 Y16.828377 Z-0.125000
G01 X85.291354 Y15.876143 Z-0.125000
G01 X85.583189 Y14.923909 Z-0.125000
G01 X85.875024 Y13.971675 Z-0.125000
G01 X86.167124 Y13.019441 Z-0.125000
G01 X86.458959 Y12.067206 Z-0.125000
G01 X86.750794 Y11.114972 Z-0.125000
G01 X87.042629 Y10.162738 Z-0.125000
G00 Z10.000000

(End cutting path id: path180)


(Start cutting path id: path182)
(Change tool to Default tool)

G00 Z10.000000
G00 X88.101225 Y10.708837

G00 Z4.875000 (Fast pre-penetrate)
G01 Z-0.125000 F100.0(Penetrate)
G01 X87.819709 Y11.684884 Z-0.125000 F800.000000
G01 X87.537928 Y12.660666 Z-0.125000
G01 X87.256412 Y13.636448 Z-0.125000
G01 X86.974631 Y14.612230 Z-0.125000
G01 X86.692850 Y15.588277 Z-0.125000
G01 X86.411334 Y16.564059 Z-0.125000
G01 X86.129553 Y17.539841 Z-0.125000
G01 X85.848037 Y18.515623 Z-0.125000
G01 X85.566256 Y19.491405 Z-0.125000
G01 X85.284739 Y20.467187 Z-0.125000
G01 X85.649864 Y21.668394 Z-0.125000
G01 X86.015253 Y22.869336 Z-0.125000
G01 X86.380642 Y24.070279 Z-0.125000
G01 X86.746031 Y25.271221 Z-0.125000
G01 X87.111420 Y26.472163 Z-0.125000
G01 X87.476545 Y27.673105 Z-0.125000
G01 X87.841934 Y28.874048 Z-0.125000
G01 X88.207323 Y30.074990 Z-0.125000
G01 X88.572712 Y31.275932 Z-0.125000
G01 X88.938101 Y32.476874 Z-0.125000
G01 X89.303226 Y33.677817 Z-0.125000
G01 X89.063249 Y34.669209 Z-0.125000
G01 X88.823272 Y35.660866 Z-0.125000
G01 X88.583296 Y36.652259 Z-0.125000
G01 X88.343319 Y37.643916 Z-0.125000
G01 X88.103342 Y38.635308 Z-0.125000
G01 X87.863101 Y39.626965 Z-0.125000
G01 X87.623124 Y40.618358 Z-0.125000
G01 X87.383147 Y41.610015 Z-0.125000
G01 X87.143170 Y42.601407 Z-0.125000
G01 X86.903194 Y43.593065 Z-0.125000
G01 X86.663217 Y44.584457 Z-0.125000
G01 X86.443084 Y45.498327 Z-0.125000
G01 X86.222951 Y46.411932 Z-0.125000
G01 X86.003082 Y47.325802 Z-0.125000
G01 X85.782949 Y48.239407 Z-0.125000
G01 X85.562816 Y49.153012 Z-0.125000
G01 X85.342948 Y50.066881 Z-0.125000
G01 X85.122815 Y50.980486 Z-0.125000
G01 X84.902946 Y51.894092 Z-0.125000
G01 X84.682813 Y52.807961 Z-0.125000
G01 X84.462680 Y53.721566 Z-0.125000
G01 X84.242811 Y54.635436 Z-0.125000
G01 X84.894479 Y55.569149 Z-0.125000
G01 X85.546147 Y56.502863 Z-0.125000
G01 X86.197815 Y57.436576 Z-0.125000
G01 X86.849748 Y58.370290 Z-0.125000
G01 X87.501416 Y59.304003 Z-0.125000
G01 X88.153084 Y60.237716 Z-0.125000
G01 X88.804752 Y61.171430 Z-0.125000
G01 X89.456419 Y62.105408 Z-0.125000
G01 X90.108352 Y63.039121 Z-0.125000
G01 X90.760020 Y63.972835 Z-0.125000
G01 X91.411688 Y64.906548 Z-0.125000
G01 X90.912155 Y65.882330 Z-0.125000
G01 X90.412358 Y66.858377 Z-0.125000
G01 X89.912561 Y67.834424 Z-0.125000
G01 X89.413028 Y68.810206 Z-0.125000
G01 X88.913231 Y69.786252 Z-0.125000
G01 X88.413698 Y70.762299 Z-0.125000
G01 X87.913901 Y71.738081 Z-0.125000
G01 X87.414368 Y72.714128 Z-0.125000
G01 X86.914571 Y73.689910 Z-0.125000
G01 X86.414773 Y74.665957 Z-0.125000
G01 X85.915241 Y75.642003 Z-0.125000
G01 X86.145163 Y76.635248 Z-0.125000
G01 X86.375350 Y77.628757 Z-0.125000
G01 X86.605273 Y78.622266 Z-0.125000
G01 X86.835460 Y79.615775 Z-0.125000
G01 X87.065383 Y80.609285 Z-0.125000
G01 X87.295570 Y81.602794 Z-0.125000
G01 X87.525493 Y82.596303 Z-0.125000
G01 X87.755680 Y83.589547 Z-0.125000
G01 X87.985603 Y84.583057 Z-0.125000
G01 X88.215790 Y85.576566 Z-0.125000
G01 X88.445712 Y86.570075 Z-0.125000
G01 X88.303896 Y87.831871 Z-0.125000
G01 X88.161815 Y89.093668 Z-0.125000
G01 X88.019998 Y90.355464 Z-0.125000
G01 X87.877917 Y91.617260 Z-0.125000
G01 X87.736101 Y92.878792 Z-0.125000
G01 X87.594020 Y94.140588 Z-0.125000
G01 X87.451939 Y95.402385 Z-0.125000
G01 X87.310122 Y96.664181 Z-0.125000
G01 X87.168041 Y97.925977 Z-0.125000
G01 X87.026225 Y99.187774 Z-0.125000
G01 X86.884144 Y100.449570 Z-0.125000
G01 X86.957433 Y101.524306 Z-0.125000
G01 X87.030723 Y102.599042 Z-0.125000
G01 X87.104012 Y103.673778 Z-0.125000
G01 X87.177302 Y104.748779 Z-0.125000
G01 X87.250591 Y105.823515 Z-0.125000
G01 X87.323881 Y106.898251 Z-0.125000
G01 X87.397170 Y107.972988 Z-0.125000
G01 X87.470459 Y109.047724 Z-0.125000
G01 X87.543749 Y110.122724 Z-0.125000
G01 X87.617038 Y111.197461 Z-0.125000
G01 X87.690328 Y112.272197 Z-0.125000
G00 Z10.000000

(End cutting path id: path182)


(Start cutting path id: path184)
(Change tool to Default tool)

G00 Z10.000000
G00 X88.703681 Y112.299184

G00 Z4.875000 (Fast pre-penetrate)
G01 Z-0.125000 F100.0(Penetrate)
G01 X88.617427 Y111.193492 Z-0.125000 F800.000000
G01 X88.531437 Y110.087800 Z-0.125000
G01 X88.445183 Y108.982107 Z-0.125000
G01 X88.358929 Y107.876415 Z-0.125000
G01 X88.272940 Y106.770722 Z-0.125000
G01 X88.186686 Y105.665030 Z-0.125000
G01 X88.100696 Y104.559338 Z-0.125000
G01 X88.014442 Y103.453645 Z-0.125000
G01 X87.928453 Y102.347953 Z-0.125000
G01 X87.842199 Y101.242261 Z-0.125000
G01 X87.756209 Y100.136568 Z-0.125000
G01 X87.905169 Y98.886149 Z-0.125000
G01 X88.054394 Y97.635730 Z-0.125000
G01 X88.203354 Y96.385311 Z-0.125000
G01 X88.352579 Y95.134627 Z-0.125000
G01 X88.501539 Y93.884207 Z-0.125000
G01 X88.650764 Y92.633788 Z-0.125000
G01 X88.799724 Y91.383369 Z-0.125000
G01 X88.948685 Y90.132950 Z-0.125000
G01 X89.097910 Y88.882266 Z-0.125000
G01 X89.246870 Y87.631847 Z-0.125000
G01 X89.396095 Y86.381427 Z-0.125000
G01 X89.138920 Y85.395062 Z-0.125000
G01 X88.881745 Y84.408696 Z-0.125000
G01 X88.624571 Y83.422066 Z-0.125000
G01 X88.367396 Y82.435701 Z-0.125000
G01 X88.110221 Y81.449336 Z-0.125000
G01 X87.853047 Y80.462970 Z-0.125000
G01 X87.595872 Y79.476340 Z-0.125000
G01 X87.338697 Y78.489975 Z-0.125000
G01 X87.081522 Y77.503609 Z-0.125000
G01 X86.824612 Y76.517244 Z-0.125000
G01 X86.567438 Y75.530614 Z-0.125000
G01 X87.123856 Y74.631032 Z-0.125000
G01 X87.680538 Y73.731449 Z-0.125000
G01 X88.237221 Y72.832132 Z-0.125000
G01 X88.793904 Y71.932550 Z-0.125000
G01 X89.350586 Y71.032967 Z-0.125000
G01 X89.907269 Y70.133385 Z-0.125000
G01 X90.463687 Y69.233803 Z-0.125000
G01 X91.020370 Y68.334221 Z-0.125000
G01 X91.577052 Y67.434639 Z-0.125000
G01 X92.133735 Y66.535056 Z-0.125000
G01 X92.690417 Y65.635474 Z-0.125000
G01 X92.047216 Y64.657046 Z-0.125000
G01 X91.404280 Y63.678618 Z-0.125000
G01 X90.761078 Y62.699926 Z-0.125000
G01 X90.118142 Y61.721498 Z-0.125000
G01 X89.475205 Y60.743070 Z-0.125000
G01 X88.832004 Y59.764642 Z-0.125000
G01 X88.189067 Y58.785950 Z-0.125000
G01 X87.545866 Y57.807522 Z-0.125000
G01 X86.902929 Y56.829094 Z-0.125000
G01 X86.259728 Y55.850401 Z-0.125000
G01 X85.616791 Y54.871973 Z-0.125000
G01 X85.833484 Y53.907039 Z-0.125000
G01 X86.050178 Y52.942105 Z-0.125000
G01 X86.266871 Y51.977435 Z-0.125000
G01 X86.483300 Y51.012501 Z-0.125000
G01 X86.699994 Y50.047567 Z-0.125000
G01 X86.916687 Y49.082633 Z-0.125000
G01 X87.133381 Y48.117698 Z-0.125000
G01 X87.350074 Y47.153029 Z-0.125000
G01 X87.566768 Y46.188095 Z-0.125000
G01 X87.783461 Y45.223160 Z-0.125000
G01 X87.999890 Y44.258226 Z-0.125000
G01 X88.218700 Y43.269480 Z-0.125000
G01 X88.437246 Y42.280997 Z-0.125000
G01 X88.656056 Y41.292251 Z-0.125000
G01 X88.874601 Y40.303504 Z-0.125000
G01 X89.093412 Y39.314757 Z-0.125000
G01 X89.312222 Y38.326011 Z-0.125000
G01 X89.530767 Y37.337264 Z-0.125000
G01 X89.749577 Y36.348517 Z-0.125000
G01 X89.968123 Y35.360035 Z-0.125000
G01 X90.186669 Y34.371289 Z-0.125000
G01 X90.405479 Y33.382542 Z-0.125000
G01 X90.072104 Y32.192977 Z-0.125000
G01 X89.738465 Y31.003412 Z-0.125000
G01 X89.405090 Y29.813846 Z-0.125000
G01 X89.071451 Y28.624281 Z-0.125000
G01 X88.738077 Y27.434716 Z-0.125000
G01 X88.404702 Y26.245151 Z-0.125000
G01 X88.071063 Y25.055586 Z-0.125000
G01 X87.737688 Y23.866021 Z-0.125000
G01 X87.404049 Y22.676455 Z-0.125000
G01 X87.070675 Y21.486890 Z-0.125000
G01 X86.737035 Y20.297325 Z-0.125000
G01 X87.008498 Y19.297995 Z-0.125000
G01 X87.279960 Y18.298401 Z-0.125000
G01 X87.551422 Y17.299071 Z-0.125000
G01 X87.823149 Y16.299741 Z-0.125000
G01 X88.094611 Y15.300146 Z-0.125000
G01 X88.366073 Y14.300816 Z-0.125000
G01 X88.637535 Y13.301221 Z-0.125000
G01 X88.908997 Y12.301891 Z-0.125000
G01 X89.180459 Y11.302561 Z-0.125000
G01 X89.451922 Y10.302967 Z-0.125000
G01 X89.723384 Y9.303637 Z-0.125000
G00 Z10.000000

(End cutting path id: path184)


(Start cutting path id: path188)
(Change tool to Default tool)

G00 Z10.000000
G00 X90.802353 Y9.897097

G00 Z4.875000 (Fast pre-penetrate)
G01 Z-0.125000 F100.0(Penetrate)
G01 X90.541210 Y10.920239 Z-0.125000 F800.000000
G01 X90.279802 Y11.943117 Z-0.125000
G01 X90.018658 Y12.966259 Z-0.125000
G01 X89.757250 Y13.989137 Z-0.125000
G01 X89.496107 Y15.012280 Z-0.125000
G01 X89.234699 Y16.035158 Z-0.125000
G01 X88.973556 Y17.058300 Z-0.125000
G01 X88.712148 Y18.081443 Z-0.125000
G01 X88.451004 Y19.104320 Z-0.125000
G01 X88.189596 Y20.127463 Z-0.125000
G01 X88.491221 Y21.305651 Z-0.125000
G01 X88.792845 Y22.483574 Z-0.125000
G01 X89.094470 Y23.661763 Z-0.125000
G01 X89.396095 Y24.839951 Z-0.125000
G01 X89.697719 Y26.018139 Z-0.125000
G01 X89.999344 Y27.196327 Z-0.125000
G01 X90.301233 Y28.374515 Z-0.125000
G01 X90.602858 Y29.552703 Z-0.125000
G01 X90.904482 Y30.730891 Z-0.125000
G01 X91.206107 Y31.909079 Z-0.125000
G01 X91.507731 Y33.087267 Z-0.125000
G01 X91.310353 Y34.073104 Z-0.125000
G01 X91.112974 Y35.058940 Z-0.125000
G01 X90.915595 Y36.044776 Z-0.125000
G01 X90.718216 Y37.030877 Z-0.125000
G01 X90.520837 Y38.016713 Z-0.125000
G01 X90.323723 Y39.002549 Z-0.125000
G01 X90.126344 Y39.988386 Z-0.125000
G01 X89.928965 Y40.974222 Z-0.125000
G01 X89.731586 Y41.960323 Z-0.125000
G01 X89.534207 Y42.946159 Z-0.125000
G01 X89.336828 Y43.931995 Z-0.125000
G01 X89.123574 Y44.947994 Z-0.125000
G01 X88.910320 Y45.964257 Z-0.125000
G01 X88.697066 Y46.980256 Z-0.125000
G01 X88.483812 Y47.996255 Z-0.125000
G01 X88.270558 Y49.012254 Z-0.125000
G01 X88.057305 Y50.028252 Z-0.125000
G01 X87.844051 Y51.044516 Z-0.125000
G01 X87.630532 Y52.060514 Z-0.125000
G01 X87.417278 Y53.076513 Z-0.125000
G01 X87.204024 Y54.092512 Z-0.125000
G01 X86.990771 Y55.108510 Z-0.125000
G01 X87.625241 Y56.131917 Z-0.125000
G01 X88.259446 Y57.155060 Z-0.125000
G01 X88.893916 Y58.178467 Z-0.125000
G01 X89.528386 Y59.201609 Z-0.125000
G01 X90.162592 Y60.225017 Z-0.125000
G01 X90.797062 Y61.248159 Z-0.125000
G01 X91.431532 Y62.271566 Z-0.125000
G01 X92.065737 Y63.294708 Z-0.125000
G01 X92.700207 Y64.318116 Z-0.125000
G01 X93.334677 Y65.341258 Z-0.125000
G01 X93.968883 Y66.364665 Z-0.125000
G01 X93.355315 Y67.187783 Z-0.125000
G01 X92.741747 Y68.010900 Z-0.125000
G01 X92.128179 Y68.834018 Z-0.125000
G01 X91.514611 Y69.657136 Z-0.125000
G01 X90.901043 Y70.480518 Z-0.125000
G01 X90.287475 Y71.303636 Z-0.125000
G01 X89.673907 Y72.126754 Z-0.125000
G01 X89.060339 Y72.949871 Z-0.125000
G01 X88.446771 Y73.772989 Z-0.125000
G01 X87.832938 Y74.596371 Z-0.125000
G01 X87.219370 Y75.419489 Z-0.125000
G01 X87.503797 Y76.398975 Z-0.125000
G01 X87.787959 Y77.378197 Z-0.125000
G01 X88.072121 Y78.357683 Z-0.125000
G01 X88.356548 Y79.337170 Z-0.125000
G01 X88.640710 Y80.316391 Z-0.125000
G01 X88.924872 Y81.295877 Z-0.125000
G01 X89.209299 Y82.275364 Z-0.125000
G01 X89.493461 Y83.254585 Z-0.125000
G01 X89.777888 Y84.234072 Z-0.125000
G01 X90.062050 Y85.213293 Z-0.125000
G01 X90.346212 Y86.192780 Z-0.125000
G01 X90.190108 Y87.432086 Z-0.125000
G01 X90.034004 Y88.671129 Z-0.125000
G01 X89.877636 Y89.910435 Z-0.125000
G01 X89.721532 Y91.149478 Z-0.125000
G01 X89.565163 Y92.388784 Z-0.125000
G01 X89.409059 Y93.627827 Z-0.125000
G01 X89.252955 Y94.866869 Z-0.125000
G01 X89.096587 Y96.106175 Z-0.125000
G01 X88.940483 Y97.345218 Z-0.125000
G01 X88.784379 Y98.584524 Z-0.125000
G01 X88.628010 Y99.823567 Z-0.125000
G01 X88.726964 Y100.960215 Z-0.125000
G01 X88.825918 Y102.096864 Z-0.125000
G01 X88.924872 Y103.233248 Z-0.125000
G01 X89.023826 Y104.369896 Z-0.125000
G01 X89.123045 Y105.506545 Z-0.125000
G01 X89.221999 Y106.643193 Z-0.125000
G01 X89.320953 Y107.779577 Z-0.125000
G01 X89.419907 Y108.916226 Z-0.125000
G01 X89.518861 Y110.052875 Z-0.125000
G01 X89.617815 Y111.189259 Z-0.125000
G01 X89.716769 Y112.325907 Z-0.125000
G00 Z10.000000

(End cutting path id: path188)


(Start cutting path id: path190)
(Change tool to Default tool)

G00 Z10.000000
G00 X90.729857 Y112.352895

G00 Z4.875000 (Fast pre-penetrate)
G01 Z-0.125000 F100.0(Penetrate)
G01 X90.617939 Y111.185290 Z-0.125000 F800.000000
G01 X90.506285 Y110.017950 Z-0.125000
G01 X90.394366 Y108.850345 Z-0.125000
G01 X90.282712 Y107.683005 Z-0.125000
G01 X90.170794 Y106.515400 Z-0.125000
G01 X90.059140 Y105.348060 Z-0.125000
G01 X89.947221 Y104.180719 Z-0.125000
G01 X89.835567 Y103.013115 Z-0.125000
G01 X89.723648 Y101.845774 Z-0.125000
G01 X89.611730 Y100.678170 Z-0.125000
G01 X89.500076 Y99.510830 Z-0.125000
G01 X89.663323 Y98.282900 Z-0.125000
G01 X89.826571 Y97.054970 Z-0.125000
G01 X89.990083 Y95.827040 Z-0.125000
G01 X90.153331 Y94.599375 Z-0.125000
G01 X90.316579 Y93.371446 Z-0.125000
G01 X90.479827 Y92.143516 Z-0.125000
G01 X90.643339 Y90.915586 Z-0.125000
G01 X90.806587 Y89.687921 Z-0.125000
G01 X90.969834 Y88.459991 Z-0.125000
G01 X91.133082 Y87.232062 Z-0.125000
G01 X91.296594 Y86.004132 Z-0.125000
G01 X90.985180 Y85.031789 Z-0.125000
G01 X90.673766 Y84.059447 Z-0.125000
G01 X90.362352 Y83.087104 Z-0.125000
G01 X90.051202 Y82.114762 Z-0.125000
G01 X89.739788 Y81.142419 Z-0.125000
G01 X89.428374 Y80.170077 Z-0.125000
G01 X89.116959 Y79.197734 Z-0.125000
G01 X88.805545 Y78.225392 Z-0.125000
G01 X88.494396 Y77.253049 Z-0.125000
G01 X88.182982 Y76.280707 Z-0.125000
G01 X87.871567 Y75.308100 Z-0.125000
G01 X88.542021 Y74.561446 Z-0.125000
G01 X89.212739 Y73.814529 Z-0.125000
G01 X89.883192 Y73.067875 Z-0.125000
G01 X90.553645 Y72.320958 Z-0.125000
G01 X91.224363 Y71.574304 Z-0.125000
G01 X91.894816 Y70.827386 Z-0.125000
G01 X92.565534 Y70.080733 Z-0.125000
G01 X93.235988 Y69.333815 Z-0.125000
G01 X93.906441 Y68.587162 Z-0.125000
G01 X94.577159 Y67.840244 Z-0.125000
G01 X95.247612 Y67.093591 Z-0.125000
G01 X94.621873 Y66.025470 Z-0.125000
G01 X93.996135 Y64.957613 Z-0.125000
G01 X93.370396 Y63.889491 Z-0.125000
G01 X92.744922 Y62.821369 Z-0.125000
G01 X92.119183 Y61.753512 Z-0.125000
G01 X91.493444 Y60.685391 Z-0.125000
G01 X90.867705 Y59.617269 Z-0.125000
G01 X90.241966 Y58.549412 Z-0.125000
G01 X89.616228 Y57.481291 Z-0.125000
G01 X88.990489 Y56.413434 Z-0.125000
G01 X88.364750 Y55.345312 Z-0.125000
G01 X88.574829 Y54.277984 Z-0.125000
G01 X88.784643 Y53.210921 Z-0.125000
G01 X88.994458 Y52.143593 Z-0.125000
G01 X89.204536 Y51.076266 Z-0.125000
G01 X89.414351 Y50.009202 Z-0.125000
G01 X89.624165 Y48.941874 Z-0.125000
G01 X89.834244 Y47.874547 Z-0.125000
G01 X90.044058 Y46.807483 Z-0.125000
G01 X90.254137 Y45.740156 Z-0.125000
G01 X90.463952 Y44.673092 Z-0.125000
G01 X90.673766 Y43.605765 Z-0.125000
G01 X90.849714 Y42.622574 Z-0.125000
G01 X91.025926 Y41.639648 Z-0.125000
G01 X91.201874 Y40.656458 Z-0.125000
G01 X91.377821 Y39.673532 Z-0.125000
G01 X91.553769 Y38.690342 Z-0.125000
G01 X91.729717 Y37.707151 Z-0.125000
G01 X91.905929 Y36.724225 Z-0.125000
G01 X92.081877 Y35.741035 Z-0.125000
G01 X92.257824 Y34.758109 Z-0.125000
G01 X92.433772 Y33.774919 Z-0.125000
G01 X92.609720 Y32.791728 Z-0.125000
G01 X92.340110 Y31.625182 Z-0.125000
G01 X92.070235 Y30.458371 Z-0.125000
G01 X91.800360 Y29.291560 Z-0.125000
G01 X91.530750 Y28.124749 Z-0.125000
G01 X91.260876 Y26.957938 Z-0.125000
G01 X90.991001 Y25.791127 Z-0.125000
G01 X90.721391 Y24.624580 Z-0.125000
G01 X90.451516 Y23.457769 Z-0.125000
G01 X90.181641 Y22.290958 Z-0.125000
G01 X89.912031 Y21.124147 Z-0.125000
G01 X89.642157 Y19.957336 Z-0.125000
G01 X89.893246 Y18.910646 Z-0.125000
G01 X90.144335 Y17.864220 Z-0.125000
G01 X90.395425 Y16.817530 Z-0.125000
G01 X90.646514 Y15.770839 Z-0.125000
G01 X90.897603 Y14.724413 Z-0.125000
G01 X91.148692 Y13.677723 Z-0.125000
G01 X91.399782 Y12.631033 Z-0.125000
G01 X91.650871 Y11.584342 Z-0.125000
G01 X91.901960 Y10.537917 Z-0.125000
G01 X92.153049 Y9.491226 Z-0.125000
G01 X92.404139 Y8.444536 Z-0.125000
G00 Z10.000000

(End cutting path id: path190)


(Start cutting path id: path194)
(Change tool to Default tool)

G00 Z10.000000
G00 X93.503481 Y9.085356

G00 Z4.875000 (Fast pre-penetrate)
G01 Z-0.125000 F100.0(Penetrate)
G01 X93.262711 Y10.155594 Z-0.125000 F800.000000
G01 X93.021675 Y11.225832 Z-0.125000
G01 X92.780905 Y12.295806 Z-0.125000
G01 X92.539870 Y13.366044 Z-0.125000
G01 X92.299099 Y14.436283 Z-0.125000
G01 X92.058064 Y15.506521 Z-0.125000
G01 X91.817294 Y16.576759 Z-0.125000
G01 X91.576523 Y17.646997 Z-0.125000
G01 X91.335488 Y18.717235 Z-0.125000
G01 X91.094717 Y19.787474 Z-0.125000
G01 X91.332578 Y20.942908 Z-0.125000
G01 X91.570438 Y22.098077 Z-0.125000
G01 X91.808562 Y23.253511 Z-0.125000
G01 X92.046422 Y24.408945 Z-0.125000
G01 X92.284283 Y25.564379 Z-0.125000
G01 X92.522407 Y26.719548 Z-0.125000
G01 X92.760267 Y27.874982 Z-0.125000
G01 X92.998128 Y29.030416 Z-0.125000
G01 X93.235988 Y30.185850 Z-0.125000
G01 X93.474112 Y31.341284 Z-0.125000
G01 X93.711972 Y32.496454 Z-0.125000
G01 X93.557191 Y33.476734 Z-0.125000
G01 X93.402675 Y34.457014 Z-0.125000
G01 X93.247894 Y35.437294 Z-0.125000
G01 X93.093377 Y36.417574 Z-0.125000
G01 X92.938596 Y37.397854 Z-0.125000
G01 X92.784080 Y38.378134 Z-0.125000
G01 X92.629299 Y39.358414 Z-0.125000
G01 X92.474782 Y40.338694 Z-0.125000
G01 X92.320001 Y41.318974 Z-0.125000
G01 X92.165485 Y42.299254 Z-0.125000
G01 X92.010704 Y43.279534 Z-0.125000
G01 X91.804064 Y44.397926 Z-0.125000
G01 X91.597690 Y45.516318 Z-0.125000
G01 X91.391050 Y46.634711 Z-0.125000
G01 X91.184676 Y47.753103 Z-0.125000
G01 X90.978036 Y48.871495 Z-0.125000
G01 X90.771662 Y49.989888 Z-0.125000
G01 X90.565022 Y51.108280 Z-0.125000
G01 X90.358383 Y52.226672 Z-0.125000
G01 X90.152008 Y53.345065 Z-0.125000
G01 X89.945369 Y54.463457 Z-0.125000
G01 X89.738994 Y55.581849 Z-0.125000
G01 X90.356002 Y56.694686 Z-0.125000
G01 X90.973009 Y57.807522 Z-0.125000
G01 X91.590017 Y58.920358 Z-0.125000
G01 X92.207024 Y60.033194 Z-0.125000
G01 X92.824032 Y61.145765 Z-0.125000
G01 X93.441039 Y62.258601 Z-0.125000
G01 X94.058047 Y63.371438 Z-0.125000
G01 X94.675055 Y64.484274 Z-0.125000
G01 X95.292327 Y65.597110 Z-0.125000
G01 X95.909334 Y66.709681 Z-0.125000
G01 X96.526342 Y67.822517 Z-0.125000
G01 X95.798739 Y68.492971 Z-0.125000
G01 X95.071135 Y69.163424 Z-0.125000
G01 X94.343797 Y69.833877 Z-0.125000
G01 X93.616193 Y70.504066 Z-0.125000
G01 X92.888855 Y71.174519 Z-0.125000
G01 X92.161251 Y71.844973 Z-0.125000
G01 X91.433648 Y72.515426 Z-0.125000
G01 X90.706310 Y73.185879 Z-0.125000
G01 X89.978706 Y73.856333 Z-0.125000
G01 X89.251103 Y74.526521 Z-0.125000
G01 X88.523764 Y75.196975 Z-0.125000
G01 X88.862166 Y76.162438 Z-0.125000
G01 X89.200568 Y77.127637 Z-0.125000
G01 X89.538969 Y78.093100 Z-0.125000
G01 X89.877636 Y79.058299 Z-0.125000
G01 X90.216037 Y80.023498 Z-0.125000
G01 X90.554439 Y80.988961 Z-0.125000
G01 X90.892841 Y81.954160 Z-0.125000
G01 X91.231507 Y82.919623 Z-0.125000
G01 X91.569908 Y83.884822 Z-0.125000
G01 X91.908310 Y84.850285 Z-0.125000
G01 X92.246712 Y85.815484 Z-0.125000
G01 X92.076320 Y87.032037 Z-0.125000
G01 X91.905929 Y88.248590 Z-0.125000
G01 X91.735537 Y89.465142 Z-0.125000
G01 X91.565146 Y90.681959 Z-0.125000
G01 X91.394490 Y91.898512 Z-0.125000
G01 X91.224099 Y93.115065 Z-0.125000
G01 X91.053707 Y94.331617 Z-0.125000
G01 X90.883316 Y95.548170 Z-0.125000
G01 X90.712924 Y96.764723 Z-0.125000
G01 X90.542533 Y97.981275 Z-0.125000
G01 X90.371877 Y99.197828 Z-0.125000
G01 X90.496760 Y100.396124 Z-0.125000
G01 X90.621378 Y101.594685 Z-0.125000
G01 X90.745997 Y102.792982 Z-0.125000
G01 X90.870616 Y103.991278 Z-0.125000
G01 X90.995234 Y105.189574 Z-0.125000
G01 X91.119853 Y106.387871 Z-0.125000
G01 X91.244471 Y107.586167 Z-0.125000
G01 X91.369090 Y108.784728 Z-0.125000
G01 X91.493709 Y109.983025 Z-0.125000
G01 X91.618327 Y111.181321 Z-0.125000
G01 X91.742946 Y112.379617 Z-0.125000
G00 Z10.000000

(End cutting path id: path194)


(Start cutting path id: path196)
(Change tool to Default tool)

G00 Z10.000000
G00 X92.756034 Y112.406605

G00 Z4.875000 (Fast pre-penetrate)
G01 Z-0.125000 F100.0(Penetrate)
G01 X92.618716 Y111.177352 Z-0.125000 F800.000000
G01 X92.481132 Y109.948100 Z-0.125000
G01 X92.343814 Y108.718847 Z-0.125000
G01 X92.206231 Y107.489594 Z-0.125000
G01 X92.068912 Y106.260342 Z-0.125000
G01 X91.931329 Y105.031089 Z-0.125000
G01 X91.793746 Y103.801837 Z-0.125000
G01 X91.656427 Y102.572584 Z-0.125000
G01 X91.518844 Y101.343331 Z-0.125000
G01 X91.381525 Y100.114079 Z-0.125000
G01 X91.243942 Y98.885091 Z-0.125000
G01 X91.421477 Y97.679651 Z-0.125000
G01 X91.599013 Y96.474475 Z-0.125000
G01 X91.776548 Y95.269035 Z-0.125000
G01 X91.954083 Y94.063859 Z-0.125000
G01 X92.131618 Y92.858684 Z-0.125000
G01 X92.309153 Y91.653244 Z-0.125000
G01 X92.486689 Y90.448068 Z-0.125000
G01 X92.664224 Y89.242628 Z-0.125000
G01 X92.841759 Y88.037452 Z-0.125000
G01 X93.019559 Y86.832277 Z-0.125000
G01 X93.197094 Y85.626837 Z-0.125000
G01 X92.831440 Y84.668517 Z-0.125000
G01 X92.465787 Y83.710462 Z-0.125000
G01 X92.100397 Y82.752142 Z-0.125000
G01 X91.734744 Y81.793823 Z-0.125000
G01 X91.369090 Y80.835503 Z-0.125000
G01 X91.003701 Y79.877183 Z-0.125000
G01 X90.638047 Y78.918864 Z-0.125000
G01 X90.272393 Y77.960544 Z-0.125000
G01 X89.907004 Y77.002225 Z-0.125000
G01 X89.541351 Y76.044169 Z-0.125000
G01 X89.175962 Y75.085850 Z-0.125000
G01 X89.960186 Y74.491861 Z-0.125000
G01 X90.744674 Y73.897872 Z-0.125000
G01 X91.529163 Y73.303619 Z-0.125000
G01 X92.313651 Y72.709630 Z-0.125000
G01 X93.098140 Y72.115641 Z-0.125000
G01 X93.882628 Y71.521652 Z-0.125000
G01 X94.667117 Y70.927663 Z-0.125000
G01 X95.451606 Y70.333675 Z-0.125000
G01 X96.236094 Y69.739686 Z-0.125000
G01 X97.020318 Y69.145697 Z-0.125000
G01 X97.804807 Y68.551708 Z-0.125000
G01 X97.196531 Y67.394157 Z-0.125000
G01 X96.588254 Y66.236607 Z-0.125000
G01 X95.979713 Y65.079056 Z-0.125000
G01 X95.371437 Y63.921506 Z-0.125000
G01 X94.763161 Y62.763955 Z-0.125000
G01 X94.154620 Y61.606404 Z-0.125000
G01 X93.546344 Y60.448854 Z-0.125000
G01 X92.938067 Y59.291303 Z-0.125000
G01 X92.329791 Y58.133752 Z-0.125000
G01 X91.721250 Y56.976202 Z-0.125000
G01 X91.112974 Y55.818651 Z-0.125000
G01 X91.316173 Y54.648930 Z-0.125000
G01 X91.519373 Y53.479473 Z-0.125000
G01 X91.722308 Y52.309751 Z-0.125000
G01 X91.925508 Y51.140295 Z-0.125000
G01 X92.128708 Y49.970573 Z-0.125000
G01 X92.331908 Y48.801116 Z-0.125000
G01 X92.535107 Y47.631395 Z-0.125000
G01 X92.738042 Y46.461938 Z-0.125000
G01 X92.941242 Y45.292481 Z-0.125000
G01 X93.144442 Y44.122760 Z-0.125000
G01 X93.347642 Y42.953303 Z-0.125000
G01 X93.480992 Y41.975669 Z-0.125000
G01 X93.614341 Y40.998299 Z-0.125000
G01 X93.747691 Y40.020929 Z-0.125000
G01 X93.880776 Y39.043295 Z-0.125000
G01 X94.014126 Y38.065926 Z-0.125000
G01 X94.147476 Y37.088556 Z-0.125000
G01 X94.280826 Y36.110922 Z-0.125000
G01 X94.414176 Y35.133552 Z-0.125000
G01 X94.547526 Y34.156183 Z-0.125000
G01 X94.680875 Y33.178548 Z-0.125000
G01 X94.814225 Y32.201179 Z-0.125000
G01 X94.608115 Y31.057122 Z-0.125000
G01 X94.402005 Y29.913330 Z-0.125000
G01 X94.195895 Y28.769273 Z-0.125000
G01 X93.989785 Y27.625216 Z-0.125000
G01 X93.783674 Y26.481424 Z-0.125000
G01 X93.577564 Y25.337367 Z-0.125000
G01 X93.371454 Y24.193310 Z-0.125000
G01 X93.165344 Y23.049518 Z-0.125000
G01 X92.959234 Y21.905461 Z-0.125000
G01 X92.753124 Y20.761404 Z-0.125000
G01 X92.547278 Y19.617347 Z-0.125000
G01 X92.777730 Y18.523561 Z-0.125000
G01 X93.008446 Y17.429775 Z-0.125000
G01 X93.239163 Y16.335988 Z-0.125000
G01 X93.469879 Y15.242202 Z-0.125000
G01 X93.700595 Y14.148416 Z-0.125000
G01 X93.931312 Y13.054630 Z-0.125000
G01 X94.162028 Y11.960844 Z-0.125000
G01 X94.392745 Y10.867058 Z-0.125000
G01 X94.623461 Y9.773272 Z-0.125000
G01 X94.854177 Y8.679486 Z-0.125000
G01 X95.084894 Y7.585435 Z-0.125000
G00 Z10.000000

(End cutting path id: path196)


(Start cutting path id: path198)
(Change tool to Default tool)

G00 Z10.000000
G00 X95.987651 Y7.706349

G00 Z4.875000 (Fast pre-penetrate)
G01 Z-0.125000 F100.0(Penetrate)
G01 X95.747145 Y8.796167 Z-0.125000 F800.000000
G01 X95.506374 Y9.886249 Z-0.125000
G01 X95.265604 Y10.976066 Z-0.125000
G01 X95.025098 Y12.065883 Z-0.125000
G01 X94.784327 Y13.155965 Z-0.125000
G01 X94.543557 Y14.245783 Z-0.125000
G01 X94.303051 Y15.335600 Z-0.125000
G01 X94.062280 Y16.425682 Z-0.125000
G01 X93.821510 Y17.515499 Z-0.125000
G01 X93.581004 Y18.605581 Z-0.125000
G01 X93.340233 Y19.695399 Z-0.125000
G01 X93.559837 Y20.831518 Z-0.125000
G01 X93.779441 Y21.967902 Z-0.125000
G01 X93.999045 Y23.104022 Z-0.125000
G01 X94.218649 Y24.240141 Z-0.125000
G01 X94.438253 Y25.376525 Z-0.125000
G01 X94.657857 Y26.512644 Z-0.125000
G01 X94.877461 Y27.649028 Z-0.125000
G01 X95.097064 Y28.785148 Z-0.125000
G01 X95.316668 Y29.921267 Z-0.125000
G01 X95.536272 Y31.057651 Z-0.125000
G01 X95.755876 Y32.193771 Z-0.125000
G01 X95.590247 Y33.193894 Z-0.125000
G01 X95.424354 Y34.194018 Z-0.125000
G01 X95.258725 Y35.193877 Z-0.125000
G01 X95.093096 Y36.194001 Z-0.125000
G01 X94.927467 Y37.194125 Z-0.125000
G01 X94.761838 Y38.194248 Z-0.125000
G01 X94.596209 Y39.194108 Z-0.125000
G01 X94.430315 Y40.194231 Z-0.125000
G01 X94.264686 Y41.194355 Z-0.125000
G01 X94.099057 Y42.194214 Z-0.125000
G01 X93.933428 Y43.194338 Z-0.125000
G01 X93.814895 Y44.324372 Z-0.125000
G01 X93.696627 Y45.454406 Z-0.125000
G01 X93.578093 Y46.584175 Z-0.125000
G01 X93.459560 Y47.714209 Z-0.125000
G01 X93.341027 Y48.844243 Z-0.125000
G01 X93.222758 Y49.974013 Z-0.125000
G01 X93.104225 Y51.104047 Z-0.125000
G01 X92.985692 Y52.234081 Z-0.125000
G01 X92.867159 Y53.363850 Z-0.125000
G01 X92.748890 Y54.493884 Z-0.125000
G01 X92.630357 Y55.623918 Z-0.125000
G01 X93.155819 Y56.767446 Z-0.125000
G01 X93.681281 Y57.910974 Z-0.125000
G01 X94.206478 Y59.054501 Z-0.125000
G01 X94.731940 Y60.198029 Z-0.125000
G01 X95.257402 Y61.341557 Z-0.125000
G01 X95.782864 Y62.485349 Z-0.125000
G01 X96.308325 Y63.628877 Z-0.125000
G01 X96.833523 Y64.772405 Z-0.125000
G01 X97.358985 Y65.915932 Z-0.125000
G01 X97.884446 Y67.059460 Z-0.125000
G01 X98.409908 Y68.202988 Z-0.125000
G01 X97.655053 Y68.838781 Z-0.125000
G01 X96.900198 Y69.474574 Z-0.125000
G01 X96.145342 Y70.110102 Z-0.125000
G01 X95.390487 Y70.745895 Z-0.125000
G01 X94.635632 Y71.381688 Z-0.125000
G01 X93.881041 Y72.017481 Z-0.125000
G01 X93.126186 Y72.653009 Z-0.125000
G01 X92.371330 Y73.288802 Z-0.125000
G01 X91.616475 Y73.924595 Z-0.125000
G01 X90.861620 Y74.560388 Z-0.125000
G01 X90.106765 Y75.195916 Z-0.125000
G01 X90.451252 Y76.178578 Z-0.125000
G01 X90.795739 Y77.161239 Z-0.125000
G01 X91.139961 Y78.143900 Z-0.125000
G01 X91.484448 Y79.126297 Z-0.125000
G01 X91.828935 Y80.108958 Z-0.125000
G01 X92.173422 Y81.091619 Z-0.125000
G01 X92.517645 Y82.074016 Z-0.125000
G01 X92.862132 Y83.056677 Z-0.125000
G01 X93.206619 Y84.039339 Z-0.125000
G01 X93.551106 Y85.022000 Z-0.125000
G01 X93.895328 Y86.004397 Z-0.125000
G01 X93.750072 Y87.181526 Z-0.125000
G01 X93.605081 Y88.358656 Z-0.125000
G01 X93.459825 Y89.535786 Z-0.125000
G01 X93.314569 Y90.712916 Z-0.125000
G01 X93.169313 Y91.890045 Z-0.125000
G01 X93.024057 Y93.067175 Z-0.125000
G01 X92.878801 Y94.244305 Z-0.125000
G01 X92.733809 Y95.421435 Z-0.125000
G01 X92.588553 Y96.598564 Z-0.125000
G01 X92.443297 Y97.775694 Z-0.125000
G01 X92.298041 Y98.952824 Z-0.125000
G01 X92.429274 Y100.159322 Z-0.125000
G01 X92.560243 Y101.365821 Z-0.125000
G01 X92.691476 Y102.572319 Z-0.125000
G01 X92.822444 Y103.778818 Z-0.125000
G01 X92.953678 Y104.985316 Z-0.125000
G01 X93.084646 Y106.191815 Z-0.125000
G01 X93.215879 Y107.398313 Z-0.125000
G01 X93.346848 Y108.604812 Z-0.125000
G01 X93.478081 Y109.811310 Z-0.125000
G01 X93.609050 Y111.017544 Z-0.125000
G01 X93.740283 Y112.224043 Z-0.125000
G00 Z10.000000

(End cutting path id: path198)


(Start cutting path id: path200)
(Change tool to Default tool)

G00 Z10.000000
G00 X94.724267 Y112.041745

G00 Z4.875000 (Fast pre-penetrate)
G01 Z-0.125000 F100.0(Penetrate)
G01 X94.599384 Y110.858001 Z-0.125000 F800.000000
G01 X94.474765 Y109.674256 Z-0.125000
G01 X94.350147 Y108.490512 Z-0.125000
G01 X94.225263 Y107.306768 Z-0.125000
G01 X94.100645 Y106.123288 Z-0.125000
G01 X93.975762 Y104.939544 Z-0.125000
G01 X93.851143 Y103.755799 Z-0.125000
G01 X93.726260 Y102.572055 Z-0.125000
G01 X93.601641 Y101.388310 Z-0.125000
G01 X93.477023 Y100.204566 Z-0.125000
G01 X93.352140 Y99.020822 Z-0.125000
G01 X93.465117 Y97.871738 Z-0.125000
G01 X93.577829 Y96.722918 Z-0.125000
G01 X93.690806 Y95.573834 Z-0.125000
G01 X93.803783 Y94.425015 Z-0.125000
G01 X93.916495 Y93.275931 Z-0.125000
G01 X94.029472 Y92.126847 Z-0.125000
G01 X94.142184 Y90.978028 Z-0.125000
G01 X94.255161 Y89.828944 Z-0.125000
G01 X94.368138 Y88.680124 Z-0.125000
G01 X94.480851 Y87.531040 Z-0.125000
G01 X94.593828 Y86.381956 Z-0.125000
G01 X94.270507 Y85.375218 Z-0.125000
G01 X93.947187 Y84.368215 Z-0.125000
G01 X93.623866 Y83.361477 Z-0.125000
G01 X93.300810 Y82.354474 Z-0.125000
G01 X92.977490 Y81.347736 Z-0.125000
G01 X92.654170 Y80.340733 Z-0.125000
G01 X92.330849 Y79.333730 Z-0.125000
G01 X92.007793 Y78.326992 Z-0.125000
G01 X91.684473 Y77.319989 Z-0.125000
G01 X91.361153 Y76.313250 Z-0.125000
G01 X91.037832 Y75.306248 Z-0.125000
G01 X91.763054 Y74.628915 Z-0.125000
G01 X92.488276 Y73.951318 Z-0.125000
G01 X93.213498 Y73.273985 Z-0.125000
G01 X93.938720 Y72.596653 Z-0.125000
G01 X94.663678 Y71.919056 Z-0.125000
G01 X95.388900 Y71.241723 Z-0.125000
G01 X96.114122 Y70.564391 Z-0.125000
G01 X96.839344 Y69.886794 Z-0.125000
G01 X97.564566 Y69.209461 Z-0.125000
G01 X98.289523 Y68.531864 Z-0.125000
G01 X99.014745 Y67.854532 Z-0.125000
G01 X98.572362 Y66.725027 Z-0.125000
G01 X98.129979 Y65.595258 Z-0.125000
G01 X97.687332 Y64.465753 Z-0.125000
G01 X97.244949 Y63.336248 Z-0.125000
G01 X96.802566 Y62.206479 Z-0.125000
G01 X96.359919 Y61.076974 Z-0.125000
G01 X95.917536 Y59.947469 Z-0.125000
G01 X95.475154 Y58.817700 Z-0.125000
G01 X95.032771 Y57.688195 Z-0.125000
G01 X94.590123 Y56.558690 Z-0.125000
G01 X94.147741 Y55.428920 Z-0.125000
G01 X94.181607 Y54.338839 Z-0.125000
G01 X94.215209 Y53.248492 Z-0.125000
G01 X94.249076 Y52.158145 Z-0.125000
G01 X94.282943 Y51.067799 Z-0.125000
G01 X94.316545 Y49.977452 Z-0.125000
G01 X94.350411 Y48.887106 Z-0.125000
G01 X94.384278 Y47.796759 Z-0.125000
G01 X94.417880 Y46.706413 Z-0.125000
G01 X94.451747 Y45.616331 Z-0.125000
G01 X94.485349 Y44.525984 Z-0.125000
G01 X94.519215 Y43.435638 Z-0.125000
G01 X94.717388 Y42.413024 Z-0.125000
G01 X94.915296 Y41.390146 Z-0.125000
G01 X95.113204 Y40.367533 Z-0.125000
G01 X95.311377 Y39.344920 Z-0.125000
G01 X95.509285 Y38.322307 Z-0.125000
G01 X95.707457 Y37.299693 Z-0.125000
G01 X95.905366 Y36.277080 Z-0.125000
G01 X96.103538 Y35.254467 Z-0.125000
G01 X96.301446 Y34.231853 Z-0.125000
G01 X96.499354 Y33.208976 Z-0.125000
G01 X96.697527 Y32.186362 Z-0.125000
G01 X96.464429 Y31.057916 Z-0.125000
G01 X96.231332 Y29.929469 Z-0.125000
G01 X95.998234 Y28.801023 Z-0.125000
G01 X95.765137 Y27.672576 Z-0.125000
G01 X95.532039 Y26.544130 Z-0.125000
G01 X95.298941 Y25.415683 Z-0.125000
G01 X95.065844 Y24.287237 Z-0.125000
G01 X94.832746 Y23.158790 Z-0.125000
G01 X94.599648 Y22.030344 Z-0.125000
G01 X94.366551 Y20.901633 Z-0.125000
G01 X94.133453 Y19.773186 Z-0.125000
G01 X94.384013 Y18.687338 Z-0.125000
G01 X94.634838 Y17.601224 Z-0.125000
G01 X94.885398 Y16.515111 Z-0.125000
G01 X95.135958 Y15.429263 Z-0.125000
G01 X95.386783 Y14.343149 Z-0.125000
G01 X95.637343 Y13.257301 Z-0.125000
G01 X95.888168 Y12.171187 Z-0.125000
G01 X96.138728 Y11.085074 Z-0.125000
G01 X96.389288 Y9.999226 Z-0.125000
G01 X96.640113 Y8.913112 Z-0.125000
G01 X96.890673 Y7.826999 Z-0.125000
G00 Z10.000000

(End cutting path id: path200)


(Start cutting path id: path202)
(Change tool to Default tool)

G00 Z10.000000
G00 X97.793694 Y7.947914

G00 Z4.875000 (Fast pre-penetrate)
G01 Z-0.125000 F100.0(Penetrate)
G01 X97.533080 Y9.030058 Z-0.125000 F800.000000
G01 X97.272466 Y10.111938 Z-0.125000
G01 X97.011852 Y11.194082 Z-0.125000
G01 X96.750973 Y12.276227 Z-0.125000
G01 X96.490359 Y13.358371 Z-0.125000
G01 X96.229744 Y14.440516 Z-0.125000
G01 X95.969130 Y15.522660 Z-0.125000
G01 X95.708516 Y16.604805 Z-0.125000
G01 X95.447902 Y17.686949 Z-0.125000
G01 X95.187287 Y18.769094 Z-0.125000
G01 X94.926673 Y19.851238 Z-0.125000
G01 X95.173264 Y20.972012 Z-0.125000
G01 X95.419856 Y22.092521 Z-0.125000
G01 X95.666447 Y23.213294 Z-0.125000
G01 X95.913038 Y24.334068 Z-0.125000
G01 X96.159630 Y25.454842 Z-0.125000
G01 X96.406221 Y26.575351 Z-0.125000
G01 X96.652813 Y27.696124 Z-0.125000
G01 X96.899404 Y28.816898 Z-0.125000
G01 X97.145995 Y29.937671 Z-0.125000
G01 X97.392587 Y31.058445 Z-0.125000
G01 X97.639178 Y32.178954 Z-0.125000
G01 X97.408726 Y33.224321 Z-0.125000
G01 X97.178539 Y34.269424 Z-0.125000
G01 X96.948087 Y35.314792 Z-0.125000
G01 X96.717635 Y36.360159 Z-0.125000
G01 X96.487448 Y37.405262 Z-0.125000
G01 X96.256996 Y38.450629 Z-0.125000
G01 X96.026545 Y39.495732 Z-0.125000
G01 X95.796093 Y40.541100 Z-0.125000
G01 X95.565906 Y41.586202 Z-0.125000
G01 X95.335454 Y42.631570 Z-0.125000
G01 X95.105002 Y43.676673 Z-0.125000
G01 X95.156066 Y44.727332 Z-0.125000
G01 X95.206866 Y45.778256 Z-0.125000
G01 X95.257931 Y46.828915 Z-0.125000
G01 X95.308731 Y47.879574 Z-0.125000
G01 X95.359531 Y48.930233 Z-0.125000
G01 X95.410595 Y49.980892 Z-0.125000
G01 X95.461395 Y51.031551 Z-0.125000
G01 X95.512460 Y52.082210 Z-0.125000
G01 X95.563260 Y53.132869 Z-0.125000
G01 X95.614324 Y54.183528 Z-0.125000
G01 X95.665124 Y55.234187 Z-0.125000
G01 X96.024692 Y56.349934 Z-0.125000
G01 X96.384261 Y57.465416 Z-0.125000
G01 X96.743564 Y58.581162 Z-0.125000
G01 X97.103133 Y59.696644 Z-0.125000
G01 X97.462701 Y60.812391 Z-0.125000
G01 X97.822269 Y61.927873 Z-0.125000
G01 X98.181838 Y63.043619 Z-0.125000
G01 X98.541141 Y64.159101 Z-0.125000
G01 X98.900710 Y65.274848 Z-0.125000
G01 X99.260278 Y66.390330 Z-0.125000
G01 X99.619846 Y67.506076 Z-0.125000
G01 X98.924258 Y68.225213 Z-0.125000
G01 X98.228669 Y68.944349 Z-0.125000
G01 X97.533080 Y69.663486 Z-0.125000
G01 X96.837491 Y70.382622 Z-0.125000
G01 X96.142167 Y71.101759 Z-0.125000
G01 X95.446579 Y71.820896 Z-0.125000
G01 X94.750990 Y72.540032 Z-0.125000
G01 X94.055401 Y73.259169 Z-0.125000
G01 X93.360077 Y73.978305 Z-0.125000
G01 X92.664488 Y74.697442 Z-0.125000
G01 X91.968900 Y75.416579 Z-0.125000
G01 X92.271053 Y76.447659 Z-0.125000
G01 X92.573207 Y77.479003 Z-0.125000
G01 X92.875361 Y78.510083 Z-0.125000
G01 X93.177515 Y79.541428 Z-0.125000
G01 X93.479404 Y80.572508 Z-0.125000
G01 X93.781558 Y81.603587 Z-0.125000
G01 X94.083712 Y82.634932 Z-0.125000
G01 X94.385865 Y83.666012 Z-0.125000
G01 X94.688019 Y84.697357 Z-0.125000
G01 X94.990173 Y85.728436 Z-0.125000
G01 X95.292062 Y86.759781 Z-0.125000
G01 X95.211629 Y87.880555 Z-0.125000
G01 X95.131196 Y89.001328 Z-0.125000
G01 X95.050498 Y90.122102 Z-0.125000
G01 X94.970065 Y91.242875 Z-0.125000
G01 X94.889631 Y92.363914 Z-0.125000
G01 X94.808934 Y93.484687 Z-0.125000
G01 X94.728500 Y94.605461 Z-0.125000
G01 X94.647803 Y95.726234 Z-0.125000
G01 X94.567369 Y96.847008 Z-0.125000
G01 X94.486936 Y97.968046 Z-0.125000
G01 X94.406238 Y99.088820 Z-0.125000
G01 X94.524771 Y100.249810 Z-0.125000
G01 X94.643040 Y101.410800 Z-0.125000
G01 X94.761309 Y102.571790 Z-0.125000
G01 X94.879842 Y103.732516 Z-0.125000
G01 X94.998110 Y104.893506 Z-0.125000
G01 X95.116379 Y106.054496 Z-0.125000
G01 X95.234912 Y107.215486 Z-0.125000
G01 X95.353181 Y108.376477 Z-0.125000
G01 X95.471449 Y109.537467 Z-0.125000
G01 X95.589718 Y110.698457 Z-0.125000
G01 X95.708251 Y111.859447 Z-0.125000
G00 Z10.000000

(End cutting path id: path202)


(Start cutting path id: path204)
(Change tool to Default tool)

G00 Z10.000000
G00 X96.692235 Y111.677150

G00 Z4.875000 (Fast pre-penetrate)
G01 Z-0.125000 F100.0(Penetrate)
G01 X96.580317 Y110.538914 Z-0.125000 F800.000000
G01 X96.468134 Y109.400677 Z-0.125000
G01 X96.356215 Y108.262441 Z-0.125000
G01 X96.244296 Y107.124205 Z-0.125000
G01 X96.132378 Y105.985969 Z-0.125000
G01 X96.020459 Y104.847733 Z-0.125000
G01 X95.908276 Y103.709497 Z-0.125000
G01 X95.796357 Y102.571261 Z-0.125000
G01 X95.684439 Y101.433025 Z-0.125000
G01 X95.572520 Y100.294789 Z-0.125000
G01 X95.460602 Y99.156553 Z-0.125000
G01 X95.508756 Y98.064090 Z-0.125000
G01 X95.556910 Y96.971362 Z-0.125000
G01 X95.605064 Y95.878634 Z-0.125000
G01 X95.653218 Y94.785906 Z-0.125000
G01 X95.701372 Y93.693179 Z-0.125000
G01 X95.749526 Y92.600715 Z-0.125000
G01 X95.797680 Y91.507988 Z-0.125000
G01 X95.846099 Y90.415260 Z-0.125000
G01 X95.894253 Y89.322532 Z-0.125000
G01 X95.942407 Y88.230069 Z-0.125000
G01 X95.990561 Y87.137341 Z-0.125000
G01 X95.709574 Y86.081655 Z-0.125000
G01 X95.428587 Y85.026233 Z-0.125000
G01 X95.147600 Y83.970812 Z-0.125000
G01 X94.866613 Y82.915390 Z-0.125000
G01 X94.585626 Y81.859704 Z-0.125000
G01 X94.304903 Y80.804282 Z-0.125000
G01 X94.023916 Y79.748861 Z-0.125000
G01 X93.742929 Y78.693174 Z-0.125000
G01 X93.461942 Y77.637753 Z-0.125000
G01 X93.180954 Y76.582331 Z-0.125000
G01 X92.899967 Y75.526645 Z-0.125000
G01 X93.565923 Y74.765969 Z-0.125000
G01 X94.231613 Y74.005028 Z-0.125000
G01 X94.897569 Y73.244352 Z-0.125000
G01 X95.563524 Y72.483411 Z-0.125000
G01 X96.229480 Y71.722471 Z-0.125000
G01 X96.895171 Y70.961795 Z-0.125000
G01 X97.561126 Y70.200854 Z-0.125000
G01 X98.227081 Y69.439913 Z-0.125000
G01 X98.893037 Y68.679237 Z-0.125000
G01 X99.558728 Y67.918296 Z-0.125000
G01 X100.224683 Y67.157620 Z-0.125000
G01 X99.948194 Y66.055897 Z-0.125000
G01 X99.671705 Y64.954173 Z-0.125000
G01 X99.394951 Y63.852449 Z-0.125000
G01 X99.118461 Y62.750990 Z-0.125000
G01 X98.841972 Y61.649267 Z-0.125000
G01 X98.565218 Y60.547808 Z-0.125000
G01 X98.288729 Y59.446084 Z-0.125000
G01 X98.012240 Y58.344361 Z-0.125000
G01 X97.735751 Y57.242902 Z-0.125000
G01 X97.458997 Y56.141178 Z-0.125000
G01 X97.182508 Y55.039454 Z-0.125000
G01 X97.047041 Y54.028483 Z-0.125000
G01 X96.911310 Y53.017511 Z-0.125000
G01 X96.775844 Y52.006275 Z-0.125000
G01 X96.640113 Y50.995303 Z-0.125000
G01 X96.504381 Y49.984331 Z-0.125000
G01 X96.368915 Y48.973095 Z-0.125000
G01 X96.233184 Y47.962124 Z-0.125000
G01 X96.097717 Y46.951152 Z-0.125000
G01 X95.961986 Y45.940180 Z-0.125000
G01 X95.826520 Y44.928944 Z-0.125000
G01 X95.690789 Y43.917972 Z-0.125000
G01 X95.953520 Y42.850115 Z-0.125000
G01 X96.216251 Y41.782258 Z-0.125000
G01 X96.478981 Y40.714402 Z-0.125000
G01 X96.741712 Y39.646545 Z-0.125000
G01 X97.004443 Y38.578688 Z-0.125000
G01 X97.267174 Y37.510831 Z-0.125000
G01 X97.529905 Y36.442974 Z-0.125000
G01 X97.792636 Y35.375117 Z-0.125000
G01 X98.055367 Y34.307260 Z-0.125000
G01 X98.318098 Y33.239403 Z-0.125000
G01 X98.580829 Y32.171546 Z-0.125000
G01 X98.320744 Y31.058710 Z-0.125000
G01 X98.060659 Y29.945873 Z-0.125000
G01 X97.800574 Y28.832773 Z-0.125000
G01 X97.540488 Y27.719937 Z-0.125000
G01 X97.280403 Y26.606836 Z-0.125000
G01 X97.020318 Y25.494000 Z-0.125000
G01 X96.760233 Y24.380899 Z-0.125000
G01 X96.499884 Y23.268063 Z-0.125000
G01 X96.239798 Y22.154962 Z-0.125000
G01 X95.979713 Y21.042126 Z-0.125000
G01 X95.719628 Y19.929026 Z-0.125000
G01 X95.990297 Y18.850850 Z-0.125000
G01 X96.260965 Y17.772674 Z-0.125000
G01 X96.531633 Y16.694498 Z-0.125000
G01 X96.802302 Y15.616323 Z-0.125000
G01 X97.072970 Y14.537882 Z-0.125000
G01 X97.343374 Y13.459707 Z-0.125000
G01 X97.614043 Y12.381531 Z-0.125000
G01 X97.884711 Y11.303355 Z-0.125000
G01 X98.155379 Y10.224915 Z-0.125000
G01 X98.426048 Y9.146739 Z-0.125000
G01 X98.696716 Y8.068563 Z-0.125000
G00 Z10.000000

(End cutting path id: path204)


(Start cutting path id: path206)
(Change tool to Default tool)

G00 Z10.000000
G00 X99.599738 Y8.189213

G00 Z4.875000 (Fast pre-penetrate)
G01 Z-0.125000 F100.0(Penetrate)
G01 X99.319015 Y9.263685 Z-0.125000 F800.000000
G01 X99.038293 Y10.337892 Z-0.125000
G01 X98.757835 Y11.412363 Z-0.125000
G01 X98.477112 Y12.486570 Z-0.125000
G01 X98.196654 Y13.561042 Z-0.125000
G01 X97.915932 Y14.635249 Z-0.125000
G01 X97.635209 Y15.709721 Z-0.125000
G01 X97.354751 Y16.783927 Z-0.125000
G01 X97.074029 Y17.858399 Z-0.125000
G01 X96.793306 Y18.932606 Z-0.125000
G01 X96.512848 Y20.007078 Z-0.125000
G01 X96.786427 Y21.112241 Z-0.125000
G01 X97.060006 Y22.217404 Z-0.125000
G01 X97.333585 Y23.322567 Z-0.125000
G01 X97.607163 Y24.427730 Z-0.125000
G01 X97.881007 Y25.533158 Z-0.125000
G01 X98.154586 Y26.638321 Z-0.125000
G01 X98.428164 Y27.743485 Z-0.125000
G01 X98.701743 Y28.848648 Z-0.125000
G01 X98.975322 Y29.953811 Z-0.125000
G01 X99.248901 Y31.058974 Z-0.125000
G01 X99.522480 Y32.164402 Z-0.125000
G01 X99.227470 Y33.254748 Z-0.125000
G01 X98.932460 Y34.345095 Z-0.125000
G01 X98.637450 Y35.435706 Z-0.125000
G01 X98.342175 Y36.526053 Z-0.125000
G01 X98.047165 Y37.616399 Z-0.125000
G01 X97.752155 Y38.707010 Z-0.125000
G01 X97.456880 Y39.797357 Z-0.125000
G01 X97.161870 Y40.887703 Z-0.125000
G01 X96.866860 Y41.978314 Z-0.125000
G01 X96.571850 Y43.068661 Z-0.125000
G01 X96.276575 Y44.159272 Z-0.125000
G01 X96.496973 Y45.130556 Z-0.125000
G01 X96.717371 Y46.102105 Z-0.125000
G01 X96.937504 Y47.073389 Z-0.125000
G01 X97.157901 Y48.044938 Z-0.125000
G01 X97.378035 Y49.016222 Z-0.125000
G01 X97.598432 Y49.987771 Z-0.125000
G01 X97.818830 Y50.959055 Z-0.125000
G01 X98.038963 Y51.930604 Z-0.125000
G01 X98.259360 Y52.901888 Z-0.125000
G01 X98.479758 Y53.873437 Z-0.125000
G01 X98.699891 Y54.844721 Z-0.125000
G01 X98.893566 Y55.932422 Z-0.125000
G01 X99.087241 Y57.020123 Z-0.125000
G01 X99.280651 Y58.107823 Z-0.125000
G01 X99.474326 Y59.195259 Z-0.125000
G01 X99.668000 Y60.282960 Z-0.125000
G01 X99.861675 Y61.370661 Z-0.125000
G01 X100.055085 Y62.458362 Z-0.125000
G01 X100.248760 Y63.546062 Z-0.125000
G01 X100.442435 Y64.633763 Z-0.125000
G01 X100.636110 Y65.721199 Z-0.125000
G01 X100.829520 Y66.808900 Z-0.125000
G01 X100.193462 Y67.611645 Z-0.125000
G01 X99.557140 Y68.414125 Z-0.125000
G01 X98.920818 Y69.216605 Z-0.125000
G01 X98.284760 Y70.019085 Z-0.125000
G01 X97.648438 Y70.821830 Z-0.125000
G01 X97.012116 Y71.624310 Z-0.125000
G01 X96.376059 Y72.426791 Z-0.125000
G01 X95.739737 Y73.229271 Z-0.125000
G01 X95.103414 Y74.032016 Z-0.125000
G01 X94.467357 Y74.834496 Z-0.125000
G01 X93.831035 Y75.636976 Z-0.125000
G01 X94.090855 Y76.716739 Z-0.125000
G01 X94.350676 Y77.796767 Z-0.125000
G01 X94.610496 Y78.876531 Z-0.125000
G01 X94.870317 Y79.956294 Z-0.125000
G01 X95.130137 Y81.036057 Z-0.125000
G01 X95.389958 Y82.115820 Z-0.125000
G01 X95.649778 Y83.195583 Z-0.125000
G01 X95.909599 Y84.275347 Z-0.125000
G01 X96.169419 Y85.355374 Z-0.125000
G01 X96.429240 Y86.435138 Z-0.125000
G01 X96.689060 Y87.514901 Z-0.125000
G01 X96.673185 Y88.579318 Z-0.125000
G01 X96.657310 Y89.644000 Z-0.125000
G01 X96.641435 Y90.708418 Z-0.125000
G01 X96.625560 Y91.772835 Z-0.125000
G01 X96.609685 Y92.837517 Z-0.125000
G01 X96.593810 Y93.901934 Z-0.125000
G01 X96.577936 Y94.966616 Z-0.125000
G01 X96.562061 Y96.031034 Z-0.125000
G01 X96.546186 Y97.095451 Z-0.125000
G01 X96.530575 Y98.160133 Z-0.125000
G01 X96.514700 Y99.224551 Z-0.125000
G01 X96.620269 Y100.340033 Z-0.125000
G01 X96.725837 Y101.455515 Z-0.125000
G01 X96.831406 Y102.570996 Z-0.125000
G01 X96.936975 Y103.686478 Z-0.125000
G01 X97.042543 Y104.801960 Z-0.125000
G01 X97.148112 Y105.917442 Z-0.125000
G01 X97.253945 Y107.032924 Z-0.125000
G01 X97.359514 Y108.148406 Z-0.125000
G01 X97.465082 Y109.263888 Z-0.125000
G01 X97.570651 Y110.379370 Z-0.125000
G01 X97.676220 Y111.494587 Z-0.125000
G00 Z10.000000

(End cutting path id: path206)


(Start cutting path id: path208)
(Change tool to Default tool)

G00 Z10.000000
G00 X98.660204 Y111.312290

G00 Z4.875000 (Fast pre-penetrate)
G01 Z-0.125000 F100.0(Penetrate)
G01 X98.560985 Y110.219562 Z-0.125000 F800.000000
G01 X98.461766 Y109.126834 Z-0.125000
G01 X98.362548 Y108.034106 Z-0.125000
G01 X98.263329 Y106.941643 Z-0.125000
G01 X98.164111 Y105.848915 Z-0.125000
G01 X98.064892 Y104.756187 Z-0.125000
G01 X97.965673 Y103.663460 Z-0.125000
G01 X97.866455 Y102.570732 Z-0.125000
G01 X97.767236 Y101.478004 Z-0.125000
G01 X97.668017 Y100.385276 Z-0.125000
G01 X97.568799 Y99.292549 Z-0.125000
G01 X97.552130 Y98.256177 Z-0.125000
G01 X97.535726 Y97.219805 Z-0.125000
G01 X97.519322 Y96.183434 Z-0.125000
G01 X97.502918 Y95.147062 Z-0.125000
G01 X97.486249 Y94.110690 Z-0.125000
G01 X97.469845 Y93.074319 Z-0.125000
G01 X97.453441 Y92.037947 Z-0.125000
G01 X97.436772 Y91.001576 Z-0.125000
G01 X97.420368 Y89.965204 Z-0.125000
G01 X97.403964 Y88.928832 Z-0.125000
G01 X97.387295 Y87.892461 Z-0.125000
G01 X97.148641 Y86.788356 Z-0.125000
G01 X96.909987 Y85.684251 Z-0.125000
G01 X96.671333 Y84.580146 Z-0.125000
G01 X96.432679 Y83.476041 Z-0.125000
G01 X96.194026 Y82.371937 Z-0.125000
G01 X95.955372 Y81.267832 Z-0.125000
G01 X95.716718 Y80.163727 Z-0.125000
G01 X95.478064 Y79.059622 Z-0.125000
G01 X95.239410 Y77.955517 Z-0.125000
G01 X95.000756 Y76.851412 Z-0.125000
G01 X94.762102 Y75.747307 Z-0.125000
G01 X95.368527 Y74.903023 Z-0.125000
G01 X95.975215 Y74.058739 Z-0.125000
G01 X96.581904 Y73.214454 Z-0.125000
G01 X97.188328 Y72.370170 Z-0.125000
G01 X97.795017 Y71.525886 Z-0.125000
G01 X98.401706 Y70.681866 Z-0.125000
G01 X99.008130 Y69.837581 Z-0.125000
G01 X99.614819 Y68.993297 Z-0.125000
G01 X100.221508 Y68.149013 Z-0.125000
G01 X100.827932 Y67.304728 Z-0.125000
G01 X101.434621 Y66.460444 Z-0.125000
G01 X101.324025 Y65.386766 Z-0.125000
G01 X101.213165 Y64.313088 Z-0.125000
G01 X101.102569 Y63.239411 Z-0.125000
G01 X100.991974 Y62.165733 Z-0.125000
G01 X100.881378 Y61.092055 Z-0.125000
G01 X100.770518 Y60.018377 Z-0.125000
G01 X100.659922 Y58.944699 Z-0.125000
G01 X100.549326 Y57.871022 Z-0.125000
G01 X100.438731 Y56.797344 Z-0.125000
G01 X100.327870 Y55.723666 Z-0.125000
G01 X100.217275 Y54.649988 Z-0.125000
G01 X99.912210 Y53.718127 Z-0.125000
G01 X99.607411 Y52.786530 Z-0.125000
G01 X99.302347 Y51.854669 Z-0.125000
G01 X98.997282 Y50.922807 Z-0.125000
G01 X98.692483 Y49.990946 Z-0.125000
G01 X98.387419 Y49.059349 Z-0.125000
G01 X98.082354 Y48.127488 Z-0.125000
G01 X97.777555 Y47.195627 Z-0.125000
G01 X97.472491 Y46.264030 Z-0.125000
G01 X97.167426 Y45.332169 Z-0.125000
G01 X96.862362 Y44.400307 Z-0.125000
G01 X97.189916 Y43.287207 Z-0.125000
G01 X97.517470 Y42.174370 Z-0.125000
G01 X97.844759 Y41.061270 Z-0.125000
G01 X98.172313 Y39.948169 Z-0.125000
G01 X98.499602 Y38.835068 Z-0.125000
G01 X98.827156 Y37.722232 Z-0.125000
G01 X99.154445 Y36.609132 Z-0.125000
G01 X99.481999 Y35.496031 Z-0.125000
G01 X99.809288 Y34.382930 Z-0.125000
G01 X100.136841 Y33.269830 Z-0.125000
G01 X100.464395 Y32.156994 Z-0.125000
G01 X100.177058 Y31.059503 Z-0.125000
G01 X99.889986 Y29.962013 Z-0.125000
G01 X99.602913 Y28.864523 Z-0.125000
G01 X99.315840 Y27.767032 Z-0.125000
G01 X99.028768 Y26.669542 Z-0.125000
G01 X98.741431 Y25.572316 Z-0.125000
G01 X98.454358 Y24.474826 Z-0.125000
G01 X98.167286 Y23.377336 Z-0.125000
G01 X97.880213 Y22.279846 Z-0.125000
G01 X97.593140 Y21.182355 Z-0.125000
G01 X97.306068 Y20.084865 Z-0.125000
G01 X97.596580 Y19.014627 Z-0.125000
G01 X97.887092 Y17.944124 Z-0.125000
G01 X98.177869 Y16.873621 Z-0.125000
G01 X98.468381 Y15.803118 Z-0.125000
G01 X98.758893 Y14.732880 Z-0.125000
G01 X99.049670 Y13.662377 Z-0.125000
G01 X99.340182 Y12.591874 Z-0.125000
G01 X99.630694 Y11.521372 Z-0.125000
G01 X99.921471 Y10.450869 Z-0.125000
G01 X100.211983 Y9.380631 Z-0.125000
G01 X100.502495 Y8.310128 Z-0.125000
G00 Z10.000000

(End cutting path id: path208)


(Start cutting path id: path210)
(Change tool to Default tool)

G00 Z10.000000
G00 X101.405517 Y8.430778

G00 Z4.875000 (Fast pre-penetrate)
G01 Z-0.125000 F100.0(Penetrate)
G01 X101.104951 Y9.497312 Z-0.125000 F800.000000
G01 X100.804384 Y10.563846 Z-0.125000
G01 X100.503818 Y11.630380 Z-0.125000
G01 X100.203252 Y12.696914 Z-0.125000
G01 X99.902685 Y13.763713 Z-0.125000
G01 X99.602119 Y14.830247 Z-0.125000
G01 X99.301553 Y15.896781 Z-0.125000
G01 X99.000722 Y16.963315 Z-0.125000
G01 X98.700156 Y18.029849 Z-0.125000
G01 X98.399589 Y19.096383 Z-0.125000
G01 X98.099023 Y20.162917 Z-0.125000
G01 X98.399589 Y21.252470 Z-0.125000
G01 X98.700420 Y22.342287 Z-0.125000
G01 X99.000987 Y23.431840 Z-0.125000
G01 X99.301553 Y24.521657 Z-0.125000
G01 X99.602119 Y25.611210 Z-0.125000
G01 X99.902950 Y26.701027 Z-0.125000
G01 X100.203516 Y27.790845 Z-0.125000
G01 X100.504083 Y28.880398 Z-0.125000
G01 X100.804649 Y29.970215 Z-0.125000
G01 X101.105215 Y31.059768 Z-0.125000
G01 X101.406046 Y32.149585 Z-0.125000
G01 X101.046213 Y33.285175 Z-0.125000
G01 X100.686380 Y34.420766 Z-0.125000
G01 X100.326547 Y35.556356 Z-0.125000
G01 X99.966715 Y36.691946 Z-0.125000
G01 X99.607146 Y37.827801 Z-0.125000
G01 X99.247313 Y38.963391 Z-0.125000
G01 X98.887481 Y40.098981 Z-0.125000
G01 X98.527648 Y41.234572 Z-0.125000
G01 X98.167815 Y42.370162 Z-0.125000
G01 X97.807982 Y43.506017 Z-0.125000
G01 X97.448149 Y44.641607 Z-0.125000
G01 X97.837880 Y45.533781 Z-0.125000
G01 X98.227611 Y46.425955 Z-0.125000
G01 X98.617341 Y47.318129 Z-0.125000
G01 X99.007072 Y48.210038 Z-0.125000
G01 X99.396538 Y49.102212 Z-0.125000
G01 X99.786269 Y49.994386 Z-0.125000
G01 X100.176000 Y50.886560 Z-0.125000
G01 X100.565730 Y51.778733 Z-0.125000
G01 X100.955461 Y52.670907 Z-0.125000
G01 X101.344927 Y53.563081 Z-0.125000
G01 X101.734658 Y54.455255 Z-0.125000
G01 X101.762439 Y55.514910 Z-0.125000
G01 X101.790221 Y56.574565 Z-0.125000
G01 X101.817737 Y57.634220 Z-0.125000
G01 X101.845518 Y58.693875 Z-0.125000
G01 X101.873300 Y59.753794 Z-0.125000
G01 X101.901081 Y60.813449 Z-0.125000
G01 X101.928598 Y61.873104 Z-0.125000
G01 X101.956379 Y62.932759 Z-0.125000
G01 X101.984160 Y63.992414 Z-0.125000
G01 X102.011941 Y65.052333 Z-0.125000
G01 X102.039458 Y66.111988 Z-0.125000
G01 X101.462667 Y66.997812 Z-0.125000
G01 X100.885611 Y67.883901 Z-0.125000
G01 X100.308820 Y68.769724 Z-0.125000
G01 X99.731765 Y69.655813 Z-0.125000
G01 X99.154709 Y70.541637 Z-0.125000
G01 X98.577918 Y71.427725 Z-0.125000
G01 X98.000863 Y72.313549 Z-0.125000
G01 X97.423807 Y73.199638 Z-0.125000
G01 X96.847016 Y74.085726 Z-0.125000
G01 X96.269961 Y74.971550 Z-0.125000
G01 X95.693170 Y75.857638 Z-0.125000
G01 X95.910657 Y76.985820 Z-0.125000
G01 X96.128144 Y78.114267 Z-0.125000
G01 X96.345632 Y79.242713 Z-0.125000
G01 X96.563119 Y80.371160 Z-0.125000
G01 X96.780606 Y81.499606 Z-0.125000
G01 X96.998093 Y82.628053 Z-0.125000
G01 X97.215581 Y83.756499 Z-0.125000
G01 X97.433332 Y84.884681 Z-0.125000
G01 X97.650820 Y86.013128 Z-0.125000
G01 X97.868307 Y87.141574 Z-0.125000
G01 X98.085794 Y88.270021 Z-0.125000
G01 X98.134477 Y89.278347 Z-0.125000
G01 X98.183425 Y90.286408 Z-0.125000
G01 X98.232373 Y91.294734 Z-0.125000
G01 X98.281056 Y92.302795 Z-0.125000
G01 X98.330004 Y93.311121 Z-0.125000
G01 X98.378687 Y94.319446 Z-0.125000
G01 X98.427635 Y95.327508 Z-0.125000
G01 X98.476319 Y96.335834 Z-0.125000
G01 X98.525266 Y97.343895 Z-0.125000
G01 X98.573950 Y98.352221 Z-0.125000
G01 X98.622898 Y99.360546 Z-0.125000
G01 X98.715766 Y100.430520 Z-0.125000
G01 X98.808635 Y101.500494 Z-0.125000
G01 X98.901503 Y102.570467 Z-0.125000
G01 X98.994372 Y103.640176 Z-0.125000
G01 X99.087241 Y104.710150 Z-0.125000
G01 X99.180109 Y105.780124 Z-0.125000
G01 X99.272713 Y106.850097 Z-0.125000
G01 X99.365582 Y107.920071 Z-0.125000
G01 X99.458451 Y108.990045 Z-0.125000
G01 X99.551319 Y110.060018 Z-0.125000
G01 X99.644188 Y111.129992 Z-0.125000
G00 Z10.000000

(End cutting path id: path210)


(Start cutting path id: path212)
(Change tool to Default tool)

G00 Z10.000000
G00 X100.628172 Y110.947694

G00 Z4.875000 (Fast pre-penetrate)
G01 Z-0.125000 F100.0(Penetrate)
G01 X100.541653 Y109.900475 Z-0.125000 F800.000000
G01 X100.455399 Y108.853255 Z-0.125000
G01 X100.368881 Y107.806036 Z-0.125000
G01 X100.282362 Y106.758816 Z-0.125000
G01 X100.195843 Y105.711597 Z-0.125000
G01 X100.109325 Y104.664377 Z-0.125000
G01 X100.022806 Y103.617158 Z-0.125000
G01 X99.936552 Y102.569938 Z-0.125000
G01 X99.850033 Y101.522719 Z-0.125000
G01 X99.763515 Y100.475499 Z-0.125000
G01 X99.676996 Y99.428280 Z-0.125000
G01 X99.595769 Y98.448264 Z-0.125000
G01 X99.514807 Y97.468249 Z-0.125000
G01 X99.433580 Y96.488233 Z-0.125000
G01 X99.352353 Y95.508218 Z-0.125000
G01 X99.271126 Y94.527938 Z-0.125000
G01 X99.189899 Y93.547922 Z-0.125000
G01 X99.108936 Y92.567907 Z-0.125000
G01 X99.027710 Y91.587892 Z-0.125000
G01 X98.946483 Y90.607876 Z-0.125000
G01 X98.865256 Y89.627596 Z-0.125000
G01 X98.784293 Y88.647581 Z-0.125000
G01 X98.587708 Y87.494793 Z-0.125000
G01 X98.391387 Y86.342269 Z-0.125000
G01 X98.195067 Y85.189481 Z-0.125000
G01 X97.998746 Y84.036693 Z-0.125000
G01 X97.802426 Y82.884169 Z-0.125000
G01 X97.605840 Y81.731381 Z-0.125000
G01 X97.409520 Y80.578593 Z-0.125000
G01 X97.213199 Y79.425805 Z-0.125000
G01 X97.016879 Y78.273281 Z-0.125000
G01 X96.820558 Y77.120493 Z-0.125000
G01 X96.623973 Y75.967705 Z-0.125000
G01 X97.171395 Y75.040077 Z-0.125000
G01 X97.718817 Y74.112449 Z-0.125000
G01 X98.265975 Y73.184821 Z-0.125000
G01 X98.813397 Y72.257193 Z-0.125000
G01 X99.360555 Y71.329300 Z-0.125000
G01 X99.907977 Y70.401672 Z-0.125000
G01 X100.455135 Y69.474044 Z-0.125000
G01 X101.002557 Y68.546416 Z-0.125000
G01 X101.549979 Y67.618788 Z-0.125000
G01 X102.097137 Y66.691160 Z-0.125000
G01 X102.644559 Y65.763268 Z-0.125000
G01 X102.699857 Y64.717636 Z-0.125000
G01 X102.754890 Y63.672004 Z-0.125000
G01 X102.810188 Y62.626107 Z-0.125000
G01 X102.865486 Y61.580475 Z-0.125000
G01 X102.920784 Y60.534843 Z-0.125000
G01 X102.975817 Y59.488947 Z-0.125000
G01 X103.031115 Y58.443315 Z-0.125000
G01 X103.086413 Y57.397683 Z-0.125000
G01 X103.141711 Y56.351786 Z-0.125000
G01 X103.196744 Y55.306154 Z-0.125000
G01 X103.252042 Y54.260522 Z-0.125000
G01 X102.777644 Y53.408036 Z-0.125000
G01 X102.303247 Y52.555285 Z-0.125000
G01 X101.829114 Y51.702798 Z-0.125000
G01 X101.354717 Y50.850312 Z-0.125000
G01 X100.880320 Y49.997825 Z-0.125000
G01 X100.405922 Y49.145339 Z-0.125000
G01 X99.931525 Y48.292852 Z-0.125000
G01 X99.457128 Y47.440366 Z-0.125000
G01 X98.982730 Y46.587880 Z-0.125000
G01 X98.508333 Y45.735393 Z-0.125000
G01 X98.034200 Y44.882642 Z-0.125000
G01 X98.426312 Y43.724562 Z-0.125000
G01 X98.818424 Y42.566218 Z-0.125000
G01 X99.210536 Y41.408138 Z-0.125000
G01 X99.602648 Y40.249794 Z-0.125000
G01 X99.994760 Y39.091449 Z-0.125000
G01 X100.386872 Y37.933370 Z-0.125000
G01 X100.778984 Y36.775025 Z-0.125000
G01 X101.171361 Y35.616945 Z-0.125000
G01 X101.563473 Y34.458601 Z-0.125000
G01 X101.955585 Y33.300257 Z-0.125000
G01 X102.347697 Y32.142177 Z-0.125000
G01 X102.033637 Y31.060297 Z-0.125000
G01 X101.719312 Y29.978153 Z-0.125000
G01 X101.405252 Y28.896273 Z-0.125000
G01 X101.091192 Y27.814393 Z-0.125000
G01 X100.776868 Y26.732513 Z-0.125000
G01 X100.462808 Y25.650368 Z-0.125000
G01 X100.148748 Y24.568489 Z-0.125000
G01 X99.834688 Y23.486609 Z-0.125000
G01 X99.520363 Y22.404729 Z-0.125000
G01 X99.206303 Y21.322849 Z-0.125000
G01 X98.892243 Y20.240704 Z-0.125000
G01 X99.202863 Y19.178139 Z-0.125000
G01 X99.513219 Y18.115574 Z-0.125000
G01 X99.823840 Y17.052744 Z-0.125000
G01 X100.134460 Y15.990178 Z-0.125000
G01 X100.445081 Y14.927613 Z-0.125000
G01 X100.755701 Y13.864783 Z-0.125000
G01 X101.066322 Y12.802218 Z-0.125000
G01 X101.376942 Y11.739653 Z-0.125000
G01 X101.687298 Y10.676823 Z-0.125000
G01 X101.997918 Y9.614257 Z-0.125000
G01 X102.308539 Y8.551692 Z-0.125000
G00 Z10.000000

(End cutting path id: path212)


(Start cutting path id: path214)
(Change tool to Default tool)

G00 Z10.000000
G00 X103.211560 Y8.672342

G00 Z4.875000 (Fast pre-penetrate)
G01 Z-0.125000 F100.0(Penetrate)
G01 X102.890886 Y9.731203 Z-0.125000 F800.000000
G01 X102.570476 Y10.789800 Z-0.125000
G01 X102.249801 Y11.848661 Z-0.125000
G01 X101.929391 Y12.907257 Z-0.125000
G01 X101.608717 Y13.966119 Z-0.125000
G01 X101.288042 Y15.024980 Z-0.125000
G01 X100.967632 Y16.083576 Z-0.125000
G01 X100.646957 Y17.142437 Z-0.125000
G01 X100.326547 Y18.201299 Z-0.125000
G01 X100.005873 Y19.259895 Z-0.125000
G01 X99.685198 Y20.318756 Z-0.125000
G01 X100.013017 Y21.392963 Z-0.125000
G01 X100.340570 Y22.467170 Z-0.125000
G01 X100.668124 Y23.541377 Z-0.125000
G01 X100.995942 Y24.615320 Z-0.125000
G01 X101.323496 Y25.689527 Z-0.125000
G01 X101.651050 Y26.763734 Z-0.125000
G01 X101.978868 Y27.837941 Z-0.125000
G01 X102.306422 Y28.912148 Z-0.125000
G01 X102.633976 Y29.986355 Z-0.125000
G01 X102.961794 Y31.060562 Z-0.125000
G01 X103.289348 Y32.134769 Z-0.125000
G01 X102.864957 Y33.315602 Z-0.125000
G01 X102.440301 Y34.496436 Z-0.125000
G01 X102.015910 Y35.677270 Z-0.125000
G01 X101.591254 Y36.858104 Z-0.125000
G01 X101.166863 Y38.038938 Z-0.125000
G01 X100.742472 Y39.219772 Z-0.125000
G01 X100.317816 Y40.400606 Z-0.125000
G01 X99.893425 Y41.581440 Z-0.125000
G01 X99.468769 Y42.762274 Z-0.125000
G01 X99.044378 Y43.943108 Z-0.125000
G01 X98.619987 Y45.123942 Z-0.125000
G01 X99.179051 Y45.936741 Z-0.125000
G01 X99.738115 Y46.749804 Z-0.125000
G01 X100.297179 Y47.562603 Z-0.125000
G01 X100.856243 Y48.375402 Z-0.125000
G01 X101.415042 Y49.188466 Z-0.125000
G01 X101.974106 Y50.001265 Z-0.125000
G01 X102.533170 Y50.814064 Z-0.125000
G01 X103.092234 Y51.627127 Z-0.125000
G01 X103.651297 Y52.439926 Z-0.125000
G01 X104.210361 Y53.252725 Z-0.125000
G01 X104.769425 Y54.065789 Z-0.125000
G01 X104.631313 Y55.097398 Z-0.125000
G01 X104.493201 Y56.129272 Z-0.125000
G01 X104.354824 Y57.160881 Z-0.125000
G01 X104.216711 Y58.192754 Z-0.125000
G01 X104.078599 Y59.224364 Z-0.125000
G01 X103.940487 Y60.256237 Z-0.125000
G01 X103.802110 Y61.287846 Z-0.125000
G01 X103.663997 Y62.319720 Z-0.125000
G01 X103.525885 Y63.351329 Z-0.125000
G01 X103.387508 Y64.383203 Z-0.125000
G01 X103.249396 Y65.414812 Z-0.125000
G01 X102.731872 Y66.384244 Z-0.125000
G01 X102.214083 Y67.353676 Z-0.125000
G01 X101.696558 Y68.323108 Z-0.125000
G01 X101.178769 Y69.292276 Z-0.125000
G01 X100.661245 Y70.261708 Z-0.125000
G01 X100.143456 Y71.231140 Z-0.125000
G01 X99.625932 Y72.200572 Z-0.125000
G01 X99.108143 Y73.170004 Z-0.125000
G01 X98.590354 Y74.139172 Z-0.125000
G01 X98.072829 Y75.108604 Z-0.125000
G01 X97.555041 Y76.078036 Z-0.125000
G01 X97.730459 Y77.255166 Z-0.125000
G01 X97.905613 Y78.432031 Z-0.125000
G01 X98.080767 Y79.609161 Z-0.125000
G01 X98.255921 Y80.786026 Z-0.125000
G01 X98.431339 Y81.963156 Z-0.125000
G01 X98.606493 Y83.140021 Z-0.125000
G01 X98.781647 Y84.317151 Z-0.125000
G01 X98.956801 Y85.494281 Z-0.125000
G01 X99.132220 Y86.671146 Z-0.125000
G01 X99.307374 Y87.848275 Z-0.125000
G01 X99.482528 Y89.025141 Z-0.125000
G01 X99.596034 Y89.977110 Z-0.125000
G01 X99.709540 Y90.929080 Z-0.125000
G01 X99.823046 Y91.881050 Z-0.125000
G01 X99.936552 Y92.833019 Z-0.125000
G01 X100.050058 Y93.784724 Z-0.125000
G01 X100.163564 Y94.736694 Z-0.125000
G01 X100.277070 Y95.688663 Z-0.125000
G01 X100.390577 Y96.640633 Z-0.125000
G01 X100.504083 Y97.592603 Z-0.125000
G01 X100.617589 Y98.544308 Z-0.125000
G01 X100.731095 Y99.496277 Z-0.125000
G01 X100.811264 Y100.520743 Z-0.125000
G01 X100.891432 Y101.545208 Z-0.125000
G01 X100.971336 Y102.569674 Z-0.125000
G01 X101.051505 Y103.594139 Z-0.125000
G01 X101.131674 Y104.618604 Z-0.125000
G01 X101.211842 Y105.643070 Z-0.125000
G01 X101.291746 Y106.667535 Z-0.125000
G01 X101.371915 Y107.692000 Z-0.125000
G01 X101.452084 Y108.716466 Z-0.125000
G01 X101.532252 Y109.740931 Z-0.125000
G01 X101.612156 Y110.765397 Z-0.125000
G00 Z10.000000

(End cutting path id: path214)


(Start cutting path id: path216)
(Change tool to Default tool)

G00 Z10.000000
G00 X102.596405 Y110.582834

G00 Z4.875000 (Fast pre-penetrate)
G01 Z-0.125000 F100.0(Penetrate)
G01 X102.522586 Y109.581123 Z-0.125000 F800.000000
G01 X102.448768 Y108.579412 Z-0.125000
G01 X102.375214 Y107.577965 Z-0.125000
G01 X102.301395 Y106.576254 Z-0.125000
G01 X102.227576 Y105.574543 Z-0.125000
G01 X102.154022 Y104.572831 Z-0.125000
G01 X102.080204 Y103.571120 Z-0.125000
G01 X102.006385 Y102.569409 Z-0.125000
G01 X101.932831 Y101.567698 Z-0.125000
G01 X101.859012 Y100.565987 Z-0.125000
G01 X101.785194 Y99.564275 Z-0.125000
G01 X101.639408 Y98.640351 Z-0.125000
G01 X101.493623 Y97.716692 Z-0.125000
G01 X101.347838 Y96.793033 Z-0.125000
G01 X101.201788 Y95.869109 Z-0.125000
G01 X101.056003 Y94.945450 Z-0.125000
G01 X100.910218 Y94.021526 Z-0.125000
G01 X100.764432 Y93.097867 Z-0.125000
G01 X100.618383 Y92.174208 Z-0.125000
G01 X100.472597 Y91.250284 Z-0.125000
G01 X100.326812 Y90.326624 Z-0.125000
G01 X100.181027 Y89.402701 Z-0.125000
G01 X100.026775 Y88.201494 Z-0.125000
G01 X99.872788 Y87.000022 Z-0.125000
G01 X99.718800 Y85.798816 Z-0.125000
G01 X99.564548 Y84.597609 Z-0.125000
G01 X99.410561 Y83.396137 Z-0.125000
G01 X99.256574 Y82.194930 Z-0.125000
G01 X99.102587 Y80.993459 Z-0.125000
G01 X98.948335 Y79.792252 Z-0.125000
G01 X98.794347 Y78.591045 Z-0.125000
G01 X98.640360 Y77.389574 Z-0.125000
G01 X98.486108 Y76.188367 Z-0.125000
G01 X98.974264 Y75.177131 Z-0.125000
G01 X99.462155 Y74.166159 Z-0.125000
G01 X99.950310 Y73.154923 Z-0.125000
G01 X100.438201 Y72.143951 Z-0.125000
G01 X100.926357 Y71.132980 Z-0.125000
G01 X101.414248 Y70.121744 Z-0.125000
G01 X101.902404 Y69.110772 Z-0.125000
G01 X102.390295 Y68.099536 Z-0.125000
G01 X102.878450 Y67.088564 Z-0.125000
G01 X103.366342 Y66.077328 Z-0.125000
G01 X103.854497 Y65.066356 Z-0.125000
G01 X104.075424 Y64.048505 Z-0.125000
G01 X104.296615 Y63.030919 Z-0.125000
G01 X104.517807 Y62.013068 Z-0.125000
G01 X104.738998 Y60.995218 Z-0.125000
G01 X104.960190 Y59.977631 Z-0.125000
G01 X105.181116 Y58.959781 Z-0.125000
G01 X105.402308 Y57.941930 Z-0.125000
G01 X105.623499 Y56.924079 Z-0.125000
G01 X105.844691 Y55.906493 Z-0.125000
G01 X106.065617 Y54.888642 Z-0.125000
G01 X106.286809 Y53.870791 Z-0.125000
G01 X105.643078 Y53.097680 Z-0.125000
G01 X104.999348 Y52.324304 Z-0.125000
G01 X104.355617 Y51.551192 Z-0.125000
G01 X103.711887 Y50.777816 Z-0.125000
G01 X103.068157 Y50.004704 Z-0.125000
G01 X102.424426 Y49.231328 Z-0.125000
G01 X101.780696 Y48.458217 Z-0.125000
G01 X101.136965 Y47.684841 Z-0.125000
G01 X100.493235 Y46.911729 Z-0.125000
G01 X99.849504 Y46.138353 Z-0.125000
G01 X99.205774 Y45.365241 Z-0.125000
G01 X99.662444 Y44.161653 Z-0.125000
G01 X100.119379 Y42.958330 Z-0.125000
G01 X100.576314 Y41.754742 Z-0.125000
G01 X101.032984 Y40.551418 Z-0.125000
G01 X101.489919 Y39.347830 Z-0.125000
G01 X101.946854 Y38.144507 Z-0.125000
G01 X102.403524 Y36.941183 Z-0.125000
G01 X102.860459 Y35.737595 Z-0.125000
G01 X103.317394 Y34.534272 Z-0.125000
G01 X103.774329 Y33.330684 Z-0.125000
G01 X104.230999 Y32.127360 Z-0.125000
G01 X103.889951 Y31.060826 Z-0.125000
G01 X103.548639 Y29.994557 Z-0.125000
G01 X103.207592 Y28.928023 Z-0.125000
G01 X102.866544 Y27.861753 Z-0.125000
G01 X102.525232 Y26.795219 Z-0.125000
G01 X102.184185 Y25.728685 Z-0.125000
G01 X101.843137 Y24.662415 Z-0.125000
G01 X101.501825 Y23.595881 Z-0.125000
G01 X101.160778 Y22.529347 Z-0.125000
G01 X100.819466 Y21.463078 Z-0.125000
G01 X100.478418 Y20.396544 Z-0.125000
G01 X100.808882 Y19.341651 Z-0.125000
G01 X101.139611 Y18.287024 Z-0.125000
G01 X101.470075 Y17.232131 Z-0.125000
G01 X101.800539 Y16.177239 Z-0.125000
G01 X102.131268 Y15.122346 Z-0.125000
G01 X102.461732 Y14.067454 Z-0.125000
G01 X102.792196 Y13.012561 Z-0.125000
G01 X103.122925 Y11.957669 Z-0.125000
G01 X103.453389 Y10.902777 Z-0.125000
G01 X103.783854 Y9.847884 Z-0.125000
G01 X104.114582 Y8.792992 Z-0.125000
G00 Z10.000000

(End cutting path id: path216)


(Start cutting path id: path218)
(Change tool to Default tool)

G00 Z10.000000
G00 X105.017604 Y8.913906

G00 Z4.875000 (Fast pre-penetrate)
G01 Z-0.125000 F100.0(Penetrate)
G01 X104.676821 Y9.964830 Z-0.125000 F800.000000
G01 X104.336303 Y11.015754 Z-0.125000
G01 X103.995785 Y12.066677 Z-0.125000
G01 X103.655266 Y13.117865 Z-0.125000
G01 X103.314748 Y14.168789 Z-0.125000
G01 X102.974230 Y15.219713 Z-0.125000
G01 X102.633711 Y16.270636 Z-0.125000
G01 X102.293193 Y17.321560 Z-0.125000
G01 X101.952675 Y18.372484 Z-0.125000
G01 X101.612156 Y19.423672 Z-0.125000
G01 X101.271638 Y20.474596 Z-0.125000
G01 X101.626179 Y21.533192 Z-0.125000
G01 X101.980985 Y22.591789 Z-0.125000
G01 X102.335526 Y23.650650 Z-0.125000
G01 X102.690067 Y24.709247 Z-0.125000
G01 X103.044873 Y25.767843 Z-0.125000
G01 X103.399414 Y26.826704 Z-0.125000
G01 X103.754220 Y27.885301 Z-0.125000
G01 X104.108761 Y28.943898 Z-0.125000
G01 X104.463567 Y30.002494 Z-0.125000
G01 X104.818108 Y31.061355 Z-0.125000
G01 X105.172650 Y32.119952 Z-0.125000
G01 X104.683436 Y33.346030 Z-0.125000
G01 X104.194222 Y34.572107 Z-0.125000
G01 X103.705008 Y35.797920 Z-0.125000
G01 X103.216058 Y37.023998 Z-0.125000
G01 X102.726844 Y38.250075 Z-0.125000
G01 X102.237630 Y39.476153 Z-0.125000
G01 X101.748417 Y40.702231 Z-0.125000
G01 X101.259203 Y41.928308 Z-0.125000
G01 X100.769989 Y43.154121 Z-0.125000
G01 X100.280775 Y44.380199 Z-0.125000
G01 X99.791561 Y45.606277 Z-0.125000
G01 X100.519958 Y46.339965 Z-0.125000
G01 X101.248355 Y47.073654 Z-0.125000
G01 X101.976752 Y47.807078 Z-0.125000
G01 X102.705149 Y48.540767 Z-0.125000
G01 X103.433810 Y49.274455 Z-0.125000
G01 X104.162207 Y50.008144 Z-0.125000
G01 X104.890604 Y50.741568 Z-0.125000
G01 X105.619001 Y51.475257 Z-0.125000
G01 X106.347398 Y52.208945 Z-0.125000
G01 X107.075795 Y52.942634 Z-0.125000
G01 X107.804192 Y53.676058 Z-0.125000
G01 X107.500186 Y54.679886 Z-0.125000
G01 X107.196180 Y55.683714 Z-0.125000
G01 X106.891910 Y56.687542 Z-0.125000
G01 X106.587904 Y57.691370 Z-0.125000
G01 X106.283898 Y58.695198 Z-0.125000
G01 X105.979892 Y59.698761 Z-0.125000
G01 X105.675622 Y60.702589 Z-0.125000
G01 X105.371616 Y61.706417 Z-0.125000
G01 X105.067610 Y62.710245 Z-0.125000
G01 X104.763340 Y63.714073 Z-0.125000
G01 X104.459334 Y64.717900 Z-0.125000
G01 X104.001076 Y65.770676 Z-0.125000
G01 X103.542554 Y66.823452 Z-0.125000
G01 X103.084296 Y67.876228 Z-0.125000
G01 X102.625774 Y68.929003 Z-0.125000
G01 X102.167516 Y69.981779 Z-0.125000
G01 X101.708994 Y71.034555 Z-0.125000
G01 X101.250736 Y72.087331 Z-0.125000
G01 X100.792214 Y73.140106 Z-0.125000
G01 X100.333956 Y74.192882 Z-0.125000
G01 X99.875698 Y75.245658 Z-0.125000
G01 X99.417176 Y76.298434 Z-0.125000
G01 X99.549996 Y77.524247 Z-0.125000
G01 X99.683082 Y78.749795 Z-0.125000
G01 X99.815902 Y79.975344 Z-0.125000
G01 X99.948988 Y81.201157 Z-0.125000
G01 X100.081808 Y82.426705 Z-0.125000
G01 X100.214629 Y83.652254 Z-0.125000
G01 X100.347714 Y84.877802 Z-0.125000
G01 X100.480535 Y86.103615 Z-0.125000
G01 X100.613620 Y87.329164 Z-0.125000
G01 X100.746441 Y88.554712 Z-0.125000
G01 X100.879261 Y89.780261 Z-0.125000
G01 X101.057590 Y90.676139 Z-0.125000
G01 X101.235655 Y91.571752 Z-0.125000
G01 X101.413984 Y92.467365 Z-0.125000
G01 X101.592048 Y93.362979 Z-0.125000
G01 X101.770377 Y94.258592 Z-0.125000
G01 X101.948441 Y95.154206 Z-0.125000
G01 X102.126770 Y96.049819 Z-0.125000
G01 X102.304835 Y96.945433 Z-0.125000
G01 X102.483163 Y97.841046 Z-0.125000
G01 X102.661228 Y98.736660 Z-0.125000
G01 X102.839292 Y99.632273 Z-0.125000
G01 X102.906761 Y100.611230 Z-0.125000
G01 X102.974230 Y101.590187 Z-0.125000
G01 X103.041434 Y102.569144 Z-0.125000
G01 X103.108902 Y103.547837 Z-0.125000
G01 X103.176106 Y104.526794 Z-0.125000
G01 X103.243575 Y105.505751 Z-0.125000
G01 X103.310779 Y106.484708 Z-0.125000
G01 X103.378248 Y107.463665 Z-0.125000
G01 X103.445716 Y108.442622 Z-0.125000
G01 X103.512921 Y109.421580 Z-0.125000
G01 X103.580389 Y110.400537 Z-0.125000
G00 Z10.000000

(End cutting path id: path218)


(Start cutting path id: path220)
(Change tool to Default tool)

G00 Z10.000000
G00 X104.162207 Y110.417470

G00 Z4.875000 (Fast pre-penetrate)
G01 Z-0.125000 F100.0(Penetrate)
G01 X104.131516 Y109.420521 Z-0.125000 F800.000000
G01 X104.101089 Y108.423572 Z-0.125000
G01 X104.070397 Y107.426624 Z-0.125000
G01 X104.039705 Y106.429940 Z-0.125000
G01 X104.009014 Y105.432991 Z-0.125000
G01 X103.978322 Y104.436042 Z-0.125000
G01 X103.947630 Y103.439093 Z-0.125000
G01 X103.917203 Y102.442145 Z-0.125000
G01 X103.886512 Y101.445460 Z-0.125000
G01 X103.855820 Y100.448512 Z-0.125000
G01 X103.825128 Y99.451563 Z-0.125000
G01 X103.667437 Y98.535047 Z-0.125000
G01 X103.509481 Y97.618532 Z-0.125000
G01 X103.351789 Y96.702016 Z-0.125000
G01 X103.193833 Y95.785501 Z-0.125000
G01 X103.036142 Y94.868985 Z-0.125000
G01 X102.878450 Y93.952470 Z-0.125000
G01 X102.720494 Y93.035954 Z-0.125000
G01 X102.562803 Y92.119439 Z-0.125000
G01 X102.404847 Y91.202923 Z-0.125000
G01 X102.247155 Y90.286408 Z-0.125000
G01 X102.089464 Y89.369892 Z-0.125000
G01 X101.989187 Y88.193556 Z-0.125000
G01 X101.888910 Y87.016956 Z-0.125000
G01 X101.788898 Y85.840355 Z-0.125000
G01 X101.688621 Y84.664019 Z-0.125000
G01 X101.588344 Y83.487418 Z-0.125000
G01 X101.488331 Y82.311082 Z-0.125000
G01 X101.388054 Y81.134482 Z-0.125000
G01 X101.288042 Y79.958146 Z-0.125000
G01 X101.187765 Y78.781545 Z-0.125000
G01 X101.087488 Y77.604945 Z-0.125000
G01 X100.987476 Y76.428609 Z-0.125000
G01 X101.369004 Y75.373187 Z-0.125000
G01 X101.750533 Y74.317765 Z-0.125000
G01 X102.132062 Y73.262608 Z-0.125000
G01 X102.513591 Y72.207187 Z-0.125000
G01 X102.895119 Y71.152030 Z-0.125000
G01 X103.276648 Y70.096608 Z-0.125000
G01 X103.658441 Y69.041187 Z-0.125000
G01 X104.039970 Y67.986030 Z-0.125000
G01 X104.421499 Y66.930608 Z-0.125000
G01 X104.803027 Y65.875186 Z-0.125000
G01 X105.184556 Y64.820029 Z-0.125000
G01 X105.507612 Y63.795829 Z-0.125000
G01 X105.830403 Y62.771628 Z-0.125000
G01 X106.153459 Y61.747692 Z-0.125000
G01 X106.476250 Y60.723491 Z-0.125000
G01 X106.799306 Y59.699290 Z-0.125000
G01 X107.122097 Y58.675354 Z-0.125000
G01 X107.445153 Y57.651153 Z-0.125000
G01 X107.767944 Y56.626952 Z-0.125000
G01 X108.091000 Y55.602751 Z-0.125000
G01 X108.413791 Y54.578815 Z-0.125000
G01 X108.736847 Y53.554614 Z-0.125000
G01 X108.037025 Y52.794203 Z-0.125000
G01 X107.337203 Y52.034056 Z-0.125000
G01 X106.637381 Y51.273644 Z-0.125000
G01 X105.937559 Y50.513497 Z-0.125000
G01 X105.237737 Y49.753086 Z-0.125000
G01 X104.537915 Y48.992939 Z-0.125000
G01 X103.838093 Y48.232527 Z-0.125000
G01 X103.138271 Y47.472380 Z-0.125000
G01 X102.438449 Y46.711969 Z-0.125000
G01 X101.738627 Y45.951822 Z-0.125000
G01 X101.038805 Y45.191410 Z-0.125000
G01 X101.533311 Y43.990204 Z-0.125000
G01 X102.027816 Y42.789261 Z-0.125000
G01 X102.522322 Y41.588055 Z-0.125000
G01 X103.016827 Y40.386848 Z-0.125000
G01 X103.511598 Y39.185906 Z-0.125000
G01 X104.006103 Y37.984699 Z-0.125000
G01 X104.500609 Y36.783492 Z-0.125000
G01 X104.995114 Y35.582550 Z-0.125000
G01 X105.489620 Y34.381343 Z-0.125000
G01 X105.984126 Y33.180136 Z-0.125000
G01 X106.478631 Y31.979194 Z-0.125000
G01 X106.107421 Y30.943880 Z-0.125000
G01 X105.736211 Y29.908567 Z-0.125000
G01 X105.364737 Y28.873519 Z-0.125000
G01 X104.993527 Y27.838205 Z-0.125000
G01 X104.622317 Y26.802892 Z-0.125000
G01 X104.251107 Y25.767579 Z-0.125000
G01 X103.879633 Y24.732530 Z-0.125000
G01 X103.508423 Y23.697217 Z-0.125000
G01 X103.137213 Y22.661903 Z-0.125000
G01 X102.765738 Y21.626855 Z-0.125000
G01 X102.394528 Y20.591541 Z-0.125000
G01 X102.750392 Y19.557286 Z-0.125000
G01 X103.106521 Y18.523032 Z-0.125000
G01 X103.462385 Y17.489041 Z-0.125000
G01 X103.818249 Y16.454786 Z-0.125000
G01 X104.174378 Y15.420531 Z-0.125000
G01 X104.530242 Y14.386276 Z-0.125000
G01 X104.886371 Y13.352286 Z-0.125000
G01 X105.242235 Y12.318031 Z-0.125000
G01 X105.598099 Y11.283776 Z-0.125000
G01 X105.954228 Y10.249521 Z-0.125000
G01 X106.310092 Y9.215531 Z-0.125000
G00 Z10.000000

(End cutting path id: path220)


(Start cutting path id: path222)
(Change tool to Default tool)

G00 Z10.000000
G00 X107.602580 Y9.516891

G00 Z4.875000 (Fast pre-penetrate)
G01 Z-0.125000 F100.0(Penetrate)
G01 X107.231370 Y10.534477 Z-0.125000 F800.000000
G01 X106.859895 Y11.551799 Z-0.125000
G01 X106.488421 Y12.569120 Z-0.125000
G01 X106.117211 Y13.586707 Z-0.125000
G01 X105.745736 Y14.604028 Z-0.125000
G01 X105.374262 Y15.621350 Z-0.125000
G01 X105.003052 Y16.638936 Z-0.125000
G01 X104.631577 Y17.656258 Z-0.125000
G01 X104.260103 Y18.673579 Z-0.125000
G01 X103.888893 Y19.691165 Z-0.125000
G01 X103.517418 Y20.708487 Z-0.125000
G01 X103.905297 Y21.720253 Z-0.125000
G01 X104.293440 Y22.732018 Z-0.125000
G01 X104.681319 Y23.743783 Z-0.125000
G01 X105.069198 Y24.755549 Z-0.125000
G01 X105.457076 Y25.767579 Z-0.125000
G01 X105.844955 Y26.779344 Z-0.125000
G01 X106.233098 Y27.791109 Z-0.125000
G01 X106.620977 Y28.802875 Z-0.125000
G01 X107.008856 Y29.814640 Z-0.125000
G01 X107.396734 Y30.826406 Z-0.125000
G01 X107.784613 Y31.838171 Z-0.125000
G01 X107.284816 Y33.014507 Z-0.125000
G01 X106.785018 Y34.190578 Z-0.125000
G01 X106.285221 Y35.366914 Z-0.125000
G01 X105.785159 Y36.542986 Z-0.125000
G01 X105.285362 Y37.719322 Z-0.125000
G01 X104.785300 Y38.895393 Z-0.125000
G01 X104.285503 Y40.071729 Z-0.125000
G01 X103.785706 Y41.247801 Z-0.125000
G01 X103.285644 Y42.424137 Z-0.125000
G01 X102.785846 Y43.600208 Z-0.125000
G01 X102.286049 Y44.776544 Z-0.125000
G01 X102.957296 Y45.563414 Z-0.125000
G01 X103.628543 Y46.350549 Z-0.125000
