%
(Header)
(Generated by gcodetools from Inkscape.)
(Using default header. To add your own header create file "header" in the output dir.)
M3
(Header end.)
G21 (All units in mm)

(Start cutting path id: polyline84003)
(Change tool to Default tool)

G00 Z3.000000
G00 X11.286517 Y237.110213

G00 Z4.875000 (Fast pre-penetrate)
G01 Z-0.125000 F400.0(Penetrate)
G01 X11.741891 Y236.915136 Z-0.125000 F800.000000
G01 X12.242826 Y236.572978 Z-0.125000
G01 X13.315075 Y235.414501 Z-0.125000
G01 X14.261753 Y233.987737 Z-0.125000
G01 X16.618738 Y229.926494 Z-0.125000
G01 X17.378647 Y228.860621 Z-0.125000
G01 X17.662015 Y228.659406 Z-0.125000
G01 X17.901092 Y228.784421 Z-0.125000
G01 X19.574659 Y230.412401 Z-0.125000
G01 X20.212198 Y230.886428 Z-0.125000
G01 X20.849764 Y231.620936 Z-0.125000
G01 X21.487303 Y232.100731 Z-0.125000
G01 X22.124842 Y232.877071 Z-0.125000
G01 X22.826146 Y233.473547 Z-0.125000
G01 X24.766122 Y235.667125 Z-0.125000
G01 X25.221522 Y235.990551 Z-0.125000
G01 X25.737644 Y236.126838 Z-0.125000
G01 X26.132296 Y236.062729 Z-0.125000
G01 X26.496627 Y235.873870 Z-0.125000
G01 X27.225235 Y235.155977 Z-0.125000
G01 X27.969058 Y234.043776 Z-0.125000
G01 X30.123187 Y230.244099 Z-0.125000
G01 X30.838037 Y229.359202 Z-0.125000
G01 X31.369320 Y229.089433 Z-0.125000
G01 X31.767782 Y229.168490 Z-0.125000
G01 X32.325628 Y229.672441 Z-0.125000
G01 X35.371720 Y233.179463 Z-0.125000
G01 X36.469713 Y234.591807 Z-0.125000
G01 X37.061717 Y235.038317 Z-0.125000
G01 X37.638561 Y235.186139 Z-0.125000
G01 X38.245752 Y235.027046 Z-0.125000
G01 X38.842810 Y234.581276 Z-0.125000
G01 X39.529959 Y233.786284 Z-0.125000
G01 X41.135422 Y231.462160 Z-0.125000
G01 X41.818046 Y230.619146 Z-0.125000
G01 X42.526441 Y230.017934 Z-0.125000
G01 X43.270236 Y229.767162 Z-0.125000
G01 X43.892615 Y229.873815 Z-0.125000
G01 X44.518777 Y230.248491 Z-0.125000
G01 X45.218308 Y230.916405 Z-0.125000
G01 X46.847610 Y232.879769 Z-0.125000
G01 X47.555978 Y233.613193 Z-0.125000
G01 X48.370629 Y234.180327 Z-0.125000
G01 X49.114452 Y234.375219 Z-0.125000
G01 X49.858247 Y234.249516 Z-0.125000
G01 X50.632417 Y233.820918 Z-0.125000
G01 X53.045996 Y231.621095 Z-0.125000
G01 X53.911236 Y230.975301 Z-0.125000
G01 X54.639871 Y230.634677 Z-0.125000
G01 X55.383666 Y230.509106 Z-0.125000
G01 X56.127489 Y230.605890 Z-0.125000
G01 X57.007915 Y230.966199 Z-0.125000
G01 X59.649194 Y232.732502 Z-0.125000
G01 X60.590342 Y233.253228 Z-0.125000
G01 X61.546651 Y233.588296 Z-0.125000
G01 X62.396730 Y233.697543 Z-0.125000
G01 X63.246782 Y233.635789 Z-0.125000
G01 X64.309374 Y233.360808 Z-0.125000
G01 X67.603379 Y231.944707 Z-0.125000
G01 X68.878484 Y231.500339 Z-0.125000
G01 X70.153563 Y231.223400 Z-0.125000
G01 X71.428667 Y231.122700 Z-0.125000
G01 X73.766364 Y231.307855 Z-0.125000
G01 X79.079270 Y232.342481 Z-0.125000
G01 X82.054506 Y232.762824 Z-0.125000
G01 X85.561024 Y233.017988 Z-0.125000
G01 X90.236391 Y233.124006 Z-0.125000
G01 X100.012125 Y233.109613 Z-0.125000
G01 X106.918931 Y232.933427 Z-0.125000
G01 X112.656864 Y232.601534 Z-0.125000
G01 X124.664037 Y231.642129 Z-0.125000
G01 X131.995870 Y231.357703 Z-0.125000
G01 X137.733802 Y231.375694 Z-0.125000
G01 X142.409169 Y231.602865 Z-0.125000
G01 X146.021944 Y231.992834 Z-0.125000
G01 X152.184929 Y232.950096 Z-0.125000
G01 X154.735139 Y233.148771 Z-0.125000
G01 X156.222730 Y233.111147 Z-0.125000
G01 X157.816604 Y232.924590 Z-0.125000
G01 X162.385715 Y231.909385 Z-0.125000
G01 X164.085846 Y231.651893 Z-0.125000
G01 X165.998490 Y231.634801 Z-0.125000
G01 X168.123673 Y231.950924 Z-0.125000
G00 Z3.000000

(End cutting path id: polyline84003)


(Start cutting path id: polyline83999)
(Change tool to Default tool)

G00 Z3.000000
G00 X11.286517 Y231.458430

G00 Z4.875000 (Fast pre-penetrate)
G01 Z-0.125000 F400.0(Penetrate)
G01 X14.155497 Y226.799520 Z-0.125000 F800.000000
G01 X14.410502 Y226.484745 Z-0.125000
G01 X14.686779 Y226.390633 Z-0.125000
G01 X15.385040 Y226.650242 Z-0.125000
G01 X15.749345 Y226.887705 Z-0.125000
G01 X16.386910 Y227.600915 Z-0.125000
G01 X17.024449 Y228.048643 Z-0.125000
G01 X18.937094 Y229.745995 Z-0.125000
G01 X19.574659 Y230.412401 Z-0.125000
G01 X20.212198 Y230.886428 Z-0.125000
G01 X20.849764 Y231.620936 Z-0.125000
G01 X21.487303 Y232.100731 Z-0.125000
G01 X22.307008 Y233.044737 Z-0.125000
G01 X22.762408 Y233.351389 Z-0.125000
G01 X23.293691 Y233.481722 Z-0.125000
G01 X23.612460 Y233.438886 Z-0.125000
G01 X24.037486 Y233.242883 Z-0.125000
G01 X24.802555 Y232.517423 Z-0.125000
G01 X25.578233 Y231.386304 Z-0.125000
G01 X27.746887 Y227.652059 Z-0.125000
G01 X28.429511 Y226.801107 Z-0.125000
G01 X28.925366 Y226.624313 Z-0.125000
G01 X29.228975 Y226.692284 Z-0.125000
G01 X29.502210 Y226.868047 Z-0.125000
G01 X30.412984 Y227.868144 Z-0.125000
G01 X31.050550 Y228.369344 Z-0.125000
G01 X31.688089 Y229.131581 Z-0.125000
G01 X32.325628 Y229.672441 Z-0.125000
G01 X34.397684 Y232.021383 Z-0.125000
G01 X34.982095 Y232.419130 Z-0.125000
G01 X35.513377 Y232.540971 Z-0.125000
G01 X36.242012 Y232.331077 Z-0.125000
G01 X37.000995 Y231.698750 Z-0.125000
G01 X37.681053 Y230.867933 Z-0.125000
G01 X39.211163 Y228.715974 Z-0.125000
G01 X39.976231 Y227.839913 Z-0.125000
G01 X40.720053 Y227.294422 Z-0.125000
G01 X41.357592 Y227.120750 Z-0.125000
G01 X42.071040 Y227.260053 Z-0.125000
G01 X42.845210 Y227.767206 Z-0.125000
G01 X43.518177 Y228.431706 Z-0.125000
G01 X45.289137 Y230.470821 Z-0.125000
G01 X46.112652 Y231.211097 Z-0.125000
G01 X46.807129 Y231.597944 Z-0.125000
G01 X47.520577 Y231.730924 Z-0.125000
G01 X48.264373 Y231.585456 Z-0.125000
G01 X49.084077 Y231.136115 Z-0.125000
G01 X51.452122 Y229.069377 Z-0.125000
G01 X52.453992 Y228.345214 Z-0.125000
G01 X53.258509 Y227.986968 Z-0.125000
G01 X54.002331 Y227.864202 Z-0.125000
G01 X54.852384 Y227.964823 Z-0.125000
G01 X55.732810 Y228.300155 Z-0.125000
G01 X58.556255 Y230.051959 Z-0.125000
G01 X59.649194 Y230.613960 Z-0.125000
G01 X60.696599 Y230.946329 Z-0.125000
G01 X61.652908 Y231.052400 Z-0.125000
G01 X62.609243 Y230.980725 Z-0.125000
G01 X63.671808 Y230.732731 Z-0.125000
G01 X67.284610 Y229.366478 Z-0.125000
G01 X68.878484 Y228.877396 Z-0.125000
G01 X70.366076 Y228.594636 Z-0.125000
G01 X71.959950 Y228.478590 Z-0.125000
G01 X74.616416 Y228.607706 Z-0.125000
G01 X80.248092 Y229.317345 Z-0.125000
G01 X83.329584 Y229.614974 Z-0.125000
G01 X86.623590 Y229.797351 Z-0.125000
G01 X90.236391 Y229.859793 Z-0.125000
G01 X97.461941 Y229.653021 Z-0.125000
G01 X109.894141 Y228.749470 Z-0.125000
G01 X115.100817 Y228.507112 Z-0.125000
G01 X120.094953 Y228.502773 Z-0.125000
G01 X129.126891 Y228.833131 Z-0.125000
G01 X132.952179 Y228.894514 Z-0.125000
G01 X136.883750 Y228.818897 Z-0.125000
G01 X143.578017 Y228.499915 Z-0.125000
G01 X145.915688 Y228.486316 Z-0.125000
G01 X147.722075 Y228.587334 Z-0.125000
G01 X149.528463 Y228.816806 Z-0.125000
G01 X151.334850 Y229.176957 Z-0.125000
G01 X155.691447 Y230.239760 Z-0.125000
G01 X156.966552 Y230.436610 Z-0.125000
G01 X158.135400 Y230.505454 Z-0.125000
G01 X159.304222 Y230.449310 Z-0.125000
G01 X160.473071 Y230.269870 Z-0.125000
G01 X164.085846 Y229.314619 Z-0.125000
G01 X165.360951 Y229.059323 Z-0.125000
G01 X166.742312 Y228.957379 Z-0.125000
G01 X168.123673 Y229.060778 Z-0.125000
G00 Z3.000000

(End cutting path id: polyline83999)


(Start cutting path id: polyline83997)
(Change tool to Default tool)

G00 Z3.000000
G00 X11.286517 Y227.581733

G00 Z4.875000 (Fast pre-penetrate)
G01 Z-0.125000 F400.0(Penetrate)
G01 X12.271824 Y226.040061 Z-0.125000 F800.000000
G01 X12.844964 Y225.290629 Z-0.125000
G01 X13.128333 Y225.042900 Z-0.125000
G01 X13.381327 Y225.056368 Z-0.125000
G01 X15.032113 Y226.475141 Z-0.125000
G01 X15.749345 Y226.887705 Z-0.125000
G01 X16.386910 Y227.600915 Z-0.125000
G01 X17.024449 Y228.048643 Z-0.125000
G01 X18.937094 Y229.745995 Z-0.125000
G01 X19.574659 Y230.412401 Z-0.125000
G01 X20.212198 Y230.886428 Z-0.125000
G01 X21.031903 Y231.776935 Z-0.125000
G01 X21.487303 Y232.055699 Z-0.125000
G01 X22.018586 Y232.157987 Z-0.125000
G01 X22.337356 Y232.101472 Z-0.125000
G01 X22.762408 Y231.891102 Z-0.125000
G01 X23.527450 Y231.152413 Z-0.125000
G01 X24.303154 Y230.023225 Z-0.125000
G01 X26.413812 Y226.415610 Z-0.125000
G01 X27.083578 Y225.542010 Z-0.125000
G01 X27.437775 Y225.378127 Z-0.125000
G01 X27.756545 Y225.442209 Z-0.125000
G01 X28.136036 Y225.641863 Z-0.125000
G01 X29.137906 Y226.658682 Z-0.125000
G01 X29.775445 Y227.112019 Z-0.125000
G01 X30.412984 Y227.868144 Z-0.125000
G01 X31.050550 Y228.369344 Z-0.125000
G01 X31.688089 Y229.131581 Z-0.125000
G01 X32.325628 Y229.672441 Z-0.125000
G01 X33.281964 Y230.764561 Z-0.125000
G01 X33.813246 Y231.102512 Z-0.125000
G01 X34.344555 Y231.217976 Z-0.125000
G01 X35.058003 Y231.017237 Z-0.125000
G01 X35.796746 Y230.424280 Z-0.125000
G01 X36.469713 Y229.628573 Z-0.125000
G01 X38.063587 Y227.422957 Z-0.125000
G01 X38.940203 Y226.446063 Z-0.125000
G01 X39.611927 Y225.974418 Z-0.125000
G01 X40.295001 Y225.797332 Z-0.125000
G01 X41.038823 Y225.959813 Z-0.125000
G01 X41.797806 Y226.462785 Z-0.125000
G01 X42.597270 Y227.256190 Z-0.125000
G01 X44.226572 Y229.111552 Z-0.125000
G01 X44.996932 Y229.811056 Z-0.125000
G01 X45.714190 Y230.237247 Z-0.125000
G01 X46.457985 Y230.407162 Z-0.125000
G01 X47.201781 Y230.295799 Z-0.125000
G01 X48.082207 Y229.846722 Z-0.125000
G01 X50.655198 Y227.665553 Z-0.125000
G01 X51.543191 Y227.045397 Z-0.125000
G01 X52.408457 Y226.664397 Z-0.125000
G01 X53.152253 Y226.542239 Z-0.125000
G01 X54.002331 Y226.631060 Z-0.125000
G01 X54.913106 Y226.957344 Z-0.125000
G01 X57.827620 Y228.703009 Z-0.125000
G01 X58.996468 Y229.285965 Z-0.125000
G01 X60.059033 Y229.614974 Z-0.125000
G01 X61.121625 Y229.729803 Z-0.125000
G01 X62.077934 Y229.661461 Z-0.125000
G01 X63.246782 Y229.402699 Z-0.125000
G01 X67.072097 Y228.045362 Z-0.125000
G01 X68.772228 Y227.563212 Z-0.125000
G01 X70.472359 Y227.269657 Z-0.125000
G01 X72.172490 Y227.157210 Z-0.125000
G01 X74.828929 Y227.241770 Z-0.125000
G01 X83.010815 Y227.938232 Z-0.125000
G01 X88.217464 Y228.083832 Z-0.125000
G01 X93.955423 Y227.935322 Z-0.125000
G01 X105.856340 Y227.230076 Z-0.125000
G01 X111.594272 Y227.173455 Z-0.125000
G01 X116.482152 Y227.409966 Z-0.125000
G01 X127.001734 Y228.281423 Z-0.125000
G01 X132.314640 Y228.453772 Z-0.125000
G01 X134.971106 Y228.403634 Z-0.125000
G01 X137.627546 Y228.248773 Z-0.125000
G01 X145.915688 Y227.292200 Z-0.125000
G01 X148.890923 Y227.157421 Z-0.125000
G01 X150.378541 Y227.253359 Z-0.125000
G01 X151.759903 Y227.461639 Z-0.125000
G01 X153.247521 Y227.805491 Z-0.125000
G01 X157.179065 Y228.905548 Z-0.125000
G01 X158.347914 Y229.109964 Z-0.125000
G01 X159.410479 Y229.182222 Z-0.125000
G01 X160.473071 Y229.130893 Z-0.125000
G01 X161.535662 Y228.959470 Z-0.125000
G01 X165.998490 Y227.766306 Z-0.125000
G01 X167.061082 Y227.645312 Z-0.125000
G01 X168.123673 Y227.659309 Z-0.125000
G00 Z3.000000

(End cutting path id: polyline83997)


(Start cutting path id: polyline83995)
(Change tool to Default tool)

G00 Z3.000000
G00 X11.286517 Y223.922603

G00 Z4.875000 (Fast pre-penetrate)
G01 Z-0.125000 F400.0(Penetrate)
G01 X11.499030 Y223.872650 Z-0.125000 F800.000000
G01 X11.711543 Y223.923952 Z-0.125000
G01 X12.470526 Y224.301486 Z-0.125000
G01 X13.199161 Y225.020199 Z-0.125000
G01 X13.916393 Y225.483828 Z-0.125000
G01 X15.032113 Y226.475141 Z-0.125000
G01 X15.749345 Y226.887705 Z-0.125000
G01 X16.386910 Y227.600915 Z-0.125000
G01 X17.104142 Y228.117461 Z-0.125000
G01 X18.937094 Y229.745995 Z-0.125000
G01 X19.574659 Y230.412401 Z-0.125000
G01 X20.030033 Y230.706458 Z-0.125000
G01 X20.530968 Y230.834199 Z-0.125000
G01 X20.940834 Y230.782235 Z-0.125000
G01 X21.305138 Y230.615891 Z-0.125000
G01 X21.726380 Y230.293021 Z-0.125000
G01 X22.188607 Y229.789863 Z-0.125000
G01 X22.974921 Y228.646918 Z-0.125000
G01 X25.022794 Y225.171964 Z-0.125000
G01 X25.737644 Y224.219544 Z-0.125000
G01 X26.041226 Y224.048730 Z-0.125000
G01 X26.747081 Y224.429068 Z-0.125000
G01 X27.862801 Y225.483537 Z-0.125000
G01 X28.500340 Y225.950923 Z-0.125000
G01 X29.137906 Y226.658682 Z-0.125000
G01 X29.775445 Y227.112019 Z-0.125000
G01 X30.412984 Y227.868144 Z-0.125000
G01 X31.050550 Y228.369344 Z-0.125000
G01 X32.006859 Y229.430295 Z-0.125000
G01 X32.538168 Y229.771872 Z-0.125000
G01 X33.069451 Y229.894823 Z-0.125000
G01 X33.782899 Y229.711547 Z-0.125000
G01 X34.521641 Y229.142323 Z-0.125000
G01 X35.194608 Y228.368497 Z-0.125000
G01 X36.930166 Y226.008866 Z-0.125000
G01 X37.744817 Y225.122540 Z-0.125000
G01 X38.427891 Y224.649889 Z-0.125000
G01 X39.126179 Y224.474153 Z-0.125000
G01 X39.869974 Y224.633537 Z-0.125000
G01 X40.522701 Y225.081688 Z-0.125000
G01 X41.322165 Y225.846307 Z-0.125000
G01 X43.093151 Y227.774799 Z-0.125000
G01 X43.892615 Y228.489306 Z-0.125000
G01 X44.651598 Y228.927085 Z-0.125000
G01 X45.395394 Y229.084379 Z-0.125000
G01 X46.139216 Y228.969947 Z-0.125000
G01 X46.989268 Y228.550636 Z-0.125000
G01 X47.786218 Y227.955139 Z-0.125000
G01 X49.539478 Y226.434501 Z-0.125000
G01 X50.541348 Y225.733938 Z-0.125000
G01 X51.345865 Y225.372042 Z-0.125000
G01 X52.195944 Y225.219430 Z-0.125000
G01 X53.045996 Y225.300340 Z-0.125000
G01 X54.002331 Y225.628105 Z-0.125000
G01 X57.098984 Y227.423671 Z-0.125000
G01 X58.252646 Y227.971358 Z-0.125000
G01 X59.315237 Y228.288090 Z-0.125000
G01 X60.484086 Y228.407126 Z-0.125000
G01 X61.440395 Y228.338917 Z-0.125000
G01 X62.609243 Y228.096453 Z-0.125000
G01 X66.647044 Y226.753509 Z-0.125000
G01 X68.453432 Y226.271571 Z-0.125000
G01 X70.366076 Y225.960051 Z-0.125000
G01 X72.385003 Y225.835300 Z-0.125000
G01 X75.041442 Y225.886259 Z-0.125000
G01 X82.054506 Y226.288478 Z-0.125000
G01 X85.986051 Y226.370207 Z-0.125000
G01 X90.555161 Y226.286943 Z-0.125000
G01 X100.437177 Y225.860091 Z-0.125000
G01 X105.750083 Y225.884803 Z-0.125000
G01 X111.169246 Y226.269137 Z-0.125000
G01 X119.988697 Y227.330485 Z-0.125000
G01 X123.495215 Y227.681587 Z-0.125000
G01 X127.320503 Y227.926511 Z-0.125000
G01 X131.252048 Y228.023375 Z-0.125000
G01 X135.714902 Y227.938206 Z-0.125000
G01 X139.540190 Y227.637004 Z-0.125000
G01 X142.621682 Y227.181683 Z-0.125000
G01 X148.040845 Y226.105863 Z-0.125000
G01 X150.272285 Y225.847762 Z-0.125000
G01 X151.866159 Y225.862340 Z-0.125000
G01 X153.353777 Y226.061809 Z-0.125000
G01 X154.841395 Y226.429553 Z-0.125000
G01 X158.454170 Y227.559667 Z-0.125000
G01 X159.516735 Y227.772709 Z-0.125000
G01 X160.473071 Y227.856846 Z-0.125000
G01 X161.429406 Y227.824488 Z-0.125000
G01 X162.385715 Y227.678703 Z-0.125000
G01 X166.211003 Y226.568883 Z-0.125000
G01 X167.167338 Y226.384521 Z-0.125000
G01 X168.123673 Y226.312052 Z-0.125000
G00 Z3.000000

(End cutting path id: polyline83995)


(Start cutting path id: polyline83993)
(Change tool to Default tool)

G00 Z3.000000
G00 X11.286517 Y223.539698

G00 Z4.875000 (Fast pre-penetrate)
G01 Z-0.125000 F400.0(Penetrate)
G01 X12.561622 Y224.370939 Z-0.125000 F800.000000
G01 X13.199161 Y225.020199 Z-0.125000
G01 X13.916393 Y225.483828 Z-0.125000
G01 X15.111805 Y226.536366 Z-0.125000
G01 X15.749345 Y226.887705 Z-0.125000
G01 X16.386910 Y227.600915 Z-0.125000
G01 X17.024449 Y228.048643 Z-0.125000
G01 X18.219862 Y229.174046 Z-0.125000
G01 X18.724580 Y229.444186 Z-0.125000
G01 X19.149633 Y229.512527 Z-0.125000
G01 X19.574659 Y229.433020 Z-0.125000
G01 X19.938964 Y229.246595 Z-0.125000
G01 X20.778909 Y228.441125 Z-0.125000
G01 X21.593560 Y227.262725 Z-0.125000
G01 X23.654979 Y223.805260 Z-0.125000
G01 X24.356283 Y222.918960 Z-0.125000
G01 X24.675052 Y222.708670 Z-0.125000
G01 X25.039356 Y222.888110 Z-0.125000
G01 X27.862801 Y225.483537 Z-0.125000
G01 X28.500340 Y225.950923 Z-0.125000
G01 X29.137906 Y226.658682 Z-0.125000
G01 X29.775445 Y227.112019 Z-0.125000
G01 X30.652061 Y228.087986 Z-0.125000
G01 X31.263063 Y228.469965 Z-0.125000
G01 X31.794346 Y228.572014 Z-0.125000
G01 X32.507794 Y228.368021 Z-0.125000
G01 X33.246536 Y227.788108 Z-0.125000
G01 X33.919503 Y227.013779 Z-0.125000
G01 X35.655061 Y224.676506 Z-0.125000
G01 X36.469713 Y223.800445 Z-0.125000
G01 X37.152813 Y223.330916 Z-0.125000
G01 X37.851074 Y223.151608 Z-0.125000
G01 X38.382357 Y223.213917 Z-0.125000
G01 X38.860511 Y223.470325 Z-0.125000
G01 X40.047060 Y224.553448 Z-0.125000
G01 X42.048260 Y226.614761 Z-0.125000
G01 X42.708580 Y227.178508 Z-0.125000
G01 X43.482749 Y227.612530 Z-0.125000
G01 X44.226572 Y227.761702 Z-0.125000
G01 X45.076624 Y227.611393 Z-0.125000
G01 X45.896329 Y227.188007 Z-0.125000
G01 X48.503450 Y225.052161 Z-0.125000
G01 X49.448408 Y224.410256 Z-0.125000
G01 X50.283273 Y224.044549 Z-0.125000
G01 X51.133352 Y223.896886 Z-0.125000
G01 X51.983404 Y223.973112 Z-0.125000
G01 X52.939740 Y224.286114 Z-0.125000
G01 X56.188210 Y226.114038 Z-0.125000
G01 X57.402593 Y226.666990 Z-0.125000
G01 X58.465159 Y226.967927 Z-0.125000
G01 X59.634007 Y227.083867 Z-0.125000
G01 X60.696599 Y227.011266 Z-0.125000
G01 X61.865421 Y226.778247 Z-0.125000
G01 X66.115761 Y225.446336 Z-0.125000
G01 X68.134662 Y224.948603 Z-0.125000
G01 X70.153563 Y224.648354 Z-0.125000
G01 X72.491259 Y224.514449 Z-0.125000
G01 X83.754637 Y224.770512 Z-0.125000
G01 X95.655554 Y224.513232 Z-0.125000
G01 X100.330921 Y224.586653 Z-0.125000
G01 X105.643827 Y225.033322 Z-0.125000
G01 X114.675764 Y226.294986 Z-0.125000
G01 X118.288539 Y226.706757 Z-0.125000
G01 X122.432623 Y226.981738 Z-0.125000
G01 X127.214247 Y227.078311 Z-0.125000
G01 X136.777493 Y227.061669 Z-0.125000
G01 X141.134064 Y226.839048 Z-0.125000
G01 X144.321813 Y226.356952 Z-0.125000
G01 X150.166028 Y224.857216 Z-0.125000
G01 X151.441133 Y224.620070 Z-0.125000
G01 X152.503698 Y224.518206 Z-0.125000
G01 X153.778803 Y224.541489 Z-0.125000
G01 X155.053908 Y224.736513 Z-0.125000
G01 X156.328986 Y225.084916 Z-0.125000
G01 X159.622992 Y226.215638 Z-0.125000
G01 X160.579327 Y226.432199 Z-0.125000
G01 X161.535662 Y226.532423 Z-0.125000
G01 X162.491971 Y226.500091 Z-0.125000
G01 X163.448306 Y226.339727 Z-0.125000
G01 X166.742312 Y225.317908 Z-0.125000
G01 X168.123673 Y225.036021 Z-0.125000
G00 Z3.000000

(End cutting path id: polyline83993)


(Start cutting path id: polyline83991)
(Change tool to Default tool)

G00 Z3.000000
G00 X11.286517 Y223.539698

G00 Z4.875000 (Fast pre-penetrate)
G01 Z-0.125000 F400.0(Penetrate)
G01 X12.561622 Y224.370939 Z-0.125000 F800.000000
G01 X13.199161 Y225.020199 Z-0.125000
G01 X13.916393 Y225.483828 Z-0.125000
G01 X15.111805 Y226.536366 Z-0.125000
G01 X15.749345 Y226.887705 Z-0.125000
G01 X16.660145 Y227.827478 Z-0.125000
G01 X17.130706 Y228.093648 Z-0.125000
G01 X17.662015 Y228.189718 Z-0.125000
G01 X18.087041 Y228.103517 Z-0.125000
G01 X18.458939 Y227.913044 Z-0.125000
G01 X19.220462 Y227.206237 Z-0.125000
G01 X20.038314 Y226.064217 Z-0.125000
G01 X22.443639 Y222.130741 Z-0.125000
G01 X22.762408 Y221.771861 Z-0.125000
G01 X23.187434 Y221.609751 Z-0.125000
G01 X23.582113 Y221.691718 Z-0.125000
G01 X24.037486 Y222.022130 Z-0.125000
G01 X24.675052 Y222.708670 Z-0.125000
G01 X25.312591 Y223.140707 Z-0.125000
G01 X27.862801 Y225.483537 Z-0.125000
G01 X28.500340 Y225.950923 Z-0.125000
G01 X29.320045 Y226.813966 Z-0.125000
G01 X29.881702 Y227.149695 Z-0.125000
G01 X30.412984 Y227.249152 Z-0.125000
G01 X31.141619 Y227.038994 Z-0.125000
G01 X31.900602 Y226.439528 Z-0.125000
G01 X32.580660 Y225.655622 Z-0.125000
G01 X34.238299 Y223.430188 Z-0.125000
G01 X35.114915 Y222.484594 Z-0.125000
G01 X35.877708 Y221.977653 Z-0.125000
G01 X36.575969 Y221.820888 Z-0.125000
G01 X37.061717 Y221.933547 Z-0.125000
G01 X37.505740 Y222.214058 Z-0.125000
G01 X41.433501 Y225.866521 Z-0.125000
G01 X42.207645 Y226.292235 Z-0.125000
G01 X42.951467 Y226.438761 Z-0.125000
G01 X43.801519 Y226.292446 Z-0.125000
G01 X44.621250 Y225.878533 Z-0.125000
G01 X47.308064 Y223.710460 Z-0.125000
G01 X48.264373 Y223.075726 Z-0.125000
G01 X49.114452 Y222.714596 Z-0.125000
G01 X49.964504 Y222.573653 Z-0.125000
G01 X50.920839 Y222.671919 Z-0.125000
G01 X51.877148 Y222.999711 Z-0.125000
G01 X55.095271 Y224.782233 Z-0.125000
G01 X56.340002 Y225.337408 Z-0.125000
G01 X57.508850 Y225.655463 Z-0.125000
G01 X58.677672 Y225.761217 Z-0.125000
G01 X59.740264 Y225.690732 Z-0.125000
G01 X60.909112 Y225.470466 Z-0.125000
G01 X65.371939 Y224.146308 Z-0.125000
G01 X67.603379 Y223.632435 Z-0.125000
G01 X69.941049 Y223.320915 Z-0.125000
G01 X72.597516 Y223.192169 Z-0.125000
G01 X82.054506 Y223.286545 Z-0.125000
G01 X91.830239 Y223.185210 Z-0.125000
G01 X95.868067 Y223.298584 Z-0.125000
G01 X100.862203 Y223.773431 Z-0.125000
G01 X111.806811 Y225.400537 Z-0.125000
G01 X114.888277 Y225.665305 Z-0.125000
G01 X117.863513 Y225.760000 Z-0.125000
G01 X130.827022 Y225.356881 Z-0.125000
G01 X134.333540 Y225.424403 Z-0.125000
G01 X140.709038 Y225.746083 Z-0.125000
G01 X143.578017 Y225.701183 Z-0.125000
G01 X145.171892 Y225.526029 Z-0.125000
G01 X146.659510 Y225.239618 Z-0.125000
G01 X148.253384 Y224.805464 Z-0.125000
G01 X152.184929 Y223.542979 Z-0.125000
G01 X153.353777 Y223.292657 Z-0.125000
G01 X154.416342 Y223.188650 Z-0.125000
G01 X155.478934 Y223.226247 Z-0.125000
G01 X156.647783 Y223.436273 Z-0.125000
G01 X157.816604 Y223.796397 Z-0.125000
G01 X160.685584 Y224.865709 Z-0.125000
G01 X161.641919 Y225.104178 Z-0.125000
G01 X162.491971 Y225.205883 Z-0.125000
G01 X163.448306 Y225.179954 Z-0.125000
G01 X164.404615 Y225.012209 Z-0.125000
G01 X168.123673 Y223.841482 Z-0.125000
G00 Z3.000000

(End cutting path id: polyline83991)


(Start cutting path id: polyline83989)
(Change tool to Default tool)

G00 Z3.000000
G00 X11.286517 Y223.539698

G00 Z4.875000 (Fast pre-penetrate)
G01 Z-0.125000 F400.0(Penetrate)
G01 X12.561622 Y224.370939 Z-0.125000 F800.000000
G01 X13.199161 Y225.020199 Z-0.125000
G01 X13.916393 Y225.483828 Z-0.125000
G01 X15.111805 Y226.536366 Z-0.125000
G01 X15.567206 Y226.778380 Z-0.125000
G01 X16.068141 Y226.866671 Z-0.125000
G01 X16.477980 Y226.796980 Z-0.125000
G01 X16.933380 Y226.568459 Z-0.125000
G01 X17.789518 Y225.748940 Z-0.125000
G01 X18.531382 Y224.704790 Z-0.125000
G01 X20.617910 Y221.277408 Z-0.125000
G01 X21.274790 Y220.383356 Z-0.125000
G01 X21.578373 Y220.205344 Z-0.125000
G01 X22.204535 Y220.554197 Z-0.125000
G01 X23.320255 Y221.563846 Z-0.125000
G01 X24.037486 Y222.022130 Z-0.125000
G01 X24.675052 Y222.708670 Z-0.125000
G01 X25.312591 Y223.140707 Z-0.125000
G01 X27.862801 Y225.483537 Z-0.125000
G01 X28.409271 Y225.815668 Z-0.125000
G01 X28.925366 Y225.925496 Z-0.125000
G01 X29.669189 Y225.734388 Z-0.125000
G01 X30.483840 Y225.102326 Z-0.125000
G01 X31.178053 Y224.301909 Z-0.125000
G01 X32.835691 Y222.086820 Z-0.125000
G01 X33.680426 Y221.180094 Z-0.125000
G01 X34.450812 Y220.661803 Z-0.125000
G01 X35.088351 Y220.504984 Z-0.125000
G01 X35.407121 Y220.533110 Z-0.125000
G01 X35.752481 Y220.722577 Z-0.125000
G01 X40.067300 Y224.549294 Z-0.125000
G01 X40.826310 Y224.964399 Z-0.125000
G01 X41.570105 Y225.115449 Z-0.125000
G01 X42.420184 Y224.977813 Z-0.125000
G01 X43.255049 Y224.566386 Z-0.125000
G01 X45.987424 Y222.384847 Z-0.125000
G01 X46.898199 Y221.780936 Z-0.125000
G01 X47.839347 Y221.382950 Z-0.125000
G01 X48.689399 Y221.250103 Z-0.125000
G01 X49.645734 Y221.350883 Z-0.125000
G01 X50.602069 Y221.674706 Z-0.125000
G01 X53.820166 Y223.430452 Z-0.125000
G01 X55.064897 Y223.985574 Z-0.125000
G01 X56.233745 Y224.313101 Z-0.125000
G01 X57.508850 Y224.438064 Z-0.125000
G01 X58.571415 Y224.374934 Z-0.125000
G01 X59.846520 Y224.144615 Z-0.125000
G01 X64.415630 Y222.843290 Z-0.125000
G01 X66.753301 Y222.331163 Z-0.125000
G01 X69.409767 Y222.002365 Z-0.125000
G01 X72.491259 Y221.871106 Z-0.125000
G01 X87.579925 Y221.865814 Z-0.125000
G01 X92.255292 Y222.022844 Z-0.125000
G01 X96.930659 Y222.516265 Z-0.125000
G01 X106.600135 Y224.086406 Z-0.125000
G01 X109.150345 Y224.336755 Z-0.125000
G01 X111.700528 Y224.436899 Z-0.125000
G01 X113.931968 Y224.396603 Z-0.125000
G01 X116.269639 Y224.241743 Z-0.125000
G01 X126.257911 Y223.177670 Z-0.125000
G01 X130.614509 Y223.002992 Z-0.125000
G01 X132.952179 Y223.052813 Z-0.125000
G01 X135.183619 Y223.203493 Z-0.125000
G01 X137.733802 Y223.495407 Z-0.125000
G01 X143.259248 Y224.304132 Z-0.125000
G01 X144.853122 Y224.426660 Z-0.125000
G01 X146.340714 Y224.412029 Z-0.125000
G01 X147.615819 Y224.270609 Z-0.125000
G01 X148.890923 Y223.998671 Z-0.125000
G01 X150.272285 Y223.569252 Z-0.125000
G01 X153.885060 Y222.233796 Z-0.125000
G01 X154.947652 Y221.975669 Z-0.125000
G01 X156.010217 Y221.863512 Z-0.125000
G01 X156.966552 Y221.909841 Z-0.125000
G01 X158.029144 Y222.124206 Z-0.125000
G01 X161.748176 Y223.538111 Z-0.125000
G01 X163.342050 Y223.874105 Z-0.125000
G01 X164.192102 Y223.874899 Z-0.125000
G01 X165.148437 Y223.725224 Z-0.125000
G01 X168.123673 Y222.727270 Z-0.125000
G00 Z3.000000

(End cutting path id: polyline83989)


(Start cutting path id: polyline83983)
(Change tool to Default tool)

G00 Z3.000000
G00 X11.286517 Y222.861043

G00 Z4.875000 (Fast pre-penetrate)
G01 Z-0.125000 F400.0(Penetrate)
G01 X12.083441 Y222.472582 Z-0.125000 F800.000000
G01 X12.844964 Y221.736539 Z-0.125000
G01 X13.662843 Y220.632434 Z-0.125000
G01 X16.068141 Y216.906603 Z-0.125000
G01 X16.386910 Y216.562883 Z-0.125000
G01 X16.705680 Y216.459960 Z-0.125000
G01 X17.206615 Y216.602147 Z-0.125000
G01 X18.299554 Y217.564568 Z-0.125000
G01 X18.937094 Y217.912071 Z-0.125000
G01 X20.052814 Y218.920291 Z-0.125000
G01 X20.849764 Y219.405166 Z-0.125000
G01 X21.487303 Y220.075460 Z-0.125000
G01 X22.204535 Y220.561182 Z-0.125000
G01 X23.399947 Y221.626605 Z-0.125000
G01 X23.855348 Y221.866661 Z-0.125000
G01 X24.356283 Y221.956936 Z-0.125000
G01 X25.039356 Y221.785831 Z-0.125000
G01 X25.711053 Y221.313656 Z-0.125000
G01 X26.516867 Y220.438944 Z-0.125000
G01 X28.783709 Y217.537739 Z-0.125000
G01 X29.593280 Y216.855247 Z-0.125000
G01 X30.306728 Y216.546214 Z-0.125000
G01 X30.595150 Y216.602650 Z-0.125000
G01 X31.130242 Y216.965419 Z-0.125000
G01 X35.604473 Y220.632857 Z-0.125000
G01 X36.257199 Y220.983509 Z-0.125000
G01 X37.000995 Y221.145699 Z-0.125000
G01 X37.851074 Y221.020736 Z-0.125000
G01 X38.701126 Y220.610447 Z-0.125000
G01 X41.433501 Y218.437533 Z-0.125000
G01 X42.435345 Y217.779383 Z-0.125000
G01 X43.376493 Y217.398568 Z-0.125000
G01 X44.226572 Y217.280273 Z-0.125000
G01 X45.076624 Y217.369438 Z-0.125000
G01 X46.032959 Y217.678947 Z-0.125000
G01 X49.357312 Y219.470676 Z-0.125000
G01 X50.602069 Y220.018205 Z-0.125000
G01 X51.770891 Y220.342107 Z-0.125000
G01 X52.939740 Y220.467149 Z-0.125000
G01 X54.108588 Y220.412354 Z-0.125000
G01 X55.277410 Y220.217224 Z-0.125000
G01 X60.484086 Y218.809007 Z-0.125000
G01 X63.565552 Y218.242032 Z-0.125000
G01 X67.178353 Y217.959458 Z-0.125000
G01 X72.810029 Y217.892809 Z-0.125000
G01 X80.354375 Y217.930909 Z-0.125000
G01 X84.710946 Y218.158292 Z-0.125000
G01 X88.642517 Y218.674017 Z-0.125000
G01 X96.718119 Y220.224738 Z-0.125000
G01 X98.949559 Y220.440585 Z-0.125000
G01 X101.074716 Y220.446406 Z-0.125000
G01 X102.987360 Y220.275432 Z-0.125000
G01 X105.006261 Y219.935099 Z-0.125000
G01 X111.700528 Y218.287647 Z-0.125000
G01 X114.356995 Y217.747977 Z-0.125000
G01 X117.119717 Y217.402140 Z-0.125000
G01 X119.988697 Y217.280697 Z-0.125000
G01 X129.870686 Y217.568140 Z-0.125000
G01 X132.739666 Y217.524880 Z-0.125000
G01 X138.477624 Y217.284136 Z-0.125000
G01 X141.240321 Y217.377164 Z-0.125000
G01 X142.727939 Y217.587639 Z-0.125000
G01 X144.215557 Y217.943345 Z-0.125000
G01 X145.809431 Y218.483650 Z-0.125000
G01 X149.634719 Y220.024105 Z-0.125000
G01 X150.803567 Y220.339990 Z-0.125000
G01 X151.759903 Y220.461434 Z-0.125000
G01 X152.822468 Y220.420000 Z-0.125000
G01 X153.991316 Y220.149332 Z-0.125000
G01 X155.099443 Y219.705123 Z-0.125000
G01 X157.922861 Y218.323074 Z-0.125000
G01 X158.879196 Y218.015973 Z-0.125000
G01 X159.729275 Y217.896778 Z-0.125000
G01 X160.579327 Y217.942419 Z-0.125000
G01 X161.429406 Y218.146783 Z-0.125000
G01 X164.404615 Y219.473005 Z-0.125000
G01 X165.573464 Y219.836727 Z-0.125000
G01 X166.848568 Y219.902899 Z-0.125000
G01 X168.123673 Y219.621859 Z-0.125000
G00 Z3.000000

(End cutting path id: polyline83983)


(Start cutting path id: polyline83981)
(Change tool to Default tool)

G00 Z3.000000
G00 X11.286517 Y220.155999

G00 Z4.875000 (Fast pre-penetrate)
G01 Z-0.125000 F400.0(Penetrate)
G01 X14.219235 Y215.775193 Z-0.125000 F800.000000
G01 X14.656405 Y215.317147 Z-0.125000
G01 X15.111805 Y215.107438 Z-0.125000
G01 X15.567206 Y215.298970 Z-0.125000
G01 X16.477980 Y216.163971 Z-0.125000
G01 X17.570919 Y216.893559 Z-0.125000
G01 X18.299554 Y217.564568 Z-0.125000
G01 X18.937094 Y217.912071 Z-0.125000
G01 X20.052814 Y218.920291 Z-0.125000
G01 X20.849764 Y219.405166 Z-0.125000
G01 X21.760538 Y220.288767 Z-0.125000
G01 X22.231099 Y220.540438 Z-0.125000
G01 X22.762408 Y220.634577 Z-0.125000
G01 X23.399947 Y220.478156 Z-0.125000
G01 X24.108342 Y219.989286 Z-0.125000
G01 X24.866319 Y219.175719 Z-0.125000
G01 X27.154407 Y216.243505 Z-0.125000
G01 X28.044940 Y215.494206 Z-0.125000
G01 X28.606597 Y215.289445 Z-0.125000
G01 X29.031649 Y215.414196 Z-0.125000
G01 X29.502210 Y215.700078 Z-0.125000
G01 X34.056133 Y219.356959 Z-0.125000
G01 X34.769582 Y219.709277 Z-0.125000
G01 X35.407121 Y219.823868 Z-0.125000
G01 X36.257199 Y219.686629 Z-0.125000
G01 X37.061717 Y219.290337 Z-0.125000
G01 X39.816846 Y217.085328 Z-0.125000
G01 X40.795936 Y216.445170 Z-0.125000
G01 X41.676362 Y216.084067 Z-0.125000
G01 X42.526441 Y215.957491 Z-0.125000
G01 X43.482749 Y216.067372 Z-0.125000
G01 X44.439085 Y216.398603 Z-0.125000
G01 X47.535738 Y218.099025 Z-0.125000
G01 X48.901939 Y218.710662 Z-0.125000
G01 X50.070760 Y219.030093 Z-0.125000
G01 X51.239609 Y219.145610 Z-0.125000
G01 X52.302200 Y219.091159 Z-0.125000
G01 X53.471022 Y218.893621 Z-0.125000
G01 X58.465159 Y217.509984 Z-0.125000
G01 X61.334138 Y216.947534 Z-0.125000
G01 X64.734400 Y216.645697 Z-0.125000
G01 X69.516023 Y216.569709 Z-0.125000
G01 X78.335448 Y216.593866 Z-0.125000
G01 X82.692045 Y216.805373 Z-0.125000
G01 X86.623590 Y217.330729 Z-0.125000
G01 X94.380449 Y218.905818 Z-0.125000
G01 X96.505606 Y219.121612 Z-0.125000
G01 X98.418250 Y219.122406 Z-0.125000
G01 X100.118381 Y218.956962 Z-0.125000
G01 X102.031052 Y218.601759 Z-0.125000
G01 X108.087753 Y216.931659 Z-0.125000
G01 X110.425450 Y216.393232 Z-0.125000
G01 X112.656864 Y216.068853 Z-0.125000
G01 X114.888277 Y215.957094 Z-0.125000
G01 X118.288539 Y216.143360 Z-0.125000
G01 X126.576681 Y217.155337 Z-0.125000
G01 X129.976969 Y217.307499 Z-0.125000
G01 X132.102127 Y217.249661 Z-0.125000
G01 X134.439797 Y217.048816 Z-0.125000
G01 X141.452834 Y216.035146 Z-0.125000
G01 X142.834195 Y215.957887 Z-0.125000
G01 X144.003043 Y215.998051 Z-0.125000
G01 X145.278148 Y216.181434 Z-0.125000
G01 X146.553253 Y216.525206 Z-0.125000
G01 X147.934588 Y217.065802 Z-0.125000
G01 X151.441133 Y218.693173 Z-0.125000
G01 X152.609955 Y219.038083 Z-0.125000
G01 X153.566290 Y219.145821 Z-0.125000
G01 X154.522599 Y219.068696 Z-0.125000
G01 X155.585191 Y218.767838 Z-0.125000
G01 X156.556687 Y218.330006 Z-0.125000
G01 X158.651496 Y217.207407 Z-0.125000
G01 X159.622992 Y216.803733 Z-0.125000
G01 X160.473071 Y216.604978 Z-0.125000
G01 X161.216866 Y216.575742 Z-0.125000
G01 X161.960689 Y216.685544 Z-0.125000
G01 X162.704484 Y216.919673 Z-0.125000
G01 X165.148437 Y218.083838 Z-0.125000
G01 X166.104746 Y218.435575 Z-0.125000
G01 X167.061082 Y218.594166 Z-0.125000
G01 X168.123673 Y218.512436 Z-0.125000
G00 Z3.000000

(End cutting path id: polyline83981)


(Start cutting path id: polyline83979)
(Change tool to Default tool)

G00 Z3.000000
G00 X11.286517 Y216.177253

G00 Z4.875000 (Fast pre-penetrate)
G01 Z-0.125000 F400.0(Penetrate)
G01 X12.844964 Y213.993094 Z-0.125000 F800.000000
G01 X13.128333 Y213.728908 Z-0.125000
G01 X13.381327 Y213.700756 Z-0.125000
G01 X13.907556 Y214.036644 Z-0.125000
G01 X14.838571 Y214.920907 Z-0.125000
G01 X15.749345 Y215.437267 Z-0.125000
G01 X16.386910 Y216.091766 Z-0.125000
G01 X17.570919 Y216.893559 Z-0.125000
G01 X18.299554 Y217.564568 Z-0.125000
G01 X18.937094 Y217.912071 Z-0.125000
G01 X20.052814 Y218.928308 Z-0.125000
G01 X20.530968 Y219.199664 Z-0.125000
G01 X21.062277 Y219.311106 Z-0.125000
G01 X21.760538 Y219.151775 Z-0.125000
G01 X22.443639 Y218.685182 Z-0.125000
G01 X23.258263 Y217.812958 Z-0.125000
G01 X24.930057 Y215.609484 Z-0.125000
G01 X25.595960 Y214.845025 Z-0.125000
G01 X26.405531 Y214.172905 Z-0.125000
G01 X27.012722 Y213.994496 Z-0.125000
G01 X27.407401 Y214.080803 Z-0.125000
G01 X27.862801 Y214.373300 Z-0.125000
G01 X28.591436 Y215.065396 Z-0.125000
G01 X31.050550 Y216.904645 Z-0.125000
G01 X32.325628 Y217.982529 Z-0.125000
G01 X33.069451 Y218.371863 Z-0.125000
G01 X33.706990 Y218.499816 Z-0.125000
G01 X34.557068 Y218.373292 Z-0.125000
G01 X35.422308 Y217.942868 Z-0.125000
G01 X38.063587 Y215.800937 Z-0.125000
G01 X39.065457 Y215.130589 Z-0.125000
G01 X39.976231 Y214.754061 Z-0.125000
G01 X40.826310 Y214.634073 Z-0.125000
G01 X41.676362 Y214.730937 Z-0.125000
G01 X42.617510 Y215.049098 Z-0.125000
G01 X45.714190 Y216.770660 Z-0.125000
G01 X46.989268 Y217.359622 Z-0.125000
G01 X48.158116 Y217.697177 Z-0.125000
G01 X49.326965 Y217.822245 Z-0.125000
G01 X50.389530 Y217.768270 Z-0.125000
G01 X51.558378 Y217.563800 Z-0.125000
G01 X56.446258 Y216.160108 Z-0.125000
G01 X58.996468 Y215.632768 Z-0.125000
G01 X61.971677 Y215.331487 Z-0.125000
G01 X65.903248 Y215.246688 Z-0.125000
G01 X76.847830 Y215.256240 Z-0.125000
G01 X80.991914 Y215.434225 Z-0.125000
G01 X83.010815 Y215.653882 Z-0.125000
G01 X85.029715 Y215.981435 Z-0.125000
G01 X92.467805 Y217.585576 Z-0.125000
G01 X94.380449 Y217.795416 Z-0.125000
G01 X96.186836 Y217.801131 Z-0.125000
G01 X97.886967 Y217.619204 Z-0.125000
G01 X99.587098 Y217.270325 Z-0.125000
G01 X105.112544 Y215.589905 Z-0.125000
G01 X107.131445 Y215.070926 Z-0.125000
G01 X109.044089 Y214.751892 Z-0.125000
G01 X110.956733 Y214.634390 Z-0.125000
G01 X112.550607 Y214.690799 Z-0.125000
G01 X114.356995 Y214.902016 Z-0.125000
G01 X123.176419 Y216.715838 Z-0.125000
G01 X125.726629 Y217.071782 Z-0.125000
G01 X128.276839 Y217.267944 Z-0.125000
G01 X131.783357 Y217.266092 Z-0.125000
G01 X135.183619 Y216.930944 Z-0.125000
G01 X138.052572 Y216.357196 Z-0.125000
G01 X143.365504 Y214.922283 Z-0.125000
G01 X144.534326 Y214.716332 Z-0.125000
G01 X145.703174 Y214.633914 Z-0.125000
G01 X147.084536 Y214.745568 Z-0.125000
G01 X148.465897 Y215.112439 Z-0.125000
G01 X149.816884 Y215.697538 Z-0.125000
G01 X152.822468 Y217.273553 Z-0.125000
G01 X153.778803 Y217.628412 Z-0.125000
G01 X154.628856 Y217.799120 Z-0.125000
G01 X155.585191 Y217.793353 Z-0.125000
G01 X156.647783 Y217.534590 Z-0.125000
G01 X157.558557 Y217.132186 Z-0.125000
G01 X160.290905 Y215.640785 Z-0.125000
G01 X161.110610 Y215.360300 Z-0.125000
G01 X161.854432 Y215.250551 Z-0.125000
G01 X162.491971 Y215.277301 Z-0.125000
G01 X163.235793 Y215.444570 Z-0.125000
G01 X164.085846 Y215.782733 Z-0.125000
G01 X166.529799 Y216.973807 Z-0.125000
G01 X167.379851 Y217.213096 Z-0.125000
G01 X168.123673 Y217.276252 Z-0.125000
G00 Z3.000000

(End cutting path id: polyline83979)


(Start cutting path id: polyline83977)
(Change tool to Default tool)

G00 Z3.000000
G00 X11.286517 Y212.452136

G00 Z4.875000 (Fast pre-penetrate)
G01 Z-0.125000 F400.0(Penetrate)
G01 X11.499030 Y212.428615 Z-0.125000 F800.000000
G01 X11.924057 Y212.620093 Z-0.125000
G01 X13.119469 Y213.645009 Z-0.125000
G01 X13.836701 Y213.979891 Z-0.125000
G01 X14.656405 Y214.780943 Z-0.125000
G01 X15.749345 Y215.437267 Z-0.125000
G01 X16.386910 Y216.091766 Z-0.125000
G01 X17.570919 Y216.893559 Z-0.125000
G01 X18.390624 Y217.629840 Z-0.125000
G01 X18.846024 Y217.879368 Z-0.125000
G01 X19.362146 Y217.987768 Z-0.125000
G01 X20.105942 Y217.816318 Z-0.125000
G01 X20.849764 Y217.289084 Z-0.125000
G01 X21.614806 Y216.458399 Z-0.125000
G01 X23.895829 Y213.558252 Z-0.125000
G01 X24.595360 Y212.953098 Z-0.125000
G01 X25.039356 Y212.681635 Z-0.125000
G01 X25.312591 Y212.616680 Z-0.125000
G01 X25.676922 Y212.774107 Z-0.125000
G01 X27.145543 Y213.959862 Z-0.125000
G01 X27.862801 Y214.373300 Z-0.125000
G01 X28.591436 Y215.065396 Z-0.125000
G01 X29.684376 Y215.846207 Z-0.125000
G01 X30.686219 Y216.687316 Z-0.125000
G01 X31.369320 Y217.043842 Z-0.125000
G01 X32.113115 Y217.178779 Z-0.125000
G01 X32.856937 Y217.050404 Z-0.125000
G01 X33.691829 Y216.635775 Z-0.125000
G01 X36.333082 Y214.471963 Z-0.125000
G01 X37.334952 Y213.795001 Z-0.125000
G01 X38.169843 Y213.442735 Z-0.125000
G01 X39.019922 Y213.311713 Z-0.125000
G01 X39.869974 Y213.405111 Z-0.125000
G01 X40.795936 Y213.721341 Z-0.125000
G01 X43.892615 Y215.476135 Z-0.125000
G01 X45.076624 Y216.033637 Z-0.125000
G01 X46.245472 Y216.378839 Z-0.125000
G01 X47.308064 Y216.498166 Z-0.125000
G01 X48.370629 Y216.447339 Z-0.125000
G01 X49.539478 Y216.235038 Z-0.125000
G01 X54.108588 Y214.855079 Z-0.125000
G01 X56.446258 Y214.325860 Z-0.125000
G01 X59.102724 Y214.014472 Z-0.125000
G01 X62.290473 Y213.923773 Z-0.125000
G01 X68.665945 Y213.977828 Z-0.125000
G01 X76.210291 Y213.926842 Z-0.125000
G01 X79.823066 Y214.072416 Z-0.125000
G01 X81.841966 Y214.294877 Z-0.125000
G01 X83.754637 Y214.619785 Z-0.125000
G01 X90.873930 Y216.258507 Z-0.125000
G01 X92.680318 Y216.471813 Z-0.125000
G01 X94.274192 Y216.483905 Z-0.125000
G01 X95.868067 Y216.312534 Z-0.125000
G01 X97.568198 Y215.940769 Z-0.125000
G01 X102.774847 Y214.216508 Z-0.125000
G01 X104.581235 Y213.716711 Z-0.125000
G01 X106.281366 Y213.414980 Z-0.125000
G01 X107.875240 Y213.311502 Z-0.125000
G01 X109.681628 Y213.408207 Z-0.125000
G01 X111.700528 Y213.751768 Z-0.125000
G01 X118.288539 Y215.606362 Z-0.125000
G01 X121.157519 Y216.264222 Z-0.125000
G01 X124.026498 Y216.684247 Z-0.125000
G01 X127.107990 Y216.907105 Z-0.125000
G01 X129.976969 Y216.966028 Z-0.125000
G01 X132.739666 Y216.911021 Z-0.125000
G01 X135.077362 Y216.748435 Z-0.125000
G01 X137.096263 Y216.473745 Z-0.125000
G01 X138.690137 Y216.137248 Z-0.125000
G01 X140.284012 Y215.680128 Z-0.125000
G01 X145.703174 Y213.673213 Z-0.125000
G01 X146.872023 Y213.402174 Z-0.125000
G01 X147.828332 Y213.312454 Z-0.125000
G01 X148.997180 Y213.402492 Z-0.125000
G01 X150.272285 Y213.769918 Z-0.125000
G01 X151.456294 Y214.333401 Z-0.125000
G01 X154.279738 Y215.949765 Z-0.125000
G01 X155.160165 Y216.303142 Z-0.125000
G01 X155.903960 Y216.469168 Z-0.125000
G01 X156.860296 Y216.470490 Z-0.125000
G01 X157.816604 Y216.228371 Z-0.125000
G01 X158.742592 Y215.799905 Z-0.125000
G01 X161.323149 Y214.322500 Z-0.125000
G01 X162.066945 Y214.051302 Z-0.125000
G01 X162.810741 Y213.929091 Z-0.125000
G01 X163.554563 Y213.970763 Z-0.125000
G01 X164.404615 Y214.205343 Z-0.125000
G01 X166.954825 Y215.478225 Z-0.125000
G01 X168.123673 Y215.876951 Z-0.125000
G00 Z3.000000

(End cutting path id: polyline83977)


(Start cutting path id: polyline83975)
(Change tool to Default tool)

G00 Z3.000000
G00 X11.286517 Y212.289232

G00 Z4.875000 (Fast pre-penetrate)
G01 Z-0.125000 F400.0(Penetrate)
G01 X12.003749 Y212.678725 Z-0.125000 F800.000000
G01 X13.199161 Y213.698878 Z-0.125000
G01 X13.836701 Y213.979891 Z-0.125000
G01 X14.656405 Y214.780943 Z-0.125000
G01 X15.749345 Y215.437267 Z-0.125000
G01 X16.660145 Y216.303036 Z-0.125000
G01 X17.130706 Y216.557935 Z-0.125000
G01 X17.662015 Y216.665806 Z-0.125000
G01 X18.390624 Y216.496684 Z-0.125000
G01 X19.096478 Y216.009693 Z-0.125000
G01 X19.893429 Y215.158609 Z-0.125000
G01 X22.124842 Y212.319077 Z-0.125000
G01 X23.035643 Y211.530620 Z-0.125000
G01 X23.506204 Y211.362716 Z-0.125000
G01 X23.824973 Y211.459236 Z-0.125000
G01 X24.401817 Y211.790732 Z-0.125000
G01 X27.145543 Y213.959862 Z-0.125000
G01 X27.862801 Y214.373300 Z-0.125000
G01 X29.046810 Y215.407661 Z-0.125000
G01 X29.775445 Y215.759821 Z-0.125000
G01 X30.412984 Y215.856288 Z-0.125000
G01 X31.156806 Y215.721297 Z-0.125000
G01 X31.961324 Y215.313046 Z-0.125000
G01 X34.636761 Y213.095496 Z-0.125000
G01 X35.513377 Y212.496613 Z-0.125000
G01 X36.363456 Y212.124186 Z-0.125000
G01 X37.213508 Y211.988878 Z-0.125000
G01 X38.063587 Y212.085927 Z-0.125000
G01 X38.974361 Y212.408083 Z-0.125000
G01 X41.979971 Y214.155151 Z-0.125000
G01 X43.163980 Y214.725301 Z-0.125000
G01 X44.332828 Y215.070397 Z-0.125000
G01 X45.395394 Y215.177420 Z-0.125000
G01 X46.457985 Y215.104872 Z-0.125000
G01 X47.520577 Y214.889845 Z-0.125000
G01 X51.770891 Y213.527401 Z-0.125000
G01 X53.896075 Y213.005220 Z-0.125000
G01 X56.233745 Y212.694309 Z-0.125000
G01 X58.890211 Y212.600885 Z-0.125000
G01 X66.540788 Y212.751115 Z-0.125000
G01 X75.466495 Y212.601520 Z-0.125000
G01 X78.866757 Y212.703490 Z-0.125000
G01 X80.779401 Y212.906002 Z-0.125000
G01 X82.692045 Y213.237524 Z-0.125000
G01 X89.598826 Y214.934136 Z-0.125000
G01 X91.298957 Y215.148687 Z-0.125000
G01 X92.786574 Y215.161493 Z-0.125000
G01 X94.274192 Y214.992159 Z-0.125000
G01 X95.868067 Y214.620050 Z-0.125000
G01 X100.755947 Y212.874516 Z-0.125000
G01 X102.349821 Y212.395648 Z-0.125000
G01 X103.943696 Y212.087541 Z-0.125000
G01 X105.431314 Y211.988137 Z-0.125000
G01 X107.131445 Y212.104818 Z-0.125000
G01 X109.044089 Y212.496057 Z-0.125000
G01 X110.744220 Y213.011941 Z-0.125000
G01 X115.100817 Y214.529827 Z-0.125000
G01 X117.544743 Y215.201127 Z-0.125000
G01 X119.988697 Y215.624936 Z-0.125000
G01 X122.538880 Y215.822368 Z-0.125000
G01 X135.821158 Y215.853298 Z-0.125000
G01 X137.627546 Y215.788369 Z-0.125000
G01 X139.115164 Y215.635572 Z-0.125000
G01 X140.602782 Y215.352627 Z-0.125000
G01 X141.984143 Y214.949720 Z-0.125000
G01 X143.578017 Y214.316150 Z-0.125000
G01 X147.509562 Y212.472509 Z-0.125000
G01 X148.678410 Y212.116327 Z-0.125000
G01 X149.634719 Y211.991603 Z-0.125000
G01 X150.697311 Y212.069814 Z-0.125000
G01 X151.866159 Y212.431446 Z-0.125000
G01 X152.913564 Y212.966882 Z-0.125000
G01 X155.645913 Y214.645609 Z-0.125000
G01 X156.435269 Y214.979856 Z-0.125000
G01 X157.179065 Y215.151650 Z-0.125000
G01 X158.029144 Y215.149533 Z-0.125000
G01 X158.985453 Y214.892465 Z-0.125000
G01 X159.926601 Y214.425423 Z-0.125000
G01 X162.203549 Y213.051602 Z-0.125000
G01 X162.916997 Y212.761804 Z-0.125000
G01 X163.660820 Y212.612235 Z-0.125000
G01 X164.404615 Y212.636683 Z-0.125000
G01 X165.254694 Y212.867029 Z-0.125000
G01 X168.123673 Y214.306228 Z-0.125000
G00 Z3.000000

(End cutting path id: polyline83975)


(Start cutting path id: polyline83973)
(Change tool to Default tool)

G00 Z3.000000
G00 X11.286517 Y212.289232

G00 Z4.875000 (Fast pre-penetrate)
G01 Z-0.125000 F400.0(Penetrate)
G01 X12.003749 Y212.678725 Z-0.125000 F800.000000
G01 X13.199161 Y213.698878 Z-0.125000
G01 X13.836701 Y213.979891 Z-0.125000
G01 X14.474266 Y214.627194 Z-0.125000
G01 X15.020736 Y215.053807 Z-0.125000
G01 X15.536832 Y215.285794 Z-0.125000
G01 X15.961884 Y215.342573 Z-0.125000
G01 X16.660145 Y215.170118 Z-0.125000
G01 X17.422911 Y214.632935 Z-0.125000
G01 X18.228725 Y213.759467 Z-0.125000
G01 X20.424711 Y210.979917 Z-0.125000
G01 X21.214068 Y210.277237 Z-0.125000
G01 X21.699816 Y210.090680 Z-0.125000
G01 X22.215938 Y210.179844 Z-0.125000
G01 X22.671312 Y210.441332 Z-0.125000
G01 X23.491017 Y211.184863 Z-0.125000
G01 X24.583983 Y211.929770 Z-0.125000
G01 X27.316331 Y214.078607 Z-0.125000
G01 X27.969058 Y214.410288 Z-0.125000
G01 X28.606597 Y214.532446 Z-0.125000
G01 X29.350419 Y214.421348 Z-0.125000
G01 X30.230845 Y213.979494 Z-0.125000
G01 X32.803809 Y211.815470 Z-0.125000
G01 X33.782899 Y211.138826 Z-0.125000
G01 X34.557068 Y210.801032 Z-0.125000
G01 X35.407121 Y210.665619 Z-0.125000
G01 X36.257199 Y210.771161 Z-0.125000
G01 X37.152813 Y211.103504 Z-0.125000
G01 X40.067300 Y212.846259 Z-0.125000
G01 X41.251336 Y213.426807 Z-0.125000
G01 X42.313928 Y213.746159 Z-0.125000
G01 X43.376493 Y213.854902 Z-0.125000
G01 X44.332828 Y213.786111 Z-0.125000
G01 X45.395394 Y213.562644 Z-0.125000
G01 X49.433221 Y212.188638 Z-0.125000
G01 X51.345865 Y211.680268 Z-0.125000
G01 X53.364766 Y211.376633 Z-0.125000
G01 X55.702462 Y211.277970 Z-0.125000
G01 X65.371939 Y211.605285 Z-0.125000
G01 X68.559688 Y211.556311 Z-0.125000
G01 X75.147699 Y211.287257 Z-0.125000
G01 X78.335448 Y211.351947 Z-0.125000
G01 X80.248092 Y211.558428 Z-0.125000
G01 X82.054506 Y211.892966 Z-0.125000
G01 X87.048642 Y213.257262 Z-0.125000
G01 X88.642517 Y213.623128 Z-0.125000
G01 X90.130108 Y213.822464 Z-0.125000
G01 X91.511470 Y213.841858 Z-0.125000
G01 X92.999088 Y213.663953 Z-0.125000
G01 X94.486705 Y213.290785 Z-0.125000
G01 X99.055816 Y211.540806 Z-0.125000
G01 X100.543434 Y211.061832 Z-0.125000
G01 X101.924795 Y210.771637 Z-0.125000
G01 X103.306130 Y210.665381 Z-0.125000
G01 X105.006261 Y210.799524 Z-0.125000
G01 X106.706392 Y211.195896 Z-0.125000
G01 X108.300266 Y211.742075 Z-0.125000
G01 X112.338094 Y213.338701 Z-0.125000
G01 X114.356995 Y213.969864 Z-0.125000
G01 X116.269639 Y214.354726 Z-0.125000
G01 X118.288539 Y214.524747 Z-0.125000
G01 X120.732492 Y214.465877 Z-0.125000
G01 X126.789221 Y213.874587 Z-0.125000
G01 X129.976969 Y213.738406 Z-0.125000
G01 X133.164692 Y213.869375 Z-0.125000
G01 X139.115164 Y214.497839 Z-0.125000
G01 X140.496525 Y214.530568 Z-0.125000
G01 X141.665373 Y214.452516 Z-0.125000
G01 X143.046708 Y214.196029 Z-0.125000
G01 X144.321813 Y213.779549 Z-0.125000
G01 X145.718362 Y213.134337 Z-0.125000
G01 X149.315949 Y211.173407 Z-0.125000
G01 X150.378541 Y210.802832 Z-0.125000
G01 X151.334850 Y210.666836 Z-0.125000
G01 X152.291185 Y210.754810 Z-0.125000
G01 X153.247521 Y211.071277 Z-0.125000
G01 X154.279738 Y211.628648 Z-0.125000
G01 X156.829921 Y213.299490 Z-0.125000
G01 X157.604091 Y213.650697 Z-0.125000
G01 X158.347914 Y213.831037 Z-0.125000
G01 X159.197966 Y213.818099 Z-0.125000
G01 X160.048045 Y213.573201 Z-0.125000
G01 X160.837375 Y213.174104 Z-0.125000
G01 X163.114350 Y211.751388 Z-0.125000
G01 X163.767076 Y211.466697 Z-0.125000
G01 X164.404615 Y211.308767 Z-0.125000
G01 X165.148437 Y211.295194 Z-0.125000
G01 X165.892233 Y211.461405 Z-0.125000
G01 X166.757499 Y211.835473 Z-0.125000
G01 X168.123673 Y212.594350 Z-0.125000
G00 Z3.000000

(End cutting path id: polyline83973)


(Start cutting path id: polyline83971)
(Change tool to Default tool)

G00 Z3.000000
G00 X11.286517 Y212.289232

G00 Z4.875000 (Fast pre-penetrate)
G01 Z-0.125000 F400.0(Penetrate)
G01 X11.924057 Y212.620093 Z-0.125000 F800.000000
G01 X13.039777 Y213.585160 Z-0.125000
G01 X13.472396 Y213.850590 Z-0.125000
G01 X14.155497 Y214.019341 Z-0.125000
G01 X14.793036 Y213.895436 Z-0.125000
G01 X15.350883 Y213.575503 Z-0.125000
G01 X16.032713 Y212.953891 Z-0.125000
G01 X18.172052 Y210.245064 Z-0.125000
G01 X18.866265 Y209.475313 Z-0.125000
G01 X19.494967 Y208.955196 Z-0.125000
G01 X20.105942 Y208.718341 Z-0.125000
G01 X20.394364 Y208.779089 Z-0.125000
G01 X20.758668 Y209.014356 Z-0.125000
G01 X21.806073 Y209.914494 Z-0.125000
G01 X22.762408 Y210.508562 Z-0.125000
G01 X23.399947 Y211.112182 Z-0.125000
G01 X24.583983 Y211.929770 Z-0.125000
G01 X25.585826 Y212.761328 Z-0.125000
G01 X26.268927 Y213.101661 Z-0.125000
G01 X26.906466 Y213.209981 Z-0.125000
G01 X27.650288 Y213.080415 Z-0.125000
G01 X28.500340 Y212.638588 Z-0.125000
G01 X30.970858 Y210.529782 Z-0.125000
G01 X31.961324 Y209.827102 Z-0.125000
G01 X32.750681 Y209.475445 Z-0.125000
G01 X33.600733 Y209.342281 Z-0.125000
G01 X34.450812 Y209.459173 Z-0.125000
G01 X35.331238 Y209.802814 Z-0.125000
G01 X38.154656 Y211.541071 Z-0.125000
G01 X39.247596 Y212.094288 Z-0.125000
G01 X40.295001 Y212.422794 Z-0.125000
G01 X41.251336 Y212.531088 Z-0.125000
G01 X42.207645 Y212.467456 Z-0.125000
G01 X43.270236 Y212.234093 Z-0.125000
G01 X47.095525 Y210.850509 Z-0.125000
G01 X48.795656 Y210.360713 Z-0.125000
G01 X50.495786 Y210.067979 Z-0.125000
G01 X52.302200 Y209.957171 Z-0.125000
G01 X54.639871 Y210.024164 Z-0.125000
G01 X60.696599 Y210.457127 Z-0.125000
G01 X63.990604 Y210.546556 Z-0.125000
G01 X67.922149 Y210.445803 Z-0.125000
G01 X75.041442 Y209.981010 Z-0.125000
G01 X78.122935 Y210.013924 Z-0.125000
G01 X79.823066 Y210.201778 Z-0.125000
G01 X81.523197 Y210.531766 Z-0.125000
G01 X87.686182 Y212.272961 Z-0.125000
G01 X88.961286 Y212.475631 Z-0.125000
G01 X90.130108 Y212.531432 Z-0.125000
G01 X91.617726 Y212.397129 Z-0.125000
G01 X93.105344 Y212.037058 Z-0.125000
G01 X94.486705 Y211.540039 Z-0.125000
G01 X97.780711 Y210.151455 Z-0.125000
G01 X99.268329 Y209.663908 Z-0.125000
G01 X100.649690 Y209.398663 Z-0.125000
G01 X102.031052 Y209.352202 Z-0.125000
G01 X103.412386 Y209.529473 Z-0.125000
G01 X105.006261 Y209.977121 Z-0.125000
G01 X109.787884 Y212.014410 Z-0.125000
G01 X111.594272 Y212.655786 Z-0.125000
G01 X113.400686 Y213.064328 Z-0.125000
G01 X115.207073 Y213.209849 Z-0.125000
G01 X116.694691 Y213.147037 Z-0.125000
G01 X118.288539 Y212.935344 Z-0.125000
G01 X123.813985 Y211.759934 Z-0.125000
G01 X126.045398 Y211.373220 Z-0.125000
G01 X128.064299 Y211.152293 Z-0.125000
G01 X130.083226 Y211.074611 Z-0.125000
G01 X132.102127 Y211.150705 Z-0.125000
G01 X134.014771 Y211.368907 Z-0.125000
G01 X136.246184 Y211.794118 Z-0.125000
G01 X141.240321 Y213.009401 Z-0.125000
G01 X142.727939 Y213.195773 Z-0.125000
G01 X144.003043 Y213.173098 Z-0.125000
G01 X145.171892 Y212.960427 Z-0.125000
G01 X146.340714 Y212.546592 Z-0.125000
G01 X147.631006 Y211.876695 Z-0.125000
G01 X150.818754 Y209.914997 Z-0.125000
G01 X151.866159 Y209.495606 Z-0.125000
G01 X152.716211 Y209.347731 Z-0.125000
G01 X153.566290 Y209.405013 Z-0.125000
G01 X154.522599 Y209.718121 Z-0.125000
G01 X155.463747 Y210.243424 Z-0.125000
G01 X158.013957 Y211.997000 Z-0.125000
G01 X158.772940 Y212.347599 Z-0.125000
G01 X159.516735 Y212.517912 Z-0.125000
G01 X160.260558 Y212.492379 Z-0.125000
G01 X161.110610 Y212.230336 Z-0.125000
G01 X161.930314 Y211.788668 Z-0.125000
G01 X163.934054 Y210.482554 Z-0.125000
G01 X164.617128 Y210.162488 Z-0.125000
G01 X165.148437 Y210.010432 Z-0.125000
G01 X165.785977 Y209.956483 Z-0.125000
G01 X166.529799 Y210.072979 Z-0.125000
G01 X167.167338 Y210.306606 Z-0.125000
G01 X168.123673 Y210.808996 Z-0.125000
G00 Z3.000000

(End cutting path id: polyline83971)


(Start cutting path id: polyline83967)
(Change tool to Default tool)

G00 Z3.000000
G00 X11.286517 Y211.233440

G00 Z4.875000 (Fast pre-penetrate)
G01 Z-0.125000 F400.0(Penetrate)
G01 X11.924057 Y210.844186 Z-0.125000 F800.000000
G01 X12.632451 Y210.168097 Z-0.125000
G01 X14.615924 Y207.658157 Z-0.125000
G01 X15.350883 Y206.841151 Z-0.125000
G01 X16.113675 Y206.216947 Z-0.125000
G01 X16.493167 Y206.094524 Z-0.125000
G01 X16.918193 Y206.225731 Z-0.125000
G01 X17.388780 Y206.498675 Z-0.125000
G01 X20.132506 Y208.663731 Z-0.125000
G01 X20.849764 Y209.081613 Z-0.125000
G01 X22.124842 Y210.148544 Z-0.125000
G01 X22.762408 Y210.459747 Z-0.125000
G01 X23.399947 Y210.564654 Z-0.125000
G01 X24.128582 Y210.431727 Z-0.125000
G01 X24.948287 Y209.997732 Z-0.125000
G01 X27.464339 Y207.813652 Z-0.125000
G01 X28.318175 Y207.196512 Z-0.125000
G01 X29.137906 Y206.821387 Z-0.125000
G01 X29.881702 Y206.697218 Z-0.125000
G01 X30.731780 Y206.806835 Z-0.125000
G01 X31.597020 Y207.153941 Z-0.125000
G01 X34.329368 Y208.918366 Z-0.125000
G01 X35.422308 Y209.492326 Z-0.125000
G01 X36.363456 Y209.790722 Z-0.125000
G01 X37.319791 Y209.885919 Z-0.125000
G01 X38.169843 Y209.804983 Z-0.125000
G01 X39.126179 Y209.560853 Z-0.125000
G01 X42.526441 Y208.175734 Z-0.125000
G01 X44.014059 Y207.687578 Z-0.125000
G01 X45.501650 Y207.399024 Z-0.125000
G01 X46.989268 Y207.309198 Z-0.125000
G01 X49.220708 Y207.451914 Z-0.125000
G01 X56.340002 Y208.390311 Z-0.125000
G01 X58.890211 Y208.562105 Z-0.125000
G01 X61.440395 Y208.619916 Z-0.125000
G01 X66.222018 Y208.439735 Z-0.125000
G01 X68.878484 Y208.177216 Z-0.125000
G01 X74.828929 Y207.413709 Z-0.125000
G01 X76.422804 Y207.315628 Z-0.125000
G01 X77.910422 Y207.338832 Z-0.125000
G01 X79.398040 Y207.503085 Z-0.125000
G01 X80.991914 Y207.846196 Z-0.125000
G01 X86.517333 Y209.625808 Z-0.125000
G01 X87.792438 Y209.844565 Z-0.125000
G01 X88.961286 Y209.877770 Z-0.125000
G01 X90.236391 Y209.709442 Z-0.125000
G01 X91.511470 Y209.337518 Z-0.125000
G01 X95.443041 Y207.543434 Z-0.125000
G01 X96.718119 Y207.057871 Z-0.125000
G01 X97.993224 Y206.762729 Z-0.125000
G01 X99.268329 Y206.705843 Z-0.125000
G01 X100.543434 Y206.897930 Z-0.125000
G01 X101.924795 Y207.355236 Z-0.125000
G01 X106.008131 Y209.402367 Z-0.125000
G01 X107.556471 Y210.052077 Z-0.125000
G01 X109.044089 Y210.444057 Z-0.125000
G01 X110.425450 Y210.564628 Z-0.125000
G01 X111.913068 Y210.433685 Z-0.125000
G01 X113.506942 Y210.039166 Z-0.125000
G01 X114.994534 Y209.504523 Z-0.125000
G01 X119.138618 Y207.808334 Z-0.125000
G01 X121.688828 Y206.997943 Z-0.125000
G01 X124.239011 Y206.485895 Z-0.125000
G01 X127.214247 Y206.198929 Z-0.125000
G01 X130.083226 Y206.120956 Z-0.125000
G01 X132.952179 Y206.181413 Z-0.125000
G01 X135.183619 Y206.363341 Z-0.125000
G01 X137.096263 Y206.678882 Z-0.125000
G01 X138.690137 Y207.100522 Z-0.125000
G01 X140.177755 Y207.645113 Z-0.125000
G01 X145.384405 Y210.132378 Z-0.125000
G01 X146.446997 Y210.449931 Z-0.125000
G01 X147.403305 Y210.563728 Z-0.125000
G01 X148.465897 Y210.455275 Z-0.125000
G01 X149.634719 Y210.030593 Z-0.125000
G01 X150.727685 Y209.375777 Z-0.125000
G01 X153.460034 Y207.375688 Z-0.125000
G01 X154.310086 Y206.938200 Z-0.125000
G01 X155.053908 Y206.729576 Z-0.125000
G01 X155.903960 Y206.729841 Z-0.125000
G01 X156.829921 Y207.026200 Z-0.125000
G01 X157.740722 Y207.573490 Z-0.125000
G01 X160.199836 Y209.399113 Z-0.125000
G01 X160.898097 Y209.728916 Z-0.125000
G01 X161.641919 Y209.882241 Z-0.125000
G01 X162.385715 Y209.810963 Z-0.125000
G01 X163.114350 Y209.537331 Z-0.125000
G01 X165.482394 Y207.963777 Z-0.125000
G01 X166.317286 Y207.528670 Z-0.125000
G01 X167.273595 Y207.312135 Z-0.125000
G01 X168.123673 Y207.409793 Z-0.125000
G00 Z3.000000

(End cutting path id: polyline83967)


(Start cutting path id: polyline83965)
(Change tool to Default tool)

G00 Z3.000000
G00 X11.286517 Y208.354433

G00 Z4.875000 (Fast pre-penetrate)
G01 Z-0.125000 F400.0(Penetrate)
G01 X13.482503 Y205.629890 Z-0.125000 F800.000000
G01 X14.292101 Y204.942847 Z-0.125000
G01 X14.793036 Y204.793887 Z-0.125000
G01 X15.202875 Y204.866330 Z-0.125000
G01 X15.658275 Y205.135305 Z-0.125000
G01 X16.477980 Y205.891457 Z-0.125000
G01 X17.662015 Y206.706558 Z-0.125000
G01 X18.299554 Y207.281020 Z-0.125000
G01 X19.096478 Y207.806270 Z-0.125000
G01 X20.303294 Y208.784778 Z-0.125000
G01 X20.956021 Y209.121671 Z-0.125000
G01 X21.593560 Y209.241342 Z-0.125000
G01 X22.337356 Y209.115797 Z-0.125000
G01 X23.126712 Y208.704979 Z-0.125000
G01 X23.878102 Y208.117843 Z-0.125000
G01 X25.711053 Y206.452108 Z-0.125000
G01 X26.496627 Y205.881535 Z-0.125000
G01 X27.331492 Y205.494953 Z-0.125000
G01 X28.075314 Y205.374012 Z-0.125000
G01 X28.925366 Y205.494238 Z-0.125000
G01 X29.775445 Y205.848700 Z-0.125000
G01 X32.416724 Y207.595556 Z-0.125000
G01 X33.418594 Y208.141735 Z-0.125000
G01 X34.344555 Y208.456562 Z-0.125000
G01 X35.300864 Y208.563084 Z-0.125000
G01 X36.150943 Y208.479952 Z-0.125000
G01 X37.107252 Y208.221824 Z-0.125000
G01 X40.401257 Y206.807575 Z-0.125000
G01 X41.676362 Y206.366119 Z-0.125000
G01 X43.057723 Y206.075924 Z-0.125000
G01 X44.439085 Y205.986283 Z-0.125000
G01 X46.564242 Y206.152706 Z-0.125000
G01 X51.452122 Y207.007203 Z-0.125000
G01 X54.002331 Y207.347589 Z-0.125000
G01 X56.977541 Y207.573623 Z-0.125000
G01 X60.271546 Y207.651754 Z-0.125000
G01 X63.459295 Y207.585502 Z-0.125000
G01 X66.328274 Y207.392833 Z-0.125000
G01 X69.197254 Y207.049325 Z-0.125000
G01 X74.935186 Y206.134159 Z-0.125000
G01 X76.529060 Y206.000068 Z-0.125000
G01 X78.016678 Y206.011657 Z-0.125000
G01 X79.398040 Y206.171835 Z-0.125000
G01 X80.885658 Y206.512909 Z-0.125000
G01 X84.923459 Y207.947293 Z-0.125000
G01 X86.198564 Y208.324006 Z-0.125000
G01 X87.367412 Y208.526518 Z-0.125000
G01 X88.429977 Y208.554749 Z-0.125000
G01 X89.598826 Y208.395417 Z-0.125000
G01 X90.873930 Y208.005343 Z-0.125000
G01 X94.623336 Y206.201839 Z-0.125000
G01 X95.868067 Y205.709900 Z-0.125000
G01 X97.036915 Y205.434257 Z-0.125000
G01 X98.099480 Y205.377901 Z-0.125000
G01 X99.374585 Y205.566893 Z-0.125000
G01 X100.649690 Y206.008032 Z-0.125000
G01 X104.641957 Y208.139036 Z-0.125000
G01 X106.068853 Y208.768400 Z-0.125000
G01 X107.343958 Y209.122597 Z-0.125000
G01 X108.619062 Y209.241686 Z-0.125000
G01 X110.000397 Y209.102515 Z-0.125000
G01 X111.594272 Y208.642697 Z-0.125000
G01 X113.021168 Y208.037992 Z-0.125000
G01 X116.694691 Y206.268699 Z-0.125000
G01 X118.926105 Y205.427061 Z-0.125000
G01 X121.051262 Y204.923295 Z-0.125000
G01 X123.388959 Y204.673528 Z-0.125000
G01 X135.927415 Y204.633656 Z-0.125000
G01 X137.627546 Y204.714618 Z-0.125000
G01 X139.008907 Y204.897154 Z-0.125000
G01 X140.602782 Y205.295616 Z-0.125000
G01 X142.166282 Y205.919238 Z-0.125000
G01 X143.532483 Y206.644301 Z-0.125000
G01 X146.264831 Y208.298818 Z-0.125000
G01 X147.297049 Y208.813115 Z-0.125000
G01 X148.253384 Y209.132598 Z-0.125000
G01 X149.103436 Y209.240998 Z-0.125000
G01 X150.059772 Y209.131276 Z-0.125000
G01 X151.091989 Y208.727892 Z-0.125000
G01 X152.184929 Y208.022541 Z-0.125000
G01 X154.735139 Y206.036528 Z-0.125000
G01 X155.478934 Y205.631345 Z-0.125000
G01 X156.222730 Y205.407111 Z-0.125000
G01 X157.072809 Y205.413408 Z-0.125000
G01 X157.922861 Y205.702783 Z-0.125000
G01 X158.742592 Y206.207395 Z-0.125000
G01 X161.110610 Y208.035346 Z-0.125000
G01 X161.854432 Y208.405075 Z-0.125000
G01 X162.598228 Y208.560094 Z-0.125000
G01 X163.235793 Y208.504161 Z-0.125000
G01 X163.842985 Y208.297151 Z-0.125000
G01 X164.571594 Y207.888212 Z-0.125000
G01 X166.757499 Y206.391386 Z-0.125000
G01 X167.486108 Y206.090000 Z-0.125000
G01 X168.123673 Y205.987712 Z-0.125000
G00 Z3.000000

(End cutting path id: polyline83965)


(Start cutting path id: polyline83963)
(Change tool to Default tool)

G00 Z3.000000
G00 X11.286517 Y204.797327

G00 Z4.875000 (Fast pre-penetrate)
G01 Z-0.125000 F400.0(Penetrate)
G01 X12.402211 Y203.727670 Z-0.125000 F800.000000
G01 X12.925927 Y203.413928 Z-0.125000
G01 X13.290231 Y203.378659 Z-0.125000
G01 X13.916393 Y203.816147 Z-0.125000
G01 X15.032113 Y204.779361 Z-0.125000
G01 X15.749345 Y205.204123 Z-0.125000
G01 X16.477980 Y205.891457 Z-0.125000
G01 X17.662015 Y206.706558 Z-0.125000
G01 X18.481720 Y207.415561 Z-0.125000
G01 X19.149633 Y207.780606 Z-0.125000
G01 X19.893429 Y207.918189 Z-0.125000
G01 X20.637225 Y207.768038 Z-0.125000
G01 X21.487303 Y207.290836 Z-0.125000
G01 X23.878102 Y205.162160 Z-0.125000
G01 X24.675052 Y204.571267 Z-0.125000
G01 X25.525104 Y204.170556 Z-0.125000
G01 X26.268927 Y204.051070 Z-0.125000
G01 X27.118979 Y204.179525 Z-0.125000
G01 X27.953871 Y204.539147 Z-0.125000
G01 X30.504080 Y206.263090 Z-0.125000
G01 X31.505924 Y206.822762 Z-0.125000
G01 X32.431911 Y207.141135 Z-0.125000
G01 X33.281964 Y207.240142 Z-0.125000
G01 X34.132042 Y207.160503 Z-0.125000
G01 X35.088351 Y206.894253 Z-0.125000
G01 X38.169843 Y205.507071 Z-0.125000
G01 X39.444948 Y205.036907 Z-0.125000
G01 X40.720053 Y204.751977 Z-0.125000
G01 X41.995132 Y204.663289 Z-0.125000
G01 X44.014059 Y204.846724 Z-0.125000
G01 X48.901939 Y205.853357 Z-0.125000
G01 X51.558378 Y206.251078 Z-0.125000
G01 X54.852384 Y206.502723 Z-0.125000
G01 X59.102724 Y206.588395 Z-0.125000
G01 X63.246782 Y206.517857 Z-0.125000
G01 X66.647044 Y206.291030 Z-0.125000
G01 X69.622280 Y205.890742 Z-0.125000
G01 X75.360239 Y204.817726 Z-0.125000
G01 X76.847830 Y204.676915 Z-0.125000
G01 X78.122935 Y204.683529 Z-0.125000
G01 X79.398040 Y204.833707 Z-0.125000
G01 X80.779401 Y205.163457 Z-0.125000
G01 X85.773537 Y206.974289 Z-0.125000
G01 X86.942386 Y207.198761 Z-0.125000
G01 X88.004951 Y207.231437 Z-0.125000
G01 X89.173799 Y207.057818 Z-0.125000
G01 X90.342648 Y206.675866 Z-0.125000
G01 X93.894701 Y204.880538 Z-0.125000
G01 X95.017988 Y204.409316 Z-0.125000
G01 X96.186836 Y204.112348 Z-0.125000
G01 X97.249428 Y204.057209 Z-0.125000
G01 X98.418250 Y204.246253 Z-0.125000
G01 X99.587098 Y204.671756 Z-0.125000
G01 X100.725573 Y205.256616 Z-0.125000
G01 X103.366852 Y206.810883 Z-0.125000
G01 X104.687491 Y207.435828 Z-0.125000
G01 X105.856340 Y207.790422 Z-0.125000
G01 X107.025188 Y207.918639 Z-0.125000
G01 X108.406549 Y207.769917 Z-0.125000
G01 X109.894141 Y207.289910 Z-0.125000
G01 X111.199620 Y206.671871 Z-0.125000
G01 X114.569508 Y204.841618 Z-0.125000
G01 X116.482152 Y204.017257 Z-0.125000
G01 X118.182283 Y203.547278 Z-0.125000
G01 X119.988697 Y203.325663 Z-0.125000
G01 X122.432623 Y203.380829 Z-0.125000
G01 X128.808121 Y204.098748 Z-0.125000
G01 X130.720765 Y204.196273 Z-0.125000
G01 X132.952179 Y204.078587 Z-0.125000
G01 X138.583881 Y203.347941 Z-0.125000
G01 X139.965242 Y203.309973 Z-0.125000
G01 X141.240321 Y203.420172 Z-0.125000
G01 X142.515426 Y203.717907 Z-0.125000
G01 X143.714622 Y204.194501 Z-0.125000
G01 X145.080796 Y204.961262 Z-0.125000
G01 X147.631006 Y206.722671 Z-0.125000
G01 X148.632876 Y207.330524 Z-0.125000
G01 X149.634719 Y207.756793 Z-0.125000
G01 X150.591054 Y207.917766 Z-0.125000
G01 X151.547390 Y207.792538 Z-0.125000
G01 X152.458164 Y207.401776 Z-0.125000
G01 X153.460034 Y206.715130 Z-0.125000
G01 X155.828078 Y204.762005 Z-0.125000
G01 X156.556687 Y204.332375 Z-0.125000
G01 X157.285322 Y204.090546 Z-0.125000
G01 X158.135400 Y204.089223 Z-0.125000
G01 X158.924731 Y204.362246 Z-0.125000
G01 X159.835531 Y204.947028 Z-0.125000
G01 X162.112480 Y206.749923 Z-0.125000
G01 X162.810741 Y207.094648 Z-0.125000
G01 X163.448306 Y207.233660 Z-0.125000
G01 X164.192102 Y207.165080 Z-0.125000
G01 X164.935924 Y206.867054 Z-0.125000
G01 X167.212873 Y205.289292 Z-0.125000
G01 X168.123673 Y204.824949 Z-0.125000
G00 Z3.000000

(End cutting path id: polyline83963)


(Start cutting path id: polyline83961)
(Change tool to Default tool)

G00 Z3.000000
G00 X11.286517 Y202.081356

G00 Z4.875000 (Fast pre-penetrate)
G01 Z-0.125000 F400.0(Penetrate)
G01 X11.605287 Y202.139617 Z-0.125000 F800.000000
G01 X12.083441 Y202.402559 Z-0.125000
G01 X13.199161 Y203.358498 Z-0.125000
G01 X13.916393 Y203.816147 Z-0.125000
G01 X14.952421 Y204.719513 Z-0.125000
G01 X15.749345 Y205.204123 Z-0.125000
G01 X16.842311 Y206.163951 Z-0.125000
G01 X17.449476 Y206.474783 Z-0.125000
G01 X18.087041 Y206.595089 Z-0.125000
G01 X18.830837 Y206.464887 Z-0.125000
G01 X19.654352 Y206.020838 Z-0.125000
G01 X22.045150 Y203.884066 Z-0.125000
G01 X22.944547 Y203.212607 Z-0.125000
G01 X23.718717 Y202.849916 Z-0.125000
G01 X24.462539 Y202.728208 Z-0.125000
G01 X25.206335 Y202.829570 Z-0.125000
G01 X26.041226 Y203.172946 Z-0.125000
G01 X28.682506 Y204.977799 Z-0.125000
G01 X29.593280 Y205.494344 Z-0.125000
G01 X30.519241 Y205.820575 Z-0.125000
G01 X31.369320 Y205.917306 Z-0.125000
G01 X32.219372 Y205.826158 Z-0.125000
G01 X33.069451 Y205.578746 Z-0.125000
G01 X36.059847 Y204.179711 Z-0.125000
G01 X37.319791 Y203.696000 Z-0.125000
G01 X38.488613 Y203.425543 Z-0.125000
G01 X39.657461 Y203.340506 Z-0.125000
G01 X41.570105 Y203.534631 Z-0.125000
G01 X46.351729 Y204.655669 Z-0.125000
G01 X49.114452 Y205.097020 Z-0.125000
G01 X52.408457 Y205.319164 Z-0.125000
G01 X57.508850 Y205.369726 Z-0.125000
G01 X63.459295 Y205.333451 Z-0.125000
G01 X67.072097 Y205.131045 Z-0.125000
G01 X70.153563 Y204.690541 Z-0.125000
G01 X75.679008 Y203.511189 Z-0.125000
G01 X76.954086 Y203.365165 Z-0.125000
G01 X78.229191 Y203.355058 Z-0.125000
G01 X79.504296 Y203.509575 Z-0.125000
G01 X80.779401 Y203.832578 Z-0.125000
G01 X84.498433 Y205.308104 Z-0.125000
G01 X85.561024 Y205.659365 Z-0.125000
G01 X86.623590 Y205.873174 Z-0.125000
G01 X87.579925 Y205.912385 Z-0.125000
G01 X88.642517 Y205.766653 Z-0.125000
G01 X89.811339 Y205.386209 Z-0.125000
G01 X93.257135 Y203.571487 Z-0.125000
G01 X94.380449 Y203.077987 Z-0.125000
G01 X95.443041 Y202.794116 Z-0.125000
G01 X96.505606 Y202.735458 Z-0.125000
G01 X97.568198 Y202.914819 Z-0.125000
G01 X98.721859 Y203.354688 Z-0.125000
G01 X99.814799 Y203.949259 Z-0.125000
G01 X102.273912 Y205.479871 Z-0.125000
G01 X103.518669 Y206.106986 Z-0.125000
G01 X104.687491 Y206.479704 Z-0.125000
G01 X105.750083 Y206.595856 Z-0.125000
G01 X107.025188 Y206.444885 Z-0.125000
G01 X108.467245 Y205.935510 Z-0.125000
G01 X109.742350 Y205.268523 Z-0.125000
G01 X112.839029 Y203.419987 Z-0.125000
G01 X114.463251 Y202.648992 Z-0.125000
G01 X115.950869 Y202.192242 Z-0.125000
G01 X117.438487 Y201.995075 Z-0.125000
G01 X118.819848 Y202.022803 Z-0.125000
G01 X120.413723 Y202.248599 Z-0.125000
G01 X125.939142 Y203.614403 Z-0.125000
G01 X127.426760 Y203.916133 Z-0.125000
G01 X129.020634 Y204.118486 Z-0.125000
G01 X130.720765 Y204.196273 Z-0.125000
G01 X133.058435 Y204.066522 Z-0.125000
G01 X135.502389 Y203.647396 Z-0.125000
G01 X137.202520 Y203.210331 Z-0.125000
G01 X139.008907 Y202.555144 Z-0.125000
G01 X140.921551 Y202.120170 Z-0.125000
G01 X142.196656 Y201.987270 Z-0.125000
G01 X143.259248 Y202.034339 Z-0.125000
G01 X144.428070 Y202.296118 Z-0.125000
G01 X145.536196 Y202.767366 Z-0.125000
G01 X146.811301 Y203.558734 Z-0.125000
G01 X149.179345 Y205.372292 Z-0.125000
G01 X150.090119 Y205.982209 Z-0.125000
G01 X151.122337 Y206.452743 Z-0.125000
G01 X151.972416 Y206.595353 Z-0.125000
G01 X152.822468 Y206.478355 Z-0.125000
G01 X153.733269 Y206.065738 Z-0.125000
G01 X154.655420 Y205.397004 Z-0.125000
G01 X157.012087 Y203.378368 Z-0.125000
G01 X157.740722 Y202.956411 Z-0.125000
G01 X158.347914 Y202.764377 Z-0.125000
G01 X159.091709 Y202.756042 Z-0.125000
G01 X159.926601 Y203.043723 Z-0.125000
G01 X160.712148 Y203.555215 Z-0.125000
G01 X162.932184 Y205.370281 Z-0.125000
G01 X163.660820 Y205.755593 Z-0.125000
G01 X164.298359 Y205.908628 Z-0.125000
G01 X165.042181 Y205.847218 Z-0.125000
G01 X165.755629 Y205.562712 Z-0.125000
G01 X168.123673 Y203.907984 Z-0.125000
G00 Z3.000000

(End cutting path id: polyline83961)


(Start cutting path id: polyline83959)
(Change tool to Default tool)

G00 Z3.000000
G00 X11.286517 Y201.831325

G00 Z4.875000 (Fast pre-penetrate)
G01 Z-0.125000 F400.0(Penetrate)
G01 X13.199161 Y203.358498 Z-0.125000 F800.000000
G01 X13.836701 Y203.752859 Z-0.125000
G01 X15.111805 Y204.836115 Z-0.125000
G01 X15.749345 Y205.161419 Z-0.125000
G01 X16.386910 Y205.272994 Z-0.125000
G01 X17.115545 Y205.135808 Z-0.125000
G01 X17.935250 Y204.682021 Z-0.125000
G01 X20.291891 Y202.555356 Z-0.125000
G01 X21.214068 Y201.864398 Z-0.125000
G01 X21.912329 Y201.535389 Z-0.125000
G01 X22.656152 Y201.405373 Z-0.125000
G01 X23.399947 Y201.504221 Z-0.125000
G01 X24.219652 Y201.844686 Z-0.125000
G01 X26.860931 Y203.678696 Z-0.125000
G01 X27.771705 Y204.197279 Z-0.125000
G01 X28.606597 Y204.493850 Z-0.125000
G01 X29.350419 Y204.593148 Z-0.125000
G01 X30.200471 Y204.519382 Z-0.125000
G01 X31.156806 Y204.236199 Z-0.125000
G01 X34.056133 Y202.827004 Z-0.125000
G01 X35.300864 Y202.340197 Z-0.125000
G01 X36.363456 Y202.094056 Z-0.125000
G01 X37.426048 Y202.017591 Z-0.125000
G01 X38.382357 Y202.080244 Z-0.125000
G01 X39.444948 Y202.263442 Z-0.125000
G01 X43.376493 Y203.308492 Z-0.125000
G01 X45.395394 Y203.719786 Z-0.125000
G01 X47.733090 Y203.974659 Z-0.125000
G01 X50.389530 Y204.047472 Z-0.125000
G01 X57.190080 Y203.968071 Z-0.125000
G01 X64.415630 Y204.046387 Z-0.125000
G01 X67.178353 Y203.948571 Z-0.125000
G01 X68.878484 Y203.772888 Z-0.125000
G01 X70.472359 Y203.507273 Z-0.125000
G01 X76.104034 Y202.182929 Z-0.125000
G01 X77.272883 Y202.040742 Z-0.125000
G01 X78.335448 Y202.026852 Z-0.125000
G01 X79.504296 Y202.161789 Z-0.125000
G01 X80.779401 Y202.491592 Z-0.125000
G01 X84.392176 Y203.996434 Z-0.125000
G01 X85.454768 Y204.358172 Z-0.125000
G01 X86.411077 Y204.552825 Z-0.125000
G01 X87.367412 Y204.586401 Z-0.125000
G01 X88.429977 Y204.417174 Z-0.125000
G01 X89.492569 Y204.041651 Z-0.125000
G01 X92.710666 Y202.267014 Z-0.125000
G01 X93.742910 Y201.785393 Z-0.125000
G01 X94.699219 Y201.497474 Z-0.125000
G01 X95.655554 Y201.405240 Z-0.125000
G01 X96.718119 Y201.550126 Z-0.125000
G01 X97.886967 Y201.990339 Z-0.125000
G01 X98.904024 Y202.557446 Z-0.125000
G01 X101.454208 Y204.218022 Z-0.125000
G01 X102.668591 Y204.842517 Z-0.125000
G01 X103.837439 Y205.197561 Z-0.125000
G01 X104.900004 Y205.266618 Z-0.125000
G01 X106.068853 Y205.058470 Z-0.125000
G01 X107.283236 Y204.566452 Z-0.125000
G01 X108.376175 Y203.947883 Z-0.125000
G01 X111.290689 Y202.064634 Z-0.125000
G01 X112.763120 Y201.303508 Z-0.125000
G01 X114.250738 Y200.820406 Z-0.125000
G01 X115.632099 Y200.661709 Z-0.125000
G01 X117.013461 Y200.762992 Z-0.125000
G01 X118.501079 Y201.102081 Z-0.125000
G01 X123.495215 Y202.897674 Z-0.125000
G01 X125.726629 Y203.562518 Z-0.125000
G01 X127.851786 Y203.982358 Z-0.125000
G01 X129.870686 Y204.175213 Z-0.125000
G01 X131.358304 Y204.188521 Z-0.125000
G01 X132.845922 Y204.090043 Z-0.125000
G01 X136.139928 Y203.505606 Z-0.125000
G01 X138.371368 Y202.795068 Z-0.125000
G01 X141.346577 Y201.431593 Z-0.125000
G01 X142.196656 Y201.116554 Z-0.125000
G01 X143.365504 Y200.791831 Z-0.125000
G01 X144.428070 Y200.662715 Z-0.125000
G01 X145.809431 Y200.817734 Z-0.125000
G01 X147.084536 Y201.332877 Z-0.125000
G01 X148.359641 Y202.180812 Z-0.125000
G01 X151.365224 Y204.602091 Z-0.125000
G01 X152.184929 Y205.041748 Z-0.125000
G01 X153.034981 Y205.261088 Z-0.125000
G01 X153.885060 Y205.196186 Z-0.125000
G01 X154.826208 Y204.788675 Z-0.125000
G01 X155.691447 Y204.151400 Z-0.125000
G01 X158.013957 Y202.082255 Z-0.125000
G01 X158.772940 Y201.626035 Z-0.125000
G01 X159.410479 Y201.430190 Z-0.125000
G01 X160.154301 Y201.450034 Z-0.125000
G01 X160.928471 Y201.749674 Z-0.125000
G01 X161.748176 Y202.315538 Z-0.125000
G01 X163.660820 Y203.938252 Z-0.125000
G01 X164.298359 Y204.329835 Z-0.125000
G01 X164.935924 Y204.553064 Z-0.125000
G01 X165.573464 Y204.582194 Z-0.125000
G01 X166.302099 Y204.381217 Z-0.125000
G01 X167.030734 Y203.973812 Z-0.125000
G01 X168.123673 Y203.160272 Z-0.125000
G00 Z3.000000

(End cutting path id: polyline83959)


(Start cutting path id: polyline83957)
(Change tool to Default tool)

G00 Z3.000000
G00 X11.286517 Y201.831325

G00 Z4.875000 (Fast pre-penetrate)
G01 Z-0.125000 F400.0(Penetrate)
G01 X13.563466 Y203.607656 Z-0.125000 F800.000000
G01 X14.155497 Y203.872212 Z-0.125000
G01 X14.686779 Y203.949761 Z-0.125000
G01 X15.430575 Y203.802627 Z-0.125000
G01 X16.204745 Y203.368737 Z-0.125000
G01 X18.618324 Y201.177011 Z-0.125000
G01 X19.392494 Y200.588023 Z-0.125000
G01 X20.105942 Y200.230227 Z-0.125000
G01 X20.849764 Y200.083384 Z-0.125000
G01 X21.593560 Y200.171940 Z-0.125000
G01 X22.398077 Y200.502430 Z-0.125000
G01 X25.039356 Y202.361470 Z-0.125000
G01 X25.950157 Y202.886376 Z-0.125000
G01 X26.800209 Y203.184720 Z-0.125000
G01 X27.544031 Y203.271371 Z-0.125000
G01 X28.394084 Y203.176015 Z-0.125000
G01 X29.244162 Y202.907040 Z-0.125000
G01 X32.052393 Y201.496019 Z-0.125000
G01 X33.069451 Y201.071945 Z-0.125000
G01 X34.025786 Y200.810405 Z-0.125000
G01 X34.875838 Y200.704228 Z-0.125000
G01 X35.832173 Y200.721505 Z-0.125000
G01 X36.788482 Y200.860728 Z-0.125000
G01 X41.782619 Y202.242275 Z-0.125000
G01 X43.270236 Y202.517891 Z-0.125000
G01 X44.757854 Y202.672143 Z-0.125000
G01 X47.308064 Y202.714635 Z-0.125000
G01 X53.258509 Y202.452354 Z-0.125000
G01 X56.446258 Y202.400205 Z-0.125000
G01 X66.115761 Y202.724478 Z-0.125000
G01 X68.240919 Y202.651770 Z-0.125000
G01 X70.153563 Y202.420445 Z-0.125000
G01 X71.959950 Y202.039896 Z-0.125000
G01 X76.104034 Y200.930234 Z-0.125000
G01 X77.272883 Y200.742883 Z-0.125000
G01 X78.335448 Y200.696449 Z-0.125000
G01 X79.398040 Y200.793445 Z-0.125000
G01 X80.460631 Y201.040433 Z-0.125000
G01 X81.629453 Y201.464057 Z-0.125000
G01 X84.923459 Y202.910559 Z-0.125000
G01 X85.986051 Y203.191890 Z-0.125000
G01 X86.942386 Y203.271106 Z-0.125000
G01 X88.004951 Y203.136407 Z-0.125000
G01 X89.158612 Y202.733870 Z-0.125000
G01 X92.255292 Y200.960000 Z-0.125000
G01 X93.317857 Y200.444910 Z-0.125000
G01 X94.274192 Y200.158472 Z-0.125000
G01 X95.124245 Y200.082563 Z-0.125000
G01 X96.186836 Y200.242636 Z-0.125000
G01 X97.264589 Y200.674753 Z-0.125000
G01 X98.266459 Y201.262418 Z-0.125000
G01 X100.634503 Y202.879814 Z-0.125000
G01 X101.818539 Y203.521322 Z-0.125000
G01 X102.881104 Y203.865862 Z-0.125000
G01 X103.837439 Y203.947989 Z-0.125000
G01 X105.006261 Y203.746085 Z-0.125000
G01 X106.190296 Y203.240705 Z-0.125000
G01 X107.283236 Y202.578137 Z-0.125000
G01 X110.015584 Y200.689940 Z-0.125000
G01 X111.381759 Y199.940006 Z-0.125000
G01 X112.763120 Y199.472356 Z-0.125000
G01 X114.144482 Y199.339429 Z-0.125000
G01 X115.313330 Y199.475875 Z-0.125000
G01 X116.694691 Y199.877432 Z-0.125000
G01 X122.113854 Y202.365174 Z-0.125000
G01 X124.770294 Y203.294680 Z-0.125000
G01 X126.364168 Y203.663324 Z-0.125000
G01 X127.958042 Y203.903354 Z-0.125000
G01 X129.658173 Y204.038873 Z-0.125000
G01 X131.464561 Y204.064299 Z-0.125000
G01 X133.058435 Y203.986433 Z-0.125000
G01 X134.546053 Y203.816332 Z-0.125000
G01 X135.927415 Y203.555744 Z-0.125000
G01 X137.202520 Y203.210331 Z-0.125000
G01 X138.477624 Y202.752497 Z-0.125000
G01 X140.435803 Y201.900011 Z-0.125000
G01 X143.259248 Y200.291584 Z-0.125000
G01 X144.215557 Y199.840946 Z-0.125000
G01 X145.384405 Y199.455581 Z-0.125000
G01 X146.446997 Y199.338239 Z-0.125000
G01 X147.509562 Y199.502333 Z-0.125000
G01 X148.632876 Y200.005411 Z-0.125000
G01 X149.714411 Y200.776194 Z-0.125000
G01 X152.549233 Y203.225757 Z-0.125000
G01 X153.368938 Y203.704705 Z-0.125000
G01 X154.097573 Y203.924309 Z-0.125000
G01 X154.947652 Y203.891791 Z-0.125000
G01 X155.828078 Y203.524286 Z-0.125000
G01 X156.727475 Y202.856002 Z-0.125000
G01 X159.038581 Y200.732459 Z-0.125000
G01 X159.744436 Y200.301030 Z-0.125000
G01 X160.473071 Y200.092194 Z-0.125000
G01 X161.216866 Y200.157970 Z-0.125000
G01 X161.930314 Y200.475072 Z-0.125000
G01 X162.624792 Y200.973758 Z-0.125000
G01 X164.480524 Y202.581470 Z-0.125000
G01 X165.026994 Y202.940377 Z-0.125000
G01 X165.573464 Y203.177497 Z-0.125000
G01 X166.211003 Y203.271503 Z-0.125000
G01 X166.742312 Y203.194562 Z-0.125000
G01 X167.395038 Y202.925905 Z-0.125000
G01 X168.123673 Y202.456005 Z-0.125000
G00 Z3.000000

(End cutting path id: polyline83957)


(Start cutting path id: polyline83955)
(Change tool to Default tool)

G00 Z3.000000
G00 X11.286517 Y201.831325

G00 Z4.875000 (Fast pre-penetrate)
G01 Z-0.125000 F400.0(Penetrate)
G01 X11.924057 Y202.301251 Z-0.125000 F800.000000
G01 X12.561622 Y202.570543 Z-0.125000
G01 X13.199161 Y202.617665 Z-0.125000
G01 X13.730444 Y202.487861 Z-0.125000
G01 X14.793036 Y201.837701 Z-0.125000
G01 X16.785372 Y199.966200 Z-0.125000
G01 X17.570919 Y199.336148 Z-0.125000
G01 X18.405811 Y198.899824 Z-0.125000
G01 X19.149633 Y198.759754 Z-0.125000
G01 X19.787172 Y198.832329 Z-0.125000
G01 X20.485433 Y199.095986 Z-0.125000
G01 X21.214068 Y199.531199 Z-0.125000
G01 X23.855348 Y201.418152 Z-0.125000
G01 X24.675052 Y201.779969 Z-0.125000
G01 X25.525104 Y201.942899 Z-0.125000
G01 X26.268927 Y201.903741 Z-0.125000
G01 X27.012722 Y201.713321 Z-0.125000
G01 X27.953871 Y201.310625 Z-0.125000
G01 X30.838037 Y199.834094 Z-0.125000
G01 X31.900602 Y199.504714 Z-0.125000
G01 X32.856937 Y199.378270 Z-0.125000
G01 X33.706990 Y199.398272 Z-0.125000
G01 X34.663325 Y199.547973 Z-0.125000
G01 X39.338692 Y200.941109 Z-0.125000
G01 X40.720053 Y201.217042 Z-0.125000
G01 X42.207645 Y201.371691 Z-0.125000
G01 X44.545341 Y201.369839 Z-0.125000
G01 X51.239609 Y200.849431 Z-0.125000
G01 X55.383666 Y200.725209 Z-0.125000
G01 X59.208981 Y200.835487 Z-0.125000
G01 X65.371939 Y201.315494 Z-0.125000
G01 X67.603379 Y201.401642 Z-0.125000
G01 X69.303510 Y201.332348 Z-0.125000
G01 X71.003641 Y201.099329 Z-0.125000
G01 X72.597516 Y200.727193 Z-0.125000
G01 X76.316547 Y199.640207 Z-0.125000
G01 X77.485396 Y199.428091 Z-0.125000
G01 X78.441704 Y199.371999 Z-0.125000
G01 X79.398040 Y199.444151 Z-0.125000
G01 X80.460631 Y199.682726 Z-0.125000
G01 X81.629453 Y200.115663 Z-0.125000
G01 X84.923459 Y201.616430 Z-0.125000
G01 X85.879794 Y201.872335 Z-0.125000
G01 X86.836103 Y201.947053 Z-0.125000
G01 X87.686182 Y201.841300 Z-0.125000
G01 X88.642517 Y201.532372 Z-0.125000
G01 X89.705082 Y200.994634 Z-0.125000
G01 X92.619596 Y199.256694 Z-0.125000
G01 X93.636653 Y198.882732 Z-0.125000
G01 X94.592962 Y198.759093 Z-0.125000
G01 X95.655554 Y198.911598 Z-0.125000
G01 X96.718119 Y199.350595 Z-0.125000
G01 X97.719989 Y199.965697 Z-0.125000
G01 X99.996964 Y201.586480 Z-0.125000
G01 X101.089903 Y202.201397 Z-0.125000
G01 X102.031052 Y202.527919 Z-0.125000
G01 X102.987360 Y202.625788 Z-0.125000
G01 X104.049952 Y202.445872 Z-0.125000
G01 X105.188426 Y201.950334 Z-0.125000
G01 X106.281366 Y201.254772 Z-0.125000
G01 X108.831576 Y199.381815 Z-0.125000
G01 X110.106680 Y198.628283 Z-0.125000
G01 X111.381759 Y198.156426 Z-0.125000
G01 X112.550607 Y198.015006 Z-0.125000
G01 X113.825712 Y198.172433 Z-0.125000
G01 X115.207073 Y198.649741 Z-0.125000
G01 X116.482152 Y199.285957 Z-0.125000
G01 X120.125301 Y201.342693 Z-0.125000
G01 X122.326367 Y202.301251 Z-0.125000
G01 X123.495215 Y202.665872 Z-0.125000
G01 X124.770294 Y202.955247 Z-0.125000
G01 X127.533016 Y203.282642 Z-0.125000
G01 X130.614509 Y203.375854 Z-0.125000
G01 X134.014771 Y203.317884 Z-0.125000
G01 X136.246184 Y203.123654 Z-0.125000
G01 X138.052572 Y202.772870 Z-0.125000
G01 X139.540190 Y202.290165 Z-0.125000
G01 X141.073342 Y201.576373 Z-0.125000
G01 X143.168152 Y200.334182 Z-0.125000
G01 X144.898657 Y199.141812 Z-0.125000
G01 X145.991596 Y198.532927 Z-0.125000
G01 X146.978279 Y198.154177 Z-0.125000
G01 X147.828332 Y198.018022 Z-0.125000
G01 X148.890923 Y198.147747 Z-0.125000
G01 X149.999050 Y198.660959 Z-0.125000
G01 X151.069209 Y199.475875 Z-0.125000
G01 X153.642173 Y201.840056 Z-0.125000
G01 X154.461877 Y202.359829 Z-0.125000
G01 X155.160165 Y202.593774 Z-0.125000
G01 X156.010217 Y202.572131 Z-0.125000
G01 X156.829921 Y202.227961 Z-0.125000
G01 X157.683784 Y201.583490 Z-0.125000
G01 X160.017670 Y199.389065 Z-0.125000
G01 X160.791840 Y198.927897 Z-0.125000
G01 X161.429406 Y198.766184 Z-0.125000
G01 X162.066945 Y198.822275 Z-0.125000
G01 X162.841115 Y199.168561 Z-0.125000
G01 X163.581127 Y199.721513 Z-0.125000
G01 X165.254694 Y201.204713 Z-0.125000
G01 X166.119933 Y201.747320 Z-0.125000
G01 X166.636055 Y201.912446 Z-0.125000
G01 X167.061082 Y201.947715 Z-0.125000
G01 X167.592364 Y201.863657 Z-0.125000
G01 X168.123673 Y201.647784 Z-0.125000
G00 Z3.000000

(End cutting path id: polyline83955)


(Start cutting path id: polyline83953)
(Change tool to Default tool)

G00 Z3.000000
G00 X11.286517 Y201.301947

G00 Z4.875000 (Fast pre-penetrate)
G01 Z-0.125000 F400.0(Penetrate)
G01 X12.015126 Y201.192860 Z-0.125000 F800.000000
G01 X12.834857 Y200.751429 Z-0.125000
G01 X15.271190 Y198.507236 Z-0.125000
G01 X16.113675 Y197.871496 Z-0.125000
G01 X16.811936 Y197.545953 Z-0.125000
G01 X17.555759 Y197.436839 Z-0.125000
G01 X18.299554 Y197.572703 Z-0.125000
G01 X19.028189 Y197.911263 Z-0.125000
G01 X21.396234 Y199.652008 Z-0.125000
G01 X22.307008 Y200.211283 Z-0.125000
G01 X23.081178 Y200.513437 Z-0.125000
G01 X23.931230 Y200.625567 Z-0.125000
G01 X24.675052 Y200.537461 Z-0.125000
G01 X25.525104 Y200.256447 Z-0.125000
G01 X28.227105 Y198.817963 Z-0.125000
G01 X29.244162 Y198.378437 Z-0.125000
G01 X30.200471 Y198.126078 Z-0.125000
G01 X31.156806 Y198.048952 Z-0.125000
G01 X32.006859 Y198.118775 Z-0.125000
G01 X32.963194 Y198.322425 Z-0.125000
G01 X36.150943 Y199.382503 Z-0.125000
G01 X37.638561 Y199.782209 Z-0.125000
G01 X39.019922 Y200.003400 Z-0.125000
G01 X40.507514 Y200.078621 Z-0.125000
G01 X42.632697 Y199.965353 Z-0.125000
G01 X49.433221 Y199.217377 Z-0.125000
G01 X54.427358 Y199.030237 Z-0.125000
G01 X59.102724 Y199.183272 Z-0.125000
G01 X66.753301 Y199.986017 Z-0.125000
G01 X69.516023 Y200.059095 Z-0.125000
G01 X70.897385 Y199.923919 Z-0.125000
G01 X72.278746 Y199.650976 Z-0.125000
G01 X76.954086 Y198.246490 Z-0.125000
G01 X77.910422 Y198.087528 Z-0.125000
G01 X78.866757 Y198.053344 Z-0.125000
G01 X79.929322 Y198.186085 Z-0.125000
G01 X80.991914 Y198.497685 Z-0.125000
G01 X84.179663 Y200.010491 Z-0.125000
G01 X85.135972 Y200.383474 Z-0.125000
G01 X85.986051 Y200.581144 Z-0.125000
G01 X86.836103 Y200.618767 Z-0.125000
G01 X87.792438 Y200.451445 Z-0.125000
G01 X88.703212 Y200.096692 Z-0.125000
G01 X91.617726 Y198.305571 Z-0.125000
G01 X92.680318 Y197.762012 Z-0.125000
G01 X93.530397 Y197.502509 Z-0.125000
G01 X94.380449 Y197.440543 Z-0.125000
G01 X95.336784 Y197.622391 Z-0.125000
G01 X96.353815 Y198.084036 Z-0.125000
G01 X99.359398 Y200.230703 Z-0.125000
G01 X100.452338 Y200.876445 Z-0.125000
G01 X101.393486 Y201.213074 Z-0.125000
G01 X102.349821 Y201.299751 Z-0.125000
G01 X103.412386 Y201.081470 Z-0.125000
G01 X104.459791 Y200.578022 Z-0.125000
G01 X105.461661 Y199.897593 Z-0.125000
G01 X107.920775 Y197.996803 Z-0.125000
G01 X109.104810 Y197.269808 Z-0.125000
G01 X110.212937 Y196.838432 Z-0.125000
G01 X111.275502 Y196.692276 Z-0.125000
G01 X112.550607 Y196.862377 Z-0.125000
G01 X113.840899 Y197.362306 Z-0.125000
G01 X115.115977 Y198.082369 Z-0.125000
G01 X118.394822 Y200.190725 Z-0.125000
G01 X120.307466 Y201.153384 Z-0.125000
G01 X122.220110 Y201.763353 Z-0.125000
G01 X124.345267 Y202.066195 Z-0.125000
G01 X126.257911 Y202.111994 Z-0.125000
G01 X131.464561 Y201.994334 Z-0.125000
G01 X136.883750 Y202.111836 Z-0.125000
G01 X138.371368 Y202.033784 Z-0.125000
G01 X139.646446 Y201.836299 Z-0.125000
G01 X141.027808 Y201.430958 Z-0.125000
G01 X142.257378 Y200.871471 Z-0.125000
G01 X143.714622 Y199.967681 Z-0.125000
G01 X147.266701 Y197.380615 Z-0.125000
G01 X148.359641 Y196.866478 Z-0.125000
G01 X149.315949 Y196.692911 Z-0.125000
G01 X150.272285 Y196.833934 Z-0.125000
G01 X151.274155 Y197.332673 Z-0.125000
G01 X152.264621 Y198.126501 Z-0.125000
G01 X154.655420 Y200.443508 Z-0.125000
G01 X155.372678 Y200.949126 Z-0.125000
G01 X156.116473 Y201.251227 Z-0.125000
G01 X156.966552 Y201.262895 Z-0.125000
G01 X157.831791 Y200.900151 Z-0.125000
G01 X158.640119 Y200.275947 Z-0.125000
G01 X160.951225 Y198.050196 Z-0.125000
G01 X161.657080 Y197.618793 Z-0.125000
G01 X162.385715 Y197.437951 Z-0.125000
G01 X163.023280 Y197.521479 Z-0.125000
G01 X163.751889 Y197.874221 Z-0.125000
G01 X165.971926 Y199.791469 Z-0.125000
G01 X166.757499 Y200.333970 Z-0.125000
G01 X167.486108 Y200.596225 Z-0.125000
G01 X168.123673 Y200.602231 Z-0.125000
G00 Z3.000000

(End cutting path id: polyline83953)


(Start cutting path id: polyline83951)
(Change tool to Default tool)

G00 Z3.000000
G00 X11.286517 Y199.387028

G00 Z4.875000 (Fast pre-penetrate)
G01 Z-0.125000 F400.0(Penetrate)
G01 X14.201031 Y196.733181 Z-0.125000 F800.000000
G01 X15.020736 Y196.274394 Z-0.125000
G01 X15.749345 Y196.115618 Z-0.125000
G01 X16.386910 Y196.177424 Z-0.125000
G01 X17.115545 Y196.455845 Z-0.125000
G01 X17.844154 Y196.907515 Z-0.125000
G01 X20.303294 Y198.735095 Z-0.125000
G01 X21.168534 Y199.138267 Z-0.125000
G01 X22.018586 Y199.299556 Z-0.125000
G01 X22.762408 Y199.243968 Z-0.125000
G01 X23.506204 Y199.026375 Z-0.125000
G01 X27.012722 Y197.187814 Z-0.125000
G01 X27.969058 Y196.867245 Z-0.125000
G01 X28.925366 Y196.730905 Z-0.125000
G01 X29.775445 Y196.763343 Z-0.125000
G01 X30.625497 Y196.919606 Z-0.125000
G01 X34.875838 Y198.342348 Z-0.125000
G01 X36.150943 Y198.617329 Z-0.125000
G01 X37.319791 Y198.739064 Z-0.125000
G01 X39.763718 Y198.651037 Z-0.125000
G01 X44.970367 Y197.897902 Z-0.125000
G01 X47.626834 Y197.617761 Z-0.125000
G01 X50.495786 Y197.456392 Z-0.125000
G01 X53.789792 Y197.403370 Z-0.125000
G01 X57.083797 Y197.463562 Z-0.125000
G01 X60.059033 Y197.641097 Z-0.125000
G01 X62.609243 Y197.917110 Z-0.125000
G01 X67.390866 Y198.609498 Z-0.125000
G01 X69.622280 Y198.755759 Z-0.125000
G01 X71.003641 Y198.680459 Z-0.125000
G01 X72.278746 Y198.469189 Z-0.125000
G01 X73.660081 Y198.094593 Z-0.125000
G01 X76.954086 Y196.997737 Z-0.125000
G01 X77.910422 Y196.797236 Z-0.125000
G01 X78.866757 Y196.725905 Z-0.125000
G01 X79.823066 Y196.810413 Z-0.125000
G01 X80.779401 Y197.055707 Z-0.125000
G01 X81.872341 Y197.506372 Z-0.125000
G01 X84.710946 Y198.918742 Z-0.125000
G01 X85.667281 Y199.212958 Z-0.125000
G01 X86.517333 Y199.302917 Z-0.125000
G01 X87.367412 Y199.207402 Z-0.125000
G01 X88.217464 Y198.927817 Z-0.125000
G01 X89.249682 Y198.383702 Z-0.125000
G01 X92.073126 Y196.589697 Z-0.125000
G01 X92.999088 Y196.232272 Z-0.125000
G01 X93.849166 Y196.113448 Z-0.125000
G01 X94.805475 Y196.247645 Z-0.125000
G01 X95.807345 Y196.677539 Z-0.125000
G01 X96.797811 Y197.326482 Z-0.125000
G01 X98.904024 Y198.943798 Z-0.125000
G01 X99.905868 Y199.553371 Z-0.125000
G01 X100.862203 Y199.902091 Z-0.125000
G01 X101.712256 Y199.977709 Z-0.125000
G01 X102.774847 Y199.748977 Z-0.125000
G01 X103.822252 Y199.211186 Z-0.125000
G01 X106.918931 Y196.775408 Z-0.125000
G01 X108.102940 Y195.987110 Z-0.125000
G01 X109.150345 Y195.537213 Z-0.125000
G01 X110.212937 Y195.369467 Z-0.125000
G01 X111.381759 Y195.528217 Z-0.125000
G01 X112.747933 Y196.107654 Z-0.125000
G01 X113.931968 Y196.851979 Z-0.125000
G01 X116.937552 Y198.989095 Z-0.125000
G01 X118.607335 Y199.923708 Z-0.125000
G01 X120.201210 Y200.497244 Z-0.125000
G01 X121.901341 Y200.766749 Z-0.125000
G01 X123.920241 Y200.734099 Z-0.125000
G01 X128.808121 Y200.116298 Z-0.125000
G01 X131.358304 Y199.973000 Z-0.125000
G01 X134.014771 Y200.107778 Z-0.125000
G01 X139.115164 Y200.762383 Z-0.125000
G01 X140.390268 Y200.780428 Z-0.125000
G01 X141.452834 Y200.661894 Z-0.125000
G01 X142.727939 Y200.307935 Z-0.125000
G01 X143.896787 Y199.750776 Z-0.125000
G01 X145.251584 Y198.835002 Z-0.125000
G01 X148.632876 Y196.102918 Z-0.125000
G01 X149.634719 Y195.573778 Z-0.125000
G01 X150.591054 Y195.370658 Z-0.125000
G01 X151.547390 Y195.522978 Z-0.125000
G01 X152.458164 Y196.006292 Z-0.125000
G01 X153.460034 Y196.855418 Z-0.125000
G01 X155.771140 Y199.177160 Z-0.125000
G01 X156.465617 Y199.666136 Z-0.125000
G01 X157.179065 Y199.942493 Z-0.125000
G01 X157.922861 Y199.944610 Z-0.125000
G01 X158.742592 Y199.605044 Z-0.125000
G01 X159.516735 Y199.004599 Z-0.125000
G01 X161.839245 Y196.727704 Z-0.125000
G01 X162.598228 Y196.268044 Z-0.125000
G01 X163.235793 Y196.116226 Z-0.125000
G01 X163.873333 Y196.197797 Z-0.125000
G01 X164.571594 Y196.536913 Z-0.125000
G01 X167.030734 Y198.657625 Z-0.125000
G01 X167.592364 Y199.022115 Z-0.125000
G01 X168.123673 Y199.235845 Z-0.125000
G00 Z3.000000

(End cutting path id: polyline83951)


(Start cutting path id: polyline83949)
(Change tool to Default tool)

G00 Z3.000000
G00 X11.286517 Y196.609277

G00 Z4.875000 (Fast pre-penetrate)
G01 Z-0.125000 F400.0(Penetrate)
G01 X12.242826 Y195.703291 Z-0.125000 F800.000000
G01 X12.925927 Y195.201642 Z-0.125000
G01 X13.624188 Y194.883137 Z-0.125000
G01 X14.261753 Y194.790745 Z-0.125000
G01 X15.005549 Y194.922481 Z-0.125000
G01 X15.749345 Y195.278159 Z-0.125000
G01 X18.117389 Y197.073038 Z-0.125000
G01 X18.846024 Y197.535264 Z-0.125000
G01 X19.574659 Y197.845752 Z-0.125000
G01 X20.318455 Y197.976985 Z-0.125000
G01 X21.062277 Y197.917507 Z-0.125000
G01 X21.912329 Y197.644854 Z-0.125000
G01 X24.583983 Y196.158348 Z-0.125000
G01 X25.525104 Y195.729459 Z-0.125000
G01 X26.375183 Y195.487312 Z-0.125000
G01 X27.225235 Y195.403069 Z-0.125000
G01 X28.075314 Y195.470167 Z-0.125000
G01 X28.925366 Y195.663366 Z-0.125000
G01 X33.069451 Y197.112328 Z-0.125000
G01 X34.132042 Y197.327302 Z-0.125000
G01 X35.088351 Y197.420382 Z-0.125000
G01 X36.257199 Y197.414905 Z-0.125000
G01 X37.426048 Y197.305077 Z-0.125000
G01 X42.420184 Y196.456030 Z-0.125000
G01 X45.182880 Y196.132789 Z-0.125000
G01 X48.370629 Y195.962186 Z-0.125000
G01 X52.939740 Y195.909904 Z-0.125000
G01 X57.508850 Y195.963641 Z-0.125000
G01 X60.802855 Y196.144880 Z-0.125000
G01 X63.565552 Y196.474419 Z-0.125000
G01 X68.347175 Y197.284730 Z-0.125000
G01 X70.578615 Y197.430807 Z-0.125000
G01 X71.747437 Y197.344791 Z-0.125000
G01 X72.810029 Y197.151063 Z-0.125000
G01 X74.085134 Y196.785198 Z-0.125000
G01 X77.272883 Y195.667811 Z-0.125000
G01 X78.229191 Y195.464029 Z-0.125000
G01 X79.185527 Y195.404683 Z-0.125000
G01 X80.035579 Y195.495038 Z-0.125000
G01 X80.885658 Y195.722712 Z-0.125000
G01 X81.963410 Y196.181366 Z-0.125000
G01 X84.710946 Y197.595880 Z-0.125000
G01 X85.667281 Y197.896499 Z-0.125000
G01 X86.517333 Y197.979499 Z-0.125000
G01 X87.261155 Y197.889911 Z-0.125000
G01 X88.111208 Y197.604082 Z-0.125000
G01 X89.067543 Y197.087378 Z-0.125000
G01 X91.890961 Y195.246648 Z-0.125000
G01 X92.786574 Y194.898615 Z-0.125000
G01 X93.636653 Y194.790507 Z-0.125000
G01 X94.592962 Y194.954231 Z-0.125000
G01 X95.534110 Y195.391348 Z-0.125000
G01 X96.444884 Y196.016346 Z-0.125000
G01 X98.448624 Y197.609030 Z-0.125000
G01 X99.450494 Y198.238737 Z-0.125000
G01 X100.330921 Y198.573382 Z-0.125000
G01 X101.074716 Y198.658049 Z-0.125000
G01 X102.031052 Y198.487313 Z-0.125000
G01 X103.093617 Y197.960661 Z-0.125000
G01 X104.049952 Y197.258722 Z-0.125000
G01 X106.281366 Y195.366848 Z-0.125000
G01 X107.465401 Y194.572940 Z-0.125000
G01 X108.512806 Y194.153788 Z-0.125000
G01 X109.469115 Y194.047796 Z-0.125000
G01 X110.425450 Y194.209297 Z-0.125000
G01 X111.472855 Y194.657792 Z-0.125000
G01 X112.656864 Y195.422066 Z-0.125000
G01 X115.207073 Y197.403317 Z-0.125000
G01 X116.482152 Y198.272313 Z-0.125000
G01 X117.969770 Y199.008304 Z-0.125000
G01 X119.351131 Y199.378746 Z-0.125000
G01 X120.519979 Y199.468175 Z-0.125000
G01 X121.901341 Y199.357527 Z-0.125000
G01 X123.282676 Y199.083974 Z-0.125000
G01 X128.276839 Y197.832100 Z-0.125000
G01 X129.976969 Y197.585826 Z-0.125000
G01 X131.677100 Y197.501900 Z-0.125000
G01 X133.164692 Y197.570983 Z-0.125000
G01 X134.758566 Y197.790216 Z-0.125000
G01 X136.458697 Y198.169099 Z-0.125000
G01 X140.390268 Y199.242407 Z-0.125000
G01 X141.452834 Y199.420153 Z-0.125000
G01 X142.409169 Y199.466773 Z-0.125000
G01 X143.152991 Y199.404437 Z-0.125000
G01 X143.896787 Y199.239999 Z-0.125000
G01 X145.262961 Y198.643682 Z-0.125000
G01 X146.606381 Y197.695734 Z-0.125000
G01 X148.997180 Y195.536736 Z-0.125000
G01 X149.999050 Y194.740553 Z-0.125000
G01 X150.909824 Y194.240703 Z-0.125000
G01 X151.866159 Y194.046420 Z-0.125000
G01 X152.716211 Y194.206651 Z-0.125000
G01 X153.539726 Y194.660808 Z-0.125000
G01 X154.416342 Y195.417013 Z-0.125000
G01 X156.727475 Y197.819559 Z-0.125000
G01 X157.467487 Y198.357191 Z-0.125000
G01 X158.135400 Y198.618811 Z-0.125000
G01 X158.879196 Y198.617223 Z-0.125000
G01 X159.744436 Y198.227387 Z-0.125000
G01 X160.543900 Y197.565612 Z-0.125000
G01 X162.704484 Y195.402143 Z-0.125000
G01 X163.387585 Y194.971958 Z-0.125000
G01 X163.979589 Y194.801937 Z-0.125000
G01 X164.617128 Y194.849350 Z-0.125000
G01 X165.391298 Y195.210082 Z-0.125000
G01 X168.123673 Y197.538862 Z-0.125000
G00 Z3.000000

(End cutting path id: polyline83949)


(Start cutting path id: polyline83947)
(Change tool to Default tool)

G00 Z3.000000
G00 X11.286517 Y193.941116

G00 Z4.875000 (Fast pre-penetrate)
G01 Z-0.125000 F400.0(Penetrate)
G01 X11.832987 Y193.646820 Z-0.125000 F800.000000
G01 X12.455339 Y193.481059 Z-0.125000
G01 X12.986648 Y193.488785 Z-0.125000
G01 X13.517931 Y193.627294 Z-0.125000
G01 X14.565336 Y194.214906 Z-0.125000
G01 X16.307218 Y195.600898 Z-0.125000
G01 X17.115545 Y196.150199 Z-0.125000
G01 X17.980785 Y196.534929 Z-0.125000
G01 X18.724580 Y196.655711 Z-0.125000
G01 X19.362146 Y196.601418 Z-0.125000
G01 X20.105942 Y196.374882 Z-0.125000
G01 X23.399947 Y194.555769 Z-0.125000
G01 X24.356283 Y194.215303 Z-0.125000
G01 X25.206335 Y194.086160 Z-0.125000
G01 X25.950157 Y194.108967 Z-0.125000
G01 X26.800209 Y194.270548 Z-0.125000
G01 X30.731780 Y195.710382 Z-0.125000
G01 X31.900602 Y195.986184 Z-0.125000
G01 X32.963194 Y196.100113 Z-0.125000
G01 X35.088351 Y195.980230 Z-0.125000
G01 X40.188744 Y195.013153 Z-0.125000
G01 X43.376493 Y194.662898 Z-0.125000
G01 X46.564242 Y194.564658 Z-0.125000
G01 X56.871284 Y194.561563 Z-0.125000
G01 X60.059033 Y194.616702 Z-0.125000
G01 X62.609243 Y194.806593 Z-0.125000
G01 X64.840657 Y195.131633 Z-0.125000
G01 X68.984741 Y195.935728 Z-0.125000
G01 X71.003641 Y196.109982 Z-0.125000
G01 X72.172490 Y196.038994 Z-0.125000
G01 X73.235055 Y195.844420 Z-0.125000
G01 X74.510160 Y195.461224 Z-0.125000
G01 X77.485396 Y194.362279 Z-0.125000
G01 X78.441704 Y194.144739 Z-0.125000
G01 X79.291783 Y194.080181 Z-0.125000
G01 X80.141835 Y194.160455 Z-0.125000
G01 X80.991914 Y194.388711 Z-0.125000
G01 X82.054506 Y194.852551 Z-0.125000
G01 X84.710946 Y196.265848 Z-0.125000
G01 X85.561024 Y196.551888 Z-0.125000
G01 X86.411077 Y196.657087 Z-0.125000
G01 X87.261155 Y196.553450 Z-0.125000
G01 X88.065673 Y196.265160 Z-0.125000
G01 X89.067543 Y195.694798 Z-0.125000
G01 X91.617726 Y193.969717 Z-0.125000
G01 X92.574061 Y193.576706 Z-0.125000
G01 X93.424114 Y193.467856 Z-0.125000
G01 X94.274192 Y193.612213 Z-0.125000
G01 X95.260875 Y194.079149 Z-0.125000
G01 X96.160272 Y194.717535 Z-0.125000
G01 X97.993224 Y196.226557 Z-0.125000
G01 X98.995094 Y196.891666 Z-0.125000
G01 X99.799611 Y197.225887 Z-0.125000
G01 X100.649690 Y197.334313 Z-0.125000
G01 X101.605999 Y197.138495 Z-0.125000
G01 X102.547147 Y196.647138 Z-0.125000
G01 X103.492105 Y195.927049 Z-0.125000
G01 X105.643827 Y194.030307 Z-0.125000
G01 X106.736766 Y193.264260 Z-0.125000
G01 X107.768984 Y192.829444 Z-0.125000
G01 X108.725319 Y192.727077 Z-0.125000
G01 X109.787884 Y192.956523 Z-0.125000
G01 X110.926385 Y193.548342 Z-0.125000
G01 X112.019324 Y194.354897 Z-0.125000
G01 X114.489815 Y196.402770 Z-0.125000
G01 X115.935682 Y197.360004 Z-0.125000
G01 X117.332230 Y197.938277 Z-0.125000
G01 X118.076026 Y198.092899 Z-0.125000
G01 X118.819848 Y198.145022 Z-0.125000
G01 X119.988697 Y198.043475 Z-0.125000
G01 X121.263775 Y197.731082 Z-0.125000
G01 X125.832885 Y195.986766 Z-0.125000
G01 X127.851786 Y195.359042 Z-0.125000
G01 X129.870686 Y194.967565 Z-0.125000
G01 X131.783357 Y194.838846 Z-0.125000
G01 X133.696001 Y194.953834 Z-0.125000
G01 X135.502389 Y195.290066 Z-0.125000
G01 X137.627546 Y195.956312 Z-0.125000
G01 X142.302913 Y197.837127 Z-0.125000
G01 X143.684274 Y198.122612 Z-0.125000
G01 X144.853122 Y198.092344 Z-0.125000
G01 X145.900500 Y197.795799 Z-0.125000
G01 X146.993466 Y197.193370 Z-0.125000
G01 X148.120564 Y196.290269 Z-0.125000
G01 X150.192592 Y194.273670 Z-0.125000
G01 X151.091989 Y193.500664 Z-0.125000
G01 X152.002763 Y192.945596 Z-0.125000
G01 X152.822468 Y192.729431 Z-0.125000
G01 X153.672547 Y192.838413 Z-0.125000
G01 X154.552973 Y193.312017 Z-0.125000
G01 X155.443507 Y194.100289 Z-0.125000
G01 X157.763476 Y196.570965 Z-0.125000
G01 X158.469331 Y197.072985 Z-0.125000
G01 X159.091709 Y197.304045 Z-0.125000
G01 X159.835531 Y197.282773 Z-0.125000
G01 X160.655236 Y196.890026 Z-0.125000
G01 X161.349714 Y196.308419 Z-0.125000
G01 X163.501435 Y194.114788 Z-0.125000
G01 X164.116220 Y193.700319 Z-0.125000
G01 X164.723411 Y193.490663 Z-0.125000
G01 X165.360951 Y193.507967 Z-0.125000
G01 X166.119933 Y193.831922 Z-0.125000
G01 X166.928261 Y194.454751 Z-0.125000
G01 X168.123673 Y195.581636 Z-0.125000
G00 Z3.000000

(End cutting path id: polyline83947)


(Start cutting path id: polyline83945)
(Change tool to Default tool)

G00 Z3.000000
G00 X11.286517 Y192.146687

G00 Z4.875000 (Fast pre-penetrate)
G01 Z-0.125000 F400.0(Penetrate)
G01 X11.924057 Y192.274428 Z-0.125000 F800.000000
G01 X12.652692 Y192.631271 Z-0.125000
G01 X14.952421 Y194.427022 Z-0.125000
G01 X15.749345 Y194.938832 Z-0.125000
G01 X16.493167 Y195.238155 Z-0.125000
G01 X17.236963 Y195.333854 Z-0.125000
G01 X17.980785 Y195.226830 Z-0.125000
G01 X18.724580 Y194.946954 Z-0.125000
G01 X21.122999 Y193.534875 Z-0.125000
G01 X22.018586 Y193.097387 Z-0.125000
G01 X22.868665 Y192.839260 Z-0.125000
G01 X23.718717 Y192.757424 Z-0.125000
G01 X24.462539 Y192.826084 Z-0.125000
G01 X25.312591 Y193.037459 Z-0.125000
G01 X29.137906 Y194.490919 Z-0.125000
G01 X30.200471 Y194.711264 Z-0.125000
G01 X31.263063 Y194.786935 Z-0.125000
G01 X33.175707 Y194.611834 Z-0.125000
G01 X37.000995 Y193.786414 Z-0.125000
G01 X38.807383 Y193.482990 Z-0.125000
G01 X40.720053 Y193.300640 Z-0.125000
G01 X42.951467 Y193.238701 Z-0.125000
G01 X51.133352 Y193.389169 Z-0.125000
G01 X59.208981 Y193.241796 Z-0.125000
G01 X61.865421 Y193.287093 Z-0.125000
G01 X64.946913 Y193.623034 Z-0.125000
G01 X69.941049 Y194.652950 Z-0.125000
G01 X71.959950 Y194.778574 Z-0.125000
G01 X73.022542 Y194.662448 Z-0.125000
G01 X74.085134 Y194.409216 Z-0.125000
G01 X78.016678 Y192.961391 Z-0.125000
G01 X78.866757 Y192.793328 Z-0.125000
G01 X79.610553 Y192.759911 Z-0.125000
G01 X80.566888 Y192.894055 Z-0.125000
G01 X81.508036 Y193.215312 Z-0.125000
G01 X85.029715 Y195.060805 Z-0.125000
G01 X85.773537 Y195.273741 Z-0.125000
G01 X86.517333 Y195.332320 Z-0.125000
G01 X87.367412 Y195.190900 Z-0.125000
G01 X88.247838 Y194.820219 Z-0.125000
G01 X90.889117 Y193.000920 Z-0.125000
G01 X91.830239 Y192.464319 Z-0.125000
G01 X92.574061 Y192.210452 Z-0.125000
G01 X93.317857 Y192.148566 Z-0.125000
G01 X94.167936 Y192.328853 Z-0.125000
G01 X95.078710 Y192.797085 Z-0.125000
G01 X97.754147 Y194.970105 Z-0.125000
G01 X98.630790 Y195.562560 Z-0.125000
G01 X99.480842 Y195.918794 Z-0.125000
G01 X100.224664 Y196.011716 Z-0.125000
G01 X101.180973 Y195.812617 Z-0.125000
G01 X102.091773 Y195.317820 Z-0.125000
G01 X103.013924 Y194.588445 Z-0.125000
G01 X105.085953 Y192.695724 Z-0.125000
G01 X106.099227 Y191.955579 Z-0.125000
G01 X107.025188 Y191.532326 Z-0.125000
G01 X107.981497 Y191.402124 Z-0.125000
G01 X109.044089 Y191.632232 Z-0.125000
G01 X110.106680 Y192.208335 Z-0.125000
G01 X111.062989 Y192.941283 Z-0.125000
G01 X113.613199 Y195.172538 Z-0.125000
G01 X114.933838 Y196.088551 Z-0.125000
G01 X116.163382 Y196.624940 Z-0.125000
G01 X117.438487 Y196.821737 Z-0.125000
G01 X118.607335 Y196.703600 Z-0.125000
G01 X119.988697 Y196.273362 Z-0.125000
G01 X124.679224 Y193.955588 Z-0.125000
G01 X126.789221 Y193.104690 Z-0.125000
G01 X128.808121 Y192.562797 Z-0.125000
G01 X130.933278 Y192.279482 Z-0.125000
G01 X132.420896 Y192.246753 Z-0.125000
G01 X133.908514 Y192.350046 Z-0.125000
G01 X135.289876 Y192.574968 Z-0.125000
G01 X136.671237 Y192.934854 Z-0.125000
G01 X139.069629 Y193.895713 Z-0.125000
G01 X143.578017 Y196.290772 Z-0.125000
G01 X144.640583 Y196.666956 Z-0.125000
G01 X145.596918 Y196.818429 Z-0.125000
G01 X146.234457 Y196.793532 Z-0.125000
G01 X146.872023 Y196.654732 Z-0.125000
G01 X148.086406 Y196.059605 Z-0.125000
G01 X149.236257 Y195.129755 Z-0.125000
G01 X152.105236 Y192.268819 Z-0.125000
G01 X152.928725 Y191.704093 Z-0.125000
G01 X153.778803 Y191.417550 Z-0.125000
G01 X154.628856 Y191.492532 Z-0.125000
G01 X155.532062 Y191.973465 Z-0.125000
G01 X156.364414 Y192.724986 Z-0.125000
G01 X158.640119 Y195.211749 Z-0.125000
G01 X159.380131 Y195.754091 Z-0.125000
G01 X160.048045 Y195.992269 Z-0.125000
G01 X160.791840 Y195.936601 Z-0.125000
G01 X161.566010 Y195.530889 Z-0.125000
G01 X162.306022 Y194.880967 Z-0.125000
G01 X164.218666 Y192.884398 Z-0.125000
G01 X164.844828 Y192.427595 Z-0.125000
G01 X165.360951 Y192.207224 Z-0.125000
G01 X165.998490 Y192.156054 Z-0.125000
G01 X166.636055 Y192.349120 Z-0.125000
G01 X167.303969 Y192.775760 Z-0.125000
G01 X168.123673 Y193.501114 Z-0.125000
G00 Z3.000000

(End cutting path id: polyline83945)


(Start cutting path id: polyline83943)
(Change tool to Default tool)

G00 Z3.000000
G00 X11.286517 Y191.372491

G00 Z4.875000 (Fast pre-penetrate)
G01 Z-0.125000 F400.0(Penetrate)
G01 X14.018866 Y193.487938 Z-0.125000 F800.000000
G01 X14.793036 Y193.859915 Z-0.125000
G01 X15.536832 Y194.007261 Z-0.125000
G01 X16.174397 Y193.963473 Z-0.125000
G01 X16.918193 Y193.734450 Z-0.125000
G01 X20.121129 Y191.890915 Z-0.125000
G01 X20.956021 Y191.578469 Z-0.125000
G01 X21.806073 Y191.439748 Z-0.125000
G01 X22.549895 Y191.470254 Z-0.125000
G01 X23.293691 Y191.625379 Z-0.125000
G01 X27.012722 Y193.089423 Z-0.125000
G01 X28.075314 Y193.354112 Z-0.125000
G01 X29.031649 Y193.457670 Z-0.125000
G01 X30.838037 Y193.333924 Z-0.125000
G01 X35.619634 Y192.263580 Z-0.125000
G01 X38.488613 Y191.943197 Z-0.125000
G01 X40.932566 Y191.934095 Z-0.125000
G01 X47.201781 Y192.234661 Z-0.125000
G01 X50.814583 Y192.300807 Z-0.125000
G01 X54.108588 Y192.238154 Z-0.125000
G01 X61.652908 Y191.915733 Z-0.125000
G01 X63.459295 Y191.976428 Z-0.125000
G01 X65.053170 Y192.149122 Z-0.125000
G01 X66.647044 Y192.442597 Z-0.125000
G01 X70.153563 Y193.262275 Z-0.125000
G01 X72.066233 Y193.463993 Z-0.125000
G01 X73.128798 Y193.392053 Z-0.125000
G01 X74.085134 Y193.197003 Z-0.125000
G01 X75.147699 Y192.851166 Z-0.125000
G01 X78.016678 Y191.707294 Z-0.125000
G01 X78.866757 Y191.500576 Z-0.125000
G01 X79.610553 Y191.434483 Z-0.125000
G01 X80.460631 Y191.513038 Z-0.125000
G01 X81.310684 Y191.758941 Z-0.125000
G01 X82.236645 Y192.188412 Z-0.125000
G01 X84.817202 Y193.635205 Z-0.125000
G01 X85.667281 Y193.925029 Z-0.125000
G01 X86.411077 Y194.011283 Z-0.125000
G01 X87.261155 Y193.892194 Z-0.125000
G01 X88.156742 Y193.522519 Z-0.125000
G01 X89.067543 Y192.946046 Z-0.125000
