%
(Header)
(Generated by gcodetools from Inkscape.)
(Using default header. To add your own header create file "header" in the output dir.)
M3
(Header end.)
G21 (All units in mm)

(Start cutting path id: path4658)
(Change tool to Default tool)

G00 Z3.000000
G00 X49.770857 Y102.324124

G00 Z4.875000 (Fast pre-penetrate)
G01 Z-0.125000 F400.0(Penetrate)
G01 X57.060082 Y76.514090 Z-0.125000 F800.000000
G01 X46.671050 Y68.382311 Z-0.125000
G00 Z3.000000

(End cutting path id: path4658)


(Start cutting path id: path4656)
(Change tool to Default tool)

G00 Z3.000000
G00 X49.104296 Y102.373326

G00 Z4.875000 (Fast pre-penetrate)
G01 Z-0.125000 F400.0(Penetrate)
G01 X56.301215 Y76.655594 Z-0.125000 F800.000000
G01 X46.106174 Y68.329826 Z-0.125000
G00 Z3.000000

(End cutting path id: path4656)


(Start cutting path id: path4654)
(Change tool to Default tool)

G00 Z3.000000
G00 X48.437732 Y102.422528

G00 Z4.875000 (Fast pre-penetrate)
G01 Z-0.125000 F400.0(Penetrate)
G01 X55.542352 Y76.797101 Z-0.125000 F800.000000
G01 X45.541297 Y68.277343 Z-0.125000
G00 Z3.000000

(End cutting path id: path4654)


(Start cutting path id: path4652)
(Change tool to Default tool)

G00 Z3.000000
G00 X47.771168 Y102.471733

G00 Z4.875000 (Fast pre-penetrate)
G01 Z-0.125000 F400.0(Penetrate)
G01 X54.783485 Y76.938605 Z-0.125000 F800.000000
G01 X44.976420 Y68.224860 Z-0.125000
G00 Z3.000000

(End cutting path id: path4652)


(Start cutting path id: path4650)
(Change tool to Default tool)

G00 Z3.000000
G00 X47.104607 Y102.520934

G00 Z4.875000 (Fast pre-penetrate)
G01 Z-0.125000 F400.0(Penetrate)
G01 X54.024619 Y77.080110 Z-0.125000 F800.000000
G01 X44.411543 Y68.172378 Z-0.125000
G00 Z3.000000

(End cutting path id: path4650)


(Start cutting path id: path4648)
(Change tool to Default tool)

G00 Z3.000000
G00 X46.438043 Y102.570136

G00 Z4.875000 (Fast pre-penetrate)
G01 Z-0.125000 F400.0(Penetrate)
G01 X53.265755 Y77.221616 Z-0.125000 F800.000000
G01 X43.846666 Y68.119892 Z-0.125000
G00 Z3.000000

(End cutting path id: path4648)


(Start cutting path id: path4646)
(Change tool to Default tool)

G00 Z3.000000
G00 X45.771479 Y102.619341

G00 Z4.875000 (Fast pre-penetrate)
G01 Z-0.125000 F400.0(Penetrate)
G01 X52.506889 Y77.363121 Z-0.125000 F800.000000
G01 X43.281790 Y68.067410 Z-0.125000
G00 Z3.000000

(End cutting path id: path4646)


(Start cutting path id: path4644)
(Change tool to Default tool)

G00 Z3.000000
G00 X45.104917 Y102.668543

G00 Z4.875000 (Fast pre-penetrate)
G01 Z-0.125000 F400.0(Penetrate)
G01 X51.748022 Y77.504628 Z-0.125000 F800.000000
G01 X42.716913 Y68.014927 Z-0.125000
G00 Z3.000000

(End cutting path id: path4644)


(Start cutting path id: path4642)
(Change tool to Default tool)

G00 Z3.000000
G00 X44.438353 Y102.717745

G00 Z4.875000 (Fast pre-penetrate)
G01 Z-0.125000 F400.0(Penetrate)
G01 X50.989156 Y77.646132 Z-0.125000 F800.000000
G01 X42.152036 Y67.962442 Z-0.125000
G00 Z3.000000

(End cutting path id: path4642)


(Start cutting path id: path4640)
(Change tool to Default tool)

G00 Z3.000000
G00 X43.771789 Y102.766949

G00 Z4.875000 (Fast pre-penetrate)
G01 Z-0.125000 F400.0(Penetrate)
G01 X50.230292 Y77.787636 Z-0.125000 F800.000000
G01 X41.587159 Y67.909959 Z-0.125000
G00 Z3.000000

(End cutting path id: path4640)


(Start cutting path id: path4638)
(Change tool to Default tool)

G00 Z3.000000
G00 X43.105228 Y102.816151

G00 Z4.875000 (Fast pre-penetrate)
G01 Z-0.125000 F400.0(Penetrate)
G01 X49.471426 Y77.929143 Z-0.125000 F800.000000
G01 X41.022283 Y67.857476 Z-0.125000
G00 Z3.000000

(End cutting path id: path4638)


(Start cutting path id: path4636)
(Change tool to Default tool)

G00 Z3.000000
G00 X42.438664 Y102.865353

G00 Z4.875000 (Fast pre-penetrate)
G01 Z-0.125000 F400.0(Penetrate)
G01 X48.712560 Y78.070647 Z-0.125000 F800.000000
G01 X40.457406 Y67.804991 Z-0.125000
G00 Z3.000000

(End cutting path id: path4636)


(Start cutting path id: path4634)
(Change tool to Default tool)

G00 Z3.000000
G00 X41.772100 Y102.914557

G00 Z4.875000 (Fast pre-penetrate)
G01 Z-0.125000 F400.0(Penetrate)
G01 X47.953696 Y78.212152 Z-0.125000 F800.000000
G01 X39.892529 Y67.752508 Z-0.125000
G00 Z3.000000

(End cutting path id: path4634)


(Start cutting path id: path4632)
(Change tool to Default tool)

G00 Z3.000000
G00 X41.105539 Y102.963759

G00 Z4.875000 (Fast pre-penetrate)
G01 Z-0.125000 F400.0(Penetrate)
G01 X47.194829 Y78.353659 Z-0.125000 F800.000000
G01 X39.327652 Y67.700026 Z-0.125000
G00 Z3.000000

(End cutting path id: path4632)


(Start cutting path id: path4630)
(Change tool to Default tool)

G00 Z3.000000
G00 X40.438975 Y103.012961

G00 Z4.875000 (Fast pre-penetrate)
G01 Z-0.125000 F400.0(Penetrate)
G01 X46.435963 Y78.495163 Z-0.125000 F800.000000
G01 X38.762776 Y67.647540 Z-0.125000
G00 Z3.000000

(End cutting path id: path4630)


(Start cutting path id: path4628)
(Change tool to Default tool)

G00 Z3.000000
G00 X39.772411 Y103.062165

G00 Z4.875000 (Fast pre-penetrate)
G01 Z-0.125000 F400.0(Penetrate)
G01 X45.677097 Y78.636670 Z-0.125000 F800.000000
G01 X38.197899 Y67.595058 Z-0.125000
G00 Z3.000000

(End cutting path id: path4628)


(Start cutting path id: path4626)
(Change tool to Default tool)

G00 Z3.000000
G00 X39.105850 Y103.111367

G00 Z4.875000 (Fast pre-penetrate)
G01 Z-0.125000 F400.0(Penetrate)
G01 X44.918233 Y78.778174 Z-0.125000 F800.000000
G01 X37.633022 Y67.542575 Z-0.125000
G00 Z3.000000

(End cutting path id: path4626)


(Start cutting path id: path4624)
(Change tool to Default tool)

G00 Z3.000000
G00 X38.439286 Y103.160569

G00 Z4.875000 (Fast pre-penetrate)
G01 Z-0.125000 F400.0(Penetrate)
G01 X44.159367 Y78.919678 Z-0.125000 F800.000000
G01 X37.068145 Y67.490090 Z-0.125000
G00 Z3.000000

(End cutting path id: path4624)


(Start cutting path id: path4622)
(Change tool to Default tool)

G00 Z3.000000
G00 X37.772722 Y103.209774

G00 Z4.875000 (Fast pre-penetrate)
G01 Z-0.125000 F400.0(Penetrate)
G01 X43.400500 Y79.061185 Z-0.125000 F800.000000
G01 X36.503269 Y67.437607 Z-0.125000
G00 Z3.000000

(End cutting path id: path4622)


(Start cutting path id: path4620)
(Change tool to Default tool)

G00 Z3.000000
G00 X37.106161 Y103.258975

G00 Z4.875000 (Fast pre-penetrate)
G01 Z-0.125000 F400.0(Penetrate)
G01 X42.641636 Y79.202690 Z-0.125000 F800.000000
G01 X35.938392 Y67.385124 Z-0.125000
G00 Z3.000000

(End cutting path id: path4620)


(Start cutting path id: path4618)
(Change tool to Default tool)

G00 Z3.000000
G00 X36.439597 Y103.308177

G00 Z4.875000 (Fast pre-penetrate)
G01 Z-0.125000 F400.0(Penetrate)
G01 X41.882770 Y79.344194 Z-0.125000 F800.000000
G01 X35.373515 Y67.332639 Z-0.125000
G00 Z3.000000

(End cutting path id: path4618)


(Start cutting path id: path4616)
(Change tool to Default tool)

G00 Z3.000000
G00 X35.773033 Y103.357382

G00 Z4.875000 (Fast pre-penetrate)
G01 Z-0.125000 F400.0(Penetrate)
G01 X41.123904 Y79.485701 Z-0.125000 F800.000000
G01 X34.808638 Y67.280156 Z-0.125000
G00 Z3.000000

(End cutting path id: path4616)


(Start cutting path id: path4614)
(Change tool to Default tool)

G00 Z3.000000
G00 X35.106471 Y103.406584

G00 Z4.875000 (Fast pre-penetrate)
G01 Z-0.125000 F400.0(Penetrate)
G01 X40.365037 Y79.627205 Z-0.125000 F800.000000
G01 X34.243761 Y67.227674 Z-0.125000
G00 Z3.000000

(End cutting path id: path4614)


(Start cutting path id: path4570)
(Change tool to Default tool)

G00 Z3.000000
G00 X23.219321 Y101.711805

G00 Z4.875000 (Fast pre-penetrate)
G01 Z-0.125000 F400.0(Penetrate)
G01 X24.796947 Y81.613371 Z-0.125000 F800.000000
G01 X20.474807 Y67.414702 Z-0.125000
G00 Z3.000000

(End cutting path id: path4570)


(Start cutting path id: path4538)
(Change tool to Default tool)

G00 Z3.000000
G00 X15.728299 Y99.325063

G00 Z4.875000 (Fast pre-penetrate)
G01 Z-0.125000 F400.0(Penetrate)
G01 X13.943041 Y82.589511 Z-0.125000 F800.000000
G01 X9.903443 Y68.108298 Z-0.125000
G00 Z3.000000

(End cutting path id: path4538)


(Start cutting path id: path4540)
(Change tool to Default tool)

G00 Z3.000000
G00 X16.196489 Y99.474235

G00 Z4.875000 (Fast pre-penetrate)
G01 Z-0.125000 F400.0(Penetrate)
G01 X14.621410 Y82.528501 Z-0.125000 F800.000000
G01 X10.564154 Y68.064949 Z-0.125000
G00 Z3.000000

(End cutting path id: path4540)


(Start cutting path id: path4542)
(Change tool to Default tool)

G00 Z3.000000
G00 X16.664676 Y99.623407

G00 Z4.875000 (Fast pre-penetrate)
G01 Z-0.125000 F400.0(Penetrate)
G01 X15.299780 Y82.467493 Z-0.125000 F800.000000
G01 X11.224863 Y68.021597 Z-0.125000
G00 Z3.000000

(End cutting path id: path4542)


(Start cutting path id: path4544)
(Change tool to Default tool)

G00 Z3.000000
G00 X17.132867 Y99.772576

G00 Z4.875000 (Fast pre-penetrate)
G01 Z-0.125000 F400.0(Penetrate)
G01 X15.978147 Y82.406485 Z-0.125000 F800.000000
G01 X11.885575 Y67.978248 Z-0.125000
G00 Z3.000000

(End cutting path id: path4544)


(Start cutting path id: path4546)
(Change tool to Default tool)

G00 Z3.000000
G00 X17.601054 Y99.921748

G00 Z4.875000 (Fast pre-penetrate)
G01 Z-0.125000 F400.0(Penetrate)
G01 X16.656517 Y82.345475 Z-0.125000 F800.000000
G01 X12.546283 Y67.934899 Z-0.125000
G00 Z3.000000

(End cutting path id: path4546)


(Start cutting path id: path4548)
(Change tool to Default tool)

G00 Z3.000000
G00 X18.069244 Y100.070920

G00 Z4.875000 (Fast pre-penetrate)
G01 Z-0.125000 F400.0(Penetrate)
G01 X17.334886 Y82.284468 Z-0.125000 F800.000000
G01 X13.206995 Y67.891549 Z-0.125000
G00 Z3.000000

(End cutting path id: path4548)


(Start cutting path id: path4550)
(Change tool to Default tool)

G00 Z3.000000
G00 X18.537432 Y100.220092

G00 Z4.875000 (Fast pre-penetrate)
G01 Z-0.125000 F400.0(Penetrate)
G01 X18.013256 Y82.223458 Z-0.125000 F800.000000
G01 X13.867703 Y67.848200 Z-0.125000
G00 Z3.000000

(End cutting path id: path4550)


(Start cutting path id: path4552)
(Change tool to Default tool)

G00 Z3.000000
G00 X19.005622 Y100.369263

G00 Z4.875000 (Fast pre-penetrate)
G01 Z-0.125000 F400.0(Penetrate)
G01 X18.691626 Y82.162450 Z-0.125000 F800.000000
G01 X14.528415 Y67.804848 Z-0.125000
G00 Z3.000000

(End cutting path id: path4552)


(Start cutting path id: path4554)
(Change tool to Default tool)

G00 Z3.000000
G00 X19.473810 Y100.518435

G00 Z4.875000 (Fast pre-penetrate)
G01 Z-0.125000 F400.0(Penetrate)
G01 X19.369993 Y82.101440 Z-0.125000 F800.000000
G01 X15.189123 Y67.761499 Z-0.125000
G00 Z3.000000

(End cutting path id: path4554)


(Start cutting path id: path4556)
(Change tool to Default tool)

G00 Z3.000000
G00 X19.942000 Y100.667605

G00 Z4.875000 (Fast pre-penetrate)
G01 Z-0.125000 F400.0(Penetrate)
G01 X20.048362 Y82.040432 Z-0.125000 F800.000000
G01 X15.849835 Y67.718150 Z-0.125000
G00 Z3.000000

(End cutting path id: path4556)


(Start cutting path id: path4558)
(Change tool to Default tool)

G00 Z3.000000
G00 X20.410187 Y100.816777

G00 Z4.875000 (Fast pre-penetrate)
G01 Z-0.125000 F400.0(Penetrate)
G01 X20.726732 Y81.979422 Z-0.125000 F800.000000
G01 X16.510544 Y67.674800 Z-0.125000
G00 Z3.000000

(End cutting path id: path4558)


(Start cutting path id: path4560)
(Change tool to Default tool)

G00 Z3.000000
G00 X20.878378 Y100.965948

G00 Z4.875000 (Fast pre-penetrate)
G01 Z-0.125000 F400.0(Penetrate)
G01 X21.405102 Y81.918414 Z-0.125000 F800.000000
G01 X17.171255 Y67.631451 Z-0.125000
G00 Z3.000000

(End cutting path id: path4560)


(Start cutting path id: path4562)
(Change tool to Default tool)

G00 Z3.000000
G00 X21.346565 Y101.115120

G00 Z4.875000 (Fast pre-penetrate)
G01 Z-0.125000 F400.0(Penetrate)
G01 X22.083471 Y81.857404 Z-0.125000 F800.000000
G01 X17.831964 Y67.588102 Z-0.125000
G00 Z3.000000

(End cutting path id: path4562)


(Start cutting path id: path4564)
(Change tool to Default tool)

G00 Z3.000000
G00 X21.814755 Y101.264292

G00 Z4.875000 (Fast pre-penetrate)
G01 Z-0.125000 F400.0(Penetrate)
G01 X22.761838 Y81.796397 Z-0.125000 F800.000000
G01 X18.492675 Y67.544750 Z-0.125000
G00 Z3.000000

(End cutting path id: path4564)


(Start cutting path id: path4566)
(Change tool to Default tool)

G00 Z3.000000
G00 X22.282943 Y101.413461

G00 Z4.875000 (Fast pre-penetrate)
G01 Z-0.125000 F400.0(Penetrate)
G01 X23.440208 Y81.735389 Z-0.125000 F800.000000
G01 X19.153384 Y67.501401 Z-0.125000
G00 Z3.000000

(End cutting path id: path4566)


(Start cutting path id: path4568)
(Change tool to Default tool)

G00 Z3.000000
G00 X22.751133 Y101.562633

G00 Z4.875000 (Fast pre-penetrate)
G01 Z-0.125000 F400.0(Penetrate)
G01 X24.118577 Y81.674379 Z-0.125000 F800.000000
G01 X19.814095 Y67.458051 Z-0.125000
G00 Z3.000000

(End cutting path id: path4568)


(Start cutting path id: path4572)
(Change tool to Default tool)

G00 Z3.000000
G00 X23.687511 Y101.860977

G00 Z4.875000 (Fast pre-penetrate)
G01 Z-0.125000 F400.0(Penetrate)
G01 X25.475314 Y81.552361 Z-0.125000 F800.000000
G01 X21.135515 Y67.371353 Z-0.125000
G00 Z3.000000

(End cutting path id: path4572)


(Start cutting path id: path4574)
(Change tool to Default tool)

G00 Z3.000000
G00 X24.155698 Y102.010149

G00 Z4.875000 (Fast pre-penetrate)
G01 Z-0.125000 F400.0(Penetrate)
G01 X26.153684 Y81.491354 Z-0.125000 F800.000000
G01 X21.796227 Y67.328001 Z-0.125000
G00 Z3.000000

(End cutting path id: path4574)


(Start cutting path id: path4576)
(Change tool to Default tool)

G00 Z3.000000
G00 X24.623889 Y102.159321

G00 Z4.875000 (Fast pre-penetrate)
G01 Z-0.125000 F400.0(Penetrate)
G01 X26.832053 Y81.430344 Z-0.125000 F800.000000
G01 X22.456935 Y67.284652 Z-0.125000
G00 Z3.000000

(End cutting path id: path4576)


(Start cutting path id: path4578)
(Change tool to Default tool)

G00 Z3.000000
G00 X25.092076 Y102.308490

G00 Z4.875000 (Fast pre-penetrate)
G01 Z-0.125000 F400.0(Penetrate)
G01 X27.510423 Y81.369336 Z-0.125000 F800.000000
G01 X23.117647 Y67.241302 Z-0.125000
G00 Z3.000000

(End cutting path id: path4578)


(Start cutting path id: path4580)
(Change tool to Default tool)

G00 Z3.000000
G00 X25.560266 Y102.457662

G00 Z4.875000 (Fast pre-penetrate)
G01 Z-0.125000 F400.0(Penetrate)
G01 X28.188793 Y81.308326 Z-0.125000 F800.000000
G01 X23.778355 Y67.197953 Z-0.125000
G00 Z3.000000

(End cutting path id: path4580)


(Start cutting path id: path4582)
(Change tool to Default tool)

G00 Z3.000000
G00 X26.028454 Y102.606834

G00 Z4.875000 (Fast pre-penetrate)
G01 Z-0.125000 F400.0(Penetrate)
G01 X28.867160 Y81.247318 Z-0.125000 F800.000000
G01 X24.439067 Y67.154604 Z-0.125000
G00 Z3.000000

(End cutting path id: path4582)


(Start cutting path id: path4584)
(Change tool to Default tool)

G00 Z3.000000
G00 X26.496644 Y102.756006

G00 Z4.875000 (Fast pre-penetrate)
G01 Z-0.125000 F400.0(Penetrate)
G01 X29.545529 Y81.186308 Z-0.125000 F800.000000
G01 X25.099776 Y67.111252 Z-0.125000
G00 Z3.000000

(End cutting path id: path4584)


(Start cutting path id: path4586)
(Change tool to Default tool)

G00 Z3.000000
G00 X26.964832 Y102.905178

G00 Z4.875000 (Fast pre-penetrate)
G01 Z-0.125000 F400.0(Penetrate)
G01 X30.223899 Y81.125300 Z-0.125000 F800.000000
G01 X25.760487 Y67.067903 Z-0.125000
G00 Z3.000000

(End cutting path id: path4586)


(Start cutting path id: path4588)
(Change tool to Default tool)

G00 Z3.000000
G00 X27.433022 Y103.054350

G00 Z4.875000 (Fast pre-penetrate)
G01 Z-0.125000 F400.0(Penetrate)
G01 X30.902269 Y81.064293 Z-0.125000 F800.000000
G01 X26.421196 Y67.024553 Z-0.125000
G00 Z3.000000

(End cutting path id: path4588)


(Start cutting path id: path4590)
(Change tool to Default tool)

G00 Z3.000000
G00 X27.901210 Y103.203519

G00 Z4.875000 (Fast pre-penetrate)
G01 Z-0.125000 F400.0(Penetrate)
G01 X31.580638 Y81.003283 Z-0.125000 F800.000000
G01 X27.081907 Y66.981204 Z-0.125000
G00 Z3.000000

(End cutting path id: path4590)


(Start cutting path id: path4592)
(Change tool to Default tool)

G00 Z3.000000
G00 X28.369400 Y103.352691

G00 Z4.875000 (Fast pre-penetrate)
G01 Z-0.125000 F400.0(Penetrate)
G01 X32.259005 Y80.942275 Z-0.125000 F800.000000
G01 X27.742616 Y66.937855 Z-0.125000
G00 Z3.000000

(End cutting path id: path4592)


(Start cutting path id: path4594)
(Change tool to Default tool)

G00 Z3.000000
G00 X28.837587 Y103.501863

G00 Z4.875000 (Fast pre-penetrate)
G01 Z-0.125000 F400.0(Penetrate)
G01 X32.937375 Y80.881265 Z-0.125000 F800.000000
G01 X28.403327 Y66.894505 Z-0.125000
G00 Z3.000000

(End cutting path id: path4594)


(Start cutting path id: path4596)
(Change tool to Default tool)

G00 Z3.000000
G00 X29.305777 Y103.651035

G00 Z4.875000 (Fast pre-penetrate)
G01 Z-0.125000 F400.0(Penetrate)
G01 X33.615745 Y80.820257 Z-0.125000 F800.000000
G01 X29.064036 Y66.851153 Z-0.125000
G00 Z3.000000

(End cutting path id: path4596)


(Start cutting path id: path4604)
(Change tool to Default tool)

G00 Z3.000000
G00 X31.773654 Y103.652598

G00 Z4.875000 (Fast pre-penetrate)
G01 Z-0.125000 F400.0(Penetrate)
G01 X36.570711 Y80.334732 Z-0.125000 F800.000000
G01 X31.419378 Y66.965255 Z-0.125000
G00 Z3.000000

(End cutting path id: path4604)


(Start cutting path id: path4612)
(Change tool to Default tool)

G00 Z3.000000
G00 X34.439907 Y103.455786

G00 Z4.875000 (Fast pre-penetrate)
G01 Z-0.125000 F400.0(Penetrate)
G01 X39.606174 Y79.768712 Z-0.125000 F800.000000
G01 X33.678885 Y67.175188 Z-0.125000
G00 Z3.000000

(End cutting path id: path4612)


(Start cutting path id: path4610)
(Change tool to Default tool)

G00 Z3.000000
G00 X33.773343 Y103.504990

G00 Z4.875000 (Fast pre-penetrate)
G01 Z-0.125000 F400.0(Penetrate)
G01 X38.847307 Y79.910216 Z-0.125000 F800.000000
G01 X33.114008 Y67.122706 Z-0.125000
G00 Z3.000000

(End cutting path id: path4610)


(Start cutting path id: path4608)
(Change tool to Default tool)

G00 Z3.000000
G00 X33.106782 Y103.554192

G00 Z4.875000 (Fast pre-penetrate)
G01 Z-0.125000 F400.0(Penetrate)
G01 X38.088441 Y80.051721 Z-0.125000 F800.000000
G01 X32.549131 Y67.070223 Z-0.125000
G00 Z3.000000

(End cutting path id: path4608)


(Start cutting path id: path4606)
(Change tool to Default tool)

G00 Z3.000000
G00 X32.440218 Y103.603394

G00 Z4.875000 (Fast pre-penetrate)
G01 Z-0.125000 F400.0(Penetrate)
G01 X37.329577 Y80.193228 Z-0.125000 F800.000000
G01 X31.984254 Y67.017738 Z-0.125000
G00 Z3.000000

(End cutting path id: path4606)


(Start cutting path id: path4602)
(Change tool to Default tool)

G00 Z3.000000
G00 X31.107093 Y103.701800

G00 Z4.875000 (Fast pre-penetrate)
G01 Z-0.125000 F400.0(Penetrate)
G01 X35.811844 Y80.476236 Z-0.125000 F800.000000
G01 X30.854501 Y66.912772 Z-0.125000
G00 Z3.000000

(End cutting path id: path4602)


(Start cutting path id: path4600)
(Change tool to Default tool)

G00 Z3.000000
G00 X30.440529 Y103.751002

G00 Z4.875000 (Fast pre-penetrate)
G01 Z-0.125000 F400.0(Penetrate)
G01 X35.052978 Y80.617743 Z-0.125000 F800.000000
G01 X30.289624 Y66.860290 Z-0.125000
G00 Z3.000000

(End cutting path id: path4600)


(Start cutting path id: path4598)
(Change tool to Default tool)

G00 Z3.000000
G00 X29.773965 Y103.800206

G00 Z4.875000 (Fast pre-penetrate)
G01 Z-0.125000 F400.0(Penetrate)
G01 X34.294114 Y80.759247 Z-0.125000 F800.000000
G01 X29.724747 Y66.807804 Z-0.125000
G00 Z3.000000

(End cutting path id: path4598)



(Footer)
M5
G00 X0.0000 Y0.0000
M2
(Using default footer. To add your own footer create file "footer" in the output dir.)
(end)
%