%
(Header)
(Generated by gcodetools from Inkscape.)
(Using default header. To add your own header create file "header" in the output dir.)
M3
(Header end.)
G21 (All units in mm)

(Start cutting path id: path971085)
(Change tool to Default tool)

G00 Z3.000000
G00 X105.275915 Y148.709107

G00 Z4.875000 (Fast pre-penetrate)
G01 Z-0.125000 F400.0(Penetrate)
G02 X105.288976 Y148.715761 Z-0.125000 I0.150597 J-0.279431 F800.000000
G02 X105.300654 Y148.720986 Z-0.125000 I0.101186 J-0.210474
G02 X105.312636 Y148.725501 Z-0.125000 I0.074306 J-0.179066
G02 X105.322614 Y148.728421 Z-0.125000 I0.039278 J-0.115695
G02 X105.332798 Y148.730415 Z-0.125000 I0.029200 J-0.122151
G01 X105.340526 Y148.730802 Z-0.125000
G01 X105.348095 Y148.729874 Z-0.125000
G01 X105.353253 Y148.727760 Z-0.125000
G01 X105.357267 Y148.724223 Z-0.125000
G01 X105.359815 Y148.719028 Z-0.125000
G01 X105.360541 Y148.713213 Z-0.125000
G01 X105.359285 Y148.704529 Z-0.125000
G02 X105.356661 Y148.696083 Z-0.125000 I-0.056903 J0.013051
G02 X105.351321 Y148.684421 Z-0.125000 I-0.114173 J0.045220
G02 X105.344948 Y148.673245 Z-0.125000 I-0.155397 J0.081218
G02 X105.335473 Y148.659021 Z-0.125000 I-0.222631 J0.138030
G02 X105.325197 Y148.645323 Z-0.125000 I-0.298000 J0.212857
G02 X105.311634 Y148.628885 Z-0.125000 I-0.366687 J0.288731
G02 X105.297410 Y148.612974 Z-0.125000 I-0.481583 J0.416183
G02 X105.279947 Y148.594709 Z-0.125000 I-0.553941 J0.512143
G02 X105.261909 Y148.576963 Z-0.125000 I-0.654060 J0.646808
G02 X105.240818 Y148.557368 Z-0.125000 I-0.671857 J0.701998
G02 X105.219199 Y148.538334 Z-0.125000 I-0.836249 J0.928011
G02 X105.194895 Y148.518014 Z-0.125000 I-0.735835 J0.855443
G02 X105.170074 Y148.498299 Z-0.125000 I-0.865862 J1.064613
G02 X105.143055 Y148.477906 Z-0.125000 I-0.788186 J1.016183
G02 X105.115540 Y148.458168 Z-0.125000 I-0.868549 J1.181711
G02 X105.086397 Y148.438335 Z-0.125000 I-0.766337 J1.094742
G02 X105.056766 Y148.419233 Z-0.125000 I-0.815493 J1.232449
G02 X105.026207 Y148.400624 Z-0.125000 I-0.693620 J1.104649
G02 X104.995164 Y148.382837 Z-0.125000 I-0.708883 J1.201206
G02 X104.963948 Y148.366093 Z-0.125000 I-0.567821 J1.021139
G02 X104.932254 Y148.350274 Z-0.125000 I-0.567507 J1.097367
G02 X104.901218 Y148.336002 Z-0.125000 I-0.421310 J0.875297
G02 X104.869697 Y148.322786 Z-0.125000 I-0.405612 J0.923238
G02 X104.839713 Y148.311528 Z-0.125000 I-0.284735 J0.712773
G02 X104.809272 Y148.301498 Z-0.125000 I-0.251507 J0.712131
G02 X104.781209 Y148.293695 Z-0.125000 I-0.164887 J0.538642
G02 X104.752763 Y148.287391 Z-0.125000 I-0.130028 J0.519378
G02 X104.727493 Y148.283403 Z-0.125000 I-0.070644 J0.365577
G02 X104.702013 Y148.281242 Z-0.125000 I-0.039256 J0.311593
G02 X104.680347 Y148.281286 Z-0.125000 I-0.010353 J0.235795
G02 X104.658861 Y148.283698 Z-0.125000 I0.010587 J0.191273
G02 X104.641490 Y148.288033 Z-0.125000 I0.019642 J0.115658
G02 X104.625176 Y148.295088 Z-0.125000 I0.032241 J0.096951
G02 X104.612540 Y148.303908 Z-0.125000 I0.032147 J0.059517
G02 X104.602330 Y148.315285 Z-0.125000 I0.043900 J0.049663
G02 X104.594971 Y148.329202 Z-0.125000 I0.049805 J0.035240
G02 X104.591009 Y148.344511 Z-0.125000 I0.069894 J0.026256
G02 X104.590050 Y148.363924 Z-0.125000 I0.098462 J0.014595
G02 X104.592372 Y148.383367 Z-0.125000 I0.124656 J-0.005026
G02 X104.598861 Y148.407887 Z-0.125000 I0.203060 J-0.040617
G02 X104.607982 Y148.431655 Z-0.125000 I0.259162 J-0.085821
G02 X104.622170 Y148.460703 Z-0.125000 I0.358567 J-0.157154
G02 X104.638465 Y148.488716 Z-0.125000 I0.454038 J-0.245357
G02 X104.660461 Y148.521819 Z-0.125000 I0.596931 J-0.372783
G02 X104.684155 Y148.553807 Z-0.125000 I0.725977 J-0.512976
G02 X104.713880 Y148.590505 Z-0.125000 I0.893506 J-0.693352
G02 X104.745005 Y148.626071 Z-0.125000 I1.066040 J-0.901491
G02 X104.782222 Y148.665871 Z-0.125000 I1.257208 J-1.138332
G02 X104.820618 Y148.704561 Z-0.125000 I1.426577 J-1.377335
G02 X104.864904 Y148.746878 Z-0.125000 I1.674784 J-1.708376
G02 X104.910214 Y148.788133 Z-0.125000 I1.850929 J-1.987374
G02 X104.960958 Y148.832336 Z-0.125000 I2.093692 J-2.352281
G02 X105.012614 Y148.875517 Z-0.125000 I2.253127 J-2.642795
G02 X105.069040 Y148.920908 Z-0.125000 I2.504918 J-3.056206
G02 X105.126290 Y148.965325 Z-0.125000 I2.671049 J-3.383582
G02 X105.187428 Y149.011107 Z-0.125000 I2.661387 J-3.490410
G02 X105.249368 Y149.055961 Z-0.125000 I3.095006 J-4.208760
G02 X105.314050 Y149.101070 Z-0.125000 I2.190416 J-3.071871
G02 X105.379555 Y149.144880 Z-0.125000 I2.431300 J-3.564495
G02 X105.446502 Y149.187809 Z-0.125000 I2.147717 J-3.275692
G02 X105.514291 Y149.229401 Z-0.125000 I2.181245 J-3.478992
G02 X105.582162 Y149.269176 Z-0.125000 I1.915957 J-3.191592
G02 X105.650867 Y149.307528 Z-0.125000 I1.873248 J-3.275027
G02 X105.718219 Y149.343203 Z-0.125000 I1.572204 J-2.886773
G02 X105.786393 Y149.377310 Z-0.125000 I1.521997 J-2.957098
G02 X105.851735 Y149.407995 Z-0.125000 I1.179522 J-2.426837
G02 X105.917889 Y149.436906 Z-0.125000 I1.085327 J-2.393239
G02 X105.979717 Y149.461758 Z-0.125000 I0.802788 J-1.907893
G02 X106.042336 Y149.484561 Z-0.125000 I0.698054 J-1.819493
G02 X106.099189 Y149.502869 Z-0.125000 I0.472452 J-1.369766
G02 X106.156774 Y149.518709 Z-0.125000 I0.383252 J-1.280633
G02 X106.207277 Y149.529885 Z-0.125000 I0.222528 J-0.885880
G02 X106.258329 Y149.538001 Z-0.125000 I0.153301 J-0.799741
G02 X106.301267 Y149.541606 Z-0.125000 I0.064240 J-0.507556
G02 X106.344261 Y149.541347 Z-0.125000 I0.019024 J-0.410797
G02 X106.378687 Y149.537082 Z-0.125000 I-0.015576 J-0.266766
G02 X106.411913 Y149.527986 Z-0.125000 I-0.040647 J-0.213711
G02 X106.437361 Y149.515651 Z-0.125000 I-0.045866 J-0.127038
G02 X106.459255 Y149.498262 Z-0.125000 I-0.063382 J-0.102283
G02 X106.475466 Y149.477003 Z-0.125000 I-0.072156 J-0.071833
G02 X106.485947 Y149.452356 Z-0.125000 I-0.098575 J-0.056470
G02 X106.491579 Y149.420943 Z-0.125000 I-0.144087 J-0.042046
G02 X106.491321 Y149.388656 Z-0.125000 I-0.198264 J-0.014560
G02 X106.484726 Y149.347355 Z-0.125000 I-0.301894 J0.027027
G02 X106.473382 Y149.306893 Z-0.125000 I-0.412643 J0.093873
G02 X106.454339 Y149.256965 Z-0.125000 I-0.612867 J0.205158
G02 X106.431620 Y149.208478 Z-0.125000 I-0.766270 J0.329472
G02 X106.400314 Y149.150934 Z-0.125000 I-1.043845 J0.530605
G02 X106.366103 Y149.094989 Z-0.125000 I-1.268405 J0.737217
G02 X106.322979 Y149.030810 Z-0.125000 I-1.590766 J1.022314
G02 X106.277458 Y148.968252 Z-0.125000 I-1.863986 J1.308494
G02 X106.223099 Y148.898500 Z-0.125000 I-2.210053 J1.666294
G02 X106.166679 Y148.830365 Z-0.125000 I-2.528100 J2.035985
G02 X106.101845 Y148.756229 Z-0.125000 I-2.817050 J2.398130
G02 X106.035176 Y148.683712 Z-0.125000 I-3.166118 J2.843912
G02 X105.960794 Y148.606488 Z-0.125000 I-3.344861 J3.147350
G02 X105.884721 Y148.530905 Z-0.125000 I-3.697428 J3.645340
G02 X105.801874 Y148.451979 Z-0.125000 I-3.740361 J3.843202
G02 X105.717435 Y148.374740 Z-0.125000 I-4.070272 J4.364954
G02 X105.627363 Y148.295561 Z-0.125000 I-3.938836 J4.389816
G02 X105.535763 Y148.218141 Z-0.125000 I-4.217306 J4.896927
G02 X105.439843 Y148.140187 Z-0.125000 I-3.957245 J4.771235
G02 X105.342385 Y148.063929 Z-0.125000 I-4.543952 J5.706753
G02 X105.242173 Y147.988853 Z-0.125000 I-3.049257 J3.965795
G02 X105.140250 Y147.916042 Z-0.125000 I-3.634541 J4.979962
G02 X105.037386 Y147.846468 Z-0.125000 I-2.300780 J3.290851
G02 X104.932635 Y147.780051 Z-0.125000 I-2.395517 J3.662325
G02 X104.828759 Y147.718439 Z-0.125000 I-2.032772 J3.308799
G02 X104.723011 Y147.660111 Z-0.125000 I-1.908703 J3.335474
G02 X104.619884 Y147.607542 Z-0.125000 I-1.605959 J3.022988
G02 X104.515008 Y147.558572 Z-0.125000 I-1.439148 J2.945344
G02 X104.414507 Y147.516022 Z-0.125000 I-1.187720 J2.665428
G02 X104.312435 Y147.477412 Z-0.125000 I-1.008035 J2.510652
G02 X104.216461 Y147.445572 Z-0.125000 I-0.801330 J2.254841
G02 X104.119164 Y147.418043 Z-0.125000 I-0.634335 J2.056246
G02 X104.029589 Y147.397296 Z-0.125000 I-0.465768 J1.807241
G02 X103.939053 Y147.381300 Z-0.125000 I-0.330353 J1.605587
G02 X103.857690 Y147.371737 Z-0.125000 I-0.200930 J1.358639
G02 X103.775895 Y147.367442 Z-0.125000 I-0.102751 J1.175783
G02 X103.704419 Y147.368880 Z-0.125000 I-0.016765 J0.944042
G02 X103.633353 Y147.376206 Z-0.125000 I0.046266 J0.797115
G02 X103.573239 Y147.388247 Z-0.125000 I0.089764 J0.604215
G02 X103.514909 Y147.406791 Z-0.125000 I0.127055 J0.500679
G02 X103.467326 Y147.428969 Z-0.125000 I0.136466 J0.354909
G02 X103.423679 Y147.457813 Z-0.125000 I0.160791 J0.290755
G02 X103.389523 Y147.489829 Z-0.125000 I0.159753 J0.204664
G02 X103.361963 Y147.527339 Z-0.125000 I0.185511 J0.165178
G02 X103.342271 Y147.569413 Z-0.125000 I0.195561 J0.117176
G02 X103.331038 Y147.614555 Z-0.125000 I0.239231 J0.083498
G02 X103.327640 Y147.667229 Z-0.125000 I0.298437 J0.045702
G02 X103.332620 Y147.720045 Z-0.125000 I0.370397 J-0.008280
G02 X103.347166 Y147.782465 Z-0.125000 I0.499718 J-0.083550
G02 X103.368779 Y147.842981 Z-0.125000 I0.613070 J-0.184845
G02 X103.401847 Y147.913638 Z-0.125000 I0.810062 J-0.336047
G02 X103.440541 Y147.981516 Z-0.125000 I0.970766 J-0.508409
G02 X103.492038 Y148.059211 Z-0.125000 I1.255667 J-0.776362
G02 X103.547989 Y148.133869 Z-0.125000 I1.449639 J-1.028102
G02 X103.617432 Y148.217604 Z-0.125000 I1.856023 J-1.468584
G02 X103.690445 Y148.298332 Z-0.125000 I2.063957 J-1.793325
G02 X103.777013 Y148.387186 Z-0.125000 I2.625561 J-2.471410
G02 X103.866485 Y148.473204 Z-0.125000 I2.813467 J-2.836909
G02 X103.969015 Y148.566271 Z-0.125000 I3.596074 J-3.858693
G02 X104.073930 Y148.656732 Z-0.125000 I3.712930 J-4.200104
G02 X104.190892 Y148.753067 Z-0.125000 I4.777006 J-5.680700
G02 X104.309823 Y148.847057 Z-0.125000 I4.747665 J-5.885213
G02 X104.439304 Y148.945644 Z-0.125000 I6.213062 J-8.025771
G02 X104.570421 Y149.042150 Z-0.125000 I5.947249 J-7.942859
G02 X104.710139 Y149.141861 Z-0.125000 I7.787944 J-10.764908
G02 X104.851235 Y149.239786 Z-0.125000 I7.374464 J-10.475010
G02 X104.998537 Y149.339330 Z-0.125000 I8.784560 J-12.840295
G02 X105.147228 Y149.437658 Z-0.125000 I11.500361 J-17.229173
G02 X105.298958 Y149.534891 Z-0.125000 I4.905202 J-7.487435
G02 X105.452206 Y149.629206 Z-0.125000 I5.862224 J-9.353654
G02 X105.605001 Y149.719414 Z-0.125000 I4.489660 J-7.430083
G02 X105.759489 Y149.806462 Z-0.125000 I4.427144 J-7.676494
G02 X105.910346 Y149.887482 Z-0.125000 I4.028773 J-7.320398
G02 X106.062884 Y149.965329 Z-0.125000 I3.697089 J-7.055936
G02 X106.208711 Y150.035731 Z-0.125000 I3.169786 J-6.379531
G02 X106.356153 Y150.102697 Z-0.125000 I2.838450 J-6.053736
G02 X106.493857 Y150.161064 Z-0.125000 I2.260035 J-5.140455
G02 X106.633124 Y150.215591 Z-0.125000 I1.959064 J-4.798547
G02 X106.759773 Y150.260698 Z-0.125000 I1.421798 J-3.791681
G02 X106.887904 Y150.301349 Z-0.125000 I1.171021 J-3.468747
G02 X107.000819 Y150.332202 Z-0.125000 I0.753277 J-2.534826
G02 X107.115015 Y150.357670 Z-0.125000 I0.561772 J-2.250169
G02 X107.211880 Y150.373545 Z-0.125000 I0.298350 J-1.516917
G02 X107.309476 Y150.382663 Z-0.125000 I0.170178 J-1.294628
G02 X107.388486 Y150.383150 Z-0.125000 I0.044415 J-0.797806
G02 X107.466757 Y150.374964 Z-0.125000 I-0.030292 J-0.667941
G02 X107.526927 Y150.359972 Z-0.125000 I-0.062144 J-0.377660
G02 X107.582890 Y150.334667 Z-0.125000 I-0.099692 J-0.295006
G02 X107.624314 Y150.303502 Z-0.125000 I-0.106859 J-0.185151
G02 X107.656503 Y150.263326 Z-0.125000 I-0.138613 J-0.144037
G02 X107.678631 Y150.213877 Z-0.125000 I-0.184791 J-0.112367
G02 X107.688876 Y150.160313 Z-0.125000 I-0.246160 J-0.074845
G02 X107.688764 Y150.091524 Z-0.125000 I-0.406449 J-0.033734
G02 X107.678282 Y150.022730 Z-0.125000 I-0.532470 J0.045939
G02 X107.654622 Y149.936031 Z-0.125000 I-0.877319 J0.192834
G02 X107.623211 Y149.851514 Z-0.125000 I-1.083569 J0.354617
G02 X107.576787 Y149.749553 Z-0.125000 I-1.622042 J0.676983
G02 X107.524486 Y149.650355 Z-0.125000 I-1.927120 J0.952680
G02 X107.456532 Y149.535341 Z-0.125000 I-2.605471 J1.461815
G02 X107.383879 Y149.423182 Z-0.125000 I-3.014267 J1.872913
G02 X107.295776 Y149.297309 Z-0.125000 I-3.733963 J2.519767
G02 X107.203713 Y149.174284 Z-0.125000 I-4.237266 J3.074933
G02 X107.097011 Y149.039899 Z-0.125000 I-4.866207 J3.754202
G02 X106.986823 Y148.908356 Z-0.125000 I-5.429482 J4.436131
G02 X106.863249 Y148.767929 Z-0.125000 I-5.853397 J5.026309
G02 X106.736501 Y148.630375 Z-0.125000 I-6.439695 J5.806661
G02 X106.597973 Y148.486460 Z-0.125000 I-6.608893 J6.222874
G02 X106.456469 Y148.345485 Z-0.125000 I-7.151012 J7.036345
G02 X106.305069 Y148.200663 Z-0.125000 I-7.056009 J7.224933
G02 X106.150822 Y148.058887 Z-0.125000 I-7.513605 J8.019764
G02 X105.988784 Y147.915712 Z-0.125000 I-7.178638 J7.961122
G02 X105.823985 Y147.775732 Z-0.125000 I-7.502944 J8.666243
G02 X105.653682 Y147.636707 Z-0.125000 I-6.975552 J8.371090
G02 X105.480595 Y147.500777 Z-0.125000 I-7.827525 J9.789006
G02 X105.304599 Y147.368607 Z-0.125000 I-5.239916 J6.794206
G02 X105.125366 Y147.240113 Z-0.125000 I-6.983667 J9.552106
G02 X104.946393 Y147.119600 Z-0.125000 I-3.095500 J4.403937
G02 X104.763484 Y147.006253 Z-0.125000 I-3.273453 J5.078153
G02 X104.583988 Y146.904087 Z-0.125000 I-2.708035 J4.548962
G02 X104.400620 Y146.809187 Z-0.125000 I-2.420602 J4.452582
G02 X104.223399 Y146.726557 Z-0.125000 I-2.063798 J4.194951
G02 X104.042760 Y146.651753 Z-0.125000 I-1.733254 J3.930027
G02 X103.870892 Y146.589588 Z-0.125000 I-1.450198 J3.740656
G02 X103.696236 Y146.535806 Z-0.125000 I-1.139024 J3.388487
G02 X103.532813 Y146.494420 Z-0.125000 I-0.905252 J3.231258
G02 X103.367404 Y146.461929 Z-0.125000 I-0.643245 J2.837424
G02 X103.215441 Y146.441014 Z-0.125000 I-0.446567 J2.682118
G02 X103.062489 Y146.429482 Z-0.125000 I-0.250044 J2.296445
G02 X102.924839 Y146.428181 Z-0.125000 I-0.088777 J2.110304
G02 X102.787469 Y146.436712 Z-0.125000 I0.040967 J1.769968
G02 X102.666738 Y146.453714 Z-0.125000 I0.157490 J1.555542
G02 X102.547948 Y146.480941 Z-0.125000 I0.231709 J1.283683
G02 X102.446401 Y146.514600 Z-0.125000 I0.299406 J1.073302
G02 X102.349048 Y146.558683 Z-0.125000 I0.336013 J0.871585
G02 X102.268543 Y146.607288 Z-0.125000 I0.359329 J0.686128
G02 X102.195205 Y146.665855 Z-0.125000 I0.381390 J0.552782
G02 X102.137244 Y146.727890 Z-0.125000 I0.380915 J0.413993
G02 X102.089857 Y146.797840 Z-0.125000 I0.409766 J0.328618
G02 X102.055893 Y146.872461 Z-0.125000 I0.407005 J0.230294
G02 X102.035188 Y146.951520 Z-0.125000 I0.463654 J0.163665
G02 X102.027363 Y147.039114 Z-0.125000 I0.517322 J0.090364
G02 X102.033252 Y147.127321 Z-0.125000 I0.621852 J0.002780
G02 X102.054022 Y147.227624 Z-0.125000 I0.764852 J-0.106077
G02 X102.086778 Y147.324884 Z-0.125000 I0.907623 J-0.251532
G02 X102.137252 Y147.435526 Z-0.125000 I1.162074 J-0.463295
G02 X102.197411 Y147.541398 Z-0.125000 I1.348583 J-0.696269
G02 X102.277573 Y147.660604 Z-0.125000 I1.734780 J-1.080032
G02 X102.365378 Y147.774455 Z-0.125000 I1.956211 J-1.417876
G02 X102.474547 Y147.900890 Z-0.125000 I2.528299 J-2.072710
G02 X102.589739 Y148.022021 Z-0.125000 I2.752933 J-2.502602
G02 X102.726703 Y148.154660 Z-0.125000 I3.613316 J-3.594127
G02 X102.868420 Y148.282365 Z-0.125000 I3.777843 J-4.049858
G02 X103.031402 Y148.420333 Z-0.125000 I5.100225 J-5.859675
G02 X103.198146 Y148.553913 Z-0.125000 I5.095835 J-6.190114
G02 X103.384766 Y148.696388 Z-0.125000 I7.189714 J-9.223923
G02 X103.574345 Y148.835109 Z-0.125000 I6.813254 J-9.112236
G02 X103.781561 Y148.981220 Z-0.125000 I10.201756 J-14.248282
G02 X103.991079 Y149.124243 Z-0.125000 I9.111196 J-13.122179
G02 X104.215165 Y149.272970 Z-0.125000 I14.733645 J-21.955949
G02 X104.441007 Y149.419281 Z-0.125000 I12.299778 J-18.738172
G02 X104.677566 Y149.569353 Z-0.125000 I21.377190 J-33.435424
G02 X104.915875 Y149.718570 Z-0.125000 I31.285394 J-49.700020
G02 X105.159446 Y149.867374 Z-0.125000 I8.760082 J-14.065198
G02 X105.404949 Y150.012554 Z-0.125000 I12.711011 J-21.214595
G02 X105.649229 Y150.151542 Z-0.125000 I6.451350 J-11.054454
G02 X105.895858 Y150.285037 Z-0.125000 I6.686374 J-12.058337
G02 X106.135635 Y150.408692 Z-0.125000 I6.417454 J-12.149631
G02 X106.377908 Y150.527418 Z-0.125000 I5.691940 J-11.308452
G02 X106.608387 Y150.634318 Z-0.125000 I5.102657 J-10.699544
G02 X106.841215 Y150.736019 Z-0.125000 I4.447589 J-9.864711
G02 X107.057450 Y150.824299 Z-0.125000 I3.644842 J-8.618757
G02 X107.275921 Y150.906867 Z-0.125000 I3.101965 J-7.877298
G02 X107.473314 Y150.974908 Z-0.125000 I2.278073 J-6.288606
G02 X107.672807 Y151.036367 Z-0.125000 I1.857198 J-5.673890
G02 X107.847262 Y151.082831 Z-0.125000 I1.189844 J-4.116639
G02 X108.023531 Y151.121329 Z-0.125000 I0.883703 J-3.623445
G02 X108.171628 Y151.145231 Z-0.125000 I0.461690 J-2.389880
G02 X108.320758 Y151.159046 Z-0.125000 I0.262242 J-2.018942
G02 X108.440013 Y151.159836 Z-0.125000 I0.067682 J-1.216312
G02 X108.558075 Y151.147583 Z-0.125000 I-0.041171 J-0.971610
G02 X108.647425 Y151.125064 Z-0.125000 I-0.091649 J-0.552172
G02 X108.730168 Y151.086917 Z-0.125000 I-0.143547 J-0.420169
G02 X108.790371 Y151.040146 Z-0.125000 I-0.154944 J-0.261576
G02 X108.836238 Y150.979839 Z-0.125000 I-0.200096 J-0.199778
G02 X108.866867 Y150.905270 Z-0.125000 I-0.278816 J-0.158101
G02 X108.879559 Y150.825082 Z-0.125000 I-0.367901 J-0.099329
G02 X108.876419 Y150.721459 Z-0.125000 I-0.643422 J-0.032359
G02 X108.858242 Y150.618050 Z-0.125000 I-0.831604 J0.092871
G02 X108.820269 Y150.487350 Z-0.125000 I-1.439186 J0.347275
G02 X108.771420 Y150.359731 Z-0.125000 I-1.754710 J0.598504
G02 X108.700596 Y150.205993 Z-0.125000 I-2.661287 J1.132813
G02 X108.621606 Y150.056170 Z-0.125000 I-3.129944 J1.554443
G02 X108.520264 Y149.883286 Z-0.125000 I-4.210611 J2.352052
G02 X108.412352 Y149.714417 Z-0.125000 I-4.838447 J2.972978
G02 X108.282840 Y149.526115 Z-0.125000 I-5.870544 J3.898999
G02 X108.147717 Y149.341842 Z-0.125000 I-6.641732 J4.728550
G02 X107.992508 Y149.141996 Z-0.125000 I-7.418993 J5.601721
G02 X107.832270 Y148.946224 Z-0.125000 I-8.266413 J6.602530
G02 X107.653974 Y148.738764 Z-0.125000 I-8.685016 J7.283751
G02 X107.471026 Y148.535475 Z-0.125000 I-9.513240 J8.377392
G02 X107.272427 Y148.324286 Z-0.125000 I-9.598092 J8.826965
G02 X107.069421 Y148.117408 Z-0.125000 I-10.304026 J9.908110
G02 X106.853449 Y147.906245 Z-0.125000 I-10.098879 J10.112845
G02 X106.633253 Y147.699560 Z-0.125000 I-10.629838 J11.104064
G02 X106.402986 Y147.491980 Z-0.125000 I-10.186506 J11.068297
G02 X106.168631 Y147.289084 Z-0.125000 I-10.510848 J11.903793
G02 X105.927263 Y147.088438 Z-0.125000 I-9.877191 J11.636272
G02 X105.681849 Y146.892460 Z-0.125000 I-10.559847 J12.972016
G02 X105.432739 Y146.702155 Z-0.125000 I-7.983979 J10.192804
G02 X105.178940 Y146.516088 Z-0.125000 I-12.280658 J16.484920
G02 X104.925795 Y146.342382 Z-0.125000 I-3.811638 J5.283488
G02 X104.666268 Y146.180361 Z-0.125000 I-4.235468 J6.495535
G02 X104.411964 Y146.036538 Z-0.125000 I-3.166654 J5.302439
G02 X104.151278 Y145.905255 Z-0.125000 I-2.806825 J5.249004
G02 X103.899533 Y145.793600 Z-0.125000 I-2.399189 J5.069765
G02 X103.642394 Y145.695133 Z-0.125000 I-1.939029 J4.678623
G02 X103.397561 Y145.616118 Z-0.125000 I-1.621710 J4.606160
G02 X103.148699 Y145.551029 Z-0.125000 I-1.207713 J4.109259
G02 X102.915210 Y145.504318 Z-0.125000 I-0.940695 J4.095305
G02 X102.679308 Y145.472040 Z-0.125000 I-0.605286 J3.545438
G02 X102.461461 Y145.456297 Z-0.125000 I-0.364906 J3.534352
G02 X102.243049 Y145.455275 Z-0.125000 I-0.123111 J2.973266
G02 X102.044894 Y145.468256 Z-0.125000 I0.095272 J2.973374
G02 X101.848255 Y145.495998 Z-0.125000 I0.241767 J2.424408
G02 X101.673454 Y145.534891 Z-0.125000 I0.423992 J2.317871
G02 X101.502546 Y145.588297 Z-0.125000 I0.495477 J1.885760
G02 X101.354298 Y145.649707 Z-0.125000 I0.624700 J1.717733
G02 X101.212710 Y145.725087 Z-0.125000 I0.645390 J1.382904
G02 X101.093657 Y145.805477 Z-0.125000 I0.711057 J1.181384
G02 X100.984528 Y145.898679 Z-0.125000 I0.710601 J0.942530
G02 X100.896770 Y145.994668 Z-0.125000 I0.723063 J0.749171
G02 X100.822602 Y146.100977 Z-0.125000 I0.732037 J0.589739
G02 X100.767852 Y146.209898 Z-0.125000 I0.703492 J0.421839
G02 X100.730159 Y146.324870 Z-0.125000 I0.750567 J0.309735
G02 X100.710387 Y146.446305 Z-0.125000 I0.739669 J0.182757
G02 X100.709388 Y146.569921 Z-0.125000 I0.850690 J0.068690
G02 X100.727850 Y146.705340 Z-0.125000 I0.960005 J-0.061911
G02 X100.763737 Y146.837436 Z-0.125000 I1.115751 J-0.232201
G02 X100.822377 Y146.984094 Z-0.125000 I1.361109 J-0.459176
G02 X100.895621 Y147.124253 Z-0.125000 I1.553058 J-0.722375
G02 X100.995084 Y147.279879 Z-0.125000 I1.948501 J-1.135714
G02 X101.106150 Y147.427680 Z-0.125000 I2.178961 J-1.521771
G02 X101.246028 Y147.590709 Z-0.125000 I2.796078 J-2.257491
G02 X101.394940 Y147.745762 Z-0.125000 I3.030599 J-2.761554
G02 X101.574034 Y147.915220 Z-0.125000 I4.009050 J-4.057632
G02 X101.760129 Y148.077226 Z-0.125000 I4.174828 J-4.607712
G02 X101.976504 Y148.252561 Z-0.125000 I5.779130 J-6.910669
G02 X102.198271 Y148.421333 Z-0.125000 I5.723358 J-7.290418
G02 X102.449148 Y148.602218 Z-0.125000 I8.498254 J-11.522136
G02 X102.704127 Y148.777634 Z-0.125000 I7.897483 J-11.206522
G02 X102.985735 Y148.963791 Z-0.125000 I13.055728 J-19.443822
G02 X103.270383 Y149.145687 Z-0.125000 I11.123399 J-17.093319
G02 X103.577861 Y149.336727 Z-0.125000 I21.897336 J-34.900808
G02 X103.887477 Y149.524751 Z-0.125000 I16.367449 J-26.603074
G02 X104.214797 Y149.719967 Z-0.125000 I44.881885 J-74.881526
G02 X104.544043 Y149.914469 Z-0.125000 I48.729285 J-82.111361
G02 X104.883486 Y150.111553 Z-0.125000 I17.934380 J-30.498005
G02 X105.225180 Y150.306483 Z-0.125000 I47.539047 J-82.934538
G02 X105.566779 Y150.494939 Z-0.125000 I7.870966 J-13.863261
G02 X105.910943 Y150.674834 Z-0.125000 I8.945305 J-16.694414
G02 X106.245821 Y150.841532 Z-0.125000 I8.926044 J-17.511726
G02 X106.583979 Y151.001471 Z-0.125000 I7.740826 J-15.928830
G02 X106.905831 Y151.145673 Z-0.125000 I7.360111 J-15.996276
G02 X107.230692 Y151.283004 Z-0.125000 I6.266703 J-14.371110
G02 X107.532456 Y151.402580 Z-0.125000 I5.380277 J-13.137245
G02 X107.837023 Y151.514792 Z-0.125000 I4.524813 J-11.811863
G02 X108.112139 Y151.607791 Z-0.125000 I3.413532 J-9.644747
G02 X108.389876 Y151.692425 Z-0.125000 I2.784639 J-8.640060
G02 X108.632550 Y151.757129 Z-0.125000 I1.803639 J-6.277150
G02 X108.877534 Y151.811734 Z-0.125000 I1.361549 J-5.531670
G02 X109.083000 Y151.846754 Z-0.125000 I0.717831 J-3.591374
G02 X109.289901 Y151.868886 Z-0.125000 I0.430351 J-3.045026
G02 X109.454789 Y151.873302 Z-0.125000 I0.130477 J-1.790972
G02 X109.618478 Y151.860740 Z-0.125000 I-0.027633 J-1.432761
G02 X109.741465 Y151.834128 Z-0.125000 I-0.106193 J-0.788284
G02 X109.856326 Y151.786514 Z-0.125000 I-0.178452 J-0.592838
G02 X109.938929 Y151.727578 Z-0.125000 I-0.191024 J-0.355083
G02 X110.002712 Y151.649680 Z-0.125000 I-0.246913 J-0.267237
G02 X110.045400 Y151.553305 Z-0.125000 I-0.346254 J-0.211007
G02 X110.063885 Y151.448647 Z-0.125000 I-0.456361 J-0.134568
G02 X110.061275 Y151.312508 Z-0.125000 I-0.828767 J-0.052202
G02 X110.038476 Y151.176537 Z-0.125000 I-1.057897 J0.107481
G02 X109.989517 Y151.003298 Z-0.125000 I-1.972812 J0.463999
G02 X109.926396 Y150.833534 Z-0.125000 I-2.382416 J0.789203
G02 X109.834540 Y150.628016 Z-0.125000 I-3.682888 J1.522776
G02 X109.732166 Y150.427451 Z-0.125000 I-4.335445 J2.086521
G02 X109.600974 Y150.195968 Z-0.125000 I-5.780183 J3.122974
G02 X109.461256 Y149.969599 Z-0.125000 I-6.682946 J3.968505
G02 X109.294045 Y149.717813 Z-0.125000 I-7.887245 J5.056525
G02 X109.119425 Y149.471247 Z-0.125000 I-8.995521 J6.185583
G02 X108.919501 Y149.204903 Z-0.125000 I-9.716496 J7.085210
G02 X108.712814 Y148.943939 Z-0.125000 I-10.891278 J8.413680
G02 X108.483569 Y148.668668 Z-0.125000 I-11.144696 J9.048197
G02 X108.247969 Y148.398995 Z-0.125000 I-12.211999 J10.431250
G02 X107.992937 Y148.120137 Z-0.125000 I-12.157933 J10.863123
G02 X107.731855 Y147.847106 Z-0.125000 I-12.963502 J12.134781
G02 X107.454727 Y147.569566 Z-0.125000 I-12.764741 J12.468688
G02 X107.171811 Y147.298079 Z-0.125000 I-13.246618 J13.521143
G02 X106.876407 Y147.026277 Z-0.125000 I-12.950216 J13.778283
G02 X106.575464 Y146.760744 Z-0.125000 I-13.130036 J14.577727
G02 X106.265715 Y146.498635 Z-0.125000 I-12.688647 J14.680763
G02 X105.950624 Y146.242925 Z-0.125000 I-12.837254 J15.496403
G02 X105.630538 Y145.994189 Z-0.125000 I-11.428171 J14.375939
G02 X105.304533 Y145.749819 Z-0.125000 I-19.464502 J25.627292
G02 X104.978704 Y145.521109 Z-0.125000 I-4.757172 J6.430805
G02 X104.644023 Y145.307512 Z-0.125000 I-5.758825 J8.654378
G02 X104.315511 Y145.119149 Z-0.125000 I-3.487918 J5.702425
G02 X103.977622 Y144.950070 Z-0.125000 I-3.152378 J5.877553
G02 X103.650770 Y144.808883 Z-0.125000 I-2.693880 J5.787515
G02 X103.316222 Y144.687266 Z-0.125000 I-2.117001 J5.302525
G02 X102.996750 Y144.592645 Z-0.125000 I-1.760216 J5.356469
G02 X102.671959 Y144.518487 Z-0.125000 I-1.255211 J4.749124
G02 X102.365836 Y144.469272 Z-0.125000 I-0.942528 J4.886047
G02 X102.057092 Y144.440885 Z-0.125000 I-0.543023 J4.212789
G02 X101.770093 Y144.434461 Z-0.125000 I-0.241372 J4.369584
G02 X101.483351 Y144.448728 Z-0.125000 I0.041235 J3.717468
G02 X101.220887 Y144.481216 Z-0.125000 I0.335110 J3.783752
G02 X100.961642 Y144.533708 Z-0.125000 I0.497806 J3.124968
G02 X100.728591 Y144.600376 Z-0.125000 I0.782994 J3.177765
G02 X100.501754 Y144.685898 Z-0.125000 I0.838934 J2.568745
G02 X100.302340 Y144.781203 Z-0.125000 I1.078729 J2.513416
G02 X100.112207 Y144.893876 Z-0.125000 I1.060741 J2.006731
G02 X99.949870 Y145.011985 Z-0.125000 I1.221068 J1.848926
G02 X99.800069 Y145.145515 Z-0.125000 I1.166459 J1.459381
G02 X99.677447 Y145.280677 Z-0.125000 I1.231276 J1.240247
G02 X99.570883 Y145.428427 Z-0.125000 I1.181840 J0.964708
G02 X99.489866 Y145.575542 Z-0.125000 I1.149728 J0.729025
G02 X99.428657 Y145.730243 Z-0.125000 I1.159515 J0.548233
G02 X99.390745 Y145.887054 Z-0.125000 I1.029527 J0.331894
G02 X99.375914 Y146.048109 Z-0.125000 I1.131232 J0.185384
G02 X99.384528 Y146.217809 Z-0.125000 I1.181744 J0.025086
G02 X99.416108 Y146.385082 Z-0.125000 I1.317254 J-0.162072
G02 X99.474314 Y146.565722 Z-0.125000 I1.509315 J-0.386635
G02 X99.552643 Y146.738781 Z-0.125000 I1.690400 J-0.660843
G02 X99.662041 Y146.927696 Z-0.125000 I2.040926 J-1.055742
G02 X99.787759 Y147.106433 Z-0.125000 I2.265352 J-1.459801
G02 X99.948674 Y147.301853 Z-0.125000 I2.845254 J-2.178904
G02 X100.122299 Y147.486386 Z-0.125000 I3.085396 J-2.729064
G02 X100.334029 Y147.687430 Z-0.125000 I4.036427 J-4.038959
G02 X100.555482 Y147.878075 Z-0.125000 I4.224494 J-4.683210
G02 X100.816419 Y148.084601 Z-0.125000 I5.837745 J-7.107678
G02 X101.084724 Y148.281908 Z-0.125000 I5.820217 J-7.633445
G02 X101.392239 Y148.494276 Z-0.125000 I8.752451 J-12.344986
G02 X101.705253 Y148.699007 Z-0.125000 I8.150924 J-12.120322
G02 X102.055440 Y148.917847 Z-0.125000 I14.062088 J-22.112525
G02 X102.409599 Y149.130871 Z-0.125000 I11.809027 J-19.231969
G02 X102.796997 Y149.356837 Z-0.125000 I26.378375 J-44.778107
G02 X103.187067 Y149.578946 Z-0.125000 I18.355457 J-31.782402
G02 X103.604444 Y149.812449 Z-0.125000 I81.547502 J-145.273120
G02 X104.023833 Y150.044957 Z-0.125000 I48.212270 J-86.469209
G02 X104.461563 Y150.284947 Z-0.125000 I52.784294 J-95.756707
G03 X104.902053 Y150.525883 Z-0.125000 I-93.794519 J172.002340
G02 X105.346294 Y150.762286 Z-0.125000 I9.484000 J-17.286411
G02 X105.792796 Y150.987302 Z-0.125000 I12.103297 J-23.461227
G02 X106.228943 Y151.196713 Z-0.125000 I11.009743 J-22.371453
G02 X106.668973 Y151.397096 Z-0.125000 I9.664631 J-20.639688
G02 X107.089047 Y151.578337 Z-0.125000 I9.857694 J-22.270343
G02 X107.512746 Y151.751063 Z-0.125000 I8.179762 J-19.459026
G02 X107.907513 Y151.902306 Z-0.125000 I7.477885 J-18.927642
G02 X108.305561 Y152.044731 Z-0.125000 I6.194375 J-16.684539
G02 X108.666176 Y152.163859 Z-0.125000 I4.879463 J-14.165272
G02 X109.029825 Y152.273188 Z-0.125000 I3.994100 J-12.625773
G02 X109.348446 Y152.358143 Z-0.125000 I2.637891 J-9.253343
G02 X109.669781 Y152.431341 Z-0.125000 I2.040884 J-8.217405
G02 X109.939953 Y152.480213 Z-0.125000 I1.091221 J-5.261198
G02 X110.211992 Y152.513984 Z-0.125000 I0.700354 J-4.529051
G02 X110.429145 Y152.525245 Z-0.125000 I0.243244 J-2.591273
G02 X110.645426 Y152.516202 Z-0.125000 I0.019446 J-2.125867
G02 X110.807713 Y152.488910 Z-0.125000 I-0.103191 J-1.109745
G02 X110.961259 Y152.435485 Z-0.125000 I-0.205362 J-0.837570
G02 X111.070794 Y152.367922 Z-0.125000 I-0.217485 J-0.475163
G02 X111.157866 Y152.275117 Z-0.125000 I-0.283168 J-0.352926
G02 X111.216917 Y152.160592 Z-0.125000 I-0.387726 J-0.272406
G02 X111.245345 Y152.033551 Z-0.125000 I-0.514598 J-0.181853
G02 X111.247675 Y151.867389 Z-0.125000 I-0.956041 J-0.096502
G02 X111.223906 Y151.701087 Z-0.125000 I-1.206345 J0.087571
G02 X111.167943 Y151.487040 Z-0.125000 I-2.444508 J0.524782
G02 X111.094234 Y151.276258 Z-0.125000 I-2.929819 J0.906256
G02 X110.985227 Y151.018932 Z-0.125000 I-4.667979 J1.825668
G02 X110.863234 Y150.767430 Z-0.125000 I-5.519994 J2.522172
G02 X110.706143 Y150.476338 Z-0.125000 I-7.275308 J3.738298
G02 X110.538444 Y150.191413 Z-0.125000 I-8.521800 J4.823861
G02 X110.337523 Y149.874706 Z-0.125000 I-9.708159 J5.936834
G02 X110.127195 Y149.564443 Z-0.125000 I-11.242991 J7.395212
G02 X109.886467 Y149.230179 Z-0.125000 I-11.669399 J8.150186
G02 X109.636962 Y148.902726 Z-0.125000 I-13.218732 J9.813320
G02 X109.360458 Y148.558588 Z-0.125000 I-13.133531 J10.269244
G02 X109.075573 Y148.221665 Z-0.125000 I-14.420191 J11.904071
G02 X108.767461 Y147.874638 Z-0.125000 I-14.184996 J12.284025
G02 X108.451330 Y147.535194 Z-0.125000 I-15.023325 J13.674568
G02 X108.115984 Y147.191374 Z-0.125000 I-14.917413 J14.214324
G02 X107.773015 Y146.855414 Z-0.125000 I-15.253570 J15.228723
G02 X107.414979 Y146.519947 Z-0.125000 I-15.326020 J15.998325
G02 X107.049770 Y146.192519 Z-0.125000 I-15.220025 J16.608849
G02 X106.673702 Y145.869697 Z-0.125000 I-15.329760 J17.477770
G02 X106.290906 Y145.555026 Z-0.125000 I-14.931685 J17.774173
G02 X105.901466 Y145.248477 Z-0.125000 I-14.791780 J18.390834
G02 X105.505029 Y144.947252 Z-0.125000 I-23.028325 J29.895704
G02 X105.107442 Y144.663220 Z-0.125000 I-6.413739 J8.557626
G02 X104.699138 Y144.394291 Z-0.125000 I-9.144178 J13.438834
G02 X104.296977 Y144.156734 Z-0.125000 I-3.710088 J5.821628
G02 X103.881941 Y143.947008 Z-0.125000 I-3.500788 J6.412338
G02 X103.479368 Y143.774385 Z-0.125000 I-2.986504 J6.409075
G02 X103.066420 Y143.628638 Z-0.125000 I-2.299698 J5.857914
G02 X102.670627 Y143.518247 Z-0.125000 I-1.895888 J6.032737
G02 X102.268138 Y143.435771 Z-0.125000 I-1.304095 J5.340748
G02 X101.886866 Y143.385514 Z-0.125000 I-0.936380 J5.632388
G02 X101.502927 Y143.363261 Z-0.125000 I-0.473363 J4.843816
G02 X101.143653 Y143.369083 Z-0.125000 I-0.095481 J5.195645
G02 X100.785793 Y143.402080 Z-0.125000 I0.221349 J4.357675
G02 X100.455488 Y143.458272 Z-0.125000 I0.628882 J4.695561
G02 X100.130487 Y143.540030 Z-0.125000 I0.797338 J3.856365
G02 X99.835403 Y143.639572 Z-0.125000 I1.221718 J4.108834
G02 X99.549190 Y143.762492 Z-0.125000 I1.253177 J3.312630
G02 X99.294654 Y143.897429 Z-0.125000 I1.655858 J3.431039
G02 X99.052252 Y144.053183 Z-0.125000 I1.577310 J2.721295
G02 X98.842532 Y144.215048 Z-0.125000 I1.898162 J2.676146
G02 X98.648042 Y144.394879 Z-0.125000 I1.753008 J2.090987
G02 X98.486252 Y144.575161 Z-0.125000 I1.939356 J1.903166
G02 X98.342832 Y144.770155 Z-0.125000 I1.779287 J1.458930
G02 X98.230972 Y144.960884 Z-0.125000 I1.808038 J1.188556
G02 X98.140967 Y145.160742 Z-0.125000 I1.732343 J0.900350
G02 X98.079980 Y145.356861 Z-0.125000 I1.464725 J0.563025
G02 X98.045116 Y145.558920 Z-0.125000 I1.531749 J0.368327
G02 X98.037858 Y145.763933 Z-0.125000 I1.451099 J0.154008
G02 X98.058491 Y145.968598 Z-0.125000 I1.570087 J-0.054912
G02 X98.108875 Y146.182979 Z-0.125000 I1.675923 J-0.280764
G02 X98.185062 Y146.389662 Z-0.125000 I1.833538 J-0.558492
G02 X98.295713 Y146.610479 Z-0.125000 I2.102999 J-0.915674
G02 X98.428045 Y146.819275 Z-0.125000 I2.310002 J-1.317715
G02 X98.600425 Y147.044705 Z-0.125000 I2.804548 J-1.965942
G02 X98.789889 Y147.256345 Z-0.125000 I3.041231 J-2.531931
G02 X99.024232 Y147.485545 Z-0.125000 I3.882237 J-3.734946
G02 X99.271595 Y147.701087 Z-0.125000 I4.096425 J-4.451489
G02 X99.567106 Y147.934278 Z-0.125000 I5.550922 J-6.730557
G02 X99.872382 Y148.155115 Z-0.125000 I5.612028 J-7.436416
G02 X100.227156 Y148.393358 Z-0.125000 I8.296581 J-11.971358
G02 X100.589146 Y148.621250 Z-0.125000 I7.862333 J-12.087346
G02 X100.999812 Y148.866189 Z-0.125000 I13.471685 J-22.119922
G02 X101.415646 Y149.103209 Z-0.125000 I11.481664 J-19.660475
G02 X101.876886 Y149.356795 Z-0.125000 I26.303085 J-47.295639
G02 X102.341562 Y149.605191 Z-0.125000 I18.175489 J-33.442243
G02 X102.845620 Y149.869359 Z-0.125000 I105.118253 J-199.962656
G02 X103.351844 Y150.131699 Z-0.125000 I39.456669 J-75.517728
G03 X103.887889 Y150.407499 Z-0.125000 I-337.889951 J657.382056
G03 X104.427518 Y150.687700 Z-0.125000 I-41.896772 J81.347264
G02 X104.978333 Y150.967767 Z-0.125000 I12.084703 J-23.085638
G02 X105.530875 Y151.235452 Z-0.125000 I18.382421 J-37.239944
G02 X106.074165 Y151.486699 Z-0.125000 I12.139730 J-25.537610
G02 X106.621481 Y151.725704 Z-0.125000 I11.281967 J-25.089287
G02 X107.146316 Y151.942642 Z-0.125000 I12.430335 J-29.329240
G02 X107.675392 Y152.149339 Z-0.125000 I10.010002 J-24.841794
G02 X108.170705 Y152.331494 Z-0.125000 I9.903845 J-26.165840
G02 X108.669710 Y152.503491 Z-0.125000 I8.029029 J-22.484276
G02 X109.124074 Y152.648880 Z-0.125000 I6.725334 J-20.235132
G02 X109.581766 Y152.783344 Z-0.125000 I5.497155 J-17.865129
G02 X109.984879 Y152.889716 Z-0.125000 I3.749281 J-13.391412
G02 X110.390993 Y152.983161 Z-0.125000 I2.975987 J-12.004547
G02 X110.734273 Y153.048059 Z-0.125000 I1.615910 J-7.607096
G02 X111.079796 Y153.096281 Z-0.125000 I1.109758 J-6.689660
G02 X111.357057 Y153.117340 Z-0.125000 I0.422053 J-3.721035
G02 X111.633984 Y153.115558 Z-0.125000 I0.118721 J-3.069390
G02 X111.842426 Y153.090934 Z-0.125000 I-0.081883 J-1.587696
G02 X112.042391 Y153.035653 Z-0.125000 I-0.223140 J-1.196440
G02 X112.184402 Y152.963048 Z-0.125000 I-0.236371 J-0.637517
G02 X112.301444 Y152.858292 Z-0.125000 I-0.313400 J-0.467917
G02 X112.381771 Y152.729689 Z-0.125000 I-0.408004 J-0.344230
G02 X112.425143 Y152.582650 Z-0.125000 I-0.545250 J-0.240752
G02 X112.437595 Y152.389628 Z-0.125000 I-1.023378 J-0.162929
G02 X112.417150 Y152.195312 Z-0.125000 I-1.289444 J0.037435
G02 X112.358905 Y151.942271 Z-0.125000 I-2.801500 J0.511623
G02 X112.278785 Y151.691933 Z-0.125000 I-3.338995 J0.930655
G02 X112.157034 Y151.383054 Z-0.125000 I-5.615292 J2.034942
G02 X112.019675 Y151.080534 Z-0.125000 I-6.663401 J2.843067
G02 X111.841101 Y150.728653 Z-0.125000 I-8.683531 J4.185508
G02 X111.649681 Y150.383922 Z-0.125000 I-10.355071 J5.524361
G02 X111.419435 Y150.000475 Z-0.125000 I-11.337572 J6.546983
G02 X111.177529 Y149.624723 Z-0.125000 I-13.398997 J8.360409
G02 X110.900180 Y149.220646 Z-0.125000 I-13.276342 J8.815342
G02 X110.611675 Y148.824940 Z-0.125000 I-15.267491 J10.828331
G02 X110.291692 Y148.410406 Z-0.125000 I-14.641622 J10.971244
G02 X109.960875 Y148.004944 Z-0.125000 I-16.160722 J12.847859
G02 X109.602921 Y147.588894 Z-0.125000 I-15.651414 J13.103882
G02 X109.234535 Y147.182499 Z-0.125000 I-16.494731 J14.581895
G02 X108.843592 Y146.772346 Z-0.125000 I-16.491133 J15.327336
G02 X108.442805 Y146.372201 Z-0.125000 I-16.615687 J16.241535
G02 X108.024163 Y145.973755 Z-0.125000 I-17.199992 J17.652700
G02 X107.596434 Y145.585409 Z-0.125000 I-16.678370 J17.940025
G02 X107.155550 Y145.203035 Z-0.125000 I-17.698773 J19.961652
G02 X106.706397 Y144.830649 Z-0.125000 I-16.725956 J19.716940
G02 X106.248681 Y144.467613 Z-0.125000 I-17.691395 J21.835259
G02 X105.782949 Y144.112013 Z-0.125000 I-22.330248 J28.763311
G02 X105.314058 Y143.773395 Z-0.125000 I-9.331799 J12.427984
G02 X104.833538 Y143.446352 Z-0.125000 I-17.904438 J25.790187
G02 X104.358164 Y143.155157 Z-0.125000 I-3.995212 J5.988542
G02 X103.866121 Y142.900878 Z-0.125000 I-3.995613 J7.128508
G02 X103.387256 Y142.693407 Z-0.125000 I-3.267339 J6.884995
G02 X102.894916 Y142.521211 Z-0.125000 I-2.501953 J6.363572
G02 X102.421194 Y142.393611 Z-0.125000 I-2.048976 J6.663784
G02 X101.939235 Y142.302219 Z-0.125000 I-1.368404 J5.899855
G02 X101.480390 Y142.251117 Z-0.125000 I-0.939337 J6.348733
G02 X101.018930 Y142.235943 Z-0.125000 I-0.410855 J5.470370
G02 X100.584385 Y142.255694 Z-0.125000 I0.055444 J6.009985
G02 X100.152668 Y142.309734 Z-0.125000 I0.413435 J5.054394
G02 X99.751166 Y142.392598 Z-0.125000 I0.946751 J5.601465
G02 X99.357375 Y142.507029 Z-0.125000 I1.126900 J4.612760
G02 X98.996691 Y142.643578 Z-0.125000 I1.719921 J5.087668
G02 X98.647850 Y142.808298 Z-0.125000 I1.725285 J4.105533
G02 X98.334541 Y142.987909 Z-0.125000 I2.333157 J4.432970
G02 X98.036478 Y143.191968 Z-0.125000 I2.182205 J3.507205
G02 X97.775672 Y143.403312 Z-0.125000 I2.727502 J3.632405
G02 X97.533003 Y143.635282 Z-0.125000 I2.460517 J2.816933
G02 X97.328297 Y143.866849 Z-0.125000 I2.854363 J2.729528
G02 X97.144395 Y144.115155 Z-0.125000 I2.530847 J2.066671
G02 X96.997835 Y144.355856 Z-0.125000 I2.707693 J1.813638
G02 X96.874985 Y144.607644 Z-0.125000 I2.467204 J1.359640
G02 X96.787053 Y144.848986 Z-0.125000 I2.156517 J0.922414
G02 X96.727069 Y145.096843 Z-0.125000 I2.135843 J0.648081
G02 X96.699222 Y145.339965 Z-0.125000 I1.818448 J0.331441
G02 X96.703199 Y145.585691 Z-0.125000 I1.920512 J0.091809
G02 X96.739875 Y145.835272 Z-0.125000 I1.913068 J-0.153639
G02 X96.807667 Y146.078087 Z-0.125000 I2.034234 J-0.437073
G02 X96.912148 Y146.330997 Z-0.125000 I2.197474 J-0.759767
G02 X97.044011 Y146.570905 Z-0.125000 I2.374536 J-1.148955
G02 X97.219037 Y146.825572 Z-0.125000 I2.757622 J-1.707766
G02 X97.416186 Y147.063894 Z-0.125000 I2.978619 J-2.263322
G02 X97.663301 Y147.319538 Z-0.125000 I3.677181 J-3.307242
G02 X97.927377 Y147.558156 Z-0.125000 I3.905420 J-4.056648
G02 X98.247024 Y147.815231 Z-0.125000 I5.128234 J-6.049174
G02 X98.579339 Y148.056424 Z-0.125000 I5.268861 J-6.909880
G02 X98.970857 Y148.316563 Z-0.125000 I7.524885 J-10.900536
G02 X99.371682 Y148.563072 Z-0.125000 I7.310975 J-11.438555
G02 X99.832903 Y148.828844 Z-0.125000 I12.005082 J-20.300593
G02 X100.300795 Y149.083946 Z-0.125000 I10.587991 J-18.863116
G02 X100.827357 Y149.358615 Z-0.125000 I22.976641 J-43.405939
G02 X101.358413 Y149.626095 Z-0.125000 I16.633511 J-32.363444
G02 X101.942953 Y149.913330 Z-0.125000 I85.859185 J-173.989904
G02 X102.530080 Y150.197334 Z-0.125000 I31.750326 J-64.889083
G03 X103.161447 Y150.500693 Z-0.125000 I-80.116969 J167.552447
G03 X103.797269 Y150.810354 Z-0.125000 I-44.905043 J93.010287
G02 X104.456142 Y151.126691 Z-0.125000 I17.860932 J-36.356788
G02 X105.116806 Y151.433571 Z-0.125000 I41.259010 J-87.959684
G02 X105.772665 Y151.725527 Z-0.125000 I12.210911 J-26.548252
G02 X106.431711 Y152.000449 Z-0.125000 I12.464160 J-28.951896
G02 X107.067087 Y152.250733 Z-0.125000 I14.824135 J-36.701237
G02 X107.707349 Y152.488823 Z-0.125000 I11.548497 J-30.075837
G02 X108.310373 Y152.699960 Z-0.125000 I12.542259 J-34.854872
G02 X108.917471 Y152.899610 Z-0.125000 I9.862347 J-28.966667
G02 X109.473887 Y153.070191 Z-0.125000 I8.979239 J-28.296521
G02 X110.033842 Y153.228971 Z-0.125000 I7.258349 J-24.530693
G02 X110.530499 Y153.356861 Z-0.125000 I5.205025 J-19.185097
G02 X111.030312 Y153.471122 Z-0.125000 I4.219744 J-17.308160
G02 X111.455976 Y153.553418 Z-0.125000 I2.335948 J-10.940487
G02 X111.884150 Y153.618123 Z-0.125000 I1.710798 J-9.871796
G02 X112.230461 Y153.651472 Z-0.125000 I0.688091 J-5.330652
G02 X112.577021 Y153.660348 Z-0.125000 I0.290077 J-4.555822
G02 X112.839740 Y153.641577 Z-0.125000 I-0.027655 J-2.234898
G02 X113.094885 Y153.588583 Z-0.125000 I-0.227417 J-1.735644
G02 X113.276056 Y153.514521 Z-0.125000 I-0.248508 J-0.866526
G02 X113.431156 Y153.401196 Z-0.125000 I-0.342241 J-0.631200
G02 X113.538207 Y153.262863 Z-0.125000 I-0.413538 J-0.430611
G02 X113.602448 Y153.098457 Z-0.125000 I-0.555033 J-0.311631
G02 X113.630901 Y152.882506 Z-0.125000 I-1.036505 J-0.246416
G02 X113.618737 Y152.662633 Z-0.125000 I-1.314930 J-0.037523
G02 X113.563676 Y152.372771 Z-0.125000 I-3.004244 J0.420509
G02 X113.481763 Y152.084912 Z-0.125000 I-3.561168 J0.857780
G02 X113.352171 Y151.725321 Z-0.125000 I-6.530018 J2.150186
G02 X113.204157 Y151.372047 Z-0.125000 I-7.734873 J3.033101
G02 X113.008967 Y150.958163 Z-0.125000 I-10.015904 J4.470574
G02 X112.798555 Y150.552332 Z-0.125000 I-12.196776 J6.066223
G02 X112.543801 Y150.100006 Z-0.125000 I-12.808432 J6.915930
G02 X112.274878 Y149.656622 Z-0.125000 I-15.495684 J9.095257
G02 X111.965457 Y149.180316 Z-0.125000 I-14.605693 J9.149579
G02 X111.642103 Y148.714056 Z-0.125000 I-17.098617 J11.512745
G02 X111.282677 Y148.227005 Z-0.125000 I-15.754093 J11.249800
G02 X110.909446 Y147.751133 Z-0.125000 I-17.531358 J13.365714
G02 X110.504962 Y147.264650 Z-0.125000 I-16.629162 J13.414865
G02 X110.087074 Y146.790264 Z-0.125000 I-17.479543 J14.976521
G02 X109.643030 Y146.313329 Z-0.125000 I-17.496415 J15.844622
G02 X109.186406 Y145.848986 Z-0.125000 I-17.397046 J16.651173
G02 X108.708858 Y145.388106 Z-0.125000 I-18.501762 J18.692993
G02 X108.219919 Y144.939817 Z-0.125000 I-17.524682 J18.623032
G02 X107.715254 Y144.499244 Z-0.125000 I-19.599567 J21.941494
G02 X107.200564 Y144.070820 Z-0.125000 I-17.925704 J21.011784
G02 X106.675123 Y143.653060 Z-0.125000 I-20.473371 J25.211246
G02 X106.140673 Y143.245332 Z-0.125000 I-21.321599 J27.394153
G02 X105.600630 Y142.853366 Z-0.125000 I-14.085225 J18.838358
G02 X105.048833 Y142.468233 Z-0.125000 I-45.150131 J64.100600
G02 X104.500306 Y142.121196 Z-0.125000 I-4.507070 J6.516874
G02 X103.931592 Y141.817754 Z-0.125000 I-4.881466 J8.464212
G02 X103.375969 Y141.570363 Z-0.125000 I-3.510402 J7.136508
G02 X102.803310 Y141.368183 Z-0.125000 I-2.735110 J6.834882
G02 X102.250197 Y141.220778 Z-0.125000 I-2.231268 J7.261004
G02 X101.687040 Y141.118674 Z-0.125000 I-1.457231 J6.433273
G02 X101.148349 Y141.065772 Z-0.125000 I-0.963788 J7.044965
G02 X100.607083 Y141.057435 Z-0.125000 I-0.364463 J6.087704
G02 X100.094422 Y141.091675 Z-0.125000 I0.197631 J6.814166
G02 X99.586166 Y141.167859 Z-0.125000 I0.603049 J5.756700
G02 X99.110258 Y141.279285 Z-0.125000 I1.275417 J6.519381
G02 X98.644701 Y141.428687 Z-0.125000 I1.473915 J5.392982
G02 X98.215010 Y141.605323 Z-0.125000 I2.254742 J6.095949
G02 X97.800382 Y141.815227 Z-0.125000 I2.239411 J4.938016
G02 X97.424796 Y142.043655 Z-0.125000 I3.081776 J5.490115
G02 X97.067840 Y142.300424 Z-0.125000 I2.858445 J4.350255
G02 X96.752443 Y142.566349 Z-0.125000 I3.676107 J4.680005
G02 X96.458382 Y142.855779 Z-0.125000 I3.271886 J3.618329
G02 X96.207309 Y143.144579 Z-0.125000 I3.951727 J3.689034
G02 X95.979783 Y143.452244 Z-0.125000 I3.423385 J2.769647
G02 X95.795171 Y143.749562 Z-0.125000 I3.855617 J2.600026
G02 X95.636296 Y144.060180 Z-0.125000 I3.351905 J1.910376
G02 X95.518226 Y144.353626 Z-0.125000 I3.197418 J1.456968
G02 X95.429254 Y144.653641 Z-0.125000 I3.002139 J1.053517
G02 X95.377394 Y144.940040 Z-0.125000 I2.359164 J0.575079
G02 X95.360105 Y145.231783 Z-0.125000 I2.422429 J0.289943
G02 X95.378717 Y145.519463 Z-0.125000 I2.258308 J-0.001666
G02 X95.432904 Y145.802349 Z-0.125000 I2.335722 J-0.300780
G02 X95.525386 Y146.088983 Z-0.125000 I2.367924 J-0.605765
G02 X95.650853 Y146.362713 Z-0.125000 I2.502756 J-0.981549
G02 X95.821010 Y146.647224 Z-0.125000 I2.757701 J-1.456147
G02 X96.018808 Y146.913541 Z-0.125000 I2.950861 J-1.985037
G02 X96.269687 Y147.195414 Z-0.125000 I3.494372 J-2.857569
G02 X96.542114 Y147.457069 Z-0.125000 I3.722326 J-3.602914
G02 X96.875728 Y147.736899 Z-0.125000 I4.704976 J-5.270503
G02 X97.225467 Y147.997091 Z-0.125000 I4.903204 J-6.225542
G02 X97.642804 Y148.276865 Z-0.125000 I6.699770 J-9.542827
G02 X98.071970 Y148.539247 Z-0.125000 I6.684433 J-10.451228
G02 X98.572641 Y148.822226 Z-0.125000 I10.333452 J-17.698455
G02 X99.081819 Y149.091124 Z-0.125000 I9.506696 J-17.385117
G02 X99.663218 Y149.381687 Z-0.125000 I18.716845 J-36.724286
G02 X100.250463 Y149.662285 Z-0.125000 I14.563525 J-29.724278
G02 X100.906615 Y149.965759 Z-0.125000 I56.319145 J-120.908341
G02 X101.566293 Y150.264095 Z-0.125000 I26.187075 J-57.026109
G03 X102.286662 Y150.586421 Z-0.125000 I-90.344664 J202.878410
G03 X103.011721 Y150.913582 Z-0.125000 I-120.021731 J266.961225
G02 X103.776637 Y151.256067 Z-0.125000 I40.663830 J-89.794207
G03 X104.545336 Y151.597426 Z-0.125000 I-143.258981 J323.638028
G02 X105.318365 Y151.928404 Z-0.125000 I11.751132 J-26.377581
G02 X106.092226 Y152.235837 Z-0.125000 I13.378286 J-32.547780
G02 X106.842802 Y152.516371 Z-0.125000 I16.613312 J-43.304941
G02 X107.598931 Y152.782293 Z-0.125000 I12.619321 J-34.674165
G02 X108.315958 Y153.019354 Z-0.125000 I15.150568 J-44.622235
G02 X109.037467 Y153.243480 Z-0.125000 I11.449059 J-35.583556
G02 X109.703839 Y153.436911 Z-0.125000 I11.621471 J-38.791519
G02 X110.373917 Y153.617814 Z-0.125000 I9.158673 J-32.593054
G02 X110.973279 Y153.766076 Z-0.125000 I7.078250 J-27.328698
G02 X111.575848 Y153.900420 Z-0.125000 I5.809851 J-24.640269
G02 X112.093764 Y154.000433 Z-0.125000 I3.305720 J-15.727580
G02 X112.614308 Y154.082606 Z-0.125000 I2.570909 J-14.596184
G02 X113.039582 Y154.130031 Z-0.125000 I1.067518 J-7.642257
G02 X113.465615 Y154.152205 Z-0.125000 I0.567236 J-6.794635
G02 X113.791884 Y154.142255 Z-0.125000 I0.066047 J-3.188527
G02 X114.111887 Y154.095630 Z-0.125000 I-0.209056 J-2.556260
G02 X114.340137 Y154.023608 Z-0.125000 I-0.252602 J-1.198238
G02 X114.542750 Y153.905658 Z-0.125000 I-0.373164 J-0.874014
G02 X114.682608 Y153.761959 Z-0.125000 I-0.411685 J-0.540591
G02 X114.774727 Y153.583058 Z-0.125000 I-0.552913 J-0.397869
G02 X114.825613 Y153.348961 Z-0.125000 I-1.003951 J-0.340809
G02 X114.827418 Y153.106030 Z-0.125000 I-1.297016 J-0.131109
G02 X114.781739 Y152.781989 Z-0.125000 I-3.011526 J0.259277
G02 X114.703028 Y152.459418 Z-0.125000 I-3.574321 J0.701295
G02 X114.570936 Y152.050904 Z-0.125000 I-7.410105 J2.170426
G02 X114.417366 Y151.647749 Z-0.125000 I-8.685401 J3.077613
G02 X114.210830 Y151.170819 Z-0.125000 I-11.292069 J4.606873
G02 X113.986586 Y150.702719 Z-0.125000 I-14.063390 J6.449324
G02 X113.712568 Y150.179161 Z-0.125000 I-14.170226 J7.082912
G02 X113.421643 Y149.665733 Z-0.125000 I-17.621565 J9.645782
G02 X113.085135 Y149.114289 Z-0.125000 I-15.746231 J9.230430
G02 X112.731506 Y148.574629 Z-0.125000 I-18.822749 J11.948502
G02 X112.337045 Y148.012272 Z-0.125000 I-16.596985 J11.222292
G02 X111.925236 Y147.463421 Z-0.125000 I-18.670153 J13.579536
G02 X111.477788 Y146.904396 Z-0.125000 I-17.237955 J13.338806
G02 X111.013309 Y146.360291 Z-0.125000 I-18.132421 J15.008559
G02 X110.518739 Y145.815510 Z-0.125000 I-18.030218 J15.871569
G02 X110.008203 Y145.286424 Z-0.125000 I-17.757028 J16.623598
G02 X109.473329 Y144.763272 Z-0.125000 I-19.214387 J19.109875
G02 X108.924219 Y144.255749 Z-0.125000 I-17.824172 J18.733887
G02 X108.356508 Y143.758290 Z-0.125000 I-20.902934 J23.282227
G02 X107.776662 Y143.275603 Z-0.125000 I-18.481856 J21.612387
G02 X107.183630 Y142.805241 Z-0.125000 I-22.916170 J28.283668
G02 X106.580457 Y142.347793 Z-0.125000 I-20.551190 J26.471615
G02 X105.969072 Y141.904807 Z-0.125000 I-21.317279 J28.777514
G02 X105.346308 Y141.464885 Z-0.125000 I-149.947394 J211.608247
G02 X104.724138 Y141.062422 Z-0.125000 I-5.419790 J7.696363
G02 X104.079356 Y140.704632 Z-0.125000 I-6.665077 J11.251384
G02 X103.446697 Y140.410598 Z-0.125000 I-3.706135 J7.146687
G02 X102.792916 Y140.173773 Z-0.125000 I-3.004966 J7.274708
G02 X102.159162 Y140.002916 Z-0.125000 I-2.450734 J7.829571
G02 X101.513167 Y139.887221 Z-0.125000 I-1.576822 J6.943021
G02 X100.892548 Y139.830527 Z-0.125000 I-1.018355 J7.722463
G02 X100.269283 Y139.827671 Z-0.125000 I-0.342307 J6.693390
G02 X99.675839 Y139.875940 Z-0.125000 I0.318240 J7.584842
G02 X99.088445 Y139.974312 Z-0.125000 I0.779879 J6.459615
G02 X98.535071 Y140.115138 Z-0.125000 I1.601147 J7.449340
G02 X97.994854 Y140.300742 Z-0.125000 I1.825610 J6.192590
G02 X97.492849 Y140.519487 Z-0.125000 I2.807443 J7.128281
G02 X97.009336 Y140.776913 Z-0.125000 I2.781346 J5.806905
G02 X96.568044 Y141.057289 Z-0.125000 I3.873801 J6.584536
G02 X96.149010 Y141.370192 Z-0.125000 I3.588969 J5.243325
G02 X95.775578 Y141.694937 Z-0.125000 I4.700454 J5.782238
G02 X95.426992 Y142.046360 Z-0.125000 I4.165467 J4.480446
G02 X95.126218 Y142.397762 Z-0.125000 I5.179150 J4.737388
G02 X94.852113 Y142.770404 Z-0.125000 I4.430773 J3.546274
G02 X94.626338 Y143.130811 Z-0.125000 I5.217226 J3.519232
G02 X94.428736 Y143.506851 Z-0.125000 I4.372880 J2.537805
G02 X94.277745 Y143.859779 Z-0.125000 I4.622770 J2.186496
G02 X94.157022 Y144.219657 Z-0.125000 I4.116484 J1.581084
G02 X94.078736 Y144.556519 Z-0.125000 I3.180769 J0.916730
G02 X94.036625 Y144.900302 Z-0.125000 I3.148092 J0.560089
G02 X94.033905 Y145.230330 Z-0.125000 I2.770682 J0.187861
G02 X94.070345 Y145.558293 Z-0.125000 I2.774323 J-0.142249
G02 X94.146668 Y145.881669 Z-0.125000 I2.655713 J-0.456100
G02 X94.261007 Y146.193273 Z-0.125000 I2.730412 J-0.825115
G02 X94.420448 Y146.509440 Z-0.125000 I2.841661 J-1.234739
G02 X94.613202 Y146.806559 Z-0.125000 I2.993441 J-1.730898
G02 X94.860187 Y147.115663 Z-0.125000 I3.379960 J-2.447478
G02 X95.133867 Y147.401889 Z-0.125000 I3.590763 J-3.159414
G02 X95.472165 Y147.704749 Z-0.125000 I4.349512 J-4.518080
G02 X95.830655 Y147.984248 Z-0.125000 I4.578371 J-5.502649
G02 X96.263197 Y148.283014 Z-0.125000 I5.964202 J-8.172245
G02 X96.710567 Y148.560298 Z-0.125000 I6.090445 J-9.326800
G02 X97.239162 Y148.858604 Z-0.125000 I8.813192 J-14.999382
G02 X97.778458 Y149.138833 Z-0.125000 I8.450893 J-15.604543
G02 X98.402904 Y149.441803 Z-0.125000 I14.916011 J-29.948118
G02 X99.034845 Y149.731237 Z-0.125000 I12.523634 J-26.509080
G02 X99.751533 Y150.045526 Z-0.125000 I36.348852 J-81.913921
G02 X100.473030 Y150.351886 Z-0.125000 I21.189827 J-48.900578
G03 X101.273227 Y150.685600 Z-0.125000 I-181.677384 J436.761933
G02 X102.078113 Y151.020934 Z-0.125000 I132.903131 J-317.867270
G02 X102.943725 Y151.380217 Z-0.125000 I2791.790473 J-6724.969635
G03 X103.816604 Y151.747316 Z-0.125000 I-38.230074 J92.123954
G02 X104.708170 Y152.111051 Z-0.125000 I12.185337 J-28.593447
G02 X105.597762 Y152.446665 Z-0.125000 I15.536194 J-39.834098
G02 X106.467332 Y152.754493 Z-0.125000 I16.802286 J-46.081881
G02 X107.342491 Y153.043968 Z-0.125000 I13.138682 J-38.254091
G02 X108.178489 Y153.302947 Z-0.125000 I17.377361 J-54.616068
G02 X109.019440 Y153.547244 Z-0.125000 I12.560228 J-41.666996
G02 X109.802769 Y153.759927 Z-0.125000 I14.501639 J-51.861770
G02 X110.589978 Y153.959375 Z-0.125000 I10.956358 J-41.590939
G02 X111.300856 Y154.125486 Z-0.125000 I9.435670 J-38.776134
G02 X112.014930 Y154.277734 Z-0.125000 I7.716928 J-34.443077
G02 X112.635196 Y154.394519 Z-0.125000 I4.596931 J-22.709643
G02 X113.258075 Y154.493839 Z-0.125000 I3.770736 J-21.645037
G02 X113.772948 Y154.556150 Z-0.125000 I1.592519 J-11.000593
G02 X114.288936 Y154.593349 Z-0.125000 I0.997581 J-10.240245
G02 X114.689109 Y154.594597 Z-0.125000 I0.214350 J-4.574334
G02 X115.084434 Y154.557988 Z-0.125000 I-0.155519 J-3.832212
G02 X115.368979 Y154.491343 Z-0.125000 I-0.244476 J-1.684570
G02 X115.629730 Y154.373238 Z-0.125000 I-0.407855 J-1.247357
G02 X115.809330 Y154.228318 Z-0.125000 I-0.408635 J-0.690170
G02 X115.937698 Y154.038032 Z-0.125000 I-0.548773 J-0.508649
G02 X116.017797 Y153.791360 Z-0.125000 I-0.937450 J-0.440748
G02 X116.039860 Y153.527998 Z-0.125000 I-1.239845 J-0.236474
G02 X116.010548 Y153.173249 Z-0.125000 I-2.912242 J0.062052
G02 X115.940404 Y152.819491 Z-0.125000 I-3.419451 J0.494185
G02 X115.811613 Y152.364792 Z-0.125000 I-8.166151 J2.067420
G02 X115.657875 Y151.913438 Z-0.125000 I-9.392975 J2.947537
G02 X115.445586 Y151.372875 Z-0.125000 I-12.558001 J4.619783
G02 X115.213021 Y150.841688 Z-0.125000 I-15.953629 J6.668338
G02 X114.925355 Y150.244476 Z-0.125000 I-15.504731 J7.100455
G02 X114.617877 Y149.658459 Z-0.125000 I-19.838142 J10.035205
G02 X114.259693 Y149.028548 Z-0.125000 I-16.803517 J9.138137
G02 X113.880825 Y148.412126 Z-0.125000 I-20.560096 J12.212097
G02 X113.456184 Y147.771006 Z-0.125000 I-17.287683 J10.989191
G02 X113.010066 Y147.145859 Z-0.125000 I-19.715850 J13.597871
G02 X112.523616 Y146.511380 Z-0.125000 I-17.618519 J13.004256
G02 X112.015782 Y145.895000 Z-0.125000 I-18.606977 J14.812876
G02 X111.473531 Y145.280539 Z-0.125000 I-18.218407 J15.530927
G02 X110.911169 Y144.685413 Z-0.125000 I-17.851341 J16.305293
G02 X110.320643 Y144.099536 Z-0.125000 I-19.419364 J18.982926
G02 X109.712356 Y143.532989 Z-0.125000 I-17.740882 J18.438091
G02 X109.082220 Y142.979649 Z-0.125000 I-21.527393 J23.879646
G02 X108.437339 Y142.444342 Z-0.125000 I-18.483437 J21.610758
G02 X107.776566 Y141.923616 Z-0.125000 I-24.735205 J30.708059
G02 X107.104168 Y141.418679 Z-0.125000 I-20.317449 J26.355520
G02 X106.420970 Y140.928083 Z-0.125000 I-28.499914 J38.967611
G02 X105.726681 Y140.440877 Z-0.125000 I-112.999421 J160.290474
G02 X105.029591 Y139.987091 Z-0.125000 I-7.291406 J10.438484
G02 X104.309688 Y139.569391 Z-0.125000 I-11.556936 J19.089076
G02 X103.599964 Y139.220194 Z-0.125000 I-3.854106 J6.937432
G02 X102.864421 Y138.942991 Z-0.125000 I-3.315929 J7.684161
G02 X102.149028 Y138.744053 Z-0.125000 I-2.713313 J8.371491
G02 X101.418699 Y138.610907 Z-0.125000 I-1.730972 J7.425092
G02 X100.714298 Y138.547487 Z-0.125000 I-1.109764 J8.382480
G02 X100.006964 Y138.547968 Z-0.125000 I-0.348727 J7.267570
G02 X99.330280 Y138.608767 Z-0.125000 I0.415553 J8.421096
G02 X98.661272 Y138.728448 Z-0.125000 I0.935235 J7.157589
G02 X98.027550 Y138.898557 Z-0.125000 I1.912572 J8.390565
G02 X97.409864 Y139.120629 Z-0.125000 I2.170524 J7.007321
G02 X96.832368 Y139.382498 Z-0.125000 I3.363250 J8.184636
G02 X96.276910 Y139.688759 Z-0.125000 I3.337559 J6.710076
G02 X95.766543 Y140.023175 Z-0.125000 I4.685543 J7.707479
G02 X95.282241 Y140.394588 Z-0.125000 I4.357832 J6.183820
G02 X94.847326 Y140.781388 Z-0.125000 I5.762951 J6.917738
G02 X94.441045 Y141.198344 Z-0.125000 I5.121534 J5.396818
G02 X94.087195 Y141.616872 Z-0.125000 I6.476352 J5.834373
G02 X93.763552 Y142.059321 Z-0.125000 I5.527681 J4.382992
G02 X93.493513 Y142.488755 Z-0.125000 I6.714917 J4.522124
G02 X93.254637 Y142.936249 Z-0.125000 I5.515751 J3.231861
G02 X93.068095 Y143.356156 Z-0.125000 I6.347607 J3.071279
G02 X92.913605 Y143.784442 Z-0.125000 I5.371379 J2.179553
G02 X92.807127 Y144.180316 Z-0.125000 I4.426611 J1.402889
G02 X92.737649 Y144.583091 Z-0.125000 I4.176539 J0.927817
G02 X92.711580 Y144.961026 Z-0.125000 I3.472479 J0.429390
G02 X92.727220 Y145.339967 Z-0.125000 I3.391729 J0.049813
G02 X92.784714 Y145.704404 Z-0.125000 I3.098433 J-0.302059
G02 X92.884360 Y146.058971 Z-0.125000 I3.089986 J-0.677111
G02 X93.029032 Y146.409708 Z-0.125000 I3.041088 J-1.049186
G02 X93.212422 Y146.741660 Z-0.125000 I3.133678 J-1.514600
G02 X93.449574 Y147.079982 Z-0.125000 I3.360337 J-2.103196
G02 X93.718912 Y147.393624 Z-0.125000 I3.537846 J-2.765641
G02 X94.054029 Y147.720892 Z-0.125000 I4.094071 J-3.857051
G02 X94.413970 Y148.021427 Z-0.125000 I4.328968 J-4.818837
G02 X94.852065 Y148.339907 Z-0.125000 I5.371026 J-6.927714
G02 X95.308508 Y148.632717 Z-0.125000 I5.587420 J-8.207706
G02 X95.853824 Y148.946112 Z-0.125000 I7.574324 J-12.548422
G02 X96.412429 Y149.236999 Z-0.125000 I7.530066 J-13.778563
G02 X97.067632 Y149.550719 Z-0.125000 I11.954896 J-24.126767
G02 X97.732276 Y149.846623 Z-0.125000 I10.747442 J-23.245868
G02 X98.496907 Y150.168110 Z-0.125000 I24.554122 J-57.330068
G02 X99.267892 Y150.477914 Z-0.125000 I17.085293 J-41.404572
G02 X100.136232 Y150.816955 Z-0.125000 I301.810708 J-771.705748
G02 X101.009336 Y151.153301 Z-0.125000 I42.728890 J-109.616442
G03 X101.966683 Y151.520634 Z-0.125000 I-69.014955 J181.298402
G03 X102.935341 Y151.902069 Z-0.125000 I-30.742857 J79.492562
G02 X103.942766 Y152.289084 Z-0.125000 I13.887225 J-34.644641
G02 X104.946613 Y152.648167 Z-0.125000 I20.910650 J-56.874693
G02 X105.938000 Y152.980736 Z-0.125000 I15.521147 J-44.624637
G02 X106.933591 Y153.289134 Z-0.125000 I13.133357 J-40.636693
G02 X107.891789 Y153.565366 Z-0.125000 I18.857481 J-63.613133
G02 X108.855526 Y153.824663 Z-0.125000 I13.039915 J-46.545310
G02 X109.761401 Y154.051892 Z-0.125000 I17.317040 J-67.117037
G02 X110.671388 Y154.265022 Z-0.125000 I12.338088 J-50.629912
G02 X111.501733 Y154.445073 Z-0.125000 I12.316014 J-54.793320
G02 X112.335255 Y154.611524 Z-0.125000 I9.805353 J-46.931173
G02 X113.067755 Y154.742686 Z-0.125000 I6.298073 J-33.061727
G02 X113.802761 Y154.857329 Z-0.125000 I5.395391 J-32.177931
G02 X114.418287 Y154.934102 Z-0.125000 I2.302477 J-15.954243
G02 X115.035088 Y154.986780 Z-0.125000 I1.649459 J-15.675699
G02 X115.520426 Y155.000771 Z-0.125000 I0.432970 J-6.594547
G02 X116.002201 Y154.977015 Z-0.125000 I-0.048190 J-5.874447
G02 X116.353497 Y154.918764 Z-0.125000 I-0.217284 J-2.398766
G02 X116.683897 Y154.805230 Z-0.125000 I-0.445603 J-1.834288
G02 X116.911355 Y154.662875 Z-0.125000 I-0.408136 J-0.905025
G02 X117.086066 Y154.464545 Z-0.125000 I-0.552012 J-0.662390
G02 X117.202232 Y154.211451 Z-0.125000 I-0.853143 J-0.544787
G02 X117.251524 Y153.931174 Z-0.125000 I-1.155205 J-0.347635
G02 X117.246015 Y153.550782 Z-0.125000 I-2.702124 J-0.151108
G02 X117.190332 Y153.169529 Z-0.125000 I-3.191391 J0.271416
G02 X117.071293 Y152.671491 Z-0.125000 I-8.525694 J1.774546
G02 X116.922937 Y152.174453 Z-0.125000 I-9.614783 J2.599159
G02 X116.710727 Y151.570662 Z-0.125000 I-13.906175 J4.548311
G02 X116.475597 Y150.976171 Z-0.125000 I-17.833872 J6.709830
G02 X116.180174 Y150.302981 Z-0.125000 I-16.872493 J7.002893
G02 X115.861946 Y149.641882 Z-0.125000 I-22.242515 J10.299553
G02 X115.487872 Y148.929840 Z-0.125000 I-17.868743 J8.933156
G02 X115.089249 Y148.232881 Z-0.125000 I-22.422062 J12.361721
G02 X114.639733 Y147.508895 Z-0.125000 I-17.946651 J10.641371
G02 X114.164057 Y146.803378 Z-0.125000 I-20.796429 J13.508316
G02 X113.643051 Y146.089698 Z-0.125000 I-17.903390 J12.522950
G02 X113.095544 Y145.397562 Z-0.125000 I-19.046753 J14.504125
G02 X112.508897 Y144.710678 Z-0.125000 I-18.210559 J14.959117
G02 X111.897140 Y144.047310 Z-0.125000 I-17.833532 J15.832294
G02 X111.252943 Y143.397452 Z-0.125000 I-19.258202 J18.446229
G02 X110.586651 Y142.771359 Z-0.125000 I-17.423745 J17.874888
G02 X109.894820 Y142.162593 Z-0.125000 I-21.526321 J23.766026
G02 X109.184987 Y141.575921 Z-0.125000 I-18.066052 J21.135928
G02 X108.456216 Y141.006934 Z-0.125000 I-25.684380 J32.145914
G02 X107.713843 Y140.456785 Z-0.125000 I-20.165222 J26.435067
G02 X106.958092 Y139.922392 Z-0.125000 I-32.230197 J44.779160
G02 X106.191148 Y139.395844 Z-0.125000 I-48.759595 J70.198868
G02 X105.417541 Y138.896289 Z-0.125000 I-11.328819 J16.694960
G02 X104.623213 Y138.416413 Z-0.125000 I-34.157638 J55.643036
G02 X103.836166 Y138.005933 Z-0.125000 I-4.080549 J6.864196
G02 X103.018484 Y137.682060 Z-0.125000 I-3.779803 J8.348726
G02 X102.220701 Y137.448959 Z-0.125000 I-2.995557 J8.770491
G02 X101.404685 Y137.293567 Z-0.125000 I-1.922816 J7.877054
G02 X100.614921 Y137.219624 Z-0.125000 I-1.242810 J9.019521
G02 X99.821618 Y137.220329 Z-0.125000 I-0.389701 J7.822785
G02 X99.059474 Y137.291469 Z-0.125000 I0.475124 J9.208239
G02 X98.306532 Y137.430787 Z-0.125000 I1.062080 J7.844313
G02 X97.589782 Y137.629222 Z-0.125000 I2.201259 J9.344618
G02 X96.891950 Y137.887195 Z-0.125000 I2.498768 J7.832159
G02 X96.235924 Y138.192300 Z-0.125000 I3.911893 J9.269039
G02 X95.605538 Y138.547784 Z-0.125000 I3.896696 J7.646747
G02 X95.022787 Y138.937329 Z-0.125000 I5.502879 J8.862872
G02 X94.470015 Y139.368602 Z-0.125000 I5.152405 J7.173831
G02 X93.970143 Y139.819618 Z-0.125000 I6.836287 J8.079338
G02 X93.502906 Y140.304562 Z-0.125000 I6.124935 J6.368861
G02 X93.092500 Y140.793688 Z-0.125000 I7.789066 J6.952218
G02 X92.716207 Y141.309750 Z-0.125000 I6.689870 J5.273228
G02 X92.398658 Y141.813290 Z-0.125000 I8.260704 J5.561369
G02 X92.115852 Y142.337373 Z-0.125000 I6.767676 J3.990325
G02 X91.891032 Y142.831403 Z-0.125000 I8.156168 J4.009832
G02 X91.701047 Y143.336755 Z-0.125000 I6.623401 J2.778424
G02 X91.564848 Y143.800954 Z-0.125000 I6.268605 J2.091323
G02 X91.466207 Y144.270579 Z-0.125000 I5.571906 J1.415516
G02 X91.415475 Y144.703309 Z-0.125000 I4.424598 J0.738058
G02 X91.408274 Y145.139977 Z-0.125000 I4.222250 J0.288023
G02 X91.445455 Y145.550991 Z-0.125000 I3.745518 J-0.131637
G02 X91.527947 Y145.954423 Z-0.125000 I3.613219 J-0.528657
G02 X91.655487 Y146.343724 Z-0.125000 I3.387973 J-0.894403
G02 X91.826503 Y146.715484 Z-0.125000 I3.397648 J-1.337764
G02 X92.049774 Y147.085863 Z-0.125000 I3.458738 J-1.832497
G02 X92.310738 Y147.430817 Z-0.125000 I3.584338 J-2.440433
G02 X92.636576 Y147.784691 Z-0.125000 I3.955515 J-3.315197
G02 X92.992330 Y148.109145 Z-0.125000 I4.172974 J-4.218265
G02 X93.427796 Y148.449082 Z-0.125000 I4.935037 J-5.872987
G02 X93.885671 Y148.759372 Z-0.125000 I5.197123 J-7.176091
G02 X94.437516 Y149.088979 Z-0.125000 I6.625645 J-10.466237
G02 X95.005676 Y149.391450 Z-0.125000 I6.782661 J-12.055656
G02 X95.679649 Y149.715988 Z-0.125000 I9.783019 J-19.454464
G02 X96.365311 Y150.017879 Z-0.125000 I9.307395 J-20.209570
G02 X97.164623 Y150.344925 Z-0.125000 I17.544907 J-41.740066
G02 X97.972065 Y150.655652 Z-0.125000 I13.930882 J-34.995753
G02 X98.895015 Y150.995929 Z-0.125000 I64.597203 J-173.788259
G02 X99.823264 Y151.328491 Z-0.125000 I25.851665 J-70.695658
G03 X100.859879 Y151.696188 Z-0.125000 I-53.677642 J152.973715
G03 X101.910727 Y152.078802 Z-0.125000 I-38.307929 J106.846793
G02 X103.026394 Y152.477160 Z-0.125000 I18.406756 J-49.789663
G02 X104.140494 Y152.855110 Z-0.125000 I40.474849 J-117.478502
G02 X105.255688 Y153.210669 Z-0.125000 I13.549670 J-40.571282
G02 X106.371227 Y153.533475 Z-0.125000 I12.705758 J-41.819097
G02 X107.452819 Y153.822017 Z-0.125000 I19.304203 J-70.189859
G02 X108.540661 Y154.090661 Z-0.125000 I12.856823 J-49.725312
G02 X109.572796 Y154.326892 Z-0.125000 I19.572103 J-83.141171
G02 X110.609386 Y154.547786 Z-0.125000 I13.009013 J-58.504767
G02 X111.565741 Y154.736567 Z-0.125000 I15.644690 J-76.738409
G02 X112.525314 Y154.912055 Z-0.125000 I11.752521 J-61.551717
G02 X113.379211 Y155.053680 Z-0.125000 I8.530290 J-48.786577
G02 X114.235473 Y155.180186 Z-0.125000 I7.501460 J-47.812979
G02 X114.962709 Y155.269527 Z-0.125000 I3.245167 J-23.411136
G02 X115.691221 Y155.336636 Z-0.125000 I2.619646 J-24.449941
G02 X116.273628 Y155.363795 Z-0.125000 I0.737974 J-9.567243
G02 X116.853485 Y155.354664 Z-0.125000 I0.147121 J-9.073567
G02 X117.283118 Y155.307148 Z-0.125000 I-0.165148 J-3.459316
G02 X117.695241 Y155.202685 Z-0.125000 I-0.483071 J-2.770981
G02 X117.980135 Y155.066290 Z-0.125000 I-0.410952 J-1.224103
G02 X118.213096 Y154.863849 Z-0.125000 I-0.570485 J-0.891751
G02 X118.372274 Y154.610374 Z-0.125000 I-0.768473 J-0.659306
G02 X118.456632 Y154.316825 Z-0.125000 I-1.058634 J-0.463119
G02 X118.482861 Y153.917145 Z-0.125000 I-2.425992 J-0.359911
G02 X118.448007 Y153.512405 Z-0.125000 I-2.916262 J0.047267
G02 X118.345749 Y152.974679 Z-0.125000 I-8.366790 J1.312499
G02 X118.208422 Y152.435650 Z-0.125000 I-9.288183 J2.079326
G02 X118.002244 Y151.770279 Z-0.125000 I-15.361378 J4.395387
G02 X117.770429 Y151.113156 Z-0.125000 I-19.605299 J6.546774
G02 X117.473295 Y150.361975 Z-0.125000 I-18.317811 J6.811352
G02 X117.150361 Y149.623557 Z-0.125000 I-24.889326 J10.445077
G02 X116.766459 Y148.825542 Z-0.125000 I-19.018308 J8.657810
G02 X116.353939 Y148.043978 Z-0.125000 I-24.521095 J12.442898
G02 X115.885260 Y147.232445 Z-0.125000 I-18.667562 J10.239861
G02 X115.385250 Y146.441785 Z-0.125000 I-22.022515 J13.373497
G02 X114.834627 Y145.644309 Z-0.125000 I-18.202632 J11.979319
G02 X114.251646 Y144.871961 Z-0.125000 I-19.548826 J14.149567
G02 X113.624427 Y144.108945 Z-0.125000 I-18.137427 J14.270135
G02 X112.966201 Y143.374078 Z-0.125000 I-17.810626 J15.290895
G02 X112.270807 Y142.658022 Z-0.125000 I-18.890068 J17.649293
G02 X111.548064 Y141.970937 Z-0.125000 I-17.022980 J17.182761
G02 X110.795619 Y141.306429 Z-0.125000 I-21.039558 J23.065534
G02 X110.021114 Y140.669011 Z-0.125000 I-17.401260 J20.354448
G02 X109.224211 Y140.053456 Z-0.125000 I-25.677864 J32.419211
G02 X108.411154 Y139.460673 Z-0.125000 I-19.454972 J25.830315
G02 X107.581915 Y138.885926 Z-0.125000 I-34.885719 J49.447106
G02 X106.741149 Y138.324275 Z-0.125000 I-32.294202 J47.432879
G02 X105.889793 Y137.783260 Z-0.125000 I-19.699390 J30.059131
G03 X105.020722 Y137.246090 Z-0.125000 I171.717439 J-278.787857
G02 X104.155210 Y136.775262 Z-0.125000 I-4.560897 J7.353256
G02 X103.255388 Y136.398421 Z-0.125000 I-4.667526 J9.882403
G02 X102.374649 Y136.123036 Z-0.125000 I-3.253074 J8.857938
G02 X101.471780 Y135.939687 Z-0.125000 I-2.154406 J8.294311
G02 X100.595365 Y135.850606 Z-0.125000 I-1.421354 J9.627964
G02 X99.714361 Y135.847749 Z-0.125000 I-0.467537 J8.337574
G02 X98.864815 Y135.926213 Z-0.125000 I0.496365 J10.012648
G02 X98.025821 Y136.082805 Z-0.125000 I1.154015 J8.508931
G02 X97.223583 Y136.307903 Z-0.125000 I2.460014 J10.309468
G02 X96.443099 Y136.600507 Z-0.125000 I2.801297 J8.659317
G02 X95.705684 Y136.948188 Z-0.125000 I4.446731 J10.387159
G02 X94.997493 Y137.352481 Z-0.125000 I4.447490 J8.612980
G02 X94.339147 Y137.797352 Z-0.125000 I6.318259 J10.059704
G02 X93.714717 Y138.288878 Z-0.125000 I5.961666 J8.216039
G02 X93.146409 Y138.805222 Z-0.125000 I7.905841 J9.272378
G02 X92.614850 Y139.359509 Z-0.125000 I7.162966 J7.401289
G02 X92.144280 Y139.921556 Z-0.125000 I9.085822 J8.085053
G02 X91.712023 Y140.513866 Z-0.125000 I7.902874 J6.221265
G02 X91.343480 Y141.095471 Z-0.125000 I9.782162 J6.606177
G02 X91.013786 Y141.700356 Z-0.125000 I8.093326 J4.803578
G02 X90.747687 Y142.274633 Z-0.125000 I9.933038 J4.951405
G02 X90.520104 Y142.863843 Z-0.125000 I7.888853 J3.385631
G02 X90.352265 Y143.405109 Z-0.125000 I8.610787 J2.966744
G02 X90.223295 Y143.950882 Z-0.125000 I7.206388 J1.991041
G02 X90.147292 Y144.447701 Z-0.125000 I5.771394 J1.137123
G02 X90.116058 Y144.949973 Z-0.125000 I5.327209 J0.583385
G02 X90.132264 Y145.414008 Z-0.125000 I4.640311 J0.070242
G02 X90.196154 Y145.872946 Z-0.125000 I4.328944 J-0.368728
G02 X90.305605 Y146.305854 Z-0.125000 I3.918407 J-0.760396
G02 X90.462419 Y146.723133 Z-0.125000 I3.808368 J-1.193085
G02 X90.669608 Y147.129202 Z-0.125000 I3.696641 J-1.630247
G02 X90.919646 Y147.510188 Z-0.125000 I3.746955 J-2.186548
G02 X91.232074 Y147.893482 Z-0.125000 I3.943440 J-2.895384
G02 X91.579731 Y148.245607 Z-0.125000 I4.123157 J-3.723152
G02 X92.006236 Y148.609451 Z-0.125000 I4.653223 J-5.022692
G02 X92.459689 Y148.940185 Z-0.125000 I4.928162 J-6.280529
G02 X93.009432 Y149.288141 Z-0.125000 I5.937098 J-8.771902
G02 X93.578978 Y149.604412 Z-0.125000 I6.212662 J-10.516909
G02 X94.260775 Y149.941272 Z-0.125000 I8.233325 J-15.805646
G02 X94.956849 Y150.250344 Z-0.125000 I8.194613 J-17.517080
G02 X95.777801 Y150.583201 Z-0.125000 I13.230392 J-31.452389
G02 X96.608865 Y150.894392 Z-0.125000 I11.584600 J-29.672379
G02 X97.571941 Y151.233998 Z-0.125000 I32.248831 J-89.917877
G02 X98.541800 Y151.560618 Z-0.125000 I18.987813 J-54.778898
G03 X99.642316 Y151.922750 Z-0.125000 I-95.630541 J292.473301
G03 X100.756684 Y152.293137 Z-0.125000 I-166.891554 J503.981984
G02 X101.967434 Y152.689543 Z-0.125000 I36.086708 J-108.172882
G03 X103.184974 Y153.081741 Z-0.125000 I-242.184769 J753.924186
G02 X104.424937 Y153.459083 Z-0.125000 I11.702033 J-36.227497
G02 X105.658006 Y153.792278 Z-0.125000 I12.123612 J-42.418127
G02 X106.862093 Y154.088486 Z-0.125000 I18.610876 J-73.057846
G02 X108.073164 Y154.360799 Z-0.125000 I12.129326 J-51.114265
G02 X109.233027 Y154.600034 Z-0.125000 I20.681497 J-97.337106
G02 X110.397817 Y154.822084 Z-0.125000 I12.808650 J-64.023244
G02 X111.484800 Y155.013318 Z-0.125000 I19.125095 J-105.523198
G02 X112.575159 Y155.191397 Z-0.125000 I13.060834 J-76.542875
G02 X113.558324 Y155.338072 Z-0.125000 I11.464042 J-73.475136
G02 X114.543762 Y155.471331 Z-0.125000 I10.018747 J-70.377346
G02 X115.393294 Y155.569725 Z-0.125000 I4.486608 J-35.020769
G02 X116.243992 Y155.648501 Z-0.125000 I4.052804 J-39.133208
G02 X116.935681 Y155.687851 Z-0.125000 I1.143755 J-14.006064
G02 X117.625500 Y155.693563 Z-0.125000 I0.464449 J-14.432712
G02 X118.145978 Y155.658323 Z-0.125000 I-0.078329 J-5.018139
G02 X118.652291 Y155.566627 Z-0.125000 I-0.515152 J-4.288177
G02 X119.005720 Y155.439169 Z-0.125000 I-0.414663 J-1.703558
G02 X119.310429 Y155.237320 Z-0.125000 I-0.610033 J-1.251813
G02 X119.519969 Y154.988743 Z-0.125000 I-0.697373 J-0.800463
G02 X119.648490 Y154.685510 Z-0.125000 I-0.968444 J-0.589316
G02 X119.714723 Y154.274060 Z-0.125000 I-2.114335 J-0.551408
G02 X119.707612 Y153.849806 Z-0.125000 I-2.621716 J-0.168246
G02 X119.629831 Y153.276918 Z-0.125000 I-7.706348 J0.754565
G02 X119.509197 Y152.700919 Z-0.125000 I-8.486371 J1.476719
G02 X119.315068 Y151.977350 Z-0.125000 I-16.919859 J4.151660
G02 X119.092433 Y151.259470 Z-0.125000 I-21.104199 J6.151554
G02 X118.799660 Y150.428817 Z-0.125000 I-19.877867 J6.539246
G02 X118.478175 Y149.611369 Z-0.125000 I-27.794460 J10.459044
G02 X118.090646 Y148.723502 Z-0.125000 I-20.316290 J8.338976
G02 X117.670363 Y147.853176 Z-0.125000 I-26.945201 J12.475270
G02 X117.188519 Y146.948939 Z-0.125000 I-19.519305 J9.820832
G02 X116.669813 Y146.067737 Z-0.125000 I-23.475580 J13.225252
G02 X116.094963 Y145.181062 Z-0.125000 I-18.604721 J11.432159
G02 X115.481218 Y144.323079 Z-0.125000 I-20.211468 J13.809465
G02 X114.817823 Y143.479203 Z-0.125000 I-18.107844 J13.552384
G02 X114.116606 Y142.668440 Z-0.125000 I-17.884391 J14.759327
G02 X113.373126 Y141.882910 Z-0.125000 I-18.455580 J16.723048
G02 X112.596034 Y141.132268 Z-0.125000 I-16.640541 J16.449332
G02 X111.784623 Y140.410746 Z-0.125000 I-20.257049 J21.963742
G02 X110.946150 Y139.722326 Z-0.125000 I-16.641554 J19.414022
G02 X110.081351 Y139.061228 Z-0.125000 I-24.848521 J31.608771
G02 X109.197103 Y138.427934 Z-0.125000 I-18.390701 J24.744400
G02 X108.293550 Y137.816092 Z-0.125000 I-35.835574 J51.947943
G02 X107.377573 Y137.223023 Z-0.125000 I-25.204843 J37.924226
G02 X106.447269 Y136.645971 Z-0.125000 I-39.383578 J62.454496
G03 X105.502453 Y136.061752 Z-0.125000 I48.139724 J-78.909096
G02 X104.556654 Y135.536339 Z-0.125000 I-5.450209 J8.696974
G02 X103.575100 Y135.099943 Z-0.125000 I-6.550582 J13.411687
G02 X102.611056 Y134.772279 Z-0.125000 I-3.472813 J8.635585
G02 X101.620346 Y134.554302 Z-0.125000 I-2.427706 J8.673591
G02 X100.656304 Y134.444649 Z-0.125000 I-1.648407 J10.199695
G02 X99.686083 Y134.433606 Z-0.125000 I-0.585565 J8.821025
G02 X98.747470 Y134.515803 Z-0.125000 I0.467880 J10.742984
G02 X97.820514 Y134.686706 Z-0.125000 I1.205819 J9.139480
G02 X96.930600 Y134.936199 Z-0.125000 I2.682235 J11.279126
G02 X96.065170 Y135.261588 Z-0.125000 I3.069209 J9.476674
G02 X95.243708 Y135.650560 Z-0.125000 I4.963427 J11.544065
G02 X94.454981 Y136.102601 Z-0.125000 I4.981463 J9.605837
G02 X93.717969 Y136.602230 Z-0.125000 I7.129936 J11.310887
G02 X93.018743 Y137.153590 Z-0.125000 I6.778105 J9.314953
G02 X92.378550 Y137.735415 Z-0.125000 I8.969168 J10.512058
G02 X91.779234 Y138.359371 Z-0.125000 I8.229902 J8.504710
G02 X91.244796 Y138.995489 Z-0.125000 I10.350012 J9.238180
G02 X90.753039 Y139.665463 Z-0.125000 I9.153537 J7.234109
G02 X90.329759 Y140.327816 Z-0.125000 I11.239525 J7.649094
G02 X89.949858 Y141.016530 Z-0.125000 I9.465377 J5.670324
G02 X89.639084 Y141.675884 Z-0.125000 I11.625269 J5.882267
G02 X89.371236 Y142.353806 Z-0.125000 I9.227480 J4.037658
G02 X89.169258 Y142.979953 Z-0.125000 I11.058089 J3.912688
G02 X89.008918 Y143.611761 Z-0.125000 I8.825441 J2.575973
G02 X88.907165 Y144.183517 Z-0.125000 I7.681600 J1.661992
G02 X88.851219 Y144.760337 Z-0.125000 I6.756247 J0.946412
G02 X88.846382 Y145.284939 Z-0.125000 I5.824929 J0.316030
G02 X88.891091 Y145.806832 Z-0.125000 I5.272174 J-0.188782
G02 X88.982518 Y146.289408 Z-0.125000 I4.671251 J-0.635057
G02 X89.124362 Y146.758548 Z-0.125000 I4.389692 J-1.071198
G02 X89.314872 Y147.204762 Z-0.125000 I4.100218 J-1.486805
G02 X89.552758 Y147.627120 Z-0.125000 I4.042354 J-1.998618
G02 X89.849607 Y148.043167 Z-0.125000 I4.069134 J-2.589397
G02 X90.186924 Y148.427372 Z-0.125000 I4.187180 J-3.335999
G02 X90.600176 Y148.818012 Z-0.125000 I4.520313 J-4.368074
G02 X91.045257 Y149.172883 Z-0.125000 I4.779200 J-5.537549
G02 X91.586214 Y149.541956 Z-0.125000 I5.471978 J-7.439388
G02 X92.150903 Y149.875180 Z-0.125000 I5.807638 J-9.196681
G02 X92.831233 Y150.226916 Z-0.125000 I7.154628 J-13.004692
G02 X93.528785 Y150.545693 Z-0.125000 I7.369071 J-15.202516
G02 X94.359377 Y150.886196 Z-0.125000 I10.489381 J-24.403553
G02 X95.202288 Y151.199242 Z-0.125000 I9.875220 J-25.298820
G02 X96.191043 Y151.538406 Z-0.125000 I20.215955 J-57.324021
G02 X97.188390 Y151.858609 Z-0.125000 I14.809229 J-44.413504
G02 X98.336602 Y152.212363 Z-0.125000 I291.021498 J-942.555951
G02 X99.496963 Y152.565049 Z-0.125000 I56.018880 J-182.220751
G02 X100.787254 Y152.951391 Z-0.125000 I200.884169 J-668.558185
G03 X102.095263 Y153.348122 Z-0.125000 I-43.128066 J144.546441
G02 X103.453904 Y153.739205 Z-0.125000 I11.107906 J-36.033817
G02 X104.798955 Y154.078767 Z-0.125000 I12.595500 J-47.058776
G02 X106.123991 Y154.379782 Z-0.125000 I16.237195 J-68.407585
G02 X107.455209 Y154.650581 Z-0.125000 I11.051200 J-50.919014
G02 X108.741765 Y154.886852 Z-0.125000 I20.252749 J-106.660116
G02 X110.033863 Y155.103226 Z-0.125000 I11.819358 J-66.614358
G02 X111.253700 Y155.289934 Z-0.125000 I22.038201 J-139.906212
G02 X112.477239 Y155.463199 Z-0.125000 I13.251370 J-89.170133
G02 X113.595675 Y155.608174 Z-0.125000 I15.306594 J-113.698226
G02 X114.716437 Y155.741542 Z-0.125000 I12.578122 J-100.924931
G02 X115.697797 Y155.843796 Z-0.125000 I6.127302 J-54.045145
G02 X116.680220 Y155.929662 Z-0.125000 I6.164534 J-64.867903
G02 X117.493260 Y155.978577 Z-0.125000 I1.659238 J-20.797269
G02 X118.304831 Y155.997621 Z-0.125000 I0.962745 J-23.726080
G02 X118.929316 Y155.974979 Z-0.125000 I0.046700 J-7.335206
G02 X119.542527 Y155.898417 Z-0.125000 I-0.536703 J-6.792625
G02 X119.976999 Y155.782326 Z-0.125000 I-0.415181 J-2.424863
G02 X120.367938 Y155.586343 Z-0.125000 I-0.675220 J-1.834812
G02 X120.636250 Y155.346819 Z-0.125000 I-0.647667 J-0.995550
G02 X120.819778 Y155.037407 Z-0.125000 I-0.900620 J-0.743341
G02 X120.934294 Y154.622494 Z-0.125000 I-1.796904 J-0.719208
G02 X120.962509 Y154.182543 Z-0.125000 I-2.323420 J-0.369884
G02 X120.917493 Y153.580109 Z-0.125000 I-6.741914 J0.200876
G02 X120.819307 Y152.973353 Z-0.125000 I-7.429604 J0.890951
G02 X120.643385 Y152.196758 Z-0.125000 I-18.352828 J3.749228
G02 X120.435682 Y151.421451 Z-0.125000 I-21.970297 J5.470331
G02 X120.153259 Y150.510726 Z-0.125000 I-21.590735 J6.196316
G02 X119.839342 Y149.613357 Z-0.125000 I-30.927040 J10.315257
G02 X119.454397 Y148.631938 Z-0.125000 I-21.806514 J7.987042
G02 X119.032610 Y147.668818 Z-0.125000 I-29.781224 J12.468406
G02 X118.543758 Y146.666370 Z-0.125000 I-20.562430 J9.407020
G02 X118.012287 Y145.688759 Z-0.125000 I-25.253098 J13.095391
G02 X117.418928 Y144.706744 Z-0.125000 I-19.168687 J10.911942
G02 X116.779570 Y143.756761 Z-0.125000 I-21.098352 J13.509504
G02 X116.084919 Y142.826297 Z-0.125000 I-18.200524 J12.863303
G02 X115.344761 Y141.934037 Z-0.125000 I-18.114249 J14.273217
G02 X114.556982 Y141.074617 Z-0.125000 I-18.069304 J15.772313
G02 X113.728287 Y140.256605 Z-0.125000 I-16.359590 J15.744467
G02 X112.860287 Y139.475676 Z-0.125000 I-19.364711 J20.650942
G02 X111.959187 Y138.734906 Z-0.125000 I-15.904953 J18.428934
G02 X111.027352 Y138.028386 Z-0.125000 I-23.457540 J29.970575
G02 X110.071875 Y137.355967 Z-0.125000 I-17.178356 J23.394600
G02 X109.093538 Y136.709810 Z-0.125000 I-34.804803 J51.633735
G02 X108.100961 Y136.088008 Z-0.125000 I-21.732141 J33.587723
G02 X107.090738 Y135.481293 Z-0.125000 I-73.413243 J121.093783
G03 X106.068448 Y134.866428 Z-0.125000 I63.407586 J-106.580289
G02 X105.039754 Y134.298099 Z-0.125000 I-7.348072 J12.085101
G02 X103.977392 Y133.795397 Z-0.125000 I-12.379674 J24.788099
G02 X102.929871 Y133.403282 Z-0.125000 I-3.652465 J8.162163
G02 X101.850509 Y133.142973 Z-0.125000 I-2.745095 J9.014519
G02 X100.798200 Y133.006460 Z-0.125000 I-1.926714 J10.727971
G02 X99.737419 Y132.981945 Z-0.125000 I-0.744447 J9.250189
G02 X98.708396 Y133.063531 Z-0.125000 I0.390880 J11.460349
G02 X97.691820 Y133.245229 Z-0.125000 I1.213328 J9.723055
G02 X96.712316 Y133.516322 Z-0.125000 I2.861980 J12.245895
G02 X95.759884 Y133.872191 Z-0.125000 I3.294862 J10.270679
G02 X94.851964 Y134.300678 Z-0.125000 I5.458040 J12.741154
G02 X93.980166 Y134.798902 Z-0.125000 I5.488611 J10.615891
G02 X93.161586 Y135.352131 Z-0.125000 I7.941861 J12.633321
G02 X92.384527 Y135.962253 Z-0.125000 I7.595386 J10.473484
G02 X91.669089 Y136.608892 Z-0.125000 I10.031888 J11.818310
G02 X90.998552 Y137.301947 Z-0.125000 I9.320678 J9.688748
G02 X90.396492 Y138.012188 Z-0.125000 I11.585806 J10.431400
G02 X89.841520 Y138.760065 Z-0.125000 I10.439931 J8.326932
G02 X89.359544 Y139.504491 Z-0.125000 I12.613975 J8.695121
G02 X88.925747 Y140.278675 Z-0.125000 I10.872296 J6.600689
G02 X88.566472 Y141.026497 Z-0.125000 I13.181037 J6.792743
G02 X88.255137 Y141.796424 Z-0.125000 I10.646310 J4.752957
G02 X88.015891 Y142.514187 Z-0.125000 I13.216419 J4.804080
G02 X87.822650 Y143.241080 Z-0.125000 I10.282803 J3.122759
G02 X87.694174 Y143.898850 Z-0.125000 I10.229214 J2.339416
G02 X87.612976 Y144.560030 Z-0.125000 I8.484949 J1.377584
G02 X87.587272 Y145.154201 Z-0.125000 I7.372763 J0.616599
G02 X87.612748 Y145.747482 Z-0.125000 I6.423505 J0.021352
G02 X87.686940 Y146.286802 Z-0.125000 I5.703507 J-0.509845
G02 X87.813927 Y146.814813 Z-0.125000 I5.160720 J-0.961875
G02 X87.988411 Y147.306465 Z-0.125000 I4.698141 J-1.390557
G02 X88.214054 Y147.776043 Z-0.125000 I4.484444 J-1.865873
G02 X88.494937 Y148.228727 Z-0.125000 I4.347838 J-2.384277
G02 X88.821164 Y148.649892 Z-0.125000 I4.374115 J-3.051185
G02 X89.218939 Y149.070508 Z-0.125000 I4.533496 J-3.888913
G02 X89.653549 Y149.453684 Z-0.125000 I4.751445 J-4.951177
G02 X90.181185 Y149.846962 Z-0.125000 I5.197722 J-6.422875
G02 X90.736865 Y150.200912 Z-0.125000 I5.553235 J-8.105052
G02 X91.408506 Y150.570699 Z-0.125000 I6.427375 J-10.879154
G02 X92.100701 Y150.902649 Z-0.125000 I6.783792 J-13.258169
G02 X92.930666 Y151.253789 Z-0.125000 I8.716916 J-19.447102
G02 X93.775404 Y151.571548 Z-0.125000 I8.651748 J-21.718333
G02 X94.776365 Y151.912336 Z-0.125000 I14.315681 J-40.407492
G02 X95.787816 Y152.227556 Z-0.125000 I12.006635 J-36.745609
G02 X96.967443 Y152.572812 Z-0.125000 I47.535338 J-160.224612
G02 X98.157521 Y152.907161 Z-0.125000 I23.934104 J-82.905715
G03 X99.509641 Y153.278796 Z-0.125000 I-122.654032 J448.897211
G03 X100.889278 Y153.668387 Z-0.125000 I-34.813729 J125.921658
G02 X102.353834 Y154.062004 Z-0.125000 I11.575178 J-40.147028
G02 X103.802667 Y154.404764 Z-0.125000 I14.883411 J-59.678139
G02 X105.246589 Y154.709561 Z-0.125000 I13.246964 J-59.182708
G02 X106.692845 Y154.974686 Z-0.125000 I9.823845 J-49.511770
G02 X108.102495 Y155.202608 Z-0.125000 I18.400012 J-109.326850
G02 X109.518416 Y155.406787 Z-0.125000 I10.297816 J-66.400875
G02 X110.870600 Y155.581764 Z-0.125000 I23.215986 J-174.095959
G02 X112.226988 Y155.742301 Z-0.125000 I12.141912 J-96.777603
G02 X113.484299 Y155.877808 Z-0.125000 I20.297443 J-182.429384
G02 X114.744185 Y156.003357 Z-0.125000 I14.302278 J-137.140067
G02 X115.865260 Y156.102664 Z-0.125000 I8.343744 J-87.814349
G02 X116.987405 Y156.189251 Z-0.125000 I9.284980 J-113.016322
G02 X117.933211 Y156.243311 Z-0.125000 I2.280635 J-31.600103
G02 X118.877758 Y156.272263 Z-0.125000 I1.732147 J-41.088543
G02 X119.619687 Y156.260985 Z-0.125000 I0.206879 J-10.800339
G02 X120.352617 Y156.200180 Z-0.125000 I-0.548220 J-11.055832
G02 X120.881767 Y156.097071 Z-0.125000 I-0.408473 J-3.505577
G02 X121.373695 Y155.912118 Z-0.125000 I-0.770494 J-2.796009
G02 X121.710909 Y155.684710 Z-0.125000 I-0.621289 J-1.285006
G02 X121.962643 Y155.372573 Z-0.125000 I-0.867524 J-0.957226
G02 X122.133324 Y154.962785 Z-0.125000 I-1.504198 J-0.866950
G02 X122.204932 Y154.512002 Z-0.125000 I-2.025381 J-0.552819
G02 X122.201329 Y153.887977 Z-0.125000 I-5.732341 J-0.278926
G02 X122.131834 Y153.256735 Z-0.125000 I-6.406102 J0.385823
G02 X121.980895 Y152.432379 Z-0.125000 I-18.855106 J3.026364
G02 X121.793666 Y151.604292 Z-0.125000 I-21.521033 J4.430641
G02 X121.527418 Y150.614588 Z-0.125000 I-23.563390 J5.808316
G02 X121.227020 Y149.637536 Z-0.125000 I-34.157290 J9.967070
G02 X120.850736 Y148.559271 Z-0.125000 I-23.510086 J7.599553
G02 X120.433689 Y147.499719 Z-0.125000 I-33.081950 J12.409464
G02 X119.943984 Y146.393373 Z-0.125000 I-21.838252 J9.004764
G02 X119.405840 Y145.313221 Z-0.125000 I-27.417641 J12.985658
G02 X118.799853 Y144.229068 Z-0.125000 I-19.951594 J10.440498
G02 X118.140366 Y143.179905 Z-0.125000 I-22.272294 J13.268150
G02 X117.419764 Y142.156148 Z-0.125000 I-18.474979 J12.238672
G02 X116.645215 Y141.175585 Z-0.125000 I-18.554275 J13.859894
G02 X115.817561 Y140.236683 Z-0.125000 I-17.815137 J14.870014
G02 X114.940666 Y139.346121 Z-0.125000 I-16.232267 J15.106167
G02 X114.019288 Y138.502164 Z-0.125000 I-18.510583 J19.283724
G02 X113.057662 Y137.706397 Z-0.125000 I-15.271195 J17.475221
G02 X112.060490 Y136.953454 Z-0.125000 I-21.814339 J27.853356
G02 X111.034459 Y136.242290 Z-0.125000 I-15.977280 J21.955477
G02 X109.981503 Y135.563811 Z-0.125000 I-32.209328 J48.830524
G02 X108.911389 Y134.915408 Z-0.125000 I-19.684884 J31.280363
G02 X107.820574 Y134.285248 Z-0.125000 I-79.823680 J136.916625
G02 X106.718898 Y133.656093 Z-0.125000 I-318.293778 J556.066670
G02 X105.604728 Y133.058525 Z-0.125000 I-12.222175 J21.450831
G02 X104.462370 Y132.488013 Z-0.125000 I-81.958928 J162.680586
G02 X103.330799 Y132.023299 Z-0.125000 I-3.879938 J7.837553
G02 X102.162227 Y131.712537 Z-0.125000 I-3.180893 J9.608773
G02 X101.021264 Y131.541215 Z-0.125000 I-2.245164 J11.067314
G02 X99.868767 Y131.497088 Z-0.125000 I-0.945589 J9.624295
G02 X98.748317 Y131.573063 Z-0.125000 I0.259534 J12.127538
G02 X97.640701 Y131.761492 Z-0.125000 I1.173359 J10.246796
G02 X96.570002 Y132.050916 Z-0.125000 I2.992100 J13.194199
G02 X95.528791 Y132.434566 Z-0.125000 I3.470967 J11.024793
G02 X94.532258 Y132.900415 Z-0.125000 I5.926809 J13.977291
G02 X93.575096 Y133.442901 Z-0.125000 I5.960656 J11.632637
G02 X92.672258 Y134.048150 Z-0.125000 I8.757414 J14.039261
G02 X91.814478 Y134.715486 Z-0.125000 I8.407292 J11.691511
G02 X91.020567 Y135.425640 Z-0.125000 I11.107148 J13.215995
G02 X90.275375 Y136.186501 Z-0.125000 I10.436024 J10.966472
G02 X89.601963 Y136.969950 Z-0.125000 I12.803571 J11.686410
G02 X88.979935 Y137.794921 Z-0.125000 I11.760339 J9.514291
G02 X88.435141 Y138.621425 Z-0.125000 I13.917155 J9.766357
G02 X87.943448 Y139.481321 Z-0.125000 I12.308037 J7.608325
G02 X87.531450 Y140.319426 Z-0.125000 I14.595494 J7.695213
G02 X87.172858 Y141.183083 Z-0.125000 I12.137816 J5.545918
G02 X86.892535 Y141.997570 Z-0.125000 I14.925357 J5.592359
G02 X86.663926 Y142.826432 Z-0.125000 I11.613714 J3.649144
G02 X86.506794 Y143.580456 Z-0.125000 I13.217754 J3.147845
G02 X86.399606 Y144.336531 Z-0.125000 I10.363736 J1.854889
G02 X86.353180 Y145.011075 Z-0.125000 I9.383591 J0.984710
G02 X86.359774 Y145.685355 Z-0.125000 I7.905058 J0.259870
G02 X86.417698 Y146.289556 Z-0.125000 I7.024306 J-0.368546
G02 X86.530592 Y146.884285 Z-0.125000 I6.135119 J-0.856506
G02 X86.690542 Y147.427556 Z-0.125000 I5.523587 J-1.331074
G02 X86.904794 Y147.950724 Z-0.125000 I5.085268 J-1.777105
G02 X87.170768 Y148.444524 Z-0.125000 I4.797776 J-2.265686
G02 X87.486421 Y148.907888 Z-0.125000 I4.690664 J-2.856181
G02 X87.868415 Y149.361936 Z-0.125000 I4.696377 J-3.563383
G02 X88.292128 Y149.777888 Z-0.125000 I4.844035 J-4.510627
G02 X88.804099 Y150.198582 Z-0.125000 I5.094389 J-5.677848
G02 X89.348664 Y150.577364 Z-0.125000 I5.438249 J-7.237583
G02 X90.006717 Y150.968640 Z-0.125000 I5.970812 J-9.292771
G02 X90.689010 Y151.317787 Z-0.125000 I6.402854 J-11.671061
G02 X91.510323 Y151.683247 Z-0.125000 I7.566992 J-15.899981
G02 X92.349150 Y152.009597 Z-0.125000 I7.803470 J-18.816246
G02 X93.350636 Y152.355436 Z-0.125000 I11.019689 J-30.288046
G02 X94.364607 Y152.668822 Z-0.125000 I10.111681 J-30.919603
G02 X95.560155 Y153.007667 Z-0.125000 I23.923977 J-82.132461
G02 X96.765276 Y153.326031 Z-0.125000 I15.560309 J-56.461406
G03 X98.159754 Y153.680788 Z-0.125000 I-118.845103 J470.073787
G03 X99.586908 Y154.051537 Z-0.125000 I-51.317110 J200.471046
G02 X101.138493 Y154.435622 Z-0.125000 I13.525203 J-51.311686
G02 X102.680808 Y154.779840 Z-0.125000 I22.227296 J-95.964916
G02 X104.241433 Y155.089414 Z-0.125000 I10.613870 J-49.418109
G02 X105.795972 Y155.346201 Z-0.125000 I8.614962 J-47.319615
G02 X107.322668 Y155.561502 Z-0.125000 I15.660275 J-105.526177
G02 X108.856420 Y155.747854 Z-0.125000 I8.553229 J-63.991492
G02 X110.337526 Y155.904235 Z-0.125000 I21.599629 J-197.481588
G02 X111.823493 Y156.044171 Z-0.125000 I10.009411 J-98.329000
G02 X113.220401 Y156.161862 Z-0.125000 I26.370454 J-304.650421
G02 X114.620393 Y156.270793 Z-0.125000 I13.957520 J-170.333002
G02 X115.886807 Y156.358960 Z-0.125000 I11.556937 J-156.861031
G02 X117.154525 Y156.438267 Z-0.125000 I13.860674 J-211.390981
G02 X118.243231 Y156.491196 Z-0.125000 I2.972003 J-49.908086
G02 X119.330861 Y156.524617 Z-0.125000 I2.944833 J-78.122244
G02 X120.203492 Y156.521679 Z-0.125000 I0.382179 J-16.083050
G02 X121.068784 Y156.475217 Z-0.125000 I-0.571539 J-18.724668
G02 X121.707049 Y156.385540 Z-0.125000 I-0.393774 J-5.118903
G02 X122.314503 Y156.215737 Z-0.125000 I-0.904123 J-4.405852
G02 X122.732787 Y156.002641 Z-0.125000 I-0.615920 J-1.726056
G02 X123.068333 Y155.691864 Z-0.125000 I-0.878171 J-1.284697
G02 X123.302738 Y155.294786 Z-0.125000 I-1.262250 J-1.012864
G02 X123.426886 Y154.837776 Z-0.125000 I-1.755164 J-0.722163
G02 X123.473775 Y154.201699 Z-0.125000 I-4.746100 J-0.669629
G02 X123.439629 Y153.552456 Z-0.125000 I-5.462297 J-0.038237
G02 X123.320989 Y152.686802 Z-0.125000 I-18.005510 J2.026743
G02 X123.159560 Y151.812303 Z-0.125000 I-19.747317 J3.193135
G02 X122.915092 Y150.746705 Z-0.125000 I-25.802343 J5.358680
G02 X122.633888 Y149.691718 Z-0.125000 I-37.194146 J9.349052
G02 X122.272100 Y148.513969 Z-0.125000 I-25.439741 J7.170278
G02 X121.865877 Y147.355069 Z-0.125000 I-36.874127 J12.274648
G02 X121.381323 Y146.139148 Z-0.125000 I-23.373388 J8.609969
G02 X120.842597 Y144.950297 Z-0.125000 I-30.033123 J12.892986
G02 X120.229855 Y143.756705 Z-0.125000 I-20.994225 J10.023506
G02 X119.555892 Y142.600509 Z-0.125000 I-23.788481 J13.092119
G02 X118.814844 Y141.475849 Z-0.125000 I-18.982356 J11.701157
G02 X118.010809 Y140.399021 Z-0.125000 I-19.253817 J13.537662
G02 X117.148212 Y139.373877 Z-0.125000 I-17.752058 J14.061806
G02 X116.227107 Y138.404147 Z-0.125000 I-16.300924 J14.561217
G02 X115.256386 Y137.492229 Z-0.125000 I-17.794774 J17.969633
G02 X114.237133 Y136.637346 Z-0.125000 I-14.790632 J16.599387
G02 X113.177324 Y135.835680 Z-0.125000 I-20.179755 J25.576442
G02 X112.082320 Y135.084882 Z-0.125000 I-14.890572 J20.543288
G02 X110.955811 Y134.375002 Z-0.125000 I-28.802687 J44.458256
G02 X109.808247 Y133.702561 Z-0.125000 I-17.650129 J28.805667
G02 X108.636471 Y133.053341 Z-0.125000 I-74.209045 J132.557709
G02 X107.454260 Y132.415594 Z-0.125000 I-47.307181 J86.280138
G02 X106.253552 Y131.796763 Z-0.125000 I-26.381759 J49.713782
G03 X105.030749 Y131.170937 Z-0.125000 I33.549777 J-67.060485
G02 X103.813330 Y130.640355 Z-0.125000 I-4.328580 J8.269958
G02 X102.555474 Y130.271728 Z-0.125000 I-3.993233 J11.295621
G02 X101.325487 Y130.054590 Z-0.125000 I-2.565320 J10.939087
G02 X100.080267 Y129.983783 Z-0.125000 I-1.189916 J9.941314
G02 X98.867702 Y130.048398 Z-0.125000 I0.070312 J12.729161
G02 X97.667872 Y130.238904 Z-0.125000 I1.083760 J10.699239
G02 X96.504690 Y130.542907 Z-0.125000 I3.065035 J14.104824
G02 X95.373227 Y130.951289 Z-0.125000 I3.591053 J11.720958
G02 X94.286220 Y131.452056 Z-0.125000 I6.362764 J15.241719
G02 X93.241677 Y132.036629 Z-0.125000 I6.386841 J12.637811
G02 X92.252129 Y132.692053 Z-0.125000 I9.582380 J15.542018
G02 X91.310944 Y133.414752 Z-0.125000 I9.206878 J12.964509
G02 X90.435502 Y134.186693 Z-0.125000 I12.214370 J14.734438
G02 X89.612308 Y135.013557 Z-0.125000 I11.578740 J12.350563
G02 X88.863890 Y135.868534 Z-0.125000 I14.029523 J13.036032
G02 X88.170912 Y136.768920 Z-0.125000 I13.123066 J10.816976
G02 X87.559123 Y137.676292 Z-0.125000 I15.165276 J10.885013
G02 X87.005288 Y138.620855 Z-0.125000 I13.773813 J8.710778
G02 X86.536041 Y139.549426 Z-0.125000 I15.881244 J8.608332
G02 X86.125918 Y140.507168 Z-0.125000 I13.663107 J6.417477
G02 X85.800085 Y141.421348 Z-0.125000 I16.338404 J6.338513
G02 X85.532402 Y142.355283 Z-0.125000 I12.992611 J4.229248
G02 X85.343317 Y143.213601 Z-0.125000 I15.949993 J3.963730
G02 X85.208915 Y144.075594 Z-0.125000 I12.096823 J2.327607
G02 X85.141591 Y144.843604 Z-0.125000 I12.030393 J1.441550
G02 X85.129417 Y145.609865 Z-0.125000 I9.630613 J0.536233
G02 X85.172126 Y146.288244 Z-0.125000 I8.708575 J-0.207742
G02 X85.272037 Y146.958581 Z-0.125000 I7.321402 J-0.748605
G02 X85.419400 Y147.560626 Z-0.125000 I6.608120 J-1.298423
G02 X85.623820 Y148.144403 Z-0.125000 I5.850014 J-1.720802
G02 X85.876989 Y148.684484 Z-0.125000 I5.439578 J-2.220481
G02 X86.183619 Y149.195642 Z-0.125000 I5.141069 J-2.736448
G02 X86.551146 Y149.686899 Z-0.125000 I5.016445 J-3.369871
G02 X86.964964 Y150.140297 Z-0.125000 I5.057874 J-4.200791
G02 X87.460989 Y150.591665 Z-0.125000 I5.149356 J-5.160591
G02 X87.994207 Y150.999534 Z-0.125000 I5.452399 J-6.575582
G02 X88.636140 Y151.415748 Z-0.125000 I5.731645 J-8.136855
G02 X89.306284 Y151.786367 Z-0.125000 I6.194982 J-10.410433
G02 X90.113457 Y152.170088 Z-0.125000 I6.839978 J-13.347390
G02 X90.941184 Y152.509484 Z-0.125000 I7.245662 J-16.491845
G02 X91.933926 Y152.864634 Z-0.125000 I9.060148 J-23.760527
G02 X92.941306 Y153.180537 Z-0.125000 I8.838123 J-26.419665
G02 X94.139043 Y153.516757 Z-0.125000 I15.532043 J-53.029193
G02 X95.347259 Y153.823929 Z-0.125000 I12.022992 J-44.760985
G02 X96.764031 Y154.162019 Z-0.125000 I135.045640 J-562.772489
G02 X98.210254 Y154.503230 Z-0.125000 I132.011554 J-556.295237
G02 X99.824011 Y154.865823 Z-0.125000 I20.138515 J-85.856112
G02 X101.447598 Y155.211042 Z-0.125000 I81.710274 J-380.298411
G02 X103.122874 Y155.528262 Z-0.125000 I8.674980 J-41.231273
G02 X104.777746 Y155.775870 Z-0.125000 I7.561852 J-44.885256
G02 X106.413416 Y155.975947 Z-0.125000 I12.693683 J-96.987349
G02 X108.056819 Y156.140264 Z-0.125000 I6.845104 J-60.160721
G02 X109.660505 Y156.272116 Z-0.125000 I17.361503 J-201.344377
G02 X111.269800 Y156.384230 Z-0.125000 I7.402230 J-94.646177
G02 X112.803844 Y156.475742 Z-0.125000 I31.796629 J-520.115241
G02 X114.341728 Y156.558911 Z-0.125000 I10.958652 J-188.377156
G02 X115.756262 Y156.626734 Z-0.125000 I17.365118 J-347.385260
G02 X117.172650 Y156.689447 Z-0.125000 I19.975592 J-435.131424
G02 X118.412480 Y156.733218 Z-0.125000 I3.605625 J-84.548177
G02 X119.651544 Y156.763686 Z-0.125000 I5.141098 J-183.869428
G02 X120.667402 Y156.764093 Z-0.125000 I0.517696 J-24.398637
G02 X121.677104 Y156.728365 Z-0.125000 I-0.689872 J-33.782018
G02 X122.439290 Y156.651015 Z-0.125000 I-0.379312 J-7.531525
G02 X123.176406 Y156.498595 Z-0.125000 I-1.097255 J-7.165015
G02 X123.689794 Y156.301257 Z-0.125000 I-0.627582 J-2.399176
G02 X124.126563 Y155.996871 Z-0.125000 I-0.940811 J-1.815543
G02 X124.432611 Y155.618083 Z-0.125000 I-1.083154 J-1.188182
G02 X124.620077 Y155.158827 Z-0.125000 I-1.535739 J-0.894772
G02 X124.726801 Y154.521400 Z-0.125000 I-3.840800 J-0.970708
G02 X124.735284 Y153.860314 Z-0.125000 I-4.617205 J-0.389850
G02 X124.656948 Y152.961029 Z-0.125000 I-15.911851 J0.933020
G02 X124.526454 Y152.048367 Z-0.125000 I-17.086067 J1.977329
G02 X124.309178 Y150.912583 Z-0.125000 I-28.225370 J4.810871
G02 X124.052474 Y149.783275 Z-0.125000 I-39.620078 J8.412214
G02 X123.710707 Y148.504388 Z-0.125000 I-27.578069 J6.684812
G02 X123.321102 Y147.244267 Z-0.125000 I-41.126188 J12.025132
G02 X122.847431 Y145.913361 Z-0.125000 I-25.179936 J8.211828
G02 X122.314064 Y144.609928 Z-0.125000 I-33.142355 J12.801052
G02 X121.700249 Y143.299249 Z-0.125000 I-22.329844 J9.658409
G02 X121.017455 Y142.027732 Z-0.125000 I-25.695438 J12.979146
G02 X120.261441 Y140.793759 Z-0.125000 I-19.767440 J11.262269
G02 X119.433005 Y139.611655 Z-0.125000 I-20.255116 J13.313744
G02 X118.540689 Y138.492387 Z-0.125000 I-17.930086 J13.379117
G02 X117.579785 Y137.435407 Z-0.125000 I-16.600546 J14.126327
G02 X116.564460 Y136.449251 Z-0.125000 I-17.287459 J16.783044
G02 X115.491224 Y135.529517 Z-0.125000 I-14.499645 J15.833578
G02 X114.372527 Y134.675389 Z-0.125000 I-18.715462 J23.352929
G02 X113.211138 Y133.882550 Z-0.125000 I-13.979379 J19.230626
G02 X112.013283 Y133.140863 Z-0.125000 I-25.293736 J39.512298
G02 X110.789396 Y132.445815 Z-0.125000 I-15.780553 J26.362372
G02 X109.537157 Y131.780943 Z-0.125000 I-61.286365 J113.916951
G02 X108.273663 Y131.138486 Z-0.125000 I-26.929032 J51.396587
G02 X106.986111 Y130.506907 Z-0.125000 I-147.501169 J299.071071
G03 X105.682251 Y129.845841 Z-0.125000 I20.884700 J-42.808459
G02 X104.376815 Y129.263399 Z-0.125000 I-5.132041 J9.748364
G02 X103.030144 Y128.829226 Z-0.125000 I-5.735801 J15.485126
G02 X101.710694 Y128.552853 Z-0.125000 I-2.865989 J10.394891
G02 X100.371847 Y128.447214 Z-0.125000 I-1.478632 J10.202883
G02 X99.066816 Y128.493854 Z-0.125000 I-0.179711 J13.252810
G02 X97.773821 Y128.681118 Z-0.125000 I0.943511 J11.072121
G02 X96.517207 Y128.995416 Z-0.125000 I3.072495 J14.953537
G02 X95.294327 Y129.425123 Z-0.125000 I3.648704 J12.338565
G02 X94.115291 Y129.958104 Z-0.125000 I6.758138 J16.520646
G02 X92.981668 Y130.582420 Z-0.125000 I6.757076 J13.610761
G02 X91.903226 Y131.286033 Z-0.125000 I10.420645 J17.150209
G02 X90.876200 Y132.062104 Z-0.125000 I9.988294 J14.285782
G02 X89.916385 Y132.893883 Z-0.125000 I13.371521 J16.399465
G02 X89.011979 Y133.784636 Z-0.125000 I12.749926 J13.849856
G02 X88.185049 Y134.708927 Z-0.125000 I15.289589 J14.511098
G02 X87.417233 Y135.682408 Z-0.125000 I14.537416 J12.255678
G02 X86.734285 Y136.668432 Z-0.125000 I16.387187 J12.079756
G02 X86.113917 Y137.695501 Z-0.125000 I15.276787 J9.928352
G02 X85.582712 Y138.713161 Z-0.125000 I17.064515 J9.554922
G02 X85.116392 Y139.763861 Z-0.125000 I15.200842 J7.375233
G02 X84.740094 Y140.778572 Z-0.125000 I17.574903 J7.094651
G02 X84.428739 Y141.817764 Z-0.125000 I14.488859 J4.907289
G02 X84.203239 Y142.786077 Z-0.125000 I17.924650 J4.684681
G02 X84.039274 Y143.763495 Z-0.125000 I13.578736 J2.780340
G02 X83.949758 Y144.638449 Z-0.125000 I15.305668 J2.007970
G02 X83.918441 Y145.508717 Z-0.125000 I11.583203 J0.852524
G02 X83.946663 Y146.272321 Z-0.125000 I10.790853 J-0.016486
G02 X84.034679 Y147.028463 Z-0.125000 I8.723606 J-0.632256
G02 X84.171468 Y147.697516 Z-0.125000 I7.979616 J-1.282934
G02 X84.368047 Y148.349784 Z-0.125000 I6.777488 J-1.686826
G02 X84.611147 Y148.942119 Z-0.125000 I6.295005 J-2.237473
G02 X84.911078 Y149.507109 Z-0.125000 I5.722977 J-2.676006
G02 X85.266696 Y150.039803 Z-0.125000 I5.504627 J-3.289751
G02 X85.672760 Y150.535477 Z-0.125000 I5.390149 J-4.001530
G02 X86.154343 Y151.020866 Z-0.125000 I5.360287 J-4.836657
G02 X86.677593 Y151.462110 Z-0.125000 I5.588815 J-6.096634
G02 X87.303123 Y151.906597 Z-0.125000 I5.678270 J-7.328667
G02 X87.960996 Y152.302994 Z-0.125000 I6.138724 J-9.443925
G02 X88.751175 Y152.708866 Z-0.125000 I6.418060 J-11.522986
G02 X89.565225 Y153.065982 Z-0.125000 I6.917684 J-14.662573
G02 X90.542775 Y153.435030 Z-0.125000 I7.865501 J-19.355255
G02 X91.537304 Y153.758476 Z-0.125000 I8.005266 J-22.923838
G02 X92.726066 Y154.096942 Z-0.125000 I11.500152 J-38.133979
G02 X93.926879 Y154.398223 Z-0.125000 I9.991227 J-37.278357
G02 X95.348621 Y154.723078 Z-0.125000 I32.262588 J-137.924832
G02 X96.793237 Y155.035243 Z-0.125000 I24.108505 J-108.069101
G02 X98.445814 Y155.372915 Z-0.125000 I37.643297 J-180.014483
G03 X100.130511 Y155.712579 Z-0.125000 I-84.963040 J425.756060
G02 X101.907337 Y156.031925 Z-0.125000 I7.799755 J-38.294638
G02 X103.651612 Y156.270380 Z-0.125000 I7.190788 J-46.101214
G02 X105.389144 Y156.455917 Z-0.125000 I9.604721 J-81.718267
G02 X107.132324 Y156.595859 Z-0.125000 I5.341509 J-55.609423
G02 X108.849553 Y156.698754 Z-0.125000 I12.024297 J-186.293964
G02 X110.573139 Y156.777076 Z-0.125000 I4.844762 J-87.611012
G02 X112.238517 Y156.834665 Z-0.125000 I29.270294 J-822.348098
G02 X113.908687 Y156.883213 Z-0.125000 I6.239143 J-185.889376
G02 X115.470812 Y156.920993 Z-0.125000 I49.580694 J-2017.725151
G02 X117.035710 Y156.956956 Z-0.125000 I23.163285 J-973.856828
G02 X118.432300 Y156.982053 Z-0.125000 I3.682224 J-166.035043
G02 X119.828731 Y157.000373 Z-0.125000 I15.087201 J-1096.830086
G02 X120.998958 Y156.997082 Z-0.125000 I0.477530 J-38.257761
G02 X122.163977 Y156.966187 Z-0.125000 I-1.251917 J-69.189757
G02 X123.064788 Y156.898178 Z-0.125000 I-0.390393 J-11.170813
G02 X123.945213 Y156.762962 Z-0.125000 I-1.405469 J-12.085347
G02 X124.569130 Y156.581890 Z-0.125000 I-0.653976 J-3.418838
G02 X125.125139 Y156.289427 Z-0.125000 I-1.066643 J-2.702570
G02 X125.512215 Y155.932222 Z-0.125000 I-0.966797 J-1.435973
G02 X125.776076 Y155.474173 Z-0.125000 I-1.381824 J-1.101028
G02 X125.951833 Y154.846564 Z-0.125000 I-3.058066 J-1.194803
G02 X126.011088 Y154.178870 Z-0.125000 I-3.883275 J-0.681100
G02 X125.981832 Y153.254740 Z-0.125000 I-13.192919 J-0.044860
G02 X125.887394 Y152.313880 Z-0.125000 I-14.152863 J0.945400
G02 X125.702683 Y151.116619 Z-0.125000 I-30.483814 J4.090102
G02 X125.475413 Y149.918809 Z-0.125000 I-40.733296 J7.108213
G02 X125.158828 Y148.538522 Z-0.125000 I-29.888682 J6.128867
G02 X124.791264 Y147.176729 Z-0.125000 I-45.692167 J11.602342
G02 X124.333858 Y145.725960 Z-0.125000 I-27.258491 J7.796709
G02 X123.811504 Y144.302672 Z-0.125000 I-36.767600 J12.686404
G02 X123.201956 Y142.867132 Z-0.125000 I-23.980082 J9.335061
G02 X122.515807 Y141.471857 Z-0.125000 I-28.033891 J12.919766
G02 X121.750043 Y140.119494 Z-0.125000 I-20.866222 J10.922322
G02 X120.902271 Y138.822259 Z-0.125000 I-21.598732 J13.189630
G02 X119.985449 Y137.599925 Z-0.125000 I-18.390790 J12.839160
G02 X118.989382 Y136.446217 Z-0.125000 I-17.167604 J13.815005
G02 X117.934661 Y135.378201 Z-0.125000 I-17.032027 J15.765201
G02 X116.811651 Y134.386165 Z-0.125000 I-14.422724 J15.195243
G02 X115.638822 Y133.474298 Z-0.125000 I-17.520767 J21.324784
G02 X114.414609 Y132.635276 Z-0.125000 I-13.275489 J18.057553
G02 X113.148913 Y131.859815 Z-0.125000 I-22.138140 J34.712923
G02 X111.851044 Y131.142099 Z-0.125000 I-14.177728 J24.105688
G02 X110.520030 Y130.463688 Z-0.125000 I-47.467703 J91.484702
G02 X109.175205 Y129.818366 Z-0.125000 I-19.968765 J39.890160
G03 X107.801561 Y129.182947 Z-0.125000 I122.350709 J-266.299451
G03 X106.416228 Y128.514627 Z-0.125000 I23.798290 J-51.100455
G02 X105.020482 Y127.902456 Z-0.125000 I-6.838964 J13.695549
G02 X103.586173 Y127.394828 Z-0.125000 I-11.576035 J30.428085
G02 X102.176585 Y127.042981 Z-0.125000 I-3.137822 J9.571424
G02 X100.743244 Y126.893078 Z-0.125000 I-1.813558 J10.413187
G02 X99.345727 Y126.914143 Z-0.125000 I-0.492624 J13.685971
G02 X97.958792 Y127.092042 Z-0.125000 I0.752216 J11.359769
G02 X96.608139 Y127.411720 Z-0.125000 I3.006471 J15.715568
G02 X95.293005 Y127.858934 Z-0.125000 I3.639431 J12.859925
G02 X94.020711 Y128.421155 Z-0.125000 I7.100670 J17.789362
G02 X92.796666 Y129.082726 Z-0.125000 I7.058957 J14.523703
G02 X91.627428 Y129.832504 Z-0.125000 I11.273973 J18.867713
G02 X90.512415 Y130.659927 Z-0.125000 I10.740165 J15.638136
G02 X89.465623 Y131.549550 Z-0.125000 I14.603163 J18.243780
G02 X88.476993 Y132.501985 Z-0.125000 I13.956020 J15.475700
G02 X87.568219 Y133.493097 Z-0.125000 I16.621558 J16.152891
G02 X86.721761 Y134.536961 Z-0.125000 I16.021176 J13.856519
G02 X85.963595 Y135.598659 Z-0.125000 I17.619518 J13.383787
G02 X85.272231 Y136.705205 Z-0.125000 I16.831310 J11.285360
G02 X84.674303 Y137.809189 Z-0.125000 I18.172906 J10.556531
G02 X84.146858 Y138.950252 Z-0.125000 I16.750496 J8.435181
G02 X83.714782 Y140.064325 Z-0.125000 I18.667072 J7.880559
G02 X83.354601 Y141.207056 Z-0.125000 I16.069384 J5.693095
G02 X83.087345 Y142.288550 Z-0.125000 I19.225304 J5.324677
G02 X82.889887 Y143.387177 Z-0.125000 I14.942006 J3.252608
