%
(Header)
(Generated by gcodetools from Inkscape.)
(Using default header. To add your own header create file "header" in the output dir.)
M3
(Header end.)
G21 (All units in mm)

(Start cutting path id: polygon9937)
(Change tool to Default tool)

G00 Z3.000000
G00 X93.857891 Y236.636830

G00 Z4.875000 (Fast pre-penetrate)
G01 Z-0.125000 F400.0(Penetrate)
G01 X93.667392 Y236.383968 Z-0.125000 F800.000000
G01 X93.388654 Y236.229928 Z-0.125000
G01 X92.849486 Y236.268345 Z-0.125000
G01 X92.596624 Y236.458845 Z-0.125000
G01 X92.442584 Y236.737583 Z-0.125000
G01 X92.481002 Y237.276750 Z-0.125000
G01 X92.671501 Y237.529612 Z-0.125000
G01 X92.950239 Y237.683652 Z-0.125000
G01 X93.489407 Y237.645235 Z-0.125000
G01 X93.742269 Y237.454735 Z-0.125000
G01 X93.896309 Y237.175997 Z-0.125000
G01 X93.857891 Y236.636830 Z-0.125000
G00 Z3.000000

(End cutting path id: polygon9937)


(Start cutting path id: polygon9919)
(Change tool to Default tool)

G00 Z3.000000
G00 X95.407686 Y236.328829

G00 Z4.875000 (Fast pre-penetrate)
G01 Z-0.125000 F400.0(Penetrate)
G01 X95.187315 Y236.549200 Z-0.125000 F800.000000
G01 X95.074841 Y237.067412 Z-0.125000
G01 X95.187315 Y237.364380 Z-0.125000
G01 X95.407686 Y237.584751 Z-0.125000
G01 X95.925899 Y237.697226 Z-0.125000
G01 X96.222867 Y237.584751 Z-0.125000
G01 X96.443238 Y237.364380 Z-0.125000
G01 X96.555712 Y236.846168 Z-0.125000
G01 X96.443238 Y236.549200 Z-0.125000
G01 X96.222867 Y236.328829 Z-0.125000
G01 X95.704654 Y236.216354 Z-0.125000
G01 X95.407686 Y236.328829 Z-0.125000
G00 Z3.000000

(End cutting path id: polygon9919)


(Start cutting path id: polygon9917)
(Change tool to Default tool)

G00 Z3.000000
G00 X95.073677 Y234.106517

G00 Z4.875000 (Fast pre-penetrate)
G01 Z-0.125000 F400.0(Penetrate)
G01 X95.053225 Y234.415312 Z-0.125000 F800.000000
G01 X95.151200 Y234.699130 Z-0.125000
G01 X95.345324 Y234.919792 Z-0.125000
G01 X95.610833 Y235.052560 Z-0.125000
G01 X95.919628 Y235.073012 Z-0.125000
G01 X96.203446 Y234.975037 Z-0.125000
G01 X96.424108 Y234.780912 Z-0.125000
G01 X96.556876 Y234.515403 Z-0.125000
G01 X96.577328 Y234.206608 Z-0.125000
G01 X96.479353 Y233.922790 Z-0.125000
G01 X96.285229 Y233.702128 Z-0.125000
G01 X96.019720 Y233.569360 Z-0.125000
G01 X95.710925 Y233.548908 Z-0.125000
G01 X95.427107 Y233.646883 Z-0.125000
G01 X95.206445 Y233.841008 Z-0.125000
G01 X95.073677 Y234.106517 Z-0.125000
G00 Z3.000000

(End cutting path id: polygon9917)


(Start cutting path id: polygon4945)
(Change tool to Default tool)

G00 Z3.000000
G00 X93.919010 Y234.517599

G00 Z4.875000 (Fast pre-penetrate)
G01 Z-0.125000 F400.0(Penetrate)
G01 X93.939674 Y234.205471 Z-0.125000 F800.000000
G01 X93.840641 Y233.918636 Z-0.125000
G01 X93.644452 Y233.695593 Z-0.125000
G01 X93.376086 Y233.561396 Z-0.125000
G01 X93.063957 Y233.540732 Z-0.125000
G01 X92.777123 Y233.639766 Z-0.125000
G01 X92.554079 Y233.835954 Z-0.125000
G01 X92.419883 Y234.104321 Z-0.125000
G01 X92.399219 Y234.416449 Z-0.125000
G01 X92.498252 Y234.703284 Z-0.125000
G01 X92.694441 Y234.926327 Z-0.125000
G01 X92.962807 Y235.060524 Z-0.125000
G01 X93.274936 Y235.081188 Z-0.125000
G01 X93.561770 Y234.982154 Z-0.125000
G01 X93.784814 Y234.785966 Z-0.125000
G01 X93.919010 Y234.517599 Z-0.125000
G00 Z3.000000

(End cutting path id: polygon4945)


(Start cutting path id: polygon4943)
(Change tool to Default tool)

G00 Z3.000000
G00 X93.666704 Y232.309337

G00 Z4.875000 (Fast pre-penetrate)
G01 Z-0.125000 F400.0(Penetrate)
G01 X93.872100 Y232.075842 Z-0.125000 F800.000000
G01 X93.975763 Y231.775540 Z-0.125000
G01 X93.954120 Y231.448807 Z-0.125000
G01 X93.813653 Y231.167873 Z-0.125000
G01 X93.580159 Y230.962477 Z-0.125000
G01 X93.279857 Y230.858813 Z-0.125000
G01 X92.953123 Y230.880456 Z-0.125000
G01 X92.672189 Y231.020923 Z-0.125000
G01 X92.466793 Y231.254418 Z-0.125000
G01 X92.363130 Y231.554720 Z-0.125000
G01 X92.384773 Y231.881453 Z-0.125000
G01 X92.525240 Y232.162387 Z-0.125000
G01 X92.758734 Y232.367783 Z-0.125000
G01 X93.059036 Y232.471447 Z-0.125000
G01 X93.385770 Y232.449804 Z-0.125000
G01 X93.666704 Y232.309337 Z-0.125000
G00 Z3.000000

(End cutting path id: polygon4943)


(Start cutting path id: polygon4913)
(Change tool to Default tool)

G00 Z3.000000
G00 X95.600832 Y232.442978

G00 Z4.875000 (Fast pre-penetrate)
G01 Z-0.125000 F400.0(Penetrate)
G01 X95.924734 Y232.464435 Z-0.125000 F800.000000
G01 X96.222417 Y232.361671 Z-0.125000
G01 X96.453874 Y232.158048 Z-0.125000
G01 X96.593124 Y231.879575 Z-0.125000
G01 X96.614582 Y231.555672 Z-0.125000
G01 X96.511818 Y231.257990 Z-0.125000
G01 X96.308195 Y231.026532 Z-0.125000
G01 X96.029721 Y230.887282 Z-0.125000
G01 X95.705819 Y230.865825 Z-0.125000
G01 X95.408136 Y230.968589 Z-0.125000
G01 X95.176679 Y231.172212 Z-0.125000
G01 X95.037429 Y231.450685 Z-0.125000
G01 X95.015971 Y231.774588 Z-0.125000
G01 X95.118735 Y232.072270 Z-0.125000
G01 X95.322358 Y232.303728 Z-0.125000
G01 X95.600832 Y232.442978 Z-0.125000
G00 Z3.000000

(End cutting path id: polygon4913)


(Start cutting path id: polygon4891)
(Change tool to Default tool)

G00 Z3.000000
G00 X98.057009 Y233.688396

G00 Z4.875000 (Fast pre-penetrate)
G01 Z-0.125000 F400.0(Penetrate)
G01 X97.838543 Y233.906862 Z-0.125000 F800.000000
G01 X97.727021 Y234.201290 Z-0.125000
G01 X97.838543 Y234.715058 Z-0.125000
G01 X98.057009 Y234.933524 Z-0.125000
G01 X98.351437 Y235.045046 Z-0.125000
G01 X98.865204 Y234.933524 Z-0.125000
G01 X99.083670 Y234.715058 Z-0.125000
G01 X99.195192 Y234.420630 Z-0.125000
G01 X99.083670 Y233.906862 Z-0.125000
G01 X98.865204 Y233.688396 Z-0.125000
G01 X98.570776 Y233.576874 Z-0.125000
G01 X98.057009 Y233.688396 Z-0.125000
G00 Z3.000000

(End cutting path id: polygon4891)


(Start cutting path id: polygon4889)
(Change tool to Default tool)

G00 Z3.000000
G00 X98.254017 Y230.914005

G00 Z4.875000 (Fast pre-penetrate)
G01 Z-0.125000 F400.0(Penetrate)
G01 X97.985122 Y231.048466 Z-0.125000 F800.000000
G01 X97.788510 Y231.271986 Z-0.125000
G01 X97.689265 Y231.559429 Z-0.125000
G01 X97.709982 Y231.872219 Z-0.125000
G01 X97.844443 Y232.141115 Z-0.125000
G01 X98.067963 Y232.337726 Z-0.125000
G01 X98.355406 Y232.436972 Z-0.125000
G01 X98.668196 Y232.416255 Z-0.125000
G01 X98.937091 Y232.281794 Z-0.125000
G01 X99.133703 Y232.058274 Z-0.125000
G01 X99.232948 Y231.770831 Z-0.125000
G01 X99.212231 Y231.458041 Z-0.125000
G01 X99.077770 Y231.189145 Z-0.125000
G01 X98.854250 Y230.992534 Z-0.125000
G01 X98.566807 Y230.893288 Z-0.125000
G01 X98.254017 Y230.914005 Z-0.125000
G00 Z3.000000

(End cutting path id: polygon4889)


(Start cutting path id: polygon4887)
(Change tool to Default tool)

G00 Z3.000000
G00 X99.105604 Y229.516795

G00 Z4.875000 (Fast pre-penetrate)
G01 Z-0.125000 F400.0(Penetrate)
G01 X99.246177 Y229.235729 Z-0.125000 F800.000000
G01 X99.267820 Y228.908837 Z-0.125000
G01 X99.164104 Y228.608376 Z-0.125000
G01 X98.958602 Y228.374802 Z-0.125000
G01 X98.677535 Y228.234229 Z-0.125000
G01 X98.350643 Y228.212586 Z-0.125000
G01 X98.050183 Y228.316303 Z-0.125000
G01 X97.816609 Y228.521805 Z-0.125000
G01 X97.676036 Y228.802871 Z-0.125000
G01 X97.654393 Y229.129763 Z-0.125000
G01 X97.758109 Y229.430224 Z-0.125000
G01 X97.963611 Y229.663798 Z-0.125000
G01 X98.244678 Y229.804371 Z-0.125000
G01 X98.571570 Y229.826014 Z-0.125000
G01 X98.872030 Y229.722297 Z-0.125000
G01 X99.105604 Y229.516795 Z-0.125000
G00 Z3.000000

(End cutting path id: polygon4887)


(Start cutting path id: polygon4885)
(Change tool to Default tool)

G00 Z3.000000
G00 X100.889634 Y229.807572

G00 Z4.875000 (Fast pre-penetrate)
G01 Z-0.125000 F400.0(Penetrate)
G01 X101.217850 Y229.829294 Z-0.125000 F800.000000
G01 X101.519527 Y229.725155 Z-0.125000
G01 X101.754080 Y229.518833 Z-0.125000
G01 X101.895209 Y229.236602 Z-0.125000
G01 X101.916931 Y228.908387 Z-0.125000
G01 X101.812791 Y228.606709 Z-0.125000
G01 X101.606469 Y228.372156 Z-0.125000
G01 X101.324239 Y228.231028 Z-0.125000
G01 X100.996023 Y228.209306 Z-0.125000
G01 X100.694346 Y228.313445 Z-0.125000
G01 X100.459793 Y228.519767 Z-0.125000
G01 X100.318664 Y228.801998 Z-0.125000
G01 X100.296942 Y229.130213 Z-0.125000
G01 X100.401082 Y229.431891 Z-0.125000
G01 X100.607404 Y229.666444 Z-0.125000
G01 X100.889634 Y229.807572 Z-0.125000
G00 Z3.000000

(End cutting path id: polygon4885)


(Start cutting path id: polygon4911)
(Change tool to Default tool)

G00 Z3.000000
G00 X100.341313 Y231.769984

G00 Z4.875000 (Fast pre-penetrate)
G01 Z-0.125000 F400.0(Penetrate)
G01 X100.439764 Y232.055125 Z-0.125000 F800.000000
G01 X100.634788 Y232.276819 Z-0.125000
G01 X100.901541 Y232.410196 Z-0.125000
G01 X101.211791 Y232.430754 Z-0.125000
G01 X101.496932 Y232.332302 Z-0.125000
G01 X101.718626 Y232.137278 Z-0.125000
G01 X101.852002 Y231.870526 Z-0.125000
G01 X101.872560 Y231.560276 Z-0.125000
G01 X101.774109 Y231.275135 Z-0.125000
G01 X101.579085 Y231.053441 Z-0.125000
G01 X101.312332 Y230.920064 Z-0.125000
G01 X101.002082 Y230.899506 Z-0.125000
G01 X100.716941 Y230.997958 Z-0.125000
G01 X100.495247 Y231.192982 Z-0.125000
G01 X100.361871 Y231.459734 Z-0.125000
G01 X100.341313 Y231.769984 Z-0.125000
G00 Z3.000000

(End cutting path id: polygon4911)


(Start cutting path id: polygon4901)
(Change tool to Default tool)

G00 Z3.000000
G00 X101.767838 Y234.003779

G00 Z4.875000 (Fast pre-penetrate)
G01 Z-0.125000 F400.0(Penetrate)
G01 X101.584959 Y233.761051 Z-0.125000 F800.000000
G01 X101.317386 Y233.613175 Z-0.125000
G01 X100.799756 Y233.650058 Z-0.125000
G01 X100.557027 Y233.832938 Z-0.125000
G01 X100.409152 Y234.100511 Z-0.125000
G01 X100.446035 Y234.618141 Z-0.125000
G01 X100.628914 Y234.860869 Z-0.125000
G01 X100.896487 Y235.008745 Z-0.125000
G01 X101.414117 Y234.971862 Z-0.125000
G01 X101.656846 Y234.788982 Z-0.125000
G01 X101.804721 Y234.521409 Z-0.125000
G01 X101.767838 Y234.003779 Z-0.125000
G00 Z3.000000

(End cutting path id: polygon4901)


(Start cutting path id: polygon4909)
(Change tool to Default tool)

G00 Z3.000000
G00 X103.646034 Y232.444539

G00 Z4.875000 (Fast pre-penetrate)
G01 Z-0.125000 F400.0(Penetrate)
G01 X103.961866 Y232.423610 Z-0.125000 F800.000000
G01 X104.233434 Y232.287826 Z-0.125000
G01 X104.431951 Y232.062137 Z-0.125000
G01 X104.532175 Y231.771863 Z-0.125000
G01 X104.511247 Y231.456030 Z-0.125000
G01 X104.375463 Y231.184462 Z-0.125000
G01 X104.149773 Y230.985945 Z-0.125000
G01 X103.859499 Y230.885721 Z-0.125000
G01 X103.543667 Y230.906650 Z-0.125000
G01 X103.272099 Y231.042434 Z-0.125000
G01 X103.073582 Y231.268123 Z-0.125000
G01 X102.973358 Y231.558397 Z-0.125000
G01 X102.994286 Y231.874230 Z-0.125000
G01 X103.130070 Y232.145798 Z-0.125000
G01 X103.355760 Y232.344315 Z-0.125000
G01 X103.646034 Y232.444539 Z-0.125000
G00 Z3.000000

(End cutting path id: polygon4909)


(Start cutting path id: polygon4903)
(Change tool to Default tool)

G00 Z3.000000
G00 X104.234175 Y233.757161

G00 Z4.875000 (Fast pre-penetrate)
G01 Z-0.125000 F400.0(Penetrate)
G01 X103.964697 Y233.608254 Z-0.125000 F800.000000
G01 X103.443416 Y233.645375 Z-0.125000
G01 X103.198968 Y233.829551 Z-0.125000
G01 X103.050061 Y234.099029 Z-0.125000
G01 X103.087182 Y234.620310 Z-0.125000
G01 X103.271358 Y234.864759 Z-0.125000
G01 X103.540836 Y235.013666 Z-0.125000
G01 X104.062117 Y234.976545 Z-0.125000
G01 X104.306565 Y234.792369 Z-0.125000
G01 X104.455472 Y234.522891 Z-0.125000
G01 X104.418351 Y234.001610 Z-0.125000
G01 X104.234175 Y233.757161 Z-0.125000
G00 Z3.000000

(End cutting path id: polygon4903)


(Start cutting path id: polygon4905)
(Change tool to Default tool)

G00 Z3.000000
G00 X106.087553 Y233.641697

G00 Z4.875000 (Fast pre-penetrate)
G01 Z-0.125000 F400.0(Penetrate)
G01 X105.841729 Y233.826879 Z-0.125000 F800.000000
G01 X105.660754 Y234.310960 Z-0.125000
G01 X105.841729 Y234.795041 Z-0.125000
G01 X106.087553 Y234.980223 Z-0.125000
G01 X106.398596 Y235.048803 Z-0.125000
G01 X106.709640 Y234.980223 Z-0.125000
G01 X106.955464 Y234.795041 Z-0.125000
G01 X107.136439 Y234.310960 Z-0.125000
G01 X106.955464 Y233.826879 Z-0.125000
G01 X106.709640 Y233.641697 Z-0.125000
G01 X106.398596 Y233.573117 Z-0.125000
G01 X106.087553 Y233.641697 Z-0.125000
G00 Z3.000000

(End cutting path id: polygon4905)


(Start cutting path id: polygon4907)
(Change tool to Default tool)

G00 Z3.000000
G00 X106.398596 Y232.458614

G00 Z4.875000 (Fast pre-penetrate)
G01 Z-0.125000 F400.0(Penetrate)
G01 X106.707471 Y232.396252 Z-0.125000 F800.000000
G01 X106.959671 Y232.226205 Z-0.125000
G01 X107.129719 Y231.974004 Z-0.125000
G01 X107.192081 Y231.665130 Z-0.125000
G01 X107.129719 Y231.356256 Z-0.125000
G01 X106.959671 Y231.104055 Z-0.125000
G01 X106.707471 Y230.934008 Z-0.125000
G01 X106.398596 Y230.871646 Z-0.125000
G01 X106.089722 Y230.934008 Z-0.125000
G01 X105.837522 Y231.104055 Z-0.125000
G01 X105.667474 Y231.356256 Z-0.125000
G01 X105.605112 Y231.665130 Z-0.125000
G01 X105.667474 Y231.974004 Z-0.125000
G01 X105.837522 Y232.226205 Z-0.125000
G01 X106.089722 Y232.396252 Z-0.125000
G01 X106.398596 Y232.458614 Z-0.125000
G00 Z3.000000

(End cutting path id: polygon4907)


(Start cutting path id: polygon5045)
(Change tool to Default tool)

G00 Z3.000000
G00 X108.839719 Y230.922631

G00 Z4.875000 (Fast pre-penetrate)
G01 Z-0.125000 F400.0(Penetrate)
G01 X108.573892 Y231.055557 Z-0.125000 F800.000000
G01 X108.379556 Y231.276484 Z-0.125000
G01 X108.281449 Y231.560646 Z-0.125000
G01 X108.301927 Y231.869838 Z-0.125000
G01 X108.434854 Y232.135664 Z-0.125000
G01 X108.655781 Y232.330001 Z-0.125000
G01 X108.939943 Y232.428108 Z-0.125000
G01 X109.249134 Y232.407629 Z-0.125000
G01 X109.514961 Y232.274703 Z-0.125000
G01 X109.709297 Y232.053776 Z-0.125000
G01 X109.807404 Y231.769614 Z-0.125000
G01 X109.786926 Y231.460422 Z-0.125000
G01 X109.653999 Y231.194596 Z-0.125000
G01 X109.433072 Y231.000259 Z-0.125000
G01 X109.148910 Y230.902152 Z-0.125000
G01 X108.839719 Y230.922631 Z-0.125000
G00 Z3.000000

(End cutting path id: polygon5045)


(Start cutting path id: polygon5043)
(Change tool to Default tool)

G00 Z3.000000
G00 X108.222632 Y229.123202

G00 Z4.875000 (Fast pre-penetrate)
G01 Z-0.125000 F400.0(Penetrate)
G01 X108.313225 Y229.408660 Z-0.125000 F800.000000
G01 X108.571246 Y229.699146 Z-0.125000
G01 X108.840486 Y229.822256 Z-0.125000
G01 X109.148328 Y229.841095 Z-0.125000
G01 X109.433787 Y229.750502 Z-0.125000
G01 X109.724273 Y229.492480 Z-0.125000
G01 X109.847383 Y229.223241 Z-0.125000
G01 X109.866221 Y228.915398 Z-0.125000
G01 X109.775628 Y228.629940 Z-0.125000
G01 X109.517607 Y228.339454 Z-0.125000
G01 X109.248367 Y228.216344 Z-0.125000
G01 X108.940525 Y228.197505 Z-0.125000
G01 X108.655066 Y228.288098 Z-0.125000
G01 X108.364580 Y228.546120 Z-0.125000
G01 X108.241470 Y228.815359 Z-0.125000
G01 X108.222632 Y229.123202 Z-0.125000
G00 Z3.000000

(End cutting path id: polygon5043)


(Start cutting path id: polygon5041)
(Change tool to Default tool)

G00 Z3.000000
G00 X108.935683 Y227.299616

G00 Z4.875000 (Fast pre-penetrate)
G01 Z-0.125000 F400.0(Penetrate)
G01 X109.258210 Y227.281254 Z-0.125000 F800.000000
G01 X109.544277 Y227.160710 Z-0.125000
G01 X109.831667 Y226.873320 Z-0.125000
G01 X109.970573 Y226.482214 Z-0.125000
G01 X109.952211 Y226.159687 Z-0.125000
G01 X109.831667 Y225.873620 Z-0.125000
G01 X109.544277 Y225.586230 Z-0.125000
G01 X109.153170 Y225.447324 Z-0.125000
G01 X108.830643 Y225.465686 Z-0.125000
G01 X108.544576 Y225.586230 Z-0.125000
G01 X108.257186 Y225.873620 Z-0.125000
G01 X108.118280 Y226.264726 Z-0.125000
G01 X108.136642 Y226.587253 Z-0.125000
G01 X108.257186 Y226.873320 Z-0.125000
G01 X108.544576 Y227.160710 Z-0.125000
G01 X108.935683 Y227.299616 Z-0.125000
G00 Z3.000000

(End cutting path id: polygon5041)


(Start cutting path id: polygon5049)
(Change tool to Default tool)

G00 Z3.000000
G00 X110.892354 Y229.128573

G00 Z4.875000 (Fast pre-penetrate)
G01 Z-0.125000 F400.0(Penetrate)
G01 X110.994932 Y229.425726 Z-0.125000 F800.000000
G01 X111.198185 Y229.656786 Z-0.125000
G01 X111.476182 Y229.795798 Z-0.125000
G01 X111.799529 Y229.817203 Z-0.125000
G01 X112.096682 Y229.714624 Z-0.125000
G01 X112.327743 Y229.511371 Z-0.125000
G01 X112.466755 Y229.233374 Z-0.125000
G01 X112.488159 Y228.910027 Z-0.125000
G01 X112.385581 Y228.612874 Z-0.125000
G01 X112.182328 Y228.381814 Z-0.125000
G01 X111.904331 Y228.242802 Z-0.125000
G01 X111.580984 Y228.221397 Z-0.125000
G01 X111.283831 Y228.323976 Z-0.125000
G01 X111.052770 Y228.527229 Z-0.125000
G01 X110.913758 Y228.805226 Z-0.125000
G01 X110.892354 Y229.128573 Z-0.125000
G00 Z3.000000

(End cutting path id: polygon5049)


(Start cutting path id: polygon3013)
(Change tool to Default tool)

G00 Z3.000000
G00 X111.474674 Y230.950306

G00 Z4.875000 (Fast pre-penetrate)
G01 Z-0.125000 F400.0(Penetrate)
G01 X111.200540 Y231.101780 Z-0.125000 F800.000000
G01 X111.013189 Y231.350461 Z-0.125000
G01 X110.975433 Y231.880712 Z-0.125000
G01 X111.126906 Y232.154847 Z-0.125000
G01 X111.375588 Y232.342198 Z-0.125000
G01 X111.905839 Y232.379954 Z-0.125000
G01 X112.179973 Y232.228480 Z-0.125000
G01 X112.367324 Y231.979799 Z-0.125000
G01 X112.405080 Y231.449548 Z-0.125000
G01 X112.253607 Y231.175413 Z-0.125000
G01 X112.004925 Y230.988062 Z-0.125000
G01 X111.474674 Y230.950306 Z-0.125000
G00 Z3.000000

(End cutting path id: polygon3013)


(Start cutting path id: polygon3011)
(Change tool to Default tool)

G00 Z3.000000
G00 X114.336087 Y232.429801

G00 Z4.875000 (Fast pre-penetrate)
G01 Z-0.125000 F400.0(Penetrate)
G01 X114.633742 Y232.369715 Z-0.125000 F800.000000
G01 X114.876788 Y232.205832 Z-0.125000
G01 X115.040671 Y231.962786 Z-0.125000
G01 X115.100758 Y231.665130 Z-0.125000
G01 X115.040671 Y231.367474 Z-0.125000
G01 X114.876788 Y231.124428 Z-0.125000
G01 X114.633742 Y230.960545 Z-0.125000
G01 X114.336087 Y230.900459 Z-0.125000
G01 X114.038431 Y230.960545 Z-0.125000
G01 X113.795385 Y231.124428 Z-0.125000
G01 X113.631502 Y231.367474 Z-0.125000
G01 X113.571415 Y231.665130 Z-0.125000
G01 X113.631502 Y231.962786 Z-0.125000
G01 X113.795385 Y232.205832 Z-0.125000
G01 X114.038431 Y232.369715 Z-0.125000
G01 X114.336087 Y232.429801 Z-0.125000
G00 Z3.000000

(End cutting path id: polygon3011)


(Start cutting path id: polygon3017)
(Change tool to Default tool)

G00 Z3.000000
G00 X113.933920 Y233.691360

G00 Z4.875000 (Fast pre-penetrate)
G01 Z-0.125000 F400.0(Penetrate)
G01 X113.716486 Y233.908794 Z-0.125000 F800.000000
G01 X113.605493 Y234.420100 Z-0.125000
G01 X113.716486 Y234.713126 Z-0.125000
G01 X113.933920 Y234.930560 Z-0.125000
G01 X114.445227 Y235.041553 Z-0.125000
G01 X114.738253 Y234.930560 Z-0.125000
G01 X114.955687 Y234.713126 Z-0.125000
G01 X115.066680 Y234.201820 Z-0.125000
G01 X114.955687 Y233.908794 Z-0.125000
G01 X114.738253 Y233.691360 Z-0.125000
G01 X114.226946 Y233.580367 Z-0.125000
G01 X113.933920 Y233.691360 Z-0.125000
G00 Z3.000000

(End cutting path id: polygon3017)


(Start cutting path id: polygon3019)
(Change tool to Default tool)

G00 Z3.000000
G00 X116.439257 Y234.853620

G00 Z4.875000 (Fast pre-penetrate)
G01 Z-0.125000 F400.0(Penetrate)
G01 X116.683202 Y235.018085 Z-0.125000 F800.000000
G01 X116.981917 Y235.078409 Z-0.125000
G01 X117.280631 Y235.018085 Z-0.125000
G01 X117.524576 Y234.853620 Z-0.125000
G01 X117.689041 Y234.609674 Z-0.125000
G01 X117.749366 Y234.310960 Z-0.125000
G01 X117.689041 Y234.012246 Z-0.125000
G01 X117.524576 Y233.768300 Z-0.125000
G01 X117.280631 Y233.603835 Z-0.125000
G01 X116.981917 Y233.543511 Z-0.125000
G01 X116.683202 Y233.603835 Z-0.125000
G01 X116.439257 Y233.768300 Z-0.125000
G01 X116.274792 Y234.012246 Z-0.125000
G01 X116.214467 Y234.310960 Z-0.125000
G01 X116.274792 Y234.609674 Z-0.125000
G01 X116.439257 Y234.853620 Z-0.125000
G00 Z3.000000

(End cutting path id: polygon3019)


(Start cutting path id: polygon3021)
(Change tool to Default tool)

G00 Z3.000000
G00 X117.700683 Y236.849422

G00 Z4.875000 (Fast pre-penetrate)
G01 Z-0.125000 F400.0(Penetrate)
G01 X117.591489 Y236.561133 Z-0.125000 F800.000000
G01 X117.377574 Y236.347217 Z-0.125000
G01 X116.874549 Y236.238024 Z-0.125000
G01 X116.586259 Y236.347217 Z-0.125000
G01 X116.372344 Y236.561133 Z-0.125000
G01 X116.263150 Y237.064158 Z-0.125000
G01 X116.372344 Y237.352447 Z-0.125000
G01 X116.586259 Y237.566363 Z-0.125000
G01 X117.089284 Y237.675556 Z-0.125000
G01 X117.377574 Y237.566363 Z-0.125000
G01 X117.591489 Y237.352447 Z-0.125000
G01 X117.700683 Y236.849422 Z-0.125000
G00 Z3.000000

(End cutting path id: polygon3021)


(Start cutting path id: polygon3047)
(Change tool to Default tool)

G00 Z3.000000
G00 X118.973406 Y237.260902

G00 Z4.875000 (Fast pre-penetrate)
G01 Z-0.125000 F400.0(Penetrate)
G01 X119.154460 Y237.501222 Z-0.125000 F800.000000
G01 X119.419414 Y237.647643 Z-0.125000
G01 X119.931858 Y237.611130 Z-0.125000
G01 X120.172179 Y237.430076 Z-0.125000
G01 X120.318599 Y237.165123 Z-0.125000
G01 X120.282087 Y236.652678 Z-0.125000
G01 X120.101033 Y236.412358 Z-0.125000
G01 X119.836079 Y236.265937 Z-0.125000
G01 X119.323635 Y236.302450 Z-0.125000
G01 X119.083314 Y236.483504 Z-0.125000
G01 X118.936894 Y236.748457 Z-0.125000
G01 X118.973406 Y237.260902 Z-0.125000
G00 Z3.000000

(End cutting path id: polygon3047)


(Start cutting path id: polygon3045)
(Change tool to Default tool)

G00 Z3.000000
G00 X120.020917 Y239.065331

G00 Z4.875000 (Fast pre-penetrate)
G01 Z-0.125000 F400.0(Penetrate)
G01 X119.735723 Y238.945581 Z-0.125000 F800.000000
G01 X119.519770 Y238.945581 Z-0.125000
G01 X119.090458 Y239.209450 Z-0.125000
G01 X118.970708 Y239.494644 Z-0.125000
G01 X118.970708 Y239.710596 Z-0.125000
G01 X119.234576 Y240.139909 Z-0.125000
G01 X119.519770 Y240.259659 Z-0.125000
G01 X119.735723 Y240.259659 Z-0.125000
G01 X120.165035 Y239.995790 Z-0.125000
G01 X120.284785 Y239.710596 Z-0.125000
G01 X120.284785 Y239.494644 Z-0.125000
G01 X120.020917 Y239.065331 Z-0.125000
G00 Z3.000000

(End cutting path id: polygon3045)


(Start cutting path id: polygon9781)
(Change tool to Default tool)

G00 Z3.000000
G00 X122.728818 Y240.057862

G00 Z4.875000 (Fast pre-penetrate)
G01 Z-0.125000 F400.0(Penetrate)
G01 X122.917360 Y239.602620 Z-0.125000 F800.000000
G01 X122.728818 Y239.147378 Z-0.125000
G01 X122.273577 Y238.958837 Z-0.125000
G01 X121.818335 Y239.147378 Z-0.125000
G01 X121.629793 Y239.602620 Z-0.125000
G01 X121.818335 Y240.057862 Z-0.125000
G01 X122.273577 Y240.246403 Z-0.125000
G01 X122.728818 Y240.057862 Z-0.125000
G00 Z3.000000

(End cutting path id: polygon9781)


(Start cutting path id: polygon3289)
(Change tool to Default tool)

G00 Z3.000000
G00 X124.302769 Y239.715279

G00 Z4.875000 (Fast pre-penetrate)
G01 Z-0.125000 F400.0(Penetrate)
G01 X124.378255 Y239.918929 Z-0.125000 F800.000000
G01 X124.603098 Y240.143772 Z-0.125000
G01 X125.032066 Y240.219257 Z-0.125000
G01 X125.235715 Y240.143772 Z-0.125000
G01 X125.460558 Y239.918929 Z-0.125000
G01 X125.536044 Y239.489961 Z-0.125000
G01 X125.460558 Y239.286311 Z-0.125000
G01 X125.235715 Y239.061468 Z-0.125000
G01 X124.806747 Y238.985983 Z-0.125000
G01 X124.603098 Y239.061468 Z-0.125000
G01 X124.378255 Y239.286311 Z-0.125000
G01 X124.302769 Y239.715279 Z-0.125000
G00 Z3.000000

(End cutting path id: polygon3289)


(Start cutting path id: polygon3287)
(Change tool to Default tool)

G00 Z3.000000
G00 X124.308379 Y236.753273

G00 Z4.875000 (Fast pre-penetrate)
G01 Z-0.125000 F400.0(Penetrate)
G01 X124.347431 Y237.252673 Z-0.125000 F800.000000
G01 X124.715889 Y237.567818 Z-0.125000
G01 X125.215290 Y237.528766 Z-0.125000
G01 X125.530434 Y237.160307 Z-0.125000
G01 X125.491382 Y236.660907 Z-0.125000
G01 X125.122924 Y236.345762 Z-0.125000
G01 X124.623523 Y236.384814 Z-0.125000
G01 X124.308379 Y236.753273 Z-0.125000
G00 Z3.000000

(End cutting path id: polygon3287)


(Start cutting path id: polygon3285)
(Change tool to Default tool)

G00 Z3.000000
G00 X124.705174 Y234.954241

G00 Z4.875000 (Fast pre-penetrate)
G01 Z-0.125000 F400.0(Penetrate)
G01 X124.919407 Y234.988795 Z-0.125000 F800.000000
G01 X125.133639 Y234.954241 Z-0.125000
G01 X125.398699 Y234.790252 Z-0.125000
G01 X125.562687 Y234.525193 Z-0.125000
G01 X125.597242 Y234.310960 Z-0.125000
G01 X125.562687 Y234.096727 Z-0.125000
G01 X125.398699 Y233.831668 Z-0.125000
G01 X125.133639 Y233.667679 Z-0.125000
G01 X124.919407 Y233.633125 Z-0.125000
G01 X124.705174 Y233.667679 Z-0.125000
G01 X124.440114 Y233.831668 Z-0.125000
G01 X124.276126 Y234.096727 Z-0.125000
G01 X124.241571 Y234.310960 Z-0.125000
G01 X124.276126 Y234.525193 Z-0.125000
G01 X124.440114 Y234.790252 Z-0.125000
G01 X124.705174 Y234.954241 Z-0.125000
G00 Z3.000000

(End cutting path id: polygon3285)


(Start cutting path id: polygon3051)
(Change tool to Default tool)

G00 Z3.000000
G00 X122.749006 Y234.857853

G00 Z4.875000 (Fast pre-penetrate)
G01 Z-0.125000 F400.0(Penetrate)
G01 X122.930880 Y234.616448 Z-0.125000 F800.000000
G01 X122.998216 Y234.310960 Z-0.125000
G01 X122.930880 Y234.005472 Z-0.125000
G01 X122.749006 Y233.764067 Z-0.125000
G01 X122.273577 Y233.586320 Z-0.125000
G01 X121.968089 Y233.653656 Z-0.125000
G01 X121.726683 Y233.835531 Z-0.125000
G01 X121.548937 Y234.310960 Z-0.125000
G01 X121.726683 Y234.786389 Z-0.125000
G01 X121.968089 Y234.968264 Z-0.125000
G01 X122.273577 Y235.035600 Z-0.125000
G01 X122.749006 Y234.857853 Z-0.125000
G00 Z3.000000

(End cutting path id: polygon3051)


(Start cutting path id: polygon9779)
(Change tool to Default tool)

G00 Z3.000000
G00 X122.489556 Y236.308297

G00 Z4.875000 (Fast pre-penetrate)
G01 Z-0.125000 F400.0(Penetrate)
G01 X122.273577 Y236.273478 Z-0.125000 F800.000000
G01 X121.959543 Y236.349731 Z-0.125000
G01 X121.625084 Y236.740811 Z-0.125000
G01 X121.590264 Y236.956790 Z-0.125000
G01 X121.666517 Y237.270824 Z-0.125000
G01 X122.057597 Y237.605283 Z-0.125000
G01 X122.273577 Y237.640102 Z-0.125000
G01 X122.587610 Y237.563849 Z-0.125000
G01 X122.922069 Y237.172769 Z-0.125000
G01 X122.956889 Y236.956790 Z-0.125000
G01 X122.880636 Y236.642756 Z-0.125000
G01 X122.489556 Y236.308297 Z-0.125000
G00 Z3.000000

(End cutting path id: polygon9779)


(Start cutting path id: polygon3049)
(Change tool to Default tool)

G00 Z3.000000
G00 X118.921548 Y234.012643

G00 Z4.875000 (Fast pre-penetrate)
G01 Z-0.125000 F400.0(Penetrate)
G01 X118.861329 Y234.310960 Z-0.125000 F800.000000
G01 X118.921548 Y234.609277 Z-0.125000
G01 X119.085801 Y234.852905 Z-0.125000
G01 X119.329429 Y235.017158 Z-0.125000
G01 X119.627746 Y235.077378 Z-0.125000
G01 X119.926064 Y235.017158 Z-0.125000
G01 X120.169692 Y234.852905 Z-0.125000
G01 X120.333945 Y234.609277 Z-0.125000
G01 X120.394164 Y234.310960 Z-0.125000
G01 X120.333945 Y234.012643 Z-0.125000
G01 X120.169692 Y233.769015 Z-0.125000
G01 X119.926064 Y233.604762 Z-0.125000
G01 X119.627746 Y233.544542 Z-0.125000
G01 X119.329429 Y233.604762 Z-0.125000
G01 X119.085801 Y233.769015 Z-0.125000
G01 X118.921548 Y234.012643 Z-0.125000
G00 Z3.000000

(End cutting path id: polygon3049)


(Start cutting path id: polygon3007)
(Change tool to Default tool)

G00 Z3.000000
G00 X119.312549 Y232.411228

G00 Z4.875000 (Fast pre-penetrate)
G01 Z-0.125000 F400.0(Penetrate)
G01 X119.627747 Y232.474860 Z-0.125000 F800.000000
G01 X119.942944 Y232.411228 Z-0.125000
G01 X120.200304 Y232.237688 Z-0.125000
G01 X120.373844 Y231.980328 Z-0.125000
G01 X120.437476 Y231.665130 Z-0.125000
G01 X120.373844 Y231.349932 Z-0.125000
G01 X120.200304 Y231.092572 Z-0.125000
G01 X119.942944 Y230.919032 Z-0.125000
G01 X119.627747 Y230.855400 Z-0.125000
G01 X119.312549 Y230.919032 Z-0.125000
G01 X119.055189 Y231.092572 Z-0.125000
G01 X118.881649 Y231.349932 Z-0.125000
G01 X118.818017 Y231.665130 Z-0.125000
G01 X118.881649 Y231.980328 Z-0.125000
G01 X119.055189 Y232.237688 Z-0.125000
G01 X119.312549 Y232.411228 Z-0.125000
G00 Z3.000000

(End cutting path id: polygon3007)


(Start cutting path id: polygon3005)
(Change tool to Default tool)

G00 Z3.000000
G00 X119.229337 Y229.767488

G00 Z4.875000 (Fast pre-penetrate)
G01 Z-0.125000 F400.0(Penetrate)
G01 X119.521437 Y229.860198 Z-0.125000 F800.000000
G01 X119.836423 Y229.840910 Z-0.125000
G01 X120.111933 Y229.714942 Z-0.125000
G01 X120.375934 Y229.417709 Z-0.125000
G01 X120.468644 Y229.125609 Z-0.125000
G01 X120.449356 Y228.810623 Z-0.125000
G01 X120.323388 Y228.535113 Z-0.125000
G01 X120.026156 Y228.271112 Z-0.125000
G01 X119.734056 Y228.178402 Z-0.125000
G01 X119.419070 Y228.197690 Z-0.125000
G01 X119.143560 Y228.323658 Z-0.125000
G01 X118.879559 Y228.620891 Z-0.125000
G01 X118.786849 Y228.912991 Z-0.125000
G01 X118.806137 Y229.227977 Z-0.125000
G01 X118.932105 Y229.503487 Z-0.125000
G01 X119.229337 Y229.767488 Z-0.125000
G00 Z3.000000

(End cutting path id: polygon3005)


(Start cutting path id: polygon3055)
(Change tool to Default tool)

G00 Z3.000000
G00 X121.497660 Y229.233215

G00 Z4.875000 (Fast pre-penetrate)
G01 Z-0.125000 F400.0(Penetrate)
G01 X121.636566 Y229.511001 Z-0.125000 F800.000000
G01 X121.867442 Y229.714095 Z-0.125000
G01 X122.164383 Y229.816621 Z-0.125000
G01 X122.487492 Y229.795216 Z-0.125000
G01 X122.765278 Y229.656310 Z-0.125000
G01 X122.968371 Y229.425435 Z-0.125000
G01 X123.070897 Y229.128493 Z-0.125000
G01 X123.049493 Y228.805385 Z-0.125000
G01 X122.910587 Y228.527599 Z-0.125000
G01 X122.679711 Y228.324505 Z-0.125000
G01 X122.382770 Y228.221979 Z-0.125000
G01 X122.059661 Y228.243384 Z-0.125000
G01 X121.781875 Y228.382290 Z-0.125000
G01 X121.578782 Y228.613165 Z-0.125000
G01 X121.476256 Y228.910107 Z-0.125000
G01 X121.497660 Y229.233215 Z-0.125000
G00 Z3.000000

(End cutting path id: polygon3055)


(Start cutting path id: polygon3053)
(Change tool to Default tool)

G00 Z3.000000
G00 X122.169701 Y230.906676

G00 Z4.875000 (Fast pre-penetrate)
G01 Z-0.125000 F400.0(Penetrate)
G01 X121.887232 Y231.004175 Z-0.125000 F800.000000
G01 X121.667602 Y231.197374 Z-0.125000
G01 X121.535469 Y231.461639 Z-0.125000
G01 X121.515123 Y231.769005 Z-0.125000
G01 X121.612622 Y232.051474 Z-0.125000
G01 X121.805820 Y232.271104 Z-0.125000
G01 X122.070086 Y232.403237 Z-0.125000
G01 X122.377452 Y232.423584 Z-0.125000
G01 X122.659921 Y232.326085 Z-0.125000
G01 X122.879551 Y232.132886 Z-0.125000
G01 X123.011684 Y231.868621 Z-0.125000
G01 X123.032030 Y231.561255 Z-0.125000
G01 X122.934531 Y231.278786 Z-0.125000
G01 X122.741333 Y231.059156 Z-0.125000
G01 X122.477067 Y230.927023 Z-0.125000
G01 X122.169701 Y230.906676 Z-0.125000
G00 Z3.000000

(End cutting path id: polygon3053)


(Start cutting path id: polygon3283)
(Change tool to Default tool)

G00 Z3.000000
G00 X125.603221 Y231.458914

G00 Z4.875000 (Fast pre-penetrate)
G01 Z-0.125000 F400.0(Penetrate)
G01 X125.458309 Y231.196659 Z-0.125000 F800.000000
G01 X125.220423 Y231.017431 Z-0.125000
G01 X124.713191 Y230.981315 Z-0.125000
G01 X124.450936 Y231.126227 Z-0.125000
G01 X124.271707 Y231.364114 Z-0.125000
G01 X124.235592 Y231.871346 Z-0.125000
G01 X124.380504 Y232.133601 Z-0.125000
G01 X124.618390 Y232.312829 Z-0.125000
G01 X125.125622 Y232.348945 Z-0.125000
G01 X125.387877 Y232.204033 Z-0.125000
G01 X125.567106 Y231.966146 Z-0.125000
G01 X125.603221 Y231.458914 Z-0.125000
G00 Z3.000000

(End cutting path id: polygon3283)


(Start cutting path id: polygon3133)
(Change tool to Default tool)

G00 Z3.000000
G00 X127.565236 Y230.966710

G00 Z4.875000 (Fast pre-penetrate)
G01 Z-0.125000 F400.0(Penetrate)
G01 X127.244271 Y231.044656 Z-0.125000 F800.000000
G01 X126.902430 Y231.444362 Z-0.125000
G01 X126.866817 Y231.665130 Z-0.125000
G01 X126.944763 Y231.986096 Z-0.125000
G01 X127.344468 Y232.327937 Z-0.125000
G01 X127.565237 Y232.363550 Z-0.125000
G01 X127.886202 Y232.285604 Z-0.125000
G01 X128.228043 Y231.885898 Z-0.125000
G01 X128.263656 Y231.665130 Z-0.125000
G01 X128.185710 Y231.344164 Z-0.125000
G01 X127.786005 Y231.002323 Z-0.125000
G01 X127.565236 Y230.966710 Z-0.125000
G00 Z3.000000

(End cutting path id: polygon3133)


(Start cutting path id: polygon3103)
(Change tool to Default tool)

G00 Z3.000000
G00 X127.967217 Y229.638609

G00 Z4.875000 (Fast pre-penetrate)
G01 Z-0.125000 F400.0(Penetrate)
G01 X128.184546 Y229.421281 Z-0.125000 F800.000000
G01 X128.295486 Y229.128388 Z-0.125000
G01 X128.184546 Y228.617319 Z-0.125000
G01 X127.967217 Y228.399991 Z-0.125000
G01 X127.674324 Y228.289051 Z-0.125000
G01 X127.163256 Y228.399991 Z-0.125000
G01 X126.945927 Y228.617319 Z-0.125000
G01 X126.834987 Y228.910212 Z-0.125000
G01 X126.945927 Y229.421281 Z-0.125000
G01 X127.163256 Y229.638609 Z-0.125000
G01 X127.456149 Y229.749549 Z-0.125000
G01 X127.967217 Y229.638609 Z-0.125000
G00 Z3.000000

(End cutting path id: polygon3103)


(Start cutting path id: polygon3131)
(Change tool to Default tool)

G00 Z3.000000
G00 X130.606539 Y231.055875

G00 Z4.875000 (Fast pre-penetrate)
G01 Z-0.125000 F400.0(Penetrate)
G01 X130.318381 Y230.946734 Z-0.125000 F800.000000
G01 X129.815594 Y231.055875 Z-0.125000
G01 X129.601811 Y231.269658 Z-0.125000
G01 X129.492671 Y231.557815 Z-0.125000
G01 X129.601811 Y232.060602 Z-0.125000
G01 X129.815594 Y232.274385 Z-0.125000
G01 X130.103752 Y232.383526 Z-0.125000
G01 X130.606539 Y232.274385 Z-0.125000
G01 X130.820322 Y232.060602 Z-0.125000
G01 X130.929462 Y231.772445 Z-0.125000
G01 X130.820322 Y231.269658 Z-0.125000
G01 X130.606539 Y231.055875 Z-0.125000
G00 Z3.000000

(End cutting path id: polygon3131)


(Start cutting path id: polygon3129)
(Change tool to Default tool)

G00 Z3.000000
G00 X132.541037 Y232.344738

G00 Z4.875000 (Fast pre-penetrate)
G01 Z-0.125000 F400.0(Penetrate)
G01 X132.856897 Y232.414376 Z-0.125000 F800.000000
G01 X133.348465 Y232.230597 Z-0.125000
G01 X133.536504 Y231.980989 Z-0.125000
G01 X133.606143 Y231.665130 Z-0.125000
G01 X133.422363 Y231.173561 Z-0.125000
G01 X133.172756 Y230.985522 Z-0.125000
G01 X132.856896 Y230.915884 Z-0.125000
G01 X132.365328 Y231.099663 Z-0.125000
G01 X132.177289 Y231.349271 Z-0.125000
G01 X132.107650 Y231.665130 Z-0.125000
G01 X132.291430 Y232.156699 Z-0.125000
G01 X132.541037 Y232.344738 Z-0.125000
G00 Z3.000000

(End cutting path id: polygon3129)


(Start cutting path id: polygon3139)
(Change tool to Default tool)

G00 Z3.000000
G00 X132.205811 Y234.613564

G00 Z4.875000 (Fast pre-penetrate)
G01 Z-0.125000 F400.0(Penetrate)
G01 X132.385965 Y234.852694 Z-0.125000 F800.000000
G01 X132.649596 Y234.998347 Z-0.125000
G01 X133.159500 Y234.962046 Z-0.125000
G01 X133.398630 Y234.781891 Z-0.125000
G01 X133.544283 Y234.518261 Z-0.125000
G01 X133.507982 Y234.008356 Z-0.125000
G01 X133.327828 Y233.769226 Z-0.125000
G01 X133.064197 Y233.623573 Z-0.125000
G01 X132.554293 Y233.659874 Z-0.125000
G01 X132.315163 Y233.840029 Z-0.125000
G01 X132.169510 Y234.103659 Z-0.125000
G01 X132.205811 Y234.613564 Z-0.125000
G00 Z3.000000

(End cutting path id: polygon3139)


(Start cutting path id: polygon9775)
(Change tool to Default tool)

G00 Z3.000000
G00 X130.423447 Y236.319119

G00 Z4.875000 (Fast pre-penetrate)
G01 Z-0.125000 F400.0(Penetrate)
G01 X130.211067 Y236.284855 Z-0.125000 F800.000000
G01 X129.902272 Y236.359864 Z-0.125000
G01 X129.573395 Y236.744409 Z-0.125000
G01 X129.539132 Y236.956790 Z-0.125000
G01 X129.614141 Y237.265585 Z-0.125000
G01 X129.998686 Y237.594461 Z-0.125000
G01 X130.211067 Y237.628725 Z-0.125000
G01 X130.519861 Y237.553716 Z-0.125000
G01 X130.848738 Y237.169171 Z-0.125000
G01 X130.883001 Y236.956790 Z-0.125000
G01 X130.807992 Y236.647995 Z-0.125000
G01 X130.423447 Y236.319119 Z-0.125000
G00 Z3.000000

(End cutting path id: polygon9775)


(Start cutting path id: polygon3137)
(Change tool to Default tool)

G00 Z3.000000
G00 X129.516457 Y234.310960

G00 Z4.875000 (Fast pre-penetrate)
G01 Z-0.125000 F400.0(Penetrate)
G01 X129.551884 Y234.530511 Z-0.125000 F800.000000
G01 X129.891847 Y234.928020 Z-0.125000
G01 X130.211067 Y235.005570 Z-0.125000
G01 X130.430617 Y234.970142 Z-0.125000
G01 X130.828127 Y234.630179 Z-0.125000
G01 X130.905676 Y234.310960 Z-0.125000
G01 X130.870249 Y234.091409 Z-0.125000
G01 X130.530286 Y233.693900 Z-0.125000
G01 X130.211067 Y233.616350 Z-0.125000
G01 X129.991516 Y233.651778 Z-0.125000
G01 X129.594006 Y233.991741 Z-0.125000
G01 X129.516457 Y234.310960 Z-0.125000
G00 Z3.000000

(End cutting path id: polygon3137)


(Start cutting path id: polygon3135)
(Change tool to Default tool)

G00 Z3.000000
G00 X128.232224 Y234.310960

G00 Z4.875000 (Fast pre-penetrate)
G01 Z-0.125000 F400.0(Penetrate)
G01 X128.036856 Y233.839341 Z-0.125000 F800.000000
G01 X127.565236 Y233.643973 Z-0.125000
G01 X127.093617 Y233.839341 Z-0.125000
G01 X126.898249 Y234.310960 Z-0.125000
G01 X127.093617 Y234.782579 Z-0.125000
G01 X127.565236 Y234.977947 Z-0.125000
G01 X128.036856 Y234.782579 Z-0.125000
G01 X128.232224 Y234.310960 Z-0.125000
G00 Z3.000000

(End cutting path id: polygon3135)


(Start cutting path id: polygon9777)
(Change tool to Default tool)

G00 Z3.000000
G00 X128.134778 Y236.662177

G00 Z4.875000 (Fast pre-penetrate)
G01 Z-0.125000 F400.0(Penetrate)
G01 X127.767881 Y236.348381 Z-0.125000 F800.000000
G01 X127.270623 Y236.387249 Z-0.125000
G01 X126.956828 Y236.754146 Z-0.125000
G01 X126.995695 Y237.251403 Z-0.125000
G01 X127.362592 Y237.565199 Z-0.125000
G01 X127.859850 Y237.526331 Z-0.125000
G01 X128.173645 Y237.159434 Z-0.125000
G01 X128.134778 Y236.662177 Z-0.125000
G00 Z3.000000

(End cutting path id: polygon9777)


(Start cutting path id: polygon3291)
(Change tool to Default tool)

G00 Z3.000000
G00 X128.156923 Y239.382381

G00 Z4.875000 (Fast pre-penetrate)
G01 Z-0.125000 F400.0(Penetrate)
G01 X127.971901 Y239.119888 Z-0.125000 F800.000000
G01 X127.785475 Y239.010933 Z-0.125000
G01 X127.344998 Y239.010933 Z-0.125000
G01 X127.158572 Y239.119888 Z-0.125000
G01 X126.973550 Y239.382381 Z-0.125000
G01 X126.973550 Y239.822859 Z-0.125000
G01 X127.082505 Y240.009284 Z-0.125000
G01 X127.344998 Y240.194307 Z-0.125000
G01 X127.785475 Y240.194307 Z-0.125000
G01 X127.971901 Y240.085352 Z-0.125000
G01 X128.156923 Y239.822859 Z-0.125000
G01 X128.156923 Y239.382381 Z-0.125000
G00 Z3.000000

(End cutting path id: polygon3291)


(Start cutting path id: polygon3293)
(Change tool to Default tool)

G00 Z3.000000
G00 X129.823108 Y239.072475

G00 Z4.875000 (Fast pre-penetrate)
G01 Z-0.125000 F400.0(Penetrate)
G01 X129.562759 Y239.496072 Z-0.125000 F800.000000
G01 X129.680922 Y239.990578 Z-0.125000
G01 X130.104519 Y240.250928 Z-0.125000
G01 X130.599025 Y240.132765 Z-0.125000
G01 X130.859374 Y239.709168 Z-0.125000
G01 X130.741211 Y239.214662 Z-0.125000
G01 X130.317614 Y238.954312 Z-0.125000
G01 X129.823108 Y239.072475 Z-0.125000
G00 Z3.000000

(End cutting path id: polygon3293)


(Start cutting path id: polygon9773)
(Change tool to Default tool)

G00 Z3.000000
G00 X132.445655 Y237.518764

G00 Z4.875000 (Fast pre-penetrate)
G01 Z-0.125000 F400.0(Penetrate)
G01 X132.743946 Y237.643991 Z-0.125000 F800.000000
G01 X132.969847 Y237.643991 Z-0.125000
G01 X133.418871 Y237.368031 Z-0.125000
G01 X133.544098 Y237.069740 Z-0.125000
G01 X133.544098 Y236.843840 Z-0.125000
G01 X133.268138 Y236.394816 Z-0.125000
G01 X132.969847 Y236.269589 Z-0.125000
G01 X132.743946 Y236.269589 Z-0.125000
G01 X132.294922 Y236.545549 Z-0.125000
G01 X132.169695 Y236.843840 Z-0.125000
G01 X132.169695 Y237.069740 Z-0.125000
G01 X132.445655 Y237.518764 Z-0.125000
G00 Z3.000000

(End cutting path id: polygon9773)


(Start cutting path id: polygon3295)
(Change tool to Default tool)

G00 Z3.000000
G00 X132.746777 Y240.272597

G00 Z4.875000 (Fast pre-penetrate)
G01 Z-0.125000 F400.0(Penetrate)
G01 X132.967016 Y240.272597 Z-0.125000 F800.000000
G01 X133.257819 Y240.150518 Z-0.125000
G01 X133.526874 Y239.712739 Z-0.125000
G01 X133.526874 Y239.492501 Z-0.125000
G01 X133.404795 Y239.201697 Z-0.125000
G01 X132.967016 Y238.932643 Z-0.125000
G01 X132.746777 Y238.932643 Z-0.125000
G01 X132.455974 Y239.054722 Z-0.125000
G01 X132.186919 Y239.492501 Z-0.125000
G01 X132.186919 Y239.712739 Z-0.125000
G01 X132.308998 Y240.003543 Z-0.125000
G01 X132.746777 Y240.272597 Z-0.125000
G00 Z3.000000

(End cutting path id: polygon3295)


(Start cutting path id: polygon3297)
(Change tool to Default tool)

G00 Z3.000000
G00 X136.185404 Y239.490410

G00 Z4.875000 (Fast pre-penetrate)
G01 Z-0.125000 F400.0(Penetrate)
G01 X136.060997 Y239.194104 Z-0.125000 F800.000000
G01 X135.614936 Y238.919943 Z-0.125000
G01 X135.390517 Y238.919943 Z-0.125000
G01 X135.094210 Y239.044350 Z-0.125000
G01 X134.820049 Y239.490410 Z-0.125000
G01 X134.820049 Y239.714830 Z-0.125000
G01 X134.944456 Y240.011136 Z-0.125000
G01 X135.390517 Y240.285297 Z-0.125000
G01 X135.614936 Y240.285297 Z-0.125000
G01 X135.911243 Y240.160890 Z-0.125000
G01 X136.185404 Y239.714830 Z-0.125000
G01 X136.185404 Y239.490410 Z-0.125000
G00 Z3.000000

(End cutting path id: polygon3297)


(Start cutting path id: polygon3299)
(Change tool to Default tool)

G00 Z3.000000
G00 X137.752687 Y238.992730

G00 Z4.875000 (Fast pre-penetrate)
G01 Z-0.125000 F400.0(Penetrate)
G01 X137.538666 Y239.206751 Z-0.125000 F800.000000
G01 X137.429420 Y239.710067 Z-0.125000
G01 X137.538666 Y239.998489 Z-0.125000
G01 X137.752687 Y240.212510 Z-0.125000
G01 X138.256004 Y240.321757 Z-0.125000
G01 X138.544426 Y240.212510 Z-0.125000
G01 X138.758447 Y239.998489 Z-0.125000
G01 X138.867693 Y239.495173 Z-0.125000
G01 X138.758447 Y239.206751 Z-0.125000
G01 X138.544426 Y238.992730 Z-0.125000
G01 X138.041109 Y238.883483 Z-0.125000
G01 X137.752687 Y238.992730 Z-0.125000
G00 Z3.000000

(End cutting path id: polygon3299)


(Start cutting path id: polygon3301)
(Change tool to Default tool)

G00 Z3.000000
G00 X140.093691 Y239.193046

G00 Z4.875000 (Fast pre-penetrate)
G01 Z-0.125000 F400.0(Penetrate)
G01 X139.990319 Y239.492501 Z-0.125000 F800.000000
G01 X140.011882 Y239.818335 Z-0.125000
G01 X140.151979 Y240.098501 Z-0.125000
G01 X140.384812 Y240.303315 Z-0.125000
G01 X140.684267 Y240.406688 Z-0.125000
G01 X141.010101 Y240.385124 Z-0.125000
G01 X141.290268 Y240.245028 Z-0.125000
G01 X141.495082 Y240.012194 Z-0.125000
G01 X141.598454 Y239.712739 Z-0.125000
G01 X141.576891 Y239.386905 Z-0.125000
G01 X141.436794 Y239.106739 Z-0.125000
G01 X141.203961 Y238.901925 Z-0.125000
G01 X140.904506 Y238.798552 Z-0.125000
G01 X140.578672 Y238.820116 Z-0.125000
G01 X140.298505 Y238.960212 Z-0.125000
G01 X140.093691 Y239.193046 Z-0.125000
G00 Z3.000000

(End cutting path id: polygon3301)


(Start cutting path id: polygon9767)
(Change tool to Default tool)

G00 Z3.000000
G00 X140.301918 Y236.318801

G00 Z4.875000 (Fast pre-penetrate)
G01 Z-0.125000 F400.0(Penetrate)
G01 X140.098507 Y236.550020 Z-0.125000 F800.000000
G01 X139.995822 Y236.847438 Z-0.125000
G01 X140.017253 Y237.171049 Z-0.125000
G01 X140.156398 Y237.449258 Z-0.125000
G01 X140.387617 Y237.652670 Z-0.125000
G01 X140.685034 Y237.755354 Z-0.125000
G01 X141.008646 Y237.733923 Z-0.125000
G01 X141.286855 Y237.594779 Z-0.125000
G01 X141.490266 Y237.363560 Z-0.125000
G01 X141.592951 Y237.066142 Z-0.125000
G01 X141.571520 Y236.742531 Z-0.125000
G01 X141.432375 Y236.464322 Z-0.125000
G01 X141.201156 Y236.260910 Z-0.125000
G01 X140.903739 Y236.158226 Z-0.125000
G01 X140.580127 Y236.179657 Z-0.125000
G01 X140.301918 Y236.318801 Z-0.125000
G00 Z3.000000

(End cutting path id: polygon9767)


(Start cutting path id: polygon3145)
(Change tool to Default tool)

G00 Z3.000000
G00 X139.984630 Y234.516620

G00 Z4.875000 (Fast pre-penetrate)
G01 Z-0.125000 F400.0(Penetrate)
G01 X140.108773 Y234.788162 Z-0.125000 F800.000000
G01 X140.401719 Y235.048353 Z-0.125000
G01 X140.689612 Y235.139713 Z-0.125000
G01 X141.000047 Y235.120716 Z-0.125000
G01 X141.271588 Y234.996574 Z-0.125000
G01 X141.531779 Y234.703628 Z-0.125000
G01 X141.623140 Y234.415735 Z-0.125000
G01 X141.604143 Y234.105300 Z-0.125000
G01 X141.480000 Y233.833758 Z-0.125000
G01 X141.187054 Y233.573567 Z-0.125000
G01 X140.899161 Y233.482207 Z-0.125000
G01 X140.588726 Y233.501204 Z-0.125000
G01 X140.317185 Y233.625346 Z-0.125000
G01 X140.056994 Y233.918292 Z-0.125000
G01 X139.965633 Y234.206185 Z-0.125000
G01 X139.984630 Y234.516620 Z-0.125000
G00 Z3.000000

(End cutting path id: polygon3145)


(Start cutting path id: polygon3143)
(Change tool to Default tool)

G00 Z3.000000
G00 X138.648513 Y234.886084

G00 Z4.875000 (Fast pre-penetrate)
G01 Z-0.125000 F400.0(Penetrate)
G01 X138.839753 Y234.632217 Z-0.125000 F800.000000
G01 X138.910582 Y234.310960 Z-0.125000
G01 X138.839753 Y233.989703 Z-0.125000
G01 X138.648513 Y233.735836 Z-0.125000
G01 X138.148557 Y233.548935 Z-0.125000
G01 X137.648600 Y233.735836 Z-0.125000
G01 X137.457360 Y233.989703 Z-0.125000
G01 X137.386531 Y234.310960 Z-0.125000
G01 X137.457360 Y234.632217 Z-0.125000
G01 X137.648600 Y234.886084 Z-0.125000
G01 X138.148557 Y235.072985 Z-0.125000
G01 X138.648513 Y234.886084 Z-0.125000
G00 Z3.000000

(End cutting path id: polygon3143)


(Start cutting path id: polygon9769)
(Change tool to Default tool)

G00 Z3.000000
G00 X137.602881 Y236.482446

G00 Z4.875000 (Fast pre-penetrate)
G01 Z-0.125000 F400.0(Penetrate)
G01 X137.456169 Y236.747981 Z-0.125000 F800.000000
G01 X137.492735 Y237.261590 Z-0.125000
G01 X137.674212 Y237.502466 Z-0.125000
G01 X137.939748 Y237.649177 Z-0.125000
G01 X138.453356 Y237.612612 Z-0.125000
G01 X138.694232 Y237.431134 Z-0.125000
G01 X138.840944 Y237.165599 Z-0.125000
G01 X138.804378 Y236.651990 Z-0.125000
G01 X138.622901 Y236.411114 Z-0.125000
G01 X138.357365 Y236.264403 Z-0.125000
G01 X137.843757 Y236.300968 Z-0.125000
G01 X137.602881 Y236.482446 Z-0.125000
G00 Z3.000000

(End cutting path id: polygon9769)


(Start cutting path id: polygon9771)
(Change tool to Default tool)

G00 Z3.000000
G00 X136.124444 Y237.278391

G00 Z4.875000 (Fast pre-penetrate)
G01 Z-0.125000 F400.0(Penetrate)
G01 X136.202549 Y236.956790 Z-0.125000 F800.000000
G01 X136.166883 Y236.735599 Z-0.125000
G01 X135.824327 Y236.335073 Z-0.125000
G01 X135.502726 Y236.256968 Z-0.125000
G01 X135.281535 Y236.292634 Z-0.125000
G01 X134.881009 Y236.635189 Z-0.125000
G01 X134.802904 Y236.956790 Z-0.125000
G01 X134.838570 Y237.177981 Z-0.125000
G01 X135.181126 Y237.578507 Z-0.125000
G01 X135.502726 Y237.656612 Z-0.125000
G01 X135.723918 Y237.620946 Z-0.125000
G01 X136.124444 Y237.278391 Z-0.125000
G00 Z3.000000

(End cutting path id: polygon9771)


(Start cutting path id: polygon3141)
(Change tool to Default tool)

G00 Z3.000000
G00 X135.195016 Y233.648868

G00 Z4.875000 (Fast pre-penetrate)
G01 Z-0.125000 F400.0(Penetrate)
G01 X134.951838 Y233.832065 Z-0.125000 F800.000000
G01 X134.803698 Y234.100140 Z-0.125000
G01 X134.840634 Y234.618670 Z-0.125000
G01 X135.023831 Y234.861848 Z-0.125000
G01 X135.291907 Y235.009988 Z-0.125000
G01 X135.810437 Y234.973052 Z-0.125000
G01 X136.053615 Y234.789855 Z-0.125000
G01 X136.201755 Y234.521780 Z-0.125000
G01 X136.164819 Y234.003250 Z-0.125000
G01 X135.981622 Y233.760072 Z-0.125000
G01 X135.713546 Y233.611932 Z-0.125000
G01 X135.195016 Y233.648868 Z-0.125000
G00 Z3.000000

(End cutting path id: polygon3141)


(Start cutting path id: polygon3127)
(Change tool to Default tool)

G00 Z3.000000
G00 X136.114363 Y232.137252

G00 Z4.875000 (Fast pre-penetrate)
G01 Z-0.125000 F400.0(Penetrate)
G01 X136.247739 Y231.870526 Z-0.125000 F800.000000
G01 X136.268297 Y231.560302 Z-0.125000
G01 X136.169873 Y231.275161 Z-0.125000
G01 X135.974848 Y231.053493 Z-0.125000
G01 X135.708122 Y230.920117 Z-0.125000
G01 X135.397899 Y230.899559 Z-0.125000
G01 X135.112758 Y230.997984 Z-0.125000
G01 X134.891090 Y231.193008 Z-0.125000
G01 X134.757714 Y231.459734 Z-0.125000
G01 X134.737156 Y231.769958 Z-0.125000
G01 X134.835580 Y232.055099 Z-0.125000
G01 X135.030605 Y232.276767 Z-0.125000
G01 X135.297331 Y232.410143 Z-0.125000
G01 X135.607554 Y232.430701 Z-0.125000
G01 X135.892695 Y232.332276 Z-0.125000
G01 X136.114363 Y232.137252 Z-0.125000
G00 Z3.000000

(End cutting path id: polygon3127)


(Start cutting path id: polygon3125)
(Change tool to Default tool)

G00 Z3.000000
G00 X138.037829 Y230.856485

G00 Z4.875000 (Fast pre-penetrate)
G01 Z-0.125000 F400.0(Penetrate)
G01 X137.736654 Y230.960440 Z-0.125000 F800.000000
G01 X137.502498 Y231.166444 Z-0.125000
G01 X137.361607 Y231.448172 Z-0.125000
G01 X137.339911 Y231.775858 Z-0.125000
G01 X137.443866 Y232.077033 Z-0.125000
G01 X137.649870 Y232.311189 Z-0.125000
G01 X137.931598 Y232.452079 Z-0.125000
G01 X138.259284 Y232.473775 Z-0.125000
G01 X138.560459 Y232.369820 Z-0.125000
G01 X138.794615 Y232.163816 Z-0.125000
G01 X138.935506 Y231.882088 Z-0.125000
G01 X138.957202 Y231.554402 Z-0.125000
G01 X138.853247 Y231.253227 Z-0.125000
G01 X138.647243 Y231.019071 Z-0.125000
G01 X138.365515 Y230.878181 Z-0.125000
G01 X138.037829 Y230.856485 Z-0.125000
G00 Z3.000000

(End cutting path id: polygon3125)


(Start cutting path id: polygon3111)
(Change tool to Default tool)

G00 Z3.000000
G00 X138.926774 Y229.320872

G00 Z4.875000 (Fast pre-penetrate)
G01 Z-0.125000 F400.0(Penetrate)
G01 X138.982945 Y229.019300 Z-0.125000 F800.000000
G01 X138.926774 Y228.717728 Z-0.125000
G01 X138.772364 Y228.465157 Z-0.125000
G01 X138.450128 Y228.241082 Z-0.125000
G01 X138.148556 Y228.184911 Z-0.125000
G01 X137.846985 Y228.241082 Z-0.125000
G01 X137.594414 Y228.395493 Z-0.125000
G01 X137.370339 Y228.717728 Z-0.125000
G01 X137.314168 Y229.019300 Z-0.125000
G01 X137.370339 Y229.320872 Z-0.125000
G01 X137.524749 Y229.573443 Z-0.125000
G01 X137.846985 Y229.797518 Z-0.125000
G01 X138.148556 Y229.853689 Z-0.125000
G01 X138.450128 Y229.797518 Z-0.125000
G01 X138.702699 Y229.643107 Z-0.125000
G01 X138.926774 Y229.320872 Z-0.125000
G00 Z3.000000

(End cutting path id: polygon3111)


(Start cutting path id: polygon3113)
(Change tool to Default tool)

G00 Z3.000000
G00 X140.475987 Y229.840963

G00 Z4.875000 (Fast pre-penetrate)
G01 Z-0.125000 F400.0(Penetrate)
G01 X140.794387 Y229.900256 Z-0.125000 F800.000000
G01 X141.112786 Y229.840963 Z-0.125000
G01 X141.379459 Y229.677926 Z-0.125000
G01 X141.616049 Y229.337699 Z-0.125000
G01 X141.675342 Y229.019300 Z-0.125000
G01 X141.616049 Y228.700901 Z-0.125000
G01 X141.453013 Y228.434228 Z-0.125000
G01 X141.112786 Y228.197637 Z-0.125000
G01 X140.794386 Y228.138344 Z-0.125000
G01 X140.475987 Y228.197637 Z-0.125000
G01 X140.209314 Y228.360674 Z-0.125000
G01 X139.972724 Y228.700901 Z-0.125000
G01 X139.913431 Y229.019300 Z-0.125000
G01 X139.972724 Y229.337699 Z-0.125000
G01 X140.135760 Y229.604372 Z-0.125000
G01 X140.475987 Y229.840963 Z-0.125000
G00 Z3.000000

(End cutting path id: polygon3113)


(Start cutting path id: polygon3115)
(Change tool to Default tool)

G00 Z3.000000
G00 X142.526373 Y228.912012

G00 Z4.875000 (Fast pre-penetrate)
G01 Z-0.125000 F400.0(Penetrate)
G01 X142.544471 Y229.230252 Z-0.125000 F800.000000
G01 X142.663427 Y229.512536 Z-0.125000
G01 X142.946981 Y229.796089 Z-0.125000
G01 X143.332928 Y229.933143 Z-0.125000
G01 X143.651169 Y229.915046 Z-0.125000
G01 X143.933452 Y229.796089 Z-0.125000
G01 X144.217006 Y229.512536 Z-0.125000
G01 X144.354060 Y229.126588 Z-0.125000
G01 X144.335962 Y228.808348 Z-0.125000
G01 X144.217006 Y228.526064 Z-0.125000
G01 X143.933452 Y228.242511 Z-0.125000
G01 X143.547505 Y228.105457 Z-0.125000
G01 X143.229264 Y228.123554 Z-0.125000
G01 X142.946981 Y228.242511 Z-0.125000
G01 X142.663427 Y228.526064 Z-0.125000
G01 X142.526373 Y228.912012 Z-0.125000
G00 Z3.000000

(End cutting path id: polygon3115)


(Start cutting path id: polygon3193)
(Change tool to Default tool)

G00 Z3.000000
G00 X144.252645 Y226.688297

G00 Z4.875000 (Fast pre-penetrate)
G01 Z-0.125000 F400.0(Penetrate)
G01 X144.311277 Y226.373470 Z-0.125000 F800.000000
G01 X144.252645 Y226.058643 Z-0.125000
G01 X144.018727 Y225.722252 Z-0.125000
G01 X143.755044 Y225.561041 Z-0.125000
G01 X143.440217 Y225.502410 Z-0.125000
G01 X143.125389 Y225.561041 Z-0.125000
G01 X142.788998 Y225.794959 Z-0.125000
G01 X142.627788 Y226.058643 Z-0.125000
G01 X142.569156 Y226.373470 Z-0.125000
G01 X142.627788 Y226.688297 Z-0.125000
G01 X142.861706 Y227.024688 Z-0.125000
G01 X143.125389 Y227.185899 Z-0.125000
G01 X143.440217 Y227.244530 Z-0.125000
G01 X143.755044 Y227.185899 Z-0.125000
G01 X144.091435 Y226.951981 Z-0.125000
G01 X144.252645 Y226.688297 Z-0.125000
G00 Z3.000000

(End cutting path id: polygon3193)


(Start cutting path id: polygon3159)
(Change tool to Default tool)

G00 Z3.000000
G00 X145.588736 Y225.658964

G00 Z4.875000 (Fast pre-penetrate)
G01 Z-0.125000 F400.0(Penetrate)
G01 X145.317592 Y225.964266 Z-0.125000 F800.000000
G01 X145.222368 Y226.264277 Z-0.125000
G01 X145.242185 Y226.587809 Z-0.125000
G01 X145.371540 Y226.870780 Z-0.125000
G01 X145.676842 Y227.141925 Z-0.125000
G01 X145.976853 Y227.237148 Z-0.125000
G01 X146.300385 Y227.217331 Z-0.125000
G01 X146.583357 Y227.087976 Z-0.125000
G01 X146.854501 Y226.782674 Z-0.125000
G01 X146.949725 Y226.482663 Z-0.125000
G01 X146.929908 Y226.159131 Z-0.125000
G01 X146.800553 Y225.876160 Z-0.125000
G01 X146.495251 Y225.605015 Z-0.125000
G01 X146.195240 Y225.509792 Z-0.125000
G01 X145.871708 Y225.529609 Z-0.125000
G01 X145.588736 Y225.658964 Z-0.125000
G00 Z3.000000

(End cutting path id: polygon3159)


(Start cutting path id: polygon3161)
(Change tool to Default tool)

G00 Z3.000000
G00 X146.863735 Y224.029000

G00 Z4.875000 (Fast pre-penetrate)
G01 Z-0.125000 F400.0(Penetrate)
G01 X146.919853 Y223.727640 Z-0.125000 F800.000000
G01 X146.863735 Y223.426280 Z-0.125000
G01 X146.709431 Y223.173868 Z-0.125000
G01 X146.387407 Y222.949951 Z-0.125000
G01 X146.086047 Y222.893833 Z-0.125000
G01 X145.784686 Y222.949951 Z-0.125000
G01 X145.532274 Y223.104256 Z-0.125000
G01 X145.308358 Y223.426280 Z-0.125000
G01 X145.252240 Y223.727640 Z-0.125000
G01 X145.308358 Y224.029000 Z-0.125000
G01 X145.462662 Y224.281412 Z-0.125000
G01 X145.784686 Y224.505329 Z-0.125000
G01 X146.086047 Y224.561447 Z-0.125000
G01 X146.387407 Y224.505329 Z-0.125000
G01 X146.639819 Y224.351024 Z-0.125000
G01 X146.863735 Y224.029000 Z-0.125000
G00 Z3.000000

(End cutting path id: polygon3161)


(Start cutting path id: polygon3163)
(Change tool to Default tool)

G00 Z3.000000
G00 X148.429987 Y224.506705

G00 Z4.875000 (Fast pre-penetrate)
G01 Z-0.125000 F400.0(Penetrate)
G01 X148.731876 Y224.562929 Z-0.125000 F800.000000
G01 X149.033766 Y224.506705 Z-0.125000
G01 X149.356345 Y224.282391 Z-0.125000
G01 X149.510941 Y224.029529 Z-0.125000
G01 X149.567165 Y223.727640 Z-0.125000
G01 X149.510941 Y223.425751 Z-0.125000
G01 X149.286628 Y223.103171 Z-0.125000
G01 X149.033766 Y222.948575 Z-0.125000
G01 X148.731876 Y222.892351 Z-0.125000
G01 X148.429987 Y222.948575 Z-0.125000
G01 X148.107408 Y223.172889 Z-0.125000
G01 X147.952812 Y223.425751 Z-0.125000
G01 X147.896588 Y223.727640 Z-0.125000
G01 X147.952812 Y224.029529 Z-0.125000
G01 X148.177125 Y224.352109 Z-0.125000
G01 X148.429987 Y224.506705 Z-0.125000
G00 Z3.000000

(End cutting path id: polygon3163)


(Start cutting path id: polygon3337)
(Change tool to Default tool)

G00 Z3.000000
G00 X150.619941 Y224.047759

G00 Z4.875000 (Fast pre-penetrate)
G01 Z-0.125000 F400.0(Penetrate)
G01 X150.796206 Y224.309141 Z-0.125000 F800.000000
G01 X151.057588 Y224.485406 Z-0.125000
G01 X151.377706 Y224.550017 Z-0.125000
G01 X151.697825 Y224.485406 Z-0.125000
G01 X151.959207 Y224.309141 Z-0.125000
G01 X152.135472 Y224.047759 Z-0.125000
G01 X152.200083 Y223.727640 Z-0.125000
G01 X152.135472 Y223.407521 Z-0.125000
G01 X151.959207 Y223.146139 Z-0.125000
G01 X151.697825 Y222.969874 Z-0.125000
G01 X151.377706 Y222.905263 Z-0.125000
G01 X151.057588 Y222.969874 Z-0.125000
G01 X150.796206 Y223.146139 Z-0.125000
G01 X150.619941 Y223.407521 Z-0.125000
G01 X150.555330 Y223.727640 Z-0.125000
G01 X150.619941 Y224.047759 Z-0.125000
G00 Z3.000000

(End cutting path id: polygon3337)


(Start cutting path id: polygon3363)
(Change tool to Default tool)

G00 Z3.000000
G00 X153.363296 Y224.113561

G00 Z4.875000 (Fast pre-penetrate)
G01 Z-0.125000 F400.0(Penetrate)
G01 X153.556283 Y224.332953 Z-0.125000 F800.000000
G01 X153.820257 Y224.464980 Z-0.125000
G01 X154.127306 Y224.485300 Z-0.125000
G01 X154.409457 Y224.387880 Z-0.125000
G01 X154.628849 Y224.194894 Z-0.125000
G01 X154.760876 Y223.930919 Z-0.125000
G01 X154.781196 Y223.623871 Z-0.125000
G01 X154.683777 Y223.341719 Z-0.125000
G01 X154.490790 Y223.122327 Z-0.125000
G01 X154.226816 Y222.990300 Z-0.125000
G01 X153.919767 Y222.969980 Z-0.125000
G01 X153.637616 Y223.067400 Z-0.125000
G01 X153.418224 Y223.260386 Z-0.125000
G01 X153.286197 Y223.524361 Z-0.125000
G01 X153.265877 Y223.831409 Z-0.125000
G01 X153.363296 Y224.113561 Z-0.125000
G00 Z3.000000

(End cutting path id: polygon3363)


(Start cutting path id: polygon3361)
(Change tool to Default tool)

G00 Z3.000000
G00 X153.551044 Y221.625343

G00 Z4.875000 (Fast pre-penetrate)
G01 Z-0.125000 F400.0(Penetrate)
G01 X153.815548 Y221.771499 Z-0.125000 F800.000000
G01 X154.327145 Y221.735039 Z-0.125000
G01 X154.567069 Y221.554302 Z-0.125000
G01 X154.713225 Y221.289799 Z-0.125000
G01 X154.676765 Y220.778201 Z-0.125000
G01 X154.496029 Y220.538277 Z-0.125000
G01 X154.231525 Y220.392121 Z-0.125000
G01 X153.719928 Y220.428581 Z-0.125000
G01 X153.480004 Y220.609318 Z-0.125000
G01 X153.333848 Y220.873821 Z-0.125000
G01 X153.370308 Y221.385419 Z-0.125000
G01 X153.551044 Y221.625343 Z-0.125000
G00 Z3.000000

(End cutting path id: polygon3361)


(Start cutting path id: polygon3407)
(Change tool to Default tool)

G00 Z3.000000
G00 X156.210156 Y221.541020

G00 Z4.875000 (Fast pre-penetrate)
G01 Z-0.125000 F400.0(Penetrate)
G01 X156.669366 Y221.731229 Z-0.125000 F800.000000
G01 X157.128577 Y221.541020 Z-0.125000
G01 X157.318785 Y221.081810 Z-0.125000
G01 X157.128577 Y220.622600 Z-0.125000
G01 X156.669366 Y220.432391 Z-0.125000
G01 X156.210156 Y220.622600 Z-0.125000
G01 X156.019948 Y221.081810 Z-0.125000
G01 X156.210156 Y221.541020 Z-0.125000
G00 Z3.000000

(End cutting path id: polygon3407)


(Start cutting path id: polygon3405)
(Change tool to Default tool)

G00 Z3.000000
G00 X156.027726 Y224.025851

G00 Z4.875000 (Fast pre-penetrate)
G01 Z-0.125000 F400.0(Penetrate)
G01 X156.205261 Y224.261516 Z-0.125000 F800.000000
G01 X156.465056 Y224.405078 Z-0.125000
G01 X156.967578 Y224.369280 Z-0.125000
G01 X157.203242 Y224.191745 Z-0.125000
G01 X157.346805 Y223.931951 Z-0.125000
G01 X157.311007 Y223.429429 Z-0.125000
G01 X157.133472 Y223.193764 Z-0.125000
G01 X156.873677 Y223.050202 Z-0.125000
G01 X156.371155 Y223.086000 Z-0.125000
G01 X156.135491 Y223.263535 Z-0.125000
G01 X155.991928 Y223.523329 Z-0.125000
G01 X156.027726 Y224.025851 Z-0.125000
G00 Z3.000000

(End cutting path id: polygon3405)


(Start cutting path id: polygon3403)
(Change tool to Default tool)

G00 Z3.000000
G00 X156.195366 Y225.759399

G00 Z4.875000 (Fast pre-penetrate)
G01 Z-0.125000 F400.0(Penetrate)
G01 X155.999575 Y225.981967 Z-0.125000 F800.000000
G01 X155.900753 Y226.268219 Z-0.125000
G01 X155.921390 Y226.579686 Z-0.125000
G01 X156.055296 Y226.847470 Z-0.125000
G01 X156.277863 Y227.043262 Z-0.125000
G01 X156.564115 Y227.142084 Z-0.125000
G01 X156.875582 Y227.121446 Z-0.125000
G01 X157.143367 Y226.987541 Z-0.125000
G01 X157.339158 Y226.764973 Z-0.125000
G01 X157.437980 Y226.478721 Z-0.125000
G01 X157.417343 Y226.167254 Z-0.125000
G01 X157.283437 Y225.899470 Z-0.125000
G01 X157.060870 Y225.703678 Z-0.125000
G01 X156.774618 Y225.604856 Z-0.125000
G01 X156.463151 Y225.625494 Z-0.125000
G01 X156.195366 Y225.759399 Z-0.125000
G00 Z3.000000

(End cutting path id: polygon3403)


(Start cutting path id: polygon3365)
(Change tool to Default tool)

G00 Z3.000000
G00 X153.706593 Y227.123722

G00 Z4.875000 (Fast pre-penetrate)
G01 Z-0.125000 F400.0(Penetrate)
G01 X154.023537 Y227.187698 Z-0.125000 F800.000000
G01 X154.340480 Y227.123722 Z-0.125000
G01 X154.599296 Y226.949229 Z-0.125000
G01 X154.773788 Y226.690414 Z-0.125000
G01 X154.837764 Y226.373470 Z-0.125000
G01 X154.773788 Y226.056526 Z-0.125000
G01 X154.599296 Y225.797711 Z-0.125000
G01 X154.340480 Y225.623218 Z-0.125000
G01 X154.023537 Y225.559242 Z-0.125000
G01 X153.706593 Y225.623218 Z-0.125000
G01 X153.447777 Y225.797711 Z-0.125000
G01 X153.273285 Y226.056526 Z-0.125000
G01 X153.209309 Y226.373470 Z-0.125000
G01 X153.273285 Y226.690414 Z-0.125000
G01 X153.447777 Y226.949229 Z-0.125000
G01 X153.706593 Y227.123722 Z-0.125000
G00 Z3.000000

(End cutting path id: polygon3365)


(Start cutting path id: polygon3335)
(Change tool to Default tool)

G00 Z3.000000
G00 X151.866815 Y227.076176

G00 Z4.875000 (Fast pre-penetrate)
G01 Z-0.125000 F400.0(Penetrate)
G01 X152.133488 Y226.775927 Z-0.125000 F800.000000
G01 X152.227124 Y226.480864 Z-0.125000
G01 X152.207650 Y226.162677 Z-0.125000
G01 X152.080412 Y225.884362 Z-0.125000
G01 X151.780164 Y225.617689 Z-0.125000
G01 X151.485101 Y225.524053 Z-0.125000
G01 X151.166913 Y225.543526 Z-0.125000
G01 X150.888598 Y225.670764 Z-0.125000
G01 X150.621925 Y225.971013 Z-0.125000
G01 X150.528289 Y226.266076 Z-0.125000
G01 X150.547763 Y226.584263 Z-0.125000
G01 X150.675001 Y226.862578 Z-0.125000
G01 X150.975249 Y227.129251 Z-0.125000
G01 X151.270312 Y227.222887 Z-0.125000
G01 X151.588500 Y227.203414 Z-0.125000
G01 X151.866815 Y227.076176 Z-0.125000
G00 Z3.000000

(End cutting path id: polygon3335)


(Start cutting path id: polygon3333)
(Change tool to Default tool)

G00 Z3.000000
G00 X151.159187 Y228.158929

G00 Z4.875000 (Fast pre-penetrate)
G01 Z-0.125000 F400.0(Penetrate)
G01 X150.870660 Y228.290824 Z-0.125000 F800.000000
G01 X150.594197 Y228.602079 Z-0.125000
G01 X150.497148 Y228.907963 Z-0.125000
G01 X150.517336 Y229.237819 Z-0.125000
G01 X150.649230 Y229.526347 Z-0.125000
G01 X150.960486 Y229.802810 Z-0.125000
G01 X151.266370 Y229.899859 Z-0.125000
G01 X151.596226 Y229.879671 Z-0.125000
G01 X151.884753 Y229.747776 Z-0.125000
G01 X152.161216 Y229.436521 Z-0.125000
G01 X152.258265 Y229.130637 Z-0.125000
G01 X152.238077 Y228.800781 Z-0.125000
G01 X152.106183 Y228.512253 Z-0.125000
G01 X151.794927 Y228.235790 Z-0.125000
G01 X151.489043 Y228.138741 Z-0.125000
G01 X151.159187 Y228.158929 Z-0.125000
G00 Z3.000000

(End cutting path id: polygon3333)


(Start cutting path id: polygon3157)
(Change tool to Default tool)

G00 Z3.000000
G00 X149.544173 Y226.688244

G00 Z4.875000 (Fast pre-penetrate)
G01 Z-0.125000 F400.0(Penetrate)
G01 X149.602778 Y226.373470 Z-0.125000 F800.000000
G01 X149.544173 Y226.058696 Z-0.125000
G01 X149.382989 Y225.795065 Z-0.125000
G01 X149.046651 Y225.561174 Z-0.125000
G01 X148.731876 Y225.502569 Z-0.125000
G01 X148.417102 Y225.561174 Z-0.125000
G01 X148.153472 Y225.722358 Z-0.125000
G01 X147.919580 Y226.058696 Z-0.125000
G01 X147.860975 Y226.373470 Z-0.125000
G01 X147.919580 Y226.688244 Z-0.125000
G01 X148.080764 Y226.951875 Z-0.125000
G01 X148.417102 Y227.185766 Z-0.125000
G01 X148.731876 Y227.244371 Z-0.125000
G01 X149.046651 Y227.185766 Z-0.125000
G01 X149.310281 Y227.024582 Z-0.125000
G01 X149.544173 Y226.688244 Z-0.125000
G00 Z3.000000

(End cutting path id: polygon3157)


(Start cutting path id: polygon3155)
(Change tool to Default tool)

G00 Z3.000000
G00 X148.236471 Y229.799529

G00 Z4.875000 (Fast pre-penetrate)
G01 Z-0.125000 F400.0(Penetrate)
G01 X148.519998 Y229.918988 Z-0.125000 F800.000000
G01 X148.839641 Y229.937165 Z-0.125000
G01 X149.227282 Y229.799529 Z-0.125000
G01 X149.512105 Y229.514705 Z-0.125000
G01 X149.631565 Y229.231178 Z-0.125000
G01 X149.649741 Y228.911535 Z-0.125000
G01 X149.512105 Y228.523895 Z-0.125000
G01 X149.227282 Y228.239071 Z-0.125000
G01 X148.943755 Y228.119612 Z-0.125000
G01 X148.624112 Y228.101435 Z-0.125000
G01 X148.236471 Y228.239071 Z-0.125000
G01 X147.951648 Y228.523895 Z-0.125000
G01 X147.832188 Y228.807422 Z-0.125000
G01 X147.814012 Y229.127065 Z-0.125000
G01 X147.951648 Y229.514705 Z-0.125000
G01 X148.236471 Y229.799529 Z-0.125000
G00 Z3.000000

(End cutting path id: polygon3155)


(Start cutting path id: polygon3153)
(Change tool to Default tool)

G00 Z3.000000
G00 X147.770064 Y231.665130

G00 Z4.875000 (Fast pre-penetrate)
G01 Z-0.125000 F400.0(Penetrate)
G01 X147.819092 Y231.969136 Z-0.125000 F800.000000
G01 X148.017846 Y232.309548 Z-0.125000
G01 X148.334632 Y232.541350 Z-0.125000
G01 X148.731876 Y232.626942 Z-0.125000
G01 X149.035882 Y232.577915 Z-0.125000
G01 X149.376295 Y232.379160 Z-0.125000
G01 X149.608096 Y232.062375 Z-0.125000
G01 X149.693689 Y231.665130 Z-0.125000
G01 X149.644661 Y231.361124 Z-0.125000
G01 X149.445907 Y231.020712 Z-0.125000
G01 X149.129121 Y230.788910 Z-0.125000
G01 X148.731876 Y230.703318 Z-0.125000
G01 X148.427871 Y230.752345 Z-0.125000
G01 X148.087458 Y230.951100 Z-0.125000
G01 X147.855657 Y231.267885 Z-0.125000
G01 X147.770064 Y231.665130 Z-0.125000
G00 Z3.000000

(End cutting path id: polygon3153)


(Start cutting path id: polygon3117)
(Change tool to Default tool)

G00 Z3.000000
G00 X146.086047 Y229.959178

G00 Z4.875000 (Fast pre-penetrate)
G01 Z-0.125000 F400.0(Penetrate)
G01 X146.403017 Y229.904383 Z-0.125000 F800.000000
G01 X146.673897 Y229.752698 Z-0.125000
G01 X146.930384 Y229.432632 Z-0.125000
G01 X147.025925 Y229.019300 Z-0.125000
G01 X146.971130 Y228.702330 Z-0.125000
G01 X146.819444 Y228.431449 Z-0.125000
G01 X146.499378 Y228.174963 Z-0.125000
G01 X146.086047 Y228.079422 Z-0.125000
G01 X145.769076 Y228.134217 Z-0.125000
G01 X145.498196 Y228.285902 Z-0.125000
G01 X145.241709 Y228.605968 Z-0.125000
G01 X145.146168 Y229.019300 Z-0.125000
G01 X145.200963 Y229.336270 Z-0.125000
G01 X145.352649 Y229.607151 Z-0.125000
G01 X145.672715 Y229.863637 Z-0.125000
G01 X146.086047 Y229.959178 Z-0.125000
G00 Z3.000000

(End cutting path id: polygon3117)


(Start cutting path id: polygon3119)
(Change tool to Default tool)

G00 Z3.000000
G00 X145.435358 Y232.386092

G00 Z4.875000 (Fast pre-penetrate)
G01 Z-0.125000 F400.0(Penetrate)
G01 X145.779077 Y232.586778 Z-0.125000 F800.000000
G01 X146.086047 Y232.636282 Z-0.125000
G01 X146.487154 Y232.549843 Z-0.125000
G01 X146.807009 Y232.315819 Z-0.125000
G01 X147.007695 Y231.972099 Z-0.125000
G01 X147.057198 Y231.665130 Z-0.125000
G01 X146.970759 Y231.264022 Z-0.125000
G01 X146.736735 Y230.944168 Z-0.125000
G01 X146.393016 Y230.743482 Z-0.125000
G01 X146.086047 Y230.693978 Z-0.125000
G01 X145.684939 Y230.780417 Z-0.125000
G01 X145.365084 Y231.014441 Z-0.125000
G01 X145.164398 Y231.358161 Z-0.125000
G01 X145.114895 Y231.665130 Z-0.125000
G01 X145.201334 Y232.066238 Z-0.125000
G01 X145.435358 Y232.386092 Z-0.125000
G00 Z3.000000

(End cutting path id: polygon3119)


(Start cutting path id: polygon3121)
(Change tool to Default tool)

G00 Z3.000000
G00 X143.851352 Y232.504969

G00 Z4.875000 (Fast pre-penetrate)
G01 Z-0.125000 F400.0(Penetrate)
G01 X144.169698 Y232.249858 Z-0.125000 F800.000000
G01 X144.350408 Y231.879495 Z-0.125000
G01 X144.368797 Y231.556095 Z-0.125000
G01 X144.280056 Y231.253994 Z-0.125000
G01 X144.024945 Y230.935648 Z-0.125000
G01 X143.654582 Y230.754938 Z-0.125000
G01 X143.331182 Y230.736550 Z-0.125000
G01 X143.029081 Y230.825291 Z-0.125000
G01 X142.710735 Y231.080402 Z-0.125000
G01 X142.530025 Y231.450765 Z-0.125000
G01 X142.511636 Y231.774165 Z-0.125000
G01 X142.600377 Y232.076266 Z-0.125000
G01 X142.855488 Y232.394612 Z-0.125000
G01 X143.225851 Y232.575322 Z-0.125000
G01 X143.549251 Y232.593710 Z-0.125000
G01 X143.851352 Y232.504969 Z-0.125000
G00 Z3.000000

(End cutting path id: polygon3121)


(Start cutting path id: polygon3147)
(Change tool to Default tool)

G00 Z3.000000
G00 X144.271086 Y234.717703

G00 Z4.875000 (Fast pre-penetrate)
G01 Z-0.125000 F400.0(Penetrate)
G01 X144.358875 Y234.418830 Z-0.125000 F800.000000
G01 X144.340672 Y234.098897 Z-0.125000
G01 X144.161920 Y233.732502 Z-0.125000
G01 X143.846960 Y233.480090 Z-0.125000
G01 X143.548087 Y233.392301 Z-0.125000
G01 X143.228153 Y233.410505 Z-0.125000
G01 X142.861759 Y233.589257 Z-0.125000
G01 X142.609347 Y233.904217 Z-0.125000
G01 X142.521558 Y234.203090 Z-0.125000
G01 X142.539761 Y234.523023 Z-0.125000
G01 X142.718513 Y234.889418 Z-0.125000
G01 X143.033473 Y235.141830 Z-0.125000
G01 X143.332346 Y235.229619 Z-0.125000
G01 X143.652280 Y235.211415 Z-0.125000
G01 X144.018674 Y235.032663 Z-0.125000
G01 X144.271086 Y234.717703 Z-0.125000
G00 Z3.000000

(End cutting path id: polygon3147)


(Start cutting path id: polygon3149)
(Change tool to Default tool)

G00 Z3.000000
G00 X145.292906 Y234.891376

G00 Z4.875000 (Fast pre-penetrate)
G01 Z-0.125000 F400.0(Penetrate)
G01 X145.590033 Y235.159557 Z-0.125000 F800.000000
G01 X145.978970 Y235.287959 Z-0.125000
G01 X146.296866 Y235.271052 Z-0.125000
G01 X146.666462 Y235.104100 Z-0.125000
G01 X146.934644 Y234.806974 Z-0.125000
G01 X147.063046 Y234.418037 Z-0.125000
G01 X147.046139 Y234.100140 Z-0.125000
G01 X146.879187 Y233.730544 Z-0.125000
G01 X146.582060 Y233.462363 Z-0.125000
G01 X146.193123 Y233.333961 Z-0.125000
G01 X145.875227 Y233.350868 Z-0.125000
G01 X145.505631 Y233.517820 Z-0.125000
G01 X145.237449 Y233.814946 Z-0.125000
G01 X145.109047 Y234.203883 Z-0.125000
G01 X145.125954 Y234.521780 Z-0.125000
G01 X145.292906 Y234.891376 Z-0.125000
G00 Z3.000000

(End cutting path id: polygon3149)


(Start cutting path id: polygon9763)
(Change tool to Default tool)

G00 Z3.000000
G00 X145.498593 Y236.154019

G00 Z4.875000 (Fast pre-penetrate)
G01 Z-0.125000 F400.0(Penetrate)
G01 X145.227157 Y236.454744 Z-0.125000 F800.000000
G01 X145.097194 Y236.848417 Z-0.125000
G01 X145.114286 Y237.170176 Z-0.125000
G01 X145.283275 Y237.544244 Z-0.125000
G01 X145.584000 Y237.815679 Z-0.125000
G01 X145.977673 Y237.945643 Z-0.125000
G01 X146.299433 Y237.928550 Z-0.125000
G01 X146.673500 Y237.759561 Z-0.125000
G01 X146.944936 Y237.458836 Z-0.125000
G01 X147.074899 Y237.065163 Z-0.125000
G01 X147.057807 Y236.743404 Z-0.125000
G01 X146.888818 Y236.369336 Z-0.125000
G01 X146.588093 Y236.097901 Z-0.125000
G01 X146.194420 Y235.967937 Z-0.125000
G01 X145.872660 Y235.985030 Z-0.125000
G01 X145.498593 Y236.154019 Z-0.125000
G00 Z3.000000

(End cutting path id: polygon9763)


(Start cutting path id: polygon3151)
(Change tool to Default tool)

G00 Z3.000000
G00 X147.768583 Y234.522494

G00 Z4.875000 (Fast pre-penetrate)
G01 Z-0.125000 F400.0(Penetrate)
G01 X147.936090 Y234.893307 Z-0.125000 F800.000000
G01 X148.234196 Y235.162388 Z-0.125000
G01 X148.624429 Y235.291214 Z-0.125000
G01 X148.943411 Y235.274254 Z-0.125000
G01 X149.314224 Y235.106746 Z-0.125000
G01 X149.583305 Y234.808641 Z-0.125000
G01 X149.712130 Y234.418407 Z-0.125000
G01 X149.695170 Y234.099426 Z-0.125000
G01 X149.527663 Y233.728613 Z-0.125000
G01 X149.229557 Y233.459532 Z-0.125000
G01 X148.839324 Y233.330706 Z-0.125000
G01 X148.520342 Y233.347666 Z-0.125000
G01 X148.149529 Y233.515174 Z-0.125000
G01 X147.880448 Y233.813279 Z-0.125000
G01 X147.751623 Y234.203513 Z-0.125000
G01 X147.768583 Y234.522494 Z-0.125000
G00 Z3.000000

(End cutting path id: polygon3151)


(Start cutting path id: polygon9761)
(Change tool to Default tool)

G00 Z3.000000
G00 X149.482498 Y236.279352

G00 Z4.875000 (Fast pre-penetrate)
G01 Z-0.125000 F400.0(Penetrate)
G01 X149.149468 Y236.035671 Z-0.125000 F800.000000
G01 X148.731876 Y235.945686 Z-0.125000
G01 X148.412287 Y235.997227 Z-0.125000
G01 X148.054438 Y236.206168 Z-0.125000
G01 X147.810757 Y236.539199 Z-0.125000
G01 X147.720773 Y236.956790 Z-0.125000
G01 X147.772313 Y237.276380 Z-0.125000
G01 X147.981255 Y237.634228 Z-0.125000
G01 X148.314285 Y237.877909 Z-0.125000
G01 X148.731876 Y237.967894 Z-0.125000
G01 X149.051466 Y237.916353 Z-0.125000
G01 X149.409315 Y237.707412 Z-0.125000
G01 X149.652996 Y237.374381 Z-0.125000
G01 X149.742980 Y236.956790 Z-0.125000
G01 X149.691440 Y236.637200 Z-0.125000
G01 X149.482498 Y236.279352 Z-0.125000
G00 Z3.000000

(End cutting path id: polygon9761)


(Start cutting path id: polygon3329)
(Change tool to Default tool)

G00 Z3.000000
G00 X150.416662 Y234.205630

G00 Z4.875000 (Fast pre-penetrate)
G01 Z-0.125000 F400.0(Penetrate)
G01 X150.433277 Y234.518340 Z-0.125000 F800.000000
G01 X150.597504 Y234.881904 Z-0.125000
G01 X150.889789 Y235.145693 Z-0.125000
G01 X151.272376 Y235.272005 Z-0.125000
G01 X151.585087 Y235.255389 Z-0.125000
G01 X151.948650 Y235.091162 Z-0.125000
G01 X152.212439 Y234.798878 Z-0.125000
G01 X152.338751 Y234.416290 Z-0.125000
G01 X152.322136 Y234.103580 Z-0.125000
G01 X152.157909 Y233.740016 Z-0.125000
G01 X151.865624 Y233.476227 Z-0.125000
G01 X151.483037 Y233.349915 Z-0.125000
G01 X151.170326 Y233.366531 Z-0.125000
G01 X150.806763 Y233.530758 Z-0.125000
G01 X150.542974 Y233.823042 Z-0.125000
G01 X150.416662 Y234.205630 Z-0.125000
G00 Z3.000000

(End cutting path id: polygon3329)


(Start cutting path id: polygon3331)
(Change tool to Default tool)

G00 Z3.000000
G00 X151.377707 Y232.594266

G00 Z4.875000 (Fast pre-penetrate)
G01 Z-0.125000 F400.0(Penetrate)
G01 X151.786328 Y232.499836 Z-0.125000 F800.000000
G01 X152.102717 Y232.246260 Z-0.125000
G01 X152.252682 Y231.978502 Z-0.125000
G01 X152.306843 Y231.665130 Z-0.125000
G01 X152.212413 Y231.256508 Z-0.125000
G01 X151.958837 Y230.940120 Z-0.125000
G01 X151.691079 Y230.790154 Z-0.125000
G01 X151.377707 Y230.735994 Z-0.125000
G01 X150.969085 Y230.830424 Z-0.125000
G01 X150.652696 Y231.084000 Z-0.125000
G01 X150.502731 Y231.351758 Z-0.125000
G01 X150.448570 Y231.665130 Z-0.125000
G01 X150.543000 Y232.073752 Z-0.125000
G01 X150.796576 Y232.390140 Z-0.125000
G01 X151.064334 Y232.540106 Z-0.125000
G01 X151.377707 Y232.594266 Z-0.125000
G00 Z3.000000

(End cutting path id: polygon3331)


(Start cutting path id: polygon3369)
(Change tool to Default tool)

G00 Z3.000000
G00 X153.116969 Y231.771572

G00 Z4.875000 (Fast pre-penetrate)
G01 Z-0.125000 F400.0(Penetrate)
G01 X153.252912 Y232.154423 Z-0.125000 F800.000000
G01 X153.534243 Y232.435754 Z-0.125000
G01 X153.814251 Y232.553732 Z-0.125000
G01 X154.129978 Y232.571697 Z-0.125000
G01 X154.512830 Y232.435754 Z-0.125000
G01 X154.794161 Y232.154423 Z-0.125000
G01 X154.912139 Y231.874415 Z-0.125000
G01 X154.930104 Y231.558688 Z-0.125000
G01 X154.794161 Y231.175837 Z-0.125000
G01 X154.512830 Y230.894506 Z-0.125000
G01 X154.232822 Y230.776528 Z-0.125000
G01 X153.917095 Y230.758563 Z-0.125000
G01 X153.534243 Y230.894506 Z-0.125000
G01 X153.252912 Y231.175837 Z-0.125000
G01 X153.134934 Y231.455845 Z-0.125000
G01 X153.116969 Y231.771572 Z-0.125000
G00 Z3.000000

(End cutting path id: polygon3369)


(Start cutting path id: polygon3371)
(Change tool to Default tool)

G00 Z3.000000
G00 X153.082838 Y234.104400

G00 Z4.875000 (Fast pre-penetrate)
G01 Z-0.125000 F400.0(Penetrate)
G01 X153.066275 Y234.415867 Z-0.125000 F800.000000
G01 X153.192084 Y234.796973 Z-0.125000
G01 X153.454842 Y235.088093 Z-0.125000
G01 X153.816977 Y235.251658 Z-0.125000
G01 X154.128444 Y235.268221 Z-0.125000
G01 X154.509549 Y235.142412 Z-0.125000
G01 X154.800670 Y234.879655 Z-0.125000
G01 X154.964235 Y234.517520 Z-0.125000
G01 X154.980798 Y234.206053 Z-0.125000
G01 X154.854989 Y233.824947 Z-0.125000
G01 X154.592231 Y233.533827 Z-0.125000
G01 X154.230096 Y233.370262 Z-0.125000
G01 X153.918629 Y233.353699 Z-0.125000
G01 X153.537524 Y233.479508 Z-0.125000
G01 X153.246403 Y233.742265 Z-0.125000
G01 X153.082838 Y234.104400 Z-0.125000
G00 Z3.000000

(End cutting path id: polygon3371)


(Start cutting path id: polygon3327)
(Change tool to Default tool)

G00 Z3.000000
G00 X151.794028 Y236.038502

G00 Z4.875000 (Fast pre-penetrate)
G01 Z-0.125000 F400.0(Penetrate)
G01 X151.377707 Y235.948782 Z-0.125000 F800.000000
G01 X151.059096 Y236.000164 Z-0.125000
G01 X150.702332 Y236.208470 Z-0.125000
G01 X150.459418 Y236.540469 Z-0.125000
G01 X150.369698 Y236.956790 Z-0.125000
G01 X150.421080 Y237.275401 Z-0.125000
G01 X150.629386 Y237.632165 Z-0.125000
G01 X150.961385 Y237.875078 Z-0.125000
G01 X151.377707 Y237.964798 Z-0.125000
G01 X151.696317 Y237.913416 Z-0.125000
G01 X152.053081 Y237.705110 Z-0.125000
G01 X152.295995 Y237.373111 Z-0.125000
G01 X152.385715 Y236.956790 Z-0.125000
G01 X152.334333 Y236.638179 Z-0.125000
G01 X152.126027 Y236.281415 Z-0.125000
G01 X151.794028 Y236.038502 Z-0.125000
G00 Z3.000000

(End cutting path id: polygon3327)


(Start cutting path id: polygon3325)
(Change tool to Default tool)

G00 Z3.000000
G00 X153.003093 Y236.956790

G00 Z4.875000 (Fast pre-penetrate)
G01 Z-0.125000 F400.0(Penetrate)
G01 X153.083288 Y237.353982 Z-0.125000 F800.000000
G01 X153.301966 Y237.678361 Z-0.125000
G01 X153.626345 Y237.897039 Z-0.125000
G01 X154.023537 Y237.977234 Z-0.125000
G01 X154.420728 Y237.897039 Z-0.125000
G01 X154.745107 Y237.678361 Z-0.125000
G01 X154.963785 Y237.353982 Z-0.125000
G01 X155.043980 Y236.956790 Z-0.125000
G01 X154.963785 Y236.559598 Z-0.125000
G01 X154.745107 Y236.235219 Z-0.125000
G01 X154.420728 Y236.016541 Z-0.125000
G01 X154.023537 Y235.936346 Z-0.125000
G01 X153.626345 Y236.016541 Z-0.125000
G01 X153.301966 Y236.235219 Z-0.125000
G01 X153.083288 Y236.559598 Z-0.125000
G01 X153.003093 Y236.956790 Z-0.125000
G00 Z3.000000

(End cutting path id: polygon3325)


(Start cutting path id: polygon3309)
(Change tool to Default tool)

G00 Z3.000000
G00 X152.052552 Y238.783974

G00 Z4.875000 (Fast pre-penetrate)
G01 Z-0.125000 F400.0(Penetrate)
G01 X151.693195 Y238.589399 Z-0.125000 F800.000000
G01 X151.269227 Y238.547172 Z-0.125000
G01 X150.872009 Y238.669753 Z-0.125000
G01 X150.559060 Y238.927775 Z-0.125000
G01 X150.364486 Y239.287131 Z-0.125000
G01 X150.322258 Y239.711099 Z-0.125000
G01 X150.444840 Y240.108317 Z-0.125000
G01 X150.702861 Y240.421266 Z-0.125000
G01 X151.062218 Y240.615841 Z-0.125000
G01 X151.486186 Y240.658068 Z-0.125000
G01 X151.883404 Y240.535487 Z-0.125000
G01 X152.196353 Y240.277465 Z-0.125000
G01 X152.390927 Y239.918109 Z-0.125000
G01 X152.433155 Y239.494141 Z-0.125000
G01 X152.310573 Y239.096923 Z-0.125000
G01 X152.052552 Y238.783974 Z-0.125000
G00 Z3.000000

(End cutting path id: polygon3309)


(Start cutting path id: polygon3307)
(Change tool to Default tool)

G00 Z3.000000
G00 X149.766079 Y239.602620

G00 Z4.875000 (Fast pre-penetrate)
G01 Z-0.125000 F400.0(Penetrate)
G01 X149.684799 Y239.200057 Z-0.125000 F800.000000
G01 X149.463184 Y238.871313 Z-0.125000
G01 X149.134440 Y238.649698 Z-0.125000
G01 X148.731877 Y238.568418 Z-0.125000
G01 X148.329313 Y238.649698 Z-0.125000
G01 X148.000569 Y238.871313 Z-0.125000
G01 X147.778954 Y239.200057 Z-0.125000
G01 X147.697674 Y239.602620 Z-0.125000
G01 X147.778954 Y240.005183 Z-0.125000
G01 X148.000569 Y240.333927 Z-0.125000
G01 X148.329313 Y240.555542 Z-0.125000
G01 X148.731877 Y240.636822 Z-0.125000
G01 X149.134440 Y240.555542 Z-0.125000
G01 X149.463184 Y240.333927 Z-0.125000
G01 X149.684799 Y240.005183 Z-0.125000
G01 X149.766079 Y239.602620 Z-0.125000
G00 Z3.000000

(End cutting path id: polygon3307)


(Start cutting path id: polygon3305)
(Change tool to Default tool)

G00 Z3.000000
G00 X146.673262 Y240.405074

G00 Z4.875000 (Fast pre-penetrate)
G01 Z-0.125000 F400.0(Penetrate)
G01 X146.944592 Y240.104455 Z-0.125000 F800.000000
G01 X147.074529 Y239.710967 Z-0.125000
G01 X147.057410 Y239.389313 Z-0.125000
G01 X146.888500 Y239.015404 Z-0.125000
G01 X146.587881 Y238.744075 Z-0.125000
G01 X146.194393 Y238.614138 Z-0.125000
G01 X145.872740 Y238.631256 Z-0.125000
G01 X145.498831 Y238.800166 Z-0.125000
G01 X145.227501 Y239.100785 Z-0.125000
G01 X145.097564 Y239.494273 Z-0.125000
G01 X145.114683 Y239.815927 Z-0.125000
G01 X145.283593 Y240.189836 Z-0.125000
G01 X145.584212 Y240.461165 Z-0.125000
G01 X145.977700 Y240.591102 Z-0.125000
G01 X146.299353 Y240.573984 Z-0.125000
G01 X146.673262 Y240.405074 Z-0.125000
G00 Z3.000000

(End cutting path id: polygon3305)


(Start cutting path id: polygon3303)
(Change tool to Default tool)

G00 Z3.000000
G00 X143.749540 Y240.466325

G00 Z4.875000 (Fast pre-penetrate)
G01 Z-0.125000 F400.0(Penetrate)
G01 X144.088762 Y240.251166 Z-0.125000 F800.000000
G01 X144.303921 Y239.911944 Z-0.125000
G01 X144.357393 Y239.602620 Z-0.125000
G01 X144.303921 Y239.293296 Z-0.125000
G01 X144.088762 Y238.954074 Z-0.125000
G01 X143.749540 Y238.738915 Z-0.125000
G01 X143.440216 Y238.685443 Z-0.125000
G01 X143.130893 Y238.738915 Z-0.125000
G01 X142.791671 Y238.954074 Z-0.125000
G01 X142.576512 Y239.293296 Z-0.125000
G01 X142.523040 Y239.602620 Z-0.125000
G01 X142.576512 Y239.911944 Z-0.125000
G01 X142.791671 Y240.251166 Z-0.125000
G01 X143.130893 Y240.466325 Z-0.125000
G01 X143.440216 Y240.519797 Z-0.125000
G01 X143.749540 Y240.466325 Z-0.125000
G00 Z3.000000

(End cutting path id: polygon3303)


(Start cutting path id: polygon9765)
(Change tool to Default tool)

G00 Z3.000000
G00 X142.663930 Y236.463898

G00 Z4.875000 (Fast pre-penetrate)
G01 Z-0.125000 F400.0(Penetrate)
G01 X142.545079 Y236.745970 Z-0.125000 F800.000000
G01 X142.526982 Y237.064025 Z-0.125000
G01 X142.663930 Y237.449682 Z-0.125000
G01 X142.947325 Y237.733077 Z-0.125000
G01 X143.229397 Y237.851927 Z-0.125000
G01 X143.547452 Y237.870025 Z-0.125000
G01 X143.933108 Y237.733077 Z-0.125000
G01 X144.216503 Y237.449682 Z-0.125000
G01 X144.335354 Y237.167610 Z-0.125000
G01 X144.353451 Y236.849555 Z-0.125000
G01 X144.216503 Y236.463898 Z-0.125000
G01 X143.933108 Y236.180503 Z-0.125000
G01 X143.651036 Y236.061653 Z-0.125000
G01 X143.332981 Y236.043555 Z-0.125000
G01 X142.947325 Y236.180503 Z-0.125000
G01 X142.663930 Y236.463898 Z-0.125000
G00 Z3.000000

(End cutting path id: polygon9765)


(Start cutting path id: polygon3123)
(Change tool to Default tool)

G00 Z3.000000
G00 X140.212357 Y232.320317

G00 Z4.875000 (Fast pre-penetrate)
G01 Z-0.125000 F400.0(Penetrate)
G01 X140.477654 Y232.482480 Z-0.125000 F800.000000
G01 X140.794387 Y232.541482 Z-0.125000
G01 X141.111119 Y232.482480 Z-0.125000
G01 X141.449573 Y232.247160 Z-0.125000
G01 X141.611736 Y231.981862 Z-0.125000
G01 X141.670738 Y231.665130 Z-0.125000
G01 X141.611736 Y231.348398 Z-0.125000
G01 X141.449573 Y231.083100 Z-0.125000
G01 X141.111119 Y230.847780 Z-0.125000
G01 X140.794387 Y230.788778 Z-0.125000
G01 X140.477654 Y230.847780 Z-0.125000
G01 X140.212357 Y231.009943 Z-0.125000
G01 X139.977037 Y231.348398 Z-0.125000
G01 X139.918035 Y231.665130 Z-0.125000
G01 X139.977037 Y231.981862 Z-0.125000
G01 X140.212357 Y232.320317 Z-0.125000
G00 Z3.000000

(End cutting path id: polygon3123)


(Start cutting path id: polygon3109)
(Change tool to Default tool)

G00 Z3.000000
G00 X135.905845 Y228.329638

G00 Z4.875000 (Fast pre-penetrate)
G01 Z-0.125000 F400.0(Penetrate)
G01 X135.611100 Y228.227906 Z-0.125000 F800.000000
G01 X135.290399 Y228.249125 Z-0.125000
G01 X135.014677 Y228.387026 Z-0.125000
G01 X134.813064 Y228.616181 Z-0.125000
G01 X134.711332 Y228.910927 Z-0.125000
G01 X134.732552 Y229.231628 Z-0.125000
G01 X134.870453 Y229.507350 Z-0.125000
G01 X135.099608 Y229.708962 Z-0.125000
G01 X135.394353 Y229.810694 Z-0.125000
G01 X135.715054 Y229.789475 Z-0.125000
G01 X135.990776 Y229.651574 Z-0.125000
G01 X136.192389 Y229.422419 Z-0.125000
G01 X136.294121 Y229.127673 Z-0.125000
G01 X136.272901 Y228.806972 Z-0.125000
G01 X136.135000 Y228.531250 Z-0.125000
G01 X135.905845 Y228.329638 Z-0.125000
G00 Z3.000000

(End cutting path id: polygon3109)


(Start cutting path id: polygon3095)
(Change tool to Default tool)

G00 Z3.000000
G00 X136.210909 Y225.959530

G00 Z4.875000 (Fast pre-penetrate)
G01 Z-0.125000 F400.0(Penetrate)
G01 X136.003900 Y225.724210 Z-0.125000 F800.000000
G01 X135.720743 Y225.582631 Z-0.125000
G01 X135.391443 Y225.560803 Z-0.125000
G01 X135.088786 Y225.665287 Z-0.125000
G01 X134.853466 Y225.872297 Z-0.125000
G01 X134.711888 Y226.155454 Z-0.125000
G01 X134.690060 Y226.484754 Z-0.125000
G01 X134.794544 Y226.787410 Z-0.125000
G01 X135.001553 Y227.022730 Z-0.125000
G01 X135.284710 Y227.164309 Z-0.125000
G01 X135.614010 Y227.186137 Z-0.125000
G01 X135.916667 Y227.081653 Z-0.125000
G01 X136.151987 Y226.874643 Z-0.125000
G01 X136.293565 Y226.591486 Z-0.125000
G01 X136.315393 Y226.262186 Z-0.125000
G01 X136.210909 Y225.959530 Z-0.125000
G00 Z3.000000

(End cutting path id: polygon3095)


(Start cutting path id: polygon3093)
(Change tool to Default tool)

G00 Z3.000000
G00 X138.627822 Y225.684893

G00 Z4.875000 (Fast pre-penetrate)
G01 Z-0.125000 F400.0(Penetrate)
G01 X138.355116 Y225.560221 Z-0.125000 F800.000000
G01 X138.043332 Y225.541145 Z-0.125000
G01 X137.754196 Y225.632876 Z-0.125000
G01 X137.459979 Y225.894204 Z-0.125000
G01 X137.335308 Y226.166910 Z-0.125000
G01 X137.316231 Y226.478695 Z-0.125000
G01 X137.407962 Y226.767831 Z-0.125000
G01 X137.669291 Y227.062047 Z-0.125000
G01 X137.941997 Y227.186719 Z-0.125000
G01 X138.253781 Y227.205795 Z-0.125000
G01 X138.542917 Y227.114064 Z-0.125000
G01 X138.837134 Y226.852736 Z-0.125000
G01 X138.961805 Y226.580030 Z-0.125000
G01 X138.980882 Y226.268245 Z-0.125000
G01 X138.889151 Y225.979109 Z-0.125000
G01 X138.627822 Y225.684893 Z-0.125000
G00 Z3.000000

(End cutting path id: polygon3093)


(Start cutting path id: polygon3089)
(Change tool to Default tool)

G00 Z3.000000
G00 X139.951266 Y223.941767

G00 Z4.875000 (Fast pre-penetrate)
G01 Z-0.125000 F400.0(Penetrate)
G01 X140.080515 Y224.224500 Z-0.125000 F800.000000
G01 X140.385553 Y224.495433 Z-0.125000
G01 X140.685299 Y224.590551 Z-0.125000
G01 X141.008514 Y224.570760 Z-0.125000
G01 X141.291247 Y224.441511 Z-0.125000
G01 X141.562180 Y224.136474 Z-0.125000
G01 X141.657297 Y223.836728 Z-0.125000
G01 X141.637507 Y223.513513 Z-0.125000
G01 X141.508258 Y223.230780 Z-0.125000
G01 X141.203220 Y222.959847 Z-0.125000
G01 X140.903474 Y222.864729 Z-0.125000
G01 X140.580259 Y222.884520 Z-0.125000
G01 X140.297526 Y223.013769 Z-0.125000
G01 X140.026593 Y223.318806 Z-0.125000
G01 X139.931476 Y223.618552 Z-0.125000
G01 X139.951266 Y223.941767 Z-0.125000
G00 Z3.000000

(End cutting path id: polygon3089)


(Start cutting path id: polygon3091)
(Change tool to Default tool)

G00 Z3.000000
G00 X141.287754 Y225.664626

G00 Z4.875000 (Fast pre-penetrate)
G01 Z-0.125000 F400.0(Penetrate)
G01 X141.007032 Y225.536276 Z-0.125000 F800.000000
G01 X140.686066 Y225.516644 Z-0.125000
G01 X140.388410 Y225.611074 Z-0.125000
G01 X140.085542 Y225.880102 Z-0.125000
G01 X139.957193 Y226.160825 Z-0.125000
G01 X139.937561 Y226.481790 Z-0.125000
G01 X140.031991 Y226.779446 Z-0.125000
G01 X140.301019 Y227.082314 Z-0.125000
G01 X140.581741 Y227.210664 Z-0.125000
G01 X140.902707 Y227.230296 Z-0.125000
G01 X141.200363 Y227.135866 Z-0.125000
G01 X141.503231 Y226.866838 Z-0.125000
G01 X141.631580 Y226.586115 Z-0.125000
G01 X141.651212 Y226.265150 Z-0.125000
G01 X141.556782 Y225.967494 Z-0.125000
G01 X141.287754 Y225.664626 Z-0.125000
G00 Z3.000000

(End cutting path id: polygon3091)


(Start cutting path id: polygon3191)
(Change tool to Default tool)

G00 Z3.000000
G00 X144.265504 Y223.937243

G00 Z4.875000 (Fast pre-penetrate)
G01 Z-0.125000 F400.0(Penetrate)
G01 X144.284871 Y223.620854 Z-0.125000 F800.000000
G01 X144.191765 Y223.327458 Z-0.125000
G01 X143.926573 Y223.028876 Z-0.125000
G01 X143.649819 Y222.902353 Z-0.125000
G01 X143.333431 Y222.882985 Z-0.125000
G01 X143.040035 Y222.976092 Z-0.125000
G01 X142.741453 Y223.241284 Z-0.125000
G01 X142.614929 Y223.518037 Z-0.125000
G01 X142.595562 Y223.834426 Z-0.125000
G01 X142.688668 Y224.127822 Z-0.125000
G01 X142.953860 Y224.426404 Z-0.125000
G01 X143.230614 Y224.552927 Z-0.125000
G01 X143.547002 Y224.572295 Z-0.125000
G01 X143.840398 Y224.479188 Z-0.125000
G01 X144.138980 Y224.213996 Z-0.125000
G01 X144.265504 Y223.937243 Z-0.125000
G00 Z3.000000

(End cutting path id: polygon3191)


(Start cutting path id: polygon3187)
(Change tool to Default tool)

G00 Z3.000000
G00 X145.333705 Y220.681178

G00 Z4.875000 (Fast pre-penetrate)
G01 Z-0.125000 F400.0(Penetrate)
G01 X145.240492 Y220.974918 Z-0.125000 F800.000000
G01 X145.259860 Y221.291651 Z-0.125000
G01 X145.386542 Y221.568696 Z-0.125000
G01 X145.685415 Y221.834152 Z-0.125000
G01 X145.979155 Y221.927364 Z-0.125000
G01 X146.295887 Y221.907997 Z-0.125000
G01 X146.572932 Y221.781315 Z-0.125000
G01 X146.838388 Y221.482442 Z-0.125000
G01 X146.931601 Y221.188702 Z-0.125000
G01 X146.912233 Y220.871969 Z-0.125000
G01 X146.785551 Y220.594924 Z-0.125000
G01 X146.486678 Y220.329468 Z-0.125000
G01 X146.192938 Y220.236256 Z-0.125000
G01 X145.876206 Y220.255623 Z-0.125000
G01 X145.599161 Y220.382305 Z-0.125000
G01 X145.333705 Y220.681178 Z-0.125000
G00 Z3.000000

(End cutting path id: polygon3187)


(Start cutting path id: polygon3189)
(Change tool to Default tool)

G00 Z3.000000
G00 X143.224872 Y220.233980

G00 Z4.875000 (Fast pre-penetrate)
G01 Z-0.125000 F400.0(Penetrate)
G01 X142.940578 Y220.363970 Z-0.125000 F800.000000
G01 X142.668137 Y220.670674 Z-0.125000
G01 X142.572490 Y220.972114 Z-0.125000
G01 X142.592387 Y221.297154 Z-0.125000
G01 X142.722376 Y221.581449 Z-0.125000
G01 X143.029081 Y221.853890 Z-0.125000
G01 X143.330520 Y221.949536 Z-0.125000
G01 X143.655561 Y221.929640 Z-0.125000
G01 X143.939855 Y221.799650 Z-0.125000
G01 X144.212296 Y221.492946 Z-0.125000
G01 X144.307943 Y221.191506 Z-0.125000
G01 X144.288046 Y220.866466 Z-0.125000
G01 X144.158057 Y220.582171 Z-0.125000
G01 X143.851352 Y220.309730 Z-0.125000
G01 X143.549913 Y220.214084 Z-0.125000
G01 X143.224872 Y220.233980 Z-0.125000
G00 Z3.000000

(End cutting path id: polygon3189)


(Start cutting path id: polygon3195)
(Change tool to Default tool)

G00 Z3.000000
G00 X141.688492 Y221.081810

G00 Z4.875000 (Fast pre-penetrate)
G01 Z-0.125000 F400.0(Penetrate)
G01 X141.597608 Y220.688613 Z-0.125000 F800.000000
G01 X141.353609 Y220.384131 Z-0.125000
G01 X141.095932 Y220.239828 Z-0.125000
G01 X140.794387 Y220.187705 Z-0.125000
G01 X140.401190 Y220.278589 Z-0.125000
G01 X140.096708 Y220.522587 Z-0.125000
G01 X139.952404 Y220.780265 Z-0.125000
G01 X139.900281 Y221.081810 Z-0.125000
G01 X139.991165 Y221.475007 Z-0.125000
G01 X140.235164 Y221.779489 Z-0.125000
G01 X140.492841 Y221.923792 Z-0.125000
G01 X140.794387 Y221.975915 Z-0.125000
G01 X141.187583 Y221.885031 Z-0.125000
G01 X141.492065 Y221.641033 Z-0.125000
G01 X141.636369 Y221.383355 Z-0.125000
G01 X141.688492 Y221.081810 Z-0.125000
G00 Z3.000000

(End cutting path id: polygon3195)


(Start cutting path id: polygon3197)
(Change tool to Default tool)

G00 Z3.000000
G00 X139.934624 Y218.128058

G00 Z4.875000 (Fast pre-penetrate)
G01 Z-0.125000 F400.0(Penetrate)
G01 X139.881390 Y218.435980 Z-0.125000 F800.000000
G01 X139.934624 Y218.743902 Z-0.125000
G01 X140.148804 Y219.081563 Z-0.125000
G01 X140.486465 Y219.295742 Z-0.125000
G01 X140.794387 Y219.348977 Z-0.125000
G01 X141.102308 Y219.295742 Z-0.125000
G01 X141.439969 Y219.081563 Z-0.125000
G01 X141.654149 Y218.743902 Z-0.125000
G01 X141.707383 Y218.435980 Z-0.125000
G01 X141.654149 Y218.128058 Z-0.125000
G01 X141.439969 Y217.790397 Z-0.125000
G01 X141.102308 Y217.576218 Z-0.125000
G01 X140.794387 Y217.522983 Z-0.125000
G01 X140.486465 Y217.576218 Z-0.125000
G01 X140.148804 Y217.790397 Z-0.125000
G01 X139.934624 Y218.128058 Z-0.125000
G00 Z3.000000

(End cutting path id: polygon3197)


(Start cutting path id: polygon3199)
(Change tool to Default tool)

G00 Z3.000000
G00 X139.874431 Y215.790150

G00 Z4.875000 (Fast pre-penetrate)
G01 Z-0.125000 F400.0(Penetrate)
G01 X139.928062 Y216.100400 Z-0.125000 F800.000000
G01 X140.076546 Y216.365539 Z-0.125000
G01 X140.389813 Y216.616601 Z-0.125000
G01 X140.794387 Y216.710105 Z-0.125000
G01 X141.104637 Y216.656474 Z-0.125000
G01 X141.369775 Y216.507990 Z-0.125000
G01 X141.620838 Y216.194724 Z-0.125000
G01 X141.714342 Y215.790150 Z-0.125000
G01 X141.660711 Y215.479900 Z-0.125000
G01 X141.512227 Y215.214761 Z-0.125000
G01 X141.198960 Y214.963699 Z-0.125000
G01 X140.794387 Y214.870195 Z-0.125000
G01 X140.484136 Y214.923826 Z-0.125000
G01 X140.218998 Y215.072310 Z-0.125000
G01 X139.967935 Y215.385576 Z-0.125000
G01 X139.874431 Y215.790150 Z-0.125000
G00 Z3.000000

(End cutting path id: polygon3199)


(Start cutting path id: polygon3265)
(Change tool to Default tool)

G00 Z3.000000
G00 X137.234078 Y215.574779

G00 Z4.875000 (Fast pre-penetrate)
G01 Z-0.125000 F400.0(Penetrate)
G01 X137.215584 Y215.899687 Z-0.125000 F800.000000
G01 X137.304748 Y216.203217 Z-0.125000
G01 X137.561076 Y216.523098 Z-0.125000
G01 X137.933186 Y216.704628 Z-0.125000
G01 X138.258094 Y216.723123 Z-0.125000
G01 X138.561623 Y216.633958 Z-0.125000
G01 X138.881504 Y216.377630 Z-0.125000
G01 X139.063035 Y216.005521 Z-0.125000
G01 X139.081529 Y215.680613 Z-0.125000
G01 X138.992365 Y215.377083 Z-0.125000
G01 X138.736037 Y215.057202 Z-0.125000
G01 X138.363927 Y214.875672 Z-0.125000
G01 X138.039019 Y214.857177 Z-0.125000
G01 X137.735490 Y214.946342 Z-0.125000
G01 X137.415609 Y215.202670 Z-0.125000
G01 X137.234078 Y215.574779 Z-0.125000
G00 Z3.000000

(End cutting path id: polygon3265)


(Start cutting path id: polygon3079)
(Change tool to Default tool)

G00 Z3.000000
G00 X136.144869 Y215.078633

G00 Z4.875000 (Fast pre-penetrate)
G01 Z-0.125000 F400.0(Penetrate)
G01 X135.805674 Y214.880593 Z-0.125000 F800.000000
G01 X135.502726 Y214.831725 Z-0.125000
G01 X135.106884 Y214.917026 Z-0.125000
G01 X134.791210 Y215.148007 Z-0.125000
G01 X134.593170 Y215.487202 Z-0.125000
G01 X134.544301 Y215.790150 Z-0.125000
G01 X134.629603 Y216.185993 Z-0.125000
G01 X134.860584 Y216.501667 Z-0.125000
G01 X135.199779 Y216.699707 Z-0.125000
G01 X135.502726 Y216.748575 Z-0.125000
G01 X135.898569 Y216.663274 Z-0.125000
G01 X136.214243 Y216.432293 Z-0.125000
G01 X136.412283 Y216.093098 Z-0.125000
G01 X136.461152 Y215.790150 Z-0.125000
G01 X136.375850 Y215.394307 Z-0.125000
G01 X136.144869 Y215.078633 Z-0.125000
G00 Z3.000000

(End cutting path id: polygon3079)


(Start cutting path id: polygon3081)
(Change tool to Default tool)

G00 Z3.000000
G00 X135.392819 Y217.499806

G00 Z4.875000 (Fast pre-penetrate)
G01 Z-0.125000 F400.0(Penetrate)
G01 X134.997452 Y217.640220 Z-0.125000 F800.000000
G01 X134.706967 Y217.930706 Z-0.125000
G01 X134.585100 Y218.219869 Z-0.125000
G01 X134.566552 Y218.545888 Z-0.125000
G01 X134.706967 Y218.941254 Z-0.125000
G01 X134.997452 Y219.231740 Z-0.125000
G01 X135.286615 Y219.353607 Z-0.125000
G01 X135.612634 Y219.372154 Z-0.125000
G01 X136.008001 Y219.231740 Z-0.125000
G01 X136.298486 Y218.941254 Z-0.125000
G01 X136.420353 Y218.652091 Z-0.125000
G01 X136.438901 Y218.326072 Z-0.125000
G01 X136.298486 Y217.930706 Z-0.125000
G01 X136.008001 Y217.640220 Z-0.125000
G01 X135.718838 Y217.518353 Z-0.125000
G01 X135.392819 Y217.499806 Z-0.125000
G00 Z3.000000

(End cutting path id: polygon3081)


(Start cutting path id: polygon3267)
(Change tool to Default tool)

G00 Z3.000000
G00 X137.313585 Y218.027226

G00 Z4.875000 (Fast pre-penetrate)
G01 Z-0.125000 F400.0(Penetrate)
G01 X137.225347 Y218.327580 Z-0.125000 F800.000000
G01 X137.243656 Y218.649102 Z-0.125000
G01 X137.423282 Y219.017295 Z-0.125000
G01 X137.739802 Y219.270951 Z-0.125000
G01 X138.040157 Y219.359189 Z-0.125000
G01 X138.361678 Y219.340880 Z-0.125000
G01 X138.729872 Y219.161255 Z-0.125000
G01 X138.983528 Y218.844734 Z-0.125000
G01 X139.071766 Y218.544380 Z-0.125000
G01 X139.053457 Y218.222858 Z-0.125000
G01 X138.873831 Y217.854665 Z-0.125000
G01 X138.557311 Y217.601009 Z-0.125000
G01 X138.256956 Y217.512771 Z-0.125000
G01 X137.935435 Y217.531080 Z-0.125000
G01 X137.567241 Y217.710705 Z-0.125000
G01 X137.313585 Y218.027226 Z-0.125000
G00 Z3.000000

(End cutting path id: polygon3267)


(Start cutting path id: polygon3269)
(Change tool to Default tool)

G00 Z3.000000
G00 X137.940965 Y220.200378

G00 Z4.875000 (Fast pre-penetrate)
G01 Z-0.125000 F400.0(Penetrate)
G01 X137.582322 Y220.375373 Z-0.125000 F800.000000
G01 X137.335255 Y220.683666 Z-0.125000
G01 X137.249318 Y220.976241 Z-0.125000
G01 X137.267125 Y221.289402 Z-0.125000
G01 X137.442120 Y221.648044 Z-0.125000
G01 X137.750412 Y221.895112 Z-0.125000
G01 X138.042988 Y221.981048 Z-0.125000
G01 X138.356148 Y221.963242 Z-0.125000
G01 X138.714791 Y221.788247 Z-0.125000
G01 X138.961858 Y221.479954 Z-0.125000
G01 X139.047795 Y221.187379 Z-0.125000
G01 X139.029988 Y220.874218 Z-0.125000
G01 X138.854993 Y220.515576 Z-0.125000
G01 X138.546701 Y220.268508 Z-0.125000
G01 X138.254125 Y220.182572 Z-0.125000
G01 X137.940965 Y220.200378 Z-0.125000
G00 Z3.000000

(End cutting path id: polygon3269)


(Start cutting path id: polygon3087)
(Change tool to Default tool)

G00 Z3.000000
G00 X137.835052 Y222.918651

G00 Z4.875000 (Fast pre-penetrate)
G01 Z-0.125000 F400.0(Penetrate)
G01 X137.572506 Y223.079174 Z-0.125000 F800.000000
G01 X137.339568 Y223.414136 Z-0.125000
G01 X137.281174 Y223.727640 Z-0.125000
G01 X137.339568 Y224.041144 Z-0.125000
G01 X137.572506 Y224.376106 Z-0.125000
G01 X137.835052 Y224.536629 Z-0.125000
G01 X138.148557 Y224.595022 Z-0.125000
G01 X138.462061 Y224.536629 Z-0.125000
G01 X138.797023 Y224.303690 Z-0.125000
G01 X138.957545 Y224.041144 Z-0.125000
G01 X139.015939 Y223.727640 Z-0.125000
G01 X138.957545 Y223.414136 Z-0.125000
G01 X138.724607 Y223.079174 Z-0.125000
G01 X138.462061 Y222.918651 Z-0.125000
G01 X138.148557 Y222.860258 Z-0.125000
G01 X137.835052 Y222.918651 Z-0.125000
G00 Z3.000000

(End cutting path id: polygon3087)


(Start cutting path id: polygon3085)
(Change tool to Default tool)

G00 Z3.000000
G00 X135.502726 Y222.860893

G00 Z4.875000 (Fast pre-penetrate)
G01 Z-0.125000 F400.0(Penetrate)
G01 X135.189460 Y222.919233 Z-0.125000 F800.000000
G01 X134.927100 Y223.079650 Z-0.125000
G01 X134.694320 Y223.414374 Z-0.125000
G01 X134.635979 Y223.727640 Z-0.125000
G01 X134.694320 Y224.040906 Z-0.125000
G01 X134.927100 Y224.375630 Z-0.125000
G01 X135.189460 Y224.536047 Z-0.125000
G01 X135.502726 Y224.594387 Z-0.125000
G01 X135.815993 Y224.536047 Z-0.125000
G01 X136.150717 Y224.303267 Z-0.125000
G01 X136.311133 Y224.040906 Z-0.125000
G01 X136.369474 Y223.727640 Z-0.125000
G01 X136.311133 Y223.414374 Z-0.125000
G01 X136.078353 Y223.079650 Z-0.125000
G01 X135.815993 Y222.919233 Z-0.125000
G01 X135.502726 Y222.860893 Z-0.125000
G00 Z3.000000

(End cutting path id: polygon3085)


(Start cutting path id: polygon3083)
(Change tool to Default tool)

G00 Z3.000000
G00 X134.641059 Y220.773200

G00 Z4.875000 (Fast pre-penetrate)
G01 Z-0.125000 F400.0(Penetrate)
G01 X134.587719 Y221.081810 Z-0.125000 F800.000000
G01 X134.641059 Y221.390420 Z-0.125000
G01 X134.855715 Y221.728821 Z-0.125000
G01 X135.194117 Y221.943477 Z-0.125000
G01 X135.502726 Y221.996817 Z-0.125000
G01 X135.811336 Y221.943477 Z-0.125000
G01 X136.149738 Y221.728821 Z-0.125000
G01 X136.364394 Y221.390420 Z-0.125000
G01 X136.417734 Y221.081810 Z-0.125000
G01 X136.364394 Y220.773200 Z-0.125000
G01 X136.149738 Y220.434799 Z-0.125000
G01 X135.811336 Y220.220143 Z-0.125000
G01 X135.502726 Y220.166803 Z-0.125000
G01 X135.194117 Y220.220143 Z-0.125000
G01 X134.855715 Y220.434799 Z-0.125000
G01 X134.641059 Y220.773200 Z-0.125000
G00 Z3.000000

(End cutting path id: polygon3083)


(Start cutting path id: polygon3069)
(Change tool to Default tool)

G00 Z3.000000
G00 X132.964211 Y221.995759

G00 Z4.875000 (Fast pre-penetrate)
G01 Z-0.125000 F400.0(Penetrate)
G01 X133.350159 Y221.858679 Z-0.125000 F800.000000
G01 X133.633765 Y221.575072 Z-0.125000
G01 X133.752722 Y221.292788 Z-0.125000
G01 X133.770846 Y220.974495 Z-0.125000
G01 X133.633765 Y220.588548 Z-0.125000
G01 X133.350159 Y220.304941 Z-0.125000
G01 X133.067875 Y220.185985 Z-0.125000
G01 X132.749582 Y220.167861 Z-0.125000
G01 X132.363634 Y220.304941 Z-0.125000
G01 X132.080028 Y220.588548 Z-0.125000
G01 X131.961071 Y220.870832 Z-0.125000
G01 X131.942947 Y221.189125 Z-0.125000
G01 X132.080028 Y221.575072 Z-0.125000
G01 X132.363634 Y221.858679 Z-0.125000
G01 X132.645918 Y221.977635 Z-0.125000
G01 X132.964211 Y221.995759 Z-0.125000
G00 Z3.000000

(End cutting path id: polygon3069)


(Start cutting path id: polygon3271)
(Change tool to Default tool)

G00 Z3.000000
G00 X132.543392 Y224.536655

G00 Z4.875000 (Fast pre-penetrate)
G01 Z-0.125000 F400.0(Penetrate)
G01 X132.856897 Y224.595049 Z-0.125000 F800.000000
G01 X133.170401 Y224.536655 Z-0.125000
G01 X133.505389 Y224.303717 Z-0.125000
G01 X133.665912 Y224.041144 Z-0.125000
G01 X133.724305 Y223.727640 Z-0.125000
G01 X133.665912 Y223.414136 Z-0.125000
G01 X133.432973 Y223.079147 Z-0.125000
G01 X133.170401 Y222.918625 Z-0.125000
G01 X132.856897 Y222.860231 Z-0.125000
G01 X132.543392 Y222.918625 Z-0.125000
G01 X132.208404 Y223.151563 Z-0.125000
G01 X132.047881 Y223.414136 Z-0.125000
G01 X131.989488 Y223.727640 Z-0.125000
G01 X132.047881 Y224.041144 Z-0.125000
G01 X132.280820 Y224.376133 Z-0.125000
G01 X132.543392 Y224.536655 Z-0.125000
G00 Z3.000000

(End cutting path id: polygon3271)


(Start cutting path id: polygon3097)
(Change tool to Default tool)

G00 Z3.000000
G00 X132.856897 Y225.562788

G00 Z4.875000 (Fast pre-penetrate)
G01 Z-0.125000 F400.0(Penetrate)
G01 X132.541328 Y225.626473 Z-0.125000 F800.000000
G01 X132.283651 Y225.800224 Z-0.125000
G01 X132.109899 Y226.057902 Z-0.125000
