%
(Header)
(Generated by gcodetools from Inkscape.)
(Using default header. To add your own header create file "header" in the output dir.)
M3
(Header end.)
G21 (All units in mm)

(Start cutting path id: path14760)
(Change tool to Default tool)

G00 Z3.000000
G00 X170.458788 Y200.811935

G00 Z4.875000 (Fast pre-penetrate)
G01 Z-0.125000 F400.0(Penetrate)
G01 X170.921724 Y179.182359 Z-0.125000 F800.000000
G01 X169.110317 Y159.827126 Z-0.125000
G01 X171.504825 Y136.265978 Z-0.125000
G01 X164.272647 Y122.331516 Z-0.125000
G01 X170.827861 Y94.609663 Z-0.125000
G01 X163.814882 Y80.456002 Z-0.125000
G01 X169.958959 Y53.145284 Z-0.125000
G00 Z3.000000

(End cutting path id: path14760)


(Start cutting path id: path14758)
(Change tool to Default tool)

G00 Z3.000000
G00 X169.007149 Y201.205243

G00 Z4.875000 (Fast pre-penetrate)
G01 Z-0.125000 F400.0(Penetrate)
G01 X169.592245 Y179.453507 Z-0.125000 F800.000000
G01 X167.998902 Y159.880209 Z-0.125000
G01 X170.158055 Y136.554416 Z-0.125000
G01 X162.996172 Y122.549659 Z-0.125000
G01 X169.730172 Y94.649020 Z-0.125000
G01 X163.112033 Y80.100519 Z-0.125000
G01 X168.898614 Y53.147298 Z-0.125000
G00 Z3.000000

(End cutting path id: path14758)


(Start cutting path id: path14756)
(Change tool to Default tool)

G00 Z3.000000
G00 X167.555509 Y201.598551

G00 Z4.875000 (Fast pre-penetrate)
G01 Z-0.125000 F400.0(Penetrate)
G01 X168.262763 Y179.724657 Z-0.125000 F800.000000
G01 X166.887484 Y159.933295 Z-0.125000
G01 X168.811286 Y136.842854 Z-0.125000
G01 X161.719697 Y122.767803 Z-0.125000
G01 X168.632483 Y94.688376 Z-0.125000
G01 X162.409184 Y79.745035 Z-0.125000
G01 X167.838268 Y53.149311 Z-0.125000
G00 Z3.000000

(End cutting path id: path14756)


(Start cutting path id: path14754)
(Change tool to Default tool)

G00 Z3.000000
G00 X166.103866 Y201.991861

G00 Z4.875000 (Fast pre-penetrate)
G01 Z-0.125000 F400.0(Penetrate)
G01 X166.933281 Y179.995807 Z-0.125000 F800.000000
G01 X165.776066 Y159.986381 Z-0.125000
G01 X167.464516 Y137.131292 Z-0.125000
G01 X160.443221 Y122.985946 Z-0.125000
G01 X167.534797 Y94.727730 Z-0.125000
G01 X161.706335 Y79.389552 Z-0.125000
G01 X166.777926 Y53.151322 Z-0.125000
G00 Z3.000000

(End cutting path id: path14754)


(Start cutting path id: path14752)
(Change tool to Default tool)

G00 Z3.000000
G00 X164.652226 Y202.385169

G00 Z4.875000 (Fast pre-penetrate)
G01 Z-0.125000 F400.0(Penetrate)
G01 X165.603802 Y180.266954 Z-0.125000 F800.000000
G01 X164.664651 Y160.039465 Z-0.125000
G01 X166.117746 Y137.419729 Z-0.125000
G01 X159.166746 Y123.204090 Z-0.125000
G01 X166.437108 Y94.767087 Z-0.125000
G01 X161.003486 Y79.034069 Z-0.125000
G01 X165.717580 Y53.153335 Z-0.125000
G00 Z3.000000

(End cutting path id: path14752)


(Start cutting path id: path14750)
(Change tool to Default tool)

G00 Z3.000000
G00 X163.200586 Y202.778477

G00 Z4.875000 (Fast pre-penetrate)
G01 Z-0.125000 F400.0(Penetrate)
G01 X164.274320 Y180.538104 Z-0.125000 F800.000000
G01 X163.553233 Y160.092551 Z-0.125000
G01 X164.770976 Y137.708167 Z-0.125000
G01 X157.890270 Y123.422233 Z-0.125000
G01 X165.339420 Y94.806444 Z-0.125000
G01 X160.300637 Y78.678586 Z-0.125000
G01 X164.657235 Y53.155349 Z-0.125000
G00 Z3.000000

(End cutting path id: path14750)


(Start cutting path id: path14748)
(Change tool to Default tool)

G00 Z3.000000
G00 X161.748944 Y203.171788

G00 Z4.875000 (Fast pre-penetrate)
G01 Z-0.125000 F400.0(Penetrate)
G01 X162.944840 Y180.809251 Z-0.125000 F800.000000
G01 X162.441815 Y160.145636 Z-0.125000
G01 X163.424206 Y137.996605 Z-0.125000
G01 X156.613792 Y123.640379 Z-0.125000
G01 X164.241734 Y94.845798 Z-0.125000
G01 X159.597789 Y78.323103 Z-0.125000
G01 X163.596889 Y53.157362 Z-0.125000
G00 Z3.000000

(End cutting path id: path14748)


(Start cutting path id: path14746)
(Change tool to Default tool)

G00 Z3.000000
G00 X160.297304 Y203.565096

G00 Z4.875000 (Fast pre-penetrate)
G01 Z-0.125000 F400.0(Penetrate)
G01 X161.615358 Y181.080401 Z-0.125000 F800.000000
G01 X161.330400 Y160.198720 Z-0.125000
G01 X162.077437 Y138.285043 Z-0.125000
G01 X155.337317 Y123.858522 Z-0.125000
G01 X163.144045 Y94.885155 Z-0.125000
G01 X158.894940 Y77.967620 Z-0.125000
G01 X162.536546 Y53.159373 Z-0.125000
G00 Z3.000000

(End cutting path id: path14746)


(Start cutting path id: path14744)
(Change tool to Default tool)

G00 Z3.000000
G00 X158.845664 Y203.958404

G00 Z4.875000 (Fast pre-penetrate)
G01 Z-0.125000 F400.0(Penetrate)
G01 X160.285876 Y181.351551 Z-0.125000 F800.000000
G01 X160.218982 Y160.251806 Z-0.125000
G01 X160.730667 Y138.573481 Z-0.125000
G01 X154.060842 Y124.076666 Z-0.125000
G01 X162.046356 Y94.924511 Z-0.125000
G01 X158.192088 Y77.612139 Z-0.125000
G01 X161.476201 Y53.161387 Z-0.125000
G00 Z3.000000

(End cutting path id: path14744)


(Start cutting path id: path14742)
(Change tool to Default tool)

G00 Z3.000000
G00 X157.394024 Y204.351712

G00 Z4.875000 (Fast pre-penetrate)
G01 Z-0.125000 F400.0(Penetrate)
G01 X158.956397 Y181.622698 Z-0.125000 F800.000000
G01 X159.107564 Y160.304892 Z-0.125000
G01 X159.383897 Y138.861918 Z-0.125000
G01 X152.784366 Y124.294809 Z-0.125000
G01 X160.948670 Y94.963866 Z-0.125000
G01 X157.489239 Y77.256656 Z-0.125000
G01 X160.415855 Y53.163400 Z-0.125000
G00 Z3.000000

(End cutting path id: path14742)


(Start cutting path id: path14740)
(Change tool to Default tool)

G00 Z3.000000
G00 X155.942381 Y204.745022

G00 Z4.875000 (Fast pre-penetrate)
G01 Z-0.125000 F400.0(Penetrate)
G01 X157.626915 Y181.893848 Z-0.125000 F800.000000
G01 X157.996146 Y160.357978 Z-0.125000
G01 X158.037127 Y139.150356 Z-0.125000
G01 X151.507891 Y124.512953 Z-0.125000
G01 X159.850981 Y95.003222 Z-0.125000
G01 X156.786390 Y76.901173 Z-0.125000
G01 X159.355513 Y53.165411 Z-0.125000
G00 Z3.000000

(End cutting path id: path14740)


(Start cutting path id: path14738)
(Change tool to Default tool)

G00 Z3.000000
G00 X154.490741 Y205.138330

G00 Z4.875000 (Fast pre-penetrate)
G01 Z-0.125000 F400.0(Penetrate)
G01 X156.297436 Y182.164996 Z-0.125000 F800.000000
G01 X156.884731 Y160.411061 Z-0.125000
G01 X156.690357 Y139.438794 Z-0.125000
G01 X150.231415 Y124.731096 Z-0.125000
G01 X158.753295 Y95.042576 Z-0.125000
G01 X156.083542 Y76.545690 Z-0.125000
G01 X158.295167 Y53.167424 Z-0.125000
G00 Z3.000000

(End cutting path id: path14738)


(Start cutting path id: path14736)
(Change tool to Default tool)

G00 Z3.000000
G00 X153.039101 Y205.531638

G00 Z4.875000 (Fast pre-penetrate)
G01 Z-0.125000 F400.0(Penetrate)
G01 X154.967954 Y182.436146 Z-0.125000 F800.000000
G01 X155.773313 Y160.464147 Z-0.125000
G01 X155.343588 Y139.727232 Z-0.125000
G01 X148.954940 Y124.949239 Z-0.125000
G01 X157.655606 Y95.081933 Z-0.125000
G01 X155.380693 Y76.190207 Z-0.125000
G01 X157.234822 Y53.169438 Z-0.125000
G00 Z3.000000

(End cutting path id: path14736)


(Start cutting path id: path14734)
(Change tool to Default tool)

G00 Z3.000000
G00 X151.587459 Y205.924949

G00 Z4.875000 (Fast pre-penetrate)
G01 Z-0.125000 F400.0(Penetrate)
G01 X153.638475 Y182.707293 Z-0.125000 F800.000000
G01 X154.661895 Y160.517233 Z-0.125000
G01 X153.996818 Y140.015670 Z-0.125000
G01 X147.678465 Y125.167383 Z-0.125000
G01 X156.557918 Y95.121290 Z-0.125000
G01 X154.677844 Y75.834724 Z-0.125000
G01 X156.174476 Y53.171451 Z-0.125000
G00 Z3.000000

(End cutting path id: path14734)


(Start cutting path id: path14732)
(Change tool to Default tool)

G00 Z3.000000
G00 X150.135819 Y206.318257

G00 Z4.875000 (Fast pre-penetrate)
G01 Z-0.125000 F400.0(Penetrate)
G01 X152.308993 Y182.978443 Z-0.125000 F800.000000
G01 X153.550480 Y160.570316 Z-0.125000
G01 X152.650048 Y140.304107 Z-0.125000
G01 X146.401987 Y125.385529 Z-0.125000
G01 X155.460232 Y95.160644 Z-0.125000
G01 X153.974995 Y75.479240 Z-0.125000
G01 X155.114133 Y53.173462 Z-0.125000
G00 Z3.000000

(End cutting path id: path14732)


(Start cutting path id: path14730)
(Change tool to Default tool)

G00 Z3.000000
G00 X148.684179 Y206.711564

G00 Z4.875000 (Fast pre-penetrate)
G01 Z-0.125000 F400.0(Penetrate)
G01 X150.979511 Y183.249593 Z-0.125000 F800.000000
G01 X152.439062 Y160.623402 Z-0.125000
G01 X151.303278 Y140.592545 Z-0.125000
G01 X145.125511 Y125.603672 Z-0.125000
G01 X154.362543 Y95.200001 Z-0.125000
G01 X153.272146 Y75.123757 Z-0.125000
G01 X154.053788 Y53.175476 Z-0.125000
G00 Z3.000000

(End cutting path id: path14730)


(Start cutting path id: path14728)
(Change tool to Default tool)

G00 Z3.000000
G00 X147.232536 Y207.104875

G00 Z4.875000 (Fast pre-penetrate)
G01 Z-0.125000 F400.0(Penetrate)
G01 X149.650031 Y183.520740 Z-0.125000 F800.000000
G01 X151.327644 Y160.676488 Z-0.125000
G01 X149.956508 Y140.880983 Z-0.125000
G01 X143.849036 Y125.821816 Z-0.125000
G01 X153.264854 Y95.239357 Z-0.125000
G01 X152.569297 Y74.768274 Z-0.125000
G01 X152.993442 Y53.177489 Z-0.125000
G00 Z3.000000

(End cutting path id: path14728)


(Start cutting path id: path14726)
(Change tool to Default tool)

G00 Z3.000000
G00 X145.780897 Y207.498183

G00 Z4.875000 (Fast pre-penetrate)
G01 Z-0.125000 F400.0(Penetrate)
G01 X148.320549 Y183.791890 Z-0.125000 F800.000000
G01 X150.216228 Y160.729571 Z-0.125000
G01 X148.609736 Y141.169424 Z-0.125000
G01 X142.572560 Y126.039959 Z-0.125000
G01 X152.167168 Y95.278711 Z-0.125000
G01 X151.866448 Y74.412791 Z-0.125000
G01 X151.933100 Y53.179500 Z-0.125000
G00 Z3.000000

(End cutting path id: path14726)


(Start cutting path id: path14682)
(Change tool to Default tool)

G00 Z3.000000
G00 X124.418986 Y205.576789

G00 Z4.875000 (Fast pre-penetrate)
G01 Z-0.125000 F400.0(Penetrate)
G01 X125.316494 Y183.512641 Z-0.125000 F800.000000
G01 X129.063320 Y158.599175 Z-0.125000
G01 X129.901011 Y136.594844 Z-0.125000
G01 X127.472324 Y117.856891 Z-0.125000
G01 X122.846599 Y101.315977 Z-0.125000
G01 X125.962860 Y77.033076 Z-0.125000
G01 X124.606420 Y57.222876 Z-0.125000
G00 Z3.000000

(End cutting path id: path14682)


(Start cutting path id: path14654)
(Change tool to Default tool)

G00 Z3.000000
G00 X110.923055 Y204.256073

G00 Z4.875000 (Fast pre-penetrate)
G01 Z-0.125000 F400.0(Penetrate)
G01 X110.834594 Y183.177894 Z-0.125000 F800.000000
G01 X114.678699 Y158.167148 Z-0.125000
G01 X107.454173 Y144.225034 Z-0.125000
G01 X107.703881 Y122.808686 Z-0.125000
G01 X110.148821 Y99.197106 Z-0.125000
G01 X107.982577 Y80.196710 Z-0.125000
G01 X106.963634 Y60.049014 Z-0.125000
G00 Z3.000000

(End cutting path id: path14654)


(Start cutting path id: path14640)
(Change tool to Default tool)

G00 Z3.000000
G00 X104.137996 Y203.632808

G00 Z4.875000 (Fast pre-penetrate)
G01 Z-0.125000 F400.0(Penetrate)
G01 X103.575553 Y183.028610 Z-0.125000 F800.000000
G01 X107.438116 Y157.999408 Z-0.125000
G01 X95.783118 Y148.487766 Z-0.125000
G01 X97.378752 Y125.725492 Z-0.125000
G01 X104.049178 Y97.888426 Z-0.125000
G01 X98.975243 Y81.795720 Z-0.125000
G01 X98.147961 Y61.456363 Z-0.125000
G00 Z3.000000

(End cutting path id: path14640)


(Start cutting path id: path14560)
(Change tool to Default tool)

G00 Z3.000000
G00 X67.204646 Y198.232878

G00 Z4.875000 (Fast pre-penetrate)
G01 Z-0.125000 F400.0(Penetrate)
G01 X65.903207 Y178.367677 Z-0.125000 F800.000000
G01 X57.463353 Y165.640890 Z-0.125000
G01 X59.956611 Y141.980992 Z-0.125000
G01 X57.353668 Y123.417296 Z-0.125000
G01 X58.440093 Y101.164231 Z-0.125000
G01 X61.424356 Y77.013327 Z-0.125000
G01 X62.044108 Y55.226936 Z-0.125000
G00 Z3.000000

(End cutting path id: path14560)


(Start cutting path id: path14562)
(Change tool to Default tool)

G00 Z3.000000
G00 X67.983287 Y198.512569

G00 Z4.875000 (Fast pre-penetrate)
G01 Z-0.125000 F400.0(Penetrate)
G01 X66.587805 Y178.741411 Z-0.125000 F800.000000
G01 X58.659834 Y165.502741 Z-0.125000
G01 X60.964797 Y142.031139 Z-0.125000
G01 X58.538375 Y123.290921 Z-0.125000
G01 X59.794007 Y100.868649 Z-0.125000
G01 X62.450393 Y77.045622 Z-0.125000
G01 X62.931744 Y55.397632 Z-0.125000
G00 Z3.000000

(End cutting path id: path14562)


(Start cutting path id: path14558)
(Change tool to Default tool)

G00 Z3.000000
G00 X65.718986 Y198.660206

G00 Z4.875000 (Fast pre-penetrate)
G01 Z-0.125000 F400.0(Penetrate)
G01 X64.832365 Y178.380186 Z-0.125000 F800.000000
G01 X56.610991 Y165.434920 Z-0.125000
G01 X58.867953 Y142.011319 Z-0.125000
G01 X56.474310 Y123.238321 Z-0.125000
G01 X57.393315 Y101.152676 Z-0.125000
G01 X60.068969 Y77.310382 Z-0.125000
G01 X61.165623 Y55.047088 Z-0.125000
G00 Z3.000000

(End cutting path id: path14558)


(Start cutting path id: path14564)
(Change tool to Default tool)

G00 Z3.000000
G00 X68.761926 Y198.792262

G00 Z4.875000 (Fast pre-penetrate)
G01 Z-0.125000 F400.0(Penetrate)
G01 X67.272403 Y179.115145 Z-0.125000 F800.000000
G01 X59.856316 Y165.364592 Z-0.125000
G01 X61.972985 Y142.081282 Z-0.125000
G01 X59.723082 Y123.164545 Z-0.125000
G01 X61.147920 Y100.573067 Z-0.125000
G01 X63.476430 Y77.077917 Z-0.125000
G01 X63.819380 Y55.568327 Z-0.125000
G00 Z3.000000

(End cutting path id: path14564)


(Start cutting path id: path14556)
(Change tool to Default tool)

G00 Z3.000000
G00 X64.233326 Y199.087534

G00 Z4.875000 (Fast pre-penetrate)
G01 Z-0.125000 F400.0(Penetrate)
G01 X63.761524 Y178.392696 Z-0.125000 F800.000000
G01 X55.758626 Y165.228953 Z-0.125000
G01 X57.779292 Y142.041648 Z-0.125000
G01 X55.594950 Y123.059350 Z-0.125000
G01 X56.346540 Y101.141119 Z-0.125000
G01 X58.713579 Y77.607440 Z-0.125000
G01 X60.287136 Y54.867243 Z-0.125000
G00 Z3.000000

(End cutting path id: path14556)


(Start cutting path id: path14566)
(Change tool to Default tool)

G00 Z3.000000
G00 X69.540564 Y199.071955

G00 Z4.875000 (Fast pre-penetrate)
G01 Z-0.125000 F400.0(Penetrate)
G01 X67.956998 Y179.488882 Z-0.125000 F800.000000
G01 X61.052797 Y165.226442 Z-0.125000
G01 X62.981173 Y142.131426 Z-0.125000
G01 X60.907790 Y123.038170 Z-0.125000
G01 X62.501836 Y100.277483 Z-0.125000
G01 X64.502467 Y77.110212 Z-0.125000
G01 X64.707016 Y55.739023 Z-0.125000
G00 Z3.000000

(End cutting path id: path14566)


(Start cutting path id: path14568)
(Change tool to Default tool)

G00 Z3.000000
G00 X70.319206 Y199.351646

G00 Z4.875000 (Fast pre-penetrate)
G01 Z-0.125000 F400.0(Penetrate)
G01 X68.641596 Y179.862616 Z-0.125000 F800.000000
G01 X62.249279 Y165.088293 Z-0.125000
G01 X63.989359 Y142.181573 Z-0.125000
G01 X62.092500 Y122.911792 Z-0.125000
G01 X63.855750 Y99.981902 Z-0.125000
G01 X65.528504 Y77.142507 Z-0.125000
G01 X65.594653 Y55.909719 Z-0.125000
G00 Z3.000000

(End cutting path id: path14568)


(Start cutting path id: path14554)
(Change tool to Default tool)

G00 Z3.000000
G00 X62.747663 Y199.514865

G00 Z4.875000 (Fast pre-penetrate)
G01 Z-0.125000 F400.0(Penetrate)
G01 X62.690682 Y178.405205 Z-0.125000 F800.000000
G01 X54.906264 Y165.022983 Z-0.125000
G01 X56.690633 Y142.071974 Z-0.125000
G01 X54.715592 Y122.880375 Z-0.125000
G01 X55.299765 Y101.129562 Z-0.125000
G01 X57.358192 Y77.904496 Z-0.125000
G01 X59.408652 Y54.687396 Z-0.125000
G00 Z3.000000

(End cutting path id: path14554)


(Start cutting path id: path14552)
(Change tool to Default tool)

G00 Z3.000000
G00 X61.262003 Y199.942193

G00 Z4.875000 (Fast pre-penetrate)
G01 Z-0.125000 F400.0(Penetrate)
G01 X61.619841 Y178.417715 Z-0.125000 F800.000000
G01 X54.053900 Y164.817016 Z-0.125000
G01 X55.601975 Y142.102301 Z-0.125000
G01 X53.836235 Y122.701400 Z-0.125000
G01 X54.252988 Y101.118008 Z-0.125000
G01 X56.002805 Y78.201551 Z-0.125000
G01 X58.530168 Y54.507548 Z-0.125000
G00 Z3.000000

(End cutting path id: path14552)


(Start cutting path id: path14570)
(Change tool to Default tool)

G00 Z3.000000
G00 X71.097844 Y199.631339

G00 Z4.875000 (Fast pre-penetrate)
G01 Z-0.125000 F400.0(Penetrate)
G01 X69.326194 Y180.236350 Z-0.125000 F800.000000
G01 X63.445760 Y164.950144 Z-0.125000
G01 X64.997547 Y142.231716 Z-0.125000
G01 X63.277207 Y122.785416 Z-0.125000
G01 X65.209663 Y99.686320 Z-0.125000
G01 X66.554541 Y77.174802 Z-0.125000
G01 X66.482289 Y56.080414 Z-0.125000
G00 Z3.000000

(End cutting path id: path14570)


(Start cutting path id: path14572)
(Change tool to Default tool)

G00 Z3.000000
G00 X71.876486 Y199.911030

G00 Z4.875000 (Fast pre-penetrate)
G01 Z-0.125000 F400.0(Penetrate)
G01 X70.010792 Y180.610084 Z-0.125000 F800.000000
G01 X64.642241 Y164.811994 Z-0.125000
G01 X66.005735 Y142.281860 Z-0.125000
G01 X64.461915 Y122.659041 Z-0.125000
G01 X66.563577 Y99.390739 Z-0.125000
G01 X67.580578 Y77.207097 Z-0.125000
G01 X67.369925 Y56.251110 Z-0.125000
G00 Z3.000000

(End cutting path id: path14572)


(Start cutting path id: path14574)
(Change tool to Default tool)

G00 Z3.000000
G00 X72.655124 Y200.190723

G00 Z4.875000 (Fast pre-penetrate)
G01 Z-0.125000 F400.0(Penetrate)
G01 X70.695390 Y180.983818 Z-0.125000 F800.000000
G01 X65.838723 Y164.673845 Z-0.125000
G01 X67.013921 Y142.332007 Z-0.125000
G01 X65.646622 Y122.532665 Z-0.125000
G01 X67.917493 Y99.095154 Z-0.125000
G01 X68.606615 Y77.239392 Z-0.125000
G01 X68.257562 Y56.421806 Z-0.125000
G00 Z3.000000

(End cutting path id: path14574)


(Start cutting path id: path14576)
(Change tool to Default tool)

G00 Z3.000000
G00 X73.433766 Y200.470414

G00 Z4.875000 (Fast pre-penetrate)
G01 Z-0.125000 F400.0(Penetrate)
G01 X71.379985 Y181.357555 Z-0.125000 F800.000000
G01 X67.035204 Y164.535695 Z-0.125000
G01 X68.022109 Y142.382150 Z-0.125000
G01 X66.831330 Y122.406290 Z-0.125000
G01 X69.271407 Y98.799573 Z-0.125000
G01 X69.632652 Y77.271687 Z-0.125000
G01 X69.145198 Y56.592502 Z-0.125000
G00 Z3.000000

(End cutting path id: path14576)


(Start cutting path id: path14550)
(Change tool to Default tool)

G00 Z3.000000
G00 X59.776340 Y200.369523

G00 Z4.875000 (Fast pre-penetrate)
G01 Z-0.125000 F400.0(Penetrate)
G01 X60.549002 Y178.430221 Z-0.125000 F800.000000
G01 X53.201537 Y164.611046 Z-0.125000
G01 X54.513316 Y142.132627 Z-0.125000
G01 X52.956875 Y122.522429 Z-0.125000
G01 X53.206213 Y101.106451 Z-0.125000
G01 X54.647415 Y78.498609 Z-0.125000
G01 X57.651683 Y54.327700 Z-0.125000
G00 Z3.000000

(End cutting path id: path14550)


(Start cutting path id: path14548)
(Change tool to Default tool)

G00 Z3.000000
G00 X58.290680 Y200.796851

G00 Z4.875000 (Fast pre-penetrate)
G01 Z-0.125000 F400.0(Penetrate)
G01 X59.478161 Y178.442731 Z-0.125000 F800.000000
G01 X52.349175 Y164.405076 Z-0.125000
G01 X53.424655 Y142.162957 Z-0.125000
G01 X52.077517 Y122.343454 Z-0.125000
G01 X52.159435 Y101.094897 Z-0.125000
G01 X53.292027 Y78.795664 Z-0.125000
G01 X56.773196 Y54.147855 Z-0.125000
G00 Z3.000000

(End cutting path id: path14548)


(Start cutting path id: path14546)
(Change tool to Default tool)

G00 Z3.000000
G00 X56.805020 Y201.224179

G00 Z4.875000 (Fast pre-penetrate)
G01 Z-0.125000 F400.0(Penetrate)
G01 X58.407319 Y178.455240 Z-0.125000 F800.000000
G01 X51.496811 Y164.199109 Z-0.125000
G01 X52.335996 Y142.193283 Z-0.125000
G01 X51.198160 Y122.164480 Z-0.125000
G01 X51.112660 Y101.083340 Z-0.125000
G01 X51.936638 Y79.092722 Z-0.125000
G01 X55.894712 Y53.968008 Z-0.125000
G00 Z3.000000

(End cutting path id: path14546)


(Start cutting path id: path14544)
(Change tool to Default tool)

G00 Z3.000000
G00 X55.319358 Y201.651510

G00 Z4.875000 (Fast pre-penetrate)
G01 Z-0.125000 F400.0(Penetrate)
G01 X57.336478 Y178.467750 Z-0.125000 F800.000000
G01 X50.644449 Y163.993139 Z-0.125000
G01 X51.247338 Y142.223610 Z-0.125000
G01 X50.318800 Y121.985508 Z-0.125000
G01 X50.065885 Y101.071783 Z-0.125000
G01 X50.581250 Y79.389777 Z-0.125000
G01 X55.016228 Y53.788160 Z-0.125000
G00 Z3.000000

(End cutting path id: path14544)


(Start cutting path id: path14578)
(Change tool to Default tool)

G00 Z3.000000
G00 X74.212404 Y200.750107

G00 Z4.875000 (Fast pre-penetrate)
G01 Z-0.125000 F400.0(Penetrate)
G01 X72.064583 Y181.731289 Z-0.125000 F800.000000
G01 X68.231685 Y164.397546 Z-0.125000
G01 X69.030295 Y142.432297 Z-0.125000
G01 X68.016037 Y122.279914 Z-0.125000
G01 X70.625320 Y98.503991 Z-0.125000
G01 X70.658689 Y77.303982 Z-0.125000
G01 X70.032834 Y56.763197 Z-0.125000
G00 Z3.000000

(End cutting path id: path14578)


(Start cutting path id: path14580)
(Change tool to Default tool)

G00 Z3.000000
G00 X74.991043 Y201.029801

G00 Z4.875000 (Fast pre-penetrate)
G01 Z-0.125000 F400.0(Penetrate)
G01 X72.749181 Y182.105023 Z-0.125000 F800.000000
G01 X69.428169 Y164.259394 Z-0.125000
G01 X70.038483 Y142.482440 Z-0.125000
G01 X69.200747 Y122.153536 Z-0.125000
G01 X71.979234 Y98.208410 Z-0.125000
G01 X71.684726 Y77.336277 Z-0.125000
G01 X70.920470 Y56.933893 Z-0.125000
G00 Z3.000000

(End cutting path id: path14580)


(Start cutting path id: path14582)
(Change tool to Default tool)

G00 Z3.000000
G00 X75.769684 Y201.309491

G00 Z4.875000 (Fast pre-penetrate)
G01 Z-0.125000 F400.0(Penetrate)
G01 X73.433779 Y182.478757 Z-0.125000 F800.000000
G01 X70.624651 Y164.121245 Z-0.125000
G01 X71.046671 Y142.532584 Z-0.125000
G01 X70.385455 Y122.027161 Z-0.125000
G01 X73.333150 Y97.912826 Z-0.125000
G01 X72.710763 Y77.368572 Z-0.125000
G01 X71.808107 Y57.104589 Z-0.125000
G00 Z3.000000

(End cutting path id: path14582)


(Start cutting path id: path14584)
(Change tool to Default tool)

G00 Z3.000000
G00 X76.548323 Y201.589185

G00 Z4.875000 (Fast pre-penetrate)
G01 Z-0.125000 F400.0(Penetrate)
G01 X74.118377 Y182.852491 Z-0.125000 F800.000000
G01 X71.821132 Y163.983095 Z-0.125000
G01 X72.054857 Y142.582731 Z-0.125000
G01 X71.570162 Y121.900786 Z-0.125000
G01 X74.687063 Y97.617244 Z-0.125000
G01 X73.736800 Y77.400867 Z-0.125000
G01 X72.695743 Y57.275285 Z-0.125000
G00 Z3.000000

(End cutting path id: path14584)


(Start cutting path id: path14586)
(Change tool to Default tool)

G00 Z3.000000
G00 X77.326964 Y201.868875

G00 Z4.875000 (Fast pre-penetrate)
G01 Z-0.125000 F400.0(Penetrate)
G01 X74.802972 Y183.226228 Z-0.125000 F800.000000
G01 X73.017614 Y163.844946 Z-0.125000
G01 X73.063045 Y142.632874 Z-0.125000
G01 X72.754869 Y121.774410 Z-0.125000
G01 X76.040977 Y97.321663 Z-0.125000
G01 X74.762837 Y77.433162 Z-0.125000
G01 X73.583379 Y57.445980 Z-0.125000
G00 Z3.000000

(End cutting path id: path14586)


(Start cutting path id: path14588)
(Change tool to Default tool)

G00 Z3.000000
G00 X78.105603 Y202.148569

G00 Z4.875000 (Fast pre-penetrate)
G01 Z-0.125000 F400.0(Penetrate)
G01 X75.487570 Y183.599962 Z-0.125000 F800.000000
G01 X74.214095 Y163.706797 Z-0.125000
G01 X74.071231 Y142.683021 Z-0.125000
G01 X73.939577 Y121.648035 Z-0.125000
G01 X77.394891 Y97.026081 Z-0.125000
G01 X75.788874 Y77.465457 Z-0.125000
G01 X74.471016 Y57.616676 Z-0.125000
G00 Z3.000000

(End cutting path id: path14588)


(Start cutting path id: path14590)
(Change tool to Default tool)

G00 Z3.000000
G00 X78.884241 Y202.428262

G00 Z4.875000 (Fast pre-penetrate)
G01 Z-0.125000 F400.0(Penetrate)
G01 X76.172168 Y183.973696 Z-0.125000 F800.000000
G01 X75.410576 Y163.568647 Z-0.125000
G01 X75.079419 Y142.733165 Z-0.125000
G01 X75.124284 Y121.521659 Z-0.125000
G01 X78.748804 Y96.730499 Z-0.125000
G01 X76.814911 Y77.497752 Z-0.125000
G01 X75.358652 Y57.787372 Z-0.125000
G00 Z3.000000

(End cutting path id: path14590)


(Start cutting path id: path14592)
(Change tool to Default tool)

G00 Z3.000000
G00 X79.662883 Y202.707953

G00 Z4.875000 (Fast pre-penetrate)
G01 Z-0.125000 F400.0(Penetrate)
G01 X76.856766 Y184.347430 Z-0.125000 F800.000000
G01 X76.607058 Y163.430498 Z-0.125000
G01 X76.087607 Y142.783308 Z-0.125000
G01 X76.308992 Y121.395284 Z-0.125000
G01 X80.102720 Y96.434915 Z-0.125000
G01 X77.840948 Y77.530047 Z-0.125000
G01 X76.246288 Y57.958067 Z-0.125000
G00 Z3.000000

(End cutting path id: path14592)


(Start cutting path id: path14594)
(Change tool to Default tool)

G00 Z3.000000
G00 X80.441521 Y202.987646

G00 Z4.875000 (Fast pre-penetrate)
G01 Z-0.125000 F400.0(Penetrate)
G01 X77.541361 Y184.721166 Z-0.125000 F800.000000
G01 X77.803539 Y163.292349 Z-0.125000
G01 X77.095793 Y142.833455 Z-0.125000
G01 X77.493702 Y121.268906 Z-0.125000
G01 X81.456634 Y96.139334 Z-0.125000
G01 X78.866985 Y77.562342 Z-0.125000
G01 X77.133924 Y58.128763 Z-0.125000
G00 Z3.000000

(End cutting path id: path14594)


(Start cutting path id: path14596)
(Change tool to Default tool)

G00 Z3.000000
G00 X81.220163 Y203.267337

G00 Z4.875000 (Fast pre-penetrate)
G01 Z-0.125000 F400.0(Penetrate)
G01 X78.225959 Y185.094901 Z-0.125000 F800.000000
G01 X79.000020 Y163.154199 Z-0.125000
G01 X78.103981 Y142.883599 Z-0.125000
G01 X78.678409 Y121.142530 Z-0.125000
G01 X82.810547 Y95.843752 Z-0.125000
G01 X79.893022 Y77.594637 Z-0.125000
G01 X78.021561 Y58.299459 Z-0.125000
G00 Z3.000000

(End cutting path id: path14596)


(Start cutting path id: path14598)
(Change tool to Default tool)

G00 Z3.000000
G00 X81.998801 Y203.547030

G00 Z4.875000 (Fast pre-penetrate)
G01 Z-0.125000 F400.0(Penetrate)
G01 X78.910557 Y185.468635 Z-0.125000 F800.000000
G01 X80.196502 Y163.016050 Z-0.125000
G01 X79.112166 Y142.933745 Z-0.125000
G01 X79.863117 Y121.016155 Z-0.125000
G01 X84.164461 Y95.548171 Z-0.125000
G01 X80.919059 Y77.626932 Z-0.125000
G01 X78.909197 Y58.470155 Z-0.125000
G00 Z3.000000

(End cutting path id: path14598)


(Start cutting path id: path14600)
(Change tool to Default tool)

G00 Z3.000000
G00 X82.777443 Y203.826721

G00 Z4.875000 (Fast pre-penetrate)
G01 Z-0.125000 F400.0(Penetrate)
G01 X79.595155 Y185.842369 Z-0.125000 F800.000000
G01 X81.392983 Y162.877900 Z-0.125000
G01 X80.120355 Y142.983889 Z-0.125000
G01 X81.047824 Y120.889780 Z-0.125000
G01 X85.518377 Y95.252586 Z-0.125000
G01 X81.945096 Y77.659227 Z-0.125000
G01 X79.796831 Y58.640853 Z-0.125000
G00 Z3.000000

(End cutting path id: path14600)


(Start cutting path id: path14602)
(Change tool to Default tool)

G00 Z3.000000
G00 X83.845469 Y203.817026

G00 Z4.875000 (Fast pre-penetrate)
G01 Z-0.125000 F400.0(Penetrate)
G01 X80.794174 Y185.701682 Z-0.125000 F800.000000
G01 X82.695239 Y162.633976 Z-0.125000
G01 X80.903494 Y143.259082 Z-0.125000
G01 X81.864369 Y121.131566 Z-0.125000
G01 X86.444918 Y95.384378 Z-0.125000
G01 X82.796604 Y77.866052 Z-0.125000
G01 X80.714389 Y58.781627 Z-0.125000
G00 Z3.000000

(End cutting path id: path14602)


(Start cutting path id: path14604)
(Change tool to Default tool)

G00 Z3.000000
G00 X84.913498 Y203.807329

G00 Z4.875000 (Fast pre-penetrate)
G01 Z-0.125000 F400.0(Penetrate)
G01 X81.993195 Y185.560993 Z-0.125000 F800.000000
G01 X83.997496 Y162.390052 Z-0.125000
G01 X81.686631 Y143.534277 Z-0.125000
G01 X82.680918 Y121.373350 Z-0.125000
G01 X87.371456 Y95.516172 Z-0.125000
G01 X83.648111 Y78.072876 Z-0.125000
G01 X81.631944 Y58.922404 Z-0.125000
G00 Z3.000000

(End cutting path id: path14604)


(Start cutting path id: path14606)
(Change tool to Default tool)

G00 Z3.000000
G00 X85.981524 Y203.797635

G00 Z4.875000 (Fast pre-penetrate)
G01 Z-0.125000 F400.0(Penetrate)
G01 X83.192214 Y185.420306 Z-0.125000 F800.000000
G01 X85.299752 Y162.146127 Z-0.125000
G01 X82.469770 Y143.809470 Z-0.125000
G01 X83.497463 Y121.615136 Z-0.125000
G01 X88.297996 Y95.647963 Z-0.125000
G01 X84.499619 Y78.279701 Z-0.125000
G01 X82.549502 Y59.063178 Z-0.125000
G00 Z3.000000

(End cutting path id: path14606)


(Start cutting path id: path14608)
(Change tool to Default tool)

G00 Z3.000000
G00 X87.049553 Y203.787938

G00 Z4.875000 (Fast pre-penetrate)
G01 Z-0.125000 F400.0(Penetrate)
G01 X84.391235 Y185.279617 Z-0.125000 F800.000000
G01 X86.602009 Y161.902203 Z-0.125000
G01 X83.252906 Y144.084665 Z-0.125000
G01 X84.314009 Y121.856923 Z-0.125000
G01 X89.224537 Y95.779755 Z-0.125000
G01 X85.351126 Y78.486525 Z-0.125000
G01 X83.467057 Y59.203954 Z-0.125000
G00 Z3.000000

(End cutting path id: path14608)


(Start cutting path id: path14610)
(Change tool to Default tool)

G00 Z3.000000
G00 X88.117580 Y203.778244

G00 Z4.875000 (Fast pre-penetrate)
G01 Z-0.125000 F400.0(Penetrate)
G01 X85.590254 Y185.138930 Z-0.125000 F800.000000
G01 X87.904268 Y161.658276 Z-0.125000
G01 X84.036046 Y144.359858 Z-0.125000
G01 X85.130557 Y122.098707 Z-0.125000
G01 X90.151077 Y95.911546 Z-0.125000
G01 X86.202634 Y78.693350 Z-0.125000
G01 X84.384615 Y59.344728 Z-0.125000
G00 Z3.000000

(End cutting path id: path14610)


(Start cutting path id: path14612)
(Change tool to Default tool)

G00 Z3.000000
G00 X89.185609 Y203.768547

G00 Z4.875000 (Fast pre-penetrate)
G01 Z-0.125000 F400.0(Penetrate)
G01 X86.789275 Y184.998240 Z-0.125000 F800.000000
G01 X89.206524 Y161.414352 Z-0.125000
G01 X84.819185 Y144.635051 Z-0.125000
G01 X85.947102 Y122.340493 Z-0.125000
G01 X91.077618 Y96.043338 Z-0.125000
G01 X87.054141 Y78.900174 Z-0.125000
G01 X85.302170 Y59.485505 Z-0.125000
G00 Z3.000000

(End cutting path id: path14612)


(Start cutting path id: path14614)
(Change tool to Default tool)

G00 Z3.000000
G00 X90.253635 Y203.758853

G00 Z4.875000 (Fast pre-penetrate)
G01 Z-0.125000 F400.0(Penetrate)
G01 X87.988294 Y184.857554 Z-0.125000 F800.000000
G01 X90.508780 Y161.170427 Z-0.125000
G01 X85.602321 Y144.910246 Z-0.125000
G01 X86.763648 Y122.582280 Z-0.125000
G01 X92.004158 Y96.175129 Z-0.125000
G01 X87.905649 Y79.106999 Z-0.125000
G01 X86.219728 Y59.626279 Z-0.125000
G00 Z3.000000

(End cutting path id: path14614)


(Start cutting path id: path14616)
(Change tool to Default tool)

G00 Z3.000000
G00 X91.321664 Y203.749156

G00 Z4.875000 (Fast pre-penetrate)
G01 Z-0.125000 F400.0(Penetrate)
G01 X89.187313 Y184.716867 Z-0.125000 F800.000000
G01 X91.811037 Y160.926503 Z-0.125000
G01 X86.385461 Y145.185439 Z-0.125000
G01 X87.580196 Y122.824064 Z-0.125000
G01 X92.930696 Y96.306923 Z-0.125000
G01 X88.757156 Y79.313823 Z-0.125000
G01 X87.137284 Y59.767056 Z-0.125000
G00 Z3.000000

(End cutting path id: path14616)


(Start cutting path id: path14618)
(Change tool to Default tool)

G00 Z3.000000
G00 X92.389690 Y203.739461

G00 Z4.875000 (Fast pre-penetrate)
G01 Z-0.125000 F400.0(Penetrate)
G01 X90.386334 Y184.576178 Z-0.125000 F800.000000
G01 X93.113293 Y160.682579 Z-0.125000
G01 X87.168597 Y145.460634 Z-0.125000
G01 X88.396741 Y123.065850 Z-0.125000
G01 X93.857237 Y96.438715 Z-0.125000
G01 X89.608661 Y79.520651 Z-0.125000
G01 X88.054839 Y59.907832 Z-0.125000
G00 Z3.000000

(End cutting path id: path14618)


(Start cutting path id: path14620)
(Change tool to Default tool)

G00 Z3.000000
G00 X93.457719 Y203.729764

G00 Z4.875000 (Fast pre-penetrate)
G01 Z-0.125000 F400.0(Penetrate)
G01 X91.585353 Y184.435491 Z-0.125000 F800.000000
G01 X94.415549 Y160.438654 Z-0.125000
G01 X87.951736 Y145.735827 Z-0.125000
G01 X89.213287 Y123.307637 Z-0.125000
G01 X94.783777 Y96.570506 Z-0.125000
G01 X90.460168 Y79.727475 Z-0.125000
G01 X88.972397 Y60.048606 Z-0.125000
G00 Z3.000000

(End cutting path id: path14620)


(Start cutting path id: path14622)
(Change tool to Default tool)

G00 Z3.000000
G00 X94.525745 Y203.720070

G00 Z4.875000 (Fast pre-penetrate)
G01 Z-0.125000 F400.0(Penetrate)
G01 X92.784374 Y184.294802 Z-0.125000 F800.000000
G01 X95.717806 Y160.194730 Z-0.125000
G01 X88.734876 Y146.011020 Z-0.125000
G01 X90.029835 Y123.549421 Z-0.125000
G01 X95.710318 Y96.702298 Z-0.125000
G01 X91.311676 Y79.934300 Z-0.125000
G01 X89.889952 Y60.189383 Z-0.125000
G00 Z3.000000

(End cutting path id: path14622)


(Start cutting path id: path14624)
(Change tool to Default tool)

G00 Z3.000000
G00 X95.593774 Y203.710373

G00 Z4.875000 (Fast pre-penetrate)
G01 Z-0.125000 F400.0(Penetrate)
G01 X93.983393 Y184.154115 Z-0.125000 F800.000000
G01 X97.020062 Y159.950805 Z-0.125000
G01 X89.518012 Y146.286215 Z-0.125000
G01 X90.846380 Y123.791207 Z-0.125000
G01 X96.636859 Y96.834089 Z-0.125000
G01 X92.163183 Y80.141124 Z-0.125000
G01 X90.807510 Y60.330157 Z-0.125000
G00 Z3.000000

(End cutting path id: path14624)


(Start cutting path id: path14626)
(Change tool to Default tool)

G00 Z3.000000
G00 X96.661801 Y203.700679

G00 Z4.875000 (Fast pre-penetrate)
G01 Z-0.125000 F400.0(Penetrate)
G01 X95.182414 Y184.013425 Z-0.125000 F800.000000
G01 X98.322318 Y159.706881 Z-0.125000
G01 X90.301151 Y146.561408 Z-0.125000
G01 X91.662926 Y124.032994 Z-0.125000
G01 X97.563399 Y96.965880 Z-0.125000
G01 X93.014691 Y80.347949 Z-0.125000
G01 X91.725066 Y60.470934 Z-0.125000
G00 Z3.000000

(End cutting path id: path14626)


(Start cutting path id: path14628)
(Change tool to Default tool)

G00 Z3.000000
G00 X97.729830 Y203.690982

G00 Z4.875000 (Fast pre-penetrate)
G01 Z-0.125000 F400.0(Penetrate)
G01 X96.381433 Y183.872739 Z-0.125000 F800.000000
G01 X99.624575 Y159.462957 Z-0.125000
G01 X91.084291 Y146.836601 Z-0.125000
G01 X92.479474 Y124.274778 Z-0.125000
G01 X98.489937 Y97.097674 Z-0.125000
G01 X93.866198 Y80.554773 Z-0.125000
G01 X92.642624 Y60.611708 Z-0.125000
G00 Z3.000000

(End cutting path id: path14628)


(Start cutting path id: path14630)
(Change tool to Default tool)

G00 Z3.000000
G00 X98.797856 Y203.681287

G00 Z4.875000 (Fast pre-penetrate)
G01 Z-0.125000 F400.0(Penetrate)
G01 X97.580454 Y183.732049 Z-0.125000 F800.000000
G01 X100.926831 Y159.219032 Z-0.125000
G01 X91.867427 Y147.111796 Z-0.125000
G01 X93.296019 Y124.516564 Z-0.125000
G01 X99.416478 Y97.229466 Z-0.125000
G01 X94.717706 Y80.761598 Z-0.125000
G01 X93.560179 Y60.752485 Z-0.125000
G00 Z3.000000

(End cutting path id: path14630)


(Start cutting path id: path14632)
(Change tool to Default tool)

G00 Z3.000000
G00 X99.865885 Y203.671590

G00 Z4.875000 (Fast pre-penetrate)
G01 Z-0.125000 F400.0(Penetrate)
G01 X98.779473 Y183.591363 Z-0.125000 F800.000000
G01 X102.229087 Y158.975108 Z-0.125000
G01 X92.650566 Y147.386989 Z-0.125000
G01 X94.112565 Y124.758351 Z-0.125000
G01 X100.343018 Y97.361257 Z-0.125000
G01 X95.569213 Y80.968422 Z-0.125000
G01 X94.477737 Y60.893259 Z-0.125000
G00 Z3.000000

(End cutting path id: path14632)


(Start cutting path id: path14634)
(Change tool to Default tool)

G00 Z3.000000
G00 X100.933911 Y203.661896

G00 Z4.875000 (Fast pre-penetrate)
G01 Z-0.125000 F400.0(Penetrate)
G01 X99.978494 Y183.450673 Z-0.125000 F800.000000
G01 X103.531344 Y158.731184 Z-0.125000
G01 X93.433703 Y147.662185 Z-0.125000
G01 X94.929113 Y125.000135 Z-0.125000
G01 X101.269559 Y97.493049 Z-0.125000
G01 X96.420721 Y81.175247 Z-0.125000
G01 X95.395292 Y61.034035 Z-0.125000
G00 Z3.000000

(End cutting path id: path14634)


(Start cutting path id: path14636)
(Change tool to Default tool)

G00 Z3.000000
G00 X102.001940 Y203.652199

G00 Z4.875000 (Fast pre-penetrate)
G01 Z-0.125000 F400.0(Penetrate)
G01 X101.177513 Y183.309987 Z-0.125000 F800.000000
G01 X104.833603 Y158.487257 Z-0.125000
G01 X94.216842 Y147.937377 Z-0.125000
G01 X95.745658 Y125.241921 Z-0.125000
G01 X102.196099 Y97.624840 Z-0.125000
G01 X97.272228 Y81.382071 Z-0.125000
G01 X96.312848 Y61.174812 Z-0.125000
G00 Z3.000000

(End cutting path id: path14636)


(Start cutting path id: path14638)
(Change tool to Default tool)

G00 Z3.000000
G00 X103.069967 Y203.642505

G00 Z4.875000 (Fast pre-penetrate)
G01 Z-0.125000 F400.0(Penetrate)
G01 X102.376534 Y183.169297 Z-0.125000 F800.000000
G01 X106.135859 Y158.243332 Z-0.125000
G01 X94.999981 Y148.212570 Z-0.125000
G01 X96.562204 Y125.483708 Z-0.125000
G01 X103.122640 Y97.756632 Z-0.125000
G01 X98.123736 Y81.588896 Z-0.125000
G01 X97.230406 Y61.315586 Z-0.125000
G00 Z3.000000

(End cutting path id: path14638)


(Start cutting path id: path14642)
(Change tool to Default tool)

G00 Z3.000000
G00 X105.107290 Y203.721845

G00 Z4.875000 (Fast pre-penetrate)
G01 Z-0.125000 F400.0(Penetrate)
G01 X104.612560 Y183.049936 Z-0.125000 F800.000000
G01 X108.472484 Y158.023371 Z-0.125000
G01 X97.450412 Y147.878804 Z-0.125000
G01 X98.853770 Y125.308805 Z-0.125000
G01 X104.920555 Y98.075380 Z-0.125000
G01 X100.262005 Y81.567290 Z-0.125000
G01 X99.407344 Y61.255311 Z-0.125000
G00 Z3.000000

(End cutting path id: path14642)


(Start cutting path id: path14644)
(Change tool to Default tool)

G00 Z3.000000
G00 X106.076585 Y203.810883

G00 Z4.875000 (Fast pre-penetrate)
G01 Z-0.125000 F400.0(Penetrate)
G01 X105.649566 Y183.071261 Z-0.125000 F800.000000
G01 X109.506853 Y158.047335 Z-0.125000
G01 X99.117705 Y147.269842 Z-0.125000
G01 X100.328789 Y124.892119 Z-0.125000
G01 X105.791933 Y98.262334 Z-0.125000
G01 X101.548768 Y81.338860 Z-0.125000
G01 X100.666725 Y61.054263 Z-0.125000
G00 Z3.000000

(End cutting path id: path14644)


(Start cutting path id: path14646)
(Change tool to Default tool)

G00 Z3.000000
G00 X107.045879 Y203.899920

G00 Z4.875000 (Fast pre-penetrate)
G01 Z-0.125000 F400.0(Penetrate)
G01 X106.686570 Y183.092589 Z-0.125000 F800.000000
G01 X110.541222 Y158.071298 Z-0.125000
G01 X100.784999 Y146.660881 Z-0.125000
G01 X101.803807 Y124.475432 Z-0.125000
G01 X106.663311 Y98.449289 Z-0.125000
G01 X102.835528 Y81.110432 Z-0.125000
G01 X101.926108 Y60.853211 Z-0.125000
G00 Z3.000000

(End cutting path id: path14646)


(Start cutting path id: path14648)
(Change tool to Default tool)

G00 Z3.000000
G00 X108.015174 Y203.988958

G00 Z4.875000 (Fast pre-penetrate)
G01 Z-0.125000 F400.0(Penetrate)
G01 X107.723577 Y183.113915 Z-0.125000 F800.000000
G01 X111.575590 Y158.095261 Z-0.125000
G01 X102.452292 Y146.051919 Z-0.125000
G01 X103.278826 Y124.058746 Z-0.125000
G01 X107.534688 Y98.636243 Z-0.125000
G01 X104.122290 Y80.882002 Z-0.125000
G01 X103.185489 Y60.652163 Z-0.125000
G00 Z3.000000

(End cutting path id: path14648)


(Start cutting path id: path14650)
(Change tool to Default tool)

G00 Z3.000000
G00 X108.984468 Y204.077995

G00 Z4.875000 (Fast pre-penetrate)
G01 Z-0.125000 F400.0(Penetrate)
G01 X108.760583 Y183.135240 Z-0.125000 F800.000000
G01 X112.609959 Y158.119224 Z-0.125000
G01 X104.119586 Y145.442958 Z-0.125000
G01 X104.753844 Y123.642059 Z-0.125000
G01 X108.406066 Y98.823197 Z-0.125000
G01 X105.409052 Y80.653571 Z-0.125000
G01 X104.444870 Y60.451114 Z-0.125000
G00 Z3.000000

(End cutting path id: path14650)


(Start cutting path id: path14652)
(Change tool to Default tool)

G00 Z3.000000
G00 X109.953763 Y204.167033

G00 Z4.875000 (Fast pre-penetrate)
G01 Z-0.125000 F400.0(Penetrate)
G01 X109.797590 Y183.156565 Z-0.125000 F800.000000
G01 X113.644328 Y158.143188 Z-0.125000
G01 X105.786880 Y144.833996 Z-0.125000
G01 X106.228863 Y123.225373 Z-0.125000
G01 X109.277444 Y99.010152 Z-0.125000
G01 X106.695815 Y80.425141 Z-0.125000
G01 X105.704253 Y60.250063 Z-0.125000
G00 Z3.000000

(End cutting path id: path14652)


(Start cutting path id: path14656)
(Change tool to Default tool)

G00 Z3.000000
G00 X111.892349 Y204.345110

G00 Z4.875000 (Fast pre-penetrate)
G01 Z-0.125000 F400.0(Penetrate)
G01 X111.871606 Y183.199219 Z-0.125000 F800.000000
G01 X115.713073 Y158.191112 Z-0.125000
G01 X109.121472 Y143.616073 Z-0.125000
G01 X109.178905 Y122.392000 Z-0.125000
G01 X111.020204 Y99.384061 Z-0.125000
G01 X109.269345 Y79.968280 Z-0.125000
G01 X108.223022 Y59.847963 Z-0.125000
G00 Z3.000000

(End cutting path id: path14656)


(Start cutting path id: path14658)
(Change tool to Default tool)

G00 Z3.000000
G00 X112.861644 Y204.434148

G00 Z4.875000 (Fast pre-penetrate)
G01 Z-0.125000 F400.0(Penetrate)
G01 X112.908607 Y183.220544 Z-0.125000 F800.000000
G01 X116.747437 Y158.215075 Z-0.125000
G01 X110.788760 Y143.007111 Z-0.125000
G01 X110.653918 Y121.975313 Z-0.125000
G01 X111.891577 Y99.571015 Z-0.125000
G01 X110.556102 Y79.739850 Z-0.125000
G01 X109.482398 Y59.646914 Z-0.125000
G00 Z3.000000

(End cutting path id: path14658)


(Start cutting path id: path14660)
(Change tool to Default tool)

G00 Z3.000000
G00 X113.830938 Y204.523185

G00 Z4.875000 (Fast pre-penetrate)
G01 Z-0.125000 F400.0(Penetrate)
G01 X113.945614 Y183.241870 Z-0.125000 F800.000000
G01 X117.781805 Y158.239038 Z-0.125000
G01 X112.456054 Y142.398150 Z-0.125000
G01 X112.128937 Y121.558627 Z-0.125000
G01 X112.762954 Y99.757969 Z-0.125000
G01 X111.842864 Y79.511419 Z-0.125000
G01 X110.741781 Y59.445863 Z-0.125000
G00 Z3.000000

(End cutting path id: path14660)


(Start cutting path id: path14662)
(Change tool to Default tool)

G00 Z3.000000
G00 X114.800233 Y204.612223

G00 Z4.875000 (Fast pre-penetrate)
G01 Z-0.125000 F400.0(Penetrate)
G01 X114.982618 Y183.263198 Z-0.125000 F800.000000
G01 X118.816174 Y158.263001 Z-0.125000
G01 X114.123347 Y141.789188 Z-0.125000
G01 X113.603958 Y121.141938 Z-0.125000
G01 X113.634332 Y99.944924 Z-0.125000
G01 X113.129627 Y79.282989 Z-0.125000
G01 X112.001162 Y59.244814 Z-0.125000
G00 Z3.000000

(End cutting path id: path14662)


(Start cutting path id: path14664)
(Change tool to Default tool)

G00 Z3.000000
G00 X115.769527 Y204.701260

G00 Z4.875000 (Fast pre-penetrate)
G01 Z-0.125000 F400.0(Penetrate)
G01 X116.019624 Y183.284523 Z-0.125000 F800.000000
G01 X119.850543 Y158.286965 Z-0.125000
G01 X115.790641 Y141.180226 Z-0.125000
G01 X115.078976 Y120.725251 Z-0.125000
G01 X114.505710 Y100.131878 Z-0.125000
G01 X114.416389 Y79.054559 Z-0.125000
G01 X113.260542 Y59.043765 Z-0.125000
G00 Z3.000000

(End cutting path id: path14664)


(Start cutting path id: path14666)
(Change tool to Default tool)

G00 Z3.000000
G00 X116.738822 Y204.790298

G00 Z4.875000 (Fast pre-penetrate)
G01 Z-0.125000 F400.0(Penetrate)
G01 X117.056631 Y183.305848 Z-0.125000 F800.000000
G01 X120.884912 Y158.310928 Z-0.125000
G01 X117.457935 Y140.571265 Z-0.125000
G01 X116.553995 Y120.308565 Z-0.125000
G01 X115.377087 Y100.318832 Z-0.125000
G01 X115.703151 Y78.826128 Z-0.125000
G01 X114.519926 Y58.842714 Z-0.125000
G00 Z3.000000

(End cutting path id: path14666)


(Start cutting path id: path14668)
(Change tool to Default tool)

G00 Z3.000000
G00 X117.708116 Y204.879335

G00 Z4.875000 (Fast pre-penetrate)
G01 Z-0.125000 F400.0(Penetrate)
G01 X118.093638 Y183.327174 Z-0.125000 F800.000000
G01 X121.919283 Y158.334889 Z-0.125000
G01 X119.125228 Y139.962303 Z-0.125000
G01 X118.029013 Y119.891878 Z-0.125000
G01 X116.248465 Y100.505787 Z-0.125000
G01 X116.989914 Y78.597698 Z-0.125000
G01 X115.779306 Y58.641665 Z-0.125000
G00 Z3.000000

(End cutting path id: path14668)


(Start cutting path id: path14670)
(Change tool to Default tool)

G00 Z3.000000
G00 X118.677411 Y204.968373

G00 Z4.875000 (Fast pre-penetrate)
G01 Z-0.125000 F400.0(Penetrate)
G01 X119.130642 Y183.348502 Z-0.125000 F800.000000
G01 X122.953652 Y158.358852 Z-0.125000
G01 X120.792522 Y139.353342 Z-0.125000
G01 X119.504032 Y119.475192 Z-0.125000
G01 X117.119840 Y100.692744 Z-0.125000
G01 X118.276676 Y78.369267 Z-0.125000
G01 X117.038690 Y58.440614 Z-0.125000
G00 Z3.000000

(End cutting path id: path14670)


(Start cutting path id: path14672)
(Change tool to Default tool)

G00 Z3.000000
G00 X119.646705 Y205.057410

G00 Z4.875000 (Fast pre-penetrate)
G01 Z-0.125000 F400.0(Penetrate)
G01 X120.167648 Y183.369827 Z-0.125000 F800.000000
G01 X123.988020 Y158.382815 Z-0.125000
G01 X122.459815 Y138.744380 Z-0.125000
G01 X120.979050 Y119.058505 Z-0.125000
G01 X117.991218 Y100.879698 Z-0.125000
G01 X119.563439 Y78.140837 Z-0.125000
G01 X118.298070 Y58.239565 Z-0.125000
G00 Z3.000000

(End cutting path id: path14672)


(Start cutting path id: path14674)
(Change tool to Default tool)

G00 Z3.000000
G00 X120.616000 Y205.146448

G00 Z4.875000 (Fast pre-penetrate)
G01 Z-0.125000 F400.0(Penetrate)
G01 X121.204655 Y183.391153 Z-0.125000 F800.000000
G01 X125.022389 Y158.406778 Z-0.125000
G01 X124.127109 Y138.135419 Z-0.125000
G01 X122.454069 Y118.641819 Z-0.125000
G01 X118.862595 Y101.066652 Z-0.125000
G01 X120.850201 Y77.912407 Z-0.125000
G01 X119.557451 Y58.038517 Z-0.125000
G00 Z3.000000

(End cutting path id: path14674)


(Start cutting path id: path14676)
(Change tool to Default tool)

G00 Z3.000000
G00 X121.585294 Y205.235485

G00 Z4.875000 (Fast pre-penetrate)
G01 Z-0.125000 F400.0(Penetrate)
G01 X122.241661 Y183.412478 Z-0.125000 F800.000000
G01 X126.056758 Y158.430742 Z-0.125000
G01 X125.794403 Y137.526457 Z-0.125000
G01 X123.929087 Y118.225132 Z-0.125000
G01 X119.733973 Y101.253607 Z-0.125000
G01 X122.136963 Y77.683976 Z-0.125000
G01 X120.816834 Y57.837465 Z-0.125000
G00 Z3.000000

(End cutting path id: path14676)


(Start cutting path id: path14678)
(Change tool to Default tool)

G00 Z3.000000
G00 X122.554589 Y205.324522

G00 Z4.875000 (Fast pre-penetrate)
G01 Z-0.125000 F400.0(Penetrate)
G01 X123.278668 Y183.433803 Z-0.125000 F800.000000
G01 X127.091126 Y158.454705 Z-0.125000
G01 X127.461696 Y136.917495 Z-0.125000
G01 X125.404106 Y117.808446 Z-0.125000
G01 X120.605350 Y101.440561 Z-0.125000
G01 X123.423726 Y77.455546 Z-0.125000
G01 X122.076215 Y57.636416 Z-0.125000
G00 Z3.000000

(End cutting path id: path14678)


(Start cutting path id: path14680)
(Change tool to Default tool)

G00 Z3.000000
G00 X123.523884 Y205.413560

G00 Z4.875000 (Fast pre-penetrate)
G01 Z-0.125000 F400.0(Penetrate)
G01 X124.315672 Y183.455132 Z-0.125000 F800.000000
G01 X128.125495 Y158.478668 Z-0.125000
G01 X129.128990 Y136.308534 Z-0.125000
G01 X126.879124 Y117.391759 Z-0.125000
G01 X121.476728 Y101.627515 Z-0.125000
G01 X124.710488 Y77.227115 Z-0.125000
G01 X123.335598 Y57.435365 Z-0.125000
G00 Z3.000000

(End cutting path id: path14680)


(Start cutting path id: path14684)
(Change tool to Default tool)

G00 Z3.000000
G00 X125.314092 Y205.740016

G00 Z4.875000 (Fast pre-penetrate)
G01 Z-0.125000 F400.0(Penetrate)
G01 X126.317316 Y183.570151 Z-0.125000 F800.000000
G01 X130.001145 Y158.719682 Z-0.125000
G01 X130.673033 Y136.881155 Z-0.125000
G01 X128.065525 Y118.322023 Z-0.125000
G01 X124.216467 Y101.004441 Z-0.125000
G01 X127.215229 Y76.839038 Z-0.125000
G01 X125.877243 Y57.010384 Z-0.125000
G00 Z3.000000

(End cutting path id: path14684)


(Start cutting path id: path14686)
(Change tool to Default tool)

G00 Z3.000000
G00 X126.209197 Y205.903242

G00 Z4.875000 (Fast pre-penetrate)
G01 Z-0.125000 F400.0(Penetrate)
G01 X127.318139 Y183.627661 Z-0.125000 F800.000000
G01 X130.938968 Y158.840192 Z-0.125000
G01 X131.445054 Y137.167465 Z-0.125000
G01 X128.658725 Y118.787154 Z-0.125000
G01 X125.586334 Y100.692905 Z-0.125000
G01 X128.467601 Y76.644998 Z-0.125000
G01 X127.148067 Y56.797892 Z-0.125000
G00 Z3.000000

(End cutting path id: path14686)


(Start cutting path id: path14688)
(Change tool to Default tool)

G00 Z3.000000
G00 X127.104300 Y206.066471

G00 Z4.875000 (Fast pre-penetrate)
G01 Z-0.125000 F400.0(Penetrate)
G01 X128.318958 Y183.685173 Z-0.125000 F800.000000
G01 X131.876793 Y158.960699 Z-0.125000
G01 X132.217078 Y137.453773 Z-0.125000
G01 X129.251926 Y119.252286 Z-0.125000
G01 X126.956202 Y100.381369 Z-0.125000
G01 X129.719970 Y76.450961 Z-0.125000
G01 X128.418891 Y56.585400 Z-0.125000
G00 Z3.000000

(End cutting path id: path14688)


(Start cutting path id: path14690)
(Change tool to Default tool)

G00 Z3.000000
G00 X127.999406 Y206.229698

G00 Z4.875000 (Fast pre-penetrate)
G01 Z-0.125000 F400.0(Penetrate)
G01 X129.319781 Y183.742683 Z-0.125000 F800.000000
G01 X132.814615 Y159.081208 Z-0.125000
G01 X132.989100 Y137.740084 Z-0.125000
G01 X129.845126 Y119.717418 Z-0.125000
G01 X128.326073 Y100.069831 Z-0.125000
G01 X130.972342 Y76.256921 Z-0.125000
G01 X129.689715 Y56.372908 Z-0.125000
G00 Z3.000000

(End cutting path id: path14690)


(Start cutting path id: path14692)
(Change tool to Default tool)

G00 Z3.000000
G00 X128.894511 Y206.392925

G00 Z4.875000 (Fast pre-penetrate)
G01 Z-0.125000 F400.0(Penetrate)
G01 X130.320603 Y183.800193 Z-0.125000 F800.000000
G01 X133.752440 Y159.201715 Z-0.125000
G01 X133.761118 Y138.026394 Z-0.125000
G01 X130.438324 Y120.182549 Z-0.125000
G01 X129.695938 Y99.758295 Z-0.125000
G01 X132.224709 Y76.062884 Z-0.125000
G01 X130.960534 Y56.160419 Z-0.125000
G00 Z3.000000

(End cutting path id: path14692)


(Start cutting path id: path14694)
(Change tool to Default tool)

G00 Z3.000000
G00 X129.789614 Y206.556154

G00 Z4.875000 (Fast pre-penetrate)
G01 Z-0.125000 F400.0(Penetrate)
G01 X131.321425 Y183.857702 Z-0.125000 F800.000000
G01 X134.690265 Y159.322222 Z-0.125000
G01 X134.533142 Y138.312705 Z-0.125000
G01 X131.031527 Y120.647681 Z-0.125000
G01 X131.065809 Y99.446759 Z-0.125000
G01 X133.477083 Y75.868844 Z-0.125000
G01 X132.231360 Y55.947927 Z-0.125000
G00 Z3.000000

(End cutting path id: path14694)


(Start cutting path id: path14696)
(Change tool to Default tool)

G00 Z3.000000
G00 X130.684719 Y206.719380

G00 Z4.875000 (Fast pre-penetrate)
G01 Z-0.125000 F400.0(Penetrate)
G01 X132.322247 Y183.915212 Z-0.125000 F800.000000
G01 X135.628087 Y159.442732 Z-0.125000
G01 X135.305164 Y138.599016 Z-0.125000
G01 X131.624727 Y121.112812 Z-0.125000
G01 X132.435679 Y99.135220 Z-0.125000
G01 X134.729452 Y75.674807 Z-0.125000
G01 X133.502184 Y55.735435 Z-0.125000
G00 Z3.000000

(End cutting path id: path14696)


(Start cutting path id: path14698)
(Change tool to Default tool)

G00 Z3.000000
G00 X131.579825 Y206.882607

G00 Z4.875000 (Fast pre-penetrate)
G01 Z-0.125000 F400.0(Penetrate)
G01 X133.323069 Y183.972722 Z-0.125000 F800.000000
G01 X136.565913 Y159.563239 Z-0.125000
G01 X136.077185 Y138.885326 Z-0.125000
G01 X132.217927 Y121.577944 Z-0.125000
G01 X133.805547 Y98.823684 Z-0.125000
G01 X135.981824 Y75.480767 Z-0.125000
G01 X134.773008 Y55.522943 Z-0.125000
G00 Z3.000000

(End cutting path id: path14698)


(Start cutting path id: path14700)
(Change tool to Default tool)

G00 Z3.000000
G00 X132.474928 Y207.045836

G00 Z4.875000 (Fast pre-penetrate)
G01 Z-0.125000 F400.0(Penetrate)
G01 X134.323889 Y184.030234 Z-0.125000 F800.000000
G01 X137.503735 Y159.683749 Z-0.125000
G01 X136.849209 Y139.171634 Z-0.125000
G01 X132.811128 Y122.043076 Z-0.125000
G01 X135.175415 Y98.512148 Z-0.125000
G01 X137.234194 Y75.286730 Z-0.125000
G01 X136.043832 Y55.310451 Z-0.125000
G00 Z3.000000

(End cutting path id: path14700)


(Start cutting path id: path14702)
(Change tool to Default tool)

G00 Z3.000000
G00 X133.370033 Y207.209063

G00 Z4.875000 (Fast pre-penetrate)
G01 Z-0.125000 F400.0(Penetrate)
G01 X135.324711 Y184.087744 Z-0.125000 F800.000000
G01 X138.441560 Y159.804256 Z-0.125000
G01 X137.621231 Y139.457945 Z-0.125000
G01 X133.404328 Y122.508207 Z-0.125000
G01 X136.545286 Y98.200610 Z-0.125000
G01 X138.486565 Y75.092690 Z-0.125000
G01 X137.314653 Y55.097962 Z-0.125000
G00 Z3.000000

(End cutting path id: path14702)


(Start cutting path id: path14704)
(Change tool to Default tool)

G00 Z3.000000
G00 X134.265138 Y207.372289

G00 Z4.875000 (Fast pre-penetrate)
G01 Z-0.125000 F400.0(Penetrate)
G01 X136.325534 Y184.145254 Z-0.125000 F800.000000
G01 X139.379385 Y159.924763 Z-0.125000
G01 X138.393252 Y139.744255 Z-0.125000
G01 X133.997529 Y122.973339 Z-0.125000
G01 X137.915154 Y97.889074 Z-0.125000
G01 X139.738935 Y74.898653 Z-0.125000
G01 X138.585477 Y54.885470 Z-0.125000
G00 Z3.000000

(End cutting path id: path14704)


(Start cutting path id: path14706)
(Change tool to Default tool)

G00 Z3.000000
G00 X135.160244 Y207.535516

G00 Z4.875000 (Fast pre-penetrate)
G01 Z-0.125000 F400.0(Penetrate)
G01 X137.326356 Y184.202764 Z-0.125000 F800.000000
G01 X140.317207 Y160.045272 Z-0.125000
G01 X139.165274 Y140.030566 Z-0.125000
G01 X134.590732 Y123.438468 Z-0.125000
G01 X139.285021 Y97.577538 Z-0.125000
G01 X140.991307 Y74.704613 Z-0.125000
G01 X139.856301 Y54.672978 Z-0.125000
G00 Z3.000000

(End cutting path id: path14706)


(Start cutting path id: path14708)
(Change tool to Default tool)

G00 Z3.000000
G00 X136.055347 Y207.698745

G00 Z4.875000 (Fast pre-penetrate)
G01 Z-0.125000 F400.0(Penetrate)
G01 X138.327178 Y184.260273 Z-0.125000 F800.000000
G01 X141.255032 Y160.165779 Z-0.125000
G01 X139.937295 Y140.316876 Z-0.125000
G01 X135.183932 Y123.903600 Z-0.125000
G01 X140.654892 Y97.266000 Z-0.125000
G01 X142.243676 Y74.510576 Z-0.125000
G01 X141.127125 Y54.460487 Z-0.125000
G00 Z3.000000

(End cutting path id: path14708)


(Start cutting path id: path14710)
(Change tool to Default tool)

G00 Z3.000000
G00 X136.950452 Y207.861971

G00 Z4.875000 (Fast pre-penetrate)
G01 Z-0.125000 F400.0(Penetrate)
G01 X139.327998 Y184.317786 Z-0.125000 F800.000000
G01 X142.192855 Y160.286289 Z-0.125000
G01 X140.709317 Y140.603187 Z-0.125000
G01 X135.777132 Y124.368731 Z-0.125000
G01 X142.024760 Y96.954464 Z-0.125000
G01 X143.496048 Y74.316536 Z-0.125000
G01 X142.397949 Y54.247995 Z-0.125000
G00 Z3.000000

(End cutting path id: path14710)


(Start cutting path id: path14724)
(Change tool to Default tool)

G00 Z3.000000
G00 X144.329257 Y207.891491

G00 Z4.875000 (Fast pre-penetrate)
G01 Z-0.125000 F400.0(Penetrate)
G01 X146.991070 Y184.063037 Z-0.125000 F800.000000
G01 X149.104810 Y160.782657 Z-0.125000
G01 X147.262966 Y141.457861 Z-0.125000
G01 X141.296085 Y126.258102 Z-0.125000
G01 X151.069479 Y95.318068 Z-0.125000
G01 X151.163600 Y74.057308 Z-0.125000
G01 X150.872754 Y53.181513 Z-0.125000
G00 Z3.000000

(End cutting path id: path14724)


(Start cutting path id: path14722)
(Change tool to Default tool)

G00 Z3.000000
G00 X142.877617 Y208.284799

G00 Z4.875000 (Fast pre-penetrate)
G01 Z-0.125000 F400.0(Penetrate)
G01 X145.661588 Y184.334187 Z-0.125000 F800.000000
G01 X147.993393 Y160.835743 Z-0.125000
G01 X145.916196 Y141.746299 Z-0.125000
G01 X140.019610 Y126.476246 Z-0.125000
G01 X149.971791 Y95.357425 Z-0.125000
G01 X150.460751 Y73.701825 Z-0.125000
G01 X149.812409 Y53.183527 Z-0.125000
G00 Z3.000000

(End cutting path id: path14722)


(Start cutting path id: path14712)
(Change tool to Default tool)

G00 Z3.000000
G00 X137.845558 Y208.025198

G00 Z4.875000 (Fast pre-penetrate)
G01 Z-0.125000 F400.0(Penetrate)
G01 X140.328820 Y184.375296 Z-0.125000 F800.000000
G01 X143.130680 Y160.406796 Z-0.125000
G01 X141.481341 Y140.889495 Z-0.125000
G01 X136.370333 Y124.833863 Z-0.125000
G01 X143.394628 Y96.642928 Z-0.125000
G01 X144.748417 Y74.122499 Z-0.125000
G01 X143.668770 Y54.035505 Z-0.125000
G00 Z3.000000

(End cutting path id: path14712)


(Start cutting path id: path14714)
(Change tool to Default tool)

G00 Z3.000000
G00 X138.740660 Y208.188427

G00 Z4.875000 (Fast pre-penetrate)
G01 Z-0.125000 F400.0(Penetrate)
G01 X141.329642 Y184.432805 Z-0.125000 F800.000000
G01 X144.068505 Y160.527303 Z-0.125000
G01 X142.253362 Y141.175805 Z-0.125000
G01 X136.963533 Y125.298994 Z-0.125000
G01 X144.764498 Y96.331389 Z-0.125000
G01 X146.000789 Y73.928459 Z-0.125000
G01 X144.939594 Y53.823013 Z-0.125000
G00 Z3.000000

(End cutting path id: path14714)


(Start cutting path id: path14716)
(Change tool to Default tool)

G00 Z3.000000
G00 X139.635766 Y208.351654

G00 Z4.875000 (Fast pre-penetrate)
G01 Z-0.125000 F400.0(Penetrate)
G01 X142.330464 Y184.490315 Z-0.125000 F800.000000
G01 X145.006327 Y160.647812 Z-0.125000
G01 X143.025384 Y141.462116 Z-0.125000
G01 X137.556734 Y125.764126 Z-0.125000
G01 X146.134366 Y96.019853 Z-0.125000
G01 X147.253158 Y73.734421 Z-0.125000
G01 X146.210418 Y53.610522 Z-0.125000
G00 Z3.000000

(End cutting path id: path14716)


(Start cutting path id: path14718)
(Change tool to Default tool)

G00 Z3.000000
G00 X140.530871 Y208.514880

G00 Z4.875000 (Fast pre-penetrate)
G01 Z-0.125000 F400.0(Penetrate)
G01 X143.331287 Y184.547825 Z-0.125000 F800.000000
G01 X145.944152 Y160.768319 Z-0.125000
G01 X143.797405 Y141.748426 Z-0.125000
G01 X138.149934 Y126.229258 Z-0.125000
G01 X147.504234 Y95.708317 Z-0.125000
G01 X148.505530 Y73.540382 Z-0.125000
G01 X147.481242 Y53.398030 Z-0.125000
G00 Z3.000000

(End cutting path id: path14718)


(Start cutting path id: path14720)
(Change tool to Default tool)

G00 Z3.000000
G00 X141.425974 Y208.678109

G00 Z4.875000 (Fast pre-penetrate)
G01 Z-0.125000 F400.0(Penetrate)
G01 X144.332106 Y184.605337 Z-0.125000 F800.000000
G01 X146.881977 Y160.888826 Z-0.125000
G01 X144.569427 Y142.034737 Z-0.125000
G01 X138.743134 Y126.694389 Z-0.125000
G01 X148.874105 Y95.396779 Z-0.125000
G01 X149.757899 Y73.346344 Z-0.125000
G01 X148.752063 Y53.185540 Z-0.125000
G00 Z3.000000

(End cutting path id: path14720)


(Start cutting path id: path14542)
(Change tool to Default tool)

G00 Z3.000000
G00 X53.833698 Y202.078838

G00 Z4.875000 (Fast pre-penetrate)
G01 Z-0.125000 F400.0(Penetrate)
G01 X56.265636 Y178.480259 Z-0.125000 F800.000000
G01 X49.792084 Y163.787172 Z-0.125000
G01 X50.158679 Y142.253936 Z-0.125000
G01 X49.439442 Y121.806533 Z-0.125000
G01 X49.019107 Y101.060228 Z-0.125000
G01 X49.225863 Y79.686832 Z-0.125000
G01 X54.137741 Y53.608315 Z-0.125000
G00 Z3.000000

(End cutting path id: path14542)


(Start cutting path id: path14480)
(Change tool to Default tool)

G00 Z3.000000
G00 X24.148231 Y198.956012

G00 Z4.875000 (Fast pre-penetrate)
G01 Z-0.125000 F400.0(Penetrate)
G01 X18.623637 Y183.313966 Z-0.125000 F800.000000
G01 X15.072584 Y165.698379 Z-0.125000
G01 X16.551893 Y143.052429 Z-0.125000
G01 X20.723059 Y117.714625 Z-0.125000
G01 X16.075148 Y101.195896 Z-0.125000
G01 X20.379722 Y75.724681 Z-0.125000
G01 X23.083732 Y51.854032 Z-0.125000
G00 Z3.000000

(End cutting path id: path14480)


(Start cutting path id: path14482)
(Change tool to Default tool)

G00 Z3.000000
G00 X24.815390 Y199.347185

G00 Z4.875000 (Fast pre-penetrate)
G01 Z-0.125000 F400.0(Penetrate)
G01 X19.916775 Y183.079162 Z-0.125000 F800.000000
G01 X16.339760 Y165.489536 Z-0.125000
G01 X17.633470 Y143.029185 Z-0.125000
G01 X21.675229 Y117.820786 Z-0.125000
G01 X17.146619 Y101.182757 Z-0.125000
G01 X21.076565 Y76.086170 Z-0.125000
G01 X24.153266 Y51.842829 Z-0.125000
G00 Z3.000000

(End cutting path id: path14482)


(Start cutting path id: path14484)
(Change tool to Default tool)

G00 Z3.000000
G00 X25.482552 Y199.738355

G00 Z4.875000 (Fast pre-penetrate)
G01 Z-0.125000 F400.0(Penetrate)
G01 X21.209913 Y182.844355 Z-0.125000 F800.000000
G01 X17.606935 Y165.280692 Z-0.125000
G01 X18.715047 Y143.005942 Z-0.125000
G01 X22.627403 Y117.926945 Z-0.125000
G01 X18.218090 Y101.169617 Z-0.125000
G01 X21.773408 Y76.447659 Z-0.125000
G01 X25.222801 Y51.831627 Z-0.125000
G00 Z3.000000

(End cutting path id: path14484)


(Start cutting path id: path14486)
(Change tool to Default tool)

G00 Z3.000000
G00 X26.149712 Y200.129528

G00 Z4.875000 (Fast pre-penetrate)
G01 Z-0.125000 F400.0(Penetrate)
G01 X22.503049 Y182.609551 Z-0.125000 F800.000000
G01 X18.874110 Y165.071849 Z-0.125000
G01 X19.796624 Y142.982696 Z-0.125000
G01 X23.579574 Y118.033106 Z-0.125000
G01 X19.289562 Y101.156478 Z-0.125000
G01 X22.470254 Y76.809146 Z-0.125000
G01 X26.292332 Y51.820427 Z-0.125000
G00 Z3.000000

(End cutting path id: path14486)


(Start cutting path id: path14488)
(Change tool to Default tool)

G00 Z3.000000
G00 X26.816871 Y200.520701

G00 Z4.875000 (Fast pre-penetrate)
G01 Z-0.125000 F400.0(Penetrate)
G01 X23.796188 Y182.374744 Z-0.125000 F800.000000
G01 X20.141286 Y164.863006 Z-0.125000
G01 X20.878200 Y142.959452 Z-0.125000
G01 X24.531747 Y118.139265 Z-0.125000
G01 X20.361033 Y101.143339 Z-0.125000
G01 X23.167097 Y77.170635 Z-0.125000
G01 X27.361867 Y51.809225 Z-0.125000
G00 Z3.000000

(End cutting path id: path14488)


(Start cutting path id: path14490)
(Change tool to Default tool)

G00 Z3.000000
G00 X27.484030 Y200.911873

G00 Z4.875000 (Fast pre-penetrate)
G01 Z-0.125000 F400.0(Penetrate)
G01 X25.089324 Y182.139940 Z-0.125000 F800.000000
G01 X21.408461 Y164.654163 Z-0.125000
G01 X21.959778 Y142.936206 Z-0.125000
G01 X25.483918 Y118.245426 Z-0.125000
G01 X21.432504 Y101.130200 Z-0.125000
G01 X23.863939 Y77.532124 Z-0.125000
G01 X28.431401 Y51.798022 Z-0.125000
G00 Z3.000000

(End cutting path id: path14490)


(Start cutting path id: path14492)
(Change tool to Default tool)

G00 Z3.000000
G00 X28.151189 Y201.303046

G00 Z4.875000 (Fast pre-penetrate)
G01 Z-0.125000 F400.0(Penetrate)
G01 X26.382460 Y181.905136 Z-0.125000 F800.000000
G01 X22.675636 Y164.445319 Z-0.125000
G01 X23.041353 Y142.912962 Z-0.125000
G01 X26.436091 Y118.351585 Z-0.125000
G01 X22.503975 Y101.117061 Z-0.125000
G01 X24.560782 Y77.893613 Z-0.125000
G01 X29.500933 Y51.786822 Z-0.125000
G00 Z3.000000

(End cutting path id: path14492)


(Start cutting path id: path14494)
(Change tool to Default tool)

G00 Z3.000000
G00 X28.818351 Y201.694216

G00 Z4.875000 (Fast pre-penetrate)
G01 Z-0.125000 F400.0(Penetrate)
G01 X27.675599 Y181.670329 Z-0.125000 F800.000000
G01 X23.942812 Y164.236476 Z-0.125000
G01 X24.122929 Y142.889718 Z-0.125000
G01 X27.388264 Y118.457743 Z-0.125000
G01 X23.575446 Y101.103921 Z-0.125000
G01 X25.257628 Y78.255100 Z-0.125000
G01 X30.570468 Y51.775620 Z-0.125000
G00 Z3.000000

(End cutting path id: path14494)


(Start cutting path id: path14496)
(Change tool to Default tool)

G00 Z3.000000
G00 X29.485511 Y202.085389

G00 Z4.875000 (Fast pre-penetrate)
G01 Z-0.125000 F400.0(Penetrate)
G01 X28.968735 Y181.435524 Z-0.125000 F800.000000
G01 X25.209987 Y164.027633 Z-0.125000
G01 X25.204510 Y142.866472 Z-0.125000
G01 X28.340438 Y118.563904 Z-0.125000
G01 X24.646920 Y101.090782 Z-0.125000
G01 X25.954473 Y78.616589 Z-0.125000
G01 X31.640005 Y51.764417 Z-0.125000
G00 Z3.000000

(End cutting path id: path14496)


(Start cutting path id: path14498)
(Change tool to Default tool)

G00 Z3.000000
G00 X30.152670 Y202.476562

G00 Z4.875000 (Fast pre-penetrate)
G01 Z-0.125000 F400.0(Penetrate)
G01 X30.261874 Y181.200718 Z-0.125000 F800.000000
G01 X26.477162 Y163.818789 Z-0.125000
G01 X26.286083 Y142.843229 Z-0.125000
G01 X29.292608 Y118.670063 Z-0.125000
G01 X25.718388 Y101.077643 Z-0.125000
G01 X26.651313 Y78.978078 Z-0.125000
G01 X32.709536 Y51.753215 Z-0.125000
G00 Z3.000000

(End cutting path id: path14498)


(Start cutting path id: path14500)
(Change tool to Default tool)

G00 Z3.000000
G00 X30.819829 Y202.867734

G00 Z4.875000 (Fast pre-penetrate)
G01 Z-0.125000 F400.0(Penetrate)
G01 X31.555010 Y180.965913 Z-0.125000 F800.000000
G01 X27.744337 Y163.609946 Z-0.125000
G01 X27.367661 Y142.819982 Z-0.125000
G01 X30.244779 Y118.776224 Z-0.125000
G01 X26.789860 Y101.064504 Z-0.125000
G01 X27.348156 Y79.339567 Z-0.125000
G01 X33.779068 Y51.742015 Z-0.125000
G00 Z3.000000

(End cutting path id: path14500)


(Start cutting path id: path14502)
(Change tool to Default tool)

G00 Z3.000000
G00 X31.486988 Y203.258907

G00 Z4.875000 (Fast pre-penetrate)
G01 Z-0.125000 F400.0(Penetrate)
G01 X32.848146 Y180.731109 Z-0.125000 F800.000000
G01 X29.011513 Y163.401103 Z-0.125000
G01 X28.449237 Y142.796739 Z-0.125000
G01 X31.196952 Y118.882383 Z-0.125000
G01 X27.861331 Y101.051365 Z-0.125000
G01 X28.045002 Y79.701054 Z-0.125000
G01 X34.848603 Y51.730813 Z-0.125000
G00 Z3.000000

(End cutting path id: path14502)


(Start cutting path id: path14540)
(Change tool to Default tool)

G00 Z3.000000
G00 X52.348038 Y202.506166

G00 Z4.875000 (Fast pre-penetrate)
G01 Z-0.125000 F400.0(Penetrate)
G01 X55.194795 Y178.492769 Z-0.125000 F800.000000
G01 X48.939722 Y163.581202 Z-0.125000
G01 X49.070018 Y142.284265 Z-0.125000
G01 X48.560085 Y121.627559 Z-0.125000
G01 X47.972332 Y101.048671 Z-0.125000
G01 X47.870473 Y79.983890 Z-0.125000
G01 X53.259256 Y53.428467 Z-0.125000
G00 Z3.000000

(End cutting path id: path14540)


(Start cutting path id: path14538)
(Change tool to Default tool)

G00 Z3.000000
G00 X50.862375 Y202.933496

G00 Z4.875000 (Fast pre-penetrate)
G01 Z-0.125000 F400.0(Penetrate)
G01 X54.123953 Y178.505278 Z-0.125000 F800.000000
G01 X48.087360 Y163.375232 Z-0.125000
G01 X47.981360 Y142.314592 Z-0.125000
G01 X47.680725 Y121.448587 Z-0.125000
G01 X46.925555 Y101.037117 Z-0.125000
G01 X46.515086 Y80.280946 Z-0.125000
G01 X52.380772 Y53.248620 Z-0.125000
G00 Z3.000000

(End cutting path id: path14538)


(Start cutting path id: path14536)
(Change tool to Default tool)

G00 Z3.000000
G00 X49.376715 Y203.360825

G00 Z4.875000 (Fast pre-penetrate)
G01 Z-0.125000 F400.0(Penetrate)
G01 X53.053112 Y178.517788 Z-0.125000 F800.000000
G01 X47.234995 Y163.169265 Z-0.125000
G01 X46.892701 Y142.344918 Z-0.125000
G01 X46.801367 Y121.269612 Z-0.125000
G01 X45.878780 Y101.025560 Z-0.125000
G01 X45.159699 Y80.578001 Z-0.125000
G01 X51.502288 Y53.068772 Z-0.125000
G00 Z3.000000

(End cutting path id: path14536)


(Start cutting path id: path14534)
(Change tool to Default tool)

G00 Z3.000000
G00 X47.891052 Y203.788155

G00 Z4.875000 (Fast pre-penetrate)
G01 Z-0.125000 F400.0(Penetrate)
G01 X51.982270 Y178.530297 Z-0.125000 F800.000000
G01 X46.382633 Y162.963295 Z-0.125000
G01 X45.804043 Y142.375245 Z-0.125000
G01 X45.922010 Y121.090638 Z-0.125000
G01 X44.832005 Y101.014003 Z-0.125000
G01 X43.804309 Y80.875059 Z-0.125000
G01 X50.623801 Y52.888927 Z-0.125000
G00 Z3.000000

(End cutting path id: path14534)


(Start cutting path id: path14532)
(Change tool to Default tool)

G00 Z3.000000
G00 X46.405392 Y204.215483

G00 Z4.875000 (Fast pre-penetrate)
G01 Z-0.125000 F400.0(Penetrate)
G01 X50.911429 Y178.542807 Z-0.125000 F800.000000
G01 X45.530271 Y162.757325 Z-0.125000
G01 X44.715382 Y142.405574 Z-0.125000
G01 X45.042650 Y120.911666 Z-0.125000
G01 X43.785227 Y101.002449 Z-0.125000
G01 X42.448921 Y81.172114 Z-0.125000
G01 X49.745316 Y52.709079 Z-0.125000
G00 Z3.000000

(End cutting path id: path14532)


(Start cutting path id: path14504)
(Change tool to Default tool)

G00 Z3.000000
G00 X32.154148 Y203.650080

G00 Z4.875000 (Fast pre-penetrate)
G01 Z-0.125000 F400.0(Penetrate)
G01 X34.141285 Y180.496302 Z-0.125000 F800.000000
G01 X30.278688 Y163.192259 Z-0.125000
G01 X29.530815 Y142.773492 Z-0.125000
G01 X32.149123 Y118.988544 Z-0.125000
G01 X28.932802 Y101.038226 Z-0.125000
G01 X28.741844 Y80.062543 Z-0.125000
G01 X35.918137 Y51.719610 Z-0.125000
G00 Z3.000000

(End cutting path id: path14504)


(Start cutting path id: path14506)
(Change tool to Default tool)

G00 Z3.000000
G00 X32.821310 Y204.041250

G00 Z4.875000 (Fast pre-penetrate)
G01 Z-0.125000 F400.0(Penetrate)
G01 X35.434421 Y180.261498 Z-0.125000 F800.000000
G01 X31.545863 Y162.983416 Z-0.125000
G01 X30.612391 Y142.750249 Z-0.125000
G01 X33.101297 Y119.094703 Z-0.125000
G01 X30.004273 Y101.025086 Z-0.125000
G01 X29.438687 Y80.424032 Z-0.125000
G01 X36.987669 Y51.708411 Z-0.125000
G00 Z3.000000

(End cutting path id: path14506)


(Start cutting path id: path14508)
(Change tool to Default tool)

G00 Z3.000000
G00 X33.488469 Y204.432423

G00 Z4.875000 (Fast pre-penetrate)
G01 Z-0.125000 F400.0(Penetrate)
G01 X36.727557 Y180.026694 Z-0.125000 F800.000000
G01 X32.813039 Y162.774573 Z-0.125000
G01 X31.693966 Y142.727005 Z-0.125000
G01 X34.053467 Y119.200864 Z-0.125000
G01 X31.075744 Y101.011947 Z-0.125000
G01 X30.135530 Y80.785521 Z-0.125000
G01 X38.057203 Y51.697208 Z-0.125000
G00 Z3.000000

(End cutting path id: path14508)


(Start cutting path id: path14530)
(Change tool to Default tool)

G00 Z3.000000
G00 X44.919732 Y204.642811

G00 Z4.875000 (Fast pre-penetrate)
G01 Z-0.125000 F400.0(Penetrate)
G01 X49.840587 Y178.555316 Z-0.125000 F800.000000
G01 X44.677906 Y162.551357 Z-0.125000
G01 X43.626723 Y142.435900 Z-0.125000
G01 X44.163292 Y120.732691 Z-0.125000
G01 X42.738452 Y100.990892 Z-0.125000
G01 X41.093534 Y81.469169 Z-0.125000
G01 X48.866832 Y52.529232 Z-0.125000
G00 Z3.000000

(End cutting path id: path14530)


(Start cutting path id: path14528)
(Change tool to Default tool)

G00 Z3.000000
G00 X43.434070 Y205.070142

G00 Z4.875000 (Fast pre-penetrate)
G01 Z-0.125000 F400.0(Penetrate)
G01 X48.769748 Y178.567823 Z-0.125000 F800.000000
G01 X43.825544 Y162.345387 Z-0.125000
G01 X42.538065 Y142.466227 Z-0.125000
G01 X43.283935 Y120.553717 Z-0.125000
G01 X41.691674 Y100.979337 Z-0.125000
G01 X39.738144 Y81.766227 Z-0.125000
G01 X47.988347 Y52.349384 Z-0.125000
G00 Z3.000000

(End cutting path id: path14528)


(Start cutting path id: path14510)
(Change tool to Default tool)

G00 Z3.000000
G00 X34.155628 Y204.823595

G00 Z4.875000 (Fast pre-penetrate)
G01 Z-0.125000 F400.0(Penetrate)
G01 X38.020696 Y179.791887 Z-0.125000 F800.000000
G01 X34.080214 Y162.565730 Z-0.125000
G01 X32.775545 Y142.703759 Z-0.125000
G01 X35.005641 Y119.307023 Z-0.125000
G01 X32.147216 Y100.998808 Z-0.125000
G01 X30.832376 Y81.147008 Z-0.125000
G01 X39.126738 Y51.686006 Z-0.125000
G00 Z3.000000

(End cutting path id: path14510)


(Start cutting path id: path14512)
(Change tool to Default tool)

G00 Z3.000000
G00 X34.822787 Y205.214768

G00 Z4.875000 (Fast pre-penetrate)
G01 Z-0.125000 F400.0(Penetrate)
G01 X39.313832 Y179.557083 Z-0.125000 F800.000000
G01 X35.347389 Y162.356886 Z-0.125000
G01 X33.857120 Y142.680515 Z-0.125000
G01 X35.957811 Y119.413184 Z-0.125000
G01 X33.218687 Y100.985669 Z-0.125000
G01 X31.529218 Y81.508497 Z-0.125000
G01 X40.196272 Y51.674803 Z-0.125000
G00 Z3.000000

(End cutting path id: path14512)


(Start cutting path id: path14526)
(Change tool to Default tool)

G00 Z3.000000
G00 X41.948410 Y205.497470

G00 Z4.875000 (Fast pre-penetrate)
G01 Z-0.125000 F400.0(Penetrate)
G01 X47.698907 Y178.580333 Z-0.125000 F800.000000
G01 X42.973179 Y162.139420 Z-0.125000
G01 X41.449406 Y142.496553 Z-0.125000
G01 X42.404575 Y120.374745 Z-0.125000
G01 X40.644899 Y100.967780 Z-0.125000
G01 X38.382757 Y82.063283 Z-0.125000
G01 X47.109860 Y52.169539 Z-0.125000
G00 Z3.000000

(End cutting path id: path14526)


(Start cutting path id: path14514)
(Change tool to Default tool)

G00 Z3.000000
G00 X35.489947 Y205.605941

G00 Z4.875000 (Fast pre-penetrate)
G01 Z-0.125000 F400.0(Penetrate)
G01 X40.606971 Y179.322276 Z-0.125000 F800.000000
G01 X36.614565 Y162.148043 Z-0.125000
G01 X34.938699 Y142.657269 Z-0.125000
G01 X36.909985 Y119.519343 Z-0.125000
G01 X34.290158 Y100.972530 Z-0.125000
G01 X32.226061 Y81.869986 Z-0.125000
G01 X41.265804 Y51.663603 Z-0.125000
G00 Z3.000000

(End cutting path id: path14514)


(Start cutting path id: path14524)
(Change tool to Default tool)

G00 Z3.000000
G00 X40.462750 Y205.924798

G00 Z4.875000 (Fast pre-penetrate)
G01 Z-0.125000 F400.0(Penetrate)
G01 X46.628065 Y178.592842 Z-0.125000 F800.000000
G01 X42.120817 Y161.933450 Z-0.125000
G01 X40.360745 Y142.526882 Z-0.125000
G01 X41.525217 Y120.195770 Z-0.125000
G01 X39.598122 Y100.956226 Z-0.125000
G01 X37.027367 Y82.360341 Z-0.125000
G01 X46.231376 Y51.989691 Z-0.125000
G00 Z3.000000

(End cutting path id: path14524)


(Start cutting path id: path14516)
(Change tool to Default tool)

G00 Z3.000000
G00 X36.157109 Y205.997111

G00 Z4.875000 (Fast pre-penetrate)
G01 Z-0.125000 F400.0(Penetrate)
G01 X41.900107 Y179.087472 Z-0.125000 F800.000000
G01 X37.881740 Y161.939200 Z-0.125000
G01 X36.020274 Y142.634025 Z-0.125000
G01 X37.862155 Y119.625504 Z-0.125000
G01 X35.361629 Y100.959390 Z-0.125000
G01 X32.922904 Y82.231475 Z-0.125000
G01 X42.335339 Y51.652401 Z-0.125000
G00 Z3.000000

(End cutting path id: path14516)


(Start cutting path id: path14522)
(Change tool to Default tool)

G00 Z3.000000
G00 X38.977087 Y206.352128

G00 Z4.875000 (Fast pre-penetrate)
G01 Z-0.125000 F400.0(Penetrate)
G01 X45.557224 Y178.605352 Z-0.125000 F800.000000
G01 X41.268455 Y161.727480 Z-0.125000
G01 X39.272087 Y142.557209 Z-0.125000
G01 X40.645860 Y120.016796 Z-0.125000
G01 X38.551347 Y100.944669 Z-0.125000
G01 X35.671980 Y82.657396 Z-0.125000
G01 X45.352892 Y51.809844 Z-0.125000
G00 Z3.000000

(End cutting path id: path14522)


(Start cutting path id: path14518)
(Change tool to Default tool)

G00 Z3.000000
G00 X36.824268 Y206.388284

G00 Z4.875000 (Fast pre-penetrate)
G01 Z-0.125000 F400.0(Penetrate)
G01 X43.193244 Y178.852668 Z-0.125000 F800.000000
G01 X39.148915 Y161.730356 Z-0.125000
G01 X37.101850 Y142.610782 Z-0.125000
G01 X38.814329 Y119.731663 Z-0.125000
G01 X36.433100 Y100.946251 Z-0.125000
G01 X33.619747 Y82.592965 Z-0.125000
G01 X43.404873 Y51.641199 Z-0.125000
G00 Z3.000000

(End cutting path id: path14518)


(Start cutting path id: path14520)
(Change tool to Default tool)

G00 Z3.000000
G00 X37.491427 Y206.779456

G00 Z4.875000 (Fast pre-penetrate)
G01 Z-0.125000 F400.0(Penetrate)
G01 X44.486382 Y178.617861 Z-0.125000 F800.000000
G01 X40.416090 Y161.521513 Z-0.125000
G01 X38.183428 Y142.587536 Z-0.125000
G01 X39.766500 Y119.837824 Z-0.125000
G01 X37.504572 Y100.933112 Z-0.125000
G01 X34.316592 Y82.954451 Z-0.125000
G01 X44.474405 Y51.629999 Z-0.125000
G00 Z3.000000

(End cutting path id: path14520)



(Footer)
M5
G00 X0.0000 Y0.0000
M2
(Using default footer. To add your own footer create file "footer" in the output dir.)
(end)
%