%
(Header)
(Generated by gcodetools from Inkscape.)
(Using default header. To add your own header create file "header" in the output dir.)
M3
(Header end.)
G21 (All units in mm)

(Start cutting path id: polyline3987)
(Change tool to Default tool)

G00 Z3.000000
G00 X203.846926 Y141.243514

G00 Z4.875000 (Fast pre-penetrate)
G01 Z-0.125000 F400.0(Penetrate)
G01 X162.703021 Y136.005804 Z-0.125000 F800.000000
G01 X139.009617 Y123.942549 Z-0.125000
G01 X111.362136 Y139.975364 Z-0.125000
G01 X96.391353 Y141.753907 Z-0.125000
G01 X72.496888 Y137.629699 Z-0.125000
G01 X40.555117 Y134.273655 Z-0.125000
G01 X7.608060 Y136.191400 Z-0.125000
G00 Z3.000000

(End cutting path id: polyline3987)


(Start cutting path id: polyline3597)
(Change tool to Default tool)

G00 Z3.000000
G00 X183.385793 Y162.876092

G00 Z4.875000 (Fast pre-penetrate)
G01 Z-0.125000 F400.0(Penetrate)
G01 X158.980953 Y172.593701 Z-0.125000 F800.000000
G01 X155.506339 Y169.753181 Z-0.125000
G01 X116.898826 Y160.633569 Z-0.125000
G01 X80.533855 Y159.138577 Z-0.125000
G01 X54.783486 Y160.185053 Z-0.125000
G01 X38.451786 Y176.032236 Z-0.125000
G01 X17.784474 Y162.876092 Z-0.125000
G00 Z3.000000

(End cutting path id: polyline3597)


(Start cutting path id: polyline3599)
(Change tool to Default tool)

G00 Z3.000000
G00 X183.746650 Y163.660918

G00 Z4.875000 (Fast pre-penetrate)
G01 Z-0.125000 F400.0(Penetrate)
G01 X159.321179 Y173.089825 Z-0.125000 F800.000000
G01 X155.042377 Y170.223561 Z-0.125000
G01 X116.821556 Y161.908137 Z-0.125000
G01 X80.843205 Y160.052270 Z-0.125000
G01 X55.237187 Y161.449360 Z-0.125000
G01 X38.606436 Y176.193320 Z-0.125000
G01 X17.820547 Y163.769171 Z-0.125000
G00 Z3.000000

(End cutting path id: polyline3599)


(Start cutting path id: polyline3631)
(Change tool to Default tool)

G00 Z3.000000
G00 X184.107526 Y164.445779

G00 Z4.875000 (Fast pre-penetrate)
G01 Z-0.125000 F400.0(Penetrate)
G01 X159.661422 Y173.586023 Z-0.125000 F800.000000
G01 X154.578433 Y170.693941 Z-0.125000
G01 X116.744232 Y163.182723 Z-0.125000
G01 X81.152501 Y160.965981 Z-0.125000
G01 X55.690815 Y162.713630 Z-0.125000
G01 X38.761087 Y176.354350 Z-0.125000
G01 X17.856667 Y164.662305 Z-0.125000
G00 Z3.000000

(End cutting path id: polyline3631)


(Start cutting path id: polyline3633)
(Change tool to Default tool)

G00 Z3.000000
G00 X184.107526 Y162.163424

G00 Z4.875000 (Fast pre-penetrate)
G01 Z-0.125000 F400.0(Penetrate)
G01 X159.084076 Y171.365509 Z-0.125000 F800.000000
G01 X154.939290 Y168.189876 Z-0.125000
G01 X116.692653 Y159.946699 Z-0.125000
G01 X81.100940 Y158.580557 Z-0.125000
G01 X55.402151 Y159.446622 Z-0.125000
G01 X38.529110 Y174.623633 Z-0.125000
G01 X17.423606 Y161.983014 Z-0.125000
G00 Z3.000000

(End cutting path id: polyline3633)


(Start cutting path id: polyline3635)
(Change tool to Default tool)

G00 Z3.000000
G00 X184.468383 Y165.230641

G00 Z4.875000 (Fast pre-penetrate)
G01 Z-0.125000 F400.0(Penetrate)
G01 X160.001666 Y174.082166 Z-0.125000 F800.000000
G01 X154.114471 Y171.164267 Z-0.125000
G01 X116.666854 Y164.457346 Z-0.125000
G01 X81.461815 Y161.879691 Z-0.125000
G01 X56.144516 Y163.977883 Z-0.125000
G01 X38.915739 Y176.515416 Z-0.125000
G01 X17.892738 Y165.555383 Z-0.125000
G00 Z3.000000

(End cutting path id: polyline3635)


(Start cutting path id: polyline3637)
(Change tool to Default tool)

G00 Z3.000000
G00 X184.829259 Y166.015466

G00 Z4.875000 (Fast pre-penetrate)
G01 Z-0.125000 F400.0(Penetrate)
G01 X160.341964 Y174.578308 Z-0.125000 F800.000000
G01 X153.650472 Y171.634647 Z-0.125000
G01 X116.589530 Y165.731914 Z-0.125000
G01 X81.771111 Y162.793456 Z-0.125000
G01 X56.598144 Y165.242153 Z-0.125000
G01 X39.070389 Y176.676445 Z-0.125000
G01 X17.928812 Y166.448462 Z-0.125000
G00 Z3.000000

(End cutting path id: polyline3637)


(Start cutting path id: polyline3639)
(Change tool to Default tool)

G00 Z3.000000
G00 X184.829259 Y161.450756

G00 Z4.875000 (Fast pre-penetrate)
G01 Z-0.125000 F400.0(Penetrate)
G01 X159.187162 Y170.137353 Z-0.125000 F800.000000
G01 X154.372205 Y166.626625 Z-0.125000
G01 X116.486443 Y159.259794 Z-0.125000
G01 X81.668025 Y158.022537 Z-0.125000
G01 X56.020743 Y158.708192 Z-0.125000
G01 X38.606436 Y173.215031 Z-0.125000
G01 X17.062737 Y161.089880 Z-0.125000
G00 Z3.000000

(End cutting path id: polyline3639)


(Start cutting path id: polyline3641)
(Change tool to Default tool)

G00 Z3.000000
G00 X185.190135 Y166.800273

G00 Z4.875000 (Fast pre-penetrate)
G01 Z-0.125000 F400.0(Penetrate)
G01 X160.682208 Y175.074433 Z-0.125000 F800.000000
G01 X153.186528 Y172.105027 Z-0.125000
G01 X116.512206 Y167.006483 Z-0.125000
G01 X82.080462 Y163.707149 Z-0.125000
G01 X57.051791 Y166.506460 Z-0.125000
G01 X39.225041 Y176.837530 Z-0.125000
G01 X17.964885 Y167.341596 Z-0.125000
G00 Z3.000000

(End cutting path id: polyline3641)


(Start cutting path id: polyline3643)
(Change tool to Default tool)

G00 Z3.000000
G00 X185.550992 Y167.585135

G00 Z4.875000 (Fast pre-penetrate)
G01 Z-0.125000 F400.0(Penetrate)
G01 X161.022452 Y175.570576 Z-0.125000 F800.000000
G01 X152.722511 Y172.575371 Z-0.125000
G01 X116.434882 Y168.281069 Z-0.125000
G01 X82.389758 Y164.620860 Z-0.125000
G01 X57.505473 Y167.770730 Z-0.125000
G01 X39.379739 Y176.998614 Z-0.125000
G01 X18.001005 Y168.234675 Z-0.125000
G00 Z3.000000

(End cutting path id: polyline3643)


(Start cutting path id: polyline3645)
(Change tool to Default tool)

G00 Z3.000000
G00 X185.550992 Y160.738088

G00 Z4.875000 (Fast pre-penetrate)
G01 Z-0.125000 F400.0(Penetrate)
G01 X159.290303 Y168.909125 Z-0.125000 F800.000000
G01 X153.805120 Y165.063320 Z-0.125000
G01 X116.280216 Y158.572924 Z-0.125000
G01 X82.235110 Y157.464517 Z-0.125000
G01 X56.639408 Y157.969761 Z-0.125000
G01 X38.683762 Y171.806374 Z-0.125000
G01 X16.701869 Y160.196801 Z-0.125000
G00 Z3.000000

(End cutting path id: polyline3645)


(Start cutting path id: polyline3647)
(Change tool to Default tool)

G00 Z3.000000
G00 X185.911868 Y168.369960

G00 Z4.875000 (Fast pre-penetrate)
G01 Z-0.125000 F400.0(Penetrate)
G01 X161.362696 Y176.066719 Z-0.125000 F800.000000
G01 X152.258567 Y173.045752 Z-0.125000
G01 X116.357540 Y169.555637 Z-0.125000
G01 X82.699072 Y165.534570 Z-0.125000
G01 X57.959119 Y169.034983 Z-0.125000
G01 X39.534391 Y177.159644 Z-0.125000
G01 X18.037076 Y169.127808 Z-0.125000
G00 Z3.000000

(End cutting path id: polyline3647)


(Start cutting path id: polyline3649)
(Change tool to Default tool)

G00 Z3.000000
G00 X186.272725 Y169.154821

G00 Z4.875000 (Fast pre-penetrate)
G01 Z-0.125000 F400.0(Penetrate)
G01 X161.702922 Y176.562862 Z-0.125000 F800.000000
G01 X151.794605 Y173.516132 Z-0.125000
G01 X116.280216 Y170.830260 Z-0.125000
G01 X83.008368 Y166.448335 Z-0.125000
G01 X58.412802 Y170.299253 Z-0.125000
G01 X39.689041 Y177.320728 Z-0.125000
G01 X18.073149 Y170.020887 Z-0.125000
G00 Z3.000000

(End cutting path id: polyline3649)


(Start cutting path id: polyline3651)
(Change tool to Default tool)

G00 Z3.000000
G00 X186.272725 Y160.025456

G00 Z4.875000 (Fast pre-penetrate)
G01 Z-0.125000 F400.0(Penetrate)
G01 X159.393372 Y167.680987 Z-0.125000 F800.000000
G01 X153.238035 Y163.500069 Z-0.125000
G01 X116.074006 Y157.886019 Z-0.125000
G01 X82.802159 Y156.906497 Z-0.125000
G01 X57.258000 Y157.231294 Z-0.125000
G01 X38.761087 Y170.397789 Z-0.125000
G01 X16.341047 Y159.303723 Z-0.125000
G00 Z3.000000

(End cutting path id: polyline3651)


(Start cutting path id: polyline3653)
(Change tool to Default tool)

G00 Z3.000000
G00 X186.633601 Y169.939628

G00 Z4.875000 (Fast pre-penetrate)
G01 Z-0.125000 F400.0(Penetrate)
G01 X162.043165 Y177.059004 Z-0.125000 F800.000000
G01 X151.330606 Y173.986512 Z-0.125000
G01 X116.202892 Y172.104846 Z-0.125000
G01 X83.317719 Y167.362028 Z-0.125000
G01 X58.866448 Y171.563524 Z-0.125000
G01 X39.843693 Y177.481757 Z-0.125000
G01 X18.109222 Y170.913966 Z-0.125000
G00 Z3.000000

(End cutting path id: polyline3653)


(Start cutting path id: polyline3655)
(Change tool to Default tool)

G00 Z3.000000
G00 X186.994477 Y170.724490

G00 Z4.875000 (Fast pre-penetrate)
G01 Z-0.125000 F400.0(Penetrate)
G01 X162.383409 Y177.555184 Z-0.125000 F800.000000
G01 X150.866662 Y174.456838 Z-0.125000
G01 X116.125568 Y173.379414 Z-0.125000
G01 X83.627015 Y168.275739 Z-0.125000
G01 X59.320131 Y172.827830 Z-0.125000
G01 X39.998344 Y177.642787 Z-0.125000
G01 X18.145342 Y171.807099 Z-0.125000
G00 Z3.000000

(End cutting path id: polyline3655)


(Start cutting path id: polyline3657)
(Change tool to Default tool)

G00 Z3.000000
G00 X187.355334 Y171.509315

G00 Z4.875000 (Fast pre-penetrate)
G01 Z-0.125000 F400.0(Penetrate)
G01 X162.723653 Y178.051326 Z-0.125000 F800.000000
G01 X150.402700 Y174.927218 Z-0.125000
G01 X116.048244 Y174.654001 Z-0.125000
G01 X83.936329 Y169.189449 Z-0.125000
G01 X59.773777 Y174.092083 Z-0.125000
G01 X40.152994 Y177.803853 Z-0.125000
G01 X18.181415 Y172.700178 Z-0.125000
G00 Z3.000000

(End cutting path id: polyline3657)


(Start cutting path id: polyline3659)
(Change tool to Default tool)

G00 Z3.000000
G00 X186.994477 Y159.312751

G00 Z4.875000 (Fast pre-penetrate)
G01 Z-0.125000 F400.0(Penetrate)
G01 X159.496458 Y166.452795 Z-0.125000 F800.000000
G01 X152.671004 Y161.936782 Z-0.125000
G01 X115.867779 Y157.199149 Z-0.125000
G01 X83.369244 Y156.348513 Z-0.125000
G01 X57.876665 Y156.492827 Z-0.125000
G01 X38.838413 Y168.989096 Z-0.125000
G01 X15.980179 Y158.410553 Z-0.125000
G00 Z3.000000

(End cutting path id: polyline3659)


(Start cutting path id: polyline3661)
(Change tool to Default tool)

G00 Z3.000000
G00 X187.716210 Y158.600119

G00 Z4.875000 (Fast pre-penetrate)
G01 Z-0.125000 F400.0(Penetrate)
G01 X159.599599 Y165.224603 Z-0.125000 F800.000000
G01 X152.103919 Y160.373532 Z-0.125000
G01 X115.661624 Y156.512244 Z-0.125000
G01 X83.936329 Y155.790492 Z-0.125000
G01 X58.495257 Y155.754414 Z-0.125000
G01 X38.915739 Y167.580511 Z-0.125000
G01 X15.619311 Y157.517492 Z-0.125000
G00 Z3.000000

(End cutting path id: polyline3661)


(Start cutting path id: polyline3663)
(Change tool to Default tool)

G00 Z3.000000
G00 X187.716210 Y172.294177

G00 Z4.875000 (Fast pre-penetrate)
G01 Z-0.125000 F400.0(Penetrate)
G01 X163.063897 Y178.547469 Z-0.125000 F800.000000
G01 X149.938701 Y175.397599 Z-0.125000
G01 X115.970920 Y175.928569 Z-0.125000
G01 X84.245625 Y170.103215 Z-0.125000
G01 X60.227406 Y175.356353 Z-0.125000
G01 X40.307646 Y177.964883 Z-0.125000
G01 X18.217487 Y173.593257 Z-0.125000
G00 Z3.000000

(End cutting path id: polyline3663)


(Start cutting path id: polyline3665)
(Change tool to Default tool)

G00 Z3.000000
G00 X188.077067 Y173.078984

G00 Z4.875000 (Fast pre-penetrate)
G01 Z-0.125000 F400.0(Penetrate)
G01 X163.404141 Y179.043612 Z-0.125000 F800.000000
G01 X149.474757 Y175.867979 Z-0.125000
G01 X115.893596 Y177.203192 Z-0.125000
G01 X84.554976 Y171.016907 Z-0.125000
G01 X60.681106 Y176.620660 Z-0.125000
G01 X40.462297 Y178.125967 Z-0.125000
G01 X18.253560 Y174.486390 Z-0.125000
G00 Z3.000000

(End cutting path id: polyline3665)


(Start cutting path id: polyline3667)
(Change tool to Default tool)

G00 Z3.000000
G00 X188.437943 Y173.863863

G00 Z4.875000 (Fast pre-penetrate)
G01 Z-0.125000 F400.0(Penetrate)
G01 X163.744385 Y179.539755 Z-0.125000 F800.000000
G01 X149.010741 Y176.338377 Z-0.125000
G01 X115.816272 Y178.477778 Z-0.125000
G01 X84.864272 Y171.930618 Z-0.125000
G01 X61.134735 Y177.884930 Z-0.125000
G01 X40.616996 Y178.286997 Z-0.125000
G01 X18.289680 Y175.379469 Z-0.125000
G00 Z3.000000

(End cutting path id: polyline3667)


(Start cutting path id: polyline3669)
(Change tool to Default tool)

G00 Z3.000000
G00 X188.798819 Y174.648671

G00 Z4.875000 (Fast pre-penetrate)
G01 Z-0.125000 F400.0(Penetrate)
G01 X164.084628 Y180.035898 Z-0.125000 F800.000000
G01 X148.546797 Y176.808757 Z-0.125000
G01 X115.738948 Y179.752346 Z-0.125000
G01 X85.173586 Y172.844328 Z-0.125000
G01 X61.588435 Y179.149183 Z-0.125000
G01 X40.771648 Y178.448081 Z-0.125000
G01 X18.325753 Y176.272602 Z-0.125000
G00 Z3.000000

(End cutting path id: polyline3669)


(Start cutting path id: polyline3671)
(Change tool to Default tool)

G00 Z3.000000
G00 X189.159676 Y175.433532

G00 Z4.875000 (Fast pre-penetrate)
G01 Z-0.125000 F400.0(Penetrate)
G01 X164.424909 Y180.532041 Z-0.125000 F800.000000
G01 X148.082798 Y177.279083 Z-0.125000
G01 X115.661569 Y181.026933 Z-0.125000
G01 X85.482882 Y173.758039 Z-0.125000
G01 X62.042064 Y180.413453 Z-0.125000
G01 X40.926298 Y178.609165 Z-0.125000
G01 X18.361824 Y177.165681 Z-0.125000
G00 Z3.000000

(End cutting path id: polyline3671)


(Start cutting path id: polyline3673)
(Change tool to Default tool)

G00 Z3.000000
G00 X189.520552 Y176.218357

G00 Z4.875000 (Fast pre-penetrate)
G01 Z-0.125000 F400.0(Penetrate)
G01 X164.765098 Y181.028165 Z-0.125000 F800.000000
G01 X147.618836 Y177.749464 Z-0.125000
G01 X115.584300 Y182.301501 Z-0.125000
G01 X85.792233 Y174.671786 Z-0.125000
G01 X62.495710 Y181.677723 Z-0.125000
G01 X41.080949 Y178.770195 Z-0.125000
G01 X18.397944 Y178.058760 Z-0.125000
G00 Z3.000000

(End cutting path id: polyline3673)


(Start cutting path id: polyline3675)
(Change tool to Default tool)

G00 Z3.000000
G00 X188.437943 Y157.887451

G00 Z4.875000 (Fast pre-penetrate)
G01 Z-0.125000 F400.0(Penetrate)
G01 X159.702686 Y163.996412 Z-0.125000 F800.000000
G01 X151.536834 Y158.810227 Z-0.125000
G01 X115.455396 Y155.825374 Z-0.125000
G01 X84.503414 Y155.232472 Z-0.125000
G01 X59.113922 Y155.015947 Z-0.125000
G01 X38.993063 Y166.171891 Z-0.125000
G01 X15.258442 Y156.624395 Z-0.125000
G00 Z3.000000

(End cutting path id: polyline3675)


(Start cutting path id: polyline3677)
(Change tool to Default tool)

G00 Z3.000000
G00 X189.159640 Y157.174783

G00 Z4.875000 (Fast pre-penetrate)
G01 Z-0.125000 F400.0(Penetrate)
G01 X159.805809 Y162.768220 Z-0.125000 F800.000000
G01 X150.969749 Y157.246976 Z-0.125000
G01 X115.249186 Y155.138469 Z-0.125000
G01 X59.732514 Y154.277516 Z-0.125000
G01 X39.070389 Y164.763288 Z-0.125000
G01 X14.897574 Y155.731298 Z-0.125000
G00 Z3.000000

(End cutting path id: polyline3677)


(Start cutting path id: polyline3679)
(Change tool to Default tool)

G00 Z3.000000
G00 X189.881373 Y156.462115

G00 Z4.875000 (Fast pre-penetrate)
G01 Z-0.125000 F400.0(Penetrate)
G01 X159.908896 Y161.540028 Z-0.125000 F800.000000
G01 X150.402700 Y155.683671 Z-0.125000
G01 X115.042959 Y154.451545 Z-0.125000
G01 X85.637530 Y154.116486 Z-0.125000
G01 X60.351178 Y153.539085 Z-0.125000
G01 X39.147715 Y163.354631 Z-0.125000
G01 X14.536705 Y154.838219 Z-0.125000
G00 Z3.000000

(End cutting path id: polyline3679)


(Start cutting path id: polyline3681)
(Change tool to Default tool)

G00 Z3.000000
G00 X190.603106 Y155.749446

G00 Z4.875000 (Fast pre-penetrate)
G01 Z-0.125000 F400.0(Penetrate)
G01 X160.011982 Y160.311836 Z-0.125000 F800.000000
G01 X149.835615 Y154.120366 Z-0.125000
G01 X86.204615 Y153.558466 Z-0.125000
G01 X60.969771 Y152.800654 Z-0.125000
G01 X39.225041 Y161.946029 Z-0.125000
G01 X14.175837 Y153.945104 Z-0.125000
G00 Z3.000000

(End cutting path id: polyline3681)


(Start cutting path id: polyline3683)
(Change tool to Default tool)

G00 Z3.000000
G00 X191.324839 Y155.036760

G00 Z4.875000 (Fast pre-penetrate)
G01 Z-0.125000 F400.0(Penetrate)
G01 X160.115123 Y159.083644 Z-0.125000 F800.000000
G01 X149.268530 Y152.557115 Z-0.125000
G01 X114.630540 Y153.077770 Z-0.125000
G01 X86.771700 Y153.000355 Z-0.125000
G01 X61.588435 Y152.062133 Z-0.125000
G01 X39.302366 Y160.537335 Z-0.125000
G01 X13.814969 Y153.051917 Z-0.125000
G00 Z3.000000

(End cutting path id: polyline3683)


(Start cutting path id: polyline3685)
(Change tool to Default tool)

G00 Z3.000000
G00 X189.881409 Y177.003219

G00 Z4.875000 (Fast pre-penetrate)
G01 Z-0.125000 F400.0(Penetrate)
G01 X165.105396 Y181.524363 Z-0.125000 F800.000000
G01 X147.154892 Y178.219844 Z-0.125000
G01 X115.506921 Y183.576123 Z-0.125000
G01 X86.101529 Y175.585497 Z-0.125000
G01 X62.949393 Y182.942030 Z-0.125000
G01 X41.235601 Y178.931261 Z-0.125000
G01 X18.434018 Y178.951929 Z-0.125000
G00 Z3.000000

(End cutting path id: polyline3685)


(Start cutting path id: polyline3687)
(Change tool to Default tool)

G00 Z3.000000
G00 X190.242285 Y177.788026

G00 Z4.875000 (Fast pre-penetrate)
G01 Z-0.125000 F400.0(Penetrate)
G01 X165.445640 Y182.020451 Z-0.125000 F800.000000
G01 X146.690929 Y178.690170 Z-0.125000
G01 X115.429597 Y184.850710 Z-0.125000
G01 X86.410843 Y176.499208 Z-0.125000
G01 X63.403039 Y184.206282 Z-0.125000
G01 X41.390251 Y179.092291 Z-0.125000
G01 X18.470091 Y179.844972 Z-0.125000
G00 Z3.000000

(End cutting path id: polyline3687)


(Start cutting path id: polyline3689)
(Change tool to Default tool)

G00 Z3.000000
G00 X190.603161 Y178.572887

G00 Z4.875000 (Fast pre-penetrate)
G01 Z-0.125000 F400.0(Penetrate)
G01 X165.785884 Y182.516648 Z-0.125000 F800.000000
G01 X146.226931 Y179.160550 Z-0.125000
G01 X115.352273 Y186.125278 Z-0.125000
G01 X86.720139 Y177.412955 Z-0.125000
G01 X63.856722 Y185.470553 Z-0.125000
G01 X41.544903 Y179.253375 Z-0.125000
G01 X18.506162 Y180.738051 Z-0.125000
G00 Z3.000000

(End cutting path id: polyline3689)


(Start cutting path id: polyline3691)
(Change tool to Default tool)

G00 Z3.000000
G00 X190.964018 Y179.357713

G00 Z4.875000 (Fast pre-penetrate)
G01 Z-0.125000 F400.0(Penetrate)
G01 X166.126128 Y183.012773 Z-0.125000 F800.000000
G01 X145.762987 Y179.630948 Z-0.125000
G01 X115.274949 Y187.399846 Z-0.125000
G01 X87.029490 Y178.326665 Z-0.125000
G01 X64.310368 Y186.734860 Z-0.125000
G01 X41.699554 Y179.414405 Z-0.125000
G01 X18.542284 Y181.631184 Z-0.125000
G00 Z3.000000

(End cutting path id: polyline3691)


(Start cutting path id: polyline3693)
(Change tool to Default tool)

G00 Z3.000000
G00 X191.324839 Y180.142574

G00 Z4.875000 (Fast pre-penetrate)
G01 Z-0.125000 F400.0(Penetrate)
G01 X166.466372 Y183.508916 Z-0.125000 F800.000000
G01 X145.298988 Y180.101329 Z-0.125000
G01 X115.197625 Y188.674433 Z-0.125000
G01 X87.338786 Y179.240376 Z-0.125000
G01 X64.764051 Y187.999130 Z-0.125000
G01 X41.854253 Y179.575489 Z-0.125000
G01 X18.578355 Y182.524263 Z-0.125000
G00 Z3.000000

(End cutting path id: polyline3693)


(Start cutting path id: polyline3695)
(Change tool to Default tool)

G00 Z3.000000
G00 X191.685715 Y180.927381

G00 Z4.875000 (Fast pre-penetrate)
G01 Z-0.125000 F400.0(Penetrate)
G01 X166.806597 Y184.005059 Z-0.125000 F800.000000
G01 X144.835026 Y180.571654 Z-0.125000
G01 X115.120283 Y189.949055 Z-0.125000
G01 X87.648100 Y180.154087 Z-0.125000
G01 X65.217697 Y189.263382 Z-0.125000
G01 X42.008903 Y179.736519 Z-0.125000
G01 X18.614475 Y183.417342 Z-0.125000
G00 Z3.000000

(End cutting path id: polyline3695)


(Start cutting path id: polyline3697)
(Change tool to Default tool)

G00 Z3.000000
G00 X192.046573 Y181.712206

G00 Z4.875000 (Fast pre-penetrate)
G01 Z-0.125000 F400.0(Penetrate)
G01 X167.146841 Y184.501202 Z-0.125000 F800.000000
G01 X144.371082 Y181.042035 Z-0.125000
G01 X115.042959 Y191.223623 Z-0.125000
G01 X87.957396 Y181.067797 Z-0.125000
G01 X65.671380 Y190.527653 Z-0.125000
G01 X42.163555 Y179.897603 Z-0.125000
G01 X18.650548 Y184.310475 Z-0.125000
G00 Z3.000000

(End cutting path id: polyline3697)


(Start cutting path id: polyline3699)
(Change tool to Default tool)

G00 Z3.000000
G00 X192.407448 Y182.497068

G00 Z4.875000 (Fast pre-penetrate)
G01 Z-0.125000 F400.0(Penetrate)
G01 X167.487085 Y184.997344 Z-0.125000 F800.000000
G01 X143.907065 Y181.512415 Z-0.125000
G01 X114.965635 Y192.498210 Z-0.125000
G01 X88.266746 Y181.981544 Z-0.125000
G01 X66.125026 Y191.791959 Z-0.125000
G01 X42.318206 Y180.058633 Z-0.125000
G01 X18.686621 Y185.203554 Z-0.125000
G00 Z3.000000

(End cutting path id: polyline3699)


(Start cutting path id: polyline3701)
(Change tool to Default tool)

G00 Z3.000000
G00 X192.768324 Y183.281893

G00 Z4.875000 (Fast pre-penetrate)
G01 Z-0.125000 F400.0(Penetrate)
G01 X167.827329 Y185.493487 Z-0.125000 F800.000000
G01 X143.443121 Y181.982795 Z-0.125000
G01 X114.888311 Y193.772778 Z-0.125000
G01 X88.576042 Y182.895255 Z-0.125000
G01 X66.578654 Y193.056230 Z-0.125000
G01 X42.472856 Y180.219699 Z-0.125000
G01 X18.722742 Y186.096687 Z-0.125000
G00 Z3.000000

(End cutting path id: polyline3701)


(Start cutting path id: polyline3703)
(Change tool to Default tool)

G00 Z3.000000
G00 X193.129182 Y184.066755

G00 Z4.875000 (Fast pre-penetrate)
G01 Z-0.125000 F400.0(Penetrate)
G01 X168.167573 Y185.989630 Z-0.125000 F800.000000
G01 X142.979159 Y182.453175 Z-0.125000
G01 X114.810987 Y195.047364 Z-0.125000
G01 X88.885357 Y183.808966 Z-0.125000
G01 X67.032355 Y194.320482 Z-0.125000
G01 X42.627508 Y180.380747 Z-0.125000
G01 X18.758815 Y186.989766 Z-0.125000
G00 Z3.000000

(End cutting path id: polyline3703)


(Start cutting path id: polyline3603)
(Change tool to Default tool)

G00 Z3.000000
G00 X193.490057 Y184.851562

G00 Z4.875000 (Fast pre-penetrate)
G01 Z-0.125000 F400.0(Penetrate)
G01 X168.507816 Y186.485755 Z-0.125000 F800.000000
G01 X142.515160 Y182.923519 Z-0.125000
G01 X114.733663 Y196.321987 Z-0.125000
G01 X89.194653 Y184.722676 Z-0.125000
G01 X67.485983 Y195.584753 Z-0.125000
G01 X42.782160 Y180.541813 Z-0.125000
G01 X18.794886 Y187.882845 Z-0.125000
G00 Z3.000000

(End cutting path id: polyline3603)


(Start cutting path id: polyline3793)
(Change tool to Default tool)

G00 Z3.000000
G00 X193.850915 Y188.072175

G00 Z4.875000 (Fast pre-penetrate)
G01 Z-0.125000 F400.0(Penetrate)
G01 X169.281111 Y188.335095 Z-0.125000 F800.000000
G01 X142.113039 Y185.984300 Z-0.125000
G01 X113.480959 Y198.207352 Z-0.125000
G01 X90.132911 Y188.051562 Z-0.125000
G01 X68.001561 Y197.521733 Z-0.125000
G01 X42.194495 Y182.303459 Z-0.125000
G01 X17.964932 Y190.562136 Z-0.125000
G00 Z3.000000

(End cutting path id: polyline3793)


(Start cutting path id: polyline3791)
(Change tool to Default tool)

G00 Z3.000000
G00 X193.850915 Y190.507946

G00 Z4.875000 (Fast pre-penetrate)
G01 Z-0.125000 F400.0(Penetrate)
G01 X142.174916 Y188.574700 Z-0.125000 F800.000000
G01 X112.305543 Y198.818184 Z-0.125000
G01 X90.761838 Y190.466682 Z-0.125000
G01 X68.063384 Y198.194389 Z-0.125000
G01 X41.452130 Y183.904093 Z-0.125000
G01 X17.098857 Y192.348348 Z-0.125000
G00 Z3.000000

(End cutting path id: polyline3791)


(Start cutting path id: polyline3711)
(Change tool to Default tool)

G00 Z3.000000
G00 X193.850915 Y192.943698

G00 Z4.875000 (Fast pre-penetrate)
G01 Z-0.125000 F400.0(Penetrate)
G01 X170.147194 Y191.041400 Z-0.125000 F800.000000
G01 X142.236794 Y191.165046 Z-0.125000
G01 X111.130164 Y199.428908 Z-0.125000
G01 X91.390800 Y192.881802 Z-0.125000
G01 X68.125261 Y198.867008 Z-0.125000
G01 X40.709767 Y185.504655 Z-0.125000
G01 X16.232783 Y194.134451 Z-0.125000
G00 Z3.000000

(End cutting path id: polyline3711)


(Start cutting path id: polyline3713)
(Change tool to Default tool)

G00 Z3.000000
G00 X193.850915 Y194.161574

G00 Z4.875000 (Fast pre-penetrate)
G01 Z-0.125000 F400.0(Penetrate)
G01 X170.363720 Y191.717990 Z-0.125000 F800.000000
G01 X142.267741 Y192.460355 Z-0.125000
G01 X110.542447 Y199.734379 Z-0.125000
G01 X91.705281 Y194.089380 Z-0.125000
G01 X68.156209 Y199.203372 Z-0.125000
G01 X40.338586 Y186.305018 Z-0.125000
G01 X15.799721 Y195.027639 Z-0.125000
G00 Z3.000000

(End cutting path id: polyline3713)


(Start cutting path id: polyline3715)
(Change tool to Default tool)

G00 Z3.000000
G00 X193.850915 Y195.379450

G00 Z4.875000 (Fast pre-penetrate)
G01 Z-0.125000 F400.0(Penetrate)
G01 X170.580209 Y192.394597 Z-0.125000 F800.000000
G01 X142.298635 Y193.755555 Z-0.125000
G01 X109.954784 Y200.039741 Z-0.125000
G01 X92.019726 Y195.296941 Z-0.125000
G01 X68.187139 Y199.539718 Z-0.125000
G01 X39.967404 Y187.105272 Z-0.125000
G01 X15.366709 Y195.920718 Z-0.125000
G00 Z3.000000

(End cutting path id: polyline3715)


(Start cutting path id: polyline3717)
(Change tool to Default tool)

G00 Z3.000000
G00 X193.850915 Y196.597326

G00 Z4.875000 (Fast pre-penetrate)
G01 Z-0.125000 F400.0(Penetrate)
G01 X170.796734 Y193.071151 Z-0.125000 F800.000000
G01 X142.329564 Y195.050773 Z-0.125000
G01 X109.367067 Y200.345157 Z-0.125000
G01 X92.334208 Y196.504555 Z-0.125000
G01 X68.218032 Y199.876028 Z-0.125000
G01 X39.596223 Y187.905580 Z-0.125000
G01 X14.933647 Y196.813851 Z-0.125000
G00 Z3.000000

(End cutting path id: polyline3717)


(Start cutting path id: polyline3719)
(Change tool to Default tool)

G00 Z3.000000
G00 X193.850915 Y197.815202

G00 Z4.875000 (Fast pre-penetrate)
G01 Z-0.125000 F400.0(Penetrate)
G01 X171.013260 Y193.747741 Z-0.125000 F800.000000
G01 X142.360512 Y196.345973 Z-0.125000
G01 X108.779350 Y200.650573 Z-0.125000
G01 X92.648689 Y197.712115 Z-0.125000
G01 X68.248980 Y200.212392 Z-0.125000
G01 X39.225041 Y188.705906 Z-0.125000
G01 X14.500632 Y197.706930 Z-0.125000
G00 Z3.000000

(End cutting path id: polyline3719)


(Start cutting path id: polyline3721)
(Change tool to Default tool)

G00 Z3.000000
G00 X193.850915 Y199.033078

G00 Z4.875000 (Fast pre-penetrate)
G01 Z-0.125000 F400.0(Penetrate)
G01 X171.229803 Y194.424294 Z-0.125000 F800.000000
G01 X142.391460 Y197.641173 Z-0.125000
G01 X108.191652 Y200.955989 Z-0.125000
G01 X92.963116 Y198.919675 Z-0.125000
G01 X68.279910 Y200.548701 Z-0.125000
G01 X38.853858 Y189.506214 Z-0.125000
G01 X14.067571 Y198.600009 Z-0.125000
G00 Z3.000000

(End cutting path id: polyline3721)


(Start cutting path id: polyline3723)
(Change tool to Default tool)

G00 Z3.000000
G00 X193.850915 Y200.250954

G00 Z4.875000 (Fast pre-penetrate)
G01 Z-0.125000 F400.0(Penetrate)
G01 X171.446274 Y195.100884 Z-0.125000 F800.000000
G01 X142.422389 Y198.936373 Z-0.125000
G01 X107.603989 Y201.261369 Z-0.125000
G01 X93.277597 Y200.127235 Z-0.125000
G01 X68.310857 Y200.885047 Z-0.125000
G01 X38.482677 Y190.306522 Z-0.125000
G01 X13.634558 Y199.493142 Z-0.125000
G00 Z3.000000

(End cutting path id: polyline3723)


(Start cutting path id: polyline3725)
(Change tool to Default tool)

G00 Z3.000000
G00 X193.850915 Y201.468830

G00 Z4.875000 (Fast pre-penetrate)
G01 Z-0.125000 F400.0(Penetrate)
G01 X171.662818 Y195.777492 Z-0.125000 F800.000000
G01 X142.453337 Y200.231573 Z-0.125000
G01 X107.016272 Y201.566786 Z-0.125000
G01 X93.592078 Y201.334814 Z-0.125000
G01 X68.341805 Y201.221320 Z-0.125000
G01 X38.111495 Y191.106740 Z-0.125000
G01 X13.201496 Y200.386130 Z-0.125000
G00 Z3.000000

(End cutting path id: polyline3725)


(Start cutting path id: polyline3727)
(Change tool to Default tool)

G00 Z3.000000
G00 X193.850915 Y202.686706

G00 Z4.875000 (Fast pre-penetrate)
G01 Z-0.125000 F400.0(Penetrate)
G01 X171.879343 Y196.454045 Z-0.125000 F800.000000
G01 X142.484230 Y201.526773 Z-0.125000
G01 X106.428609 Y201.872202 Z-0.125000
G01 X93.906523 Y202.542374 Z-0.125000
G01 X68.372735 Y201.557721 Z-0.125000
G01 X37.740361 Y191.907139 Z-0.125000
G01 X12.768484 Y201.279300 Z-0.125000
G00 Z3.000000

(End cutting path id: polyline3727)


(Start cutting path id: polyline3729)
(Change tool to Default tool)

G00 Z3.000000
G00 X193.850915 Y203.904582

G00 Z4.875000 (Fast pre-penetrate)
G01 Z-0.125000 F400.0(Penetrate)
G01 X172.095869 Y197.130635 Z-0.125000 F800.000000
G01 X142.515160 Y202.821973 Z-0.125000
G01 X105.840892 Y202.177618 Z-0.125000
G01 X94.221004 Y203.749934 Z-0.125000
G01 X68.403628 Y201.894067 Z-0.125000
G01 X37.369181 Y192.707393 Z-0.125000
G01 X12.335422 Y202.172433 Z-0.125000
G00 Z3.000000

(End cutting path id: polyline3729)


(Start cutting path id: polyline3731)
(Change tool to Default tool)

G00 Z3.000000
G00 X193.850915 Y205.122458

G00 Z4.875000 (Fast pre-penetrate)
G01 Z-0.125000 F400.0(Penetrate)
G01 X172.312358 Y197.807188 Z-0.125000 F800.000000
G01 X142.546108 Y204.117191 Z-0.125000
G01 X105.253175 Y202.482980 Z-0.125000
G01 X94.535486 Y204.957494 Z-0.125000
G01 X68.434576 Y202.230376 Z-0.125000
G01 X36.997998 Y193.507701 Z-0.125000
G01 X11.902360 Y203.065512 Z-0.125000
G00 Z3.000000

(End cutting path id: polyline3731)


(Start cutting path id: polyline3733)
(Change tool to Default tool)

G00 Z3.000000
G00 X193.850915 Y206.340334

G00 Z4.875000 (Fast pre-penetrate)
G01 Z-0.125000 F400.0(Penetrate)
G01 X172.528883 Y198.483796 Z-0.125000 F800.000000
G01 X142.577037 Y205.412391 Z-0.125000
G01 X104.665459 Y202.788397 Z-0.125000
G01 X94.849967 Y206.165054 Z-0.125000
G01 X68.465505 Y202.566740 Z-0.125000
G01 X36.626816 Y194.308009 Z-0.125000
G01 X11.469348 Y203.958591 Z-0.125000
G00 Z3.000000

(End cutting path id: polyline3733)


(Start cutting path id: polyline3735)
(Change tool to Default tool)

G00 Z3.000000
G00 X193.850915 Y207.558210

G00 Z4.875000 (Fast pre-penetrate)
G01 Z-0.125000 F400.0(Penetrate)
G01 X172.745427 Y199.160386 Z-0.125000 F800.000000
G01 X142.607985 Y206.707628 Z-0.125000
G01 X104.077796 Y203.093777 Z-0.125000
G01 X95.164412 Y207.372632 Z-0.125000
G01 X68.496453 Y202.903050 Z-0.125000
G01 X36.255635 Y195.108335 Z-0.125000
G01 X11.036286 Y204.851724 Z-0.125000
G00 Z3.000000

(End cutting path id: polyline3735)


(Start cutting path id: polyline3737)
(Change tool to Default tool)

G00 Z3.000000
G00 X193.850915 Y208.776086

G00 Z4.875000 (Fast pre-penetrate)
G01 Z-0.125000 F400.0(Penetrate)
G01 X172.961952 Y199.836939 Z-0.125000 F800.000000
G01 X142.638915 Y208.002846 Z-0.125000
G01 X103.490097 Y203.399193 Z-0.125000
G01 X95.478893 Y208.580193 Z-0.125000
G01 X68.527383 Y203.239396 Z-0.125000
G01 X35.884452 Y195.908643 Z-0.125000
G01 X10.603273 Y205.744803 Z-0.125000
G00 Z3.000000

(End cutting path id: polyline3737)


(Start cutting path id: polyline3739)
(Change tool to Default tool)

G00 Z3.000000
G00 X193.850915 Y209.994016

G00 Z4.875000 (Fast pre-penetrate)
G01 Z-0.125000 F400.0(Penetrate)
G01 X173.178423 Y200.513529 Z-0.125000 F800.000000
G01 X142.669808 Y209.298046 Z-0.125000
G01 X102.902380 Y203.704609 Z-0.125000
G01 X95.793374 Y209.787807 Z-0.125000
G01 X68.558276 Y203.575706 Z-0.125000
G01 X35.513272 Y196.708952 Z-0.125000
G01 X10.170211 Y206.637936 Z-0.125000
G00 Z3.000000

(End cutting path id: polyline3739)


(Start cutting path id: polyline3741)
(Change tool to Default tool)

G00 Z3.000000
G00 X193.850915 Y211.211856

G00 Z4.875000 (Fast pre-penetrate)
G01 Z-0.125000 F400.0(Penetrate)
G01 X173.394967 Y201.190083 Z-0.125000 F800.000000
G01 X142.700756 Y210.593246 Z-0.125000
G01 X102.314718 Y204.010025 Z-0.125000
G01 X96.107856 Y210.995367 Z-0.125000
G01 X68.589224 Y203.912070 Z-0.125000
G01 X35.142089 Y197.509260 Z-0.125000
G01 X9.737197 Y207.531015 Z-0.125000
G00 Z3.000000

(End cutting path id: polyline3741)


(Start cutting path id: polyline3743)
(Change tool to Default tool)

G00 Z3.000000
G00 X193.850915 Y212.429732

G00 Z4.875000 (Fast pre-penetrate)
G01 Z-0.125000 F400.0(Penetrate)
G01 X173.611492 Y201.866691 Z-0.125000 F800.000000
G01 X142.731704 Y211.888446 Z-0.125000
G01 X101.727001 Y204.315387 Z-0.125000
G01 X96.422282 Y212.202927 Z-0.125000
G01 X68.620153 Y204.248434 Z-0.125000
G01 X34.770956 Y198.309568 Z-0.125000
G01 X9.304137 Y208.424094 Z-0.125000
G00 Z3.000000

(End cutting path id: polyline3743)


(Start cutting path id: polyline3745)
(Change tool to Default tool)

G00 Z3.000000
G00 X193.850915 Y213.647608

G00 Z4.875000 (Fast pre-penetrate)
G01 Z-0.125000 F400.0(Penetrate)
G01 X173.828017 Y202.543226 Z-0.125000 F800.000000
G01 X142.762633 Y213.183646 Z-0.125000
G01 X101.139284 Y204.620804 Z-0.125000
G01 X96.736764 Y213.410487 Z-0.125000
G01 X68.651101 Y204.584725 Z-0.125000
G01 X34.399773 Y199.109822 Z-0.125000
G01 X8.871075 Y209.317227 Z-0.125000
G00 Z3.000000

(End cutting path id: polyline3745)


(Start cutting path id: polyline3747)
(Change tool to Default tool)

G00 Z3.000000
G00 X193.850915 Y214.865521

G00 Z4.875000 (Fast pre-penetrate)
G01 Z-0.125000 F400.0(Penetrate)
G01 X174.044561 Y203.219834 Z-0.125000 F800.000000
G01 X142.793581 Y214.478846 Z-0.125000
G01 X100.551621 Y204.926220 Z-0.125000
G01 X97.051245 Y214.618066 Z-0.125000
G01 X68.682031 Y204.921035 Z-0.125000
G01 X34.028592 Y199.910184 Z-0.125000
G01 X8.438061 Y210.210306 Z-0.125000
G00 Z3.000000

(End cutting path id: polyline3747)


(Start cutting path id: polyline3749)
(Change tool to Default tool)

G00 Z3.000000
G00 X193.850915 Y216.083397

G00 Z4.875000 (Fast pre-penetrate)
G01 Z-0.125000 F400.0(Penetrate)
G01 X174.261086 Y203.896423 Z-0.125000 F800.000000
G01 X142.824474 Y215.774046 Z-0.125000
G01 X99.963904 Y205.231636 Z-0.125000
G01 X97.365690 Y215.825626 Z-0.125000
G01 X68.712978 Y205.257399 Z-0.125000
G01 X33.657410 Y200.710438 Z-0.125000
G01 X8.005001 Y211.103385 Z-0.125000
G00 Z3.000000

(End cutting path id: polyline3749)


(Start cutting path id: polyline3751)
(Change tool to Default tool)

G00 Z3.000000
G00 X193.850915 Y217.301291

G00 Z4.875000 (Fast pre-penetrate)
G01 Z-0.125000 F400.0(Penetrate)
G01 X174.477576 Y204.572977 Z-0.125000 F800.000000
G01 X142.855404 Y217.069264 Z-0.125000
G01 X99.376205 Y205.537016 Z-0.125000
G01 X97.680171 Y217.033186 Z-0.125000
G01 X68.743872 Y205.593708 Z-0.125000
G01 X33.286229 Y201.510764 Z-0.125000
G01 X7.571987 Y211.996518 Z-0.125000
G00 Z3.000000

(End cutting path id: polyline3751)


(Start cutting path id: polyline3753)
(Change tool to Default tool)

G00 Z3.000000
G00 X193.850915 Y218.519112

G00 Z4.875000 (Fast pre-penetrate)
G01 Z-0.125000 F400.0(Penetrate)
G01 X174.694101 Y205.249585 Z-0.125000 F800.000000
G01 X142.886352 Y218.364464 Z-0.125000
G01 X98.788543 Y205.842433 Z-0.125000
G01 X97.994652 Y218.240746 Z-0.125000
G01 X68.774820 Y205.930073 Z-0.125000
G01 X32.915047 Y202.311073 Z-0.125000
G01 X7.138925 Y212.889597 Z-0.125000
G00 Z3.000000

(End cutting path id: polyline3753)


(Start cutting path id: polyline3755)
(Change tool to Default tool)

G00 Z3.000000
G00 X193.850915 Y219.736988

G00 Z4.875000 (Fast pre-penetrate)
G01 Z-0.125000 F400.0(Penetrate)
G01 X174.910626 Y205.926138 Z-0.125000 F800.000000
G01 X142.917281 Y219.659719 Z-0.125000
G01 X98.200826 Y206.147794 Z-0.125000
G01 X98.309061 Y219.448306 Z-0.125000
G01 X68.805677 Y206.266364 Z-0.125000
G01 X32.543792 Y203.111381 Z-0.125000
G01 X6.705792 Y213.782730 Z-0.125000
G00 Z3.000000

(End cutting path id: polyline3755)


(Start cutting path id: polyline3605)
(Change tool to Default tool)

G00 Z3.000000
G00 X193.850915 Y220.954865

G00 Z4.875000 (Fast pre-penetrate)
G01 Z-0.125000 F400.0(Penetrate)
G01 X175.127152 Y206.602728 Z-0.125000 F800.000000
G01 X142.948229 Y220.954865 Z-0.125000
G01 X97.613109 Y206.453211 Z-0.125000
G01 X98.623579 Y220.655884 Z-0.125000
G01 X68.836697 Y206.602728 Z-0.125000
G01 X32.172684 Y203.911689 Z-0.125000
G01 X6.272850 Y214.675809 Z-0.125000
G00 Z3.000000

(End cutting path id: polyline3605)


(Start cutting path id: polyline3607)
(Change tool to Default tool)

G00 Z3.000000
G00 X193.850915 Y221.631472

G00 Z4.875000 (Fast pre-penetrate)
G01 Z-0.125000 F400.0(Penetrate)
G01 X174.879697 Y207.990699 Z-0.125000 F800.000000
G01 X142.917281 Y221.523201 Z-0.125000
G01 X98.613263 Y207.810288 Z-0.125000
G01 X97.974021 Y221.523201 Z-0.125000
G01 X68.573777 Y207.774228 Z-0.125000
G01 X32.822276 Y205.175941 Z-0.125000
G01 X6.489381 Y215.568888 Z-0.125000
G00 Z3.000000

(End cutting path id: polyline3607)


(Start cutting path id: polyline3757)
(Change tool to Default tool)

G00 Z3.000000
G00 X193.850915 Y222.308008

G00 Z4.875000 (Fast pre-penetrate)
G01 Z-0.125000 F400.0(Penetrate)
G01 X174.632260 Y209.378724 Z-0.125000 F800.000000
G01 X142.886352 Y222.091537 Z-0.125000
G01 X99.613362 Y209.167329 Z-0.125000
G01 X97.324481 Y222.390517 Z-0.125000
G01 X68.310857 Y208.945655 Z-0.125000
G01 X33.471820 Y206.440266 Z-0.125000
G01 X6.705912 Y216.462021 Z-0.125000
G00 Z3.000000

(End cutting path id: polyline3757)


(Start cutting path id: polyline3759)
(Change tool to Default tool)

G00 Z3.000000
G00 X193.850915 Y222.984616

G00 Z4.875000 (Fast pre-penetrate)
G01 Z-0.125000 F400.0(Penetrate)
G01 X174.384805 Y210.766695 Z-0.125000 F800.000000
G01 X142.855404 Y222.659873 Z-0.125000
G01 X100.613462 Y210.524407 Z-0.125000
G01 X96.674886 Y223.257851 Z-0.125000
G01 X68.047937 Y210.117155 Z-0.125000
G01 X34.121363 Y207.704518 Z-0.125000
G01 X6.922394 Y217.355100 Z-0.125000
G00 Z3.000000

(End cutting path id: polyline3759)


(Start cutting path id: polyline3761)
(Change tool to Default tool)

G00 Z3.000000
G00 X193.850915 Y223.661169

G00 Z4.875000 (Fast pre-penetrate)
G01 Z-0.125000 F400.0(Penetrate)
G01 X174.137332 Y212.154720 Z-0.125000 F800.000000
G01 X142.824474 Y223.228155 Z-0.125000
G01 X101.613598 Y211.881484 Z-0.125000
G01 X96.025346 Y224.125168 Z-0.125000
G01 X67.785018 Y211.288655 Z-0.125000
G01 X34.770956 Y208.968789 Z-0.125000
G01 X7.138925 Y218.248179 Z-0.125000
G00 Z3.000000

(End cutting path id: polyline3761)


(Start cutting path id: polyline3763)
(Change tool to Default tool)

G00 Z3.000000
G00 X193.850915 Y224.337759

G00 Z4.875000 (Fast pre-penetrate)
G01 Z-0.125000 F400.0(Penetrate)
G01 X173.889895 Y213.542745 Z-0.125000 F800.000000
G01 X142.793581 Y223.796491 Z-0.125000
G01 X102.613698 Y213.238580 Z-0.125000
G01 X95.375807 Y224.992484 Z-0.125000
G01 X67.522116 Y212.460136 Z-0.125000
G01 X35.420499 Y210.233041 Z-0.125000
G01 X7.355456 Y219.141313 Z-0.125000
G00 Z3.000000

(End cutting path id: polyline3763)


(Start cutting path id: polyline3765)
(Change tool to Default tool)

G00 Z3.000000
G00 X193.850915 Y225.014367

G00 Z4.875000 (Fast pre-penetrate)
G01 Z-0.125000 F400.0(Penetrate)
G01 X173.642440 Y214.930716 Z-0.125000 F800.000000
G01 X142.762633 Y224.364809 Z-0.125000
G01 X103.613797 Y214.595603 Z-0.125000
G01 X94.726212 Y225.859800 Z-0.125000
G01 X67.259196 Y213.631582 Z-0.125000
G01 X36.070045 Y211.497366 Z-0.125000
G01 X7.571987 Y220.034391 Z-0.125000
G00 Z3.000000

(End cutting path id: polyline3765)


(Start cutting path id: polyline3767)
(Change tool to Default tool)

G00 Z3.000000
G00 X193.850915 Y225.690902

G00 Z4.875000 (Fast pre-penetrate)
G01 Z-0.125000 F400.0(Penetrate)
G01 X173.395003 Y216.318687 Z-0.125000 F800.000000
G01 X142.731704 Y224.933108 Z-0.125000
G01 X104.613951 Y215.952698 Z-0.125000
G01 X94.076672 Y226.727135 Z-0.125000
G01 X66.996276 Y214.803081 Z-0.125000
G01 X36.719635 Y212.761618 Z-0.125000
G01 X7.788517 Y220.927470 Z-0.125000
G00 Z3.000000

(End cutting path id: polyline3767)


(Start cutting path id: polyline3629)
(Change tool to Default tool)

G00 Z3.000000
G00 X193.850915 Y226.367510

G00 Z4.875000 (Fast pre-penetrate)
G01 Z-0.125000 F400.0(Penetrate)
G01 X173.147548 Y217.706712 Z-0.125000 F800.000000
G01 X142.700756 Y225.501426 Z-0.125000
G01 X105.614051 Y217.309776 Z-0.125000
G01 X93.427114 Y227.594451 Z-0.125000
G01 X66.733357 Y215.974563 Z-0.125000
G01 X37.369181 Y214.025889 Z-0.125000
G01 X8.005001 Y221.820604 Z-0.125000
G00 Z3.000000

(End cutting path id: polyline3629)


(Start cutting path id: polyline3769)
(Change tool to Default tool)

G00 Z3.000000
G00 X193.850915 Y227.044063

G00 Z4.875000 (Fast pre-penetrate)
G01 Z-0.125000 F400.0(Penetrate)
G01 X172.900075 Y219.094737 Z-0.125000 F800.000000
G01 X142.669808 Y226.069763 Z-0.125000
G01 X106.614187 Y218.666799 Z-0.125000
G01 X92.777574 Y228.461767 Z-0.125000
G01 X66.470437 Y217.146063 Z-0.125000
G01 X38.018724 Y215.290195 Z-0.125000
G01 X8.221532 Y222.713682 Z-0.125000
G00 Z3.000000

(End cutting path id: polyline3769)


(Start cutting path id: polyline3771)
(Change tool to Default tool)

G00 Z3.000000
G00 X193.850915 Y227.720653

G00 Z4.875000 (Fast pre-penetrate)
G01 Z-0.125000 F400.0(Penetrate)
G01 X172.652638 Y220.482708 Z-0.125000 F800.000000
G01 X142.638879 Y226.638099 Z-0.125000
G01 X107.614287 Y220.023894 Z-0.125000
G01 X92.127980 Y229.329102 Z-0.125000
G01 X66.207535 Y218.317544 Z-0.125000
G01 X38.668317 Y216.554466 Z-0.125000
G01 X8.438061 Y223.606816 Z-0.125000
G00 Z3.000000

(End cutting path id: polyline3771)


(Start cutting path id: polyline3773)
(Change tool to Default tool)

G00 Z3.000000
G00 X193.850915 Y228.397261

G00 Z4.875000 (Fast pre-penetrate)
G01 Z-0.125000 F400.0(Penetrate)
G01 X172.405183 Y221.870678 Z-0.125000 F800.000000
G01 X142.607985 Y227.206380 Z-0.125000
G01 X108.614386 Y221.380972 Z-0.125000
G01 X91.478440 Y230.196418 Z-0.125000
G01 X65.944615 Y219.488990 Z-0.125000
G01 X39.317860 Y217.818718 Z-0.125000
G01 X8.654592 Y224.499895 Z-0.125000
G00 Z3.000000

(End cutting path id: polyline3773)


(Start cutting path id: polyline3775)
(Change tool to Default tool)

G00 Z3.000000
G00 X193.850915 Y229.073814

G00 Z4.875000 (Fast pre-penetrate)
G01 Z-0.125000 F400.0(Penetrate)
G01 X172.157746 Y223.258703 Z-0.125000 F800.000000
G01 X142.577037 Y227.774716 Z-0.125000
G01 X109.614486 Y222.738049 Z-0.125000
G01 X90.828900 Y231.063734 Z-0.125000
G01 X65.681695 Y220.660489 Z-0.125000
G01 X39.967404 Y219.082989 Z-0.125000
G01 X8.871075 Y225.392973 Z-0.125000
G00 Z3.000000

(End cutting path id: polyline3775)


(Start cutting path id: polyline3627)
(Change tool to Default tool)

G00 Z3.000000
G00 X193.850915 Y229.750404

G00 Z4.875000 (Fast pre-penetrate)
G01 Z-0.125000 F400.0(Penetrate)
G01 X171.910291 Y224.646729 Z-0.125000 F800.000000
G01 X142.546108 Y228.343053 Z-0.125000
G01 X110.614640 Y224.095145 Z-0.125000
G01 X90.179306 Y231.931069 Z-0.125000
G01 X65.418776 Y221.831971 Z-0.125000
G01 X40.616996 Y220.347295 Z-0.125000
G01 X9.087606 Y226.286107 Z-0.125000
G00 Z3.000000

(End cutting path id: polyline3627)


(Start cutting path id: polyline3777)
(Change tool to Default tool)

G00 Z3.000000
G00 X193.850915 Y230.426958

G00 Z4.875000 (Fast pre-penetrate)
G01 Z-0.125000 F400.0(Penetrate)
G01 X171.662854 Y226.034699 Z-0.125000 F800.000000
G01 X142.515160 Y228.911334 Z-0.125000
G01 X111.614740 Y225.452168 Z-0.125000
G01 X89.529766 Y232.798385 Z-0.125000
G01 X65.155856 Y223.003416 Z-0.125000
G01 X41.266540 Y221.611566 Z-0.125000
G01 X9.304137 Y227.179186 Z-0.125000
G00 Z3.000000

(End cutting path id: polyline3777)


(Start cutting path id: polyline3779)
(Change tool to Default tool)

G00 Z3.000000
G00 X193.850915 Y231.103547

G00 Z4.875000 (Fast pre-penetrate)
G01 Z-0.125000 F400.0(Penetrate)
G01 X171.415399 Y227.422670 Z-0.125000 F800.000000
G01 X142.484230 Y229.479670 Z-0.125000
G01 X112.614894 Y226.809245 Z-0.125000
G01 X88.880226 Y233.665701 Z-0.125000
G01 X64.892936 Y224.174952 Z-0.125000
G01 X41.916083 Y222.875818 Z-0.125000
G01 X9.520668 Y228.072264 Z-0.125000
G00 Z3.000000

(End cutting path id: polyline3779)


(Start cutting path id: polyline3781)
(Change tool to Default tool)

G00 Z3.000000
G00 X193.850915 Y231.780155

G00 Z4.875000 (Fast pre-penetrate)
G01 Z-0.125000 F400.0(Penetrate)
G01 X171.167926 Y228.810695 Z-0.125000 F800.000000
G01 X142.453283 Y230.048007 Z-0.125000
G01 X113.614994 Y228.166286 Z-0.125000
G01 X88.230632 Y234.533036 Z-0.125000
G01 X64.630034 Y225.346398 Z-0.125000
G01 X42.565676 Y224.140089 Z-0.125000
G01 X9.737197 Y228.965398 Z-0.125000
G00 Z3.000000

(End cutting path id: polyline3781)


(Start cutting path id: polyline3625)
(Change tool to Default tool)

G00 Z3.000000
G00 X193.850915 Y232.456709

G00 Z4.875000 (Fast pre-penetrate)
G01 Z-0.125000 F400.0(Penetrate)
G01 X170.920489 Y230.198720 Z-0.125000 F800.000000
G01 X142.422389 Y230.616288 Z-0.125000
G01 X114.615093 Y229.523363 Z-0.125000
G01 X87.581074 Y235.400352 Z-0.125000
G01 X64.367115 Y226.517897 Z-0.125000
G01 X43.215219 Y225.404341 Z-0.125000
G01 X9.953681 Y229.858477 Z-0.125000
G00 Z3.000000

(End cutting path id: polyline3625)


(Start cutting path id: polyline3783)
(Change tool to Default tool)

G00 Z3.000000
G00 X193.850915 Y233.133299

G00 Z4.875000 (Fast pre-penetrate)
G01 Z-0.125000 F400.0(Penetrate)
G01 X170.673034 Y231.586691 Z-0.125000 F800.000000
G01 X115.615193 Y230.880459 Z-0.125000
G01 X86.931534 Y236.267668 Z-0.125000
G01 X64.104195 Y227.689379 Z-0.125000
G01 X43.864765 Y226.668648 Z-0.125000
G01 X10.170211 Y230.751555 Z-0.125000
G00 Z3.000000

(End cutting path id: polyline3783)


(Start cutting path id: polyline3785)
(Change tool to Default tool)

G00 Z3.000000
G00 X193.850915 Y233.809852

G00 Z4.875000 (Fast pre-penetrate)
G01 Z-0.125000 F400.0(Penetrate)
G01 X170.425597 Y232.974716 Z-0.125000 F800.000000
G01 X142.360512 Y231.752960 Z-0.125000
G01 X116.615329 Y232.237536 Z-0.125000
G01 X86.281939 Y237.135003 Z-0.125000
G01 X63.841275 Y228.860824 Z-0.125000
G01 X44.514357 Y227.932918 Z-0.125000
G01 X10.386742 Y231.644689 Z-0.125000
G00 Z3.000000

(End cutting path id: polyline3785)


(Start cutting path id: polyline3623)
(Change tool to Default tool)

G00 Z3.000000
G00 X193.850915 Y234.486442

G00 Z4.875000 (Fast pre-penetrate)
G01 Z-0.125000 F400.0(Penetrate)
G01 X170.178142 Y234.362615 Z-0.125000 F800.000000
G01 X142.329564 Y232.321170 Z-0.125000
G01 X117.615429 Y233.594487 Z-0.125000
G01 X85.632399 Y238.002246 Z-0.125000
G01 X63.578355 Y230.032252 Z-0.125000
G01 X45.163901 Y229.197116 Z-0.125000
G01 X10.603224 Y232.537695 Z-0.125000
G00 Z3.000000

(End cutting path id: polyline3623)


(Start cutting path id: polyline3787)
(Change tool to Default tool)

G00 Z3.000000
G00 X193.850915 Y235.163050

G00 Z4.875000 (Fast pre-penetrate)
G01 Z-0.125000 F400.0(Penetrate)
G01 X169.930669 Y235.750712 Z-0.125000 F800.000000
G01 X142.298635 Y232.889578 Z-0.125000
G01 X118.615528 Y234.951655 Z-0.125000
G01 X84.982859 Y238.869635 Z-0.125000
G01 X63.315453 Y231.203806 Z-0.125000
G01 X45.813444 Y230.461441 Z-0.125000
G01 X10.819755 Y233.430901 Z-0.125000
G00 Z3.000000

(End cutting path id: polyline3787)


(Start cutting path id: polyline3621)
(Change tool to Default tool)

G00 Z3.000000
G00 X193.850915 Y235.839603

G00 Z4.875000 (Fast pre-penetrate)
G01 Z-0.125000 F400.0(Penetrate)
G01 X169.683232 Y237.138683 Z-0.125000 F800.000000
G01 X142.267687 Y233.457914 Z-0.125000
G01 X119.615682 Y236.308732 Z-0.125000
G01 X84.333265 Y239.736951 Z-0.125000
G01 X63.052534 Y232.375306 Z-0.125000
G01 X46.463037 Y231.725747 Z-0.125000
G01 X11.036286 Y234.323980 Z-0.125000
G00 Z3.000000

(End cutting path id: polyline3621)


(Start cutting path id: polyline3789)
(Change tool to Default tool)

G00 Z3.000000
G00 X193.850915 Y236.516193

G00 Z4.875000 (Fast pre-penetrate)
G01 Z-0.125000 F400.0(Penetrate)
G01 X169.435777 Y238.526708 Z-0.125000 F800.000000
G01 X142.236794 Y234.026196 Z-0.125000
G01 X120.615782 Y237.665810 Z-0.125000
G01 X83.683725 Y240.604286 Z-0.125000
G01 X62.789614 Y233.546787 Z-0.125000
G01 X47.112580 Y232.990018 Z-0.125000
G01 X11.252817 Y235.217059 Z-0.125000
G00 Z3.000000

(End cutting path id: polyline3789)


(Start cutting path id: polyline3619)
(Change tool to Default tool)

G00 Z3.000000
G00 X193.850915 Y237.192746

G00 Z4.875000 (Fast pre-penetrate)
G01 Z-0.125000 F400.0(Penetrate)
G01 X169.188340 Y239.914733 Z-0.125000 F800.000000
G01 X142.205864 Y234.594532 Z-0.125000
G01 X121.615882 Y239.022851 Z-0.125000
G01 X83.034185 Y241.471602 Z-0.125000
G01 X62.526694 Y234.718233 Z-0.125000
G01 X47.762124 Y234.254288 Z-0.125000
G01 X11.469299 Y236.110192 Z-0.125000
G00 Z3.000000

(End cutting path id: polyline3619)


(Start cutting path id: polyline3617)
(Change tool to Default tool)

G00 Z3.000000
G00 X193.850915 Y237.869354

G00 Z4.875000 (Fast pre-penetrate)
G01 Z-0.125000 F400.0(Penetrate)
G01 X168.940885 Y241.302704 Z-0.125000 F800.000000
G01 X142.174916 Y235.162850 Z-0.125000
G01 X122.616018 Y240.379928 Z-0.125000
G01 X82.384591 Y242.338918 Z-0.125000
G01 X62.263774 Y235.889732 Z-0.125000
G01 X48.411717 Y235.518541 Z-0.125000
G01 X11.685829 Y237.003271 Z-0.125000
G00 Z3.000000

(End cutting path id: polyline3617)


(Start cutting path id: polyline3615)
(Change tool to Default tool)

G00 Z3.000000
G00 X193.850915 Y238.545944

G00 Z4.875000 (Fast pre-penetrate)
G01 Z-0.125000 F400.0(Penetrate)
G01 X168.693412 Y242.690729 Z-0.125000 F800.000000
G01 X142.143987 Y235.731186 Z-0.125000
G01 X123.616117 Y241.737006 Z-0.125000
G01 X81.735033 Y243.206253 Z-0.125000
G01 X62.000872 Y237.061214 Z-0.125000
G01 X49.061260 Y236.782847 Z-0.125000
G01 X11.902360 Y237.896350 Z-0.125000
G00 Z3.000000

(End cutting path id: polyline3615)


(Start cutting path id: polyline3613)
(Change tool to Default tool)

G00 Z3.000000
G00 X193.850915 Y239.222497

G00 Z4.875000 (Fast pre-penetrate)
G01 Z-0.125000 F400.0(Penetrate)
G01 X168.445975 Y244.078754 Z-0.125000 F800.000000
G01 X142.113039 Y236.299522 Z-0.125000
G01 X124.616271 Y243.094101 Z-0.125000
G01 X81.085493 Y244.073569 Z-0.125000
G01 X61.737953 Y238.232714 Z-0.125000
G01 X49.710813 Y238.047118 Z-0.125000
G01 X12.118891 Y238.789483 Z-0.125000
G00 Z3.000000

(End cutting path id: polyline3613)


(Start cutting path id: polyline3611)
(Change tool to Default tool)

G00 Z3.000000
G00 X193.850915 Y239.899087

G00 Z4.875000 (Fast pre-penetrate)
G01 Z-0.125000 F400.0(Penetrate)
G01 X168.198520 Y245.466725 Z-0.125000 F800.000000
G01 X142.082146 Y236.867804 Z-0.125000
G01 X125.616371 Y244.451179 Z-0.125000
G01 X80.435899 Y244.940885 Z-0.125000
G01 X61.475033 Y239.404195 Z-0.125000
G01 X50.360353 Y239.311370 Z-0.125000
G01 X12.335375 Y239.682544 Z-0.125000
G00 Z3.000000

(End cutting path id: polyline3611)


(Start cutting path id: polyline3609)
(Change tool to Default tool)

G00 Z3.000000
G00 X193.850915 Y240.575641

G00 Z4.875000 (Fast pre-penetrate)
G01 Z-0.125000 F400.0(Penetrate)
G01 X167.951047 Y246.854750 Z-0.125000 F800.000000
G01 X142.051216 Y237.436140 Z-0.125000
G01 X126.616471 Y245.808220 Z-0.125000
G01 X79.786359 Y245.808220 Z-0.125000
G01 X61.212113 Y240.575641 Z-0.125000
G01 X12.551906 Y240.575641 Z-0.125000
G00 Z3.000000

(End cutting path id: polyline3609)


(Start cutting path id: polyline3709)
(Change tool to Default tool)

G00 Z3.000000
G00 X193.850915 Y191.725822

G00 Z4.875000 (Fast pre-penetrate)
G01 Z-0.125000 F400.0(Penetrate)
G01 X169.930669 Y190.364846 Z-0.125000 F800.000000
G01 X142.205864 Y189.869900 Z-0.125000
G01 X111.717826 Y199.123600 Z-0.125000
G01 X91.076319 Y191.674242 Z-0.125000
G01 X68.094332 Y198.530698 Z-0.125000
G01 X41.080949 Y184.704401 Z-0.125000
G01 X16.665796 Y193.241427 Z-0.125000
G00 Z3.000000

(End cutting path id: polyline3709)


(Start cutting path id: polyline3707)
(Change tool to Default tool)

G00 Z3.000000
G00 X193.850915 Y189.290051

G00 Z4.875000 (Fast pre-penetrate)
G01 Z-0.125000 F400.0(Penetrate)
G01 X169.497655 Y189.011703 Z-0.125000 F800.000000
G01 X142.143987 Y187.279500 Z-0.125000
G01 X112.893242 Y198.512768 Z-0.125000
G01 X90.447411 Y189.259122 Z-0.125000
G01 X68.032455 Y197.858043 Z-0.125000
G01 X41.823313 Y183.103785 Z-0.125000
G01 X17.531870 Y191.455215 Z-0.125000
G00 Z3.000000

(End cutting path id: polyline3707)


(Start cutting path id: polyline3705)
(Change tool to Default tool)

G00 Z3.000000
G00 X193.850915 Y186.854299

G00 Z4.875000 (Fast pre-penetrate)
G01 Z-0.125000 F400.0(Penetrate)
G01 X169.064586 Y187.658505 Z-0.125000 F800.000000
G01 X142.082146 Y184.689100 Z-0.125000
G01 X114.068622 Y197.901971 Z-0.125000
G01 X89.818430 Y186.843983 Z-0.125000
G01 X67.970613 Y197.185369 Z-0.125000
G01 X42.565629 Y181.503151 Z-0.125000
G01 X18.397944 Y189.669057 Z-0.125000
G00 Z3.000000

(End cutting path id: polyline3705)


(Start cutting path id: polyline3601)
(Change tool to Default tool)

G00 Z3.000000
G00 X193.850915 Y185.636423

G00 Z4.875000 (Fast pre-penetrate)
G01 Z-0.125000 F400.0(Penetrate)
G01 X168.848060 Y186.981952 Z-0.125000 F800.000000
G01 X142.051216 Y183.393900 Z-0.125000
G01 X114.656339 Y197.596555 Z-0.125000
G01 X89.503949 Y185.636423 Z-0.125000
G01 X67.939684 Y196.849059 Z-0.125000
G01 X42.936809 Y180.702842 Z-0.125000
G01 X18.831006 Y188.775924 Z-0.125000
G00 Z3.000000

(End cutting path id: polyline3601)


(Start cutting path id: polyline3795)
(Change tool to Default tool)

G00 Z3.000000
G00 X192.046573 Y154.324092

G00 Z4.875000 (Fast pre-penetrate)
G01 Z-0.125000 F400.0(Penetrate)
G01 X160.218210 Y157.855452 Z-0.125000 F800.000000
G01 X148.701445 Y150.993829 Z-0.125000
G01 X114.424367 Y152.390919 Z-0.125000
G01 X87.338786 Y152.442408 Z-0.125000
G01 X62.207028 Y151.323684 Z-0.125000
G01 X39.379692 Y159.128715 Z-0.125000
G01 X13.454100 Y152.158856 Z-0.125000
G00 Z3.000000

(End cutting path id: polyline3795)


(Start cutting path id: polyline3797)
(Change tool to Default tool)

G00 Z3.000000
G00 X192.768324 Y153.611478

G00 Z4.875000 (Fast pre-penetrate)
G01 Z-0.125000 F400.0(Penetrate)
G01 X160.321333 Y156.627260 Z-0.125000 F800.000000
G01 X148.134359 Y149.430578 Z-0.125000
G01 X114.218139 Y151.703995 Z-0.125000
G01 X87.905834 Y151.884387 Z-0.125000
G01 X62.825692 Y150.585253 Z-0.125000
G01 X39.457016 Y157.720112 Z-0.125000
G01 X13.093232 Y151.265741 Z-0.125000
G00 Z3.000000

(End cutting path id: polyline3797)


(Start cutting path id: polyline3799)
(Change tool to Default tool)

G00 Z3.000000
G00 X193.490057 Y152.898810

G00 Z4.875000 (Fast pre-penetrate)
G01 Z-0.125000 F400.0(Penetrate)
G01 X160.424419 Y155.399068 Z-0.125000 F800.000000
G01 X147.567274 Y147.867273 Z-0.125000
G01 X114.011930 Y151.017144 Z-0.125000
G01 X88.472920 Y151.326440 Z-0.125000
G01 X63.444284 Y149.846895 Z-0.125000
G01 X39.534342 Y156.311528 Z-0.125000
G01 X12.732363 Y150.372716 Z-0.125000
G00 Z3.000000

(End cutting path id: polyline3799)


(Start cutting path id: polyline3801)
(Change tool to Default tool)

G00 Z3.000000
G00 X194.211790 Y152.186123

G00 Z4.875000 (Fast pre-penetrate)
G01 Z-0.125000 F400.0(Penetrate)
G01 X160.527506 Y154.170876 Z-0.125000 F800.000000
G01 X147.000244 Y146.304022 Z-0.125000
G01 X113.805702 Y150.330220 Z-0.125000
G01 X89.040005 Y150.768419 Z-0.125000
G01 X64.062949 Y149.108464 Z-0.125000
G01 X39.611668 Y154.902943 Z-0.125000
G01 X12.371495 Y149.479637 Z-0.125000
G00 Z3.000000

(End cutting path id: polyline3801)


(Start cutting path id: polyline3589)
(Change tool to Default tool)

G00 Z3.000000
G00 X190.711378 Y114.215930

G00 Z4.875000 (Fast pre-penetrate)
G01 Z-0.125000 F400.0(Penetrate)
G01 X183.200251 Y108.833852 Z-0.125000 F800.000000
G01 X137.566133 Y110.627878 Z-0.125000
G01 X123.775950 Y119.298992 Z-0.125000
G01 X79.935876 Y108.086356 Z-0.125000
G01 X66.145640 Y105.694297 Z-0.125000
G01 X36.657756 Y108.833852 Z-0.125000
G01 X15.691455 Y114.215930 Z-0.125000
G00 Z3.000000

(End cutting path id: polyline3589)


(Start cutting path id: polyline3829)
(Change tool to Default tool)

G00 Z3.000000
G00 X188.654468 Y95.190123

G00 Z4.875000 (Fast pre-penetrate)
G01 Z-0.125000 F400.0(Penetrate)
G01 X173.209371 Y93.921919 Z-0.125000 F800.000000
G01 X147.557013 Y103.356012 Z-0.125000
G01 X117.605113 Y91.751570 Z-0.125000
G01 X84.539475 Y102.087771 Z-0.125000
G01 X59.093290 Y91.957798 Z-0.125000
G01 X37.245468 Y86.869569 Z-0.125000
G01 X9.520619 Y91.076231 Z-0.125000
G00 Z3.000000

(End cutting path id: polyline3829)


(Start cutting path id: polyline3585)
(Change tool to Default tool)

G00 Z3.000000
G00 X187.571823 Y85.176562

G00 Z4.875000 (Fast pre-penetrate)
G01 Z-0.125000 F400.0(Penetrate)
G01 X167.951047 Y86.073521 Z-0.125000 F800.000000
G01 X152.815336 Y99.528699 Z-0.125000
G01 X114.357304 Y77.252944 Z-0.125000
G01 X86.962427 Y98.930720 Z-0.125000
G01 X55.381519 Y84.727993 Z-0.125000
G01 X37.554771 Y75.309401 Z-0.125000
G01 X6.272850 Y78.897453 Z-0.125000
G00 Z3.000000

(End cutting path id: polyline3585)


(Start cutting path id: polyline3807)
(Change tool to Default tool)

G00 Z3.000000
G00 X187.680095 Y86.177895

G00 Z4.875000 (Fast pre-penetrate)
G01 Z-0.125000 F400.0(Penetrate)
G01 X168.476869 Y86.858383 Z-0.125000 F800.000000
G01 X152.289497 Y99.911439 Z-0.125000
G01 X114.682101 Y78.702792 Z-0.125000
G01 X86.720139 Y99.246398 Z-0.125000
G01 X55.752711 Y85.450977 Z-0.125000
G01 X37.523830 Y76.465436 Z-0.125000
G01 X6.597648 Y80.115329 Z-0.125000
G00 Z3.000000

(End cutting path id: polyline3807)


(Start cutting path id: polyline3587)
(Change tool to Default tool)

G00 Z3.000000
G00 X187.788349 Y84.283429

G00 Z4.875000 (Fast pre-penetrate)
G01 Z-0.125000 F400.0(Penetrate)
G01 X167.951047 Y85.149495 Z-0.125000 F800.000000
G01 X152.335891 Y98.032456 Z-0.125000
G01 X114.599647 Y76.813493 Z-0.125000
G01 X87.075866 Y97.382862 Z-0.125000
G01 X55.690815 Y83.742143 Z-0.125000
G01 X37.585710 Y74.973091 Z-0.125000
G01 X6.489381 Y78.220845 Z-0.125000
G00 Z3.000000

(End cutting path id: polyline3587)


(Start cutting path id: polyline3809)
(Change tool to Default tool)

G00 Z3.000000
G00 X187.788403 Y87.179246

G00 Z4.875000 (Fast pre-penetrate)
G01 Z-0.125000 F400.0(Penetrate)
G01 X169.002708 Y87.643208 Z-0.125000 F800.000000
G01 X151.763675 Y100.294180 Z-0.125000
G01 X115.006899 Y80.152640 Z-0.125000
G01 X86.477851 Y99.562131 Z-0.125000
G01 X56.123884 Y86.173961 Z-0.125000
G01 X37.492892 Y77.621434 Z-0.125000
G01 X6.922394 Y81.333205 Z-0.125000
G00 Z3.000000

(End cutting path id: polyline3809)


(Start cutting path id: polyline3811)
(Change tool to Default tool)

G00 Z3.000000
G00 X188.004874 Y83.390350

G00 Z4.875000 (Fast pre-penetrate)
G01 Z-0.125000 F400.0(Penetrate)
G01 X167.951047 Y84.225486 Z-0.125000 F800.000000
G01 X151.856446 Y96.536160 Z-0.125000
G01 X114.841935 Y76.374061 Z-0.125000
G01 X87.189268 Y95.835058 Z-0.125000
G01 X56.000129 Y82.756239 Z-0.125000
G01 X37.616603 Y74.636727 Z-0.125000
G01 X6.705865 Y77.544310 Z-0.125000
G00 Z3.000000

(End cutting path id: polyline3811)


(Start cutting path id: polyline3813)
(Change tool to Default tool)

G00 Z3.000000
G00 X187.896620 Y88.180596

G00 Z4.875000 (Fast pre-penetrate)
G01 Z-0.125000 F400.0(Penetrate)
G01 X169.528548 Y88.428069 Z-0.125000 F800.000000
G01 X151.237836 Y100.676920 Z-0.125000
G01 X115.331641 Y81.602507 Z-0.125000
G01 X86.235563 Y99.877808 Z-0.125000
G01 X56.495058 Y86.896945 Z-0.125000
G01 X37.461951 Y78.777487 Z-0.125000
G01 X7.247191 Y82.551081 Z-0.125000
G00 Z3.000000

(End cutting path id: polyline3813)


(Start cutting path id: polyline3815)
(Change tool to Default tool)

G00 Z3.000000
G00 X188.004874 Y89.181983

G00 Z4.875000 (Fast pre-penetrate)
G01 Z-0.125000 F400.0(Penetrate)
G01 X170.054369 Y89.212804 Z-0.125000 F800.000000
G01 X150.712014 Y101.059533 Z-0.125000
G01 X115.656438 Y83.052336 Z-0.125000
G01 X85.993275 Y100.193468 Z-0.125000
G01 X56.866249 Y87.619857 Z-0.125000
G01 X37.431060 Y79.933414 Z-0.125000
G01 X7.571939 Y83.768885 Z-0.125000
G00 Z3.000000

(End cutting path id: polyline3815)


(Start cutting path id: polyline3817)
(Change tool to Default tool)

G00 Z3.000000
G00 X188.221418 Y82.497217

G00 Z4.875000 (Fast pre-penetrate)
G01 Z-0.125000 F400.0(Penetrate)
G01 X167.951047 Y83.301459 Z-0.125000 F800.000000
G01 X151.377001 Y95.039917 Z-0.125000
G01 X115.084223 Y75.934610 Z-0.125000
G01 X87.302725 Y94.287254 Z-0.125000
G01 X37.647542 Y74.300417 Z-0.125000
G01 X6.922394 Y76.867702 Z-0.125000
G00 Z3.000000

(End cutting path id: polyline3817)


(Start cutting path id: polyline3819)
(Change tool to Default tool)

G00 Z3.000000
G00 X188.437943 Y81.604138

G00 Z4.875000 (Fast pre-penetrate)
G01 Z-0.125000 F400.0(Penetrate)
G01 X167.951047 Y82.377433 Z-0.125000 F800.000000
G01 X150.897592 Y93.543638 Z-0.125000
G01 X115.326511 Y75.495178 Z-0.125000
G01 X87.416110 Y92.739450 Z-0.125000
G01 X56.618776 Y80.784449 Z-0.125000
G01 X37.678482 Y73.964108 Z-0.125000
G01 X7.138925 Y76.191148 Z-0.125000
G00 Z3.000000

(End cutting path id: polyline3819)


(Start cutting path id: polyline3821)
(Change tool to Default tool)

G00 Z3.000000
G00 X188.113146 Y90.183334

G00 Z4.875000 (Fast pre-penetrate)
G01 Z-0.125000 F400.0(Penetrate)
G01 X170.580209 Y89.997738 Z-0.125000 F800.000000
G01 X150.186175 Y101.442346 Z-0.125000
G01 X115.981236 Y84.502257 Z-0.125000
G01 X85.750987 Y100.509273 Z-0.125000
G01 X57.237423 Y88.342913 Z-0.125000
G01 X37.400119 Y81.089485 Z-0.125000
G01 X7.896735 Y84.986833 Z-0.125000
G00 Z3.000000

(End cutting path id: polyline3821)


(Start cutting path id: polyline3823)
(Change tool to Default tool)

G00 Z3.000000
G00 X188.221418 Y91.184684

G00 Z4.875000 (Fast pre-penetrate)
G01 Z-0.125000 F400.0(Penetrate)
G01 X171.106049 Y90.782563 Z-0.125000 F800.000000
G01 X149.660335 Y101.825105 Z-0.125000
G01 X116.306033 Y85.952105 Z-0.125000
G01 X85.508681 Y100.824951 Z-0.125000
G01 X57.608614 Y89.065861 Z-0.125000
G01 X37.369181 Y82.245520 Z-0.125000
G01 X8.221532 Y86.204709 Z-0.125000
G00 Z3.000000

(End cutting path id: polyline3823)


(Start cutting path id: polyline3825)
(Change tool to Default tool)

G00 Z3.000000
G00 X188.329671 Y92.186035

G00 Z4.875000 (Fast pre-penetrate)
G01 Z-0.125000 F400.0(Penetrate)
G01 X171.631870 Y91.567370 Z-0.125000 F800.000000
G01 X149.134513 Y102.207845 Z-0.125000
G01 X116.630776 Y87.401971 Z-0.125000
G01 X85.266357 Y101.140683 Z-0.125000
G01 X57.979751 Y89.788845 Z-0.125000
G01 X37.338240 Y83.401518 Z-0.125000
G01 X8.546278 Y87.422585 Z-0.125000
G00 Z3.000000

(End cutting path id: polyline3825)


(Start cutting path id: polyline3805)
(Change tool to Default tool)

G00 Z3.000000
G00 X188.437943 Y93.187422

G00 Z4.875000 (Fast pre-penetrate)
G01 Z-0.125000 F400.0(Penetrate)
G01 X172.157710 Y92.352232 Z-0.125000 F800.000000
G01 X148.608674 Y102.590531 Z-0.125000
G01 X116.955573 Y88.851820 Z-0.125000
G01 X85.024069 Y101.456361 Z-0.125000
G01 X58.350925 Y90.511829 Z-0.125000
G01 X37.307300 Y84.557517 Z-0.125000
G01 X8.871075 Y88.640461 Z-0.125000
G00 Z3.000000

(End cutting path id: polyline3805)


(Start cutting path id: polyline3827)
(Change tool to Default tool)

G00 Z3.000000
G00 X188.546215 Y94.188773

G00 Z4.875000 (Fast pre-penetrate)
G01 Z-0.125000 F400.0(Penetrate)
G01 X172.683531 Y93.137057 Z-0.125000 F800.000000
G01 X148.082834 Y102.973271 Z-0.125000
G01 X117.280370 Y90.301722 Z-0.125000
G01 X84.781781 Y101.772093 Z-0.125000
G01 X58.722153 Y91.234814 Z-0.125000
G01 X37.276361 Y85.713570 Z-0.125000
G01 X9.195871 Y89.858337 Z-0.125000
G00 Z3.000000

(End cutting path id: polyline3827)


(Start cutting path id: polyline3831)
(Change tool to Default tool)

G00 Z3.000000
G00 X188.762740 Y96.191456

G00 Z4.875000 (Fast pre-penetrate)
G01 Z-0.125000 F400.0(Penetrate)
G01 X173.735210 Y94.706726 Z-0.125000 F800.000000
G01 X147.031173 Y103.738752 Z-0.125000
G01 X117.929910 Y93.201436 Z-0.125000
G01 X84.297187 Y102.403503 Z-0.125000
G01 X59.464463 Y92.680782 Z-0.125000
G01 X37.214529 Y88.025549 Z-0.125000
G01 X9.845414 Y92.294107 Z-0.125000
G00 Z3.000000

(End cutting path id: polyline3831)


(Start cutting path id: polyline3833)
(Change tool to Default tool)

G00 Z3.000000
G00 X188.870958 Y97.192861

G00 Z4.875000 (Fast pre-penetrate)
G01 Z-0.125000 F400.0(Penetrate)
G01 X174.261032 Y95.491605 Z-0.125000 F800.000000
G01 X146.505352 Y104.121456 Z-0.125000
G01 X118.254671 Y94.651284 Z-0.125000
G01 X84.054899 Y102.719235 Z-0.125000
G01 X59.835655 Y93.403766 Z-0.125000
G01 X37.183588 Y89.181602 Z-0.125000
G01 X10.170211 Y93.511983 Z-0.125000
G00 Z3.000000

(End cutting path id: polyline3833)


(Start cutting path id: polyline3835)
(Change tool to Default tool)

G00 Z3.000000
G00 X188.979229 Y98.194193

G00 Z4.875000 (Fast pre-penetrate)
G01 Z-0.125000 F400.0(Penetrate)
G01 X174.786872 Y96.276412 Z-0.125000 F800.000000
G01 X145.979512 Y104.504196 Z-0.125000
G01 X118.579450 Y96.101133 Z-0.125000
G01 X83.812611 Y103.034913 Z-0.125000
G01 X60.206828 Y94.126696 Z-0.125000
G01 X37.152650 Y90.337601 Z-0.125000
G01 X10.494960 Y94.729859 Z-0.125000
G00 Z3.000000

(End cutting path id: polyline3835)


(Start cutting path id: polyline3837)
(Change tool to Default tool)

G00 Z3.000000
G00 X189.087537 Y99.195544

G00 Z4.875000 (Fast pre-penetrate)
G01 Z-0.125000 F400.0(Penetrate)
G01 X175.312711 Y97.061274 Z-0.125000 F800.000000
G01 X145.453672 Y104.886937 Z-0.125000
G01 X118.904247 Y97.551035 Z-0.125000
G01 X83.570323 Y103.350645 Z-0.125000
G01 X60.578020 Y94.849680 Z-0.125000
G01 X37.121709 Y91.493654 Z-0.125000
G01 X10.819755 Y95.947736 Z-0.125000
G00 Z3.000000

(End cutting path id: polyline3837)


(Start cutting path id: polyline3839)
(Change tool to Default tool)

G00 Z3.000000
G00 X189.195755 Y100.196895

G00 Z4.875000 (Fast pre-penetrate)
G01 Z-0.125000 F400.0(Penetrate)
G01 X175.838533 Y97.846099 Z-0.125000 F800.000000
G01 X144.927851 Y105.269677 Z-0.125000
G01 X119.229008 Y99.000883 Z-0.125000
G01 X83.327980 Y103.666377 Z-0.125000
G01 X60.949193 Y95.572664 Z-0.125000
G01 X37.090769 Y92.649653 Z-0.125000
G01 X11.144552 Y97.165666 Z-0.125000
G00 Z3.000000

(End cutting path id: polyline3839)


(Start cutting path id: polyline3841)
(Change tool to Default tool)

G00 Z3.000000
G00 X189.304026 Y101.198281

G00 Z4.875000 (Fast pre-penetrate)
G01 Z-0.125000 F400.0(Penetrate)
G01 X176.364372 Y98.630961 Z-0.125000 F800.000000
G01 X144.402011 Y105.652381 Z-0.125000
G01 X119.553805 Y100.450749 Z-0.125000
G01 X83.085692 Y103.982055 Z-0.125000
G01 X61.320385 Y96.295648 Z-0.125000
G01 X37.059877 Y93.805633 Z-0.125000
G01 X11.469299 Y98.383542 Z-0.125000
G00 Z3.000000

(End cutting path id: polyline3841)


(Start cutting path id: polyline3843)
(Change tool to Default tool)

G00 Z3.000000
G00 X189.412280 Y102.199632

G00 Z4.875000 (Fast pre-penetrate)
G01 Z-0.125000 F400.0(Penetrate)
G01 X176.890194 Y99.415768 Z-0.125000 F800.000000
G01 X143.876172 Y106.035121 Z-0.125000
G01 X119.878602 Y101.900598 Z-0.125000
G01 X82.843404 Y104.297787 Z-0.125000
G01 X61.691558 Y97.018632 Z-0.125000
G01 X37.028939 Y94.961687 Z-0.125000
G01 X11.794096 Y99.601418 Z-0.125000
G00 Z3.000000

(End cutting path id: polyline3843)


(Start cutting path id: polyline3845)
(Change tool to Default tool)

G00 Z3.000000
G00 X189.520552 Y103.200983

G00 Z4.875000 (Fast pre-penetrate)
G01 Z-0.125000 F400.0(Penetrate)
G01 X177.416088 Y100.200629 Z-0.125000 F800.000000
G01 X143.350350 Y106.417862 Z-0.125000
G01 X120.203381 Y103.350446 Z-0.125000
G01 X82.601116 Y104.613520 Z-0.125000
G01 X62.062695 Y97.741562 Z-0.125000
G01 X36.997998 Y96.117685 Z-0.125000
G01 X12.118891 Y100.819294 Z-0.125000
G00 Z3.000000

(End cutting path id: polyline3845)


(Start cutting path id: polyline3847)
(Change tool to Default tool)

G00 Z3.000000
G00 X189.628824 Y104.202333

G00 Z4.875000 (Fast pre-penetrate)
G01 Z-0.125000 F400.0(Penetrate)
G01 X177.941873 Y100.985455 Z-0.125000 F800.000000
G01 X142.824511 Y106.800602 Z-0.125000
G01 X120.528142 Y104.800348 Z-0.125000
G01 X82.358828 Y104.929252 Z-0.125000
G01 X62.433923 Y98.464601 Z-0.125000
G01 X36.967058 Y97.273738 Z-0.125000
G01 X12.443639 Y102.037224 Z-0.125000
G00 Z3.000000

(End cutting path id: polyline3847)


(Start cutting path id: polyline3849)
(Change tool to Default tool)

G00 Z3.000000
G00 X189.737077 Y105.203720

G00 Z4.875000 (Fast pre-penetrate)
G01 Z-0.125000 F400.0(Penetrate)
G01 X178.467695 Y101.770316 Z-0.125000 F800.000000
G01 X142.298689 Y107.183288 Z-0.125000
G01 X120.852939 Y106.250214 Z-0.125000
G01 X82.116540 Y105.244930 Z-0.125000
G01 X62.805060 Y99.187531 Z-0.125000
G01 X36.936119 Y98.429737 Z-0.125000
G01 X12.768435 Y103.255046 Z-0.125000
G00 Z3.000000

(End cutting path id: polyline3849)


(Start cutting path id: polyline3851)
(Change tool to Default tool)

G00 Z3.000000
G00 X189.845295 Y106.205071

G00 Z4.875000 (Fast pre-penetrate)
G01 Z-0.125000 F400.0(Penetrate)
G01 X178.993534 Y102.555123 Z-0.125000 F800.000000
G01 X141.772795 Y107.566028 Z-0.125000
G01 X121.177682 Y107.700008 Z-0.125000
G01 X81.874252 Y105.560607 Z-0.125000
G01 X63.176234 Y99.910460 Z-0.125000
G01 X36.905178 Y99.585663 Z-0.125000
G01 X13.093232 Y104.472868 Z-0.125000
G00 Z3.000000

(End cutting path id: polyline3851)


(Start cutting path id: polyline3853)
(Change tool to Default tool)

G00 Z3.000000
G00 X189.953566 Y107.206422

G00 Z4.875000 (Fast pre-penetrate)
G01 Z-0.125000 F400.0(Penetrate)
G01 X179.519410 Y103.340003 Z-0.125000 F800.000000
G01 X141.247010 Y107.948787 Z-0.125000
G01 X121.502479 Y109.149911 Z-0.125000
G01 X81.631964 Y105.876340 Z-0.125000
G01 X63.547425 Y100.633499 Z-0.125000
G01 X36.874287 Y100.741734 Z-0.125000
G01 X13.417980 Y105.690762 Z-0.125000
G00 Z3.000000

(End cutting path id: polyline3853)


(Start cutting path id: polyline3855)
(Change tool to Default tool)

G00 Z3.000000
G00 X190.061820 Y108.207754

G00 Z4.875000 (Fast pre-penetrate)
G01 Z-0.125000 F400.0(Penetrate)
G01 X180.045195 Y104.124810 Z-0.125000 F800.000000
G01 X140.721134 Y108.331527 Z-0.125000
G01 X121.827276 Y110.599777 Z-0.125000
G01 X81.389622 Y106.192072 Z-0.125000
G01 X63.918599 Y101.356447 Z-0.125000
G01 X36.843346 Y101.897769 Z-0.125000
G01 X13.742775 Y106.908674 Z-0.125000
G00 Z3.000000

(End cutting path id: polyline3855)


(Start cutting path id: polyline3857)
(Change tool to Default tool)

G00 Z3.000000
G00 X190.170092 Y109.209105

G00 Z4.875000 (Fast pre-penetrate)
G01 Z-0.125000 F400.0(Penetrate)
G01 X180.571071 Y104.909671 Z-0.125000 F800.000000
G01 X140.195294 Y108.714213 Z-0.125000
G01 X122.152019 Y112.049679 Z-0.125000
G01 X81.147334 Y106.507804 Z-0.125000
G01 X64.289790 Y102.079431 Z-0.125000
G01 X36.812408 Y103.053768 Z-0.125000
G01 X14.067571 Y108.126550 Z-0.125000
G00 Z3.000000

(End cutting path id: polyline3857)


(Start cutting path id: polyline3859)
(Change tool to Default tool)

G00 Z3.000000
G00 X190.278364 Y110.210510

G00 Z4.875000 (Fast pre-penetrate)
G01 Z-0.125000 F400.0(Penetrate)
G01 X181.096911 Y105.694497 Z-0.125000 F800.000000
G01 X139.669473 Y109.096953 Z-0.125000
G01 X122.476816 Y113.499527 Z-0.125000
G01 X80.905046 Y106.823482 Z-0.125000
G01 X64.660964 Y102.802415 Z-0.125000
G01 X36.781467 Y104.209803 Z-0.125000
G01 X14.392319 Y109.344426 Z-0.125000
G00 Z3.000000

(End cutting path id: polyline3859)


(Start cutting path id: polyline3861)
(Change tool to Default tool)

G00 Z3.000000
G00 X190.386581 Y111.211842

G00 Z4.875000 (Fast pre-penetrate)
G01 Z-0.125000 F400.0(Penetrate)
G01 X181.622750 Y106.479358 Z-0.125000 F800.000000
G01 X139.143633 Y109.479693 Z-0.125000
G01 X122.801613 Y114.949375 Z-0.125000
G01 X80.662740 Y107.139214 Z-0.125000
G01 X65.032101 Y103.525399 Z-0.125000
G01 X36.750527 Y105.365802 Z-0.125000
G01 X14.717116 Y110.562302 Z-0.125000
G00 Z3.000000

(End cutting path id: polyline3861)


(Start cutting path id: polyline3803)
(Change tool to Default tool)

G00 Z3.000000
G00 X190.494835 Y112.213193

G00 Z4.875000 (Fast pre-penetrate)
G01 Z-0.125000 F400.0(Penetrate)
G01 X182.148572 Y107.264165 Z-0.125000 F800.000000
G01 X138.617812 Y109.862397 Z-0.125000
G01 X123.126356 Y116.399224 Z-0.125000
G01 X65.403275 Y104.248383 Z-0.125000
G01 X36.719635 Y106.521800 Z-0.125000
G01 X15.041911 Y111.780178 Z-0.125000
G00 Z3.000000

(End cutting path id: polyline3803)


(Start cutting path id: polyline3591)
(Change tool to Default tool)

G00 Z3.000000
G00 X190.603106 Y113.214543

G00 Z4.875000 (Fast pre-penetrate)
G01 Z-0.125000 F400.0(Penetrate)
G01 X182.674412 Y108.049027 Z-0.125000 F800.000000
G01 X138.091972 Y110.245138 Z-0.125000
G01 X123.451153 Y117.849126 Z-0.125000
G01 X80.178164 Y107.770624 Z-0.125000
G01 X65.774466 Y104.971367 Z-0.125000
G01 X36.688697 Y107.677853 Z-0.125000
G01 X15.366660 Y112.998054 Z-0.125000
G00 Z3.000000

(End cutting path id: polyline3591)


(Start cutting path id: polyline3909)
(Change tool to Default tool)

G00 Z3.000000
G00 X191.180507 Y115.181166

G00 Z4.875000 (Fast pre-penetrate)
G01 Z-0.125000 F400.0(Penetrate)
G01 X182.468184 Y109.804255 Z-0.125000 F800.000000
G01 X137.617712 Y111.103389 Z-0.125000
G01 X123.332584 Y120.037423 Z-0.125000
G01 X80.523593 Y109.288786 Z-0.125000
G01 X66.372499 Y106.834904 Z-0.125000
G01 X36.796961 Y109.742432 Z-0.125000
G01 X15.402780 Y115.000756 Z-0.125000
G00 Z3.000000

(End cutting path id: polyline3909)


(Start cutting path id: polyline3911)
(Change tool to Default tool)

G00 Z3.000000
G00 X191.649637 Y116.146493

G00 Z4.875000 (Fast pre-penetrate)
G01 Z-0.125000 F400.0(Penetrate)
G01 X181.736135 Y110.774712 Z-0.125000 F800.000000
G01 X137.669274 Y111.578900 Z-0.125000
G01 X122.889253 Y120.775854 Z-0.125000
G01 X81.111256 Y110.491161 Z-0.125000
G01 X66.599340 Y107.975401 Z-0.125000
G01 X36.936119 Y110.650994 Z-0.125000
G01 X15.114056 Y115.785617 Z-0.125000
G00 Z3.000000

(End cutting path id: polyline3911)


(Start cutting path id: polyline3913)
(Change tool to Default tool)

G00 Z3.000000
G00 X192.118766 Y117.111711

G00 Z4.875000 (Fast pre-penetrate)
G01 Z-0.125000 F400.0(Penetrate)
G01 X181.004140 Y111.745115 Z-0.125000 F800.000000
G01 X137.720781 Y112.054466 Z-0.125000
G01 X122.445887 Y121.514321 Z-0.125000
G01 X81.698973 Y111.693608 Z-0.125000
G01 X66.826127 Y109.115953 Z-0.125000
G01 X37.075324 Y111.559519 Z-0.125000
G01 X14.825381 Y116.570424 Z-0.125000
G00 Z3.000000

(End cutting path id: polyline3913)


(Start cutting path id: polyline3863)
(Change tool to Default tool)

G00 Z3.000000
G00 X188.654432 Y80.711059

G00 Z4.875000 (Fast pre-penetrate)
G01 Z-0.125000 F400.0(Penetrate)
G01 X167.951047 Y81.453424 Z-0.125000 F800.000000
G01 X150.418147 Y92.047396 Z-0.125000
G01 X115.568798 Y75.055727 Z-0.125000
G01 X87.529512 Y91.191592 Z-0.125000
G01 X56.928072 Y79.798600 Z-0.125000
G01 X37.709421 Y73.627762 Z-0.125000
G01 X7.355456 Y75.514559 Z-0.125000
G00 Z3.000000

(End cutting path id: polyline3863)


(Start cutting path id: polyline3865)
(Change tool to Default tool)

G00 Z3.000000
G00 X188.870958 Y79.817926

G00 Z4.875000 (Fast pre-penetrate)
G01 Z-0.125000 F400.0(Penetrate)
G01 X167.951047 Y80.529398 Z-0.125000 F800.000000
G01 X149.938701 Y90.551153 Z-0.125000
G01 X115.811086 Y74.616295 Z-0.125000
G01 X87.642969 Y89.643788 Z-0.125000
G01 X57.237386 Y78.812696 Z-0.125000
G01 X37.740361 Y73.291452 Z-0.125000
G01 X7.571939 Y74.837951 Z-0.125000
G00 Z3.000000

(End cutting path id: polyline3865)


(Start cutting path id: polyline3867)
(Change tool to Default tool)

G00 Z3.000000
G00 X189.087483 Y78.924847

G00 Z4.875000 (Fast pre-penetrate)
G01 Z-0.125000 F400.0(Penetrate)
G01 X167.951047 Y79.605317 Z-0.125000 F800.000000
G01 X149.459256 Y89.054874 Z-0.125000
G01 X116.053374 Y74.176844 Z-0.125000
G01 X87.756353 Y88.095984 Z-0.125000
G01 X57.546737 Y77.826792 Z-0.125000
G01 X37.771302 Y72.955088 Z-0.125000
G01 X7.788470 Y74.161415 Z-0.125000
G00 Z3.000000

(End cutting path id: polyline3867)


(Start cutting path id: polyline3869)
(Change tool to Default tool)

G00 Z3.000000
G00 X189.303972 Y78.031768

G00 Z4.875000 (Fast pre-penetrate)
G01 Z-0.125000 F400.0(Penetrate)
G01 X167.951047 Y78.681308 Z-0.125000 F800.000000
G01 X148.979811 Y87.558632 Z-0.125000
G01 X116.295717 Y73.737411 Z-0.125000
G01 X87.869756 Y86.548162 Z-0.125000
G01 X57.856033 Y76.840888 Z-0.125000
G01 X37.802193 Y72.618742 Z-0.125000
G01 X8.005001 Y73.484808 Z-0.125000
G00 Z3.000000

(End cutting path id: polyline3869)


(Start cutting path id: polyline3871)
(Change tool to Default tool)

G00 Z3.000000
G00 X189.520497 Y77.138635

G00 Z4.875000 (Fast pre-penetrate)
G01 Z-0.125000 F400.0(Penetrate)
G01 X167.951047 Y77.757282 Z-0.125000 F800.000000
G01 X148.500402 Y86.062335 Z-0.125000
G01 X116.538005 Y73.297979 Z-0.125000
G01 X87.983195 Y85.000358 Z-0.125000
G01 X58.165329 Y75.855038 Z-0.125000
G01 X37.833134 Y72.282433 Z-0.125000
G01 X8.221532 Y72.808254 Z-0.125000
G00 Z3.000000

(End cutting path id: polyline3871)


(Start cutting path id: polyline3873)
(Change tool to Default tool)

G00 Z3.000000
G00 X189.737041 Y76.245556

G00 Z4.875000 (Fast pre-penetrate)
G01 Z-0.125000 F400.0(Penetrate)
G01 X167.951047 Y76.833255 Z-0.125000 F800.000000
G01 X148.020957 Y84.566111 Z-0.125000
G01 X116.780293 Y72.858528 Z-0.125000
G01 X88.096597 Y83.452554 Z-0.125000
G01 X58.474643 Y74.869134 Z-0.125000
G01 X37.864072 Y71.946069 Z-0.125000
G01 X8.438014 Y72.131664 Z-0.125000
G00 Z3.000000

(End cutting path id: polyline3873)


(Start cutting path id: polyline3875)
(Change tool to Default tool)

G00 Z3.000000
G00 X189.953566 Y75.352477

G00 Z4.875000 (Fast pre-penetrate)
G01 Z-0.125000 F400.0(Penetrate)
G01 X167.951047 Y75.909247 Z-0.125000 F800.000000
G01 X147.541512 Y83.069814 Z-0.125000
G01 X117.022581 Y72.419096 Z-0.125000
G01 X88.210000 Y81.904714 Z-0.125000
G01 X58.783994 Y73.883230 Z-0.125000
G01 X37.895013 Y71.609759 Z-0.125000
G01 X8.654545 Y71.455111 Z-0.125000
G00 Z3.000000

(End cutting path id: polyline3875)


(Start cutting path id: polyline3877)
(Change tool to Default tool)

G00 Z3.000000
G00 X190.170092 Y74.459344

G00 Z4.875000 (Fast pre-penetrate)
G01 Z-0.125000 F400.0(Penetrate)
G01 X167.951047 Y74.985166 Z-0.125000 F800.000000
G01 X147.062066 Y81.573571 Z-0.125000
G01 X117.264869 Y71.979645 Z-0.125000
G01 X88.323439 Y80.356892 Z-0.125000
G01 X59.093290 Y72.897344 Z-0.125000
G01 X37.925952 Y71.273395 Z-0.125000
G01 X8.871075 Y70.778503 Z-0.125000
G00 Z3.000000

(End cutting path id: polyline3877)


(Start cutting path id: polyline3879)
(Change tool to Default tool)

G00 Z3.000000
G00 X190.386581 Y73.566265

G00 Z4.875000 (Fast pre-penetrate)
G01 Z-0.125000 F400.0(Penetrate)
G01 X167.951047 Y74.061157 Z-0.125000 F800.000000
G01 X146.582676 Y80.077292 Z-0.125000
G01 X117.507157 Y71.540249 Z-0.125000
G01 X88.436841 Y78.809088 Z-0.125000
G01 X59.402586 Y71.911440 Z-0.125000
G01 X37.956892 Y70.937103 Z-0.125000
G01 X9.087606 Y70.101913 Z-0.125000
G00 Z3.000000

(End cutting path id: polyline3879)


(Start cutting path id: polyline3881)
(Change tool to Default tool)

G00 Z3.000000
G00 X190.603106 Y72.673132

G00 Z4.875000 (Fast pre-penetrate)
G01 Z-0.125000 F400.0(Penetrate)
G01 X167.951047 Y73.137130 Z-0.125000 F800.000000
G01 X146.103230 Y78.581050 Z-0.125000
G01 X117.749463 Y71.100762 Z-0.125000
G01 X88.550244 Y77.261284 Z-0.125000
G01 X59.711900 Y70.925536 Z-0.125000
G01 X37.987784 Y70.600739 Z-0.125000
G01 X9.304088 Y69.425305 Z-0.125000
G00 Z3.000000

(End cutting path id: polyline3881)


(Start cutting path id: polyline3883)
(Change tool to Default tool)

G00 Z3.000000
G00 X190.819632 Y71.780053

G00 Z4.875000 (Fast pre-penetrate)
G01 Z-0.125000 F400.0(Penetrate)
G01 X167.951047 Y72.213104 Z-0.125000 F800.000000
G01 X145.623767 Y77.084771 Z-0.125000
G01 X117.991751 Y70.661366 Z-0.125000
G01 X88.663682 Y75.713480 Z-0.125000
G01 X60.021251 Y69.939633 Z-0.125000
G01 X38.018724 Y70.264430 Z-0.125000
G01 X9.520619 Y68.748770 Z-0.125000
G00 Z3.000000

(End cutting path id: polyline3883)


(Start cutting path id: polyline3885)
(Change tool to Default tool)

G00 Z3.000000
G00 X191.036121 Y70.886974

G00 Z4.875000 (Fast pre-penetrate)
G01 Z-0.125000 F400.0(Penetrate)
G01 X167.951047 Y71.289095 Z-0.125000 F800.000000
G01 X145.144322 Y75.588529 Z-0.125000
G01 X118.234039 Y70.221933 Z-0.125000
G01 X88.777085 Y74.165622 Z-0.125000
G01 X60.330547 Y68.953729 Z-0.125000
G01 X38.049663 Y69.928066 Z-0.125000
G01 X9.737150 Y68.072162 Z-0.125000
G00 Z3.000000

(End cutting path id: polyline3885)


(Start cutting path id: polyline3887)
(Change tool to Default tool)

G00 Z3.000000
G00 X191.252646 Y69.993841

G00 Z4.875000 (Fast pre-penetrate)
G01 Z-0.125000 F400.0(Penetrate)
G01 X167.951047 Y70.365014 Z-0.125000 F800.000000
G01 X144.664877 Y74.092286 Z-0.125000
G01 X118.476381 Y69.782483 Z-0.125000
G01 X88.890524 Y72.617818 Z-0.125000
G01 X60.639843 Y67.967879 Z-0.125000
G01 X38.080603 Y69.591756 Z-0.125000
G01 X9.953681 Y67.395609 Z-0.125000
G00 Z3.000000

(End cutting path id: polyline3887)


(Start cutting path id: polyline3889)
(Change tool to Default tool)

G00 Z3.000000
G00 X191.469190 Y69.100762

G00 Z4.875000 (Fast pre-penetrate)
G01 Z-0.125000 F400.0(Penetrate)
G01 X167.951047 Y69.441006 Z-0.125000 F800.000000
G01 X144.185432 Y72.595989 Z-0.125000
G01 X118.718669 Y69.343050 Z-0.125000
G01 X89.003926 Y71.070014 Z-0.125000
G01 X60.949157 Y66.981975 Z-0.125000
G01 X38.111544 Y69.255410 Z-0.125000
G01 X10.170163 Y66.719019 Z-0.125000
G00 Z3.000000

(End cutting path id: polyline3889)


(Start cutting path id: polyline3891)
(Change tool to Default tool)

G00 Z3.000000
G00 X191.685715 Y68.207683

G00 Z4.875000 (Fast pre-penetrate)
G01 Z-0.125000 F400.0(Penetrate)
G01 X167.951047 Y68.516979 Z-0.125000 F800.000000
G01 X143.706041 Y71.099765 Z-0.125000
G01 X118.960957 Y68.903599 Z-0.125000
G01 X89.117329 Y69.522210 Z-0.125000
G01 X61.258507 Y65.996071 Z-0.125000
G01 X38.142482 Y68.919100 Z-0.125000
G01 X10.386693 Y66.042411 Z-0.125000
G00 Z3.000000

(End cutting path id: polyline3891)


(Start cutting path id: polyline3893)
(Change tool to Default tool)

G00 Z3.000000
G00 X191.902241 Y67.314550

G00 Z4.875000 (Fast pre-penetrate)
G01 Z-0.125000 F400.0(Penetrate)
G01 X167.951047 Y67.592953 Z-0.125000 F800.000000
G01 X143.226595 Y69.603468 Z-0.125000
G01 X119.203245 Y68.464167 Z-0.125000
G01 X89.230768 Y67.974406 Z-0.125000
G01 X61.567804 Y65.010185 Z-0.125000
G01 X38.173374 Y68.582736 Z-0.125000
G01 X10.603224 Y65.365876 Z-0.125000
G00 Z3.000000

(End cutting path id: polyline3893)


(Start cutting path id: polyline3895)
(Change tool to Default tool)

G00 Z3.000000
G00 X192.118730 Y66.421471

G00 Z4.875000 (Fast pre-penetrate)
G01 Z-0.125000 F400.0(Penetrate)
G01 X167.951047 Y66.668944 Z-0.125000 F800.000000
G01 X142.747132 Y68.107225 Z-0.125000
G01 X119.445533 Y68.024734 Z-0.125000
G01 X89.344170 Y66.426620 Z-0.125000
G01 X61.877100 Y64.024299 Z-0.125000
G01 X38.204315 Y68.246445 Z-0.125000
G01 X10.819755 Y64.689286 Z-0.125000
G00 Z3.000000

(End cutting path id: polyline3895)


(Start cutting path id: polyline3897)
(Change tool to Default tool)

G00 Z3.000000
G00 X192.335255 Y65.528338

G00 Z4.875000 (Fast pre-penetrate)
G01 Z-0.125000 F400.0(Penetrate)
G01 X167.951047 Y65.744863 Z-0.125000 F800.000000
G01 X142.267687 Y66.610947 Z-0.125000
G01 X119.687821 Y67.585284 Z-0.125000
G01 X89.457573 Y64.878798 Z-0.125000
G01 X62.186414 Y63.038377 Z-0.125000
G01 X38.235255 Y67.910081 Z-0.125000
G01 X11.036239 Y64.012714 Z-0.125000
G00 Z3.000000

(End cutting path id: polyline3897)


(Start cutting path id: polyline3899)
(Change tool to Default tool)

G00 Z3.000000
G00 X192.551780 Y64.635259

G00 Z4.875000 (Fast pre-penetrate)
G01 Z-0.125000 F400.0(Penetrate)
G01 X141.788296 Y65.114704 Z-0.125000 F800.000000
G01 X119.930109 Y67.145833 Z-0.125000
G01 X89.571011 Y63.330994 Z-0.125000
G01 X62.495764 Y62.052473 Z-0.125000
G01 X38.266194 Y67.573717 Z-0.125000
G01 X11.252770 Y63.336125 Z-0.125000
G00 Z3.000000

(End cutting path id: polyline3899)


(Start cutting path id: polyline3901)
(Change tool to Default tool)

G00 Z3.000000
G00 X192.768324 Y63.742180

G00 Z4.875000 (Fast pre-penetrate)
G01 Z-0.125000 F400.0(Penetrate)
G01 X167.951047 Y63.896828 Z-0.125000 F800.000000
G01 X141.308851 Y63.618407 Z-0.125000
G01 X120.172451 Y66.706401 Z-0.125000
G01 X89.684414 Y61.783190 Z-0.125000
G01 X62.805060 Y61.066624 Z-0.125000
G01 X38.297134 Y67.237407 Z-0.125000
G01 X11.469299 Y62.659571 Z-0.125000
G00 Z3.000000

(End cutting path id: polyline3901)


(Start cutting path id: polyline3903)
(Change tool to Default tool)

G00 Z3.000000
G00 X192.984795 Y62.849047

G00 Z4.875000 (Fast pre-penetrate)
G01 Z-0.125000 F400.0(Penetrate)
G01 X167.951047 Y62.972874 Z-0.125000 F800.000000
G01 X140.829406 Y62.122255 Z-0.125000
G01 X120.414739 Y66.267041 Z-0.125000
G01 X89.797816 Y60.235404 Z-0.125000
G01 X63.114357 Y60.080756 Z-0.125000
G01 X38.328075 Y66.901098 Z-0.125000
G01 X11.685829 Y61.983000 Z-0.125000
G00 Z3.000000

(End cutting path id: polyline3903)


(Start cutting path id: polyline3905)
(Change tool to Default tool)

G00 Z3.000000
G00 X193.201339 Y61.955968

G00 Z4.875000 (Fast pre-penetrate)
G01 Z-0.125000 F400.0(Penetrate)
G01 X167.951047 Y62.048793 Z-0.125000 F800.000000
G01 X140.349961 Y60.625940 Z-0.125000
G01 X120.657027 Y65.827517 Z-0.125000
G01 X89.911255 Y58.687528 Z-0.125000
G01 X63.423671 Y59.094816 Z-0.125000
G01 X38.358966 Y66.564752 Z-0.125000
G01 X11.902360 Y61.306428 Z-0.125000
G00 Z3.000000

(End cutting path id: polyline3905)


(Start cutting path id: polyline3907)
(Change tool to Default tool)

G00 Z3.000000
G00 X193.417864 Y61.062889

G00 Z4.875000 (Fast pre-penetrate)
G01 Z-0.125000 F400.0(Penetrate)
G01 X167.951047 Y61.124712 Z-0.125000 F800.000000
G01 X139.870552 Y59.129643 Z-0.125000
G01 X120.899315 Y65.388121 Z-0.125000
G01 X90.024658 Y57.139724 Z-0.125000
G01 X63.733021 Y58.108930 Z-0.125000
G01 X38.389905 Y66.228388 Z-0.125000
G01 X12.118891 Y60.629820 Z-0.125000
G00 Z3.000000

(End cutting path id: polyline3907)


(Start cutting path id: polyline3583)
(Change tool to Default tool)

G00 Z3.000000
G00 X193.634389 Y60.169756

G00 Z4.875000 (Fast pre-penetrate)
G01 Z-0.125000 F400.0(Penetrate)
G01 X167.951047 Y60.200758 Z-0.125000 F800.000000
G01 X139.391106 Y57.633473 Z-0.125000
G01 X121.141603 Y64.948761 Z-0.125000
G01 X90.138060 Y55.591974 Z-0.125000
G01 X64.042317 Y57.123099 Z-0.125000
G01 X38.420845 Y65.892150 Z-0.125000
G01 X12.335375 Y59.953303 Z-0.125000
G00 Z3.000000

(End cutting path id: polyline3583)


(Start cutting path id: polyline3581)
(Change tool to Default tool)

G00 Z3.000000
G00 X193.850915 Y59.276677

G00 Z4.875000 (Fast pre-penetrate)
G01 Z-0.125000 F400.0(Penetrate)
G01 X167.951047 Y59.276677 Z-0.125000 F800.000000
G01 X138.911661 Y56.137122 Z-0.125000
G01 X121.383891 Y64.509238 Z-0.125000
G01 X90.251499 Y54.044098 Z-0.125000
G01 X64.351613 Y56.137122 Z-0.125000
G01 X38.451786 Y65.555732 Z-0.125000
G01 X12.551906 Y59.276677 Z-0.125000
G00 Z3.000000

(End cutting path id: polyline3581)


(Start cutting path id: polyline3915)
(Change tool to Default tool)

G00 Z3.000000
G00 X192.587913 Y118.076983

G00 Z4.875000 (Fast pre-penetrate)
G01 Z-0.125000 F400.0(Penetrate)
G01 X180.272037 Y112.715572 Z-0.125000 F800.000000
G01 X137.772360 Y112.529977 Z-0.125000
G01 X122.002556 Y122.252752 Z-0.125000
G01 X82.286635 Y112.895983 Z-0.125000
G01 X67.052969 Y110.256505 Z-0.125000
G01 X37.214529 Y112.468099 Z-0.125000
G01 X14.536705 Y117.355304 Z-0.125000
G00 Z3.000000

(End cutting path id: polyline3915)


(Start cutting path id: polyline3917)
(Change tool to Default tool)

G00 Z3.000000
G00 X193.057043 Y119.042309

G00 Z4.875000 (Fast pre-penetrate)
G01 Z-0.125000 F400.0(Penetrate)
G01 X179.540042 Y113.685975 Z-0.125000 F800.000000
G01 X137.823922 Y113.005488 Z-0.125000
G01 X121.559171 Y122.991183 Z-0.125000
G01 X82.874352 Y114.098412 Z-0.125000
G01 X67.279810 Y111.397057 Z-0.125000
G01 X37.353685 Y113.376679 Z-0.125000
G01 X14.247981 Y118.140111 Z-0.125000
G00 Z3.000000

(End cutting path id: polyline3917)


(Start cutting path id: polyline3919)
(Change tool to Default tool)

G00 Z3.000000
G00 X193.526136 Y120.007527

G00 Z4.875000 (Fast pre-penetrate)
G01 Z-0.125000 F400.0(Penetrate)
G01 X178.807993 Y114.656433 Z-0.125000 F800.000000
G01 X137.875447 Y113.481017 Z-0.125000
G01 X121.115859 Y123.729614 Z-0.125000
G01 X83.462051 Y115.300842 Z-0.125000
G01 X67.506615 Y112.537609 Z-0.125000
G01 X37.492892 Y114.285259 Z-0.125000
G01 X13.959306 Y118.924972 Z-0.125000
G00 Z3.000000

(End cutting path id: polyline3919)


(Start cutting path id: polyline3921)
(Change tool to Default tool)

G00 Z3.000000
G00 X193.995265 Y120.972799

G00 Z4.875000 (Fast pre-penetrate)
G01 Z-0.125000 F400.0(Penetrate)
G01 X178.075944 Y115.626835 Z-0.125000 F800.000000
G01 X137.927008 Y113.956564 Z-0.125000
G01 X120.672474 Y124.468044 Z-0.125000
G01 X84.049768 Y116.503235 Z-0.125000
G01 X67.733456 Y113.678161 Z-0.125000
G01 X37.632097 Y115.193821 Z-0.125000
G01 X13.670631 Y119.709798 Z-0.125000
G00 Z3.000000

(End cutting path id: polyline3921)


(Start cutting path id: polyline3923)
(Change tool to Default tool)

G00 Z3.000000
G00 X194.464394 Y121.938089

G00 Z4.875000 (Fast pre-penetrate)
G01 Z-0.125000 F400.0(Penetrate)
G01 X177.343895 Y116.597238 Z-0.125000 F800.000000
G01 X137.978570 Y114.432075 Z-0.125000
G01 X120.229144 Y125.206530 Z-0.125000
G01 X84.637430 Y117.705664 Z-0.125000
G01 X67.960298 Y114.818713 Z-0.125000
G01 X37.771302 Y116.102346 Z-0.125000
G01 X13.381907 Y120.494605 Z-0.125000
G00 Z3.000000

(End cutting path id: polyline3923)


(Start cutting path id: polyline3925)
(Change tool to Default tool)

G00 Z3.000000
G00 X194.933524 Y122.903361

G00 Z4.875000 (Fast pre-penetrate)
G01 Z-0.125000 F400.0(Penetrate)
G01 X176.611882 Y117.567696 Z-0.125000 F800.000000
G01 X138.030131 Y114.907604 Z-0.125000
G01 X119.785777 Y125.944960 Z-0.125000
G01 X85.225147 Y118.908039 Z-0.125000
G01 X68.187139 Y115.959265 Z-0.125000
G01 X37.910458 Y117.010926 Z-0.125000
G01 X13.093232 Y121.279466 Z-0.125000
G00 Z3.000000

(End cutting path id: polyline3925)


(Start cutting path id: polyline3927)
(Change tool to Default tool)

G00 Z3.000000
G00 X195.402671 Y123.868634

G00 Z4.875000 (Fast pre-penetrate)
G01 Z-0.125000 F400.0(Penetrate)
G01 X175.879796 Y118.538117 Z-0.125000 F800.000000
G01 X138.081656 Y115.383115 Z-0.125000
G01 X119.342447 Y126.683391 Z-0.125000
G01 X85.812810 Y120.110469 Z-0.125000
G01 X68.413944 Y117.099817 Z-0.125000
G01 X38.049663 Y117.919506 Z-0.125000
G01 X12.804557 Y122.064292 Z-0.125000
G00 Z3.000000

(End cutting path id: polyline3927)


(Start cutting path id: polyline3929)
(Change tool to Default tool)

G00 Z3.000000
G00 X195.871800 Y124.833906

G00 Z4.875000 (Fast pre-penetrate)
G01 Z-0.125000 F400.0(Penetrate)
G01 X175.147784 Y119.508556 Z-0.125000 F800.000000
G01 X138.133218 Y115.858626 Z-0.125000
G01 X118.899080 Y127.421858 Z-0.125000
G01 X86.400527 Y121.312862 Z-0.125000
G01 X68.640785 Y118.240369 Z-0.125000
G01 X38.188870 Y118.828086 Z-0.125000
G01 X12.515833 Y122.849153 Z-0.125000
G00 Z3.000000

(End cutting path id: polyline3929)


(Start cutting path id: polyline3931)
(Change tool to Default tool)

G00 Z3.000000
G00 X196.340875 Y125.799178

G00 Z4.875000 (Fast pre-penetrate)
G01 Z-0.125000 F400.0(Penetrate)
G01 X174.415734 Y120.478977 Z-0.125000 F800.000000
G01 X138.184797 Y116.334192 Z-0.125000
G01 X118.455749 Y128.160289 Z-0.125000
G01 X68.867626 Y119.380921 Z-0.125000
G01 X38.328075 Y119.736648 Z-0.125000
G01 X12.227157 Y123.634015 Z-0.125000
G00 Z3.000000

(End cutting path id: polyline3931)


(Start cutting path id: polyline3933)
(Change tool to Default tool)

G00 Z3.000000
G00 X196.810023 Y126.764450

G00 Z4.875000 (Fast pre-penetrate)
G01 Z-0.125000 F400.0(Penetrate)
G01 X173.683685 Y121.449416 Z-0.125000 F800.000000
G01 X138.236304 Y116.809703 Z-0.125000
G01 X118.012365 Y128.898720 Z-0.125000
G01 X69.094432 Y120.521473 Z-0.125000
G01 X38.467231 Y120.645119 Z-0.125000
G01 X11.938480 Y124.418767 Z-0.125000
G00 Z3.000000

(End cutting path id: polyline3933)


(Start cutting path id: polyline3935)
(Change tool to Default tool)

G00 Z3.000000
G00 X194.933524 Y151.473455

G00 Z4.875000 (Fast pre-penetrate)
G01 Z-0.125000 F400.0(Penetrate)
G01 X160.630629 Y152.942702 Z-0.125000 F800.000000
G01 X146.433158 Y144.740717 Z-0.125000
G01 X113.599493 Y149.643350 Z-0.125000
G01 X89.607090 Y150.210399 Z-0.125000
G01 X64.681541 Y148.369979 Z-0.125000
G01 X39.689041 Y153.494341 Z-0.125000
G01 X12.010627 Y148.586504 Z-0.125000
G00 Z3.000000

(End cutting path id: polyline3935)


(Start cutting path id: polyline3937)
(Change tool to Default tool)

G00 Z3.000000
G00 X195.655275 Y150.760787

G00 Z4.875000 (Fast pre-penetrate)
G01 Z-0.125000 F400.0(Penetrate)
G01 X160.733715 Y151.714510 Z-0.125000 F800.000000
G01 X145.866073 Y143.177412 Z-0.125000
G01 X113.393283 Y148.956445 Z-0.125000
G01 X90.174175 Y149.652433 Z-0.125000
G01 X65.300206 Y147.631548 Z-0.125000
G01 X39.766320 Y152.085684 Z-0.125000
G01 X11.649758 Y147.693425 Z-0.125000
G00 Z3.000000

(End cutting path id: polyline3937)


(Start cutting path id: polyline3939)
(Change tool to Default tool)

G00 Z3.000000
G00 X196.377008 Y150.048119

G00 Z4.875000 (Fast pre-penetrate)
G01 Z-0.125000 F400.0(Penetrate)
G01 X160.836856 Y150.486318 Z-0.125000 F800.000000
G01 X145.298988 Y141.614162 Z-0.125000
G01 X113.187110 Y148.269575 Z-0.125000
G01 X90.741206 Y149.094413 Z-0.125000
G01 X65.918798 Y146.893117 Z-0.125000
G01 X39.843693 Y150.677045 Z-0.125000
G01 X11.288890 Y146.800310 Z-0.125000
G00 Z3.000000

(End cutting path id: polyline3939)


(Start cutting path id: polyline3941)
(Change tool to Default tool)

G00 Z3.000000
G00 X197.098741 Y149.335450

G00 Z4.875000 (Fast pre-penetrate)
G01 Z-0.125000 F400.0(Penetrate)
G01 X160.939943 Y149.258217 Z-0.125000 F800.000000
G01 X144.731885 Y140.050965 Z-0.125000
G01 X112.980882 Y147.582760 Z-0.125000
G01 X91.308291 Y148.536484 Z-0.125000
G01 X66.537463 Y146.154777 Z-0.125000
G01 X39.921018 Y149.268533 Z-0.125000
G01 X10.928021 Y145.907304 Z-0.125000
G00 Z3.000000

(End cutting path id: polyline3941)


(Start cutting path id: polyline3943)
(Change tool to Default tool)

G00 Z3.000000
G00 X197.820474 Y148.622782

G00 Z4.875000 (Fast pre-penetrate)
G01 Z-0.125000 F400.0(Penetrate)
G01 X161.043066 Y148.029934 Z-0.125000 F800.000000
G01 X144.164854 Y138.487624 Z-0.125000
G01 X112.774673 Y146.895764 Z-0.125000
G01 X91.875376 Y147.978373 Z-0.125000
G01 X67.156055 Y145.416255 Z-0.125000
G01 X39.998344 Y147.859840 Z-0.125000
G01 X10.567153 Y145.014134 Z-0.125000
G00 Z3.000000

(End cutting path id: polyline3943)


(Start cutting path id: polyline3945)
(Change tool to Default tool)

G00 Z3.000000
G00 X197.279152 Y127.729722

G00 Z4.875000 (Fast pre-penetrate)
G01 Z-0.125000 F400.0(Penetrate)
G01 X172.951636 Y122.419837 Z-0.125000 F800.000000
G01 X138.287884 Y117.285214 Z-0.125000
G01 X117.569052 Y129.637151 Z-0.125000
G01 X88.163605 Y124.920150 Z-0.125000
G01 X69.321273 Y121.662025 Z-0.125000
G01 X38.606436 Y121.553790 Z-0.125000
G01 X11.649758 Y125.203738 Z-0.125000
G00 Z3.000000

(End cutting path id: polyline3945)


(Start cutting path id: polyline3947)
(Change tool to Default tool)

G00 Z3.000000
G00 X197.748281 Y128.694994

G00 Z4.875000 (Fast pre-penetrate)
G01 Z-0.125000 F400.0(Penetrate)
G01 X172.219641 Y123.390240 Z-0.125000 F800.000000
G01 X138.339445 Y117.760725 Z-0.125000
G01 X117.125667 Y130.375582 Z-0.125000
G01 X88.751322 Y126.122543 Z-0.125000
G01 X69.548114 Y122.802577 Z-0.125000
G01 X38.745641 Y122.462334 Z-0.125000
G01 X11.361081 Y125.988508 Z-0.125000
G00 Z3.000000

(End cutting path id: polyline3947)


(Start cutting path id: polyline3949)
(Change tool to Default tool)

G00 Z3.000000
G00 X198.217410 Y129.660266

G00 Z4.875000 (Fast pre-penetrate)
G01 Z-0.125000 F400.0(Penetrate)
G01 X171.487538 Y124.360697 Z-0.125000 F800.000000
G01 X138.390952 Y118.236236 Z-0.125000
G01 X116.682337 Y131.114067 Z-0.125000
G01 X89.338985 Y127.324972 Z-0.125000
G01 X69.774955 Y123.943129 Z-0.125000
G01 X38.884799 Y123.370913 Z-0.125000
G01 X11.072406 Y126.773334 Z-0.125000
G00 Z3.000000

(End cutting path id: polyline3949)


(Start cutting path id: polyline3951)
(Change tool to Default tool)

G00 Z3.000000
G00 X198.686503 Y130.625539

G00 Z4.875000 (Fast pre-penetrate)
G01 Z-0.125000 F400.0(Penetrate)
G01 X170.755525 Y125.331100 Z-0.125000 F800.000000
G01 X138.442532 Y118.711801 Z-0.125000
G01 X116.238970 Y131.852498 Z-0.125000
G01 X89.926702 Y128.527347 Z-0.125000
G01 X70.001761 Y125.083681 Z-0.125000
G01 X39.024004 Y124.279439 Z-0.125000
G01 X10.783682 Y127.558195 Z-0.125000
G00 Z3.000000

(End cutting path id: polyline3951)


(Start cutting path id: polyline3953)
(Change tool to Default tool)

G00 Z3.000000
G00 X199.155633 Y131.590829

G00 Z4.875000 (Fast pre-penetrate)
G01 Z-0.125000 F400.0(Penetrate)
G01 X170.023476 Y126.301557 Z-0.125000 F800.000000
G01 X138.494093 Y119.187312 Z-0.125000
G01 X115.795640 Y132.590929 Z-0.125000
G01 X90.514419 Y129.729776 Z-0.125000
G01 X70.228602 Y126.224233 Z-0.125000
G01 X39.163209 Y125.188001 Z-0.125000
G01 X10.495007 Y128.343002 Z-0.125000
G00 Z3.000000

(End cutting path id: polyline3953)


(Start cutting path id: polyline3955)
(Change tool to Default tool)

G00 Z3.000000
G00 X198.542171 Y147.910114

G00 Z4.875000 (Fast pre-penetrate)
G01 Z-0.125000 F400.0(Penetrate)
G01 X161.146152 Y146.801742 Z-0.125000 F800.000000
G01 X143.597769 Y136.924319 Z-0.125000
G01 X112.568445 Y146.208895 Z-0.125000
G01 X92.442461 Y147.420389 Z-0.125000
G01 X67.774720 Y144.677788 Z-0.125000
G01 X40.075670 Y146.451183 Z-0.125000
G01 X10.206285 Y144.121019 Z-0.125000
G00 Z3.000000

(End cutting path id: polyline3955)


(Start cutting path id: polyline3957)
(Change tool to Default tool)

G00 Z3.000000
G00 X199.263905 Y147.197427

G00 Z4.875000 (Fast pre-penetrate)
G01 Z-0.125000 F400.0(Penetrate)
G01 X161.249239 Y145.573550 Z-0.125000 F800.000000
G01 X143.030684 Y135.361014 Z-0.125000
G01 X112.362236 Y145.521989 Z-0.125000
G01 X93.009546 Y146.862369 Z-0.125000
G01 X68.393312 Y143.939358 Z-0.125000
G01 X40.152994 Y145.042580 Z-0.125000
G01 X9.845414 Y143.227922 Z-0.125000
G00 Z3.000000

(End cutting path id: polyline3957)


(Start cutting path id: polyline3959)
(Change tool to Default tool)

G00 Z3.000000
G00 X199.624780 Y132.556101

G00 Z4.875000 (Fast pre-penetrate)
G01 Z-0.125000 F400.0(Penetrate)
G01 X169.291427 Y127.271960 Z-0.125000 F800.000000
G01 X138.545655 Y119.662823 Z-0.125000
G01 X115.352273 Y133.329396 Z-0.125000
G01 X91.102081 Y130.932170 Z-0.125000
G01 X70.455443 Y127.364785 Z-0.125000
G01 X39.302366 Y126.096581 Z-0.125000
G01 X10.206332 Y129.127864 Z-0.125000
G00 Z3.000000

(End cutting path id: polyline3959)


(Start cutting path id: polyline3961)
(Change tool to Default tool)

G00 Z3.000000
G00 X200.093909 Y133.521373

G00 Z4.875000 (Fast pre-penetrate)
G01 Z-0.125000 F400.0(Penetrate)
G01 X168.559378 Y128.242418 Z-0.125000 F800.000000
G01 X138.597180 Y120.138389 Z-0.125000
G01 X114.908943 Y134.067826 Z-0.125000
G01 X91.689798 Y132.134599 Z-0.125000
G01 X70.682230 Y128.505283 Z-0.125000
G01 X39.441571 Y127.005161 Z-0.125000
G01 X9.917608 Y129.912689 Z-0.125000
G00 Z3.000000

(End cutting path id: polyline3961)


(Start cutting path id: polyline3963)
(Change tool to Default tool)

G00 Z3.000000
G00 X200.563039 Y134.486645

G00 Z4.875000 (Fast pre-penetrate)
G01 Z-0.125000 F400.0(Penetrate)
G01 X167.827329 Y129.212820 Z-0.125000 F800.000000
G01 X138.648741 Y120.613900 Z-0.125000
G01 X114.465558 Y134.806257 Z-0.125000
G01 X92.277497 Y133.337028 Z-0.125000
G01 X70.909089 Y129.645835 Z-0.125000
G01 X39.580776 Y127.913686 Z-0.125000
G01 X9.628932 Y130.697551 Z-0.125000
G00 Z3.000000

(End cutting path id: polyline3963)


(Start cutting path id: polyline3965)
(Change tool to Default tool)

G00 Z3.000000
G00 X199.985638 Y146.484814

G00 Z4.875000 (Fast pre-penetrate)
G01 Z-0.125000 F400.0(Penetrate)
G01 X161.352380 Y144.345359 Z-0.125000 F800.000000
G01 X142.463599 Y133.797763 Z-0.125000
G01 X112.156026 Y144.835120 Z-0.125000
G01 X93.576595 Y146.304349 Z-0.125000
G01 X69.011977 Y143.200927 Z-0.125000
G01 X40.230320 Y143.633941 Z-0.125000
G01 X9.484546 Y142.334843 Z-0.125000
G00 Z3.000000

(End cutting path id: polyline3965)


(Start cutting path id: polyline3967)
(Change tool to Default tool)

G00 Z3.000000
G00 X200.707371 Y145.772145

G00 Z4.875000 (Fast pre-penetrate)
G01 Z-0.125000 F400.0(Penetrate)
G01 X161.455467 Y143.117167 Z-0.125000 F800.000000
G01 X141.896514 Y132.234458 Z-0.125000
G01 X111.949853 Y144.148214 Z-0.125000
G01 X94.143680 Y145.746328 Z-0.125000
G01 X69.630569 Y142.462441 Z-0.125000
G01 X40.307646 Y142.225339 Z-0.125000
G01 X9.123678 Y141.441728 Z-0.125000
G00 Z3.000000

(End cutting path id: polyline3967)


(Start cutting path id: polyline3969)
(Change tool to Default tool)

G00 Z3.000000
G00 X201.032168 Y135.451917

G00 Z4.875000 (Fast pre-penetrate)
G01 Z-0.125000 F400.0(Penetrate)
G01 X167.095280 Y130.183223 Z-0.125000 F800.000000
G01 X138.700303 Y121.089411 Z-0.125000
G01 X114.022246 Y135.544688 Z-0.125000
G01 X92.865160 Y134.539458 Z-0.125000
G01 X71.135931 Y130.786441 Z-0.125000
G01 X39.719981 Y128.822266 Z-0.125000
G01 X9.340208 Y131.482358 Z-0.125000
G00 Z3.000000

(End cutting path id: polyline3969)


(Start cutting path id: polyline3971)
(Change tool to Default tool)

G00 Z3.000000
G00 X201.501261 Y136.417135

G00 Z4.875000 (Fast pre-penetrate)
G01 Z-0.125000 F400.0(Penetrate)
G01 X166.363285 Y131.153681 Z-0.125000 F800.000000
G01 X138.751882 Y121.564940 Z-0.125000
G01 X113.578861 Y136.283119 Z-0.125000
G01 X93.452877 Y135.741833 Z-0.125000
G01 X71.362718 Y131.926993 Z-0.125000
G01 X39.859139 Y129.730828 Z-0.125000
G01 X9.051533 Y132.267219 Z-0.125000
G00 Z3.000000

(End cutting path id: polyline3971)


(Start cutting path id: polyline3973)
(Change tool to Default tool)

G00 Z3.000000
G00 X201.429122 Y145.059477

G00 Z4.875000 (Fast pre-penetrate)
G01 Z-0.125000 F400.0(Penetrate)
G01 X161.558589 Y141.888975 Z-0.125000 F800.000000
G01 X141.329483 Y130.671208 Z-0.125000
G01 X111.743625 Y143.461345 Z-0.125000
G01 X94.710766 Y145.188363 Z-0.125000
G01 X70.249216 Y141.724011 Z-0.125000
