%
(Header)
(Generated by gcodetools from Inkscape.)
(Using default header. To add your own header create file "header" in the output dir.)
M3
(Header end.)
G21 (All units in mm)

(Start cutting path id: path292970)
(Change tool to Default tool)

G00 Z5.000000
G00 X104.676433 Y134.541964

G01 Z-0.125000 F400.0(Penetrate)
G01 X104.676433 Y134.643344 Z-0.125000 F800.000000
G01 X104.886723 Y134.541964 Z-0.125000
G01 X105.489703 Y134.944804 Z-0.125000
G01 X105.046323 Y134.962504 Z-0.125000
G01 X104.871513 Y135.038504 Z-0.125000
G01 X104.780313 Y136.350884 Z-0.125000
G01 X104.625763 Y134.749684 Z-0.125000
G01 X104.096243 Y135.578154 Z-0.125000
G01 X103.746613 Y135.507154 Z-0.125000
G01 X104.445873 Y134.686294 Z-0.125000
G01 X102.624243 Y135.233534 Z-0.125000
G01 X103.361513 Y134.676154 Z-0.125000
G01 X103.652873 Y134.425334 Z-0.125000
G01 X103.543993 Y134.166914 Z-0.125000
G01 X103.022073 Y133.591794 Z-0.125000
G01 X104.354733 Y134.263194 Z-0.125000
G01 X103.179153 Y132.641714 Z-0.125000
G01 X104.329383 Y133.883144 Z-0.125000
G01 X103.929083 Y132.178064 Z-0.125000
G01 X104.613153 Y134.065564 Z-0.125000
G01 X104.767693 Y132.107124 Z-0.125000
G01 X104.856393 Y133.665264 Z-0.125000
G01 X105.375773 Y132.710114 Z-0.125000
G01 X105.492273 Y133.130694 Z-0.125000
G01 X106.059803 Y132.831724 Z-0.125000
G01 X105.401063 Y133.883144 Z-0.125000
G01 X106.523443 Y133.310564 Z-0.125000
G01 X106.120603 Y133.860354 Z-0.125000
G01 X106.191603 Y134.080764 Z-0.125000
G01 X107.002353 Y134.182144 Z-0.125000
G01 X105.710223 Y134.529234 Z-0.125000
G01 X107.255703 Y134.863664 Z-0.125000
G01 X106.794603 Y135.106884 Z-0.125000
G01 X106.538703 Y135.317174 Z-0.125000
G01 X105.809043 Y135.198094 Z-0.125000
G01 X106.961803 Y136.300194 Z-0.125000
G01 X106.120673 Y135.983494 Z-0.125000
G01 X105.608883 Y135.745334 Z-0.125000
G01 X105.760903 Y136.376194 Z-0.125000
G01 X105.608883 Y136.685304 Z-0.125000
G01 X105.168043 Y136.201384 Z-0.125000
G01 X105.135043 Y137.242674 Z-0.125000
G01 X104.734753 Y135.747884 Z-0.125000
G01 X104.453523 Y137.744324 Z-0.125000
G01 X104.453523 Y135.730144 Z-0.125000
G01 X103.913873 Y136.991844 Z-0.125000
G01 X103.619973 Y136.938544 Z-0.125000
G01 X103.830253 Y135.990984 Z-0.125000
G01 X103.419823 Y136.229144 Z-0.125000
G01 X102.885243 Y136.462244 Z-0.125000
G01 X102.644553 Y136.289954 Z-0.125000
G01 X103.156333 Y135.585624 Z-0.125000
G01 X102.312663 Y135.816174 Z-0.125000
G01 X102.231563 Y135.540014 Z-0.125000
G01 X102.495053 Y135.172654 Z-0.125000
G01 X102.059283 Y135.010494 Z-0.125000
G01 X102.804143 Y134.678604 Z-0.125000
G01 X101.344813 Y134.442984 Z-0.125000
G01 X101.945263 Y134.182034 Z-0.125000
G01 X102.107413 Y133.933734 Z-0.125000
G01 X102.322763 Y133.728514 Z-0.125000
G01 X102.581193 Y133.573984 Z-0.125000
G01 X102.639493 Y133.345954 Z-0.125000
G01 X102.608993 Y133.036854 Z-0.125000
G01 X102.459513 Y132.573214 Z-0.125000
G01 X102.925683 Y132.654314 Z-0.125000
G01 X103.353853 Y132.811384 Z-0.125000
G01 X102.847143 Y131.602884 Z-0.125000
G01 X103.852973 Y132.889934 Z-0.125000
G01 X103.472933 Y131.428064 Z-0.125000
G01 X104.075923 Y132.416154 Z-0.125000
G01 X104.182343 Y131.873974 Z-0.125000
G01 X104.428093 Y131.823274 Z-0.125000
G01 X104.676373 Y131.884074 Z-0.125000
G01 X104.998143 Y130.992264 Z-0.125000
G01 X105.064043 Y132.411054 Z-0.125000
G01 X105.629013 Y131.093614 Z-0.125000
G01 X105.464333 Y132.441464 Z-0.125000
G01 X105.922903 Y131.942344 Z-0.125000
G01 X106.422013 Y131.595244 Z-0.125000
G01 X106.107863 Y132.542794 Z-0.125000
G01 X106.495493 Y132.418654 Z-0.125000
G01 X107.085823 Y132.177964 Z-0.125000
G01 X107.141523 Y132.507334 Z-0.125000
G01 X106.728543 Y133.120444 Z-0.125000
G01 X107.083243 Y133.160944 Z-0.125000
G01 X107.526623 Y133.211644 Z-0.125000
G01 X107.906653 Y133.353514 Z-0.125000
G01 X107.764763 Y133.687954 Z-0.125000
G01 X107.531693 Y134.002104 Z-0.125000
G01 X107.592493 Y134.235204 Z-0.125000
G01 X107.554493 Y134.475884 Z-0.125000
G01 X107.736903 Y134.721644 Z-0.125000
G01 X108.094133 Y135.023134 Z-0.125000
G01 X107.460743 Y135.165024 Z-0.125000
G01 X108.400693 Y135.697064 Z-0.125000
G01 X106.779213 Y135.382904 Z-0.125000
G01 X107.691293 Y136.034024 Z-0.125000
G01 X107.622893 Y136.302584 Z-0.125000
G01 X106.708273 Y135.983344 Z-0.125000
G01 X107.199783 Y136.649684 Z-0.125000
G01 X107.397393 Y137.196934 Z-0.125000
G01 X106.880563 Y137.055054 Z-0.125000
G01 X106.505583 Y136.984054 Z-0.125000
G01 X106.368783 Y137.204484 Z-0.125000
G01 X106.368783 Y137.713734 Z-0.125000
G01 X105.636573 Y136.725634 Z-0.125000
G01 X106.107823 Y138.610614 Z-0.125000
G01 X105.560573 Y137.825204 Z-0.125000
G01 X105.233743 Y137.470504 Z-0.125000
G01 X105.107063 Y138.321784 Z-0.125000
G01 X104.777703 Y137.128474 Z-0.125000
G01 X104.547153 Y138.276184 Z-0.125000
G01 X104.258323 Y138.395254 Z-0.125000
G01 X104.053103 Y137.929074 Z-0.125000
G01 X103.825083 Y137.812564 Z-0.125000
G01 X103.571733 Y137.797264 Z-0.125000
G01 X102.996613 Y138.519324 Z-0.125000
G01 X103.531193 Y136.788914 Z-0.125000
G01 X102.826853 Y137.602184 Z-0.125000
G01 X102.342953 Y137.842874 Z-0.125000
G01 X102.393653 Y137.331094 Z-0.125000
G01 X102.502533 Y136.842104 Z-0.125000
G01 X102.099693 Y136.908004 Z-0.125000
G01 X101.833673 Y136.804174 Z-0.125000
G01 X101.506853 Y136.720474 Z-0.125000
G01 X102.013553 Y136.112414 Z-0.125000
G01 X100.665705 Y136.545664 Z-0.125000
G01 X101.038143 Y136.054144 Z-0.125000
G01 X101.101343 Y135.745054 Z-0.125000
G01 X101.245753 Y135.441024 Z-0.125000
G01 X101.281153 Y135.187664 Z-0.125000
G01 X101.063253 Y134.977384 Z-0.125000
G01 X100.814962 Y134.741764 Z-0.125000
G01 X100.594558 Y134.475734 Z-0.125000
G01 X100.766833 Y134.214774 Z-0.125000
G01 X101.042993 Y133.989294 Z-0.125000
G01 X101.134293 Y133.758744 Z-0.125000
G01 X101.268583 Y133.545914 Z-0.125000
G01 X101.103893 Y133.234304 Z-0.125000
G01 X101.045593 Y132.932794 Z-0.125000
G01 X100.984793 Y132.605974 Z-0.125000
G01 X101.286293 Y132.469154 Z-0.125000
G01 X101.575113 Y132.352654 Z-0.125000
G01 X101.901953 Y132.296954 Z-0.125000
G01 X101.929753 Y132.008124 Z-0.125000
G01 X101.937753 Y131.666084 Z-0.125000
G01 X101.935753 Y131.263264 Z-0.125000
G01 X102.234713 Y131.202464 Z-0.125000
G01 X102.736353 Y131.496354 Z-0.125000
G01 X102.908643 Y131.329134 Z-0.125000
G01 X102.774353 Y130.498124 Z-0.125000
G01 X103.146793 Y130.667874 Z-0.125000
G01 X103.615503 Y131.255664 Z-0.125000
G01 X103.521803 Y130.004094 Z-0.125000
G01 X104.015853 Y131.030174 Z-0.125000
G01 X104.162793 Y130.406924 Z-0.125000
G01 X104.461753 Y131.020054 Z-0.125000
G01 X104.684703 Y129.758334 Z-0.125000
G01 X104.910193 Y130.888284 Z-0.125000
G01 X105.229413 Y130.166234 Z-0.125000
G01 X105.381433 Y130.830024 Z-0.125000
G01 X105.812143 Y130.082624 Z-0.125000
G01 X105.758843 Y131.169514 Z-0.125000
G01 X106.503703 Y129.862204 Z-0.125000
G01 X106.174343 Y131.301264 Z-0.125000
G01 X107.038283 Y130.153554 Z-0.125000
G01 X106.356763 Y131.833314 Z-0.125000
G01 X107.653953 Y130.328384 Z-0.125000
G01 X106.954683 Y131.699034 Z-0.125000
G01 X107.942773 Y130.933904 Z-0.125000
G01 X107.671673 Y131.607824 Z-0.125000
G01 X107.615973 Y131.990394 Z-0.125000
G01 X108.510323 Y131.595154 Z-0.125000
G01 X107.679323 Y132.504704 Z-0.125000
G01 X108.457123 Y132.294414 Z-0.125000
G01 X108.801683 Y132.408464 Z-0.125000
G01 X108.325373 Y132.920244 Z-0.125000
G01 X108.462183 Y133.117874 Z-0.125000
G01 X108.702873 Y133.292684 Z-0.125000
G01 X109.052503 Y133.459884 Z-0.125000
G01 X109.341333 Y133.675244 Z-0.125000
G01 X108.659803 Y134.037534 Z-0.125000
G01 X108.771263 Y134.265564 Z-0.125000
G01 X109.541463 Y134.493584 Z-0.125000
G01 X109.098083 Y134.754544 Z-0.125000
G01 X108.535643 Y134.949624 Z-0.125000
G01 X108.966343 Y135.248584 Z-0.125000
G01 X109.186773 Y135.552614 Z-0.125000
G01 X109.125973 Y135.808504 Z-0.125000
G01 X109.054973 Y136.064394 Z-0.125000
G01 X108.875083 Y136.274674 Z-0.125000
G01 X108.662273 Y136.457084 Z-0.125000
G01 X108.419043 Y136.609104 Z-0.125000
G01 X108.297433 Y136.814334 Z-0.125000
G01 X108.292433 Y137.108224 Z-0.125000
G01 X108.332933 Y137.457854 Z-0.125000
G01 X108.302533 Y137.782144 Z-0.125000
G01 X107.205503 Y137.070214 Z-0.125000
G01 X108.287333 Y138.577684 Z-0.125000
G01 X107.058563 Y137.521184 Z-0.125000
G01 X107.420853 Y138.390194 Z-0.125000
G01 X106.767203 Y137.848024 Z-0.125000
G01 X107.362593 Y139.360554 Z-0.125000
G01 X106.812803 Y138.924784 Z-0.125000
G01 X106.483443 Y138.833484 Z-0.125000
G01 X106.189553 Y138.767584 Z-0.125000
G01 X105.903253 Y138.658584 Z-0.125000
G01 X105.951353 Y139.869634 Z-0.125000
G01 X105.414233 Y138.577514 Z-0.125000
G01 X105.267283 Y139.185574 Z-0.125000
G01 X105.041793 Y139.585864 Z-0.125000
G01 X104.747913 Y138.476164 Z-0.125000
G01 X104.492023 Y139.699874 Z-0.125000
G01 X104.223463 Y139.598504 Z-0.125000
G01 X103.997973 Y139.251404 Z-0.125000
G01 X103.787693 Y139.005654 Z-0.125000
G01 X103.569803 Y138.881514 Z-0.125000
G01 X103.288583 Y138.982884 Z-0.125000
G01 X102.994683 Y139.058884 Z-0.125000
G01 X102.721063 Y139.053884 Z-0.125000
G01 X102.444903 Y139.020884 Z-0.125000
G01 X102.249823 Y138.830864 Z-0.125000
G01 X102.148443 Y138.506584 Z-0.125000
G01 X102.001493 Y138.291224 Z-0.125000
G01 X101.520123 Y138.506584 Z-0.125000
G01 X101.839353 Y137.746504 Z-0.125000
G01 X101.499863 Y137.771904 Z-0.125000
G01 X101.155283 Y137.769904 Z-0.125000
G01 X100.904469 Y137.653394 Z-0.125000
G01 X100.572566 Y137.584994 Z-0.125000
G01 X100.380016 Y137.394974 Z-0.125000
G01 X100.336956 Y137.113744 Z-0.125000
G01 X100.481366 Y136.743844 Z-0.125000
G01 X100.418006 Y136.505684 Z-0.125000
G01 X100.248264 Y136.313134 Z-0.125000
G01 X99.903693 Y136.173794 Z-0.125000
G01 X99.695940 Y135.966044 Z-0.125000
G01 X99.579408 Y135.720284 Z-0.125000
G01 X99.832761 Y135.406134 Z-0.125000
G01 X99.979709 Y135.135044 Z-0.125000
G01 X99.625008 Y134.922214 Z-0.125000
G01 X99.217104 Y134.676454 Z-0.125000
G01 X99.999972 Y134.420574 Z-0.125000
G01 X99.954392 Y134.179884 Z-0.125000
G01 X98.999238 Y133.820114 Z-0.125000
G01 X100.210282 Y133.744114 Z-0.125000
G01 X99.751704 Y133.404624 Z-0.125000
G01 X99.293135 Y133.011914 Z-0.125000
G01 X99.916385 Y132.928414 Z-0.125000
G01 X100.392701 Y132.849914 Z-0.125000
G01 X99.901189 Y132.376134 Z-0.125000
G01 X99.713708 Y131.985984 Z-0.125000
G01 X100.496573 Y132.120244 Z-0.125000
G01 X100.635914 Y131.927704 Z-0.125000
G01 X100.177342 Y131.306984 Z-0.125000
G01 X100.542179 Y131.246184 Z-0.125000
G01 X101.211023 Y131.491944 Z-0.125000
G01 X100.643517 Y130.622944 Z-0.125000
G01 X100.988073 Y130.592544 Z-0.125000
G01 X101.722813 Y131.051114 Z-0.125000
G01 X101.129963 Y129.911024 Z-0.125000
G01 X101.826693 Y130.420264 Z-0.125000
G01 X102.118043 Y130.428264 Z-0.125000
G01 X101.786153 Y129.354034 Z-0.125000
G01 X102.675433 Y130.501744 Z-0.125000
G01 X102.576633 Y129.731544 Z-0.125000
G01 X102.609633 Y129.108274 Z-0.125000
G01 X103.131533 Y129.807544 Z-0.125000
G01 X103.367173 Y129.759344 Z-0.125000
G01 X103.389973 Y128.771264 Z-0.125000
G01 X103.871343 Y129.901234 Z-0.125000
G01 X104.010693 Y129.196904 Z-0.125000
G01 X104.233643 Y128.758594 Z-0.125000
G01 X104.532603 Y129.508524 Z-0.125000
G01 X104.770753 Y129.526224 Z-0.125000
G01 X105.049453 Y128.895384 Z-0.125000
G01 X105.323073 Y128.859984 Z-0.125000
G01 X105.467483 Y129.658064 Z-0.125000
G01 X105.751243 Y129.440174 Z-0.125000
G01 X106.161673 Y128.834654 Z-0.125000
G01 X106.280763 Y129.386964 Z-0.125000
G01 X106.356763 Y129.916484 Z-0.125000
G01 X106.792533 Y129.470584 Z-0.125000
G01 X107.200433 Y129.209614 Z-0.125000
G01 X107.068703 Y130.043164 Z-0.125000
G01 X107.314463 Y130.091364 Z-0.125000
G01 X107.952913 Y129.559324 Z-0.125000
G01 X107.952913 Y130.028034 Z-0.125000
G01 X107.757823 Y130.686754 Z-0.125000
G01 X108.487483 Y130.200304 Z-0.125000
G01 X108.756043 Y130.309304 Z-0.125000
G01 X108.310143 Y131.102304 Z-0.125000
G01 X108.715503 Y131.056704 Z-0.125000
G01 X109.488243 Y130.760274 Z-0.125000
G01 X108.819373 Y131.581154 Z-0.125000
G01 X109.095553 Y131.679954 Z-0.125000
G01 X109.941743 Y131.464594 Z-0.125000
G01 X109.581983 Y131.968774 Z-0.125000
G01 X109.326103 Y132.366554 Z-0.125000
G01 X110.233123 Y132.242394 Z-0.125000
G01 X109.949343 Y132.635114 Z-0.125000
G01 X109.650393 Y132.994884 Z-0.125000
G01 X110.139373 Y133.108924 Z-0.125000
G01 X110.676483 Y133.255874 Z-0.125000
G01 X109.842943 Y133.676424 Z-0.125000
G01 X110.020293 Y133.891784 Z-0.125000
G01 X110.955173 Y134.061534 Z-0.125000
G01 X110.096303 Y134.370634 Z-0.125000
G01 X109.921483 Y134.611324 Z-0.125000
G01 X111.142663 Y134.917884 Z-0.125000
G01 X110.192573 Y135.110434 Z-0.125000
G01 X110.083683 Y135.343514 Z-0.125000
G01 X110.886823 Y135.746354 Z-0.125000
G01 X109.422433 Y135.685554 Z-0.125000
G01 X110.653733 Y136.263204 Z-0.125000
G01 X110.040613 Y136.349404 Z-0.125000
G01 X109.723923 Y136.493814 Z-0.125000
G01 X110.296513 Y137.005594 Z-0.125000
G01 X109.495903 Y136.911894 Z-0.125000
G01 X110.243303 Y137.593414 Z-0.125000
G01 X108.953723 Y137.134844 Z-0.125000
G01 X109.293213 Y137.626364 Z-0.125000
G01 X109.850603 Y138.338294 Z-0.125000
G01 X109.348953 Y138.295194 Z-0.125000
G01 X108.761173 Y138.125444 Z-0.125000
G01 X108.685173 Y138.381324 Z-0.125000
G01 X108.636973 Y138.680284 Z-0.125000
G01 X108.614173 Y139.032444 Z-0.125000
G01 X108.383623 Y139.159124 Z-0.125000
G01 X108.307623 Y139.488494 Z-0.125000
G01 X108.003603 Y139.513894 Z-0.125000
G01 X107.697053 Y139.503294 Z-0.125000
G01 X107.466493 Y139.604664 Z-0.125000
G01 X107.144723 Y139.518464 Z-0.125000
G01 X107.301813 Y140.455874 Z-0.125000
G01 X106.460663 Y139.080154 Z-0.125000
G01 X106.919253 Y141.051274 Z-0.125000
G01 X106.141433 Y139.470324 Z-0.125000
G01 X106.298513 Y141.003124 Z-0.125000
G01 X105.862743 Y140.286134 Z-0.125000
G01 X105.576443 Y140.091044 Z-0.125000
G01 X105.363633 Y140.329204 Z-0.125000
G01 X105.128013 Y140.483744 Z-0.125000
G01 X104.887333 Y140.853644 Z-0.125000
G01 X104.623833 Y140.377334 Z-0.125000
G01 X104.367943 Y140.529344 Z-0.125000
G01 X104.144993 Y140.192394 Z-0.125000
G01 X103.739623 Y141.380634 Z-0.125000
G01 X103.785223 Y139.498194 Z-0.125000
G01 X103.182233 Y141.221014 Z-0.125000
G01 X103.164533 Y140.177194 Z-0.125000
G01 X102.959313 Y140.007434 Z-0.125000
G01 X102.556473 Y140.420404 Z-0.125000
G01 X102.298063 Y140.359604 Z-0.125000
G01 X102.072573 Y140.222804 Z-0.125000
G01 X102.001573 Y139.789554 Z-0.125000
G01 X101.791293 Y139.662874 Z-0.125000
G01 X101.573413 Y139.546374 Z-0.125000
G01 X101.107233 Y139.797194 Z-0.125000
G01 X100.810808 Y139.754094 Z-0.125000
G01 X101.152833 Y138.905344 Z-0.125000
G01 X100.666399 Y139.108044 Z-0.125000
G01 X100.139422 Y139.292994 Z-0.125000
G01 X100.481440 Y138.588664 Z-0.125000
G01 X99.614973 Y139.037104 Z-0.125000
G01 X100.524512 Y137.935004 Z-0.125000
G01 X99.229868 Y138.631734 Z-0.125000
G01 X99.759382 Y137.927404 Z-0.125000
G01 X99.744152 Y137.646174 Z-0.125000
G01 X98.756059 Y137.940064 Z-0.125000
G01 X99.698544 Y137.131854 Z-0.125000
G01 X98.707922 Y137.344684 Z-0.125000
G01 X98.956210 Y136.949444 Z-0.125000
G01 X99.326107 Y136.541534 Z-0.125000
G01 X98.018791 Y136.726494 Z-0.125000
G01 X99.204496 Y136.093104 Z-0.125000
G01 X98.140402 Y136.110804 Z-0.125000
G01 X98.728194 Y135.718094 Z-0.125000
G01 X98.702814 Y135.474874 Z-0.125000
G01 X97.828738 Y135.327924 Z-0.125000
G01 X99.234856 Y134.945354 Z-0.125000
G01 X97.775526 Y134.773074 Z-0.125000
G01 X98.685080 Y134.501984 Z-0.125000
G01 X98.735730 Y134.263844 Z-0.125000
G01 X97.892057 Y133.949664 Z-0.125000
G01 X98.155551 Y133.708994 Z-0.125000
G01 X98.363304 Y133.475894 Z-0.125000
G01 X98.462104 Y133.235214 Z-0.125000
G01 X98.662253 Y133.024924 Z-0.125000
G01 X98.740773 Y132.789304 Z-0.125000
G01 X98.814223 Y132.553674 Z-0.125000
G01 X98.793923 Y132.282584 Z-0.125000
G01 X98.679914 Y131.960824 Z-0.125000
G01 X98.715344 Y131.692274 Z-0.125000
G01 X98.920559 Y131.502254 Z-0.125000
G01 X99.014309 Y131.261564 Z-0.125000
G01 X99.303130 Y131.134894 Z-0.125000
G01 X99.470350 Y130.947394 Z-0.125000
G01 X99.774377 Y130.863894 Z-0.125000
G01 X99.781977 Y130.557314 Z-0.125000
G01 X99.759197 Y130.207704 Z-0.125000
G01 X99.898542 Y129.982204 Z-0.125000
G01 X99.997362 Y129.713644 Z-0.125000
G01 X100.316583 Y129.675644 Z-0.125000
G01 X100.509144 Y129.505894 Z-0.125000
G01 X100.856241 Y129.538894 Z-0.125000
G01 X101.132393 Y129.505894 Z-0.125000
G01 X101.200793 Y129.168944 Z-0.125000
G01 X101.299593 Y128.844644 Z-0.125000
G01 X101.400963 Y128.492474 Z-0.125000
G01 X101.725263 Y128.548174 Z-0.125000
G01 X102.021703 Y128.576074 Z-0.125000
G01 X102.310523 Y128.619174 Z-0.125000
G01 X102.596803 Y128.679974 Z-0.125000
G01 X102.675303 Y128.125114 Z-0.125000
G01 X102.888133 Y127.919894 Z-0.125000
G01 X103.164293 Y127.942694 Z-0.125000
G01 X103.458193 Y128.084574 Z-0.125000
G01 X103.726743 Y128.173274 Z-0.125000
G01 X103.977563 Y128.188574 Z-0.125000
G01 X104.218253 Y128.125374 Z-0.125000
G01 X104.453873 Y127.745334 Z-0.125000
G01 X104.714823 Y127.550254 Z-0.125000
G01 X104.968193 Y127.851754 Z-0.125000
G01 X105.211403 Y128.031634 Z-0.125000
G01 X105.444503 Y128.181094 Z-0.125000
G01 X105.690263 Y128.186094 Z-0.125000
G01 X105.974013 Y128.018874 Z-0.125000
G01 X106.272973 Y127.859254 Z-0.125000
G01 X106.528863 Y127.914954 Z-0.125000
G01 X106.759413 Y128.044174 Z-0.125000
G01 X106.946893 Y128.287394 Z-0.125000
G01 X107.147053 Y128.464744 Z-0.125000
G01 X107.334533 Y128.654764 Z-0.125000
G01 X107.605623 Y128.654764 Z-0.125000
G01 X107.886853 Y128.656764 Z-0.125000
G01 X108.213683 Y128.601064 Z-0.125000
G01 X108.446753 Y128.720144 Z-0.125000
G01 X108.634243 Y128.907624 Z-0.125000
G01 X108.819193 Y129.092584 Z-0.125000
G01 X108.948413 Y129.340864 Z-0.125000
G01 X109.130823 Y129.513154 Z-0.125000
G01 X109.237243 Y129.766504 Z-0.125000
G01 X109.419653 Y129.933714 Z-0.125000
G01 X109.640083 Y130.067994 Z-0.125000
G01 X109.865573 Y130.202274 Z-0.125000
G01 X110.020123 Y130.404964 Z-0.125000
G01 X110.303873 Y130.511384 Z-0.125000
G01 X110.471083 Y130.706464 Z-0.125000
G01 X110.673773 Y130.886354 Z-0.125000
G01 X110.767473 Y131.132104 Z-0.125000
G01 X110.815573 Y131.398134 Z-0.125000
G01 X110.896673 Y131.641344 Z-0.125000
G01 X110.878973 Y131.925114 Z-0.125000
G01 X110.942373 Y132.168334 Z-0.125000
G01 X111.104523 Y132.373544 Z-0.125000
G01 X111.104523 Y132.634194 Z-0.125000
G01 X111.304673 Y132.836884 Z-0.125000
G01 X111.418713 Y133.069974 Z-0.125000
G01 X111.509913 Y133.310654 Z-0.125000
G01 X111.553013 Y133.564004 Z-0.125000
G01 X111.656843 Y133.807234 Z-0.125000
G01 X111.621443 Y134.068184 Z-0.125000
G01 X111.715143 Y134.319014 Z-0.125000
G01 X111.641743 Y134.577444 Z-0.125000
G01 X111.753203 Y134.835864 Z-0.125000
G01 X111.662003 Y135.086694 Z-0.125000
G01 X111.573303 Y135.334974 Z-0.125000
G01 X111.553003 Y135.585794 Z-0.125000
G01 X111.436493 Y135.821424 Z-0.125000
G01 X111.403493 Y136.072234 Z-0.125000
G01 X111.210943 Y136.279994 Z-0.125000
G01 X111.347753 Y136.576414 Z-0.125000
G01 X111.218533 Y136.799364 Z-0.125000
G01 X111.428823 Y137.149004 Z-0.125000
G01 X111.256533 Y137.359284 Z-0.125000
G01 X111.236233 Y137.635444 Z-0.125000
G01 X110.833403 Y137.721644 Z-0.125000
G01 X110.417893 Y137.774944 Z-0.125000
G01 X110.833403 Y138.304464 Z-0.125000
G01 X110.929603 Y138.679424 Z-0.125000
G01 X110.116333 Y138.431134 Z-0.125000
G01 X110.012493 Y138.651554 Z-0.125000
G01 X110.501463 Y139.371084 Z-0.125000
G01 X110.121433 Y139.396384 Z-0.125000
G01 X109.374033 Y139.041674 Z-0.125000
G01 X109.607123 Y139.614264 Z-0.125000
G01 X109.698323 Y140.088044 Z-0.125000
G01 X109.358823 Y140.100744 Z-0.125000
G01 X108.760903 Y139.758714 Z-0.125000
G01 X109.054793 Y140.559314 Z-0.125000
G01 X108.895193 Y140.800004 Z-0.125000
G01 X108.137653 Y140.093154 Z-0.125000
G01 X108.203553 Y140.670804 Z-0.125000
G01 X108.261853 Y141.316854 Z-0.125000
G01 X107.547383 Y140.463044 Z-0.125000
G01 X107.828613 Y141.671554 Z-0.125000
G01 X107.354833 Y141.230714 Z-0.125000
G01 X107.088813 Y141.243414 Z-0.125000
G01 X107.007713 Y141.815984 Z-0.125000
G01 X106.450333 Y140.830434 Z-0.125000
G01 X106.587143 Y142.355644 Z-0.125000
G01 X105.999353 Y140.911514 Z-0.125000
G01 X105.882843 Y141.593034 Z-0.125000
G01 X105.720703 Y142.266964 Z-0.125000
G01 X105.320393 Y140.984984 Z-0.125000
G01 X105.203883 Y142.702744 Z-0.125000
G01 X104.861853 Y140.840574 Z-0.125000
G01 X104.631303 Y142.755944 Z-0.125000
G01 X104.413403 Y141.068594 Z-0.125000
G01 X104.129643 Y141.777994 Z-0.125000
G01 X103.828153 Y142.223894 Z-0.125000
G01 X103.628003 Y141.732384 Z-0.125000
G01 X103.453193 Y141.276334 Z-0.125000
G01 X103.106093 Y141.757714 Z-0.125000
G01 X102.764063 Y142.059214 Z-0.125000
G01 X102.791963 Y141.007784 Z-0.125000
G01 X102.368863 Y141.542364 Z-0.125000
G01 X101.991353 Y141.828654 Z-0.125000
G01 X102.100233 Y140.853244 Z-0.125000
G01 X101.773413 Y141.005264 Z-0.125000
G01 X101.140013 Y141.742514 Z-0.125000
G01 X101.590993 Y140.308524 Z-0.125000
G01 X100.947467 Y140.972314 Z-0.125000
G01 X100.496498 Y141.207934 Z-0.125000
G01 X100.856266 Y140.191974 Z-0.125000
G01 X100.367283 Y140.468134 Z-0.125000
G01 X99.794697 Y140.792434 Z-0.125000
G01 X100.440755 Y139.599134 Z-0.125000
G01 X99.260117 Y140.574554 Z-0.125000
G01 X99.442533 Y139.984234 Z-0.125000
G01 X99.543871 Y139.528194 Z-0.125000
G01 X99.336126 Y139.386304 Z-0.125000
G01 X98.712866 Y139.591534 Z-0.125000
G01 X98.669776 Y139.284974 Z-0.125000
G01 X98.690076 Y138.945464 Z-0.125000
G01 X98.740726 Y138.605974 Z-0.125000
G01 X98.593778 Y138.410884 Z-0.125000
G01 X98.208673 Y138.352584 Z-0.125000
G01 X97.790639 Y138.289184 Z-0.125000
G01 X97.803279 Y137.987694 Z-0.125000
G01 X97.871649 Y137.668464 Z-0.125000
G01 X98.018598 Y137.331504 Z-0.125000
G01 X97.879254 Y137.123754 Z-0.125000
G01 X97.643634 Y136.943874 Z-0.125000
G01 X97.400413 Y136.756374 Z-0.125000
G01 X97.152126 Y136.558774 Z-0.125000
G01 X97.167356 Y136.285144 Z-0.125000
G01 X97.207856 Y136.014054 Z-0.125000
G01 X97.306656 Y135.737894 Z-0.125000
G01 X97.339606 Y135.479464 Z-0.125000
G01 X97.301586 Y135.233724 Z-0.125000
G01 X97.283866 Y134.987964 Z-0.125000
G01 X97.162255 Y134.742214 Z-0.125000
G01 X96.919034 Y134.488854 Z-0.125000
G01 X96.893654 Y134.227884 Z-0.125000
G01 X96.916444 Y133.969464 Z-0.125000
G01 X97.060855 Y133.723704 Z-0.125000
G01 X97.190069 Y133.483034 Z-0.125000
G01 X97.344611 Y133.255004 Z-0.125000
G01 X97.263501 Y132.983924 Z-0.125000
G01 X97.468727 Y132.776164 Z-0.125000
G01 X97.433297 Y132.510144 Z-0.125000
G01 X97.443507 Y132.251714 Z-0.125000
G01 X97.438707 Y131.983154 Z-0.125000
G01 X97.474137 Y131.722204 Z-0.125000
G01 X97.580544 Y131.489114 Z-0.125000
G01 X97.529894 Y131.185094 Z-0.125000
G01 X97.732573 Y130.992534 Z-0.125000
G01 X97.937798 Y130.812654 Z-0.125000
G01 X98.150617 Y130.645434 Z-0.125000
G01 X98.257023 Y130.414884 Z-0.125000
G01 X98.515452 Y130.288214 Z-0.125000
G01 X98.588902 Y130.034844 Z-0.125000
G01 X98.700377 Y129.806834 Z-0.125000
G01 X98.781487 Y129.548414 Z-0.125000
G01 X98.849857 Y129.267184 Z-0.125000
G01 X99.037340 Y129.087304 Z-0.125000
G01 X99.207086 Y128.894744 Z-0.125000
G01 X99.364166 Y128.684464 Z-0.125000
G01 X99.668192 Y128.643964 Z-0.125000
G01 X99.959552 Y128.603464 Z-0.125000
G01 X100.197707 Y128.507164 Z-0.125000
G01 X100.299045 Y128.223394 Z-0.125000
G01 X100.402882 Y127.924444 Z-0.125000
G01 X100.577692 Y127.716684 Z-0.125000
G01 X100.793050 Y127.567204 Z-0.125000
G01 X101.048953 Y127.501304 Z-0.125000
G01 X101.350443 Y127.534304 Z-0.125000
G01 X101.636723 Y127.559704 Z-0.125000
G01 X101.885023 Y127.521704 Z-0.125000
G01 X102.044633 Y127.237954 Z-0.125000
G01 X102.191583 Y126.875654 Z-0.125000
G01 X102.437343 Y126.784454 Z-0.125000
G01 X102.733763 Y126.890874 Z-0.125000
G01 X103.065663 Y127.215164 Z-0.125000
G01 X103.281013 Y127.053014 Z-0.125000
G01 X103.496353 Y126.840204 Z-0.125000
G01 X103.699043 Y126.422164 Z-0.125000
G01 X103.965063 Y126.444964 Z-0.125000
G01 X104.233633 Y126.551374 Z-0.125000
G01 X104.494583 Y126.718584 Z-0.125000
G01 X104.745413 Y126.860474 Z-0.125000
G01 X104.991173 Y126.895874 Z-0.125000
G01 X105.254653 Y126.655184 Z-0.125000
G01 X105.538423 Y126.381564 Z-0.125000
G01 X105.796833 Y126.429664 Z-0.125000
G01 X105.951393 Y127.073184 Z-0.125000
G01 X106.197133 Y127.085884 Z-0.125000
G01 X106.523973 Y126.756524 Z-0.125000
G01 X106.858403 Y126.500634 Z-0.125000
G01 X107.023083 Y126.865474 Z-0.125000
G01 X107.197903 Y127.149224 Z-0.125000
G01 X107.425923 Y127.250594 Z-0.125000
G01 X107.638733 Y127.379794 Z-0.125000
G01 X107.975703 Y127.232854 Z-0.125000
G01 X108.320263 Y127.108714 Z-0.125000
G01 X108.512803 Y127.306324 Z-0.125000
G01 X108.692693 Y127.516614 Z-0.125000
G01 X108.811773 Y127.810504 Z-0.125000
G01 X108.966313 Y128.033464 Z-0.125000
G01 X109.166473 Y128.175334 Z-0.125000
G01 X109.523703 Y128.109434 Z-0.125000
G01 X109.858133 Y128.098834 Z-0.125000
G01 X110.088683 Y128.230584 Z-0.125000
G01 X110.096683 Y128.610614 Z-0.125000
G01 X110.111983 Y128.960244 Z-0.125000
G01 X110.286783 Y129.129994 Z-0.125000
G01 X110.626303 Y129.155294 Z-0.125000
G01 X111.026593 Y129.142594 Z-0.125000
G01 X111.110093 Y129.413684 Z-0.125000
G01 X111.302653 Y129.591034 Z-0.125000
G01 X111.304653 Y129.905194 Z-0.125000
G01 X111.289353 Y130.216824 Z-0.125000
G01 X111.413473 Y130.432184 Z-0.125000
G01 X111.588293 Y130.617124 Z-0.125000
G01 X111.846713 Y130.761534 Z-0.125000
G01 X112.044343 Y130.946494 Z-0.125000
G01 X112.262233 Y131.128904 Z-0.125000
G01 X112.381293 Y131.359464 Z-0.125000
G01 X112.389293 Y131.633084 Z-0.125000
G01 X112.348793 Y131.919384 Z-0.125000
G01 X112.376693 Y132.175264 Z-0.125000
G01 X112.412093 Y132.423554 Z-0.125000
G01 X112.379093 Y132.689584 Z-0.125000
G01 X112.622323 Y132.889724 Z-0.125000
G01 X112.824993 Y133.107614 Z-0.125000
G01 X112.865493 Y133.360974 Z-0.125000
G01 X112.989643 Y133.606734 Z-0.125000
G01 X113.009943 Y133.862604 Z-0.125000
G01 X112.901063 Y134.128644 Z-0.125000
G01 X112.946563 Y134.381994 Z-0.125000
G01 X112.916163 Y134.635354 Z-0.125000
G01 X112.903463 Y134.891234 Z-0.125000
G01 X112.835063 Y135.139534 Z-0.125000
G01 X112.743863 Y135.382744 Z-0.125000
G01 X112.807263 Y135.643714 Z-0.125000
G01 X112.619783 Y135.869194 Z-0.125000
G01 X112.728663 Y136.142814 Z-0.125000
G01 X112.632463 Y136.378444 Z-0.125000
G01 X112.670463 Y136.646994 Z-0.125000
G01 X112.566633 Y136.880084 Z-0.125000
G01 X112.536233 Y137.135984 Z-0.125000
G01 X112.500833 Y137.394394 Z-0.125000
G01 X112.404533 Y137.627484 Z-0.125000
G01 X112.313333 Y137.865644 Z-0.125000
G01 X112.239933 Y138.113924 Z-0.125000
G01 X112.092983 Y138.324214 Z-0.125000
G01 X112.014483 Y138.572504 Z-0.125000
G01 X111.933383 Y138.818254 Z-0.125000
G01 X111.778833 Y139.026014 Z-0.125000
G01 X111.616683 Y139.223624 Z-0.125000
G01 X111.517883 Y139.466854 Z-0.125000
G01 X111.320293 Y139.636604 Z-0.125000
G01 X111.155603 Y139.831694 Z-0.125000
G01 X110.955453 Y139.993824 Z-0.125000
G01 X110.755303 Y140.153444 Z-0.125000
G01 X110.585553 Y140.335864 Z-0.125000
G01 X110.372733 Y140.477734 Z-0.125000
G01 X110.202993 Y140.660154 Z-0.125000
G01 X110.073773 Y140.893244 Z-0.125000
G01 X109.904023 Y141.080724 Z-0.125000
G01 X109.764683 Y141.318884 Z-0.125000
G01 X109.589863 Y141.513964 Z-0.125000
G01 X109.394773 Y141.683714 Z-0.125000
G01 X109.194623 Y141.853454 Z-0.125000
G01 X108.781663 Y141.653304 Z-0.125000
G01 X108.475103 Y141.605204 Z-0.125000
G01 X108.662583 Y142.519824 Z-0.125000
G01 X108.307883 Y142.388074 Z-0.125000
G01 X107.791033 Y141.838294 Z-0.125000
G01 X107.884733 Y142.732644 Z-0.125000
G01 X107.659243 Y142.884654 Z-0.125000
G01 X107.307083 Y142.656624 Z-0.125000
G01 X107.013183 Y142.562924 Z-0.125000
G01 X106.731953 Y142.474224 Z-0.125000
G01 X106.524203 Y142.659164 Z-0.125000
G01 X106.298723 Y142.806124 Z-0.125000
G01 X106.103643 Y143.160814 Z-0.125000
G01 X105.835083 Y143.127814 Z-0.125000
G01 X105.579183 Y143.145514 Z-0.125000
G01 X105.320753 Y143.158214 Z-0.125000
G01 X105.059803 Y143.082214 Z-0.125000
G01 X104.806453 Y143.044214 Z-0.125000
G01 X104.553103 Y143.054814 Z-0.125000
G01 X104.302273 Y143.019414 Z-0.125000
G01 X104.056513 Y142.905364 Z-0.125000
G01 X103.808233 Y142.897364 Z-0.125000
G01 X103.554873 Y142.912564 Z-0.125000
G01 X103.293923 Y142.953064 Z-0.125000
G01 X103.027903 Y142.998564 Z-0.125000
G01 X102.723873 Y143.191114 Z-0.125000
G01 X102.483183 Y143.072044 Z-0.125000
G01 X102.427483 Y142.327184 Z-0.125000
G01 X102.110783 Y142.534924 Z-0.125000
G01 X101.713013 Y142.917494 Z-0.125000
G01 X101.452063 Y142.869394 Z-0.125000
G01 X101.322843 Y142.499494 Z-0.125000
G01 X101.170833 Y142.220814 Z-0.125000
G01 X100.932672 Y142.139714 Z-0.125000
G01 X100.709722 Y142.030834 Z-0.125000
G01 X100.469031 Y141.949734 Z-0.125000
G01 X100.187813 Y141.932034 Z-0.125000
G01 X99.916717 Y141.883834 Z-0.125000
G01 X99.706435 Y141.734354 Z-0.125000
G01 X99.422670 Y141.688854 Z-0.125000
G01 X99.257997 Y141.478564 Z-0.125000
G01 X99.199687 Y141.146664 Z-0.125000
G01 X99.121167 Y140.857834 Z-0.125000
G01 X98.069741 Y141.625514 Z-0.125000
G01 X99.240240 Y140.036974 Z-0.125000
G01 X98.069741 Y140.842644 Z-0.125000
G01 X97.991221 Y140.556344 Z-0.125000
G01 X98.198974 Y140.036974 Z-0.125000
G01 X97.806267 Y140.034974 Z-0.125000
G01 X97.682128 Y139.809474 Z-0.125000
G01 X97.489571 Y139.632134 Z-0.125000
G01 X97.573171 Y139.269834 Z-0.125000
G01 X96.810566 Y139.452254 Z-0.125000
G01 X97.532627 Y138.720044 Z-0.125000
G01 X97.304612 Y138.570574 Z-0.125000
G01 X96.767494 Y138.570574 Z-0.125000
G01 X96.448270 Y138.438834 Z-0.125000
G01 X96.496430 Y138.129734 Z-0.125000
G01 X96.726984 Y137.757314 Z-0.125000
G01 X96.762414 Y137.481144 Z-0.125000
G01 X96.389979 Y137.349404 Z-0.125000
G01 X95.901007 Y137.235354 Z-0.125000
G01 X96.714277 Y136.736244 Z-0.125000
G01 X95.675520 Y136.746844 Z-0.125000
G01 X96.367179 Y136.326284 Z-0.125000
G01 X95.292954 Y136.275584 Z-0.125000
G01 X96.889092 Y135.751144 Z-0.125000
G01 X95.984613 Y135.634634 Z-0.125000
G01 X95.356287 Y135.444634 Z-0.125000
G01 X95.893404 Y135.138064 Z-0.125000
G01 X96.253171 Y134.872034 Z-0.125000
G01 X96.004884 Y134.631344 Z-0.125000
G01 X95.422157 Y134.372924 Z-0.125000
G01 X95.548844 Y134.114494 Z-0.125000
G01 X96.144229 Y133.896614 Z-0.125000
G01 X96.101139 Y133.645784 Z-0.125000
G01 X95.987118 Y133.382314 Z-0.125000
G01 X95.670432 Y133.078284 Z-0.125000
G01 X95.703382 Y132.819854 Z-0.125000
G01 X95.928870 Y132.601964 Z-0.125000
G01 X96.205032 Y132.409424 Z-0.125000
G01 X96.405182 Y132.206744 Z-0.125000
G01 X96.298764 Y131.917904 Z-0.125000
G01 X96.258264 Y131.639214 Z-0.125000
G01 X96.227814 Y131.358004 Z-0.125000
G01 X96.220214 Y131.076774 Z-0.125000
G01 X96.334224 Y130.843674 Z-0.125000
G01 X96.536911 Y130.653664 Z-0.125000
G01 X96.843476 Y130.524454 Z-0.125000
G01 X96.924586 Y130.283764 Z-0.125000
G01 X97.063931 Y130.076014 Z-0.125000
G01 X97.253951 Y129.898664 Z-0.125000
G01 X97.226081 Y129.584504 Z-0.125000
G01 X97.281811 Y129.313414 Z-0.125000
G01 X97.411016 Y129.090464 Z-0.125000
G01 X97.512366 Y128.844704 Z-0.125000
G01 X97.687179 Y128.654684 Z-0.125000
G01 X97.925335 Y128.520404 Z-0.125000
G01 X98.214156 Y128.441904 Z-0.125000
G01 X98.578988 Y128.454604 Z-0.125000
G01 X98.518178 Y128.036564 Z-0.125000
G01 X98.513378 Y127.654004 Z-0.125000
G01 X98.667928 Y127.433574 Z-0.125000
G01 X98.992218 Y127.422974 Z-0.125000
G01 X99.420393 Y127.564864 Z-0.125000
G01 X99.569869 Y127.352034 Z-0.125000
G01 X99.716817 Y127.129084 Z-0.125000
G01 X99.734537 Y126.685724 Z-0.125000
G01 X99.924557 Y126.498224 Z-0.125000
G01 X100.203247 Y126.460224 Z-0.125000
G01 X100.583288 Y126.637574 Z-0.125000
G01 X100.899984 Y126.721074 Z-0.125000
G01 X100.938004 Y126.211844 Z-0.125000
G01 X101.041843 Y125.798864 Z-0.125000
G01 X101.358543 Y125.887564 Z-0.125000
G01 X101.746163 Y126.206784 Z-0.125000
G01 X101.996993 Y126.186484 Z-0.125000
G01 X102.128743 Y125.765914 Z-0.125000
G01 X102.288353 Y125.365614 Z-0.125000
G01 X102.582243 Y125.464414 Z-0.125000
G01 X102.919203 Y125.831784 Z-0.125000
G01 X103.162423 Y125.786284 Z-0.125000
G01 X103.392993 Y125.657064 Z-0.125000
G01 X103.598203 Y125.269434 Z-0.125000
G01 X103.856623 Y125.267434 Z-0.125000
G01 X104.107453 Y125.158434 Z-0.125000
G01 X104.383603 Y125.611954 Z-0.125000
G01 X104.631903 Y125.720834 Z-0.125000
G01 X104.882733 Y125.429484 Z-0.125000
G01 X105.151273 Y125.084914 Z-0.125000
G01 X105.412223 Y125.100214 Z-0.125000
G01 X105.630123 Y125.518244 Z-0.125000
G01 X105.855613 Y125.715854 Z-0.125000
G01 X106.116573 Y125.649954 Z-0.125000
G01 X106.405383 Y125.457404 Z-0.125000
G01 X106.724623 Y125.186324 Z-0.125000
G01 X106.934893 Y125.437144 Z-0.125000
G01 X107.074253 Y125.895714 Z-0.125000
G01 X107.287063 Y126.042664 Z-0.125000
G01 X107.631623 Y125.789294 Z-0.125000
G01 X107.983803 Y125.561284 Z-0.125000
G01 X108.191543 Y125.748764 Z-0.125000
G01 X108.368893 Y125.997044 Z-0.125000
G01 X108.523453 Y126.268154 Z-0.125000
G01 X108.700793 Y126.470824 Z-0.125000
G01 X108.946553 Y126.531624 Z-0.125000
G01 X109.258183 Y126.488524 Z-0.125000
G01 X109.595143 Y126.420124 Z-0.125000
G01 X109.861163 Y126.488524 Z-0.125000
G01 X109.859163 Y126.954694 Z-0.125000
G01 X110.008653 Y127.175114 Z-0.125000
G01 X110.198673 Y127.334734 Z-0.125000
G01 X110.482433 Y127.377834 Z-0.125000
G01 X110.854863 Y127.329634 Z-0.125000
G01 X111.115823 Y127.423334 Z-0.125000
G01 X111.163923 Y127.752694 Z-0.125000
G01 X111.214623 Y128.061784 Z-0.125000
G01 X111.321043 Y128.302484 Z-0.125000
G01 X111.498383 Y128.477294 Z-0.125000
G01 X111.873353 Y128.485294 Z-0.125000
G01 X112.167253 Y128.576494 Z-0.125000
G01 X112.367403 Y128.751314 Z-0.125000
G01 X112.306603 Y129.113604 Z-0.125000
G01 X112.301603 Y129.425234 Z-0.125000
G01 X112.509343 Y129.587394 Z-0.125000
G01 X112.572743 Y129.840744 Z-0.125000
G01 X112.772893 Y130.013034 Z-0.125000
G01 X113.071853 Y130.137164 Z-0.125000
G01 X113.355613 Y130.284114 Z-0.125000
G01 X113.419013 Y130.542534 Z-0.125000
G01 X113.175793 Y130.927644 Z-0.125000
G01 X113.272093 Y131.155664 Z-0.125000
G01 X113.289793 Y131.414074 Z-0.125000
G01 X113.601423 Y131.571164 Z-0.125000
G01 X114.087863 Y131.687664 Z-0.125000
G01 X113.976393 Y131.991694 Z-0.125000
G01 X113.771183 Y132.308394 Z-0.125000
G01 X113.530493 Y132.620014 Z-0.125000
G01 X113.791463 Y132.817634 Z-0.125000
G01 X114.163873 Y133.007654 Z-0.125000
G01 X114.346303 Y133.243274 Z-0.125000
G01 X114.272903 Y133.514374 Z-0.125000
G01 X113.963813 Y133.798124 Z-0.125000
G01 X113.928413 Y134.048954 Z-0.125000
G01 X113.933413 Y134.297234 Z-0.125000
G01 X114.280503 Y134.545524 Z-0.125000
G01 X114.462923 Y134.806484 Z-0.125000
G01 X114.348873 Y135.062364 Z-0.125000
G01 X114.136063 Y135.303064 Z-0.125000
G01 X114.110663 Y135.556414 Z-0.125000
G01 X113.991593 Y135.794574 Z-0.125000
G01 X113.923193 Y136.037794 Z-0.125000
G01 X113.887793 Y136.283544 Z-0.125000
G01 X113.900493 Y136.541974 Z-0.125000
G01 X113.898493 Y136.800394 Z-0.125000
G01 X113.933893 Y137.071484 Z-0.125000
G01 X114.022593 Y137.362854 Z-0.125000
G01 X113.933893 Y137.606064 Z-0.125000
G01 X113.792013 Y137.831554 Z-0.125000
G01 X113.536133 Y138.006364 Z-0.125000
G01 X113.422083 Y138.231854 Z-0.125000
G01 X113.262483 Y138.434544 Z-0.125000
G01 X113.219383 Y138.692954 Z-0.125000
G01 X113.034423 Y138.880444 Z-0.125000
G01 X113.009123 Y139.149004 Z-0.125000
G01 X112.938123 Y139.399824 Z-0.125000
G01 X112.821623 Y139.625324 Z-0.125000
G01 X112.689883 Y139.843204 Z-0.125000
G01 X112.618883 Y140.101624 Z-0.125000
G01 X112.471943 Y140.309374 Z-0.125000
G01 X112.286993 Y140.491784 Z-0.125000
G01 X112.253993 Y140.790744 Z-0.125000
G01 X112.048773 Y140.957974 Z-0.125000
G01 X111.787823 Y141.066854 Z-0.125000
G01 X111.633273 Y141.269534 Z-0.125000
G01 X111.412863 Y141.406354 Z-0.125000
G01 X111.136703 Y141.482354 Z-0.125000
G01 X110.972013 Y141.669834 Z-0.125000
G01 X110.782003 Y141.834514 Z-0.125000
G01 X110.637583 Y142.049864 Z-0.125000
G01 X110.485563 Y142.267754 Z-0.125000
G01 X110.308223 Y142.455234 Z-0.125000
G01 X110.103003 Y142.604714 Z-0.125000
G01 X109.928193 Y142.802334 Z-0.125000
G01 X109.672293 Y142.875834 Z-0.125000
G01 X109.489883 Y143.068384 Z-0.125000
G01 X109.274523 Y143.207724 Z-0.125000
G01 X109.023703 Y143.278724 Z-0.125000
G01 X108.780493 Y143.357224 Z-0.125000
G01 X108.595533 Y143.572584 Z-0.125000
G01 X108.326983 Y143.587884 Z-0.125000
G01 X108.010283 Y143.471374 Z-0.125000
G01 X107.734123 Y143.425874 Z-0.125000
G01 X107.726123 Y144.221414 Z-0.125000
G01 X107.394233 Y144.018724 Z-0.125000
G01 X107.036993 Y143.656424 Z-0.125000
G01 X106.859653 Y143.978184 Z-0.125000
G01 X106.596153 Y143.940184 Z-0.125000
G01 X106.370673 Y144.094734 Z-0.125000
G01 X106.127443 Y144.168134 Z-0.125000
G01 X105.886763 Y144.289754 Z-0.125000
G01 X105.643543 Y144.396174 Z-0.125000
G01 X105.390183 Y144.456974 Z-0.125000
G01 X105.134293 Y144.512674 Z-0.125000
G01 X104.875873 Y144.406264 Z-0.125000
G01 X104.619983 Y144.370864 Z-0.125000
G01 X104.366633 Y144.337864 Z-0.125000
G01 X104.115803 Y144.310064 Z-0.125000
G01 X103.867523 Y144.251864 Z-0.125000
G01 X103.616693 Y144.229064 Z-0.125000
G01 X103.388663 Y144.039034 Z-0.125000
G01 X103.102383 Y144.256924 Z-0.125000
G01 X102.755283 Y144.733244 Z-0.125000
G01 X102.676783 Y143.826224 Z-0.125000
G01 X102.433573 Y143.800924 Z-0.125000
G01 X102.132083 Y143.973214 Z-0.125000
G01 X101.792593 Y144.236704 Z-0.125000
G01 X101.521493 Y144.226104 Z-0.125000
G01 X101.377083 Y143.851144 Z-0.125000
G01 X101.192133 Y143.623124 Z-0.125000
G01 X100.943835 Y143.574924 Z-0.125000
G01 X100.766491 Y143.354504 Z-0.125000
G01 X100.414326 Y143.524244 Z-0.125000
G01 X100.133103 Y143.513644 Z-0.125000
G01 X99.824010 Y143.544144 Z-0.125000
G01 X100.143233 Y142.459764 Z-0.125000
G01 X99.091807 Y143.744284 Z-0.125000
G01 X99.841744 Y142.067074 Z-0.125000
G01 X98.590167 Y143.501064 Z-0.125000
G01 X99.284354 Y142.059474 Z-0.125000
G01 X98.430550 Y142.796734 Z-0.125000
G01 X98.585092 Y142.178544 Z-0.125000
G01 X98.397610 Y142.016404 Z-0.125000
G01 X97.736354 Y142.388834 Z-0.125000
G01 X98.281065 Y141.410874 Z-0.125000
G01 X97.156165 Y142.219084 Z-0.125000
G01 X98.227862 Y140.800294 Z-0.125000
G01 X96.586116 Y142.001194 Z-0.125000
G01 X97.895970 Y140.483594 Z-0.125000
G01 X96.413831 Y141.418474 Z-0.125000
G01 X97.222046 Y140.432914 Z-0.125000
G01 X96.570919 Y140.620404 Z-0.125000
G01 X96.347960 Y140.460794 Z-0.125000
G01 X96.839468 Y139.817264 Z-0.125000
G01 X95.544821 Y140.359444 Z-0.125000
G01 X96.945883 Y139.196544 Z-0.125000
G01 X95.068518 Y139.999694 Z-0.125000
G01 X96.679861 Y138.821574 Z-0.125000
G01 X95.045709 Y139.386564 Z-0.125000
G01 X96.023671 Y138.623964 Z-0.125000
G01 X95.385214 Y138.641664 Z-0.125000
G01 X95.164791 Y138.454184 Z-0.125000
G01 X95.828586 Y137.924654 Z-0.125000
G01 X94.412327 Y138.170404 Z-0.125000
G01 X96.056602 Y137.347004 Z-0.125000
G01 X94.044957 Y137.709304 Z-0.125000
G01 X95.866582 Y136.926444 Z-0.125000
G01 X94.174170 Y137.101254 Z-0.125000
G01 X95.261065 Y136.586944 Z-0.125000
G01 X94.680876 Y136.452664 Z-0.125000
G01 X94.460464 Y136.229704 Z-0.125000
G01 X95.268668 Y135.854734 Z-0.125000
G01 X93.799197 Y135.781334 Z-0.125000
G01 X95.608164 Y135.345564 Z-0.125000
G01 X93.561051 Y135.246764 Z-0.125000
G01 X95.501749 Y134.892064 Z-0.125000
G01 X93.837204 Y134.684324 Z-0.125000
G01 X94.974772 Y134.425894 Z-0.125000
G01 X94.483264 Y134.164934 Z-0.125000
G01 X94.275510 Y133.896384 Z-0.125000
G01 X94.551672 Y133.658224 Z-0.125000
G01 X94.698620 Y133.420084 Z-0.125000
G01 X94.594748 Y133.154044 Z-0.125000
G01 X95.015311 Y132.964034 Z-0.125000
G01 X94.044962 Y132.533324 Z-0.125000
G01 X94.908906 Y132.442124 Z-0.125000
G01 X94.916506 Y132.188774 Z-0.125000
G01 X94.607414 Y131.846734 Z-0.125000
G01 X95.395346 Y131.806234 Z-0.125000
G01 X95.131853 Y131.469274 Z-0.125000
G01 X94.541533 Y131.000564 Z-0.125000
G01 X95.848849 Y131.208324 Z-0.125000
G01 X95.235730 Y130.706674 Z-0.125000
G01 X94.951975 Y130.306374 Z-0.125000
G01 X95.233203 Y130.146754 Z-0.125000
G01 X95.570160 Y130.025144 Z-0.125000
G01 X95.674032 Y129.794594 Z-0.125000
G01 X95.777904 Y129.561504 Z-0.125000
G01 X95.962858 Y129.379074 Z-0.125000
G01 X96.054118 Y129.140934 Z-0.125000
G01 X96.330270 Y129.021854 Z-0.125000
G01 X96.304890 Y128.702624 Z-0.125000
G01 X96.345390 Y128.416344 Z-0.125000
G01 X96.352990 Y128.099644 Z-0.125000
G01 X96.570884 Y127.942564 Z-0.125000
G01 X97.029452 Y127.995864 Z-0.125000
G01 X97.201738 Y127.815974 Z-0.125000
G01 X97.366420 Y127.631024 Z-0.125000
G01 X97.346120 Y127.261114 Z-0.125000
G01 X97.404430 Y126.954564 Z-0.125000
G01 X97.569103 Y126.749354 Z-0.125000
G01 X97.895940 Y126.731654 Z-0.125000
G01 X98.301306 Y126.822854 Z-0.125000
G01 X98.488787 Y126.663244 Z-0.125000
G01 X98.526797 Y126.300944 Z-0.125000
G01 X98.554667 Y125.903184 Z-0.125000
G01 X98.759893 Y125.743564 Z-0.125000
G01 X99.177927 Y125.913304 Z-0.125000
G01 X99.540223 Y126.027354 Z-0.125000
G01 X99.641572 Y125.713184 Z-0.125000
G01 X99.775851 Y125.437044 Z-0.125000
G01 X99.859451 Y125.044334 Z-0.125000
G01 X100.112803 Y124.968334 Z-0.125000
G01 X100.508037 Y125.216624 Z-0.125000
G01 X100.817130 Y125.310324 Z-0.125000
G01 X100.928594 Y124.917624 Z-0.125000
G01 X101.194623 Y124.909624 Z-0.125000
G01 X101.404913 Y124.747484 Z-0.125000
G01 X101.574663 Y124.448514 Z-0.125000
G01 X101.784943 Y124.240774 Z-0.125000
G01 X102.111763 Y124.463724 Z-0.125000
G01 X102.425933 Y124.699344 Z-0.125000
G01 X102.656493 Y124.605644 Z-0.125000
G01 X102.851573 Y124.294014 Z-0.125000
G01 X103.071993 Y124.045734 Z-0.125000
G01 X103.320283 Y123.962234 Z-0.125000
G01 X103.591373 Y124.048434 Z-0.125000
G01 X103.875123 Y124.385394 Z-0.125000
G01 X104.128483 Y124.494274 Z-0.125000
G01 X104.356503 Y123.916624 Z-0.125000
G01 X104.612383 Y123.701284 Z-0.125000
G01 X104.868283 Y124.061044 Z-0.125000
G01 X105.119113 Y124.192784 Z-0.125000
G01 X105.359793 Y124.352404 Z-0.125000
G01 X105.610613 Y124.322004 Z-0.125000
G01 X105.881693 Y124.129444 Z-0.125000
G01 X106.150263 Y124.045944 Z-0.125000
G01 X106.428943 Y123.942104 Z-0.125000
G01 X106.659503 Y124.109324 Z-0.125000
G01 X106.892593 Y124.248674 Z-0.125000
G01 X107.107953 Y124.441214 Z-0.125000
G01 X107.320773 Y124.623644 Z-0.125000
G01 X107.569063 Y124.654044 Z-0.125000
G01 X107.862953 Y124.550214 Z-0.125000
G01 X108.177113 Y124.415934 Z-0.125000
G01 X108.405133 Y124.542624 Z-0.125000
G01 X108.655943 Y124.608524 Z-0.125000
G01 X108.853573 Y124.801074 Z-0.125000
G01 X109.018263 Y125.054424 Z-0.125000
G01 X109.182933 Y125.292584 Z-0.125000
G01 X109.423623 Y125.363584 Z-0.125000
G01 X109.704853 Y125.368584 Z-0.125000
G01 X109.978473 Y125.398984 Z-0.125000
G01 X110.282503 Y125.386284 Z-0.125000
G01 X110.571323 Y125.416684 Z-0.125000
G01 X110.558623 Y125.898064 Z-0.125000
G01 X110.591623 Y126.280634 Z-0.125000
G01 X111.057793 Y126.065284 Z-0.125000
G01 X111.526503 Y125.885394 Z-0.125000
G01 X111.445403 Y126.397174 Z-0.125000
G01 X111.450403 Y126.774674 Z-0.125000
G01 X111.698683 Y126.870974 Z-0.125000
G01 X112.344733 Y126.556814 Z-0.125000
G01 X112.346733 Y126.926714 Z-0.125000
G01 X112.131373 Y127.486624 Z-0.125000
G01 X112.334063 Y127.633584 Z-0.125000
G01 X112.792643 Y127.565184 Z-0.125000
G01 X113.241073 Y127.527184 Z-0.125000
G01 X112.957323 Y128.082024 Z-0.125000
G01 X112.858523 Y128.469664 Z-0.125000
G01 X113.481773 Y128.325244 Z-0.125000
G01 X113.757943 Y128.449394 Z-0.125000
G01 X113.656563 Y128.824354 Z-0.125000
G01 X113.502013 Y129.212004 Z-0.125000
G01 X113.732563 Y129.364014 Z-0.125000
G01 X114.239273 Y129.369014 Z-0.125000
G01 X114.477433 Y129.538774 Z-0.125000
G01 X114.378633 Y129.878264 Z-0.125000
G01 X114.287433 Y130.197484 Z-0.125000
G01 X114.140493 Y130.531924 Z-0.125000
G01 X114.634543 Y130.597824 Z-0.125000
G01 X115.032303 Y130.721964 Z-0.125000
G01 X115.001903 Y131.010784 Z-0.125000
G01 X114.583873 Y131.413624 Z-0.125000
G01 X114.657273 Y131.649244 Z-0.125000
G01 X114.968903 Y131.818984 Z-0.125000
G01 X115.351473 Y131.988754 Z-0.125000
G01 X115.432573 Y132.234504 Z-0.125000
G01 X115.191883 Y132.546124 Z-0.125000
G01 X115.067733 Y132.822284 Z-0.125000
G01 X114.994333 Y133.085774 Z-0.125000
G01 X115.483303 Y133.275794 Z-0.125000
G01 X115.784803 Y133.503804 Z-0.125000
G01 X115.506113 Y133.787574 Z-0.125000
G01 X115.007003 Y134.066264 Z-0.125000
G01 X115.204623 Y134.306954 Z-0.125000
G01 X115.498503 Y134.555234 Z-0.125000
G01 X115.845613 Y134.818734 Z-0.125000
G01 X115.549183 Y135.067014 Z-0.125000
G01 X115.369303 Y135.310244 Z-0.125000
G01 X115.065263 Y135.535724 Z-0.125000
G01 X115.247693 Y135.804284 Z-0.125000
G01 X115.356573 Y136.072854 Z-0.125000
G01 X115.442673 Y136.343924 Z-0.125000
G01 X115.440673 Y136.604884 Z-0.125000
G01 X115.430073 Y136.865844 Z-0.125000
G01 X115.278063 Y137.093864 Z-0.125000
G01 X115.120983 Y137.316814 Z-0.125000
G01 X114.961373 Y137.532174 Z-0.125000
G01 X114.994373 Y137.808324 Z-0.125000
G01 X114.794223 Y138.005954 Z-0.125000
G01 X114.697923 Y138.236504 Z-0.125000
G01 X114.657423 Y138.489854 Z-0.125000
G01 X114.599123 Y138.738144 Z-0.125000
G01 X114.566123 Y138.999114 Z-0.125000
G01 X114.523023 Y139.260064 Z-0.125000
G01 X114.479923 Y139.523544 Z-0.125000
G01 X114.350713 Y139.743964 Z-0.125000
G01 X114.203763 Y139.956794 Z-0.125000
G01 X114.041613 Y140.156934 Z-0.125000
G01 X113.907333 Y140.374824 Z-0.125000
G01 X113.780663 Y140.595244 Z-0.125000
G01 X113.618513 Y140.792864 Z-0.125000
G01 X113.451293 Y140.985414 Z-0.125000
G01 X113.144753 Y141.068914 Z-0.125000
G01 X113.010463 Y141.279184 Z-0.125000
G01 X112.873643 Y141.489474 Z-0.125000
G01 X112.784943 Y141.745374 Z-0.125000
G01 X112.701343 Y142.008864 Z-0.125000
G01 X112.602543 Y142.269814 Z-0.125000
G01 X112.455603 Y142.487704 Z-0.125000
G01 X112.250383 Y142.644794 Z-0.125000
G01 X111.986893 Y142.735994 Z-0.125000
G01 X111.771543 Y142.875344 Z-0.125000
G01 X111.505513 Y142.948744 Z-0.125000
G01 X111.330693 Y143.133694 Z-0.125000
G01 X111.140673 Y143.300914 Z-0.125000
G01 X110.856923 Y143.336314 Z-0.125000
G01 X110.702373 Y143.549144 Z-0.125000
G01 X110.545283 Y143.772094 Z-0.125000
G01 X110.352753 Y143.941834 Z-0.125000
G01 X110.198193 Y144.182524 Z-0.125000
G01 X110.003103 Y144.359874 Z-0.125000
G01 X109.759893 Y144.451074 Z-0.125000
G01 X109.504013 Y144.509274 Z-0.125000
G01 X109.220243 Y144.504274 Z-0.125000
G01 X108.842743 Y144.263574 Z-0.125000
G01 X108.865543 Y144.972984 Z-0.125000
G01 X108.685653 Y145.228854 Z-0.125000
G01 X108.320823 Y144.980574 Z-0.125000
G01 X108.067473 Y145.028774 Z-0.125000
G01 X107.743173 Y144.828624 Z-0.125000
G01 X107.545553 Y145.043984 Z-0.125000
G01 X107.441723 Y145.657104 Z-0.125000
G01 X107.104753 Y145.358144 Z-0.125000
G01 X106.747523 Y144.874234 Z-0.125000
G01 X106.572703 Y145.272004 Z-0.125000
G01 X106.428293 Y145.978864 Z-0.125000
G01 X106.124263 Y145.710294 Z-0.125000
G01 X105.848113 Y145.535484 Z-0.125000
G01 X105.589683 Y145.497484 Z-0.125000
G01 X105.333793 Y145.421484 Z-0.125000
G01 X105.082983 Y145.429484 Z-0.125000
G01 X104.834673 Y145.492884 Z-0.125000
G01 X104.583863 Y145.682904 Z-0.125000
G01 X104.322903 Y145.819704 Z-0.125000
G01 X104.061953 Y145.882904 Z-0.125000
G01 X103.838993 Y145.416734 Z-0.125000
G01 X103.613503 Y145.165904 Z-0.125000
G01 X103.279083 Y145.882904 Z-0.125000
G01 X103.028263 Y145.796704 Z-0.125000
G01 X102.921853 Y144.871954 Z-0.125000
G01 X102.503813 Y145.768834 Z-0.125000
G01 X102.260593 Y145.664994 Z-0.125000
G01 X102.030033 Y145.512984 Z-0.125000
G01 X101.799483 Y145.378704 Z-0.125000
G01 X101.660133 Y144.945464 Z-0.125000
G01 X101.348503 Y145.117744 Z-0.125000
G01 X100.915260 Y145.609254 Z-0.125000
G01 X101.135693 Y144.233544 Z-0.125000
G01 X100.322416 Y145.664994 Z-0.125000
G01 X100.634033 Y144.215804 Z-0.125000
G01 X100.165326 Y144.681974 Z-0.125000
G01 X99.747290 Y144.975874 Z-0.125000
G01 X99.732060 Y144.423554 Z-0.125000
G01 X99.562312 Y144.210734 Z-0.125000
G01 X98.946655 Y144.801054 Z-0.125000
G01 X99.425495 Y143.465864 Z-0.125000
G01 X98.260061 Y144.899864 Z-0.125000
G01 X99.129071 Y143.057964 Z-0.125000
G01 X97.821754 Y144.565434 Z-0.125000
G01 X98.576756 Y143.042764 Z-0.125000
G01 X97.667203 Y143.856034 Z-0.125000
G01 X97.793879 Y143.268254 Z-0.125000
G01 X97.700129 Y142.989564 Z-0.125000
G01 X96.950192 Y143.476004 Z-0.125000
G01 X97.710260 Y142.239624 Z-0.125000
G01 X96.268663 Y143.422804 Z-0.125000
G01 X97.494913 Y141.793714 Z-0.125000
G01 X95.916500 Y142.997164 Z-0.125000
G01 X96.945127 Y141.674634 Z-0.125000
G01 X95.916500 Y142.264954 Z-0.125000
G01 X96.126790 Y141.743054 Z-0.125000
G01 X96.123990 Y141.421284 Z-0.125000
G01 X95.262583 Y141.773454 Z-0.125000
G01 X96.281069 Y140.696694 Z-0.125000
G01 X94.613986 Y141.575834 Z-0.125000
G01 X96.144262 Y140.222914 Z-0.125000
G01 X94.368236 Y141.079254 Z-0.125000
G01 X95.617275 Y140.005034 Z-0.125000
G01 X94.527843 Y140.354654 Z-0.125000
G01 X94.798940 Y139.908744 Z-0.125000
G01 X94.900277 Y139.574314 Z-0.125000
G01 X93.947663 Y139.761804 Z-0.125000
G01 X95.191636 Y138.897864 Z-0.125000
G01 X93.364946 Y139.432444 Z-0.125000
G01 X95.138433 Y138.413944 Z-0.125000
G01 X93.238269 Y138.890264 Z-0.125000
G01 X94.651990 Y138.097254 Z-0.125000
G01 X93.549889 Y138.211294 Z-0.125000
G01 X93.864057 Y137.841374 Z-0.125000
G01 X94.074339 Y137.519624 Z-0.125000
G01 X93.063446 Y137.524624 Z-0.125000
G01 X94.484780 Y136.919114 Z-0.125000
G01 X92.571937 Y137.081254 Z-0.125000
G01 X94.515183 Y136.437734 Z-0.125000
G01 X92.571937 Y136.521234 Z-0.125000
G01 X94.087007 Y136.032244 Z-0.125000
G01 X93.022912 Y135.918204 Z-0.125000
G01 X93.359879 Y135.624314 Z-0.125000
G01 X93.674038 Y135.348154 Z-0.125000
G01 X92.642874 Y135.153074 Z-0.125000
G01 X94.185819 Y134.841444 Z-0.125000
G01 X92.262845 Y134.618494 Z-0.125000
G01 X94.294761 Y134.375274 Z-0.125000
G01 X92.392059 Y134.071244 Z-0.125000
G01 X93.945125 Y133.893894 Z-0.125000
G01 X92.962107 Y133.572134 Z-0.125000
G01 X93.306668 Y133.346644 Z-0.125000
G01 X93.714572 Y133.141434 Z-0.125000
G01 X92.703679 Y132.741124 Z-0.125000
G01 X94.307430 Y132.746124 Z-0.125000
G01 X93.314271 Y132.315424 Z-0.125000
G01 X93.035581 Y131.991134 Z-0.125000
G01 X94.279555 Y132.021534 Z-0.125000
G01 X92.865833 Y131.400814 Z-0.125000
G01 X94.140209 Y131.486914 Z-0.125000
G01 X94.026200 Y131.198094 Z-0.125000
G01 X93.633502 Y130.802854 Z-0.125000
G01 X93.522027 Y130.488684 Z-0.125000
G01 X94.114875 Y130.437984 Z-0.125000
G01 X94.421439 Y130.296114 Z-0.125000
G01 X93.527092 Y129.632314 Z-0.125000
G01 X94.890149 Y129.971814 Z-0.125000
G01 X94.535447 Y129.530964 Z-0.125000
G01 X94.109809 Y129.029334 Z-0.125000
G01 X94.385972 Y128.879854 Z-0.125000
G01 X94.966151 Y128.917854 Z-0.125000
G01 X94.973751 Y128.631554 Z-0.125000
G01 X95.113097 Y128.423804 Z-0.125000
G01 X95.199277 Y128.183114 Z-0.125000
G01 X95.305695 Y127.950024 Z-0.125000
G01 X95.358935 Y127.676404 Z-0.125000
G01 X95.513477 Y127.473714 Z-0.125000
G01 X95.597077 Y127.215294 Z-0.125000
G01 X95.708552 Y126.974604 Z-0.125000
G01 X95.918843 Y126.814984 Z-0.125000
G01 X96.283675 Y126.802284 Z-0.125000
G01 X96.564893 Y126.723784 Z-0.125000
G01 X96.640923 Y126.452694 Z-0.125000
G01 X96.615543 Y126.062524 Z-0.125000
G01 X96.661123 Y125.730634 Z-0.125000
G01 X97.061424 Y125.793834 Z-0.125000
G01 X97.385713 Y125.785834 Z-0.125000
G01 X97.661875 Y125.732534 Z-0.125000
G01 X97.707455 Y125.385424 Z-0.125000
G01 X97.808793 Y125.096594 Z-0.125000
G01 X97.836663 Y124.688694 Z-0.125000
G01 X98.221767 Y124.795114 Z-0.125000
G01 X98.680345 Y125.043394 Z-0.125000
G01 X98.837425 Y124.828034 Z-0.125000
G01 X98.850065 Y124.351734 Z-0.125000
G01 X98.956471 Y124.012244 Z-0.125000
G01 X99.308636 Y124.121124 Z-0.125000
G01 X99.708937 Y124.359284 Z-0.125000
G01 X99.891353 Y124.169264 Z-0.125000
G01 X99.835623 Y123.411724 Z-0.125000
G01 X100.230859 Y123.680284 Z-0.125000
G01 X100.681821 Y124.141384 Z-0.125000
G01 X100.778151 Y123.692954 Z-0.125000
G01 X100.902298 Y123.274914 Z-0.125000
G01 X101.120183 Y123.102634 Z-0.125000
G01 X101.520473 Y123.558664 Z-0.125000
G01 X101.799183 Y123.642164 Z-0.125000
G01 X101.938523 Y123.170924 Z-0.125000
G01 X102.126003 Y122.833964 Z-0.125000
G01 X102.399623 Y122.879464 Z-0.125000
G01 X102.731523 Y123.294984 Z-0.125000
G01 X102.982343 Y123.289984 Z-0.125000
G01 X103.192623 Y123.003694 Z-0.125000
G01 X103.410533 Y122.669264 Z-0.125000
G01 X103.663883 Y122.577964 Z-0.125000
G01 X103.942563 Y122.881984 Z-0.125000
G01 X104.211133 Y123.213874 Z-0.125000
G01 X104.451803 Y123.028944 Z-0.125000
G01 X104.702633 Y122.539964 Z-0.125000
G01 X104.961063 Y122.562764 Z-0.125000
G01 X105.209343 Y122.783194 Z-0.125000
G01 X105.434833 Y123.224034 Z-0.125000
G01 X105.693253 Y123.079614 Z-0.125000
G01 X105.984613 Y122.709714 Z-0.125000
G01 X106.240503 Y122.737514 Z-0.125000
G01 X106.509063 Y122.679214 Z-0.125000
G01 X106.709213 Y123.036444 Z-0.125000
G01 X106.896693 Y123.391144 Z-0.125000
G01 X107.188053 Y123.206194 Z-0.125000
G01 X107.519953 Y122.902164 Z-0.125000
G01 X107.796103 Y122.871764 Z-0.125000
G01 X107.991193 Y123.130194 Z-0.125000
G01 X108.133073 Y123.533034 Z-0.125000
G01 X108.353503 Y123.654644 Z-0.125000
G01 X108.642323 Y123.581144 Z-0.125000
G01 X108.936213 Y123.515244 Z-0.125000
G01 X109.285843 Y123.332834 Z-0.125000
G01 X109.480923 Y123.538044 Z-0.125000
G01 X109.562023 Y123.973824 Z-0.125000
G01 X109.703903 Y124.255044 Z-0.125000
G01 X110.063663 Y124.092894 Z-0.125000
G01 X110.400623 Y123.999194 Z-0.125000
G01 X110.674243 Y124.042294 Z-0.125000
G01 X110.836393 Y124.275364 Z-0.125000
G01 X110.828393 Y124.766884 Z-0.125000
G01 X111.066543 Y124.855584 Z-0.125000
G01 X111.302173 Y124.951884 Z-0.125000
G01 X111.730333 Y124.784664 Z-0.125000
G01 X112.062233 Y124.774064 Z-0.125000
G01 X111.986233 Y125.293454 Z-0.125000
G01 X111.998933 Y125.670944 Z-0.125000
G01 X112.295353 Y125.703944 Z-0.125000
G01 X112.824883 Y125.488584 Z-0.125000
G01 X113.027563 Y125.655804 Z-0.125000
G01 X112.982063 Y126.071304 Z-0.125000
G01 X112.835113 Y126.570414 Z-0.125000
G01 X113.357033 Y126.415884 Z-0.125000
G01 X113.777603 Y126.377884 Z-0.125000
G01 X113.784603 Y126.714834 Z-0.125000
G01 X113.632593 Y127.170884 Z-0.125000
G01 X113.789683 Y127.360894 Z-0.125000
G01 X114.458533 Y127.165814 Z-0.125000
G01 X114.608013 Y127.381174 Z-0.125000
G01 X114.296383 Y127.910684 Z-0.125000
G01 X114.291383 Y128.212174 Z-0.125000
G01 X115.109723 Y127.989224 Z-0.125000
G01 X114.787953 Y128.485794 Z-0.125000
G01 X114.623273 Y128.868364 Z-0.125000
G01 X115.456823 Y128.693554 Z-0.125000
G01 X115.618973 Y128.901304 Z-0.125000
G01 X115.200923 Y129.395334 Z-0.125000
G01 X115.284623 Y129.630974 Z-0.125000
G01 X115.520243 Y129.800724 Z-0.125000
G01 X116.026953 Y129.861524 Z-0.125000
G01 X116.028953 Y130.140214 Z-0.125000
G01 X115.403163 Y130.641844 Z-0.125000
G01 X115.963083 Y130.707744 Z-0.125000
G01 X116.621813 Y130.763444 Z-0.125000
G01 X115.983353 Y131.227094 Z-0.125000
G01 X115.826273 Y131.528584 Z-0.125000
G01 X116.393783 Y131.637474 Z-0.125000
G01 X116.799163 Y131.809744 Z-0.125000
G01 X116.335523 Y132.172064 Z-0.125000
G01 X116.150563 Y132.460874 Z-0.125000
G01 X116.398853 Y132.671164 Z-0.125000
G01 X116.809293 Y132.866254 Z-0.125000
G01 X116.928363 Y133.112004 Z-0.125000
G01 X116.568593 Y133.408424 Z-0.125000
G01 X116.464763 Y133.669384 Z-0.125000
G01 X116.393763 Y133.922744 Z-0.125000
G01 X116.634463 Y134.160904 Z-0.125000
G01 X116.984083 Y134.409184 Z-0.125000
G01 X116.892883 Y134.667604 Z-0.125000
G01 X116.887883 Y134.926034 Z-0.125000
G01 X116.680133 Y135.171784 Z-0.125000
G01 X116.414113 Y135.404874 Z-0.125000
G01 X116.447113 Y135.658234 Z-0.125000
G01 X116.571263 Y135.921724 Z-0.125000
G01 X116.664963 Y136.190274 Z-0.125000
G01 X116.827103 Y136.471504 Z-0.125000
G01 X116.766303 Y136.724854 Z-0.125000
G01 X116.561093 Y136.945284 Z-0.125000
G01 X116.366003 Y137.163164 Z-0.125000
G01 X116.135443 Y137.365854 Z-0.125000
G01 X116.213943 Y137.642004 Z-0.125000
G01 X116.191143 Y137.895354 Z-0.125000
G01 X116.201743 Y138.161394 Z-0.125000
G01 X116.153543 Y138.414744 Z-0.125000
G01 X116.275153 Y138.726374 Z-0.125000
G01 X116.120613 Y138.944254 Z-0.125000
G01 X116.047113 Y139.192544 Z-0.125000
G01 X115.798823 Y139.362294 Z-0.125000
G01 X115.575873 Y139.542174 Z-0.125000
G01 X115.363053 Y139.716994 Z-0.125000
G01 X115.327653 Y139.975414 Z-0.125000
G01 X115.365653 Y140.279444 Z-0.125000
G01 X115.320153 Y140.545474 Z-0.125000
G01 X115.347953 Y140.859624 Z-0.125000
G01 X115.054063 Y140.981234 Z-0.125000
G01 X114.983063 Y141.237134 Z-0.125000
G01 X114.755043 Y141.391664 Z-0.125000
G01 X114.516883 Y141.536094 Z-0.125000
G01 X114.357273 Y141.731174 Z-0.125000
G01 X114.108983 Y141.855304 Z-0.125000
G01 X114.050783 Y142.126414 Z-0.125000
G01 X113.946943 Y142.369634 Z-0.125000
G01 X113.926643 Y142.688854 Z-0.125000
G01 X113.749293 Y142.871264 Z-0.125000
G01 X113.617553 Y143.099294 Z-0.125000
G01 X113.394603 Y143.241174 Z-0.125000
G01 X113.126033 Y143.332374 Z-0.125000
G01 X112.903083 Y143.464144 Z-0.125000
G01 X112.756143 Y143.676954 Z-0.125000
G01 X112.566123 Y143.846704 Z-0.125000
G01 X112.322903 Y143.948074 Z-0.125000
G01 X112.127813 Y144.105164 Z-0.125000
G01 X111.920063 Y144.249564 Z-0.125000
G01 X111.704703 Y144.381314 Z-0.125000
G01 X111.545103 Y144.591594 Z-0.125000
G01 X111.367743 Y144.779074 Z-0.125000
G01 X111.162533 Y144.928564 Z-0.125000
G01 X111.051073 Y145.237664 Z-0.125000
G01 X110.871193 Y145.442874 Z-0.125000
G01 X110.465813 Y145.237664 Z-0.125000
G01 X110.118723 Y145.113514 Z-0.125000
G01 X110.311273 Y146.068664 Z-0.125000
G01 X109.809623 Y145.615154 Z-0.125000
G01 X109.399193 Y145.308594 Z-0.125000
G01 X109.558803 Y146.327094 Z-0.125000
G01 X108.778473 Y145.050184 Z-0.125000
G01 X109.259843 Y147.039024 Z-0.125000
G01 X108.362963 Y145.273134 Z-0.125000
G01 X108.651793 Y146.940214 Z-0.125000
G01 X108.061473 Y145.903974 Z-0.125000
G01 X107.967773 Y146.479104 Z-0.125000
G01 X107.587743 Y146.025594 Z-0.125000
G01 X107.552143 Y146.947814 Z-0.125000
G01 X107.205043 Y146.575374 Z-0.125000
G01 X106.863033 Y146.121874 Z-0.125000
G01 X106.814933 Y147.307584 Z-0.125000
G01 X106.369023 Y146.094004 Z-0.125000
G01 X106.265183 Y147.203694 Z-0.125000
G01 X105.920623 Y146.415754 Z-0.125000
G01 X105.740733 Y147.231564 Z-0.125000
G01 X105.436713 Y146.532304 Z-0.125000
G01 X105.231483 Y147.517864 Z-0.125000
G01 X104.929993 Y145.995194 Z-0.125000
G01 X104.699443 Y147.908024 Z-0.125000
G01 X104.463823 Y145.876114 Z-0.125000
G01 X104.154733 Y147.788954 Z-0.125000
G01 X103.977373 Y146.218154 Z-0.125000
G01 X103.655623 Y147.221434 Z-0.125000
G01 X103.430123 Y146.854064 Z-0.125000
G01 X103.186913 Y146.752694 Z-0.125000
G01 X102.994363 Y146.321984 Z-0.125000
G01 X102.576323 Y147.368344 Z-0.125000
G01 X102.543323 Y146.078764 Z-0.125000
G01 X102.110083 Y146.995914 Z-0.125000
G01 X101.866863 Y146.892084 Z-0.125000
G01 X101.633773 Y146.757814 Z-0.125000
G01 X101.420963 Y146.557654 Z-0.125000
G01 X101.253743 Y146.225754 Z-0.125000
G01 X101.002913 Y146.192754 Z-0.125000
G01 X100.754633 Y146.147254 Z-0.125000
G01 X100.473405 Y146.192754 Z-0.125000
G01 X100.014832 Y146.684284 Z-0.125000
G01 X100.222586 Y145.470694 Z-0.125000
G01 X99.660130 Y146.167434 Z-0.125000
G01 X99.791882 Y145.255344 Z-0.125000
G01 X98.897535 Y146.562674 Z-0.125000
G01 X99.515720 Y144.738494 Z-0.125000
G01 X98.352814 Y146.430914 Z-0.125000
G01 X99.039408 Y144.637164 Z-0.125000
G01 X98.051325 Y145.858334 Z-0.125000
G01 X98.342682 Y144.877854 Z-0.125000
G01 X97.955051 Y145.022264 Z-0.125000
G01 X97.526875 Y145.209744 Z-0.125000
G01 X97.911979 Y144.203924 Z-0.125000
G01 X96.776938 Y145.349084 Z-0.125000
G01 X97.727025 Y143.654134 Z-0.125000
G01 X96.275298 Y145.108404 Z-0.125000
G01 X97.265919 Y143.481854 Z-0.125000
G01 X96.092882 Y144.480084 Z-0.125000
G01 X96.528650 Y143.598394 Z-0.125000
G01 X96.153687 Y143.636394 Z-0.125000
G01 X95.667243 Y143.775754 Z-0.125000
G01 X96.257564 Y142.828194 Z-0.125000
G01 X94.912242 Y143.768144 Z-0.125000
G01 X96.163818 Y142.265754 Z-0.125000
G01 X94.473935 Y143.431184 Z-0.125000
G01 X95.730586 Y142.022524 Z-0.125000
G01 X94.418195 Y142.772464 Z-0.125000
G01 X94.975584 Y142.007324 Z-0.125000
G01 X94.636090 Y141.951624 Z-0.125000
G01 X94.096434 Y142.025024 Z-0.125000
G01 X94.879311 Y141.178824 Z-0.125000
G01 X93.364241 Y141.875554 Z-0.125000
G01 X94.879311 Y140.616374 Z-0.125000
G01 X93.007002 Y141.454984 Z-0.125000
G01 X94.481538 Y140.307284 Z-0.125000
G01 X93.085551 Y140.791184 Z-0.125000
G01 X93.734139 Y140.160334 Z-0.125000
G01 X93.450383 Y140.020984 Z-0.125000
G01 X92.865128 Y140.015984 Z-0.125000
G01 X93.822809 Y139.309124 Z-0.125000
G01 X92.183601 Y139.732224 Z-0.125000
G01 X93.911489 Y138.761874 Z-0.125000
G01 X91.922645 Y139.248304 Z-0.125000
G01 X93.561853 Y138.391974 Z-0.125000
G01 X92.130399 Y138.607324 Z-0.125000
G01 X92.844857 Y138.113274 Z-0.125000
G01 X92.634575 Y137.915664 Z-0.125000
G01 X92.018919 Y137.814294 Z-0.125000
G01 X93.123547 Y137.282244 Z-0.125000
G01 X91.408327 Y137.408914 Z-0.125000
G01 X93.293295 Y136.765404 Z-0.125000
G01 X91.253784 Y136.884474 Z-0.125000
G01 X93.001936 Y136.337224 Z-0.125000
G01 X91.588215 Y136.289024 Z-0.125000
G01 X92.338141 Y135.936864 Z-0.125000
G01 X92.211465 Y135.698704 Z-0.125000
G01 X91.578075 Y135.493484 Z-0.125000
G01 X92.796720 Y135.166664 Z-0.125000
G01 X91.063765 Y134.984234 Z-0.125000
G01 X93.042479 Y134.687814 Z-0.125000
G01 X91.023231 Y134.439534 Z-0.125000
G01 X92.816992 Y134.216574 Z-0.125000
G01 X91.469132 Y133.915084 Z-0.125000
G01 X92.226672 Y133.699724 Z-0.125000
G01 X92.191242 Y133.446374 Z-0.125000
G01 X91.562915 Y133.127144 Z-0.125000
G01 X92.857563 Y133.028344 Z-0.125000
G01 X91.160077 Y132.536834 Z-0.125000
G01 X93.169194 Y132.597634 Z-0.125000
G01 X91.231023 Y131.994634 Z-0.125000
G01 X93.075448 Y132.103634 Z-0.125000
G01 X92.173507 Y131.652654 Z-0.125000
G01 X91.894808 Y131.318234 Z-0.125000
G01 X92.510466 Y131.214394 Z-0.125000
G01 X92.893032 Y131.064914 Z-0.125000
G01 X91.813740 Y130.466994 Z-0.125000
G01 X93.184390 Y130.649414 Z-0.125000
G01 X92.860101 Y130.274454 Z-0.125000
G01 X92.322983 Y129.800674 Z-0.125000
G01 X92.817029 Y129.717174 Z-0.125000
G01 X93.437752 Y129.706574 Z-0.125000
G01 X92.533265 Y129.030114 Z-0.125000
G01 X93.156525 Y129.035114 Z-0.125000
G01 X93.683503 Y129.014814 Z-0.125000
G01 X93.255336 Y128.513164 Z-0.125000
G01 X93.283206 Y128.237014 Z-0.125000
G01 X94.066073 Y128.391564 Z-0.125000
G01 X93.906466 Y128.008984 Z-0.125000
G01 X93.863376 Y127.687234 Z-0.125000
G01 X93.898806 Y127.406004 Z-0.125000
G01 X94.060949 Y127.208384 Z-0.125000
G01 X94.220566 Y127.008244 Z-0.125000
G01 X94.301676 Y126.749814 Z-0.125000
G01 X94.699439 Y126.734614 Z-0.125000
G01 X94.980667 Y126.638414 Z-0.125000
G01 X95.028827 Y126.357184 Z-0.125000
G01 X94.968027 Y125.969544 Z-0.125000
G01 X94.945237 Y125.599654 Z-0.125000
G01 X95.446877 Y125.718724 Z-0.125000
G01 X95.743301 Y125.657924 Z-0.125000
G01 X95.945988 Y125.508444 Z-0.125000
G01 X95.875038 Y125.067614 Z-0.125000
G01 X95.875038 Y124.685034 Z-0.125000
G01 X96.217071 Y124.685034 Z-0.125000
G01 X96.814985 Y125.004264 Z-0.125000
G01 X96.774485 Y124.560894 Z-0.125000
G01 X96.660476 Y123.998434 Z-0.125000
G01 X97.007574 Y124.028834 Z-0.125000
G01 X97.577623 Y124.398744 Z-0.125000
G01 X97.587833 Y123.975624 Z-0.125000
G01 X97.489013 Y123.359974 Z-0.125000
G01 X97.825981 Y123.408074 Z-0.125000
G01 X98.390964 Y123.861594 Z-0.125000
G01 X98.472074 Y123.504354 Z-0.125000
G01 X98.517654 Y123.066044 Z-0.125000
G01 X98.624072 Y122.711354 Z-0.125000
G01 X98.996499 Y122.878564 Z-0.125000
G01 X99.366406 Y123.071114 Z-0.125000
G01 X99.581753 Y122.941904 Z-0.125000
G01 X99.718570 Y122.625204 Z-0.125000
G01 X99.819908 Y122.191964 Z-0.125000
G01 X100.121399 Y122.252764 Z-0.125000
G01 X100.536902 Y122.670794 Z-0.125000
G01 X100.749727 Y122.526384 Z-0.125000
G01 X100.871339 Y122.077944 Z-0.125000
G01 X101.058823 Y121.799264 Z-0.125000
G01 X101.347653 Y121.875264 Z-0.125000
G01 X101.704873 Y122.260354 Z-0.125000
G01 X101.945563 Y122.207054 Z-0.125000
G01 X102.072253 Y121.583804 Z-0.125000
G01 X102.310393 Y121.452054 Z-0.125000
G01 X102.622033 Y121.751024 Z-0.125000
G01 X102.905793 Y121.935974 Z-0.125000
G01 X103.156613 Y121.956274 Z-0.125000
G01 X103.351693 Y121.416624 Z-0.125000
G01 X103.602523 Y121.317824 Z-0.125000
G01 X103.868543 Y121.434334 Z-0.125000
G01 X104.132033 Y121.578744 Z-0.125000
G01 X104.387923 Y121.707954 Z-0.125000
G01 X104.638743 Y121.832104 Z-0.125000
G01 X104.889563 Y121.664884 Z-0.125000
G01 X105.150513 Y121.378604 Z-0.125000
G01 X105.416543 Y121.229114 Z-0.125000
G01 X105.659773 Y121.449534 Z-0.125000
G01 X105.905513 Y121.591414 Z-0.125000
G01 X106.138613 Y121.768764 Z-0.125000
G01 X106.371703 Y121.910644 Z-0.125000
G01 X106.642783 Y121.791564 Z-0.125000
G01 X106.939213 Y121.550874 Z-0.125000
G01 X107.233103 Y121.381124 Z-0.125000
G01 X107.387653 Y121.900504 Z-0.125000
G01 X107.575143 Y122.207064 Z-0.125000
G01 X107.863963 Y122.070254 Z-0.125000
G01 X108.178123 Y121.872644 Z-0.125000
G01 X108.499893 Y121.682624 Z-0.125000
G01 X108.672163 Y122.004374 Z-0.125000
G01 X108.768463 Y122.511094 Z-0.125000
G01 X109.029413 Y122.513094 Z-0.125000
G01 X109.404393 Y122.229334 Z-0.125000
G01 X109.688153 Y122.211634 Z-0.125000
G01 X109.908563 Y122.353524 Z-0.125000
G01 X109.857863 Y123.090794 Z-0.125000
G01 X110.245493 Y122.842494 Z-0.125000
G01 X110.759813 Y122.373784 Z-0.125000
G01 X110.714313 Y123.027454 Z-0.125000
G01 X110.747313 Y123.491094 Z-0.125000
G01 X111.373103 Y122.890634 Z-0.125000
G01 X111.585933 Y123.040114 Z-0.125000
G01 X111.509933 Y123.650694 Z-0.125000
G01 X111.659413 Y123.876194 Z-0.125000
G01 X112.178793 Y123.551894 Z-0.125000
G01 X112.452413 Y123.612694 Z-0.125000
G01 X112.219323 Y124.360094 Z-0.125000
G01 X112.918583 Y123.855914 Z-0.125000
G01 X113.101003 Y124.045924 Z-0.125000
G01 X112.662693 Y124.975734 Z-0.125000
G01 X113.612783 Y124.248604 Z-0.125000
G01 X113.696283 Y124.547574 Z-0.125000
G01 X113.270633 Y125.378574 Z-0.125000
G01 X113.980033 Y124.998544 Z-0.125000
G01 X114.319533 Y125.026444 Z-0.125000
G01 X113.974963 Y125.713044 Z-0.125000
G01 X114.157393 Y125.880254 Z-0.125000
G01 X114.859183 Y125.593964 Z-0.125000
G01 X114.952883 Y125.854914 Z-0.125000
G01 X114.719793 Y126.379364 Z-0.125000
G01 X114.773093 Y126.652994 Z-0.125000
G01 X115.153123 Y126.675794 Z-0.125000
G01 X115.555963 Y126.696094 Z-0.125000
G01 X115.783993 Y126.850634 Z-0.125000
G01 X115.654783 Y127.248394 Z-0.125000
G01 X115.573683 Y127.600564 Z-0.125000
G01 X115.710503 Y127.808324 Z-0.125000
G01 X116.240013 Y127.785524 Z-0.125000
G01 X116.541503 Y127.912204 Z-0.125000
G01 X116.151333 Y128.413864 Z-0.125000
G01 X116.070233 Y128.735614 Z-0.125000
G01 X116.880953 Y128.616554 Z-0.125000
G01 X116.962053 Y128.864834 Z-0.125000
G01 X116.787243 Y129.224604 Z-0.125000
G01 X116.622553 Y129.566624 Z-0.125000
G01 X116.774573 Y129.774374 Z-0.125000
G01 X117.542233 Y129.754074 Z-0.125000
G01 X117.385153 Y130.088514 Z-0.125000
G01 X116.736563 Y130.572424 Z-0.125000
G01 X117.263543 Y130.663624 Z-0.125000
G01 X117.681583 Y130.805494 Z-0.125000
G01 X117.755083 Y131.053794 Z-0.125000
G01 X117.210383 Y131.454094 Z-0.125000
G01 X117.334533 Y131.679584 Z-0.125000
G01 X117.836163 Y131.829054 Z-0.125000
G01 X118.160463 Y132.031744 Z-0.125000
G01 X117.562533 Y132.396584 Z-0.125000
G01 X117.402923 Y132.670204 Z-0.125000
G01 X117.889373 Y132.855154 Z-0.125000
G01 X118.292213 Y133.067964 Z-0.125000
G01 X118.051523 Y133.351724 Z-0.125000
G01 X117.565083 Y133.643094 Z-0.125000
G01 X117.689213 Y133.883774 Z-0.125000
G01 X118.180723 Y134.116874 Z-0.125000
G01 X118.347943 Y134.370224 Z-0.125000
G01 X118.013513 Y134.628654 Z-0.125000
G01 X117.813363 Y134.876934 Z-0.125000
G01 X117.772863 Y135.125214 Z-0.125000
G01 X117.785563 Y135.376044 Z-0.125000
G01 X118.018663 Y135.647134 Z-0.125000
G01 X118.122503 Y135.913154 Z-0.125000
G01 X118.195903 Y136.181714 Z-0.125000
G01 X117.871603 Y136.397074 Z-0.125000
G01 X117.608113 Y136.612414 Z-0.125000
G01 X117.557413 Y136.855644 Z-0.125000
G01 X117.666303 Y137.129264 Z-0.125000
G01 X117.879113 Y137.433294 Z-0.125000
G01 X117.782913 Y137.673984 Z-0.125000
G01 X117.782913 Y137.940004 Z-0.125000
G01 X117.618243 Y138.160434 Z-0.125000
G01 X117.562543 Y138.408714 Z-0.125000
G01 X117.451083 Y138.641794 Z-0.125000
G01 X117.334573 Y138.869814 Z-0.125000
G01 X117.055873 Y139.037034 Z-0.125000
G01 X116.919063 Y139.252384 Z-0.125000
G01 X116.959563 Y139.538684 Z-0.125000
G01 X116.946863 Y139.804704 Z-0.125000
G01 X116.929163 Y140.075794 Z-0.125000
G01 X116.817703 Y140.301284 Z-0.125000
G01 X116.751803 Y140.554634 Z-0.125000
G01 X116.817703 Y140.876404 Z-0.125000
G01 X116.437653 Y140.962604 Z-0.125000
G01 X116.169103 Y141.101944 Z-0.125000
G01 X115.951223 Y141.264104 Z-0.125000
G01 X115.989223 Y141.578254 Z-0.125000
G01 X116.042523 Y141.912694 Z-0.125000
G01 X116.007123 Y142.196444 Z-0.125000
G01 X115.819633 Y142.381394 Z-0.125000
G01 X115.563743 Y142.513134 Z-0.125000
G01 X115.249593 Y142.591634 Z-0.125000
G01 X115.021563 Y142.733514 Z-0.125000
G01 X114.973463 Y143.014734 Z-0.125000
G01 X114.826523 Y143.219954 Z-0.125000
G01 X114.694773 Y143.437844 Z-0.125000
G01 X114.601073 Y143.696264 Z-0.125000
G01 X114.438933 Y143.893884 Z-0.125000
G01 X114.340133 Y144.154834 Z-0.125000
G01 X114.190653 Y144.367664 Z-0.125000
G01 X113.929703 Y144.466464 Z-0.125000
G01 X113.651003 Y144.537464 Z-0.125000
G01 X113.405253 Y144.638834 Z-0.125000
G01 X113.187373 Y144.768044 Z-0.125000
G01 X112.997353 Y144.930184 Z-0.125000
G01 X113.098733 Y145.469834 Z-0.125000
G01 X112.893503 Y145.631994 Z-0.125000
G01 X112.168903 Y145.059404 Z-0.125000
G01 X112.617343 Y146.143774 Z-0.125000
G01 X111.935823 Y145.588924 Z-0.125000
G01 X111.844623 Y145.908144 Z-0.125000
G01 X111.887723 Y146.465524 Z-0.125000
G01 X111.092193 Y145.614254 Z-0.125000
G01 X111.687563 Y147.179994 Z-0.125000
G01 X110.532273 Y145.581314 Z-0.125000
G01 X111.241663 Y147.501744 Z-0.125000
G01 X110.195313 Y145.961354 Z-0.125000
G01 X110.585473 Y147.377614 Z-0.125000
G01 X110.002743 Y146.701154 Z-0.125000
G01 X109.840613 Y146.959564 Z-0.125000
G01 X109.805213 Y147.557494 Z-0.125000
G01 X109.174353 Y146.612484 Z-0.125000
G01 X109.172353 Y147.332004 Z-0.125000
G01 X109.048213 Y147.765244 Z-0.125000
G01 X108.739113 Y147.646174 Z-0.125000
G01 X108.455363 Y147.592874 Z-0.125000
G01 X108.176663 Y147.524474 Z-0.125000
G01 X107.880243 Y147.380044 Z-0.125000
G01 X107.816843 Y148.203464 Z-0.125000
G01 X107.505223 Y147.988114 Z-0.125000
G01 X107.109983 Y147.291384 Z-0.125000
G01 X106.980783 Y147.967844 Z-0.125000
G01 X106.767953 Y148.264264 Z-0.125000
G01 X106.504463 Y148.233764 Z-0.125000
G01 X106.210563 Y147.929734 Z-0.125000
G01 X105.949613 Y147.838534 Z-0.125000
G01 X105.703863 Y147.901734 Z-0.125000
G01 X105.465713 Y148.096814 Z-0.125000
G01 X105.217413 Y148.226024 Z-0.125000
G01 X104.969123 Y148.471784 Z-0.125000
G01 X104.708173 Y148.324824 Z-0.125000
G01 X104.454813 Y148.215944 Z-0.125000
G01 X104.206523 Y148.043654 Z-0.125000
G01 X103.958233 Y147.982854 Z-0.125000
G01 X103.712473 Y147.909454 Z-0.125000
G01 X103.390723 Y148.699924 Z-0.125000
G01 X103.258973 Y147.476224 Z-0.125000
G01 X102.884013 Y148.499774 Z-0.125000
G01 X102.638253 Y148.365504 Z-0.125000
G01 X102.514103 Y147.544624 Z-0.125000
G01 X102.156883 Y148.122274 Z-0.125000
G01 X101.880713 Y148.190674 Z-0.125000
G01 X101.819913 Y147.286194 Z-0.125000
G01 X101.452553 Y147.770124 Z-0.125000
G01 X101.194123 Y147.757424 Z-0.125000
G01 X100.892630 Y147.891694 Z-0.125000
G01 X100.621540 Y147.906994 Z-0.125000
G01 X100.421387 Y147.678974 Z-0.125000
G01 X100.287115 Y147.286274 Z-0.125000
G01 X100.048963 Y147.215274 Z-0.125000
G01 X99.808269 Y147.141874 Z-0.125000
G01 X99.521977 Y147.184974 Z-0.125000
G01 X99.261021 Y147.149574 Z-0.125000
G01 X98.962059 Y147.197674 Z-0.125000
G01 X98.756843 Y147.032984 Z-0.125000
G01 X98.508556 Y146.954484 Z-0.125000
G01 X98.295737 Y146.812594 Z-0.125000
G01 X98.103190 Y146.632714 Z-0.125000
G01 X97.905567 Y146.465504 Z-0.125000
G01 X97.892927 Y145.989184 Z-0.125000
G01 X97.485024 Y146.181754 Z-0.125000
G01 X97.368481 Y145.895454 Z-0.125000
G01 X96.709762 Y146.430034 Z-0.125000
G01 X97.289941 Y145.137914 Z-0.125000
G01 X96.025696 Y146.478174 Z-0.125000
G01 X97.021383 Y144.704684 Z-0.125000
G01 X95.615264 Y146.120934 Z-0.125000
G01 X96.466540 Y144.643874 Z-0.125000
G01 X95.508850 Y145.406474 Z-0.125000
G01 X95.671004 Y144.823754 Z-0.125000
G01 X95.587404 Y144.542524 Z-0.125000
G01 X94.822270 Y144.993504 Z-0.125000
G01 X95.630474 Y143.787544 Z-0.125000
G01 X94.145807 Y144.914964 Z-0.125000
G01 X95.425259 Y143.326424 Z-0.125000
G01 X93.813915 Y144.484254 Z-0.125000
G01 X94.875472 Y143.187074 Z-0.125000
G01 X93.836714 Y143.754594 Z-0.125000
G01 X94.057136 Y143.235214 Z-0.125000
G01 X94.057136 Y142.915994 Z-0.125000
G01 X93.195729 Y143.260554 Z-0.125000
G01 X94.216753 Y142.186324 Z-0.125000
G01 X92.552198 Y143.065464 Z-0.125000
G01 X94.077408 Y141.704954 Z-0.125000
G01 X92.306448 Y142.576484 Z-0.125000
G01 X93.545356 Y141.484524 Z-0.125000
G01 X92.458462 Y141.854414 Z-0.125000
G01 X92.724482 Y141.400914 Z-0.125000
G01 X92.815652 Y141.063954 Z-0.125000
G01 X91.873168 Y141.279314 Z-0.125000
G01 X93.084212 Y140.374834 Z-0.125000
G01 X91.282848 Y140.977824 Z-0.125000
G01 X93.010738 Y139.885844 Z-0.125000
G01 X91.135901 Y140.448304 Z-0.125000
G01 X92.511625 Y139.584354 Z-0.125000
G01 X91.414600 Y139.756634 Z-0.125000
G01 X91.708486 Y139.368994 Z-0.125000
G01 X91.895968 Y139.037104 Z-0.125000
G01 X90.892679 Y139.108104 Z-0.125000
G01 X92.265876 Y138.403774 Z-0.125000
G01 X90.373304 Y138.707794 Z-0.125000
G01 X92.258273 Y137.912254 Z-0.125000
G01 X90.330234 Y138.158014 Z-0.125000
G01 X91.799694 Y137.537294 Z-0.125000
G01 X90.727997 Y137.521994 Z-0.125000
G01 X91.037099 Y137.195174 Z-0.125000
G01 X91.320855 Y136.888604 Z-0.125000
G01 X90.282097 Y136.802404 Z-0.125000
G01 X91.779432 Y136.326104 Z-0.125000
G01 X89.846318 Y136.321104 Z-0.125000
G01 X91.837701 Y135.844794 Z-0.125000
G01 X89.909660 Y135.768794 Z-0.125000
G01 X91.432334 Y135.398884 Z-0.125000
G01 X90.416376 Y135.206334 Z-0.125000
G01 X90.730533 Y134.937784 Z-0.125000
G01 X91.105497 Y134.679364 Z-0.125000
G01 X90.054071 Y134.426004 Z-0.125000
G01 X91.640077 Y134.200514 Z-0.125000
G01 X89.717114 Y133.878764 Z-0.125000
G01 X91.759161 Y133.734344 Z-0.125000
G01 X89.886861 Y133.346704 Z-0.125000
G01 X91.417127 Y133.227624 Z-0.125000
G01 X90.487312 Y132.875464 Z-0.125000
G01 X90.796405 Y132.655044 Z-0.125000
G01 X91.252446 Y132.467564 Z-0.125000
G01 X90.218754 Y132.039384 Z-0.125000
G01 X91.845304 Y132.079884 Z-0.125000
G01 X89.988200 Y131.449024 Z-0.125000
G01 X92.025182 Y131.636504 Z-0.125000
G01 X90.256759 Y130.954974 Z-0.125000
G01 X91.265114 Y130.944374 Z-0.125000
G01 X91.645153 Y130.792354 Z-0.125000
G01 X91.379122 Y130.455404 Z-0.125000
G01 X91.173906 Y130.123494 Z-0.125000
G01 X91.108026 Y129.827074 Z-0.125000
G01 X91.769282 Y129.794074 Z-0.125000
G01 X91.893431 Y129.576194 Z-0.125000
G01 X91.166294 Y129.011204 Z-0.125000
G01 X92.189854 Y129.163214 Z-0.125000
G01 X91.553935 Y128.605834 Z-0.125000
G01 X91.695808 Y128.385414 Z-0.125000
G01 X92.227861 Y128.360114 Z-0.125000
G01 X92.574959 Y128.258734 Z-0.125000
G01 X92.377337 Y127.871104 Z-0.125000
G01 X92.281067 Y127.526544 Z-0.125000
G01 X92.281067 Y127.227574 Z-0.125000
G01 X92.876452 Y127.290974 Z-0.125000
G01 X92.985392 Y127.062944 Z-0.125000
G01 X93.175411 Y126.890664 Z-0.125000
G01 X93.122171 Y126.551174 Z-0.125000
G01 X93.043651 Y126.181264 Z-0.125000
G01 X93.167791 Y125.953244 Z-0.125000
G01 X93.563025 Y125.930444 Z-0.125000
G01 X93.943064 Y125.912744 Z-0.125000
G01 X94.046936 Y125.677114 Z-0.125000
G01 X94.019066 Y125.322414 Z-0.125000
G01 X93.948116 Y124.919574 Z-0.125000
G01 X94.171066 Y124.772634 Z-0.125000
G01 X94.609372 Y124.838534 Z-0.125000
G01 X95.017276 Y124.889234 Z-0.125000
G01 X94.915938 Y124.430674 Z-0.125000
G01 X94.961518 Y124.111424 Z-0.125000
G01 X94.996948 Y123.766874 Z-0.125000
G01 X95.551800 Y124.010094 Z-0.125000
G01 X95.871033 Y123.999494 Z-0.125000
G01 X95.860823 Y123.596654 Z-0.125000
G01 X95.810173 Y123.120354 Z-0.125000
G01 X96.050858 Y123.008884 Z-0.125000
G01 X96.486627 Y123.173574 Z-0.125000
G01 X96.859063 Y123.267274 Z-0.125000
G01 X96.696918 Y122.583224 Z-0.125000
G01 X96.813461 Y122.286784 Z-0.125000
G01 X97.251768 Y122.502144 Z-0.125000
G01 X97.619128 Y122.626294 Z-0.125000
G01 X97.801545 Y122.441344 Z-0.125000
G01 X97.801545 Y121.924494 Z-0.125000
G01 X97.943427 Y121.640744 Z-0.125000
G01 X98.394402 Y121.959964 Z-0.125000
G01 X98.741500 Y122.104374 Z-0.125000
G01 X98.802300 Y121.643264 Z-0.125000
G01 X98.847880 Y121.113764 Z-0.125000
G01 X99.235513 Y121.367124 Z-0.125000
G01 X99.706760 Y121.871304 Z-0.125000
G01 X99.618090 Y120.936404 Z-0.125000
G01 X99.868915 Y120.865404 Z-0.125000
G01 X100.398428 Y121.640664 Z-0.125000
G01 X100.304678 Y120.523364 Z-0.125000
G01 X100.844337 Y121.435444 Z-0.125000
G01 X100.702450 Y119.988784 Z-0.125000
G01 X101.424503 Y121.744544 Z-0.125000
G01 X101.186353 Y119.705024 Z-0.125000
G01 X101.860293 Y121.531714 Z-0.125000
G01 X101.781793 Y119.915314 Z-0.125000
G01 X102.230223 Y120.908464 Z-0.125000
G01 X102.407583 Y120.467614 Z-0.125000
G01 X102.615323 Y120.120534 Z-0.125000
G01 X102.992823 Y121.057934 Z-0.125000
G01 X103.071323 Y119.497274 Z-0.125000
G01 X103.507103 Y121.361974 Z-0.125000
G01 X103.595803 Y119.309794 Z-0.125000
G01 X103.968243 Y121.204894 Z-0.125000
G01 X104.150653 Y119.623944 Z-0.125000
G01 X104.434413 Y120.639904 Z-0.125000
G01 X104.680173 Y120.275074 Z-0.125000
G01 X104.941123 Y119.920364 Z-0.125000
G01 X105.164073 Y120.946474 Z-0.125000
G01 X105.488373 Y119.388334 Z-0.125000
G01 X105.622663 Y121.316364 Z-0.125000
G01 X106.038163 Y119.304724 Z-0.125000
G01 X106.103963 Y121.220094 Z-0.125000
G01 X106.532133 Y119.715154 Z-0.125000
G01 X106.656283 Y120.723514 Z-0.125000
G01 X106.950183 Y120.449884 Z-0.125000
G01 X107.271933 Y120.095204 Z-0.125000
G01 X107.363133 Y120.974344 Z-0.125000
G01 X107.796363 Y120.125604 Z-0.125000
G01 X107.887563 Y120.883124 Z-0.125000
G01 X108.227063 Y120.553764 Z-0.125000
G01 X108.498153 Y120.528364 Z-0.125000
G01 X108.538653 Y121.303634 Z-0.125000
G01 X109.004843 Y120.632234 Z-0.125000
G01 X109.286063 Y120.599234 Z-0.125000
G01 X109.197363 Y121.635464 Z-0.125000
G01 X109.655943 Y121.098364 Z-0.125000
G01 X110.030913 Y120.832324 Z-0.125000
G01 X110.213323 Y121.073014 Z-0.125000
G01 X110.302023 Y121.516394 Z-0.125000
G01 X110.426173 Y121.850814 Z-0.125000
G01 X111.003823 Y121.207304 Z-0.125000
G01 X111.186233 Y121.425184 Z-0.125000
G01 X111.067153 Y122.215654 Z-0.125000
G01 X111.459863 Y122.005374 Z-0.125000
G01 X112.002053 Y121.554394 Z-0.125000
G01 X111.948753 Y122.162444 Z-0.125000
G01 X111.900653 Y122.727434 Z-0.125000
G01 X112.531513 Y122.190314 Z-0.125000
G01 X112.822863 Y122.218214 Z-0.125000
G01 X112.691113 Y122.869354 Z-0.125000
G01 X112.797533 Y123.148034 Z-0.125000
G01 X113.316903 Y122.861744 Z-0.125000
G01 X113.669083 Y122.823744 Z-0.125000
G01 X113.740083 Y123.150564 Z-0.125000
G01 X113.841453 Y123.431794 Z-0.125000
G01 X113.917453 Y123.733284 Z-0.125000
G01 X114.026343 Y123.986644 Z-0.125000
G01 X114.419043 Y123.925844 Z-0.125000
G01 X114.821883 Y123.867544 Z-0.125000
G01 X114.940943 Y124.115834 Z-0.125000
G01 X114.940943 Y124.475604 Z-0.125000
G01 X114.872543 Y124.891094 Z-0.125000
G01 X115.196833 Y124.926494 Z-0.125000
G01 X115.571803 Y124.928494 Z-0.125000
G01 X115.870763 Y125.009594 Z-0.125000
G01 X116.012653 Y125.224934 Z-0.125000
G01 X115.893573 Y125.648044 Z-0.125000
G01 X115.901573 Y125.959664 Z-0.125000
G01 X116.167613 Y126.071134 Z-0.125000
G01 X116.491893 Y126.147134 Z-0.125000
G01 X116.950463 Y126.139134 Z-0.125000
G01 X116.897163 Y126.488764 Z-0.125000
G01 X116.729943 Y126.896664 Z-0.125000
G01 X116.828743 Y127.129754 Z-0.125000
G01 X117.044103 Y127.291904 Z-0.125000
G01 X117.639493 Y127.246404 Z-0.125000
G01 X117.604093 Y127.560574 Z-0.125000
G01 X117.599093 Y127.851934 Z-0.125000
G01 X117.396423 Y128.237034 Z-0.125000
G01 X117.512933 Y128.457454 Z-0.125000
G01 X118.070313 Y128.477754 Z-0.125000
G01 X118.272993 Y128.667774 Z-0.125000
G01 X118.237593 Y128.964194 Z-0.125000
G01 X118.037443 Y129.316364 Z-0.125000
G01 X118.133743 Y129.549454 Z-0.125000
G01 X118.118543 Y129.818004 Z-0.125000
G01 X118.572043 Y129.932054 Z-0.125000
G01 X118.670843 Y130.167674 Z-0.125000
G01 X118.812733 Y130.393154 Z-0.125000
G01 X118.804733 Y130.661714 Z-0.125000
G01 X118.652723 Y130.963204 Z-0.125000
G01 X118.660723 Y131.221634 Z-0.125000
G01 X118.612623 Y131.487654 Z-0.125000
G01 X118.891303 Y131.685274 Z-0.125000
G01 X119.109193 Y131.903164 Z-0.125000
G01 X119.332143 Y132.123574 Z-0.125000
G01 X119.233343 Y132.399744 Z-0.125000
G01 X118.992643 Y132.691094 Z-0.125000
G01 X118.997643 Y132.941924 Z-0.125000
G01 X118.916543 Y133.200344 Z-0.125000
G01 X119.098963 Y133.435964 Z-0.125000
G01 X119.514463 Y133.663984 Z-0.125000
G01 X119.506463 Y133.924934 Z-0.125000
G01 X119.367103 Y134.185904 Z-0.125000
G01 X119.032673 Y134.441784 Z-0.125000
G01 X118.992173 Y134.692614 Z-0.125000
G01 X119.098593 Y134.943444 Z-0.125000
G01 X119.344343 Y135.206914 Z-0.125000
G01 X119.524233 Y135.472934 Z-0.125000
G01 X119.443133 Y135.726304 Z-0.125000
G01 X119.215113 Y135.961924 Z-0.125000
G01 X118.913623 Y136.182354 Z-0.125000
G01 X118.885823 Y136.428094 Z-0.125000
G01 X119.065693 Y136.706794 Z-0.125000
G01 X119.389993 Y137.018414 Z-0.125000
G01 X119.255713 Y137.256574 Z-0.125000
G01 X119.126493 Y137.492184 Z-0.125000
G01 X118.890873 Y137.699944 Z-0.125000
G01 X118.723653 Y137.920364 Z-0.125000
G01 X118.715653 Y138.176254 Z-0.125000
G01 X118.626953 Y138.411874 Z-0.125000
G01 X118.682653 Y138.690564 Z-0.125000
G01 X118.697953 Y138.961654 Z-0.125000
G01 X118.601753 Y139.197274 Z-0.125000
G01 X118.614453 Y139.470904 Z-0.125000
G01 X118.404173 Y139.665984 Z-0.125000
G01 X118.421873 Y139.944684 Z-0.125000
G01 X118.386473 Y140.205634 Z-0.125000
G01 X118.160993 Y140.388044 Z-0.125000
G01 X118.006433 Y140.595804 Z-0.125000
G01 X117.844293 Y140.798494 Z-0.125000
G01 X117.704943 Y141.011314 Z-0.125000
G01 X117.616243 Y141.246924 Z-0.125000
G01 X117.479433 Y141.459744 Z-0.125000
G01 X117.393333 Y141.700424 Z-0.125000
G01 X117.352833 Y141.968994 Z-0.125000
G01 X117.464293 Y142.331294 Z-0.125000
G01 X117.289483 Y142.528904 Z-0.125000
G01 X117.023463 Y142.660654 Z-0.125000
G01 X116.795443 Y142.812664 Z-0.125000
G01 X116.531963 Y142.936814 Z-0.125000
G01 X116.359673 Y143.119224 Z-0.125000
G01 X116.263473 Y143.362454 Z-0.125000
G01 X116.233073 Y143.656354 Z-0.125000
G01 X116.192573 Y143.950234 Z-0.125000
G01 X116.098873 Y144.206124 Z-0.125000
G01 X115.873383 Y144.353074 Z-0.125000
G01 X115.582023 Y144.434174 Z-0.125000
G01 X115.326133 Y144.540594 Z-0.125000
G01 X115.072783 Y144.644424 Z-0.125000
G01 X114.953693 Y144.877524 Z-0.125000
G01 X115.093043 Y145.384234 Z-0.125000
G01 X114.915703 Y145.574254 Z-0.125000
G01 X114.193633 Y145.153684 Z-0.125000
G01 X114.452063 Y145.830134 Z-0.125000
G01 X114.259503 Y145.997354 Z-0.125000
G01 X113.623583 Y145.617314 Z-0.125000
G01 X114.244303 Y146.810624 Z-0.125000
G01 X112.969933 Y145.561594 Z-0.125000
G01 X113.960543 Y147.330014 Z-0.125000
G01 X112.594953 Y145.850414 Z-0.125000
G01 X113.377823 Y147.436414 Z-0.125000
G01 X112.460673 Y146.514204 Z-0.125000
G01 X112.605093 Y147.205864 Z-0.125000
G01 X112.412543 Y147.380674 Z-0.125000
G01 X111.819683 Y146.871424 Z-0.125000
G01 X112.265583 Y148.176214 Z-0.125000
G01 X111.188833 Y146.724484 Z-0.125000
G01 X111.898233 Y148.632264 Z-0.125000
G01 X110.780933 Y146.967704 Z-0.125000
G01 X111.300303 Y148.634794 Z-0.125000
G01 X110.550363 Y147.613764 Z-0.125000
G01 X110.570663 Y148.280104 Z-0.125000
G01 X110.370513 Y148.465044 Z-0.125000
G01 X110.205843 Y148.753874 Z-0.125000
G01 X109.863803 Y148.581594 Z-0.125000
G01 X109.357103 Y147.905124 Z-0.125000
G01 X109.577513 Y149.339124 Z-0.125000
G01 X109.022663 Y148.462514 Z-0.125000
G01 X108.903583 Y148.936294 Z-0.125000
G01 X108.619833 Y148.867894 Z-0.125000
G01 X108.424743 Y149.136444 Z-0.125000
G01 X107.994043 Y148.434654 Z-0.125000
G01 X108.057443 Y149.853444 Z-0.125000
G01 X107.434183 Y148.128084 Z-0.125000
G01 X107.570993 Y150.165074 Z-0.125000
G01 X106.978153 Y148.264904 Z-0.125000
G01 X106.995853 Y149.980124 Z-0.125000
G01 X106.572753 Y148.814674 Z-0.125000
G01 X106.453673 Y149.919324 Z-0.125000
G01 X106.060973 Y148.622144 Z-0.125000
G01 X105.941893 Y150.134674 Z-0.125000
G01 X105.584663 Y148.713344 Z-0.125000
G01 X105.376903 Y149.445544 Z-0.125000
G01 X105.136223 Y149.947194 Z-0.125000
G01 X104.860053 Y148.766544 Z-0.125000
G01 X104.611773 Y149.916784 Z-0.125000
G01 X104.366023 Y149.146584 Z-0.125000
G01 X104.115203 Y149.207384 Z-0.125000
G01 X103.821303 Y150.035864 Z-0.125000
G01 X103.626213 Y149.073104 Z-0.125000
G01 X103.380473 Y149.027604 Z-0.125000
G01 X103.081513 Y149.514054 Z-0.125000
G01 X102.805343 Y149.655944 Z-0.125000
G01 X102.678673 Y148.708374 Z-0.125000
G01 X102.283433 Y149.648344 Z-0.125000
G01 X102.057953 Y149.432984 Z-0.125000
G01 X101.926203 Y148.766654 Z-0.125000
G01 X101.637373 Y148.944014 Z-0.125000
G01 X101.211733 Y149.683794 Z-0.125000
G01 X101.307933 Y148.194074 Z-0.125000
G01 X100.585877 Y149.985294 Z-0.125000
G01 X100.856968 Y148.031924 Z-0.125000
G01 X100.152636 Y149.546994 Z-0.125000
G01 X100.243806 Y148.389154 Z-0.125000
G01 X99.853646 Y148.774254 Z-0.125000
G01 X99.536949 Y148.906004 Z-0.125000
G01 X99.612979 Y147.971124 Z-0.125000
G01 X99.177210 Y148.414494 Z-0.125000
G01 X98.713567 Y148.867994 Z-0.125000
G01 X98.776867 Y148.067394 Z-0.125000
G01 X98.566576 Y147.928054 Z-0.125000
G01 X98.295489 Y147.917454 Z-0.125000
G01 X97.991463 Y147.965654 Z-0.125000
G01 X97.581021 Y148.203814 Z-0.125000
G01 X97.527781 Y147.755364 Z-0.125000
G01 X97.532581 Y147.230924 Z-0.125000
G01 X97.147486 Y147.403204 Z-0.125000
G01 X96.706642 Y147.641354 Z-0.125000
G01 X96.511557 Y147.464004 Z-0.125000
G01 X96.866258 Y146.455644 Z-0.125000
G01 X95.759092 Y147.654024 Z-0.125000
G01 X96.450751 Y146.209894 Z-0.125000
G01 X95.591873 Y146.977564 Z-0.125000
G01 X95.832567 Y146.227634 Z-0.125000
G01 X95.280252 Y146.531664 Z-0.125000
G01 X95.543736 Y145.799454 Z-0.125000
G01 X95.148500 Y145.890754 Z-0.125000
G01 X94.824211 Y145.882754 Z-0.125000
G01 X94.479641 Y145.887754 Z-0.125000
G01 X94.809005 Y145.155564 Z-0.125000
G01 X93.676502 Y145.984034 Z-0.125000
G01 X94.758340 Y144.514574 Z-0.125000
G01 X93.141922 Y145.758544 Z-0.125000
G01 X94.396036 Y144.205484 Z-0.125000
G01 X92.972174 Y145.180894 Z-0.125000
G01 X93.704376 Y144.182674 Z-0.125000
G01 X93.101388 Y144.372694 Z-0.125000
G01 X92.835366 Y144.261224 Z-0.125000
G01 X93.314206 Y143.551824 Z-0.125000
G01 X92.039830 Y144.220694 Z-0.125000
G01 X93.347147 Y142.920964 Z-0.125000
G01 X91.558452 Y143.909064 Z-0.125000
G01 X93.022848 Y142.568814 Z-0.125000
G01 X91.490044 Y143.303544 Z-0.125000
G01 X92.333717 Y142.447204 Z-0.125000
G01 X91.745934 Y142.520704 Z-0.125000
G01 X91.459641 Y142.394034 Z-0.125000
G01 X92.075299 Y141.745434 Z-0.125000
G01 X90.689442 Y142.229344 Z-0.125000
G01 X92.194372 Y141.132314 Z-0.125000
G01 X90.271397 Y141.841714 Z-0.125000
G01 X91.913145 Y140.744684 Z-0.125000
G01 X90.309404 Y141.228584 Z-0.125000
G01 X91.239219 Y140.524254 Z-0.125000
G01 X90.684377 Y140.491254 Z-0.125000
G01 X90.380350 Y140.339244 Z-0.125000
G01 X91.125212 Y139.774254 Z-0.125000
G01 X89.650684 Y140.058024 Z-0.125000
G01 X91.322834 Y139.191544 Z-0.125000
G01 X89.313718 Y139.604514 Z-0.125000
G01 X91.087205 Y138.770964 Z-0.125000
G01 X89.455600 Y138.998994 Z-0.125000
G01 X90.443683 Y138.454264 Z-0.125000
G01 X89.944570 Y138.327594 Z-0.125000
G01 X89.622810 Y138.142654 Z-0.125000
G01 X90.481688 Y137.686614 Z-0.125000
G01 X88.951422 Y137.752514 Z-0.125000
G01 X90.750248 Y137.141914 Z-0.125000
G01 X88.700597 Y137.250804 Z-0.125000
G01 X90.565294 Y136.693424 Z-0.125000
G01 X88.946347 Y136.673124 Z-0.125000
G01 X89.964843 Y136.285504 Z-0.125000
G01 X89.536668 Y136.080274 Z-0.125000
G01 X89.199709 Y135.854784 Z-0.125000
G01 X90.157390 Y135.527964 Z-0.125000
G01 X88.604323 Y135.365814 Z-0.125000
G01 X90.491820 Y135.031394 Z-0.125000
G01 X88.447235 Y134.833764 Z-0.125000
G01 X90.360077 Y134.560134 Z-0.125000
G01 X88.789268 Y134.296664 Z-0.125000
G01 X89.817894 Y134.066104 Z-0.125000
G01 X89.468268 Y133.800074 Z-0.125000
G01 X89.123697 Y133.523914 Z-0.125000
G01 X90.159928 Y133.349094 Z-0.125000
G01 X88.619520 Y132.953854 Z-0.125000
G01 X90.550098 Y132.905754 Z-0.125000
G01 X88.558715 Y132.404114 Z-0.125000
G01 X90.474086 Y132.416814 Z-0.125000
G01 X88.991956 Y131.927824 Z-0.125000
G01 X90.002848 Y131.846724 Z-0.125000
G01 X89.739355 Y131.540174 Z-0.125000
G01 X89.397322 Y131.208274 Z-0.125000
G01 X90.486755 Y131.195574 Z-0.125000
G01 X88.994483 Y130.569784 Z-0.125000
G01 X90.925061 Y130.812994 Z-0.125000
G01 X89.029961 Y130.019994 Z-0.125000
G01 X90.907327 Y130.313884 Z-0.125000
G01 X89.584803 Y129.632364 Z-0.125000
G01 X90.061116 Y129.518314 Z-0.125000
G01 X90.613431 Y129.444814 Z-0.125000
G01 X90.349947 Y129.079984 Z-0.125000
G01 X90.631164 Y128.920364 Z-0.125000
G01 X90.714764 Y128.682224 Z-0.125000
G01 X90.134574 Y128.152714 Z-0.125000
G01 X90.818631 Y128.178014 Z-0.125000
G01 X91.322818 Y128.140014 Z-0.125000
G01 X90.732497 Y127.572504 Z-0.125000
G01 X90.760367 Y127.296324 Z-0.125000
G01 X91.320284 Y127.304324 Z-0.125000
G01 X91.421622 Y127.071244 Z-0.125000
G01 X91.654713 Y126.916684 Z-0.125000
G01 X91.690143 Y126.645604 Z-0.125000
G01 X91.768663 Y126.399854 Z-0.125000
G01 X91.707853 Y126.057814 Z-0.125000
G01 X91.738303 Y125.768994 Z-0.125000
G01 X91.986590 Y125.629654 Z-0.125000
G01 X92.331161 Y125.561254 Z-0.125000
G01 X92.683325 Y125.510554 Z-0.125000
G01 X92.688125 Y125.201454 Z-0.125000
G01 X92.394229 Y124.641544 Z-0.125000
G01 X92.680522 Y124.542744 Z-0.125000
G01 X93.298718 Y124.735294 Z-0.125000
G01 X93.445657 Y124.535144 Z-0.125000
G01 X93.326582 Y124.089234 Z-0.125000
G01 X93.268272 Y123.681334 Z-0.125000
G01 X93.610296 Y123.653534 Z-0.125000
G01 X94.058743 Y123.744734 Z-0.125000
G01 X94.296890 Y123.633264 Z-0.125000
G01 X94.190483 Y123.151884 Z-0.125000
G01 X94.256363 Y122.842794 Z-0.125000
G01 X94.476786 Y122.703454 Z-0.125000
G01 X95.077236 Y123.022674 Z-0.125000
G01 X95.196309 Y122.776924 Z-0.125000
G01 X95.102559 Y122.252474 Z-0.125000
G01 X95.155799 Y121.897774 Z-0.125000
G01 X95.652374 Y122.135934 Z-0.125000
G01 X95.979210 Y122.163834 Z-0.125000
G01 X96.151485 Y121.976354 Z-0.125000
G01 X96.174275 Y121.553254 Z-0.125000
G01 X96.247725 Y121.190944 Z-0.125000
G01 X97.147138 Y122.171434 Z-0.125000
G01 X96.645488 Y120.846384 Z-0.125000
G01 X97.537298 Y121.897814 Z-0.125000
G01 X96.820301 Y120.076184 Z-0.125000
G01 X97.998413 Y121.748334 Z-0.125000
G01 X97.365021 Y119.957104 Z-0.125000
G01 X98.251766 Y121.183354 Z-0.125000
G01 X98.082019 Y120.233264 Z-0.125000
G01 X98.416449 Y120.352334 Z-0.125000
G01 X98.826880 Y120.671574 Z-0.125000
G01 X98.639399 Y119.541604 Z-0.125000
G01 X99.467875 Y120.965464 Z-0.125000
G01 X99.021965 Y119.045024 Z-0.125000
G01 X99.939112 Y120.871714 Z-0.125000
G01 X99.581883 Y119.022224 Z-0.125000
G01 X100.271011 Y120.339674 Z-0.125000
G01 X100.253291 Y119.412394 Z-0.125000
G01 X100.554779 Y119.536524 Z-0.125000
G01 X100.924673 Y119.954574 Z-0.125000
G01 X100.894283 Y118.771394 Z-0.125000
G01 X101.512483 Y120.329534 Z-0.125000
G01 X101.350333 Y118.353364 Z-0.125000
G01 X101.991333 Y120.289014 Z-0.125000
G01 X101.910233 Y118.426834 Z-0.125000
G01 X102.394153 Y119.797484 Z-0.125000
G01 X102.518283 Y118.918344 Z-0.125000
G01 X102.791913 Y119.039954 Z-0.125000
G01 X103.103543 Y119.554264 Z-0.125000
G01 X103.242883 Y118.340694 Z-0.125000
G01 X103.627993 Y120.000184 Z-0.125000
G01 X103.754663 Y118.008804 Z-0.125000
G01 X104.104293 Y120.012844 Z-0.125000
G01 X104.299373 Y118.178554 Z-0.125000
G01 X104.575533 Y119.574534 Z-0.125000
G01 X104.828893 Y118.763794 Z-0.125000
G01 X105.082263 Y118.877834 Z-0.125000
G01 X105.312813 Y119.475754 Z-0.125000
G01 X105.629503 Y118.259644 Z-0.125000
G01 X105.768853 Y119.982464 Z-0.125000
G01 X106.186883 Y118.018964 Z-0.125000
G01 X106.237583 Y120.050874 Z-0.125000
G01 X106.698683 Y118.284984 Z-0.125000
G01 X106.772183 Y119.670834 Z-0.125000
G01 X107.131953 Y118.948774 Z-0.125000
G01 X107.375173 Y119.055194 Z-0.125000
G01 X107.506913 Y119.721524 Z-0.125000
G01 X108.006023 Y118.530754 Z-0.125000
G01 X107.886943 Y120.276374 Z-0.125000
G01 X108.588743 Y118.386334 Z-0.125000
G01 X108.345513 Y120.397984 Z-0.125000
G01 X109.052383 Y118.738494 Z-0.125000
G01 X108.930783 Y120.088894 Z-0.125000
G01 X109.381753 Y119.465624 Z-0.125000
G01 X109.619893 Y119.564424 Z-0.125000
G01 X109.640193 Y120.283954 Z-0.125000
G01 X110.319193 Y119.143854 Z-0.125000
G01 X109.936623 Y120.876804 Z-0.125000
G01 X110.909513 Y119.100784 Z-0.125000
G01 X110.379993 Y121.049094 Z-0.125000
G01 X111.312343 Y119.531494 Z-0.125000
G01 X111.010853 Y120.816004 Z-0.125000
G01 X111.527703 Y120.306764 Z-0.125000
G01 X111.770923 Y120.395464 Z-0.125000
G01 X111.667083 Y121.150464 Z-0.125000
G01 X112.520893 Y120.088914 Z-0.125000
G01 X111.879903 Y121.768654 Z-0.125000
G01 X113.103603 Y120.147184 Z-0.125000
G01 X112.300483 Y121.989084 Z-0.125000
G01 X113.430453 Y120.641224 Z-0.125000
G01 X112.938933 Y121.882674 Z-0.125000
G01 X113.564723 Y121.391154 Z-0.125000
G01 X113.739543 Y121.588774 Z-0.125000
G01 X113.597653 Y122.222164 Z-0.125000
G01 X113.959953 Y122.148764 Z-0.125000
G01 X114.646553 Y121.669924 Z-0.125000
G01 X114.063843 Y122.820144 Z-0.125000
G01 X114.775753 Y122.341314 Z-0.125000
G01 X114.988573 Y122.485724 Z-0.125000
G01 X114.666813 Y123.235654 Z-0.125000
G01 X115.300203 Y122.903754 Z-0.125000
G01 X115.665043 Y122.888454 Z-0.125000
G01 X115.761343 Y123.159554 Z-0.125000
G01 X115.639723 Y123.643454 Z-0.125000
G01 X115.738523 Y123.894284 Z-0.125000
G01 X116.247773 Y123.757464 Z-0.125000
G01 X116.617683 Y123.768064 Z-0.125000
G01 X116.635383 Y124.094904 Z-0.125000
G01 X116.637383 Y124.429334 Z-0.125000
G01 X116.541183 Y124.834694 Z-0.125000
G01 X116.868003 Y124.892994 Z-0.125000
G01 X117.334193 Y124.849894 Z-0.125000
G01 X117.585003 Y124.984164 Z-0.125000
G01 X117.514003 Y125.354074 Z-0.125000
G01 X117.367043 Y125.764514 Z-0.125000
G01 X117.539333 Y125.949444 Z-0.125000
G01 X117.894033 Y126.015344 Z-0.125000
G01 X118.253803 Y126.088844 Z-0.125000
G01 X118.393143 Y126.306724 Z-0.125000
G01 X118.388143 Y126.605694 Z-0.125000
G01 X118.132243 Y127.041454 Z-0.125000
G01 X118.319733 Y127.221344 Z-0.125000
G01 X118.699763 Y127.304844 Z-0.125000
G01 X119.079813 Y127.398544 Z-0.125000
G01 X119.125313 Y127.664564 Z-0.125000
G01 X118.904883 Y128.047134 Z-0.125000
G01 X118.808683 Y128.363824 Z-0.125000
G01 X119.094983 Y128.513304 Z-0.125000
G01 X119.477553 Y128.629814 Z-0.125000
G01 X119.789173 Y128.786894 Z-0.125000
G01 X119.518083 Y129.159324 Z-0.125000
G01 X119.201393 Y129.536834 Z-0.125000
G01 X119.505423 Y129.696444 Z-0.125000
G01 X120.057733 Y129.787644 Z-0.125000
G01 X120.151433 Y130.030864 Z-0.125000
G01 X119.862613 Y130.377964 Z-0.125000
G01 X119.687803 Y130.684524 Z-0.125000
G01 X119.852473 Y130.899884 Z-0.125000
G01 X120.151433 Y131.087364 Z-0.125000
G01 X120.592273 Y131.257104 Z-0.125000
G01 X120.374393 Y131.563674 Z-0.125000
G01 X120.012083 Y131.885424 Z-0.125000
G01 X119.996883 Y132.141324 Z-0.125000
G01 X120.250233 Y132.356674 Z-0.125000
G01 X120.594793 Y132.566964 Z-0.125000
G01 X120.592793 Y132.825384 Z-0.125000
G01 X120.656193 Y133.076204 Z-0.125000
G01 X120.283763 Y133.362494 Z-0.125000
G01 X120.263463 Y133.613324 Z-0.125000
G01 X120.293963 Y133.864134 Z-0.125000
G01 X120.608123 Y134.104824 Z-0.125000
G01 X120.780403 Y134.358184 Z-0.125000
G01 X120.772403 Y134.614074 Z-0.125000
G01 X120.425313 Y134.864904 Z-0.125000
G01 X120.273293 Y135.110644 Z-0.125000
G01 X120.296093 Y135.361474 Z-0.125000
G01 X120.513983 Y135.627494 Z-0.125000
G01 X120.683723 Y135.896054 Z-0.125000
G01 X120.699023 Y136.154484 Z-0.125000
G01 X120.595183 Y136.402764 Z-0.125000
G01 X120.397583 Y136.633314 Z-0.125000
G01 X120.083413 Y136.843604 Z-0.125000
G01 X120.134113 Y137.102024 Z-0.125000
G01 X120.250623 Y137.378194 Z-0.125000
G01 X120.329123 Y137.651824 Z-0.125000
G01 X120.496343 Y137.948244 Z-0.125000
G01 X120.344333 Y138.176264 Z-0.125000
G01 X120.174593 Y138.399214 Z-0.125000
G01 X120.007373 Y138.617104 Z-0.125000
G01 X119.961773 Y138.865384 Z-0.125000
G01 X119.731203 Y139.063004 Z-0.125000
G01 X119.665303 Y139.303694 Z-0.125000
G01 X119.654703 Y139.564654 Z-0.125000
G01 X119.690103 Y139.843344 Z-0.125000
G01 X119.864913 Y140.177764 Z-0.125000
G01 X119.768613 Y140.418474 Z-0.125000
G01 X119.487383 Y140.580604 Z-0.125000
G01 X119.289783 Y140.773154 Z-0.125000
G01 X119.226383 Y141.021434 Z-0.125000
G01 X119.064233 Y141.226674 Z-0.125000
G01 X118.919823 Y141.434414 Z-0.125000
G01 X118.823623 Y141.667504 Z-0.125000
G01 X118.694403 Y141.885384 Z-0.125000
G01 X118.631003 Y142.138744 Z-0.125000
G01 X118.577703 Y142.397164 Z-0.125000
G01 X118.537203 Y142.665724 Z-0.125000
G01 X118.443503 Y142.908944 Z-0.125000
G01 X118.377603 Y143.169904 Z-0.125000
G01 X118.124253 Y143.311784 Z-0.125000
G01 X117.807553 Y143.405484 Z-0.125000
G01 X117.516203 Y143.506854 Z-0.125000
G01 X117.498503 Y143.800754 Z-0.125000
G01 X117.498503 Y144.112374 Z-0.125000
G01 X117.470603 Y144.411344 Z-0.125000
G01 X117.359143 Y144.649494 Z-0.125000
G01 X117.126053 Y144.791374 Z-0.125000
G01 X116.735883 Y144.796374 Z-0.125000
G01 X116.419183 Y144.849674 Z-0.125000
G01 X117.088053 Y145.792154 Z-0.125000
G01 X115.793393 Y144.943404 Z-0.125000
G01 X116.548403 Y146.010044 Z-0.125000
G01 X115.902343 Y145.733884 Z-0.125000
G01 X115.694593 Y145.878304 Z-0.125000
G01 X116.026483 Y146.595294 Z-0.125000
G01 X114.926913 Y145.776954 Z-0.125000
G01 X115.935283 Y147.284414 Z-0.125000
G01 X114.425273 Y145.931494 Z-0.125000
G01 X115.514713 Y147.621384 Z-0.125000
G01 X114.230193 Y146.448344 Z-0.125000
G01 X114.807843 Y147.583384 Z-0.125000
G01 X114.232733 Y147.254014 Z-0.125000
G01 X113.979373 Y147.332514 Z-0.125000
G01 X114.230193 Y148.122984 Z-0.125000
G01 X113.237043 Y147.129834 Z-0.125000
G01 X114.035103 Y148.781704 Z-0.125000
G01 X112.727793 Y147.223574 Z-0.125000
G01 X113.563873 Y149.040124 Z-0.125000
G01 X112.471893 Y147.720154 Z-0.125000
G01 X112.862063 Y148.893194 Z-0.125000
G01 X112.362953 Y148.523274 Z-0.125000
G01 X112.076663 Y148.525274 Z-0.125000
G01 X112.233743 Y149.381634 Z-0.125000
G01 X111.377403 Y148.226334 Z-0.125000
G01 X111.942393 Y149.994744 Z-0.125000
G01 X110.865613 Y148.261804 Z-0.125000
G01 X111.430603 Y150.169554 Z-0.125000
G01 X110.546403 Y148.730504 Z-0.125000
G01 X110.754153 Y149.913674 Z-0.125000
G01 X110.325983 Y149.518434 Z-0.125000
G01 X110.029553 Y149.434934 Z-0.125000
G01 X110.077653 Y150.344494 Z-0.125000
G01 X109.380943 Y149.049834 Z-0.125000
G01 X109.697623 Y150.896804 Z-0.125000
G01 X109.203583 Y150.159544 Z-0.125000
G01 X108.775413 Y149.566684 Z-0.125000
G01 X108.922353 Y151.124824 Z-0.125000
G01 X108.230693 Y149.394414 Z-0.125000
G01 X108.311793 Y150.856254 Z-0.125000
G01 X107.881083 Y150.078464 Z-0.125000
G01 X107.668273 Y150.293814 Z-0.125000
G01 X107.516263 Y150.876534 Z-0.125000
G01 X107.075413 Y149.751634 Z-0.125000
G01 X107.070413 Y151.456724 Z-0.125000
G01 X106.561163 Y149.536274 Z-0.125000
G01 X106.545863 Y151.578344 Z-0.125000
G01 X106.107553 Y149.789634 Z-0.125000
G01 X105.978343 Y151.216024 Z-0.125000
G01 X105.666713 Y150.425564 Z-0.125000
G01 X105.420963 Y150.562384 Z-0.125000
G01 X105.187863 Y151.162834 Z-0.125000
G01 X104.909183 Y149.949254 Z-0.125000
G01 X104.668493 Y151.661934 Z-0.125000
G01 X104.430343 Y149.678164 Z-0.125000
G01 X104.128833 Y151.694874 Z-0.125000
G01 X103.946423 Y149.883374 Z-0.125000
G01 X103.619603 Y151.241374 Z-0.125000
G01 X103.419453 Y150.458494 Z-0.125000
G01 X103.163553 Y150.514194 Z-0.125000
G01 X102.844333 Y151.117174 Z-0.125000
G01 X102.740493 Y149.842794 Z-0.125000
G01 X102.256583 Y151.527614 Z-0.125000
G01 X102.304683 Y149.521034 Z-0.125000
G01 X101.724503 Y151.469344 Z-0.125000
G01 X101.792903 Y149.670504 Z-0.125000
G01 X101.283673 Y150.937294 Z-0.125000
G01 X101.187473 Y150.174684 Z-0.125000
G01 X100.936640 Y150.149384 Z-0.125000
G01 X100.523663 Y150.744784 Z-0.125000
G01 X100.612363 Y149.432394 Z-0.125000
G01 X99.890297 Y151.056404 Z-0.125000
G01 X100.219662 Y149.067554 Z-0.125000
G01 X99.707881 Y149.878304 Z-0.125000
G01 X99.462132 Y149.817504 Z-0.125000
G01 X99.198638 Y149.802204 Z-0.125000
G01 X98.955417 Y149.733804 Z-0.125000
G01 X98.643787 Y149.832604 Z-0.125000
G01 X98.430967 Y149.675524 Z-0.125000
G01 X98.504417 Y148.862254 Z-0.125000
G01 X97.751951 Y149.944074 Z-0.125000
G01 X97.820321 Y149.173874 Z-0.125000
G01 X97.336404 Y149.591914 Z-0.125000
G01 X97.668307 Y148.360604 Z-0.125000
G01 X96.647283 Y149.781924 Z-0.125000
G01 X97.346545 Y147.945094 Z-0.125000
