%
(Header)
(Generated by gcodetools from Inkscape.)
(Using default header. To add your own header create file "header" in the output dir.)
M3
(Header end.)
G21 (All units in mm)

(Start cutting path id: path500)
(Change tool to Default tool)

G00 Z3.000000
G00 X17.103408 Y56.413856

G00 Z4.875000 (Fast pre-penetrate)
G01 Z-0.125000 F400.0(Penetrate)
G01 X39.748680 Y54.935224 Z-0.125000 F800.000000
G01 X61.151415 Y54.699128 Z-0.125000
G01 X82.356457 Y54.660727 Z-0.125000
G01 X105.059189 Y53.124635 Z-0.125000
G01 X128.339490 Y51.010974 Z-0.125000
G01 X151.297042 Y49.220062 Z-0.125000
G01 X173.063769 Y48.619974 Z-0.125000
G00 Z3.000000

(End cutting path id: path500)


(Start cutting path id: path448)
(Change tool to Default tool)

G00 Z3.000000
G00 X21.626004 Y73.057900

G00 Z4.875000 (Fast pre-penetrate)
G01 Z-0.125000 F400.0(Penetrate)
G01 X41.671632 Y74.178912 Z-0.125000 F800.000000
G01 X61.007823 Y76.009360 Z-0.125000
G01 X81.766992 Y76.416831 Z-0.125000
G01 X105.320737 Y74.029726 Z-0.125000
G01 X129.229772 Y71.287332 Z-0.125000
G01 X151.420475 Y70.263268 Z-0.125000
G01 X172.632510 Y70.217874 Z-0.125000
G00 Z3.000000

(End cutting path id: path448)


(Start cutting path id: path406)
(Change tool to Default tool)

G00 Z3.000000
G00 X23.465726 Y88.314309

G00 Z4.875000 (Fast pre-penetrate)
G01 Z-0.125000 F400.0(Penetrate)
G01 X42.376362 Y90.570313 Z-0.125000 F800.000000
G01 X60.813326 Y93.299989 Z-0.125000
G01 X81.408075 Y93.871882 Z-0.125000
G01 X105.816470 Y90.630127 Z-0.125000
G01 X130.203554 Y87.409683 Z-0.125000
G01 X151.246205 Y87.533670 Z-0.125000
G01 X171.721503 Y88.225012 Z-0.125000
G00 Z3.000000

(End cutting path id: path406)


(Start cutting path id: path396)
(Change tool to Default tool)

G00 Z3.000000
G00 X23.903756 Y91.946787

G00 Z4.875000 (Fast pre-penetrate)
G01 Z-0.125000 F400.0(Penetrate)
G01 X42.544155 Y94.473028 Z-0.125000 F800.000000
G01 X60.767018 Y97.416805 Z-0.125000
G01 X81.322617 Y98.027846 Z-0.125000
G01 X105.934501 Y94.582603 Z-0.125000
G01 X130.435405 Y91.248338 Z-0.125000
G01 X151.204713 Y91.645671 Z-0.125000
G01 X171.504598 Y92.512426 Z-0.125000
G00 Z3.000000

(End cutting path id: path396)


(Start cutting path id: path392)
(Change tool to Default tool)

G00 Z3.000000
G00 X23.914692 Y93.564056

G00 Z4.875000 (Fast pre-penetrate)
G01 Z-0.125000 F400.0(Penetrate)
G01 X42.590343 Y96.055041 Z-0.125000 F800.000000
G01 X60.867147 Y98.944880 Z-0.125000
G01 X81.433763 Y99.544904 Z-0.125000
G01 X105.936726 Y96.208582 Z-0.125000
G01 X130.346328 Y92.965620 Z-0.125000
G01 X151.158093 Y93.320494 Z-0.125000
G01 X171.498642 Y94.146586 Z-0.125000
G00 Z3.000000

(End cutting path id: path392)


(Start cutting path id: path388)
(Change tool to Default tool)

G00 Z3.000000
G00 X23.925627 Y95.181325

G00 Z4.875000 (Fast pre-penetrate)
G01 Z-0.125000 F400.0(Penetrate)
G01 X42.636532 Y97.637057 Z-0.125000 F800.000000
G01 X60.967273 Y100.472956 Z-0.125000
G01 X81.544907 Y101.061963 Z-0.125000
G01 X105.938951 Y97.834558 Z-0.125000
G01 X130.257248 Y94.682901 Z-0.125000
G01 X151.111474 Y94.995318 Z-0.125000
G01 X171.492686 Y95.780743 Z-0.125000
G00 Z3.000000

(End cutting path id: path388)


(Start cutting path id: path384)
(Change tool to Default tool)

G00 Z3.000000
G00 X23.936562 Y96.798591

G00 Z4.875000 (Fast pre-penetrate)
G01 Z-0.125000 F400.0(Penetrate)
G01 X42.682723 Y99.219070 Z-0.125000 F800.000000
G01 X61.067402 Y102.001031 Z-0.125000
G01 X81.656050 Y102.579021 Z-0.125000
G01 X105.941176 Y99.460537 Z-0.125000
G01 X130.168168 Y96.400185 Z-0.125000
G01 X151.064852 Y96.670141 Z-0.125000
G01 X171.486733 Y97.414900 Z-0.125000
G00 Z3.000000

(End cutting path id: path384)


(Start cutting path id: path380)
(Change tool to Default tool)

G00 Z3.000000
G00 X23.947495 Y98.415860

G00 Z4.875000 (Fast pre-penetrate)
G01 Z-0.125000 F400.0(Penetrate)
G01 X42.728911 Y100.801086 Z-0.125000 F800.000000
G01 X61.167528 Y103.529106 Z-0.125000
G01 X81.767196 Y104.096081 Z-0.125000
G01 X105.943401 Y101.086513 Z-0.125000
G01 X130.079091 Y98.117466 Z-0.125000
G01 X151.018232 Y98.344965 Z-0.125000
G01 X171.480777 Y99.049057 Z-0.125000
G00 Z3.000000

(End cutting path id: path380)


(Start cutting path id: path376)
(Change tool to Default tool)

G00 Z3.000000
G00 X23.958430 Y100.033129

G00 Z4.875000 (Fast pre-penetrate)
G01 Z-0.125000 F400.0(Penetrate)
G01 X42.775099 Y102.383100 Z-0.125000 F800.000000
G01 X61.267657 Y105.057182 Z-0.125000
G01 X81.878339 Y105.613139 Z-0.125000
G01 X105.945627 Y102.712492 Z-0.125000
G01 X129.990011 Y99.834747 Z-0.125000
G01 X150.971610 Y100.019789 Z-0.125000
G01 X171.474821 Y100.683217 Z-0.125000
G00 Z3.000000

(End cutting path id: path376)


(Start cutting path id: path372)
(Change tool to Default tool)

G00 Z3.000000
G00 X23.969365 Y101.650398

G00 Z4.875000 (Fast pre-penetrate)
G01 Z-0.125000 F400.0(Penetrate)
G01 X42.821287 Y103.965115 Z-0.125000 F800.000000
G01 X61.367783 Y106.585257 Z-0.125000
G01 X81.989485 Y107.130197 Z-0.125000
G01 X105.947852 Y104.338468 Z-0.125000
G01 X129.900932 Y101.552028 Z-0.125000
G01 X150.924991 Y101.694612 Z-0.125000
G01 X171.468868 Y102.317374 Z-0.125000
G00 Z3.000000

(End cutting path id: path372)


(Start cutting path id: path368)
(Change tool to Default tool)

G00 Z3.000000
G00 X23.980300 Y103.267664

G00 Z4.875000 (Fast pre-penetrate)
G01 Z-0.125000 F400.0(Penetrate)
G01 X42.867476 Y105.547129 Z-0.125000 F800.000000
G01 X61.467912 Y108.113332 Z-0.125000
G01 X82.100629 Y108.647256 Z-0.125000
G01 X105.950079 Y105.964447 Z-0.125000
G01 X129.811855 Y103.269312 Z-0.125000
G01 X150.878371 Y103.369436 Z-0.125000
G01 X171.462913 Y103.951532 Z-0.125000
G00 Z3.000000

(End cutting path id: path368)


(Start cutting path id: path364)
(Change tool to Default tool)

G00 Z3.000000
G00 X23.991235 Y104.884933

G00 Z4.875000 (Fast pre-penetrate)
G01 Z-0.125000 F400.0(Penetrate)
G01 X42.913664 Y107.129144 Z-0.125000 F800.000000
G01 X61.568038 Y109.641408 Z-0.125000
G01 X82.211772 Y110.164316 Z-0.125000
G01 X105.952305 Y107.590424 Z-0.125000
G01 X129.722775 Y104.986594 Z-0.125000
G01 X150.831749 Y105.044259 Z-0.125000
G01 X171.456957 Y105.585689 Z-0.125000
G00 Z3.000000

(End cutting path id: path364)


(Start cutting path id: path360)
(Change tool to Default tool)

G00 Z3.000000
G00 X24.002171 Y106.502202

G00 Z4.875000 (Fast pre-penetrate)
G01 Z-0.125000 F400.0(Penetrate)
G01 X42.959852 Y108.711158 Z-0.125000 F800.000000
G01 X61.668167 Y111.169483 Z-0.125000
G01 X82.322918 Y111.681374 Z-0.125000
G01 X105.954530 Y109.216403 Z-0.125000
G01 X129.633695 Y106.703875 Z-0.125000
G01 X150.785129 Y106.719088 Z-0.125000
G01 X171.451004 Y107.219854 Z-0.125000
G00 Z3.000000

(End cutting path id: path360)


(Start cutting path id: path356)
(Change tool to Default tool)

G00 Z3.000000
G00 X24.013103 Y108.119471

G00 Z4.875000 (Fast pre-penetrate)
G01 Z-0.125000 F400.0(Penetrate)
G01 X43.006040 Y110.293173 Z-0.125000 F800.000000
G01 X61.768296 Y112.697561 Z-0.125000
G01 X82.434062 Y113.198432 Z-0.125000
G01 X105.956755 Y110.842379 Z-0.125000
G01 X129.544618 Y108.421159 Z-0.125000
G01 X150.738510 Y108.393904 Z-0.125000
G01 X171.445048 Y108.854006 Z-0.125000
G00 Z3.000000

(End cutting path id: path356)


(Start cutting path id: path352)
(Change tool to Default tool)

G00 Z3.000000
G00 X24.024038 Y109.736737

G00 Z4.875000 (Fast pre-penetrate)
G01 Z-0.125000 F400.0(Penetrate)
G01 X43.052229 Y111.875187 Z-0.125000 F800.000000
G01 X61.868422 Y114.225636 Z-0.125000
G01 X82.545205 Y114.715490 Z-0.125000
G01 X105.958980 Y112.468358 Z-0.125000
G01 X129.455538 Y110.138440 Z-0.125000
G01 X150.691888 Y110.068728 Z-0.125000
G01 X171.439092 Y110.488163 Z-0.125000
G00 Z3.000000

(End cutting path id: path352)


(Start cutting path id: path348)
(Change tool to Default tool)

G00 Z3.000000
G00 X24.034974 Y111.354006

G00 Z4.875000 (Fast pre-penetrate)
G01 Z-0.125000 F400.0(Penetrate)
G01 X43.098417 Y113.457202 Z-0.125000 F800.000000
G01 X61.968551 Y115.753711 Z-0.125000
G01 X82.656351 Y116.232551 Z-0.125000
G01 X105.961205 Y114.094337 Z-0.125000
G01 X129.366458 Y111.855721 Z-0.125000
G01 X150.645268 Y111.743551 Z-0.125000
G01 X171.433139 Y112.122323 Z-0.125000
G00 Z3.000000

(End cutting path id: path348)


(Start cutting path id: path342)
(Change tool to Default tool)

G00 Z3.000000
G00 X24.055831 Y113.775453

G00 Z4.875000 (Fast pre-penetrate)
G01 Z-0.125000 F400.0(Penetrate)
G01 X43.208015 Y115.789909 Z-0.125000 F800.000000
G01 X62.198648 Y117.965916 Z-0.125000
G01 X82.910120 Y118.421084 Z-0.125000
G01 X105.978348 Y116.519497 Z-0.125000
G01 X129.164026 Y114.500461 Z-0.125000
G01 X150.490572 Y114.340555 Z-0.125000
G01 X171.346525 Y114.651242 Z-0.125000
G00 Z3.000000

(End cutting path id: path342)


(Start cutting path id: path336)
(Change tool to Default tool)

G00 Z3.000000
G00 X24.085596 Y116.187993

G00 Z4.875000 (Fast pre-penetrate)
G01 Z-0.125000 F400.0(Penetrate)
G01 X43.398242 Y118.041987 Z-0.125000 F800.000000
G01 X62.588561 Y120.018311 Z-0.125000
G01 X83.337996 Y120.435513 Z-0.125000
G01 X106.023102 Y118.917047 Z-0.125000
G01 X128.823960 Y117.282829 Z-0.125000
G01 X150.166338 Y117.107091 Z-0.125000
G01 X171.104545 Y117.335526 Z-0.125000
G00 Z3.000000

(End cutting path id: path336)


(Start cutting path id: path328)
(Change tool to Default tool)

G00 Z3.000000
G00 X24.125286 Y119.404711

G00 Z4.875000 (Fast pre-penetrate)
G01 Z-0.125000 F400.0(Penetrate)
G01 X43.651880 Y121.044755 Z-0.125000 F800.000000
G01 X63.108443 Y122.754832 Z-0.125000
G01 X83.908498 Y123.121417 Z-0.125000
G01 X106.082776 Y122.113781 Z-0.125000
G01 X128.370541 Y120.992656 Z-0.125000
G01 X149.734031 Y120.795806 Z-0.125000
G01 X170.781905 Y120.914570 Z-0.125000
G00 Z3.000000

(End cutting path id: path328)


(Start cutting path id: path320)
(Change tool to Default tool)

G00 Z3.000000
G00 X24.164974 Y122.621426

G00 Z4.875000 (Fast pre-penetrate)
G01 Z-0.125000 F400.0(Penetrate)
G01 X43.905517 Y124.047523 Z-0.125000 F800.000000
G01 X63.628325 Y125.491355 Z-0.125000
G01 X84.479000 Y125.807323 Z-0.125000
G01 X106.142447 Y125.310513 Z-0.125000
G01 X127.917120 Y124.702480 Z-0.125000
G01 X149.301724 Y124.484519 Z-0.125000
G01 X170.459267 Y124.493621 Z-0.125000
G00 Z3.000000

(End cutting path id: path320)


(Start cutting path id: path310)
(Change tool to Default tool)

G00 Z3.000000
G00 X24.214586 Y126.642323

G00 Z4.875000 (Fast pre-penetrate)
G01 Z-0.125000 F400.0(Penetrate)
G01 X44.222564 Y127.800985 Z-0.125000 F800.000000
G01 X64.278180 Y128.912011 Z-0.125000
G01 X85.192128 Y129.164701 Z-0.125000
G01 X106.217038 Y129.306431 Z-0.125000
G01 X127.350346 Y129.339763 Z-0.125000
G01 X148.761337 Y129.095412 Z-0.125000
G01 X170.055969 Y128.967423 Z-0.125000
G00 Z3.000000

(End cutting path id: path310)


(Start cutting path id: path300)
(Change tool to Default tool)

G00 Z3.000000
G00 X24.264195 Y130.663220

G00 Z4.875000 (Fast pre-penetrate)
G01 Z-0.125000 F400.0(Penetrate)
G01 X44.539611 Y131.554447 Z-0.125000 F800.000000
G01 X64.928033 Y132.332665 Z-0.125000
G01 X85.905253 Y132.522082 Z-0.125000
G01 X106.291630 Y133.302348 Z-0.125000
G01 X126.783572 Y133.977046 Z-0.125000
G01 X148.220952 Y133.706306 Z-0.125000
G01 X169.652670 Y133.441228 Z-0.125000
G00 Z3.000000

(End cutting path id: path300)


(Start cutting path id: path286)
(Change tool to Default tool)

G00 Z3.000000
G00 X24.352637 Y136.273491

G00 Z4.875000 (Fast pre-penetrate)
G01 Z-0.125000 F400.0(Penetrate)
G01 X44.963941 Y136.828827 Z-0.125000 F800.000000
G01 X65.751434 Y137.207974 Z-0.125000
G01 X86.801284 Y137.324764 Z-0.125000
G01 X106.462389 Y138.830299 Z-0.125000
G01 X126.095180 Y140.364148 Z-0.125000
G01 X147.270710 Y140.355258 Z-0.125000
G01 X168.721370 Y140.071239 Z-0.125000
G00 Z3.000000

(End cutting path id: path286)


(Start cutting path id: path270)
(Change tool to Default tool)

G00 Z3.000000
G00 X24.482645 Y142.656297

G00 Z4.875000 (Fast pre-penetrate)
G01 Z-0.125000 F400.0(Penetrate)
G01 X45.419122 Y142.886457 Z-0.125000 F800.000000
G01 X66.560820 Y142.911408 Z-0.125000
G01 X87.669357 Y142.969513 Z-0.125000
G01 X106.758616 Y145.046891 Z-0.125000
G01 X125.468587 Y147.503563 Z-0.125000
G01 X145.889553 Y148.249237 Z-0.125000
G01 X167.098275 Y148.207153 Z-0.125000
G00 Z3.000000

(End cutting path id: path270)


(Start cutting path id: path248)
(Change tool to Default tool)

G00 Z3.000000
G00 X24.661406 Y151.432652

G00 Z4.875000 (Fast pre-penetrate)
G01 Z-0.125000 F400.0(Penetrate)
G01 X46.044998 Y151.215700 Z-0.125000 F800.000000
G01 X67.673725 Y150.753613 Z-0.125000
G01 X88.862957 Y150.731018 Z-0.125000
G01 X107.165931 Y153.594684 Z-0.125000
G01 X124.607020 Y157.320235 Z-0.125000
G01 X143.990461 Y159.103435 Z-0.125000
G01 X164.866520 Y159.394013 Z-0.125000
G00 Z3.000000

(End cutting path id: path248)


(Start cutting path id: path220)
(Change tool to Default tool)

G00 Z3.000000
G00 X24.928621 Y162.562860

G00 Z4.875000 (Fast pre-penetrate)
G01 Z-0.125000 F400.0(Penetrate)
G01 X46.571463 Y162.086656 Z-0.125000 F800.000000
G01 X68.700505 Y161.124254 Z-0.125000
G01 X89.983882 Y161.007517 Z-0.125000
G01 X107.550272 Y164.607767 Z-0.125000
G01 X123.820910 Y169.503769 Z-0.125000
G01 X142.205893 Y172.285425 Z-0.125000
G01 X162.741389 Y172.916570 Z-0.125000
G00 Z3.000000

(End cutting path id: path220)


(Start cutting path id: path188)
(Change tool to Default tool)

G00 Z3.000000
G00 X25.252159 Y175.264945

G00 Z4.875000 (Fast pre-penetrate)
G01 Z-0.125000 F400.0(Penetrate)
G01 X47.049657 Y174.634086 Z-0.125000 F800.000000
G01 X69.695845 Y173.154538 Z-0.125000
G01 X91.082904 Y172.934119 Z-0.125000
G01 X107.928234 Y177.255429 Z-0.125000
G01 X123.064406 Y183.285898 Z-0.125000
G01 X140.455510 Y187.061433 Z-0.125000
G01 X160.639653 Y188.043931 Z-0.125000
G00 Z3.000000

(End cutting path id: path188)


(Start cutting path id: path162)
(Change tool to Default tool)

G00 Z3.000000
G00 X25.066456 Y186.033968

G00 Z4.875000 (Fast pre-penetrate)
G01 Z-0.125000 F400.0(Penetrate)
G01 X47.037193 Y185.229871 Z-0.125000 F800.000000
G01 X69.517003 Y183.916700 Z-0.125000
G01 X90.815170 Y183.785174 Z-0.125000
G01 X107.648615 Y188.118368 Z-0.125000
G01 X122.704732 Y194.228892 Z-0.125000
G01 X139.905035 Y198.195229 Z-0.125000
G01 X159.997759 Y199.269145 Z-0.125000
G00 Z3.000000

(End cutting path id: path162)


(Start cutting path id: path136)
(Change tool to Default tool)

G00 Z3.000000
G00 X24.880756 Y196.802988

G00 Z4.875000 (Fast pre-penetrate)
G01 Z-0.125000 F400.0(Penetrate)
G01 X47.024725 Y195.825658 Z-0.125000 F800.000000
G01 X69.338163 Y194.678860 Z-0.125000
G01 X90.547436 Y194.636228 Z-0.125000
G01 X107.368993 Y198.981310 Z-0.125000
G01 X122.345060 Y205.171883 Z-0.125000
G01 X139.354559 Y209.329025 Z-0.125000
G01 X159.355862 Y210.494362 Z-0.125000
G00 Z3.000000

(End cutting path id: path136)


(Start cutting path id: path138)
(Change tool to Default tool)

G00 Z3.000000
G00 X24.895040 Y195.974602

G00 Z4.875000 (Fast pre-penetrate)
G01 Z-0.125000 F400.0(Penetrate)
G01 X47.025683 Y195.010597 Z-0.125000 F800.000000
G01 X69.351919 Y193.851001 Z-0.125000
G01 X90.568031 Y193.801532 Z-0.125000
G01 X107.390501 Y198.145699 Z-0.125000
G01 X122.372728 Y204.330115 Z-0.125000
G01 X139.396903 Y208.472580 Z-0.125000
G01 X159.405238 Y209.630882 Z-0.125000
G00 Z3.000000

(End cutting path id: path138)


(Start cutting path id: path140)
(Change tool to Default tool)

G00 Z3.000000
G00 X24.909325 Y195.146217

G00 Z4.875000 (Fast pre-penetrate)
G01 Z-0.125000 F400.0(Penetrate)
G01 X47.026644 Y194.195538 Z-0.125000 F800.000000
G01 X69.365677 Y193.023145 Z-0.125000
G01 X90.588626 Y192.966836 Z-0.125000
G01 X107.412012 Y197.310090 Z-0.125000
G01 X122.400395 Y203.488344 Z-0.125000
G01 X139.439247 Y207.616133 Z-0.125000
G01 X159.454617 Y208.767405 Z-0.125000
G00 Z3.000000

(End cutting path id: path140)


(Start cutting path id: path142)
(Change tool to Default tool)

G00 Z3.000000
G00 X24.923610 Y194.317829

G00 Z4.875000 (Fast pre-penetrate)
G01 Z-0.125000 F400.0(Penetrate)
G01 X47.027601 Y193.380477 Z-0.125000 F800.000000
G01 X69.379433 Y192.195286 Z-0.125000
G01 X90.609221 Y192.132138 Z-0.125000
G01 X107.433520 Y196.474479 Z-0.125000
G01 X122.428063 Y202.646576 Z-0.125000
G01 X139.481591 Y206.759688 Z-0.125000
G01 X159.503994 Y207.903928 Z-0.125000
G00 Z3.000000

(End cutting path id: path142)


(Start cutting path id: path144)
(Change tool to Default tool)

G00 Z3.000000
G00 X24.937895 Y193.489443

G00 Z4.875000 (Fast pre-penetrate)
G01 Z-0.125000 F400.0(Penetrate)
G01 X47.028562 Y192.565416 Z-0.125000 F800.000000
G01 X69.393191 Y191.367427 Z-0.125000
G01 X90.629816 Y191.297442 Z-0.125000
G01 X107.455030 Y195.638868 Z-0.125000
G01 X122.455730 Y201.804808 Z-0.125000
G01 X139.523934 Y205.903241 Z-0.125000
G01 X159.553370 Y207.040448 Z-0.125000
G00 Z3.000000

(End cutting path id: path144)


(Start cutting path id: path146)
(Change tool to Default tool)

G00 Z3.000000
G00 X24.952180 Y192.661058

G00 Z4.875000 (Fast pre-penetrate)
G01 Z-0.125000 F400.0(Penetrate)
G01 X47.029520 Y191.750355 Z-0.125000 F800.000000
G01 X69.406947 Y190.539568 Z-0.125000
G01 X90.650411 Y190.462746 Z-0.125000
G01 X107.476538 Y194.803256 Z-0.125000
G01 X122.483398 Y200.963040 Z-0.125000
G01 X139.566278 Y205.046796 Z-0.125000
G01 X159.602747 Y206.176970 Z-0.125000
G00 Z3.000000

(End cutting path id: path146)


(Start cutting path id: path148)
(Change tool to Default tool)

G00 Z3.000000
G00 X24.966465 Y191.832672

G00 Z4.875000 (Fast pre-penetrate)
G01 Z-0.125000 F400.0(Penetrate)
G01 X47.030477 Y190.935296 Z-0.125000 F800.000000
G01 X69.420705 Y189.711708 Z-0.125000
G01 X90.671007 Y189.628050 Z-0.125000
G01 X107.498049 Y193.967645 Z-0.125000
G01 X122.511062 Y200.121272 Z-0.125000
G01 X139.608625 Y204.190352 Z-0.125000
G01 X159.652123 Y205.313493 Z-0.125000
G00 Z3.000000

(End cutting path id: path148)


(Start cutting path id: path150)
(Change tool to Default tool)

G00 Z3.000000
G00 X24.980749 Y191.004284

G00 Z4.875000 (Fast pre-penetrate)
G01 Z-0.125000 F400.0(Penetrate)
G01 X47.031438 Y190.120235 Z-0.125000 F800.000000
G01 X69.434461 Y188.883849 Z-0.125000
G01 X90.691599 Y188.793351 Z-0.125000
G01 X107.519557 Y193.132034 Z-0.125000
G01 X122.538730 Y199.279503 Z-0.125000
G01 X139.650969 Y203.333904 Z-0.125000
G01 X159.701500 Y204.450013 Z-0.125000
G00 Z3.000000

(End cutting path id: path150)


(Start cutting path id: path152)
(Change tool to Default tool)

G00 Z3.000000
G00 X24.995034 Y190.175898

G00 Z4.875000 (Fast pre-penetrate)
G01 Z-0.125000 F400.0(Penetrate)
G01 X47.032396 Y189.305174 Z-0.125000 F800.000000
G01 X69.448219 Y188.055993 Z-0.125000
G01 X90.712194 Y187.958656 Z-0.125000
G01 X107.541067 Y192.296425 Z-0.125000
G01 X122.566397 Y198.437733 Z-0.125000
G01 X139.693313 Y202.477460 Z-0.125000
G01 X159.750876 Y203.586536 Z-0.125000
G00 Z3.000000

(End cutting path id: path152)


(Start cutting path id: path154)
(Change tool to Default tool)

G00 Z3.000000
G00 X25.009319 Y189.347513

G00 Z4.875000 (Fast pre-penetrate)
G01 Z-0.125000 F400.0(Penetrate)
G01 X47.033356 Y188.490113 Z-0.125000 F800.000000
G01 X69.461975 Y187.228134 Z-0.125000
G01 X90.732789 Y187.123960 Z-0.125000
G01 X107.562575 Y191.460814 Z-0.125000
G01 X122.594065 Y197.595964 Z-0.125000
G01 X139.735656 Y201.621013 Z-0.125000
G01 X159.800253 Y202.723059 Z-0.125000
G00 Z3.000000

(End cutting path id: path154)


(Start cutting path id: path156)
(Change tool to Default tool)

G00 Z3.000000
G00 X25.023604 Y188.519124

G00 Z4.875000 (Fast pre-penetrate)
G01 Z-0.125000 F400.0(Penetrate)
G01 X47.034314 Y187.675054 Z-0.125000 F800.000000
G01 X69.475733 Y186.400275 Z-0.125000
G01 X90.753384 Y186.289264 Z-0.125000
G01 X107.584086 Y190.625202 Z-0.125000
G01 X122.621732 Y196.754196 Z-0.125000
G01 X139.778000 Y200.764568 Z-0.125000
G01 X159.849629 Y201.859579 Z-0.125000
G00 Z3.000000

(End cutting path id: path156)


(Start cutting path id: path158)
(Change tool to Default tool)

G00 Z3.000000
G00 X25.037886 Y187.690739

G00 Z4.875000 (Fast pre-penetrate)
G01 Z-0.125000 F400.0(Penetrate)
G01 X47.035274 Y186.859993 Z-0.125000 F800.000000
G01 X69.489489 Y185.572416 Z-0.125000
G01 X90.773980 Y185.454565 Z-0.125000
G01 X107.605594 Y189.789591 Z-0.125000
G01 X122.649400 Y195.912428 Z-0.125000
G01 X139.820344 Y199.908121 Z-0.125000
G01 X159.899006 Y200.996102 Z-0.125000
G00 Z3.000000

(End cutting path id: path158)


(Start cutting path id: path160)
(Change tool to Default tool)

G00 Z3.000000
G00 X25.052171 Y186.862353

G00 Z4.875000 (Fast pre-penetrate)
G01 Z-0.125000 F400.0(Penetrate)
G01 X47.036232 Y186.044932 Z-0.125000 F800.000000
G01 X69.503247 Y184.744557 Z-0.125000
G01 X90.794575 Y184.619869 Z-0.125000
G01 X107.627104 Y188.953980 Z-0.125000
G01 X122.677067 Y195.070660 Z-0.125000
G01 X139.862691 Y199.051676 Z-0.125000
G01 X159.948382 Y200.132625 Z-0.125000
G00 Z3.000000

(End cutting path id: path160)


(Start cutting path id: path164)
(Change tool to Default tool)

G00 Z3.000000
G00 X25.080741 Y185.205580

G00 Z4.875000 (Fast pre-penetrate)
G01 Z-0.125000 F400.0(Penetrate)
G01 X47.038150 Y184.414812 Z-0.125000 F800.000000
G01 X69.530761 Y183.088841 Z-0.125000
G01 X90.835765 Y182.950478 Z-0.125000
G01 X107.670123 Y187.282760 Z-0.125000
G01 X122.732399 Y193.387121 Z-0.125000
G01 X139.947378 Y197.338784 Z-0.125000
G01 X160.047135 Y198.405668 Z-0.125000
G00 Z3.000000

(End cutting path id: path164)


(Start cutting path id: path166)
(Change tool to Default tool)

G00 Z3.000000
G00 X25.095025 Y184.377194

G00 Z4.875000 (Fast pre-penetrate)
G01 Z-0.125000 F400.0(Penetrate)
G01 X47.039108 Y183.599751 Z-0.125000 F800.000000
G01 X69.544517 Y182.260982 Z-0.125000
G01 X90.856360 Y182.115782 Z-0.125000
G01 X107.691634 Y186.447148 Z-0.125000
G01 X122.760067 Y192.545353 Z-0.125000
G01 X139.989722 Y196.482337 Z-0.125000
G01 X160.096512 Y197.542191 Z-0.125000
G00 Z3.000000

(End cutting path id: path166)


(Start cutting path id: path168)
(Change tool to Default tool)

G00 Z3.000000
G00 X25.109310 Y183.548808

G00 Z4.875000 (Fast pre-penetrate)
G01 Z-0.125000 F400.0(Penetrate)
G01 X47.040069 Y182.784690 Z-0.125000 F800.000000
G01 X69.558275 Y181.433123 Z-0.125000
G01 X90.876955 Y181.281083 Z-0.125000
G01 X107.713142 Y185.611537 Z-0.125000
G01 X122.787734 Y191.703585 Z-0.125000
G01 X140.032066 Y195.625893 Z-0.125000
G01 X160.145888 Y196.678711 Z-0.125000
G00 Z3.000000

(End cutting path id: path168)


(Start cutting path id: path170)
(Change tool to Default tool)

G00 Z3.000000
G00 X25.123595 Y182.720420

G00 Z4.875000 (Fast pre-penetrate)
G01 Z-0.125000 F400.0(Penetrate)
G01 X47.041026 Y181.969629 Z-0.125000 F800.000000
G01 X69.572034 Y180.605264 Z-0.125000
G01 X90.897550 Y180.446388 Z-0.125000
G01 X107.734652 Y184.775926 Z-0.125000
G01 X122.815402 Y190.861816 Z-0.125000
G01 X140.074410 Y194.769445 Z-0.125000
G01 X160.195264 Y195.815233 Z-0.125000
G00 Z3.000000

(End cutting path id: path170)


(Start cutting path id: path172)
(Change tool to Default tool)

G00 Z3.000000
G00 X25.137880 Y181.892035

G00 Z4.875000 (Fast pre-penetrate)
G01 Z-0.125000 F400.0(Penetrate)
G01 X47.041987 Y181.154570 Z-0.125000 F800.000000
G01 X69.585789 Y179.777405 Z-0.125000
G01 X90.918146 Y179.611692 Z-0.125000
G01 X107.756160 Y183.940315 Z-0.125000
G01 X122.843069 Y190.020048 Z-0.125000
G01 X140.116756 Y193.913001 Z-0.125000
G01 X160.244641 Y194.951756 Z-0.125000
G00 Z3.000000

(End cutting path id: path172)


(Start cutting path id: path174)
(Change tool to Default tool)

G00 Z3.000000
G00 X25.152165 Y181.063649

G00 Z4.875000 (Fast pre-penetrate)
G01 Z-0.125000 F400.0(Penetrate)
G01 X47.042945 Y180.339509 Z-0.125000 F800.000000
G01 X69.599548 Y178.949549 Z-0.125000
G01 X90.938738 Y178.776996 Z-0.125000
G01 X107.777671 Y183.104703 Z-0.125000
G01 X122.870736 Y189.178277 Z-0.125000
G01 X140.159100 Y193.056554 Z-0.125000
G01 X160.294017 Y194.088276 Z-0.125000
G00 Z3.000000

(End cutting path id: path174)


(Start cutting path id: path176)
(Change tool to Default tool)

G00 Z3.000000
G00 X25.166450 Y180.235264

G00 Z4.875000 (Fast pre-penetrate)
G01 Z-0.125000 F400.0(Penetrate)
G01 X47.043905 Y179.524448 Z-0.125000 F800.000000
G01 X69.613303 Y178.121690 Z-0.125000
G01 X90.959333 Y177.942297 Z-0.125000
G01 X107.799179 Y182.269095 Z-0.125000
G01 X122.898404 Y188.336509 Z-0.125000
G01 X140.201444 Y192.200109 Z-0.125000
G01 X160.343394 Y193.224799 Z-0.125000
G00 Z3.000000

(End cutting path id: path176)


(Start cutting path id: path178)
(Change tool to Default tool)

G00 Z3.000000
G00 X25.180734 Y179.406875

G00 Z4.875000 (Fast pre-penetrate)
G01 Z-0.125000 F400.0(Penetrate)
G01 X47.044863 Y178.709387 Z-0.125000 F800.000000
G01 X69.627062 Y177.293831 Z-0.125000
G01 X90.979928 Y177.107601 Z-0.125000
G01 X107.820689 Y181.433483 Z-0.125000
G01 X122.926069 Y187.494741 Z-0.125000
G01 X140.243788 Y191.343664 Z-0.125000
G01 X160.392770 Y192.361322 Z-0.125000
G00 Z3.000000

(End cutting path id: path178)


(Start cutting path id: path180)
(Change tool to Default tool)

G00 Z3.000000
G00 X25.195019 Y178.578490

G00 Z4.875000 (Fast pre-penetrate)
G01 Z-0.125000 F400.0(Penetrate)
G01 X47.045823 Y177.894328 Z-0.125000 F800.000000
G01 X69.640817 Y176.465972 Z-0.125000
G01 X91.000524 Y176.272906 Z-0.125000
G01 X107.842197 Y180.597872 Z-0.125000
G01 X122.953736 Y186.652973 Z-0.125000
G01 X140.286132 Y190.487217 Z-0.125000
G01 X160.442147 Y191.497842 Z-0.125000
G00 Z3.000000

(End cutting path id: path180)


(Start cutting path id: path182)
(Change tool to Default tool)

G00 Z3.000000
G00 X25.209304 Y177.750104

G00 Z4.875000 (Fast pre-penetrate)
G01 Z-0.125000 F400.0(Penetrate)
G01 X47.046781 Y177.079267 Z-0.125000 F800.000000
G01 X69.654576 Y175.638113 Z-0.125000
G01 X91.021119 Y175.438210 Z-0.125000
G01 X107.863708 Y179.762261 Z-0.125000
G01 X122.981404 Y185.811205 Z-0.125000
G01 X140.328476 Y189.630773 Z-0.125000
G01 X160.491523 Y190.634365 Z-0.125000
G00 Z3.000000

(End cutting path id: path182)


(Start cutting path id: path184)
(Change tool to Default tool)

G00 Z3.000000
G00 X25.223589 Y176.921719

G00 Z4.875000 (Fast pre-penetrate)
G01 Z-0.125000 F400.0(Penetrate)
G01 X47.047739 Y176.264206 Z-0.125000 F800.000000
G01 X69.668331 Y174.810256 Z-0.125000
G01 X91.041714 Y174.603514 Z-0.125000
G01 X107.885216 Y178.926649 Z-0.125000
G01 X123.009071 Y184.969437 Z-0.125000
G01 X140.370820 Y188.774325 Z-0.125000
G01 X160.540900 Y189.770888 Z-0.125000
G00 Z3.000000

(End cutting path id: path184)


(Start cutting path id: path186)
(Change tool to Default tool)

G00 Z3.000000
G00 X25.237874 Y176.093330

G00 Z4.875000 (Fast pre-penetrate)
G01 Z-0.125000 F400.0(Penetrate)
G01 X47.048699 Y175.449145 Z-0.125000 F800.000000
G01 X69.682090 Y173.982397 Z-0.125000
G01 X91.062309 Y173.768815 Z-0.125000
G01 X107.906726 Y178.091041 Z-0.125000
G01 X123.036738 Y184.127666 Z-0.125000
G01 X140.413166 Y187.917881 Z-0.125000
G01 X160.590276 Y188.907408 Z-0.125000
G00 Z3.000000

(End cutting path id: path186)


(Start cutting path id: path190)
(Change tool to Default tool)

G00 Z3.000000
G00 X25.231937 Y174.471064

G00 Z4.875000 (Fast pre-penetrate)
G01 Z-0.125000 F400.0(Penetrate)
G01 X47.019770 Y173.849870 Z-0.125000 F800.000000
G01 X69.633637 Y172.402646 Z-0.125000
G01 X91.014216 Y172.188707 Z-0.125000
G01 X107.904612 Y176.464950 Z-0.125000
G01 X123.111687 Y182.424516 Z-0.125000
G01 X140.564907 Y186.137933 Z-0.125000
G01 X160.771010 Y187.098470 Z-0.125000
G00 Z3.000000

(End cutting path id: path190)


(Start cutting path id: path192)
(Change tool to Default tool)

G00 Z3.000000
G00 X25.211717 Y173.677185

G00 Z4.875000 (Fast pre-penetrate)
G01 Z-0.125000 F400.0(Penetrate)
G01 X46.989883 Y173.065657 Z-0.125000 F800.000000
G01 X69.571428 Y171.650752 Z-0.125000
G01 X90.945527 Y171.443295 Z-0.125000
G01 X107.880990 Y175.674472 Z-0.125000
G01 X123.158968 Y181.563132 Z-0.125000
G01 X140.674307 Y185.214432 Z-0.125000
G01 X160.902370 Y186.153012 Z-0.125000
G00 Z3.000000

(End cutting path id: path192)


(Start cutting path id: path194)
(Change tool to Default tool)

G00 Z3.000000
G00 X25.191495 Y172.883304

G00 Z4.875000 (Fast pre-penetrate)
G01 Z-0.125000 F400.0(Penetrate)
G01 X46.959995 Y172.281443 Z-0.125000 F800.000000
G01 X69.509219 Y170.898860 Z-0.125000
G01 X90.876836 Y170.697882 Z-0.125000
G01 X107.857366 Y174.883993 Z-0.125000
G01 X123.206249 Y180.701750 Z-0.125000
G01 X140.783707 Y184.290932 Z-0.125000
G01 X161.033728 Y185.207551 Z-0.125000
G00 Z3.000000

(End cutting path id: path194)


(Start cutting path id: path196)
(Change tool to Default tool)

G00 Z3.000000
G00 X25.171273 Y172.089422

G00 Z4.875000 (Fast pre-penetrate)
G01 Z-0.125000 F400.0(Penetrate)
G01 X46.930108 Y171.497227 Z-0.125000 F800.000000
G01 X69.447010 Y170.146968 Z-0.125000
G01 X90.808148 Y169.952470 Z-0.125000
G01 X107.833744 Y174.093514 Z-0.125000
G01 X123.253530 Y179.840365 Z-0.125000
G01 X140.893106 Y183.367431 Z-0.125000
G01 X161.165086 Y184.262090 Z-0.125000
G00 Z3.000000

(End cutting path id: path196)


(Start cutting path id: path198)
(Change tool to Default tool)

G00 Z3.000000
G00 X25.151054 Y171.295544

G00 Z4.875000 (Fast pre-penetrate)
G01 Z-0.125000 F400.0(Penetrate)
G01 X46.900221 Y170.713014 Z-0.125000 F800.000000
G01 X69.384801 Y169.395073 Z-0.125000
G01 X90.739459 Y169.207055 Z-0.125000
G01 X107.810122 Y173.303035 Z-0.125000
G01 X123.300813 Y178.978984 Z-0.125000
G01 X141.002504 Y182.443931 Z-0.125000
G01 X161.296446 Y183.316632 Z-0.125000
G00 Z3.000000

(End cutting path id: path198)


(Start cutting path id: path200)
(Change tool to Default tool)

G00 Z3.000000
G00 X25.130831 Y170.501662

G00 Z4.875000 (Fast pre-penetrate)
G01 Z-0.125000 F400.0(Penetrate)
G01 X46.870333 Y169.928801 Z-0.125000 F800.000000
G01 X69.322593 Y168.643181 Z-0.125000
G01 X90.670771 Y168.461643 Z-0.125000
G01 X107.786500 Y172.512557 Z-0.125000
G01 X123.348094 Y178.117599 Z-0.125000
G01 X141.111903 Y181.520430 Z-0.125000
G01 X161.427803 Y182.371171 Z-0.125000
G00 Z3.000000

(End cutting path id: path200)


(Start cutting path id: path202)
(Change tool to Default tool)

G00 Z3.000000
G00 X25.110609 Y169.707781

G00 Z4.875000 (Fast pre-penetrate)
G01 Z-0.125000 F400.0(Penetrate)
G01 X46.840446 Y169.144584 Z-0.125000 F800.000000
G01 X69.260384 Y167.891289 Z-0.125000
G01 X90.602083 Y167.716230 Z-0.125000
G01 X107.762875 Y171.722078 Z-0.125000
G01 X123.395375 Y177.256218 Z-0.125000
G01 X141.221303 Y180.596930 Z-0.125000
G01 X161.559163 Y181.425710 Z-0.125000
G00 Z3.000000

(End cutting path id: path202)


(Start cutting path id: path204)
(Change tool to Default tool)

G00 Z3.000000
G00 X25.090390 Y168.913902

G00 Z4.875000 (Fast pre-penetrate)
G01 Z-0.125000 F400.0(Penetrate)
G01 X46.810561 Y168.360371 Z-0.125000 F800.000000
G01 X69.198175 Y167.139397 Z-0.125000
G01 X90.533394 Y166.970818 Z-0.125000
G01 X107.739253 Y170.931599 Z-0.125000
G01 X123.442656 Y176.394833 Z-0.125000
G01 X141.330700 Y179.673429 Z-0.125000
G01 X161.690521 Y180.480251 Z-0.125000
G00 Z3.000000

(End cutting path id: path204)


(Start cutting path id: path206)
(Change tool to Default tool)

G00 Z3.000000
G00 X25.070168 Y168.120021

G00 Z4.875000 (Fast pre-penetrate)
G01 Z-0.125000 F400.0(Penetrate)
G01 X46.780674 Y167.576158 Z-0.125000 F800.000000
G01 X69.135966 Y166.387503 Z-0.125000
G01 X90.464703 Y166.225406 Z-0.125000
G01 X107.715631 Y170.141120 Z-0.125000
G01 X123.489937 Y175.533452 Z-0.125000
G01 X141.440100 Y178.749929 Z-0.125000
G01 X161.821878 Y179.534791 Z-0.125000
G00 Z3.000000

(End cutting path id: path206)


(Start cutting path id: path208)
(Change tool to Default tool)

G00 Z3.000000
G00 X25.049946 Y167.326140

G00 Z4.875000 (Fast pre-penetrate)
G01 Z-0.125000 F400.0(Penetrate)
G01 X46.750787 Y166.791942 Z-0.125000 F800.000000
G01 X69.073758 Y165.635611 Z-0.125000
G01 X90.396015 Y165.479993 Z-0.125000
G01 X107.692007 Y169.350642 Z-0.125000
G01 X123.537221 Y174.672067 Z-0.125000
G01 X141.549500 Y177.826428 Z-0.125000
G01 X161.953239 Y178.589330 Z-0.125000
G00 Z3.000000

(End cutting path id: path208)


(Start cutting path id: path210)
(Change tool to Default tool)

G00 Z3.000000
G00 X25.029726 Y166.532261

G00 Z4.875000 (Fast pre-penetrate)
G01 Z-0.125000 F400.0(Penetrate)
G01 X46.720900 Y166.007728 Z-0.125000 F800.000000
G01 X69.011549 Y164.883719 Z-0.125000
G01 X90.327326 Y164.734581 Z-0.125000
G01 X107.668385 Y168.560160 Z-0.125000
G01 X123.584502 Y173.810686 Z-0.125000
G01 X141.658897 Y176.902928 Z-0.125000
G01 X162.084596 Y177.643871 Z-0.125000
G00 Z3.000000

(End cutting path id: path210)


(Start cutting path id: path212)
(Change tool to Default tool)

G00 Z3.000000
G00 X25.009504 Y165.738380

G00 Z4.875000 (Fast pre-penetrate)
G01 Z-0.125000 F400.0(Penetrate)
G01 X46.691012 Y165.223515 Z-0.125000 F800.000000
G01 X68.949340 Y164.131824 Z-0.125000
G01 X90.258638 Y163.989166 Z-0.125000
G01 X107.644763 Y167.769682 Z-0.125000
G01 X123.631783 Y172.949301 Z-0.125000
G01 X141.768297 Y175.979427 Z-0.125000
G01 X162.215954 Y176.698411 Z-0.125000
G00 Z3.000000

(End cutting path id: path212)


(Start cutting path id: path214)
(Change tool to Default tool)

G00 Z3.000000
G00 X24.989282 Y164.944501

G00 Z4.875000 (Fast pre-penetrate)
G01 Z-0.125000 F400.0(Penetrate)
G01 X46.661125 Y164.439299 Z-0.125000 F800.000000
G01 X68.887131 Y163.379932 Z-0.125000
G01 X90.189950 Y163.243754 Z-0.125000
G01 X107.621141 Y166.979203 Z-0.125000
G01 X123.679064 Y172.087920 Z-0.125000
G01 X141.877697 Y175.055927 Z-0.125000
G01 X162.347314 Y175.752950 Z-0.125000
G00 Z3.000000

(End cutting path id: path214)


(Start cutting path id: path216)
(Change tool to Default tool)

G00 Z3.000000
G00 X24.969063 Y164.150620

G00 Z4.875000 (Fast pre-penetrate)
G01 Z-0.125000 F400.0(Penetrate)
G01 X46.631238 Y163.655085 Z-0.125000 F800.000000
G01 X68.824923 Y162.628040 Z-0.125000
G01 X90.121261 Y162.498342 Z-0.125000
G01 X107.597516 Y166.188724 Z-0.125000
G01 X123.726345 Y171.226535 Z-0.125000
G01 X141.987094 Y174.132426 Z-0.125000
G01 X162.478671 Y174.807491 Z-0.125000
G00 Z3.000000

(End cutting path id: path216)


(Start cutting path id: path218)
(Change tool to Default tool)

G00 Z3.000000
G00 X24.948841 Y163.356739

G00 Z4.875000 (Fast pre-penetrate)
G01 Z-0.125000 F400.0(Penetrate)
G01 X46.601350 Y162.870872 Z-0.125000 F800.000000
G01 X68.762714 Y161.876145 Z-0.125000
G01 X90.052570 Y161.752929 Z-0.125000
G01 X107.573894 Y165.398245 Z-0.125000
G01 X123.773626 Y170.365153 Z-0.125000
G01 X142.096493 Y173.208926 Z-0.125000
G01 X162.610032 Y173.862031 Z-0.125000
G00 Z3.000000

(End cutting path id: path218)


(Start cutting path id: path222)
(Change tool to Default tool)

G00 Z3.000000
G00 X24.908399 Y161.768979

G00 Z4.875000 (Fast pre-penetrate)
G01 Z-0.125000 F400.0(Penetrate)
G01 X46.541576 Y161.302442 Z-0.125000 F800.000000
G01 X68.638296 Y160.372362 Z-0.125000
G01 X89.915193 Y160.262105 Z-0.125000
G01 X107.526648 Y163.817288 Z-0.125000
G01 X123.868191 Y168.642387 Z-0.125000
G01 X142.315293 Y171.361925 Z-0.125000
G01 X162.872747 Y171.971111 Z-0.125000
G00 Z3.000000

(End cutting path id: path222)


(Start cutting path id: path224)
(Change tool to Default tool)

G00 Z3.000000
G00 X24.888177 Y160.975097

G00 Z4.875000 (Fast pre-penetrate)
G01 Z-0.125000 F400.0(Penetrate)
G01 X46.511688 Y160.518229 Z-0.125000 F800.000000
G01 X68.576088 Y159.620470 Z-0.125000
G01 X89.846505 Y159.516692 Z-0.125000
G01 X107.503026 Y163.026809 Z-0.125000
G01 X123.915472 Y167.781003 Z-0.125000
G01 X142.424690 Y170.438424 Z-0.125000
G01 X163.004107 Y171.025651 Z-0.125000
G00 Z3.000000

(End cutting path id: path224)


(Start cutting path id: path226)
(Change tool to Default tool)

G00 Z3.000000
G00 X24.867958 Y160.181219

G00 Z4.875000 (Fast pre-penetrate)
G01 Z-0.125000 F400.0(Penetrate)
G01 X46.481801 Y159.734013 Z-0.125000 F800.000000
G01 X68.513879 Y158.868575 Z-0.125000
G01 X89.777817 Y158.771277 Z-0.125000
G01 X107.479404 Y162.236330 Z-0.125000
G01 X123.962753 Y166.919621 Z-0.125000
G01 X142.534090 Y169.514924 Z-0.125000
G01 X163.135464 Y170.080190 Z-0.125000
G00 Z3.000000

(End cutting path id: path226)


(Start cutting path id: path228)
(Change tool to Default tool)

G00 Z3.000000
G00 X24.847736 Y159.387338

G00 Z4.875000 (Fast pre-penetrate)
G01 Z-0.125000 F400.0(Penetrate)
G01 X46.451914 Y158.949799 Z-0.125000 F800.000000
G01 X68.451670 Y158.116683 Z-0.125000
G01 X89.709128 Y158.025865 Z-0.125000
G01 X107.455779 Y161.445851 Z-0.125000
G01 X124.010034 Y166.058237 Z-0.125000
G01 X142.643490 Y168.591423 Z-0.125000
G01 X163.266822 Y169.134729 Z-0.125000
G00 Z3.000000

(End cutting path id: path228)


(Start cutting path id: path230)
(Change tool to Default tool)

G00 Z3.000000
G00 X24.827514 Y158.593456

G00 Z4.875000 (Fast pre-penetrate)
G01 Z-0.125000 F400.0(Penetrate)
G01 X46.422027 Y158.165586 Z-0.125000 F800.000000
G01 X68.389461 Y157.364791 Z-0.125000
G01 X89.640437 Y157.280453 Z-0.125000
G01 X107.432157 Y160.655373 Z-0.125000
G01 X124.057317 Y165.196855 Z-0.125000
G01 X142.752887 Y167.667923 Z-0.125000
G01 X163.398182 Y168.189270 Z-0.125000
G00 Z3.000000

(End cutting path id: path230)


(Start cutting path id: path232)
(Change tool to Default tool)

G00 Z3.000000
G00 X24.807294 Y157.799578

G00 Z4.875000 (Fast pre-penetrate)
G01 Z-0.125000 F400.0(Penetrate)
G01 X46.392139 Y157.381370 Z-0.125000 F800.000000
G01 X68.327253 Y156.612896 Z-0.125000
G01 X89.571749 Y156.535040 Z-0.125000
G01 X107.408535 Y159.864894 Z-0.125000
G01 X124.104598 Y164.335474 Z-0.125000
G01 X142.862287 Y166.744422 Z-0.125000
G01 X163.529539 Y167.243810 Z-0.125000
G00 Z3.000000

(End cutting path id: path232)


(Start cutting path id: path234)
(Change tool to Default tool)

G00 Z3.000000
G00 X24.787072 Y157.005696

G00 Z4.875000 (Fast pre-penetrate)
G01 Z-0.125000 F400.0(Penetrate)
G01 X46.362252 Y156.597156 Z-0.125000 F800.000000
G01 X68.265044 Y155.861004 Z-0.125000
G01 X89.503060 Y155.789628 Z-0.125000
G01 X107.384913 Y159.074415 Z-0.125000
G01 X124.151879 Y163.474089 Z-0.125000
G01 X142.971686 Y165.820922 Z-0.125000
G01 X163.660897 Y166.298349 Z-0.125000
G00 Z3.000000

(End cutting path id: path234)


(Start cutting path id: path236)
(Change tool to Default tool)

G00 Z3.000000
G00 X24.766850 Y156.211815

G00 Z4.875000 (Fast pre-penetrate)
G01 Z-0.125000 F400.0(Penetrate)
G01 X46.332365 Y155.812943 Z-0.125000 F800.000000
G01 X68.202835 Y155.109112 Z-0.125000
G01 X89.434372 Y155.044216 Z-0.125000
G01 X107.361288 Y158.283936 Z-0.125000
G01 X124.199160 Y162.612708 Z-0.125000
G01 X143.081084 Y164.897421 Z-0.125000
G01 X163.792257 Y165.352890 Z-0.125000
G00 Z3.000000

(End cutting path id: path236)


(Start cutting path id: path238)
(Change tool to Default tool)

G00 Z3.000000
G00 X24.746630 Y155.417936

G00 Z4.875000 (Fast pre-penetrate)
G01 Z-0.125000 F400.0(Penetrate)
G01 X46.302477 Y155.028727 Z-0.125000 F800.000000
G01 X68.140626 Y154.357220 Z-0.125000
G01 X89.365684 Y154.298803 Z-0.125000
G01 X107.337667 Y157.493458 Z-0.125000
G01 X124.246441 Y161.751323 Z-0.125000
G01 X143.190483 Y163.973921 Z-0.125000
G01 X163.923615 Y164.407430 Z-0.125000
G00 Z3.000000

(End cutting path id: path238)


(Start cutting path id: path240)
(Change tool to Default tool)

G00 Z3.000000
G00 X24.726408 Y154.624055

G00 Z4.875000 (Fast pre-penetrate)
G01 Z-0.125000 F400.0(Penetrate)
G01 X46.272590 Y154.244513 Z-0.125000 F800.000000
G01 X68.078418 Y153.605326 Z-0.125000
G01 X89.296995 Y153.553388 Z-0.125000
G01 X107.314045 Y156.702979 Z-0.125000
G01 X124.293722 Y160.889941 Z-0.125000
G01 X143.299883 Y163.050420 Z-0.125000
G01 X164.054975 Y163.461969 Z-0.125000
G00 Z3.000000

(End cutting path id: path240)


(Start cutting path id: path242)
(Change tool to Default tool)

G00 Z3.000000
G00 X24.710158 Y153.826205

G00 Z4.875000 (Fast pre-penetrate)
G01 Z-0.125000 F400.0(Penetrate)
G01 X46.215692 Y153.487311 Z-0.125000 F800.000000
G01 X67.977244 Y152.892399 Z-0.125000
G01 X89.188484 Y152.847798 Z-0.125000
G01 X107.277016 Y155.925907 Z-0.125000
G01 X124.372047 Y159.997514 Z-0.125000
G01 X143.472526 Y162.063674 Z-0.125000
G01 X164.257860 Y162.444980 Z-0.125000
G00 Z3.000000

(End cutting path id: path242)


(Start cutting path id: path244)
(Change tool to Default tool)

G00 Z3.000000
G00 X24.693907 Y153.028355

G00 Z4.875000 (Fast pre-penetrate)
G01 Z-0.125000 F400.0(Penetrate)
G01 X46.158793 Y152.730106 Z-0.125000 F800.000000
G01 X67.876070 Y152.179470 Z-0.125000
G01 X89.079976 Y152.142206 Z-0.125000
G01 X107.239988 Y155.148834 Z-0.125000
G01 X124.450371 Y159.105088 Z-0.125000
G01 X143.645172 Y161.076928 Z-0.125000
G01 X164.460747 Y161.427992 Z-0.125000
G00 Z3.000000

(End cutting path id: path244)


(Start cutting path id: path246)
(Change tool to Default tool)

G00 Z3.000000
G00 X24.677656 Y152.230502

G00 Z4.875000 (Fast pre-penetrate)
G01 Z-0.125000 F400.0(Penetrate)
G01 X46.101897 Y151.972902 Z-0.125000 F800.000000
G01 X67.774899 Y151.466540 Z-0.125000
G01 X88.971466 Y151.436613 Z-0.125000
G01 X107.202959 Y154.371759 Z-0.125000
G01 X124.528696 Y158.212663 Z-0.125000
G01 X143.817818 Y160.090181 Z-0.125000
G01 X164.663635 Y160.411004 Z-0.125000
G00 Z3.000000

(End cutting path id: path246)


(Start cutting path id: path250)
(Change tool to Default tool)

G00 Z3.000000
G00 X24.645155 Y150.634802

G00 Z4.875000 (Fast pre-penetrate)
G01 Z-0.125000 F400.0(Penetrate)
G01 X45.988100 Y150.458495 Z-0.125000 F800.000000
G01 X67.572551 Y150.040684 Z-0.125000
G01 X88.754449 Y150.025417 Z-0.125000
G01 X107.128903 Y152.817604 Z-0.125000
G01 X124.685345 Y156.427802 Z-0.125000
G01 X144.163106 Y158.116680 Z-0.125000
G01 X165.069407 Y158.377017 Z-0.125000
G00 Z3.000000

(End cutting path id: path250)


(Start cutting path id: path252)
(Change tool to Default tool)

G00 Z3.000000
G00 X24.628902 Y149.836952

G00 Z4.875000 (Fast pre-penetrate)
G01 Z-0.125000 F400.0(Penetrate)
G01 X45.931204 Y149.701290 Z-0.125000 F800.000000
G01 X67.471377 Y149.327757 Z-0.125000
G01 X88.645939 Y149.319846 Z-0.125000
G01 X107.091872 Y152.040553 Z-0.125000
G01 X124.763669 Y155.535395 Z-0.125000
G01 X144.335749 Y157.129955 Z-0.125000
G01 X165.272295 Y157.360050 Z-0.125000
G00 Z3.000000

(End cutting path id: path252)


(Start cutting path id: path254)
(Change tool to Default tool)

G00 Z3.000000
G00 X24.612651 Y149.039100

G00 Z4.875000 (Fast pre-penetrate)
G01 Z-0.125000 F400.0(Penetrate)
G01 X45.874305 Y148.944088 Z-0.125000 F800.000000
G01 X67.370206 Y148.614827 Z-0.125000
G01 X88.537430 Y148.614298 Z-0.125000
G01 X107.054843 Y151.263523 Z-0.125000
G01 X124.841994 Y154.643015 Z-0.125000
G01 X144.508395 Y156.143254 Z-0.125000
G01 X165.475182 Y156.343106 Z-0.125000
G00 Z3.000000

(End cutting path id: path254)


(Start cutting path id: path256)
(Change tool to Default tool)

G00 Z3.000000
G00 X24.596400 Y148.241250

G00 Z4.875000 (Fast pre-penetrate)
G01 Z-0.125000 F400.0(Penetrate)
G01 X45.817407 Y148.186883 Z-0.125000 F800.000000
G01 X67.269032 Y147.901901 Z-0.125000
G01 X88.428920 Y147.908648 Z-0.125000
G01 X107.017815 Y150.486392 Z-0.125000
G01 X124.920318 Y153.750532 Z-0.125000
G01 X144.681041 Y155.156449 Z-0.125000
G01 X165.678067 Y155.326060 Z-0.125000
G00 Z3.000000

(End cutting path id: path256)


(Start cutting path id: path258)
(Change tool to Default tool)

G00 Z3.000000
G00 X24.580150 Y147.443399

G00 Z4.875000 (Fast pre-penetrate)
G01 Z-0.125000 F400.0(Penetrate)
G01 X45.760511 Y147.429668 Z-0.125000 F800.000000
G01 X67.167858 Y147.188958 Z-0.125000
G01 X88.320411 Y147.203034 Z-0.125000
G01 X106.980786 Y149.709299 Z-0.125000
G01 X124.998640 Y152.858085 Z-0.125000
G01 X144.853684 Y154.169681 Z-0.125000
G01 X165.880955 Y154.309051 Z-0.125000
G00 Z3.000000

(End cutting path id: path258)


(Start cutting path id: path260)
(Change tool to Default tool)

G00 Z3.000000
G00 X24.563899 Y146.645549

G00 Z4.875000 (Fast pre-penetrate)
G01 Z-0.125000 F400.0(Penetrate)
G01 X45.703612 Y146.672476 Z-0.125000 F800.000000
G01 X67.066687 Y146.476042 Z-0.125000
G01 X88.211903 Y146.497473 Z-0.125000
G01 X106.943758 Y148.932258 Z-0.125000
G01 X125.076964 Y151.965692 Z-0.125000
G01 X145.026330 Y153.182967 Z-0.125000
G01 X166.083842 Y153.292094 Z-0.125000
G00 Z3.000000

(End cutting path id: path260)


(Start cutting path id: path262)
(Change tool to Default tool)

G00 Z3.000000
G00 X24.547648 Y145.847699

G00 Z4.875000 (Fast pre-penetrate)
G01 Z-0.125000 F400.0(Penetrate)
G01 X45.646714 Y145.915271 Z-0.125000 F800.000000
G01 X66.965513 Y145.763115 Z-0.125000
G01 X88.103393 Y145.791872 Z-0.125000
G01 X106.906730 Y148.155175 Z-0.125000
G01 X125.155289 Y151.073256 Z-0.125000
G01 X145.198973 Y152.196212 Z-0.125000
G01 X166.286727 Y152.275098 Z-0.125000
G00 Z3.000000

(End cutting path id: path262)


(Start cutting path id: path264)
(Change tool to Default tool)

G00 Z3.000000
G00 X24.531398 Y145.049847

G00 Z4.875000 (Fast pre-penetrate)
G01 Z-0.125000 F400.0(Penetrate)
G01 X45.589818 Y145.158069 Z-0.125000 F800.000000
G01 X66.864339 Y145.050185 Z-0.125000
G01 X87.994884 Y145.086280 Z-0.125000
G01 X106.869701 Y147.378103 Z-0.125000
G01 X125.233613 Y150.180831 Z-0.125000
G01 X145.371618 Y151.209466 Z-0.125000
G01 X166.489615 Y151.258110 Z-0.125000
G00 Z3.000000

(End cutting path id: path264)


(Start cutting path id: path266)
(Change tool to Default tool)

G00 Z3.000000
G00 X24.515147 Y144.251997

G00 Z4.875000 (Fast pre-penetrate)
G01 Z-0.125000 F400.0(Penetrate)
G01 X45.532919 Y144.400864 Z-0.125000 F800.000000
G01 X66.763165 Y144.337259 Z-0.125000
G01 X87.886374 Y144.380690 Z-0.125000
G01 X106.832673 Y146.601031 Z-0.125000
G01 X125.311938 Y149.288406 Z-0.125000
G01 X145.544264 Y150.222720 Z-0.125000
G01 X166.692502 Y150.241135 Z-0.125000
G00 Z3.000000

(End cutting path id: path266)


(Start cutting path id: path268)
(Change tool to Default tool)

G00 Z3.000000
G00 X24.498896 Y143.454147

G00 Z4.875000 (Fast pre-penetrate)
G01 Z-0.125000 F400.0(Penetrate)
G01 X45.476021 Y143.643662 Z-0.125000 F800.000000
G01 X66.661994 Y143.624321 Z-0.125000
G01 X87.777866 Y143.675089 Z-0.125000
G01 X106.795644 Y145.823950 Z-0.125000
G01 X125.390262 Y148.395972 Z-0.125000
G01 X145.716907 Y149.235965 Z-0.125000
G01 X166.895390 Y149.224112 Z-0.125000
G00 Z3.000000

(End cutting path id: path268)


(Start cutting path id: path272)
(Change tool to Default tool)

G00 Z3.000000
G00 X24.466395 Y141.858444

G00 Z4.875000 (Fast pre-penetrate)
G01 Z-0.125000 F400.0(Penetrate)
G01 X45.362226 Y142.129253 Z-0.125000 F800.000000
G01 X66.459646 Y142.198473 Z-0.125000
G01 X87.560847 Y142.263912 Z-0.125000
G01 X106.721588 Y144.269811 Z-0.125000
G01 X125.546911 Y146.611127 Z-0.125000
G01 X146.062196 Y147.262483 Z-0.125000
G01 X167.301162 Y147.190156 Z-0.125000
G00 Z3.000000

(End cutting path id: path272)


(Start cutting path id: path274)
(Change tool to Default tool)

G00 Z3.000000
G00 X24.450144 Y141.060594

G00 Z4.875000 (Fast pre-penetrate)
G01 Z-0.125000 F400.0(Penetrate)
G01 X45.305328 Y141.372050 Z-0.125000 F800.000000
G01 X66.358475 Y141.485543 Z-0.125000
G01 X87.452338 Y141.558319 Z-0.125000
G01 X106.684559 Y143.492739 Z-0.125000
G01 X125.625236 Y145.718702 Z-0.125000
G01 X146.234841 Y146.275736 Z-0.125000
G01 X167.504050 Y146.173168 Z-0.125000
G00 Z3.000000

(End cutting path id: path274)


(Start cutting path id: path276)
(Change tool to Default tool)

G00 Z3.000000
G00 X24.433893 Y140.262744

G00 Z4.875000 (Fast pre-penetrate)
G01 Z-0.125000 F400.0(Penetrate)
G01 X45.248429 Y140.614846 Z-0.125000 F800.000000
G01 X66.257301 Y140.772616 Z-0.125000
G01 X87.343830 Y140.852727 Z-0.125000
G01 X106.647531 Y142.715666 Z-0.125000
G01 X125.703558 Y144.826277 Z-0.125000
G01 X146.407487 Y145.288990 Z-0.125000
G01 X167.706935 Y145.156180 Z-0.125000
G00 Z3.000000

(End cutting path id: path276)


(Start cutting path id: path278)
(Change tool to Default tool)

G00 Z3.000000
G00 X24.417640 Y139.464894

G00 Z4.875000 (Fast pre-penetrate)
G01 Z-0.125000 F400.0(Penetrate)
G01 X45.191533 Y139.857643 Z-0.125000 F800.000000
G01 X66.156127 Y140.059687 Z-0.125000
G01 X87.235320 Y140.147134 Z-0.125000
G01 X106.610502 Y141.938591 Z-0.125000
G01 X125.781882 Y143.933851 Z-0.125000
G01 X146.580130 Y144.302244 Z-0.125000
G01 X167.909822 Y144.139192 Z-0.125000
G00 Z3.000000

(End cutting path id: path278)


(Start cutting path id: path280)
(Change tool to Default tool)

G00 Z3.000000
G00 X24.401389 Y138.667041

G00 Z4.875000 (Fast pre-penetrate)
G01 Z-0.125000 F400.0(Penetrate)
G01 X45.134634 Y139.100439 Z-0.125000 F800.000000
G01 X66.054953 Y139.346758 Z-0.125000
G01 X87.126811 Y139.441542 Z-0.125000
G01 X106.573474 Y141.161519 Z-0.125000
G01 X125.860207 Y143.041426 Z-0.125000
G01 X146.752776 Y143.315497 Z-0.125000
G01 X168.112710 Y143.122203 Z-0.125000
G00 Z3.000000

(End cutting path id: path280)


(Start cutting path id: path282)
(Change tool to Default tool)

G00 Z3.000000
G00 X24.385139 Y137.869191

G00 Z4.875000 (Fast pre-penetrate)
G01 Z-0.125000 F400.0(Penetrate)
G01 X45.077736 Y138.343234 Z-0.125000 F800.000000
G01 X65.953782 Y138.633831 Z-0.125000
G01 X87.018301 Y138.735949 Z-0.125000
G01 X106.536446 Y140.384447 Z-0.125000
G01 X125.938531 Y142.148998 Z-0.125000
G01 X146.925419 Y142.328751 Z-0.125000
G01 X168.315597 Y142.105215 Z-0.125000
G00 Z3.000000

(End cutting path id: path282)


(Start cutting path id: path284)
(Change tool to Default tool)

G00 Z3.000000
G00 X24.368888 Y137.071341

G00 Z4.875000 (Fast pre-penetrate)
G01 Z-0.125000 F400.0(Penetrate)
G01 X45.020840 Y137.586032 Z-0.125000 F800.000000
G01 X65.852608 Y137.920901 Z-0.125000
G01 X86.909793 Y138.030357 Z-0.125000
G01 X106.499417 Y139.607374 Z-0.125000
G01 X126.016856 Y141.256573 Z-0.125000
G01 X147.098065 Y141.342004 Z-0.125000
G01 X168.518482 Y141.088227 Z-0.125000
G00 Z3.000000

(End cutting path id: path284)


(Start cutting path id: path288)
(Change tool to Default tool)

G00 Z3.000000
G00 X24.336387 Y135.475641

G00 Z4.875000 (Fast pre-penetrate)
G01 Z-0.125000 F400.0(Penetrate)
G01 X44.907043 Y136.071622 Z-0.125000 F800.000000
G01 X65.650263 Y136.495045 Z-0.125000
G01 X86.692774 Y136.619171 Z-0.125000
G01 X106.425361 Y138.053227 Z-0.125000
G01 X126.173505 Y139.471723 Z-0.125000
G01 X147.443353 Y139.368512 Z-0.125000
G01 X168.924257 Y139.054250 Z-0.125000
G00 Z3.000000

(End cutting path id: path288)


(Start cutting path id: path290)
(Change tool to Default tool)

G00 Z3.000000
G00 X24.320136 Y134.677788

G00 Z4.875000 (Fast pre-penetrate)
G01 Z-0.125000 F400.0(Penetrate)
G01 X44.850144 Y135.314420 Z-0.125000 F800.000000
G01 X65.549089 Y135.782115 Z-0.125000
G01 X86.584265 Y135.913579 Z-0.125000
G01 X106.388332 Y137.276155 Z-0.125000
G01 X126.251829 Y138.579297 Z-0.125000
G01 X147.615999 Y138.381765 Z-0.125000
G01 X169.127142 Y138.037262 Z-0.125000
G00 Z3.000000

(End cutting path id: path290)


(Start cutting path id: path292)
(Change tool to Default tool)

G00 Z3.000000
G00 X24.303885 Y133.879938

G00 Z4.875000 (Fast pre-penetrate)
G01 Z-0.125000 F400.0(Penetrate)
G01 X44.793248 Y134.557215 Z-0.125000 F800.000000
G01 X65.447915 Y135.069189 Z-0.125000
G01 X86.475755 Y135.207989 Z-0.125000
G01 X106.351304 Y136.499080 Z-0.125000
G01 X126.330154 Y137.686870 Z-0.125000
G01 X147.788642 Y137.395021 Z-0.125000
G01 X169.330030 Y137.020274 Z-0.125000
G00 Z3.000000

(End cutting path id: path292)


(Start cutting path id: path294)
(Change tool to Default tool)

G00 Z3.000000
G00 X24.293963 Y133.075759

G00 Z4.875000 (Fast pre-penetrate)
G01 Z-0.125000 F400.0(Penetrate)
G01 X44.729838 Y133.806524 Z-0.125000 F800.000000
G01 X65.317944 Y134.385056 Z-0.125000
G01 X86.333131 Y134.536512 Z-0.125000
G01 X106.336384 Y135.699899 Z-0.125000
G01 X126.443507 Y136.759414 Z-0.125000
G01 X147.896722 Y136.472841 Z-0.125000
G01 X169.410690 Y136.125512 Z-0.125000
G00 Z3.000000

(End cutting path id: path294)


(Start cutting path id: path296)
(Change tool to Default tool)

G00 Z3.000000
G00 X24.284042 Y132.271581

G00 Z4.875000 (Fast pre-penetrate)
G01 Z-0.125000 F400.0(Penetrate)
G01 X44.666428 Y133.055831 Z-0.125000 F800.000000
G01 X65.187975 Y133.700927 Z-0.125000
G01 X86.190505 Y133.865034 Z-0.125000
G01 X106.321467 Y134.900715 Z-0.125000
G01 X126.556862 Y135.831958 Z-0.125000
G01 X148.004799 Y135.550663 Z-0.125000
G01 X169.491349 Y135.230751 Z-0.125000
G00 Z3.000000

(End cutting path id: path296)


(Start cutting path id: path298)
(Change tool to Default tool)

G00 Z3.000000
G00 X24.274120 Y131.467399

G00 Z4.875000 (Fast pre-penetrate)
G01 Z-0.125000 F400.0(Penetrate)
G01 X44.603021 Y132.305140 Z-0.125000 F800.000000
G01 X65.058004 Y133.016794 Z-0.125000
G01 X86.047879 Y133.193560 Z-0.125000
G01 X106.306547 Y134.101532 Z-0.125000
G01 X126.670217 Y134.904502 Z-0.125000
G01 X148.112875 Y134.628483 Z-0.125000
G01 X169.572009 Y134.335989 Z-0.125000
G00 Z3.000000

(End cutting path id: path298)


(Start cutting path id: path302)
(Change tool to Default tool)

G00 Z3.000000
G00 X24.254273 Y129.859041

G00 Z4.875000 (Fast pre-penetrate)
G01 Z-0.125000 F400.0(Penetrate)
G01 X44.476201 Y130.803753 Z-0.125000 F800.000000
G01 X64.798062 Y131.648533 Z-0.125000
G01 X85.762629 Y131.850608 Z-0.125000
G01 X106.276712 Y132.503165 Z-0.125000
G01 X126.896928 Y133.049589 Z-0.125000
G01 X148.329029 Y132.784128 Z-0.125000
G01 X169.733328 Y132.546466 Z-0.125000
G00 Z3.000000

(End cutting path id: path302)


(Start cutting path id: path304)
(Change tool to Default tool)

G00 Z3.000000
G00 X24.244351 Y129.054862

G00 Z4.875000 (Fast pre-penetrate)
G01 Z-0.125000 F400.0(Penetrate)
G01 X44.412791 Y130.053063 Z-0.125000 F800.000000
G01 X64.668091 Y130.964403 Z-0.125000
G01 X85.620003 Y131.179131 Z-0.125000
G01 X106.261793 Y131.703981 Z-0.125000
G01 X127.010283 Y132.122133 Z-0.125000
G01 X148.437106 Y131.861948 Z-0.125000
G01 X169.813989 Y131.651705 Z-0.125000
G00 Z3.000000

(End cutting path id: path304)


(Start cutting path id: path306)
(Change tool to Default tool)

G00 Z3.000000
G00 X24.234430 Y128.250684

G00 Z4.875000 (Fast pre-penetrate)
G01 Z-0.125000 F400.0(Penetrate)
G01 X44.349384 Y129.302369 Z-0.125000 F800.000000
G01 X64.538120 Y130.280273 Z-0.125000
G01 X85.477377 Y130.507656 Z-0.125000
G01 X106.246875 Y130.904798 Z-0.125000
G01 X127.123636 Y131.194675 Z-0.125000
G01 X148.545183 Y130.939770 Z-0.125000
G01 X169.894647 Y130.756943 Z-0.125000
G00 Z3.000000

(End cutting path id: path306)


(Start cutting path id: path308)
(Change tool to Default tool)

G00 Z3.000000
G00 X24.224508 Y127.446502

G00 Z4.875000 (Fast pre-penetrate)
G01 Z-0.125000 F400.0(Penetrate)
G01 X44.285974 Y128.551678 Z-0.125000 F800.000000
G01 X64.408149 Y129.596141 Z-0.125000
G01 X85.334754 Y129.836179 Z-0.125000
G01 X106.231958 Y130.105614 Z-0.125000
G01 X127.236991 Y130.267219 Z-0.125000
G01 X148.653260 Y130.017590 Z-0.125000
G01 X169.975308 Y129.862182 Z-0.125000
G00 Z3.000000

(End cutting path id: path308)


(Start cutting path id: path312)
(Change tool to Default tool)

G00 Z3.000000
G00 X24.204664 Y125.838144

G00 Z4.875000 (Fast pre-penetrate)
G01 Z-0.125000 F400.0(Penetrate)
G01 X44.159154 Y127.050294 Z-0.125000 F800.000000
G01 X64.148209 Y128.227879 Z-0.125000
G01 X85.049501 Y128.493227 Z-0.125000
G01 X106.202121 Y128.507250 Z-0.125000
G01 X127.463702 Y128.412309 Z-0.125000
G01 X148.869413 Y128.173237 Z-0.125000
G01 X170.136627 Y128.072664 Z-0.125000
G00 Z3.000000

(End cutting path id: path312)


(Start cutting path id: path314)
(Change tool to Default tool)

G00 Z3.000000
G00 X24.194742 Y125.033965

G00 Z4.875000 (Fast pre-penetrate)
G01 Z-0.125000 F400.0(Penetrate)
G01 X44.095747 Y126.299601 Z-0.125000 F800.000000
G01 X64.018238 Y127.543750 Z-0.125000
G01 X84.906875 Y127.821750 Z-0.125000
G01 X106.187201 Y127.708064 Z-0.125000
G01 X127.577057 Y127.484851 Z-0.125000
G01 X148.977490 Y127.251055 Z-0.125000
G01 X170.217288 Y127.177900 Z-0.125000
G00 Z3.000000

(End cutting path id: path314)


(Start cutting path id: path316)
(Change tool to Default tool)

G00 Z3.000000
G00 X24.184820 Y124.229787

G00 Z4.875000 (Fast pre-penetrate)
G01 Z-0.125000 F400.0(Penetrate)
G01 X44.032337 Y125.548908 Z-0.125000 F800.000000
G01 X63.888267 Y126.859617 Z-0.125000
G01 X84.764252 Y127.150275 Z-0.125000
G01 X106.172284 Y126.908880 Z-0.125000
G01 X127.690412 Y126.557395 Z-0.125000
G01 X149.085567 Y126.328877 Z-0.125000
G01 X170.297948 Y126.283139 Z-0.125000
G00 Z3.000000

(End cutting path id: path316)


(Start cutting path id: path318)
(Change tool to Default tool)

G00 Z3.000000
G00 X24.174896 Y123.425608

G00 Z4.875000 (Fast pre-penetrate)
G01 Z-0.125000 F400.0(Penetrate)
G01 X43.968927 Y124.798217 Z-0.125000 F800.000000
G01 X63.758296 Y126.175488 Z-0.125000
G01 X84.621626 Y126.478798 Z-0.125000
G01 X106.157367 Y126.109696 Z-0.125000
G01 X127.803767 Y125.629936 Z-0.125000
G01 X149.193647 Y125.406697 Z-0.125000
G01 X170.378606 Y125.388388 Z-0.125000
G00 Z3.000000

(End cutting path id: path318)


(Start cutting path id: path322)
(Change tool to Default tool)

G00 Z3.000000
G00 X24.155052 Y121.817247

G00 Z4.875000 (Fast pre-penetrate)
G01 Z-0.125000 F400.0(Penetrate)
G01 X43.842109 Y123.296833 Z-0.125000 F800.000000
G01 X63.498356 Y124.807226 Z-0.125000
G01 X84.336374 Y125.135846 Z-0.125000
G01 X106.127530 Y124.511329 Z-0.125000
G01 X128.030475 Y123.775024 Z-0.125000
G01 X149.409800 Y123.562342 Z-0.125000
G01 X170.539925 Y123.598854 Z-0.125000
G00 Z3.000000

(End cutting path id: path322)


(Start cutting path id: path324)
(Change tool to Default tool)

G00 Z3.000000
G00 X24.145130 Y121.013069

G00 Z4.875000 (Fast pre-penetrate)
G01 Z-0.125000 F400.0(Penetrate)
G01 X43.778700 Y122.546139 Z-0.125000 F800.000000
G01 X63.368385 Y124.123094 Z-0.125000
G01 X84.193750 Y124.464371 Z-0.125000
G01 X106.112613 Y123.712146 Z-0.125000
G01 X128.143831 Y122.847568 Z-0.125000
G01 X149.517877 Y122.640161 Z-0.125000
G01 X170.620586 Y122.704093 Z-0.125000
G00 Z3.000000

(End cutting path id: path324)


(Start cutting path id: path326)
(Change tool to Default tool)

G00 Z3.000000
G00 X24.135208 Y120.208890

G00 Z4.875000 (Fast pre-penetrate)
G01 Z-0.125000 F400.0(Penetrate)
G01 X43.715290 Y121.795448 Z-0.125000 F800.000000
G01 X63.238414 Y123.438964 Z-0.125000
G01 X84.051124 Y123.792894 Z-0.125000
G01 X106.097693 Y122.912965 Z-0.125000
G01 X128.257186 Y121.920112 Z-0.125000
G01 X149.625954 Y121.717984 Z-0.125000
G01 X170.701247 Y121.809331 Z-0.125000
G00 Z3.000000

(End cutting path id: path326)


(Start cutting path id: path330)
(Change tool to Default tool)

G00 Z3.000000
G00 X24.115365 Y118.600529

G00 Z4.875000 (Fast pre-penetrate)
G01 Z-0.125000 F400.0(Penetrate)
G01 X43.588472 Y120.294062 Z-0.125000 F800.000000
G01 X62.978472 Y122.070702 Z-0.125000
G01 X83.765872 Y122.449942 Z-0.125000
G01 X106.067859 Y121.314598 Z-0.125000
G01 X128.483897 Y120.065197 Z-0.125000
G01 X149.842108 Y119.873626 Z-0.125000
G01 X170.862566 Y120.019808 Z-0.125000
G00 Z3.000000

(End cutting path id: path330)


(Start cutting path id: path332)
(Change tool to Default tool)

G00 Z3.000000
G00 X24.105443 Y117.796350

G00 Z4.875000 (Fast pre-penetrate)
G01 Z-0.125000 F400.0(Penetrate)
G01 X43.525062 Y119.543371 Z-0.125000 F800.000000
G01 X62.848501 Y121.386570 Z-0.125000
G01 X83.623248 Y121.778465 Z-0.125000
G01 X106.052939 Y120.515414 Z-0.125000
G01 X128.597252 Y119.137741 Z-0.125000
G01 X149.950185 Y118.951448 Z-0.125000
G01 X170.943224 Y119.125047 Z-0.125000
G00 Z3.000000

(End cutting path id: path332)


(Start cutting path id: path334)
(Change tool to Default tool)

G00 Z3.000000
G00 X24.095521 Y116.992172

G00 Z4.875000 (Fast pre-penetrate)
G01 Z-0.125000 F400.0(Penetrate)
G01 X43.461652 Y118.792677 Z-0.125000 F800.000000
G01 X62.718532 Y120.702440 Z-0.125000
G01 X83.480622 Y121.106990 Z-0.125000
G01 X106.038022 Y119.716231 Z-0.125000
G01 X128.710605 Y118.210285 Z-0.125000
G01 X150.058262 Y118.029268 Z-0.125000
G01 X171.023885 Y118.230285 Z-0.125000
G00 Z3.000000

(End cutting path id: path334)


(Start cutting path id: path338)
(Change tool to Default tool)

G00 Z3.000000
G00 X24.075674 Y115.383814

G00 Z4.875000 (Fast pre-penetrate)
G01 Z-0.125000 F400.0(Penetrate)
G01 X43.334835 Y117.291293 Z-0.125000 F800.000000
G01 X62.458590 Y119.334178 Z-0.125000
G01 X83.195370 Y119.764038 Z-0.125000
G01 X106.008185 Y118.117864 Z-0.125000
G01 X128.937315 Y116.355373 Z-0.125000
G01 X150.274415 Y116.184913 Z-0.125000
G01 X171.185204 Y116.440765 Z-0.125000
G00 Z3.000000

(End cutting path id: path338)


(Start cutting path id: path340)
(Change tool to Default tool)

G00 Z3.000000
G00 X24.065753 Y114.579632

G00 Z4.875000 (Fast pre-penetrate)
G01 Z-0.125000 F400.0(Penetrate)
G01 X43.271425 Y116.540602 Z-0.125000 F800.000000
G01 X62.328619 Y118.650049 Z-0.125000
G01 X83.052747 Y119.092561 Z-0.125000
G01 X105.993267 Y117.318680 Z-0.125000
G01 X129.050670 Y115.427917 Z-0.125000
G01 X150.382492 Y115.262733 Z-0.125000
G01 X171.265864 Y115.546003 Z-0.125000
G00 Z3.000000

(End cutting path id: path340)


(Start cutting path id: path344)
(Change tool to Default tool)

G00 Z3.000000
G00 X24.045909 Y112.971275

G00 Z4.875000 (Fast pre-penetrate)
G01 Z-0.125000 F400.0(Penetrate)
G01 X43.144608 Y115.039216 Z-0.125000 F800.000000
G01 X62.068677 Y117.281787 Z-0.125000
G01 X82.767494 Y117.749609 Z-0.125000
G01 X105.963430 Y115.720313 Z-0.125000
G01 X129.277381 Y113.573003 Z-0.125000
G01 X150.598649 Y113.418375 Z-0.125000
G01 X171.427183 Y113.756480 Z-0.125000
G00 Z3.000000

(End cutting path id: path344)


(Start cutting path id: path346)
(Change tool to Default tool)

G00 Z3.000000
G00 X24.040443 Y112.162640

G00 Z4.875000 (Fast pre-penetrate)
G01 Z-0.125000 F400.0(Penetrate)
G01 X43.121512 Y114.248210 Z-0.125000 F800.000000
G01 X62.018615 Y116.517748 Z-0.125000
G01 X82.711921 Y116.991079 Z-0.125000
G01 X105.962316 Y114.907324 Z-0.125000
G01 X129.321918 Y112.714362 Z-0.125000
G01 X150.621958 Y112.580964 Z-0.125000
G01 X171.430160 Y112.939400 Z-0.125000
G00 Z3.000000

(End cutting path id: path346)


(Start cutting path id: path350)
(Change tool to Default tool)

G00 Z3.000000
G00 X24.029507 Y110.545371

G00 Z4.875000 (Fast pre-penetrate)
G01 Z-0.125000 F400.0(Penetrate)
G01 X43.075324 Y112.666195 Z-0.125000 F800.000000
G01 X61.918486 Y114.989673 Z-0.125000
G01 X82.600778 Y115.474021 Z-0.125000
G01 X105.960091 Y113.281347 Z-0.125000
G01 X129.410998 Y110.997081 Z-0.125000
G01 X150.668578 Y110.906141 Z-0.125000
G01 X171.436116 Y111.305243 Z-0.125000
G00 Z3.000000

(End cutting path id: path350)


(Start cutting path id: path354)
(Change tool to Default tool)

G00 Z3.000000
G00 X24.018572 Y108.928105

G00 Z4.875000 (Fast pre-penetrate)
G01 Z-0.125000 F400.0(Penetrate)
G01 X43.029136 Y111.084181 Z-0.125000 F800.000000
G01 X61.818357 Y113.461597 Z-0.125000
G01 X82.489635 Y113.956963 Z-0.125000
G01 X105.957866 Y111.655368 Z-0.125000
G01 X129.500078 Y109.279799 Z-0.125000
G01 X150.715200 Y109.231317 Z-0.125000
G01 X171.442071 Y109.671086 Z-0.125000
G00 Z3.000000

(End cutting path id: path354)


(Start cutting path id: path358)
(Change tool to Default tool)

G00 Z3.000000
G00 X24.007637 Y107.310836

G00 Z4.875000 (Fast pre-penetrate)
G01 Z-0.125000 F400.0(Penetrate)
G01 X42.982948 Y109.502166 Z-0.125000 F800.000000
G01 X61.718231 Y111.933522 Z-0.125000
G01 X82.378488 Y112.439905 Z-0.125000
G01 X105.955641 Y110.029392 Z-0.125000
G01 X129.589155 Y107.562515 Z-0.125000
G01 X150.761820 Y107.556483 Z-0.125000
G01 X171.448024 Y108.036915 Z-0.125000
G00 Z3.000000

(End cutting path id: path358)


(Start cutting path id: path362)
(Change tool to Default tool)

G00 Z3.000000
G00 X23.996702 Y105.693567

G00 Z4.875000 (Fast pre-penetrate)
G01 Z-0.125000 F400.0(Penetrate)
G01 X42.936759 Y107.920152 Z-0.125000 F800.000000
G01 X61.618102 Y110.405447 Z-0.125000
G01 X82.267345 Y110.922844 Z-0.125000
G01 X105.953416 Y108.403413 Z-0.125000
G01 X129.678235 Y105.845234 Z-0.125000
G01 X150.808439 Y105.881670 Z-0.125000
G01 X171.453980 Y106.402769 Z-0.125000
G00 Z3.000000

(End cutting path id: path362)


(Start cutting path id: path366)
(Change tool to Default tool)

G00 Z3.000000
G00 X23.985767 Y104.076298

G00 Z4.875000 (Fast pre-penetrate)
G01 Z-0.125000 F400.0(Penetrate)
G01 X42.890568 Y106.338136 Z-0.125000 F800.000000
G01 X61.517976 Y108.877371 Z-0.125000
G01 X82.156202 Y109.405786 Z-0.125000
G01 X105.951191 Y106.777437 Z-0.125000
G01 X129.767315 Y104.127953 Z-0.125000
G01 X150.855061 Y104.206846 Z-0.125000
G01 X171.459936 Y104.768612 Z-0.125000
G00 Z3.000000

(End cutting path id: path366)


(Start cutting path id: path370)
(Change tool to Default tool)

G00 Z3.000000
G00 X23.974834 Y102.459030

G00 Z4.875000 (Fast pre-penetrate)
G01 Z-0.125000 F400.0(Penetrate)
G01 X42.844380 Y104.756123 Z-0.125000 F800.000000
G01 X61.417848 Y107.349296 Z-0.125000
G01 X82.045056 Y107.888728 Z-0.125000
G01 X105.948966 Y105.151458 Z-0.125000
G01 X129.856392 Y102.410672 Z-0.125000
G01 X150.901681 Y102.532023 Z-0.125000
G01 X171.465889 Y103.134454 Z-0.125000
G00 Z3.000000

(End cutting path id: path370)


(Start cutting path id: path374)
(Change tool to Default tool)

G00 Z3.000000
G00 X23.963899 Y100.841763

G00 Z4.875000 (Fast pre-penetrate)
G01 Z-0.125000 F400.0(Penetrate)
G01 X42.798192 Y103.174107 Z-0.125000 F800.000000
G01 X61.317721 Y105.821221 Z-0.125000
G01 X81.933912 Y106.371670 Z-0.125000
G01 X105.946740 Y103.525479 Z-0.125000
G01 X129.945472 Y100.693388 Z-0.125000
G01 X150.948300 Y100.857199 Z-0.125000
G01 X171.471845 Y101.500295 Z-0.125000
G00 Z3.000000

(End cutting path id: path374)


(Start cutting path id: path378)
(Change tool to Default tool)

G00 Z3.000000
G00 X23.952964 Y99.224494

G00 Z4.875000 (Fast pre-penetrate)
G01 Z-0.125000 F400.0(Penetrate)
G01 X42.752004 Y101.592094 Z-0.125000 F800.000000
G01 X61.217593 Y104.293145 Z-0.125000
G01 X81.822766 Y104.854609 Z-0.125000
G01 X105.944515 Y101.899503 Z-0.125000
G01 X130.034551 Y98.976107 Z-0.125000
G01 X150.994922 Y99.182375 Z-0.125000
G01 X171.477801 Y99.866137 Z-0.125000
G00 Z3.000000

(End cutting path id: path378)


(Start cutting path id: path382)
(Change tool to Default tool)

G00 Z3.000000
G00 X23.942028 Y97.607226

G00 Z4.875000 (Fast pre-penetrate)
G01 Z-0.125000 F400.0(Penetrate)
G01 X42.705815 Y100.010078 Z-0.125000 F800.000000
G01 X61.117464 Y102.765070 Z-0.125000
G01 X81.711623 Y103.337551 Z-0.125000
G01 X105.942290 Y100.273524 Z-0.125000
G01 X130.123629 Y97.258825 Z-0.125000
G01 X151.041542 Y97.507552 Z-0.125000
G01 X171.483754 Y98.231980 Z-0.125000
G00 Z3.000000

(End cutting path id: path382)


(Start cutting path id: path386)
(Change tool to Default tool)

G00 Z3.000000
G00 X23.931093 Y95.989957

G00 Z4.875000 (Fast pre-penetrate)
G01 Z-0.125000 F400.0(Penetrate)
G01 X42.659627 Y98.428065 Z-0.125000 F800.000000
G01 X61.017338 Y101.236995 Z-0.125000
G01 X81.600480 Y101.820493 Z-0.125000
G01 X105.940065 Y98.647547 Z-0.125000
G01 X130.212708 Y95.541541 Z-0.125000
G01 X151.088162 Y95.832728 Z-0.125000
G01 X171.489710 Y96.597820 Z-0.125000
G00 Z3.000000

(End cutting path id: path386)


(Start cutting path id: path390)
(Change tool to Default tool)

G00 Z3.000000
G00 X23.920158 Y94.372690

G00 Z4.875000 (Fast pre-penetrate)
G01 Z-0.125000 F400.0(Penetrate)
G01 X42.613439 Y96.846049 Z-0.125000 F800.000000
G01 X60.917209 Y99.708919 Z-0.125000
G01 X81.489334 Y100.303435 Z-0.125000
G01 X105.937840 Y97.021568 Z-0.125000
G01 X130.301788 Y93.824260 Z-0.125000
G01 X151.134784 Y94.157905 Z-0.125000
G01 X171.495665 Y94.963663 Z-0.125000
G00 Z3.000000

(End cutting path id: path390)


(Start cutting path id: path394)
(Change tool to Default tool)

G00 Z3.000000
G00 X23.909223 Y92.755422

G00 Z4.875000 (Fast pre-penetrate)
G01 Z-0.125000 F400.0(Penetrate)
G01 X42.567251 Y95.264036 Z-0.125000 F800.000000
G01 X60.817083 Y98.180844 Z-0.125000
G01 X81.378190 Y98.786374 Z-0.125000
G01 X105.935615 Y95.395592 Z-0.125000
G01 X130.390865 Y92.106979 Z-0.125000
G01 X151.181403 Y92.483081 Z-0.125000
G01 X171.501618 Y93.329506 Z-0.125000
G00 Z3.000000

(End cutting path id: path394)


(Start cutting path id: path398)
(Change tool to Default tool)

G00 Z3.000000
G00 X23.816150 Y91.220292

G00 Z4.875000 (Fast pre-penetrate)
G01 Z-0.125000 F400.0(Penetrate)
G01 X42.510598 Y93.692485 Z-0.125000 F800.000000
G01 X60.776279 Y96.593441 Z-0.125000
G01 X81.339709 Y97.196654 Z-0.125000
G01 X105.910895 Y93.792108 Z-0.125000
G01 X130.389034 Y90.480606 Z-0.125000
G01 X151.213013 Y90.823270 Z-0.125000
G01 X171.547979 Y91.654944 Z-0.125000
G00 Z3.000000

(End cutting path id: path398)


(Start cutting path id: path400)
(Change tool to Default tool)

G00 Z3.000000
G00 X23.728544 Y90.493795

G00 Z4.875000 (Fast pre-penetrate)
G01 Z-0.125000 F400.0(Penetrate)
G01 X42.477038 Y92.911941 Z-0.125000 F800.000000
G01 X60.785542 Y95.770078 Z-0.125000
G01 X81.356801 Y96.365461 Z-0.125000
G01 X105.887289 Y93.001613 Z-0.125000
G01 X130.342664 Y89.712876 Z-0.125000
G01 X151.221310 Y90.000869 Z-0.125000
G01 X171.591360 Y90.797460 Z-0.125000
G00 Z3.000000

(End cutting path id: path400)


(Start cutting path id: path402)
(Change tool to Default tool)

G00 Z3.000000
G00 X23.640938 Y89.767301

G00 Z4.875000 (Fast pre-penetrate)
G01 Z-0.125000 F400.0(Penetrate)
G01 X42.443479 Y92.131400 Z-0.125000 F800.000000
G01 X60.794802 Y94.946717 Z-0.125000
G01 X81.373891 Y95.534268 Z-0.125000
G01 X105.863683 Y92.211116 Z-0.125000
G01 X130.296295 Y88.945146 Z-0.125000
G01 X151.229610 Y89.178471 Z-0.125000
G01 X171.634741 Y89.939978 Z-0.125000
G00 Z3.000000

(End cutting path id: path402)


(Start cutting path id: path404)
(Change tool to Default tool)

G00 Z3.000000
G00 X23.553332 Y89.040803

G00 Z4.875000 (Fast pre-penetrate)
G01 Z-0.125000 F400.0(Penetrate)
G01 X42.409922 Y91.350856 Z-0.125000 F800.000000
G01 X60.804065 Y94.123353 Z-0.125000
G01 X81.390983 Y94.703075 Z-0.125000
G01 X105.840076 Y91.420622 Z-0.125000
G01 X130.249925 Y88.177413 Z-0.125000
G01 X151.237908 Y88.356070 Z-0.125000
G01 X171.678122 Y89.082496 Z-0.125000
G00 Z3.000000

(End cutting path id: path404)


(Start cutting path id: path408)
(Change tool to Default tool)

G00 Z3.000000
G00 X23.378123 Y87.587814

G00 Z4.875000 (Fast pre-penetrate)
G01 Z-0.125000 F400.0(Penetrate)
G01 X42.342805 Y89.789772 Z-0.125000 F800.000000
G01 X60.822589 Y92.476625 Z-0.125000
G01 X81.425167 Y93.040690 Z-0.125000
G01 X105.792862 Y89.839632 Z-0.125000
G01 X130.157183 Y86.641951 Z-0.125000
G01 X151.254505 Y86.711269 Z-0.125000
G01 X171.764884 Y87.367530 Z-0.125000
G00 Z3.000000

(End cutting path id: path408)


(Start cutting path id: path410)
(Change tool to Default tool)

G00 Z3.000000
G00 X23.290516 Y86.861317

G00 Z4.875000 (Fast pre-penetrate)
G01 Z-0.125000 F400.0(Penetrate)
G01 X42.309245 Y89.009228 Z-0.125000 F800.000000
G01 X60.831849 Y91.653261 Z-0.125000
G01 X81.442256 Y92.209494 Z-0.125000
G01 X105.769256 Y89.049135 Z-0.125000
G01 X130.110812 Y85.874221 Z-0.125000
G01 X151.262802 Y85.888879 Z-0.125000
G01 X171.808265 Y86.510056 Z-0.125000
G00 Z3.000000

(End cutting path id: path410)


(Start cutting path id: path412)
(Change tool to Default tool)

G00 Z3.000000
G00 X23.202910 Y86.134822

G00 Z4.875000 (Fast pre-penetrate)
G01 Z-0.125000 F400.0(Penetrate)
G01 X42.275686 Y88.228684 Z-0.125000 F800.000000
G01 X60.841112 Y90.829900 Z-0.125000
G01 X81.459348 Y91.378301 Z-0.125000
G01 X105.745649 Y88.258640 Z-0.125000
G01 X130.064441 Y85.106488 Z-0.125000
G01 X151.271102 Y85.066470 Z-0.125000
G01 X171.851646 Y85.652564 Z-0.125000
G00 Z3.000000

(End cutting path id: path412)


(Start cutting path id: path414)
(Change tool to Default tool)

G00 Z3.000000
G00 X23.115304 Y85.408325

G00 Z4.875000 (Fast pre-penetrate)
G01 Z-0.125000 F400.0(Penetrate)
G01 X42.242128 Y87.448141 Z-0.125000 F800.000000
G01 X60.850373 Y90.006536 Z-0.125000
G01 X81.476440 Y90.547109 Z-0.125000
G01 X105.722043 Y87.468146 Z-0.125000
G01 X130.018071 Y84.338759 Z-0.125000
G01 X151.279399 Y84.244070 Z-0.125000
G01 X171.895027 Y84.795082 Z-0.125000
G00 Z3.000000

(End cutting path id: path414)


(Start cutting path id: path416)
(Change tool to Default tool)

G00 Z3.000000
G00 X23.027698 Y84.681830

G00 Z4.875000 (Fast pre-penetrate)
G01 Z-0.125000 F400.0(Penetrate)
G01 X42.208569 Y86.667600 Z-0.125000 F800.000000
G01 X60.859636 Y89.183173 Z-0.125000
G01 X81.493532 Y89.715916 Z-0.125000
G01 X105.698437 Y86.677651 Z-0.125000
G01 X129.971700 Y83.571026 Z-0.125000
G01 X151.287699 Y83.421669 Z-0.125000
G01 X171.938411 Y83.937598 Z-0.125000
G00 Z3.000000

(End cutting path id: path416)


(Start cutting path id: path418)
(Change tool to Default tool)

G00 Z3.000000
G00 X22.940092 Y83.955335

G00 Z4.875000 (Fast pre-penetrate)
G01 Z-0.125000 F400.0(Penetrate)
G01 X42.175012 Y85.887056 Z-0.125000 F800.000000
G01 X60.868896 Y88.359809 Z-0.125000
G01 X81.510622 Y88.884723 Z-0.125000
G01 X105.674831 Y85.887156 Z-0.125000
G01 X129.925332 Y82.803296 Z-0.125000
G01 X151.295997 Y82.599271 Z-0.125000
G01 X171.981792 Y83.080116 Z-0.125000
G00 Z3.000000

(End cutting path id: path418)


(Start cutting path id: path420)
(Change tool to Default tool)

G00 Z3.000000
G00 X22.852486 Y83.228838

G00 Z4.875000 (Fast pre-penetrate)
G01 Z-0.125000 F400.0(Penetrate)
G01 X42.141452 Y85.106512 Z-0.125000 F800.000000
G01 X60.878159 Y87.536445 Z-0.125000
G01 X81.527714 Y88.053530 Z-0.125000
G01 X105.651225 Y85.096659 Z-0.125000
G01 X129.878961 Y82.035566 Z-0.125000
G01 X151.304297 Y81.776870 Z-0.125000
G01 X172.025173 Y82.222634 Z-0.125000
G00 Z3.000000

(End cutting path id: path420)


(Start cutting path id: path422)
(Change tool to Default tool)

G00 Z3.000000
G00 X22.764880 Y82.502343

G00 Z4.875000 (Fast pre-penetrate)
G01 Z-0.125000 F400.0(Penetrate)
G01 X42.107892 Y84.325971 Z-0.125000 F800.000000
G01 X60.887419 Y86.713084 Z-0.125000
G01 X81.544806 Y87.222338 Z-0.125000
G01 X105.627619 Y84.306165 Z-0.125000
G01 X129.832590 Y81.267834 Z-0.125000
G01 X151.312594 Y80.954469 Z-0.125000
G01 X172.068554 Y81.365150 Z-0.125000
G00 Z3.000000

(End cutting path id: path422)


(Start cutting path id: path424)
(Change tool to Default tool)

G00 Z3.000000
G00 X22.677274 Y81.775846

G00 Z4.875000 (Fast pre-penetrate)
G01 Z-0.125000 F400.0(Penetrate)
G01 X42.074335 Y83.545428 Z-0.125000 F800.000000
G01 X60.896683 Y85.889720 Z-0.125000
G01 X81.561895 Y86.391145 Z-0.125000
G01 X105.604013 Y83.515670 Z-0.125000
G01 X129.786219 Y80.500104 Z-0.125000
G01 X151.320891 Y80.132069 Z-0.125000
G01 X172.111935 Y80.507668 Z-0.125000
G00 Z3.000000

(End cutting path id: path424)


(Start cutting path id: path426)
(Change tool to Default tool)

G00 Z3.000000
G00 X22.589668 Y81.049352

G00 Z4.875000 (Fast pre-penetrate)
G01 Z-0.125000 F400.0(Penetrate)
G01 X42.040775 Y82.764884 Z-0.125000 F800.000000
G01 X60.905943 Y85.066356 Z-0.125000
G01 X81.578987 Y85.559952 Z-0.125000
G01 X105.580407 Y82.725175 Z-0.125000
G01 X129.739848 Y79.732371 Z-0.125000
G01 X151.329191 Y79.309671 Z-0.125000
G01 X172.155316 Y79.650184 Z-0.125000
G00 Z3.000000

(End cutting path id: path426)


(Start cutting path id: path428)
(Change tool to Default tool)

G00 Z3.000000
G00 X22.502062 Y80.322857

G00 Z4.875000 (Fast pre-penetrate)
G01 Z-0.125000 F400.0(Penetrate)
G01 X42.007218 Y81.984340 Z-0.125000 F800.000000
G01 X60.915206 Y84.242993 Z-0.125000
G01 X81.596080 Y84.728759 Z-0.125000
G01 X105.556801 Y81.934681 Z-0.125000
G01 X129.693477 Y78.964641 Z-0.125000
G01 X151.337489 Y78.487270 Z-0.125000
G01 X172.198697 Y78.792702 Z-0.125000
G00 Z3.000000

(End cutting path id: path428)


(Start cutting path id: path430)
(Change tool to Default tool)

G00 Z3.000000
G00 X22.414456 Y79.596360

G00 Z4.875000 (Fast pre-penetrate)
G01 Z-0.125000 F400.0(Penetrate)
G01 X41.973659 Y81.203799 Z-0.125000 F800.000000
G01 X60.924466 Y83.419629 Z-0.125000
G01 X81.613172 Y83.897566 Z-0.125000
G01 X105.533192 Y81.144183 Z-0.125000
G01 X129.647107 Y78.196909 Z-0.125000
G01 X151.345789 Y77.664869 Z-0.125000
G01 X172.242078 Y77.935220 Z-0.125000
G00 Z3.000000

(End cutting path id: path430)


(Start cutting path id: path432)
(Change tool to Default tool)

G00 Z3.000000
G00 X22.326852 Y78.869865

G00 Z4.875000 (Fast pre-penetrate)
G01 Z-0.125000 F400.0(Penetrate)
G01 X41.940099 Y80.423256 Z-0.125000 F800.000000
G01 X60.933729 Y82.596268 Z-0.125000
G01 X81.630261 Y83.066374 Z-0.125000
G01 X105.509586 Y80.353689 Z-0.125000
G01 X129.600736 Y77.429179 Z-0.125000
G01 X151.354086 Y76.842469 Z-0.125000
G01 X172.285459 Y77.077736 Z-0.125000
G00 Z3.000000

(End cutting path id: path432)


(Start cutting path id: path434)
(Change tool to Default tool)

G00 Z3.000000
G00 X22.239246 Y78.143368

G00 Z4.875000 (Fast pre-penetrate)
G01 Z-0.125000 F400.0(Penetrate)
G01 X41.906542 Y79.642712 Z-0.125000 F800.000000
G01 X60.942990 Y81.772904 Z-0.125000
G01 X81.647353 Y82.235181 Z-0.125000
G01 X105.485980 Y79.563194 Z-0.125000
G01 X129.554368 Y76.661449 Z-0.125000
G01 X151.362386 Y76.020071 Z-0.125000
G01 X172.328840 Y76.220254 Z-0.125000
G00 Z3.000000

(End cutting path id: path434)


(Start cutting path id: path436)
(Change tool to Default tool)

G00 Z3.000000
G00 X22.151640 Y77.416873

G00 Z4.875000 (Fast pre-penetrate)
G01 Z-0.125000 F400.0(Penetrate)
G01 X41.872982 Y78.862171 Z-0.125000 F800.000000
G01 X60.952253 Y80.949540 Z-0.125000
G01 X81.664445 Y81.403988 Z-0.125000
G01 X105.462374 Y78.772700 Z-0.125000
G01 X129.507997 Y75.893716 Z-0.125000
G01 X151.370683 Y75.197670 Z-0.125000
G01 X172.372221 Y75.362770 Z-0.125000
G00 Z3.000000

(End cutting path id: path436)


(Start cutting path id: path438)
(Change tool to Default tool)

G00 Z3.000000
G00 X22.064034 Y76.690378

G00 Z4.875000 (Fast pre-penetrate)
G01 Z-0.125000 F400.0(Penetrate)
G01 X41.839425 Y78.081627 Z-0.125000 F800.000000
G01 X60.961513 Y80.126176 Z-0.125000
G01 X81.681535 Y80.572795 Z-0.125000
G01 X105.438768 Y77.982202 Z-0.125000
G01 X129.461626 Y75.125986 Z-0.125000
G01 X151.378983 Y74.375269 Z-0.125000
G01 X172.415602 Y74.505288 Z-0.125000
G00 Z3.000000

(End cutting path id: path438)


(Start cutting path id: path440)
(Change tool to Default tool)

G00 Z3.000000
G00 X21.976428 Y75.963881

G00 Z4.875000 (Fast pre-penetrate)
G01 Z-0.125000 F400.0(Penetrate)
G01 X41.805865 Y77.301084 Z-0.125000 F800.000000
G01 X60.970776 Y79.302815 Z-0.125000
G01 X81.698627 Y79.741602 Z-0.125000
G01 X105.415161 Y77.191708 Z-0.125000
G01 X129.415255 Y74.358254 Z-0.125000
G01 X151.387281 Y73.552868 Z-0.125000
G01 X172.458986 Y73.647806 Z-0.125000
G00 Z3.000000

(End cutting path id: path440)


(Start cutting path id: path442)
(Change tool to Default tool)

G00 Z3.000000
G00 X21.888822 Y75.237386

G00 Z4.875000 (Fast pre-penetrate)
G01 Z-0.125000 F400.0(Penetrate)
G01 X41.772306 Y76.520540 Z-0.125000 F800.000000
G01 X60.980037 Y78.479452 Z-0.125000
G01 X81.715719 Y78.910410 Z-0.125000
G01 X105.391555 Y76.401213 Z-0.125000
G01 X129.368884 Y73.590524 Z-0.125000
G01 X151.395578 Y72.730468 Z-0.125000
G01 X172.502367 Y72.790322 Z-0.125000
G00 Z3.000000

(End cutting path id: path442)


(Start cutting path id: path444)
(Change tool to Default tool)

G00 Z3.000000
G00 X21.801216 Y74.510892

G00 Z4.875000 (Fast pre-penetrate)
G01 Z-0.125000 F400.0(Penetrate)
G01 X41.738749 Y75.739999 Z-0.125000 F800.000000
G01 X60.989300 Y77.656088 Z-0.125000
G01 X81.732811 Y78.079217 Z-0.125000
G01 X105.367949 Y75.610718 Z-0.125000
G01 X129.322514 Y72.822791 Z-0.125000
G01 X151.403878 Y71.908070 Z-0.125000
G01 X172.545748 Y71.932835 Z-0.125000
G00 Z3.000000

(End cutting path id: path444)


(Start cutting path id: path446)
(Change tool to Default tool)

G00 Z3.000000
G00 X21.713610 Y73.784394

G00 Z4.875000 (Fast pre-penetrate)
G01 Z-0.125000 F400.0(Penetrate)
G01 X41.705189 Y74.959455 Z-0.125000 F800.000000
G01 X60.998560 Y76.832724 Z-0.125000
G01 X81.749900 Y77.248024 Z-0.125000
G01 X105.344343 Y74.820224 Z-0.125000
G01 X129.276143 Y72.055061 Z-0.125000
G01 X151.412175 Y71.085669 Z-0.125000
G01 X172.589129 Y71.075350 Z-0.125000
G00 Z3.000000

(End cutting path id: path446)


(Start cutting path id: path450)
(Change tool to Default tool)

G00 Z3.000000
G00 X21.452059 Y72.417744

G00 Z4.875000 (Fast pre-penetrate)
G01 Z-0.125000 F400.0(Penetrate)
G01 X41.597670 Y73.438770 Z-0.125000 F800.000000
G01 X61.013345 Y75.189738 Z-0.125000
G01 X81.789664 Y75.580058 Z-0.125000
G01 X105.310678 Y73.225685 Z-0.125000
G01 X129.195532 Y70.507471 Z-0.125000
G01 X151.415726 Y69.453914 Z-0.125000
G01 X172.649096 Y69.387186 Z-0.125000
G00 Z3.000000

(End cutting path id: path450)


(Start cutting path id: path452)
(Change tool to Default tool)

G00 Z3.000000
G00 X21.278111 Y71.777588

G00 Z4.875000 (Fast pre-penetrate)
G01 Z-0.125000 F400.0(Penetrate)
G01 X41.523712 Y72.698628 Z-0.125000 F800.000000
G01 X61.018867 Y74.370112 Z-0.125000
G01 X81.812336 Y74.743286 Z-0.125000
G01 X105.300618 Y72.421644 Z-0.125000
G01 X129.161290 Y69.727610 Z-0.125000
G01 X151.410979 Y68.644560 Z-0.125000
G01 X172.665683 Y68.556496 Z-0.125000
G00 Z3.000000

(End cutting path id: path452)


(Start cutting path id: path454)
(Change tool to Default tool)

G00 Z3.000000
G00 X21.104167 Y71.137432

G00 Z4.875000 (Fast pre-penetrate)
G01 Z-0.125000 F400.0(Penetrate)
G01 X41.449753 Y71.958486 Z-0.125000 F800.000000
G01 X61.024391 Y73.550487 Z-0.125000
G01 X81.835009 Y73.906510 Z-0.125000
G01 X105.290559 Y71.617603 Z-0.125000
G01 X129.127048 Y68.947751 Z-0.125000
G01 X151.406233 Y67.835206 Z-0.125000
G01 X172.682270 Y67.725809 Z-0.125000
G00 Z3.000000

(End cutting path id: path454)


(Start cutting path id: path456)
(Change tool to Default tool)

G00 Z3.000000
G00 X20.930220 Y70.497276

G00 Z4.875000 (Fast pre-penetrate)
G01 Z-0.125000 F400.0(Penetrate)
G01 X41.375794 Y71.218344 Z-0.125000 F800.000000
G01 X61.029913 Y72.730865 Z-0.125000
G01 X81.857681 Y73.069737 Z-0.125000
G01 X105.280499 Y70.813559 Z-0.125000
G01 X129.092805 Y68.167890 Z-0.125000
G01 X151.401486 Y67.025852 Z-0.125000
G01 X172.698856 Y66.895121 Z-0.125000
G00 Z3.000000

(End cutting path id: path456)


(Start cutting path id: path458)
(Change tool to Default tool)

G00 Z3.000000
G00 X20.756274 Y69.857120

G00 Z4.875000 (Fast pre-penetrate)
G01 Z-0.125000 F400.0(Penetrate)
G01 X41.301832 Y70.478202 Z-0.125000 F800.000000
G01 X61.035435 Y71.911239 Z-0.125000
G01 X81.880350 Y72.232964 Z-0.125000
G01 X105.270437 Y70.009517 Z-0.125000
G01 X129.058566 Y67.388032 Z-0.125000
G01 X151.396737 Y66.216498 Z-0.125000
G01 X172.715443 Y66.064431 Z-0.125000
G00 Z3.000000

(End cutting path id: path458)


(Start cutting path id: path460)
(Change tool to Default tool)

G00 Z3.000000
G00 X20.582328 Y69.216967

G00 Z4.875000 (Fast pre-penetrate)
G01 Z-0.125000 F400.0(Penetrate)
G01 X41.227873 Y69.738061 Z-0.125000 F800.000000
G01 X61.040960 Y71.091614 Z-0.125000
G01 X81.903022 Y71.396192 Z-0.125000
G01 X105.260378 Y69.205476 Z-0.125000
G01 X129.024323 Y66.608171 Z-0.125000
G01 X151.391990 Y65.407144 Z-0.125000
G01 X172.732030 Y65.233744 Z-0.125000
G00 Z3.000000

(End cutting path id: path460)


(Start cutting path id: path462)
(Change tool to Default tool)

G00 Z3.000000
G00 X20.408382 Y68.576811

G00 Z4.875000 (Fast pre-penetrate)
G01 Z-0.125000 F400.0(Penetrate)
G01 X41.153914 Y68.997919 Z-0.125000 F800.000000
G01 X61.046481 Y70.271992 Z-0.125000
G01 X81.925694 Y70.559419 Z-0.125000
G01 X105.250318 Y68.401432 Z-0.125000
G01 X128.990081 Y65.828312 Z-0.125000
G01 X151.387244 Y64.597790 Z-0.125000
G01 X172.748617 Y64.403054 Z-0.125000
G00 Z3.000000

(End cutting path id: path462)


(Start cutting path id: path464)
(Change tool to Default tool)

G00 Z3.000000
G00 X20.234436 Y67.936655

G00 Z4.875000 (Fast pre-penetrate)
G01 Z-0.125000 F400.0(Penetrate)
G01 X41.079953 Y68.257777 Z-0.125000 F800.000000
G01 X61.052006 Y69.452366 Z-0.125000
G01 X81.948366 Y69.722646 Z-0.125000
G01 X105.240259 Y67.597391 Z-0.125000
G01 X128.955839 Y65.048451 Z-0.125000
G01 X151.382494 Y63.788436 Z-0.125000
G01 X172.765203 Y63.572366 Z-0.125000
G00 Z3.000000

(End cutting path id: path464)


(Start cutting path id: path466)
(Change tool to Default tool)

G00 Z3.000000
G00 X20.060490 Y67.296499

G00 Z4.875000 (Fast pre-penetrate)
G01 Z-0.125000 F400.0(Penetrate)
G01 X41.005994 Y67.517635 Z-0.125000 F800.000000
G01 X61.057528 Y68.632741 Z-0.125000
G01 X81.971039 Y68.885870 Z-0.125000
G01 X105.230199 Y66.793350 Z-0.125000
G01 X128.921599 Y64.268590 Z-0.125000
G01 X151.377748 Y62.979081 Z-0.125000
G01 X172.781793 Y62.741679 Z-0.125000
G00 Z3.000000

(End cutting path id: path466)


(Start cutting path id: path468)
(Change tool to Default tool)

G00 Z3.000000
G00 X19.886544 Y66.656343

G00 Z4.875000 (Fast pre-penetrate)
G01 Z-0.125000 F400.0(Penetrate)
G01 X40.932035 Y66.777493 Z-0.125000 F800.000000
G01 X61.063050 Y67.813119 Z-0.125000
G01 X81.993711 Y68.049098 Z-0.125000
G01 X105.220140 Y65.989308 Z-0.125000
G01 X128.887357 Y63.488732 Z-0.125000
G01 X151.373001 Y62.169727 Z-0.125000
G01 X172.798379 Y61.910989 Z-0.125000
G00 Z3.000000

(End cutting path id: path468)


(Start cutting path id: path470)
(Change tool to Default tool)

G00 Z3.000000
G00 X19.712598 Y66.016187

G00 Z4.875000 (Fast pre-penetrate)
G01 Z-0.125000 F400.0(Penetrate)
G01 X40.858076 Y66.037354 Z-0.125000 F800.000000
G01 X61.068574 Y66.993496 Z-0.125000
G01 X82.016383 Y67.212327 Z-0.125000
G01 X105.210081 Y65.185267 Z-0.125000
G01 X128.853114 Y62.708873 Z-0.125000
G01 X151.368252 Y61.360376 Z-0.125000
G01 X172.814966 Y61.080304 Z-0.125000
G00 Z3.000000

(End cutting path id: path470)


(Start cutting path id: path472)
(Change tool to Default tool)

G00 Z3.000000
G00 X19.538652 Y65.376034

G00 Z4.875000 (Fast pre-penetrate)
G01 Z-0.125000 F400.0(Penetrate)
G01 X40.784115 Y65.297210 Z-0.125000 F800.000000
G01 X61.074096 Y66.173868 Z-0.125000
G01 X82.039052 Y66.375552 Z-0.125000
G01 X105.200021 Y64.381223 Z-0.125000
G01 X128.818875 Y61.929012 Z-0.125000
G01 X151.363505 Y60.551019 Z-0.125000
G01 X172.831553 Y60.249614 Z-0.125000
G00 Z3.000000

(End cutting path id: path472)


(Start cutting path id: path474)
(Change tool to Default tool)

G00 Z3.000000
G00 X19.364706 Y64.735878

G00 Z4.875000 (Fast pre-penetrate)
G01 Z-0.125000 F400.0(Penetrate)
G01 X40.710156 Y64.557068 Z-0.125000 F800.000000
G01 X61.079618 Y65.354246 Z-0.125000
G01 X82.061724 Y65.538779 Z-0.125000
G01 X105.189962 Y63.577182 Z-0.125000
G01 X128.784632 Y61.149151 Z-0.125000
G01 X151.358759 Y59.741665 Z-0.125000
G01 X172.848139 Y59.418924 Z-0.125000
G00 Z3.000000

(End cutting path id: path474)


(Start cutting path id: path476)
(Change tool to Default tool)

G00 Z3.000000
G00 X19.190760 Y64.095722

G00 Z4.875000 (Fast pre-penetrate)
G01 Z-0.125000 F400.0(Penetrate)
G01 X40.636197 Y63.816926 Z-0.125000 F800.000000
G01 X61.085142 Y64.534620 Z-0.125000
G01 X82.084397 Y64.702006 Z-0.125000
G01 X105.179902 Y62.773141 Z-0.125000
G01 X128.750390 Y60.369293 Z-0.125000
G01 X151.354012 Y58.932311 Z-0.125000
G01 X172.864726 Y58.588237 Z-0.125000
G00 Z3.000000

(End cutting path id: path476)


(Start cutting path id: path478)
(Change tool to Default tool)

G00 Z3.000000
G00 X19.016814 Y63.455566

G00 Z4.875000 (Fast pre-penetrate)
G01 Z-0.125000 F400.0(Penetrate)
G01 X40.562238 Y63.076784 Z-0.125000 F800.000000
G01 X61.090664 Y63.714995 Z-0.125000
G01 X82.107069 Y63.865231 Z-0.125000
G01 X105.169843 Y61.969097 Z-0.125000
G01 X128.716148 Y59.589432 Z-0.125000
G01 X151.349263 Y58.122957 Z-0.125000
G01 X172.881313 Y57.757546 Z-0.125000
G00 Z3.000000

(End cutting path id: path478)


(Start cutting path id: path480)
(Change tool to Default tool)

G00 Z3.000000
G00 X18.842868 Y62.815410

G00 Z4.875000 (Fast pre-penetrate)
G01 Z-0.125000 F400.0(Penetrate)
G01 X40.488277 Y62.336642 Z-0.125000 F800.000000
G01 X61.096186 Y62.895373 Z-0.125000
G01 X82.129741 Y63.028458 Z-0.125000
G01 X105.159783 Y61.165055 Z-0.125000
G01 X128.681908 Y58.809573 Z-0.125000
G01 X151.344516 Y57.313603 Z-0.125000
G01 X172.897900 Y56.926859 Z-0.125000
G00 Z3.000000

(End cutting path id: path480)


(Start cutting path id: path482)
(Change tool to Default tool)

G00 Z3.000000
G00 X18.668922 Y62.175254

G00 Z4.875000 (Fast pre-penetrate)
G01 Z-0.125000 F400.0(Penetrate)
G01 X40.414318 Y61.596500 Z-0.125000 F800.000000
G01 X61.101711 Y62.075747 Z-0.125000
G01 X82.152413 Y62.191685 Z-0.125000
G01 X105.149724 Y60.361014 Z-0.125000
G01 X128.647666 Y58.029712 Z-0.125000
G01 X151.339769 Y56.504249 Z-0.125000
G01 X172.914486 Y56.096172 Z-0.125000
G00 Z3.000000

(End cutting path id: path482)


(Start cutting path id: path484)
(Change tool to Default tool)

G00 Z3.000000
G00 X18.494976 Y61.535099

G00 Z4.875000 (Fast pre-penetrate)
G01 Z-0.125000 F400.0(Penetrate)
G01 X40.340359 Y60.856358 Z-0.125000 F800.000000
G01 X61.107232 Y61.256122 Z-0.125000
G01 X82.175085 Y61.354912 Z-0.125000
G01 X105.139664 Y59.556970 Z-0.125000
G01 X128.613423 Y57.249851 Z-0.125000
G01 X151.335020 Y55.694894 Z-0.125000
G01 X172.931073 Y55.265482 Z-0.125000
G00 Z3.000000

(End cutting path id: path484)


(Start cutting path id: path486)
(Change tool to Default tool)

G00 Z3.000000
G00 X18.321030 Y60.894945

G00 Z4.875000 (Fast pre-penetrate)
G01 Z-0.125000 F400.0(Penetrate)
G01 X40.266397 Y60.116217 Z-0.125000 F800.000000
G01 X61.112754 Y60.436500 Z-0.125000
G01 X82.197754 Y60.518139 Z-0.125000
G01 X105.129605 Y58.752929 Z-0.125000
G01 X128.579181 Y56.469993 Z-0.125000
G01 X151.330273 Y54.885540 Z-0.125000
G01 X172.947660 Y54.434794 Z-0.125000
G00 Z3.000000

(End cutting path id: path486)


(Start cutting path id: path488)
(Change tool to Default tool)

G00 Z3.000000
G00 X18.147084 Y60.254789

G00 Z4.875000 (Fast pre-penetrate)
G01 Z-0.125000 F400.0(Penetrate)
G01 X40.192438 Y59.376075 Z-0.125000 F800.000000
G01 X61.118279 Y59.616874 Z-0.125000
G01 X82.220427 Y59.681367 Z-0.125000
G01 X105.119546 Y57.948888 Z-0.125000
G01 X128.544941 Y55.690132 Z-0.125000
G01 X151.325527 Y54.076186 Z-0.125000
G01 X172.964246 Y53.604107 Z-0.125000
G00 Z3.000000

(End cutting path id: path488)


(Start cutting path id: path490)
(Change tool to Default tool)

G00 Z3.000000
G00 X17.973138 Y59.614633

G00 Z4.875000 (Fast pre-penetrate)
G01 Z-0.125000 F400.0(Penetrate)
G01 X40.118479 Y58.635933 Z-0.125000 F800.000000
G01 X61.123801 Y58.797249 Z-0.125000
G01 X82.243099 Y58.844591 Z-0.125000
G01 X105.109486 Y57.144846 Z-0.125000
G01 X128.510699 Y54.910274 Z-0.125000
G01 X151.320780 Y53.266832 Z-0.125000
G01 X172.980833 Y52.773417 Z-0.125000
G00 Z3.000000

(End cutting path id: path490)


(Start cutting path id: path492)
(Change tool to Default tool)

G00 Z3.000000
G00 X17.799192 Y58.974477

G00 Z4.875000 (Fast pre-penetrate)
G01 Z-0.125000 F400.0(Penetrate)
G01 X40.044521 Y57.895791 Z-0.125000 F800.000000
G01 X61.129325 Y57.977627 Z-0.125000
G01 X82.265771 Y58.007818 Z-0.125000
G01 X105.099427 Y56.340802 Z-0.125000
G01 X128.476456 Y54.130413 Z-0.125000
G01 X151.316031 Y52.457478 Z-0.125000
G01 X172.997420 Y51.942729 Z-0.125000
G00 Z3.000000

(End cutting path id: path492)


(Start cutting path id: path494)
(Change tool to Default tool)

G00 Z3.000000
G00 X17.625246 Y58.334322

G00 Z4.875000 (Fast pre-penetrate)
G01 Z-0.125000 F400.0(Penetrate)
G01 X39.970559 Y57.155649 Z-0.125000 F800.000000
G01 X61.134847 Y57.158031 Z-0.125000
G01 X82.288443 Y57.171074 Z-0.125000
G01 X105.089367 Y55.536790 Z-0.125000
G01 X128.442214 Y53.350583 Z-0.125000
G01 X151.311284 Y51.648153 Z-0.125000
G01 X173.014007 Y51.112071 Z-0.125000
G00 Z3.000000

(End cutting path id: path494)


(Start cutting path id: path496)
(Change tool to Default tool)

G00 Z3.000000
G00 X17.451300 Y57.694166

G00 Z4.875000 (Fast pre-penetrate)
G01 Z-0.125000 F400.0(Penetrate)
G01 X39.896600 Y56.415507 Z-0.125000 F800.000000
G01 X61.140369 Y56.338376 Z-0.125000
G01 X82.311115 Y56.334275 Z-0.125000
G01 X105.079308 Y54.732723 Z-0.125000
G01 X128.407974 Y52.570696 Z-0.125000
G01 X151.306538 Y50.838772 Z-0.125000
G01 X173.030593 Y50.281354 Z-0.125000
G00 Z3.000000

(End cutting path id: path496)


(Start cutting path id: path498)
(Change tool to Default tool)

G00 Z3.000000
G00 X17.277354 Y57.054010

G00 Z4.875000 (Fast pre-penetrate)
G01 Z-0.125000 F400.0(Penetrate)
G01 X39.822641 Y55.675366 Z-0.125000 F800.000000
G01 X61.145893 Y55.518754 Z-0.125000
G01 X82.333787 Y55.497508 Z-0.125000
G01 X105.069248 Y53.928684 Z-0.125000
G01 X128.373732 Y51.790840 Z-0.125000
G01 X151.301788 Y50.029424 Z-0.125000
G01 X173.047183 Y49.450672 Z-0.125000
G00 Z3.000000

(End cutting path id: path498)



(Footer)
M5
G00 X0.0000 Y0.0000
M2
(Using default footer. To add your own footer create file "footer" in the output dir.)
(end)
%