%
(Header)
(Generated by gcodetools from Inkscape.)
(Using default header. To add your own header create file "header" in the output dir.)
M3
(Header end.)
G21 (All units in mm)

(Start cutting path id: polyline374)
(Change tool to Default tool)

G00 Z3.000000
G00 X9.741786 Y128.407297

G00 Z4.875000 (Fast pre-penetrate)
G01 Z-0.125000 F400.0(Penetrate)
G01 X11.436969 Y128.428040 Z-0.125000 F800.000000
G01 X15.226221 Y127.984361 Z-0.125000
G01 X17.149342 Y127.885856 Z-0.125000
G01 X19.214915 Y127.978566 Z-0.125000
G01 X23.303305 Y128.434946 Z-0.125000
G01 X24.328987 Y128.451905 Z-0.125000
G01 X25.297652 Y128.365969 Z-0.125000
G01 X26.494255 Y128.082680 Z-0.125000
G01 X27.591163 Y127.633788 Z-0.125000
G01 X28.710191 Y127.009531 Z-0.125000
G01 X30.926153 Y125.589276 Z-0.125000
G01 X31.878996 Y125.094056 Z-0.125000
G01 X32.676740 Y124.822938 Z-0.125000
G01 X33.474457 Y124.721603 Z-0.125000
G01 X34.272202 Y124.808015 Z-0.125000
G01 X35.069946 Y125.076726 Z-0.125000
G01 X36.067106 Y125.619491 Z-0.125000
G01 X38.759476 Y127.354574 Z-0.125000
G01 X39.656942 Y127.698029 Z-0.125000
G01 X40.511651 Y127.816615 Z-0.125000
G01 X41.252404 Y127.748644 Z-0.125000
G01 X42.149869 Y127.478161 Z-0.125000
G01 X44.842240 Y126.092513 Z-0.125000
G01 X45.939121 Y125.623831 Z-0.125000
G01 X46.836587 Y125.387135 Z-0.125000
G01 X47.691296 Y125.302018 Z-0.125000
G01 X48.631492 Y125.357660 Z-0.125000
G01 X49.628652 Y125.553716 Z-0.125000
G01 X52.919324 Y126.584664 Z-0.125000
G01 X54.514812 Y126.983708 Z-0.125000
G01 X56.110274 Y127.217308 Z-0.125000
G01 X57.833953 Y127.298323 Z-0.125000
G01 X60.113203 Y127.221965 Z-0.125000
G01 X66.267192 Y126.753494 Z-0.125000
G01 X70.711737 Y126.508781 Z-0.125000
G01 X76.865699 Y126.293331 Z-0.125000
G01 X83.133644 Y126.176756 Z-0.125000
G01 X90.085351 Y126.161490 Z-0.125000
G01 X96.923101 Y126.261846 Z-0.125000
G01 X116.296742 Y127.022654 Z-0.125000
G01 X124.729954 Y127.157909 Z-0.125000
G01 X129.630349 Y127.096182 Z-0.125000
G01 X133.619044 Y126.910762 Z-0.125000
G01 X136.881220 Y126.618557 Z-0.125000
G01 X142.565098 Y125.926672 Z-0.125000
G01 X145.015295 Y125.765462 Z-0.125000
G01 X147.949838 Y125.887990 Z-0.125000
G01 X153.234830 Y126.719019 Z-0.125000
G01 X155.499846 Y126.897321 Z-0.125000
G01 X157.722105 Y126.799637 Z-0.125000
G01 X162.907403 Y126.160484 Z-0.125000
G01 X164.502891 Y126.098069 Z-0.125000
G01 X166.098353 Y126.137360 Z-0.125000
G00 Z3.000000

(End cutting path id: polyline374)


(Start cutting path id: polyline264)
(Change tool to Default tool)

G00 Z3.000000
G00 X9.741786 Y125.325725

G00 Z4.875000 (Fast pre-penetrate)
G01 Z-0.125000 F400.0(Penetrate)
G01 X12.434129 Y124.208682 Z-0.125000 F800.000000
G01 X14.029618 Y123.685178 Z-0.125000
G01 X15.724801 Y123.355799 Z-0.125000
G01 X17.491237 Y123.272746 Z-0.125000
G01 X19.015473 Y123.411070 Z-0.125000
G01 X20.610961 Y123.760981 Z-0.125000
G01 X25.696537 Y125.620841 Z-0.125000
G01 X26.722193 Y125.797767 Z-0.125000
G01 X27.591163 Y125.777395 Z-0.125000
G01 X28.488603 Y125.558981 Z-0.125000
G01 X29.507935 Y125.062306 Z-0.125000
G01 X32.078438 Y123.119182 Z-0.125000
G01 X32.975877 Y122.524823 Z-0.125000
G01 X33.673900 Y122.212747 Z-0.125000
G01 X34.471644 Y122.075561 Z-0.125000
G01 X35.169667 Y122.166683 Z-0.125000
G01 X35.867690 Y122.446136 Z-0.125000
G01 X36.598945 Y122.901933 Z-0.125000
G01 X38.992151 Y124.685249 Z-0.125000
G01 X39.756663 Y125.034525 Z-0.125000
G01 X40.554381 Y125.170388 Z-0.125000
G01 X41.252404 Y125.088262 Z-0.125000
G01 X41.950427 Y124.839739 Z-0.125000
G01 X44.399037 Y123.363895 Z-0.125000
G01 X45.241098 Y122.950934 Z-0.125000
G01 X45.939121 Y122.736939 Z-0.125000
G01 X46.665640 Y122.655077 Z-0.125000
G01 X47.434888 Y122.720879 Z-0.125000
G01 X48.232606 Y122.927280 Z-0.125000
G01 X50.924976 Y124.039058 Z-0.125000
G01 X51.922163 Y124.370792 Z-0.125000
G01 X52.919324 Y124.577669 Z-0.125000
G01 X53.959241 Y124.652414 Z-0.125000
G01 X55.811136 Y124.494379 Z-0.125000
G01 X59.799805 Y123.699148 Z-0.125000
G01 X61.794152 Y123.394507 Z-0.125000
G01 X63.987942 Y123.200488 Z-0.125000
G01 X66.609086 Y123.117383 Z-0.125000
G01 X87.464206 Y123.485577 Z-0.125000
G01 X93.960089 Y123.420225 Z-0.125000
G01 X105.470296 Y123.134740 Z-0.125000
G01 X110.028797 Y123.130242 Z-0.125000
G01 X114.929192 Y123.325530 Z-0.125000
G01 X125.413743 Y124.075861 Z-0.125000
G01 X131.225837 Y124.241675 Z-0.125000
G01 X134.644700 Y124.197331 Z-0.125000
G01 X137.721694 Y124.048292 Z-0.125000
G01 X145.556605 Y123.261051 Z-0.125000
G01 X147.864351 Y123.120373 Z-0.125000
G01 X149.459839 Y123.135718 Z-0.125000
G01 X150.941346 Y123.249489 Z-0.125000
G01 X156.126643 Y124.070120 Z-0.125000
G01 X158.348902 Y124.250565 Z-0.125000
G01 X160.613918 Y124.153384 Z-0.125000
G01 X166.098353 Y123.494943 Z-0.125000
G00 Z3.000000

(End cutting path id: polyline264)


(Start cutting path id: polyline266)
(Change tool to Default tool)

G00 Z3.000000
G00 X9.741786 Y123.339183

G00 Z4.875000 (Fast pre-penetrate)
G01 Z-0.125000 F400.0(Penetrate)
G01 X12.035271 Y122.130250 Z-0.125000 F800.000000
G01 X13.830175 Y121.475883 Z-0.125000
G01 X15.824522 Y121.105229 Z-0.125000
G01 X17.947087 Y121.062446 Z-0.125000
G01 X19.613774 Y121.269773 Z-0.125000
G01 X21.109541 Y121.657520 Z-0.125000
G01 X22.705003 Y122.295694 Z-0.125000
G01 X26.394534 Y124.148119 Z-0.125000
G01 X27.391721 Y124.431964 Z-0.125000
G01 X28.388881 Y124.467338 Z-0.125000
G01 X29.286347 Y124.240035 Z-0.125000
G01 X30.128409 Y123.801039 Z-0.125000
G01 X30.881809 Y123.254331 Z-0.125000
G01 X32.716612 Y121.697895 Z-0.125000
G01 X33.496630 Y121.161771 Z-0.125000
G01 X34.172480 Y120.861204 Z-0.125000
G01 X34.870503 Y120.753757 Z-0.125000
G01 X35.468805 Y120.837974 Z-0.125000
G01 X36.155742 Y121.127322 Z-0.125000
G01 X36.944622 Y121.662229 Z-0.125000
G01 X39.080786 Y123.358974 Z-0.125000
G01 X39.856358 Y123.728358 Z-0.125000
G01 X40.554381 Y123.847129 Z-0.125000
G01 X41.152683 Y123.781327 Z-0.125000
G01 X41.917195 Y123.494255 Z-0.125000
G01 X44.842240 Y121.673421 Z-0.125000
G01 X45.540262 Y121.426195 Z-0.125000
G01 X46.238259 Y121.333326 Z-0.125000
G01 X46.936282 Y121.391984 Z-0.125000
G01 X47.634305 Y121.579732 Z-0.125000
G01 X50.226953 Y122.751544 Z-0.125000
G01 X51.124419 Y123.075632 Z-0.125000
G01 X52.021858 Y123.271476 Z-0.125000
G01 X52.819602 Y123.329578 Z-0.125000
G01 X54.514812 Y123.147625 Z-0.125000
G01 X59.201503 Y122.048018 Z-0.125000
G01 X60.796991 Y121.858153 Z-0.125000
G01 X62.392453 Y121.791875 Z-0.125000
G01 X65.013598 Y121.861222 Z-0.125000
G01 X76.409849 Y122.535089 Z-0.125000
G01 X85.754788 Y122.736886 Z-0.125000
G01 X91.680839 Y122.715508 Z-0.125000
G01 X97.037057 Y122.594091 Z-0.125000
G01 X110.142753 Y121.893184 Z-0.125000
G01 X113.789553 Y121.791187 Z-0.125000
G01 X117.892204 Y121.903397 Z-0.125000
G01 X127.692993 Y122.711460 Z-0.125000
G01 X133.277149 Y122.929370 Z-0.125000
G01 X136.696038 Y122.904843 Z-0.125000
G01 X139.886988 Y122.757524 Z-0.125000
G01 X147.750395 Y121.935755 Z-0.125000
G01 X150.143601 Y121.793515 Z-0.125000
G01 X153.035414 Y121.938189 Z-0.125000
G01 X157.921548 Y122.734981 Z-0.125000
G01 X159.944391 Y122.920321 Z-0.125000
G01 X162.309101 Y122.844307 Z-0.125000
G01 X166.098353 Y122.346626 Z-0.125000
G00 Z3.000000

(End cutting path id: polyline266)


(Start cutting path id: polyline268)
(Change tool to Default tool)

G00 Z3.000000
G00 X9.741786 Y121.258714

G00 Z4.875000 (Fast pre-penetrate)
G01 Z-0.125000 F400.0(Penetrate)
G01 X11.436969 Y120.260045 Z-0.125000 F800.000000
G01 X13.132152 Y119.589830 Z-0.125000
G01 X14.927057 Y119.218064 Z-0.125000
G01 X17.149342 Y119.082889 Z-0.125000
G01 X19.713496 Y119.264314 Z-0.125000
G01 X20.810377 Y119.482991 Z-0.125000
G01 X21.807564 Y119.783478 Z-0.125000
G01 X23.569237 Y120.585429 Z-0.125000
G01 X27.092557 Y122.719794 Z-0.125000
G01 X27.990022 Y123.059519 Z-0.125000
G01 X28.787767 Y123.165696 Z-0.125000
G01 X29.585511 Y123.046713 Z-0.125000
G01 X30.383228 Y122.692198 Z-0.125000
G01 X31.360466 Y121.983010 Z-0.125000
G01 X33.594128 Y120.020968 Z-0.125000
G01 X34.383009 Y119.582236 Z-0.125000
G01 X35.169667 Y119.429837 Z-0.125000
G01 X35.767969 Y119.527044 Z-0.125000
G01 X36.333039 Y119.775250 Z-0.125000
G01 X37.024394 Y120.251208 Z-0.125000
G01 X39.169421 Y122.043123 Z-0.125000
G01 X39.856358 Y122.392161 Z-0.125000
G01 X40.554381 Y122.523897 Z-0.125000
G01 X41.152683 Y122.450528 Z-0.125000
G01 X41.828560 Y122.181129 Z-0.125000
G01 X43.955860 Y120.721160 Z-0.125000
G01 X44.664969 Y120.320211 Z-0.125000
G01 X45.340820 Y120.083330 Z-0.125000
G01 X45.939121 Y120.009776 Z-0.125000
G01 X46.637144 Y120.083806 Z-0.125000
G01 X47.335167 Y120.304680 Z-0.125000
G01 X50.326675 Y121.724883 Z-0.125000
G01 X51.124419 Y121.932448 Z-0.125000
G01 X51.922163 Y122.006214 Z-0.125000
G01 X53.517625 Y121.803596 Z-0.125000
G01 X57.506320 Y120.699703 Z-0.125000
G01 X58.702923 Y120.528862 Z-0.125000
G01 X59.999247 Y120.467743 Z-0.125000
G01 X61.993594 Y120.562014 Z-0.125000
G01 X67.079171 Y121.115098 Z-0.125000
G01 X70.027948 Y121.354175 Z-0.125000
G01 X73.560793 Y121.518640 Z-0.125000
G01 X77.777399 Y121.596798 Z-0.125000
G01 X95.441595 Y121.606349 Z-0.125000
G01 X101.025752 Y121.532107 Z-0.125000
G01 X106.154058 Y121.282315 Z-0.125000
G01 X114.359386 Y120.581805 Z-0.125000
G01 X117.436354 Y120.468060 Z-0.125000
G01 X121.425048 Y120.629747 Z-0.125000
G01 X130.314137 Y121.505279 Z-0.125000
G01 X134.986594 Y121.710119 Z-0.125000
G01 X138.747350 Y121.702790 Z-0.125000
G01 X142.265934 Y121.543088 Z-0.125000
G01 X145.058025 Y121.282897 Z-0.125000
G01 X150.343044 Y120.612152 Z-0.125000
G01 X152.650790 Y120.469463 Z-0.125000
G01 X155.328899 Y120.615989 Z-0.125000
G01 X159.816174 Y121.375315 Z-0.125000
G01 X161.653809 Y121.578118 Z-0.125000
G01 X163.705147 Y121.575261 Z-0.125000
G01 X166.098353 Y121.314329 Z-0.125000
G00 Z3.000000

(End cutting path id: polyline268)


(Start cutting path id: polyline270)
(Change tool to Default tool)

G00 Z3.000000
G00 X9.741786 Y119.202137

G00 Z4.875000 (Fast pre-penetrate)
G01 Z-0.125000 F400.0(Penetrate)
G01 X10.738946 Y118.592484 Z-0.125000 F800.000000
G01 X11.636412 Y118.172459 Z-0.125000
G01 X12.633572 Y117.846149 Z-0.125000
G01 X13.730454 Y117.627550 Z-0.125000
G01 X15.098004 Y117.496582 Z-0.125000
G01 X17.035387 Y117.447607 Z-0.125000
G01 X19.086699 Y117.488776 Z-0.125000
G01 X20.511240 Y117.613818 Z-0.125000
G01 X22.006980 Y117.923010 Z-0.125000
G01 X23.303305 Y118.413071 Z-0.125000
G01 X24.721523 Y119.222853 Z-0.125000
G01 X27.735202 Y121.329596 Z-0.125000
G01 X28.588324 Y121.709960 Z-0.125000
G01 X29.386068 Y121.841961 Z-0.125000
G01 X30.084091 Y121.743350 Z-0.125000
G01 X30.837491 Y121.405002 Z-0.125000
G01 X31.599781 Y120.846123 Z-0.125000
G01 X34.028441 Y118.625637 Z-0.125000
G01 X34.671087 Y118.263184 Z-0.125000
G01 X35.369083 Y118.107583 Z-0.125000
G01 X35.967411 Y118.195531 Z-0.125000
G01 X36.510309 Y118.442651 Z-0.125000
G01 X37.183938 Y118.924986 Z-0.125000
G01 X39.178285 Y120.680547 Z-0.125000
G01 X39.856358 Y121.055858 Z-0.125000
G01 X40.554381 Y121.200638 Z-0.125000
G01 X41.152683 Y121.120046 Z-0.125000
G01 X41.828560 Y120.825353 Z-0.125000
G01 X43.778590 Y119.406500 Z-0.125000
G01 X44.443354 Y119.007933 Z-0.125000
G01 X45.041656 Y118.775655 Z-0.125000
G01 X45.639957 Y118.686597 Z-0.125000
G01 X46.238259 Y118.744831 Z-0.125000
G01 X46.936282 Y118.967822 Z-0.125000
G01 X49.828095 Y120.426733 Z-0.125000
G01 X50.526117 Y120.616333 Z-0.125000
G01 X51.224140 Y120.683696 Z-0.125000
G01 X52.620186 Y120.491450 Z-0.125000
G01 X56.209995 Y119.367078 Z-0.125000
G01 X57.207156 Y119.202772 Z-0.125000
G01 X58.289803 Y119.144960 Z-0.125000
G01 X60.098969 Y119.268441 Z-0.125000
G01 X65.882568 Y120.072165 Z-0.125000
G01 X70.369842 Y120.281344 Z-0.125000
G01 X87.350250 Y120.011840 Z-0.125000
G01 X102.051408 Y120.272507 Z-0.125000
G01 X105.812191 Y120.262956 Z-0.125000
G01 X109.458991 Y120.076848 Z-0.125000
G01 X116.638636 Y119.299874 Z-0.125000
G01 X119.829586 Y119.144775 Z-0.125000
G01 X123.219953 Y119.321411 Z-0.125000
G01 X131.297063 Y120.286556 Z-0.125000
G01 X136.012250 Y120.534577 Z-0.125000
G01 X140.798689 Y120.549049 Z-0.125000
G01 X144.758887 Y120.384267 Z-0.125000
G01 X147.750395 Y120.083806 Z-0.125000
G01 X153.135109 Y119.297148 Z-0.125000
G01 X155.385890 Y119.145833 Z-0.125000
G01 X158.021269 Y119.315087 Z-0.125000
G01 X163.306288 Y120.198741 Z-0.125000
G01 X164.730803 Y120.283381 Z-0.125000
G01 X166.098353 Y120.248377 Z-0.125000
G00 Z3.000000

(End cutting path id: polyline270)


(Start cutting path id: polyline272)
(Change tool to Default tool)

G00 Z3.000000
G00 X9.741786 Y117.244804

G00 Z4.875000 (Fast pre-penetrate)
G01 Z-0.125000 F400.0(Penetrate)
G01 X10.539503 Y116.802422 Z-0.125000 F800.000000
G01 X11.337248 Y116.481932 Z-0.125000
G01 X12.234713 Y116.252301 Z-0.125000
G01 X13.160648 Y116.130354 Z-0.125000
G01 X20.112355 Y116.085243 Z-0.125000
G01 X22.006980 Y116.226954 Z-0.125000
G01 X23.203584 Y116.526223 Z-0.125000
G01 X24.278320 Y116.999139 Z-0.125000
G01 X25.519240 Y117.799212 Z-0.125000
G01 X28.267014 Y119.939212 Z-0.125000
G01 X29.086904 Y120.358285 Z-0.125000
G01 X29.884648 Y120.518040 Z-0.125000
G01 X30.582671 Y120.415699 Z-0.125000
G01 X31.360466 Y120.027530 Z-0.125000
G01 X32.150960 Y119.382582 Z-0.125000
G01 X34.232329 Y117.357252 Z-0.125000
G01 X34.970225 Y116.919209 Z-0.125000
G01 X35.568526 Y116.786970 Z-0.125000
G01 X36.166828 Y116.872272 Z-0.125000
G01 X36.765129 Y117.171674 Z-0.125000
G01 X39.258057 Y119.368983 Z-0.125000
G01 X39.967166 Y119.763370 Z-0.125000
G01 X40.554381 Y119.877247 Z-0.125000
G01 X41.152683 Y119.790728 Z-0.125000
G01 X41.739925 Y119.525669 Z-0.125000
G01 X43.689954 Y118.049931 Z-0.125000
G01 X44.343633 Y117.650595 Z-0.125000
G01 X44.842240 Y117.451894 Z-0.125000
G01 X45.440541 Y117.364581 Z-0.125000
G01 X46.038843 Y117.435384 Z-0.125000
G01 X46.637144 Y117.641176 Z-0.125000
G01 X49.329514 Y119.094266 Z-0.125000
G01 X50.027537 Y119.296831 Z-0.125000
G01 X50.654308 Y119.360648 Z-0.125000
G01 X51.323862 Y119.308975 Z-0.125000
G01 X52.021858 Y119.145569 Z-0.125000
G01 X55.212808 Y118.036013 Z-0.125000
G01 X56.922253 Y117.822072 Z-0.125000
G01 X58.603201 Y117.954390 Z-0.125000
G01 X63.289919 Y118.770178 Z-0.125000
G01 X66.381148 Y118.960096 Z-0.125000
G01 X69.230204 Y118.907947 Z-0.125000
G01 X79.600799 Y118.433232 Z-0.125000
G01 X87.464206 Y118.321895 Z-0.125000
G01 X95.099701 Y118.423204 Z-0.125000
G01 X105.926146 Y118.913159 Z-0.125000
G01 X109.345009 Y118.952026 Z-0.125000
G01 X112.251056 Y118.784995 Z-0.125000
G01 X118.433540 Y117.984102 Z-0.125000
G01 X121.197136 Y117.821913 Z-0.125000
G01 X124.316861 Y118.017995 Z-0.125000
G01 X131.596201 Y119.067040 Z-0.125000
G01 X135.898294 Y119.319188 Z-0.125000
G01 X143.533789 Y119.346863 Z-0.125000
G01 X147.636439 Y119.213937 Z-0.125000
G01 X150.741903 Y118.885563 Z-0.125000
G01 X156.126643 Y117.979207 Z-0.125000
G01 X158.234946 Y117.822918 Z-0.125000
G01 X160.613918 Y117.977038 Z-0.125000
G01 X164.502891 Y118.686623 Z-0.125000
G01 X166.098353 Y118.897972 Z-0.125000
G00 Z3.000000

(End cutting path id: polyline272)


(Start cutting path id: polyline274)
(Change tool to Default tool)

G00 Z3.000000
G00 X9.741786 Y115.424738

G00 Z4.875000 (Fast pre-penetrate)
G01 Z-0.125000 F400.0(Penetrate)
G01 X10.938389 Y114.957273 Z-0.125000 F800.000000
G01 X12.248948 Y114.768757 Z-0.125000
G01 X17.035387 Y115.019503 Z-0.125000
G01 X21.479905 Y114.764577 Z-0.125000
G01 X23.103889 Y114.868902 Z-0.125000
G01 X24.101049 Y115.143671 Z-0.125000
G01 X25.076064 Y115.616111 Z-0.125000
G01 X26.175168 Y116.392106 Z-0.125000
G01 X28.807716 Y118.618466 Z-0.125000
G01 X29.585511 Y119.040767 Z-0.125000
G01 X30.383228 Y119.196792 Z-0.125000
G01 X31.081251 Y119.059473 Z-0.125000
G01 X31.723871 Y118.707499 Z-0.125000
G01 X32.368527 Y118.172274 Z-0.125000
G01 X34.399122 Y116.099954 Z-0.125000
G01 X35.092091 Y115.637965 Z-0.125000
G01 X35.767969 Y115.464055 Z-0.125000
G01 X36.266549 Y115.527079 Z-0.125000
G01 X36.864851 Y115.813225 Z-0.125000
G01 X37.582823 Y116.397583 Z-0.125000
G01 X39.258057 Y118.001909 Z-0.125000
G01 X39.967166 Y118.428311 Z-0.125000
G01 X40.554381 Y118.553749 Z-0.125000
G01 X41.052988 Y118.494589 Z-0.125000
G01 X41.739925 Y118.180608 Z-0.125000
G01 X44.144217 Y116.357472 Z-0.125000
G01 X44.742518 Y116.110881 Z-0.125000
G01 X45.241098 Y116.042407 Z-0.125000
G01 X45.839400 Y116.115432 Z-0.125000
G01 X46.437702 Y116.341756 Z-0.125000
G01 X48.930629 Y117.766086 Z-0.125000
G01 X49.628652 Y117.980769 Z-0.125000
G01 X50.226953 Y118.037019 Z-0.125000
G01 X51.423557 Y117.836544 Z-0.125000
G01 X54.415091 Y116.709394 Z-0.125000
G01 X55.212808 Y116.550697 Z-0.125000
G01 X56.010553 Y116.498919 Z-0.125000
G01 X57.506320 Y116.645074 Z-0.125000
G01 X61.495014 Y117.460360 Z-0.125000
G01 X64.101898 Y117.639456 Z-0.125000
G01 X66.153236 Y117.573231 Z-0.125000
G01 X71.965304 Y117.141935 Z-0.125000
G01 X75.726087 Y116.956488 Z-0.125000
G01 X87.122338 Y116.838273 Z-0.125000
G01 X98.860457 Y116.941910 Z-0.125000
G01 X102.621240 Y117.119128 Z-0.125000
G01 X109.003141 Y117.576539 Z-0.125000
G01 X111.738241 Y117.634006 Z-0.125000
G01 X114.345125 Y117.462503 Z-0.125000
G01 X119.630144 Y116.664891 Z-0.125000
G01 X121.994854 Y116.499421 Z-0.125000
G01 X123.362404 Y116.542892 Z-0.125000
G01 X124.815441 Y116.698255 Z-0.125000
G01 X131.297063 Y117.809054 Z-0.125000
G01 X134.872638 Y118.032733 Z-0.125000
G01 X141.824345 Y117.945870 Z-0.125000
G01 X148.548139 Y118.037707 Z-0.125000
G01 X151.055301 Y117.978758 Z-0.125000
G01 X153.633716 Y117.713434 Z-0.125000
G01 X158.719292 Y116.736514 Z-0.125000
G01 X160.970047 Y116.504845 Z-0.125000
G01 X163.206567 Y116.619357 Z-0.125000
G01 X166.098353 Y117.142464 Z-0.125000
G00 Z3.000000

(End cutting path id: polyline274)


(Start cutting path id: polyline276)
(Change tool to Default tool)

G00 Z3.000000
G00 X9.741786 Y113.752044

G00 Z4.875000 (Fast pre-penetrate)
G01 Z-0.125000 F400.0(Penetrate)
G01 X10.738946 Y113.489181 Z-0.125000 F800.000000
G01 X11.793098 Y113.445287 Z-0.125000
G01 X15.625080 Y114.001705 Z-0.125000
G01 X17.377254 Y114.096452 Z-0.125000
G01 X19.015473 Y113.977125 Z-0.125000
G01 X22.306144 Y113.469893 Z-0.125000
G01 X23.189349 Y113.440974 Z-0.125000
G01 X24.001328 Y113.531673 Z-0.125000
G01 X24.898793 Y113.805358 Z-0.125000
G01 X25.785173 Y114.279596 Z-0.125000
G01 X26.733597 Y115.002913 Z-0.125000
G01 X29.242029 Y117.274279 Z-0.125000
G01 X29.984370 Y117.706290 Z-0.125000
G01 X30.682392 Y117.870808 Z-0.125000
G01 X31.369329 Y117.761905 Z-0.125000
G01 X31.989803 Y117.426229 Z-0.125000
G01 X32.716612 Y116.794749 Z-0.125000
G01 X34.737550 Y114.683429 Z-0.125000
G01 X35.369083 Y114.279808 Z-0.125000
G01 X35.967411 Y114.138679 Z-0.125000
G01 X36.465992 Y114.220462 Z-0.125000
G01 X37.104166 Y114.561642 Z-0.125000
G01 X39.040490 Y116.443912 Z-0.125000
G01 X39.612624 Y116.893279 Z-0.125000
G01 X40.155522 Y117.160164 Z-0.125000
G01 X40.654102 Y117.231496 Z-0.125000
G01 X41.152683 Y117.137728 Z-0.125000
G01 X41.731061 Y116.846157 Z-0.125000
G01 X43.955860 Y115.075356 Z-0.125000
G01 X44.543076 Y114.808445 Z-0.125000
G01 X45.041656 Y114.719677 Z-0.125000
G01 X45.639957 Y114.787675 Z-0.125000
G01 X46.138564 Y114.975159 Z-0.125000
G01 X48.631492 Y116.451981 Z-0.125000
G01 X49.229793 Y116.646238 Z-0.125000
G01 X49.828095 Y116.714951 Z-0.125000
G01 X50.426396 Y116.657430 Z-0.125000
G01 X51.024698 Y116.493971 Z-0.125000
G01 X53.717068 Y115.401904 Z-0.125000
G01 X54.415091 Y115.241408 Z-0.125000
G01 X55.212808 Y115.176083 Z-0.125000
G01 X56.608854 Y115.324752 Z-0.125000
G01 X60.198690 Y116.149934 Z-0.125000
G01 X62.392453 Y116.316568 Z-0.125000
G01 X64.187358 Y116.234918 Z-0.125000
G01 X70.597754 Y115.651803 Z-0.125000
G01 X76.067955 Y115.514379 Z-0.125000
G01 X87.122338 Y115.602988 Z-0.125000
G01 X101.367646 Y115.538165 Z-0.125000
G01 X105.242358 Y115.716335 Z-0.125000
G01 X111.282391 Y116.256984 Z-0.125000
G01 X113.447659 Y116.312626 Z-0.125000
G01 X116.040308 Y116.103208 Z-0.125000
G01 X120.826747 Y115.289933 Z-0.125000
G01 X122.906554 Y115.178702 Z-0.125000
G01 X125.214300 Y115.409604 Z-0.125000
G01 X130.599040 Y116.502570 Z-0.125000
G01 X132.137538 Y116.665209 Z-0.125000
G01 X133.619044 Y116.715189 Z-0.125000
G01 X135.784338 Y116.641000 Z-0.125000
G01 X140.912644 Y116.271509 Z-0.125000
G01 X143.647745 Y116.195971 Z-0.125000
G01 X146.724739 Y116.282357 Z-0.125000
G01 X152.422852 Y116.685026 Z-0.125000
G01 X154.702102 Y116.693757 Z-0.125000
G01 X157.323246 Y116.404515 Z-0.125000
G01 X161.311941 Y115.531656 Z-0.125000
G01 X162.807681 Y115.278768 Z-0.125000
G01 X164.388909 Y115.176109 Z-0.125000
G01 X166.098353 Y115.283636 Z-0.125000
G00 Z3.000000

(End cutting path id: polyline276)


(Start cutting path id: polyline278)
(Change tool to Default tool)

G00 Z3.000000
G00 X9.741786 Y112.218124

G00 Z4.875000 (Fast pre-penetrate)
G01 Z-0.125000 F400.0(Penetrate)
G01 X10.539503 Y112.116710 Z-0.125000 F800.000000
G01 X11.436969 Y112.174309 Z-0.125000
G01 X15.226221 Y113.075849 Z-0.125000
G01 X17.263298 Y113.272302 Z-0.125000
G01 X19.314637 Y113.066695 Z-0.125000
G01 X23.103889 Y112.171849 Z-0.125000
G01 X23.987093 Y112.115916 Z-0.125000
G01 X24.699351 Y112.194576 Z-0.125000
G01 X25.596816 Y112.492947 Z-0.125000
G01 X26.574027 Y113.093603 Z-0.125000
G01 X27.437044 Y113.837954 Z-0.125000
G01 X29.206575 Y115.589679 Z-0.125000
G01 X29.862503 Y116.111066 Z-0.125000
G01 X30.482950 Y116.439414 Z-0.125000
G01 X31.081251 Y116.550248 Z-0.125000
G01 X31.679553 Y116.435498 Z-0.125000
G01 X32.317754 Y116.072569 Z-0.125000
G01 X33.021200 Y115.429368 Z-0.125000
G01 X34.950275 Y113.340115 Z-0.125000
G01 X35.568526 Y112.946707 Z-0.125000
G01 X36.067106 Y112.817511 Z-0.125000
G01 X36.565713 Y112.885165 Z-0.125000
G01 X37.104166 Y113.152711 Z-0.125000
G01 X37.735117 Y113.683570 Z-0.125000
G01 X39.435354 Y115.403862 Z-0.125000
G01 X40.055801 Y115.790021 Z-0.125000
G01 X40.654102 Y115.908713 Z-0.125000
G01 X41.152683 Y115.815395 Z-0.125000
G01 X41.731061 Y115.513162 Z-0.125000
G01 X43.955860 Y113.701747 Z-0.125000
G01 X44.443354 Y113.485292 Z-0.125000
G01 X44.941961 Y113.395175 Z-0.125000
G01 X45.440541 Y113.452589 Z-0.125000
G01 X45.939121 Y113.630257 Z-0.125000
G01 X48.432049 Y115.151450 Z-0.125000
G01 X48.930629 Y115.319884 Z-0.125000
G01 X49.528931 Y115.391480 Z-0.125000
G01 X50.625839 Y115.186455 Z-0.125000
G01 X53.218488 Y114.075629 Z-0.125000
G01 X54.529047 Y113.854041 Z-0.125000
G01 X55.910831 Y114.004324 Z-0.125000
G01 X59.201503 Y114.834321 Z-0.125000
G01 X61.024903 Y114.993600 Z-0.125000
G01 X62.691617 Y114.906817 Z-0.125000
G01 X67.876915 Y114.322988 Z-0.125000
G01 X71.737393 Y114.191517 Z-0.125000
G01 X87.464206 Y114.479198 Z-0.125000
G01 X104.216702 Y114.201888 Z-0.125000
G01 X107.065758 Y114.335582 Z-0.125000
G01 X112.450499 Y114.907055 Z-0.125000
G01 X114.587297 Y114.991404 Z-0.125000
G01 X116.937773 Y114.786961 Z-0.125000
G01 X121.325327 Y113.959954 Z-0.125000
G01 X123.134492 Y113.855681 Z-0.125000
G01 X125.314021 Y114.109337 Z-0.125000
G01 X129.901017 Y115.186560 Z-0.125000
G01 X131.111855 Y115.341183 Z-0.125000
G01 X132.365449 Y115.392088 Z-0.125000
G01 X134.587708 Y115.245113 Z-0.125000
G01 X140.969636 Y114.355690 Z-0.125000
G01 X145.015295 Y114.156989 Z-0.125000
G01 X148.847277 Y114.328465 Z-0.125000
G01 X155.827479 Y115.272920 Z-0.125000
G01 X157.209290 Y115.378515 Z-0.125000
G01 X158.576841 Y115.376134 Z-0.125000
G01 X160.813361 Y115.104090 Z-0.125000
G01 X164.502891 Y114.226918 Z-0.125000
G01 X166.098353 Y113.944952 Z-0.125000
G00 Z3.000000

(End cutting path id: polyline278)


(Start cutting path id: polyline280)
(Change tool to Default tool)

G00 Z3.000000
G00 X9.741786 Y110.802605

G00 Z4.875000 (Fast pre-penetrate)
G01 Z-0.125000 F400.0(Penetrate)
G01 X10.539503 Y110.827608 Z-0.125000 F800.000000
G01 X11.337248 Y110.991544 Z-0.125000
G01 X15.226221 Y112.244900 Z-0.125000
G01 X16.223381 Y112.417435 Z-0.125000
G01 X17.263298 Y112.480458 Z-0.125000
G01 X18.417171 Y112.405819 Z-0.125000
G01 X19.613774 Y112.175685 Z-0.125000
G01 X23.702190 Y110.883303 Z-0.125000
G01 X24.556899 Y110.792287 Z-0.125000
G01 X25.297652 Y110.867111 Z-0.125000
G01 X26.195118 Y111.193950 Z-0.125000
G01 X27.026094 Y111.742933 Z-0.125000
G01 X27.799655 Y112.440057 Z-0.125000
G01 X29.467639 Y114.177679 Z-0.125000
G01 X30.217044 Y114.807148 Z-0.125000
G01 X30.782114 Y115.110413 Z-0.125000
G01 X31.380415 Y115.227094 Z-0.125000
G01 X31.978717 Y115.100968 Z-0.125000
G01 X32.521615 Y114.779764 Z-0.125000
G01 X33.166245 Y114.191331 Z-0.125000
G01 X35.124344 Y112.012358 Z-0.125000
G01 X35.767969 Y111.603022 Z-0.125000
G01 X36.266549 Y111.494358 Z-0.125000
G01 X36.765129 Y111.585295 Z-0.125000
G01 X37.219392 Y111.832124 Z-0.125000
G01 X37.807639 Y112.332424 Z-0.125000
G01 X39.523989 Y114.105765 Z-0.125000
G01 X40.055801 Y114.448665 Z-0.125000
G01 X40.654102 Y114.585745 Z-0.125000
G01 X41.152683 Y114.497348 Z-0.125000
G01 X41.731061 Y114.189876 Z-0.125000
G01 X43.867225 Y112.396295 Z-0.125000
G01 X44.343633 Y112.171584 Z-0.125000
G01 X44.842240 Y112.072551 Z-0.125000
G01 X45.340820 Y112.130891 Z-0.125000
G01 X45.905890 Y112.349014 Z-0.125000
G01 X48.132911 Y113.782498 Z-0.125000
G01 X48.731213 Y114.001758 Z-0.125000
G01 X49.229793 Y114.066633 Z-0.125000
G01 X49.828095 Y114.012844 Z-0.125000
G01 X50.426396 Y113.831234 Z-0.125000
G01 X52.819602 Y112.751656 Z-0.125000
G01 X53.517625 Y112.580603 Z-0.125000
G01 X54.187152 Y112.531205 Z-0.125000
G01 X55.412251 Y112.691860 Z-0.125000
G01 X58.403759 Y113.509792 Z-0.125000
G01 X60.113203 Y113.670897 Z-0.125000
G01 X61.694430 Y113.568582 Z-0.125000
G01 X66.081984 Y112.992665 Z-0.125000
G01 X69.116248 Y112.868549 Z-0.125000
G01 X79.942694 Y113.237589 Z-0.125000
G01 X87.464206 Y113.321303 Z-0.125000
G01 X94.871789 Y113.244389 Z-0.125000
G01 X103.646896 Y112.902865 Z-0.125000
G01 X106.268041 Y112.874290 Z-0.125000
G01 X109.060106 Y113.031929 Z-0.125000
G01 X113.746823 Y113.603640 Z-0.125000
G01 X115.498997 Y113.667378 Z-0.125000
G01 X117.536075 Y113.468914 Z-0.125000
G01 X121.425048 Y112.656115 Z-0.125000
G01 X123.020537 Y112.530279 Z-0.125000
G01 X124.017697 Y112.589969 Z-0.125000
G01 X125.014857 Y112.754328 Z-0.125000
G01 X129.402437 Y113.898623 Z-0.125000
G01 X130.428093 Y114.034275 Z-0.125000
G01 X131.453749 Y114.067586 Z-0.125000
G01 X133.590548 Y113.839092 Z-0.125000
G01 X137.878380 Y112.887943 Z-0.125000
G01 X140.171891 Y112.507419 Z-0.125000
G01 X142.850001 Y112.272258 Z-0.125000
G01 X146.040951 Y112.191057 Z-0.125000
G01 X149.573795 Y112.266966 Z-0.125000
G01 X152.437113 Y112.511891 Z-0.125000
G01 X154.730597 Y112.882730 Z-0.125000
G01 X159.018430 Y113.801574 Z-0.125000
G01 X160.970047 Y114.047769 Z-0.125000
G01 X162.109659 Y114.061818 Z-0.125000
G01 X163.306288 Y113.957943 Z-0.125000
G01 X166.098353 Y113.345962 Z-0.125000
G00 Z3.000000

(End cutting path id: polyline280)


(Start cutting path id: polyline282)
(Change tool to Default tool)

G00 Z3.000000
G00 X9.741786 Y109.477891

G00 Z4.875000 (Fast pre-penetrate)
G01 Z-0.125000 F400.0(Penetrate)
G01 X11.038084 Y109.776499 Z-0.125000 F800.000000
G01 X13.630732 Y110.876980 Z-0.125000
G01 X14.827362 Y111.297984 Z-0.125000
G01 X16.023965 Y111.569711 Z-0.125000
G01 X17.263298 Y111.670305 Z-0.125000
G01 X18.516893 Y111.579924 Z-0.125000
G01 X19.813217 Y111.289147 Z-0.125000
G01 X24.101049 Y109.617935 Z-0.125000
G01 X24.898793 Y109.478129 Z-0.125000
G01 X25.696537 Y109.520595 Z-0.125000
G01 X26.494255 Y109.789464 Z-0.125000
G01 X27.203364 Y110.233170 Z-0.125000
G01 X28.089744 Y111.027501 Z-0.125000
G01 X30.243634 Y113.283891 Z-0.125000
G01 X30.981530 Y113.760696 Z-0.125000
G01 X31.579832 Y113.901798 Z-0.125000
G01 X32.167074 Y113.798188 Z-0.125000
G01 X32.787521 Y113.421210 Z-0.125000
G01 X33.383811 Y112.848255 Z-0.125000
G01 X35.196866 Y110.765484 Z-0.125000
G01 X35.801200 Y110.330669 Z-0.125000
G01 X36.366270 Y110.174009 Z-0.125000
G01 X36.864851 Y110.251982 Z-0.125000
G01 X37.308053 Y110.494763 Z-0.125000
G01 X37.880161 Y110.982522 Z-0.125000
G01 X39.577170 Y112.774093 Z-0.125000
G01 X40.055801 Y113.100006 Z-0.125000
G01 X40.654102 Y113.261851 Z-0.125000
G01 X41.152683 Y113.184778 Z-0.125000
G01 X41.731061 Y112.879529 Z-0.125000
G01 X43.867225 Y111.055017 Z-0.125000
G01 X44.343633 Y110.835017 Z-0.125000
G01 X44.842240 Y110.748445 Z-0.125000
G01 X45.340820 Y110.826338 Z-0.125000
G01 X45.817254 Y111.019854 Z-0.125000
G01 X48.033190 Y112.480511 Z-0.125000
G01 X48.531770 Y112.666196 Z-0.125000
G01 X49.030350 Y112.743957 Z-0.125000
G01 X49.628652 Y112.691093 Z-0.125000
G01 X50.127232 Y112.540572 Z-0.125000
G01 X52.620186 Y111.395747 Z-0.125000
G01 X53.717068 Y111.207999 Z-0.125000
G01 X54.913671 Y111.350901 Z-0.125000
G01 X57.805457 Y112.184787 Z-0.125000
G01 X59.315459 Y112.347479 Z-0.125000
G01 X60.896713 Y112.239767 Z-0.125000
G01 X64.685965 Y111.677370 Z-0.125000
G01 X66.836998 Y111.550105 Z-0.125000
G01 X69.116248 Y111.584342 Z-0.125000
G01 X78.005337 Y111.994605 Z-0.125000
G01 X87.806100 Y112.067100 Z-0.125000
G01 X97.264995 Y111.990556 Z-0.125000
G01 X107.293697 Y111.545740 Z-0.125000
G01 X109.857850 Y111.667051 Z-0.125000
G01 X114.045987 Y112.236751 Z-0.125000
G01 X115.726936 Y112.347770 Z-0.125000
G01 X117.635796 Y112.196402 Z-0.125000
G01 X121.225605 Y111.382677 Z-0.125000
G01 X122.906554 Y111.207311 Z-0.125000
G01 X123.818254 Y111.259487 Z-0.125000
G01 X124.815441 Y111.436864 Z-0.125000
G01 X128.704414 Y112.569358 Z-0.125000
G01 X129.601853 Y112.708026 Z-0.125000
G01 X130.542049 Y112.744301 Z-0.125000
G01 X131.496479 Y112.666328 Z-0.125000
G01 X132.593388 Y112.456064 Z-0.125000
G01 X136.083476 Y111.445172 Z-0.125000
G01 X137.778659 Y111.058483 Z-0.125000
G01 X139.573590 Y110.826153 Z-0.125000
G01 X141.710389 Y110.748419 Z-0.125000
G01 X147.294545 Y110.844304 Z-0.125000
G01 X153.334552 Y110.749398 Z-0.125000
G01 X155.428620 Y110.835758 Z-0.125000
G01 X158.220712 Y111.257926 Z-0.125000
G01 X163.405983 Y112.570417 Z-0.125000
G01 X164.730803 Y112.728690 Z-0.125000
G01 X166.098353 Y112.716625 Z-0.125000
G00 Z3.000000

(End cutting path id: polyline282)


(Start cutting path id: polyline284)
(Change tool to Default tool)

G00 Z3.000000
G00 X9.741786 Y108.213502

G00 Z4.875000 (Fast pre-penetrate)
G01 Z-0.125000 F400.0(Penetrate)
G01 X10.838667 Y108.578282 Z-0.125000 F800.000000
G01 X13.331595 Y109.817404 Z-0.125000
G01 X14.627919 Y110.344295 Z-0.125000
G01 X16.023965 Y110.697539 Z-0.125000
G01 X17.377254 Y110.806468 Z-0.125000
G01 X18.516893 Y110.718045 Z-0.125000
G01 X19.713496 Y110.449572 Z-0.125000
G01 X21.109541 Y109.925486 Z-0.125000
G01 X24.300492 Y108.401250 Z-0.125000
G01 X25.297652 Y108.161776 Z-0.125000
G01 X26.095396 Y108.193738 Z-0.125000
G01 X26.848823 Y108.452553 Z-0.125000
G01 X27.690858 Y109.019157 Z-0.125000
G01 X28.379832 Y109.671778 Z-0.125000
G01 X30.120339 Y111.604186 Z-0.125000
G01 X30.748856 Y112.154677 Z-0.125000
G01 X31.280694 Y112.464663 Z-0.125000
G01 X31.878996 Y112.580550 Z-0.125000
G01 X32.377576 Y112.472944 Z-0.125000
G01 X32.948678 Y112.131262 Z-0.125000
G01 X33.673900 Y111.410749 Z-0.125000
G01 X35.358024 Y109.438944 Z-0.125000
G01 X35.978471 Y108.987037 Z-0.125000
G01 X36.565713 Y108.850221 Z-0.125000
G01 X37.042121 Y108.951001 Z-0.125000
G01 X37.662595 Y109.356791 Z-0.125000
G01 X39.191593 Y111.016097 Z-0.125000
G01 X39.816486 Y111.583998 Z-0.125000
G01 X40.255244 Y111.833659 Z-0.125000
G01 X40.753824 Y111.941265 Z-0.125000
G01 X41.152683 Y111.878188 Z-0.125000
G01 X41.731061 Y111.585242 Z-0.125000
G01 X43.867225 Y109.733452 Z-0.125000
G01 X44.343633 Y109.510144 Z-0.125000
G01 X44.842240 Y109.425530 Z-0.125000
G01 X45.340820 Y109.511758 Z-0.125000
G01 X45.817254 Y109.716254 Z-0.125000
G01 X47.944555 Y111.156247 Z-0.125000
G01 X48.432049 Y111.341349 Z-0.125000
G01 X48.930629 Y111.422047 Z-0.125000
G01 X49.927816 Y111.243718 Z-0.125000
G01 X52.420743 Y110.070583 Z-0.125000
G01 X53.019045 Y109.925618 Z-0.125000
G01 X53.617346 Y109.885005 Z-0.125000
G01 X54.714228 Y110.050528 Z-0.125000
G01 X57.406598 Y110.867984 Z-0.125000
G01 X58.859609 Y111.024458 Z-0.125000
G01 X60.198690 Y110.929023 Z-0.125000
G01 X63.888220 Y110.340538 Z-0.125000
G01 X66.153236 Y110.222825 Z-0.125000
G01 X74.472493 Y110.657984 Z-0.125000
G01 X80.284588 Y110.746778 Z-0.125000
G01 X98.290651 Y110.721802 Z-0.125000
G01 X101.709540 Y110.601972 Z-0.125000
G01 X106.951802 Y110.258543 Z-0.125000
G01 X108.775203 Y110.225841 Z-0.125000
G01 X110.755315 Y110.347919 Z-0.125000
G01 X114.644289 Y110.926245 Z-0.125000
G01 X116.296742 Y111.023638 Z-0.125000
G01 X118.134376 Y110.822846 Z-0.125000
G01 X121.524769 Y109.998987 Z-0.125000
G01 X122.906554 Y109.885561 Z-0.125000
G01 X123.718533 Y109.952579 Z-0.125000
G01 X124.615998 Y110.138502 Z-0.125000
G01 X128.106113 Y111.254434 Z-0.125000
G01 X128.903831 Y111.387995 Z-0.125000
G01 X129.744305 Y111.420380 Z-0.125000
G01 X130.599040 Y111.336190 Z-0.125000
G01 X131.496479 Y111.135980 Z-0.125000
G01 X135.784338 Y109.722948 Z-0.125000
G01 X136.980941 Y109.507471 Z-0.125000
G01 X138.291500 Y109.425583 Z-0.125000
G01 X140.171891 Y109.534512 Z-0.125000
G01 X145.357189 Y110.212003 Z-0.125000
G01 X148.320201 Y110.356069 Z-0.125000
G01 X151.539647 Y110.197530 Z-0.125000
G01 X157.323246 Y109.487337 Z-0.125000
G01 X159.602497 Y109.450136 Z-0.125000
G01 X160.813361 Y109.578724 Z-0.125000
G01 X162.109659 Y109.838597 Z-0.125000
G01 X166.098353 Y111.025781 Z-0.125000
G00 Z3.000000

(End cutting path id: polyline284)


(Start cutting path id: polyline286)
(Change tool to Default tool)

G00 Z3.000000
G00 X9.741786 Y106.980386

G00 Z4.875000 (Fast pre-penetrate)
G01 Z-0.125000 F400.0(Penetrate)
G01 X10.628139 Y107.347284 Z-0.125000 F800.000000
G01 X13.032431 Y108.684169 Z-0.125000
G01 X14.428477 Y109.317898 Z-0.125000
G01 X15.924244 Y109.736151 Z-0.125000
G01 X17.377254 Y109.868548 Z-0.125000
G01 X18.716309 Y109.753163 Z-0.125000
G01 X20.012633 Y109.423308 Z-0.125000
G01 X21.408679 Y108.837098 Z-0.125000
G01 X24.699351 Y107.090929 Z-0.125000
G01 X25.596816 Y106.847910 Z-0.125000
G01 X26.394534 Y106.860239 Z-0.125000
G01 X27.192278 Y107.140036 Z-0.125000
G01 X28.001108 Y107.708836 Z-0.125000
G01 X28.887488 Y108.604159 Z-0.125000
G01 X30.265383 Y110.189514 Z-0.125000
G01 X30.961607 Y110.827238 Z-0.125000
G01 X31.579832 Y111.171884 Z-0.125000
G01 X32.078438 Y111.258879 Z-0.125000
G01 X32.577018 Y111.146404 Z-0.125000
G01 X33.115498 Y110.821364 Z-0.125000
G01 X33.806853 Y110.138449 Z-0.125000
G01 X35.508704 Y108.117167 Z-0.125000
G01 X36.067106 Y107.692511 Z-0.125000
G01 X36.665408 Y107.526036 Z-0.125000
G01 X37.164015 Y107.628218 Z-0.125000
G01 X37.735117 Y107.990802 Z-0.125000
G01 X39.896257 Y110.253040 Z-0.125000
G01 X40.354965 Y110.514871 Z-0.125000
G01 X40.853545 Y110.619593 Z-0.125000
G01 X41.252404 Y110.545457 Z-0.125000
G01 X41.810833 Y110.254442 Z-0.125000
G01 X43.884952 Y108.423740 Z-0.125000
G01 X44.343633 Y108.198606 Z-0.125000
G01 X44.842240 Y108.102694 Z-0.125000
G01 X45.340820 Y108.183578 Z-0.125000
G01 X45.817254 Y108.387677 Z-0.125000
G01 X47.944555 Y109.846138 Z-0.125000
G01 X48.432049 Y110.027695 Z-0.125000
G01 X48.930629 Y110.100402 Z-0.125000
G01 X49.927816 Y109.896197 Z-0.125000
G01 X52.221301 Y108.774868 Z-0.125000
G01 X53.318182 Y108.563730 Z-0.125000
G01 X54.514812 Y108.723565 Z-0.125000
G01 X57.107461 Y109.540359 Z-0.125000
G01 X58.403759 Y109.700432 Z-0.125000
G01 X59.799805 Y109.603727 Z-0.125000
G01 X63.190198 Y109.024713 Z-0.125000
G01 X65.013598 Y108.902158 Z-0.125000
G01 X66.950954 Y108.952112 Z-0.125000
G01 X72.193243 Y109.315887 Z-0.125000
G01 X75.156255 Y109.410317 Z-0.125000
G01 X88.034039 Y109.348193 Z-0.125000
G01 X98.176696 Y109.423890 Z-0.125000
G01 X102.165390 Y109.341975 Z-0.125000
G01 X109.117097 Y108.899857 Z-0.125000
G01 X111.253896 Y109.016908 Z-0.125000
G01 X114.843705 Y109.592270 Z-0.125000
G01 X116.296742 Y109.701755 Z-0.125000
G01 X117.835239 Y109.569966 Z-0.125000
G01 X121.225605 Y108.704753 Z-0.125000
G01 X122.678642 Y108.563175 Z-0.125000
G01 X124.217140 Y108.802490 Z-0.125000
G01 X127.507811 Y109.936757 Z-0.125000
G01 X128.832605 Y110.100243 Z-0.125000
G01 X129.601853 Y110.038595 Z-0.125000
G01 X130.499319 Y109.829839 Z-0.125000
G01 X133.391105 Y108.687449 Z-0.125000
G01 X134.488014 Y108.336559 Z-0.125000
G01 X135.485174 Y108.150108 Z-0.125000
G01 X136.468100 Y108.104520 Z-0.125000
G01 X138.376987 Y108.351376 Z-0.125000
G01 X142.265934 Y109.387351 Z-0.125000
G01 X144.360002 Y109.820394 Z-0.125000
G01 X146.653513 Y110.092359 Z-0.125000
G01 X149.231901 Y110.188984 Z-0.125000
G01 X151.838811 Y110.099106 Z-0.125000
G01 X154.331739 Y109.816769 Z-0.125000
G01 X159.118151 Y108.813655 Z-0.125000
G01 X161.112498 Y108.299571 Z-0.125000
G01 X162.109659 Y108.155108 Z-0.125000
G01 X164.104006 Y108.149579 Z-0.125000
G01 X166.098353 Y108.537616 Z-0.125000
G00 Z3.000000

(End cutting path id: polyline286)


(Start cutting path id: polyline288)
(Change tool to Default tool)

G00 Z3.000000
G00 X9.741786 Y105.753541

G00 Z4.875000 (Fast pre-penetrate)
G01 Z-0.125000 F400.0(Penetrate)
G01 X10.716774 Y106.240348 Z-0.125000 F800.000000
G01 X13.032431 Y107.635123 Z-0.125000
G01 X14.328755 Y108.249088 Z-0.125000
G01 X15.924244 Y108.711341 Z-0.125000
G01 X17.491237 Y108.847416 Z-0.125000
G01 X18.816030 Y108.723062 Z-0.125000
G01 X20.212076 Y108.349418 Z-0.125000
G01 X21.707843 Y107.674282 Z-0.125000
G01 X24.898793 Y105.834107 Z-0.125000
G01 X25.796232 Y105.545976 Z-0.125000
G01 X26.693698 Y105.539758 Z-0.125000
G01 X27.380635 Y105.772803 Z-0.125000
G01 X28.089744 Y106.243046 Z-0.125000
G01 X28.887488 Y107.014835 Z-0.125000
G01 X30.961607 Y109.336339 Z-0.125000
G01 X31.579832 Y109.763958 Z-0.125000
G01 X32.178133 Y109.933635 Z-0.125000
G01 X32.776461 Y109.819388 Z-0.125000
G01 X33.275041 Y109.510990 Z-0.125000
G01 X33.873343 Y108.935840 Z-0.125000
G01 X35.136436 Y107.359216 Z-0.125000
G01 X35.748019 Y106.712258 Z-0.125000
G01 X36.266549 Y106.348377 Z-0.125000
G01 X36.765129 Y106.203041 Z-0.125000
G01 X37.263736 Y106.290592 Z-0.125000
G01 X37.735117 Y106.558456 Z-0.125000
G01 X39.910756 Y108.849268 Z-0.125000
G01 X40.454686 Y109.186612 Z-0.125000
G01 X40.953266 Y109.296308 Z-0.125000
G01 X41.451847 Y109.186506 Z-0.125000
G01 X41.890605 Y108.944703 Z-0.125000
G01 X43.964724 Y107.100930 Z-0.125000
G01 X44.443354 Y106.867330 Z-0.125000
G01 X44.941961 Y106.779832 Z-0.125000
G01 X45.440541 Y106.871881 Z-0.125000
G01 X45.905890 Y107.082304 Z-0.125000
G01 X47.944555 Y108.505919 Z-0.125000
G01 X48.432049 Y108.696921 Z-0.125000
G01 X48.930629 Y108.776958 Z-0.125000
G01 X49.927816 Y108.575928 Z-0.125000
G01 X52.221301 Y107.440602 Z-0.125000
G01 X53.318182 Y107.240075 Z-0.125000
G01 X54.514812 Y107.422822 Z-0.125000
G01 X56.908018 Y108.205459 Z-0.125000
G01 X58.289803 Y108.378364 Z-0.125000
G01 X59.500667 Y108.290443 Z-0.125000
G01 X62.791339 Y107.702592 Z-0.125000
G01 X64.557748 Y107.578741 Z-0.125000
G01 X66.381148 Y107.633430 Z-0.125000
G01 X71.167587 Y107.999375 Z-0.125000
G01 X73.902687 Y108.091794 Z-0.125000
G01 X88.034039 Y107.960455 Z-0.125000
G01 X100.000096 Y108.100922 Z-0.125000
G01 X103.305002 Y108.021335 Z-0.125000
G01 X108.091441 Y107.635891 Z-0.125000
G01 X109.686903 Y107.577074 Z-0.125000
G01 X111.553033 Y107.688437 Z-0.125000
G01 X114.943426 Y108.265096 Z-0.125000
G01 X116.410698 Y108.378999 Z-0.125000
G01 X117.934934 Y108.221201 Z-0.125000
G01 X120.926468 Y107.401100 Z-0.125000
G01 X122.222792 Y107.238699 Z-0.125000
G01 X123.618838 Y107.421314 Z-0.125000
G01 X126.710067 Y108.560555 Z-0.125000
G01 X127.507811 Y108.735551 Z-0.125000
G01 X128.148843 Y108.776852 Z-0.125000
G01 X128.903831 Y108.702822 Z-0.125000
G01 X129.701575 Y108.490309 Z-0.125000
G01 X133.191689 Y107.017666 Z-0.125000
G01 X134.089128 Y106.823859 Z-0.125000
G01 X134.872638 Y106.781076 Z-0.125000
G01 X135.784338 Y106.875294 Z-0.125000
G01 X136.681777 Y107.094739 Z-0.125000
G01 X140.271613 Y108.431730 Z-0.125000
G01 X141.966796 Y108.907344 Z-0.125000
G01 X143.961143 Y109.205080 Z-0.125000
G01 X146.496801 Y109.296758 Z-0.125000
G01 X154.702102 Y109.288873 Z-0.125000
G01 X157.422968 Y109.110174 Z-0.125000
G01 X159.816174 Y108.643238 Z-0.125000
G01 X162.209380 Y107.897722 Z-0.125000
G01 X163.904590 Y107.460208 Z-0.125000
G01 X165.300609 Y106.977105 Z-0.125000
G01 X166.098353 Y106.837459 Z-0.125000
G00 Z3.000000

(End cutting path id: polyline288)


(Start cutting path id: polyline290)
(Change tool to Default tool)

G00 Z3.000000
G00 X9.741786 Y104.513388

G00 Z4.875000 (Fast pre-penetrate)
G01 Z-0.125000 F400.0(Penetrate)
G01 X12.844074 Y106.409152 Z-0.125000 F800.000000
G01 X14.229034 Y107.099422 Z-0.125000
G01 X15.924244 Y107.604141 Z-0.125000
G01 X17.605192 Y107.742994 Z-0.125000
G01 X19.015473 Y107.594034 Z-0.125000
G01 X20.411519 Y107.198032 Z-0.125000
G01 X21.885114 Y106.505910 Z-0.125000
G01 X25.197931 Y104.508361 Z-0.125000
G01 X26.095396 Y104.216976 Z-0.125000
G01 X26.893141 Y104.207874 Z-0.125000
G01 X27.557905 Y104.420440 Z-0.125000
G01 X28.249287 Y104.863590 Z-0.125000
G01 X29.020441 Y105.596670 Z-0.125000
G01 X31.135650 Y107.994163 Z-0.125000
G01 X31.812506 Y108.463295 Z-0.125000
G01 X32.377576 Y108.609186 Z-0.125000
G01 X32.964791 Y108.496923 Z-0.125000
G01 X33.496630 Y108.154659 Z-0.125000
G01 X34.006296 Y107.660338 Z-0.125000
G01 X35.849540 Y105.447922 Z-0.125000
G01 X36.465992 Y105.008582 Z-0.125000
G01 X36.964572 Y104.878724 Z-0.125000
G01 X37.363431 Y104.946061 Z-0.125000
G01 X37.822138 Y105.183048 Z-0.125000
G01 X38.526802 Y105.838711 Z-0.125000
G01 X39.983279 Y107.461822 Z-0.125000
G01 X40.587639 Y107.860707 Z-0.125000
G01 X41.052988 Y107.970694 Z-0.125000
G01 X41.551568 Y107.881741 Z-0.125000
G01 X42.005830 Y107.634488 Z-0.125000
G01 X44.044495 Y105.810903 Z-0.125000
G01 X44.543076 Y105.551744 Z-0.125000
G01 X45.041656 Y105.458373 Z-0.125000
G01 X45.540262 Y105.541558 Z-0.125000
G01 X45.994525 Y105.746742 Z-0.125000
G01 X48.033190 Y107.176416 Z-0.125000
G01 X48.531770 Y107.375991 Z-0.125000
G01 X49.030350 Y107.453355 Z-0.125000
G01 X49.528931 Y107.402185 Z-0.125000
G01 X50.027537 Y107.243964 Z-0.125000
G01 X52.321022 Y106.102579 Z-0.125000
G01 X52.819602 Y105.967589 Z-0.125000
G01 X53.417904 Y105.917160 Z-0.125000
G01 X54.514812 Y106.092948 Z-0.125000
G01 X56.908018 Y106.887121 Z-0.125000
G01 X58.175847 Y107.054179 Z-0.125000
G01 X59.500667 Y106.955568 Z-0.125000
G01 X62.691617 Y106.368512 Z-0.125000
G01 X64.329836 Y106.255270 Z-0.125000
G01 X66.039254 Y106.311229 Z-0.125000
G01 X70.597754 Y106.682995 Z-0.125000
G01 X73.104943 Y106.770995 Z-0.125000
G01 X88.147994 Y106.584729 Z-0.125000
G01 X101.139708 Y106.778033 Z-0.125000
G01 X104.102746 Y106.696198 Z-0.125000
G01 X108.362083 Y106.320649 Z-0.125000
G01 X109.914841 Y106.254027 Z-0.125000
G01 X111.752476 Y106.369385 Z-0.125000
G01 X114.943426 Y106.942657 Z-0.125000
G01 X116.296742 Y107.055898 Z-0.125000
G01 X117.735518 Y106.910616 Z-0.125000
G01 X120.627304 Y106.082312 Z-0.125000
G01 X121.994854 Y105.916498 Z-0.125000
G01 X122.721373 Y105.987592 Z-0.125000
G01 X123.419395 Y106.161052 Z-0.125000
G01 X126.211487 Y107.263887 Z-0.125000
G01 X127.465055 Y107.453858 Z-0.125000
G01 X128.106113 Y107.392792 Z-0.125000
G01 X128.903831 Y107.171098 Z-0.125000
G01 X132.094781 Y105.696683 Z-0.125000
G01 X132.892525 Y105.502479 Z-0.125000
G01 X133.590548 Y105.458108 Z-0.125000
G01 X134.388292 Y105.552855 Z-0.125000
G01 X135.285731 Y105.819687 Z-0.125000
G01 X138.077823 Y107.114054 Z-0.125000
G01 X139.374147 Y107.604829 Z-0.125000
G01 X140.570750 Y107.877905 Z-0.125000
G01 X141.824345 Y107.973419 Z-0.125000
G01 X143.562258 Y107.860601 Z-0.125000
G01 X148.248975 Y107.183877 Z-0.125000
G01 X150.941346 Y107.043198 Z-0.125000
G01 X153.833132 Y107.206869 Z-0.125000
G01 X159.018430 Y107.901850 Z-0.125000
G01 X161.084003 Y107.958973 Z-0.125000
G01 X162.209380 Y107.846710 Z-0.125000
G01 X163.405983 Y107.599775 Z-0.125000
G01 X166.098353 Y106.664157 Z-0.125000
G00 Z3.000000

(End cutting path id: polyline290)


(Start cutting path id: polyline292)
(Change tool to Default tool)

G00 Z3.000000
G00 X9.741786 Y103.246088

G00 Z4.875000 (Fast pre-penetrate)
G01 Z-0.125000 F400.0(Penetrate)
G01 X12.844074 Y105.212522 Z-0.125000 F800.000000
G01 X14.229034 Y105.910095 Z-0.125000
G01 X15.924244 Y106.417698 Z-0.125000
G01 X17.719148 Y106.561578 Z-0.125000
G01 X19.214915 Y106.389758 Z-0.125000
G01 X20.610961 Y105.976029 Z-0.125000
G01 X22.151019 Y105.223952 Z-0.125000
G01 X25.397373 Y103.203305 Z-0.125000
G01 X26.294839 Y102.898188 Z-0.125000
G01 X27.192278 Y102.898003 Z-0.125000
G01 X27.990022 Y103.213386 Z-0.125000
G01 X28.727918 Y103.774778 Z-0.125000
G01 X30.918083 Y106.257678 Z-0.125000
G01 X31.457965 Y106.772927 Z-0.125000
G01 X31.989803 Y107.133077 Z-0.125000
G01 X32.577018 Y107.287223 Z-0.125000
G01 X33.142088 Y107.178480 Z-0.125000
G01 X33.673900 Y106.848148 Z-0.125000
G01 X34.326600 Y106.185632 Z-0.125000
G01 X36.000643 Y104.160646 Z-0.125000
G01 X36.598945 Y103.710511 Z-0.125000
G01 X37.164015 Y103.558878 Z-0.125000
G01 X37.562873 Y103.624601 Z-0.125000
G01 X38.017136 Y103.870901 Z-0.125000
G01 X38.593292 Y104.385462 Z-0.125000
G01 X40.144436 Y106.111972 Z-0.125000
G01 X40.764910 Y106.538136 Z-0.125000
G01 X41.252404 Y106.645609 Z-0.125000
G01 X41.739925 Y106.560890 Z-0.125000
G01 X42.271736 Y106.246936 Z-0.125000
G01 X43.805180 Y104.815198 Z-0.125000
G01 X44.310401 Y104.435892 Z-0.125000
G01 X44.753604 Y104.214012 Z-0.125000
G01 X45.241098 Y104.138077 Z-0.125000
G01 X45.739679 Y104.222611 Z-0.125000
G01 X46.138564 Y104.409936 Z-0.125000
G01 X48.232606 Y105.866201 Z-0.125000
G01 X48.731213 Y106.064426 Z-0.125000
G01 X49.229793 Y106.129091 Z-0.125000
G01 X49.728373 Y106.073713 Z-0.125000
G01 X50.226953 Y105.902555 Z-0.125000
G01 X52.420743 Y104.796016 Z-0.125000
G01 X53.517625 Y104.593451 Z-0.125000
G01 X54.614507 Y104.761223 Z-0.125000
G01 X57.107461 Y105.585928 Z-0.125000
G01 X58.403759 Y105.733248 Z-0.125000
G01 X59.600388 Y105.627309 Z-0.125000
G01 X62.691617 Y105.045941 Z-0.125000
G01 X64.443792 Y104.931244 Z-0.125000
G01 X65.925298 Y104.987177 Z-0.125000
G01 X70.483798 Y105.371960 Z-0.125000
G01 X73.560793 Y105.455118 Z-0.125000
G01 X88.147994 Y105.226095 Z-0.125000
G01 X102.507258 Y105.450806 Z-0.125000
G01 X104.672552 Y105.364869 Z-0.125000
G01 X108.561525 Y104.996120 Z-0.125000
G01 X110.256709 Y104.932884 Z-0.125000
G01 X111.752476 Y105.044327 Z-0.125000
G01 X114.943426 Y105.637628 Z-0.125000
G01 X116.296742 Y105.731078 Z-0.125000
G01 X117.536075 Y105.582991 Z-0.125000
G01 X120.328166 Y104.750057 Z-0.125000
G01 X121.524769 Y104.593080 Z-0.125000
G01 X122.721373 Y104.763922 Z-0.125000
G01 X125.513464 Y105.903957 Z-0.125000
G01 X126.211487 Y106.083715 Z-0.125000
G01 X126.809788 Y106.131260 Z-0.125000
G01 X127.507811 Y106.049716 Z-0.125000
G01 X128.205808 Y105.830350 Z-0.125000
G01 X131.197342 Y104.348394 Z-0.125000
G01 X131.795643 Y104.188930 Z-0.125000
G01 X132.493666 Y104.135458 Z-0.125000
G01 X133.291384 Y104.251795 Z-0.125000
G01 X134.089128 Y104.533523 Z-0.125000
G01 X136.493420 Y105.827228 Z-0.125000
G01 X137.579243 Y106.310859 Z-0.125000
G01 X138.476682 Y106.558773 Z-0.125000
G01 X139.431138 Y106.650504 Z-0.125000
G01 X140.371308 Y106.580548 Z-0.125000
G01 X141.368494 Y106.370575 Z-0.125000
G01 X145.257468 Y105.103249 Z-0.125000
G01 X147.351536 Y104.591837 Z-0.125000
G01 X149.687751 Y104.286191 Z-0.125000
G01 X152.194940 Y104.219119 Z-0.125000
G01 X154.431433 Y104.361570 Z-0.125000
G01 X156.625223 Y104.702247 Z-0.125000
G01 X158.519849 Y105.161934 Z-0.125000
G01 X162.009964 Y106.196136 Z-0.125000
G01 X163.405983 Y106.508847 Z-0.125000
G01 X164.844759 Y106.649472 Z-0.125000
G01 X166.098353 Y106.574542 Z-0.125000
G00 Z3.000000

(End cutting path id: polyline292)


(Start cutting path id: polyline294)
(Change tool to Default tool)

G00 Z3.000000
G00 X9.741786 Y101.943387

G00 Z4.875000 (Fast pre-penetrate)
G01 Z-0.125000 F400.0(Penetrate)
G01 X12.755439 Y103.885718 Z-0.125000 F800.000000
G01 X14.229034 Y104.642848 Z-0.125000
G01 X15.924244 Y105.157912 Z-0.125000
G01 X17.719148 Y105.314572 Z-0.125000
G01 X19.314637 Y105.140820 Z-0.125000
G01 X20.810377 Y104.692802 Z-0.125000
G01 X22.328290 Y103.939719 Z-0.125000
G01 X25.519240 Y101.921083 Z-0.125000
G01 X26.394534 Y101.597022 Z-0.125000
G01 X27.291999 Y101.557123 Z-0.125000
G01 X27.990022 Y101.781119 Z-0.125000
G01 X28.621555 Y102.188047 Z-0.125000
G01 X29.395117 Y102.918429 Z-0.125000
G01 X31.520009 Y105.325314 Z-0.125000
G01 X32.178133 Y105.797489 Z-0.125000
G01 X32.776461 Y105.966266 Z-0.125000
G01 X33.275041 Y105.883928 Z-0.125000
G01 X33.833444 Y105.567222 Z-0.125000
G01 X34.538108 Y104.871316 Z-0.125000
G01 X36.226676 Y102.836276 Z-0.125000
G01 X36.785079 Y102.401989 Z-0.125000
G01 X37.363431 Y102.236387 Z-0.125000
G01 X37.839865 Y102.320551 Z-0.125000
G01 X38.283042 Y102.583176 Z-0.125000
G01 X38.750428 Y102.996719 Z-0.125000
G01 X40.454686 Y104.861182 Z-0.125000
G01 X40.953266 Y105.193657 Z-0.125000
G01 X41.451847 Y105.323620 Z-0.125000
G01 X41.850705 Y105.276763 Z-0.125000
G01 X42.349312 Y105.034087 Z-0.125000
G01 X44.399037 Y103.211349 Z-0.125000
G01 X44.941961 Y102.910438 Z-0.125000
G01 X45.440541 Y102.814130 Z-0.125000
G01 X45.939121 Y102.889642 Z-0.125000
G01 X46.437702 Y103.117104 Z-0.125000
G01 X47.944555 Y104.224860 Z-0.125000
G01 X48.565002 Y104.590064 Z-0.125000
G01 X49.429236 Y104.806070 Z-0.125000
G01 X49.927816 Y104.758709 Z-0.125000
G01 X50.526117 Y104.560404 Z-0.125000
G01 X52.719881 Y103.450770 Z-0.125000
G01 X53.717068 Y103.269980 Z-0.125000
G01 X54.714228 Y103.401240 Z-0.125000
G01 X57.306877 Y104.256240 Z-0.125000
G01 X58.631697 Y104.410333 Z-0.125000
G01 X59.799805 Y104.306484 Z-0.125000
G01 X62.891034 Y103.721041 Z-0.125000
G01 X64.671704 Y103.608329 Z-0.125000
G01 X70.483798 Y104.049071 Z-0.125000
G01 X73.446837 Y104.132177 Z-0.125000
G01 X82.563838 Y103.927654 Z-0.125000
G01 X88.375906 Y103.882675 Z-0.125000
G01 X93.846107 Y103.923791 Z-0.125000
G01 X102.849152 Y104.127520 Z-0.125000
G01 X104.871995 Y104.041213 Z-0.125000
G01 X108.561525 Y103.674078 Z-0.125000
G01 X110.142753 Y103.609043 Z-0.125000
G01 X111.652754 Y103.723052 Z-0.125000
G01 X114.743983 Y104.317279 Z-0.125000
G01 X115.954848 Y104.409645 Z-0.125000
G01 X117.236937 Y104.259044 Z-0.125000
G01 X119.829586 Y103.455929 Z-0.125000
G01 X121.083154 Y103.270589 Z-0.125000
G01 X122.322514 Y103.461300 Z-0.125000
G01 X124.915162 Y104.575221 Z-0.125000
G01 X125.513464 Y104.744051 Z-0.125000
G01 X126.111766 Y104.808768 Z-0.125000
G01 X126.710067 Y104.752650 Z-0.125000
G01 X127.308369 Y104.582629 Z-0.125000
G01 X130.100434 Y103.106230 Z-0.125000
G01 X130.798457 Y102.880038 Z-0.125000
G01 X131.396758 Y102.812225 Z-0.125000
G01 X132.094781 Y102.889536 Z-0.125000
G01 X132.892525 Y103.169571 Z-0.125000
G01 X135.341135 Y104.619830 Z-0.125000
G01 X136.183197 Y105.025832 Z-0.125000
G01 X136.980941 Y105.260041 Z-0.125000
G01 X137.835650 Y105.324838 Z-0.125000
G01 X138.576403 Y105.231149 Z-0.125000
G01 X139.473869 Y104.962862 Z-0.125000
G01 X142.963956 Y103.333771 Z-0.125000
G01 X144.758887 Y102.711207 Z-0.125000
G01 X146.852930 Y102.343490 Z-0.125000
G01 X149.573795 Y102.232286 Z-0.125000
G01 X156.297590 Y102.248954 Z-0.125000
G01 X159.118151 Y102.479724 Z-0.125000
G01 X160.514197 Y102.758674 Z-0.125000
G01 X161.810521 Y103.136022 Z-0.125000
G01 X166.098353 Y104.801572 Z-0.125000
G00 Z3.000000

(End cutting path id: polyline294)


(Start cutting path id: polyline296)
(Change tool to Default tool)

G00 Z3.000000
G00 X9.741786 Y100.602481

G00 Z4.875000 (Fast pre-penetrate)
G01 Z-0.125000 F400.0(Penetrate)
G01 X12.844074 Y102.589261 Z-0.125000 F800.000000
G01 X14.229034 Y103.301413 Z-0.125000
G01 X15.126500 Y103.628570 Z-0.125000
G01 X16.023965 Y103.850713 Z-0.125000
G01 X17.833104 Y104.005785 Z-0.125000
G01 X19.414332 Y103.836743 Z-0.125000
G01 X20.910099 Y103.398303 Z-0.125000
G01 X22.505587 Y102.613894 Z-0.125000
G01 X25.696537 Y100.603671 Z-0.125000
G01 X26.593977 Y100.274107 Z-0.125000
G01 X27.491442 Y100.235822 Z-0.125000
G01 X28.267014 Y100.496833 Z-0.125000
G01 X29.032532 Y101.033063 Z-0.125000
G01 X29.818159 Y101.825992 Z-0.125000
G01 X31.214204 Y103.473312 Z-0.125000
G01 X31.918868 Y104.158397 Z-0.125000
G01 X32.577018 Y104.550932 Z-0.125000
G01 X33.075599 Y104.642399 Z-0.125000
G01 X33.574179 Y104.537915 Z-0.125000
G01 X34.072759 Y104.238486 Z-0.125000
G01 X34.671087 Y103.672040 Z-0.125000
G01 X36.574762 Y101.419381 Z-0.125000
G01 X37.164015 Y101.024120 Z-0.125000
G01 X37.662595 Y100.908736 Z-0.125000
G01 X38.061454 Y100.986708 Z-0.125000
G01 X38.540111 Y101.246873 Z-0.125000
G01 X40.708501 Y103.524774 Z-0.125000
G01 X41.252404 Y103.877278 Z-0.125000
G01 X41.751011 Y104.003854 Z-0.125000
G01 X42.149869 Y103.945143 Z-0.125000
G01 X42.608577 Y103.736096 Z-0.125000
G01 X44.682696 Y101.893699 Z-0.125000
G01 X45.241098 Y101.591254 Z-0.125000
G01 X45.739679 Y101.488596 Z-0.125000
G01 X46.238259 Y101.566515 Z-0.125000
G01 X46.703607 Y101.767360 Z-0.125000
G01 X48.830908 Y103.241167 Z-0.125000
G01 X49.329514 Y103.424417 Z-0.125000
G01 X49.828095 Y103.485218 Z-0.125000
G01 X50.725534 Y103.291464 Z-0.125000
G01 X52.919324 Y102.181883 Z-0.125000
G01 X54.016205 Y101.949764 Z-0.125000
G01 X55.212808 Y102.118594 Z-0.125000
G01 X57.606041 Y102.919011 Z-0.125000
G01 X58.859609 Y103.085539 Z-0.125000
G01 X60.198690 Y102.979653 Z-0.125000
G01 X63.190198 Y102.406963 Z-0.125000
G01 X64.785686 Y102.286843 Z-0.125000
G01 X66.480869 Y102.346638 Z-0.125000
G01 X70.597754 Y102.714832 Z-0.125000
G01 X72.877005 Y102.803706 Z-0.125000
G01 X88.717800 Y102.551161 Z-0.125000
G01 X94.415939 Y102.599104 Z-0.125000
G01 X102.279346 Y102.809288 Z-0.125000
G01 X104.672552 Y102.731554 Z-0.125000
G01 X108.461804 Y102.348147 Z-0.125000
G01 X109.800859 Y102.285440 Z-0.125000
G01 X111.353617 Y102.389342 Z-0.125000
G01 X114.345125 Y102.978277 Z-0.125000
G01 X115.612953 Y103.086995 Z-0.125000
G01 X116.838052 Y102.944305 Z-0.125000
G01 X119.530422 Y102.097428 Z-0.125000
G01 X120.627304 Y101.946880 Z-0.125000
G01 X121.823907 Y102.141190 Z-0.125000
G01 X124.416556 Y103.286067 Z-0.125000
G01 X125.513464 Y103.485536 Z-0.125000
G01 X126.211487 Y103.395684 Z-0.125000
G01 X126.809788 Y103.182774 Z-0.125000
G01 X129.402437 Y101.735187 Z-0.125000
G01 X130.000739 Y101.545560 Z-0.125000
G01 X130.599040 Y101.490157 Z-0.125000
G01 X131.197342 Y101.574083 Z-0.125000
G01 X131.972914 Y101.877427 Z-0.125000
G01 X134.100214 Y103.258974 Z-0.125000
G01 X134.897958 Y103.691408 Z-0.125000
G01 X135.584895 Y103.924902 Z-0.125000
G01 X136.282918 Y104.004224 Z-0.125000
G01 X137.080662 Y103.898973 Z-0.125000
G01 X137.878380 Y103.612721 Z-0.125000
G01 X140.748021 Y101.955161 Z-0.125000
G01 X141.867075 Y101.418799 Z-0.125000
G01 X142.963956 Y101.077619 Z-0.125000
G01 X143.989639 Y100.928659 Z-0.125000
G01 X145.129251 Y100.925828 Z-0.125000
G01 X146.653513 Y101.090213 Z-0.125000
G01 X150.143601 Y101.926269 Z-0.125000
G01 X152.764746 Y102.215326 Z-0.125000
G01 X155.129456 Y102.164658 Z-0.125000
G01 X158.918708 Y101.732488 Z-0.125000
G01 X160.314754 Y101.496507 Z-0.125000
G01 X162.009964 Y101.025761 Z-0.125000
G01 X162.608265 Y100.952021 Z-0.125000
G01 X163.206567 Y100.978480 Z-0.125000
G01 X164.303448 Y101.183928 Z-0.125000
G01 X166.098353 Y101.774822 Z-0.125000
G00 Z3.000000

(End cutting path id: polyline296)


(Start cutting path id: polyline298)
(Change tool to Default tool)

G00 Z3.000000
G00 X9.741786 Y99.226199

G00 Z4.875000 (Fast pre-penetrate)
G01 Z-0.125000 F400.0(Penetrate)
G01 X10.628139 Y99.719805 Z-0.125000 F800.000000
G01 X12.932736 Y101.220573 Z-0.125000
G01 X14.428477 Y101.974952 Z-0.125000
G01 X16.123686 Y102.483798 Z-0.125000
G01 X17.947087 Y102.645564 Z-0.125000
G01 X19.514053 Y102.486629 Z-0.125000
G01 X21.009820 Y102.063085 Z-0.125000
G01 X22.594222 Y101.308282 Z-0.125000
G01 X25.164699 Y99.673001 Z-0.125000
G01 X25.995675 Y99.224056 Z-0.125000
G01 X26.992862 Y98.911822 Z-0.125000
G01 X27.790580 Y98.929258 Z-0.125000
G01 X28.532920 Y99.204027 Z-0.125000
G01 X29.286347 Y99.741634 Z-0.125000
G01 X29.975294 Y100.425051 Z-0.125000
G01 X31.570783 Y102.266840 Z-0.125000
G01 X32.167074 Y102.828127 Z-0.125000
G01 X32.787521 Y103.211560 Z-0.125000
G01 X33.374763 Y103.318319 Z-0.125000
G01 X33.851171 Y103.212460 Z-0.125000
G01 X34.471644 Y102.817041 Z-0.125000
G01 X36.792328 Y100.166527 Z-0.125000
G01 X37.396689 Y99.730521 Z-0.125000
G01 X37.961732 Y99.589710 Z-0.125000
G01 X38.460339 Y99.694035 Z-0.125000
G01 X38.992151 Y100.038707 Z-0.125000
G01 X40.708501 Y101.889571 Z-0.125000
G01 X41.208086 Y102.324757 Z-0.125000
G01 X41.651289 Y102.584313 Z-0.125000
G01 X42.149869 Y102.677552 Z-0.125000
G01 X42.626304 Y102.583440 Z-0.125000
G01 X43.158116 Y102.271867 Z-0.125000
G01 X44.682696 Y100.865503 Z-0.125000
G01 X45.196781 Y100.480587 Z-0.125000
G01 X45.639957 Y100.255824 Z-0.125000
G01 X46.138564 Y100.169041 Z-0.125000
G01 X46.637144 Y100.243309 Z-0.125000
G01 X47.235446 Y100.529006 Z-0.125000
G01 X49.229793 Y101.910394 Z-0.125000
G01 X49.728373 Y102.099068 Z-0.125000
G01 X50.226953 Y102.160954 Z-0.125000
G01 X50.725534 Y102.102905 Z-0.125000
G01 X51.323862 Y101.898461 Z-0.125000
G01 X53.417904 Y100.838965 Z-0.125000
G01 X54.514812 Y100.624335 Z-0.125000
G01 X55.611694 Y100.775941 Z-0.125000
G01 X58.204343 Y101.619829 Z-0.125000
G01 X59.429441 Y101.764132 Z-0.125000
G01 X60.796991 Y101.643668 Z-0.125000
G01 X63.788499 Y101.077487 Z-0.125000
G01 X65.583404 Y100.962314 Z-0.125000
G01 X67.178892 Y101.033698 Z-0.125000
G01 X71.395498 Y101.405966 Z-0.125000
G01 X74.244555 Y101.486347 Z-0.125000
G01 X83.019688 Y101.276718 Z-0.125000
G01 X88.831756 Y101.229516 Z-0.125000
G01 X94.188001 Y101.272114 Z-0.125000
G01 X102.735196 Y101.481955 Z-0.125000
G01 X104.672552 Y101.394669 Z-0.125000
G01 X108.262388 Y101.019887 Z-0.125000
G01 X109.686903 Y100.963795 Z-0.125000
G01 X111.054453 Y101.069258 Z-0.125000
G01 X114.045987 Y101.669438 Z-0.125000
G01 X115.271086 Y101.762677 Z-0.125000
G01 X116.439193 Y101.614326 Z-0.125000
G01 X118.932121 Y100.805998 Z-0.125000
G01 X120.171454 Y100.625367 Z-0.125000
G01 X121.325327 Y100.828355 Z-0.125000
G01 X123.718533 Y101.925766 Z-0.125000
G01 X124.316861 Y102.103169 Z-0.125000
G01 X124.915162 Y102.161272 Z-0.125000
G01 X125.513464 Y102.085045 Z-0.125000
G01 X126.211487 Y101.827844 Z-0.125000
G01 X128.704414 Y100.383036 Z-0.125000
G01 X129.302716 Y100.202299 Z-0.125000
G01 X129.801296 Y100.168406 Z-0.125000
G01 X130.399598 Y100.267757 Z-0.125000
G01 X131.086535 Y100.560491 Z-0.125000
G01 X133.213835 Y102.030885 Z-0.125000
G01 X133.889712 Y102.404847 Z-0.125000
G01 X134.488014 Y102.611803 Z-0.125000
G01 X135.086315 Y102.682077 Z-0.125000
G01 X135.884033 Y102.554230 Z-0.125000
G01 X136.670691 Y102.213103 Z-0.125000
G01 X139.063924 Y100.603989 Z-0.125000
G01 X140.072170 Y100.039210 Z-0.125000
G01 X140.869914 Y99.744756 Z-0.125000
G01 X141.667632 Y99.601934 Z-0.125000
G01 X142.664819 Y99.624926 Z-0.125000
G01 X143.861422 Y99.882921 Z-0.125000
G01 X144.659166 Y100.151658 Z-0.125000
G01 X146.753208 Y101.074153 Z-0.125000
G01 X148.348697 Y101.539819 Z-0.125000
G01 X150.941346 Y102.055782 Z-0.125000
G01 X153.334552 Y102.228846 Z-0.125000
G01 X155.528342 Y102.128490 Z-0.125000
G01 X160.015616 Y101.557017 Z-0.125000
G01 X161.411662 Y101.222240 Z-0.125000
G01 X163.106845 Y100.656773 Z-0.125000
G01 X164.802029 Y100.259555 Z-0.125000
G01 X166.098353 Y99.800662 Z-0.125000
G00 Z3.000000

(End cutting path id: polyline298)


(Start cutting path id: polyline300)
(Change tool to Default tool)

G00 Z3.000000
G00 X9.741786 Y97.823433

G00 Z4.875000 (Fast pre-penetrate)
G01 Z-0.125000 F400.0(Penetrate)
G01 X10.716774 Y98.326406 Z-0.125000 F800.000000
G01 X13.198642 Y99.888530 Z-0.125000
G01 X14.627919 Y100.585415 Z-0.125000
G01 X16.323103 Y101.083413 Z-0.125000
G01 X18.174998 Y101.240152 Z-0.125000
G01 X19.713496 Y101.080768 Z-0.125000
G01 X21.209263 Y100.660716 Z-0.125000
G01 X22.771493 Y99.931842 Z-0.125000
G01 X25.341970 Y98.341751 Z-0.125000
G01 X26.195118 Y97.893098 Z-0.125000
G01 X27.092557 Y97.605232 Z-0.125000
G01 X27.990022 Y97.601554 Z-0.125000
G01 X28.688045 Y97.839996 Z-0.125000
G01 X29.366118 Y98.281374 Z-0.125000
G01 X30.120339 Y98.984715 Z-0.125000
G01 X32.237982 Y101.320215 Z-0.125000
G01 X32.876156 Y101.788977 Z-0.125000
G01 X33.574179 Y101.997548 Z-0.125000
G01 X34.172480 Y101.882824 Z-0.125000
G01 X34.710960 Y101.559742 Z-0.125000
G01 X35.402342 Y100.886193 Z-0.125000
G01 X37.183938 Y98.811439 Z-0.125000
G01 X37.762316 Y98.404008 Z-0.125000
G01 X38.360618 Y98.264361 Z-0.125000
G01 X38.859198 Y98.388106 Z-0.125000
G01 X39.403101 Y98.736377 Z-0.125000
G01 X41.571517 Y100.979591 Z-0.125000
G01 X42.050148 Y101.253355 Z-0.125000
G01 X42.548728 Y101.358844 Z-0.125000
G01 X42.947614 Y101.290000 Z-0.125000
G01 X43.424022 Y101.065104 Z-0.125000
G01 X45.480414 Y99.264008 Z-0.125000
G01 X46.038843 Y98.958203 Z-0.125000
G01 X46.537423 Y98.844565 Z-0.125000
G01 X47.036003 Y98.903937 Z-0.125000
G01 X47.501352 Y99.085838 Z-0.125000
G01 X49.728373 Y100.585653 Z-0.125000
G01 X50.226953 Y100.773031 Z-0.125000
G01 X50.725534 Y100.838357 Z-0.125000
G01 X51.224140 Y100.786445 Z-0.125000
G01 X51.722721 Y100.627590 Z-0.125000
G01 X54.115927 Y99.471203 Z-0.125000
G01 X55.212808 Y99.301553 Z-0.125000
G01 X56.209995 Y99.451545 Z-0.125000
G01 X58.802644 Y100.286595 Z-0.125000
G01 X60.113203 Y100.441614 Z-0.125000
G01 X61.395293 Y100.334299 Z-0.125000
G01 X64.586243 Y99.747110 Z-0.125000
G01 X66.381148 Y99.639452 Z-0.125000
G01 X72.193243 Y100.080088 Z-0.125000
G01 X75.156255 Y100.163432 Z-0.125000
G01 X83.703450 Y99.962481 Z-0.125000
G01 X89.059695 Y99.917925 Z-0.125000
G01 X102.393302 Y100.158749 Z-0.125000
G01 X104.273693 Y100.074532 Z-0.125000
G01 X107.763781 Y99.706576 Z-0.125000
G01 X109.345009 Y99.641542 Z-0.125000
G01 X110.954732 Y99.795503 Z-0.125000
G01 X113.746823 Y100.368563 Z-0.125000
G01 X114.815236 Y100.439947 Z-0.125000
G01 X116.140029 Y100.246723 Z-0.125000
G01 X118.732678 Y99.402729 Z-0.125000
G01 X119.729865 Y99.303669 Z-0.125000
G01 X120.926468 Y99.561294 Z-0.125000
G01 X123.319674 Y100.673759 Z-0.125000
G01 X124.316861 Y100.837907 Z-0.125000
G01 X124.915162 Y100.748795 Z-0.125000
G01 X125.502378 Y100.528662 Z-0.125000
G01 X127.906670 Y99.086182 Z-0.125000
G01 X128.504972 Y98.886687 Z-0.125000
G01 X129.003552 Y98.845094 Z-0.125000
G01 X129.601853 Y98.946244 Z-0.125000
G01 X130.288790 Y99.256653 Z-0.125000
G01 X132.238820 Y100.679342 Z-0.125000
G01 X132.892525 Y101.068967 Z-0.125000
G01 X133.490827 Y101.292804 Z-0.125000
G01 X134.089128 Y101.357839 Z-0.125000
G01 X134.787151 Y101.225812 Z-0.125000
G01 X135.429770 Y100.930696 Z-0.125000
G01 X137.823003 Y99.171669 Z-0.125000
G01 X138.709356 Y98.640386 Z-0.125000
G01 X139.573590 Y98.336063 Z-0.125000
G01 X140.342838 Y98.264837 Z-0.125000
G01 X141.069330 Y98.360510 Z-0.125000
G01 X141.966796 Y98.658378 Z-0.125000
G01 X145.656327 Y100.608487 Z-0.125000
G01 X147.650674 Y101.367099 Z-0.125000
G01 X148.847277 Y101.642186 Z-0.125000
G01 X150.143601 Y101.819219 Z-0.125000
G01 X153.448508 Y101.958204 Z-0.125000
G01 X157.095308 Y101.893223 Z-0.125000
G01 X159.616731 Y101.629169 Z-0.125000
G01 X161.311941 Y101.250656 Z-0.125000
G01 X163.007124 Y100.684528 Z-0.125000
G01 X164.901750 Y100.230318 Z-0.125000
G01 X166.098353 Y99.800662 Z-0.125000
G00 Z3.000000

(End cutting path id: polyline300)


(Start cutting path id: polyline302)
(Change tool to Default tool)

G00 Z3.000000
G00 X9.741786 Y96.408179

G00 Z4.875000 (Fast pre-penetrate)
G01 Z-0.125000 F400.0(Penetrate)
G01 X10.805436 Y96.893953 Z-0.125000 F800.000000
G01 X13.553183 Y98.544369 Z-0.125000
G01 X14.827362 Y99.142009 Z-0.125000
G01 X16.522545 Y99.638261 Z-0.125000
G01 X18.288954 Y99.801429 Z-0.125000
G01 X19.912938 Y99.648738 Z-0.125000
G01 X21.408679 Y99.241439 Z-0.125000
G01 X22.948764 Y98.548629 Z-0.125000
G01 X26.394534 Y96.572247 Z-0.125000
G01 X27.291999 Y96.288349 Z-0.125000
G01 X28.189465 Y96.270913 Z-0.125000
G01 X28.887488 Y96.484643 Z-0.125000
G01 X29.596570 Y96.919327 Z-0.125000
G01 X30.482950 Y97.730406 Z-0.125000
G01 X32.636841 Y100.059027 Z-0.125000
G01 X33.374763 Y100.540039 Z-0.125000
G01 X33.973064 Y100.673204 Z-0.125000
G01 X34.560280 Y100.554194 Z-0.125000
G01 X35.092091 Y100.227223 Z-0.125000
G01 X35.632000 Y99.727717 Z-0.125000
G01 X37.590073 Y97.486884 Z-0.125000
G01 X38.194407 Y97.074452 Z-0.125000
G01 X38.759476 Y96.943483 Z-0.125000
G01 X39.346692 Y97.083633 Z-0.125000
G01 X39.878530 Y97.447143 Z-0.125000
G01 X41.506245 Y99.174764 Z-0.125000
G01 X42.094466 Y99.685833 Z-0.125000
G01 X42.548728 Y99.938695 Z-0.125000
G01 X43.047309 Y100.033416 Z-0.125000
G01 X43.545915 Y99.934832 Z-0.125000
G01 X44.124267 Y99.608310 Z-0.125000
G01 X45.560186 Y98.305318 Z-0.125000
G01 X46.260431 Y97.786154 Z-0.125000
G01 X46.736866 Y97.584277 Z-0.125000
G01 X47.235446 Y97.520697 Z-0.125000
G01 X47.634305 Y97.590362 Z-0.125000
G01 X48.210461 Y97.837006 Z-0.125000
G01 X50.337761 Y99.266734 Z-0.125000
G01 X50.825255 Y99.444057 Z-0.125000
G01 X51.323862 Y99.516817 Z-0.125000
G01 X52.321022 Y99.324783 Z-0.125000
G01 X54.714228 Y98.179588 Z-0.125000
G01 X55.312530 Y98.024569 Z-0.125000
G01 X55.910831 Y97.979087 Z-0.125000
G01 X57.007740 Y98.145298 Z-0.125000
G01 X59.600388 Y98.964553 Z-0.125000
G01 X61.024903 Y99.118567 Z-0.125000
G01 X62.292732 Y99.005352 Z-0.125000
G01 X65.483682 Y98.429328 Z-0.125000
G01 X67.292848 Y98.316404 Z-0.125000
G01 X68.874075 Y98.378449 Z-0.125000
G01 X73.332855 Y98.758311 Z-0.125000
G01 X76.295893 Y98.840543 Z-0.125000
G01 X89.287606 Y98.618690 Z-0.125000
G01 X101.823496 Y98.836019 Z-0.125000
G01 X103.760852 Y98.750717 Z-0.125000
G01 X107.364922 Y98.375142 Z-0.125000
G01 X108.775203 Y98.317727 Z-0.125000
G01 X110.256709 Y98.441049 Z-0.125000
G01 X113.048800 Y99.017973 Z-0.125000
G01 X114.245403 Y99.118064 Z-0.125000
G01 X115.641449 Y98.912986 Z-0.125000
G01 X118.134376 Y98.087805 Z-0.125000
G01 X119.131563 Y97.980225 Z-0.125000
G01 X119.729865 Y98.054123 Z-0.125000
G01 X120.328166 Y98.234622 Z-0.125000
G01 X122.721373 Y99.359205 Z-0.125000
G01 X123.718533 Y99.514992 Z-0.125000
G01 X124.316861 Y99.411725 Z-0.125000
G01 X124.881904 Y99.187412 Z-0.125000
G01 X127.308369 Y97.715192 Z-0.125000
G01 X127.806949 Y97.558506 Z-0.125000
G01 X128.305529 Y97.523899 Z-0.125000
G01 X128.903831 Y97.644681 Z-0.125000
G01 X129.491073 Y97.923578 Z-0.125000
G01 X131.995086 Y99.738247 Z-0.125000
G01 X132.593388 Y99.974281 Z-0.125000
G01 X133.191689 Y100.032225 Z-0.125000
G01 X133.789991 Y99.909353 Z-0.125000
G01 X134.454755 Y99.583757 Z-0.125000
G01 X136.582056 Y97.890293 Z-0.125000
G01 X137.379800 Y97.353587 Z-0.125000
G01 X138.177544 Y97.025133 Z-0.125000
G01 X138.875567 Y96.940811 Z-0.125000
G01 X139.673311 Y97.071806 Z-0.125000
G01 X140.570750 Y97.459261 Z-0.125000
G01 X143.407159 Y99.343357 Z-0.125000
G01 X144.559445 Y99.975181 Z-0.125000
G01 X145.756048 Y100.412008 Z-0.125000
G01 X146.952651 Y100.629653 Z-0.125000
G01 X148.662095 Y100.655371 Z-0.125000
G01 X152.536807 Y100.300168 Z-0.125000
G01 X154.588146 Y100.223042 Z-0.125000
G01 X156.625223 Y100.298210 Z-0.125000
G01 X160.514197 Y100.637459 Z-0.125000
G01 X162.223641 Y100.665161 Z-0.125000
G01 X164.203727 Y100.412801 Z-0.125000
G01 X166.098353 Y99.800662 Z-0.125000
G00 Z3.000000

(End cutting path id: polyline302)


(Start cutting path id: polyline304)
(Change tool to Default tool)

G00 Z3.000000
G00 X9.741786 Y94.998216

G00 Z4.875000 (Fast pre-penetrate)
G01 Z-0.125000 F400.0(Penetrate)
G01 X10.838667 Y95.408002 Z-0.125000 F800.000000
G01 X13.641819 Y97.006322 Z-0.125000
G01 X15.126500 Y97.694052 Z-0.125000
G01 X16.821683 Y98.177287 Z-0.125000
G01 X18.516893 Y98.336486 Z-0.125000
G01 X20.012633 Y98.218085 Z-0.125000
G01 X21.508400 Y97.850950 Z-0.125000
G01 X23.203584 Y97.131655 Z-0.125000
G01 X26.693698 Y95.226710 Z-0.125000
G01 X27.690858 Y94.945114 Z-0.125000
G01 X28.588324 Y94.966201 Z-0.125000
G01 X29.386068 Y95.254068 Z-0.125000
G01 X30.163863 Y95.784795 Z-0.125000
G01 X30.845561 Y96.422493 Z-0.125000
G01 X32.586067 Y98.326035 Z-0.125000
G01 X33.230724 Y98.890973 Z-0.125000
G01 X33.773621 Y99.212441 Z-0.125000
G01 X34.371923 Y99.352511 Z-0.125000
G01 X34.970225 Y99.235989 Z-0.125000
G01 X35.508704 Y98.925263 Z-0.125000
G01 X36.200086 Y98.281903 Z-0.125000
G01 X38.061454 Y96.178759 Z-0.125000
G01 X38.659755 Y95.767121 Z-0.125000
G01 X39.258057 Y95.617076 Z-0.125000
G01 X39.756663 Y95.720977 Z-0.125000
G01 X40.215344 Y95.973178 Z-0.125000
G01 X40.926067 Y96.615056 Z-0.125000
G01 X42.376485 Y98.149108 Z-0.125000
G01 X42.980845 Y98.557016 Z-0.125000
G01 X43.545915 Y98.708119 Z-0.125000
G01 X44.044495 Y98.644487 Z-0.125000
G01 X44.576307 Y98.378079 Z-0.125000
G01 X46.278158 Y96.902102 Z-0.125000
G01 X46.880905 Y96.475700 Z-0.125000
G01 X47.335167 Y96.273030 Z-0.125000
G01 X47.833747 Y96.198867 Z-0.125000
G01 X48.332328 Y96.275649 Z-0.125000
G01 X48.919569 Y96.533459 Z-0.125000
G01 X51.046870 Y97.938421 Z-0.125000
G01 X51.622999 Y98.137467 Z-0.125000
G01 X52.121579 Y98.194484 Z-0.125000
G01 X53.118766 Y97.989353 Z-0.125000
G01 X55.511972 Y96.864849 Z-0.125000
G01 X56.110274 Y96.708428 Z-0.125000
G01 X56.708576 Y96.655802 Z-0.125000
G01 X57.805457 Y96.800608 Z-0.125000
G01 X60.597549 Y97.650502 Z-0.125000
G01 X61.936603 Y97.795361 Z-0.125000
G01 X63.289919 Y97.690163 Z-0.125000
G01 X66.580591 Y97.112949 Z-0.125000
G01 X68.546442 Y96.993727 Z-0.125000
G01 X70.141904 Y97.056407 Z-0.125000
G01 X74.700405 Y97.433544 Z-0.125000
G01 X77.777399 Y97.517655 Z-0.125000
G01 X89.515545 Y97.334696 Z-0.125000
G01 X101.139708 Y97.511702 Z-0.125000
G01 X103.077090 Y97.426903 Z-0.125000
G01 X106.766621 Y97.050295 Z-0.125000
G01 X108.205397 Y96.995341 Z-0.125000
G01 X109.558712 Y97.102206 Z-0.125000
G01 X112.450499 Y97.693179 Z-0.125000
G01 X113.675597 Y97.794250 Z-0.125000
G01 X115.043147 Y97.594622 Z-0.125000
G01 X117.536075 Y96.767509 Z-0.125000
G01 X118.533262 Y96.658263 Z-0.125000
G01 X119.131563 Y96.731975 Z-0.125000
G01 X119.829586 Y96.953590 Z-0.125000
G01 X122.123071 Y98.047879 Z-0.125000
G01 X123.020537 Y98.193982 Z-0.125000
G01 X124.017697 Y97.963556 Z-0.125000
G01 X126.410903 Y96.487183 Z-0.125000
G01 X126.909483 Y96.282899 Z-0.125000
G01 X127.507811 Y96.198364 Z-0.125000
G01 X128.106113 Y96.297821 Z-0.125000
G01 X128.693328 Y96.566373 Z-0.125000
G01 X131.197342 Y98.423666 Z-0.125000
G01 X131.695922 Y98.634618 Z-0.125000
G01 X132.294224 Y98.710421 Z-0.125000
G01 X132.892525 Y98.592603 Z-0.125000
G01 X133.568402 Y98.245126 Z-0.125000
G01 X135.624768 Y96.511710 Z-0.125000
G01 X136.404785 Y95.973072 Z-0.125000
G01 X137.080662 Y95.694228 Z-0.125000
G01 X137.678964 Y95.618081 Z-0.125000
G01 X138.376987 Y95.733095 Z-0.125000
G01 X139.241194 Y96.140394 Z-0.125000
G01 X141.811671 Y98.092567 Z-0.125000
G01 X142.786686 Y98.716401 Z-0.125000
G01 X143.661979 Y99.102189 Z-0.125000
G01 X144.559445 Y99.311660 Z-0.125000
G01 X145.556605 Y99.342007 Z-0.125000
G01 X146.653513 Y99.182649 Z-0.125000
G01 X150.542487 Y98.046741 Z-0.125000
G01 X152.237670 Y97.660159 Z-0.125000
G01 X153.633716 Y97.471511 Z-0.125000
G01 X155.043996 Y97.407377 Z-0.125000
G01 X156.525502 Y97.474184 Z-0.125000
G01 X158.120990 Y97.689660 Z-0.125000
G01 X159.816174 Y98.056795 Z-0.125000
G01 X163.804868 Y99.102613 Z-0.125000
G01 X165.001471 Y99.297875 Z-0.125000
G01 X166.098353 Y99.351982 Z-0.125000
G00 Z3.000000

(End cutting path id: polyline304)


(Start cutting path id: polyline306)
(Change tool to Default tool)

G00 Z3.000000
G00 X9.741786 Y93.613203

G00 Z4.875000 (Fast pre-penetrate)
G01 Z-0.125000 F400.0(Penetrate)
G01 X10.439782 Y93.765788 Z-0.125000 F800.000000
G01 X11.137805 Y94.036219 Z-0.125000
G01 X14.129339 Y95.640809 Z-0.125000
G01 X15.625080 Y96.286391 Z-0.125000
G01 X17.220568 Y96.711708 Z-0.125000
G01 X18.858787 Y96.859108 Z-0.125000
G01 X20.311797 Y96.750655 Z-0.125000
G01 X21.807564 Y96.400506 Z-0.125000
G01 X23.403026 Y95.762649 Z-0.125000
G01 X26.992862 Y93.900223 Z-0.125000
G01 X27.990022 Y93.625189 Z-0.125000
G01 X28.887488 Y93.632703 Z-0.125000
G01 X29.685206 Y93.890804 Z-0.125000
G01 X30.394314 Y94.330117 Z-0.125000
G01 X31.280694 Y95.119130 Z-0.125000
G01 X33.514357 Y97.429787 Z-0.125000
G01 X34.205738 Y97.870317 Z-0.125000
G01 X34.870503 Y98.027533 Z-0.125000
G01 X35.446659 Y97.926383 Z-0.125000
G01 X36.067106 Y97.569751 Z-0.125000
G01 X36.792328 Y96.885275 Z-0.125000
G01 X38.637610 Y94.848118 Z-0.125000
G01 X39.258057 Y94.430421 Z-0.125000
G01 X39.856358 Y94.296251 Z-0.125000
G01 X40.354965 Y94.395972 Z-0.125000
G01 X40.853545 Y94.674816 Z-0.125000
G01 X43.087208 Y96.877417 Z-0.125000
G01 X43.745331 Y97.278551 Z-0.125000
G01 X44.243938 Y97.387956 Z-0.125000
G01 X44.642797 Y97.341919 Z-0.125000
G01 X45.108146 Y97.156076 Z-0.125000
G01 X45.719756 Y96.730282 Z-0.125000
G01 X47.412716 Y95.283542 Z-0.125000
G01 X47.944555 Y94.997607 Z-0.125000
G01 X48.531770 Y94.877302 Z-0.125000
G01 X49.030350 Y94.930165 Z-0.125000
G01 X49.628652 Y95.169084 Z-0.125000
G01 X51.933223 Y96.635879 Z-0.125000
G01 X52.919324 Y96.870643 Z-0.125000
G01 X53.417904 Y96.830295 Z-0.125000
G01 X54.016205 Y96.665010 Z-0.125000
G01 X56.509133 Y95.530822 Z-0.125000
G01 X57.705762 Y95.332146 Z-0.125000
G01 X58.902365 Y95.493542 Z-0.125000
G01 X61.694430 Y96.319120 Z-0.125000
G01 X63.190198 Y96.472816 Z-0.125000
G01 X64.486522 Y96.372222 Z-0.125000
G01 X67.976636 Y95.786144 Z-0.125000
G01 X69.913992 Y95.670760 Z-0.125000
G01 X71.623437 Y95.732037 Z-0.125000
G01 X76.523805 Y96.118090 Z-0.125000
G01 X79.714755 Y96.194687 Z-0.125000
G01 X89.743456 Y96.066364 Z-0.125000
G01 X100.341990 Y96.184633 Z-0.125000
G01 X102.578484 Y96.074910 Z-0.125000
G01 X106.168319 Y95.716400 Z-0.125000
G01 X107.521608 Y95.672665 Z-0.125000
G01 X109.159827 Y95.822736 Z-0.125000
G01 X111.951918 Y96.392754 Z-0.125000
G01 X113.105791 Y96.469827 Z-0.125000
G01 X114.444846 Y96.262182 Z-0.125000
G01 X116.937773 Y95.437239 Z-0.125000
G01 X117.892204 Y95.334871 Z-0.125000
G01 X119.031842 Y95.566964 Z-0.125000
G01 X121.225605 Y96.631355 Z-0.125000
G01 X121.823907 Y96.815451 Z-0.125000
G01 X122.322514 Y96.870643 Z-0.125000
G01 X122.821094 Y96.817171 Z-0.125000
G01 X123.319674 Y96.658210 Z-0.125000
G01 X123.995525 Y96.300202 Z-0.125000
G01 X125.712880 Y95.174931 Z-0.125000
G01 X126.211487 Y94.965487 Z-0.125000
G01 X126.809788 Y94.874550 Z-0.125000
G01 X127.408090 Y94.976388 Z-0.125000
G01 X127.984219 Y95.243405 Z-0.125000
G01 X129.960840 Y96.799206 Z-0.125000
G01 X130.499319 Y97.133665 Z-0.125000
G01 X130.997899 Y97.332076 Z-0.125000
G01 X131.496479 Y97.387612 Z-0.125000
G01 X132.094781 Y97.266142 Z-0.125000
G01 X132.752931 Y96.913400 Z-0.125000
G01 X134.747278 Y95.163236 Z-0.125000
G01 X135.429770 Y94.669683 Z-0.125000
G01 X136.083476 Y94.377107 Z-0.125000
G01 X136.681777 Y94.294584 Z-0.125000
G01 X137.379800 Y94.431268 Z-0.125000
G01 X138.177544 Y94.852404 Z-0.125000
G01 X140.490978 Y96.785554 Z-0.125000
G01 X141.468216 Y97.470506 Z-0.125000
G01 X142.265934 Y97.839943 Z-0.125000
G01 X143.077939 Y98.015494 Z-0.125000
G01 X143.961143 Y97.988401 Z-0.125000
G01 X145.058025 Y97.698577 Z-0.125000
G01 X148.946998 Y95.861206 Z-0.125000
G01 X150.841624 Y95.161093 Z-0.125000
G01 X152.835971 Y94.718287 Z-0.125000
G01 X154.930040 Y94.532259 Z-0.125000
G01 X157.622384 Y94.638859 Z-0.125000
G01 X160.115338 Y95.086851 Z-0.125000
G01 X162.309101 Y95.777519 Z-0.125000
G01 X166.098353 Y97.328134 Z-0.125000
G00 Z3.000000

(End cutting path id: polyline306)


(Start cutting path id: polyline308)
(Change tool to Default tool)

G00 Z3.000000
G00 X9.741786 Y92.272244

G00 Z4.875000 (Fast pre-penetrate)
G01 Z-0.125000 F400.0(Penetrate)
G01 X10.539503 Y92.354476 Z-0.125000 F800.000000
G01 X11.436969 Y92.641734 Z-0.125000
G01 X14.627919 Y94.248335 Z-0.125000
G01 X16.223381 Y94.888467 Z-0.125000
G01 X17.719148 Y95.253830 Z-0.125000
G01 X19.314637 Y95.383925 Z-0.125000
G01 X20.810377 Y95.265657 Z-0.125000
G01 X22.206423 Y94.943421 Z-0.125000
G01 X23.801912 Y94.331811 Z-0.125000
G01 X27.391721 Y92.566725 Z-0.125000
G01 X28.488603 Y92.291373 Z-0.125000
G01 X29.386068 Y92.321985 Z-0.125000
G01 X30.283507 Y92.640041 Z-0.125000
G01 X31.103423 Y93.189421 Z-0.125000
G01 X33.528856 Y95.632792 Z-0.125000
G01 X34.232329 Y96.233924 Z-0.125000
G01 X34.870503 Y96.587302 Z-0.125000
G01 X35.468805 Y96.705544 Z-0.125000
G01 X36.067106 Y96.592778 Z-0.125000
G01 X36.687580 Y96.231517 Z-0.125000
G01 X37.299984 Y95.679650 Z-0.125000
G01 X39.258057 Y93.552905 Z-0.125000
G01 X39.967166 Y93.090255 Z-0.125000
G01 X40.554381 Y92.974368 Z-0.125000
G01 X41.119451 Y93.100891 Z-0.125000
G01 X41.731061 Y93.480727 Z-0.125000
G01 X43.964724 Y95.649355 Z-0.125000
G01 X44.543076 Y95.967384 Z-0.125000
G01 X45.041656 Y96.065782 Z-0.125000
G01 X45.540262 Y95.989106 Z-0.125000
G01 X46.083160 Y95.726798 Z-0.125000
G01 X47.873646 Y94.238810 Z-0.125000
G01 X48.476367 Y93.832781 Z-0.125000
G01 X48.930629 Y93.635481 Z-0.125000
G01 X49.429236 Y93.553011 Z-0.125000
G01 X49.927816 Y93.609129 Z-0.125000
G01 X50.515031 Y93.831934 Z-0.125000
G01 X52.819602 Y95.272403 Z-0.125000
G01 X53.417904 Y95.481318 Z-0.125000
G01 X54.016205 Y95.546749 Z-0.125000
G01 X54.614507 Y95.474756 Z-0.125000
G01 X55.212808 Y95.283807 Z-0.125000
G01 X57.606041 Y94.215685 Z-0.125000
G01 X58.859609 Y94.010395 Z-0.125000
G01 X60.098969 Y94.165441 Z-0.125000
G01 X62.990755 Y94.991231 Z-0.125000
G01 X64.557748 Y95.149557 Z-0.125000
G01 X65.982289 Y95.042163 Z-0.125000
G01 X69.572098 Y94.462726 Z-0.125000
G01 X71.623437 Y94.347845 Z-0.125000
G01 X73.446837 Y94.414281 Z-0.125000
G01 X78.461187 Y94.791735 Z-0.125000
G01 X81.994006 Y94.871772 Z-0.125000
G01 X89.971395 Y94.806631 Z-0.125000
G01 X99.202352 Y94.857590 Z-0.125000
G01 X101.581323 Y94.745089 Z-0.125000
G01 X105.370575 Y94.388590 Z-0.125000
G01 X106.723891 Y94.350067 Z-0.125000
G01 X108.362083 Y94.495244 Z-0.125000
G01 X111.353617 Y95.086190 Z-0.125000
G01 X112.422003 Y95.146806 Z-0.125000
G01 X113.746823 Y94.942654 Z-0.125000
G01 X116.239751 Y94.121070 Z-0.125000
G01 X117.208442 Y94.010739 Z-0.125000
G01 X118.333819 Y94.228914 Z-0.125000
G01 X120.527583 Y95.291268 Z-0.125000
G01 X121.225605 Y95.505871 Z-0.125000
G01 X121.724212 Y95.545982 Z-0.125000
G01 X122.322514 Y95.456447 Z-0.125000
G01 X122.920815 Y95.212555 Z-0.125000
G01 X125.236472 Y93.756052 Z-0.125000
G01 X125.712880 Y93.599842 Z-0.125000
G01 X126.211487 Y93.552534 Z-0.125000
G01 X126.809788 Y93.682260 Z-0.125000
G01 X127.363772 Y93.962876 Z-0.125000
G01 X129.701575 Y95.766724 Z-0.125000
G01 X130.200155 Y95.988656 Z-0.125000
G01 X130.698762 Y96.065385 Z-0.125000
G01 X131.297063 Y95.961721 Z-0.125000
G01 X131.955187 Y95.615885 Z-0.125000
G01 X133.949534 Y93.824658 Z-0.125000
G01 X134.632053 Y93.322083 Z-0.125000
G01 X135.186036 Y93.065146 Z-0.125000
G01 X135.784338 Y92.971431 Z-0.125000
G01 X136.482361 Y93.117137 Z-0.125000
G01 X137.202529 Y93.518139 Z-0.125000
G01 X139.533691 Y95.582600 Z-0.125000
G01 X140.393480 Y96.209477 Z-0.125000
G01 X141.268773 Y96.598811 Z-0.125000
G01 X142.066517 Y96.706470 Z-0.125000
G01 X142.963956 Y96.564547 Z-0.125000
G01 X143.850336 Y96.205270 Z-0.125000
G01 X147.218557 Y94.131654 Z-0.125000
G01 X148.847277 Y93.330205 Z-0.125000
G01 X150.542487 Y92.796859 Z-0.125000
G01 X152.536807 Y92.483857 Z-0.125000
G01 X154.474190 Y92.372468 Z-0.125000
G01 X156.867396 Y92.360773 Z-0.125000
G01 X158.918708 Y92.442291 Z-0.125000
G01 X160.613918 Y92.618265 Z-0.125000
G01 X162.009964 Y92.878668 Z-0.125000
G01 X163.306288 Y93.240327 Z-0.125000
G01 X164.602612 Y93.726074 Z-0.125000
G01 X166.098353 Y94.422748 Z-0.125000
G00 Z3.000000

(End cutting path id: polyline308)


(Start cutting path id: polyline310)
(Change tool to Default tool)

G00 Z3.000000
G00 X9.741786 Y90.991186

G00 Z4.875000 (Fast pre-penetrate)
G01 Z-0.125000 F400.0(Penetrate)
G01 X10.639225 Y90.970284 Z-0.125000 F800.000000
G01 X11.636412 Y91.205948 Z-0.125000
G01 X15.325942 Y92.928066 Z-0.125000
G01 X16.921404 Y93.510704 Z-0.125000
G01 X18.317450 Y93.817382 Z-0.125000
G01 X19.770487 Y93.926972 Z-0.125000
G01 X21.209263 Y93.825743 Z-0.125000
G01 X22.705003 Y93.498348 Z-0.125000
G01 X24.300492 Y92.910206 Z-0.125000
G01 X27.890301 Y91.229840 Z-0.125000
G01 X28.887488 Y90.980417 Z-0.125000
G01 X29.884648 Y90.994149 Z-0.125000
G01 X30.748856 Y91.273337 Z-0.125000
G01 X31.679553 Y91.866506 Z-0.125000
G01 X32.441049 Y92.543336 Z-0.125000
G01 X34.181556 Y94.326307 Z-0.125000
G01 X34.914821 Y94.931885 Z-0.125000
G01 X35.568526 Y95.276028 Z-0.125000
G01 X36.166828 Y95.383555 Z-0.125000
G01 X36.765129 Y95.266212 Z-0.125000
G01 X37.396689 Y94.905400 Z-0.125000
G01 X38.025206 Y94.351125 Z-0.125000
G01 X39.983279 Y92.258485 Z-0.125000
G01 X40.676274 Y91.796947 Z-0.125000
G01 X41.252404 Y91.652987 Z-0.125000
G01 X41.751011 Y91.714238 Z-0.125000
G01 X42.349312 Y92.017424 Z-0.125000
G01 X44.762468 Y94.274978 Z-0.125000
G01 X45.340820 Y94.612057 Z-0.125000
G01 X45.939121 Y94.741994 Z-0.125000
G01 X46.526337 Y94.642696 Z-0.125000
G01 X47.058175 Y94.369038 Z-0.125000
G01 X48.751136 Y92.987121 Z-0.125000
G01 X49.451381 Y92.512326 Z-0.125000
G01 X49.927816 Y92.314048 Z-0.125000
G01 X50.426396 Y92.228508 Z-0.125000
G01 X50.924976 Y92.281134 Z-0.125000
G01 X51.523278 Y92.493329 Z-0.125000
G01 X54.016205 Y93.982667 Z-0.125000
G01 X54.614507 Y94.170918 Z-0.125000
G01 X55.212808 Y94.224761 Z-0.125000
G01 X56.309717 Y93.999151 Z-0.125000
G01 X58.902365 Y92.891156 Z-0.125000
G01 X60.227159 Y92.686581 Z-0.125000
G01 X61.594736 Y92.867661 Z-0.125000
G01 X64.586243 Y93.682868 Z-0.125000
G01 X66.153236 Y93.826695 Z-0.125000
G01 X67.577751 Y93.726868 Z-0.125000
G01 X71.367003 Y93.142113 Z-0.125000
G01 X73.560793 Y93.024824 Z-0.125000
G01 X80.854394 Y93.468741 Z-0.125000
G01 X85.298938 Y93.548857 Z-0.125000
G01 X97.948757 Y93.522398 Z-0.125000
G01 X100.455946 Y93.404659 Z-0.125000
G01 X104.444640 Y93.059854 Z-0.125000
G01 X105.812191 Y93.027840 Z-0.125000
G01 X107.265201 Y93.139679 Z-0.125000
G01 X110.256709 Y93.717184 Z-0.125000
G01 X111.624259 Y93.825029 Z-0.125000
G01 X112.949079 Y93.635958 Z-0.125000
G01 X115.541728 Y92.796409 Z-0.125000
G01 X116.538915 Y92.687851 Z-0.125000
G01 X117.137216 Y92.761537 Z-0.125000
G01 X117.735518 Y92.938199 Z-0.125000
G01 X120.128724 Y94.066910 Z-0.125000
G01 X120.627304 Y94.194651 Z-0.125000
G01 X121.125911 Y94.221056 Z-0.125000
G01 X121.624491 Y94.142158 Z-0.125000
G01 X122.123071 Y93.956103 Z-0.125000
G01 X124.350093 Y92.543415 Z-0.125000
G01 X124.915162 Y92.311878 Z-0.125000
G01 X125.413743 Y92.228323 Z-0.125000
G01 X125.912323 Y92.286373 Z-0.125000
G01 X126.477393 Y92.509257 Z-0.125000
G01 X127.088976 Y92.912905 Z-0.125000
G01 X128.870599 Y94.352448 Z-0.125000
G01 X129.402437 Y94.627112 Z-0.125000
G01 X130.000739 Y94.743290 Z-0.125000
G01 X130.599040 Y94.638304 Z-0.125000
G01 X131.237215 Y94.301199 Z-0.125000
G01 X133.231562 Y92.482111 Z-0.125000
G01 X133.922944 Y91.970593 Z-0.125000
G01 X134.488014 Y91.721144 Z-0.125000
G01 X134.986594 Y91.648357 Z-0.125000
G01 X135.684617 Y91.797185 Z-0.125000
G01 X136.404785 Y92.218295 Z-0.125000
G01 X138.656175 Y94.303395 Z-0.125000
G01 X139.507100 Y94.940828 Z-0.125000
G01 X140.271613 Y95.284601 Z-0.125000
G01 X140.969636 Y95.383343 Z-0.125000
G01 X141.767353 Y95.253353 Z-0.125000
G01 X142.698051 Y94.830100 Z-0.125000
G01 X145.800366 Y92.613133 Z-0.125000
G01 X147.052372 Y91.874285 Z-0.125000
G01 X148.348697 Y91.353876 Z-0.125000
G01 X149.645021 Y91.067518 Z-0.125000
G01 X151.397196 Y90.949276 Z-0.125000
G01 X156.297590 Y91.070455 Z-0.125000
G01 X162.109659 Y90.960627 Z-0.125000
G01 X164.203727 Y91.171129 Z-0.125000
G01 X166.098353 Y91.680134 Z-0.125000
G00 Z3.000000

(End cutting path id: polyline310)


(Start cutting path id: polyline312)
(Change tool to Default tool)

G00 Z3.000000
G00 X9.741786 Y89.780375

G00 Z4.875000 (Fast pre-penetrate)
G01 Z-0.125000 F400.0(Penetrate)
G01 X10.738946 Y89.625197 Z-0.125000 F800.000000
G01 X11.736107 Y89.758467 Z-0.125000
G01 X12.833015 Y90.136054 Z-0.125000
G01 X15.625080 Y91.431558 Z-0.125000
G01 X17.120847 Y91.994617 Z-0.125000
G01 X18.816030 Y92.388898 Z-0.125000
G01 X20.454249 Y92.504759 Z-0.125000
G01 X21.907286 Y92.388660 Z-0.125000
G01 X23.303305 Y92.083199 Z-0.125000
G01 X24.898793 Y91.514161 Z-0.125000
G01 X28.488603 Y89.903406 Z-0.125000
G01 X29.585511 Y89.647184 Z-0.125000
G01 X30.482950 Y89.663244 Z-0.125000
G01 X31.369329 Y89.929044 Z-0.125000
G01 X32.317754 Y90.503824 Z-0.125000
G01 X33.093723 Y91.167557 Z-0.125000
G01 X34.950275 Y93.023289 Z-0.125000
G01 X35.712565 Y93.632200 Z-0.125000
G01 X36.366270 Y93.960283 Z-0.125000
G01 X36.964572 Y94.060613 Z-0.125000
G01 X37.562873 Y93.945520 Z-0.125000
G01 X38.194407 Y93.596852 Z-0.125000
G01 X38.822950 Y93.061045 Z-0.125000
G01 X40.853545 Y90.941153 Z-0.125000
G01 X41.562654 Y90.475408 Z-0.125000
G01 X42.149869 Y90.329755 Z-0.125000
G01 X42.648450 Y90.386931 Z-0.125000
G01 X43.246751 Y90.670670 Z-0.125000
G01 X43.964724 Y91.256166 Z-0.125000
G01 X45.639957 Y92.866021 Z-0.125000
G01 X46.349066 Y93.293137 Z-0.125000
G01 X46.936282 Y93.418391 Z-0.125000
G01 X47.434888 Y93.358701 Z-0.125000
G01 X48.033190 Y93.095388 Z-0.125000
G01 X50.337761 Y91.322444 Z-0.125000
G01 X50.924976 Y91.034657 Z-0.125000
G01 X51.523278 Y90.909615 Z-0.125000
G01 X52.021858 Y90.941497 Z-0.125000
G01 X52.520465 Y91.091780 Z-0.125000
G01 X55.124173 Y92.591622 Z-0.125000
G01 X55.811136 Y92.827921 Z-0.125000
G01 X56.409438 Y92.900999 Z-0.125000
G01 X57.007740 Y92.852924 Z-0.125000
G01 X57.705762 Y92.663959 Z-0.125000
G01 X60.398106 Y91.560039 Z-0.125000
G01 X61.594736 Y91.366206 Z-0.125000
G01 X62.990755 Y91.503921 Z-0.125000
G01 X66.281427 Y92.355164 Z-0.125000
G01 X67.748698 Y92.501955 Z-0.125000
G01 X69.173239 Y92.434089 Z-0.125000
G01 X72.962491 Y91.868358 Z-0.125000
G01 X75.156255 Y91.707677 Z-0.125000
G01 X77.207593 Y91.742628 Z-0.125000
G01 X84.045344 Y92.151515 Z-0.125000
G01 X90.883095 Y92.222026 Z-0.125000
G01 X97.378951 Y92.143154 Z-0.125000
G01 X104.444640 Y91.701856 Z-0.125000
G01 X106.268041 Y91.817399 Z-0.125000
G01 X109.359270 Y92.390327 Z-0.125000
G01 X110.712559 Y92.503410 Z-0.125000
G01 X111.951918 Y92.361620 Z-0.125000
G01 X114.644289 Y91.512388 Z-0.125000
G01 X115.741170 Y91.363507 Z-0.125000
G01 X116.838052 Y91.548556 Z-0.125000
G01 X119.231258 Y92.665255 Z-0.125000
G01 X119.729865 Y92.828847 Z-0.125000
G01 X120.328166 Y92.901316 Z-0.125000
G01 X120.826747 Y92.849511 Z-0.125000
G01 X121.425048 Y92.648931 Z-0.125000
G01 X123.729619 Y91.201318 Z-0.125000
G01 X124.316861 Y90.971871 Z-0.125000
G01 X124.815441 Y90.906546 Z-0.125000
G01 X125.314021 Y90.975602 Z-0.125000
G01 X125.856919 Y91.204413 Z-0.125000
G01 X126.450802 Y91.598166 Z-0.125000
G01 X128.250125 Y93.049695 Z-0.125000
G01 X128.804136 Y93.319728 Z-0.125000
G01 X129.402437 Y93.421434 Z-0.125000
G01 X130.000739 Y93.294328 Z-0.125000
G01 X130.643358 Y92.929468 Z-0.125000
G01 X132.520865 Y91.191316 Z-0.125000
G01 X133.213835 Y90.662230 Z-0.125000
G01 X133.789991 Y90.400081 Z-0.125000
G01 X134.288571 Y90.325760 Z-0.125000
G01 X134.986594 Y90.478662 Z-0.125000
G01 X135.695703 Y90.908266 Z-0.125000
G01 X137.858457 Y92.972436 Z-0.125000
G01 X138.620721 Y93.574151 Z-0.125000
G01 X139.374147 Y93.946604 Z-0.125000
G01 X140.072170 Y94.060666 Z-0.125000
G01 X140.869914 Y93.921575 Z-0.125000
G01 X141.723036 Y93.503692 Z-0.125000
G01 X144.559445 Y91.279079 Z-0.125000
G01 X145.800366 Y90.457654 Z-0.125000
G01 X146.852930 Y89.981669 Z-0.125000
G01 X147.850117 Y89.723727 Z-0.125000
G01 X148.776051 Y89.630541 Z-0.125000
G01 X149.801707 Y89.652951 Z-0.125000
G01 X154.331739 Y90.263371 Z-0.125000
G01 X156.753440 Y90.395821 Z-0.125000
G01 X159.118151 Y90.267260 Z-0.125000
G01 X163.933059 Y89.668509 Z-0.125000
G01 X166.098353 Y89.678616 Z-0.125000
G00 Z3.000000

(End cutting path id: polyline312)


(Start cutting path id: polyline314)
(Change tool to Default tool)

G00 Z3.000000
G00 X9.741786 Y88.642879

G00 Z4.875000 (Fast pre-penetrate)
G01 Z-0.125000 F400.0(Penetrate)
G01 X10.838667 Y88.325539 Z-0.125000 F800.000000
G01 X11.436969 Y88.307600 Z-0.125000
G01 X12.134992 Y88.404834 Z-0.125000
G01 X13.331595 Y88.785728 Z-0.125000
G01 X16.123686 Y90.039481 Z-0.125000
G01 X17.719148 Y90.628072 Z-0.125000
G01 X19.414332 Y91.015422 Z-0.125000
G01 X21.138037 Y91.134616 Z-0.125000
G01 X22.605282 Y91.016083 Z-0.125000
G01 X24.001328 Y90.715411 Z-0.125000
G01 X25.596816 Y90.160766 Z-0.125000
G01 X29.286347 Y88.559642 Z-0.125000
G01 X30.383228 Y88.320406 Z-0.125000
G01 X31.280694 Y88.343080 Z-0.125000
G01 X32.167074 Y88.605626 Z-0.125000
G01 X33.115498 Y89.165325 Z-0.125000
G01 X33.913215 Y89.830487 Z-0.125000
G01 X35.827791 Y91.704898 Z-0.125000
G01 X36.598945 Y92.308571 Z-0.125000
G01 X37.263736 Y92.636310 Z-0.125000
G01 X37.862037 Y92.737169 Z-0.125000
G01 X38.548974 Y92.601703 Z-0.125000
G01 X39.169421 Y92.251104 Z-0.125000
G01 X39.816486 Y91.698363 Z-0.125000
G01 X41.917195 Y89.569740 Z-0.125000
G01 X42.548728 Y89.168341 Z-0.125000
G01 X43.246751 Y89.002527 Z-0.125000
G01 X43.845053 Y89.117144 Z-0.125000
G01 X44.487672 Y89.475310 Z-0.125000
G01 X46.365179 Y91.217642 Z-0.125000
G01 X47.058175 Y91.752127 Z-0.125000
G01 X47.634305 Y92.018773 Z-0.125000
G01 X48.132911 Y92.098677 Z-0.125000
G01 X48.731213 Y91.994961 Z-0.125000
G01 X49.274111 Y91.738104 Z-0.125000
G01 X51.144369 Y90.302079 Z-0.125000
G01 X51.844587 Y89.862051 Z-0.125000
G01 X52.420743 Y89.646972 Z-0.125000
G01 X52.919324 Y89.581832 Z-0.125000
G01 X53.417904 Y89.637156 Z-0.125000
G01 X54.016205 Y89.835567 Z-0.125000
G01 X56.708576 Y91.333874 Z-0.125000
G01 X57.306877 Y91.513473 Z-0.125000
G01 X57.947909 Y91.578931 Z-0.125000
G01 X58.503480 Y91.531332 Z-0.125000
G01 X59.201503 Y91.352024 Z-0.125000
G01 X61.993594 Y90.251862 Z-0.125000
G01 X63.418136 Y90.040910 Z-0.125000
G01 X64.885381 Y90.206221 Z-0.125000
G01 X68.176053 Y91.028201 Z-0.125000
G01 X69.913992 Y91.181077 Z-0.125000
G01 X71.466724 Y91.083843 Z-0.125000
G01 X75.654861 Y90.492976 Z-0.125000
G01 X78.005337 Y90.379073 Z-0.125000
G01 X85.868744 Y90.750733 Z-0.125000
G01 X90.997051 Y90.833283 Z-0.125000
G01 X95.897445 Y90.758247 Z-0.125000
G01 X101.823496 Y90.411881 Z-0.125000
G01 X103.532940 Y90.383888 Z-0.125000
G01 X105.171132 Y90.501178 Z-0.125000
G01 X108.561525 Y91.091595 Z-0.125000
G01 X109.914841 Y91.178590 Z-0.125000
G01 X111.154174 Y91.025476 Z-0.125000
G01 X113.846544 Y90.193045 Z-0.125000
G01 X115.043147 Y90.041703 Z-0.125000
G01 X115.741170 Y90.128725 Z-0.125000
G01 X116.339472 Y90.310652 Z-0.125000
G01 X118.732678 Y91.417614 Z-0.125000
G01 X119.729865 Y91.578375 Z-0.125000
G01 X120.328166 Y91.480479 Z-0.125000
G01 X120.893236 Y91.259658 Z-0.125000
G01 X123.219953 Y89.815141 Z-0.125000
G01 X123.718533 Y89.635595 Z-0.125000
G01 X124.217140 Y89.584848 Z-0.125000
G01 X124.815441 Y89.695391 Z-0.125000
G01 X125.493514 Y90.041068 Z-0.125000
G01 X127.718314 Y91.783294 Z-0.125000
G01 X128.305529 Y92.035548 Z-0.125000
G01 X128.804136 Y92.096402 Z-0.125000
G01 X129.402437 Y91.966994 Z-0.125000
G01 X130.022884 Y91.609384 Z-0.125000
G01 X132.513616 Y89.390168 Z-0.125000
G01 X133.091968 Y89.100396 Z-0.125000
G01 X133.690269 Y89.004882 Z-0.125000
G01 X134.366120 Y89.160086 Z-0.125000
G01 X135.066366 Y89.589213 Z-0.125000
G01 X137.234756 Y91.694474 Z-0.125000
G01 X138.000274 Y92.296136 Z-0.125000
G01 X138.676124 Y92.626203 Z-0.125000
G01 X139.374147 Y92.737090 Z-0.125000
G01 X140.171891 Y92.578922 Z-0.125000
G01 X141.013953 Y92.131724 Z-0.125000
G01 X143.681929 Y89.908433 Z-0.125000
G01 X144.825351 Y89.099841 Z-0.125000
G01 X145.756048 Y88.643329 Z-0.125000
G01 X146.753208 Y88.372370 Z-0.125000
G01 X147.750395 Y88.303922 Z-0.125000
G01 X148.747556 Y88.394224 Z-0.125000
G01 X153.932853 Y89.631917 Z-0.125000
G01 X155.528342 Y89.857289 Z-0.125000
G01 X157.095308 Y89.930023 Z-0.125000
G01 X158.619571 Y89.859273 Z-0.125000
G01 X160.215033 Y89.649565 Z-0.125000
G01 X166.098353 Y88.404702 Z-0.125000
G00 Z3.000000

(End cutting path id: polyline314)


(Start cutting path id: polyline316)
(Change tool to Default tool)

G00 Z3.000000
G00 X9.741786 Y87.574202

G00 Z4.875000 (Fast pre-penetrate)
G01 Z-0.125000 F400.0(Penetrate)
G01 X10.439782 Y87.226672 Z-0.125000 F800.000000
G01 X11.137805 Y87.031966 Z-0.125000
G01 X11.793098 Y86.980531 Z-0.125000
G01 X12.533851 Y87.056255 Z-0.125000
G01 X13.830175 Y87.442069 Z-0.125000
G01 X16.821683 Y88.760487 Z-0.125000
G01 X18.516893 Y89.363154 Z-0.125000
G01 X20.311797 Y89.740634 Z-0.125000
G01 X22.049737 Y89.829958 Z-0.125000
G01 X23.403026 Y89.709916 Z-0.125000
G01 X24.799072 Y89.411705 Z-0.125000
G01 X26.494255 Y88.825918 Z-0.125000
G01 X30.183812 Y87.239716 Z-0.125000
G01 X31.180973 Y87.011487 Z-0.125000
G01 X32.178133 Y87.014689 Z-0.125000
G01 X33.175320 Y87.308482 Z-0.125000
G01 X34.117103 Y87.869080 Z-0.125000
G01 X34.950275 Y88.561917 Z-0.125000
G01 X36.785079 Y90.332348 Z-0.125000
G01 X37.582823 Y90.958351 Z-0.125000
G01 X38.260896 Y91.300854 Z-0.125000
G01 X38.958919 Y91.413646 Z-0.125000
G01 X39.557221 Y91.298340 Z-0.125000
G01 X40.215344 Y90.952319 Z-0.125000
G01 X40.998589 Y90.292422 Z-0.125000
G01 X43.007436 Y88.278628 Z-0.125000
G01 X43.745331 Y87.824921 Z-0.125000
G01 X44.343633 Y87.683713 Z-0.125000
G01 X44.941961 Y87.761977 Z-0.125000
G01 X45.540262 Y88.054632 Z-0.125000
G01 X48.033190 Y90.232812 Z-0.125000
G01 X48.742272 Y90.638417 Z-0.125000
G01 X49.429236 Y90.774334 Z-0.125000
G01 X49.927816 Y90.708373 Z-0.125000
G01 X50.603667 Y90.420322 Z-0.125000
G01 X52.553696 Y88.967999 Z-0.125000
G01 X53.218488 Y88.562235 Z-0.125000
G01 X53.816789 Y88.333370 Z-0.125000
G01 X54.415091 Y88.259022 Z-0.125000
G01 X55.013392 Y88.342869 Z-0.125000
G01 X55.611694 Y88.556652 Z-0.125000
G01 X58.304064 Y90.009398 Z-0.125000
G01 X58.902365 Y90.184922 Z-0.125000
G01 X59.543397 Y90.255804 Z-0.125000
G01 X60.198690 Y90.204766 Z-0.125000
G01 X60.896713 Y90.032734 Z-0.125000
G01 X63.788499 Y88.936619 Z-0.125000
G01 X65.241536 Y88.719317 Z-0.125000
G01 X66.680312 Y88.852641 Z-0.125000
G01 X70.270121 Y89.706609 Z-0.125000
G01 X71.851349 Y89.855728 Z-0.125000
G01 X73.461071 Y89.784370 Z-0.125000
G01 X77.449766 Y89.235942 Z-0.125000
G01 X79.828738 Y89.067800 Z-0.125000
G01 X91.452901 Y89.363524 Z-0.125000
G01 X94.985745 Y89.308994 Z-0.125000
G01 X101.481602 Y89.056079 Z-0.125000
G01 X103.874808 Y89.182893 Z-0.125000
G01 X107.464644 Y89.763415 Z-0.125000
G01 X108.775203 Y89.857897 Z-0.125000
G01 X110.256709 Y89.696079 Z-0.125000
G01 X113.048800 Y88.862563 Z-0.125000
G01 X114.145682 Y88.717571 Z-0.125000
G01 X115.342311 Y88.906166 Z-0.125000
G01 X117.934934 Y90.065331 Z-0.125000
G01 X118.533262 Y90.220138 Z-0.125000
G01 X119.031842 Y90.255672 Z-0.125000
G01 X119.630144 Y90.162141 Z-0.125000
G01 X120.228445 Y89.930446 Z-0.125000
G01 X122.621651 Y88.471324 Z-0.125000
G01 X123.120231 Y88.306462 Z-0.125000
G01 X123.618838 Y88.261562 Z-0.125000
G01 X124.217140 Y88.383085 Z-0.125000
G01 X124.793269 Y88.664390 Z-0.125000
G01 X126.654663 Y90.143647 Z-0.125000
G01 X127.208647 Y90.502342 Z-0.125000
G01 X127.707228 Y90.711998 Z-0.125000
G01 X128.205808 Y90.772878 Z-0.125000
G01 X128.804136 Y90.651144 Z-0.125000
G01 X129.482209 Y90.266123 Z-0.125000
G01 X131.396758 Y88.497465 Z-0.125000
G01 X132.061549 Y88.002350 Z-0.125000
G01 X132.593388 Y87.756024 Z-0.125000
G01 X133.191689 Y87.684269 Z-0.125000
G01 X133.789991 Y87.832171 Z-0.125000
G01 X134.507937 Y88.268521 Z-0.125000
G01 X136.509534 Y90.223895 Z-0.125000
G01 X137.379800 Y90.942238 Z-0.125000
G01 X138.077823 Y91.298605 Z-0.125000
G01 X138.775846 Y91.414360 Z-0.125000
G01 X139.573590 Y91.253414 Z-0.125000
G01 X140.393480 Y90.808412 Z-0.125000
G01 X143.123526 Y88.469922 Z-0.125000
G01 X144.204904 Y87.696810 Z-0.125000
G01 X145.157746 Y87.241780 Z-0.125000
G01 X146.055212 Y87.021991 Z-0.125000
G01 X146.952651 Y86.987013 Z-0.125000
G01 X147.949838 Y87.122797 Z-0.125000
G01 X153.533994 Y88.893043 Z-0.125000
G01 X155.229178 Y89.224697 Z-0.125000
G01 X156.981352 Y89.371938 Z-0.125000
G01 X158.918708 Y89.307618 Z-0.125000
G01 X160.813361 Y89.030044 Z-0.125000
G01 X162.807681 Y88.543820 Z-0.125000
G01 X166.098353 Y87.542267 Z-0.125000
G00 Z3.000000

(End cutting path id: polyline316)


(Start cutting path id: polyline318)
(Change tool to Default tool)

G00 Z3.000000
G00 X9.741786 Y86.562940

G00 Z4.875000 (Fast pre-penetrate)
G01 Z-0.125000 F400.0(Penetrate)
G01 X10.539503 Y86.071821 Z-0.125000 F800.000000
G01 X11.337248 Y85.770566 Z-0.125000
G01 X12.134992 Y85.658489 Z-0.125000
G01 X12.932736 Y85.714581 Z-0.125000
G01 X14.328755 Y86.114180 Z-0.125000
G01 X17.519706 Y87.524858 Z-0.125000
G01 X19.214915 Y88.127392 Z-0.125000
G01 X21.109541 Y88.523923 Z-0.125000
G01 X22.961437 Y88.610045 Z-0.125000
G01 X24.400213 Y88.470054 Z-0.125000
G01 X25.796232 Y88.159936 Z-0.125000
G01 X27.491442 Y87.564651 Z-0.125000
G01 X31.180973 Y85.951091 Z-0.125000
G01 X32.277854 Y85.690848 Z-0.125000
G01 X33.175320 Y85.677883 Z-0.125000
G01 X34.072759 Y85.894127 Z-0.125000
G01 X34.914821 Y86.321428 Z-0.125000
G01 X35.987335 Y87.147933 Z-0.125000
G01 X38.460339 Y89.427580 Z-0.125000
G01 X39.258057 Y89.904623 Z-0.125000
G01 X40.055801 Y90.091815 Z-0.125000
G01 X40.753824 Y89.979685 Z-0.125000
G01 X41.385357 Y89.659566 Z-0.125000
G01 X41.970376 Y89.207209 Z-0.125000
G01 X44.602898 Y86.751349 Z-0.125000
G01 X45.141377 Y86.460572 Z-0.125000
G01 X45.639957 Y86.359396 Z-0.125000
G01 X46.238259 Y86.433797 Z-0.125000
G01 X46.792269 Y86.679118 Z-0.125000
G01 X47.474761 Y87.170131 Z-0.125000
G01 X49.469108 Y88.933709 Z-0.125000
G01 X50.226953 Y89.336695 Z-0.125000
G01 X50.825255 Y89.450149 Z-0.125000
G01 X51.323862 Y89.402735 Z-0.125000
G01 X51.922163 Y89.180142 Z-0.125000
G01 X54.514812 Y87.384814 Z-0.125000
G01 X55.212808 Y87.064959 Z-0.125000
G01 X55.910831 Y86.938198 Z-0.125000
G01 X56.409438 Y86.970239 Z-0.125000
G01 X57.007740 Y87.127295 Z-0.125000
G01 X59.799805 Y88.579856 Z-0.125000
G01 X60.597549 Y88.842613 Z-0.125000
G01 X61.295572 Y88.931407 Z-0.125000
G01 X62.492175 Y88.787104 Z-0.125000
G01 X65.483682 Y87.697710 Z-0.125000
G01 X66.381148 Y87.481889 Z-0.125000
G01 X67.178892 Y87.399022 Z-0.125000
G01 X68.674633 Y87.511258 Z-0.125000
G01 X72.065026 Y88.305563 Z-0.125000
G01 X74.016643 Y88.529691 Z-0.125000
G01 X75.754556 Y88.467038 Z-0.125000
G01 X79.942694 Y87.927421 Z-0.125000
G01 X82.449856 Y87.754251 Z-0.125000
G01 X91.908751 Y87.859105 Z-0.125000
G01 X99.316307 Y87.733243 Z-0.125000
G01 X102.279346 Y87.861460 Z-0.125000
G01 X106.168319 Y88.427959 Z-0.125000
G01 X107.635591 Y88.535432 Z-0.125000
G01 X109.259548 Y88.370703 Z-0.125000
G01 X112.151361 Y87.544834 Z-0.125000
G01 X113.347964 Y87.394709 Z-0.125000
G01 X114.544567 Y87.583304 Z-0.125000
G01 X117.137216 Y88.717942 Z-0.125000
G01 X118.234098 Y88.933894 Z-0.125000
G01 X118.832399 Y88.866293 Z-0.125000
G01 X119.330980 Y88.706644 Z-0.125000
G01 X121.823907 Y87.223392 Z-0.125000
G01 X122.322514 Y87.027283 Z-0.125000
G01 X122.920815 Y86.936028 Z-0.125000
G01 X123.419395 Y87.002121 Z-0.125000
G01 X123.995525 Y87.228154 Z-0.125000
G01 X126.477393 Y89.084548 Z-0.125000
G01 X127.009205 Y89.344580 Z-0.125000
G01 X127.607506 Y89.451895 Z-0.125000
G01 X128.205808 Y89.346220 Z-0.125000
G01 X128.870599 Y88.996362 Z-0.125000
G01 X130.838356 Y87.210321 Z-0.125000
G01 X131.529737 Y86.691765 Z-0.125000
G01 X132.094781 Y86.434881 Z-0.125000
G01 X132.693082 Y86.359925 Z-0.125000
G01 X133.391105 Y86.547991 Z-0.125000
G01 X134.011579 Y86.939229 Z-0.125000
G01 X136.183197 Y89.035494 Z-0.125000
G01 X136.936623 Y89.635198 Z-0.125000
G01 X137.579243 Y89.963784 Z-0.125000
G01 X138.277265 Y90.092556 Z-0.125000
G01 X139.074983 Y89.943596 Z-0.125000
G01 X139.950303 Y89.467638 Z-0.125000
G01 X142.644869 Y87.126237 Z-0.125000
G01 X143.673065 Y86.378022 Z-0.125000
G01 X144.659166 Y85.900318 Z-0.125000
G01 X145.556605 Y85.687858 Z-0.125000
G01 X146.454071 Y85.672036 Z-0.125000
G01 X147.451231 Y85.842215 Z-0.125000
G01 X148.647861 Y86.222554 Z-0.125000
G01 X151.639368 Y87.425427 Z-0.125000
G01 X153.234830 Y87.958985 Z-0.125000
G01 X155.029761 Y88.371417 Z-0.125000
G01 X156.867396 Y88.576416 Z-0.125000
G01 X159.018430 Y88.550328 Z-0.125000
G01 X161.112498 Y88.265346 Z-0.125000
G01 X163.306288 Y87.716125 Z-0.125000
G01 X166.098353 Y86.764261 Z-0.125000
G00 Z3.000000

(End cutting path id: polyline318)


(Start cutting path id: polyline320)
(Change tool to Default tool)

G00 Z3.000000
G00 X9.741786 Y85.592793

G00 Z4.875000 (Fast pre-penetrate)
G01 Z-0.125000 F400.0(Penetrate)
G01 X10.639225 Y84.948269 Z-0.125000 F800.000000
G01 X11.436969 Y84.561713 Z-0.125000
G01 X12.334408 Y84.353089 Z-0.125000
G01 X13.231874 Y84.366901 Z-0.125000
G01 X14.727641 Y84.766897 Z-0.125000
