%
(Header)
(Generated by gcodetools from Inkscape.)
(Using default header. To add your own header create file "header" in the output dir.)
M3
(Header end.)
G21 (All units in mm)

(Start cutting path id: polyline517)
(Change tool to Default tool)

G00 Z5.000000
G00 X208.005642 Y95.230787

G00 Z4.875000 (Fast pre-penetrate)
G01 Z-0.125000 F100.0(Penetrate)
G01 X181.557755 Y98.601322 Z-0.125000 F800.000000
G01 X163.067036 Y98.292015 Z-0.125000
G01 X140.221469 Y104.354360 Z-0.125000
G01 X119.700642 Y93.396662 Z-0.125000
G01 X96.916506 Y104.206554 Z-0.125000
G01 X71.481154 Y94.820921 Z-0.125000
G01 X55.013695 Y96.375525 Z-0.125000
G01 X42.448422 Y96.972227 Z-0.125000
G01 X13.829909 Y99.789737 Z-0.125000
G00 Z5.000000

(End cutting path id: polyline517)


(Start cutting path id: polyline327)
(Change tool to Default tool)

G00 Z5.000000
G00 X14.162302 Y97.742071

G00 Z4.875000 (Fast pre-penetrate)
G01 Z-0.125000 F100.0(Penetrate)
G01 X43.815212 Y95.642951 Z-0.125000 F800.000000
G01 X55.648644 Y94.256157 Z-0.125000
G01 X71.021938 Y93.129907 Z-0.125000
G01 X97.793462 Y102.434741 Z-0.125000
G01 X120.080184 Y90.380871 Z-0.125000
G01 X140.901856 Y102.490254 Z-0.125000
G01 X163.313445 Y96.485133 Z-0.125000
G01 X182.462101 Y96.334930 Z-0.125000
G01 X209.018568 Y93.471005 Z-0.125000
G00 Z5.000000

(End cutting path id: polyline327)


(Start cutting path id: polyline329)
(Change tool to Default tool)

G00 Z5.000000
G00 X208.024570 Y91.990548

G00 Z4.875000 (Fast pre-penetrate)
G01 Z-0.125000 F100.0(Penetrate)
G01 X181.806462 Y94.377894 Z-0.125000 F800.000000
G01 X162.932485 Y94.370411 Z-0.125000
G01 X139.873229 Y100.143796 Z-0.125000
G01 X120.319549 Y89.339675 Z-0.125000
G01 X97.803244 Y100.731841 Z-0.125000
G01 X71.691173 Y90.793672 Z-0.125000
G01 X54.957448 Y92.171564 Z-0.125000
G01 X42.844251 Y94.102433 Z-0.125000
G01 X13.989063 Y96.047437 Z-0.125000
G00 Z5.000000

(End cutting path id: polyline329)


(Start cutting path id: polyline323)
(Change tool to Default tool)

G00 Z5.000000
G00 X12.256670 Y79.101002

G00 Z4.875000 (Fast pre-penetrate)
G01 Z-0.125000 F100.0(Penetrate)
G01 X33.134980 Y78.697153 Z-0.125000 F800.000000
G01 X48.045487 Y71.325437 Z-0.125000
G01 X78.383528 Y67.431615 Z-0.125000
G01 X97.901015 Y83.703238 Z-0.125000
G01 X122.713058 Y78.928106 Z-0.125000
G01 X129.587261 Y76.679468 Z-0.125000
G01 X159.122836 Y73.223194 Z-0.125000
G01 X198.084444 Y77.185834 Z-0.125000
G00 Z5.000000

(End cutting path id: polyline323)


(Start cutting path id: polyline325)
(Change tool to Default tool)

G00 Z5.000000
G00 X199.078491 Y78.666290

G00 Z4.875000 (Fast pre-penetrate)
G01 Z-0.125000 F100.0(Penetrate)
G01 X159.503796 Y75.337916 Z-0.125000 F800.000000
G01 X122.473692 Y79.969253 Z-0.125000
G01 X97.891233 Y85.406088 Z-0.125000
G01 X77.714293 Y69.767850 Z-0.125000
G01 X48.736683 Y73.410031 Z-0.125000
G01 X34.105892 Y80.237671 Z-0.125000
G01 X12.429910 Y80.795685 Z-0.125000
G00 Z5.000000

(End cutting path id: polyline325)


(Start cutting path id: polyline319)
(Change tool to Default tool)

G00 Z5.000000
G00 X1.918026 Y51.444745

G00 Z4.875000 (Fast pre-penetrate)
G01 Z-0.125000 F100.0(Penetrate)
G01 X28.691213 Y54.989204 Z-0.125000 F800.000000
G01 X67.475474 Y51.079192 Z-0.125000
G01 X70.535039 Y61.598950 Z-0.125000
G01 X87.024018 Y51.303297 Z-0.125000
G01 X114.329688 Y59.386164 Z-0.125000
G01 X136.558501 Y59.715231 Z-0.125000
G01 X163.813745 Y50.981372 Z-0.125000
G01 X182.175097 Y53.436898 Z-0.125000
G01 X208.459331 Y59.568696 Z-0.125000
G00 Z5.000000

(End cutting path id: polyline319)


(Start cutting path id: polyline321)
(Change tool to Default tool)

G00 Z5.000000
G00 X207.516151 Y61.170254

G00 Z4.875000 (Fast pre-penetrate)
G01 Z-0.125000 F100.0(Penetrate)
G01 X181.545576 Y55.379653 Z-0.125000 F800.000000
G01 X163.387299 Y53.003360 Z-0.125000
G01 X135.924774 Y61.257412 Z-0.125000
G01 X115.091804 Y61.162722 Z-0.125000
G01 X88.012831 Y54.248755 Z-0.125000
G01 X71.248538 Y62.129184 Z-0.125000
G01 X65.709089 Y52.919773 Z-0.125000
G01 X29.095210 Y57.144472 Z-0.125000
G01 X2.857880 Y53.958964 Z-0.125000
G00 Z5.000000

(End cutting path id: polyline321)


(Start cutting path id: polyline331)
(Change tool to Default tool)

G00 Z5.000000
G00 X10.505790 Y120.266300

G00 Z4.875000 (Fast pre-penetrate)
G01 Z-0.125000 F100.0(Penetrate)
G01 X28.780718 Y110.265232 Z-0.125000 F800.000000
G01 X48.664296 Y117.568962 Z-0.125000
G01 X76.073362 Y111.731064 Z-0.125000
G01 X88.146600 Y121.924691 Z-0.125000
G01 X115.905324 Y123.554519 Z-0.125000
G01 X133.417550 Y122.995527 Z-0.125000
G01 X160.602510 Y116.360934 Z-0.125000
G01 X172.514492 Y121.265384 Z-0.125000
G01 X197.876234 Y112.828703 Z-0.125000
G00 Z5.000000

(End cutting path id: polyline331)


(Start cutting path id: polyline333)
(Change tool to Default tool)

G00 Z5.000000
G00 X198.889160 Y111.068872

G00 Z4.875000 (Fast pre-penetrate)
G01 Z-0.125000 F100.0(Penetrate)
G01 X173.418838 Y118.998993 Z-0.125000 F800.000000
G01 X160.848968 Y114.554052 Z-0.125000
G01 X134.097937 Y121.131420 Z-0.125000
G01 X116.284866 Y120.538679 Z-0.125000
G01 X89.023605 Y120.152828 Z-0.125000
G01 X75.614146 Y110.040050 Z-0.125000
G01 X49.299246 Y115.449594 Z-0.125000
G01 X30.147508 Y108.935907 Z-0.125000
G01 X10.838183 Y118.218634 Z-0.125000
G00 Z5.000000

(End cutting path id: polyline333)


(Start cutting path id: polyline335)
(Change tool to Default tool)

G00 Z5.000000
G00 X17.512001 Y137.184220

G00 Z4.875000 (Fast pre-penetrate)
G01 Z-0.125000 F100.0(Penetrate)
G01 X31.144441 Y140.855307 Z-0.125000 F800.000000
G01 X58.106029 Y132.112057 Z-0.125000
G01 X75.647992 Y138.395574 Z-0.125000
G01 X97.826965 Y133.828211 Z-0.125000
G01 X116.295870 Y131.791550 Z-0.125000
G01 X128.531245 Y135.331411 Z-0.125000
G01 X156.471620 Y140.143519 Z-0.125000
G01 X206.289977 Y133.712050 Z-0.125000
G00 Z5.000000

(End cutting path id: polyline335)


(Start cutting path id: polyline337)
(Change tool to Default tool)

G00 Z5.000000
G00 X205.525073 Y131.813559

G00 Z4.875000 (Fast pre-penetrate)
G01 Z-0.125000 F100.0(Penetrate)
G01 X185.980099 Y134.826856 Z-0.125000 F800.000000
G01 X156.847151 Y137.981453 Z-0.125000
G01 X128.975446 Y134.210003 Z-0.125000
G01 X116.260362 Y131.042738 Z-0.125000
G01 X96.946928 Y132.746029 Z-0.125000
G01 X75.686680 Y135.971545 Z-0.125000
G01 X57.247708 Y130.789971 Z-0.125000
G01 X30.929530 Y138.074382 Z-0.125000
G01 X16.875095 Y135.646196 Z-0.125000
G00 Z5.000000

(End cutting path id: polyline337)


(Start cutting path id: polyline339)
(Change tool to Default tool)

G00 Z5.000000
G00 X23.251541 Y158.377999

G00 Z4.875000 (Fast pre-penetrate)
G01 Z-0.125000 F100.0(Penetrate)
G01 X28.185973 Y159.759853 Z-0.125000 F800.000000
G01 X47.905947 Y157.757184 Z-0.125000
G01 X80.377198 Y158.119314 Z-0.125000
G01 X100.124806 Y168.739191 Z-0.125000
G01 X117.187402 Y152.745034 Z-0.125000
G01 X142.842017 Y148.857374 Z-0.125000
G01 X168.842084 Y163.681359 Z-0.125000
G01 X181.143341 Y156.594349 Z-0.125000
G01 X195.890488 Y158.671214 Z-0.125000
G00 Z5.000000

(End cutting path id: polyline339)


(Start cutting path id: polyline341)
(Change tool to Default tool)

G00 Z5.000000
G00 X196.605063 Y160.668894

G00 Z4.875000 (Fast pre-penetrate)
G01 Z-0.125000 F100.0(Penetrate)
G01 X180.296024 Y158.540527 Z-0.125000 F800.000000
G01 X167.391952 Y164.779437 Z-0.125000
G01 X142.550025 Y151.508687 Z-0.125000
G01 X118.096052 Y155.279893 Z-0.125000
G01 X99.155165 Y170.075119 Z-0.125000
G01 X80.544470 Y160.278935 Z-0.125000
G01 X48.042063 Y159.612878 Z-0.125000
G01 X28.854377 Y161.437515 Z-0.125000
G01 X21.949654 Y160.303243 Z-0.125000
G00 Z5.000000

(End cutting path id: polyline341)


(Start cutting path id: polyline343)
(Change tool to Default tool)

G00 Z5.000000
G00 X8.930644 Y179.555735

G00 Z4.875000 (Fast pre-penetrate)
G01 Z-0.125000 F100.0(Penetrate)
G01 X35.538564 Y178.214232 Z-0.125000 F800.000000
G01 X49.403277 Y178.169577 Z-0.125000
G01 X82.216899 Y181.875683 Z-0.125000
G01 X89.459002 Y183.434543 Z-0.125000
G01 X127.182552 Y180.628527 Z-0.125000
G01 X139.630244 Y178.021967 Z-0.125000
G01 X152.890675 Y175.760221 Z-0.125000
G01 X171.822562 Y178.002109 Z-0.125000
G01 X203.751059 Y180.645646 Z-0.125000
G00 Z5.000000

(End cutting path id: polyline343)


(Start cutting path id: polyline345)
(Change tool to Default tool)

G00 Z5.000000
G00 X203.330971 Y181.912317

G00 Z4.875000 (Fast pre-penetrate)
G01 Z-0.125000 F100.0(Penetrate)
G01 X172.068286 Y180.267767 Z-0.125000 F800.000000
G01 X153.566415 Y177.531693 Z-0.125000
G01 X139.754916 Y179.936500 Z-0.125000
G01 X126.270771 Y181.276389 Z-0.125000
G01 X89.089292 Y184.459403 Z-0.125000
G01 X81.485792 Y183.508152 Z-0.125000
G01 X50.334573 Y180.384124 Z-0.125000
G01 X35.141073 Y179.283307 Z-0.125000
G01 X8.947371 Y182.222064 Z-0.125000
G00 Z5.000000

(End cutting path id: polyline345)


(Start cutting path id: polyline347)
(Change tool to Default tool)

G00 Z5.000000
G00 X9.114399 Y208.885253

G00 Z4.875000 (Fast pre-penetrate)
G01 Z-0.125000 F100.0(Penetrate)
G01 X31.165814 Y189.974152 Z-0.125000 F800.000000
G01 X59.647966 Y202.529300 Z-0.125000
G01 X74.174334 Y199.833039 Z-0.125000
G01 X85.391842 Y194.708102 Z-0.125000
G01 X117.153360 Y187.755106 Z-0.125000
G01 X141.001681 Y199.081977 Z-0.125000
G01 X160.324065 Y195.246259 Z-0.125000
G01 X174.525426 Y202.924249 Z-0.125000
G01 X199.129944 Y194.578784 Z-0.125000
G00 Z5.000000

(End cutting path id: polyline347)


(Start cutting path id: polyline349)
(Change tool to Default tool)

G00 Z5.000000
G00 X199.550081 Y193.312113

G00 Z4.875000 (Fast pre-penetrate)
G01 Z-0.125000 F100.0(Penetrate)
G01 X174.279702 Y200.658591 Z-0.125000 F800.000000
G01 X159.648325 Y193.474788 Z-0.125000
G01 X140.877009 Y197.167444 Z-0.125000
G01 X118.065092 Y187.107244 Z-0.125000
G01 X85.761602 Y193.683193 Z-0.125000
G01 X74.905489 Y198.200570 Z-0.125000
G01 X58.716622 Y200.314802 Z-0.125000
G01 X31.563355 Y188.905077 Z-0.125000
G01 X9.097720 Y206.218924 Z-0.125000
G00 Z5.000000

(End cutting path id: polyline349)


(Start cutting path id: polyline351)
(Change tool to Default tool)

G00 Z5.000000
G00 X12.850095 Y217.183079

G00 Z4.875000 (Fast pre-penetrate)
G01 Z-0.125000 F100.0(Penetrate)
G01 X35.603027 Y225.427446 Z-0.125000 F800.000000
G01 X49.177900 Y217.889388 Z-0.125000
G01 X74.676493 Y218.577063 Z-0.125000
G01 X90.597480 Y223.215736 Z-0.125000
G01 X119.338561 Y218.135845 Z-0.125000
G01 X138.983263 Y226.117371 Z-0.125000
G01 X156.713725 Y219.754669 Z-0.125000
G01 X178.148777 Y221.135936 Z-0.125000
G01 X198.192731 Y217.462746 Z-0.125000
G00 Z5.000000

(End cutting path id: polyline351)


(Start cutting path id: polyline353)
(Change tool to Default tool)

G00 Z5.000000
G00 X198.277932 Y215.382408

G00 Z4.875000 (Fast pre-penetrate)
G01 Z-0.125000 F100.0(Penetrate)
G01 X177.819368 Y219.480332 Z-0.125000 F800.000000
G01 X157.041960 Y217.526623 Z-0.125000
G01 X139.166773 Y223.659643 Z-0.125000
G01 X119.139938 Y215.373947 Z-0.125000
G01 X90.124276 Y220.624142 Z-0.125000
G01 X74.630860 Y216.873038 Z-0.125000
G01 X50.129738 Y216.493007 Z-0.125000
G01 X35.199667 Y222.204424 Z-0.125000
G01 X12.510513 Y216.428740 Z-0.125000
G00 Z5.000000

(End cutting path id: polyline353)


(Start cutting path id: polyline355)
(Change tool to Default tool)

G00 Z5.000000
G00 X22.799857 Y237.171813

G00 Z4.875000 (Fast pre-penetrate)
G01 Z-0.125000 F100.0(Penetrate)
G01 X33.086070 Y235.869633 Z-0.125000 F800.000000
G01 X50.007267 Y245.180972 Z-0.125000
G01 X69.726850 Y236.488981 Z-0.125000
G01 X100.847696 Y236.714505 Z-0.125000
G01 X120.157119 Y244.436318 Z-0.125000
G01 X138.907550 Y244.203995 Z-0.125000
G01 X159.509127 Y244.750173 Z-0.125000
G01 X179.518355 Y241.042110 Z-0.125000
G01 X191.351885 Y241.384627 Z-0.125000
G00 Z5.000000

(End cutting path id: polyline355)


(Start cutting path id: polyline357)
(Change tool to Default tool)

G00 Z5.000000
G00 X191.973775 Y239.209893

G00 Z4.875000 (Fast pre-penetrate)
G01 Z-0.125000 F100.0(Penetrate)
G01 X179.393830 Y239.232440 Z-0.125000 F800.000000
G01 X159.255040 Y242.477863 Z-0.125000
G01 X138.914447 Y242.559788 Z-0.125000
G01 X120.082727 Y242.045352 Z-0.125000
G01 X99.915862 Y235.487304 Z-0.125000
G01 X70.176822 Y234.860620 Z-0.125000
G01 X49.931897 Y242.699915 Z-0.125000
G01 X33.314871 Y234.920339 Z-0.125000
G01 X21.895315 Y235.354660 Z-0.125000
G00 Z5.000000

(End cutting path id: polyline357)


(Start cutting path id: polyline359)
(Change tool to Default tool)

G00 Z5.000000
G00 X192.595666 Y237.035207

G00 Z4.875000 (Fast pre-penetrate)
G01 Z-0.125000 F100.0(Penetrate)
G01 X179.269354 Y237.422819 Z-0.125000 F800.000000
G01 X159.000903 Y240.205554 Z-0.125000
G01 X138.921343 Y240.915531 Z-0.125000
G01 X120.008286 Y239.654387 Z-0.125000
G01 X98.984029 Y234.260152 Z-0.125000
G01 X70.626794 Y233.232259 Z-0.125000
G01 X49.856477 Y240.218857 Z-0.125000
G01 X33.543721 Y233.971045 Z-0.125000
G01 X20.990823 Y233.537507 Z-0.125000
G00 Z5.000000

(End cutting path id: polyline359)


(Start cutting path id: polyline361)
(Change tool to Default tool)

G00 Z5.000000
G00 X193.217557 Y234.860473

G00 Z4.875000 (Fast pre-penetrate)
G01 Z-0.125000 F100.0(Penetrate)
G01 X179.144829 Y235.613149 Z-0.125000 F800.000000
G01 X158.746767 Y237.933244 Z-0.125000
G01 X138.928190 Y239.271324 Z-0.125000
G01 X119.933894 Y237.263422 Z-0.125000
G01 X98.052196 Y233.033000 Z-0.125000
G01 X71.076766 Y231.603948 Z-0.125000
G01 X49.781107 Y237.737849 Z-0.125000
G01 X33.772522 Y233.021751 Z-0.125000
G01 X20.086281 Y231.720353 Z-0.125000
G00 Z5.000000

(End cutting path id: polyline361)


(Start cutting path id: polyline363)
(Change tool to Default tool)

G00 Z5.000000
G00 X193.839447 Y232.685788

G00 Z4.875000 (Fast pre-penetrate)
G01 Z-0.125000 F100.0(Penetrate)
G01 X179.020304 Y233.803479 Z-0.125000 F800.000000
G01 X158.492631 Y235.660885 Z-0.125000
G01 X138.935087 Y237.627067 Z-0.125000
G01 X119.859453 Y234.872505 Z-0.125000
G01 X97.120363 Y231.805848 Z-0.125000
G01 X71.526738 Y229.975538 Z-0.125000
G01 X49.705688 Y235.256791 Z-0.125000
G01 X34.001323 Y232.072457 Z-0.125000
G01 X19.181788 Y229.903200 Z-0.125000
G00 Z5.000000

(End cutting path id: polyline363)


(Start cutting path id: polyline365)
(Change tool to Default tool)

G00 Z5.000000
G00 X194.461338 Y230.511054

G00 Z4.875000 (Fast pre-penetrate)
G01 Z-0.125000 F100.0(Penetrate)
G01 X178.895828 Y231.993858 Z-0.125000 F800.000000
G01 X158.238494 Y233.388576 Z-0.125000
G01 X138.941983 Y235.982811 Z-0.125000
G01 X119.785061 Y232.481540 Z-0.125000
G01 X96.188529 Y230.578696 Z-0.125000
G01 X71.976710 Y228.347177 Z-0.125000
G01 X49.630318 Y232.775733 Z-0.125000
G01 X34.230124 Y231.123162 Z-0.125000
G01 X18.277247 Y228.086047 Z-0.125000
G00 Z5.000000

(End cutting path id: polyline365)


(Start cutting path id: polyline367)
(Change tool to Default tool)

G00 Z5.000000
G00 X195.083278 Y228.336319

G00 Z4.875000 (Fast pre-penetrate)
G01 Z-0.125000 F100.0(Penetrate)
G01 X178.771303 Y230.184188 Z-0.125000 F800.000000
G01 X157.984407 Y231.116266 Z-0.125000
G01 X138.948879 Y234.338604 Z-0.125000
G01 X119.710669 Y230.090574 Z-0.125000
G01 X95.256696 Y229.351544 Z-0.125000
G01 X72.426633 Y226.718866 Z-0.125000
G01 X49.554898 Y230.294676 Z-0.125000
G01 X34.458974 Y230.173868 Z-0.125000
G01 X17.372705 Y226.268894 Z-0.125000
G00 Z5.000000

(End cutting path id: polyline367)


(Start cutting path id: polyline369)
(Change tool to Default tool)

G00 Z5.000000
G00 X195.705168 Y226.161634

G00 Z4.875000 (Fast pre-penetrate)
G01 Z-0.125000 F100.0(Penetrate)
G01 X178.646779 Y228.374567 Z-0.125000 F800.000000
G01 X157.730221 Y228.843956 Z-0.125000
G01 X138.955727 Y232.694347 Z-0.125000
G01 X119.636228 Y227.699658 Z-0.125000
G01 X94.324863 Y228.124392 Z-0.125000
G01 X72.876605 Y225.090505 Z-0.125000
G01 X49.479479 Y227.813618 Z-0.125000
G01 X34.687775 Y229.224623 Z-0.125000
G01 X16.468213 Y224.451741 Z-0.125000
G00 Z5.000000

(End cutting path id: polyline369)


(Start cutting path id: polyline371)
(Change tool to Default tool)

G00 Z5.000000
G00 X196.327059 Y223.986900

G00 Z4.875000 (Fast pre-penetrate)
G01 Z-0.125000 F100.0(Penetrate)
G01 X178.522303 Y226.564897 Z-0.125000 F800.000000
G01 X157.476134 Y226.571647 Z-0.125000
G01 X138.962623 Y231.050140 Z-0.125000
G01 X119.561836 Y225.308693 Z-0.125000
G01 X93.393029 Y226.897241 Z-0.125000
G01 X73.326577 Y223.462144 Z-0.125000
G01 X49.404109 Y225.332561 Z-0.125000
G01 X34.916576 Y228.275329 Z-0.125000
G01 X15.563671 Y222.634587 Z-0.125000
G00 Z5.000000

(End cutting path id: polyline371)


(Start cutting path id: polyline373)
(Change tool to Default tool)

G00 Z5.000000
G00 X196.948949 Y221.812166

G00 Z4.875000 (Fast pre-penetrate)
G01 Z-0.125000 F100.0(Penetrate)
G01 X178.397778 Y224.755276 Z-0.125000 F800.000000
G01 X157.221998 Y224.299288 Z-0.125000
G01 X138.969519 Y229.405883 Z-0.125000
G01 X119.487395 Y222.917776 Z-0.125000
G01 X92.461196 Y225.670089 Z-0.125000
G01 X73.776549 Y221.833784 Z-0.125000
G01 X49.328690 Y222.851503 Z-0.125000
G01 X35.145425 Y227.326034 Z-0.125000
G01 X14.659179 Y220.817434 Z-0.125000
G00 Z5.000000

(End cutting path id: polyline373)


(Start cutting path id: polyline375)
(Change tool to Default tool)

G00 Z5.000000
G00 X197.570840 Y219.637480

G00 Z4.875000 (Fast pre-penetrate)
G01 Z-0.125000 F100.0(Penetrate)
G01 X178.273253 Y222.945606 Z-0.125000 F800.000000
G01 X156.967861 Y222.026978 Z-0.125000
G01 X138.976416 Y227.761627 Z-0.125000
G01 X119.413002 Y220.526811 Z-0.125000
G01 X91.529363 Y224.442937 Z-0.125000
G01 X74.226521 Y220.205423 Z-0.125000
G01 X49.253319 Y220.370446 Z-0.125000
G01 X35.374226 Y226.376740 Z-0.125000
G01 X13.754637 Y219.000281 Z-0.125000
G00 Z5.000000

(End cutting path id: polyline375)


(Start cutting path id: polyline377)
(Change tool to Default tool)

G00 Z5.000000
G00 X198.363133 Y213.302021

G00 Z4.875000 (Fast pre-penetrate)
G01 Z-0.125000 F100.0(Penetrate)
G01 X177.489959 Y217.824729 Z-0.125000 F800.000000
G01 X157.370146 Y215.298576 Z-0.125000
G01 X139.350284 Y221.201867 Z-0.125000
G01 X118.941266 Y212.612097 Z-0.125000
G01 X89.651023 Y218.032548 Z-0.125000
G01 X74.585227 Y215.169063 Z-0.125000
G01 X51.081575 Y215.096627 Z-0.125000
G01 X34.796257 Y218.981402 Z-0.125000
G01 X12.170882 Y215.674401 Z-0.125000
G00 Z5.000000

(End cutting path id: polyline377)


(Start cutting path id: polyline379)
(Change tool to Default tool)

G00 Z5.000000
G00 X198.448334 Y211.221683

G00 Z4.875000 (Fast pre-penetrate)
G01 Z-0.125000 F100.0(Penetrate)
G01 X177.160550 Y216.169125 Z-0.125000 F800.000000
G01 X157.698381 Y213.070530 Z-0.125000
G01 X139.533745 Y218.744090 Z-0.125000
G01 X118.742593 Y209.850198 Z-0.125000
G01 X89.177770 Y215.440953 Z-0.125000
G01 X74.539545 Y213.465038 Z-0.125000
G01 X52.033364 Y213.700246 Z-0.125000
G01 X34.392896 Y215.758379 Z-0.125000
G01 X11.831300 Y214.920062 Z-0.125000
G00 Z5.000000

(End cutting path id: polyline379)


(Start cutting path id: polyline381)
(Change tool to Default tool)

G00 Z5.000000
G00 X198.533536 Y209.141296

G00 Z4.875000 (Fast pre-penetrate)
G01 Z-0.125000 F100.0(Penetrate)
G01 X176.831190 Y214.513522 Z-0.125000 F800.000000
G01 X158.026567 Y210.842484 Z-0.125000
G01 X139.717255 Y216.286314 Z-0.125000
G01 X118.543921 Y207.088299 Z-0.125000
G01 X88.704517 Y212.849359 Z-0.125000
G01 X74.493912 Y211.761063 Z-0.125000
G01 X52.985201 Y212.303915 Z-0.125000
G01 X33.989487 Y212.535357 Z-0.125000
G01 X11.491669 Y214.165674 Z-0.125000
G00 Z5.000000

(End cutting path id: polyline381)


(Start cutting path id: polyline383)
(Change tool to Default tool)

G00 Z5.000000
G00 X198.618737 Y207.060910

G00 Z4.875000 (Fast pre-penetrate)
G01 Z-0.125000 F100.0(Penetrate)
G01 X176.501782 Y212.857918 Z-0.125000 F800.000000
G01 X158.354802 Y208.614438 Z-0.125000
G01 X139.900717 Y213.828537 Z-0.125000
G01 X118.345297 Y204.326400 Z-0.125000
G01 X88.231312 Y210.257716 Z-0.125000
G01 X74.448230 Y210.057087 Z-0.125000
G01 X53.937039 Y210.907534 Z-0.125000
G01 X33.586126 Y209.312335 Z-0.125000
G01 X11.152087 Y213.411335 Z-0.125000
G00 Z5.000000

(End cutting path id: polyline383)


(Start cutting path id: polyline385)
(Change tool to Default tool)

G00 Z5.000000
G00 X198.703938 Y204.980572

G00 Z4.875000 (Fast pre-penetrate)
G01 Z-0.125000 F100.0(Penetrate)
G01 X176.172422 Y211.202315 Z-0.125000 F800.000000
G01 X158.682988 Y206.386441 Z-0.125000
G01 X140.084227 Y211.370810 Z-0.125000
G01 X118.146625 Y201.564551 Z-0.125000
G01 X87.758059 Y207.666122 Z-0.125000
G01 X54.888827 Y209.511154 Z-0.125000
G01 X33.182716 Y206.089312 Z-0.125000
G01 X10.812456 Y212.656996 Z-0.125000
G00 Z5.000000

(End cutting path id: polyline385)


(Start cutting path id: polyline387)
(Change tool to Default tool)

G00 Z5.000000
G00 X198.789139 Y202.900185

G00 Z4.875000 (Fast pre-penetrate)
G01 Z-0.125000 F100.0(Penetrate)
G01 X175.843013 Y209.546711 Z-0.125000 F800.000000
G01 X159.011223 Y204.158395 Z-0.125000
G01 X140.267737 Y208.913034 Z-0.125000
G01 X117.948001 Y198.802652 Z-0.125000
G01 X87.284806 Y205.074528 Z-0.125000
G01 X74.356915 Y206.649039 Z-0.125000
G01 X55.840665 Y208.114822 Z-0.125000
G01 X32.779355 Y202.866290 Z-0.125000
G01 X10.472874 Y211.902657 Z-0.125000
G00 Z5.000000

(End cutting path id: polyline387)


(Start cutting path id: polyline389)
(Change tool to Default tool)

G00 Z5.000000
G00 X198.874341 Y200.819847

G00 Z4.875000 (Fast pre-penetrate)
G01 Z-0.125000 F100.0(Penetrate)
G01 X175.513604 Y207.891059 Z-0.125000 F800.000000
G01 X159.339409 Y201.930348 Z-0.125000
G01 X140.451248 Y206.455257 Z-0.125000
G01 X117.749329 Y196.040753 Z-0.125000
G01 X86.811553 Y202.482885 Z-0.125000
G01 X74.311282 Y204.945063 Z-0.125000
G01 X56.792502 Y206.718442 Z-0.125000
G01 X32.375946 Y199.643219 Z-0.125000
G01 X10.133243 Y211.148269 Z-0.125000
G00 Z5.000000

(End cutting path id: polyline389)


(Start cutting path id: polyline391)
(Change tool to Default tool)

G00 Z5.000000
G00 X198.959542 Y198.739509

G00 Z4.875000 (Fast pre-penetrate)
G01 Z-0.125000 F100.0(Penetrate)
G01 X175.184244 Y206.235456 Z-0.125000 F800.000000
G01 X159.667644 Y199.702302 Z-0.125000
G01 X140.634709 Y203.997481 Z-0.125000
G01 X117.550656 Y193.278854 Z-0.125000
G01 X86.338300 Y199.891291 Z-0.125000
G01 X74.265649 Y203.241039 Z-0.125000
G01 X57.744291 Y205.322061 Z-0.125000
G01 X31.972585 Y196.420197 Z-0.125000
G01 X9.793661 Y210.393930 Z-0.125000
G00 Z5.000000

(End cutting path id: polyline391)


(Start cutting path id: polyline393)
(Change tool to Default tool)

G00 Z5.000000
G00 X199.044743 Y196.659122

G00 Z4.875000 (Fast pre-penetrate)
G01 Z-0.125000 F100.0(Penetrate)
G01 X174.854835 Y204.579852 Z-0.125000 F800.000000
G01 X159.995830 Y197.474256 Z-0.125000
G01 X140.818219 Y201.539753 Z-0.125000
G01 X117.351984 Y190.517004 Z-0.125000
G01 X85.865095 Y197.299696 Z-0.125000
G01 X74.219967 Y201.537063 Z-0.125000
G01 X58.696129 Y203.925681 Z-0.125000
G01 X31.569175 Y193.197174 Z-0.125000
G01 X9.454030 Y209.639592 Z-0.125000
G00 Z5.000000

(End cutting path id: polyline393)


(Start cutting path id: polyline395)
(Change tool to Default tool)

G00 Z5.000000
G00 X199.970169 Y192.045491

G00 Z4.875000 (Fast pre-penetrate)
G01 Z-0.125000 F100.0(Penetrate)
G01 X174.033979 Y198.392933 Z-0.125000 F800.000000
G01 X158.972535 Y191.703316 Z-0.125000
G01 X140.752338 Y195.252862 Z-0.125000
G01 X118.976823 Y186.459382 Z-0.125000
G01 X86.131313 Y192.658333 Z-0.125000
G01 X75.636596 Y196.568052 Z-0.125000
G01 X57.785278 Y198.100304 Z-0.125000
G01 X31.960846 Y187.836003 Z-0.125000
G01 X9.080993 Y203.552595 Z-0.125000
G00 Z5.000000

(End cutting path id: polyline395)


(Start cutting path id: polyline397)
(Change tool to Default tool)

G00 Z5.000000
G00 X200.390257 Y190.778820

G00 Z4.875000 (Fast pre-penetrate)
G01 Z-0.125000 F100.0(Penetrate)
G01 X173.788304 Y196.127324 Z-0.125000 F800.000000
G01 X158.296795 Y189.931894 Z-0.125000
G01 X140.627666 Y193.338329 Z-0.125000
G01 X119.888603 Y185.811520 Z-0.125000
G01 X86.501072 Y191.633473 Z-0.125000
G01 X76.367752 Y194.935583 Z-0.125000
G01 X56.853933 Y195.885757 Z-0.125000
G01 X32.358387 Y186.766879 Z-0.125000
G01 X9.064315 Y200.886267 Z-0.125000
G00 Z5.000000

(End cutting path id: polyline397)


(Start cutting path id: polyline399)
(Change tool to Default tool)

G00 Z5.000000
G00 X200.810345 Y189.512197

G00 Z4.875000 (Fast pre-penetrate)
G01 Z-0.125000 F100.0(Penetrate)
G01 X173.542580 Y193.861617 Z-0.125000 F800.000000
G01 X157.621005 Y188.160423 Z-0.125000
G01 X140.502994 Y191.423747 Z-0.125000
G01 X120.800335 Y185.163609 Z-0.125000
G01 X86.870832 Y190.608613 Z-0.125000
G01 X77.098907 Y193.303114 Z-0.125000
G01 X55.922589 Y193.671259 Z-0.125000
G01 X32.755927 Y185.697804 Z-0.125000
G01 X9.047587 Y198.219938 Z-0.125000
G00 Z5.000000

(End cutting path id: polyline399)


(Start cutting path id: polyline401)
(Change tool to Default tool)

G00 Z5.000000
G00 X197.319687 Y162.666574

G00 Z4.875000 (Fast pre-penetrate)
G01 Z-0.125000 F100.0(Penetrate)
G01 X179.448658 Y160.486704 Z-0.125000 F800.000000
G01 X165.941819 Y165.877516 Z-0.125000
G01 X142.258032 Y154.160000 Z-0.125000
G01 X119.004702 Y157.814800 Z-0.125000
G01 X98.185573 Y171.411046 Z-0.125000
G01 X80.711693 Y162.438654 Z-0.125000
G01 X48.178180 Y161.468524 Z-0.125000
G01 X29.522830 Y163.115177 Z-0.125000
G01 X20.647768 Y162.228487 Z-0.125000
G00 Z5.000000

(End cutting path id: polyline401)


(Start cutting path id: polyline403)
(Change tool to Default tool)

G00 Z5.000000
G00 X196.835870 Y156.402181

G00 Z4.875000 (Fast pre-penetrate)
G01 Z-0.125000 F100.0(Penetrate)
G01 X181.705463 Y154.738801 Z-0.125000 F800.000000
G01 X167.717497 Y161.541546 Z-0.125000
G01 X141.541060 Y147.627727 Z-0.125000
G01 X117.106358 Y150.840185 Z-0.125000
G01 X99.915911 Y165.565470 Z-0.125000
G01 X79.947279 Y156.326224 Z-0.125000
G01 X48.833231 Y155.425840 Z-0.125000
G01 X28.454929 Y158.041253 Z-0.125000
G01 X22.729769 Y156.451287 Z-0.125000
G00 Z5.000000

(End cutting path id: polyline403)


(Start cutting path id: polyline405)
(Change tool to Default tool)

G00 Z5.000000
G00 X197.781300 Y154.133198

G00 Z4.875000 (Fast pre-penetrate)
G01 Z-0.125000 F100.0(Penetrate)
G01 X182.267586 Y152.883205 Z-0.125000 F800.000000
G01 X166.592909 Y159.401734 Z-0.125000
G01 X140.240054 Y146.398130 Z-0.125000
G01 X117.025314 Y148.935336 Z-0.125000
G01 X99.707017 Y162.391700 Z-0.125000
G01 X79.517360 Y154.533135 Z-0.125000
G01 X49.760516 Y153.094447 Z-0.125000
G01 X28.723885 Y156.322654 Z-0.125000
G01 X22.207997 Y154.524575 Z-0.125000
G00 Z5.000000

(End cutting path id: polyline405)


(Start cutting path id: polyline407)
(Change tool to Default tool)

G00 Z5.000000
G00 X198.034262 Y164.664254

G00 Z4.875000 (Fast pre-penetrate)
G01 Z-0.125000 F100.0(Penetrate)
G01 X178.601292 Y162.432833 Z-0.125000 F800.000000
G01 X164.491687 Y166.975594 Z-0.125000
G01 X141.966088 Y156.811363 Z-0.125000
G01 X119.913352 Y160.349659 Z-0.125000
G01 X97.215933 Y172.747023 Z-0.125000
G01 X80.878917 Y164.598275 Z-0.125000
G01 X48.314296 Y163.324218 Z-0.125000
G01 X30.191234 Y164.792839 Z-0.125000
G01 X19.345881 Y164.153732 Z-0.125000
G00 Z5.000000

(End cutting path id: polyline407)


(Start cutting path id: polyline409)
(Change tool to Default tool)

G00 Z5.000000
G00 X198.748886 Y166.661934

G00 Z4.875000 (Fast pre-penetrate)
G01 Z-0.125000 F100.0(Penetrate)
G01 X177.753975 Y164.378962 Z-0.125000 F800.000000
G01 X163.041554 Y168.073673 Z-0.125000
G01 X141.674096 Y159.462676 Z-0.125000
G01 X120.822002 Y162.884517 Z-0.125000
G01 X96.246341 Y174.082951 Z-0.125000
G01 X81.046189 Y166.757994 Z-0.125000
G01 X48.450413 Y165.179912 Z-0.125000
G01 X30.859638 Y166.470550 Z-0.125000
G01 X18.043946 Y166.078976 Z-0.125000
G00 Z5.000000

(End cutting path id: polyline409)


(Start cutting path id: polyline411)
(Change tool to Default tool)

G00 Z5.000000
G00 X198.726681 Y151.864165

G00 Z4.875000 (Fast pre-penetrate)
G01 Z-0.125000 F100.0(Penetrate)
G01 X182.829708 Y151.027608 Z-0.125000 F800.000000
G01 X165.468321 Y157.261921 Z-0.125000
G01 X138.939097 Y145.168484 Z-0.125000
G01 X116.944221 Y147.030439 Z-0.125000
G01 X99.498122 Y159.217979 Z-0.125000
G01 X79.087392 Y152.740094 Z-0.125000
G01 X50.687801 Y150.763054 Z-0.125000
G01 X28.992841 Y154.604054 Z-0.125000
G01 X21.686225 Y152.597864 Z-0.125000
G00 Z5.000000

(End cutting path id: polyline411)


(Start cutting path id: polyline413)
(Change tool to Default tool)

G00 Z5.000000
G00 X199.672112 Y149.595132

G00 Z4.875000 (Fast pre-penetrate)
G01 Z-0.125000 F100.0(Penetrate)
G01 X183.391831 Y149.172061 Z-0.125000 F800.000000
G01 X164.343734 Y155.122109 Z-0.125000
G01 X137.638091 Y143.938837 Z-0.125000
G01 X116.863177 Y145.125590 Z-0.125000
G01 X99.289228 Y156.044258 Z-0.125000
G01 X78.657473 Y150.947005 Z-0.125000
G01 X51.615085 Y148.431710 Z-0.125000
G01 X29.261748 Y152.885455 Z-0.125000
G01 X21.164453 Y150.671152 Z-0.125000
G00 Z5.000000

(End cutting path id: polyline413)


(Start cutting path id: polyline415)
(Change tool to Default tool)

G00 Z5.000000
G00 X199.463461 Y168.659614

G00 Z4.875000 (Fast pre-penetrate)
G01 Z-0.125000 F100.0(Penetrate)
G01 X176.906610 Y166.325140 Z-0.125000 F800.000000
G01 X161.591470 Y169.171751 Z-0.125000
G01 X141.382103 Y162.113989 Z-0.125000
G01 X121.730652 Y165.419376 Z-0.125000
G01 X95.276700 Y175.418879 Z-0.125000
G01 X81.213461 Y168.917615 Z-0.125000
G01 X48.586529 Y167.035558 Z-0.125000
G01 X31.528042 Y168.148211 Z-0.125000
G01 X16.742060 Y168.004220 Z-0.125000
G00 Z5.000000

(End cutting path id: polyline415)


(Start cutting path id: polyline417)
(Change tool to Default tool)

G00 Z5.000000
G00 X200.178085 Y170.657294

G00 Z4.875000 (Fast pre-penetrate)
G01 Z-0.125000 F100.0(Penetrate)
G01 X176.059293 Y168.271318 Z-0.125000 F800.000000
G01 X160.141338 Y170.269829 Z-0.125000
G01 X141.090110 Y164.765302 Z-0.125000
G01 X122.639302 Y167.954234 Z-0.125000
G01 X94.307108 Y176.754806 Z-0.125000
G01 X81.380684 Y171.077334 Z-0.125000
G01 X48.722646 Y168.891252 Z-0.125000
G01 X32.196495 Y169.825873 Z-0.125000
G01 X15.440173 Y169.929465 Z-0.125000
G00 Z5.000000

(End cutting path id: polyline417)


(Start cutting path id: polyline419)
(Change tool to Default tool)

G00 Z5.000000
G00 X200.892661 Y172.654926

G00 Z4.875000 (Fast pre-penetrate)
G01 Z-0.125000 F100.0(Penetrate)
G01 X175.211927 Y170.217447 Z-0.125000 F800.000000
G01 X158.691156 Y171.367908 Z-0.125000
G01 X140.798166 Y167.416616 Z-0.125000
G01 X123.547952 Y170.489093 Z-0.125000
G01 X93.337467 Y178.090783 Z-0.125000
G01 X81.547908 Y173.236955 Z-0.125000
G01 X48.858762 Y170.746898 Z-0.125000
G01 X32.864899 Y171.503535 Z-0.125000
G01 X14.138238 Y171.854709 Z-0.125000
G00 Z5.000000

(End cutting path id: polyline419)


(Start cutting path id: polyline421)
(Change tool to Default tool)

G00 Z5.000000
G00 X201.607285 Y174.652606

G00 Z4.875000 (Fast pre-penetrate)
G01 Z-0.125000 F100.0(Penetrate)
G01 X174.364610 Y172.163625 Z-0.125000 F800.000000
G01 X157.241073 Y172.465986 Z-0.125000
G01 X140.506174 Y170.067978 Z-0.125000
G01 X124.456602 Y173.023952 Z-0.125000
G01 X92.367876 Y179.426711 Z-0.125000
G01 X81.715180 Y175.396673 Z-0.125000
G01 X48.994879 Y172.602592 Z-0.125000
G01 X12.836352 Y173.779953 Z-0.125000
G00 Z5.000000

(End cutting path id: polyline421)


(Start cutting path id: polyline423)
(Change tool to Default tool)

G00 Z5.000000
G00 X201.230482 Y188.245526

G00 Z4.875000 (Fast pre-penetrate)
G01 Z-0.125000 F100.0(Penetrate)
G01 X173.296856 Y191.596008 Z-0.125000 F800.000000
G01 X156.945265 Y186.388951 Z-0.125000
G01 X140.378323 Y189.509214 Z-0.125000
G01 X121.712066 Y184.515747 Z-0.125000
G01 X87.240543 Y189.583753 Z-0.125000
G01 X77.830063 Y191.670596 Z-0.125000
G01 X54.991294 Y191.456712 Z-0.125000
G01 X33.153419 Y184.628729 Z-0.125000
G01 X9.030860 Y195.553609 Z-0.125000
G00 Z5.000000

(End cutting path id: polyline423)


(Start cutting path id: polyline425)
(Change tool to Default tool)

G00 Z5.000000
G00 X201.650570 Y186.978904

G00 Z4.875000 (Fast pre-penetrate)
G01 Z-0.125000 F100.0(Penetrate)
G01 X173.051132 Y189.330350 Z-0.125000 F800.000000
G01 X156.269475 Y184.617529 Z-0.125000
G01 X140.253651 Y187.594681 Z-0.125000
G01 X122.623797 Y183.867885 Z-0.125000
G01 X87.610302 Y188.558844 Z-0.125000
G01 X78.561218 Y190.038126 Z-0.125000
G01 X54.059950 Y189.242214 Z-0.125000
G01 X33.550959 Y183.559655 Z-0.125000
G01 X9.014182 Y192.887330 Z-0.125000
G00 Z5.000000

(End cutting path id: polyline425)


(Start cutting path id: polyline427)
(Change tool to Default tool)

G00 Z5.000000
G00 X202.070658 Y185.712233

G00 Z4.875000 (Fast pre-penetrate)
G01 Z-0.125000 F100.0(Penetrate)
G01 X172.805408 Y187.064692 Z-0.125000 F800.000000
G01 X155.593686 Y182.846058 Z-0.125000
G01 X140.128931 Y185.680148 Z-0.125000
G01 X123.535577 Y183.220024 Z-0.125000
G01 X87.980062 Y187.533983 Z-0.125000
G01 X79.292325 Y188.405657 Z-0.125000
G01 X53.128605 Y187.027667 Z-0.125000
G01 X33.948500 Y182.490580 Z-0.125000
G01 X8.997455 Y190.221001 Z-0.125000
G00 Z5.000000

(End cutting path id: polyline427)


(Start cutting path id: polyline429)
(Change tool to Default tool)

G00 Z5.000000
G00 X202.490795 Y184.445610

G00 Z4.875000 (Fast pre-penetrate)
G01 Z-0.125000 F100.0(Penetrate)
G01 X172.559685 Y184.799034 Z-0.125000 F800.000000
G01 X154.917945 Y181.074586 Z-0.125000
G01 X140.004259 Y183.765615 Z-0.125000
G01 X124.447309 Y182.572162 Z-0.125000
G01 X88.349772 Y186.509123 Z-0.125000
G01 X80.023481 Y186.773139 Z-0.125000
G01 X52.197261 Y184.813169 Z-0.125000
G01 X34.345992 Y181.421505 Z-0.125000
G01 X8.980776 Y187.554672 Z-0.125000
G00 Z5.000000

(End cutting path id: polyline429)


(Start cutting path id: polyline431)
(Change tool to Default tool)

G00 Z5.000000
G00 X202.321860 Y176.650286

G00 Z4.875000 (Fast pre-penetrate)
G01 Z-0.125000 F100.0(Penetrate)
G01 X173.517244 Y174.109802 Z-0.125000 F800.000000
G01 X155.790940 Y173.564065 Z-0.125000
G01 X140.214181 Y172.719291 Z-0.125000
G01 X125.365252 Y175.558810 Z-0.125000
G01 X91.398235 Y180.762638 Z-0.125000
G01 X81.882403 Y177.556294 Z-0.125000
G01 X49.130995 Y174.458237 Z-0.125000
G01 X34.201756 Y174.858908 Z-0.125000
G01 X11.534465 Y175.705247 Z-0.125000
G00 Z5.000000

(End cutting path id: polyline431)


(Start cutting path id: polyline433)
(Change tool to Default tool)

G00 Z5.000000
G00 X200.617493 Y147.326148

G00 Z4.875000 (Fast pre-penetrate)
G01 Z-0.125000 F100.0(Penetrate)
G01 X183.953905 Y147.316464 Z-0.125000 F800.000000
G01 X163.219146 Y152.982345 Z-0.125000
G01 X136.337134 Y142.709191 Z-0.125000
G01 X116.782134 Y143.220741 Z-0.125000
G01 X99.080333 Y152.870537 Z-0.125000
G01 X78.227554 Y149.153964 Z-0.125000
G01 X52.542370 Y146.100317 Z-0.125000
G01 X29.530704 Y151.166855 Z-0.125000
G01 X20.642681 Y148.744441 Z-0.125000
G00 Z5.000000

(End cutting path id: polyline433)


(Start cutting path id: polyline435)
(Change tool to Default tool)

G00 Z5.000000
G00 X201.562923 Y145.057116

G00 Z4.875000 (Fast pre-penetrate)
G01 Z-0.125000 F100.0(Penetrate)
G01 X184.516027 Y145.460917 Z-0.125000 F800.000000
G01 X162.094559 Y150.842533 Z-0.125000
G01 X135.036128 Y141.479594 Z-0.125000
G01 X116.701090 Y141.315843 Z-0.125000
G01 X98.871438 Y149.696816 Z-0.125000
G01 X77.797636 Y147.360875 Z-0.125000
G01 X53.469655 Y143.768924 Z-0.125000
G01 X29.799660 Y149.448256 Z-0.125000
G01 X20.120909 Y146.817729 Z-0.125000
G00 Z5.000000

(End cutting path id: polyline435)


(Start cutting path id: polyline437)
(Change tool to Default tool)

G00 Z5.000000
G00 X198.641089 Y114.727193

G00 Z4.875000 (Fast pre-penetrate)
G01 Z-0.125000 F100.0(Penetrate)
G01 X173.861082 Y122.621561 Z-0.125000 F800.000000
G01 X160.226979 Y118.522952 Z-0.125000
G01 X132.973349 Y124.116935 Z-0.125000
G01 X115.940833 Y124.303331 Z-0.125000
G01 X89.026638 Y123.006825 Z-0.125000
G01 X76.034675 Y114.155142 Z-0.125000
G01 X49.522618 Y118.891048 Z-0.125000
G01 X28.995580 Y113.046157 Z-0.125000
G01 X11.142696 Y121.804275 Z-0.125000
G00 Z5.000000

(End cutting path id: polyline437)


(Start cutting path id: polyline439)
(Change tool to Default tool)

G00 Z5.000000
G00 X199.405992 Y116.625684

G00 Z4.875000 (Fast pre-penetrate)
G01 Z-0.125000 F100.0(Penetrate)
G01 X175.207623 Y123.977688 Z-0.125000 F800.000000
G01 X159.851448 Y120.685018 Z-0.125000
G01 X132.529148 Y125.238392 Z-0.125000
G01 X115.976341 Y125.052143 Z-0.125000
G01 X89.906676 Y124.088959 Z-0.125000
G01 X75.996036 Y116.579170 Z-0.125000
G01 X50.380988 Y120.213134 Z-0.125000
G01 X29.210490 Y115.827081 Z-0.125000
G01 X11.779651 Y123.342250 Z-0.125000
G00 Z5.000000

(End cutting path id: polyline439)


(Start cutting path id: polyline441)
(Change tool to Default tool)

G00 Z5.000000
G00 X200.170896 Y118.524125

G00 Z4.875000 (Fast pre-penetrate)
G01 Z-0.125000 F100.0(Penetrate)
G01 X176.554164 Y125.333816 Z-0.125000 F800.000000
G01 X159.475917 Y122.847085 Z-0.125000
G01 X132.084899 Y126.359850 Z-0.125000
G01 X116.011850 Y125.800955 Z-0.125000
G01 X90.786713 Y125.171092 Z-0.125000
G01 X75.957348 Y119.003199 Z-0.125000
G01 X51.239310 Y121.535270 Z-0.125000
G01 X29.425352 Y118.607957 Z-0.125000
G01 X12.416557 Y124.880273 Z-0.125000
G00 Z5.000000

(End cutting path id: polyline441)


(Start cutting path id: polyline443)
(Change tool to Default tool)

G00 Z5.000000
G00 X199.902135 Y109.309090

G00 Z4.875000 (Fast pre-penetrate)
G01 Z-0.125000 F100.0(Penetrate)
G01 X174.323135 Y116.732601 Z-0.125000 F800.000000
G01 X161.095425 Y112.747170 Z-0.125000
G01 X134.778324 Y119.267313 Z-0.125000
G01 X116.664407 Y117.522889 Z-0.125000
G01 X89.900562 Y118.381015 Z-0.125000
G01 X75.154930 Y108.349036 Z-0.125000
G01 X49.934195 Y113.330275 Z-0.125000
G01 X31.514249 Y107.606631 Z-0.125000
G01 X11.170624 Y116.170968 Z-0.125000
G00 Z5.000000

(End cutting path id: polyline443)


(Start cutting path id: polyline445)
(Change tool to Default tool)

G00 Z5.000000
G00 X200.935750 Y120.422616

G00 Z4.875000 (Fast pre-penetrate)
G01 Z-0.125000 F100.0(Penetrate)
G01 X177.900754 Y126.689992 Z-0.125000 F800.000000
G01 X159.100386 Y125.009102 Z-0.125000
G01 X131.640698 Y127.481307 Z-0.125000
G01 X116.047359 Y126.549767 Z-0.125000
G01 X91.666702 Y126.253226 Z-0.125000
G01 X75.918709 Y121.427276 Z-0.125000
G01 X52.097631 Y122.857356 Z-0.125000
G01 X29.640263 Y121.388882 Z-0.125000
G01 X13.053512 Y126.418248 Z-0.125000
G00 Z5.000000

(End cutting path id: polyline445)


(Start cutting path id: polyline447)
(Change tool to Default tool)

G00 Z5.000000
G00 X201.700654 Y122.321155

G00 Z4.875000 (Fast pre-penetrate)
G01 Z-0.125000 F100.0(Penetrate)
G01 X179.247296 Y128.046169 Z-0.125000 F800.000000
G01 X158.724855 Y127.171169 Z-0.125000
G01 X131.196498 Y128.602765 Z-0.125000
G01 X116.082818 Y127.298628 Z-0.125000
G01 X92.546739 Y127.335360 Z-0.125000
G01 X75.880021 Y123.851305 Z-0.125000
G01 X52.956002 Y124.179442 Z-0.125000
G01 X29.855124 Y124.169807 Z-0.125000
G01 X13.690418 Y127.956272 Z-0.125000
G00 Z5.000000

(End cutting path id: polyline447)


(Start cutting path id: polyline449)
(Change tool to Default tool)

G00 Z5.000000
G00 X200.915061 Y107.549308

G00 Z4.875000 (Fast pre-penetrate)
G01 Z-0.125000 F100.0(Penetrate)
G01 X175.227480 Y114.466161 Z-0.125000 F800.000000
G01 X161.341883 Y110.940239 Z-0.125000
G01 X135.458711 Y117.403157 Z-0.125000
G01 X117.043900 Y114.507147 Z-0.125000
G01 X90.777567 Y116.609201 Z-0.125000
G01 X74.695714 Y106.658021 Z-0.125000
G01 X50.569096 Y111.210907 Z-0.125000
G01 X32.881039 Y106.277355 Z-0.125000
G01 X11.503016 Y114.123301 Z-0.125000
G00 Z5.000000

(End cutting path id: polyline449)


(Start cutting path id: polyline451)
(Change tool to Default tool)

G00 Z5.000000
G00 X201.927987 Y105.789527

G00 Z4.875000 (Fast pre-penetrate)
G01 Z-0.125000 F100.0(Penetrate)
G01 X176.131777 Y112.199769 Z-0.125000 F800.000000
G01 X161.588291 Y109.133357 Z-0.125000
G01 X136.139098 Y115.539050 Z-0.125000
G01 X117.423442 Y111.491357 Z-0.125000
G01 X91.654572 Y114.837436 Z-0.125000
G01 X74.236498 Y104.967007 Z-0.125000
G01 X51.204046 Y109.091587 Z-0.125000
G01 X34.247780 Y104.948030 Z-0.125000
G01 X11.835409 Y112.075635 Z-0.125000
G00 Z5.000000

(End cutting path id: polyline451)


(Start cutting path id: polyline453)
(Change tool to Default tool)

G00 Z5.000000
G00 X199.027624 Y75.584276

G00 Z4.875000 (Fast pre-penetrate)
G01 Z-0.125000 F100.0(Penetrate)
G01 X175.879989 Y72.864782 Z-0.125000 F800.000000
G01 X159.549282 Y71.201206 Z-0.125000
G01 X130.220988 Y75.137287 Z-0.125000
G01 X121.950942 Y77.151548 Z-0.125000
G01 X96.912202 Y80.757780 Z-0.125000
G01 X77.670029 Y66.901381 Z-0.125000
G01 X49.811872 Y69.484856 Z-0.125000
G01 X32.730983 Y76.541885 Z-0.125000
G01 X11.316767 Y76.586833 Z-0.125000
G00 Z5.000000

(End cutting path id: polyline453)


(Start cutting path id: polyline455)
(Change tool to Default tool)

G00 Z5.000000
G00 X199.970805 Y73.982718

G00 Z4.875000 (Fast pre-penetrate)
G01 Z-0.125000 F100.0(Penetrate)
G01 X176.509509 Y70.922028 Z-0.125000 F800.000000
G01 X159.975680 Y69.179218 Z-0.125000
G01 X130.854714 Y73.595057 Z-0.125000
G01 X121.188778 Y75.375039 Z-0.125000
G01 X95.923388 Y77.812322 Z-0.125000
G01 X76.956530 Y66.371148 Z-0.125000
G01 X51.578207 Y67.644324 Z-0.125000
G01 X32.326987 Y74.386617 Z-0.125000
G01 X10.376912 Y74.072614 Z-0.125000
G00 Z5.000000

(End cutting path id: polyline455)


(Start cutting path id: polyline457)
(Change tool to Default tool)

G00 Z5.000000
G00 X200.072489 Y80.146747

G00 Z4.875000 (Fast pre-penetrate)
G01 Z-0.125000 F100.0(Penetrate)
G01 X176.561696 Y78.721657 Z-0.125000 F800.000000
G01 X159.884756 Y77.452638 Z-0.125000
G01 X131.644415 Y81.372334 Z-0.125000
G01 X122.234327 Y81.010449 Z-0.125000
G01 X97.881451 Y87.108939 Z-0.125000
G01 X77.045057 Y72.104036 Z-0.125000
G01 X49.427879 Y75.494673 Z-0.125000
G01 X35.076805 Y81.778189 Z-0.125000
G01 X12.603149 Y82.490319 Z-0.125000
G00 Z5.000000

(End cutting path id: polyline457)


(Start cutting path id: polyline459)
(Change tool to Default tool)

G00 Z5.000000
G00 X201.066487 Y81.627253

G00 Z4.875000 (Fast pre-penetrate)
G01 Z-0.125000 F100.0(Penetrate)
G01 X177.217286 Y80.678692 Z-0.125000 F800.000000
G01 X160.265716 Y79.567359 Z-0.125000
G01 X132.673042 Y83.718791 Z-0.125000
G01 X121.994961 Y82.051596 Z-0.125000
G01 X97.871669 Y88.811790 Z-0.125000
G01 X76.375822 Y74.440271 Z-0.125000
G01 X50.119075 Y77.579266 Z-0.125000
G01 X36.047766 Y83.318756 Z-0.125000
G01 X12.776388 Y84.184952 Z-0.125000
G00 Z5.000000

(End cutting path id: polyline459)


(Start cutting path id: polyline461)
(Change tool to Default tool)

G00 Z5.000000
G00 X200.913985 Y72.381160

G00 Z4.875000 (Fast pre-penetrate)
G01 Z-0.125000 F100.0(Penetrate)
G01 X177.139030 Y68.979225 Z-0.125000 F800.000000
G01 X160.402175 Y67.157229 Z-0.125000
G01 X131.488490 Y72.052876 Z-0.125000
G01 X120.426662 Y73.598481 Z-0.125000
G01 X94.934575 Y74.866864 Z-0.125000
G01 X76.243031 Y65.840915 Z-0.125000
G01 X53.344592 Y65.803743 Z-0.125000
G01 X31.923039 Y72.231348 Z-0.125000
G01 X9.437009 Y71.558396 Z-0.125000
G00 Z5.000000

(End cutting path id: polyline461)


(Start cutting path id: polyline463)
(Change tool to Default tool)

G00 Z5.000000
G00 X201.857117 Y70.779602

G00 Z4.875000 (Fast pre-penetrate)
G01 Z-0.125000 F100.0(Penetrate)
G01 X177.768502 Y67.036422 Z-0.125000 F800.000000
G01 X160.828621 Y65.135241 Z-0.125000
G01 X132.122266 Y70.510646 Z-0.125000
G01 X119.664547 Y71.821972 Z-0.125000
G01 X93.945761 Y71.921406 Z-0.125000
G01 X75.529532 Y65.310681 Z-0.125000
G01 X55.110928 Y63.963162 Z-0.125000
G01 X31.519042 Y70.076080 Z-0.125000
G01 X8.497154 Y69.044177 Z-0.125000
G00 Z5.000000

(End cutting path id: polyline463)


(Start cutting path id: polyline465)
(Change tool to Default tool)

G00 Z5.000000
G00 X202.060534 Y83.107710

G00 Z4.875000 (Fast pre-penetrate)
G01 Z-0.125000 F100.0(Penetrate)
G01 X177.872925 Y82.635728 Z-0.125000 F800.000000
G01 X160.646676 Y81.682081 Z-0.125000
G01 X133.701619 Y86.065200 Z-0.125000
G01 X121.755645 Y83.092743 Z-0.125000
G01 X97.861887 Y90.514689 Z-0.125000
G01 X75.706586 Y76.776457 Z-0.125000
G01 X50.810271 Y79.663908 Z-0.125000
G01 X37.018678 Y84.859275 Z-0.125000
G01 X12.949627 Y85.879586 Z-0.125000
G00 Z5.000000

(End cutting path id: polyline465)


(Start cutting path id: polyline467)
(Change tool to Default tool)

G00 Z5.000000
G00 X203.054532 Y84.588166

G00 Z4.875000 (Fast pre-penetrate)
G01 Z-0.125000 F100.0(Penetrate)
G01 X178.528514 Y84.592568 Z-0.125000 F800.000000
G01 X161.027685 Y83.796656 Z-0.125000
G01 X134.730245 Y88.411510 Z-0.125000
G01 X121.516279 Y84.133744 Z-0.125000
G01 X97.852105 Y92.217393 Z-0.125000
G01 X75.037351 Y79.112496 Z-0.125000
G01 X51.501467 Y81.748354 Z-0.125000
G01 X37.989640 Y86.399646 Z-0.125000
G01 X13.122867 Y87.574073 Z-0.125000
G00 Z5.000000

(End cutting path id: polyline467)


(Start cutting path id: polyline469)
(Change tool to Default tool)

G00 Z5.000000
G00 X202.940914 Y104.029745

G00 Z4.875000 (Fast pre-penetrate)
G01 Z-0.125000 F100.0(Penetrate)
G01 X177.036123 Y109.933377 Z-0.125000 F800.000000
G01 X161.834749 Y107.326474 Z-0.125000
G01 X136.819485 Y113.674943 Z-0.125000
G01 X117.802983 Y108.475566 Z-0.125000
G01 X92.531528 Y113.065623 Z-0.125000
G01 X73.777234 Y103.275993 Z-0.125000
G01 X51.838995 Y106.972219 Z-0.125000
G01 X35.614570 Y103.618754 Z-0.125000
G01 X12.167850 Y110.028018 Z-0.125000
G00 Z5.000000

(End cutting path id: polyline469)


(Start cutting path id: polyline471)
(Change tool to Default tool)

G00 Z5.000000
G00 X202.465508 Y124.219597

G00 Z4.875000 (Fast pre-penetrate)
G01 Z-0.125000 F100.0(Penetrate)
G01 X180.593837 Y129.402296 Z-0.125000 F800.000000
G01 X158.349324 Y129.333235 Z-0.125000
G01 X130.752297 Y129.724173 Z-0.125000
G01 X116.118327 Y128.047440 Z-0.125000
G01 X93.426777 Y128.417494 Z-0.125000
G01 X75.841333 Y126.275333 Z-0.125000
G01 X53.814324 Y125.501528 Z-0.125000
G01 X30.070035 Y126.950732 Z-0.125000
G01 X14.327373 Y129.494247 Z-0.125000
G00 Z5.000000

(End cutting path id: polyline471)


(Start cutting path id: polyline473)
(Change tool to Default tool)

G00 Z5.000000
G00 X202.508354 Y142.788083

G00 Z4.875000 (Fast pre-penetrate)
G01 Z-0.125000 F100.0(Penetrate)
G01 X185.078150 Y143.605320 Z-0.125000 F800.000000
G01 X160.969971 Y148.702720 Z-0.125000
G01 X133.735171 Y140.249947 Z-0.125000
G01 X116.620046 Y139.410994 Z-0.125000
G01 X98.662544 Y146.523095 Z-0.125000
G01 X77.367717 Y145.567834 Z-0.125000
G01 X54.396891 Y141.437580 Z-0.125000
G01 X30.068616 Y147.729656 Z-0.125000
G01 X19.599137 Y144.891017 Z-0.125000
G00 Z5.000000

(End cutting path id: polyline473)


(Start cutting path id: polyline475)
(Change tool to Default tool)

G00 Z5.000000
G00 X203.453735 Y140.519099

G00 Z4.875000 (Fast pre-penetrate)
G01 Z-0.125000 F100.0(Penetrate)
G01 X185.640273 Y141.749724 Z-0.125000 F800.000000
G01 X159.845383 Y146.562908 Z-0.125000
G01 X132.434165 Y139.020301 Z-0.125000
G01 X116.539002 Y137.506145 Z-0.125000
G01 X98.453600 Y143.349374 Z-0.125000
G01 X76.937798 Y143.774744 Z-0.125000
G01 X55.324175 Y139.106187 Z-0.125000
G01 X30.337572 Y146.011056 Z-0.125000
G01 X19.077366 Y142.964306 Z-0.125000
G00 Z5.000000

(End cutting path id: polyline475)


(Start cutting path id: polyline477)
(Change tool to Default tool)

G00 Z5.000000
G00 X203.230412 Y126.118088

G00 Z4.875000 (Fast pre-penetrate)
G01 Z-0.125000 F100.0(Penetrate)
G01 X181.940427 Y130.758424 Z-0.125000 F800.000000
G01 X157.973793 Y131.495302 Z-0.125000
G01 X130.308096 Y130.845630 Z-0.125000
G01 X116.153836 Y128.796253 Z-0.125000
G01 X94.306815 Y129.499627 Z-0.125000
G01 X75.802694 Y128.699411 Z-0.125000
G01 X54.672694 Y126.823663 Z-0.125000
G01 X30.284896 Y129.731656 Z-0.125000
G01 X14.964279 Y131.032222 Z-0.125000
G00 Z5.000000

(End cutting path id: polyline477)


(Start cutting path id: polyline479)
(Change tool to Default tool)

G00 Z5.000000
G00 X203.995315 Y128.016578

G00 Z4.875000 (Fast pre-penetrate)
G01 Z-0.125000 F100.0(Penetrate)
G01 X183.286968 Y132.114600 Z-0.125000 F800.000000
G01 X157.598213 Y133.657320 Z-0.125000
G01 X129.863896 Y131.967088 Z-0.125000
G01 X116.189344 Y129.545065 Z-0.125000
G01 X95.186852 Y130.581761 Z-0.125000
G01 X75.764007 Y131.123439 Z-0.125000
G01 X55.531016 Y128.145750 Z-0.125000
G01 X30.499758 Y132.512532 Z-0.125000
G01 X15.601234 Y132.570246 Z-0.125000
G00 Z5.000000

(End cutting path id: polyline479)


(Start cutting path id: polyline481)
(Change tool to Default tool)

G00 Z5.000000
G00 X204.399165 Y138.250066

G00 Z4.875000 (Fast pre-penetrate)
G01 Z-0.125000 F100.0(Penetrate)
G01 X186.202395 Y139.894176 Z-0.125000 F800.000000
G01 X158.720796 Y144.423095 Z-0.125000
G01 X131.133208 Y137.790704 Z-0.125000
G01 X116.457958 Y135.601296 Z-0.125000
G01 X98.244754 Y140.175653 Z-0.125000
G01 X76.507830 Y141.981704 Z-0.125000
G01 X56.251460 Y136.774843 Z-0.125000
G01 X30.606529 Y144.292506 Z-0.125000
G01 X18.555594 Y141.037643 Z-0.125000
G00 Z5.000000

(End cutting path id: polyline481)


(Start cutting path id: polyline483)
(Change tool to Default tool)

G00 Z5.000000
G00 X204.760170 Y129.915069

G00 Z4.875000 (Fast pre-penetrate)
G01 Z-0.125000 F100.0(Penetrate)
G01 X184.633509 Y133.470728 Z-0.125000 F800.000000
G01 X157.222682 Y135.819386 Z-0.125000
G01 X129.419646 Y133.088545 Z-0.125000
G01 X116.224853 Y130.293877 Z-0.125000
G01 X96.066890 Y131.663895 Z-0.125000
G01 X75.725319 Y133.547468 Z-0.125000
G01 X56.389337 Y129.467836 Z-0.125000
G01 X30.714669 Y135.293457 Z-0.125000
G01 X16.238140 Y134.108221 Z-0.125000
G00 Z5.000000

(End cutting path id: polyline483)


(Start cutting path id: polyline485)
(Change tool to Default tool)

G00 Z5.000000
G00 X205.344547 Y135.981083

G00 Z4.875000 (Fast pre-penetrate)
G01 Z-0.125000 F100.0(Penetrate)
G01 X186.764518 Y138.038580 Z-0.125000 F800.000000
G01 X157.596208 Y142.283283 Z-0.125000
G01 X116.376914 Y133.696399 Z-0.125000
G01 X98.035811 Y137.001932 Z-0.125000
G01 X76.077911 Y140.188614 Z-0.125000
G01 X57.178745 Y134.443450 Z-0.125000
G01 X30.875485 Y142.573906 Z-0.125000
G01 X18.033822 Y139.110931 Z-0.125000
G00 Z5.000000

(End cutting path id: polyline485)


(Start cutting path id: polyline487)
(Change tool to Default tool)

G00 Z5.000000
G00 X203.036484 Y178.647966

G00 Z4.875000 (Fast pre-penetrate)
G01 Z-0.125000 F100.0(Penetrate)
G01 X172.669879 Y176.055931 Z-0.125000 F800.000000
G01 X154.340807 Y174.662143 Z-0.125000
G01 X139.922188 Y175.370653 Z-0.125000
G01 X126.273902 Y178.093669 Z-0.125000
G01 X90.428643 Y182.098566 Z-0.125000
G01 X82.049675 Y179.716013 Z-0.125000
G01 X49.267112 Y176.313932 Z-0.125000
G01 X34.870160 Y176.536570 Z-0.125000
G01 X10.232579 Y177.630491 Z-0.125000
G00 Z5.000000

(End cutting path id: polyline487)


(Start cutting path id: polyline489)
(Change tool to Default tool)

G00 Z5.000000
G00 X202.910883 Y183.178939

G00 Z4.875000 (Fast pre-penetrate)
G01 Z-0.125000 F100.0(Penetrate)
G01 X172.313961 Y182.533376 Z-0.125000 F800.000000
G01 X154.242205 Y179.303164 Z-0.125000
G01 X139.879588 Y181.851033 Z-0.125000
G01 X125.359040 Y181.924300 Z-0.125000
G01 X88.719532 Y185.484263 Z-0.125000
G01 X80.754636 Y185.140670 Z-0.125000
G01 X51.265917 Y182.598622 Z-0.125000
G01 X34.743532 Y180.352430 Z-0.125000
G01 X8.964049 Y184.888344 Z-0.125000
G00 Z5.000000

(End cutting path id: polyline489)


(Start cutting path id: polyline491)
(Change tool to Default tool)

G00 Z5.000000
G00 X203.953840 Y102.269963

G00 Z4.875000 (Fast pre-penetrate)
G01 Z-0.125000 F100.0(Penetrate)
G01 X177.940420 Y107.666986 Z-0.125000 F800.000000
G01 X162.081206 Y105.519592 Z-0.125000
G01 X137.499872 Y111.810837 Z-0.125000
G01 X118.182525 Y105.459775 Z-0.125000
G01 X93.408534 Y111.293809 Z-0.125000
G01 X73.318018 Y101.584978 Z-0.125000
G01 X52.473945 Y104.852900 Z-0.125000
G01 X36.981360 Y102.289429 Z-0.125000
G01 X12.500242 Y107.980352 Z-0.125000
G00 Z5.000000

(End cutting path id: polyline491)


(Start cutting path id: polyline493)
(Change tool to Default tool)

G00 Z5.000000
G00 X204.966815 Y100.510181

G00 Z4.875000 (Fast pre-penetrate)
G01 Z-0.125000 F100.0(Penetrate)
G01 X178.844766 Y105.400545 Z-0.125000 F800.000000
G01 X162.327664 Y103.712710 Z-0.125000
G01 X138.180308 Y109.946730 Z-0.125000
G01 X118.562066 Y102.443985 Z-0.125000
G01 X94.285539 Y109.521995 Z-0.125000
G01 X72.858802 Y99.893964 Z-0.125000
G01 X53.108895 Y102.733532 Z-0.125000
G01 X38.348101 Y100.960153 Z-0.125000
G01 X12.832635 Y105.932686 Z-0.125000
G00 Z5.000000

(End cutting path id: polyline493)


(Start cutting path id: polyline495)
(Change tool to Default tool)

G00 Z5.000000
G00 X204.048529 Y86.068672

G00 Z4.875000 (Fast pre-penetrate)
G01 Z-0.125000 F100.0(Penetrate)
G01 X179.184104 Y86.549751 Z-0.125000 F800.000000
G01 X161.408645 Y85.911524 Z-0.125000
G01 X135.758822 Y90.758065 Z-0.125000
G01 X121.276963 Y85.175038 Z-0.125000
G01 X97.842372 Y93.920390 Z-0.125000
G01 X74.368115 Y81.448878 Z-0.125000
G01 X52.192664 Y83.833094 Z-0.125000
G01 X38.960552 Y87.940311 Z-0.125000
G01 X13.296106 Y89.268853 Z-0.125000
G00 Z5.000000

(End cutting path id: polyline495)


(Start cutting path id: polyline497)
(Change tool to Default tool)

G00 Z5.000000
G00 X202.800346 Y69.178044

G00 Z4.875000 (Fast pre-penetrate)
G01 Z-0.125000 F100.0(Penetrate)
G01 X178.398022 Y65.093619 Z-0.125000 F800.000000
G01 X161.255067 Y63.113302 Z-0.125000
G01 X132.755993 Y68.968465 Z-0.125000
G01 X118.902431 Y70.045414 Z-0.125000
G01 X92.956948 Y68.975997 Z-0.125000
G01 X74.816033 Y64.780399 Z-0.125000
G01 X56.877312 Y62.122581 Z-0.125000
G01 X31.115046 Y67.920812 Z-0.125000
G01 X7.557251 Y66.529959 Z-0.125000
G00 Z5.000000

(End cutting path id: polyline497)


(Start cutting path id: polyline499)
(Change tool to Default tool)

G00 Z5.000000
G00 X203.743478 Y67.576486

G00 Z4.875000 (Fast pre-penetrate)
G01 Z-0.125000 F100.0(Penetrate)
G01 X179.027543 Y63.150865 Z-0.125000 F800.000000
G01 X161.681514 Y61.091313 Z-0.125000
G01 X133.389769 Y67.426234 Z-0.125000
G01 X118.140315 Y68.268856 Z-0.125000
G01 X91.968085 Y66.030539 Z-0.125000
G01 X74.102534 Y64.250166 Z-0.125000
G01 X58.643648 Y60.282049 Z-0.125000
G01 X30.711098 Y65.765544 Z-0.125000
G01 X6.617396 Y64.015789 Z-0.125000
G00 Z5.000000

(End cutting path id: polyline499)


(Start cutting path id: polyline501)
(Change tool to Default tool)

G00 Z5.000000
G00 X204.686658 Y65.974928

G00 Z4.875000 (Fast pre-penetrate)
G01 Z-0.125000 F100.0(Penetrate)
G01 X179.657064 Y61.208062 Z-0.125000 F800.000000
G01 X162.107960 Y59.069325 Z-0.125000
G01 X134.023496 Y65.884004 Z-0.125000
G01 X117.378200 Y66.492347 Z-0.125000
G01 X90.979321 Y63.085081 Z-0.125000
G01 X73.389035 Y63.719932 Z-0.125000
G01 X60.410033 Y58.441467 Z-0.125000
G01 X30.307102 Y63.610276 Z-0.125000
G01 X5.677542 Y61.501570 Z-0.125000
G00 Z5.000000

(End cutting path id: polyline501)


(Start cutting path id: polyline503)
(Change tool to Default tool)

G00 Z5.000000
G00 X205.629839 Y64.373370

G00 Z4.875000 (Fast pre-penetrate)
G01 Z-0.125000 F100.0(Penetrate)
G01 X180.286535 Y59.265259 Z-0.125000 F800.000000
G01 X162.534406 Y57.047337 Z-0.125000
G01 X134.657271 Y64.341823 Z-0.125000
G01 X116.616035 Y64.715789 Z-0.125000
G01 X89.990507 Y60.139623 Z-0.125000
G01 X72.675536 Y63.189699 Z-0.125000
G01 X62.176368 Y56.600886 Z-0.125000
G01 X29.903154 Y61.455008 Z-0.125000
G01 X4.737638 Y58.987352 Z-0.125000
G00 Z5.000000

(End cutting path id: polyline503)


(Start cutting path id: polyline505)
(Change tool to Default tool)

G00 Z5.000000
G00 X206.573019 Y62.771812

G00 Z4.875000 (Fast pre-penetrate)
G01 Z-0.125000 F100.0(Penetrate)
G01 X180.916056 Y57.322456 Z-0.125000 F800.000000
G01 X162.960852 Y55.025348 Z-0.125000
G01 X135.290998 Y62.799593 Z-0.125000
G01 X115.853920 Y62.939231 Z-0.125000
G01 X89.001694 Y57.194165 Z-0.125000
G01 X71.962037 Y62.659417 Z-0.125000
G01 X63.942753 Y54.760354 Z-0.125000
G01 X29.499157 Y59.299740 Z-0.125000
G01 X3.797784 Y56.473133 Z-0.125000
G00 Z5.000000

(End cutting path id: polyline505)


(Start cutting path id: polyline507)
(Change tool to Default tool)

G00 Z5.000000
G00 X205.042527 Y87.549129

G00 Z4.875000 (Fast pre-penetrate)
G01 Z-0.125000 F100.0(Penetrate)
G01 X179.839693 Y88.506787 Z-0.125000 F800.000000
G01 X161.789605 Y88.026246 Z-0.125000
G01 X136.787449 Y93.104522 Z-0.125000
G01 X121.037597 Y86.216234 Z-0.125000
G01 X97.832590 Y95.623241 Z-0.125000
G01 X73.698880 Y83.785064 Z-0.125000
G01 X52.883860 Y85.917736 Z-0.125000
G01 X39.931465 Y89.480829 Z-0.125000
G01 X13.469345 Y90.963487 Z-0.125000
G00 Z5.000000

(End cutting path id: polyline507)


(Start cutting path id: polyline509)
(Change tool to Default tool)

G00 Z5.000000
G00 X206.036525 Y89.029586

G00 Z4.875000 (Fast pre-penetrate)
G01 Z-0.125000 F100.0(Penetrate)
G01 X180.495283 Y90.463823 Z-0.125000 F800.000000
G01 X162.170565 Y90.140968 Z-0.125000
G01 X137.816026 Y95.450980 Z-0.125000
G01 X120.798232 Y87.257381 Z-0.125000
G01 X97.822808 Y97.326140 Z-0.125000
G01 X73.029644 Y86.121250 Z-0.125000
G01 X53.575056 Y88.002329 Z-0.125000
G01 X40.902426 Y91.021348 Z-0.125000
G01 X13.642584 Y92.658121 Z-0.125000
G00 Z5.000000

(End cutting path id: polyline509)


(Start cutting path id: polyline511)
(Change tool to Default tool)

G00 Z5.000000
G00 X205.979741 Y98.750399

G00 Z4.875000 (Fast pre-penetrate)
G01 Z-0.125000 F100.0(Penetrate)
G01 X179.749112 Y103.134154 Z-0.125000 F800.000000
G01 X162.574121 Y101.905779 Z-0.125000
G01 X138.860695 Y108.082574 Z-0.125000
G01 X118.941559 Y99.428194 Z-0.125000
G01 X95.162495 Y107.750133 Z-0.125000
G01 X72.399586 Y98.202950 Z-0.125000
G01 X53.743844 Y100.614213 Z-0.125000
G01 X39.714891 Y99.630828 Z-0.125000
G01 X13.165076 Y103.885020 Z-0.125000
G00 Z5.000000

(End cutting path id: polyline511)


(Start cutting path id: polyline513)
(Change tool to Default tool)

G00 Z5.000000
G00 X206.992716 Y96.990569

G00 Z4.875000 (Fast pre-penetrate)
G01 Z-0.125000 F100.0(Penetrate)
G01 X180.653458 Y100.867713 Z-0.125000 F800.000000
G01 X162.820579 Y100.098897 Z-0.125000
G01 X139.541082 Y106.218467 Z-0.125000
G01 X119.321101 Y96.412404 Z-0.125000
G01 X96.039500 Y105.978368 Z-0.125000
G01 X71.940370 Y96.511935 Z-0.125000
G01 X54.378745 Y98.494845 Z-0.125000
G01 X41.081681 Y98.301552 Z-0.125000
G01 X13.497468 Y101.837354 Z-0.125000
G00 Z5.000000

(End cutting path id: polyline513)


(Start cutting path id: polyline515)
(Change tool to Default tool)

G00 Z5.000000
G00 X207.030572 Y90.510091

G00 Z4.875000 (Fast pre-penetrate)
G01 Z-0.125000 F100.0(Penetrate)
G01 X181.150873 Y92.420858 Z-0.125000 F800.000000
G01 X162.551525 Y92.255689 Z-0.125000
G01 X138.844652 Y97.797388 Z-0.125000
G01 X120.558866 Y88.298528 Z-0.125000
G01 X97.813026 Y99.028991 Z-0.125000
G01 X72.360409 Y88.457486 Z-0.125000
G01 X54.266252 Y90.086971 Z-0.125000
G01 X41.873338 Y92.561915 Z-0.125000
G01 X13.815823 Y94.352803 Z-0.125000
G00 Z5.000000

(End cutting path id: polyline515)



(Footer)
M5
G00 X0.0000 Y0.0000
M2
(Using default footer. To add your own footer create file "footer" in the output dir.)
(end)
%