%
(Header)
(Generated by gcodetools from Inkscape.)
(Using default header. To add your own header create file "header" in the output dir.)
M3
(Header end.)
G21 (All units in mm)

(Start cutting path id: polyline883)
(Change tool to Default tool)

G00 Z3.000000
G00 X192.762002 Y56.830455

G00 Z4.875000 (Fast pre-penetrate)
G01 Z-0.125000 F400.0(Penetrate)
G01 X193.865686 Y60.515928 Z-0.125000 F800.000000
G01 X194.635877 Y64.319531 Z-0.125000
G01 X195.024463 Y68.262512 Z-0.125000
G01 X195.036296 Y72.347052 Z-0.125000
G01 X194.479763 Y78.696961 Z-0.125000
G01 X192.462080 Y93.864376 Z-0.125000
G01 X191.800485 Y102.429599 Z-0.125000
G01 X191.732529 Y106.857505 Z-0.125000
G01 X191.993958 Y111.427191 Z-0.125000
G01 X192.563423 Y116.028758 Z-0.125000
G01 X195.443190 Y131.625568 Z-0.125000
G01 X195.626436 Y134.321919 Z-0.125000
G01 X195.414655 Y136.557265 Z-0.125000
G01 X194.797197 Y138.456277 Z-0.125000
G01 X193.811422 Y140.183893 Z-0.125000
G01 X188.713468 Y146.852521 Z-0.125000
G01 X187.006915 Y148.853417 Z-0.125000
G01 X184.960546 Y150.600356 Z-0.125000
G01 X180.080813 Y153.610203 Z-0.125000
G01 X177.691416 Y155.270809 Z-0.125000
G01 X176.627237 Y156.240220 Z-0.125000
G01 X175.691196 Y157.335977 Z-0.125000
G01 X174.909223 Y158.578228 Z-0.125000
G01 X174.301840 Y159.982240 Z-0.125000
G01 X173.883283 Y161.557478 Z-0.125000
G01 X173.661494 Y163.307577 Z-0.125000
G01 X173.637321 Y165.230070 Z-0.125000
G01 X174.152353 Y169.553218 Z-0.125000
G01 X174.661198 Y171.921012 Z-0.125000
G01 X176.067408 Y176.955151 Z-0.125000
G01 X183.778982 Y199.990407 Z-0.125000
G01 X185.640466 Y204.789910 Z-0.125000
G01 X187.971711 Y209.289019 Z-0.125000
G01 X190.734887 Y213.337451 Z-0.125000
G01 X192.222086 Y215.159395 Z-0.125000
G01 X195.246741 Y218.366045 Z-0.125000
G01 X202.341331 Y224.844885 Z-0.125000
G01 X203.408789 Y226.371185 Z-0.125000
G01 X203.657912 Y227.121614 Z-0.125000
G01 X203.725531 Y227.899952 Z-0.125000
G00 Z3.000000

(End cutting path id: polyline883)


(Start cutting path id: polyline787)
(Change tool to Default tool)

G00 Z3.000000
G00 X166.173703 Y70.034536

G00 Z4.875000 (Fast pre-penetrate)
G01 Z-0.125000 F400.0(Penetrate)
G01 X168.563185 Y78.114344 Z-0.125000 F800.000000
G01 X169.339056 Y81.188597 Z-0.125000
G01 X169.688643 Y83.618955 Z-0.125000
G01 X169.570141 Y85.516800 Z-0.125000
G01 X169.338633 Y86.321172 Z-0.125000
G01 X168.567445 Y87.777064 Z-0.125000
G01 X164.735578 Y92.714542 Z-0.125000
G01 X163.307089 Y94.761148 Z-0.125000
G01 X162.054796 Y96.868358 Z-0.125000
G01 X161.271758 Y99.137800 Z-0.125000
G01 X161.109812 Y100.370737 Z-0.125000
G01 X161.113193 Y101.686912 Z-0.125000
G01 X161.279703 Y103.097314 Z-0.125000
G01 X162.071464 Y106.232137 Z-0.125000
G01 X167.589582 Y120.433776 Z-0.125000
G01 X169.091183 Y125.088931 Z-0.125000
G01 X169.697416 Y127.429575 Z-0.125000
G01 X170.517577 Y132.032715 Z-0.125000
G01 X170.701482 Y134.255551 Z-0.125000
G01 X170.578416 Y138.461162 Z-0.125000
G01 X170.273339 Y140.421978 Z-0.125000
G01 X169.231289 Y144.047980 Z-0.125000
G01 X167.777848 Y147.356769 Z-0.125000
G01 X166.174853 Y150.535324 Z-0.125000
G01 X164.364978 Y153.494930 Z-0.125000
G01 X163.355639 Y154.846571 Z-0.125000
G01 X161.188672 Y157.292464 Z-0.125000
G01 X157.968836 Y160.519586 Z-0.125000
G01 X156.211197 Y162.616872 Z-0.125000
G01 X155.537261 Y163.717903 Z-0.125000
G01 X155.030157 Y164.882596 Z-0.125000
G01 X154.705707 Y166.129479 Z-0.125000
G01 X154.573344 Y167.474274 Z-0.125000
G01 X154.635891 Y168.929202 Z-0.125000
G01 X154.889544 Y170.502682 Z-0.125000
G01 X155.921435 Y174.019278 Z-0.125000
G01 X162.455841 Y189.531548 Z-0.125000
G01 X164.259883 Y194.438210 Z-0.125000
G01 X167.483167 Y204.209744 Z-0.125000
G01 X169.182553 Y208.708769 Z-0.125000
G01 X170.938704 Y212.674774 Z-0.125000
G01 X175.404494 Y221.103492 Z-0.125000
G01 X176.245092 Y223.068837 Z-0.125000
G01 X176.506251 Y223.988414 Z-0.125000
G01 X176.714719 Y225.831117 Z-0.125000
G01 X176.362055 Y228.989312 Z-0.125000
G00 Z3.000000

(End cutting path id: polyline787)


(Start cutting path id: polyline778)
(Change tool to Default tool)

G00 Z3.000000
G00 X164.617077 Y70.270829

G00 Z4.875000 (Fast pre-penetrate)
G01 Z-0.125000 F400.0(Penetrate)
G01 X166.953157 Y78.401536 Z-0.125000 F800.000000
G01 X167.705006 Y81.443806 Z-0.125000
G01 X168.029541 Y83.802471 Z-0.125000
G01 X167.882978 Y85.594443 Z-0.125000
G01 X167.635731 Y86.336099 Z-0.125000
G01 X166.828773 Y87.655097 Z-0.125000
G01 X162.853859 Y92.197464 Z-0.125000
G01 X161.370227 Y94.132551 Z-0.125000
G01 X160.062335 Y96.124285 Z-0.125000
G01 X159.224594 Y98.270729 Z-0.125000
G01 X159.036615 Y99.441001 Z-0.125000
G01 X159.014808 Y100.695491 Z-0.125000
G01 X159.158835 Y102.046727 Z-0.125000
G01 X159.913997 Y105.077113 Z-0.125000
G01 X165.415397 Y119.181145 Z-0.125000
G01 X166.941155 Y123.895043 Z-0.125000
G01 X167.562061 Y126.276022 Z-0.125000
G01 X168.413478 Y130.974030 Z-0.125000
G01 X168.612597 Y133.247902 Z-0.125000
G01 X168.515734 Y137.553740 Z-0.125000
G01 X168.220529 Y139.560807 Z-0.125000
G01 X167.190650 Y143.266024 Z-0.125000
G01 X165.740354 Y146.636717 Z-0.125000
G01 X164.138017 Y149.870635 Z-0.125000
G01 X162.335023 Y152.884370 Z-0.125000
G01 X161.333240 Y154.261638 Z-0.125000
G01 X159.191850 Y156.753596 Z-0.125000
G01 X156.037367 Y160.028575 Z-0.125000
G01 X154.338877 Y162.138878 Z-0.125000
G01 X153.697973 Y163.240229 Z-0.125000
G01 X153.225574 Y164.400967 Z-0.125000
G01 X152.936827 Y165.639956 Z-0.125000
G01 X152.840639 Y166.973171 Z-0.125000
G01 X152.939193 Y168.413324 Z-0.125000
G01 X153.227856 Y169.969274 Z-0.125000
G01 X154.325015 Y173.445401 Z-0.125000
G01 X160.993272 Y188.837259 Z-0.125000
G01 X162.805614 Y193.733575 Z-0.125000
G01 X166.020919 Y203.502929 Z-0.125000
G01 X167.673851 Y207.999671 Z-0.125000
G01 X169.329234 Y211.963530 Z-0.125000
G01 X172.741022 Y219.317741 Z-0.125000
G01 X173.530095 Y221.451777 Z-0.125000
G01 X173.899900 Y223.366037 Z-0.125000
G01 X173.929314 Y224.303871 Z-0.125000
G01 X173.711126 Y226.271042 Z-0.125000
G01 X173.207200 Y228.523976 Z-0.125000
G00 Z3.000000

(End cutting path id: polyline778)


(Start cutting path id: polyline775)
(Change tool to Default tool)

G00 Z3.000000
G00 X164.133673 Y70.289137

G00 Z4.875000 (Fast pre-penetrate)
G01 Z-0.125000 F400.0(Penetrate)
G01 X167.197175 Y81.483785 Z-0.125000 F800.000000
G01 X167.513798 Y83.828403 Z-0.125000
G01 X167.358614 Y85.596421 Z-0.125000
G01 X167.106583 Y86.323082 Z-0.125000
G01 X166.289161 Y87.608170 Z-0.125000
G01 X162.274116 Y92.046371 Z-0.125000
G01 X160.775287 Y93.950928 Z-0.125000
G01 X159.451775 Y95.910577 Z-0.125000
G01 X158.597721 Y98.021860 Z-0.125000
G01 X158.401458 Y99.173756 Z-0.125000
G01 X158.371199 Y100.409821 Z-0.125000
G01 X158.507281 Y101.742951 Z-0.125000
G01 X159.247601 Y104.739917 Z-0.125000
G01 X164.721530 Y118.794215 Z-0.125000
G01 X166.247340 Y123.517716 Z-0.125000
G01 X166.869310 Y125.906758 Z-0.125000
G01 X167.724176 Y130.625610 Z-0.125000
G01 X167.925273 Y132.911365 Z-0.125000
G01 X167.832467 Y137.241631 Z-0.125000
G01 X167.538885 Y139.260243 Z-0.125000
G01 X166.511203 Y142.986033 Z-0.125000
G01 X165.061465 Y146.373445 Z-0.125000
G01 X163.459315 Y149.622543 Z-0.125000
G01 X161.658298 Y152.651120 Z-0.125000
G01 X160.658746 Y154.035455 Z-0.125000
G01 X158.524794 Y156.540023 Z-0.125000
G01 X155.389228 Y159.828154 Z-0.125000
G01 X153.707947 Y161.942024 Z-0.125000
G01 X153.076628 Y163.043477 Z-0.125000
G01 X152.614287 Y164.203149 Z-0.125000
G01 X152.335902 Y165.439974 Z-0.125000
G01 X152.250195 Y166.770011 Z-0.125000
G01 X152.359061 Y168.206108 Z-0.125000
G01 X152.657884 Y169.757274 Z-0.125000
G01 X153.773959 Y173.222243 Z-0.125000
G01 X160.480995 Y188.581053 Z-0.125000
G01 X162.295788 Y193.474529 Z-0.125000
G01 X165.508642 Y203.243342 Z-0.125000
G01 X167.147307 Y207.739594 Z-0.125000
G01 X172.440137 Y220.175057 Z-0.125000
G01 X172.940445 Y222.185352 Z-0.125000
G01 X173.021249 Y224.079699 Z-0.125000
G01 X172.729544 Y226.064637 Z-0.125000
G01 X172.164119 Y228.337822 Z-0.125000
G00 Z3.000000

(End cutting path id: polyline775)


(Start cutting path id: polyline781)
(Change tool to Default tool)

G00 Z3.000000
G00 X165.117656 Y70.222482

G00 Z4.875000 (Fast pre-penetrate)
G01 Z-0.125000 F400.0(Penetrate)
G01 X167.471131 Y78.332514 Z-0.125000 F800.000000
G01 X168.230959 Y81.381631 Z-0.125000
G01 X168.563760 Y83.759347 Z-0.125000
G01 X168.426326 Y85.581021 Z-0.125000
G01 X168.184083 Y86.340663 Z-0.125000
G01 X167.388400 Y87.699505 Z-0.125000
G01 X163.457404 Y92.359816 Z-0.125000
G01 X161.990558 Y94.328813 Z-0.125000
G01 X160.699740 Y96.355793 Z-0.125000
G01 X159.879309 Y98.540290 Z-0.125000
G01 X159.699833 Y99.730205 Z-0.125000
G01 X159.686309 Y101.004203 Z-0.125000
G01 X159.838113 Y102.374355 Z-0.125000
G01 X160.606782 Y105.438804 Z-0.125000
G01 X166.124764 Y119.583998 Z-0.125000
G01 X167.646466 Y124.283359 Z-0.125000
G01 X168.264363 Y126.653553 Z-0.125000
G01 X169.108899 Y131.325308 Z-0.125000
G01 X169.304435 Y133.584726 Z-0.125000
G01 X169.201317 Y137.861725 Z-0.125000
G01 X168.903661 Y139.855251 Z-0.125000
G01 X167.870654 Y143.536971 Z-0.125000
G01 X166.419547 Y146.889069 Z-0.125000
G01 X164.817024 Y150.106116 Z-0.125000
G01 X163.011850 Y153.103403 Z-0.125000
G01 X162.007700 Y154.472878 Z-0.125000
G01 X159.858347 Y156.950839 Z-0.125000
G01 X156.683376 Y160.211280 Z-0.125000
G01 X154.966410 Y162.317593 Z-0.125000
G01 X154.315177 Y163.418860 Z-0.125000
G01 X153.831908 Y164.580865 Z-0.125000
G01 X153.532021 Y165.822204 Z-0.125000
G01 X153.424507 Y167.158952 Z-0.125000
G01 X153.511735 Y168.603586 Z-0.125000
G01 X153.789444 Y170.164861 Z-0.125000
G01 X154.866149 Y173.653277 Z-0.125000
G01 X161.492549 Y189.081784 Z-0.125000
G01 X163.302288 Y193.981194 Z-0.125000
G01 X166.520197 Y203.751207 Z-0.125000
G01 X168.188021 Y208.248541 Z-0.125000
G01 X169.875777 Y212.212839 Z-0.125000
G01 X173.443628 Y219.559882 Z-0.125000
G01 X174.314772 Y221.684993 Z-0.125000
G01 X174.768796 Y223.586051 Z-0.125000
G01 X174.838950 Y224.515702 Z-0.125000
G01 X174.696275 Y226.463721 Z-0.125000
G01 X174.255133 Y228.694742 Z-0.125000
G00 Z3.000000

(End cutting path id: polyline781)


(Start cutting path id: polyline772)
(Change tool to Default tool)

G00 Z3.000000
G00 X163.666582 Y70.277861

G00 Z4.875000 (Fast pre-penetrate)
G01 Z-0.125000 F400.0(Penetrate)
G01 X166.706891 Y81.502397 Z-0.125000 F800.000000
G01 X167.015907 Y83.838021 Z-0.125000
G01 X166.852609 Y85.587833 Z-0.125000
G01 X166.596183 Y86.302560 Z-0.125000
G01 X165.769007 Y87.559603 Z-0.125000
G01 X161.717786 Y91.907365 Z-0.125000
G01 X160.205450 Y93.784587 Z-0.125000
G01 X158.867670 Y95.715346 Z-0.125000
G01 X157.998131 Y97.794425 Z-0.125000
G01 X157.793738 Y98.929231 Z-0.125000
G01 X157.755364 Y100.147901 Z-0.125000
G01 X157.883163 Y101.463721 Z-0.125000
G01 X158.607475 Y104.427892 Z-0.125000
G01 X164.043030 Y118.424055 Z-0.125000
G01 X165.564935 Y123.152120 Z-0.125000
G01 X166.186010 Y125.546572 Z-0.125000
G01 X167.040841 Y130.280993 Z-0.125000
G01 X167.242547 Y132.576147 Z-0.125000
G01 X167.151262 Y136.926225 Z-0.125000
G01 X166.858576 Y138.954574 Z-0.125000
G01 X165.832010 Y142.698030 Z-0.125000
G01 X164.382678 Y146.100267 Z-0.125000
G01 X162.780747 Y149.362905 Z-0.125000
G01 X160.981523 Y152.404803 Z-0.125000
G01 X159.984033 Y153.795409 Z-0.125000
G01 X157.856826 Y156.311237 Z-0.125000
G01 X154.738603 Y159.611099 Z-0.125000
G01 X153.073078 Y161.728197 Z-0.125000
G01 X152.450616 Y162.829684 Z-0.125000
G01 X151.997438 Y163.988410 Z-0.125000
G01 X151.728587 Y165.223325 Z-0.125000
G01 X151.652516 Y166.550539 Z-0.125000
G01 X151.771018 Y167.982967 Z-0.125000
G01 X152.079189 Y169.529839 Z-0.125000
G01 X153.212557 Y172.984886 Z-0.125000
G01 X159.955211 Y188.314180 Z-0.125000
G01 X161.772235 Y193.205087 Z-0.125000
G01 X165.793569 Y205.279349 Z-0.125000
G01 X167.415228 Y209.524415 Z-0.125000
G01 X170.852744 Y217.589313 Z-0.125000
G01 X171.690300 Y219.915775 Z-0.125000
G01 X172.112695 Y221.935908 Z-0.125000
G01 X172.116076 Y223.843592 Z-0.125000
G01 X171.753202 Y225.844928 Z-0.125000
G01 X171.128019 Y228.136642 Z-0.125000
G00 Z3.000000

(End cutting path id: polyline772)


(Start cutting path id: polyline784)
(Change tool to Default tool)

G00 Z3.000000
G00 X165.636306 Y70.143774

G00 Z4.875000 (Fast pre-penetrate)
G01 Z-0.125000 F400.0(Penetrate)
G01 X168.007632 Y78.236902 Z-0.125000 F800.000000
G01 X168.775507 Y81.296736 Z-0.125000
G01 X169.116676 Y83.698389 Z-0.125000
G01 X168.988708 Y85.555394 Z-0.125000
G01 X168.751739 Y86.335930 Z-0.125000
G01 X167.968042 Y87.740431 Z-0.125000
G01 X164.084717 Y92.532497 Z-0.125000
G01 X162.636246 Y94.538684 Z-0.125000
G01 X161.363989 Y96.604206 Z-0.125000
G01 X160.561815 Y98.829680 Z-0.125000
G01 X160.390961 Y100.040472 Z-0.125000
G01 X160.385889 Y101.334992 Z-0.125000
G01 X160.545300 Y102.724922 Z-0.125000
G01 X161.326140 Y105.824178 Z-0.125000
G01 X166.849667 Y120.001931 Z-0.125000
G01 X168.363305 Y124.681648 Z-0.125000
G01 X168.976384 Y127.038386 Z-0.125000
G01 X169.810440 Y131.678530 Z-0.125000
G01 X170.000938 Y133.920992 Z-0.125000
G01 X169.889030 Y138.164520 Z-0.125000
G01 X169.588060 Y140.142663 Z-0.125000
G01 X168.551031 Y143.797945 Z-0.125000
G01 X167.098841 Y147.129385 Z-0.125000
G01 X165.496048 Y150.328006 Z-0.125000
G01 X163.688642 Y153.307255 Z-0.125000
G01 X162.681940 Y154.668211 Z-0.125000
G01 X160.524000 Y157.130772 Z-0.125000
G01 X157.327255 Y160.375255 Z-0.125000
G01 X155.590561 Y162.477223 Z-0.125000
G01 X154.928290 Y163.578440 Z-0.125000
G01 X154.433425 Y164.741662 Z-0.125000
G01 X154.121585 Y165.985688 Z-0.125000
G01 X154.002070 Y167.326274 Z-0.125000
G01 X154.077295 Y168.775826 Z-0.125000
G01 X154.343340 Y170.343018 Z-0.125000
G01 X155.398255 Y173.844891 Z-0.125000
G01 X161.979976 Y189.313512 Z-0.125000
G01 X163.786976 Y194.216370 Z-0.125000
G01 X167.007438 Y203.987094 Z-0.125000
G01 X168.690781 Y208.485273 Z-0.125000
G01 X170.412227 Y212.450247 Z-0.125000
G01 X175.097253 Y221.906426 Z-0.125000
G01 X175.637963 Y223.793622 Z-0.125000
G01 X175.750210 Y224.714686 Z-0.125000
G01 X175.684958 Y226.642368 Z-0.125000
G01 X175.307732 Y228.849900 Z-0.125000
G00 Z3.000000

(End cutting path id: polyline784)


(Start cutting path id: polyline769)
(Change tool to Default tool)

G00 Z3.000000
G00 X163.214806 Y70.237645

G00 Z4.875000 (Fast pre-penetrate)
G01 Z-0.125000 F400.0(Penetrate)
G01 X166.233461 Y81.500420 Z-0.125000 F800.000000
G01 X166.535360 Y83.832206 Z-0.125000
G01 X166.364319 Y85.569526 Z-0.125000
G01 X166.103836 Y86.275276 Z-0.125000
G01 X165.267802 Y87.510174 Z-0.125000
G01 X161.184344 Y91.781138 Z-0.125000
G01 X159.660006 Y93.634220 Z-0.125000
G01 X158.309446 Y95.539216 Z-0.125000
G01 X157.425370 Y97.588916 Z-0.125000
G01 X157.213014 Y98.707832 Z-0.125000
G01 X157.166357 Y99.910087 Z-0.125000
G01 X157.285535 Y101.209408 Z-0.125000
G01 X157.992502 Y104.141596 Z-0.125000
G01 X163.378984 Y118.071121 Z-0.125000
G01 X164.893112 Y122.798966 Z-0.125000
G01 X165.511516 Y125.196224 Z-0.125000
G01 X166.362832 Y129.940973 Z-0.125000
G01 X166.563709 Y132.242974 Z-0.125000
G01 X166.471917 Y136.608536 Z-0.125000
G01 X166.179265 Y138.644763 Z-0.125000
G01 X165.152970 Y142.403061 Z-0.125000
G01 X163.703772 Y145.818163 Z-0.125000
G01 X162.101977 Y149.092786 Z-0.125000
G01 X160.304460 Y152.146416 Z-0.125000
G01 X159.308745 Y153.542618 Z-0.125000
G01 X157.187759 Y156.068419 Z-0.125000
G01 X154.085241 Y159.378644 Z-0.125000
G01 X152.433982 Y161.498565 Z-0.125000
G01 X151.819432 Y162.600137 Z-0.125000
G01 X151.374672 Y163.758017 Z-0.125000
G01 X151.114409 Y164.991191 Z-0.125000
G01 X151.046960 Y166.315903 Z-0.125000
G01 X151.174082 Y167.745102 Z-0.125000
G01 X151.490706 Y169.288171 Z-0.125000
G01 X152.639779 Y172.734461 Z-0.125000
G01 X159.414669 Y188.037672 Z-0.125000
G01 X161.233655 Y192.926313 Z-0.125000
G01 X165.248075 Y205.000035 Z-0.125000
G01 X170.602894 Y218.529733 Z-0.125000
G01 X171.164347 Y220.687977 Z-0.125000
G01 X171.298907 Y222.637128 Z-0.125000
G01 X171.037072 Y224.579568 Z-0.125000
G01 X170.098934 Y227.920880 Z-0.125000
G00 Z3.000000

(End cutting path id: polyline769)


(Start cutting path id: polyline766)
(Change tool to Default tool)

G00 Z3.000000
G00 X162.777332 Y70.169537

G00 Z4.875000 (Fast pre-penetrate)
G01 Z-0.125000 F400.0(Penetrate)
G01 X165.775989 Y81.478917 Z-0.125000 F800.000000
G01 X166.071363 Y83.811853 Z-0.125000
G01 X165.893492 Y85.542428 Z-0.125000
G01 X165.629290 Y86.242092 Z-0.125000
G01 X164.785294 Y87.460677 Z-0.125000
G01 X160.673470 Y91.668114 Z-0.125000
G01 X157.776647 Y95.382494 Z-0.125000
G01 X156.878895 Y97.405569 Z-0.125000
G01 X156.658797 Y98.509828 Z-0.125000
G01 X156.603688 Y99.696751 Z-0.125000
G01 X156.714075 Y100.980266 Z-0.125000
G01 X157.402464 Y103.881062 Z-0.125000
G01 X162.729408 Y117.735903 Z-0.125000
G01 X164.232091 Y122.458727 Z-0.125000
G01 X164.845881 Y124.856306 Z-0.125000
G01 X165.690417 Y129.606245 Z-0.125000
G01 X165.888996 Y131.912709 Z-0.125000
G01 X165.794330 Y136.289395 Z-0.125000
G01 X165.500968 Y138.331758 Z-0.125000
G01 X164.474047 Y142.102092 Z-0.125000
G01 X163.024765 Y145.528198 Z-0.125000
G01 X161.423155 Y148.813303 Z-0.125000
G01 X159.627092 Y151.877126 Z-0.125000
G01 X158.633051 Y153.278196 Z-0.125000
G01 X156.517525 Y155.812669 Z-0.125000
G01 X153.429038 Y159.131887 Z-0.125000
G01 X151.790475 Y161.254361 Z-0.125000
G01 X151.183042 Y162.355933 Z-0.125000
G01 X150.745754 Y163.513103 Z-0.125000
G01 X150.493131 Y164.744789 Z-0.125000
G01 X150.433458 Y166.067321 Z-0.125000
G01 X150.568357 Y167.493697 Z-0.125000
G01 X150.892486 Y169.033503 Z-0.125000
G01 X152.055607 Y172.472136 Z-0.125000
G01 X158.859252 Y187.752592 Z-0.125000
G01 X160.680046 Y192.639290 Z-0.125000
G01 X164.687873 Y204.712572 Z-0.125000
G01 X169.879445 Y218.249251 Z-0.125000
G01 X170.371876 Y220.414477 Z-0.125000
G01 X170.434930 Y222.373281 Z-0.125000
G01 X170.104175 Y224.327977 Z-0.125000
G01 X169.078404 Y227.691113 Z-0.125000
G00 Z3.000000

(End cutting path id: polyline766)


(Start cutting path id: polyline763)
(Change tool to Default tool)

G00 Z3.000000
G00 X162.353044 Y70.074448

G00 Z4.875000 (Fast pre-penetrate)
G01 Z-0.125000 F400.0(Penetrate)
G01 X165.333781 Y81.438887 Z-0.125000 F800.000000
G01 X165.623289 Y83.777959 Z-0.125000
G01 X165.439114 Y85.507368 Z-0.125000
G01 X165.171598 Y86.203888 Z-0.125000
G01 X164.320672 Y87.411738 Z-0.125000
G01 X160.184251 Y91.568681 Z-0.125000
G01 X157.268326 Y95.245279 Z-0.125000
G01 X156.357794 Y97.244519 Z-0.125000
G01 X156.130089 Y98.335170 Z-0.125000
G01 X156.066696 Y99.507690 Z-0.125000
G01 X156.167955 Y100.776177 Z-0.125000
G01 X156.836616 Y103.646257 Z-0.125000
G01 X162.094150 Y117.418468 Z-0.125000
G01 X163.581586 Y122.131724 Z-0.125000
G01 X164.189019 Y124.527123 Z-0.125000
G01 X165.023582 Y129.277417 Z-0.125000
G01 X165.218492 Y131.585943 Z-0.125000
G01 X165.118755 Y135.969610 Z-0.125000
G01 X164.823871 Y138.016352 Z-0.125000
G01 X163.795479 Y141.796119 Z-0.125000
G01 X162.345876 Y145.231404 Z-0.125000
G01 X160.744385 Y148.525485 Z-0.125000
G01 X158.949590 Y151.598082 Z-0.125000
G01 X157.956969 Y153.003294 Z-0.125000
G01 X155.846311 Y155.545255 Z-0.125000
G01 X152.770147 Y158.872216 Z-0.125000
G01 X151.142758 Y160.996735 Z-0.125000
G01 X150.541597 Y162.098391 Z-0.125000
G01 X150.110834 Y163.254902 Z-0.125000
G01 X149.864923 Y164.485321 Z-0.125000
G01 X149.812180 Y165.805976 Z-0.125000
G01 X149.953841 Y167.229985 Z-0.125000
G01 X150.792647 Y170.422622 Z-0.125000
G01 X152.263618 Y174.094284 Z-0.125000
G01 X157.290944 Y185.060535 Z-0.125000
G01 X159.231288 Y189.892715 Z-0.125000
G01 X164.112982 Y204.417908 Z-0.125000
G01 X168.307503 Y215.405932 Z-0.125000
G01 X169.150924 Y217.961349 Z-0.125000
G01 X169.578188 Y220.132745 Z-0.125000
G01 X169.573117 Y222.100187 Z-0.125000
G01 X169.176704 Y224.065651 Z-0.125000
G01 X168.067018 Y227.447940 Z-0.125000
G00 Z3.000000

(End cutting path id: polyline763)


(Start cutting path id: polyline790)
(Change tool to Default tool)

G00 Z3.000000
G00 X166.730507 Y69.894904

G00 Z4.875000 (Fast pre-penetrate)
G01 Z-0.125000 F400.0(Penetrate)
G01 X169.138094 Y77.964636 Z-0.125000 F800.000000
G01 X169.921842 Y81.056775 Z-0.125000
G01 X170.279746 Y83.520502 Z-0.125000
G01 X170.171049 Y85.464565 Z-0.125000
G01 X169.945136 Y86.295494 Z-0.125000
G01 X169.186982 Y87.808472 Z-0.125000
G01 X165.410021 Y92.904719 Z-0.125000
G01 X164.003186 Y94.995074 Z-0.125000
G01 X162.772312 Y97.147148 Z-0.125000
G01 X162.009407 Y99.463450 Z-0.125000
G01 X161.867070 Y102.058594 Z-0.125000
G01 X162.040478 Y103.490329 Z-0.125000
G01 X162.841891 Y106.661378 Z-0.125000
G01 X164.143934 Y110.261297 Z-0.125000
G01 X168.343679 Y120.878434 Z-0.125000
G01 X169.829374 Y125.504040 Z-0.125000
G01 X170.426833 Y127.825887 Z-0.125000
G01 X171.229531 Y132.386680 Z-0.125000
G01 X171.405406 Y134.587456 Z-0.125000
G01 X171.268986 Y138.750586 Z-0.125000
G01 X170.958973 Y140.692299 Z-0.125000
G01 X169.911040 Y144.286014 Z-0.125000
G01 X168.456027 Y147.570291 Z-0.125000
G01 X166.852744 Y150.727157 Z-0.125000
G01 X165.040334 Y153.665565 Z-0.125000
G01 X164.028171 Y155.007097 Z-0.125000
G01 X161.851721 Y157.434953 Z-0.125000
G01 X158.607728 Y160.643345 Z-0.125000
G01 X156.828181 Y162.735526 Z-0.125000
G01 X156.141939 Y163.836471 Z-0.125000
G01 X155.622004 Y165.002635 Z-0.125000
G01 X155.284318 Y166.252663 Z-0.125000
G01 X155.138600 Y167.601937 Z-0.125000
G01 X155.187961 Y169.062664 Z-0.125000
G01 X155.428598 Y170.643075 Z-0.125000
G01 X156.436298 Y174.175511 Z-0.125000
G01 X158.009998 Y178.185349 Z-0.125000
G01 X162.921140 Y189.734961 Z-0.125000
G01 X164.722054 Y194.645697 Z-0.125000
G01 X167.948162 Y204.418127 Z-0.125000
G01 X169.664148 Y208.918267 Z-0.125000
G01 X172.349630 Y214.642216 Z-0.125000
G01 X176.135922 Y221.304995 Z-0.125000
G01 X177.066858 Y223.258389 Z-0.125000
G01 X177.571427 Y225.072506 Z-0.125000
G01 X177.666093 Y225.992623 Z-0.125000
G01 X177.416834 Y229.112803 Z-0.125000
G00 Z3.000000

(End cutting path id: polyline790)


(Start cutting path id: polyline793)
(Change tool to Default tool)

G00 Z3.000000
G00 X167.307342 Y69.725132

G00 Z4.875000 (Fast pre-penetrate)
G01 Z-0.125000 F400.0(Penetrate)
G01 X169.732781 Y77.787696 Z-0.125000 F800.000000
G01 X170.524136 Y80.901135 Z-0.125000
G01 X170.890086 Y83.402610 Z-0.125000
G01 X170.791026 Y85.398012 Z-0.125000
G01 X170.570792 Y86.258236 Z-0.125000
G01 X169.826179 Y87.833694 Z-0.125000
G01 X166.107505 Y93.101827 Z-0.125000
G01 X164.723880 Y95.239092 Z-0.125000
G01 X163.515776 Y97.439158 Z-0.125000
G01 X162.773850 Y99.805160 Z-0.125000
G01 X162.648756 Y102.448651 Z-0.125000
G01 X162.828773 Y103.902497 Z-0.125000
G01 X163.638605 Y107.110432 Z-0.125000
G01 X164.941713 Y110.733747 Z-0.125000
G01 X169.113464 Y121.334571 Z-0.125000
G01 X170.579262 Y125.925759 Z-0.125000
G01 X171.166122 Y128.226205 Z-0.125000
G01 X171.947976 Y132.739445 Z-0.125000
G01 X172.114318 Y134.915625 Z-0.125000
G01 X171.962176 Y139.031862 Z-0.125000
G01 X171.646415 Y140.952562 Z-0.125000
G01 X170.591619 Y144.511251 Z-0.125000
G01 X169.134865 Y147.769055 Z-0.125000
G01 X167.531328 Y150.902610 Z-0.125000
G01 X165.716265 Y153.818315 Z-0.125000
G01 X164.701143 Y155.149028 Z-0.125000
G01 X162.514905 Y157.557562 Z-0.125000
G01 X159.245640 Y160.745820 Z-0.125000
G01 X157.443289 Y162.832456 Z-0.125000
G01 X156.744351 Y163.933352 Z-0.125000
G01 X156.210977 Y165.101121 Z-0.125000
G01 X155.859564 Y166.354412 Z-0.125000
G01 X155.699816 Y167.708605 Z-0.125000
G01 X155.735315 Y169.175553 Z-0.125000
G01 X155.962446 Y170.763300 Z-0.125000
G01 X156.945009 Y174.312827 Z-0.125000
G01 X158.497375 Y178.340601 Z-0.125000
G01 X163.378223 Y189.922856 Z-0.125000
G01 X165.175926 Y194.837969 Z-0.125000
G01 X168.404941 Y204.611398 Z-0.125000
G01 X170.137832 Y209.112873 Z-0.125000
G01 X172.885979 Y214.839070 Z-0.125000
G01 X176.864375 Y221.493160 Z-0.125000
G01 X178.238516 Y224.337815 Z-0.125000
G01 X178.617399 Y226.139913 Z-0.125000
G01 X178.471681 Y229.220504 Z-0.125000
G00 Z3.000000

(End cutting path id: polyline793)


(Start cutting path id: polyline796)
(Change tool to Default tool)

G00 Z3.000000
G00 X167.904582 Y69.525505

G00 Z4.875000 (Fast pre-penetrate)
G01 Z-0.125000 F400.0(Penetrate)
G01 X170.347466 Y77.583624 Z-0.125000 F800.000000
G01 X171.145921 Y80.721472 Z-0.125000
G01 X171.519664 Y83.264905 Z-0.125000
G01 X171.430070 Y85.316464 Z-0.125000
G01 X171.215517 Y86.208672 Z-0.125000
G01 X170.484680 Y87.851799 Z-0.125000
G01 X166.145692 Y94.391749 Z-0.125000
G01 X164.284783 Y97.743035 Z-0.125000
G01 X163.564681 Y100.161593 Z-0.125000
G01 X163.456999 Y102.855527 Z-0.125000
G01 X163.643423 Y104.332279 Z-0.125000
G01 X164.460388 Y107.577777 Z-0.125000
G01 X165.762431 Y111.223811 Z-0.125000
G01 X169.077677 Y119.562039 Z-0.125000
G01 X171.339952 Y126.352769 Z-0.125000
G01 X172.363745 Y130.881004 Z-0.125000
G01 X172.672051 Y133.089827 Z-0.125000
G01 X172.823009 Y137.314101 Z-0.125000
G01 X172.657344 Y139.303992 Z-0.125000
G01 X172.335075 Y141.201922 Z-0.125000
G01 X171.272502 Y144.722728 Z-0.125000
G01 X169.813787 Y147.952267 Z-0.125000
G01 X168.209980 Y151.060955 Z-0.125000
G01 X166.392195 Y153.952352 Z-0.125000
G01 X165.374082 Y155.271570 Z-0.125000
G01 X163.177549 Y157.659446 Z-0.125000
G01 X159.882352 Y160.826235 Z-0.125000
G01 X158.056334 Y162.907006 Z-0.125000
G01 X157.344245 Y164.007783 Z-0.125000
G01 X156.797060 Y165.177344 Z-0.125000
G01 X156.431362 Y166.434117 Z-0.125000
G01 X156.257329 Y167.793534 Z-0.125000
G01 X156.278460 Y169.267159 Z-0.125000
G01 X156.491627 Y170.862733 Z-0.125000
G01 X157.448208 Y174.430364 Z-0.125000
G01 X158.978531 Y178.477326 Z-0.125000
G01 X163.828122 Y190.094488 Z-0.125000
G01 X165.622461 Y195.014200 Z-0.125000
G01 X168.854418 Y204.788693 Z-0.125000
G01 X170.604618 Y209.291690 Z-0.125000
G01 X173.416496 Y215.020879 Z-0.125000
G01 X178.198909 Y222.663702 Z-0.125000
G01 X179.102206 Y224.491850 Z-0.125000
G01 X179.567015 Y226.272885 Z-0.125000
G01 X179.642240 Y227.211783 Z-0.125000
G01 X179.524584 Y229.312418 Z-0.125000
G00 Z3.000000

(End cutting path id: polyline796)


(Start cutting path id: polyline760)
(Change tool to Default tool)

G00 Z3.000000
G00 X161.940893 Y69.953817

G00 Z4.875000 (Fast pre-penetrate)
G01 Z-0.125000 F400.0(Penetrate)
G01 X164.193245 Y78.296423 Z-0.125000 F800.000000
G01 X164.905740 Y81.381546 Z-0.125000
G01 X165.189974 Y83.731658 Z-0.125000
G01 X165.000389 Y85.465326 Z-0.125000
G01 X164.730050 Y86.161407 Z-0.125000
G01 X163.873038 Y87.364067 Z-0.125000
G01 X159.715774 Y91.482941 Z-0.125000
G01 X156.783502 Y95.127420 Z-0.125000
G01 X155.860967 Y97.105326 Z-0.125000
G01 X155.625740 Y98.183603 Z-0.125000
G01 X155.553895 Y99.342599 Z-0.125000
G01 X155.646025 Y100.596785 Z-0.125000
G01 X156.293759 Y103.436758 Z-0.125000
G01 X157.463321 Y106.765713 Z-0.125000
G01 X161.472179 Y117.118851 Z-0.125000
G01 X162.940969 Y121.818144 Z-0.125000
G01 X163.540389 Y124.209012 Z-0.125000
G01 X164.361936 Y128.954894 Z-0.125000
G01 X164.551791 Y131.263285 Z-0.125000
G01 X164.444954 Y135.649995 Z-0.125000
G01 X164.147839 Y137.699407 Z-0.125000
G01 X163.117165 Y141.485987 Z-0.125000
G01 X161.667072 Y144.928828 Z-0.125000
G01 X160.065716 Y148.230364 Z-0.125000
G01 X158.272037 Y151.310349 Z-0.125000
G01 X157.280633 Y152.719060 Z-0.125000
G01 X155.174133 Y155.267327 Z-0.125000
G01 X152.108569 Y158.600813 Z-0.125000
G01 X150.490748 Y160.727124 Z-0.125000
G01 X149.894945 Y161.828780 Z-0.125000
G01 X149.469778 Y162.984750 Z-0.125000
G01 X149.229715 Y164.214103 Z-0.125000
G01 X149.182721 Y165.533186 Z-0.125000
G01 X149.330129 Y166.955184 Z-0.125000
G01 X150.180024 Y170.142766 Z-0.125000
G01 X151.660884 Y173.808664 Z-0.125000
G01 X156.703780 Y184.762743 Z-0.125000
G01 X158.646389 Y189.592692 Z-0.125000
G01 X163.522859 Y204.117124 Z-0.125000
G01 X168.072293 Y216.444804 Z-0.125000
G01 X168.654808 Y218.792379 Z-0.125000
G01 X168.782776 Y219.843592 Z-0.125000
G01 X168.713805 Y221.818539 Z-0.125000
G01 X168.255268 Y223.793369 Z-0.125000
G01 X167.065573 Y227.192055 Z-0.125000
G00 Z3.000000

(End cutting path id: polyline760)


(Start cutting path id: polyline757)
(Change tool to Default tool)

G00 Z3.000000
G00 X161.539645 Y69.809215

G00 Z4.875000 (Fast pre-penetrate)
G01 Z-0.125000 F400.0(Penetrate)
G01 X163.782835 Y78.202231 Z-0.125000 F800.000000
G01 X164.490850 Y81.308231 Z-0.125000
G01 X164.770621 Y83.674013 Z-0.125000
G01 X164.576320 Y85.417097 Z-0.125000
G01 X164.303547 Y86.115511 Z-0.125000
G01 X163.441480 Y87.318121 Z-0.125000
G01 X159.266906 Y91.410758 Z-0.125000
G01 X156.320789 Y95.028478 Z-0.125000
G01 X155.386945 Y96.987552 Z-0.125000
G01 X155.144483 Y98.054418 Z-0.125000
G01 X155.064186 Y99.200820 Z-0.125000
G01 X155.146680 Y100.441314 Z-0.125000
G01 X155.772489 Y103.251771 Z-0.125000
G01 X156.917370 Y106.550129 Z-0.125000
G01 X160.862717 Y116.836612 Z-0.125000
G01 X162.309531 Y121.517817 Z-0.125000
G01 X162.899383 Y123.901974 Z-0.125000
G01 X163.704955 Y128.638981 Z-0.125000
G01 X163.888522 Y130.945140 Z-0.125000
G01 X163.772726 Y135.331090 Z-0.125000
G01 X163.472703 Y137.381719 Z-0.125000
G01 X162.438936 Y141.172677 Z-0.125000
G01 X160.988133 Y144.621368 Z-0.125000
G01 X159.386827 Y147.929141 Z-0.125000
G01 X157.594128 Y151.015144 Z-0.125000
G01 X156.603789 Y152.426729 Z-0.125000
G01 X154.500739 Y154.980084 Z-0.125000
G01 X151.444066 Y158.318945 Z-0.125000
G01 X149.834359 Y160.446727 Z-0.125000
G01 X149.243019 Y161.548434 Z-0.125000
G01 X148.822585 Y162.703998 Z-0.125000
G01 X148.587408 Y163.932456 Z-0.125000
G01 X148.545316 Y165.250203 Z-0.125000
G01 X148.697626 Y166.670544 Z-0.125000
G01 X149.556921 Y169.853968 Z-0.125000
G01 X151.046013 Y173.515166 Z-0.125000
G01 X156.102010 Y184.459306 Z-0.125000
G01 X158.046597 Y189.287378 Z-0.125000
G01 X162.918097 Y203.811185 Z-0.125000
G01 X167.359781 Y216.142634 Z-0.125000
G01 X167.887728 Y218.494131 Z-0.125000
G01 X167.974618 Y220.551202 Z-0.125000
G01 X167.641631 Y222.507503 Z-0.125000
G01 X166.074135 Y226.924320 Z-0.125000
G00 Z3.000000

(End cutting path id: polyline757)


(Start cutting path id: polyline754)
(Change tool to Default tool)

G00 Z3.000000
G00 X161.148067 Y69.642384

G00 Z4.875000 (Fast pre-penetrate)
G01 Z-0.125000 F400.0(Penetrate)
G01 X163.383599 Y78.089883 Z-0.125000 F800.000000
G01 X164.087912 Y81.220395 Z-0.125000
G01 X164.363914 Y83.606259 Z-0.125000
G01 X164.165775 Y85.363662 Z-0.125000
G01 X163.890974 Y86.066893 Z-0.125000
G01 X163.024765 Y87.274388 Z-0.125000
G01 X158.836278 Y91.351761 Z-0.125000
G01 X155.878666 Y94.947843 Z-0.125000
G01 X154.934359 Y96.890232 Z-0.125000
G01 X154.684745 Y97.946719 Z-0.125000
G01 X154.595996 Y99.081305 Z-0.125000
G01 X154.668686 Y100.308832 Z-0.125000
G01 X155.271555 Y103.090248 Z-0.125000
G01 X156.389946 Y106.357450 Z-0.125000
G01 X160.265123 Y116.571261 Z-0.125000
G01 X161.686884 Y121.230489 Z-0.125000
G01 X162.265647 Y123.605789 Z-0.125000
G01 X163.052539 Y128.329830 Z-0.125000
G01 X163.228719 Y130.631780 Z-0.125000
G01 X163.101934 Y135.013486 Z-0.125000
G01 X162.798412 Y137.063845 Z-0.125000
G01 X161.760808 Y140.856950 Z-0.125000
G01 X160.309142 Y144.310036 Z-0.125000
G01 X158.707888 Y147.622678 Z-0.125000
G01 X156.915916 Y150.713515 Z-0.125000
G01 X155.926456 Y152.127416 Z-0.125000
G01 X153.826228 Y154.684845 Z-0.125000
G01 X150.776807 Y158.028000 Z-0.125000
G01 X149.173626 Y160.156898 Z-0.125000
G01 X148.586005 Y161.258655 Z-0.125000
G01 X148.169408 Y162.413848 Z-0.125000
G01 X147.938170 Y163.641595 Z-0.125000
G01 X147.900135 Y164.958362 Z-0.125000
G01 X148.401559 Y167.908401 Z-0.125000
G01 X149.603730 Y171.326866 Z-0.125000
G01 X155.485837 Y184.151101 Z-0.125000
G01 X157.431946 Y188.977703 Z-0.125000
G01 X162.298881 Y203.501019 Z-0.125000
G01 X165.748975 Y213.026863 Z-0.125000
G01 X166.640507 Y215.835799 Z-0.125000
G01 X167.117605 Y218.190440 Z-0.125000
G01 X167.148879 Y220.252125 Z-0.125000
G01 X166.759447 Y222.214327 Z-0.125000
G01 X165.092840 Y226.645716 Z-0.125000
G00 Z3.000000

(End cutting path id: polyline754)


(Start cutting path id: polyline751)
(Change tool to Default tool)

G00 Z3.000000
G00 X160.764890 Y69.455283

G00 Z4.875000 (Fast pre-penetrate)
G01 Z-0.125000 F400.0(Penetrate)
G01 X162.994337 Y77.961154 Z-0.125000 F800.000000
G01 X163.695708 Y81.119542 Z-0.125000
G01 X163.968667 Y83.529546 Z-0.125000
G01 X163.767452 Y85.305831 Z-0.125000
G01 X163.491129 Y86.016179 Z-0.125000
G01 X162.621590 Y87.233107 Z-0.125000
G01 X158.422335 Y91.305476 Z-0.125000
G01 X155.455375 Y94.884366 Z-0.125000
G01 X154.501229 Y96.812268 Z-0.125000
G01 X154.244583 Y97.859187 Z-0.125000
G01 X154.147382 Y98.982734 Z-0.125000
G01 X154.210098 Y100.197735 Z-0.125000
G01 X154.789131 Y102.950700 Z-0.125000
G01 X155.879478 Y106.186241 Z-0.125000
G01 X159.678347 Y116.321816 Z-0.125000
G01 X161.072216 Y120.955553 Z-0.125000
G01 X161.638554 Y123.320168 Z-0.125000
G01 X162.404315 Y128.027390 Z-0.125000
G01 X162.572009 Y130.323339 Z-0.125000
G01 X162.432884 Y134.697573 Z-0.125000
G01 X162.125254 Y136.746326 Z-0.125000
G01 X161.083119 Y140.539515 Z-0.125000
G01 X159.630490 Y143.995593 Z-0.125000
G01 X158.029270 Y147.312039 Z-0.125000
G01 X156.237872 Y150.406595 Z-0.125000
G01 X155.249055 Y151.822203 Z-0.125000
G01 X153.151109 Y154.382811 Z-0.125000
G01 X150.107318 Y157.729211 Z-0.125000
G01 X148.509275 Y159.859022 Z-0.125000
G01 X147.924511 Y160.960813 Z-0.125000
G01 X147.510974 Y162.115701 Z-0.125000
G01 X147.282813 Y163.342959 Z-0.125000
G01 X147.247989 Y164.658914 Z-0.125000
G01 X147.755584 Y167.606755 Z-0.125000
G01 X148.963383 Y171.022414 Z-0.125000
G01 X154.856411 Y183.839127 Z-0.125000
G01 X156.803720 Y188.664612 Z-0.125000
G01 X161.666328 Y203.187523 Z-0.125000
G01 X165.063324 Y212.714499 Z-0.125000
G01 X165.915316 Y215.525041 Z-0.125000
G01 X166.345048 Y217.882269 Z-0.125000
G01 X166.324424 Y219.947623 Z-0.125000
G01 X165.882217 Y221.914439 Z-0.125000
G01 X164.122042 Y226.357272 Z-0.125000
G00 Z3.000000

(End cutting path id: polyline751)


(Start cutting path id: polyline799)
(Change tool to Default tool)

G00 Z3.000000
G00 X168.522699 Y69.296684

G00 Z4.875000 (Fast pre-penetrate)
G01 Z-0.125000 F400.0(Penetrate)
G01 X170.982233 Y77.352690 Z-0.125000 F800.000000
G01 X171.787315 Y80.517772 Z-0.125000
G01 X172.168294 Y83.107050 Z-0.125000
G01 X172.087828 Y85.219550 Z-0.125000
G01 X171.878955 Y86.146142 Z-0.125000
G01 X171.162065 Y87.861959 Z-0.125000
G01 X166.900719 Y94.625489 Z-0.125000
G01 X165.078522 Y98.057190 Z-0.125000
G01 X164.381173 Y100.531027 Z-0.125000
G01 X164.291072 Y103.277618 Z-0.125000
G01 X164.483632 Y104.778020 Z-0.125000
G01 X165.306548 Y108.061772 Z-0.125000
G01 X166.605463 Y111.729800 Z-0.125000
G01 X169.888489 Y120.052881 Z-0.125000
G01 X172.111106 Y126.783803 Z-0.125000
G01 X173.106635 Y131.257233 Z-0.125000
G01 X173.401518 Y133.436726 Z-0.125000
G01 X173.529317 Y137.603034 Z-0.125000
G01 X173.354473 Y139.566081 Z-0.125000
G01 X173.024935 Y141.439415 Z-0.125000
G01 X171.953724 Y144.919649 Z-0.125000
G01 X170.492811 Y148.119048 Z-0.125000
G01 X168.888734 Y151.201432 Z-0.125000
G01 X167.068176 Y154.067033 Z-0.125000
G01 X166.046885 Y155.374046 Z-0.125000
G01 X163.839939 Y157.739996 Z-0.125000
G01 X160.517948 Y160.884066 Z-0.125000
G01 X158.667773 Y162.958632 Z-0.125000
G01 X157.942126 Y164.059223 Z-0.125000
G01 X157.380758 Y165.230661 Z-0.125000
G01 X157.000456 Y166.491187 Z-0.125000
G01 X156.811665 Y167.856064 Z-0.125000
G01 X156.818427 Y169.336755 Z-0.125000
G01 X157.398660 Y172.671255 Z-0.125000
G01 X158.641030 Y176.504931 Z-0.125000
G01 X163.306531 Y187.811623 Z-0.125000
G01 X165.193946 Y192.707280 Z-0.125000
G01 X170.161566 Y207.259047 Z-0.125000
G01 X172.005469 Y211.514746 Z-0.125000
G01 X173.942415 Y215.186949 Z-0.125000
G01 X175.844554 Y218.245938 Z-0.125000
G01 X178.967781 Y222.818582 Z-0.125000
G01 X179.963580 Y224.631803 Z-0.125000
G01 X180.514213 Y226.391403 Z-0.125000
G01 X180.627812 Y227.317471 Z-0.125000
G01 X180.574225 Y229.388811 Z-0.125000
G00 Z3.000000

(End cutting path id: polyline799)


(Start cutting path id: polyline802)
(Change tool to Default tool)

G00 Z3.000000
G00 X169.161980 Y69.039380

G00 Z4.875000 (Fast pre-penetrate)
G01 Z-0.125000 F400.0(Penetrate)
G01 X171.637118 Y77.095148 Z-0.125000 F800.000000
G01 X172.448099 Y80.290202 Z-0.125000
G01 X172.835705 Y82.928960 Z-0.125000
G01 X172.764029 Y85.106661 Z-0.125000
G01 X172.560802 Y86.070020 Z-0.125000
G01 X171.858044 Y87.863260 Z-0.125000
G01 X167.677841 Y94.863658 Z-0.125000
G01 X165.896332 Y98.380119 Z-0.125000
G01 X165.222515 Y100.911836 Z-0.125000
G01 X165.149994 Y103.713165 Z-0.125000
G01 X165.348404 Y105.237893 Z-0.125000
G01 X166.176070 Y108.560509 Z-0.125000
G01 X167.469846 Y112.249988 Z-0.125000
G01 X171.508440 Y122.757499 Z-0.125000
G01 X172.892284 Y127.217389 Z-0.125000
G01 X173.856151 Y131.631197 Z-0.125000
G01 X174.136192 Y133.778977 Z-0.125000
G01 X174.238296 Y137.882924 Z-0.125000
G01 X174.053258 Y139.817131 Z-0.125000
G01 X173.715657 Y141.664314 Z-0.125000
G01 X172.635013 Y145.101289 Z-0.125000
G01 X171.171683 Y148.268789 Z-0.125000
G01 X169.567335 Y151.323365 Z-0.125000
G01 X167.743870 Y154.161766 Z-0.125000
G01 X166.719451 Y155.455898 Z-0.125000
G01 X164.501821 Y157.798723 Z-0.125000
G01 X161.152580 Y160.918771 Z-0.125000
G01 X159.277776 Y162.986762 Z-0.125000
G01 X158.538301 Y164.087217 Z-0.125000
G01 X157.962496 Y165.260583 Z-0.125000
G01 X157.567284 Y166.525131 Z-0.125000
G01 X157.363381 Y167.895824 Z-0.125000
G01 X157.354928 Y169.383936 Z-0.125000
G01 X157.906542 Y172.737014 Z-0.125000
G01 X159.123606 Y176.592057 Z-0.125000
G01 X165.630541 Y192.847419 Z-0.125000
G01 X170.606529 Y207.403108 Z-0.125000
G01 X172.478037 Y211.661546 Z-0.125000
G01 X174.463803 Y215.336741 Z-0.125000
G01 X176.434508 Y218.396981 Z-0.125000
G01 X179.733018 Y222.958974 Z-0.125000
G01 X180.821083 Y224.757489 Z-0.125000
G01 X181.457017 Y226.495569 Z-0.125000
G01 X181.608482 Y227.408536 Z-0.125000
G01 X181.618625 Y229.449864 Z-0.125000
G00 Z3.000000

(End cutting path id: polyline802)


(Start cutting path id: polyline805)
(Change tool to Default tool)

G00 Z3.000000
G00 X169.822595 Y68.754469

G00 Z4.875000 (Fast pre-penetrate)
G01 Z-0.125000 F400.0(Penetrate)
G01 X172.312085 Y76.811591 Z-0.125000 F800.000000
G01 X173.128120 Y80.038932 Z-0.125000
G01 X173.521626 Y82.730500 Z-0.125000
G01 X173.458233 Y84.977493 Z-0.125000
G01 X173.260399 Y85.979767 Z-0.125000
G01 X172.571841 Y87.854943 Z-0.125000
G01 X168.476025 Y95.104734 Z-0.125000
G01 X166.737235 Y98.710080 Z-0.125000
G01 X166.087794 Y101.302214 Z-0.125000
G01 X166.033023 Y104.160292 Z-0.125000
G01 X166.237112 Y105.710072 Z-0.125000
G01 X167.068447 Y109.072143 Z-0.125000
G01 X168.355056 Y112.782449 Z-0.125000
G01 X172.333858 Y123.244943 Z-0.125000
G01 X173.683386 Y127.652175 Z-0.125000
G01 X174.612412 Y132.001762 Z-0.125000
G01 X174.876039 Y134.115497 Z-0.125000
G01 X174.949912 Y138.152805 Z-0.125000
G01 X174.753869 Y140.056382 Z-0.125000
G01 X174.407511 Y141.875638 Z-0.125000
G01 X173.316539 Y145.266954 Z-0.125000
G01 X171.850657 Y148.400830 Z-0.125000
G01 X170.245954 Y151.426230 Z-0.125000
G01 X168.419631 Y154.236062 Z-0.125000
G01 X167.391933 Y155.516636 Z-0.125000
G01 X165.163518 Y157.835169 Z-0.125000
G01 X161.786740 Y160.929945 Z-0.125000
G01 X159.886882 Y162.991055 Z-0.125000
G01 X159.133411 Y164.091427 Z-0.125000
G01 X158.542933 Y165.266837 Z-0.125000
G01 X158.132658 Y166.535561 Z-0.125000
G01 X157.913541 Y167.912340 Z-0.125000
G01 X157.889874 Y169.408261 Z-0.125000
G01 X158.412514 Y172.780932 Z-0.125000
G01 X159.603899 Y176.658289 Z-0.125000
G01 X166.064229 Y192.969386 Z-0.125000
G01 X169.341676 Y202.819916 Z-0.125000
G01 X171.048719 Y207.529335 Z-0.125000
G01 X172.947900 Y211.790849 Z-0.125000
G01 X174.982707 Y215.469662 Z-0.125000
G01 X177.022061 Y218.531981 Z-0.125000
G01 X180.495534 Y223.084762 Z-0.125000
G01 X181.675120 Y224.868856 Z-0.125000
G01 X182.395307 Y226.585468 Z-0.125000
G01 X182.584199 Y227.485198 Z-0.125000
G01 X182.655029 Y229.495976 Z-0.125000
G00 Z3.000000

(End cutting path id: polyline805)


(Start cutting path id: polyline808)
(Change tool to Default tool)

G00 Z3.000000
G00 X170.504594 Y68.442901

G00 Z4.875000 (Fast pre-penetrate)
G01 Z-0.125000 F400.0(Penetrate)
G01 X173.006965 Y76.502575 Z-0.125000 F800.000000
G01 X173.827159 Y79.764351 Z-0.125000
G01 X174.225635 Y82.511703 Z-0.125000
G01 X174.169680 Y84.831725 Z-0.125000
G01 X173.977137 Y85.874975 Z-0.125000
G01 X173.302610 Y87.836111 Z-0.125000
G01 X168.673978 Y96.561353 Z-0.125000
G01 X167.599910 Y99.045433 Z-0.125000
G01 X166.975573 Y101.700419 Z-0.125000
G01 X166.938721 Y104.617139 Z-0.125000
G01 X167.148169 Y106.192631 Z-0.125000
G01 X167.982191 Y109.594732 Z-0.125000
G01 X169.259824 Y113.325307 Z-0.125000
G01 X173.171667 Y123.736208 Z-0.125000
G01 X174.483582 Y128.086742 Z-0.125000
G01 X175.374640 Y132.367629 Z-0.125000
G01 X175.620535 Y134.445136 Z-0.125000
G01 X175.663810 Y138.411818 Z-0.125000
G01 X175.455833 Y140.282920 Z-0.125000
G01 X175.100076 Y142.072746 Z-0.125000
G01 X173.998014 Y145.415934 Z-0.125000
G01 X170.924386 Y151.509519 Z-0.125000
G01 X169.095156 Y154.289514 Z-0.125000
G01 X168.064246 Y155.555855 Z-0.125000
G01 X165.824860 Y157.849048 Z-0.125000
G01 X162.420307 Y160.917470 Z-0.125000
G01 X160.495279 Y162.971328 Z-0.125000
G01 X159.727759 Y164.071513 Z-0.125000
G01 X159.122524 Y165.249121 Z-0.125000
G01 X158.697035 Y166.522139 Z-0.125000
G01 X158.462535 Y167.905358 Z-0.125000
G01 X158.423654 Y169.409428 Z-0.125000
G01 X158.917032 Y172.802587 Z-0.125000
G01 X160.082621 Y176.703289 Z-0.125000
G01 X166.496125 Y193.072707 Z-0.125000
G01 X169.772439 Y202.926178 Z-0.125000
G01 X171.489016 Y207.637118 Z-0.125000
G01 X173.415972 Y211.902166 Z-0.125000
G01 X175.499700 Y215.585289 Z-0.125000
G01 X177.607636 Y218.650448 Z-0.125000
G01 X181.254702 Y223.195639 Z-0.125000
G01 X182.524762 Y224.965922 Z-0.125000
G01 X183.327781 Y226.661200 Z-0.125000
G01 X183.553035 Y227.547627 Z-0.125000
G01 X183.683708 Y229.527509 Z-0.125000
G00 Z3.000000

(End cutting path id: polyline808)


(Start cutting path id: polyline811)
(Change tool to Default tool)

G00 Z3.000000
G00 X171.207961 Y68.105789

G00 Z4.875000 (Fast pre-penetrate)
G01 Z-0.125000 F400.0(Penetrate)
G01 X173.721421 Y76.168861 Z-0.125000 F800.000000
G01 X174.544709 Y79.466881 Z-0.125000
G01 X174.947157 Y82.272723 Z-0.125000
G01 X174.898133 Y84.669085 Z-0.125000
G01 X174.710543 Y85.755155 Z-0.125000
G01 X174.049844 Y87.806089 Z-0.125000
G01 X169.527153 Y96.835580 Z-0.125000
G01 X168.483548 Y99.384472 Z-0.125000
G01 X167.885057 Y102.104574 Z-0.125000
G01 X167.866293 Y105.081711 Z-0.125000
G01 X168.080948 Y106.683506 Z-0.125000
G01 X168.916576 Y110.126213 Z-0.125000
G01 X170.183508 Y113.876515 Z-0.125000
G01 X173.279839 Y122.089919 Z-0.125000
G01 X175.292771 Y128.519652 Z-0.125000
G01 X176.142988 Y132.727680 Z-0.125000
G01 X176.369882 Y134.766899 Z-0.125000
G01 X176.450686 Y136.747188 Z-0.125000
G01 X176.159791 Y140.496087 Z-0.125000
G01 X175.794010 Y142.255062 Z-0.125000
G01 X174.680132 Y145.547841 Z-0.125000
G01 X171.603207 Y151.572843 Z-0.125000
G01 X169.771053 Y154.321751 Z-0.125000
G01 X168.736931 Y155.573385 Z-0.125000
G01 X166.486692 Y157.840089 Z-0.125000
G01 X162.024029 Y161.886255 Z-0.125000
G01 X160.322497 Y164.027460 Z-0.125000
G01 X159.702487 Y165.207265 Z-0.125000
G01 X159.261750 Y166.484831 Z-0.125000
G01 X159.011900 Y167.874676 Z-0.125000
G01 X158.957636 Y169.387283 Z-0.125000
G01 X159.421803 Y172.801691 Z-0.125000
G01 X160.561545 Y176.726821 Z-0.125000
G01 X166.928071 Y193.156875 Z-0.125000
G01 X170.203320 Y203.013490 Z-0.125000
G01 X171.929415 Y207.726121 Z-0.125000
G01 X173.884077 Y211.995107 Z-0.125000
G01 X176.016508 Y215.683201 Z-0.125000
G01 X178.192383 Y218.752163 Z-0.125000
G01 X182.747125 Y224.193619 Z-0.125000
G01 X183.872938 Y225.882862 Z-0.125000
G01 X184.514552 Y227.596244 Z-0.125000
G01 X184.702801 Y229.544996 Z-0.125000
G00 Z3.000000

(End cutting path id: polyline811)


(Start cutting path id: polyline748)
(Change tool to Default tool)

G00 Z3.000000
G00 X160.388915 Y69.250214

G00 Z4.875000 (Fast pre-penetrate)
G01 Z-0.125000 F400.0(Penetrate)
G01 X162.613763 Y77.818023 Z-0.125000 F800.000000
G01 X163.312887 Y81.007312 Z-0.125000
G01 X163.583580 Y83.445192 Z-0.125000
G01 X163.380015 Y85.244450 Z-0.125000
G01 X163.102442 Y85.964028 Z-0.125000
G01 X162.230452 Y87.194413 Z-0.125000
G01 X158.023319 Y91.270856 Z-0.125000
G01 X155.048989 Y94.836729 Z-0.125000
G01 X154.085579 Y96.751936 Z-0.125000
G01 X153.716179 Y98.903299 Z-0.125000
G01 X153.768753 Y100.106349 Z-0.125000
G01 X154.323105 Y102.831235 Z-0.125000
G01 X155.384021 Y106.034708 Z-0.125000
G01 X159.101038 Y116.086994 Z-0.125000
G01 X160.464580 Y120.692162 Z-0.125000
G01 X161.017225 Y123.044387 Z-0.125000
G01 X161.759591 Y127.731424 Z-0.125000
G01 X161.917987 Y130.019749 Z-0.125000
G01 X161.764831 Y134.383722 Z-0.125000
G01 X161.452586 Y136.429618 Z-0.125000
G01 X160.405363 Y140.221066 Z-0.125000
G01 X158.951517 Y143.678885 Z-0.125000
G01 X157.350296 Y146.998053 Z-0.125000
G01 X155.559389 Y150.095297 Z-0.125000
G01 X154.571062 Y151.512240 Z-0.125000
G01 X152.474773 Y154.075130 Z-0.125000
G01 X149.435225 Y157.423914 Z-0.125000
G01 X147.841036 Y159.554384 Z-0.125000
G01 X147.258369 Y160.656175 Z-0.125000
G01 X146.847063 Y161.810895 Z-0.125000
G01 X146.621234 Y163.037746 Z-0.125000
G01 X146.588608 Y164.353110 Z-0.125000
G01 X147.100784 Y167.299362 Z-0.125000
G01 X148.312827 Y170.712992 Z-0.125000
G01 X153.170380 Y181.179357 Z-0.125000
G01 X156.162190 Y188.348801 Z-0.125000
G01 X164.826305 Y213.870098 Z-0.125000
G01 X165.433383 Y216.438262 Z-0.125000
G01 X165.569634 Y217.570430 Z-0.125000
G01 X165.500494 Y219.638471 Z-0.125000
G01 X165.008723 Y221.608770 Z-0.125000
G01 X163.160306 Y226.060073 Z-0.125000
G00 Z3.000000

(End cutting path id: polyline748)


(Start cutting path id: polyline745)
(Change tool to Default tool)

G00 Z3.000000
G00 X160.018857 Y69.029676

G00 Z4.875000 (Fast pre-penetrate)
G01 Z-0.125000 F400.0(Penetrate)
G01 X162.240476 Y77.662551 Z-0.125000 F800.000000
G01 X162.937943 Y80.885481 Z-0.125000
G01 X163.207064 Y83.354482 Z-0.125000
G01 X163.001859 Y85.180314 Z-0.125000
G01 X162.723474 Y85.910931 Z-0.125000
G01 X161.849777 Y87.158322 Z-0.125000
G01 X157.637201 Y91.246834 Z-0.125000
G01 X154.657191 Y94.803190 Z-0.125000
G01 X153.684956 Y96.707341 Z-0.125000
G01 X153.300225 Y98.840854 Z-0.125000
G01 X153.342655 Y100.032375 Z-0.125000
G01 X153.871651 Y102.729622 Z-0.125000
G01 X154.901919 Y105.900621 Z-0.125000
G01 X158.532300 Y115.865375 Z-0.125000
G01 X159.863334 Y120.439134 Z-0.125000
G01 X160.401222 Y122.777497 Z-0.125000
G01 X161.118366 Y127.441459 Z-0.125000
G01 X161.266450 Y129.720740 Z-0.125000
G01 X161.098080 Y134.071934 Z-0.125000
G01 X160.780713 Y136.113992 Z-0.125000
G01 X159.727928 Y139.902077 Z-0.125000
G01 X158.272747 Y143.360606 Z-0.125000
G01 X156.671611 Y146.681666 Z-0.125000
G01 X154.880974 Y149.780736 Z-0.125000
G01 X153.892968 Y151.198525 Z-0.125000
G01 X151.797778 Y153.762986 Z-0.125000
G01 X148.761187 Y157.113377 Z-0.125000
G01 X147.169636 Y159.244286 Z-0.125000
G01 X146.588507 Y160.346043 Z-0.125000
G01 X146.178756 Y161.500661 Z-0.125000
G01 X145.954500 Y162.727208 Z-0.125000
G01 X145.923564 Y164.042217 Z-0.125000
G01 X146.438901 Y166.987337 Z-0.125000
G01 X147.653869 Y170.399682 Z-0.125000
G01 X152.516511 Y180.862751 Z-0.125000
G01 X155.509453 Y188.031146 Z-0.125000
G01 X164.108350 Y213.553356 Z-0.125000
G01 X164.677443 Y216.122636 Z-0.125000
G01 X164.792394 Y217.255515 Z-0.125000
G01 X164.677781 Y219.325517 Z-0.125000
G01 X164.139589 Y221.298283 Z-0.125000
G01 X162.207749 Y225.755435 Z-0.125000
G00 Z3.000000

(End cutting path id: polyline745)


(Start cutting path id: polyline742)
(Change tool to Default tool)

G00 Z3.000000
G00 X159.653430 Y68.796376

G00 Z4.875000 (Fast pre-penetrate)
G01 Z-0.125000 F400.0(Penetrate)
G01 X161.873004 Y77.497021 Z-0.125000 F800.000000
G01 X162.569490 Y80.755856 Z-0.125000
G01 X162.837580 Y83.258684 Z-0.125000
G01 X162.631344 Y85.114133 Z-0.125000
G01 X162.352418 Y85.857343 Z-0.125000
G01 X161.477707 Y87.124732 Z-0.125000
G01 X157.261852 Y91.231806 Z-0.125000
G01 X154.277463 Y94.781671 Z-0.125000
G01 X153.296861 Y96.676085 Z-0.125000
G01 X152.896830 Y98.792727 Z-0.125000
G01 X152.928780 Y99.973107 Z-0.125000
G01 X153.431776 Y102.642986 Z-0.125000
G01 X154.430382 Y105.781190 Z-0.125000
G01 X157.970205 Y115.654845 Z-0.125000
G01 X159.266872 Y120.195015 Z-0.125000
G01 X159.789191 Y122.518350 Z-0.125000
G01 X160.479507 Y127.156735 Z-0.125000
G01 X160.616603 Y129.425856 Z-0.125000
G01 X160.431802 Y133.762208 Z-0.125000
G01 X160.108958 Y135.799601 Z-0.125000
G01 X159.050105 Y139.583036 Z-0.125000
G01 X157.593570 Y143.041345 Z-0.125000
G01 X155.992401 Y146.363522 Z-0.125000
G01 X154.201984 Y149.463707 Z-0.125000
G01 X153.214197 Y150.882003 Z-0.125000
G01 X151.119734 Y153.447394 Z-0.125000
G01 X148.084936 Y156.798765 Z-0.125000
G01 X146.495041 Y158.929996 Z-0.125000
G01 X145.914791 Y160.031753 Z-0.125000
G01 X145.505987 Y161.186287 Z-0.125000
G01 X145.282711 Y162.412681 Z-0.125000
G01 X145.252790 Y163.727437 Z-0.125000
G01 X145.770104 Y166.671931 Z-0.125000
G01 X146.986847 Y170.083380 Z-0.125000
G01 X151.852633 Y180.544420 Z-0.125000
G01 X154.846319 Y187.712292 Z-0.125000
G01 X163.384309 Y213.235077 Z-0.125000
G01 X163.917886 Y215.805032 Z-0.125000
G01 X164.012889 Y216.938452 Z-0.125000
G01 X163.855677 Y219.009654 Z-0.125000
G01 X163.273601 Y220.983892 Z-0.125000
G01 X161.262511 Y225.444711 Z-0.125000
G00 Z3.000000

(End cutting path id: polyline742)


(Start cutting path id: polyline739)
(Change tool to Default tool)

G00 Z3.000000
G00 X159.291418 Y68.553322

G00 Z4.875000 (Fast pre-penetrate)
G01 Z-0.125000 F400.0(Penetrate)
G01 X161.509910 Y77.323885 Z-0.125000 F800.000000
G01 X162.205855 Y80.620332 Z-0.125000
G01 X162.473404 Y83.159200 Z-0.125000
G01 X162.266644 Y85.046548 Z-0.125000
G01 X161.987499 Y85.803536 Z-0.125000
G01 X161.112195 Y87.093188 Z-0.125000
G01 X156.894650 Y91.224030 Z-0.125000
G01 X153.906982 Y94.769601 Z-0.125000
G01 X152.918384 Y96.655241 Z-0.125000
G01 X152.503105 Y98.755925 Z-0.125000
G01 X152.524574 Y99.925436 Z-0.125000
G01 X153.001182 Y102.568200 Z-0.125000
G01 X153.967280 Y105.673406 Z-0.125000
G01 X157.413553 Y115.453173 Z-0.125000
G01 X158.674535 Y119.957962 Z-0.125000
G01 X159.180625 Y122.265288 Z-0.125000
G01 X159.842812 Y126.876305 Z-0.125000
G01 X159.968582 Y129.134370 Z-0.125000
G01 X159.766589 Y133.454358 Z-0.125000
G01 X159.438031 Y135.486342 Z-0.125000
G01 X158.372822 Y139.264097 Z-0.125000
G01 X156.914766 Y142.721510 Z-0.125000
G01 X155.313596 Y146.044262 Z-0.125000
G01 X153.523281 Y149.144988 Z-0.125000
G01 X152.535613 Y150.563588 Z-0.125000
G01 X150.441505 Y153.129470 Z-0.125000
G01 X147.407653 Y156.481348 Z-0.125000
G01 X145.818553 Y158.612663 Z-0.125000
G01 X145.238810 Y159.714454 Z-0.125000
G01 X144.830496 Y160.868953 Z-0.125000
G01 X144.607761 Y162.095213 Z-0.125000
G01 X144.578347 Y163.409918 Z-0.125000
G01 X145.096676 Y166.354006 Z-0.125000
G01 X146.314365 Y169.765050 Z-0.125000
G01 X151.181706 Y180.225126 Z-0.125000
G01 X154.175765 Y187.392677 Z-0.125000
G01 X161.735840 Y209.831724 Z-0.125000
G01 X162.656262 Y212.915766 Z-0.125000
G01 X163.156367 Y215.486178 Z-0.125000
G01 X163.232607 Y216.619766 Z-0.125000
G01 X163.034874 Y218.691611 Z-0.125000
G01 X162.411077 Y220.666643 Z-0.125000
G01 X160.324204 Y225.129356 Z-0.125000
G00 Z3.000000

(End cutting path id: polyline739)


(Start cutting path id: polyline736)
(Change tool to Default tool)

G00 Z3.000000
G00 X158.931502 Y68.303759

G00 Z4.875000 (Fast pre-penetrate)
G01 Z-0.125000 F400.0(Penetrate)
G01 X161.149639 Y77.145693 Z-0.125000 F800.000000
G01 X161.845399 Y80.481021 Z-0.125000
G01 X162.112779 Y83.057316 Z-0.125000
G01 X161.905866 Y84.978152 Z-0.125000
G01 X161.626552 Y85.749729 Z-0.125000
G01 X160.751113 Y87.063267 Z-0.125000
G01 X156.532942 Y91.221258 Z-0.125000
G01 X153.542721 Y94.764005 Z-0.125000
G01 X152.546347 Y96.641599 Z-0.125000
G01 X152.115804 Y98.726799 Z-0.125000
G01 X152.125947 Y99.885626 Z-0.125000
G01 X152.575846 Y102.501427 Z-0.125000
G01 X153.508997 Y105.573432 Z-0.125000
G01 X156.859640 Y115.257536 Z-0.125000
G01 X158.083956 Y119.725828 Z-0.125000
G01 X158.573361 Y122.016553 Z-0.125000
G01 X159.206726 Y126.598900 Z-0.125000
G01 X159.320663 Y128.845302 Z-0.125000
G01 X159.100920 Y133.147844 Z-0.125000
G01 X158.766496 Y135.174046 Z-0.125000
G01 X157.694711 Y138.945411 Z-0.125000
G01 X156.235100 Y142.401540 Z-0.125000
G01 X154.633879 Y145.724460 Z-0.125000
G01 X152.843648 Y148.825373 Z-0.125000
G01 X151.855980 Y150.244057 Z-0.125000
G01 X149.761974 Y152.810074 Z-0.125000
G01 X146.728426 Y156.162121 Z-0.125000
G01 X145.139681 Y158.293487 Z-0.125000
G01 X144.560073 Y159.395295 Z-0.125000
G01 X144.151945 Y160.549778 Z-0.125000
G01 X143.929379 Y161.776054 Z-0.125000
G01 X143.900134 Y163.090657 Z-0.125000
G01 X144.418835 Y166.034661 Z-0.125000
G01 X145.636829 Y169.445570 Z-0.125000
G01 X150.504762 Y179.905274 Z-0.125000
G01 X153.498938 Y187.072689 Z-0.125000
G01 X160.448047 Y207.751123 Z-0.125000
G01 X161.924478 Y212.595981 Z-0.125000
G01 X162.392313 Y215.166461 Z-0.125000
G01 X162.450296 Y216.300151 Z-0.125000
G01 X162.213598 Y218.372249 Z-0.125000
G01 X161.549500 Y220.347518 Z-0.125000
G01 X159.389245 Y224.810856 Z-0.125000
G00 Z3.000000

(End cutting path id: polyline736)


(Start cutting path id: polyline733)
(Change tool to Default tool)

G00 Z3.000000
G00 X158.572516 Y68.051221

G00 Z4.875000 (Fast pre-penetrate)
G01 Z-0.125000 F400.0(Penetrate)
G01 X160.790602 Y76.965186 Z-0.125000 F800.000000
G01 X161.486379 Y80.339953 Z-0.125000
G01 X161.753708 Y82.954367 Z-0.125000
G01 X161.546813 Y84.909452 Z-0.125000
G01 X161.267481 Y85.695972 Z-0.125000
G01 X160.391958 Y87.034073 Z-0.125000
G01 X156.173787 Y91.220750 Z-0.125000
G01 X153.181385 Y94.761503 Z-0.125000
G01 X152.177269 Y96.631355 Z-0.125000
G01 X151.731562 Y98.701306 Z-0.125000
G01 X151.731884 Y99.849534 Z-0.125000
G01 X152.154904 Y102.438491 Z-0.125000
G01 X153.054804 Y105.477228 Z-0.125000
G01 X156.308939 Y115.064807 Z-0.125000
G01 X157.496217 Y119.496027 Z-0.125000
G01 X157.968667 Y121.769848 Z-0.125000
G01 X158.572786 Y126.322933 Z-0.125000
G01 X158.674721 Y128.557450 Z-0.125000
G01 X158.437076 Y132.842006 Z-0.125000
G01 X158.096618 Y134.862224 Z-0.125000
G01 X157.018087 Y138.626963 Z-0.125000
G01 X155.556955 Y142.081519 Z-0.125000
G01 X153.955768 Y145.404439 Z-0.125000
G01 X152.165503 Y148.505402 Z-0.125000
G01 X151.177835 Y149.924036 Z-0.125000
G01 X149.083862 Y152.490104 Z-0.125000
G01 X146.050366 Y155.842151 Z-0.125000
G01 X144.461621 Y157.973567 Z-0.125000
G01 X143.882013 Y159.075308 Z-0.125000
G01 X143.473885 Y160.229807 Z-0.125000
G01 X143.251319 Y161.456067 Z-0.125000
G01 X143.222074 Y162.770687 Z-0.125000
G01 X143.740775 Y165.714691 Z-0.125000
G01 X144.958819 Y169.125600 Z-0.125000
G01 X149.826786 Y179.585253 Z-0.125000
G01 X152.821030 Y186.752668 Z-0.125000
G01 X159.750310 Y207.431102 Z-0.125000
G01 X161.192661 Y212.275910 Z-0.125000
G01 X161.628935 Y214.846440 Z-0.125000
G01 X161.668999 Y215.980181 Z-0.125000
G01 X161.393978 Y218.052228 Z-0.125000
G01 X160.690324 Y220.027598 Z-0.125000
G01 X158.457801 Y224.490971 Z-0.125000
G00 Z3.000000

(End cutting path id: polyline733)


(Start cutting path id: polyline730)
(Change tool to Default tool)

G00 Z3.000000
G00 X158.213817 Y67.797399

G00 Z4.875000 (Fast pre-penetrate)
G01 Z-0.125000 F400.0(Penetrate)
G01 X160.431363 Y76.783089 Z-0.125000 F800.000000
G01 X161.126919 Y80.197227 Z-0.125000
G01 X161.394113 Y82.849795 Z-0.125000
G01 X161.186981 Y84.839196 Z-0.125000
G01 X160.907616 Y85.640779 Z-0.125000
G01 X160.032093 Y87.003560 Z-0.125000
G01 X155.813905 Y91.219550 Z-0.125000
G01 X152.819458 Y94.758562 Z-0.125000
G01 X151.807734 Y96.620790 Z-0.125000
G01 X151.504212 Y97.616454 Z-0.125000
G01 X151.336857 Y99.813342 Z-0.125000
G01 X151.468713 Y101.042881 Z-0.125000
G01 X152.116041 Y103.819884 Z-0.125000
G01 X155.758018 Y114.872179 Z-0.125000
G01 X156.908343 Y119.266310 Z-0.125000
G01 X157.363921 Y121.523176 Z-0.125000
G01 X157.938881 Y126.047016 Z-0.125000
G01 X158.028982 Y128.269531 Z-0.125000
G01 X157.773469 Y132.536151 Z-0.125000
G01 X157.426959 Y134.550334 Z-0.125000
G01 X156.341802 Y138.308463 Z-0.125000
G01 X154.879064 Y141.761498 Z-0.125000
G01 X153.277843 Y145.084469 Z-0.125000
G01 X151.487561 Y148.185517 Z-0.125000
G01 X150.499944 Y149.604201 Z-0.125000
G01 X148.405971 Y152.170303 Z-0.125000
G01 X145.372525 Y155.522400 Z-0.125000
G01 X143.783729 Y157.653800 Z-0.125000
G01 X143.204172 Y158.755557 Z-0.125000
G01 X142.796044 Y159.910057 Z-0.125000
G01 X142.573478 Y161.136317 Z-0.125000
G01 X142.544233 Y162.450886 Z-0.125000
G01 X143.062883 Y165.394890 Z-0.125000
G01 X144.280792 Y168.805714 Z-0.125000
G01 X149.148404 Y179.265283 Z-0.125000
G01 X152.142412 Y186.432664 Z-0.125000
G01 X159.051542 Y207.111182 Z-0.125000
G01 X160.459796 Y211.956210 Z-0.125000
G01 X160.864577 Y214.526875 Z-0.125000
G01 X160.887060 Y215.660650 Z-0.125000
G01 X160.574004 Y217.732833 Z-0.125000
G01 X159.831013 Y219.708338 Z-0.125000
G01 X157.526780 Y224.171930 Z-0.125000
G00 Z3.000000

(End cutting path id: polyline730)


(Start cutting path id: polyline727)
(Change tool to Default tool)

G00 Z3.000000
G00 X157.855558 Y67.539739

G00 Z4.875000 (Fast pre-penetrate)
G01 Z-0.125000 F400.0(Penetrate)
G01 X160.070602 Y76.595550 Z-0.125000 F800.000000
G01 X160.764890 Y80.048551 Z-0.125000
G01 X161.031104 Y82.739036 Z-0.125000
G01 X160.823262 Y84.762804 Z-0.125000
G01 X160.543626 Y85.579499 Z-0.125000
G01 X159.667782 Y86.967418 Z-0.125000
G01 X155.450016 Y91.214276 Z-0.125000
G01 X152.454031 Y94.752510 Z-0.125000
G01 X151.435157 Y96.607739 Z-0.125000
G01 X151.125330 Y97.597098 Z-0.125000
G01 X150.939548 Y99.775323 Z-0.125000
G01 X151.059402 Y100.992573 Z-0.125000
G01 X151.677485 Y103.739689 Z-0.125000
G01 X155.208653 Y114.678774 Z-0.125000
G01 X156.322767 Y119.035884 Z-0.125000
G01 X156.761847 Y121.275878 Z-0.125000
G01 X157.308136 Y125.770524 Z-0.125000
G01 X157.386574 Y127.981139 Z-0.125000
G01 X157.113345 Y132.229873 Z-0.125000
G01 X156.760985 Y134.238140 Z-0.125000
G01 X155.669202 Y137.989778 Z-0.125000
G01 X154.204942 Y141.441562 Z-0.125000
G01 X152.603721 Y144.764803 Z-0.125000
G01 X150.813490 Y147.866155 Z-0.125000
G01 X149.825873 Y149.284992 Z-0.125000
G01 X147.732086 Y151.851414 Z-0.125000
G01 X144.698759 Y155.203766 Z-0.125000
G01 X143.110030 Y157.335216 Z-0.125000
G01 X142.530372 Y158.437024 Z-0.125000
G01 X142.122193 Y159.591456 Z-0.125000
G01 X141.899492 Y160.817682 Z-0.125000
G01 X141.870078 Y162.132200 Z-0.125000
G01 X142.388322 Y165.075984 Z-0.125000
G01 X143.605707 Y168.486589 Z-0.125000
G01 X148.471527 Y178.945617 Z-0.125000
G01 X151.464470 Y186.112812 Z-0.125000
G01 X158.351404 Y206.791871 Z-0.125000
G01 X159.725545 Y211.637660 Z-0.125000
G01 X160.099103 Y214.209035 Z-0.125000
G01 X160.104174 Y215.343182 Z-0.125000
G01 X159.753556 Y217.416227 Z-0.125000
G01 X158.972005 Y219.392374 Z-0.125000
G01 X156.597636 Y223.857099 Z-0.125000
G00 Z3.000000

(End cutting path id: polyline727)


(Start cutting path id: polyline724)
(Change tool to Default tool)

G00 Z3.000000
G00 X157.497874 Y67.275486

G00 Z4.875000 (Fast pre-penetrate)
G01 Z-0.125000 F400.0(Penetrate)
G01 X159.706747 Y76.398628 Z-0.125000 F800.000000
G01 X160.398314 Y79.889631 Z-0.125000
G01 X160.662161 Y82.617661 Z-0.125000
G01 X160.452662 Y84.675847 Z-0.125000
G01 X160.172486 Y85.507858 Z-0.125000
G01 X159.295847 Y86.921539 Z-0.125000
G01 X155.078910 Y91.201969 Z-0.125000
G01 X152.082485 Y94.741336 Z-0.125000
G01 X151.057170 Y96.590294 Z-0.125000
G01 X150.741544 Y97.573787 Z-0.125000
G01 X150.538486 Y99.734177 Z-0.125000
G01 X150.647014 Y100.939475 Z-0.125000
G01 X151.237272 Y103.657397 Z-0.125000
G01 X154.662127 Y114.484303 Z-0.125000
G01 X155.741198 Y118.804510 Z-0.125000
G01 X156.164270 Y121.027651 Z-0.125000
G01 X156.682751 Y125.493170 Z-0.125000
G01 X156.749693 Y127.691935 Z-0.125000
G01 X156.459339 Y131.923038 Z-0.125000
G01 X156.101249 Y133.925506 Z-0.125000
G01 X155.002991 Y137.670974 Z-0.125000
G01 X153.537193 Y141.121913 Z-0.125000
G01 X151.936023 Y144.445949 Z-0.125000
G01 X150.145877 Y147.548061 Z-0.125000
G01 X149.158412 Y148.967253 Z-0.125000
G01 X147.064845 Y151.534301 Z-0.125000
G01 X144.031923 Y154.887328 Z-0.125000
G01 X142.443228 Y157.018998 Z-0.125000
G01 X141.863570 Y158.120756 Z-0.125000
G01 X141.455205 Y159.275154 Z-0.125000
G01 X141.232251 Y160.501295 Z-0.125000
G01 X141.202498 Y161.815628 Z-0.125000
G01 X141.719762 Y164.758972 Z-0.125000
G01 X142.935845 Y168.169019 Z-0.125000
G01 X148.840808 Y180.970315 Z-0.125000
G01 X151.668474 Y188.243688 Z-0.125000
G01 X157.648984 Y206.473642 Z-0.125000
G01 X158.988893 Y211.321476 Z-0.125000
G01 X159.331634 Y213.894576 Z-0.125000
G01 X159.319801 Y215.029601 Z-0.125000
G01 X158.932685 Y217.104438 Z-0.125000
G01 X158.113742 Y219.082344 Z-0.125000
G01 X155.672058 Y223.549554 Z-0.125000
G00 Z3.000000

(End cutting path id: polyline724)


(Start cutting path id: polyline721)
(Change tool to Default tool)

G00 Z3.000000
G00 X157.140544 Y67.002291

G00 Z4.875000 (Fast pre-penetrate)
G01 Z-0.125000 F400.0(Penetrate)
G01 X159.338429 Y76.188808 Z-0.125000 F800.000000
G01 X160.025061 Y79.716629 Z-0.125000
G01 X160.284884 Y82.481647 Z-0.125000
G01 X160.072258 Y84.574369 Z-0.125000
G01 X159.791016 Y85.421982 Z-0.125000
G01 X158.913110 Y86.862221 Z-0.125000
G01 X154.697846 Y91.180095 Z-0.125000
G01 X151.702317 Y94.723130 Z-0.125000
G01 X150.671593 Y96.567118 Z-0.125000
G01 X150.350812 Y97.545353 Z-0.125000
G01 X150.132049 Y99.688924 Z-0.125000
G01 X150.229927 Y100.882811 Z-0.125000
G01 X150.794287 Y103.572367 Z-0.125000
G01 X154.118881 Y114.288497 Z-0.125000
G01 X155.572406 Y120.778427 Z-0.125000
G01 X156.064363 Y125.214971 Z-0.125000
G01 X156.120487 Y127.401970 Z-0.125000
G01 X155.813584 Y131.615645 Z-0.125000
G01 X155.449898 Y133.612467 Z-0.125000
G01 X154.345470 Y137.352288 Z-0.125000
G01 X152.878252 Y140.802957 Z-0.125000
G01 X151.277031 Y144.128396 Z-0.125000
G01 X149.487122 Y147.231894 Z-0.125000
G01 X148.499859 Y148.651745 Z-0.125000
G01 X146.406782 Y151.219960 Z-0.125000
G01 X143.374621 Y154.574238 Z-0.125000
G01 X141.786113 Y156.706229 Z-0.125000
G01 X141.206319 Y157.807987 Z-0.125000
G01 X140.797684 Y158.962284 Z-0.125000
G01 X140.574374 Y160.188205 Z-0.125000
G01 X140.543946 Y161.502284 Z-0.125000
G01 X141.059519 Y164.444767 Z-0.125000
G01 X142.273219 Y167.853748 Z-0.125000
G01 X147.127273 Y178.308939 Z-0.125000
G01 X150.112829 Y185.474968 Z-0.125000
G01 X156.329985 Y204.245396 Z-0.125000
G01 X157.916093 Y209.534693 Z-0.125000
G01 X158.466186 Y212.353552 Z-0.125000
G01 X158.561528 Y213.584884 Z-0.125000
G01 X158.380378 Y215.785305 Z-0.125000
G01 X158.110276 Y216.799665 Z-0.125000
G01 X157.255732 Y218.780648 Z-0.125000
G01 X154.750758 Y223.252354 Z-0.125000
G00 Z3.000000

(End cutting path id: polyline721)


(Start cutting path id: polyline814)
(Change tool to Default tool)

G00 Z3.000000
G00 X171.932627 Y67.744538

G00 Z4.875000 (Fast pre-penetrate)
G01 Z-0.125000 F400.0(Penetrate)
G01 X174.455216 Y75.811362 Z-0.125000 F800.000000
G01 X175.280296 Y79.147079 Z-0.125000
G01 X175.685651 Y82.013795 Z-0.125000
G01 X175.642544 Y84.489474 Z-0.125000
G01 X175.459603 Y85.619986 Z-0.125000
G01 X174.812512 Y87.764182 Z-0.125000
G01 X170.398737 Y97.109350 Z-0.125000
G01 X169.386574 Y99.725370 Z-0.125000
G01 X168.814641 Y102.512736 Z-0.125000
G01 X168.813745 Y105.552014 Z-0.125000
G01 X169.033454 Y107.180738 Z-0.125000
G01 X169.869708 Y110.664506 Z-0.125000
G01 X171.124283 Y114.434080 Z-0.125000
G01 X174.160873 Y122.609009 Z-0.125000
G01 X176.109889 Y128.949519 Z-0.125000
G01 X176.916458 Y133.080749 Z-0.125000
G01 X177.123083 Y135.079718 Z-0.125000
G01 X177.099078 Y138.893802 Z-0.125000
G01 X176.488332 Y142.421792 Z-0.125000
G01 X175.361945 Y145.662065 Z-0.125000
G01 X173.097962 Y150.162881 Z-0.125000
G01 X171.403581 Y153.012473 Z-0.125000
G01 X170.446510 Y154.332621 Z-0.125000
G01 X168.302753 Y156.723979 Z-0.125000
G01 X162.645814 Y161.820733 Z-0.125000
G01 X160.917201 Y163.959114 Z-0.125000
G01 X160.282534 Y165.141253 Z-0.125000
G01 X159.826685 Y166.423518 Z-0.125000
G01 X159.561536 Y167.820243 Z-0.125000
G01 X159.492058 Y169.341674 Z-0.125000
G01 X159.616645 Y170.993828 Z-0.125000
G01 X159.927048 Y172.778244 Z-0.125000
G01 X161.041112 Y176.728562 Z-0.125000
G01 X166.450854 Y190.744943 Z-0.125000
G01 X171.474293 Y205.481072 Z-0.125000
G01 X173.331161 Y209.998877 Z-0.125000
G01 X175.425405 Y213.993366 Z-0.125000
G01 X177.657725 Y217.376585 Z-0.125000
G01 X179.867579 Y220.152152 Z-0.125000
G01 X183.543805 Y224.269470 Z-0.125000
G01 X184.753177 Y225.942264 Z-0.125000
G01 X185.466788 Y227.631355 Z-0.125000
G01 X185.710096 Y229.548977 Z-0.125000
G00 Z3.000000

(End cutting path id: polyline814)


(Start cutting path id: polyline817)
(Change tool to Default tool)

G00 Z3.000000
G00 X172.678356 Y67.360330

G00 Z4.875000 (Fast pre-penetrate)
G01 Z-0.125000 F400.0(Penetrate)
G01 X175.207826 Y75.430958 Z-0.125000 F800.000000
G01 X176.033446 Y78.805640 Z-0.125000
G01 X176.440458 Y81.735157 Z-0.125000
G01 X176.402254 Y84.292806 Z-0.125000
G01 X176.223623 Y85.469214 Z-0.125000
G01 X175.589667 Y87.709800 Z-0.125000
G01 X171.287429 Y97.381159 Z-0.125000
G01 X170.307740 Y100.066454 Z-0.125000
G01 X169.762922 Y102.923061 Z-0.125000
G01 X169.780333 Y106.026036 Z-0.125000
G01 X170.004776 Y107.682213 Z-0.125000
G01 X170.840843 Y111.207583 Z-0.125000
G01 X172.081607 Y114.995887 Z-0.125000
G01 X175.053842 Y123.128504 Z-0.125000
G01 X176.934816 Y129.374923 Z-0.125000
G01 X177.695304 Y133.425688 Z-0.125000
G01 X177.880527 Y135.382666 Z-0.125000
G01 X177.820009 Y139.115235 Z-0.125000
G01 X177.183821 Y142.572581 Z-0.125000
G01 X176.044265 Y145.758371 Z-0.125000
G01 X173.776986 Y150.202607 Z-0.125000
G01 X172.081387 Y153.018322 Z-0.125000
G01 X170.081878 Y155.542483 Z-0.125000
G01 X167.810085 Y157.753419 Z-0.125000
G01 X163.268664 Y161.731240 Z-0.125000
G01 X161.513308 Y163.866629 Z-0.125000
G01 X160.864053 Y165.051168 Z-0.125000
G01 X160.393310 Y166.338318 Z-0.125000
G01 X160.112998 Y167.742144 Z-0.125000
G01 X160.028644 Y169.272703 Z-0.125000
G01 X160.138693 Y170.935592 Z-0.125000
G01 X160.903390 Y174.658881 Z-0.125000
G01 X162.271141 Y178.869935 Z-0.125000
G01 X166.889579 Y190.785869 Z-0.125000
G01 X171.912561 Y205.530044 Z-0.125000
G01 X173.787028 Y210.051383 Z-0.125000
G01 X175.918563 Y214.051873 Z-0.125000
G01 X178.208037 Y217.441499 Z-0.125000
G01 X180.491291 Y220.221477 Z-0.125000
G01 X184.336715 Y224.330833 Z-0.125000
G01 X185.626993 Y225.988110 Z-0.125000
G01 X186.409811 Y227.653416 Z-0.125000
G01 X186.705320 Y229.540033 Z-0.125000
G00 Z3.000000

(End cutting path id: polyline817)


(Start cutting path id: polyline820)
(Change tool to Default tool)

G00 Z3.000000
G00 X173.444743 Y66.954755

G00 Z4.875000 (Fast pre-penetrate)
G01 Z-0.125000 F400.0(Penetrate)
G01 X175.432809 Y73.158219 Z-0.125000 F800.000000
G01 X176.803451 Y78.443358 Z-0.125000
G01 X177.210733 Y81.437315 Z-0.125000
G01 X177.176417 Y84.079064 Z-0.125000
G01 X177.001674 Y85.302653 Z-0.125000
G01 X176.380329 Y87.642266 Z-0.125000
G01 X172.191927 Y97.649333 Z-0.125000
G01 X171.245607 Y100.405983 Z-0.125000
G01 X170.728512 Y103.333657 Z-0.125000
G01 X170.764181 Y106.501748 Z-0.125000
G01 X170.993323 Y108.185937 Z-0.125000
G01 X171.828326 Y111.753297 Z-0.125000
G01 X173.053841 Y115.559892 Z-0.125000
G01 X175.957545 Y123.646664 Z-0.125000
G01 X177.766827 Y129.794444 Z-0.125000
G01 X178.478832 Y133.761447 Z-0.125000
G01 X178.641623 Y135.674726 Z-0.125000
G01 X178.542731 Y139.322773 Z-0.125000
G01 X177.879885 Y142.706888 Z-0.125000
G01 X176.726602 Y145.836369 Z-0.125000
G01 X174.455824 Y150.222318 Z-0.125000
G01 X172.759076 Y153.003158 Z-0.125000
G01 X170.754512 Y155.494085 Z-0.125000
G01 X168.472238 Y157.675860 Z-0.125000
G01 X163.892360 Y161.617810 Z-0.125000
G01 X162.110716 Y163.750241 Z-0.125000
G01 X161.447278 Y164.937248 Z-0.125000
G01 X160.961812 Y166.229351 Z-0.125000
G01 X160.666658 Y167.640530 Z-0.125000
G01 X160.567428 Y169.180523 Z-0.125000
G01 X160.662939 Y170.854551 Z-0.125000
G01 X161.400841 Y174.603451 Z-0.125000
G01 X162.745856 Y178.841637 Z-0.125000
G01 X168.237687 Y193.291824 Z-0.125000
G01 X172.354549 Y205.559425 Z-0.125000
G01 X174.246275 Y210.084516 Z-0.125000
G01 X176.414408 Y214.091599 Z-0.125000
G01 X178.759955 Y217.488680 Z-0.125000
G01 X181.114834 Y220.274169 Z-0.125000
G01 X185.124453 Y224.378065 Z-0.125000
G01 X186.492508 Y226.020702 Z-0.125000
G01 X187.341237 Y227.662899 Z-0.125000
G01 X187.685770 Y229.518832 Z-0.125000
G00 Z3.000000

(End cutting path id: polyline820)


(Start cutting path id: polyline823)
(Change tool to Default tool)

G00 Z3.000000
G00 X174.231450 Y66.529401

G00 Z4.875000 (Fast pre-penetrate)
G01 Z-0.125000 F400.0(Penetrate)
G01 X176.222237 Y72.725394 Z-0.125000 F800.000000
G01 X177.589616 Y78.061077 Z-0.125000
G01 X177.995783 Y81.120691 Z-0.125000
G01 X177.964002 Y83.848401 Z-0.125000
G01 X177.792657 Y85.120202 Z-0.125000
G01 X177.183348 Y87.561175 Z-0.125000
G01 X173.110658 Y97.912419 Z-0.125000
G01 X172.198452 Y100.742182 Z-0.125000
G01 X171.709638 Y103.742647 Z-0.125000
G01 X171.763733 Y106.977139 Z-0.125000
G01 X171.997304 Y108.689727 Z-0.125000
G01 X172.830650 Y112.299485 Z-0.125000
G01 X174.039566 Y116.124032 Z-0.125000
G01 X176.870900 Y124.161696 Z-0.125000
G01 X178.605194 Y130.206832 Z-0.125000
G01 X179.266552 Y134.086962 Z-0.125000
G01 X179.406015 Y135.955022 Z-0.125000
G01 X179.267229 Y139.515806 Z-0.125000
G01 X178.576642 Y142.824426 Z-0.125000
G01 X177.409092 Y145.895958 Z-0.125000
G01 X175.134730 Y150.222014 Z-0.125000
G01 X173.436815 Y152.967067 Z-0.125000
G01 X171.427332 Y155.423830 Z-0.125000
G01 X169.134814 Y157.575667 Z-0.125000
G01 X164.517407 Y161.480900 Z-0.125000
G01 X162.710136 Y163.610254 Z-0.125000
G01 X162.032752 Y164.799763 Z-0.125000
G01 X161.533018 Y166.097056 Z-0.125000
G01 X161.223377 Y167.515741 Z-0.125000
G01 X161.109778 Y169.065352 Z-0.125000
G01 X161.191258 Y170.750791 Z-0.125000
G01 X161.902993 Y174.526045 Z-0.125000
G01 X163.225879 Y178.791988 Z-0.125000
G01 X168.684019 Y193.297132 Z-0.125000
G01 X172.802673 Y205.569094 Z-0.125000
G01 X174.711253 Y210.098293 Z-0.125000
G01 X176.915173 Y214.112561 Z-0.125000
G01 X179.315339 Y217.518111 Z-0.125000
G01 X181.739797 Y220.310311 Z-0.125000
G01 X185.907744 Y224.411350 Z-0.125000
G01 X187.350095 Y226.040514 Z-0.125000
G01 X188.261186 Y227.660397 Z-0.125000
G01 X188.651158 Y229.486136 Z-0.125000
G00 Z3.000000

(End cutting path id: polyline823)


(Start cutting path id: polyline826)
(Change tool to Default tool)

G00 Z3.000000
G00 X175.037917 Y66.085892

G00 Z4.875000 (Fast pre-penetrate)
G01 Z-0.125000 F400.0(Penetrate)
G01 X177.029330 Y72.273432 Z-0.125000 F800.000000
G01 X178.030454 Y75.959852 Z-0.125000
G01 X178.647236 Y79.266510 Z-0.125000
G01 X178.794644 Y80.785913 Z-0.125000
G01 X178.764215 Y83.600968 Z-0.125000
G01 X178.595846 Y84.921894 Z-0.125000
G01 X177.997845 Y87.466120 Z-0.125000
G01 X174.042355 Y98.168828 Z-0.125000
G01 X173.165040 Y101.073394 Z-0.125000
G01 X172.704981 Y104.148036 Z-0.125000
G01 X172.777502 Y107.450181 Z-0.125000
G01 X173.015400 Y109.191608 Z-0.125000
G01 X173.846295 Y112.844134 Z-0.125000
G01 X175.037546 Y116.686212 Z-0.125000
G01 X177.793148 Y124.671945 Z-0.125000
G01 X179.449342 Y130.610767 Z-0.125000
G01 X180.058246 Y134.401303 Z-0.125000
G01 X180.173366 Y136.222841 Z-0.125000
G01 X179.993298 Y139.693778 Z-0.125000
G01 X179.274058 Y142.924890 Z-0.125000
G01 X178.091750 Y145.936968 Z-0.125000
G01 X175.813670 Y150.201745 Z-0.125000
G01 X174.114605 Y152.910217 Z-0.125000
G01 X172.100422 Y155.332088 Z-0.125000
G01 X169.797982 Y157.453261 Z-0.125000
G01 X165.144196 Y161.320949 Z-0.125000
G01 X163.312059 Y163.447125 Z-0.125000
G01 X162.621201 Y164.639271 Z-0.125000
G01 X162.107606 Y165.941770 Z-0.125000
G01 X161.783917 Y167.368197 Z-0.125000
G01 X161.656456 Y168.927630 Z-0.125000
G01 X161.724412 Y170.624750 Z-0.125000
G01 X162.410824 Y174.426916 Z-0.125000
G01 X163.712190 Y178.721310 Z-0.125000
G01 X169.137722 Y193.282645 Z-0.125000
G01 X173.258134 Y205.559019 Z-0.125000
G01 X175.183128 Y210.092714 Z-0.125000
G01 X177.421922 Y214.114893 Z-0.125000
G01 X179.874966 Y217.529825 Z-0.125000
G01 X182.366569 Y220.330039 Z-0.125000
G01 X186.686235 Y224.431027 Z-0.125000
G01 X188.199028 Y226.047986 Z-0.125000
G01 X189.168422 Y227.646569 Z-0.125000
G01 X189.600182 Y229.442796 Z-0.125000
G00 Z3.000000

(End cutting path id: polyline826)


(Start cutting path id: polyline829)
(Change tool to Default tool)

G00 Z3.000000
G00 X175.863521 Y65.625969

G00 Z4.875000 (Fast pre-penetrate)
G01 Z-0.125000 F400.0(Penetrate)
G01 X177.853463 Y71.803704 Z-0.125000 F800.000000
G01 X178.849212 Y75.516800 Z-0.125000
G01 X179.460668 Y78.877688 Z-0.125000
G01 X179.606217 Y80.433689 Z-0.125000
G01 X179.575788 Y83.337087 Z-0.125000
G01 X179.154543 Y86.042601 Z-0.125000
G01 X178.426394 Y88.664809 Z-0.125000
G01 X174.525471 Y99.891762 Z-0.125000
G01 X173.866277 Y102.947353 Z-0.125000
G01 X173.690824 Y106.204717 Z-0.125000
G01 X174.045584 Y109.689465 Z-0.125000
G01 X174.873486 Y113.385048 Z-0.125000
G01 X178.722934 Y125.175651 Z-0.125000
G01 X180.298443 Y131.004932 Z-0.125000
G01 X180.853184 Y134.703574 Z-0.125000
G01 X180.943286 Y136.477340 Z-0.125000
G01 X180.720686 Y139.856316 Z-0.125000
G01 X179.971998 Y143.008077 Z-0.125000
G01 X178.774493 Y145.959417 Z-0.125000
G01 X176.492575 Y150.161766 Z-0.125000
G01 X174.792513 Y152.832895 Z-0.125000
G01 X172.773682 Y155.219149 Z-0.125000
G01 X170.461656 Y157.309098 Z-0.125000
G01 X165.772963 Y161.138463 Z-0.125000
G01 X163.916939 Y163.261428 Z-0.125000
G01 X163.213150 Y164.456211 Z-0.125000
G01 X162.686149 Y165.764069 Z-0.125000
G01 X162.349037 Y167.198323 Z-0.125000
G01 X162.208053 Y168.767864 Z-0.125000
G01 X162.262824 Y170.476835 Z-0.125000
G01 X162.924825 Y174.306521 Z-0.125000
G01 X164.205619 Y178.629890 Z-0.125000
G01 X169.599708 Y193.248481 Z-0.125000
G01 X173.721827 Y205.529453 Z-0.125000
G01 X175.662864 Y210.067881 Z-0.125000
G01 X177.935214 Y214.098699 Z-0.125000
G01 X180.439292 Y217.524061 Z-0.125000
G01 X182.995335 Y220.333572 Z-0.125000
G01 X189.038273 Y226.043608 Z-0.125000
G01 X190.061762 Y227.622058 Z-0.125000
G01 X190.531254 Y229.389527 Z-0.125000
G00 Z3.000000

(End cutting path id: polyline829)


(Start cutting path id: polyline832)
(Change tool to Default tool)

G00 Z3.000000
G00 X176.707483 Y65.151541

G00 Z4.875000 (Fast pre-penetrate)
G01 Z-0.125000 F400.0(Penetrate)
G01 X178.693740 Y71.317984 Z-0.125000 F800.000000
G01 X179.682389 Y75.057130 Z-0.125000
G01 X180.286694 Y78.472163 Z-0.125000
G01 X180.429707 Y80.064779 Z-0.125000
G01 X180.397758 Y83.057046 Z-0.125000
G01 X179.981989 Y85.865137 Z-0.125000
G01 X179.268006 Y88.593995 Z-0.125000
G01 X175.496421 Y100.169150 Z-0.125000
G01 X174.870562 Y103.302299 Z-0.125000
G01 X174.719604 Y106.633773 Z-0.125000
G01 X175.086146 Y110.181322 Z-0.125000
G01 X175.910634 Y113.920264 Z-0.125000
G01 X179.659179 Y125.671226 Z-0.125000
G01 X181.151753 Y131.388295 Z-0.125000
G01 X181.650963 Y134.992913 Z-0.125000
G01 X181.715539 Y136.717977 Z-0.125000
G01 X181.449325 Y140.003065 Z-0.125000
G01 X180.670412 Y143.073954 Z-0.125000
G01 X179.457372 Y145.963491 Z-0.125000
G01 X177.171515 Y150.102228 Z-0.125000
G01 X175.470472 Y152.735474 Z-0.125000
G01 X173.447262 Y155.085501 Z-0.125000
G01 X171.126125 Y157.143704 Z-0.125000
G01 X166.404130 Y160.934154 Z-0.125000
G01 X164.525251 Y163.053890 Z-0.125000
G01 X163.809088 Y164.251310 Z-0.125000
G01 X163.269374 Y165.564629 Z-0.125000
G01 X162.919348 Y167.006895 Z-0.125000
G01 X162.765685 Y168.586596 Z-0.125000
G01 X162.807947 Y170.307671 Z-0.125000
G01 X163.446687 Y174.165267 Z-0.125000
G01 X164.707753 Y178.518083 Z-0.125000
G01 X170.071921 Y193.194944 Z-0.125000
G01 X174.195730 Y205.480565 Z-0.125000
G01 X176.152167 Y210.024099 Z-0.125000
G01 X178.456890 Y214.064180 Z-0.125000
G01 X181.009772 Y217.501105 Z-0.125000
G01 X183.627212 Y220.321265 Z-0.125000
G01 X189.868069 Y226.028005 Z-0.125000
G01 X190.941123 Y227.587572 Z-0.125000
G01 X191.443984 Y229.327313 Z-0.125000
G00 Z3.000000

(End cutting path id: polyline832)


(Start cutting path id: polyline835)
(Change tool to Default tool)

G00 Z3.000000
G00 X177.568959 Y64.664469

G00 Z4.875000 (Fast pre-penetrate)
G01 Z-0.125000 F400.0(Penetrate)
G01 X179.549147 Y70.817794 Z-0.125000 F800.000000
G01 X180.528971 Y74.582178 Z-0.125000
G01 X181.124334 Y78.050833 Z-0.125000
G01 X181.297336 Y81.247358 Z-0.125000
G01 X181.065608 Y84.232473 Z-0.125000
G01 X180.496548 Y87.093780 Z-0.125000
G01 X176.897660 Y98.884062 Z-0.125000
G01 X176.128535 Y102.020525 Z-0.125000
G01 X175.756853 Y105.324901 Z-0.125000
G01 X175.757124 Y107.054258 Z-0.125000
G01 X176.135381 Y110.665267 Z-0.125000
G01 X176.956015 Y114.447755 Z-0.125000
G01 X180.600900 Y126.157048 Z-0.125000
G01 X181.624102 Y129.932217 Z-0.125000
G01 X182.288165 Y133.539692 Z-0.125000
G01 X182.451126 Y135.268610 Z-0.125000
G01 X182.398890 Y138.565464 Z-0.125000
G01 X181.832958 Y141.651382 Z-0.125000
G01 X180.799462 Y144.552803 Z-0.125000
G01 X178.640000 Y148.675310 Z-0.125000
G01 X176.148364 Y152.618427 Z-0.125000
G01 X175.178919 Y153.814545 Z-0.125000
G01 X172.985209 Y155.975207 Z-0.125000
G01 X167.037748 Y160.708867 Z-0.125000
G01 X165.137316 Y162.825204 Z-0.125000
G01 X164.409471 Y164.025448 Z-0.125000
G01 X163.857722 Y165.344210 Z-0.125000
G01 X163.495490 Y166.794574 Z-0.125000
G01 X163.329656 Y168.384654 Z-0.125000
G01 X163.360085 Y170.117950 Z-0.125000
G01 X163.976866 Y174.003895 Z-0.125000
G01 X165.219286 Y178.386497 Z-0.125000
G01 X170.555105 Y193.122339 Z-0.125000
G01 X174.680520 Y205.412896 Z-0.125000
G01 X176.651715 Y209.961788 Z-0.125000
G01 X178.987441 Y214.011843 Z-0.125000
G01 X181.586726 Y217.461311 Z-0.125000
G01 X184.262420 Y220.293542 Z-0.125000
G01 X190.687503 Y226.001836 Z-0.125000
G01 X191.805151 Y227.543925 Z-0.125000
G01 X192.336986 Y229.257091 Z-0.125000
G00 Z3.000000

(End cutting path id: polyline835)


(Start cutting path id: polyline838)
(Change tool to Default tool)

G00 Z3.000000
G00 X178.447119 Y64.166713

G00 Z4.875000 (Fast pre-penetrate)
G01 Z-0.125000 F400.0(Penetrate)
G01 X180.418770 Y70.305010 Z-0.125000 F800.000000
G01 X181.387860 Y74.093500 Z-0.125000
G01 X181.972404 Y77.614931 Z-0.125000
G01 X182.137900 Y80.889775 Z-0.125000
G01 X181.905090 Y83.972024 Z-0.125000
G01 X181.343722 Y86.939999 Z-0.125000
G01 X177.864079 Y99.099917 Z-0.125000
G01 X177.131856 Y102.315544 Z-0.125000
G01 X176.790181 Y105.698222 Z-0.125000
G01 X176.802014 Y107.464398 Z-0.125000
G01 X177.191902 Y111.139322 Z-0.125000
G01 X178.008394 Y114.965560 Z-0.125000
G01 X181.547389 Y126.631594 Z-0.125000
G01 X182.513892 Y130.334479 Z-0.125000
G01 X183.119043 Y133.850585 Z-0.125000
G01 X183.253604 Y135.529905 Z-0.125000
G01 X183.150655 Y138.727139 Z-0.125000
G01 X182.546129 Y141.722093 Z-0.125000
G01 X181.489000 Y144.549861 Z-0.125000
G01 X179.319447 Y148.597718 Z-0.125000
G01 X176.826779 Y152.482412 Z-0.125000
G01 X174.795691 Y154.758735 Z-0.125000
G01 X172.457819 Y156.752244 Z-0.125000
G01 X167.674696 Y160.463361 Z-0.125000
G01 X165.754046 Y162.576436 Z-0.125000
G01 X165.015248 Y163.779368 Z-0.125000
G01 X164.452189 Y165.103759 Z-0.125000
G01 X164.078581 Y166.562254 Z-0.125000
G01 X163.901370 Y168.162798 Z-0.125000
G01 X163.920810 Y169.908485 Z-0.125000
G01 X164.516985 Y173.823016 Z-0.125000
G01 X165.741993 Y178.235810 Z-0.125000
G01 X171.051289 Y193.031290 Z-0.125000
G01 X175.178226 Y205.326665 Z-0.125000
G01 X177.163553 Y209.881322 Z-0.125000
G01 X179.528574 Y213.941976 Z-0.125000
G01 X182.171845 Y217.405120 Z-0.125000
G01 X184.902140 Y220.250773 Z-0.125000
G01 X191.497047 Y225.965694 Z-0.125000
G01 X192.654269 Y227.491943 Z-0.125000
G01 X193.210362 Y229.179759 Z-0.125000
G00 Z3.000000

(End cutting path id: polyline838)


(Start cutting path id: polyline841)
(Change tool to Default tool)

G00 Z3.000000
G00 X179.340899 Y63.660268

G00 Z4.875000 (Fast pre-penetrate)
G01 Z-0.125000 F400.0(Penetrate)
G01 X181.301494 Y69.781306 Z-0.125000 F800.000000
G01 X182.257940 Y73.592566 Z-0.125000
G01 X182.829805 Y77.165691 Z-0.125000
G01 X182.986004 Y80.518009 Z-0.125000
G01 X182.750692 Y83.696783 Z-0.125000
G01 X182.195951 Y86.771341 Z-0.125000
G01 X178.450973 Y100.933711 Z-0.125000
G01 X177.927235 Y104.304623 Z-0.125000
G01 X177.850826 Y107.862552 Z-0.125000
G01 X178.252260 Y111.601663 Z-0.125000
G01 X179.064272 Y115.471785 Z-0.125000
G01 X182.495838 Y127.093495 Z-0.125000
G01 X183.404917 Y130.723200 Z-0.125000
G01 X183.950479 Y134.147041 Z-0.125000
G01 X184.056471 Y135.776289 Z-0.125000
G01 X183.902301 Y138.872992 Z-0.125000
G01 X183.258777 Y141.776121 Z-0.125000
G01 X182.177829 Y144.529643 Z-0.125000
G01 X179.997930 Y148.502275 Z-0.125000
G01 X177.504451 Y152.328056 Z-0.125000
G01 X175.469695 Y154.567088 Z-0.125000
G01 X173.124367 Y156.527852 Z-0.125000
G01 X168.313876 Y160.198855 Z-0.125000
G01 X166.374479 Y162.308482 Z-0.125000
G01 X165.625521 Y163.514219 Z-0.125000
G01 X165.052032 Y164.844222 Z-0.125000
G01 X164.667875 Y166.310933 Z-0.125000
G01 X164.480166 Y167.922043 Z-0.125000
G01 X164.488619 Y169.680206 Z-0.125000
G01 X165.065691 Y173.623491 Z-0.125000
G01 X166.274522 Y178.066645 Z-0.125000
G01 X171.559204 Y192.922154 Z-0.125000
G01 X175.687663 Y205.222584 Z-0.125000
G01 X177.686412 Y209.783242 Z-0.125000
G01 X180.079106 Y213.855306 Z-0.125000
G01 X182.763523 Y217.333157 Z-0.125000
G01 X185.544684 Y220.193669 Z-0.125000
G01 X192.294167 Y225.920525 Z-0.125000
G01 X193.485603 Y227.432557 Z-0.125000
G01 X194.061053 Y229.096343 Z-0.125000
G00 Z3.000000

(End cutting path id: polyline841)


(Start cutting path id: polyline844)
(Change tool to Default tool)

G00 Z3.000000
G00 X180.249251 Y63.147214

G00 Z4.875000 (Fast pre-penetrate)
G01 Z-0.125000 F400.0(Penetrate)
G01 X182.196170 Y69.248659 Z-0.125000 F800.000000
G01 X183.138061 Y73.081016 Z-0.125000
G01 X183.695270 Y76.704382 Z-0.125000
G01 X183.840481 Y80.132905 Z-0.125000
G01 X183.601112 Y83.407258 Z-0.125000
G01 X183.051814 Y86.587774 Z-0.125000
G01 X179.443882 Y101.161686 Z-0.125000
G01 X178.954578 Y104.612794 Z-0.125000
G01 X178.903019 Y108.246979 Z-0.125000
G01 X179.315981 Y112.050548 Z-0.125000
G01 X180.123480 Y115.964588 Z-0.125000
G01 X183.446536 Y127.541247 Z-0.125000
G01 X184.297818 Y131.097299 Z-0.125000
G01 X184.783335 Y134.428283 Z-0.125000
G01 X184.860420 Y136.007223 Z-0.125000
G01 X184.654674 Y139.002752 Z-0.125000
G01 X183.971830 Y141.813649 Z-0.125000
G01 X182.866945 Y144.492470 Z-0.125000
G01 X180.676683 Y148.389555 Z-0.125000
G01 X178.182359 Y152.156221 Z-0.125000
G01 X176.144340 Y154.357758 Z-0.125000
G01 X173.792150 Y156.285660 Z-0.125000
G01 X168.956606 Y159.916312 Z-0.125000
G01 X167.000135 Y162.022540 Z-0.125000
G01 X166.241879 Y163.231101 Z-0.125000
G01 X165.658873 Y164.566683 Z-0.125000
G01 X165.264996 Y166.041676 Z-0.125000
G01 X165.067720 Y167.663385 Z-0.125000
G01 X165.067483 Y169.434075 Z-0.125000
G01 X165.627110 Y173.406301 Z-0.125000
G01 X166.155869 Y175.588025 Z-0.125000
G01 X167.595583 Y180.263009 Z-0.125000
G01 X172.083331 Y192.795792 Z-0.125000
G01 X176.213311 Y205.101327 Z-0.125000
G01 X178.224536 Y209.668291 Z-0.125000
G01 X180.643128 Y213.752340 Z-0.125000
G01 X183.365867 Y217.245997 Z-0.125000
G01 X186.193905 Y220.122771 Z-0.125000
G01 X193.081955 Y225.866988 Z-0.125000
G01 X194.302095 Y227.366528 Z-0.125000
G01 X194.892100 Y229.007919 Z-0.125000
G00 Z3.000000

(End cutting path id: polyline844)


(Start cutting path id: polyline718)
(Change tool to Default tool)

G00 Z3.000000
G00 X156.783096 Y66.718277

G00 Z4.875000 (Fast pre-penetrate)
G01 Z-0.125000 F400.0(Penetrate)
G01 X158.964060 Y75.963166 Z-0.125000 F800.000000
G01 X159.643186 Y79.526317 Z-0.125000
G01 X159.896653 Y82.327595 Z-0.125000
G01 X159.679463 Y84.454938 Z-0.125000
G01 X159.396564 Y85.318476 Z-0.125000
G01 X158.516798 Y86.786454 Z-0.125000
G01 X154.304206 Y91.146641 Z-0.125000
G01 X151.311263 Y94.696471 Z-0.125000
G01 X150.276465 Y96.537061 Z-0.125000
G01 X149.951356 Y97.510732 Z-0.125000
G01 X149.718816 Y99.638920 Z-0.125000
G01 X149.807396 Y100.821989 Z-0.125000
G01 X150.348276 Y103.484159 Z-0.125000
G01 X153.580131 Y114.091373 Z-0.125000
G01 X154.988098 Y120.528239 Z-0.125000
G01 X155.454902 Y124.936012 Z-0.125000
G01 X155.500544 Y127.111346 Z-0.125000
G01 X155.177937 Y131.307913 Z-0.125000
G01 X154.808977 Y133.299326 Z-0.125000
G01 X153.698599 Y137.034110 Z-0.125000
G01 X152.229944 Y140.485268 Z-0.125000
G01 X150.628774 Y143.812837 Z-0.125000
G01 X148.839168 Y146.918500 Z-0.125000
G01 X147.852176 Y148.339416 Z-0.125000
G01 X145.760046 Y150.909456 Z-0.125000
G01 X142.729085 Y154.265628 Z-0.125000
G01 X141.140881 Y156.398143 Z-0.125000
G01 X140.560969 Y157.499951 Z-0.125000
G01 X140.151979 Y158.654079 Z-0.125000
G01 X139.928027 Y159.879679 Z-0.125000
G01 X139.896753 Y161.193251 Z-0.125000
G01 X140.409723 Y164.134483 Z-0.125000
G01 X141.619856 Y167.541858 Z-0.125000
G01 X146.462111 Y177.993161 Z-0.125000
G01 X149.440279 Y185.157990 Z-0.125000
G01 X155.629036 Y203.930480 Z-0.125000
G01 X157.185071 Y209.224477 Z-0.125000
G01 X157.708015 Y212.047714 Z-0.125000
G01 X157.788142 Y213.281463 Z-0.125000
G01 X157.574401 Y215.486938 Z-0.125000
G01 X157.287394 Y216.503835 Z-0.125000
G01 X156.399430 Y218.489567 Z-0.125000
G01 X153.836101 Y222.968154 Z-0.125000
G00 Z3.000000

(End cutting path id: polyline718)


(Start cutting path id: polyline715)
(Change tool to Default tool)

G00 Z3.000000
G00 X156.424871 Y66.421787

G00 Z4.875000 (Fast pre-penetrate)
G01 Z-0.125000 F400.0(Penetrate)
G01 X158.582185 Y75.719232 Z-0.125000 F800.000000
G01 X159.250627 Y79.315889 Z-0.125000
G01 X159.495372 Y82.152582 Z-0.125000
G01 X159.271775 Y84.314731 Z-0.125000
G01 X158.986695 Y85.194632 Z-0.125000
G01 X158.104326 Y86.691586 Z-0.125000
G01 X153.895706 Y91.099815 Z-0.125000
G01 X150.907480 Y94.660245 Z-0.125000
G01 X149.870079 Y96.499229 Z-0.125000
G01 X149.541571 Y97.469181 Z-0.125000
G01 X149.297537 Y99.583591 Z-0.125000
G01 X149.378003 Y100.756585 Z-0.125000
G01 X149.898258 Y103.392739 Z-0.125000
G01 X153.046132 Y113.893149 Z-0.125000
G01 X154.411956 Y120.277273 Z-0.125000
G01 X154.855330 Y124.656511 Z-0.125000
G01 X154.891336 Y126.820350 Z-0.125000
G01 X154.553954 Y131.000199 Z-0.125000
G01 X154.179957 Y132.986506 Z-0.125000
G01 X153.063932 Y136.716810 Z-0.125000
G01 X151.593942 Y140.169355 Z-0.125000
G01 X149.992806 Y143.500119 Z-0.125000
G01 X148.203741 Y146.608841 Z-0.125000
G01 X147.217206 Y148.031211 Z-0.125000
G01 X145.126276 Y150.603889 Z-0.125000
G01 X142.097242 Y153.962782 Z-0.125000
G01 X140.509528 Y156.096058 Z-0.125000
G01 X139.929464 Y157.197866 Z-0.125000
G01 X139.520000 Y158.351774 Z-0.125000
G01 X139.295203 Y159.576918 Z-0.125000
G01 X139.262746 Y160.889881 Z-0.125000
G01 X139.772133 Y163.829270 Z-0.125000
G01 X140.977211 Y167.234330 Z-0.125000
G01 X145.802815 Y177.680071 Z-0.125000
G01 X148.770485 Y184.843209 Z-0.125000
G01 X154.923945 Y203.618506 Z-0.125000
G01 X156.449214 Y208.919163 Z-0.125000
G01 X156.945414 Y211.748621 Z-0.125000
G01 X157.010835 Y212.985818 Z-0.125000
G01 X156.766057 Y215.198444 Z-0.125000
G01 X156.463295 Y216.218840 Z-0.125000
G01 X155.544513 Y218.211199 Z-0.125000
G01 X152.928712 Y222.699472 Z-0.125000
G00 Z3.000000

(End cutting path id: polyline715)


(Start cutting path id: polyline712)
(Change tool to Default tool)

G00 Z3.000000
G00 X156.065057 Y66.111554

G00 Z4.875000 (Fast pre-penetrate)
G01 Z-0.125000 F400.0(Penetrate)
G01 X158.191097 Y75.454844 Z-0.125000 F800.000000
G01 X158.845525 Y79.083028 Z-0.125000
G01 X159.078876 Y81.954274 Z-0.125000
G01 X158.846962 Y84.151331 Z-0.125000
G01 X158.558975 Y85.047968 Z-0.125000
G01 X157.673326 Y86.575485 Z-0.125000
G01 X153.470268 Y91.038231 Z-0.125000
G01 X150.489057 Y94.613588 Z-0.125000
G01 X149.450811 Y96.453079 Z-0.125000
G01 X149.119971 Y97.420293 Z-0.125000
G01 X148.866993 Y99.522752 Z-0.125000
G01 X148.940697 Y100.686464 Z-0.125000
G01 X149.443474 Y103.298005 Z-0.125000
G01 X152.517187 Y113.694115 Z-0.125000
G01 X153.844756 Y120.026003 Z-0.125000
G01 X154.266627 Y124.376926 Z-0.125000
G01 X154.293674 Y126.529405 Z-0.125000
G01 X153.942566 Y130.692975 Z-0.125000
G01 X153.563869 Y132.674447 Z-0.125000
G01 X152.442519 Y136.401168 Z-0.125000
G01 X149.370193 Y143.191052 Z-0.125000
G01 X147.581754 Y146.303899 Z-0.125000
G01 X146.595877 Y147.728230 Z-0.125000
G01 X144.506688 Y150.304390 Z-0.125000
G01 X141.480309 Y153.667002 Z-0.125000
G01 X139.893406 Y155.801225 Z-0.125000
G01 X139.313240 Y156.903067 Z-0.125000
G01 X138.903236 Y158.056704 Z-0.125000
G01 X138.677374 Y159.281240 Z-0.125000
G01 X138.643396 Y160.593290 Z-0.125000
G01 X139.148082 Y163.530194 Z-0.125000
G01 X140.346585 Y166.932194 Z-0.125000
G01 X145.150061 Y177.370480 Z-0.125000
G01 X148.103734 Y184.531319 Z-0.125000
G01 X154.214020 Y203.310470 Z-0.125000
G01 X155.707626 Y208.619952 Z-0.125000
G01 X156.177658 Y211.457592 Z-0.125000
G01 X156.228879 Y212.699285 Z-0.125000
G01 X155.955058 Y214.921412 Z-0.125000
G01 X155.637759 Y215.946456 Z-0.125000
G01 X154.691169 Y217.947572 Z-0.125000
G01 X152.029523 Y222.448608 Z-0.125000
G00 Z3.000000

(End cutting path id: polyline712)


(Start cutting path id: polyline709)
(Change tool to Default tool)

G00 Z3.000000
G00 X155.702588 Y65.786715

G00 Z4.875000 (Fast pre-penetrate)
G01 Z-0.125000 F400.0(Penetrate)
G01 X157.789174 Y75.168463 Z-0.125000 F800.000000
G01 X158.426173 Y78.825858 Z-0.125000
G01 X158.645155 Y81.730593 Z-0.125000
G01 X158.402912 Y83.962760 Z-0.125000
G01 X158.111291 Y84.876674 Z-0.125000
G01 X157.221771 Y86.436343 Z-0.125000
G01 X153.026049 Y90.960859 Z-0.125000
G01 X150.054440 Y94.555893 Z-0.125000
G01 X149.017275 Y96.398156 Z-0.125000
G01 X148.685269 Y97.363798 Z-0.125000
G01 X148.426121 Y99.456384 Z-0.125000
G01 X148.494754 Y100.611729 Z-0.125000
G01 X148.983534 Y103.200280 Z-0.125000
G01 X151.993770 Y113.494725 Z-0.125000
G01 X153.287276 Y119.774851 Z-0.125000
G01 X153.689673 Y124.097746 Z-0.125000
G01 X153.708437 Y126.239086 Z-0.125000
G01 X153.344684 Y130.386815 Z-0.125000
G01 X152.961676 Y132.363775 Z-0.125000
G01 X151.835424 Y136.087824 Z-0.125000
G01 X148.761982 Y142.886550 Z-0.125000
G01 X146.974422 Y146.004722 Z-0.125000
G01 X145.989357 Y147.431554 Z-0.125000
G01 X143.902450 Y150.012245 Z-0.125000
G01 X140.879604 Y153.379489 Z-0.125000
G01 X139.293952 Y155.515013 Z-0.125000
G01 X138.713668 Y156.616906 Z-0.125000
G01 X138.303021 Y157.770137 Z-0.125000
G01 X138.075993 Y158.993912 Z-0.125000
G01 X138.039986 Y160.304847 Z-0.125000
G01 X138.196184 Y161.716381 Z-0.125000
G01 X139.055800 Y164.877812 Z-0.125000
G01 X140.535037 Y168.513822 Z-0.125000
G01 X145.529282 Y179.405050 Z-0.125000
G01 X147.440177 Y184.223284 Z-0.125000
G01 X153.498685 Y203.007236 Z-0.125000
G01 X154.959648 Y208.327925 Z-0.125000
G01 X155.404002 Y211.175944 Z-0.125000
G01 X155.441868 Y212.423335 Z-0.125000
G01 X155.141034 Y214.657345 Z-0.125000
G01 X154.372264 Y216.694383 Z-0.125000
G01 X151.139462 Y222.217505 Z-0.125000
G00 Z3.000000

(End cutting path id: polyline709)


(Start cutting path id: polyline706)
(Change tool to Default tool)

G00 Z3.000000
G00 X155.336265 Y65.446560

G00 Z4.875000 (Fast pre-penetrate)
G01 Z-0.125000 F400.0(Penetrate)
G01 X157.374876 Y74.858720 Z-0.125000 F800.000000
G01 X157.990676 Y78.542909 Z-0.125000
G01 X158.192348 Y81.479982 Z-0.125000
G01 X157.937765 Y83.747497 Z-0.125000
G01 X157.641884 Y84.679194 Z-0.125000
G01 X156.747715 Y86.272808 Z-0.125000
G01 X152.561477 Y90.866920 Z-0.125000
G01 X149.602259 Y94.486787 Z-0.125000
G01 X148.568171 Y96.334375 Z-0.125000
G01 X148.236300 Y97.299611 Z-0.125000
G01 X147.974025 Y99.384506 Z-0.125000
G01 X148.039277 Y100.532514 Z-0.125000
G01 X148.517812 Y103.099782 Z-0.125000
G01 X151.475897 Y113.295555 Z-0.125000
G01 X152.739787 Y119.524477 Z-0.125000
G01 X153.124890 Y123.819632 Z-0.125000
G01 X153.136723 Y125.949966 Z-0.125000
G01 X152.761509 Y130.082448 Z-0.125000
G01 X152.374478 Y132.055249 Z-0.125000
G01 X151.243662 Y135.777506 Z-0.125000
G01 X148.169239 Y142.587643 Z-0.125000
G01 X146.382761 Y145.712390 Z-0.125000
G01 X145.398761 Y147.142351 Z-0.125000
G01 X143.314762 Y149.728585 Z-0.125000
G01 X140.296564 Y153.101645 Z-0.125000
G01 X138.712569 Y155.238792 Z-0.125000
G01 X138.132319 Y156.340667 Z-0.125000
G01 X137.721013 Y157.493460 Z-0.125000
G01 X137.492513 Y158.716254 Z-0.125000
G01 X137.454309 Y160.025803 Z-0.125000
G01 X137.607465 Y161.435545 Z-0.125000
G01 X138.458527 Y164.592445 Z-0.125000
G01 X139.926269 Y168.223317 Z-0.125000
G01 X144.884675 Y179.103776 Z-0.125000
G01 X146.780966 Y183.919998 Z-0.125000
G01 X148.437955 Y188.828215 Z-0.125000
G01 X152.778278 Y202.709833 Z-0.125000
G01 X154.205466 Y208.044215 Z-0.125000
G01 X154.624920 Y210.904862 Z-0.125000
G01 X154.650108 Y212.159302 Z-0.125000
G01 X154.324627 Y214.407850 Z-0.125000
G01 X153.533322 Y216.459021 Z-0.125000
G01 X150.260085 Y222.008006 Z-0.125000
G00 Z3.000000

(End cutting path id: polyline706)


(Start cutting path id: polyline703)
(Change tool to Default tool)

G00 Z3.000000
G00 X154.964854 Y65.090668

G00 Z4.875000 (Fast pre-penetrate)
G01 Z-0.125000 F400.0(Penetrate)
G01 X156.946699 Y74.524753 Z-0.125000 F800.000000
G01 X157.537447 Y78.233098 Z-0.125000
G01 X157.718867 Y81.201343 Z-0.125000
G01 X157.449746 Y83.504358 Z-0.125000
G01 X157.148996 Y84.454498 Z-0.125000
G01 X156.249587 Y86.083983 Z-0.125000
G01 X152.075199 Y90.756043 Z-0.125000
G01 X149.131381 Y94.406236 Z-0.125000
G01 X148.102517 Y96.261770 Z-0.125000
G01 X147.772133 Y97.227918 Z-0.125000
G01 X147.509808 Y99.307488 Z-0.125000
G01 X147.573538 Y100.449225 Z-0.125000
G01 X148.045683 Y102.997036 Z-0.125000
G01 X150.963603 Y113.097281 Z-0.125000
G01 X152.202440 Y119.275608 Z-0.125000
G01 X152.572515 Y123.543360 Z-0.125000
G01 X152.577587 Y125.662859 Z-0.125000
G01 X152.192145 Y129.780633 Z-0.125000
G01 X151.801547 Y131.749681 Z-0.125000
G01 X150.666556 Y135.471178 Z-0.125000
G01 X147.591237 Y142.295362 Z-0.125000
G01 X145.806094 Y145.428021 Z-0.125000
G01 X144.823413 Y146.861734 Z-0.125000
G01 X142.742947 Y149.454731 Z-0.125000
G01 X139.730632 Y152.834772 Z-0.125000
G01 X138.148885 Y154.973778 Z-0.125000
G01 X137.568770 Y156.075755 Z-0.125000
G01 X137.156839 Y157.227922 Z-0.125000
G01 X136.926767 Y158.449635 Z-0.125000
G01 X136.886027 Y159.757442 Z-0.125000
G01 X137.035633 Y161.165037 Z-0.125000
G01 X137.876620 Y164.316478 Z-0.125000
G01 X139.330787 Y167.941145 Z-0.125000
G01 X144.246425 Y178.808622 Z-0.125000
G01 X146.125135 Y183.622393 Z-0.125000
G01 X151.424981 Y200.349782 Z-0.125000
G01 X152.606257 Y204.347821 Z-0.125000
G01 X153.443508 Y207.769904 Z-0.125000
G01 X153.838670 Y210.645664 Z-0.125000
G01 X153.852194 Y211.908437 Z-0.125000
G01 X153.504534 Y214.174245 Z-0.125000
G01 X152.694093 Y216.242185 Z-0.125000
G01 X149.390968 Y221.821717 Z-0.125000
G00 Z3.000000

(End cutting path id: polyline703)


(Start cutting path id: polyline700)
(Change tool to Default tool)

G00 Z3.000000
G00 X154.586918 Y64.719037

G00 Z4.875000 (Fast pre-penetrate)
G01 Z-0.125000 F400.0(Penetrate)
G01 X156.502970 Y74.166004 Z-0.125000 F800.000000
G01 X157.064879 Y77.895716 Z-0.125000
G01 X157.222937 Y80.893849 Z-0.125000
G01 X156.937317 Y83.232651 Z-0.125000
G01 X156.631073 Y84.201741 Z-0.125000
G01 X155.725900 Y85.869109 Z-0.125000
G01 X151.565948 Y90.627957 Z-0.125000
G01 X148.640675 Y94.314326 Z-0.125000
G01 X147.619349 Y96.180594 Z-0.125000
G01 X147.291772 Y97.148974 Z-0.125000
G01 X147.032760 Y99.225721 Z-0.125000
G01 X147.096828 Y100.362319 Z-0.125000
G01 X147.566590 Y102.892599 Z-0.125000
G01 X150.456567 Y112.900613 Z-0.125000
G01 X151.675186 Y119.028953 Z-0.125000
G01 X152.032515 Y123.269624 Z-0.125000
G01 X152.032059 Y125.378540 Z-0.125000
G01 X151.637573 Y129.482166 Z-0.125000
G01 X151.243797 Y131.447866 Z-0.125000
G01 X150.105019 Y135.169668 Z-0.125000
G01 X147.028939 Y142.010723 Z-0.125000
G01 X145.245403 Y145.152730 Z-0.125000
G01 X144.264276 Y146.590872 Z-0.125000
G01 X142.188206 Y149.191814 Z-0.125000
G01 X139.183058 Y152.580138 Z-0.125000
G01 X137.604253 Y154.721393 Z-0.125000
G01 X137.024493 Y155.823404 Z-0.125000
G01 X136.611885 Y156.974894 Z-0.125000
G01 X136.380123 Y158.195220 Z-0.125000
G01 X136.336509 Y159.501016 Z-0.125000
G01 X136.482058 Y160.906076 Z-0.125000
G01 X137.311465 Y164.051160 Z-0.125000
G01 X138.749878 Y167.668491 Z-0.125000
G01 X143.615478 Y178.520585 Z-0.125000
G01 X145.473564 Y183.331482 Z-0.125000
G01 X150.703053 Y200.063131 Z-0.125000
G01 X151.860984 Y204.070298 Z-0.125000
G01 X152.674028 Y207.506209 Z-0.125000
G01 X153.045574 Y210.399482 Z-0.125000
G01 X153.047264 Y211.671959 Z-0.125000
G01 X152.679910 Y213.957850 Z-0.125000
G01 X151.853952 Y216.045213 Z-0.125000
G01 X148.532130 Y221.659991 Z-0.125000
G00 Z3.000000

(End cutting path id: polyline700)


(Start cutting path id: polyline697)
(Change tool to Default tool)

G00 Z3.000000
G00 X154.201020 Y64.331753

G00 Z4.875000 (Fast pre-penetrate)
G01 Z-0.125000 F400.0(Penetrate)
G01 X156.042286 Y73.782151 Z-0.125000 F800.000000
G01 X156.571586 Y77.530442 Z-0.125000
G01 X156.703442 Y80.557143 Z-0.125000
G01 X156.399379 Y82.931867 Z-0.125000
G01 X156.087016 Y83.920583 Z-0.125000
G01 X155.175655 Y85.627948 Z-0.125000
G01 X150.270701 Y91.410268 Z-0.125000
G01 X148.129547 Y94.211276 Z-0.125000
G01 X147.118094 Y96.091270 Z-0.125000
G01 X146.794760 Y97.063285 Z-0.125000
G01 X146.542408 Y99.139812 Z-0.125000
G01 X146.608674 Y100.272420 Z-0.125000
G01 X147.080279 Y102.787233 Z-0.125000
G01 X149.954720 Y112.706463 Z-0.125000
G01 X151.158006 Y118.785459 Z-0.125000
G01 X151.504956 Y122.999387 Z-0.125000
G01 X151.499885 Y125.097958 Z-0.125000
G01 X151.097657 Y129.188043 Z-0.125000
G01 X150.700973 Y131.150836 Z-0.125000
G01 X149.558831 Y134.874023 Z-0.125000
G01 X146.482126 Y141.734840 Z-0.125000
G01 X144.700533 Y144.887632 Z-0.125000
G01 X143.721284 Y146.330913 Z-0.125000
G01 X141.650386 Y148.941085 Z-0.125000
G01 X138.653910 Y152.338977 Z-0.125000
G01 X137.078824 Y154.482852 Z-0.125000
G01 X136.499605 Y155.584880 Z-0.125000
G01 X136.086473 Y156.735610 Z-0.125000
G01 X135.852903 Y157.954364 Z-0.125000
G01 X135.806246 Y159.257894 Z-0.125000
G01 X135.947230 Y160.659945 Z-0.125000
G01 X136.763638 Y163.797608 Z-0.125000
G01 X138.184114 Y167.406469 Z-0.125000
G01 X142.992324 Y178.240780 Z-0.125000
G01 X144.826523 Y183.048414 Z-0.125000
G01 X146.424296 Y187.953943 Z-0.125000
G01 X149.975648 Y199.784881 Z-0.125000
G01 X151.108577 Y203.802428 Z-0.125000
G01 X151.896805 Y207.254162 Z-0.125000
G01 X152.245530 Y210.167483 Z-0.125000
G01 X152.237078 Y211.451016 Z-0.125000
G01 X151.852735 Y213.759812 Z-0.125000
G01 X151.014959 Y215.869253 Z-0.125000
G01 X147.686038 Y221.523977 Z-0.125000
G00 Z3.000000

(End cutting path id: polyline697)


(Start cutting path id: polyline694)
(Change tool to Default tool)

G00 Z3.000000
G00 X153.805638 Y63.929068

G00 Z4.875000 (Fast pre-penetrate)
G01 Z-0.125000 F400.0(Penetrate)
G01 X155.563125 Y73.373212 Z-0.125000 F800.000000
G01 X156.056063 Y77.137106 Z-0.125000
G01 X156.158843 Y80.191057 Z-0.125000
G01 X155.834579 Y82.601957 Z-0.125000
G01 X155.515539 Y83.610993 Z-0.125000
G01 X154.597737 Y85.360483 Z-0.125000
G01 X149.719391 Y91.261102 Z-0.125000
G01 X147.597204 Y94.097677 Z-0.125000
G01 X146.597923 Y95.994407 Z-0.125000
G01 X146.280319 Y96.971408 Z-0.125000
G01 X146.038076 Y99.050437 Z-0.125000
G01 X146.108399 Y100.180239 Z-0.125000
G01 X146.585904 Y102.681680 Z-0.125000
G01 X149.457572 Y112.515610 Z-0.125000
G01 X150.650310 Y118.545938 Z-0.125000
G01 X150.989163 Y122.733528 Z-0.125000
G01 X150.980711 Y124.821906 Z-0.125000
G01 X150.572008 Y128.899109 Z-0.125000
G01 X150.172908 Y130.859400 Z-0.125000
G01 X149.027773 Y134.585225 Z-0.125000
G01 X145.950527 Y141.468812 Z-0.125000
G01 X144.171115 Y144.633945 Z-0.125000
G01 X143.194046 Y146.083091 Z-0.125000
G01 X141.129200 Y148.703710 Z-0.125000
G01 X138.143070 Y152.112523 Z-0.125000
G01 X136.572531 Y154.259407 Z-0.125000
G01 X135.994208 Y155.361519 Z-0.125000
G01 X135.580671 Y156.511353 Z-0.125000
G01 X135.345274 Y157.728282 Z-0.125000
G01 X135.295237 Y159.029158 Z-0.125000
G01 X135.431488 Y160.427845 Z-0.125000
G01 X136.233391 Y163.557072 Z-0.125000
G01 X137.633836 Y167.156281 Z-0.125000
G01 X142.377098 Y177.970272 Z-0.125000
G01 X144.184149 Y182.774052 Z-0.125000
