%
(Header)
(Generated by gcodetools from Inkscape.)
(Using default header. To add your own header create file "header" in the output dir.)
M3
(Header end.)
G21 (All units in mm)

(Start cutting path id: polyline517)
(Change tool to Default tool)

G00 Z5.000000
G00 X146.415702 Y39.009870

G00 Z4.875000 (Fast pre-penetrate)
G01 Z-0.125000 F100.0(Penetrate)
G01 X128.774350 Y41.258095 Z-0.125000 F800.000000
G01 X116.440613 Y41.051780 Z-0.125000
G01 X101.202092 Y45.095504 Z-0.125000
G01 X87.514227 Y37.786466 Z-0.125000
G01 X72.316681 Y44.996914 Z-0.125000
G01 X55.350714 Y38.736480 Z-0.125000
G01 X44.366538 Y39.773437 Z-0.125000
G01 X35.985211 Y40.171451 Z-0.125000
G01 X16.896002 Y42.050795 Z-0.125000
G00 Z5.000000

(End cutting path id: polyline517)


(Start cutting path id: polyline327)
(Change tool to Default tool)

G00 Z5.000000
G00 X17.117715 Y40.684955

G00 Z4.875000 (Fast pre-penetrate)
G01 Z-0.125000 F100.0(Penetrate)
G01 X36.896891 Y39.284793 Z-0.125000 F800.000000
G01 X44.790064 Y38.359770 Z-0.125000
G01 X55.044406 Y37.608535 Z-0.125000
G01 X72.901631 Y43.815074 Z-0.125000
G01 X87.767390 Y35.774864 Z-0.125000
G01 X101.655926 Y43.852102 Z-0.125000
G01 X116.604973 Y39.846548 Z-0.125000
G01 X129.377570 Y39.746359 Z-0.125000
G01 X147.091347 Y37.836055 Z-0.125000
G00 Z5.000000

(End cutting path id: polyline327)


(Start cutting path id: polyline329)
(Change tool to Default tool)

G00 Z5.000000
G00 X146.428327 Y36.848556

G00 Z4.875000 (Fast pre-penetrate)
G01 Z-0.125000 F100.0(Penetrate)
G01 X128.940244 Y38.440971 Z-0.125000 F800.000000
G01 X116.350864 Y38.435980 Z-0.125000
G01 X100.969808 Y42.286961 Z-0.125000
G01 X87.927052 Y35.080362 Z-0.125000
G01 X72.908156 Y42.679200 Z-0.125000
G01 X55.490802 Y36.050212 Z-0.125000
G01 X44.329020 Y36.969298 Z-0.125000
G01 X36.249238 Y38.257232 Z-0.125000
G01 X17.002161 Y39.554595 Z-0.125000
G00 Z5.000000

(End cutting path id: polyline329)


(Start cutting path id: polyline323)
(Change tool to Default tool)

G00 Z5.000000
G00 X15.846615 Y28.250931

G00 Z4.875000 (Fast pre-penetrate)
G01 Z-0.125000 F100.0(Penetrate)
G01 X29.772930 Y27.981554 Z-0.125000 F800.000000
G01 X39.718583 Y23.064450 Z-0.125000
G01 X59.954757 Y20.467180 Z-0.125000
G01 X72.973372 Y31.320729 Z-0.125000
G01 X89.523578 Y28.135605 Z-0.125000
G01 X94.108830 Y26.635712 Z-0.125000
G01 X113.809741 Y24.330297 Z-0.125000
G01 X139.798033 Y26.973469 Z-0.125000
G00 Z5.000000

(End cutting path id: polyline323)


(Start cutting path id: polyline325)
(Change tool to Default tool)

G00 Z5.000000
G00 X140.461086 Y27.960968

G00 Z4.875000 (Fast pre-penetrate)
G01 Z-0.125000 F100.0(Penetrate)
G01 X114.063850 Y25.740866 Z-0.125000 F800.000000
G01 X89.363915 Y28.830074 Z-0.125000
G01 X72.966847 Y32.456569 Z-0.125000
G01 X59.508362 Y22.025503 Z-0.125000
G01 X40.179626 Y24.454921 Z-0.125000
G01 X30.420551 Y29.009115 Z-0.125000
G01 X15.962170 Y29.381324 Z-0.125000
G00 Z5.000000

(End cutting path id: polyline325)


(Start cutting path id: polyline319)
(Change tool to Default tool)

G00 Z5.000000
G00 X8.950500 Y9.803569

G00 Z4.875000 (Fast pre-penetrate)
G01 Z-0.125000 F100.0(Penetrate)
G01 X26.808835 Y12.167805 Z-0.125000 F800.000000
G01 X52.678832 Y9.559736 Z-0.125000
G01 X54.719633 Y16.576658 Z-0.125000
G01 X65.718163 Y9.709220 Z-0.125000
G01 X83.931676 Y15.100679 Z-0.125000
G01 X98.758808 Y15.320173 Z-0.125000
G01 X116.938685 Y9.494488 Z-0.125000
G01 X129.186131 Y11.132381 Z-0.125000
G01 X146.718323 Y15.222432 Z-0.125000
G00 Z5.000000

(End cutting path id: polyline319)


(Start cutting path id: polyline321)
(Change tool to Default tool)

G00 Z5.000000
G00 X146.089200 Y16.290708

G00 Z4.875000 (Fast pre-penetrate)
G01 Z-0.125000 F100.0(Penetrate)
G01 X128.766227 Y12.428243 Z-0.125000 F800.000000
G01 X116.654236 Y10.843201 Z-0.125000
G01 X98.336097 Y16.348844 Z-0.125000
G01 X84.440025 Y16.285684 Z-0.125000
G01 X66.377725 Y11.673908 Z-0.125000
G01 X55.195553 Y16.930336 Z-0.125000
G01 X51.500613 Y10.787446 Z-0.125000
G01 X27.078310 Y13.605418 Z-0.125000
G01 X9.577405 Y11.480611 Z-0.125000
G00 Z5.000000

(End cutting path id: polyline321)


(Start cutting path id: polyline331)
(Change tool to Default tool)

G00 Z5.000000
G00 X14.678738 Y55.709136

G00 Z4.875000 (Fast pre-penetrate)
G01 Z-0.125000 F100.0(Penetrate)
G01 X26.868537 Y49.038192 Z-0.125000 F800.000000
G01 X40.131343 Y53.909949 Z-0.125000
G01 X58.413823 Y50.015936 Z-0.125000
G01 X66.466952 Y56.815321 Z-0.125000
G01 X84.982662 Y57.902454 Z-0.125000
G01 X96.663721 Y57.529593 Z-0.125000
G01 X114.796717 Y53.104166 Z-0.125000
G01 X122.742284 Y56.375548 Z-0.125000
G01 X139.659153 Y50.748087 Z-0.125000
G00 Z5.000000

(End cutting path id: polyline331)


(Start cutting path id: polyline333)
(Change tool to Default tool)

G00 Z5.000000
G00 X140.334798 Y49.574239

G00 Z4.875000 (Fast pre-penetrate)
G01 Z-0.125000 F100.0(Penetrate)
G01 X123.345504 Y54.863812 Z-0.125000 F800.000000
G01 X114.961110 Y51.898934 Z-0.125000
G01 X97.117555 Y56.286191 Z-0.125000
G01 X85.235825 Y55.890819 Z-0.125000
G01 X67.051934 Y55.633448 Z-0.125000
G01 X58.107515 Y48.887991 Z-0.125000
G01 X40.554869 Y52.496282 Z-0.125000
G01 X27.780217 Y48.151502 Z-0.125000
G01 X14.900451 Y54.343295 Z-0.125000
G00 Z5.000000

(End cutting path id: polyline333)


(Start cutting path id: polyline335)
(Change tool to Default tool)

G00 Z5.000000
G00 X19.352042 Y66.993779

G00 Z4.875000 (Fast pre-penetrate)
G01 Z-0.125000 F100.0(Penetrate)
G01 X28.445194 Y69.442479 Z-0.125000 F800.000000
G01 X46.429197 Y63.610529 Z-0.125000
G01 X58.130091 Y67.801780 Z-0.125000
G01 X72.923979 Y64.755244 Z-0.125000
G01 X85.243165 Y63.396744 Z-0.125000
G01 X93.404443 Y65.757913 Z-0.125000
G01 X112.041319 Y68.967700 Z-0.125000
G01 X145.271313 Y64.677762 Z-0.125000
G00 Z5.000000

(End cutting path id: polyline335)


(Start cutting path id: polyline337)
(Change tool to Default tool)

G00 Z5.000000
G00 X144.761105 Y63.411425

G00 Z4.875000 (Fast pre-penetrate)
G01 Z-0.125000 F100.0(Penetrate)
G01 X131.724156 Y65.421363 Z-0.125000 F800.000000
G01 X112.291806 Y67.525552 Z-0.125000
G01 X93.700735 Y65.009908 Z-0.125000
G01 X85.219480 Y62.897269 Z-0.125000
G01 X72.336973 Y64.033403 Z-0.125000
G01 X58.155897 Y66.184897 Z-0.125000
G01 X45.856676 Y62.728667 Z-0.125000
G01 X28.301844 Y67.587538 Z-0.125000
G01 X18.927211 Y65.967882 Z-0.125000
G00 Z5.000000

(End cutting path id: polyline337)


(Start cutting path id: polyline339)
(Change tool to Default tool)

G00 Z5.000000
G00 X23.180448 Y81.130519

G00 Z4.875000 (Fast pre-penetrate)
G01 Z-0.125000 F100.0(Penetrate)
G01 X26.471828 Y82.052248 Z-0.125000 F800.000000
G01 X39.625506 Y80.716422 Z-0.125000
G01 X61.284581 Y80.957970 Z-0.125000
G01 X74.456692 Y88.041674 Z-0.125000
G01 X85.837837 Y77.373202 Z-0.125000
G01 X102.950059 Y74.780043 Z-0.125000
G01 X120.292704 Y84.667983 Z-0.125000
G01 X128.497926 Y79.940784 Z-0.125000
G01 X138.334614 Y81.326101 Z-0.125000
G00 Z5.000000

(End cutting path id: polyline339)


(Start cutting path id: polyline341)
(Change tool to Default tool)

G00 Z5.000000
G00 X138.811252 Y82.658600

G00 Z4.875000 (Fast pre-penetrate)
G01 Z-0.125000 F100.0(Penetrate)
G01 X127.932746 Y81.238929 Z-0.125000 F800.000000
G01 X119.325432 Y85.400427 Z-0.125000
G01 X102.755293 Y76.548530 Z-0.125000
G01 X86.443928 Y79.064011 Z-0.125000
G01 X73.809919 Y88.932769 Z-0.125000
G01 X61.396155 Y82.398488 Z-0.125000
G01 X39.716299 Y81.954213 Z-0.125000
G01 X26.917669 Y83.171287 Z-0.125000
G01 X22.312059 Y82.414702 Z-0.125000
G00 Z5.000000

(End cutting path id: polyline341)


(Start cutting path id: polyline343)
(Change tool to Default tool)

G00 Z5.000000
G00 X13.628078 Y95.256559

G00 Z4.875000 (Fast pre-penetrate)
G01 Z-0.125000 F100.0(Penetrate)
G01 X31.376176 Y94.361745 Z-0.125000 F800.000000
G01 X40.624260 Y94.331959 Z-0.125000
G01 X62.511704 Y96.804018 Z-0.125000
G01 X67.342354 Y97.843813 Z-0.125000
G01 X92.504833 Y95.972136 Z-0.125000
G01 X100.807732 Y94.233500 Z-0.125000
G01 X109.652745 Y92.724864 Z-0.125000
G01 X122.280751 Y94.220254 Z-0.125000
G01 X143.577796 Y95.983554 Z-0.125000
G00 Z5.000000

(End cutting path id: polyline343)


(Start cutting path id: polyline345)
(Change tool to Default tool)

G00 Z5.000000
G00 X143.297588 Y96.828453

G00 Z4.875000 (Fast pre-penetrate)
G01 Z-0.125000 F100.0(Penetrate)
G01 X122.444655 Y95.731501 Z-0.125000 F800.000000
G01 X110.103480 Y93.906476 Z-0.125000
G01 X100.890891 Y95.510538 Z-0.125000
G01 X91.896655 Y96.404275 Z-0.125000
G01 X67.095749 Y98.527419 Z-0.125000
G01 X62.024039 Y97.892912 Z-0.125000
G01 X41.245456 Y95.809113 Z-0.125000
G01 X31.111040 Y95.074843 Z-0.125000
G01 X13.639236 Y97.035062 Z-0.125000
G00 Z5.000000

(End cutting path id: polyline345)


(Start cutting path id: polyline347)
(Change tool to Default tool)

G00 Z5.000000
G00 X13.750647 Y114.820025

G00 Z4.875000 (Fast pre-penetrate)
G01 Z-0.125000 F100.0(Penetrate)
G01 X28.459451 Y102.205884 Z-0.125000 F800.000000
G01 X47.457704 Y110.580458 Z-0.125000
G01 X57.147127 Y108.781989 Z-0.125000
G01 X64.629464 Y105.363538 Z-0.125000
G01 X85.815131 Y100.725728 Z-0.125000
G01 X101.722512 Y108.281013 Z-0.125000
G01 X114.610988 Y105.722501 Z-0.125000
G01 X124.083624 Y110.843897 Z-0.125000
G01 X140.495406 Y105.277280 Z-0.125000
G00 Z5.000000

(End cutting path id: polyline347)


(Start cutting path id: polyline349)
(Change tool to Default tool)

G00 Z5.000000
G00 X140.775647 Y104.432381

G00 Z4.875000 (Fast pre-penetrate)
G01 Z-0.125000 F100.0(Penetrate)
G01 X123.919721 Y109.332651 Z-0.125000 F800.000000
G01 X114.160254 Y104.540888 Z-0.125000
G01 X101.639353 Y107.003975 Z-0.125000
G01 X86.423277 Y100.293589 Z-0.125000
G01 X64.876103 Y104.679900 Z-0.125000
G01 X57.634825 Y107.693094 Z-0.125000
G01 X46.836476 Y109.103336 Z-0.125000
G01 X28.724620 Y101.492786 Z-0.125000
G01 X13.739522 Y113.041522 Z-0.125000
G00 Z5.000000

(End cutting path id: polyline349)


(Start cutting path id: polyline351)
(Change tool to Default tool)

G00 Z5.000000
G00 X16.242443 Y120.354866

G00 Z4.875000 (Fast pre-penetrate)
G01 Z-0.125000 F100.0(Penetrate)
G01 X31.419175 Y125.854050 Z-0.125000 F800.000000
G01 X40.473928 Y120.825991 Z-0.125000
G01 X57.482079 Y121.284686 Z-0.125000
G01 X68.101745 Y124.378788 Z-0.125000
G01 X87.272710 Y120.990384 Z-0.125000
G01 X100.376180 Y126.314245 Z-0.125000
G01 X112.202808 Y122.070176 Z-0.125000
G01 X126.500483 Y122.991513 Z-0.125000
G01 X139.870263 Y120.541411 Z-0.125000
G00 Z5.000000

(End cutting path id: polyline351)


(Start cutting path id: polyline353)
(Change tool to Default tool)

G00 Z5.000000
G00 X139.927094 Y119.153777

G00 Z4.875000 (Fast pre-penetrate)
G01 Z-0.125000 F100.0(Penetrate)
G01 X126.280760 Y121.887188 Z-0.125000 F800.000000
G01 X112.421748 Y120.584018 Z-0.125000
G01 X100.498586 Y124.674884 Z-0.125000
G01 X87.140224 Y119.148133 Z-0.125000
G01 X67.786107 Y122.650135 Z-0.125000
G01 X57.451640 Y120.148062 Z-0.125000
G01 X41.108826 Y119.894573 Z-0.125000
G01 X31.150124 Y123.704220 Z-0.125000
G01 X16.015934 Y119.851705 Z-0.125000
G00 Z5.000000

(End cutting path id: polyline353)


(Start cutting path id: polyline355)
(Change tool to Default tool)

G00 Z5.000000
G00 X22.879164 Y133.687814

G00 Z4.875000 (Fast pre-penetrate)
G01 Z-0.125000 F100.0(Penetrate)
G01 X29.740306 Y132.819230 Z-0.125000 F800.000000
G01 X41.027135 Y139.030108 Z-0.125000
G01 X54.180552 Y133.232349 Z-0.125000
G01 X74.938876 Y133.382779 Z-0.125000
G01 X87.818707 Y138.533406 Z-0.125000
G01 X100.325678 Y138.378442 Z-0.125000
G01 X114.067406 Y138.742755 Z-0.125000
G01 X127.414023 Y136.269392 Z-0.125000
G01 X135.307261 Y136.497858 Z-0.125000
G00 Z5.000000

(End cutting path id: polyline355)


(Start cutting path id: polyline357)
(Change tool to Default tool)

G00 Z5.000000
G00 X135.722076 Y135.047260

G00 Z4.875000 (Fast pre-penetrate)
G01 Z-0.125000 F100.0(Penetrate)
G01 X127.330962 Y135.062300 Z-0.125000 F800.000000
G01 X113.897924 Y137.227072 Z-0.125000
G01 X100.330278 Y137.281717 Z-0.125000
G01 X87.769086 Y136.938577 Z-0.125000
G01 X74.317321 Y132.564207 Z-0.125000
G01 X54.480694 Y132.146195 Z-0.125000
G01 X40.976861 Y137.375185 Z-0.125000
G01 X29.892921 Y132.186029 Z-0.125000
G01 X22.275814 Y132.475731 Z-0.125000
G00 Z5.000000

(End cutting path id: polyline357)


(Start cutting path id: polyline359)
(Change tool to Default tool)

G00 Z5.000000
G00 X136.136892 Y133.596695

G00 Z4.875000 (Fast pre-penetrate)
G01 Z-0.125000 F100.0(Penetrate)
G01 X127.247934 Y133.855241 Z-0.125000 F800.000000
G01 X113.728409 Y135.711389 Z-0.125000
G01 X100.334878 Y136.184960 Z-0.125000
G01 X87.719432 Y135.343748 Z-0.125000
G01 X73.695767 Y131.745669 Z-0.125000
G01 X54.780836 Y131.060041 Z-0.125000
G01 X40.926555 Y135.720263 Z-0.125000
G01 X30.045569 Y131.552828 Z-0.125000
G01 X21.672496 Y131.263648 Z-0.125000
G00 Z5.000000

(End cutting path id: polyline359)


(Start cutting path id: polyline361)
(Change tool to Default tool)

G00 Z5.000000
G00 X136.551707 Y132.146097

G00 Z4.875000 (Fast pre-penetrate)
G01 Z-0.125000 F100.0(Penetrate)
G01 X127.164873 Y132.648149 Z-0.125000 F800.000000
G01 X113.558894 Y134.195706 Z-0.125000
G01 X100.339445 Y135.088236 Z-0.125000
G01 X87.669811 Y133.748919 Z-0.125000
G01 X73.074213 Y130.927130 Z-0.125000
G01 X55.080978 Y129.973919 Z-0.125000
G01 X40.876281 Y134.065373 Z-0.125000
G01 X30.198185 Y130.919626 Z-0.125000
G01 X21.069146 Y130.051564 Z-0.125000
G00 Z5.000000

(End cutting path id: polyline361)


(Start cutting path id: polyline363)
(Change tool to Default tool)

G00 Z5.000000
G00 X136.966522 Y130.695532

G00 Z4.875000 (Fast pre-penetrate)
G01 Z-0.125000 F100.0(Penetrate)
G01 X127.081812 Y131.441057 Z-0.125000 F800.000000
G01 X113.389379 Y132.679990 Z-0.125000
G01 X100.344045 Y133.991479 Z-0.125000
G01 X87.620157 Y132.154122 Z-0.125000
G01 X72.452658 Y130.108591 Z-0.125000
G01 X55.381119 Y128.887732 Z-0.125000
G01 X40.825975 Y132.410450 Z-0.125000
G01 X30.350801 Y130.286425 Z-0.125000
G01 X20.465829 Y128.839481 Z-0.125000
G00 Z5.000000

(End cutting path id: polyline363)


(Start cutting path id: polyline365)
(Change tool to Default tool)

G00 Z5.000000
G00 X137.381338 Y129.244934

G00 Z4.875000 (Fast pre-penetrate)
G01 Z-0.125000 F100.0(Penetrate)
G01 X126.998783 Y130.233998 Z-0.125000 F800.000000
G01 X113.219864 Y131.164307 Z-0.125000
G01 X100.348645 Y132.894722 Z-0.125000
G01 X87.570536 Y130.559293 Z-0.125000
G01 X71.831104 Y129.290053 Z-0.125000
G01 X55.681261 Y127.801578 Z-0.125000
G01 X40.775701 Y130.755527 Z-0.125000
G01 X30.503416 Y129.653224 Z-0.125000
G01 X19.862479 Y127.627398 Z-0.125000
G00 Z5.000000

(End cutting path id: polyline365)


(Start cutting path id: polyline367)
(Change tool to Default tool)

G00 Z5.000000
G00 X137.796186 Y127.794336

G00 Z4.875000 (Fast pre-penetrate)
G01 Z-0.125000 F100.0(Penetrate)
G01 X126.915722 Y129.026907 Z-0.125000 F800.000000
G01 X113.050382 Y129.648624 Z-0.125000
G01 X100.353245 Y131.797998 Z-0.125000
G01 X87.520915 Y128.964464 Z-0.125000
G01 X71.209550 Y128.471514 Z-0.125000
G01 X55.981370 Y126.715457 Z-0.125000
G01 X40.725395 Y129.100605 Z-0.125000
G01 X30.656064 Y129.020023 Z-0.125000
G01 X19.259129 Y126.415315 Z-0.125000
G00 Z5.000000

(End cutting path id: polyline367)


(Start cutting path id: polyline369)
(Change tool to Default tool)

G00 Z5.000000
G00 X138.211001 Y126.343770

G00 Z4.875000 (Fast pre-penetrate)
G01 Z-0.125000 F100.0(Penetrate)
G01 X126.832661 Y127.819848 Z-0.125000 F800.000000
G01 X112.880835 Y128.132941 Z-0.125000
G01 X100.357813 Y130.701241 Z-0.125000
G01 X87.471261 Y127.369668 Z-0.125000
G01 X70.587995 Y127.652975 Z-0.125000
G01 X56.281512 Y125.629302 Z-0.125000
G01 X40.675089 Y127.445682 Z-0.125000
G01 X30.808680 Y128.386854 Z-0.125000
G01 X18.655811 Y125.203232 Z-0.125000
G00 Z5.000000

(End cutting path id: polyline369)


(Start cutting path id: polyline371)
(Change tool to Default tool)

G00 Z5.000000
G00 X138.625817 Y124.893172

G00 Z4.875000 (Fast pre-penetrate)
G01 Z-0.125000 F100.0(Penetrate)
G01 X126.749633 Y126.612756 Z-0.125000 F800.000000
G01 X112.711352 Y126.617258 Z-0.125000
G01 X100.362413 Y129.604516 Z-0.125000
G01 X87.421639 Y125.774839 Z-0.125000
G01 X69.966441 Y126.834437 Z-0.125000
G01 X56.581654 Y124.543148 Z-0.125000
G01 X40.624815 Y125.790759 Z-0.125000
G01 X30.961295 Y127.753653 Z-0.125000
G01 X18.052461 Y123.991148 Z-0.125000
G00 Z5.000000

(End cutting path id: polyline371)


(Start cutting path id: polyline373)
(Change tool to Default tool)

G00 Z5.000000
G00 X139.040632 Y123.442574

G00 Z4.875000 (Fast pre-penetrate)
G01 Z-0.125000 F100.0(Penetrate)
G01 X126.666572 Y125.405697 Z-0.125000 F800.000000
G01 X112.541838 Y125.101542 Z-0.125000
G01 X100.367013 Y128.507759 Z-0.125000
G01 X87.371986 Y124.180042 Z-0.125000
G01 X69.344887 Y126.015898 Z-0.125000
G01 X56.881795 Y123.456994 Z-0.125000
G01 X40.574508 Y124.135836 Z-0.125000
G01 X31.113944 Y127.120452 Z-0.125000
G01 X17.449143 Y122.779065 Z-0.125000
G00 Z5.000000

(End cutting path id: polyline373)


(Start cutting path id: polyline375)
(Change tool to Default tool)

G00 Z5.000000
G00 X139.455448 Y121.992009

G00 Z4.875000 (Fast pre-penetrate)
G01 Z-0.125000 F100.0(Penetrate)
G01 X126.583511 Y124.198605 Z-0.125000 F800.000000
G01 X112.372323 Y123.585859 Z-0.125000
G01 X100.371613 Y127.411002 Z-0.125000
G01 X87.322364 Y122.585213 Z-0.125000
G01 X68.723332 Y125.197359 Z-0.125000
G01 X57.181937 Y122.370840 Z-0.125000
G01 X40.524235 Y122.480914 Z-0.125000
G01 X31.266559 Y126.487251 Z-0.125000
G01 X16.845793 Y121.566982 Z-0.125000
G00 Z5.000000

(End cutting path id: polyline375)


(Start cutting path id: polyline377)
(Change tool to Default tool)

G00 Z5.000000
G00 X139.983926 Y117.766111

G00 Z4.875000 (Fast pre-penetrate)
G01 Z-0.125000 F100.0(Penetrate)
G01 X126.061036 Y120.782862 Z-0.125000 F800.000000
G01 X112.640656 Y119.097860 Z-0.125000
G01 X100.620991 Y123.035491 Z-0.125000
G01 X87.007705 Y117.305916 Z-0.125000
G01 X67.470436 Y120.921482 Z-0.125000
G01 X57.421202 Y119.011471 Z-0.125000
G01 X41.743724 Y118.963155 Z-0.125000
G01 X30.881040 Y121.554389 Z-0.125000
G01 X15.789392 Y119.348543 Z-0.125000
G00 Z5.000000

(End cutting path id: polyline377)


(Start cutting path id: polyline379)
(Change tool to Default tool)

G00 Z5.000000
G00 X140.040757 Y116.378478

G00 Z4.875000 (Fast pre-penetrate)
G01 Z-0.125000 F100.0(Penetrate)
G01 X125.841313 Y119.678536 Z-0.125000 F800.000000
G01 X112.859596 Y117.611701 Z-0.125000
G01 X100.743364 Y121.396097 Z-0.125000
G01 X86.875186 Y115.463665 Z-0.125000
G01 X67.154766 Y119.192828 Z-0.125000
G01 X57.390731 Y117.874847 Z-0.125000
G01 X42.378589 Y118.031737 Z-0.125000
G01 X30.611989 Y119.404559 Z-0.125000
G01 X15.562883 Y118.845382 Z-0.125000
G00 Z5.000000

(End cutting path id: polyline379)


(Start cutting path id: polyline381)
(Change tool to Default tool)

G00 Z5.000000
G00 X140.097588 Y114.990812

G00 Z4.875000 (Fast pre-penetrate)
G01 Z-0.125000 F100.0(Penetrate)
G01 X125.621622 Y118.574210 Z-0.125000 F800.000000
G01 X113.078504 Y116.125543 Z-0.125000
G01 X100.865770 Y119.756703 Z-0.125000
G01 X86.742667 Y113.621415 Z-0.125000
G01 X66.839095 Y117.464175 Z-0.125000
G01 X57.360293 Y116.738256 Z-0.125000
G01 X43.013486 Y117.100351 Z-0.125000
G01 X30.342906 Y117.254729 Z-0.125000
G01 X15.336342 Y118.342188 Z-0.125000
G00 Z5.000000

(End cutting path id: polyline381)


(Start cutting path id: polyline383)
(Change tool to Default tool)

G00 Z5.000000
G00 X140.154419 Y113.603146

G00 Z4.875000 (Fast pre-penetrate)
G01 Z-0.125000 F100.0(Penetrate)
G01 X125.401899 Y117.469884 Z-0.125000 F800.000000
G01 X113.297444 Y114.639385 Z-0.125000
G01 X100.988143 Y118.117310 Z-0.125000
G01 X86.610180 Y111.779165 Z-0.125000
G01 X66.523457 Y115.735489 Z-0.125000
G01 X57.329822 Y115.601665 Z-0.125000
G01 X43.648384 Y116.168933 Z-0.125000
G01 X30.073855 Y115.104898 Z-0.125000
G01 X15.109832 Y117.839026 Z-0.125000
G00 Z5.000000

(End cutting path id: polyline383)


(Start cutting path id: polyline385)
(Change tool to Default tool)

G00 Z5.000000
G00 X140.211250 Y112.215512

G00 Z4.875000 (Fast pre-penetrate)
G01 Z-0.125000 F100.0(Penetrate)
G01 X125.182208 Y116.365559 Z-0.125000 F800.000000
G01 X113.516352 Y113.153259 Z-0.125000
G01 X101.110549 Y116.477949 Z-0.125000
G01 X86.477661 Y109.936947 Z-0.125000
G01 X66.207786 Y114.006836 Z-0.125000
G01 X44.283249 Y115.237515 Z-0.125000
G01 X29.804771 Y112.955068 Z-0.125000
G01 X14.883291 Y117.335865 Z-0.125000
G00 Z5.000000

(End cutting path id: polyline385)


(Start cutting path id: polyline387)
(Change tool to Default tool)

G00 Z5.000000
G00 X140.268081 Y110.827846

G00 Z4.875000 (Fast pre-penetrate)
G01 Z-0.125000 F100.0(Penetrate)
G01 X124.962485 Y115.261233 Z-0.125000 F800.000000
G01 X113.735292 Y111.667101 Z-0.125000
G01 X101.232954 Y114.838555 Z-0.125000
G01 X86.345175 Y108.094697 Z-0.125000
G01 X65.892115 Y112.278183 Z-0.125000
G01 X57.268913 Y113.328418 Z-0.125000
G01 X44.918146 Y114.306130 Z-0.125000
G01 X29.535720 Y110.805238 Z-0.125000
G01 X14.656782 Y116.832703 Z-0.125000
G00 Z5.000000

(End cutting path id: polyline387)


(Start cutting path id: polyline389)
(Change tool to Default tool)

G00 Z5.000000
G00 X140.324913 Y109.440213

G00 Z4.875000 (Fast pre-penetrate)
G01 Z-0.125000 F100.0(Penetrate)
G01 X124.742762 Y114.156875 Z-0.125000 F800.000000
G01 X113.954200 Y110.180943 Z-0.125000
G01 X101.355360 Y113.199161 Z-0.125000
G01 X86.212656 Y106.252447 Z-0.125000
G01 X65.576444 Y110.549497 Z-0.125000
G01 X57.238475 Y112.191827 Z-0.125000
G01 X45.553044 Y113.374712 Z-0.125000
G01 X29.266636 Y108.655375 Z-0.125000
G01 X14.430240 Y116.329509 Z-0.125000
G00 Z5.000000

(End cutting path id: polyline389)


(Start cutting path id: polyline391)
(Change tool to Default tool)

G00 Z5.000000
G00 X140.381744 Y108.052579

G00 Z4.875000 (Fast pre-penetrate)
G01 Z-0.125000 F100.0(Penetrate)
G01 X124.523071 Y113.052549 Z-0.125000 F800.000000
G01 X114.173140 Y108.694785 Z-0.125000
G01 X101.477733 Y111.559768 Z-0.125000
G01 X86.080136 Y104.410196 Z-0.125000
G01 X65.260773 Y108.820844 Z-0.125000
G01 X57.208036 Y111.055203 Z-0.125000
G01 X46.187909 Y112.443294 Z-0.125000
G01 X28.997586 Y106.505544 Z-0.125000
G01 X14.203731 Y115.826348 Z-0.125000
G00 Z5.000000

(End cutting path id: polyline391)


(Start cutting path id: polyline393)
(Change tool to Default tool)

G00 Z5.000000
G00 X140.438575 Y106.664913

G00 Z4.875000 (Fast pre-penetrate)
G01 Z-0.125000 F100.0(Penetrate)
G01 X124.303348 Y111.948223 Z-0.125000 F800.000000
G01 X114.392048 Y107.208626 Z-0.125000
G01 X101.600139 Y109.920407 Z-0.125000
G01 X85.947617 Y102.567979 Z-0.125000
G01 X64.945135 Y107.092191 Z-0.125000
G01 X57.177565 Y109.918612 Z-0.125000
G01 X46.822807 Y111.511876 Z-0.125000
G01 X28.728502 Y104.355714 Z-0.125000
G01 X13.977189 Y115.323186 Z-0.125000
G00 Z5.000000

(End cutting path id: polyline393)


(Start cutting path id: polyline395)
(Change tool to Default tool)

G00 Z5.000000
G00 X141.055856 Y103.587514

G00 Z4.875000 (Fast pre-penetrate)
G01 Z-0.125000 F100.0(Penetrate)
G01 X123.755817 Y107.821405 Z-0.125000 F800.000000
G01 X113.709487 Y103.359276 Z-0.125000
G01 X101.556194 Y105.726905 Z-0.125000
G01 X87.031423 Y99.861451 Z-0.125000
G01 X65.122708 Y103.996294 Z-0.125000
G01 X58.122490 Y106.604167 Z-0.125000
G01 X46.215248 Y107.626215 Z-0.125000
G01 X28.989756 Y100.779689 Z-0.125000
G01 X13.728365 Y111.263019 Z-0.125000
G00 Z5.000000

(End cutting path id: polyline395)


(Start cutting path id: polyline397)
(Change tool to Default tool)

G00 Z5.000000
G00 X141.336064 Y102.742615

G00 Z4.875000 (Fast pre-penetrate)
G01 Z-0.125000 F100.0(Penetrate)
G01 X123.591946 Y106.310191 Z-0.125000 F800.000000
G01 X113.258752 Y102.177696 Z-0.125000
G01 X101.473035 Y104.449867 Z-0.125000
G01 X87.639601 Y99.429312 Z-0.125000
G01 X65.369346 Y103.312689 Z-0.125000
G01 X58.610187 Y105.515272 Z-0.125000
G01 X45.594020 Y106.149061 Z-0.125000
G01 X29.254924 Y100.066558 Z-0.125000
G01 X13.717240 Y109.484516 Z-0.125000
G00 Z5.000000

(End cutting path id: polyline397)


(Start cutting path id: polyline399)
(Change tool to Default tool)

G00 Z5.000000
G00 X141.616272 Y101.897749

G00 Z4.875000 (Fast pre-penetrate)
G01 Z-0.125000 F100.0(Penetrate)
G01 X123.428043 Y104.798912 Z-0.125000 F800.000000
G01 X112.807985 Y100.996084 Z-0.125000
G01 X101.389876 Y103.172797 Z-0.125000
G01 X88.247747 Y98.997140 Z-0.125000
G01 X65.615985 Y102.629084 Z-0.125000
G01 X59.097885 Y104.426378 Z-0.125000
G01 X44.972792 Y104.671939 Z-0.125000
G01 X29.520093 Y99.353461 Z-0.125000
G01 X13.706083 Y107.706013 Z-0.125000
G00 Z5.000000

(End cutting path id: polyline399)


(Start cutting path id: polyline401)
(Change tool to Default tool)

G00 Z5.000000
G00 X139.287923 Y83.991098

G00 Z4.875000 (Fast pre-penetrate)
G01 Z-0.125000 F100.0(Penetrate)
G01 X127.367534 Y82.537075 Z-0.125000 F800.000000
G01 X118.358160 Y86.132870 Z-0.125000
G01 X102.560527 Y78.317017 Z-0.125000
G01 X87.050018 Y80.754853 Z-0.125000
G01 X73.163179 Y89.823863 Z-0.125000
G01 X61.507697 Y83.839070 Z-0.125000
G01 X39.807092 Y83.191971 Z-0.125000
G01 X27.363542 Y84.290327 Z-0.125000
G01 X21.443671 Y83.698884 Z-0.125000
G00 Z5.000000

(End cutting path id: polyline401)


(Start cutting path id: polyline403)
(Change tool to Default tool)

G00 Z5.000000
G00 X138.965205 Y79.812604

G00 Z4.875000 (Fast pre-penetrate)
G01 Z-0.125000 F100.0(Penetrate)
G01 X128.872875 Y78.703091 Z-0.125000 F800.000000
G01 X119.542578 Y83.240679 Z-0.125000
G01 X102.082290 Y73.959840 Z-0.125000
G01 X85.783779 Y76.102624 Z-0.125000
G01 X74.317354 Y85.924729 Z-0.125000
G01 X60.997815 Y79.761938 Z-0.125000
G01 X40.244026 Y79.161361 Z-0.125000
G01 X26.651228 Y80.905902 Z-0.125000
G01 X22.832414 Y79.845358 Z-0.125000
G00 Z5.000000

(End cutting path id: polyline403)


(Start cutting path id: polyline405)
(Change tool to Default tool)

G00 Z5.000000
G00 X139.595829 Y78.299139

G00 Z4.875000 (Fast pre-penetrate)
G01 Z-0.125000 F100.0(Penetrate)
G01 X129.247824 Y77.465365 Z-0.125000 F800.000000
G01 X118.792452 Y81.813374 Z-0.125000
G01 X101.214489 Y73.139670 Z-0.125000
G01 X85.729721 Y74.832045 Z-0.125000
G01 X74.178017 Y83.807751 Z-0.125000
G01 X60.711049 Y78.565906 Z-0.125000
G01 X40.862547 Y77.606268 Z-0.125000
G01 X26.830628 Y79.759557 Z-0.125000
G01 X22.484380 Y78.560197 Z-0.125000
G00 Z5.000000

(End cutting path id: polyline405)


(Start cutting path id: polyline407)
(Change tool to Default tool)

G00 Z5.000000
G00 X139.764561 Y85.323597

G00 Z4.875000 (Fast pre-penetrate)
G01 Z-0.125000 F100.0(Penetrate)
G01 X126.802321 Y83.835188 Z-0.125000 F800.000000
G01 X117.390888 Y86.865314 Z-0.125000
G01 X102.365794 Y80.085537 Z-0.125000
G01 X87.656109 Y82.445662 Z-0.125000
G01 X72.516406 Y90.714991 Z-0.125000
G01 X61.619239 Y85.279587 Z-0.125000
G01 X39.897885 Y84.429762 Z-0.125000
G01 X27.809383 Y85.409366 Z-0.125000
G01 X20.575283 Y84.983067 Z-0.125000
G00 Z5.000000

(End cutting path id: polyline407)


(Start cutting path id: polyline409)
(Change tool to Default tool)

G00 Z5.000000
G00 X140.241232 Y86.656096

G00 Z4.875000 (Fast pre-penetrate)
G01 Z-0.125000 F100.0(Penetrate)
G01 X126.237141 Y85.133301 Z-0.125000 F800.000000
G01 X116.423616 Y87.597758 Z-0.125000
G01 X102.171028 Y81.854024 Z-0.125000
G01 X88.262199 Y84.136471 Z-0.125000
G01 X71.869666 Y91.606085 Z-0.125000
G01 X61.730813 Y86.720170 Z-0.125000
G01 X39.988677 Y85.667553 Z-0.125000
G01 X28.255224 Y86.528438 Z-0.125000
G01 X19.706862 Y86.267249 Z-0.125000
G00 Z5.000000

(End cutting path id: polyline409)


(Start cutting path id: polyline411)
(Change tool to Default tool)

G00 Z5.000000
G00 X140.226420 Y76.785642

G00 Z4.875000 (Fast pre-penetrate)
G01 Z-0.125000 F100.0(Penetrate)
G01 X129.622772 Y76.227639 Z-0.125000 F800.000000
G01 X118.042326 Y80.386070 Z-0.125000
G01 X100.346721 Y72.319468 Z-0.125000
G01 X85.675630 Y73.561435 Z-0.125000
G01 X74.038679 Y81.690806 Z-0.125000
G01 X60.424251 Y77.369907 Z-0.125000
G01 X41.481067 Y76.051175 Z-0.125000
G01 X27.010027 Y78.613211 Z-0.125000
G01 X22.136346 Y77.275036 Z-0.125000
G00 Z5.000000

(End cutting path id: polyline411)


(Start cutting path id: polyline413)
(Change tool to Default tool)

G00 Z5.000000
G00 X140.857044 Y75.272144

G00 Z4.875000 (Fast pre-penetrate)
G01 Z-0.125000 F100.0(Penetrate)
G01 X129.997721 Y74.989946 Z-0.125000 F800.000000
G01 X117.292200 Y78.958766 Z-0.125000
G01 X99.478920 Y71.499265 Z-0.125000
G01 X85.621572 Y72.290856 Z-0.125000
G01 X73.899341 Y79.573860 Z-0.125000
G01 X60.137485 Y76.173875 Z-0.125000
G01 X42.099587 Y74.496115 Z-0.125000
G01 X27.189395 Y77.466866 Z-0.125000
G01 X21.788312 Y75.989875 Z-0.125000
G00 Z5.000000

(End cutting path id: polyline413)


(Start cutting path id: polyline415)
(Change tool to Default tool)

G00 Z5.000000
G00 X140.717870 Y87.988595

G00 Z4.875000 (Fast pre-penetrate)
G01 Z-0.125000 F100.0(Penetrate)
G01 X125.671929 Y86.431446 Z-0.125000 F800.000000
G01 X115.456377 Y88.330201 Z-0.125000
G01 X101.976262 Y83.622511 Z-0.125000
G01 X88.868290 Y85.827281 Z-0.125000
G01 X71.222893 Y92.497180 Z-0.125000
G01 X61.842388 Y88.160687 Z-0.125000
G01 X40.079470 Y86.905311 Z-0.125000
G01 X28.701065 Y87.647477 Z-0.125000
G01 X18.838473 Y87.551432 Z-0.125000
G00 Z5.000000

(End cutting path id: polyline415)


(Start cutting path id: polyline417)
(Change tool to Default tool)

G00 Z5.000000
G00 X141.194541 Y89.321093

G00 Z4.875000 (Fast pre-penetrate)
G01 Z-0.125000 F100.0(Penetrate)
G01 X125.106749 Y87.729592 Z-0.125000 F800.000000
G01 X114.489105 Y89.062645 Z-0.125000
G01 X101.781496 Y85.390998 Z-0.125000
G01 X89.474380 Y87.518090 Z-0.125000
G01 X70.576153 Y93.388275 Z-0.125000
G01 X61.953929 Y89.601269 Z-0.125000
G01 X40.170263 Y88.143102 Z-0.125000
G01 X29.146939 Y88.766516 Z-0.125000
G01 X17.970085 Y88.835614 Z-0.125000
G00 Z5.000000

(End cutting path id: polyline417)


(Start cutting path id: polyline419)
(Change tool to Default tool)

G00 Z5.000000
G00 X141.671179 Y90.653559

G00 Z4.875000 (Fast pre-penetrate)
G01 Z-0.125000 F100.0(Penetrate)
G01 X124.541536 Y89.027705 Z-0.125000 F800.000000
G01 X113.521800 Y89.795089 Z-0.125000
G01 X101.586763 Y87.159486 Z-0.125000
G01 X90.080471 Y89.208899 Z-0.125000
G01 X69.929380 Y94.279402 Z-0.125000
G01 X62.065471 Y91.041786 Z-0.125000
G01 X40.261056 Y89.380861 Z-0.125000
G01 X29.592780 Y89.885555 Z-0.125000
G01 X17.101664 Y90.119797 Z-0.125000
G00 Z5.000000

(End cutting path id: polyline419)


(Start cutting path id: polyline421)
(Change tool to Default tool)

G00 Z5.000000
G00 X142.147849 Y91.986058

G00 Z4.875000 (Fast pre-penetrate)
G01 Z-0.125000 F100.0(Penetrate)
G01 X123.976356 Y90.325850 Z-0.125000 F800.000000
G01 X112.554561 Y90.527533 Z-0.125000
G01 X101.391997 Y88.928006 Z-0.125000
G01 X90.686561 Y90.899708 Z-0.125000
G01 X69.282640 Y95.170497 Z-0.125000
G01 X62.177046 Y92.482369 Z-0.125000
G01 X40.351849 Y90.618652 Z-0.125000
G01 X16.233276 Y91.403979 Z-0.125000
G00 Z5.000000

(End cutting path id: polyline421)


(Start cutting path id: polyline423)
(Change tool to Default tool)

G00 Z5.000000
G00 X141.896513 Y101.052850

G00 Z4.875000 (Fast pre-penetrate)
G01 Z-0.125000 F100.0(Penetrate)
G01 X123.264140 Y103.287699 Z-0.125000 F800.000000
G01 X112.357250 Y99.814472 Z-0.125000
G01 X101.306717 Y101.895759 Z-0.125000
G01 X88.855893 Y98.565002 Z-0.125000
G01 X65.862590 Y101.945478 Z-0.125000
G01 X59.585583 Y103.337451 Z-0.125000
G01 X44.351596 Y103.194785 Z-0.125000
G01 X29.785229 Y98.640363 Z-0.125000
G01 X13.694925 Y105.927511 Z-0.125000
G00 Z5.000000

(End cutting path id: polyline423)


(Start cutting path id: polyline425)
(Change tool to Default tool)

G00 Z5.000000
G00 X142.176722 Y100.207984

G00 Z4.875000 (Fast pre-penetrate)
G01 Z-0.125000 F100.0(Penetrate)
G01 X123.100236 Y101.776453 Z-0.125000 F800.000000
G01 X111.906483 Y98.632892 Z-0.125000
G01 X101.223559 Y100.618721 Z-0.125000
G01 X89.464039 Y98.132863 Z-0.125000
G01 X66.109228 Y101.261840 Z-0.125000
G01 X60.073280 Y102.248556 Z-0.125000
G01 X43.730368 Y101.717664 Z-0.125000
G01 X30.050398 Y97.927266 Z-0.125000
G01 X13.683800 Y104.149040 Z-0.125000
G00 Z5.000000

(End cutting path id: polyline425)


(Start cutting path id: polyline427)
(Change tool to Default tool)

G00 Z5.000000
G00 X142.456930 Y99.363085

G00 Z4.875000 (Fast pre-penetrate)
G01 Z-0.125000 F100.0(Penetrate)
G01 X122.936333 Y100.265206 Z-0.125000 F800.000000
G01 X111.455716 Y97.451280 Z-0.125000
G01 X101.140367 Y99.341683 Z-0.125000
G01 X90.072217 Y97.700724 Z-0.125000
G01 X66.355867 Y100.578235 Z-0.125000
G01 X60.560946 Y101.159661 Z-0.125000
G01 X43.109140 Y100.240510 Z-0.125000
G01 X30.315567 Y97.214168 Z-0.125000
G01 X13.672643 Y102.370538 Z-0.125000
G00 Z5.000000

(End cutting path id: polyline427)


(Start cutting path id: polyline429)
(Change tool to Default tool)

G00 Z5.000000
G00 X142.737171 Y98.518219

G00 Z4.875000 (Fast pre-penetrate)
G01 Z-0.125000 F100.0(Penetrate)
G01 X122.772429 Y98.753960 Z-0.125000 F800.000000
G01 X111.004981 Y96.269668 Z-0.125000
G01 X101.057208 Y98.064646 Z-0.125000
G01 X90.680363 Y97.268585 Z-0.125000
G01 X66.602472 Y99.894629 Z-0.125000
G01 X61.048643 Y100.070734 Z-0.125000
G01 X42.487912 Y98.763389 Z-0.125000
G01 X30.580703 Y96.501070 Z-0.125000
G01 X13.661518 Y100.592035 Z-0.125000
G00 Z5.000000

(End cutting path id: polyline429)


(Start cutting path id: polyline431)
(Change tool to Default tool)

G00 Z5.000000
G00 X142.624488 Y93.318557

G00 Z4.875000 (Fast pre-penetrate)
G01 Z-0.125000 F100.0(Penetrate)
G01 X123.411144 Y91.623996 Z-0.125000 F800.000000
G01 X111.587289 Y91.259976 Z-0.125000
G01 X101.197231 Y90.696493 Z-0.125000
G01 X91.292652 Y92.590517 Z-0.125000
G01 X68.635867 Y96.061591 Z-0.125000
G01 X62.288587 Y93.922886 Z-0.125000
G01 X40.442642 Y91.856410 Z-0.125000
G01 X30.484494 Y92.123667 Z-0.125000
G01 X15.364888 Y92.688194 Z-0.125000
G00 Z5.000000

(End cutting path id: polyline431)


(Start cutting path id: polyline433)
(Change tool to Default tool)

G00 Z5.000000
G00 X141.487636 Y73.758680

G00 Z4.875000 (Fast pre-penetrate)
G01 Z-0.125000 F100.0(Penetrate)
G01 X130.372637 Y73.752220 Z-0.125000 F800.000000
G01 X116.542074 Y77.531494 Z-0.125000
G01 X98.611151 Y70.679063 Z-0.125000
G01 X85.567514 Y71.020278 Z-0.125000
G01 X73.760004 Y77.456915 Z-0.125000
G01 X59.850719 Y74.977875 Z-0.125000
G01 X42.718108 Y72.941022 Z-0.125000
G01 X27.368795 Y76.320520 Z-0.125000
G01 X21.440278 Y74.704714 Z-0.125000
G00 Z5.000000

(End cutting path id: polyline433)


(Start cutting path id: polyline435)
(Change tool to Default tool)

G00 Z5.000000
G00 X142.118259 Y72.245183

G00 Z4.875000 (Fast pre-penetrate)
G01 Z-0.125000 F100.0(Penetrate)
G01 X130.747586 Y72.514527 Z-0.125000 F800.000000
G01 X115.791948 Y76.104190 Z-0.125000
G01 X97.743350 Y69.858893 Z-0.125000
G01 X85.513456 Y69.749667 Z-0.125000
G01 X73.620666 Y75.339970 Z-0.125000
G01 X59.563953 Y73.781843 Z-0.125000
G01 X43.336628 Y71.385929 Z-0.125000
G01 X27.548195 Y75.174174 Z-0.125000
G01 X21.092244 Y73.419552 Z-0.125000
G00 Z5.000000

(End cutting path id: polyline435)


(Start cutting path id: polyline437)
(Change tool to Default tool)

G00 Z5.000000
G00 X140.169328 Y52.014424

G00 Z4.875000 (Fast pre-penetrate)
G01 Z-0.125000 F100.0(Penetrate)
G01 X123.640491 Y57.280149 Z-0.125000 F800.000000
G01 X114.546230 Y54.546282 Z-0.125000
G01 X96.367429 Y58.277598 Z-0.125000
G01 X85.006347 Y58.401929 Z-0.125000
G01 X67.053957 Y57.537129 Z-0.125000
G01 X58.388017 Y51.632852 Z-0.125000
G01 X40.703863 Y54.791811 Z-0.125000
G01 X27.011854 Y50.893133 Z-0.125000
G01 X15.103569 Y56.735000 Z-0.125000
G00 Z5.000000

(End cutting path id: polyline437)


(Start cutting path id: polyline439)
(Change tool to Default tool)

G00 Z5.000000
G00 X140.679537 Y53.280761

G00 Z4.875000 (Fast pre-penetrate)
G01 Z-0.125000 F100.0(Penetrate)
G01 X124.538665 Y58.184717 Z-0.125000 F800.000000
G01 X114.295742 Y55.988430 Z-0.125000
G01 X96.071137 Y59.025636 Z-0.125000
G01 X85.030032 Y58.901404 Z-0.125000
G01 X67.640962 Y58.258937 Z-0.125000
G01 X58.362244 Y53.249735 Z-0.125000
G01 X41.276416 Y55.673673 Z-0.125000
G01 X27.155205 Y52.748074 Z-0.125000
G01 X15.528432 Y57.760865 Z-0.125000
G00 Z5.000000

(End cutting path id: polyline439)


(Start cutting path id: polyline441)
(Change tool to Default tool)

G00 Z5.000000
G00 X141.189745 Y54.547065

G00 Z4.875000 (Fast pre-penetrate)
G01 Z-0.125000 F100.0(Penetrate)
G01 X125.436839 Y59.089286 Z-0.125000 F800.000000
G01 X114.045254 Y57.430579 Z-0.125000
G01 X95.774812 Y59.773674 Z-0.125000
G01 X85.053717 Y59.400879 Z-0.125000
G01 X68.227968 Y58.980746 Z-0.125000
G01 X58.336439 Y54.866618 Z-0.125000
G01 X41.848936 Y56.555568 Z-0.125000
G01 X27.298522 Y54.602983 Z-0.125000
G01 X15.953263 Y58.786763 Z-0.125000
G00 Z5.000000

(End cutting path id: polyline441)


(Start cutting path id: polyline443)
(Change tool to Default tool)

G00 Z5.000000
G00 X141.010475 Y48.400424

G00 Z4.875000 (Fast pre-penetrate)
G01 Z-0.125000 F100.0(Penetrate)
G01 X123.948691 Y53.352077 Z-0.125000 F800.000000
G01 X115.125503 Y50.693702 Z-0.125000
G01 X97.571388 Y55.042788 Z-0.125000
G01 X85.488988 Y53.879217 Z-0.125000
G01 X67.636884 Y54.451607 Z-0.125000
G01 X57.801208 Y47.760045 Z-0.125000
G01 X40.978395 Y51.082647 Z-0.125000
G01 X28.691865 Y47.264844 Z-0.125000
G01 X15.122197 Y52.977454 Z-0.125000
G00 Z5.000000

(End cutting path id: polyline443)


(Start cutting path id: polyline445)
(Change tool to Default tool)

G00 Z5.000000
G00 X141.699921 Y55.813402

G00 Z4.875000 (Fast pre-penetrate)
G01 Z-0.125000 F100.0(Penetrate)
G01 X126.335046 Y59.993887 Z-0.125000 F800.000000
G01 X113.794766 Y58.872695 Z-0.125000
G01 X95.478520 Y60.521712 Z-0.125000
G01 X85.077402 Y59.900354 Z-0.125000
G01 X68.814941 Y59.702554 Z-0.125000
G01 X58.310666 Y56.483534 Z-0.125000
G01 X42.421457 Y57.437430 Z-0.125000
G01 X27.441873 Y56.457924 Z-0.125000
G01 X16.378127 Y59.812627 Z-0.125000
G00 Z5.000000

(End cutting path id: polyline445)


(Start cutting path id: polyline447)
(Change tool to Default tool)

G00 Z5.000000
G00 X142.210129 Y57.079772

G00 Z4.875000 (Fast pre-penetrate)
G01 Z-0.125000 F100.0(Penetrate)
G01 X127.233220 Y60.898488 Z-0.125000 F800.000000
G01 X113.544278 Y60.314843 Z-0.125000
G01 X95.182228 Y61.269750 Z-0.125000
G01 X85.101055 Y60.399861 Z-0.125000
G01 X69.401946 Y60.424362 Z-0.125000
G01 X58.284860 Y58.100417 Z-0.125000
G01 X42.994010 Y58.319292 Z-0.125000
G01 X27.585190 Y58.312865 Z-0.125000
G01 X16.802958 Y60.838525 Z-0.125000
G00 Z5.000000

(End cutting path id: polyline447)


(Start cutting path id: polyline449)
(Change tool to Default tool)

G00 Z5.000000
G00 X141.686121 Y47.226609

G00 Z4.875000 (Fast pre-penetrate)
G01 Z-0.125000 F100.0(Penetrate)
G01 X124.551911 Y51.840309 Z-0.125000 F800.000000
G01 X115.289896 Y49.488437 Z-0.125000
G01 X98.025222 Y53.799353 Z-0.125000
G01 X85.742118 Y51.867648 Z-0.125000
G01 X68.221867 Y53.269766 Z-0.125000
G01 X57.494900 Y46.632100 Z-0.125000
G01 X41.401888 Y49.668979 Z-0.125000
G01 X29.603546 Y46.378186 Z-0.125000
G01 X15.343910 Y51.611614 Z-0.125000
G00 Z5.000000

(End cutting path id: polyline449)


(Start cutting path id: polyline451)
(Change tool to Default tool)

G00 Z5.000000
G00 X142.361766 Y46.052793

G00 Z4.875000 (Fast pre-penetrate)
G01 Z-0.125000 F100.0(Penetrate)
G01 X125.155098 Y50.328573 Z-0.125000 F800.000000
G01 X115.454256 Y48.283205 Z-0.125000
G01 X98.479056 Y52.555951 Z-0.125000
G01 X85.995281 Y49.856046 Z-0.125000
G01 X68.806850 Y52.087958 Z-0.125000
G01 X57.188592 Y45.504154 Z-0.125000
G01 X41.825414 Y48.255344 Z-0.125000
G01 X30.515193 Y45.491496 Z-0.125000
G01 X15.565624 Y50.245773 Z-0.125000
G00 Z5.000000

(End cutting path id: polyline451)


(Start cutting path id: polyline453)
(Change tool to Default tool)

G00 Z5.000000
G00 X140.427157 Y25.905193

G00 Z4.875000 (Fast pre-penetrate)
G01 Z-0.125000 F100.0(Penetrate)
G01 X124.987149 Y24.091228 Z-0.125000 F800.000000
G01 X114.094190 Y22.981585 Z-0.125000
G01 X94.531540 Y25.607042 Z-0.125000
G01 X89.015229 Y26.950600 Z-0.125000
G01 X72.313810 Y29.356040 Z-0.125000
G01 X59.478837 Y20.113502 Z-0.125000
G01 X40.896802 Y21.836740 Z-0.125000
G01 X29.503455 Y26.543940 Z-0.125000
G01 X15.219678 Y26.573922 Z-0.125000
G00 Z5.000000

(End cutting path id: polyline453)


(Start cutting path id: polyline455)
(Change tool to Default tool)

G00 Z5.000000
G00 X141.056280 Y24.836917

G00 Z4.875000 (Fast pre-penetrate)
G01 Z-0.125000 F100.0(Penetrate)
G01 X125.407054 Y22.795366 Z-0.125000 F800.000000
G01 X114.378607 Y21.632872 Z-0.125000
G01 X94.954250 Y24.578338 Z-0.125000
G01 X88.506847 Y25.765627 Z-0.125000
G01 X71.654249 Y27.391351 Z-0.125000
G01 X59.002916 Y19.759824 Z-0.125000
G01 X42.074989 Y20.609062 Z-0.125000
G01 X29.233980 Y25.106327 Z-0.125000
G01 X14.592773 Y24.896880 Z-0.125000
G00 Z5.000000

(End cutting path id: polyline455)


(Start cutting path id: polyline457)
(Change tool to Default tool)

G00 Z5.000000
G00 X141.124105 Y28.948467

G00 Z4.875000 (Fast pre-penetrate)
G01 Z-0.125000 F100.0(Penetrate)
G01 X125.441863 Y27.997899 Z-0.125000 F800.000000
G01 X114.317959 Y27.151434 Z-0.125000
G01 X95.480999 Y29.765962 Z-0.125000
G01 X89.204253 Y29.524576 Z-0.125000
G01 X72.960322 Y33.592410 Z-0.125000
G01 X59.061966 Y23.583793 Z-0.125000
G01 X40.640670 Y25.845426 Z-0.125000
G01 X31.068172 Y30.036677 Z-0.125000
G01 X16.077724 Y30.511684 Z-0.125000
G00 Z5.000000

(End cutting path id: polyline457)


(Start cutting path id: polyline459)
(Change tool to Default tool)

G00 Z5.000000
G00 X141.787125 Y29.935999

G00 Z4.875000 (Fast pre-penetrate)
G01 Z-0.125000 F100.0(Penetrate)
G01 X125.879157 Y29.303287 Z-0.125000 F800.000000
G01 X114.572068 Y28.562002 Z-0.125000
G01 X96.167117 Y31.331103 Z-0.125000
G01 X89.044591 Y30.219045 Z-0.125000
G01 X72.953797 Y34.728251 Z-0.125000
G01 X58.615570 Y25.142116 Z-0.125000
G01 X41.101714 Y27.235898 Z-0.125000
G01 X31.715826 Y31.064271 Z-0.125000
G01 X16.193279 Y31.642043 Z-0.125000
G00 Z5.000000

(End cutting path id: polyline459)


(Start cutting path id: polyline461)
(Change tool to Default tool)

G00 Z5.000000
G00 X141.685403 Y23.768641

G00 Z4.875000 (Fast pre-penetrate)
G01 Z-0.125000 F100.0(Penetrate)
G01 X125.826958 Y21.499472 Z-0.125000 F800.000000
G01 X114.663089 Y20.284159 Z-0.125000
G01 X95.376994 Y23.549668 Z-0.125000
G01 X87.998499 Y24.580622 Z-0.125000
G01 X70.994687 Y25.426663 Z-0.125000
G01 X58.526996 Y19.406146 Z-0.125000
G01 X43.253208 Y19.381352 Z-0.125000
G01 X28.964537 Y23.668713 Z-0.125000
G01 X13.965836 Y23.219838 Z-0.125000
G00 Z5.000000

(End cutting path id: polyline461)


(Start cutting path id: polyline463)
(Change tool to Default tool)

G00 Z5.000000
G00 X142.314493 Y22.700365

G00 Z4.875000 (Fast pre-penetrate)
G01 Z-0.125000 F100.0(Penetrate)
G01 X126.246830 Y20.203577 Z-0.125000 F800.000000
G01 X114.947539 Y18.935446 Z-0.125000
G01 X95.799737 Y22.520965 Z-0.125000
G01 X87.490150 Y23.395650 Z-0.125000
G01 X70.335126 Y23.461974 Z-0.125000
G01 X58.051076 Y19.052468 Z-0.125000
G01 X44.431395 Y18.153642 Z-0.125000
G01 X28.695062 Y22.231100 Z-0.125000
G01 X13.338931 Y21.542796 Z-0.125000
G00 Z5.000000

(End cutting path id: polyline463)


(Start cutting path id: polyline465)
(Change tool to Default tool)

G00 Z5.000000
G00 X142.450177 Y30.923498

G00 Z4.875000 (Fast pre-penetrate)
G01 Z-0.125000 F100.0(Penetrate)
G01 X126.316483 Y30.608675 Z-0.125000 F800.000000
G01 X114.826177 Y29.972570 Z-0.125000
G01 X96.853201 Y32.896212 Z-0.125000
G01 X88.884961 Y30.913515 Z-0.125000
G01 X72.947272 Y35.864124 Z-0.125000
G01 X58.169175 Y26.700406 Z-0.125000
G01 X41.562758 Y28.626402 Z-0.125000
G01 X32.363447 Y32.091832 Z-0.125000
G01 X16.308833 Y32.772403 Z-0.125000
G00 Z5.000000

(End cutting path id: polyline465)


(Start cutting path id: polyline467)
(Change tool to Default tool)

G00 Z5.000000
G00 X143.113197 Y31.910996

G00 Z4.875000 (Fast pre-penetrate)
G01 Z-0.125000 F100.0(Penetrate)
G01 X126.753776 Y31.913933 Z-0.125000 F800.000000
G01 X115.080319 Y31.383041 Z-0.125000
G01 X97.539319 Y34.461255 Z-0.125000
G01 X88.725298 Y31.607886 Z-0.125000
G01 X72.940748 Y36.999867 Z-0.125000
G01 X57.722779 Y28.258598 Z-0.125000
G01 X42.023801 Y30.016776 Z-0.125000
G01 X33.011100 Y33.119295 Z-0.125000
G01 X16.424388 Y33.902665 Z-0.125000
G00 Z5.000000

(End cutting path id: polyline467)


(Start cutting path id: polyline469)
(Change tool to Default tool)

G00 Z5.000000
G00 X143.037411 Y44.878978

G00 Z4.875000 (Fast pre-penetrate)
G01 Z-0.125000 F100.0(Penetrate)
G01 X125.758317 Y48.816838 Z-0.125000 F800.000000
G01 X115.618649 Y47.077973 Z-0.125000
G01 X98.932890 Y51.312549 Z-0.125000
G01 X86.248444 Y47.844444 Z-0.125000
G01 X69.391800 Y50.906118 Z-0.125000
G01 X56.882252 Y44.376208 Z-0.125000
G01 X42.248940 Y46.841677 Z-0.125000
G01 X31.426874 Y44.604838 Z-0.125000
G01 X15.787370 Y48.879965 Z-0.125000
G00 Z5.000000

(End cutting path id: polyline469)


(Start cutting path id: polyline471)
(Change tool to Default tool)

G00 Z5.000000
G00 X142.720305 Y58.346076

G00 Z4.875000 (Fast pre-penetrate)
G01 Z-0.125000 F100.0(Penetrate)
G01 X128.131394 Y61.803056 Z-0.125000 F800.000000
G01 X113.293790 Y61.756991 Z-0.125000
G01 X94.885936 Y62.017756 Z-0.125000
G01 X85.124740 Y60.899336 Z-0.125000
G01 X69.988952 Y61.146170 Z-0.125000
G01 X58.259054 Y59.717300 Z-0.125000
G01 X43.566530 Y59.201154 Z-0.125000
G01 X27.728541 Y60.167806 Z-0.125000
G01 X17.227822 Y61.864390 Z-0.125000
G00 Z5.000000

(End cutting path id: polyline471)


(Start cutting path id: polyline473)
(Change tool to Default tool)

G00 Z5.000000
G00 X142.748883 Y70.731685

G00 Z4.875000 (Fast pre-penetrate)
G01 Z-0.125000 F100.0(Penetrate)
G01 X131.122535 Y71.276801 Z-0.125000 F800.000000
G01 X115.041822 Y74.676885 Z-0.125000
G01 X96.875582 Y69.038690 Z-0.125000
G01 X85.459398 Y68.479089 Z-0.125000
G01 X73.481329 Y73.223025 Z-0.125000
G01 X59.277187 Y72.585843 Z-0.125000
G01 X43.955116 Y69.830869 Z-0.125000
G01 X27.727595 Y74.027829 Z-0.125000
G01 X20.744210 Y72.134391 Z-0.125000
G00 Z5.000000

(End cutting path id: polyline473)


(Start cutting path id: polyline475)
(Change tool to Default tool)

G00 Z5.000000
G00 X143.379474 Y69.218221

G00 Z4.875000 (Fast pre-penetrate)
G01 Z-0.125000 F100.0(Penetrate)
G01 X131.497484 Y70.039076 Z-0.125000 F800.000000
G01 X114.291696 Y73.249581 Z-0.125000
G01 X96.007781 Y68.218488 Z-0.125000
G01 X85.405340 Y67.208511 Z-0.125000
G01 X73.341959 Y71.106080 Z-0.125000
G01 X58.990421 Y71.389811 Z-0.125000
G01 X44.573636 Y68.275776 Z-0.125000
G01 X27.906994 Y72.881483 Z-0.125000
G01 X20.396176 Y70.849230 Z-0.125000
G00 Z5.000000

(End cutting path id: polyline475)


(Start cutting path id: polyline477)
(Change tool to Default tool)

G00 Z5.000000
G00 X143.230513 Y59.612413

G00 Z4.875000 (Fast pre-penetrate)
G01 Z-0.125000 F100.0(Penetrate)
G01 X129.029601 Y62.707625 Z-0.125000 F800.000000
G01 X113.043303 Y63.199140 Z-0.125000
G01 X94.589644 Y62.765794 Z-0.125000
G01 X85.148425 Y61.398811 Z-0.125000
G01 X70.575957 Y61.867978 Z-0.125000
G01 X58.233281 Y61.334215 Z-0.125000
G01 X44.139083 Y60.083049 Z-0.125000
G01 X27.871858 Y62.022747 Z-0.125000
G01 X17.652653 Y62.890255 Z-0.125000
G00 Z5.000000

(End cutting path id: polyline477)


(Start cutting path id: polyline479)
(Change tool to Default tool)

G00 Z5.000000
G00 X143.740721 Y60.878750

G00 Z4.875000 (Fast pre-penetrate)
G01 Z-0.125000 F100.0(Penetrate)
G01 X129.927775 Y63.612226 Z-0.125000 F800.000000
G01 X112.792782 Y64.641255 Z-0.125000
G01 X94.293351 Y63.513832 Z-0.125000
G01 X85.172110 Y61.898286 Z-0.125000
G01 X71.162962 Y62.589787 Z-0.125000
G01 X58.207476 Y62.951099 Z-0.125000
G01 X44.711603 Y60.964911 Z-0.125000
G01 X28.015176 Y63.877656 Z-0.125000
G01 X18.077516 Y63.916152 Z-0.125000
G00 Z5.000000

(End cutting path id: polyline479)


(Start cutting path id: polyline481)
(Change tool to Default tool)

G00 Z5.000000
G00 X144.010098 Y67.704723

G00 Z4.875000 (Fast pre-penetrate)
G01 Z-0.125000 F100.0(Penetrate)
G01 X131.872432 Y68.801383 Z-0.125000 F800.000000
G01 X113.541570 Y71.822276 Z-0.125000
G01 X95.140012 Y67.398318 Z-0.125000
G01 X85.351281 Y65.937933 Z-0.125000
G01 X73.202654 Y68.989134 Z-0.125000
G01 X58.703623 Y70.193812 Z-0.125000
G01 X45.192156 Y66.720715 Z-0.125000
G01 X28.086394 Y71.735170 Z-0.125000
G01 X20.048142 Y69.564101 Z-0.125000
G00 Z5.000000

(End cutting path id: polyline481)


(Start cutting path id: polyline483)
(Change tool to Default tool)

G00 Z5.000000
G00 X144.250897 Y62.145087

G00 Z4.875000 (Fast pre-penetrate)
G01 Z-0.125000 F100.0(Penetrate)
G01 X130.825949 Y64.516794 Z-0.125000 F800.000000
G01 X112.542294 Y66.083404 Z-0.125000
G01 X93.997027 Y64.261870 Z-0.125000
G01 X85.195795 Y62.397761 Z-0.125000
G01 X71.749968 Y63.311595 Z-0.125000
G01 X58.181670 Y64.567982 Z-0.125000
G01 X45.284123 Y61.846773 Z-0.125000
G01 X28.158526 Y65.732597 Z-0.125000
G01 X18.502347 Y64.942017 Z-0.125000
G00 Z5.000000

(End cutting path id: polyline483)


(Start cutting path id: polyline485)
(Change tool to Default tool)

G00 Z5.000000
G00 X144.640690 Y66.191259

G00 Z4.875000 (Fast pre-penetrate)
G01 Z-0.125000 F100.0(Penetrate)
G01 X132.247381 Y67.563657 Z-0.125000 F800.000000
G01 X112.791445 Y70.394972 Z-0.125000
G01 X85.297223 Y64.667322 Z-0.125000
G01 X73.063284 Y66.872189 Z-0.125000
G01 X58.416857 Y68.997780 Z-0.125000
G01 X45.810676 Y65.165622 Z-0.125000
G01 X28.265794 Y70.588824 Z-0.125000
G01 X19.700109 Y68.278940 Z-0.125000
G00 Z5.000000

(End cutting path id: polyline485)


(Start cutting path id: polyline487)
(Change tool to Default tool)

G00 Z5.000000
G00 X143.101158 Y94.651056

G00 Z4.875000 (Fast pre-penetrate)
G01 Z-0.125000 F100.0(Penetrate)
G01 X122.845931 Y92.922109 Z-0.125000 F800.000000
G01 X110.620017 Y91.992420 Z-0.125000
G01 X101.002465 Y92.465013 Z-0.125000
G01 X91.898743 Y94.281327 Z-0.125000
G01 X67.989127 Y96.952686 Z-0.125000
G01 X62.400162 Y95.363468 Z-0.125000
G01 X40.533435 Y93.094201 Z-0.125000
G01 X30.930335 Y93.242706 Z-0.125000
G01 X14.496499 Y93.972376 Z-0.125000
G00 Z5.000000

(End cutting path id: polyline487)


(Start cutting path id: polyline489)
(Change tool to Default tool)

G00 Z5.000000
G00 X143.017380 Y97.673320

G00 Z4.875000 (Fast pre-penetrate)
G01 Z-0.125000 F100.0(Penetrate)
G01 X122.608526 Y97.242714 Z-0.125000 F800.000000
G01 X110.554247 Y95.088088 Z-0.125000
G01 X100.974049 Y96.787575 Z-0.125000
G01 X91.288509 Y96.836446 Z-0.125000
G01 X66.849110 Y99.211024 Z-0.125000
G01 X61.536341 Y98.981840 Z-0.125000
G01 X41.866684 Y97.286235 Z-0.125000
G01 X30.845871 Y95.787973 Z-0.125000
G01 X13.650361 Y98.813532 Z-0.125000
G00 Z5.000000

(End cutting path id: polyline489)


(Start cutting path id: polyline491)
(Change tool to Default tool)

G00 Z5.000000
G00 X143.713056 Y43.705163

G00 Z4.875000 (Fast pre-penetrate)
G01 Z-0.125000 F100.0(Penetrate)
G01 X126.361504 Y47.305102 Z-0.125000 F800.000000
G01 X115.783042 Y45.872741 Z-0.125000
G01 X99.386724 Y50.069146 Z-0.125000
G01 X86.501607 Y45.832842 Z-0.125000
G01 X69.976783 Y49.724277 Z-0.125000
G01 X56.575944 Y43.248263 Z-0.125000
G01 X42.672466 Y45.428042 Z-0.125000
G01 X32.338554 Y43.718148 Z-0.125000
G01 X16.009083 Y47.514125 Z-0.125000
G00 Z5.000000

(End cutting path id: polyline491)


(Start cutting path id: polyline493)
(Change tool to Default tool)

G00 Z5.000000
G00 X144.388734 Y42.531348

G00 Z4.875000 (Fast pre-penetrate)
G01 Z-0.125000 F100.0(Penetrate)
G01 X126.964724 Y45.793334 Z-0.125000 F800.000000
G01 X115.947435 Y44.667509 Z-0.125000
G01 X99.840590 Y48.825744 Z-0.125000
G01 X86.754770 Y43.821240 Z-0.125000
G01 X70.561766 Y48.542436 Z-0.125000
G01 X56.269637 Y42.120317 Z-0.125000
G01 X43.095992 Y44.014374 Z-0.125000
G01 X33.250202 Y42.831490 Z-0.125000
G01 X16.230796 Y46.148284 Z-0.125000
G00 Z5.000000

(End cutting path id: polyline493)


(Start cutting path id: polyline495)
(Change tool to Default tool)

G00 Z5.000000
G00 X143.776216 Y32.898528

G00 Z4.875000 (Fast pre-penetrate)
G01 Z-0.125000 F100.0(Penetrate)
G01 X127.191070 Y33.219419 Z-0.125000 F800.000000
G01 X115.334428 Y32.793707 Z-0.125000
G01 X98.225404 Y36.026461 Z-0.125000
G01 X88.565669 Y32.302453 Z-0.125000
G01 X72.934255 Y38.135805 Z-0.125000
G01 X57.276384 Y29.817019 Z-0.125000
G01 X42.484845 Y31.407346 Z-0.125000
G01 X33.658721 Y34.146954 Z-0.125000
G01 X16.539942 Y35.033123 Z-0.125000
G00 Z5.000000

(End cutting path id: polyline495)


(Start cutting path id: polyline497)
(Change tool to Default tool)

G00 Z5.000000
G00 X142.943649 Y21.632089

G00 Z4.875000 (Fast pre-penetrate)
G01 Z-0.125000 F100.0(Penetrate)
G01 X126.666735 Y18.907683 Z-0.125000 F800.000000
G01 X115.231988 Y17.586765 Z-0.125000
G01 X96.222447 Y21.492294 Z-0.125000
G01 X86.981801 Y22.210644 Z-0.125000
G01 X69.675564 Y21.497318 Z-0.125000
G01 X57.575155 Y18.698758 Z-0.125000
G01 X45.609614 Y16.925932 Z-0.125000
G01 X28.425587 Y20.793486 Z-0.125000
G01 X12.711994 Y19.865755 Z-0.125000
G00 Z5.000000

(End cutting path id: polyline497)


(Start cutting path id: polyline499)
(Change tool to Default tool)

G00 Z5.000000
G00 X143.572740 Y20.563812

G00 Z4.875000 (Fast pre-penetrate)
G01 Z-0.125000 F100.0(Penetrate)
G01 X127.086640 Y17.611821 Z-0.125000 F800.000000
G01 X115.516438 Y16.238053 Z-0.125000
G01 X96.645190 Y20.463591 Z-0.125000
G01 X86.473453 Y21.025639 Z-0.125000
G01 X69.015970 Y19.532630 Z-0.125000
G01 X57.099235 Y18.345080 Z-0.125000
G01 X46.787801 Y15.698254 Z-0.125000
G01 X28.156145 Y19.355873 Z-0.125000
G01 X12.085089 Y18.188745 Z-0.125000
G00 Z5.000000

(End cutting path id: polyline499)


(Start cutting path id: polyline501)
(Change tool to Default tool)

G00 Z5.000000
G00 X144.201863 Y19.495536

G00 Z4.875000 (Fast pre-penetrate)
G01 Z-0.125000 F100.0(Penetrate)
G01 X127.506545 Y16.315926 Z-0.125000 F800.000000
G01 X115.800887 Y14.889340 Z-0.125000
G01 X97.067901 Y19.434888 Z-0.125000
G01 X85.965104 Y19.840667 Z-0.125000
G01 X68.356442 Y17.567941 Z-0.125000
G01 X56.623315 Y17.991402 Z-0.125000
G01 X47.966020 Y14.470544 Z-0.125000
G01 X27.886670 Y17.918259 Z-0.125000
G01 X11.458184 Y16.511703 Z-0.125000
G00 Z5.000000

(End cutting path id: polyline501)


(Start cutting path id: polyline503)
(Change tool to Default tool)

G00 Z5.000000
G00 X144.830986 Y18.427260

G00 Z4.875000 (Fast pre-penetrate)
G01 Z-0.125000 F100.0(Penetrate)
G01 X127.926417 Y15.020032 Z-0.125000 F800.000000
G01 X116.085337 Y13.540627 Z-0.125000
G01 X97.490644 Y18.406218 Z-0.125000
G01 X85.456722 Y18.655661 Z-0.125000
G01 X67.696880 Y15.603253 Z-0.125000
G01 X56.147394 Y17.637724 Z-0.125000
G01 X49.144207 Y13.242834 Z-0.125000
G01 X27.617227 Y16.480645 Z-0.125000
G01 X10.831247 Y14.834662 Z-0.125000
G00 Z5.000000

(End cutting path id: polyline503)


(Start cutting path id: polyline505)
(Change tool to Default tool)

G00 Z5.000000
G00 X145.460109 Y17.358984

G00 Z4.875000 (Fast pre-penetrate)
G01 Z-0.125000 F100.0(Penetrate)
G01 X128.346322 Y13.724137 Z-0.125000 F800.000000
G01 X116.369786 Y12.191914 Z-0.125000
G01 X97.913354 Y17.377514 Z-0.125000
G01 X84.948374 Y17.470656 Z-0.125000
G01 X67.037319 Y13.638564 Z-0.125000
G01 X55.671474 Y17.284014 Z-0.125000
G01 X50.322426 Y12.015156 Z-0.125000
G01 X27.347752 Y15.043032 Z-0.125000
G01 X10.204342 Y13.157620 Z-0.125000
G00 Z5.000000

(End cutting path id: polyline505)


(Start cutting path id: polyline507)
(Change tool to Default tool)

G00 Z5.000000
G00 X144.439236 Y33.886027

G00 Z4.875000 (Fast pre-penetrate)
G01 Z-0.125000 F100.0(Penetrate)
G01 X127.628363 Y34.524807 Z-0.125000 F800.000000
G01 X115.588537 Y34.204275 Z-0.125000
G01 X98.911521 Y37.591603 Z-0.125000
G01 X88.406006 Y32.996955 Z-0.125000
G01 X72.927731 Y39.271646 Z-0.125000
G01 X56.829988 Y31.375309 Z-0.125000
G01 X42.945889 Y32.797850 Z-0.125000
G01 X34.306342 Y35.174516 Z-0.125000
G01 X16.655497 Y36.163483 Z-0.125000
G00 Z5.000000

(End cutting path id: polyline507)


(Start cutting path id: polyline509)
(Change tool to Default tool)

G00 Z5.000000
G00 X145.102255 Y34.873526

G00 Z4.875000 (Fast pre-penetrate)
G01 Z-0.125000 F100.0(Penetrate)
G01 X128.065657 Y35.830195 Z-0.125000 F800.000000
G01 X115.842646 Y35.614843 Z-0.125000
G01 X99.597606 Y39.156744 Z-0.125000
G01 X88.246344 Y33.691424 Z-0.125000
G01 X72.921206 Y40.407519 Z-0.125000
G01 X56.383593 Y32.933599 Z-0.125000
G01 X43.406933 Y34.188322 Z-0.125000
G01 X34.953996 Y36.202077 Z-0.125000
G01 X16.771052 Y37.293842 Z-0.125000
G00 Z5.000000

(End cutting path id: polyline509)


(Start cutting path id: polyline511)
(Change tool to Default tool)

G00 Z5.000000
G00 X145.064379 Y41.357533

G00 Z4.875000 (Fast pre-penetrate)
G01 Z-0.125000 F100.0(Penetrate)
G01 X127.567943 Y44.281598 Z-0.125000 F800.000000
G01 X116.111828 Y43.462244 Z-0.125000
G01 X100.294424 Y47.582309 Z-0.125000
G01 X87.007901 Y41.809638 Z-0.125000
G01 X71.146716 Y47.360563 Z-0.125000
G01 X55.963329 Y40.992371 Z-0.125000
G01 X43.519519 Y42.600740 Z-0.125000
G01 X34.161883 Y41.944799 Z-0.125000
G01 X16.452542 Y44.782444 Z-0.125000
G00 Z5.000000

(End cutting path id: polyline511)


(Start cutting path id: polyline513)
(Change tool to Default tool)

G00 Z5.000000
G00 X145.740056 Y40.183685

G00 Z4.875000 (Fast pre-penetrate)
G01 Z-0.125000 F100.0(Penetrate)
G01 X128.171163 Y42.769830 Z-0.125000 F800.000000
G01 X116.276220 Y42.257012 Z-0.125000
G01 X100.748258 Y46.338907 Z-0.125000
G01 X87.261064 Y39.798036 Z-0.125000
G01 X71.731698 Y46.178755 Z-0.125000
G01 X55.657021 Y39.864426 Z-0.125000
G01 X43.943012 Y41.187072 Z-0.125000
G01 X35.073563 Y41.058142 Z-0.125000
G01 X16.674256 Y43.416603 Z-0.125000
G00 Z5.000000

(End cutting path id: polyline513)


(Start cutting path id: polyline515)
(Change tool to Default tool)

G00 Z5.000000
G00 X145.765308 Y35.861057

G00 Z4.875000 (Fast pre-penetrate)
G01 Z-0.125000 F100.0(Penetrate)
G01 X128.502950 Y37.135583 Z-0.125000 F800.000000
G01 X116.096755 Y37.025411 Z-0.125000
G01 X100.283723 Y40.721852 Z-0.125000
G01 X88.086682 Y34.385893 Z-0.125000
G01 X72.914681 Y41.543360 Z-0.125000
G01 X55.937197 Y34.491922 Z-0.125000
G01 X43.867977 Y35.578826 Z-0.125000
G01 X35.601617 Y37.229671 Z-0.125000
G01 X16.886606 Y38.424235 Z-0.125000
G00 Z5.000000

(End cutting path id: polyline515)



(Footer)
M5
G00 X0.0000 Y0.0000
M2
(Using default footer. To add your own footer create file "footer" in the output dir.)
(end)
%