%
(Header)
(Generated by gcodetools from Inkscape.)
(Using default header. To add your own header create file "header" in the output dir.)
M3
(Header end.)
G21 (All units in mm)

(Start cutting path id: path10740)
(Change tool to Default tool)

G00 Z3.000000
G00 X160.055513 Y221.252861

G00 Z4.875000 (Fast pre-penetrate)
G01 Z-0.125000 F400.0(Penetrate)
G01 X172.737823 Y187.403912 Z-0.125000 F800.000000
G01 X160.442117 Y178.532979 Z-0.125000
G01 X166.148238 Y151.660218 Z-0.125000
G01 X169.252212 Y127.389604 Z-0.125000
G01 X164.707406 Y110.767769 Z-0.125000
G01 X176.551118 Y77.757418 Z-0.125000
G01 X170.126958 Y63.014938 Z-0.125000
G00 Z3.000000

(End cutting path id: path10740)


(Start cutting path id: path10688)
(Change tool to Default tool)

G00 Z3.000000
G00 X145.359827 Y214.781908

G00 Z4.875000 (Fast pre-penetrate)
G01 Z-0.125000 F400.0(Penetrate)
G01 X146.973281 Y192.001815 Z-0.125000 F800.000000
G01 X153.417351 Y164.391105 Z-0.125000
G01 X152.423527 Y144.218289 Z-0.125000
G01 X154.732709 Y120.742466 Z-0.125000
G01 X150.482501 Y103.826035 Z-0.125000
G01 X143.799219 Y89.342677 Z-0.125000
G01 X143.982538 Y67.992718 Z-0.125000
G00 Z3.000000

(End cutting path id: path10688)


(Start cutting path id: path10686)
(Change tool to Default tool)

G00 Z3.000000
G00 X144.462333 Y214.865299

G00 Z4.875000 (Fast pre-penetrate)
G01 Z-0.125000 F400.0(Penetrate)
G01 X146.162517 Y191.998478 Z-0.125000 F800.000000
G01 X152.382791 Y164.611561 Z-0.125000
G01 X151.213798 Y144.613915 Z-0.125000
G01 X153.913552 Y120.747523 Z-0.125000
G01 X149.827629 Y103.666806 Z-0.125000
G01 X142.981229 Y89.346566 Z-0.125000
G01 X143.524201 Y67.636954 Z-0.125000
G00 Z3.000000

(End cutting path id: path10686)


(Start cutting path id: path10684)
(Change tool to Default tool)

G00 Z3.000000
G00 X143.564841 Y214.948691

G00 Z4.875000 (Fast pre-penetrate)
G01 Z-0.125000 F400.0(Penetrate)
G01 X145.351752 Y191.995142 Z-0.125000 F800.000000
G01 X151.348235 Y164.832017 Z-0.125000
G01 X150.004071 Y145.009543 Z-0.125000
G01 X153.094393 Y120.752579 Z-0.125000
G01 X149.172757 Y103.507575 Z-0.125000
G01 X142.163239 Y89.350455 Z-0.125000
G01 X143.065864 Y67.281188 Z-0.125000
G00 Z3.000000

(End cutting path id: path10684)


(Start cutting path id: path10682)
(Change tool to Default tool)

G00 Z3.000000
G00 X142.667349 Y215.032082

G00 Z4.875000 (Fast pre-penetrate)
G01 Z-0.125000 F400.0(Penetrate)
G01 X144.540985 Y191.991805 Z-0.125000 F800.000000
G01 X150.313678 Y165.052472 Z-0.125000
G01 X148.794342 Y145.405169 Z-0.125000
G01 X152.275236 Y120.757635 Z-0.125000
G01 X148.517885 Y103.348346 Z-0.125000
G01 X141.345246 Y89.354345 Z-0.125000
G01 X142.607526 Y66.925424 Z-0.125000
G00 Z3.000000

(End cutting path id: path10682)


(Start cutting path id: path10690)
(Change tool to Default tool)

G00 Z3.000000
G00 X145.925045 Y215.030791

G00 Z4.875000 (Fast pre-penetrate)
G01 Z-0.125000 F400.0(Penetrate)
G01 X147.964226 Y191.824973 Z-0.125000 F800.000000
G01 X153.687532 Y164.935024 Z-0.125000
G01 X152.951401 Y144.504517 Z-0.125000
G01 X155.291151 Y120.998125 Z-0.125000
G01 X151.029611 Y104.093025 Z-0.125000
G01 X145.058909 Y88.897090 Z-0.125000
G01 X144.988093 Y67.801265 Z-0.125000
G00 Z3.000000

(End cutting path id: path10690)


(Start cutting path id: path10680)
(Change tool to Default tool)

G00 Z3.000000
G00 X141.769857 Y215.115473

G00 Z4.875000 (Fast pre-penetrate)
G01 Z-0.125000 F400.0(Penetrate)
G01 X143.730221 Y191.988469 Z-0.125000 F800.000000
G01 X149.279122 Y165.272928 Z-0.125000
G01 X147.584613 Y145.800794 Z-0.125000
G01 X151.456076 Y120.762691 Z-0.125000
G01 X147.863013 Y103.189115 Z-0.125000
G01 X140.527256 Y89.358234 Z-0.125000
G01 X142.149189 Y66.569658 Z-0.125000
G00 Z3.000000

(End cutting path id: path10680)


(Start cutting path id: path10678)
(Change tool to Default tool)

G00 Z3.000000
G00 X140.872362 Y215.198865

G00 Z4.875000 (Fast pre-penetrate)
G01 Z-0.125000 F400.0(Penetrate)
G01 X142.919454 Y191.985133 Z-0.125000 F800.000000
G01 X148.244565 Y165.493384 Z-0.125000
G01 X146.374887 Y146.196423 Z-0.125000
G01 X150.636919 Y120.767750 Z-0.125000
G01 X147.208141 Y103.029886 Z-0.125000
G01 X139.709266 Y89.362123 Z-0.125000
G01 X141.690855 Y66.213894 Z-0.125000
G00 Z3.000000

(End cutting path id: path10678)


(Start cutting path id: path10676)
(Change tool to Default tool)

G00 Z3.000000
G00 X139.974870 Y215.282256

G00 Z4.875000 (Fast pre-penetrate)
G01 Z-0.125000 F400.0(Penetrate)
G01 X142.108690 Y191.981796 Z-0.125000 F800.000000
G01 X147.210006 Y165.713840 Z-0.125000
G01 X145.165158 Y146.592048 Z-0.125000
G01 X149.817760 Y120.772806 Z-0.125000
G01 X146.553271 Y102.870657 Z-0.125000
G01 X138.891273 Y89.366013 Z-0.125000
G01 X141.232518 Y65.858128 Z-0.125000
G00 Z3.000000

(End cutting path id: path10676)


(Start cutting path id: path10692)
(Change tool to Default tool)

G00 Z3.000000
G00 X146.490263 Y215.279674

G00 Z4.875000 (Fast pre-penetrate)
G01 Z-0.125000 F400.0(Penetrate)
G01 X148.955169 Y191.648128 Z-0.125000 F800.000000
G01 X153.957716 Y165.478943 Z-0.125000
G01 X153.479274 Y144.790746 Z-0.125000
G01 X155.849596 Y121.253784 Z-0.125000
G01 X151.576723 Y104.360016 Z-0.125000
G01 X146.318597 Y88.451503 Z-0.125000
G01 X145.993646 Y67.609811 Z-0.125000
G00 Z3.000000

(End cutting path id: path10692)


(Start cutting path id: path10674)
(Change tool to Default tool)

G00 Z3.000000
G00 X139.077378 Y215.365647

G00 Z4.875000 (Fast pre-penetrate)
G01 Z-0.125000 F400.0(Penetrate)
G01 X141.297925 Y191.978460 Z-0.125000 F800.000000
G01 X146.175449 Y165.934296 Z-0.125000
G01 X143.955429 Y146.987674 Z-0.125000
G01 X148.998603 Y120.777862 Z-0.125000
G01 X145.898399 Y102.711426 Z-0.125000
G01 X138.073283 Y89.369902 Z-0.125000
G01 X140.774181 Y65.502365 Z-0.125000
G00 Z3.000000

(End cutting path id: path10674)


(Start cutting path id: path10672)
(Change tool to Default tool)

G00 Z3.000000
G00 X138.179886 Y215.449038

G00 Z4.875000 (Fast pre-penetrate)
G01 Z-0.125000 F400.0(Penetrate)
G01 X140.487158 Y191.975123 Z-0.125000 F800.000000
G01 X145.140893 Y166.154752 Z-0.125000
G01 X142.745702 Y147.383302 Z-0.125000
G01 X148.179443 Y120.782918 Z-0.125000
G01 X145.243527 Y102.552197 Z-0.125000
G01 X137.255293 Y89.373792 Z-0.125000
G01 X140.315843 Y65.146601 Z-0.125000
G00 Z3.000000

(End cutting path id: path10672)


(Start cutting path id: path10670)
(Change tool to Default tool)

G00 Z3.000000
G00 X137.282391 Y215.532430

G00 Z4.875000 (Fast pre-penetrate)
G01 Z-0.125000 F400.0(Penetrate)
G01 X139.676394 Y191.971787 Z-0.125000 F800.000000
G01 X144.106336 Y166.375207 Z-0.125000
G01 X141.535973 Y147.778928 Z-0.125000
G01 X147.360286 Y120.787975 Z-0.125000
G01 X144.588655 Y102.392966 Z-0.125000
G01 X136.437300 Y89.377681 Z-0.125000
G01 X139.857506 Y64.790835 Z-0.125000
G00 Z3.000000

(End cutting path id: path10670)


(Start cutting path id: path10668)
(Change tool to Default tool)

G00 Z3.000000
G00 X136.384899 Y215.615821

G00 Z4.875000 (Fast pre-penetrate)
G01 Z-0.125000 F400.0(Penetrate)
G01 X138.865630 Y191.968451 Z-0.125000 F800.000000
G01 X143.071777 Y166.595661 Z-0.125000
G01 X140.326244 Y148.174553 Z-0.125000
G01 X146.541127 Y120.793033 Z-0.125000
G01 X143.933783 Y102.233737 Z-0.125000
G01 X135.619310 Y89.381570 Z-0.125000
G01 X139.399169 Y64.435071 Z-0.125000
G00 Z3.000000

(End cutting path id: path10668)


(Start cutting path id: path10694)
(Change tool to Default tool)

G00 Z3.000000
G00 X147.055482 Y215.528556

G00 Z4.875000 (Fast pre-penetrate)
G01 Z-0.125000 F400.0(Penetrate)
G01 X149.946114 Y191.471286 Z-0.125000 F800.000000
G01 X154.227901 Y166.022860 Z-0.125000
G01 X154.007148 Y145.076972 Z-0.125000
G01 X156.408038 Y121.509442 Z-0.125000
G01 X152.123836 Y104.627004 Z-0.125000
G01 X147.578284 Y88.005916 Z-0.125000
G01 X146.999202 Y67.418358 Z-0.125000
G00 Z3.000000

(End cutting path id: path10694)


(Start cutting path id: path10696)
(Change tool to Default tool)

G00 Z3.000000
G00 X147.620702 Y215.777439

G00 Z4.875000 (Fast pre-penetrate)
G01 Z-0.125000 F400.0(Penetrate)
G01 X150.937057 Y191.294444 Z-0.125000 F800.000000
G01 X154.498082 Y166.566779 Z-0.125000
G01 X154.535021 Y145.363200 Z-0.125000
G01 X156.966480 Y121.765101 Z-0.125000
G01 X152.670946 Y104.893995 Z-0.125000
G01 X148.837972 Y87.560329 Z-0.125000
G01 X148.004755 Y67.226906 Z-0.125000
G00 Z3.000000

(End cutting path id: path10696)


(Start cutting path id: path10698)
(Change tool to Default tool)

G00 Z3.000000
G00 X148.185920 Y216.026324

G00 Z4.875000 (Fast pre-penetrate)
G01 Z-0.125000 F400.0(Penetrate)
G01 X151.928000 Y191.117602 Z-0.125000 F800.000000
G01 X154.768266 Y167.110698 Z-0.125000
G01 X155.062896 Y145.649429 Z-0.125000
G01 X157.524922 Y122.020762 Z-0.125000
G01 X153.218059 Y105.160983 Z-0.125000
G01 X150.097662 Y87.114742 Z-0.125000
G01 X149.010311 Y67.035454 Z-0.125000
G00 Z3.000000

(End cutting path id: path10698)


(Start cutting path id: path10700)
(Change tool to Default tool)

G00 Z3.000000
G00 X148.751138 Y216.275207

G00 Z4.875000 (Fast pre-penetrate)
G01 Z-0.125000 F400.0(Penetrate)
G01 X152.918945 Y190.940760 Z-0.125000 F800.000000
G01 X155.038451 Y167.654614 Z-0.125000
G01 X155.590768 Y145.935657 Z-0.125000
G01 X158.083364 Y122.276421 Z-0.125000
G01 X153.765171 Y105.427974 Z-0.125000
G01 X151.357350 Y86.669155 Z-0.125000
G01 X150.015866 Y66.843999 Z-0.125000
G00 Z3.000000

(End cutting path id: path10700)


(Start cutting path id: path10666)
(Change tool to Default tool)

G00 Z3.000000
G00 X135.487407 Y215.699212

G00 Z4.875000 (Fast pre-penetrate)
G01 Z-0.125000 F400.0(Penetrate)
G01 X138.054863 Y191.965114 Z-0.125000 F800.000000
G01 X142.037220 Y166.816117 Z-0.125000
G01 X139.116518 Y148.570182 Z-0.125000
G01 X145.721970 Y120.798090 Z-0.125000
G01 X143.278911 Y102.074506 Z-0.125000
G01 X134.801320 Y89.385460 Z-0.125000
G01 X138.940832 Y64.079305 Z-0.125000
G00 Z3.000000

(End cutting path id: path10666)


(Start cutting path id: path10664)
(Change tool to Default tool)

G00 Z3.000000
G00 X134.589913 Y215.782603

G00 Z4.875000 (Fast pre-penetrate)
G01 Z-0.125000 F400.0(Penetrate)
G01 X137.244098 Y191.961778 Z-0.125000 F800.000000
G01 X141.002664 Y167.036572 Z-0.125000
G01 X137.906789 Y148.965807 Z-0.125000
G01 X144.902810 Y120.803146 Z-0.125000
G01 X142.624042 Y101.915277 Z-0.125000
G01 X133.983327 Y89.389349 Z-0.125000
G01 X138.482495 Y63.723541 Z-0.125000
G00 Z3.000000

(End cutting path id: path10664)


(Start cutting path id: path10662)
(Change tool to Default tool)

G00 Z3.000000
G00 X133.692421 Y215.865995

G00 Z4.875000 (Fast pre-penetrate)
G01 Z-0.125000 F400.0(Penetrate)
G01 X136.433334 Y191.958442 Z-0.125000 F800.000000
G01 X139.968107 Y167.257028 Z-0.125000
G01 X136.697060 Y149.361436 Z-0.125000
G01 X144.083654 Y120.808202 Z-0.125000
G01 X141.969170 Y101.756046 Z-0.125000
G01 X133.165337 Y89.393238 Z-0.125000
G01 X138.024160 Y63.367775 Z-0.125000
G00 Z3.000000

(End cutting path id: path10662)


(Start cutting path id: path10660)
(Change tool to Default tool)

G00 Z3.000000
G00 X132.794929 Y215.949386

G00 Z4.875000 (Fast pre-penetrate)
G01 Z-0.125000 F400.0(Penetrate)
G01 X135.622567 Y191.955105 Z-0.125000 F800.000000
G01 X138.933551 Y167.477484 Z-0.125000
G01 X135.487333 Y149.757061 Z-0.125000
G01 X143.264494 Y120.813258 Z-0.125000
G01 X141.314298 Y101.596817 Z-0.125000
G01 X132.347344 Y89.397128 Z-0.125000
G01 X137.565823 Y63.012011 Z-0.125000
G00 Z3.000000

(End cutting path id: path10660)


(Start cutting path id: path10658)
(Change tool to Default tool)

G00 Z3.000000
G00 X131.897437 Y216.032777

G00 Z4.875000 (Fast pre-penetrate)
G01 Z-0.125000 F400.0(Penetrate)
G01 X134.811803 Y191.951769 Z-0.125000 F800.000000
G01 X137.898991 Y167.697940 Z-0.125000
G01 X134.277604 Y150.152687 Z-0.125000
G01 X142.445337 Y120.818314 Z-0.125000
G01 X140.659426 Y101.437586 Z-0.125000
G01 X131.529354 Y89.401017 Z-0.125000
G01 X137.107486 Y62.656248 Z-0.125000
G00 Z3.000000

(End cutting path id: path10658)


(Start cutting path id: path10656)
(Change tool to Default tool)

G00 Z3.000000
G00 X130.999942 Y216.116169

G00 Z4.875000 (Fast pre-penetrate)
G01 Z-0.125000 F400.0(Penetrate)
G01 X134.001038 Y191.948435 Z-0.125000 F800.000000
G01 X136.864435 Y167.918396 Z-0.125000
G01 X133.067875 Y150.548315 Z-0.125000
G01 X141.626178 Y120.823373 Z-0.125000
G01 X140.004554 Y101.278357 Z-0.125000
G01 X130.711364 Y89.404907 Z-0.125000
G01 X136.649149 Y62.300482 Z-0.125000
G00 Z3.000000

(End cutting path id: path10656)


(Start cutting path id: path10654)
(Change tool to Default tool)

G00 Z3.000000
G00 X130.102450 Y216.199560

G00 Z4.875000 (Fast pre-penetrate)
G01 Z-0.125000 F400.0(Penetrate)
G01 X133.190271 Y191.945099 Z-0.125000 F800.000000
G01 X135.829878 Y168.138852 Z-0.125000
G01 X131.858149 Y150.943941 Z-0.125000
G01 X140.807021 Y120.828429 Z-0.125000
G01 X139.349682 Y101.119128 Z-0.125000
G01 X129.893371 Y89.408796 Z-0.125000
G01 X136.190812 Y61.944718 Z-0.125000
G00 Z3.000000

(End cutting path id: path10654)


(Start cutting path id: path10652)
(Change tool to Default tool)

G00 Z3.000000
G00 X129.204958 Y216.282951

G00 Z4.875000 (Fast pre-penetrate)
G01 Z-0.125000 F400.0(Penetrate)
G01 X132.379507 Y191.941762 Z-0.125000 F800.000000
G01 X134.795322 Y168.359307 Z-0.125000
G01 X130.648420 Y151.339567 Z-0.125000
G01 X139.987861 Y120.833486 Z-0.125000
G01 X138.694810 Y100.959897 Z-0.125000
G01 X129.075381 Y89.412685 Z-0.125000
G01 X135.732475 Y61.588952 Z-0.125000
G00 Z3.000000

(End cutting path id: path10652)


(Start cutting path id: path10650)
(Change tool to Default tool)

G00 Z3.000000
G00 X128.307466 Y216.366342

G00 Z4.875000 (Fast pre-penetrate)
G01 Z-0.125000 F400.0(Penetrate)
G01 X131.568740 Y191.938426 Z-0.125000 F800.000000
G01 X133.760763 Y168.579763 Z-0.125000
G01 X129.438691 Y151.735195 Z-0.125000
G01 X139.168704 Y120.838542 Z-0.125000
G01 X138.039940 Y100.800668 Z-0.125000
G01 X128.257391 Y89.416575 Z-0.125000
G01 X135.274138 Y61.233188 Z-0.125000
G00 Z3.000000

(End cutting path id: path10650)


(Start cutting path id: path10648)
(Change tool to Default tool)

G00 Z3.000000
G00 X127.409972 Y216.449734

G00 Z4.875000 (Fast pre-penetrate)
G01 Z-0.125000 F400.0(Penetrate)
G01 X130.757976 Y191.935089 Z-0.125000 F800.000000
G01 X132.726206 Y168.800219 Z-0.125000
G01 X128.228964 Y152.130821 Z-0.125000
G01 X138.349545 Y120.843598 Z-0.125000
G01 X137.385068 Y100.641437 Z-0.125000
G01 X127.439398 Y89.420464 Z-0.125000
G01 X134.815801 Y60.877422 Z-0.125000
G00 Z3.000000

(End cutting path id: path10648)


(Start cutting path id: path10646)
(Change tool to Default tool)

G00 Z3.000000
G00 X126.512480 Y216.533122

G00 Z4.875000 (Fast pre-penetrate)
G01 Z-0.125000 F400.0(Penetrate)
G01 X129.947211 Y191.931753 Z-0.125000 F800.000000
G01 X131.691649 Y169.020675 Z-0.125000
G01 X127.019235 Y152.526446 Z-0.125000
G01 X137.530388 Y120.848657 Z-0.125000
G01 X136.730196 Y100.482208 Z-0.125000
G01 X126.621408 Y89.424353 Z-0.125000
G01 X134.357466 Y60.521658 Z-0.125000
G00 Z3.000000

(End cutting path id: path10646)


(Start cutting path id: path10644)
(Change tool to Default tool)

G00 Z3.000000
G00 X125.614988 Y216.616514

G00 Z4.875000 (Fast pre-penetrate)
G01 Z-0.125000 F400.0(Penetrate)
G01 X129.136444 Y191.928417 Z-0.125000 F800.000000
G01 X130.657093 Y169.241128 Z-0.125000
G01 X125.809506 Y152.922075 Z-0.125000
G01 X136.711228 Y120.853713 Z-0.125000
G01 X136.075324 Y100.322977 Z-0.125000
G01 X125.803418 Y89.428243 Z-0.125000
G01 X133.899129 Y60.165895 Z-0.125000
G00 Z3.000000

(End cutting path id: path10644)


(Start cutting path id: path10642)
(Change tool to Default tool)

G00 Z3.000000
G00 X124.717496 Y216.699905

G00 Z4.875000 (Fast pre-penetrate)
G01 Z-0.125000 F400.0(Penetrate)
G01 X128.325680 Y191.925080 Z-0.125000 F800.000000
G01 X129.622536 Y169.461584 Z-0.125000
G01 X124.599780 Y153.317700 Z-0.125000
G01 X135.892071 Y120.858769 Z-0.125000
G01 X135.420452 Y100.163748 Z-0.125000
G01 X124.985426 Y89.432132 Z-0.125000
G01 X133.440792 Y59.810129 Z-0.125000
G00 Z3.000000

(End cutting path id: path10642)


(Start cutting path id: path10640)
(Change tool to Default tool)

G00 Z3.000000
G00 X123.820001 Y216.783296

G00 Z4.875000 (Fast pre-penetrate)
G01 Z-0.125000 F400.0(Penetrate)
G01 X127.514916 Y191.921744 Z-0.125000 F800.000000
G01 X128.587977 Y169.682040 Z-0.125000
G01 X123.390051 Y153.713329 Z-0.125000
G01 X135.072912 Y120.863825 Z-0.125000
G01 X134.765580 Y100.004517 Z-0.125000
G01 X124.167435 Y89.436022 Z-0.125000
G01 X132.982455 Y59.454365 Z-0.125000
G00 Z3.000000

(End cutting path id: path10640)


(Start cutting path id: path10638)
(Change tool to Default tool)

G00 Z3.000000
G00 X122.922509 Y216.866687

G00 Z4.875000 (Fast pre-penetrate)
G01 Z-0.125000 F400.0(Penetrate)
G01 X126.704149 Y191.918407 Z-0.125000 F800.000000
G01 X127.553420 Y169.902496 Z-0.125000
G01 X122.180322 Y154.108954 Z-0.125000
G01 X134.253755 Y120.868881 Z-0.125000
G01 X134.110708 Y99.845288 Z-0.125000
G01 X123.349445 Y89.439914 Z-0.125000
G01 X132.524117 Y59.098599 Z-0.125000
G00 Z3.000000

(End cutting path id: path10638)


(Start cutting path id: path10636)
(Change tool to Default tool)

G00 Z3.000000
G00 X122.025017 Y216.950079

G00 Z4.875000 (Fast pre-penetrate)
G01 Z-0.125000 F400.0(Penetrate)
G01 X125.893384 Y191.915071 Z-0.125000 F800.000000
G01 X126.518864 Y170.122952 Z-0.125000
G01 X120.970595 Y154.504580 Z-0.125000
G01 X133.434595 Y120.873940 Z-0.125000
G01 X133.455841 Y99.686057 Z-0.125000
G01 X122.531455 Y89.443803 Z-0.125000
G01 X132.065783 Y58.742835 Z-0.125000
G00 Z3.000000

(End cutting path id: path10636)


(Start cutting path id: path10634)
(Change tool to Default tool)

G00 Z3.000000
G00 X121.257046 Y216.903949

G00 Z4.875000 (Fast pre-penetrate)
G01 Z-0.125000 F400.0(Penetrate)
G01 X125.178894 Y191.815461 Z-0.125000 F800.000000
G01 X126.002874 Y169.824838 Z-0.125000
G01 X120.299737 Y154.361337 Z-0.125000
G01 X132.519098 Y120.975336 Z-0.125000
G01 X132.116242 Y100.211553 Z-0.125000
G01 X121.733002 Y89.428153 Z-0.125000
G01 X130.744313 Y59.250202 Z-0.125000
G00 Z3.000000

(End cutting path id: path10634)


(Start cutting path id: path10632)
(Change tool to Default tool)

G00 Z3.000000
G00 X120.489076 Y216.857816

G00 Z4.875000 (Fast pre-penetrate)
G01 Z-0.125000 F400.0(Penetrate)
G01 X124.464401 Y191.715851 Z-0.125000 F800.000000
G01 X125.486887 Y169.526724 Z-0.125000
G01 X119.628879 Y154.218092 Z-0.125000
G01 X131.603599 Y121.076735 Z-0.125000
G01 X130.776647 Y100.737047 Z-0.125000
G01 X120.934549 Y89.412503 Z-0.125000
G01 X129.422845 Y59.757567 Z-0.125000
G00 Z3.000000

(End cutting path id: path10632)


(Start cutting path id: path10630)
(Change tool to Default tool)

G00 Z3.000000
G00 X119.721105 Y216.811686

G00 Z4.875000 (Fast pre-penetrate)
G01 Z-0.125000 F400.0(Penetrate)
G01 X123.749910 Y191.616240 Z-0.125000 F800.000000
G01 X124.970900 Y169.228611 Z-0.125000
G01 X118.958021 Y154.074850 Z-0.125000
G01 X130.688099 Y121.178131 Z-0.125000
G01 X129.437050 Y101.262540 Z-0.125000
G01 X120.136095 Y89.396855 Z-0.125000
G01 X128.101377 Y60.264934 Z-0.125000
G00 Z3.000000

(End cutting path id: path10630)


(Start cutting path id: path10628)
(Change tool to Default tool)

G00 Z3.000000
G00 X118.953134 Y216.765553

G00 Z4.875000 (Fast pre-penetrate)
G01 Z-0.125000 F400.0(Penetrate)
G01 X123.035417 Y191.516630 Z-0.125000 F800.000000
G01 X124.454910 Y168.930497 Z-0.125000
G01 X118.287163 Y153.931604 Z-0.125000
G01 X129.772600 Y121.279530 Z-0.125000
G01 X128.097456 Y101.788034 Z-0.125000
G01 X119.337642 Y89.381205 Z-0.125000
G01 X126.779909 Y60.772301 Z-0.125000
G00 Z3.000000

(End cutting path id: path10628)


(Start cutting path id: path10624)
(Change tool to Default tool)

G00 Z3.000000
G00 X117.417195 Y216.673290

G00 Z4.875000 (Fast pre-penetrate)
G01 Z-0.125000 F400.0(Penetrate)
G01 X121.606436 Y191.317412 Z-0.125000 F800.000000
G01 X123.422936 Y168.334273 Z-0.125000
G01 X116.945449 Y153.645117 Z-0.125000
G01 X127.941601 Y121.482325 Z-0.125000
G01 X125.418265 Y102.839021 Z-0.125000
G01 X117.740738 Y89.349908 Z-0.125000
G01 X124.136974 Y61.787032 Z-0.125000
G00 Z3.000000

(End cutting path id: path10624)


(Start cutting path id: path10532)
(Change tool to Default tool)

G00 Z3.000000
G00 X85.259648 Y211.382167

G00 Z4.875000 (Fast pre-penetrate)
G01 Z-0.125000 F400.0(Penetrate)
G01 X77.471399 Y198.003777 Z-0.125000 F800.000000
G01 X89.738295 Y164.570241 Z-0.125000
G01 X82.834340 Y150.307555 Z-0.125000
G01 X84.245726 Y127.729529 Z-0.125000
G01 X87.420902 Y103.387713 Z-0.125000
G01 X90.698432 Y78.943543 Z-0.125000
G01 X84.219474 Y64.255861 Z-0.125000
G00 Z3.000000

(End cutting path id: path10532)


(Start cutting path id: path10530)
(Change tool to Default tool)

G00 Z3.000000
G00 X84.376023 Y211.451689

G00 Z4.875000 (Fast pre-penetrate)
G01 Z-0.125000 F400.0(Penetrate)
G01 X77.168999 Y197.492076 Z-0.125000 F800.000000
G01 X88.653978 Y164.840454 Z-0.125000
G01 X82.260777 Y150.067018 Z-0.125000
G01 X83.339754 Y127.821398 Z-0.125000
G01 X86.348410 Y103.646105 Z-0.125000
G01 X89.541069 Y79.286806 Z-0.125000
G01 X83.492800 Y64.168435 Z-0.125000
G00 Z3.000000

(End cutting path id: path10530)


(Start cutting path id: path10528)
(Change tool to Default tool)

G00 Z3.000000
G00 X83.492400 Y211.521214

G00 Z4.875000 (Fast pre-penetrate)
G01 Z-0.125000 F400.0(Penetrate)
G01 X76.866599 Y196.980372 Z-0.125000 F800.000000
G01 X87.569664 Y165.110670 Z-0.125000
G01 X81.687211 Y149.826480 Z-0.125000
G01 X82.433783 Y127.913269 Z-0.125000
G01 X85.275915 Y103.904497 Z-0.125000
G01 X88.383704 Y79.630068 Z-0.125000
G01 X82.766123 Y64.081009 Z-0.125000
G00 Z3.000000

(End cutting path id: path10528)


(Start cutting path id: path10534)
(Change tool to Default tool)

G00 Z3.000000
G00 X85.905731 Y211.550188

G00 Z4.875000 (Fast pre-penetrate)
G01 Z-0.125000 F400.0(Penetrate)
G01 X78.619292 Y197.669987 Z-0.125000 F800.000000
G01 X90.636946 Y164.485693 Z-0.125000
G01 X83.630261 Y150.325735 Z-0.125000
G01 X85.222109 Y127.567250 Z-0.125000
G01 X87.851881 Y103.770835 Z-0.125000
G01 X91.124326 Y79.331750 Z-0.125000
G01 X84.738250 Y64.551186 Z-0.125000
G00 Z3.000000

(End cutting path id: path10534)


(Start cutting path id: path10526)
(Change tool to Default tool)

G00 Z3.000000
G00 X82.608775 Y211.590736

G00 Z4.875000 (Fast pre-penetrate)
G01 Z-0.125000 F400.0(Penetrate)
G01 X76.564199 Y196.468672 Z-0.125000 F800.000000
G01 X86.485347 Y165.380883 Z-0.125000
G01 X81.113648 Y149.585942 Z-0.125000
G01 X81.527811 Y128.005140 Z-0.125000
G01 X84.203422 Y104.162889 Z-0.125000
G01 X87.226338 Y79.973332 Z-0.125000
G01 X82.039445 Y63.993585 Z-0.125000
G00 Z3.000000

(End cutting path id: path10526)


(Start cutting path id: path10524)
(Change tool to Default tool)

G00 Z3.000000
G00 X81.725153 Y211.660257

G00 Z4.875000 (Fast pre-penetrate)
G01 Z-0.125000 F400.0(Penetrate)
G01 X76.261799 Y195.956971 Z-0.125000 F800.000000
G01 X85.401031 Y165.651099 Z-0.125000
G01 X80.540083 Y149.345405 Z-0.125000
G01 X80.621839 Y128.097011 Z-0.125000
G01 X83.130927 Y104.421280 Z-0.125000
G01 X86.068976 Y80.316594 Z-0.125000
G01 X81.312771 Y63.906159 Z-0.125000
G00 Z3.000000

(End cutting path id: path10524)


(Start cutting path id: path10522)
(Change tool to Default tool)

G00 Z3.000000
G00 X80.841530 Y211.729779

G00 Z4.875000 (Fast pre-penetrate)
G01 Z-0.125000 F400.0(Penetrate)
G01 X75.959399 Y195.445267 Z-0.125000 F800.000000
G01 X84.316714 Y165.921315 Z-0.125000
G01 X79.966520 Y149.104870 Z-0.125000
G01 X79.715867 Y128.188880 Z-0.125000
G01 X82.058434 Y104.679672 Z-0.125000
G01 X84.911610 Y80.659856 Z-0.125000
G01 X80.586094 Y63.818733 Z-0.125000
G00 Z3.000000

(End cutting path id: path10522)


(Start cutting path id: path10520)
(Change tool to Default tool)

G00 Z3.000000
G00 X79.957905 Y211.799301

G00 Z4.875000 (Fast pre-penetrate)
G01 Z-0.125000 F400.0(Penetrate)
G01 X75.657000 Y194.933566 Z-0.125000 F800.000000
G01 X83.232397 Y166.191529 Z-0.125000
G01 X79.392957 Y148.864332 Z-0.125000
G01 X78.809895 Y128.280751 Z-0.125000
G01 X80.985942 Y104.938064 Z-0.125000
G01 X83.754247 Y81.003118 Z-0.125000
G01 X79.859416 Y63.731309 Z-0.125000
G00 Z3.000000

(End cutting path id: path10520)


(Start cutting path id: path10536)
(Change tool to Default tool)

G00 Z3.000000
G00 X86.551813 Y211.718206

G00 Z4.875000 (Fast pre-penetrate)
G01 Z-0.125000 F400.0(Penetrate)
G01 X79.767183 Y197.336194 Z-0.125000 F800.000000
G01 X91.535594 Y164.401146 Z-0.125000
G01 X84.426182 Y150.343917 Z-0.125000
G01 X86.198489 Y127.404971 Z-0.125000
G01 X88.282861 Y104.153959 Z-0.125000
G01 X91.550223 Y79.719957 Z-0.125000
G01 X85.257023 Y64.846514 Z-0.125000
G00 Z3.000000

(End cutting path id: path10536)


(Start cutting path id: path10538)
(Change tool to Default tool)

G00 Z3.000000
G00 X87.197893 Y211.886225

G00 Z4.875000 (Fast pre-penetrate)
G01 Z-0.125000 F400.0(Penetrate)
G01 X80.915076 Y197.002404 Z-0.125000 F800.000000
G01 X92.434242 Y164.316598 Z-0.125000
G01 X85.222104 Y150.362097 Z-0.125000
G01 X87.174869 Y127.242691 Z-0.125000
G01 X88.713840 Y104.537080 Z-0.125000
G01 X91.976117 Y80.108164 Z-0.125000
G01 X85.775799 Y65.141841 Z-0.125000
G00 Z3.000000

(End cutting path id: path10538)


(Start cutting path id: path10518)
(Change tool to Default tool)

G00 Z3.000000
G00 X79.074282 Y211.868823

G00 Z4.875000 (Fast pre-penetrate)
G01 Z-0.125000 F400.0(Penetrate)
G01 X75.354600 Y194.421865 Z-0.125000 F800.000000
G01 X82.148081 Y166.461745 Z-0.125000
G01 X78.819391 Y148.623794 Z-0.125000
G01 X77.903923 Y128.372622 Z-0.125000
G01 X79.913447 Y105.196456 Z-0.125000
G01 X82.596882 Y81.346383 Z-0.125000
G01 X79.132742 Y63.643883 Z-0.125000
G00 Z3.000000

(End cutting path id: path10518)


(Start cutting path id: path10516)
(Change tool to Default tool)

G00 Z3.000000
G00 X78.190657 Y211.938345

G00 Z4.875000 (Fast pre-penetrate)
G01 Z-0.125000 F400.0(Penetrate)
G01 X75.052200 Y193.910162 Z-0.125000 F800.000000
G01 X81.063764 Y166.731961 Z-0.125000
G01 X78.245828 Y148.383257 Z-0.125000
G01 X76.997951 Y128.464493 Z-0.125000
G01 X78.840954 Y105.454850 Z-0.125000
G01 X81.439517 Y81.689645 Z-0.125000
G01 X78.406065 Y63.556457 Z-0.125000
G00 Z3.000000

(End cutting path id: path10516)


(Start cutting path id: path10514)
(Change tool to Default tool)

G00 Z3.000000
G00 X77.307034 Y212.007867

G00 Z4.875000 (Fast pre-penetrate)
G01 Z-0.125000 F400.0(Penetrate)
G01 X74.749800 Y193.398461 Z-0.125000 F800.000000
G01 X79.979447 Y167.002174 Z-0.125000
G01 X77.672262 Y148.142719 Z-0.125000
G01 X76.091979 Y128.556362 Z-0.125000
G01 X77.768462 Y105.713242 Z-0.125000
G01 X80.282154 Y82.032907 Z-0.125000
G01 X77.679390 Y63.469034 Z-0.125000
G00 Z3.000000

(End cutting path id: path10514)


(Start cutting path id: path10512)
(Change tool to Default tool)

G00 Z3.000000
G00 X76.423409 Y212.077388

G00 Z4.875000 (Fast pre-penetrate)
G01 Z-0.125000 F400.0(Penetrate)
G01 X74.447400 Y192.886760 Z-0.125000 F800.000000
G01 X78.895130 Y167.272390 Z-0.125000
G01 X77.098699 Y147.902181 Z-0.125000
G01 X75.186007 Y128.648233 Z-0.125000
G01 X76.695967 Y105.971634 Z-0.125000
G01 X79.124788 Y82.376172 Z-0.125000
G01 X76.952713 Y63.381607 Z-0.125000
G00 Z3.000000

(End cutting path id: path10512)


(Start cutting path id: path10510)
(Change tool to Default tool)

G00 Z3.000000
G00 X75.539787 Y212.146913

G00 Z4.875000 (Fast pre-penetrate)
G01 Z-0.125000 F400.0(Penetrate)
G01 X74.145000 Y192.375057 Z-0.125000 F800.000000
G01 X77.810814 Y167.542603 Z-0.125000
G01 X76.525136 Y147.661643 Z-0.125000
G01 X74.280036 Y128.740104 Z-0.125000
G01 X75.623474 Y106.230025 Z-0.125000
G01 X77.967426 Y82.719434 Z-0.125000
G01 X76.226036 Y63.294181 Z-0.125000
G00 Z3.000000

(End cutting path id: path10510)


(Start cutting path id: path10508)
(Change tool to Default tool)

G00 Z3.000000
G00 X74.656164 Y212.216435

G00 Z4.875000 (Fast pre-penetrate)
G01 Z-0.125000 F400.0(Penetrate)
G01 X73.842601 Y191.863356 Z-0.125000 F800.000000
G01 X76.726497 Y167.812819 Z-0.125000
G01 X75.951570 Y147.421106 Z-0.125000
G01 X73.374064 Y128.831973 Z-0.125000
G01 X74.550979 Y106.488417 Z-0.125000
G01 X76.810060 Y83.062696 Z-0.125000
G01 X75.499361 Y63.206758 Z-0.125000
G00 Z3.000000

(End cutting path id: path10508)


(Start cutting path id: path10506)
(Change tool to Default tool)

G00 Z3.000000
G00 X73.772539 Y212.285957

G00 Z4.875000 (Fast pre-penetrate)
G01 Z-0.125000 F400.0(Penetrate)
G01 X73.540201 Y191.351655 Z-0.125000 F800.000000
G01 X75.642180 Y168.083035 Z-0.125000
G01 X75.378007 Y147.180568 Z-0.125000
G01 X72.468092 Y128.923844 Z-0.125000
G01 X73.478487 Y106.746809 Z-0.125000
G01 X75.652695 Y83.405961 Z-0.125000
G01 X74.772684 Y63.119332 Z-0.125000
G00 Z3.000000

(End cutting path id: path10506)


(Start cutting path id: path10504)
(Change tool to Default tool)

G00 Z3.000000
G00 X72.888916 Y212.355478

G00 Z4.875000 (Fast pre-penetrate)
G01 Z-0.125000 F400.0(Penetrate)
G01 X73.237801 Y190.839954 Z-0.125000 F800.000000
G01 X74.557864 Y168.353249 Z-0.125000
G01 X74.804442 Y146.940030 Z-0.125000
G01 X71.562120 Y129.015715 Z-0.125000
G01 X72.405994 Y107.005201 Z-0.125000
G01 X74.495332 Y83.749223 Z-0.125000
G01 X74.046007 Y63.031905 Z-0.125000
G00 Z3.000000

(End cutting path id: path10504)


(Start cutting path id: path10502)
(Change tool to Default tool)

G00 Z3.000000
G00 X72.005291 Y212.425000

G00 Z4.875000 (Fast pre-penetrate)
G01 Z-0.125000 F400.0(Penetrate)
G01 X72.935401 Y190.328250 Z-0.125000 F800.000000
G01 X73.473547 Y168.623464 Z-0.125000
G01 X74.230879 Y146.699493 Z-0.125000
G01 X70.656148 Y129.107586 Z-0.125000
G01 X71.333499 Y107.263592 Z-0.125000
G01 X73.337967 Y84.092485 Z-0.125000
G01 X73.319340 Y62.944482 Z-0.125000
G00 Z3.000000

(End cutting path id: path10502)


(Start cutting path id: path10500)
(Change tool to Default tool)

G00 Z3.000000
G00 X71.121669 Y212.494522

G00 Z4.875000 (Fast pre-penetrate)
G01 Z-0.125000 F400.0(Penetrate)
G01 X72.633001 Y189.816550 Z-0.125000 F800.000000
G01 X72.389233 Y168.893680 Z-0.125000
G01 X73.657316 Y146.458955 Z-0.125000
G01 X69.750176 Y129.199454 Z-0.125000
G01 X70.261007 Y107.521984 Z-0.125000
G01 X72.180604 Y84.435749 Z-0.125000
G01 X72.592655 Y62.857056 Z-0.125000
G00 Z3.000000

(End cutting path id: path10500)


(Start cutting path id: path10498)
(Change tool to Default tool)

G00 Z3.000000
G00 X70.238046 Y212.564044

G00 Z4.875000 (Fast pre-penetrate)
G01 Z-0.125000 F400.0(Penetrate)
G01 X72.330601 Y189.304849 Z-0.125000 F800.000000
G01 X71.304916 Y169.163894 Z-0.125000
G01 X73.083750 Y146.218417 Z-0.125000
G01 X68.844204 Y129.291326 Z-0.125000
G01 X69.188514 Y107.780376 Z-0.125000
G01 X71.023238 Y84.779011 Z-0.125000
G01 X71.865980 Y62.769630 Z-0.125000
G00 Z3.000000

(End cutting path id: path10498)


(Start cutting path id: path10496)
(Change tool to Default tool)

G00 Z3.000000
G00 X69.354421 Y212.633566

G00 Z4.875000 (Fast pre-penetrate)
G01 Z-0.125000 F400.0(Penetrate)
G01 X72.028201 Y188.793145 Z-0.125000 F800.000000
G01 X70.220599 Y169.434110 Z-0.125000
G01 X72.510187 Y145.977882 Z-0.125000
G01 X67.938232 Y129.383197 Z-0.125000
G01 X68.116019 Y108.038768 Z-0.125000
G01 X69.865873 Y85.122274 Z-0.125000
G01 X71.139303 Y62.682206 Z-0.125000
G00 Z3.000000

(End cutting path id: path10496)


(Start cutting path id: path10494)
(Change tool to Default tool)

G00 Z3.000000
G00 X68.470798 Y212.703088

G00 Z4.875000 (Fast pre-penetrate)
G01 Z-0.125000 F400.0(Penetrate)
G01 X71.725802 Y188.281444 Z-0.125000 F800.000000
G01 X69.136283 Y169.704323 Z-0.125000
G01 X71.936624 Y145.737345 Z-0.125000
G01 X67.032258 Y129.475068 Z-0.125000
G01 X67.043529 Y108.297159 Z-0.125000
G01 X68.708513 Y85.465536 Z-0.125000
G01 X70.412629 Y62.594780 Z-0.125000
G00 Z3.000000

(End cutting path id: path10494)


(Start cutting path id: path10492)
(Change tool to Default tool)

G00 Z3.000000
G00 X67.587173 Y212.772612

G00 Z4.875000 (Fast pre-penetrate)
G01 Z-0.125000 F400.0(Penetrate)
G01 X71.423402 Y187.769743 Z-0.125000 F800.000000
G01 X68.051966 Y169.974539 Z-0.125000
G01 X71.363058 Y145.496807 Z-0.125000
G01 X66.126286 Y129.566936 Z-0.125000
G01 X65.971031 Y108.555551 Z-0.125000
G01 X67.551145 Y85.808800 Z-0.125000
G01 X69.685951 Y62.507354 Z-0.125000
G00 Z3.000000

(End cutting path id: path10492)


(Start cutting path id: path10490)
(Change tool to Default tool)

G00 Z3.000000
G00 X66.703551 Y212.842134

G00 Z4.875000 (Fast pre-penetrate)
G01 Z-0.125000 F400.0(Penetrate)
G01 X71.121002 Y187.258040 Z-0.125000 F800.000000
G01 X66.967649 Y170.244755 Z-0.125000
G01 X70.789495 Y145.256269 Z-0.125000
G01 X65.220314 Y129.658808 Z-0.125000
G01 X64.898539 Y108.813943 Z-0.125000
G01 X66.393782 Y86.152062 Z-0.125000
G01 X68.959274 Y62.419930 Z-0.125000
G00 Z3.000000

(End cutting path id: path10490)


(Start cutting path id: path10488)
(Change tool to Default tool)

G00 Z3.000000
G00 X65.819925 Y212.911656

G00 Z4.875000 (Fast pre-penetrate)
G01 Z-0.125000 F400.0(Penetrate)
G01 X70.818602 Y186.746339 Z-0.125000 F800.000000
G01 X65.883333 Y170.514968 Z-0.125000
G01 X70.215930 Y145.015731 Z-0.125000
G01 X64.314342 Y129.750679 Z-0.125000
G01 X63.826046 Y109.072337 Z-0.125000
G01 X65.236417 Y86.495324 Z-0.125000
G01 X68.232597 Y62.332504 Z-0.125000
G00 Z3.000000

(End cutting path id: path10488)


(Start cutting path id: path10486)
(Change tool to Default tool)

G00 Z3.000000
G00 X64.936303 Y212.981177

G00 Z4.875000 (Fast pre-penetrate)
G01 Z-0.125000 F400.0(Penetrate)
G01 X70.516202 Y186.234638 Z-0.125000 F800.000000
G01 X64.799016 Y170.785184 Z-0.125000
G01 X69.642367 Y144.775194 Z-0.125000
G01 X63.408370 Y129.842550 Z-0.125000
G01 X62.753551 Y109.330729 Z-0.125000
G01 X64.079051 Y86.838589 Z-0.125000
G01 X67.505922 Y62.245078 Z-0.125000
G00 Z3.000000

(End cutting path id: path10486)


(Start cutting path id: path10484)
(Change tool to Default tool)

G00 Z3.000000
G00 X64.052680 Y213.050699

G00 Z4.875000 (Fast pre-penetrate)
G01 Z-0.125000 F400.0(Penetrate)
G01 X70.213802 Y185.722937 Z-0.125000 F800.000000
G01 X63.714699 Y171.055398 Z-0.125000
G01 X69.068804 Y144.534656 Z-0.125000
G01 X62.502399 Y129.934418 Z-0.125000
G01 X61.681059 Y109.589121 Z-0.125000
G01 X62.921688 Y87.181851 Z-0.125000
G01 X66.779245 Y62.157654 Z-0.125000
G00 Z3.000000

(End cutting path id: path10484)


(Start cutting path id: path10482)
(Change tool to Default tool)

G00 Z3.000000
G00 X63.169055 Y213.120221

G00 Z4.875000 (Fast pre-penetrate)
G01 Z-0.125000 F400.0(Penetrate)
G01 X69.911403 Y185.211234 Z-0.125000 F800.000000
G01 X62.630383 Y171.325614 Z-0.125000
G01 X68.495238 Y144.294118 Z-0.125000
G01 X61.596427 Y130.026290 Z-0.125000
G01 X60.608566 Y109.847513 Z-0.125000
G01 X61.764323 Y87.525113 Z-0.125000
G01 X66.052568 Y62.070228 Z-0.125000
G00 Z3.000000

(End cutting path id: path10482)


(Start cutting path id: path10476)
(Change tool to Default tool)

G00 Z3.000000
G00 X60.716381 Y213.130590

G00 Z4.875000 (Fast pre-penetrate)
G01 Z-0.125000 F400.0(Penetrate)
G01 X67.946305 Y184.734027 Z-0.125000 F800.000000
G01 X59.654176 Y171.859516 Z-0.125000
G01 X66.138039 Y144.209015 Z-0.125000
G01 X59.393789 Y129.786622 Z-0.125000
G01 X57.601258 Y110.412516 Z-0.125000
G01 X58.655679 Y88.191455 Z-0.125000
G01 X64.193513 Y61.486979 Z-0.125000
G00 Z3.000000

(End cutting path id: path10476)


(Start cutting path id: path10470)
(Change tool to Default tool)

G00 Z3.000000
G00 X58.362807 Y213.041862

G00 Z4.875000 (Fast pre-penetrate)
G01 Z-0.125000 F400.0(Penetrate)
G01 X65.452258 Y184.785771 Z-0.125000 F800.000000
G01 X56.816341 Y172.255049 Z-0.125000
G01 X63.462583 Y144.442163 Z-0.125000
G01 X57.448789 Y129.289317 Z-0.125000
G01 X54.699036 Y110.872433 Z-0.125000
G01 X55.728759 Y88.676070 Z-0.125000
G01 X62.494945 Y60.743241 Z-0.125000
G00 Z3.000000

(End cutting path id: path10470)


(Start cutting path id: path10380)
(Change tool to Default tool)

G00 Z3.000000
G00 X26.188591 Y208.581509

G00 Z4.875000 (Fast pre-penetrate)
G01 Z-0.125000 F400.0(Penetrate)
G01 X28.992160 Y184.611300 Z-0.125000 F800.000000
G01 X29.742261 Y162.694559 Z-0.125000
G01 X23.498090 Y147.772088 Z-0.125000
G01 X28.244834 Y121.858705 Z-0.125000
G01 X24.702453 Y104.234445 Z-0.125000
G01 X27.485107 Y80.285151 Z-0.125000
G01 X24.765853 Y61.837766 Z-0.125000
G00 Z3.000000

(End cutting path id: path10380)


(Start cutting path id: path10376)
(Change tool to Default tool)

G00 Z3.000000
G00 X24.880325 Y208.261570

G00 Z4.875000 (Fast pre-penetrate)
G01 Z-0.125000 F400.0(Penetrate)
G01 X27.408679 Y184.566577 Z-0.125000 F800.000000
G01 X29.141492 Y161.667125 Z-0.125000
G01 X21.728397 Y147.913579 Z-0.125000
G01 X26.945753 Y121.529582 Z-0.125000
G01 X23.895700 Y103.412994 Z-0.125000
G01 X26.838840 Y79.303215 Z-0.125000
G01 X22.612594 Y62.362823 Z-0.125000
G00 Z3.000000

(End cutting path id: path10376)


(Start cutting path id: path10378)
(Change tool to Default tool)

G00 Z3.000000
G00 X25.534458 Y208.421539

G00 Z4.875000 (Fast pre-penetrate)
G01 Z-0.125000 F400.0(Penetrate)
G01 X28.200419 Y184.588937 Z-0.125000 F800.000000
G01 X29.441876 Y162.180842 Z-0.125000
G01 X22.613244 Y147.842833 Z-0.125000
G01 X27.595293 Y121.694145 Z-0.125000
G01 X24.299077 Y103.823720 Z-0.125000
G01 X27.161973 Y79.794183 Z-0.125000
G01 X23.689223 Y62.100293 Z-0.125000
G00 Z3.000000

(End cutting path id: path10378)


(Start cutting path id: path10382)
(Change tool to Default tool)

G00 Z3.000000
G00 X26.842724 Y208.741476

G00 Z4.875000 (Fast pre-penetrate)
G01 Z-0.125000 F400.0(Penetrate)
G01 X29.783900 Y184.633660 Z-0.125000 F800.000000
G01 X30.042645 Y163.208276 Z-0.125000
G01 X24.382936 Y147.701344 Z-0.125000
G01 X28.894373 Y122.023268 Z-0.125000
G01 X25.105829 Y104.645170 Z-0.125000
G01 X27.808241 Y80.776119 Z-0.125000
G01 X25.842483 Y61.575238 Z-0.125000
G00 Z3.000000

(End cutting path id: path10382)


(Start cutting path id: path10384)
(Change tool to Default tool)

G00 Z3.000000
G00 X27.496857 Y208.901445

G00 Z4.875000 (Fast pre-penetrate)
G01 Z-0.125000 F400.0(Penetrate)
G01 X30.575640 Y184.656022 Z-0.125000 F800.000000
G01 X30.343030 Y163.721993 Z-0.125000
G01 X25.267783 Y147.630600 Z-0.125000
G01 X29.543914 Y122.187828 Z-0.125000
G01 X25.509206 Y105.055896 Z-0.125000
G01 X28.131374 Y81.267088 Z-0.125000
G01 X26.919112 Y61.312709 Z-0.125000
G00 Z3.000000

(End cutting path id: path10384)


(Start cutting path id: path10386)
(Change tool to Default tool)

G00 Z3.000000
G00 X28.150990 Y209.061415

G00 Z4.875000 (Fast pre-penetrate)
G01 Z-0.125000 F400.0(Penetrate)
G01 X31.367381 Y184.678382 Z-0.125000 F800.000000
G01 X30.643414 Y164.235710 Z-0.125000
G01 X26.152629 Y147.559853 Z-0.125000
G01 X30.193454 Y122.352390 Z-0.125000
G01 X25.912582 Y105.466621 Z-0.125000
G01 X28.454508 Y81.758056 Z-0.125000
G01 X27.995742 Y61.050181 Z-0.125000
G00 Z3.000000

(End cutting path id: path10386)


(Start cutting path id: path10388)
(Change tool to Default tool)

G00 Z3.000000
G00 X28.805122 Y209.221382

G00 Z4.875000 (Fast pre-penetrate)
G01 Z-0.125000 F400.0(Penetrate)
G01 X32.159121 Y184.700745 Z-0.125000 F800.000000
G01 X30.943799 Y164.749427 Z-0.125000
G01 X27.037476 Y147.489109 Z-0.125000
G01 X30.842994 Y122.516950 Z-0.125000
G01 X26.315958 Y105.877347 Z-0.125000
G01 X28.777642 Y82.249024 Z-0.125000
G01 X29.072372 Y60.787654 Z-0.125000
G00 Z3.000000

(End cutting path id: path10388)


(Start cutting path id: path10390)
(Change tool to Default tool)

G00 Z3.000000
G00 X29.459256 Y209.381351

G00 Z4.875000 (Fast pre-penetrate)
G01 Z-0.125000 F400.0(Penetrate)
G01 X32.950861 Y184.723105 Z-0.125000 F800.000000
G01 X31.244183 Y165.263144 Z-0.125000
G01 X27.922322 Y147.418365 Z-0.125000
G01 X31.492534 Y122.681513 Z-0.125000
G01 X26.719335 Y106.288072 Z-0.125000
G01 X29.100775 Y82.739992 Z-0.125000
G01 X30.149001 Y60.525124 Z-0.125000
G00 Z3.000000

(End cutting path id: path10390)


(Start cutting path id: path10392)
(Change tool to Default tool)

G00 Z3.000000
G00 X30.113388 Y209.541321

G00 Z4.875000 (Fast pre-penetrate)
G01 Z-0.125000 F400.0(Penetrate)
G01 X33.742602 Y184.745467 Z-0.125000 F800.000000
G01 X31.544568 Y165.776861 Z-0.125000
G01 X28.807169 Y147.347620 Z-0.125000
G01 X32.142074 Y122.846073 Z-0.125000
G01 X27.122711 Y106.698798 Z-0.125000
G01 X29.423909 Y83.230960 Z-0.125000
G01 X31.225631 Y60.262597 Z-0.125000
G00 Z3.000000

(End cutting path id: path10392)


(Start cutting path id: path10394)
(Change tool to Default tool)

G00 Z3.000000
G00 X30.767521 Y209.701288

G00 Z4.875000 (Fast pre-penetrate)
G01 Z-0.125000 F400.0(Penetrate)
G01 X34.534342 Y184.767827 Z-0.125000 F800.000000
G01 X31.844952 Y166.290578 Z-0.125000
G01 X29.692015 Y147.276874 Z-0.125000
G01 X32.791614 Y123.010636 Z-0.125000
G01 X27.526087 Y107.109523 Z-0.125000
G01 X29.747042 Y83.721928 Z-0.125000
G01 X32.302261 Y60.000067 Z-0.125000
G00 Z3.000000

(End cutting path id: path10394)


(Start cutting path id: path10396)
(Change tool to Default tool)

G00 Z3.000000
G00 X31.421654 Y209.861257

G00 Z4.875000 (Fast pre-penetrate)
G01 Z-0.125000 F400.0(Penetrate)
G01 X35.326082 Y184.790190 Z-0.125000 F800.000000
G01 X32.145337 Y166.804295 Z-0.125000
G01 X30.576862 Y147.206129 Z-0.125000
G01 X33.441154 Y123.175196 Z-0.125000
G01 X27.929464 Y107.520248 Z-0.125000
G01 X30.070176 Y84.212894 Z-0.125000
G01 X33.378890 Y59.737540 Z-0.125000
G00 Z3.000000

(End cutting path id: path10396)


(Start cutting path id: path10398)
(Change tool to Default tool)

G00 Z3.000000
G00 X32.075787 Y210.021227

G00 Z4.875000 (Fast pre-penetrate)
G01 Z-0.125000 F400.0(Penetrate)
G01 X36.117822 Y184.812549 Z-0.125000 F800.000000
G01 X32.445721 Y167.318012 Z-0.125000
G01 X31.461708 Y147.135385 Z-0.125000
G01 X34.090694 Y123.339759 Z-0.125000
G01 X28.332840 Y107.930971 Z-0.125000
G01 X30.393310 Y84.703862 Z-0.125000
G01 X34.455520 Y59.475013 Z-0.125000
G00 Z3.000000

(End cutting path id: path10398)


(Start cutting path id: path10400)
(Change tool to Default tool)

G00 Z3.000000
G00 X32.729920 Y210.181193

G00 Z4.875000 (Fast pre-penetrate)
G01 Z-0.125000 F400.0(Penetrate)
G01 X36.909563 Y184.834912 Z-0.125000 F800.000000
G01 X32.746106 Y167.831729 Z-0.125000
G01 X32.346554 Y147.064638 Z-0.125000
G01 X34.740234 Y123.504319 Z-0.125000
G01 X28.736216 Y108.341697 Z-0.125000
G01 X30.716443 Y85.194830 Z-0.125000
G01 X35.532150 Y59.212483 Z-0.125000
G00 Z3.000000

(End cutting path id: path10400)


(Start cutting path id: path10402)
(Change tool to Default tool)

G00 Z3.000000
G00 X33.384053 Y210.341163

G00 Z4.875000 (Fast pre-penetrate)
G01 Z-0.125000 F400.0(Penetrate)
G01 X37.701303 Y184.857272 Z-0.125000 F800.000000
G01 X33.046490 Y168.345446 Z-0.125000
G01 X33.231401 Y146.993894 Z-0.125000
G01 X35.389774 Y123.668881 Z-0.125000
G01 X29.139593 Y108.752422 Z-0.125000
G01 X31.039577 Y85.685798 Z-0.125000
G01 X36.608779 Y58.949956 Z-0.125000
G00 Z3.000000

(End cutting path id: path10402)


(Start cutting path id: path10404)
(Change tool to Default tool)

G00 Z3.000000
G00 X34.038186 Y210.501133

G00 Z4.875000 (Fast pre-penetrate)
G01 Z-0.125000 F400.0(Penetrate)
G01 X38.493044 Y184.879634 Z-0.125000 F800.000000
G01 X33.346875 Y168.859163 Z-0.125000
G01 X34.116247 Y146.923150 Z-0.125000
G01 X36.039314 Y123.833441 Z-0.125000
G01 X29.542969 Y109.163147 Z-0.125000
G01 X31.362711 Y86.176766 Z-0.125000
G01 X37.685409 Y58.687429 Z-0.125000
G00 Z3.000000

(End cutting path id: path10404)


(Start cutting path id: path10406)
(Change tool to Default tool)

G00 Z3.000000
G00 X34.692319 Y210.661099

G00 Z4.875000 (Fast pre-penetrate)
G01 Z-0.125000 F400.0(Penetrate)
G01 X39.284784 Y184.901994 Z-0.125000 F800.000000
G01 X33.647259 Y169.372880 Z-0.125000
G01 X35.001094 Y146.852406 Z-0.125000
G01 X36.688854 Y123.998004 Z-0.125000
G01 X29.946345 Y109.573873 Z-0.125000
G01 X31.685844 Y86.667735 Z-0.125000
G01 X38.762039 Y58.424899 Z-0.125000
G00 Z3.000000

(End cutting path id: path10406)


(Start cutting path id: path10408)
(Change tool to Default tool)

G00 Z3.000000
G00 X35.346452 Y210.821069

G00 Z4.875000 (Fast pre-penetrate)
G01 Z-0.125000 F400.0(Penetrate)
G01 X40.076524 Y184.924357 Z-0.125000 F800.000000
G01 X33.947644 Y169.886597 Z-0.125000
G01 X35.885940 Y146.781659 Z-0.125000
G01 X37.338395 Y124.162567 Z-0.125000
G01 X30.349722 Y109.984598 Z-0.125000
G01 X32.008978 Y87.158703 Z-0.125000
G01 X39.838668 Y58.162372 Z-0.125000
G00 Z3.000000

(End cutting path id: path10408)


(Start cutting path id: path10410)
(Change tool to Default tool)

G00 Z3.000000
G00 X36.000584 Y210.981036

G00 Z4.875000 (Fast pre-penetrate)
G01 Z-0.125000 F400.0(Penetrate)
G01 X40.868264 Y184.946717 Z-0.125000 F800.000000
G01 X34.248028 Y170.400314 Z-0.125000
G01 X36.770787 Y146.710915 Z-0.125000
G01 X37.987935 Y124.327127 Z-0.125000
G01 X30.753098 Y110.395324 Z-0.125000
G01 X32.332111 Y87.649671 Z-0.125000
G01 X40.915298 Y57.899845 Z-0.125000
G00 Z3.000000

(End cutting path id: path10410)


(Start cutting path id: path10412)
(Change tool to Default tool)

G00 Z3.000000
G00 X36.654717 Y211.141005

G00 Z4.875000 (Fast pre-penetrate)
G01 Z-0.125000 F400.0(Penetrate)
G01 X41.660005 Y184.969079 Z-0.125000 F800.000000
G01 X34.548412 Y170.914031 Z-0.125000
G01 X37.655633 Y146.640171 Z-0.125000
G01 X38.637475 Y124.491689 Z-0.125000
G01 X31.156474 Y110.806049 Z-0.125000
G01 X32.655245 Y88.140639 Z-0.125000
G01 X41.991928 Y57.637315 Z-0.125000
G00 Z3.000000

(End cutting path id: path10412)


(Start cutting path id: path10414)
(Change tool to Default tool)

G00 Z3.000000
G00 X37.308850 Y211.300975

G00 Z4.875000 (Fast pre-penetrate)
G01 Z-0.125000 F400.0(Penetrate)
G01 X42.451745 Y184.991439 Z-0.125000 F800.000000
G01 X34.848797 Y171.427748 Z-0.125000
G01 X38.540479 Y146.569426 Z-0.125000
G01 X39.287015 Y124.656250 Z-0.125000
G01 X31.559851 Y111.216775 Z-0.125000
G01 X32.978378 Y88.631607 Z-0.125000
G01 X43.068557 Y57.374788 Z-0.125000
G00 Z3.000000

(End cutting path id: path10414)


(Start cutting path id: path10416)
(Change tool to Default tool)

G00 Z3.000000
G00 X37.962983 Y211.460942

G00 Z4.875000 (Fast pre-penetrate)
G01 Z-0.125000 F400.0(Penetrate)
G01 X43.243486 Y185.013802 Z-0.125000 F800.000000
G01 X35.149181 Y171.941465 Z-0.125000
G01 X39.425326 Y146.498679 Z-0.125000
G01 X39.936555 Y124.820812 Z-0.125000
G01 X31.963227 Y111.627500 Z-0.125000
G01 X33.301512 Y89.122575 Z-0.125000
G01 X44.145187 Y57.112260 Z-0.125000
G00 Z3.000000

(End cutting path id: path10416)


(Start cutting path id: path10418)
(Change tool to Default tool)

G00 Z3.000000
G00 X38.617116 Y211.620911

G00 Z4.875000 (Fast pre-penetrate)
G01 Z-0.125000 F400.0(Penetrate)
G01 X44.035226 Y185.036162 Z-0.125000 F800.000000
G01 X35.449566 Y172.455182 Z-0.125000
G01 X40.310172 Y146.427935 Z-0.125000
G01 X40.586095 Y124.985372 Z-0.125000
G01 X32.366603 Y112.038225 Z-0.125000
G01 X33.624646 Y89.613541 Z-0.125000
G01 X45.221817 Y56.849731 Z-0.125000
G00 Z3.000000

(End cutting path id: path10418)


(Start cutting path id: path10420)
(Change tool to Default tool)

G00 Z3.000000
G00 X39.271249 Y211.780881

G00 Z4.875000 (Fast pre-penetrate)
G01 Z-0.125000 F400.0(Penetrate)
G01 X44.826966 Y185.058524 Z-0.125000 F800.000000
G01 X35.749950 Y172.968899 Z-0.125000
G01 X41.195019 Y146.357191 Z-0.125000
G01 X41.235635 Y125.149935 Z-0.125000
G01 X32.769979 Y112.448951 Z-0.125000
G01 X33.947779 Y90.104509 Z-0.125000
G01 X46.298446 Y56.587203 Z-0.125000
G00 Z3.000000

(End cutting path id: path10420)


(Start cutting path id: path10422)
(Change tool to Default tool)

G00 Z3.000000
G00 X39.925382 Y211.940848

G00 Z4.875000 (Fast pre-penetrate)
G01 Z-0.125000 F400.0(Penetrate)
G01 X45.618706 Y185.080884 Z-0.125000 F800.000000
G01 X36.050335 Y173.482616 Z-0.125000
G01 X42.079865 Y146.286447 Z-0.125000
G01 X41.885175 Y125.314495 Z-0.125000
G01 X33.173356 Y112.859676 Z-0.125000
G01 X34.270913 Y90.595477 Z-0.125000
G01 X47.375077 Y56.324674 Z-0.125000
G00 Z3.000000

(End cutting path id: path10422)


(Start cutting path id: path10424)
(Change tool to Default tool)

G00 Z3.000000
G00 X40.579515 Y212.100817

G00 Z4.875000 (Fast pre-penetrate)
G01 Z-0.125000 F400.0(Penetrate)
G01 X46.410447 Y185.103247 Z-0.125000 F800.000000
G01 X36.350720 Y173.996333 Z-0.125000
G01 X42.964712 Y146.215700 Z-0.125000
G01 X42.534715 Y125.479058 Z-0.125000
G01 X33.576732 Y113.270399 Z-0.125000
G01 X34.594047 Y91.086445 Z-0.125000
G01 X48.451705 Y56.062146 Z-0.125000
G00 Z3.000000

(End cutting path id: path10424)


(Start cutting path id: path10426)
(Change tool to Default tool)

G00 Z3.000000
G00 X41.233648 Y212.260787

G00 Z4.875000 (Fast pre-penetrate)
G01 Z-0.125000 F400.0(Penetrate)
G01 X47.202188 Y185.125607 Z-0.125000 F800.000000
G01 X36.651104 Y174.510050 Z-0.125000
G01 X43.849558 Y146.144956 Z-0.125000
G01 X43.184255 Y125.643618 Z-0.125000
G01 X33.980109 Y113.681124 Z-0.125000
G01 X34.917180 Y91.577413 Z-0.125000
G01 X49.528336 Y55.799619 Z-0.125000
G00 Z3.000000

(End cutting path id: path10426)


(Start cutting path id: path10432)
(Change tool to Default tool)

G00 Z3.000000
G00 X43.456831 Y212.479909

G00 Z4.875000 (Fast pre-penetrate)
G01 Z-0.125000 F400.0(Penetrate)
G01 X49.656627 Y185.113473 Z-0.125000 F800.000000
G01 X38.843379 Y174.760078 Z-0.125000
G01 X46.518041 Y145.918777 Z-0.125000
G01 X45.130461 Y126.139716 Z-0.125000
G01 X36.318299 Y113.785240 Z-0.125000
G01 X37.191594 Y91.745305 Z-0.125000
G01 X51.737344 Y56.032915 Z-0.125000
G00 Z3.000000

(End cutting path id: path10432)


(Start cutting path id: path10438)
(Change tool to Default tool)

G00 Z3.000000
G00 X45.810406 Y212.568637

G00 Z4.875000 (Fast pre-penetrate)
G01 Z-0.125000 F400.0(Penetrate)
G01 X52.150673 Y185.061731 Z-0.125000 F800.000000
G01 X41.681215 Y174.364548 Z-0.125000
G01 X49.193495 Y145.685629 Z-0.125000
G01 X47.075461 Y126.637024 Z-0.125000
G01 X39.220521 Y113.325324 Z-0.125000
G01 X40.118515 Y91.260689 Z-0.125000
G01 X53.435912 Y56.776650 Z-0.125000
G00 Z3.000000

(End cutting path id: path10438)


(Start cutting path id: path10442)
(Change tool to Default tool)

G00 Z3.000000
G00 X47.379456 Y212.627790

G00 Z4.875000 (Fast pre-penetrate)
G01 Z-0.125000 F400.0(Penetrate)
G01 X53.813371 Y185.027235 Z-0.125000 F800.000000
G01 X43.573106 Y174.100862 Z-0.125000
G01 X50.977131 Y145.530195 Z-0.125000
G01 X48.372126 Y126.968559 Z-0.125000
G01 X41.155335 Y113.018712 Z-0.125000
G01 X42.069795 Y90.937612 Z-0.125000
G01 X54.568293 Y57.272473 Z-0.125000
G00 Z3.000000

(End cutting path id: path10442)


(Start cutting path id: path10446)
(Change tool to Default tool)

G00 Z3.000000
G00 X48.948507 Y212.686943

G00 Z4.875000 (Fast pre-penetrate)
G01 Z-0.125000 F400.0(Penetrate)
G01 X55.476069 Y184.992741 Z-0.125000 F800.000000
G01 X45.464996 Y173.837173 Z-0.125000
G01 X52.760767 Y145.374763 Z-0.125000
G01 X49.668792 Y127.300095 Z-0.125000
G01 X43.090149 Y112.712100 Z-0.125000
G01 X44.021076 Y90.614532 Z-0.125000
G01 X55.700671 Y57.768299 Z-0.125000
G00 Z3.000000

(End cutting path id: path10446)


(Start cutting path id: path10448)
(Change tool to Default tool)

G00 Z3.000000
G00 X49.733030 Y212.716520

G00 Z4.875000 (Fast pre-penetrate)
G01 Z-0.125000 F400.0(Penetrate)
G01 X56.307418 Y184.975493 Z-0.125000 F800.000000
G01 X46.410941 Y173.705329 Z-0.125000
G01 X53.652584 Y145.297047 Z-0.125000
G01 X50.317126 Y127.465864 Z-0.125000
G01 X44.057557 Y112.558795 Z-0.125000
G01 X44.996716 Y90.452994 Z-0.125000
G01 X56.266860 Y58.016211 Z-0.125000
G00 Z3.000000

(End cutting path id: path10448)


(Start cutting path id: path10450)
(Change tool to Default tool)

G00 Z3.000000
G00 X50.517556 Y212.746095

G00 Z4.875000 (Fast pre-penetrate)
G01 Z-0.125000 F400.0(Penetrate)
G01 X57.138767 Y184.958245 Z-0.125000 F800.000000
G01 X47.356887 Y173.573484 Z-0.125000
G01 X54.544403 Y145.219328 Z-0.125000
G01 X50.965458 Y127.631634 Z-0.125000
G01 X45.024964 Y112.405488 Z-0.125000
G01 X45.972356 Y90.291455 Z-0.125000
G01 X56.833049 Y58.264122 Z-0.125000
G00 Z3.000000

(End cutting path id: path10450)


(Start cutting path id: path10452)
(Change tool to Default tool)

G00 Z3.000000
G00 X51.302082 Y212.775673

G00 Z4.875000 (Fast pre-penetrate)
G01 Z-0.125000 F400.0(Penetrate)
G01 X57.970116 Y184.940997 Z-0.125000 F800.000000
G01 X48.302832 Y173.441643 Z-0.125000
G01 X55.436220 Y145.141612 Z-0.125000
G01 X51.613792 Y127.797403 Z-0.125000
G01 X45.992371 Y112.252183 Z-0.125000
G01 X46.947995 Y90.129917 Z-0.125000
G01 X57.399241 Y58.512034 Z-0.125000
G00 Z3.000000

(End cutting path id: path10452)


(Start cutting path id: path10454)
(Change tool to Default tool)

G00 Z3.000000
G00 X52.086607 Y212.805248

G00 Z4.875000 (Fast pre-penetrate)
G01 Z-0.125000 F400.0(Penetrate)
G01 X58.801464 Y184.923751 Z-0.125000 F800.000000
G01 X49.248777 Y173.309798 Z-0.125000
G01 X56.328039 Y145.063896 Z-0.125000
G01 X52.262126 Y127.963169 Z-0.125000
G01 X46.959777 Y112.098878 Z-0.125000
G01 X47.923637 Y89.968378 Z-0.125000
G01 X57.965430 Y58.759946 Z-0.125000
G00 Z3.000000

(End cutting path id: path10454)


(Start cutting path id: path10456)
(Change tool to Default tool)

G00 Z3.000000
G00 X52.871130 Y212.834826

G00 Z4.875000 (Fast pre-penetrate)
G01 Z-0.125000 F400.0(Penetrate)
G01 X59.632813 Y184.906503 Z-0.125000 F800.000000
G01 X50.194722 Y173.177954 Z-0.125000
G01 X57.219859 Y144.986180 Z-0.125000
G01 X52.910458 Y128.128938 Z-0.125000
G01 X47.927185 Y111.945571 Z-0.125000
G01 X48.899276 Y89.806840 Z-0.125000
G01 X58.531619 Y59.007857 Z-0.125000
G00 Z3.000000

(End cutting path id: path10456)


(Start cutting path id: path10458)
(Change tool to Default tool)

G00 Z3.000000
G00 X53.655656 Y212.864401

G00 Z4.875000 (Fast pre-penetrate)
G01 Z-0.125000 F400.0(Penetrate)
G01 X60.464162 Y184.889255 Z-0.125000 F800.000000
G01 X51.140667 Y173.046110 Z-0.125000
G01 X58.111675 Y144.908464 Z-0.125000
G01 X53.558792 Y128.294708 Z-0.125000
G01 X48.894593 Y111.792266 Z-0.125000
G01 X49.874916 Y89.645301 Z-0.125000
G01 X59.097808 Y59.255772 Z-0.125000
G00 Z3.000000

(End cutting path id: path10458)


(Start cutting path id: path10460)
(Change tool to Default tool)

G00 Z3.000000
G00 X54.440181 Y212.893979

G00 Z4.875000 (Fast pre-penetrate)
G01 Z-0.125000 F400.0(Penetrate)
G01 X61.295511 Y184.872007 Z-0.125000 F800.000000
G01 X52.086612 Y172.914268 Z-0.125000
G01 X59.003495 Y144.830746 Z-0.125000
G01 X54.207124 Y128.460477 Z-0.125000
G01 X49.861999 Y111.638959 Z-0.125000
G01 X50.850557 Y89.483763 Z-0.125000
G01 X59.663997 Y59.503683 Z-0.125000
G00 Z3.000000

(End cutting path id: path10460)


(Start cutting path id: path10462)
(Change tool to Default tool)

G00 Z3.000000
G00 X55.224707 Y212.923554

G00 Z4.875000 (Fast pre-penetrate)
G01 Z-0.125000 F400.0(Penetrate)
G01 X62.126863 Y184.854761 Z-0.125000 F800.000000
G01 X53.032558 Y172.782423 Z-0.125000
G01 X59.895311 Y144.753030 Z-0.125000
G01 X54.855458 Y128.626243 Z-0.125000
G01 X50.829407 Y111.485654 Z-0.125000
G01 X51.826197 Y89.322224 Z-0.125000
G01 X60.230186 Y59.751595 Z-0.125000
G00 Z3.000000

(End cutting path id: path10462)


(Start cutting path id: path10464)
(Change tool to Default tool)

G00 Z3.000000
G00 X56.009233 Y212.953132

G00 Z4.875000 (Fast pre-penetrate)
G01 Z-0.125000 F400.0(Penetrate)
G01 X62.958212 Y184.837513 Z-0.125000 F800.000000
G01 X53.978505 Y172.650579 Z-0.125000
G01 X60.787131 Y144.675314 Z-0.125000
G01 X55.503789 Y128.792013 Z-0.125000
G01 X51.796815 Y111.332350 Z-0.125000
G01 X52.801839 Y89.160686 Z-0.125000
G01 X60.796375 Y59.999506 Z-0.125000
G00 Z3.000000

(End cutting path id: path10464)


(Start cutting path id: path10466)
(Change tool to Default tool)

G00 Z3.000000
G00 X56.793756 Y212.982707

G00 Z4.875000 (Fast pre-penetrate)
G01 Z-0.125000 F400.0(Penetrate)
G01 X63.789560 Y184.820265 Z-0.125000 F800.000000
G01 X54.924450 Y172.518735 Z-0.125000
G01 X61.678947 Y144.597598 Z-0.125000
G01 X56.152123 Y128.957782 Z-0.125000
G01 X52.764220 Y111.179042 Z-0.125000
G01 X53.777478 Y88.999147 Z-0.125000
G01 X61.362567 Y60.247418 Z-0.125000
G00 Z3.000000

(End cutting path id: path10466)


(Start cutting path id: path10468)
(Change tool to Default tool)

G00 Z3.000000
G00 X57.578281 Y213.012285

G00 Z4.875000 (Fast pre-penetrate)
G01 Z-0.125000 F400.0(Penetrate)
G01 X64.620909 Y184.803017 Z-0.125000 F800.000000
G01 X55.870395 Y172.386890 Z-0.125000
G01 X62.570767 Y144.519879 Z-0.125000
G01 X56.800458 Y129.123551 Z-0.125000
G01 X53.731628 Y111.025738 Z-0.125000
G01 X54.753117 Y88.837609 Z-0.125000
G01 X61.928756 Y60.495330 Z-0.125000
G00 Z3.000000

(End cutting path id: path10468)


(Start cutting path id: path10472)
(Change tool to Default tool)

G00 Z3.000000
G00 X59.147333 Y213.071437

G00 Z4.875000 (Fast pre-penetrate)
G01 Z-0.125000 F400.0(Penetrate)
G01 X66.283607 Y184.768523 Z-0.125000 F800.000000
G01 X57.762286 Y172.123204 Z-0.125000
G01 X64.354403 Y144.364447 Z-0.125000
G01 X58.097123 Y129.455087 Z-0.125000
G01 X55.666442 Y110.719126 Z-0.125000
G01 X56.704398 Y88.514532 Z-0.125000
G01 X63.061134 Y60.991156 Z-0.125000
G00 Z3.000000

(End cutting path id: path10472)


(Start cutting path id: path10474)
(Change tool to Default tool)

G00 Z3.000000
G00 X59.931856 Y213.101015

G00 Z4.875000 (Fast pre-penetrate)
G01 Z-0.125000 F400.0(Penetrate)
G01 X67.114956 Y184.751275 Z-0.125000 F800.000000
G01 X58.708231 Y171.991360 Z-0.125000
G01 X65.246219 Y144.286731 Z-0.125000
G01 X58.745455 Y129.620856 Z-0.125000
G01 X56.633850 Y110.565821 Z-0.125000
G01 X57.680037 Y88.352993 Z-0.125000
G01 X63.627323 Y61.239067 Z-0.125000
G00 Z3.000000

(End cutting path id: path10474)


(Start cutting path id: path10478)
(Change tool to Default tool)

G00 Z3.000000
G00 X61.500907 Y213.160168

G00 Z4.875000 (Fast pre-penetrate)
G01 Z-0.125000 F400.0(Penetrate)
G01 X68.777654 Y184.716781 Z-0.125000 F800.000000
G01 X60.600121 Y171.727671 Z-0.125000
G01 X67.029856 Y144.131297 Z-0.125000
G01 X60.042123 Y129.952392 Z-0.125000
G01 X58.568666 Y110.259209 Z-0.125000
G01 X59.631318 Y88.029916 Z-0.125000
G01 X64.759704 Y61.734891 Z-0.125000
G00 Z3.000000

(End cutting path id: path10478)


(Start cutting path id: path10480)
(Change tool to Default tool)

G00 Z3.000000
G00 X62.285433 Y213.189743

G00 Z4.875000 (Fast pre-penetrate)
G01 Z-0.125000 F400.0(Penetrate)
G01 X69.609003 Y184.699533 Z-0.125000 F800.000000
G01 X61.546066 Y171.595830 Z-0.125000
G01 X67.921675 Y144.053581 Z-0.125000
G01 X60.690455 Y130.118161 Z-0.125000
G01 X59.536071 Y110.105904 Z-0.125000
G01 X60.606958 Y87.868378 Z-0.125000
G01 X65.325893 Y61.982802 Z-0.125000
G00 Z3.000000

(End cutting path id: path10480)


(Start cutting path id: path10444)
(Change tool to Default tool)

G00 Z3.000000
G00 X48.163982 Y212.657368

G00 Z4.875000 (Fast pre-penetrate)
G01 Z-0.125000 F400.0(Penetrate)
G01 X54.644720 Y185.009987 Z-0.125000 F800.000000
G01 X44.519051 Y173.969017 Z-0.125000
G01 X51.868948 Y145.452479 Z-0.125000
G01 X49.020461 Y127.134329 Z-0.125000
G01 X42.122742 Y112.865404 Z-0.125000
G01 X43.045435 Y90.776074 Z-0.125000
G01 X55.134482 Y57.520388 Z-0.125000
G00 Z3.000000

(End cutting path id: path10444)


(Start cutting path id: path10440)
(Change tool to Default tool)

G00 Z3.000000
G00 X46.594930 Y212.598215

G00 Z4.875000 (Fast pre-penetrate)
G01 Z-0.125000 F400.0(Penetrate)
G01 X52.982022 Y185.044483 Z-0.125000 F800.000000
G01 X42.627160 Y174.232703 Z-0.125000
G01 X50.085312 Y145.607911 Z-0.125000
G01 X47.723795 Y126.802790 Z-0.125000
G01 X40.187928 Y113.172016 Z-0.125000
G01 X41.094155 Y91.099151 Z-0.125000
G01 X54.002103 Y57.024562 Z-0.125000
G00 Z3.000000

(End cutting path id: path10440)


(Start cutting path id: path10436)
(Change tool to Default tool)

G00 Z3.000000
G00 X45.025881 Y212.539062

G00 Z4.875000 (Fast pre-penetrate)
G01 Z-0.125000 F400.0(Penetrate)
G01 X51.319324 Y185.078979 Z-0.125000 F800.000000
G01 X40.735270 Y174.496392 Z-0.125000
G01 X48.301676 Y145.763345 Z-0.125000
G01 X46.427128 Y126.471254 Z-0.125000
G01 X38.253114 Y113.478628 Z-0.125000
G01 X39.142875 Y91.422228 Z-0.125000
G01 X52.869723 Y56.528738 Z-0.125000
G00 Z3.000000

(End cutting path id: path10436)


(Start cutting path id: path10434)
(Change tool to Default tool)

G00 Z3.000000
G00 X44.241356 Y212.509484

G00 Z4.875000 (Fast pre-penetrate)
G01 Z-0.125000 F400.0(Penetrate)
G01 X50.487976 Y185.096225 Z-0.125000 F800.000000
G01 X39.789324 Y174.628237 Z-0.125000
G01 X47.409859 Y145.841061 Z-0.125000
G01 X45.778794 Y126.305485 Z-0.125000
G01 X37.285706 Y113.631933 Z-0.125000
G01 X38.167234 Y91.583766 Z-0.125000
G01 X52.303533 Y56.280827 Z-0.125000
G00 Z3.000000

(End cutting path id: path10434)


(Start cutting path id: path10430)
(Change tool to Default tool)

G00 Z3.000000
G00 X42.672306 Y212.450331

G00 Z4.875000 (Fast pre-penetrate)
G01 Z-0.125000 F400.0(Penetrate)
G01 X48.825278 Y185.130721 Z-0.125000 F800.000000
G01 X37.897434 Y174.891923 Z-0.125000
G01 X45.626222 Y145.996496 Z-0.125000
G01 X44.482128 Y125.973950 Z-0.125000
G01 X35.350892 Y113.938545 Z-0.125000
G01 X36.215954 Y91.906843 Z-0.125000
G01 X51.171155 Y55.785004 Z-0.125000
G00 Z3.000000

(End cutting path id: path10430)


(Start cutting path id: path10428)
(Change tool to Default tool)

G00 Z3.000000
G00 X41.887781 Y212.420754

G00 Z4.875000 (Fast pre-penetrate)
G01 Z-0.125000 F400.0(Penetrate)
G01 X47.993926 Y185.147969 Z-0.125000 F800.000000
G01 X36.951488 Y175.023767 Z-0.125000
G01 X44.734404 Y146.074212 Z-0.125000
G01 X43.833795 Y125.808180 Z-0.125000
G01 X34.383485 Y114.091850 Z-0.125000
G01 X35.240314 Y92.068382 Z-0.125000
G01 X50.604966 Y55.537089 Z-0.125000
G00 Z3.000000

(End cutting path id: path10428)


(Start cutting path id: path10540)
(Change tool to Default tool)

G00 Z3.000000
G00 X87.843976 Y212.054245

G00 Z4.875000 (Fast pre-penetrate)
G01 Z-0.125000 F400.0(Penetrate)
G01 X82.062969 Y196.668612 Z-0.125000 F800.000000
G01 X93.332893 Y164.232048 Z-0.125000
G01 X86.018025 Y150.380276 Z-0.125000
G01 X88.151249 Y127.080412 Z-0.125000
G01 X89.144819 Y104.920205 Z-0.125000
G01 X92.402011 Y80.496371 Z-0.125000
G01 X86.294572 Y65.437169 Z-0.125000
G00 Z3.000000

(End cutting path id: path10540)


(Start cutting path id: path10542)
(Change tool to Default tool)

G00 Z3.000000
G00 X88.490058 Y212.222263

G00 Z4.875000 (Fast pre-penetrate)
G01 Z-0.125000 F400.0(Penetrate)
G01 X83.210863 Y196.334822 Z-0.125000 F800.000000
G01 X94.231541 Y164.147501 Z-0.125000
G01 X86.813946 Y150.398456 Z-0.125000
G01 X89.127629 Y126.918135 Z-0.125000
G01 X89.575796 Y105.303326 Z-0.125000
G01 X92.827905 Y80.884580 Z-0.125000
G01 X86.813348 Y65.732496 Z-0.125000
G00 Z3.000000

(End cutting path id: path10542)


(Start cutting path id: path10544)
(Change tool to Default tool)

G00 Z3.000000
G00 X89.136141 Y212.390284

G00 Z4.875000 (Fast pre-penetrate)
G01 Z-0.125000 F400.0(Penetrate)
G01 X84.358753 Y196.001032 Z-0.125000 F800.000000
G01 X95.130189 Y164.062953 Z-0.125000
G01 X87.609867 Y150.416638 Z-0.125000
G01 X90.104009 Y126.755856 Z-0.125000
G01 X90.006775 Y105.686447 Z-0.125000
G01 X93.253798 Y81.272787 Z-0.125000
G01 X87.332124 Y66.027821 Z-0.125000
G00 Z3.000000

(End cutting path id: path10544)


(Start cutting path id: path10546)
(Change tool to Default tool)

G00 Z3.000000
G00 X89.782223 Y212.558302

G00 Z4.875000 (Fast pre-penetrate)
G01 Z-0.125000 F400.0(Penetrate)
G01 X85.506647 Y195.667239 Z-0.125000 F800.000000
G01 X96.028840 Y163.978406 Z-0.125000
G01 X88.405789 Y150.434817 Z-0.125000
G01 X91.080389 Y126.593577 Z-0.125000
G01 X90.437754 Y106.069572 Z-0.125000
G01 X93.679692 Y81.660993 Z-0.125000
G01 X87.850897 Y66.323149 Z-0.125000
G00 Z3.000000

(End cutting path id: path10546)


(Start cutting path id: path10548)
(Change tool to Default tool)

G00 Z3.000000
G00 X90.428306 Y212.726321

G00 Z4.875000 (Fast pre-penetrate)
G01 Z-0.125000 F400.0(Penetrate)
G01 X86.654540 Y195.333449 Z-0.125000 F800.000000
G01 X96.927488 Y163.893858 Z-0.125000
G01 X89.201710 Y150.452997 Z-0.125000
G01 X92.056769 Y126.431297 Z-0.125000
G01 X90.868734 Y106.452693 Z-0.125000
G01 X94.105586 Y82.049200 Z-0.125000
G01 X88.369673 Y66.618476 Z-0.125000
G00 Z3.000000

(End cutting path id: path10548)


(Start cutting path id: path10550)
(Change tool to Default tool)

G00 Z3.000000
G00 X91.074389 Y212.894341

G00 Z4.875000 (Fast pre-penetrate)
G01 Z-0.125000 F400.0(Penetrate)
G01 X87.802431 Y194.999659 Z-0.125000 F800.000000
G01 X97.826137 Y163.809311 Z-0.125000
G01 X89.997631 Y150.471176 Z-0.125000
G01 X93.033149 Y126.269020 Z-0.125000
G01 X91.299713 Y106.835817 Z-0.125000
G01 X94.531483 Y82.437407 Z-0.125000
G01 X88.888446 Y66.913804 Z-0.125000
G00 Z3.000000

(End cutting path id: path10550)


(Start cutting path id: path10552)
(Change tool to Default tool)

G00 Z3.000000
G00 X91.720471 Y213.062359

G00 Z4.875000 (Fast pre-penetrate)
G01 Z-0.125000 F400.0(Penetrate)
G01 X88.950324 Y194.665866 Z-0.125000 F800.000000
G01 X98.724788 Y163.724763 Z-0.125000
G01 X90.793552 Y150.489358 Z-0.125000
G01 X94.009530 Y126.106741 Z-0.125000
G01 X91.730692 Y107.218939 Z-0.125000
G01 X94.957377 Y82.825614 Z-0.125000
G01 X89.407222 Y67.209129 Z-0.125000
G00 Z3.000000

(End cutting path id: path10552)


(Start cutting path id: path10554)
(Change tool to Default tool)

G00 Z3.000000
G00 X92.366554 Y213.230378

G00 Z4.875000 (Fast pre-penetrate)
G01 Z-0.125000 F400.0(Penetrate)
G01 X90.098218 Y194.332076 Z-0.125000 F800.000000
G01 X99.623436 Y163.640216 Z-0.125000
G01 X91.589476 Y150.507538 Z-0.125000
G01 X94.985910 Y125.944462 Z-0.125000
G01 X92.161671 Y107.602063 Z-0.125000
G01 X95.383271 Y83.213823 Z-0.125000
G01 X89.925995 Y67.504456 Z-0.125000
G00 Z3.000000

(End cutting path id: path10554)


(Start cutting path id: path10556)
(Change tool to Default tool)

G00 Z3.000000
G00 X93.012636 Y213.398398

G00 Z4.875000 (Fast pre-penetrate)
G01 Z-0.125000 F400.0(Penetrate)
G01 X91.246108 Y193.998284 Z-0.125000 F800.000000
G01 X100.522087 Y163.555668 Z-0.125000
G01 X92.385397 Y150.525717 Z-0.125000
G01 X95.962292 Y125.782182 Z-0.125000
G01 X92.592651 Y107.985184 Z-0.125000
G01 X95.809165 Y83.602030 Z-0.125000
G01 X90.444771 Y67.799784 Z-0.125000
G00 Z3.000000

(End cutting path id: path10556)


(Start cutting path id: path10558)
(Change tool to Default tool)

G00 Z3.000000
G00 X93.658719 Y213.566417

G00 Z4.875000 (Fast pre-penetrate)
G01 Z-0.125000 F400.0(Penetrate)
G01 X92.394002 Y193.664494 Z-0.125000 F800.000000
G01 X101.420735 Y163.471121 Z-0.125000
G01 X93.181319 Y150.543897 Z-0.125000
G01 X96.938672 Y125.619903 Z-0.125000
G01 X93.023630 Y108.368306 Z-0.125000
G01 X96.235059 Y83.990237 Z-0.125000
G01 X90.963544 Y68.095111 Z-0.125000
G00 Z3.000000

(End cutting path id: path10558)


(Start cutting path id: path10560)
(Change tool to Default tool)

G00 Z3.000000
G00 X94.304802 Y213.734435

G00 Z4.875000 (Fast pre-penetrate)
G01 Z-0.125000 F400.0(Penetrate)
G01 X93.541895 Y193.330704 Z-0.125000 F800.000000
G01 X102.319383 Y163.386573 Z-0.125000
G01 X93.977240 Y150.562079 Z-0.125000
G01 X97.915052 Y125.457626 Z-0.125000
G01 X93.454609 Y108.751430 Z-0.125000
G01 X96.660953 Y84.378443 Z-0.125000
G01 X91.482320 Y68.390439 Z-0.125000
G00 Z3.000000

(End cutting path id: path10560)


(Start cutting path id: path10562)
(Change tool to Default tool)

G00 Z3.000000
G00 X94.950884 Y213.902455

G00 Z4.875000 (Fast pre-penetrate)
G01 Z-0.125000 F400.0(Penetrate)
G01 X94.689786 Y192.996911 Z-0.125000 F800.000000
G01 X103.218034 Y163.302026 Z-0.125000
G01 X94.773161 Y150.580259 Z-0.125000
G01 X98.891432 Y125.295347 Z-0.125000
G01 X93.885586 Y109.134551 Z-0.125000
G01 X97.086847 Y84.766650 Z-0.125000
G01 X92.001093 Y68.685764 Z-0.125000
G00 Z3.000000

(End cutting path id: path10562)


(Start cutting path id: path10564)
(Change tool to Default tool)

G00 Z3.000000
G00 X95.596967 Y214.070474

G00 Z4.875000 (Fast pre-penetrate)
G01 Z-0.125000 F400.0(Penetrate)
G01 X95.837679 Y192.663121 Z-0.125000 F800.000000
G01 X104.116682 Y163.217478 Z-0.125000
G01 X95.569082 Y150.598438 Z-0.125000
G01 X99.867813 Y125.133068 Z-0.125000
G01 X94.316565 Y109.517675 Z-0.125000
G01 X97.512743 Y85.154857 Z-0.125000
G01 X92.519869 Y68.981091 Z-0.125000
G00 Z3.000000

(End cutting path id: path10564)


(Start cutting path id: path10566)
(Change tool to Default tool)

G00 Z3.000000
G00 X96.243049 Y214.238492

G00 Z4.875000 (Fast pre-penetrate)
G01 Z-0.125000 F400.0(Penetrate)
G01 X96.985572 Y192.329331 Z-0.125000 F800.000000
G01 X105.015330 Y163.132931 Z-0.125000
G01 X96.365004 Y150.616618 Z-0.125000
G01 X100.844193 Y124.970788 Z-0.125000
G01 X94.747544 Y109.900797 Z-0.125000
G01 X97.938637 Y85.543066 Z-0.125000
G01 X93.038642 Y69.276419 Z-0.125000
G00 Z3.000000

(End cutting path id: path10566)


(Start cutting path id: path10568)
(Change tool to Default tool)

G00 Z3.000000
G00 X96.889132 Y214.406513

G00 Z4.875000 (Fast pre-penetrate)
G01 Z-0.125000 F400.0(Penetrate)
G01 X98.133463 Y191.995539 Z-0.125000 F800.000000
G01 X105.913981 Y163.048383 Z-0.125000
G01 X97.160925 Y150.634800 Z-0.125000
G01 X101.820573 Y124.808509 Z-0.125000
G01 X95.178523 Y110.283918 Z-0.125000
G01 X98.364531 Y85.931273 Z-0.125000
G01 X93.557418 Y69.571746 Z-0.125000
G00 Z3.000000

(End cutting path id: path10568)


(Start cutting path id: path10570)
(Change tool to Default tool)

G00 Z3.000000
G00 X97.535214 Y214.574531

G00 Z4.875000 (Fast pre-penetrate)
G01 Z-0.125000 F400.0(Penetrate)
G01 X99.281356 Y191.661749 Z-0.125000 F800.000000
G01 X106.812629 Y162.963836 Z-0.125000
G01 X97.956846 Y150.652979 Z-0.125000
G01 X102.796953 Y124.646232 Z-0.125000
G01 X95.609503 Y110.667043 Z-0.125000
G01 X98.790425 Y86.319480 Z-0.125000
G01 X94.076191 Y69.867071 Z-0.125000
G00 Z3.000000

(End cutting path id: path10570)


(Start cutting path id: path10572)
(Change tool to Default tool)

G00 Z3.000000
G00 X98.181297 Y214.742549

G00 Z4.875000 (Fast pre-penetrate)
G01 Z-0.125000 F400.0(Penetrate)
G01 X100.429250 Y191.327956 Z-0.125000 F800.000000
G01 X107.711278 Y162.879288 Z-0.125000
G01 X98.752767 Y150.671159 Z-0.125000
G01 X103.773333 Y124.483953 Z-0.125000
G01 X96.040482 Y111.050164 Z-0.125000
G01 X99.216319 Y86.707687 Z-0.125000
G01 X94.594967 Y70.162399 Z-0.125000
G00 Z3.000000

(End cutting path id: path10572)


(Start cutting path id: path10574)
(Change tool to Default tool)

G00 Z3.000000
G00 X98.827380 Y214.910570

G00 Z4.875000 (Fast pre-penetrate)
G01 Z-0.125000 F400.0(Penetrate)
G01 X101.577140 Y190.994166 Z-0.125000 F800.000000
G01 X108.609929 Y162.794741 Z-0.125000
G01 X99.548688 Y150.689338 Z-0.125000
G01 X104.749713 Y124.321674 Z-0.125000
G01 X96.471461 Y111.433288 Z-0.125000
G01 X99.642213 Y87.095893 Z-0.125000
G01 X95.113743 Y70.457726 Z-0.125000
G00 Z3.000000

(End cutting path id: path10574)


(Start cutting path id: path10576)
(Change tool to Default tool)

G00 Z3.000000
G00 X99.473462 Y215.078588

G00 Z4.875000 (Fast pre-penetrate)
G01 Z-0.125000 F400.0(Penetrate)
G01 X102.725034 Y190.660376 Z-0.125000 F800.000000
G01 X109.508577 Y162.710193 Z-0.125000
G01 X100.344610 Y150.707520 Z-0.125000
G01 X105.726093 Y124.159394 Z-0.125000
G01 X96.902440 Y111.816410 Z-0.125000
G01 X100.068107 Y87.484100 Z-0.125000
G01 X95.632516 Y70.753054 Z-0.125000
G00 Z3.000000

(End cutting path id: path10576)


(Start cutting path id: path10578)
(Change tool to Default tool)

G00 Z3.000000
G00 X100.119545 Y215.246609

G00 Z4.875000 (Fast pre-penetrate)
G01 Z-0.125000 F400.0(Penetrate)
G01 X103.872927 Y190.326584 Z-0.125000 F800.000000
G01 X110.407225 Y162.625646 Z-0.125000
G01 X101.140531 Y150.725700 Z-0.125000
G01 X106.702476 Y123.997118 Z-0.125000
G01 X97.333420 Y112.199534 Z-0.125000
G01 X100.494001 Y87.872310 Z-0.125000
G01 X96.151292 Y71.048379 Z-0.125000
G00 Z3.000000

(End cutting path id: path10578)


(Start cutting path id: path10580)
(Change tool to Default tool)

G00 Z3.000000
G00 X100.765627 Y215.414627

G00 Z4.875000 (Fast pre-penetrate)
G01 Z-0.125000 F400.0(Penetrate)
G01 X105.020818 Y189.992794 Z-0.125000 F800.000000
G01 X111.305876 Y162.541098 Z-0.125000
G01 X101.936452 Y150.743879 Z-0.125000
G01 X107.678856 Y123.834838 Z-0.125000
G01 X97.764396 Y112.582655 Z-0.125000
G01 X100.919898 Y88.260516 Z-0.125000
G01 X96.670065 Y71.343706 Z-0.125000
G00 Z3.000000

(End cutting path id: path10580)


(Start cutting path id: path10582)
(Change tool to Default tool)

G00 Z3.000000
G00 X101.411707 Y215.582645

G00 Z4.875000 (Fast pre-penetrate)
G01 Z-0.125000 F400.0(Penetrate)
G01 X106.168711 Y189.659004 Z-0.125000 F800.000000
G01 X112.204524 Y162.456551 Z-0.125000
G01 X102.732373 Y150.762059 Z-0.125000
G01 X108.655236 Y123.672559 Z-0.125000
G01 X98.195375 Y112.965777 Z-0.125000
G01 X101.345792 Y88.648723 Z-0.125000
G01 X97.188841 Y71.639034 Z-0.125000
G00 Z3.000000

(End cutting path id: path10582)


(Start cutting path id: path10584)
(Change tool to Default tool)

G00 Z3.000000
G00 X102.057790 Y215.750666

G00 Z4.875000 (Fast pre-penetrate)
G01 Z-0.125000 F400.0(Penetrate)
G01 X107.316605 Y189.325211 Z-0.125000 F800.000000
G01 X113.103172 Y162.372003 Z-0.125000
G01 X103.528295 Y150.780241 Z-0.125000
G01 X109.631616 Y123.510280 Z-0.125000
G01 X98.626355 Y113.348901 Z-0.125000
G01 X101.771686 Y89.036930 Z-0.125000
G01 X97.707614 Y71.934361 Z-0.125000
G00 Z3.000000

(End cutting path id: path10584)


(Start cutting path id: path10586)
(Change tool to Default tool)

G00 Z3.000000
G00 X102.825761 Y215.796796

G00 Z4.875000 (Fast pre-penetrate)
G01 Z-0.125000 F400.0(Penetrate)
G01 X108.031095 Y189.424821 Z-0.125000 F800.000000
G01 X113.619162 Y162.670117 Z-0.125000
G01 X104.199153 Y150.923484 Z-0.125000
G01 X110.547115 Y123.408884 Z-0.125000
G01 X99.965952 Y112.823407 Z-0.125000
G01 X102.570139 Y89.052580 Z-0.125000
G01 X99.029082 Y71.426994 Z-0.125000
G00 Z3.000000

(End cutting path id: path10586)


(Start cutting path id: path10588)
(Change tool to Default tool)

G00 Z3.000000
G00 X103.593731 Y215.842928

G00 Z4.875000 (Fast pre-penetrate)
G01 Z-0.125000 F400.0(Penetrate)
G01 X108.745588 Y189.524431 Z-0.125000 F800.000000
G01 X114.135149 Y162.968230 Z-0.125000
G01 X104.870011 Y151.066729 Z-0.125000
G01 X111.462615 Y123.307485 Z-0.125000
G01 X101.305546 Y112.297911 Z-0.125000
G01 X103.368590 Y89.068227 Z-0.125000
G01 X100.350550 Y70.919627 Z-0.125000
G00 Z3.000000

(End cutting path id: path10588)


(Start cutting path id: path10590)
(Change tool to Default tool)

G00 Z3.000000
G00 X104.361702 Y215.889058

G00 Z4.875000 (Fast pre-penetrate)
G01 Z-0.125000 F400.0(Penetrate)
G01 X109.460079 Y189.624042 Z-0.125000 F800.000000
G01 X114.651136 Y163.266344 Z-0.125000
G01 X105.540869 Y151.209971 Z-0.125000
G01 X112.378114 Y123.206086 Z-0.125000
G01 X102.645143 Y111.772417 Z-0.125000
G01 X104.167043 Y89.083877 Z-0.125000
G01 X101.672017 Y70.412263 Z-0.125000
G00 Z3.000000

(End cutting path id: path10590)


(Start cutting path id: path10592)
(Change tool to Default tool)

G00 Z3.000000
G00 X105.129673 Y215.935191

G00 Z4.875000 (Fast pre-penetrate)
G01 Z-0.125000 F400.0(Penetrate)
G01 X110.174569 Y189.723652 Z-0.125000 F800.000000
G01 X115.167126 Y163.564455 Z-0.125000
G01 X106.211727 Y151.353217 Z-0.125000
G01 X113.293611 Y123.104690 Z-0.125000
G01 X103.984737 Y111.246924 Z-0.125000
G01 X104.965496 Y89.099525 Z-0.125000
G01 X102.993485 Y69.904896 Z-0.125000
G00 Z3.000000

(End cutting path id: path10592)


(Start cutting path id: path10594)
(Change tool to Default tool)

G00 Z3.000000
G00 X105.897643 Y215.981321

G00 Z4.875000 (Fast pre-penetrate)
G01 Z-0.125000 F400.0(Penetrate)
G01 X110.889062 Y189.823262 Z-0.125000 F800.000000
G01 X115.683113 Y163.862569 Z-0.125000
G01 X106.882585 Y151.496459 Z-0.125000
G01 X114.209111 Y123.003291 Z-0.125000
G01 X105.324332 Y110.721430 Z-0.125000
G01 X105.763949 Y89.115175 Z-0.125000
G01 X104.314955 Y69.397529 Z-0.125000
G00 Z3.000000

(End cutting path id: path10594)


(Start cutting path id: path10596)
(Change tool to Default tool)

G00 Z3.000000
G00 X106.665611 Y216.027454

G00 Z4.875000 (Fast pre-penetrate)
G01 Z-0.125000 F400.0(Penetrate)
G01 X111.603553 Y189.922872 Z-0.125000 F800.000000
G01 X116.199103 Y164.160682 Z-0.125000
G01 X107.553441 Y151.639704 Z-0.125000
G01 X115.124610 Y122.901895 Z-0.125000
G01 X106.663929 Y110.195937 Z-0.125000
G01 X106.562400 Y89.130822 Z-0.125000
G01 X105.636423 Y68.890162 Z-0.125000
G00 Z3.000000

(End cutting path id: path10596)


(Start cutting path id: path10598)
(Change tool to Default tool)

G00 Z3.000000
G00 X107.433582 Y216.073584

G00 Z4.875000 (Fast pre-penetrate)
G01 Z-0.125000 F400.0(Penetrate)
G01 X112.318046 Y190.022482 Z-0.125000 F800.000000
G01 X116.715090 Y164.458796 Z-0.125000
G01 X108.224299 Y151.782947 Z-0.125000
G01 X116.040110 Y122.800496 Z-0.125000
G01 X108.003523 Y109.670443 Z-0.125000
G01 X107.360853 Y89.146472 Z-0.125000
G01 X106.957891 Y68.382795 Z-0.125000
G00 Z3.000000

(End cutting path id: path10598)


(Start cutting path id: path10600)
(Change tool to Default tool)

G00 Z3.000000
G00 X108.201553 Y216.119714

G00 Z4.875000 (Fast pre-penetrate)
G01 Z-0.125000 F400.0(Penetrate)
G01 X113.032537 Y190.122093 Z-0.125000 F800.000000
G01 X117.231077 Y164.756909 Z-0.125000
G01 X108.895157 Y151.926190 Z-0.125000
G01 X116.955609 Y122.699097 Z-0.125000
G01 X109.343120 Y109.144949 Z-0.125000
G01 X108.159307 Y89.162123 Z-0.125000
G01 X108.279359 Y67.875431 Z-0.125000
G00 Z3.000000

(End cutting path id: path10600)


(Start cutting path id: path10602)
(Change tool to Default tool)

G00 Z3.000000
G00 X108.969523 Y216.165847

G00 Z4.875000 (Fast pre-penetrate)
G01 Z-0.125000 F400.0(Penetrate)
G01 X113.747027 Y190.221700 Z-0.125000 F800.000000
G01 X117.747067 Y165.055023 Z-0.125000
G01 X109.566015 Y152.069435 Z-0.125000
G01 X117.871109 Y122.597701 Z-0.125000
G01 X110.682714 Y108.619456 Z-0.125000
G01 X108.957760 Y89.177770 Z-0.125000
G01 X109.600826 Y67.368064 Z-0.125000
G00 Z3.000000

(End cutting path id: path10602)


(Start cutting path id: path10604)
(Change tool to Default tool)

G00 Z3.000000
G00 X109.737494 Y216.211977

G00 Z4.875000 (Fast pre-penetrate)
G01 Z-0.125000 F400.0(Penetrate)
G01 X114.461520 Y190.321310 Z-0.125000 F800.000000
G01 X118.263054 Y165.353137 Z-0.125000
G01 X110.236873 Y152.212677 Z-0.125000
G01 X118.786608 Y122.496302 Z-0.125000
G01 X112.022311 Y108.093960 Z-0.125000
G01 X109.756211 Y89.193420 Z-0.125000
G01 X110.922294 Y66.860697 Z-0.125000
G00 Z3.000000

(End cutting path id: path10604)


(Start cutting path id: path10606)
(Change tool to Default tool)

G00 Z3.000000
G00 X110.505462 Y216.258109

G00 Z4.875000 (Fast pre-penetrate)
G01 Z-0.125000 F400.0(Penetrate)
G01 X115.176011 Y190.420921 Z-0.125000 F800.000000
G01 X118.779041 Y165.651250 Z-0.125000
G01 X110.907729 Y152.355923 Z-0.125000
G01 X119.702108 Y122.394906 Z-0.125000
G01 X113.361905 Y107.568466 Z-0.125000
G01 X110.554664 Y89.209068 Z-0.125000
G01 X112.243762 Y66.353330 Z-0.125000
G00 Z3.000000

(End cutting path id: path10606)


(Start cutting path id: path10608)
(Change tool to Default tool)

G00 Z3.000000
G00 X111.273433 Y216.304239

G00 Z4.875000 (Fast pre-penetrate)
G01 Z-0.125000 F400.0(Penetrate)
G01 X115.890504 Y190.520531 Z-0.125000 F800.000000
G01 X119.295031 Y165.949364 Z-0.125000
G01 X111.578587 Y152.499165 Z-0.125000
G01 X120.617607 Y122.293507 Z-0.125000
G01 X114.701500 Y107.042972 Z-0.125000
G01 X111.353117 Y89.224718 Z-0.125000
G01 X113.565229 Y65.845965 Z-0.125000
G00 Z3.000000

(End cutting path id: path10608)


(Start cutting path id: path10610)
(Change tool to Default tool)

G00 Z3.000000
G00 X112.041403 Y216.350372

G00 Z4.875000 (Fast pre-penetrate)
G01 Z-0.125000 F400.0(Penetrate)
G01 X116.604994 Y190.620141 Z-0.125000 F800.000000
G01 X119.811018 Y166.247477 Z-0.125000
G01 X112.249445 Y152.642411 Z-0.125000
G01 X121.533107 Y122.192109 Z-0.125000
G01 X116.041097 Y106.517479 Z-0.125000
G01 X112.151570 Y89.240365 Z-0.125000
G01 X114.886697 Y65.338598 Z-0.125000
G00 Z3.000000

(End cutting path id: path10610)


(Start cutting path id: path10612)
(Change tool to Default tool)

G00 Z3.000000
G00 X112.809374 Y216.396502

G00 Z4.875000 (Fast pre-penetrate)
G01 Z-0.125000 F400.0(Penetrate)
G01 X117.319485 Y190.719751 Z-0.125000 F800.000000
G01 X120.327005 Y166.545591 Z-0.125000
G01 X112.920303 Y152.785653 Z-0.125000
G01 X122.448606 Y122.090713 Z-0.125000
G01 X117.380691 Y105.991985 Z-0.125000
G01 X112.950021 Y89.256015 Z-0.125000
G01 X116.208165 Y64.831231 Z-0.125000
G00 Z3.000000

(End cutting path id: path10612)


(Start cutting path id: path10614)
(Change tool to Default tool)

G00 Z3.000000
G00 X113.577345 Y216.442635

G00 Z4.875000 (Fast pre-penetrate)
G01 Z-0.125000 F400.0(Penetrate)
G01 X118.033978 Y190.819361 Z-0.125000 F800.000000
G01 X120.842995 Y166.843705 Z-0.125000
G01 X113.591161 Y152.928898 Z-0.125000
G01 X123.364103 Y121.989314 Z-0.125000
G01 X118.720288 Y105.466492 Z-0.125000
G01 X113.748474 Y89.271663 Z-0.125000
G01 X117.529633 Y64.323864 Z-0.125000
G00 Z3.000000

(End cutting path id: path10614)


(Start cutting path id: path10616)
(Change tool to Default tool)

G00 Z3.000000
G00 X114.345315 Y216.488765

G00 Z4.875000 (Fast pre-penetrate)
G01 Z-0.125000 F400.0(Penetrate)
G01 X118.748469 Y190.918972 Z-0.125000 F800.000000
G01 X121.358982 Y167.141818 Z-0.125000
G01 X114.262019 Y153.072141 Z-0.125000
G01 X124.279603 Y121.887918 Z-0.125000
G01 X120.059882 Y104.940998 Z-0.125000
G01 X114.546928 Y89.287313 Z-0.125000
G01 X118.851100 Y63.816500 Z-0.125000
G00 Z3.000000

(End cutting path id: path10616)


(Start cutting path id: path10618)
(Change tool to Default tool)

G00 Z3.000000
G00 X115.113283 Y216.534898

G00 Z4.875000 (Fast pre-penetrate)
G01 Z-0.125000 F400.0(Penetrate)
G01 X119.462959 Y191.018582 Z-0.125000 F800.000000
G01 X121.874972 Y167.439932 Z-0.125000
G01 X114.932875 Y153.215386 Z-0.125000
G01 X125.195102 Y121.786519 Z-0.125000
G01 X121.399479 Y104.415504 Z-0.125000
G01 X115.345381 Y89.302963 Z-0.125000
G01 X120.172568 Y63.309133 Z-0.125000
G00 Z3.000000

(End cutting path id: path10618)


(Start cutting path id: path10620)
(Change tool to Default tool)

G00 Z3.000000
G00 X115.881254 Y216.581028

G00 Z4.875000 (Fast pre-penetrate)
G01 Z-0.125000 F400.0(Penetrate)
G01 X120.177452 Y191.118192 Z-0.125000 F800.000000
G01 X122.390959 Y167.738045 Z-0.125000
G01 X115.603733 Y153.358629 Z-0.125000
G01 X126.110602 Y121.685120 Z-0.125000
G01 X122.739074 Y103.890008 Z-0.125000
G01 X116.143832 Y89.318610 Z-0.125000
G01 X121.494039 Y62.801766 Z-0.125000
G00 Z3.000000

(End cutting path id: path10620)


(Start cutting path id: path10622)
(Change tool to Default tool)

G00 Z3.000000
G00 X116.649225 Y216.627160

G00 Z4.875000 (Fast pre-penetrate)
G01 Z-0.125000 F400.0(Penetrate)
G01 X120.891943 Y191.217802 Z-0.125000 F800.000000
G01 X122.906946 Y168.036159 Z-0.125000
G01 X116.274591 Y153.501874 Z-0.125000
G01 X127.026101 Y121.583724 Z-0.125000
G01 X124.078668 Y103.364515 Z-0.125000
G01 X116.942285 Y89.334260 Z-0.125000
G01 X122.815506 Y62.294399 Z-0.125000
G00 Z3.000000

(End cutting path id: path10622)


(Start cutting path id: path10626)
(Change tool to Default tool)

G00 Z3.000000
G00 X118.185166 Y216.719423

G00 Z4.875000 (Fast pre-penetrate)
G01 Z-0.125000 F400.0(Penetrate)
G01 X122.320927 Y191.417020 Z-0.125000 F800.000000
G01 X123.938923 Y168.632384 Z-0.125000
G01 X117.616307 Y153.788362 Z-0.125000
G01 X128.857100 Y121.380929 Z-0.125000
G01 X126.757859 Y102.313527 Z-0.125000
G01 X118.539191 Y89.365558 Z-0.125000
G01 X125.458442 Y61.279668 Z-0.125000
G00 Z3.000000

(End cutting path id: path10626)


(Start cutting path id: path10702)
(Change tool to Default tool)

G00 Z3.000000
G00 X149.316359 Y216.524089

G00 Z4.875000 (Fast pre-penetrate)
G01 Z-0.125000 F400.0(Penetrate)
G01 X153.909888 Y190.763918 Z-0.125000 F800.000000
G01 X155.308632 Y168.198534 Z-0.125000
G01 X156.118643 Y146.221886 Z-0.125000
G01 X158.641807 Y122.532079 Z-0.125000
G01 X154.312281 Y105.694964 Z-0.125000
G01 X152.617037 Y86.223569 Z-0.125000
G01 X151.021419 Y66.652547 Z-0.125000
G00 Z3.000000

(End cutting path id: path10702)


(Start cutting path id: path10704)
(Change tool to Default tool)

G00 Z3.000000
G00 X149.881577 Y216.772972

G00 Z4.875000 (Fast pre-penetrate)
G01 Z-0.125000 F400.0(Penetrate)
G01 X154.900833 Y190.587076 Z-0.125000 F800.000000
G01 X155.578816 Y168.742450 Z-0.125000
G01 X156.646515 Y146.508112 Z-0.125000
G01 X159.200249 Y122.787738 Z-0.125000
G01 X154.859394 Y105.961952 Z-0.125000
G01 X153.876728 Y85.777982 Z-0.125000
G01 X152.026975 Y66.461094 Z-0.125000
G00 Z3.000000

(End cutting path id: path10704)


(Start cutting path id: path10706)
(Change tool to Default tool)

G00 Z3.000000
G00 X150.446795 Y217.021855

G00 Z4.875000 (Fast pre-penetrate)
G01 Z-0.125000 F400.0(Penetrate)
G01 X155.891776 Y190.410234 Z-0.125000 F800.000000
G01 X155.849001 Y169.286369 Z-0.125000
G01 X157.174390 Y146.794340 Z-0.125000
G01 X159.758691 Y123.043397 Z-0.125000
G01 X155.406507 Y106.228943 Z-0.125000
G01 X155.136415 Y85.332395 Z-0.125000
G01 X153.032528 Y66.269639 Z-0.125000
G00 Z3.000000

(End cutting path id: path10706)


(Start cutting path id: path10708)
(Change tool to Default tool)

G00 Z3.000000
G00 X151.012013 Y217.270737

G00 Z4.875000 (Fast pre-penetrate)
G01 Z-0.125000 F400.0(Penetrate)
G01 X156.882721 Y190.233389 Z-0.125000 F800.000000
G01 X156.119182 Y169.830288 Z-0.125000
G01 X157.702262 Y147.080569 Z-0.125000
G01 X160.317133 Y123.299058 Z-0.125000
G01 X155.953617 Y106.495934 Z-0.125000
G01 X156.396103 Y84.886808 Z-0.125000
G01 X154.038084 Y66.078187 Z-0.125000
G00 Z3.000000

(End cutting path id: path10708)


(Start cutting path id: path10710)
(Change tool to Default tool)

G00 Z3.000000
G00 X151.577234 Y217.519620

G00 Z4.875000 (Fast pre-penetrate)
G01 Z-0.125000 F400.0(Penetrate)
G01 X157.873664 Y190.056547 Z-0.125000 F800.000000
G01 X156.389367 Y170.374205 Z-0.125000
G01 X158.230137 Y147.366797 Z-0.125000
G01 X160.875575 Y123.554716 Z-0.125000
G01 X156.500729 Y106.762922 Z-0.125000
G01 X157.655793 Y84.441221 Z-0.125000
G01 X155.043639 Y65.886735 Z-0.125000
G00 Z3.000000

(End cutting path id: path10710)


(Start cutting path id: path10712)
(Change tool to Default tool)

G00 Z3.000000
G00 X152.142452 Y217.768503

G00 Z4.875000 (Fast pre-penetrate)
G01 Z-0.125000 F400.0(Penetrate)
G01 X158.864609 Y189.879706 Z-0.125000 F800.000000
G01 X156.659551 Y170.918124 Z-0.125000
G01 X158.758009 Y147.653026 Z-0.125000
G01 X161.434020 Y123.810375 Z-0.125000
G01 X157.047842 Y107.029913 Z-0.125000
G01 X158.915481 Y83.995634 Z-0.125000
G01 X156.049192 Y65.695280 Z-0.125000
G00 Z3.000000

(End cutting path id: path10712)


(Start cutting path id: path10714)
(Change tool to Default tool)

G00 Z3.000000
G00 X152.707670 Y218.017385

G00 Z4.875000 (Fast pre-penetrate)
G01 Z-0.125000 F400.0(Penetrate)
G01 X159.855552 Y189.702864 Z-0.125000 F800.000000
G01 X156.929732 Y171.462043 Z-0.125000
G01 X159.285884 Y147.939252 Z-0.125000
G01 X161.992462 Y124.066034 Z-0.125000
G01 X157.594952 Y107.296903 Z-0.125000
G01 X160.175168 Y83.550047 Z-0.125000
G01 X157.054748 Y65.503828 Z-0.125000
G00 Z3.000000

(End cutting path id: path10714)


(Start cutting path id: path10716)
(Change tool to Default tool)

G00 Z3.000000
G00 X153.272888 Y218.266268

G00 Z4.875000 (Fast pre-penetrate)
G01 Z-0.125000 F400.0(Penetrate)
G01 X160.846495 Y189.526022 Z-0.125000 F800.000000
G01 X157.199917 Y172.005960 Z-0.125000
G01 X159.813756 Y148.225480 Z-0.125000
G01 X162.550904 Y124.321695 Z-0.125000
G01 X158.142065 Y107.563891 Z-0.125000
G01 X161.434858 Y83.104460 Z-0.125000
G01 X158.060301 Y65.312375 Z-0.125000
G00 Z3.000000

(End cutting path id: path10716)


(Start cutting path id: path10718)
(Change tool to Default tool)

G00 Z3.000000
G00 X153.838109 Y218.515151

G00 Z4.875000 (Fast pre-penetrate)
G01 Z-0.125000 F400.0(Penetrate)
G01 X161.837440 Y189.349180 Z-0.125000 F800.000000
G01 X157.470101 Y172.549879 Z-0.125000
G01 X160.341631 Y148.511709 Z-0.125000
G01 X163.109346 Y124.577354 Z-0.125000
G01 X158.689178 Y107.830882 Z-0.125000
G01 X162.694546 Y82.658874 Z-0.125000
G01 X159.065856 Y65.120923 Z-0.125000
G00 Z3.000000

(End cutting path id: path10718)


(Start cutting path id: path10720)
(Change tool to Default tool)

G00 Z3.000000
G00 X154.403327 Y218.764033

G00 Z4.875000 (Fast pre-penetrate)
G01 Z-0.125000 F400.0(Penetrate)
G01 X162.828383 Y189.172338 Z-0.125000 F800.000000
G01 X157.740282 Y173.093798 Z-0.125000
G01 X160.869503 Y148.797937 Z-0.125000
G01 X163.667788 Y124.833012 Z-0.125000
G01 X159.236288 Y108.097873 Z-0.125000
G01 X163.954234 Y82.213287 Z-0.125000
G01 X160.071412 Y64.929468 Z-0.125000
G00 Z3.000000

(End cutting path id: path10720)


(Start cutting path id: path10722)
(Change tool to Default tool)

G00 Z3.000000
G00 X154.968545 Y219.012916

G00 Z4.875000 (Fast pre-penetrate)
G01 Z-0.125000 F400.0(Penetrate)
G01 X163.819328 Y188.995493 Z-0.125000 F800.000000
G01 X158.010467 Y173.637714 Z-0.125000
G01 X161.397378 Y149.084166 Z-0.125000
G01 X164.226230 Y125.088671 Z-0.125000
G01 X159.783400 Y108.364861 Z-0.125000
G01 X165.213924 Y81.767700 Z-0.125000
G01 X161.076965 Y64.738016 Z-0.125000
G00 Z3.000000

(End cutting path id: path10722)


(Start cutting path id: path10724)
(Change tool to Default tool)

G00 Z3.000000
G00 X155.533763 Y219.261798

G00 Z4.875000 (Fast pre-penetrate)
G01 Z-0.125000 F400.0(Penetrate)
G01 X164.810271 Y188.818651 Z-0.125000 F800.000000
G01 X158.280651 Y174.181634 Z-0.125000
G01 X161.925250 Y149.370395 Z-0.125000
G01 X164.784672 Y125.344329 Z-0.125000
G01 X160.330513 Y108.631852 Z-0.125000
G01 X166.473612 Y81.322113 Z-0.125000
G01 X162.082521 Y64.546564 Z-0.125000
G00 Z3.000000

(End cutting path id: path10724)


(Start cutting path id: path10726)
(Change tool to Default tool)

G00 Z3.000000
G00 X156.098984 Y219.510681

G00 Z4.875000 (Fast pre-penetrate)
G01 Z-0.125000 F400.0(Penetrate)
G01 X165.801216 Y188.641809 Z-0.125000 F800.000000
G01 X158.550832 Y174.725553 Z-0.125000
G01 X162.453125 Y149.656620 Z-0.125000
G01 X165.343115 Y125.599991 Z-0.125000
G01 X160.877623 Y108.898840 Z-0.125000
G01 X167.733299 Y80.876526 Z-0.125000
G01 X163.088076 Y64.355109 Z-0.125000
G00 Z3.000000

(End cutting path id: path10726)


(Start cutting path id: path10728)
(Change tool to Default tool)

G00 Z3.000000
G00 X156.664202 Y219.759564

G00 Z4.875000 (Fast pre-penetrate)
G01 Z-0.125000 F400.0(Penetrate)
G01 X166.792159 Y188.464967 Z-0.125000 F800.000000
G01 X158.821017 Y175.269469 Z-0.125000
G01 X162.980997 Y149.942849 Z-0.125000
G01 X165.901557 Y125.855649 Z-0.125000
G01 X161.424736 Y109.165830 Z-0.125000
G01 X168.992987 Y80.430939 Z-0.125000
G01 X164.093629 Y64.163657 Z-0.125000
G00 Z3.000000

(End cutting path id: path10728)


(Start cutting path id: path10730)
(Change tool to Default tool)

G00 Z3.000000
G00 X157.229420 Y220.008446

G00 Z4.875000 (Fast pre-penetrate)
G01 Z-0.125000 F400.0(Penetrate)
G01 X167.783104 Y188.288125 Z-0.125000 F800.000000
G01 X159.091201 Y175.813388 Z-0.125000
G01 X163.508869 Y150.229078 Z-0.125000
G01 X166.460001 Y126.111308 Z-0.125000
G01 X161.971848 Y109.432821 Z-0.125000
G01 X170.252677 Y79.985352 Z-0.125000
G01 X165.099185 Y63.972204 Z-0.125000
G00 Z3.000000

(End cutting path id: path10730)


(Start cutting path id: path10732)
(Change tool to Default tool)

G00 Z3.000000
G00 X157.794638 Y220.257329

G00 Z4.875000 (Fast pre-penetrate)
G01 Z-0.125000 F400.0(Penetrate)
G01 X168.774047 Y188.111283 Z-0.125000 F800.000000
G01 X159.361382 Y176.357305 Z-0.125000
G01 X164.036744 Y150.515306 Z-0.125000
G01 X167.018443 Y126.366966 Z-0.125000
G01 X162.518958 Y109.699809 Z-0.125000
G01 X171.512365 Y79.539765 Z-0.125000
G01 X166.104738 Y63.780749 Z-0.125000
G00 Z3.000000

(End cutting path id: path10732)


(Start cutting path id: path10734)
(Change tool to Default tool)

G00 Z3.000000
G00 X158.359859 Y220.506212

G00 Z4.875000 (Fast pre-penetrate)
G01 Z-0.125000 F400.0(Penetrate)
G01 X169.764990 Y187.934441 Z-0.125000 F800.000000
G01 X159.631567 Y176.901224 Z-0.125000
G01 X164.564616 Y150.801535 Z-0.125000
G01 X167.576886 Y126.622625 Z-0.125000
G01 X163.066071 Y109.966800 Z-0.125000
G01 X172.772052 Y79.094178 Z-0.125000
G01 X167.110293 Y63.589297 Z-0.125000
G00 Z3.000000

(End cutting path id: path10734)


(Start cutting path id: path10736)
(Change tool to Default tool)

G00 Z3.000000
G00 X158.925077 Y220.755094

G00 Z4.875000 (Fast pre-penetrate)
G01 Z-0.125000 F400.0(Penetrate)
G01 X170.755935 Y187.757596 Z-0.125000 F800.000000
G01 X159.901751 Y177.445143 Z-0.125000
G01 X165.092491 Y151.087760 Z-0.125000
G01 X168.135328 Y126.878286 Z-0.125000
G01 X163.613184 Y110.233790 Z-0.125000
G01 X174.031742 Y78.648592 Z-0.125000
G01 X168.115849 Y63.397845 Z-0.125000
G00 Z3.000000

(End cutting path id: path10736)


(Start cutting path id: path10738)
(Change tool to Default tool)

G00 Z3.000000
G00 X159.490295 Y221.003977

G00 Z4.875000 (Fast pre-penetrate)
G01 Z-0.125000 F400.0(Penetrate)
G01 X171.746878 Y187.580754 Z-0.125000 F800.000000
G01 X160.171932 Y177.989060 Z-0.125000
G01 X165.620363 Y151.373989 Z-0.125000
G01 X168.693770 Y127.133945 Z-0.125000
G01 X164.160294 Y110.500779 Z-0.125000
G01 X175.291430 Y78.203005 Z-0.125000
G01 X169.121402 Y63.206393 Z-0.125000
G00 Z3.000000

(End cutting path id: path10738)



(Footer)
M5
G00 X0.0000 Y0.0000
M2
(Using default footer. To add your own footer create file "footer" in the output dir.)
(end)
%