%
(Header)
(Generated by gcodetools from Inkscape.)
(Using default header. To add your own header create file "header" in the output dir.)
M3
(Header end.)
G21 (All units in mm)

(Start cutting path id: path163681)
(Change tool to Default tool)

G00 Z3.000000
G00 X157.778144 Y73.934279

G00 Z4.875000 (Fast pre-penetrate)
G01 Z-0.125000 F400.0(Penetrate)
G02 X157.785315 Y73.922242 Z-0.125000 I-0.154751 J-0.100351 F800.000000
G02 X157.790420 Y73.911657 Z-0.125000 I-0.103428 J-0.056411
G02 X157.794331 Y73.900597 Z-0.125000 I-0.090647 J-0.038273
G02 X157.796188 Y73.891443 Z-0.125000 I-0.056122 J-0.016151
G01 X157.796387 Y73.882177 Z-0.125000
G01 X157.794865 Y73.874747 Z-0.125000
G01 X157.791502 Y73.868086 Z-0.125000
G01 X157.786161 Y73.862550 Z-0.125000
G01 X157.779494 Y73.858668 Z-0.125000
G01 X157.769915 Y73.855750 Z-0.125000
G02 X157.759852 Y73.854588 Z-0.125000 I-0.012137 J0.060929
G02 X157.746288 Y73.854957 Z-0.125000 I-0.003742 J0.112015
G02 X157.732772 Y73.856859 Z-0.125000 I0.011398 J0.129937
G02 X157.715649 Y73.860910 Z-0.125000 I0.041910 J0.215379
G02 X157.698827 Y73.866168 Z-0.125000 I0.077606 J0.277816
G02 X157.678661 Y73.873848 Z-0.125000 I0.116374 J0.335901
G02 X157.658912 Y73.882590 Z-0.125000 I0.184246 J0.442898
G02 X157.636216 Y73.893930 Z-0.125000 I0.223726 J0.476152
G02 X157.614017 Y73.906204 Z-0.125000 I0.313591 J0.593394
G02 X157.589427 Y73.921087 Z-0.125000 I0.353972 J0.612586
G02 X157.565378 Y73.936851 Z-0.125000 I0.466297 J0.737597
G02 X157.539609 Y73.955040 Z-0.125000 I0.493503 J0.726481
G02 X157.514436 Y73.974084 Z-0.125000 I0.590895 J0.807262
G02 X157.488230 Y73.995302 Z-0.125000 I0.603963 J0.772729
G02 X157.462710 Y74.017359 Z-0.125000 I0.746399 J0.889356
G02 X157.436879 Y74.041175 Z-0.125000 I0.664875 J0.747029
G02 X157.411840 Y74.065841 Z-0.125000 I0.810973 J0.848320
G02 X157.387222 Y74.091769 Z-0.125000 I0.689018 J0.678834
G02 X157.363527 Y74.118542 Z-0.125000 I0.793807 J0.726453
G02 X157.340952 Y74.146009 Z-0.125000 I0.676800 J0.579257
G02 X157.319461 Y74.174315 Z-0.125000 I0.739746 J0.583954
G02 X157.299743 Y74.202656 Z-0.125000 I0.614933 J0.448857
G02 X157.281309 Y74.231840 Z-0.125000 I0.662223 J0.438723
G02 X157.265199 Y74.260338 Z-0.125000 I0.516530 J0.310786
G02 X157.250633 Y74.289658 Z-0.125000 I0.543869 J0.288461
G02 X157.238794 Y74.317569 Z-0.125000 I0.413071 J0.191685
G02 X157.228865 Y74.346200 Z-0.125000 I0.413485 J0.159437
G02 X157.221887 Y74.372788 Z-0.125000 I0.305584 J0.094405
G02 X157.217249 Y74.399852 Z-0.125000 I0.305750 J0.066329
G02 X157.215564 Y74.424384 Z-0.125000 I0.213195 J0.026970
G02 X157.216690 Y74.448881 Z-0.125000 I0.212899 J0.002484
G02 X157.220749 Y74.470750 Z-0.125000 I0.138481 J-0.014394
G02 X157.227968 Y74.491686 Z-0.125000 I0.142264 J-0.037341
G02 X157.238080 Y74.510308 Z-0.125000 I0.108179 J-0.046683
G02 X157.251232 Y74.526838 Z-0.125000 I0.104036 J-0.069279
G02 X157.267940 Y74.541555 Z-0.125000 I0.088120 J-0.083201
G02 X157.286899 Y74.553239 Z-0.125000 I0.083797 J-0.114750
G02 X157.310541 Y74.563118 Z-0.125000 I0.075003 J-0.146254
G02 X157.335412 Y74.569618 Z-0.125000 I0.064585 J-0.196301
G02 X157.365955 Y74.573755 Z-0.125000 I0.050425 J-0.257496
G02 X157.396812 Y74.574705 Z-0.125000 I0.025676 J-0.332075
G02 X157.433781 Y74.572432 Z-0.125000 I-0.006283 J-0.403819
G02 X157.470503 Y74.567278 Z-0.125000 I-0.061938 J-0.574786
G02 X157.513333 Y74.558356 Z-0.125000 I-0.110181 J-0.636153
G02 X157.555589 Y74.546849 Z-0.125000 I-0.194920 J-0.799096
G02 X157.603643 Y74.531001 Z-0.125000 I-0.280018 J-0.929858
G02 X157.650917 Y74.512880 Z-0.125000 I-0.401079 J-1.117051
G02 X157.703465 Y74.490120 Z-0.125000 I-0.506559 J-1.241597
G02 X157.755108 Y74.465310 Z-0.125000 I-0.669432 J-1.459584
G02 X157.811314 Y74.435788 Z-0.125000 I-0.794902 J-1.581674
G02 X157.866530 Y74.404387 Z-0.125000 I-0.989290 J-1.803810
G02 X157.925474 Y74.368396 Z-0.125000 I-1.120523 J-1.901402
G02 X157.983355 Y74.330665 Z-0.125000 I-1.337830 J-2.115561
G02 X158.044021 Y74.288664 Z-0.125000 I-1.461244 J-2.175392
G02 X158.103557 Y74.245036 Z-0.125000 I-1.675094 J-2.348340
G02 X158.164856 Y74.197634 Z-0.125000 I-1.785166 J-2.371856
G02 X158.224959 Y74.148692 Z-0.125000 I-1.986928 J-2.501443
G02 X158.285741 Y74.096656 Z-0.125000 I-2.049848 J-2.455876
G02 X158.345247 Y74.043139 Z-0.125000 I-2.228845 J-2.538117
G02 X158.404316 Y73.987365 Z-0.125000 I-2.217598 J-2.407780
G02 X158.462020 Y73.930152 Z-0.125000 I-2.362323 J-2.440323
G02 X158.518182 Y73.871649 Z-0.125000 I-2.270233 J-2.235601
G02 X158.572870 Y73.811735 Z-0.125000 I-2.381843 J-2.228988
G02 X158.624928 Y73.751616 Z-0.125000 I-2.163329 J-1.925861
G02 X158.675340 Y73.690087 Z-0.125000 I-2.248410 J-1.893577
G02 X158.722089 Y73.629535 Z-0.125000 I-1.939385 J-1.545594
G02 X158.766958 Y73.567562 Z-0.125000 I-1.984393 J-1.483966
G02 X158.807239 Y73.507803 Z-0.125000 I-1.628561 J-1.141205
G02 X158.845321 Y73.446605 Z-0.125000 I-1.623445 J-1.052669
G02 X158.878055 Y73.388867 Z-0.125000 I-1.281107 J-0.764466
G02 X158.908127 Y73.329708 Z-0.125000 I-1.262619 J-0.679050
G02 X158.932355 Y73.275197 Z-0.125000 I-0.930593 J-0.446251
G02 X158.953284 Y73.219365 Z-0.125000 I-0.893746 J-0.366850
G02 X158.968180 Y73.169200 Z-0.125000 I-0.633504 J-0.215411
G02 X158.978908 Y73.118053 Z-0.125000 I-0.595052 J-0.151510
G02 X158.983817 Y73.073191 Z-0.125000 I-0.403503 J-0.066851
G02 X158.983516 Y73.028195 Z-0.125000 I-0.377322 J-0.019980
G02 X158.977917 Y72.989334 Z-0.125000 I-0.255113 J0.016927
G02 X158.966304 Y72.952004 Z-0.125000 I-0.232750 J0.051936
G02 X158.949469 Y72.919608 Z-0.125000 I-0.177354 J0.071592
G02 X158.926916 Y72.890990 Z-0.125000 I-0.165410 J0.107155
G02 X158.897901 Y72.865766 Z-0.125000 I-0.146603 J0.139334
G02 X158.864826 Y72.846002 Z-0.125000 I-0.136767 J0.191329
G02 X158.823101 Y72.829306 Z-0.125000 I-0.130552 J0.265774
G02 X158.779390 Y72.818440 Z-0.125000 I-0.110964 J0.353040
G02 X158.725158 Y72.811447 Z-0.125000 I-0.091222 J0.493608
G02 X158.670246 Y72.809708 Z-0.125000 I-0.048094 J0.650877
G02 X158.603965 Y72.813034 Z-0.125000 I0.008733 J0.836030
G02 X158.537962 Y72.820903 Z-0.125000 I0.095503 J1.081788
G02 X158.460818 Y72.834730 Z-0.125000 I0.207587 J1.380323
G02 X158.384415 Y72.852509 Z-0.125000 I0.344907 J1.655295
G02 X158.297689 Y72.876857 Z-0.125000 I0.512908 J1.993534
G02 X158.211969 Y72.904716 Z-0.125000 I0.717279 J2.352782
G02 X158.117146 Y72.939431 Z-0.125000 I0.896747 J2.596353
G02 X158.023525 Y72.977359 Z-0.125000 I1.161789 J3.002239
G02 X157.922310 Y73.022163 Z-0.125000 I1.338162 J3.159707
G02 X157.822468 Y73.069996 Z-0.125000 I1.666495 J3.606568
G02 X157.716787 Y73.124432 Z-0.125000 I1.769073 J3.564248
G02 X157.612651 Y73.181816 Z-0.125000 I2.147687 J4.020649
G02 X157.504581 Y73.245294 Z-0.125000 I2.150567 J3.785053
G02 X157.398261 Y73.311691 Z-0.125000 I2.547451 J4.197455
G02 X157.290009 Y73.383446 Z-0.125000 I2.446920 J3.809058
G02 X157.183745 Y73.458135 Z-0.125000 I2.827701 J4.136070
G02 X157.077570 Y73.537235 Z-0.125000 I2.639735 J3.654088
G02 X156.973671 Y73.619308 Z-0.125000 I2.976161 J3.874423
G02 X156.871836 Y73.704655 Z-0.125000 I2.717001 J3.345328
G02 X156.772611 Y73.793016 Z-0.125000 I2.980763 J3.447114
G02 X156.677309 Y73.883341 Z-0.125000 I2.695751 J2.939739
G02 X156.585005 Y73.976707 Z-0.125000 I2.863470 J2.923218
G02 X156.498253 Y74.070602 Z-0.125000 I2.599868 J2.489109
G02 X156.414881 Y74.167522 Z-0.125000 I2.688461 J2.396966
G02 X156.338434 Y74.263436 Z-0.125000 I2.394457 J1.986904
G02 X156.265872 Y74.362315 Z-0.125000 I2.417545 J1.850154
G02 X156.201327 Y74.458587 Z-0.125000 I2.124390 J1.494069
G02 X156.141251 Y74.557694 Z-0.125000 I2.091027 J1.335275
G02 X156.089930 Y74.652590 Z-0.125000 I1.812021 J1.041309
G02 X156.043758 Y74.750078 Z-0.125000 I1.740937 J0.884205
G02 X156.006668 Y74.841841 Z-0.125000 I1.481788 J0.652310
G02 X155.975531 Y74.935758 Z-0.125000 I1.394606 J0.514482
G02 X155.953365 Y75.022657 Z-0.125000 I1.159753 J0.342103
G02 X155.938055 Y75.110967 Z-0.125000 I1.073373 J0.231572
G02 X155.931193 Y75.191357 Z-0.125000 I0.875679 J0.115232
G02 X155.932095 Y75.271953 Z-0.125000 I0.795480 J0.031405
G02 X155.940718 Y75.344353 Z-0.125000 I0.641831 J-0.039735
G02 X155.957761 Y75.415133 Z-0.125000 I0.582815 J-0.102893
G02 X155.981871 Y75.478205 Z-0.125000 I0.480038 J-0.147356
G02 X156.014372 Y75.537298 Z-0.125000 I0.436820 J-0.201766
G02 X156.054007 Y75.589735 Z-0.125000 I0.372218 J-0.240148
G02 X156.100877 Y75.635799 Z-0.125000 I0.340508 J-0.299584
G02 X156.155951 Y75.676068 Z-0.125000 I0.303334 J-0.357061
G02 X156.216105 Y75.708307 Z-0.125000 I0.272813 J-0.436800
G02 X156.286062 Y75.734726 Z-0.125000 I0.239236 J-0.527657
G02 X156.358582 Y75.752545 Z-0.125000 I0.195953 J-0.641036
G02 X156.442624 Y75.763658 Z-0.125000 I0.145365 J-0.775919
G02 X156.527661 Y75.766469 Z-0.125000 I0.073762 J-0.943843
G02 X156.625297 Y75.761277 Z-0.125000 I-0.014130 J-1.186350
G02 X156.722366 Y75.748499 Z-0.125000 I-0.132203 J-1.379296
G02 X156.831841 Y75.726410 Z-0.125000 I-0.281230 J-1.676201
G02 X156.939826 Y75.697686 Z-0.125000 I-0.453126 J-1.920763
G02 X157.059338 Y75.658804 Z-0.125000 I-0.681132 J-2.296743
G02 X157.176828 Y75.614060 Z-0.125000 I-0.910753 J-2.568134
G02 X157.304551 Y75.558779 Z-0.125000 I-1.219147 J-2.991882
G02 X157.429941 Y75.498300 Z-0.125000 I-1.497037 J-3.264012
G02 X157.563985 Y75.427342 Z-0.125000 I-1.896432 J-3.744565
G02 X157.695513 Y75.351757 Z-0.125000 I-2.202030 J-3.984086
G02 X157.833910 Y75.266195 Z-0.125000 I-2.694597 J-4.513210
G02 X157.969695 Y75.176485 Z-0.125000 I-2.998455 J-4.686108
G02 X158.110407 Y75.077711 Z-0.125000 I-3.568450 J-5.233172
G02 X158.248464 Y74.975197 Z-0.125000 I-3.837679 J-5.312449
G02 X158.389399 Y74.864910 Z-0.125000 I-4.462382 J-5.847650
G02 X158.527656 Y74.751224 Z-0.125000 I-4.661930 J-5.810416
G02 X158.666664 Y74.631405 Z-0.125000 I-5.278525 J-6.264409
G02 X158.802973 Y74.508465 Z-0.125000 I-5.391031 J-6.114330
G02 X158.937869 Y74.381326 Z-0.125000 I-5.890880 J-6.385453
G02 X159.070021 Y74.251291 Z-0.125000 I-5.914905 J-6.143347
G02 X159.198595 Y74.119243 Z-0.125000 I-6.205507 J-6.170877
G02 X159.324322 Y73.984464 Z-0.125000 I-6.124841 J-5.839527
G02 X159.444400 Y73.850038 Z-0.125000 I-6.225493 J-5.681862
G02 X159.561560 Y73.712984 Z-0.125000 I-6.129508 J-5.358391
G02 X159.671066 Y73.578790 Z-0.125000 I-5.635417 J-4.710417
G02 X159.777347 Y73.441997 Z-0.125000 I-5.590845 J-4.453490
G02 X159.874062 Y73.310659 Z-0.125000 I-4.751032 J-3.599844
G02 X159.967087 Y73.176680 Z-0.125000 I-4.690864 J-3.356258
G02 X160.048896 Y73.050725 Z-0.125000 I-3.721808 J-2.506894
G02 X160.126327 Y72.922059 Z-0.125000 I-3.628741 J-2.271430
G02 X160.191297 Y72.803861 Z-0.125000 I-2.700585 J-1.561373
G02 X160.250892 Y72.682920 Z-0.125000 I-2.581681 J-1.347308
G02 X160.297360 Y72.574608 Z-0.125000 I-1.817186 J-0.843735
G02 X160.337013 Y72.463735 Z-0.125000 I-1.690351 J-0.667072
G02 X160.363667 Y72.367087 Z-0.125000 I-1.137444 J-0.365690
G02 X160.381517 Y72.268662 Z-0.125000 I-1.024049 J-0.236540
G02 X160.387400 Y72.184925 Z-0.125000 I-0.675415 J-0.089533
G02 X160.382245 Y72.101528 Z-0.125000 I-0.587302 J-0.005552
G02 X160.366525 Y72.031215 Z-0.125000 I-0.410817 J0.054935
G02 X160.338520 Y71.965243 Z-0.125000 I-0.362161 J0.114807
G02 X160.299786 Y71.908496 Z-0.125000 I-0.293808 J0.158950
G02 X160.250453 Y71.860581 Z-0.125000 I-0.268253 J0.226842
G02 X160.186873 Y71.818763 Z-0.125000 I-0.260975 J0.327538
G02 X160.116840 Y71.788019 Z-0.125000 I-0.233287 J0.436277
G02 X160.028435 Y71.763481 Z-0.125000 I-0.231142 J0.661231
G02 X159.937776 Y71.749614 Z-0.125000 I-0.174362 J0.836681
G02 X159.825804 Y71.743584 Z-0.125000 I-0.124012 J1.260158
G02 X159.713077 Y71.746553 Z-0.125000 I-0.016153 J1.528634
G02 X159.577721 Y71.759195 Z-0.125000 I0.143570 J2.268098
G02 X159.442954 Y71.779297 Z-0.125000 I0.334167 J2.702140
G02 X159.286666 Y71.810257 Z-0.125000 I0.610593 J3.492242
G02 X159.131698 Y71.847664 Z-0.125000 I0.909858 J4.108983
G02 X158.957575 Y71.896590 Z-0.125000 I1.262479 J4.827338
G02 X158.785130 Y71.951332 Z-0.125000 I1.697714 J5.647054
G02 X158.596568 Y72.017727 Z-0.125000 I2.002742 J5.988773
G02 X158.409995 Y72.089623 Z-0.125000 I2.579530 J6.972024
G02 X158.210808 Y72.172883 Z-0.125000 I2.738286 J6.830737
G02 X158.013948 Y72.261551 Z-0.125000 I3.427957 J7.873613
G02 X157.808304 Y72.360907 Z-0.125000 I3.370026 J7.237734
G02 X157.605383 Y72.465723 Z-0.125000 I4.116078 J8.217395
G02 X157.397687 Y72.580180 Z-0.125000 I3.855601 J7.242157
G02 X157.193184 Y72.700255 Z-0.125000 I4.587060 J8.046469
G02 X156.987948 Y72.828562 Z-0.125000 I4.176025 J6.908146
G02 X156.786475 Y72.962689 Z-0.125000 I4.823247 J7.463424
G02 X156.588195 Y73.103303 Z-0.125000 I4.328394 J6.313602
G02 X156.394340 Y73.249935 Z-0.125000 I4.845656 J6.607664
G02 X156.207349 Y73.400996 Z-0.125000 I4.324981 J5.544951
G02 X156.025549 Y73.558228 Z-0.125000 I4.685928 J5.601847
G02 X155.853884 Y73.717559 Z-0.125000 I4.187637 J4.683925
G02 X155.688337 Y73.883112 Z-0.125000 I4.362089 J4.527491
G02 X155.535544 Y74.048261 Z-0.125000 I4.009933 J3.863181
G02 X155.389680 Y74.219522 Z-0.125000 I4.031891 J3.581707
G02 X155.258485 Y74.387782 Z-0.125000 I3.694365 J3.015838
G02 X155.135186 Y74.561877 Z-0.125000 I3.616347 J2.691912
G02 X155.027835 Y74.730343 Z-0.125000 I3.285369 J2.211962
G02 X154.929491 Y74.904172 Z-0.125000 I3.135729 J1.888780
G02 X154.847667 Y75.069840 Z-0.125000 I2.832753 J1.502140
G02 X154.776050 Y75.240113 Z-0.125000 I2.640691 J1.210883
G02 X154.720779 Y75.399963 Z-0.125000 I2.361436 J0.905993
G02 X154.676987 Y75.563271 Z-0.125000 I2.157940 J0.666181
G02 X154.648682 Y75.714367 Z-0.125000 I1.904113 J0.434897
G02 X154.633129 Y75.867225 Z-0.125000 I1.715877 J0.251813
G02 X154.631670 Y76.006810 Z-0.125000 I1.494691 J0.085425
G02 X154.643985 Y76.145761 Z-0.125000 I1.335582 J-0.048348
G02 X154.668838 Y76.271309 Z-0.125000 I1.156207 J-0.163652
G02 X154.707887 Y76.393083 Z-0.125000 I1.033389 J-0.264224
G02 X154.758299 Y76.502266 Z-0.125000 I0.900780 J-0.349679
G02 X154.822174 Y76.604073 Z-0.125000 I0.807432 J-0.435647
G02 X154.897240 Y76.694602 Z-0.125000 I0.718051 J-0.519018
G02 X154.983614 Y76.774394 Z-0.125000 I0.644260 J-0.610755
G02 X155.082114 Y76.843853 Z-0.125000 I0.579913 J-0.717812
G02 X155.188661 Y76.900278 Z-0.125000 I0.509220 J-0.832747
G02 X155.308799 Y76.946268 Z-0.125000 I0.445220 J-0.983121
G02 X155.432941 Y76.978288 Z-0.125000 I0.361625 J-1.145342
G02 X155.572852 Y76.998869 Z-0.125000 I0.263997 J-1.308818
G02 X155.714452 Y77.005587 Z-0.125000 I0.144437 J-1.548825
G02 X155.873966 Y76.999018 Z-0.125000 I0.003388 J-1.857614
G02 X156.032851 Y76.979672 Z-0.125000 I-0.181053 J-2.149123
G02 X156.209770 Y76.945172 Z-0.125000 I-0.414113 J-2.594496
G02 X156.384174 Y76.899338 Z-0.125000 I-0.674523 J-2.921347
G02 X156.575259 Y76.837101 Z-0.125000 I-1.023712 J-3.467549
G02 X156.762862 Y76.764878 Z-0.125000 I-1.359405 J-3.810899
G02 X156.965215 Y76.675689 Z-0.125000 I-1.853607 J-4.479638
G02 X157.163522 Y76.577725 Z-0.125000 I-2.244269 J-4.792688
G02 X157.374258 Y76.462951 Z-0.125000 I-2.919329 J-5.611060
G02 X157.580667 Y76.340472 Z-0.125000 I-3.323379 J-5.835936
G02 X157.796921 Y76.202046 Z-0.125000 I-4.221621 J-6.833285
G02 X158.008754 Y76.056852 Z-0.125000 I-4.580519 J-6.909919
G02 X158.227652 Y75.897244 Z-0.125000 I-5.734172 J-8.094167
G02 X158.442166 Y75.731695 Z-0.125000 I-5.976419 J-7.965875
G02 X158.660827 Y75.553889 Z-0.125000 I-7.398812 J-9.322205
G02 X158.875216 Y75.370858 Z-0.125000 I-7.453494 J-8.947550
G02 X159.090716 Y75.178303 Z-0.125000 I-9.090534 J-10.390634
G02 X159.302092 Y74.981128 Z-0.125000 I-8.899230 J-9.752080
G02 X159.511453 Y74.777658 Z-0.125000 I-10.570419 J-11.085909
G02 X159.716822 Y74.570067 Z-0.125000 I-10.151965 J-10.248645
G02 X159.916996 Y74.359821 Z-0.125000 I-11.537384 J-11.185069
G02 X160.113209 Y74.145841 Z-0.125000 I-10.891069 J-10.183737
G02 X160.301109 Y73.933130 Z-0.125000 I-11.950724 J-10.746170
G02 X160.485154 Y73.716943 Z-0.125000 I-11.314550 J-9.818751
G02 X160.657796 Y73.506152 Z-0.125000 I-10.945204 J-9.140422
G02 X160.826328 Y73.291976 Z-0.125000 I-10.652758 J-8.555881
G02 X160.980347 Y73.087438 Z-0.125000 I-8.978382 J-6.921080
G02 X161.129630 Y72.879425 Z-0.125000 I-8.860051 J-6.516069
G02 X161.261561 Y72.685203 Z-0.125000 I-6.796057 J-4.758387
G02 X161.387815 Y72.487295 Z-0.125000 I-6.666501 J-4.392033
G02 X161.494477 Y72.307035 Z-0.125000 I-4.729431 J-2.920144
G02 X161.594011 Y72.122860 Z-0.125000 I-4.549863 J-2.577877
G02 X161.672623 Y71.959677 Z-0.125000 I-3.037237 J-1.563696
G02 X161.741945 Y71.792554 Z-0.125000 I-2.825687 J-1.270022
G02 X161.790299 Y71.648877 Z-0.125000 I-1.800432 J-0.685903
G02 X161.826254 Y71.502008 Z-0.125000 I-1.605750 J-0.470946
G02 X161.842832 Y71.379317 Z-0.125000 I-1.002849 J-0.197966
G02 X161.843127 Y71.256200 Z-0.125000 I-0.861272 J-0.063624
G02 X161.826798 Y71.154609 Z-0.125000 I-0.568364 J0.039247
G02 X161.791608 Y71.058676 Z-0.125000 I-0.488979 J0.124943
G02 X161.740182 Y70.977347 Z-0.125000 I-0.390988 J0.190309
G02 X161.672292 Y70.908932 Z-0.125000 I-0.352868 J0.282265
G02 X161.582511 Y70.849222 Z-0.125000 I-0.356494 J0.438683
G02 X161.482923 Y70.805873 Z-0.125000 I-0.317515 J0.593370
G02 X161.354901 Y70.771170 Z-0.125000 I-0.330324 J0.965112
G02 X161.223770 Y70.751864 Z-0.125000 I-0.245855 J1.214877
G02 X161.060060 Y70.743500 Z-0.125000 I-0.182209 J1.960179
G02 X160.895649 Y70.747648 Z-0.125000 I-0.022740 J2.359412
G02 X160.696060 Y70.764984 Z-0.125000 I0.226421 J3.764199
G02 X160.496517 Y70.792155 Z-0.125000 I0.508925 J4.483991
G02 X160.262798 Y70.834043 Z-0.125000 I0.946179 J5.952201
G02 X160.030626 Y70.884360 Z-0.125000 I1.421848 J7.121551
G02 X159.768382 Y70.950190 Z-0.125000 I1.904554 J8.142315
G02 X159.508131 Y71.023744 Z-0.125000 I2.625271 J9.785942
G02 X159.222907 Y71.113022 Z-0.125000 I2.923507 J9.840243
G02 X158.940119 Y71.209847 Z-0.125000 I3.899299 J11.849687
G02 X158.638150 Y71.322106 Z-0.125000 I3.841034 J10.794406
G02 X158.339150 Y71.442097 Z-0.125000 I4.997546 J12.885635
G02 X158.027217 Y71.576754 Z-0.125000 I4.575654 J11.028164
G02 X157.718925 Y71.719557 Z-0.125000 I5.784005 J12.891082
G02 X157.404156 Y71.875767 Z-0.125000 I5.100380 J10.672670
G02 X157.093848 Y72.040652 Z-0.125000 I6.229987 J12.099064
G02 X156.783500 Y72.217167 Z-0.125000 I5.428815 J9.906045
G02 X156.478602 Y72.402906 Z-0.125000 I6.385325 J10.824861
G02 X156.179838 Y72.597965 Z-0.125000 I5.569799 J8.857369
G02 X155.887684 Y72.802737 Z-0.125000 I6.303587 J9.304302
G02 X155.607346 Y73.013998 Z-0.125000 I5.540694 J7.643980
G02 X155.334943 Y73.235332 Z-0.125000 I6.034595 J7.705271
G02 X155.079328 Y73.459858 Z-0.125000 I5.354313 J6.353473
G02 X154.833220 Y73.694590 Z-0.125000 I5.590618 J6.107948
G02 X154.607786 Y73.928908 Z-0.125000 I5.108164 J5.140098
G02 X154.393440 Y74.173210 Z-0.125000 I5.099271 J4.690164
G02 X154.202278 Y74.413401 Z-0.125000 I4.806069 J4.021201
G02 X154.023592 Y74.662968 Z-0.125000 I4.645398 J3.514787
G02 X153.869430 Y74.904759 Z-0.125000 I4.329769 J2.930640
G02 X153.729469 Y75.154948 Z-0.125000 I4.084164 J2.449017
G02 X153.614324 Y75.393888 Z-0.125000 I3.809387 J1.982940
G02 X153.515086 Y75.639771 Z-0.125000 I3.506962 J1.558381
G02 X153.439879 Y75.871407 Z-0.125000 I3.259162 J1.186191
G02 X153.382231 Y76.107938 Z-0.125000 I2.944224 J0.842865
G02 X153.346931 Y76.327937 Z-0.125000 I2.716857 J0.548765
G02 X153.330632 Y76.550067 Z-0.125000 I2.427131 J0.289760
G02 X153.334390 Y76.754347 Z-0.125000 I2.217568 J0.061379
G02 X153.358100 Y76.957194 Z-0.125000 I1.964389 J-0.126799
G02 X153.399494 Y77.141980 Z-0.125000 I1.791963 J-0.304384
G02 X153.460829 Y77.321050 Z-0.125000 I1.586343 J-0.443314
G02 X153.537966 Y77.482839 Z-0.125000 I1.446110 J-0.590185
G02 X153.633668 Y77.634316 Z-0.125000 I1.284329 J-0.705465
G02 X153.744325 Y77.769748 Z-0.125000 I1.174912 J-0.847055
G02 X153.870639 Y77.890692 Z-0.125000 I1.043156 J-0.963040
G02 X154.012157 Y77.996485 Z-0.125000 I0.949568 J-1.122677
G02 X154.165233 Y78.084778 Z-0.125000 I0.828290 J-1.259187
G02 X154.334371 Y78.157867 Z-0.125000 I0.729210 J-1.455239
G02 X154.510019 Y78.211938 Z-0.125000 I0.600792 J-1.639341
G02 X154.703496 Y78.249836 Z-0.125000 I0.457061 J-1.820541
G02 X154.899375 Y78.268369 Z-0.125000 I0.296569 J-2.090153
G02 X155.116431 Y78.268781 Z-0.125000 I0.113018 J-2.366860
G02 X155.333827 Y78.250559 Z-0.125000 I-0.119617 J-2.733090
G02 X155.574035 Y78.211646 Z-0.125000 I-0.404137 J-3.255602
G02 X155.811037 Y78.156032 Z-0.125000 I-0.728789 J-3.638552
G02 X156.069345 Y78.077918 Z-0.125000 I-1.156606 J-4.290832
G02 X156.322778 Y77.985023 Z-0.125000 I-1.573627 J-4.685264
G02 X156.595214 Y77.868668 Z-0.125000 I-2.191028 J-5.507213
G02 X156.861806 Y77.739345 Z-0.125000 I-2.676279 J-5.856463
G02 X157.144610 Y77.586548 Z-0.125000 I-3.549392 J-6.907494
G02 X157.421088 Y77.422452 Z-0.125000 I-4.046683 J-7.133036
G02 X157.710678 Y77.235830 Z-0.125000 I-5.277208 J-8.506867
G02 X157.993813 Y77.039421 Z-0.125000 I-5.696992 J-8.514835
G02 X158.286741 Y76.822387 Z-0.125000 I-7.410053 J-10.307469
G02 X158.573351 Y76.596933 Z-0.125000 I-7.618714 J-9.980231
G02 X158.866247 Y76.353679 Z-0.125000 I-9.972260 J-12.305273
G02 X159.153146 Y76.103220 Z-0.125000 I-9.810814 J-11.527802
G02 X159.442651 Y75.838654 Z-0.125000 I-12.888010 J-14.393606
G02 X159.726588 Y75.567953 Z-0.125000 I-12.198835 J-13.079510
G02 X160.009269 Y75.287623 Z-0.125000 I-15.944260 J-16.360707
G02 X160.286834 Y75.002061 Z-0.125000 I-14.646778 J-14.514280
G02 X160.559099 Y74.712023 Z-0.125000 I-18.597256 J-17.730435
G02 X160.826617 Y74.417475 Z-0.125000 I-16.752013 J-15.483492
G02 X161.084682 Y74.124106 Z-0.125000 I-20.359222 J-18.169425
G02 X161.338346 Y73.826746 Z-0.125000 I-18.360963 J-15.919728
G02 X161.578291 Y73.536539 Z-0.125000 I-19.627927 J-16.472782
G02 X161.813910 Y73.242588 Z-0.125000 I-18.655737 J-15.195024
G02 X162.031249 Y72.961968 Z-0.125000 I-15.721237 J-12.400556
G02 X162.243538 Y72.677514 Z-0.125000 I-15.695916 J-11.935360
G02 X162.433069 Y72.412445 Z-0.125000 I-11.537628 J-8.449968
G02 X162.616441 Y72.143163 Z-0.125000 I-11.591060 J-8.090204
G02 X162.773291 Y71.898818 Z-0.125000 I-7.732803 J-5.136354
G02 X162.922205 Y71.649737 Z-0.125000 I-7.615156 J-4.721805
G02 X163.042015 Y71.430352 Z-0.125000 I-4.752907 J-2.738054
G02 X163.151159 Y71.205797 Z-0.125000 I-4.498728 J-2.325400
G02 X163.230400 Y71.014499 Z-0.125000 I-2.687582 J-1.225335
G02 X163.294865 Y70.818310 Z-0.125000 I-2.408223 J-0.899988
G02 X163.331106 Y70.656804 Z-0.125000 I-1.408135 J-0.400796
G02 X163.346910 Y70.493074 Z-0.125000 I-1.194929 J-0.197969
G02 X163.338673 Y70.360993 Z-0.125000 I-0.731406 J-0.020684
G02 X163.305120 Y70.234292 Z-0.125000 I-0.611956 J0.094266
G02 X163.249800 Y70.129154 Z-0.125000 I-0.465670 J0.177900
G02 X163.171184 Y70.039930 Z-0.125000 I-0.414178 J0.285689
G02 X163.063493 Y69.962044 Z-0.125000 I-0.427275 J0.477381
G02 X162.941752 Y69.905537 Z-0.125000 I-0.382292 J0.664235
G02 X162.781128 Y69.859412 Z-0.125000 I-0.422739 J1.169393
G02 X162.615709 Y69.833172 Z-0.125000 I-0.320340 J1.484900
G02 X162.406375 Y69.820341 Z-0.125000 I-0.261255 J2.548337
G02 X162.197239 Y69.823471 Z-0.125000 I-0.060072 J2.974337
G02 X161.940090 Y69.842354 Z-0.125000 I0.278789 J5.556942
G02 X161.681670 Y69.872647 Z-0.125000 I0.625605 J6.454362
G02 X161.374546 Y69.920285 Z-0.125000 I1.236702 J8.986922
G02 X161.068763 Y69.977513 Z-0.125000 I1.892782 J10.959029
G02 X160.719923 Y70.053087 Z-0.125000 I2.459609 J12.196212
G02 X160.373082 Y70.137619 Z-0.125000 I3.543601 J15.293389
G02 X159.990518 Y70.240970 Z-0.125000 I3.658318 J14.301419
G02 X159.610517 Y70.353451 Z-0.125000 I5.155994 J18.116798
G02 X159.203082 Y70.484788 Z-0.125000 I4.650614 J15.124858
G02 X158.798948 Y70.625958 Z-0.125000 I6.391057 J18.945124
G02 X158.376273 Y70.785529 Z-0.125000 I5.400188 J14.943640
G02 X157.957870 Y70.955945 Z-0.125000 I7.150258 J18.154114
G02 X157.530108 Y71.143709 Z-0.125000 I5.937357 J14.107599
G02 X157.107826 Y71.343443 Z-0.125000 I7.515932 J16.436539
G02 X156.685321 Y71.558755 Z-0.125000 I6.284128 J12.853541
G02 X156.269764 Y71.787131 Z-0.125000 I7.587646 J14.298837
G02 X155.862729 Y72.028503 Z-0.125000 I6.463743 J11.363930
G02 X155.464375 Y72.283872 Z-0.125000 I7.442665 J12.048341
G02 X155.082569 Y72.548827 Z-0.125000 I6.470457 J9.731633
G02 X154.711434 Y72.828440 Z-0.125000 I7.123025 J9.840643
G02 X154.363827 Y73.113465 Z-0.125000 I6.303535 J8.042033
G02 X154.029185 Y73.413428 Z-0.125000 I6.643911 J7.748680
G02 X153.723608 Y73.714037 Z-0.125000 I6.010714 J6.415672
G02 X153.433627 Y74.029296 Z-0.125000 I6.020101 J5.828385
G02 X153.176106 Y74.340257 Z-0.125000 I5.753616 J5.026941
G02 X152.936174 Y74.664866 Z-0.125000 I5.529918 J4.338390
G02 X152.730114 Y74.980379 Z-0.125000 I5.288211 J3.678730
G02 X152.543964 Y75.307897 Z-0.125000 I4.950400 J3.030297
G02 X152.391599 Y75.621860 Z-0.125000 I4.743427 J2.495922
G02 X152.261380 Y75.945507 Z-0.125000 I4.338661 J1.933681
G02 X152.163454 Y76.251811 Z-0.125000 I4.160098 J1.498788
G02 X152.089657 Y76.564700 Z-0.125000 I3.735857 J1.046282
G02 X152.045567 Y76.857431 Z-0.125000 I3.573062 J0.687847
G02 X152.027123 Y77.152796 Z-0.125000 I3.170342 J0.346223
G02 X152.035169 Y77.426369 Z-0.125000 I3.018364 J0.048141
G02 X152.069549 Y77.697816 Z-0.125000 I2.663686 J-0.199475
G02 X152.127148 Y77.947042 Z-0.125000 I2.524105 J-0.452080
G02 X152.210581 Y78.188790 Z-0.125000 I2.225057 J-0.632644
G02 X152.314526 Y78.408864 Z-0.125000 I2.101708 J-0.858095
G02 X152.442268 Y78.616001 Z-0.125000 I1.856172 J-1.001753
G02 X152.588785 Y78.802429 Z-0.125000 I1.743228 J-1.219240
G02 X152.755503 Y78.971037 Z-0.125000 I1.537620 J-1.353651
G02 X152.940267 Y79.119645 Z-0.125000 I1.423402 J-1.580555
G02 X153.140439 Y79.246764 Z-0.125000 I1.238159 J-1.728532
G02 X153.358539 Y79.353820 Z-0.125000 I1.104840 J-1.975165
G02 X153.586427 Y79.437248 Z-0.125000 I0.920691 J-2.161944
G02 X153.832759 Y79.499724 Z-0.125000 I0.736431 J-2.386769
G02 X154.082511 Y79.537750 Z-0.125000 I0.534347 J-2.670374
G02 X154.354588 Y79.553130 Z-0.125000 I0.295376 J-2.810994
G02 X154.628513 Y79.543838 Z-0.125000 I0.027971 J-3.217855
G02 X154.928548 Y79.508754 Z-0.125000 I-0.289406 J-3.775413
G02 X155.225448 Y79.451059 Z-0.125000 I-0.661176 J-4.195227
G02 X155.547505 Y79.365120 Z-0.125000 I-1.131907 J-4.888236
G02 X155.863537 Y79.259001 Z-0.125000 I-1.612174 J-5.324845
G02 X156.202261 Y79.123119 Z-0.125000 I-2.293086 J-6.206285
G02 X156.533354 Y78.969474 Z-0.125000 I-2.859335 J-6.595200
G02 X156.884120 Y78.785636 Z-0.125000 I-3.842484 J-7.758073
G02 X157.226412 Y78.586340 Z-0.125000 I-4.433168 J-8.007596
G02 X157.585019 Y78.357593 Z-0.125000 I-5.868767 J-9.595952
G02 X157.934897 Y78.115547 Z-0.125000 I-6.372717 J-9.585669
G02 X158.297507 Y77.846009 Z-0.125000 I-8.493495 J-11.804968
G02 X158.651597 Y77.565173 Z-0.125000 I-8.721150 J-11.359645
G02 X159.014641 Y77.260029 Z-0.125000 I-11.877682 J-14.499955
G02 X159.369722 Y76.945420 Z-0.125000 I-11.551634 J-13.395394
G02 X159.729753 Y76.610906 Z-0.125000 I-16.169245 J-17.763625
G02 X160.082618 Y76.268579 Z-0.125000 I-14.922510 J-15.734883
G02 X160.436142 Y75.911918 Z-0.125000 I-21.469196 J-21.633893
G02 X160.783413 Y75.548884 Z-0.125000 I-18.868234 J-18.396596
G02 X161.126698 Y75.178139 Z-0.125000 I-27.421490 J-25.734799
G02 X161.464609 Y74.802227 Z-0.125000 I-23.224517 J-21.216602
G02 X161.793521 Y74.426078 Z-0.125000 I-32.957671 J-29.150673
G02 X162.117833 Y74.045680 Z-0.125000 I-27.628197 J-23.883142
G02 X162.427719 Y73.673117 Z-0.125000 I-34.850578 J-29.302709
G02 X162.733607 Y73.296827 Z-0.125000 I-31.531385 J-25.944464
G02 X163.018885 Y72.936825 Z-0.125000 I-27.502033 J-22.086589
G02 X163.299466 Y72.573112 Z-0.125000 I-27.784557 J-21.724127
G02 X163.552919 Y72.234031 Z-0.125000 I-19.387342 J-14.755732
G02 X163.800471 Y71.890741 Z-0.125000 I-20.226812 J-14.846797
G02 X164.015056 Y71.579678 Z-0.125000 I-12.385864 J-8.773824
G02 X164.221751 Y71.263571 Z-0.125000 I-12.714461 J-8.539334
G02 X164.391044 Y70.986133 Z-0.125000 I-7.262389 J-4.621899
G02 X164.549309 Y70.702699 Z-0.125000 I-7.096518 J-4.148487
G02 X164.667956 Y70.462820 Z-0.125000 I-3.913420 J-2.084911
G02 X164.770704 Y70.216462 Z-0.125000 I-3.567041 J-1.632298
G02 X164.834937 Y70.016101 Z-0.125000 I-1.935655 J-0.731024
G02 X164.875970 Y69.811110 Z-0.125000 I-1.635528 J-0.433981
G02 X164.883777 Y69.649471 Z-0.125000 I-0.917584 J-0.125327
G02 X164.860455 Y69.491383 Z-0.125000 I-0.745505 J0.029218
G02 X164.809344 Y69.363954 Z-0.125000 I-0.521874 J0.135353
G02 X164.727339 Y69.254104 Z-0.125000 I-0.454321 J0.253627
G02 X164.609796 Y69.158669 Z-0.125000 I-0.470263 J0.459099
G02 X164.472948 Y69.089289 Z-0.125000 I-0.423855 J0.666371
G02 X164.286597 Y69.031447 Z-0.125000 I-0.499994 J1.281748
G02 X164.093218 Y68.997786 Z-0.125000 I-0.388318 J1.658529
G02 X163.844370 Y68.979454 Z-0.125000 I-0.346993 J3.012111
G02 X163.596724 Y68.980425 Z-0.125000 I-0.110471 J3.404287
G02 X163.288603 Y68.999113 Z-0.125000 I0.306384 J7.601368
G02 X162.978449 Y69.030177 Z-0.125000 I0.669597 J8.249349
G02 X162.604402 Y69.080014 Z-0.125000 I1.618258 J13.574161
G02 X162.230591 Y69.139434 Z-0.125000 I2.426417 J16.470185
G02 X161.798760 Y69.218595 Z-0.125000 I3.002963 J17.598900
G02 X161.368696 Y69.307024 Z-0.125000 I4.599468 J23.459022
G02 X160.890291 Y69.416082 Z-0.125000 I4.245662 J19.728206
G02 X160.414287 Y69.535173 Z-0.125000 I6.476987 J26.899286
G02 X159.900851 Y69.675590 Z-0.125000 I5.170722 J19.915595
G02 X159.390730 Y69.827540 Z-0.125000 I7.647005 J26.604640
G02 X158.854880 Y70.001125 Z-0.125000 I5.860019 J19.003417
G02 X158.323595 Y70.188140 Z-0.125000 I8.226530 J24.218695
G02 X157.778678 Y70.396434 Z-0.125000 I6.385942 J17.523196
G02 X157.239934 Y70.620151 Z-0.125000 I8.444495 J21.096088
G02 X156.699619 Y70.863841 Z-0.125000 I6.784525 J15.763702
G02 X156.167467 Y71.124811 Z-0.125000 I8.445686 J17.894883
G02 X155.645330 Y71.403288 Z-0.125000 I7.049524 J13.846395
G02 X155.133716 Y71.700583 Z-0.125000 I8.289750 J14.854686
G02 X154.642793 Y72.011665 Z-0.125000 I7.154813 J11.834009
G02 X154.165121 Y72.342640 Z-0.125000 I7.988796 J12.039854
G02 X153.717461 Y72.682473 Z-0.125000 I7.076094 J9.786032
G02 X153.286151 Y73.042692 Z-0.125000 I7.538070 J9.464066
G02 X152.892383 Y73.405848 Z-0.125000 I6.804521 J7.773166
G02 X152.518691 Y73.789087 Z-0.125000 I6.881134 J7.083529
G02 X152.187333 Y74.168890 Z-0.125000 I6.543075 J6.042943
G02 X151.879200 Y74.567387 Z-0.125000 I6.298532 J5.188650
G02 X151.615138 Y74.956291 Z-0.125000 I6.167997 J4.472097
G02 X151.377133 Y75.361484 Z-0.125000 I5.744407 J3.646679
G02 X151.182645 Y75.751514 Z-0.125000 I5.638450 J3.055116
G02 X151.017028 Y76.154473 Z-0.125000 I5.132144 J2.344839
G02 X150.892633 Y76.537627 Z-0.125000 I5.055704 J1.853155
G02 X150.799392 Y76.929392 Z-0.125000 I4.521474 J1.283097
G02 X150.743797 Y77.297959 Z-0.125000 I4.454781 J0.860441
G02 X150.720865 Y77.669889 Z-0.125000 I3.939421 J0.429571
G02 X150.731362 Y78.016606 Z-0.125000 I3.871129 J0.056314
G02 X150.774882 Y78.360677 Z-0.125000 I3.407191 J-0.256177
G02 X150.847617 Y78.678813 Z-0.125000 I3.335774 J-0.595269
G02 X150.952295 Y78.987883 Z-0.125000 I2.932095 J-0.820803
G02 X151.082572 Y79.271233 Z-0.125000 I2.852756 J-1.139998
G02 X151.242058 Y79.539229 Z-0.125000 I2.510037 J-1.312281
G02 X151.424432 Y79.782105 Z-0.125000 I2.416420 J-1.624561
G02 X151.631733 Y80.004107 Z-0.125000 I2.122483 J-1.774152
G02 X151.860078 Y80.201385 Z-0.125000 I2.003374 J-2.088074
G02 X152.107917 Y80.373553 Z-0.125000 I1.739536 J-2.239617
G02 X152.375491 Y80.520803 Z-0.125000 I1.580962 J-2.556109
G02 X152.656519 Y80.640255 Z-0.125000 I1.325808 J-2.728843
G02 X152.956174 Y80.733924 Z-0.125000 I1.112689 J-3.033428
G02 X153.261268 Y80.798554 Z-0.125000 I0.860508 J-3.309694
G02 X153.587996 Y80.836045 Z-0.125000 I0.546476 J-3.320022
G02 X153.917685 Y80.843246 Z-0.125000 I0.247661 J-3.788166
G02 X154.274684 Y80.820223 Z-0.125000 I-0.090348 J-4.180343
G02 X154.629859 Y80.768211 Z-0.125000 I-0.502565 J-4.670529
G02 X155.013146 Y80.682656 Z-0.125000 I-0.996510 J-5.365723
G02 X155.389669 Y80.571046 Z-0.125000 I-1.524084 J-5.832496
G02 X155.791784 Y80.423783 Z-0.125000 I-2.228184 J-6.706901
G02 X156.184666 Y80.253391 Z-0.125000 I-2.860357 J-7.133444
G02 X156.600046 Y80.046342 Z-0.125000 I-3.877347 J-8.298860
G02 X157.004769 Y79.819089 Z-0.125000 I-4.556376 J-8.588635
G02 X157.428590 Y79.555445 Z-0.125000 I-6.070197 J-10.230641
G02 X157.841208 Y79.274439 Z-0.125000 I-6.675395 J-10.245323
G02 X158.269345 Y78.958707 Z-0.125000 I-9.001738 J-12.654628
G02 X158.686457 Y78.628315 Z-0.125000 I-9.312569 J-12.185403
G02 X159.115344 Y78.266365 Z-0.125000 I-12.985024 J-15.821442
G02 X159.533973 Y77.892288 Z-0.125000 I-12.622860 J-14.547515
G02 X159.960390 Y77.491407 Z-0.125000 I-18.497249 J-20.102736
G02 X160.377761 Y77.080734 Z-0.125000 I-16.830102 J-17.522027
G02 X160.798570 Y76.649617 Z-0.125000 I-26.282848 J-26.075419
G02 X161.211809 Y76.210817 Z-0.125000 I-22.265054 J-21.381978
G02 X161.623606 Y75.759483 Z-0.125000 I-37.297737 J-34.444090
G02 X162.029385 Y75.302294 Z-0.125000 I-29.413750 J-26.514865
G02 X162.428171 Y74.841851 Z-0.125000 I-51.971740 J-45.415298
G02 X162.822390 Y74.377034 Z-0.125000 I-38.879992 J-33.374246
G02 X163.203222 Y73.919290 Z-0.125000 I-64.960516 J-54.433010
G02 X163.580788 Y73.458136 Z-0.125000 I-52.698544 J-43.531668
G02 X163.937117 Y73.015154 Z-0.125000 I-51.389785 J-41.702086
G02 X164.289727 Y72.569032 Z-0.125000 I-52.143974 J-41.576427
G02 X164.612201 Y72.152188 Z-0.125000 I-33.724128 J-26.422360
G02 X164.929681 Y71.731685 Z-0.125000 I-37.495947 J-28.639568
G02 X165.208574 Y71.350549 Z-0.125000 I-20.137691 J-15.028176
G02 X165.480371 Y70.964659 Z-0.125000 I-22.088053 J-15.846167
G02 X165.706664 Y70.626597 Z-0.125000 I-11.101974 J-7.676241
G02 X165.922463 Y70.282299 Z-0.125000 I-11.424342 J-7.400327
G02 X166.088447 Y69.992246 Z-0.125000 I-5.674339 J-3.439675
G02 X166.238550 Y69.694591 Z-0.125000 I-5.334775 J-2.876913
G02 X166.338579 Y69.454828 Z-0.125000 I-2.653102 J-1.247618
G02 X166.414174 Y69.207971 Z-0.125000 I-2.256734 J-0.826086
G02 X166.445306 Y69.017390 Z-0.125000 I-1.151064 J-0.285865
G02 X166.440763 Y68.827255 Z-0.125000 I-0.909796 J-0.073384
G02 X166.401076 Y68.679382 Z-0.125000 I-0.568514 J0.073322
G02 X166.322509 Y68.549197 Z-0.125000 I-0.479124 J0.200352
G02 X166.202840 Y68.437575 Z-0.125000 I-0.485875 J0.400942
G02 X166.057501 Y68.356190 Z-0.125000 I-0.441326 J0.617663
G02 X165.852016 Y68.287083 Z-0.125000 I-0.555944 J1.313002
G02 X165.637007 Y68.246358 Z-0.125000 I-0.440046 J1.735319
G02 X165.354200 Y68.222376 Z-0.125000 I-0.430605 J3.398424
G02 X165.072421 Y68.220595 Z-0.125000 I-0.165084 J3.826418
G02 X164.718698 Y68.238145 Z-0.125000 I0.282466 J9.266353
G02 X164.364637 Y68.269490 Z-0.125000 I0.621677 J9.037735
G02 X163.932564 Y68.320222 Z-0.125000 I2.614193 J24.129863
G02 X163.498024 Y68.378860 Z-0.125000 I3.318420 J26.230366
G02 X162.988661 Y68.457011 Z-0.125000 I3.726576 J25.987735
G02 X162.480667 Y68.543523 Z-0.125000 I6.265134 J38.323528
G02 X161.909938 Y68.650884 Z-0.125000 I4.767459 J26.914211
G02 X161.341229 Y68.768242 Z-0.125000 I8.175495 J41.054702
G02 X160.723357 Y68.908109 Z-0.125000 I5.432274 J25.432031
G02 X160.108523 Y69.060595 Z-0.125000 I8.868167 J37.072926
G02 X159.459106 Y69.237142 Z-0.125000 I5.969028 J23.239389
G02 X158.814206 Y69.429421 Z-0.125000 I9.018527 J31.425563
G02 X158.149833 Y69.646658 Z-0.125000 I6.469320 J20.909570
G02 X157.491966 Y69.882797 Z-0.125000 I9.012128 J26.141627
G02 X156.829778 Y70.143598 Z-0.125000 I6.941163 J18.595069
G02 X156.176611 Y70.426186 Z-0.125000 I8.959703 J21.605340
G02 X155.533771 Y70.731549 Z-0.125000 I7.340733 J16.282821
G02 X154.902982 Y71.061035 Z-0.125000 I8.847285 J17.706329
G02 X154.296110 Y71.409609 Z-0.125000 I7.607179 J13.946795
G02 X153.704809 Y71.783919 Z-0.125000 I8.633764 J14.293050
G02 X153.149394 Y72.171841 Z-0.125000 I7.680075 J11.587665
G02 X152.613543 Y72.586260 Z-0.125000 I8.274882 J11.253202
G02 X152.123399 Y73.007275 Z-0.125000 I7.514285 J9.243919
G02 X151.657479 Y73.454527 Z-0.125000 I7.703659 J8.491529
G02 X151.244055 Y73.900409 Z-0.125000 I7.215655 J7.104983
G02 X150.859773 Y74.370858 Z-0.125000 I7.000831 J6.110737
G02 X150.530572 Y74.832107 Z-0.125000 I6.959109 J5.314934
G02 X150.234018 Y75.314670 Z-0.125000 I6.465524 J4.305729
G02 X149.991580 Y75.781147 Z-0.125000 I6.487602 J3.667981
G02 X149.785168 Y76.264396 Z-0.125000 I5.881801 J2.798017
G02 X149.629670 Y76.725936 Z-0.125000 I5.935524 J2.256715
G02 X149.512784 Y77.198556 Z-0.125000 I5.288894 J1.558781
G02 X149.442131 Y77.645420 Z-0.125000 I5.348847 J1.074722
G02 X149.411533 Y78.096697 Z-0.125000 I4.716841 J0.546490
G02 X149.421837 Y78.519780 Z-0.125000 I4.766083 J0.095588
G02 X149.472177 Y78.939933 Z-0.125000 I4.181551 J-0.287913
G02 X149.558209 Y79.330835 Z-0.125000 I4.208626 J-0.721335
G02 X149.682547 Y79.711279 Z-0.125000 I3.691726 J-0.996003
G02 X149.837995 Y80.062309 Z-0.125000 I3.683576 J-1.421276
G02 X150.028286 Y80.395759 Z-0.125000 I3.233601 J-1.624318
G02 X150.245971 Y80.699976 Z-0.125000 I3.183027 J-2.047648
G02 X150.493520 Y80.980464 Z-0.125000 I2.789048 J-2.212035
G02 X150.765480 Y81.231732 Z-0.125000 I2.684673 J-2.632938
G02 X151.061244 Y81.454524 Z-0.125000 I2.328888 J-2.783961
G02 X151.378855 Y81.647659 Z-0.125000 I2.159910 J-3.194256
G02 X151.713667 Y81.809136 Z-0.125000 I1.822320 J-3.350613
G02 X152.067821 Y81.940047 Z-0.125000 I1.581702 J-3.734489
G02 X152.431024 Y82.037595 Z-0.125000 I1.261959 J-3.973754
G02 X152.813916 Y82.103395 Z-0.125000 I0.889736 J-4.030447
G02 X153.199730 Y82.134388 Z-0.125000 I0.553511 J-4.473445
G02 X153.611649 Y82.131076 Z-0.125000 I0.169386 J-4.549808
G02 X154.024458 Y82.092303 Z-0.125000 I-0.274189 J-5.136211
G02 X154.467327 Y82.015186 Z-0.125000 I-0.781242 J-5.796722
G02 X154.903340 Y81.905801 Z-0.125000 I-1.345689 J-6.287674
G02 X155.366930 Y81.755410 Z-0.125000 I-2.050870 J-7.111661
G02 X155.820029 Y81.576059 Z-0.125000 I-2.733946 J-7.568851
G02 X156.297603 Y81.354072 Z-0.125000 I-3.735320 J-8.660733
G02 X156.762447 Y81.106593 Z-0.125000 I-4.490709 J-8.995231
G02 X157.248464 Y80.816088 Z-0.125000 I-5.982930 J-10.561322
G02 X157.720689 Y80.503584 Z-0.125000 I-6.696193 J-10.631668
G02 X158.210716 Y80.149124 Z-0.125000 I-9.040427 J-13.013982
G02 X158.686936 Y79.776089 Z-0.125000 I-9.482572 J-12.596023
G02 X159.177515 Y79.363839 Z-0.125000 I-13.333606 J-16.365086
G02 X159.655167 Y78.936310 Z-0.125000 I-13.072763 J-15.085978
G02 X160.143558 Y78.474205 Z-0.125000 I-19.654013 J-21.261145
G02 X160.620618 Y77.999926 Z-0.125000 I-17.843430 J-18.425126
G02 X161.104399 Y77.497788 Z-0.125000 I-29.553198 J-28.956917
G02 X161.578956 Y76.986342 Z-0.125000 I-24.463033 J-23.174431
G02 X162.055543 Y76.455903 Z-0.125000 I-46.489151 J-42.248787
G02 X162.525267 Y75.918727 Z-0.125000 I-34.262014 J-30.433759
G02 X162.991376 Y75.373454 Z-0.125000 I-79.066103 J-68.058969
G02 X163.452984 Y74.823654 Z-0.125000 I-50.440252 J-42.817970
G02 X163.904010 Y74.278377 Z-0.125000 I-141.887610 J-117.821423
G02 X164.352818 Y73.730173 Z-0.125000 I-87.235697 J-71.876703
G02 X164.781711 Y73.200524 Z-0.125000 I-118.520763 J-96.412794
G02 X165.208416 Y72.668687 Z-0.125000 I-116.044384 J-93.541962
G02 X165.603697 Y72.169814 Z-0.125000 I-65.287090 J-52.136204
G02 X165.995460 Y71.668366 Z-0.125000 I-82.466552 J-64.831847
G02 X166.344201 Y71.213040 Z-0.125000 I-34.482694 J-26.772032
G02 X166.687283 Y70.753871 Z-0.125000 I-42.799133 J-32.336375
G02 X166.977322 Y70.351743 Z-0.125000 I-17.341556 J-12.813444
G02 X167.258157 Y69.943836 Z-0.125000 I-19.451219 J-13.692386
G02 X167.478839 Y69.601176 Z-0.125000 I-8.296144 J-5.585325
G02 X167.684645 Y69.250488 Z-0.125000 I-8.218476 J-5.058860
G02 X167.827855 Y68.970030 Z-0.125000 I-3.663995 J-2.047738
G02 X167.946874 Y68.680457 Z-0.125000 I-3.183048 J-1.477525
G02 X168.008148 Y68.460885 Z-0.125000 I-1.466324 J-0.527525
G02 X168.030978 Y68.237871 Z-0.125000 I-1.135597 J-0.228929
G02 X168.008941 Y68.071209 Z-0.125000 I-0.617403 J-0.003152
G02 X167.940240 Y67.920669 Z-0.125000 I-0.497650 J0.136162
G02 X167.825773 Y67.794754 Z-0.125000 I-0.477720 J0.319301
G02 X167.678067 Y67.702540 Z-0.125000 I-0.436989 J0.535555
G02 X167.459738 Y67.623101 Z-0.125000 I-0.587507 J1.274943
G02 X167.229181 Y67.576278 Z-0.125000 I-0.470772 J1.727058
G02 X166.917476 Y67.547168 Z-0.125000 I-0.506554 J3.740689
G02 X166.605206 Y67.542377 Z-0.125000 I-0.222061 J4.294185
G02 X166.210293 Y67.558519 Z-0.125000 I0.208650 J9.943405
G02 X165.819044 Y67.590988 Z-0.125000 I0.539685 J8.876607
G02 X165.337772 Y67.643164 Z-0.125000 I8.127021 J77.209064
G02 X164.850710 Y67.700149 Z-0.125000 I5.082122 J45.548165
G02 X164.271331 Y67.774855 Z-0.125000 I5.531161 J45.180589
G02 X163.692374 Y67.855408 Z-0.125000 I10.894851 J80.425543
G02 X163.034657 Y67.955166 Z-0.125000 I5.418638 J37.943846
G02 X162.378434 Y68.063657 Z-0.125000 I11.376149 J70.849000
G02 X161.659664 Y68.194201 Z-0.125000 I5.476890 J32.199635
G02 X160.943421 Y68.337577 Z-0.125000 I10.297572 J53.302651
G02 X160.182044 Y68.506279 Z-0.125000 I5.750323 J27.754510
G02 X159.424814 Y68.692536 Z-0.125000 I9.560744 J40.501708
G02 X158.640597 Y68.906860 Z-0.125000 I6.210280 J24.265446
G02 X157.862830 Y69.143458 Z-0.125000 I9.231988 J31.744908
G02 X157.076403 Y69.409457 Z-0.125000 I6.773966 J21.322823
G02 X156.299452 Y69.701955 Z-0.125000 I9.140563 J25.457835
G02 X155.531723 Y70.023091 Z-0.125000 I7.345367 J18.638605
G02 X154.777187 Y70.374097 Z-0.125000 I9.122483 J20.596537
G02 X154.048608 Y70.750512 Z-0.125000 I7.823296 J16.035889
G02 X153.337584 Y71.159087 Z-0.125000 I9.056434 J16.583472
G02 X152.667408 Y71.587330 Z-0.125000 I8.110555 J13.431067
G02 X152.019736 Y72.048827 Z-0.125000 I8.851533 J13.107592
G02 X151.425307 Y72.522017 Z-0.125000 I8.126028 J10.818012
G02 X150.858966 Y73.028261 Z-0.125000 I8.436777 J10.008221
G02 X150.355040 Y73.536613 Z-0.125000 I7.859973 J8.295490
G02 X149.885791 Y74.076155 Z-0.125000 I7.725569 J7.192885
G02 X149.483199 Y74.607957 Z-0.125000 I7.624229 J6.190084
G02 X149.120380 Y75.166936 Z-0.125000 I7.112025 J5.013474
G02 X148.823269 Y75.709572 Z-0.125000 I7.286680 J4.342362
G02 X148.569749 Y76.273541 Z-0.125000 I6.580723 J3.297180
G02 X148.377698 Y76.814394 Z-0.125000 I6.791592 J2.716154
G02 X148.232137 Y77.369342 Z-0.125000 I6.028242 J1.877751
G02 X148.142100 Y77.896396 Z-0.125000 I6.244955 J1.338048
G02 X148.099907 Y78.429298 Z-0.125000 I5.488580 J0.702679
G02 X148.106672 Y78.931415 Z-0.125000 I5.685016 J0.174512
G02 X148.160798 Y79.430612 Z-0.125000 I4.975410 J-0.286937
G02 X148.257564 Y79.897598 Z-0.125000 I5.129885 J-0.819456
G02 X148.399270 Y80.352977 Z-0.125000 I4.491692 J-1.148007
G02 X148.578021 Y80.775588 Z-0.125000 I4.581534 J-1.688734
G02 X148.797494 Y81.178599 Z-0.125000 I4.016510 J-1.926051
G02 X149.049275 Y81.548570 Z-0.125000 I4.030336 J-2.472165
G02 X149.336090 Y81.892153 Z-0.125000 I3.528684 J-2.654160
G02 X149.651138 Y82.202286 Z-0.125000 I3.456731 J-3.196424
G02 X149.994531 Y82.480764 Z-0.125000 I3.000545 J-3.349032
G02 X150.362388 Y82.725038 Z-0.125000 I2.836120 J-3.871835
G02 X150.751408 Y82.934021 Z-0.125000 I2.406152 J-4.012462
G02 X151.161066 Y83.107736 Z-0.125000 I2.147101 J-4.493443
G02 X151.583973 Y83.244030 Z-0.125000 I1.737926 J-4.668380
G02 X152.024776 Y83.343901 Z-0.125000 I1.345638 J-4.916546
G02 X152.469088 Y83.405118 Z-0.125000 I0.958632 J-5.314667
G02 X152.936778 Y83.428030 Z-0.125000 I0.480397 J-5.021310
G02 X153.407784 Y83.409627 Z-0.125000 I0.014331 J-5.669794
G02 X153.908961 Y83.348652 Z-0.125000 I-0.502986 J-6.224486
G02 X154.404434 Y83.248971 Z-0.125000 I-1.098630 J-6.742027
G02 X154.928542 Y83.103466 Z-0.125000 I-1.799984 J-7.500219
G02 X155.441434 Y82.922856 Z-0.125000 I-2.520369 J-7.975839
G02 X155.979789 Y82.694265 Z-0.125000 I-3.483034 J-8.951110
G02 X156.503632 Y82.434425 Z-0.125000 I-4.299113 J-9.325062
G02 X157.049771 Y82.125517 Z-0.125000 I-5.708369 J-10.729444
G02 X157.579564 Y81.789417 Z-0.125000 I-6.523090 J-10.867937
G02 X158.128632 Y81.404504 Z-0.125000 I-8.744464 J-13.057817
G02 X158.660905 Y80.996521 Z-0.125000 I-9.345379 J-12.743604
G02 X159.209540 Y80.541668 Z-0.125000 I-13.087031 J-16.343625
G02 X159.742197 Y80.067817 Z-0.125000 I-13.037981 J-15.192328
G02 X160.288245 Y79.551135 Z-0.125000 I-19.710280 J-21.377426
G02 X160.820220 Y79.019376 Z-0.125000 I-18.073716 J-18.613003
G02 X161.362275 Y78.451306 Z-0.125000 I-30.819661 J-29.950933
G02 X161.892990 Y77.871866 Z-0.125000 I-25.380064 J-23.778640
G02 X162.429748 Y77.265405 Z-0.125000 I-52.588209 J-47.084819
G02 X162.958423 Y76.651001 Z-0.125000 I-37.046816 J-32.412242
G02 X163.487908 Y76.021717 Z-0.125000 I-111.260212 J-94.152710
G02 X164.012734 Y75.387562 Z-0.125000 I-59.297915 J-49.609098
G02 X164.531421 Y74.753269 Z-0.125000 I-570.938580 J-467.408943
G02 X165.049101 Y74.116522 Z-0.125000 I-139.302059 J-113.782366
G02 X165.550314 Y73.496764 Z-0.125000 I-1024.994822 J-829.451504
G02 X166.051416 Y72.876012 Z-0.125000 I-528.112055 J-426.830009
G02 X166.521876 Y72.290507 Z-0.125000 I-174.199403 J-140.453180
G02 X166.990787 Y71.703971 Z-0.125000 I-367.324091 J-294.140921
G02 X167.413804 Y71.169619 Z-0.125000 I-66.807011 J-53.322089
G02 X167.833149 Y70.632923 Z-0.125000 I-112.704824 J-88.493679
G02 X168.192866 Y70.162357 Z-0.125000 I-28.472160 J-22.137845
G02 X168.545291 Y69.687175 Z-0.125000 I-37.451246 J-28.144455
G02 X168.827479 Y69.288484 Z-0.125000 I-12.398637 J-9.074814
G02 X169.096591 Y68.882160 Z-0.125000 I-13.357175 J-9.138834
G02 X169.290023 Y68.558767 Z-0.125000 I-5.138774 J-3.293223
G02 X169.460762 Y68.225051 Z-0.125000 I-4.645033 J-2.587070
G02 X169.558744 Y67.975515 Z-0.125000 I-1.913592 J-0.895391
G02 X169.617678 Y67.718509 Z-0.125000 I-1.474214 J-0.473310
G02 X169.619037 Y67.533995 Z-0.125000 I-0.689981 J-0.097346
G02 X169.566511 Y67.362344 Z-0.125000 I-0.521942 J0.065855
G02 X169.464037 Y67.224364 Z-0.125000 I-0.452199 J0.228795
G02 X169.319579 Y67.122484 Z-0.125000 I-0.415415 J0.435668
G02 X169.094509 Y67.033861 Z-0.125000 I-0.593967 J1.178362
G02 X168.853895 Y66.982139 Z-0.125000 I-0.480849 J1.651390
G02 X168.518171 Y66.948962 Z-0.125000 I-0.566106 J4.013331
G02 X168.180268 Y66.941861 Z-0.125000 I-0.267814 J4.701043
G02 X167.748581 Y66.957243 Z-0.125000 I0.155083 J10.417433
G02 X167.323683 Y66.991504 Z-0.125000 I0.497936 J8.827237
G03 X166.798657 Y67.045924 Z-0.125000 I-21.416374 J-204.060184
G02 X166.267189 Y67.102576 Z-0.125000 I6.468681 J63.205062
G02 X165.627710 Y67.174310 Z-0.125000 I27.129067 J244.731600
G03 X164.986097 Y67.247098 Z-0.125000 I-689.284855 J-6073.076313
G02 X164.248272 Y67.335385 Z-0.125000 I6.769609 J59.701172
G02 X163.511390 Y67.429581 Z-0.125000 I24.899432 J197.714276
G02 X162.697046 Y67.543393 Z-0.125000 I5.367532 J41.376154
G02 X161.884573 Y67.669099 Z-0.125000 I12.726722 J84.944621
G02 X161.014766 Y67.819832 Z-0.125000 I5.230977 J32.770475
G02 X160.148441 Y67.989223 Z-0.125000 I9.898483 J52.924264
G02 X159.245881 Y68.188867 Z-0.125000 I5.634165 J27.611236
G02 X158.349305 Y68.413864 Z-0.125000 I9.097406 J38.150452
G02 X157.438020 Y68.672757 Z-0.125000 I6.305085 J23.926719
G02 X156.536197 Y68.962950 Z-0.125000 I8.986646 J29.473872
G02 X155.640900 Y69.288032 Z-0.125000 I7.075416 J20.881562
G02 X154.759487 Y69.649104 Z-0.125000 I9.110562 J23.496153
G02 X153.904683 Y70.042800 Z-0.125000 I7.803901 J18.068889
G02 X153.069013 Y70.475633 Z-0.125000 I9.247263 J18.876811
G02 X152.278013 Y70.935434 Z-0.125000 I8.357319 J15.287437
G02 X151.512100 Y71.435882 Z-0.125000 I9.256672 J15.003255
G02 X150.806101 Y71.954563 Z-0.125000 I8.615619 J12.466909
G02 X150.131791 Y72.513736 Z-0.125000 I9.043136 J11.591344
G02 X149.529107 Y73.080033 Z-0.125000 I8.499950 J9.649953
G02 X148.965839 Y73.684813 Z-0.125000 I8.485488 J8.467739
G02 X148.480922 Y74.284610 Z-0.125000 I8.198800 J7.124386
G02 X148.043176 Y74.918298 Z-0.125000 I7.727759 J5.806308
G02 X147.683678 Y75.536151 Z-0.125000 I8.010427 J5.074383
G02 X147.375816 Y76.180718 Z-0.125000 I7.221449 J3.844959
G02 X147.140968 Y76.801234 Z-0.125000 I7.613948 J3.236368
G02 X146.960924 Y77.439501 Z-0.125000 I6.728391 J2.242485
G02 X146.846487 Y78.048095 Z-0.125000 I7.131837 J1.656094
G02 X146.788090 Y78.664446 Z-0.125000 I6.242441 J0.902390
G02 X146.787310 Y79.247756 Z-0.125000 I6.619475 J0.300503
G02 X146.841562 Y79.828500 Z-0.125000 I5.777337 J-0.246800
G02 X146.945864 Y80.374417 Z-0.125000 I6.089433 J-0.880517
G02 X147.102021 Y80.907846 Z-0.125000 I5.321818 J-1.268347
G02 X147.301557 Y81.405494 Z-0.125000 I5.537575 J-1.931499
G02 X147.547920 Y81.881750 Z-0.125000 I4.850684 J-2.207370
G02 X147.831908 Y82.321494 Z-0.125000 I4.949167 J-2.884618
G02 X148.156313 Y82.732381 Z-0.125000 I4.334837 J-3.088952
G02 X148.513236 Y83.105890 Z-0.125000 I4.309445 J-3.760783
G02 X148.903274 Y83.444733 Z-0.125000 I3.748344 J-3.920767
G02 X149.320970 Y83.745069 Z-0.125000 I3.600439 J-4.566730
G02 X149.764035 Y84.006631 Z-0.125000 I3.071985 J-4.697650
G02 X150.229742 Y84.228378 Z-0.125000 I2.806312 J-5.293845
G02 X150.712907 Y84.408817 Z-0.125000 I2.294285 J-5.406330
G02 X151.213458 Y84.548177 Z-0.125000 I1.910125 J-5.892174
G02 X151.719964 Y84.645141 Z-0.125000 I1.451994 J-6.213258
G02 X152.246338 Y84.699648 Z-0.125000 I0.861148 J-5.747329
G02 X152.776886 Y84.708263 Z-0.125000 I0.369319 J-6.403066
G02 X153.335499 Y84.670607 Z-0.125000 I-0.166939 J-6.638737
G02 X153.891169 Y84.587721 Z-0.125000 I-0.794979 J-7.233618
G02 X154.475767 Y84.454633 Z-0.125000 I-1.497682 J-7.929165
G02 X155.049066 Y84.280162 Z-0.125000 I-2.245979 J-8.409243
G02 X155.647806 Y84.053015 Z-0.125000 I-3.167723 J-9.252539
G02 X156.230715 Y83.788532 Z-0.125000 I-4.027698 J-9.651467
G02 X156.835948 Y83.469691 Z-0.125000 I-5.328464 J-10.848507
G02 X157.422495 Y83.117986 Z-0.125000 I-6.225022 J-11.046565
G02 X158.028720 Y82.711304 Z-0.125000 I-8.247221 J-12.948980
G02 X158.615104 Y82.276494 Z-0.125000 I-9.001268 J-12.751916
G02 X159.218936 Y81.787578 Z-0.125000 I-12.435754 J-15.976019
G02 X159.803422 Y81.275362 Z-0.125000 I-12.649989 J-15.024398
G02 X160.403289 Y80.712003 Z-0.125000 I-18.936789 J-20.765018
G02 X160.985838 Y80.130109 Z-0.125000 I-17.695983 J-18.298455
G02 X161.581506 Y79.502782 Z-0.125000 I-30.244314 J-29.314457
G02 X162.163143 Y78.861509 Z-0.125000 I-25.195996 J-23.437282
G02 X162.754939 Y78.183873 Z-0.125000 I-54.252425 J-47.977204
G02 X163.336888 Y77.496624 Z-0.125000 I-37.687525 J-32.503065
G02 X163.924724 Y76.785803 Z-0.125000 I-136.617816 J-113.578970
G02 X164.507319 Y76.069413 Z-0.125000 I-63.385486 J-52.142476
G03 X165.089495 Y75.345924 Z-0.125000 I799.387448 J642.654368
G02 X165.671626 Y74.620278 Z-0.125000 I-185.989157 J-149.801426
G03 X166.242892 Y73.907622 Z-0.125000 I227.533005 J181.805376
G03 X166.816812 Y73.195232 Z-0.125000 I405.873706 J326.395214
G03 X167.363332 Y72.518402 Z-0.125000 I1416.343025 J1143.096941
G03 X167.910654 Y71.842465 Z-0.125000 I301.386875 J243.480275
G02 X168.411176 Y71.223652 Z-0.125000 I-186.884006 J-151.671800
G03 X168.910482 Y70.604515 Z-0.125000 I1527.650761 J1231.467302
G02 X169.344919 Y70.060215 Z-0.125000 I-51.628360 J-41.653105
G02 X169.774503 Y69.513127 Z-0.125000 I-100.661327 J-79.483539
G02 X170.124425 Y69.053897 Z-0.125000 I-19.232682 J-15.017766
G02 X170.463683 Y68.588260 Z-0.125000 I-23.984640 J-17.831350
G02 X170.714072 Y68.218579 Z-0.125000 I-7.362209 J-5.256148
G02 X170.944212 Y67.838403 Z-0.125000 I-7.109193 J-4.563308
G02 X171.085375 Y67.556831 Z-0.125000 I-2.567149 J-1.463174
G02 X171.188958 Y67.264388 Z-0.125000 I-2.004302 J-0.874491
G02 X171.218801 Y67.061709 Z-0.125000 I-0.803323 J-0.221821
G02 X171.189140 Y66.867125 Z-0.125000 I-0.567665 J-0.013020
G02 X171.104621 Y66.719346 Z-0.125000 I-0.418243 J0.141147
G02 X170.968517 Y66.608628 Z-0.125000 I-0.382443 J0.331115
G02 X170.742806 Y66.511916 Z-0.125000 I-0.577037 J1.034971
G02 X170.497340 Y66.456517 Z-0.125000 I-0.472431 J1.521783
G02 X170.142131 Y66.420545 Z-0.125000 I-0.605637 J4.208589
G02 X169.783721 Y66.412334 Z-0.125000 I-0.293221 J4.972622
G02 X169.318640 Y66.427874 Z-0.125000 I0.149902 J11.453426
G02 X168.860313 Y66.463410 Z-0.125000 I0.524247 J9.734866
G03 X168.293836 Y66.520023 Z-0.125000 I-21.230248 J-209.571007
G02 X167.725742 Y66.579925 Z-0.125000 I4.120691 J41.803164
G03 X167.038054 Y66.652674 Z-0.125000 I-5.974871 J-53.193009
G03 X166.343069 Y66.718529 Z-0.125000 I-7.727445 J-77.849720
G02 X165.533249 Y66.794043 Z-0.125000 I12.325218 J136.556258
G03 X164.723903 Y66.870722 Z-0.125000 I-26.214035 J-272.379204
G02 X163.820868 Y66.962294 Z-0.125000 I5.211630 J55.892802
G02 X162.919019 Y67.063323 Z-0.125000 I20.469324 J186.799013
G02 X161.946075 Y67.187129 Z-0.125000 I4.427863 J38.681695
G02 X160.975734 Y67.329683 Z-0.125000 I10.141816 J72.407410
G02 X159.958149 Y67.503335 Z-0.125000 I4.769555 J31.017487
G02 X158.945684 Y67.704917 Z-0.125000 I8.609764 J45.886673
G02 X157.910642 Y67.944294 Z-0.125000 I5.560329 J26.399716
G02 X156.884540 Y68.219715 Z-0.125000 I8.506200 J33.739582
G02 X155.860528 Y68.536402 Z-0.125000 I6.546404 J22.981848
G02 X154.850565 Y68.895496 Z-0.125000 I8.820834 J26.408701
G02 X153.866324 Y69.295139 Z-0.125000 I7.550077 J20.006165
G02 X152.902318 Y69.741431 Z-0.125000 I9.205587 J21.148677
G02 X151.985512 Y70.223121 Z-0.125000 I8.408476 J17.117254
G02 X151.095970 Y70.753478 Z-0.125000 I9.477345 J16.907039
G02 X150.271953 Y71.310007 Z-0.125000 I8.966121 J14.163878
G02 X149.482925 Y71.915085 Z-0.125000 I9.511562 J13.220155
G02 X148.773794 Y72.533865 Z-0.125000 I9.096828 J11.140837
G02 X148.108175 Y73.198995 Z-0.125000 I9.209045 J9.881433
G02 X147.532082 Y73.863426 Z-0.125000 I8.780172 J8.194783
G02 X147.009864 Y74.569246 Z-0.125000 I8.404651 J6.764489
G02 X146.579081 Y75.260742 Z-0.125000 I8.612094 J5.845031
G02 X146.208670 Y75.985213 Z-0.125000 I7.795414 J4.442606
G02 X145.923981 Y76.685156 Z-0.125000 I8.392685 J3.821430
G02 X145.702864 Y77.407274 Z-0.125000 I7.378366 J2.654214
G02 X145.558354 Y78.098241 Z-0.125000 I7.995752 J2.032844
G02 X145.478522 Y78.799439 Z-0.125000 I6.964589 J1.148073
G02 X145.465634 Y79.465614 Z-0.125000 I7.557439 J0.479419
G02 X145.515813 Y80.129988 Z-0.125000 I6.567204 J-0.161931
G02 X145.623947 Y80.757223 Z-0.125000 I7.081068 J-0.897820
G02 X145.791113 Y81.371409 Z-0.125000 I6.169346 J-1.349303
G02 X146.008370 Y81.947130 Z-0.125000 I6.546181 J-2.141448
G02 X146.278766 Y82.499942 Z-0.125000 I5.727744 J-2.459066
G02 X146.592448 Y83.013095 Z-0.125000 I5.934665 J-3.275306
G02 X146.952123 Y83.495172 Z-0.125000 I5.202923 J-3.506665
G02 X147.348999 Y83.936246 Z-0.125000 I5.235664 J-4.311924
G02 X147.783974 Y84.339848 Z-0.125000 I4.569192 J-4.488182
G02 X148.250338 Y84.700904 Z-0.125000 I4.443072 J-5.257234
G02 X148.746531 Y85.019846 Z-0.125000 I3.815720 J-5.390847
G02 X149.268107 Y85.294621 Z-0.125000 I3.550164 J-6.106498
G02 X149.811163 Y85.524294 Z-0.125000 I2.939709 J-6.194002
G02 X150.372997 Y85.708325 Z-0.125000 I2.548271 J-6.830056
G02 X150.945604 Y85.845830 Z-0.125000 I1.991169 J-7.030746
G02 X151.534607 Y85.936510 Z-0.125000 I1.357758 J-6.860993
G02 X152.126650 Y85.978268 Z-0.125000 I0.821383 J-7.427582
G02 X152.742640 Y85.970371 Z-0.125000 I0.217309 J-7.077505
G02 X153.359881 Y85.910882 Z-0.125000 I-0.439541 J-7.792432
G02 X154.005648 Y85.797151 Z-0.125000 I-1.152982 J-8.436883
G02 X154.640826 Y85.635770 Z-0.125000 I-1.925023 J-8.907393
G02 X155.300538 Y85.417570 Z-0.125000 I-2.817231 J-9.624060
G02 X155.943709 Y85.155782 Z-0.125000 I-3.708301 J-10.031670
G02 X156.608073 Y84.835146 Z-0.125000 I-4.900424 J-11.002385
G02 X157.251815 Y84.475611 Z-0.125000 I-5.859366 J-11.247198
G02 X157.914401 Y84.055848 Z-0.125000 I-7.653636 J-12.813905
G02 X158.554209 Y83.602387 Z-0.125000 I-8.537960 J-12.724649
G02 X159.211361 Y83.088393 Z-0.125000 I-11.567202 J-15.465996
G02 X159.845618 Y82.546204 Z-0.125000 I-12.043115 J-14.730211
G02 X160.496231 Y81.945005 Z-0.125000 I-17.654671 J-19.758423
G02 X161.125836 Y81.321209 Z-0.125000 I-16.915489 J-17.702636
G02 X161.770855 Y80.642707 Z-0.125000 I-28.357059 J-27.603483
G02 X162.398535 Y79.947098 Z-0.125000 I-24.227560 J-22.492679
G02 X163.040144 Y79.204870 Z-0.125000 I-51.771339 J-45.401433
G02 X163.669463 Y78.450818 Z-0.125000 I-36.599451 J-31.184922
G02 X164.309917 Y77.662809 Z-0.125000 I-140.642216 J-114.961221
G02 X164.943970 Y76.868020 Z-0.125000 I-62.817928 J-50.764045
G03 X165.584099 Y76.056859 Z-0.125000 I401.590841 J316.257989
G02 X166.224411 Y75.243501 Z-0.125000 I-185.451255 J-146.654337
G03 X166.861410 Y74.436322 Z-0.125000 I119.901169 J93.967202
G03 X167.504478 Y73.630487 Z-0.125000 I196.123395 J155.849532
G03 X168.126159 Y72.857902 Z-0.125000 I193.380627 J154.972695
G03 X168.751445 Y72.088406 Z-0.125000 I138.806528 J112.154136
G03 X169.331422 Y71.379312 Z-0.125000 I846.618575 J691.868427
G03 X169.912997 Y70.672343 Z-0.125000 I147.436099 J120.692838
G02 X170.426240 Y70.048176 Z-0.125000 I-119.327069 J-98.643775
G03 X170.937487 Y69.423623 Z-0.125000 I783.730737 J641.024545
G02 X171.360742 Y68.898240 Z-0.125000 I-31.776126 J-26.032450
G02 X171.776209 Y68.368443 Z-0.125000 I-53.741136 J-42.571588
G02 X172.089970 Y67.947924 Z-0.125000 I-10.848178 J-8.421444
G02 X172.386577 Y67.517795 Z-0.125000 I-11.659055 J-8.357152
G02 X172.577385 Y67.200901 Z-0.125000 I-3.543952 J-2.349764
G02 X172.733780 Y66.870949 Z-0.125000 I-2.873112 J-1.563882
G02 X172.797364 Y66.648311 Z-0.125000 I-0.989229 J-0.402917
G02 X172.798205 Y66.427835 Z-0.125000 I-0.658431 J-0.112749
G02 X172.736442 Y66.272063 Z-0.125000 I-0.386668 J0.063183
G02 X172.613250 Y66.152630 Z-0.125000 I-0.344618 J0.232212
G02 X172.393299 Y66.048650 Z-0.125000 I-0.539856 J0.857340
G02 X172.147988 Y65.990558 Z-0.125000 I-0.449166 J1.349754
G02 X171.777622 Y65.952990 Z-0.125000 I-0.624732 J4.314467
G02 X171.403572 Y65.944974 Z-0.125000 I-0.295360 J5.051581
G02 X170.908125 Y65.961853 Z-0.125000 I0.208318 J13.394569
G02 X170.416772 Y65.997871 Z-0.125000 I0.627850 J11.934538
G02 X169.810135 Y66.056460 Z-0.125000 I11.438834 J121.609074
G02 X169.210106 Y66.123364 Z-0.125000 I2.425565 J24.477923
G03 X168.483265 Y66.202142 Z-0.125000 I-2.928969 J-23.631436
G03 X167.743848 Y66.264554 Z-0.125000 I-4.082465 J-43.955493
G03 X166.871936 Y66.329354 Z-0.125000 I-20.449731 J-269.261519
G03 X165.999301 Y66.387947 Z-0.125000 I-5.744598 J-79.026642
G02 X165.015709 Y66.454208 Z-0.125000 I5.282052 J85.742088
G03 X164.032738 Y66.525616 Z-0.125000 I-73.615171 J-1006.552367
G02 X162.963529 Y66.615191 Z-0.125000 I3.342204 J46.320250
G02 X161.895938 Y66.722263 Z-0.125000 I10.560495 J110.671754
G02 X160.768379 Y66.859493 Z-0.125000 I3.638868 J34.599874
G02 X159.644714 Y67.026443 Z-0.125000 I7.733739 J55.917357
G02 X158.488679 Y67.234095 Z-0.125000 I4.568807 J28.757054
G02 X157.340530 Y67.482291 Z-0.125000 I7.701500 J38.406728
G02 X156.188156 Y67.777940 Z-0.125000 I5.780484 J24.924693
G02 X155.049395 Y68.122612 Z-0.125000 I8.259871 J29.343273
G02 X153.933792 Y68.516262 Z-0.125000 I7.070762 J21.816174
G02 X152.838978 Y68.964562 Z-0.125000 I8.934238 J23.379687
G02 X151.792490 Y69.457682 Z-0.125000 I8.258142 J18.882207
G02 X150.774997 Y70.008135 Z-0.125000 I9.506184 J18.787498
G02 X149.827483 Y70.593995 Z-0.125000 I9.158225 J15.870779
G02 X148.917878 Y71.237114 Z-0.125000 I9.831424 J14.870052
G02 X148.095475 Y71.901990 Z-0.125000 I9.599481 J12.714906
G02 X147.320447 Y72.621609 Z-0.125000 I9.809577 J11.342056
G02 X146.644970 Y73.346500 Z-0.125000 I9.438899 J9.472637
G02 X146.028430 Y74.120895 Z-0.125000 I9.205004 J7.961253
G02 X145.516582 Y74.883777 Z-0.125000 I9.097300 J6.656897
G02 X145.074415 Y75.686834 Z-0.125000 I8.335284 J5.112700
G02 X144.731897 Y76.465407 Z-0.125000 I9.099718 J4.467873
G02 X144.462284 Y77.271461 Z-0.125000 I7.967474 J3.113117
G02 X144.281360 Y78.045134 Z-0.125000 I8.825035 J2.471736
G02 X144.174253 Y78.832169 Z-0.125000 I7.639762 J1.440500
G02 X144.144184 Y79.582422 Z-0.125000 I8.486317 J0.715839
G02 X144.185678 Y80.332097 Z-0.125000 I7.356109 J-0.031167
G02 X144.293473 Y81.042608 Z-0.125000 I8.082875 J-0.862855
G02 X144.467806 Y81.739848 Z-0.125000 I7.021672 J-1.385232
G02 X144.699303 Y82.396278 Z-0.125000 I7.603768 J-2.312525
G02 X144.990432 Y83.028580 Z-0.125000 I6.639544 J-2.673847
G02 X145.330802 Y83.618427 Z-0.125000 I6.986998 J-3.638712
G02 X145.722881 Y84.175261 Z-0.125000 I6.130750 J-3.900332
G02 X146.157153 Y84.687794 Z-0.125000 I6.234353 J-4.842158
G02 X146.634676 Y85.160301 Z-0.125000 I5.463096 J-5.043539
G02 X147.147752 Y85.586511 Z-0.125000 I5.358137 J-5.928251
G02 X147.695351 Y85.967448 Z-0.125000 I4.636719 J-6.081260
G02 X148.271743 Y86.300094 Z-0.125000 I4.367859 J-6.902701
G02 X148.873829 Y86.583930 Z-0.125000 I3.665128 J-6.994158
G02 X149.497251 Y86.817706 Z-0.125000 I3.261827 J-7.750322
G02 X150.136641 Y87.000763 Z-0.125000 I2.588498 J-7.833026
G02 X150.790732 Y87.132509 Z-0.125000 I1.982860 J-8.154894
G02 X151.448184 Y87.212432 Z-0.125000 I1.378945 J-8.599226
G02 X152.125148 Y87.239097 Z-0.125000 I0.644276 J-7.750275
G02 X152.806281 Y87.209003 Z-0.125000 I-0.034724 J-8.509197
G02 X153.513867 Y87.121066 Z-0.125000 I-0.761108 J-9.015091
G02 X154.213062 Y86.979222 Z-0.125000 I-1.561525 J-9.491458
G02 X154.935218 Y86.776788 Z-0.125000 I-2.444610 J-10.110127
G02 X155.640823 Y86.524523 Z-0.125000 I-3.357143 J-10.503132
G02 X156.365411 Y86.209623 Z-0.125000 I-4.461799 J-11.257725
G02 X157.068004 Y85.849583 Z-0.125000 I-5.461594 J-11.523489
G02 X157.787269 Y85.425052 Z-0.125000 I-7.036502 J-12.743226
G02 X158.481138 Y84.960840 Z-0.125000 I-8.019115 J-12.737050
G02 X159.190850 Y84.430755 Z-0.125000 I-10.618068 J-14.956280
G02 X159.874106 Y83.867043 Z-0.125000 I-11.320656 J-14.417309
G02 X160.573386 Y83.237353 Z-0.125000 I-16.136223 J-18.622656
G02 X161.247629 Y82.580398 Z-0.125000 I-15.895911 J-16.988677
G02 X161.938484 Y81.859862 Z-0.125000 I-25.797778 J-25.426570
G02 X162.608086 Y81.118454 Z-0.125000 I-22.773814 J-21.241210
G02 X163.294599 Y80.319799 Z-0.125000 I-46.756692 J-40.885805
G02 X163.965626 Y79.506511 Z-0.125000 I-34.385613 J-29.054304
G02 X164.652695 Y78.647592 Z-0.125000 I-124.466489 J-100.268023
G02 X165.331433 Y77.780092 Z-0.125000 I-58.805842 J-46.709364
G03 X166.023045 Y76.884760 Z-0.125000 I394.324955 J303.887014
G02 X166.714326 Y75.986666 Z-0.125000 I-156.820386 J-121.422854
G03 X167.411129 Y75.085008 Z-0.125000 I94.461803 J72.280272
G03 X168.117053 Y74.185359 Z-0.125000 I173.902441 J135.728396
G03 X168.810411 Y73.313432 Z-0.125000 I112.234363 J88.537355
G03 X169.511302 Y72.446828 Z-0.125000 I99.711103 J79.927471
G03 X170.171418 Y71.641476 Z-0.125000 I184.712866 J150.728951
G03 X170.836099 Y70.841085 Z-0.125000 I94.771276 J78.026221
G02 X171.431166 Y70.130255 Z-0.125000 I-1240.041277 J-1038.697227
G03 X172.027441 Y69.421910 Z-0.125000 I117.995211 J98.721553
G02 X172.528921 Y68.823705 Z-0.125000 I-58.993915 J-49.964329
G02 X173.025838 Y68.223732 Z-0.125000 I-333.868415 J-277.026691
G02 X173.409025 Y67.746571 Z-0.125000 I-16.582834 J-13.709371
G02 X173.778553 Y67.261656 Z-0.125000 I-21.439412 J-16.721117
G02 X174.025469 Y66.904859 Z-0.125000 I-5.030988 J-3.745443
G02 X174.242238 Y66.534338 Z-0.125000 I-4.361346 J-2.800222
G02 X174.345228 Y66.288423 Z-0.125000 I-1.291353 J-0.685348
G02 X174.385476 Y66.038211 Z-0.125000 I-0.831797 J-0.262144
G02 X174.350043 Y65.875006 Z-0.125000 I-0.370239 J-0.005066
G02 X174.243745 Y65.745840 Z-0.125000 I-0.308978 J0.145954
G02 X174.036576 Y65.635016 Z-0.125000 I-0.486482 J0.660357
G02 X173.796356 Y65.574730 Z-0.125000 I-0.415753 J1.147892
G02 X173.415137 Y65.536398 Z-0.125000 I-0.625276 J4.303704
G02 X173.029645 Y65.529560 Z-0.125000 I-0.281846 J5.018986
G02 X172.507196 Y65.549045 Z-0.125000 I0.323527 J15.687925
G02 X171.986690 Y65.586528 Z-0.125000 I0.783840 J14.517712
G02 X171.342266 Y65.648320 Z-0.125000 I5.042248 J55.976620
G02 X170.709614 Y65.722948 Z-0.125000 I2.006311 J19.727274
G03 X169.945562 Y65.809570 Z-0.125000 I-2.485041 J-18.506368
G03 X169.169116 Y65.874358 Z-0.125000 I-3.966151 J-42.846606
G03 X168.247230 Y65.934805 Z-0.125000 I-3.926318 J-52.821109
G03 X167.321024 Y65.977802 Z-0.125000 I-2.536601 J-44.643604
G02 X166.265906 Y66.018635 Z-0.125000 I7.151622 J198.449243
G03 X165.211130 Y66.058022 Z-0.125000 I-5.431471 J-131.312745
G02 X164.053862 Y66.108252 Z-0.125000 I1.915548 J57.488888
G02 X162.897288 Y66.172993 Z-0.125000 I12.500800 J233.686490
G02 X161.666379 Y66.264695 Z-0.125000 I2.255533 J38.582924
G02 X160.437877 Y66.386798 Z-0.125000 I6.374843 J70.379698
G02 X159.165239 Y66.551050 Z-0.125000 I3.358822 J31.036701
G02 X157.898888 Y66.759856 Z-0.125000 I6.562364 J43.743496
G02 X156.619945 Y67.021759 Z-0.125000 I4.801438 J26.700311
G02 X155.353521 Y67.339355 Z-0.125000 I7.440851 J32.354376
G02 X154.105853 Y67.714610 Z-0.125000 I6.381059 J23.477907
G02 X152.878899 Y68.152968 Z-0.125000 I8.440447 J25.560928
G02 X151.699900 Y68.646402 Z-0.125000 I7.907864 J20.550080
G02 X150.551117 Y69.206484 Z-0.125000 I9.340277 J20.615985
G02 X149.475595 Y69.812393 Z-0.125000 I9.177402 J17.547909
G02 X148.440509 Y70.484956 Z-0.125000 I9.989318 J16.506521
G02 X147.498930 Y71.188719 Z-0.125000 I9.982913 J14.338101
G02 X146.608433 Y71.956158 Z-0.125000 I10.267511 J12.814266
G02 X145.826181 Y72.736490 Z-0.125000 I10.133212 J10.940399
G02 X145.106538 Y73.574882 Z-0.125000 I10.051800 J9.356125
G02 X144.504126 Y74.406189 Z-0.125000 I9.588508 J7.582304
G02 X143.980058 Y75.285741 Z-0.125000 I8.946233 J5.926382
G02 X143.570449 Y76.141636 Z-0.125000 I9.679431 J5.158277
G02 X143.243969 Y77.031267 Z-0.125000 I8.489071 J3.620073
G02 X143.019561 Y77.887490 Z-0.125000 I9.603810 J2.974591
G02 X142.878695 Y78.760970 Z-0.125000 I8.256098 J1.779560
G02 X142.825870 Y79.596074 Z-0.125000 I9.388952 J1.013120
G02 X142.853529 Y80.432341 Z-0.125000 I8.058755 J0.152056
G02 X142.956572 Y81.227657 Z-0.125000 I9.113441 J-0.776421
G02 X143.133924 Y82.009854 Z-0.125000 I7.862232 J-1.371449
G02 X143.375886 Y82.749221 Z-0.125000 I8.706119 J-2.439842
G02 X143.684145 Y83.463564 Z-0.125000 I7.576579 J-2.845828
G02 X144.047850 Y84.133019 Z-0.125000 I8.108709 J-3.971811
G02 X144.469067 Y84.767854 Z-0.125000 I7.116176 J-4.264478
G02 X144.937685 Y85.355432 Z-0.125000 I7.310551 J-5.349797
G02 X145.454807 Y85.900753 Z-0.125000 I6.433651 J-5.583117
G02 X146.011937 Y86.396328 Z-0.125000 I6.346230 J-6.573529
G02 X146.608464 Y86.843733 Z-0.125000 I5.538179 J-6.762703
G02 X147.237697 Y87.238980 Z-0.125000 I5.253758 J-7.665486
G02 X147.897119 Y87.581836 Z-0.125000 I4.468327 J-7.788474
G02 X148.581302 Y87.870400 Z-0.125000 I4.045263 J-8.635909
G02 X149.286330 Y88.104081 Z-0.125000 I3.262095 J-8.661517
G02 X150.006994 Y88.281943 Z-0.125000 I2.702496 J-9.401094
G02 X150.734186 Y88.404340 Z-0.125000 I2.005097 J-9.691355
G02 X151.477086 Y88.469521 Z-0.125000 I1.147481 J-8.812150
G02 X152.224672 Y88.474330 Z-0.125000 I0.435211 J-9.547203
G02 X152.994959 Y88.418129 Z-0.125000 I-0.314525 J-9.617764
G02 X153.760698 Y88.301773 Z-0.125000 I-1.153785 J-10.170936
G02 X154.547548 Y88.121209 Z-0.125000 I-2.050019 J-10.738121
G02 X155.318549 Y87.884729 Z-0.125000 I-2.980990 J-11.094119
G02 X156.105442 Y87.582332 Z-0.125000 I-4.028867 J-11.658876
G02 X156.869651 Y87.228514 Z-0.125000 I-5.053997 J-11.918287
G02 X157.647040 Y86.806861 Z-0.125000 I-6.442232 J-12.804805
G02 X158.396917 Y86.339269 Z-0.125000 I-7.489550 J-12.846088
G02 X159.159606 Y85.801694 Z-0.125000 I-9.687732 J-14.554355
G02 X159.892468 Y85.224586 Z-0.125000 I-10.560837 J-14.164954
G02 X160.639479 Y84.575804 Z-0.125000 I-14.584709 J-17.547374
G02 X161.357251 Y83.894518 Z-0.125000 I-14.775230 J-16.285230
G02 X162.091418 Y83.141730 Z-0.125000 I-23.025115 J-23.189992
G02 X162.799902 Y82.363687 Z-0.125000 I-21.079548 J-19.906590
G02 X163.527101 Y81.518040 Z-0.125000 I-40.844734 J-35.859154
G02 X164.234835 Y80.654333 Z-0.125000 I-31.625131 J-26.635898
G02 X164.962718 Y79.732599 Z-0.125000 I-101.111853 J-80.595209
G02 X165.679427 Y78.799854 Z-0.125000 I-53.124510 J-41.561929
G03 X166.415554 Y77.825988 Z-0.125000 I602.950528 J454.993184
G02 X167.150037 Y76.848116 Z-0.125000 I-126.377749 J-95.687517
G03 X167.899293 Y75.854151 Z-0.125000 I89.388635 J66.602291
G03 X168.659189 Y74.862307 Z-0.125000 I221.886106 J169.209796
G03 X169.417965 Y73.888905 Z-0.125000 I79.790169 J61.414781
G03 X170.190115 Y72.922733 Z-0.125000 I81.051678 J63.983616
G03 X170.929702 Y72.015335 Z-0.125000 I125.467603 J101.508994
G03 X171.676766 Y71.116096 Z-0.125000 I78.697863 J64.620216
G03 X172.355521 Y70.311394 Z-0.125000 I232.434783 J195.366825
G03 X173.038955 Y69.512392 Z-0.125000 I77.752466 J65.814512
G02 X173.622758 Y68.833783 Z-0.125000 I-146.013816 J-126.204953
G03 X174.205468 Y68.156570 Z-0.125000 I140.290527 J120.124269
G02 X174.663704 Y67.615738 Z-0.125000 I-26.708060 J-23.093721
G02 X175.111993 Y67.069808 Z-0.125000 I-50.572360 J-41.984419
G02 X175.421427 Y66.667192 Z-0.125000 I-7.339073 J-5.960726
G02 X175.705488 Y66.251672 Z-0.125000 I-7.076219 J-5.142351
G02 X175.854071 Y65.977707 Z-0.125000 I-1.775127 J-1.140001
G02 X175.943492 Y65.693521 Z-0.125000 I-1.152284 J-0.518738
G02 X175.937311 Y65.521270 Z-0.125000 I-0.383649 J-0.072470
G02 X175.851459 Y65.379626 Z-0.125000 I-0.283367 J0.074913
G02 X175.664878 Y65.262052 Z-0.125000 I-0.421660 J0.462311
G02 X175.434710 Y65.199366 Z-0.125000 I-0.376726 J0.929335
G02 X175.047172 Y65.160423 Z-0.125000 I-0.611975 J4.142341
G02 X174.654506 Y65.155303 Z-0.125000 I-0.259425 J4.835819
G02 X174.108344 Y65.178494 Z-0.125000 I0.504037 J18.312879
G02 X173.563282 Y65.218786 Z-0.125000 I0.953494 J16.605535
G02 X172.882412 Y65.284664 Z-0.125000 I4.941671 J54.625897
G02 X172.212631 Y65.363948 Z-0.125000 I2.283959 J22.163080
G03 X171.409124 Y65.456653 Z-0.125000 I-2.963049 J-22.153399
G03 X170.601889 Y65.531997 Z-0.125000 I-10.568400 J-108.868343
G03 X169.643318 Y65.599099 Z-0.125000 I-2.202220 J-24.578822
G03 X168.673319 Y65.632349 Z-0.125000 I-1.514128 J-30.006118
G03 X167.556200 Y65.651077 Z-0.125000 I-7.497644 J-413.917692
G03 X166.439585 Y65.659040 Z-0.125000 I-1.039308 J-67.439607
G02 X165.203470 Y65.667534 Z-0.125000 I-0.088359 J77.090564
G03 X163.967391 Y65.685390 Z-0.125000 I-20.755141 J-1393.912699
G02 X162.641200 Y65.724273 Z-0.125000 I0.606751 J43.330396
G02 X161.315786 Y65.792738 Z-0.125000 I4.226330 J94.681644
G02 X159.932479 Y65.902819 Z-0.125000 I1.954166 J33.303032
G02 X158.553347 Y66.060678 Z-0.125000 I5.047876 J50.203963
G02 X157.151045 Y66.276294 Z-0.125000 I3.637884 J28.327632
G02 X155.759451 Y66.554139 Z-0.125000 I6.368418 J35.520229
G02 X154.380160 Y66.898294 Z-0.125000 I5.500431 J24.980411
G02 X153.020785 Y67.314371 Z-0.125000 I7.737865 J27.709263
G02 X151.707374 Y67.796450 Z-0.125000 I7.364031 J22.093281
G02 X150.424818 Y68.355159 Z-0.125000 I8.985422 J22.378158
G02 X149.217622 Y68.971180 Z-0.125000 I9.017244 J19.161640
G02 X148.052980 Y69.663999 Z-0.125000 I9.977326 J18.097389
G02 X146.987235 Y70.398725 Z-0.125000 I10.223464 J15.969800
G02 X145.975982 Y71.206709 Z-0.125000 I10.585960 J14.285948
G02 X145.080729 Y72.036626 Z-0.125000 I10.759232 J12.504086
G02 X144.251638 Y72.933489 Z-0.125000 I10.765684 J10.783816
G02 X143.550606 Y73.829565 Z-0.125000 I10.263517 J8.751780
G02 X142.933619 Y74.782580 Z-0.125000 I9.792579 J7.015987
G02 X142.446032 Y75.713999 Z-0.125000 I10.064296 J5.861873
G02 X142.053194 Y76.686391 Z-0.125000 I8.938830 J4.176761
G02 X141.777384 Y77.624513 Z-0.125000 I10.319299 J3.543508
G02 X141.595521 Y78.584714 Z-0.125000 I8.801475 J2.164332
G02 X141.513809 Y79.505000 Z-0.125000 I10.248867 J1.373764
G02 X141.522168 Y80.428790 Z-0.125000 I8.725327 J0.382973
G02 X141.615610 Y81.310035 Z-0.125000 I10.128765 J-0.628408
G02 X141.791593 Y82.178691 Z-0.125000 I8.671019 J-1.304533
G02 X142.040051 Y83.002835 Z-0.125000 I9.846039 J-2.518801
G02 X142.361664 Y83.801369 Z-0.125000 I8.523281 J-2.968754
G02 X142.745162 Y84.552973 Z-0.125000 I9.303989 J-4.273620
G02 X143.192015 Y85.268688 Z-0.125000 I8.153171 J-4.593035
G02 X143.691615 Y85.934568 Z-0.125000 I8.474389 J-5.837860
G02 X144.244983 Y86.556343 Z-0.125000 I7.484534 J-6.103965
G02 X144.842959 Y87.125247 Z-0.125000 I7.415526 J-7.195744
G02 X145.485300 Y87.643438 Z-0.125000 I6.528404 J-7.435286
G02 X146.164561 Y88.105881 Z-0.125000 I6.207463 J-8.387767
G02 X146.878736 Y88.512581 Z-0.125000 I5.353994 J-8.571346
G02 X147.621755 Y88.860988 Z-0.125000 I4.890715 J-9.463528
G02 X148.390082 Y89.150403 Z-0.125000 I4.027734 J-9.528099
G02 X149.177654 Y89.379576 Z-0.125000 I3.457660 J-10.414664
G02 X149.977842 Y89.548588 Z-0.125000 I2.644464 J-10.541478
G02 X150.791337 Y89.656107 Z-0.125000 I1.780524 J-10.340256
G02 X151.607963 Y89.701006 Z-0.125000 I1.008779 J-10.898848
G02 X152.442576 Y89.681772 Z-0.125000 I0.180549 J-10.282867
G02 X153.277636 Y89.596393 Z-0.125000 I-0.698306 J-10.956300
G02 X154.131933 Y89.443205 Z-0.125000 I-1.625287 J-11.522609
G02 X154.971859 Y89.228226 Z-0.125000 I-2.577879 J-11.820067
G02 X155.824037 Y88.944294 Z-0.125000 I-3.604941 J-12.240504
G02 X156.653575 Y88.602776 Z-0.125000 I-4.646431 J-12.464259
G02 X157.491624 Y88.190789 Z-0.125000 I-5.891385 J-13.042391
G02 X158.300695 Y87.726495 Z-0.125000 I-6.977274 J-13.095572
G02 X159.117968 Y87.189300 Z-0.125000 I-8.826608 J-14.318828
G02 X159.902445 Y86.606314 Z-0.125000 I-9.818470 J-14.031229
G02 X160.697478 Y85.947461 Z-0.125000 I-13.122596 J-16.644041
G02 X161.459097 Y85.250334 Z-0.125000 I-13.644359 J-15.671229
G02 X162.235224 Y84.475220 Z-0.125000 I-20.354793 J-21.157519
G02 X162.980865 Y83.669884 Z-0.125000 I-19.320816 J-18.636514
G02 X163.745512 Y82.787509 Z-0.125000 I-35.068316 J-31.161921
G02 X164.486006 Y81.883025 Z-0.125000 I-28.691155 J-24.244601
G02 X165.249494 Y80.908128 Z-0.125000 I-79.593715 J-63.120031
G02 X165.998010 Y79.919138 Z-0.125000 I-47.101559 J-36.426512
G03 X166.771680 Y78.874501 Z-0.125000 I50688.614769 J37539.735004
G02 X167.541533 Y77.823815 Z-0.125000 I-102.035005 J-75.569935
G03 X168.334945 Y76.742131 Z-0.125000 I96.328414 J69.824729
G03 X169.138200 Y75.662104 Z-0.125000 I546.889381 J405.902831
G03 X169.953722 Y74.587217 Z-0.125000 I63.046092 J46.986506
G03 X170.790202 Y73.520662 Z-0.125000 I71.909311 J55.535919
G03 X171.606437 Y72.506142 Z-0.125000 I102.509389 J81.638580
G03 X172.433414 Y71.503259 Z-0.125000 I71.226741 J57.891158
G03 X173.196580 Y70.597337 Z-0.125000 I132.288668 J110.668185
G03 X173.967990 Y69.700599 Z-0.125000 I65.400392 J55.479908
G02 X174.637304 Y68.933311 Z-0.125000 I-273067.882501 J-238201.401817
G03 X175.309185 Y68.170941 Z-0.125000 I75.255137 J65.645592
G02 X175.847562 Y67.558299 Z-0.125000 I-46.767884 J-41.641517
G02 X176.379806 Y66.943795 Z-0.125000 I-461.028529 J-399.851587
G02 X176.758026 Y66.488119 Z-0.125000 I-11.009289 J-9.522725
G02 X177.115721 Y66.021573 Z-0.125000 I-12.537861 J-9.982991
G02 X177.316508 Y65.713415 Z-0.125000 I-2.540712 J-1.874952
G02 X177.464599 Y65.390799 Z-0.125000 I-1.736111 J-0.992226
G02 X177.491236 Y65.205193 Z-0.125000 I-0.447048 J-0.158873
G02 X177.429755 Y65.045859 Z-0.125000 I-0.277930 J0.015713
G02 X177.271812 Y64.921582 Z-0.125000 I-0.351611 J0.284357
G02 X177.056703 Y64.855398 Z-0.125000 I-0.335592 J0.708076
G02 X176.667949 Y64.815002 Z-0.125000 I-0.591384 J3.800429
G02 X176.272628 Y64.811505 Z-0.125000 I-0.237534 J4.505006
G02 X175.706185 Y64.838973 Z-0.125000 I0.736194 J21.035478
G02 X175.140987 Y64.883182 Z-0.125000 I1.081543 J17.462287
G02 X174.425211 Y64.953869 Z-0.125000 I8.109798 J85.779815
G02 X173.715941 Y65.034420 Z-0.125000 I3.489859 J33.891609
G03 X172.870704 Y65.130949 Z-0.125000 I-5.321704 J-42.849936
G02 X172.034237 Y65.222883 Z-0.125000 I7.776490 J74.606284
G03 X171.046399 Y65.306058 Z-0.125000 I-1.831733 J-15.847103
G03 X170.040664 Y65.338217 Z-0.125000 I-1.270071 J-23.977129
G03 X168.872453 Y65.342742 Z-0.125000 I-0.901179 J-81.852874
G03 X167.704092 Y65.323233 Z-0.125000 I0.150285 J-43.996344
G02 X166.398972 Y65.290905 Z-0.125000 I-3.754682 J125.218611
G03 X165.093742 Y65.260130 Z-0.125000 I3.161597 J-161.785188
G02 X163.681514 Y65.241230 Z-0.125000 I-1.370416 J49.626020
G02 X162.268528 Y65.249178 Z-0.125000 I0.125398 J147.897232
G02 X160.781957 Y65.295644 Z-0.125000 I0.371105 J35.675428
G02 X159.297033 Y65.391956 Z-0.125000 I3.057665 J58.638031
G02 X157.775987 Y65.549186 Z-0.125000 I2.314114 J29.822692
G02 X156.263069 Y65.774789 Z-0.125000 I5.038578 J38.974851
G02 X154.753709 Y66.074970 Z-0.125000 I4.450316 J26.321680
G02 X153.262627 Y66.456143 Z-0.125000 I6.837722 J29.855010
G02 X151.813699 Y66.914730 Z-0.125000 I6.640327 J23.498684
G02 X150.395573 Y67.460587 Z-0.125000 I8.452842 J24.075418
G02 X149.053694 Y68.076223 Z-0.125000 I8.675400 J20.679671
G02 X147.756039 Y68.779613 Z-0.125000 I9.797031 J19.622829
G02 X146.561880 Y69.536780 Z-0.125000 I10.304148 J17.571360
G02 X145.425302 Y70.377543 Z-0.125000 I10.758371 J15.732224
G02 X144.411874 Y71.250500 Z-0.125000 I11.260823 J14.097589
G02 X143.468652 Y72.199657 Z-0.125000 I11.272316 J12.145065
G02 X142.662297 Y73.156122 Z-0.125000 I11.135188 J10.205734
G02 X141.942337 Y74.178549 Z-0.125000 I10.866064 J8.416229
G02 X141.365912 Y75.183092 Z-0.125000 I10.375788 J6.621470
G02 X140.896146 Y76.236839 Z-0.125000 I9.419253 J4.830737
G02 X140.559738 Y77.255817 Z-0.125000 I10.908751 J4.166465
G02 X140.328719 Y78.302694 Z-0.125000 I9.269090 J2.594381
G02 X140.211335 Y79.308084 Z-0.125000 I11.043804 J1.798961
G02 X140.194363 Y80.320016 Z-0.125000 I9.315665 J0.662353
G02 X140.273047 Y81.287913 Z-0.125000 I11.113034 J-0.416269
G02 X140.443052 Y82.244169 Z-0.125000 I9.426582 J-1.182641
G02 X140.693900 Y83.154525 Z-0.125000 I11.009904 J-2.544034
G02 X141.025018 Y84.038990 Z-0.125000 I9.460486 J-3.037517
G02 X141.424721 Y84.874894 Z-0.125000 I10.573160 J-4.542236
G02 X141.893631 Y85.673977 Z-0.125000 I9.233484 J-4.881183
G02 X142.420730 Y86.421056 Z-0.125000 I9.738178 J-6.311252
G02 X143.006784 Y87.122606 Z-0.125000 I8.620216 J-6.605514
G02 X143.642048 Y87.768506 Z-0.125000 I8.581951 J-7.805278
G02 X144.326649 Y88.361610 Z-0.125000 I7.619758 J-8.103594
G02 X145.052448 Y88.895659 Z-0.125000 I7.237042 J-9.075262
G02 X145.818043 Y89.370987 Z-0.125000 I6.333432 J-9.346822
G02 X146.616908 Y89.784269 Z-0.125000 I5.795001 J-10.222888
G02 X147.445742 Y90.134602 Z-0.125000 I4.876941 J-10.382469
G02 X148.298593 Y90.420467 Z-0.125000 I4.261248 J-11.297908
G02 X149.170225 Y90.641292 Z-0.125000 I3.337387 J-11.342560
G02 X150.055900 Y90.796148 Z-0.125000 I2.534781 J-11.887095
G02 X150.945591 Y90.885357 Z-0.125000 I1.677709 J-12.250810
G02 X151.849823 Y90.906791 Z-0.125000 I0.719410 J-11.265637
G02 X152.757578 Y90.857379 Z-0.125000 I-0.195859 J-11.961085
G02 X153.681759 Y90.736778 Z-0.125000 I-1.150520 J-12.417934
G02 X154.594461 Y90.548559 Z-0.125000 I-2.139549 J-12.681979
G02 X155.515681 Y90.288323 Z-0.125000 I-3.181850 J-13.024247
G02 X156.415026 Y89.964568 Z-0.125000 I-4.237002 J-13.180775
G02 X157.317293 Y89.568123 Z-0.125000 I-5.390346 J-13.492816
G02 X158.189876 Y89.113040 Z-0.125000 I-6.496417 J-13.520407
G02 X159.064512 Y88.583157 Z-0.125000 I-8.062721 J-14.295300
G02 X159.903984 Y88.000998 Z-0.125000 I-9.125774 J-14.055685
G02 X160.748577 Y87.340324 Z-0.125000 I-11.811857 J-15.970238
G02 X161.555842 Y86.635171 Z-0.125000 I-12.568624 J-15.203327
G02 X162.373845 Y85.847327 Z-0.125000 I-17.941781 J-19.447161
G02 X163.156388 Y85.023726 Z-0.125000 I-17.610131 J-17.515821
G02 X163.956440 Y84.115197 Z-0.125000 I-29.931194 J-27.163971
G02 X164.727053 Y83.179927 Z-0.125000 I-25.821900 J-22.060999
G02 X165.521898 Y82.162617 Z-0.125000 I-62.513148 J-49.661941
G02 X166.297035 Y81.127520 Z-0.125000 I-41.363172 J-31.782781
G02 X167.101747 Y80.021778 Z-0.125000 I-438.758249 J-320.155221
G02 X167.899328 Y78.907239 Z-0.125000 I-82.485503 J-59.870518
G03 X168.728485 Y77.744814 Z-0.125000 I112.392564 J79.292634
G02 X169.565419 Y76.582795 Z-0.125000 I-964.222301 J-695.355181
G03 X170.428286 Y75.409014 Z-0.125000 I57.253977 J41.184331
G03 X171.317961 Y74.243657 Z-0.125000 I75.075874 J56.393342
G03 X172.203357 Y73.118741 Z-0.125000 I81.260598 J63.047499
G03 X173.105606 Y72.008721 Z-0.125000 I63.954731 J51.062136
G03 X173.953068 Y70.994259 Z-0.125000 I108.458958 J89.743300
G03 X174.811886 Y69.992876 Z-0.125000 I61.001876 J51.448219
G03 X175.568911 Y69.128221 Z-0.125000 I221.930144 J193.541001
G03 X176.332281 Y68.272229 Z-0.125000 I59.929410 J52.676423
G02 X176.955252 Y67.578701 Z-0.125000 I-96.107981 J-86.956848
G03 X177.575925 Y66.886933 Z-0.125000 I114.833138 J102.407189
G02 X178.028940 Y66.369687 Z-0.125000 I-17.004815 J-15.350152
G02 X178.466104 Y65.844469 Z-0.125000 I-25.715196 J-21.848544
G02 X178.725966 Y65.494634 Z-0.125000 I-3.741889 J-3.050949
G02 X178.940948 Y65.128475 Z-0.125000 I-2.802135 J-1.891403
G02 X179.005606 Y64.922743 Z-0.125000 I-0.590999 J-0.298768
G02 X178.974794 Y64.737388 Z-0.125000 I-0.309033 J-0.043868
G02 X178.851973 Y64.606675 Z-0.125000 I-0.285465 J0.145171
G02 X178.656848 Y64.534880 Z-0.125000 I-0.294716 J0.499928
G02 X178.273013 Y64.490854 Z-0.125000 I-0.569325 J3.268349
G02 X177.879993 Y64.488067 Z-0.125000 I-0.225044 J4.022381
G02 X177.297053 Y64.519606 Z-0.125000 I0.985962 J23.626483
G02 X176.715488 Y64.567935 Z-0.125000 I1.174009 J17.650609
G02 X175.967437 Y64.644235 Z-0.125000 I16.658288 J167.024453
G02 X175.222580 Y64.726946 Z-0.125000 I5.797172 J55.601990
G03 X174.336192 Y64.828311 Z-0.125000 I-15.219433 J-129.160538
G02 X173.465259 Y64.935183 Z-0.125000 I4.144519 J37.376986
G03 X172.445231 Y65.034794 Z-0.125000 I-1.876917 J-13.947476
G03 X171.408903 Y65.076493 Z-0.125000 I-1.524774 J-24.995735
G03 X170.202276 Y65.080477 Z-0.125000 I-0.726211 J-37.225142
G03 X168.991860 Y65.041282 Z-0.125000 I0.400380 J-31.074477
G02 X167.627727 Y64.972638 Z-0.125000 I-22.444385 J432.437147
G03 X166.264098 Y64.894717 Z-0.125000 I3.967626 J-81.404450
G02 X164.775965 Y64.815994 Z-0.125000 I-3.865499 J58.966893
G02 X163.285902 Y64.758944 Z-0.125000 I-15.224933 J378.160327
G02 X161.704849 Y64.734175 Z-0.125000 I-1.390638 J38.294018
G02 X160.122656 Y64.759726 Z-0.125000 I0.352241 J70.812260
G02 X158.488896 Y64.847234 Z-0.125000 I0.853350 J31.226599
G02 X156.859938 Y65.008549 Z-0.125000 I3.429316 J42.934276
G02 X155.223166 Y65.251879 Z-0.125000 I3.253349 J27.510449
G02 X153.602100 Y65.585332 Z-0.125000 I5.748238 J32.051865
G02 X152.017254 Y66.007877 Z-0.125000 I5.752379 J24.758962
G02 X150.462327 Y66.528955 Z-0.125000 I7.755016 J25.721945
G02 X148.983201 Y67.133183 Z-0.125000 I8.159143 J22.085794
G02 X147.549433 Y67.837007 Z-0.125000 I9.455516 J21.074252
G02 X146.223090 Y68.607583 Z-0.125000 I10.215878 J19.110696
G02 X144.957176 Y69.472961 Z-0.125000 I10.772819 J17.117572
G02 X143.821121 Y70.381903 Z-0.125000 I11.629565 J15.699819
G02 X142.759517 Y71.376823 Z-0.125000 I11.611226 J13.453291
G02 X141.842259 Y72.388569 Z-0.125000 I12.052930 J11.848961
G02 X141.012476 Y73.475383 Z-0.125000 I11.938477 J9.975217
G02 X140.338478 Y74.549990 Z-0.125000 I10.861517 J7.561057
G02 X139.780206 Y75.682898 Z-0.125000 I10.125726 J5.693738
G02 X139.372152 Y76.781401 Z-0.125000 I11.278157 J4.814467
G02 X139.082665 Y77.914618 Z-0.125000 I9.654067 J3.069775
G02 X138.922001 Y79.004628 Z-0.125000 I11.758057 J2.289942
G02 X138.873009 Y80.105062 Z-0.125000 I9.818245 J0.988428
G02 X138.931341 Y81.159953 Z-0.125000 I12.038876 J-0.136657
G02 X139.090497 Y82.204609 Z-0.125000 I10.105239 J-1.005109
G02 X139.339505 Y83.202232 Z-0.125000 I12.177485 J-2.509629
G02 X139.676258 Y84.173968 Z-0.125000 I10.361362 J-3.046483
G02 X140.088619 Y85.095932 Z-0.125000 I11.915051 J-4.775976
G02 X140.576079 Y85.980446 Z-0.125000 I10.341836 J-5.122857
G02 X141.127245 Y86.811240 Z-0.125000 I11.118031 J-6.777713
G02 X141.742413 Y87.595498 Z-0.125000 I9.842719 J-7.087180
G02 X142.411309 Y88.321717 Z-0.125000 I9.865818 J-8.415904
G02 X143.134370 Y88.993590 Z-0.125000 I8.824564 J-8.771883
G02 X143.902776 Y89.603413 Z-0.125000 I8.361161 J-9.746435
G02 X144.715894 Y90.152038 Z-0.125000 I7.423660 J-10.125738
G02 X145.566752 Y90.635139 Z-0.125000 I6.763557 J-10.921444
G02 X146.452477 Y91.051649 Z-0.125000 I5.816243 J-11.218445
G02 X147.367517 Y91.399712 Z-0.125000 I5.115202 J-12.070771
G02 X148.306908 Y91.677966 Z-0.125000 I4.113669 J-12.162993
G02 X149.264421 Y91.885735 Z-0.125000 I3.352319 J-13.139059
G02 X150.230326 Y92.023375 Z-0.125000 I2.394296 J-13.344242
G02 X151.209543 Y92.089075 Z-0.125000 I1.341073 J-12.657729
G02 X152.192994 Y92.080485 Z-0.125000 I0.376188 J-13.231178
G02 X153.189616 Y91.997365 Z-0.125000 I-0.614938 J-13.389705
G02 X154.179014 Y91.840833 Z-0.125000 I-1.655576 J-13.669571
G02 X155.173636 Y91.608968 Z-0.125000 I-2.745348 J-14.025844
G02 X156.147808 Y91.307925 Z-0.125000 I-3.817902 J-14.081410
G02 X157.118803 Y90.932043 Z-0.125000 I-4.931693 J-14.181866
G02 X158.060179 Y90.491371 Z-0.125000 I-6.047222 J-14.144097
G02 X158.996117 Y89.974681 Z-0.125000 I-7.402347 J-14.514715
G02 X159.895252 Y89.399161 Z-0.125000 I-8.501325 J-14.271731
G02 X160.792207 Y88.743883 Z-0.125000 I-10.680284 J-15.560880
G02 X161.648394 Y88.037579 Z-0.125000 I-11.584632 J-14.915053
G02 X162.509496 Y87.245820 Z-0.125000 I-15.848249 J-18.100398
G02 X163.330229 Y86.412269 Z-0.125000 I-16.015430 J-16.589989
G02 X164.164955 Y85.487930 Z-0.125000 I-25.568182 J-23.928462
G02 X164.964557 Y84.531655 Z-0.125000 I-23.140246 J-20.161456
G02 X165.787711 Y83.483256 Z-0.125000 I-49.631948 J-39.816065
G02 X166.585595 Y82.412791 Z-0.125000 I-36.207607 J-27.820360
G02 X167.415736 Y81.257116 Z-0.125000 I-192.661143 J-139.267588
G02 X168.234263 Y80.089243 Z-0.125000 I-67.387263 J-48.100505
G03 X169.091030 Y78.855401 Z-0.125000 I145.458104 J100.090206
G02 X169.952531 Y77.619769 Z-0.125000 I-262.706665 J-184.081147
G03 X170.852325 Y76.352681 Z-0.125000 I58.125989 J40.323824
G03 X171.780593 Y75.093211 Z-0.125000 I94.863562 J68.945555
G03 X172.723662 Y73.857166 Z-0.125000 I62.692491 J46.854891
G03 X173.694437 Y72.638316 Z-0.125000 I56.399608 J43.924458
G03 X174.625077 Y71.508418 Z-0.125000 I102.929015 J83.829227
G03 X175.569301 Y70.396089 Z-0.125000 I60.097955 J50.058523
G03 X176.415164 Y69.425305 Z-0.125000 I136.176666 J117.799434
G03 X177.271217 Y68.467025 Z-0.125000 I54.882439 J48.166184
G02 X177.982485 Y67.682865 Z-0.125000 I-321.386778 J-292.226716
G03 X178.695259 Y66.904279 Z-0.125000 I67.207724 J60.811269
G02 X179.228689 Y66.315836 Z-0.125000 I-27.177962 J-25.173141
G02 X179.750656 Y65.722838 Z-0.125000 I-75.553590 J-67.029788
G02 X180.076508 Y65.322536 Z-0.125000 I-5.613188 J-4.901998
G02 X180.365212 Y64.906280 Z-0.125000 I-4.784402 J-3.626580
G02 X180.474775 Y64.671910 Z-0.125000 I-0.863658 J-0.546533
G02 X180.485644 Y64.449358 Z-0.125000 I-0.410203 J-0.131576
G02 X180.400599 Y64.312149 Z-0.125000 I-0.235189 J0.050815
G02 X180.229853 Y64.231485 Z-0.125000 I-0.255690 J0.320188
G02 X179.858810 Y64.180029 Z-0.125000 I-0.547174 J2.582118
G02 X179.473648 Y64.175959 Z-0.125000 I-0.228760 J3.421590
G02 X178.878588 Y64.210348 Z-0.125000 I1.123162 J24.600709
G02 X178.284962 Y64.262299 Z-0.125000 I1.190390 J17.019629
G02 X177.507598 Y64.344470 Z-0.125000 I73.421897 J698.311711
G02 X176.732156 Y64.430711 Z-0.125000 I8.431769 J79.344592
G03 X175.804504 Y64.537018 Z-0.125000 I-34.789971 J-299.482177
G02 X174.890674 Y64.650257 Z-0.125000 I4.816704 J42.614415
G03 X173.831471 Y64.759980 Z-0.125000 I-2.310119 J-17.133268
G03 X172.768012 Y64.824142 Z-0.125000 I-3.169325 J-43.684500
G03 X171.535671 Y64.846718 Z-0.125000 I-0.995081 J-20.672483
G03 X170.291916 Y64.799327 Z-0.125000 I0.268352 J-23.387397
G03 X168.878403 Y64.703184 Z-0.125000 I14.237923 J-219.768283
G03 X167.466969 Y64.583281 Z-0.125000 I3.696174 J-51.876662
G02 X165.913526 Y64.446142 Z-0.125000 I-7.424856 J75.238034
G03 X164.357698 Y64.322565 Z-0.125000 I39.795319 J-510.878548
G02 X162.692138 Y64.221297 Z-0.125000 I-3.356868 J41.462872
G02 X161.022638 Y64.168728 Z-0.125000 I-3.693475 J90.762551
G02 X159.283653 Y64.176357 Z-0.125000 I-0.726498 J32.597762
G02 X157.545442 Y64.262094 Z-0.125000 I1.482754 J47.723648
G02 X155.785130 Y64.435887 Z-0.125000 I1.931268 J28.563360
G02 X154.036907 Y64.708743 Z-0.125000 I4.470707 J34.381335
G02 X152.316420 Y65.082326 Z-0.125000 I4.718183 J25.877449
G02 X150.623990 Y65.566242 Z-0.125000 I6.904490 J27.349000
G02 X149.005302 Y66.147511 Z-0.125000 I7.478937 J23.371424
G02 X147.432445 Y66.841160 Z-0.125000 I8.967343 J22.463593
G02 X145.970304 Y67.615648 Z-0.125000 I9.955133 J20.561535
G02 X144.571170 Y68.497150 Z-0.125000 I10.633665 J18.429030
G02 X143.308499 Y69.434603 Z-0.125000 I11.841968 J17.269236
G02 X142.124328 Y70.468671 Z-0.125000 I11.819376 J14.730119
G02 X141.092090 Y71.529915 Z-0.125000 I12.813848 J13.496250
G02 X140.150313 Y72.675287 Z-0.125000 I12.657145 J11.367145
G02 X139.373359 Y73.816306 Z-0.125000 I11.805951 J8.874067
G02 X138.714069 Y75.025176 Z-0.125000 I11.334496 J6.965792
G02 X138.221023 Y76.201615 Z-0.125000 I11.356798 J5.451174
G02 X137.862319 Y77.420545 Z-0.125000 I9.963295 J3.594222
G02 X137.649719 Y78.594308 Z-0.125000 I12.371825 J2.846997
G02 X137.561156 Y79.783391 Z-0.125000 I10.222827 J1.359239
G02 X137.592961 Y80.925263 Z-0.125000 I12.881918 J0.212574
G02 X137.736018 Y82.058833 Z-0.125000 I10.685980 J-0.772757
G02 X137.978765 Y83.144418 Z-0.125000 I13.317915 J-2.408089
G02 X138.317265 Y84.204374 Z-0.125000 I11.197443 J-2.991907
G02 X138.738836 Y85.213775 Z-0.125000 I13.317403 J-4.969203
G02 X139.241500 Y86.185341 Z-0.125000 I11.453592 J-5.309991
G02 X139.813516 Y87.101961 Z-0.125000 I12.624799 J-7.241706
G02 X140.454388 Y87.971437 Z-0.125000 I11.145840 J-7.544432
G02 X141.153373 Y88.780917 Z-0.125000 I11.294993 J-9.046675
G02 X141.911101 Y89.535059 Z-0.125000 I10.160100 J-9.450683
G02 X142.718021 Y90.224493 Z-0.125000 I9.603660 J-10.423292
G02 X143.574446 Y90.850890 Z-0.125000 I8.645154 J-10.921179
G02 X144.472810 Y91.408562 Z-0.125000 I7.812101 J-11.582227
G02 X145.411082 Y91.896510 Z-0.125000 I6.863070 J-12.050880
G02 X146.384049 Y92.312320 Z-0.125000 I6.020623 J-12.741626
G02 X147.386441 Y92.653788 Z-0.125000 I4.992090 J-13.012458
G02 X148.413625 Y92.920411 Z-0.125000 I4.178235 J-13.984979
G02 X149.456346 Y93.111175 Z-0.125000 I3.122262 J-14.121203
G02 X150.513970 Y93.225459 Z-0.125000 I2.087195 J-14.364649
G02 X151.575393 Y93.262544 Z-0.125000 I1.044699 J-14.692440
G02 X152.647578 Y93.221464 Z-0.125000 I-0.016396 J-14.440346
G02 X153.717452 Y93.101358 Z-0.125000 I-1.116484 J-14.770530
G02 X154.790150 Y92.902223 Z-0.125000 I-2.274480 J-15.240918
G02 X155.844463 Y92.628491 Z-0.125000 I-3.374892 J-15.166072
G02 X156.889528 Y92.277511 Z-0.125000 I-4.500115 J-15.130759
G02 X157.905775 Y91.855853 Z-0.125000 I-5.624285 J-14.990677
G02 X158.908064 Y91.357239 Z-0.125000 I-6.836968 J-14.999991
G02 X159.872721 Y90.793301 Z-0.125000 I-7.949063 J-14.704501
G02 X160.826090 Y90.149454 Z-0.125000 I-9.728551 J-15.433196
G02 X161.735919 Y89.447810 Z-0.125000 I-10.712216 J-14.831358
G02 X162.642677 Y88.659841 Z-0.125000 I-14.084687 J-17.123715
G02 X163.504449 Y87.823598 Z-0.125000 I-14.577538 J-15.884718
G02 X164.374489 Y86.893051 Z-0.125000 I-21.960406 J-21.404493
G02 X165.203542 Y85.924847 Z-0.125000 I-20.713302 J-18.575415
G02 X166.053329 Y84.856641 Z-0.125000 I-40.000187 J-32.693350
G02 X166.871619 Y83.761565 Z-0.125000 I-31.682069 J-24.527554
G02 X167.722792 Y82.568064 Z-0.125000 I-115.147287 J-83.020201
G02 X168.556773 Y81.358394 Z-0.125000 I-55.808267 J-39.368134
G03 X169.433782 Y80.064479 Z-0.125000 I229.192687 J154.401373
G02 X170.311627 Y78.765578 Z-0.125000 I-155.157908 J-105.807621
G03 X171.237663 Y77.413781 Z-0.125000 I65.050673 J43.569261
G03 X172.188654 Y76.068220 Z-0.125000 I161.781582 J113.332079
G03 X173.175149 Y74.723686 Z-0.125000 I50.021102 J35.666733
G03 X174.204226 Y73.396776 Z-0.125000 I51.203578 J38.648134
G03 X175.213970 Y72.145724 Z-0.125000 I99.371406 J79.171218
G03 X176.239849 Y70.917327 Z-0.125000 I59.516993 J48.662203
G03 X177.174848 Y69.831803 Z-0.125000 I112.902638 J96.301471
G03 X178.123605 Y68.762786 Z-0.125000 I53.890339 J46.872433
G03 X178.926046 Y67.877881 Z-0.125000 I642.054329 J581.414736
G03 X179.733715 Y67.002418 Z-0.125000 I55.898916 J50.759954
G02 X180.352659 Y66.332272 Z-0.125000 I-45.400376 J-42.552447
G03 X180.964195 Y65.661193 Z-0.125000 I522.056325 J475.121741
G02 X181.362805 Y65.200423 Z-0.125000 I-8.505846 J-7.761167
G02 X181.731125 Y64.725612 Z-0.125000 I-8.613457 J-7.061892
G02 X181.893482 Y64.452910 Z-0.125000 I-1.338067 J-0.981316
G02 X181.961430 Y64.181166 Z-0.125000 I-0.649624 J-0.306802
G02 X181.913246 Y64.034890 Z-0.125000 I-0.214336 J-0.010472
G02 X181.769832 Y63.940728 Z-0.125000 I-0.221429 J0.180954
G02 X181.422262 Y63.876312 Z-0.125000 I-0.518874 J1.829789
G02 X181.051195 Y63.867819 Z-0.125000 I-0.248535 J2.748217
G02 X180.449245 Y63.902479 Z-0.125000 I1.022140 J22.995817
G02 X179.848618 Y63.956629 Z-0.125000 I1.094802 J15.501690
G03 X179.045455 Y64.044158 Z-0.125000 I-57.677274 J-525.514137
G02 X178.244323 Y64.134778 Z-0.125000 I8.955183 J82.755428
G03 X177.276231 Y64.245837 Z-0.125000 I-17.519505 J-148.441948
G02 X176.315629 Y64.357606 Z-0.125000 I10.980282 J98.553998
G03 X175.211848 Y64.471282 Z-0.125000 I-3.694906 J-30.461291
G02 X174.119253 Y64.565280 Z-0.125000 I36.406022 J429.570035
G03 X172.865524 Y64.619631 Z-0.125000 I-1.247399 J-14.286601
G03 X171.594058 Y64.578188 Z-0.125000 I0.006172 J-19.713883
G03 X170.141581 Y64.469039 Z-0.125000 I4.649723 J-71.594144
G03 X168.692118 Y64.316273 Z-0.125000 I3.122755 J-36.581905
G02 X167.083914 Y64.126100 Z-0.125000 I-14.100062 J112.342224
G03 X165.473959 Y63.937908 Z-0.125000 I15.390123 J-138.641306
G02 X163.734772 Y63.757840 Z-0.125000 I-5.606212 J45.658471
G02 X161.989207 Y63.622221 Z-0.125000 I-11.107582 J131.665583
G02 X160.153927 Y63.541474 Z-0.125000 I-2.415714 J34.009118
G02 X158.314866 Y63.541520 Z-0.125000 I-0.918185 J53.912932
G02 X156.436213 Y63.633560 Z-0.125000 I0.503987 J29.506012
G02 X154.564948 Y63.833063 Z-0.125000 I2.992613 J36.945133
G02 X152.709882 Y64.144462 Z-0.125000 I3.556127 J26.865831
G02 X150.879843 Y64.578369 Z-0.125000 I5.909635 J29.000445
G02 X149.119438 Y65.124554 Z-0.125000 I6.647939 J24.537029
G02 X147.404481 Y65.796867 Z-0.125000 I8.344833 J23.809686
G02 X145.802778 Y66.565264 Z-0.125000 I9.528677 J21.915822
G02 X144.266297 Y67.454050 Z-0.125000 I10.352160 J19.668683
G02 X142.873035 Y68.412196 Z-0.125000 I11.886349 J18.776277
G02 X141.562190 Y69.478652 Z-0.125000 I11.889646 J15.953122
G02 X140.411556 Y70.583271 Z-0.125000 I13.378292 J15.087180
G02 X139.356476 Y71.781275 Z-0.125000 I13.019502 J12.529855
G02 X138.472710 Y72.984465 Z-0.125000 I13.116710 J10.560641
G02 X137.703209 Y74.264978 Z-0.125000 I12.922772 J8.637177
G02 X137.113926 Y75.517128 Z-0.125000 I11.470706 J6.163048
G02 X136.674072 Y76.820610 Z-0.125000 I10.406358 J4.237529
G02 X136.398964 Y78.077101 Z-0.125000 I12.767803 J3.453864
G02 X136.262124 Y79.354839 Z-0.125000 I10.528712 J1.773772
G02 X136.260418 Y80.583334 Z-0.125000 I13.613989 J0.633159
G02 X136.381584 Y81.806116 Z-0.125000 I11.151050 J-0.487571
G02 X136.613340 Y82.980009 Z-0.125000 I14.396361 J-2.232377
G02 X136.949618 Y84.128797 Z-0.125000 I11.936197 J-2.870397
G02 X137.377032 Y85.226641 Z-0.125000 I14.756179 J-5.112778
G02 X137.891764 Y86.286451 Z-0.125000 I12.534628 J-5.432957
G02 X138.481717 Y87.290616 Z-0.125000 I14.267551 J-7.706878
G02 X139.145198 Y88.247346 Z-0.125000 I12.515657 J-7.971054
G02 X139.871055 Y89.142607 Z-0.125000 I12.899007 J-9.716321
G02 X140.659874 Y89.982098 Z-0.125000 I11.635848 J-10.143159
G02 X141.501326 Y90.754587 Z-0.125000 I11.000802 J-11.138345
G02 X142.396802 Y91.462930 Z-0.125000 I10.026186 J-11.754766
G02 X143.337870 Y92.099624 Z-0.125000 I8.964947 J-12.236849
G02 X144.323877 Y92.664163 Z-0.125000 I8.041575 J-12.901850
G02 X145.349595 Y93.153162 Z-0.125000 I6.986709 J-13.334962
G02 X146.409967 Y93.563711 Z-0.125000 I5.970364 J-13.845698
G02 X147.502370 Y93.895391 Z-0.125000 I5.037612 J-14.626793
G02 X148.617143 Y94.145459 Z-0.125000 I3.916375 J-14.848943
G02 X149.752312 Y94.314356 Z-0.125000 I2.928089 J-15.780709
G02 X150.894107 Y94.401588 Z-0.125000 I1.792457 J-15.945485
G02 X152.047459 Y94.406312 Z-0.125000 I0.641409 J-15.804712
G02 X153.201584 Y94.327246 Z-0.125000 I-0.519493 J-16.045967
G02 X154.356630 Y94.165247 Z-0.125000 I-1.741955 J-16.618850
G02 X155.496431 Y93.923261 Z-0.125000 I-2.891018 J-16.422542
G02 X156.621577 Y93.601088 Z-0.125000 I-4.073618 J-16.352360
G02 X157.719348 Y93.202638 Z-0.125000 I-5.211673 J-16.070168
G02 X158.794087 Y92.726138 Z-0.125000 I-6.350710 J-15.774217
G02 X159.831176 Y92.178004 Z-0.125000 I-7.465054 J-15.379311
G02 X160.846275 Y91.550440 Z-0.125000 I-8.943347 J-15.600816
G02 X161.815841 Y90.858213 Z-0.125000 I-9.959912 J-14.975456
G02 X162.772153 Y90.080403 Z-0.125000 I-12.626687 J-16.501232
G02 X163.679369 Y89.247480 Z-0.125000 I-13.312388 J-15.410309
G02 X164.586764 Y88.319159 Z-0.125000 I-19.026775 J-19.505511
G02 X165.447359 Y87.346972 Z-0.125000 I-18.561132 J-17.297620
G02 X166.323548 Y86.269598 Z-0.125000 I-32.767365 J-27.543452
G02 X167.161565 Y85.160067 Z-0.125000 I-27.769327 J-21.845132
G02 X168.030796 Y83.941133 Z-0.125000 I-78.394535 J-56.823091
G02 X168.876318 Y82.701568 Z-0.125000 I-46.814037 J-32.840567
G03 X169.767394 Y81.360404 Z-0.125000 I717.019807 J475.424969
G02 X170.654052 Y80.010413 Z-0.125000 I-107.726751 J-71.719813
G03 X171.596719 Y78.584936 Z-0.125000 I76.413905 J49.508003
G03 X172.559185 Y77.163446 Z-0.125000 I469.058038 J316.554473
G03 X173.576188 Y75.716684 Z-0.125000 I45.692283 J31.038635
G03 X174.646103 Y74.286102 Z-0.125000 I53.777351 J39.104030
G03 X175.722224 Y72.911369 Z-0.125000 I80.703892 J62.065264
G03 X176.823359 Y71.563916 Z-0.125000 I54.837774 J43.689635
G03 X177.847812 Y70.355079 Z-0.125000 I110.920248 J92.963108
G03 X178.888121 Y69.167500 Z-0.125000 I55.029070 J47.155530
G03 X179.783729 Y68.171719 Z-0.125000 I226.656979 J202.955265
G03 X180.688156 Y67.189210 Z-0.125000 I52.948038 J47.832626
G02 X181.397074 Y66.426257 Z-0.125000 I-80.873057 J-75.856175
G03 X182.102297 Y65.665991 Z-0.125000 I98.949309 J91.078224
G02 X182.580099 Y65.133700 Z-0.125000 I-12.930662 J-12.087572
G02 X183.033379 Y64.590095 Z-0.125000 I-16.486933 J-14.208277
G02 X183.256727 Y64.268358 Z-0.125000 I-2.120033 J-1.710105
G02 X183.396872 Y63.937199 Z-0.125000 I-1.153254 J-0.683283
G02 X183.385571 Y63.774191 Z-0.125000 I-0.239762 J-0.065274
G02 X183.270136 Y63.659671 Z-0.125000 I-0.198964 J0.085115
G02 X182.960397 Y63.575640 Z-0.125000 I-0.472889 J1.130211
G02 X182.610288 Y63.558393 Z-0.125000 I-0.277045 J2.061753
G02 X182.007821 Y63.589054 Z-0.125000 I0.673951 J19.176793
G02 X181.406186 Y63.642880 Z-0.125000 I0.886671 J13.300063
G03 X180.581534 Y63.734234 Z-0.125000 I-29.711920 J-264.442366
G02 X179.759039 Y63.828530 Z-0.125000 I8.362307 J76.573956
G03 X178.753183 Y63.944474 Z-0.125000 I-12.682394 J-105.603268
G02 X177.750631 Y64.055753 Z-0.125000 I102.384557 J926.992497
G03 X176.601589 Y64.173812 Z-0.125000 I-7.361372 J-65.995827
G02 X175.470878 Y64.291086 Z-0.125000 I5.505147 J58.587986
G03 X174.187878 Y64.373448 Z-0.125000 I-1.482968 J-13.066920
G03 X172.890325 Y64.353112 Z-0.125000 I-0.319488 J-21.021160
G03 X171.410333 Y64.252769 Z-0.125000 I1.631011 J-35.020784
G03 X169.931154 Y64.080375 Z-0.125000 I2.432179 J-27.300757
G02 X168.278080 Y63.846957 Z-0.125000 I-40.830441 J283.191437
G03 X166.625335 Y63.599936 Z-0.125000 I10.396560 J-75.212900
G02 X164.823915 Y63.342344 Z-0.125000 I-8.329118 J51.820389
G02 X163.014472 Y63.121733 Z-0.125000 I-33.601258 J268.066144
G02 X161.093191 Y62.946361 Z-0.125000 I-4.216819 J35.585157
G02 X159.163319 Y62.852302 Z-0.125000 I-4.018135 J62.597750
G02 X157.173042 Y62.851228 Z-0.125000 I-1.011538 J30.367422
G02 X155.184377 Y62.965040 Z-0.125000 I1.285948 J39.900640
G02 X153.196773 Y63.200850 Z-0.125000 I2.282700 J27.734994
G02 X151.229836 Y63.571478 Z-0.125000 I4.771875 J30.729117
G02 X149.325738 Y64.069820 Z-0.125000 I5.681219 J25.594011
G02 X147.465637 Y64.708957 Z-0.125000 I7.600954 J25.147633
G02 X145.720207 Y65.460680 Z-0.125000 I8.944950 J23.171547
G02 X144.041694 Y66.347439 Z-0.125000 I9.944407 J20.855372
G02 X142.513435 Y67.318111 Z-0.125000 I11.757481 J20.199792
G02 X141.071575 Y68.410005 Z-0.125000 I11.809860 J17.093007
G02 X139.799033 Y69.551726 Z-0.125000 I13.779927 J16.638908
G02 X138.627885 Y70.796786 Z-0.125000 I13.196178 J13.586143
G02 X137.634218 Y72.057290 Z-0.125000 I14.462510 J12.422844
G02 X136.751693 Y73.404129 Z-0.125000 I14.380196 J10.385273
G02 X136.060031 Y74.729020 Z-0.125000 I12.018951 J7.117506
G02 X135.525988 Y76.115071 Z-0.125000 I11.300341 J5.149910
