%
(Header)
(Generated by gcodetools from Inkscape.)
(Using default header. To add your own header create file "header" in the output dir.)
M3
(Header end.)
G21 (All units in mm)

(Start cutting path id: polyline2062)
(Change tool to Default tool)

G00 Z3.000000
G00 X63.691708 Y11.298704

G00 Z4.875000 (Fast pre-penetrate)
G01 Z-0.125000 F400.0(Penetrate)
G01 X63.080441 Y13.041174 Z-0.125000 F800.000000
G01 X60.299750 Y18.865174 Z-0.125000
G01 X58.088944 Y22.901214 Z-0.125000
G01 X57.867832 Y24.695664 Z-0.125000
G01 X59.785479 Y25.200704 Z-0.125000
G01 X62.579558 Y26.251284 Z-0.125000
G01 X67.344122 Y31.716674 Z-0.125000
G01 X70.078829 Y34.080124 Z-0.125000
G01 X71.612592 Y36.010094 Z-0.125000
G01 X70.922056 Y37.856544 Z-0.125000
G01 X68.474951 Y40.017794 Z-0.125000
G01 X65.792897 Y42.698474 Z-0.125000
G01 X63.589499 Y45.704804 Z-0.125000
G01 X60.908529 Y49.049084 Z-0.125000
G01 X58.468489 Y52.934804 Z-0.125000
G01 X57.794542 Y57.148664 Z-0.125000
G01 X59.352171 Y61.275454 Z-0.125000
G01 X64.570230 Y68.111704 Z-0.125000
G01 X66.383817 Y71.120964 Z-0.125000
G01 X66.560797 Y74.151774 Z-0.125000
G01 X65.000549 Y77.213634 Z-0.125000
G01 X62.838003 Y80.296904 Z-0.125000
G01 X61.561257 Y83.378474 Z-0.125000
G01 X62.128576 Y86.435814 Z-0.125000
G01 X64.088080 Y89.465244 Z-0.125000
G01 X65.437297 Y92.255114 Z-0.125000
G01 X65.049391 Y94.501454 Z-0.125000
G01 X61.740432 Y98.164244 Z-0.125000
G01 X61.371709 Y100.379884 Z-0.125000
G01 X62.739684 Y103.139704 Z-0.125000
G01 X64.855822 Y106.187254 Z-0.125000
G01 X66.616333 Y109.653724 Z-0.125000
G01 X67.258212 Y113.664934 Z-0.125000
G01 X66.498567 Y117.937824 Z-0.125000
G01 X64.933398 Y122.032784 Z-0.125000
G01 X63.710282 Y125.614554 Z-0.125000
G01 X63.462367 Y128.712984 Z-0.125000
G01 X63.411437 Y150.058794 Z-0.125000
G01 X62.569586 Y152.761224 Z-0.125000
G01 X59.713276 Y156.773154 Z-0.125000
G01 X59.733436 Y158.685744 Z-0.125000
G01 X61.100035 Y161.033134 Z-0.125000
G01 X63.155874 Y163.884574 Z-0.125000
G01 X65.534266 Y166.542844 Z-0.125000
G01 X70.751691 Y168.960864 Z-0.125000
G01 X70.899222 Y171.395884 Z-0.125000
G01 X66.360348 Y181.959314 Z-0.125000
G01 X64.160920 Y188.386994 Z-0.125000
G01 X62.738573 Y195.536514 Z-0.125000
G01 X62.851629 Y202.776222 Z-0.125000
G01 X63.775105 Y206.401672 Z-0.125000
G01 X61.666217 Y205.864092 Z-0.125000
G01 X58.878011 Y204.662882 Z-0.125000
G01 X56.655617 Y204.638382 Z-0.125000
G01 X56.427123 Y207.934622 Z-0.125000
G01 X58.347204 Y214.579862 Z-0.125000
G01 X61.152661 Y222.386002 Z-0.125000
G01 X63.490730 Y229.202540 Z-0.125000
G01 X65.634967 Y234.829513 Z-0.125000
G01 X67.432599 Y237.793666 Z-0.125000
G01 X68.185180 Y238.415543 Z-0.125000
G01 X67.725360 Y238.586014 Z-0.125000
G01 X66.690945 Y240.457544 Z-0.125000
G01 X66.059570 Y245.135854 Z-0.125000
G01 X65.994720 Y251.378538 Z-0.125000
G01 X65.783344 Y255.755249 Z-0.125000
G01 X65.258675 Y256.849804 Z-0.125000
G01 X64.544142 Y255.964561 Z-0.125000
G01 X63.879984 Y255.620444 Z-0.125000
G01 X63.477262 Y258.023469 Z-0.125000
G01 X63.371773 Y263.539979 Z-0.125000
G01 X63.108433 Y270.334479 Z-0.125000
G01 X62.949895 Y271.298647 Z-0.125000
G00 Z3.000000

(End cutting path id: polyline2062)


(Start cutting path id: polyline222)
(Change tool to Default tool)

G00 Z3.000000
G00 X94.066858 Y271.298697

G00 Z4.875000 (Fast pre-penetrate)
G01 Z-0.125000 F400.0(Penetrate)
G01 X93.851058 Y268.006910 Z-0.125000 F800.000000
G01 X92.924618 Y261.739037 Z-0.125000
G01 X91.022738 Y256.270919 Z-0.125000
G01 X88.654140 Y251.819305 Z-0.125000
G01 X86.729984 Y247.991155 Z-0.125000
G01 X85.849768 Y243.988697 Z-0.125000
G01 X85.977721 Y239.127269 Z-0.125000
G01 X86.624098 Y233.713471 Z-0.125000
G01 X88.912955 Y230.089526 Z-0.125000
G01 X93.220218 Y229.302681 Z-0.125000
G01 X97.715428 Y229.889077 Z-0.125000
G01 X100.435158 Y229.533848 Z-0.125000
G01 X100.574488 Y226.511302 Z-0.125000
G01 X98.844168 Y220.812232 Z-0.125000
G01 X96.443078 Y214.171422 Z-0.125000
G01 X93.326468 Y207.455242 Z-0.125000
G01 X90.837188 Y202.585272 Z-0.125000
G01 X90.413668 Y200.921802 Z-0.125000
G01 X92.124438 Y201.724742 Z-0.125000
G01 X94.680418 Y202.666122 Z-0.125000
G01 X96.900408 Y202.388472 Z-0.125000
G01 X98.257558 Y202.841892 Z-0.125000
G01 X97.596898 Y204.286012 Z-0.125000
G01 X95.041398 Y204.622112 Z-0.125000
G01 X91.880658 Y202.262692 Z-0.125000
G01 X89.811848 Y197.435638 Z-0.125000
G01 X89.790348 Y191.748824 Z-0.125000
G01 X90.898628 Y186.193074 Z-0.125000
G01 X92.845458 Y180.956894 Z-0.125000
G01 X95.270978 Y176.879584 Z-0.125000
G01 X97.111708 Y174.376174 Z-0.125000
G01 X97.692208 Y172.872544 Z-0.125000
G01 X96.168228 Y168.349154 Z-0.125000
G01 X95.224308 Y164.841254 Z-0.125000
G01 X94.581948 Y159.927754 Z-0.125000
G01 X94.358138 Y154.090884 Z-0.125000
G01 X94.462748 Y144.150834 Z-0.125000
G01 X94.175498 Y141.263724 Z-0.125000
G01 X93.648528 Y139.124624 Z-0.125000
G01 X93.552728 Y137.245074 Z-0.125000
G01 X94.209008 Y135.264754 Z-0.125000
G01 X95.321098 Y132.530734 Z-0.125000
G01 X96.312228 Y128.842364 Z-0.125000
G01 X96.675718 Y124.638664 Z-0.125000
G01 X95.971448 Y116.786114 Z-0.125000
G01 X96.486118 Y114.133244 Z-0.125000
G01 X97.097828 Y114.348224 Z-0.125000
G01 X97.816258 Y113.716264 Z-0.125000
G01 X97.420308 Y113.222154 Z-0.125000
G01 X96.488368 Y114.121604 Z-0.125000
G01 X96.069978 Y113.692904 Z-0.125000
G01 X95.302768 Y114.321574 Z-0.125000
G01 X95.781188 Y114.544864 Z-0.125000
G01 X96.502808 Y114.108034 Z-0.125000
G01 X95.382988 Y113.745604 Z-0.125000
G01 X93.279788 Y111.785444 Z-0.125000
G01 X92.040478 Y109.131484 Z-0.125000
G01 X92.822138 Y105.083914 Z-0.125000
G01 X95.088688 Y99.682714 Z-0.125000
G01 X97.355248 Y93.797264 Z-0.125000
G01 X98.136898 Y88.623234 Z-0.125000
G01 X96.897568 Y84.866284 Z-0.125000
G01 X94.849698 Y81.747134 Z-0.125000
G01 X93.514158 Y77.949544 Z-0.125000
G01 X93.132838 Y73.244994 Z-0.125000
G01 X93.209938 Y68.104744 Z-0.125000
G01 X92.975338 Y63.260754 Z-0.125000
G01 X91.841808 Y59.271184 Z-0.125000
G01 X89.861168 Y56.086764 Z-0.125000
G01 X87.384240 Y53.491304 Z-0.125000
G01 X84.993280 Y52.491124 Z-0.125000
G01 X86.236874 Y52.204664 Z-0.125000
G01 X88.958114 Y50.120354 Z-0.125000
G01 X91.185248 Y47.083284 Z-0.125000
G01 X93.829488 Y43.045394 Z-0.125000
G01 X96.419788 Y37.642684 Z-0.125000
G01 X97.772418 Y31.759094 Z-0.125000
G01 X97.445258 Y26.580324 Z-0.125000
G01 X96.120358 Y22.840194 Z-0.125000
G01 X94.899328 Y20.379754 Z-0.125000
G01 X93.561178 Y18.504314 Z-0.125000
G01 X90.981038 Y17.554004 Z-0.125000
G01 X88.102187 Y16.769464 Z-0.125000
G01 X86.479471 Y14.954634 Z-0.125000
G01 X86.814618 Y11.610834 Z-0.125000
G01 X86.939502 Y11.298704 Z-0.125000
G00 Z3.000000

(End cutting path id: polyline222)


(Start cutting path id: polyline224)
(Change tool to Default tool)

G00 Z3.000000
G00 X86.589279 Y11.298704

G00 Z4.875000 (Fast pre-penetrate)
G01 Z-0.125000 F400.0(Penetrate)
G01 X86.458812 Y11.622074 Z-0.125000 F800.000000
G01 X86.059503 Y14.984374 Z-0.125000
G01 X87.622291 Y16.787304 Z-0.125000
G01 X90.474768 Y17.551444 Z-0.125000
G01 X93.070008 Y18.501164 Z-0.125000
G01 X94.448908 Y20.405454 Z-0.125000
G01 X95.717478 Y22.902374 Z-0.125000
G01 X97.092148 Y26.675544 Z-0.125000
G01 X97.455658 Y31.872124 Z-0.125000
G01 X96.115868 Y37.753784 Z-0.125000
G01 X93.520538 Y43.143604 Z-0.125000
G01 X90.869708 Y47.172814 Z-0.125000
G01 X88.642075 Y50.209494 Z-0.125000
G01 X85.920835 Y52.297184 Z-0.125000
G01 X83.437985 Y52.878004 Z-0.125000
G01 X82.737369 Y52.545574 Z-0.125000
G01 X84.293542 Y52.455474 Z-0.125000
G01 X87.068201 Y53.622894 Z-0.125000
G01 X89.545124 Y56.219914 Z-0.125000
G01 X91.524078 Y59.399784 Z-0.125000
G01 X92.647018 Y63.361144 Z-0.125000
G01 X92.861648 Y68.151824 Z-0.125000
G01 X92.761318 Y73.230054 Z-0.125000
G01 X93.124198 Y77.885374 Z-0.125000
G01 X94.451268 Y81.660424 Z-0.125000
G01 X96.498378 Y84.777154 Z-0.125000
G01 X97.741488 Y88.527494 Z-0.125000
G01 X96.972138 Y93.688294 Z-0.125000
G01 X94.724128 Y99.568554 Z-0.125000
G01 X92.476128 Y104.983574 Z-0.125000
G01 X91.706768 Y109.062014 Z-0.125000
G01 X92.949888 Y111.752564 Z-0.125000
G01 X95.053778 Y113.750594 Z-0.125000
G01 X96.179418 Y114.178584 Z-0.125000
G01 X97.087358 Y113.341044 Z-0.125000
G01 X97.492118 Y113.818884 Z-0.125000
G01 X96.772378 Y114.404034 Z-0.125000
G01 X96.166988 Y114.197894 Z-0.125000
G01 X95.724338 Y113.808274 Z-0.125000
G01 X95.015838 Y114.369934 Z-0.125000
G01 X95.445388 Y114.582784 Z-0.125000
G01 X96.179418 Y114.178584 Z-0.125000
G01 X95.593178 Y116.842754 Z-0.125000
G01 X96.259718 Y124.616154 Z-0.125000
G01 X95.906948 Y128.773904 Z-0.125000
G01 X94.948758 Y132.436504 Z-0.125000
G01 X93.873868 Y135.182134 Z-0.125000
G01 X93.238678 Y137.203604 Z-0.125000
G01 X93.328978 Y139.128184 Z-0.125000
G01 X93.833298 Y141.303744 Z-0.125000
G01 X94.078388 Y144.227264 Z-0.125000
G01 X93.878678 Y154.205224 Z-0.125000
G01 X94.101328 Y160.034104 Z-0.125000
G01 X94.776088 Y164.934714 Z-0.125000
G01 X95.764518 Y168.438034 Z-0.125000
G01 X97.407848 Y172.907354 Z-0.125000
G01 X96.887148 Y174.336684 Z-0.125000
G01 X95.064778 Y176.771224 Z-0.125000
G01 X92.611458 Y180.814504 Z-0.125000
G01 X90.615178 Y186.059394 Z-0.125000
G01 X89.460957 Y191.648714 Z-0.125000
G01 X89.436797 Y197.390938 Z-0.125000
G01 X91.131248 Y201.489352 Z-0.125000
G01 X94.280498 Y202.751652 Z-0.125000
G01 X96.501018 Y202.510142 Z-0.125000
G01 X97.849888 Y202.994622 Z-0.125000
G01 X97.172638 Y204.443502 Z-0.125000
G01 X94.610598 Y204.739232 Z-0.125000
G01 X91.466998 Y202.301462 Z-0.125000
G01 X91.131248 Y201.489352 Z-0.125000
G01 X89.991318 Y200.939312 Z-0.125000
G01 X90.395438 Y202.590942 Z-0.125000
G01 X92.868048 Y207.465842 Z-0.125000
G01 X95.975868 Y214.191172 Z-0.125000
G01 X98.375538 Y220.834312 Z-0.125000
G01 X100.107418 Y226.530392 Z-0.125000
G01 X99.979048 Y229.546799 Z-0.125000
G01 X97.286198 Y229.905336 Z-0.125000
G01 X92.831378 Y229.340847 Z-0.125000
G01 X88.566741 Y230.164733 Z-0.125000
G01 X86.310242 Y233.828524 Z-0.125000
G01 X85.687069 Y239.277962 Z-0.125000
G01 X85.585125 Y244.167197 Z-0.125000
G01 X86.485529 Y248.175608 Z-0.125000
G01 X90.754738 Y256.398170 Z-0.125000
G01 X92.623678 Y261.836443 Z-0.125000
G01 X93.523498 Y268.095823 Z-0.125000
G01 X93.720428 Y271.298657 Z-0.125000
G00 Z3.000000

(End cutting path id: polyline224)


(Start cutting path id: polyline226)
(Change tool to Default tool)

G00 Z3.000000
G00 X111.906733 Y271.298697

G00 Z4.875000 (Fast pre-penetrate)
G01 Z-0.125000 F400.0(Penetrate)
G01 X111.164523 Y269.164727 Z-0.125000 F800.000000
G01 X109.295643 Y262.694659 Z-0.125000
G01 X107.152413 Y256.290181 Z-0.125000
G01 X104.345943 Y250.588543 Z-0.125000
G01 X102.160803 Y246.468954 Z-0.125000
G01 X101.740863 Y243.970546 Z-0.125000
G01 X104.977053 Y239.358700 Z-0.125000
G01 X106.833983 Y235.854558 Z-0.125000
G01 X110.044223 Y234.047904 Z-0.125000
G01 X114.544023 Y234.460892 Z-0.125000
G01 X118.340103 Y235.152857 Z-0.125000
G01 X119.847353 Y233.993664 Z-0.125000
G01 X118.993013 Y230.059443 Z-0.125000
G01 X116.980173 Y224.066022 Z-0.125000
G01 X114.552463 Y217.535862 Z-0.125000
G01 X111.272473 Y211.230822 Z-0.125000
G01 X108.474343 Y206.481182 Z-0.125000
G01 X107.691493 Y204.024712 Z-0.125000
G01 X109.117183 Y203.104142 Z-0.125000
G01 X111.542483 Y201.966562 Z-0.125000
G01 X113.763103 Y199.758412 Z-0.125000
G01 X115.575133 Y198.351642 Z-0.125000
G01 X116.149193 Y198.405542 Z-0.125000
G01 X116.977233 Y197.976025 Z-0.125000
G01 X115.842943 Y198.165122 Z-0.125000
G01 X114.845853 Y198.164122 Z-0.125000
G01 X114.160273 Y198.665112 Z-0.125000
G01 X114.856863 Y198.722112 Z-0.125000
G01 X115.842303 Y198.144532 Z-0.125000
G01 X115.575133 Y198.351932 Z-0.125000
G01 X113.457613 Y198.153072 Z-0.125000
G01 X110.257083 Y196.397524 Z-0.125000
G01 X108.091313 Y193.229054 Z-0.125000
G01 X106.714733 Y189.482764 Z-0.125000
G01 X105.513373 Y185.037584 Z-0.125000
G01 X105.318373 Y179.873284 Z-0.125000
G01 X106.691403 Y174.621044 Z-0.125000
G01 X109.205333 Y169.952554 Z-0.125000
G01 X111.664583 Y166.173584 Z-0.125000
G01 X113.252933 Y163.037214 Z-0.125000
G01 X114.755793 Y159.465734 Z-0.125000
G01 X116.200523 Y154.632564 Z-0.125000
G01 X116.527233 Y149.653424 Z-0.125000
G01 X115.181323 Y145.962434 Z-0.125000
G01 X112.725253 Y144.113894 Z-0.125000
G01 X110.028773 Y143.507954 Z-0.125000
G01 X109.377313 Y144.076404 Z-0.125000
G01 X108.082733 Y143.873944 Z-0.125000
G01 X108.657283 Y143.361084 Z-0.125000
G01 X110.028773 Y143.507954 Z-0.125000
G01 X111.804653 Y141.958334 Z-0.125000
G01 X113.931373 Y136.901834 Z-0.125000
G01 X114.498353 Y130.258804 Z-0.125000
G01 X113.292063 Y124.003444 Z-0.125000
G01 X111.756163 Y118.026404 Z-0.125000
G01 X111.240433 Y112.059334 Z-0.125000
G01 X111.621883 Y108.451214 Z-0.125000
G01 X110.888113 Y109.140504 Z-0.125000
G01 X108.843283 Y109.104404 Z-0.125000
G01 X107.674383 Y108.667424 Z-0.125000
G01 X108.684053 Y107.148974 Z-0.125000
G01 X111.294353 Y103.820574 Z-0.125000
G01 X113.904683 Y99.001324 Z-0.125000
G01 X114.914303 Y94.014474 Z-0.125000
G01 X113.745433 Y90.181544 Z-0.125000
G01 X111.706233 Y87.017864 Z-0.125000
G01 X110.446523 Y82.802154 Z-0.125000
G01 X110.230703 Y77.185234 Z-0.125000
G01 X110.516323 Y70.895184 Z-0.125000
G01 X110.460923 Y65.062814 Z-0.125000
G01 X109.422223 Y60.550504 Z-0.125000
G01 X107.456843 Y57.281664 Z-0.125000
G01 X104.979943 Y54.455484 Z-0.125000
G01 X102.205263 Y52.302784 Z-0.125000
G01 X100.649108 Y50.742484 Z-0.125000
G01 X101.349733 Y49.296354 Z-0.125000
G01 X103.832553 Y47.419974 Z-0.125000
G01 X106.553793 Y44.833754 Z-0.125000
G01 X108.735313 Y41.760174 Z-0.125000
G01 X110.660763 Y37.649204 Z-0.125000
G01 X112.022283 Y32.567884 Z-0.125000
G01 X113.115013 Y25.011704 Z-0.125000
G01 X113.699683 Y23.791284 Z-0.125000
G01 X114.832733 Y23.444844 Z-0.125000
G01 X115.753433 Y23.021664 Z-0.125000
G01 X114.585143 Y21.552354 Z-0.125000
G01 X111.456893 Y18.765714 Z-0.125000
G01 X107.993283 Y15.246994 Z-0.125000
G01 X105.986103 Y12.034364 Z-0.125000
G01 X106.114033 Y11.298984 Z-0.125000
G00 Z3.000000

(End cutting path id: polyline226)


(Start cutting path id: polyline228)
(Change tool to Default tool)

G00 Z3.000000
G00 X105.686723 Y11.298704

G00 Z4.875000 (Fast pre-penetrate)
G01 Z-0.125000 F400.0(Penetrate)
G01 X105.554403 Y12.044514 Z-0.125000 F800.000000
G01 X107.546403 Y15.240334 Z-0.125000
G01 X111.009343 Y18.706824 Z-0.125000
G01 X114.159153 Y21.439654 Z-0.125000
G01 X115.364493 Y22.889464 Z-0.125000
G01 X114.483513 Y23.335024 Z-0.125000
G01 X113.385753 Y23.717684 Z-0.125000
G01 X112.816473 Y24.984804 Z-0.125000
G01 X112.422833 Y27.982794 Z-0.125000
G01 X111.668053 Y32.615974 Z-0.125000
G01 X110.264673 Y37.708984 Z-0.125000
G01 X108.319013 Y41.821164 Z-0.125000
G01 X106.136303 Y44.893804 Z-0.125000
G01 X103.415093 Y47.462664 Z-0.125000
G01 X100.932238 Y49.293844 Z-0.125000
G01 X100.231618 Y50.677934 Z-0.125000
G01 X101.787793 Y52.180694 Z-0.125000
G01 X104.562453 Y54.299024 Z-0.125000
G01 X107.039383 Y57.117234 Z-0.125000
G01 X109.006843 Y60.388174 Z-0.125000
G01 X110.058563 Y64.913554 Z-0.125000
G01 X110.138563 Y70.770634 Z-0.125000
G01 X109.881593 Y77.089414 Z-0.125000
G01 X110.120173 Y82.729164 Z-0.125000
G01 X111.390273 Y86.955324 Z-0.125000
G01 X113.430503 Y90.120034 Z-0.125000
G01 X114.597613 Y93.953454 Z-0.125000
G01 X113.582273 Y98.948974 Z-0.125000
G01 X110.963343 Y103.794394 Z-0.125000
G01 X108.344443 Y107.165684 Z-0.125000
G01 X107.329103 Y108.731754 Z-0.125000
G01 X108.496213 Y109.207284 Z-0.125000
G01 X110.542523 Y109.274184 Z-0.125000
G01 X111.325403 Y108.557034 Z-0.125000
G01 X110.952473 Y112.051944 Z-0.125000
G01 X111.457823 Y117.949294 Z-0.125000
G01 X112.975183 Y123.887334 Z-0.125000
G01 X114.165363 Y130.106524 Z-0.125000
G01 X113.593593 Y136.709044 Z-0.125000
G01 X111.472083 Y141.742794 Z-0.125000
G01 X109.594183 Y143.394194 Z-0.125000
G01 X112.337673 Y144.058164 Z-0.125000
G01 X114.763023 Y145.954644 Z-0.125000
G01 X116.100203 Y149.685824 Z-0.125000
G01 X115.796303 Y154.687294 Z-0.125000
G01 X114.394413 Y159.526604 Z-0.125000
G01 X112.934093 Y163.098164 Z-0.125000
G01 X111.386603 Y166.230694 Z-0.125000
G01 X108.965743 Y169.990374 Z-0.125000
G01 X106.462303 Y174.633334 Z-0.125000
G01 X105.056313 Y179.871394 Z-0.125000
G01 X105.187783 Y185.042624 Z-0.125000
G01 X106.327683 Y189.512364 Z-0.125000
G01 X107.662143 Y193.289714 Z-0.125000
G01 X109.797243 Y196.490614 Z-0.125000
G01 X112.994943 Y198.266852 Z-0.125000
G01 X115.105373 Y198.454392 Z-0.125000
G01 X113.447893 Y199.716582 Z-0.125000
G01 X111.227903 Y201.892782 Z-0.125000
G01 X108.805853 Y202.998582 Z-0.125000
G01 X107.387313 Y203.896522 Z-0.125000
G01 X108.179133 Y206.347332 Z-0.125000
G01 X110.984983 Y211.105472 Z-0.125000
G01 X114.269053 Y217.420782 Z-0.125000
G01 X116.697423 Y223.953342 Z-0.125000
G01 X118.699183 Y229.938829 Z-0.125000
G01 X119.509493 Y233.844846 Z-0.125000
G01 X117.936043 Y234.968796 Z-0.125000
G01 X114.078683 Y234.255030 Z-0.125000
G01 X109.545923 Y233.844793 Z-0.125000
G01 X106.337083 Y235.674996 Z-0.125000
G01 X104.499863 Y239.211020 Z-0.125000
G01 X102.598623 Y241.956865 Z-0.125000
G01 X101.350263 Y243.926053 Z-0.125000
G01 X101.815373 Y246.478806 Z-0.125000
G01 X104.022263 Y250.633876 Z-0.125000
G01 X106.824893 Y256.349511 Z-0.125000
G01 X108.950503 Y262.755893 Z-0.125000
G01 X110.795623 Y269.229586 Z-0.125000
G01 X111.500233 Y271.298707 Z-0.125000
G00 Z3.000000

(End cutting path id: polyline228)


(Start cutting path id: polygon230)
(Change tool to Default tool)

G00 Z3.000000
G00 X145.503873 Y219.847482

G00 Z4.875000 (Fast pre-penetrate)
G01 Z-0.125000 F400.0(Penetrate)
G01 X146.800033 Y220.059862 Z-0.125000 F800.000000
G01 X147.490043 Y220.792972 Z-0.125000
G01 X145.900743 Y220.691442 Z-0.125000
G01 X145.503873 Y219.847482 Z-0.125000
G00 Z3.000000

(End cutting path id: polygon230)


(Start cutting path id: polygon234)
(Change tool to Default tool)

G00 Z3.000000
G00 X150.676283 Y222.361972

G00 Z4.875000 (Fast pre-penetrate)
G01 Z-0.125000 F400.0(Penetrate)
G01 X151.928583 Y221.873522 Z-0.125000 F800.000000
G01 X152.390203 Y222.176922 Z-0.125000
G01 X152.087623 Y222.848462 Z-0.125000
G01 X150.863583 Y223.258302 Z-0.125000
G01 X150.676283 Y222.361972 Z-0.125000
G00 Z3.000000

(End cutting path id: polygon234)


(Start cutting path id: polygon232)
(Change tool to Default tool)

G00 Z3.000000
G00 X151.117213 Y221.841772

G00 Z4.875000 (Fast pre-penetrate)
G01 Z-0.125000 F400.0(Penetrate)
G01 X150.840223 Y222.343452 Z-0.125000 F800.000000
G01 X149.484943 Y222.587902 Z-0.125000
G01 X149.241343 Y221.682792 Z-0.125000
G01 X150.508643 Y221.372482 Z-0.125000
G01 X151.117213 Y221.841772 Z-0.125000
G00 Z3.000000

(End cutting path id: polygon232)


(Start cutting path id: polygon236)
(Change tool to Default tool)

G00 Z3.000000
G00 X152.507333 Y223.006522

G00 Z4.875000 (Fast pre-penetrate)
G01 Z-0.125000 F400.0(Penetrate)
G01 X151.327033 Y223.475392 Z-0.125000 F800.000000
G01 X151.158063 Y222.585942 Z-0.125000
G01 X152.404653 Y222.040662 Z-0.125000
G01 X152.807773 Y222.290162 Z-0.125000
G01 X152.507333 Y223.006522 Z-0.125000
G00 Z3.000000

(End cutting path id: polygon236)


(Start cutting path id: polygon238)
(Change tool to Default tool)

G00 Z3.000000
G00 X155.659313 Y223.280972

G00 Z4.875000 (Fast pre-penetrate)
G01 Z-0.125000 F400.0(Penetrate)
G01 X155.500673 Y223.955792 Z-0.125000 F800.000000
G01 X154.621593 Y224.888342 Z-0.125000
G01 X154.569993 Y224.103172 Z-0.125000
G01 X155.659313 Y223.280972 Z-0.125000
G00 Z3.000000

(End cutting path id: polygon238)


(Start cutting path id: polygon240)
(Change tool to Default tool)

G00 Z3.000000
G00 X156.453043 Y223.760112

G00 Z4.875000 (Fast pre-penetrate)
G01 Z-0.125000 F400.0(Penetrate)
G01 X156.373643 Y224.173312 Z-0.125000 F800.000000
G01 X155.577513 Y225.253442 Z-0.125000
G01 X155.554913 Y224.515942 Z-0.125000
G01 X156.453043 Y223.760112 Z-0.125000
G00 Z3.000000

(End cutting path id: polygon240)


(Start cutting path id: polygon242)
(Change tool to Default tool)

G00 Z3.000000
G00 X156.057573 Y225.428912

G00 Z4.875000 (Fast pre-penetrate)
G01 Z-0.125000 F400.0(Penetrate)
G01 X156.048573 Y224.718142 Z-0.125000 F800.000000
G01 X156.859863 Y224.000612 Z-0.125000
G01 X156.813063 Y224.272692 Z-0.125000
G01 X156.057573 Y225.428912 Z-0.125000
G00 Z3.000000

(End cutting path id: polygon242)


(Start cutting path id: polygon244)
(Change tool to Default tool)

G00 Z3.000000
G00 X157.505663 Y225.925702

G00 Z4.875000 (Fast pre-penetrate)
G01 Z-0.125000 F400.0(Penetrate)
G01 X157.533163 Y225.306602 Z-0.125000 F800.000000
G01 X158.008593 Y224.825722 Z-0.125000
G01 X157.505663 Y225.925702 Z-0.125000
G00 Z3.000000

(End cutting path id: polygon244)


(Start cutting path id: polygon246)
(Change tool to Default tool)

G00 Z3.000000
G00 X158.524883 Y225.682522

G00 Z4.875000 (Fast pre-penetrate)
G01 Z-0.125000 F400.0(Penetrate)
G01 X158.772273 Y225.411512 Z-0.125000 F800.000000
G01 X158.476863 Y226.231182 Z-0.125000
G01 X158.524883 Y225.682522 Z-0.125000
G00 Z3.000000

(End cutting path id: polygon246)


(Start cutting path id: polygon248)
(Change tool to Default tool)

G00 Z3.000000
G00 X158.964013 Y226.375992

G00 Z4.875000 (Fast pre-penetrate)
G01 Z-0.125000 F400.0(Penetrate)
G01 X159.021113 Y225.865192 Z-0.125000 F800.000000
G01 X159.187963 Y225.675432 Z-0.125000
G01 X158.964013 Y226.375992 Z-0.125000
G00 Z3.000000

(End cutting path id: polygon248)


(Start cutting path id: polygon250)
(Change tool to Default tool)

G00 Z3.000000
G00 X160.064073 Y226.157842

G00 Z4.875000 (Fast pre-penetrate)
G01 Z-0.125000 F400.0(Penetrate)
G01 X159.941013 Y226.649252 Z-0.125000 F800.000000
G01 X160.064073 Y226.157842 Z-0.125000
G00 Z3.000000

(End cutting path id: polygon250)


(Start cutting path id: polygon252)
(Change tool to Default tool)

G00 Z3.000000
G00 X175.974473 Y228.248237

G00 Z4.875000 (Fast pre-penetrate)
G01 Z-0.125000 F400.0(Penetrate)
G01 X175.739523 Y229.519534 Z-0.125000 F800.000000
G01 X175.974473 Y228.248237 Z-0.125000
G00 Z3.000000

(End cutting path id: polygon252)


(Start cutting path id: polygon254)
(Change tool to Default tool)

G00 Z3.000000
G00 X177.924533 Y228.511577

G00 Z4.875000 (Fast pre-penetrate)
G01 Z-0.125000 F400.0(Penetrate)
G01 X178.329933 Y227.839483 Z-0.125000 F800.000000
G01 X177.912363 Y229.590998 Z-0.125000
G01 X177.924533 Y228.511577 Z-0.125000
G00 Z3.000000

(End cutting path id: polygon254)


(Start cutting path id: polygon256)
(Change tool to Default tool)

G00 Z3.000000
G00 X178.810463 Y227.694888

G00 Z4.875000 (Fast pre-penetrate)
G01 Z-0.125000 F400.0(Penetrate)
G01 X178.338213 Y229.593459 Z-0.125000 F800.000000
G01 X178.311813 Y228.544306 Z-0.125000
G01 X178.810463 Y227.694888 Z-0.125000
G00 Z3.000000

(End cutting path id: polygon256)


(Start cutting path id: polygon258)
(Change tool to Default tool)

G00 Z3.000000
G00 X184.197463 Y226.701932

G00 Z4.875000 (Fast pre-penetrate)
G01 Z-0.125000 F400.0(Penetrate)
G01 X183.223343 Y229.362557 Z-0.125000 F800.000000
G01 X182.708173 Y228.715095 Z-0.125000
G01 X183.453903 Y226.976915 Z-0.125000
G01 X184.197463 Y226.701932 Z-0.125000
G00 Z3.000000

(End cutting path id: polygon258)


(Start cutting path id: polygon260)
(Change tool to Default tool)

G00 Z3.000000
G00 X185.044683 Y227.004484

G00 Z4.875000 (Fast pre-penetrate)
G01 Z-0.125000 F400.0(Penetrate)
G01 X186.238903 Y226.537862 Z-0.125000 F800.000000
G01 X185.145993 Y229.154594 Z-0.125000
G01 X184.417353 Y228.684509 Z-0.125000
G01 X185.044683 Y227.004484 Z-0.125000
G00 Z3.000000

(End cutting path id: polygon260)


(Start cutting path id: polygon264)
(Change tool to Default tool)

G00 Z3.000000
G00 X186.278303 Y227.009802

G00 Z4.875000 (Fast pre-penetrate)
G01 Z-0.125000 F400.0(Penetrate)
G01 X187.813843 Y226.399012 Z-0.125000 F800.000000
G01 X186.646283 Y228.957400 Z-0.125000
G01 X185.744693 Y228.629290 Z-0.125000
G01 X186.278303 Y227.009802 Z-0.125000
G00 Z3.000000

(End cutting path id: polygon264)


(Start cutting path id: polygon262)
(Change tool to Default tool)

G00 Z3.000000
G00 X186.636863 Y226.503392

G00 Z4.875000 (Fast pre-penetrate)
G01 Z-0.125000 F400.0(Penetrate)
G01 X185.523873 Y229.107445 Z-0.125000 F800.000000
G01 X184.752163 Y228.672894 Z-0.125000
G01 X185.355943 Y227.007024 Z-0.125000
G01 X186.636863 Y226.503392 Z-0.125000
G00 Z3.000000

(End cutting path id: polygon262)


(Start cutting path id: polygon270)
(Change tool to Default tool)

G00 Z3.000000
G00 X187.186673 Y227.006627

G00 Z4.875000 (Fast pre-penetrate)
G01 Z-0.125000 F400.0(Penetrate)
G01 X188.967103 Y226.296542 Z-0.125000 F800.000000
G01 X187.754813 Y228.797354 Z-0.125000
G01 X186.722803 Y228.575051 Z-0.125000
G01 X187.186673 Y227.006627 Z-0.125000
G00 Z3.000000

(End cutting path id: polygon270)


(Start cutting path id: polygon272)
(Change tool to Default tool)

G00 Z3.000000
G00 X187.046443 Y228.555234

G00 Z4.875000 (Fast pre-penetrate)
G01 Z-0.125000 F400.0(Penetrate)
G01 X187.487133 Y227.004590 Z-0.125000 F800.000000
G01 X189.346753 Y226.263362 Z-0.125000
G01 X188.122003 Y228.742479 Z-0.125000
G01 X187.046443 Y228.555234 Z-0.125000
G00 Z3.000000

(End cutting path id: polygon272)


(Start cutting path id: polygon266)
(Change tool to Default tool)

G00 Z3.000000
G00 X187.017123 Y228.904986

G00 Z4.875000 (Fast pre-penetrate)
G01 Z-0.125000 F400.0(Penetrate)
G01 X186.072113 Y228.612198 Z-0.125000 F800.000000
G01 X186.582413 Y227.009300 Z-0.125000
G01 X188.200763 Y226.364462 Z-0.125000
G01 X187.017123 Y228.904986 Z-0.125000
G00 Z3.000000

(End cutting path id: polygon266)


(Start cutting path id: polygon268)
(Change tool to Default tool)

G00 Z3.000000
G00 X186.398103 Y228.594074

G00 Z4.875000 (Fast pre-penetrate)
G01 Z-0.125000 F400.0(Penetrate)
G01 X186.885153 Y227.008215 Z-0.125000 F800.000000
G01 X188.585153 Y226.330272 Z-0.125000
G01 X187.386593 Y228.851593 Z-0.125000
G01 X186.398103 Y228.594074 Z-0.125000
G00 Z3.000000

(End cutting path id: polygon268)


(Start cutting path id: polygon274)
(Change tool to Default tool)

G00 Z3.000000
G00 X188.334223 Y228.471281

G00 Z4.875000 (Fast pre-penetrate)
G01 Z-0.125000 F400.0(Penetrate)
G01 X188.682543 Y226.993716 Z-0.125000 F800.000000
G01 X190.536213 Y226.259652 Z-0.125000
G01 X190.757803 Y226.303152 Z-0.125000
G01 X189.584143 Y228.518671 Z-0.125000
G01 X188.334223 Y228.471281 Z-0.125000
G00 Z3.000000

(End cutting path id: polygon274)


(Start cutting path id: polygon280)
(Change tool to Default tool)

G00 Z3.000000
G00 X188.976893 Y228.428472

G00 Z4.875000 (Fast pre-penetrate)
G01 Z-0.125000 F400.0(Penetrate)
G01 X189.279103 Y226.987763 Z-0.125000 F800.000000
G01 X191.125253 Y226.259652 Z-0.125000
G01 X191.452993 Y226.321952 Z-0.125000
G01 X190.313993 Y228.406127 Z-0.125000
G01 X188.976893 Y228.428472 Z-0.125000
G00 Z3.000000

(End cutting path id: polygon280)


(Start cutting path id: polygon276)
(Change tool to Default tool)

G00 Z3.000000
G00 X189.620093 Y228.385741

G00 Z4.875000 (Fast pre-penetrate)
G01 Z-0.125000 F400.0(Penetrate)
G01 X189.876083 Y226.981836 Z-0.125000 F800.000000
G01 X191.714323 Y226.259632 Z-0.125000
G01 X192.143853 Y226.338732 Z-0.125000
G01 X191.044033 Y228.294033 Z-0.125000
G01 X189.620093 Y228.385741 Z-0.125000
G00 Z3.000000

(End cutting path id: polygon276)


(Start cutting path id: polygon282)
(Change tool to Default tool)

G00 Z3.000000
G00 X192.208913 Y228.218049

G00 Z4.875000 (Fast pre-penetrate)
G01 Z-0.125000 F400.0(Penetrate)
G01 X192.278813 Y226.958288 Z-0.125000 F800.000000
G01 X194.073263 Y226.259602 Z-0.125000
G01 X194.878523 Y226.390122 Z-0.125000
G01 X193.970023 Y227.858480 Z-0.125000
G01 X192.208913 Y228.218049 Z-0.125000
G00 Z3.000000

(End cutting path id: polygon282)


(Start cutting path id: polygon278)
(Change tool to Default tool)

G00 Z3.000000
G00 X192.303473 Y226.259632

G00 Z4.875000 (Fast pre-penetrate)
G01 Z-0.125000 F400.0(Penetrate)
G01 X192.831083 Y226.353732 Z-0.125000 F800.000000
G01 X191.774463 Y228.182849 Z-0.125000
G01 X190.264333 Y228.343239 Z-0.125000
G01 X190.473983 Y226.975899 Z-0.125000
G01 X192.303473 Y226.259632 Z-0.125000
G00 Z3.000000

(End cutting path id: polygon278)


(Start cutting path id: polyline292)
(Change tool to Default tool)

G00 Z3.000000
G00 X195.336683 Y226.516272

G00 Z4.875000 (Fast pre-penetrate)
G01 Z-0.125000 F400.0(Penetrate)
G01 X194.538253 Y226.384802 Z-0.125000 F800.000000
G01 X193.603473 Y227.911317 Z-0.125000
G01 X191.883183 Y228.238633 Z-0.125000
G01 X191.976383 Y226.961225 Z-0.125000
G01 X193.777793 Y226.259602 Z-0.125000
G01 X194.538213 Y226.384802 Z-0.125000
G01 X195.336643 Y225.080932 Z-0.125000
G00 Z3.000000

(End cutting path id: polyline292)


(Start cutting path id: polyline290)
(Change tool to Default tool)

G00 Z3.000000
G00 X195.336683 Y226.751622

G00 Z4.875000 (Fast pre-penetrate)
G01 Z-0.125000 F400.0(Penetrate)
G01 X194.703933 Y227.754472 Z-0.125000 F800.000000
G01 X192.862963 Y228.177356 Z-0.125000
G01 X192.886063 Y226.952494 Z-0.125000
G01 X194.664913 Y226.259602 Z-0.125000
G01 X195.336663 Y226.365202 Z-0.125000
G01 X195.218523 Y226.395202 Z-0.125000
G01 X194.336773 Y227.806172 Z-0.125000
G01 X192.535463 Y228.197623 Z-0.125000
G01 X192.581963 Y226.955404 Z-0.125000
G01 X194.368873 Y226.259602 Z-0.125000
G01 X195.218503 Y226.395202 Z-0.125000
G01 X195.336643 Y226.206212 Z-0.125000
G00 Z3.000000

(End cutting path id: polyline290)


(Start cutting path id: polyline294)
(Change tool to Default tool)

G00 Z3.000000
G00 X195.336683 Y227.235121

G00 Z4.875000 (Fast pre-penetrate)
G01 Z-0.125000 F400.0(Penetrate)
G01 X194.997433 Y226.623092 Z-0.125000 F800.000000
G01 X193.515473 Y226.367152 Z-0.125000
G01 X192.505453 Y228.072977 Z-0.125000
G01 X190.910173 Y228.301075 Z-0.125000
G01 X191.073373 Y226.970009 Z-0.125000
G01 X192.892863 Y226.259602 Z-0.125000
G01 X193.515473 Y226.367152 Z-0.125000
G01 X194.710463 Y224.348942 Z-0.125000
G01 X195.336683 Y221.068662 Z-0.125000
G00 Z3.000000

(End cutting path id: polyline294)


(Start cutting path id: polyline286)
(Change tool to Default tool)

G00 Z3.000000
G00 X195.336683 Y223.174482

G00 Z4.875000 (Fast pre-penetrate)
G01 Z-0.125000 F400.0(Penetrate)
G01 X195.124863 Y224.256552 Z-0.125000 F800.000000
G01 X192.871243 Y228.018606 Z-0.125000
G01 X191.233873 Y228.280146 Z-0.125000
G01 X191.373783 Y226.967072 Z-0.125000
G01 X193.187683 Y226.259602 Z-0.125000
G01 X195.296333 Y226.617982 Z-0.125000
G01 X195.336633 Y226.697982 Z-0.125000
G01 X194.733623 Y226.935309 Z-0.125000
G01 X194.850593 Y228.059285 Z-0.125000
G01 X195.336633 Y227.917892 Z-0.125000
G00 Z3.000000

(End cutting path id: polyline286)


(Start cutting path id: polyline284)
(Change tool to Default tool)

G00 Z3.000000
G00 X195.336683 Y227.847129

G00 Z4.875000 (Fast pre-penetrate)
G01 Z-0.125000 F400.0(Penetrate)
G01 X194.516313 Y228.078534 Z-0.125000 F800.000000
G01 X194.422613 Y226.938180 Z-0.125000
G01 X195.336723 Y226.569722 Z-0.125000
G01 X194.197773 Y226.379222 Z-0.125000
G01 X193.237283 Y227.964736 Z-0.125000
G01 X191.558213 Y228.259324 Z-0.125000
G01 X191.674813 Y226.964135 Z-0.125000
G01 X193.482713 Y226.259602 Z-0.125000
G01 X194.197773 Y226.379222 Z-0.125000
G01 X195.336723 Y224.499062 Z-0.125000
G00 Z3.000000

(End cutting path id: polyline284)


(Start cutting path id: polyline298)
(Change tool to Default tool)

G00 Z3.000000
G00 X195.336683 Y227.286847

G00 Z4.875000 (Fast pre-penetrate)
G01 Z-0.125000 F400.0(Penetrate)
G01 X195.071383 Y227.703434 Z-0.125000 F800.000000
G01 X193.191413 Y228.157247 Z-0.125000
G01 X193.191153 Y226.949610 Z-0.125000
G01 X194.961323 Y226.259572 Z-0.125000
G01 X195.336713 Y226.345072 Z-0.125000
G01 X193.804453 Y226.943908 Z-0.125000
G01 X193.851453 Y228.117573 Z-0.125000
G01 X195.336673 Y227.727181 Z-0.125000
G01 X193.520863 Y228.137338 Z-0.125000
G01 X193.497163 Y226.946766 Z-0.125000
G01 X195.336633 Y226.271602 Z-0.125000
G00 Z3.000000

(End cutting path id: polyline298)


(Start cutting path id: polyline288)
(Change tool to Default tool)

G00 Z3.000000
G00 X195.336683 Y227.995322

G00 Z4.875000 (Fast pre-penetrate)
G01 Z-0.125000 F400.0(Penetrate)
G01 X195.186403 Y228.040332 Z-0.125000 F800.000000
G01 X195.046223 Y226.932522 Z-0.125000
G01 X195.336683 Y226.817851 Z-0.125000
G00 Z3.000000

(End cutting path id: polyline288)


(Start cutting path id: polyline296)
(Change tool to Default tool)

G00 Z3.000000
G00 X195.336683 Y218.845452

G00 Z4.875000 (Fast pre-penetrate)
G01 Z-0.125000 F400.0(Penetrate)
G01 X194.295783 Y224.442262 Z-0.125000 F800.000000
G01 X192.139883 Y228.127720 Z-0.125000
G01 X190.587013 Y228.322136 Z-0.125000
G01 X190.773463 Y226.972972 Z-0.125000
G01 X192.598113 Y226.259602 Z-0.125000
G01 X194.698113 Y226.628192 Z-0.125000
G01 X195.336683 Y227.807891 Z-0.125000
G01 X194.183263 Y228.097954 Z-0.125000
G01 X194.112863 Y226.941011 Z-0.125000
G01 X195.336693 Y226.464412 Z-0.125000
G01 X194.878513 Y226.390112 Z-0.125000
G01 X195.336693 Y225.649622 Z-0.125000
G00 Z3.000000

(End cutting path id: polyline296)


(Start cutting path id: polyline300)
(Change tool to Default tool)

G00 Z3.000000
G00 X195.336683 Y235.819633

G00 Z4.875000 (Fast pre-penetrate)
G01 Z-0.125000 F400.0(Penetrate)
G01 X194.486103 Y240.514003 Z-0.125000 F800.000000
G01 X193.042453 Y244.537760 Z-0.125000
G01 X192.263173 Y245.841653 Z-0.125000
G01 X192.163473 Y245.616942 Z-0.125000
G01 X191.301543 Y246.964095 Z-0.125000
G01 X189.643213 Y251.100406 Z-0.125000
G01 X188.320963 Y256.927139 Z-0.125000
G01 X188.274163 Y262.305271 Z-0.125000
G01 X189.600603 Y265.355811 Z-0.125000
G01 X191.646803 Y265.760280 Z-0.125000
G01 X193.999513 Y265.450056 Z-0.125000
G01 X195.336713 Y265.756391 Z-0.125000
G00 Z3.000000

(End cutting path id: polyline300)


(Start cutting path id: line302)
(Change tool to Default tool)

G00 Z3.000000
G00 X195.329033 Y259.598293

G00 Z4.875000 (Fast pre-penetrate)
G01 Z-0.125000 F400.0(Penetrate)
G01 X195.337033 Y259.471531 Z-0.125000 F800.000000
G00 Z3.000000

(End cutting path id: line302)


(Start cutting path id: polyline304)
(Change tool to Default tool)

G00 Z3.000000
G00 X195.336683 Y254.132610

G00 Z4.875000 (Fast pre-penetrate)
G01 Z-0.125000 F400.0(Penetrate)
G01 X195.203913 Y254.603436 Z-0.125000 F800.000000
G01 X194.900443 Y259.769981 Z-0.125000
G01 X195.336683 Y260.888110 Z-0.125000
G00 Z3.000000

(End cutting path id: polyline304)


(Start cutting path id: polyline306)
(Change tool to Default tool)

G00 Z3.000000
G00 X195.336683 Y252.715052

G00 Z4.875000 (Fast pre-penetrate)
G01 Z-0.125000 F400.0(Penetrate)
G01 X194.769183 Y254.746205 Z-0.125000 F800.000000
G01 X194.473743 Y259.940240 Z-0.125000
G01 X195.336683 Y262.146733 Z-0.125000
G00 Z3.000000

(End cutting path id: polyline306)


(Start cutting path id: polyline308)
(Change tool to Default tool)

G00 Z3.000000
G00 X195.336683 Y251.270056

G00 Z4.875000 (Fast pre-penetrate)
G01 Z-0.125000 F400.0(Penetrate)
G01 X194.335073 Y254.889662 Z-0.125000 F800.000000
G01 X194.048953 Y260.109018 Z-0.125000
G01 X195.215403 Y263.082300 Z-0.125000
G01 X195.336683 Y263.107910 Z-0.125000
G00 Z3.000000

(End cutting path id: polyline308)


(Start cutting path id: polyline310)
(Change tool to Default tool)

G00 Z3.000000
G00 X195.336683 Y249.794396

G00 Z4.875000 (Fast pre-penetrate)
G01 Z-0.125000 F400.0(Penetrate)
G01 X193.901613 Y255.033728 Z-0.125000 F800.000000
G01 X193.626043 Y260.276288 Z-0.125000
G01 X194.801353 Y263.260735 Z-0.125000
G01 X195.336683 Y263.372865 Z-0.125000
G00 Z3.000000

(End cutting path id: polyline310)


(Start cutting path id: polyline312)
(Change tool to Default tool)

G00 Z3.000000
G00 X184.417113 Y271.298697

G00 Z4.875000 (Fast pre-penetrate)
G01 Z-0.125000 F400.0(Penetrate)
G01 X183.977773 Y271.181301 Z-0.125000 F800.000000
G01 X182.837183 Y271.298697 Z-0.125000
G00 Z3.000000

(End cutting path id: polyline312)


(Start cutting path id: polyline314)
(Change tool to Default tool)

G00 Z3.000000
G00 X180.755573 Y271.298697

G00 Z4.875000 (Fast pre-penetrate)
G01 Z-0.125000 F400.0(Penetrate)
G01 X184.313663 Y270.967068 Z-0.125000 F800.000000
G01 X185.443433 Y271.298697 Z-0.125000
G00 Z3.000000

(End cutting path id: polyline314)


(Start cutting path id: polyline316)
(Change tool to Default tool)

G00 Z3.000000
G00 X195.336683 Y248.755298

G00 Z4.875000 (Fast pre-penetrate)
G01 Z-0.125000 F400.0(Penetrate)
G01 X195.013523 Y249.477319 Z-0.125000 F800.000000
G01 X193.468803 Y255.178270 Z-0.125000
G01 X193.204993 Y260.441943 Z-0.125000
G01 X194.389633 Y263.436603 Z-0.125000
G01 X195.336683 Y263.633400 Z-0.125000
G00 Z3.000000

(End cutting path id: polyline316)


(Start cutting path id: polyline318)
(Change tool to Default tool)

G00 Z3.000000
G00 X195.336683 Y247.874076

G00 Z4.875000 (Fast pre-penetrate)
G01 Z-0.125000 F400.0(Penetrate)
G01 X194.569423 Y249.601409 Z-0.125000 F800.000000
G01 X193.036633 Y255.323288 Z-0.125000
G01 X192.785703 Y260.605959 Z-0.125000
G01 X193.980143 Y263.609826 Z-0.125000
G01 X195.336683 Y263.889782 Z-0.125000
G00 Z3.000000

(End cutting path id: polyline318)


(Start cutting path id: polyline320)
(Change tool to Default tool)

G00 Z3.000000
G00 X195.336683 Y246.977509

G00 Z4.875000 (Fast pre-penetrate)
G01 Z-0.125000 F400.0(Penetrate)
G01 X194.124543 Y249.728038 Z-0.125000 F800.000000
G01 X192.605153 Y255.468597 Z-0.125000
G01 X192.368193 Y260.768280 Z-0.125000
G01 X193.572843 Y263.780456 Z-0.125000
G01 X195.336683 Y264.142115 Z-0.125000
G00 Z3.000000

(End cutting path id: polyline320)


(Start cutting path id: polyline322)
(Change tool to Default tool)

G00 Z3.000000
G00 X195.336683 Y246.064432

G00 Z4.875000 (Fast pre-penetrate)
G01 Z-0.125000 F400.0(Penetrate)
G01 X193.678933 Y249.857076 Z-0.125000 F800.000000
G01 X192.174253 Y255.614197 Z-0.125000
G01 X191.952403 Y260.928962 Z-0.125000
G01 X193.167653 Y263.948466 Z-0.125000
G01 X195.336683 Y264.342431 Z-0.125000
G00 Z3.000000

(End cutting path id: polyline322)


(Start cutting path id: polyline324)
(Change tool to Default tool)

G00 Z3.000000
G00 X195.336683 Y245.404535

G00 Z4.875000 (Fast pre-penetrate)
G01 Z-0.125000 F400.0(Penetrate)
G01 X195.009503 Y245.888537 Z-0.125000 F800.000000
G01 X193.232613 Y249.988335 Z-0.125000
G01 X191.743983 Y255.759983 Z-0.125000
G01 X191.538243 Y261.087950 Z-0.125000
G01 X192.764533 Y264.113910 Z-0.125000
G01 X194.780763 Y264.522771 Z-0.125000
G01 X195.336683 Y264.463481 Z-0.125000
G00 Z3.000000

(End cutting path id: polyline324)


(Start cutting path id: polyline326)
(Change tool to Default tool)

G00 Z3.000000
G00 X195.336683 Y244.843909

G00 Z4.875000 (Fast pre-penetrate)
G01 Z-0.125000 F400.0(Penetrate)
G01 X194.550553 Y246.013632 Z-0.125000 F800.000000
G01 X192.785673 Y250.121712 Z-0.125000
G01 X191.314333 Y255.905927 Z-0.125000
G01 X191.125683 Y261.245298 Z-0.125000
G01 X192.363373 Y264.276841 Z-0.125000
G01 X194.383813 Y264.684643 Z-0.125000
G01 X195.336683 Y264.579497 Z-0.125000
G00 Z3.000000

(End cutting path id: polyline326)


(Start cutting path id: polyline328)
(Change tool to Default tool)

G00 Z3.000000
G00 X195.336683 Y244.566388

G00 Z4.875000 (Fast pre-penetrate)
G01 Z-0.125000 F400.0(Penetrate)
G01 X195.084743 Y245.019064 Z-0.125000 F800.000000
G01 X194.987543 Y244.798189 Z-0.125000
G01 X194.090083 Y246.141849 Z-0.125000
G01 X192.338113 Y250.257046 Z-0.125000
G01 X190.885203 Y256.051897 Z-0.125000
G01 X190.714573 Y261.401005 Z-0.125000
G01 X191.964073 Y264.437284 Z-0.125000
G01 X193.988533 Y264.844240 Z-0.125000
G01 X195.336663 Y264.690755 Z-0.125000
G00 Z3.000000

(End cutting path id: polyline328)


(Start cutting path id: polyline330)
(Change tool to Default tool)

G00 Z3.000000
G00 X195.336683 Y243.864184

G00 Z4.875000 (Fast pre-penetrate)
G01 Z-0.125000 F400.0(Penetrate)
G01 X194.618133 Y245.150800 Z-0.125000 F800.000000
G01 X194.520533 Y244.928417 Z-0.125000
G01 X193.628253 Y246.273030 Z-0.125000
G01 X191.890073 Y250.394127 Z-0.125000
G01 X190.456723 Y256.197921 Z-0.125000
G01 X190.304983 Y261.555151 Z-0.125000
G01 X191.566593 Y264.595425 Z-0.125000
G01 X193.594973 Y265.001640 Z-0.125000
G01 X195.336723 Y264.797541 Z-0.125000
G00 Z3.000000

(End cutting path id: polyline330)


(Start cutting path id: polyline332)
(Change tool to Default tool)

G00 Z3.000000
G00 X195.336683 Y242.621145

G00 Z4.875000 (Fast pre-penetrate)
G01 Z-0.125000 F400.0(Penetrate)
G01 X194.872553 Y244.020817 Z-0.125000 F800.000000
G01 X194.149873 Y245.284970 Z-0.125000
G01 X194.051773 Y245.061503 Z-0.125000
G01 X193.164993 Y246.406909 Z-0.125000
G01 X191.441473 Y250.532848 Z-0.125000
G01 X190.028673 Y256.343918 Z-0.125000
G01 X189.896593 Y261.707789 Z-0.125000
G01 X191.170643 Y264.751318 Z-0.125000
G01 X193.202833 Y265.156951 Z-0.125000
G01 X195.336693 Y264.900120 Z-0.125000
G00 Z3.000000

(End cutting path id: polyline332)


(Start cutting path id: polyline334)
(Change tool to Default tool)

G00 Z3.000000
G00 X195.336683 Y241.431790

G00 Z4.875000 (Fast pre-penetrate)
G01 Z-0.125000 F400.0(Penetrate)
G01 X194.416963 Y244.147923 Z-0.125000 F800.000000
G01 X193.680073 Y245.421389 Z-0.125000
G01 X193.581573 Y245.197181 Z-0.125000
G01 X192.700613 Y246.543249 Z-0.125000
G01 X190.992443 Y250.672998 Z-0.125000
G01 X189.601153 Y256.489862 Z-0.125000
G01 X189.489503 Y261.858999 Z-0.125000
G01 X190.776273 Y264.905120 Z-0.125000
G01 X192.812083 Y265.310303 Z-0.125000
G01 X195.163203 Y265.020161 Z-0.125000
G01 X195.336713 Y265.066861 Z-0.125000
G00 Z3.000000

(End cutting path id: polyline334)


(Start cutting path id: polyline336)
(Change tool to Default tool)

G00 Z3.000000
G00 X195.336683 Y240.272888

G00 Z4.875000 (Fast pre-penetrate)
G01 Z-0.125000 F400.0(Penetrate)
G01 X193.959953 Y244.276590 Z-0.125000 F800.000000
G01 X193.208903 Y245.559819 Z-0.125000
G01 X193.109903 Y245.335188 Z-0.125000
G01 X192.235053 Y246.681732 Z-0.125000
G01 X190.542943 Y250.814444 Z-0.125000
G01 X189.173963 Y256.635727 Z-0.125000
G01 X189.083363 Y262.008885 Z-0.125000
G01 X190.383123 Y265.057017 Z-0.125000
G01 X192.422483 Y265.461856 Z-0.125000
G01 X194.774333 Y265.164756 Z-0.125000
G01 X195.336603 Y265.308557 Z-0.125000
G00 Z3.000000

(End cutting path id: polyline336)


(Start cutting path id: polyline338)
(Change tool to Default tool)

G00 Z3.000000
G00 X195.336683 Y237.947360

G00 Z4.875000 (Fast pre-penetrate)
G01 Z-0.125000 F400.0(Penetrate)
G01 X194.908933 Y240.411080 Z-0.125000 F800.000000
G01 X193.501723 Y244.406606 Z-0.125000
G01 X192.736543 Y245.699995 Z-0.125000
G01 X192.637243 Y245.475205 Z-0.125000
G01 X191.768743 Y246.822120 Z-0.125000
G01 X190.093273 Y250.956948 Z-0.125000
G01 X188.747333 Y256.781486 Z-0.125000
G01 X188.678333 Y262.157581 Z-0.125000
G01 X189.991333 Y265.207168 Z-0.125000
G01 X192.034173 Y265.611769 Z-0.125000
G01 X194.386513 Y265.308001 Z-0.125000
G01 X195.336653 Y265.538268 Z-0.125000
G00 Z3.000000

(End cutting path id: polyline338)


(Start cutting path id: polyline340)
(Change tool to Default tool)

G00 Z3.000000
G00 X195.336683 Y188.780464

G00 Z4.875000 (Fast pre-penetrate)
G01 Z-0.125000 F400.0(Penetrate)
G01 X195.151763 Y191.022144 Z-0.125000 F800.000000
G01 X195.336683 Y191.810604 Z-0.125000
G00 Z3.000000

(End cutting path id: polyline340)


(Start cutting path id: polyline342)
(Change tool to Default tool)

G00 Z3.000000
G00 X195.336683 Y188.150064

G00 Z4.875000 (Fast pre-penetrate)
G01 Z-0.125000 F400.0(Penetrate)
G01 X194.894223 Y188.438304 Z-0.125000 F800.000000
G01 X194.669323 Y191.114724 Z-0.125000
G01 X195.336683 Y193.957374 Z-0.125000
G00 Z3.000000

(End cutting path id: polyline342)


(Start cutting path id: polyline344)
(Change tool to Default tool)

G00 Z3.000000
G00 X195.336683 Y187.952184

G00 Z4.875000 (Fast pre-penetrate)
G01 Z-0.125000 F400.0(Penetrate)
G01 X194.415433 Y188.541914 Z-0.125000 F800.000000
G01 X194.187303 Y191.212564 Z-0.125000
G01 X195.336683 Y196.097164 Z-0.125000
G00 Z3.000000

(End cutting path id: polyline344)


(Start cutting path id: polyline346)
(Change tool to Default tool)

G00 Z3.000000
G00 X195.336683 Y187.774114

G00 Z4.875000 (Fast pre-penetrate)
G01 Z-0.125000 F400.0(Penetrate)
G01 X193.936723 Y188.650074 Z-0.125000 F800.000000
G01 X193.705713 Y191.315484 Z-0.125000
G01 X194.849953 Y196.181354 Z-0.125000
G01 X195.336683 Y197.715875 Z-0.125000
G00 Z3.000000

(End cutting path id: polyline346)


(Start cutting path id: polyline348)
(Change tool to Default tool)

G00 Z3.000000
G00 X195.336683 Y187.688634

G00 Z4.875000 (Fast pre-penetrate)
G01 Z-0.125000 F400.0(Penetrate)
G01 X194.829553 Y187.910904 Z-0.125000 F800.000000
G01 X193.458143 Y188.762544 Z-0.125000
G01 X193.224563 Y191.423254 Z-0.125000
G01 X194.369873 Y196.290124 Z-0.125000
G01 X195.336683 Y199.333272 Z-0.125000
G00 Z3.000000

(End cutting path id: polyline348)


(Start cutting path id: polyline350)
(Change tool to Default tool)

G00 Z3.000000
G00 X195.336683 Y187.612484

G00 Z4.875000 (Fast pre-penetrate)
G01 Z-0.125000 F400.0(Penetrate)
G01 X194.354733 Y188.036084 Z-0.125000 F800.000000
G01 X192.979693 Y188.879124 Z-0.125000
G01 X192.743843 Y191.535594 Z-0.125000
G01 X193.890123 Y196.403374 Z-0.125000
G01 X195.336683 Y200.950062 Z-0.125000
G00 Z3.000000

(End cutting path id: polyline350)


(Start cutting path id: polyline352)
(Change tool to Default tool)

G00 Z3.000000
G00 X195.336683 Y187.544224

G00 Z4.875000 (Fast pre-penetrate)
G01 Z-0.125000 F400.0(Penetrate)
G01 X193.879623 Y188.164064 Z-0.125000 F800.000000
G01 X192.501413 Y188.999564 Z-0.125000
G01 X192.263603 Y191.652354 Z-0.125000
G01 X193.410703 Y196.520811 Z-0.125000
G01 X195.336683 Y202.566802 Z-0.125000
G00 Z3.000000

(End cutting path id: polyline352)


(Start cutting path id: polyline354)
(Change tool to Default tool)

G00 Z3.000000
G00 X195.336683 Y186.257844

G00 Z4.875000 (Fast pre-penetrate)
G01 Z-0.125000 F400.0(Penetrate)
G01 X194.911893 Y187.661064 Z-0.125000 F800.000000
G01 X193.404223 Y188.294654 Z-0.125000
G01 X192.023303 Y189.123654 Z-0.125000
G01 X191.783833 Y191.773184 Z-0.125000
G01 X192.931623 Y196.642231 Z-0.125000
G01 X195.336683 Y204.287332 Z-0.125000
G00 Z3.000000

(End cutting path id: polyline354)


(Start cutting path id: polyline356)
(Change tool to Default tool)

G00 Z3.000000
G00 X195.336683 Y167.097084

G00 Z4.875000 (Fast pre-penetrate)
G01 Z-0.125000 F400.0(Penetrate)
G01 X195.164523 Y168.477794 Z-0.125000 F800.000000
G01 X195.222623 Y171.407444 Z-0.125000
G01 X195.336653 Y172.167164 Z-0.125000
G00 Z3.000000

(End cutting path id: polyline356)


(Start cutting path id: polyline358)
(Change tool to Default tool)

G00 Z3.000000
G00 X195.336683 Y164.513304

G00 Z4.875000 (Fast pre-penetrate)
G01 Z-0.125000 F400.0(Penetrate)
G01 X194.848233 Y168.307004 Z-0.125000 F800.000000
G01 X194.902733 Y171.243614 Z-0.125000
G01 X195.336673 Y173.980354 Z-0.125000
G00 Z3.000000

(End cutting path id: polyline358)


(Start cutting path id: polyline360)
(Change tool to Default tool)

G00 Z3.000000
G00 X195.336683 Y163.281084

G00 Z4.875000 (Fast pre-penetrate)
G01 Z-0.125000 F400.0(Penetrate)
G01 X194.991113 Y164.443474 Z-0.125000 F800.000000
G01 X194.534363 Y168.138514 Z-0.125000
G01 X194.585263 Y171.082004 Z-0.125000
G01 X194.902503 Y173.571994 Z-0.125000
G01 X195.336683 Y175.042924 Z-0.125000
G00 Z3.000000

(End cutting path id: polyline360)


(Start cutting path id: polyline362)
(Change tool to Default tool)

G00 Z3.000000
G00 X195.336683 Y162.045714

G00 Z4.875000 (Fast pre-penetrate)
G01 Z-0.125000 F400.0(Penetrate)
G01 X194.677523 Y164.276574 Z-0.125000 F800.000000
G01 X194.222863 Y167.972354 Z-0.125000
G01 X194.270163 Y170.922644 Z-0.125000
G01 X194.565243 Y173.454154 Z-0.125000
G01 X195.336693 Y176.209814 Z-0.125000
G00 Z3.000000

(End cutting path id: polyline362)


(Start cutting path id: polyline364)
(Change tool to Default tool)

G00 Z3.000000
G00 X195.336683 Y160.805584

G00 Z4.875000 (Fast pre-penetrate)
G01 Z-0.125000 F400.0(Penetrate)
G01 X194.366033 Y164.112084 Z-0.125000 F800.000000
G01 X193.913593 Y167.808504 Z-0.125000
G01 X193.957193 Y170.765484 Z-0.125000
G01 X194.230003 Y173.338004 Z-0.125000
G01 X194.742823 Y175.507534 Z-0.125000
G01 X195.336653 Y177.550614 Z-0.125000
G00 Z3.000000

(End cutting path id: polyline364)


(Start cutting path id: polyline366)
(Change tool to Default tool)

G00 Z3.000000
G00 X195.336683 Y159.559004

G00 Z4.875000 (Fast pre-penetrate)
G01 Z-0.125000 F400.0(Penetrate)
G01 X194.056473 Y163.949974 Z-0.125000 F800.000000
G01 X193.606413 Y167.646944 Z-0.125000
G01 X193.646413 Y170.610544 Z-0.125000
G01 X193.896813 Y173.223514 Z-0.125000
G01 X194.912683 Y177.590494 Z-0.125000
G01 X195.336703 Y179.882574 Z-0.125000
G00 Z3.000000

(End cutting path id: polyline366)


(Start cutting path id: polyline368)
(Change tool to Default tool)

G00 Z3.000000
G00 X195.336683 Y158.323984

G00 Z4.875000 (Fast pre-penetrate)
G01 Z-0.125000 F400.0(Penetrate)
G01 X193.748763 Y163.790194 Z-0.125000 F800.000000
G01 X193.301163 Y167.487614 Z-0.125000
G01 X193.337563 Y170.457694 Z-0.125000
G01 X193.565443 Y173.110644 Z-0.125000
G01 X194.491243 Y177.637934 Z-0.125000
G01 X194.882433 Y180.020134 Z-0.125000
G01 X195.058223 Y182.758964 Z-0.125000
G01 X195.059223 Y185.748814 Z-0.125000
G01 X194.437633 Y187.800024 Z-0.125000
G01 X192.928533 Y188.427634 Z-0.125000
G01 X191.545343 Y189.251104 Z-0.125000
G01 X191.304443 Y191.897864 Z-0.125000
G01 X192.452833 Y196.767381 Z-0.125000
G01 X195.336613 Y206.016282 Z-0.125000
G00 Z3.000000

(End cutting path id: polyline368)


(Start cutting path id: polyline370)
(Change tool to Default tool)

G00 Z3.000000
G00 X195.336683 Y157.150634

G00 Z4.875000 (Fast pre-penetrate)
G01 Z-0.125000 F400.0(Penetrate)
G01 X193.442743 Y163.632604 Z-0.125000 F800.000000
G01 X192.997793 Y167.330424 Z-0.125000
G01 X193.030393 Y170.306934 Z-0.125000
G01 X193.235653 Y172.999384 Z-0.125000
G01 X194.070633 Y177.685524 Z-0.125000
G01 X194.424063 Y180.133904 Z-0.125000
G01 X194.583473 Y182.901574 Z-0.125000
G01 X194.584263 Y185.892324 Z-0.125000
G01 X193.963133 Y187.940194 Z-0.125000
G01 X192.452863 Y188.562844 Z-0.125000
G01 X191.067763 Y189.381674 Z-0.125000
G01 X190.825673 Y192.026104 Z-0.125000
G01 X191.974573 Y196.895971 Z-0.125000
G01 X193.957093 Y203.102452 Z-0.125000
G01 X195.336713 Y207.742212 Z-0.125000
G00 Z3.000000

(End cutting path id: polyline370)


(Start cutting path id: polyline372)
(Change tool to Default tool)

G00 Z3.000000
G00 X195.336683 Y155.959424

G00 Z4.875000 (Fast pre-penetrate)
G01 Z-0.125000 F400.0(Penetrate)
G01 X193.138313 Y163.477164 Z-0.125000 F800.000000
G01 X192.696063 Y167.175304 Z-0.125000
G01 X192.725063 Y170.158104 Z-0.125000
G01 X192.907623 Y172.889614 Z-0.125000
G01 X193.966223 Y180.247544 Z-0.125000
G01 X194.108883 Y183.044264 Z-0.125000
G01 X194.108883 Y186.036254 Z-0.125000
G01 X193.488123 Y188.081454 Z-0.125000
G01 X191.976923 Y188.700024 Z-0.125000
G01 X190.590273 Y189.515074 Z-0.125000
G01 X190.347253 Y192.157604 Z-0.125000
G01 X191.496523 Y197.027761 Z-0.125000
G01 X193.480763 Y203.235772 Z-0.125000
G01 X195.336683 Y209.465622 Z-0.125000
G00 Z3.000000

(End cutting path id: polyline372)


(Start cutting path id: polyline374)
(Change tool to Default tool)

G00 Z3.000000
G00 X195.336683 Y154.747794

G00 Z4.875000 (Fast pre-penetrate)
G01 Z-0.125000 F400.0(Penetrate)
G01 X192.835283 Y163.323734 Z-0.125000 F800.000000
G01 X192.395893 Y167.022084 Z-0.125000
G01 X192.421193 Y170.011154 Z-0.125000
G01 X192.580973 Y172.781264 Z-0.125000
G01 X193.508763 Y180.361104 Z-0.125000
G01 X193.634253 Y183.186934 Z-0.125000
G01 X193.633253 Y186.180554 Z-0.125000
G01 X193.012803 Y188.223614 Z-0.125000
G01 X191.500873 Y188.838984 Z-0.125000
G01 X190.113003 Y189.651044 Z-0.125000
G01 X189.869213 Y192.292034 Z-0.125000
G01 X191.018823 Y197.162398 Z-0.125000
G01 X193.004393 Y203.371612 Z-0.125000
G01 X194.987493 Y210.016912 Z-0.125000
G01 X195.336643 Y214.614492 Z-0.125000
G00 Z3.000000

(End cutting path id: polyline374)


(Start cutting path id: polyline376)
(Change tool to Default tool)

G00 Z3.000000
G00 X195.336683 Y153.513094

G00 Z4.875000 (Fast pre-penetrate)
G01 Z-0.125000 F400.0(Penetrate)
G01 X194.007683 Y157.912004 Z-0.125000 F800.000000
G01 X192.533533 Y163.172104 Z-0.125000
G01 X192.097043 Y166.870634 Z-0.125000
G01 X192.118643 Y169.865904 Z-0.125000
G01 X192.255563 Y172.674244 Z-0.125000
G01 X193.051593 Y180.474524 Z-0.125000
G01 X193.159653 Y183.329594 Z-0.125000
G01 X193.157653 Y186.325184 Z-0.125000
G01 X192.537443 Y188.366624 Z-0.125000
G01 X191.024903 Y188.979534 Z-0.125000
G01 X189.636123 Y189.789294 Z-0.125000
G01 X189.391763 Y192.429114 Z-0.125000
G01 X190.541583 Y197.299618 Z-0.125000
G01 X192.528213 Y203.509752 Z-0.125000
G01 X194.514353 Y210.154682 Z-0.125000
G01 X195.110463 Y217.743272 Z-0.125000
G01 X193.880993 Y224.536452 Z-0.125000
G01 X192.831183 Y226.353742 Z-0.125000
G01 X194.398553 Y226.633302 Z-0.125000
G01 X195.336783 Y228.409289 Z-0.125000
G00 Z3.000000

(End cutting path id: polyline376)


(Start cutting path id: polyline378)
(Change tool to Default tool)

G00 Z3.000000
G00 X195.336683 Y152.206524

G00 Z4.875000 (Fast pre-penetrate)
G01 Z-0.125000 F400.0(Penetrate)
G01 X192.232853 Y163.022134 Z-0.125000 F800.000000
G01 X191.799413 Y166.720794 Z-0.125000
G01 X191.931283 Y172.568384 Z-0.125000
G01 X192.594723 Y180.587824 Z-0.125000
G01 X192.681623 Y186.470034 Z-0.125000
G01 X192.061603 Y188.510294 Z-0.125000
G01 X190.548633 Y189.121424 Z-0.125000
G01 X189.159203 Y189.929514 Z-0.125000
G01 X188.914403 Y192.568474 Z-0.125000
G01 X190.064413 Y197.439078 Z-0.125000
G01 X192.051753 Y203.649872 Z-0.125000
G01 X194.040603 Y210.294112 Z-0.125000
G01 X194.655463 Y217.869082 Z-0.125000
G01 X193.465743 Y224.631352 Z-0.125000
G01 X192.487873 Y226.346462 Z-0.125000
G01 X192.008863 Y226.259662 Z-0.125000
G01 X190.174883 Y226.978903 Z-0.125000
G01 X189.942023 Y228.364499 Z-0.125000
G01 X191.409193 Y228.238372 Z-0.125000
G01 X192.487873 Y226.346492 Z-0.125000
G01 X194.098413 Y226.638462 Z-0.125000
G01 X195.336663 Y229.041303 Z-0.125000
G00 Z3.000000

(End cutting path id: polyline378)


(Start cutting path id: polyline380)
(Change tool to Default tool)

G00 Z3.000000
G00 X195.336683 Y149.968704

G00 Z4.875000 (Fast pre-penetrate)
G01 Z-0.125000 F400.0(Penetrate)
G01 X194.984123 Y152.162734 Z-0.125000 F800.000000
G01 X191.933163 Y162.873594 Z-0.125000
G01 X191.502763 Y166.572344 Z-0.125000
G01 X191.607963 Y172.463604 Z-0.125000
G01 X192.138193 Y180.701014 Z-0.125000
G01 X192.205593 Y186.615084 Z-0.125000
G01 X191.585673 Y188.654544 Z-0.125000
G01 X190.072413 Y189.264464 Z-0.125000
G01 X188.682553 Y190.071414 Z-0.125000
G01 X188.437473 Y192.709764 Z-0.125000
G01 X189.587593 Y197.580415 Z-0.125000
G01 X191.575463 Y203.791662 Z-0.125000
G01 X193.566743 Y210.434982 Z-0.125000
G01 X194.200233 Y217.995982 Z-0.125000
G01 X193.050433 Y224.726922 Z-0.125000
G01 X192.143813 Y226.338762 Z-0.125000
G01 X193.798113 Y226.643562 Z-0.125000
G01 X195.287383 Y229.607878 Z-0.125000
G01 X195.336683 Y230.746486 Z-0.125000
G00 Z3.000000

(End cutting path id: polyline380)


(Start cutting path id: polygon382)
(Change tool to Default tool)

G00 Z3.000000
G00 X115.718423 Y198.508862

G00 Z4.875000 (Fast pre-penetrate)
G01 Z-0.125000 F400.0(Penetrate)
G01 X116.599253 Y198.035095 Z-0.125000 F800.000000
G01 X115.510123 Y198.146142 Z-0.125000
G01 X115.105363 Y198.454382 Z-0.125000
G01 X115.718423 Y198.508862 Z-0.125000
G00 Z3.000000

(End cutting path id: polygon382)


(Start cutting path id: polygon384)
(Change tool to Default tool)

G00 Z3.000000
G00 X113.133793 Y199.171822

G00 Z4.875000 (Fast pre-penetrate)
G01 Z-0.125000 F400.0(Penetrate)
G01 X114.327463 Y198.472242 Z-0.125000 F800.000000
G01 X113.515113 Y198.254942 Z-0.125000
G01 X112.241983 Y199.100892 Z-0.125000
G01 X113.133793 Y199.171822 Z-0.125000
G00 Z3.000000

(End cutting path id: polygon384)


(Start cutting path id: polygon388)
(Change tool to Default tool)

G00 Z3.000000
G00 X111.503293 Y198.529762

G00 Z4.875000 (Fast pre-penetrate)
G01 Z-0.125000 F400.0(Penetrate)
G01 X109.366523 Y199.778012 Z-0.125000 F800.000000
G01 X110.549153 Y199.898902 Z-0.125000
G01 X112.041513 Y199.045122 Z-0.125000
G01 X111.503293 Y198.529762 Z-0.125000
G00 Z3.000000

(End cutting path id: polygon388)


(Start cutting path id: polygon386)
(Change tool to Default tool)

G00 Z3.000000
G00 X110.287563 Y199.538222

G00 Z4.875000 (Fast pre-penetrate)
G01 Z-0.125000 F400.0(Penetrate)
G01 X111.410723 Y199.650382 Z-0.125000 F800.000000
G01 X112.805683 Y198.839772 Z-0.125000
G01 X112.176903 Y198.419982 Z-0.125000
G01 X110.287563 Y199.538222 Z-0.125000
G00 Z3.000000

(End cutting path id: polygon386)


(Start cutting path id: polygon390)
(Change tool to Default tool)

G00 Z3.000000
G00 X109.256853 Y200.281542

G00 Z4.875000 (Fast pre-penetrate)
G01 Z-0.125000 F400.0(Penetrate)
G01 X110.890253 Y199.378602 Z-0.125000 F800.000000
G01 X110.485573 Y198.727562 Z-0.125000
G01 X108.682463 Y199.615032 Z-0.125000
G01 X107.989183 Y200.124192 Z-0.125000
G01 X109.256853 Y200.281542 Z-0.125000
G00 Z3.000000

(End cutting path id: polygon390)


(Start cutting path id: polygon396)
(Change tool to Default tool)

G00 Z3.000000
G00 X107.390323 Y200.540862

G00 Z4.875000 (Fast pre-penetrate)
G01 Z-0.125000 F400.0(Penetrate)
G01 X107.360923 Y199.543642 Z-0.125000 F800.000000
G01 X105.706003 Y200.021772 Z-0.125000
G01 X103.775923 Y201.114692 Z-0.125000
G01 X105.379933 Y201.479332 Z-0.125000
G01 X107.390323 Y200.540862 Z-0.125000
G00 Z3.000000

(End cutting path id: polygon396)


(Start cutting path id: polygon392)
(Change tool to Default tool)

G00 Z3.000000
G00 X107.375903 Y199.754542

G00 Z4.875000 (Fast pre-penetrate)
G01 Z-0.125000 F400.0(Penetrate)
G01 X106.130563 Y200.577482 Z-0.125000 F800.000000
G01 X107.533753 Y200.806632 Z-0.125000
G01 X109.344083 Y199.867362 Z-0.125000
G01 X109.111673 Y199.050802 Z-0.125000
G01 X107.375903 Y199.754542 Z-0.125000
G00 Z3.000000

(End cutting path id: polygon392)


(Start cutting path id: polygon394)
(Change tool to Default tool)

G00 Z3.000000
G00 X107.045433 Y199.799942

G00 Z4.875000 (Fast pre-penetrate)
G01 Z-0.125000 F400.0(Penetrate)
G01 X105.662113 Y200.688122 Z-0.125000 F800.000000
G01 X107.102983 Y200.940012 Z-0.125000
G01 X108.955333 Y199.996822 Z-0.125000
G01 X108.764703 Y199.141742 Z-0.125000
G01 X107.045433 Y199.799942 Z-0.125000
G00 Z3.000000

(End cutting path id: polygon394)


(Start cutting path id: polygon400)
(Change tool to Default tool)

G00 Z3.000000
G00 X103.636543 Y200.466772

G00 Z4.875000 (Fast pre-penetrate)
G01 Z-0.125000 F400.0(Penetrate)
G01 X101.423253 Y201.465662 Z-0.125000 F800.000000
G01 X99.945658 Y201.369962 Z-0.125000
G01 X102.795273 Y202.295922 Z-0.125000
G01 X105.009893 Y201.422982 Z-0.125000
G01 X105.201293 Y200.249322 Z-0.125000
G01 X103.636543 Y200.466772 Z-0.125000
G00 Z3.000000

(End cutting path id: polygon400)


(Start cutting path id: polygon402)
(Change tool to Default tool)

G00 Z3.000000
G00 X102.585753 Y202.360852

G00 Z4.875000 (Fast pre-penetrate)
G01 Z-0.125000 F400.0(Penetrate)
G01 X102.968103 Y201.055232 Z-0.125000 F800.000000
G01 X101.484103 Y201.027732 Z-0.125000
G01 X99.269298 Y201.775362 Z-0.125000
G01 X96.711598 Y201.321262 Z-0.125000
G01 X96.923108 Y201.643942 Z-0.125000
G01 X100.210668 Y203.104422 Z-0.125000
G01 X102.585753 Y202.360852 Z-0.125000
G00 Z3.000000

(End cutting path id: polygon402)


(Start cutting path id: polygon398)
(Change tool to Default tool)

G00 Z3.000000
G00 X101.397563 Y201.368552

G00 Z4.875000 (Fast pre-penetrate)
G01 Z-0.125000 F400.0(Penetrate)
G01 X103.656843 Y202.023662 Z-0.125000 F800.000000
G01 X105.808033 Y201.121382 Z-0.125000
G01 X105.928923 Y200.001612 Z-0.125000
G01 X104.335043 Y200.304402 Z-0.125000
G01 X102.122073 Y201.387952 Z-0.125000
G01 X101.397563 Y201.368552 Z-0.125000
G00 Z3.000000

(End cutting path id: polygon398)


(Start cutting path id: polygon404)
(Change tool to Default tool)

G00 Z3.000000
G00 X101.116653 Y201.130772

G00 Z4.875000 (Fast pre-penetrate)
G01 Z-0.125000 F400.0(Penetrate)
G01 X98.901508 Y201.837262 Z-0.125000 F800.000000
G01 X96.246918 Y201.311592 Z-0.125000
G01 X96.496918 Y201.706562 Z-0.125000
G01 X99.779868 Y203.237072 Z-0.125000
G01 X102.177233 Y202.520582 Z-0.125000
G01 X102.588243 Y201.197242 Z-0.125000
G01 X101.116653 Y201.130772 Z-0.125000
G00 Z3.000000

(End cutting path id: polygon404)


(Start cutting path id: polygon406)
(Change tool to Default tool)

G00 Z3.000000
G00 X96.764488 Y204.137152

G00 Z4.875000 (Fast pre-penetrate)
G01 Z-0.125000 F400.0(Penetrate)
G01 X99.280868 Y203.647592 Z-0.125000 F800.000000
G01 X99.864908 Y202.232342 Z-0.125000
G01 X98.470998 Y201.910232 Z-0.125000
G01 X96.252998 Y202.337782 Z-0.125000
G01 X93.169338 Y201.329162 Z-0.125000
G01 X93.544668 Y202.088192 Z-0.125000
G01 X96.764488 Y204.137152 Z-0.125000
G00 Z3.000000

(End cutting path id: polygon406)


(Start cutting path id: polygon410)
(Change tool to Default tool)

G00 Z3.000000
G00 X95.472158 Y204.503262

G00 Z4.875000 (Fast pre-penetrate)
G01 Z-0.125000 F400.0(Penetrate)
G01 X98.019838 Y204.127502 Z-0.125000 F800.000000
G01 X98.662878 Y202.689122 Z-0.125000
G01 X97.297068 Y202.267452 Z-0.125000
G01 X95.077618 Y202.581802 Z-0.125000
G01 X91.933758 Y201.408372 Z-0.125000
G01 X92.295208 Y202.221972 Z-0.125000
G01 X95.472158 Y204.503262 Z-0.125000
G00 Z3.000000

(End cutting path id: polygon410)


(Start cutting path id: polygon418)
(Change tool to Default tool)

G00 Z3.000000
G00 X94.079928 Y204.340192

G00 Z4.875000 (Fast pre-penetrate)
G01 Z-0.125000 F400.0(Penetrate)
G01 X92.788968 Y203.610212 Z-0.125000 F800.000000
G01 X90.563298 Y203.555012 Z-0.125000
G01 X87.644305 Y202.107852 Z-0.125000
G01 X87.782073 Y202.570212 Z-0.125000
G01 X90.733688 Y205.705422 Z-0.125000
G01 X93.299298 Y205.794222 Z-0.125000
G01 X94.079928 Y204.340192 Z-0.125000
G00 Z3.000000

(End cutting path id: polygon418)


(Start cutting path id: polygon416)
(Change tool to Default tool)

G00 Z3.000000
G00 X94.168318 Y205.507012

G00 Z4.875000 (Fast pre-penetrate)
G01 Z-0.125000 F400.0(Penetrate)
G01 X94.933018 Y204.048892 Z-0.125000 F800.000000
G01 X93.631768 Y203.368122 Z-0.125000
G01 X91.407288 Y203.374122 Z-0.125000
G01 X88.408765 Y201.939542 Z-0.125000
G01 X88.595693 Y202.522472 Z-0.125000
G01 X91.595218 Y205.505632 Z-0.125000
G01 X94.168318 Y205.507012 Z-0.125000
G00 Z3.000000

(End cutting path id: polygon416)


(Start cutting path id: polygon414)
(Change tool to Default tool)

G00 Z3.000000
G00 X93.064848 Y203.014582

G00 Z4.875000 (Fast pre-penetrate)
G01 Z-0.125000 F400.0(Penetrate)
G01 X89.951738 Y201.652482 Z-0.125000 F800.000000
G01 X90.231558 Y202.406802 Z-0.125000
G01 X93.318318 Y205.079682 Z-0.125000
G01 X95.892428 Y204.908812 Z-0.125000
G01 X96.613278 Y203.451092 Z-0.125000
G01 X95.287008 Y202.877902 Z-0.125000
G01 X93.064848 Y203.014582 Z-0.125000
G00 Z3.000000

(End cutting path id: polygon414)


(Start cutting path id: polygon408)
(Change tool to Default tool)

G00 Z3.000000
G00 X92.752718 Y201.350012

G00 Z4.875000 (Fast pre-penetrate)
G01 Z-0.125000 F400.0(Penetrate)
G01 X93.127188 Y202.134732 Z-0.125000 F800.000000
G01 X96.333728 Y204.260712 Z-0.125000
G01 X98.861818 Y203.808142 Z-0.125000
G01 X99.466578 Y202.384162 Z-0.125000
G01 X98.082378 Y202.028192 Z-0.125000
G01 X95.863928 Y202.417492 Z-0.125000
G01 X92.752718 Y201.350012 Z-0.125000
G00 Z3.000000

(End cutting path id: polygon408)


(Start cutting path id: polygon412)
(Change tool to Default tool)

G00 Z3.000000
G00 X90.735268 Y201.538362

G00 Z4.875000 (Fast pre-penetrate)
G01 Z-0.125000 F400.0(Penetrate)
G01 X91.054338 Y202.338442 Z-0.125000 F800.000000
G01 X94.179858 Y204.854602 Z-0.125000
G01 X96.747188 Y204.599942 Z-0.125000
G01 X97.439998 Y203.147212 Z-0.125000
G01 X96.099008 Y202.632422 Z-0.125000
G01 X93.877968 Y202.838392 Z-0.125000
G01 X90.735268 Y201.538362 Z-0.125000
G00 Z3.000000

(End cutting path id: polygon412)


(Start cutting path id: polygon420)
(Change tool to Default tool)

G00 Z3.000000
G00 X91.074338 Y204.081882

G00 Z4.875000 (Fast pre-penetrate)
G01 Z-0.125000 F400.0(Penetrate)
G01 X88.846307 Y203.913422 Z-0.125000 F800.000000
G01 X86.119458 Y202.481052 Z-0.125000
G01 X86.162218 Y202.647362 Z-0.125000
G01 X89.010589 Y206.076812 Z-0.125000
G01 X91.548178 Y206.339602 Z-0.125000
G01 X92.349048 Y204.900902 Z-0.125000
G01 X91.074338 Y204.081882 Z-0.125000
G00 Z3.000000

(End cutting path id: polygon420)


(Start cutting path id: polygon480)
(Change tool to Default tool)

G00 Z3.000000
G00 X89.764388 Y204.419752

G00 Z4.875000 (Fast pre-penetrate)
G01 Z-0.125000 F400.0(Penetrate)
G01 X87.534555 Y204.174782 Z-0.125000 F800.000000
G01 X85.049827 Y202.818582 Z-0.125000
G01 X87.718282 Y206.329412 Z-0.125000
G01 X90.224288 Y206.719622 Z-0.125000
G01 X91.030598 Y205.297462 Z-0.125000
G01 X89.764388 Y204.419752 Z-0.125000
G00 Z3.000000

(End cutting path id: polygon480)


(Start cutting path id: polygon424)
(Change tool to Default tool)

G00 Z3.000000
G00 X87.974002 Y204.088662

G00 Z4.875000 (Fast pre-penetrate)
G01 Z-0.125000 F400.0(Penetrate)
G01 X85.355368 Y202.677532 Z-0.125000 F800.000000
G01 X88.149050 Y206.247762 Z-0.125000
G01 X90.666538 Y206.595932 Z-0.125000
G01 X91.471928 Y205.167862 Z-0.125000
G01 X90.203218 Y204.308972 Z-0.125000
G01 X87.974002 Y204.088662 Z-0.125000
G00 Z3.000000

(End cutting path id: polygon424)


(Start cutting path id: polygon422)
(Change tool to Default tool)

G00 Z3.000000
G00 X88.579845 Y206.163542

G00 Z4.875000 (Fast pre-penetrate)
G01 Z-0.125000 F400.0(Penetrate)
G01 X91.107828 Y206.469222 Z-0.125000 F800.000000
G01 X91.911428 Y205.035632 Z-0.125000
G01 X90.639888 Y204.196292 Z-0.125000
G01 X88.411252 Y204.001482 Z-0.125000
G01 X85.737955 Y202.579952 Z-0.125000
G01 X88.579845 Y206.163542 Z-0.125000
G00 Z3.000000

(End cutting path id: polygon422)


(Start cutting path id: polygon430)
(Change tool to Default tool)

G00 Z3.000000
G00 X85.610638 Y206.602142

G00 Z4.875000 (Fast pre-penetrate)
G01 Z-0.125000 F400.0(Penetrate)
G01 X84.349343 Y205.556112 Z-0.125000 F800.000000
G01 X82.113137 Y205.081192 Z-0.125000
G01 X81.085125 Y204.469712 Z-0.125000
G01 X82.549038 Y207.102392 Z-0.125000
G01 X84.855702 Y207.937472 Z-0.125000
G01 X85.610638 Y206.602142 Z-0.125000
G00 Z3.000000

(End cutting path id: polygon430)


(Start cutting path id: polygon428)
(Change tool to Default tool)

G00 Z3.000000
G00 X82.979806 Y207.052702

G00 Z4.875000 (Fast pre-penetrate)
G01 Z-0.125000 F400.0(Penetrate)
G01 X85.306684 Y207.856242 Z-0.125000 F800.000000
G01 X86.069822 Y206.513402 Z-0.125000
G01 X84.809718 Y205.477592 Z-0.125000
G01 X82.573988 Y205.017082 Z-0.125000
G01 X81.437100 Y204.342872 Z-0.125000
G01 X82.979806 Y207.052702 Z-0.125000
G00 Z3.000000

(End cutting path id: polygon428)


(Start cutting path id: polygon434)
(Change tool to Default tool)

G00 Z3.000000
G00 X82.960227 Y205.771482

G00 Z4.875000 (Fast pre-penetrate)
G01 Z-0.125000 F400.0(Penetrate)
G01 X80.722672 Y205.258302 Z-0.125000 F800.000000
G01 X80.007186 Y204.830632 Z-0.125000
G01 X81.256734 Y207.235612 Z-0.125000
G01 X83.499898 Y208.157812 Z-0.125000
G01 X84.226655 Y206.844402 Z-0.125000
G01 X82.960227 Y205.771482 Z-0.125000
G00 Z3.000000

(End cutting path id: polygon434)


(Start cutting path id: polygon426)
(Change tool to Default tool)

G00 Z3.000000
G00 X83.491325 Y204.881722

G00 Z4.875000 (Fast pre-penetrate)
G01 Z-0.125000 F400.0(Penetrate)
G01 X82.129568 Y204.080612 Z-0.125000 F800.000000
G01 X83.841343 Y206.945342 Z-0.125000
G01 X86.206982 Y207.682312 Z-0.125000
G01 X86.984619 Y206.324232 Z-0.125000
G01 X85.726102 Y205.310792 Z-0.125000
G01 X83.491325 Y204.881722 Z-0.125000
G00 Z3.000000

(End cutting path id: polygon426)


(Start cutting path id: polygon478)
(Change tool to Default tool)

G00 Z3.000000
G00 X83.791363 Y203.388092

G00 Z4.875000 (Fast pre-penetrate)
G01 Z-0.125000 F400.0(Penetrate)
G01 X85.995210 Y206.629822 Z-0.125000 F800.000000
G01 X88.446495 Y207.182322 Z-0.125000
G01 X89.247944 Y205.786862 Z-0.125000
G01 X87.988316 Y204.841552 Z-0.125000
G01 X85.756211 Y204.506142 Z-0.125000
G01 X83.791363 Y203.388092 Z-0.125000
G00 Z3.000000

(End cutting path id: polygon478)


(Start cutting path id: polygon432)
(Change tool to Default tool)

G00 Z3.000000
G00 X81.650910 Y205.142812

G00 Z4.875000 (Fast pre-penetrate)
G01 Z-0.125000 F400.0(Penetrate)
G01 X80.729419 Y204.593432 Z-0.125000 F800.000000
G01 X82.118270 Y207.149412 Z-0.125000
G01 X84.404217 Y208.014812 Z-0.125000
G01 X85.150342 Y206.686942 Z-0.125000
G01 X83.887592 Y205.631332 Z-0.125000
G01 X81.650910 Y205.142812 Z-0.125000
G00 Z3.000000

(End cutting path id: polygon432)


(Start cutting path id: polygon438)
(Change tool to Default tool)

G00 Z3.000000
G00 X80.030417 Y207.350682

G00 Z4.875000 (Fast pre-penetrate)
G01 Z-0.125000 F400.0(Penetrate)
G01 X78.736974 Y206.227102 Z-0.125000 F800.000000
G01 X76.582446 Y205.664672 Z-0.125000
G01 X77.379794 Y207.501172 Z-0.125000
G01 X79.414281 Y208.611102 Z-0.125000
G01 X80.030417 Y207.350682 Z-0.125000
G00 Z3.000000

(End cutting path id: polygon438)


(Start cutting path id: polygon436)
(Change tool to Default tool)

G00 Z3.000000
G00 X79.533635 Y207.377432

G00 Z4.875000 (Fast pre-penetrate)
G01 Z-0.125000 F400.0(Penetrate)
G01 X81.686682 Y208.397082 Z-0.125000 F800.000000
G01 X82.368487 Y207.110122 Z-0.125000
G01 X81.092004 Y206.009582 Z-0.125000
G01 X78.852915 Y205.456922 Z-0.125000
G01 X78.522186 Y205.259672 Z-0.125000
G01 X79.533635 Y207.377432 Z-0.125000
G00 Z3.000000

(End cutting path id: polygon436)


(Start cutting path id: polygon442)
(Change tool to Default tool)

G00 Z3.000000
G00 X79.091807 Y207.419652

G00 Z4.875000 (Fast pre-penetrate)
G01 Z-0.125000 F400.0(Penetrate)
G01 X77.790481 Y206.289882 Z-0.125000 F800.000000
G01 X75.772292 Y205.755902 Z-0.125000
G01 X76.518232 Y207.535622 Z-0.125000
G01 X78.504247 Y208.671872 Z-0.125000
G01 X79.091807 Y207.419652 Z-0.125000
G00 Z3.000000

(End cutting path id: polygon442)


(Start cutting path id: polygon444)
(Change tool to Default tool)

G00 Z3.000000
G00 X77.681525 Y207.496332

G00 Z4.875000 (Fast pre-penetrate)
G01 Z-0.125000 F400.0(Penetrate)
G01 X76.367393 Y206.360022 Z-0.125000 F800.000000
G01 X74.547853 Y205.872532 Z-0.125000
G01 X75.225927 Y207.573222 Z-0.125000
G01 X77.138627 Y208.739082 Z-0.125000
G01 X77.681525 Y207.496332 Z-0.125000
G00 Z3.000000

(End cutting path id: polygon444)


(Start cutting path id: polygon446)
(Change tool to Default tool)

G00 Z3.000000
G00 X76.269365 Y207.544512

G00 Z4.875000 (Fast pre-penetrate)
G01 Z-0.125000 F400.0(Penetrate)
G01 X74.941527 Y206.404292 Z-0.125000 F800.000000
G01 X73.313440 Y205.966032 Z-0.125000
G01 X73.933623 Y207.596322 Z-0.125000
G01 X75.772821 Y208.780992 Z-0.125000
G01 X76.269365 Y207.544512 Z-0.125000
G00 Z3.000000

(End cutting path id: polygon446)


(Start cutting path id: polygon440)
(Change tool to Default tool)

G00 Z3.000000
G00 X76.178004 Y205.711642

G00 Z4.875000 (Fast pre-penetrate)
G01 Z-0.125000 F400.0(Penetrate)
G01 X76.949000 Y207.519402 Z-0.125000 F800.000000
G01 X78.959330 Y208.643172 Z-0.125000
G01 X79.561310 Y207.387002 Z-0.125000
G01 X78.263979 Y206.260172 Z-0.125000
G01 X76.178004 Y205.711642 Z-0.125000
G00 Z3.000000

(End cutting path id: polygon440)


(Start cutting path id: polygon448)
(Change tool to Default tool)

G00 Z3.000000
G00 X73.913991 Y207.576552

G00 Z4.875000 (Fast pre-penetrate)
G01 Z-0.125000 F400.0(Penetrate)
G01 X72.562023 Y206.433922 Z-0.125000 F800.000000
G01 X71.238498 Y206.079252 Z-0.125000
G01 X71.779756 Y207.611322 Z-0.125000
G01 X73.496849 Y208.808662 Z-0.125000
G01 X73.913991 Y207.576552 Z-0.125000
G00 Z3.000000

(End cutting path id: polygon448)


(Start cutting path id: polygon450)
(Change tool to Default tool)

G00 Z3.000000
G00 X72.500560 Y207.578932

G00 Z4.875000 (Fast pre-penetrate)
G01 Z-0.125000 F400.0(Penetrate)
G01 X71.133749 Y206.436142 Z-0.125000 F800.000000
G01 X69.986436 Y206.130822 Z-0.125000
G01 X70.487451 Y207.612402 Z-0.125000
G01 X72.131652 Y208.810702 Z-0.125000
G01 X72.500560 Y207.578932 Z-0.125000
G00 Z3.000000

(End cutting path id: polygon450)


(Start cutting path id: polygon452)
(Change tool to Default tool)

G00 Z3.000000
G00 X67.906124 Y207.612222

G00 Z4.875000 (Fast pre-penetrate)
G01 Z-0.125000 F400.0(Penetrate)
G01 X69.400252 Y208.809912 Z-0.125000 F800.000000
G01 X69.669069 Y207.578592 Z-0.125000
G01 X68.271196 Y206.436142 Z-0.125000
G01 X67.480568 Y206.228952 Z-0.125000
G01 X67.906124 Y207.612222 Z-0.125000
G00 Z3.000000

(End cutting path id: polygon452)


(Start cutting path id: polygon454)
(Change tool to Default tool)

G00 Z3.000000
G00 X66.829058 Y206.436122

G00 Z4.875000 (Fast pre-penetrate)
G01 Z-0.125000 F400.0(Penetrate)
G01 X66.234909 Y206.281712 Z-0.125000 F800.000000
G01 X66.622259 Y207.611402 Z-0.125000
G01 X68.032780 Y208.807742 Z-0.125000
G01 X68.244817 Y207.577642 Z-0.125000
G01 X66.829058 Y206.436122 Z-0.125000
G00 Z3.000000

(End cutting path id: polygon454)


(Start cutting path id: polygon456)
(Change tool to Default tool)

G00 Z3.000000
G00 X65.851555 Y207.573832

G00 Z4.875000 (Fast pre-penetrate)
G01 Z-0.125000 F400.0(Penetrate)
G01 X64.399918 Y206.436012 Z-0.125000 F800.000000
G01 X64.181505 Y206.380212 Z-0.125000
G01 X64.501889 Y207.606612 Z-0.125000
G01 X65.751410 Y208.798662 Z-0.125000
G01 X65.851555 Y207.573832 Z-0.125000
G00 Z3.000000

(End cutting path id: polygon456)


(Start cutting path id: polygon462)
(Change tool to Default tool)

G00 Z3.000000
G00 X63.926579 Y208.783952

G00 Z4.875000 (Fast pre-penetrate)
G01 Z-0.125000 F400.0(Penetrate)
G01 X63.918079 Y207.567902 Z-0.125000 F800.000000
G01 X62.585505 Y206.553572 Z-0.125000
G01 X62.829636 Y207.596772 Z-0.125000
G01 X63.926579 Y208.783952 Z-0.125000
G00 Z3.000000

(End cutting path id: polygon462)


(Start cutting path id: polygon464)
(Change tool to Default tool)

G00 Z3.000000
G00 X63.470807 Y208.779002

G00 Z4.875000 (Fast pre-penetrate)
G01 Z-0.125000 F400.0(Penetrate)
G01 X63.432207 Y207.565942 Z-0.125000 F800.000000
G01 X62.198216 Y206.634452 Z-0.125000
G01 X62.415598 Y207.593092 Z-0.125000
G01 X63.470807 Y208.779002 Z-0.125000
G00 Z3.000000

(End cutting path id: polygon464)


(Start cutting path id: polygon466)
(Change tool to Default tool)

G00 Z3.000000
G00 X63.015327 Y208.773452

G00 Z4.875000 (Fast pre-penetrate)
G01 Z-0.125000 F400.0(Penetrate)
G01 X62.945427 Y207.563772 Z-0.125000 F800.000000
G01 X61.811846 Y206.715542 Z-0.125000
G01 X62.003325 Y207.588852 Z-0.125000
G01 X63.015327 Y208.773452 Z-0.125000
G00 Z3.000000

(End cutting path id: polygon466)


(Start cutting path id: polygon468)
(Change tool to Default tool)

G00 Z3.000000
G00 X62.457797 Y207.561362

G00 Z4.875000 (Fast pre-penetrate)
G01 Z-0.125000 F400.0(Penetrate)
G01 X61.426319 Y206.796642 Z-0.125000 F800.000000
G01 X61.592901 Y207.583992 Z-0.125000
G01 X62.560217 Y208.767262 Z-0.125000
G01 X62.457797 Y207.561362 Z-0.125000
G00 Z3.000000

(End cutting path id: polygon468)


(Start cutting path id: polygon472)
(Change tool to Default tool)

G00 Z3.000000
G00 X61.480215 Y207.555832

G00 Z4.875000 (Fast pre-penetrate)
G01 Z-0.125000 F400.0(Penetrate)
G01 X60.657757 Y206.958012 Z-0.125000 F800.000000
G01 X60.777825 Y207.572162 Z-0.125000
G01 X61.651374 Y208.752942 Z-0.125000
G01 X61.480215 Y207.555832 Z-0.125000
G00 Z3.000000

(End cutting path id: polygon472)


(Start cutting path id: polygon470)
(Change tool to Default tool)

G00 Z3.000000
G00 X61.184358 Y207.578462

G00 Z4.875000 (Fast pre-penetrate)
G01 Z-0.125000 F400.0(Penetrate)
G01 X62.105531 Y208.760432 Z-0.125000 F800.000000
G01 X61.969376 Y207.558722 Z-0.125000
G01 X61.041641 Y206.877522 Z-0.125000
G01 X61.184358 Y207.578462 Z-0.125000
G00 Z3.000000

(End cutting path id: polygon470)


(Start cutting path id: polygon474)
(Change tool to Default tool)

G00 Z3.000000
G00 X59.892265 Y207.117002

G00 Z4.875000 (Fast pre-penetrate)
G01 Z-0.125000 F400.0(Penetrate)
G01 X59.970875 Y207.557132 Z-0.125000 F800.000000
G01 X60.744807 Y208.735742 Z-0.125000
G01 X60.500015 Y207.549272 Z-0.125000
G01 X59.892265 Y207.117002 Z-0.125000
G00 Z3.000000

(End cutting path id: polygon474)


(Start cutting path id: polygon476)
(Change tool to Default tool)

G00 Z3.000000
G00 X59.026363 Y207.537392

G00 Z4.875000 (Fast pre-penetrate)
G01 Z-0.125000 F400.0(Penetrate)
G01 X58.749450 Y207.347372 Z-0.125000 F800.000000
G01 X58.776780 Y207.527742 Z-0.125000
G01 X59.390666 Y208.704022 Z-0.125000
G01 X59.026363 Y207.537392 Z-0.125000
G00 Z3.000000

(End cutting path id: polygon476)


(Start cutting path id: polygon460)
(Change tool to Default tool)

G00 Z3.000000
G00 X62.973629 Y206.473002

G00 Z4.875000 (Fast pre-penetrate)
G01 Z-0.125000 F400.0(Penetrate)
G01 X63.245356 Y207.599892 Z-0.125000 F800.000000
G01 X64.382562 Y208.788342 Z-0.125000
G01 X64.402962 Y207.569672 Z-0.125000
G01 X62.973629 Y206.473002 Z-0.125000
G00 Z3.000000

(End cutting path id: polygon460)


(Start cutting path id: polygon458)
(Change tool to Default tool)

G00 Z3.000000
G00 X63.775105 Y206.401672

G00 Z4.875000 (Fast pre-penetrate)
G01 Z-0.125000 F400.0(Penetrate)
G01 X64.081572 Y207.604732 Z-0.125000 F800.000000
G01 X65.295030 Y208.795672 Z-0.125000
G01 X65.369720 Y207.572612 Z-0.125000
G01 X63.909828 Y206.436012 Z-0.125000
G01 X63.775105 Y206.401672 Z-0.125000
G00 Z3.000000

(End cutting path id: polygon458)


(Start cutting path id: polyline144)
(Change tool to Default tool)

G00 Z3.000000
G00 X15.336670 Y205.916792

G00 Z4.875000 (Fast pre-penetrate)
G01 Z-0.125000 F400.0(Penetrate)
G01 X16.332297 Y205.634352 Z-0.125000 F800.000000
G01 X19.285709 Y202.264172 Z-0.125000
G01 X20.870563 Y196.975451 Z-0.125000
G01 X20.169523 Y191.680164 Z-0.125000
G01 X17.804915 Y188.294654 Z-0.125000
G01 X15.336670 Y187.527444 Z-0.125000
G01 X17.342424 Y188.153844 Z-0.125000
G01 X19.741427 Y191.563054 Z-0.125000
G01 X20.492262 Y196.897341 Z-0.125000
G01 X18.956038 Y202.226942 Z-0.125000
G01 X16.034271 Y205.625282 Z-0.125000
G01 X15.336670 Y205.826202 Z-0.125000
G00 Z3.000000

(End cutting path id: polyline144)


(Start cutting path id: polyline142)
(Change tool to Default tool)

G00 Z3.000000
G00 X15.336670 Y205.732832

G00 Z4.875000 (Fast pre-penetrate)
G01 Z-0.125000 F400.0(Penetrate)
G01 X15.734948 Y205.616392 Z-0.125000 F800.000000
G01 X18.624938 Y202.190432 Z-0.125000
G01 X20.112532 Y196.820351 Z-0.125000
G01 X19.312114 Y191.447064 Z-0.125000
G01 X16.879138 Y188.013754 Z-0.125000
G01 X15.336670 Y187.532814 Z-0.125000
G01 X16.415165 Y187.874234 Z-0.125000
G01 X18.881690 Y191.332074 Z-0.125000
G01 X19.731479 Y196.744331 Z-0.125000
G01 X18.292542 Y202.154552 Z-0.125000
G01 X15.434434 Y205.607712 Z-0.125000
G01 X15.336674 Y205.636712 Z-0.125000
G00 Z3.000000

(End cutting path id: polyline142)


(Start cutting path id: polyline140)
(Change tool to Default tool)

G00 Z3.000000
G00 X15.336670 Y205.348202

G00 Z4.875000 (Fast pre-penetrate)
G01 Z-0.125000 F400.0(Penetrate)
G01 X17.958982 Y202.119202 Z-0.125000 F800.000000
G01 X19.349262 Y196.669221 Z-0.125000
G01 X18.450340 Y191.218044 Z-0.125000
G01 X15.950583 Y187.735304 Z-0.125000
G01 X15.336670 Y187.542584 Z-0.125000
G01 X15.485525 Y187.596884 Z-0.125000
G01 X18.018143 Y191.104754 Z-0.125000
G01 X18.966066 Y196.594861 Z-0.125000
G01 X17.624390 Y202.084342 Z-0.125000
G01 X15.336670 Y204.955362 Z-0.125000
G00 Z3.000000

(End cutting path id: polyline140)


(Start cutting path id: polyline146)
(Change tool to Default tool)

G00 Z3.000000
G00 X15.336670 Y210.746452

G00 Z4.875000 (Fast pre-penetrate)
G01 Z-0.125000 F400.0(Penetrate)
G01 X15.946350 Y215.577712 Z-0.125000 F800.000000
G01 X18.888331 Y228.360341 Z-0.125000
G01 X19.270178 Y232.112636 Z-0.125000
G01 X19.937166 Y234.997414 Z-0.125000
G01 X21.960461 Y236.694928 Z-0.125000
G01 X25.989007 Y237.800119 Z-0.125000
G01 X25.878993 Y239.010482 Z-0.125000
G01 X22.430811 Y244.604514 Z-0.125000
G01 X21.336468 Y246.651490 Z-0.125000
G01 X21.703974 Y247.656271 Z-0.125000
G01 X22.957464 Y249.257741 Z-0.125000
G01 X23.975845 Y252.748151 Z-0.125000
G01 X23.774259 Y258.171342 Z-0.125000
G01 X22.185807 Y264.529571 Z-0.125000
G01 X20.346000 Y271.298697 Z-0.125000
G00 Z3.000000

(End cutting path id: polyline146)


(Start cutting path id: polyline148)
(Change tool to Default tool)

G00 Z3.000000
G00 X15.336670 Y253.093459

G00 Z4.875000 (Fast pre-penetrate)
G01 Z-0.125000 F400.0(Penetrate)
G01 X15.647635 Y253.823180 Z-0.125000 F800.000000
G01 X15.653635 Y259.247006 Z-0.125000
G01 X15.336664 Y260.477689 Z-0.125000
G00 Z3.000000

(End cutting path id: polyline148)


(Start cutting path id: polyline150)
(Change tool to Default tool)

G00 Z3.000000
G00 X15.336670 Y252.151225

G00 Z4.875000 (Fast pre-penetrate)
G01 Z-0.125000 F400.0(Penetrate)
G01 X16.026651 Y253.789657 Z-0.125000 F800.000000
G01 X16.030151 Y259.229993 Z-0.125000
G01 X15.336704 Y261.924695 Z-0.125000
G00 Z3.000000

(End cutting path id: polyline150)


(Start cutting path id: polyline152)
(Change tool to Default tool)

G00 Z3.000000
G00 X15.336670 Y251.188829

G00 Z4.875000 (Fast pre-penetrate)
G01 Z-0.125000 F400.0(Penetrate)
G01 X16.404423 Y253.754997 Z-0.125000 F800.000000
G01 X16.404873 Y259.210731 Z-0.125000
G01 X15.336670 Y263.365325 Z-0.125000
G00 Z3.000000

(End cutting path id: polyline152)


(Start cutting path id: polyline154)
(Change tool to Default tool)

G00 Z3.000000
G00 X15.336670 Y250.219528

G00 Z4.875000 (Fast pre-penetrate)
G01 Z-0.125000 F400.0(Penetrate)
G01 X16.780872 Y253.719172 Z-0.125000 F800.000000
G01 X16.777772 Y259.189062 Z-0.125000
G01 X15.336666 Y264.799155 Z-0.125000
G00 Z3.000000

(End cutting path id: polyline154)


(Start cutting path id: polyline156)
(Change tool to Default tool)

G00 Z3.000000
G00 X15.336670 Y249.815668

G00 Z4.875000 (Fast pre-penetrate)
G01 Z-0.125000 F400.0(Penetrate)
G01 X15.729074 Y250.167300 Z-0.125000 F800.000000
G01 X17.155972 Y253.682077 Z-0.125000
G01 X17.148772 Y259.164853 Z-0.125000
G01 X15.336667 Y266.146783 Z-0.125000
G00 Z3.000000

(End cutting path id: polyline156)


(Start cutting path id: polyline158)
(Change tool to Default tool)

G00 Z3.000000
G00 X15.336670 Y249.397415

G00 Z4.875000 (Fast pre-penetrate)
G01 Z-0.125000 F400.0(Penetrate)
G01 X16.112243 Y250.108006 Z-0.125000 F800.000000
G01 X17.529590 Y253.643739 Z-0.125000
G01 X17.517760 Y259.138050 Z-0.125000
G01 X15.336667 Y267.397601 Z-0.125000
G00 Z3.000000

(End cutting path id: polyline158)


(Start cutting path id: polyline160)
(Change tool to Default tool)

G00 Z3.000000
G00 X15.336670 Y248.965059

G00 Z4.875000 (Fast pre-penetrate)
G01 Z-0.125000 F400.0(Penetrate)
G01 X16.495148 Y250.049613 Z-0.125000 F800.000000
G01 X17.901753 Y253.604105 Z-0.125000
G01 X17.884683 Y259.108576 Z-0.125000
G01 X16.249135 Y265.493897 Z-0.125000
G01 X15.336666 Y268.640666 Z-0.125000
G00 Z3.000000

(End cutting path id: polyline160)


(Start cutting path id: polyline162)
(Change tool to Default tool)

G00 Z3.000000
G00 X15.336670 Y248.518919

G00 Z4.875000 (Fast pre-penetrate)
G01 Z-0.125000 F400.0(Penetrate)
G01 X16.877762 Y249.992119 Z-0.125000 F800.000000
G01 X18.272355 Y253.563174 Z-0.125000
G01 X18.249465 Y259.076323 Z-0.125000
G01 X16.615107 Y265.463417 Z-0.125000
G01 X15.336667 Y269.876376 Z-0.125000
G00 Z3.000000

(End cutting path id: polyline162)


(Start cutting path id: polyline164)
(Change tool to Default tool)

G00 Z3.000000
G00 X15.336670 Y247.932602

G00 Z4.875000 (Fast pre-penetrate)
G01 Z-0.125000 F400.0(Penetrate)
G01 X15.606942 Y248.322889 Z-0.125000 F800.000000
G01 X17.260085 Y249.935657 Z-0.125000
G01 X18.641369 Y253.520946 Z-0.125000
G01 X18.612029 Y259.041213 Z-0.125000
G01 X16.979047 Y265.429736 Z-0.125000
G01 X15.336672 Y271.105048 Z-0.125000
G00 Z3.000000

(End cutting path id: polyline164)


(Start cutting path id: polyline166)
(Change tool to Default tool)

G00 Z3.000000
G00 X15.336670 Y237.143185

G00 Z4.875000 (Fast pre-penetrate)
G01 Z-0.125000 F400.0(Penetrate)
G01 X15.643666 Y238.469118 Z-0.125000 F800.000000
G01 X15.336670 Y239.514249 Z-0.125000
G00 Z3.000000

(End cutting path id: polyline166)


(Start cutting path id: polyline168)
(Change tool to Default tool)

G00 Z3.000000
G00 X15.336670 Y235.758462

G00 Z4.875000 (Fast pre-penetrate)
G01 Z-0.125000 F400.0(Penetrate)
G01 X16.004188 Y238.408687 Z-0.125000 F800.000000
G01 X15.336670 Y240.686247 Z-0.125000
G00 Z3.000000

(End cutting path id: polyline168)


(Start cutting path id: polyline170)
(Change tool to Default tool)

G00 Z3.000000
G00 X15.336670 Y235.259563

G00 Z4.875000 (Fast pre-penetrate)
G01 Z-0.125000 F400.0(Penetrate)
G01 X15.686423 Y235.804605 Z-0.125000 F800.000000
G01 X16.365053 Y238.349685 Z-0.125000
G01 X15.582495 Y241.027083 Z-0.125000
G01 X15.336670 Y241.413401 Z-0.125000
G00 Z3.000000

(End cutting path id: polyline170)


(Start cutting path id: polyline172)
(Change tool to Default tool)

G00 Z3.000000
G00 X15.336670 Y234.807655

G00 Z4.875000 (Fast pre-penetrate)
G01 Z-0.125000 F400.0(Penetrate)
G01 X16.021015 Y235.827915 Z-0.125000 F800.000000
G01 X16.726315 Y238.292350 Z-0.125000
G01 X15.963362 Y240.911275 Z-0.125000
G01 X15.336670 Y241.893038 Z-0.125000
G00 Z3.000000

(End cutting path id: polyline172)


(Start cutting path id: polyline174)
(Change tool to Default tool)

G00 Z3.000000
G00 X15.336670 Y234.401467

G00 Z4.875000 (Fast pre-penetrate)
G01 Z-0.125000 F400.0(Penetrate)
G01 X16.355554 Y235.853262 Z-0.125000 F800.000000
G01 X17.088027 Y238.236893 Z-0.125000
G01 X16.345077 Y240.797319 Z-0.125000
G01 X15.336670 Y242.372304 Z-0.125000
G00 Z3.000000

(End cutting path id: polyline174)


(Start cutting path id: polyline176)
(Change tool to Default tool)

G00 Z3.000000
G00 X15.336670 Y234.039702

G00 Z4.875000 (Fast pre-penetrate)
G01 Z-0.125000 F400.0(Penetrate)
G01 X16.690067 Y235.880805 Z-0.125000 F800.000000
G01 X17.450215 Y238.183474 Z-0.125000
G01 X16.727770 Y240.685453 Z-0.125000
G01 X15.336670 Y242.851914 Z-0.125000
G00 Z3.000000

(End cutting path id: polyline176)


(Start cutting path id: polyline178)
(Change tool to Default tool)

G00 Z3.000000
G00 X15.336670 Y233.721117

G00 Z4.875000 (Fast pre-penetrate)
G01 Z-0.125000 F400.0(Penetrate)
G01 X17.024580 Y235.910809 Z-0.125000 F800.000000
G01 X17.812959 Y238.132356 Z-0.125000
G01 X17.111442 Y240.575810 Z-0.125000
G01 X15.336670 Y243.332662 Z-0.125000
G00 Z3.000000

(End cutting path id: polyline178)


(Start cutting path id: polyline180)
(Change tool to Default tool)

G00 Z3.000000
G00 X15.336670 Y233.350648

G00 Z4.875000 (Fast pre-penetrate)
G01 Z-0.125000 F400.0(Penetrate)
G01 X15.574372 Y233.738156 Z-0.125000 F800.000000
G01 X17.359092 Y235.943379 Z-0.125000
G01 X18.176311 Y238.083647 Z-0.125000
G01 X17.496226 Y240.468627 Z-0.125000
G01 X15.336670 Y243.770230 Z-0.125000
G00 Z3.000000

(End cutting path id: polyline180)


(Start cutting path id: polyline182)
(Change tool to Default tool)

G00 Z3.000000
G00 X15.336670 Y232.985364

G00 Z4.875000 (Fast pre-penetrate)
G01 Z-0.125000 F400.0(Penetrate)
G01 X15.881474 Y233.848752 Z-0.125000 F800.000000
G01 X17.693631 Y235.978674 Z-0.125000
G01 X18.540272 Y238.037556 Z-0.125000
G01 X17.882121 Y240.364090 Z-0.125000
G01 X15.336670 Y244.210523 Z-0.125000
G00 Z3.000000

(End cutting path id: polyline182)


(Start cutting path id: polyline184)
(Change tool to Default tool)

G00 Z3.000000
G00 X15.336670 Y232.651275

G00 Z4.875000 (Fast pre-penetrate)
G01 Z-0.125000 F400.0(Penetrate)
G01 X16.188020 Y233.962285 Z-0.125000 F800.000000
G01 X18.028224 Y236.016827 Z-0.125000
G01 X18.904894 Y237.994191 Z-0.125000
G01 X18.269259 Y240.262332 Z-0.125000
G01 X15.336670 Y244.658833 Z-0.125000
G00 Z3.000000

(End cutting path id: polyline184)


(Start cutting path id: polyline186)
(Change tool to Default tool)

G00 Z3.000000
G00 X15.336670 Y232.347771

G00 Z4.875000 (Fast pre-penetrate)
G01 Z-0.125000 F400.0(Penetrate)
G01 X16.494011 Y234.078834 Z-0.125000 F800.000000
G01 X18.362869 Y236.057944 Z-0.125000
G01 X19.270204 Y237.953710 Z-0.125000
G01 X18.657614 Y240.163536 Z-0.125000
G01 X15.336670 Y245.116033 Z-0.125000
G00 Z3.000000

(End cutting path id: polyline186)


(Start cutting path id: polyline188)
(Change tool to Default tool)

G00 Z3.000000
G00 X15.336670 Y232.074245

G00 Z4.875000 (Fast pre-penetrate)
G01 Z-0.125000 F400.0(Penetrate)
G01 X16.799499 Y234.198505 Z-0.125000 F800.000000
G01 X18.697619 Y236.102156 Z-0.125000
G01 X19.636255 Y237.916218 Z-0.125000
G01 X19.047293 Y240.067836 Z-0.125000
G01 X17.288898 Y242.776402 Z-0.125000
G01 X15.336670 Y245.583049 Z-0.125000
G00 Z3.000000

(End cutting path id: polyline188)


(Start cutting path id: polyline190)
(Change tool to Default tool)

G00 Z3.000000
G00 X15.336670 Y231.305313

G00 Z4.875000 (Fast pre-penetrate)
G01 Z-0.125000 F400.0(Penetrate)
G01 X15.454357 Y231.995769 Z-0.125000 F800.000000
G01 X17.104510 Y234.321298 Z-0.125000
G01 X19.032476 Y236.149489 Z-0.125000
G01 X20.003074 Y237.881822 Z-0.125000
G01 X19.438268 Y239.975364 Z-0.125000
G01 X15.336670 Y246.156190 Z-0.125000
G00 Z3.000000

(End cutting path id: polyline190)


(Start cutting path id: polyline192)
(Change tool to Default tool)

G00 Z3.000000
G00 X15.336670 Y229.842220

G00 Z4.875000 (Fast pre-penetrate)
G01 Z-0.125000 F400.0(Penetrate)
G01 X15.739181 Y232.164362 Z-0.125000 F800.000000
G01 X17.409046 Y234.447266 Z-0.125000
G01 X19.367518 Y236.200051 Z-0.125000
G01 X20.370659 Y237.850654 Z-0.125000
G01 X19.830592 Y239.886253 Z-0.125000
G01 X16.039906 Y245.532223 Z-0.125000
G01 X15.336670 Y246.779363 Z-0.125000
G00 Z3.000000

(End cutting path id: polyline192)


(Start cutting path id: polyline194)
(Change tool to Default tool)

G00 Z3.000000
G00 X15.336670 Y227.186570

G00 Z4.875000 (Fast pre-penetrate)
G01 Z-0.125000 F400.0(Penetrate)
G01 X15.515026 Y229.455029 Z-0.125000 F800.000000
G01 X16.023079 Y232.335865 Z-0.125000
G01 X17.713158 Y234.576436 Z-0.125000
G01 X19.702719 Y236.253868 Z-0.125000
G01 X20.739065 Y237.822741 Z-0.125000
G01 X20.224292 Y239.800634 Z-0.125000
G01 X16.450143 Y245.434062 Z-0.125000
G01 X15.386941 Y247.327659 Z-0.125000
G01 X16.005034 Y248.251293 Z-0.125000
G01 X17.642117 Y249.880227 Z-0.125000
G01 X19.008743 Y253.477422 Z-0.125000
G01 X18.972363 Y259.003271 Z-0.125000
G01 X17.340889 Y265.392800 Z-0.125000
G01 X15.633956 Y271.298697 Z-0.125000
G00 Z3.000000

(End cutting path id: polyline194)


(Start cutting path id: polyline196)
(Change tool to Default tool)

G00 Z3.000000
G00 X15.336670 Y225.354012

G00 Z4.875000 (Fast pre-penetrate)
G01 Z-0.125000 F400.0(Penetrate)
G01 X15.507565 Y226.090982 Z-0.125000 F800.000000
G01 X15.789690 Y229.633569 Z-0.125000
G01 X16.306077 Y232.510199 Z-0.125000
G01 X18.016899 Y234.708807 Z-0.125000
G01 X20.038157 Y236.310991 Z-0.125000
G01 X21.108291 Y237.798214 Z-0.125000
G01 X20.619367 Y239.718586 Z-0.125000
G01 X16.862628 Y245.340585 Z-0.125000
G01 X15.797786 Y247.244977 Z-0.125000
G01 X16.404317 Y248.183110 Z-0.125000
G01 X18.023805 Y249.825987 Z-0.125000
G01 X19.374503 Y253.432602 Z-0.125000
G01 X19.330393 Y258.962393 Z-0.125000
G01 X17.700639 Y265.352531 Z-0.125000
G01 X15.984551 Y271.298697 Z-0.125000
G00 Z3.000000

(End cutting path id: polyline196)


(Start cutting path id: polyline198)
(Change tool to Default tool)

G00 Z3.000000
G00 X15.336670 Y224.360872

G00 Z4.875000 (Fast pre-penetrate)
G01 Z-0.125000 F400.0(Penetrate)
G01 X15.776064 Y226.260242 Z-0.125000 F800.000000
G01 X16.063084 Y229.814333 Z-0.125000
G01 X16.588229 Y232.687390 Z-0.125000
G01 X18.320324 Y234.844353 Z-0.125000
G01 X20.373861 Y236.371422 Z-0.125000
G01 X21.478364 Y237.777100 Z-0.125000
G01 X21.015872 Y239.640243 Z-0.125000
G01 X17.277389 Y245.251976 Z-0.125000
G01 X16.210774 Y247.167189 Z-0.125000
G01 X16.804790 Y248.118472 Z-0.125000
G01 X18.405228 Y249.772938 Z-0.125000
G01 X19.738570 Y253.386511 Z-0.125000
G01 X19.686130 Y258.918605 Z-0.125000
G01 X18.058255 Y265.308927 Z-0.125000
G01 X16.332404 Y271.298697 Z-0.125000
G00 Z3.000000

(End cutting path id: polyline198)


(Start cutting path id: polyline200)
(Change tool to Default tool)

G00 Z3.000000
G00 X15.336670 Y223.371252

G00 Z4.875000 (Fast pre-penetrate)
G01 Z-0.125000 F400.0(Penetrate)
G01 X16.042870 Y226.430892 Z-0.125000 F800.000000
G01 X16.335234 Y229.997186 Z-0.125000
G01 X16.869587 Y232.867307 Z-0.125000
G01 X18.623483 Y234.983047 Z-0.125000
G01 X20.709829 Y236.435213 Z-0.125000
G01 X21.849310 Y237.759453 Z-0.125000
G01 X21.413726 Y239.565631 Z-0.125000
G01 X17.694425 Y245.168368 Z-0.125000
G01 X16.625958 Y247.094376 Z-0.125000
G01 X17.206454 Y248.057538 Z-0.125000
G01 X18.786308 Y249.721212 Z-0.125000
G01 X20.100943 Y253.339151 Z-0.125000
G01 X20.039533 Y258.871879 Z-0.125000
G01 X18.413721 Y265.261964 Z-0.125000
G01 X16.677552 Y271.298697 Z-0.125000
G00 Z3.000000

(End cutting path id: polyline200)


(Start cutting path id: polyline202)
(Change tool to Default tool)

G00 Z3.000000
G00 X15.336670 Y222.385362

G00 Z4.875000 (Fast pre-penetrate)
G01 Z-0.125000 F400.0(Penetrate)
G01 X16.308062 Y226.602792 Z-0.125000 F800.000000
G01 X16.606194 Y230.182077 Z-0.125000
G01 X17.150257 Y233.049922 Z-0.125000
G01 X18.926431 Y235.124864 Z-0.125000
G01 X21.046140 Y236.502311 Z-0.125000
G01 X22.221129 Y237.745350 Z-0.125000
G01 X21.813009 Y239.494908 Z-0.125000
G01 X18.113763 Y245.089866 Z-0.125000
G01 X17.043339 Y247.026669 Z-0.125000
G01 X17.609309 Y248.000362 Z-0.125000
G01 X19.167070 Y249.670835 Z-0.125000
G01 X20.461623 Y253.290547 Z-0.125000
G01 X20.390583 Y258.822244 Z-0.125000
G01 X18.767047 Y265.211666 Z-0.125000
G01 X17.019950 Y271.298697 Z-0.125000
G00 Z3.000000

(End cutting path id: polyline202)


(Start cutting path id: polyline204)
(Change tool to Default tool)

G00 Z3.000000
G00 X15.336670 Y221.403362

G00 Z4.875000 (Fast pre-penetrate)
G01 Z-0.125000 F400.0(Penetrate)
G01 X16.571719 Y226.775882 Z-0.125000 F800.000000
G01 X16.876069 Y230.368873 Z-0.125000
G01 X17.430292 Y233.235131 Z-0.125000
G01 X19.229220 Y235.269697 Z-0.125000
G01 X21.382823 Y236.572717 Z-0.125000
G01 X22.593847 Y237.734767 Z-0.125000
G01 X22.213694 Y239.428074 Z-0.125000
G01 X18.535430 Y245.016550 Z-0.125000
G01 X17.462915 Y246.964201 Z-0.125000
G01 X18.013407 Y247.947128 Z-0.125000
G01 X19.547514 Y249.621887 Z-0.125000
G01 X20.820610 Y253.240805 Z-0.125000
G01 X20.739300 Y258.769644 Z-0.125000
G01 X19.118225 Y265.157982 Z-0.125000
G01 X17.359671 Y271.298697 Z-0.125000
G00 Z3.000000

(End cutting path id: polyline204)


(Start cutting path id: polyline206)
(Change tool to Default tool)

G00 Z3.000000
G00 X15.336670 Y220.483272

G00 Z4.875000 (Fast pre-penetrate)
G01 Z-0.125000 F400.0(Penetrate)
G01 X16.833868 Y226.949980 Z-0.125000 F800.000000
G01 X17.144912 Y230.557468 Z-0.125000
G01 X17.709745 Y233.422826 Z-0.125000
G01 X19.531956 Y235.417520 Z-0.125000
G01 X21.719928 Y236.646456 Z-0.125000
G01 X22.967439 Y237.727755 Z-0.125000
G01 X22.615728 Y239.365262 Z-0.125000
G01 X18.959372 Y244.948552 Z-0.125000
G01 X17.884714 Y246.907077 Z-0.125000
G01 X18.418696 Y247.897836 Z-0.125000
G01 X19.927667 Y249.574448 Z-0.125000
G01 X21.177876 Y253.189899 Z-0.125000
G01 X21.085646 Y258.714161 Z-0.125000
G01 X19.467269 Y265.100965 Z-0.125000
G01 X17.696730 Y271.298697 Z-0.125000
G00 Z3.000000

(End cutting path id: polyline206)


(Start cutting path id: polyline208)
(Change tool to Default tool)

G00 Z3.000000
G00 X15.336670 Y219.568422

G00 Z4.875000 (Fast pre-penetrate)
G01 Z-0.125000 F400.0(Penetrate)
G01 X17.094615 Y227.124949 Z-0.125000 F800.000000
G01 X17.412803 Y230.747730 Z-0.125000
G01 X17.988748 Y233.612850 Z-0.125000
G01 X19.834693 Y235.568226 Z-0.125000
G01 X22.057484 Y236.723397 Z-0.125000
G01 X23.341956 Y237.724342 Z-0.125000
G01 X23.019138 Y239.306445 Z-0.125000
G01 X19.385615 Y244.885978 Z-0.125000
G01 X18.308708 Y246.855378 Z-0.125000
G01 X18.825228 Y247.852619 Z-0.125000
G01 X20.307477 Y249.528622 Z-0.125000
G01 X21.533424 Y253.137882 Z-0.125000
G01 X21.429654 Y258.655794 Z-0.125000
G01 X19.814188 Y265.040640 Z-0.125000
G01 X18.031187 Y271.298697 Z-0.125000
G00 Z3.000000

(End cutting path id: polyline208)


(Start cutting path id: polyline210)
(Change tool to Default tool)

G00 Z3.000000
G00 X15.336670 Y218.646882

G00 Z4.875000 (Fast pre-penetrate)
G01 Z-0.125000 F400.0(Penetrate)
G01 X17.354039 Y227.300632 Z-0.125000 F800.000000
G01 X17.679847 Y230.939526 Z-0.125000
G01 X18.267380 Y233.805149 Z-0.125000
G01 X20.137482 Y235.721764 Z-0.125000
G01 X22.395515 Y236.803592 Z-0.125000
G01 X23.717374 Y237.724528 Z-0.125000
G01 X23.423898 Y239.251703 Z-0.125000
G01 X19.814108 Y244.828881 Z-0.125000
G01 X18.734873 Y246.809208 Z-0.125000
G01 X19.232951 Y247.811555 Z-0.125000
G01 X20.686969 Y249.484436 Z-0.125000
G01 X21.887304 Y253.084833 Z-0.125000
G01 X21.771363 Y258.594623 Z-0.125000
G01 X20.158993 Y264.977007 Z-0.125000
G01 X18.363080 Y271.298697 Z-0.125000
G00 Z3.000000

(End cutting path id: polyline210)


(Start cutting path id: polyline212)
(Change tool to Default tool)

G00 Z3.000000
G00 X15.336670 Y217.718222

G00 Z4.875000 (Fast pre-penetrate)
G01 Z-0.125000 F400.0(Penetrate)
G01 X17.612219 Y227.476871 Z-0.125000 F800.000000
G01 X17.946150 Y231.132646 Z-0.125000
G01 X18.545749 Y233.999538 Z-0.125000
G01 X20.440430 Y235.877948 Z-0.125000
G01 X22.734103 Y236.886910 Z-0.125000
G01 X24.093717 Y237.728285 Z-0.125000
G01 X23.829954 Y239.201114 Z-0.125000
G01 X20.244850 Y244.777314 Z-0.125000
G01 X19.163233 Y246.768594 Z-0.125000
G01 X19.641864 Y247.774725 Z-0.125000
G01 X21.066143 Y249.441944 Z-0.125000
G01 X22.239464 Y253.030806 Z-0.125000
G01 X22.110744 Y258.530646 Z-0.125000
G01 X20.501734 Y264.910147 Z-0.125000
G01 X18.692486 Y271.298697 Z-0.125000
G00 Z3.000000

(End cutting path id: polyline212)


(Start cutting path id: polyline214)
(Change tool to Default tool)

G00 Z3.000000
G00 X15.336670 Y216.782072

G00 Z4.875000 (Fast pre-penetrate)
G01 Z-0.125000 F400.0(Penetrate)
G01 X17.869288 Y227.653507 Z-0.125000 F800.000000
G01 X18.211791 Y231.326982 Z-0.125000
G01 X18.823931 Y234.195886 Z-0.125000
G01 X20.743642 Y236.036751 Z-0.125000
G01 X23.073272 Y236.973323 Z-0.125000
G01 X24.470960 Y237.735587 Z-0.125000
G01 X24.237333 Y239.154627 Z-0.125000
G01 X20.677787 Y244.731382 Z-0.125000
G01 X19.593710 Y246.733669 Z-0.125000
G01 X20.051995 Y247.742208 Z-0.125000
G01 X21.445026 Y249.401278 Z-0.125000
G01 X22.589984 Y252.975852 Z-0.125000
G01 X22.447850 Y258.463945 Z-0.125000
G01 X20.842464 Y264.840112 Z-0.125000
G01 X19.019485 Y271.298697 Z-0.125000
G00 Z3.000000

(End cutting path id: polyline214)


(Start cutting path id: polyline216)
(Change tool to Default tool)

G00 Z3.000000
G00 X15.336670 Y215.837982

G00 Z4.875000 (Fast pre-penetrate)
G01 Z-0.125000 F400.0(Penetrate)
G01 X18.125299 Y227.830355 Z-0.125000 F800.000000
G01 X18.476904 Y231.522324 Z-0.125000
G01 X19.102061 Y234.394006 Z-0.125000
G01 X21.047146 Y236.197961 Z-0.125000
G01 X23.413050 Y237.062752 Z-0.125000
G01 X24.849102 Y237.746488 Z-0.125000
G01 X24.645955 Y239.112320 Z-0.125000
G01 X21.112921 Y244.691086 Z-0.125000
G01 X20.026330 Y246.704433 Z-0.125000
G01 X20.463263 Y247.714056 Z-0.125000
G01 X21.823592 Y249.362463 Z-0.125000
G01 X22.938837 Y252.920024 Z-0.125000
G01 X22.782707 Y258.394598 Z-0.125000
G01 X21.181184 Y264.766955 Z-0.125000
G01 X19.349923 Y271.298697 Z-0.125000
G00 Z3.000000

(End cutting path id: polyline216)


(Start cutting path id: polyline218)
(Change tool to Default tool)

G00 Z3.000000
G00 X15.336670 Y214.470982

G00 Z4.875000 (Fast pre-penetrate)
G01 Z-0.125000 F400.0(Penetrate)
G01 X15.457267 Y215.398162 Z-0.125000 F800.000000
G01 X18.380410 Y228.007229 Z-0.125000
G01 X18.741593 Y231.718512 Z-0.125000
G01 X19.380218 Y234.593766 Z-0.125000
G01 X21.351046 Y236.361500 Z-0.125000
G01 X23.753489 Y237.155065 Z-0.125000
G01 X25.228171 Y237.760881 Z-0.125000
G01 X25.055795 Y239.074194 Z-0.125000
G01 X21.550145 Y244.656505 Z-0.125000
G01 X20.461014 Y246.680991 Z-0.125000
G01 X20.875722 Y247.690297 Z-0.125000
G01 X22.201840 Y249.325554 Z-0.125000
G01 X23.286076 Y252.863404 Z-0.125000
G01 X23.115367 Y258.322657 Z-0.125000
G01 X21.517945 Y264.690755 Z-0.125000
G01 X19.684013 Y271.298697 Z-0.125000
G00 Z3.000000

(End cutting path id: polyline218)


(Start cutting path id: polyline220)
(Change tool to Default tool)

G00 Z3.000000
G00 X15.336670 Y212.634432

G00 Z4.875000 (Fast pre-penetrate)
G01 Z-0.125000 F400.0(Penetrate)
G01 X15.702377 Y215.488552 Z-0.125000 F800.000000
G01 X18.634701 Y228.183970 Z-0.125000
