%
(Header)
(Generated by gcodetools from Inkscape.)
(Using default header. To add your own header create file "header" in the output dir.)
M3
(Header end.)
G21 (All units in mm)

(Start cutting path id: path980)
(Change tool to Default tool)

G00 Z10.000000
G00 X18.844815 Y27.367310

G00 Z4.875000 (Fast pre-penetrate)
G01 Z-0.125000 F100.0(Penetrate)
G01 X19.095376 Y28.253660 Z-0.125000 F800.000000
G01 X17.833313 Y28.318960 Z-0.125000
G01 X17.621911 Y27.424930 Z-0.125000
G01 X18.844815 Y27.367230 Z-0.125000
G00 Z10.000000

(End cutting path id: path980)


(Start cutting path id: path640)
(Change tool to Default tool)

G00 Z10.000000
G00 X14.046861 Y28.515070

G00 Z4.875000 (Fast pre-penetrate)
G01 Z-0.125000 F100.0(Penetrate)
G01 X14.140791 Y29.431850 Z-0.125000 F800.000000
G00 Z10.000000

(End cutting path id: path640)


(Start cutting path id: path406)
(Change tool to Default tool)

G00 Z10.000000
G00 X14.234451 Y30.348630

G00 Z4.875000 (Fast pre-penetrate)
G01 Z-0.125000 F100.0(Penetrate)
G01 X15.575094 Y30.267930 Z-0.125000 F800.000000
G01 X15.442009 Y29.358820 Z-0.125000
G01 X15.309188 Y28.449720 Z-0.125000
G01 X15.176103 Y27.540610 Z-0.125000
G01 X13.953199 Y27.598310 Z-0.125000
G01 X13.859539 Y26.681530 Z-0.125000
G01 X15.043285 Y26.631530 Z-0.125000
G01 X14.910199 Y25.722160 Z-0.125000
G01 X16.054787 Y25.679560 Z-0.125000
G01 X16.226766 Y26.581260 Z-0.125000
G01 X17.410512 Y26.530960 Z-0.125000
G01 X18.594258 Y26.480960 Z-0.125000
G01 X19.778004 Y26.430660 Z-0.125000
G01 X20.961485 Y26.380360 Z-0.125000
G01 X20.632608 Y25.509090 Z-0.125000
G01 X19.488020 Y25.551990 Z-0.125000
G01 X19.198301 Y24.673040 Z-0.125000
G01 X18.908318 Y23.794100 Z-0.125000
G01 X19.974324 Y23.766800 Z-0.125000
G01 X21.040331 Y23.739300 Z-0.125000
G01 X22.106337 Y23.711800 Z-0.125000
G01 X23.172343 Y23.684300 Z-0.125000
G01 X24.238349 Y23.657000 Z-0.125000
G01 X24.724124 Y24.497850 Z-0.125000
G01 X25.210164 Y25.338700 Z-0.125000
G01 X26.354751 Y25.296100 Z-0.125000
G01 X27.046637 Y25.014050 Z-0.125000
G01 X27.558076 Y25.874210 Z-0.125000
G01 X26.879949 Y26.129530 Z-0.125000
G01 X25.696203 Y26.179830 Z-0.125000
G01 X25.210164 Y25.338720 Z-0.125000
G01 X24.065841 Y25.381320 Z-0.125000
G01 X22.921254 Y25.423920 Z-0.125000
G01 X21.776931 Y25.466520 Z-0.125000
G01 X22.145231 Y26.330380 Z-0.125000
G01 X23.328976 Y26.280080 Z-0.125000
G01 X22.921254 Y25.423890 Z-0.125000
G01 X22.513795 Y24.567960 Z-0.125000
G01 X23.618960 Y24.532760 Z-0.125000
G01 X23.172343 Y23.684250 Z-0.125000
G01 X22.725462 Y22.835730 Z-0.125000
G01 X21.698614 Y22.855530 Z-0.125000
G01 X21.401222 Y21.636860 Z-0.125000
G01 X21.103566 Y20.417920 Z-0.125000
G01 X20.024066 Y20.402620 Z-0.125000
G01 X20.347916 Y21.639020 Z-0.125000
G01 X19.294874 Y21.641020 Z-0.125000
G01 X18.944566 Y20.386900 Z-0.125000
G01 X17.865066 Y20.371500 Z-0.125000
G01 X18.241833 Y21.643350 Z-0.125000
G01 X19.294874 Y21.641350 Z-0.125000
G01 X19.645183 Y22.895740 Z-0.125000
G01 X19.974324 Y23.767020 Z-0.125000
G01 X20.303466 Y24.638290 Z-0.125000
G01 X21.408631 Y24.603090 Z-0.125000
G01 X21.040331 Y23.739490 Z-0.125000
G01 X20.672031 Y22.875890 Z-0.125000
G01 X20.347916 Y21.639230 Z-0.125000
G01 X21.401222 Y21.637230 Z-0.125000
G01 X22.454264 Y21.635230 Z-0.125000
G01 X22.725462 Y22.836440 Z-0.125000
G01 X23.752310 Y22.816540 Z-0.125000
G01 X23.507306 Y21.633060 Z-0.125000
G01 X22.454264 Y21.635060 Z-0.125000
G01 X22.183066 Y20.433850 Z-0.125000
G01 X21.103566 Y20.418450 Z-0.125000
G01 X20.805910 Y19.199520 Z-0.125000
G01 X21.911868 Y19.232620 Z-0.125000
G01 X23.017562 Y19.265720 Z-0.125000
G01 X22.772558 Y18.082240 Z-0.125000
G01 X22.527818 Y16.898760 Z-0.125000
G01 X21.369208 Y16.830260 Z-0.125000
G01 X21.640406 Y18.031460 Z-0.125000
G01 X20.508254 Y17.980660 Z-0.125000
G01 X19.376101 Y17.930160 Z-0.125000
G01 X19.052251 Y16.693500 Z-0.125000
G01 X18.728137 Y15.457100 Z-0.125000
G01 X19.913206 Y15.543100 Z-0.125000
G01 X20.210597 Y16.762030 Z-0.125000
G01 X21.369208 Y16.830330 Z-0.125000
G01 X21.098010 Y15.629120 Z-0.125000
G01 X22.282814 Y15.715120 Z-0.125000
G01 X23.467883 Y15.801420 Z-0.125000
G01 X23.686429 Y16.967180 Z-0.125000
G01 X24.953253 Y16.682220 Z-0.125000
G01 X26.220078 Y16.397000 Z-0.125000
G01 X27.487168 Y16.111780 Z-0.125000
G01 X27.588768 Y14.992330 Z-0.125000
G01 X27.690368 Y13.872870 Z-0.125000
G01 X29.170976 Y13.618610 Z-0.125000
G01 X28.962485 Y14.722710 Z-0.125000
G01 X28.753993 Y15.826560 Z-0.125000
G01 X30.021083 Y15.541600 Z-0.125000
G01 X31.287908 Y15.256380 Z-0.125000
G01 X30.866162 Y16.329530 Z-0.125000
G01 X30.444151 Y17.402410 Z-0.125000
G01 X31.497722 Y17.086500 Z-0.125000
G01 X30.969085 Y18.144040 Z-0.125000
G01 X31.915764 Y17.812520 Z-0.125000
G01 X32.551293 Y16.770330 Z-0.125000
G01 X31.497722 Y17.086500 Z-0.125000
G01 X32.026360 Y16.028700 Z-0.125000
G01 X30.866162 Y16.329530 Z-0.125000
G01 X29.705964 Y16.630100 Z-0.125000
G01 X28.545766 Y16.930660 Z-0.125000
G01 X28.337274 Y18.034770 Z-0.125000
G01 X28.128783 Y19.138610 Z-0.125000
G01 X29.075726 Y18.807090 Z-0.125000
G01 X29.390845 Y17.718590 Z-0.125000
G01 X30.444151 Y17.402410 Z-0.125000
G01 X30.022406 Y18.475560 Z-0.125000
G01 X29.600395 Y19.548710 Z-0.125000
G01 X28.760608 Y19.895580 Z-0.125000
G01 X27.920556 Y20.242720 Z-0.125000
G01 X28.128783 Y19.138610 Z-0.125000
G01 X27.182103 Y19.470400 Z-0.125000
G01 X27.080503 Y20.589850 Z-0.125000
G01 X27.920556 Y20.242720 Z-0.125000
G01 X27.712064 Y21.346820 Z-0.125000
G01 X28.182228 Y22.287150 Z-0.125000
G01 X27.462826 Y22.622910 Z-0.125000
G01 X27.946749 Y23.536510 Z-0.125000
G01 X28.430672 Y24.450120 Z-0.125000
G01 X29.122822 Y24.167810 Z-0.125000
G01 X28.652393 Y23.227480 Z-0.125000
G01 X27.946749 Y23.536510 Z-0.125000
G01 X27.240841 Y23.845550 Z-0.125000
G01 X26.743160 Y22.958660 Z-0.125000
G01 X26.023758 Y23.294420 Z-0.125000
G01 X25.304091 Y23.630180 Z-0.125000
G01 X24.238349 Y23.657680 Z-0.125000
G01 X23.752310 Y22.816570 Z-0.125000
G01 X24.778893 Y22.796770 Z-0.125000
G01 X25.304091 Y23.630210 Z-0.125000
G01 X25.829553 Y24.463640 Z-0.125000
G01 X26.354751 Y25.296820 Z-0.125000
G01 X26.879949 Y26.130250 Z-0.125000
G01 X27.405147 Y26.963690 Z-0.125000
G01 X26.182243 Y27.021390 Z-0.125000
G01 X26.668283 Y27.862500 Z-0.125000
G01 X27.154322 Y28.703350 Z-0.125000
G01 X25.852837 Y28.776150 Z-0.125000
G01 X24.551616 Y28.849150 Z-0.125000
G01 X23.250131 Y28.922150 Z-0.125000
G01 X22.881831 Y28.058280 Z-0.125000
G01 X21.619768 Y28.123680 Z-0.125000
G01 X21.948910 Y28.994950 Z-0.125000
G01 X23.250131 Y28.922150 Z-0.125000
G01 X23.618431 Y29.785750 Z-0.125000
G01 X24.959074 Y29.705350 Z-0.125000
G01 X24.551616 Y28.849160 Z-0.125000
G01 X24.143893 Y27.992970 Z-0.125000
G01 X25.406220 Y27.927670 Z-0.125000
G01 X25.852837 Y28.776190 Z-0.125000
G01 X26.299718 Y29.624710 Z-0.125000
G01 X27.640362 Y29.544310 Z-0.125000
G01 X28.126401 Y30.385420 Z-0.125000
G01 X29.506203 Y30.297320 Z-0.125000
G01 X30.031401 Y31.130490 Z-0.125000
G01 X30.556599 Y31.963930 Z-0.125000
G01 X29.817089 Y32.683070 Z-0.125000
G01 X29.077843 Y33.402200 Z-0.125000
G01 X29.731628 Y33.412200 Z-0.125000
G01 X29.028366 Y34.169960 Z-0.125000
G01 X28.338333 Y34.121860 Z-0.125000
G01 X27.032878 Y34.330880 Z-0.125000
G01 X27.721324 Y33.576550 Z-0.125000
G01 X29.077843 Y33.402720 Z-0.125000
G01 X28.338333 Y34.121860 Z-0.125000
G01 X27.599087 Y34.841000 Z-0.125000
G01 X26.859841 Y35.559870 Z-0.125000
G01 X27.621576 Y35.686080 Z-0.125000
G01 X26.918314 Y36.444110 Z-0.125000
G01 X26.214787 Y37.201880 Z-0.125000
G01 X25.381085 Y36.998150 Z-0.125000
G01 X24.641574 Y37.717280 Z-0.125000
G01 X23.902329 Y38.436420 Z-0.125000
G01 X24.807997 Y38.717940 Z-0.125000
G01 X24.104735 Y39.475700 Z-0.125000
G01 X23.401472 Y40.233740 Z-0.125000
G01 X23.549110 Y41.666450 Z-0.125000
G01 X23.697012 Y43.098910 Z-0.125000
G01 X23.844914 Y44.531630 Z-0.125000
G01 X23.992816 Y45.964350 Z-0.125000
G01 X22.888445 Y45.892150 Z-0.125000
G01 X22.072735 Y46.139280 Z-0.125000
G01 X22.209789 Y47.582580 Z-0.125000
G01 X23.004862 Y47.396310 Z-0.125000
G01 X23.121014 Y48.900730 Z-0.125000
G01 X24.288620 Y48.829530 Z-0.125000
G01 X24.140718 Y47.396810 Z-0.125000
G01 X25.276839 Y47.397340 Z-0.125000
G01 X25.097187 Y46.036320 Z-0.125000
G01 X24.917799 Y44.675570 Z-0.125000
G01 X23.844914 Y44.531640 Z-0.125000
G01 X22.772293 Y44.387700 Z-0.125000
G01 X22.888445 Y45.892120 Z-0.125000
G01 X23.004862 Y47.396280 Z-0.125000
G01 X24.140718 Y47.396810 Z-0.125000
G01 X23.992816 Y45.964360 Z-0.125000
G01 X25.097187 Y46.036360 Z-0.125000
G01 X26.201822 Y46.108560 Z-0.125000
G01 X26.412960 Y47.397880 Z-0.125000
G01 X27.549081 Y47.398410 Z-0.125000
G01 X27.306193 Y46.180800 Z-0.125000
G01 X28.410564 Y46.253000 Z-0.125000
G01 X28.136191 Y45.107350 Z-0.125000
G01 X29.208812 Y45.251280 Z-0.125000
G01 X30.281697 Y45.395220 Z-0.125000
G01 X29.943824 Y44.393240 Z-0.125000
G01 X29.606216 Y43.391000 Z-0.125000
G01 X30.615601 Y43.678340 Z-0.125000
G01 X30.984960 Y44.608880 Z-0.125000
G01 X32.026095 Y44.824510 Z-0.125000
G01 X31.624987 Y43.965940 Z-0.125000
G01 X31.224143 Y43.107100 Z-0.125000
G01 X30.246243 Y42.748060 Z-0.125000
G01 X29.268343 Y42.388760 Z-0.125000
G01 X29.755706 Y41.397890 Z-0.125000
G01 X28.814053 Y41.077480 Z-0.125000
G01 X29.337399 Y40.125250 Z-0.125000
G01 X28.431466 Y39.843730 Z-0.125000
G01 X28.991060 Y38.930390 Z-0.125000
G01 X28.121110 Y38.687770 Z-0.125000
G01 X27.251160 Y38.445140 Z-0.125000
G01 X27.882720 Y37.609590 Z-0.125000
G01 X28.716422 Y37.813320 Z-0.125000
G01 X28.121110 Y38.687770 Z-0.125000
G01 X27.525797 Y39.562210 Z-0.125000
G01 X26.619864 Y39.280700 Z-0.125000
G01 X25.713931 Y38.999440 Z-0.125000
G01 X25.046651 Y39.796100 Z-0.125000
G01 X24.104735 Y39.475690 Z-0.125000
G01 X23.162818 Y39.155550 Z-0.125000
G01 X22.423572 Y39.874420 Z-0.125000
G01 X22.539724 Y41.378840 Z-0.125000
G01 X21.661837 Y41.809580 Z-0.125000
G01 X20.783685 Y42.240330 Z-0.125000
G01 X19.905797 Y42.671070 Z-0.125000
G01 X19.027910 Y43.101810 Z-0.125000
G01 X19.227141 Y44.361490 Z-0.125000
G01 X19.426372 Y45.621440 Z-0.125000
G01 X20.262985 Y45.312930 Z-0.125000
G01 X20.084391 Y43.992130 Z-0.125000
G01 X19.905797 Y42.671070 Z-0.125000
G01 X19.727468 Y41.350000 Z-0.125000
G01 X20.625993 Y40.858140 Z-0.125000
G01 X21.263639 Y40.068360 Z-0.125000
G01 X22.213229 Y39.611950 Z-0.125000
G01 X21.524783 Y40.366280 Z-0.125000
G01 X20.625993 Y40.858140 Z-0.125000
G01 X20.783685 Y42.240330 Z-0.125000
G01 X20.941641 Y43.622510 Z-0.125000
G01 X21.099333 Y45.004690 Z-0.125000
G01 X21.257024 Y46.386610 Z-0.125000
G01 X22.072735 Y46.139230 Z-0.125000
G01 X21.935681 Y44.696190 Z-0.125000
G01 X21.798891 Y43.252890 Z-0.125000
G01 X20.941641 Y43.622510 Z-0.125000
G01 X20.084391 Y43.992130 Z-0.125000
G01 X19.227141 Y44.361490 Z-0.125000
G01 X18.369891 Y44.731110 Z-0.125000
G01 X18.150022 Y43.532550 Z-0.125000
G01 X17.271870 Y43.963030 Z-0.125000
G01 X16.393983 Y44.393770 Z-0.125000
G01 X16.132310 Y43.317440 Z-0.125000
G01 X15.233785 Y43.809300 Z-0.125000
G01 X15.516095 Y44.824510 Z-0.125000
G00 Z10.000000

(End cutting path id: path406)


(Start cutting path id: path402)
(Change tool to Default tool)

G00 Z10.000000
G00 X15.516092 Y44.823190

G00 Z4.875000 (Fast pre-penetrate)
G01 Z-0.125000 F100.0(Penetrate)
G01 X16.393980 Y44.392450 Z-0.125000 F800.000000
G01 X16.655388 Y45.469040 Z-0.125000
G01 X17.512638 Y45.099420 Z-0.125000
G01 X18.369888 Y44.729790 Z-0.125000
G01 X18.590021 Y45.928620 Z-0.125000
G01 X18.809890 Y47.127450 Z-0.125000
G01 X17.994180 Y47.374570 Z-0.125000
G01 X17.753409 Y46.237120 Z-0.125000
G01 X17.512638 Y45.099420 Z-0.125000
G01 X17.271867 Y43.961710 Z-0.125000
G01 X17.031096 Y42.824260 Z-0.125000
G01 X16.132307 Y43.316120 Z-0.125000
G01 X16.515688 Y42.349600 Z-0.125000
G01 X17.465278 Y41.893200 Z-0.125000
G01 X17.031096 Y42.824260 Z-0.125000
G01 X17.929886 Y42.332400 Z-0.125000
G01 X18.828676 Y41.840540 Z-0.125000
G01 X19.364457 Y40.980120 Z-0.125000
G01 X20.314046 Y40.523710 Z-0.125000
G01 X19.727465 Y41.348680 Z-0.125000
G01 X18.828676 Y41.840540 Z-0.125000
G01 X19.027907 Y43.100490 Z-0.125000
G01 X18.150019 Y43.531230 Z-0.125000
G01 X17.929886 Y42.332400 Z-0.125000
G01 X18.414867 Y41.436790 Z-0.125000
G01 X19.364457 Y40.980120 Z-0.125000
G01 X19.900503 Y40.119690 Z-0.125000
G01 X20.900892 Y39.698480 Z-0.125000
G01 X21.901282 Y39.277260 Z-0.125000
G01 X21.263636 Y40.067040 Z-0.125000
G01 X20.314046 Y40.523710 Z-0.125000
G01 X20.900892 Y39.698480 Z-0.125000
G01 X21.487738 Y38.873510 Z-0.125000
G01 X22.538928 Y38.487740 Z-0.125000
G01 X23.176573 Y37.697960 Z-0.125000
G01 X24.278828 Y37.347390 Z-0.125000
G01 X23.590382 Y38.101720 Z-0.125000
G01 X22.538928 Y38.487740 Z-0.125000
G01 X21.901282 Y39.277260 Z-0.125000
G01 X22.901671 Y38.856310 Z-0.125000
G01 X23.902326 Y38.435090 Z-0.125000
G01 X23.162815 Y39.154230 Z-0.125000
G01 X22.213226 Y39.610630 Z-0.125000
G01 X22.901671 Y38.856310 Z-0.125000
G01 X23.590382 Y38.101720 Z-0.125000
G01 X24.641571 Y37.715950 Z-0.125000
G01 X25.511521 Y37.958580 Z-0.125000
G01 X26.214784 Y37.200550 Z-0.125000
G01 X27.048750 Y37.404270 Z-0.125000
G01 X27.882717 Y37.608270 Z-0.125000
G01 X28.514013 Y36.772450 Z-0.125000
G01 X29.311996 Y36.937280 Z-0.125000
G01 X30.109715 Y37.102380 Z-0.125000
G01 X30.669309 Y36.189040 Z-0.125000
G01 X31.228638 Y35.275700 Z-0.125000
G01 X30.502621 Y35.188400 Z-0.125000
G01 X29.907309 Y36.062850 Z-0.125000
G01 X30.669309 Y36.189050 Z-0.125000
G01 X31.431044 Y36.314990 Z-0.125000
G01 X32.193044 Y36.441200 Z-0.125000
G01 X31.705682 Y37.432070 Z-0.125000
G01 X32.503400 Y37.597170 Z-0.125000
G01 X32.052021 Y38.626920 Z-0.125000
G01 X32.885988 Y38.830920 Z-0.125000
G01 X33.719690 Y39.034650 Z-0.125000
G01 X34.099102 Y37.926840 Z-0.125000
G01 X34.478780 Y36.819290 Z-0.125000
G01 X33.716780 Y36.693350 Z-0.125000
G01 X32.954780 Y36.567140 Z-0.125000
G01 X33.406423 Y35.537380 Z-0.125000
G01 X32.680407 Y35.450080 Z-0.125000
G01 X32.193044 Y36.441210 Z-0.125000
G01 X32.954780 Y36.567150 Z-0.125000
G01 X32.503400 Y37.597180 Z-0.125000
G01 X33.301384 Y37.762010 Z-0.125000
G01 X33.716780 Y36.693360 Z-0.125000
G01 X34.132175 Y35.624440 Z-0.125000
G01 X34.547836 Y34.555790 Z-0.125000
G01 X33.857802 Y34.507390 Z-0.125000
G01 X33.406423 Y35.537410 Z-0.125000
G01 X34.132175 Y35.624510 Z-0.125000
G01 X34.858192 Y35.711810 Z-0.125000
G01 X35.237605 Y34.604270 Z-0.125000
G01 X35.927638 Y34.652370 Z-0.125000
G01 X35.583944 Y35.798810 Z-0.125000
G01 X36.555230 Y35.659380 Z-0.125000
G01 X37.526515 Y35.519680 Z-0.125000
G01 X37.762523 Y34.415310 Z-0.125000
G01 X37.998267 Y33.310940 Z-0.125000
G01 X38.861867 Y33.213340 Z-0.125000
G01 X38.679834 Y34.296810 Z-0.125000
G01 X39.597409 Y34.178280 Z-0.125000
G01 X39.469086 Y35.240320 Z-0.125000
G01 X38.497800 Y35.380020 Z-0.125000
G01 X38.679834 Y34.296810 Z-0.125000
G01 X37.762523 Y34.415350 Z-0.125000
G01 X36.844948 Y34.533880 Z-0.125000
G01 X37.134667 Y33.408610 Z-0.125000
G01 X36.271067 Y33.506010 Z-0.125000
G01 X36.614496 Y32.359570 Z-0.125000
G01 X36.957925 Y31.213130 Z-0.125000
G01 X36.584069 Y30.085480 Z-0.125000
G01 X37.406923 Y30.017780 Z-0.125000
G01 X37.714104 Y31.157870 Z-0.125000
G01 X38.470019 Y31.102270 Z-0.125000
G01 X39.226198 Y31.046970 Z-0.125000
G01 X39.043900 Y32.130170 Z-0.125000
G01 X38.234275 Y32.206670 Z-0.125000
G01 X37.998267 Y33.311050 Z-0.125000
G01 X37.134667 Y33.408650 Z-0.125000
G01 X37.424386 Y32.283110 Z-0.125000
G01 X37.714104 Y31.157840 Z-0.125000
G01 X36.957925 Y31.213140 Z-0.125000
G01 X36.376107 Y31.281440 Z-0.125000
G01 X35.996694 Y32.388980 Z-0.125000
G01 X35.617017 Y33.496530 Z-0.125000
G01 X34.963232 Y33.486530 Z-0.125000
G01 X35.378627 Y32.417880 Z-0.125000
G01 X35.996694 Y32.388480 Z-0.125000
G01 X36.614496 Y32.359080 Z-0.125000
G01 X37.424386 Y32.282580 Z-0.125000
G01 X38.234275 Y32.206080 Z-0.125000
G01 X38.470019 Y31.101710 Z-0.125000
G01 X38.230042 Y29.949190 Z-0.125000
G01 X37.989800 Y28.796930 Z-0.125000
G01 X37.100007 Y28.877130 Z-0.125000
G01 X36.793090 Y27.737040 Z-0.125000
G01 X35.836357 Y27.829340 Z-0.125000
G01 X35.212998 Y27.978030 Z-0.125000
G01 X34.589905 Y28.126460 Z-0.125000
G01 X33.966546 Y28.274900 Z-0.125000
G01 X34.381677 Y29.322380 Z-0.125000
G01 X33.772342 Y29.444090 Z-0.125000
G01 X33.343452 Y28.423330 Z-0.125000
G01 X32.914563 Y27.402560 Z-0.125000
G01 X33.551415 Y27.227410 Z-0.125000
G01 X33.966546 Y28.274900 Z-0.125000
G01 X33.343452 Y28.423330 Z-0.125000
G01 X32.720094 Y28.571760 Z-0.125000
G01 X33.162742 Y29.565800 Z-0.125000
G01 X33.605655 Y30.559570 Z-0.125000
G01 X34.048302 Y31.553610 Z-0.125000
G01 X34.630121 Y31.485310 Z-0.125000
G01 X35.212205 Y31.417010 Z-0.125000
G01 X34.797073 Y30.369520 Z-0.125000
G01 X34.201232 Y30.464520 Z-0.125000
G01 X33.772342 Y29.444020 Z-0.125000
G01 X33.162742 Y29.565730 Z-0.125000
G01 X32.553407 Y29.687440 Z-0.125000
G01 X31.944071 Y29.809140 Z-0.125000
G01 X32.414236 Y30.749470 Z-0.125000
G01 X32.884400 Y31.689800 Z-0.125000
G01 X33.466219 Y31.621500 Z-0.125000
G01 X32.906890 Y32.534840 Z-0.125000
G01 X32.288823 Y32.564240 Z-0.125000
G01 X32.884400 Y31.689790 Z-0.125000
G01 X32.302317 Y31.758090 Z-0.125000
G01 X31.818394 Y30.844480 Z-0.125000
G01 X31.334471 Y29.930870 Z-0.125000
G01 X31.944071 Y29.809160 Z-0.125000
G01 X31.473642 Y28.868570 Z-0.125000
G01 X30.850548 Y29.017270 Z-0.125000
G01 X30.366625 Y28.103400 Z-0.125000
G01 X31.003477 Y27.928240 Z-0.125000
G01 X31.640594 Y27.753090 Z-0.125000
G01 X32.277446 Y27.577930 Z-0.125000
G01 X32.914563 Y27.402510 Z-0.125000
G01 X32.485409 Y26.382020 Z-0.125000
G01 X31.834798 Y26.583890 Z-0.125000
G01 X31.392150 Y25.590120 Z-0.125000
G01 X30.949502 Y24.596080 Z-0.125000
G01 X30.506590 Y23.602300 Z-0.125000
G01 X29.814705 Y23.884610 Z-0.125000
G01 X30.271111 Y24.851670 Z-0.125000
G01 X30.727517 Y25.818720 Z-0.125000
G01 X30.063148 Y26.047580 Z-0.125000
G01 X30.533313 Y26.987910 Z-0.125000
G01 X29.882703 Y27.189790 Z-0.125000
G01 X30.366625 Y28.103400 Z-0.125000
G01 X29.729509 Y28.278810 Z-0.125000
G01 X29.092657 Y28.453970 Z-0.125000
G01 X29.604096 Y29.314130 Z-0.125000
G01 X28.980738 Y29.462560 Z-0.125000
G01 X27.640359 Y29.542960 Z-0.125000
G01 X27.154319 Y28.702120 Z-0.125000
G01 X28.455540 Y28.629120 Z-0.125000
G01 X28.980738 Y29.462560 Z-0.125000
G01 X29.506200 Y30.296000 Z-0.125000
G01 X30.115536 Y30.174290 Z-0.125000
G01 X30.626975 Y31.034450 Z-0.125000
G01 X30.031398 Y31.129150 Z-0.125000
G01 X28.612173 Y31.224950 Z-0.125000
G01 X29.098213 Y32.065800 Z-0.125000
G01 X30.556596 Y31.962610 Z-0.125000
G01 X31.138415 Y31.894310 Z-0.125000
G01 X31.720498 Y31.826310 Z-0.125000
G01 X31.222817 Y30.939420 Z-0.125000
G01 X30.626975 Y31.034420 Z-0.125000
G01 X31.138415 Y31.894320 Z-0.125000
G01 X30.435153 Y32.652350 Z-0.125000
G01 X29.731625 Y33.410380 Z-0.125000
G01 X30.385675 Y33.420380 Z-0.125000
G01 X31.039725 Y33.430380 Z-0.125000
G01 X30.408165 Y34.265930 Z-0.125000
G01 X31.098198 Y34.314330 Z-0.125000
G01 X30.502621 Y35.188780 Z-0.125000
G01 X29.776869 Y35.101480 Z-0.125000
G01 X29.145309 Y35.937300 Z-0.125000
G01 X29.907309 Y36.063240 Z-0.125000
G01 X29.311996 Y36.937680 Z-0.125000
G01 X28.716419 Y37.812400 Z-0.125000
G01 X29.550386 Y38.016130 Z-0.125000
G01 X30.384353 Y38.219860 Z-0.125000
G01 X29.860742 Y39.172090 Z-0.125000
G01 X30.730692 Y39.414710 Z-0.125000
G01 X31.218055 Y38.423580 Z-0.125000
G01 X30.384353 Y38.219860 Z-0.125000
G01 X30.907698 Y37.267620 Z-0.125000
G01 X31.431044 Y36.315380 Z-0.125000
G01 X31.954655 Y35.363150 Z-0.125000
G01 X31.228638 Y35.276150 Z-0.125000
G01 X31.787967 Y34.362810 Z-0.125000
G01 X32.478000 Y34.410910 Z-0.125000
G01 X31.954655 Y35.363150 Z-0.125000
G01 X32.680407 Y35.450450 Z-0.125000
G01 X33.167769 Y34.459320 Z-0.125000
G01 X32.478000 Y34.410920 Z-0.125000
G01 X33.001346 Y33.458690 Z-0.125000
G01 X33.524692 Y32.506720 Z-0.125000
G01 X32.906890 Y32.535820 Z-0.125000
G01 X32.347561 Y33.449430 Z-0.125000
G01 X33.001346 Y33.458430 Z-0.125000
G01 X33.655396 Y33.468430 Z-0.125000
G01 X34.309182 Y33.478430 Z-0.125000
G01 X34.760825 Y32.448670 Z-0.125000
G01 X34.142759 Y32.478070 Z-0.125000
G01 X34.630121 Y31.486940 Z-0.125000
G01 X34.201232 Y30.466180 Z-0.125000
G01 X33.605655 Y30.561180 Z-0.125000
G01 X33.009813 Y30.656180 Z-0.125000
G01 X33.466219 Y31.623230 Z-0.125000
G01 X34.048302 Y31.555230 Z-0.125000
G01 X33.524692 Y32.507470 Z-0.125000
G01 X34.142759 Y32.478070 Z-0.125000
G01 X33.655396 Y33.468930 Z-0.125000
G01 X33.167769 Y34.460060 Z-0.125000
G01 X33.857802 Y34.508460 Z-0.125000
G01 X34.309182 Y33.478440 Z-0.125000
G01 X34.963232 Y33.488440 Z-0.125000
G01 X34.547836 Y34.557360 Z-0.125000
G01 X35.237605 Y34.605760 Z-0.125000
G01 X35.617017 Y33.497950 Z-0.125000
G01 X36.271067 Y33.507950 Z-0.125000
G01 X35.927638 Y34.654390 Z-0.125000
G01 X36.844948 Y34.535860 Z-0.125000
G01 X36.555230 Y35.661400 Z-0.125000
G01 X36.265775 Y36.786670 Z-0.125000
G01 X35.976057 Y37.912210 Z-0.125000
G01 X35.686338 Y39.037480 Z-0.125000
G01 X35.396619 Y40.163020 Z-0.125000
G01 X35.106900 Y41.288290 Z-0.125000
G01 X36.347267 Y41.043290 Z-0.125000
G01 X36.583275 Y39.939180 Z-0.125000
G01 X37.769667 Y39.715080 Z-0.125000
G01 X38.956059 Y39.491240 Z-0.125000
G01 X40.142715 Y39.267400 Z-0.125000
G01 X40.068105 Y40.308540 Z-0.125000
G01 X39.993755 Y41.349670 Z-0.125000
G01 X39.919405 Y42.390810 Z-0.125000
G01 X41.267192 Y42.103740 Z-0.125000
G01 X42.615244 Y41.816660 Z-0.125000
G01 X43.963032 Y41.529590 Z-0.125000
G01 X43.876252 Y40.551690 Z-0.125000
G01 X45.170329 Y40.285520 Z-0.125000
G01 X45.029571 Y39.328520 Z-0.125000
G01 X44.888548 Y38.371790 Z-0.125000
G01 X43.702156 Y38.595630 Z-0.125000
G01 X43.615106 Y37.617730 Z-0.125000
G01 X42.482424 Y37.820400 Z-0.125000
G01 X41.349743 Y38.023330 Z-0.125000
G01 X40.217062 Y38.226270 Z-0.125000
G01 X40.142712 Y39.267400 Z-0.125000
G01 X41.329104 Y39.043570 Z-0.125000
G01 X41.349744 Y38.023330 Z-0.125000
G01 X41.370384 Y37.003360 Z-0.125000
G01 X40.291413 Y37.185130 Z-0.125000
G01 X39.212706 Y37.366900 Z-0.125000
G01 X38.133736 Y37.548670 Z-0.125000
G01 X37.951702 Y38.631870 Z-0.125000
G01 X36.819021 Y38.834810 Z-0.125000
G01 X36.583277 Y39.939180 Z-0.125000
G01 X35.396621 Y40.163020 Z-0.125000
G01 X34.210229 Y40.386860 Z-0.125000
G01 X33.866800 Y41.533300 Z-0.125000
G01 X33.523107 Y42.679730 Z-0.125000
G01 X34.817448 Y42.413830 Z-0.125000
G01 X36.111525 Y42.147660 Z-0.125000
G01 X35.875517 Y43.252030 Z-0.125000
G01 X37.223569 Y42.964960 Z-0.125000
G01 X38.571356 Y42.677880 Z-0.125000
G01 X38.859223 Y43.610010 Z-0.125000
G01 X40.163090 Y43.376910 Z-0.125000
G01 X39.919409 Y42.390810 Z-0.125000
G01 X38.571356 Y42.677880 Z-0.125000
G01 X38.699679 Y41.615580 Z-0.125000
G01 X38.828002 Y40.553540 Z-0.125000
G01 X37.587636 Y40.798550 Z-0.125000
G01 X37.405602 Y41.881750 Z-0.125000
G01 X38.699679 Y41.615580 Z-0.125000
G01 X39.993756 Y41.349670 Z-0.125000
G01 X41.287834 Y41.083770 Z-0.125000
G01 X42.581911 Y40.817600 Z-0.125000
G01 X43.876252 Y40.551690 Z-0.125000
G01 X43.789202 Y39.573530 Z-0.125000
G01 X43.702152 Y38.595630 Z-0.125000
G01 X42.515761 Y38.819460 Z-0.125000
G01 X42.482421 Y37.820400 Z-0.125000
G01 X42.449351 Y36.821600 Z-0.125000
G01 X42.416011 Y35.822530 Z-0.125000
G01 X41.391015 Y35.983130 Z-0.125000
G01 X41.411655 Y34.963160 Z-0.125000
G01 X42.382940 Y34.823460 Z-0.125000
G01 X42.349870 Y33.824400 Z-0.125000
G01 X43.267180 Y33.705860 Z-0.125000
G01 X44.184755 Y33.587330 Z-0.125000
G01 X44.325514 Y34.544060 Z-0.125000
G01 X44.466272 Y35.501060 Z-0.125000
G01 X45.491268 Y35.340460 Z-0.125000
G01 X46.516528 Y35.179590 Z-0.125000
G01 X46.764707 Y36.094520 Z-0.125000
G01 X47.013151 Y37.009180 Z-0.125000
G01 X47.869872 Y37.494700 Z-0.125000
G01 X48.726328 Y37.979940 Z-0.125000
G01 X48.609382 Y37.057340 Z-0.125000
G01 X47.687045 Y36.575800 Z-0.125000
G01 X46.764707 Y36.094520 Z-0.125000
G01 X45.686001 Y36.276290 Z-0.125000
G01 X44.607030 Y36.458060 Z-0.125000
G01 X44.747789 Y37.414790 Z-0.125000
G01 X43.615108 Y37.617730 Z-0.125000
G01 X43.528058 Y36.639830 Z-0.125000
G01 X44.607028 Y36.458060 Z-0.125000
G01 X44.466270 Y35.501060 Z-0.125000
G01 X43.441274 Y35.661660 Z-0.125000
G01 X43.354224 Y34.683760 Z-0.125000
G01 X44.325510 Y34.544060 Z-0.125000
G01 X45.296795 Y34.404360 Z-0.125000
G01 X46.268081 Y34.264930 Z-0.125000
G01 X46.516524 Y35.179590 Z-0.125000
G01 X47.504478 Y35.657160 Z-0.125000
G01 X47.321651 Y34.738270 Z-0.125000
G01 X46.268081 Y34.264930 Z-0.125000
G01 X46.019637 Y33.350000 Z-0.125000
G01 X45.771193 Y32.435330 Z-0.125000
G01 X44.907593 Y32.532730 Z-0.125000
G01 X44.712860 Y31.596900 Z-0.125000
G01 X43.902970 Y31.673400 Z-0.125000
G01 X44.043729 Y32.630400 Z-0.125000
G01 X43.180129 Y32.728000 Z-0.125000
G01 X43.267179 Y33.705900 Z-0.125000
G01 X43.354229 Y34.683800 Z-0.125000
G01 X42.382944 Y34.823500 Z-0.125000
G01 X42.416014 Y35.822570 Z-0.125000
G01 X43.441274 Y35.661700 Z-0.125000
G01 X43.528054 Y36.639870 Z-0.125000
G01 X42.449347 Y36.821640 Z-0.125000
G01 X41.370377 Y37.003400 Z-0.125000
G01 X41.391017 Y35.983170 Z-0.125000
G01 X40.366021 Y36.144040 Z-0.125000
G01 X39.340761 Y36.304640 Z-0.125000
G01 X39.212702 Y37.366940 Z-0.125000
G01 X39.084380 Y38.428980 Z-0.125000
G01 X37.951698 Y38.631910 Z-0.125000
G01 X37.769665 Y39.715120 Z-0.125000
G01 X37.587632 Y40.798590 Z-0.125000
G01 X36.347265 Y41.043330 Z-0.125000
G01 X36.111521 Y42.147700 Z-0.125000
G01 X37.405598 Y41.881790 Z-0.125000
G01 X37.223565 Y42.965000 Z-0.125000
G01 X37.555617 Y43.842880 Z-0.125000
G01 X36.251750 Y44.075720 Z-0.125000
G01 X34.947884 Y44.308550 Z-0.125000
G01 X35.368042 Y45.077960 Z-0.125000
G01 X35.788200 Y45.847370 Z-0.125000
G01 X34.572705 Y45.971990 Z-0.125000
G01 X33.499819 Y45.828050 Z-0.125000
G01 X33.067225 Y45.040920 Z-0.125000
G01 X34.108361 Y45.256820 Z-0.125000
G01 X34.572705 Y45.971990 Z-0.125000
G01 X35.037048 Y46.687150 Z-0.125000
G01 X36.208623 Y46.616750 Z-0.125000
G01 X37.379934 Y46.546350 Z-0.125000
G01 X37.003961 Y45.722960 Z-0.125000
G01 X36.627723 Y44.899310 Z-0.125000
G01 X35.368042 Y45.077910 Z-0.125000
G01 X34.108361 Y45.256770 Z-0.125000
G01 X33.644017 Y44.541600 Z-0.125000
G01 X32.634632 Y44.254000 Z-0.125000
G01 X33.067225 Y45.040870 Z-0.125000
G01 X32.026090 Y44.825230 Z-0.125000
G01 X32.427198 Y45.684070 Z-0.125000
G01 X32.828307 Y46.542640 Z-0.125000
G01 X31.723671 Y46.470440 Z-0.125000
G01 X31.354313 Y45.540170 Z-0.125000
G01 X30.984955 Y44.609630 Z-0.125000
G01 X29.943819 Y44.393990 Z-0.125000
G01 X28.902684 Y44.178350 Z-0.125000
G01 X27.861548 Y43.962450 Z-0.125000
G01 X27.587176 Y42.816810 Z-0.125000
G01 X28.596561 Y43.104410 Z-0.125000
G01 X28.290438 Y42.030470 Z-0.125000
G01 X27.312803 Y41.671160 Z-0.125000
G01 X26.334903 Y41.312120 Z-0.125000
G01 X26.577790 Y42.529470 Z-0.125000
G01 X26.820413 Y43.746820 Z-0.125000
G01 X27.063301 Y44.964170 Z-0.125000
G01 X28.136186 Y45.108100 Z-0.125000
G01 X27.861548 Y43.962450 Z-0.125000
G01 X26.820413 Y43.746820 Z-0.125000
G01 X25.779278 Y43.531180 Z-0.125000
G01 X25.990680 Y44.820230 Z-0.125000
G01 X26.201817 Y46.109280 Z-0.125000
G01 X27.306188 Y46.181480 Z-0.125000
G01 X27.063301 Y44.964130 Z-0.125000
G01 X25.990680 Y44.820190 Z-0.125000
G01 X24.917794 Y44.676260 Z-0.125000
G01 X24.738142 Y43.315510 Z-0.125000
G01 X23.697007 Y43.099610 Z-0.125000
G01 X22.655871 Y42.883970 Z-0.125000
G01 X21.798886 Y43.253600 Z-0.125000
G01 X21.661832 Y41.810290 Z-0.125000
G01 X21.524778 Y40.366990 Z-0.125000
G01 X22.423567 Y39.875130 Z-0.125000
G01 X23.401467 Y40.234440 Z-0.125000
G01 X24.379103 Y40.593740 Z-0.125000
G01 X25.357003 Y40.952780 Z-0.125000
G01 X26.334903 Y41.312080 Z-0.125000
G01 X26.930215 Y40.437370 Z-0.125000
G01 X27.525792 Y39.562920 Z-0.125000
G01 X28.431461 Y39.844440 Z-0.125000
G01 X27.872132 Y40.757780 Z-0.125000
G01 X28.814048 Y41.078190 Z-0.125000
G01 X28.290438 Y42.030430 Z-0.125000
G01 X29.268338 Y42.389470 Z-0.125000
G01 X29.606211 Y43.391710 Z-0.125000
G01 X28.596561 Y43.104370 Z-0.125000
G01 X28.902684 Y44.178310 Z-0.125000
G01 X29.208807 Y45.251990 Z-0.125000
G01 X29.514930 Y46.325940 Z-0.125000
G01 X29.821053 Y47.399880 Z-0.125000
G01 X30.127176 Y48.473830 Z-0.125000
G01 X30.433298 Y49.547770 Z-0.125000
G01 X30.739421 Y50.621710 Z-0.125000
G01 X29.508315 Y50.836290 Z-0.125000
G01 X29.233942 Y49.690640 Z-0.125000
G01 X28.034586 Y49.833780 Z-0.125000
G01 X27.791698 Y48.616440 Z-0.125000
G01 X26.624092 Y48.687640 Z-0.125000
G01 X26.412955 Y47.398590 Z-0.125000
G01 X25.276834 Y47.398060 Z-0.125000
G01 X25.456486 Y48.758810 Z-0.125000
G01 X25.635873 Y50.119830 Z-0.125000
G01 X24.436517 Y50.262700 Z-0.125000
G01 X23.237161 Y50.405840 Z-0.125000
G01 X22.483892 Y50.469840 Z-0.125000
G01 X22.346838 Y49.026540 Z-0.125000
G01 X22.209784 Y47.583240 Z-0.125000
G01 X21.414711 Y47.769500 Z-0.125000
G01 X21.257019 Y46.387320 Z-0.125000
G01 X20.441309 Y46.634710 Z-0.125000
G01 X20.262980 Y45.313640 Z-0.125000
G01 X21.099328 Y45.005400 Z-0.125000
G01 X21.935676 Y44.696900 Z-0.125000
G01 X22.772288 Y44.388390 Z-0.125000
G01 X22.655871 Y42.883970 Z-0.125000
G01 X22.539719 Y41.379550 Z-0.125000
G01 X23.549105 Y41.667150 Z-0.125000
G01 X24.558755 Y41.954490 Z-0.125000
G01 X24.379103 Y40.593740 Z-0.125000
G01 X25.046646 Y39.796810 Z-0.125000
G01 X25.988298 Y40.117230 Z-0.125000
G01 X26.930215 Y40.437370 Z-0.125000
G01 X27.872132 Y40.757780 Z-0.125000
G01 X27.312803 Y41.671120 Z-0.125000
G01 X27.587176 Y42.816770 Z-0.125000
G01 X26.577790 Y42.529430 Z-0.125000
G01 X25.568140 Y42.241830 Z-0.125000
G01 X24.558755 Y41.954490 Z-0.125000
G01 X24.738142 Y43.315510 Z-0.125000
G01 X25.779278 Y43.531140 Z-0.125000
G01 X25.568140 Y42.241830 Z-0.125000
G01 X25.357003 Y40.952780 Z-0.125000
G01 X25.988298 Y40.117230 Z-0.125000
G01 X26.619859 Y39.281410 Z-0.125000
G01 X27.251155 Y38.445850 Z-0.125000
G01 X26.381469 Y38.203230 Z-0.125000
G01 X25.511519 Y37.960610 Z-0.125000
G01 X24.807992 Y38.718640 Z-0.125000
G01 X25.713926 Y39.000150 Z-0.125000
G01 X26.381469 Y38.203230 Z-0.125000
G01 X27.048748 Y37.406300 Z-0.125000
G01 X27.716028 Y36.609640 Z-0.125000
G01 X26.918309 Y36.444810 Z-0.125000
G01 X26.120326 Y36.279710 Z-0.125000
G01 X26.859836 Y35.560570 Z-0.125000
G01 X25.655717 Y35.840500 Z-0.125000
G01 X24.451863 Y36.120430 Z-0.125000
G01 X23.814217 Y36.910210 Z-0.125000
G01 X24.967271 Y36.595090 Z-0.125000
G01 X25.655717 Y35.840500 Z-0.125000
G01 X26.344163 Y35.086170 Z-0.125000
G01 X27.599082 Y34.841700 Z-0.125000
G01 X28.325098 Y34.928800 Z-0.125000
G01 X29.028361 Y34.170760 Z-0.125000
G01 X29.718394 Y34.219160 Z-0.125000
G01 X30.385673 Y33.422500 Z-0.125000
G01 X31.052953 Y32.625580 Z-0.125000
G01 X31.671019 Y32.596180 Z-0.125000
G01 X31.039723 Y33.432000 Z-0.125000
G01 X31.693509 Y33.442000 Z-0.125000
G01 X32.288821 Y32.567290 Z-0.125000
G01 X31.671019 Y32.596690 Z-0.125000
G01 X32.302315 Y31.761140 Z-0.125000
G01 X31.720496 Y31.829440 Z-0.125000
G01 X31.052953 Y32.626100 Z-0.125000
G01 X30.435151 Y32.655500 Z-0.125000
G01 X29.817084 Y32.684900 Z-0.125000
G01 X28.409765 Y32.823540 Z-0.125000
G01 X29.098211 Y32.068950 Z-0.125000
G01 X27.640092 Y32.172400 Z-0.125000
G01 X27.193211 Y31.323610 Z-0.125000
G01 X25.774251 Y31.419410 Z-0.125000
G01 X24.355026 Y31.515210 Z-0.125000
G01 X22.936065 Y31.610710 Z-0.125000
G01 X22.606924 Y30.739430 Z-0.125000
G01 X21.227121 Y30.827530 Z-0.125000
G01 X20.937403 Y29.948580 Z-0.125000
G01 X19.596759 Y30.029280 Z-0.125000
G01 X18.256115 Y30.109680 Z-0.125000
G01 X16.915472 Y30.190080 Z-0.125000
G01 X17.087715 Y31.091780 Z-0.125000
G01 X15.707913 Y31.179580 Z-0.125000
G01 X14.328111 Y31.267680 Z-0.125000
G01 X14.234451 Y30.351160 Z-0.125000
G01 X14.140791 Y29.434380 Z-0.125000
G01 X15.442012 Y29.361380 Z-0.125000
G01 X16.743497 Y29.288580 Z-0.125000
G01 X16.571254 Y28.386880 Z-0.125000
G01 X17.833316 Y28.321580 Z-0.125000
G01 X18.044718 Y29.215610 Z-0.125000
G01 X18.256120 Y30.109640 Z-0.125000
G01 X18.467522 Y31.003660 Z-0.125000
G01 X17.087720 Y31.091760 Z-0.125000
G01 X17.259964 Y31.993190 Z-0.125000
G01 X15.841004 Y32.088990 Z-0.125000
G01 X15.973824 Y32.998100 Z-0.125000
G01 X14.515441 Y33.101290 Z-0.125000
G01 X14.335789 Y34.209100 Z-0.125000
G01 X14.155872 Y35.316650 Z-0.125000
G01 X15.512391 Y35.142810 Z-0.125000
G01 X15.281674 Y36.215170 Z-0.125000
G01 X13.975956 Y36.424460 Z-0.125000
G01 X13.796304 Y37.532000 Z-0.125000
G01 X15.050958 Y37.287530 Z-0.125000
G01 X16.305877 Y37.043050 Z-0.125000
G01 X17.560795 Y36.798580 Z-0.125000
G01 X18.815449 Y36.553840 Z-0.125000
G01 X20.070368 Y36.309360 Z-0.125000
G01 X21.325022 Y36.064890 Z-0.125000
G01 X22.579941 Y35.820410 Z-0.125000
G01 X23.834595 Y35.575670 Z-0.125000
G01 X25.089514 Y35.331200 Z-0.125000
G01 X25.727160 Y34.541420 Z-0.125000
G01 X27.032878 Y34.332130 Z-0.125000
G01 X26.344168 Y35.086720 Z-0.125000
G01 X25.089514 Y35.331200 Z-0.125000
G01 X24.451868 Y36.120980 Z-0.125000
G01 X23.248014 Y36.400910 Z-0.125000
G01 X22.661168 Y37.225880 Z-0.125000
G01 X23.814222 Y36.910760 Z-0.125000
G01 X23.176576 Y37.700540 Z-0.125000
G01 X22.074322 Y38.051110 Z-0.125000
G01 X22.661168 Y37.225880 Z-0.125000
G01 X21.508114 Y37.541000 Z-0.125000
G01 X20.972068 Y38.401420 Z-0.125000
G01 X19.870079 Y38.752000 Z-0.125000
G01 X18.767824 Y39.102570 Z-0.125000
G01 X17.665570 Y39.453140 Z-0.125000
G01 X18.048951 Y38.486620 Z-0.125000
G01 X18.432068 Y37.520360 Z-0.125000
G01 X18.815449 Y36.553840 Z-0.125000
G01 X19.198831 Y35.587580 Z-0.125000
G01 X19.581947 Y34.621060 Z-0.125000
G01 X19.965329 Y33.654800 Z-0.125000
G01 X21.372647 Y33.516160 Z-0.125000
G01 X20.938466 Y34.447230 Z-0.125000
G01 X20.504549 Y35.378290 Z-0.125000
G01 X21.810004 Y35.169010 Z-0.125000
G01 X21.325022 Y36.064890 Z-0.125000
G01 X20.840041 Y36.960500 Z-0.125000
G01 X20.355060 Y37.856380 Z-0.125000
G01 X19.870079 Y38.752000 Z-0.125000
G01 X19.385097 Y39.647880 Z-0.125000
G01 X18.333643 Y40.033640 Z-0.125000
G01 X18.767824 Y39.102570 Z-0.125000
G01 X19.202006 Y38.171500 Z-0.125000
G01 X20.355060 Y37.856380 Z-0.125000
G01 X21.508114 Y37.541000 Z-0.125000
G01 X22.043895 Y36.680840 Z-0.125000
G01 X22.579941 Y35.820410 Z-0.125000
G01 X23.115722 Y34.959990 Z-0.125000
G01 X21.810004 Y35.169010 Z-0.125000
G01 X22.295249 Y34.273390 Z-0.125000
G01 X20.938466 Y34.447230 Z-0.125000
G01 X19.581947 Y34.621060 Z-0.125000
G01 X18.225429 Y34.795150 Z-0.125000
G01 X16.868910 Y34.968980 Z-0.125000
G01 X15.512391 Y35.142810 Z-0.125000
G01 X15.743108 Y34.070460 Z-0.125000
G01 X17.150427 Y33.931820 Z-0.125000
G01 X16.868910 Y34.968980 Z-0.125000
G01 X16.587393 Y36.005890 Z-0.125000
G01 X17.893112 Y35.796860 Z-0.125000
G01 X19.198831 Y35.587580 Z-0.125000
G01 X20.504549 Y35.378290 Z-0.125000
G01 X20.070368 Y36.309360 Z-0.125000
G01 X19.636187 Y37.240430 Z-0.125000
G01 X20.840041 Y36.960500 Z-0.125000
G01 X22.043895 Y36.680840 Z-0.125000
G01 X23.248014 Y36.400910 Z-0.125000
G01 X23.834595 Y35.575670 Z-0.125000
G01 X24.421441 Y34.750700 Z-0.125000
G01 X25.008287 Y33.925470 Z-0.125000
G01 X23.651768 Y34.099560 Z-0.125000
G01 X22.295249 Y34.273390 Z-0.125000
G01 X22.780231 Y33.377510 Z-0.125000
G01 X21.372647 Y33.516160 Z-0.125000
G01 X21.806829 Y32.585090 Z-0.125000
G01 X21.517110 Y31.706410 Z-0.125000
G01 X20.097885 Y31.801910 Z-0.125000
G01 X20.348710 Y32.688270 Z-0.125000
G01 X21.806829 Y32.585080 Z-0.125000
G01 X23.265212 Y32.481890 Z-0.125000
G01 X22.936070 Y31.610620 Z-0.125000
G01 X21.517110 Y31.706420 Z-0.125000
G01 X21.227126 Y30.827470 Z-0.125000
G01 X19.847324 Y30.915570 Z-0.125000
G01 X19.596764 Y30.029210 Z-0.125000
G01 X19.346204 Y29.142590 Z-0.125000
G01 X19.095379 Y28.256240 Z-0.125000
G01 X20.357706 Y28.190940 Z-0.125000
G01 X20.067722 Y27.312260 Z-0.125000
G01 X19.778004 Y26.433310 Z-0.125000
G01 X19.488020 Y25.554630 Z-0.125000
G01 X18.343697 Y25.596930 Z-0.125000
G01 X18.594258 Y26.483550 Z-0.125000
G01 X18.844818 Y27.369910 Z-0.125000
G01 X20.067722 Y27.312210 Z-0.125000
G01 X21.290626 Y27.254210 Z-0.125000
G01 X22.513531 Y27.196510 Z-0.125000
G01 X22.881831 Y28.060110 Z-0.125000
G01 X24.143893 Y27.994810 Z-0.125000
G01 X23.736435 Y27.138880 Z-0.125000
G01 X22.513531 Y27.196580 Z-0.125000
G01 X22.145231 Y26.332980 Z-0.125000
G01 X20.961485 Y26.382980 Z-0.125000
G01 X21.290626 Y27.254250 Z-0.125000
G01 X21.619768 Y28.125530 Z-0.125000
G01 X20.357706 Y28.190930 Z-0.125000
G01 X20.647424 Y29.069870 Z-0.125000
G01 X21.948910 Y28.996870 Z-0.125000
G01 X22.278051 Y29.868140 Z-0.125000
G01 X22.606929 Y30.739410 Z-0.125000
G01 X23.986731 Y30.651310 Z-0.125000
G01 X24.355031 Y31.515170 Z-0.125000
G01 X24.723595 Y32.378770 Z-0.125000
G01 X26.181714 Y32.275590 Z-0.125000
G01 X27.640097 Y32.172400 Z-0.125000
G01 X27.002451 Y32.961910 Z-0.125000
G01 X25.594868 Y33.100560 Z-0.125000
G01 X26.181714 Y32.275590 Z-0.125000
G01 X25.774256 Y31.419390 Z-0.125000
G01 X25.366533 Y30.563200 Z-0.125000
G01 X24.959074 Y29.707270 Z-0.125000
G01 X26.299718 Y29.626570 Z-0.125000
G01 X26.746599 Y30.475090 Z-0.125000
G01 X27.193216 Y31.323600 Z-0.125000
G01 X28.612176 Y31.228100 Z-0.125000
G01 X28.126401 Y30.387250 Z-0.125000
G01 X26.746599 Y30.475150 Z-0.125000
G01 X25.366533 Y30.563250 Z-0.125000
G01 X23.986731 Y30.651350 Z-0.125000
G01 X23.618431 Y29.787750 Z-0.125000
G01 X22.278051 Y29.868150 Z-0.125000
G01 X20.937408 Y29.948550 Z-0.125000
G01 X20.647424 Y29.069870 Z-0.125000
G01 X19.346204 Y29.142670 Z-0.125000
G01 X18.044718 Y29.215670 Z-0.125000
G01 X16.743497 Y29.288670 Z-0.125000
G01 X16.915477 Y30.190110 Z-0.125000
G01 X15.575097 Y30.270510 Z-0.125000
G01 X15.707918 Y31.179620 Z-0.125000
G01 X15.841004 Y32.088990 Z-0.125000
G01 X14.421779 Y32.184490 Z-0.125000
G01 X14.515439 Y33.101270 Z-0.125000
G00 Z10.000000

(End cutting path id: path402)


(Start cutting path id: path404)
(Change tool to Default tool)

G00 Z10.000000
G00 X14.421776 Y32.181930

G00 Z4.875000 (Fast pre-penetrate)
G01 Z-0.125000 F100.0(Penetrate)
G01 X14.328116 Y31.265150 Z-0.125000 F800.000000
G00 Z10.000000

(End cutting path id: path404)


(Start cutting path id: path412)
(Change tool to Default tool)

G00 Z10.000000
G00 X14.155869 Y35.314070

G00 Z4.875000 (Fast pre-penetrate)
G01 Z-0.125000 F100.0(Penetrate)
G01 X13.975953 Y36.421880 Z-0.125000 F800.000000
G00 Z10.000000

(End cutting path id: path412)


(Start cutting path id: path414)
(Change tool to Default tool)

G00 Z10.000000
G00 X13.796301 Y37.529420

G00 Z4.875000 (Fast pre-penetrate)
G01 Z-0.125000 F100.0(Penetrate)
G01 X13.616384 Y38.637230 Z-0.125000 F800.000000
G01 X14.820503 Y38.357300 Z-0.125000
G01 X14.589786 Y39.429660 Z-0.125000
G01 X13.436732 Y39.744780 Z-0.125000
G01 X13.256815 Y40.852590 Z-0.125000
G00 Z10.000000

(End cutting path id: path414)


(Start cutting path id: path410)
(Change tool to Default tool)

G00 Z10.000000
G00 X13.076899 Y41.960400

G00 Z4.875000 (Fast pre-penetrate)
G01 Z-0.125000 F100.0(Penetrate)
G01 X13.256815 Y40.852590 Z-0.125000 F800.000000
G01 X14.359069 Y40.502020 Z-0.125000
G01 X14.589786 Y39.429660 Z-0.125000
G01 X15.742840 Y39.114540 Z-0.125000
G01 X16.024357 Y38.077370 Z-0.125000
G01 X17.228211 Y37.797710 Z-0.125000
G01 X16.895894 Y38.799420 Z-0.125000
G01 X18.048948 Y38.484040 Z-0.125000
G01 X19.202003 Y38.168920 Z-0.125000
G01 X19.636184 Y37.237850 Z-0.125000
G01 X18.432065 Y37.517780 Z-0.125000
G01 X17.228211 Y37.797710 Z-0.125000
G01 X17.560792 Y36.796000 Z-0.125000
G01 X17.893109 Y35.794280 Z-0.125000
G01 X18.225426 Y34.792570 Z-0.125000
G01 X18.558007 Y33.790600 Z-0.125000
G01 X18.890323 Y32.788880 Z-0.125000
G01 X20.348707 Y32.685700 Z-0.125000
G01 X19.965326 Y33.652220 Z-0.125000
G01 X18.558007 Y33.790600 Z-0.125000
G01 X17.150424 Y33.929240 Z-0.125000
G01 X17.432205 Y32.892330 Z-0.125000
G01 X18.890323 Y32.788880 Z-0.125000
G01 X18.678921 Y31.895120 Z-0.125000
G01 X20.097882 Y31.799320 Z-0.125000
G01 X19.847321 Y30.912970 Z-0.125000
G01 X18.467519 Y31.001070 Z-0.125000
G01 X18.678921 Y31.895100 Z-0.125000
G01 X17.259961 Y31.990600 Z-0.125000
G01 X17.432205 Y32.892300 Z-0.125000
G01 X15.973821 Y32.995490 Z-0.125000
G01 X15.743105 Y34.067850 Z-0.125000
G01 X14.335786 Y34.206490 Z-0.125000
G00 Z10.000000

(End cutting path id: path410)


(Start cutting path id: path418)
(Change tool to Default tool)

G00 Z10.000000
G00 X14.820503 Y38.357300

G00 Z4.875000 (Fast pre-penetrate)
G01 Z-0.125000 F100.0(Penetrate)
G01 X15.050955 Y37.284950 Z-0.125000 F800.000000
G01 X15.281671 Y36.212590 Z-0.125000
G01 X16.587390 Y36.003310 Z-0.125000
G01 X16.305874 Y37.040470 Z-0.125000
G01 X16.024357 Y38.077370 Z-0.125000
G01 X14.820503 Y38.357300 Z-0.125000
G00 Z10.000000

(End cutting path id: path418)


(Start cutting path id: path416)
(Change tool to Default tool)

G00 Z10.000000
G00 X13.436732 Y39.744780

G00 Z4.875000 (Fast pre-penetrate)
G01 Z-0.125000 F100.0(Penetrate)
G01 X13.616384 Y38.637230 Z-0.125000 F800.000000
G00 Z10.000000

(End cutting path id: path416)


(Start cutting path id: path408)
(Change tool to Default tool)

G00 Z10.000000
G00 X13.897636 Y42.646730

G00 Z4.875000 (Fast pre-penetrate)
G01 Z-0.125000 F100.0(Penetrate)
G01 X14.128353 Y41.574370 Z-0.125000 F800.000000
G01 X13.076899 Y41.960400 Z-0.125000
G01 X12.897246 Y43.067950 Z-0.125000
G01 X13.897636 Y42.646730 Z-0.125000
G00 Z10.000000

(End cutting path id: path408)


(Start cutting path id: path420)
(Change tool to Default tool)

G00 Z10.000000
G00 X12.897246 Y43.067950

G00 Z4.875000 (Fast pre-penetrate)
G01 Z-0.125000 F100.0(Penetrate)
G01 X12.717330 Y44.175760 Z-0.125000 F800.000000
G00 Z10.000000

(End cutting path id: path420)


(Start cutting path id: path246)
(Change tool to Default tool)

G00 Z10.000000
G00 X12.882165 Y46.115420

G00 Z4.875000 (Fast pre-penetrate)
G01 Z-0.125000 F100.0(Penetrate)
G01 X13.760053 Y45.684670 Z-0.125000 F800.000000
G01 X14.637940 Y45.253930 Z-0.125000
G01 X14.941153 Y46.208280 Z-0.125000
G01 X15.798138 Y45.838660 Z-0.125000
G01 X16.655388 Y45.469040 Z-0.125000
G01 X16.917061 Y46.545630 Z-0.125000
G01 X17.178469 Y47.621950 Z-0.125000
G01 X17.994180 Y47.374570 Z-0.125000
G01 X18.234951 Y48.512280 Z-0.125000
G01 X18.475721 Y49.649980 Z-0.125000
G01 X18.716492 Y50.787430 Z-0.125000
G01 X19.470026 Y50.723630 Z-0.125000
G01 X19.249892 Y49.524810 Z-0.125000
G01 X20.024328 Y49.399660 Z-0.125000
G01 X20.223559 Y50.659600 Z-0.125000
G01 X20.422790 Y51.919550 Z-0.125000
G01 X19.690159 Y51.922550 Z-0.125000
G01 X18.957263 Y51.925550 Z-0.125000
G01 X18.716492 Y50.787840 Z-0.125000
G01 X17.963223 Y50.851840 Z-0.125000
G01 X17.209690 Y50.915840 Z-0.125000
G01 X17.492001 Y51.931310 Z-0.125000
G01 X17.774311 Y52.946510 Z-0.125000
G01 X17.062317 Y52.888310 Z-0.125000
G01 X16.759369 Y51.933950 Z-0.125000
G01 X17.492001 Y51.930950 Z-0.125000
G01 X18.224632 Y51.927950 Z-0.125000
G01 X18.486305 Y53.004270 Z-0.125000
G01 X17.774311 Y52.946070 Z-0.125000
G01 X18.056621 Y53.961540 Z-0.125000
G01 X17.365265 Y53.841950 Z-0.125000
G01 X17.668478 Y54.796300 Z-0.125000
G01 X17.873001 Y55.818130 Z-0.125000
G01 X18.077523 Y56.839950 Z-0.125000
G01 X18.281782 Y57.861770 Z-0.125000
G01 X18.486305 Y58.883590 Z-0.125000
G01 X17.971426 Y58.743890 Z-0.125000
G01 X18.214842 Y59.776030 Z-0.125000
G01 X18.690828 Y59.905410 Z-0.125000
G01 X18.895351 Y60.927230 Z-0.125000
G01 X19.332442 Y61.046290 Z-0.125000
G01 X19.769534 Y61.165350 Z-0.125000
G01 X19.642798 Y60.163910 Z-0.125000
G01 X19.516063 Y59.162720 Z-0.125000
G01 X20.030942 Y59.302420 Z-0.125000
G01 X19.943102 Y58.311290 Z-0.125000
G01 X19.389329 Y58.161280 Z-0.125000
G01 X19.516064 Y59.162720 Z-0.125000
G01 X19.001185 Y59.023020 Z-0.125000
G01 X19.166814 Y60.034790 Z-0.125000
G01 X19.642799 Y60.163910 Z-0.125000
G01 X20.118785 Y60.293290 Z-0.125000
G01 X20.594770 Y60.422670 Z-0.125000
G01 X20.643720 Y61.403740 Z-0.125000
G01 X20.692670 Y62.384550 Z-0.125000
G01 X20.294472 Y62.275550 Z-0.125000
G01 X20.382312 Y63.266680 Z-0.125000
G01 X20.023008 Y63.167980 Z-0.125000
G01 X19.896272 Y62.166790 Z-0.125000
G01 X19.498074 Y62.057780 Z-0.125000
G01 X19.663704 Y63.069290 Z-0.125000
G01 X19.304399 Y62.970590 Z-0.125000
G01 X18.945095 Y62.871890 Z-0.125000
G01 X19.188247 Y63.904030 Z-0.125000
G01 X19.508922 Y63.992430 Z-0.125000
G01 X19.304399 Y62.970610 Z-0.125000
G01 X19.099876 Y61.948790 Z-0.125000
G01 X18.895354 Y60.927230 Z-0.125000
G01 X18.458262 Y60.807900 Z-0.125000
G01 X18.021170 Y60.688840 Z-0.125000
G01 X18.303481 Y61.731030 Z-0.125000
G01 X18.701679 Y61.840040 Z-0.125000
G01 X18.945095 Y62.871920 Z-0.125000
G01 X18.585791 Y62.773520 Z-0.125000
G01 X18.303481 Y61.731060 Z-0.125000
G00 Z10.000000

(End cutting path id: path246)


(Start cutting path id: path248)
(Change tool to Default tool)

G00 Z10.000000
G00 X18.021167 Y60.688930

G00 Z4.875000 (Fast pre-penetrate)
G01 Z-0.125000 F100.0(Penetrate)
G01 X17.738857 Y59.646740 Z-0.125000 F800.000000
G00 Z10.000000

(End cutting path id: path248)


(Start cutting path id: path250)
(Change tool to Default tool)

G00 Z10.000000
G00 X17.456546 Y58.604280

G00 Z4.875000 (Fast pre-penetrate)
G01 Z-0.125000 F100.0(Penetrate)
G01 X17.174501 Y57.562080 Z-0.125000 F800.000000
G00 Z10.000000

(End cutting path id: path250)


(Start cutting path id: path252)
(Change tool to Default tool)

G00 Z10.000000
G00 X17.241440 Y55.647820

G00 Z4.875000 (Fast pre-penetrate)
G01 Z-0.125000 F100.0(Penetrate)
G01 X16.609880 Y55.477700 Z-0.125000 F800.000000
G00 Z10.000000

(End cutting path id: path252)


(Start cutting path id: path242)
(Change tool to Default tool)

G00 Z10.000000
G00 X17.241440 Y55.647820

G00 Z4.875000 (Fast pre-penetrate)
G01 Z-0.125000 F100.0(Penetrate)
G01 X17.873001 Y55.818220 Z-0.125000 F800.000000
G01 X18.504561 Y55.988610 Z-0.125000
G01 X18.338932 Y54.976840 Z-0.125000
G01 X18.056621 Y53.961630 Z-0.125000
G01 X18.747713 Y54.080960 Z-0.125000
G01 X19.009386 Y55.157550 Z-0.125000
G01 X18.338932 Y54.976840 Z-0.125000
G01 X17.668478 Y54.796390 Z-0.125000
G01 X16.998024 Y54.615950 Z-0.125000
G01 X16.327569 Y54.435240 Z-0.125000
G00 Z10.000000

(End cutting path id: path242)


(Start cutting path id: path254)
(Change tool to Default tool)

G00 Z10.000000
G00 X16.674174 Y53.722720

G00 Z4.875000 (Fast pre-penetrate)
G01 Z-0.125000 F100.0(Penetrate)
G01 X17.365265 Y53.842040 Z-0.125000 F800.000000
G01 X17.062317 Y52.887960 Z-0.125000
G01 X16.350324 Y52.829460 Z-0.125000
G01 X15.638594 Y52.771260 Z-0.125000
G01 X15.293842 Y51.939410 Z-0.125000
G01 X14.949355 Y51.107300 Z-0.125000
G01 X14.604867 Y50.275450 Z-0.125000
G01 X14.260380 Y49.443340 Z-0.125000
G01 X13.915628 Y48.611220 Z-0.125000
G01 X13.571140 Y47.779370 Z-0.125000
G01 X13.226653 Y46.947260 Z-0.125000
G00 Z10.000000

(End cutting path id: path254)


(Start cutting path id: path256)
(Change tool to Default tool)

G00 Z10.000000
G00 X13.571140 Y47.779380

G00 Z4.875000 (Fast pre-penetrate)
G01 Z-0.125000 F100.0(Penetrate)
G01 X14.407753 Y47.470880 Z-0.125000 F800.000000
G01 X14.731338 Y48.364110 Z-0.125000
G01 X15.547049 Y48.116720 Z-0.125000
G01 X16.362759 Y47.869340 Z-0.125000
G01 X17.178469 Y47.621950 Z-0.125000
G01 X17.440142 Y48.698540 Z-0.125000
G01 X18.234951 Y48.512280 Z-0.125000
G01 X19.030023 Y48.326010 Z-0.125000
G01 X19.824832 Y48.140010 Z-0.125000
G01 X20.619905 Y47.953740 Z-0.125000
G01 X20.798498 Y49.274540 Z-0.125000
G01 X20.024328 Y49.399690 Z-0.125000
G01 X19.824832 Y48.140010 Z-0.125000
G01 X19.625601 Y46.880060 Z-0.125000
G01 X19.426369 Y45.620120 Z-0.125000
G01 X18.590021 Y45.928620 Z-0.125000
G01 X17.753409 Y46.237120 Z-0.125000
G01 X16.917061 Y46.545630 Z-0.125000
G01 X16.080449 Y46.853870 Z-0.125000
G01 X15.244101 Y47.162370 Z-0.125000
G01 X15.547049 Y48.116720 Z-0.125000
G01 X15.850261 Y49.070810 Z-0.125000
G01 X16.153209 Y50.025160 Z-0.125000
G01 X15.379038 Y50.150310 Z-0.125000
G01 X15.055188 Y49.257080 Z-0.125000
G01 X15.850261 Y49.070810 Z-0.125000
G01 X16.645069 Y48.884810 Z-0.125000
G01 X17.440142 Y48.698540 Z-0.125000
G01 X17.701551 Y49.775130 Z-0.125000
G01 X18.475721 Y49.649980 Z-0.125000
G01 X19.249892 Y49.524840 Z-0.125000
G01 X19.030023 Y48.326010 Z-0.125000
G01 X18.809890 Y47.127450 Z-0.125000
G01 X19.625601 Y46.880060 Z-0.125000
G01 X20.441311 Y46.632680 Z-0.125000
G01 X20.619905 Y47.953740 Z-0.125000
G01 X21.414713 Y47.767470 Z-0.125000
G01 X21.572669 Y49.149660 Z-0.125000
G01 X20.798498 Y49.274540 Z-0.125000
G01 X20.976828 Y50.595610 Z-0.125000
G01 X21.730361 Y50.531610 Z-0.125000
G01 X21.572669 Y49.149690 Z-0.125000
G01 X22.346840 Y49.024540 Z-0.125000
G01 X23.121011 Y48.899390 Z-0.125000
G01 X23.237163 Y50.403810 Z-0.125000
G01 X23.353580 Y51.908230 Z-0.125000
G01 X23.469732 Y53.412390 Z-0.125000
G01 X24.732323 Y53.126110 Z-0.125000
G01 X24.584421 Y51.693390 Z-0.125000
G01 X25.815528 Y51.478550 Z-0.125000
G01 X27.046369 Y51.263970 Z-0.125000
G01 X26.835232 Y49.974660 Z-0.125000
G01 X28.034588 Y49.831780 Z-0.125000
G01 X28.277475 Y51.049130 Z-0.125000
G01 X27.046369 Y51.263970 Z-0.125000
G01 X27.257507 Y52.553020 Z-0.125000
G01 X28.520363 Y52.266480 Z-0.125000
G01 X28.277475 Y51.049130 Z-0.125000
G01 X29.508317 Y50.834290 Z-0.125000
G01 X29.782955 Y51.979940 Z-0.125000
G01 X28.520363 Y52.266480 Z-0.125000
G01 X28.762986 Y53.484090 Z-0.125000
G01 X29.005873 Y54.701440 Z-0.125000
G01 X28.730971 Y55.751570 Z-0.125000
G01 X30.024519 Y55.351790 Z-0.125000
G01 X31.318067 Y54.952000 Z-0.125000
G01 X31.657792 Y53.841280 Z-0.125000
G01 X31.351669 Y52.767600 Z-0.125000
G01 X30.057328 Y53.125850 Z-0.125000
G01 X30.331700 Y54.271490 Z-0.125000
G01 X31.657792 Y53.841280 Z-0.125000
G01 X32.983619 Y53.411330 Z-0.125000
G01 X34.309446 Y52.981380 Z-0.125000
G01 X33.940088 Y52.051110 Z-0.125000
G01 X32.646011 Y52.409350 Z-0.125000
G01 X32.983619 Y53.411330 Z-0.125000
G01 X32.611615 Y54.551950 Z-0.125000
G01 X33.905163 Y54.152160 Z-0.125000
G01 X34.309446 Y52.981380 Z-0.125000
G01 X35.635538 Y52.551440 Z-0.125000
G01 X35.234430 Y51.692860 Z-0.125000
G01 X34.833321 Y50.834030 Z-0.125000
G01 X34.432477 Y49.975450 Z-0.125000
G01 X33.201371 Y50.190030 Z-0.125000
G01 X33.570730 Y51.120570 Z-0.125000
G01 X33.940088 Y52.051110 Z-0.125000
G01 X35.234430 Y51.692860 Z-0.125000
G01 X36.528771 Y51.334620 Z-0.125000
G01 X36.961365 Y52.121490 Z-0.125000
G01 X36.492259 Y53.352590 Z-0.125000
G01 X35.198711 Y53.752380 Z-0.125000
G01 X35.635538 Y52.551440 Z-0.125000
G01 X36.961365 Y52.121490 Z-0.125000
G01 X38.287192 Y51.691540 Z-0.125000
G01 X39.149998 Y52.000570 Z-0.125000
G01 X40.012804 Y52.309610 Z-0.125000
G01 X39.644504 Y53.517690 Z-0.125000
G01 X38.715023 Y53.235120 Z-0.125000
G01 X38.280313 Y54.469930 Z-0.125000
G01 X37.845338 Y55.704740 Z-0.125000
G01 X38.908169 Y55.934130 Z-0.125000
G01 X39.971265 Y56.163790 Z-0.125000
G01 X39.669904 Y57.345690 Z-0.125000
G01 X39.368544 Y58.527310 Z-0.125000
G01 X39.067184 Y59.709210 Z-0.125000
G01 X38.765559 Y60.890840 Z-0.125000
G01 X40.095619 Y61.014660 Z-0.125000
G01 X39.860934 Y62.169830 Z-0.125000
G01 X41.257669 Y62.267230 Z-0.125000
G01 X41.425415 Y61.138250 Z-0.125000
G01 X40.095619 Y61.014690 Z-0.125000
G01 X40.330304 Y59.859260 Z-0.125000
G01 X41.593425 Y60.009540 Z-0.125000
G01 X42.856546 Y60.159560 Z-0.125000
G01 X42.957617 Y59.057300 Z-0.125000
G01 X41.761171 Y58.880560 Z-0.125000
G01 X41.929182 Y57.751850 Z-0.125000
G01 X43.058688 Y57.955050 Z-0.125000
G01 X44.188459 Y58.157990 Z-0.125000
G01 X45.318229 Y58.361190 Z-0.125000
G01 X45.350509 Y59.410520 Z-0.125000
G01 X45.382789 Y60.460130 Z-0.125000
G01 X44.119668 Y60.309840 Z-0.125000
G01 X44.154068 Y59.234050 Z-0.125000
G01 X44.188468 Y58.157990 Z-0.125000
G01 X44.222868 Y57.082190 Z-0.125000
G01 X44.257268 Y56.006390 Z-0.125000
G01 X44.291668 Y54.930600 Z-0.125000
G01 X43.362187 Y54.648020 Z-0.125000
G01 X43.463522 Y53.545500 Z-0.125000
G01 X44.326064 Y53.854540 Z-0.125000
G01 X45.188870 Y54.163570 Z-0.125000
G01 X46.051412 Y54.472600 Z-0.125000
G01 X45.984212 Y53.269810 Z-0.125000
G01 X46.890939 Y53.524600 Z-0.125000
G01 X46.867659 Y52.267300 Z-0.125000
G01 X45.916747 Y52.066750 Z-0.125000
G01 X44.966099 Y51.866190 Z-0.125000
G01 X44.854445 Y50.717370 Z-0.125000
G01 X43.859612 Y50.571060 Z-0.125000
G01 X43.704037 Y49.476480 Z-0.125000
G01 X44.743055 Y49.568780 Z-0.125000
G01 X44.631666 Y48.419960 Z-0.125000
G01 X43.548462 Y48.381860 Z-0.125000
G01 X42.465257 Y48.343760 Z-0.125000
G01 X41.382053 Y48.305660 Z-0.125000
G01 X41.625734 Y49.292020 Z-0.125000
G01 X40.586451 Y49.199720 Z-0.125000
G01 X39.547432 Y49.107420 Z-0.125000
G01 X39.879484 Y49.985310 Z-0.125000
G01 X40.211537 Y50.863200 Z-0.125000
G01 X40.543324 Y51.740820 Z-0.125000
G01 X41.450316 Y51.995620 Z-0.125000
G01 X41.738182 Y52.927740 Z-0.125000
G01 X41.503497 Y54.082910 Z-0.125000
G01 X40.574016 Y53.800340 Z-0.125000
G01 X40.272655 Y54.982230 Z-0.125000
G01 X41.268812 Y55.238080 Z-0.125000
G01 X41.503497 Y54.082910 Z-0.125000
G01 X42.432978 Y54.365490 Z-0.125000
G01 X43.362195 Y54.648060 Z-0.125000
G01 X43.261124 Y55.750320 Z-0.125000
G01 X43.160053 Y56.852570 Z-0.125000
G01 X42.096957 Y56.623180 Z-0.125000
G01 X41.929212 Y57.751890 Z-0.125000
G01 X40.799441 Y57.548690 Z-0.125000
G01 X40.564755 Y58.704130 Z-0.125000
G01 X41.761201 Y58.880600 Z-0.125000
G01 X41.593455 Y60.009580 Z-0.125000
G01 X41.425445 Y61.138290 Z-0.125000
G01 X42.755505 Y61.262120 Z-0.125000
G01 X42.654170 Y62.364370 Z-0.125000
G01 X42.553099 Y63.466630 Z-0.125000
G01 X42.452028 Y64.569140 Z-0.125000
G01 X40.921678 Y64.524640 Z-0.125000
G01 X41.089689 Y63.395930 Z-0.125000
G01 X39.626278 Y63.325330 Z-0.125000
G01 X38.162868 Y63.254430 Z-0.125000
G01 X36.699457 Y63.183830 Z-0.125000
G01 X37.067757 Y61.975470 Z-0.125000
G01 X38.464228 Y62.072870 Z-0.125000
G01 X38.162868 Y63.254500 Z-0.125000
G01 X37.861507 Y64.436390 Z-0.125000
G01 X37.560147 Y65.618020 Z-0.125000
G01 X39.156907 Y65.635720 Z-0.125000
G01 X40.753932 Y65.653720 Z-0.125000
G01 X40.835162 Y66.732160 Z-0.125000
G01 X40.916392 Y67.810870 Z-0.125000
G01 X39.316456 Y67.763270 Z-0.125000
G01 X37.716521 Y67.715370 Z-0.125000
G01 X37.794841 Y68.764170 Z-0.125000
G01 X36.193319 Y68.701470 Z-0.125000
G01 X36.270049 Y69.735190 Z-0.125000
G01 X34.666938 Y69.657690 Z-0.125000
G01 X34.742348 Y70.676340 Z-0.125000
G01 X33.137650 Y70.584040 Z-0.125000
G01 X32.298920 Y70.638540 Z-0.125000
G01 X31.459927 Y70.693340 Z-0.125000
G01 X30.620933 Y70.748140 Z-0.125000
G01 X29.782204 Y70.802940 Z-0.125000
G01 X29.960533 Y71.771580 Z-0.125000
G01 X30.773068 Y71.725780 Z-0.125000
G01 X30.620933 Y70.748150 Z-0.125000
G01 X30.468798 Y69.770510 Z-0.125000
G01 X31.333985 Y69.707010 Z-0.125000
G01 X31.208043 Y68.720650 Z-0.125000
G01 X30.316662 Y68.792850 Z-0.125000
G01 X30.468798 Y69.770480 Z-0.125000
G01 X29.603875 Y69.833980 Z-0.125000
G01 X29.425281 Y68.865080 Z-0.125000
G01 X28.534164 Y68.937280 Z-0.125000
G01 X28.329641 Y67.977370 Z-0.125000
G01 X29.246952 Y67.896370 Z-0.125000
G01 X29.068623 Y66.927470 Z-0.125000
G01 X28.890293 Y65.958560 Z-0.125000
G01 X29.860256 Y65.860160 Z-0.125000
G01 X30.012391 Y66.837790 Z-0.125000
G01 X29.068623 Y66.927490 Z-0.125000
G01 X28.125118 Y67.017190 Z-0.125000
G01 X28.329641 Y67.977360 Z-0.125000
G01 X27.412066 Y68.058360 Z-0.125000
G01 X27.642783 Y69.009530 Z-0.125000
G01 X27.873500 Y69.960970 Z-0.125000
G01 X27.008577 Y70.024470 Z-0.125000
G01 X26.751666 Y69.081760 Z-0.125000
G01 X27.642783 Y69.009560 Z-0.125000
G01 X28.534164 Y68.937360 Z-0.125000
G01 X28.738687 Y69.897530 Z-0.125000
G01 X29.603875 Y69.834030 Z-0.125000
G01 X29.782204 Y70.802940 Z-0.125000
G01 X28.943210 Y70.857740 Z-0.125000
G01 X28.738687 Y69.897560 Z-0.125000
G01 X27.873500 Y69.961060 Z-0.125000
G01 X28.104216 Y70.912240 Z-0.125000
G01 X27.265487 Y70.967040 Z-0.125000
G01 X26.426493 Y71.021840 Z-0.125000
G01 X26.143389 Y70.088120 Z-0.125000
G01 X25.860285 Y69.154140 Z-0.125000
G01 X24.969168 Y69.226340 Z-0.125000
G01 X24.659871 Y68.301350 Z-0.125000
G01 X24.350573 Y67.376370 Z-0.125000
G01 X24.041539 Y66.451120 Z-0.125000
G01 X25.011237 Y66.352720 Z-0.125000
G01 X25.253860 Y65.332750 Z-0.125000
G01 X26.256102 Y65.203900 Z-0.125000
G01 X25.980935 Y66.254290 Z-0.125000
G01 X26.237846 Y67.196740 Z-0.125000
G01 X25.294341 Y67.286440 Z-0.125000
G01 X25.577181 Y68.220420 Z-0.125000
G01 X24.659871 Y68.301420 Z-0.125000
G01 X23.742560 Y68.382420 Z-0.125000
G01 X22.824985 Y68.463420 Z-0.125000
G01 X22.388423 Y68.419720 Z-0.125000
G01 X22.653271 Y69.339410 Z-0.125000
G01 X22.119871 Y69.308210 Z-0.125000
G01 X21.586471 Y69.276710 Z-0.125000
G01 X21.053071 Y69.245210 Z-0.125000
G01 X21.079261 Y68.289010 Z-0.125000
G01 X21.515559 Y68.332710 Z-0.125000
G01 X21.586469 Y69.276750 Z-0.125000
G01 X21.657379 Y70.220780 Z-0.125000
G01 X21.027141 Y70.201480 Z-0.125000
G01 X21.001211 Y71.157680 Z-0.125000
G01 X21.728286 Y71.164680 Z-0.125000
G01 X21.799196 Y72.108720 Z-0.125000
G01 X21.870106 Y73.052750 Z-0.125000
G01 X20.949091 Y73.070250 Z-0.125000
G01 X20.923161 Y74.026460 Z-0.125000
G01 X20.897231 Y74.982660 Z-0.125000
G01 X20.871301 Y75.938870 Z-0.125000
G01 X19.659509 Y75.992870 Z-0.125000
G01 X19.536743 Y76.961250 Z-0.125000
G01 X18.228113 Y77.027150 Z-0.125000
G01 X18.447982 Y76.046600 Z-0.125000
G01 X19.659509 Y75.992900 Z-0.125000
G01 X19.782540 Y75.024260 Z-0.125000
G01 X18.667586 Y75.066060 Z-0.125000
G01 X17.552897 Y75.107560 Z-0.125000
G01 X16.438207 Y75.149060 Z-0.125000
G01 X16.851751 Y74.144180 Z-0.125000
G01 X17.265295 Y73.139290 Z-0.125000
G01 X17.679103 Y72.134400 Z-0.125000
G01 X18.092647 Y71.129250 Z-0.125000
G01 X18.506190 Y70.124360 Z-0.125000
G01 X19.136428 Y70.143660 Z-0.125000
G01 X18.819722 Y71.136370 Z-0.125000
G01 X18.092647 Y71.129370 Z-0.125000
G01 X17.365307 Y71.122370 Z-0.125000
G01 X16.854926 Y72.139430 Z-0.125000
G01 X17.679103 Y72.134430 Z-0.125000
G01 X18.503015 Y72.129430 Z-0.125000
G01 X19.327193 Y72.124430 Z-0.125000
G01 X19.107324 Y73.104980 Z-0.125000
G01 X18.887455 Y74.085790 Z-0.125000
G01 X19.905307 Y74.056190 Z-0.125000
G01 X20.923159 Y74.026790 Z-0.125000
G01 X21.941011 Y73.997390 Z-0.125000
G01 X21.870101 Y73.053090 Z-0.125000
G01 X22.791116 Y73.035890 Z-0.125000
G01 X23.711866 Y73.018690 Z-0.125000
G01 X24.632880 Y73.001490 Z-0.125000
G01 X24.271459 Y72.093700 Z-0.125000
G01 X25.083995 Y72.047900 Z-0.125000
G01 X25.419486 Y72.964150 Z-0.125000
G01 X24.632880 Y73.001450 Z-0.125000
G01 X24.994565 Y73.908970 Z-0.125000
G01 X23.976713 Y73.938370 Z-0.125000
G01 X24.241297 Y74.858060 Z-0.125000
G01 X23.126607 Y74.899560 Z-0.125000
G01 X23.294353 Y75.831680 Z-0.125000
G01 X24.506145 Y75.777680 Z-0.125000
G01 X24.241297 Y74.857990 Z-0.125000
G01 X25.355986 Y74.816490 Z-0.125000
G01 X26.090205 Y74.796690 Z-0.125000
G01 X25.754978 Y73.880440 Z-0.125000
G01 X25.419486 Y72.964190 Z-0.125000
G01 X26.206093 Y72.926890 Z-0.125000
G01 X26.515390 Y73.852140 Z-0.125000
G01 X26.824424 Y74.777130 Z-0.125000
G01 X27.133722 Y75.702110 Z-0.125000
G01 X27.841747 Y75.691210 Z-0.125000
G01 X27.558643 Y74.757230 Z-0.125000
G01 X27.275538 Y73.823520 Z-0.125000
G01 X26.515390 Y73.852120 Z-0.125000
G01 X25.754978 Y73.880420 Z-0.125000
G01 X24.994565 Y73.909020 Z-0.125000
G01 X25.355986 Y74.816540 Z-0.125000
G01 X25.717672 Y75.724060 Z-0.125000
G01 X24.506145 Y75.777760 Z-0.125000
G01 X24.770728 Y76.697450 Z-0.125000
G01 X26.079357 Y76.631550 Z-0.125000
G01 X26.761188 Y76.629550 Z-0.125000
G01 X26.425697 Y75.713300 Z-0.125000
G01 X25.717672 Y75.724200 Z-0.125000
G01 X26.079357 Y76.631720 Z-0.125000
G01 X25.864251 Y77.210100 Z-0.125000
G01 X25.649145 Y77.788480 Z-0.125000
G01 X24.381526 Y78.011520 Z-0.125000
G01 X24.186793 Y78.668480 Z-0.125000
G01 X23.992059 Y79.325180 Z-0.125000
G01 X25.219197 Y78.944970 Z-0.125000
G01 X26.162436 Y79.168280 Z-0.125000
G01 X26.012682 Y79.802750 Z-0.125000
G01 X27.021274 Y80.082420 Z-0.125000
G01 X28.029865 Y80.361820 Z-0.125000
G01 X29.038457 Y80.641220 Z-0.125000
G01 X28.992157 Y79.837680 Z-0.125000
G01 X29.935397 Y80.060720 Z-0.125000
G01 X30.047051 Y80.920620 Z-0.125000
G01 X31.055642 Y81.200020 Z-0.125000
G01 X32.064234 Y81.479680 Z-0.125000
G01 X31.821876 Y80.507070 Z-0.125000
G01 X30.878636 Y80.283760 Z-0.125000
G01 X30.701630 Y79.367510 Z-0.125000
G01 X29.823742 Y79.200820 Z-0.125000
G01 X28.945855 Y79.033870 Z-0.125000
G01 X28.067703 Y78.867180 Z-0.125000
G01 X28.048913 Y79.614370 Z-0.125000
G01 X28.992153 Y79.837680 Z-0.125000
G01 X28.945853 Y79.033870 Z-0.125000
G01 X28.899283 Y78.230330 Z-0.125000
G01 X28.852983 Y77.426530 Z-0.125000
G01 X29.600167 Y77.480730 Z-0.125000
G01 X30.347350 Y77.534930 Z-0.125000
G01 X30.170344 Y76.618410 Z-0.125000
G01 X29.965821 Y75.658500 Z-0.125000
G01 X29.257796 Y75.669400 Z-0.125000
G01 X29.488512 Y76.620840 Z-0.125000
G01 X30.170344 Y76.618840 Z-0.125000
G01 X30.852175 Y76.616840 Z-0.125000
G01 X31.534006 Y76.614840 Z-0.125000
G01 X32.215837 Y76.612840 Z-0.125000
G01 X32.089896 Y75.626730 Z-0.125000
G01 X31.963954 Y74.640370 Z-0.125000
G01 X31.229735 Y74.659970 Z-0.125000
G01 X31.077600 Y73.682330 Z-0.125000
G01 X30.317187 Y73.710930 Z-0.125000
G01 X30.138858 Y72.742020 Z-0.125000
G01 X29.960529 Y71.773120 Z-0.125000
G01 X29.147729 Y71.819120 Z-0.125000
G01 X28.334929 Y71.865120 Z-0.125000
G01 X28.565646 Y72.816300 Z-0.125000
G01 X29.352252 Y72.779300 Z-0.125000
G01 X30.138858 Y72.742000 Z-0.125000
G01 X30.925200 Y72.704700 Z-0.125000
G01 X31.077600 Y73.682330 Z-0.125000
G01 X31.837748 Y73.654030 Z-0.125000
G01 X31.711806 Y72.667660 Z-0.125000
G01 X30.925200 Y72.704660 Z-0.125000
G01 X30.773064 Y71.727280 Z-0.125000
G01 X31.585864 Y71.681280 Z-0.125000
G01 X31.711806 Y72.667640 Z-0.125000
G01 X32.498412 Y72.630340 Z-0.125000
G01 X32.398662 Y71.635240 Z-0.125000
G01 X33.211462 Y71.589440 Z-0.125000
G01 X33.285012 Y72.593270 Z-0.125000
G01 X34.892620 Y72.715500 Z-0.125000
G01 X34.817480 Y71.696860 Z-0.125000
G01 X33.211459 Y71.589440 Z-0.125000
G01 X33.137639 Y70.585610 Z-0.125000
G01 X33.064089 Y69.581510 Z-0.125000
G01 X32.990539 Y68.577680 Z-0.125000
G01 X32.099158 Y68.649880 Z-0.125000
G01 X31.208041 Y68.722080 Z-0.125000
G01 X31.081835 Y67.735710 Z-0.125000
G01 X31.999410 Y67.654710 Z-0.125000
G01 X31.899660 Y66.659610 Z-0.125000
G01 X30.955891 Y66.749610 Z-0.125000
G01 X31.081833 Y67.735710 Z-0.125000
G01 X30.164523 Y67.816910 Z-0.125000
G01 X30.012387 Y66.839270 Z-0.125000
G01 X30.955891 Y66.749570 Z-0.125000
G01 X30.829950 Y65.763200 Z-0.125000
G01 X31.799648 Y65.664500 Z-0.125000
G01 X31.899660 Y66.659600 Z-0.125000
G01 X32.843164 Y66.569900 Z-0.125000
G01 X32.916714 Y67.573730 Z-0.125000
G01 X32.990534 Y68.577550 Z-0.125000
G01 X34.591793 Y68.640250 Z-0.125000
G01 X34.666933 Y69.659160 Z-0.125000
G01 X33.064087 Y69.581360 Z-0.125000
G01 X32.198900 Y69.644860 Z-0.125000
G01 X32.099150 Y68.649770 Z-0.125000
G01 X31.999400 Y67.654670 Z-0.125000
G01 X32.916711 Y67.573670 Z-0.125000
G01 X34.516646 Y67.621570 Z-0.125000
G01 X36.116581 Y67.669170 Z-0.125000
G01 X37.716517 Y67.716770 Z-0.125000
G01 X37.638467 Y66.668220 Z-0.125000
G01 X37.560147 Y65.619410 Z-0.125000
G01 X35.963387 Y65.601710 Z-0.125000
G01 X36.039847 Y66.635430 Z-0.125000
G01 X34.441499 Y66.602630 Z-0.125000
G01 X32.843151 Y66.569830 Z-0.125000
G01 X32.769601 Y65.566000 Z-0.125000
G01 X31.799639 Y65.664400 Z-0.125000
G01 X32.269010 Y64.433560 Z-0.125000
G01 X32.738116 Y63.202450 Z-0.125000
G01 X33.207487 Y61.971350 Z-0.125000
G01 X32.140422 Y62.160260 Z-0.125000
G01 X31.073622 Y62.349170 Z-0.125000
G01 X30.669074 Y63.519950 Z-0.125000
G01 X29.634553 Y63.678700 Z-0.125000
G01 X30.006822 Y62.538090 Z-0.125000
G01 X28.939758 Y62.727000 Z-0.125000
G01 X29.279483 Y61.616540 Z-0.125000
G01 X28.180139 Y61.835620 Z-0.125000
G01 X27.872958 Y62.915910 Z-0.125000
G01 X27.565512 Y63.996200 Z-0.125000
G01 X27.258066 Y65.076500 Z-0.125000
G01 X28.260308 Y64.947910 Z-0.125000
G01 X27.920583 Y66.058370 Z-0.125000
G01 X26.950885 Y66.157070 Z-0.125000
G01 X25.980922 Y66.255470 Z-0.125000
G01 X25.011224 Y66.353870 Z-0.125000
G01 X25.294328 Y67.287580 Z-0.125000
G01 X24.350560 Y67.377580 Z-0.125000
G01 X23.407056 Y67.467280 Z-0.125000
G01 X23.071564 Y66.551030 Z-0.125000
G01 X22.101866 Y66.649430 Z-0.125000
G01 X22.463287 Y67.556950 Z-0.125000
G01 X22.123826 Y67.501150 Z-0.125000
G01 X21.859243 Y66.581460 Z-0.125000
G01 X21.616620 Y66.513460 Z-0.125000
G01 X21.373733 Y66.445460 Z-0.125000
G01 X21.131110 Y66.377460 Z-0.125000
G01 X21.105180 Y67.333930 Z-0.125000
G01 X20.765719 Y67.278130 Z-0.125000
G01 X20.425994 Y67.222330 Z-0.125000
G01 X20.086534 Y67.166530 Z-0.125000
G01 X20.403240 Y66.173820 Z-0.125000
G01 X20.160617 Y66.105820 Z-0.125000
G01 X19.994988 Y65.094320 Z-0.125000
G01 X19.829359 Y64.082810 Z-0.125000
G01 X19.508948 Y63.994210 Z-0.125000
G01 X19.713207 Y65.016030 Z-0.125000
G01 X19.994988 Y65.094330 Z-0.125000
G01 X20.276505 Y65.172330 Z-0.125000
G01 X20.149769 Y64.171140 Z-0.125000
G01 X19.829359 Y64.082740 Z-0.125000
G01 X19.663730 Y63.070980 Z-0.125000
G01 X20.023034 Y63.169680 Z-0.125000
G01 X20.149769 Y64.171120 Z-0.125000
G01 X20.470180 Y64.259520 Z-0.125000
G01 X20.382340 Y63.268400 Z-0.125000
G01 X20.741644 Y63.367100 Z-0.125000
G01 X21.100948 Y63.465800 Z-0.125000
G01 X21.110998 Y64.436300 Z-0.125000
G01 X21.121058 Y65.407050 Z-0.125000
G01 X21.402574 Y65.485150 Z-0.125000
G01 X21.684091 Y65.563450 Z-0.125000
G01 X21.965872 Y65.641450 Z-0.125000
G01 X22.072235 Y64.701650 Z-0.125000
G01 X22.178862 Y63.761590 Z-0.125000
G01 X22.285489 Y62.821790 Z-0.125000
G01 X21.887291 Y62.712780 Z-0.125000
G01 X21.819561 Y63.663160 Z-0.125000
G01 X21.751831 Y64.613280 Z-0.125000
G01 X21.431421 Y64.524880 Z-0.125000
G01 X21.111010 Y64.436280 Z-0.125000
G01 X20.790600 Y64.347880 Z-0.125000
G01 X20.839550 Y65.328690 Z-0.125000
G01 X20.888500 Y66.309760 Z-0.125000
G01 X20.765733 Y67.278140 Z-0.125000
G01 X20.642702 Y68.246510 Z-0.125000
G01 X20.206139 Y68.202810 Z-0.125000
G01 X19.769841 Y68.159210 Z-0.125000
G01 X19.453135 Y69.152190 Z-0.125000
G01 X18.919735 Y69.120690 Z-0.125000
G01 X18.386335 Y69.089190 Z-0.125000
G01 X17.852935 Y69.057690 Z-0.125000
G01 X17.245717 Y70.086920 Z-0.125000
G01 X17.875954 Y70.106220 Z-0.125000
G01 X18.506191 Y70.125520 Z-0.125000
G01 X18.919735 Y69.120630 Z-0.125000
G01 X19.333279 Y68.115750 Z-0.125000
G01 X19.746823 Y67.110590 Z-0.125000
G01 X20.086548 Y67.166390 Z-0.125000
G01 X19.769841 Y68.159110 Z-0.125000
G01 X19.333279 Y68.115710 Z-0.125000
G01 X18.896981 Y68.072010 Z-0.125000
G01 X18.460419 Y68.028310 Z-0.125000
G01 X17.852935 Y69.057540 Z-0.125000
G01 X17.319800 Y69.026040 Z-0.125000
G01 X18.023856 Y67.984640 Z-0.125000
G01 X18.460419 Y68.028240 Z-0.125000
G01 X19.067902 Y66.999020 Z-0.125000
G01 X19.675121 Y65.969520 Z-0.125000
G01 X19.431704 Y64.937650 Z-0.125000
G01 X19.188287 Y63.905510 Z-0.125000
G01 X18.867877 Y63.817110 Z-0.125000
G01 X18.585831 Y62.774910 Z-0.125000
G00 Z10.000000

(End cutting path id: path256)


(Start cutting path id: path258)
(Change tool to Default tool)

G00 Z10.000000
G00 X18.867834 Y63.815780

G00 Z4.875000 (Fast pre-penetrate)
G01 Z-0.125000 F100.0(Penetrate)
G01 X19.150144 Y64.857970 Z-0.125000 F800.000000
G01 X19.432455 Y65.900160 Z-0.125000
G01 X19.675078 Y65.968160 Z-0.125000
G01 X19.917701 Y66.036160 Z-0.125000
G01 X19.407319 Y67.053220 Z-0.125000
G01 X19.746780 Y67.109020 Z-0.125000
G01 X20.160588 Y66.104140 Z-0.125000
G01 X19.917701 Y66.036140 Z-0.125000
G01 X19.713178 Y65.014320 Z-0.125000
G01 X19.431661 Y64.936220 Z-0.125000
G01 X19.150144 Y64.857920 Z-0.125000
G00 Z10.000000

(End cutting path id: path258)


(Start cutting path id: path260)
(Change tool to Default tool)

G00 Z10.000000
G00 X19.432455 Y65.900160

G00 Z4.875000 (Fast pre-penetrate)
G01 Z-0.125000 F100.0(Penetrate)
G01 X18.728134 Y66.941830 Z-0.125000 F800.000000
G01 X18.023813 Y67.983230 Z-0.125000
G00 Z10.000000

(End cutting path id: path260)


(Start cutting path id: path264)
(Change tool to Default tool)

G00 Z10.000000
G00 X18.896938 Y68.070540

G00 Z4.875000 (Fast pre-penetrate)
G01 Z-0.125000 F100.0(Penetrate)
G01 X18.386292 Y69.087600 Z-0.125000 F800.000000
G01 X17.875911 Y70.104660 Z-0.125000
G01 X17.365265 Y71.121980 Z-0.125000
G01 X16.638190 Y71.114980 Z-0.125000
G01 X17.245674 Y70.085480 Z-0.125000
G01 X16.615436 Y70.066380 Z-0.125000
G01 X15.911115 Y71.107780 Z-0.125000
G01 X15.206794 Y72.149180 Z-0.125000
G01 X16.030971 Y72.144180 Z-0.125000
G01 X16.854884 Y72.139180 Z-0.125000
G01 X16.344503 Y73.156240 Z-0.125000
G01 X15.423488 Y73.173440 Z-0.125000
G01 X16.030971 Y72.144220 Z-0.125000
G01 X16.638190 Y71.114990 Z-0.125000
G01 X15.911115 Y71.107990 Z-0.125000
G00 Z10.000000

(End cutting path id: path264)


(Start cutting path id: path266)
(Change tool to Default tool)

G00 Z10.000000
G00 X16.615436 Y70.066290

G00 Z4.875000 (Fast pre-penetrate)
G01 Z-0.125000 F100.0(Penetrate)
G01 X17.319757 Y69.024630 Z-0.125000 F800.000000
G00 Z10.000000

(End cutting path id: path266)


(Start cutting path id: path262)
(Change tool to Default tool)

G00 Z10.000000
G00 X18.896938 Y68.070540

G00 Z4.875000 (Fast pre-penetrate)
G01 Z-0.125000 F100.0(Penetrate)
G01 X19.407319 Y67.053220 Z-0.125000 F800.000000
G01 X19.067859 Y66.997620 Z-0.125000
G01 X18.728134 Y66.941820 Z-0.125000
G00 Z10.000000

(End cutting path id: path262)


(Start cutting path id: path432)
(Change tool to Default tool)

G00 Z10.000000
G00 X20.276476 Y65.170710

G00 Z4.875000 (Fast pre-penetrate)
G01 Z-0.125000 F100.0(Penetrate)
G01 X20.403211 Y66.172160 Z-0.125000 F800.000000
G01 X20.645834 Y66.240160 Z-0.125000
G01 X20.888457 Y66.308160 Z-0.125000
G01 X21.131080 Y66.375860 Z-0.125000
G01 X21.121030 Y65.405370 Z-0.125000
G01 X20.839513 Y65.327070 Z-0.125000
G01 X20.557996 Y65.248970 Z-0.125000
G01 X20.276480 Y65.170670 Z-0.125000
G00 Z10.000000

(End cutting path id: path432)


(Start cutting path id: path434)
(Change tool to Default tool)

G00 Z10.000000
G00 X21.105151 Y67.332350

G00 Z4.875000 (Fast pre-penetrate)
G01 Z-0.125000 F100.0(Penetrate)
G01 X21.444611 Y67.387950 Z-0.125000 F800.000000
G01 X21.784336 Y67.443750 Z-0.125000
G01 X21.952082 Y68.375620 Z-0.125000
G01 X22.119828 Y69.307740 Z-0.125000
G01 X22.287573 Y70.239600 Z-0.125000
G01 X21.657336 Y70.220300 Z-0.125000
G01 X21.728246 Y71.164330 Z-0.125000
G01 X22.455321 Y71.171330 Z-0.125000
G01 X22.287575 Y70.239460 Z-0.125000
G01 X22.917813 Y70.258460 Z-0.125000
G01 X23.182661 Y71.178420 Z-0.125000
G01 X22.455321 Y71.171420 Z-0.125000
G01 X22.623332 Y72.103280 Z-0.125000
G01 X23.447244 Y72.098280 Z-0.125000
G01 X24.271421 Y72.093280 Z-0.125000
G01 X23.909736 Y71.185760 Z-0.125000
G01 X24.748730 Y71.131260 Z-0.125000
G01 X25.587459 Y71.076460 Z-0.125000
G01 X25.896757 Y72.001440 Z-0.125000
G01 X25.083957 Y72.047440 Z-0.125000
G01 X24.748730 Y71.131190 Z-0.125000
G01 X24.413238 Y70.214670 Z-0.125000
G00 Z10.000000

(End cutting path id: path434)


(Start cutting path id: path390)
(Change tool to Default tool)

G00 Z10.000000
G00 X24.413236 Y70.214460

G00 Z4.875000 (Fast pre-penetrate)
G01 Z-0.125000 F100.0(Penetrate)
G01 X23.548048 Y70.277960 Z-0.125000 F800.000000
G01 X23.909734 Y71.185480 Z-0.125000
G01 X23.182659 Y71.178480 Z-0.125000
G01 X23.447242 Y72.098170 Z-0.125000
G01 X23.711826 Y73.017860 Z-0.125000
G01 X23.976673 Y73.937560 Z-0.125000
G01 X22.958821 Y73.966960 Z-0.125000
G01 X22.791076 Y73.035100 Z-0.125000
G01 X22.623330 Y72.103240 Z-0.125000
G01 X21.799153 Y72.108240 Z-0.125000
G01 X20.975240 Y72.113240 Z-0.125000
G01 X21.001170 Y71.156770 Z-0.125000
G01 X20.274095 Y71.149770 Z-0.125000
G01 X20.396862 Y70.181130 Z-0.125000
G01 X20.519893 Y69.212760 Z-0.125000
G01 X21.053029 Y69.244260 Z-0.125000
G01 X21.027099 Y70.200470 Z-0.125000
G01 X20.396862 Y70.181170 Z-0.125000
G01 X19.766624 Y70.162170 Z-0.125000
G01 X19.986493 Y69.181360 Z-0.125000
G01 X19.453093 Y69.150160 Z-0.125000
G01 X19.136387 Y70.142880 Z-0.125000
G00 Z10.000000

(End cutting path id: path390)


(Start cutting path id: path268)
(Change tool to Default tool)

G00 Z10.000000
G00 X19.136386 Y70.143290

G00 Z4.875000 (Fast pre-penetrate)
G01 Z-0.125000 F100.0(Penetrate)
G01 X19.766623 Y70.162590 Z-0.125000 F800.000000
G01 X19.546755 Y71.143140 Z-0.125000
G01 X20.274094 Y71.150140 Z-0.125000
G01 X20.151063 Y72.118520 Z-0.125000
G01 X20.028296 Y73.086890 Z-0.125000
G01 X19.107282 Y73.104090 Z-0.125000
G01 X18.186267 Y73.121590 Z-0.125000
G01 X17.265253 Y73.138790 Z-0.125000
G01 X16.344503 Y73.155990 Z-0.125000
G01 X15.833857 Y74.173050 Z-0.125000
G01 X14.816005 Y74.202650 Z-0.125000
G01 X15.423488 Y73.173150 Z-0.125000
G01 X14.502474 Y73.190650 Z-0.125000
G01 X15.206794 Y72.148980 Z-0.125000
G00 Z10.000000

(End cutting path id: path268)


(Start cutting path id: path270)
(Change tool to Default tool)

G00 Z10.000000
G00 X14.502474 Y73.190760

G00 Z4.875000 (Fast pre-penetrate)
G01 Z-0.125000 F100.0(Penetrate)
G01 X13.798153 Y74.232160 Z-0.125000 F800.000000
G01 X13.094096 Y75.273560 Z-0.125000
G01 X12.389776 Y76.315220 Z-0.125000
G01 X13.601303 Y76.261220 Z-0.125000
G01 X14.813094 Y76.207520 Z-0.125000
G01 X15.323476 Y75.190460 Z-0.125000
G01 X16.438165 Y75.148660 Z-0.125000
G01 X16.024621 Y76.153820 Z-0.125000
G01 X15.611078 Y77.158700 Z-0.125000
G01 X16.919442 Y77.092800 Z-0.125000
G01 X17.236149 Y76.099820 Z-0.125000
G01 X17.552855 Y75.107100 Z-0.125000
G01 X17.869561 Y74.114390 Z-0.125000
G01 X18.186267 Y73.121670 Z-0.125000
G01 X18.502973 Y72.128690 Z-0.125000
G01 X18.819680 Y71.135970 Z-0.125000
G01 X19.546755 Y71.142970 Z-0.125000
G01 X19.327151 Y72.123510 Z-0.125000
G01 X20.151063 Y72.118510 Z-0.125000
G01 X20.975240 Y72.113510 Z-0.125000
G01 X20.949050 Y73.069710 Z-0.125000
G01 X20.028300 Y73.086910 Z-0.125000
G01 X19.905269 Y74.055290 Z-0.125000
G01 X19.782502 Y75.023660 Z-0.125000
G01 X20.897192 Y74.982160 Z-0.125000
G01 X22.011882 Y74.940660 Z-0.125000
G01 X21.940972 Y73.996630 Z-0.125000
G01 X22.958824 Y73.967030 Z-0.125000
G01 X23.126570 Y74.898900 Z-0.125000
G01 X22.011881 Y74.940700 Z-0.125000
G01 X22.082791 Y75.884730 Z-0.125000
G01 X22.153701 Y76.828770 Z-0.125000
G01 X23.462066 Y76.762870 Z-0.125000
G01 X24.770695 Y76.696670 Z-0.125000
G01 X24.575962 Y77.353630 Z-0.125000
G01 X25.864218 Y77.209170 Z-0.125000
G01 X26.611401 Y77.263370 Z-0.125000
G01 X26.461647 Y77.897840 Z-0.125000
G01 X25.649112 Y77.787510 Z-0.125000
G01 X25.434005 Y78.365890 Z-0.125000
G01 X26.311893 Y78.532570 Z-0.125000
G01 X26.162403 Y79.167310 Z-0.125000
G01 X27.105643 Y79.390350 Z-0.125000
G01 X28.048882 Y79.613400 Z-0.125000
G01 X28.029832 Y80.360850 Z-0.125000
G01 X28.010782 Y81.108030 Z-0.125000
G01 X27.991732 Y81.855480 Z-0.125000
G01 X29.131028 Y82.247590 Z-0.125000
G01 X30.270324 Y82.639700 Z-0.125000
G01 X31.409620 Y83.031810 Z-0.125000
G01 X31.232614 Y82.115560 Z-0.125000
G01 X32.306557 Y82.451320 Z-0.125000
G01 X32.548916 Y83.423930 Z-0.125000
G01 X31.409620 Y83.031810 Z-0.125000
G01 X31.586891 Y83.948070 Z-0.125000
G01 X30.382243 Y83.499600 Z-0.125000
G01 X30.270324 Y82.639700 Z-0.125000
G01 X30.158670 Y81.779810 Z-0.125000
G01 X29.084726 Y81.443790 Z-0.125000
G01 X29.131026 Y82.247590 Z-0.125000
G01 X29.177596 Y83.051130 Z-0.125000
G01 X29.223896 Y83.854930 Z-0.125000
G01 X27.953896 Y83.350110 Z-0.125000
G01 X27.972946 Y82.602660 Z-0.125000
G01 X26.768298 Y82.154460 Z-0.125000
G01 X26.852438 Y81.463360 Z-0.125000
G01 X27.991733 Y81.855480 Z-0.125000
G01 X27.972953 Y82.602660 Z-0.125000
G01 X29.177601 Y83.051130 Z-0.125000
G01 X30.382249 Y83.499600 Z-0.125000
G01 X30.493903 Y84.359760 Z-0.125000
G01 X30.605557 Y85.219650 Z-0.125000
G01 X30.717211 Y86.079550 Z-0.125000
G01 X32.117915 Y86.697090 Z-0.125000
G01 X33.518620 Y87.314620 Z-0.125000
G01 X33.270440 Y88.429310 Z-0.125000
G01 X33.021997 Y89.544000 Z-0.125000
G01 X32.773818 Y90.658690 Z-0.125000
G01 X33.974497 Y91.006620 Z-0.125000
G01 X33.659643 Y92.031350 Z-0.125000
G01 X33.344524 Y93.056350 Z-0.125000
G01 X33.029670 Y94.081080 Z-0.125000
G01 X32.714551 Y95.106070 Z-0.125000
G01 X31.780572 Y95.117470 Z-0.125000
G01 X30.846328 Y95.128870 Z-0.125000
G01 X30.664559 Y96.333520 Z-0.125000
G01 X31.532128 Y96.232180 Z-0.125000
G01 X32.399697 Y96.130850 Z-0.125000
G01 X32.084843 Y97.155840 Z-0.125000
G01 X32.885736 Y96.964810 Z-0.125000
G01 X33.267265 Y96.029770 Z-0.125000
G01 X34.134834 Y95.928440 Z-0.125000
G01 X33.686630 Y96.773780 Z-0.125000
G01 X33.238161 Y97.618860 Z-0.125000
G01 X33.972380 Y97.338140 Z-0.125000
G01 X34.487259 Y96.582750 Z-0.125000
G01 X35.002403 Y95.827370 Z-0.125000
G01 X35.517282 Y95.071980 Z-0.125000
G01 X36.574822 Y95.045280 Z-0.125000
G01 X37.632626 Y95.018580 Z-0.125000
G01 X38.690430 Y94.991880 Z-0.125000
G01 X38.322659 Y95.792780 Z-0.125000
G01 X39.429411 Y95.781180 Z-0.125000
G01 X39.110853 Y96.597150 Z-0.125000
G01 X37.954888 Y96.593150 Z-0.125000
G01 X36.799188 Y96.590150 Z-0.125000
G01 X35.643224 Y96.586150 Z-0.125000
G01 X34.487259 Y96.583150 Z-0.125000
G01 X33.686630 Y96.774180 Z-0.125000
G01 X32.885736 Y96.965210 Z-0.125000
G01 X32.503943 Y97.900250 Z-0.125000
G01 X31.769724 Y98.181240 Z-0.125000
G01 X31.454870 Y99.205970 Z-0.125000
G01 X30.787326 Y99.576650 Z-0.125000
G01 X30.119782 Y99.947330 Z-0.125000
G01 X30.085652 Y100.912800 Z-0.125000
G01 X30.051522 Y101.878520 Z-0.125000
G01 X30.749228 Y101.658390 Z-0.125000
G01 X30.730178 Y102.699260 Z-0.125000
G01 X30.711128 Y103.740130 Z-0.125000
G01 X30.692078 Y104.780740 Z-0.125000
G01 X29.949657 Y104.774740 Z-0.125000
G01 X29.915527 Y105.740200 Z-0.125000
G01 X29.158289 Y105.659000 Z-0.125000
G01 X28.400787 Y105.577800 Z-0.125000
G01 X28.337027 Y106.392720 Z-0.125000
G01 X29.109345 Y106.549080 Z-0.125000
G01 X29.060135 Y107.439410 Z-0.125000
G01 X29.847535 Y107.671180 Z-0.125000
G01 X29.881665 Y106.705720 Z-0.125000
G01 X29.915535 Y105.740250 Z-0.125000
G01 X30.673037 Y105.821450 Z-0.125000
G01 X31.430274 Y105.902650 Z-0.125000
G01 X31.426074 Y107.018920 Z-0.125000
G01 X31.422074 Y108.135200 Z-0.125000
G01 X31.418074 Y109.251210 Z-0.125000
G01 X32.220290 Y109.558660 Z-0.125000
G01 X32.209440 Y108.366980 Z-0.125000
G01 X31.422040 Y108.135200 Z-0.125000
G01 X30.634905 Y107.903160 Z-0.125000
G01 X30.615585 Y108.944030 Z-0.125000
G01 X30.596535 Y109.984900 Z-0.125000
G01 X31.413833 Y110.367490 Z-0.125000
G01 X31.418033 Y109.251210 Z-0.125000
G01 X30.615551 Y108.944030 Z-0.125000
G01 X29.813335 Y108.636850 Z-0.125000
G01 X29.847465 Y107.671120 Z-0.125000
G01 X30.634865 Y107.903160 Z-0.125000
G01 X30.653915 Y106.862290 Z-0.125000
G01 X30.672965 Y105.821420 Z-0.125000
G01 X30.692015 Y104.780550 Z-0.125000
G01 X31.434171 Y104.786550 Z-0.125000
G01 X32.176592 Y104.792550 Z-0.125000
G01 X32.919013 Y104.798550 Z-0.125000
G01 X32.893343 Y103.531730 Z-0.125000
G01 X32.867413 Y102.264900 Z-0.125000
G01 X32.154890 Y102.409630 Z-0.125000
G01 X32.144040 Y101.218210 Z-0.125000
G01 X32.133190 Y100.026530 Z-0.125000
G01 X32.815815 Y99.731250 Z-0.125000
G01 X32.789885 Y98.464430 Z-0.125000
G01 X33.457429 Y98.093740 Z-0.125000
G01 X34.711554 Y98.127640 Z-0.125000
G01 X35.177221 Y97.356910 Z-0.125000
G01 X35.643152 Y96.586440 Z-0.125000
G01 X36.109083 Y95.815980 Z-0.125000
G01 X37.215835 Y95.804380 Z-0.125000
G01 X37.632554 Y95.018830 Z-0.125000
G01 X38.049537 Y94.233280 Z-0.125000
G01 X39.058129 Y94.191480 Z-0.125000
G01 X39.425900 Y93.390580 Z-0.125000
G01 X39.793670 Y92.589950 Z-0.125000
G01 X38.882975 Y92.661950 Z-0.125000
G01 X37.972279 Y92.734150 Z-0.125000
G01 X38.438210 Y91.963420 Z-0.125000
G01 X38.904141 Y91.192950 Z-0.125000
G01 X39.369808 Y90.422490 Z-0.125000
G01 X40.133395 Y90.305010 Z-0.125000
G01 X40.896718 Y90.187540 Z-0.125000
G01 X41.264489 Y89.386910 Z-0.125000
G01 X41.978864 Y89.254090 Z-0.125000
G01 X41.660306 Y90.070060 Z-0.125000
G01 X40.896718 Y90.187540 Z-0.125000
G01 X40.528948 Y90.988430 Z-0.125000
G01 X39.716677 Y91.090560 Z-0.125000
G01 X38.904141 Y91.192950 Z-0.125000
G01 X38.091606 Y91.295350 Z-0.125000
G01 X36.824252 Y90.857460 Z-0.125000
G01 X36.376048 Y91.702800 Z-0.125000
G01 X35.175104 Y91.354880 Z-0.125000
G01 X33.974425 Y91.006950 Z-0.125000
G01 X34.289279 Y89.981950 Z-0.125000
G01 X35.556898 Y90.419840 Z-0.125000
G01 X35.175104 Y91.354880 Z-0.125000
G01 X34.793575 Y92.289910 Z-0.125000
G01 X35.927579 Y92.547880 Z-0.125000
G01 X36.376048 Y91.702800 Z-0.125000
G01 X37.576727 Y92.050730 Z-0.125000
G01 X38.091606 Y91.295350 Z-0.125000
G01 X38.606485 Y90.539960 Z-0.125000
G01 X39.369808 Y90.422490 Z-0.125000
G01 X39.835739 Y89.652020 Z-0.125000
G01 X39.121364 Y89.784580 Z-0.125000
G01 X38.617598 Y88.586540 Z-0.125000
G01 X39.413729 Y88.482560 Z-0.125000
G01 X38.991718 Y87.313370 Z-0.125000
G01 X38.569708 Y86.143910 Z-0.125000
G01 X39.529352 Y86.097310 Z-0.125000
G01 X39.869606 Y87.237930 Z-0.125000
G01 X40.747493 Y87.162530 Z-0.125000
G01 X40.488995 Y86.050490 Z-0.125000
G01 X40.230233 Y84.938450 Z-0.125000
G01 X39.971735 Y83.826400 Z-0.125000
G01 X38.848579 Y83.815800 Z-0.125000
G01 X39.188833 Y84.956420 Z-0.125000
G01 X40.230233 Y84.938420 Z-0.125000
G01 X41.271898 Y84.920120 Z-0.125000
G01 X42.313298 Y84.902120 Z-0.125000
G01 X43.354698 Y84.884120 Z-0.125000
G01 X44.396097 Y84.865820 Z-0.125000
G01 X44.327567 Y85.863560 Z-0.125000
G01 X45.287211 Y85.816760 Z-0.125000
G01 X45.437494 Y84.847860 Z-0.125000
G01 X46.478894 Y84.829560 Z-0.125000
G01 X47.520294 Y84.811560 Z-0.125000
G01 X47.206499 Y85.723320 Z-0.125000
G01 X46.246855 Y85.769920 Z-0.125000
G01 X45.287211 Y85.816720 Z-0.125000
G01 X45.136928 Y86.785630 Z-0.125000
G01 X46.014815 Y86.710230 Z-0.125000
G01 X45.782776 Y87.650830 Z-0.125000
G01 X44.986644 Y87.754540 Z-0.125000
G01 X44.836361 Y88.723710 Z-0.125000
G01 X44.121986 Y88.856270 Z-0.125000
G01 X43.407611 Y88.988820 Z-0.125000
G01 X43.187213 Y89.834960 Z-0.125000
G01 X42.966551 Y90.681100 Z-0.125000
G01 X42.745888 Y91.527240 Z-0.125000
G01 X43.607372 Y91.440140 Z-0.125000
G01 X43.779086 Y90.578650 Z-0.125000
G01 X43.950536 Y89.717440 Z-0.125000
G01 X44.713859 Y89.599960 Z-0.125000
G01 X44.591622 Y90.476530 Z-0.125000
G01 X43.779086 Y90.578650 Z-0.125000
G01 X42.966551 Y90.681050 Z-0.125000
G01 X42.154015 Y90.783440 Z-0.125000
G01 X41.341480 Y90.885840 Z-0.125000
G01 X41.660303 Y90.069860 Z-0.125000
G01 X42.423626 Y89.952390 Z-0.125000
G01 X42.154015 Y90.783440 Z-0.125000
G01 X41.884405 Y91.614500 Z-0.125000
G01 X41.022922 Y91.701800 Z-0.125000
G01 X40.704099 Y92.517510 Z-0.125000
G01 X41.614795 Y92.445510 Z-0.125000
G01 X42.525490 Y92.373310 Z-0.125000
G01 X42.745888 Y91.527180 Z-0.125000
G01 X41.884405 Y91.614480 Z-0.125000
G01 X41.614795 Y92.445530 Z-0.125000
G01 X41.345184 Y93.276590 Z-0.125000
G01 X40.385540 Y93.333490 Z-0.125000
G01 X39.425897 Y93.390390 Z-0.125000
G01 X38.466253 Y93.447290 Z-0.125000
G01 X38.049534 Y94.233100 Z-0.125000
G01 X37.040678 Y94.274900 Z-0.125000
G01 X36.574747 Y95.045370 Z-0.125000
G01 X36.109080 Y95.815840 Z-0.125000
G01 X35.002328 Y95.827440 Z-0.125000
G01 X34.134759 Y95.928510 Z-0.125000
G01 X34.582963 Y95.083430 Z-0.125000
G01 X35.031168 Y94.238090 Z-0.125000
G01 X34.030249 Y94.159790 Z-0.125000
G01 X34.412043 Y93.224750 Z-0.125000
G01 X34.793572 Y92.289710 Z-0.125000
G01 X33.659568 Y92.031480 Z-0.125000
G01 X32.525299 Y91.773510 Z-0.125000
G01 X31.391295 Y91.515280 Z-0.125000
G01 X31.572799 Y90.310900 Z-0.125000
G01 X32.773743 Y90.658820 Z-0.125000
G01 X32.525299 Y91.773510 Z-0.125000
G01 X32.277120 Y92.888200 Z-0.125000
G01 X33.344449 Y93.056480 Z-0.125000
G01 X34.412043 Y93.224750 Z-0.125000
G01 X35.479372 Y93.393030 Z-0.125000
G01 X35.031168 Y94.238110 Z-0.125000
G01 X36.032086 Y94.316710 Z-0.125000
G01 X35.517207 Y95.072090 Z-0.125000
G01 X34.582963 Y95.083490 Z-0.125000
G01 X33.648720 Y95.094890 Z-0.125000
G01 X32.714476 Y95.106290 Z-0.125000
G01 X32.399622 Y96.131030 Z-0.125000
G01 X33.267190 Y96.029950 Z-0.125000
G01 X33.648720 Y95.094920 Z-0.125000
G01 X34.030249 Y94.159880 Z-0.125000
G01 X33.029595 Y94.081280 Z-0.125000
G01 X32.028676 Y94.002980 Z-0.125000
G01 X31.028022 Y93.924380 Z-0.125000
G01 X30.027103 Y93.846080 Z-0.125000
G01 X30.142197 Y92.551740 Z-0.125000
G01 X29.074603 Y92.383470 Z-0.125000
G01 X28.007274 Y92.215190 Z-0.125000
G01 X27.989014 Y90.741200 Z-0.125000
G01 X27.970494 Y89.266940 Z-0.125000
G01 X26.769815 Y88.919010 Z-0.125000
G01 X25.569135 Y88.571090 Z-0.125000
G01 X25.720742 Y90.224730 Z-0.125000
G01 X26.854746 Y90.482970 Z-0.125000
G01 X27.989015 Y90.741200 Z-0.125000
G01 X29.123019 Y90.999170 Z-0.125000
G01 X29.171439 Y89.615130 Z-0.125000
G01 X30.372118 Y89.963060 Z-0.125000
G01 X30.257024 Y91.257400 Z-0.125000
G01 X29.123020 Y90.999170 Z-0.125000
G01 X29.074600 Y92.383470 Z-0.125000
G01 X29.026180 Y93.767500 Z-0.125000
G01 X28.977760 Y95.151800 Z-0.125000
G01 X28.043780 Y95.163200 Z-0.125000
G01 X28.025520 Y93.689210 Z-0.125000
G01 X27.024601 Y93.610610 Z-0.125000
G01 X26.023683 Y93.532310 Z-0.125000
G01 X25.023028 Y93.453710 Z-0.125000
G01 X25.241310 Y95.197310 Z-0.125000
G01 X26.175289 Y95.185910 Z-0.125000
G01 X26.326895 Y96.839560 Z-0.125000
G01 X25.459326 Y96.940900 Z-0.125000
G01 X25.677608 Y98.684500 Z-0.125000
G01 X25.895889 Y100.427840 Z-0.125000
G01 X26.114170 Y102.171440 Z-0.125000
G01 X26.781714 Y101.800760 Z-0.125000
G01 X26.672706 Y102.389460 Z-0.125000
G01 X25.990345 Y102.685000 Z-0.125000
G01 X26.114170 Y102.171440 Z-0.125000
G01 X24.994983 Y101.766100 Z-0.125000
G01 X24.926983 Y102.322260 Z-0.125000
G01 X25.990343 Y102.685000 Z-0.125000
G01 X25.866518 Y103.198560 Z-0.125000
G01 X26.563960 Y102.978420 Z-0.125000
G01 X26.672704 Y102.389460 Z-0.125000
G01 X27.355329 Y102.094180 Z-0.125000
G01 X28.037954 Y101.798910 Z-0.125000
G01 X28.116804 Y101.059400 Z-0.125000
G01 X28.098544 Y99.585140 Z-0.125000
G01 X28.832763 Y99.304420 Z-0.125000
G01 X29.566982 Y99.023430 Z-0.125000
G01 X29.451888 Y100.317770 Z-0.125000
G01 X30.119696 Y99.947090 Z-0.125000
G01 X30.301200 Y98.742710 Z-0.125000
G01 X29.566982 Y99.023430 Z-0.125000
G01 X29.682075 Y97.729090 Z-0.125000
G01 X30.482969 Y97.538060 Z-0.125000
G01 X30.301200 Y98.742710 Z-0.125000
G01 X31.035419 Y98.461720 Z-0.125000
G01 X31.769638 Y98.181000 Z-0.125000
G01 X32.084757 Y97.156000 Z-0.125000
G01 X31.283863 Y97.347030 Z-0.125000
G01 X31.532042 Y96.232340 Z-0.125000
G01 X31.780486 Y95.117650 Z-0.125000
G01 X32.028665 Y94.002960 Z-0.125000
G01 X32.277109 Y92.888270 Z-0.125000
G01 X31.209515 Y92.720000 Z-0.125000
G01 X30.142186 Y92.551720 Z-0.125000
G01 X30.257015 Y91.257380 Z-0.125000
G01 X31.391284 Y91.515350 Z-0.125000
G01 X31.209515 Y92.720000 Z-0.125000
G01 X31.028011 Y93.924380 Z-0.125000
G01 X30.846242 Y95.129030 Z-0.125000
G01 X29.911998 Y95.140430 Z-0.125000
G01 X29.796905 Y96.434770 Z-0.125000
G01 X28.929600 Y96.536100 Z-0.125000
G01 X28.977750 Y95.151800 Z-0.125000
G01 X29.911993 Y95.140400 Z-0.125000
G01 X30.027087 Y93.846050 Z-0.125000
G01 X29.026168 Y93.767450 Z-0.125000
G01 X28.025514 Y93.689150 Z-0.125000
G01 X28.007254 Y92.215150 Z-0.125000
G01 X26.939660 Y92.046880 Z-0.125000
G01 X26.854730 Y90.482930 Z-0.125000
G01 X26.769800 Y88.918970 Z-0.125000
G01 X26.684870 Y87.355290 Z-0.125000
G01 X27.952225 Y87.792910 Z-0.125000
G01 X27.970485 Y89.266900 Z-0.125000
G01 X29.171429 Y89.615090 Z-0.125000
G01 X29.219849 Y88.230790 Z-0.125000
G01 X30.487203 Y88.668410 Z-0.125000
G01 X31.754558 Y89.106300 Z-0.125000
G01 X31.572789 Y90.310950 Z-0.125000
G01 X30.372110 Y89.963020 Z-0.125000
G01 X30.487203 Y88.668410 Z-0.125000
G01 X30.602033 Y87.374070 Z-0.125000
G01 X30.717126 Y86.079730 Z-0.125000
G01 X29.316422 Y85.462460 Z-0.125000
G01 X29.268002 Y86.846490 Z-0.125000
G01 X27.933973 Y86.318910 Z-0.125000
G01 X27.915713 Y84.844920 Z-0.125000
G01 X26.515009 Y84.227380 Z-0.125000
G01 X25.114305 Y83.610110 Z-0.125000
G01 X25.264059 Y82.975370 Z-0.125000
G01 X23.928707 Y82.414190 Z-0.125000
G01 X24.143813 Y81.835810 Z-0.125000
G01 X24.358919 Y81.257700 Z-0.125000
G01 X24.573761 Y80.679320 Z-0.125000
G01 X23.408007 Y81.295000 Z-0.125000
G01 X23.602476 Y80.638310 Z-0.125000
G01 X23.797209 Y79.981350 Z-0.125000
G01 X23.991942 Y79.324390 Z-0.125000
G01 X22.764805 Y79.704590 Z-0.125000
G01 X22.590709 Y80.440140 Z-0.125000
G01 X22.416349 Y81.175410 Z-0.125000
G01 X22.241988 Y81.910950 Z-0.125000
G01 X21.075969 Y82.526640 Z-0.125000
G01 X19.910215 Y83.142590 Z-0.125000
G01 X19.776601 Y84.035030 Z-0.125000
G01 X19.642986 Y84.927470 Z-0.125000
G01 X18.517713 Y85.700580 Z-0.125000
G01 X18.630955 Y84.729300 Z-0.125000
G01 X18.744196 Y83.758280 Z-0.125000
G01 X19.910215 Y83.142590 Z-0.125000
G01 X20.043565 Y82.249890 Z-0.125000
G01 X18.857438 Y82.787250 Z-0.125000
G01 X18.744196 Y83.758280 Z-0.125000
G01 X17.578178 Y84.374230 Z-0.125000
G01 X16.412424 Y84.989910 Z-0.125000
G01 X16.484654 Y83.861730 Z-0.125000
G01 X17.671045 Y83.324620 Z-0.125000
G01 X17.763915 Y82.275020 Z-0.125000
G01 X17.856785 Y81.225420 Z-0.125000
G01 X17.949655 Y80.175550 Z-0.125000
G01 X16.702144 Y80.477180 Z-0.125000
G01 X15.454634 Y80.778800 Z-0.125000
G01 X15.506754 Y79.572300 Z-0.125000
G01 X15.558874 Y78.365540 Z-0.125000
G01 X14.270618 Y78.510000 Z-0.125000
G01 X12.982626 Y78.654460 Z-0.125000
G01 X12.994006 Y77.290800 Z-0.125000
G01 X13.601225 Y76.261310 Z-0.125000
G01 X14.208708 Y75.232080 Z-0.125000
G01 X15.323398 Y75.190580 Z-0.125000
G01 X15.833779 Y74.173260 Z-0.125000
G01 X16.851631 Y74.143860 Z-0.125000
G01 X17.869483 Y74.114460 Z-0.125000
G01 X18.887335 Y74.085060 Z-0.125000
G01 X18.667466 Y75.065600 Z-0.125000
G01 X18.447862 Y76.046150 Z-0.125000
G01 X17.236071 Y76.099850 Z-0.125000
G01 X16.024543 Y76.153850 Z-0.125000
G01 X14.813016 Y76.207550 Z-0.125000
G01 X14.302371 Y77.224600 Z-0.125000
G01 X14.270621 Y78.509950 Z-0.125000
G01 X14.238871 Y79.795300 Z-0.125000
G01 X15.506754 Y79.572250 Z-0.125000
G01 X16.774637 Y79.348940 Z-0.125000
G01 X16.702137 Y80.477130 Z-0.125000
G01 X16.629637 Y81.605310 Z-0.125000
G01 X15.402499 Y81.985520 Z-0.125000
G01 X15.454619 Y80.778750 Z-0.125000
G01 X14.207373 Y81.080380 Z-0.125000
G01 X14.175623 Y82.365720 Z-0.125000
G01 X14.143873 Y83.651070 Z-0.125000
G01 X14.112123 Y84.936420 Z-0.125000
G01 X14.080373 Y86.221500 Z-0.125000
G01 X14.048883 Y87.506840 Z-0.125000
G01 X14.017133 Y88.792190 Z-0.125000
G01 X12.891860 Y89.565040 Z-0.125000
G01 X12.880480 Y90.928960 Z-0.125000
G01 X13.985380 Y90.077270 Z-0.125000
G01 X15.090280 Y89.225840 Z-0.125000
G01 X16.194915 Y88.374410 Z-0.125000
G01 X17.299815 Y87.522980 Z-0.125000
G01 X17.392685 Y86.473380 Z-0.125000
G01 X17.485555 Y85.423780 Z-0.125000
G01 X17.578155 Y84.374180 Z-0.125000
G01 X17.671025 Y83.324570 Z-0.125000
G01 X18.857417 Y82.787200 Z-0.125000
G01 X18.970659 Y81.816180 Z-0.125000
G01 X19.083636 Y80.845160 Z-0.125000
G01 X20.310773 Y80.464960 Z-0.125000
G01 X21.537911 Y80.084750 Z-0.125000
G01 X22.764784 Y79.704540 Z-0.125000
G01 X22.939144 Y78.969270 Z-0.125000
G01 X23.113505 Y78.233730 Z-0.125000
G01 X23.287865 Y77.498180 Z-0.125000
G01 X24.575857 Y77.353720 Z-0.125000
G01 X24.381388 Y78.010680 Z-0.125000
G01 X23.113505 Y78.233730 Z-0.125000
G01 X21.845621 Y78.456770 Z-0.125000
G01 X21.999609 Y77.642910 Z-0.125000
G01 X23.287865 Y77.498180 Z-0.125000
G01 X23.461961 Y76.762910 Z-0.125000
G01 X23.294215 Y75.831040 Z-0.125000
G01 X22.082688 Y75.884740 Z-0.125000
G01 X20.871161 Y75.938440 Z-0.125000
G01 X20.844971 Y76.894900 Z-0.125000
G01 X19.536607 Y76.960800 Z-0.125000
G01 X19.423365 Y77.931820 Z-0.125000
G01 X19.310123 Y78.902840 Z-0.125000
G01 X20.578007 Y78.679790 Z-0.125000
G01 X20.711357 Y77.787350 Z-0.125000
G01 X21.999613 Y77.642890 Z-0.125000
G01 X22.153600 Y76.828770 Z-0.125000
G01 X20.844971 Y76.894870 Z-0.125000
G01 X20.711357 Y77.787310 Z-0.125000
G01 X19.423365 Y77.931780 Z-0.125000
G01 X18.135109 Y78.076240 Z-0.125000
G01 X18.042239 Y79.125840 Z-0.125000
G01 X19.310122 Y78.902800 Z-0.125000
G01 X19.196881 Y79.873820 Z-0.125000
G01 X19.083639 Y80.845100 Z-0.125000
G01 X17.856766 Y81.225310 Z-0.125000
G01 X16.629629 Y81.605250 Z-0.125000
G01 X16.557129 Y82.733430 Z-0.125000
G01 X15.350629 Y83.192220 Z-0.125000
G01 X15.298509 Y84.398990 Z-0.125000
G01 X15.246389 Y85.605750 Z-0.125000
G01 X15.194269 Y86.812520 Z-0.125000
G01 X14.048888 Y87.506780 Z-0.125000
G01 X12.903242 Y88.201050 Z-0.125000
G01 X11.757596 Y88.895580 Z-0.125000
G01 X11.748596 Y87.453070 Z-0.125000
G01 X12.914615 Y86.837390 Z-0.125000
G01 X14.080369 Y86.221440 Z-0.125000
G01 X15.246388 Y85.605750 Z-0.125000
G01 X16.412407 Y84.989800 Z-0.125000
G01 X16.339907 Y86.117980 Z-0.125000
G01 X17.485553 Y85.423720 Z-0.125000
G01 X18.630934 Y84.729190 Z-0.125000
G01 X19.776580 Y84.034920 Z-0.125000
G01 X20.922225 Y83.340650 Z-0.125000
G01 X21.075948 Y82.526530 Z-0.125000
G01 X21.229936 Y81.712670 Z-0.125000
G01 X22.416328 Y81.175300 Z-0.125000
G01 X23.602455 Y80.638200 Z-0.125000
G01 X24.788846 Y80.100830 Z-0.125000
G01 X25.862790 Y80.436590 Z-0.125000
G01 X25.713036 Y81.071320 Z-0.125000
G01 X26.852332 Y81.463430 Z-0.125000
G01 X26.936732 Y80.772340 Z-0.125000
G01 X25.862788 Y80.436590 Z-0.125000
G01 X26.012542 Y79.801850 Z-0.125000
G01 X25.003950 Y79.522450 Z-0.125000
G01 X25.219057 Y78.944070 Z-0.125000
G01 X25.433898 Y78.365960 Z-0.125000
G01 X24.186653 Y78.667580 Z-0.125000
G01 X22.939142 Y78.969210 Z-0.125000
G01 X21.691896 Y79.270570 Z-0.125000
G01 X20.444386 Y79.572190 Z-0.125000
G01 X19.196876 Y79.873820 Z-0.125000
G01 X17.949630 Y80.175440 Z-0.125000
G01 X18.042230 Y79.125840 Z-0.125000
G01 X16.774611 Y79.348880 Z-0.125000
G01 X16.847111 Y78.220700 Z-0.125000
G01 X18.135103 Y78.076240 Z-0.125000
G01 X18.227973 Y77.026640 Z-0.125000
G01 X16.919344 Y77.092740 Z-0.125000
G01 X16.847114 Y78.220660 Z-0.125000
G01 X15.558858 Y78.365390 Z-0.125000
G01 X15.610978 Y77.158620 Z-0.125000
G01 X14.302349 Y77.224520 Z-0.125000
G01 X12.993984 Y77.290720 Z-0.125000
G01 X11.685355 Y77.356620 Z-0.125000
G01 X12.389676 Y76.315220 Z-0.125000
G00 Z10.000000

(End cutting path id: path270)


(Start cutting path id: path272)
(Change tool to Default tool)

G00 Z10.000000
G00 X11.685455 Y77.356620

G00 Z4.875000 (Fast pre-penetrate)
G01 Z-0.125000 F100.0(Penetrate)
G01 X11.694455 Y78.798870 Z-0.125000 F800.000000
G01 X11.703455 Y80.241370 Z-0.125000
G01 X12.971339 Y80.018330 Z-0.125000
G01 X12.982719 Y78.654400 Z-0.125000
G01 X11.694463 Y78.798870 Z-0.125000
G00 Z10.000000

(End cutting path id: path272)


(Start cutting path id: path274)
(Change tool to Default tool)

G00 Z10.000000
G00 X11.703446 Y80.241370

G00 Z4.875000 (Fast pre-penetrate)
G01 Z-0.125000 F100.0(Penetrate)
G01 X11.712446 Y81.683620 Z-0.125000 F800.000000
G01 X12.959957 Y81.381990 Z-0.125000
G01 X12.971337 Y80.018330 Z-0.125000
G01 X14.238956 Y79.795290 Z-0.125000
G01 X14.207466 Y81.080370 Z-0.125000
G01 X12.959956 Y81.381990 Z-0.125000
G01 X12.948576 Y82.745920 Z-0.125000
G01 X14.175713 Y82.365710 Z-0.125000
G01 X15.402586 Y81.985510 Z-0.125000
G01 X15.350726 Y83.192270 Z-0.125000
G01 X14.143961 Y83.651060 Z-0.125000
G01 X12.937197 Y84.109850 Z-0.125000
G01 X12.925817 Y85.473510 Z-0.125000
G01 X11.739690 Y86.010880 Z-0.125000
G01 X11.730690 Y84.568370 Z-0.125000
G01 X11.721690 Y83.126130 Z-0.125000
G01 X11.712390 Y81.683620 Z-0.125000
G00 Z10.000000

(End cutting path id: path274)


(Start cutting path id: path276)
(Change tool to Default tool)

G00 Z10.000000
G00 X11.721703 Y83.126130

G00 Z4.875000 (Fast pre-penetrate)
G01 Z-0.125000 F100.0(Penetrate)
G01 X12.948576 Y82.745920 Z-0.125000 F800.000000
G01 X12.937196 Y84.109850 Z-0.125000
G01 X11.730696 Y84.568370 Z-0.125000
G00 Z10.000000

(End cutting path id: path276)


(Start cutting path id: path278)
(Change tool to Default tool)

G00 Z10.000000
G00 X11.739694 Y86.010880

G00 Z4.875000 (Fast pre-penetrate)
G01 Z-0.125000 F100.0(Penetrate)
G01 X11.748694 Y87.453120 Z-0.125000 F800.000000
G00 Z10.000000

(End cutting path id: path278)


(Start cutting path id: path280)
(Change tool to Default tool)

G00 Z10.000000
G00 X11.757686 Y88.895630

G00 Z4.875000 (Fast pre-penetrate)
G01 Z-0.125000 F100.0(Penetrate)
G01 X11.766686 Y90.337870 Z-0.125000 F800.000000
G00 Z10.000000

(End cutting path id: path280)


(Start cutting path id: path282)
(Change tool to Default tool)

G00 Z10.000000
G00 X12.880578 Y90.928950

G00 Z4.875000 (Fast pre-penetrate)
G01 Z-0.125000 F100.0(Penetrate)
G01 X12.869198 Y92.292620 Z-0.125000 F800.000000
G01 X13.056258 Y92.822050 Z-0.125000
G01 X11.968556 Y93.630610 Z-0.125000
G01 X12.152177 Y94.038870 Z-0.125000
G01 X12.336062 Y94.446850 Z-0.125000
G01 X13.429850 Y93.881170 Z-0.125000
G01 X13.243054 Y93.351740 Z-0.125000
G01 X12.152177 Y94.038870 Z-0.125000
G00 Z10.000000

(End cutting path id: path282)


(Start cutting path id: path290)
(Change tool to Default tool)

G00 Z10.000000
G00 X12.336065 Y94.446850

G00 Z4.875000 (Fast pre-penetrate)
G01 Z-0.125000 F100.0(Penetrate)
G01 X12.519686 Y94.854840 Z-0.125000 F800.000000
G00 Z10.000000

(End cutting path id: path290)


(Start cutting path id: path292)
(Change tool to Default tool)

G00 Z10.000000
G00 X12.703307 Y95.263090

G00 Z4.875000 (Fast pre-penetrate)
G01 Z-0.125000 F100.0(Penetrate)
G01 X12.887192 Y95.671080 Z-0.125000 F800.000000
G00 Z10.000000

(End cutting path id: path292)


(Start cutting path id: path294)
(Change tool to Default tool)

G00 Z10.000000
G00 X13.070813 Y96.079070

G00 Z4.875000 (Fast pre-penetrate)
G01 Z-0.125000 F100.0(Penetrate)
G01 X13.254699 Y96.487320 Z-0.125000 F800.000000
G00 Z10.000000

(End cutting path id: path294)


(Start cutting path id: path296)
(Change tool to Default tool)

G00 Z10.000000
G00 X13.438319 Y96.895310

G00 Z4.875000 (Fast pre-penetrate)
G01 Z-0.125000 F100.0(Penetrate)
G01 X13.621940 Y97.303290 Z-0.125000 F800.000000
G01 X13.805826 Y97.711550 Z-0.125000
G01 X14.295040 Y98.694470 Z-0.125000
G01 X15.358136 Y99.057220 Z-0.125000
G01 X16.421496 Y99.419960 Z-0.125000
G01 X17.484592 Y99.782700 Z-0.125000
G01 X17.806855 Y100.637840 Z-0.125000
G01 X18.128853 Y101.492710 Z-0.125000
G01 X19.080559 Y101.769990 Z-0.125000
G01 X20.032265 Y102.047540 Z-0.125000
G01 X20.983971 Y102.324820 Z-0.125000
G01 X20.829190 Y101.598010 Z-0.125000
G01 X21.836723 Y101.918160 Z-0.125000
G01 X21.737503 Y101.233680 Z-0.125000
G01 X21.638283 Y100.549470 Z-0.125000
G01 X20.519360 Y100.144130 Z-0.125000
G01 X20.316954 Y99.007740 Z-0.125000
G01 X20.114283 Y97.871090 Z-0.125000
G01 X19.911877 Y96.734700 Z-0.125000
G01 X19.709206 Y95.598050 Z-0.125000
G01 X18.602983 Y95.678250 Z-0.125000
G01 X18.802214 Y96.693460 Z-0.125000
G01 X17.692816 Y96.652160 Z-0.125000
G01 X16.583154 Y96.610860 Z-0.125000
G01 X16.390008 Y95.838540 Z-0.125000
G01 X15.283521 Y95.918740 Z-0.125000
G01 X15.473756 Y96.569610 Z-0.125000
G01 X16.583154 Y96.610910 Z-0.125000
G01 X16.776300 Y97.383230 Z-0.125000
G01 X17.888873 Y97.545950 Z-0.125000
G01 X19.001710 Y97.708400 Z-0.125000
G01 X18.802214 Y96.693460 Z-0.125000
G01 X19.911877 Y96.734760 Z-0.125000
G01 X21.021275 Y96.776060 Z-0.125000
G01 X22.130937 Y96.817060 Z-0.125000
G01 X22.339693 Y98.196600 Z-0.125000
G01 X23.452266 Y98.359050 Z-0.125000
G01 X24.565104 Y98.521770 Z-0.125000
G01 X24.349997 Y96.899610 Z-0.125000
G01 X24.134891 Y95.277450 Z-0.125000
G01 X23.028404 Y95.357650 Z-0.125000
G01 X21.922181 Y95.437850 Z-0.125000
G01 X22.130937 Y96.817120 Z-0.125000
G01 X23.240335 Y96.858420 Z-0.125000
G01 X23.028404 Y95.357700 Z-0.125000
G01 X22.816473 Y93.856980 Z-0.125000
G01 X22.604541 Y92.356270 Z-0.125000
G01 X21.504404 Y92.679320 Z-0.125000
G01 X21.295648 Y91.300050 Z-0.125000
G01 X22.392610 Y90.855550 Z-0.125000
G01 X22.604541 Y92.356270 Z-0.125000
G01 X23.704679 Y92.033210 Z-0.125000
G01 X24.804816 Y91.710420 Z-0.125000
G01 X24.586535 Y89.966810 Z-0.125000
G01 X25.720804 Y90.224780 Z-0.125000
G01 X25.872410 Y91.878690 Z-0.125000
G01 X26.939739 Y92.046970 Z-0.125000
G01 X27.024669 Y93.610650 Z-0.125000
G01 X27.109599 Y95.174610 Z-0.125000
G01 X26.175355 Y95.186010 Z-0.125000
G01 X26.023749 Y93.532370 Z-0.125000
G01 X25.872407 Y91.878720 Z-0.125000
G01 X24.804813 Y91.710450 Z-0.125000
G01 X25.023094 Y93.453790 Z-0.125000
G01 X23.919782 Y93.655400 Z-0.125000
G01 X22.816470 Y93.857010 Z-0.125000
G01 X21.713157 Y94.058620 Z-0.125000
G01 X20.610109 Y94.260240 Z-0.125000
G01 X19.506797 Y94.461850 Z-0.125000
G01 X18.403484 Y94.663460 Z-0.125000
G01 X18.203988 Y93.648260 Z-0.125000
G01 X18.004757 Y92.633050 Z-0.125000
G01 X17.805261 Y91.618110 Z-0.125000
G01 X16.711474 Y92.183790 Z-0.125000
G01 X16.907530 Y93.077550 Z-0.125000
G01 X17.103851 Y93.971310 Z-0.125000
G01 X17.300172 Y94.865070 Z-0.125000
G01 X16.196859 Y95.066420 Z-0.125000
G01 X16.390005 Y95.838740 Z-0.125000
G01 X17.496493 Y95.758540 Z-0.125000
G01 X18.602980 Y95.678340 Z-0.125000
G01 X18.403484 Y94.663400 Z-0.125000
G01 X17.300172 Y94.865010 Z-0.125000
G01 X17.496493 Y95.758510 Z-0.125000
G01 X17.692813 Y96.652270 Z-0.125000
G01 X17.888870 Y97.546040 Z-0.125000
G01 X18.085190 Y98.439800 Z-0.125000
G01 X18.281511 Y99.333300 Z-0.125000
G01 X17.162588 Y98.927960 Z-0.125000
G01 X17.484586 Y99.782820 Z-0.125000
G01 X18.547947 Y100.145570 Z-0.125000
G01 X18.814117 Y100.957840 Z-0.125000
G01 X17.806849 Y100.637960 Z-0.125000
