%
(Header)
(Generated by gcodetools from Inkscape.)
(Using default header. To add your own header create file "header" in the output dir.)
M3
(Header end.)
G21 (All units in mm)

(Start cutting path id: path4476)
(Change tool to Default tool)

G00 Z3.000000
G00 X60.382251 Y33.580021

G00 Z4.875000 (Fast pre-penetrate)
G01 Z-0.125000 F400.0(Penetrate)
G01 X78.393371 Y34.089711 Z-0.125000 F800.000000
G01 X97.174830 Y33.829062 Z-0.125000
G00 Z3.000000

(End cutting path id: path4476)


(Start cutting path id: path4424)
(Change tool to Default tool)

G00 Z3.000000
G00 X65.760033 Y46.723049

G00 Z4.875000 (Fast pre-penetrate)
G01 Z-0.125000 F400.0(Penetrate)
G01 X80.183084 Y50.820807 Z-0.125000 F800.000000
G01 X100.149039 Y49.375663 Z-0.125000
G00 Z3.000000

(End cutting path id: path4424)


(Start cutting path id: path4422)
(Change tool to Default tool)

G00 Z3.000000
G00 X65.705515 Y47.489906

G00 Z4.875000 (Fast pre-penetrate)
G01 Z-0.125000 F400.0(Penetrate)
G01 X80.242033 Y51.474197 Z-0.125000 F800.000000
G01 X99.754315 Y50.482723 Z-0.125000
G00 Z3.000000

(End cutting path id: path4422)


(Start cutting path id: path4420)
(Change tool to Default tool)

G00 Z3.000000
G00 X65.650998 Y48.256760

G00 Z4.875000 (Fast pre-penetrate)
G01 Z-0.125000 F400.0(Penetrate)
G01 X80.300983 Y52.127588 Z-0.125000 F800.000000
G01 X99.359595 Y51.589783 Z-0.125000
G00 Z3.000000

(End cutting path id: path4420)


(Start cutting path id: path4418)
(Change tool to Default tool)

G00 Z3.000000
G00 X65.596481 Y49.023617

G00 Z4.875000 (Fast pre-penetrate)
G01 Z-0.125000 F400.0(Penetrate)
G01 X80.359932 Y52.780978 Z-0.125000 F800.000000
G01 X98.964874 Y52.696846 Z-0.125000
G00 Z3.000000

(End cutting path id: path4418)


(Start cutting path id: path4414)
(Change tool to Default tool)

G00 Z3.000000
G00 X65.487446 Y50.557327

G00 Z4.875000 (Fast pre-penetrate)
G01 Z-0.125000 F400.0(Penetrate)
G01 X80.477827 Y54.087759 Z-0.125000 F800.000000
G01 X98.175430 Y54.910967 Z-0.125000
G00 Z3.000000

(End cutting path id: path4414)


(Start cutting path id: path4408)
(Change tool to Default tool)

G00 Z3.000000
G00 X65.323897 Y52.857895

G00 Z4.875000 (Fast pre-penetrate)
G01 Z-0.125000 F400.0(Penetrate)
G01 X80.654674 Y56.047927 Z-0.125000 F800.000000
G01 X96.991264 Y58.232150 Z-0.125000
G00 Z3.000000

(End cutting path id: path4408)


(Start cutting path id: path4400)
(Change tool to Default tool)

G00 Z3.000000
G00 X65.105827 Y55.925320

G00 Z4.875000 (Fast pre-penetrate)
G01 Z-0.125000 F400.0(Penetrate)
G01 X80.890468 Y58.661489 Z-0.125000 F800.000000
G01 X95.412376 Y62.660391 Z-0.125000
G00 Z3.000000

(End cutting path id: path4400)


(Start cutting path id: path4388)
(Change tool to Default tool)

G00 Z3.000000
G00 X64.778726 Y60.526455

G00 Z4.875000 (Fast pre-penetrate)
G01 Z-0.125000 F400.0(Penetrate)
G01 X81.244160 Y62.581828 Z-0.125000 F800.000000
G01 X93.044043 Y69.302758 Z-0.125000
G00 Z3.000000

(End cutting path id: path4388)


(Start cutting path id: path4372)
(Change tool to Default tool)

G00 Z3.000000
G00 X64.342590 Y66.661301

G00 Z4.875000 (Fast pre-penetrate)
G01 Z-0.125000 F400.0(Penetrate)
G01 X81.715750 Y67.808951 Z-0.125000 F800.000000
G01 X89.886269 Y78.159242 Z-0.125000
G00 Z3.000000

(End cutting path id: path4372)


(Start cutting path id: path4374)
(Change tool to Default tool)

G00 Z3.000000
G00 X64.397105 Y65.894447

G00 Z4.875000 (Fast pre-penetrate)
G01 Z-0.125000 F400.0(Penetrate)
G01 X81.656801 Y67.155561 Z-0.125000 F800.000000
G01 X90.280990 Y77.052182 Z-0.125000
G00 Z3.000000

(End cutting path id: path4374)


(Start cutting path id: path4376)
(Change tool to Default tool)

G00 Z3.000000
G00 X64.451622 Y65.127590

G00 Z4.875000 (Fast pre-penetrate)
G01 Z-0.125000 F400.0(Penetrate)
G01 X81.597852 Y66.502171 Z-0.125000 F800.000000
G01 X90.675713 Y75.945122 Z-0.125000
G00 Z3.000000

(End cutting path id: path4376)


(Start cutting path id: path4378)
(Change tool to Default tool)

G00 Z3.000000
G00 X64.506139 Y64.360734

G00 Z4.875000 (Fast pre-penetrate)
G01 Z-0.125000 F400.0(Penetrate)
G01 X81.538906 Y65.848780 Z-0.125000 F800.000000
G01 X91.070434 Y74.838062 Z-0.125000
G00 Z3.000000

(End cutting path id: path4378)


(Start cutting path id: path4380)
(Change tool to Default tool)

G00 Z3.000000
G00 X64.560657 Y63.593880

G00 Z4.875000 (Fast pre-penetrate)
G01 Z-0.125000 F400.0(Penetrate)
G01 X81.479956 Y65.195390 Z-0.125000 F800.000000
G01 X91.465157 Y73.730999 Z-0.125000
G00 Z3.000000

(End cutting path id: path4380)


(Start cutting path id: path4382)
(Change tool to Default tool)

G00 Z3.000000
G00 X64.615174 Y62.827023

G00 Z4.875000 (Fast pre-penetrate)
G01 Z-0.125000 F400.0(Penetrate)
G01 X81.421007 Y64.541999 Z-0.125000 F800.000000
G01 X91.859878 Y72.623939 Z-0.125000
G00 Z3.000000

(End cutting path id: path4382)


(Start cutting path id: path4384)
(Change tool to Default tool)

G00 Z3.000000
G00 X64.669691 Y62.060166

G00 Z4.875000 (Fast pre-penetrate)
G01 Z-0.125000 F400.0(Penetrate)
G01 X81.362058 Y63.888609 Z-0.125000 F800.000000
G01 X92.254599 Y71.516878 Z-0.125000
G00 Z3.000000

(End cutting path id: path4384)


(Start cutting path id: path4386)
(Change tool to Default tool)

G00 Z3.000000
G00 X64.724209 Y61.293312

G00 Z4.875000 (Fast pre-penetrate)
G01 Z-0.125000 F400.0(Penetrate)
G01 X81.303109 Y63.235219 Z-0.125000 F800.000000
G01 X92.649323 Y70.409818 Z-0.125000
G00 Z3.000000

(End cutting path id: path4386)


(Start cutting path id: path4390)
(Change tool to Default tool)

G00 Z3.000000
G00 X64.833243 Y59.759598

G00 Z4.875000 (Fast pre-penetrate)
G01 Z-0.125000 F400.0(Penetrate)
G01 X81.185214 Y61.928441 Z-0.125000 F800.000000
G01 X93.438767 Y68.195695 Z-0.125000
G00 Z3.000000

(End cutting path id: path4390)


(Start cutting path id: path4392)
(Change tool to Default tool)

G00 Z3.000000
G00 X64.887761 Y58.992744

G00 Z4.875000 (Fast pre-penetrate)
G01 Z-0.125000 F400.0(Penetrate)
G01 X81.126265 Y61.275050 Z-0.125000 F800.000000
G01 X93.833488 Y67.088635 Z-0.125000
G00 Z3.000000

(End cutting path id: path4392)


(Start cutting path id: path4394)
(Change tool to Default tool)

G00 Z3.000000
G00 X64.942275 Y58.225887

G00 Z4.875000 (Fast pre-penetrate)
G01 Z-0.125000 F400.0(Penetrate)
G01 X81.067315 Y60.621660 Z-0.125000 F800.000000
G01 X94.228211 Y65.981574 Z-0.125000
G00 Z3.000000

(End cutting path id: path4394)


(Start cutting path id: path4396)
(Change tool to Default tool)

G00 Z3.000000
G00 X64.996793 Y57.459031

G00 Z4.875000 (Fast pre-penetrate)
G01 Z-0.125000 F400.0(Penetrate)
G01 X81.008366 Y59.968270 Z-0.125000 F800.000000
G01 X94.622932 Y64.874514 Z-0.125000
G00 Z3.000000

(End cutting path id: path4396)


(Start cutting path id: path4398)
(Change tool to Default tool)

G00 Z3.000000
G00 X65.051310 Y56.692176

G00 Z4.875000 (Fast pre-penetrate)
G01 Z-0.125000 F400.0(Penetrate)
G01 X80.949417 Y59.314879 Z-0.125000 F800.000000
G01 X95.017653 Y63.767454 Z-0.125000
G00 Z3.000000

(End cutting path id: path4398)


(Start cutting path id: path4402)
(Change tool to Default tool)

G00 Z3.000000
G00 X65.160345 Y55.158463

G00 Z4.875000 (Fast pre-penetrate)
G01 Z-0.125000 F400.0(Penetrate)
G01 X80.831519 Y58.008098 Z-0.125000 F800.000000
G01 X95.807097 Y61.553331 Z-0.125000
G00 Z3.000000

(End cutting path id: path4402)


(Start cutting path id: path4404)
(Change tool to Default tool)

G00 Z3.000000
G00 X65.214862 Y54.391609

G00 Z4.875000 (Fast pre-penetrate)
G01 Z-0.125000 F400.0(Penetrate)
G01 X80.772573 Y57.354708 Z-0.125000 F800.000000
G01 X96.201820 Y60.446271 Z-0.125000
G00 Z3.000000

(End cutting path id: path4404)


(Start cutting path id: path4406)
(Change tool to Default tool)

G00 Z3.000000
G00 X65.269379 Y53.624752

G00 Z4.875000 (Fast pre-penetrate)
G01 Z-0.125000 F400.0(Penetrate)
G01 X80.713624 Y56.701318 Z-0.125000 F800.000000
G01 X96.596541 Y59.339210 Z-0.125000
G00 Z3.000000

(End cutting path id: path4406)


(Start cutting path id: path4410)
(Change tool to Default tool)

G00 Z3.000000
G00 X65.378414 Y52.091041

G00 Z4.875000 (Fast pre-penetrate)
G01 Z-0.125000 F400.0(Penetrate)
G01 X80.595725 Y55.394537 Z-0.125000 F800.000000
G01 X97.385985 Y57.125087 Z-0.125000
G00 Z3.000000

(End cutting path id: path4410)


(Start cutting path id: path4412)
(Change tool to Default tool)

G00 Z3.000000
G00 X65.432931 Y51.324184

G00 Z4.875000 (Fast pre-penetrate)
G01 Z-0.125000 F400.0(Penetrate)
G01 X80.536776 Y54.741147 Z-0.125000 F800.000000
G01 X97.780706 Y56.018027 Z-0.125000
G00 Z3.000000

(End cutting path id: path4412)


(Start cutting path id: path4416)
(Change tool to Default tool)

G00 Z3.000000
G00 X65.541963 Y49.790473

G00 Z4.875000 (Fast pre-penetrate)
G01 Z-0.125000 F400.0(Penetrate)
G01 X80.418878 Y53.434369 Z-0.125000 F800.000000
G01 X98.570150 Y53.803906 Z-0.125000
G00 Z3.000000

(End cutting path id: path4416)


(Start cutting path id: path4426)
(Change tool to Default tool)

G00 Z3.000000
G00 X65.553195 Y46.217547

G00 Z4.875000 (Fast pre-penetrate)
G01 Z-0.125000 F400.0(Penetrate)
G01 X80.114250 Y50.177304 Z-0.125000 F800.000000
G01 X100.034646 Y48.777716 Z-0.125000
G00 Z3.000000

(End cutting path id: path4426)


(Start cutting path id: path4428)
(Change tool to Default tool)

G00 Z3.000000
G00 X65.346357 Y45.712048

G00 Z4.875000 (Fast pre-penetrate)
G01 Z-0.125000 F400.0(Penetrate)
G01 X80.045414 Y49.533799 Z-0.125000 F800.000000
G01 X99.920254 Y48.179771 Z-0.125000
G00 Z3.000000

(End cutting path id: path4428)


(Start cutting path id: path4430)
(Change tool to Default tool)

G00 Z3.000000
G00 X65.139519 Y45.206546

G00 Z4.875000 (Fast pre-penetrate)
G01 Z-0.125000 F400.0(Penetrate)
G01 X79.976580 Y48.890296 Z-0.125000 F800.000000
G01 X99.805861 Y47.581824 Z-0.125000
G00 Z3.000000

(End cutting path id: path4430)


(Start cutting path id: path4432)
(Change tool to Default tool)

G00 Z3.000000
G00 X64.932682 Y44.701045

G00 Z4.875000 (Fast pre-penetrate)
G01 Z-0.125000 F400.0(Penetrate)
G01 X79.907743 Y48.246793 Z-0.125000 F800.000000
G01 X99.691469 Y46.983877 Z-0.125000
G00 Z3.000000

(End cutting path id: path4432)


(Start cutting path id: path4434)
(Change tool to Default tool)

G00 Z3.000000
G00 X64.725844 Y44.195543

G00 Z4.875000 (Fast pre-penetrate)
G01 Z-0.125000 F400.0(Penetrate)
G01 X79.838910 Y47.603287 Z-0.125000 F800.000000
G01 X99.577076 Y46.385933 Z-0.125000
G00 Z3.000000

(End cutting path id: path4434)


(Start cutting path id: path4436)
(Change tool to Default tool)

G00 Z3.000000
G00 X64.519006 Y43.690041

G00 Z4.875000 (Fast pre-penetrate)
G01 Z-0.125000 F400.0(Penetrate)
G01 X79.770073 Y46.959784 Z-0.125000 F800.000000
G01 X99.462684 Y45.787986 Z-0.125000
G00 Z3.000000

(End cutting path id: path4436)


(Start cutting path id: path4438)
(Change tool to Default tool)

G00 Z3.000000
G00 X64.312168 Y43.184542

G00 Z4.875000 (Fast pre-penetrate)
G01 Z-0.125000 F400.0(Penetrate)
G01 X79.701239 Y46.316282 Z-0.125000 F800.000000
G01 X99.348292 Y45.190039 Z-0.125000
G00 Z3.000000

(End cutting path id: path4438)


(Start cutting path id: path4440)
(Change tool to Default tool)

G00 Z3.000000
G00 X64.105331 Y42.679041

G00 Z4.875000 (Fast pre-penetrate)
G01 Z-0.125000 F400.0(Penetrate)
G01 X79.632405 Y45.672776 Z-0.125000 F800.000000
G01 X99.233896 Y44.592092 Z-0.125000
G00 Z3.000000

(End cutting path id: path4440)


(Start cutting path id: path4442)
(Change tool to Default tool)

G00 Z3.000000
G00 X63.898493 Y42.173539

G00 Z4.875000 (Fast pre-penetrate)
G01 Z-0.125000 F400.0(Penetrate)
G01 X79.563569 Y45.029273 Z-0.125000 F800.000000
G01 X99.119504 Y43.994148 Z-0.125000
G00 Z3.000000

(End cutting path id: path4442)


(Start cutting path id: path4444)
(Change tool to Default tool)

G00 Z3.000000
G00 X63.691655 Y41.668037

G00 Z4.875000 (Fast pre-penetrate)
G01 Z-0.125000 F400.0(Penetrate)
G01 X79.494735 Y44.385770 Z-0.125000 F800.000000
G01 X99.005112 Y43.396201 Z-0.125000
G00 Z3.000000

(End cutting path id: path4444)


(Start cutting path id: path4446)
(Change tool to Default tool)

G00 Z3.000000
G00 X63.484817 Y41.162538

G00 Z4.875000 (Fast pre-penetrate)
G01 Z-0.125000 F400.0(Penetrate)
G01 X79.425898 Y43.742265 Z-0.125000 F800.000000
G01 X98.890719 Y42.798254 Z-0.125000
G00 Z3.000000

(End cutting path id: path4446)


(Start cutting path id: path4448)
(Change tool to Default tool)

G00 Z3.000000
G00 X63.277980 Y40.657036

G00 Z4.875000 (Fast pre-penetrate)
G01 Z-0.125000 F400.0(Penetrate)
G01 X79.357064 Y43.098762 Z-0.125000 F800.000000
G01 X98.776327 Y42.200309 Z-0.125000
G00 Z3.000000

(End cutting path id: path4448)


(Start cutting path id: path4450)
(Change tool to Default tool)

G00 Z3.000000
G00 X63.071142 Y40.151535

G00 Z4.875000 (Fast pre-penetrate)
G01 Z-0.125000 F400.0(Penetrate)
G01 X79.288228 Y42.455259 Z-0.125000 F800.000000
G01 X98.661934 Y41.602362 Z-0.125000
G00 Z3.000000

(End cutting path id: path4450)


(Start cutting path id: path4452)
(Change tool to Default tool)

G00 Z3.000000
G00 X62.864304 Y39.646033

G00 Z4.875000 (Fast pre-penetrate)
G01 Z-0.125000 F400.0(Penetrate)
G01 X79.219394 Y41.811753 Z-0.125000 F800.000000
G01 X98.547542 Y41.004415 Z-0.125000
G00 Z3.000000

(End cutting path id: path4452)


(Start cutting path id: path4454)
(Change tool to Default tool)

G00 Z3.000000
G00 X62.657466 Y39.140534

G00 Z4.875000 (Fast pre-penetrate)
G01 Z-0.125000 F400.0(Penetrate)
G01 X79.150557 Y41.168250 Z-0.125000 F800.000000
G01 X98.433149 Y40.406468 Z-0.125000
G00 Z3.000000

(End cutting path id: path4454)


(Start cutting path id: path4456)
(Change tool to Default tool)

G00 Z3.000000
G00 X62.450629 Y38.635032

G00 Z4.875000 (Fast pre-penetrate)
G01 Z-0.125000 F400.0(Penetrate)
G01 X79.081723 Y40.524748 Z-0.125000 F800.000000
G01 X98.318757 Y39.808524 Z-0.125000
G00 Z3.000000

(End cutting path id: path4456)


(Start cutting path id: path4458)
(Change tool to Default tool)

G00 Z3.000000
G00 X62.243791 Y38.129531

G00 Z4.875000 (Fast pre-penetrate)
G01 Z-0.125000 F400.0(Penetrate)
G01 X79.012889 Y39.881242 Z-0.125000 F800.000000
G01 X98.204364 Y39.210577 Z-0.125000
G00 Z3.000000

(End cutting path id: path4458)


(Start cutting path id: path4460)
(Change tool to Default tool)

G00 Z3.000000
G00 X62.036953 Y37.624029

G00 Z4.875000 (Fast pre-penetrate)
G01 Z-0.125000 F400.0(Penetrate)
G01 X78.944053 Y39.237739 Z-0.125000 F800.000000
G01 X98.089972 Y38.612630 Z-0.125000
G00 Z3.000000

(End cutting path id: path4460)


(Start cutting path id: path4462)
(Change tool to Default tool)

G00 Z3.000000
G00 X61.830115 Y37.118527

G00 Z4.875000 (Fast pre-penetrate)
G01 Z-0.125000 F400.0(Penetrate)
G01 X78.875219 Y38.594236 Z-0.125000 F800.000000
G01 X97.975579 Y38.014686 Z-0.125000
G00 Z3.000000

(End cutting path id: path4462)


(Start cutting path id: path4464)
(Change tool to Default tool)

G00 Z3.000000
G00 X61.623277 Y36.613028

G00 Z4.875000 (Fast pre-penetrate)
G01 Z-0.125000 F400.0(Penetrate)
G01 X78.806382 Y37.950731 Z-0.125000 F800.000000
G01 X97.861187 Y37.416739 Z-0.125000
G00 Z3.000000

(End cutting path id: path4464)


(Start cutting path id: path4466)
(Change tool to Default tool)

G00 Z3.000000
G00 X61.416440 Y36.107526

G00 Z4.875000 (Fast pre-penetrate)
G01 Z-0.125000 F400.0(Penetrate)
G01 X78.737548 Y37.307228 Z-0.125000 F800.000000
G01 X97.746794 Y36.818792 Z-0.125000
G00 Z3.000000

(End cutting path id: path4466)


(Start cutting path id: path4468)
(Change tool to Default tool)

G00 Z3.000000
G00 X61.209602 Y35.602025

G00 Z4.875000 (Fast pre-penetrate)
G01 Z-0.125000 F400.0(Penetrate)
G01 X78.668712 Y36.663725 Z-0.125000 F800.000000
G01 X97.632402 Y36.220845 Z-0.125000
G00 Z3.000000

(End cutting path id: path4468)


(Start cutting path id: path4470)
(Change tool to Default tool)

G00 Z3.000000
G00 X61.002764 Y35.096523

G00 Z4.875000 (Fast pre-penetrate)
G01 Z-0.125000 F400.0(Penetrate)
G01 X78.599878 Y36.020219 Z-0.125000 F800.000000
G01 X97.518010 Y35.622900 Z-0.125000
G00 Z3.000000

(End cutting path id: path4470)


(Start cutting path id: path4472)
(Change tool to Default tool)

G00 Z3.000000
G00 X60.795926 Y34.591024

G00 Z4.875000 (Fast pre-penetrate)
G01 Z-0.125000 F400.0(Penetrate)
G01 X78.531041 Y35.376716 Z-0.125000 F800.000000
G01 X97.403617 Y35.024953 Z-0.125000
G00 Z3.000000

(End cutting path id: path4472)


(Start cutting path id: path4474)
(Change tool to Default tool)

G00 Z3.000000
G00 X60.589089 Y34.085522

G00 Z4.875000 (Fast pre-penetrate)
G01 Z-0.125000 F400.0(Penetrate)
G01 X78.462207 Y34.733214 Z-0.125000 F800.000000
G01 X97.289222 Y34.427006 Z-0.125000
G00 Z3.000000

(End cutting path id: path4474)



(Footer)
M5
G00 X0.0000 Y0.0000
M2
(Using default footer. To add your own footer create file "footer" in the output dir.)
(end)
%