%
(Header)
(Generated by gcodetools from Inkscape.)
(Using default header. To add your own header create file "header" in the output dir.)
M3
(Header end.)
G21 (All units in mm)

(Start cutting path id: polyline136)
(Change tool to Default tool)

G00 Z3.000000
G00 X39.468289 Y82.828647

G00 Z4.875000 (Fast pre-penetrate)
G01 Z-0.125000 F400.0(Penetrate)
G01 X45.255811 Y82.489038 Z-0.125000 F800.000000
G01 X50.686813 Y81.556452 Z-0.125000
G01 X55.426721 Y80.086286 Z-0.125000
G01 X58.350327 Y78.682960 Z-0.125000
G01 X59.940432 Y77.630124 Z-0.125000
G01 X61.214119 Y76.501867 Z-0.125000
G01 X62.489424 Y74.705958 Z-0.125000
G01 X62.897115 Y73.466281 Z-0.125000
G01 X62.942567 Y72.214728 Z-0.125000
G01 X62.331557 Y70.356705 Z-0.125000
G01 X61.480608 Y69.158500 Z-0.125000
G01 X59.571724 Y67.467421 Z-0.125000
G01 X57.906138 Y66.435973 Z-0.125000
G01 X54.882490 Y65.071756 Z-0.125000
G01 X52.562059 Y64.304435 Z-0.125000
G01 X48.713887 Y63.395599 Z-0.125000
G01 X44.544697 Y62.803802 Z-0.125000
G01 X40.199112 Y62.548816 Z-0.125000
G01 X32.975248 Y62.888487 Z-0.125000
G01 X28.897396 Y63.538046 Z-0.125000
G01 X25.186697 Y64.495752 Z-0.125000
G01 X22.981106 Y65.288815 Z-0.125000
G01 X20.160340 Y66.679270 Z-0.125000
G01 X18.010087 Y68.266328 Z-0.125000
G01 X16.605020 Y69.993967 Z-0.125000
G01 X16.107607 Y71.193975 Z-0.125000
G01 X15.971316 Y72.410647 Z-0.125000
G01 X16.198323 Y73.624894 Z-0.125000
G01 X16.785021 Y74.817752 Z-0.125000
G01 X17.722458 Y75.970444 Z-0.125000
G01 X18.996146 Y77.065001 Z-0.125000
G01 X21.492536 Y78.560348 Z-0.125000
G01 X25.774017 Y80.200504 Z-0.125000
G01 X29.555225 Y81.108904 Z-0.125000
G01 X35.107968 Y81.829593 Z-0.125000
G01 X39.468289 Y81.976765 Z-0.125000
G01 X45.255811 Y81.637095 Z-0.125000
G01 X50.686813 Y80.704508 Z-0.125000
G01 X55.426721 Y79.234342 Z-0.125000
G01 X58.350327 Y77.831078 Z-0.125000
G01 X59.940432 Y76.778180 Z-0.125000
G01 X61.214119 Y75.649923 Z-0.125000
G01 X62.489424 Y73.854014 Z-0.125000
G01 X62.897115 Y72.614400 Z-0.125000
G01 X62.942567 Y71.362785 Z-0.125000
G01 X62.331557 Y69.504761 Z-0.125000
G01 X61.480608 Y68.306556 Z-0.125000
G01 X59.571724 Y66.615477 Z-0.125000
G01 X57.906138 Y65.584029 Z-0.125000
G01 X54.882490 Y64.219812 Z-0.125000
G01 X52.562059 Y63.452491 Z-0.125000
G01 X48.713887 Y62.543656 Z-0.125000
G01 X44.544697 Y61.951921 Z-0.125000
G01 X40.199112 Y61.696872 Z-0.125000
G01 X32.975248 Y62.036543 Z-0.125000
G01 X28.897396 Y62.686164 Z-0.125000
G01 X25.186697 Y63.643808 Z-0.125000
G01 X22.981106 Y64.436933 Z-0.125000
G01 X20.160340 Y65.827326 Z-0.125000
G01 X18.010087 Y67.414384 Z-0.125000
G01 X16.605020 Y69.142085 Z-0.125000
G01 X16.107607 Y70.342031 Z-0.125000
G01 X15.971316 Y71.558703 Z-0.125000
G01 X16.198323 Y72.772950 Z-0.125000
G01 X16.785021 Y73.965808 Z-0.125000
G01 X17.722458 Y75.118500 Z-0.125000
G01 X18.996146 Y76.213057 Z-0.125000
G01 X21.492536 Y77.708404 Z-0.125000
G01 X25.774017 Y79.348623 Z-0.125000
G01 X30.899047 Y80.491615 Z-0.125000
G01 X36.552020 Y81.064946 Z-0.125000
G01 X40.929252 Y81.097153 Z-0.125000
G01 X46.660567 Y80.606082 Z-0.125000
G01 X51.948811 Y79.532541 Z-0.125000
G01 X56.468242 Y77.940571 Z-0.125000
G01 X59.183556 Y76.463131 Z-0.125000
G01 X60.618157 Y75.370502 Z-0.125000
G01 X61.725833 Y74.210970 Z-0.125000
G01 X62.738254 Y72.384968 Z-0.125000
G01 X62.942567 Y70.510841 Z-0.125000
G01 X62.625031 Y69.266438 Z-0.125000
G01 X61.949544 Y68.048150 Z-0.125000
G01 X60.926490 Y66.874567 Z-0.125000
G01 X58.776237 Y65.236897 Z-0.125000
G01 X56.964597 Y64.251149 Z-0.125000
G01 X53.749881 Y62.969006 Z-0.125000
G01 X51.323563 Y62.264110 Z-0.125000
G01 X47.352903 Y61.458052 Z-0.125000
G01 X40.199112 Y60.844991 Z-0.125000
G01 X32.975248 Y61.184599 Z-0.125000
G01 X30.222690 Y61.582094 Z-0.125000
G01 X26.374518 Y62.440318 Z-0.125000
G01 X24.054088 Y63.173940 Z-0.125000
G01 X21.030502 Y64.487545 Z-0.125000
G01 X18.647211 Y66.014975 Z-0.125000
G01 X16.987033 Y67.702324 Z-0.125000
G01 X16.311547 Y68.886850 Z-0.125000
G01 X15.994073 Y70.097553 Z-0.125000
G01 X16.039524 Y71.315406 Z-0.125000
G01 X16.447154 Y72.521321 Z-0.125000
G01 X17.210745 Y73.696397 Z-0.125000
G01 X18.318421 Y74.822228 Z-0.125000
G01 X20.586250 Y76.380250 Z-0.125000
G01 X24.613180 Y78.129713 Z-0.125000
G01 X29.555225 Y79.405079 Z-0.125000
G01 X35.107968 Y80.125768 Z-0.125000
G01 X39.468289 Y80.272878 Z-0.125000
G01 X45.255811 Y79.933269 Z-0.125000
G01 X50.686813 Y79.000682 Z-0.125000
G01 X55.426721 Y77.530517 Z-0.125000
G01 X58.350327 Y76.127191 Z-0.125000
G01 X59.940432 Y75.074355 Z-0.125000
G01 X61.214119 Y73.946098 Z-0.125000
G01 X62.151556 Y72.759644 Z-0.125000
G01 X62.738254 Y71.533024 Z-0.125000
G01 X62.942567 Y69.658959 Z-0.125000
G01 X62.625031 Y68.414495 Z-0.125000
G01 X61.949544 Y67.196206 Z-0.125000
G01 X60.926490 Y66.022623 Z-0.125000
G01 X58.776237 Y64.385016 Z-0.125000
G01 X56.964597 Y63.399206 Z-0.125000
G01 X53.749881 Y62.117062 Z-0.125000
G01 X51.323563 Y61.412166 Z-0.125000
G01 X47.352903 Y60.606108 Z-0.125000
G01 X40.199112 Y59.993047 Z-0.125000
G01 X32.975248 Y60.332718 Z-0.125000
G01 X30.222690 Y60.730151 Z-0.125000
G01 X26.374518 Y61.588436 Z-0.125000
G01 X24.054088 Y62.321996 Z-0.125000
G01 X21.030502 Y63.635601 Z-0.125000
G01 X18.647211 Y65.163031 Z-0.125000
G01 X16.987033 Y66.850380 Z-0.125000
G01 X16.311547 Y68.034969 Z-0.125000
G01 X15.994073 Y69.245609 Z-0.125000
G01 X16.039524 Y70.463462 Z-0.125000
G01 X16.447154 Y71.669377 Z-0.125000
G01 X17.210745 Y72.844515 Z-0.125000
G01 X18.318421 Y73.970285 Z-0.125000
G01 X20.586250 Y75.528368 Z-0.125000
G01 X24.613180 Y77.277769 Z-0.125000
G01 X29.555225 Y78.553135 Z-0.125000
G01 X35.107968 Y79.273824 Z-0.125000
G01 X39.468289 Y79.420996 Z-0.125000
G01 X45.255811 Y79.081325 Z-0.125000
G01 X50.686813 Y78.148739 Z-0.125000
G01 X55.426721 Y76.678573 Z-0.125000
G01 X58.350327 Y75.275309 Z-0.125000
G01 X59.940432 Y74.222411 Z-0.125000
G01 X61.214119 Y73.094154 Z-0.125000
G01 X62.151556 Y71.907700 Z-0.125000
G01 X62.738254 Y70.681142 Z-0.125000
G01 X62.942567 Y68.807015 Z-0.125000
G01 X62.625031 Y67.562551 Z-0.125000
G01 X61.949544 Y66.344325 Z-0.125000
G01 X60.926490 Y65.170741 Z-0.125000
G01 X58.776237 Y63.533072 Z-0.125000
G01 X56.964597 Y62.547324 Z-0.125000
G01 X53.749881 Y61.265180 Z-0.125000
G01 X51.323563 Y60.560222 Z-0.125000
G01 X47.352903 Y59.754165 Z-0.125000
G01 X40.199112 Y59.141103 Z-0.125000
G01 X32.975248 Y59.480774 Z-0.125000
G01 X30.222690 Y59.878207 Z-0.125000
G01 X26.374518 Y60.736493 Z-0.125000
G01 X24.054088 Y61.470052 Z-0.125000
G01 X21.030502 Y62.783657 Z-0.125000
G01 X18.647211 Y64.311088 Z-0.125000
G01 X16.987033 Y65.998498 Z-0.125000
G01 X16.311547 Y67.183025 Z-0.125000
G01 X15.994073 Y68.393728 Z-0.125000
G01 X16.039524 Y69.611581 Z-0.125000
G01 X16.447154 Y70.817496 Z-0.125000
G01 X17.210745 Y71.992571 Z-0.125000
G01 X18.318421 Y73.118403 Z-0.125000
G01 X21.492536 Y75.152635 Z-0.125000
G01 X25.774017 Y76.792791 Z-0.125000
G01 X30.899047 Y77.935846 Z-0.125000
G01 X36.552020 Y78.509176 Z-0.125000
G01 X40.929252 Y78.541384 Z-0.125000
G01 X46.660567 Y78.050313 Z-0.125000
G01 X51.948811 Y76.976772 Z-0.125000
G01 X56.468242 Y75.384802 Z-0.125000
G01 X59.183556 Y73.907362 Z-0.125000
G01 X60.618157 Y72.814733 Z-0.125000
G01 X61.725833 Y71.655201 Z-0.125000
G01 X62.489424 Y70.446364 Z-0.125000
G01 X62.897115 Y69.206687 Z-0.125000
G01 X62.828970 Y67.330819 Z-0.125000
G01 X62.331557 Y66.097110 Z-0.125000
G01 X61.480608 Y64.898843 Z-0.125000
G01 X60.289367 Y63.754421 Z-0.125000
G01 X57.906138 Y62.176378 Z-0.125000
G01 X55.955471 Y61.240123 Z-0.125000
G01 X52.562059 Y60.044840 Z-0.125000
G01 X50.039181 Y59.404981 Z-0.125000
G01 X45.961329 Y58.704748 Z-0.125000
G01 X38.737465 Y58.280766 Z-0.125000
G01 X31.583674 Y58.809516 Z-0.125000
G01 X28.897396 Y59.278451 Z-0.125000
G01 X25.186697 Y60.236095 Z-0.125000
G01 X22.981106 Y61.029220 Z-0.125000
G01 X20.160340 Y62.419675 Z-0.125000
G01 X18.647211 Y63.459206 Z-0.125000
G01 X16.987033 Y65.146555 Z-0.125000
G01 X16.311547 Y66.331081 Z-0.125000
G01 X15.994073 Y67.541784 Z-0.125000
G01 X16.039524 Y68.759637 Z-0.125000
G01 X16.447154 Y69.965552 Z-0.125000
G01 X17.210745 Y71.140628 Z-0.125000
G01 X18.318421 Y72.266459 Z-0.125000
G01 X21.492536 Y74.300753 Z-0.125000
G01 X25.774017 Y75.940910 Z-0.125000
G01 X30.899047 Y77.083902 Z-0.125000
G01 X36.552020 Y77.657233 Z-0.125000
G01 X40.929252 Y77.689502 Z-0.125000
G01 X46.660567 Y77.198369 Z-0.125000
G01 X51.948811 Y76.124828 Z-0.125000
G01 X56.468242 Y74.532921 Z-0.125000
G01 X59.183556 Y73.055480 Z-0.125000
G01 X60.618157 Y71.962851 Z-0.125000
G01 X61.725833 Y70.803257 Z-0.125000
G01 X62.489424 Y69.594420 Z-0.125000
G01 X62.897115 Y68.354743 Z-0.125000
G01 X62.828970 Y66.478875 Z-0.125000
G01 X62.331557 Y65.245167 Z-0.125000
G01 X61.480608 Y64.046961 Z-0.125000
G01 X60.289367 Y62.902477 Z-0.125000
G01 X58.776237 Y61.829246 Z-0.125000
G01 X56.964597 Y60.843499 Z-0.125000
G01 X53.749881 Y59.561293 Z-0.125000
G01 X51.323563 Y58.856397 Z-0.125000
G01 X47.352903 Y58.050339 Z-0.125000
G01 X40.199112 Y57.437278 Z-0.125000
G01 X32.975248 Y57.776949 Z-0.125000
G01 X30.222690 Y58.174382 Z-0.125000
G01 X26.374518 Y59.032667 Z-0.125000
G01 X24.054088 Y59.766227 Z-0.125000
G01 X21.030502 Y61.079832 Z-0.125000
G01 X19.364853 Y62.077580 Z-0.125000
G01 X17.455969 Y63.717985 Z-0.125000
G01 X16.605020 Y64.882428 Z-0.125000
G01 X16.107607 Y66.082437 Z-0.125000
G01 X15.971316 Y67.299108 Z-0.125000
G01 X16.198323 Y68.513355 Z-0.125000
G01 X16.785021 Y69.706213 Z-0.125000
G01 X17.722458 Y70.858905 Z-0.125000
G01 X18.996146 Y71.953462 Z-0.125000
G01 X20.586250 Y72.972599 Z-0.125000
G01 X24.613180 Y74.722000 Z-0.125000
G01 X29.555225 Y75.997366 Z-0.125000
G01 X35.107968 Y76.718055 Z-0.125000
G01 X39.468289 Y76.865227 Z-0.125000
G01 X45.255811 Y76.525556 Z-0.125000
G01 X50.686813 Y75.592970 Z-0.125000
G01 X55.426721 Y74.122804 Z-0.125000
G01 X59.183556 Y72.203537 Z-0.125000
G01 X60.618157 Y71.110907 Z-0.125000
G01 X61.725833 Y69.951314 Z-0.125000
G01 X62.489424 Y68.742476 Z-0.125000
G01 X62.897115 Y67.502861 Z-0.125000
G01 X62.828970 Y65.626931 Z-0.125000
G01 X62.331557 Y64.393223 Z-0.125000
G01 X61.480608 Y63.195018 Z-0.125000
G01 X60.289367 Y62.050533 Z-0.125000
G01 X58.776237 Y60.977303 Z-0.125000
G01 X56.964597 Y59.991555 Z-0.125000
G01 X53.749881 Y58.709411 Z-0.125000
G01 X51.323563 Y58.004453 Z-0.125000
G01 X47.352903 Y57.198395 Z-0.125000
G01 X40.199112 Y56.585334 Z-0.125000
G01 X32.975248 Y56.925005 Z-0.125000
G01 X30.222690 Y57.322438 Z-0.125000
G01 X26.374518 Y58.180724 Z-0.125000
G01 X24.054088 Y58.914283 Z-0.125000
G01 X21.030502 Y60.227888 Z-0.125000
G01 X19.364853 Y61.225636 Z-0.125000
G01 X17.455969 Y62.866041 Z-0.125000
G01 X16.605020 Y64.030547 Z-0.125000
G01 X16.107607 Y65.230493 Z-0.125000
G01 X15.971316 Y66.447165 Z-0.125000
G01 X16.198323 Y67.661412 Z-0.125000
G01 X16.785021 Y68.854270 Z-0.125000
G01 X17.722458 Y70.007024 Z-0.125000
G01 X18.996146 Y71.101518 Z-0.125000
G01 X20.586250 Y72.120655 Z-0.125000
G01 X24.613180 Y73.870056 Z-0.125000
G01 X29.555225 Y75.145485 Z-0.125000
G01 X35.107968 Y75.866174 Z-0.125000
G01 X40.929252 Y75.985615 Z-0.125000
G01 X46.660567 Y75.494544 Z-0.125000
G01 X51.948811 Y74.421003 Z-0.125000
G01 X56.468242 Y72.829095 Z-0.125000
G01 X59.940432 Y70.814760 Z-0.125000
G01 X61.214119 Y69.686503 Z-0.125000
G01 X62.151556 Y68.499987 Z-0.125000
G01 X62.738254 Y67.273430 Z-0.125000
G01 X62.965261 Y66.025421 Z-0.125000
G01 X62.625031 Y64.154900 Z-0.125000
G01 X61.949544 Y62.936612 Z-0.125000
G01 X60.926490 Y61.763028 Z-0.125000
G01 X59.571724 Y60.652057 Z-0.125000
G01 X57.906138 Y59.620609 Z-0.125000
G01 X55.955471 Y58.684354 Z-0.125000
G01 X52.562059 Y57.489071 Z-0.125000
G01 X50.039181 Y56.849212 Z-0.125000
G01 X45.961329 Y56.148979 Z-0.125000
G01 X38.737465 Y55.724997 Z-0.125000
G01 X32.975248 Y56.073061 Z-0.125000
G01 X30.222690 Y56.470556 Z-0.125000
G01 X26.374518 Y57.328780 Z-0.125000
G01 X24.054088 Y58.062402 Z-0.125000
G01 X21.030502 Y59.376007 Z-0.125000
G01 X19.364853 Y60.373692 Z-0.125000
G01 X17.455969 Y62.014160 Z-0.125000
G01 X16.605020 Y63.178603 Z-0.125000
G01 X16.107607 Y64.378549 Z-0.125000
G01 X15.971316 Y65.595221 Z-0.125000
G01 X16.198323 Y66.809530 Z-0.125000
G01 X16.785021 Y68.002326 Z-0.125000
G01 X17.722458 Y69.155080 Z-0.125000
G01 X18.996146 Y70.249575 Z-0.125000
G01 X20.586250 Y71.268711 Z-0.125000
G01 X24.613180 Y73.018174 Z-0.125000
G01 X29.555225 Y74.293541 Z-0.125000
G01 X35.107968 Y75.014230 Z-0.125000
G01 X40.929252 Y75.133733 Z-0.125000
G01 X46.660567 Y74.642600 Z-0.125000
G01 X51.948811 Y73.569059 Z-0.125000
G01 X56.468242 Y71.977152 Z-0.125000
G01 X59.940432 Y69.962816 Z-0.125000
G01 X61.214119 Y68.834560 Z-0.125000
G01 X62.151556 Y67.648106 Z-0.125000
G01 X62.738254 Y66.421486 Z-0.125000
G01 X62.965261 Y65.173477 Z-0.125000
G01 X62.625031 Y63.302956 Z-0.125000
G01 X61.949544 Y62.084668 Z-0.125000
G01 X60.926490 Y60.911085 Z-0.125000
G01 X59.571724 Y59.800113 Z-0.125000
G01 X57.906138 Y58.768666 Z-0.125000
G01 X55.955471 Y57.832410 Z-0.125000
G01 X52.562059 Y56.637127 Z-0.125000
G01 X50.039181 Y55.997268 Z-0.125000
G01 X45.961329 Y55.297097 Z-0.125000
G01 X38.737465 Y54.873053 Z-0.125000
G01 X32.975248 Y55.221180 Z-0.125000
G01 X30.222690 Y55.618612 Z-0.125000
G01 X26.374518 Y56.476898 Z-0.125000
G01 X24.054088 Y57.210458 Z-0.125000
G01 X21.030502 Y58.524063 Z-0.125000
G01 X19.364853 Y59.521811 Z-0.125000
G01 X17.455969 Y61.162216 Z-0.125000
G01 X16.605020 Y62.326659 Z-0.125000
G01 X16.107607 Y63.526668 Z-0.125000
G01 X15.971316 Y64.743339 Z-0.125000
G01 X16.198323 Y65.957586 Z-0.125000
G01 X16.785021 Y67.150444 Z-0.125000
G01 X17.722458 Y68.303136 Z-0.125000
G01 X18.996146 Y69.397693 Z-0.125000
G01 X20.586250 Y70.416830 Z-0.125000
G01 X24.613180 Y72.166231 Z-0.125000
G01 X29.555225 Y73.441597 Z-0.125000
G01 X35.107968 Y74.162286 Z-0.125000
G01 X40.929252 Y74.281789 Z-0.125000
G01 X46.660567 Y73.790719 Z-0.125000
G01 X51.948811 Y72.717177 Z-0.125000
G01 X56.468242 Y71.125208 Z-0.125000
G01 X59.940432 Y69.110872 Z-0.125000
G01 X61.214119 Y67.982616 Z-0.125000
G01 X62.151556 Y66.796162 Z-0.125000
G01 X62.738254 Y65.569604 Z-0.125000
G01 X62.965261 Y64.321595 Z-0.125000
G01 X62.625031 Y62.451075 Z-0.125000
G01 X61.949544 Y61.232786 Z-0.125000
G01 X60.926490 Y60.059203 Z-0.125000
G01 X59.571724 Y58.948232 Z-0.125000
G01 X57.906138 Y57.916722 Z-0.125000
G01 X55.955471 Y56.980466 Z-0.125000
G01 X52.562059 Y55.785246 Z-0.125000
G01 X50.039181 Y55.145386 Z-0.125000
G01 X45.961329 Y54.445153 Z-0.125000
G01 X38.737465 Y54.021171 Z-0.125000
G01 X32.975248 Y54.369236 Z-0.125000
G01 X30.222690 Y54.766669 Z-0.125000
G01 X26.374518 Y55.624954 Z-0.125000
G01 X24.054088 Y56.358514 Z-0.125000
G01 X21.030502 Y57.672119 Z-0.125000
G01 X19.364853 Y58.669867 Z-0.125000
G01 X17.455969 Y60.310272 Z-0.125000
G01 X16.605020 Y61.474778 Z-0.125000
G01 X16.107607 Y62.674724 Z-0.125000
G01 X15.971316 Y63.891396 Z-0.125000
G01 X16.198323 Y65.105642 Z-0.125000
G01 X16.785021 Y66.298500 Z-0.125000
G01 X17.722458 Y67.451255 Z-0.125000
G01 X18.996146 Y68.545749 Z-0.125000
G01 X20.586250 Y69.564886 Z-0.125000
G01 X24.613180 Y71.314349 Z-0.125000
G01 X29.555225 Y72.589715 Z-0.125000
G01 X35.107968 Y73.310342 Z-0.125000
G01 X39.468289 Y73.457514 Z-0.125000
G01 X45.255811 Y73.117906 Z-0.125000
G01 X50.686813 Y72.185257 Z-0.125000
G01 X55.426721 Y70.715091 Z-0.125000
G01 X59.183556 Y68.795824 Z-0.125000
G01 X60.618157 Y67.703194 Z-0.125000
G01 X61.725833 Y66.543663 Z-0.125000
G01 X62.489424 Y65.334825 Z-0.125000
G01 X62.897115 Y64.095148 Z-0.125000
G01 X62.828970 Y62.219280 Z-0.125000
G01 X62.331557 Y60.985572 Z-0.125000
G01 X61.480608 Y59.787367 Z-0.125000
G01 X60.289367 Y58.642882 Z-0.125000
G01 X58.776237 Y57.569590 Z-0.125000
G01 X56.964597 Y56.583842 Z-0.125000
G01 X53.749881 Y55.301698 Z-0.125000
G01 X51.323563 Y54.596802 Z-0.125000
G01 X47.352903 Y53.790745 Z-0.125000
G01 X40.199112 Y53.177683 Z-0.125000
G01 X32.975248 Y53.517292 Z-0.125000
G01 X30.222690 Y53.914787 Z-0.125000
G01 X26.374518 Y54.773011 Z-0.125000
G01 X24.054088 Y55.506632 Z-0.125000
G01 X21.030502 Y56.820237 Z-0.125000
G01 X19.364853 Y57.817923 Z-0.125000
G01 X17.455969 Y59.458391 Z-0.125000
G01 X16.605020 Y60.622834 Z-0.125000
G01 X16.107607 Y61.822780 Z-0.125000
G01 X15.971316 Y63.039452 Z-0.125000
G01 X16.198323 Y64.253761 Z-0.125000
G01 X16.785021 Y65.446557 Z-0.125000
G01 X17.722458 Y66.599311 Z-0.125000
G01 X18.996146 Y67.693806 Z-0.125000
G01 X20.586250 Y68.712942 Z-0.125000
G01 X24.613180 Y70.462405 Z-0.125000
G01 X29.555225 Y71.737772 Z-0.125000
G01 X35.107968 Y72.458461 Z-0.125000
G01 X39.468289 Y72.605633 Z-0.125000
G01 X45.255811 Y72.265962 Z-0.125000
G01 X50.686813 Y71.333375 Z-0.125000
G01 X55.426721 Y69.863209 Z-0.125000
G01 X59.183556 Y67.943942 Z-0.125000
G01 X60.618157 Y66.851313 Z-0.125000
G01 X61.725833 Y65.691719 Z-0.125000
G01 X62.489424 Y64.482882 Z-0.125000
G01 X62.897115 Y63.243205 Z-0.125000
G01 X62.828970 Y61.367337 Z-0.125000
G01 X62.331557 Y60.133628 Z-0.125000
G01 X61.480608 Y58.935423 Z-0.125000
G01 X60.289367 Y57.790938 Z-0.125000
G01 X58.776237 Y56.717708 Z-0.125000
G01 X56.964597 Y55.731960 Z-0.125000
G01 X53.749881 Y54.449755 Z-0.125000
G01 X51.323563 Y53.744858 Z-0.125000
G01 X47.352903 Y52.938801 Z-0.125000
G01 X40.199112 Y52.325740 Z-0.125000
G01 X32.975248 Y52.665410 Z-0.125000
G01 X30.222690 Y53.062843 Z-0.125000
G01 X26.374518 Y53.921129 Z-0.125000
G01 X24.054088 Y54.654689 Z-0.125000
G01 X21.030502 Y55.968294 Z-0.125000
G01 X19.364853 Y56.966042 Z-0.125000
G01 X17.455969 Y58.606447 Z-0.125000
G01 X16.605020 Y59.770952 Z-0.125000
G01 X16.107607 Y60.970899 Z-0.125000
G01 X15.971316 Y62.187570 Z-0.125000
G01 X16.198323 Y63.401817 Z-0.125000
G01 X16.785021 Y64.594675 Z-0.125000
G01 X17.722458 Y65.747367 Z-0.125000
G01 X18.996146 Y66.841924 Z-0.125000
G01 X20.586250 Y67.860998 Z-0.125000
G01 X24.613180 Y69.610461 Z-0.125000
G01 X29.555225 Y70.885828 Z-0.125000
G01 X35.107968 Y71.606517 Z-0.125000
G01 X39.468289 Y71.753689 Z-0.125000
G01 X45.255811 Y71.414080 Z-0.125000
G01 X50.686813 Y70.481431 Z-0.125000
G01 X55.426721 Y69.011266 Z-0.125000
G01 X59.183556 Y67.091998 Z-0.125000
G01 X60.618157 Y65.999369 Z-0.125000
G01 X61.725833 Y64.839775 Z-0.125000
G01 X62.489424 Y63.630938 Z-0.125000
G01 X62.897115 Y62.391323 Z-0.125000
G01 X62.828970 Y60.515393 Z-0.125000
G01 X62.331557 Y59.281685 Z-0.125000
G01 X61.480608 Y58.083479 Z-0.125000
G01 X60.289367 Y56.939057 Z-0.125000
G01 X58.776237 Y55.865764 Z-0.125000
G01 X56.964597 Y54.880017 Z-0.125000
G01 X53.749881 Y53.597811 Z-0.125000
G01 X51.323563 Y52.892915 Z-0.125000
G01 X47.352903 Y52.086857 Z-0.125000
G01 X40.199112 Y51.473858 Z-0.125000
G01 X32.975248 Y51.813467 Z-0.125000
G01 X30.222690 Y52.210900 Z-0.125000
G01 X26.374518 Y53.069185 Z-0.125000
G01 X24.054088 Y53.802745 Z-0.125000
G01 X21.030502 Y55.116350 Z-0.125000
G01 X19.364853 Y56.114098 Z-0.125000
G01 X17.455969 Y57.754503 Z-0.125000
G01 X16.605020 Y58.919009 Z-0.125000
G01 X16.107607 Y60.118955 Z-0.125000
G01 X15.971316 Y61.335626 Z-0.125000
G01 X16.198323 Y62.549873 Z-0.125000
G01 X16.785021 Y63.742731 Z-0.125000
G01 X17.722458 Y64.895485 Z-0.125000
G01 X18.996146 Y65.989980 Z-0.125000
G01 X20.586250 Y67.009117 Z-0.125000
G01 X24.613180 Y68.758580 Z-0.125000
G01 X29.555225 Y70.033946 Z-0.125000
G01 X35.107968 Y70.754573 Z-0.125000
G01 X39.468289 Y70.901745 Z-0.125000
G01 X45.255811 Y70.562136 Z-0.125000
G01 X50.686813 Y69.629487 Z-0.125000
G01 X55.426721 Y68.159322 Z-0.125000
G01 X59.183556 Y66.240054 Z-0.125000
G01 X60.618157 Y65.147425 Z-0.125000
G01 X61.725833 Y63.987894 Z-0.125000
G01 X62.489424 Y62.779056 Z-0.125000
G01 X62.897115 Y61.539379 Z-0.125000
G01 X62.828970 Y59.663511 Z-0.125000
G01 X62.331557 Y58.429803 Z-0.125000
G01 X61.480608 Y57.231598 Z-0.125000
G01 X60.289367 Y56.087113 Z-0.125000
G01 X58.776237 Y55.013821 Z-0.125000
G01 X56.964597 Y54.028073 Z-0.125000
G01 X53.749881 Y52.745929 Z-0.125000
G01 X51.323563 Y52.041033 Z-0.125000
G01 X47.352903 Y51.234976 Z-0.125000
G01 X40.199112 Y50.621914 Z-0.125000
G01 X32.975248 Y50.961523 Z-0.125000
G01 X30.222690 Y51.359018 Z-0.125000
G01 X26.374518 Y52.217242 Z-0.125000
G01 X24.054088 Y52.950863 Z-0.125000
G01 X21.030502 Y54.264468 Z-0.125000
G01 X19.364853 Y55.262154 Z-0.125000
G01 X17.455969 Y56.902621 Z-0.125000
G01 X16.605020 Y58.067065 Z-0.125000
G01 X16.107607 Y59.267011 Z-0.125000
G01 X15.971316 Y60.483683 Z-0.125000
G01 X16.198323 Y61.697992 Z-0.125000
G01 X16.785021 Y62.890788 Z-0.125000
G01 X17.722458 Y64.043542 Z-0.125000
G01 X18.996146 Y65.138036 Z-0.125000
G01 X20.586250 Y66.157173 Z-0.125000
G01 X24.613180 Y67.906636 Z-0.125000
G01 X29.555225 Y69.182002 Z-0.125000
G01 X35.107968 Y69.902691 Z-0.125000
G01 X39.468289 Y70.049863 Z-0.125000
G01 X45.255811 Y69.710193 Z-0.125000
G01 X50.686813 Y68.777606 Z-0.125000
G01 X55.426721 Y67.307440 Z-0.125000
G01 X59.183556 Y65.388173 Z-0.125000
G01 X60.618157 Y64.295543 Z-0.125000
G01 X61.725833 Y63.135950 Z-0.125000
G01 X62.489424 Y61.927112 Z-0.125000
G01 X62.897115 Y60.687435 Z-0.125000
G01 X62.828970 Y58.811567 Z-0.125000
G01 X62.331557 Y57.577859 Z-0.125000
G01 X61.480608 Y56.379654 Z-0.125000
G01 X60.289367 Y55.235169 Z-0.125000
G01 X57.906138 Y53.657127 Z-0.125000
G01 X55.955471 Y52.720872 Z-0.125000
G01 X52.562059 Y51.525589 Z-0.125000
G01 X50.039181 Y50.885730 Z-0.125000
G01 X45.961329 Y50.185559 Z-0.125000
G01 X38.737465 Y49.761577 Z-0.125000
G01 X31.583674 Y50.290264 Z-0.125000
G01 X28.897396 Y50.759200 Z-0.125000
G01 X25.186697 Y51.716844 Z-0.125000
G01 X22.981106 Y52.510031 Z-0.125000
G01 X20.160340 Y53.900424 Z-0.125000
G01 X18.647211 Y54.939955 Z-0.125000
G01 X16.987033 Y56.627303 Z-0.125000
G01 X16.311547 Y57.811830 Z-0.125000
G01 X15.994073 Y59.022533 Z-0.125000
G01 X16.039524 Y60.240386 Z-0.125000
G01 X16.447154 Y61.446301 Z-0.125000
G01 X17.210745 Y62.621439 Z-0.125000
G01 X18.318421 Y63.747270 Z-0.125000
G01 X21.492536 Y65.781502 Z-0.125000
G01 X25.774017 Y67.421659 Z-0.125000
G01 X30.899047 Y68.564651 Z-0.125000
G01 X36.552020 Y69.138044 Z-0.125000
G01 X40.929252 Y69.170251 Z-0.125000
G01 X46.660567 Y68.679118 Z-0.125000
G01 X51.948811 Y67.605639 Z-0.125000
G01 X56.468242 Y66.013669 Z-0.125000
G01 X59.183556 Y64.536229 Z-0.125000
G01 X60.618157 Y63.443600 Z-0.125000
G01 X61.725833 Y62.284006 Z-0.125000
G01 X62.489424 Y61.075169 Z-0.125000
G01 X62.897115 Y59.835554 Z-0.125000
G01 X62.828970 Y57.959624 Z-0.125000
G01 X62.331557 Y56.725915 Z-0.125000
G01 X61.480608 Y55.527710 Z-0.125000
G01 X60.289367 Y54.383288 Z-0.125000
G01 X57.906138 Y52.805183 Z-0.125000
G01 X55.955471 Y51.868928 Z-0.125000
G01 X52.562059 Y50.673707 Z-0.125000
G01 X50.039181 Y50.033848 Z-0.125000
G01 X45.961329 Y49.333615 Z-0.125000
G01 X38.737465 Y48.909633 Z-0.125000
G01 X31.583674 Y49.438321 Z-0.125000
G01 X28.897396 Y49.907319 Z-0.125000
G01 X25.186697 Y50.864963 Z-0.125000
G01 X22.981106 Y51.658087 Z-0.125000
G01 X20.160340 Y53.048480 Z-0.125000
G01 X18.647211 Y54.088011 Z-0.125000
G01 X16.987033 Y55.775422 Z-0.125000
G01 X16.311547 Y56.959948 Z-0.125000
G01 X15.994073 Y58.170651 Z-0.125000
G01 X16.039524 Y59.388504 Z-0.125000
G01 X16.447154 Y60.594419 Z-0.125000
G01 X17.210745 Y61.769495 Z-0.125000
G01 X18.318421 Y62.895326 Z-0.125000
G01 X21.492536 Y64.929558 Z-0.125000
G01 X25.774017 Y66.569777 Z-0.125000
G01 X30.899047 Y67.712769 Z-0.125000
G01 X36.552020 Y68.286100 Z-0.125000
G01 X40.929252 Y68.318370 Z-0.125000
G01 X46.660567 Y67.827237 Z-0.125000
G01 X51.948811 Y66.753695 Z-0.125000
G01 X56.468242 Y65.161788 Z-0.125000
G01 X59.183556 Y63.684285 Z-0.125000
G01 X60.618157 Y62.591656 Z-0.125000
G01 X61.725833 Y61.432125 Z-0.125000
G01 X62.489424 Y60.223287 Z-0.125000
G01 X62.897115 Y58.983610 Z-0.125000
G01 X62.828970 Y57.107742 Z-0.125000
G01 X62.331557 Y55.874034 Z-0.125000
G01 X61.480608 Y54.675766 Z-0.125000
G01 X60.289367 Y53.531344 Z-0.125000
G01 X57.906138 Y51.953302 Z-0.125000
G01 X55.955471 Y51.017047 Z-0.125000
G01 X52.562059 Y49.821764 Z-0.125000
G01 X50.039181 Y49.181904 Z-0.125000
G01 X45.961329 Y48.481734 Z-0.125000
G01 X38.737465 Y48.057689 Z-0.125000
G01 X31.583674 Y48.586439 Z-0.125000
G01 X28.897396 Y49.055375 Z-0.125000
G01 X25.186697 Y50.013019 Z-0.125000
G01 X22.981106 Y50.806144 Z-0.125000
G01 X20.160340 Y52.196599 Z-0.125000
G01 X18.647211 Y53.236129 Z-0.125000
G01 X16.987033 Y54.923478 Z-0.125000
G01 X16.311547 Y56.108004 Z-0.125000
G01 X15.994073 Y57.318707 Z-0.125000
G01 X16.039524 Y58.536560 Z-0.125000
G01 X16.447154 Y59.742475 Z-0.125000
G01 X17.210745 Y60.917551 Z-0.125000
G01 X18.318421 Y62.043383 Z-0.125000
G01 X20.586250 Y63.601404 Z-0.125000
G01 X24.613180 Y65.350867 Z-0.125000
G01 X29.555225 Y66.626233 Z-0.125000
G01 X35.107968 Y67.346922 Z-0.125000
G01 X39.468289 Y67.494094 Z-0.125000
G01 X45.255811 Y67.154424 Z-0.125000
G01 X50.686813 Y66.221837 Z-0.125000
G01 X55.426721 Y64.751671 Z-0.125000
G01 X58.350327 Y63.348407 Z-0.125000
G01 X59.940432 Y62.295509 Z-0.125000
G01 X61.214119 Y61.167252 Z-0.125000
G01 X62.151556 Y59.980798 Z-0.125000
G01 X62.738254 Y58.754178 Z-0.125000
G01 X62.942567 Y56.880113 Z-0.125000
G01 X62.625031 Y55.635649 Z-0.125000
G01 X61.949544 Y54.417361 Z-0.125000
G01 X60.926490 Y53.243839 Z-0.125000
G01 X58.776237 Y51.606108 Z-0.125000
G01 X56.964597 Y50.620422 Z-0.125000
G01 X53.749881 Y49.338216 Z-0.125000
G01 X51.323563 Y48.633320 Z-0.125000
G01 X47.352903 Y47.827263 Z-0.125000
G01 X40.199112 Y47.214201 Z-0.125000
G01 X32.975248 Y47.553872 Z-0.125000
G01 X30.222690 Y47.951305 Z-0.125000
G01 X26.374518 Y48.809591 Z-0.125000
G01 X24.054088 Y49.543150 Z-0.125000
G01 X21.030502 Y50.856755 Z-0.125000
G01 X18.647211 Y52.384186 Z-0.125000
G01 X16.987033 Y54.071534 Z-0.125000
G01 X16.311547 Y55.256123 Z-0.125000
G01 X15.994073 Y56.466763 Z-0.125000
G01 X16.039524 Y57.684616 Z-0.125000
G01 X16.447154 Y58.890532 Z-0.125000
G01 X17.210745 Y60.065669 Z-0.125000
G01 X18.318421 Y61.191501 Z-0.125000
G01 X20.586250 Y62.749460 Z-0.125000
G01 X24.613180 Y64.498923 Z-0.125000
G01 X29.555225 Y65.774290 Z-0.125000
G01 X35.107968 Y66.494979 Z-0.125000
G01 X39.468289 Y66.642151 Z-0.125000
G01 X45.255811 Y66.302542 Z-0.125000
G01 X50.686813 Y65.369893 Z-0.125000
G01 X55.426721 Y63.899727 Z-0.125000
G01 X58.350327 Y62.496464 Z-0.125000
G01 X59.940432 Y61.443565 Z-0.125000
G01 X61.214119 Y60.315308 Z-0.125000
G01 X62.151556 Y59.128855 Z-0.125000
G01 X62.738254 Y57.902297 Z-0.125000
G01 X62.942567 Y56.028170 Z-0.125000
G01 X62.625031 Y54.783767 Z-0.125000
G01 X61.949544 Y53.565479 Z-0.125000
G01 X60.926490 Y52.391896 Z-0.125000
G01 X58.776237 Y50.754226 Z-0.125000
G01 X56.964597 Y49.768478 Z-0.125000
G01 X53.749881 Y48.486335 Z-0.125000
G01 X51.323563 Y47.781376 Z-0.125000
G01 X47.352903 Y46.975381 Z-0.125000
G01 X40.199112 Y46.362320 Z-0.125000
G01 X32.975248 Y46.701928 Z-0.125000
G01 X30.222690 Y47.099361 Z-0.125000
G01 X26.374518 Y47.957647 Z-0.125000
G01 X24.054088 Y48.691207 Z-0.125000
G01 X21.030502 Y50.004812 Z-0.125000
G01 X18.647211 Y51.532242 Z-0.125000
G01 X16.987033 Y53.219653 Z-0.125000
G01 X16.311547 Y54.404179 Z-0.125000
G01 X15.994073 Y55.614882 Z-0.125000
G01 X16.039524 Y56.832735 Z-0.125000
G01 X16.447154 Y58.038650 Z-0.125000
G01 X17.210745 Y59.213726 Z-0.125000
G01 X18.318421 Y60.339557 Z-0.125000
G01 X20.586250 Y61.897579 Z-0.125000
G01 X24.613180 Y63.647042 Z-0.125000
G01 X29.555225 Y64.922408 Z-0.125000
G01 X35.107968 Y65.643035 Z-0.125000
G01 X39.468289 Y65.790207 Z-0.125000
G01 X45.255811 Y65.450598 Z-0.125000
G01 X50.686813 Y64.518011 Z-0.125000
G01 X55.426721 Y63.047846 Z-0.125000
G01 X58.350327 Y61.644520 Z-0.125000
G01 X59.940432 Y60.591621 Z-0.125000
G01 X61.214119 Y59.463427 Z-0.125000
G01 X62.151556 Y58.276911 Z-0.125000
G01 X62.738254 Y57.050353 Z-0.125000
G01 X62.942567 Y55.176288 Z-0.125000
G01 X62.625031 Y53.931823 Z-0.125000
G01 X61.949544 Y52.713535 Z-0.125000
G01 X60.926490 Y51.539952 Z-0.125000
G01 X58.776237 Y49.902282 Z-0.125000
G01 X56.964597 Y48.916535 Z-0.125000
G01 X53.749881 Y47.634391 Z-0.125000
G01 X51.323563 Y46.929495 Z-0.125000
G01 X47.352903 Y46.123437 Z-0.125000
G01 X40.199112 Y45.510376 Z-0.125000
G01 X32.975248 Y45.850047 Z-0.125000
G01 X30.222690 Y46.247480 Z-0.125000
G01 X26.374518 Y47.105703 Z-0.125000
G01 X24.054088 Y47.839325 Z-0.125000
G01 X21.030502 Y49.152930 Z-0.125000
G01 X18.647211 Y50.680360 Z-0.125000
G01 X16.987033 Y52.367709 Z-0.125000
G01 X16.311547 Y53.552235 Z-0.125000
G01 X15.994073 Y54.762938 Z-0.125000
G01 X16.039524 Y55.980791 Z-0.125000
G01 X16.447154 Y57.186706 Z-0.125000
G01 X17.210745 Y58.361782 Z-0.125000
G01 X18.318421 Y59.487614 Z-0.125000
G01 X20.586250 Y61.045635 Z-0.125000
G01 X24.613180 Y62.795098 Z-0.125000
G01 X29.555225 Y64.070464 Z-0.125000
G01 X35.107968 Y64.791153 Z-0.125000
G01 X39.468289 Y64.938325 Z-0.125000
G01 X45.255811 Y64.598654 Z-0.125000
G01 X50.686813 Y63.666068 Z-0.125000
G01 X55.426721 Y62.195902 Z-0.125000
G01 X58.350327 Y60.792638 Z-0.125000
G01 X59.940432 Y59.739740 Z-0.125000
G01 X61.214119 Y58.611483 Z-0.125000
G01 X62.151556 Y57.425029 Z-0.125000
G01 X62.738254 Y56.198409 Z-0.125000
G01 X62.942567 Y54.324344 Z-0.125000
G01 X62.625031 Y53.079880 Z-0.125000
G01 X61.949544 Y51.861591 Z-0.125000
G01 X60.926490 Y50.688070 Z-0.125000
G01 X58.776237 Y49.050339 Z-0.125000
G01 X56.964597 Y48.064653 Z-0.125000
G01 X53.749881 Y46.782447 Z-0.125000
G01 X51.323563 Y46.077551 Z-0.125000
G01 X47.352903 Y45.271494 Z-0.125000
G01 X40.199112 Y44.658432 Z-0.125000
G01 X32.975248 Y44.998103 Z-0.125000
G01 X30.222690 Y45.395536 Z-0.125000
G01 X26.374518 Y46.253759 Z-0.125000
G01 X24.054088 Y46.987381 Z-0.125000
G01 X21.030502 Y48.300986 Z-0.125000
G01 X18.647211 Y49.828417 Z-0.125000
G01 X16.987033 Y51.515765 Z-0.125000
G01 X16.311547 Y52.700354 Z-0.125000
G01 X15.994073 Y53.910994 Z-0.125000
G01 X16.039524 Y55.128910 Z-0.125000
G01 X16.447154 Y56.334825 Z-0.125000
G01 X17.210745 Y57.509900 Z-0.125000
G01 X18.318421 Y58.635732 Z-0.125000
G01 X20.586250 Y60.193691 Z-0.125000
G01 X24.613180 Y61.943154 Z-0.125000
G01 X29.555225 Y63.218520 Z-0.125000
G01 X35.107968 Y63.939209 Z-0.125000
G01 X39.468289 Y64.086381 Z-0.125000
G01 X45.255811 Y63.746711 Z-0.125000
G01 X50.686813 Y62.814124 Z-0.125000
G01 X55.426721 Y61.343958 Z-0.125000
G01 X58.350327 Y59.940694 Z-0.125000
G01 X59.940432 Y58.887796 Z-0.125000
G01 X61.214119 Y57.759539 Z-0.125000
G01 X62.151556 Y56.573085 Z-0.125000
G01 X62.738254 Y55.346528 Z-0.125000
G01 X62.942567 Y53.472401 Z-0.125000
G01 X62.625031 Y52.227998 Z-0.125000
G01 X61.949544 Y51.009710 Z-0.125000
G01 X60.926490 Y49.836126 Z-0.125000
G01 X58.776237 Y48.198457 Z-0.125000
G01 X56.964597 Y47.212709 Z-0.125000
G01 X53.749881 Y45.930565 Z-0.125000
G01 X51.323563 Y45.225607 Z-0.125000
G01 X47.352903 Y44.419612 Z-0.125000
G01 X40.199112 Y43.806551 Z-0.125000
G01 X32.975248 Y44.146159 Z-0.125000
G01 X30.222690 Y44.543592 Z-0.125000
G01 X26.374518 Y45.401878 Z-0.125000
G01 X24.054088 Y46.135500 Z-0.125000
G01 X21.030502 Y47.449042 Z-0.125000
G01 X18.647211 Y48.976473 Z-0.125000
G01 X16.987033 Y50.663884 Z-0.125000
G01 X16.311547 Y51.848410 Z-0.125000
G01 X15.994073 Y53.059113 Z-0.125000
G01 X16.039524 Y54.276966 Z-0.125000
G01 X16.447154 Y55.482881 Z-0.125000
G01 X17.210745 Y56.657956 Z-0.125000
G01 X18.318421 Y57.783788 Z-0.125000
G01 X20.586250 Y59.341809 Z-0.125000
G01 X24.613180 Y61.091210 Z-0.125000
G01 X29.555225 Y62.366639 Z-0.125000
G01 X35.107968 Y63.087266 Z-0.125000
G01 X39.468289 Y63.234438 Z-0.125000
G01 X45.255811 Y62.894829 Z-0.125000
G01 X50.686813 Y61.962242 Z-0.125000
G01 X55.426721 Y60.492077 Z-0.125000
G01 X58.350327 Y59.088751 Z-0.125000
G01 X59.940432 Y58.035852 Z-0.125000
G01 X61.214119 Y56.907658 Z-0.125000
G01 X62.151556 Y55.721142 Z-0.125000
G01 X62.738254 Y54.494584 Z-0.125000
G01 X62.942567 Y52.620519 Z-0.125000
G01 X62.625031 Y51.376054 Z-0.125000
G01 X61.949544 Y50.157766 Z-0.125000
G01 X60.926490 Y48.984183 Z-0.125000
G01 X58.776237 Y47.346513 Z-0.125000
G01 X56.964597 Y46.360765 Z-0.125000
G01 X53.749881 Y45.078622 Z-0.125000
G01 X51.323563 Y44.373726 Z-0.125000
G01 X47.352903 Y43.567668 Z-0.125000
G01 X40.199112 Y42.954607 Z-0.125000
G01 X32.975248 Y43.294278 Z-0.125000
G01 X30.222690 Y43.691710 Z-0.125000
G01 X26.374518 Y44.549934 Z-0.125000
G01 X24.054088 Y45.283556 Z-0.125000
G01 X21.030502 Y46.597099 Z-0.125000
G01 X18.647211 Y48.124591 Z-0.125000
G01 X16.987033 Y49.811940 Z-0.125000
G01 X16.311547 Y50.996466 Z-0.125000
G01 X15.994073 Y52.207169 Z-0.125000
G01 X16.039524 Y53.425022 Z-0.125000
G01 X16.447154 Y54.630937 Z-0.125000
G01 X17.210745 Y55.806013 Z-0.125000
G01 X18.318421 Y56.931844 Z-0.125000
G01 X20.586250 Y58.489866 Z-0.125000
G01 X24.613180 Y60.239329 Z-0.125000
G01 X29.555225 Y61.514695 Z-0.125000
G01 X35.107968 Y62.235384 Z-0.125000
G01 X39.468289 Y62.382556 Z-0.125000
G01 X45.255811 Y62.042885 Z-0.125000
G01 X50.686813 Y61.110298 Z-0.125000
G01 X55.426721 Y59.640133 Z-0.125000
G01 X58.350327 Y58.236869 Z-0.125000
G01 X59.940432 Y57.183971 Z-0.125000
G01 X61.214119 Y56.055714 Z-0.125000
G01 X62.151556 Y54.869260 Z-0.125000
G01 X62.738254 Y53.642640 Z-0.125000
G01 X62.942567 Y51.768575 Z-0.125000
G01 X62.625031 Y50.524111 Z-0.125000
G01 X61.949544 Y49.305822 Z-0.125000
G01 X60.926490 Y48.132301 Z-0.125000
G01 X58.776237 Y46.494632 Z-0.125000
G01 X56.964597 Y45.508884 Z-0.125000
G01 X53.749881 Y44.226678 Z-0.125000
G01 X51.323563 Y43.521782 Z-0.125000
G01 X47.352903 Y42.715724 Z-0.125000
G01 X40.199112 Y42.102663 Z-0.125000
G01 X32.975248 Y42.442334 Z-0.125000
G01 X30.222690 Y42.839767 Z-0.125000
G01 X26.374518 Y43.697990 Z-0.125000
G01 X24.054088 Y44.431612 Z-0.125000
G01 X21.030502 Y45.745217 Z-0.125000
G01 X18.647211 Y47.272647 Z-0.125000
G01 X16.987033 Y48.959996 Z-0.125000
G01 X16.311547 Y50.144585 Z-0.125000
G01 X15.994073 Y51.355225 Z-0.125000
G01 X16.039524 Y52.573140 Z-0.125000
G01 X16.447154 Y53.779056 Z-0.125000
G01 X17.210745 Y54.954131 Z-0.125000
G01 X18.318421 Y56.079963 Z-0.125000
G01 X20.586250 Y57.637922 Z-0.125000
G01 X24.613180 Y59.387385 Z-0.125000
G01 X29.555225 Y60.662813 Z-0.125000
G01 X35.107968 Y61.383440 Z-0.125000
G01 X39.468289 Y61.530612 Z-0.125000
G01 X45.255811 Y61.190941 Z-0.125000
G01 X50.686813 Y60.258355 Z-0.125000
G01 X55.426721 Y58.788189 Z-0.125000
G01 X58.350327 Y57.384925 Z-0.125000
G01 X59.940432 Y56.332027 Z-0.125000
G01 X61.214119 Y55.203770 Z-0.125000
G01 X62.151556 Y54.017316 Z-0.125000
G01 X62.738254 Y52.790758 Z-0.125000
G01 X62.942567 Y50.916631 Z-0.125000
G01 X62.625031 Y49.672229 Z-0.125000
G01 X61.949544 Y48.453941 Z-0.125000
G01 X60.926490 Y47.280357 Z-0.125000
G01 X58.776237 Y45.642688 Z-0.125000
G01 X56.964597 Y44.656940 Z-0.125000
G01 X53.749881 Y43.374796 Z-0.125000
G01 X51.323563 Y42.669838 Z-0.125000
G01 X47.352903 Y41.863843 Z-0.125000
G01 X43.108356 Y41.382720 Z-0.125000
G01 X38.737465 Y41.242325 Z-0.125000
G01 X31.583674 Y41.771013 Z-0.125000
G01 X28.897396 Y42.240011 Z-0.125000
G01 X25.186697 Y43.197655 Z-0.125000
G01 X22.981106 Y43.990780 Z-0.125000
G01 X20.160340 Y45.381235 Z-0.125000
G01 X18.010087 Y46.968231 Z-0.125000
G01 X16.605020 Y48.695932 Z-0.125000
G01 X16.107607 Y49.895878 Z-0.125000
G01 X15.971316 Y51.112550 Z-0.125000
G01 X16.198323 Y52.326797 Z-0.125000
G01 X16.785021 Y53.519655 Z-0.125000
G01 X17.722458 Y54.672409 Z-0.125000
G01 X18.996146 Y55.766904 Z-0.125000
G01 X21.492536 Y57.262251 Z-0.125000
G01 X25.774017 Y58.902470 Z-0.125000
G01 X30.899047 Y60.045462 Z-0.125000
G01 X36.552020 Y60.618792 Z-0.125000
G01 X40.929252 Y60.651062 Z-0.125000
G01 X46.660567 Y60.159929 Z-0.125000
G01 X51.948811 Y59.086388 Z-0.125000
G01 X56.468242 Y57.494480 Z-0.125000
G01 X59.183556 Y56.017040 Z-0.125000
G01 X60.618157 Y54.924349 Z-0.125000
G01 X61.725833 Y53.764817 Z-0.125000
G01 X62.738254 Y51.938815 Z-0.125000
G01 X62.942567 Y50.064750 Z-0.125000
G01 X62.625031 Y48.820285 Z-0.125000
G01 X61.949544 Y47.601997 Z-0.125000
G01 X60.926490 Y46.428414 Z-0.125000
G01 X58.776237 Y44.790744 Z-0.125000
G01 X56.964597 Y43.804996 Z-0.125000
G01 X53.749881 Y42.522853 Z-0.125000
G01 X51.323563 Y41.817956 Z-0.125000
G01 X47.352903 Y41.011899 Z-0.125000
G01 X43.108356 Y40.530776 Z-0.125000
G01 X38.737465 Y40.390382 Z-0.125000
G01 X31.583674 Y40.919132 Z-0.125000
G01 X28.897396 Y41.388067 Z-0.125000
G01 X25.186697 Y42.345711 Z-0.125000
G01 X22.981106 Y43.138836 Z-0.125000
G01 X20.160340 Y44.529291 Z-0.125000
G01 X18.010087 Y46.116349 Z-0.125000
G01 X16.605020 Y47.843988 Z-0.125000
G01 X16.107607 Y49.043997 Z-0.125000
G01 X15.971316 Y50.260668 Z-0.125000
G01 X16.198323 Y51.474915 Z-0.125000
G01 X16.785021 Y52.667773 Z-0.125000
G01 X17.722458 Y53.820465 Z-0.125000
G01 X18.996146 Y54.915022 Z-0.125000
G01 X21.492536 Y56.410369 Z-0.125000
G01 X25.774017 Y58.050526 Z-0.125000
G01 X30.899047 Y59.193518 Z-0.125000
G01 X36.552020 Y59.766849 Z-0.125000
G01 X40.929252 Y59.799118 Z-0.125000
G01 X46.660567 Y59.307985 Z-0.125000
G01 X51.948811 Y58.234444 Z-0.125000
G01 X56.468242 Y56.642537 Z-0.125000
G01 X59.183556 Y55.165096 Z-0.125000
G01 X60.618157 Y54.072467 Z-0.125000
G01 X61.725833 Y52.912873 Z-0.125000
G01 X62.738254 Y51.086871 Z-0.125000
G01 X62.942567 Y49.212806 Z-0.125000
G01 X62.625031 Y47.968341 Z-0.125000
G01 X61.949544 Y46.750115 Z-0.125000
G01 X60.926490 Y45.576532 Z-0.125000
G01 X58.776237 Y43.938862 Z-0.125000
G01 X56.964597 Y42.953115 Z-0.125000
G01 X53.749881 Y41.670909 Z-0.125000
G01 X51.323563 Y40.966013 Z-0.125000
G01 X47.352903 Y40.159955 Z-0.125000
G01 X43.108356 Y39.678833 Z-0.125000
G01 X38.737465 Y39.538500 Z-0.125000
G01 X31.583674 Y40.067188 Z-0.125000
G01 X28.897396 Y40.536186 Z-0.125000
G01 X25.186697 Y41.493768 Z-0.125000
G01 X22.981106 Y42.286892 Z-0.125000
G01 X20.160340 Y43.677348 Z-0.125000
G01 X18.010087 Y45.264405 Z-0.125000
G01 X16.605020 Y46.992107 Z-0.125000
G01 X16.107607 Y48.192053 Z-0.125000
G01 X15.971316 Y49.408724 Z-0.125000
G01 X16.198323 Y50.622971 Z-0.125000
G01 X16.785021 Y51.815829 Z-0.125000
G01 X17.722458 Y52.968521 Z-0.125000
G01 X18.996146 Y54.063078 Z-0.125000
G01 X21.492536 Y55.558425 Z-0.125000
G01 X25.774017 Y57.198582 Z-0.125000
G01 X29.555225 Y58.107044 Z-0.125000
G01 X35.107968 Y58.827671 Z-0.125000
G01 X39.468289 Y58.974843 Z-0.125000
G01 X45.255811 Y58.635172 Z-0.125000
G01 X50.686813 Y57.702586 Z-0.125000
G01 X55.426721 Y56.232420 Z-0.125000
G01 X58.350327 Y54.829156 Z-0.125000
G01 X59.940432 Y53.776258 Z-0.125000
G01 X61.214119 Y52.648001 Z-0.125000
G01 X62.489424 Y50.852092 Z-0.125000
G01 X62.897115 Y49.612477 Z-0.125000
G01 X62.942567 Y48.360862 Z-0.125000
G01 X62.331557 Y46.502839 Z-0.125000
G01 X61.480608 Y45.304634 Z-0.125000
G01 X59.571724 Y43.613617 Z-0.125000
G01 X57.906138 Y42.582107 Z-0.125000
G01 X54.882490 Y41.217952 Z-0.125000
G01 X52.562059 Y40.450569 Z-0.125000
G01 X48.713887 Y39.541733 Z-0.125000
G01 X44.544697 Y38.949999 Z-0.125000
G01 X40.199112 Y38.695012 Z-0.125000
G01 X32.975248 Y39.034621 Z-0.125000
G01 X28.897396 Y39.684242 Z-0.125000
G01 X25.186697 Y40.641886 Z-0.125000
G01 X22.981106 Y41.435011 Z-0.125000
G01 X20.160340 Y42.825466 Z-0.125000
G01 X18.010087 Y44.412462 Z-0.125000
G01 X16.605020 Y46.140163 Z-0.125000
G01 X16.107607 Y47.340109 Z-0.125000
G01 X15.971316 Y48.556781 Z-0.125000
G01 X16.198323 Y49.771028 Z-0.125000
G01 X16.785021 Y50.963886 Z-0.125000
G01 X17.722458 Y52.116640 Z-0.125000
G01 X18.996146 Y53.211134 Z-0.125000
G01 X21.492536 Y54.706482 Z-0.125000
G01 X25.774017 Y56.346700 Z-0.125000
G01 X29.555225 Y57.255101 Z-0.125000
G01 X35.107968 Y57.975790 Z-0.125000
G01 X39.468289 Y58.122899 Z-0.125000
G01 X45.255811 Y57.783291 Z-0.125000
G01 X50.686813 Y56.850704 Z-0.125000
G01 X55.426721 Y55.380538 Z-0.125000
G01 X58.350327 Y53.977212 Z-0.125000
G01 X59.940432 Y52.924376 Z-0.125000
G01 X61.214119 Y51.796119 Z-0.125000
G01 X62.489424 Y50.000210 Z-0.125000
G01 X62.897115 Y48.760533 Z-0.125000
G01 X62.942567 Y47.508981 Z-0.125000
G01 X62.331557 Y45.650957 Z-0.125000
G01 X61.480608 Y44.452690 Z-0.125000
G01 X59.571724 Y42.761673 Z-0.125000
G01 X57.906138 Y41.730225 Z-0.125000
G01 X54.882490 Y40.366008 Z-0.125000
G01 X52.562059 Y39.598687 Z-0.125000
G01 X48.713887 Y38.689790 Z-0.125000
G01 X44.544697 Y38.098055 Z-0.125000
G01 X40.199112 Y37.843069 Z-0.125000
G01 X32.975248 Y38.182739 Z-0.125000
G01 X28.897396 Y38.832298 Z-0.125000
G01 X25.186697 Y39.789942 Z-0.125000
G01 X22.981106 Y40.583067 Z-0.125000
G01 X20.160340 Y41.973522 Z-0.125000
G01 X18.010087 Y43.560580 Z-0.125000
G01 X16.605020 Y45.288219 Z-0.125000
G01 X16.107607 Y46.488227 Z-0.125000
G01 X15.971316 Y47.704899 Z-0.125000
G01 X16.198323 Y48.919146 Z-0.125000
G01 X16.785021 Y50.112004 Z-0.125000
G01 X17.722458 Y51.264696 Z-0.125000
G01 X18.996146 Y52.359191 Z-0.125000
G01 X21.492536 Y53.854600 Z-0.125000
G01 X25.774017 Y55.494757 Z-0.125000
G01 X29.555225 Y56.403157 Z-0.125000
G01 X35.107968 Y57.123846 Z-0.125000
G01 X39.468289 Y57.271018 Z-0.125000
G01 X45.255811 Y56.931347 Z-0.125000
G01 X50.686813 Y55.998760 Z-0.125000
G01 X55.426721 Y54.528594 Z-0.125000
G01 X58.350327 Y53.125331 Z-0.125000
G01 X59.940432 Y52.072432 Z-0.125000
G01 X61.214119 Y50.944176 Z-0.125000
G01 X62.489424 Y49.148267 Z-0.125000
G01 X62.897115 Y47.908590 Z-0.125000
G01 X62.942567 Y46.657037 Z-0.125000
G01 X62.331557 Y44.799014 Z-0.125000
G01 X61.480608 Y43.600808 Z-0.125000
G01 X59.571724 Y41.909729 Z-0.125000
G01 X57.906138 Y40.878282 Z-0.125000
G01 X54.882490 Y39.514127 Z-0.125000
G01 X52.562059 Y38.746743 Z-0.125000
G01 X48.713887 Y37.837908 Z-0.125000
G01 X44.544697 Y37.246111 Z-0.125000
G01 X40.199112 Y36.991125 Z-0.125000
G01 X32.975248 Y37.330796 Z-0.125000
G01 X28.897396 Y37.980417 Z-0.125000
G01 X25.186697 Y38.938061 Z-0.125000
G01 X22.981106 Y39.731123 Z-0.125000
G01 X20.160340 Y41.121579 Z-0.125000
G01 X18.010087 Y42.708636 Z-0.125000
G01 X16.605020 Y44.436337 Z-0.125000
G01 X16.107607 Y45.636284 Z-0.125000
G01 X15.971316 Y46.852955 Z-0.125000
G01 X16.198323 Y48.067202 Z-0.125000
G01 X16.785021 Y49.260060 Z-0.125000
G01 X17.722458 Y50.412752 Z-0.125000
G01 X18.996146 Y51.507309 Z-0.125000
G01 X21.492536 Y53.002656 Z-0.125000
G01 X25.774017 Y54.642813 Z-0.125000
G01 X29.555225 Y55.551275 Z-0.125000
G01 X35.107968 Y56.271902 Z-0.125000
G01 X39.468289 Y56.419074 Z-0.125000
G01 X45.255811 Y56.079403 Z-0.125000
G01 X50.686813 Y55.146816 Z-0.125000
G01 X55.426721 Y53.676651 Z-0.125000
G01 X58.350327 Y52.273387 Z-0.125000
G01 X59.940432 Y51.220488 Z-0.125000
G01 X61.214119 Y50.092232 Z-0.125000
G01 X62.489424 Y48.296323 Z-0.125000
G01 X62.897115 Y47.056708 Z-0.125000
G01 X62.942567 Y45.805093 Z-0.125000
G01 X62.331557 Y43.947070 Z-0.125000
G01 X61.480608 Y42.748865 Z-0.125000
G01 X59.571724 Y41.057848 Z-0.125000
G01 X57.906138 Y40.026400 Z-0.125000
G01 X54.882490 Y38.662183 Z-0.125000
G01 X52.562059 Y37.894800 Z-0.125000
G01 X48.713887 Y36.985964 Z-0.125000
G01 X44.544697 Y36.394229 Z-0.125000
G01 X40.199112 Y36.139243 Z-0.125000
G01 X32.975248 Y36.478852 Z-0.125000
G01 X28.897396 Y37.128473 Z-0.125000
G01 X25.186697 Y38.086117 Z-0.125000
G01 X22.981106 Y38.879242 Z-0.125000
G01 X20.160340 Y40.269697 Z-0.125000
G01 X18.010087 Y41.856692 Z-0.125000
G01 X16.605020 Y43.584394 Z-0.125000
G01 X16.107607 Y44.784340 Z-0.125000
G01 X15.971316 Y46.001012 Z-0.125000
G01 X16.198323 Y47.215321 Z-0.125000
G01 X16.785021 Y48.408116 Z-0.125000
G01 X17.722458 Y49.560871 Z-0.125000
G01 X18.996146 Y50.655365 Z-0.125000
G01 X21.492536 Y52.150713 Z-0.125000
G01 X25.774017 Y53.790931 Z-0.125000
G01 X29.555225 Y54.699331 Z-0.125000
G01 X35.107968 Y55.420020 Z-0.125000
G01 X39.468289 Y55.567130 Z-0.125000
G01 X45.255811 Y55.227522 Z-0.125000
G01 X50.686813 Y54.294935 Z-0.125000
G01 X55.426721 Y52.824769 Z-0.125000
G01 X58.350327 Y51.421443 Z-0.125000
G01 X59.940432 Y50.368607 Z-0.125000
G01 X61.214119 Y49.240350 Z-0.125000
G01 X62.489424 Y47.444441 Z-0.125000
G01 X62.897115 Y46.204764 Z-0.125000
G01 X62.942567 Y44.953149 Z-0.125000
G01 X62.331557 Y43.095188 Z-0.125000
G01 X61.480608 Y41.896921 Z-0.125000
G01 X59.571724 Y40.205904 Z-0.125000
G01 X57.906138 Y39.174456 Z-0.125000
G01 X54.882490 Y37.810239 Z-0.125000
G01 X52.562059 Y37.042918 Z-0.125000
G01 X48.713887 Y36.134020 Z-0.125000
G01 X44.544697 Y35.542286 Z-0.125000
G01 X40.199112 Y35.287299 Z-0.125000
G01 X32.975248 Y35.626970 Z-0.125000
G01 X28.897396 Y36.276529 Z-0.125000
G01 X25.186697 Y37.234173 Z-0.125000
G01 X22.981106 Y38.027298 Z-0.125000
G01 X20.160340 Y39.417753 Z-0.125000
G01 X18.010087 Y41.004811 Z-0.125000
G01 X16.605020 Y42.732450 Z-0.125000
G01 X16.107607 Y43.932458 Z-0.125000
G01 X15.971316 Y45.149068 Z-0.125000
G01 X16.198323 Y46.363377 Z-0.125000
G01 X16.785021 Y47.556235 Z-0.125000
G01 X17.722458 Y48.708927 Z-0.125000
G01 X18.996146 Y49.803422 Z-0.125000
G01 X21.492536 Y51.298831 Z-0.125000
G01 X25.774017 Y52.938987 Z-0.125000
G01 X29.555225 Y53.847388 Z-0.125000
G01 X35.107968 Y54.568077 Z-0.125000
G01 X39.468289 Y54.715249 Z-0.125000
G01 X45.255811 Y54.375578 Z-0.125000
G01 X50.686813 Y53.442991 Z-0.125000
G01 X55.426721 Y51.972825 Z-0.125000
G01 X58.350327 Y50.569562 Z-0.125000
G01 X59.940432 Y49.516663 Z-0.125000
G01 X61.214119 Y48.388406 Z-0.125000
G01 X62.489424 Y46.592498 Z-0.125000
G01 X62.897115 Y45.352821 Z-0.125000
G01 X62.942567 Y44.101268 Z-0.125000
G01 X62.331557 Y42.243244 Z-0.125000
G01 X61.480608 Y41.045039 Z-0.125000
G01 X59.571724 Y39.354022 Z-0.125000
G01 X57.906138 Y38.322512 Z-0.125000
G01 X54.882490 Y36.958358 Z-0.125000
G01 X52.562059 Y36.190974 Z-0.125000
G01 X48.713887 Y35.282139 Z-0.125000
G01 X44.544697 Y34.690342 Z-0.125000
G01 X40.199112 Y34.435356 Z-0.125000
G01 X32.975248 Y34.775026 Z-0.125000
G01 X28.897396 Y35.424648 Z-0.125000
G01 X25.186697 Y36.382292 Z-0.125000
G01 X22.981106 Y37.175354 Z-0.125000
G01 X20.160340 Y38.565809 Z-0.125000
G01 X18.010087 Y40.152867 Z-0.125000
G01 X16.605020 Y41.880568 Z-0.125000
G01 X16.107607 Y43.080515 Z-0.125000
G01 X15.971316 Y44.297186 Z-0.125000
G01 X16.198323 Y45.511433 Z-0.125000
G01 X16.785021 Y46.704291 Z-0.125000
G01 X17.722458 Y47.857045 Z-0.125000
G01 X18.996146 Y48.951540 Z-0.125000
G01 X21.492536 Y50.446887 Z-0.125000
G01 X25.774017 Y52.087044 Z-0.125000
G01 X29.555225 Y52.995444 Z-0.125000
G01 X35.107968 Y53.716133 Z-0.125000
G01 X39.468289 Y53.863305 Z-0.125000
G01 X45.255811 Y53.523634 Z-0.125000
G01 X50.686813 Y52.591047 Z-0.125000
G01 X55.426721 Y51.120882 Z-0.125000
G01 X58.350327 Y49.717618 Z-0.125000
G01 X59.940432 Y48.664719 Z-0.125000
G01 X61.214119 Y47.536463 Z-0.125000
G01 X62.489424 Y45.740616 Z-0.125000
G01 X62.897115 Y44.500939 Z-0.125000
G01 X62.942567 Y43.249324 Z-0.125000
G01 X62.331557 Y41.391301 Z-0.125000
G01 X61.480608 Y40.193095 Z-0.125000
G01 X59.571724 Y38.502078 Z-0.125000
G01 X57.906138 Y37.470631 Z-0.125000
G01 X54.882490 Y36.106414 Z-0.125000
G01 X52.562059 Y35.339030 Z-0.125000
G01 X48.713887 Y34.430195 Z-0.125000
G01 X44.544697 Y33.838460 Z-0.125000
G01 X40.199112 Y33.583474 Z-0.125000
G01 X32.975248 Y33.923083 Z-0.125000
G01 X28.897396 Y34.572704 Z-0.125000
G01 X25.186697 Y35.530348 Z-0.125000
G01 X22.981106 Y36.323472 Z-0.125000
G01 X20.160340 Y37.713928 Z-0.125000
G01 X18.010087 Y39.300923 Z-0.125000
G01 X16.605020 Y41.028625 Z-0.125000
G01 X16.107607 Y42.228633 Z-0.125000
G01 X15.971316 Y43.445242 Z-0.125000
G01 X16.198323 Y44.659551 Z-0.125000
G01 X16.785021 Y45.852347 Z-0.125000
G01 X17.722458 Y47.005101 Z-0.125000
G01 X18.996146 Y48.099596 Z-0.125000
G01 X21.492536 Y49.594943 Z-0.125000
G01 X25.774017 Y51.235162 Z-0.125000
G01 X29.555225 Y52.143562 Z-0.125000
G01 X35.107968 Y52.864251 Z-0.125000
G01 X39.468289 Y53.011361 Z-0.125000
G01 X45.255811 Y52.671752 Z-0.125000
G01 X50.686813 Y51.739166 Z-0.125000
G01 X55.426721 Y50.269000 Z-0.125000
G01 X58.350327 Y48.865674 Z-0.125000
G01 X59.940432 Y47.812838 Z-0.125000
G01 X61.214119 Y46.684581 Z-0.125000
G01 X62.489424 Y44.888672 Z-0.125000
G01 X62.897115 Y43.648995 Z-0.125000
G01 X62.942567 Y42.397380 Z-0.125000
G01 X62.331557 Y40.539419 Z-0.125000
G01 X61.480608 Y39.341152 Z-0.125000
G01 X59.571724 Y37.650135 Z-0.125000
G01 X57.906138 Y36.618687 Z-0.125000
G01 X54.882490 Y35.254470 Z-0.125000
G01 X52.562059 Y34.487149 Z-0.125000
G01 X48.713887 Y33.578251 Z-0.125000
G01 X44.544697 Y32.986517 Z-0.125000
G01 X40.199112 Y32.731530 Z-0.125000
G01 X32.975248 Y33.071201 Z-0.125000
G01 X28.897396 Y33.720760 Z-0.125000
G01 X25.186697 Y34.678404 Z-0.125000
G01 X22.981106 Y35.471529 Z-0.125000
G01 X20.160340 Y36.861984 Z-0.125000
G01 X18.010087 Y38.449042 Z-0.125000
G01 X16.605020 Y40.176681 Z-0.125000
G01 X16.107607 Y41.376689 Z-0.125000
G01 X15.971316 Y42.593299 Z-0.125000
G01 X16.198323 Y43.807608 Z-0.125000
G01 X16.785021 Y45.000466 Z-0.125000
G01 X17.722458 Y46.153158 Z-0.125000
G01 X18.996146 Y47.247652 Z-0.125000
G01 X21.492536 Y48.743062 Z-0.125000
G01 X25.774017 Y50.383218 Z-0.125000
G01 X29.555225 Y51.291618 Z-0.125000
G01 X35.107968 Y52.012307 Z-0.125000
G01 X39.468289 Y52.159417 Z-0.125000
G01 X45.255811 Y51.819809 Z-0.125000
G01 X50.686813 Y50.887222 Z-0.125000
G01 X55.426721 Y49.417056 Z-0.125000
G01 X58.350327 Y48.013792 Z-0.125000
G01 X59.940432 Y46.960894 Z-0.125000
G01 X61.214119 Y45.832637 Z-0.125000
G01 X62.489424 Y44.036728 Z-0.125000
G01 X62.897115 Y42.797114 Z-0.125000
G01 X62.942567 Y41.545499 Z-0.125000
G01 X62.331557 Y39.687475 Z-0.125000
G01 X61.480608 Y38.489270 Z-0.125000
G01 X59.571724 Y36.798253 Z-0.125000
G01 X57.906138 Y35.766743 Z-0.125000
G01 X54.882490 Y34.402589 Z-0.125000
G01 X52.562059 Y33.635205 Z-0.125000
G01 X48.713887 Y32.726370 Z-0.125000
G01 X44.544697 Y32.134573 Z-0.125000
G01 X40.199112 Y31.879649 Z-0.125000
G01 X32.975248 Y32.219257 Z-0.125000
G01 X28.897396 Y32.868878 Z-0.125000
G01 X25.186697 Y33.826522 Z-0.125000
G01 X22.981106 Y34.619585 Z-0.125000
G01 X20.160340 Y36.010040 Z-0.125000
G01 X18.010087 Y37.597098 Z-0.125000
G01 X16.605020 Y39.324799 Z-0.125000
G01 X16.107607 Y40.524745 Z-0.125000
G01 X15.971316 Y41.741417 Z-0.125000
G01 X16.198323 Y42.955664 Z-0.125000
G01 X16.785021 Y44.148522 Z-0.125000
G01 X17.722458 Y45.301276 Z-0.125000
G01 X18.996146 Y46.395771 Z-0.125000
G01 X21.492536 Y47.891118 Z-0.125000
G01 X25.774017 Y49.531337 Z-0.125000
G01 X29.555225 Y50.439675 Z-0.125000
G01 X35.107968 Y51.160364 Z-0.125000
G01 X39.468289 Y51.307536 Z-0.125000
G01 X45.255811 Y50.967865 Z-0.125000
G01 X50.686813 Y50.035278 Z-0.125000
G01 X55.426721 Y48.565175 Z-0.125000
G01 X58.350327 Y47.161849 Z-0.125000
G01 X59.940432 Y46.108950 Z-0.125000
G01 X61.214119 Y44.980694 Z-0.125000
G01 X62.489424 Y43.184847 Z-0.125000
G01 X62.897115 Y41.945170 Z-0.125000
G01 X62.942567 Y40.693555 Z-0.125000
G01 X62.331557 Y38.835531 Z-0.125000
G01 X61.480608 Y37.637326 Z-0.125000
G01 X59.571724 Y35.946309 Z-0.125000
G01 X57.906138 Y34.914862 Z-0.125000
G01 X54.882490 Y33.550645 Z-0.125000
G01 X52.562059 Y32.783261 Z-0.125000
G01 X48.713887 Y31.874426 Z-0.125000
G01 X44.544697 Y31.282691 Z-0.125000
G01 X40.199112 Y31.027705 Z-0.125000
G01 X32.975248 Y31.367314 Z-0.125000
G01 X28.897396 Y32.016935 Z-0.125000
G01 X25.186697 Y32.974579 Z-0.125000
G01 X22.981106 Y33.767703 Z-0.125000
G01 X20.160340 Y35.158159 Z-0.125000
G01 X18.010087 Y36.745154 Z-0.125000
G01 X16.605020 Y38.472855 Z-0.125000
G01 X16.107607 Y39.672864 Z-0.125000
G01 X15.971316 Y40.889473 Z-0.125000
G01 X16.198323 Y42.103782 Z-0.125000
G01 X16.785021 Y43.296578 Z-0.125000
G01 X17.722458 Y44.449332 Z-0.125000
G01 X18.996146 Y45.543827 Z-0.125000
G01 X21.492536 Y47.039236 Z-0.125000
G01 X25.774017 Y48.679393 Z-0.125000
G01 X29.555225 Y49.587793 Z-0.125000
G01 X35.107968 Y50.308482 Z-0.125000
G01 X39.468289 Y50.455592 Z-0.125000
G01 X45.255811 Y50.115983 Z-0.125000
G01 X50.686813 Y49.183396 Z-0.125000
G01 X55.426721 Y47.713231 Z-0.125000
G01 X58.350327 Y46.309905 Z-0.125000
G01 X59.940432 Y45.257069 Z-0.125000
G01 X61.214119 Y44.128812 Z-0.125000
G01 X62.489424 Y42.332903 Z-0.125000
G01 X62.897115 Y41.093226 Z-0.125000
G01 X62.942567 Y39.841611 Z-0.125000
G01 X62.331557 Y37.983650 Z-0.125000
G01 X61.480608 Y36.785382 Z-0.125000
G01 X59.571724 Y35.094365 Z-0.125000
G01 X57.906138 Y34.062918 Z-0.125000
G01 X54.882490 Y32.698701 Z-0.125000
G01 X52.562059 Y31.931380 Z-0.125000
G01 X48.713887 Y31.022482 Z-0.125000
G01 X44.544697 Y30.430747 Z-0.125000
G01 X40.199112 Y30.175761 Z-0.125000
G01 X32.975248 Y30.515432 Z-0.125000
G01 X28.897396 Y31.164991 Z-0.125000
G01 X25.186697 Y32.122635 Z-0.125000
G01 X22.981106 Y32.915760 Z-0.125000
G01 X20.160340 Y34.306215 Z-0.125000
G01 X18.010087 Y35.893273 Z-0.125000
G01 X16.605020 Y37.620912 Z-0.125000
G01 X16.107607 Y38.820920 Z-0.125000
G01 X15.971316 Y40.037530 Z-0.125000
G01 X16.198323 Y41.251839 Z-0.125000
G01 X16.785021 Y42.444697 Z-0.125000
G01 X17.722458 Y43.597389 Z-0.125000
G01 X18.996146 Y44.691883 Z-0.125000
G01 X21.492536 Y46.187293 Z-0.125000
G01 X25.774017 Y47.827449 Z-0.125000
G01 X29.555225 Y48.735849 Z-0.125000
G01 X35.107968 Y49.456538 Z-0.125000
G01 X39.468289 Y49.603648 Z-0.125000
G01 X45.255811 Y49.264040 Z-0.125000
G01 X50.686813 Y48.331453 Z-0.125000
G01 X55.426721 Y46.861287 Z-0.125000
G01 X58.350327 Y45.457961 Z-0.125000
G01 X59.940432 Y44.405125 Z-0.125000
G01 X61.214119 Y43.276868 Z-0.125000
G01 X62.489424 Y41.480959 Z-0.125000
G01 X62.897115 Y40.241344 Z-0.125000
G01 X62.942567 Y38.989729 Z-0.125000
G01 X62.331557 Y37.131706 Z-0.125000
G01 X61.480608 Y35.933501 Z-0.125000
G01 X59.571724 Y34.242484 Z-0.125000
G01 X56.964597 Y32.730038 Z-0.125000
G01 X53.749881 Y31.447894 Z-0.125000
G01 X51.323563 Y30.742936 Z-0.125000
G01 X47.352903 Y29.936879 Z-0.125000
G01 X43.108356 Y29.455818 Z-0.125000
G01 X38.737465 Y29.315424 Z-0.125000
G01 X31.583674 Y29.844111 Z-0.125000
G01 X27.613014 Y30.599557 Z-0.125000
G01 X24.054088 Y31.652766 Z-0.125000
G01 X21.971980 Y32.502285 Z-0.125000
G01 X19.364853 Y33.964119 Z-0.125000
G01 X17.455969 Y35.604524 Z-0.125000
G01 X16.311547 Y37.365739 Z-0.125000
G01 X15.994073 Y38.576442 Z-0.125000
G01 X16.039524 Y39.794232 Z-0.125000
G01 X16.447154 Y41.000210 Z-0.125000
G01 X17.210745 Y42.175285 Z-0.125000
G01 X18.318421 Y43.301117 Z-0.125000
G01 X19.753021 Y44.359985 Z-0.125000
G01 X22.468336 Y45.786813 Z-0.125000
G01 X26.987766 Y47.311259 Z-0.125000
G01 X30.899047 Y48.118560 Z-0.125000
G01 X36.552020 Y48.691828 Z-0.125000
G01 X40.929252 Y48.724098 Z-0.125000
G01 X46.660567 Y48.233027 Z-0.125000
G01 X50.686813 Y47.479509 Z-0.125000
G01 X55.426721 Y46.009343 Z-0.125000
G01 X58.350327 Y44.606080 Z-0.125000
G01 X59.940432 Y43.553181 Z-0.125000
G01 X61.214119 Y42.424924 Z-0.125000
G01 X62.489424 Y40.629078 Z-0.125000
G01 X62.897115 Y39.389401 Z-0.125000
G01 X62.942567 Y38.137786 Z-0.125000
G01 X62.331557 Y36.279762 Z-0.125000
G01 X61.480608 Y35.081557 Z-0.125000
G01 X59.571724 Y33.390540 Z-0.125000
G01 X56.964597 Y31.878094 Z-0.125000
G01 X53.749881 Y30.595951 Z-0.125000
G01 X51.323563 Y29.890992 Z-0.125000
G01 X47.352903 Y29.084997 Z-0.125000
G01 X43.108356 Y28.603875 Z-0.125000
G01 X38.737465 Y28.463480 Z-0.125000
G01 X31.583674 Y28.992167 Z-0.125000
G01 X27.613014 Y29.747613 Z-0.125000
G01 X24.054088 Y30.800885 Z-0.125000
G01 X21.971980 Y31.650341 Z-0.125000
G01 X19.364853 Y33.112175 Z-0.125000
G01 X17.455969 Y34.752581 Z-0.125000
G01 X16.311547 Y36.513795 Z-0.125000
G01 X15.994073 Y37.724498 Z-0.125000
G01 X16.039524 Y38.942351 Z-0.125000
G01 X16.447154 Y40.148266 Z-0.125000
G01 X17.210745 Y41.323342 Z-0.125000
G01 X18.318421 Y42.449173 Z-0.125000
G01 X19.753021 Y43.508103 Z-0.125000
G01 X22.468336 Y44.934932 Z-0.125000
G01 X26.987766 Y46.459377 Z-0.125000
G01 X30.899047 Y47.266616 Z-0.125000
G01 X36.552020 Y47.839947 Z-0.125000
G01 X40.929252 Y47.872216 Z-0.125000
G01 X46.660567 Y47.381083 Z-0.125000
G01 X50.686813 Y46.627627 Z-0.125000
G01 X55.426721 Y45.157462 Z-0.125000
G01 X58.350327 Y43.754136 Z-0.125000
G01 X59.940432 Y42.701299 Z-0.125000
G01 X61.214119 Y41.573043 Z-0.125000
G01 X62.489424 Y39.777134 Z-0.125000
G01 X62.897115 Y38.537457 Z-0.125000
G01 X62.942567 Y37.285842 Z-0.125000
G01 X62.331557 Y35.427881 Z-0.125000
G01 X61.480608 Y34.229613 Z-0.125000
G01 X59.571724 Y32.538596 Z-0.125000
G01 X56.964597 Y31.026213 Z-0.125000
G01 X53.749881 Y29.744007 Z-0.125000
G01 X51.323563 Y29.039111 Z-0.125000
G01 X47.352903 Y28.233053 Z-0.125000
G01 X43.108356 Y27.751931 Z-0.125000
G01 X38.737465 Y27.611598 Z-0.125000
G01 X31.583674 Y28.140286 Z-0.125000
G01 X27.613014 Y28.895732 Z-0.125000
G01 X24.054088 Y29.948941 Z-0.125000
G01 X21.971980 Y30.798460 Z-0.125000
G01 X19.364853 Y32.260232 Z-0.125000
G01 X17.455969 Y33.900699 Z-0.125000
G01 X16.311547 Y35.661851 Z-0.125000
G01 X15.994073 Y36.872554 Z-0.125000
G01 X16.039524 Y38.090407 Z-0.125000
G01 X16.447154 Y39.296322 Z-0.125000
G01 X17.210745 Y40.471460 Z-0.125000
G01 X18.318421 Y41.597292 Z-0.125000
G01 X19.753021 Y42.656159 Z-0.125000
G01 X22.468336 Y44.082988 Z-0.125000
G01 X26.987766 Y45.607434 Z-0.125000
G01 X30.899047 Y46.414672 Z-0.125000
G01 X36.552020 Y46.988003 Z-0.125000
G01 X40.929252 Y47.020273 Z-0.125000
G01 X46.660567 Y46.529140 Z-0.125000
G01 X50.686813 Y45.775684 Z-0.125000
G01 X55.426721 Y44.305518 Z-0.125000
G01 X58.350327 Y42.902192 Z-0.125000
G01 X59.940432 Y41.849356 Z-0.125000
G01 X61.214119 Y40.721099 Z-0.125000
G01 X62.489424 Y38.925190 Z-0.125000
G01 X62.897115 Y37.685575 Z-0.125000
G01 X62.942567 Y36.433960 Z-0.125000
G01 X62.331557 Y34.575937 Z-0.125000
G01 X61.480608 Y33.377732 Z-0.125000
G01 X59.571724 Y31.686715 Z-0.125000
G01 X56.964597 Y30.174269 Z-0.125000
G01 X53.749881 Y28.892125 Z-0.125000
G01 X51.323563 Y28.187167 Z-0.125000
G01 X47.352903 Y27.381110 Z-0.125000
G01 X43.108356 Y26.899987 Z-0.125000
G01 X38.737465 Y26.759654 Z-0.125000
G01 X31.583674 Y27.288342 Z-0.125000
G01 X27.613014 Y28.043788 Z-0.125000
G01 X24.054088 Y29.096997 Z-0.125000
G01 X21.971980 Y29.946516 Z-0.125000
G01 X19.364853 Y31.408350 Z-0.125000
G01 X17.455969 Y33.048755 Z-0.125000
G01 X16.311547 Y34.809970 Z-0.125000
G01 X15.994073 Y36.020672 Z-0.125000
G01 X16.039524 Y37.238463 Z-0.125000
G01 X16.785021 Y39.036984 Z-0.125000
G01 X17.722458 Y40.189738 Z-0.125000
G01 X18.996146 Y41.284233 Z-0.125000
G01 X21.492536 Y42.779580 Z-0.125000
G01 X25.774017 Y44.419798 Z-0.125000
G01 X29.555225 Y45.328136 Z-0.125000
G01 X35.107968 Y46.048825 Z-0.125000
G01 X39.468289 Y46.195997 Z-0.125000
G01 X45.255811 Y45.856327 Z-0.125000
G01 X49.381353 Y45.210063 Z-0.125000
G01 X54.323398 Y43.867235 Z-0.125000
G01 X57.444041 Y42.543433 Z-0.125000
G01 X59.183556 Y41.534307 Z-0.125000
G01 X60.618157 Y40.441677 Z-0.125000
G01 X62.151556 Y38.682701 Z-0.125000
G01 X62.738254 Y37.456144 Z-0.125000
G01 X62.965261 Y36.208135 Z-0.125000
G01 X62.625031 Y34.337614 Z-0.125000
G01 X61.949544 Y33.119326 Z-0.125000
G01 X60.289367 Y31.381303 Z-0.125000
G01 X57.906138 Y29.803323 Z-0.125000
G01 X54.882490 Y28.439107 Z-0.125000
G01 X52.562059 Y27.671723 Z-0.125000
G01 X48.713887 Y26.762888 Z-0.125000
G01 X44.544697 Y26.171153 Z-0.125000
G01 X40.199112 Y25.916167 Z-0.125000
G01 X32.975248 Y26.255837 Z-0.125000
G01 X28.897396 Y26.905396 Z-0.125000
G01 X25.186697 Y27.863040 Z-0.125000
G01 X21.971980 Y29.094572 Z-0.125000
G01 X19.364853 Y30.556406 Z-0.125000
G01 X17.455969 Y32.196812 Z-0.125000
G01 X16.311547 Y33.958026 Z-0.125000
G01 X15.994073 Y35.168729 Z-0.125000
G01 X16.039524 Y36.386582 Z-0.125000
G01 X16.785021 Y38.185040 Z-0.125000
G01 X17.722458 Y39.337794 Z-0.125000
G01 X18.996146 Y40.432289 Z-0.125000
G01 X21.492536 Y41.927698 Z-0.125000
G01 X25.774017 Y43.567855 Z-0.125000
G01 X29.555225 Y44.476255 Z-0.125000
G01 X35.107968 Y45.196944 Z-0.125000
G01 X39.468289 Y45.344054 Z-0.125000
G01 X45.255811 Y45.004445 Z-0.125000
G01 X49.381353 Y44.358181 Z-0.125000
G01 X54.323398 Y43.015291 Z-0.125000
G01 X57.444041 Y41.691489 Z-0.125000
G01 X59.183556 Y40.682425 Z-0.125000
G01 X60.618157 Y39.589734 Z-0.125000
G01 X62.151556 Y37.830820 Z-0.125000
G01 X62.738254 Y36.604200 Z-0.125000
G01 X62.965261 Y35.356191 Z-0.125000
G01 X62.625031 Y33.485670 Z-0.125000
G01 X61.949544 Y32.267382 Z-0.125000
G01 X60.289367 Y30.529422 Z-0.125000
G01 X57.906138 Y28.951380 Z-0.125000
G01 X54.882490 Y27.587163 Z-0.125000
G01 X52.562059 Y26.819841 Z-0.125000
G01 X48.713887 Y25.910944 Z-0.125000
G01 X44.544697 Y25.319209 Z-0.125000
G01 X40.199112 Y25.064223 Z-0.125000
G01 X32.975248 Y25.403894 Z-0.125000
G01 X28.897396 Y26.053453 Z-0.125000
G01 X25.186697 Y27.011097 Z-0.125000
G01 X21.971980 Y28.242691 Z-0.125000
G01 X19.364853 Y29.704463 Z-0.125000
G01 X17.455969 Y31.344930 Z-0.125000
G01 X16.311547 Y33.106144 Z-0.125000
G01 X15.994073 Y34.316785 Z-0.125000
G01 X16.039524 Y35.534638 Z-0.125000
G01 X16.785021 Y37.333158 Z-0.125000
G01 X17.722458 Y38.485850 Z-0.125000
G01 X18.996146 Y39.580345 Z-0.125000
G01 X21.492536 Y41.075754 Z-0.125000
G01 X25.774017 Y42.715911 Z-0.125000
G01 X29.555225 Y43.624311 Z-0.125000
G01 X35.107968 Y44.345000 Z-0.125000
G01 X39.468289 Y44.492172 Z-0.125000
G01 X45.255811 Y44.152501 Z-0.125000
G01 X49.381353 Y43.506238 Z-0.125000
G01 X54.323398 Y42.163347 Z-0.125000
G01 X57.444041 Y40.839545 Z-0.125000
G01 X59.183556 Y39.830481 Z-0.125000
G01 X60.618157 Y38.737852 Z-0.125000
G01 X62.151556 Y36.978876 Z-0.125000
G01 X62.738254 Y35.752318 Z-0.125000
G01 X62.965261 Y34.504310 Z-0.125000
G01 X62.625031 Y32.633789 Z-0.125000
G01 X61.949544 Y31.415438 Z-0.125000
G01 X60.289367 Y29.677478 Z-0.125000
G01 X57.906138 Y28.099436 Z-0.125000
G01 X54.882490 Y26.735281 Z-0.125000
G01 X52.562059 Y25.967898 Z-0.125000
G01 X48.713887 Y25.059062 Z-0.125000
G01 X44.544697 Y24.467265 Z-0.125000
G01 X40.199112 Y24.212341 Z-0.125000
G01 X32.975248 Y24.551950 Z-0.125000
G01 X28.897396 Y25.201571 Z-0.125000
G01 X25.186697 Y26.159215 Z-0.125000
G01 X21.971980 Y27.390747 Z-0.125000
G01 X19.364853 Y28.852581 Z-0.125000
G01 X17.455969 Y30.492986 Z-0.125000
G01 X16.311547 Y32.254201 Z-0.125000
G01 X15.994073 Y33.464903 Z-0.125000
G01 X16.039524 Y34.682694 Z-0.125000
G01 X16.785021 Y36.481215 Z-0.125000
G01 X17.722458 Y37.633969 Z-0.125000
G01 X18.996146 Y38.728463 Z-0.125000
G01 X21.492536 Y40.223811 Z-0.125000
G01 X25.774017 Y41.864029 Z-0.125000
G01 X29.555225 Y42.772367 Z-0.125000
G01 X35.107968 Y43.493056 Z-0.125000
G01 X39.468289 Y43.640228 Z-0.125000
G01 X45.255811 Y43.300557 Z-0.125000
G01 X49.381353 Y42.654294 Z-0.125000
G01 X54.323398 Y41.311466 Z-0.125000
G01 X57.444041 Y39.987664 Z-0.125000
G01 X59.183556 Y38.978538 Z-0.125000
G01 X60.618157 Y37.885908 Z-0.125000
G01 X62.151556 Y36.126932 Z-0.125000
G01 X62.738254 Y34.900374 Z-0.125000
G01 X62.965261 Y33.652366 Z-0.125000
G01 X62.625031 Y31.781845 Z-0.125000
G01 X61.949544 Y30.563557 Z-0.125000
G01 X60.289367 Y28.825534 Z-0.125000
G01 X57.906138 Y27.247554 Z-0.125000
G01 X54.882490 Y25.883337 Z-0.125000
G01 X52.562059 Y25.116016 Z-0.125000
G01 X48.713887 Y24.207118 Z-0.125000
G01 X44.544697 Y23.615384 Z-0.125000
G01 X40.199112 Y23.360398 Z-0.125000
G01 X32.975248 Y23.700006 Z-0.125000
G01 X28.897396 Y24.349627 Z-0.125000
G01 X25.186697 Y25.307271 Z-0.125000
G01 X21.971980 Y26.538803 Z-0.125000
G01 X19.364853 Y28.000637 Z-0.125000
G01 X17.455969 Y29.641042 Z-0.125000
G01 X16.311547 Y31.402257 Z-0.125000
G01 X15.994073 Y32.612960 Z-0.125000
G01 X16.039524 Y33.830813 Z-0.125000
G01 X16.785021 Y35.629333 Z-0.125000
G01 X17.722458 Y36.782025 Z-0.125000
G01 X18.996146 Y37.876520 Z-0.125000
G01 X21.492536 Y39.371929 Z-0.125000
G01 X25.774017 Y41.012086 Z-0.125000
G01 X29.555225 Y41.920486 Z-0.125000
G01 X35.107968 Y42.641175 Z-0.125000
G01 X39.468289 Y42.788284 Z-0.125000
G01 X45.255811 Y42.448676 Z-0.125000
G01 X49.381353 Y41.802412 Z-0.125000
G01 X54.323398 Y40.459522 Z-0.125000
G01 X57.444041 Y39.135720 Z-0.125000
G01 X59.183556 Y38.126656 Z-0.125000
G01 X60.618157 Y37.033965 Z-0.125000
G01 X62.151556 Y35.275051 Z-0.125000
G01 X62.738254 Y34.048431 Z-0.125000
G01 X62.965261 Y32.800422 Z-0.125000
G01 X62.625031 Y30.929901 Z-0.125000
G01 X61.949544 Y29.711613 Z-0.125000
G01 X60.289367 Y27.973653 Z-0.125000
G01 X57.906138 Y26.395610 Z-0.125000
G01 X54.882490 Y25.031394 Z-0.125000
G01 X52.562059 Y24.264072 Z-0.125000
G01 X48.713887 Y23.355237 Z-0.125000
G01 X44.544697 Y22.763440 Z-0.125000
G01 X40.199112 Y22.508454 Z-0.125000
G01 X32.975248 Y22.848125 Z-0.125000
G01 X28.897396 Y23.497683 Z-0.125000
G01 X25.186697 Y24.455327 Z-0.125000
G01 X21.971980 Y25.686922 Z-0.125000
G01 X19.364853 Y27.148693 Z-0.125000
G01 X17.455969 Y28.789161 Z-0.125000
G01 X16.311547 Y30.550375 Z-0.125000
G01 X15.994073 Y31.761016 Z-0.125000
G01 X16.039524 Y32.978869 Z-0.125000
G01 X16.785021 Y34.777389 Z-0.125000
G01 X17.722458 Y35.930081 Z-0.125000
G01 X18.996146 Y37.024576 Z-0.125000
G01 X21.492536 Y38.519985 Z-0.125000
G01 X25.774017 Y40.160142 Z-0.125000
G01 X29.555225 Y41.068542 Z-0.125000
G01 X35.107968 Y41.789231 Z-0.125000
G01 X39.468289 Y41.936403 Z-0.125000
G01 X45.255811 Y41.596732 Z-0.125000
G01 X49.381353 Y40.950469 Z-0.125000
G01 X54.323398 Y39.607578 Z-0.125000
G01 X57.444041 Y38.283776 Z-0.125000
G01 X59.183556 Y37.274712 Z-0.125000
G01 X60.618157 Y36.182083 Z-0.125000
G01 X62.151556 Y34.423107 Z-0.125000
G01 X62.738254 Y33.196549 Z-0.125000
G01 X62.965261 Y31.948540 Z-0.125000
G01 X62.625031 Y30.078020 Z-0.125000
G01 X61.949544 Y28.859669 Z-0.125000
G01 X60.289367 Y27.121709 Z-0.125000
G01 X57.906138 Y25.543667 Z-0.125000
G01 X54.882490 Y24.179450 Z-0.125000
G01 X52.562059 Y23.412128 Z-0.125000
G01 X48.713887 Y22.503293 Z-0.125000
G01 X44.544697 Y21.911496 Z-0.125000
G01 X40.199112 Y21.656572 Z-0.125000
G01 X32.975248 Y21.996181 Z-0.125000
G01 X28.897396 Y22.645802 Z-0.125000
G01 X25.186697 Y23.603446 Z-0.125000
G01 X21.971980 Y24.834978 Z-0.125000
G01 X19.364853 Y26.296812 Z-0.125000
G01 X17.455969 Y27.937217 Z-0.125000
G01 X16.311547 Y29.698431 Z-0.125000
G01 X15.994073 Y30.909134 Z-0.125000
G01 X16.039524 Y32.126925 Z-0.125000
G01 X16.785021 Y33.925445 Z-0.125000
G01 X17.722458 Y35.078137 Z-0.125000
G01 X18.996146 Y36.172694 Z-0.125000
G01 X21.492536 Y37.668041 Z-0.125000
G01 X25.774017 Y39.308260 Z-0.125000
G01 X29.555225 Y40.216598 Z-0.125000
G01 X35.107968 Y40.937287 Z-0.125000
G01 X39.468289 Y41.084459 Z-0.125000
G01 X45.255811 Y40.744788 Z-0.125000
G01 X49.381353 Y40.098525 Z-0.125000
G01 X54.323398 Y38.755697 Z-0.125000
G01 X57.444041 Y37.431895 Z-0.125000
G01 X59.183556 Y36.422769 Z-0.125000
G01 X60.618157 Y35.330139 Z-0.125000
G01 X62.151556 Y33.571163 Z-0.125000
G01 X62.738254 Y32.344605 Z-0.125000
G01 X62.965261 Y31.096597 Z-0.125000
G01 X62.625031 Y29.226076 Z-0.125000
G01 X61.949544 Y28.007787 Z-0.125000
G01 X60.289367 Y26.269827 Z-0.125000
G01 X57.906138 Y24.691785 Z-0.125000
G01 X54.882490 Y23.327568 Z-0.125000
G01 X52.562059 Y22.560247 Z-0.125000
G01 X48.713887 Y21.651349 Z-0.125000
G01 X44.544697 Y21.059615 Z-0.125000
G01 X40.199112 Y20.804628 Z-0.125000
G01 X32.975248 Y21.144237 Z-0.125000
G01 X28.897396 Y21.793858 Z-0.125000
G01 X25.186697 Y22.751502 Z-0.125000
G01 X22.981106 Y23.544627 Z-0.125000
G01 X20.160340 Y24.935082 Z-0.125000
G01 X18.010087 Y26.522140 Z-0.125000
G01 X16.605020 Y28.249779 Z-0.125000
G01 X16.107607 Y29.449787 Z-0.125000
G01 X15.971316 Y30.666397 Z-0.125000
G01 X16.198323 Y31.880706 Z-0.125000
G01 X16.785021 Y33.073564 Z-0.125000
G01 X17.722458 Y34.226256 Z-0.125000
G01 X18.996146 Y35.320750 Z-0.125000
G01 X21.492536 Y36.816160 Z-0.125000
G01 X25.774017 Y38.456316 Z-0.125000
G01 X29.555225 Y39.364717 Z-0.125000
G01 X35.107968 Y40.085406 Z-0.125000
G01 X39.468289 Y40.232515 Z-0.125000
G00 Z3.000000

(End cutting path id: polyline136)



(Footer)
M5
G00 X0.0000 Y0.0000
M2
(Using default footer. To add your own footer create file "footer" in the output dir.)
(end)
%