%
(Header)
(Generated by gcodetools from Inkscape.)
(Using default header. To add your own header create file "header" in the output dir.)
M3
(Header end.)
G21 (All units in mm)

(Start cutting path id: polyline468836)
(Change tool to Default tool)

G00 Z5.000000
G00 X114.077230 Y142.552080

G00 Z4.875000 (Fast pre-penetrate)
G01 Z-0.125000 F100.0(Penetrate)
G01 X113.924170 Y142.844720 Z-0.125000 F800.000000
G01 X113.527910 Y142.622420 Z-0.125000
G01 X113.660130 Y141.839470 Z-0.125000
G01 X114.223280 Y141.579540 Z-0.125000
G01 X114.863530 Y141.743160 Z-0.125000
G01 X115.364990 Y142.436640 Z-0.125000
G01 X115.294090 Y143.334000 Z-0.125000
G01 X114.510500 Y144.109230 Z-0.125000
G01 X113.375480 Y144.179730 Z-0.125000
G01 X112.301770 Y143.349010 Z-0.125000
G01 X112.045070 Y141.979990 Z-0.125000
G01 X112.884420 Y140.604300 Z-0.125000
G01 X114.470800 Y140.136520 Z-0.125000
G01 X115.392160 Y140.382950 Z-0.125000
G01 X116.168050 Y140.966420 Z-0.125000
G01 X116.857280 Y142.744640 Z-0.125000
G01 X116.662180 Y143.814190 Z-0.125000
G01 X116.077240 Y144.745460 Z-0.125000
G01 X115.183150 Y145.400760 Z-0.125000
G01 X114.120020 Y145.685930 Z-0.125000
G01 X112.894170 Y145.545470 Z-0.125000
G01 X111.811840 Y144.961440 Z-0.125000
G01 X111.009330 Y144.016510 Z-0.125000
G01 X110.596470 Y142.838980 Z-0.125000
G01 X110.653570 Y141.473870 Z-0.125000
G01 X111.219040 Y140.239020 Z-0.125000
G01 X112.210730 Y139.291410 Z-0.125000
G01 X113.488350 Y138.761090 Z-0.125000
G01 X114.998100 Y138.735990 Z-0.125000
G01 X116.389470 Y139.271480 Z-0.125000
G01 X117.491460 Y140.285270 Z-0.125000
G01 X118.158900 Y141.664560 Z-0.125000
G01 X118.270320 Y143.311730 Z-0.125000
G01 X117.755680 Y144.887890 Z-0.125000
G01 X116.700080 Y146.157070 Z-0.125000
G01 X115.255920 Y146.938900 Z-0.125000
G01 X113.502350 Y147.128970 Z-0.125000
G01 X111.785630 Y146.645060 Z-0.125000
G01 X110.358910 Y145.568010 Z-0.125000
G01 X109.406380 Y144.024590 Z-0.125000
G01 X109.082030 Y142.149660 Z-0.125000
G01 X109.497390 Y140.285870 Z-0.125000
G01 X110.592240 Y138.708210 Z-0.125000
G01 X112.203020 Y137.640250 Z-0.125000
G01 X114.227210 Y137.216270 Z-0.125000
G01 X116.254100 Y137.580910 Z-0.125000
G01 X118.018150 Y138.692810 Z-0.125000
G01 X119.234270 Y140.388960 Z-0.125000
G01 X119.737760 Y142.500080 Z-0.125000
G01 X119.403110 Y144.725510 Z-0.125000
G01 X118.280710 Y146.650970 Z-0.125000
G01 X116.549960 Y147.991510 Z-0.125000
G01 X114.377980 Y148.577560 Z-0.125000
G01 X112.045300 Y148.285050 Z-0.125000
G01 X109.967670 Y147.159660 Z-0.125000
G01 X108.445030 Y145.376040 Z-0.125000
G01 X107.647610 Y143.026480 Z-0.125000
G01 X107.806730 Y140.595090 Z-0.125000
G01 X108.881640 Y138.398060 Z-0.125000
G01 X110.711380 Y136.752870 Z-0.125000
G01 X113.187670 Y135.845490 Z-0.125000
G01 X115.847100 Y135.934690 Z-0.125000
G01 X118.248710 Y137.004960 Z-0.125000
G01 X120.064060 Y138.890090 Z-0.125000
G01 X121.053990 Y141.418140 Z-0.125000
G01 X121.021890 Y144.197160 Z-0.125000
G01 X119.977980 Y146.792580 Z-0.125000
G01 X118.068730 Y148.794980 Z-0.125000
G01 X115.539830 Y149.882770 Z-0.125000
G01 X112.717210 Y149.907870 Z-0.125000
G01 X109.994770 Y148.889370 Z-0.125000
G01 X107.790040 Y146.957770 Z-0.125000
G01 X106.398950 Y144.264380 Z-0.125000
G01 X106.143630 Y141.271890 Z-0.125000
G01 X107.045790 Y138.451110 Z-0.125000
G01 X109.002530 Y136.133570 Z-0.125000
G01 X111.849840 Y134.651290 Z-0.125000
G01 X115.079280 Y134.338810 Z-0.125000
G01 X118.180620 Y135.260250 Z-0.125000
G01 X120.671660 Y137.268120 Z-0.125000
G01 X122.195230 Y140.084630 Z-0.125000
G01 X122.554100 Y143.354790 Z-0.125000
G01 X121.693130 Y146.627120 Z-0.125000
G01 X119.740370 Y149.325710 Z-0.125000
G01 X117.004300 Y150.994490 Z-0.125000
G01 X113.788780 Y151.451770 Z-0.125000
G01 X110.395940 Y150.644510 Z-0.125000
G01 X107.492230 Y148.713110 Z-0.125000
G01 X105.385360 Y145.737290 Z-0.125000
G01 X104.582940 Y142.303090 Z-0.125000
G01 X104.707180 Y140.520570 Z-0.125000
G01 X105.173940 Y138.834190 Z-0.125000
G01 X105.974040 Y137.251320 Z-0.125000
G01 X107.085680 Y135.838170 Z-0.125000
G01 X108.828770 Y134.412580 Z-0.125000
G01 X110.945180 Y133.395740 Z-0.125000
G01 X113.194350 Y132.900580 Z-0.125000
G01 X115.553840 Y132.930080 Z-0.125000
G01 X117.825010 Y133.504900 Z-0.125000
G01 X119.837790 Y134.563090 Z-0.125000
G01 X121.555450 Y136.069880 Z-0.125000
G01 X122.837990 Y137.912870 Z-0.125000
G01 X123.607300 Y139.858790 Z-0.125000
G01 X123.956500 Y142.026410 Z-0.125000
G01 X123.847680 Y144.248570 Z-0.125000
G01 X123.297230 Y146.408320 Z-0.125000
G01 X122.339040 Y148.395020 Z-0.125000
G01 X121.018000 Y150.110650 Z-0.125000
G01 X119.387360 Y151.462770 Z-0.125000
G01 X117.566350 Y152.362340 Z-0.125000
G01 X114.376980 Y152.888550 Z-0.125000
G01 X110.929510 Y152.305080 Z-0.125000
G01 X107.785400 Y150.721480 Z-0.125000
G01 X105.298360 Y148.335730 Z-0.125000
G01 X103.674680 Y145.403540 Z-0.125000
G01 X103.048430 Y142.191070 Z-0.125000
G01 X103.476970 Y138.972570 Z-0.125000
G01 X104.953320 Y135.990090 Z-0.125000
G01 X106.703170 Y134.098840 Z-0.125000
G01 X108.960700 Y132.618700 Z-0.125000
G01 X111.537470 Y131.699090 Z-0.125000
G01 X114.259530 Y131.393870 Z-0.125000
G01 X116.953280 Y131.718120 Z-0.125000
G01 X119.405090 Y132.622130 Z-0.125000
G01 X121.630790 Y134.113600 Z-0.125000
G01 X123.391400 Y136.063860 Z-0.125000
G01 X124.574490 Y138.293080 Z-0.125000
G01 X125.221700 Y140.790520 Z-0.125000
G01 X125.311000 Y143.419880 Z-0.125000
G01 X124.836450 Y146.102240 Z-0.125000
G01 X123.831590 Y148.603130 Z-0.125000
G01 X122.356070 Y150.782630 Z-0.125000
G01 X120.535520 Y152.469850 Z-0.125000
G01 X118.405560 Y153.633090 Z-0.125000
G01 X114.913460 Y154.306830 Z-0.125000
G01 X111.079300 Y153.762440 Z-0.125000
G01 X107.436620 Y152.091710 Z-0.125000
G01 X104.479740 Y149.511220 Z-0.125000
G01 X102.457410 Y146.295310 Z-0.125000
G01 X101.541620 Y142.801370 Z-0.125000
G01 X101.768830 Y139.240140 Z-0.125000
G01 X103.158240 Y135.846840 Z-0.125000
G01 X104.978140 Y133.578660 Z-0.125000
G01 X107.349320 Y131.779260 Z-0.125000
G01 X110.122400 Y130.559340 Z-0.125000
G01 X113.193940 Y129.981260 Z-0.125000
G01 X116.205190 Y130.100130 Z-0.125000
G01 X119.138690 Y130.910440 Z-0.125000
G01 X121.707470 Y132.332350 Z-0.125000
G01 X123.875280 Y134.330910 Z-0.125000
G01 X125.453040 Y136.772700 Z-0.125000
G01 X126.386740 Y139.513880 Z-0.125000
G01 X126.689660 Y142.554240 Z-0.125000
G01 X126.319380 Y145.713110 Z-0.125000
G01 X125.276490 Y148.776020 Z-0.125000
G01 X123.641770 Y151.460870 Z-0.125000
G01 X121.565250 Y153.544720 Z-0.125000
G01 X119.170220 Y154.933760 Z-0.125000
G01 X115.400820 Y155.718190 Z-0.125000
G01 X111.133760 Y155.159290 Z-0.125000
G01 X107.014760 Y153.359350 Z-0.125000
G01 X103.611540 Y150.560850 Z-0.125000
G01 X101.215320 Y147.055460 Z-0.125000
G01 X100.031130 Y143.224550 Z-0.125000
G01 X100.106130 Y139.359220 Z-0.125000
G01 X101.444610 Y135.606700 Z-0.125000
G01 X103.355050 Y132.988160 Z-0.125000
G01 X105.920960 Y130.867020 Z-0.125000
G01 X108.979710 Y129.378710 Z-0.125000
G01 X112.410300 Y128.597630 Z-0.125000
G01 X115.890430 Y128.607830 Z-0.125000
G01 X119.203570 Y129.392720 Z-0.125000
G01 X122.190870 Y130.912750 Z-0.125000
G01 X124.666330 Y133.051340 Z-0.125000
G01 X126.495510 Y135.708740 Z-0.125000
G01 X127.605380 Y138.734450 Z-0.125000
G01 X128.011660 Y142.223410 Z-0.125000
G01 X127.648340 Y145.774600 Z-0.125000
G01 X126.544490 Y149.230530 Z-0.125000
G01 X124.793530 Y152.268750 Z-0.125000
G01 X122.559190 Y154.638550 Z-0.125000
G01 X119.895490 Y156.256740 Z-0.125000
G01 X117.984200 Y156.864630 Z-0.125000
G01 X115.876880 Y157.128280 Z-0.125000
G01 X111.281770 Y156.557910 Z-0.125000
G01 X106.606120 Y154.589090 Z-0.125000
G01 X102.756730 Y151.570330 Z-0.125000
G01 X100.024480 Y147.864200 Z-0.125000
G01 X98.535623 Y143.720890 Z-0.125000
G01 X98.435405 Y139.497340 Z-0.125000
G01 X99.705883 Y135.416400 Z-0.125000
G01 X101.757060 Y132.373800 Z-0.125000
G01 X104.525880 Y129.941950 Z-0.125000
G01 X107.879190 Y128.198220 Z-0.125000
G01 X111.676700 Y127.230270 Z-0.125000
G01 X115.549180 Y127.133470 Z-0.125000
G01 X119.337430 Y127.921130 Z-0.125000
G01 X122.665870 Y129.506950 Z-0.125000
G01 X125.510580 Y131.851900 Z-0.125000
G01 X127.566870 Y134.737870 Z-0.125000
G01 X128.825110 Y138.060570 Z-0.125000
G01 X129.302250 Y141.816250 Z-0.125000
G01 X128.955460 Y145.768240 Z-0.125000
G01 X127.801130 Y149.629500 Z-0.125000
G01 X125.889670 Y153.115930 Z-0.125000
G01 X123.427280 Y155.826750 Z-0.125000
G01 X120.560770 Y157.609750 Z-0.125000
G01 X118.500860 Y158.268200 Z-0.125000
G01 X116.224040 Y158.540670 Z-0.125000
G01 X113.850720 Y158.416110 Z-0.125000
G01 X111.327950 Y157.903880 Z-0.125000
G01 X108.618240 Y156.963780 Z-0.125000
G01 X106.096210 Y155.714280 Z-0.125000
G01 X103.841190 Y154.213700 Z-0.125000
G01 X101.822470 Y152.446210 Z-0.125000
G01 X98.740831 Y148.454870 Z-0.125000
G01 X97.709528 Y146.325660 Z-0.125000
G01 X97.018444 Y144.092740 Z-0.125000
G01 X96.700126 Y141.782690 Z-0.125000
G01 X96.767656 Y139.526840 Z-0.125000
G01 X97.212979 Y137.268840 Z-0.125000
G01 X97.995074 Y135.153460 Z-0.125000
G01 X100.142840 Y131.767030 Z-0.125000
G01 X103.115100 Y129.025120 Z-0.125000
G01 X106.767430 Y127.027090 Z-0.125000
G01 X110.938840 Y125.875830 Z-0.125000
G01 X115.209240 Y125.678550 Z-0.125000
G01 X119.390390 Y126.441810 Z-0.125000
G01 X123.155800 Y128.128600 Z-0.125000
G01 X126.300920 Y130.613690 Z-0.125000
G01 X128.592590 Y133.714480 Z-0.125000
G01 X130.006690 Y137.327900 Z-0.125000
G01 X130.561770 Y141.448680 Z-0.125000
G01 X130.216920 Y145.808240 Z-0.125000
G01 X128.958320 Y150.184590 Z-0.125000
G01 X126.916220 Y154.026920 Z-0.125000
G01 X124.291200 Y157.013300 Z-0.125000
G01 X121.147200 Y159.003260 Z-0.125000
G01 X118.941910 Y159.693420 Z-0.125000
G01 X116.600230 Y159.951710 Z-0.125000
G01 X114.051200 Y159.793460 Z-0.125000
G01 X111.328950 Y159.215110 Z-0.125000
G01 X108.388320 Y158.179890 Z-0.125000
G01 X105.633800 Y156.823760 Z-0.125000
G01 X103.156200 Y155.208360 Z-0.125000
G01 X100.845890 Y153.234360 Z-0.125000
G01 X97.421166 Y148.957180 Z-0.125000
G01 X96.254605 Y146.683420 Z-0.125000
G01 X95.455807 Y144.298510 Z-0.125000
G01 X95.071157 Y141.930030 Z-0.125000
G01 X95.085967 Y139.507090 Z-0.125000
G01 X95.489261 Y137.173380 Z-0.125000
G01 X96.277761 Y134.870660 Z-0.125000
G01 X98.454008 Y131.238200 Z-0.125000
G01 X101.612380 Y128.171580 Z-0.125000
G01 X105.555550 Y125.901430 Z-0.125000
G01 X110.102140 Y124.549210 Z-0.125000
G01 X114.899420 Y124.241570 Z-0.125000
G01 X119.472460 Y124.990550 Z-0.125000
G01 X123.585520 Y126.731220 Z-0.125000
G01 X127.115930 Y129.418950 Z-0.125000
G01 X129.627580 Y132.740720 Z-0.125000
G01 X131.178890 Y136.653650 Z-0.125000
G01 X131.790750 Y141.149400 Z-0.125000
G01 X131.427910 Y145.923860 Z-0.125000
G01 X130.089510 Y150.719730 Z-0.125000
G01 X127.860280 Y155.023920 Z-0.125000
G01 X124.987550 Y158.339360 Z-0.125000
G01 X121.732030 Y160.403370 Z-0.125000
G01 X119.491010 Y161.101140 Z-0.125000
G01 X117.005450 Y161.361850 Z-0.125000
G01 X114.289690 Y161.165890 Z-0.125000
G01 X111.375310 Y160.516370 Z-0.125000
G01 X108.208120 Y159.382000 Z-0.125000
G01 X105.113650 Y157.856950 Z-0.125000
G01 X102.418500 Y156.116260 Z-0.125000
G01 X99.893979 Y154.001260 Z-0.125000
G01 X97.842241 Y151.814420 Z-0.125000
G01 X96.110305 Y149.450290 Z-0.125000
G01 X94.798923 Y147.041160 Z-0.125000
G01 X93.912257 Y144.621750 Z-0.125000
G01 X93.428613 Y142.110200 Z-0.125000
G01 X93.372393 Y139.642350 Z-0.125000
G01 X93.731900 Y137.141830 Z-0.125000
G01 X94.514470 Y134.655430 Z-0.125000
G01 X96.846764 Y130.590070 Z-0.125000
G01 X100.226680 Y127.224060 Z-0.125000
G01 X104.490390 Y124.714730 Z-0.125000
G01 X109.298160 Y123.227790 Z-0.125000
G01 X114.517280 Y122.816330 Z-0.125000
G01 X119.489270 Y123.539370 Z-0.125000
G01 X124.060160 Y125.377230 Z-0.125000
G01 X127.886450 Y128.197740 Z-0.125000
G01 X130.559150 Y131.618300 Z-0.125000
G01 X132.280330 Y135.806320 Z-0.125000
G01 X132.980890 Y140.669010 Z-0.125000
G01 X132.629730 Y145.867470 Z-0.125000
G01 X131.193090 Y151.232160 Z-0.125000
G01 X128.847520 Y155.917350 Z-0.125000
G01 X125.831830 Y159.528780 Z-0.125000
G01 X124.138650 Y160.835990 Z-0.125000
G01 X122.315970 Y161.809020 Z-0.125000
G01 X119.953230 Y162.531280 Z-0.125000
G01 X117.327570 Y162.771760 Z-0.125000
G01 X114.566920 Y162.534370 Z-0.125000
G01 X111.468200 Y161.809130 Z-0.125000
G01 X108.079540 Y160.571110 Z-0.125000
G01 X104.628900 Y158.866170 Z-0.125000
G01 X101.713140 Y157.000430 Z-0.125000
G01 X98.969010 Y154.746810 Z-0.125000
G01 X96.722998 Y152.428780 Z-0.125000
G01 X94.809781 Y149.933930 Z-0.125000
G01 X93.343631 Y147.398630 Z-0.125000
G01 X92.334135 Y144.853420 Z-0.125000
G01 X91.774785 Y142.322660 Z-0.125000
G01 X91.645837 Y139.713220 Z-0.125000
G01 X91.968977 Y137.053160 Z-0.125000
G01 X92.708220 Y134.509570 Z-0.125000
G01 X95.103987 Y130.100870 Z-0.125000
G01 X98.666478 Y126.404370 Z-0.125000
G01 X103.227060 Y123.616350 Z-0.125000
G01 X108.412700 Y121.931910 Z-0.125000
G01 X114.061200 Y121.405110 Z-0.125000
G01 X119.570640 Y122.123680 Z-0.125000
G01 X124.487970 Y124.014290 Z-0.125000
G01 X128.705120 Y127.041010 Z-0.125000
G01 X131.574040 Y130.675900 Z-0.125000
G01 X133.373810 Y135.032380 Z-0.125000
G01 X134.138110 Y140.272570 Z-0.125000
G01 X133.775250 Y145.902250 Z-0.125000
G01 X132.267730 Y151.718770 Z-0.125000
G01 X129.743560 Y156.908110 Z-0.125000
G01 X126.580730 Y160.793210 Z-0.125000
G01 X124.807860 Y162.190240 Z-0.125000
G01 X122.899920 Y163.219060 Z-0.125000
G01 X120.424650 Y163.963190 Z-0.125000
G01 X117.786180 Y164.180530 Z-0.125000
G01 X114.883760 Y163.899680 Z-0.125000
G01 X111.608940 Y163.094480 Z-0.125000
G01 X107.875630 Y161.692430 Z-0.125000
G01 X104.181730 Y159.852050 Z-0.125000
G01 X101.042470 Y157.861550 Z-0.125000
G01 X98.072905 Y155.471150 Z-0.125000
G01 X95.625098 Y153.026220 Z-0.125000
G01 X93.520938 Y150.407800 Z-0.125000
G01 X91.890026 Y147.755690 Z-0.125000
G01 X90.747950 Y145.094960 Z-0.125000
G01 X90.091833 Y142.444150 Z-0.125000
G01 X89.900903 Y139.699360 Z-0.125000
G01 X90.175801 Y137.014230 Z-0.125000
G01 X90.907711 Y134.306090 Z-0.125000
G01 X91.963321 Y131.887970 Z-0.125000
G01 X93.385304 Y129.563820 Z-0.125000
G01 X95.160481 Y127.400100 Z-0.125000
G01 X97.148298 Y125.546250 Z-0.125000
G01 X101.879780 Y122.560530 Z-0.125000
G01 X107.444500 Y120.663530 Z-0.125000
G01 X113.529510 Y120.010100 Z-0.125000
G01 X116.562550 Y120.184640 Z-0.125000
G01 X119.603390 Y120.713650 Z-0.125000
G01 X122.327210 Y121.530560 Z-0.125000
G01 X124.989800 Y122.707770 Z-0.125000
G01 X127.452080 Y124.211960 Z-0.125000
G01 X129.488620 Y125.868020 Z-0.125000
G01 X131.191160 Y127.714190 Z-0.125000
G01 X132.553770 Y129.707470 Z-0.125000
G01 X134.466160 Y134.357980 Z-0.125000
G01 X135.256710 Y139.828260 Z-0.125000
G01 X134.884760 Y145.896750 Z-0.125000
G01 X133.312020 Y152.175780 Z-0.125000
G01 X130.688780 Y157.772410 Z-0.125000
G01 X129.094220 Y160.090150 Z-0.125000
G01 X127.315980 Y162.058770 Z-0.125000
G01 X125.470650 Y163.547070 Z-0.125000
G01 X123.484870 Y164.631540 Z-0.125000
G01 X121.022400 Y165.374690 Z-0.125000
G01 X118.275110 Y165.589180 Z-0.125000
G01 X115.240950 Y165.262790 Z-0.125000
G01 X111.798950 Y164.373700 Z-0.125000
G01 X107.848170 Y162.855250 Z-0.125000
G01 X103.774550 Y160.815850 Z-0.125000
G01 X100.284400 Y158.612400 Z-0.125000
G01 X97.095604 Y156.076070 Z-0.125000
G01 X94.450931 Y153.500510 Z-0.125000
G01 X92.161770 Y150.759600 Z-0.125000
G01 X90.373969 Y147.994880 Z-0.125000
G01 X89.154796 Y145.347060 Z-0.125000
G01 X88.393195 Y142.586400 Z-0.125000
G01 X88.133049 Y139.848110 Z-0.125000
G01 X88.354598 Y137.025950 Z-0.125000
G01 X89.070274 Y134.158670 Z-0.125000
G01 X90.144070 Y131.579140 Z-0.125000
G01 X91.615780 Y129.082530 Z-0.125000
G01 X93.472883 Y126.745120 Z-0.125000
G01 X95.568975 Y124.733460 Z-0.125000
G01 X97.960458 Y122.964780 Z-0.125000
G01 X100.601140 Y121.475610 Z-0.125000
G01 X103.433500 Y120.291410 Z-0.125000
G01 X106.559130 Y119.386660 Z-0.125000
G01 X109.746740 Y118.837520 Z-0.125000
G01 X113.086410 Y118.631770 Z-0.125000
G01 X116.335430 Y118.786680 Z-0.125000
G01 X119.586600 Y119.311610 Z-0.125000
G01 X122.632530 Y120.186310 Z-0.125000
G01 X125.327970 Y121.335080 Z-0.125000
G01 X127.949640 Y122.875060 Z-0.125000
G01 X130.234810 Y124.679570 Z-0.125000
G01 X132.046920 Y126.612470 Z-0.125000
G01 X133.495990 Y128.712830 Z-0.125000
G01 X134.659040 Y131.068680 Z-0.125000
G01 X135.520200 Y133.652970 Z-0.125000
G01 X136.341160 Y139.507180 Z-0.125000
G01 X135.930450 Y146.022840 Z-0.125000
G01 X134.215190 Y152.918260 Z-0.125000
G01 X131.457880 Y158.876440 Z-0.125000
G01 X129.793380 Y161.336230 Z-0.125000
G01 X127.941750 Y163.416650 Z-0.125000
G01 X126.023320 Y164.975470 Z-0.125000
G01 X123.960170 Y166.092580 Z-0.125000
G01 X121.400470 Y166.827750 Z-0.125000
G01 X118.539150 Y166.988420 Z-0.125000
G01 X115.368620 Y166.568680 Z-0.125000
G01 X111.756270 Y165.552330 Z-0.125000
G01 X107.443570 Y163.812380 Z-0.125000
G01 X103.125850 Y161.598000 Z-0.125000
G01 X99.416393 Y159.238330 Z-0.125000
G01 X96.014765 Y156.546790 Z-0.125000
G01 X93.178596 Y153.837910 Z-0.125000
G01 X90.711861 Y150.976610 Z-0.125000
G01 X88.848911 Y148.225970 Z-0.125000
G01 X87.505325 Y145.482850 Z-0.125000
G01 X86.680267 Y142.750310 Z-0.125000
G01 X86.345252 Y139.901060 Z-0.125000
G01 X86.528770 Y136.946760 Z-0.125000
G01 X87.198430 Y134.069040 Z-0.125000
G01 X88.283171 Y131.330380 Z-0.125000
G01 X89.797839 Y128.660090 Z-0.125000
G01 X91.730553 Y126.144560 Z-0.125000
G01 X93.930002 Y123.969130 Z-0.125000
G01 X96.455456 Y122.048680 Z-0.125000
G01 X99.258029 Y120.425740 Z-0.125000
G01 X102.274830 Y119.129740 Z-0.125000
G01 X105.433860 Y118.175900 Z-0.125000
G01 X108.839300 Y117.541500 Z-0.125000
G01 X112.411290 Y117.272460 Z-0.125000
G01 X116.056190 Y117.401700 Z-0.125000
G01 X119.519620 Y117.919030 Z-0.125000
G01 X122.756860 Y118.797810 Z-0.125000
G01 X125.753270 Y120.026160 Z-0.125000
G01 X128.522080 Y121.609860 Z-0.125000
G01 X130.941680 Y123.475510 Z-0.125000
G01 X132.763910 Y125.367680 Z-0.125000
G01 X134.316420 Y127.552750 Z-0.125000
G01 X135.564560 Y130.021610 Z-0.125000
G01 X136.489710 Y132.747370 Z-0.125000
G01 X137.370900 Y138.783120 Z-0.125000
G01 X136.990250 Y145.749890 Z-0.125000
G01 X135.249110 Y153.157530 Z-0.125000
G01 X133.927320 Y156.593120 Z-0.125000
G01 X132.357450 Y159.707330 Z-0.125000
G01 X130.558710 Y162.466800 Z-0.125000
G01 X128.649740 Y164.681480 Z-0.125000
G01 X126.673420 Y166.333710 Z-0.125000
G01 X124.548100 Y167.506220 Z-0.125000
G01 X121.908250 Y168.257320 Z-0.125000
G01 X119.082550 Y168.392960 Z-0.125000
G01 X115.799290 Y167.922570 Z-0.125000
G01 X112.184260 Y166.867240 Z-0.125000
G01 X107.509630 Y164.945750 Z-0.125000
G01 X102.788340 Y162.511690 Z-0.125000
G01 X98.836737 Y160.021660 Z-0.125000
G01 X95.063177 Y157.088060 Z-0.125000
G01 X92.014450 Y154.257840 Z-0.125000
G01 X89.344997 Y151.289920 Z-0.125000
G01 X87.315422 Y148.450410 Z-0.125000
G01 X85.840371 Y145.622120 Z-0.125000
G01 X84.922441 Y142.798860 Z-0.125000
G01 X84.537234 Y139.985690 Z-0.125000
G01 X84.656921 Y137.055810 Z-0.125000
G01 X85.295036 Y134.038270 Z-0.125000
G01 X86.453256 Y130.991740 Z-0.125000
G01 X88.028135 Y128.152430 Z-0.125000
G01 X89.935615 Y125.600990 Z-0.125000
G01 X92.232942 Y123.255880 Z-0.125000
G01 X94.888577 Y121.176680 Z-0.125000
G01 X97.851087 Y119.412530 Z-0.125000
G01 X101.052420 Y117.998050 Z-0.125000
G01 X104.413040 Y116.951090 Z-0.125000
G01 X108.040510 Y116.245530 Z-0.125000
G01 X111.845630 Y115.928590 Z-0.125000
G01 X115.724050 Y116.030990 Z-0.125000
G01 X119.401890 Y116.537840 Z-0.125000
G01 X122.830820 Y117.416050 Z-0.125000
G01 X125.997640 Y118.651270 Z-0.125000
G01 X129.055090 Y120.338220 Z-0.125000
G01 X131.607270 Y122.256270 Z-0.125000
G01 X133.532750 Y124.215900 Z-0.125000
G01 X135.172660 Y126.495130 Z-0.125000
G01 X136.420230 Y128.926340 Z-0.125000
G01 X137.411730 Y131.787660 Z-0.125000
G01 X138.055700 Y134.890850 Z-0.125000
G01 X138.370940 Y138.372350 Z-0.125000
G01 X137.955030 Y145.799930 Z-0.125000
G01 X136.136060 Y153.696120 Z-0.125000
G01 X134.769750 Y157.349380 Z-0.125000
G01 X133.153760 Y160.655670 Z-0.125000
G01 X131.306220 Y163.585720 Z-0.125000
G01 X129.347610 Y165.937680 Z-0.125000
G01 X127.210320 Y167.763970 Z-0.125000
G01 X125.023020 Y168.965450 Z-0.125000
G01 X122.431780 Y169.682520 Z-0.125000
G01 X119.522780 Y169.786490 Z-0.125000
G01 X116.274220 Y169.274530 Z-0.125000
G01 X112.370190 Y168.074210 Z-0.125000
G01 X107.316760 Y165.921060 Z-0.125000
G01 X102.179640 Y163.225150 Z-0.125000
G01 X98.001199 Y160.578240 Z-0.125000
G01 X93.993467 Y157.487400 Z-0.125000
G01 X90.614365 Y154.413820 Z-0.125000
G01 X87.873197 Y151.463890 Z-0.125000
G01 X85.689612 Y148.540880 Z-0.125000
G01 X84.160567 Y145.767170 Z-0.125000
G01 X83.144666 Y142.862600 Z-0.125000
G01 X82.701381 Y139.954540 Z-0.125000
G01 X82.799431 Y136.907280 Z-0.125000
G01 X83.407208 Y133.908310 Z-0.125000
G01 X84.589922 Y130.700090 Z-0.125000
G01 X86.221392 Y127.690220 Z-0.125000
G01 X88.212652 Y124.971700 Z-0.125000
G01 X90.624743 Y122.464540 Z-0.125000
G01 X93.426403 Y120.236220 Z-0.125000
G01 X96.381316 Y118.438760 Z-0.125000
G01 X99.766521 Y116.898700 Z-0.125000
G01 X103.330140 Y115.752430 Z-0.125000
G01 X107.182310 Y114.970990 Z-0.125000
G01 X111.223920 Y114.602860 Z-0.125000
G01 X115.338920 Y114.675960 Z-0.125000
G01 X119.232840 Y115.169520 Z-0.125000
G01 X123.019040 Y116.093570 Z-0.125000
G01 X126.493510 Y117.414990 Z-0.125000
G01 X129.687060 Y119.149430 Z-0.125000
G01 X132.356320 Y121.131790 Z-0.125000
G01 X134.368270 Y123.171290 Z-0.125000
G01 X136.076180 Y125.558520 Z-0.125000
G01 X137.368000 Y128.118310 Z-0.125000
G01 X138.384650 Y131.143470 Z-0.125000
G01 X139.032790 Y134.434240 Z-0.125000
G01 X139.326430 Y137.923850 Z-0.125000
G01 X138.876090 Y145.818450 Z-0.125000
G01 X138.109950 Y150.018920 Z-0.125000
G01 X136.985670 Y154.211940 Z-0.125000
G01 X135.580570 Y158.085720 Z-0.125000
G01 X133.840920 Y161.742970 Z-0.125000
G01 X131.941610 Y164.825350 Z-0.125000
G01 X129.931900 Y167.292170 Z-0.125000
G01 X127.741450 Y169.191610 Z-0.125000
G01 X125.500160 Y170.419590 Z-0.125000
G01 X122.841930 Y171.119310 Z-0.125000
G01 X119.849610 Y171.160810 Z-0.125000
G01 X116.493890 Y170.547940 Z-0.125000
G01 X112.599700 Y169.270220 Z-0.125000
G01 X107.156980 Y166.871750 Z-0.125000
G01 X101.585200 Y163.901520 Z-0.125000
G01 X97.175847 Y161.097640 Z-0.125000
G01 X92.926244 Y157.851950 Z-0.125000
G01 X86.386722 Y151.619240 Z-0.125000
G01 X84.133834 Y148.755880 Z-0.125000
G01 X82.466923 Y145.920640 Z-0.125000
G01 X81.387839 Y143.089750 Z-0.125000
G01 X80.854838 Y140.102360 Z-0.125000
G01 X80.883698 Y137.112090 Z-0.125000
G01 X81.447779 Y133.992670 Z-0.125000
G01 X82.621120 Y130.626720 Z-0.125000
G01 X84.278384 Y127.441270 Z-0.125000
G01 X86.324752 Y124.542400 Z-0.125000
G01 X88.824425 Y121.853710 Z-0.125000
G01 X91.748548 Y119.452590 Z-0.125000
G01 X94.849968 Y117.507440 Z-0.125000
G01 X98.418218 Y115.833930 Z-0.125000
G01 X102.185560 Y114.581900 Z-0.125000
G01 X106.264750 Y113.719460 Z-0.125000
G01 X110.546010 Y113.296700 Z-0.125000
G01 X114.900660 Y113.338200 Z-0.125000
G01 X119.012500 Y113.816370 Z-0.125000
G01 X122.999470 Y114.731510 Z-0.125000
G01 X126.648180 Y116.046630 Z-0.125000
G01 X129.996930 Y117.780240 Z-0.125000
G01 X132.940260 Y119.886820 Z-0.125000
G01 X135.053520 Y121.979370 Z-0.125000
G01 X136.751700 Y124.292770 Z-0.125000
G01 X138.127390 Y126.938650 Z-0.125000
G01 X139.212770 Y130.088680 Z-0.125000
G01 X139.907770 Y133.537300 Z-0.125000
G01 X140.228110 Y137.213180 Z-0.125000
G01 X139.813510 Y145.349370 Z-0.125000
G01 X139.003110 Y150.039480 Z-0.125000
G01 X137.859530 Y154.497010 Z-0.125000
G01 X136.434410 Y158.612680 Z-0.125000
G01 X134.673780 Y162.494980 Z-0.125000
G01 X132.655530 Y165.917130 Z-0.125000
G01 X130.612050 Y168.526740 Z-0.125000
G01 X128.385690 Y170.530800 Z-0.125000
G01 X126.107110 Y171.815580 Z-0.125000
G01 X123.400350 Y172.528930 Z-0.125000
G01 X120.487270 Y172.550830 Z-0.125000
G01 X117.053150 Y171.889440 Z-0.125000
G01 X113.041230 Y170.521540 Z-0.125000
G01 X107.384940 Y167.973820 Z-0.125000
G01 X101.183210 Y164.645350 Z-0.125000
G01 X96.695831 Y161.813170 Z-0.125000
G01 X92.016486 Y158.308930 Z-0.125000
G01 X84.885235 Y151.758820 Z-0.125000
G01 X82.473049 Y148.836290 Z-0.125000
G01 X80.760213 Y146.084640 Z-0.125000
G01 X79.623144 Y143.343270 Z-0.125000
G01 X79.010728 Y140.443740 Z-0.125000
G01 X78.953118 Y137.371450 Z-0.125000
G01 X79.465335 Y134.140040 Z-0.125000
G01 X80.621606 Y130.621680 Z-0.125000
G01 X82.297612 Y127.261700 Z-0.125000
G01 X84.392500 Y124.179590 Z-0.125000
G01 X86.973169 Y121.303520 Z-0.125000
G01 X90.014282 Y118.721740 Z-0.125000
G01 X93.258670 Y116.620830 Z-0.125000
G01 X96.793156 Y114.894980 Z-0.125000
G01 X100.755330 Y113.504740 Z-0.125000
G01 X105.060610 Y112.529460 Z-0.125000
G01 X109.588270 Y112.022730 Z-0.125000
G01 X114.195640 Y112.007930 Z-0.125000
G01 X118.541560 Y112.448900 Z-0.125000
G01 X122.746090 Y113.333530 Z-0.125000
G01 X126.749670 Y114.685670 Z-0.125000
G01 X130.403400 Y116.497580 Z-0.125000
G01 X133.477620 Y118.629280 Z-0.125000
G01 X135.691180 Y120.766120 Z-0.125000
G01 X137.470810 Y123.148150 Z-0.125000
G01 X138.910510 Y125.892300 Z-0.125000
G01 X139.987830 Y128.976650 Z-0.125000
G01 X140.732260 Y132.576930 Z-0.125000
G01 X141.081480 Y136.435670 Z-0.125000
G01 X141.057380 Y140.699850 Z-0.125000
G01 X140.677550 Y145.028610 Z-0.125000
G01 X139.855730 Y150.000210 Z-0.125000
G01 X138.697790 Y154.728450 Z-0.125000
G01 X137.184230 Y159.289150 Z-0.125000
G01 X135.399140 Y163.379200 Z-0.125000
G01 X133.355640 Y166.986080 Z-0.125000
G01 X131.178550 Y169.864000 Z-0.125000
G01 X128.916200 Y171.942080 Z-0.125000
G01 X126.600500 Y173.251710 Z-0.125000
G01 X123.980970 Y173.928050 Z-0.125000
G01 X121.016110 Y173.917850 Z-0.125000
G01 X117.502570 Y173.181300 Z-0.125000
G01 X113.370880 Y171.700790 Z-0.125000
G01 X107.314620 Y168.890390 Z-0.125000
G01 X100.631400 Y165.258670 Z-0.125000
G01 X95.735619 Y162.154110 Z-0.125000
G01 X90.636366 Y158.355650 Z-0.125000
G01 X83.240422 Y151.752860 Z-0.125000
G01 X80.792054 Y148.915560 Z-0.125000
G01 X78.963247 Y146.118730 Z-0.125000
G01 X77.751128 Y143.322080 Z-0.125000
G01 X77.120062 Y140.507900 Z-0.125000
G01 X77.030072 Y137.343280 Z-0.125000
G01 X77.503880 Y134.171080 Z-0.125000
G01 X78.668688 Y130.500850 Z-0.125000
G01 X80.387648 Y126.969320 Z-0.125000
G01 X82.553418 Y123.709630 Z-0.125000
G01 X85.236602 Y120.654680 Z-0.125000
G01 X88.226133 Y118.046920 Z-0.125000
G01 X91.609408 Y115.781980 Z-0.125000
G01 X95.312388 Y113.913380 Z-0.125000
G01 X99.477645 Y112.400850 Z-0.125000
G01 X104.013280 Y111.330850 Z-0.125000
G01 X108.786630 Y110.759900 Z-0.125000
G01 X113.640230 Y110.707200 Z-0.125000
G01 X118.417640 Y111.159680 Z-0.125000
G01 X122.995790 Y112.098130 Z-0.125000
G01 X127.142520 Y113.468800 Z-0.125000
G01 X130.923520 Y115.302260 Z-0.125000
G01 X134.111220 Y117.473770 Z-0.125000
G01 X136.405670 Y119.670430 Z-0.125000
G01 X138.245340 Y122.137660 Z-0.125000
G01 X139.726050 Y124.997190 Z-0.125000
G01 X140.824230 Y128.226630 Z-0.125000
G01 X141.538430 Y131.778770 Z-0.125000
G01 X141.895520 Y135.830230 Z-0.125000
G01 X141.863520 Y140.321240 Z-0.125000
G01 X141.465780 Y144.889080 Z-0.125000
G01 X140.618370 Y150.138930 Z-0.125000
G01 X139.372930 Y155.356970 Z-0.125000
G01 X137.826920 Y160.138740 Z-0.125000
G01 X136.014540 Y164.415260 Z-0.125000
G01 X133.943760 Y168.184570 Z-0.125000
G01 X131.739110 Y171.187090 Z-0.125000
G01 X129.449680 Y173.338660 Z-0.125000
G01 X127.105310 Y174.671770 Z-0.125000
G01 X124.448290 Y175.326490 Z-0.125000
G01 X121.429540 Y175.252490 Z-0.125000
G01 X117.995240 Y174.461650 Z-0.125000
G01 X113.751000 Y172.869340 Z-0.125000
G01 X107.093090 Y169.687680 Z-0.125000
G01 X99.904324 Y165.726590 Z-0.125000
G01 X94.955856 Y162.579980 Z-0.125000
G01 X89.394652 Y158.491150 Z-0.125000
G01 X81.564423 Y151.734990 Z-0.125000
G01 X79.090913 Y148.997810 Z-0.125000
G01 X77.227501 Y146.310070 Z-0.125000
G01 X75.964722 Y143.628210 Z-0.125000
G01 X75.236335 Y140.768270 Z-0.125000
G01 X75.071196 Y137.704520 Z-0.125000
G01 X75.482843 Y134.440920 Z-0.125000
G01 X76.617032 Y130.629300 Z-0.125000
G01 X78.342766 Y126.926310 Z-0.125000
G01 X80.684163 Y123.291330 Z-0.125000
G01 X83.466617 Y120.051870 Z-0.125000
G01 X86.582416 Y117.277660 Z-0.125000
G01 X90.122855 Y114.862990 Z-0.125000
G01 X94.009440 Y112.868860 Z-0.125000
G01 X98.388929 Y111.254370 Z-0.125000
G01 X103.160400 Y110.112750 Z-0.125000
G01 X107.929650 Y109.518980 Z-0.125000
G01 X113.032080 Y109.426580 Z-0.125000
G01 X118.043670 Y109.858350 Z-0.125000
G01 X122.830460 Y110.779450 Z-0.125000
G01 X127.329370 Y112.193280 Z-0.125000
G01 X131.245650 Y114.016690 Z-0.125000
G01 X134.706100 Y116.310420 Z-0.125000
G01 X137.078960 Y118.560530 Z-0.125000
G01 X138.976410 Y121.107860 Z-0.125000
G01 X140.412600 Y123.881440 Z-0.125000
G01 X141.555230 Y127.229890 Z-0.125000
G01 X142.294660 Y130.933160 Z-0.125000
G01 X142.649900 Y134.918730 Z-0.125000
G01 X142.645900 Y139.361910 Z-0.125000
G01 X142.239350 Y144.435440 Z-0.125000
G01 X141.387470 Y149.976160 Z-0.125000
G01 X140.137510 Y155.489750 Z-0.125000
G01 X138.592230 Y160.540040 Z-0.125000
G01 X136.697360 Y165.243610 Z-0.125000
G01 X134.620750 Y169.200420 Z-0.125000
G01 X132.408040 Y172.362590 Z-0.125000
G01 X130.109780 Y174.627010 Z-0.125000
G01 X127.625780 Y176.074490 Z-0.125000
G01 X124.940010 Y176.705830 Z-0.125000
G01 X121.875330 Y176.565520 Z-0.125000
G01 X118.368000 Y175.673650 Z-0.125000
G01 X114.002880 Y173.945890 Z-0.125000
G01 X106.698880 Y170.348560 Z-0.125000
G01 X98.976657 Y166.032610 Z-0.125000
G01 X93.801057 Y162.710400 Z-0.125000
G01 X87.590335 Y158.177440 Z-0.125000
G01 X79.574459 Y151.436310 Z-0.125000
G01 X77.137409 Y148.806550 Z-0.125000
G01 X75.304523 Y146.226910 Z-0.125000
G01 X73.998508 Y143.496990 Z-0.125000
G01 X73.289882 Y140.732580 Z-0.125000
G01 X73.115563 Y137.761090 Z-0.125000
G01 X73.486389 Y134.583660 Z-0.125000
G01 X74.619372 Y130.628440 Z-0.125000
G01 X76.379805 Y126.755010 Z-0.125000
G01 X78.788372 Y122.926310 Z-0.125000
G01 X81.666570 Y119.496950 Z-0.125000
G01 X84.905949 Y116.549790 Z-0.125000
G01 X88.602251 Y113.978690 Z-0.125000
G01 X92.672160 Y111.852620 Z-0.125000
G01 X97.006476 Y110.212150 Z-0.125000
G01 X102.011360 Y108.963380 Z-0.125000
G01 X107.018780 Y108.300230 Z-0.125000
G01 X112.372800 Y108.166010 Z-0.125000
G01 X117.620150 Y108.576340 Z-0.125000
G01 X122.820430 Y109.527670 Z-0.125000
G01 X127.476050 Y110.928860 Z-0.125000
G01 X131.690970 Y112.822730 Z-0.125000
G01 X135.261550 Y115.138230 Z-0.125000
G01 X137.575960 Y117.286010 Z-0.125000
G01 X139.552270 Y119.879640 Z-0.125000
G01 X141.047740 Y122.726790 Z-0.125000
G01 X142.235370 Y126.187700 Z-0.125000
G01 X143.000680 Y130.037080 Z-0.125000
G01 X143.364920 Y134.198840 Z-0.125000
G01 X143.354720 Y138.854340 Z-0.125000
G01 X142.933240 Y144.183620 Z-0.125000
G01 X142.011970 Y150.282820 Z-0.125000
G01 X140.734170 Y156.060400 Z-0.125000
G01 X139.173390 Y161.335560 Z-0.125000
G01 X137.270540 Y166.234060 Z-0.125000
G01 X135.186700 Y170.354340 Z-0.125000
G01 X132.965360 Y173.644480 Z-0.125000
G01 X130.658460 Y175.984760 Z-0.125000
G01 X128.162980 Y177.455990 Z-0.125000
G01 X125.457160 Y178.062480 Z-0.125000
G01 X122.354620 Y177.854750 Z-0.125000
G01 X118.780410 Y176.862420 Z-0.125000
G01 X114.109780 Y174.913720 Z-0.125000
G01 X106.105220 Y170.855890 Z-0.125000
G01 X97.819014 Y166.159940 Z-0.125000
G01 X92.213489 Y162.511040 Z-0.125000
G01 X85.142262 Y157.389310 Z-0.125000
G01 X77.526441 Y151.133310 Z-0.125000
G01 X75.141718 Y148.622790 Z-0.125000
G01 X73.351876 Y146.160410 Z-0.125000
G01 X72.066553 Y143.545430 Z-0.125000
G01 X71.352730 Y140.898030 Z-0.125000
G01 X71.144082 Y137.858050 Z-0.125000
G01 X71.474275 Y134.781400 Z-0.125000
G01 X72.602249 Y130.686160 Z-0.125000
G01 X74.507502 Y126.428550 Z-0.125000
G01 X76.866806 Y122.617200 Z-0.125000
G01 X79.837038 Y118.992370 Z-0.125000
G01 X83.197120 Y115.865700 Z-0.125000
G01 X87.047336 Y113.131210 Z-0.125000
G01 X91.040987 Y110.985840 Z-0.125000
G01 X95.565875 Y109.206850 Z-0.125000
G01 X100.527150 Y107.898450 Z-0.125000
G01 X105.778840 Y107.129030 Z-0.125000
G01 X111.400990 Y106.921100 Z-0.125000
G01 X116.906520 Y107.285990 Z-0.125000
G01 X122.561340 Y108.245680 Z-0.125000
G01 X127.580250 Y109.677210 Z-0.125000
G01 X131.923670 Y111.539330 Z-0.125000
G01 X135.614960 Y113.835260 Z-0.125000
G01 X138.017690 Y115.990630 Z-0.125000
G01 X140.072760 Y118.620570 Z-0.125000
G01 X141.627880 Y121.532820 Z-0.125000
G01 X142.797230 Y124.862660 Z-0.125000
G01 X143.616560 Y128.828370 Z-0.125000
G01 X144.015770 Y133.144070 Z-0.125000
G01 X144.027070 Y137.998660 Z-0.125000
G01 X143.644930 Y143.286720 Z-0.125000
G01 X142.794530 Y149.420270 Z-0.125000
G01 X141.487960 Y155.811890 Z-0.125000
G01 X139.880050 Y161.632310 Z-0.125000
G01 X138.004120 Y166.782520 Z-0.125000
G01 X135.847710 Y171.301390 Z-0.125000
G01 X133.637880 Y174.758330 Z-0.125000
G01 X131.341010 Y177.219010 Z-0.125000
G01 X128.853400 Y178.760030 Z-0.125000
G01 X126.148330 Y179.384870 Z-0.125000
G01 X123.030480 Y179.149690 Z-0.125000
G01 X119.412580 Y178.091140 Z-0.125000
G01 X114.643040 Y176.034820 Z-0.125000
G01 X105.943870 Y171.549380 Z-0.125000
G01 X97.292223 Y166.630830 Z-0.125000
G01 X91.414301 Y162.827560 Z-0.125000
G01 X82.960986 Y156.839860 Z-0.125000
G01 X75.425044 Y150.835660 Z-0.125000
G01 X73.109068 Y148.453360 Z-0.125000
G01 X71.374708 Y146.115570 Z-0.125000
G01 X70.119258 Y143.623340 Z-0.125000
G01 X69.406366 Y141.102320 Z-0.125000
G01 X69.160139 Y138.187550 Z-0.125000
G01 X69.418518 Y135.239300 Z-0.125000
G01 X70.496303 Y131.021980 Z-0.125000
G01 X72.392280 Y126.591000 Z-0.125000
G01 X74.925722 Y122.366060 Z-0.125000
G01 X77.984280 Y118.540320 Z-0.125000
G01 X81.461723 Y115.227470 Z-0.125000
G01 X85.215450 Y112.479960 Z-0.125000
G01 X89.358658 Y110.167910 Z-0.125000
G01 X94.072158 Y108.240660 Z-0.125000
G01 X99.254899 Y106.813210 Z-0.125000
G01 X104.748820 Y105.960770 Z-0.125000
G01 X110.356400 Y105.701360 Z-0.125000
G01 X116.125060 Y106.018670 Z-0.125000
G01 X122.033140 Y106.937700 Z-0.125000
G01 X127.449890 Y108.374720 Z-0.125000
G01 X132.110510 Y110.259650 Z-0.125000
G01 X136.081150 Y112.643460 Z-0.125000
G01 X138.551120 Y114.826100 Z-0.125000
G01 X140.539890 Y117.331170 Z-0.125000
G01 X142.155300 Y120.299450 Z-0.125000
G01 X143.369010 Y123.718720 Z-0.125000
G01 X144.177730 Y127.548070 Z-0.125000
G01 X144.615180 Y132.009290 Z-0.125000
G01 X144.648380 Y137.057440 Z-0.125000
G01 X144.276720 Y142.583280 Z-0.125000
G01 X143.382910 Y149.319140 Z-0.125000
G01 X142.074300 Y156.017980 Z-0.125000
G01 X140.480860 Y162.108450 Z-0.125000
G01 X138.631090 Y167.485120 Z-0.125000
G01 X136.502430 Y172.203540 Z-0.125000
G01 X134.204640 Y175.982510 Z-0.125000
G01 X131.918360 Y178.522160 Z-0.125000
G01 X129.438450 Y180.088410 Z-0.125000
G01 X126.731790 Y180.689220 Z-0.125000
G01 X123.592890 Y180.388440 Z-0.125000
G01 X119.744710 Y179.164180 Z-0.125000
G01 X114.638300 Y176.850510 Z-0.125000
G01 X105.129750 Y171.845330 Z-0.125000
G01 X96.322982 Y166.800610 Z-0.125000
G01 X79.279056 Y155.270000 Z-0.125000
G01 X72.819040 Y150.135760 Z-0.125000
G01 X70.792618 Y148.017120 Z-0.125000
G01 X69.184157 Y145.791860 Z-0.125000
G01 X68.029831 Y143.404380 Z-0.125000
G01 X67.384853 Y140.990710 Z-0.125000
G01 X67.169897 Y138.375880 Z-0.125000
G01 X67.389686 Y135.556340 Z-0.125000
G01 X68.452809 Y131.209200 Z-0.125000
G01 X70.374670 Y126.601550 Z-0.125000
G01 X72.965821 Y122.174470 Z-0.125000
G01 X76.108897 Y118.142580 Z-0.125000
G01 X79.700360 Y114.636670 Z-0.125000
G01 X83.593720 Y111.720790 Z-0.125000
G01 X87.905128 Y109.262410 Z-0.125000
G01 X92.820788 Y107.211490 Z-0.125000
G01 X98.231585 Y105.692660 Z-0.125000
G01 X103.666400 Y104.817300 Z-0.125000
G01 X109.522620 Y104.506340 Z-0.125000
G01 X115.535450 Y104.799410 Z-0.125000
G01 X121.899260 Y105.744900 Z-0.125000
G01 X127.668470 Y107.217530 Z-0.125000
G01 X132.614550 Y109.158680 Z-0.125000
G01 X136.502530 Y111.442380 Z-0.125000
G01 X139.037080 Y113.644610 Z-0.125000
G01 X141.074640 Y116.197340 Z-0.125000
G01 X142.723830 Y119.245020 Z-0.125000
G01 X143.954890 Y122.776480 Z-0.125000
G01 X144.765100 Y126.749170 Z-0.125000
G01 X145.175730 Y131.092600 Z-0.125000
G01 X145.219030 Y136.028100 Z-0.125000
G01 X144.860450 Y141.788950 Z-0.125000
G01 X143.976300 Y148.841810 Z-0.125000
G01 X142.622890 Y156.167870 Z-0.125000
G01 X140.980000 Y162.792300 Z-0.125000
G01 X139.157120 Y168.364820 Z-0.125000
G01 X137.055460 Y173.255520 Z-0.125000
G01 X134.780220 Y177.174570 Z-0.125000
G01 X132.514160 Y179.793740 Z-0.125000
G01 X130.051400 Y181.385050 Z-0.125000
G01 X127.352080 Y181.961670 Z-0.125000
G01 X124.199910 Y181.596200 Z-0.125000
G01 X120.300990 Y180.274340 Z-0.125000
G01 X115.075270 Y177.831430 Z-0.125000
G01 X95.818094 Y167.222550 Z-0.125000
G01 X76.053216 Y154.141100 Z-0.125000
G01 X70.309989 Y149.597100 Z-0.125000
G01 X68.442493 Y147.602880 Z-0.125000
G01 X67.063468 Y145.645930 Z-0.125000
G01 X65.987447 Y143.378410 Z-0.125000
G01 X65.384587 Y141.091370 Z-0.125000
G01 X65.172970 Y138.610410 Z-0.125000
G01 X65.355655 Y135.932060 Z-0.125000
G01 X66.400409 Y131.459250 Z-0.125000
G01 X68.345094 Y126.675950 Z-0.125000
G01 X70.990983 Y122.044470 Z-0.125000
G01 X74.214680 Y117.801180 Z-0.125000
G01 X77.916365 Y114.095400 Z-0.125000
G01 X81.946753 Y111.003710 Z-0.125000
G01 X86.424879 Y108.391780 Z-0.125000
G01 X91.233942 Y106.320940 Z-0.125000
G01 X96.866008 Y104.666060 Z-0.125000
G01 X102.533320 Y103.699250 Z-0.125000
G01 X108.343240 Y103.335470 Z-0.125000
G01 X114.628110 Y103.576420 Z-0.125000
G01 X121.259850 Y104.483220 Z-0.125000
G01 X127.651120 Y106.012170 Z-0.125000
G01 X132.712980 Y107.885040 Z-0.125000
G01 X136.878560 Y110.231710 Z-0.125000
G01 X139.323110 Y112.291170 Z-0.125000
G01 X141.432670 Y114.850220 Z-0.125000
G01 X143.142620 Y117.936430 Z-0.125000
G01 X144.348070 Y121.286120 Z-0.125000
G01 X145.216730 Y125.339620 Z-0.125000
G01 X145.668470 Y129.803730 Z-0.125000
G01 X145.738770 Y134.908490 Z-0.125000
G01 X145.425180 Y140.563940 Z-0.125000
G01 X144.572830 Y147.939740 Z-0.125000
G01 X143.195850 Y155.951730 Z-0.125000
G01 X141.598790 Y162.901040 Z-0.125000
G01 X139.754780 Y168.972980 Z-0.125000
G01 X137.609420 Y174.270410 Z-0.125000
G01 X135.367660 Y178.330840 Z-0.125000
G01 X133.131480 Y181.030000 Z-0.125000
G01 X130.695730 Y182.646360 Z-0.125000
G01 X128.153470 Y183.195020 Z-0.125000
G01 X125.014100 Y182.811680 Z-0.125000
G01 X121.275410 Y181.510960 Z-0.125000
G01 X115.989850 Y179.006920 Z-0.125000
G01 X95.839884 Y167.934150 Z-0.125000
G01 X73.119611 Y153.325310 Z-0.125000
G01 X67.906234 Y149.228310 Z-0.125000
G01 X64.924495 Y145.530710 Z-0.125000
G01 X63.933550 Y143.386100 Z-0.125000
G01 X63.377355 Y141.231550 Z-0.125000
G01 X63.171957 Y138.893120 Z-0.125000
G01 X63.319382 Y136.367390 Z-0.125000
G01 X64.418130 Y131.532430 Z-0.125000
G01 X66.428502 Y126.561750 Z-0.125000
G01 X69.168280 Y121.724580 Z-0.125000
G01 X72.510267 Y117.277900 Z-0.125000
G01 X76.112772 Y113.605360 Z-0.125000
G01 X80.277133 Y110.330360 Z-0.125000
G01 X84.920031 Y107.557190 Z-0.125000
G01 X89.917983 Y105.355680 Z-0.125000
G01 X95.450139 Y103.673920 Z-0.125000
G01 X101.350870 Y102.607460 Z-0.125000
G01 X107.402110 Y102.184960 Z-0.125000
G01 X113.653840 Y102.376550 Z-0.125000
G01 X120.804670 Y103.290190 Z-0.125000
G01 X127.802330 Y104.884460 Z-0.125000
G01 X133.143730 Y106.784610 Z-0.125000
G01 X137.383800 Y109.133450 Z-0.125000
G01 X139.864180 Y111.229090 Z-0.125000
G01 X141.994130 Y113.856860 Z-0.125000
G01 X143.607050 Y116.815860 Z-0.125000
G01 X144.829100 Y120.258250 Z-0.125000
G01 X145.656280 Y124.150120 Z-0.125000
G01 X146.125370 Y128.750710 Z-0.125000
G01 X146.207570 Y133.697090 Z-0.125000
G01 X145.912080 Y139.564260 Z-0.125000
G01 X145.028560 Y147.602130 Z-0.125000
G01 X143.668740 Y155.964340 Z-0.125000
G01 X142.048030 Y163.491460 Z-0.125000
G01 X140.258840 Y169.767800 Z-0.125000
G01 X138.167470 Y175.244570 Z-0.125000
G01 X135.969980 Y179.447600 Z-0.125000
G01 X133.773780 Y182.227550 Z-0.125000
G01 X131.374300 Y183.869130 Z-0.125000
G01 X128.995520 Y184.392180 Z-0.125000
G01 X126.037160 Y184.036870 Z-0.125000
G01 X122.312190 Y182.727880 Z-0.125000
G01 X117.192700 Y180.283620 Z-0.125000
G01 X96.191596 Y168.810960 Z-0.125000
G01 X70.303025 Y152.691830 Z-0.125000
G01 X65.614574 Y149.036620 Z-0.125000
G01 X62.863292 Y145.609840 Z-0.125000
G01 X61.933394 Y143.605330 Z-0.125000
G01 X61.399281 Y141.603760 Z-0.125000
G01 X61.284152 Y136.863550 Z-0.125000
G01 X62.280478 Y132.152070 Z-0.125000
G01 X64.261622 Y127.021560 Z-0.125000
G01 X67.176191 Y121.710570 Z-0.125000
G01 X70.592862 Y117.041890 Z-0.125000
G01 X74.292504 Y113.168380 Z-0.125000
G01 X78.587585 Y109.702440 Z-0.125000
G01 X83.393120 Y106.760120 Z-0.125000
G01 X88.578947 Y104.420690 Z-0.125000
G01 X94.326906 Y102.632490 Z-0.125000
G01 X100.120390 Y101.542850 Z-0.125000
G01 X106.415250 Y101.056030 Z-0.125000
G01 X112.909210 Y101.219850 Z-0.125000
G01 X120.306000 Y102.119980 Z-0.125000
G01 X127.709270 Y103.713850 Z-0.125000
G01 X133.345990 Y105.600110 Z-0.125000
G01 X137.670200 Y107.901680 Z-0.125000
G01 X140.203550 Y109.993980 Z-0.125000
G01 X142.245380 Y112.453110 Z-0.125000
G01 X143.915630 Y115.430850 Z-0.125000
G01 X145.183230 Y118.924800 Z-0.125000
G01 X146.042520 Y122.902710 Z-0.125000
G01 X146.511590 Y127.304020 Z-0.125000
G01 X146.625360 Y132.392590 Z-0.125000
G01 X146.351020 Y138.464720 Z-0.125000
G01 X145.533660 Y146.470400 Z-0.125000
G01 X144.163250 Y155.574240 Z-0.125000
G01 X142.543190 Y163.747930 Z-0.125000
G01 X140.756520 Y170.518290 Z-0.125000
G01 X138.732310 Y176.174010 Z-0.125000
G01 X136.590310 Y180.521160 Z-0.125000
G01 X134.443830 Y183.382580 Z-0.125000
G01 X132.090280 Y185.049670 Z-0.125000
G01 X129.742380 Y185.554360 Z-0.125000
G01 X127.109680 Y185.228250 Z-0.125000
G01 X123.771950 Y184.074380 Z-0.125000
G01 X118.900730 Y181.768710 Z-0.125000
G01 X97.183765 Y170.026400 Z-0.125000
G01 X67.820813 Y152.376330 Z-0.125000
G01 X63.442144 Y149.027300 Z-0.125000
G01 X60.792174 Y145.730220 Z-0.125000
G01 X59.929537 Y143.868930 Z-0.125000
G01 X59.386982 Y141.833150 Z-0.125000
G01 X59.252922 Y137.421170 Z-0.125000
G01 X60.294892 Y132.341490 Z-0.125000
G01 X62.339680 Y127.021130 Z-0.125000
G01 X65.351386 Y121.485620 Z-0.125000
G01 X68.883845 Y116.602360 Z-0.125000
G01 X72.717178 Y112.543120 Z-0.125000
G01 X77.176377 Y108.909230 Z-0.125000
G01 X81.846368 Y106.001710 Z-0.125000
G01 X87.218765 Y103.516720 Z-0.125000
G01 X92.828023 Y101.706360 Z-0.125000
G01 X98.843150 Y100.506020 Z-0.125000
G01 X105.048210 Y99.959860 Z-0.125000
G01 X111.816520 Y100.062540 Z-0.125000
G01 X119.765690 Y100.972670 Z-0.125000
G01 X127.792600 Y102.617860 Z-0.125000
G01 X133.505680 Y104.417260 Z-0.125000
G01 X137.908650 Y106.659110 Z-0.125000
G01 X140.330860 Y108.583580 Z-0.125000
G01 X142.438080 Y111.021260 Z-0.125000
G01 X144.166790 Y114.006820 Z-0.125000
G01 X145.402010 Y117.271710 Z-0.125000
G01 X146.325510 Y121.291050 Z-0.125000
G01 X146.843200 Y125.774370 Z-0.125000
G01 X146.791500 Y136.513040 Z-0.125000
G01 X146.035280 Y144.825520 Z-0.125000
G01 X144.673130 Y154.732190 Z-0.125000
G01 X143.013460 Y163.937280 Z-0.125000
G01 X141.324200 Y170.962180 Z-0.125000
G01 X139.395460 Y176.827330 Z-0.125000
G01 X137.331200 Y181.369920 Z-0.125000
G01 X135.144820 Y184.491860 Z-0.125000
G01 X132.846570 Y186.185020 Z-0.125000
G01 X130.672720 Y186.669140 Z-0.125000
G01 X128.231320 Y186.381620 Z-0.125000
G01 X125.109120 Y185.314880 Z-0.125000
G01 X120.684800 Y183.237630 Z-0.125000
G01 X98.597559 Y171.439340 Z-0.125000
G01 X81.156743 Y161.019280 Z-0.125000
G01 X65.286979 Y152.115520 Z-0.125000
G01 X61.249168 Y149.064580 Z-0.125000
G01 X58.715170 Y145.894410 Z-0.125000
G01 X57.412403 Y142.304610 Z-0.125000
G01 X57.229070 Y138.040980 Z-0.125000
G01 X58.160821 Y133.108150 Z-0.125000
G01 X60.293565 Y127.352680 Z-0.125000
G01 X63.354257 Y121.591920 Z-0.125000
G01 X66.955370 Y116.476220 Z-0.125000
G01 X70.879437 Y112.203510 Z-0.125000
G01 X75.464072 Y108.364060 Z-0.125000
G01 X80.282317 Y105.283320 Z-0.125000
G01 X85.839528 Y102.644690 Z-0.125000
G01 X91.650849 Y100.720110 Z-0.125000
G01 X97.520612 Y99.498070 Z-0.125000
G01 X103.611440 Y98.892610 Z-0.125000
G01 X110.339860 Y98.909210 Z-0.125000
G01 X118.373270 Y99.724630 Z-0.125000
G01 X127.406990 Y101.433550 Z-0.125000
G01 X133.622540 Y103.235640 Z-0.125000
G01 X138.098730 Y105.405030 Z-0.125000
G01 X140.566390 Y107.310570 Z-0.125000
G01 X142.713230 Y109.755790 Z-0.125000
G01 X144.472270 Y112.779550 Z-0.125000
G01 X145.725390 Y116.109850 Z-0.125000
G01 X146.603710 Y119.920080 Z-0.125000
G01 X147.145890 Y124.504820 Z-0.125000
G01 X147.133090 Y135.183360 Z-0.125000
G01 X146.358970 Y144.187680 Z-0.125000
G01 X144.976780 Y154.851760 Z-0.125000
G01 X143.399780 Y164.370050 Z-0.125000
G01 X141.743710 Y171.872960 Z-0.125000
G01 X139.894210 Y177.885620 Z-0.125000
G01 X137.896560 Y182.524890 Z-0.125000
G01 X135.772830 Y185.669100 Z-0.125000
G01 X133.526420 Y187.323460 Z-0.125000
G01 X131.515220 Y187.741330 Z-0.125000
G01 X129.251020 Y187.455750 Z-0.125000
G01 X126.327820 Y186.447480 Z-0.125000
G01 X122.330830 Y184.577380 Z-0.125000
G01 X100.758850 Y173.218590 Z-0.125000
G01 X80.449222 Y161.371520 Z-0.125000
G01 X62.913289 Y152.042010 Z-0.125000
G01 X59.189340 Y149.290940 Z-0.125000
G01 X56.729377 Y146.269860 Z-0.125000
G01 X55.444702 Y142.828790 Z-0.125000
G01 X55.215080 Y138.723420 Z-0.125000
G01 X56.108146 Y133.686310 Z-0.125000
G01 X58.249702 Y127.752710 Z-0.125000
G01 X61.538345 Y121.464250 Z-0.125000
G01 X65.252553 Y116.122840 Z-0.125000
G01 X69.307807 Y111.652610 Z-0.125000
G01 X73.739268 Y107.867700 Z-0.125000
G01 X78.702615 Y104.605500 Z-0.125000
G01 X84.442687 Y101.805030 Z-0.125000
G01 X90.455242 Y99.759240 Z-0.125000
G01 X96.531154 Y98.459430 Z-0.125000
G01 X102.830820 Y97.815020 Z-0.125000
G01 X109.440300 Y97.814020 Z-0.125000
G01 X118.012840 Y98.664500 Z-0.125000
G01 X127.860490 Y100.473010 Z-0.125000
G01 X134.099320 Y102.200960 Z-0.125000
G01 X138.427700 Y104.259560 Z-0.125000
G01 X140.918470 Y106.176510 Z-0.125000
G01 X142.936170 Y108.466500 Z-0.125000
G01 X144.611990 Y111.282820 Z-0.125000
G01 X145.913180 Y114.632140 Z-0.125000
G01 X146.828980 Y118.493960 Z-0.125000
G01 X147.371530 Y122.821050 Z-0.125000
G01 X147.448630 Y133.355250 Z-0.125000
G01 X146.765790 Y142.250550 Z-0.125000
G01 X145.403280 Y153.783300 Z-0.125000
G01 X143.771810 Y164.753170 Z-0.125000
G01 X142.238950 Y172.473340 Z-0.125000
G01 X140.497180 Y178.663930 Z-0.125000
G01 X138.588390 Y183.451400 Z-0.125000
G01 X136.547490 Y186.682230 Z-0.125000
G01 X134.374020 Y188.361300 Z-0.125000
G01 X132.669080 Y188.757730 Z-0.125000
G01 X130.618990 Y188.558070 Z-0.125000
G01 X128.116820 Y187.753410 Z-0.125000
G01 X124.447520 Y186.088260 Z-0.125000
G01 X100.051070 Y173.395430 Z-0.125000
G01 X78.834911 Y161.237290 Z-0.125000
G01 X60.507968 Y152.033410 Z-0.125000
G01 X56.970313 Y149.433820 Z-0.125000
G01 X54.747207 Y146.699140 Z-0.125000
G01 X53.487675 Y143.410120 Z-0.125000
G01 X53.215100 Y139.471860 Z-0.125000
G01 X54.064932 Y134.334750 Z-0.125000
G01 X56.081793 Y128.528450 Z-0.125000
G01 X59.181729 Y122.324120 Z-0.125000
G01 X63.090862 Y116.417240 Z-0.125000
G01 X67.183225 Y111.698710 Z-0.125000
G01 X72.005645 Y107.424590 Z-0.125000
G01 X77.110847 Y103.972770 Z-0.125000
G01 X82.650337 Y101.164340 Z-0.125000
G01 X88.458691 Y99.054880 Z-0.125000
G01 X94.744101 Y97.575640 Z-0.125000
G01 X101.284610 Y96.801060 Z-0.125000
G01 X107.811790 Y96.708660 Z-0.125000
G01 X116.474230 Y97.462370 Z-0.125000
G01 X127.845270 Y99.422910 Z-0.125000
G01 X134.134110 Y101.013760 Z-0.125000
G01 X138.522990 Y102.980880 Z-0.125000
G01 X140.884330 Y104.711340 Z-0.125000
G01 X142.961860 Y106.953750 Z-0.125000
G01 X144.694920 Y109.747980 Z-0.125000
G01 X145.956590 Y112.827430 Z-0.125000
G01 X146.881480 Y116.374250 Z-0.125000
G01 X147.510510 Y120.704410 Z-0.125000
G01 X147.729360 Y130.995070 Z-0.125000
G01 X147.160280 Y139.719300 Z-0.125000
G01 X145.880340 Y151.765180 Z-0.125000
G01 X144.181410 Y164.745710 Z-0.125000
G01 X142.679450 Y173.294970 Z-0.125000
G01 X141.042230 Y179.632400 Z-0.125000
G01 X139.221780 Y184.512360 Z-0.125000
G01 X137.361520 Y187.638540 Z-0.125000
G01 X135.269790 Y189.343310 Z-0.125000
G01 X133.737400 Y189.723510 Z-0.125000
G01 X131.883810 Y189.570980 Z-0.125000
G01 X126.408530 Y187.447210 Z-0.125000
G01 X100.919450 Y174.413070 Z-0.125000
G01 X78.792606 Y161.949420 Z-0.125000
G01 X58.282912 Y152.210300 Z-0.125000
G01 X54.896485 Y149.769470 Z-0.125000
G01 X52.771629 Y147.179520 Z-0.125000
G01 X51.543919 Y144.045250 Z-0.125000
G01 X51.232283 Y140.282330 Z-0.125000
G01 X52.106701 Y134.766600 Z-0.125000
G01 X54.316724 Y128.450390 Z-0.125000
G01 X57.752976 Y121.668790 Z-0.125000
G01 X61.640396 Y115.848780 Z-0.125000
G01 X65.907457 Y110.943120 Z-0.125000
G01 X70.598138 Y106.769310 Z-0.125000
G01 X75.876644 Y103.161240 Z-0.125000
G01 X81.606604 Y100.230980 Z-0.125000
G01 X87.612107 Y98.039340 Z-0.125000
G01 X93.697956 Y96.587850 Z-0.125000
G01 X100.060810 Y95.789150 Z-0.125000
G01 X106.814640 Y95.648960 Z-0.125000
G01 X116.049400 Y96.438480 Z-0.125000
G01 X128.890110 Y98.595050 Z-0.125000
G01 X134.743190 Y100.021620 Z-0.125000
G01 X138.762160 Y101.803090 Z-0.125000
G01 X141.141140 Y103.533560 Z-0.125000
G01 X143.228780 Y105.803890 Z-0.125000
G01 X144.843370 Y108.415250 Z-0.125000
G01 X146.126000 Y111.532740 Z-0.125000
G01 X147.063700 Y115.144510 Z-0.125000
G01 X147.661910 Y119.216460 Z-0.125000
G01 X147.929570 Y129.326480 Z-0.125000
G01 X147.430170 Y137.861730 Z-0.125000
G01 X146.301450 Y149.521300 Z-0.125000
G01 X144.482100 Y165.347250 Z-0.125000
G01 X143.138790 Y174.069820 Z-0.125000
G01 X141.689910 Y180.299450 Z-0.125000
G01 X139.980040 Y185.328240 Z-0.125000
G01 X138.217280 Y188.537260 Z-0.125000
G01 X136.215640 Y190.268400 Z-0.125000
G01 X134.853030 Y190.632980 Z-0.125000
G01 X133.194280 Y190.528170 Z-0.125000
G01 X128.409350 Y188.747890 Z-0.125000
G01 X101.883390 Y175.458600 Z-0.125000
G01 X78.155416 Y162.346050 Z-0.125000
G01 X56.249071 Y152.570040 Z-0.125000
G01 X52.975828 Y150.300620 Z-0.125000
G01 X50.907938 Y147.881600 Z-0.125000
G01 X49.616306 Y144.736940 Z-0.125000
G01 X49.269694 Y141.156800 Z-0.125000
G01 X50.018491 Y135.832050 Z-0.125000
G01 X52.164869 Y129.375210 Z-0.125000
G01 X55.398126 Y122.703660 Z-0.125000
G01 X59.480285 Y116.285670 Z-0.125000
G01 X63.773231 Y111.119610 Z-0.125000
G01 X68.522543 Y106.691420 Z-0.125000
G01 X73.899302 Y102.835250 Z-0.125000
G01 X79.766757 Y99.679180 Z-0.125000
G01 X85.525381 Y97.431490 Z-0.125000
G01 X91.803371 Y95.783580 Z-0.125000
G01 X98.394825 Y94.834950 Z-0.125000
G01 X105.034820 Y94.592990 Z-0.125000
G01 X114.368570 Y95.272600 Z-0.125000
G01 X129.458370 Y97.663800 Z-0.125000
G01 X134.904060 Y98.880460 Z-0.125000
G01 X138.762620 Y100.496830 Z-0.125000
G01 X141.176850 Y102.182780 Z-0.125000
G01 X143.147880 Y104.237830 Z-0.125000
G01 X144.817850 Y106.810520 Z-0.125000
G01 X146.054190 Y109.636680 Z-0.125000
G01 X146.994860 Y112.904540 Z-0.125000
G01 X147.684830 Y116.946060 Z-0.125000
G01 X148.103250 Y126.714480 Z-0.125000
G01 X146.966840 Y143.939710 Z-0.125000
G01 X144.749840 Y166.253320 Z-0.125000
G01 X143.572520 Y175.085550 Z-0.125000
G01 X142.228750 Y181.427560 Z-0.125000
G01 X140.695150 Y186.283450 Z-0.125000
G01 X139.028330 Y189.500320 Z-0.125000
G01 X137.213360 Y191.134660 Z-0.125000
G01 X136.016440 Y191.483480 Z-0.125000
G01 X134.548920 Y191.425980 Z-0.125000
G01 X130.261910 Y189.898630 Z-0.125000
G01 X102.602680 Y176.357260 Z-0.125000
G01 X77.905663 Y162.937710 Z-0.125000
G01 X71.184201 Y159.899120 Z-0.125000
G01 X58.228825 Y154.845220 Z-0.125000
G01 X53.998503 Y152.878620 Z-0.125000
G01 X51.063523 Y150.889690 Z-0.125000
G01 X48.956667 Y148.473700 Z-0.125000
G01 X47.707804 Y145.486410 Z-0.125000
G01 X47.330668 Y142.095960 Z-0.125000
G01 X48.021201 Y136.683670 Z-0.125000
G01 X50.161181 Y130.055940 Z-0.125000
G01 X53.624244 Y122.802960 Z-0.125000
G01 X57.818105 Y116.125300 Z-0.125000
G01 X62.233328 Y110.737850 Z-0.125000
G01 X67.126166 Y106.114450 Z-0.125000
G01 X72.671873 Y102.088240 Z-0.125000
G01 X78.726363 Y98.797370 Z-0.125000
G01 X84.666739 Y96.461810 Z-0.125000
G01 X90.705362 Y94.849920 Z-0.125000
G01 X97.080381 Y93.876690 Z-0.125000
G01 X103.942000 Y93.571440 Z-0.125000
G01 X113.240780 Y94.201320 Z-0.125000
G01 X131.045410 Y96.881530 Z-0.125000
G01 X135.443000 Y97.850120 Z-0.125000
G01 X138.911250 Y99.285200 Z-0.125000
G01 X141.162840 Y100.812550 Z-0.125000
G01 X143.165980 Y102.840450 Z-0.125000
G01 X144.865910 Y105.409900 Z-0.125000
G01 X146.125450 Y108.256360 Z-0.125000
G01 X147.083280 Y111.568310 Z-0.125000
G01 X147.738730 Y115.323140 Z-0.125000
G01 X148.212090 Y124.834200 Z-0.125000
G01 X147.461890 Y138.808000 Z-0.125000
G01 X144.917130 Y168.507370 Z-0.125000
G01 X144.045770 Y176.060010 Z-0.125000
G01 X142.878290 Y182.250040 Z-0.125000
G01 X141.458610 Y187.183420 Z-0.125000
G01 X139.895810 Y190.402580 Z-0.125000
G01 X138.165620 Y191.988960 Z-0.125000
G01 X137.117700 Y192.286770 Z-0.125000
G01 X135.821330 Y192.241270 Z-0.125000
G01 X132.151570 Y190.983680 Z-0.125000
G01 X103.749210 Y177.458480 Z-0.125000
G01 X83.737677 Y166.589440 Z-0.125000
G01 X77.341399 Y163.380330 Z-0.125000
G01 X69.952226 Y160.198750 Z-0.125000
G01 X56.248791 Y155.258660 Z-0.125000
G01 X51.953155 Y153.370310 Z-0.125000
G01 X49.003240 Y151.402890 Z-0.125000
G01 X47.021444 Y149.122640 Z-0.125000
G01 X45.821289 Y146.294060 Z-0.125000
G01 X45.416323 Y142.850490 Z-0.125000
G01 X46.113071 Y137.301820 Z-0.125000
G01 X48.311315 Y130.462330 Z-0.125000
G01 X51.872531 Y122.945960 Z-0.125000
G01 X56.177446 Y116.002860 Z-0.125000
G01 X60.714117 Y110.388610 Z-0.125000
G01 X65.749274 Y105.564870 Z-0.125000
G01 X71.462718 Y101.363520 Z-0.125000
G01 X77.274412 Y98.136380 Z-0.125000
G01 X83.381137 Y95.655640 Z-0.125000
G01 X89.596128 Y93.938910 Z-0.125000
G01 X96.158743 Y92.899040 Z-0.125000
G01 X102.814590 Y92.567200 Z-0.125000
G01 X112.064100 Y93.143440 Z-0.125000
G01 X132.158520 Y95.974790 Z-0.125000
G01 X135.945840 Y96.797620 Z-0.125000
G01 X139.015620 Y98.054270 Z-0.125000
G01 X141.279830 Y99.568470 Z-0.125000
G01 X143.135450 Y101.416770 Z-0.125000
G01 X144.735290 Y103.740530 Z-0.125000
G01 X146.047240 Y106.556550 Z-0.125000
G01 X146.974250 Y109.542950 Z-0.125000
G01 X147.697820 Y113.278590 Z-0.125000
G01 X148.278970 Y122.428750 Z-0.125000
G01 X147.835030 Y133.820930 Z-0.125000
G01 X144.564200 Y176.991540 Z-0.125000
G01 X143.570290 Y183.019670 Z-0.125000
G01 X142.273840 Y188.025690 Z-0.125000
G01 X140.900660 Y191.120340 Z-0.125000
G01 X139.276520 Y192.731300 Z-0.125000
G01 X137.384240 Y193.026520 Z-0.125000
G01 X134.698640 Y192.256190 Z-0.125000
G01 X111.057490 Y181.468710 Z-0.125000
G01 X100.953320 Y176.567990 Z-0.125000
G01 X83.481427 Y167.106030 Z-0.125000
G01 X75.239087 Y163.152070 Z-0.125000
G01 X68.339310 Y160.396620 Z-0.125000
G01 X54.258832 Y155.740480 Z-0.125000
G01 X49.910498 Y153.929370 Z-0.125000
G01 X47.114501 Y152.113100 Z-0.125000
G01 X45.105707 Y149.828460 Z-0.125000
G01 X43.959826 Y147.159950 Z-0.125000
G01 X43.529622 Y143.916020 Z-0.125000
G01 X44.159295 Y138.283660 Z-0.125000
G01 X46.344454 Y131.273120 Z-0.125000
G01 X50.145593 Y123.131610 Z-0.125000
G01 X54.561003 Y115.917620 Z-0.125000
G01 X58.900249 Y110.424790 Z-0.125000
G01 X64.025767 Y105.359210 Z-0.125000
G01 X69.862605 Y100.928960 Z-0.125000
G01 X75.817174 Y97.513390 Z-0.125000
G01 X81.632953 Y95.040610 Z-0.125000
G01 X88.020694 Y93.154950 Z-0.125000
G01 X94.340433 Y92.039790 Z-0.125000
G01 X101.238600 Y91.583860 Z-0.125000
G01 X110.133240 Y92.020470 Z-0.125000
G01 X124.334330 Y94.064720 Z-0.125000
G01 X132.814080 Y94.959260 Z-0.125000
G01 X136.200330 Y95.658330 Z-0.125000
G01 X138.877300 Y96.700560 Z-0.125000
G01 X141.171560 Y98.155230 Z-0.125000
G01 X143.057520 Y99.966660 Z-0.125000
G01 X144.687890 Y102.273950 Z-0.125000
G01 X145.918560 Y104.818390 Z-0.125000
G01 X146.892620 Y107.789660 Z-0.125000
G01 X147.661270 Y111.535240 Z-0.125000
G01 X148.296220 Y119.926670 Z-0.125000
G01 X148.037750 Y130.030380 Z-0.125000
G01 X146.453400 Y152.722180 Z-0.125000
G01 X145.100640 Y178.181480 Z-0.125000
G01 X144.208410 Y184.279660 Z-0.125000
G01 X143.082850 Y189.008740 Z-0.125000
G01 X141.883350 Y191.895580 Z-0.125000
G01 X140.443540 Y193.408660 Z-0.125000
G01 X138.750280 Y193.713180 Z-0.125000
G01 X136.310450 Y193.043860 Z-0.125000
G01 X110.411390 Y181.631920 Z-0.125000
G01 X99.477248 Y176.358220 Z-0.125000
G01 X82.443075 Y167.235810 Z-0.125000
G01 X74.663594 Y163.643800 Z-0.125000
G01 X67.078389 Y160.774870 Z-0.125000
G01 X52.538573 Y156.383210 Z-0.125000
G01 X48.089765 Y154.663340 Z-0.125000
G01 X45.244127 Y152.884530 Z-0.125000
G01 X43.322360 Y150.763270 Z-0.125000
G01 X42.126195 Y148.084380 Z-0.125000
G01 X41.676043 Y145.045560 Z-0.125000
G01 X42.232515 Y139.333250 Z-0.125000
G01 X44.399399 Y132.153190 Z-0.125000
G01 X48.031594 Y124.145950 Z-0.125000
G01 X52.702974 Y116.259860 Z-0.125000
G01 X57.098438 Y110.523590 Z-0.125000
G01 X62.308756 Y105.209560 Z-0.125000
G01 X68.263604 Y100.541990 Z-0.125000
G01 X74.356411 Y96.929440 Z-0.125000
G01 X80.319980 Y94.305000 Z-0.125000
G01 X86.879637 Y92.296680 Z-0.125000
G01 X93.373518 Y91.103760 Z-0.125000
G01 X100.030290 Y90.617600 Z-0.125000
G01 X108.831870 Y90.985840 Z-0.125000
G01 X123.914980 Y93.136120 Z-0.125000
G01 X133.224160 Y93.878040 Z-0.125000
G01 X136.203680 Y94.436920 Z-0.125000
G01 X138.893910 Y95.430000 Z-0.125000
G01 X141.016450 Y96.722370 Z-0.125000
G01 X142.933570 Y98.490620 Z-0.125000
G01 X144.456770 Y100.545330 Z-0.125000
G01 X145.740610 Y103.044260 Z-0.125000
G01 X146.765420 Y105.991110 Z-0.125000
G01 X147.522470 Y109.375040 Z-0.125000
G01 X148.275630 Y117.771660 Z-0.125000
G01 X148.087010 Y128.018050 Z-0.125000
G01 X146.475770 Y154.192570 Z-0.125000
G01 X145.703410 Y179.338220 Z-0.125000
G01 X144.965460 Y185.220790 Z-0.125000
G01 X144.017380 Y189.730190 Z-0.125000
G01 X142.929580 Y192.603740 Z-0.125000
G01 X141.583580 Y194.066160 Z-0.125000
G01 X140.060570 Y194.325310 Z-0.125000
G01 X137.828370 Y193.711950 Z-0.125000
G01 X110.082680 Y181.963510 Z-0.125000
G01 X99.502757 Y176.931510 Z-0.125000
G01 X82.644767 Y168.008730 Z-0.125000
G01 X74.114818 Y164.166130 Z-0.125000
G01 X65.810320 Y161.196070 Z-0.125000
G01 X50.544438 Y157.004900 Z-0.125000
G01 X46.066960 Y155.358780 Z-0.125000
G01 X43.395651 Y153.717650 Z-0.125000
G01 X41.455790 Y151.585560 Z-0.125000
G01 X40.323178 Y149.067050 Z-0.125000
G01 X39.845565 Y145.980580 Z-0.125000
G01 X39.928035 Y143.215940 Z-0.125000
G01 X40.400358 Y140.127310 Z-0.125000
G01 X42.620400 Y132.725720 Z-0.125000
G01 X46.350104 Y124.443030 Z-0.125000
G01 X51.134857 Y116.262360 Z-0.125000
G01 X55.637941 Y110.298430 Z-0.125000
G01 X60.982415 Y104.766070 Z-0.125000
G01 X66.667747 Y100.203450 Z-0.125000
G01 X72.893873 Y96.385330 Z-0.125000
G01 X79.001619 Y93.601010 Z-0.125000
G01 X85.249360 Y91.585520 Z-0.125000
G01 X91.927957 Y90.249560 Z-0.125000
G01 X98.345091 Y89.684280 Z-0.125000
G01 X107.094810 Y89.927250 Z-0.125000
G01 X123.475210 Y92.230610 Z-0.125000
G01 X133.813450 Y92.785690 Z-0.125000
G01 X136.590440 Y93.306530 Z-0.125000
G01 X138.868550 Y94.136990 Z-0.125000
G01 X141.002320 Y95.405420 Z-0.125000
G01 X142.765350 Y96.989020 Z-0.125000
G01 X144.319920 Y99.016280 Z-0.125000
G01 X145.514690 Y101.236860 Z-0.125000
G01 X146.594050 Y104.149860 Z-0.125000
G01 X147.332350 Y107.165730 Z-0.125000
G01 X148.198900 Y115.101460 Z-0.125000
G01 X148.128200 Y125.405480 Z-0.125000
G01 X146.594530 Y153.773880 Z-0.125000
G01 X146.398860 Y180.150740 Z-0.125000
G01 X145.827530 Y185.835430 Z-0.125000
G01 X145.012690 Y190.387960 Z-0.125000
G01 X144.041130 Y193.243240 Z-0.125000
G01 X142.870290 Y194.609940 Z-0.125000
G01 X141.533290 Y194.881300 Z-0.125000
G01 X139.539080 Y194.370310 Z-0.125000
G01 X110.510660 Y182.647910 Z-0.125000
G01 X99.957176 Y177.733550 Z-0.125000
G01 X82.470354 Y168.606300 Z-0.125000
G01 X73.592398 Y164.720920 Z-0.125000
G01 X64.535296 Y161.663210 Z-0.125000
G01 X48.837449 Y157.780240 Z-0.125000
G01 X44.278792 Y156.224940 Z-0.125000
G01 X41.572320 Y154.612670 Z-0.125000
G01 X39.732658 Y152.638490 Z-0.125000
G01 X38.553748 Y150.107730 Z-0.125000
G01 X38.062592 Y147.234720 Z-0.125000
G01 X38.096542 Y144.442800 Z-0.125000
G01 X38.533611 Y141.304740 Z-0.125000
G01 X40.726564 Y133.732520 Z-0.125000
G01 X44.486511 Y125.201170 Z-0.125000
G01 X49.320528 Y116.722080 Z-0.125000
G01 X53.872318 Y110.506140 Z-0.125000
G01 X59.292314 Y104.713120 Z-0.125000
G01 X65.514358 Y99.599000 Z-0.125000
G01 X71.902469 Y95.626600 Z-0.125000
G01 X77.679282 Y92.929390 Z-0.125000
G01 X84.080848 Y90.783470 Z-0.125000
G01 X90.930895 Y89.353230 Z-0.125000
G01 X97.512899 Y88.740630 Z-0.125000
G01 X107.250760 Y89.057200 Z-0.125000
G01 X123.939000 Y91.430690 Z-0.125000
G01 X134.157290 Y91.632550 Z-0.125000
G01 X136.514730 Y92.036580 Z-0.125000
G01 X138.802700 Y92.820630 Z-0.125000
G01 X140.948420 Y94.062340 Z-0.125000
G01 X142.723420 Y95.640460 Z-0.125000
G01 X144.289110 Y97.682300 Z-0.125000
G01 X145.491490 Y99.933690 Z-0.125000
G01 X147.240970 Y105.621910 Z-0.125000
G01 X148.119470 Y113.232260 Z-0.125000
G01 X148.118470 Y123.182330 Z-0.125000
G01 X146.711980 Y152.796530 Z-0.125000
G01 X147.143670 Y181.240440 Z-0.125000
G01 X146.716630 Y186.668520 Z-0.125000
G01 X146.030070 Y191.178090 Z-0.125000
G01 X145.219950 Y193.812750 Z-0.125000
G01 X144.142080 Y195.128970 Z-0.125000
G01 X142.960200 Y195.362960 Z-0.125000
G01 X141.292260 Y194.957130 Z-0.125000
G01 X133.026450 Y191.580270 Z-0.125000
G01 X110.550920 Y183.183280 Z-0.125000
G01 X100.453990 Y178.567470 Z-0.125000
G01 X82.786078 Y169.455190 Z-0.125000
G01 X73.096333 Y165.310110 Z-0.125000
G01 X63.254249 Y162.179460 Z-0.125000
G01 X47.145404 Y158.621120 Z-0.125000
G01 X42.514286 Y157.156090 Z-0.125000
G01 X39.948001 Y155.700040 Z-0.125000
G01 X38.046365 Y153.749520 Z-0.125000
G01 X36.820976 Y151.205780 Z-0.125000
G01 X36.302169 Y148.286390 Z-0.125000
G01 X36.325729 Y145.431290 Z-0.125000
G01 X36.765489 Y142.209820 Z-0.125000
G01 X39.007708 Y134.407620 Z-0.125000
G01 X42.864697 Y125.592190 Z-0.125000
G01 X47.809954 Y116.809330 Z-0.125000
G01 X52.465006 Y110.356830 Z-0.125000
G01 X58.013309 Y104.334720 Z-0.125000
G01 X63.940044 Y99.342810 Z-0.125000
G01 X70.452110 Y95.149580 Z-0.125000
G01 X76.354447 Y92.290690 Z-0.125000
G01 X82.906588 Y90.006360 Z-0.125000
G01 X89.431082 Y88.553750 Z-0.125000
G01 X96.204573 Y87.831660 Z-0.125000
G01 X101.206220 Y87.773060 Z-0.125000
G01 X106.634370 Y88.126070 Z-0.125000
G01 X123.459540 Y90.560440 Z-0.125000
G01 X134.251460 Y90.425090 Z-0.125000
G01 X136.613370 Y90.794490 Z-0.125000
G01 X138.698430 Y91.480140 Z-0.125000
G01 X140.668610 Y92.560510 Z-0.125000
G01 X142.476280 Y94.084640 Z-0.125000
G01 X143.928690 Y95.866800 Z-0.125000
G01 X145.187390 Y98.056120 Z-0.125000
G01 X147.045890 Y103.674100 Z-0.125000
G01 X147.986820 Y110.858970 Z-0.125000
G01 X148.082920 Y120.864790 Z-0.125000
G01 X147.019890 Y142.291590 Z-0.125000
G01 X146.809460 Y152.227110 Z-0.125000
G01 X147.025650 Y161.279740 Z-0.125000
G01 X147.938660 Y176.348950 Z-0.125000
G01 X147.968560 Y182.296190 Z-0.125000
G01 X147.125410 Y191.896680 Z-0.125000
G01 X146.417060 Y194.421310 Z-0.125000
G01 X145.481230 Y195.576390 Z-0.125000
G01 X144.445550 Y195.778010 Z-0.125000
G01 X142.962910 Y195.428990 Z-0.125000
G01 X135.079790 Y192.350010 Z-0.125000
G01 X119.258460 Y187.034950 Z-0.125000
G01 X111.005540 Y183.915360 Z-0.125000
G01 X100.990150 Y179.435270 Z-0.125000
G01 X82.689787 Y170.123320 Z-0.125000
G01 X72.624575 Y165.935590 Z-0.125000
G01 X62.409995 Y162.855950 Z-0.125000
G01 X45.469965 Y159.528630 Z-0.125000
G01 X40.775576 Y158.152400 Z-0.125000
G01 X38.185726 Y156.717320 Z-0.125000
G01 X36.398295 Y154.918480 Z-0.125000
G01 X35.199163 Y152.581050 Z-0.125000
G01 X34.600939 Y149.662250 Z-0.125000
G01 X34.570329 Y146.781730 Z-0.125000
G01 X34.968712 Y143.511540 Z-0.125000
G01 X37.027974 Y135.946080 Z-0.125000
G01 X40.838021 Y126.917930 Z-0.125000
G01 X46.047597 Y117.383960 Z-0.125000
G01 X50.744119 Y110.672250 Z-0.125000
G01 X56.357830 Y104.378120 Z-0.125000
G01 X62.374097 Y99.136620 Z-0.125000
G01 X69.003894 Y94.713970 Z-0.125000
G01 X75.027208 Y91.685570 Z-0.125000
G01 X81.208711 Y89.410060 Z-0.125000
G01 X87.897141 Y87.789070 Z-0.125000
G01 X94.861768 Y86.943850 Z-0.125000
G01 X100.013320 Y86.831080 Z-0.125000
G01 X105.605120 Y87.162500 Z-0.125000
G01 X122.514350 Y89.682120 Z-0.125000
G01 X125.962560 Y89.727220 Z-0.125000
G01 X133.661140 Y89.158400 Z-0.125000
G01 X136.247920 Y89.432370 Z-0.125000
G01 X138.556290 Y90.114830 Z-0.125000
G01 X140.540220 Y91.165160 Z-0.125000
G01 X142.190440 Y92.504660 Z-0.125000
G01 X143.678190 Y94.247940 Z-0.125000
G01 X144.973530 Y96.414340 Z-0.125000
G01 X146.815990 Y101.683020 Z-0.125000
G01 X147.817880 Y108.424870 Z-0.125000
G01 X148.024390 Y118.457980 Z-0.125000
G01 X147.018890 Y140.856250 Z-0.125000
G01 X146.895890 Y151.071290 Z-0.125000
G01 X147.299280 Y160.858640 Z-0.125000
G01 X148.735640 Y177.274740 Z-0.125000
G01 X148.879180 Y183.314110 Z-0.125000
G01 X148.301190 Y192.541180 Z-0.125000
G01 X147.737110 Y194.845480 Z-0.125000
G01 X146.951750 Y195.914170 Z-0.125000
G01 X146.074370 Y196.129970 Z-0.125000
G01 X144.798050 Y195.870840 Z-0.125000
G01 X137.196790 Y193.061410 Z-0.125000
G01 X120.856740 Y188.039050 Z-0.125000
G01 X111.917930 Y184.849490 Z-0.125000
G01 X101.564940 Y180.338620 Z-0.125000
G01 X82.128341 Y170.600780 Z-0.125000
G01 X71.682003 Y166.429120 Z-0.125000
G01 X61.129442 Y163.471210 Z-0.125000
G01 X43.814873 Y160.503660 Z-0.125000
G01 X39.066582 Y159.213520 Z-0.125000
G01 X36.634079 Y157.922820 Z-0.125000
G01 X34.791819 Y156.144400 Z-0.125000
G01 X33.548802 Y153.793820 Z-0.125000
G01 X32.919500 Y150.826840 Z-0.125000
G01 X32.874960 Y147.880630 Z-0.125000
G01 X33.272322 Y144.523330 Z-0.125000
G01 X35.371848 Y136.731520 Z-0.125000
G01 X39.276157 Y127.412680 Z-0.125000
G01 X44.600589 Y117.552040 Z-0.125000
G01 X49.395827 Y110.595760 Z-0.125000
G01 X55.131260 Y104.062740 Z-0.125000
G01 X61.281494 Y98.617970 Z-0.125000
G01 X68.061216 Y94.024230 Z-0.125000
G01 X74.220821 Y90.882750 Z-0.125000
G01 X80.540282 Y88.529020 Z-0.125000
G01 X86.851948 Y86.959770 Z-0.125000
G01 X93.484991 Y86.078970 Z-0.125000
G01 X98.788344 Y85.902760 Z-0.125000
G01 X104.548710 Y86.205480 Z-0.125000
G01 X122.234850 Y88.871960 Z-0.125000
G01 X125.617100 Y88.830060 Z-0.125000
G01 X133.466360 Y87.902490 Z-0.125000
G01 X136.059450 Y88.096250 Z-0.125000
G01 X138.379320 Y88.723880 Z-0.125000
G01 X140.379110 Y89.742010 Z-0.125000
G01 X142.047060 Y91.068900 Z-0.125000
G01 X143.553370 Y92.816350 Z-0.125000
G01 X144.730430 Y94.739680 Z-0.125000
G01 X146.554020 Y99.651820 Z-0.125000
G01 X147.655370 Y106.371610 Z-0.125000
G01 X147.945310 Y115.967180 Z-0.125000
G01 X147.003820 Y139.326970 Z-0.125000
G01 X146.981220 Y150.350480 Z-0.125000
G01 X147.625930 Y160.833000 Z-0.125000
G01 X149.593330 Y177.815500 Z-0.125000
G01 X149.882800 Y184.615370 Z-0.125000
G01 X149.558640 Y193.109410 Z-0.125000
G01 X149.125280 Y195.197330 Z-0.125000
G01 X148.420840 Y196.220940 Z-0.125000
G01 X147.669720 Y196.410120 Z-0.125000
G01 X146.560210 Y196.203480 Z-0.125000
G01 X139.615350 Y193.785110 Z-0.125000
G01 X122.530950 Y189.045240 Z-0.125000
G01 X112.874510 Y185.813390 Z-0.125000
G01 X102.176480 Y181.278940 Z-0.125000
G01 X82.070588 Y171.338510 Z-0.125000
G01 X70.727664 Y166.966220 Z-0.125000
G01 X59.843424 Y164.142590 Z-0.125000
G01 X42.183358 Y161.546160 Z-0.125000
G01 X37.390717 Y160.338490 Z-0.125000
G01 X34.944484 Y159.059370 Z-0.125000
G01 X33.229515 Y157.426150 Z-0.125000
G01 X31.942242 Y155.060730 Z-0.125000
G01 X31.311363 Y152.319920 Z-0.125000
G01 X31.220533 Y149.028600 Z-0.125000
G01 X31.615483 Y145.581310 Z-0.125000
G01 X33.753605 Y137.557070 Z-0.125000
G01 X37.752265 Y127.942190 Z-0.125000
G01 X43.190999 Y117.750350 Z-0.125000
G01 X48.443717 Y110.077120 Z-0.125000
G01 X53.937836 Y103.769890 Z-0.125000
G01 X60.218518 Y98.117970 Z-0.125000
G01 X66.631865 Y93.656980 Z-0.125000
G01 X72.371567 Y90.578940 Z-0.125000
G01 X78.810242 Y88.006530 Z-0.125000
G01 X85.265990 Y86.259270 Z-0.125000
G01 X92.073917 Y85.238740 Z-0.125000
G01 X98.008524 Y84.990110 Z-0.125000
G01 X103.893860 Y85.294050 Z-0.125000
G01 X121.938400 Y88.075650 Z-0.125000
G01 X125.447100 Y87.918500 Z-0.125000
G01 X133.237720 Y86.625760 Z-0.125000
G01 X135.836940 Y86.736680 Z-0.125000
G01 X138.169980 Y87.306980 Z-0.125000
G01 X139.992680 Y88.170920 Z-0.125000
G01 X141.696880 Y89.436850 Z-0.125000
G01 X144.318170 Y92.776310 Z-0.125000
G01 X146.262210 Y97.584190 Z-0.125000
G01 X147.426090 Y103.831080 Z-0.125000
G01 X147.843960 Y113.919760 Z-0.125000
G01 X146.991250 Y137.125070 Z-0.125000
G01 X146.990320 Y147.369330 Z-0.125000
G01 X147.822710 Y159.324510 Z-0.125000
G01 X150.228680 Y175.831540 Z-0.125000
G01 X150.817250 Y181.826190 Z-0.125000
G01 X150.953030 Y192.875780 Z-0.125000
G01 X150.611810 Y195.375730 Z-0.125000
G01 X149.955970 Y196.456560 Z-0.125000
G01 X148.562930 Y196.517360 Z-0.125000
G01 X140.866020 Y194.092760 Z-0.125000
G01 X124.706890 Y190.166150 Z-0.125000
G01 X113.873870 Y186.808510 Z-0.125000
G01 X102.823180 Y182.257930 Z-0.125000
G01 X82.039373 Y172.115430 Z-0.125000
G01 X76.163944 Y169.719390 Z-0.125000
G01 X70.290736 Y167.711060 Z-0.125000
G01 X64.541482 Y166.129330 Z-0.125000
G01 X58.553233 Y164.872570 Z-0.125000
G01 X40.578934 Y162.656410 Z-0.125000
G01 X35.983536 Y161.610630 Z-0.125000
G01 X33.477091 Y160.379680 Z-0.125000
G01 X31.713971 Y158.762480 Z-0.125000
G01 X30.382166 Y156.380560 Z-0.125000
G01 X29.719651 Y153.592350 Z-0.125000
G01 X29.596456 Y150.553640 Z-0.125000
G01 X29.940192 Y147.057190 Z-0.125000
G01 X30.753098 Y143.143160 Z-0.125000
G01 X32.023856 Y138.866150 Z-0.125000
G01 X36.037452 Y128.996420 Z-0.125000
G01 X41.521831 Y118.481530 Z-0.125000
G01 X46.808690 Y110.521320 Z-0.125000
G01 X52.350776 Y103.946340 Z-0.125000
G01 X58.704284 Y98.026740 Z-0.125000
G01 X65.210039 Y93.332570 Z-0.125000
G01 X71.045762 Y90.078900 Z-0.125000
G01 X77.605514 Y87.346160 Z-0.125000
G01 X84.194673 Y85.477270 Z-0.125000
G01 X91.152341 Y84.371650 Z-0.125000
G01 X97.220085 Y84.086190 Z-0.125000
G01 X103.232060 Y84.388630 Z-0.125000
G01 X121.412970 Y87.285860 Z-0.125000
G01 X124.855900 Y87.068300 Z-0.125000
G01 X132.977170 Y85.327720 Z-0.125000
G01 X135.583160 Y85.353120 Z-0.125000
G01 X138.140720 Y85.936970 Z-0.125000
G01 X139.972410 Y86.812310 Z-0.125000
G01 X141.502380 Y87.943810 Z-0.125000
G01 X144.169330 Y91.297320 Z-0.125000
G01 X146.046840 Y95.828060 Z-0.125000
G01 X147.220280 Y101.678310 Z-0.125000
G01 X147.734820 Y111.807090 Z-0.125000
G01 X146.955220 Y135.399840 Z-0.125000
G01 X147.072960 Y147.026560 Z-0.125000
G01 X148.185900 Y159.172750 Z-0.125000
G01 X151.121060 Y175.881460 Z-0.125000
G01 X151.847220 Y181.636230 Z-0.125000
G01 X152.357040 Y192.936920 Z-0.125000
G01 X152.151240 Y195.483720 Z-0.125000
G01 X151.603220 Y196.588500 Z-0.125000
G01 X150.398330 Y196.701550 Z-0.125000
G01 X142.912580 Y194.575680 Z-0.125000
G01 X126.101790 Y191.056550 Z-0.125000
G01 X114.912870 Y187.835750 Z-0.125000
G01 X103.502120 Y183.276250 Z-0.125000
G01 X81.482350 Y172.696880 Z-0.125000
G01 X75.397057 Y170.306960 Z-0.125000
G01 X69.327168 Y168.337310 Z-0.125000
G01 X63.403769 Y166.822380 Z-0.125000
G01 X57.258822 Y165.662380 Z-0.125000
G01 X39.314954 Y163.871620 Z-0.125000
G01 X34.383800 Y162.857680 Z-0.125000
G01 X32.057061 Y161.753620 Z-0.125000
G01 X30.246715 Y160.151570 Z-0.125000
G01 X28.960373 Y157.978560 Z-0.125000
G01 X28.214637 Y155.196380 Z-0.125000
G01 X28.024165 Y152.135890 Z-0.125000
G01 X28.312235 Y148.591640 Z-0.125000
G01 X29.084507 Y144.605590 Z-0.125000
G01 X30.332256 Y140.234990 Z-0.125000
G01 X34.355221 Y130.110400 Z-0.125000
G01 X40.185471 Y118.751990 Z-0.125000
G01 X45.571601 Y110.520220 Z-0.125000
G01 X51.218153 Y103.711280 Z-0.125000
G01 X57.692734 Y97.575700 Z-0.125000
G01 X64.323459 Y92.709300 Z-0.125000
G01 X70.271813 Y89.338640 Z-0.125000
G01 X76.397093 Y86.713710 Z-0.125000
G01 X83.115394 Y84.715510 Z-0.125000
G01 X89.685631 Y83.576660 Z-0.125000
G01 X95.922137 Y83.192680 Z-0.125000
G01 X102.561730 Y83.487780 Z-0.125000
G01 X108.344300 Y84.286030 Z-0.125000
G01 X117.930240 Y86.197980 Z-0.125000
G01 X121.091490 Y86.518240 Z-0.125000
G01 X124.442480 Y86.202240 Z-0.125000
G01 X132.685740 Y84.007340 Z-0.125000
G01 X135.299540 Y83.944840 Z-0.125000
G01 X137.877890 Y84.462550 Z-0.125000
G01 X139.733310 Y85.305320 Z-0.125000
G01 X141.288810 Y86.421890 Z-0.125000
G01 X143.857320 Y89.532330 Z-0.125000
G01 X145.818790 Y94.036590 Z-0.125000
G01 X147.057920 Y99.914270 Z-0.125000
G01 X147.620320 Y109.632490 Z-0.125000
G01 X146.905580 Y134.192610 Z-0.125000
G01 X147.179920 Y146.638360 Z-0.125000
G01 X148.592250 Y158.968430 Z-0.125000
G01 X152.003640 Y175.504790 Z-0.125000
G01 X152.876380 Y181.010970 Z-0.125000
G01 X153.817680 Y193.124120 Z-0.125000
G01 X153.727680 Y195.626490 Z-0.125000
G01 X153.259240 Y196.687100 Z-0.125000
G01 X152.190370 Y196.800450 Z-0.125000
G01 X145.258220 Y195.054950 Z-0.125000
G01 X127.993930 Y192.056990 Z-0.125000
G01 X115.989610 Y188.896260 Z-0.125000
G01 X104.211560 Y184.335370 Z-0.125000
G01 X81.479542 Y173.551350 Z-0.125000
G01 X74.614094 Y170.937730 Z-0.125000
G01 X68.349094 Y169.013280 Z-0.125000
G01 X62.255915 Y167.571440 Z-0.125000
G01 X55.961692 Y166.513980 Z-0.125000
G01 X37.774471 Y165.108600 Z-0.125000
G01 X33.063660 Y164.241790 Z-0.125000
G01 X30.686823 Y163.179880 Z-0.125000
G01 X28.830370 Y161.591640 Z-0.125000
G01 X27.501907 Y159.401090 Z-0.125000
G01 X26.720823 Y156.569190 Z-0.125000
G01 X26.507350 Y153.436600 Z-0.125000
G01 X26.784749 Y149.797260 Z-0.125000
G01 X27.561381 Y145.696620 Z-0.125000
G01 X28.829820 Y141.195790 Z-0.125000
G01 X32.707405 Y131.282430 Z-0.125000
G01 X38.584044 Y119.585390 Z-0.125000
G01 X43.997358 Y111.063050 Z-0.125000
G01 X49.681762 Y103.979300 Z-0.125000
G01 X56.216277 Y97.565400 Z-0.125000
G01 X62.926045 Y92.453320 Z-0.125000
G01 X68.959568 Y88.895350 Z-0.125000
G01 X75.185604 Y86.110300 Z-0.125000
G01 X82.028506 Y83.974970 Z-0.125000
G01 X88.732245 Y82.741960 Z-0.125000
G01 X95.102178 Y82.307030 Z-0.125000
G01 X101.882690 Y82.591010 Z-0.125000
G01 X107.774000 Y83.417010 Z-0.125000
G01 X117.674990 Y85.468950 Z-0.125000
G01 X120.756920 Y85.761630 Z-0.125000
G01 X124.194660 Y85.295430 Z-0.125000
G01 X132.149400 Y82.699660 Z-0.125000
G01 X134.989470 Y82.511770 Z-0.125000
G01 X137.592490 Y82.961660 Z-0.125000
G01 X139.271190 Y83.659250 Z-0.125000
G01 X140.868700 Y84.713740 Z-0.125000
G01 X143.529250 Y87.740630 Z-0.125000
G01 X145.582380 Y92.212200 Z-0.125000
G01 X146.830410 Y97.675780 Z-0.125000
G01 X147.504260 Y107.400510 Z-0.125000
G01 X146.857780 Y133.542270 Z-0.125000
G01 X147.315820 Y146.205790 Z-0.125000
G01 X149.045820 Y158.712500 Z-0.125000
G01 X152.924980 Y175.060060 Z-0.125000
G01 X153.982450 Y180.675330 Z-0.125000
G01 X155.345890 Y193.244040 Z-0.125000
G01 X155.367890 Y195.699170 Z-0.125000
G01 X154.974050 Y196.718220 Z-0.125000
G01 X154.107990 Y196.848470 Z-0.125000
G01 X147.643050 Y195.460150 Z-0.125000
G01 X129.492480 Y192.968920 Z-0.125000
G01 X123.221820 Y191.661040 Z-0.125000
G01 X117.101370 Y189.990980 Z-0.125000
G01 X111.331330 Y188.030600 Z-0.125000
G01 X104.948780 Y185.435850 Z-0.125000
G01 X81.497562 Y174.447800 Z-0.125000
G01 X74.404904 Y171.808580 Z-0.125000
G01 X67.355666 Y169.740590 Z-0.125000
G01 X61.097996 Y168.377730 Z-0.125000
G01 X54.662938 Y167.428140 Z-0.125000
G01 X48.311285 Y166.899900 Z-0.125000
G01 X36.587326 Y166.435070 Z-0.125000
G01 X31.792647 Y165.676910 Z-0.125000
G01 X29.368307 Y164.656350 Z-0.125000
G01 X27.466579 Y163.080460 Z-0.125000
G01 X26.095529 Y160.870260 Z-0.125000
G01 X25.328177 Y158.276220 Z-0.125000
G01 X25.040385 Y155.123520 Z-0.125000
G01 X25.253769 Y151.437030 Z-0.125000
G01 X25.981228 Y147.263860 Z-0.125000
G01 X27.219050 Y142.668020 Z-0.125000
G01 X31.094780 Y132.510380 Z-0.125000
G01 X37.017528 Y120.475920 Z-0.125000
G01 X42.454593 Y111.662640 Z-0.125000
G01 X48.171192 Y104.301850 Z-0.125000
G01 X54.758125 Y97.604880 Z-0.125000
G01 X61.538774 Y92.240650 Z-0.125000
G01 X67.650602 Y88.488780 Z-0.125000
G01 X73.971361 Y85.536240 Z-0.125000
G01 X80.355390 Y83.408630 Z-0.125000
G01 X87.208128 Y81.998410 Z-0.125000
G01 X93.745797 Y81.441660 Z-0.125000
G01 X100.727650 Y81.654410 Z-0.125000
G01 X107.197400 Y82.549150 Z-0.125000
G01 X117.412630 Y84.749890 Z-0.125000
G01 X120.410330 Y85.014580 Z-0.125000
G01 X123.738300 Y84.437400 Z-0.125000
G01 X129.256460 Y82.103060 Z-0.125000
G01 X131.803540 Y81.341370 Z-0.125000
G01 X134.655770 Y81.053210 Z-0.125000
G01 X137.288290 Y81.433870 Z-0.125000
G01 X138.995650 Y82.100290 Z-0.125000
G01 X140.626650 Y83.137430 Z-0.125000
G01 X143.188220 Y85.923790 Z-0.125000
G01 X145.220290 Y90.014110 Z-0.125000
G01 X146.592820 Y95.401170 Z-0.125000
G01 X147.150970 Y99.987590 Z-0.125000
G01 X147.389780 Y105.114850 Z-0.125000
G01 X146.825040 Y132.226490 Z-0.125000
G01 X147.484510 Y145.729090 Z-0.125000
G01 X148.317080 Y152.031840 Z-0.125000
G01 X149.550350 Y158.405270 Z-0.125000
G01 X153.885880 Y174.548350 Z-0.125000
G01 X155.063860 Y179.890330 Z-0.125000
G01 X156.940250 Y193.296770 Z-0.125000
G01 X157.069780 Y195.702590 Z-0.125000
G01 X156.744780 Y196.683420 Z-0.125000
G01 X155.987540 Y196.820190 Z-0.125000
G01 X149.828870 Y195.761730 Z-0.125000
G01 X131.507780 Y193.967590 Z-0.125000
G01 X124.564020 Y192.716050 Z-0.125000
G01 X118.245760 Y191.120460 Z-0.125000
G01 X112.291380 Y189.187220 Z-0.125000
G01 X106.262310 Y186.814460 Z-0.125000
G01 X88.133022 Y178.244800 Z-0.125000
G01 X80.927733 Y175.144570 Z-0.125000
G01 X73.603414 Y172.527080 Z-0.125000
G01 X66.346542 Y170.520800 Z-0.125000
G01 X59.930502 Y169.242820 Z-0.125000
G01 X53.363888 Y168.405970 Z-0.125000
G01 X46.918345 Y168.008970 Z-0.125000
G01 X35.120816 Y167.794240 Z-0.125000
G01 X30.326319 Y167.093500 Z-0.125000
G01 X27.904950 Y166.064430 Z-0.125000
G01 X26.157509 Y164.615800 Z-0.125000
G01 X24.743226 Y162.383530 Z-0.125000
G01 X23.940155 Y159.740620 Z-0.125000
G01 X23.623973 Y156.512460 Z-0.125000
G01 X23.820665 Y152.726720 Z-0.125000
G01 X24.546824 Y148.434210 Z-0.125000
G01 X25.652163 Y144.193880 Z-0.125000
G01 X29.518522 Y133.791980 Z-0.125000
G01 X35.486915 Y121.421360 Z-0.125000
G01 X40.945041 Y112.317790 Z-0.125000
G01 X46.688265 Y104.678140 Z-0.125000
G01 X53.319825 Y97.694030 Z-0.125000
G01 X60.712428 Y91.679970 Z-0.125000
G01 X66.346085 Y88.119330 Z-0.125000
G01 X72.754795 Y84.992190 Z-0.125000
G01 X79.242179 Y82.722530 Z-0.125000
G01 X86.220815 Y81.199410 Z-0.125000
G01 X93.425639 Y80.559250 Z-0.125000
G01 X100.493770 Y80.806220 Z-0.125000
G01 X107.010830 Y81.757920 Z-0.125000
G01 X116.912390 Y83.998850 Z-0.125000
G01 X119.862490 Y84.281450 Z-0.125000
G01 X123.091760 Y83.652690 Z-0.125000
G01 X128.682370 Y80.925350 Z-0.125000
G01 X131.434390 Y79.959560 Z-0.125000
G01 X134.524770 Y79.568780 Z-0.125000
G01 X137.189680 Y79.939600 Z-0.125000
G01 X140.379420 Y81.534890 Z-0.125000
G01 X143.010370 Y84.328030 Z-0.125000
G01 X145.099420 Y88.472790 Z-0.125000
G01 X146.427780 Y93.523440 Z-0.125000
G01 X147.027870 Y98.141410 Z-0.125000
G01 X147.293390 Y103.321640 Z-0.125000
G01 X146.803620 Y130.853680 Z-0.125000
G01 X147.030550 Y137.838720 Z-0.125000
G01 X147.618190 Y144.609520 Z-0.125000
G01 X148.577690 Y151.035390 Z-0.125000
G01 X149.980280 Y157.533820 Z-0.125000
G01 X154.999110 Y174.361420 Z-0.125000
G01 X156.247140 Y179.415130 Z-0.125000
G01 X158.649310 Y193.645240 Z-0.125000
G01 X158.829400 Y195.730190 Z-0.125000
G01 X158.567770 Y196.585610 Z-0.125000
G01 X157.838000 Y196.727360 Z-0.125000
G01 X152.281150 Y196.022800 Z-0.125000
G01 X134.068140 Y195.008760 Z-0.125000
G01 X126.998120 Y193.997040 Z-0.125000
G01 X120.523450 Y192.577750 Z-0.125000
G01 X113.839750 Y190.577380 Z-0.125000
G01 X107.064480 Y188.002570 Z-0.125000
G01 X88.393747 Y179.274730 Z-0.125000
G01 X81.589624 Y176.369550 Z-0.125000
G01 X75.299760 Y174.087430 Z-0.125000
G01 X69.025297 Y172.239420 Z-0.125000
G01 X61.695968 Y170.639930 Z-0.125000
G01 X54.230628 Y169.628210 Z-0.125000
G01 X46.490393 Y169.199020 Z-0.125000
G01 X33.376738 Y169.199960 Z-0.125000
G01 X28.667968 Y168.490040 Z-0.125000
G01 X26.493383 Y167.516630 Z-0.125000
G01 X24.749837 Y166.019030 Z-0.125000
G01 X23.446514 Y163.937700 Z-0.125000
G01 X22.605962 Y161.243110 Z-0.125000
G01 X22.258980 Y157.936550 Z-0.125000
G01 X22.436353 Y154.048400 Z-0.125000
G01 X23.158802 Y149.633350 Z-0.125000
G01 X24.276203 Y145.269440 Z-0.125000
G01 X28.218638 Y134.563600 Z-0.125000
G01 X34.303464 Y121.830140 Z-0.125000
G01 X39.850377 Y112.446730 Z-0.125000
G01 X46.133281 Y104.019760 Z-0.125000
G01 X52.923487 Y96.865240 Z-0.125000
G01 X59.912051 Y91.129880 Z-0.125000
G01 X65.628649 Y87.450200 Z-0.125000
G01 X72.133105 Y84.221580 Z-0.125000
G01 X78.718645 Y81.883340 Z-0.125000
G01 X85.221063 Y80.415430 Z-0.125000
G01 X92.566721 Y79.696780 Z-0.125000
G01 X99.781346 Y79.916560 Z-0.125000
G01 X106.426440 Y80.891730 Z-0.125000
G01 X116.644460 Y83.295300 Z-0.125000
G01 X119.502800 Y83.553400 Z-0.125000
G01 X122.610530 Y82.815650 Z-0.125000
G01 X128.088970 Y79.747260 Z-0.125000
G01 X130.827080 Y78.618050 Z-0.125000
G01 X133.931560 Y78.060210 Z-0.125000
G01 X136.864870 Y78.354860 Z-0.125000
G01 X139.922780 Y79.758390 Z-0.125000
G01 X142.662920 Y82.462170 Z-0.125000
G01 X144.725820 Y86.222950 Z-0.125000
G01 X146.186850 Y91.185380 Z-0.125000
G01 X146.870060 Y95.768810 Z-0.125000
G01 X147.196910 Y100.943780 Z-0.125000
G01 X146.796210 Y129.425370 Z-0.125000
G01 X147.129930 Y137.170980 Z-0.125000
G01 X147.851260 Y144.039680 Z-0.125000
G01 X148.976270 Y150.549600 Z-0.125000
G01 X150.435730 Y156.598140 Z-0.125000
G01 X157.380130 Y178.477670 Z-0.125000
G01 X160.413810 Y193.730310 Z-0.125000
G01 X160.651520 Y195.681490 Z-0.125000
G01 X160.438770 Y196.426660 Z-0.125000
G01 X136.703510 Y196.001370 Z-0.125000
G01 X128.979970 Y195.171960 Z-0.125000
G01 X121.759290 Y193.767140 Z-0.125000
G01 X116.023570 Y192.183510 Z-0.125000
G01 X110.218840 Y190.158960 Z-0.125000
G01 X103.791110 Y187.472820 Z-0.125000
G01 X83.589290 Y178.164090 Z-0.125000
G01 X75.827621 Y175.302410 Z-0.125000
G01 X68.716965 Y173.244900 Z-0.125000
G01 X61.181489 Y171.678490 Z-0.125000
G01 X53.527163 Y170.736540 Z-0.125000
G01 X45.622061 Y170.419860 Z-0.125000
G01 X32.312649 Y170.693280 Z-0.125000
G01 X27.303191 Y170.007310 Z-0.125000
G01 X25.135565 Y169.010320 Z-0.125000
G01 X23.550668 Y167.638270 Z-0.125000
G01 X22.206618 Y165.530920 Z-0.125000
G01 X21.392876 Y163.085910 Z-0.125000
G01 X20.960816 Y159.761010 Z-0.125000
G01 X21.061106 Y155.825590 Z-0.125000
G01 X21.720655 Y151.336350 Z-0.125000
G01 X22.798067 Y146.885130 Z-0.125000
G01 X24.512944 Y141.563030 Z-0.125000
G01 X26.718328 Y135.931760 Z-0.125000
G01 X32.847969 Y122.862280 Z-0.125000
G01 X38.411023 Y113.188660 Z-0.125000
G01 X44.712760 Y104.459270 Z-0.125000
G01 X51.534882 Y97.010690 Z-0.125000
G01 X58.571970 Y91.008830 Z-0.125000
G01 X64.340984 Y87.138830 Z-0.125000
G01 X70.920032 Y83.724380 Z-0.125000
G01 X76.991035 Y81.420840 Z-0.125000
G01 X83.614246 Y79.756250 Z-0.125000
G01 X91.134974 Y78.868280 Z-0.125000
G01 X99.054792 Y79.029320 Z-0.125000
G01 X105.003980 Y79.862060 Z-0.125000
G01 X115.919760 Y82.507690 Z-0.125000
G01 X119.135390 Y82.832120 Z-0.125000
G01 X122.116940 Y81.984320 Z-0.125000
G01 X127.478670 Y78.569980 Z-0.125000
G01 X130.418940 Y77.197060 Z-0.125000
G01 X133.548370 Y76.526660 Z-0.125000
G01 X136.534850 Y76.745810 Z-0.125000
G01 X139.673820 Y78.108430 Z-0.125000
G01 X142.500260 Y80.819170 Z-0.125000
G01 X144.629200 Y84.630120 Z-0.125000
G01 X146.039020 Y89.249190 Z-0.125000
G01 X146.773250 Y93.855250 Z-0.125000
G01 X147.132670 Y99.074000 Z-0.125000
G01 X146.805820 Y127.945630 Z-0.125000
G01 X147.208760 Y135.821210 Z-0.125000
G01 X148.031320 Y142.811270 Z-0.125000
G01 X149.293170 Y149.440400 Z-0.125000
G01 X151.079570 Y156.135900 Z-0.125000
G01 X157.155670 Y173.035300 Z-0.125000
G01 X158.640830 Y177.871450 Z-0.125000
G01 X162.279610 Y193.894660 Z-0.125000
G01 X162.530490 Y195.561200 Z-0.125000
G01 X162.353520 Y196.210820 Z-0.125000
G01 X145.350680 Y196.914070 Z-0.125000
G01 X138.915420 Y196.926870 Z-0.125000
G01 X131.020620 Y196.348880 Z-0.125000
G01 X123.019690 Y194.992770 Z-0.125000
G01 X117.106130 Y193.456010 Z-0.125000
G01 X110.527360 Y191.213830 Z-0.125000
G01 X103.910190 Y188.456410 Z-0.125000
G01 X83.730167 Y179.245740 Z-0.125000
G01 X75.738323 Y176.352800 Z-0.125000
G01 X68.422350 Y174.296220 Z-0.125000
G01 X60.056433 Y172.668750 Z-0.125000
G01 X52.271201 Y171.855000 Z-0.125000
G01 X44.286406 Y171.696190 Z-0.125000
G01 X30.976621 Y172.228560 Z-0.125000
G01 X26.231946 Y171.642500 Z-0.125000
G01 X24.030085 Y170.668900 Z-0.125000
G01 X22.410583 Y169.295430 Z-0.125000
G01 X21.024968 Y167.159640 Z-0.125000
G01 X20.173653 Y164.664610 Z-0.125000
G01 X19.704762 Y161.257930 Z-0.125000
G01 X19.778602 Y157.216130 Z-0.125000
G01 X20.427386 Y152.599980 Z-0.125000
G01 X21.511569 Y148.020990 Z-0.125000
G01 X25.015361 Y137.934990 Z-0.125000
G01 X31.116610 Y124.565280 Z-0.125000
G01 X36.625017 Y114.598980 Z-0.125000
G01 X42.868030 Y105.532590 Z-0.125000
G01 X49.651651 Y97.727110 Z-0.125000
G01 X57.245483 Y90.931070 Z-0.125000
G01 X63.059405 Y86.865780 Z-0.125000
G01 X69.704790 Y83.259040 Z-0.125000
G01 X75.852518 Y80.807690 Z-0.125000
G01 X82.576576 Y79.015810 Z-0.125000
G01 X90.232386 Y78.028860 Z-0.125000
G01 X98.312341 Y78.143760 Z-0.125000
G01 X104.809630 Y79.069470 Z-0.125000
G01 X115.655560 Y81.815110 Z-0.125000
G01 X118.761330 Y82.115790 Z-0.125000
G01 X121.458060 Y81.246190 Z-0.125000
G01 X126.854210 Y77.393190 Z-0.125000
G01 X129.778060 Y75.839020 Z-0.125000
G01 X133.156420 Y74.969040 Z-0.125000
G01 X136.204590 Y75.113230 Z-0.125000
G01 X139.434400 Y76.436680 Z-0.125000
G01 X142.163230 Y78.913910 Z-0.125000
G01 X144.408710 Y82.677840 Z-0.125000
G01 X145.908430 Y87.289750 Z-0.125000
G01 X146.753710 Y92.414070 Z-0.125000
G01 X147.142820 Y98.861460 Z-0.125000
G01 X146.781830 Y120.367570 Z-0.125000
G01 X146.905390 Y128.430680 Z-0.125000
G01 X147.371220 Y135.075690 Z-0.125000
G01 X148.232660 Y141.526410 Z-0.125000
G01 X149.634500 Y148.272930 Z-0.125000
G01 X151.607210 Y155.090040 Z-0.125000
G01 X158.297770 Y172.284620 Z-0.125000
G01 X159.946300 Y177.207450 Z-0.125000
G01 X164.214670 Y193.961840 Z-0.125000
G01 X164.456810 Y195.302170 Z-0.125000
G01 X164.307120 Y195.941320 Z-0.125000
G01 X148.538590 Y197.487037 Z-0.125000
G01 X141.178260 Y197.831984 Z-0.125000
G01 X132.548130 Y197.472667 Z-0.125000
G01 X124.301330 Y196.253890 Z-0.125000
G01 X118.206760 Y194.768440 Z-0.125000
G01 X111.433530 Y192.536890 Z-0.125000
G01 X104.630050 Y189.748860 Z-0.125000
G01 X83.882259 Y180.371310 Z-0.125000
G01 X75.660142 Y177.447650 Z-0.125000
G01 X68.139696 Y175.392470 Z-0.125000
G01 X59.556677 Y173.803500 Z-0.125000
G01 X51.595263 Y173.062840 Z-0.125000
G01 X43.465831 Y173.017640 Z-0.125000
G01 X30.007789 Y173.814870 Z-0.125000
G01 X25.217932 Y173.315980 Z-0.125000
G01 X22.984157 Y172.363830 Z-0.125000
G01 X21.330605 Y170.986760 Z-0.125000
G01 X19.902407 Y168.819970 Z-0.125000
G01 X19.011661 Y166.272410 Z-0.125000
G01 X18.502876 Y162.781140 Z-0.125000
G01 X18.547136 Y158.629870 Z-0.125000
G01 X19.182284 Y153.883610 Z-0.125000
G01 X20.271293 Y149.174410 Z-0.125000
G01 X23.832975 Y138.805050 Z-0.125000
G01 X30.049266 Y125.068520 Z-0.125000
G01 X35.640152 Y114.821000 Z-0.125000
G01 X41.964159 Y105.487510 Z-0.125000
G01 X48.827195 Y97.444370 Z-0.125000
G01 X56.505362 Y90.437420 Z-0.125000
G01 X62.384045 Y86.245600 Z-0.125000
G01 X68.487518 Y82.825680 Z-0.125000
G01 X74.704831 Y80.220070 Z-0.125000
G01 X81.523798 Y78.293290 Z-0.125000
G01 X89.310886 Y77.198800 Z-0.125000
G01 X97.551816 Y77.259500 Z-0.125000
G01 X104.184740 Y78.192930 Z-0.125000
G01 X115.388320 Y81.125380 Z-0.125000
G01 X118.218550 Y81.418190 Z-0.125000
G01 X119.622350 Y81.110840 Z-0.125000
G01 X120.952120 Y80.430860 Z-0.125000
G01 X126.218380 Y76.216230 Z-0.125000
G01 X129.342630 Y74.379150 Z-0.125000
G01 X132.760040 Y73.387360 Z-0.125000
G01 X136.120590 Y73.505670 Z-0.125000
G01 X139.209950 Y74.744800 Z-0.125000
G01 X142.035350 Y77.232780 Z-0.125000
G01 X144.202880 Y80.708540 Z-0.125000
G01 X145.798730 Y85.310260 Z-0.125000
G01 X146.707120 Y90.453960 Z-0.125000
G01 X147.135640 Y96.949790 Z-0.125000
G01 X146.807860 Y118.706960 Z-0.125000
G01 X146.970470 Y126.885090 Z-0.125000
G01 X147.499770 Y133.631970 Z-0.125000
G01 X148.457310 Y140.187630 Z-0.125000
G01 X150.001940 Y147.049470 Z-0.125000
G01 X152.165410 Y153.987450 Z-0.125000
G01 X159.482580 Y171.478780 Z-0.125000
G01 X161.296350 Y176.488490 Z-0.125000
G01 X166.209610 Y193.934910 Z-0.125000
G01 X166.433200 Y195.120980 Z-0.125000
G01 X166.265400 Y195.650720 Z-0.125000
G01 X151.749330 Y197.941444 Z-0.125000
G01 X143.487780 Y198.714747 Z-0.125000
G01 X134.683590 Y198.662247 Z-0.125000
G01 X125.601070 Y197.551154 Z-0.125000
G01 X118.690250 Y195.947240 Z-0.125000
G01 X111.717470 Y193.670140 Z-0.125000
G01 X105.360520 Y191.085570 Z-0.125000
G01 X85.437683 Y182.094530 Z-0.125000
G01 X78.418136 Y179.495660 Z-0.125000
G01 X72.064070 Y177.570570 Z-0.125000
G01 X62.391397 Y175.468830 Z-0.125000
G01 X52.135714 Y174.367920 Z-0.125000
G01 X43.183543 Y174.357720 Z-0.125000
G01 X29.089705 Y175.439510 Z-0.125000
G01 X25.283927 Y175.240060 Z-0.125000
G01 X22.635072 Y174.434120 Z-0.125000
G01 X20.657729 Y173.063080 Z-0.125000
G01 X19.098809 Y171.005760 Z-0.125000
G01 X17.991710 Y168.223590 Z-0.125000
G01 X17.386620 Y164.716000 Z-0.125000
G01 X17.317500 Y160.967260 Z-0.125000
G01 X17.812092 Y156.204500 Z-0.125000
G01 X18.791161 Y151.450470 Z-0.125000
G01 X22.207833 Y140.919510 Z-0.125000
G01 X28.389520 Y126.891250 Z-0.125000
G01 X34.697846 Y115.050840 Z-0.125000
G01 X41.098670 Y105.450190 Z-0.125000
G01 X48.034722 Y97.169160 Z-0.125000
G01 X51.819718 Y93.404300 Z-0.125000
G01 X55.788967 Y89.950900 Z-0.125000
G01 X61.726003 Y85.632150 Z-0.125000
G01 X67.892658 Y82.109700 Z-0.125000
G01 X74.178348 Y79.428380 Z-0.125000
G01 X80.455037 Y77.589090 Z-0.125000
G01 X88.958176 Y76.335590 Z-0.125000
G01 X97.293099 Y76.418090 Z-0.125000
G01 X103.981960 Y77.399670 Z-0.125000
G01 X115.118650 Y80.436230 Z-0.125000
G01 X117.843110 Y80.709560 Z-0.125000
G01 X119.034090 Y80.419720 Z-0.125000
G01 X120.299370 Y79.718060 Z-0.125000
G01 X125.770480 Y74.882010 Z-0.125000
G01 X128.899080 Y72.894460 Z-0.125000
G01 X132.363800 Y71.781790 Z-0.125000
G01 X135.812130 Y71.824090 Z-0.125000
G01 X139.006050 Y73.034100 Z-0.125000
G01 X141.936010 Y75.536520 Z-0.125000
G01 X144.181470 Y79.062970 Z-0.125000
G01 X145.714050 Y83.312950 Z-0.125000
G01 X146.689410 Y88.472880 Z-0.125000
G01 X147.159230 Y95.013360 Z-0.125000
G01 X146.860670 Y117.006450 Z-0.125000
G01 X147.060510 Y125.294040 Z-0.125000
G01 X147.652690 Y132.138900 Z-0.125000
G01 X148.707380 Y138.796440 Z-0.125000
G01 X150.397200 Y145.771640 Z-0.125000
G01 X152.755490 Y152.829610 Z-0.125000
G01 X155.192530 Y158.715970 Z-0.125000
G01 X160.710410 Y170.619550 Z-0.125000
G01 X162.542080 Y175.286120 Z-0.125000
G01 X168.222780 Y193.706010 Z-0.125000
G01 X168.440980 Y194.748830 Z-0.125000
G01 X168.281250 Y195.285640 Z-0.125000
G01 X154.968890 Y198.272387 Z-0.125000
G01 X145.839330 Y199.571524 Z-0.125000
G01 X136.269090 Y199.825151 Z-0.125000
G01 X126.915660 Y198.882847 Z-0.125000
G01 X119.799250 Y197.342377 Z-0.125000
G01 X112.627540 Y195.076800 Z-0.125000
G01 X105.443600 Y192.179010 Z-0.125000
G01 X85.643961 Y183.314710 Z-0.125000
G01 X78.432829 Y180.684200 Z-0.125000
G01 X71.908797 Y178.750190 Z-0.125000
G01 X61.993513 Y176.672940 Z-0.125000
G01 X51.518789 Y175.650920 Z-0.125000
G01 X43.476564 Y175.700120 Z-0.125000
G01 X28.881364 Y177.064490 Z-0.125000
G01 X24.396092 Y176.968190 Z-0.125000
G01 X21.720611 Y176.189820 Z-0.125000
G01 X19.708661 Y174.816530 Z-0.125000
G01 X18.106323 Y172.728590 Z-0.125000
G01 X16.950887 Y169.886870 Z-0.125000
G01 X16.299225 Y166.291490 Z-0.125000
G01 X16.195516 Y162.442200 Z-0.125000
G01 X16.666540 Y157.547520 Z-0.125000
G01 X17.641808 Y152.660640 Z-0.125000
G01 X19.134206 Y147.398530 Z-0.125000
G01 X21.104777 Y141.841150 Z-0.125000
G01 X26.766174 Y128.785750 Z-0.125000
G01 X33.016329 Y116.634380 Z-0.125000
G01 X39.344973 Y106.702760 Z-0.125000
G01 X43.162812 Y101.661930 Z-0.125000
G01 X46.744256 Y97.478920 Z-0.125000
G01 X50.534353 Y93.562380 Z-0.125000
G01 X54.512698 Y89.959220 Z-0.125000
G01 X60.472554 Y85.435550 Z-0.125000
G01 X66.676970 Y81.725240 Z-0.125000
G01 X73.018232 Y78.879980 Z-0.125000
G01 X79.369422 Y76.905950 Z-0.125000
G01 X83.745218 Y76.022640 Z-0.125000
G01 X88.004578 Y75.519810 Z-0.125000
G01 X96.501125 Y75.534610 Z-0.125000
G01 X103.774010 Y76.608220 Z-0.125000
G01 X114.846770 Y79.748040 Z-0.125000
G01 X117.464920 Y80.002330 Z-0.125000
G01 X118.592800 Y79.677550 Z-0.125000
G01 X119.789980 Y78.914250 Z-0.125000
G01 X124.923670 Y73.861270 Z-0.125000
G01 X128.230030 Y71.505160 Z-0.125000
G01 X131.972450 Y70.155070 Z-0.125000
G01 X135.519570 Y70.124570 Z-0.125000
G01 X138.828160 Y71.309250 Z-0.125000
G01 X141.652550 Y73.586890 Z-0.125000
G01 X144.026510 Y77.066930 Z-0.125000
G01 X145.657880 Y81.304020 Z-0.125000
G01 X146.704310 Y86.477420 Z-0.125000
G01 X147.196400 Y92.476710 Z-0.125000
G01 X146.942930 Y115.271680 Z-0.125000
G01 X147.177740 Y123.663190 Z-0.125000
G01 X147.924410 Y131.287830 Z-0.125000
G01 X149.127710 Y138.019400 Z-0.125000
G01 X151.015520 Y145.066600 Z-0.125000
G01 X153.378550 Y151.621900 Z-0.125000
G01 X156.261100 Y158.125690 Z-0.125000
G01 X161.981230 Y169.712550 Z-0.125000
G01 X163.967300 Y174.458410 Z-0.125000
G01 X170.244090 Y193.306010 Z-0.125000
G01 X170.478620 Y194.329520 Z-0.125000
G01 X170.319070 Y194.880710 Z-0.125000
G01 X157.803250 Y198.575247 Z-0.125000
G01 X148.228000 Y200.402364 Z-0.125000
G01 X143.258060 Y200.878984 Z-0.125000
G01 X137.869710 Y201.016464 Z-0.125000
G01 X128.241470 Y200.251704 Z-0.125000
G01 X120.916510 Y198.778967 Z-0.125000
G01 X113.543480 Y196.527390 Z-0.125000
G01 X106.169520 Y193.598160 Z-0.125000
G01 X85.854702 Y184.579660 Z-0.125000
G01 X78.452449 Y181.917910 Z-0.125000
G01 X71.759287 Y179.975080 Z-0.125000
G01 X61.604452 Y177.922380 Z-0.125000
G01 X50.917830 Y176.978590 Z-0.125000
G01 X41.692706 Y177.200400 Z-0.125000
G01 X27.407472 Y178.797660 Z-0.125000
G01 X23.301191 Y178.687740 Z-0.125000
G01 X20.645655 Y177.866570 Z-0.125000
G01 X18.638905 Y176.416940 Z-0.125000
G01 X17.033872 Y174.218500 Z-0.125000
G01 X15.969172 Y171.569200 Z-0.125000
G01 X15.267503 Y167.883380 Z-0.125000
G01 X15.126014 Y163.931010 Z-0.125000
G01 X15.495821 Y159.432280 Z-0.125000
G01 X16.404290 Y154.458360 Z-0.125000
G01 X17.851134 Y149.091160 Z-0.125000
G01 X19.800551 Y143.414730 Z-0.125000
G01 X25.491914 Y130.063020 Z-0.125000
G01 X31.759976 Y117.604160 Z-0.125000
G01 X38.545822 Y106.713810 Z-0.125000
G01 X42.398357 Y101.534220 Z-0.125000
G01 X46.009028 Y97.234490 Z-0.125000
G01 X49.827979 Y93.207520 Z-0.125000
G01 X53.835546 Y89.502040 Z-0.125000
G01 X59.839564 Y84.849130 Z-0.125000
G01 X65.459398 Y81.375210 Z-0.125000
G01 X71.847698 Y78.360080 Z-0.125000
G01 X78.265964 Y76.244670 Z-0.125000
G01 X82.700487 Y75.281570 Z-0.125000
G01 X87.026740 Y74.715810 Z-0.125000
G01 X91.769559 Y74.507010 Z-0.125000
G01 X96.222914 Y74.695960 Z-0.125000
G01 X103.559530 Y75.817450 Z-0.125000
G01 X114.573290 Y79.059230 Z-0.125000
G01 X116.942990 Y79.315290 Z-0.125000
G01 X118.022070 Y79.000030 Z-0.125000
G01 X119.152540 Y78.223950 Z-0.125000
G01 X124.270370 Y72.685040 Z-0.125000
G01 X127.557800 Y70.115850 Z-0.125000
G01 X131.338450 Y68.562230 Z-0.125000
G01 X133.395200 Y68.298740 Z-0.125000
G01 X135.248410 Y68.408540 Z-0.125000
G01 X138.681790 Y69.572510 Z-0.125000
G01 X141.617590 Y71.870590 Z-0.125000
G01 X144.079880 Y75.406290 Z-0.125000
G01 X145.761460 Y79.719660 Z-0.125000
G01 X146.826710 Y84.986110 Z-0.125000
G01 X147.312940 Y91.088260 Z-0.125000
G01 X147.056980 Y113.506020 Z-0.125000
G01 X147.324360 Y121.995500 Z-0.125000
G01 X148.140330 Y129.719130 Z-0.125000
G01 X149.445420 Y136.546730 Z-0.125000
G01 X151.486120 Y143.703040 Z-0.125000
G01 X154.035520 Y150.366700 Z-0.125000
G01 X157.140740 Y156.981660 Z-0.125000
G01 X163.294600 Y168.760410 Z-0.125000
G01 X165.435610 Y173.585900 Z-0.125000
G01 X172.299100 Y192.857680 Z-0.125000
G01 X172.540510 Y193.866540 Z-0.125000
G01 X172.373010 Y194.440160 Z-0.125000
G01 X160.643210 Y198.792857 Z-0.125000
G01 X150.648780 Y201.204754 Z-0.125000
G01 X145.607780 Y201.888707 Z-0.125000
G01 X140.115430 Y202.224287 Z-0.125000
G01 X134.939990 Y202.146387 Z-0.125000
G01 X129.575280 Y201.656797 Z-0.125000
G01 X122.038980 Y200.255974 Z-0.125000
G01 X113.774450 Y197.778934 Z-0.125000
G01 X106.897140 Y195.060680 Z-0.125000
G01 X86.067592 Y185.887970 Z-0.125000
G01 X78.474870 Y183.195140 Z-0.125000
G01 X71.613689 Y181.243770 Z-0.125000
G01 X61.222831 Y179.215680 Z-0.125000
G01 X50.331540 Y178.349070 Z-0.125000
G01 X42.060439 Y178.593980 Z-0.125000
G01 X26.971668 Y180.495800 Z-0.125000
G01 X22.529074 Y180.476200 Z-0.125000
G01 X19.852013 Y179.673320 Z-0.125000
G01 X17.811029 Y178.213000 Z-0.125000
G01 X16.159424 Y175.975430 Z-0.125000
G01 X15.046663 Y173.266160 Z-0.125000
G01 X14.291558 Y169.487240 Z-0.125000
G01 X14.108873 Y165.429450 Z-0.125000
G01 X14.450195 Y160.808080 Z-0.125000
G01 X15.220056 Y156.287570 Z-0.125000
G01 X16.432549 Y151.441490 Z-0.125000
G01 X18.299115 Y145.677930 Z-0.125000
G01 X23.935462 Y132.074050 Z-0.125000
G01 X30.540394 Y118.611650 Z-0.125000
G01 X37.319747 Y107.408990 Z-0.125000
G01 X41.166066 Y102.060920 Z-0.125000
G01 X44.771354 Y97.609800 Z-0.125000
G01 X49.147243 Y92.858050 Z-0.125000
G01 X53.179119 Y89.050680 Z-0.125000
G01 X60.461501 Y83.413710 Z-0.125000
G01 X67.438931 Y79.348610 Z-0.125000
G01 X75.203567 Y76.188480 Z-0.125000
G01 X82.899826 Y74.336190 Z-0.125000
G01 X90.259310 Y73.667630 Z-0.125000
G01 X98.051578 Y74.085790 Z-0.125000
G01 X105.046420 Y75.443470 Z-0.125000
G01 X114.677720 Y78.461950 Z-0.125000
G01 X116.967440 Y78.522050 Z-0.125000
G01 X118.648090 Y77.427520 Z-0.125000
G01 X123.428190 Y71.707750 Z-0.125000
G01 X126.885600 Y68.726200 Z-0.125000
G01 X128.964060 Y67.584680 Z-0.125000
G01 X130.964150 Y66.902490 Z-0.125000
G01 X133.084640 Y66.594490 Z-0.125000
G01 X135.004090 Y66.677490 Z-0.125000
G01 X138.572550 Y67.825970 Z-0.125000
G01 X141.626560 Y70.149640 Z-0.125000
G01 X143.992260 Y73.397280 Z-0.125000
G01 X145.781450 Y77.696600 Z-0.125000
G01 X146.922330 Y82.973450 Z-0.125000
G01 X147.449660 Y89.106450 Z-0.125000
G01 X147.205650 Y111.712310 Z-0.125000
G01 X147.502640 Y120.293770 Z-0.125000
G01 X148.386520 Y128.111670 Z-0.125000
G01 X149.793570 Y135.031930 Z-0.125000
G01 X151.988930 Y142.295210 Z-0.125000
G01 X154.727500 Y149.066570 Z-0.125000
G01 X158.058830 Y155.793140 Z-0.125000
G01 X164.650300 Y167.766100 Z-0.125000
G01 X166.946240 Y172.671280 Z-0.125000
G01 X174.344490 Y192.254520 Z-0.125000
G01 X174.620790 Y193.363540 Z-0.125000
G01 X174.436620 Y193.967990 Z-0.125000
G01 X170.180230 Y196.120690 Z-0.125000
G01 X163.478990 Y198.923367 Z-0.125000
G01 X158.102160 Y200.711064 Z-0.125000
G01 X152.555330 Y202.089647 Z-0.125000
G01 X147.391400 Y202.956717 Z-0.125000
G01 X141.752550 Y203.453817 Z-0.125000
G01 X136.431730 Y203.495317 Z-0.125000
G01 X130.913400 Y203.097107 Z-0.125000
G01 X123.162950 Y201.772167 Z-0.125000
G01 X114.674750 Y199.312454 Z-0.125000
G01 X107.623290 Y196.565180 Z-0.125000
G01 X86.280040 Y187.238580 Z-0.125000
G01 X78.497684 Y184.514940 Z-0.125000
G01 X70.693991 Y182.369300 Z-0.125000
G01 X60.114333 Y180.457280 Z-0.125000
G01 X49.116163 Y179.757470 Z-0.125000
G01 X40.842370 Y180.149820 Z-0.125000
G01 X26.259139 Y182.244780 Z-0.125000
G01 X21.815893 Y182.287280 Z-0.125000
G01 X19.347395 Y181.605010 Z-0.125000
G01 X17.236827 Y180.207640 Z-0.125000
G01 X15.498012 Y178.010960 Z-0.125000
G01 X14.293312 Y175.315510 Z-0.125000
G01 X13.488850 Y171.939300 Z-0.125000
G01 X13.149472 Y167.911960 Z-0.125000
G01 X13.335494 Y163.288650 Z-0.125000
G01 X13.977134 Y158.739550 Z-0.125000
G01 X15.078574 Y153.841440 Z-0.125000
G01 X16.625991 Y148.659670 Z-0.125000
G01 X21.469751 Y136.276920 Z-0.125000
G01 X28.593766 Y121.112540 Z-0.125000
G01 X35.668796 Y108.847880 Z-0.125000
G01 X39.468636 Y103.304370 Z-0.125000
G01 X43.560722 Y98.026530 Z-0.125000
G01 X47.926681 Y93.100100 Z-0.125000
G01 X51.952061 Y89.140790 Z-0.125000
G01 X59.234075 Y83.251910 Z-0.125000
G01 X66.230338 Y78.975390 Z-0.125000
G01 X74.044517 Y75.616690 Z-0.125000
G01 X81.824277 Y73.609000 Z-0.125000
G01 X89.297966 Y72.834040 Z-0.125000
