%
(Header)
(Generated by gcodetools from Inkscape.)
(Using default header. To add your own header create file "header" in the output dir.)
M3
(Header end.)
G21 (All units in mm)

(Start cutting path id: polyline2637)
(Change tool to Default tool)

G00 Z3.000000
G00 X141.159343 Y127.684975

G00 Z4.875000 (Fast pre-penetrate)
G01 Z-0.125000 F400.0(Penetrate)
G01 X141.272770 Y130.699131 Z-0.125000 F800.000000
G01 X141.159899 Y133.539747 Z-0.125000
G01 X140.850892 Y136.051513 Z-0.125000
G01 X140.292675 Y138.698242 Z-0.125000
G01 X139.477257 Y141.307216 Z-0.125000
G01 X138.538516 Y143.480262 Z-0.125000
G01 X137.422584 Y145.379042 Z-0.125000
G01 X136.138219 Y146.937436 Z-0.125000
G01 X135.189927 Y147.776005 Z-0.125000
G01 X134.170357 Y148.459344 Z-0.125000
G01 X133.086334 Y148.998432 Z-0.125000
G01 X131.951855 Y149.404805 Z-0.125000
G01 X129.747614 Y149.859041 Z-0.125000
G01 X124.913682 Y150.332036 Z-0.125000
G01 X122.273805 Y150.748966 Z-0.125000
G01 X119.495208 Y151.497524 Z-0.125000
G01 X117.014001 Y152.534451 Z-0.125000
G01 X114.940676 Y153.747803 Z-0.125000
G01 X112.863461 Y155.372951 Z-0.125000
G01 X110.948251 Y157.331923 Z-0.125000
G01 X108.013813 Y160.949434 Z-0.125000
G01 X107.271870 Y161.595572 Z-0.125000
G01 X106.636500 Y161.906378 Z-0.125000
G01 X105.865585 Y162.014381 Z-0.125000
G01 X104.831250 Y161.896403 Z-0.125000
G01 X104.060308 Y161.646796 Z-0.125000
G01 X103.458461 Y161.264076 Z-0.125000
G01 X102.633121 Y160.358462 Z-0.125000
G01 X100.468965 Y156.998178 Z-0.125000
G01 X99.007329 Y155.161655 Z-0.125000
G01 X98.140026 Y154.287049 Z-0.125000
G01 X97.186812 Y153.475917 Z-0.125000
G01 X96.158881 Y152.748817 Z-0.125000
G01 X95.072239 Y152.120141 Z-0.125000
G01 X93.261300 Y151.334594 Z-0.125000
G01 X91.215571 Y150.757168 Z-0.125000
G01 X89.274617 Y150.425884 Z-0.125000
G01 X85.167521 Y149.966276 Z-0.125000
G01 X83.501865 Y149.641660 Z-0.125000
G01 X81.661373 Y148.992796 Z-0.125000
G01 X80.222597 Y148.175526 Z-0.125000
G01 X79.262055 Y147.401197 Z-0.125000
G01 X78.481853 Y146.586493 Z-0.125000
G01 X77.736284 Y145.604335 Z-0.125000
G01 X77.039029 Y144.450753 Z-0.125000
G01 X76.401066 Y143.131119 Z-0.125000
G01 X75.829990 Y141.660222 Z-0.125000
G01 X74.902891 Y138.366270 Z-0.125000
G01 X74.485168 Y136.255559 Z-0.125000
G01 X74.168171 Y134.126169 Z-0.125000
G01 X73.921659 Y131.708621 Z-0.125000
G01 X73.805719 Y129.452733 Z-0.125000
G01 X73.810269 Y127.699686 Z-0.125000
G01 X73.935973 Y125.890441 Z-0.125000
G01 X74.141078 Y124.526039 Z-0.125000
G01 X74.526019 Y122.875544 Z-0.125000
G01 X75.364721 Y120.198308 Z-0.125000
G01 X76.557355 Y117.330281 Z-0.125000
G01 X77.139385 Y114.808540 Z-0.125000
G01 X77.737343 Y113.020303 Z-0.125000
G01 X78.767999 Y110.860433 Z-0.125000
G01 X80.117161 Y108.740911 Z-0.125000
G01 X81.445950 Y107.032843 Z-0.125000
G01 X82.928779 Y105.357106 Z-0.125000
G01 X89.950547 Y98.191379 Z-0.125000
G01 X91.004460 Y97.260628 Z-0.125000
G01 X92.071788 Y96.486141 Z-0.125000
G01 X93.023149 Y95.951419 Z-0.125000
G01 X94.200120 Y95.468290 Z-0.125000
G01 X95.656888 Y95.069008 Z-0.125000
G01 X97.456237 Y94.750133 Z-0.125000
G01 X105.159307 Y93.871109 Z-0.125000
G01 X109.766940 Y93.543634 Z-0.125000
G01 X114.019213 Y93.541782 Z-0.125000
G01 X117.670908 Y93.855207 Z-0.125000
G01 X119.486000 Y94.163632 Z-0.125000
G01 X120.900884 Y94.506478 Z-0.125000
G01 X122.158791 Y94.919175 Z-0.125000
G01 X123.247338 Y95.398282 Z-0.125000
G01 X124.168855 Y95.940888 Z-0.125000
G01 X125.056504 Y96.652379 Z-0.125000
G01 X125.790457 Y97.450096 Z-0.125000
G01 X126.437045 Y98.339836 Z-0.125000
G01 X132.401169 Y107.578334 Z-0.125000
G01 X140.164193 Y121.678941 Z-0.125000
G01 X140.956355 Y123.353725 Z-0.125000
G01 X141.432313 Y124.962204 Z-0.125000
G01 X141.804343 Y126.937104 Z-0.125000
G01 X141.991880 Y128.845198 Z-0.125000
G01 X142.073451 Y131.115928 Z-0.125000
G01 X142.019105 Y133.151603 Z-0.125000
G01 X141.828897 Y135.170345 Z-0.125000
G01 X141.468879 Y137.319156 Z-0.125000
G01 X141.003715 Y139.239288 Z-0.125000
G01 X140.496033 Y140.864542 Z-0.125000
G01 X139.895271 Y142.428518 Z-0.125000
G01 X139.210425 Y143.893938 Z-0.125000
G01 X138.581458 Y145.016511 Z-0.125000
G01 X137.761912 Y146.223750 Z-0.125000
G01 X137.027033 Y147.102351 Z-0.125000
G01 X136.245322 Y147.861201 Z-0.125000
G01 X135.416463 Y148.502101 Z-0.125000
G01 X133.807560 Y149.381866 Z-0.125000
G01 X131.869410 Y150.010224 Z-0.125000
G01 X130.027013 Y150.327247 Z-0.125000
G01 X125.155432 Y150.766243 Z-0.125000
G01 X122.461209 Y151.170314 Z-0.125000
G01 X119.903724 Y151.827486 Z-0.125000
G01 X117.358091 Y152.846739 Z-0.125000
G01 X115.227299 Y154.066043 Z-0.125000
G01 X113.096241 Y155.726407 Z-0.125000
G01 X111.145709 Y157.757002 Z-0.125000
G01 X108.020587 Y161.817346 Z-0.125000
G01 X107.197072 Y162.487746 Z-0.125000
G01 X106.450445 Y162.735475 Z-0.125000
G01 X105.653971 Y162.726638 Z-0.125000
G01 X104.716183 Y162.544341 Z-0.125000
G01 X104.053509 Y162.273778 Z-0.125000
G01 X103.445947 Y161.839465 Z-0.125000
G01 X102.598858 Y160.853205 Z-0.125000
G01 X100.394961 Y157.519301 Z-0.125000
G01 X98.994735 Y155.813772 Z-0.125000
G01 X98.078801 Y154.903051 Z-0.125000
G01 X97.069814 Y154.053660 Z-0.125000
G01 X95.979917 Y153.288672 Z-0.125000
G01 X94.826706 Y152.625230 Z-0.125000
G01 X92.904669 Y151.796635 Z-0.125000
G01 X90.737919 Y151.196693 Z-0.125000
G01 X88.694518 Y150.870198 Z-0.125000
G01 X84.494052 Y150.438451 Z-0.125000
G01 X82.707428 Y150.092562 Z-0.125000
G01 X80.885245 Y149.473120 Z-0.125000
G01 X79.461392 Y148.675297 Z-0.125000
G01 X78.517069 Y147.900942 Z-0.125000
G01 X77.755705 Y147.074675 Z-0.125000
G01 X77.034002 Y146.069181 Z-0.125000
G01 X76.365109 Y144.880277 Z-0.125000
G01 X75.758738 Y143.514129 Z-0.125000
G01 X75.220735 Y141.987141 Z-0.125000
G01 X74.753190 Y140.325110 Z-0.125000
G01 X74.283794 Y138.200085 Z-0.125000
G01 X73.909515 Y135.997352 Z-0.125000
G01 X73.585242 Y133.426902 Z-0.125000
G01 X73.375904 Y130.962047 Z-0.125000
G01 X73.276447 Y128.391782 Z-0.125000
G01 X73.302720 Y126.685460 Z-0.125000
G01 X73.444404 Y124.941328 Z-0.125000
G01 X73.696287 Y123.408678 Z-0.125000
G01 X74.128113 Y121.583797 Z-0.125000
G01 X74.847514 Y119.294757 Z-0.125000
G01 X75.921033 Y116.849454 Z-0.125000
G01 X76.571034 Y114.364729 Z-0.125000
G01 X77.173913 Y112.660523 Z-0.125000
G01 X78.271774 Y110.406699 Z-0.125000
G01 X79.699808 Y108.198013 Z-0.125000
G01 X80.913344 Y106.652743 Z-0.125000
G01 X82.456154 Y104.931128 Z-0.125000
G01 X89.734541 Y97.552120 Z-0.125000
G01 X90.794064 Y96.609569 Z-0.125000
G01 X91.703277 Y95.940015 Z-0.125000
G01 X92.637625 Y95.403018 Z-0.125000
G01 X93.616344 Y94.991353 Z-0.125000
G01 X94.833241 Y94.645199 Z-0.125000
G01 X96.538320 Y94.348602 Z-0.125000
G01 X106.077701 Y93.298710 Z-0.125000
G01 X110.200909 Y92.993725 Z-0.125000
G01 X113.941372 Y92.960890 Z-0.125000
G01 X117.649344 Y93.238332 Z-0.125000
G01 X120.700939 Y93.810704 Z-0.125000
G01 X122.002264 Y94.207817 Z-0.125000
G01 X123.127906 Y94.672980 Z-0.125000
G01 X124.076912 Y95.201591 Z-0.125000
G01 X124.981812 Y95.894772 Z-0.125000
G01 X125.619748 Y96.554562 Z-0.125000
G01 X126.263717 Y97.405699 Z-0.125000
G01 X128.374507 Y100.754765 Z-0.125000
G01 X132.518327 Y106.947435 Z-0.125000
G01 X140.660816 Y121.258862 Z-0.125000
G01 X141.517086 Y123.002358 Z-0.125000
G01 X142.039928 Y124.676640 Z-0.125000
G01 X142.467494 Y126.751050 Z-0.125000
G01 X142.714138 Y128.767543 Z-0.125000
G01 X142.847832 Y131.129422 Z-0.125000
G01 X142.821347 Y133.234100 Z-0.125000
G01 X142.639182 Y135.316951 Z-0.125000
G01 X142.324434 Y137.250947 Z-0.125000
G01 X141.853741 Y139.229022 Z-0.125000
G01 X141.329814 Y140.910712 Z-0.125000
G01 X140.704948 Y142.535622 Z-0.125000
G01 X139.992109 Y144.063668 Z-0.125000
G01 X139.340070 Y145.237252 Z-0.125000
G01 X138.496818 Y146.500768 Z-0.125000
G01 X137.747519 Y147.419480 Z-0.125000
G01 X136.957183 Y148.210186 Z-0.125000
G01 X136.125202 Y148.873575 Z-0.125000
G01 X134.518601 Y149.771517 Z-0.125000
G01 X132.573704 Y150.404876 Z-0.125000
G01 X130.507866 Y150.762142 Z-0.125000
G01 X125.113231 Y151.229211 Z-0.125000
G01 X122.629352 Y151.593753 Z-0.125000
G01 X120.017812 Y152.252803 Z-0.125000
G01 X118.563849 Y152.781016 Z-0.125000
G01 X117.423311 Y153.293302 Z-0.125000
G01 X115.261880 Y154.549304 Z-0.125000
G01 X114.265486 Y155.279923 Z-0.125000
G01 X113.117752 Y156.267294 Z-0.125000
G01 X112.088736 Y157.309301 Z-0.125000
G01 X111.014714 Y158.582607 Z-0.125000
G01 X108.160869 Y162.554024 Z-0.125000
G01 X107.462661 Y163.167381 Z-0.125000
G01 X106.729607 Y163.445616 Z-0.125000
G01 X106.050449 Y163.456252 Z-0.125000
G01 X104.975792 Y163.247073 Z-0.125000
G01 X104.290310 Y162.977357 Z-0.125000
G01 X103.659941 Y162.549712 Z-0.125000
G01 X102.879025 Y161.702834 Z-0.125000
G01 X100.639621 Y158.412004 Z-0.125000
G01 X99.032041 Y156.469356 Z-0.125000
G01 X98.068985 Y155.525351 Z-0.125000
G01 X97.005203 Y154.638839 Z-0.125000
G01 X95.853711 Y153.835353 Z-0.125000
G01 X94.633560 Y153.134949 Z-0.125000
G01 X92.598176 Y152.257406 Z-0.125000
G01 X90.305141 Y151.627381 Z-0.125000
G01 X88.150509 Y151.301309 Z-0.125000
G01 X83.970706 Y150.931105 Z-0.125000
G01 X81.892328 Y150.547433 Z-0.125000
G01 X80.079775 Y149.963710 Z-0.125000
G01 X78.672326 Y149.186339 Z-0.125000
G01 X77.747979 Y148.411640 Z-0.125000
G01 X77.009845 Y147.573308 Z-0.125000
G01 X76.317326 Y146.543895 Z-0.125000
G01 X75.682644 Y145.319273 Z-0.125000
G01 X75.113949 Y143.906558 Z-0.125000
G01 X74.614893 Y142.323929 Z-0.125000
G01 X74.185078 Y140.599536 Z-0.125000
G01 X73.755607 Y138.394527 Z-0.125000
G01 X73.361828 Y135.727822 Z-0.125000
G01 X73.036523 Y132.706257 Z-0.125000
G01 X72.834778 Y129.874452 Z-0.125000
G01 X72.761198 Y127.358400 Z-0.125000
G01 X72.797816 Y125.713593 Z-0.125000
G01 X72.943919 Y124.037381 Z-0.125000
G01 X73.229351 Y122.322724 Z-0.125000
G01 X73.681391 Y120.369599 Z-0.125000
G01 X74.293133 Y118.490689 Z-0.125000
G01 X75.280557 Y116.451574 Z-0.125000
G01 X76.083540 Y113.760580 Z-0.125000
G01 X76.803206 Y111.912283 Z-0.125000
G01 X77.926334 Y109.736960 Z-0.125000
G01 X79.471684 Y107.430908 Z-0.125000
G01 X80.571529 Y106.061770 Z-0.125000
G01 X81.971147 Y104.514806 Z-0.125000
G01 X89.646144 Y96.765144 Z-0.125000
G01 X90.560887 Y95.958642 Z-0.125000
G01 X91.470629 Y95.294962 Z-0.125000
G01 X92.242127 Y94.854352 Z-0.125000
G01 X93.201610 Y94.453562 Z-0.125000
G01 X94.387075 Y94.136538 Z-0.125000
G01 X95.659613 Y93.936963 Z-0.125000
G01 X100.778765 Y93.463651 Z-0.125000
G01 X107.265282 Y92.709827 Z-0.125000
G01 X110.905044 Y92.444107 Z-0.125000
G01 X114.122797 Y92.407674 Z-0.125000
G01 X117.869319 Y92.677204 Z-0.125000
G01 X119.467850 Y92.929696 Z-0.125000
G01 X120.927739 Y93.261880 Z-0.125000
G01 X122.219566 Y93.668650 Z-0.125000
G01 X123.327613 Y94.143338 Z-0.125000
G01 X124.252754 Y94.679833 Z-0.125000
G01 X125.012927 Y95.274219 Z-0.125000
G01 X125.641973 Y95.926072 Z-0.125000
G01 X126.185691 Y96.638964 Z-0.125000
G01 X128.367390 Y100.073569 Z-0.125000
G01 X131.286243 Y104.262447 Z-0.125000
G01 X132.786561 Y106.572998 Z-0.125000
G01 X141.052107 Y120.685828 Z-0.125000
G01 X142.035721 Y122.620353 Z-0.125000
G01 X142.603305 Y124.363850 Z-0.125000
G01 X143.088179 Y126.542743 Z-0.125000
G01 X143.398297 Y128.676949 Z-0.125000
G01 X143.591178 Y131.136407 Z-0.125000
G01 X143.599592 Y133.311782 Z-0.125000
G01 X143.463755 Y135.181220 Z-0.125000
G01 X143.168110 Y137.160777 Z-0.125000
G01 X142.699057 Y139.194018 Z-0.125000
G01 X142.260061 Y140.643483 Z-0.125000
G01 X141.629375 Y142.340492 Z-0.125000
G01 X140.901057 Y143.951220 Z-0.125000
G01 X140.092968 Y145.436086 Z-0.125000
G01 X139.220637 Y146.761541 Z-0.125000
G01 X138.452368 Y147.726370 Z-0.125000
G01 X137.649702 Y148.555493 Z-0.125000
G01 X136.640715 Y149.370065 Z-0.125000
G01 X135.025383 Y150.250412 Z-0.125000
G01 X133.277415 Y150.802465 Z-0.125000
G01 X130.985465 Y151.192010 Z-0.125000
G01 X125.308070 Y151.666302 Z-0.125000
G01 X122.778444 Y152.022007 Z-0.125000
G01 X120.118300 Y152.683121 Z-0.125000
G01 X118.639387 Y153.220039 Z-0.125000
G01 X117.481360 Y153.743754 Z-0.125000
G01 X116.089760 Y154.514247 Z-0.125000
G01 X115.037884 Y155.216662 Z-0.125000
G01 X114.053000 Y155.985169 Z-0.125000
G01 X112.928919 Y157.018260 Z-0.125000
G01 X111.932526 Y158.101357 Z-0.125000
G01 X111.064932 Y159.196731 Z-0.125000
G01 X108.323587 Y163.269430 Z-0.125000
G01 X107.649297 Y163.882469 Z-0.125000
G01 X107.033084 Y164.127447 Z-0.125000
G01 X106.358556 Y164.146629 Z-0.125000
G01 X105.267177 Y163.920596 Z-0.125000
G01 X104.559603 Y163.648895 Z-0.125000
G01 X103.906877 Y163.227415 Z-0.125000
G01 X102.901091 Y162.137333 Z-0.125000
G01 X100.335350 Y158.522044 Z-0.125000
G01 X98.924594 Y156.933197 Z-0.125000
G01 X97.894096 Y155.967760 Z-0.125000
G01 X96.756892 Y155.060081 Z-0.125000
G01 X95.528247 Y154.237202 Z-0.125000
G01 X94.229674 Y153.520790 Z-0.125000
G01 X92.072529 Y152.628511 Z-0.125000
G01 X89.658923 Y152.001713 Z-0.125000
G01 X87.648833 Y151.720250 Z-0.125000
G01 X83.457548 Y151.421404 Z-0.125000
G01 X80.907973 Y150.974470 Z-0.125000
G01 X79.245466 Y150.464142 Z-0.125000
G01 X77.856537 Y149.706853 Z-0.125000
G01 X77.103269 Y149.077992 Z-0.125000
G01 X76.384133 Y148.265854 Z-0.125000
G01 X75.714579 Y147.253163 Z-0.125000
G01 X75.106567 Y146.033647 Z-0.125000
G01 X74.567294 Y144.613127 Z-0.125000
G01 X74.098956 Y143.009410 Z-0.125000
G01 X73.361510 Y139.375522 Z-0.125000
G01 X72.978976 Y136.636717 Z-0.125000
G01 X72.612264 Y133.111122 Z-0.125000
G01 X72.366678 Y129.817514 Z-0.125000
G01 X72.252246 Y126.943745 Z-0.125000
G01 X72.272883 Y125.045415 Z-0.125000
G01 X72.398587 Y123.401164 Z-0.125000
G01 X72.686665 Y121.473942 Z-0.125000
G01 X73.096028 Y119.594529 Z-0.125000
G01 X73.671125 Y117.887599 Z-0.125000
G01 X74.690220 Y116.003503 Z-0.125000
G01 X75.644306 Y113.131534 Z-0.125000
G01 X76.387493 Y111.349065 Z-0.125000
G01 X77.618095 Y109.058781 Z-0.125000
G01 X79.096003 Y106.894836 Z-0.125000
G01 X80.242917 Y105.475957 Z-0.125000
G01 X81.479710 Y104.108751 Z-0.125000
G01 X89.216911 Y96.271617 Z-0.125000
G01 X90.910507 Y94.850674 Z-0.125000
G01 X91.676342 Y94.382759 Z-0.125000
G01 X92.617755 Y93.966358 Z-0.125000
G01 X93.600337 Y93.690398 Z-0.125000
G01 X94.637026 Y93.524214 Z-0.125000
G01 X100.372048 Y93.121836 Z-0.125000
G01 X108.456223 Y92.123273 Z-0.125000
G01 X111.606903 Y91.901315 Z-0.125000
G01 X114.578885 Y91.874195 Z-0.125000
G01 X118.064978 Y92.134174 Z-0.125000
G01 X120.900302 Y92.674611 Z-0.125000
G01 X122.215465 Y93.081646 Z-0.125000
G01 X123.340974 Y93.557366 Z-0.125000
G01 X124.276355 Y94.093464 Z-0.125000
G01 X125.039571 Y94.684357 Z-0.125000
G01 X125.665627 Y95.328643 Z-0.125000
G01 X126.202598 Y96.029788 Z-0.125000
G01 X128.260287 Y99.234867 Z-0.125000
G01 X131.362946 Y103.628083 Z-0.125000
G01 X132.914831 Y105.975543 Z-0.125000
G01 X141.403209 Y120.073451 Z-0.125000
G01 X142.514114 Y122.208160 Z-0.125000
G01 X143.122337 Y124.023067 Z-0.125000
G01 X143.702038 Y126.493769 Z-0.125000
G01 X144.093939 Y128.967726 Z-0.125000
G01 X144.315077 Y131.370140 Z-0.125000
G01 X144.351696 Y133.382108 Z-0.125000
G01 X144.235676 Y135.306791 Z-0.125000
G01 X143.942756 Y137.341487 Z-0.125000
G01 X143.456876 Y139.430158 Z-0.125000
G01 X142.994438 Y140.919443 Z-0.125000
G01 X142.325545 Y142.664024 Z-0.125000
G01 X141.552143 Y144.320948 Z-0.125000
G01 X140.697249 Y145.848836 Z-0.125000
G01 X139.781712 Y147.211465 Z-0.125000
G01 X138.983412 Y148.200661 Z-0.125000
G01 X138.157993 Y149.046401 Z-0.125000
G01 X137.132390 Y149.869016 Z-0.125000
G01 X136.425265 Y150.305419 Z-0.125000
G01 X135.511104 Y150.736822 Z-0.125000
G01 X133.768376 Y151.256119 Z-0.125000
G01 X131.032349 Y151.667810 Z-0.125000
G01 X125.481239 Y152.109134 Z-0.125000
G01 X122.909863 Y152.457934 Z-0.125000
G01 X120.207412 Y153.121455 Z-0.125000
G01 X118.707253 Y153.666496 Z-0.125000
G01 X117.534647 Y154.200822 Z-0.125000
G01 X116.129077 Y154.989835 Z-0.125000
G01 X115.070242 Y155.710850 Z-0.125000
G01 X114.082686 Y156.500815 Z-0.125000
G01 X112.961859 Y157.563645 Z-0.125000
G01 X111.976076 Y158.678016 Z-0.125000
G01 X111.125945 Y159.804372 Z-0.125000
G01 X108.505197 Y163.963088 Z-0.125000
G01 X107.856334 Y164.571946 Z-0.125000
G01 X107.249248 Y164.801313 Z-0.125000
G01 X106.571519 Y164.796286 Z-0.125000
G01 X105.461170 Y164.527840 Z-0.125000
G01 X104.740102 Y164.230449 Z-0.125000
G01 X104.074702 Y163.787431 Z-0.125000
G01 X103.146148 Y162.804029 Z-0.125000
G01 X100.509869 Y159.210568 Z-0.125000
G01 X98.841250 Y157.396905 Z-0.125000
G01 X97.742966 Y156.413132 Z-0.125000
G01 X96.532181 Y155.486113 Z-0.125000
G01 X95.226385 Y154.644421 Z-0.125000
G01 X93.849574 Y153.911447 Z-0.125000
G01 X91.857873 Y153.096849 Z-0.125000
G01 X89.590132 Y152.479233 Z-0.125000
G01 X87.448174 Y152.154007 Z-0.125000
G01 X83.144996 Y151.915645 Z-0.125000
G01 X81.237008 Y151.669847 Z-0.125000
G01 X78.842082 Y151.135575 Z-0.125000
G01 X77.924667 Y150.774392 Z-0.125000
G01 X77.165738 Y150.339444 Z-0.125000
G01 X76.428636 Y149.745085 Z-0.125000
G01 X75.730481 Y148.961814 Z-0.125000
G01 X75.086750 Y147.969469 Z-0.125000
G01 X74.509139 Y146.759478 Z-0.125000
G01 X74.099062 Y145.637302 Z-0.125000
G01 X73.652419 Y144.055175 Z-0.125000
G01 X72.959582 Y140.406152 Z-0.125000
G01 X72.556093 Y137.203930 Z-0.125000
G01 X72.207373 Y133.565940 Z-0.125000
G01 X71.870479 Y129.099356 Z-0.125000
G01 X71.730647 Y125.992649 Z-0.125000
G01 X71.742606 Y124.180573 Z-0.125000
G01 X71.877358 Y122.366777 Z-0.125000
G01 X72.140248 Y120.470669 Z-0.125000
G01 X72.480025 Y118.889627 Z-0.125000
G01 X73.041312 Y117.357612 Z-0.125000
G01 X74.106100 Y115.629806 Z-0.125000
G01 X75.256639 Y112.473754 Z-0.125000
G01 X76.119735 Y110.549759 Z-0.125000
G01 X77.345839 Y108.372929 Z-0.125000
G01 X78.925585 Y106.121487 Z-0.125000
G01 X81.200126 Y103.488754 Z-0.125000
G01 X88.906952 Y95.629527 Z-0.125000
G01 X90.627006 Y94.199985 Z-0.125000
G01 X91.398186 Y93.746278 Z-0.125000
G01 X92.181617 Y93.414174 Z-0.125000
G01 X93.152715 Y93.159513 Z-0.125000
G01 X94.170222 Y93.029867 Z-0.125000
G01 X98.204108 Y92.931786 Z-0.125000
G01 X100.424277 Y92.762268 Z-0.125000
G01 X106.858750 Y91.850912 Z-0.125000
G01 X109.665764 Y91.533280 Z-0.125000
G01 X112.310059 Y91.362386 Z-0.125000
G01 X114.721416 Y91.343124 Z-0.125000
G01 X118.241904 Y91.607522 Z-0.125000
G01 X121.088870 Y92.171189 Z-0.125000
G01 X122.195145 Y92.518296 Z-0.125000
G01 X123.343382 Y92.997799 Z-0.125000
G01 X124.294955 Y93.535961 Z-0.125000
G01 X125.067405 Y94.125108 Z-0.125000
G01 X125.696530 Y94.762647 Z-0.125000
G01 X126.232470 Y95.451780 Z-0.125000
G01 X128.177049 Y98.423206 Z-0.125000
G01 X131.285767 Y102.774671 Z-0.125000
G01 X133.221324 Y105.654048 Z-0.125000
G01 X141.634031 Y119.281554 Z-0.125000
G01 X142.436512 Y120.675536 Z-0.125000
G01 X142.955121 Y121.766809 Z-0.125000
G01 X143.640417 Y123.803278 Z-0.125000
G01 X144.282295 Y126.442123 Z-0.125000
G01 X144.739759 Y129.075888 Z-0.125000
G01 X145.013867 Y131.612948 Z-0.125000
G01 X145.073425 Y133.716806 Z-0.125000
G01 X144.958226 Y135.714328 Z-0.125000
G01 X144.644324 Y137.813265 Z-0.125000
G01 X144.204349 Y139.650476 Z-0.125000
G01 X143.720559 Y141.177491 Z-0.125000
G01 X143.014255 Y142.967739 Z-0.125000
G01 X142.337875 Y144.394450 Z-0.125000
G01 X141.445675 Y145.990917 Z-0.125000
G01 X140.491377 Y147.424110 Z-0.125000
G01 X139.496465 Y148.661882 Z-0.125000
G01 X138.473349 Y149.683649 Z-0.125000
G01 X137.601204 Y150.365506 Z-0.125000
G01 X136.159756 Y151.153963 Z-0.125000
G01 X134.442136 Y151.678393 Z-0.125000
G01 X131.511800 Y152.095905 Z-0.125000
G01 X125.634300 Y152.560195 Z-0.125000
G01 X123.026200 Y152.904497 Z-0.125000
G01 X120.288348 Y153.570797 Z-0.125000
G01 X118.770779 Y154.123325 Z-0.125000
G01 X117.586426 Y154.667334 Z-0.125000
G01 X116.170061 Y155.473122 Z-0.125000
G01 X115.106463 Y156.211044 Z-0.125000
G01 X114.118167 Y157.020456 Z-0.125000
G01 X113.002552 Y158.110115 Z-0.125000
G01 X112.028993 Y159.252558 Z-0.125000
G01 X111.197647 Y160.406378 Z-0.125000
G01 X108.701835 Y164.634996 Z-0.125000
G01 X108.171849 Y165.173819 Z-0.125000
G01 X107.586935 Y165.430147 Z-0.125000
G01 X106.920027 Y165.434645 Z-0.125000
G01 X105.925248 Y165.186387 Z-0.125000
G01 X105.055961 Y164.840709 Z-0.125000
G01 X104.369209 Y164.402586 Z-0.125000
G01 X103.415652 Y163.441938 Z-0.125000
G01 X100.549318 Y159.697692 Z-0.125000
G01 X98.779020 Y157.865243 Z-0.125000
G01 X97.613135 Y156.866469 Z-0.125000
G01 X96.329087 Y155.922093 Z-0.125000
G01 X94.946747 Y155.062119 Z-0.125000
G01 X93.492652 Y154.311788 Z-0.125000
G01 X91.396361 Y153.478113 Z-0.125000
G01 X89.021331 Y152.851210 Z-0.125000
G01 X86.527742 Y152.510136 Z-0.125000
G01 X82.170669 Y152.340803 Z-0.125000
G01 X80.228392 Y152.105139 Z-0.125000
G01 X77.801239 Y151.595658 Z-0.125000
G01 X77.043050 Y151.298134 Z-0.125000
G01 X76.299308 Y150.870436 Z-0.125000
G01 X75.586309 Y150.275071 Z-0.125000
G01 X75.049682 Y149.656847 Z-0.125000
G01 X74.433971 Y148.688023 Z-0.125000
G01 X73.992567 Y147.749230 Z-0.125000
G01 X73.600164 Y146.665286 Z-0.125000
G01 X73.178974 Y145.116364 Z-0.125000
G01 X72.596125 Y141.867073 Z-0.125000
G01 X71.956151 Y135.721128 Z-0.125000
G01 X71.199523 Y125.380907 Z-0.125000
G01 X71.181002 Y123.614418 Z-0.125000
G01 X71.275062 Y121.806337 Z-0.125000
G01 X71.489638 Y119.923168 Z-0.125000
G01 X71.763217 Y118.549268 Z-0.125000
G01 X72.009623 Y117.750068 Z-0.125000
G01 X72.324398 Y117.055168 Z-0.125000
G01 X73.245623 Y115.808135 Z-0.125000
G01 X73.557302 Y115.259840 Z-0.125000
G01 X74.922312 Y111.783510 Z-0.125000
G01 X75.911191 Y109.715900 Z-0.125000
G01 X77.107185 Y107.680119 Z-0.125000
G01 X78.583267 Y105.600152 Z-0.125000
G01 X80.923081 Y102.875794 Z-0.125000
G01 X88.391994 Y95.147245 Z-0.125000
G01 X89.999204 Y93.761439 Z-0.125000
G01 X90.780358 Y93.267251 Z-0.125000
G01 X91.565217 Y92.909032 Z-0.125000
G01 X92.527929 Y92.645084 Z-0.125000
G01 X93.527233 Y92.530916 Z-0.125000
G01 X97.429435 Y92.612037 Z-0.125000
G01 X99.557212 Y92.521497 Z-0.125000
G01 X101.410536 Y92.300650 Z-0.125000
G01 X106.356677 Y91.487348 Z-0.125000
G01 X109.159775 Y91.107619 Z-0.125000
G01 X112.108209 Y90.862403 Z-0.125000
G01 X114.850453 Y90.819197 Z-0.125000
G01 X118.122445 Y91.057321 Z-0.125000
G01 X121.030794 Y91.624085 Z-0.125000
G01 X122.163686 Y91.976747 Z-0.125000
G01 X123.340022 Y92.463315 Z-0.125000
G01 X124.313793 Y93.006372 Z-0.125000
G01 X125.101748 Y93.595969 Z-0.125000
G01 X125.740187 Y94.227925 Z-0.125000
G01 X126.365634 Y95.023077 Z-0.125000
G01 X128.123444 Y97.643268 Z-0.125000
G01 X131.049335 Y101.694749 Z-0.125000
G01 X133.561313 Y105.368351 Z-0.125000
G01 X141.723672 Y118.275636 Z-0.125000
G01 X142.708318 Y119.940763 Z-0.125000
G01 X143.315324 Y121.184911 Z-0.125000
G01 X144.032159 Y123.256464 Z-0.125000
G01 X144.783813 Y126.180212 Z-0.125000
G01 X145.320757 Y128.963731 Z-0.125000
G01 X145.665430 Y131.603290 Z-0.125000
G01 X145.773565 Y133.772606 Z-0.125000
G01 X145.689507 Y135.822992 Z-0.125000
G01 X145.388596 Y137.971935 Z-0.125000
G01 X144.941954 Y139.851004 Z-0.125000
G01 X144.439749 Y141.413102 Z-0.125000
G01 X143.697673 Y143.246318 Z-0.125000
G01 X142.983008 Y144.709674 Z-0.125000
G01 X142.039611 Y146.350459 Z-0.125000
G01 X141.034407 Y147.826488 Z-0.125000
G01 X139.995072 Y149.102678 Z-0.125000
G01 X138.938724 Y150.154845 Z-0.125000
G01 X138.049461 Y150.853476 Z-0.125000
G01 X137.330351 Y151.298425 Z-0.125000
G01 X136.416084 Y151.723372 Z-0.125000
G01 X135.476471 Y152.023145 Z-0.125000
G01 X134.502435 Y152.227244 Z-0.125000
G01 X130.855925 Y152.640814 Z-0.125000
G01 X125.200913 Y153.077958 Z-0.125000
G01 X122.215941 Y153.544312 Z-0.125000
G01 X119.749313 Y154.240668 Z-0.125000
G01 X117.640613 Y155.146071 Z-0.125000
G01 X116.216310 Y155.966675 Z-0.125000
G01 X115.149749 Y156.719546 Z-0.125000
G01 X114.162114 Y157.546130 Z-0.125000
G01 X113.052955 Y158.659363 Z-0.125000
G01 X112.092334 Y159.826332 Z-0.125000
G01 X111.280117 Y161.003806 Z-0.125000
G01 X108.909480 Y165.285553 Z-0.125000
G01 X108.403094 Y165.815142 Z-0.125000
G01 X107.829981 Y166.052288 Z-0.125000
G01 X107.161830 Y166.029454 Z-0.125000
G01 X106.151255 Y165.738889 Z-0.125000
G01 X105.266780 Y165.359901 Z-0.125000
G01 X104.568810 Y164.900928 Z-0.125000
G01 X103.596653 Y163.925279 Z-0.125000
G01 X100.785618 Y160.385132 Z-0.125000
G01 X98.964810 Y158.548317 Z-0.125000
G01 X97.501587 Y157.332876 Z-0.125000
G01 X96.145229 Y156.373154 Z-0.125000
G01 X94.687561 Y155.495373 Z-0.125000
G01 X93.157769 Y154.726654 Z-0.125000
G01 X90.959640 Y153.870437 Z-0.125000
G01 X88.480629 Y153.228267 Z-0.125000
G01 X85.891500 Y152.888358 Z-0.125000
G01 X81.383984 Y152.769983 Z-0.125000
G01 X78.887194 Y152.510560 Z-0.125000
G01 X76.891338 Y152.112230 Z-0.125000
G01 X76.140690 Y151.825316 Z-0.125000
G01 X75.414172 Y151.402354 Z-0.125000
G01 X74.728372 Y150.803761 Z-0.125000
G01 X74.220532 Y150.176250 Z-0.125000
G01 X73.757221 Y149.403614 Z-0.125000
G01 X73.343889 Y148.479585 Z-0.125000
G01 X72.674997 Y146.182052 Z-0.125000
G01 X72.199964 Y143.351701 Z-0.125000
G01 X71.830421 Y139.718051 Z-0.125000
G01 X70.623791 Y124.309001 Z-0.125000
G01 X70.669616 Y120.847092 Z-0.125000
G01 X70.840907 Y119.243904 Z-0.125000
G01 X71.073529 Y118.109690 Z-0.125000
G01 X71.325465 Y117.357745 Z-0.125000
G01 X71.610950 Y116.791272 Z-0.125000
G01 X72.641527 Y115.553236 Z-0.125000
G01 X73.048059 Y114.886195 Z-0.125000
G01 X74.540201 Y111.282443 Z-0.125000
G01 X75.616710 Y109.106406 Z-0.125000
G01 X76.898615 Y106.981037 Z-0.125000
G01 X78.249178 Y105.093238 Z-0.125000
G01 X80.644104 Y102.271936 Z-0.125000
G01 X87.824622 Y94.677346 Z-0.125000
G01 X89.482103 Y93.219917 Z-0.125000
G01 X90.280376 Y92.704589 Z-0.125000
G01 X91.076850 Y92.338512 Z-0.125000
G01 X92.046468 Y92.084591 Z-0.125000
G01 X93.045136 Y92.001248 Z-0.125000
G01 X97.078519 Y92.290966 Z-0.125000
G01 X99.376052 Y92.235668 Z-0.125000
G01 X101.203341 Y92.001909 Z-0.125000
G01 X106.399010 Y91.047955 Z-0.125000
G01 X109.218328 Y90.625019 Z-0.125000
G01 X112.197744 Y90.350012 Z-0.125000
G01 X114.971685 Y90.299529 Z-0.125000
G01 X118.277808 Y90.556069 Z-0.125000
G01 X119.673140 Y90.791124 Z-0.125000
G01 X121.206345 Y91.161382 Z-0.125000
G01 X122.342200 Y91.533253 Z-0.125000
G01 X123.517107 Y92.040618 Z-0.125000
G01 X124.485296 Y92.599443 Z-0.125000
G01 X125.266054 Y93.198089 Z-0.125000
G01 X125.898857 Y93.832030 Z-0.125000
G01 X126.524172 Y94.621704 Z-0.125000
G01 X131.139108 Y101.072820 Z-0.125000
G01 X134.127838 Y105.397773 Z-0.125000
G01 X141.754390 Y117.187115 Z-0.125000
G01 X142.949088 Y119.165799 Z-0.125000
G01 X143.596443 Y120.458155 Z-0.125000
G01 X144.380323 Y122.672979 Z-0.125000
G01 X145.243922 Y125.892028 Z-0.125000
G01 X145.904718 Y129.066839 Z-0.125000
G01 X146.310933 Y131.846548 Z-0.125000
G01 X146.444097 Y133.813590 Z-0.125000
G01 X146.398245 Y135.915332 Z-0.125000
G01 X146.117840 Y138.111080 Z-0.125000
G01 X145.670271 Y140.028327 Z-0.125000
G01 X145.153329 Y141.622175 Z-0.125000
G01 X144.378207 Y143.494761 Z-0.125000
G01 X143.625839 Y144.992619 Z-0.125000
G01 X142.630028 Y146.676769 Z-0.125000
G01 X141.571113 Y148.196957 Z-0.125000
G01 X140.483466 Y149.515401 Z-0.125000
G01 X139.389891 Y150.604133 Z-0.125000
G01 X138.480546 Y151.326048 Z-0.125000
G01 X137.753022 Y151.783485 Z-0.125000
G01 X136.837247 Y152.215523 Z-0.125000
G01 X135.137804 Y152.674892 Z-0.125000
G01 X132.454695 Y152.979771 Z-0.125000
G01 X125.317092 Y153.553440 Z-0.125000
G01 X122.615276 Y153.957114 Z-0.125000
G01 X120.132085 Y154.616058 Z-0.125000
G01 X118.901483 Y155.079819 Z-0.125000
G01 X117.701652 Y155.639730 Z-0.125000
G01 X116.271872 Y156.473034 Z-0.125000
G01 X115.203724 Y157.238631 Z-0.125000
G01 X114.217597 Y158.079846 Z-0.125000
G01 X113.115238 Y159.213135 Z-0.125000
G01 X112.167317 Y160.400716 Z-0.125000
G01 X111.232492 Y161.834120 Z-0.125000
G01 X109.124030 Y165.915631 Z-0.125000
G01 X108.640743 Y166.432917 Z-0.125000
G01 X108.179813 Y166.632598 Z-0.125000
G01 X107.528542 Y166.621035 Z-0.125000
G01 X106.777946 Y166.407385 Z-0.125000
G01 X105.733584 Y165.980665 Z-0.125000
G01 X104.889273 Y165.459410 Z-0.125000
G01 X103.895764 Y164.511489 Z-0.125000
G01 X100.863537 Y160.875695 Z-0.125000
G01 X98.703720 Y158.835310 Z-0.125000
G01 X97.129186 Y157.618017 Z-0.125000
G01 X95.678901 Y156.658057 Z-0.125000
G01 X94.130614 Y155.782075 Z-0.125000
G01 X92.517266 Y155.018118 Z-0.125000
G01 X90.219416 Y154.174681 Z-0.125000
G01 X87.656321 Y153.555715 Z-0.125000
G01 X85.009380 Y153.248032 Z-0.125000
G01 X80.231884 Y153.175562 Z-0.125000
G01 X77.829259 Y152.979797 Z-0.125000
G01 X75.813560 Y152.585966 Z-0.125000
G01 X75.077278 Y152.281378 Z-0.125000
G01 X74.514801 Y151.931467 Z-0.125000
G01 X73.985238 Y151.464266 Z-0.125000
G01 X73.497241 Y150.861863 Z-0.125000
G01 X72.764955 Y149.445736 Z-0.125000
G01 X72.204383 Y147.549972 Z-0.125000
G01 X71.808117 Y145.205132 Z-0.125000
G01 X71.509244 Y142.085778 Z-0.125000
G01 X70.871520 Y132.279776 Z-0.125000
G01 X70.009244 Y123.339675 Z-0.125000
G01 X70.007392 Y120.162192 Z-0.125000
G01 X70.143017 Y118.809221 Z-0.125000
G01 X70.338544 Y117.862516 Z-0.125000
G01 X70.598338 Y117.121128 Z-0.125000
G01 X70.905307 Y116.563996 Z-0.125000
G01 X72.063307 Y115.312439 Z-0.125000
G01 X72.528391 Y114.601901 Z-0.125000
G01 X74.297896 Y110.535234 Z-0.125000
G01 X75.504368 Y108.217646 Z-0.125000
G01 X76.715338 Y106.276453 Z-0.125000
G01 X78.131783 Y104.326291 Z-0.125000
G01 X80.810474 Y101.169975 Z-0.125000
G01 X87.201529 Y94.222898 Z-0.125000
G01 X88.915816 Y92.684507 Z-0.125000
G01 X89.736684 Y92.141768 Z-0.125000
G01 X90.551230 Y91.761350 Z-0.125000
G01 X91.536431 Y91.510499 Z-0.125000
G01 X92.543910 Y91.453164 Z-0.125000
G01 X96.733211 Y91.979446 Z-0.125000
G01 X98.981056 Y91.985770 Z-0.125000
G01 X100.996808 Y91.715498 Z-0.125000
G01 X106.162473 Y90.653832 Z-0.125000
G01 X109.275213 Y90.134932 Z-0.125000
G01 X112.285294 Y89.833360 Z-0.125000
G01 X115.090959 Y89.781634 Z-0.125000
G01 X118.140543 Y90.024178 Z-0.125000
G01 X119.567253 Y90.264763 Z-0.125000
G01 X121.140570 Y90.646927 Z-0.125000
G01 X122.309921 Y91.031022 Z-0.125000
G01 X123.522611 Y91.552753 Z-0.125000
G01 X124.523846 Y92.122506 Z-0.125000
G01 X125.331459 Y92.725755 Z-0.125000
G01 X126.082610 Y93.464021 Z-0.125000
G01 X126.801244 Y94.362942 Z-0.125000
G01 X130.320938 Y99.160705 Z-0.125000
G01 X134.760403 Y105.485826 Z-0.125000
G01 X141.858477 Y116.218318 Z-0.125000
G01 X143.088973 Y118.217295 Z-0.125000
G01 X143.854332 Y119.701527 Z-0.125000
G01 X144.690812 Y122.054913 Z-0.125000
G01 X145.722394 Y125.807414 Z-0.125000
G01 X146.462909 Y129.172487 Z-0.125000
G01 X146.933761 Y132.093113 Z-0.125000
G01 X147.097511 Y134.137890 Z-0.125000
G01 X147.064306 Y136.304666 Z-0.125000
G01 X146.831764 Y138.228158 Z-0.125000
G01 X146.389752 Y140.179431 Z-0.125000
G01 X145.862570 Y141.801192 Z-0.125000
G01 X145.203917 Y143.395305 Z-0.125000
G01 X144.434431 Y144.937956 Z-0.125000
G01 X143.401552 Y146.686135 Z-0.125000
G01 X142.294536 Y148.280698 Z-0.125000
G01 X141.156644 Y149.680659 Z-0.125000
G01 X140.019466 Y150.852418 Z-0.125000
G01 X138.898561 Y151.775892 Z-0.125000
G01 X137.424886 Y152.622531 Z-0.125000
G01 X135.937057 Y153.091346 Z-0.125000
G01 X134.174140 Y153.337196 Z-0.125000
G01 X126.291736 Y153.960448 Z-0.125000
G01 X123.630693 Y154.285382 Z-0.125000
G01 X122.086851 Y154.588621 Z-0.125000
G01 X120.525547 Y155.015261 Z-0.125000
G01 X119.285023 Y155.459072 Z-0.125000
G01 X118.071433 Y156.000251 Z-0.125000
G01 X116.619958 Y156.814055 Z-0.125000
G01 X115.532072 Y157.568619 Z-0.125000
G01 X114.287870 Y158.623538 Z-0.125000
G01 X113.191835 Y159.773019 Z-0.125000
G01 X112.255370 Y160.977110 Z-0.125000
G01 X111.341209 Y162.428638 Z-0.125000
G01 X109.341279 Y166.526394 Z-0.125000
G01 X108.879767 Y167.028546 Z-0.125000
G01 X108.428600 Y167.209124 Z-0.125000
G01 X107.894486 Y167.192059 Z-0.125000
G01 X107.148680 Y166.971423 Z-0.125000
G01 X106.083919 Y166.517213 Z-0.125000
G01 X105.215531 Y165.992783 Z-0.125000
G01 X104.201569 Y165.072114 Z-0.125000
G01 X101.141138 Y161.568453 Z-0.125000
G01 X98.937558 Y159.552489 Z-0.125000
G01 X97.319686 Y158.324480 Z-0.125000
G01 X95.823416 Y157.340311 Z-0.125000
G01 X93.891034 Y156.256949 Z-0.125000
G01 X92.207519 Y155.471455 Z-0.125000
G01 X89.478266 Y154.495435 Z-0.125000
G01 X88.139582 Y154.148540 Z-0.125000
G01 X86.526287 Y153.844031 Z-0.125000
G01 X83.869265 Y153.598578 Z-0.125000
G01 X78.867721 Y153.589397 Z-0.125000
G01 X76.917294 Y153.482108 Z-0.125000
G01 X75.024203 Y153.154740 Z-0.125000
G01 X74.291969 Y152.877774 Z-0.125000
G01 X73.738832 Y152.552522 Z-0.125000
G01 X72.867296 Y151.691358 Z-0.125000
G01 X72.155303 Y150.381645 Z-0.125000
G01 X71.692203 Y148.867357 Z-0.125000
G01 X71.320676 Y146.655338 Z-0.125000
G01 X71.073582 Y143.628323 Z-0.125000
G01 X70.783996 Y136.709345 Z-0.125000
G01 X70.535340 Y132.843629 Z-0.125000
G01 X69.349797 Y122.446866 Z-0.125000
G01 X69.304686 Y119.742696 Z-0.125000
G01 X69.562786 Y117.801265 Z-0.125000
G01 X69.825676 Y117.032704 Z-0.125000
G01 X70.153018 Y116.451495 Z-0.125000
G01 X71.453840 Y115.147498 Z-0.125000
G01 X71.979858 Y114.421217 Z-0.125000
G01 X73.747140 Y110.494700 Z-0.125000
G01 X74.796714 Y108.417009 Z-0.125000
G01 X76.163444 Y106.146278 Z-0.125000
G01 X77.806372 Y103.842210 Z-0.125000
G01 X81.849994 Y99.006612 Z-0.125000
G01 X86.336290 Y93.979535 Z-0.125000
G01 X88.295660 Y92.159495 Z-0.125000
G01 X89.143463 Y91.582783 Z-0.125000
G01 X89.981768 Y91.180670 Z-0.125000
G01 X90.990808 Y90.924236 Z-0.125000
G01 X92.016517 Y90.885924 Z-0.125000
G01 X93.066964 Y91.012660 Z-0.125000
G01 X96.394386 Y91.672821 Z-0.125000
G01 X97.575485 Y91.766721 Z-0.125000
G01 X98.809447 Y91.730897 Z-0.125000
G01 X100.795222 Y91.435463 Z-0.125000
G01 X105.928926 Y90.257143 Z-0.125000
G01 X109.336226 Y89.632489 Z-0.125000
G01 X112.376787 Y89.309036 Z-0.125000
G01 X115.214493 Y89.263263 Z-0.125000
G01 X118.298499 Y89.539964 Z-0.125000
G01 X119.740026 Y89.805235 Z-0.125000
G01 X121.327736 Y90.219678 Z-0.125000
G01 X122.505765 Y90.630046 Z-0.125000
G01 X123.725096 Y91.179215 Z-0.125000
G01 X124.729929 Y91.768970 Z-0.125000
G01 X125.540373 Y92.383041 Z-0.125000
G01 X126.763832 Y93.669655 Z-0.125000
G01 X129.494910 Y97.246076 Z-0.125000
G01 X135.672659 Y105.929399 Z-0.125000
G01 X141.938222 Y115.207320 Z-0.125000
G01 X143.286352 Y117.363724 Z-0.125000
G01 X144.100051 Y118.920134 Z-0.125000
G01 X144.877025 Y121.094900 Z-0.125000
G01 X146.112760 Y125.477109 Z-0.125000
G01 X146.943154 Y129.017177 Z-0.125000
G01 X147.495444 Y132.048610 Z-0.125000
G01 X147.715736 Y134.150246 Z-0.125000
G01 X147.732828 Y136.363985 Z-0.125000
G01 X147.530528 Y138.321079 Z-0.125000
G01 X147.101136 Y140.301959 Z-0.125000
G01 X146.568954 Y141.947348 Z-0.125000
G01 X145.891092 Y143.566014 Z-0.125000
G01 X145.089829 Y145.135838 Z-0.125000
G01 X144.006494 Y146.921508 Z-0.125000
G01 X142.842223 Y148.559330 Z-0.125000
G01 X141.648213 Y150.006837 Z-0.125000
G01 X140.268571 Y151.406455 Z-0.125000
G01 X139.119461 Y152.331622 Z-0.125000
G01 X137.630652 Y153.169424 Z-0.125000
G01 X136.145813 Y153.620194 Z-0.125000
G01 X134.392315 Y153.848662 Z-0.125000
G01 X126.403893 Y154.466172 Z-0.125000
G01 X123.730996 Y154.802510 Z-0.125000
G01 X122.184138 Y155.108923 Z-0.125000
G01 X120.620162 Y155.538289 Z-0.125000
G01 X119.377442 Y155.984958 Z-0.125000
G01 X118.161656 Y156.530131 Z-0.125000
G01 X116.708037 Y157.351053 Z-0.125000
G01 X115.619463 Y158.112999 Z-0.125000
G01 X114.376664 Y159.178898 Z-0.125000
G01 X113.285524 Y160.340576 Z-0.125000
G01 X112.358293 Y161.556864 Z-0.125000
G01 X111.461277 Y163.021251 Z-0.125000
G01 X109.557285 Y167.119510 Z-0.125000
G01 X109.194674 Y167.545700 Z-0.125000
G01 X108.768457 Y167.749164 Z-0.125000
G01 X108.253552 Y167.744852 Z-0.125000
G01 X107.516636 Y167.520909 Z-0.125000
G01 X106.434518 Y167.037066 Z-0.125000
G01 X105.541947 Y166.504884 Z-0.125000
G01 X104.508009 Y165.609402 Z-0.125000
G01 X101.237711 Y162.074335 Z-0.125000
G01 X98.667234 Y159.881048 Z-0.125000
G01 X96.939374 Y158.656637 Z-0.125000
G01 X95.352432 Y157.673315 Z-0.125000
G01 X93.318635 Y156.589847 Z-0.125000
G01 X91.560958 Y155.804882 Z-0.125000
G01 X88.738360 Y154.833625 Z-0.125000
G01 X87.365306 Y154.491307 Z-0.125000
G01 X85.719388 Y154.194260 Z-0.125000
G01 X82.745740 Y153.956109 Z-0.125000
G01 X77.271544 Y154.036727 Z-0.125000
G01 X75.828879 Y153.978148 Z-0.125000
G01 X74.077234 Y153.676048 Z-0.125000
G01 X73.356298 Y153.396489 Z-0.125000
G01 X72.820941 Y153.065972 Z-0.125000
G01 X72.105508 Y152.338872 Z-0.125000
G01 X71.519298 Y151.280010 Z-0.125000
G01 X71.080090 Y149.854146 Z-0.125000
G01 X70.787991 Y148.060194 Z-0.125000
G01 X70.589210 Y145.158063 Z-0.125000
G01 X70.429983 Y137.375301 Z-0.125000
G01 X70.213925 Y133.447487 Z-0.125000
G01 X69.832767 Y129.870060 Z-0.125000
G01 X68.907996 Y124.008224 Z-0.125000
G01 X68.622008 Y121.356070 Z-0.125000
G01 X68.593275 Y119.174874 Z-0.125000
G01 X68.824811 Y117.638097 Z-0.125000
G01 X69.108391 Y116.870833 Z-0.125000
G01 X69.469812 Y116.287559 Z-0.125000
G01 X70.926103 Y114.926359 Z-0.125000
G01 X71.512419 Y114.141288 Z-0.125000
G01 X73.435302 Y109.972228 Z-0.125000
G01 X74.397538 Y108.086836 Z-0.125000
G01 X75.799166 Y105.749509 Z-0.125000
G01 X77.475141 Y103.375671 Z-0.125000
G01 X82.590086 Y97.029489 Z-0.125000
G01 X85.597072 Y93.574961 Z-0.125000
G01 X87.618406 Y91.649723 Z-0.125000
G01 X88.495896 Y91.032742 Z-0.125000
G01 X89.362458 Y90.601101 Z-0.125000
G01 X90.402613 Y90.328951 Z-0.125000
G01 X91.632818 Y90.316145 Z-0.125000
G01 X92.708930 Y90.503972 Z-0.125000
G01 X96.061991 Y91.366698 Z-0.125000
G01 X97.229278 Y91.508144 Z-0.125000
G01 X98.438899 Y91.500048 Z-0.125000
G01 X100.375778 Y91.206282 Z-0.125000
G01 X105.703713 Y89.852331 Z-0.125000
G01 X109.110986 Y89.160737 Z-0.125000
G01 X112.163004 Y88.795031 Z-0.125000
G01 X115.348054 Y88.742643 Z-0.125000
G01 X118.468070 Y89.064165 Z-0.125000
G01 X121.275507 Y89.729300 Z-0.125000
G01 X122.493224 Y90.159353 Z-0.125000
G01 X123.759254 Y90.730958 Z-0.125000
G01 X124.807135 Y91.338044 Z-0.125000
G01 X125.779451 Y92.065806 Z-0.125000
G01 X127.027568 Y93.344668 Z-0.125000
G01 X129.429267 Y96.362449 Z-0.125000
G01 X136.455348 Y106.130086 Z-0.125000
G01 X142.146158 Y114.383990 Z-0.125000
G01 X143.474709 Y116.479779 Z-0.125000
G01 X144.288778 Y117.997639 Z-0.125000
G01 X145.009740 Y119.981826 Z-0.125000
G01 X146.607768 Y125.633821 Z-0.125000
G01 X147.512775 Y129.387910 Z-0.125000
G01 X148.073690 Y132.284009 Z-0.125000
G01 X148.330601 Y134.458987 Z-0.125000
G01 X148.379072 Y136.400656 Z-0.125000
G01 X148.214105 Y138.388204 Z-0.125000
G01 X147.804927 Y140.394113 Z-0.125000
G01 X147.273591 Y142.058526 Z-0.125000
G01 X146.581416 Y143.696929 Z-0.125000
G01 X145.751842 Y145.289322 Z-0.125000
G01 X144.620009 Y147.108172 Z-0.125000
G01 X143.398138 Y148.787215 Z-0.125000
G01 X142.145603 Y150.283247 Z-0.125000
G01 X140.707065 Y151.744698 Z-0.125000
G01 X139.522183 Y152.721855 Z-0.125000
G01 X138.011281 Y153.617972 Z-0.125000
G01 X137.271798 Y153.906023 Z-0.125000
G01 X136.343139 Y154.145630 Z-0.125000
G01 X134.594298 Y154.370128 Z-0.125000
G01 X128.775932 Y154.770971 Z-0.125000
G01 X124.145069 Y155.293179 Z-0.125000
G01 X122.605883 Y155.583188 Z-0.125000
G01 X121.044526 Y155.988873 Z-0.125000
G01 X119.489731 Y156.534840 Z-0.125000
G01 X118.273707 Y157.082527 Z-0.125000
G01 X116.819162 Y157.907841 Z-0.125000
G01 X115.729980 Y158.674497 Z-0.125000
G01 X114.487498 Y159.747513 Z-0.125000
G01 X113.398977 Y160.917129 Z-0.125000
G01 X112.477699 Y162.141143 Z-0.125000
G01 X111.593039 Y163.613097 Z-0.125000
G01 X109.767919 Y167.696909 Z-0.125000
G01 X109.420099 Y168.107145 Z-0.125000
G01 X109.002507 Y168.289919 Z-0.125000
G01 X108.488555 Y168.260709 Z-0.125000
G01 X107.743092 Y168.002926 Z-0.125000
G01 X106.508521 Y167.399624 Z-0.125000
G01 X105.618570 Y166.824394 Z-0.125000
G01 X104.695757 Y166.015326 Z-0.125000
G01 X102.611425 Y163.813651 Z-0.125000
G01 X101.122934 Y162.409139 Z-0.125000
G01 X99.466565 Y161.048970 Z-0.125000
G01 X97.476478 Y159.627313 Z-0.125000
G01 X94.159665 Y157.660138 Z-0.125000
G01 X90.904554 Y156.162413 Z-0.125000
G01 X89.442653 Y155.628379 Z-0.125000
G01 X87.646955 Y155.094504 Z-0.125000
G01 X84.605944 Y154.509563 Z-0.125000
G01 X83.063240 Y154.365842 Z-0.125000
G01 X81.095060 Y154.310332 Z-0.125000
G01 X76.218821 Y154.511601 Z-0.125000
G01 X74.904347 Y154.496916 Z-0.125000
G01 X73.128757 Y154.194392 Z-0.125000
G01 X72.557178 Y153.974524 Z-0.125000
G01 X72.029097 Y153.661443 Z-0.125000
G01 X71.334699 Y152.965484 Z-0.125000
G01 X70.862841 Y152.135381 Z-0.125000
G01 X70.500601 Y151.050432 Z-0.125000
G01 X70.214110 Y149.401498 Z-0.125000
G01 X70.053958 Y146.652983 Z-0.125000
G01 X70.084385 Y138.511103 Z-0.125000
G01 X69.934949 Y134.513994 Z-0.125000
G01 X69.451635 Y130.070852 Z-0.125000
G01 X68.298476 Y123.920647 Z-0.125000
G01 X67.973912 Y121.722068 Z-0.125000
G01 X67.837546 Y119.454697 Z-0.125000
G01 X67.897845 Y118.487408 Z-0.125000
G01 X68.050430 Y117.660401 Z-0.125000
G01 X68.344593 Y116.855831 Z-0.125000
G01 X68.734350 Y116.236468 Z-0.125000
G01 X69.184459 Y115.760378 Z-0.125000
G01 X70.353916 Y114.780124 Z-0.125000
G01 X71.002224 Y113.967272 Z-0.125000
G01 X71.580628 Y112.882455 Z-0.125000
G01 X73.272081 Y109.167551 Z-0.125000
G01 X74.327979 Y107.177226 Z-0.125000
G01 X75.835679 Y104.753619 Z-0.125000
G01 X77.584017 Y102.323636 Z-0.125000
G01 X82.429166 Y96.029286 Z-0.125000
G01 X84.810175 Y93.193300 Z-0.125000
G01 X85.955635 Y91.997438 Z-0.125000
G01 X87.065693 Y91.012898 Z-0.125000
G01 X87.970831 Y90.387688 Z-0.125000
G01 X88.867767 Y89.958720 Z-0.125000
G01 X89.945970 Y89.706837 Z-0.125000
G01 X91.220043 Y89.742053 Z-0.125000
G01 X92.330206 Y89.988935 Z-0.125000
G01 X95.735469 Y91.056819 Z-0.125000
G01 X96.896036 Y91.248297 Z-0.125000
G01 X98.086527 Y91.270152 Z-0.125000
G01 X99.978031 Y90.979851 Z-0.125000
G01 X105.492179 Y89.433919 Z-0.125000
G01 X109.194436 Y88.623396 Z-0.125000
G01 X112.276246 Y88.246127 Z-0.125000
G01 X115.497253 Y88.218372 Z-0.125000
G01 X117.099620 Y88.357067 Z-0.125000
G01 X118.654733 Y88.596011 Z-0.125000
G01 X120.130074 Y88.925788 Z-0.125000
G01 X121.495614 Y89.331579 Z-0.125000
G01 X122.727168 Y89.795128 Z-0.125000
G01 X124.007036 Y90.400468 Z-0.125000
G01 X125.066743 Y91.031154 Z-0.125000
G01 X126.052924 Y91.771642 Z-0.125000
G01 X127.334458 Y93.039657 Z-0.125000
G01 X129.417652 Y95.536447 Z-0.125000
G01 X137.533154 Y106.683408 Z-0.125000
G01 X142.509960 Y113.779339 Z-0.125000
G01 X143.856978 Y115.900739 Z-0.125000
G01 X144.594530 Y117.303161 Z-0.125000
G01 X145.159176 Y118.885764 Z-0.125000
G01 X147.244302 Y126.375765 Z-0.125000
G01 X148.144493 Y130.081912 Z-0.125000
G01 X148.689084 Y132.831458 Z-0.125000
G01 X148.956895 Y135.088774 Z-0.125000
G01 X148.990338 Y137.082143 Z-0.125000
G01 X148.785736 Y139.103795 Z-0.125000
G01 X148.411669 Y140.791755 Z-0.125000
G01 X147.850885 Y142.466618 Z-0.125000
G01 X147.117170 Y144.112378 Z-0.125000
G01 X146.236955 Y145.711253 Z-0.125000
G01 X145.245854 Y147.242950 Z-0.125000
G01 X143.966913 Y148.959988 Z-0.125000
G01 X142.436273 Y150.741954 Z-0.125000
G01 X140.943893 Y152.223064 Z-0.125000
G01 X139.729510 Y153.215753 Z-0.125000
G01 X138.201093 Y154.127479 Z-0.125000
G01 X137.459467 Y154.421272 Z-0.125000
G01 X136.531151 Y154.667943 Z-0.125000
G01 X134.780406 Y154.900035 Z-0.125000
G01 X129.477739 Y155.225869 Z-0.125000
G01 X124.267994 Y155.857958 Z-0.125000
G01 X122.734233 Y156.154502 Z-0.125000
G01 X121.178379 Y156.563283 Z-0.125000
G01 X119.627393 Y157.110626 Z-0.125000
G01 X118.412772 Y157.659159 Z-0.125000
G01 X116.958148 Y158.485955 Z-0.125000
G01 X115.867933 Y159.254489 Z-0.125000
G01 X114.623891 Y160.330628 Z-0.125000
G01 X113.534867 Y161.503762 Z-0.125000
G01 X112.615256 Y162.731004 Z-0.125000
G01 X111.736946 Y164.205207 Z-0.125000
G01 X111.177009 Y165.373156 Z-0.125000
G01 X110.031206 Y168.154453 Z-0.125000
G01 X109.705266 Y168.593846 Z-0.125000
G01 X109.312149 Y168.800855 Z-0.125000
G01 X108.819733 Y168.787229 Z-0.125000
G01 X108.087950 Y168.530690 Z-0.125000
G01 X106.836075 Y167.893706 Z-0.125000
G01 X105.922285 Y167.307655 Z-0.125000
G01 X105.098320 Y166.626433 Z-0.125000
G01 X102.906435 Y164.456006 Z-0.125000
G01 X101.418156 Y163.133011 Z-0.125000
G01 X99.480615 Y161.631238 Z-0.125000
G01 X97.412793 Y160.226091 Z-0.125000
G01 X93.975119 Y158.240925 Z-0.125000
G01 X92.122773 Y157.338749 Z-0.125000
G01 X90.239471 Y156.544180 Z-0.125000
G01 X88.740238 Y156.004722 Z-0.125000
G01 X86.909298 Y155.464999 Z-0.125000
G01 X83.827250 Y154.872174 Z-0.125000
G01 X81.965035 Y154.707048 Z-0.125000
G01 X79.708989 Y154.667493 Z-0.125000
G01 X75.152711 Y154.998883 Z-0.125000
G01 X73.983201 Y155.016584 Z-0.125000
G01 X73.115263 Y154.930541 Z-0.125000
G01 X72.332071 Y154.753985 Z-0.125000
G01 X71.759407 Y154.541208 Z-0.125000
G01 X71.236803 Y154.239953 Z-0.125000
G01 X70.560714 Y153.569077 Z-0.125000
G01 X70.112934 Y152.763765 Z-0.125000
G01 X69.783237 Y151.703872 Z-0.125000
G01 X69.575142 Y150.378179 Z-0.125000
G01 X69.473357 Y147.356827 Z-0.125000
G01 X69.725478 Y138.754889 Z-0.125000
G01 X69.603320 Y134.748044 Z-0.125000
G01 X69.362656 Y132.242285 Z-0.125000
G01 X69.011342 Y129.937396 Z-0.125000
G01 X67.670198 Y123.877255 Z-0.125000
G01 X67.239430 Y121.412241 Z-0.125000
G01 X67.092454 Y119.371750 Z-0.125000
G01 X67.279832 Y117.723107 Z-0.125000
G01 X67.586722 Y116.876018 Z-0.125000
G01 X68.007250 Y116.214138 Z-0.125000
G01 X68.500988 Y115.698174 Z-0.125000
G01 X69.878301 Y114.560679 Z-0.125000
G01 X70.506263 Y113.792753 Z-0.125000
G01 X71.122582 Y112.679071 Z-0.125000
G01 X73.141139 Y108.320251 Z-0.125000
G01 X74.662147 Y105.617456 Z-0.125000
G01 X76.327777 Y103.116988 Z-0.125000
G01 X81.417533 Y96.102707 Z-0.125000
G01 X83.405187 Y93.520615 Z-0.125000
G01 X85.141222 Y91.582280 Z-0.125000
G01 X86.653446 Y90.244893 Z-0.125000
G01 X87.399252 Y89.752451 Z-0.125000
G01 X88.142757 Y89.391877 Z-0.125000
G01 X89.449771 Y89.086575 Z-0.125000
G01 X90.775543 Y89.164442 Z-0.125000
G01 X91.928067 Y89.466886 Z-0.125000
G01 X95.606961 Y90.791548 Z-0.125000
G01 X96.770332 Y91.005595 Z-0.125000
G01 X97.952939 Y91.025915 Z-0.125000
G01 X99.820763 Y90.695980 Z-0.125000
G01 X105.023523 Y89.073928 Z-0.125000
G01 X108.703714 Y88.173102 Z-0.125000
G01 X110.517192 Y87.869996 Z-0.125000
G01 X112.090059 Y87.703335 Z-0.125000
G01 X113.705073 Y87.632559 Z-0.125000
G01 X115.340249 Y87.668833 Z-0.125000
G01 X116.967249 Y87.816418 Z-0.125000
G01 X118.553742 Y88.071767 Z-0.125000
G01 X120.066389 Y88.423927 Z-0.125000
G01 X121.473733 Y88.855858 Z-0.125000
G01 X122.987465 Y89.450032 Z-0.125000
G01 X124.284107 Y90.091038 Z-0.125000
G01 X125.517884 Y90.854280 Z-0.125000
G01 X126.489115 Y91.603262 Z-0.125000
G01 X128.186230 Y93.289952 Z-0.125000
G01 X129.909433 Y95.357562 Z-0.125000
G01 X133.156580 Y99.902701 Z-0.125000
G01 X138.452103 Y106.955717 Z-0.125000
G01 X141.295392 Y110.875884 Z-0.125000
G01 X143.717569 Y114.439315 Z-0.125000
G01 X144.858398 Y116.475546 Z-0.125000
G01 X145.340998 Y117.811372 Z-0.125000
G01 X147.820934 Y126.919219 Z-0.125000
G01 X148.715066 Y130.524321 Z-0.125000
G01 X149.245925 Y133.070191 Z-0.125000
G01 X149.521859 Y135.053902 Z-0.125000
G01 X149.611791 Y137.079179 Z-0.125000
G01 X149.453914 Y139.122448 Z-0.125000
G01 X149.105829 Y140.822473 Z-0.125000
G01 X148.555840 Y142.506544 Z-0.125000
G01 X147.816304 Y144.161696 Z-0.125000
G01 X146.914155 Y145.773271 Z-0.125000
G01 X145.887362 Y147.323860 Z-0.125000
G01 X144.552964 Y149.074579 Z-0.125000
G01 X142.951152 Y150.912505 Z-0.125000
G01 X141.393922 Y152.464601 Z-0.125000
G01 X139.935541 Y153.674989 Z-0.125000
G01 X138.388630 Y154.615423 Z-0.125000
G01 X137.643247 Y154.922789 Z-0.125000
G01 X136.711570 Y155.187557 Z-0.125000
G01 X134.952384 Y155.436345 Z-0.125000
G01 X129.632785 Y155.748976 Z-0.125000
G01 X124.410869 Y156.449142 Z-0.125000
G01 X122.578473 Y156.826914 Z-0.125000
G01 X121.030001 Y157.264164 Z-0.125000
G01 X119.489889 Y157.841325 Z-0.125000
G01 X118.286619 Y158.414015 Z-0.125000
G01 X116.849642 Y159.269994 Z-0.125000
G01 X115.776493 Y160.059536 Z-0.125000
G01 X114.557480 Y161.157053 Z-0.125000
G01 X113.497111 Y162.343707 Z-0.125000
G01 X112.608959 Y163.574547 Z-0.125000
G01 X111.769966 Y165.037744 Z-0.125000
G01 X110.217763 Y168.710500 Z-0.125000
G01 X109.900634 Y169.132431 Z-0.125000
G01 X109.512597 Y169.318353 Z-0.125000
G01 X109.019679 Y169.280280 Z-0.125000
G01 X108.412672 Y169.053770 Z-0.125000
G01 X106.337019 Y167.873227 Z-0.125000
G01 X105.370709 Y167.114298 Z-0.125000
G01 X103.190227 Y165.090317 Z-0.125000
G01 X101.708774 Y163.860694 Z-0.125000
G01 X99.762554 Y162.434195 Z-0.125000
G01 X97.343234 Y160.860640 Z-0.125000
G01 X95.267263 Y159.648506 Z-0.125000
G01 X93.036087 Y158.478494 Z-0.125000
G01 X91.113442 Y157.584759 Z-0.125000
G01 X89.182436 Y156.803207 Z-0.125000
G01 X87.660740 Y156.277137 Z-0.125000
G01 X85.818131 Y155.756411 Z-0.125000
G01 X84.066247 Y155.388349 Z-0.125000
G01 X82.418424 Y155.158956 Z-0.125000
G01 X80.573434 Y155.027643 Z-0.125000
G01 X78.841447 Y155.021002 Z-0.125000
G01 X74.076996 Y155.496114 Z-0.125000
G01 X72.882589 Y155.527891 Z-0.125000
G01 X71.544513 Y155.312546 Z-0.125000
G01 X70.450039 Y154.802457 Z-0.125000
G01 X69.888991 Y154.277895 Z-0.125000
G01 X69.438538 Y153.540502 Z-0.125000
G01 X69.112201 Y152.556174 Z-0.125000
G01 X68.945223 Y151.578248 Z-0.125000
G01 X68.850767 Y150.117009 Z-0.125000
G01 X68.867700 Y148.406533 Z-0.125000
G01 X69.369323 Y139.453150 Z-0.125000
G01 X69.376149 Y137.194247 Z-0.125000
G01 X69.279709 Y134.997334 Z-0.125000
G01 X69.021820 Y132.500782 Z-0.125000
G01 X68.630872 Y130.204731 Z-0.125000
G01 X67.022842 Y123.873233 Z-0.125000
G01 X66.556383 Y121.623563 Z-0.125000
G01 X66.345457 Y119.534337 Z-0.125000
G01 X66.371492 Y118.719818 Z-0.125000
G01 X66.514658 Y117.822538 Z-0.125000
G01 X66.836417 Y116.927850 Z-0.125000
G01 X67.289807 Y116.217233 Z-0.125000
G01 X67.829080 Y115.654412 Z-0.125000
G01 X69.342309 Y114.417354 Z-0.125000
G01 X70.104361 Y113.492584 Z-0.125000
G01 X70.757405 Y112.296827 Z-0.125000
G01 X72.730268 Y108.022886 Z-0.125000
G01 X74.269136 Y105.268947 Z-0.125000
G01 X75.726803 Y103.036237 Z-0.125000
G01 X81.788849 Y94.261580 Z-0.125000
G01 X83.327743 Y92.265328 Z-0.125000
G01 X84.860420 Y90.612451 Z-0.125000
G01 X86.205322 Y89.493768 Z-0.125000
G01 X87.551652 Y88.766112 Z-0.125000
G01 X88.132332 Y88.586407 Z-0.125000
G01 X88.912535 Y88.470996 Z-0.125000
G01 X90.297045 Y88.584740 Z-0.125000
G01 X91.701187 Y89.013206 Z-0.125000
G01 X95.290996 Y90.472831 Z-0.125000
G01 X96.462305 Y90.737335 Z-0.125000
G01 X97.637344 Y90.787579 Z-0.125000
G01 X98.436120 Y90.697409 Z-0.125000
G01 X99.469793 Y90.458649 Z-0.125000
G01 X104.854190 Y88.618977 Z-0.125000
G01 X108.829020 Y87.586945 Z-0.125000
G01 X110.658400 Y87.278256 Z-0.125000
G01 X112.246612 Y87.118104 Z-0.125000
G01 X113.878507 Y87.064499 Z-0.125000
G01 X115.531860 Y87.128052 Z-0.125000
G01 X117.177963 Y87.311408 Z-0.125000
G01 X118.784088 Y87.608455 Z-0.125000
G01 X120.316261 Y88.005145 Z-0.125000
G01 X121.742443 Y88.481050 Z-0.125000
G01 X123.277183 Y89.122532 Z-0.125000
G01 X124.593113 Y89.800473 Z-0.125000
G01 X125.848322 Y90.589830 Z-0.125000
G01 X126.967587 Y91.450994 Z-0.125000
G01 X128.705183 Y93.111994 Z-0.125000
G01 X129.981531 Y94.599664 Z-0.125000
G01 X133.476091 Y99.470743 Z-0.125000
G01 X139.187723 Y106.930582 Z-0.125000
G01 X141.850275 Y110.531503 Z-0.125000
G01 X144.006970 Y113.659112 Z-0.125000
G01 X145.138221 Y115.637638 Z-0.125000
G01 X145.593728 Y116.873849 Z-0.125000
G01 X146.467857 Y120.613597 Z-0.125000
G01 X148.490806 Y127.830099 Z-0.125000
G01 X149.366496 Y131.316059 Z-0.125000
G01 X149.856266 Y133.637986 Z-0.125000
G01 X150.138972 Y135.677128 Z-0.125000
G01 X150.211548 Y137.737568 Z-0.125000
G01 X150.064863 Y139.454764 Z-0.125000
G01 X149.706115 Y141.160028 Z-0.125000
G01 X149.131229 Y142.843490 Z-0.125000
G01 X148.353910 Y144.495256 Z-0.125000
G01 X147.403925 Y146.103947 Z-0.125000
G01 X146.323130 Y147.654853 Z-0.125000
G01 X144.683218 Y149.692433 Z-0.125000
G01 X143.013885 Y151.514828 Z-0.125000
G01 X141.417020 Y153.051817 Z-0.125000
G01 X139.941970 Y154.246541 Z-0.125000
G01 X138.388815 Y155.172556 Z-0.125000
G01 X136.695457 Y155.749452 Z-0.125000
G01 X135.113357 Y155.976332 Z-0.125000
G01 X129.794868 Y156.290630 Z-0.125000
G01 X124.877831 Y157.013392 Z-0.125000
G01 X123.068507 Y157.382882 Z-0.125000
G01 X121.534587 Y157.798648 Z-0.125000
G01 X119.999450 Y158.345303 Z-0.125000
G01 X118.494660 Y159.041870 Z-0.125000
G01 X117.056863 Y159.892928 Z-0.125000
G01 X115.979799 Y160.678263 Z-0.125000
G01 X114.753007 Y161.770330 Z-0.125000
G01 X113.683192 Y162.951481 Z-0.125000
G01 X112.785753 Y164.176421 Z-0.125000
G01 X111.938082 Y165.631416 Z-0.125000
G01 X110.389001 Y169.258346 Z-0.125000
G01 X110.076291 Y169.662285 Z-0.125000
G01 X109.775354 Y169.813071 Z-0.125000
G01 X109.407557 Y169.815452 Z-0.125000
G01 X108.839683 Y169.632863 Z-0.125000
G01 X106.875551 Y168.529182 Z-0.125000
G01 X105.856430 Y167.788270 Z-0.125000
G01 X103.611311 Y165.844167 Z-0.125000
G01 X101.988041 Y164.590546 Z-0.125000
G01 X99.762078 Y163.072925 Z-0.125000
G01 X97.263515 Y161.532496 Z-0.125000
G01 X94.750744 Y160.117109 Z-0.125000
G01 X92.440299 Y158.934291 Z-0.125000
G01 X90.070853 Y157.855083 Z-0.125000
G01 X88.109049 Y157.081363 Z-0.125000
G01 X86.201459 Y156.450200 Z-0.125000
G01 X84.376921 Y155.973104 Z-0.125000
G01 X82.649987 Y155.645127 Z-0.125000
G01 X81.018198 Y155.445923 Z-0.125000
G01 X79.157069 Y155.350593 Z-0.125000
G01 X77.668525 Y155.399091 Z-0.125000
G01 X73.443372 Y155.951012 Z-0.125000
G01 X72.168453 Y156.044304 Z-0.125000
G01 X71.428096 Y156.003769 Z-0.125000
G01 X70.771719 Y155.870922 Z-0.125000
G01 X70.190271 Y155.651477 Z-0.125000
G01 X69.674334 Y155.351387 Z-0.125000
G01 X69.027270 Y154.704720 Z-0.125000
G01 X68.618966 Y153.935524 Z-0.125000
G01 X68.344064 Y152.919578 Z-0.125000
G01 X68.197406 Y151.351501 Z-0.125000
G01 X68.282363 Y148.688843 Z-0.125000
G01 X68.824758 Y142.862011 Z-0.125000
G01 X69.025736 Y139.692942 Z-0.125000
G01 X69.046135 Y136.998984 Z-0.125000
G01 X68.888444 Y134.412791 Z-0.125000
G01 X68.621003 Y132.385424 Z-0.125000
G01 X68.167005 Y130.141363 Z-0.125000
G01 X66.426578 Y124.158401 Z-0.125000
G01 X65.826610 Y121.622796 Z-0.125000
G01 X65.597507 Y119.515604 Z-0.125000
G01 X65.756575 Y117.954273 Z-0.125000
G01 X66.095135 Y117.007172 Z-0.125000
G01 X66.675471 Y116.129894 Z-0.125000
G01 X67.272582 Y115.533762 Z-0.125000
G01 X68.914822 Y114.179627 Z-0.125000
G01 X69.721959 Y113.170666 Z-0.125000
G01 X70.317509 Y112.073943 Z-0.125000
G01 X72.311460 Y107.724331 Z-0.125000
G01 X73.668162 Y105.249342 Z-0.125000
G01 X81.697330 Y92.967240 Z-0.125000
G01 X83.018287 Y91.253854 Z-0.125000
G01 X84.354272 Y89.846801 Z-0.125000
G01 X85.723437 Y88.762699 Z-0.125000
G01 X86.915727 Y88.154714 Z-0.125000
G01 X87.519426 Y87.974056 Z-0.125000
G01 X88.333442 Y87.863355 Z-0.125000
G01 X89.782881 Y88.004986 Z-0.125000
G01 X91.254200 Y88.487003 Z-0.125000
G01 X93.965594 Y89.734883 Z-0.125000
G01 X95.177516 Y90.206978 Z-0.125000
G01 X96.362875 Y90.486272 Z-0.125000
G01 X97.538946 Y90.526594 Z-0.125000
G01 X98.332801 Y90.417745 Z-0.125000
G01 X99.356525 Y90.145383 Z-0.125000
G01 X104.165110 Y88.318226 Z-0.125000
G01 X106.379934 Y87.622002 Z-0.125000
G01 X108.390394 Y87.098101 Z-0.125000
G01 X110.205143 Y86.749460 Z-0.125000
G01 X112.108579 Y86.533693 Z-0.125000
G01 X113.749311 Y86.479004 Z-0.125000
G01 X115.417851 Y86.550547 Z-0.125000
G01 X117.086523 Y86.750757 Z-0.125000
G01 X118.722837 Y87.072516 Z-0.125000
G01 X120.292317 Y87.499871 Z-0.125000
G01 X122.040972 Y88.119445 Z-0.125000
G01 X123.598228 Y88.810641 Z-0.125000
G01 X125.136355 Y89.644713 Z-0.125000
G01 X126.375318 Y90.452643 Z-0.125000
G01 X127.613566 Y91.411651 Z-0.125000
G01 X129.163097 Y92.834658 Z-0.125000
G01 X130.210740 Y94.032266 Z-0.125000
G01 X134.056771 Y99.356840 Z-0.125000
G01 X139.720514 Y106.600990 Z-0.125000
G01 X142.429421 Y110.191699 Z-0.125000
G01 X144.439484 Y113.076421 Z-0.125000
G01 X145.500568 Y114.929957 Z-0.125000
G01 X145.913820 Y116.062214 Z-0.125000
G01 X146.729715 Y120.068874 Z-0.125000
G01 X149.014415 Y128.177390 Z-0.125000
G01 X150.405990 Y133.869391 Z-0.125000
G01 X150.722113 Y135.950389 Z-0.125000
G01 X150.818977 Y137.688488 Z-0.125000
G01 X150.719732 Y139.416955 Z-0.125000
G01 X150.397602 Y141.126241 Z-0.125000
G01 X149.844359 Y142.809148 Z-0.125000
G01 X149.071248 Y144.459458 Z-0.125000
G01 X148.107689 Y146.069842 Z-0.125000
G01 X146.997261 Y147.629638 Z-0.125000
G01 X145.295939 Y149.697936 Z-0.125000
G01 X143.310112 Y151.825316 Z-0.125000
G01 X141.438822 Y153.597943 Z-0.125000
G01 X139.951839 Y154.787481 Z-0.125000
G01 X138.389926 Y155.715771 Z-0.125000
G01 X136.668946 Y156.311030 Z-0.125000
G01 X135.267450 Y156.516769 Z-0.125000
G01 X130.243045 Y156.819558 Z-0.125000
G01 X125.368791 Y157.599311 Z-0.125000
G01 X123.284803 Y158.041350 Z-0.125000
G01 X121.766679 Y158.461137 Z-0.125000
G01 X120.242919 Y159.005569 Z-0.125000
G01 X118.743210 Y159.695972 Z-0.125000
G01 X117.303693 Y160.538616 Z-0.125000
G01 X116.220755 Y161.316437 Z-0.125000
G01 X114.982109 Y162.398661 Z-0.125000
G01 X113.897187 Y163.569785 Z-0.125000
G01 X112.983502 Y164.784486 Z-0.125000
G01 X112.117655 Y166.226780 Z-0.125000
G01 X110.541930 Y169.800503 Z-0.125000
G01 X110.228717 Y170.186556 Z-0.125000
G01 X109.926801 Y170.321229 Z-0.125000
G01 X109.556306 Y170.305883 Z-0.125000
G01 X109.106356 Y170.154991 Z-0.125000
G01 X107.413342 Y169.200667 Z-0.125000
G01 X106.329928 Y168.452849 Z-0.125000
G01 X103.998370 Y166.562986 Z-0.125000
G01 X102.455904 Y165.458987 Z-0.125000
G01 X100.029968 Y163.918188 Z-0.125000
G01 X96.816846 Y162.043406 Z-0.125000
G01 X93.811607 Y160.416935 Z-0.125000
G01 X91.420173 Y159.225835 Z-0.125000
G01 X89.004530 Y158.143267 Z-0.125000
G01 X86.640666 Y157.234186 Z-0.125000
G01 X83.304539 Y156.274173 Z-0.125000
G01 X81.577553 Y155.948736 Z-0.125000
G01 X79.922825 Y155.751331 Z-0.125000
G01 X78.316435 Y155.694340 Z-0.125000
G01 X76.758174 Y155.778636 Z-0.125000
G01 X72.371705 Y156.452105 Z-0.125000
G01 X71.282814 Y156.546588 Z-0.125000
G01 X70.020727 Y156.421308 Z-0.125000
G01 X69.427902 Y156.203159 Z-0.125000
G01 X68.914135 Y155.890819 Z-0.125000
G01 X68.279321 Y155.238913 Z-0.125000
G01 X67.886706 Y154.477813 Z-0.125000
G01 X67.633235 Y153.478034 Z-0.125000
G01 X67.526555 Y152.218592 Z-0.125000
G01 X67.641543 Y149.668912 Z-0.125000
G01 X68.433176 Y143.083388 Z-0.125000
G01 X68.665188 Y140.377101 Z-0.125000
G01 X68.731466 Y137.252084 Z-0.125000
G01 X68.567981 Y134.691609 Z-0.125000
G01 X68.276622 Y132.685937 Z-0.125000
G01 X67.775502 Y130.463520 Z-0.125000
G01 X65.828779 Y124.475821 Z-0.125000
G01 X65.138535 Y121.899471 Z-0.125000
G01 X64.856146 Y119.739097 Z-0.125000
G01 X64.882498 Y118.886241 Z-0.125000
G01 X65.007011 Y118.113288 Z-0.125000
G01 X65.364092 Y117.109381 Z-0.125000
G01 X65.987661 Y116.161565 Z-0.125000
G01 X66.633826 Y115.505928 Z-0.125000
G01 X68.409628 Y114.022385 Z-0.125000
G01 X69.354321 Y112.822713 Z-0.125000
G01 X69.968921 Y111.651033 Z-0.125000
G01 X71.735013 Y107.719171 Z-0.125000
G01 X73.052160 Y105.242357 Z-0.125000
G01 X81.178906 Y92.219052 Z-0.125000
G01 X82.485681 Y90.478520 Z-0.125000
G01 X83.622065 Y89.275646 Z-0.125000
G01 X84.806762 Y88.313649 Z-0.125000
G01 X86.029347 Y87.641449 Z-0.125000
G01 X86.863419 Y87.377369 Z-0.125000
G01 X87.498921 Y87.280399 Z-0.125000
G01 X88.359054 Y87.283706 Z-0.125000
G01 X89.231939 Y87.427930 Z-0.125000
G01 X90.778268 Y87.954715 Z-0.125000
G01 X94.870230 Y89.866486 Z-0.125000
G01 X96.080644 Y90.194516 Z-0.125000
G01 X97.263594 Y90.263361 Z-0.125000
G01 X98.052449 Y90.160306 Z-0.125000
G01 X99.060827 Y89.880033 Z-0.125000
G01 X104.054197 Y87.814645 Z-0.125000
G01 X106.271296 Y87.074262 Z-0.125000
G01 X108.280963 Y86.518612 Z-0.125000
G01 X110.094997 Y86.150312 Z-0.125000
G01 X112.000682 Y85.924940 Z-0.125000
G01 X113.647870 Y85.871733 Z-0.125000
G01 X115.328978 Y85.954097 Z-0.125000
G01 X117.017573 Y86.174283 Z-0.125000
G01 X119.008692 Y86.608226 Z-0.125000
G01 X120.597884 Y87.089238 Z-0.125000
G01 X122.370484 Y87.769639 Z-0.125000
G01 X123.951288 Y88.512112 Z-0.125000
G01 X125.516270 Y89.388014 Z-0.125000
G01 X126.941473 Y90.328104 Z-0.125000
G01 X128.425730 Y91.470494 Z-0.125000
G01 X129.548753 Y92.463183 Z-0.125000
G01 X130.378538 Y93.370491 Z-0.125000
G01 X134.472696 Y98.991689 Z-0.125000
G01 X141.954997 Y108.427063 Z-0.125000
G01 X144.611146 Y112.074154 Z-0.125000
G01 X145.469532 Y113.434931 Z-0.125000
G01 X145.950121 Y114.364200 Z-0.125000
G01 X146.323553 Y115.491456 Z-0.125000
G01 X146.696007 Y118.096725 Z-0.125000
G01 X147.110185 Y119.979921 Z-0.125000
G01 X149.917252 Y129.909059 Z-0.125000
G01 X150.637103 Y132.682074 Z-0.125000
G01 X151.091709 Y134.795563 Z-0.125000
G01 X151.342375 Y136.559353 Z-0.125000
G01 X151.420242 Y138.310469 Z-0.125000
G01 X151.283267 Y140.038329 Z-0.125000
G01 X151.001460 Y141.399317 Z-0.125000
G01 X150.562199 Y142.739245 Z-0.125000
G01 X149.800544 Y144.382808 Z-0.125000
G01 X148.829975 Y145.988721 Z-0.125000
G01 X147.453323 Y147.857365 Z-0.125000
G01 X145.678077 Y149.929314 Z-0.125000
G01 X143.617213 Y152.084554 Z-0.125000
G01 X141.691710 Y153.907690 Z-0.125000
G01 X139.969010 Y155.303154 Z-0.125000
G01 X138.391011 Y156.252186 Z-0.125000
G01 X136.832035 Y156.822601 Z-0.125000
G01 X135.211067 Y157.072288 Z-0.125000
G01 X130.700589 Y157.363170 Z-0.125000
G01 X127.047015 Y157.966023 Z-0.125000
G01 X124.132871 Y158.584671 Z-0.125000
G01 X122.341618 Y159.060391 Z-0.125000
G01 X120.529595 Y159.694544 Z-0.125000
G01 X119.035415 Y160.376162 Z-0.125000
G01 X117.592935 Y161.206821 Z-0.125000
G01 X116.501768 Y161.973741 Z-0.125000
G01 X115.246692 Y163.041704 Z-0.125000
G01 X114.140444 Y164.198328 Z-0.125000
G01 X113.202921 Y165.398715 Z-0.125000
G01 X112.308657 Y166.824103 Z-0.125000
G01 X110.673931 Y170.339723 Z-0.125000
G01 X110.354897 Y170.708578 Z-0.125000
G01 X110.048854 Y170.828064 Z-0.125000
G01 X109.455579 Y170.727258 Z-0.125000
G01 X108.392829 Y170.175735 Z-0.125000
G01 X106.929896 Y169.224347 Z-0.125000
G01 X104.610747 Y167.441322 Z-0.125000
G01 X103.256108 Y166.522690 Z-0.125000
G01 X100.561119 Y164.933472 Z-0.125000
G01 X96.327764 Y162.593765 Z-0.125000
G01 X92.815610 Y160.742530 Z-0.125000
G01 X89.954992 Y159.342648 Z-0.125000
G01 X87.523633 Y158.275241 Z-0.125000
G01 X85.179136 Y157.396164 Z-0.125000
G01 X81.885951 Y156.488089 Z-0.125000
G01 X80.154202 Y156.187046 Z-0.125000
G01 X78.795886 Y156.061740 Z-0.125000
G01 X77.458287 Y156.048590 Z-0.125000
G01 X75.829170 Y156.174346 Z-0.125000
G01 X71.542687 Y156.919676 Z-0.125000
G01 X70.416357 Y157.038315 Z-0.125000
G01 X69.297833 Y156.956506 Z-0.125000
G01 X68.830473 Y156.812415 Z-0.125000
G01 X68.292920 Y156.517008 Z-0.125000
G01 X67.641755 Y155.883093 Z-0.125000
G01 X67.236361 Y155.162131 Z-0.125000
G01 X66.935742 Y154.003178 Z-0.125000
G01 X66.852795 Y152.761358 Z-0.125000
G01 X67.024377 Y150.246893 Z-0.125000
G01 X67.992671 Y143.729923 Z-0.125000
G01 X68.294058 Y141.044670 Z-0.125000
G01 X68.424339 Y137.939101 Z-0.125000
G01 X68.291333 Y135.388917 Z-0.125000
G01 X67.928907 Y133.000421 Z-0.125000
G01 X67.379050 Y130.805229 Z-0.125000
G01 X66.717699 Y128.811913 Z-0.125000
G01 X65.228970 Y124.819091 Z-0.125000
G01 X64.453239 Y122.201942 Z-0.125000
G01 X64.209267 Y120.938955 Z-0.125000
G01 X64.121663 Y119.987435 Z-0.125000
G01 X64.140581 Y119.103013 Z-0.125000
G01 X64.267263 Y118.294024 Z-0.125000
G01 X64.644400 Y117.229395 Z-0.125000
G01 X65.312128 Y116.204957 Z-0.125000
G01 X66.007426 Y115.483756 Z-0.125000
G01 X67.913349 Y113.855671 Z-0.125000
G01 X68.431429 Y113.280124 Z-0.125000
G01 X68.905192 Y112.597658 Z-0.125000
G01 X69.531698 Y111.396637 Z-0.125000
G01 X71.149782 Y107.709461 Z-0.125000
G01 X72.242324 Y105.562529 Z-0.125000
G01 X80.809125 Y91.208980 Z-0.125000
G01 X81.920268 Y89.719643 Z-0.125000
G01 X83.054852 Y88.537883 Z-0.125000
G01 X84.255213 Y87.617054 Z-0.125000
G01 X85.302379 Y87.070294 Z-0.125000
G01 X86.166057 Y86.799678 Z-0.125000
G01 X86.827859 Y86.699825 Z-0.125000
G01 X87.727468 Y86.704058 Z-0.125000
G01 X88.643798 Y86.856537 Z-0.125000
G01 X90.505377 Y87.521487 Z-0.125000
G01 X93.478523 Y89.023551 Z-0.125000
G01 X94.774107 Y89.586399 Z-0.125000
G01 X96.010900 Y89.919376 Z-0.125000
G01 X97.007981 Y89.980918 Z-0.125000
G01 X97.797338 Y89.884293 Z-0.125000
G01 X98.795900 Y89.596770 Z-0.125000
G01 X103.706032 Y87.380993 Z-0.125000
G01 X106.198774 Y86.492259 Z-0.125000
G01 X108.208361 Y85.907187 Z-0.125000
G01 X110.020834 Y85.521557 Z-0.125000
G01 X111.926652 Y85.289306 Z-0.125000
G01 X113.577729 Y85.240120 Z-0.125000
G01 X115.268309 Y85.336111 Z-0.125000
G01 X116.973599 Y85.579342 Z-0.125000
G01 X118.662776 Y85.960447 Z-0.125000
G01 X120.619765 Y86.570946 Z-0.125000
G01 X122.443747 Y87.300719 Z-0.125000
G01 X124.083288 Y88.090817 Z-0.125000
G01 X125.929231 Y89.140470 Z-0.125000
G01 X127.546786 Y90.209650 Z-0.125000
G01 X129.283641 Y91.518516 Z-0.125000
G01 X130.177005 Y92.311471 Z-0.125000
G01 X130.788562 Y92.997958 Z-0.125000
G01 X134.934552 Y98.657150 Z-0.125000
G01 X142.794228 Y108.392244 Z-0.125000
G01 X145.072155 Y111.489108 Z-0.125000
G01 X145.842991 Y112.690130 Z-0.125000
G01 X146.358425 Y113.660621 Z-0.125000
G01 X146.736065 Y114.810869 Z-0.125000
G01 X147.002076 Y117.519908 Z-0.125000
G01 X147.441628 Y119.674672 Z-0.125000
G01 X150.589875 Y130.712360 Z-0.125000
G01 X151.655086 Y135.015617 Z-0.125000
G01 X151.931999 Y136.801605 Z-0.125000
G01 X152.025317 Y138.212335 Z-0.125000
G01 X151.942397 Y139.944931 Z-0.125000
G01 X151.696917 Y141.303194 Z-0.125000
G01 X151.285014 Y142.636190 Z-0.125000
G01 X150.542118 Y144.268191 Z-0.125000
G01 X149.571521 Y145.863758 Z-0.125000
G01 X148.170925 Y147.728830 Z-0.125000
G01 X146.341307 Y149.818930 Z-0.125000
G01 X143.939237 Y152.293363 Z-0.125000
G01 X141.729678 Y154.382458 Z-0.125000
G01 X139.995786 Y155.799591 Z-0.125000
G01 X138.389371 Y156.787041 Z-0.125000
G01 X136.997426 Y157.321366 Z-0.125000
G01 X135.367542 Y157.605052 Z-0.125000
G01 X130.908128 Y157.950333 Z-0.125000
G01 X127.871455 Y158.492913 Z-0.125000
G01 X122.655731 Y159.782015 Z-0.125000
G01 X120.862070 Y160.411511 Z-0.125000
G01 X119.079574 Y161.233014 Z-0.125000
G01 X117.645428 Y162.076796 Z-0.125000
G01 X116.559315 Y162.850304 Z-0.125000
G01 X115.308975 Y163.920357 Z-0.125000
G01 X114.206246 Y165.070844 Z-0.125000
G01 X113.271422 Y166.255911 Z-0.125000
G01 X112.510851 Y167.423410 Z-0.125000
G01 X110.782754 Y170.878493 Z-0.125000
G01 X110.522378 Y171.180541 Z-0.125000
G01 X110.222817 Y171.325427 Z-0.125000
G01 X109.647931 Y171.255657 Z-0.125000
G01 X108.602511 Y170.717177 Z-0.125000
G01 X107.111030 Y169.729357 Z-0.125000
G01 X104.900333 Y168.078782 Z-0.125000
G01 X103.450603 Y167.188169 Z-0.125000
G01 X93.416081 Y161.933445 Z-0.125000
G01 X88.051846 Y159.276661 Z-0.125000
G01 X85.650597 Y158.251693 Z-0.125000
G01 X83.732926 Y157.554940 Z-0.125000
G01 X81.890370 Y157.012175 Z-0.125000
G01 X80.454293 Y156.687134 Z-0.125000
G01 X77.975176 Y156.404110 Z-0.125000
G01 X76.579342 Y156.418133 Z-0.125000
G01 X75.215258 Y156.543069 Z-0.125000
G01 X70.732587 Y157.379628 Z-0.125000
G01 X69.572152 Y157.518137 Z-0.125000
G01 X68.438547 Y157.437598 Z-0.125000
G01 X67.573069 Y157.051518 Z-0.125000
G01 X66.931852 Y156.389664 Z-0.125000
G01 X66.540217 Y155.653620 Z-0.125000
G01 X66.256822 Y154.496414 Z-0.125000
G01 X66.192210 Y153.267823 Z-0.125000
G01 X66.461080 Y150.434641 Z-0.125000
G01 X67.539547 Y144.347698 Z-0.125000
G01 X67.956450 Y141.246203 Z-0.125000
G01 X68.109855 Y138.182252 Z-0.125000
G01 X67.969044 Y135.673344 Z-0.125000
G01 X67.656836 Y133.703550 Z-0.125000
G01 X67.086289 Y131.508517 Z-0.125000
G01 X66.377974 Y129.503533 Z-0.125000
G01 X64.626779 Y125.181464 Z-0.125000
G01 X63.771303 Y122.523516 Z-0.125000
G01 X63.497618 Y121.233065 Z-0.125000
G01 X63.395171 Y120.254188 Z-0.125000
G01 X63.408295 Y119.337196 Z-0.125000
G01 X63.538417 Y118.490636 Z-0.125000
G01 X63.936852 Y117.361846 Z-0.125000
G01 X64.649136 Y116.255412 Z-0.125000
G01 X65.393038 Y115.463251 Z-0.125000
G01 X67.423844 Y113.676548 Z-0.125000
G01 X67.967271 Y113.065917 Z-0.125000
G01 X68.456723 Y112.355327 Z-0.125000
G01 X69.000230 Y111.319670 Z-0.125000
G01 X70.554867 Y107.690358 Z-0.125000
G01 X71.600578 Y105.562952 Z-0.125000
G01 X75.452139 Y98.988064 Z-0.125000
G01 X78.908731 Y92.675696 Z-0.125000
G01 X80.214845 Y90.492093 Z-0.125000
G01 X81.322548 Y88.981668 Z-0.125000
G01 X82.267744 Y87.990275 Z-0.125000
G01 X83.469480 Y87.073098 Z-0.125000
G01 X84.538290 Y86.521707 Z-0.125000
G01 X85.429961 Y86.243895 Z-0.125000
G01 X86.350366 Y86.124039 Z-0.125000
G01 X87.295959 Y86.164097 Z-0.125000
G01 X88.262031 Y86.355179 Z-0.125000
G01 X89.980709 Y86.987876 Z-0.125000
G01 X94.471926 Y89.213389 Z-0.125000
G01 X95.751979 Y89.591267 Z-0.125000
G01 X96.969907 Y89.666752 Z-0.125000
G01 X97.764080 Y89.543272 Z-0.125000
G01 X98.561004 Y89.292659 Z-0.125000
G01 X103.664836 Y86.808330 Z-0.125000
G01 X105.884132 Y85.970105 Z-0.125000
G01 X107.882527 Y85.340979 Z-0.125000
G01 X109.677749 Y84.917699 Z-0.125000
G01 X111.565946 Y84.650920 Z-0.125000
G01 X113.541640 Y84.582155 Z-0.125000
G01 X115.238146 Y84.694497 Z-0.125000
G01 X116.956269 Y84.963631 Z-0.125000
G01 X118.666666 Y85.378894 Z-0.125000
G01 X120.660854 Y86.038314 Z-0.125000
G01 X122.533732 Y86.820818 Z-0.125000
G01 X124.230979 Y87.661663 Z-0.125000
G01 X126.160186 Y88.766482 Z-0.125000
G01 X128.344292 Y90.197612 Z-0.125000
G01 X130.062732 Y91.466155 Z-0.125000
G01 X131.231210 Y92.648100 Z-0.125000
G01 X135.441149 Y98.351531 Z-0.125000
G01 X143.868276 Y108.627538 Z-0.125000
G01 X145.839366 Y111.335941 Z-0.125000
G01 X146.851767 Y113.102774 Z-0.125000
G01 X147.198767 Y114.254451 Z-0.125000
G01 X147.328228 Y116.945604 Z-0.125000
G01 X147.786459 Y119.380164 Z-0.125000
G01 X151.395927 Y131.922298 Z-0.125000
G01 X152.297467 Y135.583492 Z-0.125000
G01 X152.566971 Y137.380381 Z-0.125000
G01 X152.640631 Y138.788491 Z-0.125000
G01 X152.561547 Y140.166281 Z-0.125000
G01 X152.313739 Y141.512797 Z-0.125000
G01 X151.890644 Y142.829468 Z-0.125000
G01 X151.121819 Y144.438000 Z-0.125000
G01 X150.113996 Y146.011184 Z-0.125000
G01 X148.915699 Y147.552803 Z-0.125000
G01 X146.760195 Y149.944475 Z-0.125000
G01 X144.013982 Y152.714447 Z-0.125000
G01 X141.551958 Y155.034655 Z-0.125000
G01 X139.823807 Y156.435066 Z-0.125000
G01 X138.385799 Y157.316868 Z-0.125000
G01 X136.967634 Y157.861169 Z-0.125000
G01 X135.534785 Y158.126704 Z-0.125000
G01 X131.400860 Y158.510879 Z-0.125000
G01 X128.436525 Y159.087564 Z-0.125000
G01 X122.722459 Y160.625056 Z-0.125000
G01 X120.944752 Y161.275692 Z-0.125000
G01 X119.464622 Y161.958977 Z-0.125000
G01 X118.021665 Y162.782624 Z-0.125000
G01 X116.920127 Y163.538247 Z-0.125000
G01 X115.641344 Y164.585122 Z-0.125000
G01 X114.502394 Y165.712828 Z-0.125000
G01 X113.526612 Y166.876411 Z-0.125000
G01 X112.723814 Y168.024384 Z-0.125000
G01 X110.866627 Y171.419301 Z-0.125000
G01 X110.591963 Y171.710342 Z-0.125000
G01 X110.280919 Y171.843481 Z-0.125000
G01 X109.691587 Y171.753655 Z-0.125000
G01 X108.920195 Y171.362998 Z-0.125000
G01 X107.553809 Y170.465638 Z-0.125000
G01 X105.262309 Y168.780747 Z-0.125000
G01 X103.934843 Y168.011287 Z-0.125000
G01 X97.852900 Y165.137836 Z-0.125000
G01 X87.367026 Y159.771670 Z-0.125000
G01 X84.577448 Y158.532786 Z-0.125000
G01 X82.296187 Y157.697894 Z-0.125000
G01 X79.707560 Y157.020959 Z-0.125000
G01 X78.602053 Y156.854377 Z-0.125000
G01 X77.131739 Y156.760715 Z-0.125000
G01 X75.678252 Y156.806329 Z-0.125000
G01 X74.262124 Y156.967275 Z-0.125000
G01 X68.973824 Y157.969118 Z-0.125000
G01 X67.777565 Y157.937951 Z-0.125000
G01 X67.293908 Y157.798436 Z-0.125000
G01 X66.881502 Y157.574096 Z-0.125000
G01 X66.244201 Y156.891948 Z-0.125000
G01 X65.809650 Y155.953710 Z-0.125000
G01 X65.577769 Y154.735385 Z-0.125000
G01 X65.559116 Y153.466313 Z-0.125000
G01 X65.858465 Y150.940603 Z-0.125000
G01 X67.155425 Y144.498854 Z-0.125000
G01 X67.568783 Y141.870381 Z-0.125000
G01 X67.789286 Y138.841937 Z-0.125000
G01 X67.685094 Y136.358058 Z-0.125000
G01 X67.301131 Y134.026077 Z-0.125000
G01 X66.682271 Y131.868561 Z-0.125000
G01 X65.915007 Y129.887602 Z-0.125000
G01 X64.021810 Y125.556008 Z-0.125000
G01 X63.093150 Y122.857208 Z-0.125000
G01 X62.792742 Y121.539294 Z-0.125000
G01 X62.677516 Y120.532714 Z-0.125000
G01 X62.686512 Y119.582438 Z-0.125000
G01 X62.821291 Y118.697090 Z-0.125000
G01 X63.242031 Y117.501387 Z-0.125000
G01 X63.998712 Y116.308382 Z-0.125000
G01 X64.790053 Y115.440444 Z-0.125000
G01 X67.057423 Y113.357991 Z-0.125000
G01 X68.005953 Y112.093575 Z-0.125000
G01 X68.551153 Y111.031644 Z-0.125000
G01 X69.949660 Y107.657497 Z-0.125000
G01 X70.943460 Y105.558560 Z-0.125000
G01 X74.692442 Y98.952240 Z-0.125000
G01 X78.292464 Y92.044666 Z-0.125000
G01 X79.585217 Y89.799838 Z-0.125000
G01 X80.507130 Y88.496528 Z-0.125000
G01 X81.453384 Y87.463623 Z-0.125000
G01 X82.448772 Y86.677361 Z-0.125000
G01 X83.741339 Y85.995822 Z-0.125000
G01 X84.658649 Y85.711925 Z-0.125000
G01 X85.613396 Y85.583417 Z-0.125000
G01 X86.600476 Y85.616357 Z-0.125000
G01 X87.613856 Y85.805349 Z-0.125000
G01 X88.645544 Y86.132929 Z-0.125000
G01 X89.685540 Y86.570629 Z-0.125000
G01 X93.224656 Y88.391859 Z-0.125000
G01 X94.394245 Y88.906870 Z-0.125000
G01 X95.713138 Y89.278398 Z-0.125000
G01 X96.751124 Y89.340045 Z-0.125000
G01 X97.555959 Y89.221644 Z-0.125000
G01 X98.555342 Y88.881788 Z-0.125000
G01 X103.390993 Y86.314909 Z-0.125000
G01 X105.328878 Y85.524097 Z-0.125000
G01 X107.601117 Y84.748128 Z-0.125000
G01 X109.380120 Y84.288124 Z-0.125000
G01 X111.248394 Y83.986738 Z-0.125000
G01 X113.207234 Y83.890059 Z-0.125000
G01 X114.897311 Y83.987769 Z-0.125000
G01 X116.620275 Y84.252643 Z-0.125000
G01 X118.349854 Y84.675394 Z-0.125000
G01 X120.053954 Y85.234061 Z-0.125000
G01 X122.015202 Y86.037520 Z-0.125000
G01 X123.828945 Y86.921069 Z-0.125000
G01 X125.938306 Y88.102802 Z-0.125000
G01 X128.545639 Y89.751366 Z-0.125000
G01 X130.516095 Y91.129844 Z-0.125000
G01 X131.601070 Y92.192462 Z-0.125000
G01 X134.298759 Y95.896148 Z-0.125000
G01 X135.990317 Y98.072607 Z-0.125000
G01 X144.296927 Y108.006852 Z-0.125000
G01 X146.329930 Y110.751107 Z-0.125000
G01 X147.362280 Y112.547282 Z-0.125000
G01 X147.684621 Y113.705494 Z-0.125000
G01 X147.694146 Y116.561958 Z-0.125000
G01 X148.149123 Y119.098410 Z-0.125000
G01 X152.135410 Y132.803597 Z-0.125000
G01 X152.954347 Y136.141047 Z-0.125000
G01 X153.175327 Y137.583369 Z-0.125000
G01 X153.262190 Y138.990421 Z-0.125000
G01 X153.189218 Y140.359268 Z-0.125000
G01 X152.939345 Y141.690411 Z-0.125000
G01 X152.505641 Y142.987185 Z-0.125000
G01 X151.711971 Y144.568042 Z-0.125000
G01 X150.894833 Y145.807905 Z-0.125000
G01 X149.687832 Y147.334602 Z-0.125000
G01 X147.483670 Y149.728019 Z-0.125000
G01 X143.834118 Y153.360030 Z-0.125000
G01 X141.390880 Y155.670501 Z-0.125000
G01 X139.860902 Y156.920735 Z-0.125000
G01 X138.592385 Y157.728348 Z-0.125000
G01 X137.150778 Y158.328131 Z-0.125000
G01 X135.719172 Y158.632560 Z-0.125000
G01 X131.665099 Y159.110873 Z-0.125000
G01 X129.033107 Y159.689199 Z-0.125000
G01 X122.843876 Y161.497677 Z-0.125000
G01 X121.079081 Y162.164161 Z-0.125000
G01 X119.603052 Y162.855464 Z-0.125000
G01 X118.158164 Y163.682074 Z-0.125000
G01 X117.051201 Y164.435977 Z-0.125000
G01 X116.009670 Y165.259835 Z-0.125000
G01 X114.827064 Y166.360950 Z-0.125000
G01 X113.801593 Y167.500060 Z-0.125000
G01 X112.946937 Y168.626495 Z-0.125000
G01 X110.996378 Y171.869621 Z-0.125000
G01 X110.705707 Y172.190666 Z-0.125000
G01 X110.390245 Y172.354152 Z-0.125000
G01 X109.809935 Y172.304331 Z-0.125000
G01 X109.052804 Y171.937963 Z-0.125000
G01 X107.675332 Y171.026739 Z-0.125000
G01 X105.572691 Y169.474881 Z-0.125000
G01 X104.609530 Y168.906080 Z-0.125000
G01 X100.016660 Y167.019497 Z-0.125000
G01 X97.682509 Y165.971855 Z-0.125000
G01 X94.599799 Y164.447566 Z-0.125000
G01 X85.870121 Y159.867845 Z-0.125000
G01 X83.509565 Y158.793850 Z-0.125000
G01 X81.221266 Y157.936654 Z-0.125000
G01 X79.702295 Y157.514671 Z-0.125000
G01 X78.557285 Y157.297369 Z-0.125000
G01 X76.263351 Y157.135629 Z-0.125000
G01 X73.652816 Y157.353645 Z-0.125000
G01 X68.185314 Y158.423011 Z-0.125000
G01 X66.977863 Y158.386101 Z-0.125000
G01 X66.222294 Y158.080905 Z-0.125000
G01 X65.868599 Y157.777058 Z-0.125000
G01 X65.580653 Y157.390264 Z-0.125000
G01 X65.167242 Y156.410566 Z-0.125000
G01 X64.950390 Y155.173614 Z-0.125000
G01 X64.941130 Y153.907558 Z-0.125000
G01 X65.331787 Y151.057549 Z-0.125000
G01 X66.686928 Y145.056568 Z-0.125000
G01 X67.226730 Y142.033999 Z-0.125000
G01 X67.464484 Y139.061859 Z-0.125000
G01 X67.350079 Y136.631161 Z-0.125000
G01 X66.934181 Y134.349318 Z-0.125000
G01 X66.266585 Y132.232151 Z-0.125000
G01 X65.584966 Y130.592001 Z-0.125000
G01 X63.529474 Y126.209845 Z-0.125000
G01 X62.419125 Y123.196192 Z-0.125000
G01 X62.095275 Y121.850893 Z-0.125000
G01 X61.969413 Y120.816479 Z-0.125000
G01 X61.975975 Y119.832389 Z-0.125000
G01 X62.116548 Y118.907407 Z-0.125000
G01 X62.560200 Y117.642648 Z-0.125000
G01 X63.360511 Y116.359367 Z-0.125000
G01 X64.197572 Y115.411631 Z-0.125000
G01 X66.579084 Y113.137831 Z-0.125000
G01 X67.549945 Y111.810709 Z-0.125000
G01 X68.091943 Y110.722426 Z-0.125000
G01 X69.451661 Y107.325683 Z-0.125000
G01 X70.271340 Y105.544537 Z-0.125000
G01 X74.114302 Y98.550973 Z-0.125000
G01 X77.640611 Y91.438427 Z-0.125000
G01 X78.922119 Y89.135337 Z-0.125000
G01 X79.847127 Y87.812687 Z-0.125000
G01 X80.805738 Y86.784121 Z-0.125000
G01 X81.820467 Y86.028816 Z-0.125000
G01 X82.916475 Y85.490680 Z-0.125000
G01 X83.856248 Y85.204296 Z-0.125000
G01 X84.843486 Y85.066607 Z-0.125000
G01 X85.871338 Y85.088726 Z-0.125000
G01 X86.932316 Y85.269648 Z-0.125000
G01 X88.017159 Y85.595243 Z-0.125000
G01 X89.114385 Y86.039055 Z-0.125000
G01 X92.859372 Y87.939951 Z-0.125000
G01 X94.330295 Y88.583047 Z-0.125000
G01 X95.692527 Y88.940340 Z-0.125000
G01 X96.754061 Y88.973042 Z-0.125000
G01 X97.570484 Y88.821807 Z-0.125000
G01 X98.577302 Y88.432155 Z-0.125000
G01 X102.120650 Y86.337161 Z-0.125000
G01 X103.696798 Y85.538014 Z-0.125000
G01 X105.656326 Y84.730983 Z-0.125000
G01 X107.653848 Y84.035632 Z-0.125000
G01 X109.431370 Y83.562823 Z-0.125000
G01 X111.293558 Y83.258764 Z-0.125000
G01 X113.245281 Y83.172166 Z-0.125000
G01 X114.932050 Y83.289112 Z-0.125000
G01 X116.657105 Y83.582878 Z-0.125000
G01 X118.396712 Y84.043147 Z-0.125000
G01 X120.120285 Y84.645867 Z-0.125000
G01 X122.118125 Y85.506793 Z-0.125000
G01 X123.981345 Y86.447306 Z-0.125000
G01 X126.170372 Y87.694392 Z-0.125000
G01 X129.578995 Y89.830609 Z-0.125000
G01 X131.107994 Y90.892751 Z-0.125000
G01 X132.205034 Y92.008444 Z-0.125000
G01 X134.857743 Y95.637782 Z-0.125000
G01 X136.819494 Y98.110469 Z-0.125000
G01 X144.952696 Y107.658979 Z-0.125000
G01 X146.825044 Y110.159023 Z-0.125000
G01 X147.885995 Y111.991843 Z-0.125000
G01 X148.181349 Y113.047000 Z-0.125000
G01 X148.063980 Y116.001413 Z-0.125000
G01 X148.211988 Y117.271649 Z-0.125000
G01 X148.467628 Y118.551358 Z-0.125000
G01 X149.116042 Y120.991237 Z-0.125000
G01 X152.797264 Y133.320566 Z-0.125000
G01 X153.555824 Y136.318265 Z-0.125000
G01 X153.794848 Y137.765058 Z-0.125000
G01 X153.894490 Y139.167930 Z-0.125000
G01 X153.827445 Y140.524738 Z-0.125000
G01 X153.656498 Y141.513114 Z-0.125000
G01 X153.260655 Y142.796024 Z-0.125000
G01 X152.499899 Y144.353995 Z-0.125000
G01 X151.695594 Y145.574331 Z-0.125000
G01 X150.486873 Y147.080311 Z-0.125000
G01 X148.242997 Y149.464336 Z-0.125000
G01 X142.903209 Y154.736920 Z-0.125000
G01 X141.242634 Y156.302404 Z-0.125000
G01 X139.900113 Y157.402858 Z-0.125000
G01 X138.601672 Y158.230632 Z-0.125000
G01 X137.147550 Y158.835178 Z-0.125000
G01 X135.927002 Y159.117964 Z-0.125000
G01 X132.211305 Y159.664196 Z-0.125000
G01 X129.929514 Y160.216434 Z-0.125000
G01 X123.019506 Y162.395936 Z-0.125000
G01 X121.263045 Y163.072263 Z-0.125000
G01 X119.785534 Y163.765973 Z-0.125000
G01 X118.331677 Y164.589805 Z-0.125000
G01 X117.212729 Y165.337438 Z-0.125000
G01 X116.155667 Y166.151215 Z-0.125000
G01 X114.949936 Y167.234048 Z-0.125000
G01 X113.898642 Y168.348471 Z-0.125000
G01 X113.016787 Y169.443898 Z-0.125000
G01 X111.034081 Y172.422362 Z-0.125000
G01 X110.717825 Y172.737083 Z-0.125000
G01 X110.382096 Y172.893902 Z-0.125000
G01 X109.778979 Y172.831619 Z-0.125000
G01 X109.004227 Y172.448317 Z-0.125000
G01 X105.725356 Y170.103953 Z-0.125000
G01 X104.910519 Y169.616247 Z-0.125000
G01 X103.961884 Y169.221622 Z-0.125000
G01 X99.856376 Y167.821263 Z-0.125000
G01 X96.729878 Y166.491258 Z-0.125000
G01 X93.105620 Y164.677594 Z-0.125000
G01 X84.785199 Y160.133460 Z-0.125000
G01 X82.438877 Y159.027450 Z-0.125000
G01 X80.501970 Y158.286830 Z-0.125000
G01 X78.144695 Y157.709907 Z-0.125000
G01 X75.764241 Y157.525624 Z-0.125000
G01 X74.585815 Y157.572006 Z-0.125000
G01 X73.053112 Y157.749171 Z-0.125000
G01 X68.711993 Y158.661903 Z-0.125000
G01 X67.424956 Y158.865975 Z-0.125000
G01 X66.210943 Y158.816551 Z-0.125000
G01 X65.468655 Y158.481431 Z-0.125000
G01 X64.944940 Y157.879954 Z-0.125000
G01 X64.549679 Y156.861177 Z-0.125000
G01 X64.351216 Y155.590597 Z-0.125000
G01 X64.367143 Y154.039717 Z-0.125000
G01 X64.828947 Y151.139596 Z-0.125000
G01 X66.304182 Y145.156422 Z-0.125000
G01 X66.815065 Y142.604863 Z-0.125000
G01 X67.119812 Y139.679528 Z-0.125000
G01 X67.047078 Y137.284522 Z-0.125000
G01 X66.649119 Y135.030434 Z-0.125000
G01 X65.971416 Y132.929804 Z-0.125000
G01 X65.108928 Y130.977393 Z-0.125000
G01 X62.924928 Y126.591824 Z-0.125000
G01 X61.749518 Y123.533959 Z-0.125000
G01 X61.405534 Y122.161434 Z-0.125000
G01 X61.271258 Y121.099160 Z-0.125000
G01 X61.277026 Y120.081071 Z-0.125000
G01 X61.424451 Y119.115899 Z-0.125000
G01 X61.891387 Y117.780628 Z-0.125000
G01 X62.734111 Y116.404214 Z-0.125000
G01 X63.614537 Y115.373478 Z-0.125000
G01 X66.099712 Y112.898251 Z-0.125000
G01 X67.085919 Y111.505592 Z-0.125000
G01 X67.619821 Y110.391010 Z-0.125000
G01 X68.816847 Y107.260199 Z-0.125000
G01 X69.584985 Y105.516280 Z-0.125000
G01 X73.301714 Y98.561557 Z-0.125000
G01 X76.956055 Y90.859307 Z-0.125000
G01 X78.228250 Y88.501079 Z-0.125000
G01 X79.159397 Y87.159776 Z-0.125000
G01 X79.935392 Y86.314539 Z-0.125000
G01 X80.750282 Y85.665173 Z-0.125000
G01 X81.839623 Y85.090869 Z-0.125000
G01 X83.027415 Y84.719659 Z-0.125000
G01 X84.044710 Y84.574614 Z-0.125000
G01 X85.111853 Y84.583584 Z-0.125000
G01 X86.502157 Y84.816973 Z-0.125000
G01 X87.646241 Y85.167545 Z-0.125000
G01 X88.804320 Y85.635698 Z-0.125000
G01 X92.745919 Y87.595888 Z-0.125000
G01 X94.033698 Y88.150110 Z-0.125000
G01 X95.464060 Y88.542724 Z-0.125000
G01 X96.566471 Y88.593604 Z-0.125000
G01 X97.404141 Y88.446416 Z-0.125000
G01 X98.220406 Y88.144104 Z-0.125000
G01 X99.242040 Y87.585252 Z-0.125000
G01 X101.935045 Y85.827759 Z-0.125000
G01 X103.226316 Y85.106400 Z-0.125000
G01 X105.176611 Y84.228328 Z-0.125000
G01 X107.460226 Y83.379837 Z-0.125000
G01 X109.225286 Y82.872473 Z-0.125000
G01 X111.065620 Y82.534494 Z-0.125000
G01 X112.992075 Y82.419189 Z-0.125000
G01 X114.660668 Y82.520022 Z-0.125000
G01 X116.375404 Y82.807782 Z-0.125000
G01 X118.117021 Y83.274030 Z-0.125000
G01 X119.858533 Y83.895403 Z-0.125000
G01 X121.566839 Y84.635813 Z-0.125000
G01 X123.522267 Y85.617865 Z-0.125000
G01 X125.600249 Y86.787640 Z-0.125000
G01 X130.156077 Y89.581954 Z-0.125000
G01 X131.468250 Y90.462803 Z-0.125000
G01 X132.069329 Y90.979878 Z-0.125000
G01 X132.729173 Y91.712984 Z-0.125000
G01 X135.259645 Y95.152246 Z-0.125000
G01 X137.447455 Y97.874831 Z-0.125000
G01 X143.401472 Y104.669773 Z-0.125000
G01 X145.613201 Y107.300495 Z-0.125000
G01 X147.468986 Y109.775378 Z-0.125000
G01 X148.417886 Y111.433705 Z-0.125000
G01 X148.620054 Y112.007453 Z-0.125000
G01 X148.716310 Y112.627265 Z-0.125000
G01 X148.458765 Y115.267433 Z-0.125000
G01 X148.517476 Y116.264911 Z-0.125000
G01 X148.700752 Y117.467838 Z-0.125000
G01 X149.449681 Y120.475062 Z-0.125000
G01 X153.371171 Y133.450503 Z-0.125000
G01 X154.088985 Y136.107763 Z-0.125000
G01 X154.375952 Y137.568631 Z-0.125000
G01 X154.526843 Y138.978065 Z-0.125000
G01 X154.510863 Y140.333524 Z-0.125000
G01 X154.306234 Y141.637257 Z-0.125000
G01 X153.902375 Y142.895640 Z-0.125000
G01 X153.300819 Y144.118304 Z-0.125000
G01 X152.515034 Y145.316495 Z-0.125000
G01 X151.311684 Y146.796757 Z-0.125000
G01 X149.632799 Y148.568749 Z-0.125000
G01 X142.278238 Y155.838855 Z-0.125000
G01 X141.095023 Y156.941690 Z-0.125000
G01 X139.944775 Y157.874848 Z-0.125000
G01 X138.624214 Y158.712994 Z-0.125000
G01 X137.372525 Y159.254780 Z-0.125000
G01 X136.164175 Y159.578339 Z-0.125000
G01 X132.785529 Y160.200294 Z-0.125000
G01 X130.588961 Y160.807380 Z-0.125000
G01 X122.668351 Y163.525996 Z-0.125000
G01 X121.196503 Y164.122896 Z-0.125000
G01 X119.710763 Y164.837984 Z-0.125000
G01 X117.398414 Y166.237364 Z-0.125000
G01 X116.318148 Y167.037330 Z-0.125000
G01 X115.079264 Y168.098361 Z-0.125000
G01 X113.243429 Y170.041459 Z-0.125000
G01 X111.046226 Y172.982061 Z-0.125000
G01 X110.699278 Y173.293422 Z-0.125000
G01 X110.339313 Y173.446510 Z-0.125000
G01 X109.709605 Y173.375839 Z-0.125000
G01 X108.915592 Y172.979044 Z-0.125000
G01 X105.723080 Y170.676564 Z-0.125000
G01 X104.793415 Y170.151155 Z-0.125000
G01 X99.656404 Y168.644804 Z-0.125000
G01 X97.605383 Y167.867989 Z-0.125000
G01 X95.294727 Y166.834660 Z-0.125000
G01 X91.545109 Y164.873094 Z-0.125000
G01 X83.702948 Y160.369151 Z-0.125000
G01 X81.741118 Y159.405196 Z-0.125000
G01 X79.757566 Y158.638646 Z-0.125000
G01 X78.545644 Y158.304583 Z-0.125000
G01 X77.319831 Y158.076116 Z-0.125000
G01 X76.087350 Y157.954884 Z-0.125000
G01 X74.858494 Y157.935966 Z-0.125000
G01 X73.645752 Y158.008356 Z-0.125000
G01 X72.077304 Y158.217588 Z-0.125000
G01 X66.934472 Y159.274888 Z-0.125000
G01 X65.654313 Y159.269068 Z-0.125000
G01 X64.877471 Y158.957362 Z-0.125000
G01 X64.339971 Y158.358823 Z-0.125000
G01 X63.955214 Y157.310307 Z-0.125000
G01 X63.780325 Y155.992895 Z-0.125000
G01 X63.801941 Y154.426855 Z-0.125000
G01 X63.944181 Y153.225225 Z-0.125000
G01 X64.266708 Y151.547107 Z-0.125000
G01 X65.922442 Y145.235003 Z-0.125000
G01 X66.459598 Y142.727974 Z-0.125000
G01 X66.774293 Y139.868784 Z-0.125000
G01 X66.688965 Y137.534262 Z-0.125000
G01 X66.353686 Y135.692632 Z-0.125000
G01 X65.673125 Y133.613565 Z-0.125000
G01 X64.780263 Y131.669251 Z-0.125000
G01 X62.448520 Y127.248122 Z-0.125000
G01 X61.709698 Y125.562649 Z-0.125000
G01 X61.084409 Y123.864581 Z-0.125000
G01 X60.723756 Y122.465096 Z-0.125000
G01 X60.583236 Y121.375094 Z-0.125000
G01 X60.589798 Y120.322953 Z-0.125000
G01 X60.744976 Y119.317326 Z-0.125000
G01 X61.235301 Y117.910644 Z-0.125000
G01 X62.118664 Y116.439192 Z-0.125000
G01 X63.039731 Y115.323048 Z-0.125000
G01 X65.616901 Y112.638219 Z-0.125000
G01 X66.611310 Y111.177562 Z-0.125000
G01 X67.132380 Y110.036918 Z-0.125000
G01 X68.171238 Y107.171775 Z-0.125000
G01 X68.885454 Y105.469686 Z-0.125000
G01 X72.667985 Y98.189738 Z-0.125000
G01 X76.063114 Y90.692832 Z-0.125000
G01 X77.324011 Y88.209588 Z-0.125000
G01 X78.255184 Y86.784941 Z-0.125000
G01 X79.037239 Y85.885676 Z-0.125000
G01 X79.863188 Y85.199639 Z-0.125000
G01 X80.970044 Y84.611153 Z-0.125000
G01 X82.177098 Y84.254310 Z-0.125000
G01 X83.221540 Y84.106752 Z-0.125000
G01 X84.610230 Y84.125194 Z-0.125000
G01 X85.774766 Y84.313894 Z-0.125000
G01 X86.973723 Y84.649809 Z-0.125000
G01 X88.192313 Y85.109945 Z-0.125000
G01 X93.727972 Y87.690397 Z-0.125000
G01 X95.235910 Y88.115793 Z-0.125000
G01 X96.387481 Y88.184902 Z-0.125000
G01 X97.252958 Y88.042742 Z-0.125000
G01 X98.292240 Y87.634993 Z-0.125000
G01 X99.323770 Y87.017933 Z-0.125000
G01 X101.785688 Y85.293460 Z-0.125000
G01 X103.064392 Y84.521566 Z-0.125000
G01 X104.728301 Y83.709560 Z-0.125000
G01 X107.020384 Y82.797834 Z-0.125000
G01 X109.065610 Y82.154633 Z-0.125000
G01 X110.885333 Y81.782867 Z-0.125000
G01 X112.783716 Y81.637584 Z-0.125000
G01 X114.428575 Y81.720346 Z-0.125000
G01 X116.124685 Y81.999560 Z-0.125000
G01 X117.857994 Y82.469037 Z-0.125000
G01 X119.606015 Y83.106523 Z-0.125000
G01 X121.338690 Y83.875692 Z-0.125000
G01 X125.222768 Y85.970158 Z-0.125000
G01 X130.916594 Y89.424633 Z-0.125000
G01 X131.959713 Y90.127603 Z-0.125000
G01 X132.586457 Y90.666850 Z-0.125000
G01 X133.272124 Y91.429060 Z-0.125000
G01 X135.878690 Y94.934150 Z-0.125000
G01 X137.859437 Y97.366144 Z-0.125000
G01 X146.050424 Y106.655151 Z-0.125000
G01 X147.963148 Y109.164112 Z-0.125000
G01 X148.952212 Y110.869455 Z-0.125000
G01 X149.161206 Y111.460295 Z-0.125000
G01 X149.254207 Y112.094633 Z-0.125000
G01 X148.942846 Y114.071068 Z-0.125000
G01 X148.886886 Y114.913024 Z-0.125000
G01 X148.965944 Y116.179398 Z-0.125000
G01 X149.181447 Y117.469161 Z-0.125000
G01 X149.906510 Y120.300939 Z-0.125000
G01 X154.081894 Y133.958820 Z-0.125000
G01 X154.716100 Y136.248362 Z-0.125000
G01 X155.020185 Y137.710765 Z-0.125000
G01 X155.183724 Y139.113135 Z-0.125000
G01 X155.174304 Y140.453697 Z-0.125000
G01 X155.039658 Y141.420431 Z-0.125000
G01 X154.679825 Y142.663997 Z-0.125000
G01 X154.113353 Y143.866130 Z-0.125000
G01 X153.351486 Y145.040508 Z-0.125000
G01 X152.160625 Y146.491058 Z-0.125000
G01 X150.471130 Y148.236962 Z-0.125000
G01 X145.881488 Y152.680210 Z-0.125000
G01 X142.152958 Y156.473034 Z-0.125000
G01 X140.000073 Y158.330063 Z-0.125000
G01 X138.882950 Y159.053036 Z-0.125000
G01 X137.626737 Y159.641733 Z-0.125000
G01 X136.436007 Y160.009503 Z-0.125000
G01 X133.390525 Y160.710304 Z-0.125000
G01 X131.532993 Y161.295535 Z-0.125000
G01 X126.829475 Y163.099727 Z-0.125000
G01 X122.357228 Y164.684738 Z-0.125000
G01 X119.660969 Y165.912403 Z-0.125000
G01 X117.317398 Y167.321281 Z-0.125000
G01 X115.207746 Y168.950583 Z-0.125000
G01 X113.289572 Y170.841690 Z-0.125000
G01 X111.033314 Y173.549750 Z-0.125000
G01 X110.650912 Y173.861032 Z-0.125000
G01 X110.263034 Y174.013564 Z-0.125000
G01 X109.722676 Y173.975940 Z-0.125000
G01 X108.935912 Y173.619573 Z-0.125000
G01 X107.832839 Y172.890303 Z-0.125000
G01 X105.682890 Y171.275976 Z-0.125000
G01 X104.757246 Y170.760278 Z-0.125000
G01 X103.828454 Y170.486064 Z-0.125000
G01 X100.907246 Y169.895409 Z-0.125000
G01 X99.088953 Y169.383943 Z-0.125000
G01 X96.955937 Y168.611414 Z-0.125000
G01 X94.584030 Y167.555992 Z-0.125000
G01 X90.797424 Y165.519047 Z-0.125000
G01 X84.592000 Y161.707015 Z-0.125000
G01 X82.612999 Y160.570234 Z-0.125000
G01 X80.618519 Y159.598394 Z-0.125000
G01 X78.982100 Y158.998267 Z-0.125000
G01 X76.886867 Y158.519610 Z-0.125000
G01 X75.616048 Y158.384143 Z-0.125000
G01 X74.348881 Y158.357050 Z-0.125000
G01 X73.099044 Y158.426265 Z-0.125000
G01 X71.485035 Y158.637085 Z-0.125000
G01 X66.236237 Y159.702269 Z-0.125000
G01 X65.140387 Y159.706132 Z-0.125000
G01 X64.324731 Y159.418795 Z-0.125000
G01 X63.767836 Y158.826738 Z-0.125000
G01 X63.385752 Y157.755997 Z-0.125000
G01 X63.227267 Y156.138442 Z-0.125000
G01 X63.289973 Y154.504325 Z-0.125000
G01 X63.454015 Y153.272135 Z-0.125000
G01 X63.802285 Y151.571316 Z-0.125000
G01 X65.538743 Y145.295011 Z-0.125000
G01 X66.095294 Y142.836532 Z-0.125000
G01 X66.395913 Y140.437452 Z-0.125000
G01 X66.356305 Y138.144629 Z-0.125000
G01 X65.953160 Y135.980975 Z-0.125000
G01 X65.229446 Y133.948819 Z-0.125000
G01 X64.452789 Y132.347007 Z-0.125000
G01 X61.841143 Y127.614358 Z-0.125000
G01 X60.520080 Y124.470582 Z-0.125000
G01 X60.108627 Y123.040194 Z-0.125000
G01 X59.927308 Y121.916219 Z-0.125000
G01 X59.897199 Y120.821401 Z-0.125000
G01 X60.022691 Y119.764577 Z-0.125000
G01 X60.485499 Y118.266905 Z-0.125000
G01 X61.365317 Y116.674142 Z-0.125000
G01 X62.471830 Y115.257855 Z-0.125000
G01 X65.128349 Y112.357152 Z-0.125000
G01 X66.123789 Y110.826566 Z-0.125000
G01 X66.627635 Y109.660178 Z-0.125000
G01 X67.611857 Y106.791966 Z-0.125000
G01 X68.174149 Y105.401371 Z-0.125000
G01 X72.009676 Y97.829164 Z-0.125000
G01 X75.327732 Y90.181446 Z-0.125000
G01 X76.579131 Y87.646476 Z-0.125000
G01 X77.518691 Y86.201191 Z-0.125000
G01 X78.317705 Y85.298275 Z-0.125000
G01 X79.169213 Y84.621313 Z-0.125000
G01 X80.079696 Y84.151573 Z-0.125000
G01 X81.310139 Y83.801556 Z-0.125000
G01 X82.657369 Y83.643494 Z-0.125000
G01 X84.110406 Y83.691092 Z-0.125000
G01 X85.332991 Y83.896382 Z-0.125000
G01 X86.593994 Y84.245817 Z-0.125000
G01 X87.876798 Y84.717516 Z-0.125000
G01 X92.261679 Y86.731257 Z-0.125000
G01 X93.687491 Y87.303550 Z-0.125000
G01 X95.254907 Y87.699340 Z-0.125000
G01 X96.443281 Y87.729767 Z-0.125000
G01 X97.330402 Y87.548686 Z-0.125000
G01 X98.388707 Y87.085057 Z-0.125000
G01 X102.936386 Y83.912337 Z-0.125000
G01 X104.596592 Y83.046859 Z-0.125000
G01 X106.617318 Y82.201543 Z-0.125000
G01 X108.949432 Y81.410625 Z-0.125000
G01 X110.751216 Y81.005152 Z-0.125000
G01 X112.620442 Y80.828595 Z-0.125000
G01 X114.237202 Y80.891169 Z-0.125000
G01 X115.907303 Y81.158927 Z-0.125000
G01 X117.622410 Y81.628403 Z-0.125000
G01 X119.365377 Y82.278828 Z-0.125000
G01 X121.110249 Y83.073979 Z-0.125000
G01 X124.788323 Y85.087138 Z-0.125000
G01 X131.358633 Y89.051571 Z-0.125000
G01 X132.456388 Y89.787984 Z-0.125000
G01 X133.112792 Y90.355753 Z-0.125000
G01 X133.710485 Y91.008453 Z-0.125000
G01 X136.326973 Y94.482401 Z-0.125000
G01 X138.541744 Y97.162177 Z-0.125000
G01 X146.482647 Y105.999858 Z-0.125000
G01 X148.446541 Y108.536653 Z-0.125000
G01 X149.482621 Y110.295495 Z-0.125000
G01 X149.703442 Y110.908005 Z-0.125000
G01 X149.799830 Y111.562927 Z-0.125000
G01 X149.338873 Y114.387774 Z-0.125000
G01 X149.384673 Y115.648671 Z-0.125000
G01 X149.579221 Y116.938433 Z-0.125000
G01 X150.392469 Y120.140311 Z-0.125000
G01 X155.360677 Y136.373140 Z-0.125000
G01 X155.680663 Y137.834987 Z-0.125000
G01 X155.855817 Y139.228546 Z-0.125000
G01 X155.852193 Y140.552625 Z-0.125000
G01 X155.717414 Y141.502690 Z-0.125000
G01 X155.351205 Y142.719666 Z-0.125000
G01 X154.771345 Y143.892271 Z-0.125000
G01 X153.989952 Y145.036804 Z-0.125000
G01 X153.031473 Y146.170463 Z-0.125000
G01 X151.637756 Y147.595851 Z-0.125000
G01 X146.954795 Y152.052461 Z-0.125000
G01 X142.274349 Y156.875862 Z-0.125000
G01 X141.025358 Y158.014891 Z-0.125000
G01 X140.072198 Y158.762576 Z-0.125000
G01 X138.953276 Y159.482930 Z-0.125000
G01 X137.715028 Y160.074088 Z-0.125000
G01 X132.949147 Y161.567738 Z-0.125000
G01 X127.399466 Y163.922580 Z-0.125000
G01 X122.068568 Y165.857978 Z-0.125000
G01 X119.316905 Y167.140650 Z-0.125000
G01 X117.230245 Y168.387841 Z-0.125000
G01 X115.327893 Y169.788068 Z-0.125000
G01 X113.508514 Y171.430784 Z-0.125000
G01 X111.106736 Y174.023856 Z-0.125000
G01 X110.574501 Y174.440601 Z-0.125000
G01 X110.155295 Y174.595885 Z-0.125000
G01 X109.586257 Y174.558869 Z-0.125000
G01 X108.776104 Y174.196893 Z-0.125000
G01 X107.653875 Y173.452304 Z-0.125000
G01 X105.488448 Y171.822129 Z-0.125000
G01 X104.681496 Y171.386519 Z-0.125000
G01 X103.776808 Y171.151649 Z-0.125000
G01 X100.927143 Y170.749218 Z-0.125000
G01 X99.132768 Y170.340596 Z-0.125000
G01 X96.636136 Y169.520257 Z-0.125000
G01 X94.241501 Y168.483224 Z-0.125000
G01 X92.145792 Y167.398169 Z-0.125000
G01 X90.024022 Y166.155925 Z-0.125000
G01 X82.296557 Y161.187982 Z-0.125000
G01 X80.271677 Y160.144599 Z-0.125000
G01 X78.597767 Y159.500551 Z-0.125000
G01 X76.447024 Y158.983239 Z-0.125000
G01 X75.141307 Y158.832744 Z-0.125000
G01 X73.839665 Y158.796046 Z-0.125000
G01 X72.556940 Y158.860155 Z-0.125000
G01 X70.903137 Y159.069307 Z-0.125000
G01 X65.568879 Y160.124517 Z-0.125000
G01 X64.474829 Y160.104277 Z-0.125000
G01 X63.674174 Y159.777570 Z-0.125000
G01 X63.143897 Y159.131590 Z-0.125000
G01 X62.805813 Y157.981422 Z-0.125000
G01 X62.708076 Y156.524601 Z-0.125000
G01 X62.810258 Y154.555760 Z-0.125000
G01 X63.358024 Y151.571105 Z-0.125000
G01 X65.150071 Y145.339646 Z-0.125000
G01 X65.719189 Y142.932734 Z-0.125000
G01 X66.020496 Y140.594773 Z-0.125000
G01 X65.966601 Y138.365000 Z-0.125000
G01 X65.631268 Y136.601237 Z-0.125000
G01 X64.915439 Y134.595750 Z-0.125000
G01 X63.952066 Y132.696494 Z-0.125000
G01 X61.376138 Y128.253325 Z-0.125000
G01 X60.559953 Y126.524143 Z-0.125000
G01 X59.866587 Y124.778160 Z-0.125000
G01 X59.443545 Y123.322610 Z-0.125000
G01 X59.258760 Y122.172732 Z-0.125000
G01 X59.230899 Y121.045714 Z-0.125000
G01 X59.364329 Y119.950129 Z-0.125000
G01 X59.848410 Y118.382633 Z-0.125000
G01 X60.763311 Y116.694753 Z-0.125000
G01 X61.909379 Y115.176046 Z-0.125000
G01 X64.498482 Y112.227507 Z-0.125000
G01 X65.529509 Y110.639347 Z-0.125000
G01 X66.029995 Y109.469996 Z-0.125000
G01 X66.937435 Y106.659596 Z-0.125000
G01 X67.573625 Y105.028680 Z-0.125000
G01 X71.141579 Y97.893776 Z-0.125000
G01 X72.268597 Y95.338830 Z-0.125000
G01 X74.573062 Y89.700487 Z-0.125000
G01 X75.815597 Y87.117284 Z-0.125000
G01 X76.569367 Y85.916447 Z-0.125000
G01 X77.373409 Y84.949423 Z-0.125000
G01 X78.237801 Y84.221502 Z-0.125000
G01 X79.168181 Y83.718874 Z-0.125000
G01 X80.428575 Y83.358750 Z-0.125000
G01 X81.806629 Y83.213520 Z-0.125000
G01 X83.304672 Y83.246963 Z-0.125000
G01 X84.573479 Y83.428335 Z-0.125000
G01 X85.888669 Y83.751550 Z-0.125000
G01 X87.570729 Y84.329558 Z-0.125000
G01 X92.172541 Y86.336287 Z-0.125000
G01 X93.661800 Y86.890959 Z-0.125000
G01 X95.031625 Y87.217904 Z-0.125000
G01 X96.281304 Y87.264947 Z-0.125000
G01 X97.205862 Y87.089344 Z-0.125000
G01 X98.295442 Y86.619233 Z-0.125000
G01 X99.354038 Y85.919728 Z-0.125000
G01 X101.583044 Y84.160013 Z-0.125000
G01 X102.838649 Y83.282418 Z-0.125000
G01 X104.493828 Y82.360108 Z-0.125000
G01 X106.532863 Y81.474469 Z-0.125000
G01 X108.872068 Y80.642805 Z-0.125000
G01 X110.659987 Y80.203730 Z-0.125000
G01 X112.500718 Y79.994498 Z-0.125000
G01 X114.410002 Y80.067866 Z-0.125000
G01 X115.724609 Y80.287708 Z-0.125000
G01 X117.412410 Y80.753427 Z-0.125000
G01 X119.138946 Y81.412927 Z-0.125000
G01 X120.883580 Y82.230594 Z-0.125000
G01 X124.302998 Y84.136783 Z-0.125000
G01 X132.803362 Y89.327160 Z-0.125000
G01 X133.512206 Y89.916995 Z-0.125000
G01 X134.269152 Y90.728709 Z-0.125000
G01 X136.982847 Y94.286345 Z-0.125000
G01 X138.995266 Y96.684367 Z-0.125000
G01 X146.911113 Y105.337845 Z-0.125000
G01 X148.914535 Y107.890859 Z-0.125000
G01 X150.002659 Y109.708068 Z-0.125000
G01 X150.240202 Y110.346957 Z-0.125000
G01 X150.347041 Y111.028866 Z-0.125000
G01 X150.290314 Y111.633862 Z-0.125000
G01 X149.899340 Y113.196965 Z-0.125000
G01 X149.804434 Y114.063660 Z-0.125000
G01 X149.852006 Y115.368901 Z-0.125000
G01 X150.057031 Y116.700600 Z-0.125000
G01 X150.907163 Y119.992542 Z-0.125000
G01 X156.118442 Y136.855210 Z-0.125000
G01 X156.419723 Y138.296155 Z-0.125000
G01 X156.543469 Y139.326415 Z-0.125000
G01 X156.544791 Y140.632979 Z-0.125000
G01 X156.409378 Y141.565740 Z-0.125000
G01 X156.150430 Y142.463179 Z-0.125000
G01 X155.611634 Y143.615967 Z-0.125000
G01 X154.861144 Y144.735550 Z-0.125000
G01 X153.921769 Y145.841930 Z-0.125000
G01 X152.534480 Y147.235462 Z-0.125000
G01 X147.462027 Y151.993908 Z-0.125000
G01 X142.402592 Y157.274138 Z-0.125000
G01 X141.376486 Y158.212297 Z-0.125000
G01 X140.167924 Y159.167388 Z-0.125000
G01 X139.271861 Y159.756721 Z-0.125000
G01 X138.239431 Y160.305175 Z-0.125000
G01 X133.892544 Y161.954770 Z-0.125000
G01 X128.281639 Y164.639415 Z-0.125000
G01 X126.425165 Y165.380168 Z-0.125000
G01 X122.091772 Y166.906600 Z-0.125000
G01 X120.527266 Y167.574487 Z-0.125000
G01 X118.954082 Y168.356568 Z-0.125000
G01 X117.122798 Y169.431198 Z-0.125000
G01 X115.432641 Y170.608910 Z-0.125000
G01 X113.513753 Y172.212151 Z-0.125000
G01 X110.938778 Y174.710740 Z-0.125000
G01 X110.472821 Y175.032182 Z-0.125000
G01 X110.019405 Y175.193392 Z-0.125000
G01 X109.419305 Y175.160372 Z-0.125000
G01 X108.584625 Y174.795989 Z-0.125000
G01 X107.443161 Y174.038726 Z-0.125000
G01 X105.380922 Y172.476390 Z-0.125000
G01 X104.453664 Y171.989266 Z-0.125000
G01 X103.686320 Y171.823690 Z-0.125000
G01 X100.637134 Y171.552042 Z-0.125000
G01 X98.808891 Y171.203851 Z-0.125000
G01 X96.276303 Y170.434312 Z-0.125000
G01 X93.862168 Y169.414265 Z-0.125000
G01 X91.762279 Y168.320161 Z-0.125000
G01 X89.648128 Y167.046961 Z-0.125000
G01 X81.963262 Y161.818854 Z-0.125000
G01 X79.908431 Y160.709087 Z-0.125000
G01 X78.199490 Y160.023129 Z-0.125000
G01 X75.998530 Y159.467584 Z-0.125000
G01 X74.661856 Y159.301400 Z-0.125000
G01 X73.330157 Y159.253775 Z-0.125000
G01 X72.019201 Y159.311031 Z-0.125000
G01 X70.331982 Y159.515500 Z-0.125000
G01 X65.188118 Y160.519831 Z-0.125000
G01 X64.037658 Y160.527901 Z-0.125000
G01 X63.194326 Y160.223022 Z-0.125000
G01 X62.939163 Y160.006937 Z-0.125000
G01 X62.637829 Y159.583763 Z-0.125000
G01 X62.425607 Y159.049093 Z-0.125000
G01 X62.291331 Y158.415417 Z-0.125000
G01 X62.207696 Y156.914014 Z-0.125000
G01 X62.325489 Y154.894347 Z-0.125000
G01 X62.554141 Y153.292826 Z-0.125000
G01 X62.931251 Y151.551287 Z-0.125000
G01 X64.753540 Y145.372507 Z-0.125000
G01 X65.328876 Y143.018988 Z-0.125000
G01 X65.626929 Y140.742701 Z-0.125000
