%
(Header)
(Generated by gcodetools from Inkscape.)
(Using default header. To add your own header create file "header" in the output dir.)
M3
(Header end.)
G21 (All units in mm)

(Start cutting path id: path280)
(Change tool to Default tool)

G00 Z3.000000
G00 X62.640461 Y94.709321

G00 Z4.875000 (Fast pre-penetrate)
G01 Z-0.125000 F400.0(Penetrate)
G01 X80.651581 Y95.219011 Z-0.125000 F800.000000
G01 X99.433040 Y94.958362 Z-0.125000
G00 Z3.000000

(End cutting path id: path280)


(Start cutting path id: path208)
(Change tool to Default tool)

G00 Z3.000000
G00 X68.018243 Y107.852349

G00 Z4.875000 (Fast pre-penetrate)
G01 Z-0.125000 F400.0(Penetrate)
G01 X82.441294 Y111.950107 Z-0.125000 F800.000000
G01 X102.407249 Y110.504963 Z-0.125000
G00 Z3.000000

(End cutting path id: path208)


(Start cutting path id: path206)
(Change tool to Default tool)

G00 Z3.000000
G00 X67.978870 Y108.406190

G00 Z4.875000 (Fast pre-penetrate)
G01 Z-0.125000 F400.0(Penetrate)
G01 X82.483868 Y112.421999 Z-0.125000 F800.000000
G01 X102.122171 Y111.304506 Z-0.125000
G00 Z3.000000

(End cutting path id: path206)


(Start cutting path id: path204)
(Change tool to Default tool)

G00 Z3.000000
G00 X67.939495 Y108.960031

G00 Z4.875000 (Fast pre-penetrate)
G01 Z-0.125000 F400.0(Penetrate)
G01 X82.526442 Y112.893893 Z-0.125000 F800.000000
G01 X101.837094 Y112.104049 Z-0.125000
G00 Z3.000000

(End cutting path id: path204)


(Start cutting path id: path202)
(Change tool to Default tool)

G00 Z3.000000
G00 X67.900122 Y109.513869

G00 Z4.875000 (Fast pre-penetrate)
G01 Z-0.125000 F400.0(Penetrate)
G01 X82.569017 Y113.365785 Z-0.125000 F800.000000
G01 X101.552019 Y112.903595 Z-0.125000
G00 Z3.000000

(End cutting path id: path202)


(Start cutting path id: path198)
(Change tool to Default tool)

G00 Z3.000000
G00 X67.821374 Y110.621551

G00 Z4.875000 (Fast pre-penetrate)
G01 Z-0.125000 F400.0(Penetrate)
G01 X82.654165 Y114.309571 Z-0.125000 F800.000000
G01 X100.981863 Y114.502682 Z-0.125000
G00 Z3.000000

(End cutting path id: path198)


(Start cutting path id: path192)
(Change tool to Default tool)

G00 Z3.000000
G00 X67.703254 Y112.283072

G00 Z4.875000 (Fast pre-penetrate)
G01 Z-0.125000 F400.0(Penetrate)
G01 X82.781887 Y115.725249 Z-0.125000 F800.000000
G01 X100.126633 Y116.901315 Z-0.125000
G00 Z3.000000

(End cutting path id: path192)


(Start cutting path id: path184)
(Change tool to Default tool)

G00 Z3.000000
G00 X67.545761 Y114.498433

G00 Z4.875000 (Fast pre-penetrate)
G01 Z-0.125000 F400.0(Penetrate)
G01 X82.952183 Y117.612821 Z-0.125000 F800.000000
G01 X98.986326 Y120.099488 Z-0.125000
G00 Z3.000000

(End cutting path id: path184)


(Start cutting path id: path172)
(Change tool to Default tool)

G00 Z3.000000
G00 X67.309520 Y117.821476

G00 Z4.875000 (Fast pre-penetrate)
G01 Z-0.125000 F400.0(Penetrate)
G01 X83.207627 Y120.444179 Z-0.125000 F800.000000
G01 X97.275863 Y124.896754 Z-0.125000
G00 Z3.000000

(End cutting path id: path172)


(Start cutting path id: path154)
(Change tool to Default tool)

G00 Z3.000000
G00 X66.955159 Y122.806040

G00 Z4.875000 (Fast pre-penetrate)
G01 Z-0.125000 F400.0(Penetrate)
G01 X83.590794 Y124.691215 Z-0.125000 F800.000000
G01 X94.710172 Y132.092647 Z-0.125000
G00 Z3.000000

(End cutting path id: path154)


(Start cutting path id: path136)
(Change tool to Default tool)

G00 Z3.000000
G00 X66.600800 Y127.790601

G00 Z4.875000 (Fast pre-penetrate)
G01 Z-0.125000 F400.0(Penetrate)
G01 X83.973960 Y128.938251 Z-0.125000 F800.000000
G01 X92.144479 Y139.288542 Z-0.125000
G00 Z3.000000

(End cutting path id: path136)


(Start cutting path id: path138)
(Change tool to Default tool)

G00 Z3.000000
G00 X66.640173 Y127.236763

G00 Z4.875000 (Fast pre-penetrate)
G01 Z-0.125000 F400.0(Penetrate)
G01 X83.931386 Y128.466357 Z-0.125000 F800.000000
G01 X92.429557 Y138.488999 Z-0.125000
G00 Z3.000000

(End cutting path id: path138)


(Start cutting path id: path140)
(Change tool to Default tool)

G00 Z3.000000
G00 X66.679545 Y126.682922

G00 Z4.875000 (Fast pre-penetrate)
G01 Z-0.125000 F400.0(Penetrate)
G01 X83.888812 Y127.994465 Z-0.125000 F800.000000
G01 X92.714632 Y137.689456 Z-0.125000
G00 Z3.000000

(End cutting path id: path140)


(Start cutting path id: path142)
(Change tool to Default tool)

G00 Z3.000000
G00 X66.718921 Y126.129081

G00 Z4.875000 (Fast pre-penetrate)
G01 Z-0.125000 F400.0(Penetrate)
G01 X83.846238 Y127.522574 Z-0.125000 F800.000000
G01 X92.999709 Y136.889912 Z-0.125000
G00 Z3.000000

(End cutting path id: path142)


(Start cutting path id: path144)
(Change tool to Default tool)

G00 Z3.000000
G00 X66.758293 Y125.575240

G00 Z4.875000 (Fast pre-penetrate)
G01 Z-0.125000 F400.0(Penetrate)
G01 X83.803664 Y127.050679 Z-0.125000 F800.000000
G01 X93.284787 Y136.090366 Z-0.125000
G00 Z3.000000

(End cutting path id: path144)


(Start cutting path id: path146)
(Change tool to Default tool)

G00 Z3.000000
G00 X66.797666 Y125.021402

G00 Z4.875000 (Fast pre-penetrate)
G01 Z-0.125000 F400.0(Penetrate)
G01 X83.761090 Y126.578787 Z-0.125000 F800.000000
G01 X93.569864 Y135.290823 Z-0.125000
G00 Z3.000000

(End cutting path id: path146)


(Start cutting path id: path148)
(Change tool to Default tool)

G00 Z3.000000
G00 X66.837038 Y124.467561

G00 Z4.875000 (Fast pre-penetrate)
G01 Z-0.125000 F400.0(Penetrate)
G01 X83.718516 Y126.106893 Z-0.125000 F800.000000
G01 X93.854939 Y134.491280 Z-0.125000
G00 Z3.000000

(End cutting path id: path148)


(Start cutting path id: path150)
(Change tool to Default tool)

G00 Z3.000000
G00 X66.876414 Y123.913720

G00 Z4.875000 (Fast pre-penetrate)
G01 Z-0.125000 F400.0(Penetrate)
G01 X83.675942 Y125.635001 Z-0.125000 F800.000000
G01 X94.140017 Y133.691736 Z-0.125000
G00 Z3.000000

(End cutting path id: path150)


(Start cutting path id: path152)
(Change tool to Default tool)

G00 Z3.000000
G00 X66.915786 Y123.359879

G00 Z4.875000 (Fast pre-penetrate)
G01 Z-0.125000 F400.0(Penetrate)
G01 X83.633368 Y125.163107 Z-0.125000 F800.000000
G01 X94.425095 Y132.892193 Z-0.125000
G00 Z3.000000

(End cutting path id: path152)


(Start cutting path id: path156)
(Change tool to Default tool)

G00 Z3.000000
G00 X66.994534 Y122.252199

G00 Z4.875000 (Fast pre-penetrate)
G01 Z-0.125000 F400.0(Penetrate)
G01 X83.548220 Y124.219321 Z-0.125000 F800.000000
G01 X94.995247 Y131.293104 Z-0.125000
G00 Z3.000000

(End cutting path id: path156)


(Start cutting path id: path158)
(Change tool to Default tool)

G00 Z3.000000
G00 X67.033907 Y121.698358

G00 Z4.875000 (Fast pre-penetrate)
G01 Z-0.125000 F400.0(Penetrate)
G01 X83.505646 Y123.747429 Z-0.125000 F800.000000
G01 X95.280325 Y130.493560 Z-0.125000
G00 Z3.000000

(End cutting path id: path158)


(Start cutting path id: path160)
(Change tool to Default tool)

G00 Z3.000000
G00 X67.073279 Y121.144517

G00 Z4.875000 (Fast pre-penetrate)
G01 Z-0.125000 F400.0(Penetrate)
G01 X83.463072 Y123.275537 Z-0.125000 F800.000000
G01 X95.565402 Y129.694017 Z-0.125000
G00 Z3.000000

(End cutting path id: path160)


(Start cutting path id: path162)
(Change tool to Default tool)

G00 Z3.000000
G00 X67.112654 Y120.590679

G00 Z4.875000 (Fast pre-penetrate)
G01 Z-0.125000 F400.0(Penetrate)
G01 X83.420498 Y122.803643 Z-0.125000 F800.000000
G01 X95.850480 Y128.894473 Z-0.125000
G00 Z3.000000

(End cutting path id: path162)


(Start cutting path id: path164)
(Change tool to Default tool)

G00 Z3.000000
G00 X67.152027 Y120.036838

G00 Z4.875000 (Fast pre-penetrate)
G01 Z-0.125000 F400.0(Penetrate)
G01 X83.377923 Y122.331751 Z-0.125000 F800.000000
G01 X96.135555 Y128.094927 Z-0.125000
G00 Z3.000000

(End cutting path id: path164)


(Start cutting path id: path166)
(Change tool to Default tool)

G00 Z3.000000
G00 X67.191400 Y119.482997

G00 Z4.875000 (Fast pre-penetrate)
G01 Z-0.125000 F400.0(Penetrate)
G01 X83.335349 Y121.859857 Z-0.125000 F800.000000
G01 X96.420632 Y127.295384 Z-0.125000
G00 Z3.000000

(End cutting path id: path166)


(Start cutting path id: path168)
(Change tool to Default tool)

G00 Z3.000000
G00 X67.230775 Y118.929156

G00 Z4.875000 (Fast pre-penetrate)
G01 Z-0.125000 F400.0(Penetrate)
G01 X83.292775 Y121.387965 Z-0.125000 F800.000000
G01 X96.705710 Y126.495841 Z-0.125000
G00 Z3.000000

(End cutting path id: path168)


(Start cutting path id: path170)
(Change tool to Default tool)

G00 Z3.000000
G00 X67.270147 Y118.375317

G00 Z4.875000 (Fast pre-penetrate)
G01 Z-0.125000 F400.0(Penetrate)
G01 X83.250201 Y120.916071 Z-0.125000 F800.000000
G01 X96.990788 Y125.696297 Z-0.125000
G00 Z3.000000

(End cutting path id: path170)


(Start cutting path id: path174)
(Change tool to Default tool)

G00 Z3.000000
G00 X67.348895 Y117.267635

G00 Z4.875000 (Fast pre-penetrate)
G01 Z-0.125000 F400.0(Penetrate)
G01 X83.165053 Y119.972285 Z-0.125000 F800.000000
G01 X97.560940 Y124.097208 Z-0.125000
G00 Z3.000000

(End cutting path id: path174)


(Start cutting path id: path176)
(Change tool to Default tool)

G00 Z3.000000
G00 X67.388268 Y116.713794

G00 Z4.875000 (Fast pre-penetrate)
G01 Z-0.125000 F400.0(Penetrate)
G01 X83.122479 Y119.500393 Z-0.125000 F800.000000
G01 X97.846018 Y123.297665 Z-0.125000
G00 Z3.000000

(End cutting path id: path176)


(Start cutting path id: path178)
(Change tool to Default tool)

G00 Z3.000000
G00 X67.427641 Y116.159953

G00 Z4.875000 (Fast pre-penetrate)
G01 Z-0.125000 F400.0(Penetrate)
G01 X83.079905 Y119.028501 Z-0.125000 F800.000000
G01 X98.131095 Y122.498121 Z-0.125000
G00 Z3.000000

(End cutting path id: path178)


(Start cutting path id: path180)
(Change tool to Default tool)

G00 Z3.000000
G00 X67.467013 Y115.606115

G00 Z4.875000 (Fast pre-penetrate)
G01 Z-0.125000 F400.0(Penetrate)
G01 X83.037331 Y118.556607 Z-0.125000 F800.000000
G01 X98.416170 Y121.698578 Z-0.125000
G00 Z3.000000

(End cutting path id: path180)


(Start cutting path id: path182)
(Change tool to Default tool)

G00 Z3.000000
G00 X67.506388 Y115.052274

G00 Z4.875000 (Fast pre-penetrate)
G01 Z-0.125000 F400.0(Penetrate)
G01 X82.994757 Y118.084715 Z-0.125000 F800.000000
G01 X98.701248 Y120.899034 Z-0.125000
G00 Z3.000000

(End cutting path id: path182)


(Start cutting path id: path186)
(Change tool to Default tool)

G00 Z3.000000
G00 X67.585134 Y113.944592

G00 Z4.875000 (Fast pre-penetrate)
G01 Z-0.125000 F400.0(Penetrate)
G01 X82.909609 Y117.140929 Z-0.125000 F800.000000
G01 X99.271403 Y119.299945 Z-0.125000
G00 Z3.000000

(End cutting path id: path186)


(Start cutting path id: path188)
(Change tool to Default tool)

G00 Z3.000000
G00 X67.624509 Y113.390754

G00 Z4.875000 (Fast pre-penetrate)
G01 Z-0.125000 F400.0(Penetrate)
G01 X82.867035 Y116.669035 Z-0.125000 F800.000000
G01 X99.556478 Y118.500402 Z-0.125000
G00 Z3.000000

(End cutting path id: path188)


(Start cutting path id: path190)
(Change tool to Default tool)

G00 Z3.000000
G00 X67.663881 Y112.836913

G00 Z4.875000 (Fast pre-penetrate)
G01 Z-0.125000 F400.0(Penetrate)
G01 X82.824461 Y116.197143 Z-0.125000 F800.000000
G01 X99.841556 Y117.700858 Z-0.125000
G00 Z3.000000

(End cutting path id: path190)


(Start cutting path id: path194)
(Change tool to Default tool)

G00 Z3.000000
G00 X67.742629 Y111.729231

G00 Z4.875000 (Fast pre-penetrate)
G01 Z-0.125000 F400.0(Penetrate)
G01 X82.739313 Y115.253357 Z-0.125000 F800.000000
G01 X100.411711 Y116.101769 Z-0.125000
G00 Z3.000000

(End cutting path id: path194)


(Start cutting path id: path196)
(Change tool to Default tool)

G00 Z3.000000
G00 X67.782002 Y111.175392

G00 Z4.875000 (Fast pre-penetrate)
G01 Z-0.125000 F400.0(Penetrate)
G01 X82.696739 Y114.781465 Z-0.125000 F800.000000
G01 X100.696786 Y115.302226 Z-0.125000
G00 Z3.000000

(End cutting path id: path196)


(Start cutting path id: path200)
(Change tool to Default tool)

G00 Z3.000000
G00 X67.860750 Y110.067710

G00 Z4.875000 (Fast pre-penetrate)
G01 Z-0.125000 F400.0(Penetrate)
G01 X82.611591 Y113.837679 Z-0.125000 F800.000000
G01 X101.266941 Y113.703139 Z-0.125000
G00 Z3.000000

(End cutting path id: path200)


(Start cutting path id: path210)
(Change tool to Default tool)

G00 Z3.000000
G00 X67.868859 Y107.487264

G00 Z4.875000 (Fast pre-penetrate)
G01 Z-0.125000 F400.0(Penetrate)
G01 X82.391579 Y111.485354 Z-0.125000 F800.000000
G01 X102.324633 Y110.073113 Z-0.125000
G00 Z3.000000

(End cutting path id: path210)


(Start cutting path id: path212)
(Change tool to Default tool)

G00 Z3.000000
G00 X67.719476 Y107.122182

G00 Z4.875000 (Fast pre-penetrate)
G01 Z-0.125000 F400.0(Penetrate)
G01 X82.341867 Y111.020601 Z-0.125000 F800.000000
G01 X102.242014 Y109.641263 Z-0.125000
G00 Z3.000000

(End cutting path id: path212)


(Start cutting path id: path214)
(Change tool to Default tool)

G00 Z3.000000
G00 X67.570095 Y106.757097

G00 Z4.875000 (Fast pre-penetrate)
G01 Z-0.125000 F400.0(Penetrate)
G01 X82.292152 Y110.555850 Z-0.125000 F800.000000
G01 X102.159398 Y109.209414 Z-0.125000
G00 Z3.000000

(End cutting path id: path214)


(Start cutting path id: path216)
(Change tool to Default tool)

G00 Z3.000000
G00 X67.420711 Y106.392012

G00 Z4.875000 (Fast pre-penetrate)
G01 Z-0.125000 F400.0(Penetrate)
G01 X82.242436 Y110.091097 Z-0.125000 F800.000000
G01 X102.076782 Y108.777564 Z-0.125000
G00 Z3.000000

(End cutting path id: path216)


(Start cutting path id: path218)
(Change tool to Default tool)

G00 Z3.000000
G00 X67.271328 Y106.026930

G00 Z4.875000 (Fast pre-penetrate)
G01 Z-0.125000 F400.0(Penetrate)
G01 X82.192724 Y109.626343 Z-0.125000 F800.000000
G01 X101.994163 Y108.345711 Z-0.125000
G00 Z3.000000

(End cutting path id: path218)


(Start cutting path id: path220)
(Change tool to Default tool)

G00 Z3.000000
G00 X67.121947 Y105.661845

G00 Z4.875000 (Fast pre-penetrate)
G01 Z-0.125000 F400.0(Penetrate)
G01 X82.143009 Y109.161590 Z-0.125000 F800.000000
G01 X101.911547 Y107.913862 Z-0.125000
G00 Z3.000000

(End cutting path id: path220)


(Start cutting path id: path222)
(Change tool to Default tool)

G00 Z3.000000
G00 X66.972563 Y105.296760

G00 Z4.875000 (Fast pre-penetrate)
G01 Z-0.125000 F400.0(Penetrate)
G01 X82.093294 Y108.696837 Z-0.125000 F800.000000
G01 X101.828931 Y107.482012 Z-0.125000
G00 Z3.000000

(End cutting path id: path222)


(Start cutting path id: path224)
(Change tool to Default tool)

G00 Z3.000000
G00 X66.823179 Y104.931675

G00 Z4.875000 (Fast pre-penetrate)
G01 Z-0.125000 F400.0(Penetrate)
G01 X82.043581 Y108.232086 Z-0.125000 F800.000000
G01 X101.746313 Y107.050162 Z-0.125000
G00 Z3.000000

(End cutting path id: path224)


(Start cutting path id: path226)
(Change tool to Default tool)

G00 Z3.000000
G00 X66.673796 Y104.566593

G00 Z4.875000 (Fast pre-penetrate)
G01 Z-0.125000 F400.0(Penetrate)
G01 X81.993866 Y107.767333 Z-0.125000 F800.000000
G01 X101.663696 Y106.618313 Z-0.125000
G00 Z3.000000

(End cutting path id: path226)


(Start cutting path id: path228)
(Change tool to Default tool)

G00 Z3.000000
G00 X66.524415 Y104.201508

G00 Z4.875000 (Fast pre-penetrate)
G01 Z-0.125000 F400.0(Penetrate)
G01 X81.944154 Y107.302580 Z-0.125000 F800.000000
G01 X101.581080 Y106.186463 Z-0.125000
G00 Z3.000000

(End cutting path id: path228)


(Start cutting path id: path230)
(Change tool to Default tool)

G00 Z3.000000
G00 X66.375031 Y103.836423

G00 Z4.875000 (Fast pre-penetrate)
G01 Z-0.125000 F400.0(Penetrate)
G01 X81.894438 Y106.837826 Z-0.125000 F800.000000
G01 X101.498462 Y105.754613 Z-0.125000
G00 Z3.000000

(End cutting path id: path230)


(Start cutting path id: path232)
(Change tool to Default tool)

G00 Z3.000000
G00 X66.225648 Y103.471339

G00 Z4.875000 (Fast pre-penetrate)
G01 Z-0.125000 F400.0(Penetrate)
G01 X81.844723 Y106.373073 Z-0.125000 F800.000000
G01 X101.415846 Y105.322763 Z-0.125000
G00 Z3.000000

(End cutting path id: path232)


(Start cutting path id: path234)
(Change tool to Default tool)

G00 Z3.000000
G00 X66.076267 Y103.106256

G00 Z4.875000 (Fast pre-penetrate)
G01 Z-0.125000 F400.0(Penetrate)
G01 X81.795011 Y105.908323 Z-0.125000 F800.000000
G01 X101.333230 Y104.890911 Z-0.125000
G00 Z3.000000

(End cutting path id: path234)


(Start cutting path id: path236)
(Change tool to Default tool)

G00 Z3.000000
G00 X65.926883 Y102.741171

G00 Z4.875000 (Fast pre-penetrate)
G01 Z-0.125000 F400.0(Penetrate)
G01 X81.745296 Y105.443569 Z-0.125000 F800.000000
G01 X101.250611 Y104.459061 Z-0.125000
G00 Z3.000000

(End cutting path id: path236)


(Start cutting path id: path238)
(Change tool to Default tool)

G00 Z3.000000
G00 X65.777500 Y102.376087

G00 Z4.875000 (Fast pre-penetrate)
G01 Z-0.125000 F400.0(Penetrate)
G01 X81.695580 Y104.978816 Z-0.125000 F800.000000
G01 X101.167995 Y104.027212 Z-0.125000
G00 Z3.000000

(End cutting path id: path238)


(Start cutting path id: path240)
(Change tool to Default tool)

G00 Z3.000000
G00 X65.628116 Y102.011004

G00 Z4.875000 (Fast pre-penetrate)
G01 Z-0.125000 F400.0(Penetrate)
G01 X81.645868 Y104.514063 Z-0.125000 F800.000000
G01 X101.085379 Y103.595362 Z-0.125000
G00 Z3.000000

(End cutting path id: path240)


(Start cutting path id: path242)
(Change tool to Default tool)

G00 Z3.000000
G00 X65.478735 Y101.645920

G00 Z4.875000 (Fast pre-penetrate)
G01 Z-0.125000 F400.0(Penetrate)
G01 X81.596153 Y104.049309 Z-0.125000 F800.000000
G01 X101.002760 Y103.163512 Z-0.125000
G00 Z3.000000

(End cutting path id: path242)


(Start cutting path id: path244)
(Change tool to Default tool)

G00 Z3.000000
G00 X65.329352 Y101.280835

G00 Z4.875000 (Fast pre-penetrate)
G01 Z-0.125000 F400.0(Penetrate)
G01 X81.546438 Y103.584559 Z-0.125000 F800.000000
G01 X100.920144 Y102.731662 Z-0.125000
G00 Z3.000000

(End cutting path id: path244)


(Start cutting path id: path246)
(Change tool to Default tool)

G00 Z3.000000
G00 X65.179968 Y100.915750

G00 Z4.875000 (Fast pre-penetrate)
G01 Z-0.125000 F400.0(Penetrate)
G01 X81.496725 Y103.119806 Z-0.125000 F800.000000
G01 X100.837528 Y102.299813 Z-0.125000
G00 Z3.000000

(End cutting path id: path246)


(Start cutting path id: path248)
(Change tool to Default tool)

G00 Z3.000000
G00 X65.030585 Y100.550668

G00 Z4.875000 (Fast pre-penetrate)
G01 Z-0.125000 F400.0(Penetrate)
G01 X81.447010 Y102.655052 Z-0.125000 F800.000000
G01 X100.754912 Y101.867963 Z-0.125000
G00 Z3.000000

(End cutting path id: path248)


(Start cutting path id: path250)
(Change tool to Default tool)

G00 Z3.000000
G00 X64.881204 Y100.185583

G00 Z4.875000 (Fast pre-penetrate)
G01 Z-0.125000 F400.0(Penetrate)
G01 X81.397295 Y102.190299 Z-0.125000 F800.000000
G01 X100.672293 Y101.436111 Z-0.125000
G00 Z3.000000

(End cutting path id: path250)


(Start cutting path id: path252)
(Change tool to Default tool)

G00 Z3.000000
G00 X64.731820 Y99.820498

G00 Z4.875000 (Fast pre-penetrate)
G01 Z-0.125000 F400.0(Penetrate)
G01 X81.347582 Y101.725548 Z-0.125000 F800.000000
G01 X100.589677 Y101.004261 Z-0.125000
G00 Z3.000000

(End cutting path id: path252)


(Start cutting path id: path254)
(Change tool to Default tool)

G00 Z3.000000
G00 X64.582437 Y99.455413

G00 Z4.875000 (Fast pre-penetrate)
G01 Z-0.125000 F400.0(Penetrate)
G01 X81.297867 Y101.260795 Z-0.125000 F800.000000
G01 X100.507061 Y100.572411 Z-0.125000
G00 Z3.000000

(End cutting path id: path254)


(Start cutting path id: path256)
(Change tool to Default tool)

G00 Z3.000000
G00 X64.433056 Y99.090331

G00 Z4.875000 (Fast pre-penetrate)
G01 Z-0.125000 F400.0(Penetrate)
G01 X81.248152 Y100.796042 Z-0.125000 F800.000000
G01 X100.424443 Y100.140561 Z-0.125000
G00 Z3.000000

(End cutting path id: path256)


(Start cutting path id: path258)
(Change tool to Default tool)

G00 Z3.000000
G00 X64.283672 Y98.725246

G00 Z4.875000 (Fast pre-penetrate)
G01 Z-0.125000 F400.0(Penetrate)
G01 X81.198440 Y100.331289 Z-0.125000 F800.000000
G01 X100.341827 Y99.708712 Z-0.125000
G00 Z3.000000

(End cutting path id: path258)


(Start cutting path id: path260)
(Change tool to Default tool)

G00 Z3.000000
G00 X64.134289 Y98.360161

G00 Z4.875000 (Fast pre-penetrate)
G01 Z-0.125000 F400.0(Penetrate)
G01 X81.148724 Y99.866535 Z-0.125000 F800.000000
G01 X100.259211 Y99.276862 Z-0.125000
G00 Z3.000000

(End cutting path id: path260)


(Start cutting path id: path262)
(Change tool to Default tool)

G00 Z3.000000
G00 X63.984905 Y97.995079

G00 Z4.875000 (Fast pre-penetrate)
G01 Z-0.125000 F400.0(Penetrate)
G01 X81.099009 Y99.401785 Z-0.125000 F800.000000
G01 X100.176592 Y98.845012 Z-0.125000
G00 Z3.000000

(End cutting path id: path262)


(Start cutting path id: path264)
(Change tool to Default tool)

G00 Z3.000000
G00 X63.835524 Y97.629994

G00 Z4.875000 (Fast pre-penetrate)
G01 Z-0.125000 F400.0(Penetrate)
G01 X81.049297 Y98.937031 Z-0.125000 F800.000000
G01 X100.093976 Y98.413162 Z-0.125000
G00 Z3.000000

(End cutting path id: path264)


(Start cutting path id: path266)
(Change tool to Default tool)

G00 Z3.000000
G00 X63.686141 Y97.264909

G00 Z4.875000 (Fast pre-penetrate)
G01 Z-0.125000 F400.0(Penetrate)
G01 X80.999582 Y98.472278 Z-0.125000 F800.000000
G01 X100.011360 Y97.981310 Z-0.125000
G00 Z3.000000

(End cutting path id: path266)


(Start cutting path id: path268)
(Change tool to Default tool)

G00 Z3.000000
G00 X63.536757 Y96.899824

G00 Z4.875000 (Fast pre-penetrate)
G01 Z-0.125000 F400.0(Penetrate)
G01 X80.949866 Y98.007525 Z-0.125000 F800.000000
G01 X99.928741 Y97.549460 Z-0.125000
G00 Z3.000000

(End cutting path id: path268)


(Start cutting path id: path270)
(Change tool to Default tool)

G00 Z3.000000
G00 X63.387376 Y96.534742

G00 Z4.875000 (Fast pre-penetrate)
G01 Z-0.125000 F400.0(Penetrate)
G01 X80.900154 Y97.542772 Z-0.125000 F800.000000
G01 X99.846125 Y97.117611 Z-0.125000
G00 Z3.000000

(End cutting path id: path270)


(Start cutting path id: path272)
(Change tool to Default tool)

G00 Z3.000000
G00 X63.237993 Y96.169657

G00 Z4.875000 (Fast pre-penetrate)
G01 Z-0.125000 F400.0(Penetrate)
G01 X80.850439 Y97.078021 Z-0.125000 F800.000000
G01 X99.763509 Y96.685761 Z-0.125000
G00 Z3.000000

(End cutting path id: path272)


(Start cutting path id: path274)
(Change tool to Default tool)

G00 Z3.000000
G00 X63.088609 Y95.804572

G00 Z4.875000 (Fast pre-penetrate)
G01 Z-0.125000 F400.0(Penetrate)
G01 X80.800724 Y96.613268 Z-0.125000 F800.000000
G01 X99.680890 Y96.253911 Z-0.125000
G00 Z3.000000

(End cutting path id: path274)


(Start cutting path id: path276)
(Change tool to Default tool)

G00 Z3.000000
G00 X62.939225 Y95.439488

G00 Z4.875000 (Fast pre-penetrate)
G01 Z-0.125000 F400.0(Penetrate)
G01 X80.751011 Y96.148515 Z-0.125000 F800.000000
G01 X99.598274 Y95.822061 Z-0.125000
G00 Z3.000000

(End cutting path id: path276)


(Start cutting path id: path278)
(Change tool to Default tool)

G00 Z3.000000
G00 X62.789844 Y95.074405

G00 Z4.875000 (Fast pre-penetrate)
G01 Z-0.125000 F400.0(Penetrate)
G01 X80.701296 Y95.683761 Z-0.125000 F800.000000
G01 X99.515658 Y95.390212 Z-0.125000
G00 Z3.000000

(End cutting path id: path278)



(Footer)
M5
G00 X0.0000 Y0.0000
M2
(Using default footer. To add your own footer create file "footer" in the output dir.)
(end)
%