%
(Header)
(Generated by gcodetools from Inkscape.)
(Using default header. To add your own header create file "header" in the output dir.)
M3
(Header end.)
G21 (All units in mm)

(Start cutting path id: path129587)
(Change tool to Default tool)

G00 Z3.000000
G00 X157.565466 Y73.525294

G00 Z4.875000 (Fast pre-penetrate)
G01 Z-0.125000 F400.0(Penetrate)
G02 X157.568483 Y73.513345 Z-0.125000 I-0.060005 J-0.021503 F800.000000
G01 X157.568853 Y73.502646 Z-0.125000
G01 X157.566717 Y73.492221 Z-0.125000
G01 X157.561894 Y73.482379 Z-0.125000
G02 X157.554903 Y73.473894 Z-0.125000 I-0.042580 J0.027960
G02 X157.544537 Y73.465605 Z-0.125000 I-0.046937 J0.048067
G02 X157.532831 Y73.459210 Z-0.125000 I-0.047997 J0.073962
G02 X157.517068 Y73.453354 Z-0.125000 I-0.050577 J0.111991
G02 X157.500687 Y73.449370 Z-0.125000 I-0.047154 J0.158218
G02 X157.480109 Y73.446475 Z-0.125000 I-0.040607 J0.214042
G02 X157.459342 Y73.445297 Z-0.125000 I-0.025344 J0.263072
G02 X157.434616 Y73.445681 Z-0.125000 I-0.006515 J0.376126
G02 X157.409957 Y73.447655 Z-0.125000 I0.019048 J0.393034
G02 X157.381856 Y73.451608 Z-0.125000 I0.055409 J0.495748
G02 X157.353985 Y73.457035 Z-0.125000 I0.098328 J0.579229
G02 X157.323357 Y73.464599 Z-0.125000 I0.132269 J0.601398
G02 X157.293108 Y73.473602 Z-0.125000 I0.193305 J0.704776
G02 X157.260896 Y73.484813 Z-0.125000 I0.216962 J0.675257
G02 X157.229215 Y73.497436 Z-0.125000 I0.300398 J0.800059
G02 X157.196439 Y73.512184 Z-0.125000 I0.294034 J0.697221
G02 X157.164352 Y73.528353 Z-0.125000 I0.377699 J0.789469
G02 X157.132097 Y73.546445 Z-0.125000 I0.362396 J0.683872
G02 X157.100701 Y73.565973 Z-0.125000 I0.445172 J0.750756
G02 X157.070053 Y73.587093 Z-0.125000 I0.393992 J0.604527
G02 X157.040470 Y73.609682 Z-0.125000 I0.475529 J0.653418
G02 X157.012501 Y73.633408 Z-0.125000 I0.404700 J0.505426
G02 X156.985874 Y73.658627 Z-0.125000 I0.457140 J0.509342
G02 X156.961648 Y73.684462 Z-0.125000 I0.385056 J0.385340
G02 X156.939124 Y73.711784 Z-0.125000 I0.425142 J0.373435
G02 X156.919637 Y73.739136 Z-0.125000 I0.339557 J0.262529
G02 X156.902322 Y73.767904 Z-0.125000 I0.370177 J0.242403
G02 X156.888488 Y73.796138 Z-0.125000 I0.285370 J0.157332
G02 X156.877421 Y73.825540 Z-0.125000 I0.307707 J0.132603
G02 X156.870047 Y73.854041 Z-0.125000 I0.233916 J0.075728
G02 X156.866095 Y73.883149 Z-0.125000 I0.246650 J0.048309
G02 X156.865972 Y73.911310 Z-0.125000 I0.194850 J0.014930
G02 X156.869762 Y73.939146 Z-0.125000 I0.216628 J-0.015320
G02 X156.877587 Y73.966338 Z-0.125000 I0.173193 J-0.035117
G02 X156.889385 Y73.992037 Z-0.125000 I0.188816 J-0.071123
G02 X156.905958 Y74.017488 Z-0.125000 I0.173834 J-0.095081
G02 X156.925955 Y74.040387 Z-0.125000 I0.187449 J-0.143506
G02 X156.951771 Y74.063139 Z-0.125000 I0.184638 J-0.183484
G02 X156.980163 Y74.082689 Z-0.125000 I0.196399 J-0.254838
G02 X157.015337 Y74.101728 Z-0.125000 I0.196113 J-0.320290
G02 X157.052250 Y74.117341 Z-0.125000 I0.203151 J-0.428874
G02 X157.096532 Y74.131795 Z-0.125000 I0.192604 J-0.514983
G02 X157.141862 Y74.142867 Z-0.125000 I0.185123 J-0.659611
G02 X157.194634 Y74.152036 Z-0.125000 I0.163341 J-0.783656
G02 X157.247878 Y74.157956 Z-0.125000 I0.132933 J-0.953188
G02 X157.308259 Y74.161296 Z-0.125000 I0.090620 J-1.090672
G02 X157.368768 Y74.161499 Z-0.125000 I0.034670 J-1.317024
G02 X157.435863 Y74.158651 Z-0.125000 I-0.028861 J-1.471322
G02 X157.502795 Y74.152837 Z-0.125000 I-0.110347 J-1.658548
G02 X157.575502 Y74.143490 Z-0.125000 I-0.186185 J-1.735768
G02 X157.647813 Y74.131307 Z-0.125000 I-0.301159 J-2.008278
G02 X157.724864 Y74.115367 Z-0.125000 I-0.380098 J-2.031518
G02 X157.801318 Y74.096669 Z-0.125000 I-0.519086 J-2.288137
G02 X157.881296 Y74.074153 Z-0.125000 I-0.592627 J-2.258336
G02 X157.960489 Y74.048931 Z-0.125000 I-0.749623 J-2.490593
G02 X158.041858 Y74.020006 Z-0.125000 I-0.798654 J-2.375655
G02 X158.122249 Y73.988401 Z-0.125000 I-0.963225 J-2.568052
G02 X158.203378 Y73.953377 Z-0.125000 I-0.977307 J-2.375285
G02 X158.283313 Y73.915676 Z-0.125000 I-1.126035 J-2.491089
G02 X158.362506 Y73.874996 Z-0.125000 I-1.111886 J-2.261988
G02 X158.440259 Y73.831611 Z-0.125000 I-1.254423 J-2.339441
G02 X158.515787 Y73.785869 Z-0.125000 I-1.178052 J-2.030418
G02 X158.589582 Y73.737366 Z-0.125000 I-1.301517 J-2.060570
G02 X158.659731 Y73.687259 Z-0.125000 I-1.177046 J-1.722007
G02 X158.727765 Y73.634329 Z-0.125000 I-1.272394 J-1.705680
G02 X158.790887 Y73.580658 Z-0.125000 I-1.124052 J-1.385958
G02 X158.851426 Y73.524128 Z-0.125000 I-1.181784 J-1.326248
G02 X158.906039 Y73.467779 Z-0.125000 I-1.034022 J-1.056823
G02 X158.957565 Y73.408581 Z-0.125000 I-1.071221 J-0.984397
G02 X159.002379 Y73.350514 Z-0.125000 I-0.886096 J-0.730187
G02 X159.043336 Y73.289697 Z-0.125000 I-0.909230 J-0.656527
G02 X159.077066 Y73.230904 Z-0.125000 I-0.733716 J-0.459997
G02 X159.105992 Y73.169666 Z-0.125000 I-0.746650 J-0.390133
G02 X159.127535 Y73.111108 Z-0.125000 I-0.591847 J-0.250982
G02 X159.143197 Y73.050795 Z-0.125000 I-0.599006 J-0.187740
G02 X159.151585 Y72.993358 Z-0.125000 I-0.478777 J-0.099255
G02 X159.153082 Y72.935427 Z-0.125000 I-0.482985 J-0.041459
G02 X159.147405 Y72.879939 Z-0.125000 I-0.410421 J0.013954
G02 X159.134353 Y72.825776 Z-0.125000 I-0.417146 J0.071870
G02 X159.113689 Y72.773135 Z-0.125000 I-0.376662 J0.117477
G02 X159.086029 Y72.723805 Z-0.125000 I-0.390380 J0.186472
G02 X159.049610 Y72.675210 Z-0.125000 I-0.381906 J0.248275
G02 X159.007373 Y72.631478 Z-0.125000 I-0.397386 J0.341528
G02 X158.954902 Y72.588358 Z-0.125000 I-0.404911 J0.439242
G02 X158.898120 Y72.550928 Z-0.125000 I-0.416819 J0.570529
G02 X158.829887 Y72.514677 Z-0.125000 I-0.425169 J0.717942
G02 X158.758736 Y72.484335 Z-0.125000 I-0.424815 J0.897569
G02 X158.675492 Y72.456128 Z-0.125000 I-0.418181 J1.097185
G02 X158.590382 Y72.433707 Z-0.125000 I-0.396534 J1.332504
G02 X158.493271 Y72.414498 Z-0.125000 I-0.361905 J1.574559
G02 X158.395045 Y72.400816 Z-0.125000 I-0.309058 J1.859274
G02 X158.285843 Y72.391374 Z-0.125000 I-0.237215 J2.107337
G02 X158.176435 Y72.387237 Z-0.125000 I-0.146179 J2.417231
G02 X158.057514 Y72.388146 Z-0.125000 I-0.039556 J2.604858
G02 X157.938730 Y72.394164 Z-0.125000 I0.087459 J2.901396
G02 X157.811861 Y72.405820 Z-0.125000 I0.220751 J3.099062
G02 X157.685525 Y72.422451 Z-0.125000 I0.387269 J3.430082
G02 X157.552745 Y72.445063 Z-0.125000 I0.518296 J3.444625
G02 X157.420870 Y72.472551 Z-0.125000 I0.717744 J3.773493
G02 X157.284376 Y72.506153 Z-0.125000 I0.847582 J3.737024
G02 X157.149139 Y72.544551 Z-0.125000 I1.059297 J3.988150
G02 X157.011236 Y72.588959 Z-0.125000 I1.174645 J3.883987
G02 X156.874942 Y72.638118 Z-0.125000 I1.397383 J4.087747
G02 X156.738020 Y72.692924 Z-0.125000 I1.470444 J3.872077
G02 X156.603072 Y72.752458 Z-0.125000 I1.688299 J4.009637
G02 X156.469563 Y72.817040 Z-0.125000 I1.715908 J3.717552
G02 X156.338426 Y72.886342 Z-0.125000 I1.912761 J3.778198
G02 X156.210772 Y72.959854 Z-0.125000 I1.889082 J3.427963
G02 X156.085932 Y73.038082 Z-0.125000 I2.054799 J3.417869
G02 X155.966535 Y73.119459 Z-0.125000 I1.974000 J3.024562
G02 X155.850473 Y73.205548 Z-0.125000 I2.101389 J2.954282
G02 X155.741664 Y73.293522 Z-0.125000 I1.964961 J2.541605
G02 X155.636832 Y73.386173 Z-0.125000 I2.043005 J2.417247
G02 X155.540792 Y73.479297 Z-0.125000 I1.884514 J2.039603
G02 X155.449504 Y73.576978 Z-0.125000 I1.898405 J1.865664
G02 X155.368056 Y73.673681 Z-0.125000 I1.784024 J1.585231
G02 X155.291933 Y73.774716 Z-0.125000 I1.779511 J1.419937
G02 X155.226401 Y73.873298 Z-0.125000 I1.544628 J1.097852
G02 X155.167299 Y73.975846 Z-0.125000 I1.543177 J0.957701
G02 X155.119314 Y74.074495 Z-0.125000 I1.289783 J0.688370
G02 X155.079052 Y74.176479 Z-0.125000 I1.279020 J0.563875
G02 X155.050009 Y74.273424 Z-0.125000 I1.045505 J0.366039
G02 X155.030140 Y74.372555 Z-0.125000 I1.029338 J0.257867
G02 X155.021249 Y74.466123 Z-0.125000 I0.839002 J0.126933
G02 X155.022870 Y74.559955 Z-0.125000 I0.847692 J0.032282
G02 X155.035245 Y74.648600 Z-0.125000 I0.675904 J-0.049171
G02 X155.058834 Y74.734811 Z-0.125000 I0.688763 J-0.142122
G02 X155.093591 Y74.816944 Z-0.125000 I0.605882 J-0.207980
G02 X155.139047 Y74.893639 Z-0.125000 I0.611180 J-0.310413
G02 X155.197170 Y74.967409 Z-0.125000 I0.576907 J-0.394761
G02 X155.264225 Y75.033275 Z-0.125000 I0.583558 J-0.527032
G02 X155.346101 Y75.096536 Z-0.125000 I0.578201 J-0.663720
G02 X155.434512 Y75.150541 Z-0.125000 I0.575950 J-0.843515
G02 X155.539654 Y75.201243 Z-0.125000 I0.577101 J-1.062395
G02 X155.649043 Y75.242385 Z-0.125000 I0.552310 J-1.302489
G02 X155.776223 Y75.278919 Z-0.125000 I0.535405 J-1.624185
G02 X155.905884 Y75.306232 Z-0.125000 I0.474428 J-1.930772
G02 X156.053276 Y75.327507 Z-0.125000 I0.417437 J-2.370812
G02 X156.202071 Y75.340202 Z-0.125000 I0.306832 J-2.717944
G02 X156.366836 Y75.345604 Z-0.125000 I0.190262 J-3.287444
G02 X156.531414 Y75.343114 Z-0.125000 I0.026688 J-3.676293
G02 X156.709336 Y75.332560 Z-0.125000 I-0.153814 J-4.098058
G02 X156.886650 Y75.314661 Z-0.125000 I-0.362139 J-4.474468
G02 X157.074924 Y75.288224 Z-0.125000 I-0.599954 J-4.956390
G02 X157.262138 Y75.254892 Z-0.125000 I-0.842511 J-5.274474
G02 X157.457691 Y75.212966 Z-0.125000 I-1.120854 J-5.704977
G02 X157.651758 Y75.164499 Z-0.125000 I-1.387723 J-5.969322
G02 X157.851271 Y75.107747 Z-0.125000 I-1.665464 J-6.234053
G02 X158.048926 Y75.044733 Z-0.125000 I-1.941741 J-6.432123
G02 X158.248955 Y74.974087 Z-0.125000 I-2.187498 J-6.512310
G02 X158.446759 Y74.897376 Z-0.125000 I-2.454880 J-6.623385
G02 X158.643787 Y74.814007 Z-0.125000 I-2.623792 J-6.475371
G02 X158.838206 Y74.724688 Z-0.125000 I-2.868913 J-6.500982
G02 X159.028705 Y74.629979 Z-0.125000 I-2.927174 J-6.126681
G02 X159.216160 Y74.529362 Z-0.125000 I-3.136867 J-6.069106
G02 X159.396658 Y74.424874 Z-0.125000 I-3.063158 J-5.499595
G02 X159.573588 Y74.314455 Z-0.125000 I-3.229467 J-5.371706
G02 X159.740732 Y74.201897 Z-0.125000 I-3.027768 J-4.676483
G02 X159.903654 Y74.083328 Z-0.125000 I-3.147780 J-4.496487
G02 X160.054276 Y73.964518 Z-0.125000 I-2.836976 J-3.751486
G02 X160.199825 Y73.839604 Z-0.125000 I-2.900702 J-3.527112
G02 X160.331041 Y73.716424 Z-0.125000 I-2.547566 J-2.845243
G02 X160.455999 Y73.587130 Z-0.125000 I-2.517565 J-2.558162
G02 X160.565464 Y73.461461 Z-0.125000 I-2.298254 J-2.112434
G02 X160.667827 Y73.329885 Z-0.125000 I-2.238093 J-1.846796
G02 X160.754136 Y73.203678 Z-0.125000 I-1.890236 J-1.385273
G02 X160.831703 Y73.071991 Z-0.125000 I-1.850731 J-1.178829
G02 X160.893071 Y72.947149 Z-0.125000 I-1.505527 J-0.817560
G02 X160.943703 Y72.817729 Z-0.125000 I-1.465942 J-0.648133
G02 X160.978610 Y72.695933 Z-0.125000 I-1.188920 J-0.406646
G02 X161.000672 Y72.571356 Z-0.125000 I-1.154089 J-0.268626
G02 X161.007836 Y72.454032 Z-0.125000 I-0.958735 J-0.117421
G02 X161.000502 Y72.336892 Z-0.125000 I-0.937669 J-0.000095
G02 X160.978658 Y72.225356 Z-0.125000 I-0.826768 J0.104016
G02 X160.942002 Y72.117840 Z-0.125000 I-0.821137 J0.219945
G02 X160.889859 Y72.013684 Z-0.125000 I-0.782722 J0.326726
G02 X160.824396 Y71.917236 Z-0.125000 I-0.791353 J0.466676
G02 X160.741160 Y71.822645 Z-0.125000 I-0.805484 J0.624871
G02 X160.647357 Y71.738248 Z-0.125000 I-0.817647 J0.814457
G02 X160.533246 Y71.655680 Z-0.125000 I-0.856664 J1.063787
G02 X160.411565 Y71.584359 Z-0.125000 I-0.858771 J1.325705
G02 X160.267821 Y71.516027 Z-0.125000 I-0.889920 J1.686686
G02 X160.119055 Y71.459002 Z-0.125000 I-0.866358 J2.037556
G02 X159.947631 Y71.406688 Z-0.125000 I-0.857670 J2.503458
G02 X159.773068 Y71.365266 Z-0.125000 I-0.792673 J2.951950
G02 X159.576487 Y71.330391 Z-0.125000 I-0.719826 J3.485959
G02 X159.377604 Y71.305809 Z-0.125000 I-0.598153 J4.022700
G02 X159.159727 Y71.289595 Z-0.125000 I-0.445998 J4.520951
G02 X158.941801 Y71.283345 Z-0.125000 I-0.253467 J5.035880
G02 X158.709134 Y71.286790 Z-0.125000 I-0.037529 J5.324147
G02 X158.477021 Y71.299920 Z-0.125000 I0.214668 J5.853310
G02 X158.233411 Y71.323509 Z-0.125000 I0.462628 J6.047333
G02 X157.990897 Y71.356561 Z-0.125000 I0.761815 J6.495858
G02 X157.739921 Y71.400500 Z-0.125000 I1.021803 J6.575246
G02 X157.490740 Y71.453717 Z-0.125000 I1.359488 J6.975582
G02 X157.236311 Y71.517827 Z-0.125000 I1.605132 J6.907141
G02 X156.984343 Y71.591069 Z-0.125000 I1.960595 J7.214831
G02 X156.730450 Y71.674817 Z-0.125000 I2.176143 J7.024032
G02 X156.479683 Y71.767573 Z-0.125000 I2.525570 J7.213249
G02 X156.230346 Y71.870050 Z-0.125000 I2.694271 J6.910016
G02 X155.984828 Y71.981421 Z-0.125000 I3.017876 J6.979183
G02 X155.744084 Y72.101325 Z-0.125000 I3.119946 J6.565927
G02 X155.507890 Y72.230018 Z-0.125000 I3.397416 J6.516466
G02 X155.279723 Y72.365662 Z-0.125000 I3.423704 J6.018765
G02 X155.056907 Y72.509984 Z-0.125000 I3.640330 J5.864360
G02 X154.845195 Y72.659306 Z-0.125000 I3.575926 J5.294760
G02 X154.639746 Y72.817177 Z-0.125000 I3.725599 J5.061029
G02 X154.448210 Y72.977758 Z-0.125000 I3.567687 J4.449941
G02 X154.264002 Y73.146706 Z-0.125000 I3.645337 J4.159501
G02 X154.096097 Y73.315811 Z-0.125000 I3.416810 J3.560465
G02 X153.937045 Y73.492891 Z-0.125000 I3.343661 J3.163237
G02 X153.795544 Y73.667645 Z-0.125000 I3.378626 J2.880369
G02 X153.663368 Y73.849765 Z-0.125000 I3.244813 J2.494005
G02 X153.549361 Y74.027140 Z-0.125000 I2.994641 J2.050129
G02 X153.446125 Y74.211099 Z-0.125000 I2.931666 J1.766160
G02 X153.361716 Y74.387758 Z-0.125000 I2.492597 J1.299479
G02 X153.290158 Y74.569934 Z-0.125000 I2.448362 J1.066846
G02 X153.237624 Y74.742569 Z-0.125000 I2.016801 J0.708040
G02 X153.200238 Y74.918962 Z-0.125000 I1.969546 J0.509598
G02 X153.181458 Y75.084453 Z-0.125000 I1.594954 J0.264806
G02 X153.180123 Y75.250787 Z-0.125000 I1.556225 J0.095661
G02 X153.196777 Y75.406279 Z-0.125000 I1.273840 J-0.057800
G02 X153.232376 Y75.558308 Z-0.125000 I1.248243 J-0.212100
G02 X153.286172 Y75.701082 Z-0.125000 I1.065451 J-0.319931
G02 X153.358551 Y75.835242 Z-0.125000 I1.055130 J-0.482634
G02 X153.451100 Y75.962305 Z-0.125000 I0.965086 J-0.605706
G02 X153.559589 Y76.076145 Z-0.125000 I0.959910 J-0.806173
G02 X153.691741 Y76.184007 Z-0.125000 I0.932604 J-1.007736
G02 X153.835721 Y76.275872 Z-0.125000 I0.914566 J-1.274640
G02 X154.006888 Y76.361084 Z-0.125000 I0.911386 J-1.616191
G02 X154.185678 Y76.429566 Z-0.125000 I0.856909 J-1.969572
G02 X154.393849 Y76.489465 Z-0.125000 I0.833588 J-2.505307
G02 X154.606252 Y76.533278 Z-0.125000 I0.718866 J-2.948267
G02 X154.848402 Y76.566261 Z-0.125000 I0.631376 J-3.730043
G02 X155.093139 Y76.584436 Z-0.125000 I0.435450 J-4.206596
G02 X155.364604 Y76.589861 Z-0.125000 I0.243659 J-5.397645
G02 X155.635727 Y76.582195 Z-0.125000 I-0.025077 J-5.684776
G02 X155.928031 Y76.560747 Z-0.125000 I-0.361589 J-6.930386
G02 X156.218796 Y76.527358 Z-0.125000 I-0.688346 J-7.277169
G02 X156.525985 Y76.480007 Z-0.125000 I-1.119957 J-8.285798
G02 X156.831303 Y76.421512 Z-0.125000 I-1.493887 J-8.623610
G02 X157.148689 Y76.349297 Z-0.125000 I-2.007065 J-9.554633
G02 X157.463573 Y76.266687 Z-0.125000 I-2.397313 J-9.779151
G02 X157.785774 Y76.171188 Z-0.125000 I-2.937546 J-10.502201
G02 X158.104941 Y76.065886 Z-0.125000 I-3.317683 J-10.592215
G02 X158.426456 Y75.949065 Z-0.125000 I-3.813898 J-10.997432
G02 X158.744430 Y75.822869 Z-0.125000 I-4.164110 J-10.955893
G02 X159.059725 Y75.686990 Z-0.125000 I-4.527766 J-10.940073
G02 X159.370946 Y75.542015 Z-0.125000 I-4.833108 J-10.781854
G02 X159.674539 Y75.389599 Z-0.125000 I-4.993118 J-10.324221
G02 X159.973455 Y75.228215 Z-0.125000 I-5.242053 J-10.066841
G02 X160.260035 Y75.061958 Z-0.125000 I-5.161623 J-9.227308
G02 X160.541202 Y74.886732 Z-0.125000 I-5.345336 J-8.890303
G02 X160.805716 Y74.709459 Z-0.125000 I-5.034767 J-7.798518
G02 X161.063879 Y74.523108 Z-0.125000 I-5.151180 J-7.408202
G02 X161.301632 Y74.337702 Z-0.125000 I-4.648824 J-6.206504
G02 X161.531808 Y74.143050 Z-0.125000 I-4.699610 J-5.790723
G02 X161.738548 Y73.952406 Z-0.125000 I-4.088860 J-4.641490
G02 X161.935836 Y73.752437 Z-0.125000 I-3.983777 J-4.127668
G02 X162.108128 Y73.559320 Z-0.125000 I-3.671351 J-3.448874
G02 X162.269717 Y73.357194 Z-0.125000 I-3.481216 J-2.948692
G02 X162.406007 Y73.164422 Z-0.125000 I-3.077702 J-2.320496
G02 X162.529680 Y72.963324 Z-0.125000 I-2.946866 J-1.950882
G02 X162.628222 Y72.773701 Z-0.125000 I-2.399202 J-1.367214
G02 X162.711114 Y72.576967 Z-0.125000 I-2.309481 J-1.088903
G02 X162.769776 Y72.392877 Z-0.125000 I-1.868668 J-0.696867
G02 X162.809615 Y72.204105 Z-0.125000 I-1.792837 J-0.476956
G02 X162.826760 Y72.027440 Z-0.125000 I-1.481039 J-0.232890
G02 X162.822431 Y71.850275 Z-0.125000 I-1.429919 J-0.053694
G02 X162.796425 Y71.682633 Z-0.125000 I-1.252877 J0.108512
G02 X162.748155 Y71.520132 Z-0.125000 I-1.230879 J0.277210
G02 X162.677236 Y71.363434 Z-0.125000 I-1.168718 J0.434547
G02 X162.585986 Y71.217497 Z-0.125000 I-1.171047 J0.630724
G02 X162.468911 Y71.074547 Z-0.125000 I-1.197496 J0.861318
G02 X162.335525 Y70.946280 Z-0.125000 I-1.209228 J1.123999
G02 X162.172478 Y70.820412 Z-0.125000 I-1.282611 J1.492942
G02 X161.997648 Y70.710951 Z-0.125000 I-1.284955 J1.857972
G02 X161.790325 Y70.605243 Z-0.125000 I-1.355331 J2.402003
G02 X161.575102 Y70.516078 Z-0.125000 I-1.326654 J2.897894
G02 X161.326254 Y70.433018 Z-0.125000 I-1.343306 J3.610238
G02 X161.072440 Y70.365902 Z-0.125000 I-1.261612 J4.257597
G02 X160.785549 Y70.307502 Z-0.125000 I-1.181238 J5.068985
G02 X160.494727 Y70.264101 Z-0.125000 I-1.028924 J5.898541
G02 X160.175027 Y70.232210 Z-0.125000 I-0.819689 J6.598743
G02 X159.854194 Y70.214923 Z-0.125000 I-0.563123 J7.465435
G02 X159.512281 Y70.211466 Z-0.125000 I-0.248589 J7.677255
G02 X159.171697 Y70.222538 Z-0.125000 I0.101750 J8.374185
G02 X158.816224 Y70.248704 Z-0.125000 I0.456206 J8.625383
G02 X158.462092 Y70.289057 Z-0.125000 I0.869246 J9.202442
G02 X158.097177 Y70.345129 Z-0.125000 I1.238810 J9.277667
G02 X157.734677 Y70.415143 Z-0.125000 I1.698891 J9.769424
G02 X157.365642 Y70.500968 Z-0.125000 I2.062875 J9.706388
G02 X157.000054 Y70.600513 Z-0.125000 I2.544954 J10.067659
G02 X156.632290 Y70.715423 Z-0.125000 I2.878999 J9.860081
G02 X156.268987 Y70.843836 Z-0.125000 I3.355281 J10.070778
G02 X155.907930 Y70.986626 Z-0.125000 I3.637953 J9.726783
G02 X155.552366 Y71.142700 Z-0.125000 I4.080018 J9.778029
G02 X155.203491 Y71.311608 Z-0.125000 I4.285232 J9.295807
G02 X154.861187 Y71.493576 Z-0.125000 I4.669662 J9.197132
G02 X154.529947 Y71.686273 Z-0.125000 I4.777201 J8.592884
G02 X154.206444 Y71.891797 Z-0.125000 I5.081540 J8.355953
G02 X153.898221 Y72.105391 Z-0.125000 I5.071866 J7.648021
G02 X153.599023 Y72.331542 Z-0.125000 I5.285448 J7.303648
G02 X153.319020 Y72.562588 Z-0.125000 I5.146146 J6.521781
G02 X153.049509 Y72.805857 Z-0.125000 I5.264269 J6.103061
G02 X152.802641 Y73.050397 Z-0.125000 I4.998178 J5.292636
G02 X152.568413 Y73.306530 Z-0.125000 I4.903978 J4.719759
G02 X152.358742 Y73.560341 Z-0.125000 I5.008918 J4.351313
G02 X152.162708 Y73.824680 Z-0.125000 I4.700642 J3.690880
G02 X151.991491 Y74.083467 Z-0.125000 I4.875682 J3.411850
G02 X151.834305 Y74.351600 Z-0.125000 I4.675179 J2.920830
G02 X151.702584 Y74.610611 Z-0.125000 I4.035414 J2.215215
G02 X151.587860 Y74.877566 Z-0.125000 I3.984587 J1.870510
G02 X151.499443 Y75.131623 Z-0.125000 I3.300100 J1.290922
G02 X151.431038 Y75.391660 Z-0.125000 I3.238108 J0.990826
G02 X151.388860 Y75.635873 Z-0.125000 I2.603139 J0.575332
G02 X151.370021 Y75.882728 Z-0.125000 I2.544654 J0.318349
G02 X151.376663 Y76.112503 Z-0.125000 I2.024472 J0.056461
G02 X151.409483 Y76.339649 Z-0.125000 I1.978651 J-0.169949
G02 X151.467383 Y76.550767 Z-0.125000 I1.617217 J-0.330032
G02 X151.552338 Y76.752167 Z-0.125000 I1.586345 J-0.550530
G02 X151.663982 Y76.940413 Z-0.125000 I1.379121 J-0.690696
G02 X151.800261 Y77.111568 Z-0.125000 I1.360053 J-0.943088
G02 X151.967596 Y77.272120 Z-0.125000 I1.271230 J-1.157452
G02 X152.154157 Y77.410228 Z-0.125000 I1.243106 J-1.484176
G02 X152.377353 Y77.537910 Z-0.125000 I1.217890 J-1.870023
G02 X152.613320 Y77.641012 Z-0.125000 I1.147453 J-2.304581
G02 X152.890250 Y77.731513 Z-0.125000 I1.120682 J-2.960273
G02 X153.174311 Y77.797964 Z-0.125000 I0.971765 J-3.513683
G02 X153.501071 Y77.848694 Z-0.125000 I0.872495 J-4.542139
G02 X153.831700 Y77.877299 Z-0.125000 I0.612758 J-5.157463
G02 X154.202367 Y77.887416 Z-0.125000 I0.372215 J-6.842000
G02 X154.573997 Y77.878099 Z-0.125000 I0.001660 J-7.349903
G02 X154.977251 Y77.849025 Z-0.125000 I-0.470796 J-9.341093
G02 X155.377409 Y77.803070 Z-0.125000 I-0.906980 J-9.662739
G02 X155.800636 Y77.737432 Z-0.125000 I-1.536787 J-11.306354
G02 X156.221202 Y77.656200 Z-0.125000 I-2.026204 J-11.619681
G02 X156.658732 Y77.555817 Z-0.125000 I-2.809985 J-13.251301
G02 X157.092789 Y77.441103 Z-0.125000 I-3.304539 J-13.382329
G02 X157.537200 Y77.308606 Z-0.125000 I-4.168555 J-14.793468
G02 X157.977461 Y77.162780 Z-0.125000 I-4.636008 J-14.733912
G02 X158.421154 Y77.001280 Z-0.125000 I-5.458526 J-15.686609
G02 X158.860078 Y76.827200 Z-0.125000 I-5.872619 J-15.447616
G02 X159.295434 Y76.640180 Z-0.125000 I-6.517992 J-15.773129
G02 X159.725388 Y76.441072 Z-0.125000 I-6.864684 J-15.387367
G02 X160.144920 Y76.232262 Z-0.125000 I-7.207869 J-15.007595
G02 X160.558330 Y76.011625 Z-0.125000 I-7.483078 J-14.518768
G02 X160.954827 Y75.784918 Z-0.125000 I-7.450139 J-13.489931
G02 X161.344309 Y75.546428 Z-0.125000 I-7.647733 J-12.926926
G02 X161.710963 Y75.305777 Z-0.125000 I-7.250224 J-11.446004
G02 X162.069452 Y75.053217 Z-0.125000 I-7.365279 J-10.835164
G02 X162.399979 Y74.802566 Z-0.125000 I-6.670396 J-9.139343
G02 X162.720824 Y74.539763 Z-0.125000 I-6.707466 J-8.516105
G02 X163.009568 Y74.282976 Z-0.125000 I-5.832415 J-6.848969
G02 X163.286383 Y74.013822 Z-0.125000 I-5.711365 J-6.150854
G02 X163.528643 Y73.754550 Z-0.125000 I-5.076616 J-4.986345
G02 X163.756630 Y73.483126 Z-0.125000 I-4.744406 J-4.216593
G02 X163.949949 Y73.224876 Z-0.125000 I-4.493449 J-3.565168
G02 X164.127679 Y72.955424 Z-0.125000 I-4.201583 J-2.964687
G02 X164.271380 Y72.701915 Z-0.125000 I-3.446396 J-2.121073
G02 X164.395505 Y72.438558 Z-0.125000 I-3.291888 J-1.712462
G02 X164.486761 Y72.192947 Z-0.125000 I-2.653809 J-1.125771
G02 X164.554264 Y71.940163 Z-0.125000 I-2.526330 J-0.810027
G02 X164.591084 Y71.704802 Z-0.125000 I-2.064628 J-0.443552
G02 X164.600310 Y71.467167 Z-0.125000 I-1.976928 J-0.195755
G02 X164.580792 Y71.243846 Z-0.125000 I-1.696604 J0.035775
G02 X164.531854 Y71.025336 Z-0.125000 I-1.651646 J0.255171
G02 X164.453781 Y70.815975 Z-0.125000 I-1.541334 J0.455540
G02 X164.347999 Y70.619064 Z-0.125000 I-1.532588 J0.696447
G02 X164.209455 Y70.426662 Z-0.125000 I-1.554790 J0.973491
G02 X164.048079 Y70.252492 Z-0.125000 I-1.566338 J1.289426
G02 X163.848735 Y70.081003 Z-0.125000 I-1.670347 J1.740057
G02 X163.632575 Y69.930556 Z-0.125000 I-1.678871 J2.181666
G02 X163.374116 Y69.783834 Z-0.125000 I-1.800474 J2.870635
G02 X163.104198 Y69.658608 Z-0.125000 I-1.779817 J3.482782
G02 X162.789750 Y69.539817 Z-0.125000 I-1.846855 J4.413186
G02 X162.467924 Y69.441808 Z-0.125000 I-1.769977 J5.234574
G02 X162.101562 Y69.353543 Z-0.125000 I-1.717629 J6.324890
G02 X161.729886 Y69.284874 Z-0.125000 I-1.560529 J7.406324
G02 X161.317390 Y69.229596 Z-0.125000 I-1.333777 J8.386209
G02 X160.900724 Y69.193076 Z-0.125000 I-1.066222 J9.769541
G02 X160.454532 Y69.173793 Z-0.125000 I-0.643060 J9.707995
G02 X160.010777 Y69.174016 Z-0.125000 I-0.216519 J10.674489
G02 X159.548613 Y69.193796 Z-0.125000 I0.229120 J10.762752
G02 X159.087925 Y69.232587 Z-0.125000 I0.739111 J11.532712
G02 X158.614093 Y69.291821 Z-0.125000 I1.217791 J11.666276
G02 X158.142989 Y69.369803 Z-0.125000 I1.782062 J12.227692
G02 X157.663637 Y69.468509 Z-0.125000 I2.263970 J12.207973
G02 X157.188430 Y69.585661 Z-0.125000 I2.859481 J12.621428
G02 X156.709987 Y69.723202 Z-0.125000 I3.321637 J12.455339
G02 X156.237069 Y69.878860 Z-0.125000 I3.919394 J12.704099
G02 X155.766079 Y70.053928 Z-0.125000 I4.328536 J12.366240
G02 X155.301994 Y70.246776 Z-0.125000 I4.901593 J12.450430
G02 X154.845137 Y70.457367 Z-0.125000 I5.223052 J11.931761
G02 X154.396620 Y70.685399 Z-0.125000 I5.739858 J11.844881
G02 X153.960713 Y70.928785 Z-0.125000 I5.940426 J11.151399
G02 X153.534674 Y71.189264 Z-0.125000 I6.375939 J10.907166
G02 X153.126586 Y71.461962 Z-0.125000 I6.424101 J10.055221
G02 X152.730050 Y71.751367 Z-0.125000 I6.753833 J9.670331
G02 X152.356594 Y72.049117 Z-0.125000 I6.640258 J8.711687
G02 X151.996576 Y72.363112 Z-0.125000 I6.849428 J8.216745
G02 X151.664313 Y72.680899 Z-0.125000 I6.571668 J7.203639
G02 X151.347986 Y73.014180 Z-0.125000 I6.566317 J6.549041
G02 X151.062693 Y73.346423 Z-0.125000 I6.497282 J5.867738
G02 X150.796008 Y73.692580 Z-0.125000 I6.032790 J4.923569
G02 X150.560192 Y74.033770 Z-0.125000 I7.105935 J5.163413
G02 X150.341080 Y74.387249 Z-0.125000 I6.621364 J4.349057
G02 X150.152882 Y74.731592 Z-0.125000 I5.952006 J3.476616
G02 X149.984901 Y75.086440 Z-0.125000 I5.911061 J3.015416
G02 X149.849567 Y75.426808 Z-0.125000 I4.920992 J2.153733
G02 X149.738172 Y75.775692 Z-0.125000 I4.886319 J1.752375
G02 X149.660279 Y76.105153 Z-0.125000 I3.917414 J1.100114
G02 X149.610567 Y76.439799 Z-0.125000 I3.856070 J0.743832
G02 X149.594019 Y76.751617 Z-0.125000 I3.024462 J0.316856
G02 X149.609973 Y77.063033 Z-0.125000 I2.973461 J0.003789
G02 X149.658212 Y77.350934 Z-0.125000 I2.329111 J-0.242264
G02 X149.741736 Y77.630088 Z-0.125000 I2.277806 J-0.529453
G02 X149.858200 Y77.888223 Z-0.125000 I1.879054 J-0.692443
G02 X150.008983 Y78.127509 Z-0.125000 I1.840455 J-0.992587
G02 X150.196851 Y78.349685 Z-0.125000 I1.635050 J-1.192050
G02 X150.413393 Y78.544127 Z-0.125000 I1.596354 J-1.560001
G02 X150.674312 Y78.723358 Z-0.125000 I1.517101 J-1.929008
G02 X150.955326 Y78.870007 Z-0.125000 I1.439615 J-2.416069
G02 X151.287874 Y78.999776 Z-0.125000 I1.399924 J-3.096500
G02 X151.632054 Y79.096506 Z-0.125000 I1.233685 J-3.728962
G02 X152.031921 Y79.172514 Z-0.125000 I1.135351 J-4.883050
G02 X152.437409 Y79.217833 Z-0.125000 I0.833238 J-5.618611
G02 X152.897949 Y79.238557 Z-0.125000 I0.570886 J-7.559206
G02 X153.361741 Y79.232176 Z-0.125000 I0.119382 J-8.181275
G02 X153.870503 Y79.199280 Z-0.125000 I-0.477677 J-11.338126
G02 X154.374950 Y79.144084 Z-0.125000 I-1.003600 J-11.504925
G02 X154.911079 Y79.062956 Z-0.125000 I-1.841476 J-13.981268
G02 X155.443373 Y78.961585 Z-0.125000 I-2.432500 J-14.221179
G02 X155.998724 Y78.835253 Z-0.125000 I-3.502662 J-16.681401
G02 X156.549658 Y78.690494 Z-0.125000 I-4.094151 J-16.702494
G02 X157.115175 Y78.522683 Z-0.125000 I-5.327667 J-18.990849
G02 X157.675455 Y78.337984 Z-0.125000 I-5.868003 J-18.742609
G02 X158.241370 Y78.133113 Z-0.125000 I-7.094499 J-20.481222
G02 X158.801348 Y77.912505 Z-0.125000 I-7.558684 J-20.007456
G02 X159.357878 Y77.675395 Z-0.125000 I-8.568724 J-20.883740
G02 X159.907768 Y77.423321 Z-0.125000 I-8.948940 J-20.247521
G02 X160.445338 Y77.159019 Z-0.125000 I-9.545915 J-20.094564
G02 X160.975455 Y76.880186 Z-0.125000 I-9.837648 J-19.346653
G02 X161.484877 Y76.593835 Z-0.125000 I-9.917067 J-18.238920
G02 X161.985845 Y76.293083 Z-0.125000 I-10.116261 J-17.418413
G02 X162.458505 Y75.989806 Z-0.125000 I-9.674930 J-15.598436
G02 X162.921413 Y75.672002 Z-0.125000 I-9.782781 J-14.745481
G02 X163.349409 Y75.356817 Z-0.125000 I-8.919200 J-12.559757
G02 X163.765929 Y75.026796 Z-0.125000 I-8.934741 J-11.704376
G02 X164.142184 Y74.704530 Z-0.125000 I-7.801043 J-9.488756
G02 X164.504543 Y74.367067 Z-0.125000 I-7.693284 J-8.624122
G02 X164.822999 Y74.042266 Z-0.125000 I-6.606117 J-6.795565
G02 X165.123991 Y73.702238 Z-0.125000 I-6.158066 J-5.754348
G02 X165.380801 Y73.379022 Z-0.125000 I-6.031805 J-5.056174
G02 X165.619255 Y73.041682 Z-0.125000 I-5.526801 J-4.159650
G02 X165.814709 Y72.724605 Z-0.125000 I-4.698367 J-3.114973
G02 X165.987579 Y72.394906 Z-0.125000 I-4.434413 J-2.535243
G02 X166.118889 Y72.088024 Z-0.125000 I-3.572019 J-1.709955
G02 X166.222493 Y71.771187 Z-0.125000 I-3.380417 J-1.280731
G02 X166.287235 Y71.477422 Z-0.125000 I-2.736986 J-0.757219
G02 X166.319251 Y71.178853 Z-0.125000 I-2.595515 J-0.429314
G02 X166.315366 Y70.900221 Z-0.125000 I-2.187454 J-0.108847
G02 X166.275559 Y70.624834 Z-0.125000 I-2.105500 J0.163775
G02 X166.200587 Y70.363099 Z-0.125000 I-1.917600 J0.407678
G02 X166.090509 Y70.114111 Z-0.125000 I-1.888658 J0.686154
G02 X165.941838 Y69.872054 Z-0.125000 I-1.885209 J0.991205
G02 X165.763231 Y69.650694 Z-0.125000 I-1.890671 J1.342780
G02 X165.539685 Y69.432518 Z-0.125000 I-2.014311 J1.840272
G02 X165.293534 Y69.239379 Z-0.125000 I-2.027824 J2.330983
G02 X164.996348 Y69.049521 Z-0.125000 I-2.204133 J3.122626
G02 X164.683495 Y68.885762 Z-0.125000 I-2.195789 J3.814221
G02 X164.315783 Y68.727934 Z-0.125000 I-2.335744 J4.934604
G02 X163.937789 Y68.595475 Z-0.125000 I-2.275970 J5.889309
G02 X163.503822 Y68.472714 Z-0.125000 I-2.286397 J7.254121
G02 X163.063085 Y68.373972 Z-0.125000 I-2.145804 J8.544865
G02 X162.568424 Y68.289141 Z-0.125000 I-1.948933 J9.879858
G02 X162.065967 Y68.226640 Z-0.125000 I-1.727668 J11.838005
G02 X161.522913 Y68.183612 Z-0.125000 I-1.185820 J11.517898
G02 X160.981964 Y68.164846 Z-0.125000 I-0.720470 J12.962057
G02 X160.417795 Y68.169563 Z-0.125000 I-0.175815 J12.712868
G02 X159.855880 Y68.198429 Z-0.125000 I0.416008 J13.581653
G02 X159.278763 Y68.252285 Z-0.125000 I0.992491 J13.754688
G02 X158.704373 Y68.329789 Z-0.125000 I1.644602 J14.355527
G02 X158.119886 Y68.432820 Z-0.125000 I2.244477 J14.442011
G02 X157.539940 Y68.559075 Z-0.125000 I2.937409 J14.888033
G02 X156.955118 Y68.710733 Z-0.125000 I3.532620 J14.825841
G02 X156.376575 Y68.885137 Z-0.125000 I4.242432 J15.120004
G02 X155.798647 Y69.084134 Z-0.125000 I4.791651 J14.854693
G02 X155.228724 Y69.305399 Z-0.125000 I5.494702 J14.997594
G02 X154.665253 Y69.549686 Z-0.125000 I5.943601 J14.481456
G02 X154.111562 Y69.815786 Z-0.125000 I6.614287 J14.471853
G02 X153.570503 Y70.102490 Z-0.125000 I6.907255 J13.689043
G02 X153.041121 Y70.410572 Z-0.125000 I7.511116 J13.515345
G02 X152.530785 Y70.735912 Z-0.125000 I7.610242 J12.500529
G02 X152.034205 Y71.082180 Z-0.125000 I8.111768 J12.162217
G02 X151.563091 Y71.441378 Z-0.125000 I8.003497 J10.985723
G02 X151.108069 Y71.820979 Z-0.125000 I8.369300 J10.494676
G02 X150.684615 Y72.208208 Z-0.125000 I8.063727 J9.243226
G02 X150.280013 Y72.615100 Z-0.125000 I8.243488 J8.601713
G02 X149.912151 Y73.023558 Z-0.125000 I7.873453 J7.460786
G02 X149.567868 Y73.449684 Z-0.125000 I7.368440 J6.305384
G02 X149.260338 Y73.872605 Z-0.125000 I9.204052 J7.016069
G02 X148.972982 Y74.310948 Z-0.125000 I8.327210 J5.772253
G02 X148.721110 Y74.741797 Z-0.125000 I8.359437 J5.175941
G02 X148.491554 Y75.185899 Z-0.125000 I8.244121 J4.542760
G02 X148.299613 Y75.616103 Z-0.125000 I6.872047 J3.323961
G02 X148.134781 Y76.057477 Z-0.125000 I6.946650 J2.845715
G02 X148.009948 Y76.477829 Z-0.125000 I5.562020 J1.880480
G02 X147.917238 Y76.906281 Z-0.125000 I5.553368 J1.425906
G02 X147.865297 Y77.307633 Z-0.125000 I4.318366 J0.762896
G02 X147.851067 Y77.711678 Z-0.125000 I4.254337 J0.352115
G02 X147.876992 Y78.085150 Z-0.125000 I3.277370 J-0.039871
G02 X147.945470 Y78.452523 Z-0.125000 I3.203202 J-0.407004
G02 X148.053641 Y78.789911 Z-0.125000 I2.528324 J-0.624577
G02 X148.205883 Y79.109082 Z-0.125000 I2.463588 J-0.979218
G02 X148.400597 Y79.402466 Z-0.125000 I2.072926 J-1.164458
G02 X148.634983 Y79.664896 Z-0.125000 I2.016743 J-1.565345
G02 X148.919589 Y79.905568 Z-0.125000 I1.837523 J-1.884347
G02 X149.234009 Y80.106344 Z-0.125000 I1.753809 J-2.399921
G02 X149.608635 Y80.285279 Z-0.125000 I1.679120 J-3.033842
G02 X150.001503 Y80.421517 Z-0.125000 I1.507572 J-3.712798
G02 X150.462108 Y80.531894 Z-0.125000 I1.411369 J-4.873413
G02 X150.931353 Y80.601698 Z-0.125000 I1.088883 J-5.707743
G02 X151.470886 Y80.640550 Z-0.125000 I0.825319 J-7.695334
G02 X152.015810 Y80.643106 Z-0.125000 I0.312045 J-8.439720
G02 X152.621809 Y80.611703 Z-0.125000 I-0.345807 J-12.536119
G02 X153.224223 Y80.551204 Z-0.125000 I-0.958705 J-12.575672
G02 X153.869990 Y80.457644 Z-0.125000 I-2.041458 J-16.365953
G02 X154.509818 Y80.339048 Z-0.125000 I-2.702974 J-16.367759
G02 X155.180031 Y80.189233 Z-0.125000 I-4.063733 J-19.753566
G02 X155.844900 Y80.016671 Z-0.125000 I-4.744244 J-19.646401
G02 X156.529832 Y79.815337 Z-0.125000 I-6.385664 J-22.989604
G02 X157.208463 Y79.593461 Z-0.125000 I-6.990149 J-22.528862
G02 X157.896094 Y79.346507 Z-0.125000 I-8.690927 J-25.280215
G02 X158.576650 Y79.080658 Z-0.125000 I-9.192628 J-24.536592
G02 X159.254913 Y78.794391 Z-0.125000 I-10.646493 J-26.171729
G02 X159.925344 Y78.490354 Z-0.125000 I-11.044784 J-25.246009
G02 X160.582434 Y78.171256 Z-0.125000 I-11.976149 J-25.497506
G02 X161.230821 Y77.835025 Z-0.125000 I-12.279465 J-24.473028
G02 X161.855473 Y77.489555 Z-0.125000 I-12.516212 J-23.368250
G02 X162.470333 Y77.127185 Z-0.125000 I-12.722015 J-22.289209
G02 X163.052060 Y76.761663 Z-0.125000 I-12.280332 J-20.189801
G02 X163.622586 Y76.379140 Z-0.125000 I-12.375325 J-19.074280
G02 X164.151855 Y75.999664 Z-0.125000 I-11.380464 J-16.431587
G02 X164.668053 Y75.602836 Z-0.125000 I-11.367306 J-15.320862
G02 X165.136381 Y75.215210 Z-0.125000 I-10.001653 J-12.560691
G02 X165.589124 Y74.809757 Z-0.125000 I-9.894226 J-11.503753
G02 X165.989154 Y74.419418 Z-0.125000 I-8.373265 J-8.981279
G02 X166.369360 Y74.010972 Z-0.125000 I-7.884730 J-7.720767
G02 X166.695736 Y73.622751 Z-0.125000 I-7.521883 J-6.654912
G02 X167.000535 Y73.217365 Z-0.125000 I-6.807335 J-5.435532
G02 X167.253167 Y72.836394 Z-0.125000 I-6.213995 J-4.394927
G02 X167.481006 Y72.440057 Z-0.125000 I-5.749621 J-3.568897
G02 X167.658649 Y72.071461 Z-0.125000 I-4.652709 J-2.469442
G02 X167.805449 Y71.690066 Z-0.125000 I-4.376568 J-1.903511
G02 X167.905063 Y71.337532 Z-0.125000 I-3.528956 J-1.187495
G02 X167.967819 Y70.977250 Z-0.125000 I-3.318393 J-0.763624
G02 X167.987314 Y70.643173 Z-0.125000 I-2.750501 J-0.328111
G02 X167.965255 Y70.309846 Z-0.125000 I-2.623289 J0.006208
G02 X167.902173 Y69.995884 Z-0.125000 I-2.320112 J0.302841
G02 X167.796923 Y69.693664 Z-0.125000 I-2.260220 J0.617704
G02 X167.648155 Y69.402123 Z-0.125000 I-2.203108 J0.940473
G02 X167.462012 Y69.132542 Z-0.125000 I-2.193377 J1.315446
G02 X167.225412 Y68.867432 Z-0.125000 I-2.316354 J1.829126
G02 X166.959734 Y68.630604 Z-0.125000 I-2.328445 J2.344658
G02 X166.635707 Y68.396678 Z-0.125000 I-2.553289 J3.195360
G02 X166.291151 Y68.193073 Z-0.125000 I-2.553946 J3.928629
G02 X165.882463 Y67.994412 Z-0.125000 I-2.780616 J5.200603
G02 X165.460110 Y67.825468 Z-0.125000 I-2.738961 J6.234883
G02 X164.970906 Y67.665323 Z-0.125000 I-2.848165 J7.873220
G02 X164.472955 Y67.533356 Z-0.125000 I-2.733678 J9.309522
G02 X163.908341 Y67.414721 Z-0.125000 I-2.616141 J11.047981
G02 X163.333848 Y67.321833 Z-0.125000 I-2.457888 J13.378562
G02 X162.704567 Y67.248957 Z-0.125000 I-1.857632 J13.287175
G02 X162.073049 Y67.203671 Z-0.125000 I-1.442612 J15.691523
G02 X161.410434 Y67.185066 Z-0.125000 I-0.728389 J14.132185
G02 X160.752560 Y67.196144 Z-0.125000 I-0.073404 J15.180501
G02 X160.078142 Y67.236741 Z-0.125000 I0.601810 J15.619486
G02 X159.406134 Y67.305922 Z-0.125000 I1.323018 J16.150048
G02 X158.722437 Y67.405273 Z-0.125000 I2.037714 J16.424962
G02 X158.043368 Y67.532638 Z-0.125000 I2.808347 J16.847131
G02 X157.357517 Y67.690260 Z-0.125000 I3.545514 J16.998304
G02 X156.678392 Y67.875212 Z-0.125000 I4.347950 J17.304588
G02 X155.997796 Y68.089863 Z-0.125000 I5.053024 J17.208005
G02 X155.325966 Y68.331166 Z-0.125000 I5.875678 J17.414792
G02 X154.658604 Y68.600868 Z-0.125000 I6.469996 J16.970182
G02 X154.002094 Y68.896632 Z-0.125000 I7.296338 J17.072233
G02 X153.356726 Y69.218600 Z-0.125000 I7.689959 J16.221906
G02 X152.724443 Y69.566132 Z-0.125000 I8.489702 J16.194706
G02 X152.110630 Y69.936602 Z-0.125000 I8.628457 J14.989794
G02 X151.512380 Y70.332198 Z-0.125000 I9.354591 J14.796838
G02 X150.940331 Y70.746242 Z-0.125000 I9.217504 J13.337247
G02 X150.386654 Y71.184925 Z-0.125000 I9.809955 J12.950229
G02 X149.866878 Y71.636270 Z-0.125000 I9.435112 J11.390586
G02 X149.368678 Y72.111574 Z-0.125000 I9.839239 J10.811978
G02 X148.911501 Y72.592526 Z-0.125000 I9.274022 J9.273335
G02 X148.481482 Y73.095483 Z-0.125000 I8.967363 J8.102239
G02 X148.094519 Y73.597875 Z-0.125000 I10.417428 J8.424150
G02 X147.734110 Y74.119032 Z-0.125000 I9.253315 J6.784389
G02 X147.413615 Y74.635495 Z-0.125000 I11.563355 J7.533394
G02 X147.115969 Y75.168281 Z-0.125000 I10.991459 J6.490010
G02 X146.859149 Y75.690097 Z-0.125000 I9.121882 J4.813587
G02 X146.631953 Y76.225749 Z-0.125000 I9.443169 J4.321311
G02 X146.450011 Y76.741221 Z-0.125000 I7.526780 J2.946510
G02 X146.303420 Y77.267870 Z-0.125000 I7.667348 J2.417912
G02 X146.204693 Y77.765377 Z-0.125000 I5.931000 J1.435522
G02 X146.148006 Y78.269120 Z-0.125000 I5.927947 J0.922135
G02 X146.139584 Y78.736754 Z-0.125000 I4.506551 J0.315058
G02 X146.179928 Y79.202040 Z-0.125000 I4.425360 J-0.149322
G02 X146.267645 Y79.628462 Z-0.125000 I3.390634 J-0.475234
G02 X146.408455 Y80.039412 Z-0.125000 I3.295955 J-0.899748
G02 X146.597495 Y80.414176 Z-0.125000 I2.640879 J-1.097063
G02 X146.837866 Y80.757393 Z-0.125000 I2.556428 J-1.534600
G02 X147.132950 Y81.069937 Z-0.125000 I2.216389 J-1.797008
G02 X147.469764 Y81.336998 Z-0.125000 I2.119910 J-2.327678
G02 X147.873042 Y81.575883 Z-0.125000 I1.973741 J-2.872162
G02 X148.303743 Y81.762438 Z-0.125000 I1.801743 J-3.569239
G02 X148.812293 Y81.917669 Z-0.125000 I1.696682 J-4.647844
G02 X149.334691 Y82.021268 Z-0.125000 I1.368824 J-5.533358
G02 X149.941150 Y82.087473 Z-0.125000 I1.124012 J-7.485602
G02 X150.554151 Y82.107023 Z-0.125000 I0.573870 J-8.373601
G02 X151.246345 Y82.084483 Z-0.125000 I-0.057894 J-12.417611
G02 X151.938874 Y82.023526 Z-0.125000 I-0.768187 J-12.691723
G02 X152.690376 Y81.921082 Z-0.125000 I-2.141163 J-18.514573
G02 X153.432736 Y81.788654 Z-0.125000 I-2.828099 J-18.000641
G02 X154.214273 Y81.618193 Z-0.125000 I-4.472640 J-22.383142
G02 X154.989474 Y81.420375 Z-0.125000 I-5.236865 J-22.139855
G02 X155.791545 Y81.187544 Z-0.125000 I-7.314098 J-26.694022
G02 X156.586270 Y80.930364 Z-0.125000 I-7.973614 J-25.996125
G02 X157.394614 Y80.642715 Z-0.125000 I-10.215196 J-29.986111
G02 X158.194772 Y80.332993 Z-0.125000 I-10.743514 J-28.944046
G02 X158.994876 Y79.998527 Z-0.125000 I-12.725774 J-31.566552
G02 X159.785987 Y79.643525 Z-0.125000 I-13.139953 J-30.340961
G02 X160.563628 Y79.270286 Z-0.125000 I-14.454087 J-31.111743
G02 X161.331349 Y78.877389 Z-0.125000 I-14.778547 J-29.823804
G02 X162.073002 Y78.473235 Z-0.125000 I-15.206146 J-28.787015
G02 X162.803576 Y78.049754 Z-0.125000 I-15.425278 J-27.453061
G02 X163.496776 Y77.622211 Z-0.125000 I-15.006723 J-25.107027
G02 X164.177384 Y77.175265 Z-0.125000 I-15.093189 J-23.725512
G02 X164.810931 Y76.731487 Z-0.125000 I-14.000040 J-20.660901
G02 X165.429910 Y76.267943 Z-0.125000 I-13.946392 J-19.267895
G02 X165.993966 Y75.814699 Z-0.125000 I-12.410116 J-16.021849
G02 X166.540826 Y75.341158 Z-0.125000 I-12.243902 J-14.692177
G02 X167.026920 Y74.884775 Z-0.125000 I-10.466480 J-11.634887
G02 X167.491747 Y74.407657 Z-0.125000 I-10.023873 J-10.230646
G02 X167.893196 Y73.953850 Z-0.125000 I-8.932092 J-8.306025
G02 X168.269347 Y73.479756 Z-0.125000 I-8.068692 J-6.788055
G02 X168.583959 Y73.033993 Z-0.125000 I-7.971187 J-5.959822
G02 X168.871953 Y72.570122 Z-0.125000 I-7.199894 J-4.791387
G02 X169.101179 Y72.138649 Z-0.125000 I-5.927140 J-3.425504
G02 X169.297069 Y71.691600 Z-0.125000 I-5.533552 J-2.691164
G02 X169.437403 Y71.279128 Z-0.125000 I-4.472013 J-1.751603
G02 X169.537618 Y70.855835 Z-0.125000 I-4.172154 J-1.211276
G02 X169.586982 Y70.465384 Z-0.125000 I-3.419227 J-0.630632
G02 X169.590192 Y70.072595 Z-0.125000 I-3.216986 J-0.222696
G02 X169.546340 Y69.705959 Z-0.125000 I-2.784084 J0.147058
G02 X169.453957 Y69.348931 Z-0.125000 I-2.673343 J0.501275
G02 X169.313692 Y69.007910 Z-0.125000 I-2.531310 J0.841792
G02 X169.128570 Y68.688850 Z-0.125000 I-2.493773 J1.233676
G02 X168.888851 Y68.376885 Z-0.125000 I-2.588420 J1.740900
G02 X168.612980 Y68.095556 Z-0.125000 I-2.589230 J2.263069
G02 X168.273119 Y67.817377 Z-0.125000 I-2.844962 J3.129093
G02 X167.907168 Y67.573314 Z-0.125000 I-2.846361 J3.871475
G02 X167.469268 Y67.333184 Z-0.125000 I-3.159278 J5.241927
G02 X167.013798 Y67.126917 Z-0.125000 I-3.128321 J6.301818
G02 X166.481643 Y66.928058 Z-0.125000 I-3.365057 J8.193530
G02 X165.938097 Y66.761244 Z-0.125000 I-3.275205 J9.702982
G02 X165.316404 Y66.606486 Z-0.125000 I-3.281745 J11.857319
G02 X164.684770 Y66.481166 Z-0.125000 I-3.155245 J14.248555
G02 X163.981993 Y66.374516 Z-0.125000 I-2.650358 J15.095794
G02 X163.269122 Y66.296749 Z-0.125000 I-2.429164 J18.961485
G02 X162.513165 Y66.247368 Z-0.125000 I-1.378572 J15.292828
G02 X161.764850 Y66.233506 Z-0.125000 I-0.688386 J16.956226
G02 X160.998428 Y66.253427 Z-0.125000 I0.060292 J17.073020
G02 X160.234478 Y66.307134 Z-0.125000 I0.852724 J17.589515
G02 X159.457951 Y66.395542 Z-0.125000 I1.674186 J18.159628
G02 X158.685854 Y66.516784 Z-0.125000 I2.504804 J18.470178
G02 X157.905225 Y66.672902 Z-0.125000 I3.387389 J18.967612
G02 X157.131467 Y66.860845 Z-0.125000 I4.256131 J19.209173
G02 X156.353708 Y67.083344 Z-0.125000 I5.140460 J19.439370
G02 X155.585142 Y67.336690 Z-0.125000 I6.056088 J19.664539
G02 X154.818068 Y67.623662 Z-0.125000 I6.823188 J19.407023
G02 X154.062521 Y67.940688 Z-0.125000 I7.796716 J19.640217
G02 X153.315186 Y68.289573 Z-0.125000 I8.307076 J18.769211
G02 X152.581898 Y68.667966 Z-0.125000 I9.323072 J18.966891
G02 X151.864782 Y69.075326 Z-0.125000 I9.483794 J17.530147
G02 X151.164558 Y69.511836 Z-0.125000 I10.482487 J17.595265
G02 X150.489456 Y69.973011 Z-0.125000 I10.276086 J15.767629
G02 X149.834532 Y70.463012 Z-0.125000 I11.166995 J15.608217
G02 X149.214152 Y70.971740 Z-0.125000 I10.657897 J13.629632
G02 X148.617744 Y71.508793 Z-0.125000 I11.343686 J13.197085
G02 X148.065036 Y72.056954 Z-0.125000 I10.629076 J11.269964
G02 X147.541798 Y72.631960 Z-0.125000 I10.749442 J10.307247
G02 X147.067948 Y73.210023 Z-0.125000 I11.076933 J9.563244
G02 X146.628838 Y73.810652 Z-0.125000 I9.847529 J7.660178
G02 X146.234516 Y74.410168 Z-0.125000 I15.041464 J10.322706
G02 X145.863814 Y75.029300 Z-0.125000 I13.498439 J8.502688
G02 X145.535827 Y75.642318 Z-0.125000 I11.808044 J6.711979
G02 X145.238924 Y76.271955 Z-0.125000 I12.411042 J6.237207
G02 X144.990815 Y76.884956 Z-0.125000 I9.767384 J4.310004
G02 X144.780684 Y77.512250 Z-0.125000 I10.213696 J3.770231
G02 X144.624516 Y78.111116 Z-0.125000 I7.849356 J2.366696
G02 X144.514004 Y78.719965 Z-0.125000 I7.996156 J1.765826
G02 X144.459805 Y79.289566 Z-0.125000 I6.041713 J0.862268
G02 X144.459589 Y79.861174 Z-0.125000 I6.000957 J0.288067
G02 X144.515277 Y80.386368 Z-0.125000 I4.517265 J-0.213430
G02 X144.631960 Y80.900373 Z-0.125000 I4.398974 J-0.728356
G02 X144.803794 Y81.367146 Z-0.125000 I3.396923 J-0.985501
G02 X145.038327 Y81.804443 Z-0.125000 I3.273017 J-1.473856
G02 X145.331841 Y82.199720 Z-0.125000 I2.699767 J-1.698106
G02 X145.680503 Y82.546556 Z-0.125000 I2.577188 J-2.242089
G02 X146.099648 Y82.856674 Z-0.125000 I2.308795 J-2.682175
G02 X146.558117 Y83.105878 Z-0.125000 I2.132602 J-3.377089
G02 X147.101856 Y83.317490 Z-0.125000 I1.993823 J-4.318768
G02 X147.667162 Y83.465716 Z-0.125000 I1.670675 J-5.219554
G02 X148.328381 Y83.570043 Z-0.125000 I1.449225 J-7.037575
G02 X148.998274 Y83.615947 Z-0.125000 I0.887968 J-8.047401
G02 X149.765199 Y83.611362 Z-0.125000 I0.313849 J-11.647694
G02 X150.536609 Y83.556794 Z-0.125000 I-0.473411 J-12.172161
G02 X151.385588 Y83.451075 Z-0.125000 I-2.031741 J-19.777793
G02 X152.223887 Y83.309072 Z-0.125000 I-2.750179 J-18.780717
G02 X153.113283 Y83.121082 Z-0.125000 I-4.747548 J-24.658971
G02 X153.994471 Y82.900986 Z-0.125000 I-5.553592 J-24.108665
G02 X154.910788 Y82.639028 Z-0.125000 I-8.083512 J-30.009347
G02 X155.818722 Y82.348702 Z-0.125000 I-8.787154 J-29.044846
G02 X156.746290 Y82.021957 Z-0.125000 I-11.646645 J-34.542616
G02 X157.664580 Y81.669899 Z-0.125000 I-12.184863 J-33.156014
G02 X158.586259 Y81.288303 Z-0.125000 I-14.784311 J-37.012763
G02 X159.497824 Y80.883440 Z-0.125000 I-15.209160 J-35.472768
G02 X160.396724 Y80.456803 Z-0.125000 I-16.965150 J-36.904807
G02 X161.284521 Y80.008044 Z-0.125000 I-17.324453 J-35.376164
G02 X162.144609 Y79.545706 Z-0.125000 I-17.935764 J-34.397161
G02 X162.992335 Y79.061671 Z-0.125000 I-18.203516 J-32.865518
G02 X163.798957 Y78.572374 Z-0.125000 I-17.773272 J-30.209311
G02 X164.591592 Y78.061294 Z-0.125000 I-17.879499 J-28.599534
G02 X165.331792 Y77.553192 Z-0.125000 I-16.698365 J-25.119317
G02 X166.055922 Y77.022913 Z-0.125000 I-16.603370 J-23.432549
G02 X166.718540 Y76.503663 Z-0.125000 I-14.956907 J-19.768987
G02 X167.362392 Y75.961689 Z-0.125000 I-14.701598 J-18.118580
G02 X167.937990 Y75.438486 Z-0.125000 I-12.777517 J-14.635308
G02 X168.491036 Y74.892054 Z-0.125000 I-12.363129 J-13.065848
G02 X168.971851 Y74.371542 Z-0.125000 I-10.589595 J-10.264304
G02 X169.424445 Y73.827833 Z-0.125000 I-9.640770 J-8.485401
G02 X169.806131 Y73.315991 Z-0.125000 I-9.686453 J-7.621524
G02 X170.158715 Y72.783149 Z-0.125000 I-8.619155 J-6.086407
G02 X170.443837 Y72.287030 Z-0.125000 I-7.448773 J-4.610840
G02 X170.693672 Y71.772636 Z-0.125000 I-6.857934 J-3.648677
G02 X170.879648 Y71.298252 Z-0.125000 I-5.592729 J-2.466202
G02 X171.022927 Y70.810025 Z-0.125000 I-5.177225 J-1.784498
G02 X171.107591 Y70.361350 Z-0.125000 I-4.228724 J-1.030274
G02 X171.142472 Y69.906961 Z-0.125000 I-3.935475 J-0.530637
G02 X171.123969 Y69.486287 Z-0.125000 I-3.335136 J-0.064049
G02 X171.051482 Y69.072220 Z-0.125000 I-3.159959 J0.339808
G02 X170.926905 Y68.681076 Z-0.125000 I-2.898349 J0.707696
G02 X170.750285 Y68.310657 Z-0.125000 I-2.818438 J1.116546
G02 X170.516031 Y67.951713 Z-0.125000 I-2.850983 J1.604695
G02 X170.238124 Y67.624747 Z-0.125000 I-2.828826 J2.122792
G02 X169.892298 Y67.302361 Z-0.125000 I-3.085348 J2.962994
G02 X169.514113 Y67.017390 Z-0.125000 I-3.076859 J3.689885
G02 X169.057877 Y66.735825 Z-0.125000 I-3.461371 J5.098225
G02 X168.579578 Y66.492123 Z-0.125000 I-3.429038 J6.138753
G02 X168.016193 Y66.254379 Z-0.125000 I-3.804350 J8.228821
G02 X167.438414 Y66.052460 Z-0.125000 I-3.724154 J9.728828
G02 X166.772071 Y65.860830 Z-0.125000 I-3.907592 J12.333335
G02 X166.095610 Y65.702275 Z-0.125000 I-3.785032 J14.626188
G02 X165.332128 Y65.559793 Z-0.125000 I-3.514398 J16.714905
G02 X164.552169 Y65.446724 Z-0.125000 I-3.567384 J21.861444
G02 X163.713367 Y65.361700 Z-0.125000 I-2.109027 J16.626397
G02 X162.880885 Y65.316350 Z-0.125000 I-1.473603 J19.387122
G02 X162.025737 Y65.308476 Z-0.125000 I-0.593138 J17.978108
G02 X161.175110 Y65.340241 Z-0.125000 I0.272268 J18.696265
G02 X160.312226 Y65.411251 Z-0.125000 I1.180780 J19.626652
G02 X159.453320 Y65.520022 Z-0.125000 I2.060699 J19.717684
G02 X158.584764 Y65.668079 Z-0.125000 I3.084650 J20.717402
G02 X157.722975 Y65.852392 Z-0.125000 I3.993858 J20.780866
G02 X156.854640 Y66.075767 Z-0.125000 I5.077066 J21.535759
G02 X155.995622 Y66.333947 Z-0.125000 I6.052965 J21.697612
G02 X155.134446 Y66.630603 Z-0.125000 I7.032678 J21.813802
G02 X154.285100 Y66.960951 Z-0.125000 I8.125610 J22.148483
G02 X153.439773 Y67.328560 Z-0.125000 I8.790716 J21.370248
G02 X152.608985 Y67.729215 Z-0.125000 I10.016997 J21.832634
G02 X151.790373 Y68.164883 Z-0.125000 I10.204074 J20.160199
G02 X150.989440 Y68.633373 Z-0.125000 I11.510708 J20.597640
G02 X150.210609 Y69.133129 Z-0.125000 I11.192433 J18.299278
G02 X149.453195 Y69.665692 Z-0.125000 I12.453847 J18.516814
G02 X148.729023 Y70.223841 Z-0.125000 I11.732203 J15.970837
G02 X148.030684 Y70.814662 Z-0.125000 I12.793614 J15.829944
G02 X147.377015 Y71.423217 Z-0.125000 I11.836868 J13.369709
G02 X146.754604 Y72.063665 Z-0.125000 I12.497399 J12.768085
G02 X146.186794 Y72.712170 Z-0.125000 I11.736666 J10.849092
G02 X145.660871 Y73.387913 Z-0.125000 I10.695467 J8.866684
G02 X145.185641 Y74.066565 Z-0.125000 I17.036840 J12.435871
G02 X144.738346 Y74.768188 Z-0.125000 I14.567414 J9.780325
G02 X144.335525 Y75.469572 Z-0.125000 I15.376060 J9.297194
G02 X143.963316 Y76.190725 Z-0.125000 I15.944208 J8.685916
G02 X143.641235 Y76.901540 Z-0.125000 I12.229098 J5.969562
G02 X143.359191 Y77.629728 Z-0.125000 I13.225218 J5.541159
G02 X143.135673 Y78.333278 Z-0.125000 I10.026804 J3.572798
G02 X142.960890 Y79.050661 Z-0.125000 I10.474262 J2.931932
G02 X142.849865 Y79.728689 Z-0.125000 I7.873691 J1.637394
G02 X142.797281 Y80.413374 Z-0.125000 I7.944859 J0.954530
G02 X142.809685 Y81.046487 Z-0.125000 I5.937599 J0.200344
G02 X142.889837 Y81.673609 Z-0.125000 I5.819290 J-0.425074
G02 X143.033528 Y82.243193 Z-0.125000 I4.394172 J-0.805614
G02 X143.250295 Y82.787557 Z-0.125000 I4.223470 J-1.366459
G02 X143.531301 Y83.276853 Z-0.125000 I3.340250 J-1.592987
G02 X143.881393 Y83.717818 Z-0.125000 I3.173717 J-2.160227
G02 X144.304674 Y84.110731 Z-0.125000 I2.719699 J-2.505453
G02 X144.781588 Y84.436300 Z-0.125000 I2.526043 J-3.188216
G02 X145.348219 Y84.716415 Z-0.125000 I2.314840 J-3.969418
G02 X145.947034 Y84.921517 Z-0.125000 I1.998047 J-4.856789
G02 X146.650957 Y85.075975 Z-0.125000 I1.789047 J-6.472096
G02 X147.368149 Y85.158907 Z-0.125000 I1.236651 J-7.551927
G02 X148.197804 Y85.183044 Z-0.125000 I0.725326 J-10.660629
G02 X149.034495 Y85.144184 Z-0.125000 I-0.111537 J-11.428457
G02 X149.969240 Y85.043577 Z-0.125000 I-1.614675 J-19.394595
G02 X150.895484 Y84.897294 Z-0.125000 I-2.430929 J-18.397855
G02 X151.889033 Y84.695309 Z-0.125000 I-4.915589 J-26.724038
G02 X152.871041 Y84.456481 Z-0.125000 I-5.679190 J-25.489870
G02 X153.897991 Y84.168249 Z-0.125000 I-8.662343 J-32.836913
G02 X154.915540 Y83.847315 Z-0.125000 I-9.398544 J-31.572524
G02 X155.960304 Y83.483355 Z-0.125000 I-12.956880 J-38.874762
G02 X156.994734 Y83.090744 Z-0.125000 I-13.477058 J-37.067704
G02 X158.037373 Y82.663264 Z-0.125000 I-16.824233 J-42.520128
G02 X159.068827 Y82.209824 Z-0.125000 I-17.240836 J-40.618133
G02 X160.089482 Y81.730669 Z-0.125000 I-19.508133 J-42.881223
G02 X161.097909 Y81.227008 Z-0.125000 I-19.929240 J-41.163537
G02 X162.077688 Y80.707159 Z-0.125000 I-20.682420 J-40.164198
G02 X163.043854 Y80.163291 Z-0.125000 I-21.063095 J-38.548077
G02 X163.965604 Y79.612712 Z-0.125000 I-20.517411 J-35.396011
G02 X164.871951 Y79.037957 Z-0.125000 I-20.706621 J-33.654821
G02 X165.720758 Y78.465707 Z-0.125000 I-19.364708 J-29.638958
G02 X166.551931 Y77.868799 Z-0.125000 I-19.266818 J-27.705504
G02 X167.315294 Y77.283283 Z-0.125000 I-17.533497 J-23.649553
G02 X168.058239 Y76.672543 Z-0.125000 I-17.179670 J-21.655768
G02 X168.725897 Y76.081714 Z-0.125000 I-15.224750 J-17.877149
G02 X169.369552 Y75.465185 Z-0.125000 I-14.736329 J-16.028949
G02 X169.933075 Y74.876597 Z-0.125000 I-12.620508 J-12.647124
G02 X170.466640 Y74.262191 Z-0.125000 I-11.660546 J-10.665178
G02 X170.920153 Y73.682660 Z-0.125000 I-11.209634 J-9.239335
G02 X171.341089 Y73.079057 Z-0.125000 I-9.943313 J-7.382774
G02 X171.685747 Y72.516069 Z-0.125000 I-9.236669 J-6.041629
G02 X171.993516 Y71.932141 Z-0.125000 I-8.337607 J-4.767535
G02 X172.229291 Y71.393184 Z-0.125000 I-6.912196 J-3.344899
G02 X172.420228 Y70.837501 Z-0.125000 I-6.347119 J-2.491567
G02 X172.544740 Y70.327827 Z-0.125000 I-5.213486 J-1.543686
G02 X172.616668 Y69.809049 Z-0.125000 I-4.801672 J-0.930122
G02 X172.628576 Y69.331892 Z-0.125000 I-4.015814 J-0.338944
G02 X172.582078 Y68.857797 Z-0.125000 I-3.755881 J0.129039
G02 X172.479092 Y68.414884 Z-0.125000 I-3.338366 J0.542808
G02 X172.317506 Y67.990331 Z-0.125000 I-3.200105 J0.974935
G02 X172.095944 Y67.583631 Z-0.125000 I-3.131896 J1.442496
G02 X171.823031 Y67.209099 Z-0.125000 I-3.073193 J1.952665
G02 X171.479881 Y66.842285 Z-0.125000 I-3.293210 J2.736849
G02 X171.097381 Y66.515570 Z-0.125000 I-3.263861 J3.433880
G02 X170.632612 Y66.192734 Z-0.125000 I-3.687521 J4.812752
G02 X170.140577 Y65.911639 Z-0.125000 I-3.640890 J5.801908
G02 X169.556772 Y65.635472 Z-0.125000 I-4.145965 J8.009234
G02 X168.955118 Y65.398959 Z-0.125000 I-4.054897 J9.431544
G02 X168.255926 Y65.170930 Z-0.125000 I-4.449430 J12.457086
G02 X167.545325 Y64.979407 Z-0.125000 I-4.313860 J14.591558
G02 X166.734786 Y64.801175 Z-0.125000 I-4.342195 J17.814712
G02 X165.906581 Y64.653945 Z-0.125000 I-4.530038 J23.079464
G02 X164.999806 Y64.531817 Z-0.125000 I-2.979293 J18.693204
G02 X164.089786 Y64.449107 Z-0.125000 I-2.623447 J23.816928
G02 X163.146754 Y64.405957 Z-0.125000 I-1.306069 J18.217633
G02 X162.213869 Y64.409776 Z-0.125000 I-0.386808 J19.456449
G02 X161.270758 Y64.457681 Z-0.125000 I0.584088 J20.806662
G02 X160.330937 Y64.548510 Z-0.125000 I1.512421 J20.556798
G02 X159.381527 Y64.682968 Z-0.125000 I2.661249 J22.210300
G02 X158.438583 Y64.858144 Z-0.125000 I3.589626 J21.947716
G02 X157.487046 Y65.076532 Z-0.125000 I4.887502 J23.477482
G02 X156.544719 Y65.333468 Z-0.125000 I5.878466 J23.416149
G02 X155.596349 Y65.633210 Z-0.125000 I7.130301 J24.210111
G02 X154.659773 Y65.969845 Z-0.125000 I8.289007 J24.532592
G02 X153.722088 Y66.348623 Z-0.125000 I9.174267 J24.061371
G02 X152.798974 Y66.763425 Z-0.125000 I10.586755 J24.794706
G02 X151.882482 Y67.218945 Z-0.125000 I10.825384 J22.930045
G02 X150.983881 Y67.710404 Z-0.125000 I12.465960 J23.860458
G02 X150.102381 Y68.239741 Z-0.125000 I11.990276 J20.965952
G02 X149.242887 Y68.805434 Z-0.125000 I13.694207 J21.742296
G02 X148.413170 Y69.404060 Z-0.125000 I12.665894 J18.429719
G02 X147.610490 Y70.039495 Z-0.125000 I14.203091 J18.765971
G02 X146.851410 Y70.700262 Z-0.125000 I12.891020 J15.575415
G02 X146.125318 Y71.397782 Z-0.125000 I14.062213 J15.364939
G02 X145.456325 Y72.110204 Z-0.125000 I12.698716 J12.594911
G02 X144.832153 Y72.855759 Z-0.125000 I12.264286 J10.901595
G02 X144.266429 Y73.608350 Z-0.125000 I16.227220 J12.786969
G02 X143.740416 Y74.387410 Z-0.125000 I13.682141 J9.805144
G02 X143.262127 Y75.172011 Z-0.125000 I20.952607 J13.310666
G02 X142.811030 Y75.980065 Z-0.125000 I20.202523 J11.808039
G02 X142.408739 Y76.786687 Z-0.125000 I14.874686 J7.922162
G02 X142.047840 Y77.613630 Z-0.125000 I16.772796 J7.812289
G02 X141.747937 Y78.422961 Z-0.125000 I12.391832 J5.052106
G02 X141.499356 Y79.250017 Z-0.125000 I13.368319 J4.468888
G02 X141.320816 Y80.041090 Z-0.125000 I9.955229 J2.662520
G02 X141.204652 Y80.843633 Z-0.125000 I10.260043 J1.894767
G02 X141.162577 Y81.592647 Z-0.125000 I7.653345 J0.805609
G02 X141.194115 Y82.341353 Z-0.125000 I7.581046 J0.055673
G02 X141.298890 Y83.024253 Z-0.125000 I5.670950 J-0.520584
G02 X141.485875 Y83.687682 Z-0.125000 I5.455700 J-1.179605
G02 X141.744183 Y84.282623 Z-0.125000 I4.190561 J-1.465888
G02 X142.085055 Y84.832269 Z-0.125000 I3.960538 J-2.075667
G02 X142.501943 Y85.319785 Z-0.125000 I3.250284 J-2.357404
G02 X142.988398 Y85.736565 Z-0.125000 I3.018158 J-3.030434
G02 X143.566472 Y86.097533 Z-0.125000 I2.682456 J-3.652482
G02 X144.190385 Y86.373060 Z-0.125000 I2.363015 J-4.506709
G02 X144.925339 Y86.590448 Z-0.125000 I2.141124 J-5.887730
G02 X145.681577 Y86.722333 Z-0.125000 I1.604374 J-6.965491
G02 X146.561761 Y86.787438 Z-0.125000 I1.161340 J-9.718344
G02 X147.449599 Y86.776072 Z-0.125000 I0.307133 J-10.690723
G02 X148.456307 Y86.691924 Z-0.125000 I-0.943527 J-17.351767
G02 X149.460953 Y86.548072 Z-0.125000 I-1.913896 J-16.946525
G02 X150.553643 Y86.336607 Z-0.125000 I-4.964434 J-28.581313
G02 X151.630259 Y86.083376 Z-0.125000 I-5.589512 J-26.179140
G02 X152.763544 Y85.772296 Z-0.125000 I-9.019034 J-35.076834
G02 X153.886272 Y85.423795 Z-0.125000 I-9.774951 J-33.473609
G02 X155.045572 Y85.024876 Z-0.125000 I-14.107512 J-42.881870
G02 X156.193505 Y84.593813 Z-0.125000 I-14.573570 J-40.553865
G02 X157.356099 Y84.121902 Z-0.125000 I-18.845209 J-48.094805
G02 X158.506497 Y83.621373 Z-0.125000 I-19.211427 J-45.727188
G02 X159.649248 Y83.090732 Z-0.125000 I-22.119778 J-49.131336
G02 X160.778715 Y82.533325 Z-0.125000 I-22.615080 J-47.247681
G02 X161.879436 Y81.956822 Z-0.125000 I-23.471392 J-46.153152
G02 X162.965335 Y81.354084 Z-0.125000 I-24.042693 J-44.595140
G02 X164.003921 Y80.742973 Z-0.125000 I-23.211341 J-40.635888
G02 X165.025660 Y80.105303 Z-0.125000 I-23.591520 J-38.938068
G02 X165.984899 Y79.469437 Z-0.125000 I-21.911257 J-34.095844
G02 X166.924816 Y78.806330 Z-0.125000 I-21.886060 J-32.019928
G02 X167.790705 Y78.154648 Z-0.125000 I-20.008183 J-27.485920
G02 X168.634346 Y77.475069 Z-0.125000 I-19.570767 J-25.158953
G02 X169.395890 Y76.816069 Z-0.125000 I-17.683566 J-21.204759
G02 X170.131652 Y76.128775 Z-0.125000 I-17.005063 J-18.941711
G02 X170.780233 Y75.470776 Z-0.125000 I-14.993542 J-15.427601
G02 X171.397898 Y74.784494 Z-0.125000 I-14.054562 J-13.270433
G02 X171.926991 Y74.135431 Z-0.125000 I-12.703948 J-10.895988
G02 X172.419735 Y73.459219 Z-0.125000 I-11.338975 J-8.780145
G02 X172.827468 Y72.826925 Z-0.125000 I-11.166235 J-7.648121
G02 X173.196491 Y72.170960 Z-0.125000 I-9.901409 J-6.001968
G02 X173.485541 Y71.564285 Z-0.125000 I-8.444931 J-4.395787
G02 X173.727847 Y70.938135 Z-0.125000 I-7.681435 J-3.332500
G02 X173.896013 Y70.363917 Z-0.125000 I-6.402480 J-2.186765
G02 X174.009399 Y69.777340 Z-0.125000 I-5.838647 J-1.432871
G02 X174.055903 Y69.240193 Z-0.125000 I-4.865726 J-0.691838
G02 X174.040609 Y68.702336 Z-0.125000 I-4.492945 J-0.141386
G02 X173.964013 Y68.204792 Z-0.125000 I-3.893838 J0.344778
G02 X173.823191 Y67.722346 Z-0.125000 I-3.676196 J0.811279
G02 X173.620249 Y67.266076 Z-0.125000 I-3.465786 J1.268262
G02 X173.358400 Y66.840942 Z-0.125000 I-3.355906 J1.773764
G02 X173.025313 Y66.428789 Z-0.125000 I-3.494706 J2.483633
G02 X172.645250 Y66.058595 Z-0.125000 I-3.433043 J3.144355
G02 X172.180605 Y65.694273 Z-0.125000 I-3.852825 J4.435320
G02 X171.682664 Y65.375401 Z-0.125000 I-3.781578 J5.356987
G02 X171.088152 Y65.061308 Z-0.125000 I-4.381386 J7.573346
G02 X170.471747 Y64.790884 Z-0.125000 I-4.261894 J8.876829
G02 X169.750524 Y64.527562 Z-0.125000 I-4.872121 J12.225116
G02 X169.015383 Y64.304068 Z-0.125000 I-4.706615 J14.160686
G02 X168.170765 Y64.091646 Z-0.125000 I-5.039709 J18.253188
G02 X167.311599 Y63.913604 Z-0.125000 I-5.101250 J22.454837
G02 X166.352662 Y63.755628 Z-0.125000 I-4.068315 J21.705768
G02 X165.375962 Y63.632395 Z-0.125000 I-4.396901 J30.915990
G02 X164.349490 Y63.548187 Z-0.125000 I-2.022245 J18.352405
G02 X163.338833 Y63.518469 Z-0.125000 I-1.110182 J20.554796
G02 X162.319454 Y63.537789 Z-0.125000 I-0.103632 J21.433992
G02 X161.303819 Y63.605910 Z-0.125000 I0.897299 J20.983174
G02 X160.280392 Y63.722190 Z-0.125000 I2.139687 J23.394257
G02 X159.262986 Y63.883872 Z-0.125000 I3.077152 J22.645278
G02 X158.236012 Y64.092672 Z-0.125000 I4.592732 J25.219122
G02 X157.217994 Y64.343656 Z-0.125000 I5.555031 J24.721960
G02 X156.190341 Y64.641216 Z-0.125000 I7.140993 J26.585389
G02 X155.174212 Y64.978431 Z-0.125000 I8.297220 J26.701598
G02 X154.151327 Y65.361943 Z-0.125000 I9.506223 J26.910373
G02 X153.142659 Y65.783780 Z-0.125000 I11.047609 J27.833165
G02 X152.133786 Y66.251350 Z-0.125000 I11.406169 J25.933235
G02 X151.142457 Y66.757211 Z-0.125000 I13.378500 J27.441904
G02 X150.161325 Y67.307149 Z-0.125000 I12.721912 J23.847045
G02 X149.202085 Y67.896320 Z-0.125000 I14.935045 J25.391506
G02 X148.266866 Y68.525832 Z-0.125000 I13.489796 J21.050235
G02 X147.359117 Y69.195852 Z-0.125000 I15.612385 J22.101714
G02 X146.491530 Y69.899460 Z-0.125000 I13.800280 J17.903207
G02 X145.658231 Y70.644411 Z-0.125000 I15.525805 J18.205621
G02 X144.881825 Y71.412599 Z-0.125000 I13.708691 J14.631788
G02 X144.150380 Y72.220451 Z-0.125000 I14.224775 J13.614449
G02 X143.485404 Y73.040343 Z-0.125000 I15.029518 J12.869360
G02 X142.874802 Y73.891218 Z-0.125000 I12.854923 J9.869431
G02 X142.317201 Y74.753020 Z-0.125000 I26.888101 J18.008347
G02 X141.785056 Y75.641930 Z-0.125000 I23.131894 J14.451623
G02 X141.299284 Y76.539556 Z-0.125000 I18.154679 J10.405100
G02 X140.854336 Y77.460659 Z-0.125000 I21.046430 J10.734724
G02 X140.470139 Y78.374381 Z-0.125000 I14.869524 J6.789881
G02 X140.139279 Y79.309693 Z-0.125000 I16.711190 J6.437644
G02 X139.882945 Y80.216167 Z-0.125000 I12.210655 J3.942429
G02 X139.692529 Y81.139048 Z-0.125000 I12.936173 J3.150168
G02 X139.584736 Y82.010262 Z-0.125000 I9.625237 J1.633186
G02 X139.555836 Y82.887111 Z-0.125000 I9.682514 J0.758021
G02 X139.610744 Y83.692994 Z-0.125000 I7.241971 J-0.088612
G02 X139.755889 Y84.486036 Z-0.125000 I6.998784 J-0.871132
G02 X139.981531 Y85.198289 Z-0.125000 I5.296630 J-1.286107
G02 X140.302124 Y85.870644 Z-0.125000 I4.986239 J-1.964934
G02 X140.703078 Y86.464893 Z-0.125000 I3.949966 J-2.232745
G02 X141.190126 Y86.988445 Z-0.125000 I3.652050 J-2.909096
G02 X141.769303 Y87.442646 Z-0.125000 I3.129086 J-3.393695
G02 X142.410709 Y87.803335 Z-0.125000 I2.787932 J-4.207080
G02 X143.165666 Y88.096790 Z-0.125000 I2.513908 J-5.349553
G02 X143.953219 Y88.290776 Z-0.125000 I1.991083 J-6.387829
G02 X144.872800 Y88.410020 Z-0.125000 I1.607386 J-8.790408
G02 X145.802628 Y88.438108 Z-0.125000 I0.764492 J-9.902996
G02 X146.869240 Y88.382694 Z-0.125000 I-0.252158 J-15.146155
G02 X147.938980 Y88.251270 Z-0.125000 I-1.337619 J-15.307088
G02 X149.119424 Y88.038916 Z-0.125000 I-4.546300 J-28.659262
G02 X150.282358 Y87.777026 Z-0.125000 I-5.150634 J-25.584631
G02 X151.517850 Y87.446858 Z-0.125000 I-9.212840 J-36.951271
G02 X152.740364 Y87.074483 Z-0.125000 I-9.881839 J-34.635166
G02 X154.010746 Y86.643370 Z-0.125000 I-15.040671 J-46.408410
G02 X155.268756 Y86.176352 Z-0.125000 I-15.412488 J-43.444576
G02 X156.549782 Y85.661714 Z-0.125000 I-20.833597 J-53.710281
G02 X157.817691 Y85.115821 Z-0.125000 I-21.070229 J-50.683784
G02 X159.082677 Y84.534863 Z-0.125000 I-24.860081 J-55.798386
G02 X160.333445 Y83.925051 Z-0.125000 I-25.400263 J-53.685326
G02 X161.556420 Y83.292916 Z-0.125000 I-26.380548 J-52.536849
G02 X162.763469 Y82.632507 Z-0.125000 I-27.225042 J-51.193345
G02 X163.920797 Y81.961899 Z-0.125000 I-25.886218 J-46.008106
G02 X165.059857 Y81.262416 Z-0.125000 I-26.593621 J-44.583060
G02 X166.131489 Y80.563906 Z-0.125000 I-24.295561 J-38.444755
G02 X167.182009 Y79.835469 Z-0.125000 I-24.470040 J-36.411352
G02 X168.152109 Y79.118264 Z-0.125000 I-22.256709 J-31.119390
G02 X169.097893 Y78.370243 Z-0.125000 I-21.815521 J-28.555068
G02 X169.954697 Y77.643050 Z-0.125000 I-19.986875 J-24.417579
G02 X170.783615 Y76.884684 Z-0.125000 I-19.109881 J-21.719912
G02 X171.518586 Y76.156321 Z-0.125000 I-17.408035 J-18.300969
G02 X172.221257 Y75.397058 Z-0.125000 I-16.353204 J-15.839076
G02 X172.827989 Y74.676506 Z-0.125000 I-14.623836 J-12.929546
G02 X173.395956 Y73.926084 Z-0.125000 I-13.191112 J-10.574014
G02 X173.870703 Y73.222069 Z-0.125000 I-12.921740 J-9.225756
G02 X174.303841 Y72.491474 Z-0.125000 I-11.413286 J-7.260129
G02 X174.649050 Y71.813726 Z-0.125000 I-10.202014 J-5.623164
G02 X174.945676 Y71.113809 Z-0.125000 I-9.158117 J-4.294035
G02 X175.160653 Y70.470954 Z-0.125000 I-7.815036 J-2.970802
G02 X175.319005 Y69.812684 Z-0.125000 I-7.056712 J-2.045725
G02 X175.403549 Y69.211128 Z-0.125000 I-5.925981 J-1.139565
G02 X175.423794 Y68.605129 Z-0.125000 I-5.406256 J-0.483956
G02 X175.377461 Y68.048860 Z-0.125000 I-4.606037 J0.103591
G02 X175.262409 Y67.503822 Z-0.125000 I-4.287772 J0.620441
G02 X175.082850 Y66.994897 Z-0.125000 I-3.892510 J1.087214
G02 X174.837378 Y66.514862 Z-0.125000 I-3.715538 J1.597209
G02 X174.520527 Y66.055413 Z-0.125000 I-3.724431 J2.229511
G02 X174.148638 Y65.638739 Z-0.125000 I-3.619788 J2.856424
G02 X173.691657 Y65.231911 Z-0.125000 I-3.982521 J4.013418
G02 X173.194431 Y64.873917 Z-0.125000 I-3.879478 J4.863995
G02 X172.597818 Y64.521876 Z-0.125000 I-4.520074 J6.978716
G02 X171.974474 Y64.217767 Z-0.125000 I-4.362816 J8.151721
G02 X171.240872 Y63.920244 Z-0.125000 I-5.151053 J11.647747
G02 X170.490412 Y63.666265 Z-0.125000 I-4.928177 J13.326136
G02 X169.622672 Y63.421637 Z-0.125000 I-5.601752 J18.209093
G02 X168.742651 Y63.215109 Z-0.125000 I-5.451954 J21.252718
G02 X167.744818 Y63.023387 Z-0.125000 I-5.270239 J24.736885
G02 X166.719968 Y62.862098 Z-0.125000 I-6.424725 J37.486941
G02 X165.623958 Y62.736322 Z-0.125000 I-2.777497 J19.364862
G02 X164.540994 Y62.667948 Z-0.125000 I-2.027215 J23.497993
G02 X163.445387 Y62.652473 Z-0.125000 I-0.846213 J21.119567
G02 X162.357752 Y62.693480 Z-0.125000 I0.248203 J21.027661
G02 X161.266419 Y62.787736 Z-0.125000 I1.540385 J24.200189
G02 X160.180556 Y62.932559 Z-0.125000 I2.493035 J22.835618
G02 X159.085815 Y63.128421 Z-0.125000 I4.205291 J26.662237
G02 X157.999720 Y63.370202 Z-0.125000 I5.103724 J25.486548
G02 X156.901294 Y63.661862 Z-0.125000 I7.089509 J28.914096
G02 X155.813992 Y63.995596 Z-0.125000 I8.153645 J28.502565
G02 X154.714338 Y64.378956 Z-0.125000 I9.837827 J29.988279
G02 X153.628255 Y64.802212 Z-0.125000 I11.406398 J30.874156
G02 X152.534312 Y65.275245 Z-0.125000 I12.019191 J29.297236
G02 X151.457064 Y65.787970 Z-0.125000 I14.292831 J31.417568
G02 X150.381458 Y66.350126 Z-0.125000 I13.456653 J27.057490
G02 X149.326933 Y66.953433 Z-0.125000 I16.245193 J29.618369
G02 X148.288368 Y67.604075 Z-0.125000 I14.252393 J23.904093
G02 X147.276868 Y68.298174 Z-0.125000 I17.086830 J25.984439
G02 X146.299464 Y69.034353 Z-0.125000 I14.587740 J20.384693
G02 X145.356764 Y69.816071 Z-0.125000 I17.005974 J21.467333
G02 X144.468211 Y70.630325 Z-0.125000 I14.564974 J16.785944
G02 X143.624153 Y71.490581 Z-0.125000 I16.123402 J16.664026
G02 X142.852169 Y72.369818 Z-0.125000 I14.578650 J13.578793
G02 X142.145394 Y73.286432 Z-0.125000 I12.997200 J10.752564
G02 X141.499431 Y74.218849 Z-0.125000 I27.643384 J19.840882
G02 X140.885528 Y75.181655 Z-0.125000 I22.000066 J14.704739
G02 X140.316983 Y76.162766 Z-0.125000 I23.251475 J14.129330
G02 X139.784970 Y77.171072 Z-0.125000 I26.473703 J14.612838
G02 X139.310107 Y78.185175 Z-0.125000 I17.412115 J8.771613
G02 X138.889803 Y79.224604 Z-0.125000 I20.611601 J8.939213
G02 X138.546015 Y80.246200 Z-0.125000 I14.547307 J5.464107
G02 X138.271267 Y81.289278 Z-0.125000 I15.965155 J4.762957
G02 X138.086447 Y82.286815 Z-0.125000 I11.783216 J2.699040
G02 X137.985457 Y83.296145 Z-0.125000 I12.102353 J1.720640
G02 X137.979156 Y84.233310 Z-0.125000 I9.087636 J0.529702
G02 X138.070328 Y85.164729 Z-0.125000 I8.858769 J-0.396966
G02 X138.253074 Y86.005585 Z-0.125000 I6.689000 J-1.013456
G02 X138.541883 Y86.813543 Z-0.125000 I6.288362 J-1.792211
G02 X138.917868 Y87.526953 Z-0.125000 I4.867828 J-2.109687
G02 X139.396079 Y88.172968 Z-0.125000 I4.474004 J-2.811868
G02 X139.967159 Y88.732888 Z-0.125000 I3.695826 J-3.198298
G02 X140.618828 Y89.194474 Z-0.125000 I3.304256 J-3.974149
G02 X141.383644 Y89.577109 Z-0.125000 I2.926272 J-4.893401
G02 X142.195729 Y89.847412 Z-0.125000 I2.405267 J-5.871211
G02 X143.144322 Y90.034485 Z-0.125000 I2.055016 J-7.921827
G02 X144.109530 Y90.114557 Z-0.125000 I1.239518 J-9.084030
G02 X145.224582 Y90.101197 Z-0.125000 I0.398213 J-13.303454
G02 X146.345016 Y89.995138 Z-0.125000 I-0.748678 J-13.880444
G02 X147.598870 Y89.794215 Z-0.125000 I-3.554275 J-26.193168
G02 X148.838530 Y89.530856 Z-0.125000 I-4.363110 J-23.586926
G02 X150.171416 Y89.186126 Z-0.125000 I-9.275325 J-38.611915
G02 X151.487259 Y88.794412 Z-0.125000 I-9.696290 J-34.977594
G02 X152.864315 Y88.334555 Z-0.125000 I-15.678613 J-49.241926
G02 X154.228002 Y87.834606 Z-0.125000 I-15.922918 J-45.541964
G02 X155.625258 Y87.279292 Z-0.125000 I-22.756666 J-59.294820
G02 X157.008558 Y86.690033 Z-0.125000 I-22.744367 J-55.311248
G02 X158.395603 Y86.060057 Z-0.125000 I-27.791875 J-63.032479
G02 X159.767657 Y85.399337 Z-0.125000 I-28.298043 J-60.518844
G02 X161.114259 Y84.712684 Z-0.125000 I-29.526715 J-59.568855
G02 X162.444004 Y83.995990 Z-0.125000 I-30.721693 J-58.592514
G02 X163.722307 Y83.267127 Z-0.125000 I-28.629137 J-51.696115
G02 X164.981029 Y82.507255 Z-0.125000 I-29.841518 J-50.854749
G02 X166.167424 Y81.747492 Z-0.125000 I-26.535705 J-42.742530
G02 X167.330879 Y80.955082 Z-0.125000 I-27.082754 J-41.014529
G02 X168.407138 Y80.173628 Z-0.125000 I-24.220869 J-34.490104
G02 X169.456769 Y79.358170 Z-0.125000 I-23.896986 J-31.842672
G02 X170.410097 Y78.563502 Z-0.125000 I-21.983325 J-27.341635
G02 X171.333016 Y77.734377 Z-0.125000 I-20.962487 J-24.262061
G02 X172.155115 Y76.935370 Z-0.125000 I-19.670424 J-21.061331
G02 X172.942790 Y76.102503 Z-0.125000 I-18.334765 J-18.128803
G02 X173.628138 Y75.308899 Z-0.125000 I-16.939877 J-15.321844
G02 X174.273376 Y74.482889 Z-0.125000 I-15.414783 J-12.706277
G02 X174.818053 Y73.704782 Z-0.125000 I-14.587482 J-10.790968
G02 X175.317676 Y72.897166 Z-0.125000 I-12.966928 J-8.580207
G02 X175.721659 Y72.145034 Z-0.125000 I-12.095721 J-6.981378
G02 X176.074938 Y71.368018 Z-0.125000 I-10.731001 J-5.347782
G02 X176.339323 Y70.652174 Z-0.125000 I-9.452394 J-3.897834
G02 X176.545311 Y69.918057 Z-0.125000 I-8.446062 J-2.765864
G02 X176.670676 Y69.247019 Z-0.125000 I-7.233056 J-1.698526
G02 X176.729892 Y68.568005 Z-0.125000 I-6.524642 J-0.911097
G02 X176.716949 Y67.947827 Z-0.125000 I-5.527811 J-0.194857
G02 X176.631948 Y67.334739 Z-0.125000 I-5.078956 J0.391735
G02 X176.479539 Y66.768694 Z-0.125000 I-4.460924 J0.897573
G02 X176.255146 Y66.228245 Z-0.125000 I-4.197038 J1.425789
G02 X175.959546 Y65.718260 Z-0.125000 I-4.022879 J1.991101
G02 X175.600779 Y65.250616 Z-0.125000 I-3.862833 J2.592046
G02 X175.157934 Y64.799146 Z-0.125000 I-4.112041 J3.590562
G02 X174.666993 Y64.399309 Z-0.125000 I-3.971165 J4.374685
G02 X174.075853 Y64.008323 Z-0.125000 I-4.587665 J6.293821
G02 X173.452158 Y63.669736 Z-0.125000 I-4.390491 J7.343777
G02 X172.714676 Y63.338439 Z-0.125000 I-5.288142 J10.785143
G02 X171.956740 Y63.054998 Z-0.125000 I-4.995957 J12.204374
G02 X171.075547 Y62.780118 Z-0.125000 I-5.981281 J17.624535
G02 X170.181894 Y62.547029 Z-0.125000 I-5.641449 J19.799387
G02 X169.158646 Y62.325218 Z-0.125000 I-6.274490 J26.474092
G02 X168.109276 Y62.133839 Z-0.125000 I-7.443443 J37.841203
G02 X166.962787 Y61.971122 Z-0.125000 I-3.753331 J22.325187
G02 X165.812999 Y61.859127 Z-0.125000 I-3.633175 J31.341664
G02 X164.637521 Y61.801119 Z-0.125000 I-1.571229 J19.900602
G02 X163.479988 Y61.810448 Z-0.125000 I-0.411490 J20.759500
G02 X162.325645 Y61.879163 Z-0.125000 I0.883400 J24.570582
G02 X161.176130 Y62.004429 Z-0.125000 I1.873004 J22.524844
G02 X160.020680 Y62.185032 Z-0.125000 I3.737228 J27.696211
G02 X158.873594 Y62.415723 Z-0.125000 I4.555486 J25.618801
G02 X157.712987 Y62.699362 Z-0.125000 I6.985912 J31.101601
G02 X156.563113 Y63.027364 Z-0.125000 I7.861474 J29.739543
G02 X155.395965 Y63.407553 Z-0.125000 I10.218509 J33.351514
G02 X154.241583 Y63.828531 Z-0.125000 I11.665550 J33.781856
G02 X153.071447 Y64.302177 Z-0.125000 I12.765277 J33.218654
G02 X151.916766 Y64.815850 Z-0.125000 I15.259498 J35.856300
G02 X150.753962 Y65.383065 Z-0.125000 I14.304283 J30.799650
G02 X149.610778 Y65.992131 Z-0.125000 I17.728807 J34.653380
G02 X148.473389 Y66.654566 Z-0.125000 I15.034425 J27.121499
G02 X147.361789 Y67.362314 Z-0.125000 I18.728297 J30.641782
G02 X146.275471 Y68.120324 Z-0.125000 I15.297072 J23.079912
G02 X145.223269 Y68.927335 Z-0.125000 I18.576774 J25.310326
G02 X144.219529 Y69.776735 Z-0.125000 I15.277417 J19.071161
G02 X143.260188 Y70.677540 Z-0.125000 I17.729798 J19.843160
G02 X142.373179 Y71.607015 Z-0.125000 I14.990445 J15.193549
G02 X141.552790 Y72.582437 Z-0.125000 I14.528025 J13.051651
G02 X140.804622 Y73.577909 Z-0.125000 I22.105057 J17.392398
G02 X140.109823 Y74.607233 Z-0.125000 I17.633006 J12.651548
G02 X139.463594 Y75.662249 Z-0.125000 I33.582475 J21.295679
G02 X138.844198 Y76.748752 Z-0.125000 I33.864667 J20.025469
G02 X138.274452 Y77.856643 Z-0.125000 I20.042590 J11.007576
G02 X137.759305 Y78.993238 Z-0.125000 I25.333678 J12.167203
G02 X137.319368 Y80.126794 Z-0.125000 I16.880943 J7.203695
G02 X136.951004 Y81.286992 Z-0.125000 I19.377713 J6.791028
G02 X136.677882 Y82.412362 Z-0.125000 I14.030531 J4.000974
G02 X136.493278 Y83.555932 Z-0.125000 I14.810798 J2.977549
G02 X136.413894 Y84.630769 Z-0.125000 I11.153773 J1.364137
G02 X136.438795 Y85.707282 Z-0.125000 I11.020759 J0.283625
G02 X136.567786 Y86.687135 Z-0.125000 I8.371725 J-0.603667
G02 X136.812863 Y87.642065 Z-0.125000 I7.886101 J-1.515001
G02 X137.154747 Y88.487156 Z-0.125000 I6.047394 J-1.954797
G02 X137.613948 Y89.270817 Z-0.125000 I5.526942 J-2.712246
G02 X138.168590 Y89.949200 Z-0.125000 I4.429642 J-3.055722
G02 X138.823123 Y90.528144 Z-0.125000 I3.950745 J-3.807096
G02 X139.588673 Y91.012921 Z-0.125000 I3.407200 J-4.533724
G02 X140.419334 Y91.374738 Z-0.125000 I2.864328 J-5.441512
G02 X141.387253 Y91.643449 Z-0.125000 I2.508658 J-7.158777
G02 X142.382615 Y91.788793 Z-0.125000 I1.716853 J-8.276609
G02 X143.535262 Y91.831583 Z-0.125000 I1.018462 J-11.888509
G02 X144.693430 Y91.765801 Z-0.125000 I-0.143323 J-12.751697
G02 X146.005872 Y91.591501 Z-0.125000 I-2.267616 J-22.102940
G02 X147.311492 Y91.335691 Z-0.125000 I-3.387867 J-20.750978
G02 X148.734942 Y90.982677 Z-0.125000 I-9.108695 J-39.775171
G02 X150.136379 Y90.577320 Z-0.125000 I-9.185995 J-34.383932
G02 X151.614767 Y90.093014 Z-0.125000 I-15.940878 J-51.159558
G02 X153.078587 Y89.563864 Z-0.125000 I-16.033256 J-46.643143
G02 X154.588973 Y88.970399 Z-0.125000 I-24.516651 J-64.614263
G02 X156.084633 Y88.340135 Z-0.125000 I-24.105158 J-59.293007
G02 X157.593046 Y87.662594 Z-0.125000 I-30.979692 J-70.988112
G02 X159.085884 Y86.952612 Z-0.125000 I-31.269285 J-67.672600
G02 X160.557437 Y86.212571 Z-0.125000 I-33.069681 J-67.591237
G02 X162.011453 Y85.441089 Z-0.125000 I-34.647035 J-67.055427
G02 X163.413327 Y84.655306 Z-0.125000 I-31.592602 J-58.006130
G02 X164.794528 Y83.836707 Z-0.125000 I-33.514706 J-58.123007
G02 X166.098675 Y83.017392 Z-0.125000 I-28.722433 J-47.166621
G02 X167.378113 Y82.162815 Z-0.125000 I-29.865779 J-46.098883
G02 X168.563075 Y81.318984 Z-0.125000 I-25.894024 J-37.615957
G02 X169.718915 Y80.437760 Z-0.125000 I-25.869505 J-35.129863
G02 X170.770351 Y79.577181 Z-0.125000 I-23.572855 J-29.873374
G02 X171.788388 Y78.678392 Z-0.125000 I-22.529380 J-26.544430
G02 X172.698137 Y77.809396 Z-0.125000 I-21.576209 J-23.498786
G02 X173.570557 Y76.903044 Z-0.125000 I-19.917235 J-20.044636
G02 X174.334554 Y76.035618 Z-0.125000 I-19.348572 J-17.811669
G02 X175.056950 Y75.133023 Z-0.125000 I-17.579526 J-14.810231
G02 X175.672682 Y74.278658 Z-0.125000 I-16.553288 J-12.578848
G02 X176.240766 Y73.392141 Z-0.125000 I-14.860115 J-10.147696
G02 X176.706220 Y72.562604 Z-0.125000 I-13.921087 J-8.356496
G02 X177.118031 Y71.705403 Z-0.125000 I-12.332053 J-6.452004
G02 X177.433937 Y70.912297 Z-0.125000 I-11.287954 J-4.955630
G02 X177.689478 Y70.098169 Z-0.125000 I-9.974586 J-3.578023
G02 X177.857828 Y69.352238 Z-0.125000 I-8.811985 J-2.380753
G02 X177.958537 Y68.595093 Z-0.125000 I-7.858199 J-1.430502
G02 X177.981394 Y67.904991 Z-0.125000 I-6.709489 J-0.567651
G02 X177.929938 Y67.217862 Z-0.125000 I-6.089878 J0.110556
G02 X177.807574 Y66.588960 Z-0.125000 I-5.224508 J0.690166
G02 X177.608424 Y65.981559 Z-0.125000 I-4.850128 J1.253874
G02 X177.338021 Y65.416394 Z-0.125000 I-4.437416 J1.775810
G02 X176.996733 Y64.891754 Z-0.125000 I-4.207234 J2.363557
G02 X176.573482 Y64.392220 Z-0.125000 I-4.282015 J3.199037
G02 X176.093551 Y63.946158 Z-0.125000 I-4.097432 J3.927331
G02 X175.514557 Y63.513955 Z-0.125000 I-4.621390 J5.587048
G02 X174.896023 Y63.138621 Z-0.125000 I-4.387495 J6.533071
G02 X174.162144 Y62.772813 Z-0.125000 I-5.305851 J9.725482
G02 X173.403297 Y62.459832 Z-0.125000 I-4.951610 J10.929104
G02 X172.517046 Y62.155896 Z-0.125000 I-6.155317 J16.504294
G02 X171.615892 Y61.897624 Z-0.125000 I-5.685528 J18.136479
G02 X170.578841 Y61.649500 Z-0.125000 I-6.843458 J26.311426
G02 X169.523385 Y61.436520 Z-0.125000 I-7.134164 J32.632832
G02 X168.344527 Y61.243706 Z-0.125000 I-5.207535 J28.138496
G02 X167.139794 Y61.087521 Z-0.125000 I-6.936763 J48.782163
G02 X165.887316 Y60.982375 Z-0.125000 I-2.226427 J19.008565
G02 X164.662032 Y60.955246 Z-0.125000 I-1.083976 J21.274349
G02 X163.445783 Y60.994096 Z-0.125000 I0.159559 J24.052749
G02 X162.235758 Y61.097254 Z-0.125000 I1.248466 J21.792474
G02 X161.025526 Y61.260904 Z-0.125000 I3.193397 J28.172801
G02 X159.823466 Y61.479663 Z-0.125000 I3.942595 J25.076237
G02 X158.608809 Y61.754584 Z-0.125000 I6.821368 J32.958866
G02 X157.404613 Y62.076383 Z-0.125000 I7.425014 J30.198955
G02 X156.179548 Y62.452385 Z-0.125000 I10.694487 J37.027819
G02 X154.966450 Y62.869575 Z-0.125000 I11.797543 J36.277013
G02 X153.730142 Y63.341172 Z-0.125000 I13.785328 J37.995009
G02 X152.507812 Y63.852027 Z-0.125000 I16.321441 J40.770271
G02 X151.267004 Y64.419009 Z-0.125000 I15.431769 J35.412797
G02 X150.043818 Y65.027105 Z-0.125000 I19.545221 J40.849531
G02 X148.814579 Y65.693114 Z-0.125000 I15.958949 J30.922498
G02 X147.609007 Y66.404844 Z-0.125000 I20.719885 J36.473478
G02 X146.417256 Y67.174062 Z-0.125000 I15.996294 J26.090923
G02 X145.257958 Y67.994601 Z-0.125000 I20.357893 J29.991829
G02 X144.138215 Y68.867353 Z-0.125000 I15.879315 J21.527908
G02 X143.062315 Y69.795998 Z-0.125000 I19.248853 J23.388726
G02 X142.054396 Y70.764672 Z-0.125000 I15.627438 J17.269263
G02 X141.109242 Y71.788383 Z-0.125000 I16.747987 J16.410954
G02 X140.247752 Y72.837707 Z-0.125000 I18.043588 J15.692018
G02 X139.464773 Y73.926638 Z-0.125000 I14.881238 J11.526079
G02 X138.737745 Y75.046776 Z-0.125000 I46.137443 J30.741613
G02 X138.032068 Y76.201928 Z-0.125000 I37.464270 J23.679872
G02 X137.368033 Y77.393741 Z-0.125000 I23.697216 J13.984121
G02 X136.755008 Y78.617894 Z-0.125000 I31.462993 J16.521446
G02 X136.211747 Y79.857218 Z-0.125000 I19.160569 J9.137819
G02 X135.741662 Y81.128299 Z-0.125000 I23.285223 J9.334061
G02 X135.369257 Y82.379983 Z-0.125000 I16.260935 J5.519255
G02 X135.089734 Y83.656575 Z-0.125000 I17.786136 J4.563355
G02 X134.924845 Y84.873066 Z-0.125000 I13.352630 J2.429301
G02 X134.870881 Y86.098980 Z-0.125000 I13.438087 J1.205679
G02 X134.934396 Y87.226807 Z-0.125000 I10.319882 J-0.015477
G02 X135.123293 Y88.338253 Z-0.125000 I9.775522 J-1.089634
G02 X135.421335 Y89.327268 Z-0.125000 I7.517673 J-1.726050
G02 X135.850510 Y90.262719 Z-0.125000 I6.844241 J-2.573894
G02 X136.380705 Y91.072677 Z-0.125000 I5.379110 J-2.942628
G02 X137.030019 Y91.785728 Z-0.125000 I4.770327 J-3.691766
G02 X137.788186 Y92.385594 Z-0.125000 I3.994601 J-4.269700
G02 X138.631819 Y92.855061 Z-0.125000 I3.395239 J-5.108504
G02 X139.610141 Y93.219035 Z-0.125000 I2.982691 J-6.520349
G02 X140.630547 Y93.443911 Z-0.125000 I2.200802 J-7.558903
G02 X141.811654 Y93.557030 Z-0.125000 I1.617508 J-10.666185
G02 X143.001576 Y93.544660 Z-0.125000 I0.473456 J-11.694596
G02 X144.361457 Y93.411390 Z-0.125000 I-1.148049 J-18.719337
G02 X145.719181 Y93.176322 Z-0.125000 I-2.470989 J-18.310710
G02 X147.219358 Y92.827273 Z-0.125000 I-8.030378 J-37.912020
G02 X148.696431 Y92.415959 Z-0.125000 I-8.160161 J-32.161895
G02 X150.270738 Y91.912083 Z-0.125000 I-15.931643 J-52.487980
G02 X151.827890 Y91.358396 Z-0.125000 I-15.694510 J-46.604660
G02 X153.447194 Y90.730002 Z-0.125000 I-25.961247 J-69.300029
G02 X155.051024 Y90.061603 Z-0.125000 I-25.000897 J-62.248279
G02 X156.679356 Y89.338185 Z-0.125000 I-34.427595 J-79.686861
G02 X158.291706 Y88.580772 Z-0.125000 I-34.185356 J-74.867246
G02 X159.889277 Y87.788451 Z-0.125000 I-37.216168 J-77.046391
G02 X161.468938 Y86.963726 Z-0.125000 I-39.108833 J-76.833436
G02 X162.997278 Y86.122313 Z-0.125000 I-35.008403 J-65.397938
G02 X164.504173 Y85.246756 Z-0.125000 I-37.851333 J-66.879265
G02 X165.929771 Y84.369737 Z-0.125000 I-31.015673 J-52.013252
G02 X167.329102 Y83.455133 Z-0.125000 I-33.006500 J-52.027272
G02 X168.626202 Y82.551279 Z-0.125000 I-27.376780 J-40.670440
G02 X169.891634 Y81.606559 Z-0.125000 I-27.854768 J-38.630713
G02 X171.043491 Y80.682468 Z-0.125000 I-24.748486 J-32.028326
G02 X172.158544 Y79.715956 Z-0.125000 I-23.852155 J-28.644426
G02 X173.156741 Y78.778712 Z-0.125000 I-22.973034 J-25.467231
G02 X174.113940 Y77.799936 Z-0.125000 I-21.108095 J-21.600201
G02 X174.956057 Y76.859032 Z-0.125000 I-21.420654 J-20.018970
G02 X175.753824 Y75.879585 Z-0.125000 I-19.193846 J-16.448153
G02 X176.439955 Y74.947428 Z-0.125000 I-19.064920 J-14.751667
G02 X177.077354 Y73.980741 Z-0.125000 I-17.199533 J-12.034252
G02 X177.606363 Y73.071164 Z-0.125000 I-15.651272 J-9.711394
G02 X178.078219 Y72.131216 Z-0.125000 I-14.016311 J-7.624619
G02 X178.447505 Y71.256966 Z-0.125000 I-13.213157 J-6.096396
G02 X178.753894 Y70.358955 Z-0.125000 I-11.578975 J-4.451858
G02 X178.966807 Y69.532761 Z-0.125000 I-10.664975 J-3.188937
G02 X179.110641 Y68.692391 Z-0.125000 I-9.391875 J-2.039972
G02 X179.171036 Y67.925872 Z-0.125000 I-8.203232 J-1.031975
G02 X179.155686 Y67.158466 Z-0.125000 I-7.362607 J-0.236589
G02 X179.065515 Y66.459910 Z-0.125000 I-6.247810 J0.451384
G02 X178.895161 Y65.778333 Z-0.125000 I-5.732523 J1.070714
G02 X178.652924 Y65.151941 Z-0.125000 I-5.022786 J1.582365
G02 X178.333036 Y64.562912 Z-0.125000 I-4.705473 J2.174056
G02 X177.933822 Y64.010501 Z-0.125000 I-4.538698 J2.859552
G02 X177.468995 Y63.512058 Z-0.125000 I-4.302125 J3.546019
G02 X176.908018 Y63.034957 Z-0.125000 I-4.665611 J4.917494
G02 X176.299292 Y62.618823 Z-0.125000 I-4.398214 J5.780478
G02 X175.575684 Y62.216250 Z-0.125000 I-5.248947 J8.583133
G02 X174.821417 Y61.872075 Z-0.125000 I-4.850105 J9.630527
G02 X173.937388 Y61.538901 Z-0.125000 I-6.143155 J14.960583
G02 X173.035265 Y61.256315 Z-0.125000 I-5.561959 J16.174615
G02 X171.992769 Y60.984185 Z-0.125000 I-7.129627 J25.179799
G02 X170.937166 Y60.752698 Z-0.125000 I-6.660292 J27.849010
G02 X169.738334 Y60.534661 Z-0.125000 I-6.975323 J34.947622
G02 X168.501380 Y60.342759 Z-0.125000 I-11.406265 J69.439539
G02 X167.189254 Y60.195140 Z-0.125000 I-2.892775 J19.807445
G02 X165.899854 Y60.126653 Z-0.125000 I-1.962500 J24.775770
G02 X164.616923 Y60.128992 Z-0.125000 I-0.601024 J22.183949
G02 X163.347433 Y60.206963 Z-0.125000 I0.638348 J20.766718
G02 X162.086774 Y60.351993 Z-0.125000 I2.580181 J27.979684
G02 X160.834211 Y60.558512 Z-0.125000 I3.301176 J23.923702
G02 X159.572598 Y60.825046 Z-0.125000 I6.568303 J34.209607
G02 X158.321431 Y61.141690 Z-0.125000 I6.854813 J29.715859
G02 X157.047730 Y61.514393 Z-0.125000 I11.284298 J40.926516
G02 X155.785356 Y61.928543 Z-0.125000 I11.759668 J37.975747
G02 X154.493480 Y62.397862 Z-0.125000 I15.270557 J44.047355
G02 X153.214032 Y62.904704 Z-0.125000 I17.500751 J46.046363
G02 X151.905940 Y63.468608 Z-0.125000 I17.108221 J41.485191
G02 X150.613079 Y64.071323 Z-0.125000 I21.930500 J48.730338
G02 X149.301295 Y64.734561 Z-0.125000 I17.230540 J35.708222
G02 X148.010319 Y65.442147 Z-0.125000 I23.368705 J44.167234
G02 X146.719404 Y66.212797 Z-0.125000 I16.802762 J29.612798
G02 X145.458218 Y67.035500 Z-0.125000 I22.564822 J35.969423
G02 X144.224376 Y67.919482 Z-0.125000 I16.419216 J24.220657
G02 X143.032536 Y68.862773 Z-0.125000 I20.943398 J27.686380
G02 X141.900628 Y69.857965 Z-0.125000 I16.121891 J19.477954
G02 X140.827151 Y70.916173 Z-0.125000 I18.902754 J20.249098
G02 X139.843821 Y72.008768 Z-0.125000 I16.292165 J15.651659
G02 X138.955194 Y73.150302 Z-0.125000 I14.253970 J12.012641
G02 X138.134136 Y74.327206 Z-0.125000 I43.153968 J30.980909
G02 X137.344837 Y75.541642 Z-0.125000 I31.054574 J21.047016
G02 X136.593265 Y76.804896 Z-0.125000 I30.698944 J19.119511
G02 X135.882440 Y78.104697 Z-0.125000 I40.415245 J22.946243
G02 X135.230941 Y79.440630 Z-0.125000 I21.381817 J11.254182
G02 X134.652792 Y80.813112 Z-0.125000 I27.952738 J12.582901
G02 X134.170868 Y82.186221 Z-0.125000 I18.382568 J7.222919
G02 X133.785608 Y83.591270 Z-0.125000 I21.042061 J6.525006
G02 X133.522369 Y84.950457 Z-0.125000 I15.574481 J3.721448
G02 X133.376635 Y86.327258 Z-0.125000 I16.075834 J2.397737
G02 X133.361889 Y87.610058 Z-0.125000 I12.470130 J0.784832
G02 X133.481536 Y88.885457 Z-0.125000 I11.928963 J-0.475758
G02 X133.724958 Y90.029881 Z-0.125000 I9.284883 J-1.376818
G02 X134.112227 Y91.129846 Z-0.125000 I8.442652 J-2.354285
G02 X134.609687 Y92.084776 Z-0.125000 I6.589254 J-2.825555
G02 X135.244661 Y92.948466 Z-0.125000 I5.804987 J-3.602496
G02 X135.988066 Y93.676608 Z-0.125000 I4.733103 J-4.088755
G02 X136.838873 Y94.270725 Z-0.125000 I4.032996 J-4.869197
G02 X137.819467 Y94.743338 Z-0.125000 I3.501676 J-6.011823
G02 X138.860389 Y95.062836 Z-0.125000 I2.704954 J-6.957300
G02 X140.061649 Y95.260386 Z-0.125000 I2.196430 J-9.604971
G02 X141.279834 Y95.314361 Z-0.125000 I1.082936 J-10.667408
G02 X142.677425 Y95.236520 Z-0.125000 I-0.205253 J-16.270731
G02 X144.074122 Y95.037797 Z-0.125000 I-1.628891 J-16.455990
G02 X145.635760 Y94.708627 Z-0.125000 I-6.150044 J-33.045782
G02 X147.177620 Y94.300805 Z-0.125000 I-6.753237 J-28.650672
G02 X148.841151 Y93.783669 Z-0.125000 I-15.611500 J-53.153476
G02 X150.483528 Y93.211327 Z-0.125000 I-14.898081 J-45.393758
G02 X152.206247 Y92.552223 Z-0.125000 I-26.863239 J-72.794139
G02 X153.912700 Y91.849275 Z-0.125000 I-25.269374 J-63.765825
G02 X155.658450 Y91.082080 Z-0.125000 I-38.065388 J-88.987553
G02 X157.387965 Y90.279333 Z-0.125000 I-36.831530 J-81.617822
G02 X159.112081 Y89.435834 Z-0.125000 I-42.187663 J-88.415629
G02 X160.818249 Y88.559422 Z-0.125000 I-44.171379 J-88.090255
G02 X162.476034 Y87.663509 Z-0.125000 I-39.143203 J-74.411762
G02 X164.112037 Y86.732752 Z-0.125000 I-43.160526 J-77.766961
G02 X165.663463 Y85.799837 Z-0.125000 I-33.622952 J-57.670985
G02 X167.187450 Y84.827513 Z-0.125000 I-36.783966 J-59.334419
G02 X168.601194 Y83.866259 Z-0.125000 I-28.809222 J-43.890796
G02 X169.980860 Y82.860794 Z-0.125000 I-30.030856 J-42.656664
G02 X171.236581 Y81.876293 Z-0.125000 I-25.586624 J-33.928553
G02 X172.451809 Y80.844794 Z-0.125000 I-25.035279 J-30.726112
G02 X173.540051 Y79.842142 Z-0.125000 I-23.820880 J-26.946214
G02 X174.582842 Y78.793037 Z-0.125000 I-21.933753 J-22.844546
G02 X175.502659 Y77.780316 Z-0.125000 I-22.911555 J-21.733792
G02 X176.374011 Y76.724865 Z-0.125000 I-20.206782 J-17.569604
G02 X177.128921 Y75.714579 Z-0.125000 I-21.715406 J-17.013439
G02 X177.833860 Y74.667072 Z-0.125000 I-19.403377 J-13.818832
G02 X178.426251 Y73.675239 Z-0.125000 I-17.772027 J-11.287486
G02 X178.959287 Y72.650812 Z-0.125000 I-16.150550 J-9.054455
G02 X179.383985 Y71.692187 Z-0.125000 I-14.976907 J-7.208581
G02 X179.742069 Y70.707013 Z-0.125000 I-13.173956 J-5.346032
G02 X180.000609 Y69.795595 Z-0.125000 I-12.758141 J-4.111460
G02 X180.188357 Y68.867237 Z-0.125000 I-11.079109 J-2.723766
G02 X180.287335 Y68.017737 Z-0.125000 I-10.049424 J-1.601406
G02 X180.309676 Y67.163876 Z-0.125000 I-8.914041 J-0.660455
G02 X180.253067 Y66.388176 Z-0.125000 I-7.595334 J0.164383
G02 X180.114292 Y65.624878 Z-0.125000 I-6.903653 J0.860885
G02 X179.902288 Y64.929945 Z-0.125000 I-5.844858 J1.403295
G02 X179.607320 Y64.268122 Z-0.125000 I-5.419438 J2.018742
G02 X179.235557 Y63.656613 Z-0.125000 I-4.935139 J2.581527
G02 X178.789496 Y63.097930 Z-0.125000 I-4.634154 J3.242561
G02 X178.251594 Y62.570831 Z-0.125000 I-4.766885 J4.326574
G02 X177.656668 Y62.107902 Z-0.125000 I-4.465660 J5.125235
G02 X176.949380 Y61.664660 Z-0.125000 I-5.169947 J7.463832
G02 X176.204321 Y61.285713 Z-0.125000 I-4.744848 J8.407065
G02 X175.328973 Y60.921338 Z-0.125000 I-5.996919 J13.172945
G02 X174.431289 Y60.613573 Z-0.125000 I-5.347638 J14.134859
G02 X173.390403 Y60.318195 Z-0.125000 I-7.119675 J23.107384
G02 X172.337281 Y60.069016 Z-0.125000 I-6.241539 J24.028985
G02 X171.130832 Y59.830873 Z-0.125000 I-8.209183 J38.413232
G02 X169.889894 Y59.618371 Z-0.125000 I-11.647036 J64.285251
G02 X168.541178 Y59.439623 Z-0.125000 I-3.843050 J23.819504
G02 X167.191051 Y59.324107 Z-0.125000 I-3.845135 J36.993379
G02 X165.832002 Y59.280117 Z-0.125000 I-1.311745 J19.509924
G02 X164.501666 Y59.328506 Z-0.125000 I0.046519 J19.589925
G02 X163.192990 Y59.452564 Z-0.125000 I1.911291 J27.126725
G02 X161.892416 Y59.646381 Z-0.125000 I2.661617 J22.320837
G02 X160.589449 Y59.905265 Z-0.125000 I6.179793 J34.511309
G02 X159.297239 Y60.218825 Z-0.125000 I6.177173 J28.276170
G02 X157.983272 Y60.590676 Z-0.125000 I11.937823 J44.690803
G02 X156.680316 Y61.004606 Z-0.125000 I11.483218 J38.404184
G02 X155.343384 Y61.473885 Z-0.125000 I17.490434 J51.967539
G02 X154.017440 Y61.978279 Z-0.125000 I18.732716 J51.239367
G02 X152.653705 Y62.539126 Z-0.125000 I19.827381 J50.149993
G02 X151.302612 Y63.134945 Z-0.125000 I25.254973 J59.098535
G02 X149.919570 Y63.791677 Z-0.125000 I19.209520 J42.238832
G02 X148.553896 Y64.489349 Z-0.125000 I27.272211 J55.070163
G02 X147.172897 Y65.253364 Z-0.125000 I17.900370 J33.986019
G02 X145.817906 Y66.068117 Z-0.125000 I25.591749 J44.094950
G02 X144.474986 Y66.951598 Z-0.125000 I16.983521 J27.277888
G02 X143.170885 Y67.896214 Z-0.125000 I23.002089 J33.128301
G02 X141.914675 Y68.904318 Z-0.125000 I16.500448 J21.848147
G02 X140.713826 Y69.981180 Z-0.125000 I20.646008 J24.231132
G02 X139.599997 Y71.105313 Z-0.125000 I16.140604 J17.106529
G02 X138.579418 Y72.291038 Z-0.125000 I15.743377 J14.582740
G02 X137.643636 Y73.515283 Z-0.125000 I27.882112 J22.282155
G02 X136.775338 Y74.780397 Z-0.125000 I20.965799 J15.320182
G02 X135.949172 Y76.101494 Z-0.125000 I50.054322 J32.221022
G02 X135.144484 Y77.463479 Z-0.125000 I55.745750 J33.854452
G02 X134.383100 Y78.884166 Z-0.125000 I23.658135 J13.593373
G02 X133.693100 Y80.345451 Z-0.125000 I33.984725 J16.940719
G02 X133.092845 Y81.831542 Z-0.125000 I20.334125 J9.077527
G02 X132.591995 Y83.356804 Z-0.125000 I24.660407 J8.942606
G02 X132.217436 Y84.856273 Z-0.125000 I17.701253 J5.218192
G02 X131.966798 Y86.382143 Z-0.125000 I18.893270 J3.886909
G02 X131.859947 Y87.824349 Z-0.125000 I14.724271 J1.815961
G02 X131.896518 Y89.268632 Z-0.125000 I14.298061 J0.360559
G02 X132.073219 Y90.578669 Z-0.125000 I11.324483 J-0.860542
G02 X132.405766 Y91.854130 Z-0.125000 I10.316688 J-2.008757
G02 X132.861356 Y92.967446 Z-0.125000 I8.095571 J-2.662985
G02 X133.471661 Y93.997609 Z-0.125000 I7.089570 J-3.504244
G02 X134.193212 Y94.867708 Z-0.125000 I5.672301 J-3.969665
G02 X135.044633 Y95.604135 Z-0.125000 I4.818319 J-4.710302
G02 X136.020141 Y96.198669 Z-0.125000 I4.099210 J-5.628399
G02 X137.077417 Y96.628802 Z-0.125000 I3.251031 J-6.476621
G02 X138.291031 Y96.924668 Z-0.125000 I2.765505 J-8.706834
G02 X139.534705 Y97.058394 Z-0.125000 I1.671887 J-9.698806
G02 X140.961279 Y97.050422 Z-0.125000 I0.632191 J-14.516232
G02 X142.387031 Y96.904156 Z-0.125000 I-0.824579 J-15.059687
G02 X143.996335 Y96.612281 Z-0.125000 I-4.115268 J-27.272757
G02 X145.591727 Y96.219401 Z-0.125000 I-5.266195 J-24.820476
G02 X147.335322 Y95.698032 Z-0.125000 I-14.719458 J-52.402011
G02 X149.053447 Y95.114532 Z-0.125000 I-13.640879 J-42.987018
G02 X150.872805 Y94.430204 Z-0.125000 I-27.006531 J-74.560302
G02 X152.674828 Y93.697285 Z-0.125000 I-24.794554 J-63.543971
G02 X154.534189 Y92.889074 Z-0.125000 I-41.665202 J-98.397442
G02 X156.377144 Y92.043530 Z-0.125000 I-38.865472 J-87.142782
G02 X158.227445 Y91.150057 Z-0.125000 I-48.238864 J-102.260908
G02 X160.060094 Y90.223547 Z-0.125000 I-49.764925 J-100.711476
G02 X161.850086 Y89.274042 Z-0.125000 I-44.371597 J-85.810590
G02 X163.618467 Y88.289738 Z-0.125000 I-49.806192 J-91.561515
G02 X165.300621 Y87.302496 Z-0.125000 I-36.808391 J-64.644285
G02 X166.954711 Y86.274763 Z-0.125000 I-41.564582 J-68.741266
G02 X168.490717 Y85.258765 Z-0.125000 I-30.376350 J-47.592624
G02 X169.990616 Y84.195596 Z-0.125000 I-32.616726 J-47.604666
G02 X171.355050 Y83.154253 Z-0.125000 I-26.232542 J-35.786124
G02 X172.675257 Y82.061152 Z-0.125000 I-26.220829 J-33.012325
G02 X173.856429 Y80.996912 Z-0.125000 I-24.189375 J-28.034752
G02 X174.987029 Y79.880568 Z-0.125000 I-22.483428 J-23.901232
G02 X175.984861 Y78.799082 Z-0.125000 I-23.700609 J-22.868429
G02 X176.928888 Y77.669691 Z-0.125000 I-20.743634 J-18.298261
G02 X177.750479 Y76.582477 Z-0.125000 I-23.751668 J-18.802825
G02 X178.518537 Y75.454419 Z-0.125000 I-20.606621 J-14.855888
G02 X179.171488 Y74.378908 Z-0.125000 I-20.943796 J-13.451097
G02 X179.766071 Y73.269259 Z-0.125000 I-19.198478 J-11.001235
G02 X180.248148 Y72.223760 Z-0.125000 I-16.399698 J-8.195752
G02 X180.658488 Y71.149000 Z-0.125000 I-14.746826 J-6.245999
G02 X180.963408 Y70.148176 Z-0.125000 I-14.980500 J-5.110964
G02 X181.195141 Y69.127719 Z-0.125000 I-12.833675 J-3.450897
G02 X181.333063 Y68.189031 Z-0.125000 I-12.265857 J-2.281707
G02 X181.393608 Y67.242904 Z-0.125000 I-10.726637 J-1.161427
G02 X181.371155 Y66.382308 Z-0.125000 I-9.350696 J-0.186629
G02 X181.265747 Y65.529803 Z-0.125000 I-8.419780 J0.608295
G02 X181.085175 Y64.758072 Z-0.125000 I-6.982484 J1.226792
G02 X180.818114 Y64.014483 Z-0.125000 I-6.424746 J1.887705
G02 X180.476187 Y63.336314 Z-0.125000 I-5.532297 J2.364054
G02 X180.052249 Y62.708104 Z-0.125000 I-5.153177 J3.020392
G02 X179.541600 Y62.124540 Z-0.125000 I-4.975273 J3.838418
G02 X178.963983 Y61.606885 Z-0.125000 I-4.634697 J4.590462
G02 X178.278537 Y61.117474 Z-0.125000 I-5.121944 J6.448848
G02 X177.546671 Y60.698086 Z-0.125000 I-4.682444 J7.322960
G02 X176.685927 Y60.298563 Z-0.125000 I-5.790296 J11.347827
G02 X175.797234 Y59.962653 Z-0.125000 I-5.116721 J12.193439
G02 X174.764046 Y59.642691 Z-0.125000 I-6.880761 J20.390464
G02 X173.715791 Y59.374831 Z-0.125000 I-5.878054 J20.818380
G02 X172.511474 Y59.119912 Z-0.125000 I-8.291991 J36.201690
G02 X171.285636 Y58.899129 Z-0.125000 I-8.599113 J44.230949
G02 X169.920320 Y58.700997 Z-0.125000 I-5.571039 J33.586476
G02 X168.521854 Y58.539506 Z-0.125000 I-9.790988 J78.650855
G02 X167.087252 Y58.444672 Z-0.125000 I-1.899745 J17.840089
G02 X165.694971 Y58.457886 Z-0.125000 I-0.509628 J19.658775
G02 X164.335465 Y58.556154 Z-0.125000 I1.122350 J24.980575
G02 X162.987066 Y58.735821 Z-0.125000 I2.043909 J20.489185
G02 X161.646450 Y58.987414 Z-0.125000 I5.615867 J33.621822
G02 X160.317318 Y59.300275 Z-0.125000 I5.431382 J26.053951
G02 X158.970007 Y59.674665 Z-0.125000 I12.501509 J47.600299
G02 X157.633862 Y60.092819 Z-0.125000 I10.913723 J37.216924
G02 X156.261604 Y60.566501 Z-0.125000 I20.788747 J62.449680
G02 X154.899189 Y61.072721 Z-0.125000 I19.820650 J55.430743
G02 X153.491644 Y61.633588 Z-0.125000 I24.580011 J63.732299
G02 X152.094148 Y62.224263 Z-0.125000 I30.022155 J72.978873
G02 X150.652521 Y62.873979 Z-0.125000 I22.622499 J52.120309
G02 X149.224436 Y63.559077 Z-0.125000 I33.663403 J72.002191
G02 X147.764973 Y64.310996 Z-0.125000 I19.624658 J39.883562
G02 X146.326964 Y65.109880 Z-0.125000 I30.268803 J56.178202
G02 X144.883286 Y65.982446 Z-0.125000 I17.706998 J30.927154
G02 X143.473944 Y66.915796 Z-0.125000 I25.772527 J40.446754
G02 X142.096459 Y67.922953 Z-0.125000 I16.814475 J24.442659
G02 X140.770982 Y69.002617 Z-0.125000 I22.346567 J28.787803
G02 X139.522024 Y70.144146 Z-0.125000 I16.415689 J19.214573
G02 X138.356000 Y71.359800 Z-0.125000 I18.250725 J18.672672
G02 X137.291185 Y72.619640 Z-0.125000 I20.046017 J18.022773
G02 X136.334112 Y73.928426 Z-0.125000 I15.997750 J12.702969
G02 X135.430431 Y75.296987 Z-0.125000 I83.862387 J56.358209
G02 X134.537181 Y76.708656 Z-0.125000 I61.930492 J40.175697
G02 X133.671896 Y78.198740 Z-0.125000 I27.420566 J16.919266
G02 X132.869748 Y79.733529 Z-0.125000 I42.794178 J23.343140
G02 X132.144694 Y81.320616 Z-0.125000 I22.106626 J11.058479
G02 X131.520099 Y82.954008 Z-0.125000 I28.854455 J11.969812
G02 X131.021637 Y84.587444 Z-0.125000 I19.632417 J6.883834
G02 X130.653040 Y86.256745 Z-0.125000 I21.882968 J5.707300
G02 X130.439253 Y87.859592 Z-0.125000 I16.961411 J3.077993
G02 X130.378116 Y89.474685 Z-0.125000 I16.836611 J1.446027
G02 X130.474434 Y90.958642 Z-0.125000 I13.571735 J-0.135789
G02 X130.738390 Y92.418517 Z-0.125000 I12.437566 J-1.494996
G02 X131.141657 Y93.703220 Z-0.125000 I9.914644 J-2.406558
G02 X131.715680 Y94.914562 Z-0.125000 I8.645812 J-3.355344
G02 X132.407991 Y95.940891 Z-0.125000 I6.863235 J-3.882937
G02 X133.252274 Y96.837629 Z-0.125000 I5.794958 J-4.610166
G02 X134.215961 Y97.567600 Z-0.125000 I4.817245 J-5.358482
G02 X135.285309 Y98.125461 Z-0.125000 I3.869922 J-6.114307
G02 X136.503894 Y98.533304 Z-0.125000 I3.343640 J-7.965987
G02 X137.769798 Y98.761162 Z-0.125000 I2.247725 J-8.857214
G02 X139.218233 Y98.837045 Z-0.125000 I1.409499 J-13.042495
G02 X140.670114 Y98.755892 Z-0.125000 I-0.040955 J-13.760826
G02 X142.317892 Y98.516048 Z-0.125000 I-2.520423 J-23.096003
G02 X143.954133 Y98.153508 Z-0.125000 I-3.992688 J-21.893744
G02 X145.762897 Y97.643511 Z-0.125000 I-12.433735 J-47.560254
G02 X147.545424 Y97.058761 Z-0.125000 I-11.793745 J-38.960769
G02 X149.454044 Y96.355876 Z-0.125000 I-26.442879 J-74.746033
G02 X151.343054 Y95.598886 Z-0.125000 I-23.541768 J-61.482118
G02 X153.310696 Y94.753424 Z-0.125000 I-44.785683 J-106.941925
G02 X155.261734 Y93.868310 Z-0.125000 I-39.879903 J-90.499338
G02 X157.236632 Y92.926348 Z-0.125000 I-55.587983 J-119.085869
G02 X159.194450 Y91.951477 Z-0.125000 I-55.566910 J-114.047558
G02 X161.118810 Y90.949096 Z-0.125000 I-51.220441 J-100.680752
G02 X163.022270 Y89.912740 Z-0.125000 I-58.230634 J-109.217555
G02 X164.840265 Y88.872381 Z-0.125000 I-40.920716 J-73.616343
G02 X166.630251 Y87.791395 Z-0.125000 I-47.869388 J-81.288553
G02 X168.295145 Y86.723083 Z-0.125000 I-32.290047 J-52.153419
G02 X169.922524 Y85.605337 Z-0.125000 I-35.914828 J-54.033620
G02 X171.402083 Y84.510902 Z-0.125000 I-26.858279 J-37.856839
G02 X172.833935 Y83.360036 Z-0.125000 I-27.589197 J-35.791298
G02 X174.112635 Y82.238751 Z-0.125000 I-24.223681 J-28.914143
G02 X175.335206 Y81.059102 Z-0.125000 I-22.895483 J-24.951903
G02 X176.412737 Y79.913193 Z-0.125000 I-23.814003 J-23.472562
G02 X177.429881 Y78.713130 Z-0.125000 I-20.876897 J-18.725828
G02 X178.316594 Y77.551856 Z-0.125000 I-24.901935 J-19.933526
G02 X179.143875 Y76.345041 Z-0.125000 I-20.910950 J-15.221574
G02 X179.853745 Y75.186056 Z-0.125000 I-24.737820 J-15.948610
G02 X180.506876 Y73.991140 Z-0.125000 I-22.437442 J-13.040093
G02 X181.045260 Y72.856775 Z-0.125000 I-18.109101 J-9.289744
G02 X181.508065 Y71.691127 Z-0.125000 I-16.737124 J-7.319951
G02 X181.860414 Y70.597771 Z-0.125000 I-16.976504 J-6.074359
G02 X182.135691 Y69.482059 Z-0.125000 I-14.537983 J-4.178743
G02 X182.312295 Y68.448740 Z-0.125000 I-14.825680 J-3.065599
G02 X182.410539 Y67.405247 Z-0.125000 I-12.740105 J-1.725842
G02 X182.421988 Y66.452218 Z-0.125000 I-11.585678 J-0.615771
G02 X182.350540 Y65.503432 Z-0.125000 I-10.324801 J0.300430
G02 X182.201712 Y64.646111 Z-0.125000 I-8.531145 J1.039392
G02 X181.964743 Y63.811734 Z-0.125000 I-7.808463 J1.766818
G02 X181.654015 Y63.058190 Z-0.125000 I-6.407057 J2.201152
G02 X181.255244 Y62.350191 Z-0.125000 I-5.934568 J2.876264
G02 X180.775004 Y61.702419 Z-0.125000 I-5.344965 J3.460705
G02 X180.217885 Y61.120320 Z-0.125000 I-4.955113 J4.184813
G02 X179.559232 Y60.577820 Z-0.125000 I-5.153350 J5.585631
G02 X178.844062 Y60.110214 Z-0.125000 I-4.702784 J6.411876
G02 X178.003526 Y59.669675 Z-0.125000 I-5.592719 J9.648628
G02 X177.127776 Y59.300365 Z-0.125000 I-4.926431 J10.459104
G02 X176.107789 Y58.952126 Z-0.125000 I-6.521380 J17.433174
G02 X175.068723 Y58.663426 Z-0.125000 I-5.488476 J17.739440
G02 X173.872200 Y58.391478 Z-0.125000 I-7.954323 J32.229362
G02 X172.662532 Y58.163117 Z-0.125000 I-6.802143 J32.714056
G02 X171.291558 Y57.950709 Z-0.125000 I-8.033765 J47.322816
G02 X169.871763 Y57.757703 Z-0.125000 I-23.966041 J170.981027
G02 X168.382423 Y57.621988 Z-0.125000 I-2.436458 J18.497910
G02 X166.929292 Y57.593369 Z-0.125000 I-1.186648 J23.346196
G02 X165.508552 Y57.656765 Z-0.125000 I0.244260 J21.425470
G02 X164.109922 Y57.818935 Z-0.125000 I1.453537 J18.648324
G02 X162.733235 Y58.062307 Z-0.125000 I4.868771 J31.556654
G02 X161.369188 Y58.376283 Z-0.125000 I4.661282 J23.370586
G02 X159.993597 Y58.756726 Z-0.125000 I12.696615 J48.585054
G02 X158.629936 Y59.184473 Z-0.125000 I10.052746 J34.435874
G02 X157.230684 Y59.668646 Z-0.125000 I25.466165 J75.860694
G02 X155.840580 Y60.183316 Z-0.125000 I20.378161 J57.175337
G02 X154.400453 Y60.750211 Z-0.125000 I33.787950 J87.946734
G02 X152.967961 Y61.340878 Z-0.125000 I36.815926 J91.318716
G02 X151.481001 Y61.986692 Z-0.125000 I29.228480 J69.332094
G02 X150.003607 Y62.660263 Z-0.125000 I45.679174 J102.148660
G02 X148.479284 Y63.398063 Z-0.125000 I22.642670 J48.724219
G02 X146.971258 Y64.176309 Z-0.125000 I38.629396 J76.703227
G02 X145.438336 Y65.029902 Z-0.125000 I18.827130 J35.613885
G02 X143.934118 Y65.941177 Z-0.125000 I29.981703 J51.187134
G02 X142.442142 Y66.934188 Z-0.125000 I17.151684 J27.387341
G02 X140.997165 Y68.001354 Z-0.125000 I24.505576 J34.693203
G02 X139.613202 Y69.144493 Z-0.125000 I16.559891 J21.457866
G02 X138.301860 Y70.371545 Z-0.125000 I20.719375 J23.456900
G02 X137.099127 Y71.653642 Z-0.125000 I16.988724 J17.142282
G02 X136.027400 Y72.998742 Z-0.125000 I14.643090 J12.766587
G02 X135.026291 Y74.405623 Z-0.125000 I69.636272 J50.611454
