%
(Header)
(Generated by gcodetools from Inkscape.)
(Using default header. To add your own header create file "header" in the output dir.)
M3
(Header end.)
G21 (All units in mm)

(Start cutting path id: polyline1217)
(Change tool to Default tool)

G00 Z3.000000
G00 X14.920117 Y116.148772

G00 Z4.875000 (Fast pre-penetrate)
G01 Z-0.125000 F400.0(Penetrate)
G01 X16.407735 Y116.039552 Z-0.125000 F800.000000
G01 X18.107866 Y115.750786 Z-0.125000
G01 X24.589621 Y114.071928 Z-0.125000
G01 X27.989883 Y113.399807 Z-0.125000
G01 X31.815171 Y112.982322 Z-0.125000
G01 X36.490537 Y112.804072 Z-0.125000
G01 X46.797580 Y112.801426 Z-0.125000
G01 X53.066821 Y113.028518 Z-0.125000
G01 X58.379727 Y113.549376 Z-0.125000
G01 X68.261743 Y115.038105 Z-0.125000
G01 X73.043367 Y115.601588 Z-0.125000
G01 X78.887556 Y115.983222 Z-0.125000
G01 X86.325645 Y116.133717 Z-0.125000
G01 X102.476903 Y116.105513 Z-0.125000
G01 X106.939730 Y115.991636 Z-0.125000
G01 X110.871301 Y115.776980 Z-0.125000
G01 X116.821746 Y115.158147 Z-0.125000
G01 X120.222008 Y114.629986 Z-0.125000
G01 X128.191380 Y113.203619 Z-0.125000
G01 X130.529077 Y112.908768 Z-0.125000
G01 X132.654234 Y112.773328 Z-0.125000
G01 X134.991904 Y112.809840 Z-0.125000
G01 X137.435858 Y113.069502 Z-0.125000
G01 X139.879784 Y113.525564 Z-0.125000
G01 X146.999104 Y115.155924 Z-0.125000
G01 X149.336774 Y115.490939 Z-0.125000
G01 X151.674445 Y115.638127 Z-0.125000
G01 X153.693372 Y115.616034 Z-0.125000
G01 X155.924785 Y115.457972 Z-0.125000
G01 X165.913058 Y114.171437 Z-0.125000
G01 X171.757273 Y113.683255 Z-0.125000
G00 Z3.000000

(End cutting path id: polyline1217)


(Start cutting path id: polyline1215)
(Change tool to Default tool)

G00 Z3.000000
G00 X14.920117 Y113.167821

G00 Z4.875000 (Fast pre-penetrate)
G01 Z-0.125000 F400.0(Penetrate)
G01 X17.257788 Y113.482172 Z-0.125000 F800.000000
G01 X19.807997 Y113.425472 Z-0.125000
G01 X22.145667 Y113.104824 Z-0.125000
G01 X28.308652 Y111.885440 Z-0.125000
G01 X31.815171 Y111.346405 Z-0.125000
G01 X36.065511 Y110.970988 Z-0.125000
G01 X40.634595 Y110.856847 Z-0.125000
G01 X44.778679 Y110.970909 Z-0.125000
G01 X48.816480 Y111.281371 Z-0.125000
G01 X52.535539 Y111.738967 Z-0.125000
G01 X61.354963 Y113.065189 Z-0.125000
G01 X64.011403 Y113.338080 Z-0.125000
G01 X66.455356 Y113.476457 Z-0.125000
G01 X68.899283 Y113.501857 Z-0.125000
G01 X71.555749 Y113.417534 Z-0.125000
G01 X85.263053 Y112.373543 Z-0.125000
G01 X89.194624 Y112.194394 Z-0.125000
G01 X93.019913 Y112.135074 Z-0.125000
G01 X99.820436 Y112.319700 Z-0.125000
G01 X113.421484 Y113.361337 Z-0.125000
G01 X116.290464 Y113.489924 Z-0.125000
G01 X118.734417 Y113.491247 Z-0.125000
G01 X121.497113 Y113.325671 Z-0.125000
G01 X124.259836 Y112.947794 Z-0.125000
G01 X127.128815 Y112.331501 Z-0.125000
G01 X133.929339 Y110.552127 Z-0.125000
G01 X135.948240 Y110.225288 Z-0.125000
G01 X137.860884 Y110.116888 Z-0.125000
G01 X139.773528 Y110.231823 Z-0.125000
G01 X141.686172 Y110.558821 Z-0.125000
G01 X147.530387 Y112.199288 Z-0.125000
G01 X149.549288 Y112.663579 Z-0.125000
G01 X151.461932 Y112.928426 Z-0.125000
G01 X153.374576 Y112.997562 Z-0.125000
G01 X155.074733 Y112.903159 Z-0.125000
G01 X156.881121 Y112.673183 Z-0.125000
G01 X163.150335 Y111.477903 Z-0.125000
G01 X165.913058 Y111.046421 Z-0.125000
G01 X168.782037 Y110.755644 Z-0.125000
G01 X171.757273 Y110.611685 Z-0.125000
G00 Z3.000000

(End cutting path id: polyline1215)


(Start cutting path id: polyline1129)
(Change tool to Default tool)

G00 Z3.000000
G00 X14.920117 Y111.436416

G00 Z4.875000 (Fast pre-penetrate)
G01 Z-0.125000 F400.0(Penetrate)
G01 X16.407735 Y111.817125 Z-0.125000 F800.000000
G01 X17.895353 Y112.062869 Z-0.125000
G01 X19.382945 Y112.173571 Z-0.125000
G01 X20.976819 Y112.157987 Z-0.125000
G01 X23.633285 Y111.901051 Z-0.125000
G01 X30.008783 Y110.888200 Z-0.125000
G01 X33.302789 Y110.480610 Z-0.125000
G01 X37.021820 Y110.220446 Z-0.125000
G01 X40.847108 Y110.172662 Z-0.125000
G01 X44.034857 Y110.292518 Z-0.125000
G01 X47.328863 Y110.558689 Z-0.125000
G01 X59.017266 Y112.004370 Z-0.125000
G01 X61.567476 Y112.158252 Z-0.125000
G01 X64.011403 Y112.171640 Z-0.125000
G01 X66.349099 Y112.059403 Z-0.125000
G01 X68.793026 Y111.830724 Z-0.125000
G01 X78.462529 Y110.515588 Z-0.125000
G01 X83.350409 Y109.990311 Z-0.125000
G01 X88.557059 Y109.664213 Z-0.125000
G01 X93.869991 Y109.580684 Z-0.125000
G01 X98.545332 Y109.710753 Z-0.125000
G01 X103.220698 Y110.037487 Z-0.125000
G01 X108.002322 Y110.570516 Z-0.125000
G01 X117.565568 Y111.898987 Z-0.125000
G01 X120.115752 Y112.123115 Z-0.125000
G01 X122.453448 Y112.180027 Z-0.125000
G01 X124.897375 Y112.032972 Z-0.125000
G01 X127.341328 Y111.643029 Z-0.125000
G01 X129.678998 Y111.055867 Z-0.125000
G01 X135.310700 Y109.343274 Z-0.125000
G01 X137.010831 Y108.985293 Z-0.125000
G01 X138.498449 Y108.818076 Z-0.125000
G01 X140.198580 Y108.824559 Z-0.125000
G01 X142.004968 Y109.064747 Z-0.125000
G01 X143.917612 Y109.537531 Z-0.125000
G01 X149.336774 Y111.199588 Z-0.125000
G01 X151.143162 Y111.540265 Z-0.125000
G01 X152.949549 Y111.674859 Z-0.125000
G01 X154.543424 Y111.620037 Z-0.125000
G01 X156.349811 Y111.390299 Z-0.125000
G01 X162.619053 Y110.035026 Z-0.125000
G01 X165.488032 Y109.559147 Z-0.125000
G01 X168.463268 Y109.304936 Z-0.125000
G01 X171.757273 Y109.271148 Z-0.125000
G00 Z3.000000

(End cutting path id: polyline1129)


(Start cutting path id: polyline1131)
(Change tool to Default tool)

G00 Z3.000000
G00 X14.920117 Y109.615344

G00 Z4.875000 (Fast pre-penetrate)
G01 Z-0.125000 F400.0(Penetrate)
G01 X16.620248 Y110.151760 Z-0.125000 F800.000000
G01 X18.107866 Y110.502941 Z-0.125000
G01 X19.701741 Y110.744082 Z-0.125000
G01 X21.295615 Y110.850841 Z-0.125000
G01 X22.889490 Y110.842031 Z-0.125000
G01 X24.802134 Y110.716565 Z-0.125000
G01 X34.152841 Y109.688740 Z-0.125000
G01 X39.253234 Y109.495965 Z-0.125000
G01 X42.015957 Y109.552480 Z-0.125000
G01 X44.991192 Y109.729115 Z-0.125000
G01 X55.510748 Y110.751993 Z-0.125000
G01 X57.742188 Y110.850682 Z-0.125000
G01 X59.761089 Y110.843645 Z-0.125000
G01 X62.205015 Y110.698415 Z-0.125000
G01 X64.755225 Y110.395758 Z-0.125000
G01 X74.956011 Y108.560055 Z-0.125000
G01 X80.375173 Y107.841421 Z-0.125000
G01 X83.562922 Y107.574695 Z-0.125000
G01 X87.069441 Y107.393694 Z-0.125000
G01 X95.038813 Y107.299793 Z-0.125000
G01 X101.414311 Y107.508549 Z-0.125000
G01 X107.045986 Y107.992392 Z-0.125000
G01 X112.040149 Y108.734574 Z-0.125000
G01 X121.178343 Y110.510508 Z-0.125000
G01 X123.409757 Y110.781415 Z-0.125000
G01 X125.428684 Y110.858911 Z-0.125000
G01 X127.553841 Y110.718259 Z-0.125000
G01 X129.572742 Y110.353187 Z-0.125000
G01 X131.591642 Y109.784122 Z-0.125000
G01 X136.798292 Y108.014035 Z-0.125000
G01 X138.392166 Y107.649175 Z-0.125000
G01 X139.773528 Y107.488997 Z-0.125000
G01 X141.367402 Y107.512809 Z-0.125000
G01 X142.961277 Y107.758157 Z-0.125000
G01 X144.661408 Y108.220145 Z-0.125000
G01 X149.655544 Y109.883579 Z-0.125000
G01 X151.355675 Y110.227537 Z-0.125000
G01 X152.949549 Y110.352155 Z-0.125000
G01 X154.437167 Y110.292254 Z-0.125000
G01 X156.031042 Y110.065083 Z-0.125000
G01 X161.981514 Y108.620036 Z-0.125000
G01 X164.850466 Y108.125689 Z-0.125000
G01 X168.038215 Y107.936327 Z-0.125000
G01 X171.757273 Y108.096347 Z-0.125000
G00 Z3.000000

(End cutting path id: polyline1131)


(Start cutting path id: polyline1133)
(Change tool to Default tool)

G00 Z3.000000
G00 X14.920117 Y107.760909

G00 Z4.875000 (Fast pre-penetrate)
G01 Z-0.125000 F400.0(Penetrate)
G01 X17.151531 Y108.527062 Z-0.125000 F800.000000
G01 X19.064175 Y109.029108 Z-0.125000
G01 X20.976819 Y109.355683 Z-0.125000
G01 X22.889490 Y109.512554 Z-0.125000
G01 X25.970956 Y109.487815 Z-0.125000
G01 X34.046584 Y108.890810 Z-0.125000
G01 X38.721951 Y108.750608 Z-0.125000
G01 X43.291061 Y108.880492 Z-0.125000
G01 X52.110486 Y109.477708 Z-0.125000
G01 X55.617004 Y109.524196 Z-0.125000
G01 X58.273471 Y109.369044 Z-0.125000
G01 X60.929937 Y109.030378 Z-0.125000
G01 X63.586377 Y108.535264 Z-0.125000
G01 X71.874519 Y106.742687 Z-0.125000
G01 X74.849754 Y106.273211 Z-0.125000
G01 X77.824990 Y105.950208 Z-0.125000
G01 X81.225252 Y105.735790 Z-0.125000
G01 X85.263053 Y105.629005 Z-0.125000
G01 X101.308054 Y105.636757 Z-0.125000
G01 X107.045986 Y105.860250 Z-0.125000
G01 X111.721353 Y106.360841 Z-0.125000
G01 X115.865437 Y107.145674 Z-0.125000
G01 X123.834810 Y109.124834 Z-0.125000
G01 X125.853710 Y109.439767 Z-0.125000
G01 X127.660098 Y109.536816 Z-0.125000
G01 X129.466485 Y109.415558 Z-0.125000
G01 X131.272873 Y109.061996 Z-0.125000
G01 X133.079260 Y108.502932 Z-0.125000
G01 X137.860884 Y106.708980 Z-0.125000
G01 X139.348502 Y106.332690 Z-0.125000
G01 X140.729863 Y106.161769 Z-0.125000
G01 X142.217481 Y106.199075 Z-0.125000
G01 X143.705099 Y106.460615 Z-0.125000
G01 X145.192717 Y106.903977 Z-0.125000
G01 X149.761801 Y108.551218 Z-0.125000
G01 X151.249419 Y108.886524 Z-0.125000
G01 X152.737036 Y109.027282 Z-0.125000
G01 X154.118398 Y108.976985 Z-0.125000
G01 X155.606016 Y108.751031 Z-0.125000
G01 X161.343948 Y107.213248 Z-0.125000
G01 X164.212927 Y106.718610 Z-0.125000
G01 X165.806802 Y106.619365 Z-0.125000
G01 X167.506933 Y106.641775 Z-0.125000
G01 X171.757273 Y107.080666 Z-0.125000
G00 Z3.000000

(End cutting path id: polyline1133)


(Start cutting path id: polyline1135)
(Change tool to Default tool)

G00 Z3.000000
G00 X14.920117 Y105.922480

G00 Z4.875000 (Fast pre-penetrate)
G01 Z-0.125000 F400.0(Penetrate)
G01 X18.107866 Y107.025897 Z-0.125000 F800.000000
G01 X20.764306 Y107.703071 Z-0.125000
G01 X23.420772 Y108.085393 Z-0.125000
G01 X26.502265 Y108.214007 Z-0.125000
G01 X37.765642 Y107.862350 Z-0.125000
G01 X41.484674 Y107.910689 Z-0.125000
G01 X49.666559 Y108.207498 Z-0.125000
G01 X52.004229 Y108.195063 Z-0.125000
G01 X54.129386 Y108.085526 Z-0.125000
G01 X56.573340 Y107.818588 Z-0.125000
G01 X59.017266 Y107.398668 Z-0.125000
G01 X66.880382 Y105.525870 Z-0.125000
G01 X70.068131 Y104.896930 Z-0.125000
G01 X73.574649 Y104.463437 Z-0.125000
G01 X77.399964 Y104.285399 Z-0.125000
G01 X80.693969 Y104.303523 Z-0.125000
G01 X92.382373 Y104.597872 Z-0.125000
G01 X96.951457 Y104.554242 Z-0.125000
G01 X106.727217 Y104.282145 Z-0.125000
G01 X109.489940 Y104.304211 Z-0.125000
G01 X111.827610 Y104.424729 Z-0.125000
G01 X114.377820 Y104.704525 Z-0.125000
G01 X116.821746 Y105.146829 Z-0.125000
G01 X119.478213 Y105.822785 Z-0.125000
G01 X125.747454 Y107.717411 Z-0.125000
G01 X127.553841 Y108.076186 Z-0.125000
G01 X129.147716 Y108.211229 Z-0.125000
G01 X130.847847 Y108.122064 Z-0.125000
G01 X132.547978 Y107.777921 Z-0.125000
G01 X134.248109 Y107.210417 Z-0.125000
G01 X138.817219 Y105.353336 Z-0.125000
G01 X140.198580 Y104.988925 Z-0.125000
G01 X141.473659 Y104.833827 Z-0.125000
G01 X142.748764 Y104.874943 Z-0.125000
G01 X144.130125 Y105.134023 Z-0.125000
G01 X145.617743 Y105.613606 Z-0.125000
G01 X149.761801 Y107.221424 Z-0.125000
G01 X151.143162 Y107.559614 Z-0.125000
G01 X152.418267 Y107.699975 Z-0.125000
G01 X153.693372 Y107.666426 Z-0.125000
G01 X155.074733 Y107.452987 Z-0.125000
G01 X160.706409 Y105.813948 Z-0.125000
G01 X162.194027 Y105.503592 Z-0.125000
G01 X163.575388 Y105.336958 Z-0.125000
G01 X165.169262 Y105.293831 Z-0.125000
G01 X166.869393 Y105.401490 Z-0.125000
G01 X171.757273 Y106.180660 Z-0.125000
G00 Z3.000000

(End cutting path id: polyline1135)


(Start cutting path id: polyline1137)
(Change tool to Default tool)

G00 Z3.000000
G00 X14.920117 Y104.137497

G00 Z4.875000 (Fast pre-penetrate)
G01 Z-0.125000 F400.0(Penetrate)
G01 X19.064175 Y105.532696 Z-0.125000 F800.000000
G01 X22.039411 Y106.283107 Z-0.125000
G01 X25.227160 Y106.731787 Z-0.125000
G01 X28.946191 Y106.889055 Z-0.125000
G01 X37.765642 Y106.798911 Z-0.125000
G01 X47.116349 Y106.887150 Z-0.125000
G01 X51.472947 Y106.688077 Z-0.125000
G01 X53.916873 Y106.393041 Z-0.125000
G01 X56.360827 Y105.948383 Z-0.125000
G01 X63.798890 Y104.090402 Z-0.125000
G01 X66.561612 Y103.505567 Z-0.125000
G01 X69.430592 Y103.112080 Z-0.125000
G01 X72.405828 Y102.957960 Z-0.125000
G01 X76.656142 Y103.095358 Z-0.125000
G01 X87.494493 Y103.970122 Z-0.125000
G01 X92.913656 Y104.132232 Z-0.125000
G01 X95.995148 Y104.085057 Z-0.125000
G01 X99.289154 Y103.927392 Z-0.125000
G01 X110.658788 Y103.015004 Z-0.125000
G01 X112.996458 Y102.955341 Z-0.125000
G01 X115.015359 Y103.022624 Z-0.125000
G01 X117.246799 Y103.267337 Z-0.125000
G01 X119.478212 Y103.719033 Z-0.125000
G01 X121.815883 Y104.407769 Z-0.125000
G01 X127.341328 Y106.345548 Z-0.125000
G01 X129.041459 Y106.739909 Z-0.125000
G01 X130.529077 Y106.887626 Z-0.125000
G01 X132.016695 Y106.810050 Z-0.125000
G01 X133.610569 Y106.466595 Z-0.125000
G01 X135.204444 Y105.890439 Z-0.125000
G01 X139.454758 Y104.028330 Z-0.125000
G01 X140.729863 Y103.667624 Z-0.125000
G01 X142.004968 Y103.507605 Z-0.125000
G01 X143.173790 Y103.558219 Z-0.125000
G01 X144.448895 Y103.820342 Z-0.125000
G01 X145.830256 Y104.299184 Z-0.125000
G01 X149.549288 Y105.852154 Z-0.125000
G01 X150.824392 Y106.205954 Z-0.125000
G01 X151.993241 Y106.367509 Z-0.125000
G01 X153.268319 Y106.351501 Z-0.125000
G01 X154.543424 Y106.150604 Z-0.125000
G01 X155.924785 Y105.774076 Z-0.125000
G01 X160.068869 Y104.421342 Z-0.125000
G01 X161.450204 Y104.130195 Z-0.125000
G01 X162.831566 Y103.984463 Z-0.125000
G01 X164.319184 Y103.990918 Z-0.125000
G01 X166.019315 Y104.173163 Z-0.125000
G01 X171.757273 Y105.316850 Z-0.125000
G00 Z3.000000

(End cutting path id: polyline1137)


(Start cutting path id: polyline1139)
(Change tool to Default tool)

G00 Z3.000000
G00 X14.920117 Y102.429297

G00 Z4.875000 (Fast pre-penetrate)
G01 Z-0.125000 F400.0(Penetrate)
G01 X20.233023 Y104.115061 Z-0.125000 F800.000000
G01 X23.420772 Y104.879891 Z-0.125000
G01 X25.227160 Y105.168551 Z-0.125000
G01 X27.139804 Y105.370110 Z-0.125000
G01 X31.602658 Y105.553175 Z-0.125000
G01 X43.822344 Y105.543174 Z-0.125000
G01 X46.797580 Y105.440278 Z-0.125000
G01 X49.347790 Y105.237528 Z-0.125000
G01 X51.685460 Y104.925796 Z-0.125000
G01 X54.129386 Y104.460580 Z-0.125000
G01 X61.142450 Y102.675782 Z-0.125000
G01 X63.586377 Y102.141774 Z-0.125000
G01 X66.136586 Y101.772152 Z-0.125000
G01 X68.686770 Y101.633484 Z-0.125000
G01 X70.811953 Y101.687591 Z-0.125000
G01 X73.255880 Y101.901242 Z-0.125000
G01 X81.862791 Y103.125838 Z-0.125000
G01 X85.688106 Y103.565919 Z-0.125000
G01 X89.407137 Y103.829576 Z-0.125000
G01 X93.019913 Y103.915856 Z-0.125000
G01 X96.632688 Y103.832777 Z-0.125000
G01 X100.245463 Y103.582905 Z-0.125000
G01 X104.389547 Y103.106126 Z-0.125000
G01 X113.102715 Y101.832159 Z-0.125000
G01 X115.546668 Y101.647189 Z-0.125000
G01 X117.671825 Y101.670975 Z-0.125000
G01 X119.584469 Y101.887801 Z-0.125000
G01 X121.497113 Y102.313012 Z-0.125000
G01 X123.516014 Y102.974840 Z-0.125000
G01 X128.722690 Y105.025120 Z-0.125000
G01 X130.210281 Y105.408395 Z-0.125000
G01 X131.591642 Y105.564023 Z-0.125000
G01 X132.973004 Y105.488538 Z-0.125000
G01 X134.460622 Y105.141881 Z-0.125000
G01 X135.948240 Y104.561571 Z-0.125000
G01 X139.879784 Y102.715655 Z-0.125000
G01 X141.154889 Y102.333570 Z-0.125000
G01 X142.323737 Y102.183817 Z-0.125000
G01 X143.492586 Y102.247925 Z-0.125000
G01 X144.661408 Y102.515313 Z-0.125000
G01 X145.830256 Y102.945339 Z-0.125000
G01 X149.443031 Y104.544109 Z-0.125000
G01 X150.611879 Y104.885950 Z-0.125000
G01 X151.674445 Y105.043033 Z-0.125000
G01 X152.843293 Y105.032820 Z-0.125000
G01 X154.012141 Y104.843564 Z-0.125000
G01 X155.287246 Y104.477883 Z-0.125000
G01 X159.325047 Y103.063237 Z-0.125000
G01 X160.706409 Y102.767434 Z-0.125000
G01 X161.981514 Y102.650038 Z-0.125000
G01 X163.256592 Y102.681709 Z-0.125000
G01 X164.744210 Y102.877394 Z-0.125000
G01 X169.632090 Y104.004941 Z-0.125000
G01 X171.757273 Y104.386496 Z-0.125000
G00 Z3.000000

(End cutting path id: polyline1139)


(Start cutting path id: polyline1141)
(Change tool to Default tool)

G00 Z3.000000
G00 X14.920117 Y100.807482

G00 Z4.875000 (Fast pre-penetrate)
G01 Z-0.125000 F400.0(Penetrate)
G01 X21.401872 Y102.710390 Z-0.125000 F800.000000
G01 X24.695877 Y103.454900 Z-0.125000
G01 X26.608521 Y103.746020 Z-0.125000
G01 X28.733678 Y103.961576 Z-0.125000
G01 X33.727815 Y104.171126 Z-0.125000
G01 X42.122213 Y104.124877 Z-0.125000
G01 X45.097449 Y103.976419 Z-0.125000
G01 X47.647659 Y103.734855 Z-0.125000
G01 X49.879072 Y103.410847 Z-0.125000
G01 X52.110486 Y102.974576 Z-0.125000
G01 X58.804753 Y101.278572 Z-0.125000
G01 X61.036193 Y100.788062 Z-0.125000
G01 X63.373864 Y100.440109 Z-0.125000
G01 X65.711534 Y100.309934 Z-0.125000
G01 X67.942974 Y100.395315 Z-0.125000
G01 X70.493157 Y100.705194 Z-0.125000
G01 X79.100095 Y102.383127 Z-0.125000
G01 X83.031640 Y103.007146 Z-0.125000
G01 X86.856928 Y103.408651 Z-0.125000
G01 X90.788499 Y103.615369 Z-0.125000
G01 X93.763708 Y103.644341 Z-0.125000
G01 X96.632688 Y103.571210 Z-0.125000
G01 X99.395410 Y103.403015 Z-0.125000
G01 X102.158133 Y103.130627 Z-0.125000
G01 X106.939730 Y102.391117 Z-0.125000
G01 X115.227872 Y100.656776 Z-0.125000
G01 X117.140542 Y100.396744 Z-0.125000
G01 X118.840673 Y100.309431 Z-0.125000
G01 X120.965830 Y100.457148 Z-0.125000
G01 X122.984731 Y100.902203 Z-0.125000
G01 X125.003632 Y101.627240 Z-0.125000
G01 X129.572742 Y103.629445 Z-0.125000
G01 X130.954103 Y104.043967 Z-0.125000
G01 X132.229208 Y104.231768 Z-0.125000
G01 X133.610569 Y104.179540 Z-0.125000
G01 X134.991904 Y103.853124 Z-0.125000
G01 X136.418801 Y103.270856 Z-0.125000
G01 X140.198580 Y101.387369 Z-0.125000
G01 X141.367402 Y101.015630 Z-0.125000
G01 X142.536251 Y100.859393 Z-0.125000
G01 X143.598842 Y100.925142 Z-0.125000
G01 X144.767664 Y101.213617 Z-0.125000
G01 X145.890978 Y101.659228 Z-0.125000
G01 X149.124261 Y103.182988 Z-0.125000
G01 X150.186853 Y103.528798 Z-0.125000
G01 X151.249419 Y103.713582 Z-0.125000
G01 X152.312010 Y103.719774 Z-0.125000
G01 X153.480859 Y103.531470 Z-0.125000
G01 X154.755937 Y103.142401 Z-0.125000
G01 X158.474995 Y101.742730 Z-0.125000
G01 X159.750073 Y101.446159 Z-0.125000
G01 X161.025178 Y101.324319 Z-0.125000
G01 X162.087770 Y101.357788 Z-0.125000
G01 X163.256592 Y101.517438 Z-0.125000
G01 X168.782037 Y102.902001 Z-0.125000
G01 X170.269655 Y103.153804 Z-0.125000
G01 X171.757273 Y103.288556 Z-0.125000
G00 Z3.000000

(End cutting path id: polyline1141)


(Start cutting path id: polyline1143)
(Change tool to Default tool)

G00 Z3.000000
G00 X14.920117 Y99.269964

G00 Z4.875000 (Fast pre-penetrate)
G01 Z-0.125000 F400.0(Penetrate)
G01 X17.045274 Y99.765713 Z-0.125000 F800.000000
G01 X22.464437 Y101.295188 Z-0.125000
G01 X25.545929 Y101.959926 Z-0.125000
G01 X29.690014 Y102.482346 Z-0.125000
G01 X34.577893 Y102.704436 Z-0.125000
G01 X40.953391 Y102.633793 Z-0.125000
G01 X43.716088 Y102.465042 Z-0.125000
G01 X46.160041 Y102.208820 Z-0.125000
G01 X50.410355 Y101.467723 Z-0.125000
G01 X58.804753 Y99.444112 Z-0.125000
G01 X61.142450 Y99.098646 Z-0.125000
G01 X63.267607 Y98.986596 Z-0.125000
G01 X65.499021 Y99.094466 Z-0.125000
G01 X67.942974 Y99.450462 Z-0.125000
G01 X76.549885 Y101.502092 Z-0.125000
G01 X80.693969 Y102.284967 Z-0.125000
G01 X85.050540 Y102.793363 Z-0.125000
G01 X89.938420 Y103.053871 Z-0.125000
G01 X93.869991 Y103.094458 Z-0.125000
G01 X97.695279 Y103.007781 Z-0.125000
G01 X101.095541 Y102.803443 Z-0.125000
G01 X104.177034 Y102.475837 Z-0.125000
G01 X106.727217 Y102.072903 Z-0.125000
G01 X109.171170 Y101.560724 Z-0.125000
G01 X117.353055 Y99.385454 Z-0.125000
G01 X119.053186 Y99.094043 Z-0.125000
G01 X120.540804 Y98.987866 Z-0.125000
G01 X122.453448 Y99.116559 Z-0.125000
G01 X124.259836 Y99.544469 Z-0.125000
G01 X126.035876 Y100.232993 Z-0.125000
G01 X130.422821 Y102.318966 Z-0.125000
G01 X131.697899 Y102.726767 Z-0.125000
G01 X132.866747 Y102.909065 Z-0.125000
G01 X134.141852 Y102.858900 Z-0.125000
G01 X135.416957 Y102.543517 Z-0.125000
G01 X136.783131 Y101.956751 Z-0.125000
G01 X140.411093 Y100.049743 Z-0.125000
G01 X141.579915 Y99.670172 Z-0.125000
G01 X142.642507 Y99.535129 Z-0.125000
G01 X143.598842 Y99.601486 Z-0.125000
G01 X144.661408 Y99.872446 Z-0.125000
G01 X145.799882 Y100.345203 Z-0.125000
G01 X148.911748 Y101.885129 Z-0.125000
G01 X149.974314 Y102.236442 Z-0.125000
G01 X150.930649 Y102.396621 Z-0.125000
G01 X151.993241 Y102.385402 Z-0.125000
G01 X153.055806 Y102.186621 Z-0.125000
G01 X154.118398 Y101.840652 Z-0.125000
G01 X157.731173 Y100.398172 Z-0.125000
G01 X158.900021 Y100.114486 Z-0.125000
G01 X160.068869 Y100.000636 Z-0.125000
G01 X161.131435 Y100.046039 Z-0.125000
G01 X162.406540 Y100.260721 Z-0.125000
G01 X166.444341 Y101.416394 Z-0.125000
G01 X168.144472 Y101.788053 Z-0.125000
G01 X169.950886 Y101.977627 Z-0.125000
G01 X171.757273 Y101.955693 Z-0.125000
G00 Z3.000000

(End cutting path id: polyline1143)


(Start cutting path id: polyline1145)
(Change tool to Default tool)

G00 Z3.000000
G00 X14.920117 Y97.806291

G00 Z4.875000 (Fast pre-penetrate)
G01 Z-0.125000 F400.0(Penetrate)
G01 X17.470301 Y98.307041 Z-0.125000 F800.000000
G01 X23.739542 Y99.952958 Z-0.125000
G01 X26.821034 Y100.551260 Z-0.125000
G01 X28.946191 Y100.834179 Z-0.125000
G01 X31.283888 Y101.037590 Z-0.125000
G01 X36.384281 Y101.188667 Z-0.125000
G01 X40.953391 Y101.048703 Z-0.125000
G01 X44.991192 Y100.658152 Z-0.125000
G01 X48.922737 Y99.967855 Z-0.125000
G01 X55.085722 Y98.481321 Z-0.125000
G01 X57.423392 Y98.004278 Z-0.125000
G01 X59.973602 Y97.702045 Z-0.125000
G01 X62.311272 Y97.694425 Z-0.125000
G01 X64.223942 Y97.891725 Z-0.125000
G01 X66.242843 Y98.275079 Z-0.125000
G01 X74.212215 Y100.478632 Z-0.125000
G01 X78.143760 Y101.315667 Z-0.125000
G01 X80.375173 Y101.637532 Z-0.125000
G01 X82.819127 Y101.876212 Z-0.125000
G01 X88.663315 Y102.118359 Z-0.125000
G01 X94.613787 Y102.148071 Z-0.125000
G01 X99.607923 Y102.076211 Z-0.125000
G01 X103.220698 Y101.898279 Z-0.125000
G01 X106.195934 Y101.593426 Z-0.125000
G01 X108.746144 Y101.164616 Z-0.125000
G01 X111.190071 Y100.580629 Z-0.125000
G01 X119.053186 Y98.084844 Z-0.125000
G01 X120.540804 Y97.784674 Z-0.125000
G01 X121.922139 Y97.665612 Z-0.125000
G01 X123.622297 Y97.784013 Z-0.125000
G01 X125.216145 Y98.184697 Z-0.125000
G01 X126.855580 Y98.862718 Z-0.125000
G01 X131.060360 Y101.008671 Z-0.125000
G01 X132.229208 Y101.404937 Z-0.125000
G01 X133.398030 Y101.590807 Z-0.125000
G01 X134.566878 Y101.529688 Z-0.125000
G01 X135.735727 Y101.219703 Z-0.125000
G01 X136.965270 Y100.666962 Z-0.125000
G01 X140.426254 Y98.749582 Z-0.125000
G01 X141.473659 Y98.376970 Z-0.125000
G01 X142.536251 Y98.214437 Z-0.125000
G01 X143.492586 Y98.274576 Z-0.125000
G01 X144.555151 Y98.558315 Z-0.125000
G01 X145.617743 Y99.023399 Z-0.125000
G01 X148.592979 Y100.567400 Z-0.125000
G01 X149.655544 Y100.929349 Z-0.125000
G01 X150.611879 Y101.082225 Z-0.125000
G01 X151.568188 Y101.056031 Z-0.125000
G01 X152.524523 Y100.862277 Z-0.125000
G01 X153.587115 Y100.493025 Z-0.125000
G01 X156.881121 Y99.092826 Z-0.125000
G01 X158.049942 Y98.788291 Z-0.125000
G01 X159.112534 Y98.677959 Z-0.125000
G01 X160.175126 Y98.730162 Z-0.125000
G01 X161.237691 Y98.922831 Z-0.125000
G01 X165.275519 Y100.167959 Z-0.125000
G01 X167.188163 Y100.565706 Z-0.125000
G01 X169.313320 Y100.658522 Z-0.125000
G01 X171.757273 Y100.383065 Z-0.125000
G00 Z3.000000

(End cutting path id: polyline1145)


(Start cutting path id: polyline1147)
(Change tool to Default tool)

G00 Z3.000000
G00 X14.920117 Y96.401038

G00 Z4.875000 (Fast pre-penetrate)
G01 Z-0.125000 F400.0(Penetrate)
G01 X17.576557 Y96.821513 Z-0.125000 F800.000000
G01 X23.845798 Y98.375065 Z-0.125000
G01 X27.246060 Y99.030040 Z-0.125000
G01 X31.390145 Y99.488774 Z-0.125000
G01 X35.852972 Y99.638422 Z-0.125000
G01 X39.890799 Y99.518381 Z-0.125000
G01 X43.716088 Y99.154077 Z-0.125000
G01 X47.541376 Y98.503229 Z-0.125000
G01 X53.598104 Y97.095780 Z-0.125000
G01 X55.829544 Y96.656122 Z-0.125000
G01 X58.273471 Y96.375135 Z-0.125000
G01 X60.611141 Y96.378813 Z-0.125000
G01 X62.523811 Y96.599051 Z-0.125000
G01 X64.648968 Y97.050483 Z-0.125000
G01 X71.874519 Y99.271128 Z-0.125000
G01 X75.274780 Y100.098373 Z-0.125000
G01 X79.100095 Y100.640133 Z-0.125000
G01 X83.562922 Y100.854419 Z-0.125000
G01 X102.583159 Y100.858441 Z-0.125000
G01 X105.345856 Y100.774568 Z-0.125000
G01 X107.683552 Y100.580549 Z-0.125000
G01 X109.914966 Y100.240745 Z-0.125000
G01 X112.040149 Y99.744494 Z-0.125000
G01 X114.484076 Y98.960719 Z-0.125000
G01 X119.903239 Y96.911312 Z-0.125000
G01 X121.497113 Y96.505548 Z-0.125000
G01 X122.984731 Y96.343120 Z-0.125000
G01 X124.472349 Y96.446625 Z-0.125000
G01 X126.066223 Y96.876123 Z-0.125000
G01 X127.584189 Y97.557794 Z-0.125000
G01 X131.409504 Y99.649349 Z-0.125000
G01 X132.654234 Y100.097421 Z-0.125000
G01 X133.716826 Y100.268500 Z-0.125000
G01 X134.779391 Y100.212435 Z-0.125000
G01 X135.948240 Y99.887527 Z-0.125000
G01 X137.147436 Y99.315234 Z-0.125000
G01 X140.426254 Y97.415158 Z-0.125000
G01 X141.473659 Y97.035349 Z-0.125000
G01 X142.429994 Y96.891072 Z-0.125000
G01 X143.386303 Y96.960604 Z-0.125000
G01 X144.342638 Y97.231696 Z-0.125000
G01 X145.344508 Y97.687493 Z-0.125000
G01 X148.274183 Y99.269699 Z-0.125000
G01 X149.230518 Y99.606540 Z-0.125000
G01 X150.186853 Y99.762088 Z-0.125000
G01 X151.143162 Y99.721237 Z-0.125000
G01 X152.099497 Y99.499490 Z-0.125000
G01 X156.031042 Y97.795469 Z-0.125000
G01 X157.093634 Y97.487812 Z-0.125000
G01 X158.049942 Y97.361447 Z-0.125000
G01 X159.006278 Y97.384572 Z-0.125000
G01 X160.068869 Y97.567901 Z-0.125000
G01 X164.212927 Y98.921217 Z-0.125000
G01 X166.231828 Y99.304968 Z-0.125000
G01 X167.400676 Y99.343518 Z-0.125000
G01 X168.569524 Y99.257370 Z-0.125000
G01 X171.757273 Y98.640997 Z-0.125000
G00 Z3.000000

(End cutting path id: polyline1147)


(Start cutting path id: polyline1149)
(Change tool to Default tool)

G00 Z3.000000
G00 X14.920117 Y95.037165

G00 Z4.875000 (Fast pre-penetrate)
G01 Z-0.125000 F400.0(Penetrate)
G01 X16.301479 Y95.164324 Z-0.125000 F800.000000
G01 X17.895353 Y95.428880 Z-0.125000
G01 X24.377081 Y96.945073 Z-0.125000
G01 X27.671086 Y97.549222 Z-0.125000
G01 X31.496401 Y97.962897 Z-0.125000
G01 X35.534202 Y98.100719 Z-0.125000
G01 X39.253234 Y97.986922 Z-0.125000
G01 X42.759779 Y97.653177 Z-0.125000
G01 X46.478810 Y97.035772 Z-0.125000
G01 X52.322999 Y95.724737 Z-0.125000
G01 X54.448183 Y95.318496 Z-0.125000
G01 X56.892109 Y95.046611 Z-0.125000
G01 X59.123549 Y95.057670 Z-0.125000
G01 X61.036193 Y95.289366 Z-0.125000
G01 X63.161351 Y95.769769 Z-0.125000
G01 X69.961874 Y98.019783 Z-0.125000
G01 X72.937110 Y98.820887 Z-0.125000
G01 X76.124859 Y99.339867 Z-0.125000
G01 X79.631378 Y99.537828 Z-0.125000
G01 X82.287844 Y99.509438 Z-0.125000
G01 X89.194624 Y99.219217 Z-0.125000
G01 X92.807399 Y99.144102 Z-0.125000
G01 X97.057714 Y99.202707 Z-0.125000
G01 X105.345856 Y99.535579 Z-0.125000
G01 X107.471039 Y99.519968 Z-0.125000
G01 X109.383683 Y99.394635 Z-0.125000
G01 X111.508840 Y99.081898 Z-0.125000
G01 X113.633997 Y98.547864 Z-0.125000
G01 X115.865437 Y97.747315 Z-0.125000
G01 X120.859574 Y95.625862 Z-0.125000
G01 X122.347192 Y95.198508 Z-0.125000
G01 X123.728553 Y95.022216 Z-0.125000
G01 X125.109888 Y95.112571 Z-0.125000
G01 X126.597506 Y95.528311 Z-0.125000
G01 X128.039589 Y96.209718 Z-0.125000
G01 X130.771938 Y97.838887 Z-0.125000
G01 X131.804156 Y98.374694 Z-0.125000
G01 X132.973004 Y98.798318 Z-0.125000
G01 X134.035596 Y98.951882 Z-0.125000
G01 X134.991904 Y98.874386 Z-0.125000
G01 X136.054496 Y98.552838 Z-0.125000
G01 X137.147436 Y98.006871 Z-0.125000
G01 X140.244115 Y96.127617 Z-0.125000
G01 X141.261146 Y95.729499 Z-0.125000
G01 X142.217481 Y95.569321 Z-0.125000
G01 X143.067533 Y95.621047 Z-0.125000
G01 X144.023868 Y95.887826 Z-0.125000
G01 X144.980177 Y96.331876 Z-0.125000
G01 X147.955413 Y97.992716 Z-0.125000
G01 X148.911748 Y98.320111 Z-0.125000
G01 X149.761801 Y98.443116 Z-0.125000
G01 X150.611879 Y98.396787 Z-0.125000
G01 X151.461932 Y98.194196 Z-0.125000
G01 X152.418267 Y97.818753 Z-0.125000
G01 X155.287246 Y96.463876 Z-0.125000
G01 X156.243555 Y96.171538 Z-0.125000
G01 X157.093634 Y96.043930 Z-0.125000
G01 X158.049942 Y96.058297 Z-0.125000
G01 X159.006278 Y96.224931 Z-0.125000
G01 X163.150335 Y97.652118 Z-0.125000
G01 X164.212927 Y97.897254 Z-0.125000
G01 X165.169262 Y98.008300 Z-0.125000
G01 X166.231828 Y98.006977 Z-0.125000
G01 X167.506933 Y97.854392 Z-0.125000
G01 X171.757273 Y96.861729 Z-0.125000
G00 Z3.000000

(End cutting path id: polyline1149)


(Start cutting path id: polyline1151)
(Change tool to Default tool)

G00 Z3.000000
G00 X14.920117 Y93.698534

G00 Z4.875000 (Fast pre-penetrate)
G01 Z-0.125000 F400.0(Penetrate)
G01 X16.407735 Y93.799631 Z-0.125000 F800.000000
G01 X18.107866 Y94.053472 Z-0.125000
G01 X24.695877 Y95.523495 Z-0.125000
G01 X27.989883 Y96.102614 Z-0.125000
G01 X31.496401 Y96.470649 Z-0.125000
G01 X35.215433 Y96.598919 Z-0.125000
G01 X38.615695 Y96.498563 Z-0.125000
G01 X41.909700 Y96.194583 Z-0.125000
G01 X45.522475 Y95.615067 Z-0.125000
G01 X51.366690 Y94.345889 Z-0.125000
G01 X53.491847 Y93.957243 Z-0.125000
G01 X55.829544 Y93.716287 Z-0.125000
G01 X57.954701 Y93.739227 Z-0.125000
G01 X59.867345 Y93.985024 Z-0.125000
G01 X61.886246 Y94.463152 Z-0.125000
G01 X63.798890 Y95.075688 Z-0.125000
G01 X68.580513 Y96.798230 Z-0.125000
G01 X71.236979 Y97.555466 Z-0.125000
G01 X73.999676 Y98.039600 Z-0.125000
G01 X76.974911 Y98.217559 Z-0.125000
G01 X80.375173 Y98.102597 Z-0.125000
G01 X88.982111 Y97.406982 Z-0.125000
G01 X93.338682 Y97.270748 Z-0.125000
G01 X98.439075 Y97.435927 Z-0.125000
G01 X107.364783 Y98.178850 Z-0.125000
G01 X109.277427 Y98.216368 Z-0.125000
G01 X110.977558 Y98.129056 Z-0.125000
G01 X112.890202 Y97.847486 Z-0.125000
G01 X114.802846 Y97.337556 Z-0.125000
G01 X116.821746 Y96.554205 Z-0.125000
G01 X121.709626 Y94.283289 Z-0.125000
G01 X123.090988 Y93.863237 Z-0.125000
G01 X124.366092 Y93.697846 Z-0.125000
G01 X125.641197 Y93.793757 Z-0.125000
G01 X127.022559 Y94.206930 Z-0.125000
G01 X128.403894 Y94.899212 Z-0.125000
G01 X130.863034 Y96.446414 Z-0.125000
G01 X131.955973 Y97.048843 Z-0.125000
G01 X133.079260 Y97.475324 Z-0.125000
G01 X134.035596 Y97.626771 Z-0.125000
G01 X134.991904 Y97.555598 Z-0.125000
G01 X136.054496 Y97.220716 Z-0.125000
G01 X137.056366 Y96.700096 Z-0.125000
G01 X140.061950 Y94.805893 Z-0.125000
G01 X141.048633 Y94.404653 Z-0.125000
G01 X141.898711 Y94.250242 Z-0.125000
G01 X142.748764 Y94.292337 Z-0.125000
G01 X143.705099 Y94.564540 Z-0.125000
G01 X144.615873 Y95.002611 Z-0.125000
G01 X147.439317 Y96.645750 Z-0.125000
G01 X148.380439 Y96.988941 Z-0.125000
G01 X149.336774 Y97.123799 Z-0.125000
G01 X150.080597 Y97.068501 Z-0.125000
G01 X150.930649 Y96.847945 Z-0.125000
G01 X154.437167 Y95.175410 Z-0.125000
G01 X155.393503 Y94.859233 Z-0.125000
G01 X156.243555 Y94.721332 Z-0.125000
G01 X157.093634 Y94.729190 Z-0.125000
G01 X158.049942 Y94.898762 Z-0.125000
G01 X162.087770 Y96.364102 Z-0.125000
G01 X163.150335 Y96.606142 Z-0.125000
G01 X164.106671 Y96.697159 Z-0.125000
G01 X165.063006 Y96.666943 Z-0.125000
G01 X166.125571 Y96.511766 Z-0.125000
G01 X169.950886 Y95.525453 Z-0.125000
G01 X171.757273 Y95.198164 Z-0.125000
G00 Z3.000000

(End cutting path id: polyline1151)


(Start cutting path id: polyline1153)
(Change tool to Default tool)

G00 Z3.000000
G00 X14.920117 Y92.372047

G00 Z4.875000 (Fast pre-penetrate)
G01 Z-0.125000 F400.0(Penetrate)
G01 X16.513992 Y92.458460 Z-0.125000 F800.000000
G01 X18.214123 Y92.695500 Z-0.125000
G01 X24.908390 Y94.140255 Z-0.125000
G01 X28.096139 Y94.684185 Z-0.125000
G01 X31.496401 Y95.032006 Z-0.125000
G01 X34.896663 Y95.148369 Z-0.125000
G01 X38.190668 Y95.053172 Z-0.125000
G01 X41.378417 Y94.760279 Z-0.125000
G01 X44.884936 Y94.204311 Z-0.125000
G01 X50.516611 Y93.004295 Z-0.125000
G01 X52.641795 Y92.622025 Z-0.125000
G01 X54.873209 Y92.394034 Z-0.125000
G01 X56.998366 Y92.417079 Z-0.125000
G01 X58.911010 Y92.670470 Z-0.125000
G01 X60.929937 Y93.167675 Z-0.125000
G01 X62.842581 Y93.808071 Z-0.125000
G01 X67.411691 Y95.529713 Z-0.125000
G01 X69.855618 Y96.262370 Z-0.125000
G01 X72.405828 Y96.734941 Z-0.125000
G01 X74.956011 Y96.895173 Z-0.125000
G01 X76.762398 Y96.849321 Z-0.125000
G01 X78.675042 Y96.696180 Z-0.125000
G01 X88.344546 Y95.538285 Z-0.125000
G01 X91.001012 Y95.364798 Z-0.125000
G01 X93.551195 Y95.306220 Z-0.125000
G01 X96.420174 Y95.373529 Z-0.125000
G01 X99.395410 Y95.591863 Z-0.125000
G01 X108.958657 Y96.815295 Z-0.125000
G01 X110.765045 Y96.895755 Z-0.125000
G01 X112.358919 Y96.826540 Z-0.125000
G01 X114.165306 Y96.539838 Z-0.125000
G01 X115.865437 Y96.040226 Z-0.125000
G01 X117.656638 Y95.283201 Z-0.125000
G01 X122.240935 Y92.977360 Z-0.125000
G01 X123.622297 Y92.529977 Z-0.125000
G01 X124.791119 Y92.374640 Z-0.125000
G01 X125.959967 Y92.466291 Z-0.125000
G01 X127.219885 Y92.852397 Z-0.125000
G01 X128.494989 Y93.507770 Z-0.125000
G01 X131.955973 Y95.701163 Z-0.125000
G01 X133.079260 Y96.151271 Z-0.125000
G01 X134.035596 Y96.305206 Z-0.125000
G01 X134.991904 Y96.218264 Z-0.125000
G01 X135.948240 Y95.896610 Z-0.125000
G01 X136.965270 Y95.344637 Z-0.125000
G01 X139.788715 Y93.495943 Z-0.125000
G01 X140.729863 Y93.094015 Z-0.125000
G01 X141.579915 Y92.928068 Z-0.125000
G01 X142.429994 Y92.972412 Z-0.125000
G01 X143.280046 Y93.218898 Z-0.125000
G01 X144.251569 Y93.700465 Z-0.125000
G01 X146.892848 Y95.297991 Z-0.125000
G01 X147.849157 Y95.665338 Z-0.125000
G01 X148.699235 Y95.798635 Z-0.125000
G01 X149.443031 Y95.753576 Z-0.125000
G01 X150.293110 Y95.531062 Z-0.125000
G01 X153.693372 Y93.846674 Z-0.125000
G01 X154.543424 Y93.549812 Z-0.125000
G01 X155.393503 Y93.399687 Z-0.125000
G01 X156.243555 Y93.408736 Z-0.125000
G01 X157.093634 Y93.565290 Z-0.125000
G01 X160.918922 Y95.026952 Z-0.125000
G01 X161.981514 Y95.285952 Z-0.125000
G01 X162.937822 Y95.376228 Z-0.125000
G01 X163.894158 Y95.329767 Z-0.125000
G01 X164.850466 Y95.167631 Z-0.125000
G01 X169.313320 Y93.973568 Z-0.125000
G01 X170.482168 Y93.813257 Z-0.125000
G01 X171.757273 Y93.768648 Z-0.125000
G00 Z3.000000

(End cutting path id: polyline1153)


(Start cutting path id: polyline1155)
(Change tool to Default tool)

G00 Z3.000000
G00 X14.920117 Y91.049000

G00 Z4.875000 (Fast pre-penetrate)
G01 Z-0.125000 F400.0(Penetrate)
G01 X16.513992 Y91.126046 Z-0.125000 F800.000000
G01 X18.320379 Y91.372982 Z-0.125000
G01 X24.802134 Y92.757544 Z-0.125000
G01 X27.989883 Y93.300971 Z-0.125000
G01 X31.283888 Y93.640617 Z-0.125000
G01 X34.684150 Y93.758779 Z-0.125000
G01 X37.871899 Y93.665514 Z-0.125000
G01 X40.953391 Y93.382833 Z-0.125000
G01 X44.353653 Y92.848058 Z-0.125000
G01 X52.004229 Y91.295459 Z-0.125000
G01 X54.235669 Y91.068976 Z-0.125000
G01 X56.360827 Y91.099773 Z-0.125000
G01 X58.273471 Y91.368590 Z-0.125000
G01 X60.292371 Y91.891432 Z-0.125000
G01 X62.098759 Y92.521827 Z-0.125000
G01 X66.349099 Y94.188330 Z-0.125000
G01 X68.686770 Y94.931358 Z-0.125000
G01 X71.024466 Y95.401946 Z-0.125000
G01 X73.362136 Y95.571464 Z-0.125000
G01 X75.168524 Y95.519077 Z-0.125000
G01 X77.293681 Y95.303230 Z-0.125000
G01 X84.519258 Y94.114538 Z-0.125000
G01 X87.707006 Y93.685543 Z-0.125000
G01 X90.682242 Y93.433395 Z-0.125000
G01 X93.657452 Y93.343172 Z-0.125000
G01 X96.526431 Y93.417414 Z-0.125000
G01 X99.395410 Y93.655513 Z-0.125000
G01 X102.583159 Y94.106283 Z-0.125000
G01 X109.596196 Y95.382446 Z-0.125000
G01 X111.615097 Y95.563341 Z-0.125000
G01 X113.315228 Y95.523072 Z-0.125000
G01 X114.909102 Y95.272644 Z-0.125000
G01 X116.502977 Y94.789780 Z-0.125000
G01 X118.294204 Y93.985342 Z-0.125000
G01 X122.574892 Y91.679369 Z-0.125000
G01 X123.941066 Y91.206691 Z-0.125000
G01 X125.109888 Y91.049952 Z-0.125000
G01 X126.278736 Y91.168141 Z-0.125000
G01 X127.447585 Y91.566630 Z-0.125000
G01 X128.586059 Y92.185542 Z-0.125000
G01 X130.954103 Y93.803547 Z-0.125000
G01 X131.955973 Y94.402351 Z-0.125000
G01 X132.973004 Y94.822641 Z-0.125000
G01 X133.929339 Y94.982687 Z-0.125000
G01 X134.885648 Y94.884607 Z-0.125000
G01 X135.781261 Y94.565361 Z-0.125000
G01 X136.783131 Y93.998783 Z-0.125000
G01 X139.515480 Y92.155301 Z-0.125000
G01 X140.411093 Y91.765094 Z-0.125000
G01 X141.261146 Y91.602190 Z-0.125000
G01 X142.004968 Y91.643041 Z-0.125000
G01 X142.855020 Y91.892014 Z-0.125000
G01 X143.796168 Y92.369719 Z-0.125000
G01 X146.437447 Y94.009736 Z-0.125000
G01 X147.317874 Y94.349673 Z-0.125000
G01 X148.167926 Y94.477599 Z-0.125000
G01 X148.911748 Y94.417115 Z-0.125000
G01 X149.655544 Y94.207988 Z-0.125000
G01 X152.949549 Y92.517118 Z-0.125000
G01 X153.799628 Y92.213588 Z-0.125000
G01 X154.543424 Y92.078836 Z-0.125000
G01 X155.393503 Y92.086641 Z-0.125000
G01 X156.243555 Y92.255260 Z-0.125000
G01 X159.856330 Y93.706842 Z-0.125000
G01 X160.812665 Y93.955470 Z-0.125000
G01 X161.662744 Y94.050323 Z-0.125000
G01 X162.512796 Y94.023389 Z-0.125000
G01 X163.469131 Y93.865750 Z-0.125000
G01 X166.869393 Y92.851339 Z-0.125000
G01 X168.357011 Y92.541539 Z-0.125000
G01 X169.950886 Y92.445628 Z-0.125000
G01 X171.757273 Y92.606229 Z-0.125000
G00 Z3.000000

(End cutting path id: polyline1155)


(Start cutting path id: polyline1157)
(Change tool to Default tool)

G00 Z3.000000
G00 X14.920117 Y89.726164

G00 Z4.875000 (Fast pre-penetrate)
G01 Z-0.125000 F400.0(Penetrate)
G01 X16.513992 Y89.812154 Z-0.125000 F800.000000
G01 X18.214123 Y90.049643 Z-0.125000
G01 X24.695877 Y91.442196 Z-0.125000
G01 X27.883626 Y91.985888 Z-0.125000
G01 X31.177631 Y92.322702 Z-0.125000
G01 X34.471637 Y92.435044 Z-0.125000
G01 X37.659386 Y92.340006 Z-0.125000
G01 X40.740852 Y92.052166 Z-0.125000
G01 X44.141114 Y91.507575 Z-0.125000
G01 X51.579203 Y89.977227 Z-0.125000
G01 X53.810617 Y89.745955 Z-0.125000
G01 X55.829544 Y89.771540 Z-0.125000
G01 X57.742188 Y90.039483 Z-0.125000
G01 X59.761089 Y90.573121 Z-0.125000
G01 X61.567476 Y91.222275 Z-0.125000
G01 X65.711534 Y92.899070 Z-0.125000
G01 X67.942974 Y93.630589 Z-0.125000
G01 X70.068131 Y94.077205 Z-0.125000
G01 X72.299545 Y94.248919 Z-0.125000
G01 X74.212215 Y94.174572 Z-0.125000
G01 X76.231116 Y93.925149 Z-0.125000
G01 X83.775435 Y92.435256 Z-0.125000
G01 X87.175697 Y91.891326 Z-0.125000
G01 X90.575986 Y91.555359 Z-0.125000
G01 X93.869991 Y91.444525 Z-0.125000
G01 X97.057714 Y91.547421 Z-0.125000
G01 X100.245463 Y91.871853 Z-0.125000
G01 X103.539468 Y92.445151 Z-0.125000
G01 X110.446275 Y93.999497 Z-0.125000
G01 X112.358919 Y94.227991 Z-0.125000
G01 X114.059050 Y94.208888 Z-0.125000
G01 X115.546668 Y93.966768 Z-0.125000
G01 X117.034286 Y93.490598 Z-0.125000
G01 X118.658508 Y92.721429 Z-0.125000
G01 X122.772218 Y90.376192 Z-0.125000
G01 X124.047323 Y89.901794 Z-0.125000
G01 X125.216145 Y89.727487 Z-0.125000
G01 X126.278736 Y89.828558 Z-0.125000
G01 X127.402050 Y90.209637 Z-0.125000
G01 X128.586059 Y90.872708 Z-0.125000
G01 X131.773808 Y93.052872 Z-0.125000
G01 X132.760491 Y93.486100 Z-0.125000
G01 X133.716826 Y93.659137 Z-0.125000
G01 X134.566878 Y93.582541 Z-0.125000
G01 X135.508026 Y93.251891 Z-0.125000
G01 X136.418801 Y92.728149 Z-0.125000
G01 X139.151176 Y90.832386 Z-0.125000
G01 X139.986041 Y90.454931 Z-0.125000
G01 X140.836120 Y90.280280 Z-0.125000
G01 X141.579915 Y90.321820 Z-0.125000
G01 X142.429994 Y90.582090 Z-0.125000
G01 X143.249699 Y91.008519 Z-0.125000
G01 X145.890978 Y92.693224 Z-0.125000
G01 X146.786591 Y93.041495 Z-0.125000
G01 X147.530387 Y93.153837 Z-0.125000
G01 X148.274183 Y93.095126 Z-0.125000
G01 X149.018005 Y92.878115 Z-0.125000
G01 X152.312010 Y91.138667 Z-0.125000
G01 X153.162063 Y90.850457 Z-0.125000
G01 X153.905885 Y90.742745 Z-0.125000
G01 X154.649680 Y90.777061 Z-0.125000
G01 X155.393503 Y90.941658 Z-0.125000
G01 X158.793765 Y92.374375 Z-0.125000
G01 X159.643817 Y92.614220 Z-0.125000
G01 X160.493896 Y92.725027 Z-0.125000
G01 X161.343948 Y92.701135 Z-0.125000
G01 X162.194027 Y92.557652 Z-0.125000
G01 X165.700545 Y91.461008 Z-0.125000
G01 X167.294420 Y91.162929 Z-0.125000
G01 X169.207064 Y91.178592 Z-0.125000
G01 X171.757273 Y91.640025 Z-0.125000
G00 Z3.000000

(End cutting path id: polyline1157)


(Start cutting path id: polyline1159)
(Change tool to Default tool)

G00 Z3.000000
G00 X14.920117 Y88.406609

G00 Z4.875000 (Fast pre-penetrate)
G01 Z-0.125000 F400.0(Penetrate)
G01 X16.407735 Y88.508289 Z-0.125000 F800.000000
G01 X18.107866 Y88.764220 Z-0.125000
G01 X24.377081 Y90.152725 Z-0.125000
G01 X27.458573 Y90.695861 Z-0.125000
G01 X30.858835 Y91.058048 Z-0.125000
G01 X34.259097 Y91.178672 Z-0.125000
G01 X37.446846 Y91.084507 Z-0.125000
G01 X40.634595 Y90.782379 Z-0.125000
G01 X44.034857 Y90.223395 Z-0.125000
G01 X51.472947 Y88.650396 Z-0.125000
G01 X53.598104 Y88.424601 Z-0.125000
G01 X55.617004 Y88.449551 Z-0.125000
G01 X57.529675 Y88.727919 Z-0.125000
G01 X59.442319 Y89.248354 Z-0.125000
G01 X61.248706 Y89.914944 Z-0.125000
G01 X65.286508 Y91.595734 Z-0.125000
G01 X67.411691 Y92.314050 Z-0.125000
G01 X69.430592 Y92.754899 Z-0.125000
G01 X71.449492 Y92.924523 Z-0.125000
G01 X73.362136 Y92.850281 Z-0.125000
G01 X75.487294 Y92.556117 Z-0.125000
G01 X83.137896 Y90.832650 Z-0.125000
G01 X86.750671 Y90.180162 Z-0.125000
G01 X90.363446 Y89.781409 Z-0.125000
G01 X93.976248 Y89.644170 Z-0.125000
G01 X97.482766 Y89.769185 Z-0.125000
G01 X100.883028 Y90.161191 Z-0.125000
G01 X104.283290 Y90.843445 Z-0.125000
G01 X111.083814 Y92.630492 Z-0.125000
G01 X112.996458 Y92.900578 Z-0.125000
G01 X114.590333 Y92.890101 Z-0.125000
G01 X116.077951 Y92.629698 Z-0.125000
G01 X117.459312 Y92.151411 Z-0.125000
G01 X118.931743 Y91.412801 Z-0.125000
G01 X121.846257 Y89.614748 Z-0.125000
G01 X122.939196 Y89.023723 Z-0.125000
G01 X124.153579 Y88.564671 Z-0.125000
G01 X125.216145 Y88.404810 Z-0.125000
G01 X126.278736 Y88.512575 Z-0.125000
G01 X127.402050 Y88.920350 Z-0.125000
G01 X128.494989 Y89.562440 Z-0.125000
G01 X131.500573 Y91.694741 Z-0.125000
G01 X132.441721 Y92.135801 Z-0.125000
G01 X133.398030 Y92.333868 Z-0.125000
G01 X134.248109 Y92.266134 Z-0.125000
G01 X135.143722 Y91.951307 Z-0.125000
G01 X136.145566 Y91.359435 Z-0.125000
G01 X138.786845 Y89.482563 Z-0.125000
G01 X139.667271 Y89.093414 Z-0.125000
G01 X140.411093 Y88.955116 Z-0.125000
G01 X141.154889 Y89.008271 Z-0.125000
G01 X141.974594 Y89.277722 Z-0.125000
G01 X142.794298 Y89.725899 Z-0.125000
G01 X145.344508 Y91.391767 Z-0.125000
G01 X146.149026 Y91.711542 Z-0.125000
G01 X146.892848 Y91.830737 Z-0.125000
G01 X147.530387 Y91.788615 Z-0.125000
G01 X148.274183 Y91.582478 Z-0.125000
G01 X149.078727 Y91.206903 Z-0.125000
G01 X151.461932 Y89.851074 Z-0.125000
G01 X152.312010 Y89.540744 Z-0.125000
G01 X153.055806 Y89.421497 Z-0.125000
G01 X153.799628 Y89.454411 Z-0.125000
G01 X154.543424 Y89.626575 Z-0.125000
G01 X157.731173 Y91.029394 Z-0.125000
G01 X158.581252 Y91.285616 Z-0.125000
G01 X159.325047 Y91.396159 Z-0.125000
G01 X160.175126 Y91.384015 Z-0.125000
G01 X161.025178 Y91.238970 Z-0.125000
G01 X164.531697 Y90.092029 Z-0.125000
G01 X166.231828 Y89.810460 Z-0.125000
G01 X167.188163 Y89.815064 Z-0.125000
G01 X168.250728 Y89.940397 Z-0.125000
G01 X171.757273 Y90.720229 Z-0.125000
G00 Z3.000000

(End cutting path id: polyline1159)


(Start cutting path id: polyline1161)
(Change tool to Default tool)

G00 Z3.000000
G00 X14.920117 Y87.100310

G00 Z4.875000 (Fast pre-penetrate)
G01 Z-0.125000 F400.0(Penetrate)
G01 X16.301479 Y87.231411 Z-0.125000 F800.000000
G01 X17.789097 Y87.480595 Z-0.125000
G01 X23.845798 Y88.887198 Z-0.125000
G01 X27.033547 Y89.474175 Z-0.125000
G01 X30.540066 Y89.859355 Z-0.125000
G01 X34.152841 Y89.987466 Z-0.125000
G01 X37.446846 Y89.883935 Z-0.125000
G01 X40.634595 Y89.572388 Z-0.125000
G01 X44.034857 Y88.995439 Z-0.125000
G01 X51.472947 Y87.346266 Z-0.125000
G01 X53.598104 Y87.104623 Z-0.125000
G01 X55.617004 Y87.126557 Z-0.125000
G01 X57.423392 Y87.392172 Z-0.125000
G01 X59.336062 Y87.920941 Z-0.125000
G01 X61.036193 Y88.560941 Z-0.125000
G01 X65.073995 Y90.285175 Z-0.125000
G01 X67.092895 Y90.987881 Z-0.125000
G01 X69.111822 Y91.440847 Z-0.125000
G01 X71.024466 Y91.602163 Z-0.125000
G01 X72.937110 Y91.515777 Z-0.125000
G01 X75.062267 Y91.188223 Z-0.125000
G01 X82.712870 Y89.290369 Z-0.125000
G01 X86.431902 Y88.559962 Z-0.125000
G01 X90.257190 Y88.107630 Z-0.125000
G01 X94.188761 Y87.952611 Z-0.125000
G01 X97.907792 Y88.099772 Z-0.125000
G01 X101.414311 Y88.542764 Z-0.125000
G01 X104.814573 Y89.298069 Z-0.125000
G01 X111.615097 Y91.294877 Z-0.125000
G01 X113.315228 Y91.566392 Z-0.125000
G01 X114.909102 Y91.571022 Z-0.125000
G01 X116.290464 Y91.324801 Z-0.125000
G01 X117.565568 Y90.874322 Z-0.125000
G01 X119.022812 Y90.120499 Z-0.125000
G01 X122.848127 Y87.738722 Z-0.125000
G01 X124.047323 Y87.255303 Z-0.125000
G01 X125.109888 Y87.082239 Z-0.125000
G01 X126.172480 Y87.194846 Z-0.125000
G01 X127.219885 Y87.587302 Z-0.125000
G01 X128.312824 Y88.249077 Z-0.125000
G01 X131.318408 Y90.427970 Z-0.125000
G01 X132.229208 Y90.844821 Z-0.125000
G01 X133.079260 Y91.011270 Z-0.125000
G01 X133.929339 Y90.935573 Z-0.125000
G01 X134.779391 Y90.624423 Z-0.125000
G01 X135.690192 Y90.076366 Z-0.125000
G01 X138.331471 Y88.155652 Z-0.125000
G01 X139.135989 Y87.786321 Z-0.125000
G01 X139.986041 Y87.628841 Z-0.125000
G01 X140.729863 Y87.705650 Z-0.125000
G01 X141.428124 Y87.950415 Z-0.125000
G01 X142.247829 Y88.409123 Z-0.125000
G01 X144.615873 Y90.008845 Z-0.125000
G01 X145.405230 Y90.355660 Z-0.125000
G01 X146.149026 Y90.502821 Z-0.125000
G01 X146.892848 Y90.459800 Z-0.125000
G01 X147.621456 Y90.244958 Z-0.125000
G01 X150.718136 Y88.512416 Z-0.125000
G01 X151.568188 Y88.203066 Z-0.125000
G01 X152.312010 Y88.094878 Z-0.125000
G01 X152.949549 Y88.130834 Z-0.125000
G01 X153.693372 Y88.310354 Z-0.125000
G01 X156.774864 Y89.714549 Z-0.125000
G01 X157.518660 Y89.950239 Z-0.125000
G01 X158.262456 Y90.071445 Z-0.125000
G01 X159.006278 Y90.070122 Z-0.125000
G01 X159.856330 Y89.930845 Z-0.125000
G01 X163.256592 Y88.770252 Z-0.125000
G01 X164.212927 Y88.558427 Z-0.125000
G01 X165.063006 Y88.478761 Z-0.125000
G01 X166.763137 Y88.616212 Z-0.125000
G01 X170.163399 Y89.426683 Z-0.125000
G01 X171.757273 Y89.680232 Z-0.125000
G00 Z3.000000

(End cutting path id: polyline1161)


(Start cutting path id: polyline1163)
(Change tool to Default tool)

G00 Z3.000000
G00 X14.920117 Y85.824438

G00 Z4.875000 (Fast pre-penetrate)
G01 Z-0.125000 F400.0(Penetrate)
G01 X17.364044 Y86.219540 Z-0.125000 F800.000000
G01 X23.208259 Y87.664666 Z-0.125000
G01 X26.396008 Y88.285801 Z-0.125000
G01 X30.115040 Y88.712996 Z-0.125000
G01 X34.046584 Y88.853464 Z-0.125000
G01 X37.553103 Y88.737973 Z-0.125000
G01 X40.953391 Y88.388803 Z-0.125000
G01 X44.353653 Y87.776955 Z-0.125000
G01 X49.879072 Y86.424195 Z-0.125000
G01 X51.791716 Y86.028564 Z-0.125000
G01 X53.916873 Y85.779300 Z-0.125000
G01 X55.829544 Y85.803589 Z-0.125000
G01 X57.635931 Y86.079999 Z-0.125000
G01 X59.442319 Y86.595327 Z-0.125000
G01 X61.142450 Y87.252498 Z-0.125000
G01 X65.073995 Y88.973452 Z-0.125000
G01 X66.986639 Y89.657134 Z-0.125000
G01 X68.899283 Y90.105814 Z-0.125000
G01 X70.811953 Y90.278957 Z-0.125000
G01 X72.724597 Y90.187173 Z-0.125000
G01 X74.849754 Y89.835834 Z-0.125000
G01 X82.500357 Y87.803863 Z-0.125000
G01 X86.219389 Y87.029190 Z-0.125000
G01 X90.150933 Y86.538944 Z-0.125000
G01 X94.295017 Y86.366251 Z-0.125000
G01 X98.226562 Y86.527726 Z-0.125000
G01 X101.839337 Y87.014056 Z-0.125000
G01 X105.239599 Y87.831750 Z-0.125000
G01 X110.233735 Y89.482695 Z-0.125000
G01 X111.827610 Y89.940318 Z-0.125000
G01 X113.527741 Y90.239905 Z-0.125000
G01 X115.015359 Y90.254166 Z-0.125000
G01 X116.290464 Y90.033027 Z-0.125000
G01 X117.656638 Y89.538442 Z-0.125000
G01 X119.022812 Y88.802240 Z-0.125000
G01 X122.757031 Y86.401044 Z-0.125000
G01 X123.941066 Y85.917968 Z-0.125000
G01 X125.003632 Y85.757631 Z-0.125000
G01 X125.959967 Y85.872486 Z-0.125000
G01 X126.946650 Y86.249782 Z-0.125000
G01 X128.039589 Y86.924812 Z-0.125000
G01 X130.863034 Y89.040100 Z-0.125000
G01 X131.804156 Y89.501560 Z-0.125000
G01 X132.654234 Y89.686080 Z-0.125000
G01 X133.504286 Y89.617209 Z-0.125000
G01 X134.324018 Y89.316246 Z-0.125000
G01 X135.234792 Y88.758902 Z-0.125000
G01 X137.784975 Y86.857158 Z-0.125000
G01 X138.604706 Y86.466872 Z-0.125000
G01 X139.454758 Y86.305847 Z-0.125000
G01 X140.198580 Y86.389085 Z-0.125000
G01 X140.881654 Y86.639407 Z-0.125000
G01 X141.701359 Y87.113989 Z-0.125000
G01 X144.069403 Y88.737312 Z-0.125000
G01 X144.767664 Y89.039254 Z-0.125000
G01 X145.511486 Y89.182287 Z-0.125000
G01 X146.149026 Y89.145881 Z-0.125000
G01 X146.892848 Y88.929822 Z-0.125000
G01 X147.621456 Y88.572953 Z-0.125000
G01 X149.989501 Y87.162566 Z-0.125000
G01 X150.718136 Y86.891157 Z-0.125000
G01 X151.461932 Y86.772624 Z-0.125000
G01 X152.099497 Y86.806729 Z-0.125000
G01 X152.843293 Y86.992228 Z-0.125000
G01 X155.818529 Y88.393751 Z-0.125000
G01 X156.562325 Y88.634521 Z-0.125000
G01 X157.306147 Y88.752684 Z-0.125000
G01 X158.049942 Y88.739349 Z-0.125000
G01 X158.793765 Y88.605602 Z-0.125000
G01 X162.087770 Y87.434875 Z-0.125000
G01 X162.937822 Y87.238846 Z-0.125000
G01 X163.787901 Y87.155264 Z-0.125000
G01 X165.488032 Y87.314913 Z-0.125000
G01 X169.525833 Y88.288817 Z-0.125000
G01 X170.588425 Y88.402270 Z-0.125000
G01 X171.757273 Y88.410287 Z-0.125000
G00 Z3.000000

(End cutting path id: polyline1163)


(Start cutting path id: polyline1165)
(Change tool to Default tool)

G00 Z3.000000
G00 X14.920117 Y84.602726

G00 Z4.875000 (Fast pre-penetrate)
G01 Z-0.125000 F400.0(Penetrate)
G01 X17.151531 Y85.060507 Z-0.125000 F800.000000
G01 X22.783233 Y86.557888 Z-0.125000
G01 X25.652186 Y87.138780 Z-0.125000
G01 X29.690014 Y87.614289 Z-0.125000
G01 X34.046584 Y87.760603 Z-0.125000
G01 X37.871899 Y87.626328 Z-0.125000
G01 X41.378417 Y87.250911 Z-0.125000
G01 X44.884936 Y86.581198 Z-0.125000
G01 X50.304098 Y85.157451 Z-0.125000
G01 X52.216742 Y84.730096 Z-0.125000
G01 X54.235669 Y84.465989 Z-0.125000
G01 X56.148314 Y84.473133 Z-0.125000
G01 X57.954701 Y84.748591 Z-0.125000
G01 X59.761089 Y85.276222 Z-0.125000
G01 X61.461220 Y85.952734 Z-0.125000
G01 X65.180251 Y87.622279 Z-0.125000
G01 X67.199152 Y88.359196 Z-0.125000
G01 X69.111822 Y88.803457 Z-0.125000
G01 X70.918210 Y88.957127 Z-0.125000
G01 X72.830854 Y88.850421 Z-0.125000
G01 X74.849754 Y88.495880 Z-0.125000
G01 X82.287844 Y86.422263 Z-0.125000
G01 X85.900619 Y85.620233 Z-0.125000
G01 X89.619651 Y85.106704 Z-0.125000
G01 X93.444939 Y84.885062 Z-0.125000
G01 X95.782635 Y84.892762 Z-0.125000
G01 X98.014049 Y85.008438 Z-0.125000
G01 X100.139206 Y85.232910 Z-0.125000
G01 X102.051850 Y85.547711 Z-0.125000
G01 X103.751981 Y85.928684 Z-0.125000
G01 X105.558395 Y86.440811 Z-0.125000
G01 X111.615097 Y88.523026 Z-0.125000
G01 X112.996458 Y88.836477 Z-0.125000
G01 X114.165306 Y88.954719 Z-0.125000
G01 X115.759181 Y88.827931 Z-0.125000
G01 X117.246799 Y88.365811 Z-0.125000
G01 X118.840673 Y87.521209 Z-0.125000
G01 X121.481926 Y85.717732 Z-0.125000
G01 X122.574892 Y85.059105 Z-0.125000
G01 X123.728553 Y84.585131 Z-0.125000
G01 X124.684862 Y84.435642 Z-0.125000
G01 X125.641197 Y84.543777 Z-0.125000
G01 X126.673415 Y84.949727 Z-0.125000
G01 X127.766354 Y85.652829 Z-0.125000
G01 X130.498703 Y87.740495 Z-0.125000
G01 X131.379129 Y88.178486 Z-0.125000
G01 X132.229208 Y88.364408 Z-0.125000
G01 X133.079260 Y88.286171 Z-0.125000
G01 X133.868617 Y87.982827 Z-0.125000
G01 X134.779391 Y87.409290 Z-0.125000
G01 X137.238505 Y85.535884 Z-0.125000
G01 X138.073397 Y85.134564 Z-0.125000
G01 X138.817219 Y84.985551 Z-0.125000
G01 X139.561015 Y85.054713 Z-0.125000
G01 X140.244115 Y85.300564 Z-0.125000
G01 X141.063820 Y85.779406 Z-0.125000
G01 X143.431864 Y87.430430 Z-0.125000
G01 X144.130125 Y87.730415 Z-0.125000
G01 X144.873921 Y87.862203 Z-0.125000
G01 X145.511486 Y87.809419 Z-0.125000
G01 X146.255282 Y87.569522 Z-0.125000
G01 X149.169796 Y85.852007 Z-0.125000
G01 X149.868057 Y85.579090 Z-0.125000
G01 X150.611879 Y85.450741 Z-0.125000
G01 X151.249419 Y85.483814 Z-0.125000
G01 X151.993241 Y85.675001 Z-0.125000
G01 X154.862194 Y87.067343 Z-0.125000
G01 X155.606016 Y87.315443 Z-0.125000
G01 X156.349811 Y87.432388 Z-0.125000
G01 X156.987377 Y87.420879 Z-0.125000
G01 X157.731173 Y87.288085 Z-0.125000
G01 X160.918922 Y86.113177 Z-0.125000
G01 X161.769000 Y85.910586 Z-0.125000
G01 X162.512796 Y85.833672 Z-0.125000
G01 X164.106671 Y85.978875 Z-0.125000
G01 X167.081906 Y86.779979 Z-0.125000
G01 X168.463268 Y87.033212 Z-0.125000
G01 X169.950886 Y87.092029 Z-0.125000
G01 X171.757273 Y86.905312 Z-0.125000
G00 Z3.000000

(End cutting path id: polyline1165)


(Start cutting path id: polyline1167)
(Change tool to Default tool)

G00 Z3.000000
G00 X14.920117 Y83.463379

G00 Z4.875000 (Fast pre-penetrate)
G01 Z-0.125000 F400.0(Penetrate)
G01 X21.720641 Y85.358560 Z-0.125000 F800.000000
G01 X25.014647 Y86.058409 Z-0.125000
G01 X27.033547 Y86.341195 Z-0.125000
G01 X29.264961 Y86.541749 Z-0.125000
G01 X34.259097 Y86.680390 Z-0.125000
G01 X38.509438 Y86.520185 Z-0.125000
G01 X42.122213 Y86.113945 Z-0.125000
G01 X45.628732 Y85.397613 Z-0.125000
G01 X51.047921 Y83.862343 Z-0.125000
G01 X52.854308 Y83.429089 Z-0.125000
G01 X54.873209 Y83.144794 Z-0.125000
G01 X56.679596 Y83.145323 Z-0.125000
G01 X58.379727 Y83.400170 Z-0.125000
G01 X60.186115 Y83.930791 Z-0.125000
G01 X61.779989 Y84.573622 Z-0.125000
G01 X65.605277 Y86.324368 Z-0.125000
G01 X67.517948 Y87.033794 Z-0.125000
G01 X69.430592 Y87.484961 Z-0.125000
G01 X71.236979 Y87.634900 Z-0.125000
G01 X73.043367 Y87.528432 Z-0.125000
G01 X75.062267 Y87.165001 Z-0.125000
G01 X82.394100 Y85.060031 Z-0.125000
G01 X86.006876 Y84.233421 Z-0.125000
G01 X89.619651 Y83.716664 Z-0.125000
G01 X93.444939 Y83.481264 Z-0.125000
G01 X95.782635 Y83.483117 Z-0.125000
G01 X98.014049 Y83.594532 Z-0.125000
G01 X100.139206 Y83.817470 Z-0.125000
G01 X102.158133 Y84.156242 Z-0.125000
G01 X103.858264 Y84.551450 Z-0.125000
G01 X105.558395 Y85.050877 Z-0.125000
G01 X111.615097 Y87.209900 Z-0.125000
G01 X112.996458 Y87.526156 Z-0.125000
G01 X114.165306 Y87.634424 Z-0.125000
G01 X115.652924 Y87.495782 Z-0.125000
G01 X117.110168 Y87.020327 Z-0.125000
G01 X118.567438 Y86.228271 Z-0.125000
G01 X122.210561 Y83.767755 Z-0.125000
G01 X123.303501 Y83.290553 Z-0.125000
G01 X124.259836 Y83.115478 Z-0.125000
G01 X125.216145 Y83.206654 Z-0.125000
G01 X126.218015 Y83.591834 Z-0.125000
G01 X127.288200 Y84.278003 Z-0.125000
G01 X130.043329 Y86.421178 Z-0.125000
G01 X130.954103 Y86.874065 Z-0.125000
G01 X131.804156 Y87.044748 Z-0.125000
G01 X132.547978 Y86.968998 Z-0.125000
G01 X133.322148 Y86.672770 Z-0.125000
G01 X134.221545 Y86.102118 Z-0.125000
G01 X136.692035 Y84.192225 Z-0.125000
G01 X137.542114 Y83.790086 Z-0.125000
G01 X138.285910 Y83.659620 Z-0.125000
G01 X138.923476 Y83.728094 Z-0.125000
G01 X139.606549 Y83.976061 Z-0.125000
G01 X140.426254 Y84.464375 Z-0.125000
G01 X142.703229 Y86.086693 Z-0.125000
G01 X143.492586 Y86.428031 Z-0.125000
G01 X144.130125 Y86.537939 Z-0.125000
G01 X144.767664 Y86.488938 Z-0.125000
G01 X145.405230 Y86.291057 Z-0.125000
G01 X146.164213 Y85.901246 Z-0.125000
G01 X148.350092 Y84.537533 Z-0.125000
G01 X149.124261 Y84.235035 Z-0.125000
G01 X149.761801 Y84.128858 Z-0.125000
G01 X150.399366 Y84.160767 Z-0.125000
G01 X151.036905 Y84.320892 Z-0.125000
G01 X153.905885 Y85.737258 Z-0.125000
G01 X154.649680 Y85.992951 Z-0.125000
G01 X155.393503 Y86.110770 Z-0.125000
G01 X156.031042 Y86.093757 Z-0.125000
G01 X156.774864 Y85.947548 Z-0.125000
G01 X159.750073 Y84.803941 Z-0.125000
G01 X161.237691 Y84.514911 Z-0.125000
G01 X161.981514 Y84.525335 Z-0.125000
G01 X162.831566 Y84.651118 Z-0.125000
G01 X165.913058 Y85.512204 Z-0.125000
G01 X167.400676 Y85.750461 Z-0.125000
G01 X169.207064 Y85.707466 Z-0.125000
G01 X171.757273 Y85.264792 Z-0.125000
G00 Z3.000000

(End cutting path id: polyline1167)


(Start cutting path id: polyline1169)
(Change tool to Default tool)

G00 Z3.000000
G00 X14.920117 Y82.434442

G00 Z4.875000 (Fast pre-penetrate)
G01 Z-0.125000 F400.0(Penetrate)
G01 X20.764306 Y84.234744 Z-0.125000 F800.000000
G01 X22.676950 Y84.696388 Z-0.125000
G01 X24.483364 Y85.027064 Z-0.125000
G01 X26.608521 Y85.294346 Z-0.125000
G01 X29.052448 Y85.472648 Z-0.125000
G01 X35.215433 Y85.564432 Z-0.125000
G01 X39.678286 Y85.377187 Z-0.125000
G01 X43.291061 Y84.940546 Z-0.125000
G01 X46.691323 Y84.183865 Z-0.125000
G01 X51.791716 Y82.617057 Z-0.125000
G01 X53.598104 Y82.142871 Z-0.125000
G01 X55.510748 Y81.837384 Z-0.125000
G01 X57.317135 Y81.813598 Z-0.125000
G01 X59.017266 Y82.062015 Z-0.125000
G01 X60.823680 Y82.601156 Z-0.125000
G01 X62.417528 Y83.259517 Z-0.125000
G01 X66.136586 Y84.996055 Z-0.125000
G01 X68.049230 Y85.716488 Z-0.125000
G01 X69.961874 Y86.169190 Z-0.125000
G01 X71.768262 Y86.312488 Z-0.125000
G01 X73.574649 Y86.194140 Z-0.125000
G01 X75.593550 Y85.815601 Z-0.125000
G01 X82.712870 Y83.738466 Z-0.125000
G01 X86.219389 Y82.919661 Z-0.125000
G01 X89.725907 Y82.400549 Z-0.125000
G01 X93.444939 Y82.156630 Z-0.125000
G01 X95.782635 Y82.152608 Z-0.125000
G01 X98.014049 Y82.262542 Z-0.125000
G01 X100.139206 Y82.488523 Z-0.125000
G01 X102.051850 Y82.813616 Z-0.125000
G01 X103.751981 Y83.213533 Z-0.125000
G01 X105.452139 Y83.721929 Z-0.125000
G01 X111.402584 Y85.885504 Z-0.125000
G01 X112.783945 Y86.206602 Z-0.125000
G01 X113.952793 Y86.312012 Z-0.125000
G01 X115.440411 Y86.158104 Z-0.125000
G01 X116.821746 Y85.689739 Z-0.125000
G01 X118.294204 Y84.869108 Z-0.125000
G01 X121.846257 Y82.430288 Z-0.125000
G01 X122.878474 Y81.973697 Z-0.125000
G01 X123.834810 Y81.792511 Z-0.125000
G01 X124.791119 Y81.886940 Z-0.125000
G01 X125.762641 Y82.267860 Z-0.125000
G01 X126.764484 Y82.915189 Z-0.125000
G01 X129.587929 Y85.134855 Z-0.125000
G01 X130.422821 Y85.549272 Z-0.125000
G01 X131.272873 Y85.722230 Z-0.125000
G01 X132.016695 Y85.640844 Z-0.125000
G01 X132.866747 Y85.292097 Z-0.125000
G01 X133.663698 Y84.764095 Z-0.125000
G01 X136.054496 Y82.882249 Z-0.125000
G01 X136.798292 Y82.506964 Z-0.125000
G01 X137.542114 Y82.341362 Z-0.125000
G01 X138.285910 Y82.408857 Z-0.125000
G01 X138.969010 Y82.665952 Z-0.125000
G01 X139.697645 Y83.105398 Z-0.125000
G01 X141.974594 Y84.755232 Z-0.125000
G01 X142.748764 Y85.099798 Z-0.125000
G01 X143.386303 Y85.214680 Z-0.125000
G01 X144.023868 Y85.165150 Z-0.125000
G01 X144.661408 Y84.961659 Z-0.125000
G01 X145.344508 Y84.606509 Z-0.125000
G01 X147.530387 Y83.216893 Z-0.125000
G01 X148.274183 Y82.918179 Z-0.125000
G01 X148.911748 Y82.806234 Z-0.125000
G01 X149.549288 Y82.838063 Z-0.125000
G01 X150.186853 Y83.003507 Z-0.125000
G01 X153.055806 Y84.449612 Z-0.125000
G01 X153.799628 Y84.695542 Z-0.125000
G01 X154.543424 Y84.793199 Z-0.125000
G01 X155.180990 Y84.753168 Z-0.125000
G01 X155.818529 Y84.610558 Z-0.125000
G01 X158.687508 Y83.470469 Z-0.125000
G01 X160.068869 Y83.193557 Z-0.125000
G01 X160.812665 Y83.202606 Z-0.125000
G01 X161.556461 Y83.312831 Z-0.125000
G01 X164.637953 Y84.203100 Z-0.125000
G01 X166.338084 Y84.447178 Z-0.125000
G01 X168.038215 Y84.340974 Z-0.125000
G01 X171.757273 Y83.641840 Z-0.125000
G00 Z3.000000

(End cutting path id: polyline1169)


(Start cutting path id: polyline1171)
(Change tool to Default tool)

G00 Z3.000000
G00 X14.920117 Y81.535786

G00 Z4.875000 (Fast pre-penetrate)
G01 Z-0.125000 F400.0(Penetrate)
G01 X18.107866 Y82.637483 Z-0.125000 F800.000000
G01 X20.126767 Y83.241155 Z-0.125000
G01 X22.145667 Y83.704811 Z-0.125000
G01 X24.270825 Y84.035434 Z-0.125000
G01 X26.502265 Y84.237337 Z-0.125000
G01 X29.264961 Y84.349282 Z-0.125000
G01 X37.978155 Y84.343779 Z-0.125000
G01 X41.697187 Y84.146585 Z-0.125000
G01 X44.884936 Y83.706054 Z-0.125000
G01 X47.966428 Y82.948818 Z-0.125000
G01 X52.748052 Y81.358092 Z-0.125000
G01 X54.448183 Y80.870412 Z-0.125000
G01 X56.360827 Y80.527116 Z-0.125000
G01 X58.167214 Y80.486608 Z-0.125000
G01 X59.867345 Y80.737274 Z-0.125000
G01 X61.567476 Y81.252973 Z-0.125000
G01 X63.100629 Y81.893899 Z-0.125000
G01 X66.880382 Y83.686105 Z-0.125000
G01 X68.793026 Y84.410083 Z-0.125000
G01 X70.599414 Y84.840454 Z-0.125000
G01 X72.405828 Y84.989467 Z-0.125000
G01 X74.212215 Y84.873421 Z-0.125000
G01 X76.124859 Y84.520494 Z-0.125000
G01 X83.244153 Y82.454100 Z-0.125000
G01 X86.644415 Y81.656330 Z-0.125000
G01 X90.044677 Y81.145341 Z-0.125000
G01 X93.551195 Y80.907692 Z-0.125000
G01 X95.782635 Y80.900416 Z-0.125000
G01 X97.907792 Y81.003392 Z-0.125000
G01 X99.926693 Y81.215852 Z-0.125000
G01 X101.839337 Y81.539331 Z-0.125000
G01 X103.433211 Y81.911996 Z-0.125000
G01 X105.133342 Y82.416662 Z-0.125000
G01 X110.977558 Y84.546767 Z-0.125000
G01 X112.358919 Y84.876278 Z-0.125000
G01 X113.527741 Y84.988726 Z-0.125000
G01 X115.015359 Y84.840374 Z-0.125000
G01 X116.472629 Y84.336423 Z-0.125000
G01 X117.838803 Y83.562465 Z-0.125000
G01 X121.299787 Y81.150791 Z-0.125000
G01 X122.347192 Y80.667186 Z-0.125000
G01 X123.303501 Y80.471818 Z-0.125000
G01 X124.259836 Y80.557464 Z-0.125000
G01 X125.216145 Y80.928409 Z-0.125000
G01 X126.218015 Y81.578939 Z-0.125000
G01 X128.244509 Y83.253141 Z-0.125000
G01 X129.041459 Y83.822365 Z-0.125000
G01 X129.891511 Y84.241835 Z-0.125000
G01 X130.741590 Y84.400928 Z-0.125000
G01 X131.485386 Y84.300572 Z-0.125000
G01 X132.229208 Y83.986380 Z-0.125000
G01 X133.026132 Y83.456605 Z-0.125000
G01 X135.416957 Y81.551449 Z-0.125000
G01 X136.160753 Y81.175556 Z-0.125000
G01 X136.904575 Y81.016409 Z-0.125000
G01 X137.542114 Y81.070887 Z-0.125000
G01 X138.240375 Y81.323960 Z-0.125000
G01 X138.969010 Y81.763327 Z-0.125000
G01 X141.154889 Y83.383395 Z-0.125000
G01 X141.898711 Y83.742778 Z-0.125000
G01 X142.642507 Y83.892506 Z-0.125000
G01 X143.280046 Y83.837658 Z-0.125000
G01 X143.887238 Y83.638136 Z-0.125000
G01 X144.615873 Y83.247717 Z-0.125000
G01 X146.710682 Y81.891174 Z-0.125000
G01 X147.424130 Y81.598386 Z-0.125000
G01 X148.061670 Y81.483425 Z-0.125000
G01 X148.699235 Y81.517503 Z-0.125000
G01 X149.336774 Y81.689826 Z-0.125000
G01 X152.205754 Y83.159584 Z-0.125000
G01 X152.949549 Y83.394137 Z-0.125000
G01 X153.587115 Y83.470099 Z-0.125000
G01 X154.755937 Y83.307830 Z-0.125000
G01 X157.518660 Y82.180945 Z-0.125000
G01 X158.900021 Y81.874558 Z-0.125000
G01 X159.643817 Y81.876674 Z-0.125000
G01 X160.387639 Y81.987773 Z-0.125000
G01 X163.469131 Y82.906061 Z-0.125000
G01 X165.063006 Y83.126591 Z-0.125000
G01 X166.444341 Y83.042215 Z-0.125000
G01 X169.950886 Y82.345357 Z-0.125000
G01 X171.757273 Y82.168033 Z-0.125000
G00 Z3.000000

(End cutting path id: polyline1171)


(Start cutting path id: polyline1173)
(Change tool to Default tool)

G00 Z3.000000
G00 X14.920117 Y80.767886

G00 Z4.875000 (Fast pre-penetrate)
G01 Z-0.125000 F400.0(Penetrate)
G01 X17.364044 Y81.653366 Z-0.125000 F800.000000
G01 X19.382945 Y82.245635 Z-0.125000
G01 X21.401872 Y82.665105 Z-0.125000
G01 X23.527029 Y82.927677 Z-0.125000
G01 X27.246060 Y83.076373 Z-0.125000
G01 X41.484674 Y83.037056 Z-0.125000
G01 X44.247397 Y82.832507 Z-0.125000
G01 X46.797580 Y82.405920 Z-0.125000
G01 X49.454046 Y81.675856 Z-0.125000
G01 X53.810617 Y80.109604 Z-0.125000
G01 X55.510748 Y79.581179 Z-0.125000
G01 X57.317135 Y79.222113 Z-0.125000
G01 X59.017266 Y79.152739 Z-0.125000
G01 X60.717397 Y79.380704 Z-0.125000
G01 X62.417528 Y79.890026 Z-0.125000
G01 X64.011403 Y80.563364 Z-0.125000
G01 X67.730461 Y82.351442 Z-0.125000
G01 X69.643105 Y83.083041 Z-0.125000
G01 X71.555749 Y83.533070 Z-0.125000
G01 X73.362136 Y83.666631 Z-0.125000
G01 X75.062267 Y83.552411 Z-0.125000
G01 X76.974911 Y83.204140 Z-0.125000
G01 X83.987975 Y81.205930 Z-0.125000
G01 X87.281980 Y80.443561 Z-0.125000
G01 X90.469703 Y79.965221 Z-0.125000
G01 X93.763708 Y79.739452 Z-0.125000
G01 X95.888892 Y79.734452 Z-0.125000
G01 X97.907792 Y79.837983 Z-0.125000
G01 X99.820436 Y80.046342 Z-0.125000
G01 X101.626824 Y80.356698 Z-0.125000
G01 X104.814573 Y81.204395 Z-0.125000
G01 X110.446275 Y83.223957 Z-0.125000
G01 X111.827610 Y83.551908 Z-0.125000
G01 X112.996458 Y83.665652 Z-0.125000
G01 X114.484076 Y83.520026 Z-0.125000
G01 X115.926159 Y83.024859 Z-0.125000
G01 X117.383403 Y82.192216 Z-0.125000
G01 X120.753317 Y79.828617 Z-0.125000
G01 X121.815883 Y79.336625 Z-0.125000
G01 X122.772218 Y79.147395 Z-0.125000
G01 X123.728553 Y79.243756 Z-0.125000
G01 X124.669675 Y79.621210 Z-0.125000
G01 X125.671545 Y80.285816 Z-0.125000
G01 X128.403894 Y82.483416 Z-0.125000
G01 X129.253972 Y82.912914 Z-0.125000
G01 X130.104025 Y83.077855 Z-0.125000
G01 X130.847847 Y82.977604 Z-0.125000
G01 X131.591642 Y82.658835 Z-0.125000
G01 X132.388593 Y82.120488 Z-0.125000
G01 X134.688322 Y80.257797 Z-0.125000
G01 X135.416957 Y79.872299 Z-0.125000
G01 X136.160753 Y79.696087 Z-0.125000
G01 X136.798292 Y79.739955 Z-0.125000
G01 X137.511740 Y79.994801 Z-0.125000
G01 X138.240375 Y80.438137 Z-0.125000
G01 X140.426254 Y82.077228 Z-0.125000
G01 X141.154889 Y82.427960 Z-0.125000
G01 X141.898711 Y82.571125 Z-0.125000
G01 X142.536251 Y82.505773 Z-0.125000
G01 X143.158629 Y82.286249 Z-0.125000
G01 X145.890978 Y80.561009 Z-0.125000
G01 X146.574052 Y80.277138 Z-0.125000
G01 X147.211617 Y80.160430 Z-0.125000
G01 X147.742900 Y80.180618 Z-0.125000
G01 X148.380439 Y80.337913 Z-0.125000
G01 X151.264606 Y81.833203 Z-0.125000
G01 X151.993241 Y82.069159 Z-0.125000
G01 X152.630780 Y82.147607 Z-0.125000
G01 X153.268319 Y82.101385 Z-0.125000
G01 X153.905885 Y81.943878 Z-0.125000
G01 X156.456068 Y80.863242 Z-0.125000
G01 X157.837429 Y80.549923 Z-0.125000
G01 X159.218791 Y80.656074 Z-0.125000
G01 X162.194027 Y81.571372 Z-0.125000
G01 X163.787901 Y81.804020 Z-0.125000
G01 X165.275519 Y81.691863 Z-0.125000
G01 X169.207064 Y80.911820 Z-0.125000
G01 X170.482168 Y80.838900 Z-0.125000
G01 X171.757273 Y80.893722 Z-0.125000
G00 Z3.000000

(End cutting path id: polyline1173)


(Start cutting path id: polyline1175)
(Change tool to Default tool)

G00 Z3.000000
G00 X14.920117 Y80.099126

G00 Z4.875000 (Fast pre-penetrate)
G01 Z-0.125000 F400.0(Penetrate)
G01 X16.832761 Y80.769156 Z-0.125000 F800.000000
G01 X18.532892 Y81.223260 Z-0.125000
G01 X20.233023 Y81.528166 Z-0.125000
G01 X22.145667 Y81.708373 Z-0.125000
G01 X24.908390 Y81.746896 Z-0.125000
G01 X33.302789 Y81.504221 Z-0.125000
G01 X41.697187 Y81.746103 Z-0.125000
G01 X44.353653 Y81.716893 Z-0.125000
G01 X46.585067 Y81.508851 Z-0.125000
G01 X48.710224 Y81.095043 Z-0.125000
G01 X50.941664 Y80.422632 Z-0.125000
G01 X55.085722 Y78.827197 Z-0.125000
G01 X56.679596 Y78.296099 Z-0.125000
G01 X58.379727 Y77.922111 Z-0.125000
G01 X59.973602 Y77.822204 Z-0.125000
G01 X61.461220 Y77.978097 Z-0.125000
G01 X62.948837 Y78.366822 Z-0.125000
G01 X64.648968 Y79.041562 Z-0.125000
G01 X68.201022 Y80.770929 Z-0.125000
G01 X69.855618 Y81.476202 Z-0.125000
G01 X71.662005 Y82.030741 Z-0.125000
G01 X73.362136 Y82.300801 Z-0.125000
G01 X75.381037 Y82.305696 Z-0.125000
G01 X77.612477 Y81.982825 Z-0.125000
G01 X79.631378 Y81.494325 Z-0.125000
G01 X85.263053 Y79.913892 Z-0.125000
G01 X88.663315 Y79.191183 Z-0.125000
G01 X91.851064 Y78.785075 Z-0.125000
G01 X95.038813 Y78.649344 Z-0.125000
G01 X98.332819 Y78.805501 Z-0.125000
G01 X101.520567 Y79.291540 Z-0.125000
G01 X104.389547 Y80.050311 Z-0.125000
G01 X109.914966 Y81.947953 Z-0.125000
G01 X111.296327 Y82.250927 Z-0.125000
G01 X112.465176 Y82.343796 Z-0.125000
G01 X113.846537 Y82.197190 Z-0.125000
G01 X115.288594 Y81.706521 Z-0.125000
G01 X116.745864 Y80.879461 Z-0.125000
G01 X120.115752 Y78.514883 Z-0.125000
G01 X121.178343 Y78.018234 Z-0.125000
G01 X122.134679 Y77.825062 Z-0.125000
G01 X123.090988 Y77.919227 Z-0.125000
G01 X124.032136 Y78.297263 Z-0.125000
G01 X125.034006 Y78.965626 Z-0.125000
G01 X127.675285 Y81.115601 Z-0.125000
G01 X128.510150 Y81.560312 Z-0.125000
G01 X129.360229 Y81.752241 Z-0.125000
G01 X130.104025 Y81.672760 Z-0.125000
G01 X130.863034 Y81.360129 Z-0.125000
G01 X131.671335 Y80.817760 Z-0.125000
G01 X134.050783 Y78.886093 Z-0.125000
G01 X134.779391 Y78.517820 Z-0.125000
G01 X135.523214 Y78.368277 Z-0.125000
G01 X136.160753 Y78.439715 Z-0.125000
G01 X136.783131 Y78.678580 Z-0.125000
G01 X137.511740 Y79.130144 Z-0.125000
G01 X139.697645 Y80.782491 Z-0.125000
G01 X140.411093 Y81.119200 Z-0.125000
G01 X141.048633 Y81.245565 Z-0.125000
G01 X141.686172 Y81.193204 Z-0.125000
G01 X142.323737 Y80.973679 Z-0.125000
G01 X144.980177 Y79.271934 Z-0.125000
G01 X145.723999 Y78.952371 Z-0.125000
G01 X146.361539 Y78.836219 Z-0.125000
G01 X146.892848 Y78.860904 Z-0.125000
G01 X147.530387 Y79.027010 Z-0.125000
G01 X150.293110 Y80.491186 Z-0.125000
G01 X151.036905 Y80.742725 Z-0.125000
G01 X151.674445 Y80.824190 Z-0.125000
G01 X152.843293 Y80.647872 Z-0.125000
G01 X155.499759 Y79.512678 Z-0.125000
G01 X156.243555 Y79.301118 Z-0.125000
G01 X156.881121 Y79.220340 Z-0.125000
G01 X158.156199 Y79.342207 Z-0.125000
G01 X161.025178 Y80.252929 Z-0.125000
G01 X162.512796 Y80.480020 Z-0.125000
G01 X163.894158 Y80.383236 Z-0.125000
G01 X166.763137 Y79.745167 Z-0.125000
G01 X168.144472 Y79.549085 Z-0.125000
G01 X169.738346 Y79.539798 Z-0.125000
G01 X171.757273 Y79.772102 Z-0.125000
G00 Z3.000000

(End cutting path id: polyline1175)


(Start cutting path id: polyline1177)
(Change tool to Default tool)

G00 Z3.000000
G00 X14.920117 Y79.455264

G00 Z4.875000 (Fast pre-penetrate)
G01 Z-0.125000 F400.0(Penetrate)
G01 X16.301479 Y79.869918 Z-0.125000 F800.000000
G01 X17.576557 Y80.149106 Z-0.125000
G01 X18.957919 Y80.339130 Z-0.125000
G01 X20.339280 Y80.423876 Z-0.125000
G01 X22.676950 Y80.384347 Z-0.125000
G01 X29.477500 Y79.843989 Z-0.125000
G01 X33.196532 Y79.722281 Z-0.125000
G01 X37.021820 Y79.845550 Z-0.125000
G01 X44.034857 Y80.395010 Z-0.125000
G01 X47.010093 Y80.385061 Z-0.125000
G01 X48.816480 Y80.176094 Z-0.125000
G01 X50.622868 Y79.775727 Z-0.125000
G01 X52.641795 Y79.110142 Z-0.125000
G01 X57.848445 Y77.044833 Z-0.125000
G01 X59.548576 Y76.626236 Z-0.125000
G01 X61.036193 Y76.497014 Z-0.125000
G01 X62.736324 Y76.658357 Z-0.125000
G01 X64.436455 Y77.133416 Z-0.125000
G01 X66.106212 Y77.833317 Z-0.125000
G01 X69.961874 Y79.707279 Z-0.125000
G01 X71.874519 Y80.436285 Z-0.125000
G01 X73.574649 Y80.848373 Z-0.125000
G01 X75.381037 Y81.018261 Z-0.125000
G01 X77.081168 Y80.945792 Z-0.125000
G01 X79.100095 Y80.629642 Z-0.125000
G01 X86.113132 Y78.826323 Z-0.125000
G01 X89.194624 Y78.189181 Z-0.125000
G01 X92.169834 Y77.808552 Z-0.125000
G01 X95.145070 Y77.679488 Z-0.125000
G01 X98.014049 Y77.808605 Z-0.125000
G01 X100.776772 Y78.195637 Z-0.125000
G01 X103.645725 Y78.891675 Z-0.125000
G01 X109.383683 Y80.711530 Z-0.125000
G01 X110.977558 Y80.988258 Z-0.125000
G01 X112.358919 Y80.988019 Z-0.125000
G01 X113.633997 Y80.732617 Z-0.125000
G01 X114.833220 Y80.249912 Z-0.125000
G01 X116.108298 Y79.502889 Z-0.125000
G01 X119.478213 Y77.157598 Z-0.125000
G01 X120.540804 Y76.676322 Z-0.125000
G01 X121.497113 Y76.499448 Z-0.125000
G01 X122.453448 Y76.611076 Z-0.125000
G01 X123.394597 Y77.005622 Z-0.125000
G01 X124.339528 Y77.643823 Z-0.125000
G01 X127.037719 Y79.836634 Z-0.125000
G01 X127.872611 Y80.264491 Z-0.125000
G01 X128.616433 Y80.427527 Z-0.125000
G01 X129.360229 Y80.356883 Z-0.125000
G01 X130.134399 Y80.040971 Z-0.125000
G01 X130.954103 Y79.486749 Z-0.125000
G01 X133.322148 Y77.553441 Z-0.125000
G01 X134.050783 Y77.186888 Z-0.125000
G01 X134.779391 Y77.044807 Z-0.125000
G01 X135.416957 Y77.121642 Z-0.125000
G01 X136.054496 Y77.376091 Z-0.125000
G01 X136.771728 Y77.831835 Z-0.125000
G01 X138.969010 Y79.498655 Z-0.125000
G01 X139.667271 Y79.815255 Z-0.125000
G01 X140.304837 Y79.925269 Z-0.125000
G01 X140.942376 Y79.852720 Z-0.125000
G01 X141.519193 Y79.641715 Z-0.125000
G01 X144.160473 Y77.928726 Z-0.125000
G01 X144.873921 Y77.624032 Z-0.125000
G01 X145.511486 Y77.512113 Z-0.125000
G01 X146.042769 Y77.543546 Z-0.125000
G01 X146.680308 Y77.719837 Z-0.125000
G01 X149.351962 Y79.164619 Z-0.125000
G01 X150.080597 Y79.416873 Z-0.125000
G01 X150.718136 Y79.501619 Z-0.125000
G01 X151.249419 Y79.469260 Z-0.125000
G01 X151.886984 Y79.319030 Z-0.125000
G01 X154.543424 Y78.165713 Z-0.125000
G01 X155.287246 Y77.962248 Z-0.125000
G01 X155.924785 Y77.893483 Z-0.125000
G01 X157.093634 Y78.022997 Z-0.125000
G01 X159.856330 Y78.926018 Z-0.125000
G01 X161.237691 Y79.153904 Z-0.125000
G01 X162.619053 Y79.065586 Z-0.125000
G01 X165.594289 Y78.386295 Z-0.125000
G01 X167.081906 Y78.203760 Z-0.125000
G01 X168.782037 Y78.261386 Z-0.125000
G01 X171.757273 Y78.692206 Z-0.125000
G00 Z3.000000

(End cutting path id: polyline1177)


(Start cutting path id: polyline1179)
(Change tool to Default tool)

G00 Z3.000000
G00 X14.920117 Y78.718638

G00 Z4.875000 (Fast pre-penetrate)
G01 Z-0.125000 F400.0(Penetrate)
G01 X17.045274 Y79.056405 Z-0.125000 F800.000000
G01 X19.382945 Y79.083207 Z-0.125000
G01 X21.508128 Y78.889956 Z-0.125000
G01 X28.627422 Y77.945897 Z-0.125000
G01 X31.177631 Y77.768891 Z-0.125000
G01 X33.621558 Y77.728542 Z-0.125000
G01 X35.852972 Y77.804583 Z-0.125000
G01 X38.190668 Y77.994660 Z-0.125000
G01 X46.053784 Y79.016929 Z-0.125000
G01 X47.753915 Y79.107946 Z-0.125000
G01 X49.241533 Y79.066380 Z-0.125000
G01 X51.047921 Y78.823122 Z-0.125000
G01 X52.960565 Y78.316631 Z-0.125000
G01 X54.660696 Y77.678509 Z-0.125000
G01 X58.167214 Y76.154776 Z-0.125000
G01 X59.761089 Y75.591902 Z-0.125000
G01 X61.142450 Y75.278292 Z-0.125000
G01 X62.417528 Y75.174205 Z-0.125000
G01 X64.117686 Y75.337347 Z-0.125000
G01 X65.817817 Y75.821931 Z-0.125000
G01 X67.381317 Y76.480610 Z-0.125000
G01 X71.130723 Y78.304539 Z-0.125000
G01 X73.149623 Y79.082440 Z-0.125000
G01 X74.956011 Y79.520986 Z-0.125000
G01 X76.762398 Y79.693732 Z-0.125000
G01 X78.568786 Y79.625338 Z-0.125000
G01 X80.481430 Y79.349034 Z-0.125000
G01 X87.175697 Y77.777490 Z-0.125000
G01 X90.044677 Y77.232026 Z-0.125000
G01 X92.701143 Y76.919289 Z-0.125000
G01 X95.251326 Y76.818138 Z-0.125000
G01 X97.801536 Y76.927676 Z-0.125000
G01 X100.245463 Y77.245440 Z-0.125000
G01 X102.901929 Y77.830433 Z-0.125000
G01 X108.533604 Y79.434097 Z-0.125000
G01 X110.127479 Y79.674682 Z-0.125000
G01 X111.508840 Y79.658649 Z-0.125000
G01 X112.783945 Y79.402638 Z-0.125000
G01 X114.013515 Y78.915356 Z-0.125000
G01 X115.288594 Y78.181138 Z-0.125000
G01 X118.749577 Y75.808675 Z-0.125000
G01 X119.796982 Y75.346475 Z-0.125000
G01 X120.753317 Y75.175766 Z-0.125000
G01 X121.709626 Y75.291495 Z-0.125000
G01 X122.665961 Y75.696677 Z-0.125000
G01 X123.622297 Y76.346890 Z-0.125000
G01 X126.309111 Y78.528033 Z-0.125000
G01 X127.128815 Y78.945201 Z-0.125000
G01 X127.872611 Y79.105406 Z-0.125000
G01 X128.616433 Y79.031031 Z-0.125000
G01 X129.314694 Y78.751711 Z-0.125000
G01 X130.134399 Y78.207755 Z-0.125000
G01 X132.593512 Y76.202374 Z-0.125000
G01 X133.291773 Y75.857385 Z-0.125000
G01 X134.035596 Y75.721363 Z-0.125000
G01 X134.673135 Y75.811347 Z-0.125000
G01 X135.234792 Y76.039577 Z-0.125000
G01 X136.054496 Y76.569298 Z-0.125000
G01 X138.058236 Y78.117373 Z-0.125000
G01 X138.817219 Y78.482418 Z-0.125000
G01 X139.454758 Y78.601560 Z-0.125000
G01 X139.986041 Y78.558830 Z-0.125000
G01 X140.608419 Y78.353408 Z-0.125000
G01 X141.337055 Y77.943304 Z-0.125000
G01 X143.340768 Y76.581469 Z-0.125000
G01 X144.023868 Y76.294423 Z-0.125000
G01 X144.661408 Y76.188246 Z-0.125000
G01 X145.192717 Y76.226716 Z-0.125000
G01 X145.830256 Y76.414173 Z-0.125000
G01 X148.380439 Y77.822204 Z-0.125000
G01 X149.018005 Y78.061864 Z-0.125000
G01 X149.655544 Y78.173174 Z-0.125000
G01 X150.186853 Y78.160394 Z-0.125000
G01 X150.824392 Y78.026383 Z-0.125000
G01 X153.587115 Y76.822742 Z-0.125000
G01 X154.862194 Y76.571600 Z-0.125000
G01 X156.031042 Y76.700161 Z-0.125000
G01 X158.793765 Y77.621201 Z-0.125000
G01 X160.068869 Y77.830671 Z-0.125000
G01 X161.343948 Y77.754551 Z-0.125000
G01 X164.425440 Y77.038007 Z-0.125000
G01 X165.913058 Y76.873674 Z-0.125000
G01 X167.400676 Y76.943524 Z-0.125000
G01 X171.757273 Y77.539445 Z-0.125000
G00 Z3.000000

(End cutting path id: polyline1179)


(Start cutting path id: polyline1181)
(Change tool to Default tool)

G00 Z3.000000
G00 X14.920117 Y77.744602

G00 Z4.875000 (Fast pre-penetrate)
G01 Z-0.125000 F400.0(Penetrate)
G01 X16.620248 Y77.771907 Z-0.125000 F800.000000
G01 X18.426636 Y77.595933 Z-0.125000
G01 X24.802134 Y76.369088 Z-0.125000
G01 X27.777369 Y75.924351 Z-0.125000
G01 X30.433809 Y75.692497 Z-0.125000
G01 X33.090276 Y75.616455 Z-0.125000
G01 X35.746715 Y75.692338 Z-0.125000
G01 X38.403182 Y75.923292 Z-0.125000
G01 X41.378417 Y76.365093 Z-0.125000
G01 X47.860172 Y77.599161 Z-0.125000
G01 X49.666559 Y77.771669 Z-0.125000
G01 X51.366690 Y77.747698 Z-0.125000
G01 X53.066821 Y77.498487 Z-0.125000
G01 X54.766952 Y77.015359 Z-0.125000
G01 X56.360827 Y76.384196 Z-0.125000
G01 X59.761089 Y74.839243 Z-0.125000
G01 X61.248706 Y74.291477 Z-0.125000
G01 X62.630068 Y73.961833 Z-0.125000
G01 X63.905146 Y73.851369 Z-0.125000
G01 X65.499021 Y73.995038 Z-0.125000
G01 X67.199152 Y74.466101 Z-0.125000
G01 X68.747491 Y75.109012 Z-0.125000
G01 X72.618341 Y76.972179 Z-0.125000
G01 X74.637241 Y77.739284 Z-0.125000
G01 X76.549885 Y78.195902 Z-0.125000
G01 X78.462529 Y78.371347 Z-0.125000
G01 X80.162660 Y78.317213 Z-0.125000
G01 X81.969048 Y78.093217 Z-0.125000
G01 X88.238289 Y76.811206 Z-0.125000
G01 X90.788499 Y76.382317 Z-0.125000
G01 X93.019913 Y76.143663 Z-0.125000
G01 X95.251326 Y76.056854 Z-0.125000
G01 X97.482766 Y76.135805 Z-0.125000
G01 X99.607923 Y76.372210 Z-0.125000
G01 X102.051850 Y76.831764 Z-0.125000
G01 X107.577296 Y78.171295 Z-0.125000
G01 X109.171170 Y78.363515 Z-0.125000
G01 X110.552531 Y78.323722 Z-0.125000
G01 X111.827610 Y78.064086 Z-0.125000
G01 X112.996458 Y77.617285 Z-0.125000
G01 X114.468889 Y76.790675 Z-0.125000
G01 X117.929873 Y74.467186 Z-0.125000
G01 X119.053186 Y73.994958 Z-0.125000
G01 X120.009495 Y73.851105 Z-0.125000
G01 X120.965830 Y73.990249 Z-0.125000
G01 X121.846257 Y74.370349 Z-0.125000
G01 X122.825346 Y75.031118 Z-0.125000
G01 X125.489380 Y77.189930 Z-0.125000
G01 X126.384993 Y77.641124 Z-0.125000
G01 X127.128815 Y77.785269 Z-0.125000
G01 X127.872611 Y77.694358 Z-0.125000
G01 X128.586059 Y77.392363 Z-0.125000
G01 X129.360229 Y76.867483 Z-0.125000
G01 X131.682738 Y74.949018 Z-0.125000
G01 X132.441721 Y74.550953 Z-0.125000
G01 X133.185517 Y74.399585 Z-0.125000
G01 X133.823083 Y74.478034 Z-0.125000
G01 X134.415087 Y74.713857 Z-0.125000
G01 X135.143722 Y75.179311 Z-0.125000
G01 X137.238505 Y76.804301 Z-0.125000
G01 X137.967140 Y77.156434 Z-0.125000
G01 X138.604706 Y77.278857 Z-0.125000
G01 X139.242245 Y77.212314 Z-0.125000
G01 X139.773528 Y77.020915 Z-0.125000
G01 X140.517350 Y76.593587 Z-0.125000
G01 X142.429994 Y75.276043 Z-0.125000
G01 X143.173790 Y74.961533 Z-0.125000
G01 X143.811355 Y74.863743 Z-0.125000
G01 X144.342638 Y74.912479 Z-0.125000
G01 X144.980177 Y75.113483 Z-0.125000
G01 X147.439317 Y76.496961 Z-0.125000
G01 X148.167926 Y76.764164 Z-0.125000
G01 X148.805492 Y76.855498 Z-0.125000
G01 X149.868057 Y76.699420 Z-0.125000
G01 X152.524523 Y75.519036 Z-0.125000
G01 X153.268319 Y75.310968 Z-0.125000
G01 X153.905885 Y75.246568 Z-0.125000
G01 X155.074733 Y75.401482 Z-0.125000
G01 X157.624916 Y76.280744 Z-0.125000
G01 X158.900021 Y76.506010 Z-0.125000
G01 X160.281383 Y76.414358 Z-0.125000
G01 X163.150335 Y75.718902 Z-0.125000
G01 X164.637953 Y75.549939 Z-0.125000
G01 X166.125571 Y75.630875 Z-0.125000
G01 X169.738346 Y76.178403 Z-0.125000
G01 X171.757273 Y76.249576 Z-0.125000
G00 Z3.000000

(End cutting path id: polyline1181)


(Start cutting path id: polyline1183)
(Change tool to Default tool)

G00 Z3.000000
G00 X14.920117 Y76.400362

G00 Z4.875000 (Fast pre-penetrate)
G01 Z-0.125000 F400.0(Penetrate)
G01 X17.045274 Y76.045212 Z-0.125000 F800.000000
G01 X22.358180 Y74.698776 Z-0.125000
G01 X25.439673 Y74.098675 Z-0.125000
G01 X29.052448 Y73.701801 Z-0.125000
G01 X33.090276 Y73.570462 Z-0.125000
G01 X36.809307 Y73.688915 Z-0.125000
G01 X40.103313 Y74.021390 Z-0.125000
G01 X43.397318 Y74.622205 Z-0.125000
G01 X49.879072 Y76.197771 Z-0.125000
G01 X51.685460 Y76.433752 Z-0.125000
G01 X53.385591 Y76.432429 Z-0.125000
G01 X54.979465 Y76.192479 Z-0.125000
G01 X56.573340 Y75.720119 Z-0.125000
G01 X58.060958 Y75.107556 Z-0.125000
G01 X61.354963 Y73.553237 Z-0.125000
G01 X62.842581 Y72.984622 Z-0.125000
G01 X64.223942 Y72.643363 Z-0.125000
G01 X65.499021 Y72.528587 Z-0.125000
G01 X67.092895 Y72.672096 Z-0.125000
G01 X68.793026 Y73.142657 Z-0.125000
G01 X70.386901 Y73.801072 Z-0.125000
G01 X74.212215 Y75.612328 Z-0.125000
G01 X76.337372 Y76.402902 Z-0.125000
G01 X78.356273 Y76.870129 Z-0.125000
G01 X80.375173 Y77.048114 Z-0.125000
G01 X81.969048 Y77.011258 Z-0.125000
G01 X83.669179 Y76.841448 Z-0.125000
G01 X91.638551 Y75.584917 Z-0.125000
G01 X93.551195 Y75.420955 Z-0.125000
G01 X95.357583 Y75.365446 Z-0.125000
G01 X97.482766 Y75.435295 Z-0.125000
G01 X99.714180 Y75.667996 Z-0.125000
G01 X106.833473 Y76.959902 Z-0.125000
G01 X108.214835 Y77.051659 Z-0.125000
G01 X109.383683 Y76.991758 Z-0.125000
G01 X110.658788 Y76.742044 Z-0.125000
G01 X112.009775 Y76.241559 Z-0.125000
G01 X113.467045 Y75.443497 Z-0.125000
G01 X116.928003 Y73.177847 Z-0.125000
G01 X118.096851 Y72.682997 Z-0.125000
G01 X119.053186 Y72.529354 Z-0.125000
G01 X120.009495 Y72.647490 Z-0.125000
G01 X120.935456 Y73.027220 Z-0.125000
G01 X122.028422 Y73.760961 Z-0.125000
G01 X124.578605 Y75.824497 Z-0.125000
G01 X125.428684 Y76.275055 Z-0.125000
G01 X126.278736 Y76.461639 Z-0.125000
G01 X127.022559 Y76.375041 Z-0.125000
G01 X127.766354 Y76.061193 Z-0.125000
G01 X128.563278 Y75.517263 Z-0.125000
G01 X130.863034 Y73.615520 Z-0.125000
G01 X131.591642 Y73.233092 Z-0.125000
G01 X132.335465 Y73.076776 Z-0.125000
G01 X132.973004 Y73.151150 Z-0.125000
G01 X133.595382 Y73.400784 Z-0.125000
G01 X134.301237 Y73.854915 Z-0.125000
G01 X136.418801 Y75.500462 Z-0.125000
G01 X137.117088 Y75.835371 Z-0.125000
G01 X137.754627 Y75.955836 Z-0.125000
G01 X138.285910 Y75.910090 Z-0.125000
G01 X138.877941 Y75.711811 Z-0.125000
G01 X139.515480 Y75.356423 Z-0.125000
G01 X141.610289 Y73.916166 Z-0.125000
G01 X142.217481 Y73.657192 Z-0.125000
G01 X142.855020 Y73.543051 Z-0.125000
G01 X143.386303 Y73.580145 Z-0.125000
G01 X143.917612 Y73.729105 Z-0.125000
G01 X146.619613 Y75.226672 Z-0.125000
G01 X147.211617 Y75.437439 Z-0.125000
G01 X147.849157 Y75.531868 Z-0.125000
G01 X148.911748 Y75.375314 Z-0.125000
G01 X151.568188 Y74.181225 Z-0.125000
G01 X152.205754 Y73.998795 Z-0.125000
G01 X152.843293 Y73.924791 Z-0.125000
G01 X154.012141 Y74.071529 Z-0.125000
G01 X156.562325 Y74.963729 Z-0.125000
G01 X157.837429 Y75.185820 Z-0.125000
G01 X159.112534 Y75.096603 Z-0.125000
G01 X161.875257 Y74.408422 Z-0.125000
G01 X163.362875 Y74.227500 Z-0.125000
G01 X164.850466 Y74.312088 Z-0.125000
G01 X168.782037 Y74.897822 Z-0.125000
G01 X170.163399 Y74.927719 Z-0.125000
G01 X171.757273 Y74.830565 Z-0.125000
G00 Z3.000000

(End cutting path id: polyline1183)


(Start cutting path id: polyline1185)
(Change tool to Default tool)

G00 Z3.000000
G00 X14.920117 Y74.622629

G00 Z4.875000 (Fast pre-penetrate)
G01 Z-0.125000 F400.0(Penetrate)
G01 X20.445536 Y72.959989 Z-0.125000 F800.000000
G01 X22.251924 Y72.543403 Z-0.125000
G01 X24.058311 Y72.239027 Z-0.125000
G01 X26.077239 Y72.018180 Z-0.125000
G01 X28.414909 Y71.880147 Z-0.125000
G01 X35.002920 Y71.818922 Z-0.125000
G01 X39.253234 Y71.972089 Z-0.125000
G01 X42.653522 Y72.352030 Z-0.125000
G01 X45.734988 Y73.008381 Z-0.125000
G01 X52.004229 Y74.822230 Z-0.125000
G01 X53.704360 Y75.095068 Z-0.125000
G01 X55.298235 Y75.121579 Z-0.125000
G01 X56.785853 Y74.909992 Z-0.125000
G01 X58.379727 Y74.433478 Z-0.125000
G01 X59.821810 Y73.822980 Z-0.125000
G01 X63.055094 Y72.252891 Z-0.125000
G01 X64.542712 Y71.669935 Z-0.125000
G01 X65.924073 Y71.322379 Z-0.125000
G01 X67.199152 Y71.205698 Z-0.125000
G01 X68.793026 Y71.347409 Z-0.125000
G01 X70.493157 Y71.810958 Z-0.125000
G01 X71.980775 Y72.408175 Z-0.125000
G01 X76.018603 Y74.266077 Z-0.125000
G01 X78.250016 Y75.067366 Z-0.125000
G01 X80.375173 Y75.539091 Z-0.125000
G01 X82.606614 Y75.725278 Z-0.125000
G01 X85.156797 Y75.632410 Z-0.125000
G01 X91.851064 Y74.863981 Z-0.125000
G01 X95.357583 Y74.685891 Z-0.125000
G01 X99.076641 Y74.866257 Z-0.125000
G01 X105.452139 Y75.677548 Z-0.125000
G01 X106.833473 Y75.728453 Z-0.125000
G01 X108.108578 Y75.645242 Z-0.125000
G01 X109.489940 Y75.367827 Z-0.125000
G01 X110.871301 Y74.865622 Z-0.125000
G01 X112.374080 Y74.072534 Z-0.125000
G01 X116.017229 Y71.791855 Z-0.125000
G01 X117.140542 Y71.348176 Z-0.125000
G01 X118.096851 Y71.205672 Z-0.125000
G01 X119.053186 Y71.324893 Z-0.125000
G01 X120.024682 Y71.720894 Z-0.125000
G01 X120.992395 Y72.352718 Z-0.125000
G01 X123.758901 Y74.549921 Z-0.125000
G01 X124.578605 Y74.966613 Z-0.125000
G01 X125.428684 Y75.139677 Z-0.125000
G01 X126.172480 Y75.044718 Z-0.125000
G01 X126.855580 Y74.758783 Z-0.125000
G01 X127.766354 Y74.136325 Z-0.125000
G01 X130.043329 Y72.264506 Z-0.125000
G01 X130.741590 Y71.905150 Z-0.125000
G01 X131.485386 Y71.753358 Z-0.125000
G01 X132.122952 Y71.832548 Z-0.125000
G01 X132.775678 Y72.103084 Z-0.125000
G01 X133.504286 Y72.584123 Z-0.125000
G01 X135.508026 Y74.152041 Z-0.125000
G01 X136.267009 Y74.519494 Z-0.125000
G01 X136.904575 Y74.633768 Z-0.125000
G01 X137.435858 Y74.581830 Z-0.125000
G01 X138.058236 Y74.360850 Z-0.125000
G01 X140.699489 Y72.601850 Z-0.125000
G01 X141.367402 Y72.319143 Z-0.125000
G01 X142.004968 Y72.218257 Z-0.125000
G01 X142.536251 Y72.268105 Z-0.125000
G01 X143.067533 Y72.431617 Z-0.125000
G01 X145.617743 Y73.875129 Z-0.125000
G01 X146.255282 Y74.112036 Z-0.125000
G01 X146.892848 Y74.209324 Z-0.125000
G01 X147.955413 Y74.048933 Z-0.125000
G01 X150.505623 Y72.882704 Z-0.125000
G01 X151.143162 Y72.688236 Z-0.125000
G01 X151.780728 Y72.603702 Z-0.125000
G01 X152.949549 Y72.740465 Z-0.125000
G01 X155.499759 Y73.643037 Z-0.125000
G01 X156.774864 Y73.864069 Z-0.125000
G01 X157.943686 Y73.782551 Z-0.125000
G01 X160.706409 Y73.083047 Z-0.125000
G01 X162.087770 Y72.906438 Z-0.125000
G01 X163.469131 Y72.973827 Z-0.125000
G01 X166.338084 Y73.460554 Z-0.125000
G01 X167.719446 Y73.594697 Z-0.125000
G01 X169.313320 Y73.579272 Z-0.125000
G01 X171.757273 Y73.346095 Z-0.125000
G00 Z3.000000

(End cutting path id: polyline1185)


(Start cutting path id: polyline1187)
(Change tool to Default tool)

G00 Z3.000000
G00 X14.920117 Y72.475882

G00 Z4.875000 (Fast pre-penetrate)
G01 Z-0.125000 F400.0(Penetrate)
G01 X17.257788 Y71.652923 Z-0.125000 F800.000000
G01 X19.064175 Y71.138732 Z-0.125000
G01 X20.976819 Y70.757336 Z-0.125000
G01 X22.889490 Y70.537520 Z-0.125000
G01 X25.864699 Y70.429941 Z-0.125000
G01 X32.665249 Y70.506273 Z-0.125000
G01 X41.378417 Y70.453700 Z-0.125000
G01 X43.928601 Y70.629304 Z-0.125000
G01 X46.160041 Y70.986279 Z-0.125000
G01 X48.603967 Y71.629295 Z-0.125000
G01 X54.023130 Y73.432323 Z-0.125000
G01 X55.723261 Y73.756701 Z-0.125000
G01 X57.210879 Y73.807660 Z-0.125000
G01 X58.698497 Y73.605572 Z-0.125000
G01 X60.292371 Y73.117707 Z-0.125000
G01 X61.643385 Y72.531074 Z-0.125000
G01 X64.755225 Y70.986412 Z-0.125000
G01 X66.349099 Y70.348687 Z-0.125000
G01 X67.730461 Y69.999861 Z-0.125000
G01 X69.111822 Y69.882360 Z-0.125000
G01 X70.599414 Y70.019863 Z-0.125000
G01 X72.299545 Y70.468623 Z-0.125000
G01 X73.893419 Y71.089520 Z-0.125000
G01 X77.931247 Y72.881805 Z-0.125000
G01 X80.268917 Y73.694154 Z-0.125000
G01 X82.606614 Y74.195856 Z-0.125000
G01 X85.156797 Y74.400458 Z-0.125000
G01 X87.388237 Y74.363814 Z-0.125000
G01 X92.594886 Y74.018083 Z-0.125000
G01 X95.357583 Y73.929977 Z-0.125000
G01 X98.226562 Y74.001044 Z-0.125000
G01 X103.964521 Y74.395405 Z-0.125000
G01 X105.452139 Y74.388790 Z-0.125000
G01 X106.727217 Y74.272427 Z-0.125000
G01 X108.214835 Y73.959981 Z-0.125000
G01 X109.596196 Y73.469550 Z-0.125000
G01 X111.190071 Y72.667493 Z-0.125000
G01 X114.924289 Y70.449149 Z-0.125000
G01 X116.077951 Y70.017191 Z-0.125000
G01 X117.034286 Y69.883021 Z-0.125000
G01 X117.990595 Y69.994860 Z-0.125000
G01 X119.022812 Y70.402292 Z-0.125000
G01 X120.115752 Y71.114470 Z-0.125000
G01 X122.848127 Y73.247035 Z-0.125000
G01 X123.728553 Y73.673464 Z-0.125000
G01 X124.472349 Y73.816021 Z-0.125000
G01 X125.216145 Y73.732598 Z-0.125000
G01 X125.944780 Y73.435736 Z-0.125000
G01 X126.810019 Y72.852621 Z-0.125000
G01 X129.041459 Y71.011891 Z-0.125000
G01 X129.785255 Y70.607502 Z-0.125000
G01 X130.529077 Y70.433724 Z-0.125000
G01 X131.166616 Y70.492144 Z-0.125000
G01 X131.864877 Y70.767707 Z-0.125000
G01 X132.502443 Y71.176620 Z-0.125000
G01 X134.597252 Y72.817379 Z-0.125000
G01 X135.310700 Y73.175413 Z-0.125000
G01 X135.948240 Y73.308471 Z-0.125000
G01 X136.479522 Y73.270927 Z-0.125000
G01 X137.117088 Y73.057541 Z-0.125000
G01 X137.784975 Y72.674716 Z-0.125000
G01 X139.788715 Y71.278961 Z-0.125000
G01 X140.411093 Y71.008981 Z-0.125000
G01 X141.048633 Y70.896321 Z-0.125000
G01 X141.579915 Y70.938654 Z-0.125000
G01 X142.111224 Y71.095420 Z-0.125000
G01 X144.706942 Y72.566078 Z-0.125000
G01 X145.298973 Y72.785814 Z-0.125000
G01 X145.936513 Y72.885641 Z-0.125000
G01 X146.999104 Y72.725489 Z-0.125000
G01 X149.549288 Y71.548016 Z-0.125000
G01 X150.186853 Y71.356643 Z-0.125000
G01 X150.824392 Y71.278776 Z-0.125000
G01 X151.886984 Y71.406834 Z-0.125000
G01 X154.437167 Y72.318693 Z-0.125000
G01 X155.818529 Y72.545282 Z-0.125000
G01 X156.987377 Y72.432993 Z-0.125000
G01 X159.537560 Y71.763889 Z-0.125000
G01 X160.918922 Y71.582940 Z-0.125000
G01 X162.194027 Y71.643715 Z-0.125000
G01 X165.169262 Y72.156795 Z-0.125000
G01 X166.656880 Y72.282233 Z-0.125000
G01 X168.250728 Y72.231751 Z-0.125000
G01 X171.757273 Y71.876416 Z-0.125000
G00 Z3.000000

(End cutting path id: polyline1187)


(Start cutting path id: polyline1189)
(Change tool to Default tool)

G00 Z3.000000
G00 X14.920117 Y70.178931

G00 Z4.875000 (Fast pre-penetrate)
G01 Z-0.125000 F400.0(Penetrate)
G01 X16.301479 Y69.742819 Z-0.125000 F800.000000
G01 X17.682814 Y69.420265 Z-0.125000
G01 X19.064175 Y69.216351 Z-0.125000
G01 X20.445536 Y69.120466 Z-0.125000
G01 X22.783233 Y69.145099 Z-0.125000
G01 X29.264961 Y69.612353 Z-0.125000
G01 X32.771506 Y69.717207 Z-0.125000
G01 X36.384281 Y69.614152 Z-0.125000
G01 X42.972292 Y69.144041 Z-0.125000
G01 X45.734988 Y69.138617 Z-0.125000
G01 X47.541376 Y69.320121 Z-0.125000
G01 X49.241533 Y69.662015 Z-0.125000
G01 X51.154177 Y70.241875 Z-0.125000
G01 X56.148314 Y72.078213 Z-0.125000
G01 X57.635931 Y72.403942 Z-0.125000
G01 X59.123549 Y72.491175 Z-0.125000
G01 X60.611141 Y72.304644 Z-0.125000
G01 X62.098759 Y71.855752 Z-0.125000
G01 X63.464933 Y71.263060 Z-0.125000
G01 X66.667869 Y69.658840 Z-0.125000
G01 X68.261743 Y69.022782 Z-0.125000
G01 X69.855618 Y68.643900 Z-0.125000
G01 X71.343236 Y68.565371 Z-0.125000
G01 X72.830854 Y68.747166 Z-0.125000
G01 X74.424728 Y69.182167 Z-0.125000
G01 X80.162660 Y71.535077 Z-0.125000
G01 X82.819127 Y72.386400 Z-0.125000
G01 X84.306745 Y72.707445 Z-0.125000
G01 X85.794362 Y72.918873 Z-0.125000
G01 X89.194624 Y73.083232 Z-0.125000
G01 X95.676379 Y72.987162 Z-0.125000
G01 X102.264390 Y73.079660 Z-0.125000
G01 X103.964521 Y73.003301 Z-0.125000
G01 X105.345856 Y72.833810 Z-0.125000
G01 X106.833473 Y72.499985 Z-0.125000
G01 X108.214835 Y72.022968 Z-0.125000
G01 X109.823896 Y71.263800 Z-0.125000
G01 X113.649184 Y69.136738 Z-0.125000
G01 X114.802846 Y68.714411 Z-0.125000
G01 X115.865437 Y68.560371 Z-0.125000
G01 X116.928003 Y68.686392 Z-0.125000
G01 X117.929873 Y69.077048 Z-0.125000
G01 X119.022812 Y69.765255 Z-0.125000
G01 X121.846257 Y71.923327 Z-0.125000
G01 X122.665961 Y72.323455 Z-0.125000
G01 X123.516014 Y72.493397 Z-0.125000
G01 X124.259836 Y72.407460 Z-0.125000
G01 X125.034006 Y72.087950 Z-0.125000
G01 X125.933403 Y71.476710 Z-0.125000
G01 X128.221755 Y69.618094 Z-0.125000
G01 X128.950363 Y69.250192 Z-0.125000
G01 X129.678998 Y69.107290 Z-0.125000
G01 X130.316564 Y69.186057 Z-0.125000
G01 X130.954103 Y69.446380 Z-0.125000
G01 X131.671335 Y69.913078 Z-0.125000
G01 X133.777548 Y71.548571 Z-0.125000
G01 X134.460622 Y71.871918 Z-0.125000
G01 X135.098161 Y71.987647 Z-0.125000
G01 X135.629470 Y71.936106 Z-0.125000
G01 X136.236662 Y71.721741 Z-0.125000
G01 X138.877941 Y69.953612 Z-0.125000
G01 X139.454758 Y69.698792 Z-0.125000
G01 X140.092297 Y69.575179 Z-0.125000
G01 X140.623606 Y69.608966 Z-0.125000
G01 X141.245959 Y69.796899 Z-0.125000
G01 X143.705099 Y71.215911 Z-0.125000
G01 X144.342638 Y71.461206 Z-0.125000
G01 X144.980177 Y71.563203 Z-0.125000
G01 X146.042769 Y71.399505 Z-0.125000
G01 X148.592979 Y70.213432 Z-0.125000
G01 X149.761801 Y69.958692 Z-0.125000
G01 X150.824392 Y70.069949 Z-0.125000
G01 X153.480859 Y71.020463 Z-0.125000
G01 X154.755937 Y71.222182 Z-0.125000
G01 X155.924785 Y71.107141 Z-0.125000
G01 X158.368739 Y70.450869 Z-0.125000
G01 X159.750073 Y70.260634 Z-0.125000
G01 X161.025178 Y70.322123 Z-0.125000
G01 X163.894158 Y70.831340 Z-0.125000
G01 X165.488032 Y70.962044 Z-0.125000
G01 X166.763137 Y70.919260 Z-0.125000
G01 X169.950886 Y70.579113 Z-0.125000
G01 X171.757273 Y70.479180 Z-0.125000
G00 Z3.000000

(End cutting path id: polyline1189)


(Start cutting path id: polyline1191)
(Change tool to Default tool)

G00 Z3.000000
G00 X14.920117 Y68.065045

G00 Z4.875000 (Fast pre-penetrate)
G01 Z-0.125000 F400.0(Penetrate)
G01 X16.832761 Y67.809722 Z-0.125000 F800.000000
G01 X18.957919 Y67.827926 Z-0.125000
G01 X20.870563 Y68.030570 Z-0.125000
G01 X27.777369 Y69.019819 Z-0.125000
G01 X30.433809 Y69.222490 Z-0.125000
G01 X33.090276 Y69.278687 Z-0.125000
G01 X35.534202 Y69.200529 Z-0.125000
G01 X38.084412 Y68.988704 Z-0.125000
G01 X46.160041 Y67.872587 Z-0.125000
G01 X47.647659 Y67.787048 Z-0.125000
G01 X49.028994 Y67.817898 Z-0.125000
G01 X50.729125 Y68.037370 Z-0.125000
G01 X52.429256 Y68.470783 Z-0.125000
G01 X53.916873 Y69.002489 Z-0.125000
G01 X57.210879 Y70.364933 Z-0.125000
G01 X58.592240 Y70.825969 Z-0.125000
G01 X59.867345 Y71.095420 Z-0.125000
G01 X61.036193 Y71.171884 Z-0.125000
G01 X62.523811 Y71.008690 Z-0.125000
G01 X64.011403 Y70.569588 Z-0.125000
G01 X65.377604 Y69.978615 Z-0.125000
G01 X68.686770 Y68.322405 Z-0.125000
G01 X70.280644 Y67.695819 Z-0.125000
G01 X71.874519 Y67.323392 Z-0.125000
G01 X73.468393 Y67.244441 Z-0.125000
G01 X74.849754 Y67.403984 Z-0.125000
G01 X76.443629 Y67.804748 Z-0.125000
G01 X82.606614 Y70.161759 Z-0.125000
G01 X85.688106 Y71.044011 Z-0.125000
G01 X87.388237 Y71.354235 Z-0.125000
G01 X89.300881 Y71.571563 Z-0.125000
G01 X94.188761 Y71.743516 Z-0.125000
G01 X100.776772 Y71.655066 Z-0.125000
G01 X102.795672 Y71.473403 Z-0.125000
G01 X104.495803 Y71.175536 Z-0.125000
G01 X105.983421 Y70.766755 Z-0.125000
G01 X107.471039 Y70.201817 Z-0.125000
G01 X112.465176 Y67.725347 Z-0.125000
G01 X113.527741 Y67.379563 Z-0.125000
G01 X114.484076 Y67.241028 Z-0.125000
G01 X115.652924 Y67.349163 Z-0.125000
G01 X116.745864 Y67.749530 Z-0.125000
G01 X117.838803 Y68.408712 Z-0.125000
G01 X120.753317 Y70.578874 Z-0.125000
G01 X121.603370 Y70.991994 Z-0.125000
G01 X122.453448 Y71.169053 Z-0.125000
G01 X123.197244 Y71.097801 Z-0.125000
G01 X124.032136 Y70.768104 Z-0.125000
G01 X124.817683 Y70.253173 Z-0.125000
G01 X127.219885 Y68.323040 Z-0.125000
G01 X127.978867 Y67.934711 Z-0.125000
G01 X128.722690 Y67.785143 Z-0.125000
G01 X129.360229 Y67.860390 Z-0.125000
G01 X129.952233 Y68.091477 Z-0.125000
G01 X130.680868 Y68.551719 Z-0.125000
G01 X132.775678 Y70.182423 Z-0.125000
G01 X133.504286 Y70.539981 Z-0.125000
G01 X134.141852 Y70.664335 Z-0.125000
G01 X134.779391 Y70.595120 Z-0.125000
G01 X135.310700 Y70.397503 Z-0.125000
G01 X137.967140 Y68.620299 Z-0.125000
G01 X138.604706 Y68.349921 Z-0.125000
G01 X139.242245 Y68.248930 Z-0.125000
G01 X139.773528 Y68.303328 Z-0.125000
G01 X140.304837 Y68.473164 Z-0.125000
G01 X142.794298 Y69.909929 Z-0.125000
G01 X143.386303 Y70.135963 Z-0.125000
G01 X144.023868 Y70.239573 Z-0.125000
G01 X145.086434 Y70.076405 Z-0.125000
G01 X147.530387 Y68.922188 Z-0.125000
G01 X148.167926 Y68.719544 Z-0.125000
G01 X148.805492 Y68.633793 Z-0.125000
G01 X149.868057 Y68.759760 Z-0.125000
G01 X152.418267 Y69.689346 Z-0.125000
G01 X153.693372 Y69.898817 Z-0.125000
G01 X154.755937 Y69.804493 Z-0.125000
G01 X157.306147 Y69.119064 Z-0.125000
G01 X158.581252 Y68.939598 Z-0.125000
G01 X159.856330 Y68.997171 Z-0.125000
G01 X162.725309 Y69.515568 Z-0.125000
G01 X164.212927 Y69.638890 Z-0.125000
G01 X165.594289 Y69.585921 Z-0.125000
G01 X169.313320 Y69.195555 Z-0.125000
G01 X171.757273 Y69.169573 Z-0.125000
G00 Z3.000000

(End cutting path id: polyline1191)


(Start cutting path id: polyline1193)
(Change tool to Default tool)

G00 Z3.000000
G00 X14.920117 Y66.462545

G00 Z4.875000 (Fast pre-penetrate)
G01 Z-0.125000 F400.0(Penetrate)
G01 X16.088939 Y66.536761 Z-0.125000 F800.000000
G01 X17.470301 Y66.737553 Z-0.125000
G01 X22.889490 Y67.925213 Z-0.125000
G01 X25.758442 Y68.412151 Z-0.125000
G01 X29.052448 Y68.733249 Z-0.125000
G01 X32.665249 Y68.843554 Z-0.125000
G01 X36.065511 Y68.751902 Z-0.125000
G01 X39.253234 Y68.469486 Z-0.125000
G01 X42.334726 Y67.977997 Z-0.125000
G01 X48.497711 Y66.676619 Z-0.125000
G01 X50.197842 Y66.484479 Z-0.125000
G01 X51.791716 Y66.488183 Z-0.125000
G01 X53.279334 Y66.689928 Z-0.125000
G01 X54.873209 Y67.123923 Z-0.125000
G01 X59.336062 Y69.003124 Z-0.125000
G01 X60.611141 Y69.458868 Z-0.125000
G01 X61.779989 Y69.738506 Z-0.125000
G01 X62.948837 Y69.848572 Z-0.125000
G01 X64.436455 Y69.718239 Z-0.125000
G01 X66.030330 Y69.262812 Z-0.125000
G01 X67.381317 Y68.681814 Z-0.125000
G01 X70.705697 Y67.030949 Z-0.125000
G01 X72.299545 Y66.406136 Z-0.125000
G01 X73.787163 Y66.039794 Z-0.125000
G01 X75.168524 Y65.914699 Z-0.125000
G01 X76.762398 Y66.020268 Z-0.125000
G01 X78.568786 Y66.408967 Z-0.125000
G01 X84.838027 Y68.592676 Z-0.125000
G01 X87.813263 Y69.395580 Z-0.125000
G01 X91.001012 Y69.898393 Z-0.125000
G01 X94.720043 Y70.121966 Z-0.125000
G01 X97.163997 Y70.118553 Z-0.125000
G01 X99.395410 Y70.008539 Z-0.125000
G01 X101.308054 Y69.799439 Z-0.125000
G01 X103.114442 Y69.463340 Z-0.125000
G01 X104.602060 Y69.059057 Z-0.125000
G01 X105.983421 Y68.571404 Z-0.125000
G01 X110.977558 Y66.374492 Z-0.125000
G01 X112.146406 Y66.036831 Z-0.125000
G01 X113.102715 Y65.917028 Z-0.125000
G01 X114.271563 Y66.015823 Z-0.125000
G01 X115.440411 Y66.412512 Z-0.125000
G01 X116.654768 Y67.114187 Z-0.125000
G01 X119.660378 Y69.273052 Z-0.125000
G01 X120.540804 Y69.682494 Z-0.125000
G01 X121.390857 Y69.847011 Z-0.125000
G01 X122.134679 Y69.775204 Z-0.125000
G01 X122.939196 Y69.469557 Z-0.125000
G01 X123.849970 Y68.881892 Z-0.125000
G01 X126.309111 Y66.945991 Z-0.125000
G01 X127.022559 Y66.599969 Z-0.125000
G01 X127.766354 Y66.461116 Z-0.125000
G01 X128.403894 Y66.541311 Z-0.125000
G01 X129.041459 Y66.797798 Z-0.125000
G01 X129.758691 Y67.256691 Z-0.125000
G01 X131.864877 Y68.882183 Z-0.125000
G01 X132.547978 Y69.213203 Z-0.125000
G01 X133.185517 Y69.340203 Z-0.125000
G01 X133.716826 Y69.299457 Z-0.125000
G01 X134.324018 Y69.096945 Z-0.125000
G01 X134.961557 Y68.737588 Z-0.125000
G01 X137.056366 Y67.282303 Z-0.125000
G01 X137.648371 Y67.032721 Z-0.125000
G01 X138.285910 Y66.927047 Z-0.125000
G01 X138.817219 Y66.976709 Z-0.125000
G01 X139.333315 Y67.136623 Z-0.125000
G01 X141.792428 Y68.562170 Z-0.125000
G01 X142.429994 Y68.812571 Z-0.125000
G01 X143.067533 Y68.917267 Z-0.125000
G01 X144.130125 Y68.750447 Z-0.125000
G01 X146.680308 Y67.550325 Z-0.125000
G01 X147.849157 Y67.310428 Z-0.125000
G01 X148.911748 Y67.446079 Z-0.125000
G01 X151.355675 Y68.353811 Z-0.125000
G01 X152.630780 Y68.575558 Z-0.125000
G01 X153.693372 Y68.483615 Z-0.125000
G01 X156.243555 Y67.790831 Z-0.125000
G01 X157.518660 Y67.614963 Z-0.125000
G01 X158.687508 Y67.669070 Z-0.125000
G01 X161.450204 Y68.178525 Z-0.125000
G01 X162.937822 Y68.314811 Z-0.125000
G01 X164.319184 Y68.264937 Z-0.125000
G01 X168.357011 Y67.849886 Z-0.125000
G01 X171.757273 Y67.923863 Z-0.125000
G00 Z3.000000

(End cutting path id: polyline1193)


(Start cutting path id: polyline1195)
(Change tool to Default tool)

G00 Z3.000000
G00 X14.920117 Y65.528091

G00 Z4.875000 (Fast pre-penetrate)
G01 Z-0.125000 F400.0(Penetrate)
G01 X20.339280 Y67.026742 Z-0.125000 F800.000000
G01 X23.739542 Y67.643247 Z-0.125000
G01 X27.989883 Y67.945242 Z-0.125000
G01 X34.896663 Y67.990538 Z-0.125000
G01 X39.146977 Y67.864015 Z-0.125000
G01 X42.440983 Y67.531460 Z-0.125000
G01 X45.416219 Y66.945435 Z-0.125000
G01 X51.154177 Y65.419136 Z-0.125000
G01 X52.748052 Y65.180270 Z-0.125000
G01 X54.235669 Y65.152753 Z-0.125000
G01 X55.617004 Y65.329733 Z-0.125000
G01 X57.104622 Y65.738752 Z-0.125000
G01 X58.485984 Y66.284613 Z-0.125000
G01 X61.461220 Y67.645310 Z-0.125000
G01 X62.842581 Y68.153416 Z-0.125000
G01 X64.011403 Y68.429243 Z-0.125000
G01 X65.180251 Y68.526504 Z-0.125000
G01 X66.667869 Y68.374316 Z-0.125000
G01 X68.155487 Y67.939659 Z-0.125000
G01 X69.476127 Y67.377976 Z-0.125000
G01 X72.754945 Y65.775740 Z-0.125000
G01 X74.424728 Y65.123967 Z-0.125000
G01 X76.018603 Y64.730188 Z-0.125000
G01 X77.506221 Y64.592419 Z-0.125000
G01 X79.100095 Y64.680208 Z-0.125000
G01 X80.800226 Y64.993898 Z-0.125000
G01 X86.963184 Y66.858943 Z-0.125000
G01 X89.725907 Y67.530693 Z-0.125000
