%
(Header)
(Generated by gcodetools from Inkscape.)
(Using default header. To add your own header create file "header" in the output dir.)
M3
(Header end.)
G21 (All units in mm)

(Start cutting path id: polyline929)
(Change tool to Default tool)

G00 Z5.000000
G00 X142.630084 Y234.648159

G00 Z4.875000 (Fast pre-penetrate)
G01 Z-0.125000 F100.0(Penetrate)
G01 X126.408926 Y207.610889 Z-0.125000 F800.000000
G01 X140.453570 Y193.204015 Z-0.125000
G01 X141.074763 Y164.395639 Z-0.125000
G01 X128.556588 Y155.482005 Z-0.125000
G01 X142.045054 Y126.077556 Z-0.125000
G01 X137.101425 Y96.549346 Z-0.125000
G01 X140.928070 Y83.377446 Z-0.125000
G01 X138.075546 Y62.280509 Z-0.125000
G01 X143.192629 Y41.329569 Z-0.125000
G00 Z5.000000

(End cutting path id: polyline929)


(Start cutting path id: polyline557)
(Change tool to Default tool)

G00 Z5.000000
G00 X144.734470 Y41.488946

G00 Z4.875000 (Fast pre-penetrate)
G01 Z-0.125000 F100.0(Penetrate)
G01 X138.548654 Y62.339057 Z-0.125000 F800.000000
G01 X142.425689 Y83.568858 Z-0.125000
G01 X137.213895 Y96.419417 Z-0.125000
G01 X143.703094 Y126.202163 Z-0.125000
G01 X128.872806 Y155.568111 Z-0.125000
G01 X141.991232 Y164.409965 Z-0.125000
G01 X141.537623 Y193.195608 Z-0.125000
G01 X126.708927 Y207.780862 Z-0.125000
G01 X143.603657 Y234.779033 Z-0.125000
G00 Z5.000000

(End cutting path id: polyline557)


(Start cutting path id: polyline559)
(Change tool to Default tool)

G00 Z5.000000
G00 X143.824418 Y234.657759

G00 Z4.875000 (Fast pre-penetrate)
G01 Z-0.125000 F100.0(Penetrate)
G01 X128.381592 Y207.572239 Z-0.125000 F800.000000
G01 X142.398479 Y192.999819 Z-0.125000
G01 X142.480556 Y164.892921 Z-0.125000
G01 X130.174635 Y155.222495 Z-0.125000
G01 X144.677713 Y125.889875 Z-0.125000
G01 X137.678446 Y97.047773 Z-0.125000
G01 X143.490442 Y83.608553 Z-0.125000
G01 X139.655142 Y62.501519 Z-0.125000
G01 X145.560306 Y41.874556 Z-0.125000
G00 Z5.000000

(End cutting path id: polyline559)


(Start cutting path id: polyline561)
(Change tool to Default tool)

G00 Z5.000000
G00 X162.903273 Y49.971654

G00 Z4.875000 (Fast pre-penetrate)
G01 Z-0.125000 F100.0(Penetrate)
G01 X162.891534 Y65.912708 Z-0.125000 F800.000000
G01 X165.850508 Y84.441503 Z-0.125000
G01 X147.434779 Y110.242604 Z-0.125000
G01 X165.144801 Y119.331732 Z-0.125000
G01 X157.512851 Y147.963818 Z-0.125000
G01 X152.756307 Y175.035560 Z-0.125000
G01 X160.476501 Y188.889041 Z-0.125000
G01 X163.508150 Y203.191256 Z-0.125000
G01 X148.461031 Y232.110957 Z-0.125000
G00 Z5.000000

(End cutting path id: polyline561)


(Start cutting path id: polyline563)
(Change tool to Default tool)

G00 Z5.000000
G00 X148.240221 Y232.232231

G00 Z4.875000 (Fast pre-penetrate)
G01 Z-0.125000 F100.0(Penetrate)
G01 X161.835436 Y203.399879 Z-0.125000 F800.000000
G01 X159.615645 Y189.084781 Z-0.125000
G01 X152.266983 Y174.552553 Z-0.125000
G01 X156.211022 Y148.309434 Z-0.125000
G01 X164.170133 Y119.644020 Z-0.125000
G01 X146.970228 Y109.614248 Z-0.125000
G01 X164.785755 Y84.401858 Z-0.125000
G01 X161.785046 Y65.750247 Z-0.125000
G01 X162.077436 Y49.586045 Z-0.125000
G00 Z5.000000

(End cutting path id: polyline563)


(Start cutting path id: polyline565)
(Change tool to Default tool)

G00 Z5.000000
G00 X181.085905 Y38.791671

G00 Z4.875000 (Fast pre-penetrate)
G01 Z-0.125000 F100.0(Penetrate)
G01 X163.874857 Y53.974639 Z-0.125000 F800.000000
G01 X190.593173 Y75.118881 Z-0.125000
G01 X166.790157 Y111.117637 Z-0.125000
G01 X197.915870 Y128.078576 Z-0.125000
G01 X178.443098 Y137.969116 Z-0.125000
G01 X186.603968 Y174.395216 Z-0.125000
G01 X178.464687 Y191.387095 Z-0.125000
G01 X188.855643 Y205.691896 Z-0.125000
G01 X173.765248 Y227.055058 Z-0.125000
G00 Z5.000000

(End cutting path id: polyline565)


(Start cutting path id: polyline567)
(Change tool to Default tool)

G00 Z5.000000
G00 X174.937446 Y227.070678

G00 Z4.875000 (Fast pre-penetrate)
G01 Z-0.125000 F100.0(Penetrate)
G01 X189.014672 Y205.470788 Z-0.125000 F800.000000
G01 X179.812777 Y191.512099 Z-0.125000
G01 X187.365884 Y174.246285 Z-0.125000
G01 X178.997138 Y137.864257 Z-0.125000
G01 X198.324262 Y128.409368 Z-0.125000
G01 X168.411337 Y110.892947 Z-0.125000
G01 X191.155670 Y75.577364 Z-0.125000
G01 X165.240358 Y54.026571 Z-0.125000
G01 X181.855581 Y38.776947 Z-0.125000
G00 Z5.000000

(End cutting path id: polyline567)


(Start cutting path id: polyline569)
(Change tool to Default tool)

G00 Z5.000000
G00 X198.019435 Y38.467594

G00 Z4.875000 (Fast pre-penetrate)
G01 Z-0.125000 F100.0(Penetrate)
G01 X193.916019 Y55.116991 Z-0.125000 F800.000000
G01 X202.968038 Y85.205161 Z-0.125000
G01 X202.456429 Y106.174655 Z-0.125000
G01 X206.900238 Y135.355956 Z-0.125000
G01 X190.631923 Y135.662325 Z-0.125000
G01 X203.365735 Y171.119178 Z-0.125000
G01 X208.122428 Y194.137745 Z-0.125000
G01 X192.354381 Y200.827061 Z-0.125000
G01 X199.554063 Y227.399182 Z-0.125000
G00 Z5.000000

(End cutting path id: polyline569)


(Start cutting path id: polyline571)
(Change tool to Default tool)

G00 Z5.000000
G00 X198.381814 Y227.383563

G00 Z4.875000 (Fast pre-penetrate)
G01 Z-0.125000 F100.0(Penetrate)
G01 X192.195352 Y201.048219 Z-0.125000 F800.000000
G01 X206.774338 Y194.012690 Z-0.125000
G01 X202.603818 Y171.268060 Z-0.125000
G01 X190.077884 Y135.767183 Z-0.125000
G01 X206.491846 Y135.025164 Z-0.125000
G01 X200.835249 Y106.399345 Z-0.125000
G01 X202.405542 Y84.746678 Z-0.125000
G01 X192.550519 Y55.065059 Z-0.125000
G01 X197.249709 Y38.482368 Z-0.125000
G00 Z5.000000

(End cutting path id: polyline571)


(Start cutting path id: polyline553)
(Change tool to Default tool)

G00 Z5.000000
G00 X110.813487 Y37.981901

G00 Z4.875000 (Fast pre-penetrate)
G01 Z-0.125000 F100.0(Penetrate)
G01 X128.140735 Y61.050858 Z-0.125000 F800.000000
G01 X109.478280 Y79.357251 Z-0.125000
G01 X134.740116 Y99.278109 Z-0.125000
G01 X107.225112 Y123.460766 Z-0.125000
G01 X121.915970 Y153.672746 Z-0.125000
G01 X121.829318 Y164.095190 Z-0.125000
G01 X117.688445 Y193.380952 Z-0.125000
G01 X120.108701 Y204.041516 Z-0.125000
G01 X122.185181 Y231.899947 Z-0.125000
G00 Z5.000000

(End cutting path id: polyline553)


(Start cutting path id: polyline555)
(Change tool to Default tool)

G00 Z5.000000
G00 X123.158755 Y232.030821

G00 Z4.875000 (Fast pre-penetrate)
G01 Z-0.125000 F100.0(Penetrate)
G01 X120.408702 Y204.211489 Z-0.125000 F800.000000
G01 X118.772499 Y193.372545 Z-0.125000
G01 X122.745787 Y164.109516 Z-0.125000
G01 X122.232188 Y153.758901 Z-0.125000
G01 X108.883202 Y123.585372 Z-0.125000
G01 X134.852535 Y99.148180 Z-0.125000
G01 X110.975849 Y79.548712 Z-0.125000
G01 X128.613843 Y61.109405 Z-0.125000
G01 X112.355377 Y38.141328 Z-0.125000
G00 Z5.000000

(End cutting path id: polyline555)


(Start cutting path id: polyline549)
(Change tool to Default tool)

G00 Z5.000000
G00 X87.901471 Y42.568622

G00 Z4.875000 (Fast pre-penetrate)
G01 Z-0.125000 F100.0(Penetrate)
G01 X106.886560 Y60.784881 Z-0.125000 F800.000000
G01 X88.620111 Y73.728857 Z-0.125000
G01 X99.222078 Y116.390367 Z-0.125000
G01 X96.112282 Y145.640960 Z-0.125000
G01 X82.771554 Y170.983976 Z-0.125000
G01 X102.891833 Y189.371003 Z-0.125000
G01 X101.439680 Y204.857802 Z-0.125000
G01 X92.325581 Y227.845577 Z-0.125000
G00 Z5.000000

(End cutting path id: polyline549)


(Start cutting path id: polyline551)
(Change tool to Default tool)

G00 Z5.000000
G00 X91.352057 Y227.617654

G00 Z4.875000 (Fast pre-penetrate)
G01 Z-0.125000 F100.0(Penetrate)
G01 X100.406712 Y204.720660 Z-0.125000 F800.000000
G01 X101.539266 Y189.256395 Z-0.125000
G01 X82.004414 Y170.714965 Z-0.125000
G01 X94.906905 Y145.550875 Z-0.125000
G01 X98.585315 Y116.625702 Z-0.125000
G01 X96.886038 Y114.071985 Z-0.125000
G01 X88.058212 Y74.337813 Z-0.125000
G01 X105.392672 Y60.642764 Z-0.125000
G01 X87.199893 Y42.489481 Z-0.125000
G00 Z5.000000

(End cutting path id: polyline551)


(Start cutting path id: polyline545)
(Change tool to Default tool)

G00 Z5.000000
G00 X72.466653 Y40.827760

G00 Z4.875000 (Fast pre-penetrate)
G01 Z-0.125000 F100.0(Penetrate)
G01 X74.021377 Y57.658073 Z-0.125000 F800.000000
G01 X76.257981 Y87.126591 Z-0.125000
G01 X61.410829 Y117.898531 Z-0.125000
G01 X85.213149 Y121.568236 Z-0.125000
G01 X69.594580 Y143.658942 Z-0.125000
G01 X65.894830 Y165.065282 Z-0.125000
G01 X73.135898 Y186.848774 Z-0.125000
G01 X78.713802 Y201.840927 Z-0.125000
G01 X70.908050 Y222.831911 Z-0.125000
G00 Z5.000000

(End cutting path id: polyline545)


(Start cutting path id: polyline547)
(Change tool to Default tool)

G00 Z5.000000
G00 X70.165732 Y223.100773

G00 Z4.875000 (Fast pre-penetrate)
G01 Z-0.125000 F100.0(Penetrate)
G01 X77.238817 Y201.719553 Z-0.125000 F800.000000
G01 X72.363237 Y187.310540 Z-0.125000
G01 X65.661833 Y165.138703 Z-0.125000
G01 X68.133274 Y143.262389 Z-0.125000
G01 X83.977677 Y121.865949 Z-0.125000
G01 X61.209419 Y117.416569 Z-0.125000
G01 X75.251626 Y86.955873 Z-0.125000
G01 X73.256277 Y57.855106 Z-0.125000
G01 X71.768955 Y40.968433 Z-0.125000
G00 Z5.000000

(End cutting path id: polyline547)


(Start cutting path id: polyline541)
(Change tool to Default tool)

G00 Z5.000000
G00 X57.117145 Y43.922533

G00 Z4.875000 (Fast pre-penetrate)
G01 Z-0.125000 F100.0(Penetrate)
G01 X57.189522 Y61.992695 Z-0.125000 F800.000000
G01 X54.117431 Y83.370283 Z-0.125000
G01 X56.979755 Y107.294773 Z-0.125000
G01 X58.032520 Y128.117575 Z-0.125000
G01 X37.445749 Y134.934482 Z-0.125000
G01 X60.768197 Y166.680593 Z-0.125000
G01 X56.137354 Y197.007330 Z-0.125000
G01 X46.263925 Y199.170861 Z-0.125000
G01 X54.576909 Y228.745880 Z-0.125000
G00 Z5.000000

(End cutting path id: polyline541)


(Start cutting path id: polyline543)
(Change tool to Default tool)

G00 Z5.000000
G00 X55.319227 Y228.477067

G00 Z4.875000 (Fast pre-penetrate)
G01 Z-0.125000 F100.0(Penetrate)
G01 X47.738911 Y199.292234 Z-0.125000 F800.000000
G01 X56.910015 Y196.545564 Z-0.125000
G01 X61.001244 Y166.607172 Z-0.125000
G01 X38.907055 Y135.331035 Z-0.125000
G01 X59.268041 Y127.819862 Z-0.125000
G01 X57.181165 Y107.776735 Z-0.125000
G01 X55.123786 Y83.541052 Z-0.125000
G01 X57.954622 Y61.795662 Z-0.125000
G01 X57.814893 Y43.781859 Z-0.125000
G00 Z5.000000

(End cutting path id: polyline543)


(Start cutting path id: polyline537)
(Change tool to Default tool)

G00 Z5.000000
G00 X39.121996 Y50.369003

G00 Z4.875000 (Fast pre-penetrate)
G01 Z-0.125000 F100.0(Penetrate)
G01 X47.076580 Y66.175750 Z-0.125000 F800.000000
G01 X35.486365 Y91.444898 Z-0.125000
G01 X29.711378 Y104.871582 Z-0.125000
G01 X37.199819 Y129.163027 Z-0.125000
G01 X21.233097 Y148.144933 Z-0.125000
G01 X44.542811 Y164.502885 Z-0.125000
G01 X24.724324 Y193.133678 Z-0.125000
G01 X29.389490 Y205.361402 Z-0.125000
G01 X29.325968 Y229.271566 Z-0.125000
G00 Z5.000000

(End cutting path id: polyline537)


(Start cutting path id: polyline539)
(Change tool to Default tool)

G00 Z5.000000
G00 X28.816150 Y229.153376

G00 Z4.875000 (Fast pre-penetrate)
G01 Z-0.125000 F100.0(Penetrate)
G01 X28.798889 Y205.421940 Z-0.125000 F800.000000
G01 X23.725530 Y192.621074 Z-0.125000
G01 X43.602913 Y164.012815 Z-0.125000
G01 X20.810330 Y148.191145 Z-0.125000
G01 X35.841879 Y129.167256 Z-0.125000
G01 X28.544104 Y104.459957 Z-0.125000
G01 X34.795780 Y91.182353 Z-0.125000
G01 X45.371781 Y66.101683 Z-0.125000
G01 X37.764255 Y49.801930 Z-0.125000
G00 Z5.000000

(End cutting path id: polyline539)


(Start cutting path id: polyline533)
(Change tool to Default tool)

G00 Z5.000000
G00 X9.251453 Y37.893707

G00 Z4.875000 (Fast pre-penetrate)
G01 Z-0.125000 F100.0(Penetrate)
G01 X9.571650 Y64.546412 Z-0.125000 F800.000000
G01 X20.293846 Y85.668519 Z-0.125000
G01 X4.031153 Y95.816380 Z-0.125000
G01 X7.325446 Y129.255500 Z-0.125000
G01 X11.932412 Y149.161336 Z-0.125000
G01 X23.865209 Y153.721544 Z-0.125000
G01 X2.751011 Y181.856397 Z-0.125000
G01 X16.396069 Y206.693227 Z-0.125000
G01 X18.110916 Y226.671837 Z-0.125000
G00 Z5.000000

(End cutting path id: polyline533)


(Start cutting path id: polyline535)
(Change tool to Default tool)

G00 Z5.000000
G00 X18.620684 Y226.790027

G00 Z4.875000 (Fast pre-penetrate)
G01 Z-0.125000 F100.0(Penetrate)
G01 X16.986670 Y206.632689 Z-0.125000 F800.000000
G01 X3.749755 Y182.369001 Z-0.125000
G01 X24.805107 Y154.211614 Z-0.125000
G01 X12.355180 Y149.115124 Z-0.125000
G01 X8.683336 Y129.251272 Z-0.125000
G01 X5.198427 Y96.228005 Z-0.125000
G01 X20.984431 Y85.931063 Z-0.125000
G01 X11.276399 Y64.620479 Z-0.125000
G01 X10.609193 Y38.460779 Z-0.125000
G00 Z5.000000

(End cutting path id: polyline535)


(Start cutting path id: polyline777)
(Change tool to Default tool)

G00 Z5.000000
G00 X19.130452 Y226.908167

G00 Z4.875000 (Fast pre-penetrate)
G01 Z-0.125000 F100.0(Penetrate)
G01 X17.577271 Y206.572152 Z-0.125000 F800.000000
G01 X4.748549 Y182.881605 Z-0.125000
G01 X25.744955 Y154.701684 Z-0.125000
G01 X12.777947 Y149.068913 Z-0.125000
G01 X10.041275 Y129.247093 Z-0.125000
G01 X6.365750 Y96.639580 Z-0.125000
G01 X21.674966 Y86.193657 Z-0.125000
G01 X12.981148 Y64.694547 Z-0.125000
G01 X11.966934 Y39.027802 Z-0.125000
G00 Z5.000000

(End cutting path id: polyline777)


(Start cutting path id: polyline779)
(Change tool to Default tool)

G00 Z5.000000
G00 X19.640221 Y227.026357

G00 Z4.875000 (Fast pre-penetrate)
G01 Z-0.125000 F100.0(Penetrate)
G01 X18.167872 Y206.511614 Z-0.125000 F800.000000
G01 X5.747343 Y183.394208 Z-0.125000
G01 X26.684853 Y155.191754 Z-0.125000
G01 X13.200665 Y149.022702 Z-0.125000
G01 X11.399215 Y129.242865 Z-0.125000
G01 X7.533024 Y97.051205 Z-0.125000
G01 X22.365551 Y86.456202 Z-0.125000
G01 X14.685947 Y64.768565 Z-0.125000
G01 X13.324724 Y39.594874 Z-0.125000
G00 Z5.000000

(End cutting path id: polyline779)


(Start cutting path id: polyline781)
(Change tool to Default tool)

G00 Z5.000000
G00 X20.149989 Y227.144546

G00 Z4.875000 (Fast pre-penetrate)
G01 Z-0.125000 F100.0(Penetrate)
G01 X18.758522 Y206.451077 Z-0.125000 F800.000000
G01 X6.746136 Y183.906812 Z-0.125000
G01 X27.624750 Y155.681774 Z-0.125000
G01 X13.623432 Y148.976540 Z-0.125000
G01 X12.757154 Y129.238687 Z-0.125000
G01 X8.700298 Y97.462780 Z-0.125000
G01 X23.056136 Y86.718796 Z-0.125000
G01 X16.390696 Y64.842632 Z-0.125000
G01 X14.682465 Y40.161947 Z-0.125000
G00 Z5.000000

(End cutting path id: polyline781)


(Start cutting path id: polyline783)
(Change tool to Default tool)

G00 Z5.000000
G00 X20.659757 Y227.262687

G00 Z4.875000 (Fast pre-penetrate)
G01 Z-0.125000 F100.0(Penetrate)
G01 X19.349123 Y206.390539 Z-0.125000 F800.000000
G01 X7.744930 Y184.419416 Z-0.125000
G01 X28.564648 Y156.171844 Z-0.125000
G01 X14.046200 Y148.930329 Z-0.125000
G01 X14.115044 Y129.234459 Z-0.125000
G01 X9.867572 Y97.874405 Z-0.125000
G01 X23.746671 Y86.981341 Z-0.125000
G01 X18.095495 Y64.916700 Z-0.125000
G01 X16.040206 Y40.729019 Z-0.125000
G00 Z5.000000

(End cutting path id: polyline783)


(Start cutting path id: polyline785)
(Change tool to Default tool)

G00 Z5.000000
G00 X21.169525 Y227.380876

G00 Z4.875000 (Fast pre-penetrate)
G01 Z-0.125000 F100.0(Penetrate)
G01 X19.939724 Y206.330002 Z-0.125000 F800.000000
G01 X8.743724 Y184.932019 Z-0.125000
G01 X29.504546 Y156.661914 Z-0.125000
G01 X14.468967 Y148.884117 Z-0.125000
G01 X15.472984 Y129.230280 Z-0.125000
G01 X11.034846 Y98.285981 Z-0.125000
G01 X24.437256 Y87.243886 Z-0.125000
G01 X19.800244 Y64.990768 Z-0.125000
G01 X17.397946 Y41.296092 Z-0.125000
G00 Z5.000000

(End cutting path id: polyline785)


(Start cutting path id: polyline787)
(Change tool to Default tool)

G00 Z5.000000
G00 X21.679344 Y227.499017

G00 Z4.875000 (Fast pre-penetrate)
G01 Z-0.125000 F100.0(Penetrate)
G01 X20.530325 Y206.269464 Z-0.125000 F800.000000
G01 X9.742518 Y185.444623 Z-0.125000
G01 X30.444444 Y157.151984 Z-0.125000
G01 X14.891735 Y148.837955 Z-0.125000
G01 X16.830924 Y129.226052 Z-0.125000
G01 X12.202120 Y98.697606 Z-0.125000
G01 X25.127841 Y87.506480 Z-0.125000
G01 X21.505043 Y65.064835 Z-0.125000
G01 X18.755737 Y41.863115 Z-0.125000
G00 Z5.000000

(End cutting path id: polyline787)


(Start cutting path id: polyline789)
(Change tool to Default tool)

G00 Z5.000000
G00 X22.189112 Y227.617206

G00 Z4.875000 (Fast pre-penetrate)
G01 Z-0.125000 F100.0(Penetrate)
G01 X21.120926 Y206.208927 Z-0.125000 F800.000000
G01 X10.741311 Y185.957227 Z-0.125000
G01 X31.384341 Y157.642054 Z-0.125000
G01 X15.314502 Y148.791744 Z-0.125000
G01 X18.188863 Y129.221874 Z-0.125000
G01 X13.369444 Y99.109181 Z-0.125000
G01 X25.818376 Y87.769025 Z-0.125000
G01 X23.209793 Y65.138903 Z-0.125000
G01 X20.113477 Y42.430187 Z-0.125000
G00 Z5.000000

(End cutting path id: polyline789)


(Start cutting path id: polyline791)
(Change tool to Default tool)

G00 Z5.000000
G00 X22.698880 Y227.735396

G00 Z4.875000 (Fast pre-penetrate)
G01 Z-0.125000 F100.0(Penetrate)
G01 X21.711577 Y206.148389 Z-0.125000 F800.000000
G01 X11.740105 Y186.469830 Z-0.125000
G01 X32.324189 Y158.132074 Z-0.125000
G01 X15.737220 Y148.745533 Z-0.125000
G01 X19.546753 Y129.217695 Z-0.125000
G01 X14.536717 Y99.520806 Z-0.125000
G01 X26.508961 Y88.031569 Z-0.125000
G01 X24.914542 Y65.212971 Z-0.125000
G01 X21.471218 Y42.997260 Z-0.125000
G00 Z5.000000

(End cutting path id: polyline791)


(Start cutting path id: polyline793)
(Change tool to Default tool)

G00 Z5.000000
G00 X23.208648 Y227.853536

G00 Z4.875000 (Fast pre-penetrate)
G01 Z-0.125000 F100.0(Penetrate)
G01 X22.302178 Y206.087852 Z-0.125000 F800.000000
G01 X12.738849 Y186.982434 Z-0.125000
G01 X33.264087 Y158.622144 Z-0.125000
G01 X16.159987 Y148.699371 Z-0.125000
G01 X20.904693 Y129.213467 Z-0.125000
G01 X15.703991 Y99.932381 Z-0.125000
G01 X27.199545 Y88.294164 Z-0.125000
G01 X26.619341 Y65.287038 Z-0.125000
G01 X22.828959 Y43.564282 Z-0.125000
G00 Z5.000000

(End cutting path id: polyline793)


(Start cutting path id: polyline795)
(Change tool to Default tool)

G00 Z5.000000
G00 X23.718417 Y227.971676

G00 Z4.875000 (Fast pre-penetrate)
G01 Z-0.125000 F100.0(Penetrate)
G01 X22.892779 Y206.027314 Z-0.125000 F800.000000
G01 X13.737643 Y187.495038 Z-0.125000
G01 X34.203985 Y159.112214 Z-0.125000
G01 X16.582755 Y148.653159 Z-0.125000
G01 X22.262632 Y129.209289 Z-0.125000
G01 X16.871265 Y100.344006 Z-0.125000
G01 X27.890081 Y88.556708 Z-0.125000
G01 X28.324090 Y65.361056 Z-0.125000
G01 X24.186699 Y44.131355 Z-0.125000
G00 Z5.000000

(End cutting path id: polyline795)


(Start cutting path id: polyline797)
(Change tool to Default tool)

G00 Z5.000000
G00 X24.228185 Y228.089866

G00 Z4.875000 (Fast pre-penetrate)
G01 Z-0.125000 F100.0(Penetrate)
G01 X23.483380 Y205.966777 Z-0.125000 F800.000000
G01 X14.736436 Y188.007641 Z-0.125000
G01 X35.143883 Y159.602284 Z-0.125000
G01 X17.005522 Y148.606948 Z-0.125000
G01 X23.620572 Y129.205060 Z-0.125000
G01 X18.038539 Y100.755581 Z-0.125000
G01 X28.580665 Y88.819253 Z-0.125000
G01 X30.028839 Y65.435124 Z-0.125000
G01 X25.544490 Y44.698427 Z-0.125000
G00 Z5.000000

(End cutting path id: polyline797)


(Start cutting path id: polyline799)
(Change tool to Default tool)

G00 Z5.000000
G00 X24.737953 Y228.208056

G00 Z4.875000 (Fast pre-penetrate)
G01 Z-0.125000 F100.0(Penetrate)
G01 X24.073981 Y205.906240 Z-0.125000 F800.000000
G01 X15.735230 Y188.520245 Z-0.125000
G01 X36.083780 Y160.092354 Z-0.125000
G01 X17.428290 Y148.560737 Z-0.125000
G01 X24.978462 Y129.200832 Z-0.125000
G01 X19.205813 Y101.167157 Z-0.125000
G01 X29.271250 Y89.081847 Z-0.125000
G01 X31.733638 Y65.509191 Z-0.125000
G01 X26.902230 Y45.265500 Z-0.125000
G00 Z5.000000

(End cutting path id: polyline799)


(Start cutting path id: polyline801)
(Change tool to Default tool)

G00 Z5.000000
G00 X25.247722 Y228.326196

G00 Z4.875000 (Fast pre-penetrate)
G01 Z-0.125000 F100.0(Penetrate)
G01 X24.664632 Y205.845702 Z-0.125000 F800.000000
G01 X16.734024 Y189.032849 Z-0.125000
G01 X37.023678 Y160.582424 Z-0.125000
G01 X17.851007 Y148.514525 Z-0.125000
G01 X26.336401 Y129.196654 Z-0.125000
G01 X20.373087 Y101.578782 Z-0.125000
G01 X29.961785 Y89.344392 Z-0.125000
G01 X33.438387 Y65.583259 Z-0.125000
G01 X28.259971 Y45.832522 Z-0.125000
G00 Z5.000000

(End cutting path id: polyline801)


(Start cutting path id: polyline687)
(Change tool to Default tool)

G00 Z5.000000
G00 X69.423364 Y223.369585

G00 Z4.875000 (Fast pre-penetrate)
G01 Z-0.125000 F100.0(Penetrate)
G01 X75.763782 Y201.598180 Z-0.125000 F800.000000
G01 X71.590576 Y187.772256 Z-0.125000
G01 X65.428786 Y165.212124 Z-0.125000
G01 X66.671919 Y142.865837 Z-0.125000
G01 X82.742156 Y122.163612 Z-0.125000
G01 X61.008009 Y116.934557 Z-0.125000
G01 X74.245221 Y86.785104 Z-0.125000
G01 X72.491226 Y58.052138 Z-0.125000
G01 X71.071257 Y41.109107 Z-0.125000
G00 Z5.000000

(End cutting path id: polyline687)


(Start cutting path id: polyline683)
(Change tool to Default tool)

G00 Z5.000000
G00 X71.881574 Y223.059834

G00 Z4.875000 (Fast pre-penetrate)
G01 Z-0.125000 F100.0(Penetrate)
G01 X79.746770 Y201.978019 Z-0.125000 F800.000000
G01 X74.488466 Y186.963432 Z-0.125000
G01 X66.661970 Y165.334293 Z-0.125000
G01 X70.799908 Y143.749027 Z-0.125000
G01 X85.849912 Y121.332851 Z-0.125000
G01 X63.100158 Y117.716321 Z-0.125000
G01 X76.819929 Y86.517635 Z-0.125000
G01 X75.515265 Y57.800189 Z-0.125000
G01 X73.168231 Y40.906851 Z-0.125000
G00 Z5.000000

(End cutting path id: polyline683)


(Start cutting path id: polyline685)
(Change tool to Default tool)

G00 Z5.000000
G00 X72.855098 Y223.287707

G00 Z4.875000 (Fast pre-penetrate)
G01 Z-0.125000 F100.0(Penetrate)
G01 X80.779787 Y202.115161 Z-0.125000 F800.000000
G01 X75.840983 Y187.078090 Z-0.125000
G01 X67.429060 Y165.603354 Z-0.125000
G01 X72.005285 Y143.839162 Z-0.125000
G01 X86.486675 Y121.097516 Z-0.125000
G01 X64.789437 Y117.534112 Z-0.125000
G01 X77.381829 Y85.908629 Z-0.125000
G01 X77.009103 Y57.942306 Z-0.125000
G01 X73.869809 Y40.985993 Z-0.125000
G00 Z5.000000

(End cutting path id: polyline685)


(Start cutting path id: polyline689)
(Change tool to Default tool)

G00 Z5.000000
G00 X73.828622 Y223.515581

G00 Z4.875000 (Fast pre-penetrate)
G01 Z-0.125000 F100.0(Penetrate)
G01 X81.812754 Y202.252303 Z-0.125000 F800.000000
G01 X77.193551 Y187.192698 Z-0.125000
G01 X68.196200 Y165.872365 Z-0.125000
G01 X73.210613 Y143.929247 Z-0.125000
G01 X87.123437 Y120.862181 Z-0.125000
G01 X66.478716 Y117.351903 Z-0.125000
G01 X77.943728 Y85.299623 Z-0.125000
G01 X78.502991 Y58.084472 Z-0.125000
G01 X74.571388 Y41.065134 Z-0.125000
G00 Z5.000000

(End cutting path id: polyline689)


(Start cutting path id: polyline691)
(Change tool to Default tool)

G00 Z5.000000
G00 X68.681047 Y223.638397

G00 Z4.875000 (Fast pre-penetrate)
G01 Z-0.125000 F100.0(Penetrate)
G01 X74.288796 Y201.476807 Z-0.125000 F800.000000
G01 X70.817915 Y188.234023 Z-0.125000
G01 X65.195740 Y165.285544 Z-0.125000
G01 X65.210613 Y142.469284 Z-0.125000
G01 X81.506684 Y122.461325 Z-0.125000
G01 X60.806599 Y116.452595 Z-0.125000
G01 X73.238817 Y86.614385 Z-0.125000
G01 X71.726126 Y58.249171 Z-0.125000
G01 X70.373509 Y41.249781 Z-0.125000
G00 Z5.000000

(End cutting path id: polyline691)


(Start cutting path id: polyline693)
(Change tool to Default tool)

G00 Z5.000000
G00 X74.802146 Y223.743504

G00 Z4.875000 (Fast pre-penetrate)
G01 Z-0.125000 F100.0(Penetrate)
G01 X82.845771 Y202.389445 Z-0.125000 F800.000000
G01 X78.546068 Y187.307357 Z-0.125000
G01 X68.963339 Y166.141376 Z-0.125000
G01 X74.415940 Y144.019332 Z-0.125000
G01 X87.760200 Y120.626796 Z-0.125000
G01 X68.168045 Y117.169693 Z-0.125000
G01 X78.505677 Y84.690667 Z-0.125000
G01 X79.996878 Y58.226588 Z-0.125000
G01 X75.272966 Y41.144276 Z-0.125000
G00 Z5.000000

(End cutting path id: polyline693)


(Start cutting path id: polyline695)
(Change tool to Default tool)

G00 Z5.000000
G00 X75.775670 Y223.971378

G00 Z4.875000 (Fast pre-penetrate)
G01 Z-0.125000 F100.0(Penetrate)
G01 X83.878788 Y202.526587 Z-0.125000 F800.000000
G01 X79.898636 Y187.422015 Z-0.125000
G01 X69.730479 Y166.410437 Z-0.125000
G01 X75.621317 Y144.109417 Z-0.125000
G01 X88.396963 Y120.391461 Z-0.125000
G01 X69.857324 Y116.987484 Z-0.125000
G01 X79.067576 Y84.081661 Z-0.125000
G01 X81.490716 Y58.368704 Z-0.125000
G01 X75.974544 Y41.223417 Z-0.125000
G00 Z5.000000

(End cutting path id: polyline695)


(Start cutting path id: polyline697)
(Change tool to Default tool)

G00 Z5.000000
G00 X67.938729 Y223.907209

G00 Z4.875000 (Fast pre-penetrate)
G01 Z-0.125000 F100.0(Penetrate)
G01 X72.813811 Y201.355433 Z-0.125000 F800.000000
G01 X64.962742 Y165.358965 Z-0.125000
G01 X63.749307 Y142.072681 Z-0.125000
G01 X80.271212 Y122.759038 Z-0.125000
G01 X60.605188 Y115.970584 Z-0.125000
G01 X72.232413 Y86.443667 Z-0.125000
G01 X70.961026 Y58.446204 Z-0.125000
G01 X69.675811 Y41.390455 Z-0.125000
G00 Z5.000000

(End cutting path id: polyline697)


(Start cutting path id: polyline699)
(Change tool to Default tool)

G00 Z5.000000
G00 X67.196411 Y224.176022

G00 Z4.875000 (Fast pre-penetrate)
G01 Z-0.125000 F100.0(Penetrate)
G01 X71.338826 Y201.234109 Z-0.125000 F800.000000
G01 X69.272593 Y189.157555 Z-0.125000
G01 X64.729695 Y165.432386 Z-0.125000
G01 X62.288001 Y141.676128 Z-0.125000
G01 X79.035740 Y123.056701 Z-0.125000
G01 X60.403778 Y115.488622 Z-0.125000
G01 X71.226058 Y86.272898 Z-0.125000
G01 X70.195976 Y58.643187 Z-0.125000
G01 X68.978113 Y41.531079 Z-0.125000
G00 Z5.000000

(End cutting path id: polyline699)


(Start cutting path id: polyline701)
(Change tool to Default tool)

G00 Z5.000000
G00 X76.749195 Y224.199301

G00 Z4.875000 (Fast pre-penetrate)
G01 Z-0.125000 F100.0(Penetrate)
G01 X84.911755 Y202.663679 Z-0.125000 F800.000000
G01 X81.251153 Y187.536673 Z-0.125000
G01 X70.497569 Y166.679448 Z-0.125000
G01 X76.826645 Y144.199501 Z-0.125000
G01 X89.033775 Y120.156076 Z-0.125000
G01 X71.546603 Y116.805225 Z-0.125000
G01 X79.629475 Y83.472704 Z-0.125000
G01 X82.984604 Y58.510821 Z-0.125000
G01 X76.676122 Y41.302509 Z-0.125000
G00 Z5.000000

(End cutting path id: polyline701)


(Start cutting path id: polyline703)
(Change tool to Default tool)

G00 Z5.000000
G00 X77.722719 Y224.427175

G00 Z4.875000 (Fast pre-penetrate)
G01 Z-0.125000 F100.0(Penetrate)
G01 X85.944772 Y202.800821 Z-0.125000 F800.000000
G01 X82.603721 Y187.651281 Z-0.125000
G01 X71.264708 Y166.948460 Z-0.125000
G01 X78.032022 Y144.289586 Z-0.125000
G01 X89.670538 Y119.920741 Z-0.125000
G01 X73.235932 Y116.623015 Z-0.125000
G01 X80.191424 Y82.863698 Z-0.125000
G01 X84.478492 Y58.652987 Z-0.125000
G01 X77.377700 Y41.381650 Z-0.125000
G00 Z5.000000

(End cutting path id: polyline703)


(Start cutting path id: polyline705)
(Change tool to Default tool)

G00 Z5.000000
G00 X78.696243 Y224.655049

G00 Z4.875000 (Fast pre-penetrate)
G01 Z-0.125000 F100.0(Penetrate)
G01 X86.977740 Y202.937963 Z-0.125000 F800.000000
G01 X83.956238 Y187.765989 Z-0.125000
G01 X72.031848 Y167.217521 Z-0.125000
G01 X79.237349 Y144.379671 Z-0.125000
G01 X90.307301 Y119.685356 Z-0.125000
G01 X74.925211 Y116.440806 Z-0.125000
G01 X80.753323 Y82.254692 Z-0.125000
G01 X85.972330 Y58.795103 Z-0.125000
G01 X78.079278 Y41.460792 Z-0.125000
G00 Z5.000000

(End cutting path id: polyline705)


(Start cutting path id: polyline707)
(Change tool to Default tool)

G00 Z5.000000
G00 X66.454093 Y224.444834

G00 Z4.875000 (Fast pre-penetrate)
G01 Z-0.125000 F100.0(Penetrate)
G01 X69.863840 Y201.112686 Z-0.125000 F800.000000
G01 X68.499932 Y189.619271 Z-0.125000
G01 X64.496649 Y165.505807 Z-0.125000
G01 X60.826695 Y141.279576 Z-0.125000
G01 X77.800219 Y123.354415 Z-0.125000
G01 X60.202368 Y115.006610 Z-0.125000
G01 X70.219653 Y86.102180 Z-0.125000
G01 X69.430876 Y58.840220 Z-0.125000
G01 X68.280415 Y41.671752 Z-0.125000
G00 Z5.000000

(End cutting path id: polyline707)


(Start cutting path id: polyline709)
(Change tool to Default tool)

G00 Z5.000000
G00 X65.711775 Y224.713646

G00 Z4.875000 (Fast pre-penetrate)
G01 Z-0.125000 F100.0(Penetrate)
G01 X68.388855 Y200.991363 Z-0.125000 F800.000000
G01 X67.727270 Y190.081037 Z-0.125000
G01 X64.263651 Y165.579228 Z-0.125000
G01 X59.365389 Y140.882973 Z-0.125000
G01 X76.564747 Y123.652078 Z-0.125000
G01 X60.000958 Y114.524599 Z-0.125000
G01 X69.213249 Y85.931411 Z-0.125000
G01 X68.665775 Y59.037253 Z-0.125000
G01 X67.582717 Y41.812426 Z-0.125000
G00 Z5.000000

(End cutting path id: polyline709)


(Start cutting path id: polyline711)
(Change tool to Default tool)

G00 Z5.000000
G00 X64.969458 Y224.982458

G00 Z4.875000 (Fast pre-penetrate)
G01 Z-0.125000 F100.0(Penetrate)
G01 X66.913820 Y200.869989 Z-0.125000 F800.000000
G01 X66.954609 Y190.542803 Z-0.125000
G01 X64.030605 Y165.652649 Z-0.125000
G01 X57.904083 Y140.486420 Z-0.125000
G01 X75.329275 Y123.949791 Z-0.125000
G01 X59.799547 Y114.042637 Z-0.125000
G01 X68.206894 Y85.760693 Z-0.125000
G01 X67.900725 Y59.234286 Z-0.125000
G01 X66.885019 Y41.953150 Z-0.125000
G00 Z5.000000

(End cutting path id: polyline711)


(Start cutting path id: polyline713)
(Change tool to Default tool)

G00 Z5.000000
G00 X64.227140 Y225.251271

G00 Z4.875000 (Fast pre-penetrate)
G01 Z-0.125000 F100.0(Penetrate)
G01 X65.438835 Y200.748616 Z-0.125000 F800.000000
G01 X66.181948 Y191.004520 Z-0.125000
G01 X63.797558 Y165.726070 Z-0.125000
G01 X56.442777 Y140.089868 Z-0.125000
G01 X74.093803 Y124.247504 Z-0.125000
G01 X59.598137 Y113.560625 Z-0.125000
G01 X67.200490 Y85.589924 Z-0.125000
G01 X67.135625 Y59.431318 Z-0.125000
G01 X66.187320 Y42.093824 Z-0.125000
G00 Z5.000000

(End cutting path id: polyline713)


(Start cutting path id: polyline715)
(Change tool to Default tool)

G00 Z5.000000
G00 X79.669767 Y224.882972

G00 Z4.875000 (Fast pre-penetrate)
G01 Z-0.125000 F100.0(Penetrate)
G01 X88.010757 Y203.075105 Z-0.125000 F800.000000
G01 X85.308806 Y187.880597 Z-0.125000
G01 X72.798938 Y167.486532 Z-0.125000
G01 X80.442727 Y144.469806 Z-0.125000
G01 X90.944063 Y119.450021 Z-0.125000
G01 X76.614490 Y116.258597 Z-0.125000
G01 X81.315222 Y81.645686 Z-0.125000
G01 X87.466218 Y58.937219 Z-0.125000
G01 X78.780856 Y41.539933 Z-0.125000
G00 Z5.000000

(End cutting path id: polyline715)


(Start cutting path id: polyline717)
(Change tool to Default tool)

G00 Z5.000000
G00 X80.643291 Y225.110845

G00 Z4.875000 (Fast pre-penetrate)
G01 Z-0.125000 F100.0(Penetrate)
G01 X89.043724 Y203.212198 Z-0.125000 F800.000000
G01 X86.661323 Y187.995255 Z-0.125000
G01 X73.566078 Y167.755593 Z-0.125000
G01 X81.648054 Y144.559891 Z-0.125000
G01 X91.580826 Y119.214636 Z-0.125000
G01 X78.303819 Y116.076387 Z-0.125000
G01 X81.877122 Y81.036730 Z-0.125000
G01 X88.960106 Y59.079336 Z-0.125000
G01 X79.482434 Y41.619074 Z-0.125000
G00 Z5.000000

(End cutting path id: polyline717)


(Start cutting path id: polyline719)
(Change tool to Default tool)

G00 Z5.000000
G00 X81.616815 Y225.338719

G00 Z4.875000 (Fast pre-penetrate)
G01 Z-0.125000 F100.0(Penetrate)
G01 X90.076741 Y203.349340 Z-0.125000 F800.000000
G01 X88.013890 Y188.109913 Z-0.125000
G01 X74.333217 Y168.024604 Z-0.125000
G01 X92.217589 Y118.979301 Z-0.125000
G01 X79.993098 Y115.894128 Z-0.125000
G01 X82.439071 Y80.427724 Z-0.125000
G01 X90.453944 Y59.221452 Z-0.125000
G01 X80.184062 Y41.698166 Z-0.125000
G00 Z5.000000

(End cutting path id: polyline719)


(Start cutting path id: polyline721)
(Change tool to Default tool)

G00 Z5.000000
G00 X82.590340 Y225.566642

G00 Z4.875000 (Fast pre-penetrate)
G01 Z-0.125000 F100.0(Penetrate)
G01 X91.109708 Y203.486482 Z-0.125000 F800.000000
G01 X89.366408 Y188.224571 Z-0.125000
G01 X75.100307 Y168.293665 Z-0.125000
G01 X84.058759 Y144.740061 Z-0.125000
G01 X92.854352 Y118.743916 Z-0.125000
G01 X81.682427 Y115.711919 Z-0.125000
G01 X83.000970 Y79.818768 Z-0.125000
G01 X91.947831 Y59.363618 Z-0.125000
G01 X80.885640 Y41.777308 Z-0.125000
G00 Z5.000000

(End cutting path id: polyline721)


(Start cutting path id: polyline723)
(Change tool to Default tool)

G00 Z5.000000
G00 X83.563864 Y225.794516

G00 Z4.875000 (Fast pre-penetrate)
G01 Z-0.125000 F100.0(Penetrate)
G01 X92.142725 Y203.623624 Z-0.125000 F800.000000
G01 X90.718975 Y188.339180 Z-0.125000
G01 X75.867447 Y168.562676 Z-0.125000
G01 X85.264086 Y144.830146 Z-0.125000
G01 X93.491164 Y118.508581 Z-0.125000
G01 X83.371706 Y115.529710 Z-0.125000
G01 X83.562869 Y79.209762 Z-0.125000
G01 X93.441719 Y59.505734 Z-0.125000
G01 X81.587218 Y41.856449 Z-0.125000
G00 Z5.000000

(End cutting path id: polyline723)


(Start cutting path id: polyline725)
(Change tool to Default tool)

G00 Z5.000000
G00 X84.537388 Y226.022439

G00 Z4.875000 (Fast pre-penetrate)
G01 Z-0.125000 F100.0(Penetrate)
G01 X93.175742 Y203.760716 Z-0.125000 F800.000000
G01 X92.071493 Y188.453838 Z-0.125000
G01 X76.634586 Y168.831737 Z-0.125000
G01 X86.469464 Y144.920231 Z-0.125000
G01 X94.127927 Y118.273246 Z-0.125000
G01 X85.060985 Y115.347500 Z-0.125000
G01 X84.124818 Y78.600756 Z-0.125000
G01 X94.935557 Y59.647851 Z-0.125000
G01 X82.288796 Y41.935590 Z-0.125000
G00 Z5.000000

(End cutting path id: polyline725)


(Start cutting path id: polyline727)
(Change tool to Default tool)

G00 Z5.000000
G00 X85.510912 Y226.250313

G00 Z4.875000 (Fast pre-penetrate)
G01 Z-0.125000 F100.0(Penetrate)
G01 X94.208710 Y203.897858 Z-0.125000 F800.000000
G01 X93.424011 Y188.568496 Z-0.125000
G01 X77.401676 Y169.100748 Z-0.125000
G01 X87.674791 Y145.010365 Z-0.125000
G01 X94.764689 Y118.037861 Z-0.125000
G01 X86.750264 Y115.165291 Z-0.125000
G01 X84.686717 Y77.991750 Z-0.125000
G01 X96.429445 Y59.789967 Z-0.125000
G01 X82.990374 Y42.014682 Z-0.125000
G00 Z5.000000

(End cutting path id: polyline727)


(Start cutting path id: polyline729)
(Change tool to Default tool)

G00 Z5.000000
G00 X86.484436 Y226.478187

G00 Z4.875000 (Fast pre-penetrate)
G01 Z-0.125000 F100.0(Penetrate)
G01 X95.241727 Y204.035000 Z-0.125000 F800.000000
G01 X94.776578 Y188.683154 Z-0.125000
G01 X78.168816 Y169.369760 Z-0.125000
G01 X88.880168 Y145.100401 Z-0.125000
G01 X95.401452 Y117.802526 Z-0.125000
G01 X88.439593 Y114.983082 Z-0.125000
G01 X85.248616 Y77.382794 Z-0.125000
G01 X97.923333 Y59.932133 Z-0.125000
G01 X83.691953 Y42.093824 Z-0.125000
G00 Z5.000000

(End cutting path id: polyline729)


(Start cutting path id: polyline731)
(Change tool to Default tool)

G00 Z5.000000
G00 X63.484772 Y225.520083

G00 Z4.875000 (Fast pre-penetrate)
G01 Z-0.125000 F100.0(Penetrate)
G01 X63.963849 Y200.627242 Z-0.125000 F800.000000
G01 X65.409287 Y191.466286 Z-0.125000
G01 X63.564560 Y165.799491 Z-0.125000
G01 X54.981471 Y139.693315 Z-0.125000
G01 X72.858331 Y124.545217 Z-0.125000
G01 X59.396727 Y113.078663 Z-0.125000
G01 X66.194086 Y85.419206 Z-0.125000
G01 X66.370525 Y59.628351 Z-0.125000
G01 X65.489622 Y42.234497 Z-0.125000
G00 Z5.000000

(End cutting path id: polyline731)


(Start cutting path id: polyline733)
(Change tool to Default tool)

G00 Z5.000000
G00 X62.742455 Y225.788895

G00 Z4.875000 (Fast pre-penetrate)
G01 Z-0.125000 F100.0(Penetrate)
G01 X62.488864 Y200.505919 Z-0.125000 F800.000000
G01 X64.636626 Y191.928052 Z-0.125000
G01 X63.331514 Y165.872912 Z-0.125000
G01 X53.520165 Y139.296712 Z-0.125000
G01 X71.622859 Y124.842880 Z-0.125000
G01 X59.195317 Y112.596652 Z-0.125000
G01 X65.187681 Y85.248487 Z-0.125000
G01 X65.605424 Y59.825384 Z-0.125000
G01 X64.791924 Y42.375171 Z-0.125000
G00 Z5.000000

(End cutting path id: polyline733)


(Start cutting path id: polyline735)
(Change tool to Default tool)

G00 Z5.000000
G00 X62.000137 Y226.057757

G00 Z4.875000 (Fast pre-penetrate)
G01 Z-0.125000 F100.0(Penetrate)
G01 X61.013878 Y200.384545 Z-0.125000 F800.000000
G01 X63.863965 Y192.389818 Z-0.125000
G01 X63.098467 Y165.946333 Z-0.125000
G01 X52.058859 Y138.900159 Z-0.125000
G01 X70.387338 Y125.140593 Z-0.125000
G01 X58.993907 Y112.114690 Z-0.125000
G01 X64.181326 Y85.077719 Z-0.125000
G01 X64.840374 Y60.022417 Z-0.125000
G01 X64.094176 Y42.515845 Z-0.125000
G00 Z5.000000

(End cutting path id: polyline735)


(Start cutting path id: polyline737)
(Change tool to Default tool)

G00 Z5.000000
G00 X61.257819 Y226.326520

G00 Z4.875000 (Fast pre-penetrate)
G01 Z-0.125000 F100.0(Penetrate)
G01 X59.538843 Y200.263172 Z-0.125000 F800.000000
G01 X63.091304 Y192.851584 Z-0.125000
G01 X62.865470 Y166.019754 Z-0.125000
G01 X50.597503 Y138.503607 Z-0.125000
G01 X69.151866 Y125.438306 Z-0.125000
G01 X58.792447 Y111.632678 Z-0.125000
G01 X63.174922 Y84.907000 Z-0.125000
G01 X64.075274 Y60.219450 Z-0.125000
G01 X63.396478 Y42.656469 Z-0.125000
G00 Z5.000000

(End cutting path id: polyline737)


(Start cutting path id: polyline739)
(Change tool to Default tool)

G00 Z5.000000
G00 X60.515501 Y226.595382

G00 Z4.875000 (Fast pre-penetrate)
G01 Z-0.125000 F100.0(Penetrate)
G01 X58.063858 Y200.141799 Z-0.125000 F800.000000
G01 X62.318643 Y193.313301 Z-0.125000
G01 X62.632423 Y166.093175 Z-0.125000
G01 X49.136197 Y138.107004 Z-0.125000
G01 X67.916394 Y125.735970 Z-0.125000
G01 X58.591036 Y111.150667 Z-0.125000
G01 X62.168518 Y84.736231 Z-0.125000
G01 X63.310174 Y60.416483 Z-0.125000
G01 X62.698780 Y42.797143 Z-0.125000
G00 Z5.000000

(End cutting path id: polyline739)


(Start cutting path id: polyline741)
(Change tool to Default tool)

G00 Z5.000000
G00 X59.773184 Y226.864194

G00 Z4.875000 (Fast pre-penetrate)
G01 Z-0.125000 F100.0(Penetrate)
G01 X56.588873 Y200.020425 Z-0.125000 F800.000000
G01 X61.545981 Y193.775067 Z-0.125000
G01 X62.399376 Y166.166596 Z-0.125000
G01 X47.674891 Y137.710451 Z-0.125000
G01 X66.680922 Y126.033683 Z-0.125000
G01 X58.389626 Y110.668705 Z-0.125000
G01 X61.162163 Y84.565513 Z-0.125000
G01 X62.545123 Y60.613515 Z-0.125000
G01 X62.001082 Y42.937816 Z-0.125000
G00 Z5.000000

(End cutting path id: polyline741)


(Start cutting path id: polyline743)
(Change tool to Default tool)

G00 Z5.000000
G00 X59.030866 Y227.133006

G00 Z4.875000 (Fast pre-penetrate)
G01 Z-0.125000 F100.0(Penetrate)
G01 X55.113887 Y199.899052 Z-0.125000 F800.000000
G01 X60.773320 Y194.236783 Z-0.125000
G01 X62.166379 Y166.240017 Z-0.125000
G01 X46.213585 Y137.313898 Z-0.125000
G01 X65.445401 Y126.331396 Z-0.125000
G01 X58.188216 Y110.186693 Z-0.125000
G01 X61.780023 Y60.810548 Z-0.125000
G01 X61.303384 Y43.078490 Z-0.125000
G00 Z5.000000

(End cutting path id: polyline743)


(Start cutting path id: polyline745)
(Change tool to Default tool)

G00 Z5.000000
G00 X58.288548 Y227.401818

G00 Z4.875000 (Fast pre-penetrate)
G01 Z-0.125000 F100.0(Penetrate)
G01 X53.638902 Y199.777728 Z-0.125000 F800.000000
G01 X60.000659 Y194.698549 Z-0.125000
G01 X61.933332 Y166.313438 Z-0.125000
G01 X44.752279 Y136.917296 Z-0.125000
G01 X64.209929 Y126.629059 Z-0.125000
G01 X57.986806 Y109.704731 Z-0.125000
G01 X59.149354 Y84.224026 Z-0.125000
G01 X61.014923 Y61.007531 Z-0.125000
G01 X60.605686 Y43.219214 Z-0.125000
G00 Z5.000000

(End cutting path id: polyline745)


(Start cutting path id: polyline747)
(Change tool to Default tool)

G00 Z5.000000
G00 X57.546230 Y227.670631

G00 Z4.875000 (Fast pre-penetrate)
G01 Z-0.125000 F100.0(Penetrate)
G01 X52.163916 Y199.656355 Z-0.125000 F800.000000
G01 X59.227998 Y195.160316 Z-0.125000
G01 X61.700335 Y166.386909 Z-0.125000
G01 X43.290973 Y136.520743 Z-0.125000
G01 X62.974457 Y126.926772 Z-0.125000
G01 X57.785396 Y109.222720 Z-0.125000
G01 X58.142950 Y84.053257 Z-0.125000
G01 X60.249873 Y61.204564 Z-0.125000
G01 X59.907988 Y43.359887 Z-0.125000
G00 Z5.000000

(End cutting path id: polyline747)


(Start cutting path id: polyline749)
(Change tool to Default tool)

G00 Z5.000000
G00 X56.803912 Y227.939443

G00 Z4.875000 (Fast pre-penetrate)
G01 Z-0.125000 F100.0(Penetrate)
G01 X50.688881 Y199.534981 Z-0.125000 F800.000000
G01 X58.455337 Y195.622082 Z-0.125000
G01 X61.467288 Y166.460330 Z-0.125000
G01 X41.829667 Y136.124190 Z-0.125000
G01 X61.738985 Y127.224485 Z-0.125000
G01 X57.583985 Y108.740758 Z-0.125000
G01 X57.136595 Y83.882539 Z-0.125000
G01 X59.484772 Y61.401597 Z-0.125000
G01 X59.210289 Y43.500561 Z-0.125000
G00 Z5.000000

(End cutting path id: polyline749)


(Start cutting path id: polyline751)
(Change tool to Default tool)

G00 Z5.000000
G00 X56.061595 Y228.208255

G00 Z4.875000 (Fast pre-penetrate)
G01 Z-0.125000 F100.0(Penetrate)
G01 X49.213896 Y199.413608 Z-0.125000 F800.000000
G01 X57.682676 Y196.083848 Z-0.125000
G01 X61.234241 Y166.533751 Z-0.125000
G01 X40.368361 Y135.727638 Z-0.125000
G01 X60.503513 Y127.522198 Z-0.125000
G01 X57.382575 Y108.258746 Z-0.125000
G01 X56.130191 Y83.711770 Z-0.125000
G01 X58.719672 Y61.598630 Z-0.125000
G01 X58.512591 Y43.641185 Z-0.125000
G00 Z5.000000

(End cutting path id: polyline751)


(Start cutting path id: polyline753)
(Change tool to Default tool)

G00 Z5.000000
G00 X53.429135 Y228.769756

G00 Z4.875000 (Fast pre-penetrate)
G01 Z-0.125000 F100.0(Penetrate)
G01 X45.496885 Y199.452258 Z-0.125000 F800.000000
G01 X54.709475 Y196.831239 Z-0.125000
G01 X60.030704 Y166.581604 Z-0.125000
G01 X36.708804 Y135.534932 Z-0.125000
G01 X57.085608 Y128.165079 Z-0.125000
G01 X55.740254 Y107.184641 Z-0.125000
G01 X53.270553 Y83.737338 Z-0.125000
G01 X56.729845 Y62.182864 Z-0.125000
G01 X56.299218 Y44.215570 Z-0.125000
G00 Z5.000000

(End cutting path id: polyline753)


(Start cutting path id: polyline755)
(Change tool to Default tool)

G00 Z5.000000
G00 X52.281360 Y228.793683

G00 Z4.875000 (Fast pre-penetrate)
G01 Z-0.125000 F100.0(Penetrate)
G01 X44.729895 Y199.733656 Z-0.125000 F800.000000
G01 X53.281596 Y196.655198 Z-0.125000
G01 X59.293162 Y166.482615 Z-0.125000
G01 X35.971858 Y136.135432 Z-0.125000
G01 X56.138647 Y128.212634 Z-0.125000
G01 X54.500802 Y107.074510 Z-0.125000
G01 X52.423675 Y84.104344 Z-0.125000
G01 X56.270168 Y62.372982 Z-0.125000
G01 X55.481241 Y44.508607 Z-0.125000
G00 Z5.000000

(End cutting path id: polyline755)


(Start cutting path id: polyline757)
(Change tool to Default tool)

G00 Z5.000000
G00 X51.133635 Y228.817560

G00 Z4.875000 (Fast pre-penetrate)
G01 Z-0.125000 F100.0(Penetrate)
G01 X43.962855 Y200.015053 Z-0.125000 F800.000000
G01 X51.853718 Y196.479107 Z-0.125000
G01 X58.555669 Y166.383626 Z-0.125000
G01 X35.234913 Y136.735932 Z-0.125000
G01 X55.191686 Y128.260139 Z-0.125000
G01 X53.261351 Y106.964329 Z-0.125000
G01 X51.576797 Y84.471399 Z-0.125000
G01 X55.810491 Y62.563101 Z-0.125000
G01 X54.663264 Y44.801644 Z-0.125000
G00 Z5.000000

(End cutting path id: polyline757)


(Start cutting path id: polyline759)
(Change tool to Default tool)

G00 Z5.000000
G00 X49.985861 Y228.841436

G00 Z4.875000 (Fast pre-penetrate)
G01 Z-0.125000 F100.0(Penetrate)
G01 X43.195864 Y200.296450 Z-0.125000 F800.000000
G01 X50.425889 Y196.303016 Z-0.125000
G01 X57.818127 Y166.284637 Z-0.125000
G01 X34.497967 Y137.336382 Z-0.125000
G01 X54.244774 Y128.307643 Z-0.125000
G01 X52.021850 Y106.854197 Z-0.125000
G01 X50.729969 Y84.838404 Z-0.125000
G01 X55.350814 Y62.753269 Z-0.125000
G01 X53.845336 Y45.094632 Z-0.125000
G00 Z5.000000

(End cutting path id: polyline759)


(Start cutting path id: polyline761)
(Change tool to Default tool)

G00 Z5.000000
G00 X48.838086 Y228.865363

G00 Z4.875000 (Fast pre-penetrate)
G01 Z-0.125000 F100.0(Penetrate)
G01 X42.428824 Y200.577798 Z-0.125000 F800.000000
G01 X48.998011 Y196.126925 Z-0.125000
G01 X57.080584 Y166.185648 Z-0.125000
G01 X33.761022 Y137.936833 Z-0.125000
G01 X53.297813 Y128.355148 Z-0.125000
G01 X50.782399 Y106.744066 Z-0.125000
G01 X49.883091 Y85.205459 Z-0.125000
G01 X54.891137 Y62.943387 Z-0.125000
G01 X53.027359 Y45.387669 Z-0.125000
G00 Z5.000000

(End cutting path id: polyline761)


(Start cutting path id: polyline763)
(Change tool to Default tool)

G00 Z5.000000
G00 X47.690312 Y228.889239

G00 Z4.875000 (Fast pre-penetrate)
G01 Z-0.125000 F100.0(Penetrate)
G01 X41.661784 Y200.859195 Z-0.125000 F800.000000
G01 X47.570132 Y195.950884 Z-0.125000
G01 X56.343091 Y166.086659 Z-0.125000
G01 X33.024126 Y138.537333 Z-0.125000
G01 X52.350851 Y128.402703 Z-0.125000
G01 X49.542898 Y106.633885 Z-0.125000
G01 X49.036213 Y85.572464 Z-0.125000
G01 X54.431460 Y63.133506 Z-0.125000
G01 X52.209382 Y45.680656 Z-0.125000
G00 Z5.000000

(End cutting path id: polyline763)


(Start cutting path id: polyline765)
(Change tool to Default tool)

G00 Z5.000000
G00 X46.542537 Y228.913116

G00 Z4.875000 (Fast pre-penetrate)
G01 Z-0.125000 F100.0(Penetrate)
G01 X40.894793 Y201.140592 Z-0.125000 F800.000000
G01 X46.142303 Y195.774793 Z-0.125000
G01 X55.605549 Y165.987670 Z-0.125000
G01 X32.287180 Y139.137832 Z-0.125000
G01 X51.403940 Y128.450207 Z-0.125000
G01 X48.303446 Y106.523753 Z-0.125000
G01 X48.189335 Y85.939519 Z-0.125000
G01 X53.971734 Y63.323674 Z-0.125000
G01 X51.391454 Y45.973694 Z-0.125000
G00 Z5.000000

(End cutting path id: polyline765)


(Start cutting path id: polyline767)
(Change tool to Default tool)

G00 Z5.000000
G00 X45.394762 Y228.937043

G00 Z4.875000 (Fast pre-penetrate)
G01 Z-0.125000 F100.0(Penetrate)
G01 X40.127753 Y201.421990 Z-0.125000 F800.000000
G01 X44.714425 Y195.598752 Z-0.125000
G01 X54.868056 Y165.888681 Z-0.125000
G01 X31.550235 Y139.738283 Z-0.125000
G01 X50.456979 Y128.497712 Z-0.125000
G01 X47.063995 Y106.413622 Z-0.125000
G01 X47.342457 Y86.306525 Z-0.125000
G01 X53.512057 Y63.513793 Z-0.125000
G01 X50.573477 Y46.266731 Z-0.125000
G00 Z5.000000

(End cutting path id: polyline767)


(Start cutting path id: polyline769)
(Change tool to Default tool)

G00 Z5.000000
G00 X44.246988 Y228.960919

G00 Z4.875000 (Fast pre-penetrate)
G01 Z-0.125000 F100.0(Penetrate)
G01 X39.360763 Y201.703337 Z-0.125000 F800.000000
G01 X43.286546 Y195.422661 Z-0.125000
G01 X54.130514 Y165.789692 Z-0.125000
G01 X30.813289 Y140.338782 Z-0.125000
G01 X49.510067 Y128.545267 Z-0.125000
G01 X45.824494 Y106.303440 Z-0.125000
G01 X46.495629 Y86.673530 Z-0.125000
G01 X53.052380 Y63.703911 Z-0.125000
G01 X49.755500 Y46.559768 Z-0.125000
G00 Z5.000000

(End cutting path id: polyline769)


(Start cutting path id: polyline771)
(Change tool to Default tool)

G00 Z5.000000
G00 X43.099213 Y228.984846

G00 Z4.875000 (Fast pre-penetrate)
G01 Z-0.125000 F100.0(Penetrate)
G01 X38.593723 Y201.984734 Z-0.125000 F800.000000
G01 X41.858667 Y195.246570 Z-0.125000
G01 X53.393021 Y165.690703 Z-0.125000
G01 X30.076344 Y140.939233 Z-0.125000
G01 X48.563106 Y128.592771 Z-0.125000
G01 X44.585043 Y106.193309 Z-0.125000
G01 X45.648751 Y87.040585 Z-0.125000
G01 X52.592703 Y63.894079 Z-0.125000
G01 X48.937523 Y46.852755 Z-0.125000
G00 Z5.000000

(End cutting path id: polyline771)


(Start cutting path id: polyline773)
(Change tool to Default tool)

G00 Z5.000000
G00 X41.951439 Y229.008723

G00 Z4.875000 (Fast pre-penetrate)
G01 Z-0.125000 F100.0(Penetrate)
G01 X37.826732 Y202.266132 Z-0.125000 F800.000000
G01 X40.430839 Y195.070479 Z-0.125000
G01 X52.655479 Y165.591714 Z-0.125000
G01 X29.339398 Y141.539733 Z-0.125000
G01 X47.616144 Y128.640326 Z-0.125000
G01 X43.345541 Y106.083178 Z-0.125000
G01 X44.801873 Y87.407591 Z-0.125000
G01 X52.133026 Y64.084198 Z-0.125000
G01 X48.119595 Y47.145793 Z-0.125000
G00 Z5.000000

(End cutting path id: polyline773)


(Start cutting path id: polyline775)
(Change tool to Default tool)

G00 Z5.000000
G00 X40.803664 Y229.032599

G00 Z4.875000 (Fast pre-penetrate)
G01 Z-0.125000 F100.0(Penetrate)
G01 X37.059692 Y202.547529 Z-0.125000 F800.000000
G01 X39.002960 Y194.894438 Z-0.125000
G01 X51.917986 Y165.492725 Z-0.125000
G01 X28.602453 Y142.140183 Z-0.125000
G01 X46.669233 Y128.687831 Z-0.125000
G01 X42.106090 Y105.973046 Z-0.125000
G01 X43.954995 Y87.774646 Z-0.125000
G01 X51.673349 Y64.274366 Z-0.125000
G01 X47.301618 Y47.438780 Z-0.125000
G00 Z5.000000

(End cutting path id: polyline775)


(Start cutting path id: polyline815)
(Change tool to Default tool)

G00 Z5.000000
G00 X39.655889 Y229.056526

G00 Z4.875000 (Fast pre-penetrate)
G01 Z-0.125000 F100.0(Penetrate)
G01 X36.292652 Y202.828876 Z-0.125000 F800.000000
G01 X37.575082 Y194.718347 Z-0.125000
G01 X51.180444 Y165.393786 Z-0.125000
G01 X27.865507 Y142.740683 Z-0.125000
G01 X45.722272 Y128.735335 Z-0.125000
G01 X40.866589 Y105.862865 Z-0.125000
G01 X43.108167 Y88.141651 Z-0.125000
G01 X51.213672 Y64.464485 Z-0.125000
G01 X46.483641 Y47.731817 Z-0.125000
G00 Z5.000000

(End cutting path id: polyline815)


(Start cutting path id: polyline813)
(Change tool to Default tool)

G00 Z5.000000
G00 X38.508115 Y229.080403

G00 Z4.875000 (Fast pre-penetrate)
G01 Z-0.125000 F100.0(Penetrate)
G01 X35.525662 Y203.110274 Z-0.125000 F800.000000
G01 X36.147253 Y194.542306 Z-0.125000
G01 X50.442951 Y165.294797 Z-0.125000
G01 X27.128612 Y143.341133 Z-0.125000
G01 X44.775360 Y128.782840 Z-0.125000
G01 X39.627138 Y105.752733 Z-0.125000
G01 X42.261289 Y88.508706 Z-0.125000
G01 X50.753995 Y64.654603 Z-0.125000
G01 X45.665714 Y48.024854 Z-0.125000
G00 Z5.000000

(End cutting path id: polyline813)


(Start cutting path id: polyline817)
(Change tool to Default tool)

G00 Z5.000000
G00 X37.360340 Y229.104329

G00 Z4.875000 (Fast pre-penetrate)
G01 Z-0.125000 F100.0(Penetrate)
G01 X34.758622 Y203.391671 Z-0.125000 F800.000000
G01 X34.719374 Y194.366215 Z-0.125000
G01 X49.705409 Y165.195808 Z-0.125000
G01 X26.391666 Y143.941633 Z-0.125000
G01 X43.828399 Y128.830395 Z-0.125000
G01 X38.387686 Y105.642602 Z-0.125000
G01 X41.414411 Y88.875711 Z-0.125000
G01 X50.294318 Y64.844771 Z-0.125000
G01 X44.847736 Y48.317842 Z-0.125000
G00 Z5.000000

(End cutting path id: polyline817)


(Start cutting path id: polyline819)
(Change tool to Default tool)

G00 Z5.000000
G00 X36.212566 Y229.128206

G00 Z4.875000 (Fast pre-penetrate)
G01 Z-0.125000 F100.0(Penetrate)
G01 X33.291496 Y194.190124 Z-0.125000 F800.000000
G01 X48.967916 Y165.096819 Z-0.125000
G01 X25.654721 Y144.542083 Z-0.125000
G01 X42.881437 Y128.877899 Z-0.125000
G01 X37.148185 Y105.532471 Z-0.125000
G01 X40.567533 Y89.242717 Z-0.125000
G01 X49.834641 Y65.034890 Z-0.125000
G01 X44.029759 Y48.610879 Z-0.125000
G00 Z5.000000

(End cutting path id: polyline819)


(Start cutting path id: polyline803)
(Change tool to Default tool)

G00 Z5.000000
G00 X25.757540 Y228.444386

G00 Z4.875000 (Fast pre-penetrate)
G01 Z-0.125000 F100.0(Penetrate)
G01 X25.255233 Y205.785165 Z-0.125000 F800.000000
G01 X17.732818 Y189.545452 Z-0.125000
G01 X37.963576 Y161.072445 Z-0.125000
G01 X18.273775 Y148.468363 Z-0.125000
G01 X27.694341 Y129.192426 Z-0.125000
G01 X21.540411 Y101.990407 Z-0.125000
G01 X30.652370 Y89.606986 Z-0.125000
G01 X35.143186 Y65.657327 Z-0.125000
G01 X29.617712 Y46.399595 Z-0.125000
G00 Z5.000000

(End cutting path id: polyline803)


(Start cutting path id: polyline805)
(Change tool to Default tool)

G00 Z5.000000
G00 X26.267308 Y228.562526

G00 Z4.875000 (Fast pre-penetrate)
G01 Z-0.125000 F100.0(Penetrate)
G01 X25.845834 Y205.724627 Z-0.125000 F800.000000
G01 X18.731611 Y190.058056 Z-0.125000
G01 X38.903424 Y161.562515 Z-0.125000
G01 X18.696542 Y148.422152 Z-0.125000
G01 X29.052231 Y129.188247 Z-0.125000
G01 X22.707685 Y102.401982 Z-0.125000
G01 X31.342955 Y89.869531 Z-0.125000
G01 X36.847935 Y65.731394 Z-0.125000
G01 X30.975502 Y46.966667 Z-0.125000
G00 Z5.000000

(End cutting path id: polyline805)


(Start cutting path id: polyline807)
(Change tool to Default tool)

G00 Z5.000000
G00 X26.777076 Y228.680716

G00 Z4.875000 (Fast pre-penetrate)
G01 Z-0.125000 F100.0(Penetrate)
G01 X26.436435 Y205.664090 Z-0.125000 F800.000000
G01 X19.730405 Y190.570660 Z-0.125000
G01 X39.843322 Y162.052585 Z-0.125000
G01 X19.119310 Y148.375941 Z-0.125000
G01 X30.410171 Y129.184069 Z-0.125000
G01 X23.874959 Y102.813607 Z-0.125000
G01 X32.033490 Y90.132075 Z-0.125000
G01 X38.552685 Y65.805462 Z-0.125000
G01 X32.333243 Y47.533690 Z-0.125000
G00 Z5.000000

(End cutting path id: polyline807)


(Start cutting path id: polyline809)
(Change tool to Default tool)

G00 Z5.000000
G00 X27.286845 Y228.798856

G00 Z4.875000 (Fast pre-penetrate)
G01 Z-0.125000 F100.0(Penetrate)
G01 X27.027036 Y205.603552 Z-0.125000 F800.000000
G01 X20.729199 Y191.083263 Z-0.125000
G01 X40.783219 Y162.542655 Z-0.125000
G01 X19.542077 Y148.329729 Z-0.125000
G01 X31.768110 Y129.179841 Z-0.125000
G01 X25.042233 Y103.225182 Z-0.125000
G01 X32.724075 Y90.394670 Z-0.125000
G01 X40.257484 Y65.879480 Z-0.125000
G01 X33.690983 Y48.100763 Z-0.125000
G00 Z5.000000

(End cutting path id: polyline809)


(Start cutting path id: polyline811)
(Change tool to Default tool)

G00 Z5.000000
G00 X27.796613 Y228.917046

G00 Z4.875000 (Fast pre-penetrate)
G01 Z-0.125000 F100.0(Penetrate)
G01 X27.617687 Y205.543015 Z-0.125000 F800.000000
G01 X21.727943 Y191.595867 Z-0.125000
G01 X41.723117 Y163.032725 Z-0.125000
G01 X19.964795 Y148.283518 Z-0.125000
G01 X33.126000 Y129.175662 Z-0.125000
G01 X26.209507 Y103.636807 Z-0.125000
G01 X33.414660 Y90.657214 Z-0.125000
G01 X41.962233 Y65.953547 Z-0.125000
G01 X35.048724 Y48.667835 Z-0.125000
G00 Z5.000000

(End cutting path id: polyline811)


(Start cutting path id: polyline821)
(Change tool to Default tool)

G00 Z5.000000
G00 X35.064791 Y229.152083

G00 Z4.875000 (Fast pre-penetrate)
G01 Z-0.125000 F100.0(Penetrate)
G01 X33.224591 Y203.954466 Z-0.125000 F800.000000
G01 X31.863617 Y194.014033 Z-0.125000
G01 X48.230373 Y164.997830 Z-0.125000
G01 X24.917775 Y145.142583 Z-0.125000
G01 X41.934526 Y128.925404 Z-0.125000
G01 X35.908734 Y105.422289 Z-0.125000
G01 X39.720705 Y89.609772 Z-0.125000
G01 X49.374964 Y65.225058 Z-0.125000
G01 X43.211832 Y48.903916 Z-0.125000
G00 Z5.000000

(End cutting path id: polyline821)


(Start cutting path id: polyline823)
(Change tool to Default tool)

G00 Z5.000000
G00 X33.917016 Y229.175959

G00 Z4.875000 (Fast pre-penetrate)
G01 Z-0.125000 F100.0(Penetrate)
G01 X32.457601 Y204.235813 Z-0.125000 F800.000000
G01 X30.435788 Y193.837992 Z-0.125000
G01 X47.492881 Y164.898841 Z-0.125000
G01 X24.180830 Y145.743033 Z-0.125000
G01 X40.987565 Y128.972959 Z-0.125000
G01 X34.669233 Y105.312158 Z-0.125000
G01 X38.873827 Y89.976777 Z-0.125000
G01 X48.915288 Y65.415177 Z-0.125000
G01 X42.393855 Y49.196904 Z-0.125000
G00 Z5.000000

(End cutting path id: polyline823)


(Start cutting path id: polyline825)
(Change tool to Default tool)

G00 Z5.000000
G00 X32.769242 Y229.199886

G00 Z4.875000 (Fast pre-penetrate)
G01 Z-0.125000 F100.0(Penetrate)
G01 X31.690560 Y204.517210 Z-0.125000 F800.000000
G01 X29.007910 Y193.661901 Z-0.125000
G01 X46.755338 Y164.799852 Z-0.125000
G01 X23.443884 Y146.343533 Z-0.125000
G01 X40.040653 Y129.020463 Z-0.125000
G01 X33.429782 Y105.202027 Z-0.125000
G01 X38.026949 Y90.343832 Z-0.125000
G01 X48.455611 Y65.605295 Z-0.125000
G01 X41.575877 Y49.489941 Z-0.125000
G00 Z5.000000

(End cutting path id: polyline825)


(Start cutting path id: polyline827)
(Change tool to Default tool)

G00 Z5.000000
G00 X31.621517 Y229.223762

G00 Z4.875000 (Fast pre-penetrate)
G01 Z-0.125000 F100.0(Penetrate)
G01 X30.923570 Y204.798608 Z-0.125000 F800.000000
G01 X27.580031 Y193.485860 Z-0.125000
G01 X46.017846 Y164.700863 Z-0.125000
G01 X22.706939 Y146.943983 Z-0.125000
G01 X39.093692 Y129.068018 Z-0.125000
G01 X32.190330 Y105.091845 Z-0.125000
G01 X37.180071 Y90.710837 Z-0.125000
G01 X47.995934 Y65.795463 Z-0.125000
G01 X40.757950 Y49.782978 Z-0.125000
G00 Z5.000000

(End cutting path id: polyline827)


(Start cutting path id: polyline829)
(Change tool to Default tool)

G00 Z5.000000
G00 X28.306381 Y229.035186

G00 Z4.875000 (Fast pre-penetrate)
G01 Z-0.125000 F100.0(Penetrate)
G01 X28.208288 Y205.482477 Z-0.125000 F800.000000
G01 X22.726736 Y192.108471 Z-0.125000
G01 X42.663015 Y163.522795 Z-0.125000
G01 X20.387562 Y148.237356 Z-0.125000
G01 X34.483940 Y129.171434 Z-0.125000
G01 X27.376780 Y104.048382 Z-0.125000
G01 X34.105245 Y90.919759 Z-0.125000
G01 X43.667032 Y66.027615 Z-0.125000
G01 X36.406514 Y49.234908 Z-0.125000
G00 Z5.000000

(End cutting path id: polyline829)


(Start cutting path id: polyline831)
(Change tool to Default tool)

G00 Z5.000000
G00 X30.473742 Y229.247639

G00 Z4.875000 (Fast pre-penetrate)
G01 Z-0.125000 F100.0(Penetrate)
G01 X30.156530 Y205.080005 Z-0.125000 F800.000000
G01 X26.152202 Y193.309769 Z-0.125000
G01 X45.280303 Y164.601874 Z-0.125000
G01 X21.969993 Y147.544483 Z-0.125000
G01 X38.146730 Y129.115523 Z-0.125000
G01 X30.950829 Y104.981714 Z-0.125000
G01 X36.333243 Y91.077893 Z-0.125000
G01 X47.536257 Y65.985582 Z-0.125000
G01 X39.939973 Y50.075966 Z-0.125000
G00 Z5.000000

(End cutting path id: polyline831)


(Start cutting path id: polyline833)
(Change tool to Default tool)

G00 Z5.000000
G00 X87.457960 Y226.706110

G00 Z4.875000 (Fast pre-penetrate)
G01 Z-0.125000 F100.0(Penetrate)
G01 X96.274694 Y204.172142 Z-0.125000 F800.000000
G01 X96.129145 Y188.797762 Z-0.125000
G01 X78.935955 Y169.638821 Z-0.125000
G01 X90.085496 Y145.190535 Z-0.125000
G01 X96.038215 Y117.567141 Z-0.125000
G01 X90.128872 Y114.800872 Z-0.125000
G01 X85.810565 Y76.773788 Z-0.125000
G01 X99.417171 Y60.074249 Z-0.125000
G01 X84.393531 Y42.172965 Z-0.125000
G00 Z5.000000

(End cutting path id: polyline833)


(Start cutting path id: polyline835)
(Change tool to Default tool)

G00 Z5.000000
G00 X88.431485 Y226.933983

G00 Z4.875000 (Fast pre-penetrate)
G01 Z-0.125000 F100.0(Penetrate)
G01 X97.307711 Y204.309284 Z-0.125000 F800.000000
G01 X97.481663 Y188.912420 Z-0.125000
G01 X79.703045 Y169.907832 Z-0.125000
G01 X91.290873 Y145.280620 Z-0.125000
G01 X96.674977 Y117.331806 Z-0.125000
G01 X91.818151 Y114.618613 Z-0.125000
G01 X86.372464 Y76.164831 Z-0.125000
G01 X100.911059 Y60.216366 Z-0.125000
G01 X85.095109 Y42.252106 Z-0.125000
G00 Z5.000000

(End cutting path id: polyline835)


(Start cutting path id: polyline837)
(Change tool to Default tool)

G00 Z5.000000
G00 X89.405009 Y227.161857

G00 Z4.875000 (Fast pre-penetrate)
G01 Z-0.125000 F100.0(Penetrate)
G01 X98.340728 Y204.446426 Z-0.125000 F800.000000
G01 X98.834181 Y189.027078 Z-0.125000
G01 X80.470185 Y170.176893 Z-0.125000
G01 X92.496200 Y145.370705 Z-0.125000
G01 X97.311790 Y117.096422 Z-0.125000
G01 X93.507480 Y114.436404 Z-0.125000
G01 X86.934364 Y75.555825 Z-0.125000
G01 X102.404946 Y60.358532 Z-0.125000
G01 X85.796687 Y42.331248 Z-0.125000
G00 Z5.000000

(End cutting path id: polyline837)


(Start cutting path id: polyline839)
(Change tool to Default tool)

G00 Z5.000000
G00 X90.378533 Y227.389780

G00 Z4.875000 (Fast pre-penetrate)
G01 Z-0.125000 F100.0(Penetrate)
G01 X99.373695 Y204.583518 Z-0.125000 F800.000000
G01 X100.186748 Y189.141737 Z-0.125000
G01 X81.237325 Y170.445904 Z-0.125000
G01 X93.701578 Y145.460790 Z-0.125000
G01 X97.948553 Y116.861086 Z-0.125000
G01 X95.196759 Y114.254195 Z-0.125000
G01 X87.496312 Y74.946819 Z-0.125000
G01 X103.898784 Y60.500648 Z-0.125000
G01 X86.498265 Y42.410340 Z-0.125000
G00 Z5.000000

(End cutting path id: polyline839)


(Start cutting path id: polyline841)
(Change tool to Default tool)

G00 Z5.000000
G00 X93.682825 Y228.029876

G00 Z4.875000 (Fast pre-penetrate)
G01 Z-0.125000 F100.0(Penetrate)
G01 X102.288299 Y204.820694 Z-0.125000 F800.000000
G01 X103.564411 Y189.553312 Z-0.125000
G01 X84.546889 Y170.670843 Z-0.125000
G01 X97.285128 Y146.006075 Z-0.125000
G01 X99.585850 Y116.711757 Z-0.125000
G01 X100.219180 Y113.225605 Z-0.125000
G01 X89.568216 Y73.984686 Z-0.125000
G01 X107.852672 Y60.796968 Z-0.125000
G01 X88.942894 Y42.360149 Z-0.125000
G00 Z5.000000

(End cutting path id: polyline841)


(Start cutting path id: polyline843)
(Change tool to Default tool)

G00 Z5.000000
G00 X95.040117 Y228.214125

G00 Z4.875000 (Fast pre-penetrate)
G01 Z-0.125000 F100.0(Penetrate)
G01 X103.136868 Y204.783585 Z-0.125000 F800.000000
G01 X104.236988 Y189.735571 Z-0.125000
G01 X86.322273 Y170.357709 Z-0.125000
G01 X98.458022 Y146.371140 Z-0.125000
G01 X99.949622 Y117.033148 Z-0.125000
G01 X101.863044 Y112.561433 Z-0.125000
G01 X90.516322 Y74.240516 Z-0.125000
G01 X108.818735 Y60.809056 Z-0.125000
G01 X89.984368 Y42.151625 Z-0.125000
G00 Z5.000000

(End cutting path id: polyline843)


(Start cutting path id: polyline845)
(Change tool to Default tool)

G00 Z5.000000
G00 X96.397361 Y228.398423

G00 Z4.875000 (Fast pre-penetrate)
G01 Z-0.125000 F100.0(Penetrate)
G01 X103.985487 Y204.746477 Z-0.125000 F800.000000
G01 X104.909566 Y189.917830 Z-0.125000
G01 X88.097608 Y170.044626 Z-0.125000
G01 X99.630917 Y146.736255 Z-0.125000
G01 X100.313394 Y117.354489 Z-0.125000
G01 X103.506908 Y111.897262 Z-0.125000
G01 X91.464427 Y74.496345 Z-0.125000
G01 X109.784848 Y60.821193 Z-0.125000
G01 X91.025841 Y41.943151 Z-0.125000
G00 Z5.000000

(End cutting path id: polyline845)


(Start cutting path id: polyline847)
(Change tool to Default tool)

G00 Z5.000000
G00 X97.754604 Y228.582722

G00 Z4.875000 (Fast pre-penetrate)
G01 Z-0.125000 F100.0(Penetrate)
G01 X104.834056 Y204.709368 Z-0.125000 F800.000000
G01 X105.582094 Y190.100089 Z-0.125000
G01 X89.872993 Y169.731442 Z-0.125000
G01 X100.803812 Y147.101321 Z-0.125000
G01 X100.677166 Y117.675880 Z-0.125000
G01 X105.150771 Y111.233091 Z-0.125000
G01 X92.412483 Y74.752224 Z-0.125000
G01 X110.750960 Y60.833281 Z-0.125000
G01 X92.067265 Y41.734678 Z-0.125000
G00 Z5.000000

(End cutting path id: polyline847)


(Start cutting path id: polyline849)
(Change tool to Default tool)

G00 Z5.000000
G00 X99.111847 Y228.767020

G00 Z4.875000 (Fast pre-penetrate)
G01 Z-0.125000 F100.0(Penetrate)
G01 X105.682625 Y204.672260 Z-0.125000 F800.000000
G01 X106.254672 Y190.282348 Z-0.125000
G01 X91.648328 Y169.418359 Z-0.125000
G01 X101.976757 Y147.466386 Z-0.125000
G01 X101.040938 Y117.997271 Z-0.125000
G01 X106.794585 Y110.568920 Z-0.125000
G01 X93.360588 Y75.008053 Z-0.125000
G01 X111.717023 Y60.845319 Z-0.125000
G01 X93.108738 Y41.526204 Z-0.125000
G00 Z5.000000

(End cutting path id: polyline849)


(Start cutting path id: polyline851)
(Change tool to Default tool)

G00 Z5.000000
G00 X100.469140 Y228.951269

G00 Z4.875000 (Fast pre-penetrate)
G01 Z-0.125000 F100.0(Penetrate)
G01 X106.531244 Y204.635152 Z-0.125000 F800.000000
G01 X106.927250 Y190.464607 Z-0.125000
G01 X93.423662 Y169.105225 Z-0.125000
G01 X103.149652 Y147.831451 Z-0.125000
G01 X101.404710 Y118.318662 Z-0.125000
G01 X108.438448 Y109.904749 Z-0.125000
G01 X94.308693 Y75.263883 Z-0.125000
G01 X112.683135 Y60.857456 Z-0.125000
G01 X94.150212 Y41.317680 Z-0.125000
G00 Z5.000000

(End cutting path id: polyline851)


(Start cutting path id: polyline853)
(Change tool to Default tool)

G00 Z5.000000
G00 X101.826383 Y229.135568

G00 Z4.875000 (Fast pre-penetrate)
G01 Z-0.125000 F100.0(Penetrate)
G01 X107.379814 Y204.598093 Z-0.125000 F800.000000
G01 X107.599828 Y190.646916 Z-0.125000
G01 X95.199047 Y168.792092 Z-0.125000
G01 X104.322547 Y148.196567 Z-0.125000
G01 X101.768482 Y118.640053 Z-0.125000
G01 X110.082312 Y109.240627 Z-0.125000
G01 X95.256799 Y75.519712 Z-0.125000
G01 X113.649248 Y60.869544 Z-0.125000
G01 X95.191635 Y41.109207 Z-0.125000
G00 Z5.000000

(End cutting path id: polyline853)


(Start cutting path id: polyline855)
(Change tool to Default tool)

G00 Z5.000000
G00 X103.183626 Y229.319866

G00 Z4.875000 (Fast pre-penetrate)
G01 Z-0.125000 F100.0(Penetrate)
G01 X108.228433 Y204.560984 Z-0.125000 F800.000000
G01 X108.272406 Y190.829175 Z-0.125000
G01 X96.974382 Y168.478958 Z-0.125000
G01 X105.495442 Y148.561632 Z-0.125000
G01 X102.132254 Y118.961394 Z-0.125000
G01 X111.726175 Y108.576456 Z-0.125000
G01 X96.204904 Y75.775541 Z-0.125000
G01 X114.615310 Y60.881631 Z-0.125000
G01 X96.233109 Y40.900733 Z-0.125000
G00 Z5.000000

(End cutting path id: polyline855)


(Start cutting path id: polyline857)
(Change tool to Default tool)

G00 Z5.000000
G00 X104.540870 Y229.504165

G00 Z4.875000 (Fast pre-penetrate)
G01 Z-0.125000 F100.0(Penetrate)
G01 X109.077002 Y204.523876 Z-0.125000 F800.000000
G01 X108.944983 Y191.011434 Z-0.125000
G01 X98.749717 Y168.165825 Z-0.125000
G01 X106.668287 Y148.926697 Z-0.125000
G01 X102.496026 Y119.282784 Z-0.125000
G01 X113.370039 Y107.912285 Z-0.125000
G01 X97.153010 Y76.031370 Z-0.125000
G01 X115.581423 Y60.893719 Z-0.125000
G01 X97.274582 Y40.692259 Z-0.125000
G00 Z5.000000

(End cutting path id: polyline857)


(Start cutting path id: polyline859)
(Change tool to Default tool)

G00 Z5.000000
G00 X105.898113 Y229.688463

G00 Z4.875000 (Fast pre-penetrate)
G01 Z-0.125000 F100.0(Penetrate)
G01 X109.925621 Y204.486768 Z-0.125000 F800.000000
G01 X109.617561 Y191.193693 Z-0.125000
G01 X100.525101 Y167.852692 Z-0.125000
G01 X107.841232 Y149.291763 Z-0.125000
G01 X102.859848 Y119.604175 Z-0.125000
G01 X115.013853 Y107.248114 Z-0.125000
G01 X98.101115 Y76.287249 Z-0.125000
G01 X116.547535 Y60.905806 Z-0.125000
G01 X98.316006 Y40.483736 Z-0.125000
G00 Z5.000000

(End cutting path id: polyline859)


(Start cutting path id: polyline861)
(Change tool to Default tool)

G00 Z5.000000
G00 X107.255406 Y229.872712

G00 Z4.875000 (Fast pre-penetrate)
G01 Z-0.125000 F100.0(Penetrate)
G01 X110.774190 Y204.449659 Z-0.125000 F800.000000
G01 X110.290139 Y191.376002 Z-0.125000
G01 X102.300436 Y167.539608 Z-0.125000
G01 X109.014126 Y149.656878 Z-0.125000
G01 X103.223620 Y119.925566 Z-0.125000
G01 X116.657716 Y106.583942 Z-0.125000
G01 X99.049171 Y76.543079 Z-0.125000
G01 X117.513648 Y60.917894 Z-0.125000
G01 X99.357479 Y40.275262 Z-0.125000
G00 Z5.000000

(End cutting path id: polyline861)


(Start cutting path id: polyline863)
(Change tool to Default tool)

G00 Z5.000000
G00 X108.612649 Y230.057011

G00 Z4.875000 (Fast pre-penetrate)
G01 Z-0.125000 F100.0(Penetrate)
G01 X111.622809 Y204.412551 Z-0.125000 F800.000000
G01 X110.962717 Y191.558261 Z-0.125000
G01 X104.075771 Y167.226474 Z-0.125000
G01 X110.187021 Y150.021943 Z-0.125000
G01 X103.587392 Y120.246907 Z-0.125000
G01 X118.301580 Y105.919771 Z-0.125000
G01 X99.997276 Y76.798908 Z-0.125000
G01 X118.479760 Y60.929982 Z-0.125000
G01 X100.398952 Y40.066788 Z-0.125000
G00 Z5.000000

(End cutting path id: polyline863)


(Start cutting path id: polyline865)
(Change tool to Default tool)

G00 Z5.000000
G00 X109.969892 Y230.241309

G00 Z4.875000 (Fast pre-penetrate)
G01 Z-0.125000 F100.0(Penetrate)
G01 X112.471378 Y204.375442 Z-0.125000 F800.000000
G01 X111.635295 Y191.740520 Z-0.125000
G01 X105.851155 Y166.913341 Z-0.125000
G01 X111.359916 Y150.387008 Z-0.125000
G01 X103.951164 Y120.568298 Z-0.125000
G01 X119.945443 Y105.255600 Z-0.125000
G01 X100.945381 Y77.054737 Z-0.125000
G01 X119.445823 Y60.942069 Z-0.125000
G01 X101.440376 Y39.858314 Z-0.125000
G00 Z5.000000

(End cutting path id: polyline865)


(Start cutting path id: polyline867)
(Change tool to Default tool)

G00 Z5.000000
G00 X111.327135 Y230.425608

G00 Z4.875000 (Fast pre-penetrate)
G01 Z-0.125000 F100.0(Penetrate)
G01 X113.319948 Y204.338334 Z-0.125000 F800.000000
G01 X112.307872 Y191.922779 Z-0.125000
G01 X107.626490 Y166.600207 Z-0.125000
G01 X112.532811 Y150.752123 Z-0.125000
G01 X104.314936 Y120.889689 Z-0.125000
G01 X121.589257 Y104.591429 Z-0.125000
G01 X101.893487 Y77.310567 Z-0.125000
G01 X120.411935 Y60.954157 Z-0.125000
G01 X102.481849 Y39.649791 Z-0.125000
G00 Z5.000000

(End cutting path id: polyline867)


(Start cutting path id: polyline869)
(Change tool to Default tool)

G00 Z5.000000
G00 X112.684379 Y230.609906

G00 Z4.875000 (Fast pre-penetrate)
G01 Z-0.125000 F100.0(Penetrate)
G01 X114.168567 Y204.301225 Z-0.125000 F800.000000
G01 X112.980450 Y192.105038 Z-0.125000
G01 X109.401875 Y166.287074 Z-0.125000
G01 X113.705706 Y151.117189 Z-0.125000
G01 X104.678708 Y121.211080 Z-0.125000
G01 X123.233121 Y103.927258 Z-0.125000
G01 X102.841592 Y77.566396 Z-0.125000
G01 X121.378048 Y60.966244 Z-0.125000
G01 X103.523323 Y39.441317 Z-0.125000
G00 Z5.000000

(End cutting path id: polyline869)


(Start cutting path id: polyline871)
(Change tool to Default tool)

G00 Z5.000000
G00 X114.041672 Y230.794205

G00 Z4.875000 (Fast pre-penetrate)
G01 Z-0.125000 F100.0(Penetrate)
G01 X115.017136 Y204.264167 Z-0.125000 F800.000000
G01 X113.653028 Y192.287298 Z-0.125000
G01 X111.177209 Y165.973990 Z-0.125000
G01 X114.878601 Y151.482254 Z-0.125000
G01 X105.042480 Y121.532470 Z-0.125000
G01 X124.876984 Y103.263086 Z-0.125000
G01 X103.789648 Y77.822275 Z-0.125000
G01 X122.344110 Y60.978332 Z-0.125000
G01 X104.564746 Y39.232843 Z-0.125000
G00 Z5.000000

(End cutting path id: polyline871)


(Start cutting path id: polyline873)
(Change tool to Default tool)

G00 Z5.000000
G00 X115.398915 Y230.978504

G00 Z4.875000 (Fast pre-penetrate)
G01 Z-0.125000 F100.0(Penetrate)
G01 X115.865755 Y204.227058 Z-0.125000 F800.000000
G01 X114.325606 Y192.469606 Z-0.125000
G01 X112.952544 Y165.660807 Z-0.125000
G01 X116.051496 Y151.847319 Z-0.125000
G01 X105.406252 Y121.853861 Z-0.125000
G01 X126.520848 Y102.598915 Z-0.125000
G01 X104.737753 Y78.078104 Z-0.125000
G01 X123.310223 Y60.990420 Z-0.125000
G01 X105.606220 Y39.024370 Z-0.125000
G00 Z5.000000

(End cutting path id: polyline873)


(Start cutting path id: polyline875)
(Change tool to Default tool)

G00 Z5.000000
G00 X116.756158 Y231.162752

G00 Z4.875000 (Fast pre-penetrate)
G01 Z-0.125000 F100.0(Penetrate)
G01 X116.714374 Y204.189950 Z-0.125000 F800.000000
G01 X114.998134 Y192.651865 Z-0.125000
G01 X114.727929 Y165.347723 Z-0.125000
G01 X117.224391 Y152.212435 Z-0.125000
G01 X105.770024 Y122.175202 Z-0.125000
G01 X128.164711 Y101.934744 Z-0.125000
G01 X105.685859 Y78.333933 Z-0.125000
G01 X124.276335 Y61.002507 Z-0.125000
G01 X106.647693 Y38.815846 Z-0.125000
G00 Z5.000000

(End cutting path id: polyline875)


(Start cutting path id: polyline877)
(Change tool to Default tool)

G00 Z5.000000
G00 X118.113401 Y231.347051

G00 Z4.875000 (Fast pre-penetrate)
G01 Z-0.125000 F100.0(Penetrate)
G01 X117.562943 Y204.152841 Z-0.125000 F800.000000
G01 X115.670712 Y192.834125 Z-0.125000
G01 X116.503264 Y165.034590 Z-0.125000
G01 X118.397286 Y152.577500 Z-0.125000
G01 X106.133796 Y122.496593 Z-0.125000
G01 X129.808525 Y101.270622 Z-0.125000
G01 X106.633964 Y78.589763 Z-0.125000
G01 X125.242447 Y61.014595 Z-0.125000
G01 X107.689117 Y38.607372 Z-0.125000
G00 Z5.000000

(End cutting path id: polyline877)


(Start cutting path id: polyline879)
(Change tool to Default tool)

G00 Z5.000000
G00 X119.470694 Y231.531350

G00 Z4.875000 (Fast pre-penetrate)
G01 Z-0.125000 F100.0(Penetrate)
G01 X118.411512 Y204.115733 Z-0.125000 F800.000000
G01 X116.343290 Y193.016384 Z-0.125000
G01 X118.278648 Y164.721457 Z-0.125000
G01 X119.570181 Y152.942615 Z-0.125000
G01 X106.497568 Y122.817984 Z-0.125000
G01 X131.452389 Y100.606451 Z-0.125000
G01 X107.582069 Y78.845592 Z-0.125000
G01 X126.208510 Y61.026682 Z-0.125000
G01 X108.730590 Y38.398899 Z-0.125000
G00 Z5.000000

(End cutting path id: polyline879)


(Start cutting path id: polyline881)
(Change tool to Default tool)

G00 Z5.000000
G00 X120.827937 Y231.715648

G00 Z4.875000 (Fast pre-penetrate)
G01 Z-0.125000 F100.0(Penetrate)
G01 X119.260131 Y204.078625 Z-0.125000 F800.000000
G01 X117.015867 Y193.198692 Z-0.125000
G01 X120.053983 Y164.408323 Z-0.125000
G01 X120.743076 Y153.307680 Z-0.125000
G01 X106.861340 Y123.139375 Z-0.125000
G01 X133.096252 Y99.942280 Z-0.125000
G01 X108.530175 Y79.101421 Z-0.125000
G01 X127.174623 Y61.038770 Z-0.125000
G01 X109.772014 Y38.190425 Z-0.125000
G00 Z5.000000

(End cutting path id: polyline881)


(Start cutting path id: polyline883)
(Change tool to Default tool)

G00 Z5.000000
G00 X124.132328 Y232.161646

G00 Z4.875000 (Fast pre-penetrate)
G01 Z-0.125000 F100.0(Penetrate)
G01 X120.708753 Y204.381461 Z-0.125000 F800.000000
G01 X119.856552 Y193.364089 Z-0.125000
G01 X123.662206 Y164.123792 Z-0.125000
G01 X122.548406 Y153.845056 Z-0.125000
G01 X110.541292 Y123.709979 Z-0.125000
G01 X134.965005 Y99.018201 Z-0.125000
G01 X112.473468 Y79.740124 Z-0.125000
G01 X129.086900 Y61.168003 Z-0.125000
G01 X113.897217 Y38.300755 Z-0.125000
G00 Z5.000000

(End cutting path id: polyline883)


(Start cutting path id: polyline681)
(Change tool to Default tool)

G00 Z5.000000
G00 X125.105902 Y232.292570

G00 Z4.875000 (Fast pre-penetrate)
G01 Z-0.125000 F100.0(Penetrate)
G01 X121.008754 Y204.551434 Z-0.125000 F800.000000
G01 X120.940606 Y193.355682 Z-0.125000
G01 X124.578674 Y164.138118 Z-0.125000
G01 X122.864623 Y153.931211 Z-0.125000
G01 X112.199383 Y123.834586 Z-0.125000
G01 X135.077424 Y98.888271 Z-0.125000
G01 X113.971086 Y79.931586 Z-0.125000
G01 X129.560008 Y61.226551 Z-0.125000
G01 X115.439107 Y38.460133 Z-0.125000
G00 Z5.000000

(End cutting path id: polyline681)


(Start cutting path id: polyline885)
(Change tool to Default tool)

G00 Z5.000000
G00 X126.079427 Y232.423394

G00 Z4.875000 (Fast pre-penetrate)
G01 Z-0.125000 F100.0(Penetrate)
G01 X121.308755 Y204.721406 Z-0.125000 F800.000000
G01 X122.024659 Y193.347226 Z-0.125000
G01 X125.495143 Y164.152444 Z-0.125000
G01 X123.180841 Y154.017367 Z-0.125000
G01 X113.857473 Y123.959192 Z-0.125000
G01 X135.189894 Y98.758342 Z-0.125000
G01 X115.468705 Y80.122997 Z-0.125000
G01 X130.033066 Y61.285098 Z-0.125000
G01 X116.980948 Y38.619559 Z-0.125000
G00 Z5.000000

(End cutting path id: polyline885)


(Start cutting path id: polyline887)
(Change tool to Default tool)

G00 Z5.000000
G00 X127.053000 Y232.554269

G00 Z4.875000 (Fast pre-penetrate)
G01 Z-0.125000 F100.0(Penetrate)
G01 X121.608756 Y204.891379 Z-0.125000 F800.000000
G01 X123.108713 Y193.338819 Z-0.125000
G01 X126.411562 Y164.166720 Z-0.125000
G01 X123.497058 Y154.103522 Z-0.125000
G01 X115.515563 Y124.083799 Z-0.125000
G01 X135.302313 Y98.628413 Z-0.125000
G01 X116.966323 Y80.314459 Z-0.125000
G01 X130.506173 Y61.343646 Z-0.125000
G01 X118.522788 Y38.778986 Z-0.125000
G00 Z5.000000

(End cutting path id: polyline887)


(Start cutting path id: polyline889)
(Change tool to Default tool)

G00 Z5.000000
G00 X128.026574 Y232.685143

G00 Z4.875000 (Fast pre-penetrate)
G01 Z-0.125000 F100.0(Penetrate)
G01 X121.908758 Y205.061351 Z-0.125000 F800.000000
G01 X124.192766 Y193.330412 Z-0.125000
G01 X127.328031 Y164.181046 Z-0.125000
G01 X123.813276 Y154.189677 Z-0.125000
G01 X117.173653 Y124.208406 Z-0.125000
G01 X135.414783 Y98.498484 Z-0.125000
G01 X118.463942 Y80.505871 Z-0.125000
G01 X130.979281 Y61.402194 Z-0.125000
G01 X120.064678 Y38.938413 Z-0.125000
G00 Z5.000000

(End cutting path id: polyline889)


(Start cutting path id: polyline891)
(Change tool to Default tool)

G00 Z5.000000
G00 X129.000148 Y232.816017

G00 Z4.875000 (Fast pre-penetrate)
G01 Z-0.125000 F100.0(Penetrate)
G01 X122.208759 Y205.231324 Z-0.125000 F800.000000
G01 X125.276820 Y193.321956 Z-0.125000
G01 X128.244450 Y164.195372 Z-0.125000
G01 X124.129493 Y154.275832 Z-0.125000
G01 X118.831743 Y124.333013 Z-0.125000
G01 X135.527202 Y98.368505 Z-0.125000
G01 X119.961510 Y80.697332 Z-0.125000
G01 X131.452339 Y61.460742 Z-0.125000
G01 X121.606518 Y39.097791 Z-0.125000
G00 Z5.000000

(End cutting path id: polyline891)


(Start cutting path id: polyline893)
(Change tool to Default tool)

G00 Z5.000000
G00 X129.973722 Y232.946892

G00 Z4.875000 (Fast pre-penetrate)
G01 Z-0.125000 F100.0(Penetrate)
G01 X122.508810 Y205.401296 Z-0.125000 F800.000000
G01 X126.360874 Y193.313549 Z-0.125000
G01 X129.160918 Y164.209649 Z-0.125000
G01 X124.445711 Y154.361987 Z-0.125000
G01 X120.489833 Y124.457619 Z-0.125000
G01 X135.639672 Y98.238575 Z-0.125000
G01 X121.459129 Y80.888744 Z-0.125000
G01 X131.925397 Y61.519289 Z-0.125000
G01 X123.148408 Y39.257218 Z-0.125000
G00 Z5.000000

(End cutting path id: polyline893)


(Start cutting path id: polyline895)
(Change tool to Default tool)

G00 Z5.000000
G00 X130.947246 Y233.077766

G00 Z4.875000 (Fast pre-penetrate)
G01 Z-0.125000 F100.0(Penetrate)
G01 X122.808811 Y205.571269 Z-0.125000 F800.000000
G01 X127.444927 Y193.305093 Z-0.125000
G01 X130.077387 Y164.223975 Z-0.125000
G01 X124.761928 Y154.448143 Z-0.125000
G01 X122.147923 Y124.582276 Z-0.125000
G01 X135.752091 Y98.108646 Z-0.125000
G01 X122.956747 Y81.080206 Z-0.125000
G01 X132.398504 Y61.577837 Z-0.125000
G01 X124.690248 Y39.416645 Z-0.125000
G00 Z5.000000

(End cutting path id: polyline895)


(Start cutting path id: polyline629)
(Change tool to Default tool)

G00 Z5.000000
G00 X162.263327 Y229.353194

G00 Z4.875000 (Fast pre-penetrate)
G01 Z-0.125000 F100.0(Penetrate)
G01 X177.334074 Y204.555264 Z-0.125000 F800.000000
G01 X170.288248 Y190.251607 Z-0.125000
G01 X171.218694 Y174.686263 Z-0.125000
G01 X168.929363 Y142.512162 Z-0.125000
G01 X183.019920 Y124.102751 Z-0.125000
G01 X157.992276 Y110.719890 Z-0.125000
G01 X179.346485 Y79.356455 Z-0.125000
G01 X163.427865 Y59.401025 Z-0.125000
G01 X172.821072 Y43.873486 Z-0.125000
G00 Z5.000000

(End cutting path id: polyline629)


(Start cutting path id: polyline603)
(Change tool to Default tool)

G00 Z5.000000
G00 X176.109695 Y227.086347

G00 Z4.875000 (Fast pre-penetrate)
G01 Z-0.125000 F100.0(Penetrate)
G01 X189.173701 Y205.249629 Z-0.125000 F800.000000
G01 X181.160818 Y191.637154 Z-0.125000
G01 X188.127751 Y174.097403 Z-0.125000
G01 X179.551178 Y137.759399 Z-0.125000
G01 X198.732603 Y128.740161 Z-0.125000
G01 X170.032518 Y110.668307 Z-0.125000
G01 X191.718166 Y76.035798 Z-0.125000
G01 X166.605858 Y54.078453 Z-0.125000
G01 X182.625308 Y38.762223 Z-0.125000
G00 Z5.000000

(End cutting path id: polyline603)


(Start cutting path id: polyline597)
(Change tool to Default tool)

G00 Z5.000000
G00 X179.626340 Y227.133255

G00 Z4.875000 (Fast pre-penetrate)
G01 Z-0.125000 F100.0(Penetrate)
G01 X189.650788 Y204.586254 Z-0.125000 F800.000000
G01 X185.205089 Y192.012218 Z-0.125000
G01 X190.413451 Y173.650659 Z-0.125000
G01 X181.213297 Y137.444823 Z-0.125000
G01 X199.957778 Y129.732537 Z-0.125000
G01 X174.896110 Y109.994237 Z-0.125000
G01 X193.405604 Y77.411197 Z-0.125000
G01 X170.702410 Y54.234248 Z-0.125000
G01 X184.934437 Y38.718051 Z-0.125000
G00 Z5.000000

(End cutting path id: polyline597)


(Start cutting path id: polyline593)
(Change tool to Default tool)

G00 Z5.000000
G00 X181.970787 Y227.164543

G00 Z4.875000 (Fast pre-penetrate)
G01 Z-0.125000 F100.0(Penetrate)
G01 X189.968847 Y204.143987 Z-0.125000 F800.000000
G01 X187.901221 Y192.262277 Z-0.125000
G01 X191.937235 Y173.352797 Z-0.125000
G01 X182.321377 Y137.235105 Z-0.125000
G01 X200.774512 Y130.394072 Z-0.125000
G01 X178.138521 Y109.544857 Z-0.125000
G01 X194.530646 Y78.328163 Z-0.125000
G01 X173.433411 Y54.338112 Z-0.125000
G01 X186.473840 Y38.688603 Z-0.125000
G00 Z5.000000

(End cutting path id: polyline593)


(Start cutting path id: polyline589)
(Change tool to Default tool)

G00 Z5.000000
G00 X184.315184 Y227.195832

G00 Z4.875000 (Fast pre-penetrate)
G01 Z-0.125000 F100.0(Penetrate)
G01 X190.286954 Y203.701770 Z-0.125000 F800.000000
G01 X190.597402 Y192.512336 Z-0.125000
G01 X193.461018 Y173.054985 Z-0.125000
G01 X183.429406 Y137.025438 Z-0.125000
G01 X201.591295 Y131.055657 Z-0.125000
G01 X181.380882 Y109.095526 Z-0.125000
G01 X195.655589 Y79.245080 Z-0.125000
G01 X176.164412 Y54.441926 Z-0.125000
G01 X188.013242 Y38.659105 Z-0.125000
G00 Z5.000000

(End cutting path id: polyline589)


(Start cutting path id: polyline587)
(Change tool to Default tool)

G00 Z5.000000
G00 X185.487432 Y227.211451

G00 Z4.875000 (Fast pre-penetrate)
G01 Z-0.125000 F100.0(Penetrate)
G01 X190.445983 Y203.480612 Z-0.125000 F800.000000
G01 X191.945442 Y192.637390 Z-0.125000
G01 X194.222935 Y172.906103 Z-0.125000
G01 X183.983496 Y136.920579 Z-0.125000
G01 X201.999687 Y131.386449 Z-0.125000
G01 X183.002112 Y108.870836 Z-0.125000
G01 X196.218085 Y79.703563 Z-0.125000
G01 X177.529913 Y54.493858 Z-0.125000
G01 X188.782969 Y38.644381 Z-0.125000
G00 Z5.000000

(End cutting path id: polyline587)


(Start cutting path id: polyline585)
(Change tool to Default tool)

G00 Z5.000000
G00 X186.659630 Y227.227120

G00 Z4.875000 (Fast pre-penetrate)
G01 Z-0.125000 F100.0(Penetrate)
G01 X190.605012 Y203.259503 Z-0.125000 F800.000000
G01 X193.293533 Y192.762395 Z-0.125000
G01 X194.984851 Y172.757172 Z-0.125000
G01 X184.537536 Y136.815720 Z-0.125000
G01 X202.408029 Y131.717241 Z-0.125000
G01 X184.623293 Y108.646146 Z-0.125000
G01 X196.780581 Y80.162046 Z-0.125000
G01 X178.895463 Y54.545790 Z-0.125000
G01 X189.552645 Y38.629657 Z-0.125000
G00 Z5.000000

(End cutting path id: polyline585)


(Start cutting path id: polyline583)
(Change tool to Default tool)

G00 Z5.000000
G00 X187.831829 Y227.242789

G00 Z4.875000 (Fast pre-penetrate)
G01 Z-0.125000 F100.0(Penetrate)
G01 X190.764041 Y203.038345 Z-0.125000 F800.000000
G01 X194.641623 Y192.887449 Z-0.125000
G01 X195.746768 Y172.608291 Z-0.125000
G01 X185.091526 Y136.710862 Z-0.125000
G01 X202.816421 Y132.048034 Z-0.125000
G01 X186.244474 Y108.421456 Z-0.125000
G01 X197.343077 Y80.620479 Z-0.125000
G01 X180.260964 Y54.597722 Z-0.125000
G01 X190.322371 Y38.614933 Z-0.125000
G00 Z5.000000

(End cutting path id: polyline583)


(Start cutting path id: polyline581)
(Change tool to Default tool)

G00 Z5.000000
G00 X189.004077 Y227.258409

G00 Z4.875000 (Fast pre-penetrate)
G01 Z-0.125000 F100.0(Penetrate)
G01 X190.923070 Y202.817237 Z-0.125000 F800.000000
G01 X195.989714 Y193.012454 Z-0.125000
G01 X196.508635 Y172.459360 Z-0.125000
G01 X185.645566 Y136.606003 Z-0.125000
G01 X203.224812 Y132.378826 Z-0.125000
G01 X187.865654 Y108.196766 Z-0.125000
G01 X197.905623 Y81.078962 Z-0.125000
G01 X181.626464 Y54.649654 Z-0.125000
G01 X191.092048 Y38.600209 Z-0.125000
G00 Z5.000000

(End cutting path id: polyline581)


(Start cutting path id: polyline579)
(Change tool to Default tool)

G00 Z5.000000
G00 X190.176276 Y227.274028

G00 Z4.875000 (Fast pre-penetrate)
G01 Z-0.125000 F100.0(Penetrate)
G01 X191.082099 Y202.596078 Z-0.125000 F800.000000
G01 X197.337804 Y193.137508 Z-0.125000
G01 X197.270551 Y172.310428 Z-0.125000
G01 X186.199605 Y136.501144 Z-0.125000
G01 X203.633204 Y132.709618 Z-0.125000
G01 X189.486835 Y107.972126 Z-0.125000
G01 X198.468069 Y81.537445 Z-0.125000
G01 X182.991965 Y54.701586 Z-0.125000
G01 X191.861774 Y38.585485 Z-0.125000
G00 Z5.000000

(End cutting path id: polyline579)


(Start cutting path id: polyline577)
(Change tool to Default tool)

G00 Z5.000000
G00 X191.348524 Y227.289697

G00 Z4.875000 (Fast pre-penetrate)
G01 Z-0.125000 F100.0(Penetrate)
G01 X191.241128 Y202.374970 Z-0.125000 F800.000000
G01 X198.685845 Y193.262513 Z-0.125000
G01 X198.032418 Y172.161547 Z-0.125000
G01 X186.753695 Y136.396286 Z-0.125000
G01 X204.041596 Y133.040410 Z-0.125000
G01 X191.108065 Y107.747436 Z-0.125000
G01 X199.030565 Y81.995879 Z-0.125000
G01 X184.357465 Y54.753468 Z-0.125000
G01 X192.631501 Y38.570761 Z-0.125000
G00 Z5.000000

(End cutting path id: polyline577)


(Start cutting path id: polyline575)
(Change tool to Default tool)

G00 Z5.000000
G00 X192.520722 Y227.305366

G00 Z4.875000 (Fast pre-penetrate)
G01 Z-0.125000 F100.0(Penetrate)
G01 X191.400157 Y202.153861 Z-0.125000 F800.000000
G01 X200.033935 Y193.387567 Z-0.125000
G01 X198.794335 Y172.012616 Z-0.125000
G01 X187.307735 Y136.291427 Z-0.125000
G01 X204.449987 Y133.371203 Z-0.125000
G01 X192.729246 Y107.522746 Z-0.125000
G01 X199.593061 Y82.454362 Z-0.125000
G01 X185.722966 Y54.805400 Z-0.125000
G01 X193.401177 Y38.555988 Z-0.125000
G00 Z5.000000

(End cutting path id: polyline575)


(Start cutting path id: polyline609)
(Change tool to Default tool)

G00 Z5.000000
G00 X193.692971 Y227.320986

G00 Z4.875000 (Fast pre-penetrate)
G01 Z-0.125000 F100.0(Penetrate)
G01 X191.559186 Y201.932703 Z-0.125000 F800.000000
G01 X201.382026 Y193.512572 Z-0.125000
G01 X199.556251 Y171.863734 Z-0.125000
G01 X187.861725 Y136.186618 Z-0.125000
G01 X204.858329 Y133.701995 Z-0.125000
G01 X194.350427 Y107.298056 Z-0.125000
G01 X200.155557 Y82.912845 Z-0.125000
G01 X187.088467 Y54.857332 Z-0.125000
G01 X194.170903 Y38.541264 Z-0.125000
G00 Z5.000000

(End cutting path id: polyline609)


(Start cutting path id: polyline573)
(Change tool to Default tool)

G00 Z5.000000
G00 X194.865169 Y227.336605

G00 Z4.875000 (Fast pre-penetrate)
G01 Z-0.125000 F100.0(Penetrate)
G01 X191.718215 Y201.711594 Z-0.125000 F800.000000
G01 X202.730116 Y193.637626 Z-0.125000
G01 X200.318118 Y171.714803 Z-0.125000
G01 X188.415764 Y136.081759 Z-0.125000
G01 X205.266721 Y134.032787 Z-0.125000
G01 X195.971657 Y107.073366 Z-0.125000
G01 X200.718054 Y83.371278 Z-0.125000
G01 X188.454017 Y54.909264 Z-0.125000
G01 X194.940630 Y38.526540 Z-0.125000
G00 Z5.000000

(End cutting path id: polyline573)


(Start cutting path id: polyline611)
(Change tool to Default tool)

G00 Z5.000000
G00 X196.037368 Y227.352274

G00 Z4.875000 (Fast pre-penetrate)
G01 Z-0.125000 F100.0(Penetrate)
G01 X191.877244 Y201.490436 Z-0.125000 F800.000000
G01 X204.078157 Y193.762631 Z-0.125000
G01 X201.080035 Y171.565922 Z-0.125000
G01 X188.969854 Y135.976901 Z-0.125000
G01 X205.675113 Y134.363580 Z-0.125000
G01 X197.592838 Y106.848725 Z-0.125000
G01 X201.280550 Y83.829761 Z-0.125000
G01 X189.819517 Y54.961196 Z-0.125000
G01 X195.710306 Y38.511816 Z-0.125000
G00 Z5.000000

(End cutting path id: polyline611)


(Start cutting path id: polyline613)
(Change tool to Default tool)

G00 Z5.000000
G00 X197.209616 Y227.367943

G00 Z4.875000 (Fast pre-penetrate)
G01 Z-0.125000 F100.0(Penetrate)
G01 X192.036273 Y201.269328 Z-0.125000 F800.000000
G01 X205.426247 Y193.887685 Z-0.125000
G01 X201.841951 Y171.416991 Z-0.125000
G01 X189.523844 Y135.872042 Z-0.125000
G01 X206.083504 Y134.694372 Z-0.125000
G01 X199.214018 Y106.624035 Z-0.125000
G01 X201.843046 Y84.288194 Z-0.125000
G01 X191.185018 Y55.013127 Z-0.125000
G01 X196.480032 Y38.497092 Z-0.125000
G00 Z5.000000

(End cutting path id: polyline613)


(Start cutting path id: polyline591)
(Change tool to Default tool)

G00 Z5.000000
G00 X183.142985 Y227.180212

G00 Z4.875000 (Fast pre-penetrate)
G01 Z-0.125000 F100.0(Penetrate)
G01 X190.127925 Y203.922879 Z-0.125000 F800.000000
G01 X189.249311 Y192.387331 Z-0.125000
G01 X192.699151 Y173.203916 Z-0.125000
G01 X182.875416 Y137.130247 Z-0.125000
G01 X201.182904 Y130.724914 Z-0.125000
G01 X179.759701 Y109.320216 Z-0.125000
G01 X195.093142 Y78.786646 Z-0.125000
G01 X174.798912 Y54.390044 Z-0.125000
G01 X187.243566 Y38.673829 Z-0.125000
G00 Z5.000000

(End cutting path id: polyline591)


(Start cutting path id: polyline595)
(Change tool to Default tool)

G00 Z5.000000
G00 X180.798538 Y227.148924

G00 Z4.875000 (Fast pre-penetrate)
G01 Z-0.125000 F100.0(Penetrate)
G01 X189.809817 Y204.365145 Z-0.125000 F800.000000
G01 X186.553130 Y192.137272 Z-0.125000
G01 X191.175368 Y173.501728 Z-0.125000
G01 X181.767337 Y137.339964 Z-0.125000
G01 X200.366170 Y130.063330 Z-0.125000
G01 X176.517290 Y109.769547 Z-0.125000
G01 X193.968150 Y77.869680 Z-0.125000
G01 X172.067910 Y54.286180 Z-0.125000
G01 X185.704113 Y38.703327 Z-0.125000
G00 Z5.000000

(End cutting path id: polyline595)


(Start cutting path id: polyline599)
(Change tool to Default tool)

G00 Z5.000000
G00 X178.454141 Y227.117635

G00 Z4.875000 (Fast pre-penetrate)
G01 Z-0.125000 F100.0(Penetrate)
G01 X189.491759 Y204.807412 Z-0.125000 F800.000000
G01 X183.856999 Y191.887213 Z-0.125000
G01 X189.651535 Y173.799541 Z-0.125000
G01 X180.659257 Y137.549681 Z-0.125000
G01 X199.549387 Y129.401745 Z-0.125000
G01 X173.274929 Y110.218927 Z-0.125000
G01 X192.843108 Y76.952764 Z-0.125000
G01 X169.336909 Y54.182317 Z-0.125000
G01 X184.164710 Y38.732775 Z-0.125000
G00 Z5.000000

(End cutting path id: polyline599)


(Start cutting path id: polyline601)
(Change tool to Default tool)

G00 Z5.000000
G00 X177.281893 Y227.101966

G00 Z4.875000 (Fast pre-penetrate)
G01 Z-0.125000 F100.0(Penetrate)
G01 X189.332730 Y205.028521 Z-0.125000 F800.000000
G01 X182.508909 Y191.762159 Z-0.125000
G01 X188.889668 Y173.948472 Z-0.125000
G01 X180.105218 Y137.654540 Z-0.125000
G01 X199.140995 Y129.070953 Z-0.125000
G01 X171.653699 Y110.443617 Z-0.125000
G01 X192.280662 Y76.494281 Z-0.125000
G01 X167.971409 Y54.130385 Z-0.125000
G01 X183.395034 Y38.747499 Z-0.125000
G00 Z5.000000

(End cutting path id: polyline601)


(Start cutting path id: polyline605)
(Change tool to Default tool)

G00 Z5.000000
G00 X172.615036 Y227.284872

G00 Z4.875000 (Fast pre-penetrate)
G01 Z-0.125000 F100.0(Penetrate)
G01 X187.703491 Y205.578283 Z-0.125000 F800.000000
G01 X177.647008 Y191.273531 Z-0.125000
G01 X185.065460 Y174.424315 Z-0.125000
G01 X177.491710 Y138.423421 Z-0.125000
G01 X196.426260 Y127.680979 Z-0.125000
G01 X165.910349 Y111.077892 Z-0.125000
G01 X189.468480 Y75.542644 Z-0.125000
G01 X163.830188 Y54.517237 Z-0.125000
G01 X180.259422 Y39.299847 Z-0.125000
G00 Z5.000000

(End cutting path id: polyline605)


(Start cutting path id: polyline607)
(Change tool to Default tool)

G00 Z5.000000
G00 X171.464824 Y227.514686

G00 Z4.875000 (Fast pre-penetrate)
G01 Z-0.125000 F100.0(Penetrate)
G01 X186.551339 Y205.464570 Z-0.125000 F800.000000
G01 X176.829379 Y191.159967 Z-0.125000
G01 X183.526903 Y174.453415 Z-0.125000
G01 X176.540321 Y138.877725 Z-0.125000
G01 X194.936650 Y127.283431 Z-0.125000
G01 X165.030541 Y111.038098 Z-0.125000
G01 X188.343836 Y75.966406 Z-0.125000
G01 X163.785469 Y55.059886 Z-0.125000
G01 X179.432938 Y39.808024 Z-0.125000
G00 Z5.000000

(End cutting path id: polyline607)


(Start cutting path id: polyline615)
(Change tool to Default tool)

G00 Z5.000000
G00 X170.314662 Y227.744499

G00 Z4.875000 (Fast pre-penetrate)
G01 Z-0.125000 F100.0(Penetrate)
G01 X185.399138 Y205.350906 Z-0.125000 F800.000000
G01 X176.011750 Y191.046453 Z-0.125000
G01 X181.988396 Y174.482515 Z-0.125000
G01 X175.588983 Y139.332030 Z-0.125000
G01 X193.447090 Y126.885834 Z-0.125000
G01 X164.150783 Y110.998303 Z-0.125000
G01 X187.219142 Y76.390168 Z-0.125000
G01 X163.740799 Y55.602535 Z-0.125000
G01 X178.606455 Y40.316201 Z-0.125000
G00 Z5.000000

(End cutting path id: polyline615)


(Start cutting path id: polyline617)
(Change tool to Default tool)

G00 Z5.000000
G00 X169.164450 Y227.974313

G00 Z4.875000 (Fast pre-penetrate)
G01 Z-0.125000 F100.0(Penetrate)
G01 X184.246986 Y205.237243 Z-0.125000 F800.000000
G01 X175.194121 Y190.932890 Z-0.125000
G01 X180.449839 Y174.511615 Z-0.125000
G01 X174.637594 Y139.786335 Z-0.125000
G01 X191.957480 Y126.488236 Z-0.125000
G01 X163.270975 Y110.958558 Z-0.125000
G01 X186.094498 Y76.813881 Z-0.125000
G01 X163.696080 Y56.145183 Z-0.125000
G01 X177.779972 Y40.824377 Z-0.125000
G00 Z5.000000

(End cutting path id: polyline617)


(Start cutting path id: polyline619)
(Change tool to Default tool)

G00 Z5.000000
G00 X168.014287 Y228.204126

G00 Z4.875000 (Fast pre-penetrate)
G01 Z-0.125000 F100.0(Penetrate)
G01 X183.094834 Y205.123580 Z-0.125000 F800.000000
G01 X174.376443 Y190.819326 Z-0.125000
G01 X178.911331 Y174.540764 Z-0.125000
G01 X173.686206 Y140.240639 Z-0.125000
G01 X190.467870 Y126.090639 Z-0.125000
G01 X162.391216 Y110.918764 Z-0.125000
G01 X184.969854 Y77.237643 Z-0.125000
G01 X163.651361 Y56.687832 Z-0.125000
G01 X176.953488 Y41.332603 Z-0.125000
G00 Z5.000000

(End cutting path id: polyline619)


(Start cutting path id: polyline621)
(Change tool to Default tool)

G00 Z5.000000
G00 X166.864125 Y228.433940

G00 Z4.875000 (Fast pre-penetrate)
G01 Z-0.125000 F100.0(Penetrate)
G01 X181.942682 Y205.009917 Z-0.125000 F800.000000
G01 X173.558814 Y190.705812 Z-0.125000
G01 X177.372774 Y174.569864 Z-0.125000
G01 X172.734817 Y140.694944 Z-0.125000
G01 X188.978310 Y125.693091 Z-0.125000
G01 X161.511408 Y110.879019 Z-0.125000
G01 X183.845160 Y77.661405 Z-0.125000
G01 X163.606692 Y57.230480 Z-0.125000
G01 X176.127005 Y41.840780 Z-0.125000
G00 Z5.000000

(End cutting path id: polyline621)


(Start cutting path id: polyline623)
(Change tool to Default tool)

G00 Z5.000000
G00 X165.713913 Y228.663754

G00 Z4.875000 (Fast pre-penetrate)
G01 Z-0.125000 F100.0(Penetrate)
G01 X180.790530 Y204.896254 Z-0.125000 F800.000000
G01 X172.741185 Y190.592248 Z-0.125000
G01 X175.834266 Y174.598964 Z-0.125000
G01 X171.783479 Y141.149248 Z-0.125000
G01 X187.488700 Y125.295494 Z-0.125000
G01 X160.631600 Y110.839224 Z-0.125000
G01 X182.720516 Y78.085168 Z-0.125000
G01 X163.561972 Y57.773079 Z-0.125000
G01 X175.300522 Y42.348956 Z-0.125000
G00 Z5.000000

(End cutting path id: polyline623)


(Start cutting path id: polyline625)
(Change tool to Default tool)

G00 Z5.000000
G00 X164.563701 Y228.893567

G00 Z4.875000 (Fast pre-penetrate)
G01 Z-0.125000 F100.0(Penetrate)
G01 X179.638378 Y204.782590 Z-0.125000 F800.000000
G01 X171.923506 Y190.478685 Z-0.125000
G01 X174.295709 Y174.628064 Z-0.125000
G01 X170.832090 Y141.603553 Z-0.125000
G01 X185.999090 Y124.897896 Z-0.125000
G01 X159.751842 Y110.799430 Z-0.125000
G01 X181.595822 Y78.508930 Z-0.125000
G01 X163.517303 Y58.315728 Z-0.125000
G01 X174.474039 Y42.857133 Z-0.125000
G00 Z5.000000

(End cutting path id: polyline625)


(Start cutting path id: polyline627)
(Change tool to Default tool)

G00 Z5.000000
G00 X163.413489 Y229.123381

G00 Z4.875000 (Fast pre-penetrate)
G01 Z-0.125000 F100.0(Penetrate)
G01 X178.486226 Y204.668927 Z-0.125000 F800.000000
G01 X171.105877 Y190.365171 Z-0.125000
G01 X172.757202 Y174.657163 Z-0.125000
G01 X169.880702 Y142.057858 Z-0.125000
G01 X184.509530 Y124.500299 Z-0.125000
G01 X158.872034 Y110.759685 Z-0.125000
G01 X180.471178 Y78.932692 Z-0.125000
G01 X163.472584 Y58.858376 Z-0.125000
G01 X173.647555 Y43.365309 Z-0.125000
G00 Z5.000000

(End cutting path id: polyline627)


(Start cutting path id: polyline631)
(Change tool to Default tool)

G00 Z5.000000
G00 X161.113115 Y229.583008

G00 Z4.875000 (Fast pre-penetrate)
G01 Z-0.125000 F100.0(Penetrate)
G01 X176.181922 Y204.441601 Z-0.125000 F800.000000
G01 X169.470569 Y190.138043 Z-0.125000
G01 X169.680137 Y174.715363 Z-0.125000
G01 X167.977975 Y142.966467 Z-0.125000
G01 X181.530311 Y123.705154 Z-0.125000
G01 X157.112468 Y110.680146 Z-0.125000
G01 X178.221841 Y79.780217 Z-0.125000
G01 X163.383195 Y59.943673 Z-0.125000
G01 X171.994589 Y44.381663 Z-0.125000
G00 Z5.000000

(End cutting path id: polyline631)


(Start cutting path id: polyline633)
(Change tool to Default tool)

G00 Z5.000000
G00 X159.962952 Y229.812821

G00 Z4.875000 (Fast pre-penetrate)
G01 Z-0.125000 F100.0(Penetrate)
G01 X175.029720 Y204.327938 Z-0.125000 F800.000000
G01 X168.652940 Y190.024529 Z-0.125000
G01 X167.026586 Y143.420772 Z-0.125000
G01 X180.040750 Y123.307556 Z-0.125000
G01 X156.232710 Y110.640351 Z-0.125000
G01 X177.097147 Y80.203930 Z-0.125000
G01 X163.338476 Y60.486322 Z-0.125000
G01 X171.168106 Y44.889839 Z-0.125000
G00 Z5.000000

(End cutting path id: polyline633)


(Start cutting path id: polyline635)
(Change tool to Default tool)

G00 Z5.000000
G00 X158.812740 Y230.042635

G00 Z4.875000 (Fast pre-penetrate)
G01 Z-0.125000 F100.0(Penetrate)
G01 X173.877568 Y204.214225 Z-0.125000 F800.000000
G01 X167.835311 Y189.910965 Z-0.125000
G01 X166.603073 Y174.773562 Z-0.125000
G01 X166.075248 Y143.875076 Z-0.125000
G01 X178.551141 Y122.909959 Z-0.125000
G01 X155.352902 Y110.600557 Z-0.125000
G01 X175.972503 Y80.627692 Z-0.125000
G01 X163.293807 Y61.028921 Z-0.125000
G01 X170.341622 Y45.398016 Z-0.125000
G00 Z5.000000

(End cutting path id: polyline635)


(Start cutting path id: polyline637)
(Change tool to Default tool)

G00 Z5.000000
G00 X157.662578 Y230.272449

G00 Z4.875000 (Fast pre-penetrate)
G01 Z-0.125000 F100.0(Penetrate)
G01 X172.725416 Y204.100611 Z-0.125000 F800.000000
G01 X167.017632 Y189.797402 Z-0.125000
G01 X165.064565 Y174.802712 Z-0.125000
G01 X165.123859 Y144.329381 Z-0.125000
G01 X177.061531 Y122.512411 Z-0.125000
G01 X154.473094 Y110.560812 Z-0.125000
G01 X174.847859 Y81.051454 Z-0.125000
G01 X163.249088 Y61.571569 Z-0.125000
G01 X169.515139 Y45.906192 Z-0.125000
G00 Z5.000000

(End cutting path id: polyline637)


(Start cutting path id: polyline639)
(Change tool to Default tool)

G00 Z5.000000
G00 X156.512366 Y230.502262

G00 Z4.875000 (Fast pre-penetrate)
G01 Z-0.125000 F100.0(Penetrate)
G01 X171.573264 Y203.986948 Z-0.125000 F800.000000
G01 X166.200004 Y189.683838 Z-0.125000
G01 X163.526008 Y174.831812 Z-0.125000
G01 X164.172471 Y144.783686 Z-0.125000
G01 X175.571971 Y122.114814 Z-0.125000
G01 X153.593336 Y110.521017 Z-0.125000
G01 X173.723165 Y81.475217 Z-0.125000
G01 X163.204418 Y62.114218 Z-0.125000
G01 X168.688656 Y46.414369 Z-0.125000
G00 Z5.000000

(End cutting path id: polyline639)


(Start cutting path id: polyline641)
(Change tool to Default tool)

G00 Z5.000000
G00 X155.362154 Y230.732076

G00 Z4.875000 (Fast pre-penetrate)
G01 Z-0.125000 F100.0(Penetrate)
G01 X170.421112 Y203.873285 Z-0.125000 F800.000000
G01 X165.382375 Y189.570324 Z-0.125000
G01 X161.987501 Y174.860911 Z-0.125000
G01 X163.221082 Y145.237990 Z-0.125000
G01 X174.082361 Y121.717217 Z-0.125000
G01 X152.713528 Y110.481223 Z-0.125000
G01 X172.598521 Y81.898979 Z-0.125000
G01 X163.159699 Y62.656867 Z-0.125000
G01 X167.862173 Y46.922545 Z-0.125000
G00 Z5.000000

(End cutting path id: polyline641)


(Start cutting path id: polyline643)
(Change tool to Default tool)

G00 Z5.000000
G00 X154.211992 Y230.961889

G00 Z4.875000 (Fast pre-penetrate)
G01 Z-0.125000 F100.0(Penetrate)
G01 X169.268910 Y203.759572 Z-0.125000 F800.000000
G01 X164.564746 Y189.456760 Z-0.125000
G01 X160.448993 Y174.890011 Z-0.125000
G01 X162.269744 Y145.692295 Z-0.125000
G01 X172.592751 Y121.319669 Z-0.125000
G01 X151.833769 Y110.441478 Z-0.125000
G01 X171.473827 Y82.322741 Z-0.125000
G01 X163.115030 Y63.199515 Z-0.125000
G01 X167.035689 Y47.430722 Z-0.125000
G00 Z5.000000

(End cutting path id: polyline643)


(Start cutting path id: polyline645)
(Change tool to Default tool)

G00 Z5.000000
G00 X153.061780 Y231.191703

G00 Z4.875000 (Fast pre-penetrate)
G01 Z-0.125000 F100.0(Penetrate)
G01 X168.116758 Y203.645958 Z-0.125000 F800.000000
G01 X163.747067 Y189.343196 Z-0.125000
G01 X158.910436 Y174.919111 Z-0.125000
G01 X161.318355 Y146.146600 Z-0.125000
G01 X171.103191 Y120.922072 Z-0.125000
G01 X150.953961 Y110.401683 Z-0.125000
G01 X170.349183 Y82.746503 Z-0.125000
G01 X163.070311 Y63.742164 Z-0.125000
G01 X166.209206 Y47.938898 Z-0.125000
G00 Z5.000000

(End cutting path id: polyline645)


(Start cutting path id: polyline647)
(Change tool to Default tool)

G00 Z5.000000
G00 X151.911618 Y231.421517

G00 Z4.875000 (Fast pre-penetrate)
G01 Z-0.125000 F100.0(Penetrate)
G01 X166.964606 Y203.532295 Z-0.125000 F800.000000
G01 X162.929438 Y189.229683 Z-0.125000
G01 X157.371929 Y174.948211 Z-0.125000
G01 X160.366967 Y146.600904 Z-0.125000
G01 X169.613581 Y120.524474 Z-0.125000
G01 X150.074153 Y110.361889 Z-0.125000
G01 X169.224490 Y83.170266 Z-0.125000
G01 X163.025641 Y64.284762 Z-0.125000
G01 X165.382723 Y48.447075 Z-0.125000
G00 Z5.000000

(End cutting path id: polyline647)


(Start cutting path id: polyline649)
(Change tool to Default tool)

G00 Z5.000000
G00 X150.761405 Y231.651330

G00 Z4.875000 (Fast pre-penetrate)
G01 Z-0.125000 F100.0(Penetrate)
G01 X165.812454 Y203.418582 Z-0.125000 F800.000000
G01 X162.111809 Y189.116119 Z-0.125000
G01 X155.833371 Y174.977311 Z-0.125000
G01 X159.415578 Y147.055209 Z-0.125000
G01 X168.123971 Y120.126926 Z-0.125000
G01 X149.194395 Y110.322144 Z-0.125000
G01 X168.099846 Y83.593978 Z-0.125000
G01 X162.980922 Y64.827411 Z-0.125000
G01 X164.556239 Y48.955251 Z-0.125000
G00 Z5.000000

(End cutting path id: polyline649)


(Start cutting path id: polyline651)
(Change tool to Default tool)

G00 Z5.000000
G00 X149.611243 Y231.881144

G00 Z4.875000 (Fast pre-penetrate)
G01 Z-0.125000 F100.0(Penetrate)
G01 X164.660302 Y203.304919 Z-0.125000 F800.000000
G01 X161.294130 Y189.002555 Z-0.125000
G01 X154.294864 Y175.006460 Z-0.125000
G01 X158.464190 Y147.509513 Z-0.125000
G01 X166.634411 Y119.729329 Z-0.125000
G01 X148.314587 Y110.282349 Z-0.125000
G01 X166.975152 Y84.017741 Z-0.125000
G01 X162.936203 Y65.370060 Z-0.125000
G01 X163.729756 Y49.463478 Z-0.125000
G00 Z5.000000

(End cutting path id: polyline651)


(Start cutting path id: polyline653)
(Change tool to Default tool)

G00 Z5.000000
G00 X148.019461 Y232.353505

G00 Z4.875000 (Fast pre-penetrate)
G01 Z-0.125000 F100.0(Penetrate)
G01 X160.162771 Y203.608502 Z-0.125000 F800.000000
G01 X158.754790 Y189.280520 Z-0.125000
G01 X151.777659 Y174.069597 Z-0.125000
G01 X154.909192 Y148.655099 Z-0.125000
G01 X163.195514 Y119.956307 Z-0.125000
G01 X146.505626 Y108.985942 Z-0.125000
G01 X163.721001 Y84.362163 Z-0.125000
G01 X160.678558 Y65.587835 Z-0.125000
G01 X161.251550 Y49.200485 Z-0.125000
G00 Z5.000000

(End cutting path id: polyline653)


(Start cutting path id: polyline655)
(Change tool to Default tool)

G00 Z5.000000
G00 X147.798651 Y232.474779

G00 Z4.875000 (Fast pre-penetrate)
G01 Z-0.125000 F100.0(Penetrate)
G01 X158.490056 Y203.817125 Z-0.125000 F800.000000
G01 X157.893934 Y189.476260 Z-0.125000
G01 X151.288335 Y173.586590 Z-0.125000
G01 X153.607413 Y149.000765 Z-0.125000
G01 X162.220896 Y120.268595 Z-0.125000
G01 X146.041025 Y108.357586 Z-0.125000
G01 X162.656198 Y84.322517 Z-0.125000
G01 X159.572070 Y65.425374 Z-0.125000
G01 X160.425713 Y48.814926 Z-0.125000
