%
(Header)
(Generated by gcodetools from Inkscape.)
(Using default header. To add your own header create file "header" in the output dir.)
M3
(Header end.)
G21 (All units in mm)

(Start cutting path id: path25664)
(Change tool to Default tool)

G00 Z3.000000
G00 X66.037329 Y125.313722

G00 Z4.875000 (Fast pre-penetrate)
G01 Z-0.125000 F400.0(Penetrate)
G01 X83.910447 Y125.961414 Z-0.125000 F800.000000
G01 X102.737462 Y125.655206 Z-0.125000
G00 Z3.000000

(End cutting path id: path25664)


(Start cutting path id: path25614)
(Change tool to Default tool)

G00 Z3.000000
G00 X71.208273 Y137.951249

G00 Z4.875000 (Fast pre-penetrate)
G01 Z-0.125000 F400.0(Penetrate)
G01 X85.631324 Y142.049007 Z-0.125000 F800.000000
G01 X105.597279 Y140.603863 Z-0.125000
G00 Z3.000000

(End cutting path id: path25614)


(Start cutting path id: path25612)
(Change tool to Default tool)

G00 Z3.000000
G00 X71.153755 Y138.718106

G00 Z4.875000 (Fast pre-penetrate)
G01 Z-0.125000 F400.0(Penetrate)
G01 X85.690273 Y142.702397 Z-0.125000 F800.000000
G01 X105.202555 Y141.710923 Z-0.125000
G00 Z3.000000

(End cutting path id: path25612)


(Start cutting path id: path25610)
(Change tool to Default tool)

G00 Z3.000000
G00 X71.099238 Y139.484960

G00 Z4.875000 (Fast pre-penetrate)
G01 Z-0.125000 F400.0(Penetrate)
G01 X85.749223 Y143.355788 Z-0.125000 F800.000000
G01 X104.807835 Y142.817983 Z-0.125000
G00 Z3.000000

(End cutting path id: path25610)


(Start cutting path id: path25608)
(Change tool to Default tool)

G00 Z3.000000
G00 X71.044721 Y140.251817

G00 Z4.875000 (Fast pre-penetrate)
G01 Z-0.125000 F400.0(Penetrate)
G01 X85.808172 Y144.009178 Z-0.125000 F800.000000
G01 X104.413114 Y143.925046 Z-0.125000
G00 Z3.000000

(End cutting path id: path25608)


(Start cutting path id: path25604)
(Change tool to Default tool)

G00 Z3.000000
G00 X70.935686 Y141.785527

G00 Z4.875000 (Fast pre-penetrate)
G01 Z-0.125000 F400.0(Penetrate)
G01 X85.926067 Y145.315959 Z-0.125000 F800.000000
G01 X103.623670 Y146.139167 Z-0.125000
G00 Z3.000000

(End cutting path id: path25604)


(Start cutting path id: path25598)
(Change tool to Default tool)

G00 Z3.000000
G00 X70.772137 Y144.086095

G00 Z4.875000 (Fast pre-penetrate)
G01 Z-0.125000 F400.0(Penetrate)
G01 X86.102914 Y147.276127 Z-0.125000 F800.000000
G01 X102.439504 Y149.460350 Z-0.125000
G00 Z3.000000

(End cutting path id: path25598)


(Start cutting path id: path25590)
(Change tool to Default tool)

G00 Z3.000000
G00 X70.554067 Y147.153520

G00 Z4.875000 (Fast pre-penetrate)
G01 Z-0.125000 F400.0(Penetrate)
G01 X86.338708 Y149.889689 Z-0.125000 F800.000000
G01 X100.860616 Y153.888591 Z-0.125000
G00 Z3.000000

(End cutting path id: path25590)


(Start cutting path id: path25578)
(Change tool to Default tool)

G00 Z3.000000
G00 X70.226966 Y151.754655

G00 Z4.875000 (Fast pre-penetrate)
G01 Z-0.125000 F400.0(Penetrate)
G01 X86.692400 Y153.810028 Z-0.125000 F800.000000
G01 X98.492283 Y160.530958 Z-0.125000
G00 Z3.000000

(End cutting path id: path25578)


(Start cutting path id: path25562)
(Change tool to Default tool)

G00 Z3.000000
G00 X69.790830 Y157.889501

G00 Z4.875000 (Fast pre-penetrate)
G01 Z-0.125000 F400.0(Penetrate)
G01 X87.163990 Y159.037151 Z-0.125000 F800.000000
G01 X95.334509 Y169.387442 Z-0.125000
G00 Z3.000000

(End cutting path id: path25562)


(Start cutting path id: path25564)
(Change tool to Default tool)

G00 Z3.000000
G00 X69.845345 Y157.122647

G00 Z4.875000 (Fast pre-penetrate)
G01 Z-0.125000 F400.0(Penetrate)
G01 X87.105041 Y158.383761 Z-0.125000 F800.000000
G01 X95.729230 Y168.280382 Z-0.125000
G00 Z3.000000

(End cutting path id: path25564)


(Start cutting path id: path25566)
(Change tool to Default tool)

G00 Z3.000000
G00 X69.899862 Y156.355790

G00 Z4.875000 (Fast pre-penetrate)
G01 Z-0.125000 F400.0(Penetrate)
G01 X87.046092 Y157.730371 Z-0.125000 F800.000000
G01 X96.123953 Y167.173322 Z-0.125000
G00 Z3.000000

(End cutting path id: path25566)


(Start cutting path id: path25568)
(Change tool to Default tool)

G00 Z3.000000
G00 X69.954379 Y155.588934

G00 Z4.875000 (Fast pre-penetrate)
G01 Z-0.125000 F400.0(Penetrate)
G01 X86.987146 Y157.076980 Z-0.125000 F800.000000
G01 X96.518674 Y166.066262 Z-0.125000
G00 Z3.000000

(End cutting path id: path25568)


(Start cutting path id: path25570)
(Change tool to Default tool)

G00 Z3.000000
G00 X70.008897 Y154.822080

G00 Z4.875000 (Fast pre-penetrate)
G01 Z-0.125000 F400.0(Penetrate)
G01 X86.928196 Y156.423590 Z-0.125000 F800.000000
G01 X96.913397 Y164.959199 Z-0.125000
G00 Z3.000000

(End cutting path id: path25570)


(Start cutting path id: path25572)
(Change tool to Default tool)

G00 Z3.000000
G00 X70.063414 Y154.055223

G00 Z4.875000 (Fast pre-penetrate)
G01 Z-0.125000 F400.0(Penetrate)
G01 X86.869247 Y155.770199 Z-0.125000 F800.000000
G01 X97.308118 Y163.852139 Z-0.125000
G00 Z3.000000

(End cutting path id: path25572)


(Start cutting path id: path25574)
(Change tool to Default tool)

G00 Z3.000000
G00 X70.117931 Y153.288366

G00 Z4.875000 (Fast pre-penetrate)
G01 Z-0.125000 F400.0(Penetrate)
G01 X86.810298 Y155.116809 Z-0.125000 F800.000000
G01 X97.702839 Y162.745078 Z-0.125000
G00 Z3.000000

(End cutting path id: path25574)


(Start cutting path id: path25576)
(Change tool to Default tool)

G00 Z3.000000
G00 X70.172449 Y152.521512

G00 Z4.875000 (Fast pre-penetrate)
G01 Z-0.125000 F400.0(Penetrate)
G01 X86.751349 Y154.463419 Z-0.125000 F800.000000
G01 X98.097563 Y161.638018 Z-0.125000
G00 Z3.000000

(End cutting path id: path25576)


(Start cutting path id: path25580)
(Change tool to Default tool)

G00 Z3.000000
G00 X70.281483 Y150.987798

G00 Z4.875000 (Fast pre-penetrate)
G01 Z-0.125000 F400.0(Penetrate)
G01 X86.633454 Y153.156641 Z-0.125000 F800.000000
G01 X98.887007 Y159.423895 Z-0.125000
G00 Z3.000000

(End cutting path id: path25580)


(Start cutting path id: path25582)
(Change tool to Default tool)

G00 Z3.000000
G00 X70.336001 Y150.220944

G00 Z4.875000 (Fast pre-penetrate)
G01 Z-0.125000 F400.0(Penetrate)
G01 X86.574505 Y152.503250 Z-0.125000 F800.000000
G01 X99.281728 Y158.316835 Z-0.125000
G00 Z3.000000

(End cutting path id: path25582)


(Start cutting path id: path25584)
(Change tool to Default tool)

G00 Z3.000000
G00 X70.390515 Y149.454087

G00 Z4.875000 (Fast pre-penetrate)
G01 Z-0.125000 F400.0(Penetrate)
G01 X86.515555 Y151.849860 Z-0.125000 F800.000000
G01 X99.676451 Y157.209774 Z-0.125000
G00 Z3.000000

(End cutting path id: path25584)


(Start cutting path id: path25586)
(Change tool to Default tool)

G00 Z3.000000
G00 X70.445033 Y148.687231

G00 Z4.875000 (Fast pre-penetrate)
G01 Z-0.125000 F400.0(Penetrate)
G01 X86.456606 Y151.196470 Z-0.125000 F800.000000
G01 X100.071172 Y156.102714 Z-0.125000
G00 Z3.000000

(End cutting path id: path25586)


(Start cutting path id: path25588)
(Change tool to Default tool)

G00 Z3.000000
G00 X70.499550 Y147.920376

G00 Z4.875000 (Fast pre-penetrate)
G01 Z-0.125000 F400.0(Penetrate)
G01 X86.397657 Y150.543079 Z-0.125000 F800.000000
G01 X100.465893 Y154.995654 Z-0.125000
G00 Z3.000000

(End cutting path id: path25588)


(Start cutting path id: path25592)
(Change tool to Default tool)

G00 Z3.000000
G00 X70.608585 Y146.386663

G00 Z4.875000 (Fast pre-penetrate)
G01 Z-0.125000 F400.0(Penetrate)
G01 X86.279759 Y149.236298 Z-0.125000 F800.000000
G01 X101.255337 Y152.781531 Z-0.125000
G00 Z3.000000

(End cutting path id: path25592)


(Start cutting path id: path25594)
(Change tool to Default tool)

G00 Z3.000000
G00 X70.663102 Y145.619809

G00 Z4.875000 (Fast pre-penetrate)
G01 Z-0.125000 F400.0(Penetrate)
G01 X86.220813 Y148.582908 Z-0.125000 F800.000000
G01 X101.650060 Y151.674471 Z-0.125000
G00 Z3.000000

(End cutting path id: path25594)


(Start cutting path id: path25596)
(Change tool to Default tool)

G00 Z3.000000
G00 X70.717619 Y144.852952

G00 Z4.875000 (Fast pre-penetrate)
G01 Z-0.125000 F400.0(Penetrate)
G01 X86.161864 Y147.929518 Z-0.125000 F800.000000
G01 X102.044781 Y150.567410 Z-0.125000
G00 Z3.000000

(End cutting path id: path25596)


(Start cutting path id: path25600)
(Change tool to Default tool)

G00 Z3.000000
G00 X70.826654 Y143.319241

G00 Z4.875000 (Fast pre-penetrate)
G01 Z-0.125000 F400.0(Penetrate)
G01 X86.043965 Y146.622737 Z-0.125000 F800.000000
G01 X102.834225 Y148.353287 Z-0.125000
G00 Z3.000000

(End cutting path id: path25600)


(Start cutting path id: path25602)
(Change tool to Default tool)

G00 Z3.000000
G00 X70.881171 Y142.552384

G00 Z4.875000 (Fast pre-penetrate)
G01 Z-0.125000 F400.0(Penetrate)
G01 X85.985016 Y145.969347 Z-0.125000 F800.000000
G01 X103.228946 Y147.246227 Z-0.125000
G00 Z3.000000

(End cutting path id: path25602)


(Start cutting path id: path25606)
(Change tool to Default tool)

G00 Z3.000000
G00 X70.990203 Y141.018673

G00 Z4.875000 (Fast pre-penetrate)
G01 Z-0.125000 F400.0(Penetrate)
G01 X85.867118 Y144.662569 Z-0.125000 F800.000000
G01 X104.018390 Y145.032106 Z-0.125000
G00 Z3.000000

(End cutting path id: path25606)


(Start cutting path id: path25616)
(Change tool to Default tool)

G00 Z3.000000
G00 X71.001435 Y137.445747

G00 Z4.875000 (Fast pre-penetrate)
G01 Z-0.125000 F400.0(Penetrate)
G01 X85.562490 Y141.405504 Z-0.125000 F800.000000
G01 X105.482886 Y140.005916 Z-0.125000
G00 Z3.000000

(End cutting path id: path25616)


(Start cutting path id: path25618)
(Change tool to Default tool)

G00 Z3.000000
G00 X70.794597 Y136.940248

G00 Z4.875000 (Fast pre-penetrate)
G01 Z-0.125000 F400.0(Penetrate)
G01 X85.493654 Y140.761999 Z-0.125000 F800.000000
G01 X105.368494 Y139.407971 Z-0.125000
G00 Z3.000000

(End cutting path id: path25618)


(Start cutting path id: path25620)
(Change tool to Default tool)

G00 Z3.000000
G00 X70.587759 Y136.434746

G00 Z4.875000 (Fast pre-penetrate)
G01 Z-0.125000 F400.0(Penetrate)
G01 X85.424820 Y140.118496 Z-0.125000 F800.000000
G01 X105.254101 Y138.810024 Z-0.125000
G00 Z3.000000

(End cutting path id: path25620)


(Start cutting path id: path25622)
(Change tool to Default tool)

G00 Z3.000000
G00 X70.380922 Y135.929245

G00 Z4.875000 (Fast pre-penetrate)
G01 Z-0.125000 F400.0(Penetrate)
G01 X85.355983 Y139.474993 Z-0.125000 F800.000000
G01 X105.139709 Y138.212077 Z-0.125000
G00 Z3.000000

(End cutting path id: path25622)


(Start cutting path id: path25624)
(Change tool to Default tool)

G00 Z3.000000
G00 X70.174084 Y135.423743

G00 Z4.875000 (Fast pre-penetrate)
G01 Z-0.125000 F400.0(Penetrate)
G01 X85.287150 Y138.831487 Z-0.125000 F800.000000
G01 X105.025316 Y137.614133 Z-0.125000
G00 Z3.000000

(End cutting path id: path25624)


(Start cutting path id: path25626)
(Change tool to Default tool)

G00 Z3.000000
G00 X69.967246 Y134.918241

G00 Z4.875000 (Fast pre-penetrate)
G01 Z-0.125000 F400.0(Penetrate)
G01 X85.218313 Y138.187984 Z-0.125000 F800.000000
G01 X104.910924 Y137.016186 Z-0.125000
G00 Z3.000000

(End cutting path id: path25626)


(Start cutting path id: path25628)
(Change tool to Default tool)

G00 Z3.000000
G00 X69.760408 Y134.412742

G00 Z4.875000 (Fast pre-penetrate)
G01 Z-0.125000 F400.0(Penetrate)
G01 X85.149479 Y137.544482 Z-0.125000 F800.000000
G01 X104.796532 Y136.418239 Z-0.125000
G00 Z3.000000

(End cutting path id: path25628)


(Start cutting path id: path25630)
(Change tool to Default tool)

G00 Z3.000000
G00 X69.553571 Y133.907241

G00 Z4.875000 (Fast pre-penetrate)
G01 Z-0.125000 F400.0(Penetrate)
G01 X85.080645 Y136.900976 Z-0.125000 F800.000000
G01 X104.682136 Y135.820292 Z-0.125000
G00 Z3.000000

(End cutting path id: path25630)


(Start cutting path id: path25632)
(Change tool to Default tool)

G00 Z3.000000
G00 X69.346733 Y133.401739

G00 Z4.875000 (Fast pre-penetrate)
G01 Z-0.125000 F400.0(Penetrate)
G01 X85.011809 Y136.257473 Z-0.125000 F800.000000
G01 X104.567744 Y135.222348 Z-0.125000
G00 Z3.000000

(End cutting path id: path25632)


(Start cutting path id: path25634)
(Change tool to Default tool)

G00 Z3.000000
G00 X69.139895 Y132.896237

G00 Z4.875000 (Fast pre-penetrate)
G01 Z-0.125000 F400.0(Penetrate)
G01 X84.942975 Y135.613970 Z-0.125000 F800.000000
G01 X104.453352 Y134.624401 Z-0.125000
G00 Z3.000000

(End cutting path id: path25634)


(Start cutting path id: path25636)
(Change tool to Default tool)

G00 Z3.000000
G00 X68.933057 Y132.390738

G00 Z4.875000 (Fast pre-penetrate)
G01 Z-0.125000 F400.0(Penetrate)
G01 X84.874138 Y134.970465 Z-0.125000 F800.000000
G01 X104.338959 Y134.026454 Z-0.125000
G00 Z3.000000

(End cutting path id: path25636)


(Start cutting path id: path25638)
(Change tool to Default tool)

G00 Z3.000000
G00 X68.726220 Y131.885236

G00 Z4.875000 (Fast pre-penetrate)
G01 Z-0.125000 F400.0(Penetrate)
G01 X84.805304 Y134.326962 Z-0.125000 F800.000000
G01 X104.224567 Y133.428509 Z-0.125000
G00 Z3.000000

(End cutting path id: path25638)


(Start cutting path id: path25640)
(Change tool to Default tool)

G00 Z3.000000
G00 X68.519382 Y131.379735

G00 Z4.875000 (Fast pre-penetrate)
G01 Z-0.125000 F400.0(Penetrate)
G01 X84.736468 Y133.683459 Z-0.125000 F800.000000
G01 X104.110174 Y132.830562 Z-0.125000
G00 Z3.000000

(End cutting path id: path25640)


(Start cutting path id: path25642)
(Change tool to Default tool)

G00 Z3.000000
G00 X68.312544 Y130.874233

G00 Z4.875000 (Fast pre-penetrate)
G01 Z-0.125000 F400.0(Penetrate)
G01 X84.667634 Y133.039953 Z-0.125000 F800.000000
G01 X103.995782 Y132.232615 Z-0.125000
G00 Z3.000000

(End cutting path id: path25642)


(Start cutting path id: path25644)
(Change tool to Default tool)

G00 Z3.000000
G00 X68.105706 Y130.368734

G00 Z4.875000 (Fast pre-penetrate)
G01 Z-0.125000 F400.0(Penetrate)
G01 X84.598797 Y132.396450 Z-0.125000 F800.000000
G01 X103.881389 Y131.634668 Z-0.125000
G00 Z3.000000

(End cutting path id: path25644)


(Start cutting path id: path25646)
(Change tool to Default tool)

G00 Z3.000000
G00 X67.898869 Y129.863232

G00 Z4.875000 (Fast pre-penetrate)
G01 Z-0.125000 F400.0(Penetrate)
G01 X84.529963 Y131.752948 Z-0.125000 F800.000000
G01 X103.766997 Y131.036724 Z-0.125000
G00 Z3.000000

(End cutting path id: path25646)


(Start cutting path id: path25648)
(Change tool to Default tool)

G00 Z3.000000
G00 X67.692031 Y129.357731

G00 Z4.875000 (Fast pre-penetrate)
G01 Z-0.125000 F400.0(Penetrate)
G01 X84.461129 Y131.109442 Z-0.125000 F800.000000
G01 X103.652604 Y130.438777 Z-0.125000
G00 Z3.000000

(End cutting path id: path25648)


(Start cutting path id: path25650)
(Change tool to Default tool)

G00 Z3.000000
G00 X67.485193 Y128.852229

G00 Z4.875000 (Fast pre-penetrate)
G01 Z-0.125000 F400.0(Penetrate)
G01 X84.392293 Y130.465939 Z-0.125000 F800.000000
G01 X103.538212 Y129.840830 Z-0.125000
G00 Z3.000000

(End cutting path id: path25650)


(Start cutting path id: path25652)
(Change tool to Default tool)

G00 Z3.000000
G00 X67.278355 Y128.346727

G00 Z4.875000 (Fast pre-penetrate)
G01 Z-0.125000 F400.0(Penetrate)
G01 X84.323459 Y129.822436 Z-0.125000 F800.000000
G01 X103.423819 Y129.242886 Z-0.125000
G00 Z3.000000

(End cutting path id: path25652)


(Start cutting path id: path25654)
(Change tool to Default tool)

G00 Z3.000000
G00 X67.071517 Y127.841228

G00 Z4.875000 (Fast pre-penetrate)
G01 Z-0.125000 F400.0(Penetrate)
G01 X84.254622 Y129.178931 Z-0.125000 F800.000000
G01 X103.309427 Y128.644939 Z-0.125000
G00 Z3.000000

(End cutting path id: path25654)


(Start cutting path id: path25656)
(Change tool to Default tool)

G00 Z3.000000
G00 X66.864680 Y127.335726

G00 Z4.875000 (Fast pre-penetrate)
G01 Z-0.125000 F400.0(Penetrate)
G01 X84.185788 Y128.535428 Z-0.125000 F800.000000
G01 X103.195034 Y128.046992 Z-0.125000
G00 Z3.000000

(End cutting path id: path25656)


(Start cutting path id: path25658)
(Change tool to Default tool)

G00 Z3.000000
G00 X66.657842 Y126.830225

G00 Z4.875000 (Fast pre-penetrate)
G01 Z-0.125000 F400.0(Penetrate)
G01 X84.116952 Y127.891925 Z-0.125000 F800.000000
G01 X103.080642 Y127.449045 Z-0.125000
G00 Z3.000000

(End cutting path id: path25658)


(Start cutting path id: path25660)
(Change tool to Default tool)

G00 Z3.000000
G00 X66.451004 Y126.324723

G00 Z4.875000 (Fast pre-penetrate)
G01 Z-0.125000 F400.0(Penetrate)
G01 X84.048118 Y127.248419 Z-0.125000 F800.000000
G01 X102.966250 Y126.851100 Z-0.125000
G00 Z3.000000

(End cutting path id: path25660)


(Start cutting path id: path25662)
(Change tool to Default tool)

G00 Z3.000000
G00 X66.244166 Y125.819224

G00 Z4.875000 (Fast pre-penetrate)
G01 Z-0.125000 F400.0(Penetrate)
G01 X83.979281 Y126.604916 Z-0.125000 F800.000000
G01 X102.851857 Y126.253153 Z-0.125000
G00 Z3.000000

(End cutting path id: path25662)


(Start cutting path id: path25666)
(Change tool to Default tool)

G00 Z3.000000
G00 X65.830491 Y124.808221

G00 Z4.875000 (Fast pre-penetrate)
G01 Z-0.125000 F400.0(Penetrate)
G01 X83.841611 Y125.317911 Z-0.125000 F800.000000
G01 X102.623070 Y125.057262 Z-0.125000
G00 Z3.000000

(End cutting path id: path25666)



(Footer)
M5
G00 X0.0000 Y0.0000
M2
(Using default footer. To add your own footer create file "footer" in the output dir.)
(end)
%