%
(Header)
(Generated by gcodetools from Inkscape.)
(Using default header. To add your own header create file "header" in the output dir.)
M3
(Header end.)
G21 (All units in mm)

(Start cutting path id: path11748)
(Change tool to Default tool)

G00 Z3.000000
G00 X158.538978 Y214.084576

G00 Z4.875000 (Fast pre-penetrate)
G01 Z-0.125000 F400.0(Penetrate)
G01 X157.164270 Y194.292643 Z-0.125000 F800.000000
G01 X161.531906 Y168.758367 Z-0.125000
G01 X154.542639 Y154.580994 Z-0.125000
G01 X164.652112 Y123.304881 Z-0.125000
G01 X152.460744 Y114.329609 Z-0.125000
G01 X162.901700 Y82.722014 Z-0.125000
G01 X164.867766 Y59.589308 Z-0.125000
G00 Z3.000000

(End cutting path id: path11748)


(Start cutting path id: path11708)
(Change tool to Default tool)

G00 Z3.000000
G00 X144.328526 Y207.128387

G00 Z4.875000 (Fast pre-penetrate)
G01 Z-0.125000 F400.0(Penetrate)
G01 X138.090786 Y192.199487 Z-0.125000 F800.000000
G01 X144.882023 Y164.241610 Z-0.125000
G01 X140.256274 Y147.700720 Z-0.125000
G01 X134.121636 Y132.668717 Z-0.125000
G01 X139.510216 Y106.113498 Z-0.125000
G01 X138.465999 Y85.991074 Z-0.125000
G01 X132.856414 Y70.434020 Z-0.125000
G00 Z3.000000

(End cutting path id: path11708)


(Start cutting path id: path11706)
(Change tool to Default tool)

G00 Z3.000000
G00 X143.157826 Y207.240756

G00 Z4.875000 (Fast pre-penetrate)
G01 Z-0.125000 F400.0(Penetrate)
G01 X137.035444 Y192.196498 Z-0.125000 F800.000000
G01 X143.499503 Y164.565798 Z-0.125000
G01 X139.058763 Y147.839898 Z-0.125000
G01 X133.219096 Y132.512925 Z-0.125000
G01 X138.252502 Y106.312880 Z-0.125000
G01 X137.143748 Y86.254993 Z-0.125000
G01 X131.940605 Y70.291497 Z-0.125000
G00 Z3.000000

(End cutting path id: path11706)


(Start cutting path id: path11704)
(Change tool to Default tool)

G00 Z3.000000
G00 X141.987128 Y207.353121

G00 Z4.875000 (Fast pre-penetrate)
G01 Z-0.125000 F400.0(Penetrate)
G01 X135.980102 Y192.193508 Z-0.125000 F800.000000
G01 X142.116980 Y164.889989 Z-0.125000
G01 X137.861253 Y147.979077 Z-0.125000
G01 X132.316556 Y132.357134 Z-0.125000
G01 X136.994791 Y106.512259 Z-0.125000
G01 X135.821498 Y86.518912 Z-0.125000
G01 X131.024796 Y70.148974 Z-0.125000
G00 Z3.000000

(End cutting path id: path11704)


(Start cutting path id: path11702)
(Change tool to Default tool)

G00 Z3.000000
G00 X140.816430 Y207.465487

G00 Z4.875000 (Fast pre-penetrate)
G01 Z-0.125000 F400.0(Penetrate)
G01 X134.924760 Y192.190518 Z-0.125000 F800.000000
G01 X140.734457 Y165.214180 Z-0.125000
G01 X136.663742 Y148.118256 Z-0.125000
G01 X131.414013 Y132.201344 Z-0.125000
G01 X135.737080 Y106.711638 Z-0.125000
G01 X134.499247 Y86.782831 Z-0.125000
G01 X130.108984 Y70.006454 Z-0.125000
G00 Z3.000000

(End cutting path id: path11702)


(Start cutting path id: path11700)
(Change tool to Default tool)

G00 Z3.000000
G00 X139.645733 Y207.577853

G00 Z4.875000 (Fast pre-penetrate)
G01 Z-0.125000 F400.0(Penetrate)
G01 X133.869417 Y192.187528 Z-0.125000 F800.000000
G01 X139.351937 Y165.538369 Z-0.125000
G01 X135.466231 Y148.257434 Z-0.125000
G01 X130.511473 Y132.045553 Z-0.125000
G01 X134.479368 Y106.911017 Z-0.125000
G01 X133.176996 Y87.046750 Z-0.125000
G01 X129.193175 Y69.863931 Z-0.125000
G00 Z3.000000

(End cutting path id: path11700)


(Start cutting path id: path11698)
(Change tool to Default tool)

G00 Z3.000000
G00 X138.475035 Y207.690219

G00 Z4.875000 (Fast pre-penetrate)
G01 Z-0.125000 F400.0(Penetrate)
G01 X132.814075 Y192.184538 Z-0.125000 F800.000000
G01 X137.969414 Y165.862559 Z-0.125000
G01 X134.268721 Y148.396613 Z-0.125000
G01 X129.608933 Y131.889761 Z-0.125000
G01 X133.221655 Y107.110399 Z-0.125000
G01 X131.854745 Y87.310669 Z-0.125000
G01 X128.277366 Y69.721408 Z-0.125000
G00 Z3.000000

(End cutting path id: path11698)


(Start cutting path id: path11696)
(Change tool to Default tool)

G00 Z3.000000
G00 X137.304334 Y207.802587

G00 Z4.875000 (Fast pre-penetrate)
G01 Z-0.125000 F400.0(Penetrate)
G01 X131.758733 Y192.181549 Z-0.125000 F800.000000
G01 X136.586894 Y166.186748 Z-0.125000
G01 X133.071207 Y148.535794 Z-0.125000
G01 X128.706392 Y131.733969 Z-0.125000
G01 X131.963944 Y107.309778 Z-0.125000
G01 X130.532491 Y87.574590 Z-0.125000
G01 X127.361557 Y69.578885 Z-0.125000
G00 Z3.000000

(End cutting path id: path11696)


(Start cutting path id: path11694)
(Change tool to Default tool)

G00 Z3.000000
G00 X136.133637 Y207.914953

G00 Z4.875000 (Fast pre-penetrate)
G01 Z-0.125000 F400.0(Penetrate)
G01 X130.703391 Y192.178559 Z-0.125000 F800.000000
G01 X135.204371 Y166.510939 Z-0.125000
G01 X131.873697 Y148.674973 Z-0.125000
G01 X127.803852 Y131.578177 Z-0.125000
G01 X130.706232 Y107.509157 Z-0.125000
G01 X129.210240 Y87.838509 Z-0.125000
G01 X126.445748 Y69.436362 Z-0.125000
G00 Z3.000000

(End cutting path id: path11694)


(Start cutting path id: path11692)
(Change tool to Default tool)

G00 Z3.000000
G00 X134.962939 Y208.027319

G00 Z4.875000 (Fast pre-penetrate)
G01 Z-0.125000 F400.0(Penetrate)
G01 X129.648049 Y192.175569 Z-0.125000 F800.000000
G01 X133.821848 Y166.835130 Z-0.125000
G01 X130.676186 Y148.814151 Z-0.125000
G01 X126.901312 Y131.422386 Z-0.125000
G01 X129.448521 Y107.708536 Z-0.125000
G01 X127.887989 Y88.102428 Z-0.125000
G01 X125.529938 Y69.293839 Z-0.125000
G00 Z3.000000

(End cutting path id: path11692)


(Start cutting path id: path11690)
(Change tool to Default tool)

G00 Z3.000000
G00 X133.792241 Y208.139684

G00 Z4.875000 (Fast pre-penetrate)
G01 Z-0.125000 F400.0(Penetrate)
G01 X128.592706 Y192.172579 Z-0.125000 F800.000000
G01 X132.439328 Y167.159318 Z-0.125000
G01 X129.478676 Y148.953330 Z-0.125000
G01 X125.998772 Y131.266594 Z-0.125000
G01 X128.190807 Y107.907918 Z-0.125000
G01 X126.565739 Y88.366347 Z-0.125000
G01 X124.614127 Y69.151319 Z-0.125000
G00 Z3.000000

(End cutting path id: path11690)


(Start cutting path id: path11688)
(Change tool to Default tool)

G00 Z3.000000
G00 X132.621541 Y208.252053

G00 Z4.875000 (Fast pre-penetrate)
G01 Z-0.125000 F400.0(Penetrate)
G01 X127.537364 Y192.169589 Z-0.125000 F800.000000
G01 X131.056805 Y167.483509 Z-0.125000
G01 X128.281165 Y149.092508 Z-0.125000
G01 X125.096229 Y131.110805 Z-0.125000
G01 X126.933096 Y108.107297 Z-0.125000
G01 X125.243488 Y88.630266 Z-0.125000
G01 X123.698318 Y69.008796 Z-0.125000
G00 Z3.000000

(End cutting path id: path11688)


(Start cutting path id: path11686)
(Change tool to Default tool)

G00 Z3.000000
G00 X131.450843 Y208.364419

G00 Z4.875000 (Fast pre-penetrate)
G01 Z-0.125000 F400.0(Penetrate)
G01 X126.482022 Y192.166600 Z-0.125000 F800.000000
G01 X129.674285 Y167.807697 Z-0.125000
G01 X127.083655 Y149.231687 Z-0.125000
G01 X124.193688 Y130.955013 Z-0.125000
G01 X125.675385 Y108.306676 Z-0.125000
G01 X123.921237 Y88.894185 Z-0.125000
G01 X122.782509 Y68.866273 Z-0.125000
G00 Z3.000000

(End cutting path id: path11686)


(Start cutting path id: path11684)
(Change tool to Default tool)

G00 Z3.000000
G00 X130.280145 Y208.476784

G00 Z4.875000 (Fast pre-penetrate)
G01 Z-0.125000 F400.0(Penetrate)
G01 X125.426680 Y192.163610 Z-0.125000 F800.000000
G01 X128.291762 Y168.131888 Z-0.125000
G01 X125.886144 Y149.370866 Z-0.125000
G01 X123.291148 Y130.799221 Z-0.125000
G01 X124.417674 Y108.506056 Z-0.125000
G01 X122.598983 Y89.158106 Z-0.125000
G01 X121.866700 Y68.723750 Z-0.125000
G00 Z3.000000

(End cutting path id: path11684)


(Start cutting path id: path11682)
(Change tool to Default tool)

G00 Z3.000000
G00 X129.109447 Y208.589150

G00 Z4.875000 (Fast pre-penetrate)
G01 Z-0.125000 F400.0(Penetrate)
G01 X124.371337 Y192.160620 Z-0.125000 F800.000000
G01 X126.909239 Y168.456079 Z-0.125000
G01 X124.688631 Y149.510047 Z-0.125000
G01 X122.388608 Y130.643429 Z-0.125000
G01 X123.159963 Y108.705435 Z-0.125000
G01 X121.276732 Y89.422025 Z-0.125000
G01 X120.950890 Y68.581227 Z-0.125000
G00 Z3.000000

(End cutting path id: path11682)


(Start cutting path id: path11680)
(Change tool to Default tool)

G00 Z3.000000
G00 X127.938750 Y208.701516

G00 Z4.875000 (Fast pre-penetrate)
G01 Z-0.125000 F400.0(Penetrate)
G01 X123.315995 Y192.157630 Z-0.125000 F800.000000
G01 X125.526718 Y168.780267 Z-0.125000
G01 X123.491120 Y149.649225 Z-0.125000
G01 X121.486068 Y130.487638 Z-0.125000
G01 X121.902249 Y108.904817 Z-0.125000
G01 X119.954481 Y89.685944 Z-0.125000
G01 X120.035081 Y68.438704 Z-0.125000
G00 Z3.000000

(End cutting path id: path11680)


(Start cutting path id: path11678)
(Change tool to Default tool)

G00 Z3.000000
G00 X126.768049 Y208.813884

G00 Z4.875000 (Fast pre-penetrate)
G01 Z-0.125000 F400.0(Penetrate)
G01 X122.260653 Y192.154640 Z-0.125000 F800.000000
G01 X124.144196 Y169.104458 Z-0.125000
G01 X122.293609 Y149.788404 Z-0.125000
G01 X120.583528 Y130.331846 Z-0.125000
G01 X120.644538 Y109.104196 Z-0.125000
G01 X118.632231 Y89.949863 Z-0.125000
G01 X119.119272 Y68.296181 Z-0.125000
G00 Z3.000000

(End cutting path id: path11678)


(Start cutting path id: path11676)
(Change tool to Default tool)

G00 Z3.000000
G00 X125.597352 Y208.926250

G00 Z4.875000 (Fast pre-penetrate)
G01 Z-0.125000 F400.0(Penetrate)
G01 X121.205311 Y192.151651 Z-0.125000 F800.000000
G01 X122.761673 Y169.428649 Z-0.125000
G01 X121.096099 Y149.927583 Z-0.125000
G01 X119.680987 Y130.176054 Z-0.125000
G01 X119.386827 Y109.303575 Z-0.125000
G01 X117.309980 Y90.213782 Z-0.125000
G01 X118.203461 Y68.153661 Z-0.125000
G00 Z3.000000

(End cutting path id: path11676)


(Start cutting path id: path11674)
(Change tool to Default tool)

G00 Z3.000000
G00 X124.426654 Y209.038616

G00 Z4.875000 (Fast pre-penetrate)
G01 Z-0.125000 F400.0(Penetrate)
G01 X120.149966 Y192.148664 Z-0.125000 F800.000000
G01 X121.379152 Y169.752837 Z-0.125000
G01 X119.898588 Y150.066761 Z-0.125000
G01 X118.778444 Y130.020265 Z-0.125000
G01 X118.129115 Y109.502954 Z-0.125000
G01 X115.987729 Y90.477701 Z-0.125000
G01 X117.287651 Y68.011138 Z-0.125000
G00 Z3.000000

(End cutting path id: path11674)


(Start cutting path id: path11672)
(Change tool to Default tool)

G00 Z3.000000
G00 X123.255956 Y209.150981

G00 Z4.875000 (Fast pre-penetrate)
G01 Z-0.125000 F400.0(Penetrate)
G01 X119.094624 Y192.145674 Z-0.125000 F800.000000
G01 X119.996630 Y170.077028 Z-0.125000
G01 X118.701078 Y150.205940 Z-0.125000
G01 X117.875904 Y129.864473 Z-0.125000
G01 X116.871402 Y109.702336 Z-0.125000
G01 X114.665475 Y90.741622 Z-0.125000
G01 X116.371842 Y67.868615 Z-0.125000
G00 Z3.000000

(End cutting path id: path11672)


(Start cutting path id: path11660)
(Change tool to Default tool)

G00 Z3.000000
G00 X116.685191 Y209.371755

G00 Z4.875000 (Fast pre-penetrate)
G01 Z-0.125000 F400.0(Penetrate)
G01 X113.229067 Y191.661238 Z-0.125000 F800.000000
G01 X111.470035 Y172.253631 Z-0.125000
G01 X112.589192 Y149.967834 Z-0.125000
G01 X113.101620 Y128.288765 Z-0.125000
G01 X110.795830 Y109.427916 Z-0.125000
G01 X109.149684 Y89.907421 Z-0.125000
G01 X112.423148 Y65.467318 Z-0.125000
G00 Z3.000000

(End cutting path id: path11660)


(Start cutting path id: path11652)
(Change tool to Default tool)

G00 Z3.000000
G00 X112.455821 Y209.367797

G00 Z4.875000 (Fast pre-penetrate)
G01 Z-0.125000 F400.0(Penetrate)
G01 X109.474195 Y191.182782 Z-0.125000 F800.000000
G01 X105.708486 Y173.781851 Z-0.125000
G01 X108.872327 Y149.451370 Z-0.125000
G01 X110.132417 Y127.024640 Z-0.125000
G01 X107.235680 Y108.754737 Z-0.125000
G01 X106.278395 Y88.545382 Z-0.125000
G01 X110.306071 Y63.351067 Z-0.125000
G00 Z3.000000

(End cutting path id: path11652)


(Start cutting path id: path11648)
(Change tool to Default tool)

G00 Z3.000000
G00 X110.341139 Y209.365815

G00 Z4.875000 (Fast pre-penetrate)
G01 Z-0.125000 F400.0(Penetrate)
G01 X107.596759 Y190.943554 Z-0.125000 F800.000000
G01 X102.827709 Y174.545964 Z-0.125000
G01 X107.013896 Y149.193137 Z-0.125000
G01 X108.647815 Y126.392578 Z-0.125000
G01 X105.455608 Y108.418145 Z-0.125000
G01 X104.842752 Y87.864362 Z-0.125000
G01 X109.247532 Y62.292941 Z-0.125000
G00 Z3.000000

(End cutting path id: path11648)


(Start cutting path id: path11646)
(Change tool to Default tool)

G00 Z3.000000
G00 X109.283796 Y209.364825

G00 Z4.875000 (Fast pre-penetrate)
G01 Z-0.125000 F400.0(Penetrate)
G01 X106.658043 Y190.823939 Z-0.125000 F800.000000
G01 X101.387322 Y174.928020 Z-0.125000
G01 X106.084678 Y149.064023 Z-0.125000
G01 X107.905515 Y126.076547 Z-0.125000
G01 X104.565570 Y108.249852 Z-0.125000
G01 X104.124928 Y87.523854 Z-0.125000
G01 X108.718263 Y61.763878 Z-0.125000
G00 Z3.000000

(End cutting path id: path11646)


(Start cutting path id: path11644)
(Change tool to Default tool)

G00 Z3.000000
G00 X108.226454 Y209.363836

G00 Z4.875000 (Fast pre-penetrate)
G01 Z-0.125000 F400.0(Penetrate)
G01 X105.719323 Y190.704326 Z-0.125000 F800.000000
G01 X99.946935 Y175.310075 Z-0.125000
G01 X105.155463 Y148.934907 Z-0.125000
G01 X107.163214 Y125.760516 Z-0.125000
G01 X103.675533 Y108.081556 Z-0.125000
G01 X103.407106 Y87.183343 Z-0.125000
G01 X108.188994 Y61.234815 Z-0.125000
G00 Z3.000000

(End cutting path id: path11644)


(Start cutting path id: path11642)
(Change tool to Default tool)

G00 Z3.000000
G00 X107.169111 Y209.362846

G00 Z4.875000 (Fast pre-penetrate)
G01 Z-0.125000 F400.0(Penetrate)
G01 X104.780604 Y190.584713 Z-0.125000 F800.000000
G01 X98.506547 Y175.692130 Z-0.125000
G01 X104.226247 Y148.805790 Z-0.125000
G01 X106.420913 Y125.444485 Z-0.125000
G01 X102.785495 Y107.913263 Z-0.125000
G01 X102.689284 Y86.842833 Z-0.125000
G01 X107.659725 Y60.705753 Z-0.125000
G00 Z3.000000

(End cutting path id: path11642)


(Start cutting path id: path11640)
(Change tool to Default tool)

G00 Z3.000000
G00 X106.111769 Y209.361857

G00 Z4.875000 (Fast pre-penetrate)
G01 Z-0.125000 F400.0(Penetrate)
G01 X103.841887 Y190.465098 Z-0.125000 F800.000000
G01 X97.066158 Y176.074188 Z-0.125000
G01 X103.297032 Y148.676674 Z-0.125000
G01 X105.678612 Y125.128454 Z-0.125000
G01 X101.895459 Y107.744967 Z-0.125000
G01 X101.971463 Y86.502323 Z-0.125000
G01 X107.130456 Y60.176690 Z-0.125000
G00 Z3.000000

(End cutting path id: path11640)


(Start cutting path id: path11638)
(Change tool to Default tool)

G00 Z3.000000
G00 X105.054426 Y209.360867

G00 Z4.875000 (Fast pre-penetrate)
G01 Z-0.125000 F400.0(Penetrate)
G01 X102.903168 Y190.345485 Z-0.125000 F800.000000
G01 X95.625770 Y176.456243 Z-0.125000
G01 X102.367816 Y148.547557 Z-0.125000
G01 X104.936311 Y124.812422 Z-0.125000
G01 X101.005420 Y107.576673 Z-0.125000
G01 X101.253639 Y86.161815 Z-0.125000
G01 X106.601186 Y59.647627 Z-0.125000
G00 Z3.000000

(End cutting path id: path11638)


(Start cutting path id: path11636)
(Change tool to Default tool)

G00 Z3.000000
G00 X103.997086 Y209.359875

G00 Z4.875000 (Fast pre-penetrate)
G01 Z-0.125000 F400.0(Penetrate)
G01 X101.964451 Y190.225870 Z-0.125000 F800.000000
G01 X94.185383 Y176.838298 Z-0.125000
G01 X101.438598 Y148.418444 Z-0.125000
G01 X104.194008 Y124.496394 Z-0.125000
G01 X100.115384 Y107.408377 Z-0.125000
G01 X100.535817 Y85.821305 Z-0.125000
G01 X106.071917 Y59.118564 Z-0.125000
G00 Z3.000000

(End cutting path id: path11636)


(Start cutting path id: path11634)
(Change tool to Default tool)

G00 Z3.000000
G00 X102.939744 Y209.358885

G00 Z4.875000 (Fast pre-penetrate)
G01 Z-0.125000 F400.0(Penetrate)
G01 X101.025732 Y190.106257 Z-0.125000 F800.000000
G01 X92.744996 Y177.220354 Z-0.125000
G01 X100.509382 Y148.289327 Z-0.125000
G01 X103.451707 Y124.180363 Z-0.125000
G01 X99.225348 Y107.240082 Z-0.125000
G01 X99.817995 Y85.480794 Z-0.125000
G01 X105.542648 Y58.589501 Z-0.125000
G00 Z3.000000

(End cutting path id: path11634)


(Start cutting path id: path11632)
(Change tool to Default tool)

G00 Z3.000000
G00 X101.882402 Y209.357896

G00 Z4.875000 (Fast pre-penetrate)
G01 Z-0.125000 F400.0(Penetrate)
G01 X100.087015 Y189.986642 Z-0.125000 F800.000000
G01 X91.304609 Y177.602409 Z-0.125000
G01 X99.580167 Y148.160211 Z-0.125000
G01 X102.709406 Y123.864331 Z-0.125000
G01 X98.335309 Y107.071788 Z-0.125000
G01 X99.100174 Y85.140284 Z-0.125000
G01 X105.013379 Y58.060439 Z-0.125000
G00 Z3.000000

(End cutting path id: path11632)


(Start cutting path id: path11630)
(Change tool to Default tool)

G00 Z3.000000
G00 X100.825059 Y209.356906

G00 Z4.875000 (Fast pre-penetrate)
G01 Z-0.125000 F400.0(Penetrate)
G01 X99.148296 Y189.867029 Z-0.125000 F800.000000
G01 X89.864222 Y177.984464 Z-0.125000
G01 X98.650951 Y148.031094 Z-0.125000
G01 X101.967105 Y123.548300 Z-0.125000
G01 X97.445273 Y106.903492 Z-0.125000
G01 X98.382349 Y84.799776 Z-0.125000
G01 X104.484110 Y57.531376 Z-0.125000
G00 Z3.000000

(End cutting path id: path11630)


(Start cutting path id: path11628)
(Change tool to Default tool)

G00 Z3.000000
G00 X99.767717 Y209.355917

G00 Z4.875000 (Fast pre-penetrate)
G01 Z-0.125000 F400.0(Penetrate)
G01 X98.209579 Y189.747414 Z-0.125000 F800.000000
G01 X88.423832 Y178.366522 Z-0.125000
G01 X97.721736 Y147.901977 Z-0.125000
G01 X101.224804 Y123.232269 Z-0.125000
G01 X96.555235 Y106.735199 Z-0.125000
G01 X97.664528 Y84.459266 Z-0.125000
G01 X103.954841 Y57.002313 Z-0.125000
G00 Z3.000000

(End cutting path id: path11628)


(Start cutting path id: path11626)
(Change tool to Default tool)

G00 Z3.000000
G00 X98.682561 Y209.382740

G00 Z4.875000 (Fast pre-penetrate)
G01 Z-0.125000 F400.0(Penetrate)
G01 X97.195218 Y189.703443 Z-0.125000 F800.000000
G01 X88.058948 Y177.673074 Z-0.125000
G01 X96.763242 Y147.802140 Z-0.125000
G01 X99.738726 Y123.660015 Z-0.125000
G01 X95.533878 Y106.698223 Z-0.125000
G01 X96.558267 Y84.507195 Z-0.125000
G01 X102.421688 Y57.477134 Z-0.125000
G00 Z3.000000

(End cutting path id: path11626)


(Start cutting path id: path11624)
(Change tool to Default tool)

G00 Z3.000000
G00 X97.597403 Y209.409566

G00 Z4.875000 (Fast pre-penetrate)
G01 Z-0.125000 F400.0(Penetrate)
G01 X96.180858 Y189.659472 Z-0.125000 F800.000000
G01 X87.694067 Y176.979623 Z-0.125000
G01 X95.804750 Y147.702299 Z-0.125000
G01 X98.252648 Y124.087761 Z-0.125000
G01 X94.512521 Y106.661248 Z-0.125000
G01 X95.452005 Y84.555124 Z-0.125000
G01 X100.888538 Y57.951952 Z-0.125000
G00 Z3.000000

(End cutting path id: path11624)


(Start cutting path id: path11622)
(Change tool to Default tool)

G00 Z3.000000
G00 X96.512248 Y209.436390

G00 Z4.875000 (Fast pre-penetrate)
G01 Z-0.125000 F400.0(Penetrate)
G01 X95.166497 Y189.615501 Z-0.125000 F800.000000
G01 X87.329183 Y176.286175 Z-0.125000
G01 X94.846259 Y147.602459 Z-0.125000
G01 X96.766570 Y124.515507 Z-0.125000
G01 X93.491162 Y106.624275 Z-0.125000
G01 X94.345742 Y84.603056 Z-0.125000
G01 X99.355388 Y58.426770 Z-0.125000
G00 Z3.000000

(End cutting path id: path11622)


(Start cutting path id: path11620)
(Change tool to Default tool)

G00 Z3.000000
G00 X95.427090 Y209.463216

G00 Z4.875000 (Fast pre-penetrate)
G01 Z-0.125000 F400.0(Penetrate)
G01 X94.152138 Y189.571527 Z-0.125000 F800.000000
G01 X86.964299 Y175.592726 Z-0.125000
G01 X93.887764 Y147.502621 Z-0.125000
G01 X95.280492 Y124.943253 Z-0.125000
G01 X92.469806 Y106.587300 Z-0.125000
G01 X93.239480 Y84.650985 Z-0.125000
G01 X97.822238 Y58.901588 Z-0.125000
G00 Z3.000000

(End cutting path id: path11620)


(Start cutting path id: path11618)
(Change tool to Default tool)

G00 Z3.000000
G00 X94.341934 Y209.490039

G00 Z4.875000 (Fast pre-penetrate)
G01 Z-0.125000 F400.0(Penetrate)
G01 X93.137777 Y189.527556 Z-0.125000 F800.000000
G01 X86.599415 Y174.899278 Z-0.125000
G01 X92.929273 Y147.402781 Z-0.125000
G01 X93.794414 Y125.370999 Z-0.125000
G01 X91.448449 Y106.550324 Z-0.125000
G01 X92.133219 Y84.698914 Z-0.125000
G01 X96.289085 Y59.376408 Z-0.125000
G00 Z3.000000

(End cutting path id: path11618)


(Start cutting path id: path11616)
(Change tool to Default tool)

G00 Z3.000000
G00 X93.256776 Y209.516865

G00 Z4.875000 (Fast pre-penetrate)
G01 Z-0.125000 F400.0(Penetrate)
G01 X92.123416 Y189.483585 Z-0.125000 F800.000000
G01 X86.234532 Y174.205830 Z-0.125000
G01 X91.970781 Y147.302940 Z-0.125000
G01 X92.308336 Y125.798745 Z-0.125000
G01 X90.427093 Y106.513349 Z-0.125000
G01 X91.026958 Y84.746844 Z-0.125000
G01 X94.755935 Y59.851226 Z-0.125000
G00 Z3.000000

(End cutting path id: path11616)


(Start cutting path id: path11614)
(Change tool to Default tool)

G00 Z3.000000
G00 X92.171618 Y209.543691

G00 Z4.875000 (Fast pre-penetrate)
G01 Z-0.125000 F400.0(Penetrate)
G01 X91.109055 Y189.439614 Z-0.125000 F800.000000
G01 X85.869648 Y173.512382 Z-0.125000
G01 X91.012287 Y147.203103 Z-0.125000
G01 X90.822258 Y126.226491 Z-0.125000
G01 X89.405734 Y106.476376 Z-0.125000
G01 X89.920694 Y84.794775 Z-0.125000
G01 X93.222785 Y60.326044 Z-0.125000
G00 Z3.000000

(End cutting path id: path11614)


(Start cutting path id: path11612)
(Change tool to Default tool)

G00 Z3.000000
G00 X91.086463 Y209.570515

G00 Z4.875000 (Fast pre-penetrate)
G01 Z-0.125000 F400.0(Penetrate)
G01 X90.094694 Y189.395643 Z-0.125000 F800.000000
G01 X85.504764 Y172.818933 Z-0.125000
G01 X90.053795 Y147.103262 Z-0.125000
G01 X89.336177 Y126.654240 Z-0.125000
G01 X88.384377 Y106.439400 Z-0.125000
G01 X88.814433 Y84.842705 Z-0.125000
G01 X91.689635 Y60.800862 Z-0.125000
G00 Z3.000000

(End cutting path id: path11612)


(Start cutting path id: path11610)
(Change tool to Default tool)

G00 Z3.000000
G00 X90.001305 Y209.597341

G00 Z4.875000 (Fast pre-penetrate)
G01 Z-0.125000 F400.0(Penetrate)
G01 X89.080334 Y189.351672 Z-0.125000 F800.000000
G01 X85.139880 Y172.125485 Z-0.125000
G01 X89.095301 Y147.003425 Z-0.125000
G01 X87.850099 Y127.081986 Z-0.125000
G01 X87.363021 Y106.402425 Z-0.125000
G01 X87.708172 Y84.890634 Z-0.125000
G01 X90.156485 Y61.275680 Z-0.125000
G00 Z3.000000

(End cutting path id: path11610)


(Start cutting path id: path11608)
(Change tool to Default tool)

G00 Z3.000000
G00 X88.916149 Y209.624164

G00 Z4.875000 (Fast pre-penetrate)
G01 Z-0.125000 F400.0(Penetrate)
G01 X88.065975 Y189.307698 Z-0.125000 F800.000000
G01 X84.774997 Y171.432037 Z-0.125000
G01 X88.136809 Y146.903584 Z-0.125000
G01 X86.364021 Y127.509732 Z-0.125000
G01 X86.341664 Y106.365452 Z-0.125000
G01 X86.601913 Y84.938563 Z-0.125000
G01 X88.623335 Y61.750501 Z-0.125000
G00 Z3.000000

(End cutting path id: path11608)


(Start cutting path id: path11606)
(Change tool to Default tool)

G00 Z3.000000
G00 X87.830991 Y209.650990

G00 Z4.875000 (Fast pre-penetrate)
G01 Z-0.125000 F400.0(Penetrate)
G01 X87.051614 Y189.263727 Z-0.125000 F800.000000
G01 X84.410115 Y170.738586 Z-0.125000
G01 X87.178318 Y146.803744 Z-0.125000
G01 X84.877943 Y127.937478 Z-0.125000
G01 X85.320305 Y106.328477 Z-0.125000
G01 X85.495647 Y84.986495 Z-0.125000
G01 X87.090183 Y62.225319 Z-0.125000
G00 Z3.000000

(End cutting path id: path11606)


(Start cutting path id: path11604)
(Change tool to Default tool)

G00 Z3.000000
G00 X86.745836 Y209.677814

G00 Z4.875000 (Fast pre-penetrate)
G01 Z-0.125000 F400.0(Penetrate)
G01 X86.037253 Y189.219756 Z-0.125000 F800.000000
G01 X84.045232 Y170.045138 Z-0.125000
G01 X86.219824 Y146.703906 Z-0.125000
G01 X83.391865 Y128.365224 Z-0.125000
G01 X84.298948 Y106.291501 Z-0.125000
G01 X84.389385 Y85.034424 Z-0.125000
G01 X85.557033 Y62.700137 Z-0.125000
G00 Z3.000000

(End cutting path id: path11604)


(Start cutting path id: path11602)
(Change tool to Default tool)

G00 Z3.000000
G00 X85.660678 Y209.704640

G00 Z4.875000 (Fast pre-penetrate)
G01 Z-0.125000 F400.0(Penetrate)
G01 X85.022892 Y189.175785 Z-0.125000 F800.000000
G01 X83.680348 Y169.351690 Z-0.125000
G01 X85.261332 Y146.604066 Z-0.125000
G01 X81.905787 Y128.792970 Z-0.125000
G01 X83.277589 Y106.254528 Z-0.125000
G01 X83.283119 Y85.082353 Z-0.125000
G01 X84.023877 Y63.174955 Z-0.125000
G00 Z3.000000

(End cutting path id: path11602)


(Start cutting path id: path11600)
(Change tool to Default tool)

G00 Z3.000000
G00 X84.575522 Y209.731463

G00 Z4.875000 (Fast pre-penetrate)
G01 Z-0.125000 F400.0(Penetrate)
G01 X84.008531 Y189.131814 Z-0.125000 F800.000000
G01 X83.315464 Y168.658241 Z-0.125000
G01 X84.302840 Y146.504225 Z-0.125000
G01 X80.419709 Y129.220716 Z-0.125000
G01 X82.256233 Y106.217553 Z-0.125000
G01 X82.176863 Y85.130283 Z-0.125000
G01 X82.490733 Y63.649773 Z-0.125000
G00 Z3.000000

(End cutting path id: path11600)


(Start cutting path id: path11598)
(Change tool to Default tool)

G00 Z3.000000
G00 X83.490364 Y209.758289

G00 Z4.875000 (Fast pre-penetrate)
G01 Z-0.125000 F400.0(Penetrate)
G01 X82.994173 Y189.087840 Z-0.125000 F800.000000
G01 X82.950580 Y167.964793 Z-0.125000
G01 X83.344346 Y146.404387 Z-0.125000
G01 X78.933631 Y129.648462 Z-0.125000
G01 X81.234876 Y106.180577 Z-0.125000
G01 X81.070599 Y85.178214 Z-0.125000
G01 X80.957580 Y64.124594 Z-0.125000
G00 Z3.000000

(End cutting path id: path11598)


(Start cutting path id: path11572)
(Change tool to Default tool)

G00 Z3.000000
G00 X70.179069 Y209.311268

G00 Z4.875000 (Fast pre-penetrate)
G01 Z-0.125000 F400.0(Penetrate)
G01 X67.442257 Y190.881441 Z-0.125000 F800.000000
G01 X67.504720 Y169.652338 Z-0.125000
G01 X70.761361 Y145.229057 Z-0.125000
G01 X65.115940 Y129.707838 Z-0.125000
G01 X69.471058 Y104.186079 Z-0.125000
G01 X65.418501 Y87.071996 Z-0.125000
G01 X68.150509 Y63.173349 Z-0.125000
G00 Z3.000000

(End cutting path id: path11572)


(Start cutting path id: path11548)
(Change tool to Default tool)

G00 Z3.000000
G00 X58.350804 Y208.439549

G00 Z4.875000 (Fast pre-penetrate)
G01 Z-0.125000 F400.0(Penetrate)
G01 X51.722087 Y193.901626 Z-0.125000 F800.000000
G01 X47.072554 Y177.384519 Z-0.125000
G01 X59.075576 Y144.214857 Z-0.125000
G01 X55.534993 Y126.588801 Z-0.125000
G01 X59.485513 Y101.471640 Z-0.125000
G01 X50.237319 Y89.553195 Z-0.125000
G01 X60.438525 Y58.185348 Z-0.125000
G00 Z3.000000

(End cutting path id: path11548)


(Start cutting path id: path11550)
(Change tool to Default tool)

G00 Z3.000000
G00 X59.336492 Y208.512193

G00 Z4.875000 (Fast pre-penetrate)
G01 Z-0.125000 F400.0(Penetrate)
G01 X53.032101 Y193.649945 Z-0.125000 F800.000000
G01 X48.775236 Y176.740170 Z-0.125000
G01 X60.049392 Y144.299373 Z-0.125000
G01 X56.333404 Y126.848722 Z-0.125000
G01 X60.317643 Y101.697843 Z-0.125000
G01 X51.502417 Y89.346428 Z-0.125000
G01 X61.081192 Y58.601013 Z-0.125000
G00 Z3.000000

(End cutting path id: path11550)


(Start cutting path id: path11552)
(Change tool to Default tool)

G00 Z3.000000
G00 X60.322180 Y208.584837

G00 Z4.875000 (Fast pre-penetrate)
G01 Z-0.125000 F400.0(Penetrate)
G01 X54.342115 Y193.398263 Z-0.125000 F800.000000
G01 X50.477915 Y176.095823 Z-0.125000
G01 X61.023206 Y144.383891 Z-0.125000
G01 X57.131817 Y127.108640 Z-0.125000
G01 X61.149772 Y101.924046 Z-0.125000
G01 X52.767518 Y89.139660 Z-0.125000
G01 X61.723856 Y59.016681 Z-0.125000
G00 Z3.000000

(End cutting path id: path11552)


(Start cutting path id: path11554)
(Change tool to Default tool)

G00 Z3.000000
G00 X61.307871 Y208.657479

G00 Z4.875000 (Fast pre-penetrate)
G01 Z-0.125000 F400.0(Penetrate)
G01 X55.652129 Y193.146581 Z-0.125000 F800.000000
G01 X52.180596 Y175.451473 Z-0.125000
G01 X61.997022 Y144.468407 Z-0.125000
G01 X57.930228 Y127.368561 Z-0.125000
G01 X61.981899 Y102.150251 Z-0.125000
G01 X54.032616 Y88.932893 Z-0.125000
G01 X62.366523 Y59.432346 Z-0.125000
G00 Z3.000000

(End cutting path id: path11554)


(Start cutting path id: path11546)
(Change tool to Default tool)

G00 Z3.000000
G00 X57.127981 Y208.604041

G00 Z4.875000 (Fast pre-penetrate)
G01 Z-0.125000 F400.0(Penetrate)
G01 X51.045908 Y193.519473 Z-0.125000 F800.000000
G01 X46.445077 Y176.953665 Z-0.125000
G01 X57.735889 Y144.496212 Z-0.125000
G01 X54.302171 Y126.763291 Z-0.125000
G01 X58.070817 Y101.828005 Z-0.125000
G01 X49.350167 Y89.382015 Z-0.125000
G01 X59.348118 Y58.217424 Z-0.125000
G00 Z3.000000

(End cutting path id: path11546)


(Start cutting path id: path11556)
(Change tool to Default tool)

G00 Z3.000000
G00 X62.293559 Y208.730122

G00 Z4.875000 (Fast pre-penetrate)
G01 Z-0.125000 F400.0(Penetrate)
G01 X56.962143 Y192.894899 Z-0.125000 F800.000000
G01 X53.883275 Y174.807126 Z-0.125000
G01 X62.970839 Y144.552923 Z-0.125000
G01 X58.728642 Y127.628480 Z-0.125000
G01 X62.814028 Y102.376453 Z-0.125000
G01 X55.297715 Y88.726127 Z-0.125000
G01 X63.009187 Y59.848014 Z-0.125000
G00 Z3.000000

(End cutting path id: path11556)


(Start cutting path id: path11558)
(Change tool to Default tool)

G00 Z3.000000
G00 X63.279247 Y208.802766

G00 Z4.875000 (Fast pre-penetrate)
G01 Z-0.125000 F400.0(Penetrate)
G01 X58.272159 Y192.643214 Z-0.125000 F800.000000
G01 X55.585957 Y174.162777 Z-0.125000
G01 X63.944652 Y144.637441 Z-0.125000
G01 X59.527053 Y127.888401 Z-0.125000
G01 X63.646158 Y102.602656 Z-0.125000
G01 X56.562813 Y88.519361 Z-0.125000
G01 X63.651851 Y60.263682 Z-0.125000
G00 Z3.000000

(End cutting path id: path11558)


(Start cutting path id: path11560)
(Change tool to Default tool)

G00 Z3.000000
G00 X64.264935 Y208.875410

G00 Z4.875000 (Fast pre-penetrate)
G01 Z-0.125000 F400.0(Penetrate)
G01 X59.582173 Y192.391532 Z-0.125000 F800.000000
G01 X57.288638 Y173.518427 Z-0.125000
G01 X64.918468 Y144.721957 Z-0.125000
G01 X60.325466 Y128.148319 Z-0.125000
G01 X64.478287 Y102.828859 Z-0.125000
G01 X57.827911 Y88.312594 Z-0.125000
G01 X64.294518 Y60.679347 Z-0.125000
G00 Z3.000000

(End cutting path id: path11560)


(Start cutting path id: path11562)
(Change tool to Default tool)

G00 Z3.000000
G00 X65.250626 Y208.948052

G00 Z4.875000 (Fast pre-penetrate)
G01 Z-0.125000 F400.0(Penetrate)
G01 X60.892187 Y192.139850 Z-0.125000 F800.000000
G01 X58.991317 Y172.874080 Z-0.125000
G01 X65.892285 Y144.806473 Z-0.125000
G01 X61.123877 Y128.408240 Z-0.125000
G01 X65.310414 Y103.055064 Z-0.125000
G01 X59.093010 Y88.105828 Z-0.125000
G01 X64.937182 Y61.095015 Z-0.125000
G00 Z3.000000

(End cutting path id: path11562)


(Start cutting path id: path11564)
(Change tool to Default tool)

G00 Z3.000000
G00 X66.236314 Y209.020695

G00 Z4.875000 (Fast pre-penetrate)
G01 Z-0.125000 F400.0(Penetrate)
G01 X62.202201 Y191.888168 Z-0.125000 F800.000000
G01 X60.693999 Y172.229731 Z-0.125000
G01 X66.866098 Y144.890991 Z-0.125000
G01 X61.922291 Y128.668159 Z-0.125000
G01 X66.142543 Y103.281266 Z-0.125000
G01 X60.358108 Y87.899062 Z-0.125000
G01 X65.579847 Y61.510683 Z-0.125000
G00 Z3.000000

(End cutting path id: path11564)


(Start cutting path id: path11544)
(Change tool to Default tool)

G00 Z3.000000
G00 X55.905160 Y208.768529

G00 Z4.875000 (Fast pre-penetrate)
G01 Z-0.125000 F400.0(Penetrate)
G01 X50.369727 Y193.137323 Z-0.125000 F800.000000
G01 X45.817600 Y176.522810 Z-0.125000
G01 X56.396205 Y144.777564 Z-0.125000
G01 X53.069352 Y126.937778 Z-0.125000
G01 X56.656123 Y102.184366 Z-0.125000
G01 X48.463014 Y89.210835 Z-0.125000
G01 X58.257708 Y58.249502 Z-0.125000
G00 Z3.000000

(End cutting path id: path11544)


(Start cutting path id: path11542)
(Change tool to Default tool)

G00 Z3.000000
G00 X54.682340 Y208.933018

G00 Z4.875000 (Fast pre-penetrate)
G01 Z-0.125000 F400.0(Penetrate)
G01 X49.693548 Y192.755170 Z-0.125000 F800.000000
G01 X45.190123 Y176.091955 Z-0.125000
G01 X55.056518 Y145.058919 Z-0.125000
G01 X51.836530 Y127.112268 Z-0.125000
G01 X55.241427 Y102.540730 Z-0.125000
G01 X47.575862 Y89.039655 Z-0.125000
G01 X57.167300 Y58.281577 Z-0.125000
G00 Z3.000000

(End cutting path id: path11542)


(Start cutting path id: path11540)
(Change tool to Default tool)

G00 Z3.000000
G00 X53.459519 Y209.097507

G00 Z4.875000 (Fast pre-penetrate)
G01 Z-0.125000 F400.0(Penetrate)
G01 X49.017369 Y192.373017 Z-0.125000 F800.000000
G01 X44.562646 Y175.661100 Z-0.125000
G01 X53.716831 Y145.340274 Z-0.125000
G01 X50.603711 Y127.286755 Z-0.125000
G01 X53.826731 Y102.897094 Z-0.125000
G01 X46.688708 Y88.868478 Z-0.125000
G01 X56.076890 Y58.313655 Z-0.125000
G00 Z3.000000

(End cutting path id: path11540)


(Start cutting path id: path11538)
(Change tool to Default tool)

G00 Z3.000000
G00 X52.236696 Y209.261998

G00 Z4.875000 (Fast pre-penetrate)
G01 Z-0.125000 F400.0(Penetrate)
G01 X48.341187 Y191.990866 Z-0.125000 F800.000000
G01 X43.935169 Y175.230245 Z-0.125000
G01 X52.377147 Y145.621627 Z-0.125000
G01 X49.370889 Y127.461245 Z-0.125000
G01 X52.412035 Y103.253459 Z-0.125000
G01 X45.801556 Y88.697298 Z-0.125000
G01 X54.986480 Y58.345733 Z-0.125000
G00 Z3.000000

(End cutting path id: path11538)


(Start cutting path id: path11536)
(Change tool to Default tool)

G00 Z3.000000
G00 X51.013875 Y209.426486

G00 Z4.875000 (Fast pre-penetrate)
G01 Z-0.125000 F400.0(Penetrate)
G01 X47.665008 Y191.608713 Z-0.125000 F800.000000
G01 X43.307689 Y174.799393 Z-0.125000
G01 X51.037460 Y145.902981 Z-0.125000
G01 X48.138070 Y127.635732 Z-0.125000
G01 X50.997339 Y103.609823 Z-0.125000
G01 X44.914403 Y88.526118 Z-0.125000
G01 X53.896073 Y58.377809 Z-0.125000
G00 Z3.000000

(End cutting path id: path11536)


(Start cutting path id: path11534)
(Change tool to Default tool)

G00 Z3.000000
G00 X49.791054 Y209.590975

G00 Z4.875000 (Fast pre-penetrate)
G01 Z-0.125000 F400.0(Penetrate)
G01 X46.988829 Y191.226560 Z-0.125000 F800.000000
G01 X42.680212 Y174.368538 Z-0.125000
G01 X49.697773 Y146.184336 Z-0.125000
G01 X46.905248 Y127.810222 Z-0.125000
G01 X49.582642 Y103.966187 Z-0.125000
G01 X44.027251 Y88.354938 Z-0.125000
G01 X52.805663 Y58.409887 Z-0.125000
G00 Z3.000000

(End cutting path id: path11534)


(Start cutting path id: path11566)
(Change tool to Default tool)

G00 Z3.000000
G00 X67.222002 Y209.093339

G00 Z4.875000 (Fast pre-penetrate)
G01 Z-0.125000 F400.0(Penetrate)
G01 X63.512215 Y191.636486 Z-0.125000 F800.000000
G01 X62.396678 Y171.585384 Z-0.125000
G01 X67.839915 Y144.975507 Z-0.125000
G01 X62.720702 Y128.928080 Z-0.125000
G01 X66.974673 Y103.507469 Z-0.125000
G01 X61.623206 Y87.692295 Z-0.125000
G01 X66.222513 Y61.926348 Z-0.125000
G00 Z3.000000

(End cutting path id: path11566)


(Start cutting path id: path11568)
(Change tool to Default tool)

G00 Z3.000000
G00 X68.207693 Y209.165981

G00 Z4.875000 (Fast pre-penetrate)
G01 Z-0.125000 F400.0(Penetrate)
G01 X64.822229 Y191.384804 Z-0.125000 F800.000000
G01 X64.099359 Y170.941034 Z-0.125000
G01 X68.813731 Y145.060023 Z-0.125000
G01 X63.519115 Y129.187998 Z-0.125000
G01 X67.806802 Y103.733672 Z-0.125000
G01 X62.888305 Y87.485529 Z-0.125000
G01 X66.865178 Y62.342016 Z-0.125000
G00 Z3.000000

(End cutting path id: path11568)


(Start cutting path id: path11570)
(Change tool to Default tool)

G00 Z3.000000
G00 X69.193381 Y209.238625

G00 Z4.875000 (Fast pre-penetrate)
G01 Z-0.125000 F400.0(Penetrate)
G01 X66.132243 Y191.133123 Z-0.125000 F800.000000
G01 X65.802038 Y170.296687 Z-0.125000
G01 X69.787544 Y145.144541 Z-0.125000
G01 X64.317529 Y129.447916 Z-0.125000
G01 X68.638931 Y103.959874 Z-0.125000
G01 X64.153403 Y87.278763 Z-0.125000
G01 X67.507842 Y62.757684 Z-0.125000
G00 Z3.000000

(End cutting path id: path11570)


(Start cutting path id: path11574)
(Change tool to Default tool)

G00 Z3.000000
G00 X71.164760 Y209.383910

G00 Z4.875000 (Fast pre-penetrate)
G01 Z-0.125000 F400.0(Penetrate)
G01 X68.752271 Y190.629759 Z-0.125000 F800.000000
G01 X69.207401 Y169.007988 Z-0.125000
G01 X71.735177 Y145.313573 Z-0.125000
G01 X65.914354 Y129.967756 Z-0.125000
G01 X70.303188 Y104.412282 Z-0.125000
G01 X66.683602 Y86.865227 Z-0.125000
G01 X68.793173 Y63.589017 Z-0.125000
G00 Z3.000000

(End cutting path id: path11574)


(Start cutting path id: path11576)
(Change tool to Default tool)

G00 Z3.000000
G00 X72.150448 Y209.456554

G00 Z4.875000 (Fast pre-penetrate)
G01 Z-0.125000 F400.0(Penetrate)
G01 X70.062285 Y190.378077 Z-0.125000 F800.000000
G01 X70.910080 Y168.363641 Z-0.125000
G01 X72.708993 Y145.398088 Z-0.125000
G01 X66.712765 Y130.227677 Z-0.125000
G01 X71.135317 Y104.638485 Z-0.125000
G01 X67.948700 Y86.658461 Z-0.125000
G01 X69.435837 Y64.004685 Z-0.125000
G00 Z3.000000

(End cutting path id: path11576)


(Start cutting path id: path11578)
(Change tool to Default tool)

G00 Z3.000000
G00 X73.136136 Y209.529198

G00 Z4.875000 (Fast pre-penetrate)
G01 Z-0.125000 F400.0(Penetrate)
G01 X71.372299 Y190.126395 Z-0.125000 F800.000000
G01 X72.612762 Y167.719292 Z-0.125000
G01 X73.682807 Y145.482607 Z-0.125000
G01 X67.511178 Y130.487595 Z-0.125000
G01 X71.967446 Y104.864687 Z-0.125000
G01 X69.213799 Y86.451695 Z-0.125000
G01 X70.078504 Y64.420350 Z-0.125000
G00 Z3.000000

(End cutting path id: path11578)


(Start cutting path id: path11580)
(Change tool to Default tool)

G00 Z3.000000
G00 X74.121827 Y209.601839

G00 Z4.875000 (Fast pre-penetrate)
G01 Z-0.125000 F400.0(Penetrate)
G01 X72.682313 Y189.874713 Z-0.125000 F800.000000
G01 X74.315441 Y167.074945 Z-0.125000
G01 X74.656623 Y145.567122 Z-0.125000
G01 X68.309589 Y130.747516 Z-0.125000
G01 X72.799573 Y105.090892 Z-0.125000
G01 X70.478897 Y86.244928 Z-0.125000
G01 X70.721168 Y64.836018 Z-0.125000
G00 Z3.000000

(End cutting path id: path11580)


(Start cutting path id: path11582)
(Change tool to Default tool)

G00 Z3.000000
G00 X75.107515 Y209.674483

G00 Z4.875000 (Fast pre-penetrate)
G01 Z-0.125000 F400.0(Penetrate)
G01 X73.992327 Y189.623031 Z-0.125000 F800.000000
G01 X76.018122 Y166.430595 Z-0.125000
G01 X75.630439 Y145.651638 Z-0.125000
G01 X69.108003 Y131.007435 Z-0.125000
G01 X73.631703 Y105.317095 Z-0.125000
G01 X71.743995 Y86.038162 Z-0.125000
G01 X71.363832 Y65.251685 Z-0.125000
G00 Z3.000000

(End cutting path id: path11582)


(Start cutting path id: path11584)
(Change tool to Default tool)

G00 Z3.000000
G00 X76.093203 Y209.747127

G00 Z4.875000 (Fast pre-penetrate)
G01 Z-0.125000 F400.0(Penetrate)
G01 X75.302343 Y189.371346 Z-0.125000 F800.000000
G01 X77.720801 Y165.786248 Z-0.125000
G01 X76.604253 Y145.736157 Z-0.125000
G01 X69.906414 Y131.267356 Z-0.125000
G01 X74.463832 Y105.543298 Z-0.125000
G01 X73.009094 Y85.831396 Z-0.125000
G01 X72.006499 Y65.667351 Z-0.125000
G00 Z3.000000

(End cutting path id: path11584)


(Start cutting path id: path11586)
(Change tool to Default tool)

G00 Z3.000000
G00 X77.078891 Y209.819771

G00 Z4.875000 (Fast pre-penetrate)
G01 Z-0.125000 F400.0(Penetrate)
G01 X76.612357 Y189.119664 Z-0.125000 F800.000000
G01 X79.423483 Y165.141899 Z-0.125000
G01 X77.578069 Y145.820672 Z-0.125000
G01 X70.704827 Y131.527274 Z-0.125000
G01 X75.295961 Y105.769500 Z-0.125000
G01 X74.274192 Y85.624629 Z-0.125000
G01 X72.649163 Y66.083018 Z-0.125000
G00 Z3.000000

(End cutting path id: path11586)


(Start cutting path id: path11588)
(Change tool to Default tool)

G00 Z3.000000
G00 X78.064582 Y209.892412

G00 Z4.875000 (Fast pre-penetrate)
G01 Z-0.125000 F400.0(Penetrate)
G01 X77.922371 Y188.867983 Z-0.125000 F800.000000
G01 X81.126164 Y164.497549 Z-0.125000
G01 X78.551885 Y145.905188 Z-0.125000
G01 X71.503238 Y131.787195 Z-0.125000
G01 X76.128088 Y105.995705 Z-0.125000
G01 X75.539290 Y85.417863 Z-0.125000
G01 X73.291827 Y66.498686 Z-0.125000
G00 Z3.000000

(End cutting path id: path11588)


(Start cutting path id: path11590)
(Change tool to Default tool)

G00 Z3.000000
G00 X79.149737 Y209.865588

G00 Z4.875000 (Fast pre-penetrate)
G01 Z-0.125000 F400.0(Penetrate)
G01 X78.936729 Y188.911956 Z-0.125000 F800.000000
G01 X81.491045 Y165.191000 Z-0.125000
G01 X79.510377 Y146.005029 Z-0.125000
G01 X72.989316 Y131.359449 Z-0.125000
G01 X77.149447 Y106.032678 Z-0.125000
G01 X76.645552 Y85.369934 Z-0.125000
G01 X74.824980 Y66.023866 Z-0.125000
G00 Z3.000000

(End cutting path id: path11590)


(Start cutting path id: path11592)
(Change tool to Default tool)

G00 Z3.000000
G00 X80.234895 Y209.838762

G00 Z4.875000 (Fast pre-penetrate)
G01 Z-0.125000 F400.0(Penetrate)
G01 X79.951090 Y188.955927 Z-0.125000 F800.000000
G01 X81.855929 Y165.884448 Z-0.125000
G01 X80.468869 Y146.104869 Z-0.125000
G01 X74.475394 Y130.931703 Z-0.125000
G01 X78.170804 Y106.069654 Z-0.125000
G01 X77.751815 Y85.322002 Z-0.125000
G01 X76.358130 Y65.549048 Z-0.125000
G00 Z3.000000

(End cutting path id: path11592)


(Start cutting path id: path11594)
(Change tool to Default tool)

G00 Z3.000000
G00 X81.320051 Y209.811939

G00 Z4.875000 (Fast pre-penetrate)
G01 Z-0.125000 F400.0(Penetrate)
G01 X80.965451 Y188.999898 Z-0.125000 F800.000000
G01 X82.220813 Y166.577897 Z-0.125000
G01 X81.427363 Y146.204707 Z-0.125000
G01 X75.961472 Y130.503957 Z-0.125000
G01 X79.192160 Y106.106629 Z-0.125000
G01 X78.858077 Y85.274073 Z-0.125000
G01 X77.891280 Y65.074230 Z-0.125000
G00 Z3.000000

(End cutting path id: path11594)


(Start cutting path id: path11596)
(Change tool to Default tool)

G00 Z3.000000
G00 X82.405209 Y209.785113

G00 Z4.875000 (Fast pre-penetrate)
G01 Z-0.125000 F400.0(Penetrate)
G01 X81.979812 Y189.043869 Z-0.125000 F800.000000
G01 X82.585697 Y167.271345 Z-0.125000
G01 X82.385854 Y146.304547 Z-0.125000
G01 X77.447550 Y130.076211 Z-0.125000
G01 X80.213520 Y106.143602 Z-0.125000
G01 X79.964338 Y85.226144 Z-0.125000
G01 X79.424430 Y64.599412 Z-0.125000
G00 Z3.000000

(End cutting path id: path11596)


(Start cutting path id: path11650)
(Change tool to Default tool)

G00 Z3.000000
G00 X111.398481 Y209.366804

G00 Z4.875000 (Fast pre-penetrate)
G01 Z-0.125000 F400.0(Penetrate)
G01 X108.535479 Y191.063167 Z-0.125000 F800.000000
G01 X104.268096 Y174.163909 Z-0.125000
G01 X107.943112 Y149.322254 Z-0.125000
G01 X109.390116 Y126.708609 Z-0.125000
G01 X106.345644 Y108.586441 Z-0.125000
G01 X105.560574 Y88.204872 Z-0.125000
G01 X109.776802 Y62.822004 Z-0.125000
G00 Z3.000000

(End cutting path id: path11650)


(Start cutting path id: path11654)
(Change tool to Default tool)

G00 Z3.000000
G00 X113.513163 Y209.368786

G00 Z4.875000 (Fast pre-penetrate)
G01 Z-0.125000 F400.0(Penetrate)
G01 X110.412915 Y191.302395 Z-0.125000 F800.000000
G01 X107.148873 Y173.399796 Z-0.125000
G01 X109.801543 Y149.580487 Z-0.125000
G01 X110.874718 Y127.340672 Z-0.125000
G01 X108.125719 Y108.923031 Z-0.125000
G01 X106.996217 Y88.885893 Z-0.125000
G01 X110.835340 Y63.880130 Z-0.125000
G00 Z3.000000

(End cutting path id: path11654)


(Start cutting path id: path11656)
(Change tool to Default tool)

G00 Z3.000000
G00 X114.570506 Y209.369776

G00 Z4.875000 (Fast pre-penetrate)
G01 Z-0.125000 F400.0(Penetrate)
G01 X111.351631 Y191.422010 Z-0.125000 F800.000000
G01 X108.589260 Y173.017741 Z-0.125000
G01 X110.730758 Y149.709603 Z-0.125000
G01 X111.617019 Y127.656703 Z-0.125000
G01 X109.015755 Y109.091326 Z-0.125000
G01 X107.714041 Y89.226400 Z-0.125000
G01 X111.364609 Y64.409192 Z-0.125000
G00 Z3.000000

(End cutting path id: path11656)


(Start cutting path id: path11658)
(Change tool to Default tool)

G00 Z3.000000
G00 X115.627848 Y209.370765

G00 Z4.875000 (Fast pre-penetrate)
G01 Z-0.125000 F400.0(Penetrate)
G01 X112.290351 Y191.541623 Z-0.125000 F800.000000
G01 X110.029648 Y172.635686 Z-0.125000
G01 X111.659976 Y149.838717 Z-0.125000
G01 X112.359320 Y127.972734 Z-0.125000
G01 X109.905794 Y109.259620 Z-0.125000
G01 X108.431863 Y89.566911 Z-0.125000
G01 X111.893878 Y64.938255 Z-0.125000
G00 Z3.000000

(End cutting path id: path11658)


(Start cutting path id: path11662)
(Change tool to Default tool)

G00 Z3.000000
G00 X117.742533 Y209.372744

G00 Z4.875000 (Fast pre-penetrate)
G01 Z-0.125000 F400.0(Penetrate)
G01 X114.167787 Y191.780851 Z-0.125000 F800.000000
G01 X112.910422 Y171.871575 Z-0.125000
G01 X113.518407 Y150.096950 Z-0.125000
G01 X113.843921 Y128.604796 Z-0.125000
G01 X111.685868 Y109.596209 Z-0.125000
G01 X109.867506 Y90.247932 Z-0.125000
G01 X112.952417 Y65.996381 Z-0.125000
G00 Z3.000000

(End cutting path id: path11662)


(Start cutting path id: path11664)
(Change tool to Default tool)

G00 Z3.000000
G00 X118.799876 Y209.373734

G00 Z4.875000 (Fast pre-penetrate)
G01 Z-0.125000 F400.0(Penetrate)
G01 X115.106503 Y191.900466 Z-0.125000 F800.000000
G01 X114.350812 Y171.489518 Z-0.125000
G01 X114.447623 Y150.226067 Z-0.125000
G01 X114.586222 Y128.920827 Z-0.125000
G01 X112.575905 Y109.764505 Z-0.125000
G01 X110.585330 Y90.588439 Z-0.125000
G01 X113.481686 Y66.525444 Z-0.125000
G00 Z3.000000

(End cutting path id: path11664)


(Start cutting path id: path11666)
(Change tool to Default tool)

G00 Z3.000000
G00 X119.857215 Y209.374726

G00 Z4.875000 (Fast pre-penetrate)
G01 Z-0.125000 F400.0(Penetrate)
G01 X116.045223 Y192.020079 Z-0.125000 F800.000000
G01 X115.791199 Y171.107462 Z-0.125000
G01 X115.376838 Y150.355183 Z-0.125000
G01 X115.328523 Y129.236859 Z-0.125000
G01 X113.465941 Y109.932801 Z-0.125000
G01 X111.303152 Y90.928950 Z-0.125000
G01 X114.010955 Y67.054506 Z-0.125000
G00 Z3.000000

(End cutting path id: path11666)


(Start cutting path id: path11670)
(Change tool to Default tool)

G00 Z3.000000
G00 X122.085258 Y209.263347

G00 Z4.875000 (Fast pre-penetrate)
G01 Z-0.125000 F400.0(Penetrate)
G01 X118.039282 Y192.142684 Z-0.125000 F800.000000
G01 X118.614109 Y170.401216 Z-0.125000
G01 X117.503567 Y150.345118 Z-0.125000
G01 X116.973364 Y129.708682 Z-0.125000
G01 X115.613690 Y109.901715 Z-0.125000
G01 X113.343224 Y91.005541 Z-0.125000
G01 X115.456033 Y67.726092 Z-0.125000
G00 Z3.000000

(End cutting path id: path11670)


(Start cutting path id: path11668)
(Change tool to Default tool)

G00 Z3.000000
G00 X120.914558 Y209.375716

G00 Z4.875000 (Fast pre-penetrate)
G01 Z-0.125000 F400.0(Penetrate)
G01 X116.983939 Y192.139694 Z-0.125000 F800.000000
G01 X117.231586 Y170.725407 Z-0.125000
G01 X116.306057 Y150.484297 Z-0.125000
G01 X116.070824 Y129.552890 Z-0.125000
G01 X114.355979 Y110.101094 Z-0.125000
G01 X112.020973 Y91.269460 Z-0.125000
G01 X114.540224 Y67.583569 Z-0.125000
G00 Z3.000000

(End cutting path id: path11668)


(Start cutting path id: path11710)
(Change tool to Default tool)

G00 Z3.000000
G00 X145.039048 Y207.476198

G00 Z4.875000 (Fast pre-penetrate)
G01 Z-0.125000 F400.0(Penetrate)
G01 X139.044460 Y192.304146 Z-0.125000 F800.000000
G01 X145.714518 Y164.467448 Z-0.125000
G01 X140.970592 Y148.044733 Z-0.125000
G01 X135.648159 Y132.200527 Z-0.125000
G01 X140.157740 Y106.524305 Z-0.125000
G01 X139.687785 Y85.827620 Z-0.125000
G01 X134.456982 Y69.891783 Z-0.125000
G00 Z3.000000

(End cutting path id: path11710)


(Start cutting path id: path11712)
(Change tool to Default tool)

G00 Z3.000000
G00 X145.749570 Y207.824008

G00 Z4.875000 (Fast pre-penetrate)
G01 Z-0.125000 F400.0(Penetrate)
G01 X139.998133 Y192.408804 Z-0.125000 F800.000000
G01 X146.547012 Y164.693285 Z-0.125000
G01 X141.684911 Y148.388747 Z-0.125000
G01 X137.174683 Y131.732334 Z-0.125000
G01 X140.805268 Y106.935110 Z-0.125000
G01 X140.909569 Y85.664169 Z-0.125000
G01 X136.057548 Y69.349550 Z-0.125000
G00 Z3.000000

(End cutting path id: path11712)


(Start cutting path id: path11714)
(Change tool to Default tool)

G00 Z3.000000
G00 X146.460094 Y208.171815

G00 Z4.875000 (Fast pre-penetrate)
G01 Z-0.125000 F400.0(Penetrate)
G01 X140.951807 Y192.513463 Z-0.125000 F800.000000
G01 X147.379507 Y164.919123 Z-0.125000
G01 X142.399229 Y148.732760 Z-0.125000
G01 X138.701208 Y131.264141 Z-0.125000
G01 X141.452795 Y107.345915 Z-0.125000
G01 X142.131355 Y85.500715 Z-0.125000
G01 X137.658116 Y68.807313 Z-0.125000
G00 Z3.000000

(End cutting path id: path11714)


(Start cutting path id: path11716)
(Change tool to Default tool)

G00 Z3.000000
G00 X147.170616 Y208.519626

G00 Z4.875000 (Fast pre-penetrate)
G01 Z-0.125000 F400.0(Penetrate)
G01 X141.905483 Y192.618118 Z-0.125000 F800.000000
G01 X148.212001 Y165.144960 Z-0.125000
G01 X143.113548 Y149.076774 Z-0.125000
G01 X140.227730 Y130.795951 Z-0.125000
G01 X142.100319 Y107.756722 Z-0.125000
G01 X143.353141 Y85.337261 Z-0.125000
G01 X139.258685 Y68.265077 Z-0.125000
G00 Z3.000000

(End cutting path id: path11716)


(Start cutting path id: path11718)
(Change tool to Default tool)

G00 Z3.000000
G00 X147.881138 Y208.867436

G00 Z4.875000 (Fast pre-penetrate)
G01 Z-0.125000 F400.0(Penetrate)
G01 X142.859157 Y192.722777 Z-0.125000 F800.000000
G01 X149.044493 Y165.370800 Z-0.125000
G01 X143.827866 Y149.420787 Z-0.125000
G01 X141.754255 Y130.327758 Z-0.125000
G01 X142.747847 Y108.167527 Z-0.125000
G01 X144.574924 Y85.173809 Z-0.125000
G01 X140.859250 Y67.722843 Z-0.125000
G00 Z3.000000

(End cutting path id: path11718)


(Start cutting path id: path11720)
(Change tool to Default tool)

G00 Z3.000000
G00 X148.591662 Y209.215243

G00 Z4.875000 (Fast pre-penetrate)
G01 Z-0.125000 F400.0(Penetrate)
G01 X143.812830 Y192.827435 Z-0.125000 F800.000000
G01 X149.876988 Y165.596638 Z-0.125000
G01 X144.542185 Y149.764801 Z-0.125000
G01 X143.280778 Y129.859568 Z-0.125000
G01 X143.395374 Y108.578332 Z-0.125000
G01 X145.796711 Y85.010355 Z-0.125000
G01 X142.459819 Y67.180607 Z-0.125000
G00 Z3.000000

(End cutting path id: path11720)


(Start cutting path id: path11722)
(Change tool to Default tool)

G00 Z3.000000
G00 X149.302184 Y209.563054

G00 Z4.875000 (Fast pre-penetrate)
G01 Z-0.125000 F400.0(Penetrate)
G01 X144.766504 Y192.932094 Z-0.125000 F800.000000
G01 X150.709482 Y165.822475 Z-0.125000
G01 X145.256503 Y150.108814 Z-0.125000
G01 X144.807302 Y129.391375 Z-0.125000
G01 X144.042901 Y108.989137 Z-0.125000
G01 X147.018494 Y84.846904 Z-0.125000
G01 X144.060387 Y66.638370 Z-0.125000
G00 Z3.000000

(End cutting path id: path11722)


(Start cutting path id: path11724)
(Change tool to Default tool)

G00 Z3.000000
G00 X150.012706 Y209.910864

G00 Z4.875000 (Fast pre-penetrate)
G01 Z-0.125000 F400.0(Penetrate)
G01 X145.720180 Y193.036750 Z-0.125000 F800.000000
G01 X151.541977 Y166.048313 Z-0.125000
G01 X145.970819 Y150.452830 Z-0.125000
G01 X146.333827 Y128.923182 Z-0.125000
G01 X144.690425 Y109.399944 Z-0.125000
G01 X148.240280 Y84.683449 Z-0.125000
G01 X145.660956 Y66.096134 Z-0.125000
G00 Z3.000000

(End cutting path id: path11724)


(Start cutting path id: path11726)
(Change tool to Default tool)

G00 Z3.000000
G00 X150.723230 Y210.258671

G00 Z4.875000 (Fast pre-penetrate)
G01 Z-0.125000 F400.0(Penetrate)
G01 X146.673853 Y193.141408 Z-0.125000 F800.000000
G01 X152.374471 Y166.274150 Z-0.125000
G01 X146.685138 Y150.796844 Z-0.125000
G01 X147.860349 Y128.454992 Z-0.125000
G01 X145.337953 Y109.810749 Z-0.125000
G01 X149.462063 Y84.519998 Z-0.125000
G01 X147.261521 Y65.553900 Z-0.125000
G00 Z3.000000

(End cutting path id: path11726)


(Start cutting path id: path11728)
(Change tool to Default tool)

G00 Z3.000000
G00 X151.433752 Y210.606482

G00 Z4.875000 (Fast pre-penetrate)
G01 Z-0.125000 F400.0(Penetrate)
G01 X147.627527 Y193.246067 Z-0.125000 F800.000000
G01 X153.206966 Y166.499988 Z-0.125000
G01 X147.399456 Y151.140857 Z-0.125000
G01 X149.386874 Y127.986799 Z-0.125000
G01 X145.985480 Y110.221554 Z-0.125000
G01 X150.683850 Y84.356544 Z-0.125000
G01 X148.862090 Y65.011664 Z-0.125000
G00 Z3.000000

(End cutting path id: path11728)


(Start cutting path id: path11730)
(Change tool to Default tool)

G00 Z3.000000
G00 X152.144274 Y210.954292

G00 Z4.875000 (Fast pre-penetrate)
G01 Z-0.125000 F400.0(Penetrate)
G01 X148.581203 Y193.350722 Z-0.125000 F800.000000
G01 X154.039458 Y166.725828 Z-0.125000
G01 X148.113775 Y151.484871 Z-0.125000
G01 X150.913396 Y127.518609 Z-0.125000
G01 X146.633004 Y110.632361 Z-0.125000
G01 X151.905636 Y84.193090 Z-0.125000
G01 X150.462658 Y64.469427 Z-0.125000
G00 Z3.000000

(End cutting path id: path11730)


(Start cutting path id: path11732)
(Change tool to Default tool)

G00 Z3.000000
G00 X152.854798 Y211.302099

G00 Z4.875000 (Fast pre-penetrate)
G01 Z-0.125000 F400.0(Penetrate)
G01 X149.534877 Y193.455381 Z-0.125000 F800.000000
G01 X154.871952 Y166.951665 Z-0.125000
G01 X148.828094 Y151.828884 Z-0.125000
G01 X152.439921 Y127.050416 Z-0.125000
G01 X147.280532 Y111.043166 Z-0.125000
G01 X153.127419 Y84.029638 Z-0.125000
G01 X152.063224 Y63.927194 Z-0.125000
G00 Z3.000000

(End cutting path id: path11732)


(Start cutting path id: path11734)
(Change tool to Default tool)

G00 Z3.000000
G00 X153.565320 Y211.649910

G00 Z4.875000 (Fast pre-penetrate)
G01 Z-0.125000 F400.0(Penetrate)
G01 X150.488550 Y193.560039 Z-0.125000 F800.000000
G01 X155.704447 Y167.177503 Z-0.125000
G01 X149.542412 Y152.172897 Z-0.125000
G01 X153.966446 Y126.582223 Z-0.125000
G01 X147.928059 Y111.453971 Z-0.125000
G01 X154.349205 Y83.866184 Z-0.125000
G01 X153.663792 Y63.384957 Z-0.125000
G00 Z3.000000

(End cutting path id: path11734)


(Start cutting path id: path11736)
(Change tool to Default tool)

G00 Z3.000000
G00 X154.275842 Y211.997720

G00 Z4.875000 (Fast pre-penetrate)
G01 Z-0.125000 F400.0(Penetrate)
G01 X151.442224 Y193.664698 Z-0.125000 F800.000000
G01 X156.536941 Y167.403340 Z-0.125000
G01 X150.256731 Y152.516911 Z-0.125000
G01 X155.492968 Y126.114033 Z-0.125000
G01 X148.575586 Y111.864775 Z-0.125000
G01 X155.570989 Y83.702733 Z-0.125000
G01 X155.264361 Y62.842721 Z-0.125000
G00 Z3.000000

(End cutting path id: path11736)


(Start cutting path id: path11738)
(Change tool to Default tool)

G00 Z3.000000
G00 X154.986366 Y212.345527

G00 Z4.875000 (Fast pre-penetrate)
G01 Z-0.125000 F400.0(Penetrate)
G01 X152.395900 Y193.769353 Z-0.125000 F800.000000
G01 X157.369436 Y167.629177 Z-0.125000
G01 X150.971049 Y152.860924 Z-0.125000
G01 X157.019493 Y125.645840 Z-0.125000
G01 X149.223111 Y112.275583 Z-0.125000
G01 X156.792775 Y83.539279 Z-0.125000
G01 X156.864929 Y62.300484 Z-0.125000
G00 Z3.000000

(End cutting path id: path11738)


(Start cutting path id: path11740)
(Change tool to Default tool)

G00 Z3.000000
G00 X155.696888 Y212.693338

G00 Z4.875000 (Fast pre-penetrate)
G01 Z-0.125000 F400.0(Penetrate)
G01 X153.349574 Y193.874012 Z-0.125000 F800.000000
G01 X158.201928 Y167.855018 Z-0.125000
G01 X151.685368 Y153.204938 Z-0.125000
G01 X158.546015 Y125.177650 Z-0.125000
G01 X149.870638 Y112.686388 Z-0.125000
G01 X158.014558 Y83.375827 Z-0.125000
G01 X158.465495 Y61.758251 Z-0.125000
G00 Z3.000000

(End cutting path id: path11740)


(Start cutting path id: path11742)
(Change tool to Default tool)

G00 Z3.000000
G00 X156.407410 Y213.041148

G00 Z4.875000 (Fast pre-penetrate)
G01 Z-0.125000 F400.0(Penetrate)
G01 X154.303247 Y193.978670 Z-0.125000 F800.000000
G01 X159.034422 Y168.080855 Z-0.125000
G01 X152.399686 Y153.548951 Z-0.125000
G01 X160.072540 Y124.709457 Z-0.125000
G01 X150.518165 Y113.097192 Z-0.125000
G01 X159.236344 Y83.212373 Z-0.125000
G01 X160.066063 Y61.216014 Z-0.125000
G00 Z3.000000

(End cutting path id: path11742)


(Start cutting path id: path11744)
(Change tool to Default tool)

G00 Z3.000000
G00 X157.117934 Y213.388956

G00 Z4.875000 (Fast pre-penetrate)
G01 Z-0.125000 F400.0(Penetrate)
G01 X155.256921 Y194.083329 Z-0.125000 F800.000000
G01 X159.866917 Y168.306693 Z-0.125000
G01 X153.114002 Y153.892967 Z-0.125000
G01 X161.599065 Y124.241264 Z-0.125000
G01 X151.165690 Y113.508000 Z-0.125000
G01 X160.458128 Y83.048922 Z-0.125000
G01 X161.666632 Y60.673778 Z-0.125000
G00 Z3.000000

(End cutting path id: path11744)


(Start cutting path id: path11746)
(Change tool to Default tool)

G00 Z3.000000
G00 X157.828456 Y213.736766

G00 Z4.875000 (Fast pre-penetrate)
G01 Z-0.125000 F400.0(Penetrate)
G01 X156.210597 Y194.187985 Z-0.125000 F800.000000
G01 X160.699411 Y168.532530 Z-0.125000
G01 X153.828321 Y154.236981 Z-0.125000
G01 X163.125587 Y123.773074 Z-0.125000
G01 X151.813217 Y113.918805 Z-0.125000
G01 X161.679914 Y82.885468 Z-0.125000
G01 X163.267197 Y60.131544 Z-0.125000
G00 Z3.000000

(End cutting path id: path11746)


(Start cutting path id: path11532)
(Change tool to Default tool)

G00 Z3.000000
G00 X48.568231 Y209.755466

G00 Z4.875000 (Fast pre-penetrate)
G01 Z-0.125000 F400.0(Penetrate)
G01 X46.312648 Y190.844410 Z-0.125000 F800.000000
G01 X42.052735 Y173.937683 Z-0.125000
G01 X48.358089 Y146.465689 Z-0.125000
G01 X45.672428 Y127.984709 Z-0.125000
G01 X48.167949 Y104.322549 Z-0.125000
G01 X43.140097 Y88.183761 Z-0.125000
G01 X51.715256 Y58.441962 Z-0.125000
G00 Z3.000000

(End cutting path id: path11532)


(Start cutting path id: path11530)
(Change tool to Default tool)

G00 Z3.000000
G00 X47.345411 Y209.919955

G00 Z4.875000 (Fast pre-penetrate)
G01 Z-0.125000 F400.0(Penetrate)
G01 X45.636469 Y190.462256 Z-0.125000 F800.000000
G01 X41.425258 Y173.506828 Z-0.125000
G01 X47.018402 Y146.747044 Z-0.125000
G01 X44.439607 Y128.159199 Z-0.125000
G01 X46.753253 Y104.678913 Z-0.125000
G01 X42.252945 Y88.012581 Z-0.125000
G01 X50.624845 Y58.474040 Z-0.125000
G00 Z3.000000

(End cutting path id: path11530)


(Start cutting path id: path11528)
(Change tool to Default tool)

G00 Z3.000000
G00 X46.122590 Y210.084443

G00 Z4.875000 (Fast pre-penetrate)
G01 Z-0.125000 F400.0(Penetrate)
G01 X44.960290 Y190.080103 Z-0.125000 F800.000000
G01 X40.797780 Y173.075973 Z-0.125000
G01 X45.678715 Y147.028399 Z-0.125000
G01 X43.206787 Y128.333686 Z-0.125000
G01 X45.338556 Y105.035277 Z-0.125000
G01 X41.365792 Y87.841401 Z-0.125000
G01 X49.534435 Y58.506118 Z-0.125000
G00 Z3.000000

(End cutting path id: path11528)


(Start cutting path id: path11526)
(Change tool to Default tool)

G00 Z3.000000
G00 X44.899769 Y210.248932

G00 Z4.875000 (Fast pre-penetrate)
G01 Z-0.125000 F400.0(Penetrate)
G01 X44.284109 Y189.697953 Z-0.125000 F800.000000
G01 X40.170303 Y172.645118 Z-0.125000
G01 X44.339031 Y147.309751 Z-0.125000
G01 X41.973966 Y128.508176 Z-0.125000
G01 X43.923860 Y105.391641 Z-0.125000
G01 X40.478640 Y87.670221 Z-0.125000
G01 X48.444028 Y58.538193 Z-0.125000
G00 Z3.000000

(End cutting path id: path11526)


(Start cutting path id: path11524)
(Change tool to Default tool)

G00 Z3.000000
G00 X43.676946 Y210.413423

G00 Z4.875000 (Fast pre-penetrate)
G01 Z-0.125000 F400.0(Penetrate)
G01 X43.607930 Y189.315800 Z-0.125000 F800.000000
G01 X39.542826 Y172.214263 Z-0.125000
G01 X42.999344 Y147.591106 Z-0.125000
G01 X40.741146 Y128.682663 Z-0.125000
G01 X42.509164 Y105.748005 Z-0.125000
G01 X39.591486 Y87.499044 Z-0.125000
G01 X47.353618 Y58.570272 Z-0.125000
G00 Z3.000000

(End cutting path id: path11524)


(Start cutting path id: path11522)
(Change tool to Default tool)

G00 Z3.000000
G00 X42.454126 Y210.577912

G00 Z4.875000 (Fast pre-penetrate)
G01 Z-0.125000 F400.0(Penetrate)
G01 X42.931751 Y188.933647 Z-0.125000 F800.000000
G01 X38.915349 Y171.783408 Z-0.125000
G01 X41.659657 Y147.872461 Z-0.125000
G01 X39.508325 Y128.857153 Z-0.125000
G01 X41.094471 Y106.104367 Z-0.125000
G01 X38.704334 Y87.327864 Z-0.125000
G01 X46.263208 Y58.602350 Z-0.125000
G00 Z3.000000

(End cutting path id: path11522)


(Start cutting path id: path11520)
(Change tool to Default tool)

G00 Z3.000000
G00 X41.231305 Y210.742401

G00 Z4.875000 (Fast pre-penetrate)
G01 Z-0.125000 F400.0(Penetrate)
G01 X42.255569 Y188.551496 Z-0.125000 F800.000000
G01 X38.287869 Y171.352556 Z-0.125000
G01 X40.319973 Y148.153813 Z-0.125000
G01 X38.275505 Y129.031640 Z-0.125000
G01 X39.679774 Y106.460731 Z-0.125000
G01 X37.817181 Y87.156684 Z-0.125000
G01 X45.172801 Y58.634425 Z-0.125000
G00 Z3.000000

(End cutting path id: path11520)


(Start cutting path id: path11518)
(Change tool to Default tool)

G00 Z3.000000
G00 X40.008482 Y210.906892

G00 Z4.875000 (Fast pre-penetrate)
G01 Z-0.125000 F400.0(Penetrate)
G01 X41.579390 Y188.169343 Z-0.125000 F800.000000
G01 X37.660392 Y170.921701 Z-0.125000
G01 X38.980286 Y148.435168 Z-0.125000
G01 X37.042684 Y129.206130 Z-0.125000
G01 X38.265078 Y106.817095 Z-0.125000
G01 X36.930029 Y86.985504 Z-0.125000
G01 X44.082390 Y58.666503 Z-0.125000
G00 Z3.000000

(End cutting path id: path11518)


(Start cutting path id: path11516)
(Change tool to Default tool)

G00 Z3.000000
G00 X38.785661 Y211.071380

G00 Z4.875000 (Fast pre-penetrate)
G01 Z-0.125000 F400.0(Penetrate)
G01 X40.903211 Y187.787190 Z-0.125000 F800.000000
G01 X37.032915 Y170.490846 Z-0.125000
G01 X37.640599 Y148.716523 Z-0.125000
G01 X35.809864 Y129.380617 Z-0.125000
G01 X36.850382 Y107.173460 Z-0.125000
G01 X36.042875 Y86.814327 Z-0.125000
G01 X42.991983 Y58.698578 Z-0.125000
G00 Z3.000000

(End cutting path id: path11516)


(Start cutting path id: path11514)
(Change tool to Default tool)

G00 Z3.000000
G00 X37.562840 Y211.235869

G00 Z4.875000 (Fast pre-penetrate)
G01 Z-0.125000 F400.0(Penetrate)
G01 X40.227030 Y187.405040 Z-0.125000 F800.000000
G01 X36.405438 Y170.059991 Z-0.125000
G01 X36.300915 Y148.997875 Z-0.125000
G01 X34.577042 Y129.555107 Z-0.125000
G01 X35.435686 Y107.529824 Z-0.125000
G01 X35.155723 Y86.643147 Z-0.125000
G01 X41.901573 Y58.730656 Z-0.125000
G00 Z3.000000

(End cutting path id: path11514)


(Start cutting path id: path11512)
(Change tool to Default tool)

G00 Z3.000000
G00 X36.340020 Y211.400358

G00 Z4.875000 (Fast pre-penetrate)
G01 Z-0.125000 F400.0(Penetrate)
G01 X39.550851 Y187.022887 Z-0.125000 F800.000000
G01 X35.777961 Y169.629137 Z-0.125000
G01 X34.961228 Y149.279230 Z-0.125000
G01 X33.344223 Y129.729594 Z-0.125000
G01 X34.020992 Y107.886185 Z-0.125000
G01 X34.268570 Y86.471967 Z-0.125000
G01 X40.811163 Y58.762734 Z-0.125000
G00 Z3.000000

(End cutting path id: path11512)


(Start cutting path id: path11510)
(Change tool to Default tool)

G00 Z3.000000
G00 X35.117197 Y211.564849

G00 Z4.875000 (Fast pre-penetrate)
G01 Z-0.125000 F400.0(Penetrate)
G01 X38.874672 Y186.640733 Z-0.125000 F800.000000
G01 X35.150484 Y169.198282 Z-0.125000
G01 X33.621541 Y149.560585 Z-0.125000
G01 X32.111401 Y129.904084 Z-0.125000
G01 X32.606296 Y108.242549 Z-0.125000
G01 X33.381418 Y86.300787 Z-0.125000
G01 X39.720756 Y58.794810 Z-0.125000
G00 Z3.000000

(End cutting path id: path11510)


(Start cutting path id: path11508)
(Change tool to Default tool)

G00 Z3.000000
G00 X33.894376 Y211.729337

G00 Z4.875000 (Fast pre-penetrate)
G01 Z-0.125000 F400.0(Penetrate)
G01 X38.198491 Y186.258583 Z-0.125000 F800.000000
G01 X34.523007 Y168.767427 Z-0.125000
G01 X32.281856 Y149.841937 Z-0.125000
G01 X30.878582 Y130.078571 Z-0.125000
G01 X31.191600 Y108.598914 Z-0.125000
G01 X32.494264 Y86.129610 Z-0.125000
G01 X38.630346 Y58.826888 Z-0.125000
G00 Z3.000000

(End cutting path id: path11508)


(Start cutting path id: path11506)
(Change tool to Default tool)

G00 Z3.000000
G00 X32.718339 Y211.847043

G00 Z4.875000 (Fast pre-penetrate)
G01 Z-0.125000 F400.0(Penetrate)
G01 X36.596843 Y186.801899 Z-0.125000 F800.000000
G01 X33.398045 Y168.834057 Z-0.125000
G01 X31.510250 Y149.555211 Z-0.125000
G01 X30.195201 Y129.703620 Z-0.125000
G01 X30.469587 Y108.262594 Z-0.125000
G01 X31.253327 Y86.312214 Z-0.125000
G01 X37.181166 Y59.217735 Z-0.125000
G00 Z3.000000

(End cutting path id: path11506)


(Start cutting path id: path11504)
(Change tool to Default tool)

G00 Z3.000000
G00 X31.542302 Y211.964748

G00 Z4.875000 (Fast pre-penetrate)
G01 Z-0.125000 F400.0(Penetrate)
G01 X34.995195 Y187.345215 Z-0.125000 F800.000000
G01 X32.273083 Y168.900687 Z-0.125000
G01 X30.738647 Y149.268483 Z-0.125000
G01 X29.511821 Y129.328669 Z-0.125000
G01 X29.747577 Y107.926272 Z-0.125000
G01 X30.012390 Y86.494819 Z-0.125000
G01 X35.731984 Y59.608585 Z-0.125000
G00 Z3.000000

(End cutting path id: path11504)


(Start cutting path id: path11502)
(Change tool to Default tool)

G00 Z3.000000
G00 X30.366262 Y212.082455

G00 Z4.875000 (Fast pre-penetrate)
G01 Z-0.125000 F400.0(Penetrate)
G01 X33.393547 Y187.888531 Z-0.125000 F800.000000
G01 X31.148121 Y168.967317 Z-0.125000
G01 X29.967041 Y148.981757 Z-0.125000
G01 X28.828440 Y128.953718 Z-0.125000
G01 X29.025565 Y107.589953 Z-0.125000
G01 X28.771454 Y86.677424 Z-0.125000
G01 X34.282805 Y59.999432 Z-0.125000
G00 Z3.000000

(End cutting path id: path11502)


(Start cutting path id: path11500)
(Change tool to Default tool)

G00 Z3.000000
G00 X29.190225 Y212.200160

G00 Z4.875000 (Fast pre-penetrate)
G01 Z-0.125000 F400.0(Penetrate)
G01 X31.791899 Y188.431847 Z-0.125000 F800.000000
G01 X30.023159 Y169.033947 Z-0.125000
G01 X29.195438 Y148.695028 Z-0.125000
G01 X28.145059 Y128.578767 Z-0.125000
G01 X28.303555 Y107.253631 Z-0.125000
G01 X27.530515 Y86.860031 Z-0.125000
G01 X32.833626 Y60.390280 Z-0.125000
G00 Z3.000000

(End cutting path id: path11500)


(Start cutting path id: path11498)
(Change tool to Default tool)

G00 Z3.000000
G00 X28.014188 Y212.317865

G00 Z4.875000 (Fast pre-penetrate)
G01 Z-0.125000 F400.0(Penetrate)
G01 X30.190248 Y188.975165 Z-0.125000 F800.000000
G01 X28.898197 Y169.100576 Z-0.125000
G01 X28.423831 Y148.408302 Z-0.125000
G01 X27.461678 Y128.203815 Z-0.125000
G01 X27.581542 Y106.917311 Z-0.125000
G01 X26.289578 Y87.042636 Z-0.125000
G01 X31.384446 Y60.781127 Z-0.125000
G00 Z3.000000

(End cutting path id: path11498)


(Start cutting path id: path11496)
(Change tool to Default tool)

G00 Z3.000000
G00 X26.838151 Y212.435570

G00 Z4.875000 (Fast pre-penetrate)
G01 Z-0.125000 F400.0(Penetrate)
G01 X28.588601 Y189.518481 Z-0.125000 F800.000000
G01 X27.773235 Y169.167206 Z-0.125000
G01 X27.652228 Y148.121573 Z-0.125000
G01 X26.778300 Y127.828862 Z-0.125000
G01 X26.859532 Y106.580989 Z-0.125000
G01 X25.048641 Y87.225240 Z-0.125000
G01 X29.935264 Y61.171977 Z-0.125000
G00 Z3.000000

(End cutting path id: path11496)


(Start cutting path id: path11494)
(Change tool to Default tool)

G00 Z3.000000
G00 X25.662111 Y212.553278

G00 Z4.875000 (Fast pre-penetrate)
G01 Z-0.125000 F400.0(Penetrate)
G01 X26.986953 Y190.061797 Z-0.125000 F800.000000
G01 X26.648276 Y169.233834 Z-0.125000
G01 X26.880622 Y147.834847 Z-0.125000
G01 X26.094919 Y127.453911 Z-0.125000
G01 X26.137519 Y106.244670 Z-0.125000
G01 X23.807702 Y87.407847 Z-0.125000
G01 X28.486085 Y61.562824 Z-0.125000
G00 Z3.000000

(End cutting path id: path11494)


(Start cutting path id: path11492)
(Change tool to Default tool)

G00 Z3.000000
G00 X24.486074 Y212.670983

G00 Z4.875000 (Fast pre-penetrate)
G01 Z-0.125000 F400.0(Penetrate)
G01 X25.385305 Y190.605113 Z-0.125000 F800.000000
G01 X25.523314 Y169.300464 Z-0.125000
G01 X26.109019 Y147.548119 Z-0.125000
G01 X25.411538 Y127.078959 Z-0.125000
G01 X25.415507 Y105.908348 Z-0.125000
G01 X22.566763 Y87.590452 Z-0.125000
G01 X27.036903 Y61.953672 Z-0.125000
G00 Z3.000000

(End cutting path id: path11492)


(Start cutting path id: path11490)
(Change tool to Default tool)

G00 Z3.000000
G00 X23.310037 Y212.788688

G00 Z4.875000 (Fast pre-penetrate)
G01 Z-0.125000 F400.0(Penetrate)
G01 X23.783657 Y191.148429 Z-0.125000 F800.000000
G01 X24.398352 Y169.367094 Z-0.125000
G01 X25.337413 Y147.261393 Z-0.125000
G01 X24.728157 Y126.704008 Z-0.125000
G01 X24.693497 Y105.572029 Z-0.125000
G01 X21.325829 Y87.773057 Z-0.125000
G01 X25.587724 Y62.344522 Z-0.125000
G00 Z3.000000

(End cutting path id: path11490)


(Start cutting path id: path11488)
(Change tool to Default tool)

G00 Z3.000000
G00 X22.134000 Y212.906393

G00 Z4.875000 (Fast pre-penetrate)
G01 Z-0.125000 F400.0(Penetrate)
G01 X22.182006 Y191.691747 Z-0.125000 F800.000000
G01 X23.273390 Y169.433724 Z-0.125000
G01 X24.565809 Y146.974664 Z-0.125000
G01 X24.044776 Y126.329057 Z-0.125000
G01 X23.971487 Y105.235707 Z-0.125000
G01 X20.084892 Y87.955661 Z-0.125000
G01 X24.138545 Y62.735369 Z-0.125000
G00 Z3.000000

(End cutting path id: path11488)


(Start cutting path id: path11486)
(Change tool to Default tool)

G00 Z3.000000
G00 X20.957963 Y213.024098

G00 Z4.875000 (Fast pre-penetrate)
G01 Z-0.125000 F400.0(Penetrate)
G01 X20.580358 Y192.235063 Z-0.125000 F800.000000
G01 X22.148428 Y169.500353 Z-0.125000
G01 X23.794203 Y146.687938 Z-0.125000
G01 X23.361396 Y125.954106 Z-0.125000
G01 X23.249474 Y104.899387 Z-0.125000
G01 X18.843953 Y88.138268 Z-0.125000
G01 X22.689365 Y63.126216 Z-0.125000
G00 Z3.000000

(End cutting path id: path11486)


(Start cutting path id: path11484)
(Change tool to Default tool)

G00 Z3.000000
G00 X19.781924 Y213.141806

G00 Z4.875000 (Fast pre-penetrate)
G01 Z-0.125000 F400.0(Penetrate)
G01 X18.978710 Y192.778379 Z-0.125000 F800.000000
G01 X21.023466 Y169.566983 Z-0.125000
G01 X23.022600 Y146.401210 Z-0.125000
G01 X22.678017 Y125.579152 Z-0.125000
G01 X22.527464 Y104.563065 Z-0.125000
G01 X17.603016 Y88.320873 Z-0.125000
G01 X21.240186 Y63.517063 Z-0.125000
G00 Z3.000000

(End cutting path id: path11484)


(Start cutting path id: path11482)
(Change tool to Default tool)

G00 Z3.000000
G00 X18.605887 Y213.259511

G00 Z4.875000 (Fast pre-penetrate)
G01 Z-0.125000 F400.0(Penetrate)
G01 X17.377063 Y193.321695 Z-0.125000 F800.000000
G01 X19.898504 Y169.633613 Z-0.125000
G01 X22.250996 Y146.114481 Z-0.125000
G01 X21.994637 Y125.204201 Z-0.125000
G01 X21.805452 Y104.226746 Z-0.125000
G01 X16.362080 Y88.503478 Z-0.125000
G01 X19.791004 Y63.907913 Z-0.125000
G00 Z3.000000

(End cutting path id: path11482)


(Start cutting path id: path11480)
(Change tool to Default tool)

G00 Z3.000000
G00 X17.429850 Y213.377216

G00 Z4.875000 (Fast pre-penetrate)
G01 Z-0.125000 F400.0(Penetrate)
G01 X15.775415 Y193.865011 Z-0.125000 F800.000000
G01 X18.773542 Y169.700243 Z-0.125000
G01 X21.479390 Y145.827755 Z-0.125000
G01 X21.311256 Y124.829250 Z-0.125000
G01 X21.083442 Y103.890424 Z-0.125000
G01 X15.121141 Y88.686085 Z-0.125000
G01 X18.341825 Y64.298761 Z-0.125000
G00 Z3.000000

(End cutting path id: path11480)


(Start cutting path id: path11478)
(Change tool to Default tool)

G00 Z3.000000
G00 X16.253812 Y213.494921

G00 Z4.875000 (Fast pre-penetrate)
G01 Z-0.125000 F400.0(Penetrate)
G01 X14.173765 Y194.408329 Z-0.125000 F800.000000
G01 X17.648580 Y169.766873 Z-0.125000
G01 X20.707787 Y145.541027 Z-0.125000
G01 X20.627875 Y124.454299 Z-0.125000
G01 X20.361429 Y103.554104 Z-0.125000
G01 X13.880205 Y88.868689 Z-0.125000
G01 X16.892646 Y64.689608 Z-0.125000
G00 Z3.000000

(End cutting path id: path11478)


(Start cutting path id: path11476)
(Change tool to Default tool)

G00 Z3.000000
G00 X15.077773 Y213.612629

G00 Z4.875000 (Fast pre-penetrate)
G01 Z-0.125000 F400.0(Penetrate)
G01 X12.572117 Y194.951645 Z-0.125000 F800.000000
G01 X16.523621 Y169.833500 Z-0.125000
G01 X19.936181 Y145.254301 Z-0.125000
G01 X19.944489 Y124.079348 Z-0.125000
G01 X19.639414 Y103.217782 Z-0.125000
G01 X12.639262 Y89.051294 Z-0.125000
G01 X15.443458 Y65.080458 Z-0.125000
G00 Z3.000000

(End cutting path id: path11476)


(Start cutting path id: path11474)
(Change tool to Default tool)

G00 Z3.000000
G00 X13.901736 Y213.730334

G00 Z4.875000 (Fast pre-penetrate)
G01 Z-0.125000 F400.0(Penetrate)
G01 X10.970468 Y195.494961 Z-0.125000 F800.000000
G01 X15.398659 Y169.900130 Z-0.125000
G01 X19.164577 Y144.967572 Z-0.125000
G01 X19.261113 Y123.704396 Z-0.125000
G01 X18.917407 Y102.881463 Z-0.125000
G01 X11.398330 Y89.233899 Z-0.125000
G01 X13.994285 Y65.471305 Z-0.125000
G00 Z3.000000

(End cutting path id: path11474)


(Start cutting path id: path11472)
(Change tool to Default tool)

G00 Z3.000000
G00 X12.725698 Y213.848039

G00 Z4.875000 (Fast pre-penetrate)
G01 Z-0.125000 F400.0(Penetrate)
G01 X9.368820 Y196.038277 Z-0.125000 F800.000000
G01 X14.273697 Y169.966760 Z-0.125000
G01 X18.392971 Y144.680846 Z-0.125000
G01 X18.577735 Y123.329443 Z-0.125000
G01 X18.195397 Y102.545141 Z-0.125000
G01 X10.157392 Y89.416506 Z-0.125000
G01 X12.545105 Y65.862153 Z-0.125000
G00 Z3.000000

(End cutting path id: path11472)


(Start cutting path id: path11470)
(Change tool to Default tool)

G00 Z3.000000
G00 X11.549661 Y213.965744

G00 Z4.875000 (Fast pre-penetrate)
G01 Z-0.125000 F400.0(Penetrate)
G01 X7.767171 Y196.581593 Z-0.125000 F800.000000
G01 X13.148735 Y170.033390 Z-0.125000
G01 X17.621368 Y144.394118 Z-0.125000
G01 X17.894354 Y122.954491 Z-0.125000
G01 X17.473384 Y102.208821 Z-0.125000
G01 X8.916455 Y89.599111 Z-0.125000
G01 X11.095925 Y66.253000 Z-0.125000
G00 Z3.000000

(End cutting path id: path11470)


(Start cutting path id: path11468)
(Change tool to Default tool)

G00 Z3.000000
G00 X10.373623 Y214.083451

G00 Z4.875000 (Fast pre-penetrate)
G01 Z-0.125000 F400.0(Penetrate)
G01 X6.165523 Y197.124912 Z-0.125000 F800.000000
G01 X12.023773 Y170.100020 Z-0.125000
G01 X16.849762 Y144.107392 Z-0.125000
G01 X17.210973 Y122.579540 Z-0.125000
G01 X16.751374 Y101.872499 Z-0.125000
G01 X7.675518 Y89.781715 Z-0.125000
G01 X9.646745 Y66.643850 Z-0.125000
G00 Z3.000000

(End cutting path id: path11468)



(Footer)
M5
G00 X0.0000 Y0.0000
M2
(Using default footer. To add your own footer create file "footer" in the output dir.)
(end)
%