%
(Header)
(Generated by gcodetools from Inkscape.)
(Using default header. To add your own header create file "header" in the output dir.)
M3
(Header end.)
G21 (All units in mm)

(Start cutting path id: polyline851)
(Change tool to Default tool)

G00 Z3.000000
G00 X14.861417 Y209.778637

G00 Z4.875000 (Fast pre-penetrate)
G01 Z-0.125000 F400.0(Penetrate)
G01 X22.086967 Y209.439838 Z-0.125000 F800.000000
G01 X29.843827 Y209.316013 Z-0.125000
G01 X101.461867 Y209.303446 Z-0.125000
G01 X108.793700 Y209.416449 Z-0.125000
G01 X117.719382 Y209.918839 Z-0.125000
G01 X120.588361 Y209.985858 Z-0.125000
G01 X123.563597 Y209.839597 Z-0.125000
G01 X129.089016 Y209.121624 Z-0.125000
G01 X131.320429 Y208.996503 Z-0.125000
G01 X133.551869 Y209.184595 Z-0.125000
G01 X137.908440 Y210.165272 Z-0.125000
G01 X139.821084 Y210.350374 Z-0.125000
G01 X140.671163 Y210.293092 Z-0.125000
G01 X141.627472 Y210.116033 Z-0.125000
G01 X145.346530 Y208.839923 Z-0.125000
G01 X146.196582 Y208.644872 Z-0.125000
G01 X147.046661 Y208.574943 Z-0.125000
G01 X147.790457 Y208.634897 Z-0.125000
G01 X148.640535 Y208.845029 Z-0.125000
G01 X149.566496 Y209.221319 Z-0.125000
G01 X152.147054 Y210.506743 Z-0.125000
G01 X152.997106 Y210.761007 Z-0.125000
G01 X153.740928 Y210.829190 Z-0.125000
G01 X154.484724 Y210.733067 Z-0.125000
G01 X155.213359 Y210.481792 Z-0.125000
G01 X156.033064 Y210.042479 Z-0.125000
G01 X158.492177 Y208.453182 Z-0.125000
G01 X159.266347 Y208.144546 Z-0.125000
G01 X160.010169 Y208.038765 Z-0.125000
G01 X160.753965 Y208.145075 Z-0.125000
G01 X161.497761 Y208.458050 Z-0.125000
G01 X162.294711 Y208.982718 Z-0.125000
G01 X164.685510 Y210.878852 Z-0.125000
G01 X165.535589 Y211.295226 Z-0.125000
G01 X166.279384 Y211.422808 Z-0.125000
G01 X167.129463 Y211.264032 Z-0.125000
G01 X167.952951 Y210.818712 Z-0.125000
G01 X168.749902 Y210.174506 Z-0.125000
G01 X170.662546 Y208.375050 Z-0.125000
G01 X171.698573 Y207.665730 Z-0.125000
G00 Z3.000000

(End cutting path id: polyline851)


(Start cutting path id: polyline849)
(Change tool to Default tool)

G00 Z3.000000
G00 X14.861417 Y207.246101

G00 Z4.875000 (Fast pre-penetrate)
G01 Z-0.125000 F400.0(Penetrate)
G01 X23.999611 Y206.822292 Z-0.125000 F800.000000
G01 X32.500266 Y206.675898 Z-0.125000
G01 X88.923411 Y206.745960 Z-0.125000
G01 X106.137234 Y206.656795 Z-0.125000
G01 X112.087706 Y206.766386 Z-0.125000
G01 X120.057052 Y207.266897 Z-0.125000
G01 X122.819774 Y207.340293 Z-0.125000
G01 X125.688754 Y207.191623 Z-0.125000
G01 X130.895403 Y206.479048 Z-0.125000
G01 X133.020560 Y206.350488 Z-0.125000
G01 X135.145744 Y206.530166 Z-0.125000
G01 X139.396058 Y207.520659 Z-0.125000
G01 X141.202446 Y207.704756 Z-0.125000
G01 X142.052524 Y207.647500 Z-0.125000
G01 X143.008833 Y207.462794 Z-0.125000
G01 X146.621608 Y206.181604 Z-0.125000
G01 X147.471687 Y205.988088 Z-0.125000
G01 X148.215483 Y205.929060 Z-0.125000
G01 X148.959305 Y205.990496 Z-0.125000
G01 X149.809357 Y206.210867 Z-0.125000
G01 X150.750505 Y206.612319 Z-0.125000
G01 X153.103363 Y207.828580 Z-0.125000
G01 X153.953441 Y208.102477 Z-0.125000
G01 X154.697237 Y208.183466 Z-0.125000
G01 X155.441059 Y208.091629 Z-0.125000
G01 X156.184855 Y207.828395 Z-0.125000
G01 X157.034934 Y207.354527 Z-0.125000
G01 X159.402978 Y205.787085 Z-0.125000
G01 X160.116426 Y205.499377 Z-0.125000
G01 X160.860222 Y205.392724 Z-0.125000
G01 X161.497761 Y205.478263 Z-0.125000
G01 X162.226396 Y205.772797 Z-0.125000
G01 X163.011943 Y206.288972 Z-0.125000
G01 X165.505214 Y208.294008 Z-0.125000
G01 X166.279384 Y208.663604 Z-0.125000
G01 X167.023206 Y208.776555 Z-0.125000
G01 X167.873259 Y208.585817 Z-0.125000
G01 X168.670209 Y208.118590 Z-0.125000
G01 X171.698573 Y205.360392 Z-0.125000
G00 Z3.000000

(End cutting path id: polyline849)


(Start cutting path id: polyline619)
(Change tool to Default tool)

G00 Z3.000000
G00 X14.861417 Y205.967001

G00 Z4.875000 (Fast pre-penetrate)
G01 Z-0.125000 F400.0(Penetrate)
G01 X25.168460 Y205.507023 Z-0.125000 F800.000000
G01 X33.881628 Y205.354994 Z-0.125000
G01 X58.533540 Y205.351105 Z-0.125000
G01 X89.667207 Y205.465801 Z-0.125000
G01 X108.049878 Y205.333801 Z-0.125000
G01 X113.469041 Y205.438946 Z-0.125000
G01 X121.225900 Y205.945649 Z-0.125000
G01 X123.882366 Y206.017351 Z-0.125000
G01 X126.645063 Y205.871063 Z-0.125000
G01 X131.745456 Y205.157059 Z-0.125000
G01 X133.764383 Y205.027361 Z-0.125000
G01 X135.889540 Y205.202912 Z-0.125000
G01 X140.139880 Y206.208036 Z-0.125000
G01 X141.840011 Y206.381973 Z-0.125000
G01 X142.690064 Y206.325776 Z-0.125000
G01 X143.646399 Y206.138239 Z-0.125000
G01 X147.152917 Y204.872342 Z-0.125000
G01 X148.002970 Y204.670121 Z-0.125000
G01 X148.746792 Y204.606065 Z-0.125000
G01 X149.490588 Y204.665623 Z-0.125000
G01 X150.340666 Y204.888084 Z-0.125000
G01 X151.205906 Y205.259162 Z-0.125000
G01 X153.740928 Y206.567128 Z-0.125000
G01 X154.484724 Y206.791786 Z-0.125000
G01 X155.228546 Y206.859678 Z-0.125000
G01 X155.866085 Y206.776678 Z-0.125000
G01 X156.579533 Y206.530351 Z-0.125000
G01 X157.399238 Y206.077914 Z-0.125000
G01 X159.767282 Y204.488405 Z-0.125000
G01 X160.541452 Y204.169953 Z-0.125000
G01 X161.285248 Y204.070470 Z-0.125000
G01 X162.029070 Y204.199745 Z-0.125000
G01 X162.863962 Y204.604372 Z-0.125000
G01 X165.243383 Y206.546094 Z-0.125000
G01 X166.051684 Y207.095130 Z-0.125000
G01 X166.704437 Y207.370190 Z-0.125000
G01 X167.341976 Y207.453772 Z-0.125000
G01 X168.085772 Y207.301637 Z-0.125000
G01 X168.966198 Y206.796416 Z-0.125000
G01 X171.698573 Y204.241523 Z-0.125000
G00 Z3.000000

(End cutting path id: polyline619)


(Start cutting path id: polyline621)
(Change tool to Default tool)

G00 Z3.000000
G00 X14.861417 Y204.675783

G00 Z4.875000 (Fast pre-penetrate)
G01 Z-0.125000 F400.0(Penetrate)
G01 X26.443565 Y204.188368 Z-0.125000 F800.000000
G01 X35.262989 Y204.033508 Z-0.125000
G01 X57.789745 Y204.032714 Z-0.125000
G01 X90.304746 Y204.188739 Z-0.125000
G01 X109.750009 Y204.010965 Z-0.125000
G01 X114.850402 Y204.116428 Z-0.125000
G01 X122.288492 Y204.622073 Z-0.125000
G01 X124.944932 Y204.694013 Z-0.125000
G01 X127.601398 Y204.545555 Z-0.125000
G01 X132.595534 Y203.829964 Z-0.125000
G01 X134.614435 Y203.704737 Z-0.125000
G01 X136.739592 Y203.900158 Z-0.125000
G01 X140.777420 Y204.881311 Z-0.125000
G01 X142.477551 Y205.059137 Z-0.125000
G01 X143.327603 Y205.000109 Z-0.125000
G01 X144.177682 Y204.833448 Z-0.125000
G01 X147.790457 Y203.522995 Z-0.125000
G01 X148.534279 Y203.348476 Z-0.125000
G01 X149.278074 Y203.283177 Z-0.125000
G01 X150.021897 Y203.345195 Z-0.125000
G01 X150.871949 Y203.574192 Z-0.125000
G01 X154.165954 Y205.228841 Z-0.125000
G01 X154.909750 Y205.463156 Z-0.125000
G01 X155.653572 Y205.537503 Z-0.125000
G01 X156.291111 Y205.456197 Z-0.125000
G01 X157.034934 Y205.194604 Z-0.125000
G01 X157.854638 Y204.731663 Z-0.125000
G01 X160.131587 Y203.178137 Z-0.125000
G01 X160.860222 Y202.865136 Z-0.125000
G01 X161.604044 Y202.747290 Z-0.125000
G01 X162.241583 Y202.831031 Z-0.125000
G01 X162.955031 Y203.125089 Z-0.125000
G01 X163.729201 Y203.645973 Z-0.125000
G01 X166.142780 Y205.635637 Z-0.125000
G01 X166.916950 Y206.017192 Z-0.125000
G01 X167.660746 Y206.130381 Z-0.125000
G01 X168.404568 Y205.969223 Z-0.125000
G01 X169.228056 Y205.492657 Z-0.125000
G01 X169.945314 Y204.878559 Z-0.125000
G01 X171.698573 Y203.138159 Z-0.125000
G00 Z3.000000

(End cutting path id: polyline621)


(Start cutting path id: polyline623)
(Change tool to Default tool)

G00 Z3.000000
G00 X14.861417 Y203.369987

G00 Z4.875000 (Fast pre-penetrate)
G01 Z-0.125000 F400.0(Penetrate)
G01 X28.143696 Y202.856484 Z-0.125000 F800.000000
G01 X36.856864 Y202.709773 Z-0.125000
G01 X57.258435 Y202.713900 Z-0.125000
G01 X90.836055 Y202.911596 Z-0.125000
G01 X111.343884 Y202.687944 Z-0.125000
G01 X116.125507 Y202.793592 Z-0.125000
G01 X123.244801 Y203.295692 Z-0.125000
G01 X125.795010 Y203.371759 Z-0.125000
G01 X128.451450 Y203.225524 Z-0.125000
G01 X133.339330 Y202.510171 Z-0.125000
G01 X135.252000 Y202.381452 Z-0.125000
G01 X137.377158 Y202.567427 Z-0.125000
G01 X141.414959 Y203.561015 Z-0.125000
G01 X143.115090 Y203.735746 Z-0.125000
G01 X143.965168 Y203.669653 Z-0.125000
G01 X144.815221 Y203.493044 Z-0.125000
G01 X148.215483 Y202.229634 Z-0.125000
G01 X149.065561 Y202.022280 Z-0.125000
G01 X149.809357 Y201.960262 Z-0.125000
G01 X150.553179 Y202.029450 Z-0.125000
G01 X151.296975 Y202.231142 Z-0.125000
G01 X152.116680 Y202.585445 Z-0.125000
G01 X154.590980 Y203.899179 Z-0.125000
G01 X155.334803 Y204.138177 Z-0.125000
G01 X156.078598 Y204.214059 Z-0.125000
G01 X156.716164 Y204.130716 Z-0.125000
G01 X157.459960 Y203.862296 Z-0.125000
G01 X158.310039 Y203.369643 Z-0.125000
G01 X160.586987 Y201.810852 Z-0.125000
G01 X161.285248 Y201.523832 Z-0.125000
G01 X162.029070 Y201.424772 Z-0.125000
G01 X162.666609 Y201.530420 Z-0.125000
G01 X163.410431 Y201.868319 Z-0.125000
G01 X164.127663 Y202.374519 Z-0.125000
G01 X166.416015 Y204.292799 Z-0.125000
G01 X167.144650 Y204.670624 Z-0.125000
G01 X167.873259 Y204.808657 Z-0.125000
G01 X168.601894 Y204.678905 Z-0.125000
G01 X169.421598 Y204.226918 Z-0.125000
G01 X170.184391 Y203.577578 Z-0.125000
G01 X171.698573 Y202.044717 Z-0.125000
G00 Z3.000000

(End cutting path id: polyline623)


(Start cutting path id: polyline625)
(Change tool to Default tool)

G00 Z3.000000
G00 X14.861417 Y202.047548

G00 Z4.875000 (Fast pre-penetrate)
G01 Z-0.125000 F400.0(Penetrate)
G01 X18.580449 Y201.987091 Z-0.125000 F800.000000
G01 X29.950083 Y201.521954 Z-0.125000
G01 X38.450738 Y201.385270 Z-0.125000
G01 X56.727153 Y201.394081 Z-0.125000
G01 X91.261082 Y201.632285 Z-0.125000
G01 X99.655480 Y201.583258 Z-0.125000
G01 X112.725245 Y201.365029 Z-0.125000
G01 X117.188099 Y201.465148 Z-0.125000
G01 X124.201136 Y201.973068 Z-0.125000
G01 X126.751319 Y202.048262 Z-0.125000
G01 X129.301529 Y201.900096 Z-0.125000
G01 X133.976896 Y201.198554 Z-0.125000
G01 X135.995796 Y201.058642 Z-0.125000
G01 X138.014697 Y201.241496 Z-0.125000
G01 X141.946268 Y202.225930 Z-0.125000
G01 X143.646399 Y202.413254 Z-0.125000
G01 X144.496451 Y202.349807 Z-0.125000
G01 X145.346530 Y202.172510 Z-0.125000
G01 X148.746792 Y200.894839 Z-0.125000
G01 X149.596844 Y200.691877 Z-0.125000
G01 X150.340666 Y200.638035 Z-0.125000
G01 X151.084462 Y200.719473 Z-0.125000
G01 X151.828284 Y200.936088 Z-0.125000
G01 X154.940124 Y202.548033 Z-0.125000
G01 X155.653572 Y202.794677 Z-0.125000
G01 X156.397368 Y202.892097 Z-0.125000
G01 X157.034934 Y202.825475 Z-0.125000
G01 X157.763542 Y202.578857 Z-0.125000
G01 X158.583273 Y202.115784 Z-0.125000
G01 X160.860222 Y200.530826 Z-0.125000
G01 X161.604044 Y200.209278 Z-0.125000
G01 X162.347840 Y200.101884 Z-0.125000
G01 X162.985379 Y200.203748 Z-0.125000
G01 X163.683666 Y200.516247 Z-0.125000
G01 X164.446433 Y201.056023 Z-0.125000
G01 X166.689250 Y202.956390 Z-0.125000
G01 X167.448233 Y203.353821 Z-0.125000
G01 X168.192028 Y203.485027 Z-0.125000
G01 X168.935851 Y203.329955 Z-0.125000
G01 X169.694833 Y202.893208 Z-0.125000
G01 X170.494297 Y202.199471 Z-0.125000
G01 X171.698573 Y200.956460 Z-0.125000
G00 Z3.000000

(End cutting path id: polyline625)


(Start cutting path id: polyline627)
(Change tool to Default tool)

G00 Z3.000000
G00 X14.861417 Y200.706879

G00 Z4.875000 (Fast pre-penetrate)
G01 Z-0.125000 F400.0(Penetrate)
G01 X18.686705 Y200.696587 Z-0.125000 F800.000000
G01 X30.693879 Y200.217665 Z-0.125000
G01 X40.044612 Y200.059974 Z-0.125000
G01 X56.195870 Y200.072859 Z-0.125000
G01 X91.686108 Y200.348740 Z-0.125000
G01 X100.718072 Y200.291854 Z-0.125000
G01 X114.000350 Y200.042114 Z-0.125000
G01 X118.356921 Y200.146254 Z-0.125000
G01 X125.051188 Y200.647824 Z-0.125000
G01 X127.495141 Y200.726035 Z-0.125000
G01 X130.045325 Y200.580409 Z-0.125000
G01 X134.720691 Y199.867966 Z-0.125000
G01 X136.633335 Y199.735674 Z-0.125000
G01 X138.652262 Y199.922549 Z-0.125000
G01 X142.477551 Y200.897670 Z-0.125000
G01 X144.177682 Y201.090392 Z-0.125000
G01 X144.921477 Y201.040069 Z-0.125000
G01 X145.771556 Y200.872561 Z-0.125000
G01 X149.278074 Y199.551525 Z-0.125000
G01 X150.021897 Y199.373751 Z-0.125000
G01 X150.765692 Y199.314749 Z-0.125000
G01 X151.509488 Y199.393516 Z-0.125000
G01 X152.253310 Y199.610897 Z-0.125000
G01 X155.441059 Y201.268986 Z-0.125000
G01 X156.184855 Y201.504306 Z-0.125000
G01 X156.822421 Y201.568944 Z-0.125000
G01 X157.459960 Y201.490548 Z-0.125000
G01 X158.203756 Y201.220329 Z-0.125000
G01 X159.038647 Y200.727993 Z-0.125000
G01 X161.224526 Y199.191612 Z-0.125000
G01 X162.029070 Y198.857920 Z-0.125000
G01 X162.666609 Y198.778519 Z-0.125000
G01 X163.304175 Y198.882606 Z-0.125000
G01 X164.047971 Y199.227754 Z-0.125000
G01 X164.765202 Y199.747660 Z-0.125000
G01 X166.962485 Y201.631967 Z-0.125000
G01 X167.660746 Y202.010400 Z-0.125000
G01 X168.404568 Y202.162668 Z-0.125000
G01 X169.148364 Y202.024106 Z-0.125000
G01 X169.865622 Y201.626967 Z-0.125000
G01 X170.582853 Y201.021865 Z-0.125000
G01 X171.698573 Y199.868654 Z-0.125000
G00 Z3.000000

(End cutting path id: polyline627)


(Start cutting path id: polyline629)
(Change tool to Default tool)

G00 Z3.000000
G00 X14.861417 Y199.346949

G00 Z4.875000 (Fast pre-penetrate)
G01 Z-0.125000 F400.0(Penetrate)
G01 X19.643041 Y199.379149 Z-0.125000 F800.000000
G01 X32.287753 Y198.887924 Z-0.125000
G01 X41.744743 Y198.733408 Z-0.125000
G01 X55.877100 Y198.751320 Z-0.125000
G01 X92.004877 Y199.059771 Z-0.125000
G01 X101.674380 Y198.997144 Z-0.125000
G01 X115.169172 Y198.719199 Z-0.125000
G01 X119.313256 Y198.821117 Z-0.125000
G01 X125.795010 Y199.319591 Z-0.125000
G01 X128.238937 Y199.403305 Z-0.125000
G01 X130.789147 Y199.255007 Z-0.125000
G01 X135.358257 Y198.545104 Z-0.125000
G01 X137.270901 Y198.412892 Z-0.125000
G01 X139.183545 Y198.591512 Z-0.125000
G01 X143.008833 Y199.576951 Z-0.125000
G01 X144.708964 Y199.767080 Z-0.125000
G01 X145.452786 Y199.711624 Z-0.125000
G01 X146.302839 Y199.535941 Z-0.125000
G01 X149.703101 Y198.233319 Z-0.125000
G01 X150.446923 Y198.051657 Z-0.125000
G01 X151.190719 Y197.991649 Z-0.125000
G01 X151.934541 Y198.072717 Z-0.125000
G01 X152.678336 Y198.294782 Z-0.125000
G01 X155.668759 Y199.883656 Z-0.125000
G01 X156.397368 Y200.145514 Z-0.125000
G01 X157.141190 Y200.246029 Z-0.125000
G01 X157.778729 Y200.176020 Z-0.125000
G01 X158.492177 Y199.925539 Z-0.125000
G01 X159.311882 Y199.447782 Z-0.125000
G01 X161.497761 Y197.893066 Z-0.125000
G01 X162.241583 Y197.563422 Z-0.125000
G01 X162.985379 Y197.456398 Z-0.125000
G01 X163.729201 Y197.603268 Z-0.125000
G01 X164.503371 Y198.012975 Z-0.125000
G01 X166.757565 Y199.953135 Z-0.125000
G01 X167.508954 Y200.488016 Z-0.125000
G01 X168.085772 Y200.746381 Z-0.125000
G01 X168.723337 Y200.838774 Z-0.125000
G01 X169.360877 Y200.711933 Z-0.125000
G01 X170.059138 Y200.332521 Z-0.125000
G01 X170.742238 Y199.762688 Z-0.125000
G01 X171.698573 Y198.777143 Z-0.125000
G00 Z3.000000

(End cutting path id: polyline629)


(Start cutting path id: polyline631)
(Change tool to Default tool)

G00 Z3.000000
G00 X14.861417 Y197.967546

G00 Z4.875000 (Fast pre-penetrate)
G01 Z-0.125000 F400.0(Penetrate)
G01 X17.624114 Y198.071685 Z-0.125000 F800.000000
G01 X20.599349 Y198.061526 Z-0.125000
G01 X33.775371 Y197.560670 Z-0.125000
G01 X43.338618 Y197.407106 Z-0.125000
G01 X55.664561 Y197.429093 Z-0.125000
G01 X80.316473 Y197.708757 Z-0.125000
G01 X92.323673 Y197.764796 Z-0.125000
G01 X102.630716 Y197.697327 Z-0.125000
G01 X116.338020 Y197.396390 Z-0.125000
G01 X120.269591 Y197.500398 Z-0.125000
G01 X126.645063 Y198.002444 Z-0.125000
G01 X128.982759 Y198.080205 Z-0.125000
G01 X131.426686 Y197.935531 Z-0.125000
G01 X135.889540 Y197.230338 Z-0.125000
G01 X137.802184 Y197.089818 Z-0.125000
G01 X139.714828 Y197.267538 Z-0.125000
G01 X143.540142 Y198.263667 Z-0.125000
G01 X145.134017 Y198.444404 Z-0.125000
G01 X145.877812 Y198.393180 Z-0.125000
G01 X146.727891 Y198.219217 Z-0.125000
G01 X150.021897 Y196.940223 Z-0.125000
G01 X150.871949 Y196.725646 Z-0.125000
G01 X151.615745 Y196.669475 Z-0.125000
G01 X152.253310 Y196.736176 Z-0.125000
G01 X152.997106 Y196.948610 Z-0.125000
G01 X156.184855 Y198.631940 Z-0.125000
G01 X156.928677 Y198.865726 Z-0.125000
G01 X157.566216 Y198.922505 Z-0.125000
G01 X158.203756 Y198.830113 Z-0.125000
G01 X158.947578 Y198.538622 Z-0.125000
G01 X161.862092 Y196.533400 Z-0.125000
G01 X162.560353 Y196.231908 Z-0.125000
G01 X163.197892 Y196.132742 Z-0.125000
G01 X163.835458 Y196.223097 Z-0.125000
G01 X164.503371 Y196.517604 Z-0.125000
G01 X165.323076 Y197.108630 Z-0.125000
G01 X167.508954 Y199.010056 Z-0.125000
G01 X168.298311 Y199.415264 Z-0.125000
G01 X168.935851 Y199.516415 Z-0.125000
G01 X169.573390 Y199.394495 Z-0.125000
G01 X170.150234 Y199.098744 Z-0.125000
G01 X170.821930 Y198.566694 Z-0.125000
G01 X171.698573 Y197.678383 Z-0.125000
G00 Z3.000000

(End cutting path id: polyline631)


(Start cutting path id: polyline633)
(Change tool to Default tool)

G00 Z3.000000
G00 X14.861417 Y196.569463

G00 Z4.875000 (Fast pre-penetrate)
G01 Z-0.125000 F400.0(Penetrate)
G01 X18.049166 Y196.733107 Z-0.125000 F800.000000
G01 X21.449428 Y196.745357 Z-0.125000
G01 X35.369246 Y196.229606 Z-0.125000
G01 X44.932492 Y196.080725 Z-0.125000
G01 X55.452048 Y196.105437 Z-0.125000
G01 X79.466421 Y196.401929 Z-0.125000
G01 X92.536186 Y196.463815 Z-0.125000
G01 X103.480768 Y196.394044 Z-0.125000
G01 X117.294355 Y196.073475 Z-0.125000
G01 X121.119643 Y196.178515 Z-0.125000
G01 X127.282628 Y196.675428 Z-0.125000
G01 X129.620298 Y196.757396 Z-0.125000
G01 X132.064252 Y196.610103 Z-0.125000
G01 X136.527079 Y195.895490 Z-0.125000
G01 X138.333466 Y195.766956 Z-0.125000
G01 X140.246137 Y195.950762 Z-0.125000
G01 X143.965168 Y196.934375 Z-0.125000
G01 X145.559043 Y197.121727 Z-0.125000
G01 X146.302839 Y197.070742 Z-0.125000
G01 X147.152917 Y196.894556 Z-0.125000
G01 X150.446923 Y195.604026 Z-0.125000
G01 X151.190719 Y195.412309 Z-0.125000
G01 X151.934541 Y195.345660 Z-0.125000
G01 X152.572080 Y195.404504 Z-0.125000
G01 X153.315876 Y195.610455 Z-0.125000
G01 X154.120420 Y195.977194 Z-0.125000
G01 X156.397368 Y197.258066 Z-0.125000
G01 X157.141190 Y197.517755 Z-0.125000
G01 X157.884986 Y197.599140 Z-0.125000
G01 X158.522552 Y197.505398 Z-0.125000
G01 X159.129743 Y197.277354 Z-0.125000
G01 X159.858352 Y196.851508 Z-0.125000
G01 X162.135327 Y195.214798 Z-0.125000
G01 X162.879122 Y194.896981 Z-0.125000
G01 X163.516688 Y194.809880 Z-0.125000
G01 X164.154227 Y194.916083 Z-0.125000
G01 X164.867675 Y195.257343 Z-0.125000
G01 X165.562153 Y195.774232 Z-0.125000
G01 X167.600024 Y197.586387 Z-0.125000
G01 X168.237590 Y197.975986 Z-0.125000
G01 X168.723337 Y198.146695 Z-0.125000
G01 X169.360877 Y198.178868 Z-0.125000
G01 X170.059138 Y197.953549 Z-0.125000
G01 X170.821930 Y197.426447 Z-0.125000
G01 X171.698573 Y196.569410 Z-0.125000
G00 Z3.000000

(End cutting path id: polyline633)


(Start cutting path id: polyline635)
(Change tool to Default tool)

G00 Z3.000000
G00 X14.861417 Y195.154526

G00 Z4.875000 (Fast pre-penetrate)
G01 Z-0.125000 F400.0(Penetrate)
G01 X18.474192 Y195.386300 Z-0.125000 F800.000000
G01 X22.299480 Y195.427946 Z-0.125000
G01 X37.706942 Y194.877825 Z-0.125000
G01 X48.651524 Y194.750454 Z-0.125000
G01 X81.060296 Y195.113118 Z-0.125000
G01 X97.530323 Y195.148493 Z-0.125000
G01 X105.393439 Y195.067054 Z-0.125000
G01 X118.144408 Y194.750587 Z-0.125000
G01 X121.863439 Y194.855282 Z-0.125000
G01 X127.920167 Y195.352645 Z-0.125000
G01 X130.151581 Y195.434825 Z-0.125000
G01 X132.595534 Y195.290812 Z-0.125000
G01 X137.058388 Y194.568845 Z-0.125000
G01 X138.864776 Y194.444358 Z-0.125000
G01 X140.671163 Y194.621285 Z-0.125000
G01 X144.390195 Y195.612492 Z-0.125000
G01 X145.984069 Y195.798626 Z-0.125000
G01 X146.727891 Y195.743778 Z-0.125000
G01 X147.577943 Y195.561534 Z-0.125000
G01 X150.765692 Y194.294922 Z-0.125000
G01 X151.509488 Y194.096167 Z-0.125000
G01 X152.253310 Y194.022957 Z-0.125000
G01 X152.997106 Y194.098337 Z-0.125000
G01 X153.740928 Y194.323391 Z-0.125000
G01 X156.716164 Y195.939596 Z-0.125000
G01 X157.459960 Y196.199285 Z-0.125000
G01 X158.097499 Y196.277337 Z-0.125000
G01 X158.735065 Y196.202354 Z-0.125000
G01 X159.478860 Y195.922901 Z-0.125000
G01 X160.222683 Y195.471390 Z-0.125000
G01 X162.408561 Y193.887120 Z-0.125000
G01 X163.091635 Y193.587242 Z-0.125000
G01 X163.729201 Y193.487124 Z-0.125000
G01 X164.472997 Y193.617907 Z-0.125000
G01 X165.140910 Y193.955224 Z-0.125000
G01 X165.880922 Y194.522649 Z-0.125000
G01 X167.793566 Y196.243311 Z-0.125000
G01 X168.419728 Y196.637116 Z-0.125000
G01 X168.935851 Y196.824309 Z-0.125000
G01 X169.573390 Y196.855239 Z-0.125000
G01 X170.210955 Y196.655426 Z-0.125000
G01 X170.878869 Y196.219128 Z-0.125000
G01 X171.698573 Y195.447869 Z-0.125000
G00 Z3.000000

(End cutting path id: polyline635)


(Start cutting path id: polyline637)
(Change tool to Default tool)

G00 Z3.000000
G00 X14.861417 Y193.725777

G00 Z4.875000 (Fast pre-penetrate)
G01 Z-0.125000 F400.0(Penetrate)
G01 X18.792962 Y194.025735 Z-0.125000 F800.000000
G01 X22.724533 Y194.111539 Z-0.125000
G01 X26.549821 Y194.031873 Z-0.125000
G01 X38.131968 Y193.577346 Z-0.125000
G01 X45.995084 Y193.439393 Z-0.125000
G01 X56.514640 Y193.468047 Z-0.125000
G01 X79.997704 Y193.797135 Z-0.125000
G01 X93.173726 Y193.845845 Z-0.125000
G01 X104.968386 Y193.776551 Z-0.125000
G01 X118.994486 Y193.427963 Z-0.125000
G01 X122.607261 Y193.536733 Z-0.125000
G01 X128.451450 Y194.026767 Z-0.125000
G01 X130.682890 Y194.111936 Z-0.125000
G01 X133.020560 Y193.977740 Z-0.125000
G01 X137.483414 Y193.250613 Z-0.125000
G01 X139.289802 Y193.121364 Z-0.125000
G01 X141.096189 Y193.299190 Z-0.125000
G01 X144.708964 Y194.274919 Z-0.125000
G01 X146.302839 Y194.475764 Z-0.125000
G01 X147.046661 Y194.427187 Z-0.125000
G01 X147.896713 Y194.249255 Z-0.125000
G01 X151.190719 Y192.940283 Z-0.125000
G01 X151.934541 Y192.755022 Z-0.125000
G01 X152.572080 Y192.699751 Z-0.125000
G01 X153.209619 Y192.755552 Z-0.125000
G01 X153.953441 Y192.962535 Z-0.125000
G01 X154.757959 Y193.335200 Z-0.125000
G01 X157.034934 Y194.631233 Z-0.125000
G01 X157.778729 Y194.884386 Z-0.125000
G01 X158.416295 Y194.954263 Z-0.125000
G01 X159.053834 Y194.868353 Z-0.125000
G01 X159.767282 Y194.589985 Z-0.125000
G01 X160.495917 Y194.140485 Z-0.125000
G01 X162.590727 Y192.600056 Z-0.125000
G01 X163.304175 Y192.272529 Z-0.125000
G01 X163.941714 Y192.163944 Z-0.125000
G01 X164.685510 Y192.287345 Z-0.125000
G01 X165.414145 Y192.660831 Z-0.125000
G01 X166.119999 Y193.212645 Z-0.125000
G01 X167.873259 Y194.819378 Z-0.125000
G01 X168.510824 Y195.254406 Z-0.125000
G01 X169.042107 Y195.477767 Z-0.125000
G01 X169.679646 Y195.542351 Z-0.125000
G01 X170.317212 Y195.372516 Z-0.125000
G01 X170.969938 Y194.971566 Z-0.125000
G01 X171.698573 Y194.312040 Z-0.125000
G00 Z3.000000

(End cutting path id: polyline637)


(Start cutting path id: polyline639)
(Change tool to Default tool)

G00 Z3.000000
G00 X14.861417 Y192.287689

G00 Z4.875000 (Fast pre-penetrate)
G01 Z-0.125000 F400.0(Penetrate)
G01 X19.536784 Y192.678664 Z-0.125000 F800.000000
G01 X23.893355 Y192.788889 Z-0.125000
G01 X27.931183 Y192.706498 Z-0.125000
G01 X39.513330 Y192.250198 Z-0.125000
G01 X47.057649 Y192.115446 Z-0.125000
G01 X56.727153 Y192.144920 Z-0.125000
G01 X79.253908 Y192.480279 Z-0.125000
G01 X93.386239 Y192.530550 Z-0.125000
G01 X105.605952 Y192.463082 Z-0.125000
G01 X119.738282 Y192.105445 Z-0.125000
G01 X123.138544 Y192.210458 Z-0.125000
G01 X128.982759 Y192.705387 Z-0.125000
G01 X131.214173 Y192.788810 Z-0.125000
G01 X133.551869 Y192.646490 Z-0.125000
G01 X137.908440 Y191.926137 Z-0.125000
G01 X139.714828 Y191.798555 Z-0.125000
G01 X141.521215 Y191.984742 Z-0.125000
G01 X145.134017 Y192.968170 Z-0.125000
G01 X146.727891 Y193.152532 Z-0.125000
G01 X148.215483 Y192.929356 Z-0.125000
G01 X151.403232 Y191.648854 Z-0.125000
G01 X152.147054 Y191.448115 Z-0.125000
G01 X152.890849 Y191.377180 Z-0.125000
G01 X153.528415 Y191.438113 Z-0.125000
G01 X154.272211 Y191.653034 Z-0.125000
G01 X155.122290 Y192.058322 Z-0.125000
G01 X157.247447 Y193.283527 Z-0.125000
G01 X157.991242 Y193.550332 Z-0.125000
G01 X158.628808 Y193.631242 Z-0.125000
G01 X159.266347 Y193.555042 Z-0.125000
G01 X159.949448 Y193.299561 Z-0.125000
G01 X160.678056 Y192.859559 Z-0.125000
G01 X162.863962 Y191.253514 Z-0.125000
G01 X163.622945 Y190.923023 Z-0.125000
G01 X164.260484 Y190.842140 Z-0.125000
G01 X164.898049 Y190.963134 Z-0.125000
G01 X165.596310 Y191.318707 Z-0.125000
G01 X166.279384 Y191.848455 Z-0.125000
G01 X168.112336 Y193.529377 Z-0.125000
G01 X168.601894 Y193.872065 Z-0.125000
G01 X169.148364 Y194.129319 Z-0.125000
G01 X169.785903 Y194.224278 Z-0.125000
G01 X170.423468 Y194.081986 Z-0.125000
G01 X171.061008 Y193.713765 Z-0.125000
G01 X171.698573 Y193.160787 Z-0.125000
G00 Z3.000000

(End cutting path id: polyline639)


(Start cutting path id: polyline641)
(Change tool to Default tool)

G00 Z3.000000
G00 X14.861417 Y190.846003

G00 Z4.875000 (Fast pre-penetrate)
G01 Z-0.125000 F400.0(Penetrate)
G01 X20.280580 Y191.327624 Z-0.125000 F800.000000
G01 X25.062203 Y191.466159 Z-0.125000
G01 X29.312544 Y191.381704 Z-0.125000
G01 X41.000948 Y190.919425 Z-0.125000
G01 X48.120241 Y190.791473 Z-0.125000
G01 X57.045922 Y190.821688 Z-0.125000
G01 X78.722599 Y191.162127 Z-0.125000
G01 X93.598752 Y191.212292 Z-0.125000
G01 X106.137234 Y191.147495 Z-0.125000
G01 X120.375848 Y190.782979 Z-0.125000
G01 X123.776110 Y190.895321 Z-0.125000
G01 X129.407785 Y191.380858 Z-0.125000
G01 X131.532942 Y191.466212 Z-0.125000
G01 X133.870639 Y191.333630 Z-0.125000
G01 X138.227210 Y190.610366 Z-0.125000
G01 X140.033597 Y190.475481 Z-0.125000
G01 X141.840011 Y190.656906 Z-0.125000
G01 X145.452786 Y191.645943 Z-0.125000
G01 X146.940404 Y191.829908 Z-0.125000
G01 X147.684200 Y191.781357 Z-0.125000
G01 X148.534279 Y191.600091 Z-0.125000
G01 X151.722028 Y190.311545 Z-0.125000
G01 X152.465823 Y190.116230 Z-0.125000
G01 X153.209619 Y190.054556 Z-0.125000
G01 X153.847185 Y190.125147 Z-0.125000
G01 X154.590980 Y190.351868 Z-0.125000
G01 X157.581403 Y192.002257 Z-0.125000
G01 X158.310039 Y192.245806 Z-0.125000
G01 X158.947578 Y192.308009 Z-0.125000
G01 X159.691373 Y192.178258 Z-0.125000
G01 X160.404821 Y191.856790 Z-0.125000
G01 X162.590727 Y190.245082 Z-0.125000
G01 X163.319336 Y189.798863 Z-0.125000
G01 X163.941714 Y189.571136 Z-0.125000
G01 X164.472997 Y189.519305 Z-0.125000
G01 X165.110562 Y189.644505 Z-0.125000
G01 X165.869545 Y190.047439 Z-0.125000
G01 X168.271747 Y192.188630 Z-0.125000
G01 X169.254620 Y192.780687 Z-0.125000
G01 X169.785903 Y192.898691 Z-0.125000
G01 X170.423468 Y192.820374 Z-0.125000
G01 X171.061008 Y192.507267 Z-0.125000
G01 X171.698573 Y191.993526 Z-0.125000
G00 Z3.000000

(End cutting path id: polyline641)


(Start cutting path id: polyline643)
(Change tool to Default tool)

G00 Z3.000000
G00 X14.861417 Y189.407836

G00 Z4.875000 (Fast pre-penetrate)
G01 Z-0.125000 F400.0(Penetrate)
G01 X20.918119 Y189.965180 Z-0.125000 F800.000000
G01 X25.699742 Y190.141339 Z-0.125000
G01 X30.375109 Y190.068261 Z-0.125000
G01 X42.594822 Y189.585212 Z-0.125000
G01 X49.182833 Y189.467605 Z-0.125000
G01 X57.577231 Y189.499831 Z-0.125000
G01 X78.297573 Y189.842043 Z-0.125000
G01 X93.811291 Y189.891970 Z-0.125000
G01 X106.668517 Y189.828311 Z-0.125000
G01 X120.375848 Y189.458794 Z-0.125000
G01 X123.988623 Y189.559336 Z-0.125000
G01 X129.832811 Y190.060800 Z-0.125000
G01 X131.957995 Y190.143218 Z-0.125000
G01 X134.295665 Y190.002460 Z-0.125000
G01 X138.546006 Y189.288482 Z-0.125000
G01 X140.352393 Y189.152460 Z-0.125000
G01 X142.158781 Y189.336980 Z-0.125000
G01 X145.665299 Y190.305883 Z-0.125000
G01 X147.259174 Y190.507099 Z-0.125000
G01 X148.002970 Y190.451986 Z-0.125000
G01 X148.853048 Y190.262836 Z-0.125000
G01 X151.934541 Y189.002389 Z-0.125000
G01 X152.678336 Y188.800618 Z-0.125000
G01 X153.422159 Y188.731535 Z-0.125000
G01 X154.059698 Y188.796623 Z-0.125000
G01 X154.803494 Y189.019349 Z-0.125000
G01 X157.778729 Y190.666325 Z-0.125000
G01 X158.522552 Y190.920589 Z-0.125000
G01 X159.160091 Y190.984698 Z-0.125000
G01 X159.797630 Y190.887384 Z-0.125000
G01 X160.404821 Y190.647169 Z-0.125000
G01 X161.133457 Y190.199071 Z-0.125000
G01 X163.228266 Y188.633401 Z-0.125000
G01 X163.941714 Y188.301085 Z-0.125000
G01 X164.579253 Y188.194934 Z-0.125000
G01 X165.323076 Y188.330030 Z-0.125000
G01 X166.040307 Y188.714231 Z-0.125000
G01 X168.431132 Y190.856666 Z-0.125000
G01 X168.966198 Y191.236766 Z-0.125000
G01 X169.467133 Y191.474520 Z-0.125000
G01 X169.998442 Y191.577628 Z-0.125000
G01 X170.529725 Y191.513493 Z-0.125000
G01 X171.061008 Y191.282142 Z-0.125000
G01 X171.698573 Y190.810126 Z-0.125000
G00 Z3.000000

(End cutting path id: polyline643)


(Start cutting path id: polyline645)
(Change tool to Default tool)

G00 Z3.000000
G00 X14.861417 Y187.981363

G00 Z4.875000 (Fast pre-penetrate)
G01 Z-0.125000 F400.0(Penetrate)
G01 X21.980711 Y188.627581 Z-0.125000 F800.000000
G01 X26.974847 Y188.818027 Z-0.125000
G01 X31.756471 Y188.744685 Z-0.125000
G01 X43.976157 Y188.257006 Z-0.125000
G01 X50.245398 Y188.143896 Z-0.125000
G01 X58.108514 Y188.176810 Z-0.125000
G01 X78.085060 Y188.521218 Z-0.125000
G01 X94.130061 Y188.570298 Z-0.125000
G01 X107.093569 Y188.507433 Z-0.125000
G01 X120.800874 Y188.135906 Z-0.125000
G01 X124.413649 Y188.240892 Z-0.125000
G01 X130.151581 Y188.737779 Z-0.125000
G01 X132.276765 Y188.820223 Z-0.125000
G01 X134.614435 Y188.677322 Z-0.125000
G01 X138.864776 Y187.960302 Z-0.125000
G01 X140.671163 Y187.830048 Z-0.125000
G01 X142.477551 Y188.024437 Z-0.125000
G01 X145.984069 Y188.999108 Z-0.125000
G01 X147.471687 Y189.184263 Z-0.125000
G01 X148.215483 Y189.133304 Z-0.125000
G01 X149.065561 Y188.947197 Z-0.125000
G01 X152.253310 Y187.648279 Z-0.125000
G01 X152.997106 Y187.460134 Z-0.125000
G01 X153.634672 Y187.408329 Z-0.125000
G01 X154.272211 Y187.472861 Z-0.125000
G01 X155.016033 Y187.695666 Z-0.125000
G01 X157.991242 Y189.348146 Z-0.125000
G01 X158.735065 Y189.601034 Z-0.125000
G01 X159.372604 Y189.661571 Z-0.125000
G01 X160.010169 Y189.559124 Z-0.125000
G01 X160.586987 Y189.328725 Z-0.125000
G01 X161.315622 Y188.880522 Z-0.125000
G01 X163.410431 Y187.310619 Z-0.125000
G01 X164.154227 Y186.968645 Z-0.125000
G01 X164.791766 Y186.872363 Z-0.125000
G01 X165.429332 Y186.983435 Z-0.125000
G01 X166.142780 Y187.345940 Z-0.125000
G01 X166.837258 Y187.893521 Z-0.125000
G01 X168.510824 Y189.467076 Z-0.125000
G01 X169.057294 Y189.873475 Z-0.125000
G01 X169.573390 Y190.134778 Z-0.125000
G01 X170.104699 Y190.252279 Z-0.125000
G01 X170.635982 Y190.201849 Z-0.125000
G01 X171.152104 Y189.991744 Z-0.125000
G01 X171.698573 Y189.610824 Z-0.125000
G00 Z3.000000

(End cutting path id: polyline645)


(Start cutting path id: polyline647)
(Change tool to Default tool)

G00 Z3.000000
G00 X14.861417 Y186.575501

G00 Z4.875000 (Fast pre-penetrate)
G01 Z-0.125000 F400.0(Penetrate)
G01 X23.255816 Y187.302469 Z-0.125000 F800.000000
G01 X28.249952 Y187.494451 Z-0.125000
G01 X32.500266 Y187.441667 Z-0.125000
G01 X44.294953 Y186.962031 Z-0.125000
G01 X51.307990 Y186.820373 Z-0.125000
G01 X58.746053 Y186.853922 Z-0.125000
G01 X78.085060 Y187.199891 Z-0.125000
G01 X94.448830 Y187.247886 Z-0.125000
G01 X107.306083 Y187.186688 Z-0.125000
G01 X121.013387 Y186.812991 Z-0.125000
G01 X124.626162 Y186.914670 Z-0.125000
G01 X130.364121 Y187.411478 Z-0.125000
G01 X132.489278 Y187.497414 Z-0.125000
G01 X134.826948 Y187.358614 Z-0.125000
G01 X139.077289 Y186.640642 Z-0.125000
G01 X140.883676 Y186.506868 Z-0.125000
G01 X142.690064 Y186.698770 Z-0.125000
G01 X146.090326 Y187.650184 Z-0.125000
G01 X147.684200 Y187.861136 Z-0.125000
G01 X148.428022 Y187.810046 Z-0.125000
G01 X149.278074 Y187.623091 Z-0.125000
G01 X152.465823 Y186.320576 Z-0.125000
G01 X153.209619 Y186.134812 Z-0.125000
G01 X153.847185 Y186.085441 Z-0.125000
G01 X154.484724 Y186.153306 Z-0.125000
G01 X155.213359 Y186.374312 Z-0.125000
G01 X158.127873 Y188.004937 Z-0.125000
G01 X158.841321 Y188.261345 Z-0.125000
G01 X159.478860 Y188.340111 Z-0.125000
G01 X160.116426 Y188.255815 Z-0.125000
G01 X160.753965 Y188.009647 Z-0.125000
G01 X161.497761 Y187.551654 Z-0.125000
G01 X163.683666 Y185.925553 Z-0.125000
G01 X164.366740 Y185.631019 Z-0.125000
G01 X165.004306 Y185.550983 Z-0.125000
G01 X165.641845 Y185.680311 Z-0.125000
G01 X166.324945 Y186.041705 Z-0.125000
G01 X166.996642 Y186.577062 Z-0.125000
G01 X168.670209 Y188.152495 Z-0.125000
G01 X169.603764 Y188.766010 Z-0.125000
G01 X170.104699 Y188.913912 Z-0.125000
G01 X170.635982 Y188.908938 Z-0.125000
G01 X171.152104 Y188.740293 Z-0.125000
G01 X171.698573 Y188.396256 Z-0.125000
G00 Z3.000000

(End cutting path id: polyline647)


(Start cutting path id: polyline649)
(Change tool to Default tool)

G00 Z3.000000
G00 X14.861417 Y185.199299

G00 Z4.875000 (Fast pre-penetrate)
G01 Z-0.125000 F400.0(Penetrate)
G01 X17.517857 Y185.352228 Z-0.125000 F800.000000
G01 X24.849690 Y185.996488 Z-0.125000
G01 X29.631314 Y186.171483 Z-0.125000
G01 X33.987884 Y186.116265 Z-0.125000
G01 X45.570032 Y185.638189 Z-0.125000
G01 X52.370556 Y185.497167 Z-0.125000
G01 X59.383619 Y185.529684 Z-0.125000
G01 X78.191316 Y185.877029 Z-0.125000
G01 X94.661343 Y185.925077 Z-0.125000
G01 X107.518596 Y185.862582 Z-0.125000
G01 X121.225900 Y185.490049 Z-0.125000
G01 X124.838675 Y185.593422 Z-0.125000
G01 X130.576634 Y186.090097 Z-0.125000
G01 X132.701791 Y186.174526 Z-0.125000
G01 X135.039461 Y186.033344 Z-0.125000
G01 X139.289802 Y185.314975 Z-0.125000
G01 X141.096189 Y185.184165 Z-0.125000
G01 X142.902577 Y185.380856 Z-0.125000
G01 X146.409095 Y186.358305 Z-0.125000
G01 X147.896713 Y186.538354 Z-0.125000
G01 X148.640535 Y186.482606 Z-0.125000
G01 X149.384331 Y186.321554 Z-0.125000
G01 X152.572080 Y185.020626 Z-0.125000
G01 X153.315876 Y184.823671 Z-0.125000
G01 X154.059698 Y184.763637 Z-0.125000
G01 X154.697237 Y184.839413 Z-0.125000
G01 X155.334803 Y185.033035 Z-0.125000
G01 X156.124133 Y185.412368 Z-0.125000
G01 X158.310039 Y186.690568 Z-0.125000
G01 X159.053834 Y186.949648 Z-0.125000
G01 X159.691373 Y187.016270 Z-0.125000
G01 X160.328939 Y186.918454 Z-0.125000
G01 X160.951291 Y186.667073 Z-0.125000
G01 X161.679926 Y186.209848 Z-0.125000
G01 X163.774736 Y184.635764 Z-0.125000
G01 X164.472997 Y184.319746 Z-0.125000
G01 X165.110562 Y184.226745 Z-0.125000
G01 X165.748102 Y184.343770 Z-0.125000
G01 X166.507084 Y184.745963 Z-0.125000
G01 X168.829594 Y186.850006 Z-0.125000
G01 X169.694833 Y187.424336 Z-0.125000
G01 X170.210955 Y187.587320 Z-0.125000
G01 X170.742238 Y187.589701 Z-0.125000
G01 X171.243173 Y187.434708 Z-0.125000
G01 X171.698573 Y187.167215 Z-0.125000
G00 Z3.000000

(End cutting path id: polyline649)


(Start cutting path id: polyline651)
(Change tool to Default tool)

G00 Z3.000000
G00 X14.861417 Y183.861091

G00 Z4.875000 (Fast pre-penetrate)
G01 Z-0.125000 F400.0(Penetrate)
G01 X18.261679 Y183.988647 Z-0.125000 F800.000000
G01 X26.549821 Y184.693787 Z-0.125000
G01 X31.012675 Y184.848250 Z-0.125000
G01 X35.475502 Y184.791550 Z-0.125000
G01 X46.951393 Y184.311464 Z-0.125000
G01 X53.433147 Y184.174278 Z-0.125000
G01 X60.233671 Y184.207139 Z-0.125000
G01 X78.403829 Y184.552579 Z-0.125000
G01 X94.448830 Y184.602003 Z-0.125000
G01 X107.412339 Y184.540249 Z-0.125000
G01 X121.332157 Y184.167161 Z-0.125000
G01 X124.944932 Y184.270983 Z-0.125000
G01 X130.682890 Y184.765833 Z-0.125000
G01 X132.808047 Y184.851611 Z-0.125000
G01 X135.145744 Y184.714213 Z-0.125000
G01 X139.502315 Y183.982614 Z-0.125000
G01 X141.202446 Y183.860959 Z-0.125000
G01 X143.008833 Y184.049236 Z-0.125000
G01 X146.515352 Y185.025680 Z-0.125000
G01 X148.002970 Y185.215518 Z-0.125000
G01 X148.746792 Y185.165935 Z-0.125000
G01 X149.596844 Y184.980330 Z-0.125000
G01 X152.784593 Y183.676465 Z-0.125000
G01 X153.528415 Y183.489299 Z-0.125000
G01 X154.165954 Y183.439955 Z-0.125000
G01 X154.803494 Y183.508402 Z-0.125000
G01 X155.547316 Y183.737478 Z-0.125000
G01 X158.416295 Y185.350138 Z-0.125000
G01 X159.160091 Y185.618425 Z-0.125000
G01 X159.797630 Y185.693646 Z-0.125000
G01 X160.435196 Y185.604535 Z-0.125000
G01 X161.042387 Y185.368368 Z-0.125000
G01 X161.770996 Y184.919847 Z-0.125000
G01 X163.865805 Y183.338064 Z-0.125000
G01 X164.579253 Y183.004848 Z-0.125000
G01 X165.216819 Y182.903221 Z-0.125000
G01 X165.960615 Y183.050118 Z-0.125000
G01 X166.677873 Y183.450432 Z-0.125000
G01 X168.909286 Y185.489785 Z-0.125000
G01 X169.785903 Y186.085811 Z-0.125000
G01 X170.317212 Y186.262156 Z-0.125000
G01 X170.742238 Y186.281444 Z-0.125000
G01 X171.243173 Y186.162699 Z-0.125000
G01 X171.698573 Y185.924839 Z-0.125000
G00 Z3.000000

(End cutting path id: polyline651)


(Start cutting path id: polyline653)
(Change tool to Default tool)

G00 Z3.000000
G00 X14.861417 Y182.567624

G00 Z4.875000 (Fast pre-penetrate)
G01 Z-0.125000 F400.0(Penetrate)
G01 X18.580449 Y182.603264 Z-0.125000 F800.000000
G01 X27.399873 Y183.334677 Z-0.125000
G01 X32.500266 Y183.525627 Z-0.125000
G01 X36.963120 Y183.467656 Z-0.125000
G01 X48.332754 Y182.985639 Z-0.125000
G01 X54.601996 Y182.851019 Z-0.125000
G01 X61.083750 Y182.883113 Z-0.125000
G01 X78.828856 Y183.227574 Z-0.125000
G01 X94.130061 Y183.278480 Z-0.125000
G01 X107.199826 Y183.215959 Z-0.125000
G01 X121.225900 Y182.844219 Z-0.125000
G01 X124.944932 Y182.947566 Z-0.125000
G01 X130.682890 Y183.438737 Z-0.125000
G01 X132.808047 Y183.528669 Z-0.125000
G01 X135.252000 Y183.388414 Z-0.125000
G01 X139.502315 Y182.673511 Z-0.125000
G01 X141.308702 Y182.538097 Z-0.125000
G01 X143.115090 Y182.725792 Z-0.125000
G01 X146.621608 Y183.700913 Z-0.125000
G01 X148.109226 Y183.892497 Z-0.125000
G01 X148.853048 Y183.844634 Z-0.125000
G01 X149.703101 Y183.660961 Z-0.125000
G01 X152.890849 Y182.358233 Z-0.125000
G01 X153.634672 Y182.168660 Z-0.125000
G01 X154.272211 Y182.116696 Z-0.125000
G01 X154.909750 Y182.182312 Z-0.125000
G01 X155.653572 Y182.407922 Z-0.125000
G01 X158.628808 Y184.069001 Z-0.125000
G01 X159.266347 Y184.291965 Z-0.125000
G01 X159.903886 Y184.370837 Z-0.125000
G01 X160.541452 Y184.285482 Z-0.125000
G01 X161.224526 Y184.013359 Z-0.125000
G01 X161.953161 Y183.551847 Z-0.125000
G01 X163.956901 Y182.032267 Z-0.125000
G01 X164.685510 Y181.686378 Z-0.125000
G01 X165.323076 Y181.580254 Z-0.125000
G01 X166.051684 Y181.716831 Z-0.125000
G01 X166.757565 Y182.101323 Z-0.125000
G01 X168.988979 Y184.137977 Z-0.125000
G01 X169.892186 Y184.758663 Z-0.125000
G01 X170.423468 Y184.938023 Z-0.125000
G01 X170.848495 Y184.959137 Z-0.125000
G01 X171.273521 Y184.869100 Z-0.125000
G01 X171.698573 Y184.670213 Z-0.125000
G00 Z3.000000

(End cutting path id: polyline653)


(Start cutting path id: polyline655)
(Change tool to Default tool)

G00 Z3.000000
G00 X14.861417 Y181.322761

G00 Z4.875000 (Fast pre-penetrate)
G01 Z-0.125000 F400.0(Penetrate)
G01 X17.092831 Y181.218463 Z-0.125000 F800.000000
G01 X19.536784 Y181.261272 Z-0.125000
G01 X28.993748 Y182.020996 Z-0.125000
G01 X34.094141 Y182.203505 Z-0.125000
G01 X38.556995 Y182.141408 Z-0.125000
G01 X49.607859 Y181.664894 Z-0.125000
G01 X55.770844 Y181.528237 Z-0.125000
G01 X62.146315 Y181.560807 Z-0.125000
G01 X79.253908 Y181.899473 Z-0.125000
G01 X93.917548 Y181.953977 Z-0.125000
G01 X106.881030 Y181.889419 Z-0.125000
G01 X121.119643 Y181.521304 Z-0.125000
G01 X124.838675 Y181.623486 Z-0.125000
G01 X130.789147 Y182.124686 Z-0.125000
G01 X132.914304 Y182.205701 Z-0.125000
G01 X135.252000 Y182.068250 Z-0.125000
G01 X139.608571 Y181.342711 Z-0.125000
G01 X141.414959 Y181.215552 Z-0.125000
G01 X143.221346 Y181.410656 Z-0.125000
G01 X146.727891 Y182.384030 Z-0.125000
G01 X148.215483 Y182.569529 Z-0.125000
G01 X148.959305 Y182.518915 Z-0.125000
G01 X149.809357 Y182.332781 Z-0.125000
G01 X152.997106 Y181.031244 Z-0.125000
G01 X153.740928 Y180.843919 Z-0.125000
G01 X154.378467 Y180.793701 Z-0.125000
G01 X155.016033 Y180.860826 Z-0.125000
G01 X155.759829 Y181.087362 Z-0.125000
G01 X158.674343 Y182.720739 Z-0.125000
G01 X159.372604 Y182.970373 Z-0.125000
G01 X160.010169 Y183.048160 Z-0.125000
G01 X160.647709 Y182.961774 Z-0.125000
G01 X161.315622 Y182.696926 Z-0.125000
G01 X162.135327 Y182.172814 Z-0.125000
G01 X164.047971 Y180.718454 Z-0.125000
G01 X164.791766 Y180.363701 Z-0.125000
G01 X165.429332 Y180.257735 Z-0.125000
G01 X166.173128 Y180.400795 Z-0.125000
G01 X166.871415 Y180.785843 Z-0.125000
G01 X169.068671 Y182.794425 Z-0.125000
G01 X169.998442 Y183.437124 Z-0.125000
G01 X170.423468 Y183.593307 Z-0.125000
G01 X170.848495 Y183.641276 Z-0.125000
G01 X171.273521 Y183.578014 Z-0.125000
G01 X171.698573 Y183.404553 Z-0.125000
G00 Z3.000000

(End cutting path id: polyline655)


(Start cutting path id: polyline657)
(Change tool to Default tool)

G00 Z3.000000
G00 X14.861417 Y180.126370

G00 Z4.875000 (Fast pre-penetrate)
G01 Z-0.125000 F400.0(Penetrate)
G01 X17.624114 Y179.915974 Z-0.125000 F800.000000
G01 X20.493093 Y179.921159 Z-0.125000
G01 X30.587622 Y180.704352 Z-0.125000
G01 X35.688015 Y180.881040 Z-0.125000
G01 X40.044612 Y180.819577 Z-0.125000
G01 X51.095477 Y180.338222 Z-0.125000
G01 X57.045922 Y180.205216 Z-0.125000
G01 X63.208907 Y180.236728 Z-0.125000
G01 X79.891447 Y180.570208 Z-0.125000
G01 X93.811291 Y180.627596 Z-0.125000
G01 X106.456004 Y180.560233 Z-0.125000
G01 X120.907130 Y180.198416 Z-0.125000
G01 X124.732419 Y180.305202 Z-0.125000
G01 X130.682890 Y180.800633 Z-0.125000
G01 X132.808047 Y180.882892 Z-0.125000
G01 X135.252000 Y180.741049 Z-0.125000
G01 X139.608571 Y180.020008 Z-0.125000
G01 X141.414959 Y179.892479 Z-0.125000
G01 X143.221346 Y180.082502 Z-0.125000
G01 X146.727891 Y181.050770 Z-0.125000
G01 X148.321739 Y181.246403 Z-0.125000
G01 X149.065561 Y181.188512 Z-0.125000
G01 X149.809357 Y181.026614 Z-0.125000
G01 X152.997106 Y179.731268 Z-0.125000
G01 X153.740928 Y179.533281 Z-0.125000
G01 X154.484724 Y179.471342 Z-0.125000
G01 X155.122290 Y179.544234 Z-0.125000
G01 X155.850898 Y179.770294 Z-0.125000
G01 X158.765412 Y181.402374 Z-0.125000
G01 X159.478860 Y181.653199 Z-0.125000
G01 X160.116426 Y181.725324 Z-0.125000
G01 X160.753965 Y181.633461 Z-0.125000
G01 X161.391504 Y181.379620 Z-0.125000
G01 X162.135327 Y180.913901 Z-0.125000
G01 X164.230136 Y179.341141 Z-0.125000
G01 X164.898049 Y179.035918 Z-0.125000
G01 X165.535589 Y178.935111 Z-0.125000
G01 X166.279384 Y179.084045 Z-0.125000
G01 X166.962485 Y179.462902 Z-0.125000
G01 X169.148364 Y181.458731 Z-0.125000
G01 X170.059138 Y182.098386 Z-0.125000
G01 X170.848495 Y182.317276 Z-0.125000
G01 X171.273521 Y182.278647 Z-0.125000
G01 X171.698573 Y182.129157 Z-0.125000
G00 Z3.000000

(End cutting path id: polyline657)


(Start cutting path id: polyline659)
(Change tool to Default tool)

G00 Z3.000000
G00 X14.861417 Y178.973185

G00 Z4.875000 (Fast pre-penetrate)
G01 Z-0.125000 F400.0(Penetrate)
G01 X18.155423 Y178.633381 Z-0.125000 F800.000000
G01 X21.449428 Y178.583904 Z-0.125000
G01 X24.318381 Y178.736568 Z-0.125000
G01 X32.394010 Y179.397655 Z-0.125000
G01 X37.919455 Y179.559951 Z-0.125000
G01 X42.594822 Y179.462584 Z-0.125000
G01 X53.326891 Y178.987631 Z-0.125000
G01 X58.321027 Y178.882830 Z-0.125000
G01 X64.377755 Y178.912384 Z-0.125000
G01 X80.741526 Y179.239329 Z-0.125000
G01 X93.598752 Y179.298093 Z-0.125000
G01 X105.818465 Y179.229407 Z-0.125000
G01 X120.907130 Y178.876692 Z-0.125000
G01 X124.519905 Y178.986943 Z-0.125000
G01 X130.470377 Y179.474702 Z-0.125000
G01 X132.701791 Y179.559951 Z-0.125000
G01 X135.145744 Y179.418822 Z-0.125000
G01 X139.502315 Y178.705004 Z-0.125000
G01 X141.308702 Y178.569140 Z-0.125000
G01 X143.115090 Y178.742310 Z-0.125000
G01 X146.727891 Y179.725950 Z-0.125000
G01 X148.321739 Y179.923594 Z-0.125000
G01 X149.065561 Y179.868851 Z-0.125000
G01 X149.915614 Y179.680653 Z-0.125000
G01 X153.103363 Y178.386631 Z-0.125000
G01 X153.847185 Y178.199888 Z-0.125000
G01 X154.484724 Y178.147765 Z-0.125000
G01 X155.122290 Y178.211292 Z-0.125000
G01 X155.866085 Y178.432351 Z-0.125000
G01 X158.856508 Y180.092636 Z-0.125000
G01 X159.585117 Y180.339492 Z-0.125000
G01 X160.222683 Y180.401589 Z-0.125000
G01 X160.860222 Y180.300016 Z-0.125000
G01 X161.497761 Y180.038052 Z-0.125000
G01 X162.215019 Y179.585298 Z-0.125000
G01 X164.321206 Y178.008595 Z-0.125000
G01 X165.004306 Y177.703531 Z-0.125000
G01 X165.641845 Y177.612567 Z-0.125000
G01 X166.279384 Y177.731762 Z-0.125000
G01 X167.053554 Y178.148136 Z-0.125000
G01 X169.228056 Y180.131767 Z-0.125000
G01 X170.059138 Y180.731762 Z-0.125000
G01 X170.848495 Y180.988699 Z-0.125000
G01 X171.273521 Y180.972453 Z-0.125000
G01 X171.698573 Y180.845216 Z-0.125000
G00 Z3.000000

(End cutting path id: polyline659)


(Start cutting path id: polyline661)
(Change tool to Default tool)

G00 Z3.000000
G00 X14.861417 Y177.852120

G00 Z4.875000 (Fast pre-penetrate)
G01 Z-0.125000 F400.0(Penetrate)
G01 X18.474192 Y177.390344 Z-0.125000 F800.000000
G01 X21.661941 Y177.246278 Z-0.125000
G01 X25.274716 Y177.375580 Z-0.125000
G01 X34.306680 Y178.093261 Z-0.125000
G01 X39.194534 Y178.236665 Z-0.125000
G01 X43.444874 Y178.166313 Z-0.125000
G01 X54.070686 Y177.691254 Z-0.125000
G01 X59.808645 Y177.559492 Z-0.125000
G01 X65.652834 Y177.587617 Z-0.125000
G01 X81.697835 Y177.904772 Z-0.125000
G01 X93.598752 Y177.963695 Z-0.125000
G01 X105.180899 Y177.892813 Z-0.125000
G01 X120.163308 Y177.552930 Z-0.125000
G01 X124.094879 Y177.663261 Z-0.125000
G01 X130.257864 Y178.154803 Z-0.125000
G01 X132.595534 Y178.236639 Z-0.125000
G01 X134.933204 Y178.101040 Z-0.125000
G01 X139.502315 Y177.368145 Z-0.125000
G01 X141.308702 Y177.246754 Z-0.125000
G01 X143.115090 Y177.431222 Z-0.125000
G01 X146.727891 Y178.409703 Z-0.125000
G01 X148.321739 Y178.600599 Z-0.125000
G01 X149.065561 Y178.544322 Z-0.125000
G01 X149.915614 Y178.356177 Z-0.125000
G01 X153.103363 Y177.068425 Z-0.125000
G01 X153.847185 Y176.880095 Z-0.125000
G01 X154.484724 Y176.824771 Z-0.125000
G01 X155.122290 Y176.883641 Z-0.125000
G01 X155.866085 Y177.098165 Z-0.125000
G01 X156.670603 Y177.482154 Z-0.125000
G01 X158.856508 Y178.750803 Z-0.125000
G01 X159.585117 Y179.006470 Z-0.125000
G01 X160.222683 Y179.079574 Z-0.125000
G01 X160.860222 Y178.990886 Z-0.125000
G01 X161.497761 Y178.741860 Z-0.125000
G01 X162.226396 Y178.293048 Z-0.125000
G01 X164.321206 Y176.721319 Z-0.125000
G01 X165.004306 Y176.400248 Z-0.125000
G01 X165.641845 Y176.289440 Z-0.125000
G01 X166.385641 Y176.423504 Z-0.125000
G01 X167.144650 Y176.841281 Z-0.125000
G01 X169.387441 Y178.882909 Z-0.125000
G01 X170.150234 Y179.418214 Z-0.125000
G01 X170.954751 Y179.668721 Z-0.125000
G01 X171.698573 Y179.553892 Z-0.125000
G00 Z3.000000

(End cutting path id: polyline661)


(Start cutting path id: polyline663)
(Change tool to Default tool)

G00 Z3.000000
G00 X14.861417 Y176.746031

G00 Z4.875000 (Fast pre-penetrate)
G01 Z-0.125000 F400.0(Penetrate)
G01 X19.536784 Y176.101428 Z-0.125000 F800.000000
G01 X23.362072 Y175.923284 Z-0.125000
G01 X26.974847 Y176.063592 Z-0.125000
G01 X35.688015 Y176.755265 Z-0.125000
G01 X40.257126 Y176.910125 Z-0.125000
G01 X44.932492 Y176.849086 Z-0.125000
G01 X55.664561 Y176.367995 Z-0.125000
G01 X61.296263 Y176.237079 Z-0.125000
G01 X67.140452 Y176.263776 Z-0.125000
G01 X82.760427 Y176.565506 Z-0.125000
G01 X93.492495 Y176.622391 Z-0.125000
G01 X104.437103 Y176.551139 Z-0.125000
G01 X119.206999 Y176.229644 Z-0.125000
G01 X123.457314 Y176.335372 Z-0.125000
G01 X129.939068 Y176.833846 Z-0.125000
G01 X132.276765 Y176.913830 Z-0.125000
G01 X134.826948 Y176.763229 Z-0.125000
G01 X139.289802 Y176.052400 Z-0.125000
G01 X141.096189 Y175.923231 Z-0.125000
G01 X143.008833 Y176.108756 Z-0.125000
G01 X146.727891 Y177.101736 Z-0.125000
G01 X148.321739 Y177.277076 Z-0.125000
G01 X149.809357 Y177.052683 Z-0.125000
G01 X153.103363 Y175.741118 Z-0.125000
G01 X153.847185 Y175.555752 Z-0.125000
G01 X154.484724 Y175.501856 Z-0.125000
G01 X155.122290 Y175.560752 Z-0.125000
G01 X155.866085 Y175.773503 Z-0.125000
G01 X156.670603 Y176.154106 Z-0.125000
G01 X158.856508 Y177.418125 Z-0.125000
G01 X159.585117 Y177.677601 Z-0.125000
G01 X160.222683 Y177.756791 Z-0.125000
G01 X160.860222 Y177.676120 Z-0.125000
G01 X161.588857 Y177.390106 Z-0.125000
G01 X162.317492 Y176.931715 Z-0.125000
G01 X164.412275 Y175.371284 Z-0.125000
G01 X165.110562 Y175.058732 Z-0.125000
G01 X165.748102 Y174.966287 Z-0.125000
G01 X166.491897 Y175.120486 Z-0.125000
G01 X167.235720 Y175.542311 Z-0.125000
G01 X169.387441 Y177.505861 Z-0.125000
G01 X170.150234 Y178.059289 Z-0.125000
G01 X170.954751 Y178.339323 Z-0.125000
G01 X171.698573 Y178.256324 Z-0.125000
G00 Z3.000000

(End cutting path id: polyline663)


(Start cutting path id: polyline665)
(Change tool to Default tool)

G00 Z3.000000
G00 X14.861417 Y175.632375

G00 Z4.875000 (Fast pre-penetrate)
G01 Z-0.125000 F400.0(Penetrate)
G01 X20.493093 Y174.830874 Z-0.125000 F800.000000
G01 X24.424664 Y174.601956 Z-0.125000
G01 X28.356209 Y174.726575 Z-0.125000
G01 X37.600686 Y175.444256 Z-0.125000
G01 X41.957257 Y175.586972 Z-0.125000
G01 X46.632623 Y175.526938 Z-0.125000
G01 X57.258435 Y175.048228 Z-0.125000
G01 X62.890137 Y174.914852 Z-0.125000
G01 X68.628070 Y174.937262 Z-0.125000
G01 X83.929275 Y175.220128 Z-0.125000
G01 X93.492495 Y175.271986 Z-0.125000
G01 X103.480768 Y175.204756 Z-0.125000
G01 X118.250664 Y174.906756 Z-0.125000
G01 X122.819774 Y175.015500 Z-0.125000
G01 X129.407785 Y175.505719 Z-0.125000
G01 X131.745456 Y175.591179 Z-0.125000
G01 X134.401922 Y175.452485 Z-0.125000
G01 X139.077289 Y174.728374 Z-0.125000
G01 X140.883676 Y174.600263 Z-0.125000
G01 X142.796320 Y174.775761 Z-0.125000
G01 X146.621608 Y175.778927 Z-0.125000
G01 X148.215483 Y175.954478 Z-0.125000
G01 X148.959305 Y175.895635 Z-0.125000
G01 X149.809357 Y175.709077 Z-0.125000
G01 X152.997106 Y174.439264 Z-0.125000
G01 X153.740928 Y174.244849 Z-0.125000
G01 X154.484724 Y174.179126 Z-0.125000
G01 X155.122290 Y174.242600 Z-0.125000
G01 X155.866085 Y174.458314 Z-0.125000
G01 X156.670603 Y174.838943 Z-0.125000
G01 X158.856508 Y176.094945 Z-0.125000
G01 X159.585117 Y176.353443 Z-0.125000
G01 X160.222683 Y176.433850 Z-0.125000
G01 X160.860222 Y176.356406 Z-0.125000
G01 X161.588857 Y176.075948 Z-0.125000
G01 X162.317492 Y175.623723 Z-0.125000
G01 X164.412275 Y174.066890 Z-0.125000
G01 X165.110562 Y173.746586 Z-0.125000
G01 X165.748102 Y173.643160 Z-0.125000
G01 X166.491897 Y173.781511 Z-0.125000
G01 X167.235720 Y174.187328 Z-0.125000
G01 X169.467133 Y176.205594 Z-0.125000
G01 X170.241303 Y176.755821 Z-0.125000
G01 X170.954751 Y177.008392 Z-0.125000
G01 X171.698573 Y176.953464 Z-0.125000
G00 Z3.000000

(End cutting path id: polyline665)


(Start cutting path id: polyline667)
(Change tool to Default tool)

G00 Z3.000000
G00 X14.861417 Y174.485064

G00 Z4.875000 (Fast pre-penetrate)
G01 Z-0.125000 F400.0(Penetrate)
G01 X21.874454 Y173.522616 Z-0.125000 F800.000000
G01 X23.999611 Y173.345293 Z-0.125000
G01 X26.018539 Y173.278962 Z-0.125000
G01 X29.950083 Y173.400088 Z-0.125000
G01 X39.300817 Y174.117531 Z-0.125000
G01 X43.763644 Y174.264190 Z-0.125000
G01 X48.439011 Y174.203653 Z-0.125000
G01 X58.958566 Y173.728647 Z-0.125000
G01 X64.590268 Y173.593075 Z-0.125000
G01 X93.386239 Y173.910522 Z-0.125000
G01 X102.311946 Y173.852234 Z-0.125000
G01 X117.188099 Y173.583841 Z-0.125000
G01 X121.969722 Y173.693431 Z-0.125000
G01 X128.876503 Y174.185000 Z-0.125000
G01 X131.320429 Y174.268317 Z-0.125000
G01 X134.083152 Y174.120918 Z-0.125000
G01 X138.758519 Y173.410222 Z-0.125000
G01 X140.671163 Y173.277507 Z-0.125000
G01 X142.583807 Y173.452264 Z-0.125000
G01 X146.515352 Y174.464823 Z-0.125000
G01 X148.109226 Y174.631378 Z-0.125000
G01 X148.853048 Y174.571106 Z-0.125000
G01 X149.703101 Y174.385951 Z-0.125000
G01 X152.997106 Y173.093066 Z-0.125000
G01 X153.740928 Y172.910715 Z-0.125000
G01 X154.378467 Y172.856000 Z-0.125000
G01 X155.122290 Y172.929792 Z-0.125000
G01 X155.866085 Y173.152888 Z-0.125000
G01 X158.856508 Y174.781264 Z-0.125000
G01 X159.585117 Y175.034100 Z-0.125000
G01 X160.222683 Y175.110961 Z-0.125000
G01 X160.860222 Y175.032036 Z-0.125000
G01 X161.588857 Y174.752583 Z-0.125000
G01 X162.317492 Y174.303613 Z-0.125000
G01 X164.503371 Y172.701139 Z-0.125000
G01 X165.216819 Y172.398430 Z-0.125000
G01 X165.854358 Y172.321224 Z-0.125000
G01 X166.598180 Y172.488150 Z-0.125000
G01 X167.315412 Y172.896692 Z-0.125000
G01 X169.467133 Y174.844473 Z-0.125000
G01 X170.241303 Y175.405971 Z-0.125000
G01 X170.954751 Y175.676825 Z-0.125000
G01 X171.698573 Y175.646265 Z-0.125000
G00 Z3.000000

(End cutting path id: polyline667)


(Start cutting path id: polyline669)
(Change tool to Default tool)

G00 Z3.000000
G00 X14.861417 Y173.277136

G00 Z4.875000 (Fast pre-penetrate)
G01 Z-0.125000 F400.0(Penetrate)
G01 X17.199088 Y173.061290 Z-0.125000 F800.000000
G01 X23.574585 Y172.186102 Z-0.125000
G01 X27.612386 Y171.956497 Z-0.125000
G01 X31.118931 Y172.045264 Z-0.125000
G01 X40.363382 Y172.748764 Z-0.125000
G01 X45.570032 Y172.940666 Z-0.125000
G01 X50.245398 Y172.883040 Z-0.125000
G01 X60.871237 Y172.406023 Z-0.125000
G01 X66.502912 Y172.271086 Z-0.125000
G01 X93.386239 Y172.536965 Z-0.125000
G01 X115.700481 Y172.260899 Z-0.125000
G01 X120.907130 Y172.370887 Z-0.125000
G01 X128.238937 Y172.865445 Z-0.125000
G01 X130.682890 Y172.945402 Z-0.125000
G01 X133.551869 Y172.802157 Z-0.125000
G01 X138.439749 Y172.082782 Z-0.125000
G01 X140.352393 Y171.954433 Z-0.125000
G01 X142.371294 Y172.138794 Z-0.125000
G01 X146.196582 Y173.115503 Z-0.125000
G01 X147.896713 Y173.308992 Z-0.125000
G01 X148.640535 Y173.255917 Z-0.125000
G01 X149.490588 Y173.082192 Z-0.125000
G01 X152.890849 Y171.771818 Z-0.125000
G01 X153.634672 Y171.590076 Z-0.125000
G01 X154.272211 Y171.533349 Z-0.125000
G01 X155.016033 Y171.601559 Z-0.125000
G01 X155.759829 Y171.816453 Z-0.125000
G01 X156.579533 Y172.198035 Z-0.125000
G01 X158.856508 Y173.476711 Z-0.125000
G01 X159.585117 Y173.719228 Z-0.125000
G01 X160.222683 Y173.787887 Z-0.125000
G01 X160.860222 Y173.702930 Z-0.125000
G01 X161.588857 Y173.420091 Z-0.125000
G01 X162.317492 Y172.971543 Z-0.125000
G01 X164.503371 Y171.379997 Z-0.125000
G01 X165.216819 Y171.077764 Z-0.125000
G01 X165.854358 Y170.997886 Z-0.125000
G01 X166.598180 Y171.158170 Z-0.125000
G01 X167.315412 Y171.558061 Z-0.125000
G01 X169.546826 Y173.559684 Z-0.125000
G01 X170.241303 Y174.060143 Z-0.125000
G01 X170.954751 Y174.345364 Z-0.125000
G01 X171.698573 Y174.335468 Z-0.125000
G00 Z3.000000

(End cutting path id: polyline669)


(Start cutting path id: polyline671)
(Change tool to Default tool)

G00 Z3.000000
G00 X14.861417 Y171.984781

G00 Z4.875000 (Fast pre-penetrate)
G01 Z-0.125000 F400.0(Penetrate)
G01 X18.049166 Y171.815659 Z-0.125000 F800.000000
G01 X25.593486 Y170.825404 Z-0.125000
G01 X29.206261 Y170.634825 Z-0.125000
G01 X32.925319 Y170.723990 Z-0.125000
G01 X42.276026 Y171.425717 Z-0.125000
G01 X47.482676 Y171.617354 Z-0.125000
G01 X52.264299 Y171.558802 Z-0.125000
G01 X62.890137 Y171.085516 Z-0.125000
G01 X68.521813 Y170.950367 Z-0.125000
G01 X93.386239 Y171.152297 Z-0.125000
G01 X113.894093 Y170.937984 Z-0.125000
G01 X119.632026 Y171.049691 Z-0.125000
G01 X127.388885 Y171.541975 Z-0.125000
G01 X129.939068 Y171.622461 Z-0.125000
G01 X133.020560 Y171.472733 Z-0.125000
G01 X137.908440 Y170.772541 Z-0.125000
G01 X139.927341 Y170.631597 Z-0.125000
G01 X142.052524 Y170.816858 Z-0.125000
G01 X145.984069 Y171.799017 Z-0.125000
G01 X147.684200 Y171.985971 Z-0.125000
G01 X148.534279 Y171.920090 Z-0.125000
G01 X149.384331 Y171.737819 Z-0.125000
G01 X152.678336 Y170.473985 Z-0.125000
G01 X153.422159 Y170.283009 Z-0.125000
G01 X154.165954 Y170.210514 Z-0.125000
G01 X154.909750 Y170.278829 Z-0.125000
G01 X155.653572 Y170.490680 Z-0.125000
G01 X156.488464 Y170.873453 Z-0.125000
G01 X158.765412 Y172.141731 Z-0.125000
G01 X159.478860 Y172.385227 Z-0.125000
G01 X160.222683 Y172.463993 Z-0.125000
G01 X160.966478 Y172.337920 Z-0.125000
G01 X161.679926 Y172.029442 Z-0.125000
G01 X163.956901 Y170.393208 Z-0.125000
G01 X164.685510 Y169.956964 Z-0.125000
G01 X165.323076 Y169.727332 Z-0.125000
G01 X165.854358 Y169.674998 Z-0.125000
G01 X166.598180 Y169.833192 Z-0.125000
G01 X167.315412 Y170.227685 Z-0.125000
G01 X169.546826 Y172.214174 Z-0.125000
G01 X170.241303 Y172.718681 Z-0.125000
G01 X170.954751 Y173.014564 Z-0.125000
G01 X171.698573 Y173.021787 Z-0.125000
G00 Z3.000000

(End cutting path id: polyline671)


(Start cutting path id: polyline673)
(Change tool to Default tool)

G00 Z3.000000
G00 X14.861417 Y170.591804

G00 Z4.875000 (Fast pre-penetrate)
G01 Z-0.125000 F400.0(Penetrate)
G01 X16.774061 Y170.663056 Z-0.125000 F800.000000
G01 X18.686705 Y170.578390 Z-0.125000
G01 X26.762334 Y169.554295 Z-0.125000
G01 X31.012675 Y169.311593 Z-0.125000
G01 X34.731706 Y169.398429 Z-0.125000
G01 X44.294953 Y170.103543 Z-0.125000
G01 X49.501603 Y170.294069 Z-0.125000
G01 X54.283226 Y170.238215 Z-0.125000
G01 X65.015295 Y169.768422 Z-0.125000
G01 X70.753253 Y169.630680 Z-0.125000
G01 X93.386239 Y169.760458 Z-0.125000
G01 X111.662653 Y169.615069 Z-0.125000
G01 X118.038151 Y169.727597 Z-0.125000
G01 X126.432549 Y170.222155 Z-0.125000
G01 X129.089016 Y170.299546 Z-0.125000
G01 X132.276765 Y170.152887 Z-0.125000
G01 X137.483414 Y169.438831 Z-0.125000
G01 X139.502315 Y169.308629 Z-0.125000
G01 X141.627472 Y169.487779 Z-0.125000
G01 X145.771556 Y170.491845 Z-0.125000
G01 X147.471687 Y170.662686 Z-0.125000
G01 X148.321739 Y170.593206 Z-0.125000
G01 X149.171818 Y170.411464 Z-0.125000
G01 X152.465823 Y169.164326 Z-0.125000
G01 X153.315876 Y168.951098 Z-0.125000
G01 X154.059698 Y168.887599 Z-0.125000
G01 X154.803494 Y168.961523 Z-0.125000
G01 X155.547316 Y169.175015 Z-0.125000
G01 X158.735065 Y170.842496 Z-0.125000
G01 X159.478860 Y171.079457 Z-0.125000
G01 X160.116426 Y171.141899 Z-0.125000
G01 X160.753965 Y171.056650 Z-0.125000
G01 X161.497761 Y170.773282 Z-0.125000
G01 X162.226396 Y170.334815 Z-0.125000
G01 X164.412275 Y168.764435 Z-0.125000
G01 X165.110562 Y168.455693 Z-0.125000
G01 X165.748102 Y168.351659 Z-0.125000
G01 X166.491897 Y168.474346 Z-0.125000
G01 X167.315412 Y168.905246 Z-0.125000
G01 X169.546826 Y170.876178 Z-0.125000
G01 X170.332399 Y171.434448 Z-0.125000
G01 X171.061008 Y171.707048 Z-0.125000
G01 X171.698573 Y171.705725 Z-0.125000
G00 Z3.000000

(End cutting path id: polyline673)


(Start cutting path id: polyline675)
(Change tool to Default tool)

G00 Z3.000000
G00 X14.861417 Y169.094264

G00 Z4.875000 (Fast pre-penetrate)
G01 Z-0.125000 F400.0(Penetrate)
G01 X17.305344 Y169.323155 Z-0.125000 F800.000000
G01 X19.749297 Y169.292384 Z-0.125000
G01 X21.980711 Y169.084898 Z-0.125000
G01 X28.568722 Y168.227173 Z-0.125000
G01 X32.925319 Y167.988149 Z-0.125000
G01 X36.750607 Y168.079377 Z-0.125000
G01 X46.420110 Y168.781421 Z-0.125000
G01 X51.626760 Y168.970651 Z-0.125000
G01 X56.514640 Y168.915406 Z-0.125000
G01 X67.246708 Y168.456619 Z-0.125000
G01 X73.197180 Y168.313295 Z-0.125000
G01 X93.598752 Y168.369598 Z-0.125000
G01 X108.793700 Y168.292181 Z-0.125000
G01 X116.019251 Y168.404020 Z-0.125000
G01 X125.263728 Y168.901754 Z-0.125000
G01 X128.132680 Y168.976631 Z-0.125000
G01 X131.426686 Y168.829972 Z-0.125000
G01 X136.952131 Y168.107343 Z-0.125000
G01 X138.971032 Y167.985688 Z-0.125000
G01 X141.202446 Y168.170684 Z-0.125000
G01 X145.346530 Y169.153557 Z-0.125000
G01 X147.152917 Y169.339877 Z-0.125000
G01 X148.002970 Y169.275001 Z-0.125000
G01 X148.853048 Y169.102493 Z-0.125000
G01 X152.359567 Y167.810957 Z-0.125000
G01 X153.103363 Y167.631411 Z-0.125000
G01 X153.847185 Y167.564419 Z-0.125000
G01 X154.590980 Y167.629665 Z-0.125000
G01 X155.334803 Y167.830563 Z-0.125000
G01 X156.215229 Y168.220029 Z-0.125000
G01 X158.628808 Y169.520269 Z-0.125000
G01 X159.372604 Y169.754928 Z-0.125000
G01 X160.010169 Y169.818957 Z-0.125000
G01 X160.647709 Y169.739132 Z-0.125000
G01 X161.391504 Y169.465448 Z-0.125000
G01 X162.226396 Y168.966682 Z-0.125000
G01 X164.412275 Y167.418528 Z-0.125000
G01 X165.110562 Y167.122618 Z-0.125000
G01 X165.748102 Y167.028506 Z-0.125000
G01 X166.491897 Y167.158390 Z-0.125000
G01 X167.315412 Y167.590586 Z-0.125000
G01 X169.546826 Y169.545616 Z-0.125000
G01 X170.332399 Y170.102458 Z-0.125000
G01 X171.061008 Y170.379873 Z-0.125000
G01 X171.698573 Y170.387943 Z-0.125000
G00 Z3.000000

(End cutting path id: polyline675)


(Start cutting path id: polyline677)
(Change tool to Default tool)

G00 Z3.000000
G00 X14.861417 Y167.504068

G00 Z4.875000 (Fast pre-penetrate)
G01 Z-0.125000 F400.0(Penetrate)
G01 X17.942910 Y167.943037 Z-0.125000 F800.000000
G01 X20.918119 Y167.993705 Z-0.125000
G01 X23.468329 Y167.785452 Z-0.125000
G01 X30.693879 Y166.877879 Z-0.125000
G01 X33.031576 Y166.716192 Z-0.125000
G01 X35.475502 Y166.662826 Z-0.125000
G01 X39.619586 Y166.802129 Z-0.125000
G01 X49.395346 Y167.500178 Z-0.125000
G01 X53.964430 Y167.648001 Z-0.125000
G01 X58.958566 Y167.591459 Z-0.125000
G01 X69.690661 Y167.148733 Z-0.125000
G01 X75.747390 Y167.002048 Z-0.125000
G01 X104.649616 Y166.969239 Z-0.125000
G01 X113.469041 Y167.080153 Z-0.125000
G01 X123.988623 Y167.587385 Z-0.125000
G01 X127.176372 Y167.652552 Z-0.125000
G01 X130.470377 Y167.502348 Z-0.125000
G01 X136.208309 Y166.787841 Z-0.125000
G01 X138.439749 Y166.663038 Z-0.125000
G01 X140.671163 Y166.849092 Z-0.125000
G01 X144.921477 Y167.826938 Z-0.125000
G01 X146.727891 Y168.017623 Z-0.125000
G01 X147.577943 Y167.963728 Z-0.125000
G01 X148.534279 Y167.779975 Z-0.125000
G01 X152.040797 Y166.512331 Z-0.125000
G01 X152.890849 Y166.306591 Z-0.125000
G01 X153.634672 Y166.241557 Z-0.125000
G01 X154.378467 Y166.304475 Z-0.125000
G01 X155.228546 Y166.536011 Z-0.125000
G01 X158.416295 Y168.164123 Z-0.125000
G01 X159.160091 Y168.411825 Z-0.125000
G01 X159.903886 Y168.495804 Z-0.125000
G01 X160.541452 Y168.416641 Z-0.125000
G01 X161.285248 Y168.148036 Z-0.125000
G01 X162.135327 Y167.648133 Z-0.125000
G01 X164.321206 Y166.114954 Z-0.125000
G01 X165.110562 Y165.786421 Z-0.125000
G01 X165.748102 Y165.705909 Z-0.125000
G01 X166.491897 Y165.846931 Z-0.125000
G01 X167.315412 Y166.283652 Z-0.125000
G01 X169.546826 Y168.222305 Z-0.125000
G01 X170.332399 Y168.774780 Z-0.125000
G01 X171.061008 Y169.053836 Z-0.125000
G01 X171.698573 Y169.068626 Z-0.125000
G00 Z3.000000

(End cutting path id: polyline677)


(Start cutting path id: polyline679)
(Change tool to Default tool)

G00 Z3.000000
G00 X14.861417 Y165.850635

G00 Z4.875000 (Fast pre-penetrate)
G01 Z-0.125000 F400.0(Penetrate)
G01 X18.367936 Y166.493863 Z-0.125000 F800.000000
G01 X21.343172 Y166.694285 Z-0.125000
G01 X24.637177 Y166.524317 Z-0.125000
G01 X32.925319 Y165.530093 Z-0.125000
G01 X37.281890 Y165.340175 Z-0.125000
G01 X41.107204 Y165.440717 Z-0.125000
G01 X50.989221 Y166.133051 Z-0.125000
G01 X56.302127 Y166.323472 Z-0.125000
G01 X61.508776 Y166.270899 Z-0.125000
G01 X77.766290 Y165.711968 Z-0.125000
G01 X96.467731 Y165.646351 Z-0.125000
G01 X109.750009 Y165.746443 Z-0.125000
G01 X122.288492 Y166.267433 Z-0.125000
G01 X125.582497 Y166.330298 Z-0.125000
G01 X129.301529 Y166.176813 Z-0.125000
G01 X135.358257 Y165.466143 Z-0.125000
G01 X137.695927 Y165.340043 Z-0.125000
G01 X140.033597 Y165.524696 Z-0.125000
G01 X144.496451 Y166.512913 Z-0.125000
G01 X146.302839 Y166.694602 Z-0.125000
G01 X147.259174 Y166.631314 Z-0.125000
G01 X148.215483 Y166.445021 Z-0.125000
G01 X151.828284 Y165.167985 Z-0.125000
G01 X152.678336 Y164.975686 Z-0.125000
G01 X153.422159 Y164.918827 Z-0.125000
G01 X154.165954 Y164.985264 Z-0.125000
G01 X155.016033 Y165.215186 Z-0.125000
G01 X158.310039 Y166.864015 Z-0.125000
G01 X159.053834 Y167.098277 Z-0.125000
G01 X159.797630 Y167.172386 Z-0.125000
G01 X160.435196 Y167.089148 Z-0.125000
G01 X161.133457 Y166.842584 Z-0.125000
G01 X161.953161 Y166.377050 Z-0.125000
G01 X164.230136 Y164.802358 Z-0.125000
G01 X165.004306 Y164.475836 Z-0.125000
G01 X165.641845 Y164.382914 Z-0.125000
G01 X166.385641 Y164.503141 Z-0.125000
G01 X167.235720 Y164.930998 Z-0.125000
G01 X169.546826 Y166.906004 Z-0.125000
G01 X170.332399 Y167.451363 Z-0.125000
G01 X171.061008 Y167.729122 Z-0.125000
G01 X171.698573 Y167.748119 Z-0.125000
G00 Z3.000000

(End cutting path id: polyline679)


(Start cutting path id: polyline681)
(Change tool to Default tool)

G00 Z3.000000
G00 X14.861417 Y164.179476

G00 Z4.875000 (Fast pre-penetrate)
G01 Z-0.125000 F400.0(Penetrate)
G01 X19.643041 Y165.117873 Z-0.125000 F800.000000
G01 X21.449428 Y165.309828 Z-0.125000
G01 X23.255816 Y165.371793 Z-0.125000
G01 X26.549821 Y165.192115 Z-0.125000
G01 X34.731706 Y164.228371 Z-0.125000
G01 X38.982021 Y164.020885 Z-0.125000
G01 X43.338618 Y164.114045 Z-0.125000
G01 X53.539404 Y164.810216 Z-0.125000
G01 X58.958566 Y165.000107 Z-0.125000
G01 X64.377755 Y164.949386 Z-0.125000
G01 X79.891447 Y164.442975 Z-0.125000
G01 X93.173726 Y164.347328 Z-0.125000
G01 X106.774773 Y164.458267 Z-0.125000
G01 X123.563597 Y165.007886 Z-0.125000
G01 X127.813911 Y164.857655 Z-0.125000
G01 X134.508178 Y164.130634 Z-0.125000
G01 X136.952131 Y164.017948 Z-0.125000
G01 X139.396058 Y164.215698 Z-0.125000
G01 X143.965168 Y165.192565 Z-0.125000
G01 X145.877812 Y165.371370 Z-0.125000
G01 X146.727891 Y165.318215 Z-0.125000
G01 X147.684200 Y165.148459 Z-0.125000
G01 X151.509488 Y163.844091 Z-0.125000
G01 X152.359567 Y163.654676 Z-0.125000
G01 X153.209619 Y163.596547 Z-0.125000
G01 X153.953441 Y163.672324 Z-0.125000
G01 X154.803494 Y163.906030 Z-0.125000
G01 X158.097499 Y165.530887 Z-0.125000
G01 X158.841321 Y165.767477 Z-0.125000
G01 X159.585117 Y165.850530 Z-0.125000
G01 X160.328939 Y165.756100 Z-0.125000
G01 X161.042387 Y165.498714 Z-0.125000
G01 X161.862092 Y165.032968 Z-0.125000
G01 X164.139040 Y163.480263 Z-0.125000
G01 X164.898049 Y163.161149 Z-0.125000
G01 X165.641845 Y163.060555 Z-0.125000
G01 X166.385641 Y163.199884 Z-0.125000
G01 X167.235720 Y163.639224 Z-0.125000
G01 X169.546826 Y165.596371 Z-0.125000
G01 X170.332399 Y166.132019 Z-0.125000
G01 X171.061008 Y166.405731 Z-0.125000
G01 X171.698573 Y166.426659 Z-0.125000
G00 Z3.000000

(End cutting path id: polyline681)


(Start cutting path id: polyline683)
(Change tool to Default tool)

G00 Z3.000000
G00 X14.861417 Y162.547343

G00 Z4.875000 (Fast pre-penetrate)
G01 Z-0.125000 F400.0(Penetrate)
G01 X20.918119 Y163.729341 Z-0.125000 F800.000000
G01 X22.830790 Y163.957385 Z-0.125000
G01 X24.743434 Y164.047238 Z-0.125000
G01 X28.356209 Y163.878751 Z-0.125000
G01 X36.963120 Y162.900985 Z-0.125000
G01 X41.213461 Y162.699082 Z-0.125000
G01 X45.782545 Y162.790045 Z-0.125000
G01 X56.302127 Y163.487459 Z-0.125000
G01 X61.721289 Y163.674678 Z-0.125000
G01 X67.352991 Y163.634806 Z-0.125000
G01 X82.654170 Y163.192397 Z-0.125000
G01 X93.067469 Y163.107254 Z-0.125000
G01 X104.330847 Y163.212240 Z-0.125000
G01 X121.225900 Y163.684997 Z-0.125000
G01 X126.113780 Y163.531698 Z-0.125000
G01 X133.339330 Y162.809201 Z-0.125000
G01 X135.783283 Y162.694028 Z-0.125000
G01 X137.164645 Y162.742738 Z-0.125000
G01 X138.546006 Y162.891883 Z-0.125000
G01 X143.327603 Y163.867824 Z-0.125000
G01 X145.240273 Y164.048825 Z-0.125000
G01 X146.196582 Y163.996491 Z-0.125000
G01 X147.259174 Y163.810833 Z-0.125000
G01 X151.190719 Y162.506253 Z-0.125000
G01 X152.040797 Y162.327792 Z-0.125000
G01 X152.890849 Y162.273950 Z-0.125000
G01 X153.634672 Y162.347636 Z-0.125000
G01 X154.484724 Y162.571949 Z-0.125000
G01 X155.395524 Y162.954722 Z-0.125000
G01 X157.884986 Y164.208395 Z-0.125000
G01 X158.628808 Y164.441440 Z-0.125000
G01 X159.372604 Y164.527482 Z-0.125000
G01 X160.116426 Y164.442551 Z-0.125000
G01 X160.860222 Y164.186117 Z-0.125000
G01 X161.679926 Y163.734977 Z-0.125000
G01 X164.047971 Y162.148643 Z-0.125000
G01 X164.791766 Y161.841594 Z-0.125000
G01 X165.535589 Y161.737190 Z-0.125000
G01 X166.279384 Y161.864984 Z-0.125000
G01 X167.144650 Y162.295460 Z-0.125000
G01 X169.546826 Y164.293088 Z-0.125000
G01 X170.332399 Y164.816539 Z-0.125000
G01 X171.061008 Y165.083609 Z-0.125000
G01 X171.698573 Y165.104353 Z-0.125000
G00 Z3.000000

(End cutting path id: polyline683)


(Start cutting path id: polyline685)
(Change tool to Default tool)

G00 Z3.000000
G00 X14.861417 Y161.013529

G00 Z4.875000 (Fast pre-penetrate)
G01 Z-0.125000 F400.0(Penetrate)
G01 X16.986574 Y161.303830 Z-0.125000 F800.000000
G01 X22.830790 Y162.425265 Z-0.125000
G01 X24.743434 Y162.640741 Z-0.125000
G01 X26.549821 Y162.723344 Z-0.125000
G01 X30.268853 Y162.564091 Z-0.125000
G01 X39.300817 Y161.577223 Z-0.125000
G01 X43.657388 Y161.376749 Z-0.125000
G01 X48.439011 Y161.467130 Z-0.125000
G01 X59.171106 Y162.155893 Z-0.125000
G01 X64.909038 Y162.349858 Z-0.125000
G01 X69.796918 Y162.338084 Z-0.125000
G01 X83.822992 Y162.004657 Z-0.125000
G01 X93.067469 Y161.924568 Z-0.125000
G01 X101.886894 Y162.000477 Z-0.125000
G01 X118.356921 Y162.362056 Z-0.125000
G01 X124.094879 Y162.201480 Z-0.125000
G01 X131.957995 Y161.487344 Z-0.125000
G01 X134.614435 Y161.371113 Z-0.125000
G01 X136.102053 Y161.420616 Z-0.125000
G01 X137.589671 Y161.572699 Z-0.125000
G01 X142.583807 Y162.541231 Z-0.125000
G01 X144.602708 Y162.725910 Z-0.125000
G01 X145.665299 Y162.666273 Z-0.125000
G01 X146.727891 Y162.482441 Z-0.125000
G01 X150.659436 Y161.213130 Z-0.125000
G01 X151.615745 Y161.008846 Z-0.125000
G01 X152.465823 Y160.950003 Z-0.125000
G01 X153.315876 Y161.030171 Z-0.125000
G01 X154.165954 Y161.252421 Z-0.125000
G01 X155.122290 Y161.646835 Z-0.125000
G01 X157.566216 Y162.857831 Z-0.125000
G01 X158.416295 Y163.122070 Z-0.125000
G01 X159.160091 Y163.204382 Z-0.125000
G01 X159.903886 Y163.122732 Z-0.125000
G01 X160.647709 Y162.875532 Z-0.125000
G01 X161.588857 Y162.364119 Z-0.125000
G01 X163.956901 Y160.808477 Z-0.125000
G01 X164.685510 Y160.516907 Z-0.125000
G01 X165.429332 Y160.413958 Z-0.125000
G01 X166.173128 Y160.535057 Z-0.125000
G01 X167.053554 Y160.959925 Z-0.125000
G01 X169.467133 Y162.933529 Z-0.125000
G01 X170.241303 Y163.456292 Z-0.125000
G01 X170.954751 Y163.740242 Z-0.125000
G01 X171.698573 Y163.781305 Z-0.125000
G00 Z3.000000

(End cutting path id: polyline685)


(Start cutting path id: polyline687)
(Change tool to Default tool)

G00 Z3.000000
G00 X14.861417 Y159.628569

G00 Z4.875000 (Fast pre-penetrate)
G01 Z-0.125000 F400.0(Penetrate)
G01 X16.349035 Y159.675057 Z-0.125000 F800.000000
G01 X17.942910 Y159.856931 Z-0.125000
G01 X25.062203 Y161.151906 Z-0.125000
G01 X28.462465 Y161.399423 Z-0.125000
G01 X31.862727 Y161.283695 Z-0.125000
G01 X41.000948 Y160.319184 Z-0.125000
G01 X46.313854 Y160.054310 Z-0.125000
G01 X51.307990 Y160.143448 Z-0.125000
G01 X62.358828 Y160.822871 Z-0.125000
G01 X68.309300 Y161.020673 Z-0.125000
G01 X73.409693 Y161.026573 Z-0.125000
G01 X93.173726 Y160.776992 Z-0.125000
G01 X114.744146 Y161.039141 Z-0.125000
G01 X121.544670 Y160.872374 Z-0.125000
G01 X130.364121 Y160.160910 Z-0.125000
G01 X133.233073 Y160.048224 Z-0.125000
G01 X134.826948 Y160.097014 Z-0.125000
G01 X136.420822 Y160.247323 Z-0.125000
G01 X141.733728 Y161.215723 Z-0.125000
G01 X143.858912 Y161.402942 Z-0.125000
G01 X144.921477 Y161.350158 Z-0.125000
G01 X146.090326 Y161.160478 Z-0.125000
G01 X150.234410 Y159.875346 Z-0.125000
G01 X151.190719 Y159.682227 Z-0.125000
G01 X152.040797 Y159.627246 Z-0.125000
G01 X152.890849 Y159.702573 Z-0.125000
G01 X153.740928 Y159.912202 Z-0.125000
G01 X154.666889 Y160.273226 Z-0.125000
G01 X157.353703 Y161.560660 Z-0.125000
G01 X158.203756 Y161.809395 Z-0.125000
G01 X158.947578 Y161.881758 Z-0.125000
G01 X159.691373 Y161.797197 Z-0.125000
G01 X160.435196 Y161.554469 Z-0.125000
G01 X161.315622 Y161.091819 Z-0.125000
G01 X163.774736 Y159.506597 Z-0.125000
G01 X164.579253 Y159.187933 Z-0.125000
G01 X165.323076 Y159.090884 Z-0.125000
G01 X166.173128 Y159.245003 Z-0.125000
G01 X166.962485 Y159.632512 Z-0.125000
G01 X169.421598 Y161.608232 Z-0.125000
G01 X170.241303 Y162.149357 Z-0.125000
G01 X170.954751 Y162.421560 Z-0.125000
G01 X171.698573 Y162.457544 Z-0.125000
G00 Z3.000000

(End cutting path id: polyline687)


(Start cutting path id: polyline689)
(Change tool to Default tool)

G00 Z3.000000
G00 X14.861417 Y158.422097

G00 Z4.875000 (Fast pre-penetrate)
G01 Z-0.125000 F400.0(Penetrate)
G01 X16.774061 Y158.303987 Z-0.125000 F800.000000
G01 X18.686705 Y158.405667 Z-0.125000
G01 X20.599349 Y158.676123 Z-0.125000
G01 X26.549821 Y159.765174 Z-0.125000
G01 X28.568722 Y159.985545 Z-0.125000
G01 X30.587622 Y160.076932 Z-0.125000
G01 X34.094141 Y159.961309 Z-0.125000
G01 X43.657388 Y158.998306 Z-0.125000
G01 X49.182833 Y158.732294 Z-0.125000
G01 X54.389483 Y158.816908 Z-0.125000
G01 X65.865373 Y159.481779 Z-0.125000
G01 X72.134588 Y159.685269 Z-0.125000
G01 X93.598752 Y159.619071 Z-0.125000
G01 X109.643753 Y159.716226 Z-0.125000
G01 X118.144408 Y159.548692 Z-0.125000
G01 X128.451450 Y158.832598 Z-0.125000
G01 X131.532942 Y158.725283 Z-0.125000
G01 X133.339330 Y158.775078 Z-0.125000
G01 X135.145744 Y158.934304 Z-0.125000
G01 X140.883676 Y159.909583 Z-0.125000
G01 X143.008833 Y160.080080 Z-0.125000
G01 X144.177682 Y160.023380 Z-0.125000
G01 X145.346530 Y159.841717 Z-0.125000
G01 X149.809357 Y158.522771 Z-0.125000
G01 X150.765692 Y158.349178 Z-0.125000
G01 X151.615745 Y158.305046 Z-0.125000
G01 X152.465823 Y158.383653 Z-0.125000
G01 X153.422159 Y158.621884 Z-0.125000
G01 X157.034934 Y160.236475 Z-0.125000
G01 X157.884986 Y160.480791 Z-0.125000
G01 X158.628808 Y160.558579 Z-0.125000
G01 X159.372604 Y160.487326 Z-0.125000
G01 X160.222683 Y160.221368 Z-0.125000
G01 X161.133457 Y159.749219 Z-0.125000
G01 X163.683666 Y158.149365 Z-0.125000
G01 X164.472997 Y157.855308 Z-0.125000
G01 X165.216819 Y157.768366 Z-0.125000
G01 X166.066871 Y157.924205 Z-0.125000
G01 X166.871415 Y158.313248 Z-0.125000
G01 X169.421598 Y160.324396 Z-0.125000
G01 X170.241303 Y160.845466 Z-0.125000
G01 X170.954751 Y161.103990 Z-0.125000
G01 X171.698573 Y161.133068 Z-0.125000
G00 Z3.000000

(End cutting path id: polyline689)


(Start cutting path id: polyline691)
(Change tool to Default tool)

G00 Z3.000000
G00 X14.861417 Y157.392605

G00 Z4.875000 (Fast pre-penetrate)
G01 Z-0.125000 F400.0(Penetrate)
G01 X17.411601 Y157.020972 Z-0.125000 F800.000000
G01 X19.961810 Y157.035444 Z-0.125000
G01 X22.193224 Y157.309288 Z-0.125000
G01 X28.781235 Y158.464854 Z-0.125000
G01 X31.012675 Y158.683638 Z-0.125000
G01 X33.350345 Y158.757192 Z-0.125000
G01 X37.388146 Y158.571216 Z-0.125000
G01 X47.270163 Y157.625438 Z-0.125000
G01 X52.264299 Y157.411496 Z-0.125000
G01 X57.789745 Y157.489178 Z-0.125000
G01 X69.478148 Y158.113276 Z-0.125000
G01 X75.747390 Y158.321080 Z-0.125000
G01 X100.824328 Y158.393311 Z-0.125000
G01 X107.837365 Y158.358941 Z-0.125000
G01 X113.150271 Y158.239905 Z-0.125000
G01 X118.038151 Y158.017444 Z-0.125000
G01 X126.326293 Y157.491215 Z-0.125000
G01 X129.939068 Y157.404696 Z-0.125000
G01 X133.658126 Y157.625517 Z-0.125000
G01 X139.821084 Y158.593415 Z-0.125000
G01 X142.158781 Y158.756980 Z-0.125000
G01 X143.327603 Y158.695782 Z-0.125000
G01 X144.496451 Y158.522718 Z-0.125000
G01 X145.771556 Y158.216649 Z-0.125000
G01 X149.171818 Y157.205545 Z-0.125000
G01 X150.128153 Y157.033883 Z-0.125000
G01 X151.084462 Y156.982184 Z-0.125000
G01 X151.934541 Y157.056743 Z-0.125000
G01 X152.890849 Y157.280633 Z-0.125000
G01 X153.953441 Y157.679466 Z-0.125000
G01 X156.716164 Y158.926181 Z-0.125000
G01 X157.566216 Y159.160496 Z-0.125000
G01 X158.416295 Y159.235187 Z-0.125000
G01 X159.160091 Y159.149118 Z-0.125000
G01 X160.010169 Y158.875884 Z-0.125000
G01 X160.951291 Y158.391141 Z-0.125000
G01 X163.410431 Y156.870424 Z-0.125000
G01 X164.260484 Y156.545331 Z-0.125000
G01 X165.110562 Y156.446774 Z-0.125000
G01 X165.960615 Y156.609042 Z-0.125000
G01 X166.780319 Y157.002371 Z-0.125000
G01 X169.330529 Y158.978621 Z-0.125000
G01 X170.150234 Y159.498765 Z-0.125000
G01 X170.954751 Y159.787266 Z-0.125000
G01 X171.698573 Y159.807824 Z-0.125000
G00 Z3.000000

(End cutting path id: polyline691)


(Start cutting path id: polyline693)
(Change tool to Default tool)

G00 Z3.000000
G00 X14.861417 Y156.501939

G00 Z4.875000 (Fast pre-penetrate)
G01 Z-0.125000 F400.0(Penetrate)
G01 X16.561548 Y156.080088 Z-0.125000 F800.000000
G01 X18.155423 Y155.803255 Z-0.125000
G01 X19.643041 Y155.674271 Z-0.125000
G01 X21.236915 Y155.677207 Z-0.125000
G01 X23.893355 Y155.950019 Z-0.125000
G01 X31.118931 Y157.158952 Z-0.125000
G01 X33.456602 Y157.368951 Z-0.125000
G01 X35.900528 Y157.434012 Z-0.125000
G01 X40.044612 Y157.249465 Z-0.125000
G01 X50.457911 Y156.310328 Z-0.125000
G01 X55.770844 Y156.090089 Z-0.125000
G01 X61.721289 Y156.163590 Z-0.125000
G01 X78.616342 Y156.889289 Z-0.125000
G01 X93.067469 Y157.029227 Z-0.125000
G01 X101.461867 Y156.990280 Z-0.125000
G01 X108.049878 Y156.869551 Z-0.125000
G01 X113.681580 Y156.660953 Z-0.125000
G01 X123.351057 Y156.162347 Z-0.125000
G01 X127.388885 Y156.081199 Z-0.125000
G01 X131.639199 Y156.295829 Z-0.125000
G01 X138.546006 Y157.273913 Z-0.125000
G01 X141.096189 Y157.433642 Z-0.125000
G01 X142.371294 Y157.365379 Z-0.125000
G01 X143.646399 Y157.179748 Z-0.125000
G01 X148.428022 Y155.893107 Z-0.125000
G01 X149.490588 Y155.709248 Z-0.125000
G01 X150.446923 Y155.658792 Z-0.125000
G01 X151.403232 Y155.740310 Z-0.125000
G01 X152.359567 Y155.958724 Z-0.125000
G01 X153.422159 Y156.340914 Z-0.125000
G01 X156.291111 Y157.593926 Z-0.125000
G01 X157.141190 Y157.826574 Z-0.125000
G01 X157.991242 Y157.912881 Z-0.125000
G01 X158.841321 Y157.825780 Z-0.125000
G01 X159.691373 Y157.562758 Z-0.125000
G01 X160.586987 Y157.121513 Z-0.125000
G01 X163.228266 Y155.535814 Z-0.125000
G01 X164.047971 Y155.229030 Z-0.125000
G01 X164.898049 Y155.122721 Z-0.125000
G01 X165.748102 Y155.264484 Z-0.125000
G01 X166.689250 Y155.700306 Z-0.125000
G01 X169.239433 Y157.641154 Z-0.125000
G01 X170.150234 Y158.202255 Z-0.125000
G01 X170.954751 Y158.471098 Z-0.125000
G01 X171.698573 Y158.481734 Z-0.125000
G00 Z3.000000

(End cutting path id: polyline693)


(Start cutting path id: polyline695)
(Change tool to Default tool)

G00 Z3.000000
G00 X14.861417 Y155.677155

G00 Z4.875000 (Fast pre-penetrate)
G01 Z-0.125000 F400.0(Penetrate)
G01 X17.305344 Y155.002971 Z-0.125000 F800.000000
G01 X19.005475 Y154.633031 Z-0.125000
G01 X20.705606 Y154.404643 Z-0.125000
G01 X22.405737 Y154.335507 Z-0.125000
G01 X23.893355 Y154.397499 Z-0.125000
G01 X25.593486 Y154.581093 Z-0.125000
G01 X33.456602 Y155.832518 Z-0.125000
G01 X35.581759 Y156.023335 Z-0.125000
G01 X37.706942 Y156.106414 Z-0.125000
G01 X42.063513 Y155.988833 Z-0.125000
G01 X53.326891 Y155.043478 Z-0.125000
G01 X59.596132 Y154.771434 Z-0.125000
G01 X65.865373 Y154.822922 Z-0.125000
G01 X82.441657 Y155.406327 Z-0.125000
G01 X93.067469 Y155.518114 Z-0.125000
G01 X104.543360 Y155.381166 Z-0.125000
G01 X119.313256 Y154.836336 Z-0.125000
G01 X123.669853 Y154.756564 Z-0.125000
G01 X126.538806 Y154.810248 Z-0.125000
G01 X129.195272 Y154.972676 Z-0.125000
G01 X137.058388 Y155.957427 Z-0.125000
G01 X139.821084 Y156.110436 Z-0.125000
G01 X141.202446 Y156.039554 Z-0.125000
G01 X142.583807 Y155.849768 Z-0.125000
G01 X147.577943 Y154.581675 Z-0.125000
G01 X148.640535 Y154.398742 Z-0.125000
G01 X149.703101 Y154.335428 Z-0.125000
G01 X150.659436 Y154.403399 Z-0.125000
G01 X151.722028 Y154.626099 Z-0.125000
G01 X152.890849 Y155.028662 Z-0.125000
G01 X155.866085 Y156.277308 Z-0.125000
G01 X156.822421 Y156.521386 Z-0.125000
G01 X157.672473 Y156.589781 Z-0.125000
G01 X158.522552 Y156.494637 Z-0.125000
G01 X159.372604 Y156.234102 Z-0.125000
G01 X160.313752 Y155.781876 Z-0.125000
G01 X162.985379 Y154.219911 Z-0.125000
G01 X163.835458 Y153.907253 Z-0.125000
G01 X164.685510 Y153.799144 Z-0.125000
G01 X165.535589 Y153.926859 Z-0.125000
G01 X166.507084 Y154.354451 Z-0.125000
G01 X167.315412 Y154.891131 Z-0.125000
G01 X169.148364 Y156.312260 Z-0.125000
G01 X170.059138 Y156.864709 Z-0.125000
G01 X170.848495 Y157.136489 Z-0.125000
G01 X171.698573 Y157.154718 Z-0.125000
G00 Z3.000000

(End cutting path id: polyline695)


(Start cutting path id: polyline697)
(Change tool to Default tool)

G00 Z3.000000
G00 X14.861417 Y154.821176

G00 Z4.875000 (Fast pre-penetrate)
G01 Z-0.125000 F400.0(Penetrate)
G01 X20.386836 Y153.405127 Z-0.125000 F800.000000
G01 X22.193224 Y153.126019 Z-0.125000
G01 X23.999611 Y153.014603 Z-0.125000
G01 X25.699742 Y153.057333 Z-0.125000
G01 X27.506130 Y153.230053 Z-0.125000
G01 X36.006811 Y154.506983 Z-0.125000
G01 X38.238225 Y154.696372 Z-0.125000
G01 X40.469639 Y154.781726 Z-0.125000
G01 X45.251262 Y154.668749 Z-0.125000
G01 X57.364692 Y153.730644 Z-0.125000
G01 X63.952703 Y153.456033 Z-0.125000
G01 X69.584405 Y153.457621 Z-0.125000
G01 X84.248045 Y153.813220 Z-0.125000
G01 X93.173726 Y153.895241 Z-0.125000
G01 X101.355611 Y153.819041 Z-0.125000
G01 X119.100743 Y153.433676 Z-0.125000
G01 X122.819774 Y153.488312 Z-0.125000
G01 X126.220036 Y153.662487 Z-0.125000
G01 X129.301529 Y153.942416 Z-0.125000
G01 X135.252000 Y154.640121 Z-0.125000
G01 X138.014697 Y154.788447 Z-0.125000
G01 X139.714828 Y154.723042 Z-0.125000
G01 X141.308702 Y154.524975 Z-0.125000
G01 X142.902577 Y154.200570 Z-0.125000
G01 X146.727891 Y153.245187 Z-0.125000
G01 X147.896713 Y153.064159 Z-0.125000
G01 X148.853048 Y153.012433 Z-0.125000
G01 X149.915614 Y153.079876 Z-0.125000
G01 X151.084462 Y153.315751 Z-0.125000
G01 X152.253310 Y153.702122 Z-0.125000
G01 X155.441059 Y154.978047 Z-0.125000
G01 X156.397368 Y155.204398 Z-0.125000
G01 X157.247447 Y155.266654 Z-0.125000
G01 X158.097499 Y155.176749 Z-0.125000
G01 X159.053834 Y154.891634 Z-0.125000
G01 X160.040517 Y154.422634 Z-0.125000
G01 X162.772866 Y152.876835 Z-0.125000
G01 X163.622945 Y152.580025 Z-0.125000
G01 X164.472997 Y152.476362 Z-0.125000
G01 X165.429332 Y152.627068 Z-0.125000
G01 X166.324945 Y153.018704 Z-0.125000
G01 X167.235720 Y153.611370 Z-0.125000
G01 X169.057294 Y154.991250 Z-0.125000
G01 X169.998442 Y155.546530 Z-0.125000
G01 X170.848495 Y155.823125 Z-0.125000
G01 X171.698573 Y155.826644 Z-0.125000
G00 Z3.000000

(End cutting path id: polyline697)


(Start cutting path id: polyline699)
(Change tool to Default tool)

G00 Z3.000000
G00 X14.861417 Y153.831000

G00 Z4.875000 (Fast pre-penetrate)
G01 Z-0.125000 F400.0(Penetrate)
G01 X16.774061 Y153.474422 Z-0.125000 F800.000000
G01 X22.299480 Y152.091261 Z-0.125000
G01 X24.212125 Y151.803712 Z-0.125000
G01 X26.018539 Y151.693011 Z-0.125000
G01 X27.824926 Y151.731402 Z-0.125000
G01 X29.737570 Y151.902799 Z-0.125000
G01 X36.219324 Y152.865616 Z-0.125000
G01 X38.875764 Y153.186608 Z-0.125000
G01 X41.213461 Y153.370150 Z-0.125000
G01 X43.657388 Y153.458097 Z-0.125000
G01 X48.970294 Y153.344750 Z-0.125000
G01 X61.933802 Y152.429160 Z-0.125000
G01 X68.946839 Y152.150475 Z-0.125000
G01 X74.897311 Y152.114624 Z-0.125000
G01 X93.492495 Y152.269802 Z-0.125000
G01 X112.618989 Y152.110708 Z-0.125000
G01 X117.719382 Y152.168784 Z-0.125000
G01 X122.075979 Y152.344679 Z-0.125000
G01 X126.007523 Y152.633921 Z-0.125000
G01 X133.126817 Y153.331706 Z-0.125000
G01 X136.208309 Y153.465505 Z-0.125000
G01 X138.014697 Y153.399994 Z-0.125000
G01 X139.821084 Y153.196213 Z-0.125000
G01 X141.627472 Y152.857176 Z-0.125000
G01 X145.665299 Y151.924177 Z-0.125000
G01 X146.834148 Y151.750531 Z-0.125000
G01 X148.002970 Y151.689465 Z-0.125000
G01 X149.171818 Y151.769555 Z-0.125000
G01 X150.340666 Y152.000747 Z-0.125000
G01 X151.509488 Y152.367353 Z-0.125000
G01 X154.909750 Y153.663175 Z-0.125000
G01 X155.866085 Y153.879075 Z-0.125000
G01 X156.822421 Y153.942760 Z-0.125000
G01 X157.672473 Y153.849442 Z-0.125000
G01 X158.628808 Y153.573270 Z-0.125000
G01 X159.676213 Y153.094084 Z-0.125000
G01 X162.560353 Y151.523122 Z-0.125000
G01 X163.410431 Y151.246183 Z-0.125000
G01 X164.260484 Y151.153711 Z-0.125000
G01 X165.216819 Y151.301904 Z-0.125000
G01 X166.142780 Y151.693222 Z-0.125000
G01 X167.053554 Y152.268611 Z-0.125000
G01 X168.966198 Y153.677410 Z-0.125000
G01 X169.892186 Y154.211788 Z-0.125000
G01 X170.848495 Y154.509391 Z-0.125000
G01 X171.698573 Y154.497273 Z-0.125000
G00 Z3.000000

(End cutting path id: polyline699)


(Start cutting path id: polyline701)
(Change tool to Default tool)

G00 Z3.000000
G00 X14.861417 Y152.620877

G00 Z4.875000 (Fast pre-penetrate)
G01 Z-0.125000 F400.0(Penetrate)
G01 X16.242779 Y152.558356 Z-0.125000 F800.000000
G01 X17.836653 Y152.322454 Z-0.125000
G01 X22.937046 Y151.067510 Z-0.125000
G01 X24.955947 Y150.664259 Z-0.125000
G01 X26.762334 Y150.443359 Z-0.125000
G01 X28.674978 Y150.366497 Z-0.125000
G01 X30.375109 Y150.421372 Z-0.125000
G01 X32.287753 Y150.591155 Z-0.125000
G01 X39.088277 Y151.531456 Z-0.125000
G01 X42.169770 Y151.871128 Z-0.125000
G01 X45.251262 Y152.074963 Z-0.125000
G01 X48.439011 Y152.142643 Z-0.125000
G01 X54.176969 Y151.979131 Z-0.125000
G01 X65.546577 Y151.243034 Z-0.125000
G01 X71.072023 Y150.977446 Z-0.125000
G01 X77.341264 Y150.828750 Z-0.125000
G01 X85.841919 Y150.787793 Z-0.125000
G01 X104.755873 Y150.796630 Z-0.125000
G01 X112.831502 Y150.913285 Z-0.125000
G01 X120.163308 Y151.240706 Z-0.125000
G01 X130.895403 Y152.051918 Z-0.125000
G01 X134.401922 Y152.137590 Z-0.125000
G01 X136.314566 Y152.049695 Z-0.125000
G01 X138.120953 Y151.853745 Z-0.125000
G01 X140.033597 Y151.528096 Z-0.125000
G01 X144.602708 Y150.573296 Z-0.125000
G01 X145.984069 Y150.402878 Z-0.125000
G01 X147.152917 Y150.369276 Z-0.125000
G01 X148.321739 Y150.461007 Z-0.125000
G01 X149.490588 Y150.685955 Z-0.125000
G01 X150.765692 Y151.067642 Z-0.125000
G01 X154.272211 Y152.337588 Z-0.125000
G01 X155.334803 Y152.563383 Z-0.125000
G01 X156.291111 Y152.619739 Z-0.125000
G01 X157.247447 Y152.511578 Z-0.125000
G01 X158.203756 Y152.236941 Z-0.125000
G01 X159.220813 Y151.788869 Z-0.125000
G01 X162.135327 Y150.246086 Z-0.125000
G01 X163.091635 Y149.930756 Z-0.125000
G01 X163.941714 Y149.830294 Z-0.125000
G01 X164.898049 Y149.953748 Z-0.125000
G01 X165.960615 Y150.379436 Z-0.125000
G01 X166.871415 Y150.938050 Z-0.125000
G01 X168.875129 Y152.371243 Z-0.125000
G01 X169.892186 Y152.929116 Z-0.125000
G01 X170.848495 Y153.195048 Z-0.125000
G01 X171.698573 Y153.166579 Z-0.125000
G00 Z3.000000

(End cutting path id: polyline701)


(Start cutting path id: polyline703)
(Change tool to Default tool)

G00 Z3.000000
G00 X14.861417 Y151.144848

G00 Z4.875000 (Fast pre-penetrate)
G01 Z-0.125000 F400.0(Penetrate)
G01 X16.774061 Y151.298385 Z-0.125000 F800.000000
G01 X18.686705 Y151.171624 Z-0.125000
G01 X20.599349 Y150.828089 Z-0.125000
G01 X26.549821 Y149.443235 Z-0.125000
G01 X28.674978 Y149.154496 Z-0.125000
G01 X30.693879 Y149.046493 Z-0.125000
G01 X32.606549 Y149.081603 Z-0.125000
G01 X34.731706 Y149.242602 Z-0.125000
G01 X45.357519 Y150.503208 Z-0.125000
G01 X48.332754 Y150.705534 Z-0.125000
G01 X51.307990 Y150.805070 Z-0.125000
G01 X58.321027 Y150.707175 Z-0.125000
G01 X71.390792 Y150.011427 Z-0.125000
G01 X77.766290 Y149.762137 Z-0.125000
G01 X84.779327 Y149.620109 Z-0.125000
G01 X93.067469 Y149.573410 Z-0.125000
G01 X101.993150 Y149.631274 Z-0.125000
G01 X109.431240 Y149.802089 Z-0.125000
G01 X115.912994 Y150.081833 Z-0.125000
G01 X126.645063 Y150.708180 Z-0.125000
G01 X130.682890 Y150.819728 Z-0.125000
G01 X133.339330 Y150.750513 Z-0.125000
G01 X135.783283 Y150.538926 Z-0.125000
G01 X138.120953 Y150.193063 Z-0.125000
G01 X143.115090 Y149.258080 Z-0.125000
G01 X145.665299 Y149.043635 Z-0.125000
G01 X147.046661 Y149.117824 Z-0.125000
G01 X148.428022 Y149.352271 Z-0.125000
G01 X149.915614 Y149.769466 Z-0.125000
G01 X153.528415 Y151.005862 Z-0.125000
G01 X154.590980 Y151.228218 Z-0.125000
G01 X155.653572 Y151.297486 Z-0.125000
G01 X156.609881 Y151.203135 Z-0.125000
G01 X157.672473 Y150.919661 Z-0.125000
G01 X158.765412 Y150.457964 Z-0.125000
G01 X161.816557 Y148.908751 Z-0.125000
G01 X162.772866 Y148.607576 Z-0.125000
G01 X163.729201 Y148.507987 Z-0.125000
G01 X164.685510 Y148.642131 Z-0.125000
G01 X165.687380 Y149.030380 Z-0.125000
G01 X166.689250 Y149.621220 Z-0.125000
G01 X168.784059 Y151.072537 Z-0.125000
G01 X169.785903 Y151.604084 Z-0.125000
G01 X170.742238 Y151.867874 Z-0.125000
G01 X171.698573 Y151.834457 Z-0.125000
G00 Z3.000000

(End cutting path id: polyline703)


(Start cutting path id: polyline705)
(Change tool to Default tool)

G00 Z3.000000
G00 X14.861417 Y149.413178

G00 Z4.875000 (Fast pre-penetrate)
G01 Z-0.125000 F400.0(Penetrate)
G01 X16.242779 Y149.739568 Z-0.125000 F800.000000
G01 X17.517857 Y149.919670 Z-0.125000
G01 X18.792962 Y149.975470 Z-0.125000
G01 X20.068067 Y149.913134 Z-0.125000
G01 X22.299480 Y149.575500 Z-0.125000
G01 X26.974847 Y148.491980 Z-0.125000
G01 X29.100004 Y148.085871 Z-0.125000
G01 X31.437701 Y147.808218 Z-0.125000
G01 X33.775371 Y147.720667 Z-0.125000
G01 X37.919455 Y147.936514 Z-0.125000
G01 X49.289090 Y149.144415 Z-0.125000
G01 X52.689352 Y149.359045 Z-0.125000
G01 X56.089614 Y149.472445 Z-0.125000
G01 X62.571368 Y149.449400 Z-0.125000
G01 X80.847783 Y148.786461 Z-0.125000
G01 X93.067469 Y148.623689 Z-0.125000
G01 X104.118334 Y148.761511 Z-0.125000
G01 X121.863439 Y149.416248 Z-0.125000
G01 X127.601398 Y149.489061 Z-0.125000
G01 X130.576634 Y149.388599 Z-0.125000
G01 X133.233073 Y149.174816 Z-0.125000
G01 X135.889540 Y148.831096 Z-0.125000
G01 X141.414959 Y147.930138 Z-0.125000
G01 X144.283938 Y147.720694 Z-0.125000
G01 X145.771556 Y147.798534 Z-0.125000
G01 X147.259174 Y148.032955 Z-0.125000
G01 X148.853048 Y148.446842 Z-0.125000
G01 X152.678336 Y149.673131 Z-0.125000
G01 X153.847185 Y149.905964 Z-0.125000
G01 X154.909750 Y149.975285 Z-0.125000
G01 X155.972342 Y149.880617 Z-0.125000
G01 X157.034934 Y149.615399 Z-0.125000
G01 X158.310039 Y149.101500 Z-0.125000
G01 X161.391504 Y147.597398 Z-0.125000
G01 X162.454096 Y147.277094 Z-0.125000
G01 X163.410431 Y147.184913 Z-0.125000
G01 X164.472997 Y147.338160 Z-0.125000
G01 X165.505214 Y147.739030 Z-0.125000
G01 X166.507084 Y148.318757 Z-0.125000
G01 X168.601894 Y149.725625 Z-0.125000
G01 X169.679646 Y150.283445 Z-0.125000
G01 X170.742238 Y150.553955 Z-0.125000
G01 X171.698573 Y150.501064 Z-0.125000
G00 Z3.000000

(End cutting path id: polyline705)


(Start cutting path id: polyline707)
(Change tool to Default tool)

G00 Z3.000000
G00 X14.861417 Y147.496830

G00 Z4.875000 (Fast pre-penetrate)
G01 Z-0.125000 F400.0(Penetrate)
G01 X16.774061 Y148.099788 Z-0.125000 F800.000000
G01 X18.367936 Y148.453906 Z-0.125000
G01 X19.855554 Y148.625912 Z-0.125000
G01 X21.449428 Y148.635278 Z-0.125000
G01 X24.212125 Y148.295421 Z-0.125000
G01 X29.418800 Y147.161577 Z-0.125000
G01 X31.756471 Y146.749172 Z-0.125000
G01 X34.306680 Y146.477842 Z-0.125000
G01 X36.963120 Y146.398282 Z-0.125000
G01 X41.319717 Y146.605926 Z-0.125000
G01 X54.070686 Y147.777764 Z-0.125000
G01 X61.933802 Y148.132412 Z-0.125000
G01 X68.946839 Y148.157018 Z-0.125000
G01 X84.673071 Y147.855367 Z-0.125000
G01 X93.279982 Y147.790941 Z-0.125000
G01 X101.568124 Y147.860235 Z-0.125000
G01 X116.125507 Y148.146646 Z-0.125000
G01 X121.438413 Y148.167178 Z-0.125000
G01 X125.688754 Y148.066848 Z-0.125000
G01 X129.407785 Y147.839783 Z-0.125000
G01 X132.914304 Y147.474658 Z-0.125000
G01 X139.502315 Y146.580870 Z-0.125000
G01 X142.690064 Y146.398679 Z-0.125000
G01 X144.390195 Y146.493293 Z-0.125000
G01 X145.984069 Y146.734196 Z-0.125000
G01 X147.684200 Y147.145226 Z-0.125000
G01 X151.828284 Y148.370377 Z-0.125000
G01 X153.103363 Y148.596411 Z-0.125000
G01 X154.165954 Y148.651867 Z-0.125000
G01 X155.228546 Y148.561433 Z-0.125000
G01 X156.397368 Y148.285605 Z-0.125000
G01 X157.672473 Y147.799169 Z-0.125000
G01 X161.072735 Y146.229954 Z-0.125000
G01 X162.135327 Y145.939786 Z-0.125000
G01 X163.091635 Y145.862792 Z-0.125000
G01 X164.154227 Y146.013287 Z-0.125000
G01 X165.216819 Y146.408733 Z-0.125000
G01 X166.233850 Y146.971183 Z-0.125000
G01 X168.419728 Y148.389771 Z-0.125000
G01 X169.573390 Y148.966404 Z-0.125000
G01 X170.635982 Y149.229029 Z-0.125000
G01 X171.698573 Y149.166587 Z-0.125000
G00 Z3.000000

(End cutting path id: polyline707)


(Start cutting path id: polyline709)
(Change tool to Default tool)

G00 Z3.000000
G00 X14.861417 Y145.517273

G00 Z4.875000 (Fast pre-penetrate)
G01 Z-0.125000 F400.0(Penetrate)
G01 X17.517857 Y146.425560 Z-0.125000 F800.000000
G01 X19.324245 Y146.925754 Z-0.125000
G01 X21.130659 Y147.236110 Z-0.125000
G01 X22.830790 Y147.329720 Z-0.125000
G01 X24.424664 Y147.253678 Z-0.125000
G01 X26.124795 Y147.032937 Z-0.125000
G01 X31.968984 Y145.856257 Z-0.125000
G01 X34.412937 Y145.453879 Z-0.125000
G01 X36.856864 Y145.195223 Z-0.125000
G01 X39.300817 Y145.083145 Z-0.125000
G01 X44.294953 Y145.205145 Z-0.125000
G01 X59.064849 Y146.332559 Z-0.125000
G01 X68.309300 Y146.748775 Z-0.125000
G01 X76.278672 Y146.849105 Z-0.125000
G01 X108.156135 Y146.850957 Z-0.125000
G01 X116.444277 Y146.776027 Z-0.125000
G01 X123.032288 Y146.536764 Z-0.125000
G01 X128.557733 Y146.131767 Z-0.125000
G01 X137.270901 Y145.214908 Z-0.125000
G01 X140.671163 Y145.077060 Z-0.125000
G01 X142.583807 Y145.177602 Z-0.125000
G01 X144.390195 Y145.425172 Z-0.125000
G01 X146.302839 Y145.845594 Z-0.125000
G01 X150.659436 Y147.027434 Z-0.125000
G01 X152.040797 Y147.263706 Z-0.125000
G01 X153.209619 Y147.329534 Z-0.125000
G01 X154.378467 Y147.242248 Z-0.125000
G01 X155.653572 Y146.961156 Z-0.125000
G01 X157.034934 Y146.461967 Z-0.125000
G01 X160.541452 Y144.921168 Z-0.125000
G01 X161.604044 Y144.633698 Z-0.125000
G01 X162.666609 Y144.539136 Z-0.125000
G01 X163.835458 Y144.697674 Z-0.125000
G01 X164.958745 Y145.105608 Z-0.125000
G01 X166.051684 Y145.694544 Z-0.125000
G01 X168.328659 Y147.114296 Z-0.125000
G01 X169.467133 Y147.652564 Z-0.125000
G01 X170.635982 Y147.913972 Z-0.125000
G01 X171.698573 Y147.831501 Z-0.125000
G00 Z3.000000

(End cutting path id: polyline709)


(Start cutting path id: polyline711)
(Change tool to Default tool)

G00 Z3.000000
G00 X14.861417 Y143.622012

G00 Z4.875000 (Fast pre-penetrate)
G01 Z-0.125000 F400.0(Penetrate)
G01 X21.024376 Y145.521268 Z-0.125000 F800.000000
G01 X22.937046 Y145.874698 Z-0.125000
G01 X24.743434 Y146.004212 Z-0.125000
G01 X26.443565 Y145.954444 Z-0.125000
G01 X28.356209 Y145.739814 Z-0.125000
G01 X34.731706 Y144.567473 Z-0.125000
G01 X37.600686 Y144.139960 Z-0.125000
G01 X40.257126 Y143.887019 Z-0.125000
G01 X43.019848 Y143.766078 Z-0.125000
G01 X46.101341 Y143.768723 Z-0.125000
G01 X49.607859 Y143.890934 Z-0.125000
G01 X65.015295 Y144.828855 Z-0.125000
G01 X72.878410 Y145.181755 Z-0.125000
G01 X81.804091 Y145.383579 Z-0.125000
G01 X93.173726 Y145.448693 Z-0.125000
G01 X105.180899 Y145.368525 Z-0.125000
G01 X114.637889 Y145.124473 Z-0.125000
G01 X122.819774 Y144.706776 Z-0.125000
G01 X133.976896 Y143.871858 Z-0.125000
G01 X137.483414 Y143.751949 Z-0.125000
G01 X139.927341 Y143.833335 Z-0.125000
G01 X142.265037 Y144.092705 Z-0.125000
G01 X144.496451 Y144.517070 Z-0.125000
G01 X149.490588 Y145.725579 Z-0.125000
G01 X150.871949 Y145.938436 Z-0.125000
G01 X152.147054 Y146.006699 Z-0.125000
G01 X153.528415 Y145.905178 Z-0.125000
G01 X154.803494 Y145.636362 Z-0.125000
G01 X156.291111 Y145.131511 Z-0.125000
G01 X160.010169 Y143.591321 Z-0.125000
G01 X161.178991 Y143.298612 Z-0.125000
G01 X162.241583 Y143.216618 Z-0.125000
G01 X163.410431 Y143.364785 Z-0.125000
G01 X164.579253 Y143.761924 Z-0.125000
G01 X165.687380 Y144.325433 Z-0.125000
G01 X168.146494 Y145.793154 Z-0.125000
G01 X169.360877 Y146.341343 Z-0.125000
G01 X170.529725 Y146.590342 Z-0.125000
G01 X171.698573 Y146.496521 Z-0.125000
G00 Z3.000000

(End cutting path id: polyline711)


(Start cutting path id: polyline713)
(Change tool to Default tool)

G00 Z3.000000
G00 X14.861417 Y141.951012

G00 Z4.875000 (Fast pre-penetrate)
G01 Z-0.125000 F400.0(Penetrate)
G01 X17.199088 Y142.408000 Z-0.125000 F800.000000
G01 X21.449428 Y143.739090 Z-0.125000
G01 X23.255816 Y144.216107 Z-0.125000
G01 X25.168460 Y144.548794 Z-0.125000
G01 X27.081104 Y144.680768 Z-0.125000
G01 X28.887491 Y144.634889 Z-0.125000
G01 X30.906392 Y144.431081 Z-0.125000
G01 X37.813199 Y143.295887 Z-0.125000
G01 X41.107204 Y142.859140 Z-0.125000
G01 X44.294953 Y142.588921 Z-0.125000
G01 X47.695215 Y142.451973 Z-0.125000
G01 X51.414247 Y142.436336 Z-0.125000
G01 X55.983357 Y142.538360 Z-0.125000
G01 X79.466421 Y143.474825 Z-0.125000
G01 X93.067469 Y143.649132 Z-0.125000
G01 X100.824328 Y143.590844 Z-0.125000
G01 X108.368648 Y143.420876 Z-0.125000
G01 X128.876503 Y142.535978 Z-0.125000
G01 X133.445586 Y142.429007 Z-0.125000
G01 X136.739592 Y142.514230 Z-0.125000
G01 X139.714828 Y142.787253 Z-0.125000
G01 X142.477551 Y143.238208 Z-0.125000
G01 X148.109226 Y144.426053 Z-0.125000
G01 X149.596844 Y144.623591 Z-0.125000
G01 X150.871949 Y144.683863 Z-0.125000
G01 X152.359567 Y144.591100 Z-0.125000
G01 X153.847185 Y144.304478 Z-0.125000
G01 X155.334803 Y143.838679 Z-0.125000
G01 X159.478860 Y142.241021 Z-0.125000
G01 X160.647709 Y141.972284 Z-0.125000
G01 X161.816557 Y141.895132 Z-0.125000
G01 X162.985379 Y142.042769 Z-0.125000
G01 X164.260484 Y142.459699 Z-0.125000
G01 X165.414145 Y143.024531 Z-0.125000
G01 X167.873259 Y144.432430 Z-0.125000
G01 X169.148364 Y144.996733 Z-0.125000
G01 X170.423468 Y145.266925 Z-0.125000
G01 X171.698573 Y145.162335 Z-0.125000
G00 Z3.000000

(End cutting path id: polyline713)


(Start cutting path id: polyline715)
(Change tool to Default tool)

G00 Z3.000000
G00 X14.861417 Y140.601347

G00 Z4.875000 (Fast pre-penetrate)
G01 Z-0.125000 F400.0(Penetrate)
G01 X16.349035 Y140.591584 Z-0.125000 F800.000000
G01 X17.942910 Y140.797827 Z-0.125000
G01 X19.536784 Y141.173879 Z-0.125000
G01 X23.468329 Y142.365269 Z-0.125000
G01 X25.380973 Y142.854880 Z-0.125000
G01 X27.506130 Y143.214528 Z-0.125000
G01 X29.631314 Y143.357138 Z-0.125000
G01 X31.543958 Y143.318139 Z-0.125000
G01 X33.669115 Y143.134148 Z-0.125000
G01 X41.425974 Y142.039806 Z-0.125000
G01 X45.357519 Y141.598111 Z-0.125000
G01 X49.182833 Y141.320167 Z-0.125000
G01 X53.433147 Y141.158692 Z-0.125000
G01 X62.252572 Y141.130963 Z-0.125000
G01 X82.441657 Y141.549057 Z-0.125000
G01 X93.386239 Y141.638037 Z-0.125000
G01 X103.161998 Y141.554217 Z-0.125000
G01 X126.857576 Y141.106066 Z-0.125000
G01 X131.957995 Y141.194648 Z-0.125000
G01 X136.208309 Y141.485954 Z-0.125000
G01 X139.821084 Y141.959796 Z-0.125000
G01 X146.409095 Y143.124676 Z-0.125000
G01 X148.002970 Y143.304486 Z-0.125000
G01 X149.384331 Y143.361001 Z-0.125000
G01 X151.084462 Y143.264005 Z-0.125000
G01 X152.678336 Y142.983732 Z-0.125000
G01 X154.484724 Y142.457477 Z-0.125000
G01 X158.735065 Y140.930356 Z-0.125000
G01 X160.116426 Y140.636696 Z-0.125000
G01 X161.285248 Y140.572614 Z-0.125000
G01 X162.560353 Y140.731364 Z-0.125000
G01 X163.835458 Y141.129164 Z-0.125000
G01 X165.049841 Y141.690874 Z-0.125000
G01 X167.782189 Y143.172618 Z-0.125000
G01 X169.042107 Y143.690380 Z-0.125000
G01 X170.423468 Y143.949619 Z-0.125000
G01 X171.698573 Y143.830080 Z-0.125000
G00 Z3.000000

(End cutting path id: polyline715)


(Start cutting path id: polyline717)
(Change tool to Default tool)

G00 Z3.000000
G00 X14.861417 Y139.600112

G00 Z4.875000 (Fast pre-penetrate)
G01 Z-0.125000 F400.0(Penetrate)
G01 X16.030239 Y139.364898 Z-0.125000 F800.000000
G01 X17.092831 Y139.260176 Z-0.125000
G01 X18.155423 Y139.258853 Z-0.125000
G01 X19.324245 Y139.367650 Z-0.125000
G01 X21.449428 Y139.797412 Z-0.125000
G01 X25.805999 Y141.040000 Z-0.125000
G01 X27.824926 Y141.522837 Z-0.125000
G01 X30.162596 Y141.889258 Z-0.125000
G01 X32.500266 Y142.033482 Z-0.125000
G01 X34.519193 Y142.003267 Z-0.125000
G01 X36.750607 Y141.848221 Z-0.125000
G01 X45.570032 Y140.844208 Z-0.125000
G01 X50.139142 Y140.428707 Z-0.125000
G01 X54.814509 Y140.139730 Z-0.125000
G01 X60.021158 Y139.942615 Z-0.125000
G01 X71.178279 Y139.786776 Z-0.125000
G01 X112.193962 Y139.783045 Z-0.125000
G01 X122.926031 Y139.875517 Z-0.125000
G01 X130.364121 Y140.170077 Z-0.125000
G01 X135.995796 Y140.679982 Z-0.125000
G01 X144.496451 Y141.850841 Z-0.125000
G01 X147.577943 Y142.037927 Z-0.125000
G01 X149.490588 Y141.941831 Z-0.125000
G01 X151.403232 Y141.636952 Z-0.125000
G01 X153.315876 Y141.128397 Z-0.125000
G01 X157.991242 Y139.591566 Z-0.125000
G01 X159.372604 Y139.319284 Z-0.125000
G01 X160.647709 Y139.249064 Z-0.125000
G01 X162.029070 Y139.408316 Z-0.125000
G01 X163.410431 Y139.815615 Z-0.125000
G01 X164.685510 Y140.374335 Z-0.125000
G01 X167.600024 Y141.869494 Z-0.125000
G01 X168.935851 Y142.383261 Z-0.125000
G01 X170.317212 Y142.625910 Z-0.125000
G01 X171.698573 Y142.500683 Z-0.125000
G00 Z3.000000

(End cutting path id: polyline717)


(Start cutting path id: polyline719)
(Change tool to Default tool)

G00 Z3.000000
G00 X14.861417 Y138.892750

G00 Z4.875000 (Fast pre-penetrate)
G01 Z-0.125000 F400.0(Penetrate)
G01 X16.455292 Y138.369140 Z-0.125000 F800.000000
G01 X17.836653 Y138.069288 Z-0.125000
G01 X19.324245 Y137.929377 Z-0.125000
G01 X20.811863 Y137.974700 Z-0.125000
G01 X23.362072 Y138.397477 Z-0.125000
G01 X28.356209 Y139.714174 Z-0.125000
G01 X30.693879 Y140.219898 Z-0.125000
G01 X33.244089 Y140.570338 Z-0.125000
