%
(Header)
(Generated by gcodetools from Inkscape.)
(Using default header. To add your own header create file "header" in the output dir.)
M3
(Header end.)
G21 (All units in mm)

(Start cutting path id: path81433)
(Change tool to Default tool)

G00 Z3.000000
G00 X168.980948 Y205.383606

G00 Z4.875000 (Fast pre-penetrate)
G01 Z-0.125000 F400.0(Penetrate)
G01 X167.521892 Y185.676022 Z-0.125000 F800.000000
G01 X168.751343 Y163.279931 Z-0.125000
G01 X168.189905 Y142.674728 Z-0.125000
G01 X159.734642 Y129.963351 Z-0.125000
G01 X163.536986 Y104.994368 Z-0.125000
G01 X165.204142 Y82.160572 Z-0.125000
G01 X167.678916 Y58.519157 Z-0.125000
G00 Z3.000000

(End cutting path id: path81433)


(Start cutting path id: path81431)
(Change tool to Default tool)

G00 Z3.000000
G00 X167.710963 Y205.595259

G00 Z4.875000 (Fast pre-penetrate)
G01 Z-0.125000 F400.0(Penetrate)
G01 X166.639018 Y185.500564 Z-0.125000 F800.000000
G01 X167.413545 Y163.559397 Z-0.125000
G01 X167.017446 Y142.788856 Z-0.125000
G01 X159.298030 Y129.341631 Z-0.125000
G01 X162.686947 Y104.786075 Z-0.125000
G01 X163.910667 Y82.395715 Z-0.125000
G01 X166.311895 Y58.827846 Z-0.125000
G00 Z3.000000

(End cutting path id: path81431)


(Start cutting path id: path81429)
(Change tool to Default tool)

G00 Z3.000000
G00 X166.440980 Y205.806909

G00 Z4.875000 (Fast pre-penetrate)
G01 Z-0.125000 F400.0(Penetrate)
G01 X165.756141 Y185.325108 Z-0.125000 F800.000000
G01 X166.075744 Y163.838865 Z-0.125000
G01 X165.844986 Y142.902984 Z-0.125000
G01 X158.861421 Y128.719909 Z-0.125000
G01 X161.836908 Y104.577782 Z-0.125000
G01 X162.617195 Y82.630855 Z-0.125000
G01 X164.944877 Y59.136533 Z-0.125000
G00 Z3.000000

(End cutting path id: path81429)


(Start cutting path id: path81427)
(Change tool to Default tool)

G00 Z3.000000
G00 X165.170997 Y206.018560

G00 Z4.875000 (Fast pre-penetrate)
G01 Z-0.125000 F400.0(Penetrate)
G01 X164.873268 Y185.149650 Z-0.125000 F800.000000
G01 X164.737947 Y164.118331 Z-0.125000
G01 X164.672526 Y143.017112 Z-0.125000
G01 X158.424808 Y128.098189 Z-0.125000
G01 X160.986866 Y104.369491 Z-0.125000
G01 X161.323720 Y82.865998 Z-0.125000
G01 X163.577856 Y59.445222 Z-0.125000
G00 Z3.000000

(End cutting path id: path81427)


(Start cutting path id: path81425)
(Change tool to Default tool)

G00 Z3.000000
G00 X163.901015 Y206.230211

G00 Z4.875000 (Fast pre-penetrate)
G01 Z-0.125000 F400.0(Penetrate)
G01 X163.990391 Y184.974194 Z-0.125000 F800.000000
G01 X163.400149 Y164.397797 Z-0.125000
G01 X163.500069 Y143.131237 Z-0.125000
G01 X157.988199 Y127.476467 Z-0.125000
G01 X160.136827 Y104.161198 Z-0.125000
G01 X160.030248 Y83.101138 Z-0.125000
G01 X162.210835 Y59.753911 Z-0.125000
G00 Z3.000000

(End cutting path id: path81425)


(Start cutting path id: path81423)
(Change tool to Default tool)

G00 Z3.000000
G00 X162.631030 Y206.441864

G00 Z4.875000 (Fast pre-penetrate)
G01 Z-0.125000 F400.0(Penetrate)
G01 X163.107517 Y184.798736 Z-0.125000 F800.000000
G01 X162.062348 Y164.677265 Z-0.125000
G01 X162.327609 Y143.245365 Z-0.125000
G01 X157.551587 Y126.854747 Z-0.125000
G01 X159.286788 Y103.952906 Z-0.125000
G01 X158.736773 Y83.336281 Z-0.125000
G01 X160.843817 Y60.062597 Z-0.125000
G00 Z3.000000

(End cutting path id: path81423)


(Start cutting path id: path81421)
(Change tool to Default tool)

G00 Z3.000000
G00 X161.361047 Y206.653514

G00 Z4.875000 (Fast pre-penetrate)
G01 Z-0.125000 F400.0(Penetrate)
G01 X162.224641 Y184.623281 Z-0.125000 F800.000000
G01 X160.724551 Y164.956731 Z-0.125000
G01 X161.155149 Y143.359493 Z-0.125000
G01 X157.114977 Y126.233025 Z-0.125000
G01 X158.436746 Y103.744615 Z-0.125000
G01 X157.443301 Y83.571421 Z-0.125000
G01 X159.476796 Y60.371286 Z-0.125000
G00 Z3.000000

(End cutting path id: path81421)


(Start cutting path id: path81419)
(Change tool to Default tool)

G00 Z3.000000
G00 X160.091065 Y206.865165

G00 Z4.875000 (Fast pre-penetrate)
G01 Z-0.125000 F400.0(Penetrate)
G01 X161.341767 Y184.447822 Z-0.125000 F800.000000
G01 X159.386750 Y165.236199 Z-0.125000
G01 X159.982689 Y143.473621 Z-0.125000
G01 X156.678365 Y125.611305 Z-0.125000
G01 X157.586707 Y103.536322 Z-0.125000
G01 X156.149826 Y83.806564 Z-0.125000
G01 X158.109775 Y60.679975 Z-0.125000
G00 Z3.000000

(End cutting path id: path81419)


(Start cutting path id: path81417)
(Change tool to Default tool)

G00 Z3.000000
G00 X158.821080 Y207.076818

G00 Z4.875000 (Fast pre-penetrate)
G01 Z-0.125000 F400.0(Penetrate)
G01 X160.458891 Y184.272367 Z-0.125000 F800.000000
G01 X158.048952 Y165.515665 Z-0.125000
G01 X158.810229 Y143.587748 Z-0.125000
G01 X156.241753 Y124.989585 Z-0.125000
G01 X156.736668 Y103.328029 Z-0.125000
G01 X154.856354 Y84.041704 Z-0.125000
G01 X156.742754 Y60.988664 Z-0.125000
G00 Z3.000000

(End cutting path id: path81417)


(Start cutting path id: path81415)
(Change tool to Default tool)

G00 Z3.000000
G00 X157.551097 Y207.288468

G00 Z4.875000 (Fast pre-penetrate)
G01 Z-0.125000 F400.0(Penetrate)
G01 X159.576017 Y184.096909 Z-0.125000 F800.000000
G01 X156.711155 Y165.795131 Z-0.125000
G01 X157.637769 Y143.701876 Z-0.125000
G01 X155.805143 Y124.367863 Z-0.125000
G01 X155.886629 Y103.119736 Z-0.125000
G01 X153.562879 Y84.276847 Z-0.125000
G01 X155.375735 Y61.297350 Z-0.125000
G00 Z3.000000

(End cutting path id: path81415)


(Start cutting path id: path81413)
(Change tool to Default tool)

G00 Z3.000000
G00 X156.281115 Y207.500119

G00 Z4.875000 (Fast pre-penetrate)
G01 Z-0.125000 F400.0(Penetrate)
G01 X158.693140 Y183.921453 Z-0.125000 F800.000000
G01 X155.373354 Y166.074599 Z-0.125000
G01 X156.465312 Y143.816002 Z-0.125000
G01 X155.368531 Y123.746143 Z-0.125000
G01 X155.036588 Y102.911446 Z-0.125000
G01 X152.269404 Y84.511990 Z-0.125000
G01 X154.008714 Y61.606039 Z-0.125000
G00 Z3.000000

(End cutting path id: path81413)


(Start cutting path id: path81411)
(Change tool to Default tool)

G00 Z3.000000
G00 X155.011129 Y207.711772

G00 Z4.875000 (Fast pre-penetrate)
G01 Z-0.125000 F400.0(Penetrate)
G01 X157.810267 Y183.745995 Z-0.125000 F800.000000
G01 X154.035556 Y166.354065 Z-0.125000
G01 X155.292852 Y143.930129 Z-0.125000
G01 X154.931921 Y123.124420 Z-0.125000
G01 X154.186548 Y102.703153 Z-0.125000
G01 X150.975932 Y84.747130 Z-0.125000
G01 X152.641693 Y61.914728 Z-0.125000
G00 Z3.000000

(End cutting path id: path81411)


(Start cutting path id: path81409)
(Change tool to Default tool)

G00 Z3.000000
G00 X153.741147 Y207.923423

G00 Z4.875000 (Fast pre-penetrate)
G01 Z-0.125000 F400.0(Penetrate)
G01 X156.927390 Y183.570539 Z-0.125000 F800.000000
G01 X152.697758 Y166.633531 Z-0.125000
G01 X154.120392 Y144.044257 Z-0.125000
G01 X154.495309 Y122.502701 Z-0.125000
G01 X153.336509 Y102.494860 Z-0.125000
G01 X149.682457 Y84.982273 Z-0.125000
G01 X151.274675 Y62.223415 Z-0.125000
G00 Z3.000000

(End cutting path id: path81409)


(Start cutting path id: path81407)
(Change tool to Default tool)

G00 Z3.000000
G00 X152.471164 Y208.135073

G00 Z4.875000 (Fast pre-penetrate)
G01 Z-0.125000 F400.0(Penetrate)
G01 X156.044516 Y183.395081 Z-0.125000 F800.000000
G01 X151.359958 Y166.912999 Z-0.125000
G01 X152.947932 Y144.158385 Z-0.125000
G01 X154.058697 Y121.880981 Z-0.125000
G01 X152.486468 Y102.286570 Z-0.125000
G01 X148.388985 Y85.217413 Z-0.125000
G01 X149.907654 Y62.532103 Z-0.125000
G00 Z3.000000

(End cutting path id: path81407)


(Start cutting path id: path81405)
(Change tool to Default tool)

G00 Z3.000000
G00 X151.201179 Y208.346726

G00 Z4.875000 (Fast pre-penetrate)
G01 Z-0.125000 F400.0(Penetrate)
G01 X155.161640 Y183.219625 Z-0.125000 F800.000000
G01 X150.022160 Y167.192465 Z-0.125000
G01 X151.775472 Y144.272513 Z-0.125000
G01 X153.622087 Y121.259258 Z-0.125000
G01 X151.636429 Y102.078277 Z-0.125000
G01 X147.095510 Y85.452556 Z-0.125000
G01 X148.540633 Y62.840792 Z-0.125000
G00 Z3.000000

(End cutting path id: path81405)


(Start cutting path id: path81403)
(Change tool to Default tool)

G00 Z3.000000
G00 X149.931197 Y208.558377

G00 Z4.875000 (Fast pre-penetrate)
G01 Z-0.125000 F400.0(Penetrate)
G01 X154.278766 Y183.044167 Z-0.125000 F800.000000
G01 X148.684360 Y167.471934 Z-0.125000
G01 X150.603013 Y144.386641 Z-0.125000
G01 X153.185475 Y120.637539 Z-0.125000
G01 X150.786390 Y101.869984 Z-0.125000
G01 X145.802038 Y85.687696 Z-0.125000
G01 X147.173612 Y63.149481 Z-0.125000
G00 Z3.000000

(End cutting path id: path81403)


(Start cutting path id: path81401)
(Change tool to Default tool)

G00 Z3.000000
G00 X148.661214 Y208.770027

G00 Z4.875000 (Fast pre-penetrate)
G01 Z-0.125000 F400.0(Penetrate)
G01 X153.395890 Y182.868712 Z-0.125000 F800.000000
G01 X147.346562 Y167.751399 Z-0.125000
G01 X149.430553 Y144.500769 Z-0.125000
G01 X152.748865 Y120.015816 Z-0.125000
G01 X149.936351 Y101.661691 Z-0.125000
G01 X144.508563 Y85.922839 Z-0.125000
G01 X145.806594 Y63.458168 Z-0.125000
G00 Z3.000000

(End cutting path id: path81401)


(Start cutting path id: path81399)
(Change tool to Default tool)

G00 Z3.000000
G00 X147.391229 Y208.981681

G00 Z4.875000 (Fast pre-penetrate)
G01 Z-0.125000 F400.0(Penetrate)
G01 X152.513016 Y182.693253 Z-0.125000 F800.000000
G01 X146.008764 Y168.030865 Z-0.125000
G01 X148.258095 Y144.614894 Z-0.125000
G01 X152.312253 Y119.394096 Z-0.125000
G01 X149.086309 Y101.453400 Z-0.125000
G01 X143.215091 Y86.157979 Z-0.125000
G01 X144.439573 Y63.766857 Z-0.125000
G00 Z3.000000

(End cutting path id: path81399)


(Start cutting path id: path81397)
(Change tool to Default tool)

G00 Z3.000000
G00 X146.121246 Y209.193331

G00 Z4.875000 (Fast pre-penetrate)
G01 Z-0.125000 F400.0(Penetrate)
G01 X151.630140 Y182.517798 Z-0.125000 F800.000000
G01 X144.670964 Y168.310334 Z-0.125000
G01 X147.085636 Y144.729022 Z-0.125000
G01 X151.875644 Y118.772374 Z-0.125000
G01 X148.236270 Y101.245108 Z-0.125000
G01 X141.921616 Y86.393122 Z-0.125000
G01 X143.072552 Y64.075546 Z-0.125000
G00 Z3.000000

(End cutting path id: path81397)


(Start cutting path id: path81395)
(Change tool to Default tool)

G00 Z3.000000
G00 X144.851264 Y209.404982

G00 Z4.875000 (Fast pre-penetrate)
G01 Z-0.125000 F400.0(Penetrate)
G01 X150.747266 Y182.342340 Z-0.125000 F800.000000
G01 X143.333166 Y168.589800 Z-0.125000
G01 X145.913176 Y144.843150 Z-0.125000
G01 X151.439031 Y118.150654 Z-0.125000
G01 X147.386231 Y101.036815 Z-0.125000
G01 X140.628143 Y86.628262 Z-0.125000
G01 X141.705533 Y64.384232 Z-0.125000
G00 Z3.000000

(End cutting path id: path81395)


(Start cutting path id: path81393)
(Change tool to Default tool)

G00 Z3.000000
G00 X143.581279 Y209.616635

G00 Z4.875000 (Fast pre-penetrate)
G01 Z-0.125000 F400.0(Penetrate)
G01 X149.864392 Y182.166881 Z-0.125000 F800.000000
G01 X141.995366 Y168.869268 Z-0.125000
G01 X144.740716 Y144.957278 Z-0.125000
G01 X151.002419 Y117.528934 Z-0.125000
G01 X146.536189 Y100.828524 Z-0.125000
G01 X139.334669 Y86.863405 Z-0.125000
G01 X140.338512 Y64.692921 Z-0.125000
G00 Z3.000000

(End cutting path id: path81393)


(Start cutting path id: path81391)
(Change tool to Default tool)

G00 Z3.000000
G00 X142.341744 Y209.797837

G00 Z4.875000 (Fast pre-penetrate)
G01 Z-0.125000 F400.0(Penetrate)
G01 X148.265676 Y182.707266 Z-0.125000 F800.000000
G01 X141.094622 Y168.711680 Z-0.125000
G01 X143.975745 Y144.663916 Z-0.125000
G01 X149.521342 Y117.951680 Z-0.125000
G01 X145.752013 Y100.554369 Z-0.125000
G01 X138.407054 Y86.732688 Z-0.125000
G01 X139.386260 Y64.586842 Z-0.125000
G00 Z3.000000

(End cutting path id: path81391)


(Start cutting path id: path81389)
(Change tool to Default tool)

G00 Z3.000000
G00 X141.102207 Y209.979042

G00 Z4.875000 (Fast pre-penetrate)
G01 Z-0.125000 F400.0(Penetrate)
G01 X146.666962 Y183.247647 Z-0.125000 F800.000000
G01 X140.193878 Y168.554091 Z-0.125000
G01 X143.210775 Y144.370554 Z-0.125000
G01 X148.040262 Y118.374428 Z-0.125000
G01 X144.967836 Y100.280213 Z-0.125000
G01 X137.479436 Y86.601973 Z-0.125000
G01 X138.434004 Y64.480765 Z-0.125000
G00 Z3.000000

(End cutting path id: path81389)


(Start cutting path id: path81387)
(Change tool to Default tool)

G00 Z3.000000
G00 X139.862673 Y210.160244

G00 Z4.875000 (Fast pre-penetrate)
G01 Z-0.125000 F400.0(Penetrate)
G01 X145.068248 Y183.788029 Z-0.125000 F800.000000
G01 X139.293134 Y168.396503 Z-0.125000
G01 X142.445805 Y144.077193 Z-0.125000
G01 X146.559182 Y118.797176 Z-0.125000
G01 X144.183660 Y100.006057 Z-0.125000
G01 X136.551822 Y86.471256 Z-0.125000
G01 X137.481752 Y64.374686 Z-0.125000
G00 Z3.000000

(End cutting path id: path81387)


(Start cutting path id: path81385)
(Change tool to Default tool)

G00 Z3.000000
G00 X138.623136 Y210.341449

G00 Z4.875000 (Fast pre-penetrate)
G01 Z-0.125000 F400.0(Penetrate)
G01 X143.469535 Y184.328411 Z-0.125000 F800.000000
G01 X138.392388 Y168.238917 Z-0.125000
G01 X141.680832 Y143.783834 Z-0.125000
G01 X145.078104 Y119.219921 Z-0.125000
G01 X143.399484 Y99.731902 Z-0.125000
G01 X135.624207 Y86.340539 Z-0.125000
G01 X136.529499 Y64.268607 Z-0.125000
G00 Z3.000000

(End cutting path id: path81385)


(Start cutting path id: path81383)
(Change tool to Default tool)

G00 Z3.000000
G00 X137.383602 Y210.522652

G00 Z4.875000 (Fast pre-penetrate)
G01 Z-0.125000 F400.0(Penetrate)
G01 X141.870821 Y184.868792 Z-0.125000 F800.000000
G01 X137.491644 Y168.081329 Z-0.125000
G01 X140.915862 Y143.490472 Z-0.125000
G01 X143.597024 Y119.642669 Z-0.125000
G01 X142.615305 Y99.457749 Z-0.125000
G01 X134.696589 Y86.209824 Z-0.125000
G01 X135.577246 Y64.162527 Z-0.125000
G00 Z3.000000

(End cutting path id: path81383)


(Start cutting path id: path81381)
(Change tool to Default tool)

G00 Z3.000000
G00 X136.144065 Y210.703857

G00 Z4.875000 (Fast pre-penetrate)
G01 Z-0.125000 F400.0(Penetrate)
G01 X140.272107 Y185.409174 Z-0.125000 F800.000000
G01 X136.590901 Y167.923741 Z-0.125000
G01 X140.150891 Y143.197110 Z-0.125000
G01 X142.115944 Y120.065418 Z-0.125000
G01 X141.831128 Y99.183593 Z-0.125000
G01 X133.768975 Y86.079107 Z-0.125000
G01 X134.624991 Y64.056451 Z-0.125000
G00 Z3.000000

(End cutting path id: path81381)


(Start cutting path id: path81379)
(Change tool to Default tool)

G00 Z3.000000
G00 X134.904528 Y210.885062

G00 Z4.875000 (Fast pre-penetrate)
G01 Z-0.125000 F400.0(Penetrate)
G01 X138.673391 Y185.949558 Z-0.125000 F800.000000
G01 X135.690157 Y167.766153 Z-0.125000
G01 X139.385921 Y142.903749 Z-0.125000
G01 X140.634867 Y120.488163 Z-0.125000
G01 X141.046952 Y98.909438 Z-0.125000
G01 X132.841360 Y85.948390 Z-0.125000
G01 X133.672738 Y63.950372 Z-0.125000
G00 Z3.000000

(End cutting path id: path81379)


(Start cutting path id: path81313)
(Change tool to Default tool)

G00 Z3.000000
G00 X103.287023 Y207.577610

G00 Z4.875000 (Fast pre-penetrate)
G01 Z-0.125000 F400.0(Penetrate)
G01 X103.863076 Y185.834917 Z-0.125000 F800.000000
G01 X98.602817 Y169.928537 Z-0.125000
G01 X105.421915 Y141.942799 Z-0.125000
G01 X107.339935 Y118.858139 Z-0.125000
G01 X96.354528 Y108.676905 Z-0.125000
G01 X104.425437 Y79.439357 Z-0.125000
G01 X100.713787 Y61.984366 Z-0.125000
G00 Z3.000000

(End cutting path id: path81313)


(Start cutting path id: path81311)
(Change tool to Default tool)

G00 Z3.000000
G00 X102.070278 Y207.736024

G00 Z4.875000 (Fast pre-penetrate)
G01 Z-0.125000 F400.0(Penetrate)
G01 X102.660843 Y185.978819 Z-0.125000 F800.000000
G01 X97.736236 Y169.736785 Z-0.125000
G01 X104.475591 Y141.830790 Z-0.125000
G01 X106.241034 Y118.898707 Z-0.125000
G01 X95.443789 Y108.529313 Z-0.125000
G01 X103.086866 Y79.719595 Z-0.125000
G01 X99.922771 Y61.717050 Z-0.125000
G00 Z3.000000

(End cutting path id: path81311)


(Start cutting path id: path81309)
(Change tool to Default tool)

G00 Z3.000000
G00 X100.853532 Y207.894438

G00 Z4.875000 (Fast pre-penetrate)
G01 Z-0.125000 F400.0(Penetrate)
G01 X101.458607 Y186.122723 Z-0.125000 F800.000000
G01 X96.869655 Y169.545034 Z-0.125000
G01 X103.529270 Y141.718779 Z-0.125000
G01 X105.142131 Y118.939278 Z-0.125000
G01 X94.533049 Y108.381721 Z-0.125000
G01 X101.748293 Y79.999836 Z-0.125000
G01 X99.131755 Y61.449734 Z-0.125000
G00 Z3.000000

(End cutting path id: path81309)


(Start cutting path id: path81315)
(Change tool to Default tool)

G00 Z3.000000
G00 X104.062201 Y207.860764

G00 Z4.875000 (Fast pre-penetrate)
G01 Z-0.125000 F400.0(Penetrate)
G01 X104.564428 Y186.191898 Z-0.125000 F800.000000
G01 X99.871699 Y169.717987 Z-0.125000
G01 X106.622883 Y141.800162 Z-0.125000
G01 X108.041979 Y119.214426 Z-0.125000
G01 X98.079435 Y108.010331 Z-0.125000
G01 X105.243284 Y79.679841 Z-0.125000
G01 X101.742769 Y62.013717 Z-0.125000
G00 Z3.000000

(End cutting path id: path81315)


(Start cutting path id: path81307)
(Change tool to Default tool)

G00 Z3.000000
G00 X99.636783 Y208.052854

G00 Z4.875000 (Fast pre-penetrate)
G01 Z-0.125000 F400.0(Penetrate)
G01 X100.256373 Y186.266624 Z-0.125000 F800.000000
G01 X96.003075 Y169.353283 Z-0.125000
G01 X102.582947 Y141.606771 Z-0.125000
G01 X104.043231 Y118.979847 Z-0.125000
G01 X93.622312 Y108.234126 Z-0.125000
G01 X100.409723 Y80.280074 Z-0.125000
G01 X98.340742 Y61.182415 Z-0.125000
G00 Z3.000000

(End cutting path id: path81307)


(Start cutting path id: path81305)
(Change tool to Default tool)

G00 Z3.000000
G00 X98.420038 Y208.211268

G00 Z4.875000 (Fast pre-penetrate)
G01 Z-0.125000 F400.0(Penetrate)
G01 X99.054137 Y186.410528 Z-0.125000 F800.000000
G01 X95.136491 Y169.161534 Z-0.125000
G01 X101.636626 Y141.494759 Z-0.125000
G01 X102.944330 Y119.020415 Z-0.125000
G01 X92.711572 Y108.086533 Z-0.125000
G01 X99.071153 Y80.560313 Z-0.125000
G01 X97.549726 Y60.915099 Z-0.125000
G00 Z3.000000

(End cutting path id: path81305)


(Start cutting path id: path81317)
(Change tool to Default tool)

G00 Z3.000000
G00 X104.837379 Y208.143918

G00 Z4.875000 (Fast pre-penetrate)
G01 Z-0.125000 F400.0(Penetrate)
G01 X105.265779 Y186.548879 Z-0.125000 F800.000000
G01 X101.140583 Y169.507434 Z-0.125000
G01 X107.823852 Y141.657526 Z-0.125000
G01 X108.744024 Y119.570713 Z-0.125000
G01 X99.804341 Y107.343756 Z-0.125000
G01 X106.061129 Y79.920329 Z-0.125000
G01 X102.771751 Y62.043067 Z-0.125000
G00 Z3.000000

(End cutting path id: path81317)


(Start cutting path id: path81319)
(Change tool to Default tool)

G00 Z3.000000
G00 X105.612555 Y208.427075

G00 Z4.875000 (Fast pre-penetrate)
G01 Z-0.125000 F400.0(Penetrate)
G01 X105.967130 Y186.905859 Z-0.125000 F800.000000
G01 X102.409465 Y169.296884 Z-0.125000
G01 X109.024821 Y141.514889 Z-0.125000
G01 X109.446071 Y119.926998 Z-0.125000
G01 X101.529245 Y106.677184 Z-0.125000
G01 X106.878976 Y80.160814 Z-0.125000
G01 X103.800735 Y62.072414 Z-0.125000
G00 Z3.000000

(End cutting path id: path81319)


(Start cutting path id: path81303)
(Change tool to Default tool)

G00 Z3.000000
G00 X97.203292 Y208.369682

G00 Z4.875000 (Fast pre-penetrate)
G01 Z-0.125000 F400.0(Penetrate)
G01 X97.851904 Y186.554430 Z-0.125000 F800.000000
G01 X94.269910 Y168.969783 Z-0.125000
G01 X100.690303 Y141.382751 Z-0.125000
G01 X101.845427 Y119.060986 Z-0.125000
G01 X91.800832 Y107.938941 Z-0.125000
G01 X97.732582 Y80.840551 Z-0.125000
G01 X96.758713 Y60.647780 Z-0.125000
G00 Z3.000000

(End cutting path id: path81303)


(Start cutting path id: path81301)
(Change tool to Default tool)

G00 Z3.000000
G00 X95.986543 Y208.528098

G00 Z4.875000 (Fast pre-penetrate)
G01 Z-0.125000 F400.0(Penetrate)
G01 X96.649671 Y186.698331 Z-0.125000 F800.000000
G01 X93.403330 Y168.778032 Z-0.125000
G01 X99.743982 Y141.270740 Z-0.125000
G01 X100.746527 Y119.101555 Z-0.125000
G01 X90.890095 Y107.791346 Z-0.125000
G01 X96.394009 Y81.120792 Z-0.125000
G01 X95.967697 Y60.380464 Z-0.125000
G00 Z3.000000

(End cutting path id: path81301)


(Start cutting path id: path81299)
(Change tool to Default tool)

G00 Z3.000000
G00 X94.769798 Y208.686512

G00 Z4.875000 (Fast pre-penetrate)
G01 Z-0.125000 F400.0(Penetrate)
G01 X95.447434 Y186.842235 Z-0.125000 F800.000000
G01 X92.536749 Y168.586281 Z-0.125000
G01 X98.797658 Y141.158731 Z-0.125000
G01 X99.647626 Y119.142123 Z-0.125000
G01 X89.979356 Y107.643754 Z-0.125000
G01 X95.055439 Y81.401031 Z-0.125000
G01 X95.176684 Y60.113145 Z-0.125000
G00 Z3.000000

(End cutting path id: path81299)


(Start cutting path id: path81297)
(Change tool to Default tool)

G00 Z3.000000
G00 X93.553052 Y208.844926

G00 Z4.875000 (Fast pre-penetrate)
G01 Z-0.125000 F400.0(Penetrate)
G01 X94.245201 Y186.986136 Z-0.125000 F800.000000
G01 X91.670168 Y168.394529 Z-0.125000
G01 X97.851335 Y141.046722 Z-0.125000
G01 X98.548723 Y119.182695 Z-0.125000
G01 X89.068616 Y107.496161 Z-0.125000
G01 X93.716868 Y81.681269 Z-0.125000
G01 X94.385668 Y59.845829 Z-0.125000
G00 Z3.000000

(End cutting path id: path81297)


(Start cutting path id: path81295)
(Change tool to Default tool)

G00 Z3.000000
G00 X92.336304 Y209.003342

G00 Z4.875000 (Fast pre-penetrate)
G01 Z-0.125000 F400.0(Penetrate)
G01 X93.042965 Y187.130040 Z-0.125000 F800.000000
G01 X90.803587 Y168.202778 Z-0.125000
G01 X96.905014 Y140.934711 Z-0.125000
G01 X97.449822 Y119.223263 Z-0.125000
G01 X88.157876 Y107.348569 Z-0.125000
G01 X92.378298 Y81.961507 Z-0.125000
G01 X93.594655 Y59.578511 Z-0.125000
G00 Z3.000000

(End cutting path id: path81295)


(Start cutting path id: path81293)
(Change tool to Default tool)

G00 Z3.000000
G00 X91.119558 Y209.161756

G00 Z4.875000 (Fast pre-penetrate)
G01 Z-0.125000 F400.0(Penetrate)
G01 X91.840732 Y187.273942 Z-0.125000 F800.000000
G01 X89.937004 Y168.011029 Z-0.125000
G01 X95.958691 Y140.822703 Z-0.125000
G01 X96.350922 Y119.263832 Z-0.125000
G01 X87.247139 Y107.200974 Z-0.125000
G01 X91.039725 Y82.241748 Z-0.125000
G01 X92.803639 Y59.311194 Z-0.125000
G00 Z3.000000

(End cutting path id: path81293)


(Start cutting path id: path81321)
(Change tool to Default tool)

G00 Z3.000000
G00 X106.387732 Y208.710229

G00 Z4.875000 (Fast pre-penetrate)
G01 Z-0.125000 F400.0(Penetrate)
G01 X106.668484 Y187.262837 Z-0.125000 F800.000000
G01 X103.678350 Y169.086332 Z-0.125000
G01 X110.225792 Y141.372249 Z-0.125000
G01 X110.148116 Y120.283286 Z-0.125000
G01 X103.254152 Y106.010610 Z-0.125000
G01 X107.696820 Y80.401301 Z-0.125000
G01 X104.829717 Y62.101765 Z-0.125000
G00 Z3.000000

(End cutting path id: path81321)


(Start cutting path id: path81323)
(Change tool to Default tool)

G00 Z3.000000
G00 X107.162910 Y208.993383

G00 Z4.875000 (Fast pre-penetrate)
G01 Z-0.125000 F400.0(Penetrate)
G01 X107.369835 Y187.619818 Z-0.125000 F800.000000
G01 X104.947232 Y168.875782 Z-0.125000
G01 X111.426761 Y141.229613 Z-0.125000
G01 X110.850160 Y120.639573 Z-0.125000
G01 X104.979058 Y105.344035 Z-0.125000
G01 X108.514668 Y80.641786 Z-0.125000
G01 X105.858701 Y62.131112 Z-0.125000
G00 Z3.000000

(End cutting path id: path81323)


(Start cutting path id: path81325)
(Change tool to Default tool)

G00 Z3.000000
G00 X107.938086 Y209.276540

G00 Z4.875000 (Fast pre-penetrate)
G01 Z-0.125000 F400.0(Penetrate)
G01 X108.071187 Y187.976799 Z-0.125000 F800.000000
G01 X106.216116 Y168.665229 Z-0.125000
G01 X112.627729 Y141.086976 Z-0.125000
G01 X111.552205 Y120.995861 Z-0.125000
G01 X106.703965 Y104.677461 Z-0.125000
G01 X109.332512 Y80.882273 Z-0.125000
G01 X106.887683 Y62.160462 Z-0.125000
G00 Z3.000000

(End cutting path id: path81325)


(Start cutting path id: path81327)
(Change tool to Default tool)

G00 Z3.000000
G00 X108.713264 Y209.559694

G00 Z4.875000 (Fast pre-penetrate)
G01 Z-0.125000 F400.0(Penetrate)
G01 X108.772538 Y188.333779 Z-0.125000 F800.000000
G01 X107.484998 Y168.454680 Z-0.125000
G01 X113.828698 Y140.944339 Z-0.125000
G01 X112.254249 Y121.352148 Z-0.125000
G01 X108.428871 Y104.010886 Z-0.125000
G01 X110.150359 Y81.122758 Z-0.125000
G01 X107.916665 Y62.189812 Z-0.125000
G00 Z3.000000

(End cutting path id: path81327)


(Start cutting path id: path81329)
(Change tool to Default tool)

G00 Z3.000000
G00 X109.488442 Y209.842848

G00 Z4.875000 (Fast pre-penetrate)
G01 Z-0.125000 F400.0(Penetrate)
G01 X109.473889 Y188.690760 Z-0.125000 F800.000000
G01 X108.753882 Y168.244127 Z-0.125000
G01 X115.029669 Y140.801700 Z-0.125000
G01 X112.956294 Y121.708436 Z-0.125000
G01 X110.153778 Y103.344312 Z-0.125000
G01 X110.968204 Y81.363246 Z-0.125000
G01 X108.945649 Y62.219160 Z-0.125000
G00 Z3.000000

(End cutting path id: path81329)


(Start cutting path id: path81331)
(Change tool to Default tool)

G00 Z3.000000
G00 X110.263617 Y210.126005

G00 Z4.875000 (Fast pre-penetrate)
G01 Z-0.125000 F400.0(Penetrate)
G01 X110.175241 Y189.047741 Z-0.125000 F800.000000
G01 X110.022764 Y168.033577 Z-0.125000
G01 X116.230638 Y140.659063 Z-0.125000
G01 X113.658341 Y122.064720 Z-0.125000
G01 X111.878684 Y102.677737 Z-0.125000
G01 X111.786051 Y81.603730 Z-0.125000
G01 X109.974631 Y62.248510 Z-0.125000
G00 Z3.000000

(End cutting path id: path81331)


(Start cutting path id: path81333)
(Change tool to Default tool)

G00 Z3.000000
G00 X111.038795 Y210.409159

G00 Z4.875000 (Fast pre-penetrate)
G01 Z-0.125000 F400.0(Penetrate)
G01 X110.876592 Y189.404721 Z-0.125000 F800.000000
G01 X111.291649 Y167.823025 Z-0.125000
G01 X117.431607 Y140.516427 Z-0.125000
G01 X114.360386 Y122.421008 Z-0.125000
G01 X113.603588 Y102.011165 Z-0.125000
G01 X112.603896 Y81.844218 Z-0.125000
G01 X111.003616 Y62.277858 Z-0.125000
G00 Z3.000000

(End cutting path id: path81333)


(Start cutting path id: path81335)
(Change tool to Default tool)

G00 Z3.000000
G00 X111.813973 Y210.692313

G00 Z4.875000 (Fast pre-penetrate)
G01 Z-0.125000 F400.0(Penetrate)
G01 X111.577943 Y189.761702 Z-0.125000 F800.000000
G01 X112.560531 Y167.612475 Z-0.125000
G01 X118.632576 Y140.373790 Z-0.125000
G01 X115.062430 Y122.777295 Z-0.125000
G01 X115.328495 Y101.344591 Z-0.125000
G01 X113.421743 Y82.084703 Z-0.125000
G01 X112.032598 Y62.307208 Z-0.125000
G00 Z3.000000

(End cutting path id: path81335)


(Start cutting path id: path81291)
(Change tool to Default tool)

G00 Z3.000000
G00 X89.902812 Y209.320170

G00 Z4.875000 (Fast pre-penetrate)
G01 Z-0.125000 F400.0(Penetrate)
G01 X90.638496 Y187.417846 Z-0.125000 F800.000000
G01 X89.070423 Y167.819278 Z-0.125000
G01 X95.012370 Y140.710691 Z-0.125000
G01 X95.252019 Y119.304403 Z-0.125000
G01 X86.336400 Y107.053382 Z-0.125000
G01 X89.701155 Y82.521987 Z-0.125000
G01 X92.012626 Y59.043876 Z-0.125000
G00 Z3.000000

(End cutting path id: path81291)


(Start cutting path id: path81289)
(Change tool to Default tool)

G00 Z3.000000
G00 X88.686064 Y209.478586

G00 Z4.875000 (Fast pre-penetrate)
G01 Z-0.125000 F400.0(Penetrate)
G01 X89.436262 Y187.561747 Z-0.125000 F800.000000
G01 X88.203842 Y167.627527 Z-0.125000
G01 X94.066047 Y140.598683 Z-0.125000
G01 X94.153118 Y119.344971 Z-0.125000
G01 X85.425660 Y106.905789 Z-0.125000
G01 X88.362584 Y82.802225 Z-0.125000
G01 X91.221610 Y58.776559 Z-0.125000
G00 Z3.000000

(End cutting path id: path81289)


(Start cutting path id: path81287)
(Change tool to Default tool)

G00 Z3.000000
G00 X87.469318 Y209.637000

G00 Z4.875000 (Fast pre-penetrate)
G01 Z-0.125000 F400.0(Penetrate)
G01 X88.234029 Y187.705649 Z-0.125000 F800.000000
G01 X87.337262 Y167.435776 Z-0.125000
G01 X93.119726 Y140.486672 Z-0.125000
G01 X93.054218 Y119.385540 Z-0.125000
G01 X84.514923 Y106.758194 Z-0.125000
G01 X87.024014 Y83.082464 Z-0.125000
G01 X90.430597 Y58.509241 Z-0.125000
G00 Z3.000000

(End cutting path id: path81287)


(Start cutting path id: path81285)
(Change tool to Default tool)

G00 Z3.000000
G00 X86.252572 Y209.795414

G00 Z4.875000 (Fast pre-penetrate)
G01 Z-0.125000 F400.0(Penetrate)
G01 X87.031793 Y187.849553 Z-0.125000 F800.000000
G01 X86.470681 Y167.244025 Z-0.125000
G01 X92.173402 Y140.374663 Z-0.125000
G01 X91.955315 Y119.426111 Z-0.125000
G01 X83.604183 Y106.610602 Z-0.125000
G01 X85.685441 Y83.362705 Z-0.125000
G01 X89.639581 Y58.241925 Z-0.125000
G00 Z3.000000

(End cutting path id: path81285)


(Start cutting path id: path81283)
(Change tool to Default tool)

G00 Z3.000000
G00 X85.035824 Y209.953830

G00 Z4.875000 (Fast pre-penetrate)
G01 Z-0.125000 F400.0(Penetrate)
G01 X85.829559 Y187.993454 Z-0.125000 F800.000000
G01 X85.604100 Y167.052273 Z-0.125000
G01 X91.227082 Y140.262652 Z-0.125000
G01 X90.856414 Y119.466679 Z-0.125000
G01 X82.693444 Y106.463010 Z-0.125000
G01 X84.346871 Y83.642943 Z-0.125000
G01 X88.848565 Y57.974608 Z-0.125000
G00 Z3.000000

(End cutting path id: path81283)


(Start cutting path id: path81281)
(Change tool to Default tool)

G00 Z3.000000
G00 X83.819078 Y210.112244

G00 Z4.875000 (Fast pre-penetrate)
G01 Z-0.125000 F400.0(Penetrate)
G01 X84.627323 Y188.137358 Z-0.125000 F800.000000
G01 X84.737517 Y166.860525 Z-0.125000
G01 X90.280758 Y140.150643 Z-0.125000
G01 X89.757511 Y119.507251 Z-0.125000
G01 X81.782707 Y106.315415 Z-0.125000
G01 X83.008300 Y83.923181 Z-0.125000
G01 X88.057552 Y57.707290 Z-0.125000
G00 Z3.000000

(End cutting path id: path81281)


(Start cutting path id: path81279)
(Change tool to Default tool)

G00 Z3.000000
G00 X82.602332 Y210.270658

G00 Z4.875000 (Fast pre-penetrate)
G01 Z-0.125000 F400.0(Penetrate)
G01 X83.425090 Y188.281260 Z-0.125000 F800.000000
G01 X83.870936 Y166.668773 Z-0.125000
G01 X89.334437 Y140.038632 Z-0.125000
G01 X88.658610 Y119.547819 Z-0.125000
G01 X80.871967 Y106.167822 Z-0.125000
G01 X81.669730 Y84.203420 Z-0.125000
G01 X87.266536 Y57.439973 Z-0.125000
G00 Z3.000000

(End cutting path id: path81279)


(Start cutting path id: path81277)
(Change tool to Default tool)

G00 Z3.000000
G00 X81.385584 Y210.429074

G00 Z4.875000 (Fast pre-penetrate)
G01 Z-0.125000 F400.0(Penetrate)
G01 X82.222856 Y188.425161 Z-0.125000 F800.000000
G01 X83.004355 Y166.477022 Z-0.125000
G01 X88.388114 Y139.926624 Z-0.125000
G01 X87.559710 Y119.588388 Z-0.125000
G01 X79.961227 Y106.020230 Z-0.125000
G01 X80.331159 Y84.483658 Z-0.125000
G01 X86.475523 Y57.172655 Z-0.125000
G00 Z3.000000

(End cutting path id: path81277)


(Start cutting path id: path81275)
(Change tool to Default tool)

G00 Z3.000000
G00 X80.168838 Y210.587488

G00 Z4.875000 (Fast pre-penetrate)
G01 Z-0.125000 F400.0(Penetrate)
G01 X81.020620 Y188.569065 Z-0.125000 F800.000000
G01 X82.137774 Y166.285271 Z-0.125000
G01 X87.441793 Y139.814612 Z-0.125000
G01 X86.460807 Y119.628959 Z-0.125000
G01 X79.050488 Y105.872638 Z-0.125000
G01 X78.992586 Y84.763899 Z-0.125000
G01 X85.684507 Y56.905339 Z-0.125000
G00 Z3.000000

(End cutting path id: path81275)


(Start cutting path id: path81273)
(Change tool to Default tool)

G00 Z3.000000
G00 X78.952092 Y210.745902

G00 Z4.875000 (Fast pre-penetrate)
G01 Z-0.125000 F400.0(Penetrate)
G01 X79.818387 Y188.712966 Z-0.125000 F800.000000
G01 X81.271194 Y166.093520 Z-0.125000
G01 X86.495470 Y139.702604 Z-0.125000
G01 X85.361906 Y119.669527 Z-0.125000
G01 X78.139751 Y105.725043 Z-0.125000
G01 X77.654016 Y85.044137 Z-0.125000
G01 X84.893494 Y56.638020 Z-0.125000
G00 Z3.000000

(End cutting path id: path81273)


(Start cutting path id: path81271)
(Change tool to Default tool)

G00 Z3.000000
G00 X77.912040 Y210.727621

G00 Z4.875000 (Fast pre-penetrate)
G01 Z-0.125000 F400.0(Penetrate)
G01 X78.920329 Y188.552693 Z-0.125000 F800.000000
G01 X80.521313 Y165.785069 Z-0.125000
G01 X85.341009 Y139.798732 Z-0.125000
G01 X84.155529 Y119.817572 Z-0.125000
G01 X77.407197 Y105.399264 Z-0.125000
G01 X76.758434 Y84.881387 Z-0.125000
G01 X83.622575 Y56.850607 Z-0.125000
G00 Z3.000000

(End cutting path id: path81271)


(Start cutting path id: path81269)
(Change tool to Default tool)

G00 Z3.000000
G00 X76.871988 Y210.709341

G00 Z4.875000 (Fast pre-penetrate)
G01 Z-0.125000 F400.0(Penetrate)
G01 X78.022273 Y188.392416 Z-0.125000 F800.000000
G01 X79.771434 Y165.476615 Z-0.125000
G01 X84.186549 Y139.894860 Z-0.125000
G01 X82.949153 Y119.965617 Z-0.125000
G01 X76.674646 Y105.073483 Z-0.125000
G01 X75.862850 Y84.718640 Z-0.125000
G01 X82.351655 Y57.063194 Z-0.125000
G00 Z3.000000

(End cutting path id: path81269)


(Start cutting path id: path81267)
(Change tool to Default tool)

G00 Z3.000000
G00 X75.831936 Y210.691061

G00 Z4.875000 (Fast pre-penetrate)
G01 Z-0.125000 F400.0(Penetrate)
G01 X77.124215 Y188.232142 Z-0.125000 F800.000000
G01 X79.021553 Y165.168165 Z-0.125000
G01 X83.032089 Y139.990989 Z-0.125000
G01 X81.742779 Y120.113659 Z-0.125000
G01 X75.942093 Y104.747705 Z-0.125000
G01 X74.967268 Y84.555889 Z-0.125000
G01 X81.080736 Y57.275781 Z-0.125000
G00 Z3.000000

(End cutting path id: path81267)


(Start cutting path id: path81265)
(Change tool to Default tool)

G00 Z3.000000
G00 X74.791887 Y210.672779

G00 Z4.875000 (Fast pre-penetrate)
G01 Z-0.125000 F400.0(Penetrate)
G01 X76.226159 Y188.071866 Z-0.125000 F800.000000
G01 X78.271674 Y164.859711 Z-0.125000
G01 X81.877631 Y140.087114 Z-0.125000
G01 X80.536402 Y120.261704 Z-0.125000
G01 X75.209539 Y104.421927 Z-0.125000
G01 X74.071684 Y84.393142 Z-0.125000
G01 X79.809817 Y57.488368 Z-0.125000
G00 Z3.000000

(End cutting path id: path81265)


(Start cutting path id: path81263)
(Change tool to Default tool)

G00 Z3.000000
G00 X73.751835 Y210.654499

G00 Z4.875000 (Fast pre-penetrate)
G01 Z-0.125000 F400.0(Penetrate)
G01 X75.328101 Y187.911592 Z-0.125000 F800.000000
G01 X77.521793 Y164.551260 Z-0.125000
G01 X80.723171 Y140.183243 Z-0.125000
G01 X79.330025 Y120.409749 Z-0.125000
G01 X74.476988 Y104.096145 Z-0.125000
G01 X73.176102 Y84.230391 Z-0.125000
G01 X78.538898 Y57.700955 Z-0.125000
G00 Z3.000000

(End cutting path id: path81263)


(Start cutting path id: path81261)
(Change tool to Default tool)

G00 Z3.000000
G00 X72.711783 Y210.636219

G00 Z4.875000 (Fast pre-penetrate)
G01 Z-0.125000 F400.0(Penetrate)
G01 X74.430046 Y187.751316 Z-0.125000 F800.000000
G01 X76.771915 Y164.242807 Z-0.125000
G01 X79.568711 Y140.279371 Z-0.125000
G01 X78.123648 Y120.557793 Z-0.125000
G01 X73.744434 Y103.770367 Z-0.125000
G01 X72.280518 Y84.067644 Z-0.125000
G01 X77.267979 Y57.913543 Z-0.125000
G00 Z3.000000

(End cutting path id: path81261)


(Start cutting path id: path81259)
(Change tool to Default tool)

G00 Z3.000000
G00 X71.671731 Y210.617939

G00 Z4.875000 (Fast pre-penetrate)
G01 Z-0.125000 F400.0(Penetrate)
G01 X73.531988 Y187.591042 Z-0.125000 F800.000000
G01 X76.022034 Y163.934356 Z-0.125000
G01 X78.414250 Y140.375499 Z-0.125000
G01 X76.917271 Y120.705838 Z-0.125000
G01 X73.011883 Y103.444586 Z-0.125000
G01 X71.384936 Y83.904893 Z-0.125000
G01 X75.997060 Y58.126130 Z-0.125000
G00 Z3.000000

(End cutting path id: path81259)


(Start cutting path id: path81195)
(Change tool to Default tool)

G00 Z3.000000
G00 X41.773214 Y206.649831

G00 Z4.875000 (Fast pre-penetrate)
G01 Z-0.125000 F400.0(Penetrate)
G01 X45.998155 Y181.258251 Z-0.125000 F800.000000
G01 X37.931466 Y168.158299 Z-0.125000
G01 X33.801463 Y151.121662 Z-0.125000
G01 X41.487925 Y122.268560 Z-0.125000
G01 X33.286339 Y109.303507 Z-0.125000
G01 X32.185062 Y89.238143 Z-0.125000
G01 X36.912454 Y63.344111 Z-0.125000
G00 Z3.000000

(End cutting path id: path81195)


(Start cutting path id: path81193)
(Change tool to Default tool)

G00 Z3.000000
G00 X40.911224 Y206.453489

G00 Z4.875000 (Fast pre-penetrate)
G01 Z-0.125000 F400.0(Penetrate)
G01 X45.163467 Y181.034606 Z-0.125000 F800.000000
G01 X36.439774 Y168.591660 Z-0.125000
G01 X32.243316 Y151.621478 Z-0.125000
G01 X40.448638 Y122.249516 Z-0.125000
G01 X31.696743 Y109.834771 Z-0.125000
G01 X30.734679 Y89.630194 Z-0.125000
G01 X35.724947 Y63.473286 Z-0.125000
G00 Z3.000000

(End cutting path id: path81193)


(Start cutting path id: path81191)
(Change tool to Default tool)

G00 Z3.000000
G00 X39.661038 Y206.645344

G00 Z4.875000 (Fast pre-penetrate)
G01 Z-0.125000 F400.0(Penetrate)
G01 X43.730134 Y181.409608 Z-0.125000 F800.000000
G01 X35.619146 Y168.353956 Z-0.125000
G01 X31.152914 Y151.653548 Z-0.125000
G01 X39.601869 Y122.037953 Z-0.125000
G01 X31.063524 Y109.409657 Z-0.125000
G01 X30.165064 Y89.141478 Z-0.125000
G01 X34.678672 Y63.461229 Z-0.125000
G00 Z3.000000

(End cutting path id: path81191)


(Start cutting path id: path81189)
(Change tool to Default tool)

G00 Z3.000000
G00 X38.410851 Y206.837198

G00 Z4.875000 (Fast pre-penetrate)
G01 Z-0.125000 F400.0(Penetrate)
G01 X42.296803 Y181.784607 Z-0.125000 F800.000000
G01 X34.798518 Y168.116252 Z-0.125000
G01 X30.062509 Y151.685621 Z-0.125000
G01 X38.755100 Y121.826389 Z-0.125000
G01 X30.430306 Y108.984544 Z-0.125000
G01 X29.595448 Y88.652761 Z-0.125000
G01 X33.632400 Y63.449169 Z-0.125000
G00 Z3.000000

(End cutting path id: path81189)


(Start cutting path id: path81187)
(Change tool to Default tool)

G00 Z3.000000
G00 X37.160665 Y207.029053

G00 Z4.875000 (Fast pre-penetrate)
G01 Z-0.125000 F400.0(Penetrate)
G01 X40.863469 Y182.159608 Z-0.125000 F800.000000
G01 X33.977893 Y167.878545 Z-0.125000
G01 X28.972104 Y151.717694 Z-0.125000
G01 X37.908331 Y121.614826 Z-0.125000
G01 X29.797087 Y108.559430 Z-0.125000
G01 X29.025836 Y88.164042 Z-0.125000
G01 X32.586128 Y63.437110 Z-0.125000
G00 Z3.000000

(End cutting path id: path81187)


(Start cutting path id: path81197)
(Change tool to Default tool)

G00 Z3.000000
G00 X42.635207 Y206.846170

G00 Z4.875000 (Fast pre-penetrate)
G01 Z-0.125000 F400.0(Penetrate)
G01 X46.832846 Y181.481892 Z-0.125000 F800.000000
G01 X39.423156 Y167.724941 Z-0.125000
G01 X35.359611 Y150.621846 Z-0.125000
G01 X42.527212 Y122.287605 Z-0.125000
G01 X34.875938 Y108.772240 Z-0.125000
G01 X33.635446 Y88.846092 Z-0.125000
G01 X38.099963 Y63.214934 Z-0.125000
G00 Z3.000000

(End cutting path id: path81197)


(Start cutting path id: path81199)
(Change tool to Default tool)

G00 Z3.000000
G00 X43.497200 Y207.042509

G00 Z4.875000 (Fast pre-penetrate)
G01 Z-0.125000 F400.0(Penetrate)
G01 X47.667533 Y181.705536 Z-0.125000 F800.000000
G01 X40.914849 Y167.291581 Z-0.125000
G01 X36.917759 Y150.122030 Z-0.125000
G01 X43.566500 Y122.306650 Z-0.125000
G01 X36.465536 Y108.240973 Z-0.125000
G01 X35.085831 Y88.454038 Z-0.125000
G01 X39.287473 Y63.085757 Z-0.125000
G00 Z3.000000

(End cutting path id: path81199)


(Start cutting path id: path81185)
(Change tool to Default tool)

G00 Z3.000000
G00 X35.910478 Y207.220907

G00 Z4.875000 (Fast pre-penetrate)
G01 Z-0.125000 F400.0(Penetrate)
G01 X39.430136 Y182.534609 Z-0.125000 F800.000000
G01 X33.157265 Y167.640841 Z-0.125000
G01 X27.881699 Y151.749766 Z-0.125000
G01 X37.061563 Y121.403263 Z-0.125000
G01 X29.163871 Y108.134314 Z-0.125000
G01 X28.456220 Y87.675325 Z-0.125000
G01 X31.539856 Y63.425050 Z-0.125000
G00 Z3.000000

(End cutting path id: path81185)


(Start cutting path id: path81183)
(Change tool to Default tool)

G00 Z3.000000
G00 X34.660292 Y207.412762

G00 Z4.875000 (Fast pre-penetrate)
G01 Z-0.125000 F400.0(Penetrate)
G01 X37.996805 Y182.909608 Z-0.125000 F800.000000
G01 X32.336637 Y167.403137 Z-0.125000
G01 X26.791294 Y151.781839 Z-0.125000
G01 X36.214794 Y121.191700 Z-0.125000
G01 X28.530653 Y107.709201 Z-0.125000
G01 X27.886605 Y87.186609 Z-0.125000
G01 X30.493581 Y63.412993 Z-0.125000
G00 Z3.000000

(End cutting path id: path81183)


(Start cutting path id: path81181)
(Change tool to Default tool)

G00 Z3.000000
G00 X33.410105 Y207.604616

G00 Z4.875000 (Fast pre-penetrate)
G01 Z-0.125000 F400.0(Penetrate)
G01 X36.563472 Y183.284610 Z-0.125000 F800.000000
G01 X31.516009 Y167.165433 Z-0.125000
G01 X25.700890 Y151.813912 Z-0.125000
G01 X35.368028 Y120.980134 Z-0.125000
G01 X27.897434 Y107.284088 Z-0.125000
G01 X27.316989 Y86.697892 Z-0.125000
G01 X29.447308 Y63.400933 Z-0.125000
G00 Z3.000000

(End cutting path id: path81181)


(Start cutting path id: path81179)
(Change tool to Default tool)

G00 Z3.000000
G00 X32.159919 Y207.796470

G00 Z4.875000 (Fast pre-penetrate)
G01 Z-0.125000 F400.0(Penetrate)
G01 X35.130141 Y183.659608 Z-0.125000 F800.000000
G01 X30.695381 Y166.927729 Z-0.125000
G01 X24.610485 Y151.845985 Z-0.125000
G01 X34.521259 Y120.768571 Z-0.125000
G01 X27.264218 Y106.858971 Z-0.125000
G01 X26.747376 Y86.209173 Z-0.125000
G01 X28.401036 Y63.388874 Z-0.125000
G00 Z3.000000

(End cutting path id: path81179)


(Start cutting path id: path81177)
(Change tool to Default tool)

G00 Z3.000000
G00 X30.909733 Y207.988325

G00 Z4.875000 (Fast pre-penetrate)
G01 Z-0.125000 F400.0(Penetrate)
G01 X33.696808 Y184.034610 Z-0.125000 F800.000000
G01 X29.874755 Y166.690022 Z-0.125000
G01 X23.520080 Y151.878057 Z-0.125000
G01 X33.674490 Y120.557007 Z-0.125000
G01 X26.631000 Y106.433858 Z-0.125000
G01 X26.177761 Y85.720457 Z-0.125000
G01 X27.354761 Y63.376816 Z-0.125000
G00 Z3.000000

(End cutting path id: path81177)


(Start cutting path id: path81175)
(Change tool to Default tool)

G00 Z3.000000
G00 X29.659546 Y208.180179

G00 Z4.875000 (Fast pre-penetrate)
G01 Z-0.125000 F400.0(Penetrate)
G01 X32.263474 Y184.409611 Z-0.125000 F800.000000
G01 X29.054127 Y166.452318 Z-0.125000
G01 X22.429678 Y151.910127 Z-0.125000
G01 X32.827721 Y120.345444 Z-0.125000
G01 X25.997781 Y106.008745 Z-0.125000
G01 X25.608145 Y85.231740 Z-0.125000
G01 X26.308489 Y63.364757 Z-0.125000
G00 Z3.000000

(End cutting path id: path81175)


(Start cutting path id: path81201)
(Change tool to Default tool)

G00 Z3.000000
G00 X44.359190 Y207.238851

G00 Z4.875000 (Fast pre-penetrate)
G01 Z-0.125000 F400.0(Penetrate)
G01 X48.502224 Y181.929177 Z-0.125000 F800.000000
G01 X42.406539 Y166.858223 Z-0.125000
G01 X38.475907 Y149.622215 Z-0.125000
G01 X44.605787 Y122.325695 Z-0.125000
G01 X38.055133 Y107.709709 Z-0.125000
G01 X36.536214 Y88.061987 Z-0.125000
G01 X40.474980 Y62.956582 Z-0.125000
G00 Z3.000000

(End cutting path id: path81201)


(Start cutting path id: path81203)
(Change tool to Default tool)

G00 Z3.000000
G00 X45.221183 Y207.435190

G00 Z4.875000 (Fast pre-penetrate)
G01 Z-0.125000 F400.0(Penetrate)
G01 X49.336912 Y182.152822 Z-0.125000 F800.000000
G01 X43.898231 Y166.424862 Z-0.125000
G01 X40.034055 Y149.122399 Z-0.125000
G01 X45.645074 Y122.344739 Z-0.125000
G01 X39.644731 Y107.178442 Z-0.125000
G01 X37.986598 Y87.669936 Z-0.125000
G01 X41.662489 Y62.827405 Z-0.125000
G00 Z3.000000

(End cutting path id: path81203)


(Start cutting path id: path81205)
(Change tool to Default tool)

G00 Z3.000000
G00 X46.083173 Y207.631532

G00 Z4.875000 (Fast pre-penetrate)
G01 Z-0.125000 F400.0(Penetrate)
G01 X50.171600 Y182.376466 Z-0.125000 F800.000000
G01 X45.389921 Y165.991504 Z-0.125000
G01 X41.592202 Y148.622583 Z-0.125000
G01 X46.684362 Y122.363784 Z-0.125000
G01 X41.234330 Y106.647175 Z-0.125000
G01 X39.436983 Y87.277882 Z-0.125000
G01 X42.849998 Y62.698227 Z-0.125000
G00 Z3.000000

(End cutting path id: path81205)


(Start cutting path id: path81207)
(Change tool to Default tool)

G00 Z3.000000
G00 X46.945166 Y207.827871

G00 Z4.875000 (Fast pre-penetrate)
G01 Z-0.125000 F400.0(Penetrate)
G01 X51.006290 Y182.600107 Z-0.125000 F800.000000
G01 X46.881613 Y165.558144 Z-0.125000
G01 X43.150350 Y148.122767 Z-0.125000
G01 X47.723646 Y122.382831 Z-0.125000
G01 X42.823926 Y106.115911 Z-0.125000
G01 X40.887367 Y86.885831 Z-0.125000
G01 X44.037505 Y62.569053 Z-0.125000
G00 Z3.000000

(End cutting path id: path81207)


(Start cutting path id: path81209)
(Change tool to Default tool)

G00 Z3.000000
G00 X47.807159 Y208.024210

G00 Z4.875000 (Fast pre-penetrate)
G01 Z-0.125000 F400.0(Penetrate)
G01 X51.840978 Y182.823751 Z-0.125000 F800.000000
G01 X48.373303 Y165.124786 Z-0.125000
G01 X44.708498 Y147.622951 Z-0.125000
G01 X48.762934 Y122.401876 Z-0.125000
G01 X44.413525 Y105.584644 Z-0.125000
G01 X42.337750 Y86.493780 Z-0.125000
G01 X45.225014 Y62.439875 Z-0.125000
G00 Z3.000000

(End cutting path id: path81209)


(Start cutting path id: path81211)
(Change tool to Default tool)

G00 Z3.000000
G00 X48.669149 Y208.220552

G00 Z4.875000 (Fast pre-penetrate)
G01 Z-0.125000 F400.0(Penetrate)
G01 X52.675669 Y183.047393 Z-0.125000 F800.000000
G01 X49.864996 Y164.691426 Z-0.125000
G01 X46.266646 Y147.123136 Z-0.125000
G01 X49.802221 Y122.420921 Z-0.125000
G01 X46.003124 Y105.053378 Z-0.125000
G01 X43.788133 Y86.101729 Z-0.125000
G01 X46.412521 Y62.310700 Z-0.125000
G00 Z3.000000

(End cutting path id: path81211)


(Start cutting path id: path81213)
(Change tool to Default tool)

G00 Z3.000000
G00 X49.531142 Y208.416891

G00 Z4.875000 (Fast pre-penetrate)
G01 Z-0.125000 F400.0(Penetrate)
G01 X53.510357 Y183.271037 Z-0.125000 F800.000000
G01 X51.356686 Y164.258068 Z-0.125000
G01 X47.824794 Y146.623320 Z-0.125000
G01 X50.841508 Y122.439965 Z-0.125000
G01 X47.592720 Y104.522114 Z-0.125000
G01 X45.238519 Y85.709675 Z-0.125000
G01 X47.600030 Y62.181523 Z-0.125000
G00 Z3.000000

(End cutting path id: path81213)


(Start cutting path id: path81215)
(Change tool to Default tool)

G00 Z3.000000
G00 X50.393135 Y208.613230

G00 Z4.875000 (Fast pre-penetrate)
G01 Z-0.125000 F400.0(Penetrate)
G01 X54.345045 Y183.494681 Z-0.125000 F800.000000
G01 X52.848378 Y163.824707 Z-0.125000
G01 X49.382941 Y146.123504 Z-0.125000
G01 X51.880796 Y122.459010 Z-0.125000
G01 X49.182319 Y103.990847 Z-0.125000
G01 X46.688902 Y85.317624 Z-0.125000
G01 X48.787540 Y62.052346 Z-0.125000
G00 Z3.000000

(End cutting path id: path81215)


(Start cutting path id: path81217)
(Change tool to Default tool)

G00 Z3.000000
G00 X51.255126 Y208.809572

G00 Z4.875000 (Fast pre-penetrate)
G01 Z-0.125000 F400.0(Penetrate)
G01 X55.179735 Y183.718322 Z-0.125000 F800.000000
G01 X54.340068 Y163.391349 Z-0.125000
G01 X50.941089 Y145.623688 Z-0.125000
G01 X52.920083 Y122.478055 Z-0.125000
G01 X50.771918 Y103.459580 Z-0.125000
G01 X48.139285 Y84.925573 Z-0.125000
G01 X49.975046 Y61.923171 Z-0.125000
G00 Z3.000000

(End cutting path id: path81217)


(Start cutting path id: path81219)
(Change tool to Default tool)

G00 Z3.000000
G00 X52.117118 Y209.005911

G00 Z4.875000 (Fast pre-penetrate)
G01 Z-0.125000 F400.0(Penetrate)
G01 X56.014423 Y183.941966 Z-0.125000 F800.000000
G01 X55.831761 Y162.957989 Z-0.125000
G01 X52.499237 Y145.123872 Z-0.125000
G01 X53.959370 Y122.497099 Z-0.125000
G01 X52.361514 Y102.928316 Z-0.125000
G01 X49.589671 Y84.533519 Z-0.125000
G01 X51.162556 Y61.793994 Z-0.125000
G00 Z3.000000

(End cutting path id: path81219)


(Start cutting path id: path81221)
(Change tool to Default tool)

G00 Z3.000000
G00 X52.979111 Y209.202250

G00 Z4.875000 (Fast pre-penetrate)
G01 Z-0.125000 F400.0(Penetrate)
G01 X56.849114 Y184.165608 Z-0.125000 F800.000000
G01 X57.323450 Y162.524631 Z-0.125000
G01 X54.057385 Y144.624057 Z-0.125000
G01 X54.998657 Y122.516144 Z-0.125000
G01 X53.951113 Y102.397049 Z-0.125000
G01 X51.040054 Y84.141468 Z-0.125000
G01 X52.350065 Y61.664816 Z-0.125000
G00 Z3.000000

(End cutting path id: path81221)


(Start cutting path id: path81223)
(Change tool to Default tool)

G00 Z3.000000
G00 X53.841102 Y209.398592

G00 Z4.875000 (Fast pre-penetrate)
G01 Z-0.125000 F400.0(Penetrate)
G01 X57.683802 Y184.389252 Z-0.125000 F800.000000
G01 X58.815143 Y162.091271 Z-0.125000
G01 X55.615533 Y144.124241 Z-0.125000
G01 X56.037945 Y122.535189 Z-0.125000
G01 X55.540711 Y101.865782 Z-0.125000
G01 X52.490437 Y83.749416 Z-0.125000
G01 X53.537572 Y61.535642 Z-0.125000
G00 Z3.000000

(End cutting path id: path81223)


(Start cutting path id: path81225)
(Change tool to Default tool)

G00 Z3.000000
G00 X54.703094 Y209.594931

G00 Z4.875000 (Fast pre-penetrate)
G01 Z-0.125000 F400.0(Penetrate)
G01 X58.518492 Y184.612893 Z-0.125000 F800.000000
G01 X60.306833 Y161.657913 Z-0.125000
G01 X57.173681 Y143.624425 Z-0.125000
G01 X57.077232 Y122.554233 Z-0.125000
G01 X57.130307 Y101.334518 Z-0.125000
G01 X53.940820 Y83.357365 Z-0.125000
G01 X54.725081 Y61.406464 Z-0.125000
G00 Z3.000000

(End cutting path id: path81225)


(Start cutting path id: path81227)
(Change tool to Default tool)

G00 Z3.000000
G00 X55.565087 Y209.791270

G00 Z4.875000 (Fast pre-penetrate)
G01 Z-0.125000 F400.0(Penetrate)
G01 X59.353180 Y184.836537 Z-0.125000 F800.000000
G01 X61.798525 Y161.224552 Z-0.125000
G01 X58.731828 Y143.124609 Z-0.125000
G01 X58.116519 Y122.573278 Z-0.125000
G01 X58.719906 Y100.803251 Z-0.125000
G01 X55.391206 Y82.965311 Z-0.125000
G01 X55.912588 Y61.277290 Z-0.125000
G00 Z3.000000

(End cutting path id: path81227)


(Start cutting path id: path81229)
(Change tool to Default tool)

G00 Z3.000000
G00 X56.427078 Y209.987612

G00 Z4.875000 (Fast pre-penetrate)
G01 Z-0.125000 F400.0(Penetrate)
G01 X60.187868 Y185.060181 Z-0.125000 F800.000000
G01 X63.290215 Y160.791194 Z-0.125000
G01 X60.289976 Y142.624793 Z-0.125000
G01 X59.155807 Y122.592323 Z-0.125000
G01 X60.309505 Y100.271984 Z-0.125000
G01 X56.841589 Y82.573260 Z-0.125000
G01 X57.100097 Y61.148112 Z-0.125000
G00 Z3.000000

(End cutting path id: path81229)


(Start cutting path id: path81231)
(Change tool to Default tool)

G00 Z3.000000
G00 X57.289070 Y210.183951

G00 Z4.875000 (Fast pre-penetrate)
G01 Z-0.125000 F400.0(Penetrate)
G01 X61.022559 Y185.283823 Z-0.125000 F800.000000
G01 X64.781908 Y160.357834 Z-0.125000
G01 X61.848124 Y142.124978 Z-0.125000
G01 X60.195094 Y122.611367 Z-0.125000
G01 X61.899101 Y99.740720 Z-0.125000
G01 X58.291972 Y82.181209 Z-0.125000
G01 X58.287607 Y61.018935 Z-0.125000
G00 Z3.000000

(End cutting path id: path81231)


(Start cutting path id: path81233)
(Change tool to Default tool)

G00 Z3.000000
G00 X58.151061 Y210.380293

G00 Z4.875000 (Fast pre-penetrate)
G01 Z-0.125000 F400.0(Penetrate)
G01 X61.857247 Y185.507467 Z-0.125000 F800.000000
G01 X66.273597 Y159.924476 Z-0.125000
G01 X63.406272 Y141.625162 Z-0.125000
G01 X61.234381 Y122.630412 Z-0.125000
G01 X63.488700 Y99.209454 Z-0.125000
G01 X59.742358 Y81.789155 Z-0.125000
G01 X59.475113 Y60.889760 Z-0.125000
G00 Z3.000000

(End cutting path id: path81233)


(Start cutting path id: path81235)
(Change tool to Default tool)

G00 Z3.000000
G00 X59.191113 Y210.398573

G00 Z4.875000 (Fast pre-penetrate)
G01 Z-0.125000 F400.0(Penetrate)
G01 X62.755305 Y185.667741 Z-0.125000 F800.000000
G01 X67.023479 Y160.232927 Z-0.125000
G01 X64.560729 Y141.529036 Z-0.125000
G01 X62.440755 Y122.482370 Z-0.125000
G01 X64.221254 Y99.535232 Z-0.125000
G01 X60.637940 Y81.951906 Z-0.125000
G01 X60.746033 Y60.677173 Z-0.125000
G00 Z3.000000

(End cutting path id: path81235)


(Start cutting path id: path81237)
(Change tool to Default tool)

G00 Z3.000000
G00 X60.231165 Y210.416853

G00 Z4.875000 (Fast pre-penetrate)
G01 Z-0.125000 F400.0(Penetrate)
G01 X63.653361 Y185.828017 Z-0.125000 F800.000000
G01 X67.773357 Y160.541380 Z-0.125000
G01 X65.715190 Y141.432908 Z-0.125000
G01 X63.647132 Y122.334325 Z-0.125000
G01 X64.953805 Y99.861013 Z-0.125000
G01 X61.533524 Y82.114653 Z-0.125000
G01 X62.016952 Y60.464586 Z-0.125000
G00 Z3.000000

(End cutting path id: path81237)


(Start cutting path id: path81239)
(Change tool to Default tool)

G00 Z3.000000
G00 X61.271217 Y210.435133

G00 Z4.875000 (Fast pre-penetrate)
G01 Z-0.125000 F400.0(Penetrate)
G01 X64.551419 Y185.988291 Z-0.125000 F800.000000
G01 X68.523238 Y160.849831 Z-0.125000
G01 X66.869650 Y141.336779 Z-0.125000
G01 X64.853509 Y122.186280 Z-0.125000
G01 X65.686358 Y100.186791 Z-0.125000
G01 X62.429106 Y82.277404 Z-0.125000
G01 X63.287871 Y60.251999 Z-0.125000
G00 Z3.000000

(End cutting path id: path81239)


(Start cutting path id: path81241)
(Change tool to Default tool)

G00 Z3.000000
G00 X62.311269 Y210.453413

G00 Z4.875000 (Fast pre-penetrate)
G01 Z-0.125000 F400.0(Penetrate)
G01 X65.449474 Y186.148567 Z-0.125000 F800.000000
G01 X69.273117 Y161.158285 Z-0.125000
G01 X68.024110 Y141.240651 Z-0.125000
G01 X66.059886 Y122.038236 Z-0.125000
G01 X66.418909 Y100.512572 Z-0.125000
G01 X63.324688 Y82.440154 Z-0.125000
G01 X64.558790 Y60.039411 Z-0.125000
G00 Z3.000000

(End cutting path id: path81241)


(Start cutting path id: path81243)
(Change tool to Default tool)

G00 Z3.000000
G00 X63.351321 Y210.471693

G00 Z4.875000 (Fast pre-penetrate)
G01 Z-0.125000 F400.0(Penetrate)
G01 X66.347532 Y186.308841 Z-0.125000 F800.000000
G01 X70.022998 Y161.466736 Z-0.125000
G01 X69.178571 Y141.144523 Z-0.125000
G01 X67.266263 Y121.890191 Z-0.125000
G01 X67.151463 Y100.838351 Z-0.125000
G01 X64.220272 Y82.602902 Z-0.125000
G01 X65.829709 Y59.826824 Z-0.125000
G00 Z3.000000

(End cutting path id: path81243)


(Start cutting path id: path81245)
(Change tool to Default tool)

G00 Z3.000000
G00 X64.391370 Y210.489976

G00 Z4.875000 (Fast pre-penetrate)
G01 Z-0.125000 F400.0(Penetrate)
G01 X67.245588 Y186.469117 Z-0.125000 F800.000000
G01 X70.772876 Y161.775189 Z-0.125000
G01 X70.333031 Y141.048395 Z-0.125000
G01 X68.472639 Y121.742146 Z-0.125000
G01 X67.884016 Y101.164129 Z-0.125000
G01 X65.115854 Y82.765652 Z-0.125000
G01 X67.100628 Y59.614237 Z-0.125000
G00 Z3.000000

(End cutting path id: path81245)


(Start cutting path id: path81247)
(Change tool to Default tool)

G00 Z3.000000
G00 X65.431422 Y210.508256

G00 Z4.875000 (Fast pre-penetrate)
G01 Z-0.125000 F400.0(Penetrate)
G01 X68.143646 Y186.629391 Z-0.125000 F800.000000
G01 X71.522757 Y162.083640 Z-0.125000
G01 X71.487491 Y140.952266 Z-0.125000
G01 X69.679013 Y121.594104 Z-0.125000
G01 X68.616567 Y101.489910 Z-0.125000
G01 X66.011438 Y82.928399 Z-0.125000
G01 X68.371547 Y59.401650 Z-0.125000
G00 Z3.000000

(End cutting path id: path81247)


(Start cutting path id: path81249)
(Change tool to Default tool)

G00 Z3.000000
G00 X66.471474 Y210.526536

G00 Z4.875000 (Fast pre-penetrate)
G01 Z-0.125000 F400.0(Penetrate)
G01 X69.041702 Y186.789668 Z-0.125000 F800.000000
G01 X72.272636 Y162.392094 Z-0.125000
G01 X72.641951 Y140.856138 Z-0.125000
G01 X70.885390 Y121.446059 Z-0.125000
G01 X69.349121 Y101.815689 Z-0.125000
G01 X66.907020 Y83.091150 Z-0.125000
G01 X69.642467 Y59.189063 Z-0.125000
G00 Z3.000000

(End cutting path id: path81249)


(Start cutting path id: path81251)
(Change tool to Default tool)

G00 Z3.000000
G00 X67.511526 Y210.544816

G00 Z4.875000 (Fast pre-penetrate)
G01 Z-0.125000 F400.0(Penetrate)
G01 X69.939760 Y186.949941 Z-0.125000 F800.000000
G01 X73.022517 Y162.700544 Z-0.125000
G01 X73.796409 Y140.760012 Z-0.125000
G01 X72.091767 Y121.298014 Z-0.125000
G01 X70.081672 Y102.141470 Z-0.125000
G01 X67.802604 Y83.253897 Z-0.125000
G01 X70.913386 Y58.976476 Z-0.125000
G00 Z3.000000

(End cutting path id: path81251)


(Start cutting path id: path81253)
(Change tool to Default tool)

G00 Z3.000000
G00 X68.551578 Y210.563096

G00 Z4.875000 (Fast pre-penetrate)
G01 Z-0.125000 F400.0(Penetrate)
G01 X70.837816 Y187.110218 Z-0.125000 F800.000000
G01 X73.772396 Y163.008998 Z-0.125000
G01 X74.950869 Y140.663884 Z-0.125000
G01 X73.298144 Y121.149970 Z-0.125000
G01 X70.814225 Y102.467248 Z-0.125000
G01 X68.698186 Y83.416648 Z-0.125000
G01 X72.184305 Y58.763889 Z-0.125000
G00 Z3.000000

(End cutting path id: path81253)


(Start cutting path id: path81255)
(Change tool to Default tool)

G00 Z3.000000
G00 X69.591627 Y210.581379

G00 Z4.875000 (Fast pre-penetrate)
G01 Z-0.125000 F400.0(Penetrate)
G01 X71.735874 Y187.270492 Z-0.125000 F800.000000
G01 X74.522277 Y163.317449 Z-0.125000
G01 X76.105330 Y140.567756 Z-0.125000
G01 X74.504521 Y121.001925 Z-0.125000
G01 X71.546776 Y102.793029 Z-0.125000
G01 X69.593770 Y83.579395 Z-0.125000
G01 X73.455221 Y58.551304 Z-0.125000
G00 Z3.000000

(End cutting path id: path81255)


(Start cutting path id: path81257)
(Change tool to Default tool)

G00 Z3.000000
G00 X70.631679 Y210.599659

G00 Z4.875000 (Fast pre-penetrate)
G01 Z-0.125000 F400.0(Penetrate)
G01 X72.633929 Y187.430768 Z-0.125000 F800.000000
G01 X75.272155 Y163.625902 Z-0.125000
G01 X77.259790 Y140.471627 Z-0.125000
G01 X75.710895 Y120.853883 Z-0.125000
G01 X72.279330 Y103.118808 Z-0.125000
G01 X70.489352 Y83.742146 Z-0.125000
G01 X74.726141 Y58.338717 Z-0.125000
G00 Z3.000000

(End cutting path id: path81257)


(Start cutting path id: path81173)
(Change tool to Default tool)

G00 Z3.000000
G00 X28.409360 Y208.372034

G00 Z4.875000 (Fast pre-penetrate)
G01 Z-0.125000 F400.0(Penetrate)
G01 X30.830143 Y184.784610 Z-0.125000 F800.000000
G01 X28.233499 Y166.214614 Z-0.125000
G01 X21.339273 Y151.942200 Z-0.125000
G01 X31.980952 Y120.133881 Z-0.125000
G01 X25.364562 Y105.583631 Z-0.125000
G01 X25.038530 Y84.743023 Z-0.125000
G01 X25.262216 Y63.352697 Z-0.125000
G00 Z3.000000

(End cutting path id: path81173)


(Start cutting path id: path81171)
(Change tool to Default tool)

G00 Z3.000000
G00 X27.159173 Y208.563888

G00 Z4.875000 (Fast pre-penetrate)
G01 Z-0.125000 F400.0(Penetrate)
G01 X29.396810 Y185.159612 Z-0.125000 F800.000000
G01 X27.412871 Y165.976910 Z-0.125000
G01 X20.248869 Y151.974273 Z-0.125000
G01 X31.134184 Y119.922318 Z-0.125000
G01 X24.731347 Y105.158515 Z-0.125000
G01 X24.468915 Y84.254307 Z-0.125000
G01 X24.215944 Y63.340637 Z-0.125000
G00 Z3.000000

(End cutting path id: path81171)


(Start cutting path id: path81169)
(Change tool to Default tool)

G00 Z3.000000
G00 X25.908987 Y208.755743

G00 Z4.875000 (Fast pre-penetrate)
G01 Z-0.125000 F400.0(Penetrate)
G01 X27.963477 Y185.534613 Z-0.125000 F800.000000
G01 X26.592243 Y165.739206 Z-0.125000
G01 X19.158464 Y152.006346 Z-0.125000
G01 X30.287415 Y119.710755 Z-0.125000
G01 X24.098128 Y104.733402 Z-0.125000
G01 X23.899302 Y83.765588 Z-0.125000
G01 X23.169669 Y63.328580 Z-0.125000
G00 Z3.000000

(End cutting path id: path81169)


(Start cutting path id: path81167)
(Change tool to Default tool)

G00 Z3.000000
G00 X24.658803 Y208.947594

G00 Z4.875000 (Fast pre-penetrate)
G01 Z-0.125000 F400.0(Penetrate)
G01 X26.530146 Y185.909612 Z-0.125000 F800.000000
G01 X25.771618 Y165.501499 Z-0.125000
G01 X18.068060 Y152.038418 Z-0.125000
G01 X29.440646 Y119.499191 Z-0.125000
G01 X23.464909 Y104.308288 Z-0.125000
G01 X23.329686 Y83.276871 Z-0.125000
G01 X22.123397 Y63.316521 Z-0.125000
G00 Z3.000000

(End cutting path id: path81167)


(Start cutting path id: path81165)
(Change tool to Default tool)

G00 Z3.000000
G00 X23.408617 Y209.139449

G00 Z4.875000 (Fast pre-penetrate)
G01 Z-0.125000 F400.0(Penetrate)
G01 X25.096812 Y186.284613 Z-0.125000 F800.000000
G01 X24.950990 Y165.263795 Z-0.125000
G01 X16.977655 Y152.070491 Z-0.125000
G01 X28.593877 Y119.287628 Z-0.125000
G01 X22.831691 Y103.883175 Z-0.125000
G01 X22.760071 Y82.788155 Z-0.125000
G01 X21.077125 Y63.304461 Z-0.125000
G00 Z3.000000

(End cutting path id: path81165)


(Start cutting path id: path81163)
(Change tool to Default tool)

G00 Z3.000000
G00 X22.158430 Y209.331303

G00 Z4.875000 (Fast pre-penetrate)
G01 Z-0.125000 F400.0(Penetrate)
G01 X23.663479 Y186.659615 Z-0.125000 F800.000000
G01 X24.130362 Y165.026091 Z-0.125000
G01 X15.887251 Y152.102564 Z-0.125000
G01 X27.747109 Y119.076065 Z-0.125000
G01 X22.198475 Y103.458059 Z-0.125000
G01 X22.190458 Y82.299438 Z-0.125000
G01 X20.030852 Y63.292404 Z-0.125000
G00 Z3.000000

(End cutting path id: path81163)


(Start cutting path id: path81161)
(Change tool to Default tool)

G00 Z3.000000
G00 X20.908244 Y209.523158

G00 Z4.875000 (Fast pre-penetrate)
G01 Z-0.125000 F400.0(Penetrate)
G01 X22.230148 Y187.034613 Z-0.125000 F800.000000
G01 X23.309734 Y164.788387 Z-0.125000
G01 X14.796846 Y152.134634 Z-0.125000
G01 X26.900342 Y118.864499 Z-0.125000
G01 X21.565256 Y103.032945 Z-0.125000
G01 X21.620843 Y81.810719 Z-0.125000
G01 X18.984578 Y63.280344 Z-0.125000
G00 Z3.000000

(End cutting path id: path81161)


(Start cutting path id: path81159)
(Change tool to Default tool)

G00 Z3.000000
G00 X19.658057 Y209.715012

G00 Z4.875000 (Fast pre-penetrate)
G01 Z-0.125000 F400.0(Penetrate)
G01 X20.796815 Y187.409615 Z-0.125000 F800.000000
G01 X22.489106 Y164.550683 Z-0.125000
G01 X13.706442 Y152.166707 Z-0.125000
G01 X26.053574 Y118.652936 Z-0.125000
G01 X20.932038 Y102.607832 Z-0.125000
G01 X21.051227 Y81.322002 Z-0.125000
G01 X17.938305 Y63.268285 Z-0.125000
G00 Z3.000000

(End cutting path id: path81159)


(Start cutting path id: path81157)
(Change tool to Default tool)

G00 Z3.000000
G00 X18.407871 Y209.906866

G00 Z4.875000 (Fast pre-penetrate)
G01 Z-0.125000 F400.0(Penetrate)
G01 X19.363484 Y187.784614 Z-0.125000 F800.000000
G01 X21.668481 Y164.312977 Z-0.125000
G01 X12.616037 Y152.198779 Z-0.125000
G01 X25.206805 Y118.441373 Z-0.125000
G01 X20.298822 Y102.182716 Z-0.125000
G01 X20.481612 Y80.833286 Z-0.125000
G01 X16.892032 Y63.256225 Z-0.125000
G00 Z3.000000

(End cutting path id: path81157)


(Start cutting path id: path81155)
(Change tool to Default tool)

G00 Z3.000000
G00 X17.157684 Y210.098721

G00 Z4.875000 (Fast pre-penetrate)
G01 Z-0.125000 F400.0(Penetrate)
G01 X17.930150 Y188.159615 Z-0.125000 F800.000000
G01 X20.847853 Y164.075273 Z-0.125000
G01 X11.525633 Y152.230852 Z-0.125000
G01 X24.360036 Y118.229809 Z-0.125000
G01 X19.665603 Y101.757602 Z-0.125000
G01 X19.911996 Y80.344569 Z-0.125000
G01 X15.845759 Y63.244168 Z-0.125000
G00 Z3.000000

(End cutting path id: path81155)


(Start cutting path id: path81153)
(Change tool to Default tool)

G00 Z3.000000
G00 X15.907498 Y210.290575

G00 Z4.875000 (Fast pre-penetrate)
G01 Z-0.125000 F400.0(Penetrate)
G01 X16.496818 Y188.534616 Z-0.125000 F800.000000
G01 X20.027225 Y163.837569 Z-0.125000
G01 X10.435229 Y152.262925 Z-0.125000
G01 X23.513267 Y118.018246 Z-0.125000
G01 X19.032385 Y101.332489 Z-0.125000
G01 X19.342383 Y79.855850 Z-0.125000
G01 X14.799486 Y63.232108 Z-0.125000
G00 Z3.000000

(End cutting path id: path81153)


(Start cutting path id: path81337)
(Change tool to Default tool)

G00 Z3.000000
G00 X112.589148 Y210.975470

G00 Z4.875000 (Fast pre-penetrate)
G01 Z-0.125000 F400.0(Penetrate)
G01 X112.279295 Y190.118683 Z-0.125000 F800.000000
G01 X113.829412 Y167.401925 Z-0.125000
G01 X119.833547 Y140.231151 Z-0.125000
G01 X115.764475 Y123.133583 Z-0.125000
G01 X117.053401 Y100.678016 Z-0.125000
G01 X114.239590 Y82.325187 Z-0.125000
G01 X113.061579 Y62.336558 Z-0.125000
G00 Z3.000000

(End cutting path id: path81337)


(Start cutting path id: path81339)
(Change tool to Default tool)

G00 Z3.000000
G00 X113.364326 Y211.258624

G00 Z4.875000 (Fast pre-penetrate)
G01 Z-0.125000 F400.0(Penetrate)
G01 X112.980649 Y190.475661 Z-0.125000 F800.000000
G01 X115.098297 Y167.191373 Z-0.125000
G01 X121.034516 Y140.088514 Z-0.125000
G01 X116.466519 Y123.489870 Z-0.125000
G01 X118.778308 Y100.011442 Z-0.125000
G01 X115.057435 Y82.565675 Z-0.125000
G01 X114.090564 Y62.365906 Z-0.125000
G00 Z3.000000

(End cutting path id: path81339)


(Start cutting path id: path81341)
(Change tool to Default tool)

G00 Z3.000000
G00 X114.139504 Y211.541778

G00 Z4.875000 (Fast pre-penetrate)
G01 Z-0.125000 F400.0(Penetrate)
G01 X113.682000 Y190.832641 Z-0.125000 F800.000000
G01 X116.367179 Y166.980823 Z-0.125000
G01 X122.235484 Y139.945877 Z-0.125000
G01 X117.168566 Y123.846155 Z-0.125000
G01 X120.503214 Y99.344867 Z-0.125000
G01 X115.875282 Y82.806160 Z-0.125000
G01 X115.119546 Y62.395256 Z-0.125000
G00 Z3.000000

(End cutting path id: path81341)


(Start cutting path id: path81343)
(Change tool to Default tool)

G00 Z3.000000
G00 X114.914679 Y211.824934

G00 Z4.875000 (Fast pre-penetrate)
G01 Z-0.125000 F400.0(Penetrate)
G01 X114.383351 Y191.189622 Z-0.125000 F800.000000
G01 X117.636063 Y166.770270 Z-0.125000
G01 X123.436453 Y139.803241 Z-0.125000
G01 X117.870611 Y124.202443 Z-0.125000
G01 X122.228121 Y98.678293 Z-0.125000
G01 X116.693127 Y83.046647 Z-0.125000
G01 X116.148530 Y62.424603 Z-0.125000
G00 Z3.000000

(End cutting path id: path81343)


(Start cutting path id: path81377)
(Change tool to Default tool)

G00 Z3.000000
G00 X133.664994 Y211.066264

G00 Z4.875000 (Fast pre-penetrate)
G01 Z-0.125000 F400.0(Penetrate)
G01 X137.074677 Y186.489940 Z-0.125000 F800.000000
G01 X134.789410 Y167.608567 Z-0.125000
G01 X138.620951 Y142.610387 Z-0.125000
G01 X139.153786 Y120.910911 Z-0.125000
G01 X140.262776 Y98.635282 Z-0.125000
G01 X131.913745 Y85.817672 Z-0.125000
G01 X132.720485 Y63.844292 Z-0.125000
G00 Z3.000000

(End cutting path id: path81377)


(Start cutting path id: path81375)
(Change tool to Default tool)

G00 Z3.000000
G00 X132.425457 Y211.247469

G00 Z4.875000 (Fast pre-penetrate)
G01 Z-0.125000 F400.0(Penetrate)
G01 X135.475964 Y187.030322 Z-0.125000 F800.000000
G01 X133.888667 Y167.450979 Z-0.125000
G01 X137.855978 Y142.317028 Z-0.125000
G01 X137.672706 Y121.333659 Z-0.125000
G01 X139.478596 Y98.361129 Z-0.125000
G01 X130.986128 Y85.686958 Z-0.125000
G01 X131.768232 Y63.738213 Z-0.125000
G00 Z3.000000

(End cutting path id: path81375)


(Start cutting path id: path81373)
(Change tool to Default tool)

G00 Z3.000000
G00 X131.185922 Y211.428671

G00 Z4.875000 (Fast pre-penetrate)
G01 Z-0.125000 F400.0(Penetrate)
G01 X133.877250 Y187.570703 Z-0.125000 F800.000000
G01 X132.987923 Y167.293390 Z-0.125000
G01 X137.091007 Y142.023666 Z-0.125000
G01 X136.191626 Y121.756407 Z-0.125000
G01 X138.694420 Y98.086973 Z-0.125000
G01 X130.058513 Y85.556241 Z-0.125000
G01 X130.815977 Y63.632136 Z-0.125000
G00 Z3.000000

(End cutting path id: path81373)


(Start cutting path id: path81371)
(Change tool to Default tool)

G00 Z3.000000
G00 X129.946385 Y211.609876

G00 Z4.875000 (Fast pre-penetrate)
G01 Z-0.125000 F400.0(Penetrate)
G01 X132.278536 Y188.111085 Z-0.125000 F800.000000
G01 X132.087177 Y167.135805 Z-0.125000
G01 X136.326037 Y141.730304 Z-0.125000
G01 X134.710549 Y122.179153 Z-0.125000
G01 X137.910244 Y97.812818 Z-0.125000
G01 X129.130898 Y85.425523 Z-0.125000
G01 X129.863724 Y63.526057 Z-0.125000
G00 Z3.000000

(End cutting path id: path81371)


(Start cutting path id: path81369)
(Change tool to Default tool)

G00 Z3.000000
G00 X128.706851 Y211.791078

G00 Z4.875000 (Fast pre-penetrate)
G01 Z-0.125000 F400.0(Penetrate)
G01 X130.679823 Y188.651467 Z-0.125000 F800.000000
G01 X131.186433 Y166.978217 Z-0.125000
G01 X135.561067 Y141.436943 Z-0.125000
G01 X133.229469 Y122.601901 Z-0.125000
G01 X137.126067 Y97.538662 Z-0.125000
G01 X128.203281 Y85.294809 Z-0.125000
G01 X128.911472 Y63.419978 Z-0.125000
G00 Z3.000000

(End cutting path id: path81369)


(Start cutting path id: path81367)
(Change tool to Default tool)

G00 Z3.000000
G00 X127.467314 Y211.972283

G00 Z4.875000 (Fast pre-penetrate)
G01 Z-0.125000 F400.0(Penetrate)
G01 X129.081106 Y189.191851 Z-0.125000 F800.000000
G01 X130.285689 Y166.820628 Z-0.125000
G01 X134.796097 Y141.143581 Z-0.125000
G01 X131.748389 Y123.024649 Z-0.125000
G01 X136.341888 Y97.264509 Z-0.125000
G01 X127.275666 Y85.164091 Z-0.125000
G01 X127.959216 Y63.313901 Z-0.125000
G00 Z3.000000

(End cutting path id: path81367)


(Start cutting path id: path81365)
(Change tool to Default tool)

G00 Z3.000000
G00 X126.227780 Y212.153486

G00 Z4.875000 (Fast pre-penetrate)
G01 Z-0.125000 F400.0(Penetrate)
G01 X127.482393 Y189.732233 Z-0.125000 F800.000000
G01 X129.384946 Y166.663040 Z-0.125000
G01 X134.031126 Y140.850219 Z-0.125000
G01 X130.267311 Y123.447394 Z-0.125000
G01 X135.557712 Y96.990354 Z-0.125000
G01 X126.348051 Y85.033374 Z-0.125000
G01 X127.006963 Y63.207822 Z-0.125000
G00 Z3.000000

(End cutting path id: path81365)


(Start cutting path id: path81363)
(Change tool to Default tool)

G00 Z3.000000
G00 X124.988243 Y212.334691

G00 Z4.875000 (Fast pre-penetrate)
G01 Z-0.125000 F400.0(Penetrate)
G01 X125.883679 Y190.272614 Z-0.125000 F800.000000
G01 X128.484199 Y166.505454 Z-0.125000
G01 X133.266153 Y140.556860 Z-0.125000
G01 X128.786231 Y123.870142 Z-0.125000
G01 X134.773536 Y96.716198 Z-0.125000
G01 X125.420437 Y84.902657 Z-0.125000
G01 X126.054711 Y63.101743 Z-0.125000
G00 Z3.000000

(End cutting path id: path81363)


(Start cutting path id: path81345)
(Change tool to Default tool)

G00 Z3.000000
G00 X115.689857 Y212.108089

G00 Z4.875000 (Fast pre-penetrate)
G01 Z-0.125000 F400.0(Penetrate)
G01 X115.084703 Y191.546603 Z-0.125000 F800.000000
G01 X118.904945 Y166.559720 Z-0.125000
G01 X124.637424 Y139.660601 Z-0.125000
G01 X118.572655 Y124.558730 Z-0.125000
G01 X123.953025 Y98.011721 Z-0.125000
G01 X117.510974 Y83.287132 Z-0.125000
G01 X117.177512 Y62.453954 Z-0.125000
G00 Z3.000000

(End cutting path id: path81345)


(Start cutting path id: path81347)
(Change tool to Default tool)

G00 Z3.000000
G00 X116.465032 Y212.391245

G00 Z4.875000 (Fast pre-penetrate)
G01 Z-0.125000 F400.0(Penetrate)
G01 X115.786054 Y191.903583 Z-0.125000 F800.000000
G01 X120.173830 Y166.349168 Z-0.125000
G01 X125.838393 Y139.517965 Z-0.125000
G01 X119.274700 Y124.915018 Z-0.125000
G01 X125.677931 Y97.345146 Z-0.125000
G01 X118.328818 Y83.527619 Z-0.125000
G01 X118.206494 Y62.483304 Z-0.125000
G00 Z3.000000

(End cutting path id: path81347)


(Start cutting path id: path81361)
(Change tool to Default tool)

G00 Z3.000000
G00 X123.748709 Y212.515893

G00 Z4.875000 (Fast pre-penetrate)
G01 Z-0.125000 F400.0(Penetrate)
G01 X124.284965 Y190.812996 Z-0.125000 F800.000000
G01 X127.583455 Y166.347866 Z-0.125000
G01 X132.501183 Y140.263499 Z-0.125000
G01 X127.305151 Y124.292890 Z-0.125000
G01 X133.989359 Y96.442042 Z-0.125000
G01 X124.492819 Y84.771942 Z-0.125000
G01 X125.102458 Y62.995663 Z-0.125000
G00 Z3.000000

(End cutting path id: path81361)


(Start cutting path id: path81359)
(Change tool to Default tool)

G00 Z3.000000
G00 X122.509172 Y212.697098

G00 Z4.875000 (Fast pre-penetrate)
G01 Z-0.125000 F400.0(Penetrate)
G01 X122.686252 Y191.353378 Z-0.125000 F800.000000
G01 X126.682712 Y166.190278 Z-0.125000
G01 X131.736213 Y139.970137 Z-0.125000
G01 X125.824074 Y124.715636 Z-0.125000
G01 X133.205183 Y96.167887 Z-0.125000
G01 X123.565204 Y84.641225 Z-0.125000
G01 X124.150203 Y62.889587 Z-0.125000
G00 Z3.000000

(End cutting path id: path81359)


(Start cutting path id: path81349)
(Change tool to Default tool)

G00 Z3.000000
G00 X117.240210 Y212.674399

G00 Z4.875000 (Fast pre-penetrate)
G01 Z-0.125000 F400.0(Penetrate)
G01 X116.487405 Y192.260564 Z-0.125000 F800.000000
G01 X121.442712 Y166.138618 Z-0.125000
G01 X127.039362 Y139.375328 Z-0.125000
G01 X119.976744 Y125.271305 Z-0.125000
G01 X127.402838 Y96.678572 Z-0.125000
G01 X119.146666 Y83.768104 Z-0.125000
G01 X119.235478 Y62.512651 Z-0.125000
G00 Z3.000000

(End cutting path id: path81349)


(Start cutting path id: path81357)
(Change tool to Default tool)

G00 Z3.000000
G00 X121.269637 Y212.878300

G00 Z4.875000 (Fast pre-penetrate)
G01 Z-0.125000 F400.0(Penetrate)
G01 X121.087538 Y191.893760 Z-0.125000 F800.000000
G01 X125.781968 Y166.032689 Z-0.125000
G01 X130.971242 Y139.676775 Z-0.125000
G01 X124.342994 Y125.138384 Z-0.125000
G01 X132.421004 Y95.893734 Z-0.125000
G01 X122.637590 Y84.510508 Z-0.125000
G01 X123.197950 Y62.783508 Z-0.125000
G00 Z3.000000

(End cutting path id: path81357)


(Start cutting path id: path81351)
(Change tool to Default tool)

G00 Z3.000000
G00 X118.015388 Y212.957553

G00 Z4.875000 (Fast pre-penetrate)
G01 Z-0.125000 F400.0(Penetrate)
G01 X117.188757 Y192.617545 Z-0.125000 F800.000000
G01 X122.711596 Y165.928065 Z-0.125000
G01 X128.240330 Y139.232691 Z-0.125000
G01 X120.678789 Y125.627592 Z-0.125000
G01 X129.127744 Y96.011997 Z-0.125000
G01 X119.964510 Y84.008591 Z-0.125000
G01 X120.264460 Y62.542002 Z-0.125000
G00 Z3.000000

(End cutting path id: path81351)


(Start cutting path id: path81355)
(Change tool to Default tool)

G00 Z3.000000
G00 X120.030100 Y213.059505

G00 Z4.875000 (Fast pre-penetrate)
G01 Z-0.125000 F400.0(Penetrate)
G01 X119.488822 Y192.434144 Z-0.125000 F800.000000
G01 X124.881222 Y165.875104 Z-0.125000
G01 X130.206272 Y139.383413 Z-0.125000
G01 X122.861914 Y125.561132 Z-0.125000
G01 X131.636827 Y95.619578 Z-0.125000
G01 X121.709972 Y84.379793 Z-0.125000
G01 X122.245697 Y62.677428 Z-0.125000
G00 Z3.000000

(End cutting path id: path81355)


(Start cutting path id: path81353)
(Change tool to Default tool)

G00 Z3.000000
G00 X118.790563 Y213.240710

G00 Z4.875000 (Fast pre-penetrate)
G01 Z-0.125000 F400.0(Penetrate)
G01 X117.890108 Y192.974526 Z-0.125000 F800.000000
G01 X123.980478 Y165.717516 Z-0.125000
G01 X129.441299 Y139.090054 Z-0.125000
G01 X121.380836 Y125.983877 Z-0.125000
G01 X130.852651 Y95.345423 Z-0.125000
G01 X120.782357 Y84.249076 Z-0.125000
G01 X121.293444 Y62.571349 Z-0.125000
G00 Z3.000000

(End cutting path id: path81353)



(Footer)
M5
G00 X0.0000 Y0.0000
M2
(Using default footer. To add your own footer create file "footer" in the output dir.)
(end)
%