%
(Header)
(Generated by gcodetools from Inkscape.)
(Using default header. To add your own header create file "header" in the output dir.)
M3
(Header end.)
G21 (All units in mm)

(Start cutting path id: polyline21468)
(Change tool to Default tool)

G00 Z3.000000
G00 X148.967493 Y247.119763

G00 Z4.875000 (Fast pre-penetrate)
G01 Z-0.125000 F400.0(Penetrate)
G01 X148.136043 Y246.292782 Z-0.125000 F800.000000
G01 X146.531563 Y245.124287 Z-0.125000
G01 X139.623843 Y240.866654 Z-0.125000
G01 X138.262033 Y239.729601 Z-0.125000
G01 X137.622373 Y238.926589 Z-0.125000
G01 X145.142843 Y232.227085 Z-0.125000
G01 X145.754053 Y231.346156 Z-0.125000
G01 X145.930843 Y230.649511 Z-0.125000
G01 X145.806523 Y229.674257 Z-0.125000
G01 X145.330103 Y228.652527 Z-0.125000
G01 X141.369113 Y223.578468 Z-0.125000
G01 X140.573633 Y222.035419 Z-0.125000
G01 X140.278513 Y220.796501 Z-0.125000
G01 X140.270513 Y219.836169 Z-0.125000
G01 X140.501203 Y218.666165 Z-0.125000
G01 X142.848753 Y213.213075 Z-0.125000
G01 X143.307153 Y211.593616 Z-0.125000
G01 X143.578313 Y209.709007 Z-0.125000
G01 X143.596313 Y206.832646 Z-0.125000
G01 X142.884703 Y198.101678 Z-0.125000
G01 X142.733373 Y192.804374 Z-0.125000
G01 X142.899673 Y187.547474 Z-0.125000
G01 X143.633763 Y177.805284 Z-0.125000
G01 X143.521413 Y175.630024 Z-0.125000
G01 X143.116883 Y173.418824 Z-0.125000
G01 X142.489223 Y171.417364 Z-0.125000
G01 X140.689973 Y166.864624 Z-0.125000
G01 X140.364913 Y165.622694 Z-0.125000
G01 X140.251033 Y164.407724 Z-0.125000
G01 X140.406843 Y163.228714 Z-0.125000
G01 X140.988103 Y161.865424 Z-0.125000
G01 X141.964863 Y160.551604 Z-0.125000
G01 X145.172313 Y157.129934 Z-0.125000
G01 X145.774523 Y156.009354 Z-0.125000
G01 X145.936343 Y155.070024 Z-0.125000
G01 X145.671173 Y153.835574 Z-0.125000
G01 X144.872683 Y152.532224 Z-0.125000
G01 X143.323673 Y150.891814 Z-0.125000
G01 X138.688513 Y146.689594 Z-0.125000
G01 X137.708763 Y145.362274 Z-0.125000
G01 X137.335733 Y144.114344 Z-0.125000
G01 X137.439103 Y143.408724 Z-0.125000
G01 X137.791133 Y142.734584 Z-0.125000
G01 X139.185883 Y141.476174 Z-0.125000
G01 X140.899713 Y140.499404 Z-0.125000
G01 X146.089163 Y138.054504 Z-0.125000
G01 X147.999253 Y136.863474 Z-0.125000
G01 X148.688353 Y136.232824 Z-0.125000
G01 X149.167743 Y135.575134 Z-0.125000
G01 X149.423943 Y134.888974 Z-0.125000
G01 X149.449343 Y134.172904 Z-0.125000
G01 X149.251603 Y133.426834 Z-0.125000
G01 X148.839643 Y132.653834 Z-0.125000
G01 X147.160253 Y130.755714 Z-0.125000
G01 X144.754293 Y128.763234 Z-0.125000
G01 X138.583603 Y124.122084 Z-0.125000
G01 X135.551393 Y121.328144 Z-0.125000
G01 X134.483253 Y119.990334 Z-0.125000
G01 X133.738693 Y118.692964 Z-0.125000
G01 X133.314693 Y117.439064 Z-0.125000
G01 X133.190363 Y116.222604 Z-0.125000
G01 X133.286263 Y115.275794 Z-0.125000
G01 X133.618873 Y114.119254 Z-0.125000
G01 X134.841293 Y111.879584 Z-0.125000
G01 X137.981363 Y109.647394 Z-0.125000
G01 X140.610553 Y107.350834 Z-0.125000
G01 X143.112383 Y104.556774 Z-0.125000
G01 X144.944593 Y101.915614 Z-0.125000
G01 X146.283903 Y99.449734 Z-0.125000
G01 X147.494383 Y96.487974 Z-0.125000
G01 X148.283873 Y93.711994 Z-0.125000
G01 X148.775243 Y90.895554 Z-0.125000
G01 X148.998433 Y87.325584 Z-0.125000
G01 X148.769253 Y83.697184 Z-0.125000
G01 X148.083113 Y80.008834 Z-0.125000
G01 X146.926593 Y76.259064 Z-0.125000
G01 X145.551313 Y72.961754 Z-0.125000
G01 X143.701183 Y69.361794 Z-0.125000
G01 X141.350633 Y65.457744 Z-0.125000
G01 X137.012093 Y58.894484 Z-0.125000
G01 X135.527453 Y56.063054 Z-0.125000
G01 X134.537183 Y53.773954 Z-0.125000
G01 X133.792623 Y51.517814 Z-0.125000
G01 X133.371683 Y49.543284 Z-0.125000
G01 X133.194893 Y47.601754 Z-0.125000
G01 X133.274293 Y45.691674 Z-0.125000
G01 X133.671293 Y43.583864 Z-0.125000
G01 X134.381413 Y41.517964 Z-0.125000
G01 X135.507963 Y39.264784 Z-0.125000
G01 X136.785903 Y37.270824 Z-0.125000
G01 X138.261523 Y35.303794 Z-0.125000
G01 X143.997793 Y28.611764 Z-0.125000
G01 X145.885413 Y26.217814 Z-0.125000
G01 X147.720583 Y23.336924 Z-0.125000
G01 X148.808183 Y20.838034 Z-0.125000
G01 X149.236663 Y19.214104 Z-0.125000
G01 X149.428423 Y17.799874 Z-0.125000
G01 X149.458323 Y16.364714 Z-0.125000
G01 X149.292043 Y14.662844 Z-0.125000
G01 X148.922033 Y12.935534 Z-0.125000
G01 X148.367723 Y11.184264 Z-0.125000
G01 X146.571503 Y7.110914 Z-0.125000
G00 Z3.000000

(End cutting path id: polyline21468)


(Start cutting path id: polyline21358)
(Change tool to Default tool)

G00 Z3.000000
G00 X132.265063 Y245.728003

G00 Z4.875000 (Fast pre-penetrate)
G01 Z-0.125000 F400.0(Penetrate)
G01 X131.635873 Y244.926545 Z-0.125000 F800.000000
G01 X131.733273 Y244.698801 Z-0.125000
G01 X139.181883 Y238.228481 Z-0.125000
G01 X139.677743 Y237.573810 Z-0.125000
G01 X139.942913 Y236.647958 Z-0.125000
G01 X139.770633 Y235.666718 Z-0.125000
G01 X139.226853 Y234.636007 Z-0.125000
G01 X136.035823 Y230.862221 Z-0.125000
G01 X135.078533 Y229.537934 Z-0.125000
G01 X134.473313 Y228.260035 Z-0.125000
G01 X134.259053 Y227.031582 Z-0.125000
G01 X134.351953 Y226.084776 Z-0.125000
G01 X134.727993 Y224.932733 Z-0.125000
G01 X136.522753 Y221.568026 Z-0.125000
G01 X137.184923 Y219.974022 Z-0.125000
G01 X137.520513 Y218.577782 Z-0.125000
G01 X137.641863 Y216.914908 Z-0.125000
G01 X137.475563 Y214.733663 Z-0.125000
G01 X136.587193 Y209.338954 Z-0.125000
G01 X136.182633 Y205.688097 Z-0.125000
G01 X136.002903 Y201.825972 Z-0.125000
G01 X135.951903 Y195.580354 Z-0.125000
G01 X135.998303 Y188.387894 Z-0.125000
G01 X136.169063 Y184.572224 Z-0.125000
G01 X136.531663 Y181.259884 Z-0.125000
G01 X137.527913 Y175.390354 Z-0.125000
G01 X137.623813 Y173.003874 Z-0.125000
G01 X137.384103 Y171.293034 Z-0.125000
G01 X136.936153 Y169.794914 Z-0.125000
G01 X134.545143 Y164.445194 Z-0.125000
G01 X134.308463 Y163.454924 Z-0.125000
G01 X134.271063 Y162.490144 Z-0.125000
G01 X134.470293 Y161.556814 Z-0.125000
G01 X135.066583 Y160.434724 Z-0.125000
G01 X136.002903 Y159.356094 Z-0.125000
G01 X139.147473 Y156.406344 Z-0.125000
G01 X139.715243 Y155.520964 Z-0.125000
G01 X139.942943 Y154.590634 Z-0.125000
G01 X139.661303 Y153.353194 Z-0.125000
G01 X138.736953 Y152.033364 Z-0.125000
G01 X137.280793 Y150.644604 Z-0.125000
G01 X133.432153 Y147.506044 Z-0.125000
G01 X132.091303 Y146.130804 Z-0.125000
G01 X131.475623 Y145.091114 Z-0.125000
G01 X131.364743 Y144.117344 Z-0.125000
G01 X131.511533 Y143.655934 Z-0.125000
G01 X131.981943 Y142.998244 Z-0.125000
G01 X133.369203 Y141.978024 Z-0.125000
G01 X135.333233 Y141.034214 Z-0.125000
G01 X139.806643 Y139.217004 Z-0.125000
G01 X141.984873 Y138.060494 Z-0.125000
G01 X143.115913 Y137.007314 Z-0.125000
G01 X143.427543 Y136.328694 Z-0.125000
G01 X143.473943 Y135.853794 Z-0.125000
G01 X143.300153 Y135.112224 Z-0.125000
G01 X142.849253 Y134.333214 Z-0.125000
G01 X141.208793 Y132.680774 Z-0.125000
G01 X138.838783 Y130.932504 Z-0.125000
G01 X132.080783 Y126.454674 Z-0.125000
G01 X129.288353 Y124.173064 Z-0.125000
G01 X128.307093 Y123.085414 Z-0.125000
G01 X127.634453 Y122.038224 Z-0.125000
G01 X127.273413 Y121.031534 Z-0.125000
G01 X127.209013 Y120.063704 Z-0.125000
G01 X127.343823 Y119.361124 Z-0.125000
G01 X127.742353 Y118.453244 Z-0.125000
G01 X129.156573 Y116.716964 Z-0.125000
G01 X131.697313 Y114.648064 Z-0.125000
G01 X136.317503 Y111.650374 Z-0.125000
G01 X139.241853 Y109.391234 Z-0.125000
G01 X142.221593 Y106.418994 Z-0.125000
G01 X144.356403 Y103.577044 Z-0.125000
G01 X145.836503 Y100.651214 Z-0.125000
G01 X146.462713 Y98.813054 Z-0.125000
G01 X146.913613 Y96.950894 Z-0.125000
G01 X147.439483 Y92.940464 Z-0.125000
G01 X147.556313 Y87.917324 Z-0.125000
G01 X147.331633 Y84.049214 Z-0.125000
G01 X146.769823 Y80.137654 Z-0.125000
G01 X145.911423 Y76.666564 Z-0.125000
G01 X144.747403 Y73.396184 Z-0.125000
G01 X143.345163 Y70.334054 Z-0.125000
G01 X141.178893 Y66.453944 Z-0.125000
G01 X132.810423 Y53.848884 Z-0.125000
G01 X129.811193 Y48.660914 Z-0.125000
G01 X128.561793 Y45.857944 Z-0.125000
G01 X127.751333 Y43.354614 Z-0.125000
G01 X127.292903 Y40.894714 Z-0.125000
G01 X127.216503 Y38.485794 Z-0.125000
G01 X127.486183 Y36.361484 Z-0.125000
G01 X127.997003 Y34.508294 Z-0.125000
G01 X128.864403 Y32.461864 Z-0.125000
G01 X130.020983 Y30.452904 Z-0.125000
G01 X132.663613 Y26.956374 Z-0.125000
G01 X139.611893 Y19.223084 Z-0.125000
G01 X141.069553 Y17.253064 Z-0.125000
G01 X142.122713 Y15.470334 Z-0.125000
G01 X142.969153 Y13.420924 Z-0.125000
G01 X143.384103 Y11.554264 Z-0.125000
G01 X143.463503 Y9.645684 Z-0.125000
G01 X143.160893 Y7.446454 Z-0.125000
G00 Z3.000000

(End cutting path id: polyline21358)


(Start cutting path id: polyline21356)
(Change tool to Default tool)

G00 Z3.000000
G00 X131.111523 Y245.656095

G00 Z4.875000 (Fast pre-penetrate)
G01 Z-0.125000 F400.0(Penetrate)
G01 X131.008163 Y245.402941 Z-0.125000 F800.000000
G01 X138.476293 Y238.935570 Z-0.125000
G01 X139.136953 Y238.060695 Z-0.125000
G01 X139.336203 Y237.367065 Z-0.125000
G01 X139.283703 Y236.640486 Z-0.125000
G01 X138.865753 Y235.626295 Z-0.125000
G01 X137.918943 Y234.303450 Z-0.125000
G01 X134.717433 Y230.528178 Z-0.125000
G01 X134.001363 Y229.235289 Z-0.125000
G01 X133.679253 Y227.994863 Z-0.125000
G01 X133.698753 Y227.037569 Z-0.125000
G01 X133.926493 Y226.107238 Z-0.125000
G01 X136.420833 Y221.153005 Z-0.125000
G01 X136.835853 Y219.767299 Z-0.125000
G01 X137.024623 Y218.351569 Z-0.125000
G01 X136.895793 Y215.695435 Z-0.125000
G01 X135.909993 Y209.809363 Z-0.125000
G01 X135.527973 Y206.159993 Z-0.125000
G01 X135.363183 Y201.340573 Z-0.125000
G01 X135.349683 Y191.740714 Z-0.125000
G01 X135.403583 Y186.949704 Z-0.125000
G01 X135.605823 Y183.376744 Z-0.125000
G01 X135.957893 Y180.542334 Z-0.125000
G01 X136.885283 Y175.384344 Z-0.125000
G01 X137.042603 Y173.246544 Z-0.125000
G01 X136.886793 Y171.546194 Z-0.125000
G01 X136.506273 Y170.057094 Z-0.125000
G01 X134.088253 Y164.704334 Z-0.125000
G01 X133.781153 Y163.703624 Z-0.125000
G01 X133.659823 Y162.728324 Z-0.125000
G01 X133.835103 Y161.552334 Z-0.125000
G01 X134.402873 Y160.425744 Z-0.125000
G01 X135.324183 Y159.345634 Z-0.125000
G01 X138.504743 Y156.400364 Z-0.125000
G01 X139.192363 Y155.290244 Z-0.125000
G01 X139.342193 Y154.349424 Z-0.125000
G01 X139.077013 Y153.356194 Z-0.125000
G01 X138.390873 Y152.306034 Z-0.125000
G01 X137.021583 Y150.929244 Z-0.125000
G01 X133.144493 Y147.786184 Z-0.125000
G01 X131.944483 Y146.670084 Z-0.125000
G01 X130.970713 Y145.344264 Z-0.125000
G01 X130.744473 Y144.354024 Z-0.125000
G01 X130.834373 Y143.886604 Z-0.125000
G01 X131.226863 Y143.216964 Z-0.125000
G01 X132.512253 Y142.184764 Z-0.125000
G01 X134.423853 Y141.233464 Z-0.125000
G01 X139.361653 Y139.236474 Z-0.125000
G01 X141.511463 Y138.075454 Z-0.125000
G01 X142.585583 Y137.016324 Z-0.125000
G01 X142.874703 Y136.093464 Z-0.125000
G01 X142.745893 Y135.357874 Z-0.125000
G01 X142.327883 Y134.583354 Z-0.125000
G01 X140.729403 Y132.935474 Z-0.125000
G01 X138.362393 Y131.188694 Z-0.125000
G01 X131.516013 Y126.698844 Z-0.125000
G01 X128.678623 Y124.411224 Z-0.125000
G01 X127.686853 Y123.322144 Z-0.125000
G01 X127.014223 Y122.274954 Z-0.125000
G01 X126.662153 Y121.269694 Z-0.125000
G01 X126.617253 Y120.304934 Z-0.125000
G01 X126.771533 Y119.603824 Z-0.125000
G01 X127.203003 Y118.700464 Z-0.125000
G01 X128.698113 Y116.976144 Z-0.125000
G01 X131.057633 Y115.122954 Z-0.125000
G01 X136.317483 Y111.728294 Z-0.125000
G01 X138.997633 Y109.677354 Z-0.125000
G01 X142.031293 Y106.712614 Z-0.125000
G01 X144.017783 Y104.090874 Z-0.125000
G01 X144.891173 Y102.525364 Z-0.125000
G01 X145.578803 Y100.934374 Z-0.125000
G01 X146.540613 Y97.460284 Z-0.125000
G01 X147.055943 Y93.208654 Z-0.125000
G01 X147.154843 Y87.942784 Z-0.125000
G01 X146.901643 Y83.590824 Z-0.125000
G01 X146.381833 Y79.924934 Z-0.125000
G01 X145.542883 Y76.456844 Z-0.125000
G01 X144.396833 Y73.187954 Z-0.125000
G01 X142.876263 Y69.871144 Z-0.125000
G01 X140.855323 Y66.250214 Z-0.125000
G01 X132.157243 Y53.122284 Z-0.125000
G01 X129.185023 Y47.937304 Z-0.125000
G01 X127.950583 Y45.137374 Z-0.125000
G01 X127.147583 Y42.634064 Z-0.125000
G01 X126.693683 Y40.175654 Z-0.125000
G01 X126.617283 Y37.765174 Z-0.125000
G01 X126.885443 Y35.640874 Z-0.125000
G01 X127.394783 Y33.787714 Z-0.125000
G01 X128.260683 Y31.741324 Z-0.125000
G01 X129.417203 Y29.732364 Z-0.125000
G01 X132.070363 Y26.237274 Z-0.125000
G01 X138.877813 Y18.725704 Z-0.125000
G01 X140.366933 Y16.758684 Z-0.125000
G01 X141.450063 Y14.980464 Z-0.125000
G01 X142.250033 Y13.164724 Z-0.125000
G01 X142.732413 Y11.308604 Z-0.125000
G01 X142.874743 Y9.407504 Z-0.125000
G01 X142.680003 Y7.462934 Z-0.125000
G00 Z3.000000

(End cutting path id: polyline21356)


(Start cutting path id: polyline21360)
(Change tool to Default tool)

G00 Z3.000000
G00 X130.750463 Y245.687581

G00 Z4.875000 (Fast pre-penetrate)
G01 Z-0.125000 F400.0(Penetrate)
G01 X137.981873 Y239.428486 Z-0.125000 F800.000000
G01 X138.588623 Y238.547556 Z-0.125000
G01 X138.744413 Y237.847962 Z-0.125000
G01 X138.570663 Y236.865214 Z-0.125000
G01 X138.020843 Y235.834526 Z-0.125000
G01 X134.805853 Y232.057791 Z-0.125000
G01 X133.850063 Y230.733416 Z-0.125000
G01 X133.253853 Y229.457046 Z-0.125000
G01 X133.060583 Y228.231586 Z-0.125000
G01 X133.172943 Y227.286289 Z-0.125000
G01 X133.475543 Y226.366423 Z-0.125000
G01 X135.901003 Y221.642882 Z-0.125000
G01 X136.326443 Y220.018945 Z-0.125000
G01 X136.443273 Y218.594234 Z-0.125000
G01 X136.286003 Y216.414497 Z-0.125000
G01 X135.345203 Y211.013869 Z-0.125000
G01 X135.011093 Y208.330728 Z-0.125000
G01 X134.750423 Y201.339088 Z-0.125000
G01 X134.754423 Y188.623104 Z-0.125000
G01 X134.880303 Y184.320554 Z-0.125000
G01 X135.244343 Y180.768524 Z-0.125000
G01 X136.337933 Y174.671224 Z-0.125000
G01 X136.427833 Y172.524484 Z-0.125000
G01 X136.239063 Y171.059304 Z-0.125000
G01 X135.897483 Y169.815884 Z-0.125000
G01 X133.449603 Y164.458674 Z-0.125000
G01 X133.112523 Y163.215254 Z-0.125000
G01 X133.072123 Y162.250424 Z-0.125000
G01 X133.278863 Y161.317144 Z-0.125000
G01 X133.897543 Y160.198044 Z-0.125000
G01 X134.866863 Y159.125414 Z-0.125000
G01 X137.864603 Y156.395854 Z-0.125000
G01 X138.576213 Y155.288734 Z-0.125000
G01 X138.743973 Y154.350914 Z-0.125000
G01 X138.358953 Y153.100024 Z-0.125000
G01 X137.320773 Y151.765204 Z-0.125000
G01 X132.201723 Y147.501544 Z-0.125000
G01 X131.076653 Y146.395974 Z-0.125000
G01 X130.357543 Y145.341264 Z-0.125000
G01 X130.146313 Y144.355524 Z-0.125000
G01 X130.248173 Y143.888104 Z-0.125000
G01 X130.661643 Y143.221444 Z-0.125000
G01 X131.990463 Y142.195234 Z-0.125000
G01 X133.941033 Y141.248434 Z-0.125000
G01 X138.914753 Y139.255954 Z-0.125000
G01 X140.737943 Y138.294174 Z-0.125000
G01 X141.907993 Y137.245504 Z-0.125000
G01 X142.228573 Y136.568374 Z-0.125000
G01 X142.274973 Y136.093464 Z-0.125000
G01 X142.090693 Y135.350404 Z-0.125000
G01 X141.617283 Y134.568394 Z-0.125000
G01 X139.907953 Y132.907024 Z-0.125000
G01 X137.448053 Y131.148204 Z-0.125000
G01 X130.962723 Y126.946024 Z-0.125000
G01 X128.077343 Y124.650944 Z-0.125000
G01 X127.073633 Y123.560304 Z-0.125000
G01 X126.397983 Y122.513134 Z-0.125000
G01 X126.051903 Y121.507924 Z-0.125000
G01 X126.024903 Y120.544604 Z-0.125000
G01 X126.197153 Y119.848004 Z-0.125000
G01 X126.660063 Y118.947654 Z-0.125000
G01 X127.996373 Y117.442054 Z-0.125000
G01 X130.390393 Y115.593364 Z-0.125000
G01 X135.722153 Y112.207674 Z-0.125000
G01 X138.496673 Y110.170224 Z-0.125000
G01 X141.644193 Y107.218974 Z-0.125000
G01 X143.651633 Y104.601754 Z-0.125000
G01 X144.523543 Y103.034704 Z-0.125000
G01 X145.203663 Y101.443714 Z-0.125000
G01 X146.135483 Y97.966634 Z-0.125000
G01 X146.632853 Y93.472324 Z-0.125000
G01 X146.707753 Y87.722574 Z-0.125000
G01 X146.439573 Y83.129394 Z-0.125000
G01 X145.963173 Y79.707724 Z-0.125000
G01 X145.143753 Y76.242584 Z-0.125000
G01 X144.015663 Y72.976734 Z-0.125000
G01 X142.379753 Y69.405234 Z-0.125000
G01 X140.346793 Y65.781314 Z-0.125000
G01 X131.654743 Y52.654864 Z-0.125000
G01 X128.679533 Y47.469884 Z-0.125000
G01 X127.428583 Y44.666974 Z-0.125000
G01 X126.540223 Y41.911944 Z-0.125000
G01 X126.090763 Y39.455054 Z-0.125000
G01 X126.017363 Y37.046114 Z-0.125000
G01 X126.240563 Y35.155504 Z-0.125000
G01 X126.794883 Y33.068644 Z-0.125000
G01 X127.662283 Y31.020704 Z-0.125000
G01 X128.821793 Y29.013254 Z-0.125000
G01 X131.485423 Y25.519654 Z-0.125000
G01 X138.330323 Y18.012594 Z-0.125000
G01 X139.668133 Y16.267324 Z-0.125000
G01 X140.779733 Y14.492044 Z-0.125000
G01 X141.608193 Y12.679344 Z-0.125000
G01 X142.069583 Y11.059884 Z-0.125000
G01 X142.274873 Y9.167784 Z-0.125000
G01 X142.169983 Y7.473464 Z-0.125000
G00 Z3.000000

(End cutting path id: polyline21360)


(Start cutting path id: polyline21362)
(Change tool to Default tool)

G00 Z3.000000
G00 X133.650823 Y245.829868

G00 Z4.875000 (Fast pre-penetrate)
G01 Z-0.125000 F400.0(Penetrate)
G01 X132.744453 Y244.992421 Z-0.125000 F800.000000
G01 X132.218643 Y244.204444 Z-0.125000
G01 X139.673233 Y237.735610 Z-0.125000
G01 X140.333923 Y236.862220 Z-0.125000
G01 X140.533143 Y236.167083 Z-0.125000
G01 X140.416313 Y235.193314 Z-0.125000
G01 X139.743663 Y233.904972 Z-0.125000
G01 X136.545193 Y230.131185 Z-0.125000
G01 X135.619363 Y228.809847 Z-0.125000
G01 X135.044083 Y227.536427 Z-0.125000
G01 X134.864303 Y226.553700 Z-0.125000
G01 X134.919703 Y225.600908 Z-0.125000
G01 X135.255293 Y224.444364 Z-0.125000
G01 X137.130923 Y220.848896 Z-0.125000
G01 X137.706243 Y219.484144 Z-0.125000
G01 X138.028323 Y218.326114 Z-0.125000
G01 X138.218583 Y216.911892 Z-0.125000
G01 X138.118223 Y214.258752 Z-0.125000
G01 X137.198353 Y208.381683 Z-0.125000
G01 X136.790903 Y204.489601 Z-0.125000
G01 X136.609613 Y200.146578 Z-0.125000
G01 X136.567713 Y194.143674 Z-0.125000
G01 X136.635113 Y188.393924 Z-0.125000
G01 X136.834373 Y184.579694 Z-0.125000
G01 X137.217883 Y181.270424 Z-0.125000
G01 X138.082283 Y176.104914 Z-0.125000
G01 X138.241093 Y173.965644 Z-0.125000
G01 X138.118273 Y172.269774 Z-0.125000
G01 X137.709293 Y170.537984 Z-0.125000
G01 X137.134013 Y169.023384 Z-0.125000
G01 X135.354223 Y165.192704 Z-0.125000
G01 X134.969203 Y163.943294 Z-0.125000
G01 X134.858353 Y162.968044 Z-0.125000
G01 X135.032103 Y161.792054 Z-0.125000
G01 X135.581923 Y160.663954 Z-0.125000
G01 X136.473313 Y159.579324 Z-0.125000
G01 X139.790123 Y156.412334 Z-0.125000
G01 X140.335443 Y155.522464 Z-0.125000
G01 X140.543663 Y154.590634 Z-0.125000
G01 X140.242553 Y153.351714 Z-0.125000
G01 X139.313733 Y152.030374 Z-0.125000
G01 X137.863573 Y150.643114 Z-0.125000
G01 X134.044863 Y147.507524 Z-0.125000
G01 X132.708553 Y146.133794 Z-0.125000
G01 X132.085323 Y145.092594 Z-0.125000
G01 X131.959483 Y144.117344 Z-0.125000
G01 X132.094303 Y143.654434 Z-0.125000
G01 X132.542253 Y142.992254 Z-0.125000
G01 X133.887533 Y141.967534 Z-0.125000
G01 X135.812643 Y141.019244 Z-0.125000
G01 X140.662063 Y139.010284 Z-0.125000
G01 X142.747423 Y137.841764 Z-0.125000
G01 X143.788603 Y136.776604 Z-0.125000
G01 X143.993833 Y136.324194 Z-0.125000
G01 X144.065733 Y135.612584 Z-0.125000
G01 X143.851513 Y134.865004 Z-0.125000
G01 X143.369133 Y134.083024 Z-0.125000
G01 X141.695773 Y132.426134 Z-0.125000
G01 X139.328763 Y130.677814 Z-0.125000
G01 X133.068133 Y126.505584 Z-0.125000
G01 X129.908593 Y123.934834 Z-0.125000
G01 X128.936333 Y122.848734 Z-0.125000
G01 X128.262173 Y121.801554 Z-0.125000
G01 X127.887663 Y120.793304 Z-0.125000
G01 X127.802263 Y119.822554 Z-0.125000
G01 X127.985033 Y118.886234 Z-0.125000
G01 X128.404533 Y117.981394 Z-0.125000
G01 X129.821753 Y116.246544 Z-0.125000
G01 X132.584243 Y113.966424 Z-0.125000
G01 X136.606693 Y111.370234 Z-0.125000
G01 X139.480053 Y109.103604 Z-0.125000
G01 X142.407353 Y106.125324 Z-0.125000
G01 X144.666513 Y103.060154 Z-0.125000
G01 X146.242483 Y99.905174 Z-0.125000
G01 X147.252223 Y96.438574 Z-0.125000
G01 X147.818513 Y92.192914 Z-0.125000
G01 X147.909913 Y87.646164 Z-0.125000
G01 X147.676183 Y84.016264 Z-0.125000
G01 X147.075463 Y80.098724 Z-0.125000
G01 X146.248473 Y76.871804 Z-0.125000
G01 X145.069493 Y73.599914 Z-0.125000
G01 X143.520463 Y70.280104 Z-0.125000
G01 X141.474023 Y66.654704 Z-0.125000
G01 X133.280853 Y54.311754 Z-0.125000
G01 X130.426953 Y49.383014 Z-0.125000
G01 X129.168563 Y46.580044 Z-0.125000
G01 X128.352073 Y44.073714 Z-0.125000
G01 X127.920643 Y41.857994 Z-0.125000
G01 X127.806763 Y39.444574 Z-0.125000
G01 X128.043483 Y37.315764 Z-0.125000
G01 X128.603783 Y35.228914 Z-0.125000
G01 X129.472673 Y33.182474 Z-0.125000
G01 X130.629203 Y31.173524 Z-0.125000
G01 X133.450143 Y27.461224 Z-0.125000
G01 X140.350453 Y19.720434 Z-0.125000
G01 X141.776643 Y17.745984 Z-0.125000
G01 X142.798353 Y15.960224 Z-0.125000
G01 X143.611853 Y13.906294 Z-0.125000
G01 X144.023813 Y11.799974 Z-0.125000
G01 X144.020813 Y9.639684 Z-0.125000
G01 X143.614833 Y7.428504 Z-0.125000
G00 Z3.000000

(End cutting path id: polyline21362)


(Start cutting path id: polyline21364)
(Change tool to Default tool)

G00 Z3.000000
G00 X135.240323 Y245.958695

G00 Z4.875000 (Fast pre-penetrate)
G01 Z-0.125000 F400.0(Penetrate)
G01 X133.481523 Y244.530992 Z-0.125000 F800.000000
G01 X132.841823 Y243.728025 Z-0.125000
G01 X132.943713 Y243.500349 Z-0.125000
G01 X140.378883 Y237.029985 Z-0.125000
G01 X140.982603 Y236.147615 Z-0.125000
G01 X141.141413 Y235.449506 Z-0.125000
G01 X140.975113 Y234.468221 Z-0.125000
G01 X140.438773 Y233.437556 Z-0.125000
G01 X137.062073 Y229.400105 Z-0.125000
G01 X136.163143 Y228.083246 Z-0.125000
G01 X135.619363 Y226.812886 Z-0.125000
G01 X135.457533 Y225.591905 Z-0.125000
G01 X135.578883 Y224.648093 Z-0.125000
G01 X135.969873 Y223.499065 Z-0.125000
G01 X137.623853 Y220.356048 Z-0.125000
G01 X138.300993 Y218.763529 Z-0.125000
G01 X138.706963 Y217.136597 Z-0.125000
G01 X138.840283 Y215.475231 Z-0.125000
G01 X138.675523 Y213.054268 Z-0.125000
G01 X137.815613 Y207.424389 Z-0.125000
G01 X137.457553 Y204.017683 Z-0.125000
G01 X137.250833 Y199.673176 Z-0.125000
G01 X137.196933 Y194.626054 Z-0.125000
G01 X137.267333 Y188.877794 Z-0.125000
G01 X137.468063 Y185.065114 Z-0.125000
G01 X137.838103 Y181.752804 Z-0.125000
G01 X138.727963 Y176.110904 Z-0.125000
G01 X138.814863 Y173.483264 Z-0.125000
G01 X138.572203 Y171.770924 Z-0.125000
G01 X138.136223 Y170.275814 Z-0.125000
G01 X135.719733 Y164.681874 Z-0.125000
G01 X135.499483 Y163.694644 Z-0.125000
G01 X135.472483 Y162.731324 Z-0.125000
G01 X135.670223 Y161.796524 Z-0.125000
G01 X136.249993 Y160.672954 Z-0.125000
G01 X137.370623 Y159.378564 Z-0.125000
G01 X140.260463 Y156.635534 Z-0.125000
G01 X140.957103 Y155.525464 Z-0.125000
G01 X141.142873 Y154.590634 Z-0.125000
G01 X140.823753 Y153.348724 Z-0.125000
G01 X139.887413 Y152.027374 Z-0.125000
G01 X138.443263 Y150.640124 Z-0.125000
G01 X134.655993 Y147.509034 Z-0.125000
G01 X133.324183 Y146.135274 Z-0.125000
G01 X132.696493 Y145.094104 Z-0.125000
G01 X132.552663 Y144.115854 Z-0.125000
G01 X132.677033 Y143.652914 Z-0.125000
G01 X133.103963 Y142.987754 Z-0.125000
G01 X134.408823 Y141.958554 Z-0.125000
G01 X136.291973 Y141.002764 Z-0.125000
G01 X141.503883 Y138.802054 Z-0.125000
G01 X143.219263 Y137.825274 Z-0.125000
G01 X144.317333 Y136.767604 Z-0.125000
G01 X144.624443 Y136.087474 Z-0.125000
G01 X144.672443 Y135.614074 Z-0.125000
G01 X144.515123 Y134.874014 Z-0.125000
G01 X144.088203 Y134.097984 Z-0.125000
G01 X142.527143 Y132.456084 Z-0.125000
G01 X140.254523 Y130.721284 Z-0.125000
G01 X133.253863 Y125.972284 Z-0.125000
G01 X130.539253 Y123.699664 Z-0.125000
G01 X129.572993 Y122.613494 Z-0.125000
G01 X128.894353 Y121.566334 Z-0.125000
G01 X128.506343 Y120.556624 Z-0.125000
G01 X128.411943 Y119.344644 Z-0.125000
G01 X128.623153 Y118.411324 Z-0.125000
G01 X129.057643 Y117.507994 Z-0.125000
G01 X130.465803 Y115.771664 Z-0.125000
G01 X132.892753 Y113.687774 Z-0.125000
G01 X136.891253 Y111.088594 Z-0.125000
G01 X139.942883 Y108.606234 Z-0.125000
G01 X142.588553 Y105.831714 Z-0.125000
G01 X144.945083 Y102.538844 Z-0.125000
G01 X146.527043 Y99.385334 Z-0.125000
G01 X147.556243 Y95.920204 Z-0.125000
G01 X148.119543 Y91.914264 Z-0.125000
G01 X148.216943 Y87.367504 Z-0.125000
G01 X147.978753 Y83.977324 Z-0.125000
G01 X147.392943 Y80.302454 Z-0.125000
G01 X146.473153 Y76.823844 Z-0.125000
G01 X145.357053 Y73.799204 Z-0.125000
G01 X143.794553 Y70.476404 Z-0.125000
G01 X141.894963 Y67.111634 Z-0.125000
G01 X133.733223 Y54.773184 Z-0.125000
G01 X130.903293 Y49.845904 Z-0.125000
G01 X129.670343 Y47.047464 Z-0.125000
G01 X128.948243 Y44.792804 Z-0.125000
G01 X128.516813 Y42.578604 Z-0.125000
G01 X128.405953 Y40.163674 Z-0.125000
G01 X128.605193 Y38.270064 Z-0.125000
G01 X129.135493 Y36.180224 Z-0.125000
G01 X129.975963 Y34.129284 Z-0.125000
G01 X131.104033 Y32.117344 Z-0.125000
G01 X133.878513 Y28.399054 Z-0.125000
G01 X140.753403 Y20.655264 Z-0.125000
G01 X142.200553 Y18.683734 Z-0.125000
G01 X143.369073 Y16.676294 Z-0.125000
G01 X144.254433 Y14.391694 Z-0.125000
G01 X144.636433 Y12.282354 Z-0.125000
G01 X144.579533 Y9.874924 Z-0.125000
G01 X144.043203 Y7.406044 Z-0.125000
G00 Z3.000000

(End cutting path id: polyline21364)


(Start cutting path id: polyline21366)
(Change tool to Default tool)

G00 Z3.000000
G00 X136.990143 Y246.108521

G00 Z4.875000 (Fast pre-penetrate)
G01 Z-0.125000 F400.0(Penetrate)
G01 X134.533213 Y244.349724 Z-0.125000 F800.000000
G01 X133.721243 Y243.524296 Z-0.125000
G01 X133.429123 Y243.005925 Z-0.125000
G01 X140.870253 Y236.535605 Z-0.125000
G01 X141.529423 Y235.660731 Z-0.125000
G01 X141.742133 Y234.728891 Z-0.125000
G01 X141.529423 Y233.741664 Z-0.125000
G01 X140.958633 Y232.707960 Z-0.125000
G01 X137.791623 Y228.937167 Z-0.125000
G01 X136.859823 Y227.615852 Z-0.125000
G01 X136.269503 Y226.339483 Z-0.125000
G01 X136.070253 Y225.353741 Z-0.125000
G01 X136.100253 Y224.397910 Z-0.125000
G01 X136.323453 Y223.467624 Z-0.125000
G01 X138.724953 Y218.501350 Z-0.125000
G01 X139.157903 Y217.118638 Z-0.125000
G01 X139.408073 Y215.470730 Z-0.125000
G01 X139.321273 Y212.580866 Z-0.125000
G01 X138.438853 Y206.467095 Z-0.125000
G01 X138.077803 Y202.820695 Z-0.125000
G01 X137.842633 Y193.673264 Z-0.125000
G01 X137.925033 Y188.885284 Z-0.125000
G01 X138.148233 Y185.075604 Z-0.125000
G01 X139.291293 Y176.825534 Z-0.125000
G01 X139.439603 Y174.686214 Z-0.125000
G01 X139.334753 Y172.991854 Z-0.125000
G01 X138.970703 Y171.266034 Z-0.125000
G01 X138.339983 Y169.504284 Z-0.125000
G01 X136.422383 Y165.176234 Z-0.125000
G01 X136.110773 Y163.935804 Z-0.125000
G01 X136.064373 Y162.969524 Z-0.125000
G01 X136.314573 Y161.802514 Z-0.125000
G01 X136.774543 Y160.902144 Z-0.125000
G01 X137.848663 Y159.603314 Z-0.125000
G01 X140.910783 Y156.641524 Z-0.125000
G01 X141.577443 Y155.528454 Z-0.125000
G01 X141.742243 Y154.590634 Z-0.125000
G01 X141.403653 Y153.347204 Z-0.125000
G01 X140.459883 Y152.024384 Z-0.125000
G01 X139.021663 Y150.637134 Z-0.125000
G01 X135.264403 Y147.510514 Z-0.125000
G01 X133.938563 Y146.138264 Z-0.125000
G01 X133.306353 Y145.095584 Z-0.125000
G01 X133.149073 Y144.115854 Z-0.125000
G01 X133.364803 Y143.423684 Z-0.125000
G01 X133.667403 Y142.983284 Z-0.125000
G01 X134.931803 Y141.948094 Z-0.125000
G01 X136.774543 Y140.987804 Z-0.125000
G01 X141.945983 Y138.781064 Z-0.125000
G01 X143.969913 Y137.605064 Z-0.125000
G01 X144.985633 Y136.536934 Z-0.125000
G01 X145.189383 Y136.082974 Z-0.125000
G01 X145.265783 Y135.372894 Z-0.125000
G01 X145.072533 Y134.628334 Z-0.125000
G01 X144.618593 Y133.849334 Z-0.125000
G01 X143.032133 Y132.204374 Z-0.125000
G01 X140.765493 Y130.469584 Z-0.125000
G01 X134.256143 Y126.024704 Z-0.125000
G01 X131.182033 Y123.465934 Z-0.125000
G01 X130.220273 Y122.379814 Z-0.125000
G01 X129.535643 Y121.331134 Z-0.125000
G01 X129.131133 Y120.319894 Z-0.125000
G01 X129.002303 Y119.103444 Z-0.125000
G01 X129.177583 Y118.165614 Z-0.125000
G01 X129.570083 Y117.257794 Z-0.125000
G01 X130.149843 Y116.372424 Z-0.125000
G01 X131.089153 Y115.295244 Z-0.125000
G01 X133.192503 Y113.409124 Z-0.125000
G01 X136.891373 Y111.010674 Z-0.125000
G01 X140.170703 Y108.318594 Z-0.125000
G01 X142.765443 Y105.536584 Z-0.125000
G01 X145.081503 Y102.237724 Z-0.125000
G01 X146.682983 Y99.087214 Z-0.125000
G01 X147.767603 Y95.629574 Z-0.125000
G01 X148.372863 Y91.629624 Z-0.125000
G01 X148.474733 Y87.082864 Z-0.125000
G01 X148.175123 Y83.445474 Z-0.125000
G01 X147.616333 Y80.253004 Z-0.125000
G01 X146.817793 Y77.270284 Z-0.125000
G01 X145.607373 Y73.993964 Z-0.125000
G01 X144.167693 Y70.927304 Z-0.125000
G01 X142.283063 Y67.564064 Z-0.125000
G01 X134.167763 Y55.231594 Z-0.125000
G01 X131.498143 Y50.565014 Z-0.125000
G01 X130.361063 Y48.018224 Z-0.125000
G01 X129.541623 Y45.511914 Z-0.125000
G01 X129.113153 Y43.297724 Z-0.125000
G01 X128.999313 Y41.122464 Z-0.125000
G01 X129.212023 Y38.990634 Z-0.125000
G01 X129.748373 Y36.902274 Z-0.125000
G01 X130.594793 Y34.852904 Z-0.125000
G01 X131.727373 Y32.839394 Z-0.125000
G01 X134.500363 Y29.121104 Z-0.125000
G01 X141.510053 Y21.155674 Z-0.125000
G01 X143.065073 Y18.957904 Z-0.125000
G01 X144.158663 Y16.939974 Z-0.125000
G01 X144.957183 Y14.644864 Z-0.125000
G01 X145.268783 Y12.286854 Z-0.125000
G01 X145.086013 Y9.862944 Z-0.125000
G01 X144.443313 Y7.380584 Z-0.125000
G00 Z3.000000

(End cutting path id: polyline21366)


(Start cutting path id: polyline21370)
(Change tool to Default tool)

G00 Z3.000000
G00 X130.750463 Y245.843349

G00 Z4.875000 (Fast pre-penetrate)
G01 Z-0.125000 F400.0(Penetrate)
G01 X137.276293 Y240.134066 Z-0.125000 F800.000000
G01 X137.814123 Y239.485382 Z-0.125000
G01 X138.137683 Y238.567070 Z-0.125000
G01 X138.085283 Y237.840468 Z-0.125000
G01 X137.664273 Y236.826255 Z-0.125000
G01 X136.710003 Y235.501925 Z-0.125000
G01 X133.492013 Y231.725235 Z-0.125000
G01 X132.781933 Y230.432300 Z-0.125000
G01 X132.474783 Y229.193359 Z-0.125000
G01 X132.510783 Y228.237573 Z-0.125000
G01 X132.757953 Y227.310236 Z-0.125000
G01 X135.204373 Y222.589688 Z-0.125000
G01 X135.635843 Y221.206953 Z-0.125000
G01 X135.829083 Y219.791246 Z-0.125000
G01 X135.710743 Y217.377823 Z-0.125000
G01 X134.638083 Y211.238552 Z-0.125000
G01 X134.242573 Y207.108306 Z-0.125000
G01 X134.151173 Y188.142214 Z-0.125000
G01 X134.229073 Y184.552754 Z-0.125000
G01 X134.452273 Y181.703354 Z-0.125000
G01 X135.664253 Y174.901964 Z-0.125000
G01 X135.844033 Y172.765644 Z-0.125000
G01 X135.727173 Y171.310994 Z-0.125000
G01 X135.369123 Y169.824864 Z-0.125000
G01 X134.771393 Y168.307274 Z-0.125000
G01 X132.904743 Y164.466144 Z-0.125000
G01 X132.585643 Y163.465394 Z-0.125000
G01 X132.461273 Y162.488654 Z-0.125000
G01 X132.645553 Y161.312664 Z-0.125000
G01 X133.238823 Y160.190554 Z-0.125000
G01 X134.196123 Y159.114894 Z-0.125000
G01 X137.409563 Y156.174104 Z-0.125000
G01 X137.962373 Y155.285744 Z-0.125000
G01 X138.146653 Y154.350914 Z-0.125000
G01 X137.773603 Y153.101504 Z-0.125000
G01 X136.736913 Y151.768194 Z-0.125000
G01 X135.172863 Y150.364464 Z-0.125000
G01 X131.913013 Y147.781674 Z-0.125000
G01 X130.456823 Y146.392974 Z-0.125000
G01 X129.743743 Y145.339764 Z-0.125000
G01 X129.550503 Y144.355524 Z-0.125000
G01 X129.775183 Y143.664914 Z-0.125000
G01 X130.100263 Y143.227454 Z-0.125000
G01 X131.471063 Y142.205724 Z-0.125000
G01 X133.462023 Y141.264954 Z-0.125000
G01 X138.468763 Y139.275464 Z-0.125000
G01 X140.263463 Y138.309144 Z-0.125000
G01 X141.376573 Y137.254484 Z-0.125000
G01 X141.676183 Y136.334684 Z-0.125000
G01 X141.541373 Y135.596104 Z-0.125000
G01 X141.105393 Y134.820084 Z-0.125000
G01 X139.442513 Y133.164654 Z-0.125000
G01 X136.990113 Y131.405904 Z-0.125000
G01 X130.423863 Y127.193194 Z-0.125000
G01 X127.487593 Y124.892124 Z-0.125000
G01 X126.468863 Y123.800024 Z-0.125000
G01 X125.787223 Y122.751354 Z-0.125000
G01 X125.501103 Y121.994814 Z-0.125000
G01 X125.408203 Y121.022554 Z-0.125000
G01 X125.541563 Y120.319894 Z-0.125000
G01 X125.968503 Y119.416574 Z-0.125000
G01 X127.279363 Y117.906474 Z-0.125000
G01 X129.400643 Y116.263024 Z-0.125000
G01 X135.418533 Y112.486334 Z-0.125000
G01 X138.242523 Y110.454874 Z-0.125000
G01 X141.232763 Y107.723864 Z-0.125000
G01 X142.335343 Y106.427974 Z-0.125000
G01 X143.398983 Y104.886384 Z-0.125000
G01 X144.239443 Y103.316354 Z-0.125000
G01 X144.885133 Y101.720864 Z-0.125000
G01 X145.419953 Y99.870714 Z-0.125000
G01 X145.781003 Y97.998074 Z-0.125000
G01 X146.185493 Y93.491794 Z-0.125000
G01 X146.213893 Y87.016994 Z-0.125000
G01 X145.951723 Y82.663484 Z-0.125000
G01 X145.428913 Y78.997594 Z-0.125000
G01 X144.574993 Y75.526514 Z-0.125000
G01 X143.403433 Y72.256114 Z-0.125000
G01 X141.855903 Y68.934824 Z-0.125000
G01 X139.968283 Y65.570094 Z-0.125000
G01 X131.304693 Y52.448134 Z-0.125000
G01 X128.164673 Y47.001034 Z-0.125000
G01 X126.805903 Y43.944874 Z-0.125000
G01 X125.993923 Y41.440044 Z-0.125000
G01 X125.489043 Y38.734484 Z-0.125000
G01 X125.420143 Y36.327014 Z-0.125000
G01 X125.689813 Y34.202704 Z-0.125000
G01 X126.199133 Y32.349514 Z-0.125000
G01 X127.068093 Y30.301644 Z-0.125000
G01 X128.232113 Y28.294174 Z-0.125000
G01 X131.097983 Y24.587864 Z-0.125000
G01 X137.793033 Y17.301024 Z-0.125000
G01 X139.133883 Y15.555754 Z-0.125000
G01 X140.115123 Y14.003674 Z-0.125000
G01 X140.880663 Y12.423204 Z-0.125000
G01 X141.398983 Y10.811234 Z-0.125000
G01 X141.652183 Y9.164794 Z-0.125000
G01 X141.634283 Y7.482444 Z-0.125000
G00 Z3.000000

(End cutting path id: polyline21370)


(Start cutting path id: polyline21368)
(Change tool to Default tool)

G00 Z3.000000
G00 X130.750463 Y245.843349

G00 Z4.875000 (Fast pre-penetrate)
G01 Z-0.125000 F400.0(Penetrate)
G01 X136.781903 Y240.628445 Z-0.125000 F800.000000
G01 X137.388643 Y239.747561 Z-0.125000
G01 X137.545943 Y239.047967 Z-0.125000
G01 X137.372163 Y238.065174 Z-0.125000
G01 X136.819363 Y237.034463 Z-0.125000
G01 X133.586403 Y233.254780 Z-0.125000
G01 X132.630593 Y231.930449 Z-0.125000
G01 X132.041863 Y230.654012 Z-0.125000
G01 X131.866563 Y229.671264 Z-0.125000
G01 X131.938563 Y228.721465 Z-0.125000
G01 X132.310103 Y227.570930 Z-0.125000
G01 X134.680113 Y223.079611 Z-0.125000
G01 X135.032133 Y221.926038 Z-0.125000
G01 X135.229883 Y220.511861 Z-0.125000
G01 X135.136983 Y218.339596 Z-0.125000
G01 X134.008923 Y211.954688 Z-0.125000
G01 X133.634423 Y208.067086 Z-0.125000
G01 X133.552023 Y187.181944 Z-0.125000
G01 X133.619523 Y184.071854 Z-0.125000
G01 X133.848733 Y181.222454 Z-0.125000
G01 X135.057713 Y174.660764 Z-0.125000
G01 X135.244963 Y172.525974 Z-0.125000
G01 X135.125073 Y171.071284 Z-0.125000
G01 X134.753553 Y169.583684 Z-0.125000
G01 X134.140843 Y168.063124 Z-0.125000
G01 X132.260713 Y164.220444 Z-0.125000
G01 X131.959593 Y163.221244 Z-0.125000
G01 X131.862193 Y162.248934 Z-0.125000
G01 X132.016493 Y161.309644 Z-0.125000
G01 X132.585773 Y160.183084 Z-0.125000
G01 X133.529583 Y159.105914 Z-0.125000
G01 X136.777533 Y156.169624 Z-0.125000
G01 X137.348293 Y155.284264 Z-0.125000
G01 X137.547553 Y154.350914 Z-0.125000
G01 X137.186493 Y153.104504 Z-0.125000
G01 X136.149763 Y151.769684 Z-0.125000
G01 X134.575263 Y150.364464 Z-0.125000
G01 X131.292913 Y147.778684 Z-0.125000
G01 X129.833763 Y146.389944 Z-0.125000
G01 X129.129623 Y145.338254 Z-0.125000
G01 X128.955853 Y144.355524 Z-0.125000
G01 X129.200043 Y143.667904 Z-0.125000
G01 X129.541623 Y143.231934 Z-0.125000
G01 X130.954323 Y142.216254 Z-0.125000
G01 X132.543823 Y141.462694 Z-0.125000
G01 X137.601453 Y139.480694 Z-0.125000
G01 X139.483093 Y138.526394 Z-0.125000
G01 X140.693563 Y137.483714 Z-0.125000
G01 X140.951263 Y137.037274 Z-0.125000
G01 X141.077073 Y136.334684 Z-0.125000
G01 X140.886823 Y135.590124 Z-0.125000
G01 X140.395463 Y134.806624 Z-0.125000
G01 X138.623183 Y133.136214 Z-0.125000
G01 X136.540803 Y131.665094 Z-0.125000
G01 X129.896653 Y127.441894 Z-0.125000
G01 X126.906453 Y125.134844 Z-0.125000
G01 X125.869753 Y124.039694 Z-0.125000
G01 X125.319933 Y123.248724 Z-0.125000
G01 X124.894493 Y122.232984 Z-0.125000
G01 X124.812093 Y121.262224 Z-0.125000
G01 X124.958873 Y120.562614 Z-0.125000
G01 X125.409813 Y119.660724 Z-0.125000
G01 X126.779113 Y118.159634 Z-0.125000
G01 X128.978313 Y116.526694 Z-0.125000
G01 X135.110043 Y112.764994 Z-0.125000
G01 X138.242643 Y110.532784 Z-0.125000
G01 X140.994663 Y108.011484 Z-0.125000
G01 X142.082313 Y106.712614 Z-0.125000
G01 X143.118963 Y105.168034 Z-0.125000
G01 X143.926453 Y103.593504 Z-0.125000
G01 X144.536173 Y101.993534 Z-0.125000
G01 X145.030573 Y100.137384 Z-0.125000
G01 X145.354163 Y98.260254 Z-0.125000
G01 X145.706223 Y93.267034 Z-0.125000
G01 X145.689723 Y86.306864 Z-0.125000
G01 X145.415573 Y81.951844 Z-0.125000
G01 X144.918153 Y78.528684 Z-0.125000
G01 X144.130173 Y75.307754 Z-0.125000
G01 X142.975143 Y72.037414 Z-0.125000
G01 X141.439573 Y68.719094 Z-0.125000
G01 X139.409623 Y65.095174 Z-0.125000
G01 X130.939283 Y52.238394 Z-0.125000
G01 X129.036693 Y49.111854 Z-0.125000
G01 X127.643493 Y46.530624 Z-0.125000
G01 X126.374573 Y43.726154 Z-0.125000
G01 X125.445723 Y40.966644 Z-0.125000
G01 X124.943883 Y38.502264 Z-0.125000
G01 X124.812053 Y35.844634 Z-0.125000
G01 X125.006803 Y33.951014 Z-0.125000
G01 X125.385833 Y32.321064 Z-0.125000
G01 X126.053993 Y30.488894 Z-0.125000
G01 X126.964803 Y28.686684 Z-0.125000
G01 X128.254703 Y26.695694 Z-0.125000
G01 X129.788753 Y24.734644 Z-0.125000
G01 X136.527273 Y17.453844 Z-0.125000
G01 X138.904773 Y14.403664 Z-0.125000
G01 X139.933983 Y12.617944 Z-0.125000
G01 X140.581163 Y11.022464 Z-0.125000
G01 X140.999133 Y9.157304 Z-0.125000
G01 X141.069533 Y7.486944 Z-0.125000
G00 Z3.000000

(End cutting path id: polyline21368)


(Start cutting path id: polyline21374)
(Change tool to Default tool)

G00 Z3.000000
G00 X130.750463 Y245.999162

G00 Z4.875000 (Fast pre-penetrate)
G01 Z-0.125000 F400.0(Penetrate)
G01 X135.577383 Y241.826942 Z-0.125000 F800.000000
G01 X136.077743 Y241.172271 Z-0.125000
G01 X136.347393 Y240.247927 Z-0.125000
G01 X136.175113 Y239.265178 Z-0.125000
G01 X135.622353 Y238.234468 Z-0.125000
G01 X132.375913 Y234.453254 Z-0.125000
G01 X131.418623 Y233.128923 Z-0.125000
G01 X130.916763 Y232.104245 Z-0.125000
G01 X130.665083 Y230.871268 Z-0.125000
G01 X130.748983 Y229.922954 Z-0.125000
G01 X131.138473 Y228.773904 Z-0.125000
G01 X132.912243 Y225.644368 Z-0.125000
G01 X133.533983 Y224.285557 Z-0.125000
G01 X133.915983 Y222.896835 Z-0.125000
G01 X134.046323 Y221.473634 Z-0.125000
G01 X133.865033 Y219.290903 Z-0.125000
G01 X132.659063 Y212.655767 Z-0.125000
G01 X132.425373 Y209.986152 Z-0.125000
G01 X132.353373 Y207.096288 Z-0.125000
G01 X132.479253 Y196.555613 Z-0.125000
G01 X132.408853 Y183.110084 Z-0.125000
G01 X132.793843 Y179.321354 Z-0.125000
G01 X133.924933 Y173.709454 Z-0.125000
G01 X134.029793 Y171.564154 Z-0.125000
G01 X133.863493 Y170.343244 Z-0.125000
G01 X133.509913 Y169.096784 Z-0.125000
G01 X131.059063 Y163.979284 Z-0.125000
G01 X130.754913 Y162.980014 Z-0.125000
G01 X130.665013 Y162.009264 Z-0.125000
G01 X130.838803 Y161.071444 Z-0.125000
G01 X131.444053 Y159.950844 Z-0.125000
G01 X132.431303 Y158.879704 Z-0.125000
G01 X135.518913 Y156.162124 Z-0.125000
G01 X136.121133 Y155.281244 Z-0.125000
G01 X136.348833 Y154.350914 Z-0.125000
G01 X136.133113 Y153.362194 Z-0.125000
G01 X135.225243 Y152.045344 Z-0.125000
G01 X133.722683 Y150.649104 Z-0.125000
G01 X129.099523 Y146.929264 Z-0.125000
G01 X128.023893 Y145.589974 Z-0.125000
G01 X127.746743 Y144.593734 Z-0.125000
G01 X127.923513 Y143.897094 Z-0.125000
G01 X128.226133 Y143.456684 Z-0.125000
G01 X129.572923 Y142.431954 Z-0.125000
G01 X131.587843 Y141.494134 Z-0.125000
G01 X136.708433 Y139.521124 Z-0.125000
G01 X138.531613 Y138.557864 Z-0.125000
G01 X139.628243 Y137.501694 Z-0.125000
G01 X139.878403 Y136.574364 Z-0.125000
G01 X139.685163 Y135.829794 Z-0.125000
G01 X139.180303 Y135.043304 Z-0.125000
G01 X137.351123 Y133.366904 Z-0.125000
G01 X135.205783 Y131.888284 Z-0.125000
G01 X128.429863 Y127.647134 Z-0.125000
G01 X125.769233 Y125.621724 Z-0.125000
G01 X124.692103 Y124.522074 Z-0.125000
G01 X124.122833 Y123.728114 Z-0.125000
G01 X123.689843 Y122.712364 Z-0.125000
G01 X123.617943 Y121.743104 Z-0.125000
G01 X123.787243 Y121.045014 Z-0.125000
G01 X124.131813 Y120.370854 Z-0.125000
G01 X125.505543 Y118.869754 Z-0.125000
G01 X127.781183 Y117.245824 Z-0.125000
G01 X134.479223 Y113.317744 Z-0.125000
G01 X137.710693 Y111.099074 Z-0.125000
G01 X139.190793 Y109.851154 Z-0.125000
G01 X140.453683 Y108.576274 Z-0.125000
G01 X141.505393 Y107.272914 Z-0.125000
G01 X142.359263 Y105.944034 Z-0.125000
G01 X143.129343 Y104.365024 Z-0.125000
G01 X143.691133 Y102.759044 Z-0.125000
G01 X144.124073 Y100.895434 Z-0.125000
G01 X144.386243 Y99.009314 Z-0.125000
G01 X144.619933 Y93.761464 Z-0.125000
G01 X144.560033 Y84.396774 Z-0.125000
G01 X144.315833 Y80.765374 Z-0.125000
G01 X143.791523 Y77.337714 Z-0.125000
G01 X142.954053 Y74.110784 Z-0.125000
G01 X141.842453 Y71.086114 Z-0.125000
G01 X140.273943 Y67.763314 Z-0.125000
G01 X138.533133 Y64.657674 Z-0.125000
G01 X129.670303 Y51.029414 Z-0.125000
G01 X126.449363 Y45.332134 Z-0.125000
G01 X125.102573 Y42.277494 Z-0.125000
G01 X124.211223 Y39.522464 Z-0.125000
G01 X123.703343 Y36.816884 Z-0.125000
G01 X123.616443 Y34.406434 Z-0.125000
G01 X123.820183 Y32.512824 Z-0.125000
G01 X124.277103 Y30.653664 Z-0.125000
G01 X124.985753 Y28.825974 Z-0.125000
G01 X125.937033 Y27.029754 Z-0.125000
G01 X127.276353 Y25.044744 Z-0.125000
G01 X128.671063 Y23.306964 Z-0.125000
G01 X135.114423 Y16.466574 Z-0.125000
G01 X137.420083 Y13.647104 Z-0.125000
G01 X138.408813 Y12.095104 Z-0.125000
G01 X139.166863 Y10.514614 Z-0.125000
G01 X139.607313 Y9.131844 Z-0.125000
G01 X139.858963 Y7.485444 Z-0.125000
G00 Z3.000000

(End cutting path id: polyline21374)


(Start cutting path id: polyline21372)
(Change tool to Default tool)

G00 Z3.000000
G00 X130.750463 Y245.999162

G00 Z4.875000 (Fast pre-penetrate)
G01 Z-0.125000 F400.0(Penetrate)
G01 X136.073243 Y241.334071 Z-0.125000 F800.000000
G01 X136.736943 Y240.460681 Z-0.125000
G01 X136.937703 Y239.767029 Z-0.125000
G01 X136.886803 Y239.040473 Z-0.125000
G01 X136.465753 Y238.026237 Z-0.125000
G01 X135.728733 Y236.970094 Z-0.125000
G01 X132.275553 Y232.922178 Z-0.125000
G01 X131.569973 Y231.630842 Z-0.125000
G01 X131.273353 Y230.391856 Z-0.125000
G01 X131.321253 Y229.439063 Z-0.125000
G01 X131.676323 Y228.285490 Z-0.125000
G01 X133.542963 Y224.929740 Z-0.125000
G01 X134.151183 Y223.567981 Z-0.125000
G01 X134.477793 Y222.411459 Z-0.125000
G01 X134.629093 Y221.230923 Z-0.125000
G01 X134.503253 Y218.815991 Z-0.125000
G01 X133.418593 Y212.916461 Z-0.125000
G01 X133.017123 Y208.784662 Z-0.125000
G01 X132.952723 Y186.223144 Z-0.125000
G01 X133.036623 Y183.114564 Z-0.125000
G01 X133.249393 Y180.743064 Z-0.125000
G01 X134.453833 Y174.421044 Z-0.125000
G01 X134.645593 Y172.286254 Z-0.125000
G01 X134.519773 Y170.830124 Z-0.125000
G01 X134.134763 Y169.340974 Z-0.125000
G01 X131.710803 Y164.226434 Z-0.125000
G01 X131.385743 Y163.224234 Z-0.125000
G01 X131.262903 Y162.248934 Z-0.125000
G01 X131.466633 Y161.075944 Z-0.125000
G01 X132.092833 Y159.958334 Z-0.125000
G01 X133.090593 Y158.887194 Z-0.125000
G01 X136.146713 Y156.165124 Z-0.125000
G01 X136.733993 Y155.282754 Z-0.125000
G01 X136.948263 Y154.350914 Z-0.125000
G01 X136.597703 Y153.104504 Z-0.125000
G01 X135.559473 Y151.769684 Z-0.125000
G01 X133.974453 Y150.364464 Z-0.125000
G01 X130.669633 Y147.775694 Z-0.125000
G01 X129.208973 Y146.385444 Z-0.125000
G01 X128.515373 Y145.336764 Z-0.125000
G01 X128.361043 Y144.357014 Z-0.125000
G01 X128.501893 Y143.894094 Z-0.125000
G01 X128.984293 Y143.237924 Z-0.125000
G01 X130.440423 Y142.226724 Z-0.125000
G01 X137.155003 Y139.501644 Z-0.125000
G01 X139.008123 Y138.542874 Z-0.125000
G01 X140.164673 Y137.492714 Z-0.125000
G01 X140.392393 Y137.043264 Z-0.125000
G01 X140.467293 Y136.333184 Z-0.125000
G01 X140.339933 Y135.835784 Z-0.125000
G01 X139.890513 Y135.058274 Z-0.125000
G01 X138.170653 Y133.395394 Z-0.125000
G01 X135.640343 Y131.626114 Z-0.125000
G01 X129.379753 Y127.693604 Z-0.125000
G01 X126.334103 Y125.377504 Z-0.125000
G01 X125.277933 Y124.280914 Z-0.125000
G01 X124.719153 Y123.488394 Z-0.125000
G01 X124.290663 Y122.472704 Z-0.125000
G01 X124.215763 Y121.503424 Z-0.125000
G01 X124.374533 Y120.803794 Z-0.125000
G01 X124.847933 Y119.906454 Z-0.125000
G01 X126.271133 Y118.411324 Z-0.125000
G01 X128.859833 Y116.588134 Z-0.125000
G01 X135.109953 Y112.842844 Z-0.125000
G01 X137.981863 Y110.815914 Z-0.125000
G01 X140.735373 Y108.294624 Z-0.125000
G01 X141.806553 Y106.994264 Z-0.125000
G01 X142.684443 Y105.668404 Z-0.125000
G01 X143.488893 Y104.093864 Z-0.125000
G01 X144.088183 Y102.492434 Z-0.125000
G01 X144.564573 Y100.634764 Z-0.125000
G01 X144.867173 Y98.754614 Z-0.125000
G01 X145.172793 Y93.755474 Z-0.125000
G01 X145.148793 Y85.834954 Z-0.125000
G01 X144.886613 Y81.481464 Z-0.125000
G01 X144.387763 Y78.058284 Z-0.125000
G01 X143.590733 Y74.834354 Z-0.125000
G01 X142.419243 Y71.564014 Z-0.125000
G01 X140.867213 Y68.242694 Z-0.125000
G01 X138.982583 Y64.877964 Z-0.125000
G01 X130.393923 Y51.764994 Z-0.125000
G01 X127.113063 Y46.060214 Z-0.125000
G01 X125.740803 Y43.002544 Z-0.125000
G01 X124.829943 Y40.244544 Z-0.125000
G01 X124.308623 Y37.537484 Z-0.125000
G01 X124.212723 Y35.125544 Z-0.125000
G01 X124.374483 Y33.467124 Z-0.125000
G01 X124.793973 Y31.601964 Z-0.125000
G01 X125.466613 Y29.769794 Z-0.125000
G01 X126.381933 Y27.969064 Z-0.125000
G01 X127.682313 Y25.979574 Z-0.125000
G01 X129.225343 Y24.020084 Z-0.125000
G01 X135.817043 Y16.959444 Z-0.125000
G01 X138.085223 Y14.135544 Z-0.125000
G01 X139.174313 Y12.357274 Z-0.125000
G01 X139.876933 Y10.769254 Z-0.125000
G01 X140.317383 Y9.146834 Z-0.125000
G01 X140.477693 Y7.488434 Z-0.125000
G00 Z3.000000

(End cutting path id: polyline21372)


(Start cutting path id: polyline21376)
(Change tool to Default tool)

G00 Z3.000000
G00 X138.850803 Y246.271829

G00 Z4.875000 (Fast pre-penetrate)
G01 Z-0.125000 F400.0(Penetrate)
G01 X135.661283 Y244.178967 Z-0.125000 F800.000000
G01 X134.689023 Y243.332540 Z-0.125000
G01 X134.043333 Y242.528043 Z-0.125000
G01 X134.378933 Y242.092114 Z-0.125000
G01 X141.572833 Y235.828539 Z-0.125000
G01 X142.068703 Y235.173847 Z-0.125000
G01 X142.338373 Y234.249502 Z-0.125000
G01 X142.179613 Y233.268261 Z-0.125000
G01 X141.655253 Y232.240545 Z-0.125000
G01 X138.312983 Y228.207617 Z-0.125000
G01 X137.408113 Y226.889295 Z-0.125000
G01 X136.928713 Y225.867566 Z-0.125000
G01 X136.665083 Y224.633126 Z-0.125000
G01 X136.706983 Y223.680334 Z-0.125000
G01 X137.018563 Y222.520818 Z-0.125000
G01 X138.927163 Y218.690113 Z-0.125000
G01 X139.479973 Y217.322366 Z-0.125000
G01 X139.844013 Y215.929121 Z-0.125000
G01 X140.016303 Y214.511905 Z-0.125000
G01 X139.938403 Y211.863289 Z-0.125000
G01 X139.099473 Y205.755483 Z-0.125000
G01 X138.741413 Y202.109105 Z-0.125000
G01 X138.501743 Y193.680764 Z-0.125000
G01 X138.795363 Y185.560984 Z-0.125000
G01 X139.885973 Y177.304924 Z-0.125000
G01 X140.038793 Y174.925934 Z-0.125000
G01 X139.923443 Y173.231574 Z-0.125000
G01 X139.556403 Y171.504264 Z-0.125000
G01 X138.934653 Y169.743954 Z-0.125000
G01 X137.042603 Y165.418964 Z-0.125000
G01 X136.721973 Y164.177024 Z-0.125000
G01 X136.659073 Y163.209244 Z-0.125000
G01 X136.879283 Y162.037714 Z-0.125000
G01 X137.448563 Y160.912634 Z-0.125000
G01 X138.333923 Y159.828014 Z-0.125000
G01 X141.562353 Y156.649014 Z-0.125000
G01 X142.197553 Y155.531454 Z-0.125000
G01 X142.339863 Y154.590634 Z-0.125000
G01 X141.980343 Y153.344214 Z-0.125000
G01 X141.030543 Y152.019884 Z-0.125000
G01 X139.596813 Y150.634134 Z-0.125000
G01 X135.872493 Y147.510514 Z-0.125000
G01 X134.554153 Y146.139784 Z-0.125000
G01 X133.917483 Y145.097094 Z-0.125000
G01 X133.745193 Y144.115854 Z-0.125000
G01 X133.944443 Y143.420694 Z-0.125000
G01 X134.233563 Y142.978784 Z-0.125000
G01 X134.886753 Y142.343574 Z-0.125000
G01 X135.778103 Y141.739854 Z-0.125000
G01 X137.665773 Y140.785554 Z-0.125000
G01 X142.384813 Y138.760084 Z-0.125000
G01 X144.440193 Y137.587084 Z-0.125000
G01 X145.511373 Y136.527924 Z-0.125000
G01 X145.816973 Y135.847804 Z-0.125000
G01 X145.872373 Y135.374394 Z-0.125000
G01 X145.733053 Y134.635824 Z-0.125000
G01 X145.337573 Y133.865804 Z-0.125000
G01 X144.705363 Y133.062794 Z-0.125000
G01 X143.544343 Y131.952724 Z-0.125000
G01 X141.288173 Y130.219384 Z-0.125000
G01 X134.873263 Y125.786514 Z-0.125000
G01 X131.836613 Y123.232244 Z-0.125000
G01 X130.677073 Y121.882464 Z-0.125000
G01 X130.052363 Y120.841264 Z-0.125000
G01 X129.695783 Y119.834524 Z-0.125000
G01 X129.608883 Y118.624044 Z-0.125000
G01 X129.802153 Y117.689214 Z-0.125000
G01 X130.200663 Y116.781394 Z-0.125000
G01 X131.689773 Y114.815854 Z-0.125000
G01 X133.497973 Y113.131984 Z-0.125000
G01 X137.169893 Y110.729024 Z-0.125000
G01 X140.393823 Y108.029454 Z-0.125000
G01 X143.112863 Y105.024194 Z-0.125000
G01 X145.213233 Y101.938124 Z-0.125000
G01 X146.985473 Y98.329194 Z-0.125000
G01 X148.038643 Y94.867034 Z-0.125000
G01 X148.615393 Y90.862594 Z-0.125000
G01 X148.667893 Y86.551064 Z-0.125000
G01 X148.378753 Y83.394564 Z-0.125000
G01 X147.794503 Y80.199104 Z-0.125000
G01 X146.961533 Y77.211854 Z-0.125000
G01 X145.821483 Y74.184204 Z-0.125000
G01 X144.371313 Y71.116074 Z-0.125000
G01 X142.482213 Y67.751334 Z-0.125000
G01 X134.913723 Y56.209864 Z-0.125000
G01 X132.211163 Y51.540264 Z-0.125000
G01 X131.044103 Y48.988974 Z-0.125000
G01 X130.194663 Y46.479674 Z-0.125000
G01 X129.706293 Y44.016774 Z-0.125000
G01 X129.599923 Y41.843034 Z-0.125000
G01 X129.821693 Y39.712734 Z-0.125000
G01 X130.290543 Y37.853564 Z-0.125000
G01 X131.111513 Y35.801184 Z-0.125000
G01 X132.220143 Y33.786194 Z-0.125000
G01 X134.949693 Y30.061924 Z-0.125000
G01 X142.106193 Y21.874744 Z-0.125000
G01 X143.652213 Y19.675504 Z-0.125000
G01 X144.742863 Y17.659084 Z-0.125000
G01 X145.598293 Y15.130264 Z-0.125000
G01 X145.870883 Y12.766254 Z-0.125000
G01 X145.611743 Y10.093614 Z-0.125000
G01 X144.819223 Y7.350584 Z-0.125000
G00 Z3.000000

(End cutting path id: polyline21376)


(Start cutting path id: polyline21378)
(Change tool to Default tool)

G00 Z3.000000
G00 X140.763883 Y246.442586

G00 Z4.875000 (Fast pre-penetrate)
G01 Z-0.125000 F400.0(Penetrate)
G01 X136.455273 Y243.723547 Z-0.125000 F800.000000
G01 X135.157933 Y242.595473 Z-0.125000
G01 X134.635073 Y241.807473 Z-0.125000
G01 X142.062713 Y235.335668 Z-0.125000
G01 X142.723393 Y234.460726 Z-0.125000
G01 X142.928603 Y233.768627 Z-0.125000
G01 X142.823743 Y232.794858 Z-0.125000
G01 X142.345863 Y231.773150 Z-0.125000
G01 X138.275543 Y226.684058 Z-0.125000
G01 X137.595363 Y225.397156 Z-0.125000
G01 X137.280763 Y224.156729 Z-0.125000
G01 X137.282763 Y223.196443 Z-0.125000
G01 X137.549443 Y222.030941 Z-0.125000
G01 X139.901463 Y217.058702 Z-0.125000
G01 X140.382363 Y215.442237 Z-0.125000
G01 X140.610063 Y213.791335 Z-0.125000
G01 X140.533563 Y210.902957 Z-0.125000
G01 X139.708163 Y204.557031 Z-0.125000
G01 X139.395003 Y201.156313 Z-0.125000
G01 X139.176303 Y193.450064 Z-0.125000
G01 X139.430993 Y186.286054 Z-0.125000
G01 X140.485643 Y177.784314 Z-0.125000
G01 X140.638443 Y175.405324 Z-0.125000
G01 X140.508113 Y173.469734 Z-0.125000
G01 X140.139593 Y171.740944 Z-0.125000
G01 X139.525383 Y169.982184 Z-0.125000
G01 X137.658723 Y165.660124 Z-0.125000
G01 X137.332143 Y164.418184 Z-0.125000
G01 X137.255743 Y163.448944 Z-0.125000
G01 X137.447493 Y162.274434 Z-0.125000
G01 X137.982303 Y161.143344 Z-0.125000
G01 X139.030973 Y159.839994 Z-0.125000
G01 X142.212963 Y156.655044 Z-0.125000
G01 X142.816713 Y155.534444 Z-0.125000
G01 X142.936573 Y154.589144 Z-0.125000
G01 X142.557573 Y153.341224 Z-0.125000
G01 X141.598723 Y152.016894 Z-0.125000
G01 X140.171033 Y150.631114 Z-0.125000
G01 X136.478193 Y147.512024 Z-0.125000
G01 X135.167333 Y146.141264 Z-0.125000
G01 X134.527633 Y145.098584 Z-0.125000
G01 X134.341863 Y144.114344 Z-0.125000
G01 X134.524643 Y143.419214 Z-0.125000
G01 X134.800303 Y142.974294 Z-0.125000
G01 X135.431023 Y142.337584 Z-0.125000
G01 X136.295433 Y141.729324 Z-0.125000
G01 X138.142613 Y140.770554 Z-0.125000
G01 X142.819703 Y138.739124 Z-0.125000
G01 X144.905073 Y137.570604 Z-0.125000
G01 X145.658613 Y136.948894 Z-0.125000
G01 X146.175473 Y136.295704 Z-0.125000
G01 X146.379223 Y135.841774 Z-0.125000
G01 X146.469123 Y135.134684 Z-0.125000
G01 X146.298343 Y134.391604 Z-0.125000
G01 X145.880393 Y133.618594 Z-0.125000
G01 X144.066143 Y131.702524 Z-0.125000
G01 X141.826493 Y129.972214 Z-0.125000
G01 X135.507413 Y125.551294 Z-0.125000
G01 X132.505243 Y123.001504 Z-0.125000
G01 X131.543453 Y121.916894 Z-0.125000
G01 X130.706003 Y120.607534 Z-0.125000
G01 X130.326993 Y119.599354 Z-0.125000
G01 X130.199673 Y118.382874 Z-0.125000
G01 X130.350933 Y117.443564 Z-0.125000
G01 X130.703013 Y116.528194 Z-0.125000
G01 X131.380163 Y115.416644 Z-0.125000
G01 X132.270013 Y114.333474 Z-0.125000
G01 X133.540433 Y113.058604 Z-0.125000
G01 X137.444533 Y110.447374 Z-0.125000
G01 X140.394313 Y107.951564 Z-0.125000
G01 X143.113353 Y104.946274 Z-0.125000
G01 X145.213733 Y101.860204 Z-0.125000
G01 X146.985963 Y98.251274 Z-0.125000
G01 X148.160513 Y94.564424 Z-0.125000
G01 X148.767223 Y90.564474 Z-0.125000
G01 X148.815123 Y86.251454 Z-0.125000
G01 X148.531973 Y83.336134 Z-0.125000
G01 X147.923773 Y80.137654 Z-0.125000
G01 X147.141763 Y77.396114 Z-0.125000
G01 X145.994223 Y74.368494 Z-0.125000
G01 X144.538023 Y71.300324 Z-0.125000
G01 X142.801733 Y68.194784 Z-0.125000
G01 X135.308153 Y56.663794 Z-0.125000
G01 X132.780893 Y52.256384 Z-0.125000
G01 X131.621303 Y49.705114 Z-0.125000
G01 X130.845303 Y47.445944 Z-0.125000
G01 X130.328463 Y44.978554 Z-0.125000
G01 X130.196623 Y42.801804 Z-0.125000
G01 X130.391413 Y40.668524 Z-0.125000
G01 X130.912733 Y38.577174 Z-0.125000
G01 X131.744193 Y36.524754 Z-0.125000
G01 X132.858783 Y34.511294 Z-0.125000
G01 X135.413033 Y31.004234 Z-0.125000
G01 X142.710353 Y22.595324 Z-0.125000
G01 X144.247393 Y20.394594 Z-0.125000
G01 X145.432433 Y18.150444 Z-0.125000
G01 X146.238393 Y15.615644 Z-0.125000
G01 X146.467623 Y13.005964 Z-0.125000
G01 X146.124533 Y10.321314 Z-0.125000
G01 X145.168743 Y7.319144 Z-0.125000
G00 Z3.000000

(End cutting path id: polyline21378)


(Start cutting path id: polyline21382)
(Change tool to Default tool)

G00 Z3.000000
G00 X130.750463 Y246.154952

G00 Z4.875000 (Fast pre-penetrate)
G01 Z-0.125000 F400.0(Penetrate)
G01 X135.075523 Y242.319813 Z-0.125000 F800.000000
G01 X135.631323 Y241.432942 Z-0.125000
G01 X135.749673 Y240.727316 Z-0.125000
G01 X135.527953 Y239.738581 Z-0.125000
G01 X134.936193 Y238.701884 Z-0.125000
G01 X131.887543 Y235.187328 Z-0.125000
G01 X130.897303 Y233.858518 Z-0.125000
G01 X130.362483 Y232.829293 Z-0.125000
G01 X130.071853 Y231.591860 Z-0.125000
G01 X130.130253 Y230.639022 Z-0.125000
G01 X130.498793 Y229.488487 Z-0.125000
G01 X132.396883 Y226.135732 Z-0.125000
G01 X132.999113 Y224.773927 Z-0.125000
G01 X133.309203 Y223.614411 Z-0.125000
G01 X133.447063 Y222.192695 Z-0.125000
G01 X133.264283 Y220.009965 Z-0.125000
G01 X132.010383 Y213.129170 Z-0.125000
G01 X131.754183 Y208.296270 Z-0.125000
G01 X131.921993 Y196.801317 Z-0.125000
G01 X131.806603 Y182.630694 Z-0.125000
G01 X132.172153 Y179.078684 Z-0.125000
G01 X133.327193 Y173.469734 Z-0.125000
G01 X133.427543 Y171.324484 Z-0.125000
G01 X133.192373 Y169.853314 Z-0.125000
G01 X132.784893 Y168.600914 Z-0.125000
G01 X130.317523 Y163.481864 Z-0.125000
G01 X130.089773 Y162.491644 Z-0.125000
G01 X130.076373 Y161.771034 Z-0.125000
G01 X130.296623 Y160.839254 Z-0.125000
G01 X130.798463 Y159.944854 Z-0.125000
G01 X131.776723 Y158.872234 Z-0.125000
G01 X134.892803 Y156.159134 Z-0.125000
G01 X135.509993 Y155.278254 Z-0.125000
G01 X135.749713 Y154.350914 Z-0.125000
G01 X135.539993 Y153.363684 Z-0.125000
G01 X134.629133 Y152.045344 Z-0.125000
G01 X133.117533 Y150.649104 Z-0.125000
G01 X128.470393 Y146.926264 Z-0.125000
G01 X127.405253 Y145.586974 Z-0.125000
G01 X127.149053 Y144.593734 Z-0.125000
G01 X127.243453 Y144.126324 Z-0.125000
G01 X127.665933 Y143.462674 Z-0.125000
G01 X129.059183 Y142.443934 Z-0.125000
G01 X131.114553 Y141.510604 Z-0.125000
G01 X135.835103 Y139.724874 Z-0.125000
G01 X138.050853 Y138.574314 Z-0.125000
G01 X139.084533 Y137.509194 Z-0.125000
G01 X139.270293 Y136.572844 Z-0.125000
G01 X139.141493 Y136.075504 Z-0.125000
G01 X138.681553 Y135.296474 Z-0.125000
G01 X136.910773 Y133.626094 Z-0.125000
G01 X134.780443 Y132.150474 Z-0.125000
G01 X127.929603 Y127.900324 Z-0.125000
G01 X125.213543 Y125.867434 Z-0.125000
G01 X124.112403 Y124.764784 Z-0.125000
G01 X123.531153 Y123.969314 Z-0.125000
G01 X123.089233 Y122.952084 Z-0.125000
G01 X123.020333 Y121.984324 Z-0.125000
G01 X123.198623 Y121.286174 Z-0.125000
G01 X123.710963 Y120.393314 Z-0.125000
G01 X124.495943 Y119.536404 Z-0.125000
G01 X125.504203 Y118.707934 Z-0.125000
G01 X127.646513 Y117.305704 Z-0.125000
G01 X134.796953 Y113.197904 Z-0.125000
G01 X138.188743 Y110.759024 Z-0.125000
G01 X140.339973 Y108.639174 Z-0.125000
G01 X142.011883 Y106.216704 Z-0.125000
G01 X142.656083 Y104.860894 Z-0.125000
G01 X143.207333 Y103.253464 Z-0.125000
G01 X143.580383 Y101.621994 Z-0.125000
G01 X143.860523 Y99.499194 Z-0.125000
G01 X144.032803 Y95.202634 Z-0.125000
G01 X143.990903 Y83.920384 Z-0.125000
G01 X143.731723 Y80.047774 Z-0.125000
G01 X143.228373 Y76.862824 Z-0.125000
G01 X142.455353 Y73.883044 Z-0.125000
G01 X141.244873 Y70.606724 Z-0.125000
G01 X139.658373 Y67.280924 Z-0.125000
G01 X137.908593 Y64.175294 Z-0.125000
G01 X129.262973 Y50.813714 Z-0.125000
G01 X126.033063 Y45.114924 Z-0.125000
G01 X124.659283 Y42.057244 Z-0.125000
G01 X123.655573 Y39.047574 Z-0.125000
G01 X123.125233 Y36.338984 Z-0.125000
G01 X123.009883 Y33.925554 Z-0.125000
G01 X123.189673 Y32.028954 Z-0.125000
G01 X123.619583 Y30.165274 Z-0.125000
G01 X124.304213 Y28.334614 Z-0.125000
G01 X125.367903 Y26.313684 Z-0.125000
G01 X126.555883 Y24.548904 Z-0.125000
G01 X128.125923 Y22.593844 Z-0.125000
G01 X134.614193 Y15.759474 Z-0.125000
G01 X136.761053 Y13.158734 Z-0.125000
G01 X137.769253 Y11.609704 Z-0.125000
G01 X138.449383 Y10.258434 Z-0.125000
G01 X138.936273 Y8.883144 Z-0.125000
G01 X139.213413 Y7.479454 Z-0.125000
G00 Z3.000000

(End cutting path id: polyline21382)


(Start cutting path id: polyline21380)
(Change tool to Default tool)

G00 Z3.000000
G00 X130.750463 Y246.154952

G00 Z4.875000 (Fast pre-penetrate)
G01 Z-0.125000 F400.0(Penetrate)
G01 X134.566133 Y242.811176 Z-0.125000 F800.000000
G01 X134.985643 Y242.146017 Z-0.125000
G01 X135.145953 Y241.206706 Z-0.125000
G01 X134.876283 Y240.211984 Z-0.125000
G01 X134.245553 Y239.170786 Z-0.125000
G01 X130.380433 Y234.589599 Z-0.125000
G01 X129.713773 Y233.302697 Z-0.125000
G01 X129.483103 Y232.312475 Z-0.125000
G01 X129.513003 Y231.356644 Z-0.125000
G01 X129.766203 Y230.430792 Z-0.125000
G01 X132.197653 Y225.946969 Z-0.125000
G01 X132.651543 Y224.567204 Z-0.125000
G01 X132.838793 Y223.151475 Z-0.125000
G01 X132.703983 Y220.974731 Z-0.125000
G01 X131.598373 Y215.311923 Z-0.125000
G01 X131.213373 Y211.663993 Z-0.125000
G01 X131.156473 Y208.537496 Z-0.125000
G01 X131.366213 Y196.086734 Z-0.125000
G01 X131.154983 Y184.302544 Z-0.125000
G01 X131.447103 Y179.541574 Z-0.125000
G01 X132.654553 Y173.700474 Z-0.125000
G01 X132.847823 Y171.806864 Z-0.125000
G01 X132.733963 Y170.352224 Z-0.125000
G01 X132.425363 Y169.111794 Z-0.125000
G01 X131.805133 Y167.591204 Z-0.125000
G01 X129.845623 Y163.738064 Z-0.125000
G01 X129.544503 Y162.738864 Z-0.125000
G01 X129.471103 Y161.769544 Z-0.125000
G01 X129.766233 Y160.608524 Z-0.125000
G01 X130.503323 Y159.504444 Z-0.125000
G01 X133.845603 Y156.580124 Z-0.125000
G01 X134.626083 Y155.721724 Z-0.125000
G01 X135.078523 Y154.821314 Z-0.125000
G01 X135.142923 Y154.109754 Z-0.125000
G01 X134.819303 Y153.107494 Z-0.125000
G01 X133.769123 Y151.771194 Z-0.125000
G01 X132.507743 Y150.647594 Z-0.125000
G01 X128.781963 Y147.763714 Z-0.125000
G01 X127.568473 Y146.646134 Z-0.125000
G01 X126.784973 Y145.585464 Z-0.125000
G01 X126.551243 Y144.595244 Z-0.125000
G01 X126.660603 Y144.129314 Z-0.125000
G01 X127.108553 Y143.467164 Z-0.125000
G01 X128.548233 Y142.454424 Z-0.125000
G01 X130.188653 Y141.708344 Z-0.125000
G01 X135.390093 Y139.745864 Z-0.125000
G01 X137.270263 Y138.790084 Z-0.125000
G01 X138.411813 Y137.738374 Z-0.125000
G01 X138.679983 Y136.814074 Z-0.125000
G01 X138.488233 Y136.069514 Z-0.125000
G01 X138.178083 Y135.549634 Z-0.125000
G01 X136.473243 Y133.888264 Z-0.125000
G01 X133.887463 Y132.111484 Z-0.125000
G01 X127.438113 Y128.155014 Z-0.125000
G01 X124.350533 Y125.832944 Z-0.125000
G01 X123.538543 Y125.007474 Z-0.125000
G01 X122.794023 Y123.951314 Z-0.125000
G01 X122.491383 Y123.191754 Z-0.125000
G01 X122.422483 Y122.223994 Z-0.125000
G01 X122.606763 Y121.527394 Z-0.125000
G01 X123.135553 Y120.637494 Z-0.125000
G01 X123.944553 Y119.782074 Z-0.125000
G01 X124.981253 Y118.956654 Z-0.125000
G01 X127.180473 Y117.563384 Z-0.125000
G01 X134.149633 Y113.671304 Z-0.125000
G01 X137.632793 Y111.244404 Z-0.125000
G01 X140.014773 Y108.914834 Z-0.125000
G01 X141.643213 Y106.487914 Z-0.125000
G01 X142.255933 Y105.127564 Z-0.125000
G01 X142.768313 Y103.514094 Z-0.125000
G01 X143.138343 Y101.642994 Z-0.125000
G01 X143.336083 Y99.749374 Z-0.125000
G01 X143.437953 Y96.402584 Z-0.125000
G01 X143.388553 Y82.720374 Z-0.125000
G01 X143.133893 Y79.328704 Z-0.125000
G01 X142.599043 Y76.139214 Z-0.125000
G01 X141.781063 Y73.153514 Z-0.125000
G01 X140.629023 Y70.124344 Z-0.125000
G01 X139.291233 Y67.310864 Z-0.125000
G01 X137.571423 Y64.208284 Z-0.125000
G01 X128.680133 Y50.335804 Z-0.125000
G01 X125.355823 Y44.385324 Z-0.125000
G01 X124.011983 Y41.332194 Z-0.125000
G01 X123.032243 Y38.325474 Z-0.125000
G01 X122.516923 Y35.618414 Z-0.125000
G01 X122.412063 Y33.206434 Z-0.125000
G01 X122.639733 Y31.076164 Z-0.125000
G01 X123.108663 Y29.216984 Z-0.125000
G01 X123.940123 Y27.166094 Z-0.125000
G01 X124.940833 Y25.375864 Z-0.125000
G01 X126.002973 Y23.834324 Z-0.125000
G01 X127.587983 Y21.882204 Z-0.125000
G01 X133.927983 Y15.268094 Z-0.125000
G01 X135.942933 Y12.890614 Z-0.125000
G01 X137.002133 Y11.349034 Z-0.125000
G01 X137.725723 Y10.003744 Z-0.125000
G01 X138.184153 Y8.862184 Z-0.125000
G01 X138.540653 Y7.468924 Z-0.125000
G00 Z3.000000

(End cutting path id: polyline21380)


(Start cutting path id: polyline21386)
(Change tool to Default tool)

G00 Z3.000000
G00 X130.750463 Y246.310765

G00 Z4.875000 (Fast pre-penetrate)
G01 Z-0.125000 F400.0(Penetrate)
G01 X133.360193 Y244.009672 Z-0.125000 F800.000000
G01 X133.781153 Y243.344514 Z-0.125000
G01 X133.948943 Y242.406711 Z-0.125000
G01 X133.685283 Y241.413474 Z-0.125000
G01 X133.060583 Y240.372298 Z-0.125000
G01 X129.989433 Y236.853240 Z-0.125000
G01 X129.020163 Y235.527424 Z-0.125000
G01 X128.515323 Y234.502701 Z-0.125000
G01 X128.283093 Y233.512435 Z-0.125000
G01 X128.316093 Y232.556649 Z-0.125000
G01 X128.576723 Y231.630842 Z-0.125000
G01 X131.032113 Y227.151430 Z-0.125000
G01 X131.421613 Y226.002380 Z-0.125000
G01 X131.635873 Y224.591196 Z-0.125000
G01 X131.513013 Y222.415938 Z-0.125000
G01 X130.334023 Y216.504388 Z-0.125000
G01 X129.996923 Y213.100722 Z-0.125000
G01 X130.257593 Y196.579605 Z-0.125000
G01 X129.956503 Y183.104094 Z-0.125000
G01 X130.221673 Y179.059174 Z-0.125000
G01 X131.468093 Y173.222574 Z-0.125000
G01 X131.649353 Y171.325984 Z-0.125000
G01 X131.504033 Y169.868324 Z-0.125000
G01 X131.154993 Y168.623374 Z-0.125000
G01 X128.725053 Y163.748544 Z-0.125000
G01 X128.383453 Y162.743334 Z-0.125000
G01 X128.266613 Y161.769544 Z-0.125000
G01 X128.428413 Y160.830214 Z-0.125000
G01 X129.047123 Y159.711164 Z-0.125000
G01 X129.839653 Y158.854254 Z-0.125000
G01 X133.223853 Y155.935944 Z-0.125000
G01 X133.791623 Y155.049074 Z-0.125000
G01 X133.945953 Y154.109754 Z-0.125000
G01 X133.623883 Y153.107494 Z-0.125000
G01 X132.558693 Y151.769684 Z-0.125000
G01 X127.507073 Y147.753224 Z-0.125000
G01 X126.301103 Y146.637124 Z-0.125000
G01 X125.546093 Y145.579484 Z-0.125000
G01 X125.361813 Y144.595244 Z-0.125000
G01 X125.800733 Y143.693364 Z-0.125000
G01 X127.173023 Y142.671634 Z-0.125000
G01 X129.249413 Y141.742854 Z-0.125000
G01 X134.067273 Y139.969064 Z-0.125000
G01 X136.005863 Y139.020774 Z-0.125000
G01 X137.193883 Y137.976584 Z-0.125000
G01 X137.481523 Y137.053744 Z-0.125000
G01 X137.292763 Y136.309184 Z-0.125000
G01 X136.978163 Y135.789354 Z-0.125000
G01 X136.244043 Y134.972884 Z-0.125000
G01 X135.231293 Y134.121954 Z-0.125000
G01 X133.066573 Y132.640344 Z-0.125000
G01 X126.020983 Y128.366244 Z-0.125000
G01 X123.262983 Y126.327304 Z-0.125000
G01 X122.173833 Y125.226214 Z-0.125000
G01 X121.622533 Y124.435194 Z-0.125000
G01 X121.300433 Y123.672654 Z-0.125000
G01 X121.206033 Y122.941624 Z-0.125000
G01 X121.328853 Y122.237484 Z-0.125000
G01 X121.802253 Y121.338634 Z-0.125000
G01 X122.584263 Y120.481724 Z-0.125000
G01 X123.619453 Y119.656254 Z-0.125000
G01 X126.220203 Y118.074234 Z-0.125000
G01 X133.111463 Y114.411394 Z-0.125000
G01 X136.714453 Y112.000954 Z-0.125000
G01 X138.142153 Y110.747004 Z-0.125000
G01 X139.135413 Y109.675874 Z-0.125000
G01 X139.957843 Y108.583764 Z-0.125000
G01 X140.738353 Y107.244464 Z-0.125000
G01 X141.318163 Y105.881104 Z-0.125000
G01 X141.779543 Y104.261674 Z-0.125000
G01 X142.196033 Y100.956834 Z-0.125000
G01 X142.187033 Y81.041034 Z-0.125000
G01 X141.936843 Y78.128704 Z-0.125000
G01 X141.404993 Y75.180434 Z-0.125000
G01 X140.627483 Y72.440404 Z-0.125000
G01 X139.565323 Y69.662914 Z-0.125000
G01 X138.366833 Y67.107134 Z-0.125000
G01 X136.531663 Y63.749844 Z-0.125000
G01 X127.800653 Y49.898354 Z-0.125000
G01 X124.365503 Y43.693204 Z-0.125000
G01 X122.907873 Y40.383884 Z-0.125000
G01 X121.911593 Y37.375684 Z-0.125000
G01 X121.360313 Y34.664134 Z-0.125000
G01 X121.210493 Y32.004984 Z-0.125000
G01 X121.421713 Y29.873164 Z-0.125000
G01 X121.875653 Y28.012524 Z-0.125000
G01 X122.693653 Y25.960104 Z-0.125000
G01 X123.830663 Y23.948154 Z-0.125000
G01 X125.086103 Y22.192314 Z-0.125000
G01 X126.732513 Y20.246294 Z-0.125000
G01 X132.576633 Y14.288324 Z-0.125000
G01 X134.476233 Y12.135564 Z-0.125000
G01 X136.142103 Y9.713094 Z-0.125000
G01 X137.115923 Y7.440474 Z-0.125000
G00 Z3.000000

(End cutting path id: polyline21386)


(Start cutting path id: polyline21384)
(Change tool to Default tool)

G00 Z3.000000
G00 X130.750463 Y246.310765

G00 Z4.875000 (Fast pre-penetrate)
G01 Z-0.125000 F400.0(Penetrate)
G01 X133.869543 Y243.518309 Z-0.125000 F800.000000
G01 X134.330973 Y242.859137 Z-0.125000
G01 X134.551173 Y241.927321 Z-0.125000
G01 X134.335443 Y240.940071 Z-0.125000
G01 X133.748203 Y239.903374 Z-0.125000
G01 X130.695083 Y236.387332 Z-0.125000
G01 X129.698803 Y235.058501 Z-0.125000
G01 X129.069633 Y233.776099 Z-0.125000
G01 X128.873373 Y232.791865 Z-0.125000
G01 X128.936373 Y231.840558 Z-0.125000
G01 X129.315373 Y230.689978 Z-0.125000
G01 X131.117613 Y227.564920 Z-0.125000
G01 X131.752813 Y226.207662 Z-0.125000
G01 X132.089863 Y225.051073 Z-0.125000
G01 X132.238193 Y223.872090 Z-0.125000
G01 X132.142293 Y221.939542 Z-0.125000
G01 X130.945283 Y215.785327 Z-0.125000
G01 X130.593253 Y212.140390 Z-0.125000
G01 X130.813483 Y196.813290 Z-0.125000
G01 X130.555783 Y183.583484 Z-0.125000
G01 X130.832953 Y179.300394 Z-0.125000
G01 X132.059893 Y173.460754 Z-0.125000
G01 X132.248653 Y171.567144 Z-0.125000
G01 X132.121343 Y170.109504 Z-0.125000
G01 X131.793213 Y168.867574 Z-0.125000
G01 X131.147563 Y167.344014 Z-0.125000
G01 X129.285403 Y163.742564 Z-0.125000
G01 X128.963333 Y162.741854 Z-0.125000
G01 X128.867433 Y161.769544 Z-0.125000
G01 X129.138543 Y160.605524 Z-0.125000
G01 X129.682373 Y159.715664 Z-0.125000
G01 X130.480853 Y158.860244 Z-0.125000
G01 X133.839623 Y155.937424 Z-0.125000
G01 X134.396933 Y155.050574 Z-0.125000
G01 X134.545233 Y154.109754 Z-0.125000
G01 X134.221653 Y153.107494 Z-0.125000
G01 X133.165493 Y151.771194 Z-0.125000
G01 X131.534053 Y150.358484 Z-0.125000
G01 X128.145333 Y147.759214 Z-0.125000
G01 X126.936343 Y146.641624 Z-0.125000
G01 X126.164823 Y145.582464 Z-0.125000
G01 X125.956593 Y144.595244 Z-0.125000
G01 X126.080923 Y144.132324 Z-0.125000
G01 X126.555823 Y143.473154 Z-0.125000
G01 X128.041953 Y142.466394 Z-0.125000
G01 X134.946703 Y139.765334 Z-0.125000
G01 X136.792433 Y138.806554 Z-0.125000
G01 X137.545983 Y138.183334 Z-0.125000
G01 X137.871073 Y137.745894 Z-0.125000
G01 X138.073313 Y136.812564 Z-0.125000
G01 X137.944483 Y136.316664 Z-0.125000
G01 X137.477063 Y135.536154 Z-0.125000
G01 X135.661333 Y133.859824 Z-0.125000
G01 X132.988703 Y132.072554 Z-0.125000
G01 X126.957303 Y128.409674 Z-0.125000
G01 X124.125933 Y126.361784 Z-0.125000
G01 X122.970853 Y125.251664 Z-0.125000
G01 X122.359633 Y124.453204 Z-0.125000
G01 X121.895223 Y123.432984 Z-0.125000
G01 X121.805323 Y122.701904 Z-0.125000
G01 X121.926663 Y121.997804 Z-0.125000
G01 X122.391083 Y121.097404 Z-0.125000
G01 X123.153623 Y120.237504 Z-0.125000
G01 X124.166353 Y119.409084 Z-0.125000
G01 X126.361083 Y118.014324 Z-0.125000
G01 X133.805143 Y113.943974 Z-0.125000
G01 X137.309283 Y111.520064 Z-0.125000
G01 X139.673283 Y109.187484 Z-0.125000
G01 X141.255313 Y106.754544 Z-0.125000
G01 X142.253033 Y104.005484 Z-0.125000
G01 X142.763903 Y100.472944 Z-0.125000
G01 X142.786403 Y81.760094 Z-0.125000
G01 X142.524223 Y78.606594 Z-0.125000
G01 X142.007383 Y75.661314 Z-0.125000
G01 X141.169943 Y72.672614 Z-0.125000
G01 X140.104793 Y69.895084 Z-0.125000
G01 X138.771483 Y67.081674 Z-0.125000
G01 X136.907823 Y63.719854 Z-0.125000
G01 X128.247243 Y50.118554 Z-0.125000
G01 X125.053263 Y44.424254 Z-0.125000
G01 X123.561163 Y41.110484 Z-0.125000
G01 X122.609883 Y38.347944 Z-0.125000
G01 X122.006123 Y35.630384 Z-0.125000
G01 X121.808363 Y32.725554 Z-0.125000
G01 X122.009123 Y30.592264 Z-0.125000
G01 X122.528973 Y28.499404 Z-0.125000
G01 X123.261563 Y26.676224 Z-0.125000
G01 X124.382123 Y24.662734 Z-0.125000
G01 X125.622543 Y22.903944 Z-0.125000
G01 X127.250983 Y20.956374 Z-0.125000
G01 X133.047143 Y14.990954 Z-0.125000
G01 X135.123523 Y12.622444 Z-0.125000
G01 X136.882373 Y9.970794 Z-0.125000
G01 X137.405203 Y8.839734 Z-0.125000
G01 X137.841153 Y7.456944 Z-0.125000
G00 Z3.000000

(End cutting path id: polyline21384)


(Start cutting path id: polyline21390)
(Change tool to Default tool)

G00 Z3.000000
G00 X130.750463 Y246.466578

G00 Z4.875000 (Fast pre-penetrate)
G01 Z-0.125000 F400.0(Penetrate)
G01 X131.954973 Y245.422409 Z-0.125000 F800.000000
G01 X132.461303 Y244.769224 Z-0.125000
G01 X132.719003 Y244.083089 Z-0.125000
G01 X132.675503 Y243.116792 Z-0.125000
G01 X132.372853 Y242.357241 Z-0.125000
G01 X131.683723 Y241.308571 Z-0.125000
G01 X128.002873 Y236.991048 Z-0.125000
G01 X127.322743 Y235.702661 Z-0.125000
G01 X127.069593 Y234.469706 Z-0.125000
G01 X127.163993 Y233.522900 Z-0.125000
G01 X127.474093 Y232.603103 Z-0.125000
G01 X129.417103 Y229.256310 Z-0.125000
G01 X130.032863 Y227.897476 Z-0.125000
G01 X130.338453 Y226.737962 Z-0.125000
G01 X130.450803 Y225.311766 Z-0.125000
G01 X130.206633 Y223.121540 Z-0.125000
G01 X129.047073 Y217.451194 Z-0.125000
G01 X128.757933 Y213.094735 Z-0.125000
G01 X129.144433 Y198.029770 Z-0.125000
G01 X128.780433 Y181.186514 Z-0.125000
G01 X129.118983 Y177.871204 Z-0.125000
G01 X130.329473 Y172.510954 Z-0.125000
G01 X130.437323 Y170.605374 Z-0.125000
G01 X129.957933 Y168.383704 Z-0.125000
G01 X127.487573 Y163.502894 Z-0.125000
G01 X127.159493 Y162.500624 Z-0.125000
G01 X127.072593 Y161.529874 Z-0.125000
G01 X127.276353 Y160.596524 Z-0.125000
G01 X127.787173 Y159.703694 Z-0.125000
G01 X128.801413 Y158.635514 Z-0.125000
G01 X132.002883 Y155.932944 Z-0.125000
G01 X132.585623 Y155.049074 Z-0.125000
G01 X132.747393 Y154.109754 Z-0.125000
G01 X132.420823 Y153.107494 Z-0.125000
G01 X131.333173 Y151.766694 Z-0.125000
G01 X126.217193 Y147.742764 Z-0.125000
G01 X125.023173 Y146.626664 Z-0.125000
G01 X124.305573 Y145.573494 Z-0.125000
G01 X124.151293 Y144.834914 Z-0.125000
G01 X124.248693 Y144.367494 Z-0.125000
G01 X124.693643 Y143.705334 Z-0.125000
G01 X126.166273 Y142.697134 Z-0.125000
G01 X127.859133 Y141.957064 Z-0.125000
G01 X132.742933 Y140.192284 Z-0.125000
G01 X134.738413 Y139.252954 Z-0.125000
G01 X135.974363 Y138.213264 Z-0.125000
G01 X136.284503 Y137.293464 Z-0.125000
G01 X136.199103 Y136.803584 Z-0.125000
G01 X135.779603 Y136.029024 Z-0.125000
G01 X135.032043 Y135.211094 Z-0.125000
G01 X133.998383 Y134.357174 Z-0.125000
G01 X131.782663 Y132.869524 Z-0.125000
G01 X125.090633 Y128.880084 Z-0.125000
G01 X122.205243 Y126.826204 Z-0.125000
G01 X121.303403 Y125.988754 Z-0.125000
G01 X120.464473 Y124.920624 Z-0.125000
G01 X120.116883 Y124.155034 Z-0.125000
G01 X120.007523 Y123.421014 Z-0.125000
G01 X120.127423 Y122.716864 Z-0.125000
G01 X120.612793 Y121.819504 Z-0.125000
G01 X121.424743 Y120.965594 Z-0.125000
G01 X122.504923 Y120.146124 Z-0.125000
G01 X124.850913 Y118.772364 Z-0.125000
G01 X132.345933 Y114.947724 Z-0.125000
G01 X134.299503 Y113.762704 Z-0.125000
G01 X135.993863 Y112.543234 Z-0.125000
G01 X138.196103 Y110.429424 Z-0.125000
G01 X139.017033 Y109.337304 Z-0.125000
G01 X139.778093 Y107.996484 Z-0.125000
G01 X140.642483 Y105.469154 Z-0.125000
G01 X141.018523 Y102.398044 Z-0.125000
G01 X140.739863 Y92.285794 Z-0.125000
G01 X141.027503 Y83.204314 Z-0.125000
G01 X140.988503 Y79.841024 Z-0.125000
G01 X140.769773 Y77.412634 Z-0.125000
G01 X140.281403 Y74.710024 Z-0.125000
G01 X139.589263 Y72.220164 Z-0.125000
G01 X138.551053 Y69.447184 Z-0.125000
G01 X137.244763 Y66.636724 Z-0.125000
G01 X135.422963 Y63.280944 Z-0.125000
G01 X126.870293 Y49.453394 Z-0.125000
G01 X123.351233 Y42.996564 Z-0.125000
G01 X121.791733 Y39.435594 Z-0.125000
G01 X120.787963 Y36.425884 Z-0.125000
G01 X120.169283 Y33.465614 Z-0.125000
G01 X120.010473 Y30.806484 Z-0.125000
G01 X120.208213 Y28.671694 Z-0.125000
G01 X120.725083 Y26.580344 Z-0.125000
G01 X121.571503 Y24.530914 Z-0.125000
G01 X122.743013 Y22.523424 Z-0.125000
G01 X124.034403 Y20.772094 Z-0.125000
G01 X125.526493 Y19.046294 Z-0.125000
G01 X131.253783 Y13.313064 Z-0.125000
G01 X133.024503 Y11.383504 Z-0.125000
G01 X134.509153 Y9.416484 Z-0.125000
G01 X135.590773 Y7.398544 Z-0.125000
G00 Z3.000000

(End cutting path id: polyline21390)


(Start cutting path id: polyline21388)
(Change tool to Default tool)

G00 Z3.000000
G00 X130.750463 Y246.466578

G00 Z4.875000 (Fast pre-penetrate)
G01 Z-0.125000 F400.0(Penetrate)
G01 X132.452323 Y244.929538 Z-0.125000 F800.000000
G01 X132.997653 Y244.280854 Z-0.125000
G01 X133.339243 Y243.365490 Z-0.125000
G01 X133.300243 Y242.640396 Z-0.125000
G01 X133.030573 Y241.885391 Z-0.125000
G01 X132.372903 Y240.839714 Z-0.125000
G01 X129.511533 Y237.588777 Z-0.125000
G01 X128.507833 Y236.258460 Z-0.125000
G01 X127.874113 Y234.976104 Z-0.125000
G01 X127.667373 Y233.750644 Z-0.125000
G01 X127.791703 Y232.806832 Z-0.125000
G01 X128.122813 Y231.889983 Z-0.125000
G01 X130.491313 Y227.639844 Z-0.125000
G01 X130.859813 Y226.487756 Z-0.125000
G01 X131.032103 Y225.310258 Z-0.125000
G01 X130.919743 Y223.136508 Z-0.125000
G01 X129.766213 Y217.467714 Z-0.125000
G01 X129.391683 Y213.819783 Z-0.125000
G01 X129.701783 Y196.823779 Z-0.125000
G01 X129.357253 Y182.862874 Z-0.125000
G01 X129.580453 Y179.053184 Z-0.125000
G01 X130.877813 Y172.984364 Z-0.125000
G01 X131.041083 Y170.845094 Z-0.125000
G01 X130.883823 Y169.625614 Z-0.125000
G01 X130.510783 Y168.377694 Z-0.125000
G01 X128.161743 Y163.753024 Z-0.125000
G01 X127.802183 Y162.746334 Z-0.125000
G01 X127.667373 Y161.769544 Z-0.125000
G01 X127.811163 Y160.828724 Z-0.125000
G01 X128.414943 Y159.706684 Z-0.125000
G01 X129.435123 Y158.639984 Z-0.125000
G01 X132.612623 Y155.932944 Z-0.125000
G01 X133.187883 Y155.049074 Z-0.125000
G01 X133.346723 Y154.109754 Z-0.125000
G01 X133.023103 Y153.107494 Z-0.125000
G01 X132.218623 Y152.043854 Z-0.125000
G01 X131.005163 Y150.926244 Z-0.125000
G01 X127.214943 Y148.033384 Z-0.125000
G01 X125.926603 Y146.906804 Z-0.125000
G01 X125.059153 Y145.834164 Z-0.125000
G01 X124.750543 Y144.834914 Z-0.125000
G01 X124.830043 Y144.364514 Z-0.125000
G01 X125.244993 Y143.699354 Z-0.125000
G01 X126.666693 Y142.683624 Z-0.125000
G01 X128.788043 Y141.759324 Z-0.125000
G01 X133.626933 Y139.990044 Z-0.125000
G01 X135.532523 Y139.037254 Z-0.125000
G01 X136.314533 Y138.420054 Z-0.125000
G01 X136.656113 Y137.984074 Z-0.125000
G01 X136.876363 Y137.053744 Z-0.125000
G01 X136.750483 Y136.556374 Z-0.125000
G01 X136.277033 Y135.775874 Z-0.125000
G01 X134.419413 Y134.094984 Z-0.125000
G01 X132.179713 Y132.602874 Z-0.125000
G01 X125.550643 Y128.622424 Z-0.125000
G01 X122.729683 Y126.575994 Z-0.125000
G01 X121.853303 Y125.743054 Z-0.125000
G01 X121.041313 Y124.677914 Z-0.125000
G01 X120.707263 Y123.913884 Z-0.125000
G01 X120.606893 Y123.181294 Z-0.125000
G01 X120.728223 Y122.477194 Z-0.125000
G01 X121.209123 Y121.579794 Z-0.125000
G01 X122.007593 Y120.724384 Z-0.125000
G01 X123.066743 Y119.901954 Z-0.125000
G01 X125.363383 Y118.520674 Z-0.125000
G01 X132.735543 Y114.681064 Z-0.125000
G01 X136.360943 Y112.272074 Z-0.125000
G01 X137.782673 Y111.018164 Z-0.125000
G01 X138.762483 Y109.945524 Z-0.125000
G01 X139.566953 Y108.850394 Z-0.125000
G01 X140.318983 Y107.508084 Z-0.125000
G01 X141.189383 Y104.982264 Z-0.125000
G01 X141.608883 Y101.677454 Z-0.125000
G01 X141.435083 Y92.058094 Z-0.125000
G01 X141.632853 Y83.685194 Z-0.125000
G01 X141.584853 Y80.320434 Z-0.125000
G01 X141.340683 Y77.649314 Z-0.125000
G01 X140.847813 Y74.945244 Z-0.125000
G01 X140.073253 Y72.205204 Z-0.125000
G01 X139.011093 Y69.427734 Z-0.125000
G01 X137.682283 Y66.615764 Z-0.125000
G01 X135.984883 Y63.516124 Z-0.125000
G01 X127.498113 Y49.935774 Z-0.125000
G01 X123.923623 Y43.472954 Z-0.125000
G01 X122.352123 Y39.910484 Z-0.125000
G01 X121.349893 Y36.900764 Z-0.125000
G01 X120.782093 Y34.187744 Z-0.125000
G01 X120.608363 Y31.525594 Z-0.125000
G01 X120.795623 Y29.390774 Z-0.125000
G01 X121.300463 Y27.296414 Z-0.125000
G01 X122.131913 Y25.245544 Z-0.125000
G01 X123.283963 Y23.235034 Z-0.125000
G01 X124.555833 Y21.480744 Z-0.125000
G01 X126.028503 Y19.753424 Z-0.125000
G01 X131.911553 Y13.799944 Z-0.125000
G01 X133.838123 Y11.650144 Z-0.125000
G01 X135.397623 Y9.453914 Z-0.125000
G01 X136.366893 Y7.421004 Z-0.125000
G00 Z3.000000

(End cutting path id: polyline21388)


(Start cutting path id: polyline21394)
(Change tool to Default tool)

G00 Z3.000000
G00 X130.741493 Y246.620861

G00 Z4.875000 (Fast pre-penetrate)
G01 Z-0.125000 F400.0(Penetrate)
G01 X131.252363 Y245.967675 Z-0.125000 F800.000000
G01 X131.517493 Y245.281563 Z-0.125000
G01 X131.532593 Y244.563986 Z-0.125000
G01 X131.312343 Y243.814923 Z-0.125000
G01 X130.301143 Y242.244888 Z-0.125000
G01 X126.827013 Y238.194046 Z-0.125000
G01 X126.134913 Y236.904150 Z-0.125000
G01 X125.872733 Y235.669711 Z-0.125000
G01 X125.961133 Y234.721419 Z-0.125000
G01 X126.269723 Y233.801554 Z-0.125000
G01 X128.229273 Y230.457755 Z-0.125000
G01 X128.761063 Y229.328174 Z-0.125000
G01 X129.234473 Y227.229325 Z-0.125000
G01 X129.114643 Y225.054089 Z-0.125000
G01 X127.919183 Y219.380771 Z-0.125000
G01 X127.582083 Y215.977083 Z-0.125000
G01 X128.019543 Y198.038750 Z-0.125000
G01 X127.932643 Y191.548964 Z-0.125000
G01 X127.559613 Y181.662914 Z-0.125000
G01 X127.839763 Y177.860724 Z-0.125000
G01 X129.035243 Y172.737194 Z-0.125000
G01 X129.252493 Y170.846574 Z-0.125000
G01 X129.156593 Y169.634594 Z-0.125000
G01 X128.837463 Y168.392684 Z-0.125000
G01 X128.170803 Y166.867624 Z-0.125000
G01 X126.346133 Y163.510364 Z-0.125000
G01 X125.988043 Y162.503624 Z-0.125000
G01 X125.869713 Y161.529874 Z-0.125000
G01 X126.048003 Y160.592044 Z-0.125000
G01 X126.540873 Y159.697684 Z-0.125000
G01 X127.550613 Y158.628014 Z-0.125000
G01 X130.794003 Y155.931444 Z-0.125000
G01 X131.387233 Y155.049074 Z-0.125000
G01 X131.549053 Y154.109754 Z-0.125000
G01 X131.208963 Y153.106004 Z-0.125000
G01 X130.092853 Y151.760704 Z-0.125000
G01 X125.263003 Y148.013924 Z-0.125000
G01 X123.739443 Y146.616174 Z-0.125000
G01 X123.065233 Y145.568994 Z-0.125000
G01 X122.960373 Y144.834914 Z-0.125000
G01 X123.394843 Y143.931564 Z-0.125000
G01 X124.801573 Y142.915854 Z-0.125000
G01 X126.474933 Y142.172774 Z-0.125000
G01 X131.874123 Y140.235744 Z-0.125000
G01 X133.796173 Y139.285954 Z-0.125000
G01 X134.570743 Y138.667194 Z-0.125000
G01 X134.897313 Y138.229784 Z-0.125000
G01 X135.066613 Y137.291954 Z-0.125000
G01 X134.904783 Y136.790054 Z-0.125000
G01 X134.366963 Y136.000574 Z-0.125000
G01 X132.768513 Y134.593844 Z-0.125000
G01 X130.504863 Y133.098784 Z-0.125000
G01 X123.706443 Y129.095794 Z-0.125000
G01 X120.831593 Y127.043414 Z-0.125000
G01 X119.321493 Y125.407504 Z-0.125000
G01 X118.869043 Y124.388774 Z-0.125000
G01 X118.819643 Y123.662164 Z-0.125000
G01 X119.005413 Y122.967074 Z-0.125000
G01 X119.586663 Y122.083194 Z-0.125000
G01 X121.361933 Y120.632994 Z-0.125000
G01 X123.796333 Y119.271224 Z-0.125000
G01 X131.177523 Y115.671284 Z-0.125000
G01 X134.684583 Y113.488534 Z-0.125000
G01 X135.956473 Y112.453344 Z-0.125000
G01 X137.205923 Y111.176974 Z-0.125000
G01 X138.026893 Y110.083334 Z-0.125000
G01 X138.772973 Y108.741044 Z-0.125000
G01 X139.526513 Y106.439944 Z-0.125000
G01 X139.827623 Y103.839224 Z-0.125000
G01 X139.814123 Y101.677454 Z-0.125000
G01 X139.304753 Y92.733744 Z-0.125000
G01 X139.370653 Y89.623684 Z-0.125000
G01 X139.820093 Y82.243984 Z-0.125000
G01 X139.788593 Y78.880764 Z-0.125000
G01 X139.466523 Y75.959434 Z-0.125000
G01 X138.874783 Y73.243384 Z-0.125000
G01 X137.984883 Y70.488384 Z-0.125000
G01 X136.570693 Y67.185054 Z-0.125000
G01 X133.652343 Y61.767854 Z-0.125000
G01 X125.006763 Y47.447434 Z-0.125000
G01 X122.816543 Y43.323174 Z-0.125000
G01 X121.280983 Y40.004874 Z-0.125000
G01 X120.208323 Y37.225904 Z-0.125000
G01 X119.399363 Y34.481354 Z-0.125000
G01 X118.945433 Y32.022944 Z-0.125000
G01 X118.810623 Y29.606484 Z-0.125000
G01 X118.999383 Y27.471714 Z-0.125000
G01 X119.508713 Y25.377344 Z-0.125000
G01 X120.467513 Y23.103234 Z-0.125000
G01 X121.679483 Y21.101704 Z-0.125000
G01 X123.014283 Y19.354954 Z-0.125000
G01 X124.551343 Y17.635064 Z-0.125000
G01 X131.586443 Y10.631454 Z-0.125000
G01 X132.991683 Y8.895114 Z-0.125000
G01 X133.971413 Y7.343114 Z-0.125000
G00 Z3.000000

(End cutting path id: polyline21394)


(Start cutting path id: polyline21396)
(Change tool to Default tool)

G00 Z3.000000
G00 X119.528153 Y246.175951

G00 Z4.875000 (Fast pre-penetrate)
G01 Z-0.125000 F400.0(Penetrate)
G01 X118.798613 Y245.121294 Z-0.125000 F800.000000
G01 X118.310193 Y244.098078 Z-0.125000
G01 X118.091503 Y243.109298 Z-0.125000
G01 X118.140903 Y242.156505 Z-0.125000
G01 X118.747603 Y240.555074 Z-0.125000
G01 X120.865923 Y236.992556 Z-0.125000
G01 X121.268953 Y235.844992 Z-0.125000
G01 X121.459223 Y234.429284 Z-0.125000
G01 X121.234473 Y232.240545 Z-0.125000
G01 X120.065953 Y227.290767 Z-0.125000
G01 X119.776833 Y224.373941 Z-0.125000
G01 X120.332633 Y212.928435 Z-0.125000
G01 X120.382033 Y194.220084 Z-0.125000
G01 X120.275683 Y187.727254 Z-0.125000
G01 X119.769333 Y179.024734 Z-0.125000
G01 X120.023973 Y176.178334 Z-0.125000
G01 X121.274933 Y171.541694 Z-0.125000
G01 X121.462213 Y169.886314 Z-0.125000
G01 X121.316863 Y168.668344 Z-0.125000
G01 X121.002273 Y167.667574 Z-0.125000
G01 X118.551363 Y163.270644 Z-0.125000
G01 X118.176843 Y162.260954 Z-0.125000
G01 X118.088443 Y161.290154 Z-0.125000
G01 X118.347613 Y160.364354 Z-0.125000
G01 X118.780543 Y159.700704 Z-0.125000
G01 X119.887663 Y158.644494 Z-0.125000
G01 X123.063633 Y156.178644 Z-0.125000
G01 X123.649433 Y155.294724 Z-0.125000
G01 X123.761783 Y154.590634 Z-0.125000
G01 X123.417193 Y153.585394 Z-0.125000
G01 X122.208203 Y152.228124 Z-0.125000
G01 X117.453223 Y148.731524 Z-0.125000
G01 X116.122903 Y147.598924 Z-0.125000
G01 X115.321443 Y146.533784 Z-0.125000
G01 X115.165613 Y145.793694 Z-0.125000
G01 X115.291483 Y145.330784 Z-0.125000
G01 X115.603093 Y144.891854 Z-0.125000
G01 X117.129643 Y143.889594 Z-0.125000
G01 X118.957333 Y143.167534 Z-0.125000
G01 X123.721293 Y141.627464 Z-0.125000
G01 X125.866603 Y140.707644 Z-0.125000
G01 X126.940753 Y139.886674 Z-0.125000
G01 X127.211913 Y139.443224 Z-0.125000
G01 X127.294313 Y138.972814 Z-0.125000
G01 X127.186463 Y138.479944 Z-0.125000
G01 X126.674083 Y137.693444 Z-0.125000
G01 X124.981253 Y136.273244 Z-0.125000
G01 X122.495843 Y134.751174 Z-0.125000
G01 X115.628563 Y130.978914 Z-0.125000
G01 X112.955933 Y129.191674 Z-0.125000
G01 X112.016613 Y128.349794 Z-0.125000
G01 X111.381413 Y127.546774 Z-0.125000
G01 X111.060833 Y126.785744 Z-0.125000
G01 X111.021833 Y126.300344 Z-0.125000
G01 X111.215103 Y125.606734 Z-0.125000
G01 X111.691503 Y124.947564 Z-0.125000
G01 X112.421043 Y124.322844 Z-0.125000
G01 X113.724403 Y123.533364 Z-0.125000
G01 X116.196283 Y122.414244 Z-0.125000
G01 X124.507783 Y119.176854 Z-0.125000
G01 X126.826843 Y118.038294 Z-0.125000
G01 X128.718973 Y116.844324 Z-0.125000
G01 X130.155633 Y115.591874 Z-0.125000
G01 X131.277723 Y114.057814 Z-0.125000
G01 X131.876953 Y112.456334 Z-0.125000
G01 X132.052233 Y110.799444 Z-0.125000
G01 X131.674713 Y107.870644 Z-0.125000
G01 X129.369133 Y99.413784 Z-0.125000
G01 X129.063543 Y97.454254 Z-0.125000
G01 X128.933193 Y95.517224 Z-0.125000
G01 X129.005093 Y93.367424 Z-0.125000
G01 X129.324163 Y91.009424 Z-0.125000
G01 X131.375093 Y82.879204 Z-0.125000
G01 X131.941383 Y79.593874 Z-0.125000
G01 X132.011783 Y76.242584 Z-0.125000
G01 X131.487423 Y72.816414 Z-0.125000
G01 X130.483733 Y69.565524 Z-0.125000
G01 X129.078483 Y66.263694 Z-0.125000
G01 X121.396193 Y51.589714 Z-0.125000
G01 X119.204483 Y46.986024 Z-0.125000
G01 X117.101123 Y42.153124 Z-0.125000
G01 X114.573803 Y35.826634 Z-0.125000
G01 X112.689183 Y30.542804 Z-0.125000
G01 X111.634533 Y26.806554 Z-0.125000
G01 X111.120683 Y23.859774 Z-0.125000
G01 X111.029283 Y21.449304 Z-0.125000
G01 X111.283923 Y19.321954 Z-0.125000
G01 X111.821763 Y17.473304 Z-0.125000
G01 X112.812033 Y15.441844 Z-0.125000
G01 X114.041953 Y13.683094 Z-0.125000
G01 X115.788763 Y11.750554 Z-0.125000
G01 X117.848663 Y9.858444 Z-0.125000
G01 X121.602913 Y6.748354 Z-0.125000
G00 Z3.000000

(End cutting path id: polyline21396)


(Start cutting path id: polyline21352)
(Change tool to Default tool)

G00 Z3.000000
G00 X115.844313 Y246.008165

G00 Z4.875000 (Fast pre-penetrate)
G01 Z-0.125000 F400.0(Penetrate)
G01 X115.684043 Y244.787184 Z-0.125000 F800.000000
G01 X115.914733 Y243.617181 Z-0.125000
G01 X116.439083 Y242.486114 Z-0.125000
G01 X118.437553 Y239.146839 Z-0.125000
G01 X118.854023 Y238.002290 Z-0.125000
G01 X119.060763 Y236.589576 Z-0.125000
G01 X118.846543 Y234.402322 Z-0.125000
G01 X117.664543 Y229.449552 Z-0.125000
G01 X117.384413 Y226.773905 Z-0.125000
G01 X117.964163 Y214.612284 Z-0.125000
G01 X117.985163 Y192.301014 Z-0.125000
G01 X117.874313 Y186.766924 Z-0.125000
G01 X117.372433 Y178.785024 Z-0.125000
G01 X117.642063 Y175.940124 Z-0.125000
G01 X118.872033 Y171.541694 Z-0.125000
G01 X119.065273 Y169.886314 Z-0.125000
G01 X118.964913 Y168.914054 Z-0.125000
G01 X118.581373 Y167.664574 Z-0.125000
G01 X116.091543 Y163.261664 Z-0.125000
G01 X115.746973 Y162.257914 Z-0.125000
G01 X115.685573 Y161.529874 Z-0.125000
G01 X115.919263 Y160.599544 Z-0.125000
G01 X116.521533 Y159.718654 Z-0.125000
G01 X117.441333 Y158.878224 Z-0.125000
G01 X120.662263 Y156.418324 Z-0.125000
G01 X121.254003 Y155.535954 Z-0.125000
G01 X121.364893 Y154.830304 Z-0.125000
G01 X121.000853 Y153.822124 Z-0.125000
G01 X120.064543 Y152.741944 Z-0.125000
G01 X118.662293 Y151.598904 Z-0.125000
G01 X114.924533 Y148.953234 Z-0.125000
G01 X113.618163 Y147.823654 Z-0.125000
G01 X112.875113 Y146.767464 Z-0.125000
G01 X112.782213 Y146.036404 Z-0.125000
G01 X112.958973 Y145.579484 Z-0.125000
G01 X113.326033 Y145.146494 Z-0.125000
G01 X114.991903 Y144.163764 Z-0.125000
G01 X121.730393 Y141.921084 Z-0.125000
G01 X123.435233 Y141.182554 Z-0.125000
G01 X124.537853 Y140.366064 Z-0.125000
G01 X124.816513 Y139.922614 Z-0.125000
G01 X124.897413 Y139.453714 Z-0.125000
G01 X124.782093 Y138.957854 Z-0.125000
G01 X124.244253 Y138.168334 Z-0.125000
G01 X122.482463 Y136.740664 Z-0.125000
G01 X120.471993 Y135.518194 Z-0.125000
G01 X113.444393 Y131.726484 Z-0.125000
G01 X110.651933 Y129.922774 Z-0.125000
G01 X109.666153 Y129.074834 Z-0.125000
G01 X108.997993 Y128.268874 Z-0.125000
G01 X108.663933 Y127.504844 Z-0.125000
G01 X108.626433 Y127.020954 Z-0.125000
G01 X108.836213 Y126.328784 Z-0.125000
G01 X109.347053 Y125.674114 Z-0.125000
G01 X111.134293 Y124.468164 Z-0.125000
G01 X113.663063 Y123.356574 Z-0.125000
G01 X122.335653 Y120.165644 Z-0.125000
G01 X124.737103 Y119.037544 Z-0.125000
G01 X126.377513 Y118.051784 Z-0.125000
G01 X127.881603 Y116.806844 Z-0.125000
G01 X128.892843 Y115.498994 Z-0.125000
G01 X129.460643 Y114.132734 Z-0.125000
G01 X129.653883 Y112.718514 Z-0.125000
G01 X129.552013 Y111.265374 Z-0.125000
G01 X129.089103 Y109.286354 Z-0.125000
G01 X126.882403 Y103.241444 Z-0.125000
G01 X126.040453 Y100.492414 Z-0.125000
G01 X125.601483 Y98.275224 Z-0.125000
G01 X125.433703 Y96.093974 Z-0.125000
G01 X125.562553 Y93.711994 Z-0.125000
G01 X126.046443 Y91.135264 Z-0.125000
G01 X128.599233 Y83.309174 Z-0.125000
G01 X129.432153 Y79.818584 Z-0.125000
G01 X129.632933 Y77.924974 Z-0.125000
G01 X129.638933 Y76.245584 Z-0.125000
G01 X129.153553 Y72.823914 Z-0.125000
G01 X128.245683 Y69.826214 Z-0.125000
G01 X126.975303 Y66.782064 Z-0.125000
G01 X120.232323 Y53.669094 Z-0.125000
G01 X118.322233 Y49.582264 Z-0.125000
G01 X116.403143 Y45.013054 Z-0.125000
G01 X113.640623 Y37.696304 Z-0.125000
G01 X110.454183 Y28.644714 Z-0.125000
G01 X109.297643 Y24.655244 Z-0.125000
G01 X108.719333 Y21.459764 Z-0.125000
G01 X108.628033 Y19.289004 Z-0.125000
G01 X108.828763 Y17.395394 Z-0.125000
G01 X109.341113 Y15.542224 Z-0.125000
G01 X110.201013 Y13.735514 Z-0.125000
G01 X111.246693 Y12.190974 Z-0.125000
G01 X112.767263 Y10.469654 Z-0.125000
G01 X114.585973 Y8.787264 Z-0.125000
G01 X117.408403 Y6.514644 Z-0.125000
G00 Z3.000000

(End cutting path id: polyline21352)


(Start cutting path id: polyline21350)
(Change tool to Default tool)

G00 Z3.000000
G00 X115.125243 Y245.993175

G00 Z4.875000 (Fast pre-penetrate)
G01 Z-0.125000 F400.0(Penetrate)
G01 X115.105743 Y245.029895 Z-0.125000 F800.000000
G01 X115.325943 Y244.099564 Z-0.125000
G01 X115.857793 Y242.968497 Z-0.125000
G01 X117.850283 Y239.629222 Z-0.125000
G01 X118.317653 Y238.249458 Z-0.125000
G01 X118.462983 Y237.068966 Z-0.125000
G01 X118.241283 Y234.880226 Z-0.125000
G01 X117.015823 Y229.683237 Z-0.125000
G01 X116.783603 Y227.253339 Z-0.125000
G01 X117.364863 Y215.331391 Z-0.125000
G01 X117.385863 Y191.820124 Z-0.125000
G01 X117.270473 Y186.527254 Z-0.125000
G01 X116.773123 Y178.785024 Z-0.125000
G01 X117.039783 Y175.940124 Z-0.125000
G01 X118.275723 Y171.541694 Z-0.125000
G01 X118.464493 Y169.886314 Z-0.125000
G01 X118.305683 Y168.666834 Z-0.125000
G01 X117.970133 Y167.663094 Z-0.125000
G01 X115.469793 Y163.258674 Z-0.125000
G01 X115.137193 Y162.256404 Z-0.125000
G01 X115.089293 Y161.529874 Z-0.125000
G01 X115.343943 Y160.604024 Z-0.125000
G01 X115.968663 Y159.724644 Z-0.125000
G01 X119.913173 Y156.638524 Z-0.125000
G01 X120.585823 Y155.766644 Z-0.125000
G01 X120.768593 Y155.070024 Z-0.125000
G01 X120.506443 Y154.076764 Z-0.125000
G01 X119.660013 Y153.007134 Z-0.125000
G01 X118.320713 Y151.873054 Z-0.125000
G01 X113.492313 Y148.365994 Z-0.125000
G01 X112.496043 Y147.276834 Z-0.125000
G01 X112.239893 Y146.762964 Z-0.125000
G01 X112.167993 Y146.274594 Z-0.125000
G01 X112.287813 Y145.810164 Z-0.125000
G01 X112.599413 Y145.369764 Z-0.125000
G01 X114.154483 Y144.373484 Z-0.125000
G01 X116.024083 Y143.655934 Z-0.125000
G01 X120.871953 Y142.126364 Z-0.125000
G01 X123.008263 Y141.205014 Z-0.125000
G01 X124.028493 Y140.378034 Z-0.125000
G01 X124.256193 Y139.927084 Z-0.125000
G01 X124.287693 Y139.452204 Z-0.125000
G01 X124.118453 Y138.950354 Z-0.125000
G01 X123.501213 Y138.150374 Z-0.125000
G01 X121.624073 Y136.706224 Z-0.125000
G01 X113.036943 Y131.990154 Z-0.125000
G01 X110.174063 Y130.178964 Z-0.125000
G01 X109.150843 Y129.326534 Z-0.125000
G01 X108.446753 Y128.514534 Z-0.125000
G01 X108.079713 Y127.747514 Z-0.125000
G01 X108.024213 Y127.260624 Z-0.125000
G01 X108.211493 Y126.564034 Z-0.125000
G01 X108.705853 Y125.909354 Z-0.125000
G01 X110.481123 Y124.700374 Z-0.125000
G01 X113.020423 Y123.590304 Z-0.125000
G01 X121.779843 Y120.411294 Z-0.125000
G01 X124.203753 Y119.286214 Z-0.125000
G01 X125.851703 Y118.300474 Z-0.125000
G01 X127.140053 Y117.268274 Z-0.125000
G01 X128.218713 Y115.969404 Z-0.125000
G01 X128.832923 Y114.609134 Z-0.125000
G01 X129.056123 Y112.958234 Z-0.125000
G01 X128.918323 Y111.500544 Z-0.125000
G01 X128.482363 Y109.765744 Z-0.125000
G01 X125.967053 Y103.199524 Z-0.125000
G01 X125.176053 Y100.697694 Z-0.125000
G01 X124.681653 Y98.233294 Z-0.125000
G01 X124.533363 Y96.055064 Z-0.125000
G01 X124.698173 Y93.677554 Z-0.125000
G01 X125.228473 Y91.106814 Z-0.125000
G01 X127.928093 Y83.300194 Z-0.125000
G01 X128.768483 Y80.049254 Z-0.125000
G01 X129.011203 Y78.161654 Z-0.125000
G01 X129.051603 Y76.488284 Z-0.125000
G01 X128.889833 Y74.546714 Z-0.125000
G01 X128.567713 Y72.825394 Z-0.125000
G01 X127.839653 Y70.331064 Z-0.125000
G01 X126.503343 Y67.038214 Z-0.125000
G01 X119.668983 Y53.673594 Z-0.125000
G01 X117.901213 Y49.844404 Z-0.125000
G01 X116.112453 Y45.532864 Z-0.125000
G01 X113.764953 Y39.230354 Z-0.125000
G01 X109.899833 Y28.169804 Z-0.125000
G01 X108.791233 Y24.427544 Z-0.125000
G01 X108.160543 Y21.226054 Z-0.125000
G01 X108.022703 Y19.047804 Z-0.125000
G01 X108.177023 Y17.148204 Z-0.125000
G01 X108.642943 Y15.290564 Z-0.125000
G01 X109.459383 Y13.476374 Z-0.125000
G01 X110.475103 Y11.928804 Z-0.125000
G01 X111.971723 Y10.204484 Z-0.125000
G01 X113.781423 Y8.520634 Z-0.125000
G01 X116.350683 Y6.454724 Z-0.125000
G00 Z3.000000

(End cutting path id: polyline21350)


(Start cutting path id: polyline21348)
(Change tool to Default tool)

G00 Z3.000000
G00 X114.484053 Y245.987188

G00 Z4.875000 (Fast pre-penetrate)
G01 Z-0.125000 F400.0(Penetrate)
G01 X114.597903 Y245.041891 Z-0.125000 F800.000000
G01 X114.924513 Y244.125019 Z-0.125000
G01 X116.794113 Y241.008963 Z-0.125000
G01 X117.448793 Y239.654676 Z-0.125000
G01 X117.767923 Y238.496647 Z-0.125000
G01 X117.866823 Y237.308638 Z-0.125000
G01 X117.637593 Y235.359616 Z-0.125000
G01 X116.451123 Y230.406845 Z-0.125000
G01 X116.173943 Y227.251831 Z-0.125000
G01 X116.678793 Y218.919364 Z-0.125000
G01 X116.786663 Y213.654990 Z-0.125000
G01 X116.771663 Y189.659804 Z-0.125000
G01 X116.181423 Y178.305634 Z-0.125000
G01 X116.439103 Y175.940124 Z-0.125000
G01 X117.681043 Y171.541694 Z-0.125000
G01 X117.854833 Y169.645084 Z-0.125000
G01 X117.630083 Y168.416634 Z-0.125000
G01 X117.240583 Y167.405434 Z-0.125000
G01 X114.741753 Y163.002474 Z-0.125000
G01 X114.527533 Y162.254924 Z-0.125000
G01 X114.494533 Y161.529874 Z-0.125000
G01 X114.666813 Y160.833214 Z-0.125000
G01 X115.227113 Y159.946354 Z-0.125000
G01 X116.118493 Y159.102904 Z-0.125000
G01 X119.378383 Y156.647504 Z-0.125000
G01 X120.019553 Y155.771124 Z-0.125000
G01 X120.169383 Y155.070024 Z-0.125000
G01 X119.857773 Y154.069264 Z-0.125000
G01 X118.657793 Y152.715004 Z-0.125000
G01 X113.823393 Y149.206434 Z-0.125000
G01 X112.481093 Y148.072334 Z-0.125000
G01 X111.697593 Y147.010174 Z-0.125000
G01 X111.577743 Y146.274594 Z-0.125000
G01 X111.738013 Y145.816154 Z-0.125000
G01 X112.090093 Y145.381734 Z-0.125000
G01 X113.737993 Y144.395994 Z-0.125000
G01 X120.512473 Y142.157814 Z-0.125000
G01 X122.233763 Y141.422224 Z-0.125000
G01 X123.343833 Y140.607284 Z-0.125000
G01 X123.621013 Y140.162334 Z-0.125000
G01 X123.698913 Y139.693424 Z-0.125000
G01 X123.574583 Y139.197564 Z-0.125000
G01 X123.021773 Y138.405014 Z-0.125000
G01 X121.221053 Y136.971344 Z-0.125000
G01 X118.603833 Y135.431294 Z-0.125000
G01 X112.082603 Y131.945184 Z-0.125000
G01 X109.312633 Y130.144504 Z-0.125000
G01 X108.355333 Y129.301074 Z-0.125000
G01 X107.727603 Y128.499574 Z-0.125000
G01 X107.499903 Y127.990224 Z-0.125000
G01 X107.441503 Y127.262134 Z-0.125000
G01 X107.712663 Y126.577514 Z-0.125000
G01 X108.287933 Y125.933304 Z-0.125000
G01 X110.204003 Y124.742344 Z-0.125000
G01 X112.848163 Y123.647194 Z-0.125000
G01 X121.219593 Y120.655494 Z-0.125000
G01 X123.289973 Y119.725164 Z-0.125000
G01 X125.020273 Y118.749914 Z-0.125000
G01 X126.382033 Y117.728204 Z-0.125000
G01 X127.534083 Y116.438304 Z-0.125000
G01 X128.199233 Y115.085524 Z-0.125000
G01 X128.456923 Y113.439124 Z-0.125000
G01 X128.326603 Y111.981444 Z-0.125000
G01 X127.797763 Y109.993444 Z-0.125000
G01 X125.132633 Y103.409234 Z-0.125000
G01 X124.304163 Y100.901424 Z-0.125000
G01 X123.785833 Y98.435534 Z-0.125000
G01 X123.627023 Y96.255804 Z-0.125000
G01 X123.791823 Y93.876814 Z-0.125000
G01 X124.338643 Y91.309054 Z-0.125000
G01 X125.167113 Y88.777234 Z-0.125000
G01 X127.256973 Y83.291164 Z-0.125000
G01 X128.184273 Y79.812574 Z-0.125000
G01 X128.403013 Y78.160144 Z-0.125000
G01 X128.447913 Y76.247064 Z-0.125000
G01 X128.301133 Y74.548204 Z-0.125000
G01 X127.982013 Y72.826904 Z-0.125000
G01 X127.164073 Y70.082364 Z-0.125000
G01 X125.913113 Y67.039704 Z-0.125000
G01 X119.225583 Y53.934224 Z-0.125000
G01 X116.006153 Y46.557594 Z-0.125000
G01 X113.860883 Y40.759924 Z-0.125000
G01 X109.347073 Y27.696394 Z-0.125000
G01 X108.162083 Y23.703964 Z-0.125000
G01 X107.544843 Y20.503974 Z-0.125000
G01 X107.423503 Y18.568414 Z-0.125000
G01 X107.567303 Y16.667304 Z-0.125000
G01 X107.952323 Y15.038864 Z-0.125000
G01 X108.726883 Y13.218674 Z-0.125000
G01 X109.874423 Y11.449404 Z-0.125000
G01 X111.182233 Y9.939314 Z-0.125000
G01 X112.981463 Y8.253974 Z-0.125000
G01 X115.291573 Y6.394804 Z-0.125000
G00 Z3.000000

(End cutting path id: polyline21348)


(Start cutting path id: polyline21346)
(Change tool to Default tool)

G00 Z3.000000
G00 X113.914773 Y245.991690

G00 Z4.875000 (Fast pre-penetrate)
G01 Z-0.125000 F400.0(Penetrate)
G01 X114.443613 Y244.379725 Z-0.125000 F800.000000
G01 X116.666783 Y240.590994 Z-0.125000
G01 X117.071273 Y239.443452 Z-0.125000
G01 X117.255543 Y238.267417 Z-0.125000
G01 X117.128213 Y236.331876 Z-0.125000
G01 X115.938703 Y231.377598 Z-0.125000
G01 X115.582173 Y228.212119 Z-0.125000
G01 X116.169443 Y216.531373 Z-0.125000
G01 X116.187343 Y191.340734 Z-0.125000
G01 X116.083973 Y186.528764 Z-0.125000
G01 X115.574643 Y178.785024 Z-0.125000
G01 X115.841253 Y175.940124 Z-0.125000
G01 X117.032283 Y171.775424 Z-0.125000
G01 X117.267453 Y170.127474 Z-0.125000
G01 X117.147633 Y168.911054 Z-0.125000
G01 X116.840523 Y167.911784 Z-0.125000
G01 X116.212793 Y166.630944 Z-0.125000
G01 X114.338703 Y163.507364 Z-0.125000
G01 X113.967153 Y162.499144 Z-0.125000
G01 X113.884753 Y161.769544 Z-0.125000
G01 X114.092983 Y160.836244 Z-0.125000
G01 X114.678733 Y159.952344 Z-0.125000
G01 X115.592593 Y159.111904 Z-0.125000
G01 X118.844973 Y156.655044 Z-0.125000
G01 X119.451683 Y155.774114 Z-0.125000
G01 X119.567073 Y155.070024 Z-0.125000
G01 X119.351323 Y154.322464 Z-0.125000
G01 X118.545363 Y153.257324 Z-0.125000
G01 X117.230013 Y152.126254 Z-0.125000
G01 X112.364163 Y148.614694 Z-0.125000
G01 X111.330473 Y147.521004 Z-0.125000
G01 X111.056303 Y147.005674 Z-0.125000
G01 X110.967903 Y146.514314 Z-0.125000
G01 X111.072763 Y146.046894 Z-0.125000
G01 X111.370893 Y145.606434 Z-0.125000
G01 X111.857773 Y145.189984 Z-0.125000
G01 X112.907973 Y144.607214 Z-0.125000
G01 X114.779083 Y143.889594 Z-0.125000
G01 X119.659943 Y142.364534 Z-0.125000
G01 X121.812693 Y141.444684 Z-0.125000
G01 X122.835913 Y140.619254 Z-0.125000
G01 X123.062103 Y140.168314 Z-0.125000
G01 X123.086103 Y139.691924 Z-0.125000
G01 X122.907833 Y139.188564 Z-0.125000
G01 X122.272613 Y138.385544 Z-0.125000
G01 X120.352063 Y136.936894 Z-0.125000
G01 X111.670543 Y132.208874 Z-0.125000
G01 X108.831623 Y130.400654 Z-0.125000
G01 X107.835373 Y129.551234 Z-0.125000
G01 X107.171703 Y128.745274 Z-0.125000
G01 X106.854113 Y127.984234 Z-0.125000
G01 X106.834613 Y127.501854 Z-0.125000
G01 X107.083293 Y126.814184 Z-0.125000
G01 X107.642083 Y126.167034 Z-0.125000
G01 X109.546183 Y124.974524 Z-0.125000
G01 X112.200813 Y123.880924 Z-0.125000
G01 X120.656133 Y120.899664 Z-0.125000
G01 X122.744503 Y119.972334 Z-0.125000
G01 X124.485273 Y118.998584 Z-0.125000
G01 X125.848583 Y117.976854 Z-0.125000
G01 X126.991643 Y116.685524 Z-0.125000
G01 X127.635823 Y115.329744 Z-0.125000
G01 X127.857543 Y113.678804 Z-0.125000
G01 X127.689733 Y112.216664 Z-0.125000
G01 X127.108473 Y110.222694 Z-0.125000
G01 X124.392383 Y103.870664 Z-0.125000
G01 X123.496533 Y101.355354 Z-0.125000
G01 X122.918273 Y98.880444 Z-0.125000
G01 X122.710043 Y96.453544 Z-0.125000
G01 X122.912283 Y93.840824 Z-0.125000
G01 X123.505533 Y91.279064 Z-0.125000
G01 X126.663523 Y83.051494 Z-0.125000
G01 X127.512963 Y80.043274 Z-0.125000
G01 X127.793103 Y78.160144 Z-0.125000
G01 X127.856103 Y76.488284 Z-0.125000
G01 X127.742263 Y74.793934 Z-0.125000
G01 X127.451633 Y73.077084 Z-0.125000
G01 X126.666583 Y70.335564 Z-0.125000
G01 X125.439643 Y67.295894 Z-0.125000
