%
(Header)
(Generated by gcodetools from Inkscape.)
(Using default header. To add your own header create file "header" in the output dir.)
M3
(Header end.)
G21 (All units in mm)

(Start cutting path id: path25670)
(Change tool to Default tool)

G00 Z3.000000
G00 X70.062152 Y157.536767

G00 Z4.875000 (Fast pre-penetrate)
G01 Z-0.125000 F400.0(Penetrate)
G01 X71.366131 Y137.711981 Z-0.125000 F800.000000
G01 X66.126353 Y124.430949 Z-0.125000
G00 Z3.000000

(End cutting path id: path25670)


(Start cutting path id: path25668)
(Change tool to Default tool)

G00 Z3.000000
G00 X69.393956 Y157.492627

G00 Z4.875000 (Fast pre-penetrate)
G01 Z-0.125000 F400.0(Penetrate)
G01 X70.811398 Y137.554374 Z-0.125000 F800.000000
G01 X65.433616 Y124.411346 Z-0.125000
G00 Z3.000000

(End cutting path id: path25668)


(Start cutting path id: path25672)
(Change tool to Default tool)

G00 Z3.000000
G00 X70.730351 Y157.580908

G00 Z4.875000 (Fast pre-penetrate)
G01 Z-0.125000 F400.0(Penetrate)
G01 X71.920864 Y137.869588 Z-0.125000 F800.000000
G01 X66.819087 Y124.450552 Z-0.125000
G00 Z3.000000

(End cutting path id: path25672)


(Start cutting path id: path25674)
(Change tool to Default tool)

G00 Z3.000000
G00 X71.398550 Y157.625048

G00 Z4.875000 (Fast pre-penetrate)
G01 Z-0.125000 F400.0(Penetrate)
G01 X72.475596 Y138.027192 Z-0.125000 F800.000000
G01 X67.511823 Y124.470158 Z-0.125000
G00 Z3.000000

(End cutting path id: path25674)


(Start cutting path id: path25676)
(Change tool to Default tool)

G00 Z3.000000
G00 X72.066749 Y157.669188

G00 Z4.875000 (Fast pre-penetrate)
G01 Z-0.125000 F400.0(Penetrate)
G01 X73.030329 Y138.184799 Z-0.125000 F800.000000
G01 X68.204557 Y124.489761 Z-0.125000
G00 Z3.000000

(End cutting path id: path25676)


(Start cutting path id: path25678)
(Change tool to Default tool)

G00 Z3.000000
G00 X72.734948 Y157.713329

G00 Z4.875000 (Fast pre-penetrate)
G01 Z-0.125000 F400.0(Penetrate)
G01 X73.585061 Y138.342406 Z-0.125000 F800.000000
G01 X68.897294 Y124.509363 Z-0.125000
G00 Z3.000000

(End cutting path id: path25678)


(Start cutting path id: path25680)
(Change tool to Default tool)

G00 Z3.000000
G00 X73.403145 Y157.757469

G00 Z4.875000 (Fast pre-penetrate)
G01 Z-0.125000 F400.0(Penetrate)
G01 X74.139794 Y138.500010 Z-0.125000 F800.000000
G01 X69.590030 Y124.528966 Z-0.125000
G00 Z3.000000

(End cutting path id: path25680)


(Start cutting path id: path25682)
(Change tool to Default tool)

G00 Z3.000000
G00 X74.071344 Y157.801610

G00 Z4.875000 (Fast pre-penetrate)
G01 Z-0.125000 F400.0(Penetrate)
G01 X74.694527 Y138.657617 Z-0.125000 F800.000000
G01 X70.282764 Y124.548569 Z-0.125000
G00 Z3.000000

(End cutting path id: path25682)


(Start cutting path id: path25684)
(Change tool to Default tool)

G00 Z3.000000
G00 X74.739543 Y157.845750

G00 Z4.875000 (Fast pre-penetrate)
G01 Z-0.125000 F400.0(Penetrate)
G01 X75.249259 Y138.815223 Z-0.125000 F800.000000
G01 X70.975501 Y124.568172 Z-0.125000
G00 Z3.000000

(End cutting path id: path25684)


(Start cutting path id: path25686)
(Change tool to Default tool)

G00 Z3.000000
G00 X75.407742 Y157.889890

G00 Z4.875000 (Fast pre-penetrate)
G01 Z-0.125000 F400.0(Penetrate)
G01 X75.803992 Y138.972830 Z-0.125000 F800.000000
G01 X71.668234 Y124.587778 Z-0.125000
G00 Z3.000000

(End cutting path id: path25686)


(Start cutting path id: path25688)
(Change tool to Default tool)

G00 Z3.000000
G00 X76.075941 Y157.934031

G00 Z4.875000 (Fast pre-penetrate)
G01 Z-0.125000 F400.0(Penetrate)
G01 X76.358725 Y139.130434 Z-0.125000 F800.000000
G01 X72.360971 Y124.607381 Z-0.125000
G00 Z3.000000

(End cutting path id: path25688)


(Start cutting path id: path25690)
(Change tool to Default tool)

G00 Z3.000000
G00 X76.744138 Y157.978171

G00 Z4.875000 (Fast pre-penetrate)
G01 Z-0.125000 F400.0(Penetrate)
G01 X76.913457 Y139.288041 Z-0.125000 F800.000000
G01 X73.053707 Y124.626984 Z-0.125000
G00 Z3.000000

(End cutting path id: path25690)


(Start cutting path id: path25692)
(Change tool to Default tool)

G00 Z3.000000
G00 X77.412337 Y158.022311

G00 Z4.875000 (Fast pre-penetrate)
G01 Z-0.125000 F400.0(Penetrate)
G01 X77.468190 Y139.445648 Z-0.125000 F800.000000
G01 X73.746441 Y124.646587 Z-0.125000
G00 Z3.000000

(End cutting path id: path25692)


(Start cutting path id: path25694)
(Change tool to Default tool)

G00 Z3.000000
G00 X78.080536 Y158.066452

G00 Z4.875000 (Fast pre-penetrate)
G01 Z-0.125000 F400.0(Penetrate)
G01 X78.022923 Y139.603255 Z-0.125000 F800.000000
G01 X74.439178 Y124.666190 Z-0.125000
G00 Z3.000000

(End cutting path id: path25694)


(Start cutting path id: path25696)
(Change tool to Default tool)

G00 Z3.000000
G00 X78.748735 Y158.110592

G00 Z4.875000 (Fast pre-penetrate)
G01 Z-0.125000 F400.0(Penetrate)
G01 X78.577658 Y139.760859 Z-0.125000 F800.000000
G01 X75.131912 Y124.685793 Z-0.125000
G00 Z3.000000

(End cutting path id: path25696)


(Start cutting path id: path25698)
(Change tool to Default tool)

G00 Z3.000000
G00 X79.416931 Y158.154733

G00 Z4.875000 (Fast pre-penetrate)
G01 Z-0.125000 F400.0(Penetrate)
G01 X79.132391 Y139.918466 Z-0.125000 F800.000000
G01 X75.824648 Y124.705398 Z-0.125000
G00 Z3.000000

(End cutting path id: path25698)


(Start cutting path id: path25700)
(Change tool to Default tool)

G00 Z3.000000
G00 X80.085130 Y158.198873

G00 Z4.875000 (Fast pre-penetrate)
G01 Z-0.125000 F400.0(Penetrate)
G01 X79.687123 Y140.076073 Z-0.125000 F800.000000
G01 X76.517385 Y124.725001 Z-0.125000
G00 Z3.000000

(End cutting path id: path25700)


(Start cutting path id: path25702)
(Change tool to Default tool)

G00 Z3.000000
G00 X80.753329 Y158.243013

G00 Z4.875000 (Fast pre-penetrate)
G01 Z-0.125000 F400.0(Penetrate)
G01 X80.241856 Y140.233677 Z-0.125000 F800.000000
G01 X77.210118 Y124.744604 Z-0.125000
G00 Z3.000000

(End cutting path id: path25702)


(Start cutting path id: path25704)
(Change tool to Default tool)

G00 Z3.000000
G00 X81.421528 Y158.287154

G00 Z4.875000 (Fast pre-penetrate)
G01 Z-0.125000 F400.0(Penetrate)
G01 X80.796589 Y140.391284 Z-0.125000 F800.000000
G01 X77.902855 Y124.764207 Z-0.125000
G00 Z3.000000

(End cutting path id: path25704)


(Start cutting path id: path25706)
(Change tool to Default tool)

G00 Z3.000000
G00 X82.089727 Y158.331294

G00 Z4.875000 (Fast pre-penetrate)
G01 Z-0.125000 F400.0(Penetrate)
G01 X81.351321 Y140.548890 Z-0.125000 F800.000000
G01 X78.595589 Y124.783810 Z-0.125000
G00 Z3.000000

(End cutting path id: path25706)


(Start cutting path id: path25708)
(Change tool to Default tool)

G00 Z3.000000
G00 X82.757924 Y158.375435

G00 Z4.875000 (Fast pre-penetrate)
G01 Z-0.125000 F400.0(Penetrate)
G01 X81.906054 Y140.706497 Z-0.125000 F800.000000
G01 X79.288325 Y124.803413 Z-0.125000
G00 Z3.000000

(End cutting path id: path25708)


(Start cutting path id: path25710)
(Change tool to Default tool)

G00 Z3.000000
G00 X83.426123 Y158.419575

G00 Z4.875000 (Fast pre-penetrate)
G01 Z-0.125000 F400.0(Penetrate)
G01 X82.460787 Y140.864101 Z-0.125000 F800.000000
G01 X79.981062 Y124.823019 Z-0.125000
G00 Z3.000000

(End cutting path id: path25710)


(Start cutting path id: path25712)
(Change tool to Default tool)

G00 Z3.000000
G00 X84.094322 Y158.463715

G00 Z4.875000 (Fast pre-penetrate)
G01 Z-0.125000 F400.0(Penetrate)
G01 X83.015519 Y141.021708 Z-0.125000 F800.000000
G01 X80.673796 Y124.842622 Z-0.125000
G00 Z3.000000

(End cutting path id: path25712)


(Start cutting path id: path25714)
(Change tool to Default tool)

G00 Z3.000000
G00 X84.762521 Y158.507856

G00 Z4.875000 (Fast pre-penetrate)
G01 Z-0.125000 F400.0(Penetrate)
G01 X83.570252 Y141.179315 Z-0.125000 F800.000000
G01 X81.366532 Y124.862225 Z-0.125000
G00 Z3.000000

(End cutting path id: path25714)


(Start cutting path id: path25716)
(Change tool to Default tool)

G00 Z3.000000
G00 X85.430720 Y158.551996

G00 Z4.875000 (Fast pre-penetrate)
G01 Z-0.125000 F400.0(Penetrate)
G01 X84.124985 Y141.336919 Z-0.125000 F800.000000
G01 X82.059266 Y124.881828 Z-0.125000
G00 Z3.000000

(End cutting path id: path25716)


(Start cutting path id: path25718)
(Change tool to Default tool)

G00 Z3.000000
G00 X86.098917 Y158.596136

G00 Z4.875000 (Fast pre-penetrate)
G01 Z-0.125000 F400.0(Penetrate)
G01 X84.679717 Y141.494526 Z-0.125000 F800.000000
G01 X82.752003 Y124.901431 Z-0.125000
G00 Z3.000000

(End cutting path id: path25718)


(Start cutting path id: path25720)
(Change tool to Default tool)

G00 Z3.000000
G00 X86.767116 Y158.640277

G00 Z4.875000 (Fast pre-penetrate)
G01 Z-0.125000 F400.0(Penetrate)
G01 X85.234450 Y141.652133 Z-0.125000 F800.000000
G01 X83.444736 Y124.921036 Z-0.125000
G00 Z3.000000

(End cutting path id: path25720)


(Start cutting path id: path25722)
(Change tool to Default tool)

G00 Z3.000000
G00 X87.081366 Y159.038366

G00 Z4.875000 (Fast pre-penetrate)
G01 Z-0.125000 F400.0(Penetrate)
G01 X86.002370 Y141.596549 Z-0.125000 F800.000000
G01 X84.167101 Y124.911011 Z-0.125000
G00 Z3.000000

(End cutting path id: path25722)


(Start cutting path id: path25724)
(Change tool to Default tool)

G00 Z3.000000
G00 X87.395617 Y159.436452

G00 Z4.875000 (Fast pre-penetrate)
G01 Z-0.125000 F400.0(Penetrate)
G01 X86.770293 Y141.540968 Z-0.125000 F800.000000
G01 X84.889465 Y124.900986 Z-0.125000
G00 Z3.000000

(End cutting path id: path25724)


(Start cutting path id: path25726)
(Change tool to Default tool)

G00 Z3.000000
G00 X87.709867 Y159.834541

G00 Z4.875000 (Fast pre-penetrate)
G01 Z-0.125000 F400.0(Penetrate)
G01 X87.538214 Y141.485384 Z-0.125000 F800.000000
G01 X85.611830 Y124.890961 Z-0.125000
G00 Z3.000000

(End cutting path id: path25726)


(Start cutting path id: path25728)
(Change tool to Default tool)

G00 Z3.000000
G00 X88.024118 Y160.232630

G00 Z4.875000 (Fast pre-penetrate)
G01 Z-0.125000 F400.0(Penetrate)
G01 X88.306134 Y141.429804 Z-0.125000 F800.000000
G01 X86.334192 Y124.880936 Z-0.125000
G00 Z3.000000

(End cutting path id: path25728)


(Start cutting path id: path25730)
(Change tool to Default tool)

G00 Z3.000000
G00 X88.338368 Y160.630716

G00 Z4.875000 (Fast pre-penetrate)
G01 Z-0.125000 F400.0(Penetrate)
G01 X89.074057 Y141.374220 Z-0.125000 F800.000000
G01 X87.056556 Y124.870911 Z-0.125000
G00 Z3.000000

(End cutting path id: path25730)


(Start cutting path id: path25732)
(Change tool to Default tool)

G00 Z3.000000
G00 X88.652621 Y161.028805

G00 Z4.875000 (Fast pre-penetrate)
G01 Z-0.125000 F400.0(Penetrate)
G01 X89.841978 Y141.318636 Z-0.125000 F800.000000
G01 X87.778921 Y124.860886 Z-0.125000
G00 Z3.000000

(End cutting path id: path25732)


(Start cutting path id: path25734)
(Change tool to Default tool)

G00 Z3.000000
G00 X88.966872 Y161.426894

G00 Z4.875000 (Fast pre-penetrate)
G01 Z-0.125000 F400.0(Penetrate)
G01 X90.609898 Y141.263055 Z-0.125000 F800.000000
G01 X88.501285 Y124.850861 Z-0.125000
G00 Z3.000000

(End cutting path id: path25734)


(Start cutting path id: path25736)
(Change tool to Default tool)

G00 Z3.000000
G00 X89.281123 Y161.824980

G00 Z4.875000 (Fast pre-penetrate)
G01 Z-0.125000 F400.0(Penetrate)
G01 X91.377821 Y141.207472 Z-0.125000 F800.000000
G01 X89.223647 Y124.840836 Z-0.125000
G00 Z3.000000

(End cutting path id: path25736)


(Start cutting path id: path25738)
(Change tool to Default tool)

G00 Z3.000000
G00 X89.595373 Y162.223069

G00 Z4.875000 (Fast pre-penetrate)
G01 Z-0.125000 F400.0(Penetrate)
G01 X92.145741 Y141.151891 Z-0.125000 F800.000000
G01 X89.946012 Y124.830811 Z-0.125000
G00 Z3.000000

(End cutting path id: path25738)


(Start cutting path id: path25740)
(Change tool to Default tool)

G00 Z3.000000
G00 X89.909624 Y162.621158

G00 Z4.875000 (Fast pre-penetrate)
G01 Z-0.125000 F400.0(Penetrate)
G01 X92.913662 Y141.096307 Z-0.125000 F800.000000
G01 X90.668376 Y124.820786 Z-0.125000
G00 Z3.000000

(End cutting path id: path25740)


(Start cutting path id: path25742)
(Change tool to Default tool)

G00 Z3.000000
G00 X90.223874 Y163.019247

G00 Z4.875000 (Fast pre-penetrate)
G01 Z-0.125000 F400.0(Penetrate)
G01 X93.681585 Y141.040726 Z-0.125000 F800.000000
G01 X91.390741 Y124.810761 Z-0.125000
G00 Z3.000000

(End cutting path id: path25742)


(Start cutting path id: path25744)
(Change tool to Default tool)

G00 Z3.000000
G00 X90.538125 Y163.417333

G00 Z4.875000 (Fast pre-penetrate)
G01 Z-0.125000 F400.0(Penetrate)
G01 X94.449505 Y140.985143 Z-0.125000 F800.000000
G01 X92.113103 Y124.800736 Z-0.125000
G00 Z3.000000

(End cutting path id: path25744)


(Start cutting path id: path25746)
(Change tool to Default tool)

G00 Z3.000000
G00 X90.852375 Y163.815422

G00 Z4.875000 (Fast pre-penetrate)
G01 Z-0.125000 F400.0(Penetrate)
G01 X95.217426 Y140.929562 Z-0.125000 F800.000000
G01 X92.835467 Y124.790710 Z-0.125000
G00 Z3.000000

(End cutting path id: path25746)


(Start cutting path id: path25748)
(Change tool to Default tool)

G00 Z3.000000
G00 X91.166626 Y164.213511

G00 Z4.875000 (Fast pre-penetrate)
G01 Z-0.125000 F400.0(Penetrate)
G01 X95.985349 Y140.873978 Z-0.125000 F800.000000
G01 X93.557832 Y124.780685 Z-0.125000
G00 Z3.000000

(End cutting path id: path25748)


(Start cutting path id: path25750)
(Change tool to Default tool)

G00 Z3.000000
G00 X91.480876 Y164.611598

G00 Z4.875000 (Fast pre-penetrate)
G01 Z-0.125000 F400.0(Penetrate)
G01 X96.753269 Y140.818395 Z-0.125000 F800.000000
G01 X94.280193 Y124.770660 Z-0.125000
G00 Z3.000000

(End cutting path id: path25750)


(Start cutting path id: path25752)
(Change tool to Default tool)

G00 Z3.000000
G00 X91.795127 Y165.009687

G00 Z4.875000 (Fast pre-penetrate)
G01 Z-0.125000 F400.0(Penetrate)
G01 X97.521192 Y140.762814 Z-0.125000 F800.000000
G01 X95.002558 Y124.760635 Z-0.125000
G00 Z3.000000

(End cutting path id: path25752)


(Start cutting path id: path25754)
(Change tool to Default tool)

G00 Z3.000000
G00 X92.109377 Y165.407775

G00 Z4.875000 (Fast pre-penetrate)
G01 Z-0.125000 F400.0(Penetrate)
G01 X98.289113 Y140.707230 Z-0.125000 F800.000000
G01 X95.724922 Y124.750610 Z-0.125000
G00 Z3.000000

(End cutting path id: path25754)


(Start cutting path id: path25756)
(Change tool to Default tool)

G00 Z3.000000
G00 X92.423628 Y165.805862

G00 Z4.875000 (Fast pre-penetrate)
G01 Z-0.125000 F400.0(Penetrate)
G01 X99.057033 Y140.651649 Z-0.125000 F800.000000
G01 X96.447287 Y124.740585 Z-0.125000
G00 Z3.000000

(End cutting path id: path25756)


(Start cutting path id: path25758)
(Change tool to Default tool)

G00 Z3.000000
G00 X92.737878 Y166.203951

G00 Z4.875000 (Fast pre-penetrate)
G01 Z-0.125000 F400.0(Penetrate)
G01 X99.824956 Y140.596065 Z-0.125000 F800.000000
G01 X97.169649 Y124.730560 Z-0.125000
G00 Z3.000000

(End cutting path id: path25758)


(Start cutting path id: path25760)
(Change tool to Default tool)

G00 Z3.000000
G00 X93.052129 Y166.602040

G00 Z4.875000 (Fast pre-penetrate)
G01 Z-0.125000 F400.0(Penetrate)
G01 X100.592877 Y140.540485 Z-0.125000 F800.000000
G01 X97.892013 Y124.720535 Z-0.125000
G00 Z3.000000

(End cutting path id: path25760)


(Start cutting path id: path25762)
(Change tool to Default tool)

G00 Z3.000000
G00 X93.366382 Y167.000129

G00 Z4.875000 (Fast pre-penetrate)
G01 Z-0.125000 F400.0(Penetrate)
G01 X101.360797 Y140.484901 Z-0.125000 F800.000000
G01 X98.614378 Y124.710510 Z-0.125000
G00 Z3.000000

(End cutting path id: path25762)


(Start cutting path id: path25764)
(Change tool to Default tool)

G00 Z3.000000
G00 X93.680632 Y167.398215

G00 Z4.875000 (Fast pre-penetrate)
G01 Z-0.125000 F400.0(Penetrate)
G01 X102.128720 Y140.429317 Z-0.125000 F800.000000
G01 X99.336742 Y124.700485 Z-0.125000
G00 Z3.000000

(End cutting path id: path25764)


(Start cutting path id: path25766)
(Change tool to Default tool)

G00 Z3.000000
G00 X93.994883 Y167.796304

G00 Z4.875000 (Fast pre-penetrate)
G01 Z-0.125000 F400.0(Penetrate)
G01 X102.896640 Y140.373736 Z-0.125000 F800.000000
G01 X100.059104 Y124.690460 Z-0.125000
G00 Z3.000000

(End cutting path id: path25766)


(Start cutting path id: path25768)
(Change tool to Default tool)

G00 Z3.000000
G00 X94.309133 Y168.194393

G00 Z4.875000 (Fast pre-penetrate)
G01 Z-0.125000 F400.0(Penetrate)
G01 X103.664561 Y140.318153 Z-0.125000 F800.000000
G01 X100.781469 Y124.680435 Z-0.125000
G00 Z3.000000

(End cutting path id: path25768)


(Start cutting path id: path25770)
(Change tool to Default tool)

G00 Z3.000000
G00 X94.623384 Y168.592479

G00 Z4.875000 (Fast pre-penetrate)
G01 Z-0.125000 F400.0(Penetrate)
G01 X104.432484 Y140.262572 Z-0.125000 F800.000000
G01 X101.503833 Y124.670413 Z-0.125000
G00 Z3.000000

(End cutting path id: path25770)


(Start cutting path id: path25772)
(Change tool to Default tool)

G00 Z3.000000
G00 X94.937635 Y168.990568

G00 Z4.875000 (Fast pre-penetrate)
G01 Z-0.125000 F400.0(Penetrate)
G01 X105.200404 Y140.206988 Z-0.125000 F800.000000
G01 X102.226195 Y124.660387 Z-0.125000
G00 Z3.000000

(End cutting path id: path25772)



(Footer)
M5
G00 X0.0000 Y0.0000
M2
(Using default footer. To add your own footer create file "footer" in the output dir.)
(end)
%