%
(Header)
(Generated by gcodetools from Inkscape.)
(Using default header. To add your own header create file "header" in the output dir.)
M3
(Header end.)
G21 (All units in mm)

(Start cutting path id: path14580)
(Change tool to Default tool)

G00 Z3.000000
G00 X77.963011 Y107.458152

G00 Z4.875000 (Fast pre-penetrate)
G01 Z-0.125000 F400.0(Penetrate)
G01 X79.380454 Y87.519900 Z-0.125000 F800.000000
G01 X74.002672 Y74.376872 Z-0.125000
G00 Z3.000000

(End cutting path id: path14580)


(Start cutting path id: path14578)
(Change tool to Default tool)

G00 Z3.000000
G00 X74.796421 Y75.170621

G00 Z4.875000 (Fast pre-penetrate)
G01 Z-0.125000 F400.0(Penetrate)
G01 X92.807541 Y75.680311 Z-0.125000 F800.000000
G01 X111.589000 Y75.419662 Z-0.125000
G00 Z3.000000

(End cutting path id: path14578)


(Start cutting path id: path14526)
(Change tool to Default tool)

G00 Z3.000000
G00 X80.174203 Y88.313649

G00 Z4.875000 (Fast pre-penetrate)
G01 Z-0.125000 F400.0(Penetrate)
G01 X94.597254 Y92.411407 Z-0.125000 F800.000000
G01 X114.563209 Y90.966263 Z-0.125000
G00 Z3.000000

(End cutting path id: path14526)


(Start cutting path id: path14632)
(Change tool to Default tool)

G00 Z3.000000
G00 X95.336171 Y108.605802

G00 Z4.875000 (Fast pre-penetrate)
G01 Z-0.125000 F400.0(Penetrate)
G01 X93.803505 Y91.617658 Z-0.125000 F800.000000
G01 X92.013792 Y74.886562 Z-0.125000
G00 Z3.000000

(End cutting path id: path14632)


(Start cutting path id: path14556)
(Change tool to Default tool)

G00 Z3.000000
G00 X77.071636 Y80.731134

G00 Z4.875000 (Fast pre-penetrate)
G01 Z-0.125000 F400.0(Penetrate)
G01 X93.564727 Y82.758850 Z-0.125000 F800.000000
G01 X112.847319 Y81.997068 Z-0.125000
G00 Z3.000000

(End cutting path id: path14556)


(Start cutting path id: path14634)
(Change tool to Default tool)

G00 Z3.000000
G00 X95.650422 Y109.003891

G00 Z4.875000 (Fast pre-penetrate)
G01 Z-0.125000 F400.0(Penetrate)
G01 X94.571426 Y91.562075 Z-0.125000 F800.000000
G01 X92.736156 Y74.876537 Z-0.125000
G00 Z3.000000

(End cutting path id: path14634)


(Start cutting path id: path14554)
(Change tool to Default tool)

G00 Z3.000000
G00 X77.278474 Y81.236633

G00 Z4.875000 (Fast pre-penetrate)
G01 Z-0.125000 F400.0(Penetrate)
G01 X93.633564 Y83.402353 Z-0.125000 F800.000000
G01 X112.961712 Y82.595015 Z-0.125000
G00 Z3.000000

(End cutting path id: path14554)


(Start cutting path id: path14636)
(Change tool to Default tool)

G00 Z3.000000
G00 X95.964672 Y109.401978

G00 Z4.875000 (Fast pre-penetrate)
G01 Z-0.125000 F400.0(Penetrate)
G01 X95.339349 Y91.506494 Z-0.125000 F800.000000
G01 X93.458521 Y74.866512 Z-0.125000
G00 Z3.000000

(End cutting path id: path14636)


(Start cutting path id: path14552)
(Change tool to Default tool)

G00 Z3.000000
G00 X77.485312 Y81.742135

G00 Z4.875000 (Fast pre-penetrate)
G01 Z-0.125000 F400.0(Penetrate)
G01 X93.702398 Y84.045859 Z-0.125000 F800.000000
G01 X113.076104 Y83.192962 Z-0.125000
G00 Z3.000000

(End cutting path id: path14552)


(Start cutting path id: path14630)
(Change tool to Default tool)

G00 Z3.000000
G00 X94.667972 Y108.561662

G00 Z4.875000 (Fast pre-penetrate)
G01 Z-0.125000 F400.0(Penetrate)
G01 X93.248773 Y91.460051 Z-0.125000 F800.000000
G01 X91.321058 Y74.866956 Z-0.125000
G00 Z3.000000

(End cutting path id: path14630)


(Start cutting path id: path14558)
(Change tool to Default tool)

G00 Z3.000000
G00 X76.864799 Y80.225632

G00 Z4.875000 (Fast pre-penetrate)
G01 Z-0.125000 F400.0(Penetrate)
G01 X93.495893 Y82.115348 Z-0.125000 F800.000000
G01 X112.732927 Y81.399124 Z-0.125000
G00 Z3.000000

(End cutting path id: path14558)


(Start cutting path id: path14638)
(Change tool to Default tool)

G00 Z3.000000
G00 X96.278923 Y109.800066

G00 Z4.875000 (Fast pre-penetrate)
G01 Z-0.125000 F400.0(Penetrate)
G01 X96.107269 Y91.450910 Z-0.125000 F800.000000
G01 X94.180885 Y74.856486 Z-0.125000
G00 Z3.000000

(End cutting path id: path14638)


(Start cutting path id: path14550)
(Change tool to Default tool)

G00 Z3.000000
G00 X77.692150 Y82.247636

G00 Z4.875000 (Fast pre-penetrate)
G01 Z-0.125000 F400.0(Penetrate)
G01 X93.771234 Y84.689362 Z-0.125000 F800.000000
G01 X113.190497 Y83.790909 Z-0.125000
G00 Z3.000000

(End cutting path id: path14550)


(Start cutting path id: path14640)
(Change tool to Default tool)

G00 Z3.000000
G00 X96.593173 Y110.198155

G00 Z4.875000 (Fast pre-penetrate)
G01 Z-0.125000 F400.0(Penetrate)
G01 X96.875190 Y91.395329 Z-0.125000 F800.000000
G01 X94.903247 Y74.846461 Z-0.125000
G00 Z3.000000

(End cutting path id: path14640)


(Start cutting path id: path14548)
(Change tool to Default tool)

G00 Z3.000000
G00 X77.898987 Y82.753138

G00 Z4.875000 (Fast pre-penetrate)
G01 Z-0.125000 F400.0(Penetrate)
G01 X93.840068 Y85.332865 Z-0.125000 F800.000000
G01 X113.304889 Y84.388854 Z-0.125000
G00 Z3.000000

(End cutting path id: path14548)


(Start cutting path id: path14628)
(Change tool to Default tool)

G00 Z3.000000
G00 X93.999776 Y108.517522

G00 Z4.875000 (Fast pre-penetrate)
G01 Z-0.125000 F400.0(Penetrate)
G01 X92.694040 Y91.302445 Z-0.125000 F800.000000
G01 X90.628322 Y74.847353 Z-0.125000
G00 Z3.000000

(End cutting path id: path14628)


(Start cutting path id: path14560)
(Change tool to Default tool)

G00 Z3.000000
G00 X76.657961 Y79.720131

G00 Z4.875000 (Fast pre-penetrate)
G01 Z-0.125000 F400.0(Penetrate)
G01 X93.427059 Y81.471842 Z-0.125000 F800.000000
G01 X112.618534 Y80.801177 Z-0.125000
G00 Z3.000000

(End cutting path id: path14560)


(Start cutting path id: path14528)
(Change tool to Default tool)

G00 Z3.000000
G00 X79.967365 Y87.808147

G00 Z4.875000 (Fast pre-penetrate)
G01 Z-0.125000 F400.0(Penetrate)
G01 X94.528420 Y91.767904 Z-0.125000 F800.000000
G01 X114.448816 Y90.368316 Z-0.125000
G00 Z3.000000

(End cutting path id: path14528)


(Start cutting path id: path14642)
(Change tool to Default tool)

G00 Z3.000000
G00 X96.907424 Y110.596242

G00 Z4.875000 (Fast pre-penetrate)
G01 Z-0.125000 F400.0(Penetrate)
G01 X97.643113 Y91.339745 Z-0.125000 F800.000000
G01 X95.625612 Y74.836436 Z-0.125000
G00 Z3.000000

(End cutting path id: path14642)


(Start cutting path id: path14546)
(Change tool to Default tool)

G00 Z3.000000
G00 X78.105825 Y83.258637

G00 Z4.875000 (Fast pre-penetrate)
G01 Z-0.125000 F400.0(Penetrate)
G01 X93.908905 Y85.976370 Z-0.125000 F800.000000
G01 X113.419282 Y84.986801 Z-0.125000
G00 Z3.000000

(End cutting path id: path14546)


(Start cutting path id: path14644)
(Change tool to Default tool)

G00 Z3.000000
G00 X97.221677 Y110.994331

G00 Z4.875000 (Fast pre-penetrate)
G01 Z-0.125000 F400.0(Penetrate)
G01 X98.411033 Y91.284162 Z-0.125000 F800.000000
G01 X96.347976 Y74.826411 Z-0.125000
G00 Z3.000000

(End cutting path id: path14644)


(Start cutting path id: path14544)
(Change tool to Default tool)

G00 Z3.000000
G00 X78.312663 Y83.764139

G00 Z4.875000 (Fast pre-penetrate)
G01 Z-0.125000 F400.0(Penetrate)
G01 X93.977739 Y86.619873 Z-0.125000 F800.000000
G01 X113.533674 Y85.584748 Z-0.125000
G00 Z3.000000

(End cutting path id: path14544)


(Start cutting path id: path14646)
(Change tool to Default tool)

G00 Z3.000000
G00 X97.535927 Y111.392420

G00 Z4.875000 (Fast pre-penetrate)
G01 Z-0.125000 F400.0(Penetrate)
G01 X99.178954 Y91.228581 Z-0.125000 F800.000000
G01 X97.070341 Y74.816386 Z-0.125000
G00 Z3.000000

(End cutting path id: path14646)


(Start cutting path id: path14542)
(Change tool to Default tool)

G00 Z3.000000
G00 X78.519501 Y84.269641

G00 Z4.875000 (Fast pre-penetrate)
G01 Z-0.125000 F400.0(Penetrate)
G01 X94.046575 Y87.263376 Z-0.125000 F800.000000
G01 X113.648066 Y86.182692 Z-0.125000
G00 Z3.000000

(End cutting path id: path14542)


(Start cutting path id: path14648)
(Change tool to Default tool)

G00 Z3.000000
G00 X97.850178 Y111.790506

G00 Z4.875000 (Fast pre-penetrate)
G01 Z-0.125000 F400.0(Penetrate)
G01 X99.946877 Y91.172997 Z-0.125000 F800.000000
G01 X97.792703 Y74.806361 Z-0.125000
G00 Z3.000000

(End cutting path id: path14648)


(Start cutting path id: path14540)
(Change tool to Default tool)

G00 Z3.000000
G00 X78.726338 Y84.775142

G00 Z4.875000 (Fast pre-penetrate)
G01 Z-0.125000 F400.0(Penetrate)
G01 X94.115409 Y87.906882 Z-0.125000 F800.000000
G01 X113.762462 Y86.780639 Z-0.125000
G00 Z3.000000

(End cutting path id: path14540)


(Start cutting path id: path14626)
(Change tool to Default tool)

G00 Z3.000000
G00 X93.331577 Y108.473381

G00 Z4.875000 (Fast pre-penetrate)
G01 Z-0.125000 F400.0(Penetrate)
G01 X92.139307 Y91.144840 Z-0.125000 F800.000000
G01 X89.935588 Y74.827750 Z-0.125000
G00 Z3.000000

(End cutting path id: path14626)


(Start cutting path id: path14562)
(Change tool to Default tool)

G00 Z3.000000
G00 X76.451123 Y79.214629

G00 Z4.875000 (Fast pre-penetrate)
G01 Z-0.125000 F400.0(Penetrate)
G01 X93.358223 Y80.828339 Z-0.125000 F800.000000
G01 X112.504142 Y80.203230 Z-0.125000
G00 Z3.000000

(End cutting path id: path14562)


(Start cutting path id: path14530)
(Change tool to Default tool)

G00 Z3.000000
G00 X79.760527 Y87.302648

G00 Z4.875000 (Fast pre-penetrate)
G01 Z-0.125000 F400.0(Penetrate)
G01 X94.459584 Y91.124399 Z-0.125000 F800.000000
G01 X114.334424 Y89.770371 Z-0.125000
G00 Z3.000000

(End cutting path id: path14530)


(Start cutting path id: path14650)
(Change tool to Default tool)

G00 Z3.000000
G00 X98.164429 Y112.188595

G00 Z4.875000 (Fast pre-penetrate)
G01 Z-0.125000 F400.0(Penetrate)
G01 X100.714797 Y91.117416 Z-0.125000 F800.000000
G01 X98.515067 Y74.796336 Z-0.125000
G00 Z3.000000

(End cutting path id: path14650)


(Start cutting path id: path14538)
(Change tool to Default tool)

G00 Z3.000000
G00 X78.933176 Y85.280641

G00 Z4.875000 (Fast pre-penetrate)
G01 Z-0.125000 F400.0(Penetrate)
G01 X94.184243 Y88.550384 Z-0.125000 F800.000000
G01 X113.876854 Y87.378586 Z-0.125000
G00 Z3.000000

(End cutting path id: path14538)


(Start cutting path id: path14652)
(Change tool to Default tool)

G00 Z3.000000
G00 X98.478679 Y112.586684

G00 Z4.875000 (Fast pre-penetrate)
G01 Z-0.125000 F400.0(Penetrate)
G01 X101.482717 Y91.061833 Z-0.125000 F800.000000
G01 X99.237432 Y74.786311 Z-0.125000
G00 Z3.000000

(End cutting path id: path14652)


(Start cutting path id: path14536)
(Change tool to Default tool)

G00 Z3.000000
G00 X79.140014 Y85.786143

G00 Z4.875000 (Fast pre-penetrate)
G01 Z-0.125000 F400.0(Penetrate)
G01 X94.253080 Y89.193887 Z-0.125000 F800.000000
G01 X113.991246 Y87.976533 Z-0.125000
G00 Z3.000000

(End cutting path id: path14536)


(Start cutting path id: path14654)
(Change tool to Default tool)

G00 Z3.000000
G00 X98.792930 Y112.984773

G00 Z4.875000 (Fast pre-penetrate)
G01 Z-0.125000 F400.0(Penetrate)
G01 X102.250640 Y91.006252 Z-0.125000 F800.000000
G01 X99.959796 Y74.776286 Z-0.125000
G00 Z3.000000

(End cutting path id: path14654)


(Start cutting path id: path14534)
(Change tool to Default tool)

G00 Z3.000000
G00 X79.346852 Y86.291645

G00 Z4.875000 (Fast pre-penetrate)
G01 Z-0.125000 F400.0(Penetrate)
G01 X94.321913 Y89.837393 Z-0.125000 F800.000000
G01 X114.105639 Y88.574477 Z-0.125000
G00 Z3.000000

(End cutting path id: path14534)


(Start cutting path id: path14656)
(Change tool to Default tool)

G00 Z3.000000
G00 X99.107180 Y113.382859

G00 Z4.875000 (Fast pre-penetrate)
G01 Z-0.125000 F400.0(Penetrate)
G01 X103.018561 Y90.950668 Z-0.125000 F800.000000
G01 X100.682158 Y74.766261 Z-0.125000
G00 Z3.000000

(End cutting path id: path14656)


(Start cutting path id: path14532)
(Change tool to Default tool)

G00 Z3.000000
G00 X79.553689 Y86.797146

G00 Z4.875000 (Fast pre-penetrate)
G01 Z-0.125000 F400.0(Penetrate)
G01 X94.390750 Y90.480896 Z-0.125000 F800.000000
G01 X114.220031 Y89.172424 Z-0.125000
G00 Z3.000000

(End cutting path id: path14532)


(Start cutting path id: path14658)
(Change tool to Default tool)

G00 Z3.000000
G00 X99.421431 Y113.780948

G00 Z4.875000 (Fast pre-penetrate)
G01 Z-0.125000 F400.0(Penetrate)
G01 X103.786481 Y90.895087 Z-0.125000 F800.000000
G01 X101.404523 Y74.756236 Z-0.125000
G00 Z3.000000

(End cutting path id: path14658)


(Start cutting path id: path14564)
(Change tool to Default tool)

G00 Z3.000000
G00 X76.244285 Y78.709127

G00 Z4.875000 (Fast pre-penetrate)
G01 Z-0.125000 F400.0(Penetrate)
G01 X93.289389 Y80.184836 Z-0.125000 F800.000000
G01 X112.389749 Y79.605286 Z-0.125000
G00 Z3.000000

(End cutting path id: path14564)


(Start cutting path id: path14524)
(Change tool to Default tool)

G00 Z3.000000
G00 X80.119685 Y89.080506

G00 Z4.875000 (Fast pre-penetrate)
G01 Z-0.125000 F400.0(Penetrate)
G01 X94.656203 Y93.064797 Z-0.125000 F800.000000
G01 X114.168485 Y92.073323 Z-0.125000
G00 Z3.000000

(End cutting path id: path14524)


(Start cutting path id: path14660)
(Change tool to Default tool)

G00 Z3.000000
G00 X99.735681 Y114.179037

G00 Z4.875000 (Fast pre-penetrate)
G01 Z-0.125000 F400.0(Penetrate)
G01 X104.554404 Y90.839504 Z-0.125000 F800.000000
G01 X102.126887 Y74.746211 Z-0.125000
G00 Z3.000000

(End cutting path id: path14660)


(Start cutting path id: path14566)
(Change tool to Default tool)

G00 Z3.000000
G00 X76.037447 Y78.203628

G00 Z4.875000 (Fast pre-penetrate)
G01 Z-0.125000 F400.0(Penetrate)
G01 X93.220552 Y79.541331 Z-0.125000 F800.000000
G01 X112.275357 Y79.007339 Z-0.125000
G00 Z3.000000

(End cutting path id: path14566)


(Start cutting path id: path14522)
(Change tool to Default tool)

G00 Z3.000000
G00 X80.065168 Y89.847360

G00 Z4.875000 (Fast pre-penetrate)
G01 Z-0.125000 F400.0(Penetrate)
G01 X94.715153 Y93.718188 Z-0.125000 F800.000000
G01 X113.773765 Y93.180383 Z-0.125000
G00 Z3.000000

(End cutting path id: path14522)


(Start cutting path id: path14662)
(Change tool to Default tool)

G00 Z3.000000
G00 X100.049932 Y114.577123

G00 Z4.875000 (Fast pre-penetrate)
G01 Z-0.125000 F400.0(Penetrate)
G01 X105.322325 Y90.783920 Z-0.125000 F800.000000
G01 X102.849249 Y74.736186 Z-0.125000
G00 Z3.000000

(End cutting path id: path14662)


(Start cutting path id: path14568)
(Change tool to Default tool)

G00 Z3.000000
G00 X75.830610 Y77.698126

G00 Z4.875000 (Fast pre-penetrate)
G01 Z-0.125000 F400.0(Penetrate)
G01 X93.151718 Y78.897828 Z-0.125000 F800.000000
G01 X112.160964 Y78.409392 Z-0.125000
G00 Z3.000000

(End cutting path id: path14568)


(Start cutting path id: path14520)
(Change tool to Default tool)

G00 Z3.000000
G00 X80.010651 Y90.614217

G00 Z4.875000 (Fast pre-penetrate)
G01 Z-0.125000 F400.0(Penetrate)
G01 X94.774102 Y94.371578 Z-0.125000 F800.000000
G01 X113.379044 Y94.287446 Z-0.125000
G00 Z3.000000

(End cutting path id: path14520)


(Start cutting path id: path14664)
(Change tool to Default tool)

G00 Z3.000000
G00 X100.364182 Y114.975212

G00 Z4.875000 (Fast pre-penetrate)
G01 Z-0.125000 F400.0(Penetrate)
G01 X106.090248 Y90.728339 Z-0.125000 F800.000000
G01 X103.571613 Y74.726161 Z-0.125000
G00 Z3.000000

(End cutting path id: path14664)


(Start cutting path id: path14570)
(Change tool to Default tool)

G00 Z3.000000
G00 X75.623772 Y77.192625

G00 Z4.875000 (Fast pre-penetrate)
G01 Z-0.125000 F400.0(Penetrate)
G01 X93.082882 Y78.254325 Z-0.125000 F800.000000
G01 X112.046572 Y77.811445 Z-0.125000
G00 Z3.000000

(End cutting path id: path14570)


(Start cutting path id: path14518)
(Change tool to Default tool)

G00 Z3.000000
G00 X79.956133 Y91.381073

G00 Z4.875000 (Fast pre-penetrate)
G01 Z-0.125000 F400.0(Penetrate)
G01 X94.833048 Y95.024969 Z-0.125000 F800.000000
G01 X112.984320 Y95.394506 Z-0.125000
G00 Z3.000000

(End cutting path id: path14518)


(Start cutting path id: path14666)
(Change tool to Default tool)

G00 Z3.000000
G00 X100.678433 Y115.373301

G00 Z4.875000 (Fast pre-penetrate)
G01 Z-0.125000 F400.0(Penetrate)
G01 X106.858168 Y90.672755 Z-0.125000 F800.000000
G01 X104.293978 Y74.716136 Z-0.125000
G00 Z3.000000

(End cutting path id: path14666)


(Start cutting path id: path14572)
(Change tool to Default tool)

G00 Z3.000000
G00 X75.416934 Y76.687123

G00 Z4.875000 (Fast pre-penetrate)
G01 Z-0.125000 F400.0(Penetrate)
G01 X93.014048 Y77.610819 Z-0.125000 F800.000000
G01 X111.932180 Y77.213500 Z-0.125000
G00 Z3.000000

(End cutting path id: path14572)


(Start cutting path id: path14516)
(Change tool to Default tool)

G00 Z3.000000
G00 X79.901616 Y92.147927

G00 Z4.875000 (Fast pre-penetrate)
G01 Z-0.125000 F400.0(Penetrate)
G01 X94.891997 Y95.678359 Z-0.125000 F800.000000
G01 X112.589600 Y96.501567 Z-0.125000
G00 Z3.000000

(End cutting path id: path14516)


(Start cutting path id: path14668)
(Change tool to Default tool)

G00 Z3.000000
G00 X100.992683 Y115.771387

G00 Z4.875000 (Fast pre-penetrate)
G01 Z-0.125000 F400.0(Penetrate)
G01 X107.626089 Y90.617175 Z-0.125000 F800.000000
G01 X105.016342 Y74.706111 Z-0.125000
G00 Z3.000000

(End cutting path id: path14668)


(Start cutting path id: path14574)
(Change tool to Default tool)

G00 Z3.000000
G00 X75.210096 Y76.181624

G00 Z4.875000 (Fast pre-penetrate)
G01 Z-0.125000 F400.0(Penetrate)
G01 X92.945211 Y76.967316 Z-0.125000 F800.000000
G01 X111.817787 Y76.615553 Z-0.125000
G00 Z3.000000

(End cutting path id: path14574)


(Start cutting path id: path14514)
(Change tool to Default tool)

G00 Z3.000000
G00 X79.847101 Y92.914784

G00 Z4.875000 (Fast pre-penetrate)
G01 Z-0.125000 F400.0(Penetrate)
G01 X94.950946 Y96.331747 Z-0.125000 F800.000000
G01 X112.194876 Y97.608627 Z-0.125000
G00 Z3.000000

(End cutting path id: path14514)


(Start cutting path id: path14670)
(Change tool to Default tool)

G00 Z3.000000
G00 X101.306934 Y116.169476

G00 Z4.875000 (Fast pre-penetrate)
G01 Z-0.125000 F400.0(Penetrate)
G01 X108.394012 Y90.561591 Z-0.125000 F800.000000
G01 X105.738704 Y74.696086 Z-0.125000
G00 Z3.000000

(End cutting path id: path14670)


(Start cutting path id: path14576)
(Change tool to Default tool)

G00 Z3.000000
G00 X75.003259 Y75.676122

G00 Z4.875000 (Fast pre-penetrate)
G01 Z-0.125000 F400.0(Penetrate)
G01 X92.876377 Y76.323814 Z-0.125000 F800.000000
G01 X111.703392 Y76.017606 Z-0.125000
G00 Z3.000000

(End cutting path id: path14576)


(Start cutting path id: path14512)
(Change tool to Default tool)

G00 Z3.000000
G00 X79.792584 Y93.681641

G00 Z4.875000 (Fast pre-penetrate)
G01 Z-0.125000 F400.0(Penetrate)
G01 X95.009895 Y96.985137 Z-0.125000 F800.000000
G01 X111.800155 Y98.715687 Z-0.125000
G00 Z3.000000

(End cutting path id: path14512)


(Start cutting path id: path14672)
(Change tool to Default tool)

G00 Z3.000000
G00 X101.621184 Y116.567565

G00 Z4.875000 (Fast pre-penetrate)
G01 Z-0.125000 F400.0(Penetrate)
G01 X109.161932 Y90.506010 Z-0.125000 F800.000000
G01 X106.461069 Y74.686061 Z-0.125000
G00 Z3.000000

(End cutting path id: path14672)


(Start cutting path id: path14510)
(Change tool to Default tool)

G00 Z3.000000
G00 X79.738067 Y94.448495

G00 Z4.875000 (Fast pre-penetrate)
G01 Z-0.125000 F400.0(Penetrate)
G01 X95.068844 Y97.638527 Z-0.125000 F800.000000
G01 X111.405434 Y99.822750 Z-0.125000
G00 Z3.000000

(End cutting path id: path14510)


(Start cutting path id: path14674)
(Change tool to Default tool)

G00 Z3.000000
G00 X101.935437 Y116.965654

G00 Z4.875000 (Fast pre-penetrate)
G01 Z-0.125000 F400.0(Penetrate)
G01 X109.929852 Y90.450426 Z-0.125000 F800.000000
G01 X107.183433 Y74.676036 Z-0.125000
G00 Z3.000000

(End cutting path id: path14674)


(Start cutting path id: path14508)
(Change tool to Default tool)

G00 Z3.000000
G00 X79.683549 Y95.215352

G00 Z4.875000 (Fast pre-penetrate)
G01 Z-0.125000 F400.0(Penetrate)
G01 X95.127794 Y98.291918 Z-0.125000 F800.000000
G01 X111.010711 Y100.929810 Z-0.125000
G00 Z3.000000

(End cutting path id: path14508)


(Start cutting path id: path14676)
(Change tool to Default tool)

G00 Z3.000000
G00 X102.249688 Y117.363740

G00 Z4.875000 (Fast pre-penetrate)
G01 Z-0.125000 F400.0(Penetrate)
G01 X110.697776 Y90.394843 Z-0.125000 F800.000000
G01 X107.905798 Y74.666011 Z-0.125000
G00 Z3.000000

(End cutting path id: path14676)


(Start cutting path id: path14506)
(Change tool to Default tool)

G00 Z3.000000
G00 X79.629032 Y95.982209

G00 Z4.875000 (Fast pre-penetrate)
G01 Z-0.125000 F400.0(Penetrate)
G01 X95.186743 Y98.945308 Z-0.125000 F800.000000
G01 X110.615990 Y102.036871 Z-0.125000
G00 Z3.000000

(End cutting path id: path14506)


(Start cutting path id: path14678)
(Change tool to Default tool)

G00 Z3.000000
G00 X102.563938 Y117.761829

G00 Z4.875000 (Fast pre-penetrate)
G01 Z-0.125000 F400.0(Penetrate)
G01 X111.465696 Y90.339262 Z-0.125000 F800.000000
G01 X108.628160 Y74.655985 Z-0.125000
G00 Z3.000000

(End cutting path id: path14678)


(Start cutting path id: path14504)
(Change tool to Default tool)

G00 Z3.000000
G00 X79.574515 Y96.749063

G00 Z4.875000 (Fast pre-penetrate)
G01 Z-0.125000 F400.0(Penetrate)
G01 X95.245689 Y99.598698 Z-0.125000 F800.000000
G01 X110.221267 Y103.143931 Z-0.125000
G00 Z3.000000

(End cutting path id: path14504)


(Start cutting path id: path14680)
(Change tool to Default tool)

G00 Z3.000000
G00 X102.878189 Y118.159918

G00 Z4.875000 (Fast pre-penetrate)
G01 Z-0.125000 F400.0(Penetrate)
G01 X112.233616 Y90.283678 Z-0.125000 F800.000000
G01 X109.350524 Y74.645960 Z-0.125000
G00 Z3.000000

(End cutting path id: path14680)


(Start cutting path id: path14502)
(Change tool to Default tool)

G00 Z3.000000
G00 X79.519997 Y97.515920

G00 Z4.875000 (Fast pre-penetrate)
G01 Z-0.125000 F400.0(Penetrate)
G01 X95.304638 Y100.252089 Z-0.125000 F800.000000
G01 X109.826546 Y104.250991 Z-0.125000
G00 Z3.000000

(End cutting path id: path14502)


(Start cutting path id: path14682)
(Change tool to Default tool)

G00 Z3.000000
G00 X103.192440 Y118.558005

G00 Z4.875000 (Fast pre-penetrate)
G01 Z-0.125000 F400.0(Penetrate)
G01 X113.001539 Y90.228097 Z-0.125000 F800.000000
G01 X110.072889 Y74.635938 Z-0.125000
G00 Z3.000000

(End cutting path id: path14682)


(Start cutting path id: path14624)
(Change tool to Default tool)

G00 Z3.000000
G00 X92.663378 Y108.429241

G00 Z4.875000 (Fast pre-penetrate)
G01 Z-0.125000 F400.0(Penetrate)
G01 X91.584575 Y90.987234 Z-0.125000 F800.000000
G01 X89.242851 Y74.808147 Z-0.125000
G00 Z3.000000

(End cutting path id: path14624)


(Start cutting path id: path14500)
(Change tool to Default tool)

G00 Z3.000000
G00 X79.465480 Y98.282776

G00 Z4.875000 (Fast pre-penetrate)
G01 Z-0.125000 F400.0(Penetrate)
G01 X95.363587 Y100.905479 Z-0.125000 F800.000000
G01 X109.431823 Y105.358054 Z-0.125000
G00 Z3.000000

(End cutting path id: path14500)


(Start cutting path id: path14684)
(Change tool to Default tool)

G00 Z3.000000
G00 X103.506690 Y118.956093

G00 Z4.875000 (Fast pre-penetrate)
G01 Z-0.125000 F400.0(Penetrate)
G01 X113.769460 Y90.172514 Z-0.125000 F800.000000
G01 X110.795251 Y74.625913 Z-0.125000
G00 Z3.000000

(End cutting path id: path14684)


(Start cutting path id: path14622)
(Change tool to Default tool)

G00 Z3.000000
G00 X91.995178 Y108.385100

G00 Z4.875000 (Fast pre-penetrate)
G01 Z-0.125000 F400.0(Penetrate)
G01 X91.029842 Y90.829627 Z-0.125000 F800.000000
G01 X88.550117 Y74.788544 Z-0.125000
G00 Z3.000000

(End cutting path id: path14622)


(Start cutting path id: path14498)
(Change tool to Default tool)

G00 Z3.000000
G00 X79.410963 Y99.049631

G00 Z4.875000 (Fast pre-penetrate)
G01 Z-0.125000 F400.0(Penetrate)
G01 X95.422536 Y101.558870 Z-0.125000 F800.000000
G01 X109.037102 Y106.465114 Z-0.125000
G00 Z3.000000

(End cutting path id: path14498)


(Start cutting path id: path14620)
(Change tool to Default tool)

G00 Z3.000000
G00 X91.326979 Y108.340960

G00 Z4.875000 (Fast pre-penetrate)
G01 Z-0.125000 F400.0(Penetrate)
G01 X90.475109 Y90.672023 Z-0.125000 F800.000000
G01 X87.857381 Y74.768939 Z-0.125000
G00 Z3.000000

(End cutting path id: path14620)


(Start cutting path id: path14496)
(Change tool to Default tool)

G00 Z3.000000
G00 X79.356445 Y99.816487

G00 Z4.875000 (Fast pre-penetrate)
G01 Z-0.125000 F400.0(Penetrate)
G01 X95.481485 Y102.212260 Z-0.125000 F800.000000
G01 X108.642381 Y107.572174 Z-0.125000
G00 Z3.000000

(End cutting path id: path14496)


(Start cutting path id: path14618)
(Change tool to Default tool)

G00 Z3.000000
G00 X90.658783 Y108.296820

G00 Z4.875000 (Fast pre-penetrate)
G01 Z-0.125000 F400.0(Penetrate)
G01 X89.920377 Y90.514416 Z-0.125000 F800.000000
G01 X87.164644 Y74.749336 Z-0.125000
G00 Z3.000000

(End cutting path id: path14618)


(Start cutting path id: path14494)
(Change tool to Default tool)

G00 Z3.000000
G00 X79.301931 Y100.583344

G00 Z4.875000 (Fast pre-penetrate)
G01 Z-0.125000 F400.0(Penetrate)
G01 X95.540435 Y102.865650 Z-0.125000 F800.000000
G01 X108.247658 Y108.679235 Z-0.125000
G00 Z3.000000

(End cutting path id: path14494)


(Start cutting path id: path14616)
(Change tool to Default tool)

G00 Z3.000000
G00 X89.990584 Y108.252679

G00 Z4.875000 (Fast pre-penetrate)
G01 Z-0.125000 F400.0(Penetrate)
G01 X89.365644 Y90.356809 Z-0.125000 F800.000000
G01 X86.471910 Y74.729733 Z-0.125000
G00 Z3.000000

(End cutting path id: path14616)


(Start cutting path id: path14492)
(Change tool to Default tool)

G00 Z3.000000
G00 X79.247413 Y101.350198

G00 Z4.875000 (Fast pre-penetrate)
G01 Z-0.125000 F400.0(Penetrate)
G01 X95.599384 Y103.519041 Z-0.125000 F800.000000
G01 X107.852937 Y109.786295 Z-0.125000
G00 Z3.000000

(End cutting path id: path14492)


(Start cutting path id: path14614)
(Change tool to Default tool)

G00 Z3.000000
G00 X89.322385 Y108.208539

G00 Z4.875000 (Fast pre-penetrate)
G01 Z-0.125000 F400.0(Penetrate)
G01 X88.810911 Y90.199202 Z-0.125000 F800.000000
G01 X85.779174 Y74.710130 Z-0.125000
G00 Z3.000000

(End cutting path id: path14614)


(Start cutting path id: path14490)
(Change tool to Default tool)

G00 Z3.000000
G00 X79.192896 Y102.117055

G00 Z4.875000 (Fast pre-penetrate)
G01 Z-0.125000 F400.0(Penetrate)
G01 X95.658330 Y104.172428 Z-0.125000 F800.000000
G01 X107.458213 Y110.893358 Z-0.125000
G00 Z3.000000

(End cutting path id: path14490)


(Start cutting path id: path14612)
(Change tool to Default tool)

G00 Z3.000000
G00 X88.654186 Y108.164398

G00 Z4.875000 (Fast pre-penetrate)
G01 Z-0.125000 F400.0(Penetrate)
G01 X88.256179 Y90.041598 Z-0.125000 F800.000000
G01 X85.086440 Y74.690527 Z-0.125000
G00 Z3.000000

(End cutting path id: path14612)


(Start cutting path id: path14488)
(Change tool to Default tool)

G00 Z3.000000
G00 X79.138379 Y102.883912

G00 Z4.875000 (Fast pre-penetrate)
G01 Z-0.125000 F400.0(Penetrate)
G01 X95.717279 Y104.825819 Z-0.125000 F800.000000
G01 X107.063493 Y112.000418 Z-0.125000
G00 Z3.000000

(End cutting path id: path14488)


(Start cutting path id: path14610)
(Change tool to Default tool)

G00 Z3.000000
G00 X87.985987 Y108.120258

G00 Z4.875000 (Fast pre-penetrate)
G01 Z-0.125000 F400.0(Penetrate)
G01 X87.701446 Y89.883991 Z-0.125000 F800.000000
G01 X84.393704 Y74.670924 Z-0.125000
G00 Z3.000000

(End cutting path id: path14610)


(Start cutting path id: path14486)
(Change tool to Default tool)

G00 Z3.000000
G00 X79.083861 Y103.650766

G00 Z4.875000 (Fast pre-penetrate)
G01 Z-0.125000 F400.0(Penetrate)
G01 X95.776228 Y105.479209 Z-0.125000 F800.000000
G01 X106.668769 Y113.107478 Z-0.125000
G00 Z3.000000

(End cutting path id: path14486)


(Start cutting path id: path14608)
(Change tool to Default tool)

G00 Z3.000000
G00 X87.317790 Y108.076118

G00 Z4.875000 (Fast pre-penetrate)
G01 Z-0.125000 F400.0(Penetrate)
G01 X87.146714 Y89.726384 Z-0.125000 F800.000000
G01 X83.700967 Y74.651318 Z-0.125000
G00 Z3.000000

(End cutting path id: path14608)


(Start cutting path id: path14484)
(Change tool to Default tool)

G00 Z3.000000
G00 X79.029344 Y104.417623

G00 Z4.875000 (Fast pre-penetrate)
G01 Z-0.125000 F400.0(Penetrate)
G01 X95.835177 Y106.132599 Z-0.125000 F800.000000
G01 X106.274048 Y114.214539 Z-0.125000
G00 Z3.000000

(End cutting path id: path14484)


(Start cutting path id: path14606)
(Change tool to Default tool)

G00 Z3.000000
G00 X86.649591 Y108.031977

G00 Z4.875000 (Fast pre-penetrate)
G01 Z-0.125000 F400.0(Penetrate)
G01 X86.591978 Y89.568780 Z-0.125000 F800.000000
G01 X83.008233 Y74.631715 Z-0.125000
G00 Z3.000000

(End cutting path id: path14606)


(Start cutting path id: path14482)
(Change tool to Default tool)

G00 Z3.000000
G00 X78.974827 Y105.184480

G00 Z4.875000 (Fast pre-penetrate)
G01 Z-0.125000 F400.0(Penetrate)
G01 X95.894126 Y106.785990 Z-0.125000 F800.000000
G01 X105.879327 Y115.321599 Z-0.125000
G00 Z3.000000

(End cutting path id: path14482)


(Start cutting path id: path14604)
(Change tool to Default tool)

G00 Z3.000000
G00 X85.981392 Y107.987837

G00 Z4.875000 (Fast pre-penetrate)
G01 Z-0.125000 F400.0(Penetrate)
G01 X86.037246 Y89.411173 Z-0.125000 F800.000000
G01 X82.315497 Y74.612112 Z-0.125000
G00 Z3.000000

(End cutting path id: path14604)


(Start cutting path id: path14480)
(Change tool to Default tool)

G00 Z3.000000
G00 X78.920309 Y105.951334

G00 Z4.875000 (Fast pre-penetrate)
G01 Z-0.125000 F400.0(Penetrate)
G01 X95.953076 Y107.439380 Z-0.125000 F800.000000
G01 X105.484604 Y116.428662 Z-0.125000
G00 Z3.000000

(End cutting path id: path14480)


(Start cutting path id: path14602)
(Change tool to Default tool)

G00 Z3.000000
G00 X85.313193 Y107.943697

G00 Z4.875000 (Fast pre-penetrate)
G01 Z-0.125000 F400.0(Penetrate)
G01 X85.482513 Y89.253567 Z-0.125000 F800.000000
G01 X81.622763 Y74.592509 Z-0.125000
G00 Z3.000000

(End cutting path id: path14602)


(Start cutting path id: path14478)
(Change tool to Default tool)

G00 Z3.000000
G00 X78.865792 Y106.718190

G00 Z4.875000 (Fast pre-penetrate)
G01 Z-0.125000 F400.0(Penetrate)
G01 X96.012022 Y108.092771 Z-0.125000 F800.000000
G01 X105.089883 Y117.535722 Z-0.125000
G00 Z3.000000

(End cutting path id: path14478)


(Start cutting path id: path14600)
(Change tool to Default tool)

G00 Z3.000000
G00 X84.644997 Y107.899556

G00 Z4.875000 (Fast pre-penetrate)
G01 Z-0.125000 F400.0(Penetrate)
G01 X84.927780 Y89.095960 Z-0.125000 F800.000000
G01 X80.930026 Y74.572906 Z-0.125000
G00 Z3.000000

(End cutting path id: path14600)


(Start cutting path id: path14476)
(Change tool to Default tool)

G00 Z3.000000
G00 X78.811275 Y107.485047

G00 Z4.875000 (Fast pre-penetrate)
G01 Z-0.125000 F400.0(Penetrate)
G01 X96.070971 Y108.746161 Z-0.125000 F800.000000
G01 X104.695160 Y118.642782 Z-0.125000
G00 Z3.000000

(End cutting path id: path14476)


(Start cutting path id: path14598)
(Change tool to Default tool)

G00 Z3.000000
G00 X83.976798 Y107.855416

G00 Z4.875000 (Fast pre-penetrate)
G01 Z-0.125000 F400.0(Penetrate)
G01 X84.373048 Y88.938356 Z-0.125000 F800.000000
G01 X80.237290 Y74.553303 Z-0.125000
G00 Z3.000000

(End cutting path id: path14598)


(Start cutting path id: path14582)
(Change tool to Default tool)

G00 Z3.000000
G00 X78.631208 Y107.502293

G00 Z4.875000 (Fast pre-penetrate)
G01 Z-0.125000 F400.0(Penetrate)
G01 X79.935186 Y87.677507 Z-0.125000 F800.000000
G01 X74.695408 Y74.396475 Z-0.125000
G00 Z3.000000

(End cutting path id: path14582)


(Start cutting path id: path14584)
(Change tool to Default tool)

G00 Z3.000000
G00 X79.299407 Y107.546433

G00 Z4.875000 (Fast pre-penetrate)
G01 Z-0.125000 F400.0(Penetrate)
G01 X80.489919 Y87.835113 Z-0.125000 F800.000000
G01 X75.388142 Y74.416077 Z-0.125000
G00 Z3.000000

(End cutting path id: path14584)


(Start cutting path id: path14586)
(Change tool to Default tool)

G00 Z3.000000
G00 X79.967606 Y107.590574

G00 Z4.875000 (Fast pre-penetrate)
G01 Z-0.125000 F400.0(Penetrate)
G01 X81.044652 Y87.992718 Z-0.125000 F800.000000
G01 X76.080879 Y74.435683 Z-0.125000
G00 Z3.000000

(End cutting path id: path14586)


(Start cutting path id: path14588)
(Change tool to Default tool)

G00 Z3.000000
G00 X80.635805 Y107.634714

G00 Z4.875000 (Fast pre-penetrate)
G01 Z-0.125000 F400.0(Penetrate)
G01 X81.599384 Y88.150324 Z-0.125000 F800.000000
G01 X76.773613 Y74.455286 Z-0.125000
G00 Z3.000000

(End cutting path id: path14588)


(Start cutting path id: path14590)
(Change tool to Default tool)

G00 Z3.000000
G00 X81.304004 Y107.678854

G00 Z4.875000 (Fast pre-penetrate)
G01 Z-0.125000 F400.0(Penetrate)
G01 X82.154117 Y88.307931 Z-0.125000 F800.000000
G01 X77.466349 Y74.474889 Z-0.125000
G00 Z3.000000

(End cutting path id: path14590)


(Start cutting path id: path14592)
(Change tool to Default tool)

G00 Z3.000000
G00 X81.972200 Y107.722995

G00 Z4.875000 (Fast pre-penetrate)
G01 Z-0.125000 F400.0(Penetrate)
G01 X82.708850 Y88.465535 Z-0.125000 F800.000000
G01 X78.159086 Y74.494492 Z-0.125000
G00 Z3.000000

(End cutting path id: path14592)


(Start cutting path id: path14594)
(Change tool to Default tool)

G00 Z3.000000
G00 X82.640399 Y107.767135

G00 Z4.875000 (Fast pre-penetrate)
G01 Z-0.125000 F400.0(Penetrate)
G01 X83.263582 Y88.623142 Z-0.125000 F800.000000
G01 X78.851820 Y74.514095 Z-0.125000
G00 Z3.000000

(End cutting path id: path14594)


(Start cutting path id: path14596)
(Change tool to Default tool)

G00 Z3.000000
G00 X83.308598 Y107.811275

G00 Z4.875000 (Fast pre-penetrate)
G01 Z-0.125000 F400.0(Penetrate)
G01 X83.818315 Y88.780749 Z-0.125000 F800.000000
G01 X79.544556 Y74.533698 Z-0.125000
G00 Z3.000000

(End cutting path id: path14596)


(Start cutting path id: path14474)
(Change tool to Default tool)

G00 Z3.000000
G00 X78.756760 Y108.251901

G00 Z4.875000 (Fast pre-penetrate)
G01 Z-0.125000 F400.0(Penetrate)
G01 X96.129920 Y109.399551 Z-0.125000 F800.000000
G01 X104.300439 Y119.749842 Z-0.125000
G00 Z3.000000

(End cutting path id: path14474)



(Footer)
M5
G00 X0.0000 Y0.0000
M2
(Using default footer. To add your own footer create file "footer" in the output dir.)
(end)
%