%
(Header)
(Generated by gcodetools from Inkscape.)
(Using default header. To add your own header create file "header" in the output dir.)
M3
(Header end.)
G21 (All units in mm)

(Start cutting path id: polyline160789)
(Change tool to Default tool)

G00 Z5.000000
G00 X142.170108 Y228.201206

G00 Z4.875000 (Fast pre-penetrate)
G01 Z-0.125000 F100.0(Penetrate)
G01 X126.090224 Y201.056471 Z-0.125000 F800.000000
G01 X139.953324 Y186.651143 Z-0.125000
G01 X140.626142 Y157.733809 Z-0.125000
G01 X128.240715 Y148.767332 Z-0.125000
G01 X141.380977 Y119.247218 Z-0.125000
G01 X136.876024 Y89.689414 Z-0.125000
G01 X140.307404 Y76.375880 Z-0.125000
G01 X137.747173 Y55.243323 Z-0.125000
G01 X142.566920 Y34.188242 Z-0.125000
G00 Z5.000000

(End cutting path id: polyline160789)


(Start cutting path id: polyline160507)
(Change tool to Default tool)

G00 Z5.000000
G00 X144.569349 Y34.395259

G00 Z4.875000 (Fast pre-penetrate)
G01 Z-0.125000 F100.0(Penetrate)
G01 X138.361584 Y55.319351 Z-0.125000 F800.000000
G01 X142.252376 Y76.624480 Z-0.125000
G01 X137.022089 Y89.520635 Z-0.125000
G01 X143.534314 Y119.409057 Z-0.125000
G01 X128.651404 Y148.879202 Z-0.125000
G01 X141.816377 Y157.752429 Z-0.125000
G01 X141.361159 Y186.640210 Z-0.125000
G01 X126.479847 Y201.277215 Z-0.125000
G01 X143.434524 Y228.371183 Z-0.125000
G00 Z5.000000

(End cutting path id: polyline160507)


(Start cutting path id: polyline160509)
(Change tool to Default tool)

G00 Z5.000000
G00 X143.721263 Y228.213686

G00 Z4.875000 (Fast pre-penetrate)
G01 Z-0.125000 F100.0(Penetrate)
G01 X128.652203 Y201.006301 Z-0.125000 F800.000000
G01 X142.479161 Y186.385969 Z-0.125000
G01 X142.451855 Y158.379670 Z-0.125000
G01 X130.342084 Y148.430324 Z-0.125000
G01 X144.800078 Y119.003510 Z-0.125000
G01 X137.625419 Y90.336673 Z-0.125000
G01 X143.635201 Y76.675997 Z-0.125000
G01 X139.798623 Y55.530312 Z-0.125000
G01 X145.641873 Y34.896004 Z-0.125000
G00 Z5.000000

(End cutting path id: polyline160509)


(Start cutting path id: polyline160511)
(Change tool to Default tool)

G00 Z5.000000
G00 X162.802619 Y42.908065

G00 Z4.875000 (Fast pre-penetrate)
G01 Z-0.125000 F100.0(Penetrate)
G01 X162.790838 Y58.905682 Z-0.125000 F800.000000
G01 X165.760311 Y77.500221 Z-0.125000
G01 X147.279240 Y103.392871 Z-0.125000
G01 X165.052100 Y112.514248 Z-0.125000
G01 X157.393071 Y141.247928 Z-0.125000
G01 X152.619649 Y168.415726 Z-0.125000
G01 X160.367236 Y182.318362 Z-0.125000
G01 X163.409642 Y196.671324 Z-0.125000
G01 X148.309133 Y225.693640 Z-0.125000
G00 Z5.000000

(End cutting path id: polyline160511)


(Start cutting path id: polyline160513)
(Change tool to Default tool)

G00 Z5.000000
G00 X148.022394 Y225.851136

G00 Z4.875000 (Fast pre-penetrate)
G01 Z-0.125000 F100.0(Penetrate)
G01 X161.237287 Y196.942289 Z-0.125000 F800.000000
G01 X159.249235 Y182.572553 Z-0.125000
G01 X151.984171 Y167.788435 Z-0.125000
G01 X155.702390 Y141.696806 Z-0.125000
G01 X163.786337 Y112.919846 Z-0.125000
G01 X146.675910 Y102.576833 Z-0.125000
G01 X164.377486 Y77.448704 Z-0.125000
G01 X161.353849 Y58.694721 Z-0.125000
G01 X161.730094 Y42.407271 Z-0.125000
G00 Z5.000000

(End cutting path id: polyline160513)


(Start cutting path id: polyline160515)
(Change tool to Default tool)

G00 Z5.000000
G00 X181.049767 Y31.688413

G00 Z4.875000 (Fast pre-penetrate)
G01 Z-0.125000 F100.0(Penetrate)
G01 X163.777651 Y46.925253 Z-0.125000 F800.000000
G01 X190.590769 Y68.144521 Z-0.125000
G01 X166.703294 Y104.271008 Z-0.125000
G01 X197.939448 Y121.292128 Z-0.125000
G01 X178.397583 Y131.217762 Z-0.125000
G01 X186.587409 Y167.773110 Z-0.125000
G01 X178.419248 Y184.825280 Z-0.125000
G01 X188.847074 Y199.180838 Z-0.125000
G01 X173.703135 Y220.619801 Z-0.125000
G00 Z5.000000

(End cutting path id: polyline160515)


(Start cutting path id: polyline160517)
(Change tool to Default tool)

G00 Z5.000000
G00 X175.225486 Y220.640119

G00 Z4.875000 (Fast pre-penetrate)
G01 Z-0.125000 F100.0(Penetrate)
G01 X189.053592 Y198.893650 Z-0.125000 F800.000000
G01 X180.169982 Y184.987619 Z-0.125000
G01 X187.576868 Y167.579721 Z-0.125000
G01 X179.117126 Y131.081581 Z-0.125000
G01 X198.469795 Y121.721737 Z-0.125000
G01 X168.808758 Y103.979227 Z-0.125000
G01 X191.321244 Y68.739963 Z-0.125000
G01 X165.551048 Y46.992695 Z-0.125000
G01 X182.049359 Y31.669294 Z-0.125000
G00 Z5.000000

(End cutting path id: polyline160517)


(Start cutting path id: polyline160519)
(Change tool to Default tool)

G00 Z5.000000
G00 X198.043381 Y31.363186

G00 Z4.875000 (Fast pre-penetrate)
G01 Z-0.125000 F100.0(Penetrate)
G01 X193.925405 Y48.071659 Z-0.125000 F800.000000
G01 X203.009543 Y78.266588 Z-0.125000
G01 X202.496119 Y99.310487 Z-0.125000
G01 X206.955695 Y128.595330 Z-0.125000
G01 X190.629657 Y128.902786 Z-0.125000
G01 X203.408651 Y164.485448 Z-0.125000
G01 X208.182222 Y187.585689 Z-0.125000
G01 X192.358226 Y194.298741 Z-0.125000
G01 X199.583454 Y220.965146 Z-0.125000
G00 Z5.000000

(End cutting path id: polyline160519)


(Start cutting path id: polyline160521)
(Change tool to Default tool)

G00 Z5.000000
G00 X198.061053 Y220.944828

G00 Z4.875000 (Fast pre-penetrate)
G01 Z-0.125000 F100.0(Penetrate)
G01 X192.151659 Y194.585929 Z-0.125000 F800.000000
G01 X206.431438 Y187.423301 Z-0.125000
G01 X202.419142 Y164.678837 Z-0.125000
G01 X189.910164 Y129.038967 Z-0.125000
G01 X206.425348 Y128.165721 Z-0.125000
G01 X200.390655 Y99.602268 Z-0.125000
G01 X202.279018 Y77.671146 Z-0.125000
G01 X192.152008 Y48.004218 Z-0.125000
G01 X197.043739 Y31.382356 Z-0.125000
G00 Z5.000000

(End cutting path id: polyline160521)


(Start cutting path id: polyline160503)
(Change tool to Default tool)

G00 Z5.000000
G00 X110.528007 Y30.875770

G00 Z4.875000 (Fast pre-penetrate)
G01 Z-0.125000 F100.0(Penetrate)
G01 X127.916736 Y54.026580 Z-0.125000 F800.000000
G01 X109.188062 Y72.397929 Z-0.125000
G01 X134.539532 Y92.389470 Z-0.125000
G01 X106.926900 Y116.657933 Z-0.125000
G01 X121.669884 Y146.977112 Z-0.125000
G01 X121.582924 Y157.436537 Z-0.125000
G01 X117.427359 Y186.826211 Z-0.125000
G01 X119.856202 Y197.524602 Z-0.125000
G01 X121.940050 Y225.481880 Z-0.125000
G00 Z5.000000

(End cutting path id: polyline160503)


(Start cutting path id: polyline160505)
(Change tool to Default tool)

G00 Z5.000000
G00 X123.204416 Y225.651807

G00 Z4.875000 (Fast pre-penetrate)
G01 Z-0.125000 F100.0(Penetrate)
G01 X120.245825 Y197.745347 Z-0.125000 F800.000000
G01 X118.835244 Y186.815279 Z-0.125000
G01 X122.773160 Y157.455107 Z-0.125000
G01 X122.080524 Y147.088982 Z-0.125000
G01 X109.080286 Y116.819772 Z-0.125000
G01 X134.685548 Y92.220692 Z-0.125000
G01 X111.132984 Y72.646579 Z-0.125000
G01 X128.531147 Y54.102658 Z-0.125000
G01 X112.530436 Y31.082837 Z-0.125000
G00 Z5.000000

(End cutting path id: polyline160505)


(Start cutting path id: polyline160499)
(Change tool to Default tool)

G00 Z5.000000
G00 X87.534694 Y35.478766

G00 Z4.875000 (Fast pre-penetrate)
G01 Z-0.125000 F100.0(Penetrate)
G01 X106.587146 Y53.759660 Z-0.125000 F800.000000
G01 X88.255884 Y66.749564 Z-0.125000
G01 X98.895469 Y109.562446 Z-0.125000
G01 X95.774639 Y138.916827 Z-0.125000
G01 X82.386575 Y164.349766 Z-0.125000
G01 X102.578245 Y182.802034 Z-0.125000
G01 X101.120939 Y198.343784 Z-0.125000
G01 X91.974502 Y221.413125 Z-0.125000
G00 Z5.000000

(End cutting path id: polyline160499)


(Start cutting path id: polyline160501)
(Change tool to Default tool)

G00 Z5.000000
G00 X90.710186 Y221.117151

G00 Z4.875000 (Fast pre-penetrate)
G01 Z-0.125000 F100.0(Penetrate)
G01 X99.779397 Y198.165671 Z-0.125000 F800.000000
G01 X100.821670 Y182.653174 Z-0.125000
G01 X81.390327 Y164.000378 Z-0.125000
G01 X94.209207 Y138.799816 Z-0.125000
G01 X98.068499 Y109.868105 Z-0.125000
G01 X96.052542 Y107.289602 Z-0.125000
G01 X87.526107 Y67.540442 Z-0.125000
G01 X104.647017 Y53.575107 Z-0.125000
G01 X86.623509 Y35.375981 Z-0.125000
G00 Z5.000000

(End cutting path id: polyline160501)


(Start cutting path id: polyline160495)
(Change tool to Default tool)

G00 Z5.000000
G00 X72.045110 Y33.731726

G00 Z4.875000 (Fast pre-penetrate)
G01 Z-0.125000 F100.0(Penetrate)
G01 X73.605350 Y50.621757 Z-0.125000 F800.000000
G01 X75.849890 Y80.194837 Z-0.125000
G01 X60.950057 Y111.075962 Z-0.125000
G01 X84.836833 Y114.758688 Z-0.125000
G01 X69.162846 Y136.927777 Z-0.125000
G01 X65.449969 Y158.410071 Z-0.125000
G01 X72.716730 Y180.270856 Z-0.125000
G01 X78.314425 Y195.316204 Z-0.125000
G01 X70.480976 Y216.381669 Z-0.125000
G00 Z5.000000

(End cutting path id: polyline160495)


(Start cutting path id: polyline160497)
(Change tool to Default tool)

G00 Z5.000000
G00 X69.516877 Y216.730807

G00 Z4.875000 (Fast pre-penetrate)
G01 Z-0.125000 F100.0(Penetrate)
G01 X76.398807 Y195.158558 Z-0.125000 F800.000000
G01 X71.713294 Y180.870541 Z-0.125000
G01 X65.147356 Y158.505417 Z-0.125000
G01 X67.264999 Y136.412755 Z-0.125000
G01 X83.232314 Y115.145316 Z-0.125000
G01 X60.688478 Y110.450019 Z-0.125000
G01 X74.542892 Y79.973093 Z-0.125000
G01 X72.611748 Y50.877646 Z-0.125000
G01 X71.138968 Y33.914383 Z-0.125000
G00 Z5.000000

(End cutting path id: polyline160497)


(Start cutting path id: polyline160491)
(Change tool to Default tool)

G00 Z5.000000
G00 X56.641139 Y36.837480

G00 Z4.875000 (Fast pre-penetrate)
G01 Z-0.125000 F100.0(Penetrate)
G01 X56.713772 Y54.971760 Z-0.125000 F800.000000
G01 X53.630781 Y76.425200 Z-0.125000
G01 X56.503260 Y100.434579 Z-0.125000
G01 X57.559761 Y121.331265 Z-0.125000
G01 X36.899944 Y128.172361 Z-0.125000
G01 X60.305145 Y160.031113 Z-0.125000
G01 X55.657870 Y190.465457 Z-0.125000
G01 X45.749409 Y192.636665 Z-0.125000
G01 X54.091889 Y222.316622 Z-0.125000
G00 Z5.000000

(End cutting path id: polyline160491)


(Start cutting path id: polyline160493)
(Change tool to Default tool)

G00 Z5.000000
G00 X55.055988 Y221.967533

G00 Z4.875000 (Fast pre-penetrate)
G01 Z-0.125000 F100.0(Penetrate)
G01 X47.664977 Y192.794311 Z-0.125000 F800.000000
G01 X56.661306 Y189.865772 Z-0.125000
G01 X60.607808 Y159.935767 Z-0.125000
G01 X38.797741 Y128.687382 Z-0.125000
G01 X59.164330 Y120.944637 Z-0.125000
G01 X56.764840 Y101.060572 Z-0.125000
G01 X54.937779 Y76.646944 Z-0.125000
G01 X57.707373 Y54.715872 Z-0.125000
G01 X57.547281 Y36.654824 Z-0.125000
G00 Z5.000000

(End cutting path id: polyline160493)


(Start cutting path id: polyline160487)
(Change tool to Default tool)

G00 Z5.000000
G00 X38.582138 Y43.306824

G00 Z4.875000 (Fast pre-penetrate)
G01 Z-0.125000 F100.0(Penetrate)
G01 X46.564947 Y59.169657 Z-0.125000 F800.000000
G01 X34.933607 Y84.528466 Z-0.125000
G01 X29.138129 Y98.002791 Z-0.125000
G01 X36.653141 Y122.380428 Z-0.125000
G01 X20.629766 Y141.429685 Z-0.125000
G01 X44.022187 Y157.845679 Z-0.125000
G01 X24.133380 Y186.578060 Z-0.125000
G01 X28.815099 Y198.849171 Z-0.125000
G01 X28.751352 Y222.844173 Z-0.125000
G00 Z5.000000

(End cutting path id: polyline160487)


(Start cutting path id: polyline160489)
(Change tool to Default tool)

G00 Z5.000000
G00 X28.089267 Y222.690670

G00 Z4.875000 (Fast pre-penetrate)
G01 Z-0.125000 F100.0(Penetrate)
G01 X28.048083 Y198.927795 Z-0.125000 F800.000000
G01 X22.836266 Y185.912331 Z-0.125000
G01 X42.801501 Y157.209252 Z-0.125000
G01 X20.080699 Y141.489689 Z-0.125000
G01 X34.889578 Y122.385919 Z-0.125000
G01 X27.622168 Y97.468251 Z-0.125000
G01 X34.036750 Y84.187464 Z-0.125000
G01 X44.350908 Y59.073462 Z-0.125000
G01 X36.818824 Y42.570359 Z-0.125000
G00 Z5.000000

(End cutting path id: polyline160489)


(Start cutting path id: polyline160483)
(Change tool to Default tool)

G00 Z5.000000
G00 X8.605608 Y30.787263

G00 Z4.875000 (Fast pre-penetrate)
G01 Z-0.125000 F100.0(Penetrate)
G01 X8.926941 Y57.534538 Z-0.125000 F800.000000
G01 X19.687182 Y78.731590 Z-0.125000
G01 X3.366785 Y88.915459 Z-0.125000
G01 X6.672767 Y122.473228 Z-0.125000
G01 X11.296080 Y142.449694 Z-0.125000
G01 X23.271217 Y147.026083 Z-0.125000
G01 X2.082101 Y175.260765 Z-0.125000
G01 X15.775574 Y200.185721 Z-0.125000
G01 X17.496506 Y220.235220 Z-0.125000
G00 Z5.000000

(End cutting path id: polyline160483)


(Start cutting path id: polyline160485)
(Change tool to Default tool)

G00 Z5.000000
G00 X18.158541 Y220.388673

G00 Z4.875000 (Fast pre-penetrate)
G01 Z-0.125000 F100.0(Penetrate)
G01 X16.542590 Y200.107098 Z-0.125000 F800.000000
G01 X3.379215 Y175.926494 Z-0.125000
G01 X24.491853 Y147.662559 Z-0.125000
G01 X11.845097 Y142.389691 Z-0.125000
G01 X8.436330 Y122.467787 Z-0.125000
G01 X4.882746 Y89.450049 Z-0.125000
G01 X20.584039 Y79.072592 Z-0.125000
G01 X11.140929 Y57.630733 Z-0.125000
G01 X10.368921 Y31.523728 Z-0.125000
G00 Z5.000000

(End cutting path id: polyline160485)


(Start cutting path id: polyline160681)
(Change tool to Default tool)

G00 Z5.000000
G00 X18.820576 Y220.542176

G00 Z4.875000 (Fast pre-penetrate)
G01 Z-0.125000 F100.0(Penetrate)
G01 X17.309607 Y200.028474 Z-0.125000 F800.000000
G01 X4.676328 Y176.592173 Z-0.125000
G01 X25.712490 Y148.298985 Z-0.125000
G01 X12.394163 Y142.329687 Z-0.125000
G01 X6.398708 Y89.984589 Z-0.125000
G01 X21.480847 Y79.413593 Z-0.125000
G01 X13.354918 Y57.726928 Z-0.125000
G01 X12.132235 Y32.260144 Z-0.125000
G00 Z5.000000

(End cutting path id: polyline160681)


(Start cutting path id: polyline160683)
(Change tool to Default tool)

G00 Z5.000000
G00 X19.482661 Y220.695629

G00 Z4.875000 (Fast pre-penetrate)
G01 Z-0.125000 F100.0(Penetrate)
G01 X18.076673 Y199.949851 Z-0.125000 F800.000000
G01 X5.973492 Y177.257903 Z-0.125000
G01 X26.933126 Y148.935412 Z-0.125000
G01 X12.943180 Y142.269684 Z-0.125000
G01 X11.963406 Y122.456855 Z-0.125000
G01 X7.914669 Y90.519129 Z-0.125000
G01 X22.377704 Y79.754595 Z-0.125000
G01 X15.568907 Y57.823073 Z-0.125000
G01 X13.895598 Y32.996609 Z-0.125000
G00 Z5.000000

(End cutting path id: polyline160683)


(Start cutting path id: polyline160685)
(Change tool to Default tool)

G00 Z5.000000
G00 X20.144696 Y220.849082

G00 Z4.875000 (Fast pre-penetrate)
G01 Z-0.125000 F100.0(Penetrate)
G01 X18.843689 Y199.871227 Z-0.125000 F800.000000
G01 X7.270605 Y177.923632 Z-0.125000
G01 X28.153763 Y149.571888 Z-0.125000
G01 X13.492247 Y142.209681 Z-0.125000
G01 X13.726970 Y122.451413 Z-0.125000
G01 X9.430631 Y91.053669 Z-0.125000
G01 X23.274561 Y80.095596 Z-0.125000
G01 X17.782895 Y57.919269 Z-0.125000
G01 X15.658912 Y33.733024 Z-0.125000
G00 Z5.000000

(End cutting path id: polyline160685)


(Start cutting path id: polyline160687)
(Change tool to Default tool)

G00 Z5.000000
G00 X20.806731 Y221.002536

G00 Z4.875000 (Fast pre-penetrate)
G01 Z-0.125000 F100.0(Penetrate)
G01 X19.610755 Y199.792604 Z-0.125000 F800.000000
G01 X8.567769 Y178.589361 Z-0.125000
G01 X29.374449 Y150.208314 Z-0.125000
G01 X14.041264 Y142.149677 Z-0.125000
G01 X15.490533 Y122.445922 Z-0.125000
G01 X10.946592 Y91.588209 Z-0.125000
G01 X24.171419 Y80.436548 Z-0.125000
G01 X19.996934 Y58.015464 Z-0.125000
G01 X17.422225 Y34.469490 Z-0.125000
G00 Z5.000000

(End cutting path id: polyline160687)


(Start cutting path id: polyline160689)
(Change tool to Default tool)

G00 Z5.000000
G00 X21.468816 Y221.156039

G00 Z4.875000 (Fast pre-penetrate)
G01 Z-0.125000 F100.0(Penetrate)
G01 X20.377771 Y199.713980 Z-0.125000 F800.000000
G01 X9.864882 Y179.255090 Z-0.125000
G01 X30.595086 Y150.844790 Z-0.125000
G01 X14.590281 Y142.089674 Z-0.125000
G01 X17.254096 Y122.440481 Z-0.125000
G01 X12.462553 Y92.122750 Z-0.125000
G01 X25.068276 Y80.777549 Z-0.125000
G01 X19.185589 Y35.205955 Z-0.125000
G00 Z5.000000

(End cutting path id: polyline160689)


(Start cutting path id: polyline160691)
(Change tool to Default tool)

G00 Z5.000000
G00 X22.130851 Y221.309492

G00 Z4.875000 (Fast pre-penetrate)
G01 Z-0.125000 F100.0(Penetrate)
G01 X21.144787 Y199.635357 Z-0.125000 F800.000000
G01 X11.161996 Y179.920819 Z-0.125000
G01 X31.815722 Y151.481216 Z-0.125000
G01 X15.139348 Y142.029720 Z-0.125000
G01 X19.017609 Y122.435040 Z-0.125000
G01 X13.978515 Y92.657290 Z-0.125000
G01 X25.965084 Y81.118551 Z-0.125000
G01 X24.424911 Y58.207805 Z-0.125000
G01 X20.948902 Y35.942370 Z-0.125000
G00 Z5.000000

(End cutting path id: polyline160691)


(Start cutting path id: polyline160693)
(Change tool to Default tool)

G00 Z5.000000
G00 X22.792886 Y221.462945

G00 Z4.875000 (Fast pre-penetrate)
G01 Z-0.125000 F100.0(Penetrate)
G01 X21.911853 Y199.556733 Z-0.125000 F800.000000
G01 X12.459159 Y180.586548 Z-0.125000
G01 X33.036359 Y152.117643 Z-0.125000
G01 X15.688364 Y141.969717 Z-0.125000
G01 X20.781172 Y122.429549 Z-0.125000
G01 X15.494476 Y93.191880 Z-0.125000
G01 X26.861941 Y81.459552 Z-0.125000
G01 X26.638900 Y58.304000 Z-0.125000
G01 X22.712216 Y36.678836 Z-0.125000
G00 Z5.000000

(End cutting path id: polyline160693)


(Start cutting path id: polyline160695)
(Change tool to Default tool)

G00 Z5.000000
G00 X23.454971 Y221.616398

G00 Z4.875000 (Fast pre-penetrate)
G01 Z-0.125000 F100.0(Penetrate)
G01 X22.678870 Y199.478109 Z-0.125000 F800.000000
G01 X13.756272 Y181.252277 Z-0.125000
G01 X34.256995 Y152.754119 Z-0.125000
G01 X16.237431 Y141.909713 Z-0.125000
G01 X22.544735 Y122.424107 Z-0.125000
G01 X17.010438 Y93.726420 Z-0.125000
G01 X27.758798 Y81.800554 Z-0.125000
G01 X28.852888 Y58.400195 Z-0.125000
G01 X24.475530 Y37.415251 Z-0.125000
G00 Z5.000000

(End cutting path id: polyline160695)


(Start cutting path id: polyline160697)
(Change tool to Default tool)

G00 Z5.000000
G00 X24.117006 Y221.769851

G00 Z4.875000 (Fast pre-penetrate)
G01 Z-0.125000 F100.0(Penetrate)
G01 X23.445886 Y199.399486 Z-0.125000 F800.000000
G01 X15.053436 Y181.917956 Z-0.125000
G01 X35.477632 Y153.390545 Z-0.125000
G01 X16.786448 Y141.849710 Z-0.125000
G01 X24.308299 Y122.418666 Z-0.125000
G01 X18.526399 Y94.260960 Z-0.125000
G01 X28.655656 Y82.141505 Z-0.125000
G01 X31.066927 Y58.496390 Z-0.125000
G01 X26.238893 Y38.151716 Z-0.125000
G00 Z5.000000

(End cutting path id: polyline160697)


(Start cutting path id: polyline160699)
(Change tool to Default tool)

G00 Z5.000000
G00 X24.779041 Y221.923354

G00 Z4.875000 (Fast pre-penetrate)
G01 Z-0.125000 F100.0(Penetrate)
G01 X24.212952 Y199.320862 Z-0.125000 F800.000000
G01 X16.350549 Y182.583686 Z-0.125000
G01 X36.698268 Y154.027021 Z-0.125000
G01 X17.335515 Y141.789706 Z-0.125000
G01 X26.071812 Y122.413175 Z-0.125000
G01 X20.042361 Y94.795500 Z-0.125000
G01 X29.552513 Y82.482507 Z-0.125000
G01 X33.280915 Y58.592536 Z-0.125000
G01 X28.002207 Y38.888182 Z-0.125000
G00 Z5.000000

(End cutting path id: polyline160699)


(Start cutting path id: polyline160609)
(Change tool to Default tool)

G00 Z5.000000
G00 X68.552828 Y217.079896

G00 Z4.875000 (Fast pre-penetrate)
G01 Z-0.125000 F100.0(Penetrate)
G01 X74.483238 Y195.000961 Z-0.125000 F800.000000
G01 X70.709808 Y181.470227 Z-0.125000
G01 X64.844692 Y158.600764 Z-0.125000
G01 X65.367202 Y135.897734 Z-0.125000
G01 X81.627745 Y115.531944 Z-0.125000
G01 X60.426899 Y109.824075 Z-0.125000
G01 X73.235894 Y79.751350 Z-0.125000
G01 X71.618097 Y51.133534 Z-0.125000
G01 X70.232875 Y34.097089 Z-0.125000
G00 Z5.000000

(End cutting path id: polyline160609)


(Start cutting path id: polyline160607)
(Change tool to Default tool)

G00 Z5.000000
G00 X71.745292 Y216.677643

G00 Z4.875000 (Fast pre-penetrate)
G01 Z-0.125000 F100.0(Penetrate)
G01 X79.655967 Y195.494268 Z-0.125000 F800.000000
G01 X74.473304 Y180.419766 Z-0.125000
G01 X66.446266 Y158.759459 Z-0.125000
G01 X70.728228 Y137.044789 Z-0.125000
G01 X85.663803 Y114.453029 Z-0.125000
G01 X63.143978 Y110.839342 Z-0.125000
G01 X76.579666 Y79.403959 Z-0.125000
G01 X75.545429 Y50.806310 Z-0.125000
G01 X72.956244 Y33.834461 Z-0.125000
G00 Z5.000000

(End cutting path id: polyline160607)


(Start cutting path id: polyline160605)
(Change tool to Default tool)

G00 Z5.000000
G00 X73.009608 Y216.973616

G00 Z4.875000 (Fast pre-penetrate)
G01 Z-0.125000 F100.0(Penetrate)
G01 X80.997509 Y195.672381 Z-0.125000 F800.000000
G01 X76.229878 Y180.568627 Z-0.125000
G01 X67.442514 Y159.108847 Z-0.125000
G01 X72.293610 Y137.161800 Z-0.125000
G01 X86.490773 Y114.147371 Z-0.125000
G01 X65.337899 Y110.602673 Z-0.125000
G01 X77.309442 Y78.613031 Z-0.125000
G01 X77.485559 Y50.990914 Z-0.125000
G01 X73.867429 Y33.937246 Z-0.125000
G00 Z5.000000

(End cutting path id: polyline160605)


(Start cutting path id: polyline160611)
(Change tool to Default tool)

G00 Z5.000000
G00 X74.273925 Y217.269540

G00 Z4.875000 (Fast pre-penetrate)
G01 Z-0.125000 F100.0(Penetrate)
G01 X82.339101 Y195.850445 Z-0.125000 F800.000000
G01 X77.986403 Y180.717537 Z-0.125000
G01 X68.438811 Y159.458235 Z-0.125000
G01 X73.859042 Y137.278812 Z-0.125000
G01 X87.317743 Y113.841713 Z-0.125000
G01 X67.531770 Y110.366054 Z-0.125000
G01 X78.039218 Y77.822153 Z-0.125000
G01 X79.425638 Y51.175517 Z-0.125000
G01 X74.778563 Y34.040030 Z-0.125000
G00 Z5.000000

(End cutting path id: polyline160611)


(Start cutting path id: polyline160613)
(Change tool to Default tool)

G00 Z5.000000
G00 X75.538241 Y217.565514

G00 Z4.875000 (Fast pre-penetrate)
G01 Z-0.125000 F100.0(Penetrate)
G01 X83.680643 Y196.028558 Z-0.125000 F800.000000
G01 X79.742977 Y180.866448 Z-0.125000
G01 X69.435058 Y159.807623 Z-0.125000
G01 X75.424424 Y137.395824 Z-0.125000
G01 X88.144762 Y113.536054 Z-0.125000
G01 X69.725691 Y110.129384 Z-0.125000
G01 X78.768944 Y77.031226 Z-0.125000
G01 X81.365767 Y51.360070 Z-0.125000
G01 X75.689697 Y34.142765 Z-0.125000
G00 Z5.000000

(End cutting path id: polyline160613)


(Start cutting path id: polyline160615)
(Change tool to Default tool)

G00 Z5.000000
G00 X67.588778 Y217.429034

G00 Z4.875000 (Fast pre-penetrate)
G01 Z-0.125000 F100.0(Penetrate)
G01 X72.567619 Y194.843315 Z-0.125000 F800.000000
G01 X64.542079 Y158.696111 Z-0.125000
G01 X63.469355 Y135.382712 Z-0.125000
G01 X80.023227 Y115.918522 Z-0.125000
G01 X60.165320 Y109.198082 Z-0.125000
G01 X71.928897 Y79.529607 Z-0.125000
G01 X70.624495 Y51.389422 Z-0.125000
G01 X69.326733 Y34.279795 Z-0.125000
G00 Z5.000000

(End cutting path id: polyline160615)


(Start cutting path id: polyline160617)
(Change tool to Default tool)

G00 Z5.000000
G00 X66.624729 Y217.778172

G00 Z4.875000 (Fast pre-penetrate)
G01 Z-0.125000 F100.0(Penetrate)
G01 X70.652051 Y194.685718 Z-0.125000 F800.000000
G01 X68.702886 Y182.669597 Z-0.125000
G01 X64.239416 Y158.791457 Z-0.125000
G01 X61.571558 Y134.867691 Z-0.125000
G01 X78.418708 Y116.305150 Z-0.125000
G01 X59.903740 Y108.572139 Z-0.125000
G01 X70.621849 Y79.307863 Z-0.125000
G01 X69.630844 Y51.645311 Z-0.125000
G01 X68.420640 Y34.462451 Z-0.125000
G00 Z5.000000

(End cutting path id: polyline160617)


(Start cutting path id: polyline160619)
(Change tool to Default tool)

G00 Z5.000000
G00 X76.802607 Y217.861488

G00 Z4.875000 (Fast pre-penetrate)
G01 Z-0.125000 F100.0(Penetrate)
G01 X85.022185 Y196.206672 Z-0.125000 F800.000000
G01 X81.499552 Y181.015308 Z-0.125000
G01 X70.431356 Y160.157011 Z-0.125000
G01 X76.989806 Y137.512836 Z-0.125000
G01 X88.971732 Y113.230396 Z-0.125000
G01 X71.919612 Y109.892715 Z-0.125000
G01 X79.498720 Y76.240348 Z-0.125000
G01 X83.305846 Y51.544673 Z-0.125000
G01 X76.600832 Y34.245550 Z-0.125000
G00 Z5.000000

(End cutting path id: polyline160619)


(Start cutting path id: polyline160621)
(Change tool to Default tool)

G00 Z5.000000
G00 X78.066923 Y218.157462

G00 Z4.875000 (Fast pre-penetrate)
G01 Z-0.125000 F100.0(Penetrate)
G01 X86.363777 Y196.384735 Z-0.125000 F800.000000
G01 X83.256076 Y181.164219 Z-0.125000
G01 X71.427603 Y160.506399 Z-0.125000
G01 X78.555238 Y137.629798 Z-0.125000
G01 X89.798702 Y112.924738 Z-0.125000
G01 X74.113483 Y109.656096 Z-0.125000
G01 X80.228496 Y75.449470 Z-0.125000
G01 X85.245975 Y51.729276 Z-0.125000
G01 X77.512016 Y34.348334 Z-0.125000
G00 Z5.000000

(End cutting path id: polyline160621)


(Start cutting path id: polyline160623)
(Change tool to Default tool)

G00 Z5.000000
G00 X79.331240 Y218.453436

G00 Z4.875000 (Fast pre-penetrate)
G01 Z-0.125000 F100.0(Penetrate)
G01 X87.705319 Y196.562849 Z-0.125000 F800.000000
G01 X85.012651 Y181.313129 Z-0.125000
G01 X72.423901 Y160.855837 Z-0.125000
G01 X80.120620 Y137.746809 Z-0.125000
G01 X90.625672 Y112.619030 Z-0.125000
G01 X76.307404 Y109.419426 Z-0.125000
G01 X80.958272 Y74.658542 Z-0.125000
G01 X87.186054 Y51.913829 Z-0.125000
G01 X78.423150 Y34.451069 Z-0.125000
G00 Z5.000000

(End cutting path id: polyline160623)


(Start cutting path id: polyline160625)
(Change tool to Default tool)

G00 Z5.000000
G00 X65.660630 Y218.127261

G00 Z4.875000 (Fast pre-penetrate)
G01 Z-0.125000 F100.0(Penetrate)
G01 X68.736482 Y194.528072 Z-0.125000 F800.000000
G01 X67.699450 Y183.269283 Z-0.125000
G01 X63.936803 Y158.886854 Z-0.125000
G01 X59.673760 Y134.352669 Z-0.125000
G01 X76.814139 Y116.691778 Z-0.125000
G01 X59.642161 Y107.946146 Z-0.125000
G01 X69.314852 Y79.086120 Z-0.125000
G01 X68.637242 Y51.901199 Z-0.125000
G01 X67.514498 Y34.645157 Z-0.125000
G00 Z5.000000

(End cutting path id: polyline160625)


(Start cutting path id: polyline160627)
(Change tool to Default tool)

G00 Z5.000000
G00 X64.696581 Y218.476349

G00 Z4.875000 (Fast pre-penetrate)
G01 Z-0.125000 F100.0(Penetrate)
G01 X66.820864 Y194.370476 Z-0.125000 F800.000000
G01 X66.695965 Y183.868968 Z-0.125000
G01 X63.634140 Y158.982201 Z-0.125000
G01 X57.775913 Y133.837648 Z-0.125000
G01 X75.209620 Y117.078406 Z-0.125000
G01 X59.380632 Y107.320203 Z-0.125000
G01 X68.007854 Y78.864377 Z-0.125000
G01 X67.643640 Y52.157038 Z-0.125000
G01 X66.608405 Y34.827863 Z-0.125000
G00 Z5.000000

(End cutting path id: polyline160627)


(Start cutting path id: polyline160629)
(Change tool to Default tool)

G00 Z5.000000
G00 X63.732531 Y218.825488

G00 Z4.875000 (Fast pre-penetrate)
G01 Z-0.125000 F100.0(Penetrate)
G01 X64.905295 Y194.212829 Z-0.125000 F800.000000
G01 X65.692529 Y184.468604 Z-0.125000
G01 X63.331526 Y159.077547 Z-0.125000
G01 X55.878116 Y133.322626 Z-0.125000
G01 X73.605101 Y117.465034 Z-0.125000
G01 X59.119003 Y106.694210 Z-0.125000
G01 X66.700857 Y78.642683 Z-0.125000
G01 X66.649988 Y52.412926 Z-0.125000
G01 X65.702313 Y35.010569 Z-0.125000
G00 Z5.000000

(End cutting path id: polyline160629)


(Start cutting path id: polyline160631)
(Change tool to Default tool)

G00 Z5.000000
G00 X62.768482 Y219.174626

G00 Z4.875000 (Fast pre-penetrate)
G01 Z-0.125000 F100.0(Penetrate)
G01 X62.989676 Y194.055233 Z-0.125000 F800.000000
G01 X64.689043 Y185.068289 Z-0.125000
G01 X63.028863 Y159.172894 Z-0.125000
G01 X53.980269 Y132.807605 Z-0.125000
G01 X72.000582 Y117.851662 Z-0.125000
G01 X58.857423 Y106.068267 Z-0.125000
G01 X65.393859 Y78.420940 Z-0.125000
G01 X65.656387 Y52.668814 Z-0.125000
G01 X64.796170 Y35.193225 Z-0.125000
G00 Z5.000000

(End cutting path id: polyline160631)


(Start cutting path id: polyline160633)
(Change tool to Default tool)

G00 Z5.000000
G00 X80.595556 Y218.749410

G00 Z4.875000 (Fast pre-penetrate)
G01 Z-0.125000 F100.0(Penetrate)
G01 X89.046911 Y196.740912 Z-0.125000 F800.000000
G01 X86.769225 Y181.461990 Z-0.125000
G01 X73.420148 Y161.205225 Z-0.125000
G01 X81.686002 Y137.863821 Z-0.125000
G01 X91.452641 Y112.313421 Z-0.125000
G01 X78.501325 Y109.182807 Z-0.125000
G01 X81.687999 Y73.867664 Z-0.125000
G01 X89.126184 Y52.098432 Z-0.125000
G01 X79.334335 Y34.553854 Z-0.125000
G00 Z5.000000

(End cutting path id: polyline160633)


(Start cutting path id: polyline160635)
(Change tool to Default tool)

G00 Z5.000000
G00 X81.859872 Y219.045384

G00 Z4.875000 (Fast pre-penetrate)
G01 Z-0.125000 F100.0(Penetrate)
G01 X90.388453 Y196.919026 Z-0.125000 F800.000000
G01 X88.525749 Y181.610900 Z-0.125000
G01 X74.416396 Y161.554613 Z-0.125000
G01 X83.251434 Y137.980833 Z-0.125000
G01 X92.279611 Y112.007713 Z-0.125000
G01 X80.695196 Y108.946138 Z-0.125000
G01 X82.417775 Y73.076737 Z-0.125000
G01 X91.066313 Y52.282985 Z-0.125000
G01 X80.245469 Y34.656639 Z-0.125000
G00 Z5.000000

(End cutting path id: polyline160635)


(Start cutting path id: polyline160637)
(Change tool to Default tool)

G00 Z5.000000
G00 X83.124238 Y219.341358

G00 Z4.875000 (Fast pre-penetrate)
G01 Z-0.125000 F100.0(Penetrate)
G01 X91.730045 Y197.097139 Z-0.125000 F800.000000
G01 X90.282324 Y181.759811 Z-0.125000
G01 X75.412693 Y161.904001 Z-0.125000
G01 X84.816816 Y138.097845 Z-0.125000
G01 X93.106631 Y111.702055 Z-0.125000
G01 X82.889116 Y108.709518 Z-0.125000
G01 X83.147551 Y72.285859 Z-0.125000
G01 X93.006392 Y52.467588 Z-0.125000
G01 X81.156603 Y34.759373 Z-0.125000
G00 Z5.000000

(End cutting path id: polyline160637)


(Start cutting path id: polyline160639)
(Change tool to Default tool)

G00 Z5.000000
G00 X84.388555 Y219.637282

G00 Z4.875000 (Fast pre-penetrate)
G01 Z-0.125000 F100.0(Penetrate)
G01 X93.071587 Y197.275203 Z-0.125000 F800.000000
G01 X92.038898 Y181.908671 Z-0.125000
G01 X76.408940 Y162.253389 Z-0.125000
G01 X86.382198 Y138.214807 Z-0.125000
G01 X93.933601 Y111.396396 Z-0.125000
G01 X85.083037 Y108.472849 Z-0.125000
G01 X83.877327 Y71.494981 Z-0.125000
G01 X94.946521 Y52.652191 Z-0.125000
G01 X82.067738 Y34.862158 Z-0.125000
G00 Z5.000000

(End cutting path id: polyline160639)


(Start cutting path id: polyline160641)
(Change tool to Default tool)

G00 Z5.000000
G00 X85.652871 Y219.933256

G00 Z4.875000 (Fast pre-penetrate)
G01 Z-0.125000 F100.0(Penetrate)
G01 X94.413129 Y197.453317 Z-0.125000 F800.000000
G01 X93.795473 Y182.057582 Z-0.125000
G01 X77.405238 Y162.602777 Z-0.125000
G01 X87.947629 Y138.331818 Z-0.125000
G01 X94.760570 Y111.090738 Z-0.125000
G01 X87.276908 Y108.236180 Z-0.125000
G01 X84.607053 Y70.704053 Z-0.125000
G01 X96.886600 Y52.836744 Z-0.125000
G01 X82.978922 Y34.964943 Z-0.125000
G00 Z5.000000

(End cutting path id: polyline160641)


(Start cutting path id: polyline160643)
(Change tool to Default tool)

G00 Z5.000000
G00 X86.917187 Y220.229230

G00 Z4.875000 (Fast pre-penetrate)
G01 Z-0.125000 F100.0(Penetrate)
G01 X95.754721 Y197.631380 Z-0.125000 F800.000000
G01 X95.551997 Y182.206492 Z-0.125000
G01 X78.401485 Y162.952165 Z-0.125000
G01 X89.513011 Y138.448830 Z-0.125000
G01 X95.587540 Y110.785080 Z-0.125000
G01 X89.470829 Y107.999560 Z-0.125000
G01 X85.336829 Y69.913175 Z-0.125000
G01 X98.826729 Y53.021347 Z-0.125000
G01 X83.890056 Y35.067677 Z-0.125000
G00 Z5.000000

(End cutting path id: polyline160643)


(Start cutting path id: polyline160645)
(Change tool to Default tool)

G00 Z5.000000
G00 X88.181553 Y220.525203

G00 Z4.875000 (Fast pre-penetrate)
G01 Z-0.125000 F100.0(Penetrate)
G01 X97.096263 Y197.809494 Z-0.125000 F800.000000
G01 X97.308572 Y182.355353 Z-0.125000
G01 X79.397783 Y163.301602 Z-0.125000
G01 X91.078393 Y138.565842 Z-0.125000
G01 X96.414510 Y110.479421 Z-0.125000
G01 X91.664750 Y107.762891 Z-0.125000
G01 X86.066605 Y69.122248 Z-0.125000
G01 X100.766809 Y53.205901 Z-0.125000
G01 X84.801241 Y35.170462 Z-0.125000
G00 Z5.000000

(End cutting path id: polyline160645)


(Start cutting path id: polyline160647)
(Change tool to Default tool)

G00 Z5.000000
G00 X89.445869 Y220.821177

G00 Z4.875000 (Fast pre-penetrate)
G01 Z-0.125000 F100.0(Penetrate)
G01 X98.437805 Y197.987607 Z-0.125000 F800.000000
G01 X99.065146 Y182.504263 Z-0.125000
G01 X80.394030 Y163.650990 Z-0.125000
G01 X92.643825 Y138.682854 Z-0.125000
G01 X97.241529 Y110.173763 Z-0.125000
G01 X93.858621 Y107.526272 Z-0.125000
G01 X86.796381 Y68.331370 Z-0.125000
G01 X102.706938 Y53.390504 Z-0.125000
G01 X85.712375 Y35.273247 Z-0.125000
G00 Z5.000000

(End cutting path id: polyline160647)


(Start cutting path id: polyline160649)
(Change tool to Default tool)

G00 Z5.000000
G00 X61.804383 Y219.523714

G00 Z4.875000 (Fast pre-penetrate)
G01 Z-0.125000 F100.0(Penetrate)
G01 X61.074108 Y193.897636 Z-0.125000 F800.000000
G01 X63.685557 Y185.667974 Z-0.125000
G01 X62.726250 Y159.268240 Z-0.125000
G01 X52.082472 Y132.292583 Z-0.125000
G01 X70.396063 Y118.238291 Z-0.125000
G01 X58.595844 Y105.442324 Z-0.125000
G01 X64.086812 Y78.199197 Z-0.125000
G01 X64.662735 Y52.924703 Z-0.125000
G01 X63.890078 Y35.375932 Z-0.125000
G00 Z5.000000

(End cutting path id: polyline160649)


(Start cutting path id: polyline160651)
(Change tool to Default tool)

G00 Z5.000000
G00 X60.840334 Y219.872803

G00 Z4.875000 (Fast pre-penetrate)
G01 Z-0.125000 F100.0(Penetrate)
G01 X59.158539 Y193.739990 Z-0.125000 F800.000000
G01 X62.682121 Y186.267660 Z-0.125000
G01 X62.423587 Y159.363587 Z-0.125000
G01 X50.184674 Y131.777561 Z-0.125000
G01 X68.791494 Y118.624869 Z-0.125000
G01 X58.334315 Y104.816331 Z-0.125000
G01 X62.779814 Y77.977453 Z-0.125000
G01 X63.669133 Y53.180591 Z-0.125000
G01 X62.983936 Y35.558638 Z-0.125000
G00 Z5.000000

(End cutting path id: polyline160651)


(Start cutting path id: polyline160653)
(Change tool to Default tool)

G00 Z5.000000
G00 X59.876285 Y220.221941

G00 Z4.875000 (Fast pre-penetrate)
G01 Z-0.125000 F100.0(Penetrate)
G01 X57.242921 Y193.582393 Z-0.125000 F800.000000
G01 X61.678635 Y186.867345 Z-0.125000
G01 X62.120974 Y159.458984 Z-0.125000
G01 X48.286827 Y131.262490 Z-0.125000
G01 X67.186975 Y119.011547 Z-0.125000
G01 X58.072736 Y104.190388 Z-0.125000
G01 X61.472816 Y77.755710 Z-0.125000
G01 X62.675532 Y53.436480 Z-0.125000
G01 X62.077843 Y35.741344 Z-0.125000
G00 Z5.000000

(End cutting path id: polyline160653)


(Start cutting path id: polyline160655)
(Change tool to Default tool)

G00 Z5.000000
G00 X58.912185 Y220.571080

G00 Z4.875000 (Fast pre-penetrate)
G01 Z-0.125000 F100.0(Penetrate)
G01 X55.327352 Y193.424747 Z-0.125000 F800.000000
G01 X60.675199 Y187.467030 Z-0.125000
G01 X61.818311 Y159.554330 Z-0.125000
G01 X46.389030 Y130.747468 Z-0.125000
G01 X65.582456 Y119.398175 Z-0.125000
G01 X57.811156 Y103.564395 Z-0.125000
G01 X60.165819 Y77.533967 Z-0.125000
G01 X61.681880 Y53.692368 Z-0.125000
G01 X61.171751 Y35.924050 Z-0.125000
G00 Z5.000000

(End cutting path id: polyline160655)


(Start cutting path id: polyline160657)
(Change tool to Default tool)

G00 Z5.000000
G00 X57.948136 Y220.920168

G00 Z4.875000 (Fast pre-penetrate)
G01 Z-0.125000 F100.0(Penetrate)
G01 X53.411733 Y193.267150 Z-0.125000 F800.000000
G01 X59.671714 Y188.066716 Z-0.125000
G01 X61.515697 Y159.649677 Z-0.125000
G01 X44.491183 Y130.232447 Z-0.125000
G01 X63.977887 Y119.784753 Z-0.125000
G01 X57.549577 Y102.938452 Z-0.125000
G01 X58.858771 Y77.312174 Z-0.125000
G01 X60.688278 Y53.948256 Z-0.125000
G01 X60.265608 Y36.106706 Z-0.125000
G00 Z5.000000

(End cutting path id: polyline160657)


(Start cutting path id: polyline160659)
(Change tool to Default tool)

G00 Z5.000000
G00 X56.984087 Y221.269307

G00 Z4.875000 (Fast pre-penetrate)
G01 Z-0.125000 F100.0(Penetrate)
G01 X51.496165 Y193.109504 Z-0.125000 F800.000000
G01 X58.668228 Y188.666401 Z-0.125000
G01 X61.213034 Y159.745023 Z-0.125000
G01 X42.593386 Y129.717425 Z-0.125000
G01 X62.373368 Y120.171381 Z-0.125000
G01 X57.287998 Y102.312459 Z-0.125000
G01 X57.551774 Y77.090480 Z-0.125000
G01 X59.694627 Y54.204095 Z-0.125000
G01 X59.359516 Y36.289412 Z-0.125000
G00 Z5.000000

(End cutting path id: polyline160659)


(Start cutting path id: polyline160661)
(Change tool to Default tool)

G00 Z5.000000
G00 X56.020038 Y221.618395

G00 Z4.875000 (Fast pre-penetrate)
G01 Z-0.125000 F100.0(Penetrate)
G01 X49.580596 Y192.951907 Z-0.125000 F800.000000
G01 X57.664792 Y189.266086 Z-0.125000
G01 X60.910421 Y159.840370 Z-0.125000
G01 X40.695588 Y129.202404 Z-0.125000
G01 X60.768849 Y120.558009 Z-0.125000
G01 X57.026419 Y101.686515 Z-0.125000
G01 X56.244776 Y76.868737 Z-0.125000
G01 X58.701025 Y54.459983 Z-0.125000
G01 X58.453373 Y36.472118 Z-0.125000
G00 Z5.000000

(End cutting path id: polyline160661)


(Start cutting path id: polyline160663)
(Change tool to Default tool)

G00 Z5.000000
G00 X52.601287 Y222.347672

G00 Z4.875000 (Fast pre-penetrate)
G01 Z-0.125000 F100.0(Penetrate)
G01 X44.753261 Y193.002127 Z-0.125000 F800.000000
G01 X53.803453 Y190.236775 Z-0.125000
G01 X59.347335 Y159.902570 Z-0.125000
G01 X35.942833 Y128.952206 Z-0.125000
G01 X56.329989 Y121.392966 Z-0.125000
G01 X54.893550 Y100.291559 Z-0.125000
G01 X52.530900 Y76.901884 Z-0.125000
G01 X56.116782 Y55.218713 Z-0.125000
G01 X55.578847 Y37.218068 Z-0.125000
G00 Z5.000000

(End cutting path id: polyline160663)


(Start cutting path id: polyline160665)
(Change tool to Default tool)

G00 Z5.000000
G00 X51.110635 Y222.378722

G00 Z4.875000 (Fast pre-penetrate)
G01 Z-0.125000 F100.0(Penetrate)
G01 X43.757114 Y193.367589 Z-0.125000 F800.000000
G01 X51.949086 Y190.008143 Z-0.125000
G01 X58.389526 Y159.773977 Z-0.125000
G01 X34.985773 Y129.732052 Z-0.125000
G01 X55.100167 Y121.454667 Z-0.125000
G01 X51.431069 Y77.378567 Z-0.125000
G01 X55.519792 Y55.465616 Z-0.125000
G01 X54.516556 Y37.598606 Z-0.125000
G00 Z5.000000

(End cutting path id: polyline160665)


(Start cutting path id: polyline160667)
(Change tool to Default tool)

G00 Z5.000000
G00 X49.620033 Y222.409722

G00 Z4.875000 (Fast pre-penetrate)
G01 Z-0.125000 F100.0(Penetrate)
G01 X42.761016 Y193.733001 Z-0.125000 F800.000000
G01 X50.094719 Y189.779461 Z-0.125000
G01 X57.431667 Y159.645434 Z-0.125000
G01 X34.028713 Y130.511897 Z-0.125000
G01 X53.870346 Y121.516417 Z-0.125000
G01 X51.674128 Y100.005420 Z-0.125000
G01 X50.331239 Y77.855200 Z-0.125000
G01 X54.922803 Y55.712568 Z-0.125000
G01 X53.454265 Y37.979144 Z-0.125000
G00 Z5.000000

(End cutting path id: polyline160667)


(Start cutting path id: polyline160669)
(Change tool to Default tool)

G00 Z5.000000
G00 X48.129430 Y222.440772

G00 Z4.875000 (Fast pre-penetrate)
G01 Z-0.125000 F100.0(Penetrate)
G01 X41.764868 Y194.098463 Z-0.125000 F800.000000
G01 X48.240352 Y189.550778 Z-0.125000
G01 X56.473858 Y159.516890 Z-0.125000
G01 X33.071652 Y131.291743 Z-0.125000
G01 X52.640574 Y121.578118 Z-0.125000
G01 X50.064418 Y99.862400 Z-0.125000
G01 X49.231408 Y78.331883 Z-0.125000
G01 X54.325813 Y55.959471 Z-0.125000
G01 X52.391974 Y38.359682 Z-0.125000
G00 Z5.000000

(End cutting path id: polyline160669)


(Start cutting path id: polyline160671)
(Change tool to Default tool)

G00 Z5.000000
G00 X46.638778 Y222.471822

G00 Z4.875000 (Fast pre-penetrate)
G01 Z-0.125000 F100.0(Penetrate)
G01 X40.768721 Y194.463875 Z-0.125000 F800.000000
G01 X46.385935 Y189.322096 Z-0.125000
G01 X55.516048 Y159.388347 Z-0.125000
G01 X32.114592 Y132.071588 Z-0.125000
G01 X51.410752 Y121.639819 Z-0.125000
G01 X48.454707 Y99.719330 Z-0.125000
G01 X48.131577 Y78.808517 Z-0.125000
G01 X53.728823 Y56.206424 Z-0.125000
G01 X51.329682 Y38.740220 Z-0.125000
G00 Z5.000000

(End cutting path id: polyline160671)


(Start cutting path id: polyline160673)
(Change tool to Default tool)

G00 Z5.000000
G00 X45.148176 Y222.502822

G00 Z4.875000 (Fast pre-penetrate)
G01 Z-0.125000 F100.0(Penetrate)
G01 X39.772573 Y194.829337 Z-0.125000 F800.000000
G01 X44.531568 Y189.093414 Z-0.125000
G01 X54.558189 Y159.259804 Z-0.125000
G01 X31.157531 Y132.851434 Z-0.125000
G01 X50.180930 Y121.701570 Z-0.125000
G01 X46.844947 Y99.576310 Z-0.125000
G01 X47.031746 Y79.285200 Z-0.125000
G01 X53.131834 Y56.453377 Z-0.125000
G01 X50.267391 Y39.120808 Z-0.125000
G00 Z5.000000

(End cutting path id: polyline160673)


(Start cutting path id: polyline160675)
(Change tool to Default tool)

G00 Z5.000000
G00 X43.657574 Y222.533872

G00 Z4.875000 (Fast pre-penetrate)
G01 Z-0.125000 F100.0(Penetrate)
G01 X38.776425 Y195.194750 Z-0.125000 F800.000000
G01 X42.677201 Y188.864782 Z-0.125000
G01 X53.600380 Y159.131211 Z-0.125000
G01 X30.200421 Y133.631280 Z-0.125000
G01 X48.951159 Y121.763270 Z-0.125000
G01 X45.235236 Y99.433240 Z-0.125000
G01 X45.931915 Y79.761833 Z-0.125000
G01 X52.534844 Y56.700280 Z-0.125000
G01 X49.205100 Y39.501345 Z-0.125000
G00 Z5.000000

(End cutting path id: polyline160675)


(Start cutting path id: polyline160677)
(Change tool to Default tool)

G00 Z5.000000
G00 X42.166922 Y222.564872

G00 Z4.875000 (Fast pre-penetrate)
G01 Z-0.125000 F100.0(Penetrate)
G01 X37.780328 Y195.560212 Z-0.125000 F800.000000
G01 X40.822834 Y188.636100 Z-0.125000
G01 X52.642571 Y159.002668 Z-0.125000
G01 X29.243360 Y134.411125 Z-0.125000
G01 X47.721337 Y121.824971 Z-0.125000
G01 X43.625525 Y99.290220 Z-0.125000
G01 X44.832084 Y80.238516 Z-0.125000
G01 X51.937854 Y56.947232 Z-0.125000
G01 X48.142809 Y39.881883 Z-0.125000
G00 Z5.000000

(End cutting path id: polyline160677)


(Start cutting path id: polyline160679)
(Change tool to Default tool)

G00 Z5.000000
G00 X40.676319 Y222.595923

G00 Z4.875000 (Fast pre-penetrate)
G01 Z-0.125000 F100.0(Penetrate)
G01 X36.784180 Y195.925674 Z-0.125000 F800.000000
G01 X38.968417 Y188.407418 Z-0.125000
G01 X51.684711 Y158.874124 Z-0.125000
G01 X28.286300 Y135.190971 Z-0.125000
G01 X46.491565 Y121.886722 Z-0.125000
G01 X42.015815 Y99.147150 Z-0.125000
G01 X43.732254 Y80.715200 Z-0.125000
G01 X51.340864 Y57.194185 Z-0.125000
G01 X47.080518 Y40.262421 Z-0.125000
G00 Z5.000000

(End cutting path id: polyline160679)


(Start cutting path id: polyline160709)
(Change tool to Default tool)

G00 Z5.000000
G00 X39.185667 Y222.626923

G00 Z4.875000 (Fast pre-penetrate)
G01 Z-0.125000 F100.0(Penetrate)
G01 X35.788033 Y196.291086 Z-0.125000 F800.000000
G01 X37.114049 Y188.178785 Z-0.125000
G01 X50.726902 Y158.745531 Z-0.125000
G01 X27.329239 Y135.970816 Z-0.125000
G01 X45.261743 Y121.948422 Z-0.125000
G01 X40.406104 Y99.004130 Z-0.125000
G01 X42.632423 Y81.191833 Z-0.125000
G01 X50.743875 Y57.441088 Z-0.125000
G01 X46.018226 Y40.642959 Z-0.125000
G00 Z5.000000

(End cutting path id: polyline160709)


(Start cutting path id: polyline160711)
(Change tool to Default tool)

G00 Z5.000000
G00 X37.695065 Y222.657973

G00 Z4.875000 (Fast pre-penetrate)
G01 Z-0.125000 F100.0(Penetrate)
G01 X34.791935 Y196.656548 Z-0.125000 F800.000000
G01 X35.259682 Y187.950103 Z-0.125000
G01 X49.769093 Y158.616988 Z-0.125000
G01 X26.372179 Y136.750662 Z-0.125000
G01 X44.031922 Y122.010123 Z-0.125000
G01 X38.796393 Y98.861060 Z-0.125000
G01 X41.532592 Y81.668516 Z-0.125000
G01 X50.146885 Y57.688041 Z-0.125000
G01 X44.955935 Y41.023547 Z-0.125000
G00 Z5.000000

(End cutting path id: polyline160711)


(Start cutting path id: polyline160713)
(Change tool to Default tool)

G00 Z5.000000
G00 X36.204463 Y222.689023

G00 Z4.875000 (Fast pre-penetrate)
G01 Z-0.125000 F100.0(Penetrate)
G01 X33.795787 Y197.021960 Z-0.125000 F800.000000
G01 X33.405315 Y187.721421 Z-0.125000
G01 X48.811284 Y158.488445 Z-0.125000
G01 X25.415118 Y137.530507 Z-0.125000
G01 X42.802150 Y122.071874 Z-0.125000
G01 X37.186683 Y98.718040 Z-0.125000
G01 X40.432761 Y82.145149 Z-0.125000
G01 X49.549895 Y57.934993 Z-0.125000
G01 X43.893644 Y41.404085 Z-0.125000
G00 Z5.000000

(End cutting path id: polyline160713)


(Start cutting path id: polyline160715)
(Change tool to Default tool)

G00 Z5.000000
G00 X34.713810 Y222.720023

G00 Z4.875000 (Fast pre-penetrate)
G01 Z-0.125000 F100.0(Penetrate)
G01 X32.799640 Y197.387423 Z-0.125000 F800.000000
G01 X31.550898 Y187.492739 Z-0.125000
G01 X47.853424 Y158.359902 Z-0.125000
G01 X24.458008 Y138.310353 Z-0.125000
G01 X41.572328 Y122.133575 Z-0.125000
G01 X35.576972 Y98.574971 Z-0.125000
G01 X39.332930 Y82.621833 Z-0.125000
G01 X48.952906 Y58.181896 Z-0.125000
G01 X42.831303 Y41.784623 Z-0.125000
G00 Z5.000000

(End cutting path id: polyline160715)


(Start cutting path id: polyline160701)
(Change tool to Default tool)

G00 Z5.000000
G00 X25.441076 Y222.076808

G00 Z4.875000 (Fast pre-penetrate)
G01 Z-0.125000 F100.0(Penetrate)
G01 X24.979968 Y199.242239 Z-0.125000 F800.000000
G01 X17.647713 Y183.249465 Z-0.125000
G01 X37.918955 Y154.663448 Z-0.125000
G01 X17.884532 Y141.729703 Z-0.125000
G01 X27.835375 Y122.407734 Z-0.125000
G01 X21.558272 Y95.330040 Z-0.125000
G01 X30.449370 Y82.823508 Z-0.125000
G01 X35.494904 Y58.688731 Z-0.125000
G01 X29.765520 Y39.624597 Z-0.125000
G00 Z5.000000

(End cutting path id: polyline160701)


(Start cutting path id: polyline160703)
(Change tool to Default tool)

G00 Z5.000000
G00 X26.103161 Y222.230261

G00 Z4.875000 (Fast pre-penetrate)
G01 Z-0.125000 F100.0(Penetrate)
G01 X25.746984 Y199.163665 Z-0.125000 F800.000000
G01 X18.944826 Y183.915144 Z-0.125000
G01 X39.139591 Y155.299924 Z-0.125000
G01 X18.433599 Y141.669699 Z-0.125000
G01 X29.598938 Y122.402292 Z-0.125000
G01 X23.074284 Y95.864580 Z-0.125000
G01 X31.346228 Y83.164510 Z-0.125000
G01 X37.708943 Y58.784926 Z-0.125000
G01 X31.528834 Y40.361063 Z-0.125000
G00 Z5.000000

(End cutting path id: polyline160703)


(Start cutting path id: polyline160705)
(Change tool to Default tool)

G00 Z5.000000
G00 X26.765196 Y222.383764

G00 Z4.875000 (Fast pre-penetrate)
G01 Z-0.125000 F100.0(Penetrate)
G01 X26.514050 Y199.084992 Z-0.125000 F800.000000
G01 X20.241940 Y184.580873 Z-0.125000
G01 X40.360228 Y155.936350 Z-0.125000
G01 X18.982615 Y141.609696 Z-0.125000
G01 X31.362451 Y122.396801 Z-0.125000
G01 X24.590245 Y96.399171 Z-0.125000
G01 X32.243035 Y83.505511 Z-0.125000
G01 X39.922931 Y58.881121 Z-0.125000
G01 X33.292147 Y41.097478 Z-0.125000
G00 Z5.000000

(End cutting path id: polyline160705)


(Start cutting path id: polyline160707)
(Change tool to Default tool)

G00 Z5.000000
G00 X27.427232 Y222.537217

G00 Z4.875000 (Fast pre-penetrate)
G01 Z-0.125000 F100.0(Penetrate)
G01 X27.281067 Y199.006418 Z-0.125000 F800.000000
G01 X21.539103 Y185.246602 Z-0.125000
G01 X41.580864 Y156.572776 Z-0.125000
G01 X19.531682 Y141.549692 Z-0.125000
G01 X33.126015 Y122.391360 Z-0.125000
G01 X26.106207 Y96.933711 Z-0.125000
G01 X33.139892 Y83.846513 Z-0.125000
G01 X42.136920 Y58.977267 Z-0.125000
G01 X35.055511 Y41.833943 Z-0.125000
G00 Z5.000000

(End cutting path id: polyline160707)


(Start cutting path id: polyline160717)
(Change tool to Default tool)

G00 Z5.000000
G00 X33.223208 Y222.751073

G00 Z4.875000 (Fast pre-penetrate)
G01 Z-0.125000 F100.0(Penetrate)
G01 X31.803492 Y197.752835 Z-0.125000 F800.000000
G01 X29.696531 Y187.264057 Z-0.125000
G01 X46.895615 Y158.231358 Z-0.125000
G01 X23.500947 Y139.090198 Z-0.125000
G01 X40.342506 Y122.195275 Z-0.125000
G01 X33.967261 Y98.431951 Z-0.125000
G01 X38.233099 Y83.098466 Z-0.125000
G01 X48.355916 Y58.428849 Z-0.125000
G01 X41.769012 Y42.165160 Z-0.125000
G00 Z5.000000

(End cutting path id: polyline160717)


(Start cutting path id: polyline160719)
(Change tool to Default tool)

G00 Z5.000000
G00 X31.732556 Y222.782073

G00 Z4.875000 (Fast pre-penetrate)
G01 Z-0.125000 F100.0(Penetrate)
G01 X30.807394 Y198.118297 Z-0.125000 F800.000000
G01 X27.842164 Y187.035425 Z-0.125000
G01 X45.937806 Y158.102815 Z-0.125000
G01 X22.543887 Y139.870044 Z-0.125000
G01 X39.112734 Y122.257026 Z-0.125000
G01 X32.357551 Y98.288881 Z-0.125000
G01 X37.133269 Y83.575149 Z-0.125000
G01 X47.758926 Y58.675802 Z-0.125000
G01 X40.706720 Y42.545698 Z-0.125000
G00 Z5.000000

(End cutting path id: polyline160719)


(Start cutting path id: polyline160721)
(Change tool to Default tool)

G00 Z5.000000
G00 X30.241954 Y222.813123

G00 Z4.875000 (Fast pre-penetrate)
G01 Z-0.125000 F100.0(Penetrate)
G01 X29.811247 Y198.483709 Z-0.125000 F800.000000
G01 X25.987747 Y186.806742 Z-0.125000
G01 X44.979996 Y157.974222 Z-0.125000
G01 X21.586826 Y140.649840 Z-0.125000
G01 X37.882913 Y122.318727 Z-0.125000
G01 X30.747840 Y98.145861 Z-0.125000
G01 X36.033438 Y84.051832 Z-0.125000
G01 X47.161937 Y58.922705 Z-0.125000
G01 X39.644429 Y42.926286 Z-0.125000
G00 Z5.000000

(End cutting path id: polyline160721)


(Start cutting path id: polyline160723)
(Change tool to Default tool)

G00 Z5.000000
G00 X93.737216 Y221.652440

G00 Z4.875000 (Fast pre-penetrate)
G01 Z-0.125000 F100.0(Penetrate)
G01 X102.223016 Y198.295612 Z-0.125000 F800.000000
G01 X103.451690 Y183.038754 Z-0.125000
G01 X84.692266 Y163.943120 Z-0.125000
G01 X97.297839 Y139.390965 Z-0.125000
G01 X99.367909 Y109.979825 Z-0.125000
G01 X100.381329 Y106.190421 Z-0.125000
G01 X89.487203 Y67.081830 Z-0.125000
G01 X107.841828 Y53.775384 Z-0.125000
G01 X88.887218 Y35.208002 Z-0.125000
G00 Z5.000000

(End cutting path id: polyline160723)


(Start cutting path id: polyline160725)
(Change tool to Default tool)

G00 Z5.000000
G00 X95.499881 Y221.891755

G00 Z4.875000 (Fast pre-penetrate)
G01 Z-0.125000 F100.0(Penetrate)
G01 X103.325094 Y198.247389 Z-0.125000 F800.000000
G01 X104.325185 Y183.275473 Z-0.125000
G01 X86.997907 Y163.536475 Z-0.125000
G01 X98.821138 Y139.865102 Z-0.125000
G01 X99.840349 Y110.397204 Z-0.125000
G01 X102.516195 Y105.327858 Z-0.125000
G01 X90.718472 Y67.414095 Z-0.125000
G01 X109.096510 Y53.791059 Z-0.125000
G01 X90.239792 Y34.937237 Z-0.125000
G00 Z5.000000

(End cutting path id: polyline160725)


(Start cutting path id: polyline160727)
(Change tool to Default tool)

G00 Z5.000000
G00 X97.262546 Y222.131120

G00 Z4.875000 (Fast pre-penetrate)
G01 Z-0.125000 F100.0(Penetrate)
G01 X104.427171 Y198.199217 Z-0.125000 F800.000000
G01 X105.198680 Y183.512192 Z-0.125000
G01 X89.303598 Y163.129779 Z-0.125000
G01 X100.344338 Y140.339239 Z-0.125000
G01 X100.312789 Y110.814582 Z-0.125000
G01 X104.651110 Y104.465296 Z-0.125000
G01 X91.949792 Y67.746361 Z-0.125000
G01 X110.351191 Y53.806784 Z-0.125000
G01 X91.592317 Y34.666473 Z-0.125000
G00 Z5.000000

(End cutting path id: polyline160727)


(Start cutting path id: polyline160729)
(Change tool to Default tool)

G00 Z5.000000
G00 X99.025210 Y222.370435

G00 Z4.875000 (Fast pre-penetrate)
G01 Z-0.125000 F100.0(Penetrate)
G01 X105.529248 Y198.151044 Z-0.125000 F800.000000
G01 X106.072175 Y183.748911 Z-0.125000
G01 X91.609239 Y162.723133 Z-0.125000
G01 X101.867638 Y140.813377 Z-0.125000
G01 X100.785229 Y111.231961 Z-0.125000
G01 X106.785976 Y103.602733 Z-0.125000
G01 X93.181111 Y68.078577 Z-0.125000
G01 X111.605873 Y53.822509 Z-0.125000
G01 X92.944891 Y34.395708 Z-0.125000
G00 Z5.000000

(End cutting path id: polyline160729)


(Start cutting path id: polyline160731)
(Change tool to Default tool)

G00 Z5.000000
G00 X100.787925 Y222.609800

G00 Z4.875000 (Fast pre-penetrate)
G01 Z-0.125000 F100.0(Penetrate)
G01 X106.631325 Y198.102872 Z-0.125000 F800.000000
G01 X106.945620 Y183.985630 Z-0.125000
G01 X93.914931 Y162.316487 Z-0.125000
G01 X103.390888 Y141.287514 Z-0.125000
G01 X101.257669 Y111.649339 Z-0.125000
G01 X108.920892 Y102.740171 Z-0.125000
G01 X94.412430 Y68.410842 Z-0.125000
G01 X112.860555 Y53.838183 Z-0.125000
G01 X94.297415 Y34.124944 Z-0.125000
G00 Z5.000000

(End cutting path id: polyline160731)


(Start cutting path id: polyline160733)
(Change tool to Default tool)

G00 Z5.000000
G00 X102.550589 Y222.849115

G00 Z4.875000 (Fast pre-penetrate)
G01 Z-0.125000 F100.0(Penetrate)
G01 X107.733402 Y198.054649 Z-0.125000 F800.000000
G01 X107.819114 Y184.222350 Z-0.125000
G01 X96.220572 Y161.909791 Z-0.125000
G01 X104.914137 Y141.761651 Z-0.125000
G01 X101.730109 Y112.066718 Z-0.125000
G01 X111.055758 Y101.877608 Z-0.125000
G01 X95.643700 Y68.743108 Z-0.125000
G01 X114.115237 Y53.853908 Z-0.125000
G01 X95.649990 Y33.854179 Z-0.125000
G00 Z5.000000

(End cutting path id: polyline160733)


(Start cutting path id: polyline160735)
(Change tool to Default tool)

G00 Z5.000000
G00 X104.313254 Y223.088480

G00 Z4.875000 (Fast pre-penetrate)
G01 Z-0.125000 F100.0(Penetrate)
G01 X108.835480 Y198.006477 Z-0.125000 F800.000000
G01 X108.692559 Y184.459069 Z-0.125000
G01 X98.526263 Y161.503145 Z-0.125000
G01 X106.437337 Y142.235789 Z-0.125000
G01 X102.202549 Y112.484097 Z-0.125000
G01 X113.190674 Y101.015046 Z-0.125000
G01 X96.875019 Y69.075373 Z-0.125000
G01 X115.369918 Y53.869583 Z-0.125000
G01 X97.002514 Y33.583415 Z-0.125000
G00 Z5.000000

(End cutting path id: polyline160735)


(Start cutting path id: polyline160737)
(Change tool to Default tool)

G00 Z5.000000
G00 X106.075968 Y223.327795

G00 Z4.875000 (Fast pre-penetrate)
G01 Z-0.125000 F100.0(Penetrate)
G01 X109.937557 Y197.958304 Z-0.125000 F800.000000
G01 X109.566054 Y184.695788 Z-0.125000
G01 X100.831904 Y161.096500 Z-0.125000
G01 X107.960637 Y142.709926 Z-0.125000
G01 X102.674989 Y112.901475 Z-0.125000
G01 X115.325540 Y100.152483 Z-0.125000
G01 X98.106338 Y69.407639 Z-0.125000
G01 X116.624600 Y53.885308 Z-0.125000
G01 X98.355088 Y33.312650 Z-0.125000
G00 Z5.000000

(End cutting path id: polyline160737)


(Start cutting path id: polyline160739)
(Change tool to Default tool)

G00 Z5.000000
G00 X107.838633 Y223.567110

G00 Z4.875000 (Fast pre-penetrate)
G01 Z-0.125000 F100.0(Penetrate)
G01 X111.039634 Y197.910082 Z-0.125000 F800.000000
G01 X110.439549 Y184.932507 Z-0.125000
G01 X103.137595 Y160.689854 Z-0.125000
G01 X109.483887 Y143.184063 Z-0.125000
G01 X103.147379 Y113.318854 Z-0.125000
G01 X117.460406 Y99.289921 Z-0.125000
G01 X99.337608 Y69.739904 Z-0.125000
G01 X117.879282 Y53.900982 Z-0.125000
G01 X99.707613 Y33.041886 Z-0.125000
G00 Z5.000000

(End cutting path id: polyline160739)


(Start cutting path id: polyline160741)
(Change tool to Default tool)

G00 Z5.000000
G00 X109.601298 Y223.806475

G00 Z4.875000 (Fast pre-penetrate)
G01 Z-0.125000 F100.0(Penetrate)
G01 X112.141711 Y197.861909 Z-0.125000 F800.000000
G01 X111.312994 Y185.169227 Z-0.125000
G01 X105.443236 Y160.283158 Z-0.125000
G01 X111.007136 Y143.658200 Z-0.125000
G01 X103.619819 Y113.736232 Z-0.125000
G01 X119.595321 Y98.427358 Z-0.125000
G01 X100.568927 Y70.072120 Z-0.125000
G01 X119.133964 Y53.916707 Z-0.125000
G01 X101.060187 Y32.771122 Z-0.125000
G00 Z5.000000

(End cutting path id: polyline160741)


(Start cutting path id: polyline160743)
(Change tool to Default tool)

G00 Z5.000000
G00 X111.363962 Y224.045840

G00 Z4.875000 (Fast pre-penetrate)
G01 Z-0.125000 F100.0(Penetrate)
G01 X113.243788 Y197.813737 Z-0.125000 F800.000000
G01 X112.186489 Y185.405896 Z-0.125000
G01 X107.748927 Y159.876512 Z-0.125000
G01 X112.530386 Y144.132338 Z-0.125000
G01 X104.092259 Y114.153611 Z-0.125000
G01 X121.730187 Y97.564796 Z-0.125000
G01 X101.800196 Y70.404385 Z-0.125000
G01 X120.388645 Y53.932382 Z-0.125000
G01 X102.412711 Y32.500357 Z-0.125000
G00 Z5.000000

(End cutting path id: polyline160743)


(Start cutting path id: polyline160745)
(Change tool to Default tool)

G00 Z5.000000
G00 X113.126677 Y224.285155

G00 Z4.875000 (Fast pre-penetrate)
G01 Z-0.125000 F100.0(Penetrate)
G01 X114.345866 Y197.765564 Z-0.125000 F800.000000
G01 X110.054619 Y159.469866 Z-0.125000
G01 X114.053636 Y144.606425 Z-0.125000
G01 X104.564699 Y114.570990 Z-0.125000
G01 X123.865103 Y96.702283 Z-0.125000
G01 X103.031516 Y70.736651 Z-0.125000
G01 X121.643327 Y53.948107 Z-0.125000
G01 X103.765285 Y32.229593 Z-0.125000
G00 Z5.000000

(End cutting path id: polyline160745)


(Start cutting path id: polyline160747)
(Change tool to Default tool)

G00 Z5.000000
G00 X114.889341 Y224.524520

G00 Z4.875000 (Fast pre-penetrate)
G01 Z-0.125000 F100.0(Penetrate)
G01 X115.447893 Y197.717342 Z-0.125000 F800.000000
G01 X113.933479 Y185.879334 Z-0.125000
G01 X112.360260 Y159.063170 Z-0.125000
G01 X115.576885 Y145.080562 Z-0.125000
G01 X105.037140 Y114.988368 Z-0.125000
G01 X125.999969 Y95.839720 Z-0.125000
G01 X104.262835 Y71.068916 Z-0.125000
G01 X122.898009 Y53.963781 Z-0.125000
G01 X105.117810 Y31.958828 Z-0.125000
G00 Z5.000000

(End cutting path id: polyline160747)


(Start cutting path id: polyline160749)
(Change tool to Default tool)

G00 Z5.000000
G00 X116.652006 Y224.763835

G00 Z4.875000 (Fast pre-penetrate)
G01 Z-0.125000 F100.0(Penetrate)
G01 X116.550020 Y197.669169 Z-0.125000 F800.000000
G01 X114.806924 Y186.116053 Z-0.125000
G01 X114.665901 Y158.656524 Z-0.125000
G01 X117.100135 Y145.554700 Z-0.125000
G01 X105.509580 Y115.405797 Z-0.125000
G01 X128.134885 Y94.977158 Z-0.125000
G01 X105.494154 Y71.401182 Z-0.125000
G01 X124.152691 Y53.979506 Z-0.125000
G01 X106.470384 Y31.688064 Z-0.125000
G00 Z5.000000

(End cutting path id: polyline160749)


(Start cutting path id: polyline160751)
(Change tool to Default tool)

G00 Z5.000000
G00 X118.414671 Y225.003200

G00 Z4.875000 (Fast pre-penetrate)
G01 Z-0.125000 F100.0(Penetrate)
G01 X117.652047 Y197.620997 Z-0.125000 F800.000000
G01 X115.680419 Y186.352773 Z-0.125000
G01 X116.971592 Y158.249879 Z-0.125000
G01 X118.623385 Y146.028837 Z-0.125000
G01 X105.982020 Y115.823175 Z-0.125000
G01 X130.269751 Y94.114595 Z-0.125000
G01 X106.725424 Y71.733447 Z-0.125000
G01 X125.407372 Y53.995181 Z-0.125000
G01 X107.822908 Y31.417299 Z-0.125000
G00 Z5.000000

(End cutting path id: polyline160751)


(Start cutting path id: polyline160753)
(Change tool to Default tool)

G00 Z5.000000
G00 X120.177385 Y225.242515

G00 Z4.875000 (Fast pre-penetrate)
G01 Z-0.125000 F100.0(Penetrate)
G01 X118.754125 Y197.572824 Z-0.125000 F800.000000
G01 X116.553864 Y186.589492 Z-0.125000
G01 X119.277283 Y157.843233 Z-0.125000
G01 X120.146635 Y146.502974 Z-0.125000
G01 X106.454460 Y116.240554 Z-0.125000
G01 X132.404617 Y93.252033 Z-0.125000
G01 X107.956743 Y72.065713 Z-0.125000
G01 X126.662054 Y54.010906 Z-0.125000
G01 X109.175483 Y31.146535 Z-0.125000
G00 Z5.000000

(End cutting path id: polyline160753)


(Start cutting path id: polyline160755)
(Change tool to Default tool)

G00 Z5.000000
G00 X124.468832 Y225.821783

G00 Z4.875000 (Fast pre-penetrate)
G01 Z-0.125000 F100.0(Penetrate)
G01 X120.635448 Y197.966092 Z-0.125000 F800.000000
G01 X120.243129 Y186.804346 Z-0.125000
G01 X123.963345 Y157.473727 Z-0.125000
G01 X122.491213 Y147.200902 Z-0.125000
G01 X111.233672 Y116.981562 Z-0.125000
G01 X134.831563 Y92.051963 Z-0.125000
G01 X113.077955 Y72.895179 Z-0.125000
G01 X129.145559 Y54.178686 Z-0.125000
G01 X114.532865 Y31.289854 Z-0.125000
G00 Z5.000000

(End cutting path id: polyline160755)


(Start cutting path id: polyline160603)
(Change tool to Default tool)

G00 Z5.000000
G00 X125.733198 Y225.991760

G00 Z4.875000 (Fast pre-penetrate)
G01 Z-0.125000 F100.0(Penetrate)
G01 X121.025122 Y198.186837 Z-0.125000 F800.000000
G01 X121.650965 Y186.793414 Z-0.125000
G01 X125.153531 Y157.492297 Z-0.125000
G01 X122.901903 Y147.312772 Z-0.125000
G01 X113.387058 Y117.143402 Z-0.125000
G01 X134.977628 Y91.883185 Z-0.125000
G01 X115.022927 Y73.143829 Z-0.125000
G01 X129.759921 Y54.254713 Z-0.125000
G01 X116.535294 Y31.496871 Z-0.125000
G00 Z5.000000

(End cutting path id: polyline160603)


(Start cutting path id: polyline160757)
(Change tool to Default tool)

G00 Z5.000000
G00 X126.997564 Y226.161687

G00 Z4.875000 (Fast pre-penetrate)
G01 Z-0.125000 F100.0(Penetrate)
G01 X121.414745 Y198.407582 Z-0.125000 F800.000000
G01 X123.058850 Y186.782432 Z-0.125000
G01 X126.343716 Y157.510867 Z-0.125000
G01 X123.312592 Y147.424692 Z-0.125000
G01 X115.540394 Y117.305241 Z-0.125000
G01 X135.123643 Y91.714456 Z-0.125000
G01 X116.967848 Y73.392429 Z-0.125000
G01 X130.374333 Y54.330791 Z-0.125000
G01 X118.537723 Y31.703888 Z-0.125000
G00 Z5.000000

(End cutting path id: polyline160757)


(Start cutting path id: polyline160759)
(Change tool to Default tool)

G00 Z5.000000
G00 X128.261931 Y226.331663

G00 Z4.875000 (Fast pre-penetrate)
G01 Z-0.125000 F100.0(Penetrate)
G01 X121.804368 Y198.628326 Z-0.125000 F800.000000
G01 X124.466735 Y186.771499 Z-0.125000
G01 X127.533952 Y157.529437 Z-0.125000
G01 X123.723281 Y147.536562 Z-0.125000
G01 X117.693780 Y117.467081 Z-0.125000
G01 X135.269658 Y91.545678 Z-0.125000
G01 X118.912819 Y73.641029 Z-0.125000
G01 X130.988744 Y54.406819 Z-0.125000
G01 X120.540202 Y31.910955 Z-0.125000
G00 Z5.000000

(End cutting path id: polyline160759)


(Start cutting path id: polyline160761)
(Change tool to Default tool)

G00 Z5.000000
G00 X129.526347 Y226.501640

G00 Z4.875000 (Fast pre-penetrate)
G01 Z-0.125000 F100.0(Penetrate)
G01 X122.193991 Y198.849071 Z-0.125000 F800.000000
G01 X125.874621 Y186.760567 Z-0.125000
G01 X128.724137 Y157.548008 Z-0.125000
G01 X124.133921 Y147.648432 Z-0.125000
G01 X119.847166 Y117.628921 Z-0.125000
G01 X135.415723 Y91.376949 Z-0.125000
G01 X120.857791 Y73.889679 Z-0.125000
G01 X131.603156 Y54.482846 Z-0.125000
G01 X122.542630 Y32.117972 Z-0.125000
G00 Z5.000000

(End cutting path id: polyline160761)


(Start cutting path id: polyline160763)
(Change tool to Default tool)

G00 Z5.000000
G00 X130.790713 Y226.671567

G00 Z4.875000 (Fast pre-penetrate)
G01 Z-0.125000 F100.0(Penetrate)
G01 X122.583615 Y199.069816 Z-0.125000 F800.000000
G01 X127.282456 Y186.749634 Z-0.125000
G01 X129.914323 Y157.566628 Z-0.125000
G01 X124.544610 Y147.760352 Z-0.125000
G01 X122.000552 Y117.790760 Z-0.125000
G01 X135.561738 Y91.208171 Z-0.125000
G01 X122.802762 Y74.138279 Z-0.125000
G01 X132.217568 Y54.558924 Z-0.125000
G01 X124.545059 Y32.324989 Z-0.125000
G00 Z5.000000

(End cutting path id: polyline160763)


(Start cutting path id: polyline160563)
(Change tool to Default tool)

G00 Z5.000000
G00 X163.246755 Y222.708991

G00 Z4.875000 (Fast pre-penetrate)
G01 Z-0.125000 F100.0(Penetrate)
G01 X178.372823 Y198.147550 Z-0.125000 F800.000000
G01 X170.986055 Y183.793040 Z-0.125000
G01 X172.600708 Y168.037684 Z-0.125000
G01 X169.748646 Y135.347818 Z-0.125000
G01 X184.397582 Y117.677692 Z-0.125000
G01 X158.705160 Y103.909440 Z-0.125000
G01 X180.366466 Y71.996874 Z-0.125000
G01 X163.371304 Y51.858368 Z-0.125000
G01 X173.536253 Y36.308282 Z-0.125000
G00 Z5.000000

(End cutting path id: polyline160563)


(Start cutting path id: polyline160545)
(Change tool to Default tool)

G00 Z5.000000
G00 X176.747887 Y220.660436

G00 Z4.875000 (Fast pre-penetrate)
G01 Z-0.125000 F100.0(Penetrate)
G01 X189.260160 Y198.606512 Z-0.125000 F800.000000
G01 X181.920766 Y185.150007 Z-0.125000
G01 X188.566376 Y167.386282 Z-0.125000
G01 X179.836618 Y130.945400 Z-0.125000
G01 X199.000192 Y122.151296 Z-0.125000
G01 X170.914221 Y103.687397 Z-0.125000
G01 X192.051769 Y69.335355 Z-0.125000
G01 X167.324445 Y47.060137 Z-0.125000
G01 X183.049001 Y31.650175 Z-0.125000
G00 Z5.000000

(End cutting path id: polyline160545)


(Start cutting path id: polyline160541)
(Change tool to Default tool)

G00 Z5.000000
G00 X179.792589 Y220.701071

G00 Z4.875000 (Fast pre-penetrate)
G01 Z-0.125000 F100.0(Penetrate)
G01 X189.673245 Y198.032135 Z-0.125000 F800.000000
G01 X185.422283 Y185.474785 Z-0.125000
G01 X190.545342 Y166.999504 Z-0.125000
G01 X181.275703 Y130.673038 Z-0.125000
G01 X200.060886 Y123.010514 Z-0.125000
G01 X175.125147 Y103.103836 Z-0.125000
G01 X193.512819 Y70.526189 Z-0.125000
G01 X170.871240 Y47.195020 Z-0.125000
G01 X185.048235 Y31.611936 Z-0.125000
G00 Z5.000000

(End cutting path id: polyline160541)


(Start cutting path id: polyline160537)
(Change tool to Default tool)

G00 Z5.000000
G00 X182.837341 Y220.741705

G00 Z4.875000 (Fast pre-penetrate)
G01 Z-0.125000 F100.0(Penetrate)
G01 X190.086281 Y197.457759 Z-0.125000 F800.000000
G01 X188.923801 Y185.799513 Z-0.125000
G01 X192.524309 Y166.612726 Z-0.125000
G01 X182.714789 Y130.400676 Z-0.125000
G01 X201.121630 Y123.869732 Z-0.125000
G01 X179.336074 Y102.520224 Z-0.125000
G01 X194.973869 Y71.717024 Z-0.125000
G01 X174.418035 Y47.329853 Z-0.125000
G01 X187.047519 Y31.573648 Z-0.125000
G00 Z5.000000

(End cutting path id: polyline160537)


(Start cutting path id: polyline160535)
(Change tool to Default tool)

G00 Z5.000000
G00 X184.359743 Y220.761973

G00 Z4.875000 (Fast pre-penetrate)
G01 Z-0.125000 F100.0(Penetrate)
G01 X190.292849 Y197.170571 Z-0.125000 F800.000000
G01 X190.674585 Y185.961901 Z-0.125000
G01 X193.513817 Y166.419337 Z-0.125000
G01 X183.434331 Y130.264545 Z-0.125000
G01 X201.652026 Y124.299291 Z-0.125000
G01 X181.441537 Y102.228444 Z-0.125000
G01 X195.704394 Y72.312416 Z-0.125000
G01 X176.191432 Y47.397294 Z-0.125000
G01 X188.047161 Y31.554529 Z-0.125000
G00 Z5.000000

(End cutting path id: polyline160535)


(Start cutting path id: polyline160533)
(Change tool to Default tool)

G00 Z5.000000
G00 X185.882094 Y220.782290

G00 Z4.875000 (Fast pre-penetrate)
G01 Z-0.125000 F100.0(Penetrate)
G01 X190.499366 Y196.883383 Z-0.125000 F800.000000
G01 X192.425318 Y186.124290 Z-0.125000
G01 X194.503276 Y166.225948 Z-0.125000
G01 X184.153874 Y130.128364 Z-0.125000
G01 X202.182373 Y124.728900 Z-0.125000
G01 X183.546950 Y101.936663 Z-0.125000
G01 X196.434869 Y72.907858 Z-0.125000
G01 X177.964829 Y47.464736 Z-0.125000
G01 X189.046753 Y31.535409 Z-0.125000
G00 Z5.000000

(End cutting path id: polyline160533)


(Start cutting path id: polyline160531)
(Change tool to Default tool)

G00 Z5.000000
G00 X187.404495 Y220.802607

G00 Z4.875000 (Fast pre-penetrate)
G01 Z-0.125000 F100.0(Penetrate)
G01 X190.705884 Y196.596245 Z-0.125000 F800.000000
G01 X194.176102 Y186.286679 Z-0.125000
G01 X195.492784 Y166.032559 Z-0.125000
G01 X184.873366 Y129.992183 Z-0.125000
G01 X202.712770 Y125.158509 Z-0.125000
G01 X185.652413 Y101.644832 Z-0.125000
G01 X197.165394 Y73.503251 Z-0.125000
G01 X179.738227 Y47.532177 Z-0.125000
G01 X190.046395 Y31.516240 Z-0.125000
G00 Z5.000000

(End cutting path id: polyline160531)


(Start cutting path id: polyline160529)
(Change tool to Default tool)

G00 Z5.000000
G00 X188.926846 Y220.822925

G00 Z4.875000 (Fast pre-penetrate)
G01 Z-0.125000 F100.0(Penetrate)
G01 X190.912452 Y196.309007 Z-0.125000 F800.000000
G01 X195.926836 Y186.449018 Z-0.125000
G01 X196.482242 Y165.839171 Z-0.125000
G01 X185.592909 Y129.856002 Z-0.125000
G01 X203.243117 Y125.588118 Z-0.125000
G01 X187.757876 Y101.353052 Z-0.125000
G01 X197.895918 Y74.098693 Z-0.125000
G01 X181.511624 Y47.599619 Z-0.125000
G01 X191.045987 Y31.497121 Z-0.125000
G00 Z5.000000

(End cutting path id: polyline160529)


(Start cutting path id: polyline160527)
(Change tool to Default tool)

G00 Z5.000000
G00 X190.449197 Y220.843242

G00 Z4.875000 (Fast pre-penetrate)
G01 Z-0.125000 F100.0(Penetrate)
G01 X191.118970 Y196.021819 Z-0.125000 F800.000000
G01 X197.677620 Y186.611407 Z-0.125000
G01 X197.471751 Y165.645782 Z-0.125000
G01 X186.312451 Y129.719822 Z-0.125000
G01 X203.773514 Y126.017727 Z-0.125000
G01 X189.863340 Y101.061271 Z-0.125000
G01 X198.626443 Y74.694085 Z-0.125000
G01 X183.285021 Y47.667010 Z-0.125000
G01 X192.045629 Y31.478002 Z-0.125000
G00 Z5.000000

(End cutting path id: polyline160527)


(Start cutting path id: polyline160525)
(Change tool to Default tool)

G00 Z5.000000
G00 X191.971598 Y220.863559

G00 Z4.875000 (Fast pre-penetrate)
G01 Z-0.125000 F100.0(Penetrate)
G01 X191.325488 Y195.734681 Z-0.125000 F800.000000
G01 X199.428403 Y186.773795 Z-0.125000
G01 X198.461209 Y165.452393 Z-0.125000
G01 X187.031994 Y129.583641 Z-0.125000
G01 X204.303861 Y126.447336 Z-0.125000
G01 X191.968803 Y100.769491 Z-0.125000
G01 X199.356968 Y75.289527 Z-0.125000
G01 X185.058419 Y47.734452 Z-0.125000
G01 X193.045271 Y31.458882 Z-0.125000
G00 Z5.000000

(End cutting path id: polyline160525)


(Start cutting path id: polyline160547)
(Change tool to Default tool)

G00 Z5.000000
G00 X193.493949 Y220.883926

G00 Z4.875000 (Fast pre-penetrate)
G01 Z-0.125000 F100.0(Penetrate)
G01 X191.532055 Y195.447493 Z-0.125000 F800.000000
G01 X201.179137 Y186.936184 Z-0.125000
G01 X199.450717 Y165.259004 Z-0.125000
G01 X187.751537 Y129.447510 Z-0.125000
G01 X204.834208 Y126.876895 Z-0.125000
G01 X194.074266 Y100.477660 Z-0.125000
G01 X200.087443 Y75.884919 Z-0.125000
G01 X186.831816 Y47.801893 Z-0.125000
G01 X194.044863 Y31.439713 Z-0.125000
G00 Z5.000000

(End cutting path id: polyline160547)


(Start cutting path id: polyline160523)
(Change tool to Default tool)

G00 Z5.000000
G00 X195.016350 Y220.904194

G00 Z4.875000 (Fast pre-penetrate)
G01 Z-0.125000 F100.0(Penetrate)
G01 X191.738623 Y195.160305 Z-0.125000 F800.000000
G01 X202.929921 Y187.098573 Z-0.125000
G01 X200.440176 Y165.065615 Z-0.125000
G01 X188.471079 Y129.311329 Z-0.125000
G01 X205.364604 Y127.306504 Z-0.125000
G01 X196.179729 Y100.185879 Z-0.125000
G01 X200.817968 Y76.480312 Z-0.125000
G01 X188.605213 Y47.869335 Z-0.125000
G01 X195.044505 Y31.420594 Z-0.125000
G00 Z5.000000

(End cutting path id: polyline160523)


(Start cutting path id: polyline160549)
(Change tool to Default tool)

G00 Z5.000000
G00 X196.538702 Y220.924511

G00 Z4.875000 (Fast pre-penetrate)
G01 Z-0.125000 F100.0(Penetrate)
G01 X191.945141 Y194.873117 Z-0.125000 F800.000000
G01 X204.680655 Y187.260912 Z-0.125000
G01 X201.429684 Y164.872226 Z-0.125000
G01 X189.190622 Y129.175148 Z-0.125000
G01 X205.894951 Y127.736112 Z-0.125000
G01 X198.285192 Y99.894099 Z-0.125000
G01 X201.548543 Y77.075754 Z-0.125000
G01 X190.378611 Y47.936776 Z-0.125000
G01 X196.044147 Y31.401475 Z-0.125000
G00 Z5.000000

(End cutting path id: polyline160549)


(Start cutting path id: polyline160539)
(Change tool to Default tool)

G00 Z5.000000
G00 X181.314990 Y220.721338

G00 Z4.875000 (Fast pre-penetrate)
G01 Z-0.125000 F100.0(Penetrate)
G01 X189.879763 Y197.744947 Z-0.125000 F800.000000
G01 X187.173067 Y185.637124 Z-0.125000
G01 X191.534851 Y166.806115 Z-0.125000
G01 X181.995246 Y130.536857 Z-0.125000
G01 X200.591283 Y123.440123 Z-0.125000
G01 X177.230610 Y102.812005 Z-0.125000
G01 X194.243344 Y71.121582 Z-0.125000
G01 X172.644637 Y47.262411 Z-0.125000
G01 X186.047877 Y31.592767 Z-0.125000
G00 Z5.000000

(End cutting path id: polyline160539)


(Start cutting path id: polyline160543)
(Change tool to Default tool)

G00 Z5.000000
G00 X178.270238 Y220.680703

G00 Z4.875000 (Fast pre-penetrate)
G01 Z-0.125000 F100.0(Penetrate)
G01 X189.466678 Y198.319323 Z-0.125000 F800.000000
G01 X183.671500 Y185.312396 Z-0.125000
G01 X189.555834 Y167.192893 Z-0.125000
G01 X180.556211 Y130.809219 Z-0.125000
G01 X199.530539 Y122.580905 Z-0.125000
G01 X173.019684 Y103.395616 Z-0.125000
G01 X192.782294 Y69.930747 Z-0.125000
G01 X169.097843 Y47.127578 Z-0.125000
G01 X184.048643 Y31.631055 Z-0.125000
G00 Z5.000000

(End cutting path id: polyline160543)


(Start cutting path id: polyline160551)
(Change tool to Default tool)

G00 Z5.000000
G00 X172.209337 Y220.918271

G00 Z4.875000 (Fast pre-penetrate)
G01 Z-0.125000 F100.0(Penetrate)
G01 X187.350731 Y199.033225 Z-0.125000 F800.000000
G01 X177.357356 Y184.677817 Z-0.125000
G01 X184.589323 Y167.810899 Z-0.125000
G01 X177.162021 Y131.807763 Z-0.125000
G01 X196.004910 Y120.775809 Z-0.125000
G01 X165.560682 Y104.219341 Z-0.125000
G01 X189.130119 Y68.694885 Z-0.125000
G01 X163.719644 Y47.629970 Z-0.125000
G01 X179.976393 Y32.348402 Z-0.125000
G00 Z5.000000

(End cutting path id: polyline160551)


(Start cutting path id: polyline160553)
(Change tool to Default tool)

G00 Z5.000000
G00 X170.715590 Y221.216691

G00 Z4.875000 (Fast pre-penetrate)
G01 Z-0.125000 F100.0(Penetrate)
G01 X185.854438 Y198.885613 Z-0.125000 F800.000000
G01 X176.295465 Y184.530354 Z-0.125000
G01 X182.591187 Y167.848688 Z-0.125000
G01 X175.926458 Y132.397764 Z-0.125000
G01 X194.070322 Y120.259439 Z-0.125000
G01 X164.418120 Y104.167674 Z-0.125000
G01 X187.669518 Y69.245200 Z-0.125000
G01 X163.661587 Y48.334686 Z-0.125000
G01 X178.903020 Y33.008390 Z-0.125000
G00 Z5.000000

(End cutting path id: polyline160553)


(Start cutting path id: polyline160555)
(Change tool to Default tool)

G00 Z5.000000
G00 X169.221843 Y221.515161

G00 Z4.875000 (Fast pre-penetrate)
G01 Z-0.125000 F100.0(Penetrate)
G01 X184.358095 Y198.738000 Z-0.125000 F800.000000
G01 X175.233573 Y184.382891 Z-0.125000
G01 X180.593101 Y167.886477 Z-0.125000
G01 X174.690896 Y132.987765 Z-0.125000
G01 X192.135784 Y119.743070 Z-0.125000
G01 X163.275508 Y104.116057 Z-0.125000
G01 X186.208918 Y69.795515 Z-0.125000
G01 X163.603531 Y49.039403 Z-0.125000
G01 X177.829697 Y33.668378 Z-0.125000
G00 Z5.000000

(End cutting path id: polyline160555)


(Start cutting path id: polyline160557)
(Change tool to Default tool)

G00 Z5.000000
G00 X167.728046 Y221.813631

G00 Z4.875000 (Fast pre-penetrate)
G01 Z-0.125000 F100.0(Penetrate)
G01 X182.861802 Y198.590387 Z-0.125000 F800.000000
G01 X174.171681 Y184.235379 Z-0.125000
G01 X178.595016 Y167.924316 Z-0.125000
G01 X173.455333 Y133.577766 Z-0.125000
G01 X190.201246 Y119.226750 Z-0.125000
G01 X162.132946 Y104.064390 Z-0.125000
G01 X184.748317 Y70.345879 Z-0.125000
G01 X163.545474 Y49.744169 Z-0.125000
G01 X176.756323 Y34.328367 Z-0.125000
G00 Z5.000000

(End cutting path id: polyline160557)


(Start cutting path id: polyline160559)
(Change tool to Default tool)

G00 Z5.000000
G00 X166.234299 Y222.112101

G00 Z4.875000 (Fast pre-penetrate)
G01 Z-0.125000 F100.0(Penetrate)
G01 X181.365459 Y198.442775 Z-0.125000 F800.000000
G01 X173.109839 Y184.087916 Z-0.125000
G01 X176.596880 Y167.962106 Z-0.125000
G01 X172.219771 Y134.167817 Z-0.125000
G01 X188.266708 Y118.710381 Z-0.125000
G01 X160.990334 Y104.012724 Z-0.125000
G01 X183.287667 Y70.896194 Z-0.125000
G01 X163.487417 Y50.448885 Z-0.125000
G01 X175.682950 Y34.988355 Z-0.125000
G00 Z5.000000

(End cutting path id: polyline160559)


(Start cutting path id: polyline160561)
(Change tool to Default tool)

G00 Z5.000000
G00 X164.740502 Y222.410571

G00 Z4.875000 (Fast pre-penetrate)
G01 Z-0.125000 F100.0(Penetrate)
G01 X179.869166 Y198.295162 Z-0.125000 F800.000000
G01 X172.047947 Y183.940453 Z-0.125000
G01 X174.598794 Y167.999895 Z-0.125000
G01 X170.984208 Y134.757817 Z-0.125000
G01 X186.332120 Y118.194062 Z-0.125000
G01 X159.847722 Y103.961057 Z-0.125000
G01 X181.827067 Y71.446509 Z-0.125000
G01 X163.429361 Y51.153602 Z-0.125000
G01 X174.609576 Y35.648293 Z-0.125000
G00 Z5.000000

(End cutting path id: polyline160561)


(Start cutting path id: polyline160565)
(Change tool to Default tool)

G00 Z5.000000
G00 X161.753007 Y223.007461

G00 Z4.875000 (Fast pre-penetrate)
G01 Z-0.125000 F100.0(Penetrate)
G01 X176.876480 Y197.999887 Z-0.125000 F800.000000
G01 X169.924163 Y183.645528 Z-0.125000
G01 X170.602572 Y168.075523 Z-0.125000
G01 X168.513133 Y135.937819 Z-0.125000
G01 X182.463044 Y117.161373 Z-0.125000
G01 X157.562548 Y103.857773 Z-0.125000
G01 X178.905866 Y72.547188 Z-0.125000
G01 X163.313297 Y52.563085 Z-0.125000
G01 X172.462880 Y36.968270 Z-0.125000
G00 Z5.000000

(End cutting path id: polyline160565)


(Start cutting path id: polyline160567)
(Change tool to Default tool)

G00 Z5.000000
G00 X160.259210 Y223.305930

G00 Z4.875000 (Fast pre-penetrate)
G01 Z-0.125000 F100.0(Penetrate)
G01 X175.380187 Y197.852275 Z-0.125000 F800.000000
G01 X168.862271 Y183.498065 Z-0.125000
G01 X168.604486 Y168.113312 Z-0.125000
G01 X167.277571 Y136.527820 Z-0.125000
G01 X180.528505 Y116.645003 Z-0.125000
G01 X156.419986 Y103.806106 Z-0.125000
G01 X177.445215 Y73.097553 Z-0.125000
G01 X163.255191 Y53.267801 Z-0.125000
G01 X171.389506 Y37.628258 Z-0.125000
G00 Z5.000000

(End cutting path id: polyline160567)


(Start cutting path id: polyline160569)
(Change tool to Default tool)

G00 Z5.000000
G00 X158.765463 Y223.604400

G00 Z4.875000 (Fast pre-penetrate)
G01 Z-0.125000 F100.0(Penetrate)
G01 X173.883844 Y197.704662 Z-0.125000 F800.000000
G01 X167.800430 Y183.350602 Z-0.125000
G01 X166.606350 Y168.151102 Z-0.125000
G01 X166.042008 Y137.117871 Z-0.125000
G01 X178.593917 Y116.128684 Z-0.125000
G01 X155.277374 Y103.754439 Z-0.125000
G01 X175.984615 Y73.647868 Z-0.125000
G01 X163.197184 Y53.972567 Z-0.125000
G01 X170.316133 Y38.288247 Z-0.125000
G00 Z5.000000

(End cutting path id: polyline160569)


(Start cutting path id: polyline160571)
(Change tool to Default tool)

G00 Z5.000000
G00 X157.271716 Y223.902870

G00 Z4.875000 (Fast pre-penetrate)
G01 Z-0.125000 F100.0(Penetrate)
G01 X172.387551 Y197.557050 Z-0.125000 F800.000000
G01 X166.738538 Y183.203139 Z-0.125000
G01 X164.608264 Y168.188891 Z-0.125000
G01 X164.806446 Y137.707822 Z-0.125000
G01 X176.659379 Y115.612315 Z-0.125000
G01 X154.134812 Y103.702772 Z-0.125000
G01 X174.524014 Y74.198183 Z-0.125000
G01 X163.139128 Y54.677284 Z-0.125000
G01 X169.242809 Y38.948185 Z-0.125000
G00 Z5.000000

(End cutting path id: polyline160571)


(Start cutting path id: polyline160573)
(Change tool to Default tool)

G00 Z5.000000
G00 X155.777919 Y224.201340

G00 Z4.875000 (Fast pre-penetrate)
G01 Z-0.125000 F100.0(Penetrate)
G01 X170.891208 Y197.409437 Z-0.125000 F800.000000
G01 X165.676646 Y183.055676 Z-0.125000
G01 X162.610179 Y168.226730 Z-0.125000
G01 X163.570883 Y138.297873 Z-0.125000
G01 X174.724841 Y115.095995 Z-0.125000
G01 X152.992200 Y103.651105 Z-0.125000
G01 X173.063414 Y74.748547 Z-0.125000
G01 X163.081071 Y55.382000 Z-0.125000
G01 X168.169436 Y39.608174 Z-0.125000
G00 Z5.000000

(End cutting path id: polyline160573)


(Start cutting path id: polyline160575)
(Change tool to Default tool)

G00 Z5.000000
G00 X154.284172 Y224.499810

G00 Z4.875000 (Fast pre-penetrate)
G01 Z-0.125000 F100.0(Penetrate)
G01 X169.394915 Y197.261825 Z-0.125000 F800.000000
G01 X164.614754 Y182.908214 Z-0.125000
G01 X160.612043 Y168.264519 Z-0.125000
G01 X162.335321 Y138.887874 Z-0.125000
G01 X172.790253 Y114.579626 Z-0.125000
G01 X151.849638 Y103.599488 Z-0.125000
G01 X171.602763 Y75.298862 Z-0.125000
G01 X163.023014 Y56.086766 Z-0.125000
G01 X167.096063 Y40.268162 Z-0.125000
G00 Z5.000000

(End cutting path id: polyline160575)


(Start cutting path id: polyline160577)
(Change tool to Default tool)

G00 Z5.000000
G00 X152.790424 Y224.798280

G00 Z4.875000 (Fast pre-penetrate)
G01 Z-0.125000 F100.0(Penetrate)
G01 X167.898572 Y197.114212 Z-0.125000 F800.000000
G01 X163.552912 Y182.760751 Z-0.125000
G01 X158.613957 Y168.302308 Z-0.125000
G01 X161.099758 Y139.477875 Z-0.125000
G01 X170.855715 Y114.063256 Z-0.125000
G01 X150.707026 Y103.547821 Z-0.125000
G01 X170.142163 Y75.849227 Z-0.125000
G01 X162.965008 Y56.791483 Z-0.125000
G01 X166.022689 Y40.928100 Z-0.125000
G00 Z5.000000

(End cutting path id: polyline160577)


(Start cutting path id: polyline160579)
(Change tool to Default tool)

G00 Z5.000000
G00 X151.296627 Y225.096700

G00 Z4.875000 (Fast pre-penetrate)
G01 Z-0.125000 F100.0(Penetrate)
G01 X166.402279 Y196.966599 Z-0.125000 F800.000000
G01 X162.491020 Y182.613288 Z-0.125000
G01 X156.615871 Y168.340098 Z-0.125000
G01 X159.864196 Y140.067876 Z-0.125000
G01 X168.921177 Y113.546937 Z-0.125000
G01 X149.564464 Y103.496154 Z-0.125000
G01 X168.681562 Y76.399542 Z-0.125000
G01 X162.906951 Y57.496199 Z-0.125000
G01 X164.949366 Y41.588089 Z-0.125000
G00 Z5.000000

(End cutting path id: polyline160579)


(Start cutting path id: polyline160581)
(Change tool to Default tool)

G00 Z5.000000
G00 X149.802880 Y225.395170

G00 Z4.875000 (Fast pre-penetrate)
G01 Z-0.125000 F100.0(Penetrate)
G01 X164.905936 Y196.818937 Z-0.125000 F800.000000
G01 X161.429128 Y182.465775 Z-0.125000
G01 X154.617785 Y168.377937 Z-0.125000
G01 X158.628633 Y140.657927 Z-0.125000
G01 X166.986639 Y113.030617 Z-0.125000
G01 X148.421852 Y103.444488 Z-0.125000
G01 X167.220912 Y76.949906 Z-0.125000
G01 X162.848895 Y58.200966 Z-0.125000
G01 X163.875992 Y42.248077 Z-0.125000
G00 Z5.000000

(End cutting path id: polyline160581)


(Start cutting path id: polyline160583)
(Change tool to Default tool)

G00 Z5.000000
G00 X147.735655 Y226.008633

G00 Z4.875000 (Fast pre-penetrate)
G01 Z-0.125000 F100.0(Penetrate)
G01 X159.064931 Y197.213203 Z-0.125000 F800.000000
G01 X158.131233 Y182.826795 Z-0.125000
G01 X151.348694 Y167.161194 Z-0.125000
G01 X154.011710 Y142.145733 Z-0.125000
G01 X162.520573 Y113.325393 Z-0.125000
G01 X146.072531 Y101.760846 Z-0.125000
G01 X162.994660 Y77.397187 Z-0.125000
G01 X159.916811 Y58.483761 Z-0.125000
G01 X160.657520 Y41.906527 Z-0.125000
G00 Z5.000000

(End cutting path id: polyline160583)


(Start cutting path id: polyline160585)
(Change tool to Default tool)

G00 Z5.000000
G00 X147.448917 Y226.166130

G00 Z4.875000 (Fast pre-penetrate)
G01 Z-0.125000 F100.0(Penetrate)
G01 X156.892626 Y197.484167 Z-0.125000 F800.000000
G01 X157.013232 Y183.081036 Z-0.125000
G01 X150.713216 Y166.533953 Z-0.125000
G01 X152.321029 Y142.594611 Z-0.125000
G01 X161.254859 Y113.730991 Z-0.125000
G01 X145.469201 Y100.944809 Z-0.125000
G01 X161.611834 Y77.345670 Z-0.125000
G01 X158.479773 Y58.272800 Z-0.125000
G01 X159.584995 Y41.405782 Z-0.125000
G00 Z5.000000

(End cutting path id: polyline160585)


(Start cutting path id: polyline160587)
(Change tool to Default tool)

G00 Z5.000000
G00 X147.162178 Y226.323626

G00 Z4.875000 (Fast pre-penetrate)
G01 Z-0.125000 F100.0(Penetrate)
G01 X154.720270 Y197.755081 Z-0.125000 F800.000000
G01 X155.895230 Y183.335227 Z-0.125000
G01 X150.077738 Y165.906712 Z-0.125000
G01 X150.630349 Y143.043489 Z-0.125000
G01 X159.989095 Y114.136588 Z-0.125000
G01 X144.865822 Y100.128821 Z-0.125000
G01 X160.229059 Y77.294153 Z-0.125000
G01 X157.042784 Y58.061839 Z-0.125000
G01 X158.512470 Y40.905037 Z-0.125000
G00 Z5.000000

(End cutting path id: polyline160587)


(Start cutting path id: polyline160589)
(Change tool to Default tool)

G00 Z5.000000
G00 X146.875439 Y226.481123

G00 Z4.875000 (Fast pre-penetrate)
G01 Z-0.125000 F100.0(Penetrate)
G01 X152.547914 Y198.025995 Z-0.125000 F800.000000
G01 X154.777228 Y183.589468 Z-0.125000
G01 X149.442210 Y165.279421 Z-0.125000
G01 X148.939619 Y143.492417 Z-0.125000
G01 X158.723331 Y114.542136 Z-0.125000
G01 X144.262442 Y99.312784 Z-0.125000
G01 X158.846233 Y77.242685 Z-0.125000
G01 X155.605746 Y57.850879 Z-0.125000
G01 X157.439895 Y40.404293 Z-0.125000
G00 Z5.000000

(End cutting path id: polyline160589)


(Start cutting path id: polyline160591)
(Change tool to Default tool)

G00 Z5.000000
G00 X146.588700 Y226.638669

G00 Z4.875000 (Fast pre-penetrate)
G01 Z-0.125000 F100.0(Penetrate)
G01 X150.375609 Y198.296959 Z-0.125000 F800.000000
G01 X153.659227 Y183.843709 Z-0.125000
G01 X148.806732 Y164.652180 Z-0.125000
G01 X147.248938 Y143.941295 Z-0.125000
G01 X157.457567 Y114.947734 Z-0.125000
G01 X143.659063 Y98.496796 Z-0.125000
G01 X157.463408 Y77.191168 Z-0.125000
G01 X154.168757 Y57.639918 Z-0.125000
G01 X156.367371 Y39.903548 Z-0.125000
G00 Z5.000000

(End cutting path id: polyline160591)


(Start cutting path id: polyline160593)
(Change tool to Default tool)

G00 Z5.000000
G00 X146.301962 Y226.796166

G00 Z4.875000 (Fast pre-penetrate)
G01 Z-0.125000 F100.0(Penetrate)
G01 X148.203253 Y198.567874 Z-0.125000 F800.000000
G01 X152.541225 Y184.097950 Z-0.125000
G01 X148.171255 Y164.024939 Z-0.125000
G01 X145.558258 Y144.390223 Z-0.125000
G01 X156.191803 Y115.353281 Z-0.125000
G01 X143.055684 Y97.680759 Z-0.125000
G01 X156.080582 Y77.139651 Z-0.125000
G01 X152.731719 Y57.428957 Z-0.125000
G01 X155.294846 Y39.402804 Z-0.125000
G00 Z5.000000

(End cutting path id: polyline160593)


(Start cutting path id: polyline160595)
(Change tool to Default tool)

G00 Z5.000000
G00 X146.015223 Y226.953663

G00 Z4.875000 (Fast pre-penetrate)
G01 Z-0.125000 F100.0(Penetrate)
G01 X146.030898 Y198.838838 Z-0.125000 F800.000000
G01 X151.423224 Y184.352191 Z-0.125000
G01 X147.535777 Y163.397698 Z-0.125000
G01 X143.867578 Y144.839151 Z-0.125000
G01 X154.926089 Y115.758879 Z-0.125000
G01 X142.452354 Y96.864772 Z-0.125000
G01 X154.697756 Y77.088134 Z-0.125000
G01 X151.294730 Y57.217997 Z-0.125000
G01 X154.222271 Y38.902059 Z-0.125000
G00 Z5.000000

(End cutting path id: polyline160595)


(Start cutting path id: polyline160597)
(Change tool to Default tool)

G00 Z5.000000
G00 X145.728484 Y227.111159

G00 Z4.875000 (Fast pre-penetrate)
G01 Z-0.125000 F100.0(Penetrate)
G01 X143.858542 Y199.109752 Z-0.125000 F800.000000
G01 X150.305222 Y184.606382 Z-0.125000
G01 X146.900249 Y162.770457 Z-0.125000
G01 X142.176897 Y145.288029 Z-0.125000
G01 X153.660325 Y116.164476 Z-0.125000
G01 X141.848975 Y96.048734 Z-0.125000
G01 X153.314931 Y77.036617 Z-0.125000
G01 X149.857692 Y57.007036 Z-0.125000
G01 X153.149746 Y38.401265 Z-0.125000
G00 Z5.000000

(End cutting path id: polyline160597)


(Start cutting path id: polyline160599)
(Change tool to Default tool)

G00 Z5.000000
G00 X145.441695 Y227.268656

G00 Z4.875000 (Fast pre-penetrate)
G01 Z-0.125000 F100.0(Penetrate)
G01 X141.686236 Y199.380666 Z-0.125000 F800.000000
G01 X149.187220 Y184.860623 Z-0.125000
G01 X146.264771 Y162.143166 Z-0.125000
G01 X140.486217 Y145.736907 Z-0.125000
G01 X152.394561 Y116.570024 Z-0.125000
G01 X141.245645 Y95.232747 Z-0.125000
G01 X151.932105 Y76.985100 Z-0.125000
G01 X148.420703 Y56.796075 Z-0.125000
G01 X152.077172 Y37.900521 Z-0.125000
G00 Z5.000000

(End cutting path id: polyline160599)


(Start cutting path id: polyline160601)
(Change tool to Default tool)

G00 Z5.000000
G00 X145.154957 Y227.426153

G00 Z4.875000 (Fast pre-penetrate)
G01 Z-0.125000 F100.0(Penetrate)
G01 X139.513881 Y199.651630 Z-0.125000 F800.000000
G01 X148.069219 Y185.114814 Z-0.125000
G01 X145.629294 Y161.515925 Z-0.125000
G01 X138.795536 Y146.185835 Z-0.125000
G01 X151.128847 Y116.975622 Z-0.125000
G01 X140.642266 Y94.416710 Z-0.125000
G01 X150.549279 Y76.933583 Z-0.125000
G01 X146.983665 Y56.585115 Z-0.125000
G01 X151.004597 Y37.399776 Z-0.125000
G00 Z5.000000

(End cutting path id: polyline160601)


(Start cutting path id: polyline160777)
(Change tool to Default tool)

G00 Z5.000000
G00 X144.868218 Y227.583649

G00 Z4.875000 (Fast pre-penetrate)
G01 Z-0.125000 F100.0(Penetrate)
G01 X137.341575 Y199.922545 Z-0.125000 F800.000000
G01 X146.951217 Y185.369105 Z-0.125000
G01 X144.993816 Y160.888684 Z-0.125000
G01 X137.104856 Y146.634712 Z-0.125000
G01 X149.863083 Y117.381219 Z-0.125000
G01 X140.038886 Y93.600722 Z-0.125000
G01 X149.166454 Y76.882065 Z-0.125000
G01 X145.546677 Y56.374154 Z-0.125000
G01 X149.932072 Y36.899031 Z-0.125000
G00 Z5.000000

(End cutting path id: polyline160777)


(Start cutting path id: polyline160765)
(Change tool to Default tool)

G00 Z5.000000
G00 X132.055079 Y226.841543

G00 Z4.875000 (Fast pre-penetrate)
G01 Z-0.125000 F100.0(Penetrate)
G01 X122.973238 Y199.290561 Z-0.125000 F800.000000
G01 X128.690341 Y186.738702 Z-0.125000
G01 X131.104558 Y157.585198 Z-0.125000
G01 X124.955300 Y147.872222 Z-0.125000
G01 X124.153939 Y117.952600 Z-0.125000
G01 X135.707753 Y91.039442 Z-0.125000
G01 X124.747733 Y74.386929 Z-0.125000
G01 X132.831979 Y54.634952 Z-0.125000
G01 X126.547488 Y32.532006 Z-0.125000
G00 Z5.000000

(End cutting path id: polyline160765)


(Start cutting path id: polyline160767)
(Change tool to Default tool)

G00 Z5.000000
G00 X133.319445 Y227.011520

G00 Z4.875000 (Fast pre-penetrate)
G01 Z-0.125000 F100.0(Penetrate)
G01 X123.362861 Y199.511306 Z-0.125000 F800.000000
G01 X130.098227 Y186.727769 Z-0.125000
G01 X132.294743 Y157.603768 Z-0.125000
G01 X125.365989 Y147.984092 Z-0.125000
G01 X126.307325 Y118.114440 Z-0.125000
G01 X135.853818 Y90.870664 Z-0.125000
G01 X126.692705 Y74.635529 Z-0.125000
G01 X133.446341 Y54.710979 Z-0.125000
G01 X128.549917 Y32.739073 Z-0.125000
G00 Z5.000000

(End cutting path id: polyline160767)


(Start cutting path id: polyline160769)
(Change tool to Default tool)

G00 Z5.000000
G00 X134.583861 Y227.181446

G00 Z4.875000 (Fast pre-penetrate)
G01 Z-0.125000 F100.0(Penetrate)
G01 X123.752484 Y199.732051 Z-0.125000 F800.000000
G01 X131.506062 Y186.716837 Z-0.125000
G01 X133.484979 Y157.622338 Z-0.125000
G01 X125.776628 Y148.096012 Z-0.125000
G01 X128.460661 Y118.276229 Z-0.125000
G01 X135.999833 Y90.701935 Z-0.125000
G01 X128.637626 Y74.884129 Z-0.125000
G01 X134.060753 Y54.787057 Z-0.125000
G01 X130.552346 Y32.946090 Z-0.125000
G00 Z5.000000

(End cutting path id: polyline160769)


(Start cutting path id: polyline160771)
(Change tool to Default tool)

G00 Z5.000000
G00 X135.848227 Y227.351423

G00 Z4.875000 (Fast pre-penetrate)
G01 Z-0.125000 F100.0(Penetrate)
G01 X124.142108 Y199.952796 Z-0.125000 F800.000000
G01 X132.913947 Y186.705855 Z-0.125000
G01 X134.675164 Y157.640908 Z-0.125000
G01 X126.187318 Y148.207882 Z-0.125000
G01 X130.614047 Y118.438069 Z-0.125000
G01 X136.145849 Y90.533157 Z-0.125000
G01 X130.582598 Y75.132779 Z-0.125000
G01 X134.675164 Y54.863085 Z-0.125000
G01 X132.554775 Y33.153107 Z-0.125000
G00 Z5.000000

(End cutting path id: polyline160771)


(Start cutting path id: polyline160773)
(Change tool to Default tool)

G00 Z5.000000
G00 X137.112593 Y227.521400

G00 Z4.875000 (Fast pre-penetrate)
G01 Z-0.125000 F100.0(Penetrate)
G01 X124.531731 Y200.173491 Z-0.125000 F800.000000
G01 X134.321833 Y186.694922 Z-0.125000
G01 X135.865350 Y157.659528 Z-0.125000
G01 X126.598007 Y148.319802 Z-0.125000
G01 X132.767433 Y118.599909 Z-0.125000
G01 X136.291914 Y90.364428 Z-0.125000
G01 X132.527569 Y75.381379 Z-0.125000
G01 X135.289576 Y54.939113 Z-0.125000
G01 X134.557204 Y33.360124 Z-0.125000
G00 Z5.000000

(End cutting path id: polyline160773)


(Start cutting path id: polyline160775)
(Change tool to Default tool)

G00 Z5.000000
G00 X138.376960 Y227.691326

G00 Z4.875000 (Fast pre-penetrate)
G01 Z-0.125000 F100.0(Penetrate)
G01 X124.921354 Y200.394236 Z-0.125000 F800.000000
G01 X135.729668 Y186.683990 Z-0.125000
G01 X137.055535 Y157.678098 Z-0.125000
G01 X127.008696 Y148.431672 Z-0.125000
G01 X134.920819 Y118.761748 Z-0.125000
G01 X136.437929 Y90.195649 Z-0.125000
G01 X134.472490 Y75.630029 Z-0.125000
G01 X135.903988 Y55.015190 Z-0.125000
G01 X136.559633 Y33.567141 Z-0.125000
G00 Z5.000000

(End cutting path id: polyline160775)


(Start cutting path id: polyline160783)
(Change tool to Default tool)

G00 Z5.000000
G00 X139.641376 Y227.861303

G00 Z4.875000 (Fast pre-penetrate)
G01 Z-0.125000 F100.0(Penetrate)
G01 X125.310977 Y200.614981 Z-0.125000 F800.000000
G01 X137.137553 Y186.673057 Z-0.125000
G01 X138.245771 Y157.696668 Z-0.125000
G01 X127.419336 Y148.543542 Z-0.125000
G01 X137.074205 Y118.923588 Z-0.125000
G01 X136.417462 Y75.878630 Z-0.125000
G01 X136.518399 Y55.091218 Z-0.125000
G01 X138.562062 Y33.774208 Z-0.125000
G00 Z5.000000

(End cutting path id: polyline160783)


(Start cutting path id: polyline160779)
(Change tool to Default tool)

G00 Z5.000000
G00 X144.581479 Y227.741146

G00 Z4.875000 (Fast pre-penetrate)
G01 Z-0.125000 F100.0(Penetrate)
G01 X135.169220 Y200.193509 Z-0.125000 F800.000000
G01 X145.833216 Y185.623296 Z-0.125000
G01 X144.358288 Y160.261443 Z-0.125000
G01 X135.414176 Y147.083640 Z-0.125000
G01 X148.597319 Y117.786767 Z-0.125000
G01 X139.435507 Y92.784685 Z-0.125000
G01 X147.783628 Y76.830548 Z-0.125000
G01 X144.109638 Y56.163193 Z-0.125000
G01 X148.859548 Y36.398287 Z-0.125000
G00 Z5.000000

(End cutting path id: polyline160779)


(Start cutting path id: polyline160781)
(Change tool to Default tool)

G00 Z5.000000
G00 X144.294740 Y227.898693

G00 Z4.875000 (Fast pre-penetrate)
G01 Z-0.125000 F100.0(Penetrate)
G01 X132.996864 Y200.464423 Z-0.125000 F800.000000
G01 X144.715164 Y185.877537 Z-0.125000
G01 X143.722810 Y159.634202 Z-0.125000
G01 X133.723445 Y147.532518 Z-0.125000
G01 X147.331605 Y118.192364 Z-0.125000
G01 X138.832127 Y91.968697 Z-0.125000
G01 X146.400853 Y76.779031 Z-0.125000
G01 X142.672650 Y55.952233 Z-0.125000
G01 X147.786973 Y35.897542 Z-0.125000
G00 Z5.000000

(End cutting path id: polyline160781)


(Start cutting path id: polyline160787)
(Change tool to Default tool)

G00 Z5.000000
G00 X144.008002 Y228.056189

G00 Z4.875000 (Fast pre-penetrate)
G01 Z-0.125000 F100.0(Penetrate)
G01 X130.824508 Y200.735337 Z-0.125000 F800.000000
G01 X143.597163 Y186.131728 Z-0.125000
G01 X143.087333 Y159.006911 Z-0.125000
G01 X132.032765 Y147.981446 Z-0.125000
G01 X146.065841 Y118.597912 Z-0.125000
G01 X138.228798 Y91.152660 Z-0.125000
G01 X145.017977 Y76.727514 Z-0.125000
G01 X141.235611 Y55.741272 Z-0.125000
G01 X146.714448 Y35.396748 Z-0.125000
G00 Z5.000000

(End cutting path id: polyline160787)


(Start cutting path id: polyline160785)
(Change tool to Default tool)

G00 Z5.000000
G00 X140.905742 Y228.031229

G00 Z4.875000 (Fast pre-penetrate)
G01 Z-0.125000 F100.0(Penetrate)
G01 X125.700601 Y200.835726 Z-0.125000 F800.000000
G01 X138.545439 Y186.662075 Z-0.125000
G01 X139.435956 Y157.715239 Z-0.125000
G01 X127.830025 Y148.655462 Z-0.125000
G01 X139.227591 Y119.085428 Z-0.125000
G01 X136.730009 Y89.858142 Z-0.125000
G01 X138.362433 Y76.127230 Z-0.125000
G01 X137.132761 Y55.167246 Z-0.125000
G01 X140.564491 Y33.981225 Z-0.125000
G00 Z5.000000

(End cutting path id: polyline160785)



(Footer)
M5
G00 X0.0000 Y0.0000
M2
(Using default footer. To add your own footer create file "footer" in the output dir.)
(end)
%