%
(Header)
(Generated by gcodetools from Inkscape.)
(Using default header. To add your own header create file "header" in the output dir.)
M3
(Header end.)
G21 (All units in mm)

(Start cutting path id: path4584)
(Change tool to Default tool)

G00 Z3.000000
G00 X89.621686 Y78.423825

G00 Z4.875000 (Fast pre-penetrate)
G01 Z-0.125000 F400.0(Penetrate)
G01 X99.884456 Y49.640246 Z-0.125000 F800.000000
G01 X96.910247 Y34.093645 Z-0.125000
G00 Z3.000000

(End cutting path id: path4584)


(Start cutting path id: path4532)
(Change tool to Default tool)

G00 Z3.000000
G00 X81.451167 Y68.073534

G00 Z4.875000 (Fast pre-penetrate)
G01 Z-0.125000 F400.0(Penetrate)
G01 X79.918501 Y51.085390 Z-0.125000 F800.000000
G01 X78.128788 Y34.354294 Z-0.125000
G00 Z3.000000

(End cutting path id: path4532)


(Start cutting path id: path4516)
(Change tool to Default tool)

G00 Z3.000000
G00 X76.105580 Y67.720411

G00 Z4.875000 (Fast pre-penetrate)
G01 Z-0.125000 F400.0(Penetrate)
G01 X75.480640 Y49.824541 Z-0.125000 F800.000000
G01 X72.586906 Y34.197465 Z-0.125000
G00 Z3.000000

(End cutting path id: path4516)


(Start cutting path id: path4498)
(Change tool to Default tool)

G00 Z3.000000
G00 X70.091794 Y67.323148

G00 Z4.875000 (Fast pre-penetrate)
G01 Z-0.125000 F400.0(Penetrate)
G01 X70.488044 Y48.406088 Z-0.125000 F800.000000
G01 X66.352286 Y34.021035 Z-0.125000
G00 Z3.000000

(End cutting path id: path4498)


(Start cutting path id: path4480)
(Change tool to Default tool)

G00 Z3.000000
G00 X64.078007 Y66.925884

G00 Z4.875000 (Fast pre-penetrate)
G01 Z-0.125000 F400.0(Penetrate)
G01 X65.495450 Y46.987632 Z-0.125000 F800.000000
G01 X60.117668 Y33.844604 Z-0.125000
G00 Z3.000000

(End cutting path id: path4480)


(Start cutting path id: path4482)
(Change tool to Default tool)

G00 Z3.000000
G00 X64.746204 Y66.970025

G00 Z4.875000 (Fast pre-penetrate)
G01 Z-0.125000 F400.0(Penetrate)
G01 X66.050182 Y47.145239 Z-0.125000 F800.000000
G01 X60.810404 Y33.864207 Z-0.125000
G00 Z3.000000

(End cutting path id: path4482)


(Start cutting path id: path4484)
(Change tool to Default tool)

G00 Z3.000000
G00 X65.414403 Y67.014165

G00 Z4.875000 (Fast pre-penetrate)
G01 Z-0.125000 F400.0(Penetrate)
G01 X66.604915 Y47.302845 Z-0.125000 F800.000000
G01 X61.503138 Y33.883809 Z-0.125000
G00 Z3.000000

(End cutting path id: path4484)


(Start cutting path id: path4486)
(Change tool to Default tool)

G00 Z3.000000
G00 X66.082602 Y67.058306

G00 Z4.875000 (Fast pre-penetrate)
G01 Z-0.125000 F400.0(Penetrate)
G01 X67.159648 Y47.460450 Z-0.125000 F800.000000
G01 X62.195875 Y33.903415 Z-0.125000
G00 Z3.000000

(End cutting path id: path4486)


(Start cutting path id: path4488)
(Change tool to Default tool)

G00 Z3.000000
G00 X66.750801 Y67.102446

G00 Z4.875000 (Fast pre-penetrate)
G01 Z-0.125000 F400.0(Penetrate)
G01 X67.714380 Y47.618056 Z-0.125000 F800.000000
G01 X62.888609 Y33.923018 Z-0.125000
G00 Z3.000000

(End cutting path id: path4488)


(Start cutting path id: path4490)
(Change tool to Default tool)

G00 Z3.000000
G00 X67.419000 Y67.146586

G00 Z4.875000 (Fast pre-penetrate)
G01 Z-0.125000 F400.0(Penetrate)
G01 X68.269113 Y47.775663 Z-0.125000 F800.000000
G01 X63.581345 Y33.942621 Z-0.125000
G00 Z3.000000

(End cutting path id: path4490)


(Start cutting path id: path4492)
(Change tool to Default tool)

G00 Z3.000000
G00 X68.087196 Y67.190727

G00 Z4.875000 (Fast pre-penetrate)
G01 Z-0.125000 F400.0(Penetrate)
G01 X68.823846 Y47.933267 Z-0.125000 F800.000000
G01 X64.274082 Y33.962224 Z-0.125000
G00 Z3.000000

(End cutting path id: path4492)


(Start cutting path id: path4494)
(Change tool to Default tool)

G00 Z3.000000
G00 X68.755395 Y67.234867

G00 Z4.875000 (Fast pre-penetrate)
G01 Z-0.125000 F400.0(Penetrate)
G01 X69.378578 Y48.090874 Z-0.125000 F800.000000
G01 X64.966816 Y33.981827 Z-0.125000
G00 Z3.000000

(End cutting path id: path4494)


(Start cutting path id: path4496)
(Change tool to Default tool)

G00 Z3.000000
G00 X69.423594 Y67.279007

G00 Z4.875000 (Fast pre-penetrate)
G01 Z-0.125000 F400.0(Penetrate)
G01 X69.933311 Y48.248481 Z-0.125000 F800.000000
G01 X65.659552 Y34.001430 Z-0.125000
G00 Z3.000000

(End cutting path id: path4496)


(Start cutting path id: path4500)
(Change tool to Default tool)

G00 Z3.000000
G00 X70.759993 Y67.367288

G00 Z4.875000 (Fast pre-penetrate)
G01 Z-0.125000 F400.0(Penetrate)
G01 X71.042776 Y48.563692 Z-0.125000 F800.000000
G01 X67.045022 Y34.040638 Z-0.125000
G00 Z3.000000

(End cutting path id: path4500)


(Start cutting path id: path4502)
(Change tool to Default tool)

G00 Z3.000000
G00 X71.428189 Y67.411429

G00 Z4.875000 (Fast pre-penetrate)
G01 Z-0.125000 F400.0(Penetrate)
G01 X71.597509 Y48.721299 Z-0.125000 F800.000000
G01 X67.737759 Y34.060241 Z-0.125000
G00 Z3.000000

(End cutting path id: path4502)


(Start cutting path id: path4504)
(Change tool to Default tool)

G00 Z3.000000
G00 X72.096388 Y67.455569

G00 Z4.875000 (Fast pre-penetrate)
G01 Z-0.125000 F400.0(Penetrate)
G01 X72.152242 Y48.878905 Z-0.125000 F800.000000
G01 X68.430493 Y34.079844 Z-0.125000
G00 Z3.000000

(End cutting path id: path4504)


(Start cutting path id: path4506)
(Change tool to Default tool)

G00 Z3.000000
G00 X72.764587 Y67.499709

G00 Z4.875000 (Fast pre-penetrate)
G01 Z-0.125000 F400.0(Penetrate)
G01 X72.706974 Y49.036512 Z-0.125000 F800.000000
G01 X69.123229 Y34.099447 Z-0.125000
G00 Z3.000000

(End cutting path id: path4506)


(Start cutting path id: path4508)
(Change tool to Default tool)

G00 Z3.000000
G00 X73.432786 Y67.543850

G00 Z4.875000 (Fast pre-penetrate)
G01 Z-0.125000 F400.0(Penetrate)
G01 X73.261710 Y49.194116 Z-0.125000 F800.000000
G01 X69.815963 Y34.119050 Z-0.125000
G00 Z3.000000

(End cutting path id: path4508)


(Start cutting path id: path4510)
(Change tool to Default tool)

G00 Z3.000000
G00 X74.100983 Y67.587990

G00 Z4.875000 (Fast pre-penetrate)
G01 Z-0.125000 F400.0(Penetrate)
G01 X73.816442 Y49.351723 Z-0.125000 F800.000000
G01 X70.508700 Y34.138656 Z-0.125000
G00 Z3.000000

(End cutting path id: path4510)


(Start cutting path id: path4512)
(Change tool to Default tool)

G00 Z3.000000
G00 X74.769182 Y67.632130

G00 Z4.875000 (Fast pre-penetrate)
G01 Z-0.125000 F400.0(Penetrate)
G01 X74.371175 Y49.509330 Z-0.125000 F800.000000
G01 X71.201436 Y34.158259 Z-0.125000
G00 Z3.000000

(End cutting path id: path4512)


(Start cutting path id: path4514)
(Change tool to Default tool)

G00 Z3.000000
G00 X75.437381 Y67.676271

G00 Z4.875000 (Fast pre-penetrate)
G01 Z-0.125000 F400.0(Penetrate)
G01 X74.925907 Y49.666934 Z-0.125000 F800.000000
G01 X71.894170 Y34.177862 Z-0.125000
G00 Z3.000000

(End cutting path id: path4514)


(Start cutting path id: path4518)
(Change tool to Default tool)

G00 Z3.000000
G00 X76.773779 Y67.764552

G00 Z4.875000 (Fast pre-penetrate)
G01 Z-0.125000 F400.0(Penetrate)
G01 X76.035373 Y49.982148 Z-0.125000 F800.000000
G01 X73.279640 Y34.217068 Z-0.125000
G00 Z3.000000

(End cutting path id: path4518)


(Start cutting path id: path4520)
(Change tool to Default tool)

G00 Z3.000000
G00 X77.441975 Y67.808692

G00 Z4.875000 (Fast pre-penetrate)
G01 Z-0.125000 F400.0(Penetrate)
G01 X76.590105 Y50.139755 Z-0.125000 F800.000000
G01 X73.972377 Y34.236671 Z-0.125000
G00 Z3.000000

(End cutting path id: path4520)


(Start cutting path id: path4522)
(Change tool to Default tool)

G00 Z3.000000
G00 X78.110174 Y67.852832

G00 Z4.875000 (Fast pre-penetrate)
G01 Z-0.125000 F400.0(Penetrate)
G01 X77.144838 Y50.297359 Z-0.125000 F800.000000
G01 X74.665113 Y34.256276 Z-0.125000
G00 Z3.000000

(End cutting path id: path4522)


(Start cutting path id: path4524)
(Change tool to Default tool)

G00 Z3.000000
G00 X78.778374 Y67.896973

G00 Z4.875000 (Fast pre-penetrate)
G01 Z-0.125000 F400.0(Penetrate)
G01 X77.699571 Y50.454966 Z-0.125000 F800.000000
G01 X75.357847 Y34.275879 Z-0.125000
G00 Z3.000000

(End cutting path id: path4524)


(Start cutting path id: path4526)
(Change tool to Default tool)

G00 Z3.000000
G00 X79.446573 Y67.941113

G00 Z4.875000 (Fast pre-penetrate)
G01 Z-0.125000 F400.0(Penetrate)
G01 X78.254303 Y50.612572 Z-0.125000 F800.000000
G01 X76.050584 Y34.295482 Z-0.125000
G00 Z3.000000

(End cutting path id: path4526)


(Start cutting path id: path4528)
(Change tool to Default tool)

G00 Z3.000000
G00 X80.114772 Y67.985254

G00 Z4.875000 (Fast pre-penetrate)
G01 Z-0.125000 F400.0(Penetrate)
G01 X78.809036 Y50.770177 Z-0.125000 F800.000000
G01 X76.743318 Y34.315085 Z-0.125000
G00 Z3.000000

(End cutting path id: path4528)


(Start cutting path id: path4530)
(Change tool to Default tool)

G00 Z3.000000
G00 X80.782968 Y68.029394

G00 Z4.875000 (Fast pre-penetrate)
G01 Z-0.125000 F400.0(Penetrate)
G01 X79.363769 Y50.927783 Z-0.125000 F800.000000
G01 X77.436054 Y34.334688 Z-0.125000
G00 Z3.000000

(End cutting path id: path4530)


(Start cutting path id: path4534)
(Change tool to Default tool)

G00 Z3.000000
G00 X81.765418 Y68.471623

G00 Z4.875000 (Fast pre-penetrate)
G01 Z-0.125000 F400.0(Penetrate)
G01 X80.686422 Y51.029807 Z-0.125000 F800.000000
G01 X78.851152 Y34.344269 Z-0.125000
G00 Z3.000000

(End cutting path id: path4534)


(Start cutting path id: path4536)
(Change tool to Default tool)

G00 Z3.000000
G00 X82.079668 Y68.869710

G00 Z4.875000 (Fast pre-penetrate)
G01 Z-0.125000 F400.0(Penetrate)
G01 X81.454345 Y50.974226 Z-0.125000 F800.000000
G01 X79.573517 Y34.334244 Z-0.125000
G00 Z3.000000

(End cutting path id: path4536)


(Start cutting path id: path4538)
(Change tool to Default tool)

G00 Z3.000000
G00 X82.393919 Y69.267798

G00 Z4.875000 (Fast pre-penetrate)
G01 Z-0.125000 F400.0(Penetrate)
G01 X82.222265 Y50.918642 Z-0.125000 F800.000000
G01 X80.295881 Y34.324218 Z-0.125000
G00 Z3.000000

(End cutting path id: path4538)


(Start cutting path id: path4540)
(Change tool to Default tool)

G00 Z3.000000
G00 X82.708169 Y69.665887

G00 Z4.875000 (Fast pre-penetrate)
G01 Z-0.125000 F400.0(Penetrate)
G01 X82.990186 Y50.863061 Z-0.125000 F800.000000
G01 X81.018243 Y34.314193 Z-0.125000
G00 Z3.000000

(End cutting path id: path4540)


(Start cutting path id: path4542)
(Change tool to Default tool)

G00 Z3.000000
G00 X83.022420 Y70.063974

G00 Z4.875000 (Fast pre-penetrate)
G01 Z-0.125000 F400.0(Penetrate)
G01 X83.758109 Y50.807477 Z-0.125000 F800.000000
G01 X81.740608 Y34.304168 Z-0.125000
G00 Z3.000000

(End cutting path id: path4542)


(Start cutting path id: path4544)
(Change tool to Default tool)

G00 Z3.000000
G00 X83.336673 Y70.462063

G00 Z4.875000 (Fast pre-penetrate)
G01 Z-0.125000 F400.0(Penetrate)
G01 X84.526029 Y50.751894 Z-0.125000 F800.000000
G01 X82.462972 Y34.294143 Z-0.125000
G00 Z3.000000

(End cutting path id: path4544)


(Start cutting path id: path4546)
(Change tool to Default tool)

G00 Z3.000000
G00 X83.650923 Y70.860152

G00 Z4.875000 (Fast pre-penetrate)
G01 Z-0.125000 F400.0(Penetrate)
G01 X85.293950 Y50.696313 Z-0.125000 F800.000000
G01 X83.185337 Y34.284118 Z-0.125000
G00 Z3.000000

(End cutting path id: path4546)


(Start cutting path id: path4548)
(Change tool to Default tool)

G00 Z3.000000
G00 X83.965174 Y71.258238

G00 Z4.875000 (Fast pre-penetrate)
G01 Z-0.125000 F400.0(Penetrate)
G01 X86.061873 Y50.640729 Z-0.125000 F800.000000
G01 X83.907699 Y34.274093 Z-0.125000
G00 Z3.000000

(End cutting path id: path4548)


(Start cutting path id: path4550)
(Change tool to Default tool)

G00 Z3.000000
G00 X84.279425 Y71.656327

G00 Z4.875000 (Fast pre-penetrate)
G01 Z-0.125000 F400.0(Penetrate)
G01 X86.829793 Y50.585148 Z-0.125000 F800.000000
G01 X84.630063 Y34.264068 Z-0.125000
G00 Z3.000000

(End cutting path id: path4550)


(Start cutting path id: path4552)
(Change tool to Default tool)

G00 Z3.000000
G00 X84.593675 Y72.054416

G00 Z4.875000 (Fast pre-penetrate)
G01 Z-0.125000 F400.0(Penetrate)
G01 X87.597713 Y50.529565 Z-0.125000 F800.000000
G01 X85.352428 Y34.254043 Z-0.125000
G00 Z3.000000

(End cutting path id: path4552)


(Start cutting path id: path4554)
(Change tool to Default tool)

G00 Z3.000000
G00 X84.907926 Y72.452505

G00 Z4.875000 (Fast pre-penetrate)
G01 Z-0.125000 F400.0(Penetrate)
G01 X88.365636 Y50.473984 Z-0.125000 F800.000000
G01 X86.074792 Y34.244018 Z-0.125000
G00 Z3.000000

(End cutting path id: path4554)


(Start cutting path id: path4556)
(Change tool to Default tool)

G00 Z3.000000
G00 X85.222176 Y72.850591

G00 Z4.875000 (Fast pre-penetrate)
G01 Z-0.125000 F400.0(Penetrate)
G01 X89.133557 Y50.418400 Z-0.125000 F800.000000
G01 X86.797154 Y34.233993 Z-0.125000
G00 Z3.000000

(End cutting path id: path4556)


(Start cutting path id: path4558)
(Change tool to Default tool)

G00 Z3.000000
G00 X85.536427 Y73.248680

G00 Z4.875000 (Fast pre-penetrate)
G01 Z-0.125000 F400.0(Penetrate)
G01 X89.901477 Y50.362819 Z-0.125000 F800.000000
G01 X87.519519 Y34.223968 Z-0.125000
G00 Z3.000000

(End cutting path id: path4558)


(Start cutting path id: path4560)
(Change tool to Default tool)

G00 Z3.000000
G00 X85.850677 Y73.646769

G00 Z4.875000 (Fast pre-penetrate)
G01 Z-0.125000 F400.0(Penetrate)
G01 X90.669400 Y50.307236 Z-0.125000 F800.000000
G01 X88.241883 Y34.213943 Z-0.125000
G00 Z3.000000

(End cutting path id: path4560)


(Start cutting path id: path4562)
(Change tool to Default tool)

G00 Z3.000000
G00 X86.164928 Y74.044855

G00 Z4.875000 (Fast pre-penetrate)
G01 Z-0.125000 F400.0(Penetrate)
G01 X91.437321 Y50.251652 Z-0.125000 F800.000000
G01 X88.964245 Y34.203918 Z-0.125000
G00 Z3.000000

(End cutting path id: path4562)


(Start cutting path id: path4564)
(Change tool to Default tool)

G00 Z3.000000
G00 X86.479178 Y74.442944

G00 Z4.875000 (Fast pre-penetrate)
G01 Z-0.125000 F400.0(Penetrate)
G01 X92.205244 Y50.196071 Z-0.125000 F800.000000
G01 X89.686609 Y34.193893 Z-0.125000
G00 Z3.000000

(End cutting path id: path4564)


(Start cutting path id: path4566)
(Change tool to Default tool)

G00 Z3.000000
G00 X86.793429 Y74.841033

G00 Z4.875000 (Fast pre-penetrate)
G01 Z-0.125000 F400.0(Penetrate)
G01 X92.973164 Y50.140487 Z-0.125000 F800.000000
G01 X90.408974 Y34.183868 Z-0.125000
G00 Z3.000000

(End cutting path id: path4566)


(Start cutting path id: path4568)
(Change tool to Default tool)

G00 Z3.000000
G00 X87.107679 Y75.239119

G00 Z4.875000 (Fast pre-penetrate)
G01 Z-0.125000 F400.0(Penetrate)
G01 X93.741085 Y50.084907 Z-0.125000 F800.000000
G01 X91.131338 Y34.173843 Z-0.125000
G00 Z3.000000

(End cutting path id: path4568)


(Start cutting path id: path4570)
(Change tool to Default tool)

G00 Z3.000000
G00 X87.421930 Y75.637208

G00 Z4.875000 (Fast pre-penetrate)
G01 Z-0.125000 F400.0(Penetrate)
G01 X94.509008 Y50.029323 Z-0.125000 F800.000000
G01 X91.853700 Y34.163818 Z-0.125000
G00 Z3.000000

(End cutting path id: path4570)


(Start cutting path id: path4572)
(Change tool to Default tool)

G00 Z3.000000
G00 X87.736180 Y76.035297

G00 Z4.875000 (Fast pre-penetrate)
G01 Z-0.125000 F400.0(Penetrate)
G01 X95.276928 Y49.973742 Z-0.125000 F800.000000
G01 X92.576065 Y34.153793 Z-0.125000
G00 Z3.000000

(End cutting path id: path4572)


(Start cutting path id: path4574)
(Change tool to Default tool)

G00 Z3.000000
G00 X88.050433 Y76.433386

G00 Z4.875000 (Fast pre-penetrate)
G01 Z-0.125000 F400.0(Penetrate)
G01 X96.044848 Y49.918158 Z-0.125000 F800.000000
G01 X93.298429 Y34.143768 Z-0.125000
G00 Z3.000000

(End cutting path id: path4574)


(Start cutting path id: path4576)
(Change tool to Default tool)

G00 Z3.000000
G00 X88.364684 Y76.831472

G00 Z4.875000 (Fast pre-penetrate)
G01 Z-0.125000 F400.0(Penetrate)
G01 X96.812772 Y49.862575 Z-0.125000 F800.000000
G01 X94.020794 Y34.133743 Z-0.125000
G00 Z3.000000

(End cutting path id: path4576)


(Start cutting path id: path4578)
(Change tool to Default tool)

G00 Z3.000000
G00 X88.678934 Y77.229561

G00 Z4.875000 (Fast pre-penetrate)
G01 Z-0.125000 F400.0(Penetrate)
G01 X97.580692 Y49.806994 Z-0.125000 F800.000000
G01 X94.743156 Y34.123717 Z-0.125000
G00 Z3.000000

(End cutting path id: path4578)


(Start cutting path id: path4580)
(Change tool to Default tool)

G00 Z3.000000
G00 X88.993185 Y77.627650

G00 Z4.875000 (Fast pre-penetrate)
G01 Z-0.125000 F400.0(Penetrate)
G01 X98.348612 Y49.751410 Z-0.125000 F800.000000
G01 X95.465520 Y34.113692 Z-0.125000
G00 Z3.000000

(End cutting path id: path4580)


(Start cutting path id: path4582)
(Change tool to Default tool)

G00 Z3.000000
G00 X89.307436 Y78.025737

G00 Z4.875000 (Fast pre-penetrate)
G01 Z-0.125000 F400.0(Penetrate)
G01 X99.116535 Y49.695829 Z-0.125000 F800.000000
G01 X96.187885 Y34.103670 Z-0.125000
G00 Z3.000000

(End cutting path id: path4582)



(Footer)
M5
G00 X0.0000 Y0.0000
M2
(Using default footer. To add your own footer create file "footer" in the output dir.)
(end)
%