%
(Header)
(Generated by gcodetools from Inkscape.)
(Using default header. To add your own header create file "header" in the output dir.)
M3
(Header end.)
G21 (All units in mm)

(Start cutting path id: polyline35942)
(Change tool to Default tool)

G00 Z3.000000
G00 X129.487093 Y111.029844

G00 Z4.875000 (Fast pre-penetrate)
G01 Z-0.125000 F400.0(Penetrate)
G01 X131.390683 Y114.463724 Z-0.125000 F800.000000
G01 X133.227753 Y118.368324 Z-0.125000
G01 X134.646273 Y121.980134 Z-0.125000
G01 X135.760303 Y125.568254 Z-0.125000
G01 X136.486323 Y128.841364 Z-0.125000
G01 X136.901783 Y132.132544 Z-0.125000
G01 X136.963283 Y135.380634 Z-0.125000
G01 X136.679643 Y138.337874 Z-0.125000
G01 X136.013513 Y141.359184 Z-0.125000
G01 X134.992373 Y144.216454 Z-0.125000
G01 X133.652643 Y146.892774 Z-0.125000
G01 X131.931063 Y149.523434 Z-0.125000
G01 X129.836853 Y152.050924 Z-0.125000
G01 X127.532253 Y154.298944 Z-0.125000
G01 X124.924343 Y156.389494 Z-0.125000
G01 X122.172953 Y158.120174 Z-0.125000
G01 X118.424833 Y159.821734 Z-0.125000
G01 X113.963103 Y161.191224 Z-0.125000
G01 X108.497613 Y162.317344 Z-0.125000
G01 X101.785033 Y163.241394 Z-0.125000
G01 X94.713052 Y163.825254 Z-0.125000
G01 X88.715822 Y163.933404 Z-0.125000
G01 X83.841225 Y163.551774 Z-0.125000
G01 X80.175090 Y162.709294 Z-0.125000
G01 X77.908910 Y161.707724 Z-0.125000
G01 X76.019398 Y160.290754 Z-0.125000
G01 X74.673294 Y158.582994 Z-0.125000
G01 X73.683351 Y156.416834 Z-0.125000
G01 X73.014608 Y153.568994 Z-0.125000
G01 X72.690941 Y149.920314 Z-0.125000
G01 X72.739531 Y145.920794 Z-0.125000
G01 X73.172738 Y141.756584 Z-0.125000
G01 X73.737995 Y138.807484 Z-0.125000
G01 X74.556706 Y135.868404 Z-0.125000
G01 X75.557050 Y133.233474 Z-0.125000
G01 X76.689175 Y130.933604 Z-0.125000
G01 X78.159296 Y128.592574 Z-0.125000
G01 X79.715004 Y126.626314 Z-0.125000
G01 X81.455183 Y124.845174 Z-0.125000
G01 X83.539848 Y123.115514 Z-0.125000
G01 X87.355518 Y120.701754 Z-0.125000
G01 X91.868194 Y118.640014 Z-0.125000
G01 X96.109234 Y117.212324 Z-0.125000
G01 X105.324383 Y114.744174 Z-0.125000
G01 X110.439393 Y112.756154 Z-0.125000
G01 X113.200133 Y111.256134 Z-0.125000
G01 X115.586903 Y109.617094 Z-0.125000
G01 X121.506993 Y104.303374 Z-0.125000
G01 X122.635943 Y103.822884 Z-0.125000
G01 X123.747713 Y103.933474 Z-0.125000
G01 X124.726863 Y104.451054 Z-0.125000
G01 X125.898973 Y105.449004 Z-0.125000
G01 X128.401423 Y108.506304 Z-0.125000
G01 X130.948933 Y112.641564 Z-0.125000
G01 X133.493493 Y117.787194 Z-0.125000
G01 X135.328563 Y122.442134 Z-0.125000
G01 X136.625403 Y126.952514 Z-0.125000
G01 X137.332863 Y131.141064 Z-0.125000
G01 X137.491063 Y135.081874 Z-0.125000
G01 X137.169783 Y138.494284 Z-0.125000
G01 X136.353583 Y141.931894 Z-0.125000
G01 X135.083193 Y145.154854 Z-0.125000
G01 X133.316253 Y148.303884 Z-0.125000
G01 X130.954503 Y151.458914 Z-0.125000
G01 X128.275333 Y154.240394 Z-0.125000
G01 X125.230703 Y156.755814 Z-0.125000
G01 X122.122513 Y158.707084 Z-0.125000
G01 X118.476523 Y160.323704 Z-0.125000
G01 X113.924873 Y161.673494 Z-0.125000
G01 X108.329413 Y162.764854 Z-0.125000
G01 X101.433083 Y163.652944 Z-0.125000
G01 X94.147751 Y164.216364 Z-0.125000
G01 X87.961474 Y164.319634 Z-0.125000
G01 X82.934291 Y163.935574 Z-0.125000
G01 X79.159958 Y163.083204 Z-0.125000
G01 X76.834114 Y162.064764 Z-0.125000
G01 X74.903956 Y160.619644 Z-0.125000
G01 X73.538664 Y158.876604 Z-0.125000
G01 X72.543617 Y156.671684 Z-0.125000
G01 X71.874898 Y153.776724 Z-0.125000
G01 X71.549548 Y150.053664 Z-0.125000
G01 X71.598868 Y145.953844 Z-0.125000
G01 X72.009274 Y141.905184 Z-0.125000
G01 X72.574848 Y138.875274 Z-0.125000
G01 X73.403764 Y135.851634 Z-0.125000
G01 X74.424322 Y133.140244 Z-0.125000
G01 X75.585328 Y130.775264 Z-0.125000
G01 X76.963266 Y128.564184 Z-0.125000
G01 X78.551912 Y126.533204 Z-0.125000
G01 X80.337378 Y124.696514 Z-0.125000
G01 X82.485028 Y122.917574 Z-0.125000
G01 X86.433191 Y120.445154 Z-0.125000
G01 X91.335302 Y118.261224 Z-0.125000
G01 X95.961471 Y116.771404 Z-0.125000
G01 X105.491333 Y114.362084 Z-0.125000
G01 X110.755443 Y112.380274 Z-0.125000
G01 X113.580773 Y110.867454 Z-0.125000
G01 X116.143033 Y109.098784 Z-0.125000
G01 X121.911343 Y103.737144 Z-0.125000
G01 X122.925823 Y103.293524 Z-0.125000
G01 X123.928823 Y103.382124 Z-0.125000
G01 X124.885803 Y103.882074 Z-0.125000
G01 X126.049333 Y104.874294 Z-0.125000
G01 X128.692713 Y108.115594 Z-0.125000
G01 X131.403333 Y112.524884 Z-0.125000
G01 X134.009103 Y117.789674 Z-0.125000
G01 X135.882123 Y122.544844 Z-0.125000
G01 X137.141533 Y126.934484 Z-0.125000
G01 X137.858913 Y131.198564 Z-0.125000
G01 X138.005393 Y135.205054 Z-0.125000
G01 X137.656253 Y138.668554 Z-0.125000
G01 X136.795873 Y142.152624 Z-0.125000
G01 X135.471153 Y145.417834 Z-0.125000
G01 X133.642603 Y148.612384 Z-0.125000
G01 X131.215273 Y151.823144 Z-0.125000
G01 X128.477853 Y154.663294 Z-0.125000
G01 X125.380633 Y157.231094 Z-0.125000
G01 X122.224383 Y159.209174 Z-0.125000
G01 X118.518653 Y160.825874 Z-0.125000
G01 X113.879753 Y162.150274 Z-0.125000
G01 X108.156663 Y163.199954 Z-0.125000
G01 X100.769839 Y164.073894 Z-0.125000
G01 X92.956215 Y164.609754 Z-0.125000
G01 X86.625781 Y164.661954 Z-0.125000
G01 X81.773832 Y164.254824 Z-0.125000
G01 X77.939172 Y163.361064 Z-0.125000
G01 X75.594848 Y162.300594 Z-0.125000
G01 X73.785876 Y160.920704 Z-0.125000
G01 X72.402297 Y159.142464 Z-0.125000
G01 X71.402857 Y156.899354 Z-0.125000
G01 X70.734334 Y153.957934 Z-0.125000
G01 X70.406590 Y150.160324 Z-0.125000
G01 X70.455660 Y145.958704 Z-0.125000
G01 X70.876686 Y141.798744 Z-0.125000
G01 X71.461179 Y138.684094 Z-0.125000
G01 X72.244614 Y135.815014 Z-0.125000
G01 X73.284312 Y133.025714 Z-0.125000
G01 X74.473319 Y130.594344 Z-0.125000
G01 X75.890342 Y128.324734 Z-0.125000
G01 X77.529255 Y126.244934 Z-0.125000
G01 X79.376142 Y124.369944 Z-0.125000
G01 X81.602524 Y122.560874 Z-0.125000
G01 X85.919241 Y119.951034 Z-0.125000
G01 X91.028324 Y117.784334 Z-0.125000
G01 X95.834203 Y116.316974 Z-0.125000
G01 X105.684943 Y113.973184 Z-0.125000
G01 X111.101283 Y112.002264 Z-0.125000
G01 X113.992393 Y110.479624 Z-0.125000
G01 X116.594023 Y108.689574 Z-0.125000
G01 X118.576773 Y106.966514 Z-0.125000
G01 X122.328303 Y103.188414 Z-0.125000
G01 X123.230453 Y102.784024 Z-0.125000
G01 X124.198263 Y102.878524 Z-0.125000
G01 X125.222113 Y103.456164 Z-0.125000
G01 X126.395563 Y104.514854 Z-0.125000
G01 X129.096883 Y107.906734 Z-0.125000
G01 X131.964473 Y112.619724 Z-0.125000
G01 X134.621033 Y118.021124 Z-0.125000
G01 X136.443703 Y122.680844 Z-0.125000
G01 X137.710563 Y127.157104 Z-0.125000
G01 X138.386583 Y131.279394 Z-0.125000
G01 X138.518663 Y135.349644 Z-0.125000
G01 X138.138843 Y138.861734 Z-0.125000
G01 X137.231143 Y142.388934 Z-0.125000
G01 X135.849103 Y145.692784 Z-0.125000
G01 X133.956493 Y148.929644 Z-0.125000
G01 X131.461983 Y152.194134 Z-0.125000
G01 X128.527423 Y155.220604 Z-0.125000
G01 X125.366853 Y157.821444 Z-0.125000
G01 X122.141023 Y159.805644 Z-0.125000
G01 X118.344793 Y161.399154 Z-0.125000
G01 X113.581223 Y162.674264 Z-0.125000
G01 X107.692853 Y163.661304 Z-0.125000
G01 X100.403571 Y164.444254 Z-0.125000
G01 X92.367760 Y164.949084 Z-0.125000
G01 X85.848950 Y164.992284 Z-0.125000
G01 X80.853752 Y164.581374 Z-0.125000
G01 X76.912707 Y163.677334 Z-0.125000
G01 X74.510890 Y162.599844 Z-0.125000
G01 X72.666079 Y161.193924 Z-0.125000
G01 X71.265071 Y159.380564 Z-0.125000
G01 X70.261993 Y157.099614 Z-0.125000
G01 X69.593787 Y154.112474 Z-0.125000
G01 X69.262943 Y150.239874 Z-0.125000
G01 X69.311033 Y145.934974 Z-0.125000
G01 X69.742385 Y141.661664 Z-0.125000
G01 X70.345921 Y138.460914 Z-0.125000
G01 X71.158188 Y135.515054 Z-0.125000
G01 X72.138049 Y132.889414 Z-0.125000
G01 X73.354325 Y130.390414 Z-0.125000
G01 X74.809604 Y128.061204 Z-0.125000
G01 X76.498490 Y125.931974 Z-0.125000
G01 X78.406701 Y124.018814 Z-0.125000
G01 X80.512144 Y122.323904 Z-0.125000
G01 X84.969671 Y119.654744 Z-0.125000
G01 X90.266977 Y117.452324 Z-0.125000
G01 X95.489196 Y115.907724 Z-0.125000
G01 X106.133013 Y113.514524 Z-0.125000
G01 X111.674483 Y111.532874 Z-0.125000
G01 X114.605763 Y109.990344 Z-0.125000
G01 X117.215043 Y108.175364 Z-0.125000
G01 X119.173343 Y106.431744 Z-0.125000
G01 X122.758043 Y102.658634 Z-0.125000
G01 X123.550663 Y102.295174 Z-0.125000
G01 X124.408653 Y102.372074 Z-0.125000
G01 X125.399423 Y102.931254 Z-0.125000
G01 X126.557493 Y103.984574 Z-0.125000
G01 X129.401583 Y107.573904 Z-0.125000
G01 X132.343433 Y112.396314 Z-0.125000
G01 X135.070873 Y117.896454 Z-0.125000
G01 X136.941333 Y122.637804 Z-0.125000
G01 X138.185713 Y126.972804 Z-0.125000
G01 X138.893963 Y131.164334 Z-0.125000
G01 X139.040193 Y135.302514 Z-0.125000
G01 X138.655663 Y138.870104 Z-0.125000
G01 X137.726043 Y142.449224 Z-0.125000
G01 X136.308703 Y145.800724 Z-0.125000
G01 X134.370613 Y149.089904 Z-0.125000
G01 X131.694583 Y152.572054 Z-0.125000
G01 X128.557283 Y155.789014 Z-0.125000
G01 X125.334163 Y158.420694 Z-0.125000
G01 X122.039113 Y160.406354 Z-0.125000
G01 X118.152763 Y161.969724 Z-0.125000
G01 X113.517053 Y163.138204 Z-0.125000
G01 X107.504243 Y164.068724 Z-0.125000
G01 X99.709142 Y164.818914 Z-0.125000
G01 X91.448468 Y165.273104 Z-0.125000
G01 X84.766853 Y165.283104 Z-0.125000
G01 X79.670237 Y164.839744 Z-0.125000
G01 X75.675262 Y163.892504 Z-0.125000
G01 X73.425807 Y162.870114 Z-0.125000
G01 X71.545719 Y161.438244 Z-0.125000
G01 X70.128109 Y159.589914 Z-0.125000
G01 X69.122272 Y157.271614 Z-0.125000
G01 X68.429849 Y154.067004 Z-0.125000
G01 X68.112749 Y150.085584 Z-0.125000
G01 X68.179149 Y145.646334 Z-0.125000
G01 X68.607059 Y141.492844 Z-0.125000
G01 X69.229857 Y138.204494 Z-0.125000
G01 X70.071370 Y135.180804 Z-0.125000
G01 X71.089096 Y132.490764 Z-0.125000
G01 X72.354271 Y129.937174 Z-0.125000
G01 X73.869801 Y127.565224 Z-0.125000
G01 X75.460010 Y125.593144 Z-0.125000
G01 X77.429424 Y123.641604 Z-0.125000
G01 X79.607372 Y121.920004 Z-0.125000
G01 X84.229547 Y119.226374 Z-0.125000
G01 X89.975641 Y116.939274 Z-0.125000
G01 X95.395374 Y115.423824 Z-0.125000
G01 X106.387813 Y113.111794 Z-0.125000
G01 X112.086153 Y111.149134 Z-0.125000
G01 X115.255533 Y109.499004 Z-0.125000
G01 X117.868233 Y107.662364 Z-0.125000
G01 X119.901463 Y105.794684 Z-0.125000
G01 X123.200133 Y102.148444 Z-0.125000
G01 X123.946193 Y101.817014 Z-0.125000
G01 X124.704503 Y101.912914 Z-0.125000
G01 X125.670043 Y102.492234 Z-0.125000
G01 X126.918663 Y103.681964 Z-0.125000
G01 X129.938633 Y107.600464 Z-0.125000
G01 X132.931203 Y112.570224 Z-0.125000
G01 X135.707663 Y118.204944 Z-0.125000
G01 X137.518563 Y122.837714 Z-0.125000
G01 X138.764893 Y127.254044 Z-0.125000
G01 X139.448133 Y131.514314 Z-0.125000
G01 X139.553353 Y135.489464 Z-0.125000
G01 X139.133303 Y139.100894 Z-0.125000
G01 X138.150583 Y142.716524 Z-0.125000
G01 X136.670263 Y146.099224 Z-0.125000
G01 X134.662923 Y149.423414 Z-0.125000
G01 X131.779523 Y153.108884 Z-0.125000
G01 X128.567073 Y156.368034 Z-0.125000
G01 X125.282413 Y159.028454 Z-0.125000
G01 X121.918683 Y161.010344 Z-0.125000
G01 X117.942253 Y162.536544 Z-0.125000
G01 X113.187983 Y163.643014 Z-0.125000
G01 X107.010023 Y164.495314 Z-0.125000
G01 X98.659364 Y165.189424 Z-0.125000
G01 X90.173256 Y165.575564 Z-0.125000
G01 X83.360057 Y165.529664 Z-0.125000
G01 X78.211126 Y165.023784 Z-0.125000
G01 X74.430272 Y164.074534 Z-0.125000
G01 X72.171907 Y163.011284 Z-0.125000
G01 X70.302682 Y161.528804 Z-0.125000
G01 X68.912000 Y159.627714 Z-0.125000
G01 X67.937632 Y157.263504 Z-0.125000
G01 X67.292008 Y154.163574 Z-0.125000
G01 X66.970026 Y150.104664 Z-0.125000
G01 X67.033986 Y145.557144 Z-0.125000
G01 X67.471416 Y141.292234 Z-0.125000
G01 X68.053640 Y138.175314 Z-0.125000
G01 X68.901477 Y135.068104 Z-0.125000
G01 X69.934778 Y132.302704 Z-0.125000
G01 X71.226050 Y129.679004 Z-0.125000
G01 X72.779225 Y127.245934 Z-0.125000
G01 X74.414256 Y125.228134 Z-0.125000
G01 X76.444605 Y123.238164 Z-0.125000
G01 X78.695135 Y121.490354 Z-0.125000
G01 X83.483628 Y118.774944 Z-0.125000
G01 X89.447075 Y116.488624 Z-0.125000
G01 X95.322286 Y114.925684 Z-0.125000
G01 X106.669713 Y112.701454 Z-0.125000
G01 X109.711363 Y111.826734 Z-0.125000
G01 X112.528303 Y110.762454 Z-0.125000
G01 X115.237763 Y109.420524 Z-0.125000
G01 X117.702693 Y107.818454 Z-0.125000
G01 X120.344653 Y105.487314 Z-0.125000
G01 X123.496903 Y101.787704 Z-0.125000
G01 X124.185053 Y101.393124 Z-0.125000
G01 X124.948743 Y101.452924 Z-0.125000
G01 X125.950373 Y102.079024 Z-0.125000
G01 X127.191143 Y103.305504 Z-0.125000
G01 X130.376903 Y107.504794 Z-0.125000
G01 X133.431623 Y112.599844 Z-0.125000
G01 X136.266763 Y118.349994 Z-0.125000
G01 X138.103833 Y123.073334 Z-0.125000
G01 X139.348083 Y127.570194 Z-0.125000
G01 X139.981873 Y131.670534 Z-0.125000
G01 X140.065773 Y135.701154 Z-0.125000
G01 X139.607293 Y139.353934 Z-0.125000
G01 X138.639963 Y142.805944 Z-0.125000
G01 X137.119393 Y146.228794 Z-0.125000
G01 X134.942493 Y149.767734 Z-0.125000
G01 X131.980093 Y153.504354 Z-0.125000
G01 X128.556813 Y156.959074 Z-0.125000
G01 X125.211433 Y159.645474 Z-0.125000
G01 X121.964443 Y161.531194 Z-0.125000
G01 X117.934823 Y163.036844 Z-0.125000
G01 X113.104483 Y164.093184 Z-0.125000
G01 X106.805853 Y164.873744 Z-0.125000
G01 X98.261170 Y165.490654 Z-0.125000
G01 X89.208596 Y165.838544 Z-0.125000
G01 X82.240294 Y165.756444 Z-0.125000
G01 X77.000478 Y165.215234 Z-0.125000
G01 X73.179124 Y164.222504 Z-0.125000
G01 X70.915533 Y163.117454 Z-0.125000
G01 X69.060884 Y161.583764 Z-0.125000
G01 X67.777887 Y159.776904 Z-0.125000
G01 X66.802616 Y157.376654 Z-0.125000
G01 X66.133116 Y154.052354 Z-0.125000
G01 X65.822680 Y149.877984 Z-0.125000
G01 X65.889820 Y145.437124 Z-0.125000
G01 X66.336479 Y141.058794 Z-0.125000
G01 X66.936426 Y137.858154 Z-0.125000
G01 X67.813656 Y134.670594 Z-0.125000
G01 X68.885163 Y131.839034 Z-0.125000
G01 X70.226238 Y129.160004 Z-0.125000
G01 X71.840982 Y126.684684 Z-0.125000
G01 X73.541903 Y124.640714 Z-0.125000
G01 X75.452874 Y122.807004 Z-0.125000
G01 X77.775812 Y121.033484 Z-0.125000
G01 X80.061883 Y119.631644 Z-0.125000
G01 X82.731878 Y118.299014 Z-0.125000
G01 X88.916595 Y116.017994 Z-0.125000
G01 X95.270247 Y114.412554 Z-0.125000
G01 X106.978813 Y112.282354 Z-0.125000
G01 X110.108703 Y111.425684 Z-0.125000
G01 X113.001093 Y110.371584 Z-0.125000
G01 X115.955223 Y108.929824 Z-0.125000
G01 X118.572463 Y107.202934 Z-0.125000
G01 X121.124883 Y104.861974 Z-0.125000
G01 X123.976533 Y101.313194 Z-0.125000
G01 X124.559343 Y100.967824 Z-0.125000
G01 X125.213853 Y101.016924 Z-0.125000
G01 X126.163563 Y101.624344 Z-0.125000
G01 X127.471553 Y102.955924 Z-0.125000
G01 X130.827403 Y107.447554 Z-0.125000
G01 X133.943983 Y112.665754 Z-0.125000
G01 X136.743563 Y118.319074 Z-0.125000
G01 X138.622353 Y123.119574 Z-0.125000
G01 X139.836113 Y127.458664 Z-0.125000
G01 X140.497093 Y131.622864 Z-0.125000
G01 X140.590393 Y135.714624 Z-0.125000
G01 X140.122173 Y139.417444 Z-0.125000
G01 X139.128223 Y142.910354 Z-0.125000
G01 X137.565273 Y146.369464 Z-0.125000
G01 X135.332243 Y149.950044 Z-0.125000
G01 X132.166293 Y153.907424 Z-0.125000
G01 X128.526963 Y157.561344 Z-0.125000
G01 X125.121733 Y160.270934 Z-0.125000
G01 X121.810893 Y162.143244 Z-0.125000
G01 X117.917583 Y163.537394 Z-0.125000
G01 X113.013933 Y164.537494 Z-0.125000
G01 X106.597623 Y165.238704 Z-0.125000
G01 X97.508464 Y165.786264 Z-0.125000
G01 X87.873933 Y166.074414 Z-0.125000
G01 X81.106894 Y165.951124 Z-0.125000
G01 X76.051298 Y165.420704 Z-0.125000
G01 X72.137395 Y164.417254 Z-0.125000
G01 X69.826199 Y163.296114 Z-0.125000
G01 X67.941571 Y161.736014 Z-0.125000
G01 X66.647344 Y159.896734 Z-0.125000
G01 X65.671730 Y157.460964 Z-0.125000
G01 X65.001791 Y154.089294 Z-0.125000
G01 X64.684252 Y149.834194 Z-0.125000
G01 X64.747732 Y145.286044 Z-0.125000
G01 X65.203497 Y140.792014 Z-0.125000
G01 X65.821388 Y137.506384 Z-0.125000
G01 X66.728475 Y134.237414 Z-0.125000
G01 X67.839019 Y131.339234 Z-0.125000
G01 X69.092500 Y128.845184 Z-0.125000
G01 X70.743985 Y126.306834 Z-0.125000
G01 X72.489216 Y124.216324 Z-0.125000
G01 X74.455090 Y122.347544 Z-0.125000
G01 X76.850242 Y120.548574 Z-0.125000
G01 X79.211948 Y119.134394 Z-0.125000
G01 X81.974637 Y117.797704 Z-0.125000
G01 X88.384150 Y115.526494 Z-0.125000
G01 X94.965876 Y113.937144 Z-0.125000
G01 X107.315373 Y111.854114 Z-0.125000
G01 X110.773583 Y110.944904 Z-0.125000
G01 X113.720613 Y109.887774 Z-0.125000
G01 X116.891413 Y108.332774 Z-0.125000
G01 X119.471293 Y106.586784 Z-0.125000
G01 X121.828413 Y104.352074 Z-0.125000
G01 X124.425533 Y100.902894 Z-0.125000
G01 X124.951973 Y100.564364 Z-0.125000
G01 X125.501783 Y100.605364 Z-0.125000
G01 X126.467263 Y101.260454 Z-0.125000
G01 X127.760663 Y102.633834 Z-0.125000
G01 X131.290883 Y107.429384 Z-0.125000
G01 X134.469033 Y112.768384 Z-0.125000
G01 X137.323443 Y118.531864 Z-0.125000
G01 X139.147403 Y123.194224 Z-0.125000
G01 X140.378993 Y127.602724 Z-0.125000
G01 X141.036403 Y131.829604 Z-0.125000
G01 X141.104003 Y135.974234 Z-0.125000
G01 X140.592233 Y139.713954 Z-0.125000
G01 X139.539773 Y143.231654 Z-0.125000
G01 X137.905053 Y146.709724 Z-0.125000
G01 X135.590473 Y150.314244 Z-0.125000
G01 X132.337963 Y154.318594 Z-0.125000
G01 X128.629713 Y158.038654 Z-0.125000
G01 X125.178213 Y160.793464 Z-0.125000
G01 X121.829853 Y162.673114 Z-0.125000
G01 X117.890253 Y164.038644 Z-0.125000
G01 X113.186613 Y164.939734 Z-0.125000
G01 X106.704813 Y165.569194 Z-0.125000
G01 X97.099251 Y166.041094 Z-0.125000
G01 X86.867429 Y166.273744 Z-0.125000
G01 X79.960599 Y166.113604 Z-0.125000
G01 X74.826586 Y165.548104 Z-0.125000
G01 X70.879603 Y164.499714 Z-0.125000
G01 X68.569067 Y163.335554 Z-0.125000
G01 X66.825789 Y161.858844 Z-0.125000
G01 X65.521016 Y159.987394 Z-0.125000
G01 X64.545671 Y157.516424 Z-0.125000
G01 X63.875072 Y154.097724 Z-0.125000
G01 X63.543057 Y149.532514 Z-0.125000
G01 X63.623617 Y144.841734 Z-0.125000
G01 X64.073108 Y140.491824 Z-0.125000
G01 X64.709163 Y137.119714 Z-0.125000
G01 X65.646667 Y133.768264 Z-0.125000
G01 X66.796931 Y130.802944 Z-0.125000
G01 X68.096846 Y128.258114 Z-0.125000
G01 X69.642940 Y125.901784 Z-0.125000
G01 X71.431504 Y123.763694 Z-0.125000
G01 X73.451502 Y121.859254 Z-0.125000
G01 X75.918476 Y120.035044 Z-0.125000
G01 X78.355741 Y118.609394 Z-0.125000
G01 X81.211640 Y117.270204 Z-0.125000
G01 X87.848972 Y115.013744 Z-0.125000
G01 X94.947055 Y113.391634 Z-0.125000
G01 X107.678953 Y111.416574 Z-0.125000
G01 X111.235683 Y110.531094 Z-0.125000
G01 X114.260283 Y109.488294 Z-0.125000
G01 X117.501083 Y107.941684 Z-0.125000
G01 X120.258083 Y106.083964 Z-0.125000
G01 X122.647233 Y103.742274 Z-0.125000
G01 X124.934773 Y100.470404 Z-0.125000
G01 X125.363213 Y100.183114 Z-0.125000
G01 X125.813883 Y100.218314 Z-0.125000
G01 X126.710683 Y100.854734 Z-0.125000
G01 X128.058593 Y102.339774 Z-0.125000
G01 X131.767433 Y107.450744 Z-0.125000
G01 X135.115983 Y113.109484 Z-0.125000
G01 X137.914583 Y118.781404 Z-0.125000
G01 X139.679043 Y123.297994 Z-0.125000
G01 X140.926673 Y127.775674 Z-0.125000
G01 X141.578323 Y132.064624 Z-0.125000
G01 X141.632223 Y136.032104 Z-0.125000
G01 X141.107853 Y139.819034 Z-0.125000
G01 X140.024853 Y143.372144 Z-0.125000
G01 X138.342653 Y146.878544 Z-0.125000
G01 X136.094973 Y150.338434 Z-0.125000
G01 X132.641333 Y154.576544 Z-0.125000
G01 X128.717853 Y158.523924 Z-0.125000
G01 X125.220883 Y161.323424 Z-0.125000
G01 X121.836413 Y163.208294 Z-0.125000
G01 X117.852813 Y164.541044 Z-0.125000
G01 X113.085563 Y165.377694 Z-0.125000
G01 X106.494093 Y165.912904 Z-0.125000
G01 X95.947604 Y166.293824 Z-0.125000
G01 X85.845396 Y166.441754 Z-0.125000
G01 X78.802829 Y166.243524 Z-0.125000
G01 X73.595041 Y165.641964 Z-0.125000
G01 X69.620032 Y164.547504 Z-0.125000
G01 X67.314011 Y163.339434 Z-0.125000
G01 X65.592486 Y161.814174 Z-0.125000
G01 X64.321378 Y159.894604 Z-0.125000
G01 X63.380894 Y157.381564 Z-0.125000
G01 X62.730192 Y153.887164 Z-0.125000
G01 X62.412336 Y149.424484 Z-0.125000
G01 X62.488016 Y144.620924 Z-0.125000
G01 X62.946222 Y140.157704 Z-0.125000
G01 X63.600732 Y136.697624 Z-0.125000
G01 X64.475594 Y133.545184 Z-0.125000
G01 X65.639163 Y130.498664 Z-0.125000
G01 X66.960780 Y127.885454 Z-0.125000
G01 X68.538636 Y125.469184 Z-0.125000
G01 X70.369581 Y123.282254 Z-0.125000
G01 X72.442872 Y121.341524 Z-0.125000
G01 X74.980913 Y119.492024 Z-0.125000
G01 X77.493686 Y118.055694 Z-0.125000
G01 X80.442985 Y116.715664 Z-0.125000
G01 X87.604030 Y114.401954 Z-0.125000
G01 X94.949166 Y112.830344 Z-0.125000
G01 X108.069323 Y110.969054 Z-0.125000
G01 X111.726503 Y110.109524 Z-0.125000
G01 X114.830293 Y109.083324 Z-0.125000
G01 X118.328563 Y107.444294 Z-0.125000
G01 X121.076583 Y105.582884 Z-0.125000
G01 X123.396733 Y103.248814 Z-0.125000
G01 X125.455763 Y100.061314 Z-0.125000
G01 X125.793523 Y99.824024 Z-0.125000
G01 X126.151693 Y99.855024 Z-0.125000
G01 X127.040493 Y100.541244 Z-0.125000
G01 X128.464093 Y102.197004 Z-0.125000
G01 X132.383373 Y107.705664 Z-0.125000
G01 X135.779853 Y113.495594 Z-0.125000
G01 X138.517023 Y119.067474 Z-0.125000
G01 X140.296283 Y123.666414 Z-0.125000
G01 X141.530383 Y128.219464 Z-0.125000
G01 X142.122883 Y132.327994 Z-0.125000
G01 X142.147983 Y136.343014 Z-0.125000
G01 X141.625153 Y139.944634 Z-0.125000
G01 X140.510163 Y143.531134 Z-0.125000
G01 X138.778313 Y147.062014 Z-0.125000
G01 X136.336783 Y150.724154 Z-0.125000
G01 X132.638073 Y155.166434 Z-0.125000
G01 X128.477423 Y159.299514 Z-0.125000
G01 X125.080963 Y161.974174 Z-0.125000
G01 X121.636043 Y163.831334 Z-0.125000
G01 X117.572513 Y165.096754 Z-0.125000
G01 X112.698503 Y165.839244 Z-0.125000
G01 X106.279103 Y166.244184 Z-0.125000
G01 X95.140440 Y166.504624 Z-0.125000
G01 X84.433515 Y166.574424 Z-0.125000
G01 X77.634645 Y166.340304 Z-0.125000
G01 X72.358085 Y165.701804 Z-0.125000
G01 X68.579429 Y164.648994 Z-0.125000
G01 X66.230784 Y163.424714 Z-0.125000
G01 X64.485748 Y161.875004 Z-0.125000
G01 X63.206756 Y159.923494 Z-0.125000
G01 X62.267908 Y157.376544 Z-0.125000
G01 X61.592012 Y153.639334 Z-0.125000
G01 X61.280528 Y149.045334 Z-0.125000
G01 X61.357178 Y144.367674 Z-0.125000
G01 X61.824003 Y139.789104 Z-0.125000
G01 X62.497311 Y136.239614 Z-0.125000
G01 X63.400564 Y133.009204 Z-0.125000
G01 X64.604194 Y129.893604 Z-0.125000
G01 X65.972832 Y127.228634 Z-0.125000
G01 X67.607862 Y124.773474 Z-0.125000
G01 X69.505991 Y122.561764 Z-0.125000
G01 X71.656013 Y120.610094 Z-0.125000
G01 X74.038519 Y118.918474 Z-0.125000
G01 X76.626215 Y117.472134 Z-0.125000
G01 X79.669040 Y116.132674 Z-0.125000
G01 X83.163118 Y114.922514 Z-0.125000
G01 X87.072967 Y113.844814 Z-0.125000
G01 X94.972305 Y112.252844 Z-0.125000
G01 X108.486623 Y110.510664 Z-0.125000
G01 X112.246203 Y109.679234 Z-0.125000
G01 X115.430873 Y108.671984 Z-0.125000
G01 X119.005683 Y107.048574 Z-0.125000
G01 X121.926563 Y105.083404 Z-0.125000
G01 X124.170573 Y102.763834 Z-0.125000
G01 X125.988413 Y99.676164 Z-0.125000
G01 X126.517023 Y99.515034 Z-0.125000
G01 X127.383273 Y100.253854 Z-0.125000
G01 X128.880973 Y102.092164 Z-0.125000
G01 X133.017483 Y108.009294 Z-0.125000
G01 X136.461163 Y113.926274 Z-0.125000
G01 X139.131103 Y119.389914 Z-0.125000
G01 X140.921943 Y124.071504 Z-0.125000
G01 X142.088533 Y128.453804 Z-0.125000
G01 X142.670593 Y132.619804 Z-0.125000
G01 X142.662593 Y136.681194 Z-0.125000
G01 X142.091723 Y140.311814 Z-0.125000
G01 X140.910143 Y143.913934 Z-0.125000
G01 X139.211343 Y147.260994 Z-0.125000
G01 X136.701943 Y150.943564 Z-0.125000
G01 X132.765533 Y155.602744 Z-0.125000
G01 X128.371303 Y159.947294 Z-0.125000
G01 X124.921483 Y162.632394 Z-0.125000
G01 X121.615003 Y164.375234 Z-0.125000
G01 X117.511163 Y165.597464 Z-0.125000
G01 X112.292563 Y166.285494 Z-0.125000
G01 X105.721233 Y166.570294 Z-0.125000
G01 X92.359431 Y166.696024 Z-0.125000
G01 X82.234931 Y166.656024 Z-0.125000
G01 X75.778666 Y166.350444 Z-0.125000
G01 X70.833976 Y165.670864 Z-0.125000
G01 X67.319565 Y164.630334 Z-0.125000
G01 X65.152211 Y163.480144 Z-0.125000
G01 X63.384373 Y161.906344 Z-0.125000
G01 X62.098276 Y159.923044 Z-0.125000
G01 X61.161504 Y157.342494 Z-0.125000
G01 X60.482702 Y153.554654 Z-0.125000
G01 X60.159476 Y148.871504 Z-0.125000
G01 X60.230276 Y144.082244 Z-0.125000
G01 X60.705694 Y139.386224 Z-0.125000
G01 X61.398044 Y135.745924 Z-0.125000
G01 X62.330251 Y132.436604 Z-0.125000
G01 X63.574700 Y129.251274 Z-0.125000
G01 X64.991089 Y126.534584 Z-0.125000
G01 X66.684052 Y124.041244 Z-0.125000
G01 X68.650243 Y121.805904 Z-0.125000
G01 X70.877922 Y119.845054 Z-0.125000
G01 X73.346899 Y118.157584 Z-0.125000
G01 X76.028829 Y116.726014 Z-0.125000
G01 X79.182319 Y115.411624 Z-0.125000
G01 X82.802463 Y114.233844 Z-0.125000
G01 X86.850803 Y113.191314 Z-0.125000
G01 X95.325846 Y111.614804 Z-0.125000
G01 X108.928533 Y110.041464 Z-0.125000
G01 X112.792513 Y109.240134 Z-0.125000
G01 X116.059793 Y108.253994 Z-0.125000
G01 X119.712813 Y106.649574 Z-0.125000
G01 X122.805373 Y104.586054 Z-0.125000
G01 X124.732823 Y102.602524 Z-0.125000
G01 X125.637323 Y101.213284 Z-0.125000
G01 X126.509453 Y99.346674 Z-0.125000
G01 X126.909603 Y99.198244 Z-0.125000
G01 X127.737663 Y99.993194 Z-0.125000
G01 X129.517193 Y102.309744 Z-0.125000
G01 X133.795293 Y108.564944 Z-0.125000
G01 X137.158173 Y114.401894 Z-0.125000
G01 X139.755163 Y119.749334 Z-0.125000
G01 X141.475333 Y124.269894 Z-0.125000
G01 X142.650343 Y128.717654 Z-0.125000
G01 X143.219573 Y132.941004 Z-0.125000
G01 X143.197573 Y136.811454 Z-0.125000
G01 X142.610933 Y140.483514 Z-0.125000
G01 X141.481033 Y143.908674 Z-0.125000
G01 X139.759313 Y147.285884 Z-0.125000
G01 X137.202733 Y150.994484 Z-0.125000
G01 X132.878993 Y156.047994 Z-0.125000
G01 X128.408403 Y160.463464 Z-0.125000
G01 X124.918473 Y163.185994 Z-0.125000
G01 X121.582003 Y164.924434 Z-0.125000
G01 X117.440013 Y166.099434 Z-0.125000
G01 X111.869303 Y166.716144 Z-0.125000
G01 X105.145673 Y166.873614 Z-0.125000
G01 X87.856440 Y166.812114 Z-0.125000
G01 X79.619417 Y166.673204 Z-0.125000
G01 X73.908850 Y166.313554 Z-0.125000
G01 X69.587104 Y165.660774 Z-0.125000
G01 X66.062294 Y164.577044 Z-0.125000
G01 X63.907610 Y163.385124 Z-0.125000
G01 X62.169165 Y161.761794 Z-0.125000
G01 X60.922349 Y159.731754 Z-0.125000
G01 X60.021073 Y157.111764 Z-0.125000
G01 X59.358238 Y153.237504 Z-0.125000
G01 X59.038891 Y148.413804 Z-0.125000
G01 X59.126781 Y143.473754 Z-0.125000
G01 X59.593849 Y138.949064 Z-0.125000
G01 X60.305779 Y135.216514 Z-0.125000
G01 X61.267452 Y131.827234 Z-0.125000
G01 X62.553354 Y128.571694 Z-0.125000
G01 X64.018178 Y125.803384 Z-0.125000
G01 X65.769928 Y123.272404 Z-0.125000
G01 X67.588983 Y121.227454 Z-0.125000
G01 X69.868905 Y119.230184 Z-0.125000
G01 X72.401453 Y117.521004 Z-0.125000
G01 X75.158063 Y116.081504 Z-0.125000
G01 X78.405396 Y114.771504 Z-0.125000
G01 X82.139786 Y113.609084 Z-0.125000
G01 X86.321384 Y112.588324 Z-0.125000
G01 X95.398518 Y111.007574 Z-0.125000
G01 X109.396423 Y109.561014 Z-0.125000
G01 X113.366793 Y108.791734 Z-0.125000
G01 X116.718363 Y107.828714 Z-0.125000
G01 X120.644623 Y106.144524 Z-0.125000
G01 X123.714183 Y104.091074 Z-0.125000
G01 X125.714683 Y101.924304 Z-0.125000
G01 X126.430123 Y100.685034 Z-0.125000
G01 X127.068353 Y99.008014 Z-0.125000
G01 X127.307833 Y98.892044 Z-0.125000
G01 X130.648263 Y103.262324 Z-0.125000
G01 X134.592533 Y109.176084 Z-0.125000
G01 X137.872683 Y114.922374 Z-0.125000
G01 X140.390743 Y120.145644 Z-0.125000
G01 X142.115493 Y124.745544 Z-0.125000
G01 X143.217573 Y129.011374 Z-0.125000
G01 X143.771763 Y133.291784 Z-0.125000
G01 X143.716663 Y137.204144 Z-0.125000
G01 X143.134173 Y140.678394 Z-0.125000
G01 X141.970013 Y144.129704 Z-0.125000
G01 X140.195993 Y147.519974 Z-0.125000
G01 X137.708193 Y151.056334 Z-0.125000
G01 X133.139443 Y156.331944 Z-0.125000
G01 X128.432663 Y160.987824 Z-0.125000
G01 X124.903323 Y163.747174 Z-0.125000
G01 X121.538103 Y165.479144 Z-0.125000
G01 X117.360073 Y166.602804 Z-0.125000
G01 X111.727753 Y167.120304 Z-0.125000
G01 X84.838186 Y166.856714 Z-0.125000
G01 X77.352628 Y166.646034 Z-0.125000
G01 X72.364214 Y166.267194 Z-0.125000
G01 X68.340501 Y165.617394 Z-0.125000
G01 X65.032721 Y164.586314 Z-0.125000
G01 X62.842907 Y163.379854 Z-0.125000
G01 X61.084493 Y161.732544 Z-0.125000
G01 X59.832891 Y159.671064 Z-0.125000
G01 X58.934471 Y157.018574 Z-0.125000
G01 X58.266778 Y153.092124 Z-0.125000
G01 X57.933029 Y148.174314 Z-0.125000
G01 X58.014569 Y143.116914 Z-0.125000
G01 X58.490108 Y138.477864 Z-0.125000
G01 X59.221934 Y134.651614 Z-0.125000
G01 X60.213684 Y131.181314 Z-0.125000
G01 X61.406646 Y128.148884 Z-0.125000
G01 X62.891049 Y125.306564 Z-0.125000
G01 X64.672582 Y122.711424 Z-0.125000
G01 X66.527671 Y120.619794 Z-0.125000
G01 X68.858421 Y118.584724 Z-0.125000
G01 X71.453368 Y116.853264 Z-0.125000
G01 X74.283680 Y115.406074 Z-0.125000
G01 X77.624344 Y114.101614 Z-0.125000
G01 X81.472966 Y112.956844 Z-0.125000
G01 X85.788629 Y111.961014 Z-0.125000
G01 X95.161580 Y110.424054 Z-0.125000
G01 X110.192083 Y109.025604 Z-0.125000
G01 X113.969203 Y108.333504 Z-0.125000
G01 X117.406733 Y107.395754 Z-0.125000
G01 X121.418183 Y105.738574 Z-0.125000
G01 X124.652733 Y103.598734 Z-0.125000
G01 X126.625053 Y101.366764 Z-0.125000
G01 X127.754193 Y98.612594 Z-0.125000
G01 X132.426953 Y105.221164 Z-0.125000
G01 X135.410673 Y109.841284 Z-0.125000
G01 X138.605423 Y115.487394 Z-0.125000
G01 X141.038633 Y120.578824 Z-0.125000
G01 X142.685483 Y125.006724 Z-0.125000
G01 X143.791363 Y129.334864 Z-0.125000
G01 X144.314163 Y133.419634 Z-0.125000
G01 X144.259663 Y137.384514 Z-0.125000
G01 X143.660833 Y140.897114 Z-0.125000
G01 X142.461393 Y144.373364 Z-0.125000
G01 X140.754423 Y147.580834 Z-0.125000
G01 X138.218193 Y151.131234 Z-0.125000
G01 X133.393083 Y156.620814 Z-0.125000
G01 X128.277073 Y161.668994 Z-0.125000
G01 X124.875113 Y164.315924 Z-0.125000
G01 X121.482403 Y166.039324 Z-0.125000
G01 X117.270313 Y167.107684 Z-0.125000
G01 X111.877743 Y167.514544 Z-0.125000
G01 X81.342410 Y166.825854 Z-0.125000
G01 X75.066023 Y166.565224 Z-0.125000
G01 X70.480348 Y166.139764 Z-0.125000
G01 X66.812332 Y165.473094 Z-0.125000
G01 X63.785130 Y164.468154 Z-0.125000
G01 X61.613674 Y163.219014 Z-0.125000
G01 X60.009452 Y161.674534 Z-0.125000
G01 X58.753700 Y159.581934 Z-0.125000
G01 X57.858381 Y156.897224 Z-0.125000
G01 X57.161123 Y152.705624 Z-0.125000
G01 X56.828839 Y147.637224 Z-0.125000
G01 X56.910129 Y142.728134 Z-0.125000
G01 X57.394310 Y137.972694 Z-0.125000
G01 X58.146473 Y134.051294 Z-0.125000
G01 X59.168983 Y130.499014 Z-0.125000
G01 X60.400322 Y127.401284 Z-0.125000
G01 X61.933599 Y124.506014 Z-0.125000
G01 X63.774163 Y121.872884 Z-0.125000
G01 X65.691139 Y119.761024 Z-0.125000
G01 X68.099937 Y117.719054 Z-0.125000
G01 X70.782014 Y115.995664 Z-0.125000
G01 X73.707658 Y114.569004 Z-0.125000
G01 X77.160915 Y113.297254 Z-0.125000
G01 X81.138639 Y112.194014 Z-0.125000
G01 X85.597339 Y111.242624 Z-0.125000
G01 X95.605877 Y109.745104 Z-0.125000
G01 X110.409193 Y108.565004 Z-0.125000
G01 X114.310763 Y107.924754 Z-0.125000
G01 X117.867243 Y107.033194 Z-0.125000
G01 X122.221743 Y105.327684 Z-0.125000
G01 X125.492833 Y103.217654 Z-0.125000
G01 X126.688383 Y102.037094 Z-0.125000
G01 X127.540813 Y100.826184 Z-0.125000
G01 X128.021843 Y99.698264 Z-0.125000
G01 X128.249613 Y98.358164 Z-0.125000
G01 X136.507963 Y110.994074 Z-0.125000
G01 X139.473403 Y116.325024 Z-0.125000
G01 X141.697443 Y121.048674 Z-0.125000
G01 X143.342053 Y125.552714 Z-0.125000
G01 X144.418293 Y129.948044 Z-0.125000
G01 X144.887563 Y134.082424 Z-0.125000
G01 X144.782833 Y137.833054 Z-0.125000
G01 X144.130993 Y141.367824 Z-0.125000
G01 X142.955613 Y144.640444 Z-0.125000
G01 X141.196563 Y147.855164 Z-0.125000
G01 X138.734063 Y151.221144 Z-0.125000
G01 X133.474153 Y157.089644 Z-0.125000
G01 X128.103863 Y162.361864 Z-0.125000
G01 X124.654953 Y165.006334 Z-0.125000
G01 X121.415043 Y166.605064 Z-0.125000
G01 X117.414893 Y167.580484 Z-0.125000
G01 X112.024663 Y167.915334 Z-0.125000
G01 X78.615656 Y166.750794 Z-0.125000
G01 X73.139887 Y166.458444 Z-0.125000
G01 X68.925167 Y166.012054 Z-0.125000
G01 X65.567780 Y165.360764 Z-0.125000
G01 X62.769425 Y164.417844 Z-0.125000
G01 X60.565670 Y163.154424 Z-0.125000
G01 X58.945043 Y161.588434 Z-0.125000
G01 X57.685800 Y159.464834 Z-0.125000
G01 X56.793777 Y156.748134 Z-0.125000
G01 X56.089342 Y152.500214 Z-0.125000
G01 X55.740018 Y147.332364 Z-0.125000
G01 X55.814478 Y142.307644 Z-0.125000
G01 X56.307448 Y137.433944 Z-0.125000
G01 X57.080361 Y133.416024 Z-0.125000
G01 X58.134194 Y129.780814 Z-0.125000
G01 X59.404715 Y126.617214 Z-0.125000
G01 X60.987430 Y123.668944 Z-0.125000
G01 X62.887756 Y120.998364 Z-0.125000
G01 X64.867131 Y118.867314 Z-0.125000
G01 X67.354441 Y116.820064 Z-0.125000
G01 X70.124234 Y115.106934 Z-0.125000
G01 X73.145821 Y113.703344 Z-0.125000
G01 X76.379116 Y112.567944 Z-0.125000
G01 X80.471311 Y111.487434 Z-0.125000
G01 X85.065767 Y110.567254 Z-0.125000
G01 X95.738973 Y109.089964 Z-0.125000
G01 X111.270063 Y108.011004 Z-0.125000
G01 X115.252713 Y107.385934 Z-0.125000
G01 X118.604993 Y106.580924 Z-0.125000
G01 X123.054713 Y104.911274 Z-0.125000
G01 X126.363393 Y102.835984 Z-0.125000
G01 X127.549183 Y101.675714 Z-0.125000
G01 X128.414833 Y100.396054 Z-0.125000
G01 X128.828443 Y99.173844 Z-0.125000
G01 X128.795743 Y98.127114 Z-0.125000
G01 X129.995023 Y100.388124 Z-0.125000
G01 X134.929753 Y107.797124 Z-0.125000
G01 X137.757113 Y112.438484 Z-0.125000
G01 X140.359413 Y117.216604 Z-0.125000
G01 X142.366933 Y121.554954 Z-0.125000
G01 X143.926993 Y125.876134 Z-0.125000
G01 X144.954773 Y130.070964 Z-0.125000
G01 X145.439543 Y134.263804 Z-0.125000
G01 X145.333593 Y138.064604 Z-0.125000
G01 X144.725513 Y141.407784 Z-0.125000
G01 X143.549423 Y144.720884 Z-0.125000
G01 X141.767373 Y147.957674 Z-0.125000
G01 X139.406843 Y151.145954 Z-0.125000
G01 X133.881933 Y157.215514 Z-0.125000
G01 X128.083443 Y162.915694 Z-0.125000
G01 X124.599603 Y165.590864 Z-0.125000
G01 X121.335933 Y167.176454 Z-0.125000
G01 X117.307413 Y168.093474 Z-0.125000
G01 X112.167463 Y168.323934 Z-0.125000
G01 X92.530442 Y167.261774 Z-0.125000
G01 X75.861060 Y166.617274 Z-0.125000
G01 X70.837174 Y166.273134 Z-0.125000
G01 X67.044504 Y165.792804 Z-0.125000
G01 X64.048234 Y165.140094 Z-0.125000
G01 X61.535070 Y164.236574 Z-0.125000
G01 X59.355338 Y162.929554 Z-0.125000
G01 X57.770745 Y161.317324 Z-0.125000
G01 X56.557056 Y159.148944 Z-0.125000
G01 X55.699797 Y156.395194 Z-0.125000
G01 X55.003613 Y152.044814 Z-0.125000
G01 X54.653508 Y146.715854 Z-0.125000
G01 X54.746768 Y141.533334 Z-0.125000
G01 X55.229924 Y136.862024 Z-0.125000
G01 X56.024198 Y132.746184 Z-0.125000
G01 X57.110012 Y129.027064 Z-0.125000
G01 X58.420326 Y125.797184 Z-0.125000
G01 X60.053111 Y122.795894 Z-0.125000
G01 X62.013738 Y120.088494 Z-0.125000
G01 X64.055903 Y117.939184 Z-0.125000
G01 X66.352035 Y116.077354 Z-0.125000
G01 X69.182079 Y114.342474 Z-0.125000
G01 X72.275684 Y112.933894 Z-0.125000
G01 X75.592521 Y111.807924 Z-0.125000
G01 X79.798331 Y110.752094 Z-0.125000
G01 X84.528695 Y109.866264 Z-0.125000
G01 X95.890713 Y108.419024 Z-0.125000
G01 X111.844143 Y107.485274 Z-0.125000
G01 X115.932163 Y106.895734 Z-0.125000
G01 X119.368983 Y106.119124 Z-0.125000
G01 X123.915913 Y104.488684 Z-0.125000
G01 X127.263413 Y102.453114 Z-0.125000
G01 X128.439463 Y101.316424 Z-0.125000
G01 X129.265863 Y100.067334 Z-0.125000
G01 X129.606563 Y98.818364 Z-0.125000
G01 X129.404913 Y97.922344 Z-0.125000
G01 X129.540403 Y98.680464 Z-0.125000
G01 X130.464803 Y100.429694 Z-0.125000
G01 X135.800513 Y108.557054 Z-0.125000
G01 X139.030803 Y113.963044 Z-0.125000
G01 X141.380553 Y118.402094 Z-0.125000
G01 X143.149663 Y122.350324 Z-0.125000
G01 X144.674713 Y126.755934 Z-0.125000
G01 X145.591193 Y130.750594 Z-0.125000
G01 X146.007243 Y134.730584 Z-0.125000
G01 X145.861493 Y138.569654 Z-0.125000
G01 X145.200783 Y141.932394 Z-0.125000
G01 X144.053663 Y145.036084 Z-0.125000
G01 X142.346893 Y148.082574 Z-0.125000
G01 X139.940633 Y151.272534 Z-0.125000
G01 X134.118633 Y157.522704 Z-0.125000
G01 X127.878113 Y163.630774 Z-0.125000
G01 X124.532213 Y166.182944 Z-0.125000
G01 X121.245753 Y167.753764 Z-0.125000
G01 X117.435623 Y168.582094 Z-0.125000
G01 X112.306083 Y168.741274 Z-0.125000
G01 X92.098363 Y167.318364 Z-0.125000
G01 X73.496232 Y166.448954 Z-0.125000
G01 X65.493945 Y165.583804 Z-0.125000
G01 X62.539738 Y164.878904 Z-0.125000
G01 X60.310203 Y164.022724 Z-0.125000
G01 X58.158034 Y162.671584 Z-0.125000
G01 X56.612135 Y161.012894 Z-0.125000
G01 X55.444831 Y158.801764 Z-0.125000
G01 X54.620187 Y156.010624 Z-0.125000
G01 X53.904425 Y151.320154 Z-0.125000
G01 X53.577389 Y146.055224 Z-0.125000
G01 X53.670399 Y141.043024 Z-0.125000
G01 X54.162661 Y136.257514 Z-0.125000
G01 X54.978858 Y132.042404 Z-0.125000
G01 X56.097336 Y128.238484 Z-0.125000
G01 X57.448151 Y124.941734 Z-0.125000
G01 X59.131642 Y121.887534 Z-0.125000
G01 X61.153056 Y119.143714 Z-0.125000
G01 X63.258450 Y116.977214 Z-0.125000
G01 X65.625576 Y115.112744 Z-0.125000
G01 X68.543213 Y113.390784 Z-0.125000
G01 X71.732736 Y112.009014 Z-0.125000
G01 X75.152523 Y110.919584 Z-0.125000
G01 X79.488819 Y109.914144 Z-0.125000
G01 X84.364765 Y109.082324 Z-0.125000
G01 X96.060794 Y107.732534 Z-0.125000
G01 X112.440623 Y106.946824 Z-0.125000
G01 X116.635513 Y106.394114 Z-0.125000
G01 X120.158523 Y105.647294 Z-0.125000
G01 X124.804673 Y104.059214 Z-0.125000
G01 X128.192273 Y102.068344 Z-0.125000
G01 X129.358683 Y100.958654 Z-0.125000
G01 X130.145293 Y99.744494 Z-0.125000
G01 X130.400813 Y98.542774 Z-0.125000
G01 X130.065583 Y97.734514 Z-0.125000
G01 X129.890043 Y97.872194 Z-0.125000
G01 X129.961343 Y98.415624 Z-0.125000
G01 X130.717273 Y100.101994 Z-0.125000
G01 X139.155523 Y113.481774 Z-0.125000
G01 X141.821753 Y118.430394 Z-0.125000
G01 X143.839513 Y122.933214 Z-0.125000
G01 X145.349503 Y127.412754 Z-0.125000
G01 X146.228333 Y131.466894 Z-0.125000
G01 X146.583593 Y135.491724 Z-0.125000
G01 X146.390003 Y139.104004 Z-0.125000
G01 X145.742523 Y142.252494 Z-0.125000
G01 X144.562083 Y145.376714 Z-0.125000
G01 X142.804133 Y148.425984 Z-0.125000
G01 X140.483193 Y151.420494 Z-0.125000
G01 X135.059353 Y157.123304 Z-0.125000
G01 X127.656093 Y164.357304 Z-0.125000
G01 X124.268203 Y166.895584 Z-0.125000
G01 X121.144323 Y168.336974 Z-0.125000
G01 X117.554803 Y169.080614 Z-0.125000
G01 X112.735153 Y169.181434 Z-0.125000
G01 X91.667019 Y167.357014 Z-0.125000
G01 X71.523114 Y166.258994 Z-0.125000
G01 X64.266936 Y165.399144 Z-0.125000
G01 X61.584785 Y164.749854 Z-0.125000
G01 X59.320707 Y163.887034 Z-0.125000
G01 X57.141097 Y162.521694 Z-0.125000
G01 X55.583187 Y160.841454 Z-0.125000
G01 X54.415663 Y158.600074 Z-0.125000
G01 X53.594046 Y155.777954 Z-0.125000
G01 X52.865199 Y151.021954 Z-0.125000
G01 X52.518193 Y145.651284 Z-0.125000
G01 X52.604613 Y140.522504 Z-0.125000
G01 X53.106250 Y135.620974 Z-0.125000
G01 X53.944980 Y131.305274 Z-0.125000
G01 X55.096855 Y127.415644 Z-0.125000
G01 X56.488758 Y124.051584 Z-0.125000
G01 X58.223515 Y120.944444 Z-0.125000
G01 X60.306230 Y118.164904 Z-0.125000
G01 X62.475196 Y115.982064 Z-0.125000
G01 X64.913485 Y114.116434 Z-0.125000
G01 X67.918862 Y112.409384 Z-0.125000
G01 X71.204475 Y111.056694 Z-0.125000
G01 X74.727430 Y110.006424 Z-0.125000
G01 X78.814568 Y109.123434 Z-0.125000
G01 X83.826441 Y108.332234 Z-0.125000
G01 X96.628403 Y107.005364 Z-0.125000
G01 X113.058303 Y106.395624 Z-0.125000
G01 X117.043403 Y105.929854 Z-0.125000
G01 X120.687323 Y105.233084 Z-0.125000
G01 X125.503913 Y103.713434 Z-0.125000
G01 X127.474133 Y102.769454 Z-0.125000
G01 X129.018153 Y101.780564 Z-0.125000
G01 X130.221443 Y100.697654 Z-0.125000
G01 X131.016693 Y99.511164 Z-0.125000
G01 X131.229573 Y98.337314 Z-0.125000
G01 X130.808033 Y97.575264 Z-0.125000
G01 X130.481263 Y97.667764 Z-0.125000
G01 X130.441763 Y98.241854 Z-0.125000
G01 X131.280493 Y100.336064 Z-0.125000
G01 X139.946343 Y114.177334 Z-0.125000
G01 X142.634193 Y119.219244 Z-0.125000
G01 X144.538803 Y123.551584 Z-0.125000
G01 X145.956243 Y127.833484 Z-0.125000
G01 X146.826493 Y131.944814 Z-0.125000
G01 X147.151263 Y135.752864 Z-0.125000
G01 X146.954003 Y139.414294 Z-0.125000
G01 X146.289403 Y142.597864 Z-0.125000
G01 X145.075263 Y145.742934 Z-0.125000
G01 X143.400433 Y148.599404 Z-0.125000
G01 X141.194923 Y151.410484 Z-0.125000
G01 X137.462063 Y155.315674 Z-0.125000
G01 X127.418243 Y165.094584 Z-0.125000
G01 X124.175773 Y167.503114 Z-0.125000
G01 X121.032123 Y168.926094 Z-0.125000
G01 X117.421713 Y169.611414 Z-0.125000
G01 X112.862333 Y169.623614 Z-0.125000
G01 X91.236804 Y167.377994 Z-0.125000
G01 X69.544439 Y166.026244 Z-0.125000
G01 X62.727033 Y165.118594 Z-0.125000
G01 X60.093465 Y164.419774 Z-0.125000
G01 X58.116019 Y163.613264 Z-0.125000
G01 X55.969562 Y162.202884 Z-0.125000
G01 X54.454398 Y160.476134 Z-0.125000
G01 X53.400908 Y158.372304 Z-0.125000
G01 X52.542988 Y155.334114 Z-0.125000
G01 X51.812969 Y150.453824 Z-0.125000
G01 X51.463523 Y144.911334 Z-0.125000
G01 X51.550193 Y139.971504 Z-0.125000
G01 X52.061570 Y134.952404 Z-0.125000
G01 X52.835070 Y130.902204 Z-0.125000
G01 X53.985065 Y126.913224 Z-0.125000
G01 X55.384144 Y123.459264 Z-0.125000
G01 X57.135113 Y120.268254 Z-0.125000
G01 X59.243803 Y117.416314 Z-0.125000
G01 X61.444994 Y115.181604 Z-0.125000
G01 X63.924565 Y113.279104 Z-0.125000
G01 X66.986897 Y111.549694 Z-0.125000
G01 X70.341526 Y110.193764 Z-0.125000
G01 X73.945581 Y109.156854 Z-0.125000
G01 X78.134789 Y108.302744 Z-0.125000
G01 X83.281860 Y107.555024 Z-0.125000
G01 X96.843111 Y106.290364 Z-0.125000
G01 X113.696403 Y105.830474 Z-0.125000
G01 X117.783493 Y105.400534 Z-0.125000
G01 X121.517523 Y104.736284 Z-0.125000
G01 X126.440243 Y103.264994 Z-0.125000
G01 X128.443053 Y102.347134 Z-0.125000
G01 X130.001233 Y101.386124 Z-0.125000
G01 X131.197733 Y100.336684 Z-0.125000
G01 X131.955143 Y99.193844 Z-0.125000
G01 X132.095023 Y98.135844 Z-0.125000
G01 X131.620533 Y97.434604 Z-0.125000
G01 X131.127963 Y97.481704 Z-0.125000
G01 X130.953653 Y98.086824 Z-0.125000
G01 X131.707253 Y100.327004 Z-0.125000
G01 X140.889783 Y115.151314 Z-0.125000
G01 X143.459933 Y120.050274 Z-0.125000
G01 X145.347123 Y124.471064 Z-0.125000
G01 X146.642593 Y128.557374 Z-0.125000
G01 X147.429273 Y132.450354 Z-0.125000
G01 X147.727623 Y136.306744 Z-0.125000
G01 X147.487643 Y140.003884 Z-0.125000
G01 X146.769563 Y143.204324 Z-0.125000
G01 X145.593463 Y146.134234 Z-0.125000
G01 X144.006943 Y148.797124 Z-0.125000
G01 X141.761763 Y151.606054 Z-0.125000
G01 X127.164823 Y165.841664 Z-0.125000
G01 X124.072023 Y168.117194 Z-0.125000
G01 X120.909223 Y169.520204 Z-0.125000
G01 X117.523553 Y170.127504 Z-0.125000
G01 X113.273933 Y170.099204 Z-0.125000
G01 X90.807581 Y167.383484 Z-0.125000
G01 X67.565972 Y165.752384 Z-0.125000
G01 X61.511641 Y164.871934 Z-0.125000
G01 X59.155184 Y164.236854 Z-0.125000
G01 X57.149760 Y163.424464 Z-0.125000
G01 X54.978548 Y162.000344 Z-0.125000
G01 X53.453596 Y160.252204 Z-0.125000
G01 X52.401130 Y158.120714 Z-0.125000
G01 X51.545921 Y155.049734 Z-0.125000
G01 X50.772495 Y149.849124 Z-0.125000
G01 X50.427248 Y144.445564 Z-0.125000
G01 X50.507558 Y139.392244 Z-0.125000
G01 X51.029067 Y134.253904 Z-0.125000
G01 X51.823878 Y130.109084 Z-0.125000
G01 X53.007660 Y126.031664 Z-0.125000
G01 X54.448218 Y122.508334 Z-0.125000
G01 X56.250600 Y119.262764 Z-0.125000
G01 X58.420395 Y116.374104 Z-0.125000
G01 X60.684694 Y114.123184 Z-0.125000
G01 X63.234867 Y112.220414 Z-0.125000
G01 X66.384012 Y110.508074 Z-0.125000
G01 X69.476495 Y109.300894 Z-0.125000
G01 X73.159623 Y108.277364 Z-0.125000
G01 X77.449217 Y107.453304 Z-0.125000
G01 X82.730243 Y106.751904 Z-0.125000
G01 X97.073985 Y105.561134 Z-0.125000
G01 X114.353693 Y105.252704 Z-0.125000
G01 X118.543883 Y104.859214 Z-0.125000
G01 X122.067553 Y104.289764 Z-0.125000
G01 X127.172093 Y102.893064 Z-0.125000
G01 X130.873703 Y101.081394 Z-0.125000
G01 X132.114783 Y100.065154 Z-0.125000
G01 X132.888723 Y98.958614 Z-0.125000
G01 X133.010293 Y97.994644 Z-0.125000
G01 X132.500463 Y97.309374 Z-0.125000
G01 X131.831153 Y97.314374 Z-0.125000
G01 X131.498113 Y97.952234 Z-0.125000
G01 X131.636533 Y99.036534 Z-0.125000
G01 X132.219093 Y100.495944 Z-0.125000
G01 X141.717043 Y115.933114 Z-0.125000
G01 X144.297823 Y120.925724 Z-0.125000
G01 X146.160443 Y125.436794 Z-0.125000
G01 X147.332723 Y129.318414 Z-0.125000
G01 X148.073653 Y133.267544 Z-0.125000
G01 X148.305333 Y137.164854 Z-0.125000
G01 X148.022173 Y140.623854 Z-0.125000
G01 X147.325343 Y143.602934 Z-0.125000
G01 X146.117133 Y146.553254 Z-0.125000
G01 X144.485463 Y149.217834 Z-0.125000
G01 X142.340543 Y151.829434 Z-0.125000
G01 X126.896663 Y166.600514 Z-0.125000
G01 X123.768123 Y168.850524 Z-0.125000
G01 X120.776133 Y170.122104 Z-0.125000
G01 X117.372893 Y170.671314 Z-0.125000
G01 X113.386753 Y170.571714 Z-0.125000
G01 X90.379470 Y167.374764 Z-0.125000
G01 X65.594035 Y165.437694 Z-0.125000
G01 X59.991977 Y164.524364 Z-0.125000
G01 X57.688154 Y163.842924 Z-0.125000
G01 X55.969607 Y163.096234 Z-0.125000
G01 X54.002658 Y161.774394 Z-0.125000
G01 X52.468257 Y160.005414 Z-0.125000
G01 X51.351830 Y157.664304 Z-0.125000
G01 X50.525428 Y154.551614 Z-0.125000
G01 X49.771264 Y149.466744 Z-0.125000
G01 X49.403777 Y143.954114 Z-0.125000
G01 X49.477497 Y138.785674 Z-0.125000
G01 X50.009601 Y133.526624 Z-0.125000
G01 X50.826458 Y129.285974 Z-0.125000
G01 X52.044784 Y125.119444 Z-0.125000
G01 X53.527503 Y121.526234 Z-0.125000
G01 X55.381908 Y118.225994 Z-0.125000
G01 X57.613176 Y115.301184 Z-0.125000
G01 X59.940655 Y113.034904 Z-0.125000
G01 X62.561358 Y111.133094 Z-0.125000
G01 X65.797192 Y109.439664 Z-0.125000
G01 X68.974681 Y108.262934 Z-0.125000
G01 X72.759415 Y107.284104 Z-0.125000
G01 X77.167608 Y106.516144 Z-0.125000
G01 X82.594401 Y105.881084 Z-0.125000
G01 X97.320467 Y104.818204 Z-0.125000
G01 X114.658343 Y104.681244 Z-0.125000
G01 X118.978593 Y104.344544 Z-0.125000
G01 X122.620593 Y103.824694 Z-0.125000
G01 X127.671783 Y102.585694 Z-0.125000
G01 X131.617803 Y100.855574 Z-0.125000
G01 X133.055373 Y99.785484 Z-0.125000
G01 X133.816723 Y98.795704 Z-0.125000
G01 X133.964903 Y97.851554 Z-0.125000
G01 X133.444813 Y97.194654 Z-0.125000
G01 X132.545293 Y97.182454 Z-0.125000
G01 X132.060643 Y97.904604 Z-0.125000
G01 X132.127743 Y99.036824 Z-0.125000
G01 X132.742483 Y100.699324 Z-0.125000
G01 X134.059073 Y103.091454 Z-0.125000
G01 X139.110073 Y110.908764 Z-0.125000
G01 X142.561063 Y116.752824 Z-0.125000
G01 X145.026543 Y121.579224 Z-0.125000
G01 X146.882103 Y126.167254 Z-0.125000
G01 X148.025893 Y130.112694 Z-0.125000
G01 X148.716583 Y134.117804 Z-0.125000
G01 X148.884303 Y137.778594 Z-0.125000
G01 X148.557223 Y141.270324 Z-0.125000
G01 X147.808063 Y144.264324 Z-0.125000
G01 X146.646493 Y146.996594 Z-0.125000
G01 X145.112093 Y149.467694 Z-0.125000
G01 X142.931573 Y152.078144 Z-0.125000
G01 X126.613913 Y167.367324 Z-0.125000
G01 X123.641733 Y169.479114 Z-0.125000
G01 X120.632893 Y170.728264 Z-0.125000
G01 X117.457333 Y171.207474 Z-0.125000
G01 X113.777303 Y171.084424 Z-0.125000
G01 X97.186050 Y168.357334 Z-0.125000
G01 X89.952212 Y167.350784 Z-0.125000
G01 X82.346520 Y166.573804 Z-0.125000
G01 X64.016957 Y165.127044 Z-0.125000
G01 X58.795107 Y164.218294 Z-0.125000
G01 X55.029682 Y162.857594 Z-0.125000
G01 X53.042056 Y161.523894 Z-0.125000
G01 X51.498744 Y159.734304 Z-0.125000
G01 X50.384318 Y157.363884 Z-0.125000
G01 X49.559479 Y154.218154 Z-0.125000
G01 X48.755757 Y148.795874 Z-0.125000
G01 X48.393274 Y143.435654 Z-0.125000
G01 X48.460164 Y138.150574 Z-0.125000
G01 X49.003327 Y132.769234 Z-0.125000
G01 X49.842814 Y128.431784 Z-0.125000
G01 X51.096686 Y124.175204 Z-0.125000
G01 X52.622250 Y120.511774 Z-0.125000
G01 X54.529142 Y117.156974 Z-0.125000
G01 X56.822175 Y114.196324 Z-0.125000
G01 X59.213005 Y111.915494 Z-0.125000
G01 X61.903993 Y110.015884 Z-0.125000
G01 X65.226176 Y108.343054 Z-0.125000
G01 X68.488426 Y107.198624 Z-0.125000
G01 X72.374182 Y106.266684 Z-0.125000
G01 X76.480337 Y105.611204 Z-0.125000
G01 X82.038884 Y105.028054 Z-0.125000
G01 X98.001049 Y104.047214 Z-0.125000
G01 X115.721513 Y104.057214 Z-0.125000
G01 X123.497593 Y103.286304 Z-0.125000
G01 X128.661453 Y102.099664 Z-0.125000
G01 X132.670843 Y100.435184 Z-0.125000
G01 X134.017073 Y99.494334 Z-0.125000
G01 X134.806583 Y98.545984 Z-0.125000
G01 X134.955743 Y97.702004 Z-0.125000
G01 X134.449013 Y97.083994 Z-0.125000
G01 X133.353603 Y97.039294 Z-0.125000
G01 X132.663303 Y97.804124 Z-0.125000
G01 X132.633703 Y99.061374 Z-0.125000
G01 X133.202263 Y100.772734 Z-0.125000
G01 X134.632393 Y103.432284 Z-0.125000
G01 X139.788223 Y111.432134 Z-0.125000
G01 X143.421303 Y117.612914 Z-0.125000
G01 X145.886353 Y122.533194 Z-0.125000
G01 X147.703453 Y127.214984 Z-0.125000
G01 X148.783703 Y131.232444 Z-0.125000
G01 X149.357403 Y135.003554 Z-0.125000
G01 X149.455803 Y138.700314 Z-0.125000
G01 X149.093443 Y141.946014 Z-0.125000
G01 X148.373803 Y144.714064 Z-0.125000
G01 X147.182323 Y147.467134 Z-0.125000
G01 X145.606203 Y149.941014 Z-0.125000
G01 X143.364223 Y152.533174 Z-0.125000
G01 X134.480793 Y160.446604 Z-0.125000
G01 X126.317853 Y168.144534 Z-0.125000
G01 X123.313073 Y170.222614 Z-0.125000
G01 X120.480423 Y171.341864 Z-0.125000
G01 X117.532953 Y171.756424 Z-0.125000
G01 X113.873583 Y171.587974 Z-0.125000
G01 X96.848548 Y168.444324 Z-0.125000
G01 X89.526409 Y167.315254 Z-0.125000
G01 X81.332601 Y166.395764 Z-0.125000
G01 X62.447426 Y164.785734 Z-0.125000
G01 X57.305284 Y163.805164 Z-0.125000
G01 X53.878247 Y162.477144 Z-0.125000
G01 X51.929681 Y161.101194 Z-0.125000
G01 X50.436123 Y159.264554 Z-0.125000
G01 X49.372086 Y156.857544 Z-0.125000
G01 X48.533087 Y153.467974 Z-0.125000
G01 X47.753338 Y148.090004 Z-0.125000
G01 X47.387340 Y142.555254 Z-0.125000
G01 X47.478400 Y137.108634 Z-0.125000
G01 X48.011334 Y131.985454 Z-0.125000
G01 X48.874356 Y127.550294 Z-0.125000
G01 X50.164481 Y123.202944 Z-0.125000
G01 X51.733621 Y119.468934 Z-0.125000
G01 X53.693613 Y116.059404 Z-0.125000
G01 X56.048727 Y113.063464 Z-0.125000
G01 X58.502714 Y110.768894 Z-0.125000
G01 X61.263863 Y108.872654 Z-0.125000
G01 X64.671956 Y107.222114 Z-0.125000
G01 X68.018357 Y106.111774 Z-0.125000
G01 X71.594850 Y105.302824 Z-0.125000
G01 X75.787818 Y104.678654 Z-0.125000
G01 X81.476071 Y104.149704 Z-0.125000
G01 X98.286148 Y103.278944 Z-0.125000
G01 X116.040443 Y103.451304 Z-0.125000
G01 X124.061683 Y102.784434 Z-0.125000
G01 X129.414773 Y101.675384 Z-0.125000
G01 X133.431653 Y100.172644 Z-0.125000
G01 X134.896863 Y99.271054 Z-0.125000
G01 X135.734103 Y98.429294 Z-0.125000
G01 X135.988883 Y97.597664 Z-0.125000
G01 X135.558873 Y97.001014 Z-0.125000
G01 X134.900283 Y96.815234 Z-0.125000
G01 X134.220143 Y96.904534 Z-0.125000
G01 X133.664303 Y97.223884 Z-0.125000
G01 X133.300913 Y97.718074 Z-0.125000
G01 X133.140043 Y98.984804 Z-0.125000
G01 X133.675003 Y100.868314 Z-0.125000
G01 X135.221463 Y103.807414 Z-0.125000
G01 X140.636323 Y112.235114 Z-0.125000
G01 X144.297233 Y118.510724 Z-0.125000
G01 X146.755043 Y123.527894 Z-0.125000
G01 X148.525013 Y128.305214 Z-0.125000
G01 X149.477623 Y132.099764 Z-0.125000
G01 X149.995593 Y135.922094 Z-0.125000
G01 X150.036593 Y139.372444 Z-0.125000
G01 X149.630033 Y142.648364 Z-0.125000
G01 X148.860053 Y145.429854 Z-0.125000
G01 X147.604033 Y148.180214 Z-0.125000
G01 X145.955773 Y150.634004 Z-0.125000
G01 X143.979613 Y152.838174 Z-0.125000
G01 X134.477553 Y160.997114 Z-0.125000
G01 X126.008703 Y168.929654 Z-0.125000
G01 X123.166553 Y170.865744 Z-0.125000
G01 X120.318663 Y171.960784 Z-0.125000
G01 X117.357573 Y172.322364 Z-0.125000
G01 X113.961663 Y172.105334 Z-0.125000
G01 X110.030303 Y171.425244 Z-0.125000
G01 X96.950639 Y168.608874 Z-0.125000
G01 X88.621521 Y167.198244 Z-0.125000
G01 X80.310452 Y166.192794 Z-0.125000
G01 X60.888003 Y164.413064 Z-0.125000
G01 X56.134442 Y163.445094 Z-0.125000
G01 X52.744122 Y162.070034 Z-0.125000
G01 X50.837278 Y160.651284 Z-0.125000
G01 X49.395060 Y158.767874 Z-0.125000
G01 X48.380386 Y156.327114 Z-0.125000
G01 X47.523370 Y152.678804 Z-0.125000
G01 X46.734247 Y147.063584 Z-0.125000
G01 X46.395054 Y141.632904 Z-0.125000
G01 X46.489044 Y136.414554 Z-0.125000
G01 X47.034014 Y131.175004 Z-0.125000
G01 X47.921375 Y126.641104 Z-0.125000
G01 X49.248681 Y122.202324 Z-0.125000
G01 X50.862156 Y118.397374 Z-0.125000
G01 X52.875758 Y114.933274 Z-0.125000
G01 X55.293076 Y111.902464 Z-0.125000
G01 X57.810170 Y109.594834 Z-0.125000
G01 X60.641190 Y107.703094 Z-0.125000
G01 X64.134557 Y106.076464 Z-0.125000
G01 X67.171036 Y105.104684 Z-0.125000
G01 X70.812711 Y104.309994 Z-0.125000
G01 X75.090148 Y103.717494 Z-0.125000
G01 X80.451272 Y103.273284 Z-0.125000
G01 X98.584330 Y102.497024 Z-0.125000
G01 X116.753943 Y102.816174 Z-0.125000
G01 X124.623103 Y102.261904 Z-0.125000
G01 X129.899733 Y101.299864 Z-0.125000
G01 X134.183913 Y99.886064 Z-0.125000
G01 X135.778563 Y99.026774 Z-0.125000
G01 X136.715403 Y98.221244 Z-0.125000
G01 X137.041423 Y97.478434 Z-0.125000
G01 X136.665413 Y96.885344 Z-0.125000
G01 X136.050953 Y96.694924 Z-0.125000
G01 X135.298703 Y96.736624 Z-0.125000
G01 X134.123903 Y97.431764 Z-0.125000
G01 X133.687843 Y98.576994 Z-0.125000
G01 X133.882163 Y100.165984 Z-0.125000
G01 X134.557993 Y101.898784 Z-0.125000
G01 X135.690623 Y103.989384 Z-0.125000
G01 X141.032023 Y112.312414 Z-0.125000
G01 X144.483983 Y118.151374 Z-0.125000
G01 X146.527173 Y122.096424 Z-0.125000
G01 X148.191143 Y125.969514 Z-0.125000
G01 X149.659923 Y130.618314 Z-0.125000
G01 X150.479343 Y135.091204 Z-0.125000
G01 X150.650223 Y139.498934 Z-0.125000
G01 X150.167833 Y143.377344 Z-0.125000
G01 X149.346083 Y146.172134 Z-0.125000
G01 X148.150413 Y148.702094 Z-0.125000
G01 X146.614483 Y150.965414 Z-0.125000
G01 X144.610103 Y153.172144 Z-0.125000
G01 X134.466443 Y161.556834 Z-0.125000
G01 X125.687673 Y169.722684 Z-0.125000
G01 X122.815373 Y171.617374 Z-0.125000
G01 X120.148653 Y172.585734 Z-0.125000
G01 X116.928743 Y172.890434 Z-0.125000
G01 X113.190363 Y172.502174 Z-0.125000
G01 X96.166698 Y168.596124 Z-0.125000
G01 X85.743136 Y166.766404 Z-0.125000
G01 X78.783749 Y165.913074 Z-0.125000
G01 X64.581021 Y164.645704 Z-0.125000
G01 X59.342447 Y164.009924 Z-0.125000
G01 X54.978443 Y163.060354 Z-0.125000
G01 X51.849243 Y161.765904 Z-0.125000
G01 X49.925822 Y160.335384 Z-0.125000
G01 X48.477965 Y158.431444 Z-0.125000
G01 X47.466782 Y155.962024 Z-0.125000
G01 X46.606788 Y152.274504 Z-0.125000
G01 X45.787564 Y146.570324 Z-0.125000
G01 X45.425471 Y141.029454 Z-0.125000
G01 X45.514331 Y135.696054 Z-0.125000
G01 X46.071874 Y130.339004 Z-0.125000
G01 X46.984380 Y125.705534 Z-0.125000
G01 X48.349868 Y121.174694 Z-0.125000
G01 X50.008408 Y117.298484 Z-0.125000
G01 X52.076085 Y113.779824 Z-0.125000
G01 X54.555778 Y110.714584 Z-0.125000
G01 X57.135931 Y108.394674 Z-0.125000
G01 X60.036259 Y106.508504 Z-0.125000
G01 X63.614242 Y104.907314 Z-0.125000
G01 X66.723983 Y103.968154 Z-0.125000
G01 X70.453814 Y103.219844 Z-0.125000
G01 X74.835201 Y102.685864 Z-0.125000
G01 X79.862745 Y102.337004 Z-0.125000
G01 X97.993339 Y101.710714 Z-0.125000
G01 X116.246023 Y102.175704 Z-0.125000
G01 X121.076323 Y102.050464 Z-0.125000
G01 X125.180013 Y101.717544 Z-0.125000
G01 X130.645773 Y100.831484 Z-0.125000
G01 X134.923213 Y99.572744 Z-0.125000
G01 X136.528283 Y98.831424 Z-0.125000
G01 X137.638093 Y98.058394 Z-0.125000
G01 X138.104593 Y97.338964 Z-0.125000
G01 X137.810573 Y96.757894 Z-0.125000
G01 X137.118073 Y96.557464 Z-0.125000
G01 X136.298263 Y96.609664 Z-0.125000
G01 X135.535093 Y96.873594 Z-0.125000
G01 X134.866883 Y97.366494 Z-0.125000
G01 X134.269213 Y98.643014 Z-0.125000
G01 X134.440343 Y100.444514 Z-0.125000
G01 X135.044203 Y102.058604 Z-0.125000
G01 X136.170703 Y104.192484 Z-0.125000
G01 X141.752913 Y112.918424 Z-0.125000
G01 X145.243353 Y118.838974 Z-0.125000
G01 X147.297293 Y122.846744 Z-0.125000
G01 X148.952333 Y126.786064 Z-0.125000
G01 X150.311823 Y131.213024 Z-0.125000
G01 X151.110683 Y135.750704 Z-0.125000
G01 X151.242023 Y140.216384 Z-0.125000
G01 X150.705913 Y144.132484 Z-0.125000
G01 X149.926843 Y146.696354 Z-0.125000
G01 X148.703473 Y149.248874 Z-0.125000
G01 X147.129303 Y151.516984 Z-0.125000
G01 X145.072273 Y153.708454 Z-0.125000
G01 X134.658473 Y161.945104 Z-0.125000
G01 X125.354633 Y170.523004 Z-0.125000
G01 X122.650863 Y172.273524 Z-0.125000
G01 X119.970073 Y173.216764 Z-0.125000
G01 X116.982153 Y173.468744 Z-0.125000
G01 X113.267563 Y173.035574 Z-0.125000
G01 X95.821953 Y168.663714 Z-0.125000
G01 X85.287561 Y166.656164 Z-0.125000
G01 X77.742779 Y165.659894 Z-0.125000
G01 X62.996497 Y164.261644 Z-0.125000
G01 X57.813024 Y163.577744 Z-0.125000
G01 X53.837672 Y162.652854 Z-0.125000
G01 X50.749511 Y161.313594 Z-0.125000
G01 X48.871987 Y159.839474 Z-0.125000
G01 X47.478156 Y157.888944 Z-0.125000
G01 X46.460552 Y155.199064 Z-0.125000
G01 X45.589987 Y151.201764 Z-0.125000
G01 X44.793369 Y145.454324 Z-0.125000
G01 X44.461671 Y140.036614 Z-0.125000
G01 X44.579341 Y134.544584 Z-0.125000
G01 X45.124896 Y129.479364 Z-0.125000
G01 X46.063476 Y124.745574 Z-0.125000
G01 X47.468170 Y120.122044 Z-0.125000
G01 X49.172510 Y116.174284 Z-0.125000
G01 X51.294774 Y112.601074 Z-0.125000
G01 X53.836989 Y109.501814 Z-0.125000
G01 X56.479858 Y107.170394 Z-0.125000
G01 X59.449056 Y105.290824 Z-0.125000
G01 X63.110725 Y103.716514 Z-0.125000
G01 X66.293022 Y102.811304 Z-0.125000
G01 X70.109909 Y102.110994 Z-0.125000
G01 X79.266170 Y101.374844 Z-0.125000
G01 X98.755534 Y100.895304 Z-0.125000
G01 X116.531463 Y101.499824 Z-0.125000
G01 X125.729953 Y101.151464 Z-0.125000
G01 X131.091773 Y100.400144 Z-0.125000
G01 X135.644633 Y99.231464 Z-0.125000
G01 X137.386373 Y98.533274 Z-0.125000
G01 X138.622113 Y97.803134 Z-0.125000
G01 X139.186043 Y97.125554 Z-0.125000
G01 X138.940353 Y96.586674 Z-0.125000
G01 X138.230353 Y96.412364 Z-0.125000
G01 X137.257643 Y96.500764 Z-0.125000
G01 X136.319823 Y96.840564 Z-0.125000
G01 X135.572373 Y97.383024 Z-0.125000
G01 X134.865713 Y98.728224 Z-0.125000
G01 X134.965313 Y100.586634 Z-0.125000
G01 X135.632143 Y102.440694 Z-0.125000
G01 X136.798183 Y104.651484 Z-0.125000
G01 X142.487953 Y113.551044 Z-0.125000
G01 X146.015163 Y119.553564 Z-0.125000
G01 X148.076953 Y123.625274 Z-0.125000
G01 X149.613723 Y127.339114 Z-0.125000
G01 X150.969123 Y131.829574 Z-0.125000
G01 X151.745723 Y136.433484 Z-0.125000
G01 X151.835823 Y140.958504 Z-0.125000
G01 X151.244413 Y144.913004 Z-0.125000
G01 X150.416523 Y147.489394 Z-0.125000
G01 X149.263793 Y149.819944 Z-0.125000
G01 X147.651753 Y152.094524 Z-0.125000
G01 X145.730023 Y154.099974 Z-0.125000
G01 X143.359093 Y156.065794 Z-0.125000
G01 X134.636653 Y162.523364 Z-0.125000
G01 X125.010683 Y171.329904 Z-0.125000
G01 X122.478653 Y172.936394 Z-0.125000
G01 X119.783583 Y173.853934 Z-0.125000
G01 X116.782303 Y174.049724 Z-0.125000
G01 X113.049743 Y173.525234 Z-0.125000
G01 X95.929691 Y168.839884 Z-0.125000
G01 X85.337828 Y166.622404 Z-0.125000
G01 X77.205695 Y165.446634 Z-0.125000
G01 X61.848553 Y163.899204 Z-0.125000
G01 X56.664884 Y163.184164 Z-0.125000
G01 X52.713702 Y162.223594 Z-0.125000
G01 X49.888297 Y160.972184 Z-0.125000
G01 X47.841030 Y159.320474 Z-0.125000
G01 X46.501956 Y157.323944 Z-0.125000
G01 X45.532226 Y154.604004 Z-0.125000
G01 X44.665982 Y150.527824 Z-0.125000
G01 X43.874857 Y144.911194 Z-0.125000
G01 X43.520748 Y139.383934 Z-0.125000
G01 X43.634757 Y133.773234 Z-0.125000
G01 X44.193861 Y128.597384 Z-0.125000
G01 X45.159587 Y123.762424 Z-0.125000
G01 X46.604393 Y119.045754 Z-0.125000
G01 X48.355434 Y115.026294 Z-0.125000
G01 X50.532651 Y111.398644 Z-0.125000
G01 X52.857860 Y108.554644 Z-0.125000
G01 X55.525582 Y106.160634 Z-0.125000
G01 X58.526809 Y104.236444 Z-0.125000
G01 X62.233642 Y102.636024 Z-0.125000
G01 X65.460175 Y101.727984 Z-0.125000
G01 X68.893974 Y101.102994 Z-0.125000
G01 X72.968027 Y100.668734 Z-0.125000
G01 X78.179014 Y100.402024 Z-0.125000
G01 X99.076836 Y100.073494 Z-0.125000
G01 X117.242123 Y100.810884 Z-0.125000
G01 X126.271393 Y100.563564 Z-0.125000
G01 X131.819293 Y99.884754 Z-0.125000
G01 X136.344263 Y98.860854 Z-0.125000
G01 X139.604043 Y97.522494 Z-0.125000
G01 X140.279693 Y96.890324 Z-0.125000
G01 X140.142493 Y96.423374 Z-0.125000
G01 X139.301373 Y96.255664 Z-0.125000
G01 X138.151233 Y96.418974 Z-0.125000
G01 X137.123563 Y96.821674 Z-0.125000
G01 X136.295603 Y97.415854 Z-0.125000
G01 X135.738053 Y98.147364 Z-0.125000
G01 X135.449643 Y98.957994 Z-0.125000
G01 X135.542443 Y100.921024 Z-0.125000
G01 X136.139923 Y102.644304 Z-0.125000
G01 X137.300073 Y104.898054 Z-0.125000
G01 X143.237273 Y114.209194 Z-0.125000
G01 X146.652743 Y120.025424 Z-0.125000
G01 X148.737073 Y124.148424 Z-0.125000
G01 X150.282453 Y127.911964 Z-0.125000
G01 X151.631973 Y132.466974 Z-0.125000
G01 X152.384363 Y137.138634 Z-0.125000
G01 X152.431263 Y141.724384 Z-0.125000
G01 X151.783023 Y145.718254 Z-0.125000
G01 X151.008363 Y148.059734 Z-0.125000
G01 X149.831173 Y150.414644 Z-0.125000
G01 X148.345983 Y152.502854 Z-0.125000
G01 X146.403253 Y154.520214 Z-0.125000
G01 X143.780083 Y156.623484 Z-0.125000
G01 X134.608203 Y163.110554 Z-0.125000
G01 X124.656173 Y172.142924 Z-0.125000
G01 X122.299133 Y173.605894 Z-0.125000
G01 X119.806883 Y174.455584 Z-0.125000
G01 X116.820583 Y174.651134 Z-0.125000
G01 X113.112443 Y174.086144 Z-0.125000
G01 X96.491962 Y169.156134 Z-0.125000
G01 X86.408741 Y166.791584 Z-0.125000
G01 X76.160375 Y165.156754 Z-0.125000
G01 X56.645492 Y162.966814 Z-0.125000
G01 X52.198362 Y161.967374 Z-0.125000
G01 X49.045531 Y160.614534 Z-0.125000
G01 X46.983298 Y158.950184 Z-0.125000
G01 X45.641320 Y156.932974 Z-0.125000
G01 X44.675593 Y154.183074 Z-0.125000
G01 X43.757472 Y149.828304 Z-0.125000
G01 X42.938638 Y144.030624 Z-0.125000
G01 X42.586409 Y138.324634 Z-0.125000
G01 X42.705300 Y132.981744 Z-0.125000
G01 X43.278808 Y127.694394 Z-0.125000
G01 X44.272560 Y122.757714 Z-0.125000
G01 X45.758648 Y117.947444 Z-0.125000
G01 X47.557099 Y113.856034 Z-0.125000
G01 X49.789856 Y110.174054 Z-0.125000
G01 X52.171068 Y107.299154 Z-0.125000
G01 X54.900286 Y104.892854 Z-0.125000
G01 X57.968428 Y102.975144 Z-0.125000
G01 X61.756264 Y101.402264 Z-0.125000
G01 X64.628566 Y100.621344 Z-0.125000
G01 X68.111923 Y100.006874 Z-0.125000
G01 X72.251720 Y99.600324 Z-0.125000
G01 X77.066436 Y99.395014 Z-0.125000
G01 X99.887282 Y99.245364 Z-0.125000
G01 X117.516203 Y100.097274 Z-0.125000
G01 X126.801893 Y99.953484 Z-0.125000
G01 X132.214163 Y99.395084 Z-0.125000
G01 X137.017073 Y98.459314 Z-0.125000
G01 X140.578183 Y97.214184 Z-0.125000
G01 X141.379733 Y96.630404 Z-0.125000
G01 X141.322833 Y96.212394 Z-0.125000
G01 X140.492233 Y96.088134 Z-0.125000
G01 X139.175133 Y96.313714 Z-0.125000
G01 X137.945363 Y96.815474 Z-0.125000
G01 X137.035903 Y97.463654 Z-0.125000
G01 X136.410443 Y98.238454 Z-0.125000
G01 X136.069473 Y99.083654 Z-0.125000
G01 X136.088973 Y101.104634 Z-0.125000
G01 X136.750533 Y103.079784 Z-0.125000
G01 X137.954333 Y105.409764 Z-0.125000
G01 X144.000143 Y114.891114 Z-0.125000
G01 X147.447253 Y120.786584 Z-0.125000
G01 X149.405043 Y124.689084 Z-0.125000
G01 X150.957653 Y128.502944 Z-0.125000
G01 X152.299683 Y133.123704 Z-0.125000
G01 X153.025973 Y137.864594 Z-0.125000
G01 X153.027973 Y142.512794 Z-0.125000
G01 X152.321433 Y146.546924 Z-0.125000
G01 X151.501573 Y148.900604 Z-0.125000
G01 X150.267603 Y151.254234 Z-0.125000
G01 X148.719893 Y153.325474 Z-0.125000
G01 X146.898833 Y155.139084 Z-0.125000
G01 X144.426483 Y157.055814 Z-0.125000
G01 X137.786833 Y161.362714 Z-0.125000
G01 X134.573603 Y163.706134 Z-0.125000
G01 X124.291593 Y172.960754 Z-0.125000
G01 X121.910453 Y174.375704 Z-0.125000
G01 X119.606553 Y175.107804 Z-0.125000
G01 X116.606233 Y175.248174 Z-0.125000
G01 X112.880353 Y174.591984 Z-0.125000
G01 X96.149081 Y169.244664 Z-0.125000
G01 X85.978392 Y166.691404 Z-0.125000
G01 X75.630175 Y164.918604 Z-0.125000
G01 X55.520056 Y162.542954 Z-0.125000
G01 X51.103564 Y161.505264 Z-0.125000
G01 X47.999876 Y160.106454 Z-0.125000
G01 X45.994086 Y158.393084 Z-0.125000
G01 X44.708501 Y156.330314 Z-0.125000
G01 X43.738137 Y153.357064 Z-0.125000
G01 X42.735986 Y148.364134 Z-0.125000
G01 X41.982189 Y142.781784 Z-0.125000
G01 X41.667751 Y137.227594 Z-0.125000
G01 X41.821064 Y131.731364 Z-0.125000
G01 X42.379851 Y126.771694 Z-0.125000
G01 X43.402801 Y121.732754 Z-0.125000
G01 X44.931245 Y116.828454 Z-0.125000
G01 X46.777887 Y112.665004 Z-0.125000
G01 X49.066598 Y108.928844 Z-0.125000
G01 X51.503862 Y106.023414 Z-0.125000
G01 X54.294186 Y103.605454 Z-0.125000
G01 X57.428536 Y101.695004 Z-0.125000
G01 X61.296153 Y100.150784 Z-0.125000
G01 X64.228462 Y99.400994 Z-0.125000
G01 X67.784546 Y98.830584 Z-0.125000
G01 X76.428379 Y98.347484 Z-0.125000
G01 X100.235293 Y98.404584 Z-0.125000
G01 X118.232963 Y99.379034 Z-0.125000
G01 X127.319453 Y99.321434 Z-0.125000
G01 X132.912213 Y98.830474 Z-0.125000
G01 X137.658833 Y98.026184 Z-0.125000
G01 X141.419103 Y96.927184 Z-0.125000
G01 X142.436963 Y96.381664 Z-0.125000
G01 X142.550963 Y95.997004 Z-0.125000
G01 X141.629113 Y95.911304 Z-0.125000
G01 X140.114533 Y96.243764 Z-0.125000
G01 X138.784833 Y96.821664 Z-0.125000
G01 X137.694453 Y97.618034 Z-0.125000
G01 X137.028693 Y98.461604 Z-0.125000
G01 X136.666643 Y99.364924 Z-0.125000
G01 X136.683743 Y101.490604 Z-0.125000
G01 X137.278433 Y103.322514 Z-0.125000
G01 X138.476743 Y105.694734 Z-0.125000
G01 X144.609093 Y115.324974 Z-0.125000
G01 X148.103613 Y121.295184 Z-0.125000
G01 X150.080203 Y125.246304 Z-0.125000
G01 X151.638973 Y129.111194 Z-0.125000
G01 X152.971703 Y133.798814 Z-0.125000
G01 X153.670073 Y138.610624 Z-0.125000
G01 X153.625673 Y143.322974 Z-0.125000
G01 X152.859673 Y147.398574 Z-0.125000
G01 X151.993743 Y149.764644 Z-0.125000
G01 X150.702283 Y152.116734 Z-0.125000
G01 X149.265823 Y153.977584 Z-0.125000
G01 X147.402963 Y155.783844 Z-0.125000
G01 X144.647383 Y157.815664 Z-0.125000
G01 X138.057533 Y161.842494 Z-0.125000
G01 X134.763503 Y164.133774 Z-0.125000
G01 X132.066623 Y166.355834 Z-0.125000
G01 X126.283743 Y171.852254 Z-0.125000
G01 X123.917523 Y173.783124 Z-0.125000
G01 X121.716403 Y175.056574 Z-0.125000
G01 X119.399393 Y175.766114 Z-0.125000
G01 X116.384473 Y175.850814 Z-0.125000
G01 X112.928383 Y175.181704 Z-0.125000
G01 X96.258678 Y169.477004 Z-0.125000
G01 X85.548713 Y166.587984 Z-0.125000
G01 X74.582405 Y164.597104 Z-0.125000
G01 X54.408862 Y162.102234 Z-0.125000
G01 X50.325899 Y161.124544 Z-0.125000
G01 X47.193233 Y159.719334 Z-0.125000
G01 X45.174407 Y157.993484 Z-0.125000
G01 X43.886942 Y155.910064 Z-0.125000
G01 X42.871999 Y152.707114 Z-0.125000
G01 X41.807963 Y147.329344 Z-0.125000
G01 X41.071986 Y141.824254 Z-0.125000
G01 X40.770608 Y136.505234 Z-0.125000
G01 X40.923189 Y130.894344 Z-0.125000
G01 X41.497357 Y125.831004 Z-0.125000
G01 X42.550555 Y120.689324 Z-0.125000
G01 X44.122527 Y115.690684 Z-0.125000
G01 X46.018263 Y111.455114 Z-0.125000
G01 X48.363344 Y107.664894 Z-0.125000
G01 X50.856685 Y104.729354 Z-0.125000
G01 X53.707674 Y102.300274 Z-0.125000
G01 X56.907329 Y100.397894 Z-0.125000
G01 X60.853409 Y98.883394 Z-0.125000
G01 X63.844577 Y98.165574 Z-0.125000
G01 X67.472216 Y97.640254 Z-0.125000
G01 X75.783276 Y97.276084 Z-0.125000
G01 X101.088923 Y97.566164 Z-0.125000
G01 X118.489583 Y98.629034 Z-0.125000
G01 X127.822293 Y98.667134 Z-0.125000
G01 X133.243913 Y98.280744 Z-0.125000
G01 X137.994253 Y97.610394 Z-0.125000
G01 X142.206073 Y96.600694 Z-0.125000
G01 X143.460723 Y96.095964 Z-0.125000
G01 X143.755663 Y95.732694 Z-0.125000
G01 X142.697423 Y95.740694 Z-0.125000
G01 X141.071383 Y96.182954 Z-0.125000
G01 X139.641423 Y96.840444 Z-0.125000
G01 X138.458733 Y97.701074 Z-0.125000
G01 X137.723803 Y98.589994 Z-0.125000
G01 X137.308153 Y99.528924 Z-0.125000
G01 X137.152883 Y100.630864 Z-0.125000
G01 X137.251283 Y101.712924 Z-0.125000
G01 X137.911993 Y103.808114 Z-0.125000
G01 X139.158053 Y106.255514 Z-0.125000
G01 X145.397553 Y116.049164 Z-0.125000
G01 X148.919923 Y122.099424 Z-0.125000
G01 X150.895413 Y126.113884 Z-0.125000
G01 X152.327433 Y129.736494 Z-0.125000
G01 X153.649073 Y134.492244 Z-0.125000
G01 X154.317713 Y139.376664 Z-0.125000
G01 X154.225213 Y144.154904 Z-0.125000
G01 X153.398423 Y148.273204 Z-0.125000
G01 X152.485863 Y150.652014 Z-0.125000
G01 X151.286513 Y152.781694 Z-0.125000
G01 X149.820833 Y154.654294 Z-0.125000
G01 X147.916843 Y156.454944 Z-0.125000
G01 X145.095633 Y158.451674 Z-0.125000
G01 X138.091863 Y162.490844 Z-0.125000
G01 X134.724343 Y164.748154 Z-0.125000
G01 X131.756683 Y167.162774 Z-0.125000
G01 X126.122983 Y172.522534 Z-0.125000
G01 X123.734893 Y174.472314 Z-0.125000
G01 X121.517563 Y175.744644 Z-0.125000
G01 X119.186863 Y176.431524 Z-0.125000
G01 X116.156633 Y176.460524 Z-0.125000
G01 X112.683313 Y175.706734 Z-0.125000
G01 X95.911334 Y169.579014 Z-0.125000
G01 X90.677722 Y167.946324 Z-0.125000
G01 X85.120441 Y166.484214 Z-0.125000
G01 X74.061244 Y164.341614 Z-0.125000
G01 X53.313875 Y161.647384 Z-0.125000
G01 X49.266750 Y160.633344 Z-0.125000
G01 X46.188720 Y159.180994 Z-0.125000
G01 X44.229705 Y157.405264 Z-0.125000
G01 X42.999612 Y155.276754 Z-0.125000
G01 X42.027025 Y152.042294 Z-0.125000
G01 X40.845122 Y145.969304 Z-0.125000
G01 X40.143055 Y140.473564 Z-0.125000
G01 X39.883669 Y135.349254 Z-0.125000
G01 X40.041864 Y130.042854 Z-0.125000
G01 X40.632241 Y124.875204 Z-0.125000
G01 X41.716810 Y119.630434 Z-0.125000
G01 X43.333507 Y114.537234 Z-0.125000
G01 X45.279217 Y110.229504 Z-0.125000
G01 X47.681106 Y106.385394 Z-0.125000
G01 X50.230449 Y103.420024 Z-0.125000
G01 X53.141569 Y100.980414 Z-0.125000
G01 X56.405600 Y99.086834 Z-0.125000
G01 X60.428752 Y97.603134 Z-0.125000
G01 X63.477706 Y96.917944 Z-0.125000
G01 X66.701530 Y96.482854 Z-0.125000
G01 X74.617078 Y96.180184 Z-0.125000
G01 X101.967303 Y96.727204 Z-0.125000
G01 X118.730533 Y97.860474 Z-0.125000
G01 X127.880403 Y98.003774 Z-0.125000
G01 X133.156253 Y97.730884 Z-0.125000
G01 X138.249823 Y97.152644 Z-0.125000
G01 X142.760323 Y96.278394 Z-0.125000
G01 X144.441393 Y95.772514 Z-0.125000
G01 X144.966783 Y95.440934 Z-0.125000
G01 X143.782293 Y95.570814 Z-0.125000
G01 X141.907703 Y96.183994 Z-0.125000
G01 X140.379113 Y96.949684 Z-0.125000
G01 X139.239513 Y97.795514 Z-0.125000
G01 X138.434503 Y98.731024 Z-0.125000
G01 X137.964133 Y99.706164 Z-0.125000
G01 X137.763213 Y100.840804 Z-0.125000
G01 X137.831113 Y101.948814 Z-0.125000
G01 X138.461013 Y104.085164 Z-0.125000
G01 X139.702093 Y106.573964 Z-0.125000
G01 X146.199253 Y116.792104 Z-0.125000
G01 X149.595723 Y122.639664 Z-0.125000
G01 X151.587313 Y126.703894 Z-0.125000
G01 X153.022103 Y130.374964 Z-0.125000
G01 X154.330883 Y135.200014 Z-0.125000
G01 X154.968003 Y140.158854 Z-0.125000
G01 X154.825923 Y145.004904 Z-0.125000
G01 X153.937203 Y149.167304 Z-0.125000
G01 X152.977473 Y151.559354 Z-0.125000
G01 X151.725683 Y153.688084 Z-0.125000
G01 X150.202973 Y155.545374 Z-0.125000
G01 X148.440503 Y157.149394 Z-0.125000
G01 X145.554313 Y159.111974 Z-0.125000
G01 X138.373883 Y163.003414 Z-0.125000
G01 X134.681693 Y165.369104 Z-0.125000
G01 X131.661353 Y167.780224 Z-0.125000
G01 X125.756703 Y173.379884 Z-0.125000
G01 X123.347343 Y175.304604 Z-0.125000
G01 X121.106943 Y176.523464 Z-0.125000
G01 X118.969133 Y177.101364 Z-0.125000
G01 X116.170923 Y177.106364 Z-0.125000
G01 X112.718903 Y176.325704 Z-0.125000
G01 X95.559697 Y169.682054 Z-0.125000
G01 X89.793516 Y167.790194 Z-0.125000
G01 X84.171786 Y166.247594 Z-0.125000
G01 X73.015032 Y163.993834 Z-0.125000
G01 X52.235755 Y161.176644 Z-0.125000
G01 X48.228497 Y160.125244 Z-0.125000
G01 X45.421304 Y158.769444 Z-0.125000
G01 X43.450864 Y156.981394 Z-0.125000
G01 X42.137547 Y154.626114 Z-0.125000
G01 X41.156147 Y151.155434 Z-0.125000
G01 X39.936966 Y144.825234 Z-0.125000
G01 X39.261314 Y139.440084 Z-0.125000
G01 X39.014059 Y134.156734 Z-0.125000
G01 X39.176894 Y129.174914 Z-0.125000
G01 X39.784312 Y123.902604 Z-0.125000
G01 X40.901521 Y118.554334 Z-0.125000
G01 X42.564186 Y113.366474 Z-0.125000
G01 X44.560675 Y108.986644 Z-0.125000
G01 X47.019911 Y105.088884 Z-0.125000
G01 X49.625063 Y102.094054 Z-0.125000
G01 X52.595797 Y99.644504 Z-0.125000
G01 X55.923278 Y97.760394 Z-0.125000
G01 X60.021939 Y96.308234 Z-0.125000
G01 X62.672425 Y95.732704 Z-0.125000
G01 X65.931575 Y95.304134 Z-0.125000
G01 X73.952098 Y95.058414 Z-0.125000
G01 X102.353083 Y95.862994 Z-0.125000
G01 X119.442593 Y97.098454 Z-0.125000
G01 X128.337243 Y97.301084 Z-0.125000
G01 X133.380953 Y97.109204 Z-0.125000
G01 X138.420513 Y96.648914 Z-0.125000
G01 X143.189263 Y95.904154 Z-0.125000
G01 X146.172323 Y95.110834 Z-0.125000
G01 X144.531753 Y95.512524 Z-0.125000
G01 X142.593583 Y96.277434 Z-0.125000
G01 X141.115773 Y97.084724 Z-0.125000
G01 X139.913393 Y98.014264 Z-0.125000
G01 X139.069723 Y99.019704 Z-0.125000
G01 X138.580753 Y100.053134 Z-0.125000
G01 X138.375933 Y101.243944 Z-0.125000
G01 X138.452133 Y102.399144 Z-0.125000
G01 X139.020493 Y104.374754 Z-0.125000
G01 X140.255693 Y106.904324 Z-0.125000
G01 X146.840763 Y117.271954 Z-0.125000
G01 X150.279343 Y123.191334 Z-0.125000
G01 X152.285993 Y127.305564 Z-0.125000
G01 X153.722323 Y131.025634 Z-0.125000
G01 X155.016423 Y135.921354 Z-0.125000
G01 X155.620253 Y140.956414 Z-0.125000
G01 X155.426913 Y145.872354 Z-0.125000
G01 X154.475333 Y150.080314 Z-0.125000
G01 X153.594813 Y152.232014 Z-0.125000
G01 X152.322333 Y154.391654 Z-0.125000
G01 X150.771583 Y156.264514 Z-0.125000
G01 X148.973473 Y157.866784 Z-0.125000
G01 X146.023143 Y159.796754 Z-0.125000
G01 X138.665093 Y163.534724 Z-0.125000
G01 X135.373723 Y165.493354 Z-0.125000
G01 X131.562693 Y168.402864 Z-0.125000
G01 X125.790573 Y173.876314 Z-0.125000
G01 X123.762303 Y175.571864 Z-0.125000
G01 X121.313923 Y177.043984 Z-0.125000
G01 X118.746053 Y177.776154 Z-0.125000
G01 X115.931923 Y177.731454 Z-0.125000
G01 X112.461193 Y176.868194 Z-0.125000
G01 X95.202960 Y169.789694 Z-0.125000
G01 X89.400113 Y167.778404 Z-0.125000
G01 X83.740833 Y166.134714 Z-0.125000
G01 X77.881147 Y164.746954 Z-0.125000
G01 X71.968216 Y163.633744 Z-0.125000
G01 X51.174902 Y160.693624 Z-0.125000
G01 X47.211391 Y159.604034 Z-0.125000
G01 X44.459420 Y158.203414 Z-0.125000
G01 X42.551673 Y156.364514 Z-0.125000
G01 X41.300266 Y153.961944 Z-0.125000
G01 X40.258396 Y150.033614 Z-0.125000
G01 X38.988827 Y143.317344 Z-0.125000
G01 X38.361683 Y137.984914 Z-0.125000
G01 X38.161741 Y132.931064 Z-0.125000
G01 X38.364368 Y127.814754 Z-0.125000
G01 X38.953183 Y122.917084 Z-0.125000
G01 X40.104350 Y117.465164 Z-0.125000
G01 X41.635334 Y112.649274 Z-0.125000
G01 X43.636460 Y108.155764 Z-0.125000
G01 X46.106682 Y104.148184 Z-0.125000
G01 X48.726286 Y101.064464 Z-0.125000
G01 X51.715306 Y98.540974 Z-0.125000
G01 X55.065662 Y96.602174 Z-0.125000
G01 X59.196475 Y95.115114 Z-0.125000
G01 X61.870544 Y94.532424 Z-0.125000
G01 X65.162309 Y94.108124 Z-0.125000
G01 X73.281265 Y93.916484 Z-0.125000
G01 X103.267703 Y95.015844 Z-0.125000
G01 X119.658363 Y96.294764 Z-0.125000
G01 X128.773983 Y96.577694 Z-0.125000
G01 X138.501423 Y96.101834 Z-0.125000
G01 X143.241223 Y95.516564 Z-0.125000
G01 X147.388273 Y94.757454 Z-0.125000
G01 X143.415033 Y96.338294 Z-0.125000
G01 X140.715603 Y98.137524 Z-0.125000
G01 X139.800903 Y99.191044 Z-0.125000
G01 X139.256573 Y100.261134 Z-0.125000
G01 X139.005573 Y101.484584 Z-0.125000
G01 X139.050973 Y102.665274 Z-0.125000
G01 X139.684953 Y104.918584 Z-0.125000
G01 X140.973643 Y107.521464 Z-0.125000
G01 X147.665923 Y118.047534 Z-0.125000
G01 X151.124803 Y124.044884 Z-0.125000
G01 X152.991463 Y127.918944 Z-0.125000
G01 X154.428063 Y131.688574 Z-0.125000
G01 X155.705693 Y136.656184 Z-0.125000
G01 X156.274313 Y141.769324 Z-0.125000
G01 X156.028323 Y146.757224 Z-0.125000
G01 X155.012943 Y151.012474 Z-0.125000
G01 X154.090043 Y153.177524 Z-0.125000
G01 X152.765053 Y155.338144 Z-0.125000
G01 X151.349013 Y157.004644 Z-0.125000
G01 X149.516253 Y158.607694 Z-0.125000
G01 X146.256913 Y160.637764 Z-0.125000
G01 X138.966683 Y164.086634 Z-0.125000
G01 X135.339943 Y166.134604 Z-0.125000
G01 X131.461603 Y169.031884 Z-0.125000
G01 X125.620063 Y174.561214 Z-0.125000
G01 X123.572353 Y176.273954 Z-0.125000
G01 X121.103943 Y177.748084 Z-0.125000
G01 X118.518563 Y178.457034 Z-0.125000
G01 X115.687403 Y178.362534 Z-0.125000
G01 X112.196883 Y177.417094 Z-0.125000
G01 X94.841275 Y169.902924 Z-0.125000
G01 X89.004294 Y167.771044 Z-0.125000
G01 X83.310540 Y166.024774 Z-0.125000
G01 X77.413310 Y164.546184 Z-0.125000
G01 X71.460390 Y163.356984 Z-0.125000
G01 X50.502436 Y160.277224 Z-0.125000
G01 X46.504624 Y159.180964 Z-0.125000
G01 X43.731219 Y157.774264 Z-0.125000
G01 X41.813340 Y155.923034 Z-0.125000
G01 X40.561518 Y153.497464 Z-0.125000
G01 X39.470627 Y149.311014 Z-0.125000
G01 X38.148937 Y142.387024 Z-0.125000
G01 X37.540151 Y137.282164 Z-0.125000
G01 X37.326294 Y132.130574 Z-0.125000
G01 X37.532339 Y126.913504 Z-0.125000
G01 X38.139196 Y121.920114 Z-0.125000
G01 X39.325566 Y116.364314 Z-0.125000
G01 X40.900272 Y111.461734 Z-0.125000
G01 X42.953399 Y106.894714 Z-0.125000
G01 X45.481235 Y102.831984 Z-0.125000
G01 X48.156134 Y99.717534 Z-0.125000
G01 X51.203159 Y97.182794 Z-0.125000
G01 X54.614303 Y95.252514 Z-0.125000
G01 X58.816744 Y93.796454 Z-0.125000
G01 X61.536342 Y93.241664 Z-0.125000
G01 X64.883867 Y92.857024 Z-0.125000
G01 X72.070737 Y92.739354 Z-0.125000
G01 X89.337090 Y93.643914 Z-0.125000
G01 X103.669133 Y94.138744 Z-0.125000
G01 X119.854293 Y95.473104 Z-0.125000
G01 X128.720493 Y95.830634 Z-0.125000
G01 X138.116983 Y95.538534 Z-0.125000
G01 X148.603433 Y94.375544 Z-0.125000
G01 X144.065293 Y96.515364 Z-0.125000
G01 X141.394593 Y98.399654 Z-0.125000
G01 X140.545973 Y99.373194 Z-0.125000
G01 X139.945543 Y100.480514 Z-0.125000
G01 X139.647233 Y101.736634 Z-0.125000
G01 X139.661833 Y102.942704 Z-0.125000
G01 X140.263793 Y105.235564 Z-0.125000
G01 X141.547293 Y107.877894 Z-0.125000
G01 X148.327183 Y118.551104 Z-0.125000
G01 X151.825653 Y124.620594 Z-0.125000
G01 X153.703883 Y128.541824 Z-0.125000
G01 X155.139583 Y132.361564 Z-0.125000
G01 X156.398793 Y137.402374 Z-0.125000
G01 X156.930543 Y142.595604 Z-0.125000
G01 X156.630553 Y147.657654 Z-0.125000
G01 X155.550643 Y151.961774 Z-0.125000
G01 X154.585043 Y154.140934 Z-0.125000
G01 X153.375163 Y156.078324 Z-0.125000
G01 X151.935853 Y157.763604 Z-0.125000
G01 X150.069623 Y159.370414 Z-0.125000
G01 X146.743323 Y161.368634 Z-0.125000
G01 X139.010043 Y164.785464 Z-0.125000
G01 X135.305283 Y166.782854 Z-0.125000
G01 X131.359573 Y169.666194 Z-0.125000
G01 X125.448273 Y175.250744 Z-0.125000
G01 X123.174793 Y177.131024 Z-0.125000
G01 X120.680823 Y178.545654 Z-0.125000
G01 X118.287743 Y179.143264 Z-0.125000
G01 X115.438293 Y178.999464 Z-0.125000
G01 X112.215633 Y178.080394 Z-0.125000
G01 X94.474988 Y170.022744 Z-0.125000
G01 X88.606489 Y167.769304 Z-0.125000
G01 X82.348457 Y165.764144 Z-0.125000
G01 X76.405549 Y164.220404 Z-0.125000
G01 X70.419062 Y162.980344 Z-0.125000
G01 X49.476609 Y159.776174 Z-0.125000
G01 X45.528259 Y158.640564 Z-0.125000
G01 X42.814079 Y157.187744 Z-0.125000
G01 X41.096387 Y155.475204 Z-0.125000
G01 X39.844004 Y153.026884 Z-0.125000
G01 X38.652531 Y148.350154 Z-0.125000
G01 X37.270051 Y141.090454 Z-0.125000
G01 X36.670763 Y135.742974 Z-0.125000
G01 X36.508173 Y130.854284 Z-0.125000
G01 X36.717392 Y126.002414 Z-0.125000
G01 X37.343143 Y120.912984 Z-0.125000
G01 X38.566158 Y115.253454 Z-0.125000
G01 X40.185809 Y110.264254 Z-0.125000
G01 X42.291838 Y105.623954 Z-0.125000
G01 X44.877874 Y101.506364 Z-0.125000
G01 X47.607995 Y98.361544 Z-0.125000
G01 X50.712318 Y95.816014 Z-0.125000
G01 X54.183005 Y93.894714 Z-0.125000
G01 X58.455291 Y92.470194 Z-0.125000
G01 X64.123799 Y91.632294 Z-0.125000
G01 X71.384642 Y91.555394 Z-0.125000
G01 X89.489215 Y92.675504 Z-0.125000
G01 X104.615793 Y93.287394 Z-0.125000
G01 X120.549473 Y94.672364 Z-0.125000
G01 X129.101663 Y95.062504 Z-0.125000
G01 X137.986623 Y94.899184 Z-0.125000
G01 X149.805583 Y93.954394 Z-0.125000
G01 X149.403663 Y94.327474 Z-0.125000
G01 X144.517763 Y96.846064 Z-0.125000
G01 X142.073783 Y98.686254 Z-0.125000
G01 X141.194483 Y99.720514 Z-0.125000
G01 X140.578323 Y100.884914 Z-0.125000
G01 X140.280123 Y102.195614 Z-0.125000
G01 X140.306023 Y103.447284 Z-0.125000
G01 X140.851823 Y105.561784 Z-0.125000
G01 X142.129133 Y108.242894 Z-0.125000
G01 X148.995663 Y119.062284 Z-0.125000
G01 X152.376083 Y124.906604 Z-0.125000
G01 X154.287383 Y128.859804 Z-0.125000
G01 X155.749123 Y132.712424 Z-0.125000
G01 X157.033273 Y137.809814 Z-0.125000
G01 X157.579723 Y143.082304 Z-0.125000
G01 X157.283303 Y148.241114 Z-0.125000
G01 X156.194803 Y152.636294 Z-0.125000
G01 X155.218163 Y154.860224 Z-0.125000
G01 X153.991923 Y156.832634 Z-0.125000
G01 X152.530523 Y158.539994 Z-0.125000
G01 X150.632223 Y160.153764 Z-0.125000
G01 X147.240613 Y162.123274 Z-0.125000
G01 X139.051763 Y165.493264 Z-0.125000
G01 X135.268953 Y167.437674 Z-0.125000
G01 X131.018053 Y170.506014 Z-0.125000
G01 X125.274623 Y175.944504 Z-0.125000
G01 X122.978993 Y177.843224 Z-0.125000
G01 X120.463763 Y179.258514 Z-0.125000
G01 X118.052593 Y179.834654 Z-0.125000
G01 X115.183523 Y179.642284 Z-0.125000
G01 X111.940093 Y178.649624 Z-0.125000
G01 X94.102398 Y170.150414 Z-0.125000
G01 X88.204921 Y167.774764 Z-0.125000
G01 X81.915736 Y165.655414 Z-0.125000
G01 X75.942216 Y164.018764 Z-0.125000
G01 X69.379242 Y162.595674 Z-0.125000
G01 X48.469722 Y159.266844 Z-0.125000
G01 X44.859588 Y158.205204 Z-0.125000
G01 X42.125830 Y156.746114 Z-0.125000
G01 X40.399348 Y155.022514 Z-0.125000
G01 X39.146184 Y152.551724 Z-0.125000
G01 X37.743442 Y146.885224 Z-0.125000
G01 X36.453463 Y140.099654 Z-0.125000
G01 X35.877367 Y135.008024 Z-0.125000
G01 X35.703547 Y130.027144 Z-0.125000
G01 X35.917649 Y125.082994 Z-0.125000
G01 X36.563371 Y119.897574 Z-0.125000
G01 X37.824347 Y114.134244 Z-0.125000
G01 X39.490260 Y109.058674 Z-0.125000
G01 X41.650290 Y104.345374 Z-0.125000
G01 X44.294967 Y100.173274 Z-0.125000
G01 X47.080065 Y96.998424 Z-0.125000
G01 X50.241026 Y94.442634 Z-0.125000
G01 X53.770060 Y92.530814 Z-0.125000
G01 X58.110214 Y91.138274 Z-0.125000
G01 X63.866438 Y90.363014 Z-0.125000
G01 X70.693927 Y90.355014 Z-0.125000
G01 X89.644721 Y91.701984 Z-0.125000
G01 X105.028723 Y92.399114 Z-0.125000
G01 X120.713093 Y93.820754 Z-0.125000
G01 X128.961873 Y94.262624 Z-0.125000
G01 X137.333973 Y94.233024 Z-0.125000
G01 X149.446023 Y93.428404 Z-0.125000
G01 X151.015043 Y93.513804 Z-0.125000
G01 X150.990643 Y93.739384 Z-0.125000
G01 X150.437423 Y94.148764 Z-0.125000
G01 X144.931993 Y97.250814 Z-0.125000
G01 X142.750453 Y98.996754 Z-0.125000
G01 X141.842733 Y100.090884 Z-0.125000
G01 X141.213543 Y101.311494 Z-0.125000
G01 X140.938373 Y102.471564 Z-0.125000
G01 X140.933373 Y103.747804 Z-0.125000
G01 X141.361273 Y105.643514 Z-0.125000
G01 X142.412983 Y108.045334 Z-0.125000
G01 X152.442833 Y124.298084 Z-0.125000
G01 X154.735283 Y128.864254 Z-0.125000
G01 X156.469723 Y133.396784 Z-0.125000
G01 X157.733093 Y138.569024 Z-0.125000
G01 X158.240393 Y143.925294 Z-0.125000
G01 X157.888513 Y149.163884 Z-0.125000
G01 X156.735073 Y153.613774 Z-0.125000
G01 X155.715923 Y155.854834 Z-0.125000
G01 X154.443603 Y157.831434 Z-0.125000
G01 X152.932633 Y159.529614 Z-0.125000
G01 X150.975033 Y161.117234 Z-0.125000
G01 X147.486063 Y163.019044 Z-0.125000
G01 X139.093363 Y166.209714 Z-0.125000
G01 X134.965653 Y168.255104 Z-0.125000
G01 X130.910593 Y171.150654 Z-0.125000
G01 X124.888243 Y176.836344 Z-0.125000
G01 X122.782413 Y178.559754 Z-0.125000
G01 X120.244953 Y179.975994 Z-0.125000
G01 X117.814603 Y180.531294 Z-0.125000
G01 X114.924333 Y180.291064 Z-0.125000
G01 X111.658473 Y179.225814 Z-0.125000
G01 X93.724093 Y170.287234 Z-0.125000
G01 X87.800136 Y167.788794 Z-0.125000
G01 X81.483240 Y165.554354 Z-0.125000
G01 X75.482794 Y163.823134 Z-0.125000
G01 X68.888157 Y162.313224 Z-0.125000
G01 X47.483299 Y158.750574 Z-0.125000
G01 X43.923871 Y157.651214 Z-0.125000
G01 X41.458434 Y156.300764 Z-0.125000
G01 X39.723091 Y154.566324 Z-0.125000
G01 X38.468755 Y152.073244 Z-0.125000
G01 X36.830185 Y145.331524 Z-0.125000
G01 X35.649160 Y139.085184 Z-0.125000
G01 X35.099480 Y134.266914 Z-0.125000
G01 X34.914673 Y129.193564 Z-0.125000
G01 X35.133901 Y124.157004 Z-0.125000
G01 X35.800545 Y118.875534 Z-0.125000
G01 X37.101070 Y113.008674 Z-0.125000
G01 X38.814564 Y107.846944 Z-0.125000
G01 X41.029573 Y103.060964 Z-0.125000
G01 X43.733352 Y98.834804 Z-0.125000
G01 X46.573356 Y95.630434 Z-0.125000
G01 X49.790125 Y93.064684 Z-0.125000
G01 X53.376187 Y91.162764 Z-0.125000
G01 X57.782231 Y89.802654 Z-0.125000
G01 X63.114795 Y89.116554 Z-0.125000
G01 X70.000165 Y89.140954 Z-0.125000
G01 X89.209319 Y90.685604 Z-0.125000
G01 X106.001063 Y91.546554 Z-0.125000
G01 X120.853593 Y92.954494 Z-0.125000
G01 X129.280523 Y93.453904 Z-0.125000
G01 X138.311073 Y93.475904 Z-0.125000
G01 X150.488113 Y92.852204 Z-0.125000
G01 X152.219383 Y93.047024 Z-0.125000
G01 X152.247883 Y93.333284 Z-0.125000
G01 X151.729573 Y93.816434 Z-0.125000
G01 X146.077473 Y97.202954 Z-0.125000
G01 X143.427323 Y99.331414 Z-0.125000
G01 X142.493513 Y100.484464 Z-0.125000
G01 X141.925073 Y101.569744 Z-0.125000
G01 X141.609023 Y102.756944 Z-0.125000
G01 X141.570723 Y104.057464 Z-0.125000
G01 X141.970163 Y105.983084 Z-0.125000
G01 X143.010953 Y108.417984 Z-0.125000
G01 X153.156233 Y124.877754 Z-0.125000
G01 X155.462883 Y129.497214 Z-0.125000
G01 X157.194033 Y134.088264 Z-0.125000
G01 X158.434723 Y139.336604 Z-0.125000
G01 X158.901163 Y144.778654 Z-0.125000
G01 X158.492613 Y150.099444 Z-0.125000
G01 X157.273813 Y154.606194 Z-0.125000
G01 X156.212163 Y156.865074 Z-0.125000
G01 X154.893773 Y158.846574 Z-0.125000
G01 X153.333473 Y160.535614 Z-0.125000
G01 X151.553423 Y161.939974 Z-0.125000
G01 X148.001813 Y163.817354 Z-0.125000
G01 X139.135023 Y166.935694 Z-0.125000
G01 X134.924273 Y168.921074 Z-0.125000
G01 X130.803233 Y171.801004 Z-0.125000
G01 X124.711693 Y177.541844 Z-0.125000
G01 X122.585053 Y179.281654 Z-0.125000
G01 X120.024453 Y180.699264 Z-0.125000
G01 X117.573653 Y181.234414 Z-0.125000
G01 X114.660453 Y180.947494 Z-0.125000
G01 X111.370613 Y179.810724 Z-0.125000
G01 X92.861760 Y170.210714 Z-0.125000
G01 X86.876109 Y167.606344 Z-0.125000
G01 X80.508776 Y165.283944 Z-0.125000
G01 X74.474152 Y163.487884 Z-0.125000
G01 X67.856835 Y161.922984 Z-0.125000
G01 X46.878739 Y158.317764 Z-0.125000
G01 X43.293531 Y157.211104 Z-0.125000
G01 X40.604228 Y155.697634 Z-0.125000
G01 X38.930429 Y153.914624 Z-0.125000
G01 X37.738127 Y151.373734 Z-0.125000
G01 X35.845491 Y143.388874 Z-0.125000
G01 X34.800203 Y137.666634 Z-0.125000
G01 X34.272103 Y132.627514 Z-0.125000
G01 X34.143935 Y127.859624 Z-0.125000
G01 X34.412501 Y122.697874 Z-0.125000
G01 X35.054171 Y117.850154 Z-0.125000
G01 X36.395685 Y111.879994 Z-0.125000
G01 X38.158225 Y106.632484 Z-0.125000
G01 X40.429310 Y101.774294 Z-0.125000
G01 X42.894673 Y97.891834 Z-0.125000
G01 X45.747005 Y94.588644 Z-0.125000
G01 X48.977225 Y91.938234 Z-0.125000
G01 X52.578180 Y89.970724 Z-0.125000
G01 X57.004071 Y88.564684 Z-0.125000
G01 X61.858385 Y87.894864 Z-0.125000
G01 X68.198274 Y87.858764 Z-0.125000
G01 X89.964857 Y89.745504 Z-0.125000
G01 X106.420753 Y90.650704 Z-0.125000
G01 X126.937853 Y92.503994 Z-0.125000
G01 X137.471033 Y92.732494 Z-0.125000
G01 X151.324313 Y92.244184 Z-0.125000
G01 X152.702003 Y92.320584 Z-0.125000
G01 X153.414913 Y92.550054 Z-0.125000
G01 X153.447113 Y93.006804 Z-0.125000
G01 X152.745143 Y93.681794 Z-0.125000
G01 X146.648823 Y97.555144 Z-0.125000
G01 X144.101863 Y99.686294 Z-0.125000
G01 X142.647053 Y101.833684 Z-0.125000
G01 X142.289473 Y103.047824 Z-0.125000
G01 X142.217973 Y104.372284 Z-0.125000
G01 X142.587963 Y106.327194 Z-0.125000
G01 X143.617063 Y108.794364 Z-0.125000
G01 X153.875833 Y125.459894 Z-0.125000
G01 X156.195593 Y130.132624 Z-0.125000
G01 X157.921913 Y134.782574 Z-0.125000
G01 X159.138113 Y140.108114 Z-0.125000
G01 X159.561923 Y145.638004 Z-0.125000
G01 X159.095613 Y151.043554 Z-0.125000
G01 X157.811073 Y155.609344 Z-0.125000
G01 X156.707053 Y157.887144 Z-0.125000
G01 X155.342853 Y159.874004 Z-0.125000
G01 X153.733403 Y161.554124 Z-0.125000
G01 X151.901433 Y162.935554 Z-0.125000
G01 X148.253953 Y164.744524 Z-0.125000
G01 X139.177553 Y167.667724 Z-0.125000
G01 X134.883873 Y169.591104 Z-0.125000
G01 X132.732313 Y170.918554 Z-0.125000
G01 X130.450513 Y172.658664 Z-0.125000
G01 X124.535853 Y178.249344 Z-0.125000
G01 X122.387873 Y180.005754 Z-0.125000
G01 X120.021413 Y181.339844 Z-0.125000
G01 X117.562293 Y181.926654 Z-0.125000
G01 X114.650203 Y181.671004 Z-0.125000
G01 X111.076883 Y180.401554 Z-0.125000
G01 X92.468744 Y170.359034 Z-0.125000
G01 X86.461779 Y167.631944 Z-0.125000
G01 X80.073717 Y165.193504 Z-0.125000
G01 X73.464804 Y163.147164 Z-0.125000
G01 X66.830300 Y161.528024 Z-0.125000
G01 X45.929716 Y157.794954 Z-0.125000
G01 X42.399290 Y156.649084 Z-0.125000
G01 X39.976113 Y155.248274 Z-0.125000
G01 X38.293989 Y153.454084 Z-0.125000
G01 X37.100320 Y150.890424 Z-0.125000
G01 X35.169258 Y142.807034 Z-0.125000
G01 X34.134150 Y137.379794 Z-0.125000
G01 X33.553220 Y132.320314 Z-0.125000
G01 X33.381109 Y127.514314 Z-0.125000
G01 X33.612544 Y122.292974 Z-0.125000
G01 X34.230190 Y117.373214 Z-0.125000
G01 X35.556202 Y111.294224 Z-0.125000
G01 X37.316740 Y105.932784 Z-0.125000
G01 X39.594270 Y100.953274 Z-0.125000
G01 X42.369165 Y96.553114 Z-0.125000
G01 X45.276011 Y93.219094 Z-0.125000
G01 X48.560428 Y90.557374 Z-0.125000
G01 X52.215457 Y88.598294 Z-0.125000
G01 X56.702772 Y87.222914 Z-0.125000
G01 X61.621731 Y86.602554 Z-0.125000
G01 X67.491060 Y86.614754 Z-0.125000
G01 X88.901754 Y88.663904 Z-0.125000
G01 X106.837993 Y89.750474 Z-0.125000
G01 X126.601163 Y91.612104 Z-0.125000
G01 X136.969543 Y91.941124 Z-0.125000
G01 X151.890863 Y91.595114 Z-0.125000
G01 X153.662853 Y91.711804 Z-0.125000
G01 X154.598603 Y92.024694 Z-0.125000
G01 X154.754843 Y92.263694 Z-0.125000
G01 X154.677443 Y92.626244 Z-0.125000
G01 X153.842283 Y93.501664 Z-0.125000
G01 X147.407303 Y97.801984 Z-0.125000
G01 X144.774953 Y100.062904 Z-0.125000
G01 X143.294113 Y102.304674 Z-0.125000
G01 X142.941763 Y103.562554 Z-0.125000
G01 X142.887063 Y104.929644 Z-0.125000
G01 X143.295293 Y106.940784 Z-0.125000
G01 X144.381353 Y109.470354 Z-0.125000
G01 X151.551653 Y120.855174 Z-0.125000
G01 X154.601113 Y126.045654 Z-0.125000
G01 X156.932973 Y130.771624 Z-0.125000
G01 X158.652873 Y135.480814 Z-0.125000
G01 X159.842673 Y140.884674 Z-0.125000
G01 X160.222213 Y146.504364 Z-0.125000
G01 X159.697143 Y151.997254 Z-0.125000
G01 X159.126783 Y154.394204 Z-0.125000
G01 X158.346573 Y156.624394 Z-0.125000
G01 X157.200333 Y158.922094 Z-0.125000
G01 X155.980813 Y160.683384 Z-0.125000
G01 X154.352693 Y162.395144 Z-0.125000
G01 X152.495913 Y163.791324 Z-0.125000
G01 X148.789273 Y165.581764 Z-0.125000
G01 X139.221513 Y168.407944 Z-0.125000
G01 X134.844913 Y170.267244 Z-0.125000
G01 X132.657293 Y171.578794 Z-0.125000
G01 X130.342243 Y173.316904 Z-0.125000
G01 X124.361103 Y178.961194 Z-0.125000
G01 X122.191383 Y180.734324 Z-0.125000
G01 X119.801843 Y182.071394 Z-0.125000
G01 X117.319533 Y182.641614 Z-0.125000
G01 X114.380903 Y182.343724 Z-0.125000
G01 X111.073323 Y181.138604 Z-0.125000
G01 X107.624213 Y179.354634 Z-0.125000
G01 X98.035254 Y173.746254 Z-0.125000
G01 X92.069174 Y170.521084 Z-0.125000
G01 X85.522269 Y167.445254 Z-0.125000
G01 X79.091957 Y164.920514 Z-0.125000
G01 X73.012066 Y162.964404 Z-0.125000
G01 X66.358520 Y161.255554 Z-0.125000
G01 X45.361236 Y157.361984 Z-0.125000
G01 X41.807081 Y156.207644 Z-0.125000
G01 X39.368084 Y154.800244 Z-0.125000
G01 X37.677366 Y152.994954 Z-0.125000
G01 X36.554739 Y150.633634 Z-0.125000
G01 X34.373786 Y141.617684 Z-0.125000
G01 X33.365288 Y136.313284 Z-0.125000
G01 X32.783894 Y131.095874 Z-0.125000
G01 X32.639614 Y126.156484 Z-0.125000
G01 X32.874710 Y121.357644 Z-0.125000
G01 X33.513450 Y116.352114 Z-0.125000
G01 X34.882234 Y110.170224 Z-0.125000
G01 X36.693794 Y104.722944 Z-0.125000
G01 X39.029208 Y99.670764 Z-0.125000
G01 X41.864549 Y95.216024 Z-0.125000
G01 X44.825812 Y91.851654 Z-0.125000
G01 X48.163546 Y89.179024 Z-0.125000
G01 X51.871307 Y87.228574 Z-0.125000
G01 X56.417701 Y85.884034 Z-0.125000
G01 X61.398693 Y85.312884 Z-0.125000
G01 X66.783329 Y85.361184 Z-0.125000
G01 X89.047831 Y87.669914 Z-0.125000
G01 X107.251823 Y88.845104 Z-0.125000
G01 X126.770823 Y90.734884 Z-0.125000
G01 X137.369693 Y91.121534 Z-0.125000
G01 X152.590663 Y90.907934 Z-0.125000
G01 X154.721843 Y91.087124 Z-0.125000
G01 X155.767053 Y91.467324 Z-0.125000
G01 X155.970163 Y91.744804 Z-0.125000
G01 X155.940363 Y92.157034 Z-0.125000
G01 X155.049403 Y93.234184 Z-0.125000
G01 X147.945433 Y98.230484 Z-0.125000
G01 X145.446353 Y100.457744 Z-0.125000
G01 X144.572543 Y101.584844 Z-0.125000
G01 X143.944253 Y102.791354 Z-0.125000
G01 X143.599783 Y104.091854 Z-0.125000
G01 X143.548583 Y105.257814 Z-0.125000
G01 X143.927813 Y107.296564 Z-0.125000
G01 X145.002833 Y109.856864 Z-0.125000
G01 X152.442843 Y121.692154 Z-0.125000
G01 X155.332333 Y126.631424 Z-0.125000
G01 X157.675043 Y131.410574 Z-0.125000
G01 X159.387003 Y136.179174 Z-0.125000
G01 X160.548443 Y141.662434 Z-0.125000
G01 X160.882053 Y147.373964 Z-0.125000
G01 X160.688453 Y150.395914 Z-0.125000
G01 X160.297213 Y152.956764 Z-0.125000
G01 X159.695023 Y155.389234 Z-0.125000
G01 X158.880553 Y157.647724 Z-0.125000
G01 X157.692333 Y159.966344 Z-0.125000
G01 X156.433473 Y161.734534 Z-0.125000
G01 X154.757633 Y163.439924 Z-0.125000
G01 X152.850273 Y164.814844 Z-0.125000
G01 X149.049763 Y166.537194 Z-0.125000
G01 X139.267673 Y169.153464 Z-0.125000
G01 X134.808413 Y170.946804 Z-0.125000
G01 X132.584763 Y172.241624 Z-0.125000
G01 X130.236243 Y173.977234 Z-0.125000
G01 X124.188433 Y179.674594 Z-0.125000
G01 X121.996413 Y181.464644 Z-0.125000
G01 X119.582853 Y182.805334 Z-0.125000
G01 X117.075893 Y183.359794 Z-0.125000
G01 X114.108693 Y183.021074 Z-0.125000
G01 X110.771163 Y181.751064 Z-0.125000
G01 X107.294513 Y179.888674 Z-0.125000
G01 X97.212980 Y173.795454 Z-0.125000
G01 X91.662993 Y170.695714 Z-0.125000
G01 X85.098801 Y167.487614 Z-0.125000
G01 X78.654991 Y164.846554 Z-0.125000
G01 X72.005766 Y162.625464 Z-0.125000
G01 X65.344652 Y160.862684 Z-0.125000
G01 X44.450733 Y156.837804 Z-0.125000
G01 X40.954778 Y155.642564 Z-0.125000
G01 X38.577009 Y154.189124 Z-0.125000
G01 X36.949203 Y152.333494 Z-0.125000
G01 X35.882774 Y149.927314 Z-0.125000
G01 X33.581539 Y140.385764 Z-0.125000
G01 X32.607488 Y135.225524 Z-0.125000
G01 X32.061420 Y130.327734 Z-0.125000
G01 X31.909083 Y125.302624 Z-0.125000
G01 X32.151748 Y120.420774 Z-0.125000
G01 X32.812654 Y115.329814 Z-0.125000
G01 X34.225869 Y109.045654 Z-0.125000
G01 X36.089942 Y103.513164 Z-0.125000
G01 X38.484385 Y98.388924 Z-0.125000
G01 X41.069323 Y94.298274 Z-0.125000
G01 X44.396292 Y90.486094 Z-0.125000
G01 X47.786612 Y87.802924 Z-0.125000
G01 X51.545591 Y85.861334 Z-0.125000
G01 X55.668591 Y84.641104 Z-0.125000
G01 X60.666039 Y84.046014 Z-0.125000
G01 X66.637756 Y84.135114 Z-0.125000
G01 X89.194681 Y86.675154 Z-0.125000
G01 X107.661563 Y87.936204 Z-0.125000
G01 X126.344623 Y89.802914 Z-0.125000
G01 X137.228203 Y90.277984 Z-0.125000
G01 X153.225693 Y90.184484 Z-0.125000
G01 X155.591593 Y90.400284 Z-0.125000
G01 X156.916983 Y90.878804 Z-0.125000
G01 X157.195873 Y91.265264 Z-0.125000
G01 X157.168773 Y91.742584 Z-0.125000
G01 X156.136013 Y93.075264 Z-0.125000
G01 X148.684943 Y98.528624 Z-0.125000
G01 X146.116163 Y100.870554 Z-0.125000
G01 X144.682983 Y103.079164 Z-0.125000
G01 X144.297623 Y104.404664 Z-0.125000
G01 X144.218823 Y105.588974 Z-0.125000
G01 X144.568003 Y107.654634 Z-0.125000
G01 X145.631213 Y110.244794 Z-0.125000
G01 X147.273463 Y113.091704 Z-0.125000
G01 X153.150933 Y122.222904 Z-0.125000
G01 X156.068433 Y127.217124 Z-0.125000
G01 X158.420913 Y132.049094 Z-0.125000
G01 X160.123253 Y136.877314 Z-0.125000
G01 X161.254443 Y142.440944 Z-0.125000
G01 X161.540593 Y148.246314 Z-0.125000
G01 X161.316243 Y151.319114 Z-0.125000
G01 X160.895413 Y153.921724 Z-0.125000
G01 X160.261243 Y156.390974 Z-0.125000
G01 X159.412693 Y158.678974 Z-0.125000
G01 X158.182723 Y161.019734 Z-0.125000
G01 X156.885003 Y162.795504 Z-0.125000
G01 X155.390713 Y164.301954 Z-0.125000
G01 X153.461213 Y165.697594 Z-0.125000
G01 X149.605883 Y167.408844 Z-0.125000
G01 X139.316663 Y169.904764 Z-0.125000
G01 X134.774783 Y171.630424 Z-0.125000
G01 X132.515073 Y172.907874 Z-0.125000
G01 X130.133153 Y174.640364 Z-0.125000
G01 X124.018183 Y180.390464 Z-0.125000
G01 X121.803443 Y182.197554 Z-0.125000
G01 X119.364883 Y183.542384 Z-0.125000
G01 X116.831703 Y184.082184 Z-0.125000
G01 X113.833823 Y183.704174 Z-0.125000
G01 X110.463963 Y182.371124 Z-0.125000
G01 X106.958013 Y180.432104 Z-0.125000
G01 X96.818470 Y174.105674 Z-0.125000
G01 X90.762653 Y170.619604 Z-0.125000
G01 X84.145365 Y167.301374 Z-0.125000
G01 X77.668156 Y164.576014 Z-0.125000
G01 X71.001427 Y162.286984 Z-0.125000
G01 X64.338336 Y160.471034 Z-0.125000
G01 X43.562013 Y156.313024 Z-0.125000
G01 X40.400540 Y155.204014 Z-0.125000
G01 X38.007439 Y153.743144 Z-0.125000
G01 X36.371114 Y151.875754 Z-0.125000
G01 X35.302365 Y149.448504 Z-0.125000
G01 X32.867421 Y139.450874 Z-0.125000
G01 X31.860168 Y134.118454 Z-0.125000
G01 X31.318885 Y129.072164 Z-0.125000
G01 X31.192425 Y124.449404 Z-0.125000
G01 X31.443488 Y119.484894 Z-0.125000
G01 X32.127660 Y114.309034 Z-0.125000
G01 X33.586918 Y107.923224 Z-0.125000
G01 X35.505139 Y102.306244 Z-0.125000
G01 X37.959833 Y97.110734 Z-0.125000
G01 X40.600384 Y92.971334 Z-0.125000
G01 X43.987481 Y89.125444 Z-0.125000
G01 X47.429483 Y86.432064 Z-0.125000
G01 X51.238118 Y84.499514 Z-0.125000
G01 X55.410164 Y83.305924 Z-0.125000
G01 X60.463736 Y82.757774 Z-0.125000
G01 X65.934013 Y82.872764 Z-0.125000
G01 X71.174466 Y83.375104 Z-0.125000
G01 X89.981543 Y85.744744 Z-0.125000
G01 X108.066683 Y87.024564 Z-0.125000
G01 X125.868043 Y88.851384 Z-0.125000
G01 X137.026223 Y89.411784 Z-0.125000
G01 X153.792613 Y89.426384 Z-0.125000
G01 X156.584253 Y89.709554 Z-0.125000
G01 X158.124663 Y90.324684 Z-0.125000
G01 X158.415643 Y90.773154 Z-0.125000
G01 X158.359943 Y91.417064 Z-0.125000
G01 X157.211363 Y92.935624 Z-0.125000
G01 X149.418403 Y98.847404 Z-0.125000
G01 X146.784073 Y101.301004 Z-0.125000
G01 X145.338613 Y103.589204 Z-0.125000
G01 X144.897373 Y105.923004 Z-0.125000
G01 X145.215623 Y108.014754 Z-0.125000
G01 X146.266103 Y110.633914 Z-0.125000
G01 X147.916833 Y113.512734 Z-0.125000
G01 X153.864193 Y122.753414 Z-0.125000
G01 X156.809213 Y127.802424 Z-0.125000
G01 X159.170143 Y132.686844 Z-0.125000
G01 X160.760273 Y137.212964 Z-0.125000
G01 X161.474533 Y140.160834 Z-0.125000
G01 X161.960343 Y143.219624 Z-0.125000
G01 X162.197393 Y149.120794 Z-0.125000
G01 X161.941543 Y152.245764 Z-0.125000
G01 X161.490803 Y154.891534 Z-0.125000
G01 X160.824673 Y157.398964 Z-0.125000
G01 X159.942193 Y159.717624 Z-0.125000
G01 X158.670973 Y162.081794 Z-0.125000
G01 X157.334873 Y163.865964 Z-0.125000
G01 X155.800083 Y165.368704 Z-0.125000
G01 X153.821693 Y166.745224 Z-0.125000
G01 X151.916653 Y167.675354 Z-0.125000
G01 X149.875333 Y168.389754 Z-0.125000
G01 X139.368333 Y170.662184 Z-0.125000
G01 X136.857563 Y171.439244 Z-0.125000
G01 X134.449623 Y172.460904 Z-0.125000
G01 X132.170963 Y173.754424 Z-0.125000
G01 X129.775303 Y175.516644 Z-0.125000
G01 X123.850353 Y181.109254 Z-0.125000
G01 X121.612353 Y182.933684 Z-0.125000
G01 X119.147693 Y184.283204 Z-0.125000
G01 X116.586803 Y184.809304 Z-0.125000
G01 X113.555993 Y184.393724 Z-0.125000
G01 X109.847433 Y182.843454 Z-0.125000
G01 X90.340741 Y170.815464 Z-0.125000
G01 X83.712248 Y167.366564 Z-0.125000
G01 X77.229301 Y164.524994 Z-0.125000
G01 X70.558104 Y162.129214 Z-0.125000
G01 X63.888934 Y160.220564 Z-0.125000
G01 X43.046232 Y155.889054 Z-0.125000
G01 X39.865034 Y154.770424 Z-0.125000
G01 X37.456528 Y153.301594 Z-0.125000
G01 X35.943684 Y151.628144 Z-0.125000
G01 X34.812560 Y149.205794 Z-0.125000
G01 X32.240415 Y138.847614 Z-0.125000
G01 X31.187608 Y133.429144 Z-0.125000
G01 X30.621594 Y128.299014 Z-0.125000
G01 X30.488788 Y123.599064 Z-0.125000
G01 X30.748713 Y118.552244 Z-0.125000
G01 X31.457224 Y113.291974 Z-0.125000
G01 X32.964429 Y106.805464 Z-0.125000
G01 X34.938311 Y101.104854 Z-0.125000
G01 X37.454575 Y95.838884 Z-0.125000
G01 X40.151251 Y91.651334 Z-0.125000
G01 X43.598428 Y87.772434 Z-0.125000
G01 X47.091209 Y85.069294 Z-0.125000
G01 X50.947889 Y83.145804 Z-0.125000
G01 X55.166808 Y81.978744 Z-0.125000
G01 X60.273771 Y81.476864 Z-0.125000
G01 X65.801466 Y81.650674 Z-0.125000
G01 X90.136168 Y84.756024 Z-0.125000
G01 X108.465923 Y86.111434 Z-0.125000
G01 X125.341153 Y87.882684 Z-0.125000
G01 X136.763373 Y88.525374 Z-0.125000
G01 X154.587803 Y88.648674 Z-0.125000
G01 X157.544653 Y88.987514 Z-0.125000
G01 X159.239263 Y89.679184 Z-0.125000
G01 X159.598713 Y90.174234 Z-0.125000
G01 X159.613313 Y90.879124 Z-0.125000
G01 X159.208253 Y91.714884 Z-0.125000
G01 X158.417453 Y92.669184 Z-0.125000
G01 X156.310703 Y94.531644 Z-0.125000
G01 X149.913913 Y99.374964 Z-0.125000
G01 X147.281563 Y101.952024 Z-0.125000
