%
(Header)
(Generated by gcodetools from Inkscape.)
(Using default header. To add your own header create file "header" in the output dir.)
M3
(Header end.)
G21 (All units in mm)

(Start cutting path id: path354)
(Change tool to Default tool)

G00 Z3.000000
G00 X10.198233 Y103.162976

G00 Z4.875000 (Fast pre-penetrate)
G01 Z-0.125000 F400.0(Penetrate)
G03 X10.669278 Y102.579664 Z-0.125000 I257.023157 J207.073296 F800.000000
G02 X11.610295 Y101.410299 Z-0.125000 I-205.491711 J-166.327657
G02 X12.312382 Y100.529122 Z-0.125000 I-218.372321 J-174.710667
G02 X13.013149 Y99.644591 Z-0.125000 I-587.608215 J-466.250869
G02 X13.712014 Y98.758544 Z-0.125000 I-315.251256 J-249.371201
G02 X14.410175 Y97.870729 Z-0.125000 I-8135.976769 J-6398.708064
G02 X15.107569 Y96.982193 Z-0.125000 I-509.226205 J-400.401859
G03 X15.805047 Y96.093869 Z-0.125000 I424.761245 J332.790226
G03 X16.503505 Y95.206257 Z-0.125000 I17300.925013 J13613.350471
G03 X17.203031 Y94.321340 Z-0.125000 I201.926005 J158.903176
G03 X17.905699 Y93.439284 Z-0.125000 I282.581502 J224.390762
G03 X18.610027 Y92.561471 Z-0.125000 I226.579875 J181.078826
G03 X19.317348 Y91.685596 Z-0.125000 I362.952560 J292.382081
G03 X20.026976 Y90.815784 Z-0.125000 I115.270831 J93.318242
G03 X20.741708 Y89.949340 Z-0.125000 I265.849150 J218.571620
G03 X21.460587 Y89.094331 Z-0.125000 I55.546584 J45.973039
G03 X22.190178 Y88.248240 Z-0.125000 I89.854733 J76.744804
G03 X22.926227 Y87.421266 Z-0.125000 I38.064811 J33.138603
G03 X23.678016 Y86.608492 Z-0.125000 I50.059231 J45.549076
G03 X24.437871 Y85.822246 Z-0.125000 I29.049216 J27.313838
G03 X25.217330 Y85.055602 Z-0.125000 I33.314074 J33.091347
G03 X26.005377 Y84.321380 Z-0.125000 I24.208265 J25.192959
G03 X26.814819 Y83.611309 Z-0.125000 I24.818025 J27.474777
G03 X27.632243 Y82.936757 Z-0.125000 I21.994096 J25.819943
G03 X28.470410 Y82.289170 Z-0.125000 I20.058496 J25.095365
G03 X29.315070 Y81.675979 Z-0.125000 I23.302971 J31.211079
G03 X30.176922 Y81.087899 Z-0.125000 I19.081082 J27.038433
G03 X31.043475 Y80.529446 Z-0.125000 I26.907795 J40.801314
G03 X31.922886 Y79.990581 Z-0.125000 I22.569814 J35.846287
G03 X32.805774 Y79.478136 Z-0.125000 I22.389706 J37.558217
G03 X33.700550 Y78.986470 Z-0.125000 I21.320242 J37.740392
G03 X34.598241 Y78.521292 Z-0.125000 I18.944599 J35.460195
G03 X35.507248 Y78.078527 Z-0.125000 I18.514044 J36.855299
G03 X36.418747 Y77.663181 Z-0.125000 I15.903674 J33.693555
G03 X37.340930 Y77.272087 Z-0.125000 I15.480203 J35.218873
G03 X38.265206 Y76.909511 Z-0.125000 I13.182367 J32.245020
G03 X39.199303 Y76.573088 Z-0.125000 I12.575070 J33.450406
G03 X40.135096 Y76.266090 Z-0.125000 I10.835132 J31.447955
G03 X41.079491 Y75.986809 Z-0.125000 I9.994077 J32.058849
G03 X42.025197 Y75.737368 Z-0.125000 I8.799418 J31.443837
G03 X42.977941 Y75.517115 Z-0.125000 I7.479901 J30.184783
G03 X43.931642 Y75.325294 Z-0.125000 I7.866027 J36.641805
G03 X44.890200 Y75.159928 Z-0.125000 I6.112558 J32.571061
G03 X45.849382 Y75.019695 Z-0.125000 I6.861716 J43.583244
G03 X46.811595 Y74.902060 Z-0.125000 I5.174526 J38.331717
G03 X47.774178 Y74.806576 Z-0.125000 I5.139991 J46.917060
G03 X48.738590 Y74.731436 Z-0.125000 I3.938879 J44.328138
G03 X49.703184 Y74.677258 Z-0.125000 I2.994878 J44.707964
G03 X50.668741 Y74.643418 Z-0.125000 I2.126603 J46.885913
G03 X51.634333 Y74.631491 Z-0.125000 I0.964151 J38.962885
G03 X52.599964 Y74.642403 Z-0.125000 I-0.001586 J42.872499
G03 X53.565482 Y74.677399 Z-0.125000 I-0.797397 J35.336133
G03 X54.529680 Y74.740274 Z-0.125000 I-1.583292 J31.704317
G03 X55.493779 Y74.824229 Z-0.125000 I-5.951983 J73.927402
G03 X56.456206 Y74.925104 Z-0.125000 I-4.084884 J43.614748
G03 X57.418520 Y75.038266 Z-0.125000 I-35.343944 J304.707183
G03 X58.379901 Y75.157837 Z-0.125000 I-11.225547 J94.180816
G03 X59.341205 Y75.282815 Z-0.125000 I-142.394857 J1099.033028
G03 X60.302124 Y75.409425 Z-0.125000 I-48.856340 J374.510637
G03 X61.262972 Y75.539783 Z-0.125000 I-24.984525 J187.762374
G03 X62.223269 Y75.673082 Z-0.125000 I-127.328034 J920.812209
G03 X63.183384 Y75.814103 Z-0.125000 I-9.064640 J65.053640
G03 X64.141912 Y75.965182 Z-0.125000 I-23.848516 J154.424042
G03 X65.099960 Y76.132346 Z-0.125000 I-5.800297 J36.071568
G03 X66.054276 Y76.320437 Z-0.125000 I-10.521426 J55.897396
G03 X67.007666 Y76.533946 Z-0.125000 I-5.743826 J27.883561
G03 X67.954356 Y76.776203 Z-0.125000 I-8.807003 J36.386790
G03 X68.899446 Y77.051960 Z-0.125000 I-6.310898 J23.386476
G03 X69.833851 Y77.362892 Z-0.125000 I-8.669690 J27.613437
G03 X70.765687 Y77.713838 Z-0.125000 I-7.530274 J21.407049
G03 X71.682380 Y78.103542 Z-0.125000 I-9.357895 J23.285415
G03 X72.595236 Y78.537231 Z-0.125000 I-9.533418 J21.244102
G03 X73.489037 Y79.009660 Z-0.125000 I-10.794151 J21.503431
G03 X74.377594 Y79.526914 Z-0.125000 I-12.531867 J22.549520
G03 X75.244705 Y80.079772 Z-0.125000 I-13.053495 J21.429720
G03 X76.105300 Y80.675310 Z-0.125000 I-16.830432 J25.240758
G03 X76.944016 Y81.301264 Z-0.125000 I-16.442662 J22.906389
G03 X77.775314 Y81.965877 Z-0.125000 I-22.149944 J28.557350
G03 X78.585564 Y82.655744 Z-0.125000 I-20.932310 J25.405791
G03 X79.387846 Y83.379846 Z-0.125000 I-28.019908 J31.851719
G03 X80.170393 Y84.124882 Z-0.125000 I-26.439237 J28.553901
G03 X80.944576 Y84.900423 Z-0.125000 I-33.200320 J33.916338
G03 X81.700377 Y85.692918 Z-0.125000 I-34.758761 J33.905986
G03 X82.446550 Y86.515485 Z-0.125000 I-29.675624 J27.669312
G03 X83.171624 Y87.356390 Z-0.125000 I-36.237459 J31.978953
G03 X83.883990 Y88.231279 Z-0.125000 I-25.808903 J21.741986
G03 X84.569466 Y89.128023 Z-0.125000 I-31.706272 J24.946799
G03 X85.237959 Y90.063252 Z-0.125000 I-25.521813 J18.949303
G03 X85.873967 Y91.022055 Z-0.125000 I-28.197825 J19.394956
G03 X86.489677 Y92.019629 Z-0.125000 I-31.047699 J19.851683
G03 X87.072064 Y93.037919 Z-0.125000 I-28.720029 J17.101415
G03 X87.634729 Y94.088356 Z-0.125000 I-51.135698 J28.066691
G03 X88.171106 Y95.152534 Z-0.125000 I-35.979207 J18.801821
G03 X88.693495 Y96.236847 Z-0.125000 I-167.615895 J81.420332
G03 X89.202829 Y97.326620 Z-0.125000 I-63.705799 J30.438459
G02 X89.706356 Y98.424133 Z-0.125000 I379.099833 J-173.262619
G03 X90.208232 Y99.521750 Z-0.125000 I-200.957018 J92.549494
G02 X90.711192 Y100.617960 Z-0.125000 I136.271033 J-61.859970
G02 X91.220334 Y101.710493 Z-0.125000 I287.283429 J-133.214909
G02 X91.734062 Y102.796992 Z-0.125000 I148.031304 J-69.328759
G02 X92.255907 Y103.878663 Z-0.125000 I130.602843 J-62.341747
G02 X92.781541 Y104.955248 Z-0.125000 I990.448288 J-482.911561
G02 X93.311016 Y106.029265 Z-0.125000 I163.950065 J-80.157672
G03 X93.839880 Y107.104109 Z-0.125000 I-132.619725 J65.921461
G03 X94.363385 Y108.182186 Z-0.125000 I-464.159554 J226.057858
G03 X94.881607 Y109.267282 Z-0.125000 I-101.333327 J49.061288
G03 X95.389854 Y110.357725 Z-0.125000 I-134.112049 J63.172191
G03 X95.890610 Y111.457719 Z-0.125000 I-112.037519 J51.667432
G03 X96.380519 Y112.563008 Z-0.125000 I-108.515892 J48.759863
G03 X96.863125 Y113.677163 Z-0.125000 I-164.731179 J72.016298
G03 X97.336401 Y114.795853 Z-0.125000 I-108.360551 J46.502804
G02 X97.805413 Y115.919549 Z-0.125000 I1737.254068 J-724.441459
G03 X98.271306 Y117.045082 Z-0.125000 I-171.850951 J71.793637
G02 X98.739304 Y118.168145 Z-0.125000 I99.705810 J-40.889912
G02 X99.215677 Y119.287367 Z-0.125000 I291.158028 J-123.264088
G02 X99.700627 Y120.396193 Z-0.125000 I69.872411 J-29.898556
G02 X100.200880 Y121.497636 Z-0.125000 I90.917560 J-40.628602
G02 X100.712694 Y122.584133 Z-0.125000 I69.575866 J-32.111154
G02 X101.240422 Y123.663323 Z-0.125000 I80.334738 J-38.615376
G02 X101.781032 Y124.724223 Z-0.125000 I54.791714 J-27.252409
G02 X102.340611 Y125.775678 Z-0.125000 I65.468734 J-34.167474
G02 X102.914908 Y126.803811 Z-0.125000 I42.168357 J-22.880045
G02 X103.512418 Y127.819002 Z-0.125000 I49.642389 J-28.534533
G02 X104.126375 Y128.804508 Z-0.125000 I33.393179 J-20.119516
G02 X104.767954 Y129.772034 Z-0.125000 I36.164467 J-23.284625
G02 X105.426333 Y130.704423 Z-0.125000 I29.855046 J-20.382607
G02 X106.113887 Y131.614120 Z-0.125000 I27.746569 J-20.256353
G02 X106.815928 Y132.488580 Z-0.125000 I34.889324 J-27.291060
G02 X107.541789 Y133.342821 Z-0.125000 I28.441784 J-23.431928
G02 X108.278500 Y134.166386 Z-0.125000 I40.540091 J-35.523389
G02 X109.033975 Y134.972509 Z-0.125000 I31.534007 J-28.795672
G02 X109.797262 Y135.753429 Z-0.125000 I48.775249 J-46.910457
G02 X110.574596 Y136.521211 Z-0.125000 I40.673465 J-40.402088
G02 X111.358053 Y137.266627 Z-0.125000 I41.053955 J-42.364660
G02 X112.154975 Y137.998697 Z-0.125000 I44.236671 J-47.355659
G02 X112.957894 Y138.705876 Z-0.125000 I28.515998 J-31.567161
G00 Z3.000000

(End cutting path id: path354)


(Start cutting path id: path324)
(Change tool to Default tool)

G00 Z3.000000
G00 X10.198233 Y140.866054

G00 Z4.875000 (Fast pre-penetrate)
G01 Z-0.125000 F400.0(Penetrate)
G03 X10.838124 Y140.961130 Z-0.125000 I-37.651587 J255.605432 F800.000000
G02 X12.117950 Y141.148840 Z-0.125000 I30.663687 J-204.611872
G02 X13.078350 Y141.285914 Z-0.125000 I94.275263 J-657.098831
G02 X14.038847 Y141.417082 Z-0.125000 I12.819142 J-90.287879
G02 X15.000422 Y141.540240 Z-0.125000 I20.883461 J-159.235893
G02 X15.962140 Y141.653003 Z-0.125000 I7.852175 J-62.811083
G02 X16.925268 Y141.753094 Z-0.125000 I9.557202 J-87.279954
G02 X17.888547 Y141.838634 Z-0.125000 I4.998294 J-50.820036
G02 X18.853164 Y141.907626 Z-0.125000 I4.962820 J-62.610723
G02 X19.817894 Y141.958630 Z-0.125000 I2.826029 J-44.303582
G02 X20.783500 Y141.990713 Z-0.125000 I2.320919 J-55.307317
G02 X21.749092 Y142.000636 Z-0.125000 I0.831932 J-33.968962
G02 X22.714651 Y141.985011 Z-0.125000 I-0.164423 J-40.001862
G02 X23.680069 Y141.943441 Z-0.125000 I-0.923424 J-32.676850
G02 X24.643908 Y141.873473 Z-0.125000 I-1.902140 J-32.876742
G02 X25.607486 Y141.777407 Z-0.125000 I-3.445144 J-39.436465
G02 X26.568200 Y141.655359 Z-0.125000 I-3.653200 J-32.598652
G02 X27.528617 Y141.512152 Z-0.125000 I-9.906364 J-69.729306
G02 X28.486248 Y141.350760 Z-0.125000 I-6.216843 J-39.809956
G03 X29.443696 Y141.178330 Z-0.125000 I104.225490 J575.985260
G02 X30.400273 Y141.000795 Z-0.125000 I-13.955055 J-77.856870
G03 X31.356896 Y140.825980 Z-0.125000 I10.288534 J53.596171
G03 X32.315333 Y140.662056 Z-0.125000 I34.007859 J195.955244
G03 X33.274017 Y140.513581 Z-0.125000 I6.062717 J35.976877
G03 X34.235722 Y140.386051 Z-0.125000 I7.969701 J56.409635
G03 X35.197699 Y140.283336 Z-0.125000 I3.510168 J28.318364
G03 X36.162381 Y140.210092 Z-0.125000 I3.166278 J35.313241
G03 X37.127210 Y140.168105 Z-0.125000 I1.608279 J25.850036
G03 X38.092943 Y140.160715 Z-0.125000 I0.697919 J28.102440
G03 X39.058611 Y140.187393 Z-0.125000 I-0.254369 J26.698627
G03 X40.022679 Y140.249417 Z-0.125000 I-1.189242 J26.008202
G03 X40.986447 Y140.344587 Z-0.125000 I-2.563002 J30.882736
G03 X41.946519 Y140.471862 Z-0.125000 I-3.104892 J27.105676
G03 X42.906103 Y140.628117 Z-0.125000 I-6.102347 J40.500131
G03 X43.861105 Y140.810214 Z-0.125000 I-5.540210 J31.650621
G03 X44.815545 Y141.014847 Z-0.125000 I-12.883037 J62.416764
G03 X45.765883 Y141.237223 Z-0.125000 I-9.628403 J43.289479
G03 X46.715698 Y141.475454 Z-0.125000 I-23.914333 J97.357624
G03 X47.662392 Y141.725062 Z-0.125000 I-16.957770 J66.236265
G03 X48.608633 Y141.985941 Z-0.125000 I-31.642787 J116.619062
G03 X49.552349 Y142.255089 Z-0.125000 I-27.872367 J99.517898
G03 X50.495602 Y142.534109 Z-0.125000 I-27.255485 J93.873718
G03 X51.436090 Y142.821845 Z-0.125000 I-33.232413 J110.303555
G03 X52.375981 Y143.120973 Z-0.125000 I-21.042728 J67.744702
G03 X53.312075 Y143.431730 Z-0.125000 I-28.063546 J86.101179
G03 X54.247313 Y143.756919 Z-0.125000 I-18.305852 J54.154698
G03 X55.177359 Y144.096902 Z-0.125000 I-23.217980 J64.956439
G03 X56.106228 Y144.454320 Z-0.125000 I-17.991720 J48.143112
G03 X57.028501 Y144.828719 Z-0.125000 I-21.251506 J53.672873
G03 X57.949260 Y145.222690 Z-0.125000 I-19.128362 J45.978292
G03 X58.862228 Y145.634662 Z-0.125000 I-21.165757 J48.122931
G03 X59.773351 Y146.067218 Z-0.125000 I-21.544039 J46.555533
G03 X60.675894 Y146.517582 Z-0.125000 I-22.608664 J46.438056
G03 X61.576309 Y146.988539 Z-0.125000 I-24.854543 J48.615243
G03 X62.467738 Y147.476322 Z-0.125000 I-25.309392 J47.311590
G03 X63.356792 Y147.984183 Z-0.125000 I-28.255516 J50.495777
G03 X64.236640 Y148.507666 Z-0.125000 I-29.092759 J49.899052
G03 X65.113808 Y149.051016 Z-0.125000 I-29.699965 J48.926432
G03 X65.981292 Y149.609164 Z-0.125000 I-33.886118 J53.619614
G03 X66.845435 Y150.188919 Z-0.125000 I-25.757149 J39.325767
G03 X67.697556 Y150.786311 Z-0.125000 I-31.211250 J45.426170
G03 X68.545264 Y151.408681 Z-0.125000 I-24.636492 J34.445032
G03 X69.378277 Y152.051088 Z-0.125000 I-28.242677 J37.483716
G03 X70.205753 Y152.720806 Z-0.125000 I-26.837957 J34.005915
G03 X71.016809 Y153.411043 Z-0.125000 I-27.447010 J33.073004
G03 X71.821733 Y154.127800 Z-0.125000 I-35.296256 J40.448289
G03 X72.610944 Y154.862627 Z-0.125000 I-29.801132 J32.797948
G03 X73.394756 Y155.618421 Z-0.125000 I-70.815958 J74.225405
G03 X74.167778 Y156.385203 Z-0.125000 I-43.002187 J44.125197
G03 X74.937402 Y157.164178 Z-0.125000 I-309.860486 J306.910226
G03 X75.702277 Y157.947217 Z-0.125000 I-87.811890 J86.540110
G02 X76.465863 Y158.734664 Z-0.125000 I498.590952 J-482.719145
G03 X77.228471 Y159.523460 Z-0.125000 I-171.911043 J166.966626
G02 X77.991965 Y160.309205 Z-0.125000 I82.131805 J-79.042082
G02 X78.760345 Y161.090052 Z-0.125000 I259.463652 J-254.552742
G02 X79.531854 Y161.859818 Z-0.125000 I50.560940 J-49.903913
G02 X80.312946 Y162.619755 Z-0.125000 I77.490055 J-78.865847
G02 X81.098759 Y163.361794 Z-0.125000 I37.541617 J-38.969120
G02 X81.897717 Y164.089277 Z-0.125000 I44.984375 J-48.601612
G02 X82.702103 Y164.794133 Z-0.125000 I32.724415 J-36.533903
G02 X83.521100 Y165.481089 Z-0.125000 I32.516144 J-37.934420
G02 X84.345163 Y166.144509 Z-0.125000 I35.598160 J-43.374563
G02 X85.182168 Y166.790956 Z-0.125000 I30.486360 J-38.607985
G02 X86.023178 Y167.416582 Z-0.125000 I43.228116 J-57.232109
G02 X86.874348 Y168.027958 Z-0.125000 I32.961146 J-44.990948
G02 X87.728352 Y168.623080 Z-0.125000 I61.447416 J-87.267115
G02 X88.589431 Y169.207780 Z-0.125000 I40.892231 J-59.295067
G02 X89.452293 Y169.781438 Z-0.125000 I112.614238 J-168.451667
G02 X90.319215 Y170.349822 Z-0.125000 I74.270963 J-112.335740
G02 X91.187364 Y170.910014 Z-0.125000 I82.018630 J-126.154385
G02 X92.059374 Y171.464725 Z-0.125000 I91.378084 J-142.684375
G02 X92.932665 Y172.010346 Z-0.125000 I54.291030 J-85.923488
G02 X93.810966 Y172.547624 Z-0.125000 I61.749111 J-99.956115
G02 X94.690687 Y173.074245 Z-0.125000 I50.992379 J-84.184805
G02 X95.575762 Y173.591041 Z-0.125000 I45.752986 J-77.341161
G02 X96.462057 Y174.098237 Z-0.125000 I84.458779 J-146.558818
G02 X97.352157 Y174.598010 Z-0.125000 I49.002463 J-86.231309
G03 X98.242867 Y175.092833 Z-0.125000 I-400.094281 J721.241058
G01 X100.025741 Y176.080879 Z-0.125000
G00 Z3.000000

(End cutting path id: path324)


(Start cutting path id: path288)
(Change tool to Default tool)

G00 Z3.000000
G00 X10.198233 Y177.907674

G00 Z4.875000 (Fast pre-penetrate)
G01 Z-0.125000 F400.0(Penetrate)
G02 X10.818256 Y178.138103 Z-0.125000 I254.003599 J-682.505393 F800.000000
G03 X12.058240 Y178.599907 Z-0.125000 I-202.065159 J544.458926
G02 X12.987775 Y178.947247 Z-0.125000 I3949.114868 J-10567.021604
G03 X13.917113 Y179.297507 Z-0.125000 I-60.617585 J162.243683
G03 X14.844966 Y179.651558 Z-0.125000 I-143.573323 J377.651949
G03 X15.772374 Y180.011915 Z-0.125000 I-36.668538 J95.742903
G03 X16.696950 Y180.379358 Z-0.125000 I-64.675957 J164.087494
G03 X17.620728 Y180.757320 Z-0.125000 I-25.537148 J63.733372
G03 X18.539853 Y181.146387 Z-0.125000 I-40.108252 J96.031211
G03 X19.457659 Y181.551106 Z-0.125000 I-19.600705 J45.692744
G03 X20.368395 Y181.971242 Z-0.125000 I-30.320633 J66.923734
G03 X21.276935 Y182.413818 Z-0.125000 I-15.074565 J32.099547
G03 X22.174390 Y182.878975 Z-0.125000 I-21.420077 J42.425351
G03 X23.068363 Y183.374101 Z-0.125000 I-14.137473 J26.580499
G03 X23.946815 Y183.897196 Z-0.125000 I-17.821579 J30.927585
G03 X24.820290 Y184.455640 Z-0.125000 I-15.575967 J25.325056
G03 X25.674761 Y185.043662 Z-0.125000 I-17.427576 J26.239324
G03 X26.522900 Y185.668525 Z-0.125000 I-19.402842 J27.223874
G03 X27.350670 Y186.320823 Z-0.125000 I-19.148628 J25.151106
G03 X28.171444 Y187.007027 Z-0.125000 I-27.542471 J33.777746
G03 X28.973374 Y187.715683 Z-0.125000 I-23.031857 J26.871398
G03 X29.768983 Y188.450790 Z-0.125000 I-51.780037 J56.839802
G03 X30.551175 Y189.199708 Z-0.125000 I-34.498455 J36.814104
G03 X31.328792 Y189.965776 Z-0.125000 I-108.603532 J111.018558
G03 X32.098752 Y190.738067 Z-0.125000 I-70.072378 J70.630947
G03 X32.865182 Y191.522517 Z-0.125000 I-84.369163 J83.197654
G03 X33.624590 Y192.312556 Z-0.125000 I-111.852831 J108.276103
G03 X34.379426 Y193.117182 Z-0.125000 I-46.234517 J44.129894
G03 X35.122660 Y193.932438 Z-0.125000 I-72.018072 J66.402263
G03 X35.858577 Y194.769074 Z-0.125000 I-34.057860 J30.699739
G03 X36.576409 Y195.622526 Z-0.125000 I-42.371342 J36.366841
G03 X37.284455 Y196.501855 Z-0.125000 I-38.198958 J31.482954
G03 X37.971993 Y197.398888 Z-0.125000 I-35.391205 J27.837871
G03 X38.650261 Y198.318215 Z-0.125000 I-79.449077 J59.326475
G03 X39.314413 Y199.247938 Z-0.125000 I-48.148659 J35.097314
G03 X39.972970 Y200.190147 Z-0.125000 I-685.558447 J479.871575
G03 X40.626021 Y201.135973 Z-0.125000 I-93.530881 J65.277333
G02 X41.278229 Y202.083620 Z-0.125000 I134.314502 J-91.742342
G03 X41.933501 Y203.028598 Z-0.125000 I-19888.536635 J13791.920474
G02 X42.591905 Y203.966768 Z-0.125000 I83.301485 J-57.760475
G02 X43.258620 Y204.898679 Z-0.125000 I136.623231 J-97.039540
G02 X43.930806 Y205.818225 Z-0.125000 I67.898385 J-48.928169
G02 X44.614102 Y206.729482 Z-0.125000 I85.297248 J-63.247355
G02 X45.304121 Y207.624543 Z-0.125000 I56.324768 J-42.708311
G02 X46.007603 Y208.508575 Z-0.125000 I60.025644 J-47.044440
G02 X46.718050 Y209.374556 Z-0.125000 I58.140417 J-46.973697
G02 X47.441334 Y210.230083 Z-0.125000 I59.080224 J-49.214355
G02 X48.171349 Y211.066556 Z-0.125000 I49.997498 J-42.897534
G02 X48.914907 Y211.891292 Z-0.125000 I53.837012 J-47.790310
G02 X49.665307 Y212.694713 Z-0.125000 I40.976364 J-37.520026
G02 X50.430840 Y213.483540 Z-0.125000 I43.107300 J-41.068508
G02 X51.203166 Y214.248887 Z-0.125000 I37.566396 J-37.136599
G02 X51.991004 Y214.997664 Z-0.125000 I35.766192 J-36.843118
G02 X52.784894 Y215.723122 Z-0.125000 I40.649312 J-43.686580
G02 X53.592454 Y216.432893 Z-0.125000 I34.738194 J-38.709957
G02 X54.404827 Y217.122054 Z-0.125000 I48.401601 J-56.231721
G02 X55.228119 Y217.797932 Z-0.125000 I38.118805 J-45.593471
G02 X56.054960 Y218.457087 Z-0.125000 I61.552028 J-76.362329
G02 X56.890038 Y219.105580 Z-0.125000 I44.517822 J-56.464687
G02 X57.727545 Y219.741749 Z-0.125000 I96.270608 J-125.869398
G02 X58.570478 Y220.370764 Z-0.125000 I60.686602 J-80.445932
G02 X59.414904 Y220.991766 Z-0.125000 I176.923775 J-239.692621
G02 X60.262584 Y221.608191 Z-0.125000 I86.100118 J-117.509900
G03 X61.110955 Y222.220794 Z-0.125000 I-1204.084766 J1668.387463
G02 X61.960109 Y222.832646 Z-0.125000 I241.278154 J-333.959388
G03 X62.809324 Y223.444154 Z-0.125000 I-315.010810 J438.355738
G03 X63.657931 Y224.056949 Z-0.125000 I-844.286196 J1170.071891
G03 X64.506357 Y224.670787 Z-0.125000 I-561.957496 J777.611933
G01 X66.201757 Y225.901403 Z-0.125000
G02 X67.050041 Y226.515883 Z-0.125000 I8387.500934 J-11577.923683
G02 X67.898681 Y227.128303 Z-0.125000 I174.547060 J-240.978752
G02 X68.748971 Y227.738365 Z-0.125000 I310.148816 J-431.380136
G02 X69.599921 Y228.344586 Z-0.125000 I128.257570 J-179.134427
G02 X70.453289 Y228.947593 Z-0.125000 I205.151855 J-289.422707
G02 X71.307643 Y229.544692 Z-0.125000 I81.050173 J-115.060249
G02 X72.165684 Y230.136888 Z-0.125000 I136.214892 J-196.445997
G02 X73.025218 Y230.719660 Z-0.125000 I48.162660 J-70.110108
G02 X73.890699 Y231.293850 Z-0.125000 I73.185851 J-109.374218
G02 X74.758297 Y231.853644 Z-0.125000 I32.217359 J-48.979940
G02 X75.634486 Y232.399294 Z-0.125000 I38.237142 J-60.423792
G02 X76.513112 Y232.926867 Z-0.125000 I29.705896 J-48.477132
G02 X77.400630 Y233.440201 Z-0.125000 I35.349721 J-60.093230
G02 X78.290708 Y233.931594 Z-0.125000 I19.959988 J-35.102406
G02 X79.191788 Y234.402701 Z-0.125000 I23.747994 J-44.325202
G02 X80.095587 Y234.846237 Z-0.125000 I14.839154 J-29.095368
G02 X81.011712 Y235.263505 Z-0.125000 I16.015987 J-33.949236
G02 X81.930394 Y235.648664 Z-0.125000 I11.790967 J-26.835631
G02 X82.861153 Y236.003037 Z-0.125000 I11.398453 J-28.538455
G02 X83.794026 Y236.323425 Z-0.125000 I10.020953 J-27.659739
G02 X84.737102 Y236.611450 Z-0.125000 I8.635483 J-26.587033
G02 X85.681728 Y236.867108 Z-0.125000 I9.310595 J-32.528541
G02 X86.633693 Y237.093063 Z-0.125000 I7.197218 J-28.204146
G02 X87.586676 Y237.291240 Z-0.125000 I9.320742 J-42.430566
G02 X88.544305 Y237.466778 Z-0.125000 I7.479526 J-38.103880
G02 X89.502529 Y237.617103 Z-0.125000 I6.196685 J-36.370632
G02 X90.464348 Y237.742409 Z-0.125000 I5.330296 J-37.160131
G02 X91.426566 Y237.842036 Z-0.125000 I4.181646 J-35.690815
G02 X92.391087 Y237.915119 Z-0.125000 I3.076800 J-34.204989
G02 X93.355855 Y237.963720 Z-0.125000 I2.649885 J-43.002329
G02 X94.321456 Y237.988394 Z-0.125000 I1.391257 J-35.539593
G02 X95.287184 Y237.993147 Z-0.125000 I0.820119 J-68.522344
G02 X96.252789 Y237.980528 Z-0.125000 I-0.090095 J-43.842167
G02 X97.218431 Y237.955516 Z-0.125000 I-6.410019 J-266.125258
G02 X98.183805 Y237.922477 Z-0.125000 I-2.053960 J-74.136394
G03 X99.149183 Y237.886102 Z-0.125000 I6.424573 J157.677944
G02 X100.114608 Y237.851773 Z-0.125000 I-17.723068 J-512.013515
G03 X101.080033 Y237.821848 Z-0.125000 I3.203402 J87.758563
G03 X102.045676 Y237.800218 Z-0.125000 I3.991312 J156.617148
G03 X103.011319 Y237.787646 Z-0.125000 I1.481361 J76.690028
G03 X103.977042 Y237.786650 Z-0.125000 I0.570069 J84.579401
G03 X104.942765 Y237.795874 Z-0.125000 I-0.463489 J99.081685
G03 X105.908331 Y237.815719 Z-0.125000 I-1.094920 J76.774380
G03 X106.873898 Y237.842764 Z-0.125000 I-11.144141 J415.127108
G03 X107.839310 Y237.875209 Z-0.125000 I-3.189159 J109.273030
G02 X108.804721 Y237.908542 Z-0.125000 I5.244886 J-137.909379
G03 X109.770240 Y237.938936 Z-0.125000 I-33.738417 J1087.078428
G02 X110.735751 Y237.962569 Z-0.125000 I2.070569 J-64.857424
G02 X111.701480 Y237.974714 Z-0.125000 I1.850889 J-108.775471
G02 X112.667186 Y237.974317 Z-0.125000 I0.459608 J-56.486544
G02 X113.632788 Y237.958826 Z-0.125000 I-0.604590 J-67.789897
G02 X114.598330 Y237.928081 Z-0.125000 I-1.290684 J-55.709956
G02 X115.563218 Y237.880644 Z-0.125000 I-2.261248 J-55.831253
G02 X116.528008 Y237.817919 Z-0.125000 I-3.901523 J-67.462075
G02 X117.491714 Y237.739913 Z-0.125000 I-4.005301 J-55.474178
G02 X118.455312 Y237.649599 Z-0.125000 I-10.829809 J-120.734352
G02 X119.417894 Y237.548670 Z-0.125000 I-6.695321 J-68.494875
G03 X120.380410 Y237.441344 Z-0.125000 I118.163164 J1055.334026
G02 X121.342614 Y237.331650 Z-0.125000 I-18.294177 J-164.747435
G03 X122.304823 Y237.222134 Z-0.125000 I18.122998 J154.947534
G03 X123.267392 Y237.117318 Z-0.125000 I30.166253 J272.556187
G03 X124.230006 Y237.015283 Z-0.125000 I47.020201 J439.005375
G03 X125.192873 Y236.915629 Z-0.125000 I36.762522 J350.503195
G03 X126.155770 Y236.818216 Z-0.125000 I52.709249 J516.206421
G03 X127.118867 Y236.722562 Z-0.125000 I53.846130 J537.254569
G03 X128.081993 Y236.629219 Z-0.125000 I31.933486 J324.479618
G03 X129.045363 Y236.538159 Z-0.125000 I51.738549 J542.225897
G03 X130.008771 Y236.450565 Z-0.125000 I16.809706 J179.540297
G03 X130.972564 Y236.367063 Z-0.125000 I27.134239 J307.583872
G03 X131.936411 Y236.289198 Z-0.125000 I9.649977 J113.447940
G03 X132.900799 Y236.218079 Z-0.125000 I13.408916 J175.251576
G03 X133.865251 Y236.155497 Z-0.125000 I5.642299 J79.490610
G03 X134.830316 Y236.103079 Z-0.125000 I6.347875 J107.961397
G03 X135.795434 Y236.062289 Z-0.125000 I3.182273 J63.856884
G03 X136.761024 Y236.035286 Z-0.125000 I2.490218 J71.767262
G03 X137.726646 Y236.021517 Z-0.125000 I1.469764 J69.210760
G03 X138.692355 Y236.022036 Z-0.125000 I0.449648 J61.811807
G03 X139.658078 Y236.034164 Z-0.125000 I-0.957783 J114.718659
G03 X140.623610 Y236.056823 Z-0.125000 I-1.168541 J70.375116
G02 X141.589148 Y236.085615 Z-0.125000 I28.470893 J-938.579302
G00 Z3.000000

(End cutting path id: path288)


(Start cutting path id: path244)
(Change tool to Default tool)

G00 Z3.000000
G00 X10.198233 Y212.964921

G00 Z4.875000 (Fast pre-penetrate)
G01 Z-0.125000 F400.0(Penetrate)
G03 X10.772002 Y213.355456 Z-0.125000 I-43.006194 J63.800879 F800.000000
G02 X11.921057 Y214.126215 Z-0.125000 I34.713940 J-50.509976
G02 X12.791378 Y214.687507 Z-0.125000 I41.959485 J-64.105634
G02 X13.663927 Y215.233339 Z-0.125000 I39.209393 J-61.708505
G02 X14.544196 Y215.765476 Z-0.125000 I32.781555 J-53.233596
G02 X15.426204 Y216.284713 Z-0.125000 I75.932421 J-127.974849
G02 X16.313095 Y216.794663 Z-0.125000 I37.913883 J-64.912469
G03 X17.200700 Y217.299079 Z-0.125000 I-143.240790 J253.089937
G02 X18.088750 Y217.802369 Z-0.125000 I86.279638 J-151.204114
G03 X18.976185 Y218.310384 Z-0.125000 I-34.606617 J61.482404
G03 X19.858821 Y218.827157 Z-0.125000 I-102.245717 J175.645565
G03 X20.739391 Y219.359000 Z-0.125000 I-23.425285 J39.779961
G03 X21.610291 Y219.907350 Z-0.125000 I-36.372237 J58.732883
G03 X22.477675 Y220.478803 Z-0.125000 I-21.246380 J33.192981
G03 X23.331508 Y221.070909 Z-0.125000 I-27.499847 J40.567182
G03 X24.180332 Y221.691572 Z-0.125000 I-21.076128 J29.714655
G03 X25.012097 Y222.335894 Z-0.125000 I-23.813695 J31.600516
G03 X25.837628 Y223.010815 Z-0.125000 I-25.595628 J32.149662
G03 X26.645073 Y223.708158 Z-0.125000 I-24.452627 J29.129535
G03 X27.446084 Y224.432977 Z-0.125000 I-39.345498 J44.286441
G03 X28.231663 Y225.175003 Z-0.125000 I-29.839216 J32.377510
G03 X29.012165 Y225.936473 Z-0.125000 I-97.488148 J100.705485
G03 X29.783265 Y226.707691 Z-0.125000 I-44.812419 J45.576677
G02 X30.552132 Y227.486948 Z-0.125000 I205.868495 J-202.354553
G03 X31.319895 Y228.267222 Z-0.125000 I-119.041285 J117.900371
G02 X32.088918 Y229.042998 Z-0.125000 I55.972134 J-54.715915
G02 X32.864828 Y229.812257 Z-0.125000 I227.030338 J-228.217166
G02 X33.645360 Y230.564096 Z-0.125000 I29.938835 J-30.300343
G02 X34.441173 Y231.299702 Z-0.125000 I47.250060 J-50.319003
G02 X35.244017 Y232.005671 Z-0.125000 I21.194622 J-23.293524
G02 X36.067885 Y232.686562 Z-0.125000 I25.370064 J-29.858539
G02 X36.899457 Y233.329028 Z-0.125000 I17.125554 J-21.306952
G02 X37.753968 Y233.939860 Z-0.125000 I17.425385 J-23.473778
G02 X38.615349 Y234.508340 Z-0.125000 I15.158333 J-22.031580
G02 X39.498024 Y235.042063 Z-0.125000 I13.643101 J-21.566323
G02 X40.385968 Y235.534621 Z-0.125000 I14.783186 J-25.603305
G02 X41.291125 Y235.993822 Z-0.125000 I12.046755 J-22.624326
G02 X42.199904 Y236.417010 Z-0.125000 I15.700893 J-32.529623
G02 X43.121207 Y236.812170 Z-0.125000 I12.259954 J-27.312111
G02 X44.044881 Y237.177059 Z-0.125000 I15.398350 J-37.627601
G02 X44.977957 Y237.516716 Z-0.125000 I11.866428 J-31.146961
G02 X45.912609 Y237.831492 Z-0.125000 I17.282974 J-49.772692
G02 X46.853774 Y238.125849 Z-0.125000 I12.364254 J-37.881208
G02 X47.795935 Y238.401380 Z-0.125000 I22.572269 J-75.435736
G02 X48.742221 Y238.662382 Z-0.125000 I14.729537 J-51.557388
G02 X49.689093 Y238.910401 Z-0.125000 I33.175499 J-124.723905
G02 X50.638429 Y239.149054 Z-0.125000 I20.022439 J-77.639442
G02 X51.588095 Y239.379337 Z-0.125000 I50.847410 J-207.616948
G02 X52.539211 Y239.603934 Z-0.125000 I30.716406 J-127.950829
G02 X53.490528 Y239.822995 Z-0.125000 I59.601501 J-256.656254
G02 X54.442806 Y240.039098 Z-0.125000 I82.209208 J-360.057320
G02 X55.395291 Y240.248601 Z-0.125000 I20.152388 J-89.350776
G02 X56.349561 Y240.450166 Z-0.125000 I33.815375 J-157.732202
G02 X57.304130 Y240.640567 Z-0.125000 I11.998245 J-57.664768
G02 X58.261290 Y240.816889 Z-0.125000 I14.155086 J-74.154796
G02 X59.218803 Y240.978448 Z-0.125000 I9.903339 J-55.775905
G02 X60.178809 Y241.123369 Z-0.125000 I8.756077 J-54.750979
G02 X61.139126 Y241.253881 Z-0.125000 I11.366532 J-80.037239
G02 X62.101090 Y241.370437 Z-0.125000 I7.330657 J-56.474159
G02 X63.063253 Y241.477475 Z-0.125000 I42.440515 J-377.116529
G02 X64.026044 Y241.577895 Z-0.125000 I9.465218 J-86.084012
G03 X64.988861 Y241.677182 Z-0.125000 I-10.741762 J108.883351
G02 X65.951339 Y241.779225 Z-0.125000 I33.269174 J-309.208520
G03 X66.913568 Y241.891746 Z-0.125000 I-4.078188 J39.045364
G03 X67.873700 Y242.022423 Z-0.125000 I-9.535832 J73.656028
G03 X68.833255 Y242.174892 Z-0.125000 I-4.349796 J30.470788
G03 X69.788336 Y242.355269 Z-0.125000 I-6.303177 J35.993574
G03 X70.742623 Y242.562287 Z-0.125000 I-7.098303 J35.023956
G03 X71.690806 Y242.797415 Z-0.125000 I-6.974529 J30.155063
G03 X72.638228 Y243.054930 Z-0.125000 I-19.218891 J72.579689
G03 X73.580776 Y243.331006 Z-0.125000 I-10.142054 J36.372859
G02 X74.522983 Y243.616399 Z-0.125000 I37.768879 J-122.993587
G03 X75.464955 Y243.903005 Z-0.125000 I-27.761629 J92.933719
G02 X76.407240 Y244.180823 Z-0.125000 I10.589610 J-34.180269
G02 X77.354565 Y244.439716 Z-0.125000 I21.309704 J-76.112342
G02 X78.302675 Y244.674622 Z-0.125000 I7.112448 J-26.675982
G02 X79.257493 Y244.880143 Z-0.125000 I8.280601 J-36.149599
G02 X80.213107 Y245.052613 Z-0.125000 I4.728431 J-23.465433
G02 X81.174543 Y245.188387 Z-0.125000 I4.255785 J-26.663963
G02 X82.136538 Y245.286536 Z-0.125000 I2.858760 J-23.256187
G02 X83.101682 Y245.344967 Z-0.125000 I1.902292 J-23.421212
G02 X84.067079 Y245.365626 Z-0.125000 I1.041057 J-26.083005
G02 X85.032480 Y245.348544 Z-0.125000 I0.067549 J-23.471771
G02 X85.997860 Y245.297731 Z-0.125000 I-1.290739 J-33.718136
G02 X86.961048 Y245.216106 Z-0.125000 I-1.832559 J-27.348356
G02 X87.923995 Y245.107189 Z-0.125000 I-4.727859 J-46.110484
G02 X88.884005 Y244.976634 Z-0.125000 I-4.925346 J-39.812654
G02 X89.843510 Y244.821984 Z-0.125000 I-5.674673 J-38.261564
G02 X90.798855 Y244.642961 Z-0.125000 I-6.473203 J-37.182268
G02 X91.753548 Y244.440487 Z-0.125000 I-8.839960 J-44.033802
G02 X92.703326 Y244.215419 Z-0.125000 I-8.297977 J-37.133663
G02 X93.652447 Y243.970823 Z-0.125000 I-17.735864 J-70.785381
G02 X94.597328 Y243.709861 Z-0.125000 I-11.914554 J-44.980796
G02 X95.541750 Y243.437064 Z-0.125000 I-113.571217 J-394.954059
G02 X96.484175 Y243.157194 Z-0.125000 I-21.812450 J-75.177203
G03 X97.426539 Y242.875780 Z-0.125000 I30.048506 J98.904210
G02 X98.370044 Y242.598263 Z-0.125000 I-221.624419 J-755.223426
G03 X99.313915 Y242.330112 Z-0.125000 I14.031459 J47.594426
G03 X100.261676 Y242.076778 Z-0.125000 I22.616279 J82.711190
G03 X101.210070 Y241.841221 Z-0.125000 I10.269406 J39.319549
G03 X102.163251 Y241.626504 Z-0.125000 I11.360070 J48.207102
G03 X103.117089 Y241.433896 Z-0.125000 I8.211662 J38.207733
G03 X104.075239 Y241.264947 Z-0.125000 I7.365444 J38.969906
G03 X105.033932 Y241.118500 Z-0.125000 I7.334325 J44.801609
G03 X105.995617 Y240.994344 Z-0.125000 I5.440364 J38.353322
G03 X106.957673 Y240.889117 Z-0.125000 I8.071065 J69.340580
G03 X107.921309 Y240.800625 Z-0.125000 I4.718782 J46.094720
G03 X108.885147 Y240.724250 Z-0.125000 I19.063073 J234.450016
G03 X109.849557 Y240.655894 Z-0.125000 I5.944467 J77.031359
G02 X110.814023 Y240.591516 Z-0.125000 I-14.503531 J-224.539237
G03 X111.778468 Y240.526208 Z-0.125000 I28.109912 J407.961410
G02 X112.742886 Y240.458428 Z-0.125000 I-8.593270 J-129.166450
G02 X113.706948 Y240.385313 Z-0.125000 I-19.863356 J-268.299420
G02 X114.670937 Y240.305976 Z-0.125000 I-8.099420 J-104.308542
G02 X115.634268 Y240.218460 Z-0.125000 I-10.855618 J-124.839607
G02 X116.597500 Y240.123241 Z-0.125000 I-11.199454 J-118.213158
G02 X117.559917 Y240.019595 Z-0.125000 I-10.624162 J-103.172002
G02 X118.522252 Y239.909395 Z-0.125000 I-26.128861 J-232.429160
G02 X119.483952 Y239.793365 Z-0.125000 I-14.087302 J-120.804337
G03 X120.445617 Y239.674506 Z-0.125000 I55.532740 J445.355266
G02 X121.407236 Y239.555504 Z-0.125000 I-47.689926 J-389.313637
G03 X122.368881 Y239.438188 Z-0.125000 I20.260422 J162.075960
G03 X123.330983 Y239.325653 Z-0.125000 I28.690283 J241.114185
G03 X124.293143 Y239.216690 Z-0.125000 I32.982594 J286.938496
G03 X125.255681 Y239.111104 Z-0.125000 I29.283419 J262.512539
G03 X126.218265 Y239.008791 Z-0.125000 I33.850841 J313.897206
G03 X127.181169 Y238.909468 Z-0.125000 I31.969452 J305.213958
G03 X128.144122 Y238.813331 Z-0.125000 I28.695910 J282.561060
G03 X129.107387 Y238.720279 Z-0.125000 I31.474569 J320.790782
G03 X130.070696 Y238.630813 Z-0.125000 I20.884022 J219.634802
G03 X131.034358 Y238.545134 Z-0.125000 I25.122922 J277.103205
G03 X131.998070 Y238.463922 Z-0.125000 I14.643487 J168.010597
G03 X132.962194 Y238.387853 Z-0.125000 I15.899443 J195.367034
G03 X133.926367 Y238.317029 Z-0.125000 I12.508259 J163.682687
G03 X134.890926 Y238.251909 Z-0.125000 I11.445000 J162.347965
G03 X135.855534 Y238.191989 Z-0.125000 I12.955177 J200.763523
G03 X136.820430 Y238.137104 Z-0.125000 I10.229928 J171.334737
G03 X137.785363 Y238.086619 Z-0.125000 I15.039273 J278.204665
G03 X138.750490 Y238.040242 Z-0.125000 I9.663810 J191.042518
G03 X139.715636 Y237.996727 Z-0.125000 I50.576966 J1111.053023
G03 X140.680865 Y237.955342 Z-0.125000 I12.185955 J272.942790
G02 X141.646097 Y237.914243 Z-0.125000 I-13.475338 J-327.836535
G03 X142.611276 Y237.872080 Z-0.125000 I57.642274 J1308.437809
G02 X143.576428 Y237.826637 Z-0.125000 I-5.559782 J-128.356303
G02 X144.541314 Y237.775115 Z-0.125000 I-9.669187 J-190.141661
G02 X145.506154 Y237.717952 Z-0.125000 I-8.196373 J-146.514849
G00 Z3.000000

(End cutting path id: path244)


(Start cutting path id: path246)
(Change tool to Default tool)

G00 Z3.000000
G00 X10.198233 Y212.303464

G00 Z4.875000 (Fast pre-penetrate)
G01 Z-0.125000 F400.0(Penetrate)
G03 X10.771884 Y212.694255 Z-0.125000 I-43.881685 J65.031309 F800.000000
G02 X11.920683 Y213.465740 Z-0.125000 I35.438879 J-51.530091
G02 X12.790635 Y214.028042 Z-0.125000 I43.650024 J-66.578002
G02 X13.662813 Y214.574919 Z-0.125000 I38.143277 J-59.863181
G02 X14.542840 Y215.107871 Z-0.125000 I32.648045 J-52.916469
G02 X15.424652 Y215.627592 Z-0.125000 I70.923801 J-119.328691
G02 X16.311562 Y216.137602 Z-0.125000 I36.766598 J-62.911070
G03 X17.199238 Y216.641683 Z-0.125000 I-156.048448 J275.831854
G02 X18.087525 Y217.144303 Z-0.125000 I80.292529 J-140.865760
G03 X18.975232 Y217.651403 Z-0.125000 I-34.573863 J61.554029
G03 X19.858203 Y218.167194 Z-0.125000 I-105.378602 J181.408698
G03 X20.739124 Y218.697974 Z-0.125000 I-23.356056 J39.759856
G03 X21.610406 Y219.245259 Z-0.125000 I-36.419914 J58.947953
G03 X22.478185 Y219.815642 Z-0.125000 I-21.161067 J33.139738
G03 X23.332350 Y220.407045 Z-0.125000 I-26.695293 J39.468618
G03 X24.181655 Y221.026389 Z-0.125000 I-22.365389 J31.561565
G03 X25.014729 Y221.668015 Z-0.125000 I-24.980419 J33.295707
G03 X25.841819 Y222.339240 Z-0.125000 I-25.775851 J32.606465
G03 X26.651337 Y223.032425 Z-0.125000 I-25.112879 J30.146685
G03 X27.454555 Y223.752801 Z-0.125000 I-38.077914 J43.264819
G03 X28.242343 Y224.490554 Z-0.125000 I-29.898251 J32.715406
G03 X29.024964 Y225.248290 Z-0.125000 I-84.665529 J88.229206
G03 X29.797617 Y226.016429 Z-0.125000 I-43.391726 J44.419404
G02 X30.567688 Y226.793910 Z-0.125000 I369.141901 J-364.853120
G03 X31.335580 Y227.573412 Z-0.125000 I-103.117227 J102.349362
G02 X32.104136 Y228.350549 Z-0.125000 I68.353534 J-66.830156
G02 X32.877855 Y229.122996 Z-0.125000 I587.018656 J-587.212170
G02 X33.655532 Y229.880739 Z-0.125000 I33.330667 J-33.429576
G02 X34.446767 Y230.624420 Z-0.125000 I57.704873 J-60.601896
G02 X35.244623 Y231.340904 Z-0.125000 I22.477314 J-24.227652
G02 X36.062570 Y232.033880 Z-0.125000 I27.861989 J-32.057346
G02 X36.888144 Y232.690285 Z-0.125000 I18.136455 J-21.963238
G02 X37.736167 Y233.316745 Z-0.125000 I18.878248 J-24.667795
G02 X38.591204 Y233.902051 Z-0.125000 I15.825485 J-22.201267
G02 X39.467698 Y234.453651 Z-0.125000 I14.533039 J-22.120893
G02 X40.349725 Y234.964489 Z-0.125000 I15.306837 J-25.412296
G02 X41.249511 Y235.442386 Z-0.125000 I12.675985 J-22.780386
G02 X42.153181 Y235.884087 Z-0.125000 I16.161938 J-31.920224
G02 X43.070020 Y236.297786 Z-0.125000 I12.840896 J-27.235186
G02 X43.989451 Y236.680572 Z-0.125000 I15.572924 J-36.109688
G02 X44.919011 Y237.037588 Z-0.125000 I12.253937 J-30.516846
G02 X45.850327 Y237.368665 Z-0.125000 I17.023923 J-46.412640
G02 X46.788853 Y237.678276 Z-0.125000 I12.459852 J-36.192361
G02 X47.728511 Y237.967824 Z-0.125000 I21.666917 J-68.645335
G02 X48.672830 Y238.241705 Z-0.125000 I14.448309 J-48.051628
G02 X49.617830 Y238.501483 Z-0.125000 I31.271589 J-111.908808
G02 X50.565647 Y238.750958 Z-0.125000 I19.156612 J-70.855423
G02 X51.513855 Y238.991247 Z-0.125000 I48.397698 J-188.991837
G02 X52.463719 Y239.225252 Z-0.125000 I28.739263 J-114.612423
G02 X53.413810 Y239.453317 Z-0.125000 I63.178209 J-261.099262
G02 X54.364938 Y239.678205 Z-0.125000 I71.355549 J-299.663281
G02 X55.316281 Y239.896684 Z-0.125000 I22.981498 J-97.889865
G02 X56.269360 Y240.107917 Z-0.125000 I38.464510 J-171.295826
G02 X57.222742 Y240.308608 Z-0.125000 I13.259347 J-60.623429
G02 X58.178722 Y240.496068 Z-0.125000 I16.122380 J-79.687336
G02 X59.135063 Y240.669306 Z-0.125000 I10.741456 J-56.570555
G02 X60.094023 Y240.826382 Z-0.125000 I9.823865 J-56.969873
G02 X61.053316 Y240.969153 Z-0.125000 I11.982446 J-77.216905
G02 X62.014445 Y241.097829 Z-0.125000 I8.093868 J-56.802172
G02 X62.975792 Y241.216583 Z-0.125000 I34.756383 J-277.412396
G02 X63.937917 Y241.328066 Z-0.125000 I10.070406 J-82.702518
G03 X64.900086 Y241.437571 Z-0.125000 I-14.011045 J127.390755
G02 X65.861997 Y241.548734 Z-0.125000 I27.650023 J-235.042653
G03 X66.823673 Y241.669242 Z-0.125000 I-4.689851 J41.323133
G03 X67.783281 Y241.806541 Z-0.125000 I-11.357178 J82.799501
G03 X68.742320 Y241.964586 Z-0.125000 I-4.646941 J31.187221
G03 X69.696904 Y242.149585 Z-0.125000 I-6.812378 J37.706607
G03 X70.650681 Y242.360659 Z-0.125000 I-7.239920 J34.975509
G03 X71.598317 Y242.599528 Z-0.125000 I-7.254978 J30.780939
G03 X72.545158 Y242.860900 Z-0.125000 I-18.295371 J68.122003
G03 X73.486929 Y243.141336 Z-0.125000 I-10.221393 J36.047473
G02 X74.428309 Y243.431823 Z-0.125000 I45.551398 J-145.947747
G03 X75.369160 Y243.724598 Z-0.125000 I-25.686624 J84.203742
G02 X76.310299 Y244.009468 Z-0.125000 I11.132218 J-35.080878
G02 X77.256392 Y244.276263 Z-0.125000 I23.870831 J-82.838467
G02 X78.203284 Y244.519629 Z-0.125000 I7.391447 J-26.794993
G02 X79.157054 Y244.734001 Z-0.125000 I8.789102 J-36.874992
G02 X80.111666 Y244.915514 Z-0.125000 I4.948744 J-23.425393
G02 X81.072424 Y245.060476 Z-0.125000 I4.539777 J-26.831891
G02 X82.033790 Y245.167725 Z-0.125000 I3.058478 J-23.053267
G02 X82.998689 Y245.235068 Z-0.125000 I2.115146 J-23.359792
G02 X83.963881 Y245.264317 Z-0.125000 I1.261804 J-25.699216
G02 X84.929405 Y245.255379 Z-0.125000 I0.267614 J-23.246294
G02 X85.894940 Y245.212231 Z-0.125000 I-0.991412 J-33.009681
G02 X86.858477 Y245.137585 Z-0.125000 I-1.590583 J-26.787384
G02 X87.821805 Y245.035249 Z-0.125000 I-4.386508 J-45.877103
G02 X88.782318 Y244.911032 Z-0.125000 I-4.585520 J-39.233664
G02 X89.742350 Y244.762559 Z-0.125000 I-5.425292 J-38.258016
G02 X90.698358 Y244.589701 Z-0.125000 I-6.237480 J-37.227009
G02 X91.653734 Y244.393201 Z-0.125000 I-8.373691 J-43.133457
G02 X92.604259 Y244.173760 Z-0.125000 I-8.000290 J-36.822127
G02 X93.554131 Y243.934369 Z-0.125000 I-16.503787 J-67.489158
G02 X94.499702 Y243.678053 Z-0.125000 I-11.418971 J-43.997831
G02 X95.444807 Y243.409288 Z-0.125000 I-84.791219 J-299.962285
G02 X96.387746 Y243.132772 Z-0.125000 I-20.430514 J-71.415386
G03 X97.330598 Y242.853995 Z-0.125000 I32.271123 J107.410401
G02 X98.274373 Y242.578381 Z-0.125000 I-133.195049 J-457.848589
G03 X99.218488 Y242.311470 Z-0.125000 I14.310934 J48.817312
G03 X100.166323 Y242.058818 Z-0.125000 I23.963860 J87.997185
G03 X101.114770 Y241.823465 Z-0.125000 I10.370910 J39.764950
G03 X102.067924 Y241.608605 Z-0.125000 I11.635470 J49.395182
G03 X103.021723 Y241.415581 Z-0.125000 I8.252959 J38.327796
G03 X103.979817 Y241.246043 Z-0.125000 I7.471970 J39.433676
G03 X104.938449 Y241.098936 Z-0.125000 I7.320222 J44.505656
G03 X105.900095 Y240.974171 Z-0.125000 I5.475063 J38.431400
G03 X106.862116 Y240.868463 Z-0.125000 I7.936932 J67.801774
G03 X107.825748 Y240.779728 Z-0.125000 I4.696287 J45.723068
G03 X108.789579 Y240.703377 Z-0.125000 I17.468581 J214.396224
G03 X109.754007 Y240.635418 Z-0.125000 I5.749859 J74.721408
G02 X110.718498 Y240.571702 Z-0.125000 I-14.921882 J-233.207433
G03 X111.682979 Y240.507264 Z-0.125000 I24.829262 J364.385543
G02 X112.647432 Y240.440508 Z-0.125000 I-8.495976 J-129.745909
G02 X113.611548 Y240.368503 Z-0.125000 I-20.402529 J-279.669457
G02 X114.575584 Y240.290320 Z-0.125000 I-7.923056 J-103.678717
G02 X115.538976 Y240.203961 Z-0.125000 I-10.794277 J-125.833908
G02 X116.502266 Y240.109838 Z-0.125000 I-10.803928 J-115.547343
G02 X117.464744 Y240.007166 Z-0.125000 I-10.437139 J-102.403663
G02 X118.427129 Y239.897761 Z-0.125000 I-24.152780 J-216.748818
G02 X119.388863 Y239.782290 Z-0.125000 I-13.662724 J-117.856669
G03 X120.350552 Y239.663719 Z-0.125000 I66.346261 J534.152342
G02 X121.312161 Y239.544611 Z-0.125000 I-40.392804 J-330.048234
G03 X122.273790 Y239.427005 Z-0.125000 I20.091143 J160.288898
G03 X123.235874 Y239.314163 Z-0.125000 I29.498515 J247.345008
G03 X124.198012 Y239.204871 Z-0.125000 I32.553535 J282.292758
G03 X125.160530 Y239.098990 Z-0.125000 I29.192282 J260.946244
G03 X126.123097 Y238.996388 Z-0.125000 I34.048411 J314.859522
G03 X127.085986 Y238.896775 Z-0.125000 I31.960794 J304.240188
G03 X128.048920 Y238.800340 Z-0.125000 I29.043628 J285.152628
G03 X129.012167 Y238.706966 Z-0.125000 I31.777730 J322.804197
G03 X129.975457 Y238.617148 Z-0.125000 I21.167532 J221.809513
G03 X130.939101 Y238.531074 Z-0.125000 I25.504131 J280.094328
G03 X131.902794 Y238.449431 Z-0.125000 I14.811152 J169.099919
G03 X132.866895 Y238.372871 Z-0.125000 I16.280975 J198.913075
G03 X133.831045 Y238.301569 Z-0.125000 I12.353948 J160.496692
G03 X134.795594 Y238.236050 Z-0.125000 I11.443979 J161.341838
G03 X135.760186 Y238.175823 Z-0.125000 I12.635650 J194.618111
G03 X136.725080 Y238.120747 Z-0.125000 I10.096015 J168.395082
G03 X137.690010 Y238.070215 Z-0.125000 I14.268433 J263.222843
G03 X138.655142 Y238.023965 Z-0.125000 I9.363931 J185.310132
G03 X139.620293 Y237.980767 Z-0.125000 I39.513673 J872.042265
G03 X140.585537 Y237.939911 Z-0.125000 I11.396405 J257.822605
G02 X141.550786 Y237.899554 Z-0.125000 I-14.397564 J-355.914812
G00 Z3.000000

(End cutting path id: path246)


(Start cutting path id: path248)
(Change tool to Default tool)

G00 Z3.000000
G00 X10.198233 Y211.642006

G00 Z4.875000 (Fast pre-penetrate)
G01 Z-0.125000 F400.0(Penetrate)
G03 X10.772053 Y212.032297 Z-0.125000 I-45.132985 J66.973159 F800.000000
G02 X11.921144 Y212.803073 Z-0.125000 I36.436678 J-53.078716
G02 X12.791052 Y213.365458 Z-0.125000 I45.864499 J-69.990050
G02 X13.663159 Y213.912573 Z-0.125000 I37.266952 J-58.435339
G02 X14.543189 Y214.445599 Z-0.125000 I32.684251 J-52.968967
G02 X15.425037 Y214.965129 Z-0.125000 I66.472529 J-111.822038
G02 X16.312178 Y215.474541 Z-0.125000 I35.749897 J-61.231225
G03 X17.200134 Y215.977638 Z-0.125000 I-173.027154 J306.424614
G02 X18.088872 Y216.478925 Z-0.125000 I74.787477 J-131.553196
G03 X18.977064 Y216.984439 Z-0.125000 I-34.481483 J61.617213
G03 X19.860591 Y217.498583 Z-0.125000 I-108.472966 J187.420961
G03 X20.742094 Y218.027614 Z-0.125000 I-23.289899 J39.805966
G03 X21.614020 Y218.573090 Z-0.125000 I-36.633369 J59.526811
G03 X22.482456 Y219.141691 Z-0.125000 I-20.919894 J32.898910
G03 X23.337210 Y219.731621 Z-0.125000 I-26.178993 J38.845067
G03 X24.187164 Y220.349353 Z-0.125000 I-22.818985 J32.290876
G03 X25.021144 Y220.989079 Z-0.125000 I-25.006479 J33.463201
G03 X25.849334 Y221.657706 Z-0.125000 I-26.818480 J34.065792
G03 X26.660663 Y222.347331 Z-0.125000 I-26.079105 J31.503547
G03 X27.465888 Y223.063530 Z-0.125000 I-37.530828 J43.006818
G03 X28.255902 Y223.797044 Z-0.125000 I-30.326091 J33.454186
G03 X29.040753 Y224.550706 Z-0.125000 I-77.132037 J81.109516
G03 X29.815320 Y225.315197 Z-0.125000 I-42.756598 J44.094761
G02 X30.587061 Y226.089979 Z-0.125000 I1117.346013 J-1112.189510
G03 X31.355789 Y226.867545 Z-0.125000 I-94.520751 J94.215178
G02 X32.124657 Y227.644613 Z-0.125000 I86.569817 J-84.887408
G03 X32.897089 Y228.418647 Z-0.125000 I-1608.874191 J1606.314836
G02 X33.672797 Y229.180626 Z-0.125000 I37.718426 J-37.622216
G02 X34.460235 Y229.930749 Z-0.125000 I73.512473 J-76.381028
G02 X35.253796 Y230.656247 Z-0.125000 I23.978278 J-25.431026
G02 X36.066323 Y231.359945 Z-0.125000 I31.015403 J-34.991139
G02 X36.886323 Y232.029031 Z-0.125000 I19.146658 J-22.628204
G02 X37.728215 Y232.669696 Z-0.125000 I20.377370 J-25.904204
G02 X38.577210 Y233.270589 Z-0.125000 I16.644476 J-22.616565
G02 X39.447581 Y233.839103 Z-0.125000 I15.564422 J-22.877986
G02 X40.323704 Y234.367564 Z-0.125000 I15.916202 J-25.396619
G02 X41.217966 Y234.863732 Z-0.125000 I13.408480 J-23.112639
G02 X42.116359 Y235.323777 Z-0.125000 I16.705996 J-31.516844
G02 X43.028476 Y235.756047 Z-0.125000 I13.518026 J-27.345468
G02 X43.943405 Y236.156941 Z-0.125000 I15.818791 J-34.857479
G02 X44.869163 Y236.531684 Z-0.125000 I12.719945 J-30.092274
G02 X45.796873 Y236.879536 Z-0.125000 I16.849320 J-43.525553
G02 X46.732509 Y237.204959 Z-0.125000 I12.616707 J-34.767009
G02 X47.669427 Y237.509103 Z-0.125000 I20.908180 J-62.812636
G02 X48.611584 Y237.796446 Z-0.125000 I14.243439 J-45.013891
G02 X49.554526 Y238.068532 Z-0.125000 I29.585763 J-100.762583
G02 X50.500683 Y238.329343 Z-0.125000 I18.409838 J-64.939814
G02 X51.447294 Y238.580101 Z-0.125000 I46.075482 J-172.022740
G02 X52.395793 Y238.823933 Z-0.125000 I27.066428 J-103.320859
G02 X53.344550 Y239.061372 Z-0.125000 I66.004859 J-261.727221
G02 X54.294441 Y239.295360 Z-0.125000 I62.345426 J-251.050489
G02 X55.244550 Y239.523106 Z-0.125000 I26.558907 J-108.702383
G02 X56.196338 Y239.744302 Z-0.125000 I43.712976 J-185.935147
G02 X57.148428 Y239.955647 Z-0.125000 I14.850317 J-64.649296
G02 X58.103085 Y240.154734 Z-0.125000 I18.609171 J-86.845812
G02 X59.058112 Y240.340271 Z-0.125000 I11.760130 J-57.982865
G02 X60.015856 Y240.510296 Z-0.125000 I11.150638 J-60.028558
G02 X60.973952 Y240.666256 Z-0.125000 I12.730443 J-75.185193
G02 X61.934073 Y240.808112 Z-0.125000 I9.011806 J-57.674368
G02 X62.894433 Y240.939716 Z-0.125000 I30.585754 J-219.625166
G02 X63.855739 Y241.063439 Z-0.125000 I10.787101 J-80.017108
G03 X64.817112 Y241.184349 Z-0.125000 I-18.937518 J154.457584
G02 X65.778322 Y241.305815 Z-0.125000 I24.551574 J-190.422313
G03 X66.739318 Y241.435446 Z-0.125000 I-5.463304 J44.128126
G03 X67.698293 Y241.580416 Z-0.125000 I-13.879589 J95.057993
G03 X68.656701 Y241.744982 Z-0.125000 I-5.018218 J32.098402
G03 X69.610686 Y241.935417 Z-0.125000 I-7.447503 J39.792911
G03 X70.563853 Y242.151228 Z-0.125000 I-7.448954 J35.112474
G03 X71.510863 Y242.394379 Z-0.125000 I-7.600466 J31.567553
G03 X72.457050 Y242.659992 Z-0.125000 I-17.742202 J65.020819
G03 X73.397997 Y242.944955 Z-0.125000 I-10.402614 J36.045396
G02 X74.338523 Y243.240593 Z-0.125000 I56.965822 J-179.584039
G03 X75.278223 Y243.539540 Z-0.125000 I-24.157239 J77.561327
G02 X76.218195 Y243.831444 Z-0.125000 I11.719751 J-36.079932
G02 X77.163012 Y244.106140 Z-0.125000 I26.922186 J-90.836704
G02 X78.108646 Y244.357969 Z-0.125000 I7.675551 J-26.920746
G02 X79.061317 Y244.581207 Z-0.125000 I9.322346 J-37.638924
G02 X80.014874 Y244.771790 Z-0.125000 I5.172355 J-23.398343
G02 X80.974900 Y244.925986 Z-0.125000 I4.831728 J-27.016791
G02 X81.935585 Y245.042395 Z-0.125000 I3.257427 J-22.860106
G02 X82.900186 Y245.118732 Z-0.125000 I2.329872 J-23.307945
G02 X83.865128 Y245.156663 Z-0.125000 I1.479030 J-25.332734
G02 X84.830739 Y245.155988 Z-0.125000 I0.466708 J-23.023092
G02 X85.796393 Y245.120616 Z-0.125000 I-0.700368 J-32.319188
G02 X86.760263 Y245.053102 Z-0.125000 I-1.356156 J-26.275219
G02 X87.723952 Y244.957490 Z-0.125000 I-4.029650 J-45.520139
G02 X88.684950 Y244.839707 Z-0.125000 I-4.244013 J-38.606441
G02 X89.645489 Y244.697495 Z-0.125000 I-5.177445 J-38.284820
G02 X90.602153 Y244.530897 Z-0.125000 I-5.997396 J-37.269121
G02 X91.558201 Y244.340480 Z-0.125000 I-7.932796 J-42.324446
G02 X92.509468 Y244.126787 Z-0.125000 I-7.708295 J-36.538105
G02 X93.460093 Y243.892745 Z-0.125000 I-15.400814 J-64.602059
G02 X94.406373 Y243.641237 Z-0.125000 I-10.950653 J-43.106925
G02 X95.352173 Y243.376692 Z-0.125000 I-67.443176 J-242.945398
G02 X96.295659 Y243.103732 Z-0.125000 I-19.198174 J-68.125728
G03 X97.239026 Y242.827817 Z-0.125000 I34.830126 J117.334944
G02 X98.183114 Y242.554350 Z-0.125000 I-95.602120 J-331.812746
G03 X99.127506 Y242.288933 Z-0.125000 I14.602501 J50.144928
G03 X100.075454 Y242.037218 Z-0.125000 I25.448200 J93.926070
G03 X101.023992 Y241.802325 Z-0.125000 I10.465603 J40.229272
G03 X101.977148 Y241.587573 Z-0.125000 I11.908340 J50.631472
G03 X102.930936 Y241.394378 Z-0.125000 I8.291153 J38.481674
G03 X103.888994 Y241.224475 Z-0.125000 I7.573252 J39.918386
G03 X104.847589 Y241.076920 Z-0.125000 I7.302335 J44.252383
G03 X105.809205 Y240.951725 Z-0.125000 I5.507114 J38.544223
G03 X106.771203 Y240.845691 Z-0.125000 I7.813557 J66.471423
G03 X107.734829 Y240.756833 Z-0.125000 I4.673607 J45.414020
G03 X108.698666 Y240.680599 Z-0.125000 I16.216019 J198.889305
G03 X109.663115 Y240.613091 Z-0.125000 I5.576488 J72.745582
G02 X110.627627 Y240.550072 Z-0.125000 I-15.360869 J-242.511475
G03 X111.592145 Y240.486534 Z-0.125000 I22.332334 J331.657845
G02 X112.556635 Y240.420818 Z-0.125000 I-8.387202 J-130.205820
G02 X113.520800 Y240.349925 Z-0.125000 I-20.867129 J-290.392511
G02 X114.484887 Y240.272892 Z-0.125000 I-7.752123 J-103.090949
G02 X115.448337 Y240.187683 Z-0.125000 I-10.712327 J-126.611511
G02 X116.411689 Y240.094645 Z-0.125000 I-10.440547 J-113.140546
G02 X117.374218 Y239.992940 Z-0.125000 I-10.263802 J-101.741090
G02 X118.336660 Y239.884336 Z-0.125000 I-22.529065 J-203.970474
G02 X119.298425 Y239.769436 Z-0.125000 I-13.267869 J-115.140030
G03 X120.260144 Y239.651175 Z-0.125000 I81.473945 J658.593991
G02 X121.221743 Y239.532010 Z-0.125000 I-35.240272 J-288.309216
G03 X122.183361 Y239.414159 Z-0.125000 I20.012549 J159.312678
G03 X123.145423 Y239.301034 Z-0.125000 I30.479373 J255.062280
G03 X124.107543 Y239.191428 Z-0.125000 I32.158946 J278.012207
G00 Z3.000000

(End cutting path id: path248)


(Start cutting path id: path250)
(Change tool to Default tool)

G00 Z3.000000
G00 X10.198233 Y210.319091

G00 Z4.875000 (Fast pre-penetrate)
G01 Z-0.125000 F400.0(Penetrate)
G03 X10.773294 Y210.705942 Z-0.125000 I-48.907692 J73.322974 F800.000000
G02 X11.924729 Y211.470702 Z-0.125000 I39.473417 J-58.182655
G02 X12.795606 Y212.030225 Z-0.125000 I52.502928 J-80.761314
G02 X13.668556 Y212.575153 Z-0.125000 I36.057565 J-56.790915
G02 X14.549375 Y213.105947 Z-0.125000 I33.368662 J-54.377043
G02 X15.432027 Y213.622979 Z-0.125000 I59.363693 J-100.330821
G02 X16.320260 Y214.129210 Z-0.125000 I34.230760 J-59.028934
G03 X17.209380 Y214.628460 Z-0.125000 I-223.823744 J399.651277
G02 X18.099609 Y215.125204 Z-0.125000 I65.922628 J-117.095843
G03 X18.989361 Y215.625687 Z-0.125000 I-34.214505 J61.867195
G03 X19.874598 Y216.134703 Z-0.125000 I-113.602174 J198.591157
G03 X20.757880 Y216.658354 Z-0.125000 I-23.204780 J40.148104
G03 X21.631781 Y217.198296 Z-0.125000 I-36.896182 J60.694042
G03 X22.502278 Y217.761210 Z-0.125000 I-20.647598 J32.884167
G03 X23.359272 Y218.345323 Z-0.125000 I-26.398337 J39.651621
G03 X24.211473 Y218.957599 Z-0.125000 I-21.651449 J31.034961
G03 X25.047223 Y219.593204 Z-0.125000 I-23.433001 J31.679075
G03 X25.877296 Y220.257710 Z-0.125000 I-28.360525 J36.277478
G03 X26.691145 Y220.942367 Z-0.125000 I-26.374196 J32.176920
G03 X27.499259 Y221.652469 Z-0.125000 I-40.165789 J46.524550
G03 X28.293248 Y222.378562 Z-0.125000 I-32.367648 J36.191473
G03 X29.082345 Y223.124128 Z-0.125000 I-71.313516 J76.267675
G03 X29.861228 Y223.880634 Z-0.125000 I-43.646571 J45.716771
G03 X30.637119 Y224.648240 Z-0.125000 I-623.805639 J631.315241
G03 X31.409079 Y225.419415 Z-0.125000 I-90.448467 J91.312401
G02 X32.180402 Y226.192872 Z-0.125000 I164.580642 J-163.355224
G03 X32.952627 Y226.966003 Z-0.125000 I-247.533335 J248.015788
G02 X33.726830 Y227.731933 Z-0.125000 I51.341459 J-51.121686
G02 X34.509053 Y228.490223 Z-0.125000 I143.607935 J-147.358071
G02 X35.296190 Y229.229367 Z-0.125000 I28.281691 J-29.329321
G02 X36.099308 Y229.950926 Z-0.125000 I41.613988 J-45.509943
G02 X36.909369 Y230.642037 Z-0.125000 I20.877295 J-23.650286
G02 X37.740246 Y231.307038 Z-0.125000 I23.357182 J-28.331772
G02 X38.578268 Y231.935149 Z-0.125000 I18.594936 J-23.936158
G02 X39.437061 Y232.533746 Z-0.125000 I17.839972 J-24.679211
G02 X40.301870 Y233.094393 Z-0.125000 I17.561067 J-26.141016
G02 X41.185008 Y233.624849 Z-0.125000 I15.247616 J-24.384841
G02 X42.072661 Y234.120157 Z-0.125000 I18.104124 J-31.401742
G02 X42.974768 Y234.588781 Z-0.125000 I15.242981 J-28.240396
G02 X43.880112 Y235.025770 Z-0.125000 I16.548403 J-33.128277
G02 X44.797504 Y235.436424 Z-0.125000 I13.933606 J-29.897297
G02 X45.717247 Y235.818717 Z-0.125000 I16.767923 J-39.043719
G02 X46.646348 Y236.177036 Z-0.125000 I13.156052 J-32.729211
G02 X47.577069 Y236.511834 Z-0.125000 I19.789888 J-53.553705
G02 X48.514284 Y236.827672 Z-0.125000 I14.083077 J-40.241542
G02 X49.452524 Y237.125929 Z-0.125000 I26.828676 J-82.771349
G02 X50.394886 Y237.410897 Z-0.125000 I17.282551 J-55.451159
G02 X51.337855 Y237.683969 Z-0.125000 I41.814377 J-142.628181
G02 X52.283260 Y237.948718 Z-0.125000 I24.406894 J-85.335348
G02 X53.229001 Y238.206041 Z-0.125000 I69.734349 J-254.428311
G02 X54.176113 Y238.459208 Z-0.125000 I49.178206 J-182.080083
G02 X55.123461 Y238.706426 Z-0.125000 I37.549172 J-141.951215
G02 X56.072333 Y238.948460 Z-0.125000 I55.999845 J-217.560835
G02 X57.021497 Y239.182231 Z-0.125000 I19.679286 J-77.858840
G02 X57.973026 Y239.406089 Z-0.125000 I26.272618 J-109.539994
G02 X58.924934 Y239.618190 Z-0.125000 I14.643112 J-63.476116
G02 X59.879632 Y239.816636 Z-0.125000 I15.067073 J-70.089784
G02 X60.834715 Y240.001957 Z-0.125000 I14.754859 J-73.488195
G02 X61.792164 Y240.173617 Z-0.125000 I11.539944 J-61.608844
G02 X62.749904 Y240.334641 Z-0.125000 I26.661993 J-155.652454
G02 X63.708978 Y240.486716 Z-0.125000 I12.666967 J-76.784666
G03 X64.668171 Y240.634350 Z-0.125000 I-42.972808 J282.389619
G02 X65.627486 Y240.780276 Z-0.125000 I21.590692 J-138.709825
G03 X66.586630 Y240.931839 Z-0.125000 I-7.739283 J52.087842
G03 X67.543917 Y241.095552 Z-0.125000 I-23.334891 J139.327764
G03 X68.500653 Y241.276217 Z-0.125000 I-6.057148 J34.699947
G03 X69.453082 Y241.480151 Z-0.125000 I-9.260848 J45.576924
G03 X70.404677 Y241.707625 Z-0.125000 I-8.116378 J36.057412
G03 X71.350157 Y241.961067 Z-0.125000 I-8.562980 J33.834998
G03 X72.294765 Y242.236437 Z-0.125000 I-17.331510 J61.210654
G03 X73.233912 Y242.531321 Z-0.125000 I-11.004877 J36.691220
G02 X74.172564 Y242.837728 Z-0.125000 I98.363619 J-299.737770
G03 X75.109884 Y243.149083 Z-0.125000 I-22.610109 J69.633398
G02 X76.047441 Y243.454939 Z-0.125000 I13.094799 J-38.550205
G02 X76.989584 Y243.745399 Z-0.125000 I35.241794 J-112.638204
G02 X77.932576 Y244.014151 Z-0.125000 I8.267536 J-27.220156
G02 X78.882894 Y244.255149 Z-0.125000 I10.476350 J-39.316806
G02 X79.834193 Y244.463948 Z-0.125000 I5.630004 J-23.379156
G02 X80.792582 Y244.636767 Z-0.125000 I5.442155 J-27.436240
G02 X81.751737 Y244.771698 Z-0.125000 I3.655831 J-22.511004
G02 X82.715595 Y244.866291 Z-0.125000 I2.767022 J-23.236677
G02 X83.679888 Y244.921896 Z-0.125000 I1.905443 J-24.654662
G02 X84.645558 Y244.938093 Z-0.125000 I0.863031 J-22.659328
G02 X85.611344 Y244.918695 Z-0.125000 I-0.140537 J-31.048244
G02 X86.575805 Y244.865919 Z-0.125000 I-0.904502 J-25.368413
G02 X87.540151 Y244.784212 Z-0.125000 I-3.289029 J-44.550824
G02 X88.502067 Y244.679632 Z-0.125000 I-3.559280 J-37.213945
G02 X89.463580 Y244.550244 Z-0.125000 I-4.683441 J-38.441050
G02 X90.421513 Y244.396501 Z-0.125000 I-5.504311 J-37.356986
G02 X91.378872 Y244.218608 Z-0.125000 I-7.100231 J-40.876143
G02 X92.331625 Y244.016812 Z-0.125000 I-7.131177 J-36.019007
G02 X93.283748 Y243.793915 Z-0.125000 I-13.483062 J-59.738974
G02 X94.231480 Y243.552525 Z-0.125000 I-10.067007 J-41.505595
G02 X95.178721 Y243.296973 Z-0.125000 I-47.527929 J-178.052540
G02 X96.123370 Y243.031738 Z-0.125000 I-17.076159 J-62.632552
G03 X97.067862 Y242.762211 Z-0.125000 I41.230039 J142.690988
G02 X98.012674 Y242.493750 Z-0.125000 I-61.287321 J-217.489086
G03 X98.957739 Y242.232061 Z-0.125000 I15.195665 J53.040315
G03 X99.906018 Y241.982970 Z-0.125000 I28.979831 J108.395483
G03 X100.854844 Y241.749742 Z-0.125000 I10.635353 J41.220456
G03 X101.808092 Y241.535945 Z-0.125000 I12.453243 J53.292949
G03 X102.761947 Y241.343115 Z-0.125000 I8.357094 J38.883574
G03 X103.719994 Y241.173158 Z-0.125000 I7.765166 J40.986935
G03 X104.678568 Y241.025319 Z-0.125000 I7.267841 J43.942484
G03 X105.640170 Y240.899810 Z-0.125000 I5.562753 J38.873383
G03 X106.602147 Y240.793589 Z-0.125000 I7.595972 J64.382687
G03 X107.565788 Y240.704865 Z-0.125000 I4.628866 J44.997289
G03 X108.529642 Y240.629159 Z-0.125000 I14.343332 J176.437631
G03 X109.494138 Y240.562754 Z-0.125000 I5.284342 J69.715497
G02 X110.458704 Y240.501262 Z-0.125000 I-16.232844 J-262.221940
G03 X111.423296 Y240.439627 Z-0.125000 I18.628563 J283.959410
G02 X112.387863 Y240.376056 Z-0.125000 I-8.111777 J-130.430198
G02 X113.352125 Y240.307418 Z-0.125000 I-21.616028 J-310.479656
G02 X114.316311 Y240.232692 Z-0.125000 I-7.413929 J-101.919204
G02 X115.279875 Y240.149762 Z-0.125000 I-10.514391 J-127.806682
G02 X116.243340 Y240.058879 Z-0.125000 I-9.784703 J-108.881681
G02 X117.205981 Y239.959103 Z-0.125000 I-9.907541 J-100.281724
G02 X118.168528 Y239.852105 Z-0.125000 I-19.896158 J-183.367301
G02 X119.130358 Y239.738379 Z-0.125000 I-12.571589 J-110.447395
G03 X120.092139 Y239.620804 Z-0.125000 I145.346395 J1184.962933
G02 X121.053726 Y239.501648 Z-0.125000 I-28.539533 J-234.253852
G03 X122.015332 Y239.383433 Z-0.125000 I20.059996 J159.205523
G03 X122.977359 Y239.269808 Z-0.125000 I33.180792 J276.801655
G03 X123.939443 Y239.159620 Z-0.125000 I31.190343 J268.076158
G03 X124.901912 Y239.052959 Z-0.125000 I28.987646 J257.178513
G03 X125.864433 Y238.949591 Z-0.125000 I34.576952 J317.433745
G03 X126.827275 Y238.849214 Z-0.125000 I32.012088 J302.399448
G03 X127.790163 Y238.751982 Z-0.125000 I30.021733 J292.489139
G03 X128.753362 Y238.657752 Z-0.125000 I32.480733 J327.040554
G03 X129.716605 Y238.566996 Z-0.125000 I22.026381 J228.621805
G03 X130.680195 Y238.479876 Z-0.125000 I26.651764 J289.409185
G03 X131.643833 Y238.397089 Z-0.125000 I15.257426 J171.945604
G03 X132.607877 Y238.319226 Z-0.125000 I17.352788 J208.844013
G03 X133.571974 Y238.246660 Z-0.125000 I11.974104 J152.644541
G03 X134.536483 Y238.180054 Z-0.125000 I11.486972 J159.323874
G03 X135.501043 Y238.118999 Z-0.125000 I11.759435 J178.127685
G03 X136.465927 Y238.063451 Z-0.125000 I9.723805 J160.497912
G03 X137.430850 Y238.012875 Z-0.125000 I12.335761 J226.117968
G03 X138.395999 Y237.967098 Z-0.125000 I8.554025 J170.155405
G03 X139.361174 Y237.924932 Z-0.125000 I23.938505 J536.885913
G00 Z3.000000

(End cutting path id: path250)


(Start cutting path id: path252)
(Change tool to Default tool)

G00 Z3.000000
G00 X10.198233 Y208.996176

G00 Z4.875000 (Fast pre-penetrate)
G01 Z-0.125000 F400.0(Penetrate)
G03 X10.775765 Y209.376195 Z-0.125000 I-55.101381 J84.368963 F800.000000
G02 X11.931938 Y210.128464 Z-0.125000 I44.431701 J-67.023069
G02 X12.805284 Y210.680763 Z-0.125000 I63.718976 J-99.791790
G02 X13.680481 Y211.219650 Z-0.125000 I35.763728 J-57.103075
G02 X14.563184 Y211.744806 Z-0.125000 I35.043054 J-57.897259
G02 X15.447650 Y212.256397 Z-0.125000 I54.811283 J-93.740477
G02 X16.337779 Y212.756800 Z-0.125000 I33.573604 J-58.679643
G03 X17.228824 Y213.249845 Z-0.125000 I-302.674941 J548.054233
G02 X18.121216 Y213.739797 Z-0.125000 I60.018267 J-108.258747
G03 X19.013187 Y214.233120 Z-0.125000 I-33.764914 J62.102937
G03 X19.900778 Y214.734956 Z-0.125000 I-115.110598 J204.630623
G03 X20.786502 Y215.251138 Z-0.125000 I-23.218976 J40.859788
G03 X21.663118 Y215.783414 Z-0.125000 I-36.902144 J61.762927
G03 X22.536485 Y216.338230 Z-0.125000 I-20.697520 J33.545902
G03 X23.396797 Y216.913778 Z-0.125000 I-26.849678 J41.064879
G03 X24.252464 Y217.517315 Z-0.125000 I-20.916150 J30.562297
G03 X25.091819 Y218.144307 Z-0.125000 I-23.440187 J32.254700
G03 X25.925442 Y218.801069 Z-0.125000 I-25.705505 J33.485237
G03 X26.741891 Y219.480005 Z-0.125000 I-24.114490 J29.829074
G03 X27.552558 Y220.185174 Z-0.125000 I-41.700890 J48.758158
G03 X28.349233 Y220.906211 Z-0.125000 I-31.460636 J35.561567
G03 X29.141276 Y221.646053 Z-0.125000 I-83.349867 J90.024666
G03 X29.924145 Y222.395420 Z-0.125000 I-47.735911 J50.653646
G03 X30.704228 Y223.155298 Z-0.125000 I-396.863737 J408.196557
G03 X31.480424 Y223.918569 Z-0.125000 I-100.900084 J103.385025
G02 X32.255602 Y224.685527 Z-0.125000 I546.510302 J-551.592226
G03 X33.029922 Y225.453927 Z-0.125000 I-174.845317 J176.966649
G02 X33.805143 Y226.219037 Z-0.125000 I78.141255 J-78.398706
G02 X34.585002 Y226.980185 Z-0.125000 I580.150472 J-593.631337
G02 X35.368432 Y227.727666 Z-0.125000 I35.381625 J-36.298997
G02 X36.164264 Y228.462091 Z-0.125000 I62.142836 J-66.540267
G02 X36.966130 Y229.171119 Z-0.125000 I23.547550 J-25.822845
G02 X37.786733 Y229.857709 Z-0.125000 I29.010644 J-33.839490
G02 X38.614328 Y230.510372 Z-0.125000 I19.670059 J-24.091132
G02 X39.462579 Y231.134693 Z-0.125000 I19.532225 J-25.649587
G02 X40.317089 Y231.722882 Z-0.125000 I19.650002 J-27.632362
G02 X41.189696 Y232.283159 Z-0.125000 I17.135848 J-25.728673
G02 X42.067070 Y232.809979 Z-0.125000 I20.306781 J-32.825189
G02 X42.958974 Y233.312226 Z-0.125000 I17.598559 J-30.208990
G02 X43.854426 Y233.783592 Z-0.125000 I17.681990 J-32.504160
G02 X44.762739 Y234.229314 Z-0.125000 I15.636149 J-30.715698
G02 X45.673781 Y234.646014 Z-0.125000 I17.079277 J-36.136641
G02 X46.595456 Y235.037930 Z-0.125000 I14.073219 J-31.816454
G02 X47.519107 Y235.404568 Z-0.125000 I19.176707 J-46.964102
G02 X48.450552 Y235.750456 Z-0.125000 I14.284089 J-37.038675
G02 X49.383298 Y236.076595 Z-0.125000 I24.877119 J-69.650646
G02 X50.321194 Y236.387481 Z-0.125000 I16.632813 J-48.608552
G02 X51.259879 Y236.684573 Z-0.125000 I38.221830 J-119.133500
G02 X52.201656 Y236.971855 Z-0.125000 I22.532465 J-72.179150
G02 X53.143874 Y237.250550 Z-0.125000 I70.841472 J-237.770491
G02 X54.087759 Y237.524217 Z-0.125000 I40.619303 J-138.332684
G02 X55.031910 Y237.792175 Z-0.125000 I59.938129 J-209.394271
G02 X55.977375 Y238.056262 Z-0.125000 I69.586399 J-247.303576
G02 X56.923104 Y238.313941 Z-0.125000 I29.366779 J-105.917337
G02 X57.870785 Y238.564569 Z-0.125000 I42.145678 J-157.445507
G02 X58.818815 Y238.805864 Z-0.125000 I19.604318 J-75.040667
G02 X59.769469 Y239.036186 Z-0.125000 I22.506275 J-90.817830
G02 X60.720518 Y239.255015 Z-0.125000 I17.806711 J-75.213243
G02 X61.674173 Y239.461342 Z-0.125000 I15.701777 J-70.267218
G02 X62.628170 Y239.657086 Z-0.125000 I25.438457 J-121.557044
G02 X63.583951 Y239.843094 Z-0.125000 I15.379589 J-76.477719
G03 X64.539919 Y240.023097 Z-0.125000 I-620.966307 J3300.487219
G02 X65.496445 Y240.199038 Z-0.125000 I20.700127 J-109.850649
G03 X66.452873 Y240.377821 Z-0.125000 I-11.867592 J66.135386
G03 X67.407749 Y240.565132 Z-0.125000 I-55.539639 J285.658022
G03 X68.362122 Y240.766247 Z-0.125000 I-7.686931 J38.842595
G03 X69.312423 Y240.987394 Z-0.125000 I-12.330123 J55.136610
G03 X70.261895 Y241.229622 Z-0.125000 I-9.204821 J38.062564
G03 X71.205425 Y241.495777 Z-0.125000 I-10.053882 J37.446939
G03 X72.148051 Y241.782714 Z-0.125000 I-17.671296 J59.744288
G03 X73.085135 Y242.088781 Z-0.125000 I-11.982637 J38.274752
G02 X74.021661 Y242.406683 Z-0.125000 I215.322279 J-632.792628
G03 X74.956488 Y242.730621 Z-0.125000 I-22.439240 J66.266433
G02 X75.891506 Y243.050334 Z-0.125000 I14.772809 J-41.676784
G02 X76.830823 Y243.356484 Z-0.125000 I47.900523 J-145.372072
G02 X77.771014 Y243.642100 Z-0.125000 I8.909938 J-27.639494
G02 X78.718772 Y243.900892 Z-0.125000 I11.771681 J-41.245880
G02 X79.667601 Y244.128025 Z-0.125000 I6.111235 J-23.433720
G02 X80.624118 Y244.319707 Z-0.125000 I6.101631 J-27.965487
G02 X81.581509 Y244.473489 Z-0.125000 I4.059539 J-22.216254
G02 X82.544405 Y244.586781 Z-0.125000 I3.220712 J-23.225014
G02 X83.507838 Y244.660567 Z-0.125000 I2.325703 J-24.040032
G02 X84.473394 Y244.694229 Z-0.125000 I1.262216 J-22.341018
G02 X85.439153 Y244.691434 Z-0.125000 I0.396368 J-29.894815
G02 X86.404110 Y244.654115 Z-0.125000 I-0.468387 J-24.605371
G02 X87.369014 Y244.587019 Z-0.125000 I-2.526391 J-43.303325
G02 X88.331778 Y244.496191 Z-0.125000 I-2.885553 J-35.734558
G02 X89.294196 Y244.380141 Z-0.125000 I-4.178278 J-38.699882
G02 X90.253354 Y244.239801 Z-0.125000 I-4.987261 J-37.433374
G02 X91.211976 Y244.075006 Z-0.125000 I-6.316329 J-39.612934
G02 X92.166205 Y243.885724 Z-0.125000 I-6.556823 J-35.555061
G02 X93.119831 Y243.674633 Z-0.125000 I-11.836744 J-55.733300
G02 X94.069059 Y243.444073 Z-0.125000 I-9.240013 J-40.110886
G02 X95.017788 Y243.198289 Z-0.125000 I-36.211292 J-141.729704
G02 X95.963705 Y242.941594 Z-0.125000 I-15.272767 J-58.151057
G03 X96.909419 Y242.679325 Z-0.125000 I50.597657 J180.613856
G02 X97.855092 Y242.416791 Z-0.125000 I-44.967304 J-163.811232
G03 X98.800960 Y242.159779 Z-0.125000 I15.825438 J56.372511
G03 X99.749704 Y241.914255 Z-0.125000 I33.580181 J127.803425
G03 X100.698946 Y241.683625 Z-0.125000 I10.788208 J42.333984
G03 X101.652396 Y241.471712 Z-0.125000 I13.001879 J56.247775
G03 X102.606428 Y241.280133 Z-0.125000 I8.411641 J39.417472
G03 X103.564539 Y241.110960 Z-0.125000 I7.944612 J42.196565
G03 X104.523165 Y240.963605 Z-0.125000 I7.228116 J43.830878
G03 X105.484795 Y240.838473 Z-0.125000 I5.607535 J39.335833
G03 X106.446800 Y240.732661 Z-0.125000 I7.401930 J62.869841
G03 X107.410475 Y240.644571 Z-0.125000 I4.580351 J44.792608
G03 X108.374369 Y240.569789 Z-0.125000 I13.021912 J161.593818
G03 X109.338920 Y240.504772 Z-0.125000 I5.036211 J67.527026
G02 X110.303544 Y240.445014 Z-0.125000 I-17.048917 J-283.022439
G03 X111.268214 Y240.385455 Z-0.125000 I16.051602 J252.143956
G02 X112.232862 Y240.324155 Z-0.125000 I-7.775162 J-129.974922
G02 X113.197217 Y240.257847 Z-0.125000 I-22.011007 J-327.164359
G02 X114.161501 Y240.185466 Z-0.125000 I-7.062556 J-100.548941
G02 X115.125178 Y240.104840 Z-0.125000 I-10.261337 J-128.447048
G02 X116.088755 Y240.016122 Z-0.125000 I-9.184754 J-105.034513
G02 X117.051506 Y239.918284 Z-0.125000 I-9.553095 J-98.790762
G02 X118.014160 Y239.812915 Z-0.125000 I-17.857254 J-167.593219
G02 X118.976061 Y239.700414 Z-0.125000 I-11.934230 J-106.208295
G03 X119.937903 Y239.583606 Z-0.125000 I540.870164 J4449.709502
G02 X120.899493 Y239.464597 Z-0.125000 I-24.362107 J-200.788879
G03 X121.861091 Y239.346159 Z-0.125000 I20.342815 J161.200406
G03 X122.823089 Y239.232107 Z-0.125000 I36.966952 J307.693104
G03 X123.785138 Y239.121393 Z-0.125000 I30.152440 J257.773917
G03 X124.747581 Y239.014287 Z-0.125000 I28.924883 J255.538984
G03 X125.710075 Y238.910480 Z-0.125000 I34.857411 J318.683184
G03 X126.672892 Y238.809664 Z-0.125000 I32.024266 J301.191999
G03 X127.635755 Y238.711974 Z-0.125000 I30.653503 J297.335801
G03 X128.598926 Y238.617246 Z-0.125000 I32.876423 J329.334283
G03 X129.562139 Y238.525949 Z-0.125000 I22.520863 J232.474747
G03 X130.525698 Y238.438216 Z-0.125000 I27.318955 J294.707680
G03 X131.489303 Y238.354763 Z-0.125000 I15.513641 J173.526154
G03 X132.453315 Y238.276151 Z-0.125000 I18.014949 J214.963166
G03 X133.417378 Y238.202850 Z-0.125000 I11.796377 J148.772694
G03 X134.381865 Y238.135600 Z-0.125000 I11.568158 J158.957161
G03 X135.346405 Y238.074059 Z-0.125000 I11.224673 J168.337654
G03 X136.311285 Y238.018267 Z-0.125000 I9.488497 J155.723842
G03 X137.276204 Y237.967734 Z-0.125000 I11.284366 J206.235764
G03 X138.241368 Y237.922350 Z-0.125000 I8.058577 J161.092046
G03 X139.206560 Y237.880953 Z-0.125000 I18.806835 J427.225222
G03 X140.171874 Y237.842963 Z-0.125000 I8.401970 J201.207183
G02 X141.137203 Y237.806508 Z-0.125000 I-22.007228 J-595.543168
G03 X142.102532 Y237.770300 Z-0.125000 I17.660265 J457.944865
G02 X143.067847 Y237.731991 Z-0.125000 I-5.452240 J-149.567698
G02 X144.032987 Y237.689122 Z-0.125000 I-13.849749 J-322.698616
G02 X144.998086 Y237.640807 Z-0.125000 I-5.356844 J-116.667533
G02 X145.962816 Y237.584893 Z-0.125000 I-6.999998 J-129.127125
G02 X146.927502 Y237.522756 Z-0.125000 I-11.052349 J-179.107188
G02 X147.891807 Y237.455462 Z-0.125000 I-12.194211 J-181.684104
G02 X148.856050 Y237.381868 Z-0.125000 I-9.075357 J-125.260129
G02 X149.819763 Y237.302033 Z-0.125000 I-14.691409 J-183.200623
G02 X150.783354 Y237.213532 Z-0.125000 I-6.537427 J-76.469467
G02 X151.745967 Y237.115084 Z-0.125000 I-11.758589 J-119.729199
G02 X152.708347 Y237.003541 Z-0.125000 I-5.420545 J-50.975047
G02 X153.668838 Y236.876532 Z-0.125000 I-9.095779 J-72.481079
G02 X154.628896 Y236.730949 Z-0.125000 I-5.394277 J-38.811399
G02 X155.585622 Y236.564692 Z-0.125000 I-8.585800 J-52.242848
G02 X156.541569 Y236.373579 Z-0.125000 I-5.460903 J-29.801883
G02 X157.491773 Y236.155317 Z-0.125000 I-8.344284 J-38.504396
G02 X158.440611 Y235.904918 Z-0.125000 I-5.828192 J-24.007664
G00 Z3.000000

(End cutting path id: path252)


(Start cutting path id: path254)
(Change tool to Default tool)

G00 Z3.000000
G00 X10.198233 Y208.334719

G00 Z4.875000 (Fast pre-penetrate)
G01 Z-0.125000 F400.0(Penetrate)
G03 X10.777443 Y208.710040 Z-0.125000 I-59.575811 J92.574069 F800.000000
G02 X11.936852 Y209.453600 Z-0.125000 I47.990111 J-73.553763
G02 X12.812001 Y210.000573 Z-0.125000 I72.231517 J-114.595893
G02 X13.688858 Y210.534911 Z-0.125000 I36.031342 J-58.141299
G02 X14.572919 Y211.055909 Z-0.125000 I36.359062 J-60.685688
G02 X15.458675 Y211.563642 Z-0.125000 I53.504651 J-92.314089
G02 X16.350033 Y212.060161 Z-0.125000 I33.627719 J-59.320632
G03 X17.242298 Y212.549288 Z-0.125000 I-348.286576 J636.402772
G02 X18.135972 Y213.035123 Z-0.125000 I58.221501 J-106.031187
G03 X19.029243 Y213.524231 Z-0.125000 I-33.439079 J62.130929
G03 X19.918183 Y214.021890 Z-0.125000 I-113.495658 J203.773492
G03 X20.805299 Y214.533761 Z-0.125000 I-23.267232 J41.348802
G03 X21.683464 Y215.061621 Z-0.125000 I-36.783501 J62.188580
G03 X22.558474 Y215.611714 Z-0.125000 I-20.850168 J34.136470
G03 X23.420738 Y216.182203 Z-0.125000 I-27.140280 J41.957938
G03 X24.278482 Y216.780372 Z-0.125000 I-20.756397 J30.677724
G03 X25.120166 Y217.401836 Z-0.125000 I-23.603529 J32.848322
G03 X25.956182 Y218.053178 Z-0.125000 I-24.774197 J32.660568
G03 X26.774903 Y218.727063 Z-0.125000 I-23.886117 J29.854165
G03 X27.587712 Y219.428059 Z-0.125000 I-37.953181 J44.828648
G03 X28.385622 Y220.146530 Z-0.125000 I-28.927408 J32.928126
G03 X29.178842 Y220.884290 Z-0.125000 I-94.655372 J102.566333
G03 X29.963267 Y221.630882 Z-0.125000 I-48.573339 J51.820082
G03 X30.745041 Y222.387568 Z-0.125000 I-487.104021 J504.036251
G03 X31.523298 Y223.147071 Z-0.125000 I-113.501248 J117.082382
G02 X32.300492 Y223.910460 Z-0.125000 I3837.249140 J-3905.862923
G03 X33.076312 Y224.675790 Z-0.125000 I-169.248479 J172.344271
G02 X33.852620 Y225.439335 Z-0.125000 I102.538137 J-103.475713
G03 X34.632115 Y226.200459 Z-0.125000 I-3739.131079 J3830.159991
G02 X35.414530 Y226.950487 Z-0.125000 I40.675071 J-41.648340
G02 X36.207477 Y227.689689 Z-0.125000 I80.326089 J-85.371479
G02 X37.005894 Y228.406263 Z-0.125000 I25.484978 J-27.592633
G02 X37.821650 Y229.102545 Z-0.125000 I33.266359 J-38.148455
G02 X38.644192 Y229.766838 Z-0.125000 I20.432587 J-24.458666
G02 X39.486991 Y230.404037 Z-0.125000 I21.082335 J-27.008857
G02 X40.336168 Y231.005764 Z-0.125000 I19.873097 J-27.145522
G02 X41.203842 Y231.579394 Z-0.125000 I17.440350 J-25.437251
G02 X42.076450 Y232.120061 Z-0.125000 I21.926115 J-34.413124
G02 X42.963433 Y232.637480 Z-0.125000 I18.869479 J-31.327929
G02 X43.854080 Y233.124682 Z-0.125000 I18.498760 J-32.759604
G02 X44.757769 Y233.586973 Z-0.125000 I16.713026 J-31.556343
G02 X45.664346 Y234.020288 Z-0.125000 I17.416881 J-35.274393
G02 X46.582070 Y234.428758 Z-0.125000 I14.708914 J-31.811883
G02 X47.501941 Y234.811354 Z-0.125000 I19.079164 J-44.574644
G02 X48.430220 Y235.172528 Z-0.125000 I14.545779 J-36.011594
G02 X49.359949 Y235.513018 Z-0.125000 I24.179753 J-64.584871
G02 X50.295358 Y235.837356 Z-0.125000 I16.495472 J-46.062823
G02 X51.231662 Y236.146985 Z-0.125000 I36.708402 J-109.433915
G02 X52.171415 Y236.446060 Z-0.125000 I21.859570 J-67.061081
G02 X53.111669 Y236.735944 Z-0.125000 I70.650263 J-227.488264
G02 X54.053767 Y237.020320 Z-0.125000 I37.509925 J-122.562364
G02 X54.996143 Y237.299088 Z-0.125000 I82.150552 J-275.978323
G02 X55.939713 Y237.574600 Z-0.125000 I76.393188 J-259.876187
G02 X56.883525 Y237.844724 Z-0.125000 I38.796182 J-133.769962
G02 X57.828986 Y238.109385 Z-0.125000 I58.241063 J-206.235989
G02 X58.774772 Y238.366167 Z-0.125000 I23.641396 J-85.206603
G02 X59.722968 Y238.613614 Z-0.125000 I29.270455 J-110.221393
G02 X60.671562 Y238.850671 Z-0.125000 I19.941707 J-77.781124
G02 X61.622798 Y239.076101 Z-0.125000 I18.931920 J-77.766496
G02 X62.574409 Y239.291173 Z-0.125000 I25.411158 J-110.221902
G02 X63.528036 Y239.496256 Z-0.125000 I17.196491 J-77.643322
G02 X64.481899 Y239.694593 Z-0.125000 I144.883212 J-694.392713
G02 X65.436600 Y239.887665 Z-0.125000 I20.678582 J-99.794711
G03 X66.391254 Y240.082075 Z-0.125000 I-15.365780 J77.894929
G03 X67.344598 Y240.283040 Z-0.125000 I-137.917878 J656.620672
G03 X68.297469 Y240.496026 Z-0.125000 I-8.847621 J41.821138
G03 X69.246461 Y240.727178 Z-0.125000 I-14.736465 J62.563907
G03 X70.194635 Y240.977929 Z-0.125000 I-9.959475 J39.578159
G03 X71.137022 Y241.251335 Z-0.125000 I-11.099600 J40.019487
G03 X72.078492 Y241.544711 Z-0.125000 I-18.105225 J59.758554
G03 X73.014441 Y241.856807 Z-0.125000 I-12.662518 J39.533309
G02 X73.949814 Y242.180716 Z-0.125000 I429.018925 J-1237.392617
G03 X74.883329 Y242.511074 Z-0.125000 I-22.651444 J65.491765
G02 X75.817026 Y242.837744 Z-0.125000 I15.700483 J-43.377881
G02 X76.754879 Y243.151688 Z-0.125000 I56.194982 J-166.314805
G02 X77.693616 Y243.445671 Z-0.125000 I9.264038 J-27.935854
G02 X78.640016 Y243.713355 Z-0.125000 I12.493842 J-42.365333
G02 X79.587527 Y243.949699 Z-0.125000 I6.363407 J-23.493621
G02 X80.543017 Y244.150918 Z-0.125000 I6.455003 J-28.282461
G02 X81.499433 Y244.314273 Z-0.125000 I4.265659 J-22.093166
G02 X82.461758 Y244.437116 Z-0.125000 I3.456606 J-23.247623
G02 X83.424671 Y244.520227 Z-0.125000 I2.535712 J-23.758657
G02 X84.390104 Y244.562883 Z-0.125000 I1.464607 J-22.201711
G02 X85.355786 Y244.568675 Z-0.125000 I0.658976 J-29.365496
G02 X86.320946 Y244.539393 Z-0.125000 I-0.253504 J-24.276399
G02 X87.286088 Y244.479905 Z-0.125000 I-2.140076 J-42.579983
G02 X88.249250 Y244.396202 Z-0.125000 I-2.553813 J-34.969814
G02 X89.212094 Y244.287056 Z-0.125000 I-3.918409 J-38.868081
G02 X90.171842 Y244.153661 Z-0.125000 I-4.720733 J-37.484194
G02 X91.131082 Y243.995670 Z-0.125000 I-5.936813 J-39.036255
G02 X92.086044 Y243.812909 Z-0.125000 I-6.268574 J-35.340691
G02 X93.040416 Y243.607998 Z-0.125000 I-11.090799 J-53.980423
G02 X93.990410 Y243.383139 Z-0.125000 I-8.840139 J-39.467422
G02 X94.939903 Y243.142538 Z-0.125000 I-32.138174 J-128.821987
G02 X95.886481 Y242.890417 Z-0.125000 I-14.463881 J-56.206913
G03 X96.832843 Y242.632094 Z-0.125000 I57.257814 J207.900950
G02 X97.778985 Y242.372847 Z-0.125000 I-39.552318 J-146.205068
G03 X98.725302 Y242.118496 Z-0.125000 I16.162444 J58.245205
G03 X99.674318 Y241.875065 Z-0.125000 I36.551320 J140.523743
G03 X100.623810 Y241.646036 Z-0.125000 I10.856439 J42.925036
G00 Z3.000000

(End cutting path id: path254)


(Start cutting path id: path256)
(Change tool to Default tool)

G00 Z3.000000
G00 X10.198233 Y207.673261

G00 Z4.875000 (Fast pre-penetrate)
G01 Z-0.125000 F400.0(Penetrate)
G03 X10.779389 Y208.043056 Z-0.125000 I-65.304390 J103.271502 F800.000000
G02 X11.942567 Y208.776294 Z-0.125000 I52.551592 J-82.076401
G02 X12.819884 Y209.316797 Z-0.125000 I83.848713 J-135.116664
G02 X13.698751 Y209.845551 Z-0.125000 I36.624370 J-59.880375
G02 X14.584439 Y210.361479 Z-0.125000 I38.100782 J-64.389010
G02 X15.471732 Y210.864595 Z-0.125000 I52.898537 J-92.257626
G02 X16.364491 Y211.356603 Z-0.125000 I33.995690 J-60.629973
G03 X17.258130 Y211.841314 Z-0.125000 I-384.954559 J710.788578
G02 X18.153189 Y212.322628 Z-0.125000 I57.301044 J-105.484840
G03 X19.047854 Y212.807200 Z-0.125000 I-33.036115 J62.062741
G03 X19.938212 Y213.300404 Z-0.125000 I-109.821337 J199.305672
G03 X20.826790 Y213.807716 Z-0.125000 I-23.332734 J41.900166
G03 X21.706575 Y214.330916 Z-0.125000 I-36.544287 J62.452121
G03 X22.583308 Y214.876001 Z-0.125000 I-21.090066 J34.899598
G03 X23.447642 Y215.441095 Z-0.125000 I-27.447973 J42.926354
G03 X24.307607 Y216.033420 Z-0.125000 I-20.746462 J31.041140
G03 X25.151876 Y216.648737 Z-0.125000 I-23.865031 J33.631764
G03 X25.990599 Y217.293808 Z-0.125000 I-24.109073 J32.214425
G03 X26.812090 Y217.961583 Z-0.125000 I-23.829471 J30.154011
G03 X27.627626 Y218.657083 Z-0.125000 I-35.056548 J41.932872
G03 X28.427658 Y219.371099 Z-0.125000 I-27.669956 J31.808491
G03 X29.222798 Y220.105471 Z-0.125000 I-84.529023 J92.321275
G03 X30.008395 Y220.849817 Z-0.125000 I-43.756750 J46.968468
G03 X30.791326 Y221.604448 Z-0.125000 I-3080.029087 J3196.321052
G03 X31.571378 Y222.360718 Z-0.125000 I-134.368302 J139.374070
G03 X32.350406 Y223.120760 Z-0.125000 I-1128.803518 J1157.781256
G03 X33.127784 Y223.882988 Z-0.125000 I-176.060658 J180.337518
G02 X33.905329 Y224.644602 Z-0.125000 I142.947718 J-145.160366
G03 X34.684828 Y225.405095 Z-0.125000 I-556.991024 J571.690848
G02 X35.466632 Y226.156863 Z-0.125000 I47.825272 J-48.953644
G02 X36.257128 Y226.899947 Z-0.125000 I109.534942 J-115.731751
G02 X37.052489 Y227.623232 Z-0.125000 I27.971029 J-29.959424
G02 X37.863598 Y228.328506 Z-0.125000 I38.958954 J-43.986175
G02 X38.681196 Y229.004022 Z-0.125000 I21.458229 J-25.139018
G02 X39.518399 Y229.654008 Z-0.125000 I23.122072 J-28.917813
G02 X40.362036 Y230.269475 Z-0.125000 I20.173023 J-26.765780
G02 X41.224445 Y230.857092 Z-0.125000 I18.142100 J-25.699335
G02 X42.092002 Y231.411844 Z-0.125000 I22.433568 J-34.127354
G02 X42.974294 Y231.943286 Z-0.125000 I19.191413 J-30.863174
G02 X43.860411 Y232.444839 Z-0.125000 I19.857666 J-34.049904
G02 X44.759552 Y232.922695 Z-0.125000 I17.970704 J-32.729104
G02 X45.661708 Y233.371890 Z-0.125000 I17.882507 J-34.784378
G02 X46.575398 Y233.796438 Z-0.125000 I15.485978 J-32.132656
G02 X47.491392 Y234.194746 Z-0.125000 I19.113026 J-42.702058
G02 X48.416356 Y234.571162 Z-0.125000 I14.927013 J-35.355353
G02 X49.342917 Y234.926101 Z-0.125000 I23.672289 J-60.409214
G02 X50.275685 Y235.264087 Z-0.125000 I16.490356 J-44.053722
G02 X51.209455 Y235.586511 Z-0.125000 I35.430584 J-101.096908
G02 X52.147048 Y235.897656 Z-0.125000 I21.355318 J-62.783049
G02 X53.085206 Y236.199007 Z-0.125000 I70.032454 J-216.412022
G02 X54.025398 Y236.494347 Z-0.125000 I35.019464 J-109.837634
G02 X54.965883 Y236.784170 Z-0.125000 I124.993673 J-403.938354
G02 X55.907436 Y237.071311 Z-0.125000 I82.297625 J-268.171071
G02 X56.849198 Y237.354121 Z-0.125000 I56.555636 J-186.621901
G02 X57.792250 Y237.633129 Z-0.125000 I90.054780 J-302.653497
G02 X58.735580 Y237.905845 Z-0.125000 I29.689353 J-100.928019
G02 X59.681026 Y238.171052 Z-0.125000 I40.927281 J-144.085608
G02 X60.626845 Y238.427161 Z-0.125000 I22.688349 J-81.914241
G02 X61.575288 Y238.672723 Z-0.125000 I23.522936 J-88.899318
G02 X62.524122 Y238.908298 Z-0.125000 I25.737651 J-101.635938
G02 X63.475210 Y239.133752 Z-0.125000 I19.444574 J-79.908609
G02 X64.426577 Y239.351765 Z-0.125000 I71.115266 J-308.149320
G02 X65.379126 Y239.563313 Z-0.125000 I20.880233 J-91.768024
G03 X66.331686 Y239.774637 Z-0.125000 I-20.838509 J96.183633
G02 X67.283240 Y239.990435 Z-0.125000 I424.347464 J-1868.941241
G03 X68.234374 Y240.216338 Z-0.125000 I-10.353630 J45.707953
G03 X69.181878 Y240.458379 Z-0.125000 I-18.187348 J73.172502
G03 X70.128587 Y240.718373 Z-0.125000 I-10.895399 J41.526659
G03 X71.069712 Y240.999578 Z-0.125000 I-12.432953 J43.325605
G03 X72.009920 Y241.299787 Z-0.125000 I-18.724688 J60.265311
G03 X72.944673 Y241.618163 Z-0.125000 I-13.505100 J41.182275
G02 X73.878831 Y241.948216 Z-0.125000 I3761.723047 J-10645.445302
G03 X74.811004 Y242.285053 Z-0.125000 I-23.030553 J65.193771
G02 X75.743343 Y242.618675 Z-0.125000 I16.695804 J-45.188459
G02 X76.679696 Y242.940363 Z-0.125000 I66.437398 J-191.858560
G02 X77.616950 Y243.242664 Z-0.125000 I9.640086 J-28.284040
G02 X78.561939 Y243.519228 Z-0.125000 I13.263311 J-43.566644
G02 X79.508086 Y243.764806 Z-0.125000 I6.627219 J-23.587507
G02 X80.462477 Y243.975634 Z-0.125000 I6.830580 J-28.655477
G02 X81.417854 Y244.148676 Z-0.125000 I4.475223 J-21.984173
G02 X82.379544 Y244.281226 Z-0.125000 I3.700991 J-23.296900
G02 X83.341878 Y244.373844 Z-0.125000 I2.746399 J-23.490164
G02 X84.307136 Y244.425703 Z-0.125000 I1.670013 J-22.075075
G02 X85.272686 Y244.440299 Z-0.125000 I0.919139 J-28.857888
G02 X86.238019 Y244.419280 Z-0.125000 I-0.039448 J-23.988705
G02 X87.203369 Y244.367629 Z-0.125000 I-1.752060 J-41.792979
G02 X88.166910 Y244.291235 Z-0.125000 I-2.225274 J-34.181774
G02 X89.130158 Y244.189165 Z-0.125000 I-3.652908 J-39.069003
G02 X90.090491 Y244.062905 Z-0.125000 I-4.446755 J-37.537107
G02 X91.050332 Y243.911906 Z-0.125000 I-5.560304 J-38.470922
G02 X92.006023 Y243.735862 Z-0.125000 I-5.979018 J-35.140491
G02 X92.961145 Y243.537333 Z-0.125000 I-10.377778 J-52.324225
G02 X93.911907 Y243.318379 Z-0.125000 I-8.448517 J-38.859554
G02 X94.862174 Y243.083163 Z-0.125000 I-28.678906 J-117.899483
G02 X95.809434 Y242.835819 Z-0.125000 I-13.687677 J-54.357593
G03 X96.756461 Y242.581641 Z-0.125000 I66.350791 J245.321026
G02 X97.703101 Y242.325877 Z-0.125000 I-35.142440 J-131.949782
G03 X98.649886 Y242.074377 Z-0.125000 I16.530057 J60.320451
G03 X99.599197 Y241.833217 Z-0.125000 I40.276139 J156.555305
G03 X100.548959 Y241.605951 Z-0.125000 I10.923688 J43.552858
G03 X101.502694 Y241.396662 Z-0.125000 I13.585000 J59.629438
G03 X102.456984 Y241.207037 Z-0.125000 I8.456971 J40.063633
G03 X103.415222 Y241.039300 Z-0.125000 I8.119080 J43.561317
G03 X104.373954 Y240.893025 Z-0.125000 I7.182997 J43.864353
G03 X105.335651 Y240.768795 Z-0.125000 I5.643063 J39.900054
G03 X106.297710 Y240.663859 Z-0.125000 I7.217065 J61.703750
G03 X107.261441 Y240.576790 Z-0.125000 I4.527761 J44.739142
G03 X108.225388 Y240.503257 Z-0.125000 I11.955392 J150.367657
G03 X109.190003 Y240.439877 Z-0.125000 I4.810764 J65.845488
G02 X110.154693 Y240.382059 Z-0.125000 I-17.898588 J-306.716041
G03 X111.119440 Y240.324763 Z-0.125000 I14.027053 J228.036298
G02 X112.084172 Y240.265891 Z-0.125000 I-7.380521 J-128.878432
G02 X113.048626 Y240.202040 Z-0.125000 I-22.054616 J-340.440906
G02 X114.013006 Y240.132108 Z-0.125000 I-6.708197 J-99.192387
G02 X114.976798 Y240.053868 Z-0.125000 I-9.959638 J-128.662799
G02 X115.940488 Y239.967392 Z-0.125000 I-8.626131 J-101.542037
G02 X116.903350 Y239.871563 Z-0.125000 I-9.195291 J-97.277787
G02 X117.866112 Y239.767896 Z-0.125000 I-16.158858 J-154.590062
G02 X118.828088 Y239.656703 Z-0.125000 I-11.342982 J-102.349797
G02 X119.790001 Y239.540754 Z-0.125000 I-317.759052 J-2640.175498
G02 X120.751600 Y239.422013 Z-0.125000 I-21.366288 J-176.984366
G03 X121.713199 Y239.303463 Z-0.125000 I20.834881 J165.039075
G03 X122.675170 Y239.189032 Z-0.125000 I42.575712 J353.814078
G03 X123.637189 Y239.077818 Z-0.125000 I29.051980 J247.089613
G03 X124.599606 Y238.970302 Z-0.125000 I28.812513 J253.550312
G03 X125.562075 Y238.866091 Z-0.125000 I35.187063 J320.482730
G03 X126.524869 Y238.764869 Z-0.125000 I32.032661 J300.053536
G03 X127.487705 Y238.666752 Z-0.125000 I31.294399 J302.323851
G03 X128.450850 Y238.571559 Z-0.125000 I33.314416 J332.150354
G03 X129.414038 Y238.479750 Z-0.125000 I23.044441 J236.664978
G03 X130.377565 Y238.391445 Z-0.125000 I28.069894 J300.979490
G03 X131.341139 Y238.307363 Z-0.125000 I15.755024 J174.989524
G03 X132.305119 Y238.228041 Z-0.125000 I18.629751 J220.504265
G03 X133.269153 Y238.154045 Z-0.125000 I11.659430 J145.585431
G03 X134.233618 Y238.086168 Z-0.125000 I11.671246 J158.948763
G03 X135.198138 Y238.024151 Z-0.125000 I10.748734 J159.639730
G03 X136.163014 Y237.968126 Z-0.125000 I9.276153 J151.419130
G03 X137.127932 Y237.917648 Z-0.125000 I10.384270 J189.255987
G03 X138.093108 Y237.872680 Z-0.125000 I7.609247 J152.940328
G03 X139.058316 Y237.832085 Z-0.125000 I15.314481 J352.628772
G03 X140.023664 Y237.795336 Z-0.125000 I7.464718 J183.390043
G02 X140.989024 Y237.760552 Z-0.125000 I-28.606969 J-807.353195
G03 X141.954399 Y237.726450 Z-0.125000 I13.566614 J370.365189
G02 X142.919765 Y237.690644 Z-0.125000 I-5.356728 J-157.455105
G02 X143.884982 Y237.650732 Z-0.125000 I-16.438882 J-409.240694
G02 X144.850157 Y237.605486 Z-0.125000 I-4.732031 J-111.258318
G02 X145.814982 Y237.552397 Z-0.125000 I-6.529493 J-127.460362
G02 X146.779758 Y237.492905 Z-0.125000 I-10.022385 J-170.385733
G02 X147.744158 Y237.427977 Z-0.125000 I-11.070070 J-171.622450
G02 X148.708494 Y237.356608 Z-0.125000 I-8.809727 J-125.587168
G00 Z3.000000

(End cutting path id: path256)


(Start cutting path id: path258)
(Change tool to Default tool)

G00 Z3.000000
G00 X10.198233 Y206.350346

G00 Z4.875000 (Fast pre-penetrate)
G01 Z-0.125000 F400.0(Penetrate)
G03 X10.783973 Y206.706662 Z-0.125000 I-90.854372 J150.012883 F800.000000
G02 X11.956018 Y207.414938 Z-0.125000 I73.040203 J-119.542132
G02 X12.838259 Y207.940381 Z-0.125000 I172.398820 J-288.461467
G02 X13.721703 Y208.456152 Z-0.125000 I36.271805 J-61.114073
G02 X14.611320 Y208.959601 Z-0.125000 I40.651402 J-70.795028
G02 X15.502347 Y209.451277 Z-0.125000 I55.185541 J-98.955444
G02 X16.398346 Y209.932539 Z-0.125000 I35.650400 J-65.298119
G03 X17.295119 Y210.407112 Z-0.125000 I-355.478212 J672.810786
G02 X18.193152 Y210.878456 Z-0.125000 I58.469195 J-110.307848
G03 X19.090772 Y211.353335 Z-0.125000 I-31.929169 J61.438529
G03 X19.984045 Y211.837189 Z-0.125000 I-97.256542 J180.618069
G03 X20.875609 Y212.335084 Z-0.125000 I-23.463680 J43.062858
G03 X21.758662 Y212.848727 Z-0.125000 I-35.688102 J62.370614
G03 X22.638872 Y213.383531 Z-0.125000 I-21.769927 J36.821964
G03 X23.507426 Y213.937485 Z-0.125000 I-28.033959 J44.912759
G03 X24.371967 Y214.517470 Z-0.125000 I-21.164757 J32.483103
G03 X25.221793 Y215.119468 Z-0.125000 I-24.655954 J35.707093
G03 X26.066460 Y215.750300 Z-0.125000 I-23.561925 J32.429654
G03 X26.894549 Y216.403522 Z-0.125000 I-24.205215 J31.536437
G03 X27.716849 Y217.084775 Z-0.125000 I-31.409795 J38.749797
G03 X28.523246 Y217.785511 Z-0.125000 I-26.877807 J31.744924
G03 X29.324401 Y218.508742 Z-0.125000 I-59.122487 J66.298079
G03 X30.113971 Y219.244990 Z-0.125000 I-36.167899 J39.578777
G03 X30.900337 Y219.993910 Z-0.125000 I-783.516243 J823.480428
G03 X31.682805 Y220.745554 Z-0.125000 I-98.023729 J102.826650
G02 X32.464057 Y221.501747 Z-0.125000 I14431.415970 J-14908.838250
G03 X33.243989 Y222.259013 Z-0.125000 I-239.383698 J247.329209
G02 X34.023734 Y223.016974 Z-0.125000 I379.337925 J-389.459874
G03 X34.803703 Y223.775581 Z-0.125000 I-295.679615 J304.786375
G02 X35.584951 Y224.529391 Z-0.125000 I71.923589 J-73.759694
G02 X36.371534 Y225.278317 Z-0.125000 I271.437344 J-284.298279
G02 X37.161717 Y226.012996 Z-0.125000 I35.436560 J-37.321500
G02 X37.964137 Y226.734348 Z-0.125000 I57.806419 J-63.495884
G02 X38.772215 Y227.431065 Z-0.125000 I24.535595 J-27.640308
G02 X39.597871 Y228.106097 Z-0.125000 I29.189942 J-34.860830
G02 X40.429870 Y228.749514 Z-0.125000 I21.354403 J-26.753612
G02 X41.280585 Y229.366772 Z-0.125000 I20.696963 J-27.630062
G02 X42.136870 Y229.951435 Z-0.125000 I22.278380 J-31.708992
G02 X43.009096 Y230.511982 Z-0.125000 I19.756489 J-29.782766
G02 X43.885658 Y231.041925 Z-0.125000 I20.944255 J-33.653317
G02 X44.776102 Y231.548052 Z-0.125000 I18.524958 J-31.555126
G02 X45.669910 Y232.025549 Z-0.125000 I19.999879 J-36.361718
G02 X46.575577 Y232.479939 Z-0.125000 I17.376547 J-33.504310
G02 X47.483814 Y232.908052 Z-0.125000 I19.708213 J-40.633244
G02 X48.401864 Y233.314060 Z-0.125000 I16.104621 J-35.174233
G02 X49.321785 Y233.697563 Z-0.125000 I23.184274 J-54.317859
G02 X50.248874 Y234.062941 Z-0.125000 I16.887964 J-41.491657
G02 X51.177187 Y234.411326 Z-0.125000 I33.482006 J-87.805806
G02 X52.110079 Y234.747121 Z-0.125000 I20.861664 J-56.493263
G02 X53.043674 Y235.071979 Z-0.125000 I67.600326 J-192.769674
G02 X53.979729 Y235.389794 Z-0.125000 I31.469744 J-91.149830
G02 X54.916104 Y235.702194 Z-0.125000 I903.291995 J-2705.928932
G02 X55.853299 Y236.012875 Z-0.125000 I89.663816 J-268.909434
G02 X56.790619 Y236.321345 Z-0.125000 I362.994138 J-1101.420228
G02 X57.728354 Y236.629373 Z-0.125000 I1208.987395 J-3678.960903
G02 X58.666235 Y236.934574 Z-0.125000 I58.249476 J-177.406287
G02 X59.605329 Y237.236306 Z-0.125000 I139.079045 J-431.249898
G02 X60.544724 Y237.532043 Z-0.125000 I31.268099 J-97.682091
G02 X61.486413 Y237.819991 Z-0.125000 I42.232707 J-136.431643
G02 X62.428518 Y238.099192 Z-0.125000 I27.375150 J-90.642457
G02 X63.373277 Y238.368470 Z-0.125000 I26.046271 J-89.591272
G02 X64.318426 Y238.629147 Z-0.125000 I40.201739 J-143.917642
G02 X65.265571 Y238.881093 Z-0.125000 I22.012585 J-80.845979
G03 X66.212875 Y239.129589 Z-0.125000 I-51.227696 J197.216857
G02 X67.160043 Y239.378186 Z-0.125000 I55.145581 J-208.179454
G03 X68.106927 Y239.632694 Z-0.125000 I-15.084874 J58.011125
G03 X69.050903 Y239.898849 Z-0.125000 I-32.345473 J116.527262
G03 X69.994168 Y240.179193 Z-0.125000 I-13.518286 J47.211683
G03 X70.932437 Y240.477393 Z-0.125000 I-16.454563 J53.398426
G03 X71.869824 Y240.792210 Z-0.125000 I-20.586660 J62.850967
G03 X72.802022 Y241.123704 Z-0.125000 I-15.833613 J46.002353
G03 X73.733599 Y241.466265 Z-0.125000 I-313.185188 J853.131197
G03 X74.663017 Y241.816045 Z-0.125000 I-24.414751 J66.283347
G02 X75.592562 Y242.163446 Z-0.125000 I19.106309 J-49.705602
G02 X76.525806 Y242.500596 Z-0.125000 I101.484135 J-279.451622
G02 X77.459968 Y242.819506 Z-0.125000 I10.415146 J-28.980757
G02 X78.401988 Y243.113739 Z-0.125000 I14.874467 J-45.967282
G02 X79.345262 Y243.377771 Z-0.125000 I7.205856 J-23.926438
G02 X80.297255 Y243.608027 Z-0.125000 I7.661753 J-29.594442
G02 X81.250347 Y243.800797 Z-0.125000 I4.912805 J-21.837284
G02 X82.210557 Y243.953270 Z-0.125000 I4.223035 J-23.495155
G02 X83.171521 Y244.065507 Z-0.125000 I3.172711 J-22.994515
G02 X84.136266 Y244.136469 Z-0.125000 I2.094538 J-21.882241
G02 X85.101397 Y244.169409 Z-0.125000 I1.434375 J-27.871595
G02 X86.066970 Y244.165708 Z-0.125000 I0.393173 J-23.380829
G02 X87.032631 Y244.130436 Z-0.125000 I-0.983166 J-40.153044
G02 X87.996856 Y244.069240 Z-0.125000 I-1.581102 J-32.539672
G02 X88.960854 Y243.981867 Z-0.125000 I-3.104670 J-39.615714
G02 X89.922300 Y243.870471 Z-0.125000 I-3.878831 J-37.682516
G02 X90.883303 Y243.734077 Z-0.125000 I-4.820991 J-37.421420
G02 X91.840444 Y243.572097 Z-0.125000 I-5.392172 J-34.771265
G02 X92.797045 Y243.386971 Z-0.125000 I-9.041566 J-49.284414
G02 X93.749370 Y243.180452 Z-0.125000 I-7.676348 J-37.697230
G02 X94.701207 Y242.956626 Z-0.125000 I-23.133211 J-100.511456
G02 X95.649872 Y242.719417 Z-0.125000 I-12.239280 J-50.963762
G03 X96.598277 Y242.474077 Z-0.125000 I101.581422 J390.726149
G02 X97.545960 Y242.225801 Z-0.125000 I-28.365646 J-110.205768
G03 X98.493742 Y241.980469 Z-0.125000 I17.417880 J65.336366
G03 X99.443682 Y241.744227 Z-0.125000 I51.647536 J205.649204
G03 X100.394025 Y241.520814 Z-0.125000 I11.068725 J44.950641
G03 X101.348097 Y241.314598 Z-0.125000 I14.266151 J63.693168
G03 X102.302687 Y241.127315 Z-0.125000 I8.507858 J40.838617
G03 X103.261078 Y240.961348 Z-0.125000 I8.311996 J45.147980
G03 X104.219945 Y240.816433 Z-0.125000 I7.137040 J43.979453
G03 X105.181721 Y240.693349 Z-0.125000 I5.683476 J40.591416
G03 X106.143850 Y240.589487 Z-0.125000 I7.036861 J60.677779
G03 X107.107642 Y240.503615 Z-0.125000 I4.475819 J44.783473
G03 X108.071649 Y240.431481 Z-0.125000 I11.015258 J140.729979
G03 X109.036328 Y240.369875 Z-0.125000 I4.595070 J64.369660
G02 X110.001089 Y240.314138 Z-0.125000 I-19.109383 J-339.148505
G03 X110.965919 Y240.259279 Z-0.125000 I12.219782 J206.401555
G02 X111.930735 Y240.203019 Z-0.125000 I-6.949777 J-127.483983
G02 X112.895286 Y240.141796 Z-0.125000 I-22.005533 J-354.320271
G02 X113.859773 Y240.074481 Z-0.125000 I-6.343857 J-97.838940
G02 X114.823680 Y239.998802 Z-0.125000 I-9.630417 J-128.836000
G02 X115.787490 Y239.914732 Z-0.125000 I-8.074998 J-98.141155
G02 X116.750468 Y239.821081 Z-0.125000 I-8.826702 J-95.760345
G02 X117.713347 Y239.719276 Z-0.125000 I-14.656676 J-143.227944
G02 X118.675406 Y239.609535 Z-0.125000 I-10.781433 J-98.789001
G02 X119.637400 Y239.494582 Z-0.125000 I-118.822320 J-998.450669
G02 X120.599014 Y239.376235 Z-0.125000 I-18.998625 J-158.337033
G03 X121.560622 Y239.257658 Z-0.125000 I21.640860 J171.540468
G03 X122.522565 Y239.142860 Z-0.125000 I52.174983 J433.107407
G03 X123.484554 Y239.031128 Z-0.125000 I27.877441 J235.821311
G03 X124.446947 Y238.923198 Z-0.125000 I28.683171 J251.420293
G03 X125.409387 Y238.818583 Z-0.125000 I35.514132 J322.242297
G03 X126.372158 Y238.716952 Z-0.125000 I32.079833 J299.287160
G03 X127.334972 Y238.618404 Z-0.125000 I31.956248 J307.462882
G03 X128.298088 Y238.522746 Z-0.125000 I33.797587 J335.386891
G03 X129.261247 Y238.430421 Z-0.125000 I23.595303 J241.082391
G03 X130.224744 Y238.341531 Z-0.125000 I28.792660 J306.822976
G03 X131.188287 Y238.256807 Z-0.125000 I16.036318 J176.855338
G03 X132.152234 Y238.176759 Z-0.125000 I19.315142 J226.752382
G03 X133.116235 Y238.102039 Z-0.125000 I11.567335 J142.979608
G03 X134.080677 Y238.033477 Z-0.125000 I11.834707 J159.658471
G03 X135.045174 Y237.970922 Z-0.125000 I10.306775 J151.447156
G03 X136.010044 Y237.914593 Z-0.125000 I9.097703 J147.542678
G03 X136.974958 Y237.864105 Z-0.125000 I9.598264 J174.194411
G03 X137.940150 Y237.819492 Z-0.125000 I7.206336 J145.444408
G03 X138.905372 Y237.779655 Z-0.125000 I12.756710 J297.375158
G03 X139.870745 Y237.744138 Z-0.125000 I6.738826 J170.025324
G02 X140.836137 Y237.711022 Z-0.125000 I-46.462765 J-1368.590740
G03 X141.801559 Y237.679069 Z-0.125000 I10.748880 J310.162839
G02 X142.766971 Y237.645832 Z-0.125000 I-5.276712 J-167.303772
G02 X143.732264 Y237.608971 Z-0.125000 I-21.075687 J-564.579979
G02 X144.697517 Y237.566928 Z-0.125000 I-4.181638 J-107.105732
G02 X145.662432 Y237.516871 Z-0.125000 I-6.121235 J-127.320217
G02 X146.627306 Y237.460251 Z-0.125000 I-8.973899 J-161.174898
G02 X147.591801 Y237.397873 Z-0.125000 I-10.011347 J-162.283971
G02 X148.556235 Y237.328893 Z-0.125000 I-8.487704 J-125.447212
G02 X149.520159 Y237.253508 Z-0.125000 I-12.976755 J-172.130651
G02 X150.483968 Y237.169503 Z-0.125000 I-6.412490 J-79.142676
G00 Z3.000000

(End cutting path id: path258)


(Start cutting path id: path260)
(Change tool to Default tool)

G00 Z3.000000
G00 X10.198233 Y205.688889

G00 Z4.875000 (Fast pre-penetrate)
G01 Z-0.125000 F400.0(Penetrate)
G03 X10.786528 Y206.037389 Z-0.125000 I-126.841117 J214.788326 F800.000000
G02 X11.963503 Y206.731346 Z-0.125000 I101.729831 J-171.192236
G02 X12.848355 Y207.248469 Z-0.125000 I604.761335 J-1033.793818
G02 X13.734194 Y207.757406 Z-0.125000 I36.910523 J-63.219810
G02 X14.625682 Y208.254796 Z-0.125000 I44.957754 J-79.531650
G02 X15.518486 Y208.740909 Z-0.125000 I51.817905 J-94.106844
G02 X16.416254 Y209.216219 Z-0.125000 I34.666811 J-64.393317
G03 X17.314761 Y209.685039 Z-0.125000 I-247.775238 J475.963727
G02 X18.214326 Y210.151094 Z-0.125000 I61.013772 J-116.665870
G03 X19.113450 Y210.621004 Z-0.125000 I-31.203999 J60.800676
G03 X20.008153 Y211.100162 Z-0.125000 I-89.290787 J167.802415
G03 X20.901170 Y211.593431 Z-0.125000 I-23.485652 J43.573481
G03 X21.785777 Y212.102443 Z-0.125000 I-35.012475 J61.871013
G03 X22.667638 Y212.632290 Z-0.125000 I-22.188039 J37.927943
G03 X23.538200 Y213.180878 Z-0.125000 I-28.247359 J45.791159
G03 X24.404932 Y213.754807 Z-0.125000 I-21.592784 J33.550234
G03 X25.257514 Y214.350127 Z-0.125000 I-25.154974 J36.933657
G03 X26.105179 Y214.973543 Z-0.125000 I-23.672742 J33.076083
G03 X26.936812 Y215.618893 Z-0.125000 I-24.640793 J32.611982
G03 X27.762846 Y216.291962 Z-0.125000 I-30.462166 J38.228509
G03 X28.573130 Y216.984617 Z-0.125000 I-26.902956 J32.292006
G03 X29.378155 Y217.700316 Z-0.125000 I-52.577297 J59.949988
G03 X30.171048 Y218.429821 Z-0.125000 I-35.002162 J38.839228
G03 X30.960384 Y219.173602 Z-0.125000 I-231.466308 J246.433951
G03 X31.744327 Y219.922151 Z-0.125000 I-74.307842 J78.606083
G02 X32.526687 Y220.676687 Z-0.125000 I17458.208204 J-18101.236438
G03 X33.307369 Y221.432399 Z-0.125000 I-201.654165 J209.098375
G02 X34.087665 Y222.189544 Z-0.125000 I560.715128 J-577.078850
G03 X34.867795 Y222.947479 Z-0.125000 I-289.748092 J299.013292
G02 X35.648816 Y223.702083 Z-0.125000 I92.911776 J-95.382937
G02 X36.433762 Y224.453366 Z-0.125000 I598.710417 J-624.751760
G02 X37.221701 Y225.192958 Z-0.125000 I41.019896 J-42.911819
G02 X38.020073 Y225.921505 Z-0.125000 I73.937994 J-80.222643
G02 X38.823600 Y226.628154 Z-0.125000 I26.746124 J-29.602704
G02 X39.643386 Y227.315300 Z-0.125000 I33.699263 J-39.371651
G02 X40.469354 Y227.972712 Z-0.125000 I22.280720 J-27.145773
G02 X41.313710 Y228.605228 Z-0.125000 I22.544990 J-29.215843
G02 X42.163794 Y229.205674 Z-0.125000 I22.385055 J-30.789753
G02 X43.030290 Y229.782037 Z-0.125000 I20.534015 J-29.931029
G02 X43.901427 Y230.327260 Z-0.125000 I20.781136 J-32.234785
G02 X44.787225 Y230.847954 Z-0.125000 I18.501391 J-30.460499
G02 X45.676662 Y231.339340 Z-0.125000 I20.471589 J-36.004139
G02 X46.578447 Y231.807399 Z-0.125000 I17.523857 J-32.659578
G02 X47.482968 Y232.248982 Z-0.125000 I20.718860 J-41.292499
G02 X48.397521 Y232.668986 Z-0.125000 I16.924444 J-35.647046
G02 X49.314057 Y233.066292 Z-0.125000 I23.222818 J-52.316322
G02 X50.238163 Y233.445142 Z-0.125000 I17.312760 J-40.913481
G02 X51.163598 Y233.806468 Z-0.125000 I32.792194 J-82.622172
G02 X52.093977 Y234.154663 Z-0.125000 I20.854575 J-54.306547
G02 X53.025135 Y234.491399 Z-0.125000 I65.857648 J-180.656371
G02 X53.958975 Y234.820579 Z-0.125000 I30.263177 J-84.363508
G03 X54.893154 Y235.144345 Z-0.125000 I-658.817411 J1902.430330
G02 X55.828051 Y235.466729 Z-0.125000 I89.930606 J-259.276881
G03 X56.763021 Y235.787888 Z-0.125000 I-265.007915 J773.024687
G03 X57.697920 Y236.110193 Z-0.125000 I-312.818377 J908.896115
G02 X58.632879 Y236.431457 Z-0.125000 I105.408626 J-305.244905
G03 X59.568467 Y236.751360 Z-0.125000 I-6568.909832 J19212.926731
G02 X60.504285 Y237.067033 Z-0.125000 I38.472942 J-112.508869
G02 X61.442075 Y237.376559 Z-0.125000 I65.389430 J-196.538794
G02 X62.380277 Y237.678225 Z-0.125000 I28.813999 J-88.003769
G02 X63.321253 Y237.970346 Z-0.125000 I31.102519 J-98.525365
G02 X64.262681 Y238.253470 Z-0.125000 I34.928193 J-114.434343
G02 X65.206559 Y238.526889 Z-0.125000 I23.001742 J-77.639093
G03 X66.150690 Y238.795270 Z-0.125000 I-125.426513 J443.029948
G02 X67.095241 Y239.061520 Z-0.125000 I41.150631 J-144.177798
G03 X68.039601 Y239.331461 Z-0.125000 I-18.969748 J68.150569
G03 X68.981539 Y239.610632 Z-0.125000 I-49.987944 J170.390695
G03 X69.922834 Y239.901907 Z-0.125000 I-15.363402 J51.315488
G03 X70.859522 Y240.209152 Z-0.125000 I-19.589372 J61.303074
G03 X71.795359 Y240.531617 Z-0.125000 I-21.858775 J64.956164
G03 X72.726216 Y240.869828 Z-0.125000 I-17.432902 J49.430668
G03 X73.656455 Y241.218655 Z-0.125000 I-215.324623 J575.634619
G03 X74.584474 Y241.574801 Z-0.125000 I-25.438525 J67.672876
G02 X75.512608 Y241.928957 Z-0.125000 I20.615178 J-52.632851
G02 X76.444247 Y242.273762 Z-0.125000 I137.030983 J-368.816865
G02 X77.376809 Y242.600926 Z-0.125000 I10.816604 J-29.339419
G02 X78.317283 Y242.903915 Z-0.125000 I15.721603 J-47.188605
G02 X79.259047 Y243.177148 Z-0.125000 I7.527788 J-24.186695
G02 X80.209736 Y243.417196 Z-0.125000 I8.126069 J-30.179993
G02 X81.161587 Y243.619994 Z-0.125000 I5.142555 J-21.801875
G02 X82.120943 Y243.782692 Z-0.125000 I4.505209 J-23.655468
G02 X83.081113 Y243.905059 Z-0.125000 I3.389466 J-22.767682
G02 X84.045509 Y243.985945 Z-0.125000 I2.315915 J-21.822560
