%
(Header)
(Generated by gcodetools from Inkscape.)
(Using default header. To add your own header create file "header" in the output dir.)
M3
(Header end.)
G21 (All units in mm)

(Start cutting path id: path756321)
(Change tool to Default tool)

G00 Z3.000000
G00 X123.844023 Y107.467764

G00 Z4.875000 (Fast pre-penetrate)
G01 Z-0.125000 F400.0(Penetrate)
G03 X124.176661 Y107.442397 Z-0.125000 I1.515382 J17.677332 F800.000000
G03 X124.514613 Y107.422564 Z-0.125000 I1.393950 J20.863915
G03 X124.852941 Y107.408383 Z-0.125000 I0.990614 J19.590700
G03 X125.196753 Y107.399364 Z-0.125000 I0.813029 J24.436085
G03 X125.540727 Y107.395619 Z-0.125000 I0.457381 J26.211347
G03 X125.889993 Y107.396364 Z-0.125000 I0.116963 J27.037271
G03 X126.239284 Y107.402009 Z-0.125000 I-0.198292 J23.078225
G03 X126.593353 Y107.411764 Z-0.125000 I-1.101394 J46.407549
G03 X126.947340 Y107.425716 Z-0.125000 I-1.093360 J32.239096
G03 X127.305383 Y107.443364 Z-0.125000 I-1.841131 J40.992730
G03 X127.663277 Y107.464435 Z-0.125000 I-1.852360 J34.513238
G03 X128.024303 Y107.488764 Z-0.125000 I-3.510826 J54.788262
G03 X128.385171 Y107.515818 Z-0.125000 I-3.002782 J42.473468
G03 X128.748123 Y107.545364 Z-0.125000 I-6.703637 J84.594230
G03 X129.110926 Y107.576850 Z-0.125000 I-4.735160 J56.667207
G03 X129.474733 Y107.609964 Z-0.125000 I-16.397191 J182.164280
G03 X129.838432 Y107.644215 Z-0.125000 I-7.864085 J85.454022
G02 X130.202023 Y107.679064 Z-0.125000 I37.202903 J-386.235457
G03 X130.565602 Y107.714119 Z-0.125000 I-16.696325 J175.072767
G02 X130.928003 Y107.748664 Z-0.125000 I8.324038 J-85.406176
G02 X131.290472 Y107.782305 Z-0.125000 I45.730881 J-490.763626
G02 X131.650783 Y107.814264 Z-0.125000 I4.488005 J-48.551402
G02 X132.011269 Y107.844131 Z-0.125000 I7.327421 J-86.248058
G02 X132.368683 Y107.870864 Z-0.125000 I2.436567 J-30.174238
G02 X132.726340 Y107.894204 Z-0.125000 I3.105185 J-44.831345
G02 X133.080093 Y107.913064 Z-0.125000 I1.368463 J-22.340800
G02 X133.434103 Y107.927032 Z-0.125000 I1.358319 J-29.932521
G02 X133.783383 Y107.935064 Z-0.125000 I0.555916 J-16.576319
G02 X134.132810 Y107.936813 Z-0.125000 I0.285644 J-22.162184
G02 X134.476643 Y107.931064 Z-0.125000 I-0.035751 J-12.423016
G02 X134.820328 Y107.916977 Z-0.125000 I-0.505041 J-16.520624
G02 X135.157313 Y107.894264 Z-0.125000 I-0.544554 J-10.590811
G02 X135.493643 Y107.861529 Z-0.125000 I-1.017248 J-12.195548
G02 X135.821763 Y107.818664 Z-0.125000 I-0.959722 J-8.623752
G02 X136.148150 Y107.763795 Z-0.125000 I-1.358215 J-9.077542
G02 X136.464593 Y107.698414 Z-0.125000 I-1.547426 J-8.287966
G02 X136.777890 Y107.620058 Z-0.125000 I-1.628936 J-7.178610
G02 X137.080403 Y107.533274 Z-0.125000 I-3.358756 J-12.278665
G02 X137.380061 Y107.437290 Z-0.125000 I-2.492912 J-8.298545
G02 X137.668983 Y107.336714 Z-0.125000 I-7.200695 J-21.150456
G02 X137.955691 Y107.230524 Z-0.125000 I-3.974784 J-11.171878
G02 X138.232183 Y107.123464 Z-0.125000 I-29.155028 J-75.705994
G02 X138.507399 Y107.013943 Z-0.125000 I-7.299190 J-18.742732
G03 X138.773663 Y106.906654 Z-0.125000 I17.678843 J43.490355
G02 X139.039739 Y106.799780 Z-0.125000 I-26.071645 J-65.292947
G03 X139.299063 Y106.697304 Z-0.125000 I6.824746 J16.891302
G03 X139.559209 Y106.597816 Z-0.125000 I14.646920 J37.909546
G03 X139.815713 Y106.504064 Z-0.125000 I4.229561 J11.174258
G03 X140.073787 Y106.415428 Z-0.125000 I5.585982 J15.844127
G03 X140.332103 Y106.333074 Z-0.125000 I3.051930 J9.126599
G03 X140.592374 Y106.257404 Z-0.125000 I3.338233 J10.996532
G03 X140.857273 Y106.188084 Z-0.125000 I2.412548 J8.678541
G03 X141.124101 Y106.126415 Z-0.125000 I2.398487 J9.769581
G03 X141.400093 Y106.070874 Z-0.125000 I1.997657 J9.213228
G03 X141.677722 Y106.023325 Z-0.125000 I1.838967 J9.903156
G03 X141.968763 Y105.981774 Z-0.125000 I1.647826 J10.501913
G03 X142.261047 Y105.948047 Z-0.125000 I1.433359 J11.138512
G03 X142.570363 Y105.920374 Z-0.125000 I1.256858 J12.305875
G03 X142.880527 Y105.900066 Z-0.125000 I1.017741 J13.165119
G03 X143.210543 Y105.885974 Z-0.125000 I0.809170 J15.078559
G03 X143.541056 Y105.878791 Z-0.125000 I0.524168 J16.511301
G03 X143.893333 Y105.878974 Z-0.125000 I0.168669 J14.387144
G03 X144.245820 Y105.885475 Z-0.125000 I-0.150968 J17.744828
G03 X144.620983 Y105.899274 Z-0.125000 I-0.634743 J22.363999
G03 X144.996072 Y105.920004 Z-0.125000 I-1.037880 J22.183129
G03 X145.393803 Y105.949274 Z-0.125000 I-1.295858 J20.325513
G03 X145.791158 Y105.985823 Z-0.125000 I-2.059007 J24.563391
G03 X146.210053 Y106.032274 Z-0.125000 I-1.977253 J19.742924
G03 X146.628228 Y106.086701 Z-0.125000 I-3.041922 J25.005672
G03 X147.065783 Y106.152454 Z-0.125000 I-2.674371 J19.285268
G03 X147.502130 Y106.227214 Z-0.125000 I-3.893569 J24.035967
G03 X147.954643 Y106.314724 Z-0.125000 I-3.344921 J18.510370
G03 X148.405306 Y106.412374 Z-0.125000 I-4.591709 J22.279805
G03 X148.867893 Y106.523914 Z-0.125000 I-4.029988 J17.728521
G03 X149.327836 Y106.646715 Z-0.125000 I-5.244902 J20.567124
G03 X149.794523 Y106.783904 Z-0.125000 I-4.741260 J16.991145
G03 X150.257640 Y106.933319 Z-0.125000 I-5.846341 J18.913373
G03 X150.721613 Y107.096684 Z-0.125000 I-5.533024 J16.454886
G03 X151.181036 Y107.272861 Z-0.125000 I-6.324779 J17.180458
G03 X151.635093 Y107.461464 Z-0.125000 I-6.474917 J16.229074
G03 X152.083673 Y107.662888 Z-0.125000 I-6.831232 J15.813672
G03 X152.520733 Y107.873864 Z-0.125000 I-7.648036 J16.401941
G03 X152.951676 Y108.097034 Z-0.125000 I-7.366597 J14.752631
G03 X153.365563 Y108.325584 Z-0.125000 I-9.329997 J17.384946
G03 X153.773123 Y108.564954 Z-0.125000 I-8.031507 J14.141355
G03 X154.159283 Y108.804484 Z-0.125000 I-12.253625 J20.185847
G03 X154.539580 Y109.052706 Z-0.125000 I-9.023661 J14.240421
G03 X154.895773 Y109.295234 Z-0.125000 I-19.902185 J29.612569
G03 X155.247372 Y109.543611 Z-0.125000 I-10.959905 J15.887719
G03 X155.574153 Y109.780474 Z-0.125000 I-115.267148 J159.368925
G03 X155.898508 Y110.019666 Z-0.125000 I-16.548748 J22.780345
G02 X156.199503 Y110.242304 Z-0.125000 I19.641624 J-26.239682
G02 X156.501125 Y110.462335 Z-0.125000 I118.016716 J-161.462386
G02 X156.782753 Y110.663834 Z-0.125000 I12.316848 J-16.917268
G02 X157.068392 Y110.857952 Z-0.125000 I6.245721 J-8.883178
G03 X157.335433 Y111.040954 Z-0.125000 I-4.488749 J6.836433
G03 X157.598450 Y111.234071 Z-0.125000 I-7.439228 J10.407607
G03 X157.841733 Y111.420804 Z-0.125000 I-10.792080 J14.312138
G03 X158.080609 Y111.612930 Z-0.125000 I-6.648808 J8.511237
G02 X158.299533 Y111.794114 Z-0.125000 I473.485205 J-571.886848
G03 X158.516552 Y111.976525 Z-0.125000 I-11.630070 J14.056864
G02 X158.715463 Y112.143624 Z-0.125000 I10.488571 J-12.283456
G02 X158.915235 Y112.308538 Z-0.125000 I129.666760 J-156.871631
G02 X159.100503 Y112.456124 Z-0.125000 I4.486060 J-5.441352
G02 X159.289219 Y112.598104 Z-0.125000 I6.615746 J-8.597046
G02 X159.468613 Y112.723194 Z-0.125000 I2.569889 J-3.494356
G02 X159.653195 Y112.839529 Z-0.125000 I2.791485 J-4.224493
G02 X159.835093 Y112.941314 Z-0.125000 I1.750115 J-2.914166
G02 X160.022578 Y113.032020 Z-0.125000 I1.661509 J-3.195130
G02 X160.215133 Y113.111344 Z-0.125000 I1.378569 J-3.073052
G02 X160.412401 Y113.178788 Z-0.125000 I1.201240 J-3.191311
G02 X160.622563 Y113.237564 Z-0.125000 I1.228463 J-3.987418
G02 X160.835994 Y113.285320 Z-0.125000 I1.015451 J-4.037409
G02 X161.069143 Y113.326464 Z-0.125000 I1.188543 J-6.053957
G02 X161.304222 Y113.358508 Z-0.125000 I0.917968 J-5.855961
G02 X161.564153 Y113.385364 Z-0.125000 I1.203225 J-10.374453
G02 X161.825146 Y113.405383 Z-0.125000 I0.851064 J-9.384324
G02 X162.114453 Y113.421264 Z-0.125000 I1.159620 J-18.481611
G02 X162.404339 Y113.432205 Z-0.125000 I0.768549 J-16.516972
G02 X162.724623 Y113.439764 Z-0.125000 I0.865681 J-29.891398
G02 X163.045237 Y113.443717 Z-0.125000 I0.470135 J-25.127548
G02 X163.397223 Y113.444764 Z-0.125000 I0.351986 J-59.161752
G02 X163.749425 Y113.442523 Z-0.125000 I-0.096872 J-42.903505
G02 X164.133023 Y113.436764 Z-0.125000 I-0.441772 J-42.203601
G02 X164.516754 Y113.427583 Z-0.125000 I-0.859914 J-43.963987
G02 X164.931023 Y113.413464 Z-0.125000 I-1.013813 J-35.831699
G02 X165.345340 Y113.395437 Z-0.125000 I-2.048579 J-51.851605
G02 X165.788353 Y113.371164 Z-0.125000 I-1.451233 J-30.542339
G02 X166.231265 Y113.341470 Z-0.125000 I-2.775242 J-44.713235
G02 X166.700033 Y113.303464 Z-0.125000 I-1.876401 J-26.053515
G02 X167.168416 Y113.258369 Z-0.125000 I-3.288081 J-36.606915
G02 X167.658683 Y113.202844 Z-0.125000 I-2.426688 J-23.619050
G02 X168.148104 Y113.138370 Z-0.125000 I-3.845437 J-31.080293
G02 X168.654353 Y113.061634 Z-0.125000 I-3.063330 J-21.918059
G02 X169.159086 Y112.974235 Z-0.125000 I-4.355628 J-26.655018
G02 X169.674533 Y112.873334 Z-0.125000 I-3.821367 J-20.888287
G02 X170.187679 Y112.760426 Z-0.125000 I-4.931789 J-23.636617
G02 X170.704653 Y112.633894 Z-0.125000 I-4.771853 J-20.615800
G02 X171.218463 Y112.494651 Z-0.125000 I-5.556022 J-21.519528
G02 X171.728893 Y112.343054 Z-0.125000 I-6.018373 J-21.199025
G02 X172.235407 Y112.178884 Z-0.125000 I-6.230059 J-20.085074
G02 X172.731503 Y112.005204 Z-0.125000 I-7.894557 J-23.345210
G02 X173.223307 Y111.820066 Z-0.125000 I-7.113301 J-19.641759
G02 X173.698483 Y111.629784 Z-0.125000 I-11.258087 J-28.802272
G02 X174.169563 Y111.430232 Z-0.125000 I-8.403299 J-20.493342
G02 X174.619223 Y111.231114 Z-0.125000 I-21.292546 J-48.691457
G02 X175.065728 Y111.025943 Z-0.125000 I-10.916815 J-24.346303
G03 X175.487933 Y110.827444 Z-0.125000 I218.926356 J465.104353
G02 X175.908728 Y110.627155 Z-0.125000 I-18.880840 J-40.209647
G03 X176.304503 Y110.439724 Z-0.125000 I13.208489 J27.379192
G03 X176.701246 Y110.255699 Z-0.125000 I115.246611 J247.942897
G03 X177.074483 Y110.090004 Z-0.125000 I5.463418 J11.803419
G03 X177.450221 Y109.936711 Z-0.125000 I5.394074 J12.684375
G03 X177.808043 Y109.800324 Z-0.125000 I8.217769 J21.022307
G03 X178.168620 Y109.674664 Z-0.125000 I3.251983 J8.751285
G02 X178.519583 Y109.553174 Z-0.125000 I-3.131330 J-9.613541
G02 X178.870927 Y109.420342 Z-0.125000 I-6.642372 J-18.100272
G02 X179.215733 Y109.283854 Z-0.125000 I-11.769557 J-30.236971
G02 X179.558489 Y109.142581 Z-0.125000 I-8.238692 J-20.475074
G02 X179.892913 Y109.000464 Z-0.125000 I-28.425649 J-67.354765
G02 X180.225934 Y108.855744 Z-0.125000 I-12.406539 J-29.004688
G03 X180.549673 Y108.713024 Z-0.125000 I147.633265 J334.445718
G02 X180.872830 Y108.569725 Z-0.125000 I-25.418113 J-57.757221
G03 X181.186773 Y108.430794 Z-0.125000 I19.726724 J44.152213
G03 X181.501044 Y108.293232 Z-0.125000 I102.788305 J234.399837
G03 X181.807053 Y108.161894 Z-0.125000 I10.249685 J23.458961
G03 X182.114206 Y108.033807 Z-0.125000 I16.520516 J39.184059
G03 X182.414923 Y107.913054 Z-0.125000 I6.621960 J16.056107
G03 X182.717406 Y107.797328 Z-0.125000 I8.421399 J21.558568
G03 X183.015883 Y107.689494 Z-0.125000 I4.749554 J12.679430
G03 X183.316531 Y107.588174 Z-0.125000 I5.220663 J14.994612
G03 X183.616003 Y107.494964 Z-0.125000 I3.649170 J11.196638
G03 X183.917736 Y107.409396 Z-0.125000 I3.701681 J12.478268
G03 X184.221343 Y107.331864 Z-0.125000 I2.870700 J10.608104
G03 X184.527039 Y107.262753 Z-0.125000 I2.737090 J11.396147
G03 X184.837553 Y107.201524 Z-0.125000 I2.298446 J10.838340
G03 X185.149809 Y107.149064 Z-0.125000 I2.062237 J11.319450
G03 X185.469483 Y107.104524 Z-0.125000 I1.722517 J11.193440
G03 X185.790452 Y107.068740 Z-0.125000 I1.474524 J11.768680
G03 X186.120943 Y107.040924 Z-0.125000 I1.199743 J12.277113
G03 X186.452236 Y107.021683 Z-0.125000 I0.907777 J12.768428
G03 X186.794473 Y107.010524 Z-0.125000 I0.619024 J13.731298
G03 X187.137065 Y107.007512 Z-0.125000 I0.286284 J13.076901
G03 X187.491303 Y107.013524 Z-0.125000 I-0.060211 J13.986544
G03 X187.845475 Y107.026995 Z-0.125000 I-0.356955 J14.047375
G03 X188.211243 Y107.049324 Z-0.125000 I-0.896577 J17.693710
G03 X188.576596 Y107.079328 Z-0.125000 I-1.229430 J17.209905
G03 X188.952753 Y107.118124 Z-0.125000 I-1.711570 J18.437995
G03 X189.328171 Y107.164543 Z-0.125000 I-2.125856 J18.734482
G03 X189.712963 Y107.219894 Z-0.125000 I-2.627389 J19.630321
G03 X190.096738 Y107.282655 Z-0.125000 I-3.045359 J19.826601
G03 X190.487863 Y107.354224 Z-0.125000 I-3.700565 J21.328238
G00 Z3.000000

(End cutting path id: path756321)


(Start cutting path id: path756313)
(Change tool to Default tool)

G00 Z3.000000
G00 X124.319473 Y104.641574

G00 Z4.875000 (Fast pre-penetrate)
G01 Z-0.125000 F400.0(Penetrate)
G03 X124.666942 Y104.644619 Z-0.125000 I-0.110698 J32.459613 F800.000000
G03 X125.014723 Y104.651574 Z-0.125000 I-0.417473 J29.573806
G03 X125.362442 Y104.661109 Z-0.125000 I-0.641228 J29.729882
G03 X125.710383 Y104.673574 Z-0.125000 I-2.272428 J68.292234
G03 X126.058250 Y104.688459 Z-0.125000 I-1.697299 J43.737510
G03 X126.406193 Y104.705374 Z-0.125000 I-4.439916 J94.918831
G03 X126.754061 Y104.724099 Z-0.125000 I-3.011762 J59.193874
G03 X127.101883 Y104.744174 Z-0.125000 I-10.501409 J184.967564
G03 X127.449637 Y104.765288 Z-0.125000 I-4.980615 J84.904839
G02 X127.797223 Y104.787074 Z-0.125000 I114.295821 J-1820.794247
G03 X128.144790 Y104.809103 Z-0.125000 I-13.612946 J217.535314
G02 X128.492123 Y104.830974 Z-0.125000 I9.219403 J-143.643813
G02 X128.839471 Y104.852266 Z-0.125000 I436.508959 J-7118.113665
G02 X129.186583 Y104.872574 Z-0.125000 I3.854312 J-62.902673
G02 X129.533756 Y104.891477 Z-0.125000 I7.531169 J-135.117352
G02 X129.880763 Y104.908574 Z-0.125000 I2.375442 J-44.683802
G02 X130.227861 Y104.923425 Z-0.125000 I3.045793 J-67.120574
G02 X130.574903 Y104.935574 Z-0.125000 I1.345123 J-33.462612
G02 X130.922054 Y104.944611 Z-0.125000 I1.246583 J-41.213813
G02 X131.269313 Y104.949974 Z-0.125000 I0.594364 J-27.240974
G02 X131.616631 Y104.951224 Z-0.125000 I0.297707 J-34.468498
G02 X131.964253 Y104.947974 Z-0.125000 I-0.031629 J-21.976139
G02 X132.311806 Y104.939654 Z-0.125000 I-0.449346 J-26.032865
G02 X132.659783 Y104.925774 Z-0.125000 I-0.575913 J-18.807753
G02 X133.007527 Y104.905888 Z-0.125000 I-1.068112 J-21.728576
G02 X133.355673 Y104.879374 Z-0.125000 I-1.044014 J-16.007418
G02 X133.703291 Y104.845839 Z-0.125000 I-1.633243 J-18.748338
G02 X134.051083 Y104.804674 Z-0.125000 I-1.491166 J-14.088258
G02 X134.397933 Y104.755416 Z-0.125000 I-2.086484 J-15.937847
G02 X134.744373 Y104.697404 Z-0.125000 I-1.906808 J-12.450604
G02 X135.089294 Y104.630268 Z-0.125000 I-2.570146 J-14.124151
G02 X135.432713 Y104.553354 Z-0.125000 I-2.253830 J-10.868398
G02 X135.773886 Y104.466249 Z-0.125000 I-2.938924 J-12.222811
G02 X136.111793 Y104.368404 Z-0.125000 I-2.567730 J-9.500090
G02 X136.446497 Y104.259596 Z-0.125000 I-3.618663 J-11.700517
G02 X136.775243 Y104.138454 Z-0.125000 I-2.319986 J-6.802456
G02 X137.098633 Y104.001467 Z-0.125000 I-2.765927 J-6.979860
G02 X137.412433 Y103.852784 Z-0.125000 I-3.880627 J-8.595634
G02 X137.719947 Y103.691189 Z-0.125000 I-3.362175 J-6.771579
G02 X138.013993 Y103.523344 Z-0.125000 I-6.920325 J-12.465154
G02 X138.302504 Y103.346891 Z-0.125000 I-4.663163 J-7.948630
G02 X138.574883 Y103.170834 Z-0.125000 I-13.278427 J-20.841897
G02 X138.843256 Y102.989646 Z-0.125000 I-6.613385 J-10.084978
G02 X139.094663 Y102.814734 Z-0.125000 I-149.005573 J-214.439376
G02 X139.344129 Y102.638127 Z-0.125000 I-11.504211 J-16.514763
G03 X139.577723 Y102.472254 Z-0.125000 I13.577197 J18.872933
G02 X139.811720 Y102.308078 Z-0.125000 I-177.704349 J-253.527463
G03 X140.032753 Y102.157194 Z-0.125000 I5.783386 J8.234862
G03 X140.256396 Y102.011346 Z-0.125000 I9.620683 J14.507951
G03 X140.471633 Y101.879324 Z-0.125000 I3.405446 J5.310473
G03 X140.691054 Y101.755351 Z-0.125000 I4.020235 J6.859320
G03 X140.908013 Y101.644124 Z-0.125000 I2.359040 J4.334299
G03 X141.129739 Y101.543263 Z-0.125000 I2.399928 J4.981710
G03 X141.355923 Y101.453224 Z-0.125000 I1.841915 J4.297884
G03 X141.586468 Y101.374706 Z-0.125000 I1.712051 J4.649202
G03 X141.828603 Y101.305134 Z-0.125000 I1.577270 J5.033320
G03 X142.074092 Y101.246991 Z-0.125000 I1.371635 J5.243939
G03 X142.337673 Y101.196404 Z-0.125000 I1.417484 J6.673751
G03 X142.603471 Y101.156178 Z-0.125000 I1.159472 J6.763079
G03 X142.892543 Y101.122804 Z-0.125000 I1.209490 J9.207529
G03 X143.182943 Y101.098317 Z-0.125000 I0.953074 J9.568767
G03 X143.500303 Y101.080404 Z-0.125000 I0.870482 J12.601609
G03 X143.818365 Y101.070250 Z-0.125000 I0.643432 J15.168562
G03 X144.165593 Y101.066604 Z-0.125000 I0.340374 J15.878651
G03 X144.513155 Y101.070110 Z-0.125000 I-0.003799 J17.605164
G03 X144.890673 Y101.080704 Z-0.125000 I-0.465543 J23.321687
G03 X145.268248 Y101.098374 Z-0.125000 I-1.065734 J26.815987
G03 X145.675323 Y101.124504 Z-0.125000 I-1.065355 J19.780741
G03 X146.082163 Y101.157981 Z-0.125000 I-1.968973 J26.417385
G03 X146.516763 Y101.201904 Z-0.125000 I-1.794195 J19.924908
G03 X146.950734 Y101.254151 Z-0.125000 I-2.976424 J26.550808
G03 X147.409423 Y101.318844 Z-0.125000 I-2.440190 J18.960122
G03 X147.866897 Y101.393326 Z-0.125000 I-3.780719 J24.663726
G03 X148.344673 Y101.482254 Z-0.125000 I-3.093733 J17.949290
G03 X148.820460 Y101.582674 Z-0.125000 I-4.520436 J22.595048
G03 X149.310813 Y101.699094 Z-0.125000 I-3.756478 J16.912891
G03 X149.798137 Y101.828622 Z-0.125000 I-5.082222 J20.102324
G03 X150.293153 Y101.974894 Z-0.125000 I-4.512060 J16.180574
G03 X150.783912 Y102.135559 Z-0.125000 I-5.619596 J17.995243
G03 X151.274663 Y102.312354 Z-0.125000 I-5.383638 J15.713474
G03 X151.759890 Y102.504218 Z-0.125000 I-6.133811 J16.221980
G03 X152.237133 Y102.709944 Z-0.125000 I-6.434414 J15.582991
G03 X152.707706 Y102.930570 Z-0.125000 I-6.647347 J14.790265
G03 X153.162753 Y103.160964 Z-0.125000 I-7.861815 J16.092313
G03 X153.610445 Y103.405121 Z-0.125000 I-7.238138 J13.804578
G03 X154.036223 Y103.653254 Z-0.125000 I-10.107213 J17.832563
G03 X154.454691 Y103.912974 Z-0.125000 I-8.019273 J13.387874
G03 X154.846773 Y104.169684 Z-0.125000 I-14.981976 J23.310230
G03 X155.232641 Y104.434802 Z-0.125000 I-9.364773 J14.043364
G03 X155.590093 Y104.689494 Z-0.125000 I-39.437645 J55.727780
G03 X155.943597 Y104.948498 Z-0.125000 I-12.710057 J17.718159
G02 X156.269403 Y105.190214 Z-0.125000 I29.830756 J-39.868131
G03 X156.594655 Y105.430406 Z-0.125000 I-63.538371 J86.379791
G02 X156.895693 Y105.649864 Z-0.125000 I13.791241 J-18.601701
G02 X157.199887 Y105.861432 Z-0.125000 I7.609935 J-10.617171
G03 X157.483223 Y106.060204 Z-0.125000 I-5.305536 J7.863988
G03 X157.763251 Y106.269368 Z-0.125000 I-8.926443 J12.242742
G03 X158.022923 Y106.471744 Z-0.125000 I-11.174351 J14.605752
G03 X158.278043 Y106.679968 Z-0.125000 I-7.537241 J9.495175
G03 X158.512393 Y106.877174 Z-0.125000 I-68.923278 J82.142887
G03 X158.744314 Y107.076268 Z-0.125000 I-11.661469 J13.818863
G02 X158.956823 Y107.259874 Z-0.125000 I17.513471 J-20.055631
G03 X159.169507 Y107.442240 Z-0.125000 I-60.019365 J70.212636
G02 X159.365813 Y107.606704 Z-0.125000 I6.445037 J-7.493481
G02 X159.564868 Y107.766749 Z-0.125000 I11.128344 J-13.636980
G02 X159.752043 Y107.908754 Z-0.125000 I3.489416 J-4.405004
G02 X159.943996 Y108.043271 Z-0.125000 I4.057842 J-5.586223
G02 X160.129833 Y108.161584 Z-0.125000 I2.255647 J-3.337904
G02 X160.321371 Y108.269818 Z-0.125000 I2.249506 J-3.757267
G02 X160.513683 Y108.364904 Z-0.125000 I1.678333 J-3.152428
G02 X160.711315 Y108.448399 Z-0.125000 I1.528600 J-3.342538
G02 X160.917093 Y108.521804 Z-0.125000 I1.418353 J-3.650972
G02 X161.126963 Y108.583661 Z-0.125000 I1.198195 J-3.678326
G02 X161.351773 Y108.637744 Z-0.125000 I1.327376 J-5.023275
G02 X161.579264 Y108.681607 Z-0.125000 I1.062051 J-4.896409
G02 X161.827193 Y108.719444 Z-0.125000 I1.313391 J-7.774773
G02 X162.076677 Y108.748978 Z-0.125000 I0.987327 J-7.271704
G02 X162.350473 Y108.773644 Z-0.125000 I1.271428 J-12.581282
G02 X162.625116 Y108.792077 Z-0.125000 I0.907625 J-11.468001
G02 X162.926483 Y108.806444 Z-0.125000 I1.119548 J-20.315916
G02 X163.228317 Y108.816135 Z-0.125000 I0.786010 J-19.775040
G02 X163.558093 Y108.822344 Z-0.125000 I0.715051 J-29.218849
G02 X163.888140 Y108.824834 Z-0.125000 I0.369380 J-27.085427
G02 X164.246363 Y108.824344 Z-0.125000 I0.092225 J-63.512864
G02 X164.604768 Y108.819920 Z-0.125000 I-0.378411 J-45.178452
G02 X164.990723 Y108.812044 Z-0.125000 I-0.768698 J-47.128695
G02 X165.376783 Y108.800389 Z-0.125000 I-1.774744 J-65.186364
G02 X165.788983 Y108.784244 Z-0.125000 I-1.137961 J-34.323472
G02 X166.201185 Y108.763897 Z-0.125000 I-2.234270 J-49.447643
G02 X166.637293 Y108.737644 Z-0.125000 I-1.760799 J-32.885861
G02 X167.073253 Y108.706334 Z-0.125000 I-2.950908 J-44.138892
G02 X167.530043 Y108.667744 Z-0.125000 I-2.295716 J-29.897382
G02 X167.986439 Y108.622938 Z-0.125000 I-3.545380 J-38.459778
G02 X168.459763 Y108.569544 Z-0.125000 I-2.892087 J-27.762536
G02 X168.932359 Y108.508839 Z-0.125000 I-4.170509 J-34.337915
G02 X169.417163 Y108.438724 Z-0.125000 I-3.656385 J-26.992859
G02 X169.900851 Y108.360382 Z-0.125000 I-4.643304 J-30.200235
G02 X170.391423 Y108.272314 Z-0.125000 I-4.627784 J-27.188969
G02 X170.880439 Y108.175555 Z-0.125000 I-5.350360 J-28.324721
G02 X171.370653 Y108.069774 Z-0.125000 I-5.948235 J-28.754194
G02 X171.858948 Y107.955408 Z-0.125000 I-6.134550 J-27.291615
G02 X172.342703 Y107.833764 Z-0.125000 I-8.068168 J-33.108223
G02 X172.824382 Y107.704395 Z-0.125000 I-7.184797 J-27.712417
G02 X173.296153 Y107.570604 Z-0.125000 I-12.536111 J-45.103407
G02 X173.766025 Y107.430759 Z-0.125000 I-8.950411 J-30.932264
G02 X174.221373 Y107.290354 Z-0.125000 I-31.538514 J-103.091089
G02 X174.675397 Y107.146445 Z-0.125000 I-12.395381 J-39.894665
G03 X175.111393 Y107.006474 Z-0.125000 I35.119961 J108.646666
G02 X175.547086 Y106.866437 Z-0.125000 I-28.732314 J-90.141810
G03 X175.962523 Y106.735194 Z-0.125000 I9.065288 J27.972155
G03 X176.378954 Y106.608135 Z-0.125000 I26.204569 J85.138738
G03 X176.774253 Y106.494644 Z-0.125000 I4.217629 J13.945153
G03 X177.170580 Y106.392007 Z-0.125000 I4.418335 J16.244601
G03 X177.548573 Y106.303974 Z-0.125000 I3.730569 J15.162698
G03 X177.927421 Y106.227981 Z-0.125000 I2.234718 J10.158354
G02 X178.296153 Y106.160114 Z-0.125000 I-12.723401 J-70.164266
G03 X178.667716 Y106.091809 Z-0.125000 I13.313285 J71.375921
G03 X179.034663 Y106.026474 Z-0.125000 I11.077713 J61.154048
G03 X179.402065 Y105.963303 Z-0.125000 I11.611173 J66.430556
G03 X179.765353 Y105.903334 Z-0.125000 I7.844592 J46.391568
G03 X180.129060 Y105.845950 Z-0.125000 I8.522230 J52.833466
G03 X180.489063 Y105.792034 Z-0.125000 I6.326478 J41.013894
G03 X180.849511 Y105.741021 Z-0.125000 I6.428015 J44.120057
G03 X181.206713 Y105.693634 Z-0.125000 I5.307334 J38.636677
G03 X181.564319 Y105.649465 Z-0.125000 I5.212525 J40.732891
G03 X181.919153 Y105.608934 Z-0.125000 I4.427105 J37.183794
G03 X182.274372 Y105.571917 Z-0.125000 I4.108160 J37.699536
G03 X182.627223 Y105.538634 Z-0.125000 I3.454038 J34.731017
G03 X182.980417 Y105.508903 Z-0.125000 I3.157662 J35.398896
G03 X183.331663 Y105.482934 Z-0.125000 I2.675248 J33.796201
G03 X183.683164 Y105.460620 Z-0.125000 I2.316816 J33.716142
G03 X184.033043 Y105.442034 Z-0.125000 I1.992106 J34.198367
G03 X184.383118 Y105.427121 Z-0.125000 I1.560673 J32.519135
G03 X184.731873 Y105.415834 Z-0.125000 I1.340049 J36.012946
G03 X185.080720 Y105.408279 Z-0.125000 I1.086737 J42.121915
G03 X185.428463 Y105.404034 Z-0.125000 I0.573875 J32.765141
G03 X185.776242 Y105.403235 Z-0.125000 I0.237010 J27.476530
G03 X186.123023 Y105.406034 Z-0.125000 I-0.173036 J42.922920
G03 X186.469791 Y105.412064 Z-0.125000 I-0.510059 J39.308538
G03 X186.815653 Y105.421234 Z-0.125000 I-0.800343 J36.711631
G03 X187.161432 Y105.433492 Z-0.125000 I-1.033106 J34.026082
G03 X187.506323 Y105.448734 Z-0.125000 I-1.916151 J47.266909
G03 X187.851097 Y105.466732 Z-0.125000 I-1.900037 J39.709043
G03 X188.194983 Y105.487334 Z-0.125000 I-2.911081 J51.471527
G03 X188.538713 Y105.510422 Z-0.125000 I-2.795636 J44.190328
G03 X188.881523 Y105.535734 Z-0.125000 I-4.443978 J62.521604
G03 X189.224164 Y105.563175 Z-0.125000 I-3.780025 J49.352004
G03 X189.565873 Y105.592534 Z-0.125000 I-6.159214 J73.690313
G03 X189.907418 Y105.623541 Z-0.125000 I-5.093706 J58.004574
G03 X190.248003 Y105.655934 Z-0.125000 I-11.876266 J126.674837
G03 X190.588464 Y105.689579 Z-0.125000 I-7.026311 J72.839433
G03 X190.928013 Y105.724234 Z-0.125000 I-19.793069 J195.614798
G00 Z3.000000

(End cutting path id: path756313)


(Start cutting path id: path756311)
(Change tool to Default tool)

G00 Z3.000000
G00 X124.317863 Y103.870284

G00 Z4.875000 (Fast pre-penetrate)
G01 Z-0.125000 F400.0(Penetrate)
G03 X124.664543 Y103.885661 Z-0.125000 I-1.247431 J32.039570 F800.000000
G03 X125.010923 Y103.903884 Z-0.125000 I-3.052991 J61.331717
G03 X125.357153 Y103.924537 Z-0.125000 I-2.289371 J41.290947
G03 X125.703033 Y103.947284 Z-0.125000 I-5.830545 J91.299217
G03 X126.048807 Y103.971702 Z-0.125000 I-3.977982 J58.789973
G03 X126.394163 Y103.997384 Z-0.125000 I-16.250106 J220.860494
G03 X126.739440 Y104.024028 Z-0.125000 I-6.461985 J85.989266
G02 X127.084323 Y104.051184 Z-0.125000 I30.513302 J-385.324928
G03 X127.429179 Y104.078453 Z-0.125000 I-17.226330 J220.047766
G02 X127.773733 Y104.105484 Z-0.125000 I9.823063 J-123.000978
G02 X128.118307 Y104.131851 Z-0.125000 I25.367839 J-329.251467
G02 X128.462723 Y104.157084 Z-0.125000 I4.817226 J-63.389269
G02 X128.807236 Y104.180872 Z-0.125000 I8.232948 J-116.729988
G02 X129.151853 Y104.202784 Z-0.125000 I2.936931 J-43.468418
G02 X129.496581 Y104.222380 Z-0.125000 I3.727169 J-62.526660
G02 X129.841753 Y104.239284 Z-0.125000 I1.832560 J-33.886698
G02 X130.187053 Y104.253027 Z-0.125000 I1.863711 J-42.481549
G02 X130.533193 Y104.263184 Z-0.125000 I0.968897 J-27.116215
G02 X130.879413 Y104.269055 Z-0.125000 I0.797618 J-36.826037
G02 X131.226883 Y104.271184 Z-0.125000 I0.347470 J-28.351854
G02 X131.574361 Y104.268054 Z-0.125000 I-0.059136 J-25.853491
G02 X131.923443 Y104.259684 Z-0.125000 I-0.333078 J-21.175340
G02 X132.272385 Y104.245409 Z-0.125000 I-0.919698 J-26.754021
G02 X132.623193 Y104.225084 Z-0.125000 I-0.795615 J-16.769565
G02 X132.973623 Y104.198040 Z-0.125000 I-1.382178 J-20.193620
G02 X133.326003 Y104.163684 Z-0.125000 I-1.319479 J-15.357985
G02 X133.677664 Y104.121763 Z-0.125000 I-1.925173 J-17.645416
G02 X134.031043 Y104.071484 Z-0.125000 I-1.801859 J-13.931190
G02 X134.383225 Y104.012770 Z-0.125000 I-2.456126 J-15.818122
G02 X134.736483 Y103.944584 Z-0.125000 I-2.202655 J-12.360663
G02 X135.087953 Y103.866961 Z-0.125000 I-2.964284 J-14.256504
G02 X135.439253 Y103.778924 Z-0.125000 I-2.606091 J-11.144211
G02 X135.787977 Y103.680454 Z-0.125000 I-3.352911 J-12.540858
G02 X136.134603 Y103.570594 Z-0.125000 I-2.918713 J-9.810733
G02 X136.477583 Y103.449828 Z-0.125000 I-4.155736 J-12.349858
G02 X136.815733 Y103.315614 Z-0.125000 I-2.479512 J-6.740184
G02 X137.148100 Y103.164623 Z-0.125000 I-3.059555 J-7.176106
G02 X137.471543 Y103.000374 Z-0.125000 I-3.930976 J-8.141567
G02 X137.787736 Y102.821946 Z-0.125000 I-3.581742 J-6.716597
G02 X138.089963 Y102.636084 Z-0.125000 I-6.606771 J-11.081813
G02 X138.385411 Y102.440397 Z-0.125000 I-4.766931 J-7.517986
G02 X138.663093 Y102.244824 Z-0.125000 I-11.096721 J-16.050461
G02 X138.935486 Y102.042891 Z-0.125000 I-6.328798 J-8.821771
G02 X139.188493 Y101.847974 Z-0.125000 I-33.652658 J-43.943658
G02 X139.438395 Y101.650160 Z-0.125000 I-9.512982 J-12.274674
G03 X139.669523 Y101.464834 Z-0.125000 I23.383996 J28.926417
G02 X139.900211 Y101.280118 Z-0.125000 I-27.905758 J-35.087303
G03 X140.114803 Y101.111264 Z-0.125000 I7.263182 J9.009804
G03 X140.331689 Y100.946582 Z-0.125000 I15.432629 J20.099537
G03 X140.536973 Y100.798714 Z-0.125000 I3.830397 J5.101296
G03 X140.746782 Y100.658419 Z-0.125000 I4.716368 J6.826245
G03 X140.951043 Y100.533784 Z-0.125000 I2.469807 J3.817992
G03 X141.160949 Y100.419615 Z-0.125000 I2.566342 J4.468322
G03 X141.372703 Y100.318484 Z-0.125000 I1.824965 J3.548956
G03 X141.589908 Y100.229597 Z-0.125000 I1.705101 J3.856789
G03 X141.816923 Y100.151114 Z-0.125000 I1.527222 J4.049962
G03 X142.048233 Y100.085110 Z-0.125000 I1.332977 J4.233096
G03 X142.296863 Y100.027434 Z-0.125000 I1.382679 J5.395710
G03 X142.548378 Y99.981159 Z-0.125000 I1.123065 J5.397472
G03 X142.823313 Y99.942034 Z-0.125000 I1.261887 J7.881807
G03 X143.099972 Y99.912590 Z-0.125000 I0.959375 J7.700025
G03 X143.404433 Y99.889734 Z-0.125000 I1.020163 J11.549928
G03 X143.709825 Y99.874881 Z-0.125000 I0.716510 J11.585282
G03 X144.045703 Y99.866534 Z-0.125000 I0.562434 J15.869681
G03 X144.382052 Y99.865120 Z-0.125000 I0.245226 J18.333088
G03 X144.750083 Y99.870534 Z-0.125000 I-0.093923 J18.897776
G03 X145.118262 Y99.882545 Z-0.125000 I-0.551609 J22.558062
G03 X145.517963 Y99.902634 Z-0.125000 I-0.863614 J21.169094
G03 X145.917550 Y99.929531 Z-0.125000 I-1.582232 J26.487951
G03 X146.347153 Y99.966134 Z-0.125000 I-1.572157 J20.991292
G03 X146.776296 Y100.010585 Z-0.125000 I-2.700865 J28.168839
G03 X147.232633 Y100.066794 Z-0.125000 I-2.169324 J19.492252
G03 X147.688008 Y100.132347 Z-0.125000 I-3.601902 J26.635626
G03 X148.166313 Y100.211834 Z-0.125000 I-2.783201 J18.226477
G03 X148.642933 Y100.302448 Z-0.125000 I-4.216986 J23.479734
G03 X149.136853 Y100.408954 Z-0.125000 I-3.466849 J17.275959
G03 X149.628096 Y100.528364 Z-0.125000 I-4.858662 J21.058278
G03 X150.129713 Y100.664774 Z-0.125000 I-4.186434 J16.385185
G03 X150.627438 Y100.815601 Z-0.125000 I-5.365599 J18.602987
G03 X151.127663 Y100.983324 Z-0.125000 I-5.041349 J15.865365
G03 X151.622657 Y101.166377 Z-0.125000 I-5.904909 J16.728296
G03 X152.111823 Y101.364474 Z-0.125000 I-6.064918 J15.679229
G03 X152.594522 Y101.578001 Z-0.125000 I-6.440593 J15.211946
G03 X153.063323 Y101.802814 Z-0.125000 I-7.415251 J16.064184
G03 X153.524799 Y102.042096 Z-0.125000 I-7.012540 J14.088929
G03 X153.965353 Y102.287064 Z-0.125000 I-9.494369 J17.593441
G03 X154.398460 Y102.544456 Z-0.125000 I-7.761104 J13.552526
G03 X154.805483 Y102.800504 Z-0.125000 I-13.736387 J22.287333
G03 X155.205952 Y103.065825 Z-0.125000 I-8.991900 J14.007034
G03 X155.577643 Y103.322114 Z-0.125000 I-31.091341 J45.488872
G03 X155.944902 Y103.583554 Z-0.125000 I-11.849534 J17.034397
G02 X156.283543 Y103.828624 Z-0.125000 I40.203495 J-55.197093
G03 X156.621014 Y104.072858 Z-0.125000 I-39.745232 J55.273351
G02 X156.933033 Y104.296704 Z-0.125000 I15.676851 J-21.522582
G02 X157.247454 Y104.512968 Z-0.125000 I8.721231 J-12.342899
G03 X157.540323 Y104.716604 Z-0.125000 I-5.605996 J8.374950
G03 X157.830075 Y104.930844 Z-0.125000 I-9.219287 J12.771787
G03 X158.099373 Y105.138664 Z-0.125000 I-11.241810 J14.845829
G03 X158.364005 Y105.352629 Z-0.125000 I-7.804034 J9.922671
G03 X158.607643 Y105.555974 Z-0.125000 I-48.456878 J58.306241
G03 X158.848588 Y105.761570 Z-0.125000 I-11.585946 J13.821935
G02 X159.069643 Y105.951984 Z-0.125000 I23.245101 J-26.762164
G03 X159.290542 Y106.141595 Z-0.125000 I-39.229392 J45.926108
G02 X159.494343 Y106.313394 Z-0.125000 I7.677711 J-8.901115
G02 X159.700548 Y106.481274 Z-0.125000 I14.882051 J-18.068901
G02 X159.893903 Y106.630914 Z-0.125000 I4.035771 J-5.015007
G02 X160.091772 Y106.773585 Z-0.125000 I4.886584 J-6.568630
G02 X160.282273 Y106.899564 Z-0.125000 I2.562598 J-3.668033
G02 X160.478409 Y107.015953 Z-0.125000 I2.582535 J-4.128562
G02 X160.673723 Y107.118444 Z-0.125000 I1.870883 J-3.327946
G02 X160.874576 Y107.209652 Z-0.125000 I1.717741 J-3.515961
G02 X161.081743 Y107.290044 Z-0.125000 I1.543739 J-3.671019
G02 X161.293369 Y107.358807 Z-0.125000 I1.341264 J-3.767854
G02 X161.518123 Y107.419274 Z-0.125000 I1.396955 J-4.744512
G02 X161.745924 Y107.469116 Z-0.125000 I1.138732 J-4.658980
G02 X161.992493 Y107.512374 Z-0.125000 I1.364652 J-7.054213
G02 X162.240908 Y107.546797 Z-0.125000 I1.051696 J-6.676056
G02 X162.512193 Y107.575874 Z-0.125000 I1.311489 J-10.955958
G02 X162.784512 Y107.598055 Z-0.125000 I0.980236 J-10.351753
G02 X163.082323 Y107.615774 Z-0.125000 I1.166397 J-17.092548
G02 X163.380692 Y107.628181 Z-0.125000 I0.826238 J-16.275252
G02 X163.705923 Y107.636674 Z-0.125000 I0.837533 J-25.842473
G02 X164.031467 Y107.640994 Z-0.125000 I0.581166 J-31.525361
G02 X164.384213 Y107.641674 Z-0.125000 I0.231371 J-28.538355
G02 X164.737125 Y107.638553 Z-0.125000 I-0.163462 J-38.434935
G02 X165.116713 Y107.630974 Z-0.125000 I-0.390704 J-29.078628
G02 X165.496378 Y107.620018 Z-0.125000 I-0.878990 J-37.043562
G02 X165.901343 Y107.603974 Z-0.125000 I-1.224254 J-36.020439
G02 X166.306300 Y107.583881 Z-0.125000 I-2.102499 J-46.465232
G02 X166.734393 Y107.557974 Z-0.125000 I-1.776106 J-32.898475
G02 X167.162338 Y107.527140 Z-0.125000 I-2.883109 J-42.999078
G02 X167.610463 Y107.489274 Z-0.125000 I-2.337428 J-30.333304
G02 X168.058217 Y107.445525 Z-0.125000 I-3.606713 J-39.226294
G02 X168.522413 Y107.393674 Z-0.125000 I-2.956794 J-28.574585
G02 X168.985943 Y107.335039 Z-0.125000 I-4.090609 J-34.199267
G02 X169.461443 Y107.267564 Z-0.125000 I-3.801738 J-28.500168
G02 X169.935937 Y107.192545 Z-0.125000 I-4.746075 J-31.556901
G02 X170.417353 Y107.108574 Z-0.125000 I-4.784223 J-28.850559
G02 X170.897386 Y107.016679 Z-0.125000 I-5.434300 J-29.687073
G02 X171.378973 Y106.916534 Z-0.125000 I-6.191884 J-30.984032
G02 X171.858903 Y106.808647 Z-0.125000 I-6.345197 J-29.347683
G02 X172.334933 Y106.694224 Z-0.125000 I-8.455723 J-36.225500
G02 X172.809222 Y106.572937 Z-0.125000 I-7.332812 J-29.662678
G02 X173.274523 Y106.447754 Z-0.125000 I-13.852993 J-52.418525
G02 X173.738255 Y106.317352 Z-0.125000 I-9.306345 J-33.984660
G02 X174.188603 Y106.186664 Z-0.125000 I-44.019752 J-152.532686
G02 X174.637919 Y106.053226 Z-0.125000 I-13.431147 J-46.048988
G03 X175.070413 Y105.923704 Z-0.125000 I25.201051 J83.363220
G02 X175.502804 Y105.794712 Z-0.125000 I-41.035537 J-138.343576
G03 X175.916053 Y105.674224 Z-0.125000 I7.948140 J26.491530
G03 X176.330357 Y105.558330 Z-0.125000 I19.657186 J69.473031
G03 X176.724403 Y105.455414 Z-0.125000 I3.792683 J13.715656
G03 X177.119437 Y105.363265 Z-0.125000 I4.014290 J16.316107
G03 X177.496353 Y105.285514 Z-0.125000 I3.032178 J13.746681
G03 X177.873950 Y105.220264 Z-0.125000 I1.953586 J10.179995
G03 X178.240743 Y105.164184 Z-0.125000 I30.880608 J200.749771
G03 X178.610229 Y105.110148 Z-0.125000 I5.126194 J33.761607
G03 X178.974293 Y105.060864 Z-0.125000 I4.925672 J35.016820
G03 X179.338943 Y105.015407 Z-0.125000 I4.504419 J34.648388
G03 X179.699163 Y104.974364 Z-0.125000 I4.042999 J33.882851
G03 X180.059827 Y104.937178 Z-0.125000 I3.626232 J33.403015
G03 X180.416793 Y104.904164 Z-0.125000 I3.401023 J34.827297
G03 X180.774117 Y104.874951 Z-0.125000 I2.821879 J32.315942
G03 X181.128363 Y104.849764 Z-0.125000 I2.661587 J34.931028
G03 X181.482866 Y104.828226 Z-0.125000 I2.234948 J33.858025
G03 X181.834803 Y104.810364 Z-0.125000 I2.061556 J37.142606
G03 X182.186922 Y104.796019 Z-0.125000 I1.540320 J33.480562
G03 X182.536863 Y104.785164 Z-0.125000 I1.394715 J39.316463
G03 X182.886901 Y104.777619 Z-0.125000 I1.083932 J42.161360
G03 X183.235103 Y104.773164 Z-0.125000 I0.657283 J37.766886
G03 X183.583330 Y104.771668 Z-0.125000 I0.347356 J40.324603
G03 X183.929953 Y104.773194 Z-0.125000 I-0.000854 J39.560851
G03 X184.276571 Y104.777575 Z-0.125000 I-0.376405 J43.495457
G03 X184.621753 Y104.784194 Z-0.125000 I-1.125177 J67.681381
G03 X184.966898 Y104.793303 Z-0.125000 I-0.803875 J37.000760
G03 X185.310763 Y104.804794 Z-0.125000 I-2.271035 J73.113881
G03 X185.654548 Y104.818218 Z-0.125000 I-1.447862 J41.488486
G03 X185.997193 Y104.833794 Z-0.125000 I-3.281117 J75.955014
G03 X186.339747 Y104.850982 Z-0.125000 I-2.805531 J59.336986
G03 X186.681263 Y104.869794 Z-0.125000 I-4.510932 J85.000114
G03 X187.022694 Y104.889957 Z-0.125000 I-4.056605 J71.594367
G03 X187.363223 Y104.911294 Z-0.125000 I-8.667502 J141.056037
G03 X187.703667 Y104.933694 Z-0.125000 I-5.683447 J88.979268
G03 X188.043343 Y104.956894 Z-0.125000 I-19.763255 J291.850636
G03 X188.382949 Y104.980829 Z-0.125000 I-10.311756 J148.732240
G03 X188.721973 Y105.005194 Z-0.125000 I-50.297234 J702.223111
G03 X189.060957 Y105.029864 Z-0.125000 I-18.587303 J257.758555
G02 X189.399543 Y105.054594 Z-0.125000 I31.520927 J-429.256620
G03 X189.738131 Y105.079197 Z-0.125000 I-557.484052 J7673.902783
G02 X190.076593 Y105.103494 Z-0.125000 I13.782050 J-189.613895
G02 X190.415064 Y105.127279 Z-0.125000 I19.403147 J-273.693731
G02 X190.753713 Y105.150394 Z-0.125000 I8.494381 J-121.956344
G00 Z3.000000

(End cutting path id: path756311)


(Start cutting path id: path756315)
(Change tool to Default tool)

G00 Z3.000000
G00 X124.279133 Y105.358034

G00 Z4.875000 (Fast pre-penetrate)
G01 Z-0.125000 F400.0(Penetrate)
G03 X124.625156 Y105.350088 Z-0.125000 I0.711274 J23.435471 F800.000000
G03 X124.972273 Y105.346334 Z-0.125000 I0.567491 J36.424044
G03 X125.319445 Y105.346551 Z-0.125000 I0.151647 J35.094242
G03 X125.667673 Y105.350334 Z-0.125000 I-0.183329 J32.905012
G03 X126.015875 Y105.356890 Z-0.125000 I-0.381222 J29.496390
G03 X126.364963 Y105.366834 Z-0.125000 I-1.152164 J46.580776
G03 X126.713979 Y105.379027 Z-0.125000 I-1.084467 J36.044569
G03 X127.063623 Y105.393634 Z-0.125000 I-3.492676 J87.792786
G03 X127.413200 Y105.410079 Z-0.125000 I-2.344213 J53.556067
G03 X127.763103 Y105.428034 Z-0.125000 I-8.818782 J175.275113
G03 X128.112943 Y105.447170 Z-0.125000 I-3.850982 J73.610581
G02 X128.462843 Y105.467134 Z-0.125000 I378.927251 J-6638.184997
G03 X128.812707 Y105.487475 Z-0.125000 I-9.032992 J158.398005
G02 X129.162373 Y105.507734 Z-0.125000 I7.952066 J-134.225663
G02 X129.512054 Y105.527628 Z-0.125000 I59.000206 J-1033.968757
G02 X129.861323 Y105.546534 Z-0.125000 I3.831480 J-67.547599
G02 X130.210632 Y105.564142 Z-0.125000 I7.972301 J-154.682560
G02 X130.559393 Y105.579934 Z-0.125000 I2.155132 J-43.736010
G02 X130.908243 Y105.593628 Z-0.125000 I2.002794 J-46.568963
G02 X131.256433 Y105.604234 Z-0.125000 I1.226072 J-34.531825
G02 X131.604704 Y105.611788 Z-0.125000 I1.083068 J-41.903911
G02 X131.952243 Y105.615434 Z-0.125000 I0.432787 J-24.685392
G02 X132.299822 Y105.614878 Z-0.125000 I0.118293 J-34.694169
G02 X132.646613 Y105.609434 Z-0.125000 I-0.126108 J-19.081498
G02 X132.993306 Y105.598490 Z-0.125000 I-0.803476 J-30.951218
G02 X133.339053 Y105.581934 Z-0.125000 I-0.601292 J-16.175145
G02 X133.684495 Y105.558747 Z-0.125000 I-1.194004 J-20.373241
G02 X134.028683 Y105.528534 Z-0.125000 I-1.081306 J-14.293859
G02 X134.372208 Y105.490650 Z-0.125000 I-1.679888 J-16.809153
G02 X134.713903 Y105.444634 Z-0.125000 I-1.496786 J-12.406270
G02 X135.054416 Y105.389734 Z-0.125000 I-2.082095 J-13.997466
G02 X135.392083 Y105.325604 Z-0.125000 I-1.880303 J-10.821497
G02 X135.727879 Y105.251411 Z-0.125000 I-2.517705 J-12.192108
G02 X136.059173 Y105.167014 Z-0.125000 I-2.155312 J-9.152931
G02 X136.387729 Y105.071507 Z-0.125000 I-2.969417 J-10.828013
G02 X136.709193 Y104.964534 Z-0.125000 I-2.153176 J-7.007025
G02 X137.025830 Y104.842631 Z-0.125000 I-2.474051 J-6.898408
G02 X137.332323 Y104.710384 Z-0.125000 I-3.806377 J-9.242858
G02 X137.633521 Y104.566444 Z-0.125000 I-3.129346 J-6.935345
G02 X137.921863 Y104.417144 Z-0.125000 I-7.295617 J-14.443041
G02 X138.205798 Y104.260336 Z-0.125000 I-4.544133 J-8.563632
G02 X138.475263 Y104.103934 Z-0.125000 I-16.916794 J-29.456194
G02 X138.741799 Y103.943501 Z-0.125000 I-6.935867 J-11.824532
G03 X138.993753 Y103.788394 Z-0.125000 I57.375609 J92.918251
G02 X139.244646 Y103.632598 Z-0.125000 I-14.904160 J-24.281458
G03 X139.482493 Y103.485714 Z-0.125000 I9.720895 J15.474906
G03 X139.721241 Y103.341403 Z-0.125000 I44.173304 J72.810579
G03 X139.950073 Y103.207924 Z-0.125000 I4.883467 J8.109171
G03 X140.181487 Y103.080003 Z-0.125000 I6.986654 J12.365816
G03 X140.407513 Y102.963344 Z-0.125000 I3.150696 J5.827174
G03 X140.637192 Y102.854788 Z-0.125000 I3.573492 J7.263407
G03 X140.867173 Y102.756624 Z-0.125000 I2.305022 J5.081784
G03 X141.101039 Y102.668339 Z-0.125000 I2.293793 J5.722351
G03 X141.341523 Y102.589154 Z-0.125000 I1.872330 J5.281464
G03 X141.585422 Y102.520530 Z-0.125000 I1.725259 J5.664078
G03 X141.842233 Y102.459794 Z-0.125000 I1.599552 J6.190091
G03 X142.101598 Y102.409353 Z-0.125000 I1.407480 J6.545160
G03 X142.379443 Y102.365894 Z-0.125000 I1.403011 J8.059907
G03 X142.658983 Y102.331818 Z-0.125000 I1.161867 J8.367687
G03 X142.961383 Y102.304294 Z-0.125000 I1.143736 J10.890973
G03 X143.264787 Y102.285019 Z-0.125000 I0.867411 J11.256324
G03 X143.594113 Y102.272294 Z-0.125000 I0.724851 J14.491205
G03 X143.923989 Y102.266956 Z-0.125000 I0.405719 J14.878401
G03 X144.281503 Y102.268294 Z-0.125000 I0.103081 J20.228816
G03 X144.639230 Y102.276956 Z-0.125000 I-0.403254 J24.044010
G03 X145.025123 Y102.293194 Z-0.125000 I-0.587452 J18.554501
G03 X145.410932 Y102.316536 Z-0.125000 I-1.271395 J24.213955
G03 X145.824193 Y102.349094 Z-0.125000 I-1.386070 J20.232802
G03 X146.237050 Y102.389241 Z-0.125000 I-2.273321 J25.520580
G03 X146.675393 Y102.440394 Z-0.125000 I-2.077362 J19.705350
G03 X147.112902 Y102.500233 Z-0.125000 I-3.250713 J25.396525
G03 X147.572663 Y102.572994 Z-0.125000 I-2.703265 J18.570404
G03 X148.030992 Y102.655889 Z-0.125000 I-4.098606 J23.969776
G03 X148.507033 Y102.753414 Z-0.125000 I-3.356733 J17.595574
G03 X148.980817 Y102.862639 Z-0.125000 I-4.695527 J21.449929
G03 X149.466583 Y102.987804 Z-0.125000 I-4.064024 J16.777697
G03 X149.949032 Y103.126110 Z-0.125000 I-5.339159 J19.535004
G03 X150.436713 Y103.280634 Z-0.125000 I-4.816518 J16.047893
G03 X150.919863 Y103.449376 Z-0.125000 I-5.833468 J17.478715
G03 X151.400823 Y103.633364 Z-0.125000 I-5.705578 J15.635489
G03 X151.876057 Y103.831998 Z-0.125000 I-6.338374 J15.832470
G03 X152.341543 Y104.043244 Z-0.125000 I-6.798006 J15.598036
G03 X152.800294 Y104.268795 Z-0.125000 I-6.858710 J14.529312
G03 X153.242283 Y104.502614 Z-0.125000 I-8.297170 J16.218840
G03 X153.676999 Y104.749450 Z-0.125000 I-7.452826 J13.631769
G03 X154.089203 Y104.998724 Z-0.125000 I-10.736817 J18.220070
G03 X154.494362 Y105.258757 Z-0.125000 I-8.279721 J13.346343
G03 X154.873163 Y105.514384 Z-0.125000 I-16.377113 J24.676906
G03 X155.246130 Y105.777602 Z-0.125000 I-9.783795 J14.259040
G03 X155.591293 Y106.029344 Z-0.125000 I-52.641995 J72.539652
G03 X155.932976 Y106.284660 Z-0.125000 I-13.684552 J18.670012
G02 X156.248023 Y106.522154 Z-0.125000 I23.972878 J-31.473395
G03 X156.563019 Y106.757543 Z-0.125000 I-153.489818 J205.727540
G02 X156.855053 Y106.972194 Z-0.125000 I12.515703 J-16.721704
G02 X157.150845 Y107.178788 Z-0.125000 I6.841813 J-9.480743
G03 X157.426453 Y107.372624 Z-0.125000 I-5.047656 J7.469934
G03 X157.698577 Y107.576635 Z-0.125000 I-8.622258 J11.784441
G03 X157.950503 Y107.773624 Z-0.125000 I-11.233584 J14.626057
G03 X158.197980 Y107.976199 Z-0.125000 I-7.310418 J9.183271
G03 X158.424953 Y108.167484 Z-0.125000 I-136.756124 J162.500979
G03 X158.649757 Y108.360322 Z-0.125000 I-11.885618 J14.083304
G02 X158.855633 Y108.537504 Z-0.125000 I13.915219 J-15.960540
G03 X159.062007 Y108.713042 Z-0.125000 I-153.236383 J180.364230
G02 X159.252713 Y108.870734 Z-0.125000 I5.539741 J-6.505349
G02 X159.446485 Y109.023530 Z-0.125000 I8.809225 J-10.972387
G02 X159.629323 Y109.158614 Z-0.125000 I3.074950 J-3.970700
G02 X159.817141 Y109.285678 Z-0.125000 I3.505251 J-4.978895
G02 X160.000113 Y109.397174 Z-0.125000 I2.019744 J-3.108648
G02 X160.188763 Y109.498142 Z-0.125000 I1.984011 J-3.480229
G02 X160.379733 Y109.586664 Z-0.125000 I1.538831 J-3.069497
G02 X160.575823 Y109.663448 Z-0.125000 I1.370025 J-3.209949
G02 X160.781723 Y109.730704 Z-0.125000 I1.332812 J-3.731550
G02 X160.991398 Y109.786596 Z-0.125000 I1.114360 J-3.759216
G02 X161.217693 Y109.835234 Z-0.125000 I1.264435 J-5.332192
G02 X161.446351 Y109.874097 Z-0.125000 I0.995061 J-5.162472
G02 X161.696943 Y109.907234 Z-0.125000 I1.242865 J-8.434925
G02 X161.948875 Y109.932759 Z-0.125000 I0.910750 J-7.733099
G02 X162.226393 Y109.953734 Z-0.125000 I1.269642 J-14.952032
G02 X162.504640 Y109.969101 Z-0.125000 I0.838099 J-12.648485
G02 X162.810733 Y109.980734 Z-0.125000 I1.092150 J-24.704395
G02 X163.117235 Y109.988466 Z-0.125000 I0.582120 J-16.996243
G02 X163.452663 Y109.992534 Z-0.125000 I0.666064 J-41.092153
G02 X163.788340 Y109.993555 Z-0.125000 I0.254414 J-28.460062
G02 X164.153123 Y109.991534 Z-0.125000 I-0.193933 J-67.922367
G02 X164.518053 Y109.986121 Z-0.125000 I-0.903268 J-73.200814
G02 X164.911413 Y109.977234 Z-0.125000 I-0.647384 J-37.364487
G02 X165.304847 Y109.964954 Z-0.125000 I-1.169893 J-43.789083
G02 X165.725213 Y109.947534 Z-0.125000 I-1.312663 J-36.757638
G02 X166.145567 Y109.926106 Z-0.125000 I-2.368078 J-50.588291
G02 X166.590483 Y109.898434 Z-0.125000 I-1.746153 J-31.665643
G02 X167.035225 Y109.865374 Z-0.125000 I-3.047902 J-44.010224
G02 X167.501283 Y109.824534 Z-0.125000 I-2.271725 J-28.604130
G02 X167.966894 Y109.776950 Z-0.125000 I-3.550265 J-37.041101
G02 X168.449683 Y109.720074 Z-0.125000 I-2.872118 J-26.457427
G02 X168.931629 Y109.655168 Z-0.125000 I-4.178195 J-32.845937
G02 X169.425763 Y109.580014 Z-0.125000 I-3.618089 J-25.450879
G02 X169.918570 Y109.495770 Z-0.125000 I-4.691209 J-28.925888
G02 X170.417893 Y109.400914 Z-0.125000 I-4.545665 J-25.290132
G02 X170.915382 Y109.296452 Z-0.125000 I-5.285443 J-26.408084
G02 X171.413333 Y109.182074 Z-0.125000 I-5.854363 J-26.628526
G02 X171.909016 Y109.058167 Z-0.125000 I-6.053039 J-25.268187
G02 X172.399073 Y108.926274 Z-0.125000 I-7.874363 J-30.234171
G02 X172.886659 Y108.785715 Z-0.125000 I-7.065008 J-25.423857
G02 X173.363003 Y108.640304 Z-0.125000 I-11.880851 J-39.772704
G02 X173.837015 Y108.488009 Z-0.125000 I-8.507404 J-27.292787
G02 X174.295063 Y108.335004 Z-0.125000 I-27.052286 J-81.747953
G02 X174.751415 Y108.177806 Z-0.125000 I-11.828149 J-35.078569
G03 X175.188313 Y108.024844 Z-0.125000 I51.747155 J147.102561
G02 X175.624657 Y107.871279 Z-0.125000 I-24.468401 J-70.221967
G03 X176.039563 Y107.727144 Z-0.125000 I10.274691 J28.907390
G03 X176.455427 Y107.586873 Z-0.125000 I35.013155 J103.117466
G03 X176.849373 Y107.461084 Z-0.125000 I4.616738 J13.778936
G03 X177.244509 Y107.346407 Z-0.125000 I4.776714 J15.720816
G03 X177.621293 Y107.246744 Z-0.125000 I4.578061 J16.545607
G03 X177.999239 Y107.158790 Z-0.125000 I2.540229 J10.059545
G02 X178.367673 Y107.077874 Z-0.125000 I-6.296025 J-29.546969
G02 X178.738834 Y106.993818 Z-0.125000 I-313.837396 J-1386.653863
G03 X179.105833 Y106.911014 Z-0.125000 I44.454247 J196.172356
G03 X179.472971 Y106.828589 Z-0.125000 I173.388586 J771.453652
G03 X179.835903 Y106.748054 Z-0.125000 I18.139461 J80.887297
G03 X180.199059 Y106.668826 Z-0.125000 I34.242371 J156.083306
G03 X180.558073 Y106.592184 Z-0.125000 I11.732384 J54.079141
G03 X180.917458 Y106.517626 Z-0.125000 I15.421108 J73.429613
G03 X181.272963 Y106.446304 Z-0.125000 I8.836524 J43.123977
G03 X181.628956 Y106.377728 Z-0.125000 I10.731182 J54.749799
G03 X181.981523 Y106.312904 Z-0.125000 I6.386033 J33.741257
G03 X182.334652 Y106.251450 Z-0.125000 I7.291899 J40.855466
G03 X182.684903 Y106.194144 Z-0.125000 I5.108955 J30.126768
G03 X183.035762 Y106.140703 Z-0.125000 I5.146122 J32.607445
G03 X183.384363 Y106.091744 Z-0.125000 I4.092547 J27.874634
G03 X183.733542 Y106.047042 Z-0.125000 I3.928137 J29.297356
G03 X184.081103 Y106.007044 Z-0.125000 I3.115947 J25.546068
G03 X184.429176 Y105.971647 Z-0.125000 I2.924255 J27.026636
G03 X184.776223 Y105.941044 Z-0.125000 I2.373736 J24.935400
G03 X185.123688 Y105.915243 Z-0.125000 I2.048433 J25.233856
G03 X185.470633 Y105.894344 Z-0.125000 I1.650740 J24.513779
G03 X185.817871 Y105.878354 Z-0.125000 I1.303749 J24.533791
G03 X186.164993 Y105.867244 Z-0.125000 I0.973131 J24.976360
G03 X186.512261 Y105.861119 Z-0.125000 I0.543569 J20.972718
G03 X186.859683 Y105.860244 Z-0.125000 I0.237735 J25.406929
G03 X187.207118 Y105.863868 Z-0.125000 I-0.086022 J24.906537
G03 X187.554803 Y105.871844 Z-0.125000 I-0.546886 J31.419596
G03 X187.902396 Y105.884677 Z-0.125000 I-0.782692 J25.913799
G03 X188.250193 Y105.901944 Z-0.125000 I-1.266176 J29.014993
G03 X188.597780 Y105.923687 Z-0.125000 I-1.513740 J26.987647
G03 X188.945443 Y105.949644 Z-0.125000 I-2.141087 J31.018917
G03 X189.292786 Y105.979677 Z-0.125000 I-2.280639 J28.400082
G03 X189.639953 Y106.013544 Z-0.125000 I-3.299050 J35.614481
G03 X189.986741 Y106.051060 Z-0.125000 I-3.155043 J30.786295
G03 X190.333023 Y106.091944 Z-0.125000 I-4.781142 J41.982125
G03 X190.678910 Y106.136034 Z-0.125000 I-4.122276 J33.717877
G03 X191.023943 Y106.182944 Z-0.125000 I-7.135429 J53.775333
G00 Z3.000000

(End cutting path id: path756315)


(Start cutting path id: path756309)
(Change tool to Default tool)

G00 Z3.000000
G00 X124.292523 Y103.018864

G00 Z4.875000 (Fast pre-penetrate)
G01 Z-0.125000 F400.0(Penetrate)
G03 X124.636540 Y103.047290 Z-0.125000 I-2.935633 J37.623659 F800.000000
G03 X124.979753 Y103.077864 Z-0.125000 I-8.172635 J93.684432
G03 X125.322775 Y103.110305 Z-0.125000 I-4.935125 J54.012458
G03 X125.665013 Y103.144064 Z-0.125000 I-19.589353 J200.341880
G03 X126.007127 Y103.178818 Z-0.125000 I-8.257828 J82.989370
G02 X126.348533 Y103.214064 Z-0.125000 I41.230107 J-397.703966
G03 X126.689893 Y103.249441 Z-0.125000 I-21.313098 J207.320476
G02 X127.030723 Y103.284564 Z-0.125000 I12.710862 J-121.673316
G02 X127.371584 Y103.318947 Z-0.125000 I53.504727 J-528.720062
G02 X127.712223 Y103.352264 Z-0.125000 I6.313706 J-62.794490
G02 X128.052962 Y103.384001 Z-0.125000 I10.887650 J-115.049542
G02 X128.393893 Y103.413864 Z-0.125000 I3.883153 J-42.370534
G02 X128.734983 Y103.441354 Z-0.125000 I4.857803 J-58.145342
G02 X129.076783 Y103.466164 Z-0.125000 I2.638347 J-33.980488
G02 X129.418770 Y103.487810 Z-0.125000 I2.731998 J-40.451309
G02 X129.762053 Y103.505964 Z-0.125000 I1.647982 J-27.907273
G02 X130.105527 Y103.520122 Z-0.125000 I1.572872 J-33.984421
G02 X130.450923 Y103.529964 Z-0.125000 I0.815316 J-22.547271
G02 X130.796441 Y103.535083 Z-0.125000 I0.544632 J-25.097738
G02 X131.144503 Y103.534964 Z-0.125000 I0.166839 J-21.033807
G02 X131.492554 Y103.529457 Z-0.125000 I-0.208096 J-24.152692
G02 X131.843703 Y103.517764 Z-0.125000 I-0.394288 J-17.119482
G02 X132.194635 Y103.499821 Z-0.125000 I-0.893617 J-20.918684
G02 X132.549033 Y103.474864 Z-0.125000 I-0.974956 J-16.373242
G02 X132.902935 Y103.442773 Z-0.125000 I-1.549601 J-19.056866
G02 X133.260423 Y103.402664 Z-0.125000 I-1.491185 J-14.903810
G02 X133.617026 Y103.354575 Z-0.125000 I-2.155954 J-17.333577
G02 X133.976933 Y103.297414 Z-0.125000 I-1.991702 J-13.702190
G02 X134.335480 Y103.231411 Z-0.125000 I-2.667711 J-15.498623
G02 X134.696553 Y103.155244 Z-0.125000 I-2.489854 J-12.697191
G02 X135.055614 Y103.069308 Z-0.125000 I-3.220111 J-14.247507
G02 X135.415813 Y102.972174 Z-0.125000 I-2.884167 J-11.411674
G02 X135.773167 Y102.864320 Z-0.125000 I-3.728411 J-12.999365
G02 X136.129503 Y102.744364 Z-0.125000 I-3.190632 J-10.067162
G02 X136.481748 Y102.613366 Z-0.125000 I-4.722005 J-13.236212
G02 X136.830243 Y102.467834 Z-0.125000 I-2.605726 J-6.729782
G02 X137.172616 Y102.304556 Z-0.125000 I-3.340758 J-7.445749
G02 X137.506753 Y102.126434 Z-0.125000 I-3.970451 J-7.850574
G02 X137.832772 Y101.932871 Z-0.125000 I-3.785954 J-6.748045
G02 X138.144373 Y101.730574 Z-0.125000 I-6.354180 J-10.128556
G02 X138.447976 Y101.517218 Z-0.125000 I-4.870061 J-7.252715
G02 X138.732263 Y101.303504 Z-0.125000 I-9.738042 J-13.249716
G02 X139.009885 Y101.082153 Z-0.125000 I-6.136404 J-7.981169
G02 X139.265793 Y100.868364 Z-0.125000 I-20.299725 J-24.559016
G02 X139.517244 Y100.650425 Z-0.125000 I-8.326792 J-9.861211
G03 X139.747143 Y100.446574 Z-0.125000 I63.881953 J71.813203
G02 X139.975491 Y100.242162 Z-0.125000 I-16.056266 J-18.166185
G03 X140.184773 Y100.056134 Z-0.125000 I9.574552 J10.560640
G03 X140.395701 Y99.873243 Z-0.125000 I36.170745 J41.502629
G03 X140.592003 Y99.710284 Z-0.125000 I4.400534 J5.101209
G03 X140.792839 Y99.554195 Z-0.125000 I5.975645 J7.481474
G03 X140.985183 Y99.416854 Z-0.125000 I2.609869 J3.451723
G03 X141.183856 Y99.289835 Z-0.125000 I2.785951 J4.138679
G03 X141.381713 Y99.178434 Z-0.125000 I1.816943 J2.995630
G03 X141.586081 Y99.079752 Z-0.125000 I1.721678 J3.304598
G03 X141.798293 Y98.993134 Z-0.125000 I1.465040 J3.286038
G03 X142.015844 Y98.919932 Z-0.125000 I1.295064 J3.488955
G03 X142.249733 Y98.855984 Z-0.125000 I1.307491 J4.322444
G03 X142.487239 Y98.804450 Z-0.125000 I1.084133 J4.423431
G03 X142.748173 Y98.760384 Z-0.125000 I1.249820 J6.606098
G03 X143.011234 Y98.726821 Z-0.125000 I0.963475 J6.503828
G03 X143.302833 Y98.699784 Z-0.125000 I1.092563 J10.197554
G03 X143.595576 Y98.681200 Z-0.125000 I0.797434 J10.246506
G03 X143.920053 Y98.668884 Z-0.125000 I0.712622 J14.494265
G03 X144.245100 Y98.663553 Z-0.125000 I0.398925 J14.411833
G03 X144.603413 Y98.664884 Z-0.125000 I0.103871 J20.270194
G03 X144.961981 Y98.672244 Z-0.125000 I-0.282479 J22.501304
G03 X145.353893 Y98.686684 Z-0.125000 I-0.669914 J23.506900
G03 X145.745828 Y98.707600 Z-0.125000 I-1.297242 J27.990401
G03 X146.169873 Y98.737384 Z-0.125000 I-1.307292 J21.646217
G03 X146.593641 Y98.774396 Z-0.125000 I-2.359667 J29.461384
G03 X147.046913 Y98.822384 Z-0.125000 I-1.922963 J20.328112
G03 X147.499476 Y98.879135 Z-0.125000 I-3.272533 J27.929629
G03 X147.977503 Y98.949174 Z-0.125000 I-2.535228 J18.969740
G03 X148.454171 Y99.029846 Z-0.125000 I-3.996611 J25.063330
G03 X148.950793 Y99.126014 Z-0.125000 I-3.162031 J17.659513
G03 X149.445130 Y99.234802 Z-0.125000 I-4.627000 J22.202856
G03 X149.952553 Y99.360614 Z-0.125000 I-3.866146 J16.679021
G03 X150.456488 Y99.500762 Z-0.125000 I-5.138755 J19.453694
G03 X150.965533 Y99.658314 Z-0.125000 I-4.698479 J16.081743
G03 X151.469726 Y99.831384 Z-0.125000 I-5.684647 J17.381612
G03 X151.970413 Y100.020504 Z-0.125000 I-5.689305 J15.819546
G03 X152.464928 Y100.225478 Z-0.125000 I-6.211139 J15.683827
G03 X152.947393 Y100.443174 Z-0.125000 I-6.987256 J16.128881
G03 X153.422697 Y100.675995 Z-0.125000 I-6.796179 J14.475966
G03 X153.878313 Y100.916204 Z-0.125000 I-8.903825 J17.440522
G03 X154.326438 Y101.169629 Z-0.125000 I-7.514501 J13.810620
G03 X154.749033 Y101.423484 Z-0.125000 I-12.632060 J21.507392
G03 X155.164833 Y101.687488 Z-0.125000 I-8.642400 J14.071018
G03 X155.551683 Y101.944044 Z-0.125000 I-25.608314 J39.033622
G03 X155.933691 Y102.206599 Z-0.125000 I-11.094059 J16.550652
G02 X156.286273 Y102.453954 Z-0.125000 I61.496010 J-87.281897
G03 X156.637096 Y102.701237 Z-0.125000 I-29.179554 J41.769914
G02 X156.961253 Y102.928704 Z-0.125000 I18.170263 J-25.549187
G02 X157.287013 Y103.149009 Z-0.125000 I10.208170 J-14.743552
G03 X157.590533 Y103.356974 Z-0.125000 I-5.948991 J9.007908
G03 X157.891167 Y103.575717 Z-0.125000 I-9.557561 J13.451555
G03 X158.171283 Y103.788454 Z-0.125000 I-11.364498 J15.254747
G03 X158.446701 Y104.007573 Z-0.125000 I-8.094781 J10.457219
G03 X158.700953 Y104.216564 Z-0.125000 I-39.339683 J48.118760
G03 X158.952308 Y104.428122 Z-0.125000 I-11.678937 J14.131003
G02 X159.183383 Y104.624924 Z-0.125000 I31.550187 J-36.810589
G03 X159.413999 Y104.821302 Z-0.125000 I-31.378227 J37.082486
G02 X159.626923 Y105.000124 Z-0.125000 I9.102090 J-10.621732
G02 X159.841898 Y105.175484 Z-0.125000 I19.978192 J-24.271936
G02 X160.043193 Y105.332574 Z-0.125000 I4.674796 J-5.782769
G02 X160.248684 Y105.483195 Z-0.125000 I5.886937 J-7.816028
G02 X160.445713 Y105.616794 Z-0.125000 I2.923159 J-4.098918
G02 X160.648220 Y105.741227 Z-0.125000 I3.073757 J-4.775352
G02 X160.848533 Y105.851284 Z-0.125000 I2.089393 J-3.565547
G02 X161.054442 Y105.950311 Z-0.125000 I1.964677 J-3.821606
G02 X161.265013 Y106.037894 Z-0.125000 I1.696178 J-3.781106
G02 X161.480288 Y106.113827 Z-0.125000 I1.498046 J-3.903925
G02 X161.706973 Y106.180924 Z-0.125000 I1.509357 J-4.682851
G02 X161.937017 Y106.237045 Z-0.125000 I1.252490 J-4.634517
G02 X162.184183 Y106.286124 Z-0.125000 I1.442688 J-6.618565
G02 X162.433474 Y106.325763 Z-0.125000 I1.129030 J-6.296805
G02 X162.704163 Y106.359624 Z-0.125000 I1.388434 J-10.000391
G02 X162.976088 Y106.385886 Z-0.125000 I1.031865 J-9.263289
G02 X163.272213 Y106.407124 Z-0.125000 I1.207022 J-14.754707
G02 X163.569013 Y106.422424 Z-0.125000 I0.872002 J-14.029313
G02 X163.891533 Y106.433224 Z-0.125000 I0.885241 J-21.614765
G02 X164.214431 Y106.439406 Z-0.125000 I0.515580 J-18.492992
G02 X164.563473 Y106.441224 Z-0.125000 I0.349042 J-33.511136
G02 X164.912721 Y106.438468 Z-0.125000 I-0.030108 J-25.947604
G02 X165.287643 Y106.431224 Z-0.125000 I-0.583370 J-39.897760
G02 X165.662632 Y106.420082 Z-0.125000 I-0.792308 J-32.979818
G02 X166.062003 Y106.403624 Z-0.125000 I-1.220563 J-34.473105
G02 X166.461324 Y106.382849 Z-0.125000 I-1.878326 J-39.952739
G02 X166.882903 Y106.356024 Z-0.125000 I-1.831057 J-32.102313
G02 X167.304291 Y106.324205 Z-0.125000 I-2.817841 J-40.123478
G02 X167.745043 Y106.285424 Z-0.125000 I-2.494764 J-30.877483
G02 X168.185398 Y106.240859 Z-0.125000 I-3.520835 J-36.987692
G02 X168.641483 Y106.188424 Z-0.125000 I-3.199630 J-29.840611
G02 X169.096903 Y106.129448 Z-0.125000 I-4.193959 J-34.174001
G02 X169.563743 Y106.062074 Z-0.125000 I-4.042476 J-29.661851
G02 X170.029602 Y105.987578 Z-0.125000 I-4.940667 J-32.390092
G02 X170.502063 Y105.904714 Z-0.125000 I-5.039638 J-30.122655
G02 X170.973235 Y105.814539 Z-0.125000 I-5.538746 J-30.216510
G02 X171.445883 Y105.716744 Z-0.125000 I-6.627026 J-33.219754
G02 X171.917025 Y105.611909 Z-0.125000 I-6.625768 J-30.888091
G02 X172.384503 Y105.501244 Z-0.125000 I-9.204223 J-39.923844
G02 X172.850431 Y105.384449 Z-0.125000 I-7.808245 J-32.137037
G02 X173.307893 Y105.264414 Z-0.125000 I-15.837292 J-61.288780
G02 X173.764032 Y105.139930 Z-0.125000 I-9.813875 J-36.858439
G02 X174.207523 Y105.015614 Z-0.125000 I-90.966281 J-325.369704
G02 X174.650256 Y104.889270 Z-0.125000 I-15.937242 J-56.685837
G03 X175.077063 Y104.767164 Z-0.125000 I19.021745 J65.681436
G02 X175.503985 Y104.646215 Z-0.125000 I-84.959944 J-300.703182
G03 X175.912753 Y104.533804 Z-0.125000 I6.884057 J24.233531
G03 X176.322676 Y104.426508 Z-0.125000 I14.156838 J53.249237
G03 X176.713283 Y104.331994 Z-0.125000 I3.397832 J13.188163
G03 X177.104988 Y104.248385 Z-0.125000 I3.581783 J15.821058
G03 X177.479023 Y104.179214 Z-0.125000 I2.479727 J12.363092
G03 X177.853690 Y104.123124 Z-0.125000 I1.634437 J9.638180
G03 X178.217033 Y104.077324 Z-0.125000 I6.150766 J47.331811
G03 X178.582772 Y104.035847 Z-0.125000 I2.573082 J21.056097
G03 X178.942233 Y104.000724 Z-0.125000 I2.745757 J26.243693
G03 X179.302307 Y103.970926 Z-0.125000 I2.044103 J22.510455
G03 X179.657443 Y103.946724 Z-0.125000 I2.030955 J27.183748
G03 X180.012947 Y103.927489 Z-0.125000 I1.466746 J23.813523
G03 X180.364473 Y103.913224 Z-0.125000 I1.357497 J29.114171
G03 X180.716214 Y103.903558 Z-0.125000 I0.905994 J26.562619
G03 X181.064713 Y103.898124 Z-0.125000 I0.690204 J33.090080
G03 X181.413298 Y103.896750 Z-0.125000 I0.321644 J37.384685
G03 X181.759193 Y103.899124 Z-0.125000 I-0.020291 J28.157145
G03 X182.105072 Y103.905136 Z-0.125000 I-0.514103 J39.527628
G03 X182.448693 Y103.914124 Z-0.125000 I-0.851006 J39.109117
G03 X182.792247 Y103.926180 Z-0.125000 I-1.157325 J37.880910
G03 X183.133863 Y103.940824 Z-0.125000 I-2.097583 J52.924359
G03 X183.475377 Y103.957895 Z-0.125000 I-2.031285 J44.061470
G03 X183.815233 Y103.977024 Z-0.125000 I-3.806339 J70.654087
G03 X184.154987 Y103.998058 Z-0.125000 I-3.118565 J53.128157
G03 X184.493343 Y104.020624 Z-0.125000 I-7.029368 J107.945385
G03 X184.831599 Y104.044581 Z-0.125000 I-4.539723 J66.498093
G03 X185.168723 Y104.069624 Z-0.125000 I-13.771744 J187.672987
G03 X185.505771 Y104.095490 Z-0.125000 I-8.196672 J109.015704
G03 X185.841953 Y104.121924 Z-0.125000 I-39.938277 J510.079295
G03 X186.178096 Y104.148760 Z-0.125000 I-15.290298 J193.642343
G02 X186.513683 Y104.175724 Z-0.125000 I37.898357 J-469.569393
G03 X186.849279 Y104.202629 Z-0.125000 I-72.896965 J911.381275
G02 X187.184643 Y104.229224 Z-0.125000 I12.856921 J-159.999113
G02 X187.520044 Y104.255347 Z-0.125000 I36.456831 J-465.918060
G02 X187.855613 Y104.280724 Z-0.125000 I6.890385 J-88.881772
G02 X188.191231 Y104.305240 Z-0.125000 I11.072335 J-149.269769
G02 X188.527433 Y104.328724 Z-0.125000 I5.883590 J-81.811427
G02 X188.863719 Y104.350921 Z-0.125000 I6.441642 J-95.031174
G02 X189.201023 Y104.371724 Z-0.125000 I4.251536 J-66.191529
G02 X189.538415 Y104.390905 Z-0.125000 I4.410669 J-74.606640
G02 X189.877283 Y104.408324 Z-0.125000 I2.916876 J-53.439584
G02 X190.216247 Y104.423766 Z-0.125000 I3.070011 J-63.659082
G02 X190.557133 Y104.437224 Z-0.125000 I2.145429 J-50.020797
G00 Z3.000000

(End cutting path id: path756309)


(Start cutting path id: path756307)
(Change tool to Default tool)

G00 Z3.000000
G00 X124.264263 Y102.065614

G00 Z4.875000 (Fast pre-penetrate)
G01 Z-0.125000 F400.0(Penetrate)
G03 X124.604685 Y102.106984 Z-0.125000 I-5.174291 J43.998913 F800.000000
G03 X124.943843 Y102.150014 Z-0.125000 I-15.254139 J121.590086
G03 X125.282802 Y102.194237 Z-0.125000 I-8.411835 J65.795689
G03 X125.620573 Y102.239214 Z-0.125000 I-332.041481 J2494.875034
G03 X125.958258 Y102.284472 Z-0.125000 I-18.287158 J137.726097
G02 X126.294973 Y102.329514 Z-0.125000 I15.407737 J-113.899298
G02 X126.631713 Y102.374013 Z-0.125000 I184.168205 J-1392.360855
G02 X126.967843 Y102.417414 Z-0.125000 I7.763881 J-58.806432
G02 X127.304103 Y102.459423 Z-0.125000 I16.690039 J-132.228750
G02 X127.640283 Y102.499614 Z-0.125000 I5.158797 J-41.724791
G02 X127.976696 Y102.537456 Z-0.125000 I6.602389 J-57.180770
G02 X128.313673 Y102.572614 Z-0.125000 I3.603911 J-32.909602
G02 X128.650944 Y102.604702 Z-0.125000 I4.193655 J-42.290091
G02 X128.989563 Y102.633314 Z-0.125000 I2.345740 J-25.743501
G02 X129.328483 Y102.658068 Z-0.125000 I2.525109 J-32.240078
G02 X129.669593 Y102.678614 Z-0.125000 I1.541345 J-22.747913
G02 X130.010968 Y102.694496 Z-0.125000 I1.456627 J-27.632207
G02 X130.355403 Y102.705414 Z-0.125000 I0.804856 J-19.953101
G02 X130.700002 Y102.710903 Z-0.125000 I0.643378 J-29.572227
G02 X131.048473 Y102.710414 Z-0.125000 I0.152989 J-15.145155
G02 X131.396935 Y102.704257 Z-0.125000 I-0.165452 J-19.228036
G02 X131.749963 Y102.690914 Z-0.125000 I-0.427299 J-15.982239
G02 X132.102739 Y102.670966 Z-0.125000 I-0.940396 J-19.760079
G02 X132.460523 Y102.643414 Z-0.125000 I-1.025317 J-15.651349
G02 X132.817746 Y102.608240 Z-0.125000 I-1.605537 J-18.137244
G02 X133.180103 Y102.564414 Z-0.125000 I-1.592030 J-14.682909
G02 X133.541467 Y102.512213 Z-0.125000 I-2.250101 J-16.853398
G02 X133.907643 Y102.450264 Z-0.125000 I-2.129587 J-13.700972
G02 X134.272306 Y102.379073 Z-0.125000 I-2.881975 J-15.731967
G02 X134.640853 Y102.297054 Z-0.125000 I-2.631359 J-12.692855
G02 X135.007224 Y102.204912 Z-0.125000 I-3.386818 J-14.240929
G02 X135.375893 Y102.100784 Z-0.125000 I-3.073838 J-11.587765
G02 X135.741481 Y101.985604 Z-0.125000 I-3.998600 J-13.329577
G02 X136.106973 Y101.857574 Z-0.125000 I-3.382090 J-10.240686
G02 X136.467957 Y101.718282 Z-0.125000 I-5.070337 J-13.677461
G02 X136.826093 Y101.563354 Z-0.125000 I-2.715301 J-6.768187
G02 X137.177816 Y101.389855 Z-0.125000 I-3.557245 J-7.654617
G02 X137.521853 Y101.200044 Z-0.125000 I-4.014423 J-7.682941
G02 X137.857009 Y100.993681 Z-0.125000 I-3.952216 J-6.794190
G02 X138.177293 Y100.777384 Z-0.125000 I-6.186855 J-9.506509
G02 X138.488454 Y100.548888 Z-0.125000 I-4.954776 J-7.073429
G02 X138.778833 Y100.319564 Z-0.125000 I-8.880776 J-11.543683
G02 X139.061263 Y100.081440 Z-0.125000 I-5.998376 J-7.401003
G02 X139.319843 Y99.851314 Z-0.125000 I-15.501787 J-17.678847
G02 X139.572633 Y99.615918 Z-0.125000 I-7.594776 J-8.409418
G02 X139.801393 Y99.396024 Z-0.125000 I-178.587673 J-186.016855
G02 X140.027407 Y99.174509 Z-0.125000 I-12.026311 J-12.496609
G03 X140.231773 Y98.973684 Z-0.125000 I12.956642 J12.980720
G02 X140.436973 Y98.775044 Z-0.125000 I-288.184216 J-297.906824
G03 X140.624993 Y98.599264 Z-0.125000 I5.049626 J5.212795
G03 X140.817324 Y98.429603 Z-0.125000 I7.688654 J8.522130
G03 X140.998683 Y98.281784 Z-0.125000 I2.746021 J3.183940
G03 X141.186826 Y98.143915 Z-0.125000 I3.017813 J3.920951
G03 X141.371843 Y98.024314 Z-0.125000 I1.802464 J2.585418
G03 X141.564341 Y97.917638 Z-0.125000 I1.705386 J2.850368
G03 X141.762873 Y97.824834 Z-0.125000 I1.401015 J2.738379
G03 X141.967766 Y97.746140 Z-0.125000 I1.224207 J2.881335
G03 X142.188083 Y97.677634 Z-0.125000 I1.244895 J3.615104
G03 X142.412747 Y97.622414 Z-0.125000 I1.029136 J3.702417
G03 X142.660863 Y97.575024 Z-0.125000 I1.192151 J5.568460
G03 X142.911519 Y97.538728 Z-0.125000 I0.925217 J5.505865
G03 X143.191403 Y97.509024 Z-0.125000 I1.105351 J9.081510
G03 X143.472629 Y97.488007 Z-0.125000 I0.807357 J8.911317
G03 X143.786713 Y97.472924 Z-0.125000 I0.852302 J14.469875
G03 X144.101492 Y97.464580 Z-0.125000 I0.517396 J13.577117
G03 X144.450933 Y97.462424 Z-0.125000 I0.298009 J19.981545
G03 X144.800711 Y97.466047 Z-0.125000 I-0.049180 J21.632734
G03 X145.185513 Y97.476124 Z-0.125000 I-0.458748 J24.870564
G03 X145.570407 Y97.492097 Z-0.125000 I-1.057840 J30.135499
G03 X145.989273 Y97.516024 Z-0.125000 I-1.091263 J22.781990
G03 X146.408011 Y97.546588 Z-0.125000 I-2.104548 J31.717242
G03 X146.858333 Y97.587224 Z-0.125000 I-1.704291 J21.401979
G03 X147.308151 Y97.635972 Z-0.125000 I-3.056894 J30.306780
G03 X147.785733 Y97.697204 Z-0.125000 I-2.283514 J19.703533
G03 X148.262222 Y97.768540 Z-0.125000 I-3.774231 J26.836816
G03 X148.761133 Y97.854854 Z-0.125000 I-2.875406 J18.105552
G03 X149.258099 Y97.953371 Z-0.125000 I-4.340824 J23.199917
G03 X149.770703 Y98.068804 Z-0.125000 I-3.575146 J17.072022
G03 X150.280203 Y98.198400 Z-0.125000 I-4.909138 J20.366321
G03 X150.797303 Y98.345714 Z-0.125000 I-4.371519 J16.326101
G03 X151.309931 Y98.508624 Z-0.125000 I-5.444521 J18.020277
G03 X151.821323 Y98.688394 Z-0.125000 I-5.343663 J16.018363
G03 X152.326870 Y98.884360 Z-0.125000 I-5.994445 J16.214357
G03 X152.822243 Y99.094294 Z-0.125000 I-6.584172 J16.225843
G03 X153.310643 Y99.319913 Z-0.125000 I-6.574234 J14.872753
G03 X153.780693 Y99.554494 Z-0.125000 I-8.390595 J17.401181
G03 X154.243276 Y99.803027 Z-0.125000 I-7.285687 J14.115277
G03 X154.680993 Y100.053674 Z-0.125000 I-11.718648 J20.972359
G03 X155.111749 Y100.315293 Z-0.125000 I-8.340992 J14.218875
G03 X155.513543 Y100.571034 Z-0.125000 I-22.106353 J35.174750
G03 X155.910134 Y100.833618 Z-0.125000 I-10.516037 J16.313567
G02 X156.276623 Y101.082224 Z-0.125000 I119.051609 J-175.108641
G03 X156.640836 Y101.331512 Z-0.125000 I-23.612313 J34.888603
G02 X156.977273 Y101.561674 Z-0.125000 I21.207999 J-30.639576
G02 X157.314524 Y101.785117 Z-0.125000 I12.057481 J-17.832634
G03 X157.628923 Y101.996544 Z-0.125000 I-6.337936 J9.764166
G03 X157.940696 Y102.218800 Z-0.125000 I-9.923896 J14.250693
G03 X158.231923 Y102.435394 Z-0.125000 I-11.709895 J16.048929
G03 X158.518529 Y102.658527 Z-0.125000 I-8.484501 J11.193657
G03 X158.783873 Y102.871974 Z-0.125000 I-35.653644 J44.594048
G03 X159.046237 Y103.088207 Z-0.125000 I-11.984044 J14.808025
G02 X159.288093 Y103.290164 Z-0.125000 I40.672581 J-48.462033
G03 X159.529289 Y103.491962 Z-0.125000 I-28.847556 J34.724626
G02 X159.752383 Y103.676594 Z-0.125000 I10.559077 J-12.531621
G02 X159.977263 Y103.858068 Z-0.125000 I26.157227 J-32.183605
G02 X160.187873 Y104.021474 Z-0.125000 I5.326927 J-6.648315
G02 X160.402412 Y104.178769 Z-0.125000 I6.936816 J-9.236345
G02 X160.607683 Y104.318974 Z-0.125000 I3.304350 J-4.617465
G02 X160.818236 Y104.450392 Z-0.125000 I3.535167 J-5.429534
G02 X161.025523 Y104.567094 Z-0.125000 I2.341399 J-3.916367
G02 X161.238383 Y104.673049 Z-0.125000 I2.234353 J-4.221941
G02 X161.454583 Y104.767084 Z-0.125000 I1.868138 J-3.999571
G02 X161.675652 Y104.849574 Z-0.125000 I1.657811 J-4.105388
G02 X161.906613 Y104.922664 Z-0.125000 I1.637932 J-4.774315
G02 X162.141197 Y104.984556 Z-0.125000 I1.384662 J-4.772652
G02 X162.391413 Y105.038994 Z-0.125000 I1.533676 J-6.447058
G02 X162.644013 Y105.083524 Z-0.125000 I1.226889 J-6.220917
G02 X162.916603 Y105.121794 Z-0.125000 I1.430516 J-9.199351
G02 X163.190614 Y105.151781 Z-0.125000 I1.092232 J-8.713528
G02 X163.487573 Y105.176294 Z-0.125000 I1.267889 J-13.548671
G02 X163.785330 Y105.194112 Z-0.125000 I0.914220 J-12.780414
G02 X164.107653 Y105.206894 Z-0.125000 I0.913271 J-18.960181
G02 X164.430410 Y105.214431 Z-0.125000 I0.571730 J-17.569254
G02 X164.778223 Y105.216894 Z-0.125000 I0.347813 J-24.554656
G02 X165.126262 Y105.214539 Z-0.125000 I-0.011847 J-27.471028
G02 X165.498933 Y105.206694 Z-0.125000 I-0.307244 J-23.450753
G02 X165.871650 Y105.194285 Z-0.125000 I-1.032577 J-36.618114
G02 X166.267693 Y105.176394 Z-0.125000 I-1.122817 J-29.247625
G02 X166.663652 Y105.153625 Z-0.125000 I-1.863308 J-35.858473
G02 X167.080823 Y105.124394 Z-0.125000 I-1.880959 J-29.835119
G02 X167.497742 Y105.089916 Z-0.125000 I-2.892331 J-37.512457
G02 X167.932993 Y105.048294 Z-0.125000 I-2.646283 J-29.969727
G02 X168.367772 Y105.000734 Z-0.125000 I-3.741271 J-36.212748
G02 X168.817293 Y104.945284 Z-0.125000 I-3.342725 J-28.948478
G02 X169.266094 Y104.883334 Z-0.125000 I-4.401280 J-33.541799
G02 X169.725413 Y104.813184 Z-0.125000 I-4.331828 J-29.902371
G02 X170.183708 Y104.736158 Z-0.125000 I-5.070422 J-31.570106
G02 X170.647873 Y104.651104 Z-0.125000 I-5.478544 J-31.207282
G02 X171.110749 Y104.559144 Z-0.125000 I-5.824538 J-30.528303
G02 X171.574573 Y104.460124 Z-0.125000 I-7.249570 J-35.093981
G02 X172.036964 Y104.354603 Z-0.125000 I-6.962231 J-31.574075
G02 X172.495413 Y104.243904 Z-0.125000 I-10.358874 J-43.905102
G02 X172.952445 Y104.127714 Z-0.125000 I-8.355999 J-33.825130
G02 X173.401053 Y104.008994 Z-0.125000 I-19.637117 J-75.109955
G02 X173.848511 Y103.886541 Z-0.125000 I-10.887151 J-40.661735
G03 X174.283683 Y103.764924 Z-0.125000 I517.364132 J1850.401020
G02 X174.718303 Y103.642005 Z-0.125000 I-19.853764 J-71.029364
G03 X175.137643 Y103.523904 Z-0.125000 I14.411329 J50.366558
G03 X175.557303 Y103.407682 Z-0.125000 I454.828721 J1641.496897
G03 X175.959703 Y103.300344 Z-0.125000 I5.928406 J21.417154
G03 X176.363394 Y103.198831 Z-0.125000 I10.755092 J41.916763
G03 X176.748843 Y103.110254 Z-0.125000 I3.019794 J12.257909
G03 X177.135600 Y103.032987 Z-0.125000 I3.133205 J14.676504
G03 X177.505473 Y102.970524 Z-0.125000 I2.049537 J11.010002
G03 X177.876088 Y102.921939 Z-0.125000 I1.383385 J9.114887
G03 X178.235243 Y102.884724 Z-0.125000 I2.905705 J26.290612
G03 X178.596459 Y102.854030 Z-0.125000 I1.545565 J16.047899
G03 X178.950823 Y102.831024 Z-0.125000 I1.499925 J20.362808
G03 X179.305719 Y102.814865 Z-0.125000 I0.968389 J17.363514
G03 X179.655323 Y102.805324 Z-0.125000 I0.771138 J21.845599
G03 X180.005137 Y102.801827 Z-0.125000 I0.327849 J15.298760
G03 X180.350713 Y102.804324 Z-0.125000 I-0.042843 J29.847279
G03 X180.696288 Y102.811637 Z-0.125000 I-0.276152 J21.218620
G03 X181.038393 Y102.823624 Z-0.125000 I-0.876350 J29.898194
G03 X181.380344 Y102.839837 Z-0.125000 I-0.849510 J21.531304
G03 X181.719373 Y102.860024 Z-0.125000 I-2.261534 J40.838187
G03 X182.058203 Y102.883618 Z-0.125000 I-1.830615 J28.734300
G03 X182.394513 Y102.910124 Z-0.125000 I-3.930432 J52.015832
G03 X182.730625 Y102.939281 Z-0.125000 I-2.967175 J36.155991
G03 X183.064583 Y102.970524 Z-0.125000 I-7.276018 J79.575150
G03 X183.398353 Y103.003615 Z-0.125000 I-4.641446 J48.515091
G03 X183.730363 Y103.038124 Z-0.125000 I-13.053985 J127.207205
G03 X184.062231 Y103.073684 Z-0.125000 I-7.502652 J71.585647
G03 X184.392733 Y103.109924 Z-0.125000 I-118.779813 J1084.776388
G03 X184.723176 Y103.146562 Z-0.125000 I-17.174407 J156.407430
G02 X185.052703 Y103.183224 Z-0.125000 I27.175390 J-242.757438
G02 X185.382245 Y103.219649 Z-0.125000 I577.778399 J-5225.623190
G02 X185.711373 Y103.255524 Z-0.125000 I12.249615 J-110.854988
G02 X186.040589 Y103.290635 Z-0.125000 I21.240307 J-197.597847
G02 X186.369973 Y103.324624 Z-0.125000 I6.727362 J-63.581025
G02 X186.699480 Y103.357345 Z-0.125000 I9.719658 J-96.202720
G02 X187.029793 Y103.388524 Z-0.125000 I5.107633 J-52.345844
G02 X187.360261 Y103.417933 Z-0.125000 I6.848917 J-75.089341
G02 X187.692183 Y103.445524 Z-0.125000 I3.972135 J-45.774973
G02 X188.024275 Y103.470851 Z-0.125000 I4.127851 J-51.935866
G02 X188.358473 Y103.493924 Z-0.125000 I3.059305 J-41.879669
G02 X188.692848 Y103.514449 Z-0.125000 I2.988434 J-45.951817
G02 X189.029963 Y103.532424 Z-0.125000 I2.212642 J-38.326317
G02 X189.367244 Y103.547553 Z-0.125000 I2.038597 J-41.680043
G02 X189.707853 Y103.559824 Z-0.125000 I1.456378 J-35.692309
G02 X190.048592 Y103.568939 Z-0.125000 I1.294863 J-42.029401
G02 X190.393193 Y103.575024 Z-0.125000 I0.776209 J-34.199642
G00 Z3.000000

(End cutting path id: path756307)


(Start cutting path id: path756305)
(Change tool to Default tool)

G00 Z3.000000
G00 X124.251333 Y100.991094

G00 Z4.875000 (Fast pre-penetrate)
G01 Z-0.125000 F400.0(Penetrate)
G03 X124.588630 Y101.044816 Z-0.125000 I-7.279569 J46.790993 F800.000000
G03 X124.924183 Y101.099674 Z-0.125000 I-54.679601 J335.515281
G03 X125.259550 Y101.155366 Z-0.125000 I-14.325508 J87.303579
G02 X125.593283 Y101.211074 Z-0.125000 I25.913134 J-154.210809
G03 X125.926988 Y101.266620 Z-0.125000 I-44.389518 J267.708563
G02 X126.259403 Y101.321384 Z-0.125000 I12.142748 J-72.670132
G02 X126.591933 Y101.374995 Z-0.125000 I24.359631 J-150.035018
G02 X126.923703 Y101.426854 Z-0.125000 I7.202559 J-44.991792
G02 X127.255728 Y101.476694 Z-0.125000 I10.082606 J-66.038087
G02 X127.587703 Y101.523954 Z-0.125000 I4.825102 J-32.703796
G02 X127.920050 Y101.568290 Z-0.125000 I6.124246 J-44.640517
G02 X128.253233 Y101.609354 Z-0.125000 I3.442446 J-26.558680
G02 X128.586847 Y101.646628 Z-0.125000 I3.826649 J-32.738452
G02 X128.922303 Y101.679854 Z-0.125000 I2.398659 J-22.507014
G02 X129.258172 Y101.708489 Z-0.125000 I2.465407 J-26.933067
G02 X129.596973 Y101.732354 Z-0.125000 I1.573496 J-19.921762
G02 X129.936128 Y101.750920 Z-0.125000 I1.470795 J-23.760691
G02 X130.279283 Y101.763954 Z-0.125000 I0.851185 J-17.886025
G02 X130.622649 Y101.771312 Z-0.125000 I0.574513 J-18.794790
G02 X130.970993 Y101.771954 Z-0.125000 I0.204891 J-16.666415
G02 X131.319362 Y101.765867 Z-0.125000 I-0.169142 J-19.651813
G02 X131.673493 Y101.752954 Z-0.125000 I-0.461449 J-17.517479
G02 X132.027364 Y101.732532 Z-0.125000 I-0.862799 J-18.026397
G02 X132.387553 Y101.703854 Z-0.125000 I-1.016441 J-15.042709
G02 X132.747100 Y101.667225 Z-0.125000 I-1.565076 J-17.145801
G02 X133.113073 Y101.621254 Z-0.125000 I-1.593250 J-14.163384
G02 X133.477978 Y101.566582 Z-0.125000 I-2.252275 J-16.277867
G02 X133.848903 Y101.501534 Z-0.125000 I-2.195856 J-13.611519
G02 X134.218186 Y101.426882 Z-0.125000 I-2.955452 J-15.570432
G02 X134.592453 Y101.340704 Z-0.125000 I-2.693029 J-12.551551
G02 X134.964353 Y101.244050 Z-0.125000 I-3.502982 J-14.242403
G02 X135.339433 Y101.134714 Z-0.125000 I-3.171394 J-11.577578
G02 X135.711224 Y101.013951 Z-0.125000 I-4.134020 J-13.360035
G02 X136.083533 Y100.879614 Z-0.125000 I-3.495492 J-10.270684
G02 X136.450955 Y100.733728 Z-0.125000 I-5.235333 J-13.721144
G02 X136.816043 Y100.571284 Z-0.125000 I-2.800522 J-6.785557
G02 X137.174406 Y100.389607 Z-0.125000 I-3.712270 J-7.766838
G02 X137.525273 Y100.190514 Z-0.125000 I-4.044331 J-7.536151
G02 X137.866585 Y99.974030 Z-0.125000 I-4.072497 J-6.798065
G02 X138.192423 Y99.746784 Z-0.125000 I-6.062018 J-9.039281
G02 X138.508192 Y99.506479 Z-0.125000 I-4.999486 J-6.897106
G02 X138.801863 Y99.265134 Z-0.125000 I-8.412330 J-10.535563
G02 X139.086478 Y99.014119 Z-0.125000 I-5.904568 J-6.981792
G02 X139.345483 Y98.771654 Z-0.125000 I-13.456383 J-14.633904
G02 X139.597551 Y98.523076 Z-0.125000 I-7.164098 J-7.516785
G02 X139.823643 Y98.291344 Z-0.125000 I-51.525251 J-50.497278
G02 X140.045959 Y98.057228 Z-0.125000 I-10.261797 J-9.967177
G03 X140.244703 Y97.845854 Z-0.125000 I16.751740 J15.551694
G02 X140.443551 Y97.635968 Z-0.125000 I-40.924370 J-38.971274
G03 X140.623413 Y97.451484 Z-0.125000 I5.556626 J5.237492
G03 X140.807356 Y97.272542 Z-0.125000 I9.458978 J9.539304
G03 X140.978623 Y97.118094 Z-0.125000 I2.817400 J2.952030
G03 X141.157025 Y96.973285 Z-0.125000 I3.148802 J3.696965
G03 X141.330743 Y96.849014 Z-0.125000 I1.755755 J2.270810
G03 X141.512720 Y96.737798 Z-0.125000 I1.665686 J2.520976
G03 X141.699593 Y96.641894 Z-0.125000 I1.318227 J2.338616
G03 X141.893638 Y96.560646 Z-0.125000 I1.150124 J2.474497
G03 X142.102703 Y96.490254 Z-0.125000 I1.164365 J3.112525
G03 X142.316678 Y96.433735 Z-0.125000 I0.947841 J3.155114
G03 X142.554413 Y96.385314 Z-0.125000 I1.139429 J4.986504
G03 X142.794951 Y96.348355 Z-0.125000 I0.873758 J4.885435
G03 X143.065563 Y96.317914 Z-0.125000 I1.091368 J8.483855
G03 X143.337621 Y96.296212 Z-0.125000 I0.793555 J8.232117
G03 X143.643663 Y96.280114 Z-0.125000 I0.916307 J14.502518
G03 X143.950420 Y96.270402 Z-0.125000 I0.547748 J12.451532
G03 X144.293133 Y96.266414 Z-0.125000 I0.430296 J22.249892
G03 X144.636228 Y96.267764 Z-0.125000 I0.080205 J23.216945
G03 X145.015743 Y96.274414 Z-0.125000 I-0.346747 J30.621033
G03 X145.395429 Y96.286800 Z-0.125000 I-1.063572 J38.428365
G03 X145.810643 Y96.306014 Z-0.125000 I-0.897882 J23.899420
G03 X146.225827 Y96.331341 Z-0.125000 I-1.904935 J34.643496
G03 X146.674323 Y96.365914 Z-0.125000 I-1.501821 J22.408460
G03 X147.122488 Y96.407933 Z-0.125000 I-2.833985 J32.637879
G03 X147.600303 Y96.461714 Z-0.125000 I-2.053264 J20.391483
G03 X148.077270 Y96.525053 Z-0.125000 I-3.618357 J29.075100
G03 X148.578713 Y96.602724 Z-0.125000 I-2.638811 J18.693653
G03 X149.078496 Y96.692278 Z-0.125000 I-4.133299 J24.506561
G03 X149.596053 Y96.798484 Z-0.125000 I-3.310138 J17.444902
G03 X150.110850 Y96.918714 Z-0.125000 I-4.720070 J21.372501
G03 X150.635333 Y97.056784 Z-0.125000 I-4.079954 J16.563612
G03 X151.155706 Y97.210537 Z-0.125000 I-5.222746 J18.633706
G03 X151.676783 Y97.381754 Z-0.125000 I-5.037946 J16.210875
G03 X152.192295 Y97.569459 Z-0.125000 I-5.783731 J16.686134
G03 X152.699263 Y97.772134 Z-0.125000 I-6.246734 J16.360902
G03 X153.199444 Y97.991000 Z-0.125000 I-6.368701 J15.235567
G03 X153.682443 Y98.220124 Z-0.125000 I-7.978115 J17.441697
G03 X154.158021 Y98.463845 Z-0.125000 I-7.064557 J14.371084
G03 X154.609313 Y98.711114 Z-0.125000 I-11.036658 J20.678526
G03 X155.053529 Y98.970080 Z-0.125000 I-8.083455 J14.376382
G03 X155.468773 Y99.224534 Z-0.125000 I-19.764156 J32.719229
G03 X155.878549 Y99.486553 Z-0.125000 I-10.055993 J16.178159
G02 X156.257643 Y99.735674 Z-0.125000 I435.906764 J-662.918624
G03 X156.634017 Y99.986151 Z-0.125000 I-20.382950 J31.035995
G02 X156.981643 Y100.218124 Z-0.125000 I24.146099 J-35.808015
G02 X157.329428 Y100.443772 Z-0.125000 I14.180336 J-21.474927
G03 X157.653793 Y100.657614 Z-0.125000 I-6.792139 J10.655540
G03 X157.975848 Y100.882151 Z-0.125000 I-10.365877 J15.211082
G03 X158.277353 Y101.101184 Z-0.125000 I-12.352562 J17.320675
G03 X158.574398 Y101.326722 Z-0.125000 I-8.958955 J12.107795
G03 X158.850253 Y101.542904 Z-0.125000 I-36.865323 J47.325331
G03 X159.123182 Y101.761890 Z-0.125000 I-12.629306 J16.019876
G02 X159.375573 Y101.967024 Z-0.125000 I45.174553 J-55.323604
G03 X159.627281 Y102.172082 Z-0.125000 I-30.147275 J37.262616
G02 X159.860773 Y102.360414 Z-0.125000 I11.512060 J-14.033655
G02 X160.095943 Y102.545714 Z-0.125000 I29.664757 J-37.406500
G02 X160.316613 Y102.713304 Z-0.125000 I5.816867 J-7.430159
G02 X160.541034 Y102.874957 Z-0.125000 I7.702918 J-10.457264
G02 X160.755803 Y103.019704 Z-0.125000 I3.630179 J-5.154588
G02 X160.975700 Y103.155896 Z-0.125000 I3.904166 J-6.058103
G02 X161.191743 Y103.277294 Z-0.125000 I2.572093 J-4.324413
G02 X161.413263 Y103.388169 Z-0.125000 I2.472705 J-4.663541
G02 X161.637313 Y103.486884 Z-0.125000 I2.040081 J-4.326698
G02 X161.866245 Y103.574122 Z-0.125000 I1.834309 J-4.469659
G02 X162.104073 Y103.651634 Z-0.125000 I1.756882 J-4.986945
G02 X162.345639 Y103.717858 Z-0.125000 I1.513083 J-5.045597
G02 X162.601713 Y103.776154 Z-0.125000 I1.588558 J-6.386411
G02 X162.860309 Y103.824255 Z-0.125000 I1.306871 J-6.306659
G02 X163.137773 Y103.865554 Z-0.125000 I1.451507 J-8.799196
G02 X163.416773 Y103.898146 Z-0.125000 I1.140660 J-8.554031
G02 X163.717613 Y103.924754 Z-0.125000 I1.278018 J-12.735715
G02 X164.019335 Y103.944007 Z-0.125000 I0.909090 J-11.873071
G02 X164.344533 Y103.957554 Z-0.125000 I0.883676 J-17.302450
G02 X164.670201 Y103.964975 Z-0.125000 I0.555087 J-17.210884
G02 X165.019863 Y103.966554 Z-0.125000 I0.264492 J-19.850590
G02 X165.369717 Y103.962828 Z-0.125000 I-0.081664 J-24.094875
G02 X165.743103 Y103.953254 Z-0.125000 I-0.432926 J-24.169799
G02 X166.116484 Y103.938471 Z-0.125000 I-0.810315 J-25.189651
G02 X166.512033 Y103.917154 Z-0.125000 I-1.356753 J-28.855435
G02 X166.907417 Y103.890546 Z-0.125000 I-1.976006 J-32.313215
G02 X167.322773 Y103.856954 Z-0.125000 I-2.067391 J-28.147654
G02 X167.737769 Y103.817620 Z-0.125000 I-2.858287 J-32.365411
G02 X168.169803 Y103.770554 Z-0.125000 I-2.881102 J-28.453001
G02 X168.601237 Y103.717323 Z-0.125000 I-3.788646 J-32.481704
G02 X169.046083 Y103.655934 Z-0.125000 I-3.750116 J-28.817109
G02 X169.490074 Y103.587877 Z-0.125000 I-4.657108 J-31.864535
G02 X169.943273 Y103.511614 Z-0.125000 I-4.763255 J-29.690607
G02 X170.395341 Y103.428454 Z-0.125000 I-5.470584 J-31.009248
G02 X170.852033 Y103.337534 Z-0.125000 I-6.001943 J-31.340121
G02 X171.307372 Y103.239852 Z-0.125000 I-6.358163 J-30.748361
G02 X171.762603 Y103.135644 Z-0.125000 I-8.046930 J-36.199279
G02 X172.216366 Y103.025283 Z-0.125000 I-7.419354 J-31.493699
G02 X172.665413 Y102.910414 Z-0.125000 I-12.154581 J-48.449846
G02 X173.113100 Y102.790585 Z-0.125000 I-9.228571 J-35.374608
G02 X173.551883 Y102.669084 Z-0.125000 I-26.592246 J-96.887008
G02 X173.989680 Y102.544466 Z-0.125000 I-12.781244 J-45.733330
G03 X174.415113 Y102.421624 Z-0.125000 I61.297334 J211.489802
G02 X174.840204 Y102.298267 Z-0.125000 I-25.012118 J-86.986249
G03 X175.250413 Y102.180494 Z-0.125000 I11.328455 J38.684368
G03 X175.661162 Y102.065492 Z-0.125000 I47.830526 J170.044051
G03 X176.055483 Y101.960104 Z-0.125000 I5.157583 J18.507247
G03 X176.451339 Y101.861390 Z-0.125000 I8.138447 J31.793074
G03 X176.830183 Y101.776204 Z-0.125000 I2.696016 J11.104908
G03 X177.210654 Y101.703047 Z-0.125000 I2.734431 J13.195064
G03 X177.575543 Y101.645344 Z-0.125000 I1.721179 J9.701516
G03 X177.941398 Y101.602584 Z-0.125000 I1.159117 J8.330983
G03 X178.296383 Y101.572344 Z-0.125000 I1.774488 J18.731646
G03 X178.653104 Y101.550540 Z-0.125000 I0.954501 J12.686864
G03 X179.003033 Y101.537744 Z-0.125000 I0.787049 J16.732487
G03 X179.353362 Y101.532995 Z-0.125000 I0.371167 J14.456318
G03 X179.698503 Y101.535744 Z-0.125000 I0.026439 J18.348062
G03 X180.043618 Y101.545635 Z-0.125000 I-0.265808 J15.300585
G03 X180.384553 Y101.561744 Z-0.125000 I-0.935580 J23.416489
G03 X180.725219 Y101.583704 Z-0.125000 I-0.993518 J18.066123
G03 X181.062323 Y101.610644 Z-0.125000 I-2.098364 J28.379321
G03 X181.399061 Y101.642226 Z-0.125000 I-1.848472 J21.519858
G03 X181.732663 Y101.677644 Z-0.125000 I-3.833665 J37.698365
G03 X182.065866 Y101.716543 Z-0.125000 I-3.066980 J27.717521
G03 X182.396293 Y101.758144 Z-0.125000 I-6.750188 J54.948780
G03 X182.726379 Y101.802169 Z-0.125000 I-4.904246 J38.030356
G03 X183.054043 Y101.847844 Z-0.125000 I-14.365864 J104.255231
G03 X183.381469 Y101.894950 Z-0.125000 I-8.237865 J58.421980
G03 X183.706903 Y101.942744 Z-0.125000 I-181.504645 J1237.004341
G03 X184.032230 Y101.991048 Z-0.125000 I-16.509726 J112.311641
G02 X184.356103 Y102.039244 Z-0.125000 I21.634310 J-144.266437
G02 X184.679990 Y102.087052 Z-0.125000 I427.029412 J-2891.896314
G02 X185.003073 Y102.134044 Z-0.125000 I11.579495 J-78.478313
G02 X185.326285 Y102.179865 Z-0.125000 I21.075466 J-147.500892
G02 X185.649453 Y102.224244 Z-0.125000 I6.969777 J-49.554507
G02 X185.972850 Y102.266789 Z-0.125000 I9.017126 J-67.291469
G02 X186.297033 Y102.307344 Z-0.125000 I5.295027 J-41.010641
G02 X186.621507 Y102.345529 Z-0.125000 I5.845384 J-48.273502
G02 X186.947663 Y102.381244 Z-0.125000 I3.951401 J-34.577419
G02 X187.274139 Y102.414100 Z-0.125000 I4.219613 J-40.289901
G02 X187.603203 Y102.444144 Z-0.125000 I3.052008 J-31.610850
G02 X187.932571 Y102.470931 Z-0.125000 I3.017500 J-35.063668
G02 X188.265413 Y102.494544 Z-0.125000 I2.262309 J-29.531830
G02 X188.598522 Y102.514587 Z-0.125000 I2.135062 J-32.706202
G02 X188.935913 Y102.531144 Z-0.125000 I1.555087 J-28.242791
G02 X189.273523 Y102.543980 Z-0.125000 I1.173227 J-26.411689
G02 X189.616083 Y102.552844 Z-0.125000 I0.943090 J-29.823113
G02 X189.958791 Y102.558081 Z-0.125000 I0.568406 J-25.978430
G02 X190.307023 Y102.558844 Z-0.125000 I0.232813 J-26.802852
G00 Z3.000000

(End cutting path id: path756305)


(Start cutting path id: path756303)
(Change tool to Default tool)

G00 Z3.000000
G00 X124.263703 Y99.775874

G00 Z4.875000 (Fast pre-penetrate)
G01 Z-0.125000 F400.0(Penetrate)
G03 X124.599980 Y99.840868 Z-0.125000 I-9.908136 J52.166568 F800.000000
G02 X124.934003 Y99.906524 Z-0.125000 I536.561141 J-2728.870577
G03 X125.267863 Y99.972749 Z-0.125000 I-20.790508 J105.676286
G02 X125.599583 Y100.038574 Z-0.125000 I21.935127 J-109.662999
G03 X125.931331 Y100.103877 Z-0.125000 I-163.617474 J832.079570
G02 X126.261333 Y100.167834 Z-0.125000 I10.406271 J-52.810042
G02 X126.591550 Y100.230241 Z-0.125000 I18.395031 J-96.429381
G02 X126.920643 Y100.290334 Z-0.125000 I6.898205 J-36.846220
G02 X127.250129 Y100.347908 Z-0.125000 I9.285331 J-52.166463
G02 X127.579353 Y100.402374 Z-0.125000 I4.791765 J-27.942123
G02 X127.909071 Y100.453376 Z-0.125000 I5.922465 J-37.196463
G02 X128.239603 Y100.500574 Z-0.125000 I3.442035 J-22.923815
G02 X128.570683 Y100.543403 Z-0.125000 I3.739503 J-27.606033
G02 X128.903753 Y100.581674 Z-0.125000 I2.484317 J-20.152591
G02 X129.237363 Y100.614808 Z-0.125000 I2.482638 J-23.300132
G02 X129.574223 Y100.642674 Z-0.125000 I1.665141 J-18.079420
G02 X129.911525 Y100.664650 Z-0.125000 I1.513971 J-20.637724
G02 X130.253313 Y100.680674 Z-0.125000 I0.968451 J-17.003852
G02 X130.595385 Y100.689995 Z-0.125000 I0.767833 J-21.896678
G02 X130.943063 Y100.692774 Z-0.125000 I0.295271 J-15.192092
G02 X131.290784 Y100.688177 Z-0.125000 I-0.060350 J-17.718427
G02 X131.644983 Y100.676074 Z-0.125000 I-0.366877 J-15.925629
G02 X131.998940 Y100.656050 Z-0.125000 I-0.786942 J-17.049209
G02 X132.359923 Y100.627374 Z-0.125000 I-0.977951 J-14.597011
G02 X132.720260 Y100.590246 Z-0.125000 I-1.503569 J-16.359644
G02 X133.087743 Y100.543274 Z-0.125000 I-1.564726 J-13.702552
G02 X133.454095 Y100.487200 Z-0.125000 I-2.208015 J-15.650663
G02 X133.827123 Y100.420124 Z-0.125000 I-2.157116 J-13.067030
G02 X134.198394 Y100.343110 Z-0.125000 I-2.895991 J-14.894527
G02 X134.575183 Y100.253924 Z-0.125000 I-2.707826 J-12.280391
G02 X134.949458 Y100.153867 Z-0.125000 I-3.586258 J-14.164869
G02 X135.327233 Y100.040604 Z-0.125000 I-3.180879 J-11.296071
G02 X135.701497 Y99.915505 Z-0.125000 I-4.108742 J-12.914663
G02 X136.076373 Y99.776214 Z-0.125000 I-3.553103 J-10.136646
G02 X136.446042 Y99.625022 Z-0.125000 I-5.259942 J-13.388254
G02 X136.813233 Y99.456724 Z-0.125000 I-2.859003 J-6.722455
G02 X137.173308 Y99.268747 Z-0.125000 I-3.785298 J-7.689682
G02 X137.525383 Y99.062924 Z-0.125000 I-4.077754 J-7.379339
G02 X137.867360 Y98.839246 Z-0.125000 I-4.125094 J-6.680038
G02 X138.192943 Y98.604724 Z-0.125000 I-6.017948 J-8.697880
G02 X138.507790 Y98.356697 Z-0.125000 I-5.001711 J-6.673034
G02 X138.799323 Y98.108044 Z-0.125000 I-8.192292 J-9.900302
G02 X139.081109 Y97.849312 Z-0.125000 I-5.809569 J-6.610016
G02 X139.335973 Y97.600074 Z-0.125000 I-12.685941 J-13.227271
G02 X139.583233 Y97.344378 Z-0.125000 I-6.897671 J-6.917514
G02 X139.803313 Y97.106944 Z-0.125000 I-40.307174 J-37.581758
G02 X140.019074 Y96.866832 Z-0.125000 I-9.511772 J-8.764135
G03 X140.210273 Y96.651244 Z-0.125000 I18.178897 J15.929768
G02 X140.401274 Y96.436884 Z-0.125000 I-29.971039 J-26.897356
G03 X140.572513 Y96.249874 Z-0.125000 I5.543119 J4.903747
G03 X140.747867 Y96.068220 Z-0.125000 I9.896590 J9.377918
G03 X140.909983 Y95.912844 Z-0.125000 I2.704072 J2.659103
G03 X141.079596 Y95.767119 Z-0.125000 I3.020060 J3.343542
G03 X141.244183 Y95.643224 Z-0.125000 I1.641586 J2.009485
G03 X141.417528 Y95.532674 Z-0.125000 I1.555685 J2.248171
G03 X141.595833 Y95.438004 Z-0.125000 I1.215322 J2.073735
G03 X141.781717 Y95.358400 Z-0.125000 I1.052888 J2.201768
G03 X141.983173 Y95.289794 Z-0.125000 I1.081887 J2.846801
G03 X142.189708 Y95.235319 Z-0.125000 I0.876761 J2.905353
G03 X142.420973 Y95.188834 Z-0.125000 I1.070891 J4.729233
G03 X142.655053 Y95.153741 Z-0.125000 I0.805848 J4.576925
G03 X142.920303 Y95.124934 Z-0.125000 I1.082196 J8.729242
G03 X143.186970 Y95.104423 Z-0.125000 I0.743602 J7.924032
G03 X143.488733 Y95.089234 Z-0.125000 I0.936358 J15.597390
G03 X143.791198 Y95.080091 Z-0.125000 I0.636823 J16.059084
G03 X144.130743 Y95.075734 Z-0.125000 I0.442909 J21.284847
G03 X144.470653 Y95.076537 Z-0.125000 I-0.000000 J71.967434
G03 X144.848133 Y95.081734 Z-0.125000 I-0.098574 J20.870286
G03 X145.225791 Y95.091535 Z-0.125000 I-0.617901 J31.089086
G03 X145.640193 Y95.107934 Z-0.125000 I-0.881783 J27.527425
G03 X146.054626 Y95.129589 Z-0.125000 I-1.905832 J40.450547
G03 X146.503643 Y95.159534 Z-0.125000 I-1.391752 J24.250248
G03 X146.952444 Y95.196556 Z-0.125000 I-2.801841 J36.704115
G03 X147.432273 Y95.244534 Z-0.125000 I-1.894898 J21.374370
G03 X147.911431 Y95.301758 Z-0.125000 I-3.494705 J31.297243
G03 X148.416533 Y95.372814 Z-0.125000 I-2.431709 J19.116569
G03 X148.920192 Y95.455542 Z-0.125000 I-3.993496 J25.887435
G03 X149.443133 Y95.554674 Z-0.125000 I-3.087448 J17.715796
G03 X149.963549 Y95.667784 Z-0.125000 I-4.504886 J21.980672
G03 X150.495133 Y95.798874 Z-0.125000 I-3.857576 J16.786212
G03 X151.022836 Y95.945754 Z-0.125000 I-5.009333 J19.018694
G03 X151.552553 Y96.110574 Z-0.125000 I-4.803169 J16.370583
G03 X152.076917 Y96.292185 Z-0.125000 I-5.604372 J17.029286
G03 X152.593753 Y96.489504 Z-0.125000 I-5.980509 J16.440205
G03 X153.103949 Y96.703474 Z-0.125000 I-6.198718 J15.495659
G03 X153.597613 Y96.928644 Z-0.125000 I-7.653699 J17.433740
G03 X154.083891 Y97.168959 Z-0.125000 I-6.894014 J14.562233
G03 X154.546133 Y97.413834 Z-0.125000 I-10.561456 J20.495168
G03 X155.001197 Y97.670997 Z-0.125000 I-7.886128 J14.486170
G03 X155.427113 Y97.924584 Z-0.125000 I-18.414460 J31.412712
G03 X155.847343 Y98.186277 Z-0.125000 I-9.740340 J16.109419
G03 X156.236313 Y98.435784 Z-0.125000 I-552.754107 J862.146080
G03 X156.622254 Y98.687124 Z-0.125000 I-18.634490 J29.035892
G02 X156.978583 Y98.920274 Z-0.125000 I25.968786 J-39.299840
G02 X157.334650 Y99.147362 Z-0.125000 I16.050950 J-24.774744
G03 X157.666773 Y99.362554 Z-0.125000 I-7.334200 J11.683327
G03 X157.996934 Y99.588089 Z-0.125000 I-11.014976 J16.479279
G03 X158.306553 Y99.807934 Z-0.125000 I-13.489405 J19.325756
G03 X158.612037 Y100.034017 Z-0.125000 I-9.614471 J13.310496
G03 X158.896493 Y100.250774 Z-0.125000 I-44.237297 J58.348962
G03 X159.178303 Y100.470113 Z-0.125000 I-13.871571 J18.113117
G02 X159.439803 Y100.675854 Z-0.125000 I39.925425 J-50.476748
G03 X159.700825 Y100.881306 Z-0.125000 I-36.791073 J47.010815
G02 X159.943913 Y101.070474 Z-0.125000 I11.501120 J-14.528574
G02 X160.188756 Y101.256419 Z-0.125000 I26.763639 J-34.986899
G02 X160.419373 Y101.425164 Z-0.125000 I6.000859 J-7.959158
G02 X160.653710 Y101.587854 Z-0.125000 I7.841694 J-11.045019
G02 X160.878613 Y101.734084 Z-0.125000 I3.801375 J-5.600460
G02 X161.108510 Y101.871692 Z-0.125000 I4.128055 J-6.635772
G02 X161.334663 Y101.994834 Z-0.125000 I2.721430 J-4.728716
G02 X161.566134 Y102.107450 Z-0.125000 I2.638874 J-5.129771
G02 X161.800033 Y102.207984 Z-0.125000 I2.164246 J-4.712884
G02 X162.038707 Y102.297073 Z-0.125000 I1.957079 J-4.878850
G02 X162.285923 Y102.376294 Z-0.125000 I1.852722 J-5.356254
G02 X162.536838 Y102.444176 Z-0.125000 I1.605743 J-5.437705
G02 X162.801703 Y102.503834 Z-0.125000 I1.642890 J-6.676181
G02 X163.069102 Y102.553072 Z-0.125000 I1.363130 J-6.652072
G02 X163.354653 Y102.595134 Z-0.125000 I1.471471 J-8.999279
G02 X163.641767 Y102.628070 Z-0.125000 I1.159633 J-8.840931
G02 X163.949893 Y102.654434 Z-0.125000 I1.195570 J-12.159421
G02 X164.258906 Y102.672983 Z-0.125000 I0.882169 J-12.113357
G02 X164.590463 Y102.685234 Z-0.125000 I0.761986 J-16.128843
G02 X164.922472 Y102.690580 Z-0.125000 I0.408820 J-15.075904
G02 X165.277433 Y102.689234 Z-0.125000 I0.101723 J-19.972564
G02 X165.632544 Y102.681885 Z-0.125000 I-0.281076 J-22.166557
G02 X166.009993 Y102.668134 Z-0.125000 I-0.702521 J-24.469717
G02 X166.387355 Y102.648256 Z-0.125000 I-1.172244 J-25.845919
G02 X166.785553 Y102.621134 Z-0.125000 I-1.479722 J-24.661334
G02 X167.183452 Y102.587958 Z-0.125000 I-2.138292 J-28.048670
G02 X167.599823 Y102.546934 Z-0.125000 I-2.378723 J-26.276057
G02 X168.015675 Y102.499555 Z-0.125000 I-3.202700 J-29.959309
G02 X168.446903 Y102.443834 Z-0.125000 I-3.217751 J-26.598800
G02 X168.877327 Y102.381436 Z-0.125000 I-4.033802 J-29.341299
G02 X169.319393 Y102.310314 Z-0.125000 I-4.109011 J-26.949203
G02 X169.760362 Y102.232255 Z-0.125000 I-4.962433 J-29.318292
G02 X170.208723 Y102.145734 Z-0.125000 I-5.253883 J-28.431118
G02 X170.655719 Y102.052179 Z-0.125000 I-5.809226 J-28.870594
G02 X171.105553 Y101.950984 Z-0.125000 I-6.796934 J-31.264175
G02 X171.553830 Y101.843092 Z-0.125000 I-6.662231 J-28.665833
G02 X172.000353 Y101.729084 Z-0.125000 I-9.342465 J-37.522150
G02 X172.445292 Y101.609194 Z-0.125000 I-8.133762 J-31.071808
G02 X172.884143 Y101.485604 Z-0.125000 I-14.718935 J-53.105861
G02 X173.321593 Y101.357507 Z-0.125000 I-10.155186 J-35.490791
G02 X173.749193 Y101.228754 Z-0.125000 I-44.689134 J-149.191213
G02 X174.175896 Y101.097551 Z-0.125000 I-15.340724 J-50.651115
G03 X174.589793 Y100.969324 Z-0.125000 I30.790145 J98.653727
G02 X175.003557 Y100.841412 Z-0.125000 I-39.165238 J-127.423431
G03 X175.402623 Y100.720274 Z-0.125000 I9.196418 J29.577877
G03 X175.802531 Y100.602924 Z-0.125000 I24.755471 J83.621971
G03 X176.186893 Y100.496264 Z-0.125000 I4.508795 J15.502144
G03 X176.573107 Y100.397413 Z-0.125000 I6.491893 J24.560199
G03 X176.943923 Y100.313014 Z-0.125000 I2.414321 J9.750734
G03 X177.316790 Y100.241779 Z-0.125000 I2.385451 J11.474668
G03 X177.676123 Y100.186854 Z-0.125000 I1.493436 J8.567625
G03 X178.036772 Y100.148223 Z-0.125000 I0.990889 J7.548005
G03 X178.388163 Y100.123254 Z-0.125000 I1.221065 J14.698814
G03 X178.740998 Y100.108321 Z-0.125000 I0.623448 J10.555103
G03 X179.088103 Y100.103654 Z-0.125000 I0.365600 J14.280205
G03 X179.435430 Y100.108413 Z-0.125000 I0.013148 J11.716994
G03 X179.778413 Y100.121254 Z-0.125000 I-0.550167 J19.282146
G03 X180.121132 Y100.142174 Z-0.125000 I-0.667653 J13.755464
G03 X180.460263 Y100.169954 Z-0.125000 I-1.503752 J20.441320
G03 X180.798855 Y100.204102 Z-0.125000 I-1.460397 J16.176043
G03 X181.134203 Y100.243654 Z-0.125000 I-2.917658 J26.179443
G03 X181.468927 Y100.288130 Z-0.125000 I-2.516856 J20.223572
G03 X181.800553 Y100.336554 Z-0.125000 I-5.084513 J35.980360
G03 X182.131606 Y100.388531 Z-0.125000 I-3.790862 J25.225220
G03 X182.459713 Y100.443164 Z-0.125000 I-9.971874 J60.899942
G03 X182.787372 Y100.500124 Z-0.125000 I-6.217401 J36.736436
G03 X183.112303 Y100.558374 Z-0.125000 I-36.006387 J201.785074
G03 X183.436958 Y100.617801 Z-0.125000 I-10.128171 J56.247704
G02 X183.759303 Y100.677474 Z-0.125000 I34.064812 J-183.112495
G03 X184.081562 Y100.737213 Z-0.125000 I-26.546314 J144.100951
G02 X184.402083 Y100.796214 Z-0.125000 I12.580417 J-67.443040
G02 X184.722716 Y100.854325 Z-0.125000 I44.719421 J-245.830358
G02 X185.042343 Y100.910854 Z-0.125000 I8.031676 J-44.480864
G02 X185.362265 Y100.965605 Z-0.125000 I12.498403 J-72.068491
G02 X185.682113 Y101.018124 Z-0.125000 I5.954392 J-35.263024
G02 X186.002348 Y101.068089 Z-0.125000 I7.146952 J-44.755428
G02 X186.323583 Y101.115324 Z-0.125000 I4.699372 J-30.843117
G02 X186.645246 Y101.159318 Z-0.125000 I5.141266 J-36.392694
G02 X186.969013 Y101.200124 Z-0.125000 I3.487340 J-26.364649
G02 X187.293244 Y101.237172 Z-0.125000 I3.552333 J-29.651695
G02 X187.620683 Y101.270624 Z-0.125000 I2.738582 J-25.186648
G02 X187.948546 Y101.299954 Z-0.125000 I2.569932 J-26.880997
G02 X188.280673 Y101.325324 Z-0.125000 I2.008560 J-24.107649
G02 X188.613162 Y101.346265 Z-0.125000 I1.789207 J-25.757615
G02 X188.950853 Y101.362924 Z-0.125000 I1.332523 J-23.580754
G02 X189.288792 Y101.375145 Z-0.125000 I0.913757 J-20.589679
G02 X189.632713 Y101.382424 Z-0.125000 I0.708808 J-25.360079
G02 X189.976755 Y101.385078 Z-0.125000 I0.419547 J-32.082760
G02 X190.327343 Y101.382694 Z-0.125000 I0.045066 J-19.150365
G00 Z3.000000

(End cutting path id: path756303)


(Start cutting path id: path756301)
(Change tool to Default tool)

G00 Z3.000000
G00 X124.296543 Y98.398724

G00 Z4.875000 (Fast pre-penetrate)
G01 Z-0.125000 F400.0(Penetrate)
G03 X124.635468 Y98.472940 Z-0.125000 I-10.849931 J50.359721 F800.000000
G02 X124.971713 Y98.547664 Z-0.125000 I142.194635 J-639.058028
G03 X125.307791 Y98.622855 Z-0.125000 I-25.670906 J115.529924
G02 X125.641193 Y98.697344 Z-0.125000 I21.474175 J-95.331825
G02 X125.974655 Y98.771195 Z-0.125000 I146.689146 J-661.559185
G02 X126.305793 Y98.843314 Z-0.125000 I11.240090 J-50.813292
G02 X126.637200 Y98.913670 Z-0.125000 I20.703049 J-96.704685
G02 X126.966903 Y98.981354 Z-0.125000 I6.932030 J-32.930458
G02 X127.297096 Y99.046213 Z-0.125000 I9.894237 J-49.498171
G02 X127.626453 Y99.107574 Z-0.125000 I4.936140 J-25.580187
G02 X127.956450 Y99.165125 Z-0.125000 I5.903122 J-32.873665
G02 X128.286713 Y99.218344 Z-0.125000 I3.542516 J-20.932484
G02 X128.617685 Y99.266862 Z-0.125000 I3.920828 J-25.593260
G02 X128.950213 Y99.310344 Z-0.125000 I2.562620 J-18.304396
G02 X129.283413 Y99.348255 Z-0.125000 I2.639761 J-21.717408
G02 X129.619533 Y99.380444 Z-0.125000 I1.752971 J-16.533907
G02 X129.956220 Y99.406277 Z-0.125000 I1.645651 J-19.241257
G02 X130.297143 Y99.425644 Z-0.125000 I1.043877 J-15.365184
G02 X130.638451 Y99.438032 Z-0.125000 I0.801409 J-17.372250
G02 X130.985183 Y99.443144 Z-0.125000 I0.391507 J-14.792848
G02 X131.332013 Y99.440680 Z-0.125000 I0.056296 J-16.485464
G02 X131.685233 Y99.429844 Z-0.125000 I-0.238750 J-13.545104
G02 X132.038209 Y99.410840 Z-0.125000 I-0.693298 J-16.164829
G02 X132.398123 Y99.382744 Z-0.125000 I-0.884678 J-13.652114
G02 X132.757370 Y99.345654 Z-0.125000 I-1.394536 J-15.265395
G02 X133.123633 Y99.298344 Z-0.125000 I-1.531349 J-13.296881
G02 X133.488700 Y99.241355 Z-0.125000 I-2.151811 J-14.982139
G02 X133.860233 Y99.172944 Z-0.125000 I-2.089783 J-12.392467
G02 X134.229914 Y99.094107 Z-0.125000 I-2.848202 J-14.261806
G02 X134.604763 Y99.002694 Z-0.125000 I-2.653079 J-11.693571
G02 X134.976924 Y98.899965 Z-0.125000 I-3.481699 J-13.338822
G02 X135.352083 Y98.783614 Z-0.125000 I-3.155097 J-10.836190
G02 X135.723494 Y98.655022 Z-0.125000 I-4.067976 J-12.350137
G02 X136.094783 Y98.511984 Z-0.125000 I-3.519523 J-9.689178
G02 X136.460636 Y98.356612 Z-0.125000 I-5.132637 J-12.594227
G02 X136.822863 Y98.184184 Z-0.125000 I-2.889827 J-6.537457
G02 X137.177492 Y97.991943 Z-0.125000 I-3.766629 J-7.371566
G02 X137.522693 Y97.782404 Z-0.125000 I-4.113537 J-7.165875
G02 X137.857365 Y97.555101 Z-0.125000 I-4.100520 J-6.397459
G02 X138.174293 Y97.317964 Z-0.125000 I-6.039188 J-8.401605
G02 X138.480209 Y97.067508 Z-0.125000 I-4.942916 J-6.349512
G02 X138.761813 Y96.817774 Z-0.125000 I-8.253054 J-9.589913
G02 X139.033500 Y96.558243 Z-0.125000 I-5.719620 J-6.259483
G02 X139.277693 Y96.309754 Z-0.125000 I-13.039265 J-13.058080
G02 X139.514320 Y96.055146 Z-0.125000 I-6.800383 J-6.557396
G02 X139.723613 Y95.820384 Z-0.125000 I-50.732368 J-45.439088
G02 X139.928844 Y95.583314 Z-0.125000 I-9.538659 J-8.464973
G03 X140.109773 Y95.372154 Z-0.125000 I14.746135 J12.451881
G02 X140.290945 Y95.162647 Z-0.125000 I-39.893319 J-34.680912
G03 X140.452973 Y94.981424 Z-0.125000 I4.809591 J4.137129
G03 X140.619676 Y94.806073 Z-0.125000 I7.786930 J7.235950
G03 X140.774033 Y94.657344 Z-0.125000 I2.366813 J2.301921
G03 X140.936410 Y94.518835 Z-0.125000 I2.547237 J2.821738
G03 X141.095023 Y94.401854 Z-0.125000 I1.448391 J1.797839
G03 X141.262583 Y94.298753 Z-0.125000 I1.335837 J1.983287
G03 X141.436833 Y94.210854 Z-0.125000 I1.102454 J1.968836
G03 X141.618450 Y94.138213 Z-0.125000 I0.933455 J2.070449
G03 X141.817613 Y94.075894 Z-0.125000 I1.011539 J2.883358
G03 X142.021463 Y94.027350 Z-0.125000 I0.797386 J2.896175
G03 X142.251833 Y93.986294 Z-0.125000 I1.026252 J5.091562
G03 X142.484672 Y93.955899 Z-0.125000 I0.748760 J4.828723
G03 X142.750143 Y93.931294 Z-0.125000 I1.053431 J9.921574
G03 X143.016809 Y93.914160 Z-0.125000 I0.730999 J9.293089
G03 X143.319723 Y93.901594 Z-0.125000 I0.901792 J18.081572
G03 X143.623225 Y93.894040 Z-0.125000 I0.541892 J15.670752
G03 X143.964723 Y93.890994 Z-0.125000 I0.413042 J27.164719
