%
(Header)
(Generated by gcodetools from Inkscape.)
(Using default header. To add your own header create file "header" in the output dir.)
M3
(Header end.)
G21 (All units in mm)

(Start cutting path id: path22369)
(Change tool to Default tool)

G00 Z3.000000
G00 X22.359567 Y63.551027

G00 Z4.875000 (Fast pre-penetrate)
G01 Z-0.125000 F400.0(Penetrate)
G01 X31.718238 Y75.358996 Z-0.125000 F800.000000
G01 X59.143496 Y69.100378 Z-0.125000
G01 X81.893030 Y67.517483 Z-0.125000
G01 X98.553795 Y72.023358 Z-0.125000
G01 X130.764257 Y60.979537 Z-0.125000
G01 X145.063267 Y67.847167 Z-0.125000
G01 X164.130096 Y69.946977 Z-0.125000
G00 Z3.000000

(End cutting path id: path22369)


(Start cutting path id: path22353)
(Change tool to Default tool)

G00 Z3.000000
G00 X22.474893 Y71.902357

G00 Z4.875000 (Fast pre-penetrate)
G01 Z-0.125000 F400.0(Penetrate)
G01 X34.294120 Y81.249770 Z-0.125000 F800.000000
G01 X57.918818 Y78.791712 Z-0.125000
G01 X82.330650 Y75.546519 Z-0.125000
G01 X101.254957 Y77.788852 Z-0.125000
G01 X128.149658 Y72.060792 Z-0.125000
G01 X147.231746 Y74.145343 Z-0.125000
G01 X165.329782 Y77.213948 Z-0.125000
G00 Z3.000000

(End cutting path id: path22353)


(Start cutting path id: path22339)
(Change tool to Default tool)

G00 Z3.000000
G00 X22.575802 Y79.209771

G00 Z4.875000 (Fast pre-penetrate)
G01 Z-0.125000 F400.0(Penetrate)
G01 X36.548018 Y86.404196 Z-0.125000 F800.000000
G01 X56.847225 Y87.271628 Z-0.125000
G01 X82.713568 Y82.571925 Z-0.125000
G01 X103.618472 Y82.833661 Z-0.125000
G01 X125.861883 Y81.756891 Z-0.125000
G01 X149.129166 Y79.656247 Z-0.125000
G01 X166.379507 Y83.572546 Z-0.125000
G00 Z3.000000

(End cutting path id: path22339)


(Start cutting path id: path22329)
(Change tool to Default tool)

G00 Z3.000000
G00 X22.647883 Y84.429351

G00 Z4.875000 (Fast pre-penetrate)
G01 Z-0.125000 F400.0(Penetrate)
G01 X38.157942 Y90.085932 Z-0.125000 F800.000000
G01 X56.081802 Y93.328711 Z-0.125000
G01 X82.987081 Y87.590073 Z-0.125000
G01 X105.306699 Y86.437094 Z-0.125000
G01 X124.227757 Y88.682676 Z-0.125000
G01 X150.484466 Y83.592607 Z-0.125000
G01 X167.129311 Y88.114402 Z-0.125000
G00 Z3.000000

(End cutting path id: path22329)


(Start cutting path id: path22331)
(Change tool to Default tool)

G00 Z3.000000
G00 X22.633465 Y83.385436

G00 Z4.875000 (Fast pre-penetrate)
G01 Z-0.125000 F400.0(Penetrate)
G01 X37.835958 Y89.349584 Z-0.125000 F800.000000
G01 X56.234887 Y92.117294 Z-0.125000
G01 X82.932378 Y86.586443 Z-0.125000
G01 X104.969055 Y85.716407 Z-0.125000
G01 X124.554584 Y87.297518 Z-0.125000
G01 X150.213406 Y82.805335 Z-0.125000
G01 X166.979351 Y87.206030 Z-0.125000
G00 Z3.000000

(End cutting path id: path22331)


(Start cutting path id: path22333)
(Change tool to Default tool)

G00 Z3.000000
G00 X22.619051 Y82.341519

G00 Z4.875000 (Fast pre-penetrate)
G01 Z-0.125000 F400.0(Penetrate)
G01 X37.513973 Y88.613236 Z-0.125000 F800.000000
G01 X56.387972 Y90.905877 Z-0.125000
G01 X82.877676 Y85.582814 Z-0.125000
G01 X104.631410 Y84.995720 Z-0.125000
G01 X124.881407 Y85.912362 Z-0.125000
G01 X149.942346 Y82.018063 Z-0.125000
G01 X166.829388 Y86.297661 Z-0.125000
G00 Z3.000000

(End cutting path id: path22333)


(Start cutting path id: path22335)
(Change tool to Default tool)

G00 Z3.000000
G00 X22.604634 Y81.297604

G00 Z4.875000 (Fast pre-penetrate)
G01 Z-0.125000 F400.0(Penetrate)
G01 X37.191986 Y87.876891 Z-0.125000 F800.000000
G01 X56.541058 Y89.694460 Z-0.125000
G01 X82.822973 Y84.579184 Z-0.125000
G01 X104.293765 Y84.275033 Z-0.125000
G01 X125.208233 Y84.527204 Z-0.125000
G01 X149.671286 Y81.230791 Z-0.125000
G01 X166.679428 Y85.389290 Z-0.125000
G00 Z3.000000

(End cutting path id: path22335)


(Start cutting path id: path22337)
(Change tool to Default tool)

G00 Z3.000000
G00 X22.590219 Y80.253686

G00 Z4.875000 (Fast pre-penetrate)
G01 Z-0.125000 F400.0(Penetrate)
G01 X36.870002 Y87.140543 Z-0.125000 F800.000000
G01 X56.694140 Y88.483046 Z-0.125000
G01 X82.768271 Y83.575555 Z-0.125000
G01 X103.956117 Y83.554335 Z-0.125000
G01 X125.535057 Y83.142036 Z-0.125000
G01 X149.400226 Y80.443506 Z-0.125000
G01 X166.529467 Y84.480905 Z-0.125000
G00 Z3.000000

(End cutting path id: path22337)


(Start cutting path id: path22341)
(Change tool to Default tool)

G00 Z3.000000
G00 X22.561388 Y78.165854

G00 Z4.875000 (Fast pre-penetrate)
G01 Z-0.125000 F400.0(Penetrate)
G01 X36.226031 Y85.667851 Z-0.125000 F800.000000
G01 X57.000310 Y86.060211 Z-0.125000
G01 X82.658866 Y81.568296 Z-0.125000
G01 X103.280827 Y82.112974 Z-0.125000
G01 X126.188706 Y80.371735 Z-0.125000
G01 X148.858106 Y78.868975 Z-0.125000
G01 X166.229547 Y82.664175 Z-0.125000
G00 Z3.000000

(End cutting path id: path22341)


(Start cutting path id: path22343)
(Change tool to Default tool)

G00 Z3.000000
G00 X22.546971 Y77.121939

G00 Z4.875000 (Fast pre-penetrate)
G01 Z-0.125000 F400.0(Penetrate)
G01 X35.904047 Y84.931503 Z-0.125000 F800.000000
G01 X57.153395 Y84.848794 Z-0.125000
G01 X82.604163 Y80.564666 Z-0.125000
G01 X102.943182 Y81.392287 Z-0.125000
G01 X126.515533 Y78.986577 Z-0.125000
G01 X148.587046 Y78.081703 Z-0.125000
G01 X166.079586 Y81.755803 Z-0.125000
G00 Z3.000000

(End cutting path id: path22343)


(Start cutting path id: path22345)
(Change tool to Default tool)

G00 Z3.000000
G00 X22.532556 Y76.078021

G00 Z4.875000 (Fast pre-penetrate)
G01 Z-0.125000 F400.0(Penetrate)
G01 X35.582062 Y84.195155 Z-0.125000 F800.000000
G01 X57.306480 Y83.637377 Z-0.125000
G01 X82.549461 Y79.561037 Z-0.125000
G01 X102.605537 Y80.671600 Z-0.125000
G01 X126.842359 Y77.601419 Z-0.125000
G01 X148.315986 Y77.294431 Z-0.125000
G01 X165.929626 Y80.847432 Z-0.125000
G00 Z3.000000

(End cutting path id: path22345)


(Start cutting path id: path22347)
(Change tool to Default tool)

G00 Z3.000000
G00 X22.518139 Y75.034106

G00 Z4.875000 (Fast pre-penetrate)
G01 Z-0.125000 F400.0(Penetrate)
G01 X35.260075 Y83.458810 Z-0.125000 F800.000000
G01 X57.459565 Y82.425960 Z-0.125000
G01 X82.494758 Y78.557407 Z-0.125000
G01 X102.267892 Y79.950913 Z-0.125000
G01 X127.169182 Y76.216263 Z-0.125000
G01 X148.044926 Y76.507159 Z-0.125000
G01 X165.779663 Y79.939063 Z-0.125000
G00 Z3.000000

(End cutting path id: path22347)


(Start cutting path id: path22349)
(Change tool to Default tool)

G00 Z3.000000
G00 X22.503725 Y73.990189

G00 Z4.875000 (Fast pre-penetrate)
G01 Z-0.125000 F400.0(Penetrate)
G01 X34.938091 Y82.722462 Z-0.125000 F800.000000
G01 X57.612650 Y81.214543 Z-0.125000
G01 X82.440056 Y77.553778 Z-0.125000
G01 X101.930247 Y79.230226 Z-0.125000
G01 X127.496008 Y74.831105 Z-0.125000
G01 X147.773866 Y75.719887 Z-0.125000
G01 X165.629703 Y79.030691 Z-0.125000
G00 Z3.000000

(End cutting path id: path22349)


(Start cutting path id: path22351)
(Change tool to Default tool)

G00 Z3.000000
G00 X22.489307 Y72.946274

G00 Z4.875000 (Fast pre-penetrate)
G01 Z-0.125000 F400.0(Penetrate)
G01 X34.616107 Y81.986115 Z-0.125000 F800.000000
G01 X57.765735 Y80.003126 Z-0.125000
G01 X82.385353 Y76.550149 Z-0.125000
G01 X101.592602 Y78.509539 Z-0.125000
G01 X127.822832 Y73.445950 Z-0.125000
G01 X147.502806 Y74.932615 Z-0.125000
G01 X165.479742 Y78.122319 Z-0.125000
G00 Z3.000000

(End cutting path id: path22351)


(Start cutting path id: path22355)
(Change tool to Default tool)

G00 Z3.000000
G00 X22.460476 Y70.858442

G00 Z4.875000 (Fast pre-penetrate)
G01 Z-0.125000 F400.0(Penetrate)
G01 X33.972136 Y80.513422 Z-0.125000 F800.000000
G01 X58.071903 Y77.580295 Z-0.125000
G01 X82.275948 Y74.542890 Z-0.125000
G01 X100.917312 Y77.068165 Z-0.125000
G01 X128.476482 Y70.675636 Z-0.125000
G01 X146.960686 Y73.358071 Z-0.125000
G01 X165.179822 Y76.305576 Z-0.125000
G00 Z3.000000

(End cutting path id: path22355)


(Start cutting path id: path22357)
(Change tool to Default tool)

G00 Z3.000000
G00 X22.446061 Y69.814524

G00 Z4.875000 (Fast pre-penetrate)
G01 Z-0.125000 F400.0(Penetrate)
G01 X33.650151 Y79.777074 Z-0.125000 F800.000000
G01 X58.224988 Y76.368877 Z-0.125000
G01 X82.221245 Y73.539260 Z-0.125000
G01 X100.579668 Y76.347478 Z-0.125000
G01 X128.803308 Y69.290478 Z-0.125000
G01 X146.689626 Y72.570799 Z-0.125000
G01 X165.029861 Y75.397204 Z-0.125000
G00 Z3.000000

(End cutting path id: path22357)


(Start cutting path id: path22359)
(Change tool to Default tool)

G00 Z3.000000
G00 X22.431644 Y68.770609

G00 Z4.875000 (Fast pre-penetrate)
G01 Z-0.125000 F400.0(Penetrate)
G01 X33.328164 Y79.040729 Z-0.125000 F800.000000
G01 X58.378073 Y75.157460 Z-0.125000
G01 X82.166543 Y72.535631 Z-0.125000
G01 X100.242023 Y75.626791 Z-0.125000
G01 X129.130131 Y67.905322 Z-0.125000
G01 X146.418566 Y71.783527 Z-0.125000
G01 X164.879901 Y74.488833 Z-0.125000
G00 Z3.000000

(End cutting path id: path22359)


(Start cutting path id: path22361)
(Change tool to Default tool)

G00 Z3.000000
G00 X22.417230 Y67.726692

G00 Z4.875000 (Fast pre-penetrate)
G01 Z-0.125000 F400.0(Penetrate)
G01 X33.006180 Y78.304381 Z-0.125000 F800.000000
G01 X58.531158 Y73.946043 Z-0.125000
G01 X82.111840 Y71.532001 Z-0.125000
G01 X99.904378 Y74.906104 Z-0.125000
G01 X129.456957 Y66.520164 Z-0.125000
G01 X146.147506 Y70.996255 Z-0.125000
G01 X164.729938 Y73.580464 Z-0.125000
G00 Z3.000000

(End cutting path id: path22361)


(Start cutting path id: path22363)
(Change tool to Default tool)

G00 Z3.000000
G00 X22.402813 Y66.682777

G00 Z4.875000 (Fast pre-penetrate)
G01 Z-0.125000 F400.0(Penetrate)
G01 X32.684193 Y77.568036 Z-0.125000 F800.000000
G01 X58.684243 Y72.734626 Z-0.125000
G01 X82.057138 Y70.528372 Z-0.125000
G01 X99.566733 Y74.185417 Z-0.125000
G01 X129.783783 Y65.135006 Z-0.125000
G01 X145.876446 Y70.208983 Z-0.125000
G01 X164.579977 Y72.672092 Z-0.125000
G00 Z3.000000

(End cutting path id: path22363)


(Start cutting path id: path22365)
(Change tool to Default tool)

G00 Z3.000000
G00 X22.388398 Y65.638859

G00 Z4.875000 (Fast pre-penetrate)
G01 Z-0.125000 F400.0(Penetrate)
G01 X32.362209 Y76.831689 Z-0.125000 F800.000000
G01 X58.837328 Y71.523209 Z-0.125000
G01 X82.002435 Y69.524742 Z-0.125000
G01 X99.229085 Y73.464732 Z-0.125000
G01 X130.110607 Y63.749851 Z-0.125000
G01 X145.605386 Y69.421711 Z-0.125000
G01 X164.430017 Y71.763720 Z-0.125000
G00 Z3.000000

(End cutting path id: path22365)


(Start cutting path id: path22367)
(Change tool to Default tool)

G00 Z3.000000
G00 X22.373981 Y64.594945

G00 Z4.875000 (Fast pre-penetrate)
G01 Z-0.125000 F400.0(Penetrate)
G01 X32.040225 Y76.095341 Z-0.125000 F800.000000
G01 X58.990413 Y70.311792 Z-0.125000
G01 X81.947733 Y68.521113 Z-0.125000
G01 X98.891440 Y72.744045 Z-0.125000
G01 X130.437433 Y62.364692 Z-0.125000
G01 X145.334326 Y68.634439 Z-0.125000
G01 X164.280057 Y70.855349 Z-0.125000
G00 Z3.000000

(End cutting path id: path22367)


(Start cutting path id: path22327)
(Change tool to Default tool)

G00 Z3.000000
G00 X22.106186 Y86.029380

G00 Z4.875000 (Fast pre-penetrate)
G01 Z-0.125000 F400.0(Penetrate)
G01 X38.258835 Y91.043370 Z-0.125000 F800.000000
G01 X55.987240 Y94.481605 Z-0.125000
G01 X82.966758 Y88.668727 Z-0.125000
G01 X104.735589 Y88.066536 Z-0.125000
G01 X123.813907 Y90.154858 Z-0.125000
G01 X150.281375 Y84.854030 Z-0.125000
G01 X167.044648 Y89.257398 Z-0.125000
G00 Z3.000000

(End cutting path id: path22327)


(Start cutting path id: path22325)
(Change tool to Default tool)

G00 Z3.000000
G00 X21.564489 Y87.629408

G00 Z4.875000 (Fast pre-penetrate)
G01 Z-0.125000 F400.0(Penetrate)
G01 X38.359729 Y92.000809 Z-0.125000 F800.000000
G01 X55.892678 Y95.634499 Z-0.125000
G01 X82.946436 Y89.747382 Z-0.125000
G01 X104.164479 Y89.695979 Z-0.125000
G01 X123.400060 Y91.627038 Z-0.125000
G01 X150.078281 Y86.115456 Z-0.125000
G01 X166.959986 Y90.400391 Z-0.125000
G00 Z3.000000

(End cutting path id: path22325)


(Start cutting path id: path22323)
(Change tool to Default tool)

G00 Z3.000000
G00 X21.022793 Y89.229437

G00 Z4.875000 (Fast pre-penetrate)
G01 Z-0.125000 F400.0(Penetrate)
G01 X38.460622 Y92.958247 Z-0.125000 F800.000000
G01 X55.798116 Y96.787393 Z-0.125000
G01 X82.926113 Y90.826037 Z-0.125000
G01 X103.593368 Y91.325421 Z-0.125000
G01 X122.986210 Y93.099220 Z-0.125000
G01 X149.875187 Y87.376882 Z-0.125000
G01 X166.875322 Y91.543387 Z-0.125000
G00 Z3.000000

(End cutting path id: path22323)


(Start cutting path id: path22321)
(Change tool to Default tool)

G00 Z3.000000
G00 X20.481096 Y90.829466

G00 Z4.875000 (Fast pre-penetrate)
G01 Z-0.125000 F400.0(Penetrate)
G01 X38.561516 Y93.915686 Z-0.125000 F800.000000
G01 X55.703557 Y97.940284 Z-0.125000
G01 X82.905790 Y91.904691 Z-0.125000
G01 X103.022261 Y92.954861 Z-0.125000
G01 X122.572359 Y94.571402 Z-0.125000
G01 X149.672096 Y88.638306 Z-0.125000
G01 X166.790661 Y92.686380 Z-0.125000
G00 Z3.000000

(End cutting path id: path22321)


(Start cutting path id: path22319)
(Change tool to Default tool)

G00 Z3.000000
G00 X19.939399 Y92.429494

G00 Z4.875000 (Fast pre-penetrate)
G01 Z-0.125000 F400.0(Penetrate)
G01 X38.662409 Y94.873125 Z-0.125000 F800.000000
G01 X55.608995 Y99.093178 Z-0.125000
G01 X82.885470 Y92.983343 Z-0.125000
G01 X102.451150 Y94.584303 Z-0.125000
G01 X122.158512 Y96.043582 Z-0.125000
G01 X149.469002 Y89.899731 Z-0.125000
G01 X166.705997 Y93.829376 Z-0.125000
G00 Z3.000000

(End cutting path id: path22319)


(Start cutting path id: path22317)
(Change tool to Default tool)

G00 Z3.000000
G00 X19.397700 Y94.029525

G00 Z4.875000 (Fast pre-penetrate)
G01 Z-0.125000 F400.0(Penetrate)
G01 X38.763300 Y95.830566 Z-0.125000 F800.000000
G01 X55.514433 Y100.246072 Z-0.125000
G01 X82.865148 Y94.061998 Z-0.125000
G01 X101.880040 Y96.213745 Z-0.125000
G01 X121.744662 Y97.515764 Z-0.125000
G01 X149.265911 Y91.161155 Z-0.125000
G01 X166.621336 Y94.972370 Z-0.125000
G00 Z3.000000

(End cutting path id: path22317)


(Start cutting path id: path22315)
(Change tool to Default tool)

G00 Z3.000000
G00 X18.856004 Y95.629554

G00 Z4.875000 (Fast pre-penetrate)
G01 Z-0.125000 F400.0(Penetrate)
G01 X38.864193 Y96.788004 Z-0.125000 F800.000000
G01 X55.419871 Y101.398966 Z-0.125000
G01 X82.844825 Y95.140652 Z-0.125000
G01 X101.308932 Y97.843185 Z-0.125000
G01 X121.330814 Y98.987943 Z-0.125000
G01 X149.062817 Y92.422581 Z-0.125000
G01 X166.536675 Y96.115363 Z-0.125000
G00 Z3.000000

(End cutting path id: path22315)


(Start cutting path id: path22313)
(Change tool to Default tool)

G00 Z3.000000
G00 X18.314308 Y97.229583

G00 Z4.875000 (Fast pre-penetrate)
G01 Z-0.125000 F400.0(Penetrate)
G01 X38.965087 Y97.745443 Z-0.125000 F800.000000
G01 X55.325309 Y102.551860 Z-0.125000
G01 X82.824503 Y96.219307 Z-0.125000
G01 X100.737822 Y99.472627 Z-0.125000
G01 X120.916964 Y100.460125 Z-0.125000
G01 X148.859723 Y93.684007 Z-0.125000
G01 X166.452011 Y97.258359 Z-0.125000
G00 Z3.000000

(End cutting path id: path22313)


(Start cutting path id: path22311)
(Change tool to Default tool)

G00 Z3.000000
G00 X17.772611 Y98.829611

G00 Z4.875000 (Fast pre-penetrate)
G01 Z-0.125000 F400.0(Penetrate)
G01 X39.065980 Y98.702881 Z-0.125000 F800.000000
G01 X55.230747 Y103.704754 Z-0.125000
G01 X82.804180 Y97.297962 Z-0.125000
G01 X100.166712 Y101.102070 Z-0.125000
G01 X120.503114 Y101.932307 Z-0.125000
G01 X148.656632 Y94.945430 Z-0.125000
G01 X166.367349 Y98.401352 Z-0.125000
G00 Z3.000000

(End cutting path id: path22311)


(Start cutting path id: path22309)
(Change tool to Default tool)

G00 Z3.000000
G00 X17.230914 Y100.429640

G00 Z4.875000 (Fast pre-penetrate)
G01 Z-0.125000 F400.0(Penetrate)
G01 X39.166873 Y99.660320 Z-0.125000 F800.000000
G01 X55.136185 Y104.857648 Z-0.125000
G01 X82.783857 Y98.376616 Z-0.125000
G01 X99.595601 Y102.731512 Z-0.125000
G01 X120.089267 Y103.404487 Z-0.125000
G01 X148.453538 Y96.206856 Z-0.125000
G01 X166.282686 Y99.544348 Z-0.125000
G00 Z3.000000

(End cutting path id: path22309)


(Start cutting path id: path22307)
(Change tool to Default tool)

G00 Z3.000000
G00 X16.689217 Y102.029669

G00 Z4.875000 (Fast pre-penetrate)
G01 Z-0.125000 F400.0(Penetrate)
G01 X39.267767 Y100.617759 Z-0.125000 F800.000000
G01 X55.041626 Y106.010540 Z-0.125000
G01 X82.763535 Y99.455271 Z-0.125000
G01 X99.024494 Y104.360952 Z-0.125000
G01 X119.675416 Y104.876669 Z-0.125000
G01 X148.250447 Y97.468279 Z-0.125000
G01 X166.198024 Y100.687341 Z-0.125000
G00 Z3.000000

(End cutting path id: path22307)


(Start cutting path id: path22305)
(Change tool to Default tool)

G00 Z3.000000
G00 X16.147520 Y103.629697

G00 Z4.875000 (Fast pre-penetrate)
G01 Z-0.125000 F400.0(Penetrate)
G01 X39.368660 Y101.575197 Z-0.125000 F800.000000
G01 X54.947064 Y107.163434 Z-0.125000
G01 X82.743212 Y100.533925 Z-0.125000
G01 X98.453383 Y105.990394 Z-0.125000
G01 X119.261566 Y106.348851 Z-0.125000
G01 X148.047353 Y98.729705 Z-0.125000
G01 X166.113360 Y101.830337 Z-0.125000
G00 Z3.000000

(End cutting path id: path22305)


(Start cutting path id: path22303)
(Change tool to Default tool)

G00 Z3.000000
G00 X15.605823 Y105.229726

G00 Z4.875000 (Fast pre-penetrate)
G01 Z-0.125000 F400.0(Penetrate)
G01 X39.469554 Y102.532636 Z-0.125000 F800.000000
G01 X54.852502 Y108.316327 Z-0.125000
G01 X82.722889 Y101.612580 Z-0.125000
G01 X97.882273 Y107.619837 Z-0.125000
G01 X118.847719 Y107.821031 Z-0.125000
G01 X147.844259 Y99.991131 Z-0.125000
G01 X166.028699 Y102.973330 Z-0.125000
G00 Z3.000000

(End cutting path id: path22303)


(Start cutting path id: path22301)
(Change tool to Default tool)

G00 Z3.000000
G00 X15.064126 Y106.829755

G00 Z4.875000 (Fast pre-penetrate)
G01 Z-0.125000 F400.0(Penetrate)
G01 X39.570445 Y103.490077 Z-0.125000 F800.000000
G01 X54.757940 Y109.469221 Z-0.125000
G01 X82.702567 Y102.691235 Z-0.125000
G01 X97.311163 Y109.249279 Z-0.125000
G01 X118.433869 Y109.293213 Z-0.125000
G01 X147.641167 Y101.252554 Z-0.125000
G01 X165.944035 Y104.116326 Z-0.125000
G00 Z3.000000

(End cutting path id: path22301)


(Start cutting path id: path22299)
(Change tool to Default tool)

G00 Z3.000000
G00 X14.522430 Y108.429783

G00 Z4.875000 (Fast pre-penetrate)
G01 Z-0.125000 F400.0(Penetrate)
G01 X39.671338 Y104.447515 Z-0.125000 F800.000000
G01 X54.663378 Y110.622115 Z-0.125000
G01 X82.682244 Y103.769889 Z-0.125000
G01 X96.740055 Y110.878719 Z-0.125000
G01 X118.020018 Y110.765395 Z-0.125000
G01 X147.438074 Y102.513980 Z-0.125000
G01 X165.859374 Y105.259320 Z-0.125000
G00 Z3.000000

(End cutting path id: path22299)


(Start cutting path id: path22209)
(Change tool to Default tool)

G00 Z3.000000
G00 X21.037974 Y149.539179

G00 Z4.875000 (Fast pre-penetrate)
G01 Z-0.125000 F400.0(Penetrate)
G01 X42.244352 Y149.499441 Z-0.125000 F800.000000
G01 X63.536960 Y149.373473 Z-0.125000
G01 X83.050827 Y151.026247 Z-0.125000
G01 X101.816413 Y153.427300 Z-0.125000
G01 X124.066214 Y152.344140 Z-0.125000
G01 X136.136128 Y161.440866 Z-0.125000
G01 X158.814568 Y159.929065 Z-0.125000
G00 Z3.000000

(End cutting path id: path22209)


(Start cutting path id: path22207)
(Change tool to Default tool)

G00 Z3.000000
G00 X20.474513 Y151.160972

G00 Z4.875000 (Fast pre-penetrate)
G01 Z-0.125000 F400.0(Penetrate)
G01 X41.968871 Y150.833255 Z-0.125000 F800.000000
G01 X63.586726 Y150.382040 Z-0.125000
G01 X83.066159 Y152.069246 Z-0.125000
G01 X102.028685 Y154.273360 Z-0.125000
G01 X123.918973 Y153.549712 Z-0.125000
G01 X136.313316 Y162.322009 Z-0.125000
G01 X159.242836 Y160.559130 Z-0.125000
G00 Z3.000000

(End cutting path id: path22207)


(Start cutting path id: path22211)
(Change tool to Default tool)

G00 Z3.000000
G00 X20.598282 Y148.920539

G00 Z4.875000 (Fast pre-penetrate)
G01 Z-0.125000 F400.0(Penetrate)
G01 X41.859614 Y148.825847 Z-0.125000 F800.000000
G01 X63.207734 Y148.644367 Z-0.125000
G01 X83.117832 Y149.900909 Z-0.125000
G01 X101.805438 Y152.379943 Z-0.125000
G01 X124.126946 Y151.225075 Z-0.125000
G01 X136.831327 Y159.687334 Z-0.125000
G01 X159.287481 Y158.397820 Z-0.125000
G00 Z3.000000

(End cutting path id: path22211)


(Start cutting path id: path22205)
(Change tool to Default tool)

G00 Z3.000000
G00 X19.911055 Y152.782763

G00 Z4.875000 (Fast pre-penetrate)
G01 Z-0.125000 F400.0(Penetrate)
G01 X41.693392 Y152.167065 Z-0.125000 F800.000000
G01 X63.636491 Y151.390607 Z-0.125000
G01 X83.081489 Y153.112248 Z-0.125000
G01 X102.240958 Y155.119420 Z-0.125000
G01 X123.771735 Y154.755282 Z-0.125000
G01 X136.490507 Y163.203150 Z-0.125000
G01 X159.671100 Y161.189197 Z-0.125000
G00 Z3.000000

(End cutting path id: path22205)


(Start cutting path id: path22213)
(Change tool to Default tool)

G00 Z3.000000
G00 X20.158590 Y148.301899

G00 Z4.875000 (Fast pre-penetrate)
G01 Z-0.125000 F400.0(Penetrate)
G01 X41.474873 Y148.152256 Z-0.125000 F800.000000
G01 X62.878511 Y147.915259 Z-0.125000
G01 X83.184841 Y148.775569 Z-0.125000
G01 X101.794463 Y151.332586 Z-0.125000
G01 X124.187681 Y150.106008 Z-0.125000
G01 X137.526530 Y157.933800 Z-0.125000
G01 X159.760394 Y156.866575 Z-0.125000
G00 Z3.000000

(End cutting path id: path22213)


(Start cutting path id: path22215)
(Change tool to Default tool)

G00 Z3.000000
G00 X19.718899 Y147.683259

G00 Z4.875000 (Fast pre-penetrate)
G01 Z-0.125000 F400.0(Penetrate)
G01 X41.090133 Y147.478665 Z-0.125000 F800.000000
G01 X62.549285 Y147.186153 Z-0.125000
G01 X83.251846 Y147.650231 Z-0.125000
G01 X101.783486 Y150.285232 Z-0.125000
G01 X124.248413 Y148.986944 Z-0.125000
G01 X138.221730 Y156.180268 Z-0.125000
G01 X160.233305 Y155.335333 Z-0.125000
G00 Z3.000000

(End cutting path id: path22215)


(Start cutting path id: path22203)
(Change tool to Default tool)

G00 Z3.000000
G00 X19.347593 Y154.404556

G00 Z4.875000 (Fast pre-penetrate)
G01 Z-0.125000 F400.0(Penetrate)
G01 X41.417911 Y153.500878 Z-0.125000 F800.000000
G01 X63.686256 Y152.399173 Z-0.125000
G01 X83.096822 Y154.155248 Z-0.125000
G01 X102.453230 Y155.965479 Z-0.125000
G01 X123.624495 Y155.960849 Z-0.125000
G01 X136.667696 Y164.084288 Z-0.125000
G01 X160.099368 Y161.819257 Z-0.125000
G00 Z3.000000

(End cutting path id: path22203)


(Start cutting path id: path22201)
(Change tool to Default tool)

G00 Z3.000000
G00 X18.784132 Y156.026349

G00 Z4.875000 (Fast pre-penetrate)
G01 Z-0.125000 F400.0(Penetrate)
G01 X41.142430 Y154.834691 Z-0.125000 F800.000000
G01 X63.736022 Y153.407740 Z-0.125000
G01 X83.112152 Y155.198250 Z-0.125000
G01 X102.665502 Y156.811539 Z-0.125000
G01 X123.477257 Y157.166424 Z-0.125000
G01 X136.844885 Y164.965437 Z-0.125000
G01 X160.527635 Y162.449327 Z-0.125000
G00 Z3.000000

(End cutting path id: path22201)


(Start cutting path id: path22217)
(Change tool to Default tool)

G00 Z3.000000
G00 X19.279206 Y147.064619

G00 Z4.875000 (Fast pre-penetrate)
G01 Z-0.125000 F400.0(Penetrate)
G01 X40.705395 Y146.805071 Z-0.125000 F800.000000
G01 X62.220059 Y146.457046 Z-0.125000
G01 X83.318855 Y146.524891 Z-0.125000
G01 X101.772511 Y149.237875 Z-0.125000
G01 X124.309148 Y147.867877 Z-0.125000
G01 X138.916929 Y154.426736 Z-0.125000
G01 X160.706218 Y153.804088 Z-0.125000
G00 Z3.000000

(End cutting path id: path22217)


(Start cutting path id: path22219)
(Change tool to Default tool)

G00 Z3.000000
G00 X18.839514 Y146.445979

G00 Z4.875000 (Fast pre-penetrate)
G01 Z-0.125000 F400.0(Penetrate)
G01 X40.320654 Y146.131480 Z-0.125000 F800.000000
G01 X61.890836 Y145.727938 Z-0.125000
G01 X83.385860 Y145.399553 Z-0.125000
G01 X101.761536 Y148.190518 Z-0.125000
G01 X124.369881 Y146.748813 Z-0.125000
G01 X139.612132 Y152.673202 Z-0.125000
G01 X161.179131 Y152.272843 Z-0.125000
G00 Z3.000000

(End cutting path id: path22219)


(Start cutting path id: path22221)
(Change tool to Default tool)

G00 Z3.000000
G00 X18.399822 Y145.827339

G00 Z4.875000 (Fast pre-penetrate)
G01 Z-0.125000 F400.0(Penetrate)
G01 X39.935913 Y145.457888 Z-0.125000 F800.000000
G01 X61.561610 Y144.998832 Z-0.125000
G01 X83.452869 Y144.274213 Z-0.125000
G01 X101.750558 Y147.143163 Z-0.125000
G01 X124.430616 Y145.629746 Z-0.125000
G01 X140.307332 Y150.919670 Z-0.125000
G01 X161.652044 Y150.741598 Z-0.125000
G00 Z3.000000

(End cutting path id: path22221)


(Start cutting path id: path22199)
(Change tool to Default tool)

G00 Z3.000000
G00 X18.220671 Y157.648143

G00 Z4.875000 (Fast pre-penetrate)
G01 Z-0.125000 F400.0(Penetrate)
G01 X40.866949 Y156.168505 Z-0.125000 F800.000000
G01 X63.785790 Y154.416304 Z-0.125000
G01 X83.127484 Y156.241249 Z-0.125000
G01 X102.877775 Y157.657599 Z-0.125000
G01 X123.330019 Y158.371994 Z-0.125000
G01 X137.022073 Y165.846580 Z-0.125000
G01 X160.955899 Y163.079394 Z-0.125000
G00 Z3.000000

(End cutting path id: path22199)


(Start cutting path id: path22197)
(Change tool to Default tool)

G00 Z3.000000
G00 X17.657210 Y159.269936

G00 Z4.875000 (Fast pre-penetrate)
G01 Z-0.125000 F400.0(Penetrate)
G01 X40.591468 Y157.502318 Z-0.125000 F800.000000
G01 X63.835555 Y155.424870 Z-0.125000
G01 X83.142817 Y157.284248 Z-0.125000
G01 X103.090047 Y158.503659 Z-0.125000
G01 X123.182779 Y159.577567 Z-0.125000
G01 X137.199264 Y166.727721 Z-0.125000
G01 X161.384167 Y163.709459 Z-0.125000
G00 Z3.000000

(End cutting path id: path22197)


(Start cutting path id: path22195)
(Change tool to Default tool)

G00 Z3.000000
G00 X17.093749 Y160.891729

G00 Z4.875000 (Fast pre-penetrate)
G01 Z-0.125000 F400.0(Penetrate)
G01 X40.315989 Y158.836128 Z-0.125000 F800.000000
G01 X63.885321 Y156.433437 Z-0.125000
G01 X83.158147 Y158.327251 Z-0.125000
G01 X103.302319 Y159.349718 Z-0.125000
G01 X123.035541 Y160.783136 Z-0.125000
G01 X137.376453 Y167.608864 Z-0.125000
G01 X161.812434 Y164.339523 Z-0.125000
G00 Z3.000000

(End cutting path id: path22195)


(Start cutting path id: path22089)
(Change tool to Default tool)

G00 Z3.000000
G00 X24.171502 Y209.905571

G00 Z4.875000 (Fast pre-penetrate)
G01 Z-0.125000 F400.0(Penetrate)
G01 X40.296669 Y214.947044 Z-0.125000 F800.000000
G01 X54.969800 Y221.440554 Z-0.125000
G01 X76.368434 Y221.208560 Z-0.125000
G01 X93.096543 Y225.647090 Z-0.125000
G01 X127.593565 Y212.316708 Z-0.125000
G01 X137.147896 Y223.929018 Z-0.125000
G01 X165.031803 Y217.211750 Z-0.125000
G00 Z3.000000

(End cutting path id: path22089)


(Start cutting path id: path22091)
(Change tool to Default tool)

G00 Z3.000000
G00 X23.490228 Y209.528514

G00 Z4.875000 (Fast pre-penetrate)
G01 Z-0.125000 F400.0(Penetrate)
G01 X40.297307 Y213.888074 Z-0.125000 F800.000000
G01 X55.480164 Y219.871857 Z-0.125000
G01 X76.640999 Y219.877652 Z-0.125000
G01 X93.787563 Y223.897728 Z-0.125000
G01 X127.478416 Y211.373515 Z-0.125000
G01 X137.458080 Y222.560491 Z-0.125000
G01 X165.381344 Y215.803867 Z-0.125000
G00 Z3.000000

(End cutting path id: path22091)


(Start cutting path id: path22093)
(Change tool to Default tool)

G00 Z3.000000
G00 X22.808953 Y209.151457

G00 Z4.875000 (Fast pre-penetrate)
G01 Z-0.125000 F400.0(Penetrate)
G01 X40.297945 Y212.829105 Z-0.125000 F800.000000
G01 X55.990526 Y218.303163 Z-0.125000
G01 X76.913562 Y218.546767 Z-0.125000
G01 X94.478582 Y222.148387 Z-0.125000
G01 X127.363267 Y210.430342 Z-0.125000
G01 X137.768263 Y221.191986 Z-0.125000
G01 X165.730882 Y214.396008 Z-0.125000
G00 Z3.000000

(End cutting path id: path22093)


(Start cutting path id: path22095)
(Change tool to Default tool)

G00 Z3.000000
G00 X22.127678 Y208.774399

G00 Z4.875000 (Fast pre-penetrate)
G01 Z-0.125000 F400.0(Penetrate)
G01 X40.298582 Y211.770135 Z-0.125000 F800.000000
G01 X56.500889 Y216.734469 Z-0.125000
G01 X77.186128 Y217.215870 Z-0.125000
G01 X95.169604 Y220.399033 Z-0.125000
G01 X127.248118 Y209.487160 Z-0.125000
G01 X138.078450 Y219.823468 Z-0.125000
G01 X166.080422 Y212.988135 Z-0.125000
G00 Z3.000000

(End cutting path id: path22095)


(Start cutting path id: path22097)
(Change tool to Default tool)

G00 Z3.000000
G00 X21.446403 Y208.397342

G00 Z4.875000 (Fast pre-penetrate)
G01 Z-0.125000 F400.0(Penetrate)
G01 X40.299217 Y210.711168 Z-0.125000 F800.000000
G01 X57.011253 Y215.165772 Z-0.125000
G01 X77.458691 Y215.884975 Z-0.125000
G01 X95.860623 Y218.649682 Z-0.125000
G01 X127.132969 Y208.543977 Z-0.125000
G01 X138.388634 Y218.454952 Z-0.125000
G01 X166.429960 Y211.580265 Z-0.125000
G00 Z3.000000

(End cutting path id: path22097)


(Start cutting path id: path22099)
(Change tool to Default tool)

G00 Z3.000000
G00 X20.765128 Y208.020285

G00 Z4.875000 (Fast pre-penetrate)
G01 Z-0.125000 F400.0(Penetrate)
G01 X40.299855 Y209.652199 Z-0.125000 F800.000000
G01 X57.521615 Y213.597078 Z-0.125000
G01 X77.731253 Y214.554080 Z-0.125000
G01 X96.551643 Y216.900331 Z-0.125000
G01 X127.017820 Y207.600794 Z-0.125000
G01 X138.698818 Y217.086436 Z-0.125000
G01 X166.779501 Y210.172393 Z-0.125000
G00 Z3.000000

(End cutting path id: path22099)


(Start cutting path id: path22101)
(Change tool to Default tool)

G00 Z3.000000
G00 X20.083854 Y207.643228

G00 Z4.875000 (Fast pre-penetrate)
G01 Z-0.125000 F400.0(Penetrate)
G01 X40.300493 Y208.593229 Z-0.125000 F800.000000
G01 X58.031977 Y212.028384 Z-0.125000
G01 X78.003819 Y213.223183 Z-0.125000
G01 X97.242662 Y215.150979 Z-0.125000
G01 X126.902670 Y206.657611 Z-0.125000
G01 X139.009002 Y215.717920 Z-0.125000
G01 X167.129042 Y208.764520 Z-0.125000
G00 Z3.000000

(End cutting path id: path22101)


(Start cutting path id: path22103)
(Change tool to Default tool)

G00 Z3.000000
G00 X19.402579 Y207.266171

G00 Z4.875000 (Fast pre-penetrate)
G01 Z-0.125000 F400.0(Penetrate)
G01 X40.301130 Y207.534259 Z-0.125000 F800.000000
G01 X58.542342 Y210.459687 Z-0.125000
G01 X78.276382 Y211.892288 Z-0.125000
G01 X97.933681 Y213.401628 Z-0.125000
G01 X126.787521 Y205.714428 Z-0.125000
G01 X139.319188 Y214.349401 Z-0.125000
G01 X167.478580 Y207.356650 Z-0.125000
G00 Z3.000000

(End cutting path id: path22103)


(Start cutting path id: path22105)
(Change tool to Default tool)

G00 Z3.000000
G00 X18.721305 Y206.889113

G00 Z4.875000 (Fast pre-penetrate)
G01 Z-0.125000 F400.0(Penetrate)
G01 X40.301768 Y206.475290 Z-0.125000 F800.000000
G01 X59.052704 Y208.890993 Z-0.125000
G01 X78.548947 Y210.561390 Z-0.125000
G01 X98.624701 Y211.652277 Z-0.125000
G01 X126.672372 Y204.771245 Z-0.125000
G01 X139.629372 Y212.980886 Z-0.125000
G01 X167.828120 Y205.948777 Z-0.125000
G00 Z3.000000

(End cutting path id: path22105)


(Start cutting path id: path22107)
(Change tool to Default tool)

G00 Z3.000000
G00 X18.040030 Y206.512056

G00 Z4.875000 (Fast pre-penetrate)
G01 Z-0.125000 F400.0(Penetrate)
G01 X40.302406 Y205.416320 Z-0.125000 F800.000000
G01 X59.563066 Y207.322299 Z-0.125000
G01 X78.821510 Y209.230496 Z-0.125000
G01 X99.315720 Y209.902925 Z-0.125000
G01 X126.557223 Y203.828063 Z-0.125000
G01 X139.939556 Y211.612370 Z-0.125000
G01 X168.177658 Y204.540907 Z-0.125000
G00 Z3.000000

(End cutting path id: path22107)


(Start cutting path id: path22109)
(Change tool to Default tool)

G00 Z3.000000
G00 X17.358756 Y206.134999

G00 Z4.875000 (Fast pre-penetrate)
G01 Z-0.125000 F400.0(Penetrate)
G01 X40.303043 Y204.357350 Z-0.125000 F800.000000
G01 X60.073431 Y205.753602 Z-0.125000
G01 X79.094075 Y207.899598 Z-0.125000
G01 X100.006742 Y208.153571 Z-0.125000
G01 X126.442074 Y202.884880 Z-0.125000
G01 X140.249740 Y210.243854 Z-0.125000
G01 X168.527199 Y203.133035 Z-0.125000
G00 Z3.000000

(End cutting path id: path22109)


(Start cutting path id: path22111)
(Change tool to Default tool)

G00 Z3.000000
G00 X16.677481 Y205.757942

G00 Z4.875000 (Fast pre-penetrate)
G01 Z-0.125000 F400.0(Penetrate)
G01 X40.303681 Y203.298381 Z-0.125000 F800.000000
G01 X60.583793 Y204.184908 Z-0.125000
G01 X79.366638 Y206.568703 Z-0.125000
G01 X100.697762 Y206.404220 Z-0.125000
G01 X126.326925 Y201.941697 Z-0.125000
G01 X140.559926 Y208.875335 Z-0.125000
G01 X168.876737 Y201.725165 Z-0.125000
G00 Z3.000000

(End cutting path id: path22111)


(Start cutting path id: path22113)
(Change tool to Default tool)

G00 Z3.000000
G00 X15.996206 Y205.380882

G00 Z4.875000 (Fast pre-penetrate)
G01 Z-0.125000 F400.0(Penetrate)
G01 X40.304318 Y202.239411 Z-0.125000 F800.000000
G01 X61.094158 Y202.616212 Z-0.125000
G01 X79.639201 Y205.237808 Z-0.125000
G01 X101.388781 Y204.654869 Z-0.125000
G01 X126.211775 Y200.998514 Z-0.125000
G01 X140.870110 Y207.506819 Z-0.125000
G01 X169.226277 Y200.317292 Z-0.125000
G00 Z3.000000

(End cutting path id: path22113)


(Start cutting path id: path22115)
(Change tool to Default tool)

G00 Z3.000000
G00 X15.314932 Y205.003824

G00 Z4.875000 (Fast pre-penetrate)
G01 Z-0.125000 F400.0(Penetrate)
G01 X40.304956 Y201.180441 Z-0.125000 F800.000000
G01 X61.604520 Y201.047518 Z-0.125000
G01 X79.911767 Y203.906911 Z-0.125000
G01 X102.079800 Y202.905517 Z-0.125000
G01 X126.096626 Y200.055331 Z-0.125000
G01 X141.180294 Y206.138303 Z-0.125000
G01 X169.575815 Y198.909422 Z-0.125000
G00 Z3.000000

(End cutting path id: path22115)


(Start cutting path id: path22117)
(Change tool to Default tool)

G00 Z3.000000
G00 X14.633657 Y204.626767

G00 Z4.875000 (Fast pre-penetrate)
G01 Z-0.125000 F400.0(Penetrate)
G01 X40.305591 Y200.121474 Z-0.125000 F800.000000
G01 X62.114882 Y199.478823 Z-0.125000
G01 X80.184329 Y202.576016 Z-0.125000
G01 X102.770820 Y201.156166 Z-0.125000
G01 X125.981477 Y199.112148 Z-0.125000
G01 X141.490478 Y204.769788 Z-0.125000
G01 X169.925356 Y197.501550 Z-0.125000
G00 Z3.000000

(End cutting path id: path22117)


(Start cutting path id: path22119)
(Change tool to Default tool)

G00 Z3.000000
G00 X13.952383 Y204.249710

G00 Z4.875000 (Fast pre-penetrate)
G01 Z-0.125000 F400.0(Penetrate)
G01 X40.306229 Y199.062505 Z-0.125000 F800.000000
G01 X62.625247 Y197.910127 Z-0.125000
G01 X80.456895 Y201.245119 Z-0.125000
G01 X103.461839 Y199.406815 Z-0.125000
G01 X125.866328 Y198.168966 Z-0.125000
G01 X141.800664 Y203.401269 Z-0.125000
G01 X170.274894 Y196.093680 Z-0.125000
G00 Z3.000000

(End cutting path id: path22119)


(Start cutting path id: path22121)
(Change tool to Default tool)

G00 Z3.000000
G00 X13.271108 Y203.872653

G00 Z4.875000 (Fast pre-penetrate)
G01 Z-0.125000 F400.0(Penetrate)
G01 X40.306866 Y198.003535 Z-0.125000 F800.000000
G01 X63.135609 Y196.341433 Z-0.125000
G01 X80.729458 Y199.914224 Z-0.125000
G01 X104.152861 Y197.657461 Z-0.125000
G01 X125.751179 Y197.225783 Z-0.125000
G01 X142.110848 Y202.032753 Z-0.125000
G01 X170.624434 Y194.685807 Z-0.125000
G00 Z3.000000

(End cutting path id: path22121)


(Start cutting path id: path22193)
(Change tool to Default tool)

G00 Z3.000000
G00 X16.530288 Y162.513522

G00 Z4.875000 (Fast pre-penetrate)
G01 Z-0.125000 F400.0(Penetrate)
G01 X40.040508 Y160.169941 Z-0.125000 F800.000000
G01 X63.935086 Y157.442003 Z-0.125000
G01 X83.173480 Y159.370250 Z-0.125000
G01 X103.514592 Y160.195778 Z-0.125000
G01 X122.888301 Y161.988709 Z-0.125000
G01 X137.553642 Y168.490008 Z-0.125000
G01 X162.240699 Y164.969591 Z-0.125000
G00 Z3.000000

(End cutting path id: path22193)


(Start cutting path id: path22223)
(Change tool to Default tool)

G00 Z3.000000
G00 X17.960130 Y145.208699

G00 Z4.875000 (Fast pre-penetrate)
G01 Z-0.125000 F400.0(Penetrate)
G01 X39.551172 Y144.784297 Z-0.125000 F800.000000
G01 X61.232387 Y144.269723 Z-0.125000
G01 X83.519874 Y143.148875 Z-0.125000
G01 X101.739584 Y146.095806 Z-0.125000
G01 X124.491348 Y144.510681 Z-0.125000
G01 X141.002531 Y149.166138 Z-0.125000
G01 X162.124957 Y149.210353 Z-0.125000
G00 Z3.000000

(End cutting path id: path22223)


(Start cutting path id: path22225)
(Change tool to Default tool)

G00 Z3.000000
G00 X17.520437 Y144.590061

G00 Z4.875000 (Fast pre-penetrate)
G01 Z-0.125000 F400.0(Penetrate)
G01 X39.166434 Y144.110703 Z-0.125000 F800.000000
G01 X60.903161 Y143.540617 Z-0.125000
G01 X83.586880 Y142.023538 Z-0.125000
G01 X101.728609 Y145.048449 Z-0.125000
G01 X124.552083 Y143.391614 Z-0.125000
G01 X141.697734 Y147.412604 Z-0.125000
G01 X162.597870 Y147.679108 Z-0.125000
G00 Z3.000000

(End cutting path id: path22225)


(Start cutting path id: path22227)
(Change tool to Default tool)

G00 Z3.000000
G00 X17.080745 Y143.971421

G00 Z4.875000 (Fast pre-penetrate)
G01 Z-0.125000 F400.0(Penetrate)
G01 X38.781694 Y143.437112 Z-0.125000 F800.000000
G01 X60.573937 Y142.811508 Z-0.125000
G01 X83.653888 Y140.898197 Z-0.125000
G01 X101.717631 Y144.001094 Z-0.125000
G01 X124.612816 Y142.272550 Z-0.125000
G01 X142.392933 Y145.659072 Z-0.125000
G01 X163.070780 Y146.147865 Z-0.125000
G00 Z3.000000

(End cutting path id: path22227)


(Start cutting path id: path22229)
(Change tool to Default tool)

G00 Z3.000000
G00 X16.641053 Y143.352781

G00 Z4.875000 (Fast pre-penetrate)
G01 Z-0.125000 F400.0(Penetrate)
G01 X38.396953 Y142.763521 Z-0.125000 F800.000000
G01 X60.244712 Y142.082402 Z-0.125000
G01 X83.720894 Y139.772860 Z-0.125000
G01 X101.706656 Y142.953737 Z-0.125000
G01 X124.673551 Y141.153483 Z-0.125000
G01 X143.088136 Y143.905538 Z-0.125000
G01 X163.543693 Y144.616620 Z-0.125000
G00 Z3.000000

(End cutting path id: path22229)


(Start cutting path id: path22231)
(Change tool to Default tool)

G00 Z3.000000
G00 X16.201361 Y142.734141

G00 Z4.875000 (Fast pre-penetrate)
G01 Z-0.125000 F400.0(Penetrate)
G01 X38.012215 Y142.089927 Z-0.125000 F800.000000
G01 X59.915488 Y141.353293 Z-0.125000
G01 X83.787902 Y138.647519 Z-0.125000
G01 X101.695681 Y141.906380 Z-0.125000
G01 X124.734283 Y140.034418 Z-0.125000
G01 X143.783336 Y142.152006 Z-0.125000
G01 X164.016606 Y143.085375 Z-0.125000
G00 Z3.000000

(End cutting path id: path22231)


(Start cutting path id: path22233)
(Change tool to Default tool)

G00 Z3.000000
G00 X15.761668 Y142.115501

G00 Z4.875000 (Fast pre-penetrate)
G01 Z-0.125000 F400.0(Penetrate)
G01 X37.627474 Y141.416335 Z-0.125000 F800.000000
G01 X59.586262 Y140.624187 Z-0.125000
G01 X83.854908 Y137.522182 Z-0.125000
G01 X101.684704 Y140.859026 Z-0.125000
G01 X124.795018 Y138.915351 Z-0.125000
G01 X144.478535 Y140.398474 Z-0.125000
G01 X164.489519 Y141.554130 Z-0.125000
G00 Z3.000000

(End cutting path id: path22233)


(Start cutting path id: path22235)
(Change tool to Default tool)

G00 Z3.000000
G00 X15.321976 Y141.496861

G00 Z4.875000 (Fast pre-penetrate)
G01 Z-0.125000 F400.0(Penetrate)
G01 X37.242733 Y140.742744 Z-0.125000 F800.000000
G01 X59.257039 Y139.895078 Z-0.125000
G01 X83.921913 Y136.396844 Z-0.125000
G01 X101.673729 Y139.811669 Z-0.125000
G01 X124.855750 Y137.796287 Z-0.125000
G01 X145.173738 Y138.644940 Z-0.125000
G01 X164.962432 Y140.022885 Z-0.125000
G00 Z3.000000

(End cutting path id: path22235)


(Start cutting path id: path22237)
(Change tool to Default tool)

G00 Z3.000000
G00 X14.882284 Y140.878221

G00 Z4.875000 (Fast pre-penetrate)
G01 Z-0.125000 F400.0(Penetrate)
G01 X36.857995 Y140.069150 Z-0.125000 F800.000000
G01 X58.927813 Y139.165972 Z-0.125000
G01 X83.988922 Y135.271504 Z-0.125000
G01 X101.662754 Y138.764312 Z-0.125000
G01 X124.916485 Y136.677220 Z-0.125000
G01 X145.868938 Y136.891408 Z-0.125000
G01 X165.435345 Y138.491640 Z-0.125000
G00 Z3.000000

(End cutting path id: path22237)


(Start cutting path id: path22239)
(Change tool to Default tool)

G00 Z3.000000
G00 X14.442592 Y140.259581

G00 Z4.875000 (Fast pre-penetrate)
G01 Z-0.125000 F400.0(Penetrate)
G01 X36.473255 Y139.395559 Z-0.125000 F800.000000
G01 X58.598590 Y138.436864 Z-0.125000
G01 X84.055927 Y134.146166 Z-0.125000
G01 X101.651776 Y137.716957 Z-0.125000
G01 X124.977218 Y135.558156 Z-0.125000
G01 X146.564137 Y135.137876 Z-0.125000
G01 X165.908258 Y136.960395 Z-0.125000
G00 Z3.000000

(End cutting path id: path22239)


(Start cutting path id: path22241)
(Change tool to Default tool)

G00 Z3.000000
G00 X14.002900 Y139.640941

G00 Z4.875000 (Fast pre-penetrate)
G01 Z-0.125000 F400.0(Penetrate)
G01 X36.088514 Y138.721968 Z-0.125000 F800.000000
G01 X58.269364 Y137.707758 Z-0.125000
G01 X84.122936 Y133.020826 Z-0.125000
G01 X101.640801 Y136.669600 Z-0.125000
G01 X125.037953 Y134.439089 Z-0.125000
G01 X147.259340 Y133.384342 Z-0.125000
G01 X166.381169 Y135.429153 Z-0.125000
G00 Z3.000000

(End cutting path id: path22241)


(Start cutting path id: path22243)
(Change tool to Default tool)

G00 Z3.000000
G00 X13.563207 Y139.022301

G00 Z4.875000 (Fast pre-penetrate)
G01 Z-0.125000 F400.0(Penetrate)
G01 X35.703776 Y138.048374 Z-0.125000 F800.000000
G01 X57.940138 Y136.978651 Z-0.125000
G01 X84.189941 Y131.895488 Z-0.125000
G01 X101.629827 Y135.622243 Z-0.125000
G01 X125.098685 Y133.320024 Z-0.125000
G01 X147.954540 Y131.630810 Z-0.125000
G01 X166.854082 Y133.897908 Z-0.125000
G00 Z3.000000

(End cutting path id: path22243)


(Start cutting path id: path22245)
(Change tool to Default tool)

G00 Z3.000000
G00 X13.123515 Y138.403664

G00 Z4.875000 (Fast pre-penetrate)
G01 Z-0.125000 F400.0(Penetrate)
G01 X35.319035 Y137.374783 Z-0.125000 F800.000000
G01 X57.610915 Y136.249543 Z-0.125000
G01 X84.256950 Y130.770148 Z-0.125000
G01 X101.618849 Y134.574888 Z-0.125000
G01 X125.159420 Y132.200957 Z-0.125000
G01 X148.649739 Y129.877278 Z-0.125000
G01 X167.326995 Y132.366663 Z-0.125000
G00 Z3.000000

(End cutting path id: path22245)


(Start cutting path id: path22191)
(Change tool to Default tool)

G00 Z3.000000
G00 X15.966827 Y164.135316

G00 Z4.875000 (Fast pre-penetrate)
G01 Z-0.125000 F400.0(Penetrate)
G01 X39.765027 Y161.503755 Z-0.125000 F800.000000
G01 X63.984852 Y158.450570 Z-0.125000
G01 X83.188810 Y160.413252 Z-0.125000
G01 X103.726864 Y161.041838 Z-0.125000
G01 X122.741063 Y163.194279 Z-0.125000
G01 X137.730830 Y169.371151 Z-0.125000
G01 X162.668966 Y165.599656 Z-0.125000
G00 Z3.000000

(End cutting path id: path22191)


(Start cutting path id: path22189)
(Change tool to Default tool)

G00 Z3.000000
G00 X15.403366 Y165.757106

G00 Z4.875000 (Fast pre-penetrate)
G01 Z-0.125000 F400.0(Penetrate)
G01 X39.489546 Y162.837568 Z-0.125000 F800.000000
G01 X64.034620 Y159.459134 Z-0.125000
G01 X83.204142 Y161.456251 Z-0.125000
G01 X103.939136 Y161.887897 Z-0.125000
G01 X122.593822 Y164.399851 Z-0.125000
G01 X137.908021 Y170.252292 Z-0.125000
G01 X163.097233 Y166.229720 Z-0.125000
G00 Z3.000000

(End cutting path id: path22189)


(Start cutting path id: path22187)
(Change tool to Default tool)

G00 Z3.000000
G00 X14.839905 Y167.378900

G00 Z4.875000 (Fast pre-penetrate)
G01 Z-0.125000 F400.0(Penetrate)
G01 X39.214065 Y164.171381 Z-0.125000 F800.000000
G01 X64.084385 Y160.467701 Z-0.125000
G01 X83.219475 Y162.499251 Z-0.125000
G01 X104.151408 Y162.733957 Z-0.125000
G01 X122.446585 Y165.605421 Z-0.125000
G01 X138.085210 Y171.133435 Z-0.125000
G01 X163.525498 Y166.859788 Z-0.125000
G00 Z3.000000

(End cutting path id: path22187)


(Start cutting path id: path22185)
(Change tool to Default tool)

G00 Z3.000000
G00 X14.276444 Y169.000693

G00 Z4.875000 (Fast pre-penetrate)
G01 Z-0.125000 F400.0(Penetrate)
G01 X38.938586 Y165.505192 Z-0.125000 F800.000000
G01 X64.134150 Y161.476267 Z-0.125000
G01 X83.234805 Y163.542253 Z-0.125000
G01 X104.363681 Y163.580017 Z-0.125000
G01 X122.299344 Y166.810993 Z-0.125000
G01 X138.262399 Y172.014579 Z-0.125000
G01 X163.953765 Y167.489852 Z-0.125000
G00 Z3.000000

(End cutting path id: path22185)


(Start cutting path id: path22183)
(Change tool to Default tool)

G00 Z3.000000
G00 X13.712983 Y170.622486

G00 Z4.875000 (Fast pre-penetrate)
G01 Z-0.125000 F400.0(Penetrate)
G01 X38.663105 Y166.839005 Z-0.125000 F800.000000
G01 X64.183916 Y162.484834 Z-0.125000
G01 X83.250137 Y164.585252 Z-0.125000
G01 X104.575953 Y164.426077 Z-0.125000
G01 X122.152106 Y168.016563 Z-0.125000
G01 X138.439587 Y172.895722 Z-0.125000
G01 X164.382032 Y168.119917 Z-0.125000
G00 Z3.000000

(End cutting path id: path22183)


(Start cutting path id: path22181)
(Change tool to Default tool)

G00 Z3.000000
G00 X13.149522 Y172.244279

G00 Z4.875000 (Fast pre-penetrate)
G01 Z-0.125000 F400.0(Penetrate)
G01 X38.387624 Y168.172818 Z-0.125000 F800.000000
G01 X64.233684 Y163.493398 Z-0.125000
G01 X83.265467 Y165.628254 Z-0.125000
G01 X104.788225 Y165.272136 Z-0.125000
G01 X122.004869 Y169.222133 Z-0.125000
G01 X138.616778 Y173.776863 Z-0.125000
G01 X164.810297 Y168.749984 Z-0.125000
G00 Z3.000000

(End cutting path id: path22181)


(Start cutting path id: path22179)
(Change tool to Default tool)

G00 Z3.000000
G00 X12.586062 Y173.866073

G00 Z4.875000 (Fast pre-penetrate)
G01 Z-0.125000 F400.0(Penetrate)
G01 X38.112142 Y169.506631 Z-0.125000 F800.000000
G01 X64.283449 Y164.501964 Z-0.125000
G01 X83.280800 Y166.671254 Z-0.125000
G01 X105.000498 Y166.118196 Z-0.125000
G01 X121.857628 Y170.427705 Z-0.125000
G01 X138.793967 Y174.658006 Z-0.125000
G01 X165.238564 Y169.380049 Z-0.125000
G00 Z3.000000

(End cutting path id: path22179)


(Start cutting path id: path22177)
(Change tool to Default tool)

G00 Z3.000000
G00 X12.022601 Y175.487866

G00 Z4.875000 (Fast pre-penetrate)
G01 Z-0.125000 F400.0(Penetrate)
G01 X37.836661 Y170.840444 Z-0.125000 F800.000000
G01 X64.333215 Y165.510531 Z-0.125000
G01 X83.296130 Y167.714256 Z-0.125000
G01 X105.212770 Y166.964256 Z-0.125000
G01 X121.710390 Y171.633275 Z-0.125000
G01 X138.971156 Y175.539150 Z-0.125000
G01 X165.666832 Y170.010114 Z-0.125000
G00 Z3.000000

(End cutting path id: path22177)


(Start cutting path id: path22175)
(Change tool to Default tool)

G00 Z3.000000
G00 X11.459140 Y177.109659

G00 Z4.875000 (Fast pre-penetrate)
G01 Z-0.125000 F400.0(Penetrate)
G01 X37.561180 Y172.174257 Z-0.125000 F800.000000
G01 X64.382980 Y166.519097 Z-0.125000
G01 X83.311462 Y168.757255 Z-0.125000
G01 X105.425042 Y167.810315 Z-0.125000
G01 X121.563150 Y172.838848 Z-0.125000
G01 X139.148347 Y176.420291 Z-0.125000
G01 X166.095096 Y170.640181 Z-0.125000
G00 Z3.000000

(End cutting path id: path22175)


(Start cutting path id: path22173)
(Change tool to Default tool)

G00 Z3.000000
G00 X10.895679 Y178.731450

G00 Z4.875000 (Fast pre-penetrate)
G01 Z-0.125000 F400.0(Penetrate)
G01 X37.285702 Y173.508068 Z-0.125000 F800.000000
G01 X64.432746 Y167.527664 Z-0.125000
G01 X83.326795 Y169.800255 Z-0.125000
G01 X105.637314 Y168.656375 Z-0.125000
G01 X121.415912 Y174.044417 Z-0.125000
G01 X139.325535 Y177.301434 Z-0.125000
G01 X166.523363 Y171.270246 Z-0.125000
G00 Z3.000000

(End cutting path id: path22173)


(Start cutting path id: path22171)
(Change tool to Default tool)

G00 Z3.000000
G00 X10.332218 Y180.353243

G00 Z4.875000 (Fast pre-penetrate)
G01 Z-0.125000 F400.0(Penetrate)
G01 X37.010220 Y174.841881 Z-0.125000 F800.000000
G01 X64.482514 Y168.536228 Z-0.125000
G01 X83.342125 Y170.843257 Z-0.125000
G01 X105.849587 Y169.502435 Z-0.125000
G01 X121.268672 Y175.249990 Z-0.125000
G01 X139.502724 Y178.182577 Z-0.125000
G01 X166.951631 Y171.900311 Z-0.125000
G00 Z3.000000

(End cutting path id: path22171)


(Start cutting path id: path22169)
(Change tool to Default tool)

G00 Z3.000000
G00 X9.768757 Y181.975036

G00 Z4.875000 (Fast pre-penetrate)
G01 Z-0.125000 F400.0(Penetrate)
G01 X36.734739 Y176.175694 Z-0.125000 F800.000000
G01 X64.532279 Y169.544794 Z-0.125000
G01 X83.357457 Y171.886256 Z-0.125000
G01 X106.061859 Y170.348494 Z-0.125000
G01 X121.121434 Y176.455560 Z-0.125000
G01 X139.679913 Y179.063721 Z-0.125000
G01 X167.379895 Y172.530378 Z-0.125000
G00 Z3.000000

(End cutting path id: path22169)


(Start cutting path id: path22123)
(Change tool to Default tool)

G00 Z3.000000
G00 X12.589834 Y203.495596

G00 Z4.875000 (Fast pre-penetrate)
G01 Z-0.125000 F400.0(Penetrate)
G01 X40.307504 Y196.944565 Z-0.125000 F800.000000
G01 X63.645971 Y194.772739 Z-0.125000
G01 X81.002020 Y198.583329 Z-0.125000
G01 X104.843880 Y195.908109 Z-0.125000
G01 X125.636030 Y196.282600 Z-0.125000
G01 X142.421032 Y200.664237 Z-0.125000
G01 X170.973975 Y193.277935 Z-0.125000
G00 Z3.000000

(End cutting path id: path22123)


(Start cutting path id: path22125)
(Change tool to Default tool)

G00 Z3.000000
G00 X11.908559 Y203.118538

G00 Z4.875000 (Fast pre-penetrate)
G01 Z-0.125000 F400.0(Penetrate)
G01 X40.308142 Y195.885596 Z-0.125000 F800.000000
G01 X64.156336 Y193.204042 Z-0.125000
G01 X81.274586 Y197.252432 Z-0.125000
G01 X105.534900 Y194.158758 Z-0.125000
G01 X125.520880 Y195.339417 Z-0.125000
G01 X142.731216 Y199.295721 Z-0.125000
G01 X171.323513 Y191.870065 Z-0.125000
G00 Z3.000000

(End cutting path id: path22125)


(Start cutting path id: path22127)
(Change tool to Default tool)

G00 Z3.000000
G00 X11.227284 Y202.741481

G00 Z4.875000 (Fast pre-penetrate)
G01 Z-0.125000 F400.0(Penetrate)
G01 X40.308779 Y194.826626 Z-0.125000 F800.000000
G01 X64.666698 Y191.635348 Z-0.125000
G01 X81.547149 Y195.921537 Z-0.125000
G01 X106.225919 Y192.409406 Z-0.125000
G01 X125.405731 Y194.396234 Z-0.125000
G01 X143.041403 Y197.927203 Z-0.125000
G01 X171.673053 Y190.462192 Z-0.125000
G00 Z3.000000

(End cutting path id: path22127)


(Start cutting path id: path22141)
(Change tool to Default tool)

G00 Z3.000000
G00 X10.312834 Y196.247609

G00 Z4.875000 (Fast pre-penetrate)
G01 Z-0.125000 F400.0(Penetrate)
G01 X39.237014 Y188.490067 Z-0.125000 F800.000000
G01 X64.983626 Y183.910096 Z-0.125000
G01 X82.281036 Y187.779326 Z-0.125000
G01 X106.660415 Y184.566587 Z-0.125000
G01 X124.039837 Y188.353804 Z-0.125000
G01 X142.250085 Y191.310196 Z-0.125000
G01 X170.629784 Y184.097137 Z-0.125000
G00 Z3.000000

(End cutting path id: path22141)


(Start cutting path id: path22153)
(Change tool to Default tool)

G00 Z3.000000
G00 X10.079658 Y190.130791

G00 Z4.875000 (Fast pre-penetrate)
G01 Z-0.125000 F400.0(Penetrate)
G01 X38.164609 Y183.212480 Z-0.125000 F800.000000
G01 X64.790192 Y177.753538 Z-0.125000
G01 X82.742360 Y180.968009 Z-0.125000
G01 X106.403891 Y178.473119 Z-0.125000
G01 X122.789093 Y183.254557 Z-0.125000
G01 X141.148584 Y186.061706 Z-0.125000
G01 X169.236974 Y179.139955 Z-0.125000
G00 Z3.000000

(End cutting path id: path22153)


(Start cutting path id: path22163)
(Change tool to Default tool)

G00 Z3.000000
G00 X9.885345 Y185.033444

G00 Z4.875000 (Fast pre-penetrate)
G01 Z-0.125000 F400.0(Penetrate)
G01 X37.270941 Y178.814489 Z-0.125000 F800.000000
G01 X64.628995 Y172.623075 Z-0.125000
G01 X83.126797 Y175.291913 Z-0.125000
G01 X106.190121 Y173.395229 Z-0.125000
G01 X121.746805 Y179.005185 Z-0.125000
G01 X140.230663 Y181.687966 Z-0.125000
G01 X168.076302 Y175.008968 Z-0.125000
G00 Z3.000000

(End cutting path id: path22163)


(Start cutting path id: path22167)
(Change tool to Default tool)

G00 Z3.000000
G00 X9.807620 Y182.994506

G00 Z4.875000 (Fast pre-penetrate)
G01 Z-0.125000 F400.0(Penetrate)
G01 X36.913473 Y177.055292 Z-0.125000 F800.000000
G01 X64.564518 Y170.570887 Z-0.125000
G01 X83.280570 Y173.021476 Z-0.125000
G01 X106.104613 Y171.364072 Z-0.125000
G01 X121.329891 Y177.305435 Z-0.125000
G01 X139.863496 Y179.938469 Z-0.125000
G01 X167.612030 Y173.356576 Z-0.125000
G00 Z3.000000

(End cutting path id: path22167)


(Start cutting path id: path22165)
(Change tool to Default tool)

G00 Z3.000000
G00 X9.846482 Y184.013976

G00 Z4.875000 (Fast pre-penetrate)
G01 Z-0.125000 F400.0(Penetrate)
G01 X37.092207 Y177.934891 Z-0.125000 F800.000000
G01 X64.596758 Y171.596980 Z-0.125000
G01 X83.203682 Y174.156696 Z-0.125000
G01 X106.147367 Y172.379651 Z-0.125000
G01 X121.538348 Y178.155310 Z-0.125000
G01 X140.047080 Y180.813218 Z-0.125000
G01 X167.844164 Y174.182773 Z-0.125000
G00 Z3.000000

(End cutting path id: path22165)


(Start cutting path id: path22161)
(Change tool to Default tool)

G00 Z3.000000
G00 X9.924208 Y186.052914

G00 Z4.875000 (Fast pre-penetrate)
G01 Z-0.125000 F400.0(Penetrate)
G01 X37.449674 Y179.694087 Z-0.125000 F800.000000
G01 X64.661234 Y173.649167 Z-0.125000
G01 X83.049909 Y176.427133 Z-0.125000
G01 X106.232875 Y174.410807 Z-0.125000
G01 X121.955262 Y179.855060 Z-0.125000
G01 X140.414247 Y182.562715 Z-0.125000
G01 X168.308436 Y175.835165 Z-0.125000
G00 Z3.000000

(End cutting path id: path22161)


(Start cutting path id: path22159)
(Change tool to Default tool)

G00 Z3.000000
G00 X9.963070 Y187.072384

G00 Z4.875000 (Fast pre-penetrate)
G01 Z-0.125000 F400.0(Penetrate)
G01 X37.628408 Y180.573685 Z-0.125000 F800.000000
G01 X64.693474 Y174.675260 Z-0.125000
G01 X82.973021 Y177.562353 Z-0.125000
G01 X106.275629 Y175.426385 Z-0.125000
G01 X122.163722 Y180.704932 Z-0.125000
G01 X140.597830 Y183.437463 Z-0.125000
G01 X168.540571 Y176.661363 Z-0.125000
G00 Z3.000000

(End cutting path id: path22159)


(Start cutting path id: path22157)
(Change tool to Default tool)

G00 Z3.000000
G00 X10.001933 Y188.091854

G00 Z4.875000 (Fast pre-penetrate)
G01 Z-0.125000 F400.0(Penetrate)
G01 X37.807142 Y181.453284 Z-0.125000 F800.000000
G01 X64.725713 Y175.701352 Z-0.125000
G01 X82.896133 Y178.697572 Z-0.125000
G01 X106.318383 Y176.441963 Z-0.125000
G01 X122.372179 Y181.554807 Z-0.125000
G01 X140.781414 Y184.312212 Z-0.125000
G01 X168.772705 Y177.487560 Z-0.125000
G00 Z3.000000

(End cutting path id: path22157)


(Start cutting path id: path22155)
(Change tool to Default tool)

G00 Z3.000000
G00 X10.040795 Y189.111321

G00 Z4.875000 (Fast pre-penetrate)
G01 Z-0.125000 F400.0(Penetrate)
G01 X37.985876 Y182.332882 Z-0.125000 F800.000000
G01 X64.757952 Y176.727445 Z-0.125000
G01 X82.819248 Y179.832790 Z-0.125000
G01 X106.361137 Y177.457541 Z-0.125000
G01 X122.580636 Y182.404682 Z-0.125000
G01 X140.964998 Y185.186960 Z-0.125000
G01 X169.004840 Y178.313758 Z-0.125000
G00 Z3.000000

(End cutting path id: path22155)


(Start cutting path id: path22151)
(Change tool to Default tool)

G00 Z3.000000
G00 X10.118521 Y191.150261

G00 Z4.875000 (Fast pre-penetrate)
G01 Z-0.125000 F400.0(Penetrate)
G01 X38.343343 Y184.092078 Z-0.125000 F800.000000
G01 X64.822431 Y178.779630 Z-0.125000
G01 X82.665472 Y182.103229 Z-0.125000
G01 X106.446645 Y179.488697 Z-0.125000
G01 X122.997550 Y184.104432 Z-0.125000
G01 X141.332167 Y186.936454 Z-0.125000
G01 X169.469109 Y179.966153 Z-0.125000
G00 Z3.000000

(End cutting path id: path22151)


(Start cutting path id: path22149)
(Change tool to Default tool)

G00 Z3.000000
G00 X10.157383 Y192.169731

G00 Z4.875000 (Fast pre-penetrate)
G01 Z-0.125000 F400.0(Penetrate)
G01 X38.522077 Y184.971677 Z-0.125000 F800.000000
G01 X64.854671 Y179.805723 Z-0.125000
G01 X82.588584 Y183.238449 Z-0.125000
G01 X106.489399 Y180.504275 Z-0.125000
G01 X123.206007 Y184.954307 Z-0.125000
G01 X141.515751 Y187.811203 Z-0.125000
G01 X169.701243 Y180.792350 Z-0.125000
G00 Z3.000000

(End cutting path id: path22149)


(Start cutting path id: path22147)
(Change tool to Default tool)

G00 Z3.000000
G00 X10.196246 Y193.189199

G00 Z4.875000 (Fast pre-penetrate)
G01 Z-0.125000 F400.0(Penetrate)
G01 X38.700813 Y185.851272 Z-0.125000 F800.000000
G01 X64.886910 Y180.831815 Z-0.125000
G01 X82.511699 Y184.373666 Z-0.125000
G01 X106.532153 Y181.519853 Z-0.125000
G01 X123.414464 Y185.804182 Z-0.125000
G01 X141.699334 Y188.685951 Z-0.125000
G01 X169.933378 Y181.618548 Z-0.125000
G00 Z3.000000

(End cutting path id: path22147)


(Start cutting path id: path22145)
(Change tool to Default tool)

G00 Z3.000000
G00 X10.235109 Y194.208669

G00 Z4.875000 (Fast pre-penetrate)
G01 Z-0.125000 F400.0(Penetrate)
G01 X38.879547 Y186.730871 Z-0.125000 F800.000000
G01 X64.919147 Y181.857911 Z-0.125000
G01 X82.434811 Y185.508886 Z-0.125000
G01 X106.574907 Y182.535431 Z-0.125000
G01 X123.622923 Y186.654054 Z-0.125000
G01 X141.882918 Y189.560700 Z-0.125000
G01 X170.165512 Y182.444745 Z-0.125000
G00 Z3.000000

(End cutting path id: path22145)


(Start cutting path id: path22143)
(Change tool to Default tool)

G00 Z3.000000
G00 X10.273971 Y195.228139

G00 Z4.875000 (Fast pre-penetrate)
G01 Z-0.125000 F400.0(Penetrate)
G01 X39.058281 Y187.610469 Z-0.125000 F800.000000
G01 X64.951386 Y182.884003 Z-0.125000
G01 X82.357924 Y186.644106 Z-0.125000
G01 X106.617661 Y183.551009 Z-0.125000
G01 X123.831380 Y187.503929 Z-0.125000
G01 X142.066502 Y190.435448 Z-0.125000
G01 X170.397650 Y183.270940 Z-0.125000
G00 Z3.000000

(End cutting path id: path22143)


(Start cutting path id: path22139)
(Change tool to Default tool)

G00 Z3.000000
G00 X10.351697 Y197.267076

G00 Z4.875000 (Fast pre-penetrate)
G01 Z-0.125000 F400.0(Penetrate)
G01 X39.415748 Y189.369665 Z-0.125000 F800.000000
G01 X65.015865 Y184.936188 Z-0.125000
G01 X82.204151 Y188.914543 Z-0.125000
G01 X106.703169 Y185.582165 Z-0.125000
G01 X124.248294 Y189.203679 Z-0.125000
G01 X142.433669 Y192.184945 Z-0.125000
G01 X170.861919 Y184.923335 Z-0.125000
G00 Z3.000000

(End cutting path id: path22139)


(Start cutting path id: path22137)
(Change tool to Default tool)

G00 Z3.000000
G00 X10.390559 Y198.286546

G00 Z4.875000 (Fast pre-penetrate)
G01 Z-0.125000 F400.0(Penetrate)
G01 X39.594482 Y190.249264 Z-0.125000 F800.000000
G01 X65.048105 Y185.962281 Z-0.125000
G01 X82.127263 Y190.049763 Z-0.125000
G01 X106.745923 Y186.597743 Z-0.125000
G01 X124.456751 Y190.053554 Z-0.125000
G01 X142.617252 Y193.059693 Z-0.125000
G01 X171.094053 Y185.749532 Z-0.125000
G00 Z3.000000

(End cutting path id: path22137)


(Start cutting path id: path22135)
(Change tool to Default tool)

G00 Z3.000000
G00 X10.429422 Y199.306016

G00 Z4.875000 (Fast pre-penetrate)
G01 Z-0.125000 F400.0(Penetrate)
G01 X39.773216 Y191.128862 Z-0.125000 F800.000000
G01 X65.080344 Y186.988373 Z-0.125000
G01 X82.050375 Y191.184982 Z-0.125000
G01 X106.788676 Y187.613321 Z-0.125000
G01 X124.665208 Y190.903429 Z-0.125000
G01 X142.800836 Y193.934442 Z-0.125000
G01 X171.326188 Y186.575730 Z-0.125000
G00 Z3.000000

(End cutting path id: path22135)


(Start cutting path id: path22133)
(Change tool to Default tool)

G00 Z3.000000
G00 X10.468285 Y200.325484

G00 Z4.875000 (Fast pre-penetrate)
G01 Z-0.125000 F400.0(Penetrate)
G01 X39.951949 Y192.008460 Z-0.125000 F800.000000
G01 X65.112584 Y188.014466 Z-0.125000
G01 X81.973487 Y192.320202 Z-0.125000
G01 X106.831430 Y188.628899 Z-0.125000
G01 X124.873665 Y191.753304 Z-0.125000
G01 X142.984419 Y194.809190 Z-0.125000
G01 X171.558322 Y187.401927 Z-0.125000
G00 Z3.000000

(End cutting path id: path22133)


(Start cutting path id: path22131)
(Change tool to Default tool)

G00 Z3.000000
G00 X10.507147 Y201.344954

G00 Z4.875000 (Fast pre-penetrate)
G01 Z-0.125000 F400.0(Penetrate)
G01 X40.130683 Y192.888058 Z-0.125000 F800.000000
G01 X65.144823 Y189.040558 Z-0.125000
G01 X81.896599 Y193.455422 Z-0.125000
G01 X106.874184 Y189.644477 Z-0.125000
G01 X125.082122 Y192.603179 Z-0.125000
G01 X143.168003 Y195.683939 Z-0.125000
G01 X171.790457 Y188.228125 Z-0.125000
G00 Z3.000000

(End cutting path id: path22131)


(Start cutting path id: path22129)
(Change tool to Default tool)

G00 Z3.000000
G00 X10.546010 Y202.364424

G00 Z4.875000 (Fast pre-penetrate)
G01 Z-0.125000 F400.0(Penetrate)
G01 X40.309417 Y193.767657 Z-0.125000 F800.000000
G01 X65.177063 Y190.066651 Z-0.125000
G01 X81.819714 Y194.590639 Z-0.125000
G01 X106.916938 Y190.660055 Z-0.125000
G01 X125.290582 Y193.453051 Z-0.125000
G01 X143.351586 Y196.558687 Z-0.125000
G01 X172.022591 Y189.054322 Z-0.125000
G00 Z3.000000

(End cutting path id: path22129)


(Start cutting path id: path22247)
(Change tool to Default tool)

G00 Z3.000000
G00 X12.683823 Y137.785024

G00 Z4.875000 (Fast pre-penetrate)
G01 Z-0.125000 F400.0(Penetrate)
G01 X34.934294 Y136.701191 Z-0.125000 F800.000000
G01 X57.281689 Y135.520437 Z-0.125000
G01 X84.323955 Y129.644810 Z-0.125000
G01 X101.607874 Y133.527531 Z-0.125000
G01 X125.220153 Y131.081893 Z-0.125000
G01 X149.344942 Y128.123744 Z-0.125000
G01 X167.799908 Y130.835418 Z-0.125000
G00 Z3.000000

(End cutting path id: path22247)


(Start cutting path id: path22297)
(Change tool to Default tool)

G00 Z3.000000
G00 X13.980733 Y110.029812

G00 Z4.875000 (Fast pre-penetrate)
G01 Z-0.125000 F400.0(Penetrate)
G01 X39.772231 Y105.404954 Z-0.125000 F800.000000
G01 X54.568816 Y111.775009 Z-0.125000
G01 X82.661922 Y104.848544 Z-0.125000
G01 X96.168945 Y112.508161 Z-0.125000
G01 X117.606171 Y112.237575 Z-0.125000
G01 X147.234982 Y103.775403 Z-0.125000
G01 X165.774710 Y106.402316 Z-0.125000
G00 Z3.000000

(End cutting path id: path22297)


(Start cutting path id: path22295)
(Change tool to Default tool)

G00 Z3.000000
G00 X13.439036 Y111.629841

G00 Z4.875000 (Fast pre-penetrate)
G01 Z-0.125000 F400.0(Penetrate)
G01 X39.873125 Y106.362393 Z-0.125000 F800.000000
G01 X54.474257 Y112.927901 Z-0.125000
G01 X82.641599 Y105.927199 Z-0.125000
G01 X95.597834 Y114.137603 Z-0.125000
G01 X117.192321 Y113.709757 Z-0.125000
G01 X147.031888 Y105.036829 Z-0.125000
G01 X165.690049 Y107.545309 Z-0.125000
G00 Z3.000000

(End cutting path id: path22295)


(Start cutting path id: path22293)
(Change tool to Default tool)

G00 Z3.000000
G00 X12.897339 Y113.229869

G00 Z4.875000 (Fast pre-penetrate)
G01 Z-0.125000 F400.0(Penetrate)
G01 X39.974018 Y107.319831 Z-0.125000 F800.000000
G01 X54.379695 Y114.080795 Z-0.125000
G01 X82.621276 Y107.005853 Z-0.125000
G01 X95.026724 Y115.767046 Z-0.125000
G01 X116.778471 Y115.181939 Z-0.125000
G01 X146.828797 Y106.298252 Z-0.125000
G01 X165.605387 Y108.688302 Z-0.125000
G00 Z3.000000

(End cutting path id: path22293)


(Start cutting path id: path22291)
(Change tool to Default tool)

G00 Z3.000000
G00 X12.355642 Y114.829901

G00 Z4.875000 (Fast pre-penetrate)
G01 Z-0.125000 F400.0(Penetrate)
G01 X40.074912 Y108.277270 Z-0.125000 F800.000000
G01 X54.285133 Y115.233689 Z-0.125000
G01 X82.600956 Y108.084505 Z-0.125000
G01 X94.455616 Y117.396485 Z-0.125000
G01 X116.364623 Y116.654118 Z-0.125000
G01 X146.625703 Y107.559678 Z-0.125000
G01 X165.520724 Y109.831298 Z-0.125000
G00 Z3.000000

(End cutting path id: path22291)


(Start cutting path id: path22289)
(Change tool to Default tool)

G00 Z3.000000
G00 X11.813945 Y116.429929

G00 Z4.875000 (Fast pre-penetrate)
G01 Z-0.125000 F400.0(Penetrate)
G01 X40.175805 Y109.234708 Z-0.125000 F800.000000
G01 X54.190571 Y116.386583 Z-0.125000
G01 X82.580634 Y109.163160 Z-0.125000
G01 X93.884506 Y119.025928 Z-0.125000
G01 X115.950773 Y118.126300 Z-0.125000
G01 X146.422609 Y108.821104 Z-0.125000
G01 X165.436062 Y110.974291 Z-0.125000
G00 Z3.000000

(End cutting path id: path22289)


(Start cutting path id: path22287)
(Change tool to Default tool)

G00 Z3.000000
G00 X11.835455 Y117.466751

G00 Z4.875000 (Fast pre-penetrate)
G01 Z-0.125000 F400.0(Penetrate)
G01 X39.894493 Y110.574353 Z-0.125000 F800.000000
G01 X54.328665 Y117.306821 Z-0.125000
G01 X82.671150 Y110.130975 Z-0.125000
G01 X94.270125 Y119.698641 Z-0.125000
G01 X116.417278 Y118.718128 Z-0.125000
G01 X146.603486 Y109.698559 Z-0.125000
G01 X165.577900 Y111.890786 Z-0.125000
G00 Z3.000000

(End cutting path id: path22287)


(Start cutting path id: path22285)
(Change tool to Default tool)

G00 Z3.000000
G00 X11.856964 Y118.503575

G00 Z4.875000 (Fast pre-penetrate)
G01 Z-0.125000 F400.0(Penetrate)
G01 X39.613180 Y111.913997 Z-0.125000 F800.000000
G01 X54.466761 Y118.227056 Z-0.125000
G01 X82.761667 Y111.098791 Z-0.125000
G01 X94.655744 Y120.371353 Z-0.125000
G01 X116.883785 Y119.309952 Z-0.125000
G01 X146.784363 Y110.576014 Z-0.125000
G01 X165.719738 Y112.807280 Z-0.125000
G00 Z3.000000

(End cutting path id: path22285)


(Start cutting path id: path22283)
(Change tool to Default tool)

G00 Z3.000000
G00 X11.878473 Y119.540396

G00 Z4.875000 (Fast pre-penetrate)
G01 Z-0.125000 F400.0(Penetrate)
G01 X39.331867 Y113.253642 Z-0.125000 F800.000000
G01 X54.604855 Y119.147295 Z-0.125000
G01 X82.852183 Y112.066606 Z-0.125000
G01 X95.041363 Y121.044066 Z-0.125000
G01 X117.350290 Y119.901779 Z-0.125000
G01 X146.965240 Y111.453470 Z-0.125000
G01 X165.861575 Y113.723774 Z-0.125000
G00 Z3.000000

(End cutting path id: path22283)


(Start cutting path id: path22281)
(Change tool to Default tool)

G00 Z3.000000
G00 X11.899982 Y120.577220

G00 Z4.875000 (Fast pre-penetrate)
G01 Z-0.125000 F400.0(Penetrate)
G01 X39.050555 Y114.593287 Z-0.125000 F800.000000
G01 X54.742949 Y120.067533 Z-0.125000
G01 X82.942700 Y113.034422 Z-0.125000
G01 X95.426985 Y121.716776 Z-0.125000
G01 X117.816795 Y120.493607 Z-0.125000
G01 X147.146117 Y112.330925 Z-0.125000
G01 X166.003413 Y114.640269 Z-0.125000
G00 Z3.000000

(End cutting path id: path22281)


(Start cutting path id: path22279)
(Change tool to Default tool)

G00 Z3.000000
G00 X11.921492 Y121.614042

G00 Z4.875000 (Fast pre-penetrate)
G01 Z-0.125000 F400.0(Penetrate)
G01 X38.769242 Y115.932931 Z-0.125000 F800.000000
G01 X54.881045 Y120.987768 Z-0.125000
G01 X83.033216 Y114.002237 Z-0.125000
G01 X95.812604 Y122.389489 Z-0.125000
G01 X118.283302 Y121.085431 Z-0.125000
G01 X147.326994 Y113.208380 Z-0.125000
G01 X166.145251 Y115.556763 Z-0.125000
G00 Z3.000000

(End cutting path id: path22279)


(Start cutting path id: path22277)
(Change tool to Default tool)

G00 Z3.000000
G00 X11.943001 Y122.650866

G00 Z4.875000 (Fast pre-penetrate)
G01 Z-0.125000 F400.0(Penetrate)
G01 X38.487930 Y117.272576 Z-0.125000 F800.000000
G01 X55.019139 Y121.908006 Z-0.125000
G01 X83.123733 Y114.970053 Z-0.125000
G01 X96.198223 Y123.062202 Z-0.125000
G01 X118.749807 Y121.677258 Z-0.125000
G01 X147.507871 Y114.085835 Z-0.125000
G01 X166.287088 Y116.473257 Z-0.125000
G00 Z3.000000

(End cutting path id: path22277)


(Start cutting path id: path22275)
(Change tool to Default tool)

G00 Z3.000000
G00 X11.964510 Y123.687687

G00 Z4.875000 (Fast pre-penetrate)
G01 Z-0.125000 F400.0(Penetrate)
G01 X38.206617 Y118.612220 Z-0.125000 F800.000000
G01 X55.157233 Y122.828245 Z-0.125000
G01 X83.214249 Y115.937868 Z-0.125000
G01 X96.583842 Y123.734915 Z-0.125000
G01 X119.216312 Y122.269086 Z-0.125000
G01 X147.688747 Y114.963290 Z-0.125000
G01 X166.428926 Y117.389752 Z-0.125000
G00 Z3.000000

(End cutting path id: path22275)


(Start cutting path id: path22273)
(Change tool to Default tool)

G00 Z3.000000
G00 X11.986019 Y124.724511

G00 Z4.875000 (Fast pre-penetrate)
G01 Z-0.125000 F400.0(Penetrate)
G01 X37.925305 Y119.951865 Z-0.125000 F800.000000
G01 X55.295329 Y123.748480 Z-0.125000
G01 X83.304766 Y116.905684 Z-0.125000
G01 X96.969462 Y124.407628 Z-0.125000
G01 X119.682819 Y122.860910 Z-0.125000
G01 X147.869622 Y115.840748 Z-0.125000
G01 X166.570763 Y118.306246 Z-0.125000
G00 Z3.000000

(End cutting path id: path22273)


(Start cutting path id: path22271)
(Change tool to Default tool)

G00 Z3.000000
G00 X12.007529 Y125.761332

G00 Z4.875000 (Fast pre-penetrate)
G01 Z-0.125000 F400.0(Penetrate)
G01 X37.643992 Y121.291510 Z-0.125000 F800.000000
G01 X55.433423 Y124.668718 Z-0.125000
G01 X83.395282 Y117.873499 Z-0.125000
G01 X97.355083 Y125.080338 Z-0.125000
G01 X120.149324 Y123.452737 Z-0.125000
G01 X148.050499 Y116.718203 Z-0.125000
G01 X166.712604 Y119.222738 Z-0.125000
G00 Z3.000000

(End cutting path id: path22271)


(Start cutting path id: path22269)
(Change tool to Default tool)

G00 Z3.000000
G00 X12.029038 Y126.798156

G00 Z4.875000 (Fast pre-penetrate)
G01 Z-0.125000 F400.0(Penetrate)
G01 X37.362679 Y122.631154 Z-0.125000 F800.000000
G01 X55.571517 Y125.588957 Z-0.125000
G01 X83.485799 Y118.841315 Z-0.125000
G01 X97.740703 Y125.753051 Z-0.125000
G01 X120.615829 Y124.044564 Z-0.125000
G01 X148.231375 Y117.595658 Z-0.125000
G01 X166.854441 Y120.139232 Z-0.125000
G00 Z3.000000

(End cutting path id: path22269)


(Start cutting path id: path22267)
(Change tool to Default tool)

G00 Z3.000000
G00 X12.050547 Y127.834978

G00 Z4.875000 (Fast pre-penetrate)
G01 Z-0.125000 F400.0(Penetrate)
G01 X37.081367 Y123.970799 Z-0.125000 F800.000000
G01 X55.709613 Y126.509192 Z-0.125000
G01 X83.576315 Y119.809130 Z-0.125000
G01 X98.126322 Y126.425764 Z-0.125000
G01 X121.082337 Y124.636389 Z-0.125000
G01 X148.412252 Y118.473113 Z-0.125000
G01 X166.996279 Y121.055726 Z-0.125000
G00 Z3.000000

(End cutting path id: path22267)


(Start cutting path id: path22265)
(Change tool to Default tool)

G00 Z3.000000
G00 X12.072056 Y128.871802

G00 Z4.875000 (Fast pre-penetrate)
G01 Z-0.125000 F400.0(Penetrate)
G01 X36.800054 Y125.310443 Z-0.125000 F800.000000
G01 X55.847707 Y127.429430 Z-0.125000
G01 X83.666832 Y120.776946 Z-0.125000
G01 X98.511941 Y127.098477 Z-0.125000
G01 X121.548841 Y125.228216 Z-0.125000
G01 X148.593129 Y119.350568 Z-0.125000
G01 X167.138117 Y121.972221 Z-0.125000
G00 Z3.000000

(End cutting path id: path22265)


(Start cutting path id: path22263)
(Change tool to Default tool)

G00 Z3.000000
G00 X12.093566 Y129.908623

G00 Z4.875000 (Fast pre-penetrate)
G01 Z-0.125000 F400.0(Penetrate)
G01 X36.518742 Y126.650088 Z-0.125000 F800.000000
G01 X55.985801 Y128.349669 Z-0.125000
G01 X83.757345 Y121.744764 Z-0.125000
G01 X98.897560 Y127.771190 Z-0.125000
G01 X122.015346 Y125.820043 Z-0.125000
G01 X148.774006 Y120.228023 Z-0.125000
G01 X167.279954 Y122.888715 Z-0.125000
G00 Z3.000000

(End cutting path id: path22263)


(Start cutting path id: path22261)
(Change tool to Default tool)

G00 Z3.000000
G00 X12.115075 Y130.945447

G00 Z4.875000 (Fast pre-penetrate)
G01 Z-0.125000 F400.0(Penetrate)
G01 X36.237429 Y127.989732 Z-0.125000 F800.000000
G01 X56.123897 Y129.269904 Z-0.125000
G01 X83.847862 Y122.712580 Z-0.125000
G01 X99.283179 Y128.443902 Z-0.125000
G01 X122.481854 Y126.411868 Z-0.125000
G01 X148.954883 Y121.105479 Z-0.125000
G01 X167.421792 Y123.805209 Z-0.125000
G00 Z3.000000

(End cutting path id: path22261)


(Start cutting path id: path22259)
(Change tool to Default tool)

G00 Z3.000000
G00 X12.136584 Y131.982269

G00 Z4.875000 (Fast pre-penetrate)
G01 Z-0.125000 F400.0(Penetrate)
G01 X35.956116 Y129.329377 Z-0.125000 F800.000000
G01 X56.261991 Y130.190142 Z-0.125000
G01 X83.938378 Y123.680395 Z-0.125000
G01 X99.668801 Y129.116613 Z-0.125000
G01 X122.948358 Y127.003695 Z-0.125000
G01 X149.135760 Y121.982934 Z-0.125000
G01 X167.563630 Y124.721704 Z-0.125000
G00 Z3.000000

(End cutting path id: path22259)


(Start cutting path id: path22257)
(Change tool to Default tool)

G00 Z3.000000
G00 X12.158093 Y133.019093

G00 Z4.875000 (Fast pre-penetrate)
G01 Z-0.125000 F400.0(Penetrate)
G01 X35.674804 Y130.669022 Z-0.125000 F800.000000
G01 X56.400085 Y131.110380 Z-0.125000
G01 X84.028895 Y124.648211 Z-0.125000
G01 X100.054420 Y129.789325 Z-0.125000
G01 X123.414863 Y127.595522 Z-0.125000
G01 X149.316634 Y122.860391 Z-0.125000
G01 X167.705467 Y125.638198 Z-0.125000
G00 Z3.000000

(End cutting path id: path22257)


(Start cutting path id: path22255)
(Change tool to Default tool)

G00 Z3.000000
G00 X12.179603 Y134.055914

G00 Z4.875000 (Fast pre-penetrate)
G01 Z-0.125000 F400.0(Penetrate)
G01 X35.393491 Y132.008666 Z-0.125000 F800.000000
G01 X56.538181 Y132.030627 Z-0.125000
G01 X84.119411 Y125.616037 Z-0.125000
G01 X100.440039 Y130.462049 Z-0.125000
G01 X123.881371 Y128.187357 Z-0.125000
G01 X149.497511 Y123.737857 Z-0.125000
G01 X167.847305 Y126.554703 Z-0.125000
G00 Z3.000000

(End cutting path id: path22255)


(Start cutting path id: path22253)
(Change tool to Default tool)

G00 Z3.000000
G00 X12.201112 Y135.092738

G00 Z4.875000 (Fast pre-penetrate)
G01 Z-0.125000 F400.0(Penetrate)
G01 X35.112179 Y133.348311 Z-0.125000 F800.000000
G01 X56.676275 Y132.950854 Z-0.125000
G01 X84.209928 Y126.583842 Z-0.125000
G01 X100.825658 Y131.134751 Z-0.125000
G01 X124.347875 Y128.779174 Z-0.125000
G01 X149.678388 Y124.615302 Z-0.125000
G01 X167.989145 Y127.471184 Z-0.125000
G00 Z3.000000

(End cutting path id: path22253)


(Start cutting path id: path22251)
(Change tool to Default tool)

G00 Z3.000000
G00 X12.222621 Y136.129560

G00 Z4.875000 (Fast pre-penetrate)
G01 Z-0.125000 F400.0(Penetrate)
G01 X34.830869 Y134.687953 Z-0.125000 F800.000000
G01 X56.814372 Y133.871090 Z-0.125000
G01 X84.300444 Y127.551657 Z-0.125000
G01 X101.211277 Y131.807464 Z-0.125000
G01 X124.814383 Y129.370999 Z-0.125000
G01 X149.859265 Y125.492757 Z-0.125000
G01 X168.130983 Y128.387679 Z-0.125000
G00 Z3.000000

(End cutting path id: path22251)


(Start cutting path id: path22249)
(Change tool to Default tool)

G00 Z3.000000
G00 X12.244131 Y137.166384

G00 Z4.875000 (Fast pre-penetrate)
G01 Z-0.125000 F400.0(Penetrate)
G01 X34.549556 Y136.027597 Z-0.125000 F800.000000
G01 X56.952466 Y134.791328 Z-0.125000
G01 X84.390961 Y128.519473 Z-0.125000
G01 X101.596899 Y132.480174 Z-0.125000
G01 X125.280888 Y129.962826 Z-0.125000
G01 X150.040142 Y126.370212 Z-0.125000
G01 X168.272821 Y129.304173 Z-0.125000
G00 Z3.000000

(End cutting path id: path22249)



(Footer)
M5
G00 X0.0000 Y0.0000
M2
(Using default footer. To add your own footer create file "footer" in the output dir.)
(end)
%