%
(Header)
(Generated by gcodetools from Inkscape.)
(Using default header. To add your own header create file "header" in the output dir.)
M3
(Header end.)
G21 (All units in mm)

(Start cutting path id: polyline45440)
(Change tool to Default tool)

G00 Z5.000000
G00 X206.635654 Y128.916728

G00 Z4.875000 (Fast pre-penetrate)
G01 Z-0.125000 F100.0(Penetrate)
G01 X175.703316 Y122.453483 Z-0.125000 F800.000000
G01 X150.809505 Y143.086788 Z-0.125000
G01 X125.050984 Y127.859334 Z-0.125000
G01 X93.075005 Y124.267620 Z-0.125000
G01 X60.196339 Y119.424457 Z-0.125000
G01 X51.265433 Y121.299233 Z-0.125000
G01 X3.560394 Y110.242919 Z-0.125000
G00 Z5.000000

(End cutting path id: polyline45440)


(Start cutting path id: polyline45210)
(Change tool to Default tool)

G00 Z5.000000
G00 X202.797859 Y101.854145

G00 Z4.875000 (Fast pre-penetrate)
G01 Z-0.125000 F100.0(Penetrate)
G01 X177.225171 Y107.781914 Z-0.125000 F800.000000
G01 X135.729073 Y92.587839 Z-0.125000
G01 X111.739467 Y103.556792 Z-0.125000
G01 X97.868541 Y104.120703 Z-0.125000
G01 X74.941223 Y100.394349 Z-0.125000
G01 X36.875037 Y101.173948 Z-0.125000
G01 X13.731345 Y102.243235 Z-0.125000
G00 Z5.000000

(End cutting path id: polyline45210)


(Start cutting path id: polyline45346)
(Change tool to Default tool)

G00 Z5.000000
G00 X202.871810 Y99.796423

G00 Z4.875000 (Fast pre-penetrate)
G01 Z-0.125000 F100.0(Penetrate)
G01 X177.052308 Y105.807982 Z-0.125000 F800.000000
G01 X136.493891 Y91.382885 Z-0.125000
G01 X111.580356 Y101.064660 Z-0.125000
G01 X97.375841 Y102.261686 Z-0.125000
G01 X74.857630 Y98.709909 Z-0.125000
G01 X13.590000 Y100.384120 Z-0.125000
G00 Z5.000000

(End cutting path id: polyline45346)


(Start cutting path id: polyline45348)
(Change tool to Default tool)

G00 Z5.000000
G00 X202.945762 Y97.738751

G00 Z4.875000 (Fast pre-penetrate)
G01 Z-0.125000 F100.0(Penetrate)
G01 X176.879444 Y103.834049 Z-0.125000 F800.000000
G01 X137.258710 Y90.177881 Z-0.125000
G01 X111.421245 Y98.572528 Z-0.125000
G01 X96.883190 Y100.402620 Z-0.125000
G01 X74.774037 Y97.025469 Z-0.125000
G01 X37.030966 Y98.502150 Z-0.125000
G01 X13.448607 Y98.525055 Z-0.125000
G00 Z5.000000

(End cutting path id: polyline45348)


(Start cutting path id: polyline45202)
(Change tool to Default tool)

G00 Z5.000000
G00 X198.336835 Y56.555540

G00 Z4.875000 (Fast pre-penetrate)
G01 Z-0.125000 F100.0(Penetrate)
G01 X159.712611 Y34.553717 Z-0.125000 F800.000000
G01 X138.817515 Y54.577496 Z-0.125000
G01 X123.510091 Y46.073512 Z-0.125000
G01 X101.050903 Y39.033093 Z-0.125000
G01 X61.030410 Y41.953468 Z-0.125000
G01 X40.713761 Y45.622070 Z-0.125000
G01 X23.725322 Y44.187920 Z-0.125000
G00 Z5.000000

(End cutting path id: polyline45202)


(Start cutting path id: polyline45204)
(Change tool to Default tool)

G00 Z5.000000
G00 X198.673214 Y57.162471

G00 Z4.875000 (Fast pre-penetrate)
G01 Z-0.125000 F100.0(Penetrate)
G01 X160.569881 Y36.887325 Z-0.125000 F800.000000
G01 X139.400661 Y55.608412 Z-0.125000
G01 X122.658547 Y46.962790 Z-0.125000
G01 X100.371049 Y41.002719 Z-0.125000
G01 X61.765080 Y43.706721 Z-0.125000
G01 X40.565956 Y47.553962 Z-0.125000
G01 X22.996085 Y45.743838 Z-0.125000
G00 Z5.000000

(End cutting path id: polyline45204)


(Start cutting path id: polyline45352)
(Change tool to Default tool)

G00 Z5.000000
G00 X199.009544 Y57.769402

G00 Z4.875000 (Fast pre-penetrate)
G01 Z-0.125000 F100.0(Penetrate)
G01 X161.427199 Y39.220933 Z-0.125000 F800.000000
G01 X139.983806 Y56.639329 Z-0.125000
G01 X121.807052 Y47.852019 Z-0.125000
G01 X99.691145 Y42.972394 Z-0.125000
G01 X62.499750 Y45.459925 Z-0.125000
G01 X40.418102 Y49.485804 Z-0.125000
G01 X22.266847 Y47.299757 Z-0.125000
G00 Z5.000000

(End cutting path id: polyline45352)


(Start cutting path id: polyline45354)
(Change tool to Default tool)

G00 Z5.000000
G00 X199.345923 Y58.376333

G00 Z4.875000 (Fast pre-penetrate)
G01 Z-0.125000 F100.0(Penetrate)
G01 X162.284469 Y41.554541 Z-0.125000 F800.000000
G01 X140.566951 Y57.670245 Z-0.125000
G01 X120.955558 Y48.741248 Z-0.125000
G01 X99.011241 Y44.942020 Z-0.125000
G01 X63.234468 Y47.213178 Z-0.125000
G01 X40.270297 Y51.417696 Z-0.125000
G01 X21.537610 Y48.855675 Z-0.125000
G00 Z5.000000

(End cutting path id: polyline45354)


(Start cutting path id: polyline45356)
(Change tool to Default tool)

G00 Z5.000000
G00 X199.682303 Y58.983264

G00 Z4.875000 (Fast pre-penetrate)
G01 Z-0.125000 F100.0(Penetrate)
G01 X163.141739 Y43.888150 Z-0.125000 F800.000000
G01 X141.150096 Y58.701161 Z-0.125000
G01 X120.104063 Y49.630477 Z-0.125000
G01 X98.331387 Y46.911646 Z-0.125000
G01 X63.969138 Y48.966431 Z-0.125000
G01 X40.122443 Y53.349587 Z-0.125000
G01 X20.808373 Y50.411593 Z-0.125000
G00 Z5.000000

(End cutting path id: polyline45356)


(Start cutting path id: polyline45358)
(Change tool to Default tool)

G00 Z5.000000
G00 X200.018682 Y59.590195

G00 Z4.875000 (Fast pre-penetrate)
G01 Z-0.125000 F100.0(Penetrate)
G01 X163.999058 Y46.221758 Z-0.125000 F800.000000
G01 X141.733241 Y59.732078 Z-0.125000
G01 X119.252568 Y50.519755 Z-0.125000
G01 X97.651483 Y48.881321 Z-0.125000
G01 X64.703808 Y50.719684 Z-0.125000
G01 X39.974638 Y55.281430 Z-0.125000
G01 X20.079087 Y51.967512 Z-0.125000
G00 Z5.000000

(End cutting path id: polyline45358)


(Start cutting path id: polyline45360)
(Change tool to Default tool)

G00 Z5.000000
G00 X200.355061 Y60.197126

G00 Z4.875000 (Fast pre-penetrate)
G01 Z-0.125000 F100.0(Penetrate)
G01 X164.856328 Y48.555317 Z-0.125000 F800.000000
G01 X142.316386 Y60.762994 Z-0.125000
G01 X118.401074 Y51.408984 Z-0.125000
G01 X96.971628 Y50.850946 Z-0.125000
G01 X65.438478 Y52.472937 Z-0.125000
G01 X39.826783 Y57.213322 Z-0.125000
G01 X19.349849 Y53.523430 Z-0.125000
G00 Z5.000000

(End cutting path id: polyline45360)


(Start cutting path id: polyline45362)
(Change tool to Default tool)

G00 Z5.000000
G00 X200.691440 Y60.804057

G00 Z4.875000 (Fast pre-penetrate)
G01 Z-0.125000 F100.0(Penetrate)
G01 X165.713598 Y50.888926 Z-0.125000 F800.000000
G01 X142.899531 Y61.793911 Z-0.125000
G01 X117.549530 Y52.298213 Z-0.125000
G01 X96.291725 Y52.820621 Z-0.125000
G01 X66.173197 Y54.226189 Z-0.125000
G01 X39.678978 Y59.145164 Z-0.125000
G01 X18.620612 Y55.079348 Z-0.125000
G00 Z5.000000

(End cutting path id: polyline45362)


(Start cutting path id: polyline45364)
(Change tool to Default tool)

G00 Z5.000000
G00 X201.027819 Y61.410939

G00 Z4.875000 (Fast pre-penetrate)
G01 Z-0.125000 F100.0(Penetrate)
G01 X166.570916 Y53.222534 Z-0.125000 F800.000000
G01 X143.482676 Y62.824827 Z-0.125000
G01 X116.698035 Y53.187442 Z-0.125000
G01 X95.611821 Y54.790247 Z-0.125000
G01 X66.907867 Y55.979442 Z-0.125000
G01 X39.531124 Y61.077056 Z-0.125000
G01 X17.891375 Y56.635266 Z-0.125000
G00 Z5.000000

(End cutting path id: polyline45364)


(Start cutting path id: polyline45366)
(Change tool to Default tool)

G00 Z5.000000
G00 X201.364198 Y62.017870

G00 Z4.875000 (Fast pre-penetrate)
G01 Z-0.125000 F100.0(Penetrate)
G01 X167.428186 Y55.556142 Z-0.125000 F800.000000
G01 X144.065822 Y63.855743 Z-0.125000
G01 X115.846541 Y54.076720 Z-0.125000
G01 X94.931966 Y56.759922 Z-0.125000
G01 X67.642586 Y57.732695 Z-0.125000
G01 X39.383270 Y63.008947 Z-0.125000
G01 X17.162137 Y58.191185 Z-0.125000
G00 Z5.000000

(End cutting path id: polyline45366)


(Start cutting path id: polyline45368)
(Change tool to Default tool)

G00 Z5.000000
G00 X201.700577 Y62.624801

G00 Z4.875000 (Fast pre-penetrate)
G01 Z-0.125000 F100.0(Penetrate)
G01 X168.285505 Y57.889750 Z-0.125000 F800.000000
G01 X144.648967 Y64.886660 Z-0.125000
G01 X114.995046 Y54.965949 Z-0.125000
G01 X94.252063 Y58.729548 Z-0.125000
G01 X68.377255 Y59.485948 Z-0.125000
G01 X39.235465 Y64.940839 Z-0.125000
G01 X16.432900 Y59.747103 Z-0.125000
G00 Z5.000000

(End cutting path id: polyline45368)


(Start cutting path id: polyline45370)
(Change tool to Default tool)

G00 Z5.000000
G00 X202.036956 Y63.231732

G00 Z4.875000 (Fast pre-penetrate)
G01 Z-0.125000 F100.0(Penetrate)
G01 X169.142775 Y60.223359 Z-0.125000 F800.000000
G01 X145.232112 Y65.917576 Z-0.125000
G01 X114.143551 Y55.855178 Z-0.125000
G01 X93.572159 Y60.699223 Z-0.125000
G01 X69.111925 Y61.239152 Z-0.125000
G01 X39.087611 Y66.872681 Z-0.125000
G01 X15.703663 Y61.303021 Z-0.125000
G00 Z5.000000

(End cutting path id: polyline45370)


(Start cutting path id: polyline45372)
(Change tool to Default tool)

G00 Z5.000000
G00 X202.373335 Y63.838663

G00 Z4.875000 (Fast pre-penetrate)
G01 Z-0.125000 F100.0(Penetrate)
G01 X170.000045 Y62.556967 Z-0.125000 F800.000000
G01 X145.815257 Y66.948493 Z-0.125000
G01 X113.292057 Y56.744407 Z-0.125000
G01 X92.892304 Y62.668848 Z-0.125000
G01 X69.846644 Y62.992405 Z-0.125000
G01 X38.939806 Y68.804573 Z-0.125000
G01 X14.974426 Y62.858940 Z-0.125000
G00 Z5.000000

(End cutting path id: polyline45372)


(Start cutting path id: polyline45374)
(Change tool to Default tool)

G00 Z5.000000
G00 X202.709714 Y64.445594

G00 Z4.875000 (Fast pre-penetrate)
G01 Z-0.125000 F100.0(Penetrate)
G01 X170.857363 Y64.890575 Z-0.125000 F800.000000
G01 X146.398402 Y67.979409 Z-0.125000
G01 X112.440562 Y57.633636 Z-0.125000
G01 X92.212401 Y64.638523 Z-0.125000
G01 X70.581314 Y64.745658 Z-0.125000
G01 X38.791952 Y70.736464 Z-0.125000
G01 X14.245188 Y64.414858 Z-0.125000
G00 Z5.000000

(End cutting path id: polyline45374)


(Start cutting path id: polyline45376)
(Change tool to Default tool)

G00 Z5.000000
G00 X203.046093 Y65.052525

G00 Z4.875000 (Fast pre-penetrate)
G01 Z-0.125000 F100.0(Penetrate)
G01 X146.981498 Y69.010325 Z-0.125000 F800.000000
G01 X111.589068 Y58.522865 Z-0.125000
G01 X91.532546 Y66.608198 Z-0.125000
G01 X71.315984 Y66.498910 Z-0.125000
G01 X38.644147 Y72.668307 Z-0.125000
G01 X13.515951 Y65.970776 Z-0.125000
G00 Z5.000000

(End cutting path id: polyline45376)


(Start cutting path id: polyline45378)
(Change tool to Default tool)

G00 Z5.000000
G00 X203.382472 Y65.659456

G00 Z4.875000 (Fast pre-penetrate)
G01 Z-0.125000 F100.0(Penetrate)
G01 X172.571903 Y69.557743 Z-0.125000 F800.000000
G01 X147.564692 Y70.041193 Z-0.125000
G01 X110.737524 Y59.412143 Z-0.125000
G01 X90.852642 Y68.577824 Z-0.125000
G01 X72.050654 Y68.252163 Z-0.125000
G01 X38.496293 Y74.600198 Z-0.125000
G01 X12.786665 Y67.526695 Z-0.125000
G00 Z5.000000

(End cutting path id: polyline45378)


(Start cutting path id: polyline45208)
(Change tool to Default tool)

G00 Z5.000000
G00 X203.718851 Y66.266338

G00 Z4.875000 (Fast pre-penetrate)
G01 Z-0.125000 F100.0(Penetrate)
G01 X173.429222 Y71.891351 Z-0.125000 F800.000000
G01 X148.147788 Y71.072109 Z-0.125000
G01 X109.886029 Y60.301372 Z-0.125000
G01 X90.172739 Y70.547499 Z-0.125000
G01 X72.785372 Y70.005416 Z-0.125000
G01 X38.348438 Y76.532041 Z-0.125000
G01 X12.057427 Y69.082613 Z-0.125000
G00 Z5.000000

(End cutting path id: polyline45208)


(Start cutting path id: polyline45380)
(Change tool to Default tool)

G00 Z5.000000
G00 X203.759375 Y75.104057

G00 Z4.875000 (Fast pre-penetrate)
G01 Z-0.125000 F100.0(Penetrate)
G01 X174.977946 Y82.120739 Z-0.125000 F800.000000
G01 X145.671661 Y76.922990 Z-0.125000
G01 X109.670978 Y71.159128 Z-0.125000
G01 X91.463636 Y79.953241 Z-0.125000
G01 X73.854464 Y78.496430 Z-0.125000
G01 X37.888725 Y83.807480 Z-0.125000
G01 X11.893667 Y78.074941 Z-0.125000
G00 Z5.000000

(End cutting path id: polyline45380)


(Start cutting path id: polyline45382)
(Change tool to Default tool)

G00 Z5.000000
G00 X203.389569 Y85.392568

G00 Z4.875000 (Fast pre-penetrate)
G01 Z-0.125000 F100.0(Penetrate)
G01 X175.842263 Y91.990403 Z-0.125000 F800.000000
G01 X141.847619 Y82.947959 Z-0.125000
G01 X110.466580 Y83.619787 Z-0.125000
G01 X93.927038 Y89.248422 Z-0.125000
G01 X74.272429 Y86.918729 Z-0.125000
G01 X37.498853 Y90.486853 Z-0.125000
G01 X12.600440 Y87.370465 Z-0.125000
G00 Z5.000000

(End cutting path id: polyline45382)


(Start cutting path id: polyline45384)
(Change tool to Default tool)

G00 Z5.000000
G00 X203.093714 Y93.623356

G00 Z4.875000 (Fast pre-penetrate)
G01 Z-0.125000 F100.0(Penetrate)
G01 X176.533717 Y99.886183 Z-0.125000 F800.000000
G01 X138.788346 Y87.767924 Z-0.125000
G01 X95.897790 Y96.684538 Z-0.125000
G01 X74.606851 Y93.656539 Z-0.125000
G01 X37.186945 Y95.830400 Z-0.125000
G01 X13.165917 Y94.806825 Z-0.125000
G00 Z5.000000

(End cutting path id: polyline45384)


(Start cutting path id: polyline45350)
(Change tool to Default tool)

G00 Z5.000000
G00 X203.019713 Y95.681029

G00 Z4.875000 (Fast pre-penetrate)
G01 Z-0.125000 F100.0(Penetrate)
G01 X176.706581 Y101.860116 Z-0.125000 F800.000000
G01 X138.023528 Y88.972878 Z-0.125000
G01 X111.262134 Y96.080397 Z-0.125000
G01 X96.390490 Y98.543604 Z-0.125000
G01 X74.690444 Y95.340979 Z-0.125000
G01 X37.108980 Y97.166275 Z-0.125000
G01 X13.307262 Y96.665940 Z-0.125000
G00 Z5.000000

(End cutting path id: polyline45350)


(Start cutting path id: polyline45212)
(Change tool to Default tool)

G00 Z5.000000
G00 X203.037724 Y103.545584

G00 Z4.875000 (Fast pre-penetrate)
G01 Z-0.125000 F100.0(Penetrate)
G01 X177.130028 Y108.698894 Z-0.125000 F800.000000
G01 X136.671600 Y95.744018 Z-0.125000
G01 X112.571433 Y105.075710 Z-0.125000
G01 X97.568967 Y105.379885 Z-0.125000
G01 X74.019692 Y101.583740 Z-0.125000
G01 X37.774445 Y102.431760 Z-0.125000
G01 X13.095636 Y102.743227 Z-0.125000
G00 Z5.000000

(End cutting path id: polyline45212)


(Start cutting path id: polyline45344)
(Change tool to Default tool)

G00 Z5.000000
G00 X203.277589 Y105.236974

G00 Z4.875000 (Fast pre-penetrate)
G01 Z-0.125000 F100.0(Penetrate)
G01 X177.034933 Y109.615873 Z-0.125000 F800.000000
G01 X137.614127 Y98.900196 Z-0.125000
G01 X113.403449 Y106.594628 Z-0.125000
G01 X97.269343 Y106.639067 Z-0.125000
G01 X73.098112 Y102.773131 Z-0.125000
G01 X38.673854 Y103.689621 Z-0.125000
G01 X12.459976 Y103.243220 Z-0.125000
G00 Z5.000000

(End cutting path id: polyline45344)


(Start cutting path id: polyline45386)
(Change tool to Default tool)

G00 Z5.000000
G00 X203.167665 Y91.565635

G00 Z4.875000 (Fast pre-penetrate)
G01 Z-0.125000 F100.0(Penetrate)
G01 X176.360854 Y97.912250 Z-0.125000 F800.000000
G01 X139.553164 Y86.562920 Z-0.125000
G01 X110.943913 Y91.096133 Z-0.125000
G01 X95.405090 Y94.825521 Z-0.125000
G01 X74.523258 Y91.972099 Z-0.125000
G01 X37.264909 Y94.494526 Z-0.125000
G01 X13.024523 Y92.947760 Z-0.125000
G00 Z5.000000

(End cutting path id: polyline45386)


(Start cutting path id: polyline45388)
(Change tool to Default tool)

G00 Z5.000000
G00 X203.241617 Y89.507962

G00 Z4.875000 (Fast pre-penetrate)
G01 Z-0.125000 F100.0(Penetrate)
G01 X176.187990 Y95.938269 Z-0.125000 F800.000000
G01 X140.317982 Y85.357917 Z-0.125000
G01 X110.784802 Y88.604001 Z-0.125000
G01 X94.912438 Y92.966504 Z-0.125000
G01 X74.439664 Y90.287610 Z-0.125000
G01 X37.342874 Y93.158651 Z-0.125000
G01 X12.883179 Y91.088645 Z-0.125000
G00 Z5.000000

(End cutting path id: polyline45388)


(Start cutting path id: polyline45390)
(Change tool to Default tool)

G00 Z5.000000
G00 X203.315568 Y87.450240

G00 Z4.875000 (Fast pre-penetrate)
G01 Z-0.125000 F100.0(Penetrate)
G01 X176.015127 Y93.964336 Z-0.125000 F800.000000
G01 X141.082801 Y84.152913 Z-0.125000
G01 X110.625691 Y86.111919 Z-0.125000
G01 X94.419738 Y91.107439 Z-0.125000
G01 X74.356022 Y88.603169 Z-0.125000
G01 X37.420888 Y91.822777 Z-0.125000
G01 X12.741834 Y89.229530 Z-0.125000
G00 Z5.000000

(End cutting path id: polyline45390)


(Start cutting path id: polyline45392)
(Change tool to Default tool)

G00 Z5.000000
G00 X203.463520 Y83.334846

G00 Z4.875000 (Fast pre-penetrate)
G01 Z-0.125000 F100.0(Penetrate)
G01 X175.669400 Y90.016470 Z-0.125000 F800.000000
G01 X142.612437 Y81.742955 Z-0.125000
G01 X110.307470 Y81.127655 Z-0.125000
G01 X93.434387 Y87.389405 Z-0.125000
G01 X74.188836 Y85.234240 Z-0.125000
G01 X37.576817 Y89.150978 Z-0.125000
G01 X12.459095 Y85.511350 Z-0.125000
G00 Z5.000000

(End cutting path id: polyline45392)


(Start cutting path id: polyline45394)
(Change tool to Default tool)

G00 Z5.000000
G00 X203.537472 Y81.277173

G00 Z4.875000 (Fast pre-penetrate)
G01 Z-0.125000 F100.0(Penetrate)
G01 X175.496536 Y88.042538 Z-0.125000 F800.000000
G01 X143.377255 Y80.537952 Z-0.125000
G01 X110.148359 Y78.635523 Z-0.125000
G01 X92.941687 Y85.530340 Z-0.125000
G01 X74.105243 Y83.549800 Z-0.125000
G01 X37.654782 Y87.815104 Z-0.125000
G01 X12.317751 Y83.652236 Z-0.125000
G00 Z5.000000

(End cutting path id: polyline45394)


(Start cutting path id: polyline45396)
(Change tool to Default tool)

G00 Z5.000000
G00 X203.611423 Y79.219452

G00 Z4.875000 (Fast pre-penetrate)
G01 Z-0.125000 F100.0(Penetrate)
G01 X175.323673 Y86.068605 Z-0.125000 F800.000000
G01 X144.142073 Y79.332997 Z-0.125000
G01 X109.989248 Y76.143392 Z-0.125000
G01 X92.448987 Y83.671323 Z-0.125000
G01 X74.021650 Y81.865359 Z-0.125000
G01 X37.732747 Y86.479229 Z-0.125000
G01 X12.176406 Y81.793170 Z-0.125000
G00 Z5.000000

(End cutting path id: polyline45396)


(Start cutting path id: polyline45398)
(Change tool to Default tool)

G00 Z5.000000
G00 X203.685424 Y77.161779

G00 Z4.875000 (Fast pre-penetrate)
G01 Z-0.125000 F100.0(Penetrate)
G01 X175.150809 Y84.094672 Z-0.125000 F800.000000
G01 X144.906892 Y78.127994 Z-0.125000
G01 X109.830137 Y73.651260 Z-0.125000
G01 X91.956336 Y81.812306 Z-0.125000
G01 X73.938057 Y80.180919 Z-0.125000
G01 X37.810761 Y85.143354 Z-0.125000
G01 X12.035012 Y79.934055 Z-0.125000
G00 Z5.000000

(End cutting path id: polyline45398)


(Start cutting path id: polyline45400)
(Change tool to Default tool)

G00 Z5.000000
G00 X203.833327 Y73.046385

G00 Z4.875000 (Fast pre-penetrate)
G01 Z-0.125000 F100.0(Penetrate)
G01 X174.805082 Y80.146758 Z-0.125000 F800.000000
G01 X146.436528 Y75.718036 Z-0.125000
G01 X109.511867 Y68.666996 Z-0.125000
G01 X90.970935 Y78.094224 Z-0.125000
G01 X73.770822 Y76.811990 Z-0.125000
G01 X37.966690 Y82.471556 Z-0.125000
G01 X11.752274 Y76.215875 Z-0.125000
G00 Z5.000000

(End cutting path id: polyline45400)


(Start cutting path id: polyline45402)
(Change tool to Default tool)

G00 Z5.000000
G00 X203.907278 Y70.988663

G00 Z4.875000 (Fast pre-penetrate)
G01 Z-0.125000 F100.0(Penetrate)
G01 X174.632219 Y78.172825 Z-0.125000 F800.000000
G01 X147.201346 Y74.513032 Z-0.125000
G01 X109.352756 Y66.174865 Z-0.125000
G01 X90.478235 Y76.235207 Z-0.125000
G01 X73.687229 Y75.127549 Z-0.125000
G01 X38.044655 Y81.135682 Z-0.125000
G01 X11.610929 Y74.356760 Z-0.125000
G00 Z5.000000

(End cutting path id: polyline45402)


(Start cutting path id: polyline45404)
(Change tool to Default tool)

G00 Z5.000000
G00 X203.981230 Y68.930990

G00 Z4.875000 (Fast pre-penetrate)
G01 Z-0.125000 F100.0(Penetrate)
G01 X174.459355 Y76.198892 Z-0.125000 F800.000000
G01 X147.966164 Y73.308029 Z-0.125000
G01 X109.193645 Y63.682733 Z-0.125000
G01 X89.985584 Y74.376141 Z-0.125000
G01 X73.603635 Y73.443109 Z-0.125000
G01 X38.122669 Y79.799807 Z-0.125000
G01 X11.469535 Y72.497646 Z-0.125000
G00 Z5.000000

(End cutting path id: polyline45404)


(Start cutting path id: polyline45206)
(Change tool to Default tool)

G00 Z5.000000
G00 X204.055230 Y66.873269

G00 Z4.875000 (Fast pre-penetrate)
G01 Z-0.125000 F100.0(Penetrate)
G01 X174.286492 Y74.224959 Z-0.125000 F800.000000
G01 X148.730983 Y72.103026 Z-0.125000
G01 X109.034535 Y61.190601 Z-0.125000
G01 X89.492884 Y72.517125 Z-0.125000
G01 X73.520042 Y71.758620 Z-0.125000
G01 X38.200633 Y78.463932 Z-0.125000
G01 X11.328190 Y70.638531 Z-0.125000
G00 Z5.000000

(End cutting path id: polyline45206)


(Start cutting path id: polyline45406)
(Change tool to Default tool)

G00 Z5.000000
G00 X203.517454 Y106.928364

G00 Z4.875000 (Fast pre-penetrate)
G01 Z-0.125000 F100.0(Penetrate)
G01 X176.939839 Y110.532852 Z-0.125000 F800.000000
G01 X138.556654 Y102.056423 Z-0.125000
G01 X114.235416 Y108.113546 Z-0.125000
G01 X96.969769 Y107.898250 Z-0.125000
G01 X72.176582 Y103.962473 Z-0.125000
G01 X39.573214 Y104.947433 Z-0.125000
G01 X11.824267 Y103.743163 Z-0.125000
G00 Z5.000000

(End cutting path id: polyline45406)


(Start cutting path id: polyline45408)
(Change tool to Default tool)

G00 Z5.000000
G00 X203.757271 Y108.619803

G00 Z4.875000 (Fast pre-penetrate)
G01 Z-0.125000 F100.0(Penetrate)
G01 X176.844695 Y111.449831 Z-0.125000 F800.000000
G01 X139.499181 Y105.212601 Z-0.125000
G01 X115.067383 Y109.632464 Z-0.125000
G01 X96.670145 Y109.157432 Z-0.125000
G01 X71.255002 Y105.151864 Z-0.125000
G01 X40.472623 Y106.205245 Z-0.125000
G01 X11.188607 Y104.243156 Z-0.125000
G00 Z5.000000

(End cutting path id: polyline45408)


(Start cutting path id: polyline45410)
(Change tool to Default tool)

G00 Z5.000000
G00 X203.997136 Y110.311193

G00 Z4.875000 (Fast pre-penetrate)
G01 Z-0.125000 F100.0(Penetrate)
G01 X176.749601 Y112.366761 Z-0.125000 F800.000000
G01 X140.441708 Y108.368779 Z-0.125000
G01 X115.899349 Y111.151382 Z-0.125000
G01 X96.370570 Y110.416614 Z-0.125000
G01 X70.333471 Y106.341255 Z-0.125000
G01 X41.372032 Y107.463106 Z-0.125000
G01 X10.552898 Y104.743148 Z-0.125000
G00 Z5.000000

(End cutting path id: polyline45410)


(Start cutting path id: polyline45412)
(Change tool to Default tool)

G00 Z5.000000
G00 X204.237001 Y112.002632

G00 Z4.875000 (Fast pre-penetrate)
G01 Z-0.125000 F100.0(Penetrate)
G01 X176.654457 Y113.283741 Z-0.125000 F800.000000
G01 X141.384235 Y111.524957 Z-0.125000
G01 X116.731316 Y112.670251 Z-0.125000
G01 X96.070947 Y111.675797 Z-0.125000
G01 X69.411891 Y107.530646 Z-0.125000
G01 X42.271441 Y108.720917 Z-0.125000
G01 X9.917238 Y105.243141 Z-0.125000
G00 Z5.000000

(End cutting path id: polyline45412)


(Start cutting path id: polyline45414)
(Change tool to Default tool)

G00 Z5.000000
G00 X204.476866 Y113.694022

G00 Z4.875000 (Fast pre-penetrate)
G01 Z-0.125000 F100.0(Penetrate)
G01 X142.326762 Y114.681135 Z-0.125000 F800.000000
G01 X117.563283 Y114.189169 Z-0.125000
G01 X95.771372 Y112.934979 Z-0.125000
G01 X68.490361 Y108.720037 Z-0.125000
G01 X43.170850 Y109.978729 Z-0.125000
G01 X9.281529 Y105.743084 Z-0.125000
G00 Z5.000000

(End cutting path id: polyline45414)


(Start cutting path id: polyline45416)
(Change tool to Default tool)

G00 Z5.000000
G00 X204.716732 Y115.385461

G00 Z4.875000 (Fast pre-penetrate)
G01 Z-0.125000 F100.0(Penetrate)
G01 X176.464268 Y115.117699 Z-0.125000 F800.000000
G01 X143.269289 Y117.837314 Z-0.125000
G01 X118.395250 Y115.708087 Z-0.125000
G01 X95.471798 Y114.194161 Z-0.125000
G01 X67.568781 Y109.909427 Z-0.125000
G01 X44.070259 Y111.236590 Z-0.125000
G01 X8.645869 Y106.243077 Z-0.125000
G00 Z5.000000

(End cutting path id: polyline45416)


(Start cutting path id: polyline45418)
(Change tool to Default tool)

G00 Z5.000000
G00 X204.956597 Y117.076851

G00 Z4.875000 (Fast pre-penetrate)
G01 Z-0.125000 F100.0(Penetrate)
G01 X176.369125 Y116.034678 Z-0.125000 F800.000000
G01 X144.211816 Y120.993492 Z-0.125000
G01 X119.227216 Y117.227006 Z-0.125000
G01 X95.172174 Y115.453295 Z-0.125000
G01 X66.647250 Y111.098769 Z-0.125000
G01 X44.969619 Y112.494451 Z-0.125000
G01 X8.010161 Y106.743069 Z-0.125000
G00 Z5.000000

(End cutting path id: polyline45418)


(Start cutting path id: polyline45218)
(Change tool to Default tool)

G00 Z5.000000
G00 X199.585838 Y154.928084

G00 Z4.875000 (Fast pre-penetrate)
G01 Z-0.125000 F100.0(Penetrate)
G01 X171.423281 Y147.931615 Z-0.125000 F800.000000
G01 X146.981743 Y159.056154 Z-0.125000
G01 X120.307760 Y138.388052 Z-0.125000
G01 X96.372969 Y152.852450 Z-0.125000
G01 X69.890986 Y157.516778 Z-0.125000
G01 X53.851387 Y156.835749 Z-0.125000
G01 X23.001566 Y161.830927 Z-0.125000
G00 Z5.000000

(End cutting path id: polyline45218)


(Start cutting path id: polyline45276)
(Change tool to Default tool)

G00 Z5.000000
G00 X199.641289 Y157.004110

G00 Z4.875000 (Fast pre-penetrate)
G01 Z-0.125000 F100.0(Penetrate)
G01 X171.564626 Y151.940316 Z-0.125000 F800.000000
G01 X147.243632 Y160.179425 Z-0.125000
G01 X120.237969 Y142.798959 Z-0.125000
G01 X96.966196 Y155.958658 Z-0.125000
G01 X69.143101 Y159.793859 Z-0.125000
G01 X53.303823 Y159.642970 Z-0.125000
G01 X22.857970 Y163.155349 Z-0.125000
G00 Z5.000000

(End cutting path id: polyline45276)


(Start cutting path id: polyline45274)
(Change tool to Default tool)

G00 Z5.000000
G00 X199.669039 Y158.042123

G00 Z4.875000 (Fast pre-penetrate)
G01 Z-0.125000 F100.0(Penetrate)
G01 X171.635249 Y153.944641 Z-0.125000 F800.000000
G01 X147.374552 Y160.741035 Z-0.125000
G01 X120.203073 Y145.004388 Z-0.125000
G01 X97.262834 Y157.511737 Z-0.125000
G01 X68.769184 Y160.932399 Z-0.125000
G01 X53.030090 Y161.046581 Z-0.125000
G01 X22.786123 Y163.817584 Z-0.125000
G00 Z5.000000

(End cutting path id: polyline45274)


(Start cutting path id: polyline45272)
(Change tool to Default tool)

G00 Z5.000000
G00 X199.696740 Y159.080087

G00 Z4.875000 (Fast pre-penetrate)
G01 Z-0.125000 F100.0(Penetrate)
G01 X171.705921 Y155.949016 Z-0.125000 F800.000000
G01 X147.505472 Y161.302646 Z-0.125000
G01 X120.168177 Y147.209817 Z-0.125000
G01 X97.559472 Y159.064817 Z-0.125000
G01 X68.395266 Y162.070939 Z-0.125000
G01 X52.756307 Y162.450191 Z-0.125000
G01 X22.714325 Y164.479820 Z-0.125000
G00 Z5.000000

(End cutting path id: polyline45272)


(Start cutting path id: polyline45270)
(Change tool to Default tool)

G00 Z5.000000
G00 X199.724491 Y160.118100

G00 Z4.875000 (Fast pre-penetrate)
G01 Z-0.125000 F100.0(Penetrate)
G01 X171.776545 Y157.953342 Z-0.125000 F800.000000
G01 X147.636441 Y161.864305 Z-0.125000
G01 X120.133281 Y149.415246 Z-0.125000
G01 X97.856110 Y160.617897 Z-0.125000
G01 X68.021300 Y163.209528 Z-0.125000
G01 X22.642527 Y165.142007 Z-0.125000
G00 Z5.000000

(End cutting path id: polyline45270)


(Start cutting path id: polyline45268)
(Change tool to Default tool)

G00 Z5.000000
G00 X199.752192 Y161.156113

G00 Z4.875000 (Fast pre-penetrate)
G01 Z-0.125000 F100.0(Penetrate)
G01 X171.847217 Y159.957668 Z-0.125000 F800.000000
G01 X147.767361 Y162.425916 Z-0.125000
G01 X120.098386 Y151.620675 Z-0.125000
G01 X98.152748 Y162.170976 Z-0.125000
G01 X67.647382 Y164.348068 Z-0.125000
G01 X52.208743 Y165.257363 Z-0.125000
G01 X22.570680 Y165.804242 Z-0.125000
G00 Z5.000000

(End cutting path id: polyline45268)


(Start cutting path id: polyline45266)
(Change tool to Default tool)

G00 Z5.000000
G00 X199.779942 Y162.194126

G00 Z4.875000 (Fast pre-penetrate)
G01 Z-0.125000 F100.0(Penetrate)
G01 X171.917890 Y161.961994 Z-0.125000 F800.000000
G01 X147.898282 Y162.987526 Z-0.125000
G01 X120.063539 Y153.826153 Z-0.125000
G01 X98.449337 Y163.724056 Z-0.125000
G01 X67.273464 Y165.486608 Z-0.125000
G01 X51.934961 Y166.660974 Z-0.125000
G01 X22.498882 Y166.466478 Z-0.125000
G00 Z5.000000

(End cutting path id: polyline45266)


(Start cutting path id: polyline45264)
(Change tool to Default tool)

G00 Z5.000000
G00 X199.807692 Y163.232139

G00 Z4.875000 (Fast pre-penetrate)
G01 Z-0.125000 F100.0(Penetrate)
G01 X171.988562 Y163.966368 Z-0.125000 F800.000000
G01 X148.029202 Y163.549186 Z-0.125000
G01 X120.028643 Y156.031582 Z-0.125000
G01 X98.745975 Y165.277185 Z-0.125000
G01 X66.899498 Y166.625148 Z-0.125000
G01 X51.661179 Y168.064584 Z-0.125000
G01 X22.427035 Y167.128713 Z-0.125000
G00 Z5.000000

(End cutting path id: polyline45264)


(Start cutting path id: polyline45278)
(Change tool to Default tool)

G00 Z5.000000
G00 X199.835393 Y164.270152

G00 Z4.875000 (Fast pre-penetrate)
G01 Z-0.125000 F100.0(Penetrate)
G01 X172.059186 Y165.970694 Z-0.125000 F800.000000
G01 X148.160122 Y164.110797 Z-0.125000
G01 X119.993748 Y158.237010 Z-0.125000
G01 X99.042613 Y166.830264 Z-0.125000
G01 X66.525580 Y167.763688 Z-0.125000
G01 X51.387397 Y169.468195 Z-0.125000
G01 X22.355237 Y167.790900 Z-0.125000
G00 Z5.000000

(End cutting path id: polyline45278)


(Start cutting path id: polyline45262)
(Change tool to Default tool)

G00 Z5.000000
G00 X199.863144 Y165.308165

G00 Z4.875000 (Fast pre-penetrate)
G01 Z-0.125000 F100.0(Penetrate)
G01 X172.129858 Y167.975020 Z-0.125000 F800.000000
G01 X148.291091 Y164.672456 Z-0.125000
G01 X119.958852 Y160.442488 Z-0.125000
G01 X99.339251 Y168.383344 Z-0.125000
G01 X66.151662 Y168.902277 Z-0.125000
G01 X51.113615 Y170.871805 Z-0.125000
G01 X22.283439 Y168.453135 Z-0.125000
G00 Z5.000000

(End cutting path id: polyline45262)


(Start cutting path id: polyline45280)
(Change tool to Default tool)

G00 Z5.000000
G00 X199.890894 Y166.346178

G00 Z4.875000 (Fast pre-penetrate)
G01 Z-0.125000 F100.0(Penetrate)
G01 X172.200530 Y169.979346 Z-0.125000 F800.000000
G01 X148.422011 Y165.234067 Z-0.125000
G01 X119.923956 Y162.647917 Z-0.125000
G01 X99.635889 Y169.936424 Z-0.125000
G01 X65.777696 Y170.040817 Z-0.125000
G01 X50.839833 Y172.275367 Z-0.125000
G01 X22.211592 Y169.115322 Z-0.125000
G00 Z5.000000

(End cutting path id: polyline45280)


(Start cutting path id: polyline45260)
(Change tool to Default tool)

G00 Z5.000000
G00 X199.918595 Y167.384142

G00 Z4.875000 (Fast pre-penetrate)
G01 Z-0.125000 F100.0(Penetrate)
G01 X172.271154 Y171.983721 Z-0.125000 F800.000000
G01 X148.552931 Y165.795677 Z-0.125000
G01 X119.889060 Y164.853346 Z-0.125000
G01 X99.932528 Y171.489503 Z-0.125000
G01 X65.403778 Y171.179357 Z-0.125000
G01 X50.566051 Y173.678977 Z-0.125000
G01 X22.139794 Y169.777558 Z-0.125000
G00 Z5.000000

(End cutting path id: polyline45260)


(Start cutting path id: polyline45282)
(Change tool to Default tool)

G00 Z5.000000
G00 X199.946345 Y168.422155

G00 Z4.875000 (Fast pre-penetrate)
G01 Z-0.125000 F100.0(Penetrate)
G01 X172.341826 Y173.988046 Z-0.125000 F800.000000
G01 X148.683900 Y166.357337 Z-0.125000
G01 X119.854214 Y167.058824 Z-0.125000
G01 X100.229117 Y173.042583 Z-0.125000
G01 X65.029860 Y172.317897 Z-0.125000
G01 X50.292269 Y175.082588 Z-0.125000
G01 X22.067947 Y170.439793 Z-0.125000
G00 Z5.000000

(End cutting path id: polyline45282)


(Start cutting path id: polyline45284)
(Change tool to Default tool)

G00 Z5.000000
G00 X199.974046 Y169.460168

G00 Z4.875000 (Fast pre-penetrate)
G01 Z-0.125000 F100.0(Penetrate)
G01 X172.412450 Y175.992372 Z-0.125000 F800.000000
G01 X148.814820 Y166.918947 Z-0.125000
G01 X119.819318 Y169.264253 Z-0.125000
G01 X100.525755 Y174.595663 Z-0.125000
G01 X64.655943 Y173.456437 Z-0.125000
G01 X50.018535 Y176.486198 Z-0.125000
G01 X21.996149 Y171.101980 Z-0.125000
G00 Z5.000000

(End cutting path id: polyline45284)


(Start cutting path id: polyline45258)
(Change tool to Default tool)

G00 Z5.000000
G00 X200.001797 Y170.498181

G00 Z4.875000 (Fast pre-penetrate)
G01 Z-0.125000 F100.0(Penetrate)
G01 X172.483122 Y177.996747 Z-0.125000 F800.000000
G01 X148.945740 Y167.480558 Z-0.125000
G01 X119.784422 Y171.469682 Z-0.125000
G01 X100.822393 Y176.148791 Z-0.125000
G01 X64.281976 Y174.595026 Z-0.125000
G01 X49.744753 Y177.889760 Z-0.125000
G01 X21.924351 Y171.764215 Z-0.125000
G00 Z5.000000

(End cutting path id: polyline45258)


(Start cutting path id: polyline45224)
(Change tool to Default tool)

G00 Z5.000000
G00 X200.029547 Y171.536194

G00 Z4.875000 (Fast pre-penetrate)
G01 Z-0.125000 F100.0(Penetrate)
G01 X172.553794 Y180.001073 Z-0.125000 F800.000000
G01 X149.076661 Y168.042218 Z-0.125000
G01 X119.749526 Y173.675160 Z-0.125000
G01 X101.119031 Y177.701871 Z-0.125000
G01 X63.908059 Y175.733566 Z-0.125000
G01 X49.470971 Y179.293370 Z-0.125000
G01 X21.852504 Y172.426402 Z-0.125000
G00 Z5.000000

(End cutting path id: polyline45224)


(Start cutting path id: polyline45222)
(Change tool to Default tool)

G00 Z5.000000
G00 X200.057297 Y172.574207

G00 Z4.875000 (Fast pre-penetrate)
G01 Z-0.125000 F100.0(Penetrate)
G01 X172.624418 Y182.005399 Z-0.125000 F800.000000
G01 X149.207581 Y168.603828 Z-0.125000
G01 X119.714631 Y175.880589 Z-0.125000
G01 X101.415620 Y179.254951 Z-0.125000
G01 X63.534141 Y176.872107 Z-0.125000
G01 X49.197189 Y180.696981 Z-0.125000
G01 X21.780706 Y173.088638 Z-0.125000
G00 Z5.000000

(End cutting path id: polyline45222)


(Start cutting path id: polyline45286)
(Change tool to Default tool)

G00 Z5.000000
G00 X200.346643 Y174.727219

G00 Z4.875000 (Fast pre-penetrate)
G01 Z-0.125000 F100.0(Penetrate)
G01 X172.277761 Y184.456223 Z-0.125000 F800.000000
G01 X149.345989 Y170.755078 Z-0.125000
G01 X120.074208 Y177.180638 Z-0.125000
G01 X101.065439 Y180.225277 Z-0.125000
G01 X64.143176 Y178.731466 Z-0.125000
G01 X49.110806 Y182.193875 Z-0.125000
G01 X21.112156 Y174.774938 Z-0.125000
G00 Z5.000000

(End cutting path id: polyline45286)


(Start cutting path id: polyline45220)
(Change tool to Default tool)

G00 Z5.000000
G00 X199.613539 Y155.966097

G00 Z4.875000 (Fast pre-penetrate)
G01 Z-0.125000 F100.0(Penetrate)
G01 X171.493953 Y149.935990 Z-0.125000 F800.000000
G01 X147.112663 Y159.617765 Z-0.125000
G01 X120.272864 Y140.593481 Z-0.125000
G01 X96.669607 Y154.405578 Z-0.125000
G01 X69.517068 Y158.655319 Z-0.125000
G01 X53.577605 Y158.239360 Z-0.125000
G01 X22.929768 Y162.493162 Z-0.125000
G00 Z5.000000

(End cutting path id: polyline45220)


(Start cutting path id: polyline45322)
(Change tool to Default tool)

G00 Z5.000000
G00 X200.014619 Y153.497506

G00 Z4.875000 (Fast pre-penetrate)
G01 Z-0.125000 F100.0(Penetrate)
G01 X171.669460 Y146.486844 Z-0.125000 F800.000000
G01 X147.262328 Y158.302446 Z-0.125000
G01 X120.635672 Y137.858058 Z-0.125000
G01 X96.161343 Y151.245093 Z-0.125000
G01 X69.266533 Y155.346001 Z-0.125000
G01 X53.752181 Y154.819384 Z-0.125000
G01 X21.820593 Y158.825784 Z-0.125000
G00 Z5.000000

(End cutting path id: polyline45322)


(Start cutting path id: polyline45324)
(Change tool to Default tool)

G00 Z5.000000
G00 X200.443450 Y152.066929

G00 Z4.875000 (Fast pre-penetrate)
G01 Z-0.125000 F100.0(Penetrate)
G01 X171.915638 Y145.042073 Z-0.125000 F800.000000
G01 X147.542962 Y157.548738 Z-0.125000
G01 X120.963633 Y137.328064 Z-0.125000
G01 X95.949717 Y149.637688 Z-0.125000
G01 X68.642032 Y153.175272 Z-0.125000
G01 X53.652976 Y152.802969 Z-0.125000
G01 X20.639620 Y155.820592 Z-0.125000
G00 Z5.000000

(End cutting path id: polyline45324)


(Start cutting path id: polyline45326)
(Change tool to Default tool)

G00 Z5.000000
G00 X200.872232 Y150.636351

G00 Z4.875000 (Fast pre-penetrate)
G01 Z-0.125000 F100.0(Penetrate)
G01 X172.161817 Y143.597303 Z-0.125000 F800.000000
G01 X147.823547 Y156.794980 Z-0.125000
G01 X121.291594 Y136.798070 Z-0.125000
G01 X95.738092 Y148.030282 Z-0.125000
G01 X68.017531 Y151.004494 Z-0.125000
G01 X53.553770 Y150.786603 Z-0.125000
G01 X19.458599 Y152.815400 Z-0.125000
G00 Z5.000000

(End cutting path id: polyline45326)


(Start cutting path id: polyline45328)
(Change tool to Default tool)

G00 Z5.000000
G00 X201.301062 Y149.205774

G00 Z4.875000 (Fast pre-penetrate)
G01 Z-0.125000 F100.0(Penetrate)
G01 X172.407996 Y142.152532 Z-0.125000 F800.000000
G01 X148.104181 Y156.041272 Z-0.125000
G01 X121.619555 Y136.268076 Z-0.125000
G01 X95.526466 Y146.422877 Z-0.125000
G01 X67.393079 Y148.833716 Z-0.125000
G01 X53.454564 Y148.770189 Z-0.125000
G01 X18.277626 Y149.810209 Z-0.125000
G00 Z5.000000

(End cutting path id: polyline45328)


(Start cutting path id: polyline45330)
(Change tool to Default tool)

G00 Z5.000000
G00 X201.729893 Y147.775147

G00 Z4.875000 (Fast pre-penetrate)
G01 Z-0.125000 F100.0(Penetrate)
G01 X172.654126 Y140.707761 Z-0.125000 F800.000000
G01 X148.384766 Y155.287564 Z-0.125000
G01 X121.947516 Y135.738082 Z-0.125000
G01 X95.314840 Y144.815520 Z-0.125000
G01 X66.768578 Y146.662938 Z-0.125000
G01 X17.096653 Y146.805017 Z-0.125000
G00 Z5.000000

(End cutting path id: polyline45330)


(Start cutting path id: polyline45332)
(Change tool to Default tool)

G00 Z5.000000
G00 X202.158675 Y146.344570

G00 Z4.875000 (Fast pre-penetrate)
G01 Z-0.125000 F100.0(Penetrate)
G01 X172.900304 Y139.262990 Z-0.125000 F800.000000
G01 X148.665400 Y154.533855 Z-0.125000
G01 X122.275428 Y135.208137 Z-0.125000
G01 X95.103264 Y143.208115 Z-0.125000
G01 X66.144076 Y144.492209 Z-0.125000
G01 X53.256153 Y144.737409 Z-0.125000
G01 X15.915631 Y143.799874 Z-0.125000
G00 Z5.000000

(End cutting path id: polyline45332)


(Start cutting path id: polyline45334)
(Change tool to Default tool)

G00 Z5.000000
G00 X202.587457 Y144.913992

G00 Z4.875000 (Fast pre-penetrate)
G01 Z-0.125000 F100.0(Penetrate)
G01 X173.146483 Y137.818219 Z-0.125000 F800.000000
G01 X148.945985 Y153.780098 Z-0.125000
G01 X122.603438 Y134.678143 Z-0.125000
G01 X94.891638 Y141.600710 Z-0.125000
G01 X53.156948 Y142.720994 Z-0.125000
G01 X14.734658 Y140.794682 Z-0.125000
G00 Z5.000000

(End cutting path id: polyline45334)


(Start cutting path id: polyline45336)
(Change tool to Default tool)

G00 Z5.000000
G00 X203.016287 Y143.483414

G00 Z4.875000 (Fast pre-penetrate)
G01 Z-0.125000 F100.0(Penetrate)
G01 X173.392662 Y136.373449 Z-0.125000 F800.000000
G01 X149.226619 Y153.026390 Z-0.125000
G01 X122.931399 Y134.148149 Z-0.125000
G01 X94.680012 Y139.993304 Z-0.125000
G01 X64.895123 Y140.150702 Z-0.125000
G01 X53.057742 Y140.704629 Z-0.125000
G01 X13.553636 Y137.789490 Z-0.125000
G00 Z5.000000

(End cutting path id: polyline45336)


(Start cutting path id: polyline45338)
(Change tool to Default tool)

G00 Z5.000000
G00 X203.445118 Y142.052837

G00 Z4.875000 (Fast pre-penetrate)
G01 Z-0.125000 F100.0(Penetrate)
G01 X173.638841 Y134.928678 Z-0.125000 F800.000000
G01 X149.507204 Y152.272681 Z-0.125000
G01 X123.259311 Y133.618155 Z-0.125000
G01 X94.468387 Y138.385948 Z-0.125000
G01 X64.270622 Y137.979924 Z-0.125000
G01 X52.958487 Y138.688263 Z-0.125000
G01 X12.372664 Y134.784348 Z-0.125000
G00 Z5.000000

(End cutting path id: polyline45338)


(Start cutting path id: polyline45340)
(Change tool to Default tool)

G00 Z5.000000
G00 X203.873900 Y140.622259

G00 Z4.875000 (Fast pre-penetrate)
G01 Z-0.125000 F100.0(Penetrate)
G01 X173.885020 Y133.483907 Z-0.125000 F800.000000
G01 X149.787789 Y151.518973 Z-0.125000
G01 X123.587272 Y133.088161 Z-0.125000
G01 X94.256761 Y136.778542 Z-0.125000
G01 X63.646169 Y135.809146 Z-0.125000
G01 X52.859282 Y136.671849 Z-0.125000
G01 X11.191642 Y131.779156 Z-0.125000
G00 Z5.000000

(End cutting path id: polyline45340)


(Start cutting path id: polyline45342)
(Change tool to Default tool)

G00 Z5.000000
G00 X204.302681 Y139.191682

G00 Z4.875000 (Fast pre-penetrate)
G01 Z-0.125000 F100.0(Penetrate)
G01 X174.131198 Y132.039136 Z-0.125000 F800.000000
G01 X150.068423 Y150.765265 Z-0.125000
G01 X123.915233 Y132.558216 Z-0.125000
G01 X94.045136 Y135.171137 Z-0.125000
G01 X63.021668 Y133.638417 Z-0.125000
G01 X52.760076 Y134.655434 Z-0.125000
G01 X10.010669 Y128.773964 Z-0.125000
G00 Z5.000000

(End cutting path id: polyline45342)


(Start cutting path id: polyline45428)
(Change tool to Default tool)

G00 Z5.000000
G00 X204.731512 Y137.761055

G00 Z4.875000 (Fast pre-penetrate)
G01 Z-0.125000 F100.0(Penetrate)
G01 X174.377328 Y130.594366 Z-0.125000 F800.000000
G01 X150.349008 Y150.011556 Z-0.125000
G01 X124.243194 Y132.028173 Z-0.125000
G01 X93.833510 Y133.563732 Z-0.125000
G01 X62.397216 Y131.467639 Z-0.125000
G01 X52.660870 Y132.639069 Z-0.125000
G01 X8.829696 Y125.768821 Z-0.125000
G00 Z5.000000

(End cutting path id: polyline45428)


(Start cutting path id: polyline45420)
(Change tool to Default tool)

G00 Z5.000000
G00 X205.196462 Y118.768290

G00 Z4.875000 (Fast pre-penetrate)
G01 Z-0.125000 F100.0(Penetrate)
G01 X176.273981 Y116.951657 Z-0.125000 F800.000000
G01 X145.154343 Y124.149670 Z-0.125000
G01 X120.059183 Y118.745875 Z-0.125000
G01 X94.872600 Y116.712526 Z-0.125000
G01 X65.725670 Y112.288160 Z-0.125000
G01 X45.869028 Y113.752263 Z-0.125000
G01 X7.374501 Y107.243062 Z-0.125000
G00 Z5.000000

(End cutting path id: polyline45420)


(Start cutting path id: polyline45422)
(Change tool to Default tool)

G00 Z5.000000
G00 X205.436327 Y120.459680

G00 Z4.875000 (Fast pre-penetrate)
G01 Z-0.125000 F100.0(Penetrate)
G01 X176.178887 Y117.868636 Z-0.125000 F800.000000
G01 X146.096870 Y127.305848 Z-0.125000
G01 X120.891150 Y120.264793 Z-0.125000
G01 X94.572976 Y117.971709 Z-0.125000
G01 X64.804140 Y113.477551 Z-0.125000
G01 X46.768437 Y115.010075 Z-0.125000
G01 X6.738792 Y107.743054 Z-0.125000
G00 Z5.000000

(End cutting path id: polyline45422)


(Start cutting path id: polyline45424)
(Change tool to Default tool)

G00 Z5.000000
G00 X205.676193 Y122.151119

G00 Z4.875000 (Fast pre-penetrate)
G01 Z-0.125000 F100.0(Penetrate)
G01 X176.083792 Y118.785616 Z-0.125000 F800.000000
G01 X147.039397 Y130.462026 Z-0.125000
G01 X121.723117 Y121.783711 Z-0.125000
G01 X94.273401 Y119.230842 Z-0.125000
G01 X63.882560 Y114.666942 Z-0.125000
G01 X47.667846 Y116.267936 Z-0.125000
G01 X6.103132 Y108.242998 Z-0.125000
G00 Z5.000000

(End cutting path id: polyline45424)


(Start cutting path id: polyline45426)
(Change tool to Default tool)

G00 Z5.000000
G00 X205.916058 Y123.842509

G00 Z4.875000 (Fast pre-penetrate)
G01 Z-0.125000 F100.0(Penetrate)
G01 X175.988649 Y119.702595 Z-0.125000 F800.000000
G01 X147.981924 Y133.618204 Z-0.125000
G01 X122.555083 Y123.302629 Z-0.125000
G01 X93.973827 Y120.490073 Z-0.125000
G01 X62.961029 Y115.856284 Z-0.125000
G01 X48.567255 Y117.525748 Z-0.125000
G01 X5.467423 Y108.742990 Z-0.125000
G00 Z5.000000

(End cutting path id: polyline45426)


(Start cutting path id: polyline45434)
(Change tool to Default tool)

G00 Z5.000000
G00 X206.155923 Y125.533948

G00 Z4.875000 (Fast pre-penetrate)
G01 Z-0.125000 F100.0(Penetrate)
G01 X175.893554 Y120.619574 Z-0.125000 F800.000000
G01 X148.924451 Y136.774382 Z-0.125000
G01 X123.387050 Y124.821547 Z-0.125000
G01 X93.674203 Y121.749207 Z-0.125000
G01 X62.039449 Y117.045675 Z-0.125000
G01 X49.466664 Y118.783560 Z-0.125000
G01 X4.831763 Y109.242983 Z-0.125000
G00 Z5.000000

(End cutting path id: polyline45434)


(Start cutting path id: polyline45430)
(Change tool to Default tool)

G00 Z5.000000
G00 X205.160343 Y136.330526

G00 Z4.875000 (Fast pre-penetrate)
G01 Z-0.125000 F100.0(Penetrate)
G01 X174.623507 Y129.149595 Z-0.125000 F800.000000
G01 X150.629642 Y149.257799 Z-0.125000
G01 X124.571106 Y131.498228 Z-0.125000
G01 X93.621884 Y131.956375 Z-0.125000
G01 X61.772715 Y129.296862 Z-0.125000
G01 X52.561665 Y130.622654 Z-0.125000
G01 X7.648674 Y122.763630 Z-0.125000
G00 Z5.000000

(End cutting path id: polyline45430)


(Start cutting path id: polyline45432)
(Change tool to Default tool)

G00 Z5.000000
G00 X205.589125 Y134.899900

G00 Z4.875000 (Fast pre-penetrate)
G01 Z-0.125000 F100.0(Penetrate)
G01 X174.869686 Y127.704824 Z-0.125000 F800.000000
G01 X150.910227 Y148.504091 Z-0.125000
G01 X124.899116 Y130.968234 Z-0.125000
G01 X93.410308 Y130.348970 Z-0.125000
G01 X61.148214 Y127.126133 Z-0.125000
G01 X52.462459 Y128.606288 Z-0.125000
G01 X6.467701 Y119.758438 Z-0.125000
G00 Z5.000000

(End cutting path id: polyline45432)


(Start cutting path id: polyline45438)
(Change tool to Default tool)

G00 Z5.000000
G00 X206.017906 Y133.469322

G00 Z4.875000 (Fast pre-penetrate)
G01 Z-0.125000 F100.0(Penetrate)
G01 X175.115864 Y126.260004 Z-0.125000 F800.000000
G01 X151.190861 Y147.750382 Z-0.125000
G01 X125.227028 Y130.438240 Z-0.125000
G01 X93.198682 Y128.741564 Z-0.125000
G01 X60.523761 Y124.955355 Z-0.125000
G01 X52.363253 Y126.589874 Z-0.125000
G01 X5.286679 Y116.753246 Z-0.125000
G00 Z5.000000

(End cutting path id: polyline45438)


(Start cutting path id: polyline45436)
(Change tool to Default tool)

G00 Z5.000000
G00 X206.395788 Y127.225338

G00 Z4.875000 (Fast pre-penetrate)
G01 Z-0.125000 F100.0(Penetrate)
G01 X175.798411 Y121.536504 Z-0.125000 F800.000000
G01 X149.867027 Y139.930561 Z-0.125000
G01 X124.219017 Y126.340416 Z-0.125000
G01 X93.374629 Y123.008389 Z-0.125000
G01 X61.117918 Y118.235066 Z-0.125000
G01 X50.366024 Y120.041421 Z-0.125000
G01 X4.196054 Y109.742926 Z-0.125000
G00 Z5.000000

(End cutting path id: polyline45436)


(Start cutting path id: polyline45216)
(Change tool to Default tool)

G00 Z5.000000
G00 X206.446737 Y132.038745

G00 Z4.875000 (Fast pre-penetrate)
G01 Z-0.125000 F100.0(Penetrate)
G01 X175.362043 Y124.815233 Z-0.125000 F800.000000
G01 X151.471446 Y146.996674 Z-0.125000
G01 X125.554989 Y129.908246 Z-0.125000
G01 X92.987056 Y127.134159 Z-0.125000
G01 X59.899260 Y122.784626 Z-0.125000
G01 X52.264048 Y124.573459 Z-0.125000
G01 X4.105707 Y113.748103 Z-0.125000
G00 Z5.000000

(End cutting path id: polyline45216)


(Start cutting path id: polyline45214)
(Change tool to Default tool)

G00 Z5.000000
G00 X206.875568 Y130.608167

G00 Z4.875000 (Fast pre-penetrate)
G01 Z-0.125000 F100.0(Penetrate)
G01 X175.608222 Y123.370463 Z-0.125000 F800.000000
G01 X151.752032 Y146.242966 Z-0.125000
G01 X125.882950 Y129.378252 Z-0.125000
G01 X92.775431 Y125.526754 Z-0.125000
G01 X59.274759 Y120.613848 Z-0.125000
G01 X52.164842 Y122.557094 Z-0.125000
G01 X2.924685 Y110.742911 Z-0.125000
G00 Z5.000000

(End cutting path id: polyline45214)


(Start cutting path id: polyline45288)
(Change tool to Default tool)

G00 Z5.000000
G00 X200.636037 Y176.880231

G00 Z4.875000 (Fast pre-penetrate)
G01 Z-0.125000 F100.0(Penetrate)
G01 X171.931104 Y186.907097 Z-0.125000 F800.000000
G01 X149.484348 Y172.906328 Z-0.125000
G01 X120.433786 Y178.480687 Z-0.125000
G01 X100.715259 Y181.195603 Z-0.125000
G01 X64.752261 Y180.590825 Z-0.125000
G01 X49.024374 Y183.690769 Z-0.125000
G01 X20.443656 Y176.461189 Z-0.125000
G00 Z5.000000

(End cutting path id: polyline45288)


(Start cutting path id: polyline45290)
(Change tool to Default tool)

G00 Z5.000000
G00 X200.925432 Y179.033243

G00 Z4.875000 (Fast pre-penetrate)
G01 Z-0.125000 F100.0(Penetrate)
G01 X171.584398 Y189.357921 Z-0.125000 F800.000000
G01 X149.622708 Y175.057578 Z-0.125000
G01 X120.793315 Y179.780687 Z-0.125000
G01 X100.365078 Y182.165929 Z-0.125000
G01 X65.361296 Y182.450185 Z-0.125000
G01 X48.937943 Y185.187712 Z-0.125000
G01 X19.775156 Y178.147440 Z-0.125000
G00 Z5.000000

(End cutting path id: polyline45290)


(Start cutting path id: polyline45292)
(Change tool to Default tool)

G00 Z5.000000
G00 X201.214778 Y181.186304

G00 Z4.875000 (Fast pre-penetrate)
G01 Z-0.125000 F100.0(Penetrate)
G01 X171.237741 Y191.808746 Z-0.125000 F800.000000
G01 X149.761116 Y177.208828 Z-0.125000
G01 X121.152843 Y181.080736 Z-0.125000
G01 X100.014897 Y183.136255 Z-0.125000
G01 X65.970381 Y184.309544 Z-0.125000
G01 X48.851560 Y186.684606 Z-0.125000
G01 X19.106656 Y179.833740 Z-0.125000
G00 Z5.000000

(End cutting path id: polyline45292)


(Start cutting path id: polyline45256)
(Change tool to Default tool)

G00 Z5.000000
G00 X201.504172 Y183.339316

G00 Z4.875000 (Fast pre-penetrate)
G01 Z-0.125000 F100.0(Penetrate)
G01 X170.891035 Y194.259571 Z-0.125000 F800.000000
G01 X149.899475 Y179.360078 Z-0.125000
G01 X121.512421 Y182.380785 Z-0.125000
G01 X99.664667 Y184.106581 Z-0.125000
G01 X66.579465 Y186.168903 Z-0.125000
G01 X48.765128 Y188.181500 Z-0.125000
G01 X18.438156 Y181.519991 Z-0.125000
G00 Z5.000000

(End cutting path id: polyline45256)


(Start cutting path id: polyline45294)
(Change tool to Default tool)

G00 Z5.000000
G00 X201.793567 Y185.492328

G00 Z4.875000 (Fast pre-penetrate)
G01 Z-0.125000 F100.0(Penetrate)
G01 X170.544330 Y196.710395 Z-0.125000 F800.000000
G01 X150.037834 Y181.511328 Z-0.125000
G01 X121.871950 Y183.680834 Z-0.125000
G01 X99.314487 Y185.076907 Z-0.125000
G01 X48.678745 Y189.678394 Z-0.125000
G01 X17.769607 Y183.206291 Z-0.125000
G00 Z5.000000

(End cutting path id: polyline45294)


(Start cutting path id: polyline45296)
(Change tool to Default tool)

G00 Z5.000000
G00 X202.082961 Y187.645339

G00 Z4.875000 (Fast pre-penetrate)
G01 Z-0.125000 F100.0(Penetrate)
G01 X170.197673 Y199.161220 Z-0.125000 F800.000000
G01 X150.176243 Y183.662578 Z-0.125000
G01 X98.964306 Y186.047184 Z-0.125000
G01 X67.797585 Y189.887622 Z-0.125000
G01 X48.592314 Y191.175288 Z-0.125000
G01 X17.101107 Y184.892542 Z-0.125000
G00 Z5.000000

(End cutting path id: polyline45296)


(Start cutting path id: polyline45298)
(Change tool to Default tool)

G00 Z5.000000
G00 X202.372307 Y189.798400

G00 Z4.875000 (Fast pre-penetrate)
G01 Z-0.125000 F100.0(Penetrate)
G01 X169.850967 Y201.612093 Z-0.125000 F800.000000
G01 X150.314602 Y185.813828 Z-0.125000
G01 X122.591056 Y186.280932 Z-0.125000
G01 X98.614125 Y187.017559 Z-0.125000
G01 X68.406621 Y191.746981 Z-0.125000
G01 X48.505931 Y192.672183 Z-0.125000
G01 X16.432607 Y186.578842 Z-0.125000
G00 Z5.000000

(End cutting path id: polyline45298)


(Start cutting path id: polyline45300)
(Change tool to Default tool)

G00 Z5.000000
G00 X202.661702 Y191.951412

G00 Z4.875000 (Fast pre-penetrate)
G01 Z-0.125000 F100.0(Penetrate)
G01 X169.504310 Y204.062918 Z-0.125000 F800.000000
G01 X150.452961 Y187.965078 Z-0.125000
G01 X122.950633 Y187.580981 Z-0.125000
G01 X98.263945 Y187.987885 Z-0.125000
G01 X69.015705 Y193.606340 Z-0.125000
G01 X48.419499 Y194.169077 Z-0.125000
G01 X15.764106 Y188.265093 Z-0.125000
G00 Z5.000000

(End cutting path id: polyline45300)


(Start cutting path id: polyline45230)
(Change tool to Default tool)

G00 Z5.000000
G00 X196.802598 Y233.243030

G00 Z4.875000 (Fast pre-penetrate)
G01 Z-0.125000 F100.0(Penetrate)
G01 X177.099243 Y234.184333 Z-0.125000 F800.000000
G01 X142.709195 Y221.622756 Z-0.125000
G01 X114.051687 Y234.912005 Z-0.125000
G01 X96.199469 Y235.327670 Z-0.125000
G01 X76.938893 Y234.066628 Z-0.125000
G01 X31.523267 Y236.530862 Z-0.125000
G01 X26.333495 Y221.460562 Z-0.125000
G00 Z5.000000

(End cutting path id: polyline45230)


(Start cutting path id: polyline45232)
(Change tool to Default tool)

G00 Z5.000000
G00 X197.283454 Y231.827282

G00 Z4.875000 (Fast pre-penetrate)
G01 Z-0.125000 F100.0(Penetrate)
G01 X176.489327 Y233.565803 Z-0.125000 F800.000000
G01 X143.229842 Y220.655269 Z-0.125000
G01 X114.744316 Y232.739612 Z-0.125000
G01 X96.156155 Y232.999592 Z-0.125000
G01 X76.759422 Y232.561658 Z-0.125000
G01 X32.476512 Y234.743448 Z-0.125000
G01 X25.397184 Y220.301417 Z-0.125000
G00 Z5.000000

(End cutting path id: polyline45232)


(Start cutting path id: polyline45234)
(Change tool to Default tool)

G00 Z5.000000
G00 X197.764262 Y230.411583

G00 Z4.875000 (Fast pre-penetrate)
G01 Z-0.125000 F100.0(Penetrate)
G01 X175.879410 Y232.947322 Z-0.125000 F800.000000
G01 X143.750488 Y219.687732 Z-0.125000
G01 X115.436993 Y230.567219 Z-0.125000
G01 X96.112792 Y230.671514 Z-0.125000
G01 X76.579951 Y231.056591 Z-0.125000
G01 X33.429757 Y232.955985 Z-0.125000
G01 X24.460873 Y219.142273 Z-0.125000
G00 Z5.000000

(End cutting path id: polyline45234)


(Start cutting path id: polyline45236)
(Change tool to Default tool)

G00 Z5.000000
G00 X198.245118 Y228.995835

G00 Z4.875000 (Fast pre-penetrate)
G01 Z-0.125000 F100.0(Penetrate)
G01 X175.269494 Y232.328792 Z-0.125000 F800.000000
G01 X144.271085 Y218.720245 Z-0.125000
G01 X116.129671 Y228.394826 Z-0.125000
G01 X96.069430 Y228.343485 Z-0.125000
G01 X76.400530 Y229.551572 Z-0.125000
G01 X34.382954 Y231.168521 Z-0.125000
G01 X23.524513 Y217.983177 Z-0.125000
G00 Z5.000000

(End cutting path id: polyline45236)


(Start cutting path id: polyline45238)
(Change tool to Default tool)

G00 Z5.000000
G00 X198.725925 Y227.580086

G00 Z4.875000 (Fast pre-penetrate)
G01 Z-0.125000 F100.0(Penetrate)
G01 X174.659626 Y231.710261 Z-0.125000 F800.000000
G01 X144.791731 Y217.752757 Z-0.125000
G01 X116.822348 Y226.222433 Z-0.125000
G01 X96.026067 Y226.015408 Z-0.125000
G01 X76.221059 Y228.046554 Z-0.125000
G01 X35.336199 Y229.381107 Z-0.125000
G01 X22.588201 Y216.824032 Z-0.125000
G00 Z5.000000

(End cutting path id: polyline45238)


(Start cutting path id: polyline45240)
(Change tool to Default tool)

G00 Z5.000000
G00 X199.206781 Y226.164387

G00 Z4.875000 (Fast pre-penetrate)
G01 Z-0.125000 F100.0(Penetrate)
G01 X174.049710 Y231.091780 Z-0.125000 F800.000000
G01 X145.312377 Y216.785221 Z-0.125000
G01 X117.515026 Y224.050040 Z-0.125000
G01 X95.982704 Y223.687330 Z-0.125000
G01 X76.041588 Y226.541535 Z-0.125000
G01 X36.289444 Y227.593643 Z-0.125000
G01 X21.651890 Y215.664888 Z-0.125000
G00 Z5.000000

(End cutting path id: polyline45240)


(Start cutting path id: polyline45242)
(Change tool to Default tool)

G00 Z5.000000
G00 X199.687588 Y224.748639

G00 Z4.875000 (Fast pre-penetrate)
G01 Z-0.125000 F100.0(Penetrate)
G01 X173.439793 Y230.473250 Z-0.125000 F800.000000
G01 X145.833023 Y215.817685 Z-0.125000
G01 X118.207655 Y221.877647 Z-0.125000
G01 X95.939342 Y221.359252 Z-0.125000
G01 X75.862167 Y225.036517 Z-0.125000
G01 X37.242641 Y225.806180 Z-0.125000
G01 X20.715579 Y214.505792 Z-0.125000
G00 Z5.000000

(End cutting path id: polyline45242)


(Start cutting path id: polyline45244)
(Change tool to Default tool)

G00 Z5.000000
G00 X200.168444 Y223.332891

G00 Z4.875000 (Fast pre-penetrate)
G01 Z-0.125000 F100.0(Penetrate)
G01 X172.829877 Y229.854719 Z-0.125000 F800.000000
G01 X146.353669 Y214.850197 Z-0.125000
G01 X118.900332 Y219.705254 Z-0.125000
G01 X95.895979 Y219.031174 Z-0.125000
G01 X75.682696 Y223.531449 Z-0.125000
G01 X38.195886 Y224.018766 Z-0.125000
G01 X19.779267 Y213.346647 Z-0.125000
G00 Z5.000000

(End cutting path id: polyline45244)


(Start cutting path id: polyline45246)
(Change tool to Default tool)

G00 Z5.000000
G00 X200.649252 Y221.917192

G00 Z4.875000 (Fast pre-penetrate)
G01 Z-0.125000 F100.0(Penetrate)
G01 X172.220009 Y229.236189 Z-0.125000 F800.000000
G01 X146.874266 Y213.882661 Z-0.125000
G01 X119.593010 Y217.532861 Z-0.125000
G01 X95.852616 Y216.703096 Z-0.125000
G01 X75.503274 Y222.026431 Z-0.125000
G01 X39.149131 Y222.231302 Z-0.125000
G01 X18.842907 Y212.187502 Z-0.125000
G00 Z5.000000

(End cutting path id: polyline45246)


(Start cutting path id: polyline45248)
(Change tool to Default tool)

G00 Z5.000000
G00 X201.130108 Y220.501444

G00 Z4.875000 (Fast pre-penetrate)
G01 Z-0.125000 F100.0(Penetrate)
G01 X171.610093 Y228.617708 Z-0.125000 F800.000000
G01 X147.394912 Y212.915173 Z-0.125000
G01 X120.285687 Y215.360468 Z-0.125000
G01 X95.809254 Y214.375018 Z-0.125000
G01 X75.323803 Y220.521412 Z-0.125000
G01 X40.102376 Y220.443888 Z-0.125000
G01 X17.906596 Y211.028358 Z-0.125000
G00 Z5.000000

(End cutting path id: polyline45248)


(Start cutting path id: polyline45250)
(Change tool to Default tool)

G00 Z5.000000
G00 X201.610964 Y219.085696

G00 Z4.875000 (Fast pre-penetrate)
G01 Z-0.125000 F100.0(Penetrate)
G01 X171.000176 Y227.999178 Z-0.125000 F800.000000
G01 X147.915558 Y211.947637 Z-0.125000
G01 X120.978365 Y213.188075 Z-0.125000
G01 X95.765891 Y212.046941 Z-0.125000
G01 X75.144333 Y219.016345 Z-0.125000
G01 X41.055573 Y218.656424 Z-0.125000
G01 X16.970284 Y209.869262 Z-0.125000
G00 Z5.000000

(End cutting path id: polyline45250)


(Start cutting path id: polyline45252)
(Change tool to Default tool)

G00 Z5.000000
G00 X202.091771 Y217.669996

G00 Z4.875000 (Fast pre-penetrate)
G01 Z-0.125000 F100.0(Penetrate)
G01 X170.390260 Y227.380647 Z-0.125000 F800.000000
G01 X148.436155 Y210.980150 Z-0.125000
G01 X121.671042 Y211.015682 Z-0.125000
G01 X95.722577 Y209.718863 Z-0.125000
G01 X74.964911 Y217.511375 Z-0.125000
G01 X42.008818 Y216.868961 Z-0.125000
G01 X16.033973 Y208.710117 Z-0.125000
G00 Z5.000000

(End cutting path id: polyline45252)


(Start cutting path id: polyline45254)
(Change tool to Default tool)

G00 Z5.000000
G00 X202.572578 Y216.254248

G00 Z4.875000 (Fast pre-penetrate)
G01 Z-0.125000 F100.0(Penetrate)
G01 X169.780343 Y226.762166 Z-0.125000 F800.000000
G01 X148.956801 Y210.012662 Z-0.125000
G01 X122.363671 Y208.843289 Z-0.125000
G01 X95.679214 Y207.390834 Z-0.125000
G01 X74.785440 Y216.006308 Z-0.125000
G01 X42.962063 Y215.081547 Z-0.125000
G01 X15.097613 Y207.550973 Z-0.125000
G00 Z5.000000

(End cutting path id: polyline45254)


(Start cutting path id: polyline45310)
(Change tool to Default tool)

G00 Z5.000000
G00 X203.053434 Y214.838500

G00 Z4.875000 (Fast pre-penetrate)
G01 Z-0.125000 F100.0(Penetrate)
G01 X169.170476 Y226.143636 Z-0.125000 F800.000000
G01 X149.477447 Y209.045126 Z-0.125000
G01 X123.056348 Y206.670896 Z-0.125000
G01 X95.635852 Y205.062756 Z-0.125000
G01 X74.606019 Y214.501289 Z-0.125000
G01 X43.915309 Y213.294083 Z-0.125000
G01 X14.161302 Y206.391828 Z-0.125000
G00 Z5.000000

(End cutting path id: polyline45310)


(Start cutting path id: polyline45302)
(Change tool to Default tool)

G00 Z5.000000
G00 X202.951096 Y194.104424

G00 Z4.875000 (Fast pre-penetrate)
G01 Z-0.125000 F100.0(Penetrate)
G01 X169.157604 Y206.513743 Z-0.125000 F800.000000
G01 X150.591370 Y190.116328 Z-0.125000
G01 X123.310162 Y188.881030 Z-0.125000
G01 X97.913764 Y188.958162 Z-0.125000
G01 X69.624741 Y195.465700 Z-0.125000
G01 X48.333116 Y195.665971 Z-0.125000
G01 X15.095606 Y189.951393 Z-0.125000
G00 Z5.000000

(End cutting path id: polyline45302)


(Start cutting path id: polyline45304)
(Change tool to Default tool)

G00 Z5.000000
G00 X203.240491 Y196.257436

G00 Z4.875000 (Fast pre-penetrate)
G01 Z-0.125000 F100.0(Penetrate)
G01 X168.810947 Y208.964567 Z-0.125000 F800.000000
G01 X150.729729 Y192.267578 Z-0.125000
G01 X123.669740 Y190.181079 Z-0.125000
G01 X97.563534 Y189.928488 Z-0.125000
G01 X70.233825 Y197.325059 Z-0.125000
G01 X48.246684 Y197.162865 Z-0.125000
G01 X14.427057 Y191.637693 Z-0.125000
G00 Z5.000000

(End cutting path id: polyline45304)


(Start cutting path id: polyline45306)
(Change tool to Default tool)

G00 Z5.000000
G00 X203.529837 Y198.410497

G00 Z4.875000 (Fast pre-penetrate)
G01 Z-0.125000 F100.0(Penetrate)
G01 X168.464241 Y211.415392 Z-0.125000 F800.000000
G01 X150.868088 Y194.418828 Z-0.125000
G01 X124.029268 Y191.481128 Z-0.125000
G01 X97.213353 Y190.898815 Z-0.125000
G01 X70.842861 Y199.184369 Z-0.125000
G01 X48.160302 Y198.659759 Z-0.125000
G01 X13.758557 Y193.323945 Z-0.125000
G00 Z5.000000

(End cutting path id: polyline45306)


(Start cutting path id: polyline45308)
(Change tool to Default tool)

G00 Z5.000000
G00 X203.819231 Y200.563509

G00 Z4.875000 (Fast pre-penetrate)
G01 Z-0.125000 F100.0(Penetrate)
G01 X168.117585 Y213.866216 Z-0.125000 F800.000000
G01 X151.006497 Y196.570078 Z-0.125000
G01 X124.388797 Y192.781177 Z-0.125000
G01 X96.863173 Y191.869141 Z-0.125000
G01 X71.451945 Y201.043778 Z-0.125000
G01 X48.073870 Y200.156702 Z-0.125000
G01 X13.090057 Y195.010245 Z-0.125000
G00 Z5.000000

(End cutting path id: polyline45308)


(Start cutting path id: polyline45314)
(Change tool to Default tool)

G00 Z5.000000
G00 X204.108626 Y202.716521

G00 Z4.875000 (Fast pre-penetrate)
G01 Z-0.125000 F100.0(Penetrate)
G01 X167.770879 Y216.317090 Z-0.125000 F800.000000
G01 X151.144856 Y198.721328 Z-0.125000
G01 X124.748375 Y194.081177 Z-0.125000
G01 X96.512992 Y192.839467 Z-0.125000
G01 X72.060980 Y202.903137 Z-0.125000
G01 X47.987438 Y201.653596 Z-0.125000
G01 X12.421557 Y196.696496 Z-0.125000
G00 Z5.000000

(End cutting path id: polyline45314)


(Start cutting path id: polyline45312)
(Change tool to Default tool)

G00 Z5.000000
G00 X203.534242 Y213.422801

G00 Z4.875000 (Fast pre-penetrate)
G01 Z-0.125000 F100.0(Penetrate)
G01 X168.560560 Y225.525106 Z-0.125000 F800.000000
G01 X149.998093 Y208.077590 Z-0.125000
G01 X123.749026 Y204.498503 Z-0.125000
G01 X95.592489 Y202.734678 Z-0.125000
G01 X74.426548 Y212.996271 Z-0.125000
G01 X44.868505 Y211.506620 Z-0.125000
G01 X13.224990 Y205.232732 Z-0.125000
G00 Z5.000000

(End cutting path id: polyline45312)


(Start cutting path id: polyline45318)
(Change tool to Default tool)

G00 Z5.000000
G00 X204.015098 Y212.007053

G00 Z4.875000 (Fast pre-penetrate)
G01 Z-0.125000 F100.0(Penetrate)
G01 X167.950643 Y224.906575 Z-0.125000 F800.000000
G01 X150.518691 Y207.110102 Z-0.125000
G01 X124.441703 Y202.326110 Z-0.125000
G01 X95.549126 Y200.406601 Z-0.125000
G01 X74.247077 Y211.491252 Z-0.125000
G01 X45.821750 Y209.719205 Z-0.125000
G01 X12.288630 Y204.073587 Z-0.125000
G00 Z5.000000

(End cutting path id: polyline45318)


(Start cutting path id: polyline45316)
(Change tool to Default tool)

G00 Z5.000000
G00 X204.397972 Y204.869533

G00 Z4.875000 (Fast pre-penetrate)
G01 Z-0.125000 F100.0(Penetrate)
G01 X167.424173 Y218.767915 Z-0.125000 F800.000000
G01 X151.283215 Y200.872578 Z-0.125000
G01 X125.107903 Y195.381226 Z-0.125000
G01 X96.162811 Y193.809793 Z-0.125000
G01 X72.670065 Y204.762447 Z-0.125000
G01 X47.901055 Y203.150490 Z-0.125000
G01 X11.753008 Y198.382747 Z-0.125000
G00 Z5.000000

(End cutting path id: polyline45316)


(Start cutting path id: polyline45320)
(Change tool to Default tool)

G00 Z5.000000
G00 X204.687415 Y207.022545

G00 Z4.875000 (Fast pre-penetrate)
G01 Z-0.125000 F100.0(Penetrate)
G01 X167.077516 Y221.218739 Z-0.125000 F800.000000
G01 X151.421574 Y203.023828 Z-0.125000
G01 X125.467481 Y196.681275 Z-0.125000
G01 X95.812582 Y194.780119 Z-0.125000
G01 X73.279149 Y206.621807 Z-0.125000
G01 X47.814624 Y204.647385 Z-0.125000
G01 X11.084507 Y200.069047 Z-0.125000
G00 Z5.000000

(End cutting path id: polyline45320)


(Start cutting path id: polyline45228)
(Change tool to Default tool)

G00 Z5.000000
G00 X204.495954 Y210.591305

G00 Z4.875000 (Fast pre-penetrate)
G01 Z-0.125000 F100.0(Penetrate)
G01 X167.340727 Y224.288094 Z-0.125000 F800.000000
G01 X151.039337 Y206.142566 Z-0.125000
G01 X125.134332 Y200.153717 Z-0.125000
G01 X95.505764 Y198.078523 Z-0.125000
G01 X74.067656 Y209.986185 Z-0.125000
G01 X46.774996 Y207.931742 Z-0.125000
G01 X11.352319 Y202.914443 Z-0.125000
G00 Z5.000000

(End cutting path id: polyline45228)


(Start cutting path id: polyline45226)
(Change tool to Default tool)

G00 Z5.000000
G00 X204.976761 Y209.175606

G00 Z4.875000 (Fast pre-penetrate)
G01 Z-0.125000 F100.0(Penetrate)
G01 X166.730859 Y223.669564 Z-0.125000 F800.000000
G01 X151.559983 Y205.175078 Z-0.125000
G01 X125.827010 Y197.981324 Z-0.125000
G01 X95.462401 Y195.750445 Z-0.125000
G01 X73.888185 Y208.481166 Z-0.125000
G01 X47.728241 Y206.144279 Z-0.125000
G01 X10.416007 Y201.755347 Z-0.125000
G00 Z5.000000

(End cutting path id: polyline45226)



(Footer)
M5
G00 X0.0000 Y0.0000
M2
(Using default footer. To add your own footer create file "footer" in the output dir.)
(end)
%