%
(Header)
(Generated by gcodetools from Inkscape.)
(Using default header. To add your own header create file "header" in the output dir.)
M3
(Header end.)
G21 (All units in mm)

(Start cutting path id: polyline900)
(Change tool to Default tool)

G00 Z3.000000
G00 X2.945024 Y220.767441

G00 Z4.875000 (Fast pre-penetrate)
G01 Z-0.125000 F400.0(Penetrate)
G01 X4.425895 Y221.163495 Z-0.125000 F800.000000
G01 X5.906766 Y221.440328 Z-0.125000
G01 X7.387664 Y221.590876 Z-0.125000
G01 X8.762754 Y221.613233 Z-0.125000
G01 X10.137845 Y221.520312 Z-0.125000
G01 X11.618716 Y221.290998 Z-0.125000
G01 X13.099587 Y220.929604 Z-0.125000
G01 X14.580485 Y220.440628 Z-0.125000
G01 X17.291005 Y219.239659 Z-0.125000
G01 X20.160196 Y217.599588 Z-0.125000
G01 X23.101380 Y215.630853 Z-0.125000
G01 X30.341218 Y210.437803 Z-0.125000
G01 X32.562524 Y209.010933 Z-0.125000
G01 X34.506178 Y207.918364 Z-0.125000
G01 X36.793603 Y206.873526 Z-0.125000
G01 X38.909130 Y206.182726 Z-0.125000
G01 X41.024682 Y205.790111 Z-0.125000
G01 X43.140209 Y205.717060 Z-0.125000
G01 X45.255735 Y205.972991 Z-0.125000
G01 X47.371288 Y206.554598 Z-0.125000
G01 X49.592594 Y207.497968 Z-0.125000
G01 X51.813901 Y208.748917 Z-0.125000
G01 X53.706119 Y210.021852 Z-0.125000
G01 X55.845167 Y211.642052 Z-0.125000
G01 X62.673657 Y217.369877 Z-0.125000
G01 X65.059508 Y219.268843 Z-0.125000
G01 X67.455651 Y220.961724 Z-0.125000
G01 X69.676958 Y222.261250 Z-0.125000
G01 X71.911493 Y223.242853 Z-0.125000
G01 X74.027020 Y223.826735 Z-0.125000
G01 X76.142572 Y224.045201 Z-0.125000
G01 X78.258099 Y223.883488 Z-0.125000
G01 X80.056311 Y223.446767 Z-0.125000
G01 X81.986735 Y222.681884 Z-0.125000
G01 X83.930388 Y221.622626 Z-0.125000
G01 X86.038559 Y220.181548 Z-0.125000
G01 X87.848518 Y218.739624 Z-0.125000
G01 X89.798336 Y217.021713 Z-0.125000
G01 X96.092078 Y210.980780 Z-0.125000
G01 X98.379186 Y208.884171 Z-0.125000
G01 X100.600519 Y207.046854 Z-0.125000
G01 X102.626431 Y205.612312 Z-0.125000
G01 X104.755187 Y204.414227 Z-0.125000
G01 X106.712042 Y203.635930 Z-0.125000
G01 X108.616035 Y203.205030 Z-0.125000
G01 X110.520027 Y203.113643 Z-0.125000
G01 X111.577777 Y203.212491 Z-0.125000
G01 X112.635553 Y203.418125 Z-0.125000
G01 X114.751079 Y204.143585 Z-0.125000
G01 X116.879861 Y205.275550 Z-0.125000
G01 X119.193719 Y206.917314 Z-0.125000
G01 X121.168223 Y208.606545 Z-0.125000
G01 X123.266128 Y210.629387 Z-0.125000
G01 X130.152191 Y217.982361 Z-0.125000
G01 X132.595642 Y220.464493 Z-0.125000
G01 X134.989721 Y222.632354 Z-0.125000
G01 X137.149327 Y224.273536 Z-0.125000
G01 X139.278082 Y225.531496 Z-0.125000
G01 X141.406838 Y226.381098 Z-0.125000
G01 X143.416610 Y226.775935 Z-0.125000
G01 X144.474360 Y226.818480 Z-0.125000
G01 X145.426356 Y226.758076 Z-0.125000
G01 X146.378352 Y226.604221 Z-0.125000
G01 X147.436129 Y226.324689 Z-0.125000
G01 X149.366553 Y225.527130 Z-0.125000
G01 X151.402757 Y224.305154 Z-0.125000
G01 X153.500662 Y222.677227 Z-0.125000
G01 X155.549196 Y220.778474 Z-0.125000
G01 X174.819093 Y201.504740 Z-0.125000
G01 X175.572732 Y201.027035 Z-0.125000
G01 X176.947849 Y200.545732 Z-0.125000
G01 X178.217159 Y200.267470 Z-0.125000
G01 X179.486496 Y200.159653 Z-0.125000
G01 X180.438466 Y200.191773 Z-0.125000
G01 X181.496242 Y200.341051 Z-0.125000
G01 X182.554019 Y200.608968 Z-0.125000
G01 X183.611768 Y200.993433 Z-0.125000
G01 X185.740524 Y202.107381 Z-0.125000
G01 X187.972123 Y203.728322 Z-0.125000
G01 X190.201684 Y205.753467 Z-0.125000
G01 X192.564331 Y208.260338 Z-0.125000
G01 X195.122214 Y211.277060 Z-0.125000
G01 X199.160967 Y216.337475 Z-0.125000
G00 Z3.000000

(End cutting path id: polyline900)


(Start cutting path id: polyline896)
(Change tool to Default tool)

G00 Z3.000000
G00 X2.945024 Y215.557854

G00 Z4.875000 (Fast pre-penetrate)
G01 Z-0.125000 F400.0(Penetrate)
G01 X4.954796 Y216.428306 Z-0.125000 F800.000000
G01 X6.752982 Y217.055817 Z-0.125000
G01 X8.551194 Y217.519817 Z-0.125000
G01 X10.243625 Y217.792734 Z-0.125000
G01 X11.936057 Y217.896953 Z-0.125000
G01 X13.628489 Y217.826786 Z-0.125000
G01 X15.320920 Y217.580512 Z-0.125000
G01 X17.119106 Y217.128975 Z-0.125000
G01 X18.600003 Y216.615869 Z-0.125000
G01 X20.160196 Y215.945971 Z-0.125000
G01 X21.733618 Y215.147565 Z-0.125000
G01 X23.399618 Y214.184086 Z-0.125000
G01 X26.556755 Y212.099755 Z-0.125000
G01 X34.321075 Y206.534701 Z-0.125000
G01 X36.542382 Y205.125347 Z-0.125000
G01 X38.486035 Y204.055029 Z-0.125000
G01 X40.707342 Y203.068875 Z-0.125000
G01 X42.928648 Y202.381065 Z-0.125000
G01 X45.044201 Y202.036472 Z-0.125000
G01 X47.053947 Y202.008136 Z-0.125000
G01 X49.063719 Y202.277984 Z-0.125000
G01 X51.179246 Y202.879857 Z-0.125000
G01 X53.294772 Y203.790764 Z-0.125000
G01 X55.516079 Y205.047242 Z-0.125000
G01 X57.408323 Y206.324807 Z-0.125000
G01 X59.547371 Y207.949797 Z-0.125000
G01 X66.293576 Y213.617376 Z-0.125000
G01 X68.679427 Y215.520919 Z-0.125000
G01 X71.065278 Y217.212583 Z-0.125000
G01 X73.194033 Y218.470569 Z-0.125000
G01 X75.402137 Y219.464264 Z-0.125000
G01 X77.517663 Y220.074921 Z-0.125000
G01 X79.633189 Y220.321274 Z-0.125000
G01 X81.642962 Y220.203323 Z-0.125000
G01 X83.546928 Y219.773826 Z-0.125000
G01 X85.503810 Y219.020029 Z-0.125000
G01 X87.447463 Y217.978101 Z-0.125000
G01 X89.576219 Y216.537790 Z-0.125000
G01 X91.386178 Y215.105047 Z-0.125000
G01 X93.352453 Y213.379225 Z-0.125000
G01 X99.794255 Y207.199545 Z-0.125000
G01 X102.081390 Y205.107329 Z-0.125000
G01 X104.302697 Y203.276943 Z-0.125000
G01 X106.328609 Y201.850762 Z-0.125000
G01 X108.457364 Y200.663128 Z-0.125000
G01 X110.414247 Y199.895599 Z-0.125000
G01 X112.318212 Y199.475838 Z-0.125000
G01 X114.222204 Y199.395802 Z-0.125000
G01 X115.279981 Y199.500894 Z-0.125000
G01 X116.337731 Y199.712666 Z-0.125000
G01 X118.453283 Y200.449715 Z-0.125000
G01 X120.582039 Y201.592026 Z-0.125000
G01 X122.895897 Y203.243024 Z-0.125000
G01 X124.821029 Y204.892990 Z-0.125000
G01 X126.968305 Y206.964966 Z-0.125000
G01 X133.780339 Y214.236447 Z-0.125000
G01 X136.149732 Y216.646640 Z-0.125000
G01 X138.445096 Y218.742269 Z-0.125000
G01 X140.584143 Y220.398586 Z-0.125000
G01 X142.610055 Y221.641782 Z-0.125000
G01 X144.580140 Y222.502973 Z-0.125000
G01 X146.484133 Y222.980281 Z-0.125000
G01 X148.388098 Y223.091167 Z-0.125000
G01 X149.340094 Y223.006871 Z-0.125000
G01 X150.397871 Y222.804148 Z-0.125000
G01 X152.420846 Y222.102368 Z-0.125000
G01 X154.457050 Y220.998184 Z-0.125000
G01 X156.626948 Y219.420793 Z-0.125000
G01 X159.177343 Y217.114819 Z-0.125000
G01 X178.280633 Y198.056086 Z-0.125000
G01 X179.274936 Y197.314592 Z-0.125000
G01 X180.544246 Y196.864351 Z-0.125000
G01 X181.602022 Y196.606383 Z-0.125000
G01 X182.659799 Y196.465571 Z-0.125000
G01 X183.717549 Y196.443426 Z-0.125000
G01 X184.775325 Y196.540396 Z-0.125000
G01 X185.833102 Y196.755846 Z-0.125000
G01 X186.996632 Y197.127849 Z-0.125000
G01 X188.054408 Y197.585869 Z-0.125000
G01 X189.165048 Y198.185573 Z-0.125000
G01 X191.345239 Y199.695521 Z-0.125000
G01 X193.681718 Y201.751781 Z-0.125000
G01 X196.199225 Y204.382662 Z-0.125000
G01 X199.160967 Y207.868649 Z-0.125000
G00 Z3.000000

(End cutting path id: polyline896)


(Start cutting path id: polyline890)
(Change tool to Default tool)

G00 Z3.000000
G00 X2.945024 Y207.833142

G00 Z4.875000 (Fast pre-penetrate)
G01 Z-0.125000 F400.0(Penetrate)
G01 X5.814215 Y209.483955 Z-0.125000 F800.000000
G01 X8.220650 Y210.703973 Z-0.125000
G01 X10.455186 Y211.643164 Z-0.125000
G01 X12.570712 Y212.319279 Z-0.125000
G01 X14.580485 Y212.741051 Z-0.125000
G01 X16.590231 Y212.928296 Z-0.125000
G01 X18.600003 Y212.869268 Z-0.125000
G01 X20.609749 Y212.560446 Z-0.125000
G01 X22.302181 Y212.110073 Z-0.125000
G01 X24.047503 Y211.471846 Z-0.125000
G01 X25.898578 Y210.616899 Z-0.125000
G01 X27.749680 Y209.599657 Z-0.125000
G01 X31.246198 Y207.333292 Z-0.125000
G01 X39.504124 Y201.415179 Z-0.125000
G01 X41.725431 Y200.021170 Z-0.125000
G01 X43.761635 Y198.925214 Z-0.125000
G01 X45.996171 Y197.975388 Z-0.125000
G01 X48.111723 Y197.361291 Z-0.125000
G01 X50.227250 Y197.055010 Z-0.125000
G01 X52.342776 Y197.074721 Z-0.125000
G01 X54.352548 Y197.400793 Z-0.125000
G01 X56.362294 Y198.020446 Z-0.125000
G01 X58.477847 Y198.971649 Z-0.125000
G01 X60.606603 Y200.206828 Z-0.125000
G01 X62.509113 Y201.511169 Z-0.125000
G01 X64.565876 Y203.088322 Z-0.125000
G01 X71.065278 Y208.562783 Z-0.125000
G01 X73.451128 Y210.476141 Z-0.125000
G01 X75.785571 Y212.147565 Z-0.125000
G01 X77.914326 Y213.426585 Z-0.125000
G01 X80.056311 Y214.419803 Z-0.125000
G01 X82.171837 Y215.067397 Z-0.125000
G01 X84.181609 Y215.347114 Z-0.125000
G01 X86.191355 Y215.284461 Z-0.125000
G01 X88.095348 Y214.906425 Z-0.125000
G01 X90.131552 Y214.167709 Z-0.125000
G01 X92.167756 Y213.104826 Z-0.125000
G01 X94.265661 Y211.706531 Z-0.125000
G01 X96.157879 Y210.221639 Z-0.125000
G01 X98.165297 Y208.464993 Z-0.125000
G01 X104.681130 Y202.216521 Z-0.125000
G01 X107.017636 Y200.083003 Z-0.125000
G01 X109.238942 Y198.260847 Z-0.125000
G01 X111.326555 Y196.805534 Z-0.125000
G01 X113.362759 Y195.683226 Z-0.125000
G01 X115.385761 Y194.902759 Z-0.125000
G01 X117.395507 Y194.489189 Z-0.125000
G01 X119.299499 Y194.447147 Z-0.125000
G01 X120.357249 Y194.573300 Z-0.125000
G01 X121.415026 Y194.805763 Z-0.125000
G01 X123.451230 Y195.545934 Z-0.125000
G01 X125.579985 Y196.709940 Z-0.125000
G01 X127.832142 Y198.331067 Z-0.125000
G01 X129.781960 Y200.008893 Z-0.125000
G01 X131.855206 Y202.011813 Z-0.125000
G01 X138.667213 Y209.274431 Z-0.125000
G01 X141.110663 Y211.753177 Z-0.125000
G01 X143.381341 Y213.816290 Z-0.125000
G01 X145.520389 Y215.463874 Z-0.125000
G01 X147.608002 Y216.730936 Z-0.125000
G01 X149.551655 Y217.564505 Z-0.125000
G01 X151.561401 Y218.043982 Z-0.125000
G01 X153.465393 Y218.122378 Z-0.125000
G01 X154.417389 Y218.022339 Z-0.125000
G01 X155.475166 Y217.802709 Z-0.125000
G01 X157.511343 Y217.064840 Z-0.125000
G01 X159.640125 Y215.871650 Z-0.125000
G01 X161.809997 Y214.253116 Z-0.125000
G01 X164.138274 Y212.130790 Z-0.125000
G01 X183.389651 Y193.021362 Z-0.125000
G01 X183.889448 Y192.608639 Z-0.125000
G01 X184.457984 Y192.279339 Z-0.125000
G01 X186.256196 Y191.718212 Z-0.125000
G01 X188.054408 Y191.482892 Z-0.125000
G01 X189.852620 Y191.588301 Z-0.125000
G01 X191.650805 Y192.033012 Z-0.125000
G01 X193.422585 Y192.793583 Z-0.125000
G01 X195.273661 Y193.911790 Z-0.125000
G01 X197.186464 Y195.385597 Z-0.125000
G01 X199.160967 Y197.205795 Z-0.125000
G00 Z3.000000

(End cutting path id: polyline890)


(Start cutting path id: polyline882)
(Change tool to Default tool)

G00 Z3.000000
G00 X2.945024 Y197.778909

G00 Z4.875000 (Fast pre-penetrate)
G01 Z-0.125000 F400.0(Penetrate)
G01 X11.552623 Y202.965026 Z-0.125000 F800.000000
G01 X14.051583 Y204.278734 Z-0.125000
G01 X16.272890 Y205.260363 Z-0.125000
G01 X18.600003 Y206.049218 Z-0.125000
G01 X20.927090 Y206.551052 Z-0.125000
G01 X23.148397 Y206.734064 Z-0.125000
G01 X25.369703 Y206.612621 Z-0.125000
G01 X27.273695 Y206.264059 Z-0.125000
G01 X29.177661 Y205.695999 Z-0.125000
G01 X31.174204 Y204.878993 Z-0.125000
G01 X33.302960 Y203.784096 Z-0.125000
G01 X35.061511 Y202.731426 Z-0.125000
G01 X37.087423 Y201.387979 Z-0.125000
G01 X45.890390 Y195.079209 Z-0.125000
G01 X48.204274 Y193.644852 Z-0.125000
G01 X50.333030 Y192.532625 Z-0.125000
G01 X52.554337 Y191.637805 Z-0.125000
G01 X54.775643 Y191.058156 Z-0.125000
G01 X56.891196 Y190.828340 Z-0.125000
G01 X59.006722 Y190.928643 Z-0.125000
G01 X60.910714 Y191.303531 Z-0.125000
G01 X62.920460 Y191.983615 Z-0.125000
G01 X64.864113 Y192.901718 Z-0.125000
G01 X66.992869 Y194.169547 Z-0.125000
G01 X68.761686 Y195.400175 Z-0.125000
G01 X70.736189 Y196.922771 Z-0.125000
G01 X77.153332 Y202.338018 Z-0.125000
G01 X79.456898 Y204.192480 Z-0.125000
G01 X81.709055 Y205.821756 Z-0.125000
G01 X83.745259 Y207.074053 Z-0.125000
G01 X85.874041 Y208.103705 Z-0.125000
G01 X87.883787 Y208.772650 Z-0.125000
G01 X89.893533 Y209.118010 Z-0.125000
G01 X91.797525 Y209.130948 Z-0.125000
G01 X93.807298 Y208.807442 Z-0.125000
G01 X95.869934 Y208.122172 Z-0.125000
G01 X97.998689 Y207.061115 Z-0.125000
G01 X100.189145 Y205.632711 Z-0.125000
G01 X102.081390 Y204.165307 Z-0.125000
G01 X104.138153 Y202.377864 Z-0.125000
G01 X110.826784 Y195.971383 Z-0.125000
G01 X113.187949 Y193.820668 Z-0.125000
G01 X115.491515 Y191.945039 Z-0.125000
G01 X117.620297 Y190.485678 Z-0.125000
G01 X119.749052 Y189.352284 Z-0.125000
G01 X121.732366 Y188.632539 Z-0.125000
G01 X123.742112 Y188.263842 Z-0.125000
G01 X125.646105 Y188.264901 Z-0.125000
G01 X127.655851 Y188.640106 Z-0.125000
G01 X129.744945 Y189.427796 Z-0.125000
G01 X131.873701 Y190.621938 Z-0.125000
G01 X134.084741 Y192.236080 Z-0.125000
G01 X136.001645 Y193.896259 Z-0.125000
G01 X138.074865 Y195.904523 Z-0.125000
G01 X144.812841 Y203.079644 Z-0.125000
G01 X147.182261 Y205.481184 Z-0.125000
G01 X149.469370 Y207.562870 Z-0.125000
G01 X151.608417 Y209.216223 Z-0.125000
G01 X153.716615 Y210.502943 Z-0.125000
G01 X155.792480 Y211.388397 Z-0.125000
G01 X157.802252 Y211.852158 Z-0.125000
G01 X159.706218 Y211.917325 Z-0.125000
G01 X160.658214 Y211.811465 Z-0.125000
G01 X161.715991 Y211.586040 Z-0.125000
G01 X163.805085 Y210.814675 Z-0.125000
G01 X165.933841 Y209.605610 Z-0.125000
G01 X168.144855 Y207.941542 Z-0.125000
G01 X170.283903 Y205.993311 Z-0.125000
G01 X179.909591 Y196.455253 Z-0.125000
G01 X190.368266 Y186.252456 Z-0.125000
G01 X191.333491 Y185.865768 Z-0.125000
G01 X192.497021 Y185.531070 Z-0.125000
G01 X193.660578 Y185.333215 Z-0.125000
G01 X194.718328 Y185.275430 Z-0.125000
G01 X195.776104 Y185.334644 Z-0.125000
G01 X196.939661 Y185.534510 Z-0.125000
G01 X197.997411 Y185.837325 Z-0.125000
G01 X199.160967 Y186.300716 Z-0.125000
G00 Z3.000000

(End cutting path id: polyline882)


(Start cutting path id: polyline664)
(Change tool to Default tool)

G00 Z3.000000
G00 X2.945024 Y186.735479

G00 Z4.875000 (Fast pre-penetrate)
G01 Z-0.125000 F400.0(Penetrate)
G01 X5.629113 Y187.770236 Z-0.125000 F800.000000
G01 X8.498304 Y189.179114 Z-0.125000
G01 X11.367495 Y190.816777 Z-0.125000
G01 X18.771876 Y195.327097 Z-0.125000
G01 X20.993183 Y196.532802 Z-0.125000
G01 X22.936836 Y197.453763 Z-0.125000
G01 X25.263923 Y198.344508 Z-0.125000
G01 X27.485230 Y198.938682 Z-0.125000
G01 X29.600782 Y199.242635 Z-0.125000
G01 X31.716309 Y199.272903 Z-0.125000
G01 X33.726081 Y199.041208 Z-0.125000
G01 X35.841607 Y198.525985 Z-0.125000
G01 X38.023253 Y197.717552 Z-0.125000
G01 X40.244560 Y196.632920 Z-0.125000
G01 X42.188213 Y195.498653 Z-0.125000
G01 X44.316968 Y194.099776 Z-0.125000
G01 X51.073465 Y189.189195 Z-0.125000
G01 X53.572452 Y187.466389 Z-0.125000
G01 X55.978861 Y185.999409 Z-0.125000
G01 X58.107616 Y184.923456 Z-0.125000
G01 X60.381813 Y184.059672 Z-0.125000
G01 X62.603146 Y183.543602 Z-0.125000
G01 X64.718672 Y183.380328 Z-0.125000
G01 X66.834199 Y183.550349 Z-0.125000
G01 X68.738191 Y183.988340 Z-0.125000
G01 X70.602495 Y184.669721 Z-0.125000
G01 X72.546149 Y185.627855 Z-0.125000
G01 X74.582353 Y186.872903 Z-0.125000
G01 X76.330612 Y188.108056 Z-0.125000
G01 X78.222830 Y189.580302 Z-0.125000
G01 X86.696735 Y196.664115 Z-0.125000
G01 X88.835783 Y198.228991 Z-0.125000
G01 X90.871987 Y199.508117 Z-0.125000
G01 X93.000743 Y200.570471 Z-0.125000
G01 X94.970828 Y201.262779 Z-0.125000
G01 X96.874820 Y201.639069 Z-0.125000
G01 X98.778786 Y201.711035 Z-0.125000
G01 X100.894339 Y201.426450 Z-0.125000
G01 X102.996636 Y200.768908 Z-0.125000
G01 X105.125391 Y199.742882 Z-0.125000
G01 X107.346724 Y198.324214 Z-0.125000
G01 X109.238942 Y196.876390 Z-0.125000
G01 X111.377990 Y195.031055 Z-0.125000
G01 X118.231140 Y188.476991 Z-0.125000
G01 X120.592331 Y186.332387 Z-0.125000
G01 X122.895897 Y184.464801 Z-0.125000
G01 X125.024652 Y183.014198 Z-0.125000
G01 X127.153408 Y181.890170 Z-0.125000
G01 X129.136722 Y181.179209 Z-0.125000
G01 X131.146494 Y180.818874 Z-0.125000
G01 X133.156240 Y180.837606 Z-0.125000
G01 X135.166013 Y181.238899 Z-0.125000
G01 X137.241878 Y182.044634 Z-0.125000
G01 X139.278082 Y183.197157 Z-0.125000
G01 X141.489123 Y184.811458 Z-0.125000
G01 X143.406027 Y186.469917 Z-0.125000
G01 X145.479246 Y188.474530 Z-0.125000
G01 X152.217223 Y195.630865 Z-0.125000
G01 X154.586617 Y198.026056 Z-0.125000
G01 X156.873751 Y200.103376 Z-0.125000
G01 X159.012799 Y201.754983 Z-0.125000
G01 X161.120996 Y203.042867 Z-0.125000
G01 X163.091081 Y203.897020 Z-0.125000
G01 X165.100827 Y204.389171 Z-0.125000
G01 X167.004820 Y204.484871 Z-0.125000
G01 X167.956816 Y204.395389 Z-0.125000
G01 X169.014592 Y204.188908 Z-0.125000
G01 X170.072342 Y203.871144 Z-0.125000
G01 X171.116889 Y203.450563 Z-0.125000
G01 X173.245645 Y202.279651 Z-0.125000
G01 X175.384692 Y200.713637 Z-0.125000
G01 X177.688284 Y198.653117 Z-0.125000
G01 X197.532009 Y179.258601 Z-0.125000
G01 X198.327981 Y178.675804 Z-0.125000
G01 X199.160967 Y178.357961 Z-0.125000
G00 Z3.000000

(End cutting path id: polyline664)


(Start cutting path id: polyline630)
(Change tool to Default tool)

G00 Z3.000000
G00 X2.945024 Y178.222838

G00 Z4.875000 (Fast pre-penetrate)
G01 Z-0.125000 F400.0(Penetrate)
G01 X5.166331 Y178.228289 Z-0.125000 F800.000000
G01 X7.281883 Y178.468980 Z-0.125000
G01 X9.503190 Y178.965814 Z-0.125000
G01 X11.724496 Y179.699264 Z-0.125000
G01 X14.051583 Y180.695446 Z-0.125000
G01 X16.550570 Y181.981028 Z-0.125000
G01 X19.142107 Y183.486400 Z-0.125000
G01 X26.176258 Y187.799976 Z-0.125000
G01 X28.305014 Y188.972422 Z-0.125000
G01 X30.248667 Y189.914364 Z-0.125000
G01 X32.562524 Y190.828207 Z-0.125000
G01 X34.678051 Y191.428043 Z-0.125000
G01 X36.793603 Y191.773218 Z-0.125000
G01 X38.909130 Y191.844418 Z-0.125000
G01 X41.024682 Y191.632619 Z-0.125000
G01 X43.140209 Y191.139648 Z-0.125000
G01 X45.335084 Y190.344894 Z-0.125000
G01 X47.648941 Y189.224067 Z-0.125000
G01 X49.592594 Y188.090514 Z-0.125000
G01 X51.721350 Y186.690394 Z-0.125000
G01 X58.560106 Y181.707582 Z-0.125000
G01 X60.976807 Y180.037825 Z-0.125000
G01 X63.383242 Y178.565526 Z-0.125000
G01 X65.604549 Y177.444382 Z-0.125000
G01 X67.891975 Y176.586922 Z-0.125000
G01 X70.007501 Y176.101967 Z-0.125000
G01 X72.123054 Y175.938958 Z-0.125000
G01 X74.132800 Y176.093950 Z-0.125000
G01 X76.036792 Y176.519479 Z-0.125000
G01 X77.914326 Y177.195674 Z-0.125000
G01 X79.857979 Y178.146003 Z-0.125000
G01 X81.894184 Y179.384702 Z-0.125000
G01 X83.652708 Y180.623638 Z-0.125000
G01 X85.544953 Y182.093979 Z-0.125000
G01 X94.018832 Y189.185412 Z-0.125000
G01 X96.240165 Y190.811750 Z-0.125000
G01 X98.276369 Y192.087331 Z-0.125000
G01 X100.312547 Y193.105262 Z-0.125000
G01 X102.269429 Y193.802385 Z-0.125000
G01 X104.173421 Y194.189364 Z-0.125000
G01 X106.077387 Y194.272417 Z-0.125000
G01 X108.192940 Y194.000319 Z-0.125000
G01 X110.308466 Y193.349736 Z-0.125000
G01 X112.437222 Y192.333341 Z-0.125000
G01 X114.751079 Y190.858317 Z-0.125000
G01 X116.643324 Y189.407952 Z-0.125000
G01 X118.782372 Y187.561189 Z-0.125000
G01 X125.561491 Y181.082557 Z-0.125000
G01 X127.996686 Y178.872813 Z-0.125000
G01 X130.382537 Y176.949030 Z-0.125000
G01 X132.521585 Y175.508375 Z-0.125000
G01 X134.650340 Y174.403636 Z-0.125000
G01 X136.646884 Y173.707888 Z-0.125000
G01 X138.656656 Y173.368746 Z-0.125000
G01 X140.666402 Y173.407586 Z-0.125000
G01 X142.676175 Y173.827136 Z-0.125000
G01 X144.738811 Y174.642554 Z-0.125000
G01 X146.775015 Y175.805264 Z-0.125000
G01 X148.975764 Y177.418479 Z-0.125000
G01 X150.867982 Y179.056010 Z-0.125000
G01 X152.957658 Y181.073773 Z-0.125000
G01 X159.621605 Y188.131551 Z-0.125000
G01 X161.990998 Y190.523170 Z-0.125000
G01 X164.278133 Y192.601072 Z-0.125000
G01 X166.334895 Y194.199841 Z-0.125000
G01 X168.340249 Y195.455632 Z-0.125000
G01 X170.283903 Y196.346006 Z-0.125000
G01 X172.187895 Y196.877474 Z-0.125000
G01 X174.091860 Y197.053845 Z-0.125000
G01 X175.043857 Y197.006141 Z-0.125000
G01 X176.101633 Y196.846703 Z-0.125000
G01 X178.111379 Y196.239803 Z-0.125000
G01 X180.187244 Y195.211316 Z-0.125000
G01 X182.377727 Y193.719253 Z-0.125000
G01 X185.092666 Y191.370761 Z-0.125000
G01 X199.160967 Y177.704150 Z-0.125000
G00 Z3.000000

(End cutting path id: polyline630)


(Start cutting path id: polyline632)
(Change tool to Default tool)

G00 Z3.000000
G00 X2.945024 Y177.092222

G00 Z4.875000 (Fast pre-penetrate)
G01 Z-0.125000 F400.0(Penetrate)
G01 X5.377891 Y176.954030 Z-0.125000 F800.000000
G01 X7.704978 Y177.104208 Z-0.125000
G01 X10.137845 Y177.557888 Z-0.125000
G01 X12.570712 Y178.301710 Z-0.125000
G01 X14.977148 Y179.295325 Z-0.125000
G01 X17.661236 Y180.655652 Z-0.125000
G01 X20.345299 Y182.209813 Z-0.125000
G01 X27.379476 Y186.528231 Z-0.125000
G01 X29.600782 Y187.752853 Z-0.125000
G01 X31.544435 Y188.692493 Z-0.125000
G01 X33.831861 Y189.593531 Z-0.125000
G01 X35.947388 Y190.191806 Z-0.125000
G01 X38.062914 Y190.534864 Z-0.125000
G01 X40.072686 Y190.606751 Z-0.125000
G01 X42.188213 Y190.406197 Z-0.125000
G01 X44.409519 Y189.892510 Z-0.125000
G01 X46.630852 Y189.083018 Z-0.125000
G01 X48.852159 Y188.005742 Z-0.125000
G01 X50.795812 Y186.874861 Z-0.125000
G01 X52.924567 Y185.476699 Z-0.125000
G01 X59.794174 Y180.470524 Z-0.125000
G01 X62.272576 Y178.759413 Z-0.125000
G01 X64.679011 Y177.292247 Z-0.125000
G01 X66.807767 Y176.218754 Z-0.125000
G01 X69.055532 Y175.368490 Z-0.125000
G01 X71.171058 Y174.872900 Z-0.125000
G01 X73.286584 Y174.698778 Z-0.125000
G01 X75.402137 Y174.859274 Z-0.125000
G01 X77.200322 Y175.259059 Z-0.125000
G01 X79.104315 Y175.937503 Z-0.125000
G01 X81.061197 Y176.889948 Z-0.125000
G01 X83.097375 Y178.125604 Z-0.125000
G01 X84.804517 Y179.324509 Z-0.125000
G01 X86.778994 Y180.856180 Z-0.125000
G01 X95.252900 Y187.948301 Z-0.125000
G01 X97.443356 Y189.553261 Z-0.125000
G01 X99.479560 Y190.831885 Z-0.125000
G01 X101.515765 Y191.853546 Z-0.125000
G01 X103.432986 Y192.543367 Z-0.125000
G01 X105.336952 Y192.940664 Z-0.125000
G01 X107.240944 Y193.034512 Z-0.125000
G01 X109.356470 Y192.774480 Z-0.125000
G01 X111.472023 Y192.135671 Z-0.125000
G01 X113.640439 Y191.108401 Z-0.125000
G01 X115.902889 Y189.674282 Z-0.125000
G01 X117.877392 Y188.165470 Z-0.125000
G01 X120.008185 Y186.326222 Z-0.125000
G01 X126.820218 Y179.818247 Z-0.125000
G01 X129.230754 Y177.632342 Z-0.125000
G01 X131.616605 Y175.709009 Z-0.125000
G01 X133.724803 Y174.287325 Z-0.125000
G01 X135.761007 Y173.218436 Z-0.125000
G01 X137.810440 Y172.486970 Z-0.125000
G01 X139.820186 Y172.134334 Z-0.125000
G01 X141.829959 Y172.159099 Z-0.125000
G01 X143.839705 Y172.564334 Z-0.125000
G01 X145.942028 Y173.384488 Z-0.125000
G01 X148.070784 Y174.600962 Z-0.125000
G01 X150.209832 Y176.171897 Z-0.125000
G01 X152.143192 Y177.845305 Z-0.125000
G01 X154.216412 Y179.848225 Z-0.125000
G01 X160.806301 Y186.825040 Z-0.125000
G01 X163.175695 Y189.220231 Z-0.125000
G01 X165.512201 Y191.346473 Z-0.125000
G01 X167.568963 Y192.946591 Z-0.125000
G01 X169.636018 Y194.238074 Z-0.125000
G01 X171.553213 Y195.110959 Z-0.125000
G01 X173.457205 Y195.639570 Z-0.125000
G01 X175.255417 Y195.813401 Z-0.125000
G01 X176.207413 Y195.774772 Z-0.125000
G01 X177.265163 Y195.625600 Z-0.125000
G01 X179.261706 Y195.043358 Z-0.125000
G01 X181.390462 Y194.006273 Z-0.125000
G01 X183.529510 Y192.565645 Z-0.125000
G01 X184.928122 Y191.430689 Z-0.125000
G01 X186.351393 Y190.139022 Z-0.125000
G01 X199.160967 Y177.704150 Z-0.125000
G00 Z3.000000

(End cutting path id: polyline632)


(Start cutting path id: polyline634)
(Change tool to Default tool)

G00 Z3.000000
G00 X2.945024 Y176.041219

G00 Z4.875000 (Fast pre-penetrate)
G01 Z-0.125000 F400.0(Penetrate)
G01 X5.589452 Y175.737795 Z-0.125000 F800.000000
G01 X8.233879 Y175.785394 Z-0.125000
G01 X10.878281 Y176.192984 Z-0.125000
G01 X13.522708 Y176.948633 Z-0.125000
G01 X16.087788 Y177.983258 Z-0.125000
G01 X18.771876 Y179.330991 Z-0.125000
G01 X21.548516 Y180.933518 Z-0.125000
G01 X28.675218 Y185.310355 Z-0.125000
G01 X30.896551 Y186.533443 Z-0.125000
G01 X32.840204 Y187.470702 Z-0.125000
G01 X35.101172 Y188.358907 Z-0.125000
G01 X37.322478 Y188.978931 Z-0.125000
G01 X39.438031 Y189.306458 Z-0.125000
G01 X41.447777 Y189.362523 Z-0.125000
G01 X43.563303 Y189.144772 Z-0.125000
G01 X45.678856 Y188.645292 Z-0.125000
G01 X47.834043 Y187.860539 Z-0.125000
G01 X50.147928 Y186.737304 Z-0.125000
G01 X52.091554 Y185.601635 Z-0.125000
G01 X54.199752 Y184.213394 Z-0.125000
G01 X61.028242 Y179.233625 Z-0.125000
G01 X63.475794 Y177.541722 Z-0.125000
G01 X65.882202 Y176.070773 Z-0.125000
G01 X68.010984 Y174.993153 Z-0.125000
G01 X70.219062 Y174.150403 Z-0.125000
G01 X72.334588 Y173.644176 Z-0.125000
G01 X74.450141 Y173.459021 Z-0.125000
G01 X76.565667 Y173.608352 Z-0.125000
G01 X78.469659 Y174.029330 Z-0.125000
G01 X80.320735 Y174.690391 Z-0.125000
G01 X82.264388 Y175.633761 Z-0.125000
G01 X84.300592 Y176.866453 Z-0.125000
G01 X86.038559 Y178.085996 Z-0.125000
G01 X88.013062 Y179.618196 Z-0.125000
G01 X96.486968 Y186.710714 Z-0.125000
G01 X98.646574 Y188.294296 Z-0.125000
G01 X100.682778 Y189.576148 Z-0.125000
G01 X102.718982 Y190.601566 Z-0.125000
G01 X104.702296 Y191.314167 Z-0.125000
G01 X106.606289 Y191.705432 Z-0.125000
G01 X108.510254 Y191.792983 Z-0.125000
G01 X110.625807 Y191.525992 Z-0.125000
G01 X112.741333 Y190.880542 Z-0.125000
G01 X114.936208 Y189.832238 Z-0.125000
G01 X117.136957 Y188.432408 Z-0.125000
G01 X119.111434 Y186.923491 Z-0.125000
G01 X121.250481 Y185.076967 Z-0.125000
G01 X128.004915 Y178.624422 Z-0.125000
G01 X130.464823 Y176.392718 Z-0.125000
G01 X132.768414 Y174.531085 Z-0.125000
G01 X134.928020 Y173.067015 Z-0.125000
G01 X137.056776 Y171.952168 Z-0.125000
G01 X139.079751 Y171.238270 Z-0.125000
G01 X141.089523 Y170.891614 Z-0.125000
G01 X143.099269 Y170.922120 Z-0.125000
G01 X145.109015 Y171.332779 Z-0.125000
G01 X147.145220 Y172.126079 Z-0.125000
G01 X149.274002 Y173.335302 Z-0.125000
G01 X151.443873 Y174.924282 Z-0.125000
G01 X153.327889 Y176.550436 Z-0.125000
G01 X155.401109 Y178.547058 Z-0.125000
G01 X162.065055 Y185.594756 Z-0.125000
G01 X164.434449 Y187.987591 Z-0.125000
G01 X166.746269 Y190.090656 Z-0.125000
G01 X168.803032 Y191.692388 Z-0.125000
G01 X170.839236 Y192.969610 Z-0.125000
G01 X172.716770 Y193.835960 Z-0.125000
G01 X174.620762 Y194.381345 Z-0.125000
G01 X176.524728 Y194.573221 Z-0.125000
G01 X178.428720 Y194.403835 Z-0.125000
G01 X180.438466 Y193.836225 Z-0.125000
G01 X182.501128 Y192.854913 Z-0.125000
G01 X184.599033 Y191.473737 Z-0.125000
G01 X185.997619 Y190.360081 Z-0.125000
G01 X187.536090 Y188.979063 Z-0.125000
G01 X199.160967 Y177.704150 Z-0.125000
G00 Z3.000000

(End cutting path id: polyline634)


(Start cutting path id: polyline636)
(Change tool to Default tool)

G00 Z3.000000
G00 X2.945024 Y179.435422

G00 Z4.875000 (Fast pre-penetrate)
G01 Z-0.125000 F400.0(Penetrate)
G01 X5.166331 Y179.586129 Z-0.125000 F800.000000
G01 X7.387664 Y179.988850 Z-0.125000
G01 X9.714750 Y180.670575 Z-0.125000
G01 X12.107930 Y181.624820 Z-0.125000
G01 X14.144134 Y182.610815 Z-0.125000
G01 X16.365468 Y183.831495 Z-0.125000
G01 X25.898578 Y189.595251 Z-0.125000
G01 X28.119911 Y190.748991 Z-0.125000
G01 X30.235438 Y191.675614 Z-0.125000
G01 X32.139430 Y192.332362 Z-0.125000
G01 X34.043395 Y192.796229 Z-0.125000
G01 X35.841607 Y193.040359 Z-0.125000
G01 X37.639819 Y193.085312 Z-0.125000
G01 X39.755346 Y192.876450 Z-0.125000
G01 X41.870898 Y192.386654 Z-0.125000
G01 X44.039315 Y191.606505 Z-0.125000
G01 X46.353172 Y190.492266 Z-0.125000
G01 X48.296826 Y189.363661 Z-0.125000
G01 X50.497574 Y187.918350 Z-0.125000
G01 X57.326038 Y182.944586 Z-0.125000
G01 X59.773616 Y181.255462 Z-0.125000
G01 X62.180025 Y179.787079 Z-0.125000
G01 X64.308780 Y178.711364 Z-0.125000
G01 X66.516884 Y177.870070 Z-0.125000
G01 X68.738191 Y177.347651 Z-0.125000
G01 X70.853717 Y177.179164 Z-0.125000
G01 X72.969270 Y177.344978 Z-0.125000
G01 X74.873235 Y177.780111 Z-0.125000
G01 X76.711108 Y178.448263 Z-0.125000
G01 X78.654762 Y179.401847 Z-0.125000
G01 X80.690966 Y180.643508 Z-0.125000
G01 X82.418640 Y181.861516 Z-0.125000
G01 X84.393143 Y183.397870 Z-0.125000
G01 X92.784790 Y190.422152 Z-0.125000
G01 X94.944396 Y192.006607 Z-0.125000
G01 X96.980600 Y193.289755 Z-0.125000
G01 X99.016805 Y194.316840 Z-0.125000
G01 X101.000119 Y195.031320 Z-0.125000
G01 X102.904085 Y195.424570 Z-0.125000
G01 X104.808077 Y195.514105 Z-0.125000
G01 X106.923603 Y195.249178 Z-0.125000
G01 X109.039156 Y194.605553 Z-0.125000
G01 X111.234004 Y193.558704 Z-0.125000
G01 X113.434753 Y192.159748 Z-0.125000
G01 X115.409256 Y190.651095 Z-0.125000
G01 X117.548304 Y188.804306 Z-0.125000
G01 X124.302737 Y182.347793 Z-0.125000
G01 X126.762645 Y180.114157 Z-0.125000
G01 X129.066210 Y178.250937 Z-0.125000
G01 X131.225816 Y176.785756 Z-0.125000
G01 X133.354572 Y175.670512 Z-0.125000
G01 X135.377573 Y174.956984 Z-0.125000
G01 X137.387319 Y174.611518 Z-0.125000
G01 X139.397092 Y174.644194 Z-0.125000
G01 X141.406838 Y175.057923 Z-0.125000
G01 X143.443042 Y175.855217 Z-0.125000
G01 X145.571797 Y177.069468 Z-0.125000
G01 X147.741696 Y178.664216 Z-0.125000
G01 X149.625685 Y180.295634 Z-0.125000
G01 X151.698931 Y182.297999 Z-0.125000
G01 X158.362851 Y189.359137 Z-0.125000
G01 X160.732271 Y191.753031 Z-0.125000
G01 X163.044065 Y193.854375 Z-0.125000
G01 X165.100827 Y195.451980 Z-0.125000
G01 X167.137032 Y196.722561 Z-0.125000
G01 X169.120346 Y197.619233 Z-0.125000
G01 X171.024338 Y198.134455 Z-0.125000
G01 X172.928330 Y198.293417 Z-0.125000
G01 X173.880326 Y198.236717 Z-0.125000
G01 X174.938076 Y198.067225 Z-0.125000
G01 X175.995853 Y197.786714 Z-0.125000
G01 X177.040400 Y197.402910 Z-0.125000
G01 X179.169155 Y196.305340 Z-0.125000
G01 X181.308203 Y194.808647 Z-0.125000
G01 X183.833912 Y192.603797 Z-0.125000
G01 X199.160967 Y177.704150 Z-0.125000
G00 Z3.000000

(End cutting path id: polyline636)


(Start cutting path id: polyline638)
(Change tool to Default tool)

G00 Z3.000000
G00 X2.945024 Y175.066389

G00 Z4.875000 (Fast pre-penetrate)
G01 Z-0.125000 F400.0(Penetrate)
G01 X5.801012 Y174.578869 Z-0.125000 F800.000000
G01 X7.281883 Y174.481317 Z-0.125000
G01 X8.656974 Y174.490525 Z-0.125000
G01 X10.032065 Y174.597443 Z-0.125000
G01 X11.512936 Y174.821809 Z-0.125000
G01 X14.368924 Y175.565102 Z-0.125000
G01 X17.013352 Y176.589567 Z-0.125000
G01 X19.882543 Y178.007230 Z-0.125000
G01 X22.659183 Y179.601739 Z-0.125000
G01 X30.063564 Y184.146137 Z-0.125000
G01 X32.192320 Y185.314139 Z-0.125000
G01 X34.135947 Y186.249016 Z-0.125000
G01 X36.370482 Y187.124389 Z-0.125000
G01 X38.591815 Y187.742667 Z-0.125000
G01 X40.707342 Y188.068025 Z-0.125000
G01 X42.717088 Y188.121550 Z-0.125000
G01 X44.832640 Y187.900729 Z-0.125000
G01 X46.948167 Y187.398021 Z-0.125000
G01 X49.129812 Y186.598557 Z-0.125000
G01 X51.351119 Y185.518953 Z-0.125000
G01 X53.294772 Y184.385929 Z-0.125000
G01 X55.423527 Y182.985412 Z-0.125000
G01 X62.262310 Y177.996752 Z-0.125000
G01 X64.679011 Y176.324270 Z-0.125000
G01 X67.085420 Y174.849431 Z-0.125000
G01 X69.214176 Y173.767790 Z-0.125000
G01 X71.488372 Y172.899693 Z-0.125000
G01 X73.603925 Y172.398335 Z-0.125000
G01 X75.719451 Y172.218497 Z-0.125000
G01 X77.729224 Y172.357721 Z-0.125000
G01 X79.633189 Y172.768962 Z-0.125000
G01 X81.523953 Y173.437617 Z-0.125000
G01 X83.467606 Y174.377521 Z-0.125000
G01 X85.503810 Y175.607012 Z-0.125000
G01 X87.272627 Y176.847377 Z-0.125000
G01 X89.247130 Y178.379815 Z-0.125000
G01 X97.721036 Y185.472836 Z-0.125000
G01 X99.942342 Y187.098328 Z-0.125000
G01 X101.978547 Y188.372771 Z-0.125000
G01 X104.014751 Y189.389220 Z-0.125000
G01 X105.971607 Y190.084676 Z-0.125000
G01 X107.875599 Y190.469962 Z-0.125000
G01 X109.779591 Y190.551348 Z-0.125000
G01 X111.895118 Y190.277504 Z-0.125000
G01 X114.010644 Y189.625519 Z-0.125000
G01 X116.139399 Y188.608118 Z-0.125000
G01 X118.453283 Y187.132565 Z-0.125000
G01 X120.345502 Y185.682227 Z-0.125000
G01 X122.484549 Y183.836046 Z-0.125000
G01 X129.263669 Y177.361726 Z-0.125000
G01 X131.698891 Y175.153755 Z-0.125000
G01 X134.002456 Y173.292546 Z-0.125000
G01 X136.131211 Y171.847208 Z-0.125000
G01 X138.259993 Y170.727149 Z-0.125000
G01 X140.243307 Y170.018172 Z-0.125000
G01 X142.253053 Y169.657678 Z-0.125000
G01 X144.262826 Y169.673712 Z-0.125000
G01 X146.272572 Y170.069687 Z-0.125000
G01 X148.348437 Y170.867166 Z-0.125000
G01 X150.477193 Y172.068902 Z-0.125000
G01 X152.677941 Y173.675662 Z-0.125000
G01 X154.570186 Y175.307425 Z-0.125000
G01 X156.659862 Y177.318996 Z-0.125000
G01 X163.323782 Y184.362937 Z-0.125000
G01 X165.693202 Y186.753709 Z-0.125000
G01 X167.980311 Y188.833728 Z-0.125000
G01 X170.037100 Y190.437127 Z-0.125000
G01 X172.042453 Y191.700061 Z-0.125000
G01 X173.986080 Y192.599882 Z-0.125000
G01 X175.890072 Y193.142965 Z-0.125000
G01 X177.688284 Y193.331903 Z-0.125000
G01 X179.592250 Y193.181356 Z-0.125000
G01 X181.602022 Y192.633907 Z-0.125000
G01 X183.611768 Y191.702257 Z-0.125000
G01 X185.668557 Y190.379686 Z-0.125000
G01 X187.149428 Y189.219040 Z-0.125000
G01 X188.720787 Y187.820401 Z-0.125000
G01 X199.160967 Y177.704150 Z-0.125000
G00 Z3.000000

(End cutting path id: polyline638)


(Start cutting path id: polyline640)
(Change tool to Default tool)

G00 Z3.000000
G00 X2.945024 Y180.731350

G00 Z4.875000 (Fast pre-penetrate)
G01 Z-0.125000 F400.0(Penetrate)
G01 X4.954796 Y180.988101 Z-0.125000 F800.000000
G01 X7.070323 Y181.477924 Z-0.125000
G01 X9.185849 Y182.180762 Z-0.125000
G01 X11.460072 Y183.150247 Z-0.125000
G01 X13.403699 Y184.128304 Z-0.125000
G01 X15.439903 Y185.269054 Z-0.125000
G01 X24.325156 Y190.659483 Z-0.125000
G01 X26.546463 Y191.834681 Z-0.125000
G01 X28.675218 Y192.793980 Z-0.125000
G01 X30.764312 Y193.536082 Z-0.125000
G01 X32.668305 Y194.012649 Z-0.125000
G01 X34.572297 Y194.279084 Z-0.125000
G01 X36.370482 Y194.326153 Z-0.125000
G01 X38.486035 Y194.120228 Z-0.125000
G01 X40.707342 Y193.602122 Z-0.125000
G01 X42.928648 Y192.789561 Z-0.125000
G01 X45.149955 Y191.710539 Z-0.125000
G01 X47.093608 Y190.579208 Z-0.125000
G01 X49.222363 Y189.181549 Z-0.125000
G01 X56.091996 Y184.181565 Z-0.125000
G01 X58.477847 Y182.534033 Z-0.125000
G01 X60.884256 Y181.060597 Z-0.125000
G01 X63.105563 Y179.937177 Z-0.125000
G01 X65.353327 Y179.088342 Z-0.125000
G01 X67.574634 Y178.577009 Z-0.125000
G01 X69.690187 Y178.419503 Z-0.125000
G01 X71.805713 Y178.596324 Z-0.125000
G01 X73.603925 Y179.009338 Z-0.125000
G01 X75.507891 Y179.700719 Z-0.125000
G01 X77.451544 Y180.657663 Z-0.125000
G01 X79.487748 Y181.902129 Z-0.125000
G01 X81.266857 Y183.160407 Z-0.125000
G01 X83.159102 Y184.634928 Z-0.125000
G01 X91.550722 Y191.658601 Z-0.125000
G01 X93.741178 Y193.264514 Z-0.125000
G01 X95.777383 Y194.544567 Z-0.125000
G01 X97.813587 Y195.568106 Z-0.125000
G01 X99.836562 Y196.289915 Z-0.125000
G01 X101.740554 Y196.672952 Z-0.125000
G01 X103.644520 Y196.751903 Z-0.125000
G01 X105.760073 Y196.475123 Z-0.125000
G01 X107.875599 Y195.819963 Z-0.125000
G01 X110.030813 Y194.784305 Z-0.125000
G01 X112.282970 Y193.344789 Z-0.125000
G01 X114.175188 Y191.894953 Z-0.125000
G01 X116.306007 Y190.055731 Z-0.125000
G01 X123.118041 Y183.544105 Z-0.125000
G01 X125.528577 Y181.356189 Z-0.125000
G01 X127.914428 Y179.430924 Z-0.125000
G01 X130.022625 Y178.007838 Z-0.125000
G01 X132.058829 Y176.938103 Z-0.125000
G01 X134.108236 Y176.206478 Z-0.125000
G01 X136.118009 Y175.854476 Z-0.125000
G01 X138.127755 Y175.880750 Z-0.125000
G01 X140.137527 Y176.288445 Z-0.125000
G01 X142.239824 Y177.112066 Z-0.125000
G01 X144.368580 Y178.332931 Z-0.125000
G01 X146.507628 Y179.908946 Z-0.125000
G01 X148.366958 Y181.519146 Z-0.125000
G01 X150.440178 Y183.520822 Z-0.125000
G01 X157.104124 Y190.585188 Z-0.125000
G01 X159.473517 Y192.981648 Z-0.125000
G01 X161.809997 Y195.106594 Z-0.125000
G01 X163.866786 Y196.703088 Z-0.125000
G01 X165.933841 Y197.988458 Z-0.125000
G01 X167.851035 Y198.853354 Z-0.125000
G01 X169.755028 Y199.371883 Z-0.125000
G01 X171.658993 Y199.533808 Z-0.125000
G01 X172.716770 Y199.466604 Z-0.125000
G01 X173.774546 Y199.287164 Z-0.125000
G01 X175.837182 Y198.619912 Z-0.125000
G01 X177.965938 Y197.510621 Z-0.125000
G01 X180.156394 Y195.961964 Z-0.125000
G01 X182.649216 Y193.768174 Z-0.125000
G01 X199.160967 Y177.704150 Z-0.125000
G00 Z3.000000

(End cutting path id: polyline640)


(Start cutting path id: polyline642)
(Change tool to Default tool)

G00 Z3.000000
G00 X2.945024 Y174.163368

G00 Z4.875000 (Fast pre-penetrate)
G01 Z-0.125000 F400.0(Penetrate)
G01 X4.531675 Y173.755857 Z-0.125000 F800.000000
G01 X6.118327 Y173.459894 Z-0.125000
G01 X7.704978 Y173.283894 Z-0.125000
G01 X9.185849 Y173.233226 Z-0.125000
G01 X10.666720 Y173.295350 Z-0.125000
G01 X12.147618 Y173.471166 Z-0.125000
G01 X13.628489 Y173.759561 Z-0.125000
G01 X15.215140 Y174.189800 Z-0.125000
G01 X18.031441 Y175.240379 Z-0.125000
G01 X20.993183 Y176.684182 Z-0.125000
G01 X23.862400 Y178.326026 Z-0.125000
G01 X31.266756 Y182.875107 Z-0.125000
G01 X33.488062 Y184.094967 Z-0.125000
G01 X35.431715 Y185.027490 Z-0.125000
G01 X37.745600 Y185.925352 Z-0.125000
G01 X39.861126 Y186.506509 Z-0.125000
G01 X41.976652 Y186.829591 Z-0.125000
G01 X43.986425 Y186.880497 Z-0.125000
G01 X46.101951 Y186.656659 Z-0.125000
G01 X48.217504 Y186.150644 Z-0.125000
G01 X50.425581 Y185.336364 Z-0.125000
G01 X52.646888 Y184.250409 Z-0.125000
G01 X54.590541 Y183.112491 Z-0.125000
G01 X56.719296 Y181.707767 Z-0.125000
G01 X63.496352 Y176.759800 Z-0.125000
G01 X65.882202 Y175.106818 Z-0.125000
G01 X68.288638 Y173.628275 Z-0.125000
G01 X70.417393 Y172.542532 Z-0.125000
G01 X72.651929 Y171.681976 Z-0.125000
G01 X74.767455 Y171.169902 Z-0.125000
G01 X76.883008 Y170.978900 Z-0.125000
G01 X78.892754 Y171.107461 Z-0.125000
G01 X80.796746 Y171.508806 Z-0.125000
G01 X82.700712 Y172.173809 Z-0.125000
G01 X84.670823 Y173.121069 Z-0.125000
G01 X86.707028 Y174.347385 Z-0.125000
G01 X88.506695 Y175.608361 Z-0.125000
G01 X90.481198 Y177.141091 Z-0.125000
G01 X99.037363 Y184.298378 Z-0.125000
G01 X101.238111 Y185.901804 Z-0.125000
G01 X103.181764 Y187.116399 Z-0.125000
G01 X105.217969 Y188.136763 Z-0.125000
G01 X107.240944 Y188.854947 Z-0.125000
G01 X109.144910 Y189.234306 Z-0.125000
G01 X111.048902 Y189.309607 Z-0.125000
G01 X113.058674 Y189.052168 Z-0.125000
G01 X115.174201 Y188.412326 Z-0.125000
G01 X117.342617 Y187.384369 Z-0.125000
G01 X119.605066 Y185.950117 Z-0.125000
G01 X121.579570 Y184.441650 Z-0.125000
G01 X123.710389 Y182.603248 Z-0.125000
G01 X130.522422 Y176.099930 Z-0.125000
G01 X132.932932 Y173.915665 Z-0.125000
G01 X135.318809 Y171.993470 Z-0.125000
G01 X137.426980 Y170.572130 Z-0.125000
G01 X139.463185 Y169.502765 Z-0.125000
G01 X141.512618 Y168.769949 Z-0.125000
G01 X143.522364 Y168.414985 Z-0.125000
G01 X145.532136 Y168.436389 Z-0.125000
G01 X147.541882 Y168.837312 Z-0.125000
G01 X149.644206 Y169.651989 Z-0.125000
G01 X151.772962 Y170.862139 Z-0.125000
G01 X153.912009 Y172.426195 Z-0.125000
G01 X155.845370 Y174.093253 Z-0.125000
G01 X157.918590 Y176.089611 Z-0.125000
G01 X164.582536 Y183.129583 Z-0.125000
G01 X166.951929 Y185.518318 Z-0.125000
G01 X169.214379 Y187.575503 Z-0.125000
G01 X171.271141 Y189.180755 Z-0.125000
G01 X173.338196 Y190.480281 Z-0.125000
G01 X175.255417 Y191.363221 Z-0.125000
G01 X177.159383 Y191.904240 Z-0.125000
G01 X178.957595 Y192.091776 Z-0.125000
G01 X180.861587 Y191.940303 Z-0.125000
G01 X182.765553 Y191.431060 Z-0.125000
G01 X184.722435 Y190.548199 Z-0.125000
G01 X186.738081 Y189.283625 Z-0.125000
G01 X188.301211 Y188.078423 Z-0.125000
G01 X189.905484 Y186.662718 Z-0.125000
G01 X199.160967 Y177.704150 Z-0.125000
G00 Z3.000000

(End cutting path id: polyline642)


(Start cutting path id: polyline644)
(Change tool to Default tool)

G00 Z3.000000
G00 X2.945024 Y173.326783

G00 Z4.875000 (Fast pre-penetrate)
G01 Z-0.125000 F400.0(Penetrate)
G01 X4.637456 Y172.807115 Z-0.125000 F800.000000
G01 X6.329887 Y172.405928 Z-0.125000
G01 X8.022319 Y172.135339 Z-0.125000
G01 X9.608970 Y172.008524 Z-0.125000
G01 X11.195622 Y172.009583 Z-0.125000
G01 X12.782273 Y172.141239 Z-0.125000
G01 X14.368924 Y172.403176 Z-0.125000
G01 X16.061356 Y172.822831 Z-0.125000
G01 X18.956979 Y173.854652 Z-0.125000
G01 X22.103849 Y175.361955 Z-0.125000
G01 X25.065592 Y177.050630 Z-0.125000
G01 X32.655076 Y181.711180 Z-0.125000
G01 X34.783831 Y182.875954 Z-0.125000
G01 X36.820035 Y183.846418 Z-0.125000
G01 X39.120690 Y184.725627 Z-0.125000
G01 X41.236217 Y185.292655 Z-0.125000
G01 X43.351769 Y185.599915 Z-0.125000
G01 X45.361515 Y185.634813 Z-0.125000
G01 X47.477042 Y185.393593 Z-0.125000
G01 X49.592594 Y184.870407 Z-0.125000
G01 X51.721350 Y184.073800 Z-0.125000
G01 X53.942656 Y182.981496 Z-0.125000
G01 X55.886310 Y181.838868 Z-0.125000
G01 X57.984215 Y180.451315 Z-0.125000
G01 X64.730420 Y175.522927 Z-0.125000
G01 X67.085420 Y173.889418 Z-0.125000
G01 X69.491855 Y172.407039 Z-0.125000
G01 X71.620611 Y171.317248 Z-0.125000
G01 X73.815486 Y170.464524 Z-0.125000
G01 X75.931012 Y169.941814 Z-0.125000
G01 X78.046538 Y169.739646 Z-0.125000
G01 X80.056311 Y169.857438 Z-0.125000
G01 X81.960276 Y170.248915 Z-0.125000
G01 X83.837837 Y170.893677 Z-0.125000
G01 X85.874041 Y171.864485 Z-0.125000
G01 X87.910219 Y173.087600 Z-0.125000
G01 X89.658477 Y174.308227 Z-0.125000
G01 X91.632981 Y175.835744 Z-0.125000
G01 X100.271431 Y183.059548 Z-0.125000
G01 X102.441329 Y184.641860 Z-0.125000
G01 X104.477533 Y185.912123 Z-0.125000
G01 X106.513711 Y186.923756 Z-0.125000
G01 X108.510254 Y187.624795 Z-0.125000
G01 X110.414247 Y187.998360 Z-0.125000
G01 X112.318212 Y188.067707 Z-0.125000
G01 X114.433765 Y187.780555 Z-0.125000
G01 X116.549291 Y187.115949 Z-0.125000
G01 X118.638386 Y186.109370 Z-0.125000
G01 X120.921393 Y184.651358 Z-0.125000
G01 X122.813638 Y183.201497 Z-0.125000
G01 X124.952686 Y181.356083 Z-0.125000
G01 X131.707119 Y174.908486 Z-0.125000
G01 X134.167000 Y172.678343 Z-0.125000
G01 X136.470592 Y170.817583 Z-0.125000
G01 X138.630198 Y169.353487 Z-0.125000
G01 X140.758953 Y168.237740 Z-0.125000
G01 X142.781928 Y167.521964 Z-0.125000
G01 X144.791701 Y167.172397 Z-0.125000
G01 X146.695667 Y167.188060 Z-0.125000
G01 X148.705439 Y167.573928 Z-0.125000
G01 X150.754873 Y168.348230 Z-0.125000
G01 X152.883628 Y169.534382 Z-0.125000
G01 X155.146077 Y171.175644 Z-0.125000
G01 X157.030067 Y172.795156 Z-0.125000
G01 X159.177343 Y174.858983 Z-0.125000
G01 X165.841289 Y181.894880 Z-0.125000
G01 X168.210683 Y184.281498 Z-0.125000
G01 X170.448447 Y186.315956 Z-0.125000
G01 X172.505209 Y187.923298 Z-0.125000
G01 X174.541413 Y189.209065 Z-0.125000
G01 X176.418947 Y190.085867 Z-0.125000
G01 X178.322940 Y190.644349 Z-0.125000
G01 X180.121151 Y190.849427 Z-0.125000
G01 X182.025117 Y190.717294 Z-0.125000
G01 X183.929109 Y190.227710 Z-0.125000
G01 X185.833102 Y189.392606 Z-0.125000
G01 X187.776728 Y188.206454 Z-0.125000
G01 X189.370735 Y187.004983 Z-0.125000
G01 X191.016150 Y185.574409 Z-0.125000
G01 X199.160967 Y177.704070 Z-0.125000
G00 Z3.000000

(End cutting path id: polyline644)


(Start cutting path id: polyline646)
(Change tool to Default tool)

G00 Z3.000000
G00 X2.945024 Y182.110753

G00 Z4.875000 (Fast pre-penetrate)
G01 Z-0.125000 F400.0(Penetrate)
G01 X4.849016 Y182.471697 Z-0.125000 F800.000000
G01 X6.752982 Y183.010203 Z-0.125000
G01 X8.656974 Y183.714444 Z-0.125000
G01 X10.719610 Y184.644003 Z-0.125000
G01 X14.421814 Y186.654278 Z-0.125000
G01 X22.936836 Y191.826479 Z-0.125000
G01 X25.158143 Y193.009694 Z-0.125000
G01 X27.194347 Y193.941529 Z-0.125000
G01 X29.283441 Y194.706174 Z-0.125000
G01 X31.293214 Y195.228249 Z-0.125000
G01 X33.302960 Y195.517756 Z-0.125000
G01 X35.206952 Y195.563555 Z-0.125000
G01 X37.322478 Y195.346359 Z-0.125000
G01 X39.438031 Y194.849155 Z-0.125000
G01 X41.632879 Y194.051331 Z-0.125000
G01 X43.854212 Y192.978659 Z-0.125000
G01 X45.797839 Y191.852170 Z-0.125000
G01 X47.926595 Y190.458823 Z-0.125000
G01 X54.857928 Y185.418755 Z-0.125000
G01 X57.367181 Y183.691266 Z-0.125000
G01 X59.773616 Y182.230530 Z-0.125000
G01 X61.902371 Y181.163017 Z-0.125000
G01 X64.189797 Y180.306959 Z-0.125000
G01 X66.305324 Y179.822639 Z-0.125000
G01 X68.420850 Y179.659656 Z-0.125000
G01 X70.536403 Y179.830603 Z-0.125000
G01 X72.334588 Y180.238617 Z-0.125000
G01 X74.212148 Y180.913489 Z-0.125000
G01 X76.155775 Y181.862204 Z-0.125000
G01 X78.191979 Y183.099103 Z-0.125000
G01 X79.950530 Y184.336505 Z-0.125000
G01 X81.842749 Y185.805337 Z-0.125000
G01 X90.398913 Y192.958365 Z-0.125000
G01 X92.537961 Y194.521945 Z-0.125000
G01 X94.574165 Y195.799113 Z-0.125000
G01 X96.610369 Y196.819134 Z-0.125000
G01 X98.567252 Y197.518585 Z-0.125000
G01 X100.471217 Y197.908078 Z-0.125000
G01 X102.375210 Y197.993724 Z-0.125000
G01 X104.490736 Y197.724404 Z-0.125000
G01 X106.606289 Y197.076388 Z-0.125000
G01 X108.735044 Y196.062162 Z-0.125000
G01 X111.048902 Y194.588884 Z-0.125000
G01 X112.941120 Y193.139340 Z-0.125000
G01 X115.080168 Y191.292868 Z-0.125000
G01 X121.859287 Y184.810955 Z-0.125000
G01 X124.294509 Y182.599015 Z-0.125000
G01 X126.680360 Y180.673036 Z-0.125000
G01 X128.819407 Y179.230635 Z-0.125000
G01 X130.948163 Y178.124599 Z-0.125000
G01 X132.944706 Y177.428243 Z-0.125000
G01 X134.954452 Y177.089179 Z-0.125000
G01 X136.964225 Y177.128946 Z-0.125000
G01 X138.973971 Y177.550348 Z-0.125000
G01 X141.036633 Y178.368518 Z-0.125000
G01 X143.072837 Y179.534826 Z-0.125000
G01 X145.273559 Y181.152619 Z-0.125000
G01 X147.108204 Y182.741598 Z-0.125000
G01 X149.181424 Y184.742534 Z-0.125000
G01 X155.845370 Y191.809943 Z-0.125000
G01 X158.214764 Y194.208970 Z-0.125000
G01 X160.493670 Y196.287957 Z-0.125000
G01 X162.632718 Y197.953269 Z-0.125000
G01 X164.730623 Y199.253456 Z-0.125000
G01 X166.687505 Y200.124913 Z-0.125000
G01 X168.591471 Y200.627700 Z-0.125000
G01 X170.495463 Y200.772692 Z-0.125000
G01 X171.447459 Y200.708583 Z-0.125000
G01 X172.505209 Y200.530545 Z-0.125000
G01 X173.562986 Y200.241277 Z-0.125000
G01 X174.620762 Y199.842947 Z-0.125000
G01 X176.762720 Y198.716538 Z-0.125000
G01 X179.004611 Y197.115440 Z-0.125000
G01 X181.390462 Y195.004809 Z-0.125000
G01 X199.160967 Y177.704150 Z-0.125000
G00 Z3.000000

(End cutting path id: polyline646)


(Start cutting path id: polyline648)
(Change tool to Default tool)

G00 Z3.000000
G00 X2.945024 Y172.550576

G00 Z4.875000 (Fast pre-penetrate)
G01 Z-0.125000 F400.0(Penetrate)
G01 X4.849016 Y171.882186 Z-0.125000 F800.000000
G01 X6.647228 Y171.378261 Z-0.125000
G01 X8.445414 Y171.014671 Z-0.125000
G01 X10.137845 Y170.812265 Z-0.125000
G01 X11.830277 Y170.753369 Z-0.125000
G01 X13.522708 Y170.842401 Z-0.125000
G01 X15.215140 Y171.080341 Z-0.125000
G01 X16.907572 Y171.464595 Z-0.125000
G01 X19.869314 Y172.468449 Z-0.125000
G01 X23.121938 Y173.991918 Z-0.125000
G01 X26.268809 Y175.775578 Z-0.125000
G01 X33.950844 Y180.494204 Z-0.125000
G01 X36.172151 Y181.704592 Z-0.125000
G01 X38.115804 Y182.624917 Z-0.125000
G01 X40.390001 Y183.491294 Z-0.125000
G01 X42.505554 Y184.056470 Z-0.125000
G01 X44.621080 Y184.361402 Z-0.125000
G01 X46.630852 Y184.393628 Z-0.125000
G01 X48.640598 Y184.168256 Z-0.125000
G01 X50.756125 Y183.655627 Z-0.125000
G01 X52.924567 Y182.851480 Z-0.125000
G01 X55.145874 Y181.763223 Z-0.125000
G01 X57.089527 Y180.623267 Z-0.125000
G01 X59.218283 Y179.216268 Z-0.125000
G01 X65.964488 Y174.286240 Z-0.125000
G01 X68.381189 Y172.611192 Z-0.125000
G01 X70.695047 Y171.186200 Z-0.125000
G01 X72.823828 Y170.092388 Z-0.125000
G01 X74.979016 Y169.247707 Z-0.125000
G01 X77.094542 Y168.714307 Z-0.125000
G01 X79.210095 Y168.500895 Z-0.125000
G01 X81.219841 Y168.607945 Z-0.125000
G01 X83.123833 Y168.989421 Z-0.125000
G01 X85.027825 Y169.635638 Z-0.125000
G01 X86.984681 Y170.558213 Z-0.125000
G01 X89.113436 Y171.827682 Z-0.125000
G01 X90.892545 Y173.068867 Z-0.125000
G01 X92.867049 Y174.596464 Z-0.125000
G01 X101.505499 Y181.820558 Z-0.125000
G01 X103.737071 Y183.444542 Z-0.125000
G01 X105.773275 Y184.707529 Z-0.125000
G01 X107.809480 Y185.710299 Z-0.125000
G01 X109.779591 Y186.394537 Z-0.125000
G01 X111.683557 Y186.762440 Z-0.125000
G01 X113.587549 Y186.825860 Z-0.125000
G01 X115.597295 Y186.556039 Z-0.125000
G01 X117.712848 Y185.903762 Z-0.125000
G01 X119.841603 Y184.886493 Z-0.125000
G01 X122.155461 Y183.411628 Z-0.125000
G01 X124.047706 Y181.962216 Z-0.125000
G01 X126.186727 Y180.117411 Z-0.125000
G01 X132.965846 Y173.648410 Z-0.125000
G01 X135.401068 Y171.441841 Z-0.125000
G01 X137.704660 Y169.581213 Z-0.125000
G01 X139.833416 Y168.135585 Z-0.125000
G01 X141.962171 Y167.014176 Z-0.125000
G01 X143.945485 Y166.302871 Z-0.125000
G01 X145.955231 Y165.938937 Z-0.125000
G01 X147.965004 Y165.950447 Z-0.125000
G01 X149.974750 Y166.340865 Z-0.125000
G01 X152.050641 Y167.131651 Z-0.125000
G01 X154.179397 Y168.325767 Z-0.125000
G01 X156.380145 Y169.924219 Z-0.125000
G01 X158.272364 Y171.548864 Z-0.125000
G01 X160.362040 Y173.552975 Z-0.125000
G01 X167.100017 Y180.658880 Z-0.125000
G01 X169.469410 Y183.043620 Z-0.125000
G01 X171.764774 Y185.125068 Z-0.125000
G01 X173.821536 Y186.723255 Z-0.125000
G01 X175.837182 Y187.987724 Z-0.125000
G01 X177.688284 Y188.848227 Z-0.125000
G01 X179.592250 Y189.405174 Z-0.125000
G01 X181.390462 Y189.609353 Z-0.125000
G01 X183.188674 Y189.493651 Z-0.125000
G01 X184.986886 Y189.059258 Z-0.125000
G01 X186.851190 Y188.282522 Z-0.125000
G01 X188.794844 Y187.139814 Z-0.125000
G01 X190.440259 Y185.929956 Z-0.125000
G01 X192.126817 Y184.485941 Z-0.125000
G01 X199.160967 Y177.704150 Z-0.125000
G00 Z3.000000

(End cutting path id: polyline648)


(Start cutting path id: polyline628)
(Change tool to Default tool)

G00 Z3.000000
G00 X2.945024 Y183.572786

G00 Z4.875000 (Fast pre-penetrate)
G01 Z-0.125000 F400.0(Penetrate)
G01 X4.637456 Y183.991197 Z-0.125000 F800.000000
G01 X6.329887 Y184.545049 Z-0.125000
G01 X8.128099 Y185.270297 Z-0.125000
G01 X9.979175 Y186.147099 Z-0.125000
G01 X13.403699 Y188.040667 Z-0.125000
G01 X21.455965 Y192.940850 Z-0.125000
G01 X23.677272 Y194.137850 Z-0.125000
G01 X25.713476 Y195.087068 Z-0.125000
G01 X27.908351 Y195.907963 Z-0.125000
G01 X29.918097 Y196.443108 Z-0.125000
G01 X31.927869 Y196.747167 Z-0.125000
G01 X33.937615 Y196.804476 Z-0.125000
G01 X36.053168 Y196.590137 Z-0.125000
G01 X38.168694 Y196.096081 Z-0.125000
G01 X40.337111 Y195.312836 Z-0.125000
G01 X42.650995 Y194.196799 Z-0.125000
G01 X44.594648 Y193.067797 Z-0.125000
G01 X46.713111 Y191.679635 Z-0.125000
G01 X53.623860 Y186.655866 Z-0.125000
G01 X56.071412 Y184.969705 Z-0.125000
G01 X58.385296 Y183.555800 Z-0.125000
G01 X60.606603 Y182.430131 Z-0.125000
G01 X62.814680 Y181.590213 Z-0.125000
G01 X65.036013 Y181.068428 Z-0.125000
G01 X67.151539 Y180.899863 Z-0.125000
G01 X69.267066 Y181.064962 Z-0.125000
G01 X71.171058 Y181.498958 Z-0.125000
G01 X73.008931 Y182.165681 Z-0.125000
G01 X74.952584 Y183.117518 Z-0.125000
G01 X76.988788 Y184.357195 Z-0.125000
G01 X78.716462 Y185.573589 Z-0.125000
G01 X80.690966 Y187.108223 Z-0.125000
G01 X89.164871 Y194.194021 Z-0.125000
G01 X91.334743 Y195.779005 Z-0.125000
G01 X93.370947 Y197.053210 Z-0.125000
G01 X95.407152 Y198.069871 Z-0.125000
G01 X97.403695 Y198.776704 Z-0.125000
G01 X99.307687 Y199.156169 Z-0.125000
G01 X101.211653 Y199.231443 Z-0.125000
G01 X103.327206 Y198.950509 Z-0.125000
G01 X105.442732 Y198.291274 Z-0.125000
G01 X107.531826 Y197.288769 Z-0.125000
G01 X109.814834 Y195.833483 Z-0.125000
G01 X111.707078 Y194.384362 Z-0.125000
G01 X113.846100 Y192.538154 Z-0.125000
G01 X120.600560 Y186.078731 Z-0.125000
G01 X123.060441 Y183.842766 Z-0.125000
G01 X125.364033 Y181.977139 Z-0.125000
G01 X127.523639 Y180.509841 Z-0.125000
G01 X129.652394 Y179.392824 Z-0.125000
G01 X131.675369 Y178.678133 Z-0.125000
G01 X133.685142 Y178.332190 Z-0.125000
G01 X135.694888 Y178.365157 Z-0.125000
G01 X137.704660 Y178.780076 Z-0.125000
G01 X139.740864 Y179.579461 Z-0.125000
G01 X141.869620 Y180.796781 Z-0.125000
G01 X144.039518 Y182.395471 Z-0.125000
G01 X145.923508 Y184.030779 Z-0.125000
G01 X147.996727 Y186.037641 Z-0.125000
G01 X154.586617 Y193.033269 Z-0.125000
G01 X156.956037 Y195.434809 Z-0.125000
G01 X159.259602 Y197.537662 Z-0.125000
G01 X161.398650 Y199.202339 Z-0.125000
G01 X163.434854 Y200.468183 Z-0.125000
G01 X165.418168 Y201.358055 Z-0.125000
G01 X167.427941 Y201.882459 Z-0.125000
G01 X169.331906 Y202.010834 Z-0.125000
G01 X170.389683 Y201.924395 Z-0.125000
G01 X171.447459 Y201.725508 Z-0.125000
G01 X173.523325 Y201.014600 Z-0.125000
G01 X175.652080 Y199.864934 Z-0.125000
G01 X177.935087 Y198.202480 Z-0.125000
G01 X180.131735 Y196.242607 Z-0.125000
G01 X199.160967 Y177.704150 Z-0.125000
G00 Z3.000000

(End cutting path id: polyline628)


(Start cutting path id: polyline650)
(Change tool to Default tool)

G00 Z3.000000
G00 X2.945024 Y171.827867

G00 Z4.875000 (Fast pre-penetrate)
G01 Z-0.125000 F400.0(Penetrate)
G01 X5.060577 Y171.001601 Z-0.125000 F800.000000
G01 X6.964542 Y170.391023 Z-0.125000
G01 X8.868535 Y169.928690 Z-0.125000
G01 X10.666720 Y169.643999 Z-0.125000
G01 X12.464932 Y169.518137 Z-0.125000
G01 X14.263144 Y169.558142 Z-0.125000
G01 X16.061356 Y169.766580 Z-0.125000
G01 X17.859568 Y170.141547 Z-0.125000
G01 X19.340439 Y170.570939 Z-0.125000
G01 X20.927090 Y171.144687 Z-0.125000
G01 X24.325156 Y172.720253 Z-0.125000
G01 X27.472027 Y174.500738 Z-0.125000
G01 X35.246613 Y179.277307 Z-0.125000
G01 X37.467920 Y180.485790 Z-0.125000
G01 X39.411573 Y181.403417 Z-0.125000
G01 X41.659338 Y182.256962 Z-0.125000
G01 X43.880644 Y182.841796 Z-0.125000
G01 X45.996171 Y183.130721 Z-0.125000
G01 X48.005943 Y183.146754 Z-0.125000
G01 X50.015689 Y182.904820 Z-0.125000
G01 X52.131242 Y182.374966 Z-0.125000
G01 X54.220336 Y181.588916 Z-0.125000
G01 X56.441643 Y180.494310 Z-0.125000
G01 X58.385296 Y179.349486 Z-0.125000
G01 X60.421500 Y178.002441 Z-0.125000
G01 X67.198556 Y173.049420 Z-0.125000
G01 X69.584407 Y171.393951 Z-0.125000
G01 X71.898264 Y169.965414 Z-0.125000
G01 X74.027020 Y168.867474 Z-0.125000
G01 X76.142572 Y168.031154 Z-0.125000
G01 X78.258099 Y167.487092 Z-0.125000
G01 X80.373625 Y167.262461 Z-0.125000
G01 X82.383397 Y167.358690 Z-0.125000
G01 X84.287363 Y167.730164 Z-0.125000
G01 X86.191355 Y168.366857 Z-0.125000
G01 X88.187899 Y169.301602 Z-0.125000
G01 X90.316654 Y170.567579 Z-0.125000
G01 X92.126614 Y171.829031 Z-0.125000
G01 X94.101117 Y173.356839 Z-0.125000
G01 X102.739540 Y180.581225 Z-0.125000
G01 X104.940289 Y182.184175 Z-0.125000
G01 X106.976493 Y183.450443 Z-0.125000
G01 X109.012697 Y184.457287 Z-0.125000
G01 X111.048902 Y185.163988 Z-0.125000
G01 X112.952894 Y185.526202 Z-0.125000
G01 X114.856860 Y185.583881 Z-0.125000
G01 X116.866632 Y185.308001 Z-0.125000
G01 X118.982158 Y184.649745 Z-0.125000
G01 X121.137372 Y183.612235 Z-0.125000
G01 X123.389529 Y182.172348 Z-0.125000
G01 X125.281747 Y180.723518 Z-0.125000
G01 X127.412567 Y178.886783 Z-0.125000
G01 X134.150543 Y172.458898 Z-0.125000
G01 X136.552851 Y170.277278 Z-0.125000
G01 X138.774184 Y168.469171 Z-0.125000
G01 X140.851504 Y167.032459 Z-0.125000
G01 X142.887709 Y165.918062 Z-0.125000
G01 X144.791701 Y165.177520 Z-0.125000
G01 X146.695667 Y164.755008 Z-0.125000
G01 X148.493879 Y164.662589 Z-0.125000
G01 X150.503651 Y164.918309 Z-0.125000
G01 X152.513397 Y165.547884 Z-0.125000
G01 X154.549601 Y166.548801 Z-0.125000
G01 X156.626948 Y167.913997 Z-0.125000
G01 X158.683711 Y169.563248 Z-0.125000
G01 X160.954388 Y171.660889 Z-0.125000
G01 X169.321323 Y180.411522 Z-0.125000
G01 X171.246482 Y182.296940 Z-0.125000
G01 X172.916583 Y183.793554 Z-0.125000
G01 X174.808801 Y185.287072 Z-0.125000
G01 X176.670169 Y186.505477 Z-0.125000
G01 X178.428720 Y187.395587 Z-0.125000
G01 X180.226932 Y188.018574 Z-0.125000
G01 X181.284682 Y188.242014 Z-0.125000
G01 X182.342458 Y188.356367 Z-0.125000
G01 X184.352204 Y188.269055 Z-0.125000
G01 X185.409980 Y188.062918 Z-0.125000
G01 X186.467757 Y187.747906 Z-0.125000
G01 X188.609741 Y186.787602 Z-0.125000
G01 X190.604803 Y185.529351 Z-0.125000
G01 X192.661565 Y183.904811 Z-0.125000
G01 X199.160967 Y177.704150 Z-0.125000
G00 Z3.000000

(End cutting path id: polyline650)


(Start cutting path id: polyline652)
(Change tool to Default tool)

G00 Z3.000000
G00 X2.945024 Y171.151117

G00 Z4.875000 (Fast pre-penetrate)
G01 Z-0.125000 F400.0(Penetrate)
G01 X5.166331 Y170.203222 Z-0.125000 F800.000000
G01 X7.281883 Y169.441937 Z-0.125000
G01 X9.291629 Y168.876285 Z-0.125000
G01 X11.195622 Y168.503197 Z-0.125000
G01 X13.099587 Y168.303886 Z-0.125000
G01 X15.003579 Y168.288593 Z-0.125000
G01 X16.801791 Y168.447475 Z-0.125000
G01 X18.705757 Y168.798577 Z-0.125000
G01 X20.292408 Y169.230535 Z-0.125000
G01 X21.879060 Y169.782138 Z-0.125000
G01 X23.584721 Y170.497650 Z-0.125000
G01 X25.343271 Y171.352650 Z-0.125000
G01 X28.582667 Y173.170838 Z-0.125000
G01 X36.542382 Y178.060569 Z-0.125000
G01 X38.763688 Y179.267094 Z-0.125000
G01 X40.799893 Y180.221683 Z-0.125000
G01 X43.034428 Y181.056628 Z-0.125000
G01 X45.255735 Y181.626275 Z-0.125000
G01 X47.371288 Y181.899060 Z-0.125000
G01 X49.381034 Y181.898822 Z-0.125000
G01 X51.390806 Y181.640245 Z-0.125000
G01 X53.400552 Y181.127086 Z-0.125000
G01 X55.516079 Y180.326088 Z-0.125000
G01 X57.737412 Y179.225158 Z-0.125000
G01 X59.588487 Y178.133780 Z-0.125000
G01 X61.686392 Y176.745989 Z-0.125000
G01 X68.432624 Y171.812733 Z-0.125000
G01 X70.787624 Y170.176816 Z-0.125000
G01 X73.101482 Y168.744629 Z-0.125000
G01 X75.230237 Y167.642720 Z-0.125000
G01 X77.411883 Y166.780126 Z-0.125000
G01 X79.527409 Y166.240774 Z-0.125000
G01 X81.537182 Y166.024424 Z-0.125000
G01 X83.546928 Y166.109805 Z-0.125000
G01 X85.450920 Y166.471199 Z-0.125000
G01 X87.447463 Y167.135329 Z-0.125000
G01 X89.391116 Y168.044939 Z-0.125000
G01 X91.519872 Y169.307291 Z-0.125000
G01 X93.360682 Y170.588957 Z-0.125000
G01 X95.335185 Y172.117003 Z-0.125000
G01 X103.973608 Y179.341336 Z-0.125000
G01 X106.236058 Y180.985931 Z-0.125000
G01 X108.272262 Y182.244923 Z-0.125000
G01 X110.308466 Y183.243168 Z-0.125000
G01 X112.318212 Y183.933148 Z-0.125000
G01 X114.222204 Y184.289806 Z-0.125000
G01 X116.126197 Y184.341823 Z-0.125000
G01 X118.135943 Y184.060042 Z-0.125000
G01 X120.251495 Y183.395939 Z-0.125000
G01 X122.340563 Y182.390259 Z-0.125000
G01 X124.623597 Y180.933703 Z-0.125000
G01 X126.515815 Y179.485349 Z-0.125000
G01 X128.654863 Y177.641893 Z-0.125000
G01 X135.409297 Y171.200276 Z-0.125000
G01 X137.704660 Y169.113722 Z-0.125000
G01 X139.925967 Y167.296592 Z-0.125000
G01 X142.054722 Y165.816303 Z-0.125000
G01 X143.998375 Y164.740376 Z-0.125000
G01 X145.955231 Y163.962185 Z-0.125000
G01 X147.859223 Y163.525993 Z-0.125000
G01 X149.763215 Y163.423176 Z-0.125000
G01 X151.772962 Y163.683156 Z-0.125000
G01 X153.782734 Y164.316515 Z-0.125000
G01 X155.845370 Y165.335794 Z-0.125000
G01 X157.943275 Y166.722659 Z-0.125000
G01 X160.000038 Y168.379557 Z-0.125000
G01 X162.213142 Y170.426741 Z-0.125000
G01 X170.506046 Y179.096518 Z-0.125000
G01 X173.986080 Y182.389677 Z-0.125000
G01 X175.878325 Y183.905790 Z-0.125000
G01 X177.688284 Y185.120014 Z-0.125000
G01 X179.446809 Y186.046505 Z-0.125000
G01 X181.178901 Y186.691135 Z-0.125000
G01 X183.188674 Y187.083644 Z-0.125000
G01 X185.198420 Y187.080548 Z-0.125000
G01 X187.208192 Y186.679493 Z-0.125000
G01 X189.350177 Y185.825922 Z-0.125000
G01 X191.293830 Y184.693798 Z-0.125000
G01 X193.402001 Y183.118814 Z-0.125000
G01 X195.162616 Y181.563304 Z-0.125000
G01 X199.160967 Y177.704150 Z-0.125000
G00 Z3.000000

(End cutting path id: polyline652)


(Start cutting path id: polyline654)
(Change tool to Default tool)

G00 Z3.000000
G00 X2.945024 Y170.512360

G00 Z4.875000 (Fast pre-penetrate)
G01 Z-0.125000 F400.0(Penetrate)
G01 X5.444010 Y169.374839 Z-0.125000 F800.000000
G01 X7.704978 Y168.490920 Z-0.125000
G01 X9.820531 Y167.827108 Z-0.125000
G01 X11.830277 Y167.369723 Z-0.125000
G01 X13.840049 Y167.101251 Z-0.125000
G01 X15.744015 Y167.033755 Z-0.125000
G01 X17.648007 Y167.154591 Z-0.125000
G01 X19.551973 Y167.464549 Z-0.125000
G01 X21.244404 Y167.894867 Z-0.125000
G01 X22.936836 Y168.463244 Z-0.125000
G01 X24.695387 Y169.188281 Z-0.125000
G01 X26.453911 Y170.034418 Z-0.125000
G01 X29.785885 Y171.896632 Z-0.125000
G01 X37.838151 Y176.844070 Z-0.125000
G01 X40.059457 Y178.048557 Z-0.125000
G01 X42.095662 Y179.000262 Z-0.125000
G01 X44.409519 Y179.855633 Z-0.125000
G01 X46.525072 Y180.389958 Z-0.125000
G01 X48.640598 Y180.660177 Z-0.125000
G01 X50.650371 Y180.657134 Z-0.125000
G01 X52.660117 Y180.395488 Z-0.125000
G01 X54.775643 Y179.845050 Z-0.125000
G01 X56.904399 Y179.021958 Z-0.125000
G01 X59.033180 Y177.955795 Z-0.125000
G01 X60.884256 Y176.859945 Z-0.125000
G01 X63.002746 Y175.453765 Z-0.125000
G01 X69.584407 Y170.635471 Z-0.125000
G01 X71.990815 Y168.959867 Z-0.125000
G01 X74.304700 Y167.524134 Z-0.125000
G01 X76.433455 Y166.418177 Z-0.125000
G01 X78.575440 Y165.563970 Z-0.125000
G01 X80.690966 Y165.013849 Z-0.125000
G01 X82.700712 Y164.786784 Z-0.125000
G01 X84.710484 Y164.861264 Z-0.125000
G01 X86.614477 Y165.212525 Z-0.125000
G01 X88.624223 Y165.871866 Z-0.125000
G01 X90.594308 Y166.788090 Z-0.125000
G01 X92.723063 Y168.046738 Z-0.125000
G01 X94.512464 Y169.288188 Z-0.125000
G01 X96.569227 Y170.876718 Z-0.125000
G01 X105.207676 Y178.101130 Z-0.125000
G01 X107.439275 Y179.724797 Z-0.125000
G01 X109.475480 Y180.987413 Z-0.125000
G01 X111.511684 Y181.989839 Z-0.125000
G01 X113.481769 Y182.673839 Z-0.125000
G01 X115.491515 Y183.053251 Z-0.125000
G01 X117.395507 Y183.099685 Z-0.125000
G01 X119.405280 Y182.812163 Z-0.125000
G01 X121.507577 Y182.147662 Z-0.125000
G01 X123.636332 Y181.116662 Z-0.125000
G01 X125.939924 Y179.636796 Z-0.125000
G01 X127.832142 Y178.180664 Z-0.125000
G01 X129.971190 Y176.330911 Z-0.125000
G01 X136.668050 Y169.942634 Z-0.125000
G01 X139.020987 Y167.808163 Z-0.125000
G01 X141.242294 Y165.999924 Z-0.125000
G01 X143.350491 Y164.543130 Z-0.125000
G01 X145.294144 Y163.475379 Z-0.125000
G01 X147.224568 Y162.714200 Z-0.125000
G01 X149.128534 Y162.282400 Z-0.125000
G01 X151.032526 Y162.183764 Z-0.125000
G01 X153.042298 Y162.447818 Z-0.125000
G01 X155.012383 Y163.068556 Z-0.125000
G01 X157.048588 Y164.068574 Z-0.125000
G01 X159.259602 Y165.530712 Z-0.125000
G01 X161.316391 Y167.195019 Z-0.125000
G01 X163.545926 Y169.263740 Z-0.125000
G01 X171.690743 Y177.780217 Z-0.125000
G01 X175.137889 Y181.054114 Z-0.125000
G01 X177.030108 Y182.582452 Z-0.125000
G01 X178.798924 Y183.786013 Z-0.125000
G01 X180.464924 Y184.691549 Z-0.125000
G01 X182.130897 Y185.353985 Z-0.125000
G01 X184.140670 Y185.807454 Z-0.125000
G01 X186.150416 Y185.867514 Z-0.125000
G01 X188.160188 Y185.529906 Z-0.125000
G01 X190.090612 Y184.838816 Z-0.125000
G01 X192.034266 Y183.798581 Z-0.125000
G01 X194.142436 Y182.313053 Z-0.125000
G01 X196.116940 Y180.626866 Z-0.125000
G01 X199.160967 Y177.704150 Z-0.125000
G00 Z3.000000

(End cutting path id: polyline654)


(Start cutting path id: polyline656)
(Change tool to Default tool)

G00 Z3.000000
G00 X2.945024 Y185.115411

G00 Z4.875000 (Fast pre-penetrate)
G01 Z-0.125000 F400.0(Penetrate)
G01 X5.999344 Y186.148369 Z-0.125000 F800.000000
G01 X9.238739 Y187.659006 Z-0.125000
G01 X12.385610 Y189.428272 Z-0.125000
G01 X20.067645 Y194.107449 Z-0.125000
G01 X22.288952 Y195.311804 Z-0.125000
G01 X24.325156 Y196.270680 Z-0.125000
G01 X26.639040 Y197.143327 Z-0.125000
G01 X28.754566 Y197.701862 Z-0.125000
G01 X30.870093 Y198.003831 Z-0.125000
G01 X32.879865 Y198.036930 Z-0.125000
G01 X34.995392 Y197.797244 Z-0.125000
G01 X37.110918 Y197.278900 Z-0.125000
G01 X39.319022 Y196.455623 Z-0.125000
G01 X41.540328 Y195.364721 Z-0.125000
G01 X43.391430 Y194.283238 Z-0.125000
G01 X45.520186 Y192.886187 Z-0.125000
G01 X52.389792 Y187.892976 Z-0.125000
G01 X54.775643 Y186.248355 Z-0.125000
G01 X57.182078 Y184.777591 Z-0.125000
G01 X59.310834 Y183.697590 Z-0.125000
G01 X61.545370 Y182.841373 Z-0.125000
G01 X63.766676 Y182.314350 Z-0.125000
G01 X65.882202 Y182.140201 Z-0.125000
G01 X67.997755 Y182.299374 Z-0.125000
G01 X69.901721 Y182.727999 Z-0.125000
G01 X71.805713 Y183.417740 Z-0.125000
G01 X73.749366 Y184.372779 Z-0.125000
G01 X75.785571 Y185.615129 Z-0.125000
G01 X77.564680 Y186.871607 Z-0.125000
G01 X79.456898 Y188.344382 Z-0.125000
G01 X87.930803 Y195.429332 Z-0.125000
G01 X90.131552 Y197.035748 Z-0.125000
G01 X92.075205 Y198.254470 Z-0.125000
G01 X94.111383 Y199.280444 Z-0.125000
G01 X96.134385 Y200.005163 Z-0.125000
G01 X98.038350 Y200.391216 Z-0.125000
G01 X99.942342 Y200.473369 Z-0.125000
G01 X102.057869 Y200.200134 Z-0.125000
G01 X104.173421 Y199.548281 Z-0.125000
G01 X106.328609 Y198.515613 Z-0.125000
G01 X108.580766 Y197.078531 Z-0.125000
G01 X110.555269 Y195.562841 Z-0.125000
G01 X112.677860 Y193.724703 Z-0.125000
G01 X119.415836 Y187.277530 Z-0.125000
G01 X121.826373 Y185.087153 Z-0.125000
G01 X124.212224 Y183.159163 Z-0.125000
G01 X126.320421 Y181.733643 Z-0.125000
G01 X128.356625 Y180.661791 Z-0.125000
G01 X130.406059 Y179.928473 Z-0.125000
G01 X132.415805 Y179.575413 Z-0.125000
G01 X134.425577 Y179.601369 Z-0.125000
G01 X136.435323 Y180.009567 Z-0.125000
G01 X138.537647 Y180.834669 Z-0.125000
G01 X140.666402 Y182.057995 Z-0.125000
G01 X142.805450 Y183.637291 Z-0.125000
G01 X144.664754 Y185.250877 Z-0.125000
G01 X146.738000 Y187.256628 Z-0.125000
G01 X153.401920 Y194.332689 Z-0.125000
G01 X155.771340 Y196.731107 Z-0.125000
G01 X158.107819 Y198.855947 Z-0.125000
G01 X160.164582 Y200.450377 Z-0.125000
G01 X162.231636 Y201.731567 Z-0.125000
G01 X164.254638 Y202.628133 Z-0.125000
G01 X166.264384 Y203.136291 Z-0.125000
G01 X168.168376 Y203.248210 Z-0.125000
G01 X169.226126 Y203.152378 Z-0.125000
G01 X170.283903 Y202.944019 Z-0.125000
G01 X172.320107 Y202.232317 Z-0.125000
G01 X174.541413 Y201.012272 Z-0.125000
G01 X176.783305 Y199.356061 Z-0.125000
G01 X178.947011 Y197.411535 Z-0.125000
G01 X199.160967 Y177.704150 Z-0.125000
G00 Z3.000000

(End cutting path id: polyline656)


(Start cutting path id: polyline658)
(Change tool to Default tool)

G00 Z3.000000
G00 X2.945024 Y169.903158

G00 Z4.875000 (Fast pre-penetrate)
G01 Z-0.125000 F400.0(Penetrate)
G01 X5.721664 Y168.574449 Z-0.125000 F800.000000
G01 X8.128099 Y167.566176 Z-0.125000
G01 X10.349406 Y166.801557 Z-0.125000
G01 X12.464932 Y166.255537 Z-0.125000
G01 X14.474704 Y165.924862 Z-0.125000
G01 X16.484450 Y165.793576 Z-0.125000
G01 X18.494223 Y165.871072 Z-0.125000
G01 X20.503969 Y166.159970 Z-0.125000
G01 X22.196401 Y166.563962 Z-0.125000
G01 X23.888832 Y167.107918 Z-0.125000
G01 X25.713476 Y167.839199 Z-0.125000
G01 X27.564578 Y168.716953 Z-0.125000
G01 X30.989102 Y170.622797 Z-0.125000
G01 X39.133919 Y175.627861 Z-0.125000
G01 X41.447777 Y176.876852 Z-0.125000
G01 X43.483981 Y177.817815 Z-0.125000
G01 X45.784636 Y178.653950 Z-0.125000
G01 X47.900163 Y179.173458 Z-0.125000
G01 X50.015689 Y179.427379 Z-0.125000
G01 X52.025462 Y179.407905 Z-0.125000
G01 X54.035208 Y179.129591 Z-0.125000
G01 X56.044980 Y178.596800 Z-0.125000
G01 X58.107616 Y177.799823 Z-0.125000
G01 X60.328923 Y176.686272 Z-0.125000
G01 X62.180025 Y175.585872 Z-0.125000
G01 X64.216229 Y174.232768 Z-0.125000
G01 X73.194033 Y167.742891 Z-0.125000
G01 X75.415340 Y166.356952 Z-0.125000
G01 X77.544095 Y165.236919 Z-0.125000
G01 X79.738970 Y164.348132 Z-0.125000
G01 X81.748742 Y163.808012 Z-0.125000
G01 X83.758488 Y163.554621 Z-0.125000
G01 X85.768261 Y163.602140 Z-0.125000
G01 X87.672226 Y163.928107 Z-0.125000
G01 X89.681999 Y164.561915 Z-0.125000
G01 X91.797525 Y165.531189 Z-0.125000
G01 X93.926281 Y166.786159 Z-0.125000
G01 X95.746532 Y168.047558 Z-0.125000
G01 X97.803295 Y169.636167 Z-0.125000
G01 X104.220411 Y175.067289 Z-0.125000
G01 X106.524003 Y176.924133 Z-0.125000
G01 X108.735044 Y178.525865 Z-0.125000
G01 X110.771248 Y179.781179 Z-0.125000
G01 X112.900004 Y180.813317 Z-0.125000
G01 X114.856860 Y181.470674 Z-0.125000
G01 X116.760852 Y181.816537 Z-0.125000
G01 X118.664844 Y181.857494 Z-0.125000
G01 X120.674590 Y181.564310 Z-0.125000
G01 X122.790116 Y180.888856 Z-0.125000
G01 X124.932101 Y179.843224 Z-0.125000
G01 X127.173992 Y178.399103 Z-0.125000
G01 X129.066210 Y176.943923 Z-0.125000
G01 X131.188801 Y175.109993 Z-0.125000
G01 X137.852747 Y168.755609 Z-0.125000
G01 X140.255055 Y166.574916 Z-0.125000
G01 X142.476362 Y164.766464 Z-0.125000
G01 X144.553709 Y163.328244 Z-0.125000
G01 X146.589913 Y162.211016 Z-0.125000
G01 X148.493879 Y161.466638 Z-0.125000
G01 X150.397871 Y161.039019 Z-0.125000
G01 X152.301836 Y160.944378 Z-0.125000
G01 X154.311609 Y161.212242 Z-0.125000
G01 X156.400703 Y161.885023 Z-0.125000
G01 X158.529459 Y162.962828 Z-0.125000
G01 X160.658214 Y164.399752 Z-0.125000
G01 X162.632718 Y166.009502 Z-0.125000
G01 X164.878710 Y168.099575 Z-0.125000
G01 X172.875440 Y176.462303 Z-0.125000
G01 X176.207413 Y179.644813 Z-0.125000
G01 X178.017373 Y181.132563 Z-0.125000
G01 X179.724489 Y182.332447 Z-0.125000
G01 X181.390462 Y183.284496 Z-0.125000
G01 X182.977113 Y183.969528 Z-0.125000
G01 X184.986886 Y184.503801 Z-0.125000
G01 X186.890851 Y184.650141 Z-0.125000
G01 X188.794844 Y184.440062 Z-0.125000
G01 X190.698836 Y183.877533 Z-0.125000
G01 X192.682150 Y182.932151 Z-0.125000
G01 X194.718328 Y181.607966 Z-0.125000
G01 X196.775117 Y179.947787 Z-0.125000
G01 X199.160967 Y177.704150 Z-0.125000
G00 Z3.000000

(End cutting path id: polyline658)


(Start cutting path id: polyline660)
(Change tool to Default tool)

G00 Z3.000000
G00 X2.945024 Y169.314778

G00 Z4.875000 (Fast pre-penetrate)
G01 Z-0.125000 F400.0(Penetrate)
G01 X6.091895 Y167.754691 Z-0.125000 F800.000000
G01 X8.590855 Y166.649396 Z-0.125000
G01 X10.878281 Y165.798523 Z-0.125000
G01 X13.099587 Y165.160084 Z-0.125000
G01 X15.215140 Y164.753367 Z-0.125000
G01 X17.330666 Y164.563900 Z-0.125000
G01 X19.340439 Y164.596946 Z-0.125000
G01 X21.350185 Y164.841791 Z-0.125000
G01 X23.042616 Y165.210117 Z-0.125000
G01 X24.840828 Y165.757090 Z-0.125000
G01 X26.731591 Y166.492524 Z-0.125000
G01 X28.675218 Y167.400520 Z-0.125000
G01 X32.192320 Y169.349201 Z-0.125000
G01 X40.522239 Y174.464622 Z-0.125000
G01 X42.743546 Y175.658500 Z-0.125000
G01 X44.779750 Y176.596288 Z-0.125000
G01 X47.053947 Y177.419670 Z-0.125000
G01 X49.169473 Y177.937036 Z-0.125000
G01 X51.285026 Y178.188310 Z-0.125000
G01 X53.400552 Y178.157619 Z-0.125000
G01 X55.410325 Y177.862556 Z-0.125000
G01 X57.420071 Y177.313414 Z-0.125000
G01 X59.495936 Y176.494741 Z-0.125000
G01 X61.624692 Y175.416565 Z-0.125000
G01 X63.475794 Y174.311614 Z-0.125000
G01 X65.553141 Y172.926045 Z-0.125000
G01 X74.397251 Y166.526127 Z-0.125000
G01 X76.711108 Y165.083302 Z-0.125000
G01 X78.747313 Y164.012800 Z-0.125000
G01 X80.902526 Y163.132797 Z-0.125000
G01 X82.912272 Y162.582490 Z-0.125000
G01 X84.922045 Y162.318357 Z-0.125000
G01 X86.931791 Y162.354896 Z-0.125000
G01 X88.941563 Y162.696076 Z-0.125000
G01 X90.951309 Y163.334912 Z-0.125000
G01 X93.000743 Y164.274181 Z-0.125000
G01 X95.129498 Y165.525315 Z-0.125000
G01 X96.980600 Y166.806743 Z-0.125000
G01 X98.955077 Y168.329180 Z-0.125000
G01 X105.454479 Y173.826315 Z-0.125000
G01 X107.758071 Y175.683159 Z-0.125000
G01 X110.030813 Y177.326299 Z-0.125000
G01 X112.067017 Y178.574363 Z-0.125000
G01 X114.116424 Y179.565174 Z-0.125000
G01 X116.126197 Y180.239119 Z-0.125000
G01 X118.030162 Y180.579638 Z-0.125000
G01 X119.934155 Y180.615251 Z-0.125000
G01 X121.943901 Y180.316536 Z-0.125000
G01 X124.059453 Y179.635659 Z-0.125000
G01 X126.135319 Y178.622703 Z-0.125000
G01 X128.408060 Y177.162099 Z-0.125000
G01 X130.300278 Y175.707712 Z-0.125000
G01 X132.439326 Y173.859865 Z-0.125000
G01 X139.111474 Y167.499527 Z-0.125000
G01 X141.489123 Y165.342409 Z-0.125000
G01 X143.792688 Y163.471675 Z-0.125000
G01 X145.849477 Y162.056314 Z-0.125000
G01 X147.885682 Y160.947394 Z-0.125000
G01 X149.763215 Y160.219447 Z-0.125000
G01 X151.667181 Y159.795796 Z-0.125000
G01 X153.571173 Y159.704965 Z-0.125000
G01 X155.580919 Y159.976427 Z-0.125000
G01 X157.696472 Y160.663496 Z-0.125000
G01 X159.825228 Y161.748525 Z-0.125000
G01 X161.974541 Y163.206800 Z-0.125000
G01 X163.949045 Y164.823006 Z-0.125000
G01 X166.211494 Y166.934219 Z-0.125000
G01 X174.060137 Y175.142933 Z-0.125000
G01 X177.276911 Y178.232416 Z-0.125000
G01 X179.004611 Y179.676642 Z-0.125000
G01 X180.650026 Y180.869118 Z-0.125000
G01 X182.223449 Y181.817331 Z-0.125000
G01 X183.823329 Y182.568270 Z-0.125000
G01 X185.727321 Y183.159613 Z-0.125000
G01 X187.525507 Y183.400410 Z-0.125000
G01 X189.323719 Y183.324660 Z-0.125000
G01 X191.227711 Y182.899819 Z-0.125000
G01 X193.052355 Y182.169252 Z-0.125000
G01 X194.996008 Y181.062846 Z-0.125000
G01 X197.021920 Y179.581763 Z-0.125000
G01 X199.160967 Y177.704150 Z-0.125000
G00 Z3.000000

(End cutting path id: polyline660)


(Start cutting path id: polyline662)
(Change tool to Default tool)

G00 Z3.000000
G00 X2.945024 Y168.738358

G00 Z4.875000 (Fast pre-penetrate)
G01 Z-0.125000 F400.0(Penetrate)
G01 X6.462099 Y166.951788 Z-0.125000 F800.000000
G01 X9.053637 Y165.752777 Z-0.125000
G01 X11.512936 Y164.778979 Z-0.125000
G01 X13.734269 Y164.082835 Z-0.125000
G01 X15.955576 Y163.595685 Z-0.125000
G01 X18.071102 Y163.349913 Z-0.125000
G01 X20.186655 Y163.332213 Z-0.125000
G01 X22.302181 Y163.549197 Z-0.125000
G01 X24.100393 Y163.916835 Z-0.125000
G01 X25.898578 Y164.446213 Z-0.125000
G01 X27.749680 Y165.148443 Z-0.125000
G01 X29.785885 Y166.084934 Z-0.125000
G01 X33.395511 Y168.075895 Z-0.125000
G01 X41.818008 Y173.248625 Z-0.125000
G01 X44.131866 Y174.486318 Z-0.125000
G01 X46.207731 Y175.429344 Z-0.125000
G01 X48.429038 Y176.217193 Z-0.125000
G01 X50.650371 Y176.737840 Z-0.125000
G01 X52.765897 Y176.958714 Z-0.125000
G01 X54.775643 Y176.906220 Z-0.125000
G01 X56.679635 Y176.617216 Z-0.125000
G01 X58.689381 Y176.064846 Z-0.125000
G01 X60.791705 Y175.230801 Z-0.125000
G01 X62.920460 Y174.146593 Z-0.125000
G01 X64.771562 Y173.037276 Z-0.125000
G01 X66.787182 Y171.690840 Z-0.125000
G01 X75.600468 Y165.309468 Z-0.125000
G01 X77.914326 Y163.863152 Z-0.125000
G01 X79.950530 Y162.788759 Z-0.125000
G01 X82.066057 Y161.917779 Z-0.125000
G01 X84.075829 Y161.357392 Z-0.125000
G01 X86.085575 Y161.082516 Z-0.125000
G01 X88.095348 Y161.108049 Z-0.125000
G01 X90.105094 Y161.438354 Z-0.125000
G01 X92.114866 Y162.066765 Z-0.125000
G01 X94.203960 Y163.017015 Z-0.125000
G01 X96.332716 Y164.264312 Z-0.125000
G01 X98.132383 Y165.505392 Z-0.125000
G01 X100.189145 Y167.087969 Z-0.125000
G01 X106.688547 Y172.584998 Z-0.125000
G01 X108.992139 Y174.441788 Z-0.125000
G01 X111.234004 Y176.064238 Z-0.125000
G01 X113.270208 Y177.316086 Z-0.125000
G01 X115.306413 Y178.305917 Z-0.125000
G01 X117.289727 Y178.979916 Z-0.125000
G01 X119.299499 Y179.342606 Z-0.125000
G01 X121.203465 Y179.372954 Z-0.125000
G01 X123.213237 Y179.068842 Z-0.125000
G01 X125.302332 Y178.393494 Z-0.125000
G01 X127.431087 Y177.350058 Z-0.125000
G01 X129.642102 Y175.925570 Z-0.125000
G01 X131.534346 Y174.472110 Z-0.125000
G01 X133.673394 Y172.625453 Z-0.125000
G01 X140.370228 Y166.244399 Z-0.125000
G01 X142.723165 Y164.110616 Z-0.125000
G01 X144.944498 Y162.301583 Z-0.125000
G01 X147.052668 Y160.842540 Z-0.125000
G01 X149.088873 Y159.727587 Z-0.125000
G01 X151.032526 Y158.972599 Z-0.125000
G01 X152.936518 Y158.552812 Z-0.125000
G01 X154.840484 Y158.465552 Z-0.125000
G01 X156.850256 Y158.740428 Z-0.125000
G01 X158.965783 Y159.430460 Z-0.125000
G01 X161.120996 Y160.533560 Z-0.125000
G01 X163.290894 Y162.013081 Z-0.125000
G01 X165.265372 Y163.635531 Z-0.125000
G01 X167.470248 Y165.694913 Z-0.125000
G01 X175.244834 Y173.822188 Z-0.125000
G01 X178.354663 Y176.824358 Z-0.125000
G01 X180.074135 Y178.280200 Z-0.125000
G01 X181.668142 Y179.459790 Z-0.125000
G01 X183.241564 Y180.438668 Z-0.125000
G01 X184.722435 Y181.173362 Z-0.125000
G01 X186.467757 Y181.788174 Z-0.125000
G01 X188.265969 Y182.121469 Z-0.125000
G01 X189.958374 Y182.147953 Z-0.125000
G01 X191.756586 Y181.868686 Z-0.125000
G01 X193.515137 Y181.294462 Z-0.125000
G01 X195.366212 Y180.382127 Z-0.125000
G01 X197.186464 Y179.198832 Z-0.125000
G01 X199.160967 Y177.628161 Z-0.125000
G00 Z3.000000

(End cutting path id: polyline662)


(Start cutting path id: polyline672)
(Change tool to Default tool)

G00 Z3.000000
G00 X2.945024 Y168.164927

G00 Z4.875000 (Fast pre-penetrate)
G01 Z-0.125000 F400.0(Penetrate)
G01 X7.017433 Y166.070197 Z-0.125000 F800.000000
G01 X9.701521 Y164.790674 Z-0.125000
G01 X12.147618 Y163.774278 Z-0.125000
G01 X14.474704 Y162.992012 Z-0.125000
G01 X16.696011 Y162.451548 Z-0.125000
G01 X18.917318 Y162.141034 Z-0.125000
G01 X21.138624 Y162.079756 Z-0.125000
G01 X23.254177 Y162.261789 Z-0.125000
G01 X25.052389 Y162.600667 Z-0.125000
G01 X26.956355 Y163.137400 Z-0.125000
G01 X28.860347 Y163.845028 Z-0.125000
G01 X30.896551 Y164.770354 Z-0.125000
G01 X34.598729 Y166.802960 Z-0.125000
G01 X43.113750 Y172.032813 Z-0.125000
G01 X45.427635 Y173.268019 Z-0.125000
G01 X47.477042 Y174.196890 Z-0.125000
G01 X49.698375 Y174.982966 Z-0.125000
G01 X51.919681 Y175.501232 Z-0.125000
G01 X54.035208 Y175.719354 Z-0.125000
G01 X56.150760 Y175.653737 Z-0.125000
G01 X58.054726 Y175.348832 Z-0.125000
G01 X60.064499 Y174.780084 Z-0.125000
G01 X62.087474 Y173.966571 Z-0.125000
G01 X64.216229 Y172.876436 Z-0.125000
G01 X66.067331 Y171.762753 Z-0.125000
G01 X68.103535 Y170.398087 Z-0.125000
G01 X76.803659 Y164.092810 Z-0.125000
G01 X79.117544 Y162.643027 Z-0.125000
G01 X81.153748 Y161.564878 Z-0.125000
G01 X83.335394 Y160.666486 Z-0.125000
G01 X85.345140 Y160.110412 Z-0.125000
G01 X87.354912 Y159.840246 Z-0.125000
G01 X89.258878 Y159.861572 Z-0.125000
G01 X91.268650 Y160.180923 Z-0.125000
G01 X93.278396 Y160.798910 Z-0.125000
G01 X95.314601 Y161.711933 Z-0.125000
G01 X97.535907 Y163.003230 Z-0.125000
G01 X99.366451 Y164.263995 Z-0.125000
G01 X101.423213 Y165.846545 Z-0.125000
G01 X107.922616 Y171.343416 Z-0.125000
G01 X110.226207 Y173.200153 Z-0.125000
G01 X112.529773 Y174.863931 Z-0.125000
G01 X114.565977 Y176.108635 Z-0.125000
G01 X116.602181 Y177.090026 Z-0.125000
G01 X118.559064 Y177.748097 Z-0.125000
G01 X120.568810 Y178.105416 Z-0.125000
G01 X122.472802 Y178.130631 Z-0.125000
G01 X124.482548 Y177.821228 Z-0.125000
G01 X126.598101 Y177.129846 Z-0.125000
G01 X128.726856 Y176.077546 Z-0.125000
G01 X130.958455 Y174.630542 Z-0.125000
G01 X132.850673 Y173.169885 Z-0.125000
G01 X134.965035 Y171.339711 Z-0.125000
G01 X141.554925 Y165.059860 Z-0.125000
G01 X143.957233 Y162.879749 Z-0.125000
G01 X146.260824 Y161.008169 Z-0.125000
G01 X148.348437 Y159.571986 Z-0.125000
G01 X150.384642 Y158.464970 Z-0.125000
G01 X152.301836 Y157.726122 Z-0.125000
G01 X154.205829 Y157.309986 Z-0.125000
G01 X156.109821 Y157.226113 Z-0.125000
G01 X157.167571 Y157.325597 Z-0.125000
G01 X158.225347 Y157.529193 Z-0.125000
G01 X160.288010 Y158.219332 Z-0.125000
G01 X162.416765 Y159.317960 Z-0.125000
G01 X164.607221 Y160.818595 Z-0.125000
G01 X166.581725 Y162.447183 Z-0.125000
G01 X168.803032 Y164.527202 Z-0.125000
G01 X176.429531 Y172.499802 Z-0.125000
G01 X179.498244 Y175.472736 Z-0.125000
G01 X181.143659 Y176.880450 Z-0.125000
G01 X182.624530 Y178.001673 Z-0.125000
G01 X184.074551 Y178.945467 Z-0.125000
G01 X185.555422 Y179.734771 Z-0.125000
G01 X187.208192 Y180.389720 Z-0.125000
G01 X188.900624 Y180.798104 Z-0.125000
G01 X190.593056 Y180.930766 Z-0.125000
G01 X192.285487 Y180.783314 Z-0.125000
G01 X193.977892 Y180.357785 Z-0.125000
G01 X195.643892 Y179.675267 Z-0.125000
G01 X197.402417 Y178.686123 Z-0.125000
G01 X199.160967 Y177.443112 Z-0.125000
G00 Z3.000000

(End cutting path id: polyline672)


(Start cutting path id: polyline674)
(Change tool to Default tool)

G00 Z3.000000
G00 X2.945024 Y167.585649

G00 Z4.875000 (Fast pre-penetrate)
G01 Z-0.125000 F400.0(Penetrate)
G01 X10.441957 Y163.795524 Z-0.125000 F800.000000
G01 X12.993833 Y162.699701 Z-0.125000
G01 X15.320920 Y161.880049 Z-0.125000
G01 X17.648007 Y161.275556 Z-0.125000
G01 X19.869314 Y160.930328 Z-0.125000
G01 X22.090620 Y160.832565 Z-0.125000
G01 X24.206173 Y160.979594 Z-0.125000
G01 X26.110139 Y161.312889 Z-0.125000
G01 X28.014131 Y161.830731 Z-0.125000
G01 X29.918097 Y162.521213 Z-0.125000
G01 X32.007191 Y163.456646 Z-0.125000
G01 X35.709395 Y165.475256 Z-0.125000
G01 X44.409519 Y170.817266 Z-0.125000
G01 X46.723403 Y172.049852 Z-0.125000
G01 X48.852159 Y173.007484 Z-0.125000
G01 X51.073465 Y173.779749 Z-0.125000
G01 X53.188992 Y174.264650 Z-0.125000
G01 X55.304544 Y174.479941 Z-0.125000
G01 X57.420071 Y174.411150 Z-0.125000
G01 X59.324063 Y174.103175 Z-0.125000
G01 X61.333809 Y173.531120 Z-0.125000
G01 X63.383242 Y172.702182 Z-0.125000
G01 X65.511998 Y171.606147 Z-0.125000
G01 X67.363100 Y170.487992 Z-0.125000
G01 X69.337603 Y169.162749 Z-0.125000
G01 X78.006877 Y162.876363 Z-0.125000
G01 X80.320735 Y161.423088 Z-0.125000
G01 X82.356939 Y160.341181 Z-0.125000
G01 X84.498924 Y159.451865 Z-0.125000
G01 X86.508696 Y158.885578 Z-0.125000
G01 X88.518442 Y158.604644 Z-0.125000
G01 X90.422434 Y158.615465 Z-0.125000
G01 X92.432180 Y158.923863 Z-0.125000
G01 X94.441953 Y159.531319 Z-0.125000
G01 X96.517818 Y160.454767 Z-0.125000
G01 X98.739125 Y161.741884 Z-0.125000
G01 X100.600519 Y163.022466 Z-0.125000
G01 X102.657282 Y164.604831 Z-0.125000
G01 X109.238942 Y170.169964 Z-0.125000
G01 X111.542534 Y172.021330 Z-0.125000
G01 X113.825542 Y173.663094 Z-0.125000
G01 X115.861746 Y174.900575 Z-0.125000
G01 X117.924382 Y175.884321 Z-0.125000
G01 X119.934155 Y176.542842 Z-0.125000
G01 X121.838147 Y176.868094 Z-0.125000
G01 X123.742112 Y176.888255 Z-0.125000
G01 X125.751885 Y176.573666 Z-0.125000
G01 X127.867411 Y175.877257 Z-0.125000
G01 X130.022625 Y174.805299 Z-0.125000
G01 X132.192497 Y173.395151 Z-0.125000
G01 X134.084741 Y171.935685 Z-0.125000
G01 X136.223789 Y170.084397 Z-0.125000
G01 X142.813678 Y163.806319 Z-0.125000
G01 X145.191301 Y161.649650 Z-0.125000
G01 X147.494893 Y159.777567 Z-0.125000
G01 X149.551655 Y158.359402 Z-0.125000
G01 X151.587859 Y157.245984 Z-0.125000
G01 X153.571173 Y156.480042 Z-0.125000
G01 X155.475166 Y156.067346 Z-0.125000
G01 X157.379131 Y155.986674 Z-0.125000
G01 X158.436908 Y156.087772 Z-0.125000
G01 X159.494658 Y156.292823 Z-0.125000
G01 X161.583752 Y156.996694 Z-0.125000
G01 X163.712508 Y158.101777 Z-0.125000
G01 X165.923548 Y159.623394 Z-0.125000
G01 X167.898052 Y161.257829 Z-0.125000
G01 X170.135815 Y163.358327 Z-0.125000
G01 X177.614227 Y171.176093 Z-0.125000
G01 X180.575996 Y174.059519 Z-0.125000
G01 X182.130897 Y175.409607 Z-0.125000
G01 X183.611768 Y176.558056 Z-0.125000
G01 X185.000088 Y177.494177 Z-0.125000
G01 X186.388408 Y178.278903 Z-0.125000
G01 X187.948628 Y178.964570 Z-0.125000
G01 X189.535279 Y179.434946 Z-0.125000
G01 X191.121930 Y179.666218 Z-0.125000
G01 X192.708582 Y179.652751 Z-0.125000
G01 X194.295233 Y179.393750 Z-0.125000
G01 X195.881884 Y178.893212 Z-0.125000
G01 X197.494994 Y178.145765 Z-0.125000
G01 X199.160967 Y177.136275 Z-0.125000
G00 Z3.000000

(End cutting path id: polyline674)


(Start cutting path id: polyline676)
(Change tool to Default tool)

G00 Z3.000000
G00 X2.945024 Y166.991819

G00 Z4.875000 (Fast pre-penetrate)
G01 Z-0.125000 F400.0(Penetrate)
G01 X11.274944 Y162.763095 Z-0.125000 F800.000000
G01 X13.773930 Y161.657958 Z-0.125000
G01 X16.061356 Y160.810075 Z-0.125000
G01 X18.388443 Y160.152454 Z-0.125000
G01 X20.715530 Y159.737324 Z-0.125000
G01 X22.936836 Y159.591221 Z-0.125000
G01 X25.158143 Y159.702610 Z-0.125000
G01 X27.062135 Y160.005082 Z-0.125000
G01 X29.071881 Y160.526098 Z-0.125000
G01 X31.081653 Y161.241504 Z-0.125000
G01 X33.117858 Y162.143997 Z-0.125000
G01 X36.912586 Y164.202982 Z-0.125000
G01 X45.705288 Y169.601877 Z-0.125000
G01 X48.019172 Y170.831871 Z-0.125000
G01 X50.147928 Y171.785825 Z-0.125000
G01 X52.448556 Y172.575764 Z-0.125000
G01 X54.564109 Y173.045266 Z-0.125000
G01 X56.679635 Y173.243704 Z-0.125000
G01 X58.795162 Y173.157317 Z-0.125000
G01 X60.699154 Y172.833388 Z-0.125000
G01 X62.708900 Y172.244982 Z-0.125000
G01 X64.679011 Y171.437607 Z-0.125000
G01 X66.807767 Y170.335645 Z-0.125000
G01 X68.566291 Y169.272339 Z-0.125000
G01 X70.571645 Y167.927464 Z-0.125000
G01 X79.210095 Y161.659942 Z-0.125000
G01 X81.431401 Y160.257388 Z-0.125000
G01 X83.560157 Y159.117485 Z-0.125000
G01 X85.662480 Y158.237588 Z-0.125000
G01 X87.672226 Y157.661220 Z-0.125000
G01 X89.681999 Y157.369438 Z-0.125000
G01 X91.585965 Y157.369703 Z-0.125000
G01 X93.595737 Y157.667041 Z-0.125000
G01 X95.605483 Y158.263887 Z-0.125000
G01 X97.721036 Y159.197521 Z-0.125000
G01 X99.942342 Y160.480378 Z-0.125000
G01 X101.752302 Y161.720532 Z-0.125000
G01 X103.809064 Y163.296626 Z-0.125000
G01 X110.390725 Y168.858743 Z-0.125000
G01 X112.776602 Y170.778743 Z-0.125000
G01 X115.028759 Y172.400081 Z-0.125000
G01 X117.157515 Y173.691960 Z-0.125000
G01 X119.193719 Y174.656736 Z-0.125000
G01 X121.203465 Y175.310256 Z-0.125000
G01 X123.213237 Y175.639503 Z-0.125000
G01 X125.117203 Y175.637651 Z-0.125000
G01 X127.126976 Y175.299937 Z-0.125000
G01 X129.189612 Y174.602787 Z-0.125000
G01 X131.318367 Y173.533343 Z-0.125000
G01 X133.508850 Y172.101049 Z-0.125000
G01 X135.401068 Y170.634465 Z-0.125000
G01 X137.457831 Y168.852155 Z-0.125000
G01 X144.072406 Y162.553757 Z-0.125000
G01 X146.425369 Y160.420265 Z-0.125000
G01 X148.646675 Y158.609777 Z-0.125000
G01 X150.754873 Y157.147559 Z-0.125000
G01 X152.883628 Y155.984425 Z-0.125000
G01 X154.840484 Y155.234306 Z-0.125000
G01 X156.744476 Y154.824890 Z-0.125000
G01 X158.648468 Y154.747235 Z-0.125000
G01 X159.706218 Y154.849841 Z-0.125000
G01 X160.763995 Y155.056215 Z-0.125000
G01 X162.879521 Y155.773738 Z-0.125000
G01 X165.008276 Y156.885039 Z-0.125000
G01 X167.322160 Y158.491005 Z-0.125000
G01 X169.296664 Y160.140627 Z-0.125000
G01 X171.468599 Y162.188209 Z-0.125000
G01 X178.798924 Y169.850824 Z-0.125000
G01 X181.612606 Y172.605450 Z-0.125000
G01 X184.516748 Y175.046466 Z-0.125000
G01 X185.925653 Y176.032752 Z-0.125000
G01 X187.221421 Y176.806076 Z-0.125000
G01 X188.794844 Y177.556803 Z-0.125000
G01 X190.275715 Y178.061760 Z-0.125000
G01 X191.756586 Y178.361347 Z-0.125000
G01 X193.237457 Y178.449612 Z-0.125000
G01 X194.718328 Y178.324174 Z-0.125000
G01 X196.199225 Y177.986301 Z-0.125000
G01 X197.680096 Y177.440969 Z-0.125000
G01 X199.160967 Y176.696591 Z-0.125000
G00 Z3.000000

(End cutting path id: polyline676)


(Start cutting path id: polyline678)
(Change tool to Default tool)

G00 Z3.000000
G00 X2.945024 Y166.375076

G00 Z4.875000 (Fast pre-penetrate)
G01 Z-0.125000 F400.0(Penetrate)
G01 X12.385610 Y161.601840 Z-0.125000 F800.000000
G01 X14.792019 Y160.523770 Z-0.125000
G01 X17.013352 Y159.677766 Z-0.125000
G01 X19.446219 Y158.962916 Z-0.125000
G01 X21.773306 Y158.524025 Z-0.125000
G01 X23.994612 Y158.353898 Z-0.125000
G01 X26.215919 Y158.440893 Z-0.125000
G01 X28.119911 Y158.722939 Z-0.125000
G01 X30.129657 Y159.223636 Z-0.125000
G01 X32.139430 Y159.920600 Z-0.125000
G01 X34.321075 Y160.876592 Z-0.125000
G01 X38.115804 Y162.930946 Z-0.125000
G01 X47.001057 Y168.386621 Z-0.125000
G01 X49.314915 Y169.613942 Z-0.125000
G01 X51.496560 Y170.585227 Z-0.125000
G01 X53.717893 Y171.341511 Z-0.125000
G01 X55.939200 Y171.824930 Z-0.125000
G01 X58.054726 Y172.006461 Z-0.125000
G01 X60.170279 Y171.902374 Z-0.125000
G01 X62.074245 Y171.562464 Z-0.125000
G01 X63.978237 Y170.995701 Z-0.125000
G01 X65.974780 Y170.172795 Z-0.125000
G01 X68.103535 Y169.064880 Z-0.125000
G01 X69.862060 Y167.997525 Z-0.125000
G01 X71.887998 Y166.634526 Z-0.125000
G01 X80.505864 Y160.381530 Z-0.125000
G01 X82.727170 Y158.983527 Z-0.125000
G01 X84.763374 Y157.894053 Z-0.125000
G01 X86.826011 Y157.023813 Z-0.125000
G01 X88.835783 Y156.437233 Z-0.125000
G01 X90.845529 Y156.134656 Z-0.125000
G01 X92.749521 Y156.124443 Z-0.125000
G01 X94.759267 Y156.410695 Z-0.125000
G01 X96.874820 Y157.035799 Z-0.125000
G01 X98.924227 Y157.940302 Z-0.125000
G01 X101.145560 Y159.218847 Z-0.125000
G01 X103.068629 Y160.538375 Z-0.125000
G01 X105.125391 Y162.120370 Z-0.125000
G01 X111.624793 Y167.616050 Z-0.125000
G01 X114.010644 Y169.535996 Z-0.125000
G01 X116.231977 Y171.136856 Z-0.125000
G01 X118.360732 Y172.432863 Z-0.125000
G01 X120.489488 Y173.439469 Z-0.125000
G01 X122.472802 Y174.077511 Z-0.125000
G01 X124.482548 Y174.401678 Z-0.125000
G01 X126.386540 Y174.394904 Z-0.125000
G01 X128.396286 Y174.052322 Z-0.125000
G01 X130.485381 Y173.339350 Z-0.125000
G01 X132.614136 Y172.261545 Z-0.125000
G01 X134.742892 Y170.866716 Z-0.125000
G01 X136.635136 Y169.401562 Z-0.125000
G01 X138.667213 Y167.643037 Z-0.125000
G01 X145.331159 Y161.302067 Z-0.125000
G01 X147.659437 Y159.191806 Z-0.125000
G01 X149.963002 Y157.318426 Z-0.125000
G01 X152.050641 Y155.878725 Z-0.125000
G01 X154.086846 Y154.766418 Z-0.125000
G01 X156.109821 Y153.988835 Z-0.125000
G01 X158.013787 Y153.582567 Z-0.125000
G01 X159.917779 Y153.507690 Z-0.125000
G01 X160.975555 Y153.611672 Z-0.125000
G01 X162.033305 Y153.819343 Z-0.125000
G01 X164.082738 Y154.510381 Z-0.125000
G01 X166.304045 Y155.667561 Z-0.125000
G01 X168.556228 Y157.230691 Z-0.125000
G01 X170.530706 Y158.875921 Z-0.125000
G01 X172.727353 Y160.943610 Z-0.125000
G01 X179.983621 Y168.523993 Z-0.125000
G01 X182.723246 Y171.216707 Z-0.125000
G01 X185.504013 Y173.588508 Z-0.125000
G01 X188.054408 Y175.316526 Z-0.125000
G01 X189.535279 Y176.084426 Z-0.125000
G01 X190.910370 Y176.626583 Z-0.125000
G01 X192.285487 Y176.995200 Z-0.125000
G01 X193.660578 Y177.184138 Z-0.125000
G01 X195.035669 Y177.189959 Z-0.125000
G01 X196.410759 Y177.011895 Z-0.125000
G01 X197.785877 Y176.651903 Z-0.125000
G01 X199.160967 Y176.114562 Z-0.125000
G00 Z3.000000

(End cutting path id: polyline678)


(Start cutting path id: polyline680)
(Change tool to Default tool)

G00 Z3.000000
G00 X2.945024 Y165.727483

G00 Z4.875000 (Fast pre-penetrate)
G01 Z-0.125000 F400.0(Penetrate)
G01 X5.906766 Y164.316223 Z-0.125000 F800.000000
G01 X13.588828 Y160.396664 Z-0.125000
G01 X15.902685 Y159.352197 Z-0.125000
G01 X18.071102 Y158.511960 Z-0.125000
G01 X20.503969 Y157.775255 Z-0.125000
G01 X22.831056 Y157.312870 Z-0.125000
G01 X25.052389 Y157.118851 Z-0.125000
G01 X27.273695 Y157.181505 Z-0.125000
G01 X29.283441 Y157.463180 Z-0.125000
G01 X31.293214 Y157.954140 Z-0.125000
G01 X33.408740 Y158.683807 Z-0.125000
G01 X35.524267 Y159.609556 Z-0.125000
G01 X39.411573 Y161.713917 Z-0.125000
G01 X48.296826 Y167.171524 Z-0.125000
G01 X50.610683 Y168.396093 Z-0.125000
G01 X52.765897 Y169.353037 Z-0.125000
G01 X54.987204 Y170.107284 Z-0.125000
G01 X57.208510 Y170.588084 Z-0.125000
G01 X59.324063 Y170.766651 Z-0.125000
G01 X61.439589 Y170.659257 Z-0.125000
G01 X63.343581 Y170.316225 Z-0.125000
G01 X65.247547 Y169.746287 Z-0.125000
G01 X67.270549 Y168.907717 Z-0.125000
G01 X69.306727 Y167.846819 Z-0.125000
G01 X71.065278 Y166.781846 Z-0.125000
G01 X73.039781 Y165.456682 Z-0.125000
G01 X81.709055 Y159.165269 Z-0.125000
G01 X83.930388 Y157.763984 Z-0.125000
G01 X85.966592 Y156.670727 Z-0.125000
G01 X87.989567 Y155.810356 Z-0.125000
G01 X89.999313 Y155.213722 Z-0.125000
G01 X92.009086 Y154.900323 Z-0.125000
G01 X93.913051 Y154.879500 Z-0.125000
G01 X95.922824 Y155.154640 Z-0.125000
G01 X98.038350 Y155.768446 Z-0.125000
G01 X100.127445 Y156.682872 Z-0.125000
G01 X102.348751 Y157.957024 Z-0.125000
G01 X104.220411 Y159.236124 Z-0.125000
G01 X106.277200 Y160.811716 Z-0.125000
G01 X112.941120 Y166.441433 Z-0.125000
G01 X115.244712 Y168.292827 Z-0.125000
G01 X117.527719 Y169.934987 Z-0.125000
G01 X119.656501 Y171.223612 Z-0.125000
G01 X121.732366 Y172.200691 Z-0.125000
G01 X123.742112 Y172.844501 Z-0.125000
G01 X125.751885 Y173.163694 Z-0.125000
G01 X127.655851 Y173.152184 Z-0.125000
G01 X129.665623 Y172.804840 Z-0.125000
G01 X131.675369 Y172.120946 Z-0.125000
G01 X133.817354 Y171.044040 Z-0.125000
G01 X135.976960 Y169.632966 Z-0.125000
G01 X137.869204 Y168.169346 Z-0.125000
G01 X139.925967 Y166.389919 Z-0.125000
G01 X146.515856 Y160.120651 Z-0.125000
G01 X148.893478 Y157.964115 Z-0.125000
G01 X151.197070 Y156.090020 Z-0.125000
G01 X153.253833 Y154.668072 Z-0.125000
G01 X155.290037 Y153.548992 Z-0.125000
G01 X157.273351 Y152.775669 Z-0.125000
G01 X159.283124 Y152.340430 Z-0.125000
G01 X161.187089 Y152.268146 Z-0.125000
G01 X162.244866 Y152.373397 Z-0.125000
G01 X163.302642 Y152.582179 Z-0.125000
G01 X165.378507 Y153.286287 Z-0.125000
G01 X167.599814 Y154.449394 Z-0.125000
G01 X169.872555 Y156.033082 Z-0.125000
G01 X171.847059 Y157.683445 Z-0.125000
G01 X174.060137 Y159.770952 Z-0.125000
G01 X181.168344 Y167.195865 Z-0.125000
G01 X183.833912 Y169.825503 Z-0.125000
G01 X186.491252 Y172.124306 Z-0.125000
G01 X188.979946 Y173.867194 Z-0.125000
G01 X190.275715 Y174.586568 Z-0.125000
G01 X191.545025 Y175.153120 Z-0.125000
G01 X192.814362 Y175.575236 Z-0.125000
G01 X194.083673 Y175.847121 Z-0.125000
G01 X195.353010 Y175.964860 Z-0.125000
G01 X196.622320 Y175.926390 Z-0.125000
G01 X197.891657 Y175.731736 Z-0.125000
G01 X199.160967 Y175.382751 Z-0.125000
G00 Z3.000000

(End cutting path id: polyline680)


(Start cutting path id: polyline682)
(Change tool to Default tool)

G00 Z3.000000
G00 X2.945024 Y165.041578

G00 Z4.875000 (Fast pre-penetrate)
G01 Z-0.125000 F400.0(Penetrate)
G01 X6.647228 Y163.346289 Z-0.125000 F800.000000
G01 X14.977148 Y159.102827 Z-0.125000
G01 X17.105903 Y158.141835 Z-0.125000
G01 X19.023098 Y157.385789 Z-0.125000
G01 X21.455965 Y156.617440 Z-0.125000
G01 X23.783052 Y156.120395 Z-0.125000
G01 X26.004358 Y155.890710 Z-0.125000
G01 X28.225692 Y155.916639 Z-0.125000
G01 X30.235438 Y156.165453 Z-0.125000
G01 X32.245210 Y156.625034 Z-0.125000
G01 X34.360736 Y157.324459 Z-0.125000
G01 X36.542382 Y158.255077 Z-0.125000
G01 X38.486035 Y159.237050 Z-0.125000
G01 X40.522239 Y160.387801 Z-0.125000
G01 X49.592594 Y165.956691 Z-0.125000
G01 X51.999003 Y167.223303 Z-0.125000
G01 X54.140988 Y168.162519 Z-0.125000
G01 X56.362294 Y168.902373 Z-0.125000
G01 X58.477847 Y169.351264 Z-0.125000
G01 X60.593373 Y169.526815 Z-0.125000
G01 X62.708900 Y169.416087 Z-0.125000
G01 X64.612892 Y169.069907 Z-0.125000
G01 X66.516884 Y168.496767 Z-0.125000
G01 X68.473740 Y167.686032 Z-0.125000
G01 X70.602495 Y166.575974 Z-0.125000
G01 X72.361046 Y165.506821 Z-0.125000
G01 X74.356108 Y164.163718 Z-0.125000
G01 X82.912272 Y157.949034 Z-0.125000
G01 X85.133579 Y156.544495 Z-0.125000
G01 X87.169783 Y155.447454 Z-0.125000
G01 X89.258878 Y154.558799 Z-0.125000
G01 X91.268650 Y153.966345 Z-0.125000
G01 X93.172616 Y153.666387 Z-0.125000
G01 X95.076608 Y153.634981 Z-0.125000
G01 X97.086354 Y153.898903 Z-0.125000
G01 X99.201907 Y154.501385 Z-0.125000
G01 X101.330662 Y155.425467 Z-0.125000
G01 X103.551969 Y156.695175 Z-0.125000
G01 X105.454479 Y157.993457 Z-0.125000
G01 X107.511268 Y159.568705 Z-0.125000
G01 X114.175188 Y165.197761 Z-0.125000
G01 X116.561039 Y167.112204 Z-0.125000
G01 X118.823488 Y168.732511 Z-0.125000
G01 X120.952243 Y170.013833 Z-0.125000
G01 X123.001677 Y170.972206 Z-0.125000
G01 X125.011449 Y171.611306 Z-0.125000
G01 X127.021195 Y171.925578 Z-0.125000
G01 X128.925188 Y171.909465 Z-0.125000
G01 X130.934934 Y171.557463 Z-0.125000
G01 X132.984367 Y170.852482 Z-0.125000
G01 X135.020571 Y169.826958 Z-0.125000
G01 X137.211028 Y168.399824 Z-0.125000
G01 X139.103246 Y166.937632 Z-0.125000
G01 X141.160035 Y165.159846 Z-0.125000
G01 X147.774610 Y158.870603 Z-0.125000
G01 X150.127546 Y156.737138 Z-0.125000
G01 X152.431138 Y154.862223 Z-0.125000
G01 X154.549601 Y153.400428 Z-0.125000
G01 X156.585806 Y152.288677 Z-0.125000
G01 X158.542688 Y151.530779 Z-0.125000
G01 X160.552434 Y151.098424 Z-0.125000
G01 X162.456426 Y151.028574 Z-0.125000
G01 X163.514176 Y151.134989 Z-0.125000
G01 X164.571952 Y151.344751 Z-0.125000
G01 X166.674276 Y152.061824 Z-0.125000
G01 X168.895583 Y153.230593 Z-0.125000
G01 X171.188882 Y154.834627 Z-0.125000
G01 X173.163386 Y156.489991 Z-0.125000
G01 X175.318891 Y158.523920 Z-0.125000
G01 X182.427072 Y165.942271 Z-0.125000
G01 X184.944552 Y168.432209 Z-0.125000
G01 X187.478517 Y170.653859 Z-0.125000
G01 X189.812933 Y172.348540 Z-0.125000
G01 X191.016150 Y173.063787 Z-0.125000
G01 X192.219368 Y173.659760 Z-0.125000
G01 X193.449017 Y174.138127 Z-0.125000
G01 X194.612574 Y174.463696 Z-0.125000
G01 X195.776104 Y174.661683 Z-0.125000
G01 X196.939661 Y174.729655 Z-0.125000
G01 X197.997411 Y174.677664 Z-0.125000
G01 X199.160967 Y174.495499 Z-0.125000
G00 Z3.000000

(End cutting path id: polyline682)


(Start cutting path id: polyline684)
(Change tool to Default tool)

G00 Z3.000000
G00 X2.945024 Y164.310535

G00 Z4.875000 (Fast pre-penetrate)
G01 Z-0.125000 F400.0(Penetrate)
G01 X4.981228 Y163.483131 Z-0.125000 F800.000000
G01 X7.295086 Y162.416888 Z-0.125000
G01 X16.550570 Y157.721333 Z-0.125000
G01 X20.292408 Y156.146324 Z-0.125000
G01 X22.725276 Y155.377181 Z-0.125000
G01 X24.946609 Y154.896936 Z-0.125000
G01 X27.167915 Y154.655531 Z-0.125000
G01 X29.389222 Y154.669607 Z-0.125000
G01 X31.398994 Y154.907969 Z-0.125000
G01 X33.514520 Y155.387103 Z-0.125000
G01 X35.630047 Y156.087930 Z-0.125000
G01 X37.838151 Y157.032597 Z-0.125000
G01 X39.689226 Y157.968031 Z-0.125000
G01 X41.818008 Y159.171275 Z-0.125000
G01 X50.888363 Y164.742017 Z-0.125000
G01 X53.202221 Y165.960792 Z-0.125000
G01 X55.410325 Y166.930542 Z-0.125000
G01 X57.631631 Y167.668225 Z-0.125000
G01 X59.852938 Y168.129738 Z-0.125000
G01 X61.968464 Y168.288091 Z-0.125000
G01 X64.084017 Y168.159530 Z-0.125000
G01 X65.987983 Y167.797342 Z-0.125000
G01 X67.891975 Y167.208724 Z-0.125000
G01 X69.862060 Y166.377034 Z-0.125000
G01 X71.898264 Y165.304917 Z-0.125000
G01 X75.590176 Y162.928300 Z-0.125000
G01 X84.115490 Y156.732904 Z-0.125000
G01 X86.336797 Y155.325137 Z-0.125000
G01 X88.373001 Y154.224419 Z-0.125000
G01 X90.422434 Y153.345739 Z-0.125000
G01 X92.432180 Y152.743098 Z-0.125000
G01 X94.336173 Y152.432901 Z-0.125000
G01 X96.240165 Y152.390833 Z-0.125000
G01 X98.249911 Y152.643562 Z-0.125000
G01 X100.365437 Y153.234614 Z-0.125000
G01 X102.533880 Y154.167904 Z-0.125000
G01 X104.755187 Y155.433087 Z-0.125000
G01 X106.688547 Y156.750525 Z-0.125000
G01 X108.745310 Y158.325509 Z-0.125000
G01 X115.409256 Y163.953851 Z-0.125000
G01 X117.795107 Y165.868214 Z-0.125000
G01 X120.026706 Y167.468280 Z-0.125000
G01 X122.155461 Y168.753942 Z-0.125000
G01 X124.284217 Y169.748642 Z-0.125000
G01 X126.280760 Y170.377873 Z-0.125000
G01 X128.290506 Y170.687329 Z-0.125000
G01 X130.194498 Y170.666745 Z-0.125000
G01 X132.204271 Y170.310193 Z-0.125000
G01 X134.280136 Y169.589707 Z-0.125000
G01 X136.316340 Y168.556589 Z-0.125000
G01 X138.527354 Y167.107759 Z-0.125000
G01 X140.419599 Y165.639006 Z-0.125000
G01 X142.476362 Y163.856272 Z-0.125000
G01 X149.033337 Y157.621480 Z-0.125000
G01 X151.361614 Y155.511086 Z-0.125000
G01 X153.665206 Y153.635246 Z-0.125000
G01 X155.752819 Y152.191072 Z-0.125000
G01 X157.789023 Y151.072283 Z-0.125000
G01 X159.811998 Y150.286207 Z-0.125000
G01 X161.715991 Y149.870150 Z-0.125000
G01 X163.619956 Y149.783896 Z-0.125000
G01 X164.677733 Y149.880998 Z-0.125000
G01 X165.735509 Y150.081393 Z-0.125000
G01 X167.877494 Y150.796932 Z-0.125000
G01 X170.098800 Y151.954350 Z-0.125000
G01 X172.422950 Y153.571349 Z-0.125000
G01 X174.397454 Y155.221844 Z-0.125000
G01 X176.577618 Y157.275458 Z-0.125000
G01 X183.611768 Y164.611181 Z-0.125000
G01 X186.129276 Y167.106463 Z-0.125000
G01 X188.548041 Y169.244981 Z-0.125000
G01 X190.738497 Y170.876347 Z-0.125000
G01 X192.959803 Y172.166586 Z-0.125000
G01 X195.035669 Y172.994678 Z-0.125000
G01 X196.093445 Y173.265796 Z-0.125000
G01 X197.151195 Y173.431240 Z-0.125000
G01 X199.160967 Y173.449205 Z-0.125000
G00 Z3.000000

(End cutting path id: polyline684)


(Start cutting path id: polyline686)
(Change tool to Default tool)

G00 Z3.000000
G00 X2.945024 Y163.528216

G00 Z4.875000 (Fast pre-penetrate)
G01 Z-0.125000 F400.0(Penetrate)
G01 X5.166331 Y162.704992 Z-0.125000 F800.000000
G01 X7.480215 Y161.697275 Z-0.125000
G01 X17.198454 Y156.779603 Z-0.125000
G01 X19.419761 Y155.760429 Z-0.125000
G01 X21.455965 Y154.945143 Z-0.125000
G01 X23.888832 Y154.165232 Z-0.125000
G01 X26.110139 Y153.673928 Z-0.125000
G01 X28.331445 Y153.420854 Z-0.125000
G01 X30.446998 Y153.417071 Z-0.125000
G01 X32.456744 Y153.633738 Z-0.125000
G01 X34.572297 Y154.091069 Z-0.125000
G01 X36.687823 Y154.771974 Z-0.125000
G01 X38.948791 Y155.723361 Z-0.125000
G01 X40.892444 Y156.699276 Z-0.125000
G01 X43.021199 Y157.900350 Z-0.125000
G01 X52.184132 Y163.527449 Z-0.125000
G01 X54.497990 Y164.743234 Z-0.125000
G01 X56.679635 Y165.698590 Z-0.125000
G01 X58.900942 Y166.434052 Z-0.125000
G01 X61.122248 Y166.892759 Z-0.125000
G01 X63.237801 Y167.048016 Z-0.125000
G01 X65.353327 Y166.916069 Z-0.125000
G01 X67.257320 Y166.550653 Z-0.125000
G01 X69.161285 Y165.958887 Z-0.125000
G01 X71.065278 Y165.155428 Z-0.125000
G01 X73.101482 Y164.086804 Z-0.125000
G01 X74.860033 Y163.016063 Z-0.125000
G01 X76.824244 Y161.692777 Z-0.125000
G01 X85.411259 Y155.454624 Z-0.125000
G01 X87.632565 Y154.051461 Z-0.125000
G01 X89.576219 Y153.001464 Z-0.125000
G01 X91.585965 Y152.133049 Z-0.125000
G01 X93.595737 Y151.520328 Z-0.125000
G01 X95.499703 Y151.199812 Z-0.125000
