%
(Header)
(Generated by gcodetools from Inkscape.)
(Using default header. To add your own header create file "header" in the output dir.)
M3
(Header end.)
G21 (All units in mm)

(Start cutting path id: polyline375)
(Change tool to Default tool)

G00 Z3.000000
G00 X10.688717 Y213.551602

G00 Z4.875000 (Fast pre-penetrate)
G01 Z-0.125000 F400.0(Penetrate)
G01 X14.422936 Y215.549786 Z-0.125000 F800.000000
G01 X15.364084 Y215.897474 Z-0.125000
G01 X16.320393 Y216.067654 Z-0.125000
G01 X17.276728 Y216.032464 Z-0.125000
G01 X18.339294 Y215.763727 Z-0.125000
G01 X19.523329 Y215.236704 Z-0.125000
G01 X22.073512 Y213.779619 Z-0.125000
G01 X23.333430 Y213.167983 Z-0.125000
G01 X24.714791 Y212.740390 Z-0.125000
G01 X25.989896 Y212.620031 Z-0.125000
G01 X27.265001 Y212.759361 Z-0.125000
G01 X28.646362 Y213.152981 Z-0.125000
G01 X33.215446 Y215.175480 Z-0.125000
G01 X35.021834 Y215.851331 Z-0.125000
G01 X36.615708 Y216.278818 Z-0.125000
G01 X38.315839 Y216.555651 Z-0.125000
G01 X39.909714 Y216.670215 Z-0.125000
G01 X41.609845 Y216.677623 Z-0.125000
G01 X48.304139 Y216.327792 Z-0.125000
G01 X51.704400 Y216.265509 Z-0.125000
G01 X62.861495 Y216.685217 Z-0.125000
G01 X65.942988 Y216.521705 Z-0.125000
G01 X68.811967 Y216.060801 Z-0.125000
G01 X77.100109 Y213.771338 Z-0.125000
G01 X79.225266 Y213.294242 Z-0.125000
G01 X81.669219 Y212.633128 Z-0.125000
G01 X83.794376 Y212.675991 Z-0.125000
G01 X85.813277 Y212.979335 Z-0.125000
G01 X87.938434 Y213.530541 Z-0.125000
G01 X92.188774 Y214.930159 Z-0.125000
G01 X94.101419 Y215.481444 Z-0.125000
G01 X96.014063 Y215.875196 Z-0.125000
G01 X97.926733 Y216.064664 Z-0.125000
G01 X99.945634 Y216.026432 Z-0.125000
G01 X101.964534 Y215.763251 Z-0.125000
G01 X103.770922 Y215.379473 Z-0.125000
G01 X107.064927 Y214.505132 Z-0.125000
G01 X110.890215 Y213.606212 Z-0.125000
G01 X112.484090 Y213.353270 Z-0.125000
G01 X114.077964 Y213.213544 Z-0.125000
G01 X115.884352 Y213.181900 Z-0.125000
G01 X117.797022 Y213.278711 Z-0.125000
G01 X128.210321 Y214.586598 Z-0.125000
G01 X131.504327 Y214.818769 Z-0.125000
G01 X134.798332 Y214.892852 Z-0.125000
G01 X137.879824 Y214.814509 Z-0.125000
G01 X140.855034 Y214.581200 Z-0.125000
G01 X143.511500 Y214.224119 Z-0.125000
G01 X148.505636 Y213.360176 Z-0.125000
G01 X150.843333 Y213.177667 Z-0.125000
G01 X152.330925 Y213.283897 Z-0.125000
G01 X153.818542 Y213.618779 Z-0.125000
G01 X155.199904 Y214.132547 Z-0.125000
G01 X158.600166 Y215.696708 Z-0.125000
G01 X159.662758 Y215.999100 Z-0.125000
G01 X160.512810 Y216.078846 Z-0.125000
G01 X161.469145 Y215.957958 Z-0.125000
G01 X162.425480 Y215.604131 Z-0.125000
G01 X163.427324 Y215.013846 Z-0.125000
G01 X166.068603 Y213.133270 Z-0.125000
G01 X166.782051 Y212.796164 Z-0.125000
G01 X167.525873 Y212.627969 Z-0.125000
G00 Z3.000000

(End cutting path id: polyline375)


(Start cutting path id: polyline373)
(Change tool to Default tool)

G00 Z3.000000
G00 X10.688717 Y212.046310

G00 Z4.875000 (Fast pre-penetrate)
G01 Z-0.125000 F400.0(Penetrate)
G01 X11.963822 Y212.581455 Z-0.125000 F800.000000
G01 X15.060475 Y214.290318 Z-0.125000
G01 X16.001623 Y214.614802 Z-0.125000
G01 X16.851676 Y214.748178 Z-0.125000
G01 X18.020524 Y214.661236 Z-0.125000
G01 X19.189372 Y214.286402 Z-0.125000
G01 X20.343034 Y213.708129 Z-0.125000
G01 X22.802147 Y212.279116 Z-0.125000
G01 X24.077252 Y211.700500 Z-0.125000
G01 X25.246100 Y211.382286 Z-0.125000
G01 X26.308666 Y211.297249 Z-0.125000
G01 X27.477514 Y211.423958 Z-0.125000
G01 X28.858876 Y211.825700 Z-0.125000
G01 X33.427986 Y213.950540 Z-0.125000
G01 X35.128117 Y214.612341 Z-0.125000
G01 X36.721991 Y215.044697 Z-0.125000
G01 X38.315839 Y215.287240 Z-0.125000
G01 X39.803457 Y215.362487 Z-0.125000
G01 X41.397332 Y215.318514 Z-0.125000
G01 X49.047934 Y214.544449 Z-0.125000
G01 X53.404531 Y214.374667 Z-0.125000
G01 X57.017306 Y214.506746 Z-0.125000
G01 X64.774139 Y215.226148 Z-0.125000
G01 X68.068145 Y215.362990 Z-0.125000
G01 X70.724611 Y215.223449 Z-0.125000
G01 X73.381077 Y214.798978 Z-0.125000
G01 X77.206365 Y213.743663 Z-0.125000
G01 X79.756575 Y213.156209 Z-0.125000
G01 X82.094245 Y212.459324 Z-0.125000
G01 X84.219402 Y212.029800 Z-0.125000
G01 X86.557099 Y211.361966 Z-0.125000
G01 X87.194638 Y211.297778 Z-0.125000
G01 X89.001026 Y211.381757 Z-0.125000
G01 X90.807413 Y211.664146 Z-0.125000
G01 X92.932597 Y212.201514 Z-0.125000
G01 X97.501680 Y213.664420 Z-0.125000
G01 X99.520581 Y214.218351 Z-0.125000
G01 X101.752021 Y214.624883 Z-0.125000
G01 X103.877178 Y214.755984 Z-0.125000
G01 X105.789822 Y214.651553 Z-0.125000
G01 X107.808749 Y214.340033 Z-0.125000
G01 X113.334168 Y212.955734 Z-0.125000
G01 X116.628174 Y212.241254 Z-0.125000
G01 X118.965844 Y211.951139 Z-0.125000
G01 X121.409797 Y211.854805 Z-0.125000
G01 X124.278750 Y211.952647 Z-0.125000
G01 X131.610583 Y212.492873 Z-0.125000
G01 X135.223358 Y212.596484 Z-0.125000
G01 X139.473699 Y212.462658 Z-0.125000
G01 X146.380479 Y211.889571 Z-0.125000
G01 X149.036919 Y211.905684 Z-0.125000
G01 X150.630794 Y212.119837 Z-0.125000
G01 X152.224668 Y212.528777 Z-0.125000
G01 X157.325061 Y214.511959 Z-0.125000
G01 X158.281396 Y214.711639 Z-0.125000
G01 X159.237731 Y214.747252 Z-0.125000
G01 X160.300297 Y214.558049 Z-0.125000
G01 X161.332514 Y214.138923 Z-0.125000
G01 X162.334384 Y213.544564 Z-0.125000
G01 X164.429194 Y212.093829 Z-0.125000
G01 X165.506946 Y211.529262 Z-0.125000
G01 X166.569538 Y211.298254 Z-0.125000
G01 X167.525873 Y211.445124 Z-0.125000
G00 Z3.000000

(End cutting path id: polyline373)


(Start cutting path id: polyline371)
(Change tool to Default tool)

G00 Z3.000000
G00 X10.688717 Y210.608248

G00 Z4.875000 (Fast pre-penetrate)
G01 Z-0.125000 F400.0(Penetrate)
G01 X11.432513 Y210.815549 Z-0.125000 F800.000000
G01 X12.145961 Y211.119237 Z-0.125000
G01 X14.696171 Y212.570978 Z-0.125000
G01 X15.682854 Y213.045269 Z-0.125000
G01 X16.745419 Y213.360811 Z-0.125000
G01 X17.701754 Y213.429523 Z-0.125000
G01 X18.658090 Y213.285167 Z-0.125000
G01 X19.705494 Y212.910173 Z-0.125000
G01 X23.166452 Y210.942734 Z-0.125000
G01 X24.502278 Y210.336865 Z-0.125000
G01 X25.883640 Y210.008491 Z-0.125000
G01 X27.158745 Y210.012884 Z-0.125000
G01 X28.221310 Y210.228148 Z-0.125000
G01 X29.390158 Y210.644179 Z-0.125000
G01 X33.458333 Y212.658290 Z-0.125000
G01 X35.340630 Y213.413489 Z-0.125000
G01 X37.359530 Y213.897253 Z-0.125000
G01 X39.378431 Y214.040260 Z-0.125000
G01 X42.141154 Y213.823567 Z-0.125000
G01 X47.666573 Y212.889694 Z-0.125000
G01 X50.216783 Y212.540075 Z-0.125000
G01 X52.660709 Y212.331715 Z-0.125000
G01 X55.104662 Y212.259220 Z-0.125000
G01 X57.761102 Y212.331319 Z-0.125000
G01 X60.523825 Y212.557219 Z-0.125000
G01 X70.724611 Y213.922891 Z-0.125000
G01 X73.062281 Y214.039228 Z-0.125000
G01 X75.187465 Y213.967764 Z-0.125000
G01 X76.993852 Y213.753505 Z-0.125000
G01 X78.800240 Y213.397244 Z-0.125000
G01 X82.094245 Y212.459324 Z-0.125000
G01 X84.113146 Y212.055755 Z-0.125000
G01 X87.088382 Y211.201946 Z-0.125000
G01 X89.001026 Y210.831768 Z-0.125000
G01 X91.657492 Y210.085353 Z-0.125000
G01 X92.401288 Y209.968619 Z-0.125000
G01 X94.207675 Y210.069954 Z-0.125000
G01 X96.120319 Y210.380918 Z-0.125000
G01 X98.245503 Y210.928208 Z-0.125000
G01 X102.602073 Y212.319783 Z-0.125000
G01 X104.621000 Y212.877286 Z-0.125000
G01 X106.746158 Y213.278129 Z-0.125000
G01 X108.871315 Y213.432090 Z-0.125000
G01 X110.783959 Y213.348799 Z-0.125000
G01 X112.802886 Y213.059557 Z-0.125000
G01 X119.497153 Y211.467508 Z-0.125000
G01 X122.366106 Y210.936172 Z-0.125000
G01 X125.447598 Y210.623806 Z-0.125000
G01 X128.954117 Y210.531863 Z-0.125000
G01 X135.967180 Y210.600178 Z-0.125000
G01 X143.192730 Y210.534165 Z-0.125000
G01 X146.380479 Y210.688417 Z-0.125000
G01 X148.186867 Y210.946994 Z-0.125000
G01 X149.886998 Y211.343022 Z-0.125000
G01 X155.412417 Y213.189097 Z-0.125000
G01 X156.475009 Y213.387719 Z-0.125000
G01 X157.537600 Y213.424628 Z-0.125000
G01 X158.706422 Y213.236960 Z-0.125000
G01 X159.875271 Y212.797355 Z-0.125000
G01 X160.877141 Y212.247155 Z-0.125000
G01 X163.336254 Y210.668017 Z-0.125000
G01 X164.656894 Y210.093317 Z-0.125000
G01 X165.400690 Y209.975921 Z-0.125000
G01 X166.144512 Y210.043972 Z-0.125000
G01 X166.782051 Y210.257120 Z-0.125000
G01 X167.525873 Y210.675796 Z-0.125000
G00 Z3.000000

(End cutting path id: polyline371)


(Start cutting path id: polyline369)
(Change tool to Default tool)

G00 Z3.000000
G00 X10.688717 Y209.225802

G00 Z4.875000 (Fast pre-penetrate)
G01 Z-0.125000 F400.0(Penetrate)
G01 X11.538770 Y209.392727 Z-0.125000 F800.000000
G01 X12.388848 Y209.719223 Z-0.125000
G01 X15.060475 Y211.234781 Z-0.125000
G01 X16.107880 Y211.739288 Z-0.125000
G01 X17.064215 Y212.027736 Z-0.125000
G01 X18.020524 Y212.108063 Z-0.125000
G01 X18.976859 Y211.971221 Z-0.125000
G01 X20.039425 Y211.589930 Z-0.125000
G01 X23.439686 Y209.628259 Z-0.125000
G01 X24.714791 Y209.032498 Z-0.125000
G01 X26.096153 Y208.687878 Z-0.125000
G01 X27.371258 Y208.691424 Z-0.125000
G01 X28.433849 Y208.918462 Z-0.125000
G01 X29.496415 Y209.311156 Z-0.125000
G01 X33.458333 Y211.359108 Z-0.125000
G01 X35.128117 Y212.072742 Z-0.125000
G01 X36.934504 Y212.555606 Z-0.125000
G01 X38.740892 Y212.717160 Z-0.125000
G01 X40.228510 Y212.640801 Z-0.125000
G01 X41.822384 Y212.403497 Z-0.125000
G01 X47.985342 Y210.987925 Z-0.125000
G01 X50.960578 Y210.449710 Z-0.125000
G01 X54.042071 Y210.114589 Z-0.125000
G01 X57.123563 Y210.004205 Z-0.125000
G01 X60.523825 Y210.124194 Z-0.125000
G01 X63.924087 Y210.477994 Z-0.125000
G01 X67.005579 Y210.971388 Z-0.125000
G01 X73.168564 Y212.157514 Z-0.125000
G01 X75.718747 Y212.534412 Z-0.125000
G01 X78.056444 Y212.707370 Z-0.125000
G01 X80.287858 Y212.663450 Z-0.125000
G01 X82.094245 Y212.459324 Z-0.125000
G01 X83.900633 Y212.106291 Z-0.125000
G01 X87.088382 Y211.201946 Z-0.125000
G01 X89.319795 Y210.755912 Z-0.125000
G01 X92.295031 Y209.881836 Z-0.125000
G01 X94.207675 Y209.513430 Z-0.125000
G01 X96.757885 Y208.771963 Z-0.125000
G01 X97.501680 Y208.645439 Z-0.125000
G01 X99.308068 Y208.744393 Z-0.125000
G01 X101.220739 Y209.055966 Z-0.125000
G01 X103.345896 Y209.608442 Z-0.125000
G01 X107.596210 Y210.981337 Z-0.125000
G01 X109.508880 Y211.520239 Z-0.125000
G01 X111.634037 Y211.936984 Z-0.125000
G01 X113.652938 Y212.104730 Z-0.125000
G01 X115.565582 Y212.050808 Z-0.125000
G01 X117.584483 Y211.800565 Z-0.125000
G01 X124.278750 Y210.391449 Z-0.125000
G01 X127.147729 Y209.903531 Z-0.125000
G01 X129.910452 Y209.598256 Z-0.125000
G01 X132.991945 Y209.420614 Z-0.125000
G01 X139.261186 Y209.393071 Z-0.125000
G01 X141.811369 Y209.507847 Z-0.125000
G01 X144.042783 Y209.714460 Z-0.125000
G01 X145.849197 Y209.984838 Z-0.125000
G01 X147.549328 Y210.338903 Z-0.125000
G01 X153.074747 Y211.846470 Z-0.125000
G01 X155.093647 Y212.108354 Z-0.125000
G01 X156.581265 Y211.988260 Z-0.125000
G01 X157.962627 Y211.581649 Z-0.125000
G01 X159.237731 Y210.969695 Z-0.125000
G01 X162.243315 Y209.209424 Z-0.125000
G01 X163.063020 Y208.867027 Z-0.125000
G01 X163.806815 Y208.687005 Z-0.125000
G01 X164.763151 Y208.684624 Z-0.125000
G01 X165.613203 Y208.921743 Z-0.125000
G01 X166.524003 Y209.417016 Z-0.125000
G01 X167.525873 Y210.187905 Z-0.125000
G00 Z3.000000

(End cutting path id: polyline369)


(Start cutting path id: polyline367)
(Change tool to Default tool)

G00 Z3.000000
G00 X10.688717 Y207.886033

G00 Z4.875000 (Fast pre-penetrate)
G01 Z-0.125000 F400.0(Penetrate)
G01 X11.645026 Y208.001444 Z-0.125000 F800.000000
G01 X12.601361 Y208.330374 Z-0.125000
G01 X15.606945 Y210.023943 Z-0.125000
G01 X16.532906 Y210.452673 Z-0.125000
G01 X17.489241 Y210.723686 Z-0.125000
G01 X18.339294 Y210.785175 Z-0.125000
G01 X19.295629 Y210.644708 Z-0.125000
G01 X20.343034 Y210.262703 Z-0.125000
G01 X23.712948 Y208.289231 Z-0.125000
G01 X25.033561 Y207.673150 Z-0.125000
G01 X26.308666 Y207.362503 Z-0.125000
G01 X27.583771 Y207.375388 Z-0.125000
G01 X28.646362 Y207.620471 Z-0.125000
G01 X29.708928 Y208.039491 Z-0.125000
G01 X33.458333 Y210.065562 Z-0.125000
G01 X35.021834 Y210.764775 Z-0.125000
G01 X36.615708 Y211.221763 Z-0.125000
G01 X38.315839 Y211.394086 Z-0.125000
G01 X39.803457 Y211.302990 Z-0.125000
G01 X41.397332 Y211.013034 Z-0.125000
G01 X47.772829 Y209.176986 Z-0.125000
G01 X51.066835 Y208.434778 Z-0.125000
G01 X54.679610 Y207.951438 Z-0.125000
G01 X58.504924 Y207.762393 Z-0.125000
G01 X62.861495 Y207.878598 Z-0.125000
G01 X67.111836 Y208.321193 Z-0.125000
G01 X71.043380 Y209.022126 Z-0.125000
G01 X79.437779 Y210.912254 Z-0.125000
G01 X81.775476 Y211.258302 Z-0.125000
G01 X83.794376 Y211.390144 Z-0.125000
G01 X86.238303 Y211.294338 Z-0.125000
G01 X88.788512 Y210.879975 Z-0.125000
G01 X92.295031 Y209.881836 Z-0.125000
G01 X94.738984 Y209.379842 Z-0.125000
G01 X97.395424 Y208.555111 Z-0.125000
G01 X99.308068 Y208.160088 Z-0.125000
G01 X101.752021 Y207.390760 Z-0.125000
G01 X102.177047 Y207.332023 Z-0.125000
G01 X104.089691 Y207.401343 Z-0.125000
G01 X106.002335 Y207.700507 Z-0.125000
G01 X108.127519 Y208.252745 Z-0.125000
G01 X112.377833 Y209.641674 Z-0.125000
G01 X114.290477 Y210.183751 Z-0.125000
G01 X116.309404 Y210.585891 Z-0.125000
G01 X118.328305 Y210.773083 Z-0.125000
G01 X120.134692 Y210.760251 Z-0.125000
G01 X122.153593 Y210.580335 Z-0.125000
G01 X128.847860 Y209.502476 Z-0.125000
G01 X131.823096 Y209.123938 Z-0.125000
G01 X134.479562 Y208.920473 Z-0.125000
G01 X137.136002 Y208.849856 Z-0.125000
G01 X139.898725 Y208.921584 Z-0.125000
G01 X142.555191 Y209.144284 Z-0.125000
G01 X145.317888 Y209.549413 Z-0.125000
G01 X150.843333 Y210.617456 Z-0.125000
G01 X152.330925 Y210.771152 Z-0.125000
G01 X153.712286 Y210.757552 Z-0.125000
G01 X154.987391 Y210.567264 Z-0.125000
G01 X156.262496 Y210.185259 Z-0.125000
G01 X157.598296 Y209.592937 Z-0.125000
G01 X161.044119 Y207.774908 Z-0.125000
G01 X162.000428 Y207.453863 Z-0.125000
G01 X162.956763 Y207.328133 Z-0.125000
G01 X163.913072 Y207.442486 Z-0.125000
G01 X164.975664 Y207.865343 Z-0.125000
G01 X165.977534 Y208.516693 Z-0.125000
G01 X167.525873 Y209.790713 Z-0.125000
G00 Z3.000000

(End cutting path id: polyline367)


(Start cutting path id: polyline365)
(Change tool to Default tool)

G00 Z3.000000
G00 X10.688717 Y206.576400

G00 Z4.875000 (Fast pre-penetrate)
G01 Z-0.125000 F400.0(Penetrate)
G01 X11.538770 Y206.599128 Z-0.125000 F800.000000
G01 X12.495105 Y206.839819 Z-0.125000
G01 X13.512135 Y207.301993 Z-0.125000
G01 X16.532906 Y209.011384 Z-0.125000
G01 X17.595498 Y209.367063 Z-0.125000
G01 X18.551833 Y209.463583 Z-0.125000
G01 X19.508142 Y209.333964 Z-0.125000
G01 X20.616268 Y208.928040 Z-0.125000
G01 X23.986183 Y206.926734 Z-0.125000
G01 X25.246100 Y206.338223 Z-0.125000
G01 X26.521179 Y206.032973 Z-0.125000
G01 X27.690027 Y206.049721 Z-0.125000
G01 X28.752619 Y206.299567 Z-0.125000
G01 X29.815184 Y206.733324 Z-0.125000
G01 X33.458333 Y208.776778 Z-0.125000
G01 X35.021834 Y209.495042 Z-0.125000
G01 X36.615708 Y209.942875 Z-0.125000
G01 X38.209583 Y210.070430 Z-0.125000
G01 X39.484688 Y209.960390 Z-0.125000
G01 X40.972305 Y209.642838 Z-0.125000
G01 X48.091599 Y207.240636 Z-0.125000
G01 X50.216783 Y206.688954 Z-0.125000
G01 X52.341940 Y206.284115 Z-0.125000
G01 X54.998406 Y205.957858 Z-0.125000
G01 X57.973615 Y205.769475 Z-0.125000
G01 X61.480134 Y205.710050 Z-0.125000
G01 X65.092935 Y205.794266 Z-0.125000
G01 X69.024480 Y206.080042 Z-0.125000
G01 X72.637255 Y206.578385 Z-0.125000
G01 X76.356286 Y207.355385 Z-0.125000
G01 X82.625528 Y209.013765 Z-0.125000
G01 X84.963224 Y209.555896 Z-0.125000
G01 X87.513408 Y209.956369 Z-0.125000
G01 X89.744848 Y210.071330 Z-0.125000
G01 X91.976261 Y209.924804 Z-0.125000
G01 X94.207675 Y209.513430 Z-0.125000
G01 X97.395424 Y208.555111 Z-0.125000
G01 X99.839377 Y208.016367 Z-0.125000
G01 X102.389560 Y207.195815 Z-0.125000
G01 X103.983435 Y206.822621 Z-0.125000
G01 X106.214875 Y206.081921 Z-0.125000
G01 X106.639901 Y206.018289 Z-0.125000
G01 X108.658802 Y206.063956 Z-0.125000
G01 X110.677702 Y206.377328 Z-0.125000
G01 X112.696603 Y206.907076 Z-0.125000
G01 X118.434561 Y208.711585 Z-0.125000
G01 X120.453462 Y209.148464 Z-0.125000
G01 X122.366106 Y209.388335 Z-0.125000
G01 X124.066237 Y209.463107 Z-0.125000
G01 X125.978881 Y209.419424 Z-0.125000
G01 X133.841997 Y208.745452 Z-0.125000
G01 X137.986081 Y208.605672 Z-0.125000
G01 X141.598856 Y208.743361 Z-0.125000
G01 X147.761841 Y209.354998 Z-0.125000
G01 X149.993254 Y209.464324 Z-0.125000
G01 X152.012155 Y209.332403 Z-0.125000
G01 X153.818542 Y208.940079 Z-0.125000
G01 X155.624930 Y208.266371 Z-0.125000
G01 X159.556501 Y206.419582 Z-0.125000
G01 X160.619066 Y206.108538 Z-0.125000
G01 X161.681658 Y206.005800 Z-0.125000
G01 X162.850506 Y206.191485 Z-0.125000
G01 X163.973794 Y206.677418 Z-0.125000
G01 X165.055356 Y207.387056 Z-0.125000
G01 X167.525873 Y209.288826 Z-0.125000
G00 Z3.000000

(End cutting path id: polyline365)


(Start cutting path id: polyline363)
(Change tool to Default tool)

G00 Z3.000000
G00 X10.688717 Y205.285658

G00 Z4.875000 (Fast pre-penetrate)
G01 Z-0.125000 F400.0(Penetrate)
G01 X11.645026 Y205.257295 Z-0.125000 F800.000000
G01 X12.707618 Y205.496505 Z-0.125000
G01 X13.785370 Y205.984607 Z-0.125000
G01 X16.851676 Y207.721013 Z-0.125000
G01 X17.914267 Y208.060922 Z-0.125000
G01 X18.870603 Y208.138075 Z-0.125000
G01 X19.826911 Y207.985331 Z-0.125000
G01 X20.889503 Y207.574381 Z-0.125000
G01 X23.986183 Y205.699043 Z-0.125000
G01 X25.246100 Y205.071478 Z-0.125000
G01 X26.521179 Y204.725325 Z-0.125000
G01 X27.690027 Y204.714159 Z-0.125000
G01 X28.752619 Y204.951808 Z-0.125000
G01 X29.815184 Y205.386967 Z-0.125000
G01 X33.458333 Y207.491910 Z-0.125000
G01 X34.915577 Y208.183371 Z-0.125000
G01 X36.403195 Y208.619960 Z-0.125000
G01 X37.890813 Y208.747648 Z-0.125000
G01 X39.059661 Y208.643031 Z-0.125000
G01 X40.441023 Y208.327358 Z-0.125000
G01 X41.928641 Y207.822057 Z-0.125000
G01 X45.753929 Y206.262340 Z-0.125000
G01 X47.772829 Y205.536589 Z-0.125000
G01 X50.004269 Y204.919925 Z-0.125000
G01 X52.341940 Y204.488867 Z-0.125000
G01 X55.104662 Y204.207880 Z-0.125000
G01 X58.611181 Y204.070349 Z-0.125000
G01 X65.624218 Y204.044923 Z-0.125000
G01 X70.512098 Y204.141919 Z-0.125000
G01 X74.549899 Y204.427960 Z-0.125000
G01 X78.162700 Y204.957337 Z-0.125000
G01 X81.775476 Y205.785667 Z-0.125000
G01 X87.938434 Y207.592928 Z-0.125000
G01 X90.169874 Y208.169481 Z-0.125000
G01 X92.720057 Y208.618875 Z-0.125000
G01 X94.951497 Y208.748415 Z-0.125000
G01 X97.076654 Y208.600698 Z-0.125000
G01 X99.201811 Y208.187155 Z-0.125000
G01 X102.389560 Y207.195815 Z-0.125000
G01 X104.514744 Y206.669295 Z-0.125000
G01 X106.958671 Y205.813793 Z-0.125000
G01 X108.446289 Y205.434433 Z-0.125000
G01 X110.146420 Y204.853118 Z-0.125000
G01 X110.996472 Y204.703444 Z-0.125000
G01 X112.909142 Y204.724187 Z-0.125000
G01 X114.928043 Y205.015387 Z-0.125000
G01 X116.840687 Y205.492642 Z-0.125000
G01 X122.791159 Y207.273523 Z-0.125000
G01 X124.810059 Y207.699079 Z-0.125000
G01 X126.828960 Y207.972075 Z-0.125000
G01 X130.229222 Y208.139080 Z-0.125000
G01 X138.411107 Y208.028167 Z-0.125000
G01 X145.636657 Y208.141382 Z-0.125000
G01 X148.611893 Y208.014065 Z-0.125000
G01 X151.055846 Y207.616502 Z-0.125000
G01 X153.393516 Y206.900144 Z-0.125000
G01 X157.856370 Y205.081374 Z-0.125000
G01 X159.131475 Y204.760911 Z-0.125000
G01 X160.194040 Y204.683759 Z-0.125000
G01 X161.469145 Y204.878650 Z-0.125000
G01 X162.698715 Y205.381914 Z-0.125000
G01 X163.791655 Y206.054087 Z-0.125000
G01 X166.250768 Y207.848912 Z-0.125000
G01 X167.525873 Y208.527832 Z-0.125000
G00 Z3.000000

(End cutting path id: polyline363)


(Start cutting path id: polyline361)
(Change tool to Default tool)

G00 Z3.000000
G00 X10.688717 Y204.004336

G00 Z4.875000 (Fast pre-penetrate)
G01 Z-0.125000 F400.0(Penetrate)
G01 X11.751283 Y203.924802 Z-0.125000 F800.000000
G01 X12.813874 Y204.133135 Z-0.125000
G01 X13.967536 Y204.639335 Z-0.125000
G01 X16.153415 Y205.940554 Z-0.125000
G01 X17.064215 Y206.400955 Z-0.125000
G01 X18.126780 Y206.741077 Z-0.125000
G01 X19.083116 Y206.814260 Z-0.125000
G01 X20.039425 Y206.653658 Z-0.125000
G01 X21.071669 Y206.246862 Z-0.125000
G01 X24.259418 Y204.297176 Z-0.125000
G01 X25.458614 Y203.711866 Z-0.125000
G01 X26.627435 Y203.401298 Z-0.125000
G01 X27.796284 Y203.394816 Z-0.125000
G01 X28.752619 Y203.610848 Z-0.125000
G01 X29.815184 Y204.048601 Z-0.125000
G01 X33.367264 Y206.158677 Z-0.125000
G01 X34.809321 Y206.868738 Z-0.125000
G01 X36.296939 Y207.313105 Z-0.125000
G01 X37.678300 Y207.423780 Z-0.125000
G01 X39.059661 Y207.257913 Z-0.125000
G01 X40.547279 Y206.829183 Z-0.125000
G01 X45.647672 Y204.591737 Z-0.125000
G01 X47.879086 Y203.763301 Z-0.125000
G01 X49.897986 Y203.232097 Z-0.125000
G01 X51.916914 Y202.905629 Z-0.125000
G01 X53.617045 Y202.762119 Z-0.125000
G01 X55.635945 Y202.703963 Z-0.125000
G01 X64.880422 Y202.859909 Z-0.125000
G01 X74.231129 Y202.706292 Z-0.125000
G01 X77.525135 Y202.747223 Z-0.125000
G01 X80.819140 Y202.996010 Z-0.125000
G01 X84.006889 Y203.512079 Z-0.125000
G01 X87.300895 Y204.345754 Z-0.125000
G01 X93.038853 Y206.195242 Z-0.125000
G01 X95.270267 Y206.827754 Z-0.125000
G01 X97.607937 Y207.280641 Z-0.125000
G01 X99.839377 Y207.425368 Z-0.125000
G01 X101.752021 Y207.287202 Z-0.125000
G01 X103.770922 Y206.879745 Z-0.125000
G01 X106.958671 Y205.813793 Z-0.125000
G01 X108.977571 Y205.267243 Z-0.125000
G01 X113.865451 Y203.571028 Z-0.125000
G01 X115.034299 Y203.398388 Z-0.125000
G01 X116.946943 Y203.386826 Z-0.125000
G01 X119.072101 Y203.661436 Z-0.125000
G01 X120.984745 Y204.098924 Z-0.125000
G01 X126.510190 Y205.604058 Z-0.125000
G01 X130.016709 Y206.264430 Z-0.125000
G01 X133.948253 Y206.623205 Z-0.125000
G01 X139.048646 Y206.732504 Z-0.125000
G01 X144.042783 Y206.604631 Z-0.125000
G01 X145.955453 Y206.443818 Z-0.125000
G01 X147.761841 Y206.190109 Z-0.125000
G01 X150.843333 Y205.458907 Z-0.125000
G01 X156.156239 Y203.680380 Z-0.125000
G01 X157.325061 Y203.437811 Z-0.125000
G01 X158.493909 Y203.360288 Z-0.125000
G01 X159.769014 Y203.517397 Z-0.125000
G01 X161.044119 Y203.953774 Z-0.125000
G01 X162.425480 Y204.713524 Z-0.125000
G01 X165.613203 Y206.830903 Z-0.125000
G01 X166.569538 Y207.247912 Z-0.125000
G01 X167.525873 Y207.423674 Z-0.125000
G00 Z3.000000

(End cutting path id: polyline361)


(Start cutting path id: polyline359)
(Change tool to Default tool)

G00 Z3.000000
G00 X10.688717 Y202.724945

G00 Z4.875000 (Fast pre-penetrate)
G01 Z-0.125000 F400.0(Penetrate)
G01 X11.857539 Y202.597575 Z-0.125000 F800.000000
G01 X13.026388 Y202.819136 Z-0.125000
G01 X14.149701 Y203.316023 Z-0.125000
G01 X16.335580 Y204.622349 Z-0.125000
G01 X17.276728 Y205.096217 Z-0.125000
G01 X18.233037 Y205.406652 Z-0.125000
G01 X19.189372 Y205.493250 Z-0.125000
G01 X20.145681 Y205.342676 Z-0.125000
G01 X21.162738 Y204.947733 Z-0.125000
G01 X24.350487 Y202.983019 Z-0.125000
G01 X25.564870 Y202.382998 Z-0.125000
G01 X26.733692 Y202.074071 Z-0.125000
G01 X27.902540 Y202.078621 Z-0.125000
G01 X28.858876 Y202.310978 Z-0.125000
G01 X29.906280 Y202.763256 Z-0.125000
G01 X33.367264 Y204.877804 Z-0.125000
G01 X34.703064 Y205.550903 Z-0.125000
G01 X36.084426 Y205.982464 Z-0.125000
G01 X37.359530 Y206.102373 Z-0.125000
G01 X38.740892 Y205.939443 Z-0.125000
G01 X40.228510 Y205.482376 Z-0.125000
G01 X45.222646 Y203.103378 Z-0.125000
G01 X47.241547 Y202.298754 Z-0.125000
G01 X49.047934 Y201.795041 Z-0.125000
G01 X50.960578 Y201.488998 Z-0.125000
G01 X52.660709 Y201.385705 Z-0.125000
G01 X54.573353 Y201.410629 Z-0.125000
G01 X62.755239 Y202.044993 Z-0.125000
G01 X67.324349 Y202.180539 Z-0.125000
G01 X71.680946 Y202.040336 Z-0.125000
G01 X80.181601 Y201.441347 Z-0.125000
G01 X83.900633 Y201.402109 Z-0.125000
G01 X86.769612 Y201.631635 Z-0.125000
G01 X89.532308 Y202.124923 Z-0.125000
G01 X92.507544 Y202.951348 Z-0.125000
G01 X97.926733 Y204.861664 Z-0.125000
G01 X99.945634 Y205.483752 Z-0.125000
G01 X102.177047 Y205.953969 Z-0.125000
G01 X104.302204 Y206.102426 Z-0.125000
G01 X106.108592 Y205.963441 Z-0.125000
G01 X107.915006 Y205.585828 Z-0.125000
G01 X113.015399 Y203.888792 Z-0.125000
G01 X117.053200 Y202.413319 Z-0.125000
G01 X117.903279 Y202.217104 Z-0.125000
G01 X119.072101 Y202.079362 Z-0.125000
G01 X120.984745 Y202.056555 Z-0.125000
G01 X123.109928 Y202.287668 Z-0.125000
G01 X130.122965 Y203.800263 Z-0.125000
G01 X133.310714 Y204.331466 Z-0.125000
G01 X136.392206 Y204.626556 Z-0.125000
G01 X139.473699 Y204.720853 Z-0.125000
G01 X142.873961 Y204.598166 Z-0.125000
G01 X145.955453 Y204.244789 Z-0.125000
G01 X148.718149 Y203.696070 Z-0.125000
G01 X154.031056 Y202.319604 Z-0.125000
G01 X155.412417 Y202.094893 Z-0.125000
G01 X156.581265 Y202.037214 Z-0.125000
G01 X158.175140 Y202.224433 Z-0.125000
G01 X159.769014 Y202.763495 Z-0.125000
G01 X161.150376 Y203.492765 Z-0.125000
G01 X163.973794 Y205.268752 Z-0.125000
G01 X165.188177 Y205.841256 Z-0.125000
G01 X166.357025 Y206.095653 Z-0.125000
G01 X166.888308 Y206.088615 Z-0.125000
G01 X167.525873 Y205.968785 Z-0.125000
G00 Z3.000000

(End cutting path id: polyline359)


(Start cutting path id: polyline357)
(Change tool to Default tool)

G00 Z3.000000
G00 X10.688717 Y201.441770

G00 Z4.875000 (Fast pre-penetrate)
G01 Z-0.125000 F400.0(Penetrate)
G01 X11.963822 Y201.273098 Z-0.125000 F800.000000
G01 X13.132644 Y201.482463 Z-0.125000
G01 X14.240771 Y201.963819 Z-0.125000
G01 X17.382985 Y203.760787 Z-0.125000
G01 X18.339294 Y204.078287 Z-0.125000
G01 X19.295629 Y204.170891 Z-0.125000
G01 X20.251964 Y204.023439 Z-0.125000
G01 X21.253808 Y203.634343 Z-0.125000
G01 X24.441556 Y201.654177 Z-0.125000
G01 X25.671127 Y201.044949 Z-0.125000
G01 X26.839975 Y200.744329 Z-0.125000
G01 X27.902540 Y200.750759 Z-0.125000
G01 X28.858876 Y200.980867 Z-0.125000
G01 X29.906280 Y201.439018 Z-0.125000
G01 X33.276168 Y203.544358 Z-0.125000
G01 X34.596808 Y204.229734 Z-0.125000
G01 X35.871912 Y204.647061 Z-0.125000
G01 X37.147017 Y204.779617 Z-0.125000
G01 X38.422122 Y204.630419 Z-0.125000
G01 X39.909714 Y204.156127 Z-0.125000
G01 X41.291075 Y203.515069 Z-0.125000
G01 X44.752059 Y201.691775 Z-0.125000
G01 X46.603981 Y200.901968 Z-0.125000
G01 X48.304139 Y200.401271 Z-0.125000
G01 X50.110526 Y200.118035 Z-0.125000
G01 X51.704400 Y200.057895 Z-0.125000
G01 X53.510788 Y200.157167 Z-0.125000
G01 X63.074008 Y201.547392 Z-0.125000
G01 X66.049244 Y201.799672 Z-0.125000
G01 X69.024480 Y201.882221 Z-0.125000
G01 X71.893459 Y201.803826 Z-0.125000
G01 X75.399978 Y201.546016 Z-0.125000
G01 X80.181601 Y201.036905 Z-0.125000
G01 X84.856968 Y200.283029 Z-0.125000
G01 X87.407151 Y200.087105 Z-0.125000
G01 X89.638591 Y200.071945 Z-0.125000
G01 X92.188774 Y200.294406 Z-0.125000
G01 X94.632728 Y200.779254 Z-0.125000
G01 X97.289167 Y201.590228 Z-0.125000
G01 X102.283304 Y203.506602 Z-0.125000
G01 X104.195948 Y204.144882 Z-0.125000
G01 X106.321131 Y204.627217 Z-0.125000
G01 X108.340032 Y204.779643 Z-0.125000
G01 X110.040163 Y204.647008 Z-0.125000
G01 X111.740294 Y204.285482 Z-0.125000
G01 X113.440425 Y203.737980 Z-0.125000
G01 X119.815923 Y201.347737 Z-0.125000
G01 X121.303541 Y200.995260 Z-0.125000
G01 X122.897415 Y200.776476 Z-0.125000
G01 X124.491290 Y200.713744 Z-0.125000
G01 X126.297677 Y200.802485 Z-0.125000
G01 X135.117102 Y202.050576 Z-0.125000
G01 X137.667311 Y202.262268 Z-0.125000
G01 X140.111238 Y202.326324 Z-0.125000
G01 X142.342652 Y202.258406 Z-0.125000
G01 X144.574092 Y202.067403 Z-0.125000
G01 X146.911762 Y201.743871 Z-0.125000
G01 X151.905898 Y200.887522 Z-0.125000
G01 X153.287260 Y200.744356 Z-0.125000
G01 X154.456108 Y200.716204 Z-0.125000
G01 X156.262496 Y200.909376 Z-0.125000
G01 X158.068883 Y201.451666 Z-0.125000
G01 X159.602036 Y202.179586 Z-0.125000
G01 X162.880854 Y204.052331 Z-0.125000
G01 X164.338124 Y204.625471 Z-0.125000
G01 X165.188177 Y204.769880 Z-0.125000
G01 X165.931999 Y204.751703 Z-0.125000
G01 X166.675795 Y204.586789 Z-0.125000
G01 X167.525873 Y204.218966 Z-0.125000
G00 Z3.000000

(End cutting path id: polyline357)


(Start cutting path id: polyline355)
(Change tool to Default tool)

G00 Z3.000000
G00 X10.688717 Y200.150737

G00 Z4.875000 (Fast pre-penetrate)
G01 Z-0.125000 F400.0(Penetrate)
G01 X11.963822 Y199.948543 Z-0.125000 F800.000000
G01 X12.601361 Y200.001671 Z-0.125000
G01 X13.238901 Y200.157564 Z-0.125000
G01 X14.422936 Y200.678951 Z-0.125000
G01 X16.608815 Y201.990357 Z-0.125000
G01 X17.519589 Y202.451948 Z-0.125000
G01 X18.445550 Y202.756271 Z-0.125000
G01 X19.401885 Y202.847711 Z-0.125000
G01 X20.358221 Y202.696476 Z-0.125000
G01 X21.344904 Y202.308253 Z-0.125000
G01 X24.532652 Y200.312265 Z-0.125000
G01 X25.671127 Y199.740660 Z-0.125000
G01 X26.839975 Y199.425806 Z-0.125000
G01 X27.902540 Y199.425013 Z-0.125000
G01 X28.858876 Y199.655121 Z-0.125000
G01 X29.906280 Y200.120152 Z-0.125000
G01 X33.185099 Y202.209299 Z-0.125000
G01 X34.384295 Y202.857210 Z-0.125000
G01 X35.659399 Y203.306604 Z-0.125000
G01 X36.828248 Y203.456252 Z-0.125000
G01 X38.209583 Y203.305996 Z-0.125000
G01 X39.590944 Y202.850622 Z-0.125000
G01 X40.926771 Y202.204986 Z-0.125000
G01 X44.387754 Y200.279140 Z-0.125000
G01 X46.391468 Y199.406413 Z-0.125000
G01 X48.304139 Y198.903361 Z-0.125000
G01 X50.216783 Y198.734425 Z-0.125000
G01 X51.810657 Y198.812159 Z-0.125000
G01 X53.617045 Y199.076954 Z-0.125000
G01 X60.417568 Y200.634051 Z-0.125000
G01 X63.817830 Y201.250768 Z-0.125000
G01 X67.218092 Y201.623353 Z-0.125000
G01 X70.724611 Y201.751465 Z-0.125000
G01 X74.549899 Y201.613961 Z-0.125000
G01 X79.437779 Y201.131626 Z-0.125000
G01 X85.919533 Y200.080358 Z-0.125000
G01 X91.019926 Y198.923945 Z-0.125000
G01 X93.357623 Y198.743473 Z-0.125000
G01 X95.482780 Y198.789405 Z-0.125000
G01 X97.395424 Y199.034329 Z-0.125000
G01 X99.414325 Y199.510711 Z-0.125000
G01 X101.645765 Y200.267974 Z-0.125000
G01 X106.002335 Y202.073436 Z-0.125000
G01 X107.808749 Y202.734920 Z-0.125000
G01 X109.827650 Y203.255989 Z-0.125000
G01 X111.634037 Y203.452072 Z-0.125000
G01 X113.546682 Y203.345974 Z-0.125000
G01 X115.459326 Y202.937431 Z-0.125000
G01 X117.159457 Y202.380220 Z-0.125000
G01 X122.472363 Y200.385952 Z-0.125000
G01 X123.959980 Y199.956110 Z-0.125000
G01 X126.191421 Y199.548864 Z-0.125000
G01 X128.422834 Y199.395485 Z-0.125000
G01 X130.760504 Y199.441152 Z-0.125000
G01 X137.029746 Y199.900151 Z-0.125000
G01 X140.430008 Y200.006989 Z-0.125000
G01 X143.936526 Y199.898854 Z-0.125000
G01 X150.099511 Y199.422393 Z-0.125000
G01 X152.649721 Y199.434247 Z-0.125000
G01 X154.562365 Y199.699967 Z-0.125000
G01 X156.368752 Y200.222836 Z-0.125000
G01 X158.053696 Y200.948535 Z-0.125000
G01 X161.605749 Y202.775057 Z-0.125000
G01 X162.531737 Y203.140552 Z-0.125000
G01 X163.381789 Y203.366559 Z-0.125000
G01 X164.444381 Y203.454665 Z-0.125000
G01 X165.400690 Y203.318378 Z-0.125000
G01 X166.432934 Y202.930102 Z-0.125000
G01 X167.525873 Y202.268830 Z-0.125000
G00 Z3.000000

(End cutting path id: polyline355)


(Start cutting path id: polyline353)
(Change tool to Default tool)

G00 Z3.000000
G00 X10.688717 Y198.849174

G00 Z4.875000 (Fast pre-penetrate)
G01 Z-0.125000 F400.0(Penetrate)
G01 X11.963822 Y198.626290 Z-0.125000 F800.000000
G01 X12.601361 Y198.667088 Z-0.125000
G01 X13.238901 Y198.810889 Z-0.125000
G01 X14.514005 Y199.362783 Z-0.125000
G01 X16.699884 Y200.675458 Z-0.125000
G01 X17.610685 Y201.135621 Z-0.125000
G01 X18.551833 Y201.440394 Z-0.125000
G01 X19.508142 Y201.523526 Z-0.125000
G01 X20.464477 Y201.361998 Z-0.125000
G01 X21.435973 Y200.970574 Z-0.125000
G01 X24.532652 Y199.013295 Z-0.125000
G01 X25.671127 Y198.430154 Z-0.125000
G01 X26.839975 Y198.105564 Z-0.125000
G01 X27.902540 Y198.101013 Z-0.125000
G01 X28.858876 Y198.333105 Z-0.125000
G01 X29.906280 Y198.805836 Z-0.125000
G01 X33.094029 Y200.872255 Z-0.125000
G01 X34.384295 Y201.576866 Z-0.125000
G01 X35.553143 Y201.987367 Z-0.125000
G01 X36.721991 Y202.133866 Z-0.125000
G01 X37.997070 Y201.988055 Z-0.125000
G01 X39.469500 Y201.477304 Z-0.125000
G01 X40.744605 Y200.824286 Z-0.125000
G01 X44.023450 Y198.911060 Z-0.125000
G01 X45.860185 Y198.068443 Z-0.125000
G01 X47.560316 Y197.586320 Z-0.125000
G01 X49.260447 Y197.412462 Z-0.125000
G01 X50.960578 Y197.514088 Z-0.125000
G01 X52.766966 Y197.852834 Z-0.125000
G01 X59.780003 Y199.917746 Z-0.125000
G01 X63.286548 Y200.734143 Z-0.125000
G01 X67.005579 Y201.273866 Z-0.125000
G01 X71.043380 Y201.525405 Z-0.125000
G01 X73.593590 Y201.532628 Z-0.125000
G01 X76.143773 Y201.430393 Z-0.125000
G01 X78.587727 Y201.227405 Z-0.125000
G01 X81.031653 Y200.915911 Z-0.125000
G01 X87.513408 Y199.748942 Z-0.125000
G01 X91.976261 Y198.668411 Z-0.125000
G01 X95.164010 Y197.722659 Z-0.125000
G01 X96.757885 Y197.500621 Z-0.125000
G01 X98.351759 Y197.412012 Z-0.125000
G01 X100.689429 Y197.558909 Z-0.125000
G01 X102.920869 Y198.032036 Z-0.125000
G01 X105.258540 Y198.842083 Z-0.125000
G01 X109.508880 Y200.704510 Z-0.125000
G01 X111.315268 Y201.402083 Z-0.125000
G01 X113.227912 Y201.919925 Z-0.125000
G01 X114.928043 Y202.124183 Z-0.125000
G01 X116.734430 Y202.052851 Z-0.125000
G01 X118.753331 Y201.653463 Z-0.125000
G01 X120.559719 Y201.087044 Z-0.125000
G01 X125.022572 Y199.463033 Z-0.125000
G01 X127.679039 Y198.720322 Z-0.125000
G01 X130.122965 Y198.301726 Z-0.125000
G01 X132.779431 Y198.101119 Z-0.125000
G01 X147.655584 Y198.070824 Z-0.125000
G01 X149.568228 Y198.134377 Z-0.125000
G01 X151.268359 Y198.296487 Z-0.125000
G01 X152.968490 Y198.602715 Z-0.125000
G01 X154.668621 Y199.083939 Z-0.125000
G01 X156.368752 Y199.740105 Z-0.125000
G01 X160.406553 Y201.562103 Z-0.125000
G01 X161.681658 Y201.962628 Z-0.125000
G01 X162.744250 Y202.123627 Z-0.125000
G01 X163.913072 Y202.065604 Z-0.125000
G01 X165.081920 Y201.730854 Z-0.125000
G01 X166.250768 Y201.126096 Z-0.125000
G01 X167.525873 Y200.225032 Z-0.125000
G00 Z3.000000

(End cutting path id: polyline353)


(Start cutting path id: polyline351)
(Change tool to Default tool)

G00 Z3.000000
G00 X10.688717 Y197.535599

G00 Z4.875000 (Fast pre-penetrate)
G01 Z-0.125000 F400.0(Penetrate)
G01 X11.963822 Y197.304221 Z-0.125000 F800.000000
G01 X12.601361 Y197.338643 Z-0.125000
G01 X13.238901 Y197.475565 Z-0.125000
G01 X14.514005 Y198.015262 Z-0.125000
G01 X17.610685 Y199.791619 Z-0.125000
G01 X18.658090 Y200.129544 Z-0.125000
G01 X19.614398 Y200.197701 Z-0.125000
G01 X20.570734 Y200.020113 Z-0.125000
G01 X21.527042 Y199.622180 Z-0.125000
G01 X24.532652 Y197.705038 Z-0.125000
G01 X25.671127 Y197.114012 Z-0.125000
G01 X26.839975 Y196.783681 Z-0.125000
G01 X27.902540 Y196.778336 Z-0.125000
G01 X28.858876 Y197.014106 Z-0.125000
G01 X29.906280 Y197.495091 Z-0.125000
G01 X33.094029 Y199.589927 Z-0.125000
G01 X34.384295 Y200.293057 Z-0.125000
G01 X35.659399 Y200.712526 Z-0.125000
G01 X36.828248 Y200.807168 Z-0.125000
G01 X38.103326 Y200.594655 Z-0.125000
G01 X39.378431 Y200.101393 Z-0.125000
G01 X40.653536 Y199.411731 Z-0.125000
G01 X43.750189 Y197.533429 Z-0.125000
G01 X45.541416 Y196.689859 Z-0.125000
G01 X47.347803 Y196.199137 Z-0.125000
G01 X48.304139 Y196.098649 Z-0.125000
G01 X49.260447 Y196.103094 Z-0.125000
G01 X50.641809 Y196.273274 Z-0.125000
G01 X52.235683 Y196.659380 Z-0.125000
G01 X59.248720 Y199.125769 Z-0.125000
G01 X61.267621 Y199.708487 Z-0.125000
G01 X63.180291 Y200.147615 Z-0.125000
G01 X65.517961 Y200.541712 Z-0.125000
G01 X67.961888 Y200.811586 Z-0.125000
G01 X70.724611 Y200.982269 Z-0.125000
G01 X73.699847 Y201.047277 Z-0.125000
G01 X76.887596 Y201.003700 Z-0.125000
G01 X79.969088 Y200.843178 Z-0.125000
G01 X82.731784 Y200.574890 Z-0.125000
G01 X85.281994 Y200.196881 Z-0.125000
G01 X87.619664 Y199.724785 Z-0.125000
G01 X92.188774 Y198.611288 Z-0.125000
G01 X96.332859 Y197.350021 Z-0.125000
G01 X98.776785 Y196.522034 Z-0.125000
G01 X100.476916 Y196.223320 Z-0.125000
G01 X102.070791 Y196.093648 Z-0.125000
G01 X104.195948 Y196.200804 Z-0.125000
G01 X106.321131 Y196.649484 Z-0.125000
G01 X108.552545 Y197.446990 Z-0.125000
G01 X112.696603 Y199.339473 Z-0.125000
G01 X114.503017 Y200.061732 Z-0.125000
G01 X116.415661 Y200.591639 Z-0.125000
G01 X118.222048 Y200.804204 Z-0.125000
G01 X120.028436 Y200.724777 Z-0.125000
G01 X121.941080 Y200.365394 Z-0.125000
G01 X123.641211 Y199.878640 Z-0.125000
G01 X128.316578 Y198.339243 Z-0.125000
G01 X131.079300 Y197.634341 Z-0.125000
G01 X133.735740 Y197.197753 Z-0.125000
G01 X136.710976 Y196.943965 Z-0.125000
G01 X140.323751 Y196.839719 Z-0.125000
G01 X144.361579 Y196.869644 Z-0.125000
G01 X147.230532 Y197.013471 Z-0.125000
G01 X149.674485 Y197.295384 Z-0.125000
G01 X151.587129 Y197.671648 Z-0.125000
G01 X153.393516 Y198.178033 Z-0.125000
G01 X159.450245 Y200.438657 Z-0.125000
G01 X160.512810 Y200.692550 Z-0.125000
G01 X161.575402 Y200.807988 Z-0.125000
G01 X162.956763 Y200.695461 Z-0.125000
G01 X164.338124 Y200.249691 Z-0.125000
G01 X165.704299 Y199.498461 Z-0.125000
G01 X167.525873 Y198.183722 Z-0.125000
G00 Z3.000000

(End cutting path id: polyline351)


(Start cutting path id: polyline349)
(Change tool to Default tool)

G00 Z3.000000
G00 X10.688717 Y196.209535

G00 Z4.875000 (Fast pre-penetrate)
G01 Z-0.125000 F400.0(Penetrate)
G01 X11.963822 Y195.981306 Z-0.125000 F800.000000
G01 X12.601361 Y196.015173 Z-0.125000
G01 X13.238901 Y196.150348 Z-0.125000
G01 X14.514005 Y196.684727 Z-0.125000
G01 X16.790980 Y198.041588 Z-0.125000
G01 X17.701754 Y198.497596 Z-0.125000
G01 X18.658090 Y198.801787 Z-0.125000
G01 X19.614398 Y198.876109 Z-0.125000
G01 X20.570734 Y198.704262 Z-0.125000
G01 X21.527042 Y198.310219 Z-0.125000
G01 X24.532652 Y196.388605 Z-0.125000
G01 X25.671127 Y195.793029 Z-0.125000
G01 X26.839975 Y195.460422 Z-0.125000
G01 X27.902540 Y195.456744 Z-0.125000
G01 X28.858876 Y195.697462 Z-0.125000
G01 X29.815184 Y196.136722 Z-0.125000
G01 X33.002933 Y198.247936 Z-0.125000
G01 X34.278038 Y198.957574 Z-0.125000
G01 X35.553143 Y199.388024 Z-0.125000
G01 X36.721991 Y199.483618 Z-0.125000
G01 X37.890813 Y199.290975 Z-0.125000
G01 X39.196266 Y198.782341 Z-0.125000
G01 X40.380301 Y198.128953 Z-0.125000
G01 X43.476954 Y196.191650 Z-0.125000
G01 X45.222646 Y195.343291 Z-0.125000
G01 X46.922777 Y194.869264 Z-0.125000
G01 X47.772829 Y194.776369 Z-0.125000
G01 X48.729165 Y194.783063 Z-0.125000
G01 X50.004269 Y194.956761 Z-0.125000
G01 X51.491861 Y195.352498 Z-0.125000
G01 X58.611181 Y198.179303 Z-0.125000
G01 X60.630082 Y198.817901 Z-0.125000
G01 X62.755239 Y199.325529 Z-0.125000
G01 X65.199192 Y199.717747 Z-0.125000
G01 X67.855632 Y199.963227 Z-0.125000
G01 X71.149637 Y200.101022 Z-0.125000
G01 X75.506234 Y200.145631 Z-0.125000
G01 X80.075345 Y200.100731 Z-0.125000
G01 X83.475606 Y199.965741 Z-0.125000
G01 X86.344586 Y199.720261 Z-0.125000
G01 X89.001026 Y199.332038 Z-0.125000
G01 X91.232439 Y198.858249 Z-0.125000
G01 X93.570136 Y198.209651 Z-0.125000
G01 X97.182911 Y197.069298 Z-0.125000
G01 X101.645765 Y195.428830 Z-0.125000
G01 X103.558409 Y194.981844 Z-0.125000
G01 X105.364796 Y194.777268 Z-0.125000
G01 X107.383697 Y194.858495 Z-0.125000
G01 X109.402597 Y195.285744 Z-0.125000
G01 X111.527781 Y196.061501 Z-0.125000
G01 X115.671839 Y197.998064 Z-0.125000
G01 X117.478226 Y198.727149 Z-0.125000
G01 X119.497153 Y199.279016 Z-0.125000
G01 X121.409797 Y199.484570 Z-0.125000
G01 X123.109928 Y199.410593 Z-0.125000
G01 X124.916316 Y199.113413 Z-0.125000
G01 X131.610583 Y197.283875 Z-0.125000
G01 X134.798332 Y196.613712 Z-0.125000
G01 X138.198594 Y196.202789 Z-0.125000
G01 X141.917626 Y196.058141 Z-0.125000
G01 X145.636657 Y196.195804 Z-0.125000
G01 X149.036919 Y196.626756 Z-0.125000
G01 X152.118411 Y197.343062 Z-0.125000
G01 X157.962627 Y199.163181 Z-0.125000
G01 X159.556501 Y199.445386 Z-0.125000
G01 X160.937862 Y199.468272 Z-0.125000
G01 X162.319197 Y199.226866 Z-0.125000
G01 X163.791655 Y198.655103 Z-0.125000
G01 X165.157829 Y197.866434 Z-0.125000
G01 X167.525873 Y196.216917 Z-0.125000
G00 Z3.000000

(End cutting path id: polyline349)


(Start cutting path id: polyline347)
(Change tool to Default tool)

G00 Z3.000000
G00 X10.688717 Y194.871460

G00 Z4.875000 (Fast pre-penetrate)
G01 Z-0.125000 F400.0(Penetrate)
G01 X11.963822 Y194.657571 Z-0.125000 F800.000000
G01 X13.238901 Y194.834789 Z-0.125000
G01 X14.514005 Y195.370437 Z-0.125000
G01 X16.790980 Y196.721107 Z-0.125000
G01 X17.701754 Y197.175078 Z-0.125000
G01 X18.658090 Y197.478528 Z-0.125000
G01 X19.614398 Y197.553353 Z-0.125000
G01 X20.570734 Y197.382670 Z-0.125000
G01 X21.527042 Y196.989553 Z-0.125000
G01 X24.532652 Y195.065161 Z-0.125000
G01 X25.671127 Y194.468077 Z-0.125000
G01 X26.839975 Y194.136078 Z-0.125000
G01 X27.902540 Y194.135972 Z-0.125000
G01 X28.858876 Y194.382405 Z-0.125000
G01 X29.815184 Y194.829100 Z-0.125000
G01 X33.002933 Y196.959919 Z-0.125000
G01 X34.186969 Y197.624076 Z-0.125000
G01 X35.446886 Y198.060399 Z-0.125000
G01 X36.615708 Y198.160941 Z-0.125000
G01 X37.784557 Y197.964435 Z-0.125000
G01 X39.014127 Y197.478978 Z-0.125000
G01 X40.198136 Y196.815219 Z-0.125000
G01 X43.203719 Y194.883551 Z-0.125000
G01 X44.903850 Y194.025800 Z-0.125000
G01 X46.497725 Y193.555927 Z-0.125000
G01 X47.347803 Y193.454486 Z-0.125000
G01 X48.197856 Y193.455279 Z-0.125000
G01 X49.685473 Y193.679328 Z-0.125000
G01 X51.279348 Y194.172855 Z-0.125000
G01 X56.698537 Y196.593366 Z-0.125000
G01 X59.036207 Y197.491863 Z-0.125000
G01 X61.161364 Y198.098129 Z-0.125000
G01 X63.286548 Y198.502200 Z-0.125000
G01 X65.624218 Y198.751173 Z-0.125000
G01 X68.280684 Y198.859837 Z-0.125000
G01 X84.644428 Y198.870632 Z-0.125000
G01 X87.407151 Y198.817345 Z-0.125000
G01 X89.744848 Y198.666321 Z-0.125000
G01 X91.870005 Y198.403749 Z-0.125000
G01 X93.888905 Y198.016373 Z-0.125000
G01 X95.695293 Y197.544621 Z-0.125000
G01 X97.501680 Y196.958279 Z-0.125000
G01 X104.727257 Y194.176215 Z-0.125000
G01 X106.639901 Y193.676973 Z-0.125000
G01 X108.340032 Y193.459248 Z-0.125000
G01 X110.252676 Y193.522748 Z-0.125000
G01 X112.165320 Y193.924570 Z-0.125000
G01 X114.184221 Y194.662307 Z-0.125000
G01 X118.343492 Y196.614824 Z-0.125000
G01 X120.240949 Y197.379336 Z-0.125000
G01 X122.366106 Y197.950148 Z-0.125000
G01 X124.491290 Y198.163322 Z-0.125000
G01 X126.085164 Y198.103077 Z-0.125000
G01 X127.891552 Y197.856909 Z-0.125000
G01 X134.054510 Y196.494438 Z-0.125000
G01 X136.923489 Y195.987312 Z-0.125000
G01 X139.686212 Y195.690186 Z-0.125000
G01 X142.448908 Y195.590200 Z-0.125000
G01 X145.211631 Y195.689815 Z-0.125000
G01 X147.868097 Y195.984270 Z-0.125000
G01 X150.630794 Y196.501794 Z-0.125000
G01 X156.581265 Y197.935172 Z-0.125000
G01 X158.175140 Y198.140700 Z-0.125000
G01 X159.662758 Y198.133398 Z-0.125000
G01 X161.256632 Y197.845214 Z-0.125000
G01 X162.880854 Y197.222835 Z-0.125000
G01 X164.338124 Y196.414032 Z-0.125000
G01 X167.525873 Y194.367509 Z-0.125000
G00 Z3.000000

(End cutting path id: polyline347)


(Start cutting path id: polyline345)
(Change tool to Default tool)

G00 Z3.000000
G00 X10.688717 Y193.522775

G00 Z4.875000 (Fast pre-penetrate)
G01 Z-0.125000 F400.0(Penetrate)
G01 X11.963822 Y193.333968 Z-0.125000 F800.000000
G01 X13.238901 Y193.529124 Z-0.125000
G01 X14.514005 Y194.072049 Z-0.125000
G01 X17.610685 Y195.823959 Z-0.125000
G01 X18.658090 Y196.159556 Z-0.125000
G01 X19.614398 Y196.229617 Z-0.125000
G01 X20.570734 Y196.055813 Z-0.125000
G01 X21.527042 Y195.660976 Z-0.125000
G01 X24.532652 Y193.735817 Z-0.125000
G01 X25.671127 Y193.140002 Z-0.125000
G01 X26.733692 Y192.826921 Z-0.125000
G01 X27.796284 Y192.801997 Z-0.125000
G01 X28.752619 Y193.029089 Z-0.125000
G01 X29.815184 Y193.521584 Z-0.125000
G01 X32.911864 Y195.609091 Z-0.125000
G01 X34.186969 Y196.327831 Z-0.125000
G01 X35.340630 Y196.729124 Z-0.125000
G01 X36.509452 Y196.839058 Z-0.125000
G01 X37.678300 Y196.644616 Z-0.125000
G01 X38.923031 Y196.144924 Z-0.125000
G01 X40.107066 Y195.466031 Z-0.125000
G01 X43.112650 Y193.498618 Z-0.125000
G01 X44.691337 Y192.692354 Z-0.125000
G01 X46.285211 Y192.219544 Z-0.125000
G01 X47.772829 Y192.127893 Z-0.125000
G01 X49.260447 Y192.352736 Z-0.125000
G01 X50.854322 Y192.874467 Z-0.125000
G01 X56.136880 Y195.409939 Z-0.125000
G01 X58.398668 Y196.336721 Z-0.125000
G01 X60.523825 Y196.961639 Z-0.125000
G01 X62.648982 Y197.343115 Z-0.125000
G01 X64.561626 Y197.508612 Z-0.125000
G01 X66.793066 Y197.544886 Z-0.125000
G01 X74.974952 Y197.191879 Z-0.125000
G01 X78.906496 Y197.138592 Z-0.125000
G01 X90.807413 Y197.547188 Z-0.125000
G01 X92.720057 Y197.487048 Z-0.125000
G01 X94.526445 Y197.323589 Z-0.125000
G01 X96.226576 Y197.052894 Z-0.125000
G01 X97.820450 Y196.683986 Z-0.125000
G01 X100.901942 Y195.657589 Z-0.125000
G01 X105.683566 Y193.598472 Z-0.125000
G01 X107.489953 Y192.899655 Z-0.125000
G01 X109.296341 Y192.384433 Z-0.125000
G01 X110.996472 Y192.140514 Z-0.125000
G01 X112.802886 Y192.186260 Z-0.125000
G01 X114.609273 Y192.550988 Z-0.125000
G01 X116.628174 Y193.274490 Z-0.125000
G01 X120.984745 Y195.292517 Z-0.125000
G01 X123.003672 Y196.075127 Z-0.125000
G01 X125.235085 Y196.634906 Z-0.125000
G01 X127.572756 Y196.841413 Z-0.125000
G01 X129.060373 Y196.796142 Z-0.125000
G01 X130.654248 Y196.635488 Z-0.125000
G01 X138.623620 Y195.424465 Z-0.125000
G01 X140.748777 Y195.249523 Z-0.125000
G01 X142.873961 Y195.187478 Z-0.125000
G01 X145.211631 Y195.256402 Z-0.125000
G01 X147.655584 Y195.480953 Z-0.125000
G01 X155.624930 Y196.755397 Z-0.125000
G01 X157.112548 Y196.841968 Z-0.125000
G01 X158.493909 Y196.776616 Z-0.125000
G01 X160.194040 Y196.448533 Z-0.125000
G01 X161.878984 Y195.825202 Z-0.125000
G01 X163.154089 Y195.173058 Z-0.125000
G01 X166.159699 Y193.355823 Z-0.125000
G01 X167.525873 Y192.650630 Z-0.125000
G00 Z3.000000

(End cutting path id: polyline345)


(Start cutting path id: polyline343)
(Change tool to Default tool)

G00 Z3.000000
G00 X10.688717 Y192.165675

G00 Z4.875000 (Fast pre-penetrate)
G01 Z-0.125000 F400.0(Penetrate)
G01 X11.963822 Y192.012402 Z-0.125000 F800.000000
G01 X13.238901 Y192.234308 Z-0.125000
G01 X14.422936 Y192.741752 Z-0.125000
G01 X16.699884 Y194.070911 Z-0.125000
G01 X17.610685 Y194.521152 Z-0.125000
G01 X18.551833 Y194.822935 Z-0.125000
G01 X19.508142 Y194.909877 Z-0.125000
G01 X20.464477 Y194.755678 Z-0.125000
G01 X21.527042 Y194.325149 Z-0.125000
G01 X24.532652 Y192.401710 Z-0.125000
G01 X25.671127 Y191.809679 Z-0.125000
G01 X26.733692 Y191.501043 Z-0.125000
G01 X27.796284 Y191.481464 Z-0.125000
G01 X28.752619 Y191.714006 Z-0.125000
G01 X29.724115 Y192.162104 Z-0.125000
G01 X32.911864 Y194.310835 Z-0.125000
G01 X34.095873 Y194.983352 Z-0.125000
G01 X35.234373 Y195.393641 Z-0.125000
G01 X36.403195 Y195.517704 Z-0.125000
G01 X37.572043 Y195.331437 Z-0.125000
G01 X38.831961 Y194.824708 Z-0.125000
G01 X40.107066 Y194.078584 Z-0.125000
G01 X42.930484 Y192.196870 Z-0.125000
G01 X44.478824 Y191.383409 Z-0.125000
G01 X45.966442 Y190.915785 Z-0.125000
G01 X47.454060 Y190.802279 Z-0.125000
G01 X48.835421 Y191.000769 Z-0.125000
G01 X50.429296 Y191.527501 Z-0.125000
G01 X51.947261 Y192.231980 Z-0.125000
G01 X55.772549 Y194.226063 Z-0.125000
G01 X57.867359 Y195.123713 Z-0.125000
G01 X59.886286 Y195.736540 Z-0.125000
G01 X61.905186 Y196.091293 Z-0.125000
G01 X63.711574 Y196.216785 Z-0.125000
G01 X65.836731 Y196.187813 Z-0.125000
G01 X74.868695 Y195.378480 Z-0.125000
G01 X79.650292 Y195.216397 Z-0.125000
G01 X83.688120 Y195.365278 Z-0.125000
G01 X91.657492 Y196.089547 Z-0.125000
G01 X94.951497 Y196.224723 Z-0.125000
G01 X96.545372 Y196.166726 Z-0.125000
G01 X98.032990 Y196.012606 Z-0.125000
G01 X99.520581 Y195.747838 Z-0.125000
G01 X100.901942 Y195.396657 Z-0.125000
G01 X103.664665 Y194.406191 Z-0.125000
G01 X108.233776 Y192.313445 Z-0.125000
G01 X109.933906 Y191.615898 Z-0.125000
G01 X111.740294 Y191.070646 Z-0.125000
G01 X113.334168 Y190.824504 Z-0.125000
G01 X114.290477 Y190.799078 Z-0.125000
G01 X115.353069 Y190.881813 Z-0.125000
G01 X117.371970 Y191.340573 Z-0.125000
G01 X119.284614 Y192.062567 Z-0.125000
G01 X123.853724 Y194.118033 Z-0.125000
G01 X126.297677 Y194.945993 Z-0.125000
G01 X128.422834 Y195.366892 Z-0.125000
G01 X130.760504 Y195.519212 Z-0.125000
G01 X133.416971 Y195.404409 Z-0.125000
G01 X139.898725 Y194.780840 Z-0.125000
G01 X143.192730 Y194.653999 Z-0.125000
G01 X147.018019 Y194.794837 Z-0.125000
G01 X154.137339 Y195.484816 Z-0.125000
G01 X155.731186 Y195.515614 Z-0.125000
G01 X157.218804 Y195.414225 Z-0.125000
G01 X159.025192 Y195.066431 Z-0.125000
G01 X160.831606 Y194.438232 Z-0.125000
G01 X162.425480 Y193.668718 Z-0.125000
G01 X165.886438 Y191.739829 Z-0.125000
G01 X167.525873 Y191.060644 Z-0.125000
G00 Z3.000000

(End cutting path id: polyline343)


(Start cutting path id: polyline341)
(Change tool to Default tool)

G00 Z3.000000
G00 X10.688717 Y190.803364

G00 Z4.875000 (Fast pre-penetrate)
G01 Z-0.125000 F400.0(Penetrate)
G01 X11.963822 Y190.695441 Z-0.125000 F800.000000
G01 X13.132644 Y190.917267 Z-0.125000
G01 X14.331840 Y191.427145 Z-0.125000
G01 X17.489241 Y193.176197 Z-0.125000
G01 X18.551833 Y193.512323 Z-0.125000
G01 X19.508142 Y193.584793 Z-0.125000
G01 X20.464477 Y193.419852 Z-0.125000
G01 X21.435973 Y193.028772 Z-0.125000
G01 X24.532652 Y191.063925 Z-0.125000
G01 X25.671127 Y190.477848 Z-0.125000
G01 X26.733692 Y190.175006 Z-0.125000
G01 X27.796284 Y190.160930 Z-0.125000
G01 X28.752619 Y190.398076 Z-0.125000
G01 X29.724115 Y190.850354 Z-0.125000
G01 X32.911864 Y193.005409 Z-0.125000
G01 X34.095873 Y193.675068 Z-0.125000
G01 X35.234373 Y194.079166 Z-0.125000
G01 X36.403195 Y194.193387 Z-0.125000
G01 X37.572043 Y193.994367 Z-0.125000
G01 X38.831961 Y193.472054 Z-0.125000
G01 X40.015997 Y192.770062 Z-0.125000
G01 X42.839415 Y190.868055 Z-0.125000
G01 X44.387754 Y190.046260 Z-0.125000
G01 X45.860185 Y189.584218 Z-0.125000
G01 X47.241547 Y189.478015 Z-0.125000
G01 X48.622908 Y189.678357 Z-0.125000
G01 X50.216783 Y190.224986 Z-0.125000
G01 X51.674026 Y190.928618 Z-0.125000
G01 X55.408245 Y192.960880 Z-0.125000
G01 X57.442333 Y193.869219 Z-0.125000
G01 X59.354977 Y194.468024 Z-0.125000
G01 X61.267621 Y194.803118 Z-0.125000
G01 X63.074008 Y194.902231 Z-0.125000
G01 X65.092935 Y194.817458 Z-0.125000
G01 X74.974952 Y193.480574 Z-0.125000
G01 X77.737648 Y193.258456 Z-0.125000
G01 X80.500371 Y193.185802 Z-0.125000
G01 X82.944297 Y193.250757 Z-0.125000
G01 X85.494507 Y193.441442 Z-0.125000
G01 X94.738984 Y194.689929 Z-0.125000
G01 X96.651628 Y194.858495 Z-0.125000
G01 X98.245503 Y194.901781 Z-0.125000
G01 X99.626864 Y194.844975 Z-0.125000
G01 X101.008199 Y194.684479 Z-0.125000
G01 X103.558409 Y194.087342 Z-0.125000
G01 X106.108592 Y193.117539 Z-0.125000
G01 X110.419654 Y191.047071 Z-0.125000
G01 X112.059064 Y190.341587 Z-0.125000
G01 X113.865451 Y189.767865 Z-0.125000
G01 X115.565582 Y189.498282 Z-0.125000
G01 X117.478226 Y189.552257 Z-0.125000
G01 X119.497153 Y189.997867 Z-0.125000
G01 X121.409797 Y190.697954 Z-0.125000
G01 X126.085164 Y192.720162 Z-0.125000
G01 X128.741604 Y193.576882 Z-0.125000
G01 X131.398070 Y194.052496 Z-0.125000
G01 X134.267049 Y194.196588 Z-0.125000
G01 X143.192730 Y193.879300 Z-0.125000
G01 X146.274223 Y193.918220 Z-0.125000
G01 X152.755977 Y194.194974 Z-0.125000
G01 X154.562365 Y194.158091 Z-0.125000
G01 X156.156239 Y194.003548 Z-0.125000
G01 X157.962627 Y193.641070 Z-0.125000
G01 X159.769014 Y193.048827 Z-0.125000
G01 X161.423610 Y192.315429 Z-0.125000
G01 X165.431064 Y190.269171 Z-0.125000
G01 X166.569538 Y189.825941 Z-0.125000
G01 X167.525873 Y189.577895 Z-0.125000
G00 Z3.000000

(End cutting path id: polyline341)


(Start cutting path id: polyline339)
(Change tool to Default tool)

G00 Z3.000000
G00 X10.688717 Y189.439862

G00 Z4.875000 (Fast pre-penetrate)
G01 Z-0.125000 F400.0(Penetrate)
G01 X11.857539 Y189.377447 Z-0.125000 F800.000000
G01 X13.026388 Y189.611074 Z-0.125000
G01 X14.240771 Y190.128228 Z-0.125000
G01 X17.382985 Y191.847038 Z-0.125000
G01 X18.445550 Y192.184117 Z-0.125000
G01 X19.401885 Y192.263439 Z-0.125000
G01 X20.358221 Y192.110430 Z-0.125000
G01 X21.344904 Y191.725833 Z-0.125000
G01 X22.346747 Y191.157111 Z-0.125000
G01 X24.532652 Y189.723442 Z-0.125000
G01 X25.671127 Y189.145302 Z-0.125000
G01 X26.733692 Y188.849127 Z-0.125000
G01 X27.796284 Y188.840158 Z-0.125000
G01 X28.752619 Y189.080505 Z-0.125000
G01 X29.724115 Y189.534847 Z-0.125000
G01 X32.911864 Y191.691252 Z-0.125000
G01 X34.095873 Y192.359218 Z-0.125000
G01 X35.234373 Y192.760220 Z-0.125000
G01 X36.403195 Y192.869651 Z-0.125000
G01 X37.572043 Y192.664309 Z-0.125000
G01 X38.831961 Y192.133873 Z-0.125000
G01 X40.015997 Y191.423943 Z-0.125000
G01 X42.839415 Y189.510215 Z-0.125000
G01 X44.296685 Y188.731626 Z-0.125000
G01 X45.753929 Y188.264346 Z-0.125000
G01 X47.135290 Y188.155285 Z-0.125000
G01 X48.516652 Y188.362797 Z-0.125000
G01 X50.110526 Y188.929905 Z-0.125000
G01 X51.582957 Y189.667721 Z-0.125000
G01 X55.135010 Y191.666540 Z-0.125000
G01 X57.123563 Y192.585516 Z-0.125000
G01 X58.929951 Y193.169424 Z-0.125000
G01 X60.842595 Y193.504598 Z-0.125000
G01 X62.648982 Y193.576802 Z-0.125000
G01 X64.561626 Y193.447024 Z-0.125000
G01 X66.686810 Y193.133652 Z-0.125000
G01 X72.212229 Y192.057778 Z-0.125000
G01 X75.081208 Y191.594044 Z-0.125000
G01 X78.268957 Y191.262892 Z-0.125000
G01 X81.456706 Y191.154624 Z-0.125000
G01 X84.325659 Y191.252838 Z-0.125000
G01 X87.194638 Y191.529724 Z-0.125000
G01 X90.169874 Y191.982002 Z-0.125000
G01 X97.182911 Y193.282189 Z-0.125000
G01 X99.201811 Y193.516213 Z-0.125000
G01 X100.901942 Y193.578945 Z-0.125000
G01 X103.345896 Y193.379318 Z-0.125000
G01 X105.789822 Y192.784032 Z-0.125000
G01 X108.233776 Y191.814574 Z-0.125000
G01 X112.332298 Y189.777629 Z-0.125000
G01 X113.971708 Y189.049734 Z-0.125000
G01 X115.778095 Y188.459159 Z-0.125000
G01 X117.478226 Y188.179283 Z-0.125000
G01 X119.284614 Y188.209366 Z-0.125000
G01 X121.197284 Y188.585365 Z-0.125000
G01 X123.109928 Y189.230471 Z-0.125000
G01 X127.147729 Y190.913563 Z-0.125000
G01 X128.954117 Y191.582058 Z-0.125000
G01 X130.973044 Y192.164352 Z-0.125000
G01 X133.098201 Y192.569217 Z-0.125000
G01 X135.010845 Y192.771068 Z-0.125000
G01 X137.136002 Y192.862375 Z-0.125000
G01 X149.993254 Y192.873699 Z-0.125000
G01 X152.224668 Y192.832292 Z-0.125000
G01 X154.031056 Y192.703070 Z-0.125000
G01 X155.624930 Y192.478307 Z-0.125000
G01 X157.218804 Y192.120776 Z-0.125000
G01 X158.600166 Y191.690934 Z-0.125000
G01 X159.981527 Y191.152587 Z-0.125000
G01 X165.081920 Y188.795761 Z-0.125000
G01 X166.357025 Y188.381345 Z-0.125000
G01 X167.525873 Y188.176240 Z-0.125000
G00 Z3.000000

(End cutting path id: polyline339)


(Start cutting path id: polyline337)
(Change tool to Default tool)

G00 Z3.000000
G00 X10.688717 Y188.080223

G00 Z4.875000 (Fast pre-penetrate)
G01 Z-0.125000 F400.0(Penetrate)
G01 X11.751283 Y188.064189 Z-0.125000 F800.000000
G01 X12.920131 Y188.316654 Z-0.125000
G01 X14.058605 Y188.798751 Z-0.125000
G01 X17.276728 Y190.527457 Z-0.125000
G01 X18.339294 Y190.859958 Z-0.125000
G01 X19.295629 Y190.941212 Z-0.125000
G01 X20.251964 Y190.796247 Z-0.125000
G01 X21.344904 Y190.372358 Z-0.125000
G01 X24.532652 Y188.381292 Z-0.125000
G01 X25.671127 Y187.812729 Z-0.125000
G01 X26.733692 Y187.523620 Z-0.125000
G01 X27.796284 Y187.518857 Z-0.125000
G01 X28.752619 Y187.760527 Z-0.125000
G01 X29.724115 Y188.214446 Z-0.125000
G01 X32.911864 Y190.366802 Z-0.125000
G01 X34.095873 Y191.034715 Z-0.125000
G01 X35.234373 Y191.436432 Z-0.125000
G01 X36.403195 Y191.546869 Z-0.125000
G01 X37.572043 Y191.342240 Z-0.125000
G01 X38.831961 Y190.811566 Z-0.125000
G01 X40.015997 Y190.100076 Z-0.125000
G01 X42.839415 Y188.179706 Z-0.125000
G01 X44.296685 Y187.399530 Z-0.125000
G01 X45.753929 Y186.935081 Z-0.125000
G01 X47.135290 Y186.834354 Z-0.125000
G01 X48.516652 Y187.056154 Z-0.125000
G01 X50.004269 Y187.597385 Z-0.125000
G01 X51.491861 Y188.355892 Z-0.125000
G01 X55.043941 Y190.398922 Z-0.125000
G01 X57.017306 Y191.323693 Z-0.125000
G01 X58.717437 Y191.876460 Z-0.125000
G01 X60.523825 Y192.192319 Z-0.125000
G01 X62.542726 Y192.240155 Z-0.125000
G01 X64.880422 Y191.982187 Z-0.125000
G01 X67.005579 Y191.562320 Z-0.125000
G01 X72.849768 Y190.210672 Z-0.125000
G01 X76.356286 Y189.602448 Z-0.125000
G01 X79.331522 Y189.296828 Z-0.125000
G01 X82.306758 Y189.197742 Z-0.125000
G01 X85.494507 Y189.321805 Z-0.125000
G01 X88.682256 Y189.680024 Z-0.125000
G01 X91.976261 Y190.274066 Z-0.125000
G01 X99.201811 Y191.880084 Z-0.125000
G01 X101.326995 Y192.177052 Z-0.125000
G01 X103.133383 Y192.255660 Z-0.125000
G01 X105.471053 Y192.044099 Z-0.125000
G01 X107.702466 Y191.471992 Z-0.125000
G01 X109.964254 Y190.552169 Z-0.125000
G01 X113.971708 Y188.519060 Z-0.125000
G01 X115.671839 Y187.748780 Z-0.125000
G01 X117.478226 Y187.149102 Z-0.125000
G01 X119.178357 Y186.861236 Z-0.125000
G01 X121.091028 Y186.888541 Z-0.125000
G01 X123.109928 Y187.284040 Z-0.125000
G01 X124.916316 Y187.872181 Z-0.125000
G01 X130.441735 Y189.992602 Z-0.125000
G01 X132.354379 Y190.556958 Z-0.125000
G01 X134.160766 Y190.952324 Z-0.125000
G01 X136.179693 Y191.245826 Z-0.125000
G01 X138.411107 Y191.426060 Z-0.125000
G01 X144.892861 Y191.539328 Z-0.125000
G01 X151.162103 Y191.407195 Z-0.125000
G01 X153.393516 Y191.197646 Z-0.125000
G01 X155.306160 Y190.876204 Z-0.125000
G01 X157.006291 Y190.450913 Z-0.125000
G01 X158.706422 Y189.885235 Z-0.125000
G01 X163.488046 Y187.839029 Z-0.125000
G01 X164.869407 Y187.320737 Z-0.125000
G01 X166.250768 Y186.960217 Z-0.125000
G01 X167.525873 Y186.828507 Z-0.125000
G00 Z3.000000

(End cutting path id: polyline337)


(Start cutting path id: polyline335)
(Change tool to Default tool)

G00 Z3.000000
G00 X10.688717 Y186.730267

G00 Z4.875000 (Fast pre-penetrate)
G01 Z-0.125000 F400.0(Penetrate)
G01 X11.751283 Y186.772627 Z-0.125000 F800.000000
G01 X12.813874 Y187.035543 Z-0.125000
G01 X13.967536 Y187.532457 Z-0.125000
G01 X17.170472 Y189.217268 Z-0.125000
G01 X18.233037 Y189.539583 Z-0.125000
G01 X19.189372 Y189.618429 Z-0.125000
G01 X20.251964 Y189.449202 Z-0.125000
G01 X21.253808 Y189.058704 Z-0.125000
G01 X24.532652 Y187.038374 Z-0.125000
G01 X25.671127 Y186.480739 Z-0.125000
G01 X26.733692 Y186.198747 Z-0.125000
G01 X27.796284 Y186.196895 Z-0.125000
G01 X28.752619 Y186.437559 Z-0.125000
G01 X29.724115 Y186.888144 Z-0.125000
G01 X32.911864 Y189.030711 Z-0.125000
G01 X34.095873 Y189.700503 Z-0.125000
G01 X35.234373 Y190.107299 Z-0.125000
G01 X36.403195 Y190.225250 Z-0.125000
G01 X37.572043 Y190.028982 Z-0.125000
G01 X38.831961 Y189.506352 Z-0.125000
G01 X40.015997 Y188.799915 Z-0.125000
G01 X42.839415 Y186.877508 Z-0.125000
G01 X44.296685 Y186.089950 Z-0.125000
G01 X45.753929 Y185.617246 Z-0.125000
G01 X47.135290 Y185.510725 Z-0.125000
G01 X48.516652 Y185.730937 Z-0.125000
G01 X50.110526 Y186.325059 Z-0.125000
G01 X51.491861 Y187.044327 Z-0.125000
G01 X55.043941 Y189.116806 Z-0.125000
G01 X56.911050 Y190.005937 Z-0.125000
G01 X58.717437 Y190.595375 Z-0.125000
G01 X60.417568 Y190.881231 Z-0.125000
G01 X62.436469 Y190.906075 Z-0.125000
G01 X64.774139 Y190.599185 Z-0.125000
G01 X66.899323 Y190.121084 Z-0.125000
G01 X72.743511 Y188.596398 Z-0.125000
G01 X76.462569 Y187.865646 Z-0.125000
G01 X79.756575 Y187.482953 Z-0.125000
G01 X83.050580 Y187.357250 Z-0.125000
G01 X86.557099 Y187.503432 Z-0.125000
G01 X89.957361 Y187.922426 Z-0.125000
G01 X93.463879 Y188.626534 Z-0.125000
G01 X101.008199 Y190.516635 Z-0.125000
G01 X103.027126 Y190.834955 Z-0.125000
G01 X104.939770 Y190.932824 Z-0.125000
G01 X107.171184 Y190.722772 Z-0.125000
G01 X109.296341 Y190.164422 Z-0.125000
G01 X111.512594 Y189.246981 Z-0.125000
G01 X115.520047 Y187.190642 Z-0.125000
G01 X117.159457 Y186.444994 Z-0.125000
G01 X118.965844 Y185.840634 Z-0.125000
G01 X120.665975 Y185.545121 Z-0.125000
G01 X122.578619 Y185.553984 Z-0.125000
G01 X124.703803 Y185.942128 Z-0.125000
G01 X126.510190 Y186.496985 Z-0.125000
G01 X132.035609 Y188.488157 Z-0.125000
G01 X133.948253 Y189.028674 Z-0.125000
G01 X135.754641 Y189.418669 Z-0.125000
G01 X137.667311 Y189.710477 Z-0.125000
G01 X139.792468 Y189.913995 Z-0.125000
G01 X145.105374 Y190.076528 Z-0.125000
G01 X148.080610 Y190.029273 Z-0.125000
G01 X150.524537 Y189.897934 Z-0.125000
G01 X152.649721 Y189.675394 Z-0.125000
G01 X154.562365 Y189.352973 Z-0.125000
G01 X156.262496 Y188.947473 Z-0.125000
G01 X158.068883 Y188.386716 Z-0.125000
G01 X162.956763 Y186.466452 Z-0.125000
G01 X164.444381 Y185.957606 Z-0.125000
G01 X166.038255 Y185.596027 Z-0.125000
G01 X167.525873 Y185.510513 Z-0.125000
G00 Z3.000000

(End cutting path id: polyline335)


(Start cutting path id: polyline333)
(Change tool to Default tool)

G00 Z3.000000
G00 X10.688717 Y185.396505

G00 Z4.875000 (Fast pre-penetrate)
G01 Z-0.125000 F400.0(Penetrate)
G01 X11.645026 Y185.480986 Z-0.125000 F800.000000
G01 X12.601361 Y185.732446 Z-0.125000
G01 X13.694301 Y186.193217 Z-0.125000
G01 X16.957959 Y187.874457 Z-0.125000
G01 X18.020524 Y188.201825 Z-0.125000
G01 X19.083116 Y188.295144 Z-0.125000
G01 X20.145681 Y188.127821 Z-0.125000
G01 X21.162738 Y187.739890 Z-0.125000
G01 X22.164608 Y187.189927 Z-0.125000
G01 X24.441556 Y185.748030 Z-0.125000
G01 X25.564870 Y185.191294 Z-0.125000
G01 X26.733692 Y184.874615 Z-0.125000
G01 X27.796284 Y184.873556 Z-0.125000
G01 X28.752619 Y185.110596 Z-0.125000
G01 X29.815184 Y185.604678 Z-0.125000
G01 X32.911864 Y187.681099 Z-0.125000
G01 X34.186969 Y188.397590 Z-0.125000
G01 X35.340630 Y188.796423 Z-0.125000
G01 X36.403195 Y188.903870 Z-0.125000
G01 X37.572043 Y188.724191 Z-0.125000
G01 X38.923031 Y188.171398 Z-0.125000
G01 X40.107066 Y187.464882 Z-0.125000
G01 X42.930484 Y185.547476 Z-0.125000
G01 X44.478824 Y184.723644 Z-0.125000
G01 X45.966442 Y184.269910 Z-0.125000
G01 X47.454060 Y184.203209 Z-0.125000
G01 X48.729165 Y184.444826 Z-0.125000
G01 X50.216783 Y185.016458 Z-0.125000
G01 X51.582957 Y185.734165 Z-0.125000
G01 X55.135010 Y187.822572 Z-0.125000
G01 X57.229820 Y188.804466 Z-0.125000
G01 X58.292411 Y189.162685 Z-0.125000
G01 X59.354977 Y189.415626 Z-0.125000
G01 X61.480134 Y189.610650 Z-0.125000
G01 X63.180291 Y189.502939 Z-0.125000
G01 X65.092935 Y189.169194 Z-0.125000
G01 X72.849768 Y187.041152 Z-0.125000
G01 X76.887596 Y186.197239 Z-0.125000
G01 X79.012753 Y185.907838 Z-0.125000
G01 X81.244166 Y185.720460 Z-0.125000
G01 X83.475606 Y185.649340 Z-0.125000
G01 X85.707020 Y185.692811 Z-0.125000
G01 X88.788512 Y185.943847 Z-0.125000
G01 X91.763748 Y186.402555 Z-0.125000
G01 X95.057754 Y187.148256 Z-0.125000
G01 X102.283304 Y189.122204 Z-0.125000
G01 X104.408461 Y189.495027 Z-0.125000
G01 X106.321131 Y189.610465 Z-0.125000
G01 X108.446289 Y189.422717 Z-0.125000
G01 X110.571446 Y188.870903 Z-0.125000
G01 X112.696603 Y187.993678 Z-0.125000
G01 X116.795152 Y185.887094 Z-0.125000
G01 X118.434561 Y185.141155 Z-0.125000
G01 X120.240949 Y184.534678 Z-0.125000
G01 X122.047336 Y184.221174 Z-0.125000
G01 X123.959980 Y184.227603 Z-0.125000
G01 X126.085164 Y184.591828 Z-0.125000
G01 X127.997808 Y185.144992 Z-0.125000
G01 X133.416971 Y186.972414 Z-0.125000
G01 X135.223358 Y187.460622 Z-0.125000
G01 X137.029746 Y187.844532 Z-0.125000
G01 X138.942390 Y188.140415 Z-0.125000
G01 X140.961317 Y188.345732 Z-0.125000
G01 X145.530401 Y188.510382 Z-0.125000
G01 X150.099511 Y188.333402 Z-0.125000
G01 X152.118411 Y188.115333 Z-0.125000
G01 X154.031056 Y187.798839 Z-0.125000
G01 X157.431344 Y186.923757 Z-0.125000
G01 X162.531737 Y185.090991 Z-0.125000
G01 X164.125611 Y184.593866 Z-0.125000
G01 X165.931999 Y184.240383 Z-0.125000
G01 X167.525873 Y184.202494 Z-0.125000
G00 Z3.000000

(End cutting path id: polyline333)


(Start cutting path id: polyline331)
(Change tool to Default tool)

G00 Z3.000000
G00 X10.688717 Y184.085734

G00 Z4.875000 (Fast pre-penetrate)
G01 Z-0.125000 F400.0(Penetrate)
G01 X11.751283 Y184.253612 Z-0.125000 F800.000000
G01 X12.813874 Y184.604872 Z-0.125000
G01 X15.971276 Y186.197662 Z-0.125000
G01 X17.064215 Y186.659730 Z-0.125000
G01 X18.020524 Y186.908623 Z-0.125000
G01 X18.976859 Y186.971170 Z-0.125000
G01 X20.039425 Y186.802869 Z-0.125000
G01 X21.071669 Y186.416207 Z-0.125000
G01 X22.164608 Y185.822589 Z-0.125000
G01 X24.441556 Y184.405112 Z-0.125000
G01 X25.564870 Y183.861235 Z-0.125000
G01 X26.733692 Y183.551435 Z-0.125000
G01 X27.796284 Y183.549054 Z-0.125000
G01 X28.752619 Y183.779479 Z-0.125000
G01 X29.815184 Y184.262422 Z-0.125000
G01 X33.002933 Y186.374959 Z-0.125000
G01 X34.186969 Y187.040015 Z-0.125000
G01 X35.340630 Y187.454299 Z-0.125000
G01 X36.509452 Y187.580478 Z-0.125000
G01 X37.678300 Y187.398842 Z-0.125000
G01 X39.014127 Y186.856315 Z-0.125000
G01 X40.198136 Y186.156651 Z-0.125000
G01 X43.112650 Y184.192043 Z-0.125000
G01 X44.585080 Y183.414116 Z-0.125000
G01 X46.072698 Y182.953689 Z-0.125000
G01 X47.560316 Y182.876695 Z-0.125000
G01 X48.941678 Y183.139162 Z-0.125000
G01 X50.398921 Y183.705951 Z-0.125000
G01 X51.765096 Y184.426173 Z-0.125000
G01 X55.317176 Y186.517384 Z-0.125000
G01 X57.442333 Y187.510099 Z-0.125000
G01 X59.461233 Y188.090039 Z-0.125000
G01 X60.523825 Y188.240110 Z-0.125000
G01 X61.586417 Y188.287656 Z-0.125000
G01 X63.286548 Y188.174600 Z-0.125000
G01 X65.305448 Y187.802384 Z-0.125000
G01 X73.062281 Y185.568880 Z-0.125000
G01 X77.206365 Y184.665382 Z-0.125000
G01 X79.437779 Y184.350634 Z-0.125000
G01 X81.775476 Y184.148890 Z-0.125000
G01 X84.006889 Y184.073510 Z-0.125000
G01 X86.344586 Y184.114573 Z-0.125000
G01 X89.532308 Y184.372780 Z-0.125000
G01 X92.720057 Y184.876493 Z-0.125000
G01 X96.014063 Y185.651668 Z-0.125000
G01 X103.452152 Y187.780874 Z-0.125000
G01 X105.577309 Y188.168699 Z-0.125000
G01 X107.489953 Y188.287418 Z-0.125000
G01 X109.508880 Y188.110544 Z-0.125000
G01 X111.634037 Y187.561508 Z-0.125000
G01 X113.789569 Y186.669202 Z-0.125000
G01 X117.797022 Y184.611619 Z-0.125000
G01 X119.497153 Y183.838693 Z-0.125000
G01 X121.409797 Y183.204249 Z-0.125000
G01 X123.216185 Y182.898762 Z-0.125000
G01 X125.128829 Y182.899555 Z-0.125000
G01 X127.253986 Y183.237772 Z-0.125000
G01 X129.166630 Y183.752650 Z-0.125000
G01 X134.692076 Y185.489162 Z-0.125000
G01 X138.198594 Y186.287990 Z-0.125000
G01 X141.811369 Y186.746513 Z-0.125000
G01 X145.849197 Y186.905051 Z-0.125000
G01 X149.886998 Y186.744555 Z-0.125000
G01 X153.606029 Y186.254124 Z-0.125000
G01 X157.006291 Y185.439737 Z-0.125000
G01 X162.212941 Y183.721271 Z-0.125000
G01 X163.913072 Y183.236211 Z-0.125000
G01 X165.825742 Y182.903604 Z-0.125000
G01 X167.525873 Y182.891300 Z-0.125000
G00 Z3.000000

(End cutting path id: polyline331)


(Start cutting path id: polyline329)
(Change tool to Default tool)

G00 Z3.000000
G00 X10.688717 Y182.804702

G00 Z4.875000 (Fast pre-penetrate)
G01 Z-0.125000 F400.0(Penetrate)
G01 X11.645026 Y183.003695 Z-0.125000 F800.000000
G01 X12.707618 Y183.379139 Z-0.125000
G01 X15.698041 Y184.859110 Z-0.125000
G01 X16.745419 Y185.297947 Z-0.125000
G01 X17.808011 Y185.580125 Z-0.125000
G01 X18.764346 Y185.650107 Z-0.125000
G01 X19.826911 Y185.502232 Z-0.125000
G01 X20.980573 Y185.088001 Z-0.125000
G01 X21.982443 Y184.560131 Z-0.125000
G01 X24.441556 Y183.063941 Z-0.125000
G01 X25.564870 Y182.533425 Z-0.125000
G01 X26.733692 Y182.229420 Z-0.125000
G01 X27.902540 Y182.237384 Z-0.125000
G01 X28.858876 Y182.481012 Z-0.125000
G01 X29.906280 Y182.960595 Z-0.125000
G01 X33.185099 Y185.109141 Z-0.125000
G01 X34.384295 Y185.759856 Z-0.125000
G01 X35.553143 Y186.153635 Z-0.125000
G01 X36.721991 Y186.254653 Z-0.125000
G01 X37.890813 Y186.054046 Z-0.125000
G01 X39.196266 Y185.515752 Z-0.125000
G01 X40.380301 Y184.818258 Z-0.125000
G01 X43.203719 Y182.925934 Z-0.125000
G01 X44.797594 Y182.084031 Z-0.125000
G01 X46.285211 Y181.629874 Z-0.125000
G01 X47.772829 Y181.553278 Z-0.125000
G01 X49.154191 Y181.811537 Z-0.125000
G01 X50.581087 Y182.357266 Z-0.125000
G01 X51.947261 Y183.067354 Z-0.125000
G01 X55.590410 Y185.201084 Z-0.125000
G01 X57.654846 Y186.167023 Z-0.125000
G01 X58.717437 Y186.525216 Z-0.125000
G01 X59.780003 Y186.777231 Z-0.125000
G01 X60.842595 Y186.922117 Z-0.125000
G01 X61.905186 Y186.964688 Z-0.125000
G01 X63.711574 Y186.828930 Z-0.125000
G01 X65.624218 Y186.460472 Z-0.125000
G01 X73.381077 Y184.179343 Z-0.125000
G01 X77.525135 Y183.252827 Z-0.125000
G01 X79.756575 Y182.926913 Z-0.125000
G01 X82.094245 Y182.713448 Z-0.125000
G01 X84.431915 Y182.624468 Z-0.125000
G01 X86.875868 Y182.660849 Z-0.125000
G01 X90.169874 Y182.924029 Z-0.125000
G01 X93.463879 Y183.449332 Z-0.125000
G01 X96.864141 Y184.266629 Z-0.125000
G01 X104.302204 Y186.444280 Z-0.125000
G01 X106.427388 Y186.841207 Z-0.125000
G01 X108.340032 Y186.964662 Z-0.125000
G01 X110.358933 Y186.789111 Z-0.125000
G01 X112.484090 Y186.239731 Z-0.125000
G01 X114.609273 Y185.363485 Z-0.125000
G01 X118.616727 Y183.319713 Z-0.125000
G01 X120.347205 Y182.537262 Z-0.125000
G01 X122.259849 Y181.902686 Z-0.125000
G01 X124.066237 Y181.586853 Z-0.125000
G01 X126.085164 Y181.571481 Z-0.125000
G01 X128.210321 Y181.884245 Z-0.125000
G01 X130.122965 Y182.363881 Z-0.125000
G01 X135.648384 Y183.991066 Z-0.125000
G01 X139.154903 Y184.748408 Z-0.125000
G01 X142.661448 Y185.174625 Z-0.125000
G01 X146.274223 Y185.309615 Z-0.125000
G01 X149.993254 Y185.154543 Z-0.125000
G01 X153.393516 Y184.717770 Z-0.125000
G01 X156.793778 Y183.954607 Z-0.125000
G01 X162.106684 Y182.334036 Z-0.125000
G01 X163.806815 Y181.888769 Z-0.125000
G01 X165.719486 Y181.580741 Z-0.125000
G01 X167.525873 Y181.570317 Z-0.125000
G00 Z3.000000

(End cutting path id: polyline329)


(Start cutting path id: polyline327)
(Change tool to Default tool)

G00 Z3.000000
G00 X10.688717 Y181.559522

G00 Z4.875000 (Fast pre-penetrate)
G01 Z-0.125000 F400.0(Penetrate)
G01 X12.495105 Y182.129698 Z-0.125000 F800.000000
G01 X16.426649 Y183.947172 Z-0.125000
G01 X17.595498 Y184.256020 Z-0.125000
G01 X18.658090 Y184.324943 Z-0.125000
G01 X19.720655 Y184.170215 Z-0.125000
G01 X20.889503 Y183.755455 Z-0.125000
G01 X21.891373 Y183.240047 Z-0.125000
G01 X24.350487 Y181.774840 Z-0.125000
G01 X25.564870 Y181.208394 Z-0.125000
G01 X26.733692 Y180.908754 Z-0.125000
G01 X27.902540 Y180.909018 Z-0.125000
G01 X28.858876 Y181.138729 Z-0.125000
G01 X29.906280 Y181.598812 Z-0.125000
G01 X33.276168 Y183.767785 Z-0.125000
G01 X34.490551 Y184.423130 Z-0.125000
G01 X35.659399 Y184.820587 Z-0.125000
G01 X36.828248 Y184.933987 Z-0.125000
G01 X38.103326 Y184.721633 Z-0.125000
G01 X39.378431 Y184.199452 Z-0.125000
G01 X40.653536 Y183.453672 Z-0.125000
G01 X43.476954 Y181.583096 Z-0.125000
G01 X45.025294 Y180.773975 Z-0.125000
G01 X46.603981 Y180.299472 Z-0.125000
G01 X48.091599 Y180.232426 Z-0.125000
G01 X49.472960 Y180.491691 Z-0.125000
G01 X50.945391 Y181.052449 Z-0.125000
G01 X52.311592 Y181.758144 Z-0.125000
G01 X55.954715 Y183.871660 Z-0.125000
G01 X58.079872 Y184.855141 Z-0.125000
G01 X59.142464 Y185.207963 Z-0.125000
G01 X60.205055 Y185.456274 Z-0.125000
G01 X61.267621 Y185.599413 Z-0.125000
G01 X62.330212 Y185.641720 Z-0.125000
G01 X64.136600 Y185.508317 Z-0.125000
G01 X66.049244 Y185.144357 Z-0.125000
G01 X73.912360 Y182.843014 Z-0.125000
G01 X78.056444 Y181.920651 Z-0.125000
G01 X80.287858 Y181.595955 Z-0.125000
G01 X82.625528 Y181.383151 Z-0.125000
G01 X84.963224 Y181.294463 Z-0.125000
G01 X87.407151 Y181.330737 Z-0.125000
G01 X90.701157 Y181.593415 Z-0.125000
G01 X93.995162 Y182.117607 Z-0.125000
G01 X97.395424 Y182.932761 Z-0.125000
G01 X104.939770 Y185.134303 Z-0.125000
G01 X107.064927 Y185.524669 Z-0.125000
G01 X108.977571 Y185.641376 Z-0.125000
G01 X110.996472 Y185.459475 Z-0.125000
G01 X113.121655 Y184.907105 Z-0.125000
G01 X115.246812 Y184.034114 Z-0.125000
G01 X119.254266 Y182.010107 Z-0.125000
G01 X120.984745 Y181.234931 Z-0.125000
G01 X122.897415 Y180.601096 Z-0.125000
G01 X124.810059 Y180.265314 Z-0.125000
G01 X126.828960 Y180.243777 Z-0.125000
G01 X128.954117 Y180.534316 Z-0.125000
G01 X130.866761 Y180.983922 Z-0.125000
G01 X136.392206 Y182.519773 Z-0.125000
G01 X139.898725 Y183.241291 Z-0.125000
G01 X143.192730 Y183.629302 Z-0.125000
G01 X146.592992 Y183.756540 Z-0.125000
G01 X150.099511 Y183.614194 Z-0.125000
G01 X153.393516 Y183.206551 Z-0.125000
G01 X156.793778 Y182.482837 Z-0.125000
G01 X162.000428 Y180.998394 Z-0.125000
G01 X163.806815 Y180.554001 Z-0.125000
G01 X165.719486 Y180.261292 Z-0.125000
G01 X167.525873 Y180.238089 Z-0.125000
G00 Z3.000000

(End cutting path id: polyline327)


(Start cutting path id: polyline325)
(Change tool to Default tool)

G00 Z3.000000
G00 X10.688717 Y180.354875

G00 Z4.875000 (Fast pre-penetrate)
G01 Z-0.125000 F400.0(Penetrate)
G01 X12.176335 Y180.857001 Z-0.125000 F800.000000
G01 X15.060475 Y182.191267 Z-0.125000
G01 X16.214136 Y182.644841 Z-0.125000
G01 X17.382985 Y182.935697 Z-0.125000
G01 X18.551833 Y182.998060 Z-0.125000
G01 X19.614398 Y182.834574 Z-0.125000
G01 X20.783247 Y182.425820 Z-0.125000
G01 X21.800277 Y181.916974 Z-0.125000
G01 X24.350487 Y180.438060 Z-0.125000
G01 X25.564870 Y179.886696 Z-0.125000
G01 X26.733692 Y179.589834 Z-0.125000
G01 X27.902540 Y179.579224 Z-0.125000
G01 X28.858876 Y179.791420 Z-0.125000
G01 X29.997350 Y180.274045 Z-0.125000
G01 X33.458333 Y182.462306 Z-0.125000
G01 X34.703064 Y183.117704 Z-0.125000
G01 X35.871912 Y183.502328 Z-0.125000
G01 X37.040761 Y183.610966 Z-0.125000
G01 X38.209583 Y183.432902 Z-0.125000
G01 X39.560596 Y182.908392 Z-0.125000
G01 X40.835701 Y182.182483 Z-0.125000
G01 X43.750189 Y180.278517 Z-0.125000
G01 X45.328903 Y179.461088 Z-0.125000
G01 X46.922777 Y178.982007 Z-0.125000
G01 X48.410395 Y178.905384 Z-0.125000
G01 X49.791730 Y179.147372 Z-0.125000
G01 X51.385604 Y179.739958 Z-0.125000
G01 X52.858062 Y180.494522 Z-0.125000
G01 X56.501184 Y182.574145 Z-0.125000
G01 X58.611181 Y183.531512 Z-0.125000
G01 X60.736338 Y184.126506 Z-0.125000
G01 X61.798930 Y184.271630 Z-0.125000
G01 X62.967752 Y184.318673 Z-0.125000
G01 X64.774139 Y184.185773 Z-0.125000
G01 X66.686810 Y183.830808 Z-0.125000
G01 X74.656156 Y181.562300 Z-0.125000
G01 X78.693983 Y180.687933 Z-0.125000
G01 X80.925397 Y180.370645 Z-0.125000
G01 X83.263093 Y180.164773 Z-0.125000
G01 X85.494507 Y180.084445 Z-0.125000
G01 X87.832177 Y180.119529 Z-0.125000
G01 X91.126183 Y180.380461 Z-0.125000
G01 X94.313932 Y180.880787 Z-0.125000
G01 X97.714194 Y181.678399 Z-0.125000
G01 X105.258540 Y183.825278 Z-0.125000
G01 X107.383697 Y184.205352 Z-0.125000
G01 X109.296341 Y184.318514 Z-0.125000
G01 X111.315268 Y184.140344 Z-0.125000
G01 X113.440425 Y183.600118 Z-0.125000
G01 X115.520047 Y182.765571 Z-0.125000
G01 X119.709666 Y180.681635 Z-0.125000
G01 X121.516054 Y179.887992 Z-0.125000
G01 X123.428698 Y179.270905 Z-0.125000
G01 X125.341342 Y178.943166 Z-0.125000
G01 X127.360242 Y178.917555 Z-0.125000
G01 X129.485426 Y179.190578 Z-0.125000
G01 X131.504327 Y179.643729 Z-0.125000
G01 X137.029746 Y181.108620 Z-0.125000
G01 X140.430008 Y181.778570 Z-0.125000
G01 X143.617757 Y182.144092 Z-0.125000
G01 X146.911762 Y182.265906 Z-0.125000
G01 X150.312024 Y182.130862 Z-0.125000
G01 X153.606029 Y181.733035 Z-0.125000
G01 X156.900035 Y181.060783 Z-0.125000
G01 X163.806815 Y179.256274 Z-0.125000
G01 X165.719486 Y178.957507 Z-0.125000
G01 X167.525873 Y178.900198 Z-0.125000
G00 Z3.000000

(End cutting path id: polyline325)


(Start cutting path id: polyline323)
(Change tool to Default tool)

G00 Z3.000000
G00 X10.688717 Y179.193409

G00 Z4.875000 (Fast pre-penetrate)
G01 Z-0.125000 F400.0(Penetrate)
G01 X11.963822 Y179.651878 Z-0.125000 F800.000000
G01 X15.789110 Y181.283747 Z-0.125000
G01 X17.064215 Y181.603363 Z-0.125000
G01 X18.339294 Y181.675277 Z-0.125000
G01 X19.508142 Y181.495360 Z-0.125000
G01 X20.676990 Y181.092665 Z-0.125000
G01 X21.800277 Y180.542121 Z-0.125000
G01 X24.350487 Y179.105303 Z-0.125000
G01 X25.564870 Y178.568861 Z-0.125000
G01 X26.839975 Y178.259140 Z-0.125000
G01 X28.008797 Y178.260198 Z-0.125000
G01 X29.071389 Y178.506366 Z-0.125000
G01 X30.179515 Y178.982483 Z-0.125000
G01 X33.640499 Y181.133332 Z-0.125000
G01 X34.915577 Y181.793440 Z-0.125000
G01 X36.190682 Y182.196188 Z-0.125000
G01 X37.359530 Y182.285723 Z-0.125000
G01 X38.634635 Y182.068632 Z-0.125000
G01 X39.924901 Y181.553913 Z-0.125000
G01 X41.108936 Y180.889624 Z-0.125000
G01 X44.205589 Y178.907659 Z-0.125000
G01 X45.753929 Y178.128542 Z-0.125000
G01 X47.347803 Y177.660230 Z-0.125000
G01 X48.941678 Y177.587734 Z-0.125000
G01 X50.323039 Y177.836310 Z-0.125000
G01 X51.916914 Y178.422097 Z-0.125000
G01 X53.404531 Y179.169332 Z-0.125000
G01 X57.047654 Y181.207441 Z-0.125000
G01 X59.248720 Y182.192351 Z-0.125000
G01 X60.417568 Y182.566234 Z-0.125000
G01 X61.480134 Y182.804941 Z-0.125000
G01 X62.542726 Y182.946810 Z-0.125000
G01 X63.711574 Y182.996022 Z-0.125000
G01 X65.517961 Y182.876801 Z-0.125000
G01 X67.536862 Y182.523371 Z-0.125000
G01 X75.399978 Y180.396071 Z-0.125000
G01 X79.437779 Y179.558110 Z-0.125000
G01 X81.562962 Y179.267175 Z-0.125000
G01 X83.794376 Y179.075881 Z-0.125000
G01 X85.919533 Y179.000237 Z-0.125000
G01 X88.150973 Y179.031405 Z-0.125000
G01 X91.338722 Y179.275297 Z-0.125000
G01 X94.420188 Y179.740487 Z-0.125000
G01 X97.714194 Y180.476531 Z-0.125000
G01 X105.258540 Y182.518979 Z-0.125000
G01 X107.489953 Y182.896248 Z-0.125000
G01 X109.402597 Y182.994752 Z-0.125000
G01 X111.421524 Y182.812428 Z-0.125000
G01 X113.546682 Y182.280484 Z-0.125000
G01 X115.671839 Y181.442523 Z-0.125000
G01 X119.982901 Y179.332606 Z-0.125000
G01 X121.728567 Y178.578095 Z-0.125000
G01 X123.747467 Y177.937804 Z-0.125000
G01 X125.660111 Y177.619378 Z-0.125000
G01 X127.679039 Y177.592894 Z-0.125000
G01 X129.910452 Y177.873775 Z-0.125000
G01 X131.929353 Y178.316846 Z-0.125000
G01 X137.454772 Y179.735090 Z-0.125000
G01 X140.855034 Y180.382868 Z-0.125000
G01 X144.042783 Y180.735214 Z-0.125000
G01 X147.230532 Y180.847582 Z-0.125000
G01 X150.630794 Y180.712777 Z-0.125000
G01 X154.031056 Y180.303546 Z-0.125000
G01 X157.218804 Y179.666325 Z-0.125000
G01 X164.019328 Y177.954420 Z-0.125000
G01 X165.825742 Y177.663855 Z-0.125000
G01 X167.525873 Y177.567414 Z-0.125000
G00 Z3.000000

(End cutting path id: polyline323)


(Start cutting path id: polyline321)
(Change tool to Default tool)

G00 Z3.000000
G00 X10.688717 Y178.074990

G00 Z4.875000 (Fast pre-penetrate)
G01 Z-0.125000 F400.0(Penetrate)
G01 X15.576597 Y180.005017 Z-0.125000 F800.000000
G01 X16.957959 Y180.306774 Z-0.125000
G01 X18.233037 Y180.344557 Z-0.125000
G01 X19.401885 Y180.152522 Z-0.125000
G01 X20.570734 Y179.756177 Z-0.125000
G01 X24.350487 Y177.777281 Z-0.125000
G01 X25.564870 Y177.255497 Z-0.125000
G01 X26.839975 Y176.944215 Z-0.125000
G01 X28.008797 Y176.926568 Z-0.125000
G01 X29.071389 Y177.143896 Z-0.125000
G01 X30.270585 Y177.628612 Z-0.125000
G01 X33.913734 Y179.832986 Z-0.125000
G01 X35.234373 Y180.494178 Z-0.125000
G01 X36.509452 Y180.878935 Z-0.125000
G01 X37.678300 Y180.962623 Z-0.125000
G01 X38.953405 Y180.751618 Z-0.125000
G01 X40.289232 Y180.231448 Z-0.125000
G01 X41.564310 Y179.526625 Z-0.125000
G01 X44.569920 Y177.635835 Z-0.125000
G01 X46.178955 Y176.830445 Z-0.125000
G01 X47.772829 Y176.354328 Z-0.125000
G01 X49.260447 Y176.250505 Z-0.125000
G01 X50.748065 Y176.470427 Z-0.125000
G01 X52.448196 Y177.055314 Z-0.125000
G01 X54.042071 Y177.828399 Z-0.125000
G01 X57.776289 Y179.861031 Z-0.125000
G01 X59.780003 Y180.754078 Z-0.125000
G01 X61.586417 Y181.314359 Z-0.125000
G01 X63.392804 Y181.613761 Z-0.125000
G01 X65.624218 Y181.643315 Z-0.125000
G01 X68.068145 Y181.330737 Z-0.125000
G01 X70.299585 Y180.841788 Z-0.125000
G01 X76.462569 Y179.268604 Z-0.125000
G01 X80.181601 Y178.552404 Z-0.125000
G01 X83.581863 Y178.165134 Z-0.125000
G01 X86.875868 Y178.044987 Z-0.125000
G01 X90.382387 Y178.193153 Z-0.125000
G01 X93.782649 Y178.611009 Z-0.125000
G01 X97.395424 Y179.334352 Z-0.125000
G01 X105.046027 Y181.241520 Z-0.125000
G01 X107.171184 Y181.574815 Z-0.125000
G01 X109.083828 Y181.672499 Z-0.125000
G01 X111.209011 Y181.492027 Z-0.125000
G01 X113.440425 Y180.946271 Z-0.125000
G01 X115.671839 Y180.078095 Z-0.125000
G01 X119.891805 Y178.045754 Z-0.125000
G01 X121.728567 Y177.260762 Z-0.125000
G01 X123.747467 Y176.625816 Z-0.125000
G01 X125.660111 Y176.303184 Z-0.125000
G01 X127.785295 Y176.270322 Z-0.125000
G01 X130.016709 Y176.545965 Z-0.125000
G01 X132.035609 Y176.980172 Z-0.125000
G01 X137.667311 Y178.402121 Z-0.125000
G01 X141.173830 Y179.056170 Z-0.125000
G01 X144.361579 Y179.397905 Z-0.125000
G01 X147.549328 Y179.505379 Z-0.125000
G01 X151.055846 Y179.362954 Z-0.125000
G01 X154.562365 Y178.936816 Z-0.125000
G01 X157.750114 Y178.302479 Z-0.125000
G01 X164.231868 Y176.696275 Z-0.125000
G01 X165.931999 Y176.399545 Z-0.125000
G01 X167.525873 Y176.256247 Z-0.125000
G00 Z3.000000

(End cutting path id: polyline321)


(Start cutting path id: polyline317)
(Change tool to Default tool)

G00 Z3.000000
G00 X10.688717 Y175.950230

G00 Z4.875000 (Fast pre-penetrate)
G01 Z-0.125000 F400.0(Penetrate)
G01 X13.557697 Y177.003350 Z-0.125000 F800.000000
G01 X15.045288 Y177.441711 Z-0.125000
G01 X16.532906 Y177.686582 Z-0.125000
G01 X17.914267 Y177.680973 Z-0.125000
G01 X19.189372 Y177.455496 Z-0.125000
G01 X20.464477 Y177.032030 Z-0.125000
G01 X24.350487 Y175.138569 Z-0.125000
G01 X25.671127 Y174.609614 Z-0.125000
G01 X26.946231 Y174.309948 Z-0.125000
G01 X28.221310 Y174.275261 Z-0.125000
G01 X29.390158 Y174.491134 Z-0.125000
G01 X30.634889 Y174.958599 Z-0.125000
G01 X31.818924 Y175.575951 Z-0.125000
G01 X34.551273 Y177.196072 Z-0.125000
G01 X35.978169 Y177.868827 Z-0.125000
G01 X37.359530 Y178.248874 Z-0.125000
G01 X38.634635 Y178.309252 Z-0.125000
G01 X39.909714 Y178.084939 Z-0.125000
G01 X41.291075 Y177.560905 Z-0.125000
G01 X42.566180 Y176.887648 Z-0.125000
G01 X45.753929 Y174.983550 Z-0.125000
G01 X47.454060 Y174.179561 Z-0.125000
G01 X49.047934 Y173.722600 Z-0.125000
G01 X50.641809 Y173.602426 Z-0.125000
G01 X52.235683 Y173.812585 Z-0.125000
G01 X54.042071 Y174.385698 Z-0.125000
G01 X55.681480 Y175.119677 Z-0.125000
G01 X59.688933 Y177.143155 Z-0.125000
G01 X61.905186 Y178.063957 Z-0.125000
G01 X63.924087 Y178.646728 Z-0.125000
G01 X65.836731 Y178.949649 Z-0.125000
G01 X67.855632 Y179.023864 Z-0.125000
G01 X69.980815 Y178.879905 Z-0.125000
G01 X72.318485 Y178.540365 Z-0.125000
G01 X78.056444 Y177.447532 Z-0.125000
G01 X81.031653 Y176.974219 Z-0.125000
G01 X84.325659 Y176.636320 Z-0.125000
G01 X87.513408 Y176.528185 Z-0.125000
G01 X90.382387 Y176.622853 Z-0.125000
G01 X93.251366 Y176.894368 Z-0.125000
G01 X96.332859 Y177.358738 Z-0.125000
G01 X103.664665 Y178.719858 Z-0.125000
G01 X105.789822 Y178.964386 Z-0.125000
G01 X107.596210 Y179.026166 Z-0.125000
G01 X110.040163 Y178.824369 Z-0.125000
G01 X112.377833 Y178.282767 Z-0.125000
G01 X114.821786 Y177.381836 Z-0.125000
G01 X119.284614 Y175.331556 Z-0.125000
G01 X121.091028 Y174.594454 Z-0.125000
G01 X123.109928 Y173.981071 Z-0.125000
G01 X125.128829 Y173.652274 Z-0.125000
G01 X127.253986 Y173.625630 Z-0.125000
G01 X129.591683 Y173.918841 Z-0.125000
G01 X131.610583 Y174.358657 Z-0.125000
G01 X137.454772 Y175.857361 Z-0.125000
G01 X141.067573 Y176.543795 Z-0.125000
G01 X144.361579 Y176.909449 Z-0.125000
G01 X147.868097 Y177.041608 Z-0.125000
G01 X151.905898 Y176.885610 Z-0.125000
G01 X155.731186 Y176.418013 Z-0.125000
G01 X159.131475 Y175.735415 Z-0.125000
G01 X165.294433 Y174.196124 Z-0.125000
G01 X167.525873 Y173.782792 Z-0.125000
G00 Z3.000000

(End cutting path id: polyline317)


(Start cutting path id: polyline313)
(Change tool to Default tool)

G00 Z3.000000
G00 X10.688717 Y173.911380

G00 Z4.875000 (Fast pre-penetrate)
G01 Z-0.125000 F400.0(Penetrate)
G01 X12.920131 Y174.559555 Z-0.125000 F800.000000
G01 X14.620262 Y174.919494 Z-0.125000
G01 X16.214136 Y175.066232 Z-0.125000
G01 X17.701754 Y174.988153 Z-0.125000
G01 X18.976859 Y174.742700 Z-0.125000
G01 X20.358221 Y174.304153 Z-0.125000
G01 X24.396022 Y172.508799 Z-0.125000
G01 X25.777383 Y171.993973 Z-0.125000
G01 X27.158745 Y171.677797 Z-0.125000
G01 X28.540106 Y171.622208 Z-0.125000
G01 X29.815184 Y171.823026 Z-0.125000
G01 X31.196546 Y172.294407 Z-0.125000
G01 X32.456463 Y172.902498 Z-0.125000
G01 X35.462047 Y174.568551 Z-0.125000
G01 X36.934504 Y175.218288 Z-0.125000
G01 X38.422122 Y175.603679 Z-0.125000
G01 X39.803457 Y175.661543 Z-0.125000
G01 X41.184819 Y175.424848 Z-0.125000
G01 X42.657249 Y174.891051 Z-0.125000
G01 X44.023450 Y174.208745 Z-0.125000
G01 X47.302269 Y172.373438 Z-0.125000
G01 X49.154191 Y171.549738 Z-0.125000
G01 X50.960578 Y171.069494 Z-0.125000
G01 X52.660709 Y170.957125 Z-0.125000
G01 X54.360840 Y171.163447 Z-0.125000
G01 X56.273484 Y171.710949 Z-0.125000
G01 X58.079872 Y172.437917 Z-0.125000
G01 X62.436469 Y174.409431 Z-0.125000
G01 X64.880422 Y175.322904 Z-0.125000
G01 X67.005579 Y175.892022 Z-0.125000
G01 X69.236993 Y176.247119 Z-0.125000
G01 X71.362150 Y176.376341 Z-0.125000
G01 X73.699847 Y176.334272 Z-0.125000
G01 X83.263093 Y175.483162 Z-0.125000
G01 X88.150973 Y175.311156 Z-0.125000
G01 X92.295031 Y175.458767 Z-0.125000
G01 X100.901942 Y176.252304 Z-0.125000
G01 X104.408461 Y176.378140 Z-0.125000
G01 X107.383697 Y176.154171 Z-0.125000
G01 X110.146420 Y175.575475 Z-0.125000
G01 X112.909142 Y174.638375 Z-0.125000
G01 X117.690739 Y172.595476 Z-0.125000
G01 X119.603410 Y171.869461 Z-0.125000
G01 X121.728567 Y171.277932 Z-0.125000
G01 X123.747467 Y170.989801 Z-0.125000
G01 X125.978881 Y170.999776 Z-0.125000
G01 X128.316578 Y171.331140 Z-0.125000
G01 X130.441735 Y171.829958 Z-0.125000
G01 X136.285950 Y173.428172 Z-0.125000
G01 X140.004982 Y174.188742 Z-0.125000
G01 X143.617757 Y174.627209 Z-0.125000
G01 X147.443045 Y174.810830 Z-0.125000
G01 X152.224668 Y174.694334 Z-0.125000
G01 X154.562365 Y174.490896 Z-0.125000
G01 X156.793778 Y174.193902 Z-0.125000
G01 X160.725349 Y173.414678 Z-0.125000
G01 X167.525873 Y171.655889 Z-0.125000
G00 Z3.000000

(End cutting path id: polyline313)


(Start cutting path id: polyline309)
(Change tool to Default tool)

G00 Z3.000000
G00 X10.688717 Y171.843426

G00 Z4.875000 (Fast pre-penetrate)
G01 Z-0.125000 F400.0(Penetrate)
G01 X12.707618 Y172.208947 Z-0.125000 F800.000000
G01 X14.407749 Y172.391351 Z-0.125000
G01 X16.001623 Y172.410136 Z-0.125000
G01 X17.595498 Y172.251016 Z-0.125000
G01 X18.976859 Y171.961350 Z-0.125000
G01 X20.358221 Y171.542145 Z-0.125000
G01 X24.502278 Y169.894348 Z-0.125000
G01 X25.989896 Y169.385741 Z-0.125000
G01 X27.583771 Y169.040354 Z-0.125000
G01 X28.965132 Y168.967541 Z-0.125000
G01 X30.452750 Y169.153754 Z-0.125000
G01 X32.046624 Y169.643021 Z-0.125000
G01 X33.458333 Y170.271776 Z-0.125000
G01 X36.737152 Y171.950979 Z-0.125000
G01 X38.422122 Y172.623734 Z-0.125000
G01 X40.015997 Y172.976899 Z-0.125000
G01 X41.503588 Y173.005421 Z-0.125000
G01 X42.884949 Y172.770445 Z-0.125000
G01 X44.478824 Y172.230643 Z-0.125000
G01 X49.397078 Y169.776635 Z-0.125000
G01 X51.279348 Y168.990797 Z-0.125000
G01 X53.191992 Y168.479597 Z-0.125000
G01 X54.998406 Y168.307618 Z-0.125000
G01 X57.017306 Y168.463325 Z-0.125000
G01 X59.142464 Y168.955476 Z-0.125000
G01 X61.161364 Y169.635136 Z-0.125000
G01 X66.793066 Y171.780428 Z-0.125000
G01 X68.705710 Y172.385265 Z-0.125000
G01 X70.512098 Y172.848603 Z-0.125000
G01 X72.424742 Y173.219389 Z-0.125000
G01 X74.443642 Y173.485613 Z-0.125000
G01 X78.906496 Y173.725008 Z-0.125000
G01 X88.363486 Y173.674102 Z-0.125000
G01 X97.607937 Y173.726965 Z-0.125000
G01 X100.476916 Y173.625471 Z-0.125000
G01 X103.027126 Y173.388405 Z-0.125000
G01 X105.683566 Y172.938138 Z-0.125000
G01 X108.340032 Y172.250434 Z-0.125000
G01 X110.677702 Y171.464463 Z-0.125000
G01 X115.565582 Y169.612806 Z-0.125000
G01 X117.584483 Y168.970081 Z-0.125000
G01 X119.603410 Y168.519813 Z-0.125000
G01 X121.516054 Y168.320556 Z-0.125000
G01 X123.747467 Y168.386463 Z-0.125000
G01 X126.085164 Y168.763759 Z-0.125000
G01 X128.210321 Y169.303693 Z-0.125000
G01 X134.160766 Y171.063276 Z-0.125000
G01 X137.773568 Y171.872530 Z-0.125000
G01 X141.280086 Y172.358860 Z-0.125000
G01 X145.317888 Y172.625956 Z-0.125000
G01 X148.505636 Y172.684006 Z-0.125000
G01 X151.693385 Y172.634476 Z-0.125000
G01 X154.562365 Y172.486309 Z-0.125000
G01 X157.218804 Y172.234479 Z-0.125000
G01 X159.556501 Y171.899438 Z-0.125000
G01 X161.894171 Y171.447345 Z-0.125000
G01 X167.525873 Y169.977454 Z-0.125000
G00 Z3.000000

(End cutting path id: polyline309)


(Start cutting path id: polyline305)
(Change tool to Default tool)

G00 Z3.000000
G00 X10.688717 Y169.616854

G00 Z4.875000 (Fast pre-penetrate)
G01 Z-0.125000 F400.0(Penetrate)
G01 X12.601361 Y169.749198 Z-0.125000 F800.000000
G01 X14.407749 Y169.770497 Z-0.125000
G01 X16.001623 Y169.678025 Z-0.125000
G01 X17.595498 Y169.463819 Z-0.125000
G01 X20.464477 Y168.766034 Z-0.125000
G01 X24.927304 Y167.223965 Z-0.125000
G01 X26.521179 Y166.745334 Z-0.125000
G01 X28.221310 Y166.408547 Z-0.125000
G01 X29.815184 Y166.320203 Z-0.125000
G01 X31.515315 Y166.506813 Z-0.125000
G01 X33.215446 Y166.975363 Z-0.125000
G01 X34.809321 Y167.618062 Z-0.125000
G01 X38.422122 Y169.308826 Z-0.125000
G01 X40.228510 Y169.970390 Z-0.125000
G01 X42.034897 Y170.335091 Z-0.125000
G01 X43.735028 Y170.350939 Z-0.125000
G01 X45.222646 Y170.106491 Z-0.125000
G01 X46.922777 Y169.577590 Z-0.125000
G01 X52.235683 Y167.197401 Z-0.125000
G01 X54.467097 Y166.362377 Z-0.125000
G01 X56.698537 Y165.835804 Z-0.125000
G01 X58.823694 Y165.661603 Z-0.125000
G01 X60.948851 Y165.788047 Z-0.125000
G01 X63.286548 Y166.205162 Z-0.125000
G01 X65.517961 Y166.783990 Z-0.125000
G01 X71.999716 Y168.680997 Z-0.125000
G01 X76.250030 Y169.631062 Z-0.125000
G01 X80.819140 Y170.252091 Z-0.125000
G01 X85.919533 Y170.551731 Z-0.125000
G01 X89.638591 Y170.582053 Z-0.125000
G01 X93.251366 Y170.474129 Z-0.125000
G01 X96.545372 Y170.232036 Z-0.125000
G01 X99.520581 Y169.859503 Z-0.125000
G01 X101.964534 Y169.422570 Z-0.125000
G01 X104.514744 Y168.834164 Z-0.125000
G01 X111.527781 Y166.788091 Z-0.125000
G01 X113.652938 Y166.237123 Z-0.125000
G01 X115.884352 Y165.828158 Z-0.125000
G01 X117.903279 Y165.666550 Z-0.125000
G01 X120.347205 Y165.775453 Z-0.125000
G01 X122.897415 Y166.226725 Z-0.125000
G01 X125.128829 Y166.834420 Z-0.125000
G01 X130.866761 Y168.644220 Z-0.125000
G01 X134.054510 Y169.433074 Z-0.125000
G01 X137.029746 Y169.919987 Z-0.125000
G01 X140.217495 Y170.205525 Z-0.125000
G01 X143.724013 Y170.333345 Z-0.125000
G01 X148.930663 Y170.369672 Z-0.125000
G01 X154.031056 Y170.328582 Z-0.125000
G01 X157.537600 Y170.198328 Z-0.125000
G01 X160.194040 Y169.984333 Z-0.125000
G01 X162.637993 Y169.664082 Z-0.125000
G01 X164.975664 Y169.232494 Z-0.125000
G01 X167.525873 Y168.630462 Z-0.125000
G00 Z3.000000

(End cutting path id: polyline305)


(Start cutting path id: polyline303)
(Change tool to Default tool)

G00 Z3.000000
G00 X10.688717 Y168.410329

G00 Z4.875000 (Fast pre-penetrate)
G01 Z-0.125000 F400.0(Penetrate)
G01 X14.407749 Y168.411123 Z-0.125000 F800.000000
G01 X17.595498 Y168.061079 Z-0.125000
G01 X20.570734 Y167.376921 Z-0.125000
G01 X26.946231 Y165.415329 Z-0.125000
G01 X28.752619 Y165.082933 Z-0.125000
G01 X30.346493 Y164.995938 Z-0.125000
G01 X32.152881 Y165.171886 Z-0.125000
G01 X33.959268 Y165.635594 Z-0.125000
G01 X35.659399 Y166.283134 Z-0.125000
G01 X39.484688 Y167.986811 Z-0.125000
G01 X41.397332 Y168.652184 Z-0.125000
G01 X43.309976 Y169.015033 Z-0.125000
G01 X45.116390 Y169.024532 Z-0.125000
G01 X46.710264 Y168.768998 Z-0.125000
G01 X48.410395 Y168.268645 Z-0.125000
G01 X54.148327 Y165.868189 Z-0.125000
G01 X56.485997 Y165.056660 Z-0.125000
G01 X58.929951 Y164.520165 Z-0.125000
G01 X61.373877 Y164.338423 Z-0.125000
G01 X63.499061 Y164.444362 Z-0.125000
G01 X65.942988 Y164.802263 Z-0.125000
G01 X74.656156 Y166.821270 Z-0.125000
G01 X78.587727 Y167.566865 Z-0.125000
G01 X82.413015 Y168.049861 Z-0.125000
G01 X86.344586 Y168.300289 Z-0.125000
G01 X89.107282 Y168.338071 Z-0.125000
G01 X91.870005 Y168.264782 Z-0.125000
G01 X94.632728 Y168.076028 Z-0.125000
G01 X97.289167 Y167.777949 Z-0.125000
G01 X102.070791 Y166.942528 Z-0.125000
G01 X111.315268 Y164.796310 Z-0.125000
G01 X113.652938 Y164.453702 Z-0.125000
G01 X115.778095 Y164.338370 Z-0.125000
G01 X118.009535 Y164.456956 Z-0.125000
G01 X120.240949 Y164.821922 Z-0.125000
G01 X122.684876 Y165.454037 Z-0.125000
G01 X128.210321 Y167.229230 Z-0.125000
G01 X130.866761 Y167.963501 Z-0.125000
G01 X133.948253 Y168.569634 Z-0.125000
G01 X137.136002 Y168.914254 Z-0.125000
G01 X141.705113 Y169.059298 Z-0.125000
G01 X158.493909 Y169.015880 Z-0.125000
G01 X160.937862 Y168.895442 Z-0.125000
G01 X163.169276 Y168.688538 Z-0.125000
G01 X165.294433 Y168.388474 Z-0.125000
G01 X167.525873 Y167.961226 Z-0.125000
G00 Z3.000000

(End cutting path id: polyline303)


(Start cutting path id: polyline301)
(Change tool to Default tool)

G00 Z3.000000
G00 X10.688717 Y167.130832

G00 Z4.875000 (Fast pre-penetrate)
G01 Z-0.125000 F400.0(Penetrate)
G01 X14.514005 Y167.013727 Z-0.125000 F800.000000
G01 X17.914267 Y166.601296 Z-0.125000
G01 X20.995760 Y165.918724 Z-0.125000
G01 X27.158745 Y164.160094 Z-0.125000
G01 X28.858876 Y163.828730 Z-0.125000
G01 X30.346493 Y163.684109 Z-0.125000
G01 X32.259137 Y163.745625 Z-0.125000
G01 X34.171782 Y164.102785 Z-0.125000
G01 X36.296939 Y164.801681 Z-0.125000
G01 X40.334766 Y166.508533 Z-0.125000
G01 X42.034897 Y167.124112 Z-0.125000
G01 X43.947541 Y167.586841 Z-0.125000
G01 X45.860185 Y167.738023 Z-0.125000
G01 X47.772829 Y167.564378 Z-0.125000
G01 X49.791730 Y167.075481 Z-0.125000
G01 X51.704400 Y166.408097 Z-0.125000
G01 X56.273484 Y164.595042 Z-0.125000
G01 X58.717437 Y163.803780 Z-0.125000
G01 X60.842595 Y163.327213 Z-0.125000
G01 X62.967752 Y163.070038 Z-0.125000
G01 X65.199192 Y163.023551 Z-0.125000
G01 X67.536862 Y163.178623 Z-0.125000
G01 X70.193328 Y163.532635 Z-0.125000
G01 X77.100109 Y164.736726 Z-0.125000
G01 X80.712884 Y165.257664 Z-0.125000
G01 X84.750711 Y165.630382 Z-0.125000
G01 X88.788513 Y165.753810 Z-0.125000
G01 X92.401288 Y165.648268 Z-0.125000
G01 X96.120319 Y165.329128 Z-0.125000
G01 X99.945634 Y164.798109 Z-0.125000
G01 X108.340032 Y163.359095 Z-0.125000
G01 X110.677702 Y163.100704 Z-0.125000
G01 X112.802886 Y163.015323 Z-0.125000
G01 X115.353069 Y163.153620 Z-0.125000
G01 X117.903279 Y163.573196 Z-0.125000
G01 X120.453462 Y164.235209 Z-0.125000
G01 X125.872625 Y165.976112 Z-0.125000
G01 X128.422834 Y166.693873 Z-0.125000
G01 X131.185557 Y167.264923 Z-0.125000
G01 X134.054510 Y167.606579 Z-0.125000
G01 X138.198594 Y167.737547 Z-0.125000
G01 X149.355715 Y167.538448 Z-0.125000
G01 X160.725349 Y167.732573 Z-0.125000
G01 X164.231868 Y167.581417 Z-0.125000
G01 X167.525873 Y167.198380 Z-0.125000
G00 Z3.000000

(End cutting path id: polyline301)


(Start cutting path id: polyline299)
(Change tool to Default tool)

G00 Z3.000000
G00 X10.688717 Y165.776088

G00 Z4.875000 (Fast pre-penetrate)
G01 Z-0.125000 F400.0(Penetrate)
G01 X14.726519 Y165.578815 Z-0.125000 F800.000000
G01 X18.233037 Y165.147809 Z-0.125000
G01 X21.420786 Y164.492622 Z-0.125000
G01 X27.902540 Y162.811170 Z-0.125000
G01 X29.602671 Y162.506741 Z-0.125000
G01 X31.196546 Y162.361353 Z-0.125000
G01 X33.215446 Y162.420963 Z-0.125000
G01 X35.234373 Y162.773891 Z-0.125000
G01 X37.465787 Y163.464452 Z-0.125000
G01 X41.716128 Y165.164160 Z-0.125000
G01 X43.628772 Y165.817521 Z-0.125000
G01 X45.647672 Y166.270355 Z-0.125000
G01 X47.666573 Y166.414950 Z-0.125000
G01 X49.685473 Y166.243606 Z-0.125000
G01 X51.810657 Y165.771748 Z-0.125000
G01 X53.829558 Y165.130346 Z-0.125000
G01 X58.823694 Y163.328219 Z-0.125000
G01 X61.480134 Y162.544391 Z-0.125000
G01 X63.817830 Y162.058935 Z-0.125000
G01 X66.155501 Y161.780646 Z-0.125000
G01 X68.493197 Y161.692461 Z-0.125000
G01 X71.043380 Y161.769481 Z-0.125000
G01 X82.625528 Y162.866971 Z-0.125000
G01 X85.813277 Y163.048078 Z-0.125000
G01 X88.894769 Y163.104381 Z-0.125000
G01 X94.420188 Y162.901235 Z-0.125000
G01 X104.939770 Y161.875129 Z-0.125000
G01 X108.977571 Y161.692514 Z-0.125000
G01 X112.059064 Y161.849888 Z-0.125000
G01 X115.034299 Y162.316612 Z-0.125000
G01 X117.903279 Y163.040749 Z-0.125000
G01 X123.428698 Y164.774614 Z-0.125000
G01 X125.766368 Y165.425224 Z-0.125000
G01 X128.422834 Y165.980160 Z-0.125000
G01 X131.079300 Y166.303931 Z-0.125000
G01 X133.098201 Y166.404605 Z-0.125000
G01 X135.435871 Y166.397355 Z-0.125000
G01 X144.149039 Y165.946558 Z-0.125000
G01 X148.399380 Y165.849430 Z-0.125000
G01 X152.755977 Y165.937377 Z-0.125000
G01 X162.319197 Y166.400689 Z-0.125000
G01 X164.975664 Y166.399101 Z-0.125000
G01 X167.525873 Y166.263952 Z-0.125000
G00 Z3.000000

(End cutting path id: polyline299)


(Start cutting path id: polyline297)
(Change tool to Default tool)

G00 Z3.000000
G00 X10.688717 Y164.348821

G00 Z4.875000 (Fast pre-penetrate)
G01 Z-0.125000 F400.0(Penetrate)
G01 X14.832775 Y164.131757 Z-0.125000 F800.000000
G01 X18.445550 Y163.724881 Z-0.125000
G01 X21.845839 Y163.102529 Z-0.125000
G01 X29.177645 Y161.399065 Z-0.125000
G01 X31.302802 Y161.099927 Z-0.125000
G01 X33.215446 Y161.029389 Z-0.125000
G01 X35.340630 Y161.218407 Z-0.125000
G01 X37.465787 Y161.690265 Z-0.125000
G01 X39.484688 Y162.349367 Z-0.125000
G01 X43.841285 Y163.994809 Z-0.125000
G01 X46.072698 Y164.655526 Z-0.125000
G01 X48.197856 Y165.018877 Z-0.125000
G01 X50.323039 Y165.078091 Z-0.125000
G01 X52.341940 Y164.863858 Z-0.125000
G01 X54.467097 Y164.406474 Z-0.125000
G01 X61.692673 Y162.144077 Z-0.125000
G01 X64.561626 Y161.375199 Z-0.125000
G01 X67.111836 Y160.874820 Z-0.125000
G01 X69.768276 Y160.547319 Z-0.125000
G01 X72.212229 Y160.401269 Z-0.125000
G01 X74.974952 Y160.373461 Z-0.125000
G01 X84.963224 Y160.703555 Z-0.125000
G01 X89.532308 Y160.752556 Z-0.125000
G01 X103.664665 Y160.370313 Z-0.125000
G01 X107.702466 Y160.543562 Z-0.125000
G01 X111.421524 Y161.054286 Z-0.125000
G01 X114.821786 Y161.845046 Z-0.125000
G01 X120.772232 Y163.608280 Z-0.125000
G01 X123.109928 Y164.223647 Z-0.125000
G01 X125.660111 Y164.727095 Z-0.125000
G01 X128.104065 Y165.007448 Z-0.125000
G01 X130.335478 Y165.092088 Z-0.125000
G01 X132.673175 Y165.034541 Z-0.125000
G01 X142.980217 Y164.166444 Z-0.125000
G01 X148.505636 Y163.982982 Z-0.125000
G01 X153.287260 Y164.132075 Z-0.125000
G01 X163.275533 Y164.943736 Z-0.125000
G01 X167.525873 Y165.092035 Z-0.125000
G00 Z3.000000

(End cutting path id: polyline297)


(Start cutting path id: polyline295)
(Change tool to Default tool)

G00 Z3.000000
G00 X10.688717 Y162.856176

G00 Z4.875000 (Fast pre-penetrate)
G01 Z-0.125000 F400.0(Penetrate)
G01 X15.151545 Y162.657739 Z-0.125000 F800.000000
G01 X18.976859 Y162.277692 Z-0.125000
G01 X22.695891 Y161.669601 Z-0.125000
G01 X30.452750 Y160.042204 Z-0.125000
G01 X32.577907 Y159.772937 Z-0.125000
G01 X34.596808 Y159.707056 Z-0.125000
G01 X36.828248 Y159.895916 Z-0.125000
G01 X39.059661 Y160.362084 Z-0.125000
G01 X41.078562 Y160.977557 Z-0.125000
G01 X45.860185 Y162.668745 Z-0.125000
G01 X48.304139 Y163.339834 Z-0.125000
G01 X50.641809 Y163.701730 Z-0.125000
G01 X52.979479 Y163.752160 Z-0.125000
G01 X54.892149 Y163.576503 Z-0.125000
G01 X56.911050 Y163.218549 Z-0.125000
G01 X67.005579 Y160.553854 Z-0.125000
G01 X69.874559 Y159.973624 Z-0.125000
G01 X72.849768 Y159.545105 Z-0.125000
G01 X76.143773 Y159.256339 Z-0.125000
G01 X79.862831 Y159.103040 Z-0.125000
G01 X93.888905 Y159.054092 Z-0.125000
G01 X101.008199 Y159.231654 Z-0.125000
G01 X103.770922 Y159.444696 Z-0.125000
G01 X106.427388 Y159.772382 Z-0.125000
G01 X108.658802 Y160.154969 Z-0.125000
G01 X110.996472 Y160.661090 Z-0.125000
G01 X120.240949 Y163.049189 Z-0.125000
G01 X122.684876 Y163.480169 Z-0.125000
G01 X125.022572 Y163.714007 Z-0.125000
G01 X127.253986 Y163.767479 Z-0.125000
G01 X129.697939 Y163.658259 Z-0.125000
G01 X141.280086 Y162.302854 Z-0.125000
G01 X144.680348 Y162.062639 Z-0.125000
G01 X147.974354 Y161.979348 Z-0.125000
G01 X151.374616 Y162.050071 Z-0.125000
G01 X154.881134 Y162.278962 Z-0.125000
G01 X164.550637 Y163.373806 Z-0.125000
G01 X167.525873 Y163.642755 Z-0.125000
G00 Z3.000000

(End cutting path id: polyline295)


(Start cutting path id: polyline293)
(Change tool to Default tool)

G00 Z3.000000
G00 X10.688717 Y161.309053

G00 Z4.875000 (Fast pre-penetrate)
G01 Z-0.125000 F400.0(Penetrate)
G01 X15.470341 Y161.187054 Z-0.125000 F800.000000
G01 X19.826911 Y160.830661 Z-0.125000
G01 X23.864739 Y160.243631 Z-0.125000
G01 X32.046624 Y158.686348 Z-0.125000
G01 X34.278038 Y158.436661 Z-0.125000
G01 X36.296939 Y158.385226 Z-0.125000
G01 X38.634635 Y158.575937 Z-0.125000
G01 X40.972305 Y159.036285 Z-0.125000
G01 X43.097463 Y159.643001 Z-0.125000
G01 X48.197856 Y161.323235 Z-0.125000
G01 X50.854322 Y161.999800 Z-0.125000
G01 X53.510788 Y162.377942 Z-0.125000
G01 X56.167228 Y162.428134 Z-0.125000
G01 X58.186128 Y162.267982 Z-0.125000
G01 X60.523825 Y161.914922 Z-0.125000
G01 X69.980815 Y159.834453 Z-0.125000
G01 X75.506234 Y158.939977 Z-0.125000
G01 X82.838041 Y158.326700 Z-0.125000
G01 X86.238303 Y158.187847 Z-0.125000
G01 X89.319795 Y158.161733 Z-0.125000
G01 X95.376523 Y158.364350 Z-0.125000
G01 X102.177047 Y158.953709 Z-0.125000
G01 X107.489953 Y159.815509 Z-0.125000
G01 X116.840687 Y161.856634 Z-0.125000
G01 X119.284614 Y162.223320 Z-0.125000
G01 X121.516054 Y162.409798 Z-0.125000
G01 X123.959980 Y162.433452 Z-0.125000
