%
(Header)
(Generated by gcodetools from Inkscape.)
(Using default header. To add your own header create file "header" in the output dir.)
M3
(Header end.)
G21 (All units in mm)

(Start cutting path id: polyline30769)
(Change tool to Default tool)

G00 Z3.000000
G00 X12.101347 Y207.934001

G00 Z4.875000 (Fast pre-penetrate)
G01 Z-0.125000 F400.0(Penetrate)
G01 X12.998786 Y208.037744 Z-0.125000 F800.000000
G01 X13.896252 Y207.829359 Z-0.125000
G01 X14.760459 Y207.344643 Z-0.125000
G01 X17.087202 Y205.582943 Z-0.125000
G01 X17.785225 Y205.286399 Z-0.125000
G01 X18.483248 Y205.233985 Z-0.125000
G01 X19.181244 Y205.454118 Z-0.125000
G01 X19.812804 Y205.871312 Z-0.125000
G01 X22.073057 Y208.163501 Z-0.125000
G01 X22.826483 Y208.775640 Z-0.125000
G01 X23.568824 Y209.109015 Z-0.125000
G01 X24.266847 Y209.125260 Z-0.125000
G01 X24.944920 Y208.857687 Z-0.125000
G01 X25.735388 Y208.236023 Z-0.125000
G01 X27.989609 Y205.612047 Z-0.125000
G01 X28.942452 Y204.670026 Z-0.125000
G01 X29.751282 Y204.144379 Z-0.125000
G01 X30.648748 Y203.920463 Z-0.125000
G01 X31.546187 Y204.073683 Z-0.125000
G01 X32.576605 Y204.643462 Z-0.125000
G01 X33.560483 Y205.456631 Z-0.125000
G01 X36.432320 Y208.136011 Z-0.125000
G01 X37.363017 Y208.832234 Z-0.125000
G01 X38.338032 Y209.407967 Z-0.125000
G01 X39.423854 Y209.869188 Z-0.125000
G01 X40.520736 Y210.170125 Z-0.125000
G01 X41.817061 Y210.368112 Z-0.125000
G01 X43.441018 Y210.458441 Z-0.125000
G01 X45.264418 Y210.415076 Z-0.125000
G01 X46.703194 Y210.244975 Z-0.125000
G01 X47.899824 Y209.952188 Z-0.125000
G01 X49.063169 Y209.471652 Z-0.125000
G01 X50.038184 Y208.884516 Z-0.125000
G01 X51.030925 Y208.101641 Z-0.125000
G01 X54.558716 Y204.658808 Z-0.125000
G01 X55.378606 Y204.138082 Z-0.125000
G01 X56.176350 Y203.923479 Z-0.125000
G01 X56.951923 Y204.049262 Z-0.125000
G01 X57.731940 Y204.522442 Z-0.125000
G01 X58.569557 Y205.369531 Z-0.125000
G01 X60.364461 Y207.703920 Z-0.125000
G01 X61.002662 Y208.408875 Z-0.125000
G01 X61.760507 Y208.975083 Z-0.125000
G01 X62.458530 Y209.156031 Z-0.125000
G01 X63.156553 Y208.983443 Z-0.125000
G01 X63.777000 Y208.559370 Z-0.125000
G01 X65.912370 Y206.245644 Z-0.125000
G01 X66.524774 Y205.702164 Z-0.125000
G01 X67.145247 Y205.344237 Z-0.125000
G01 X67.743549 Y205.223402 Z-0.125000
G01 X68.242129 Y205.286134 Z-0.125000
G01 X68.917980 Y205.581356 Z-0.125000
G01 X70.974372 Y207.184411 Z-0.125000
G01 X71.754389 Y207.685267 Z-0.125000
G01 X72.430240 Y207.950697 Z-0.125000
G01 X73.128263 Y208.040708 Z-0.125000
G01 X73.726564 Y207.978213 Z-0.125000
G01 X74.424587 Y207.771362 Z-0.125000
G01 X76.618377 Y206.759094 Z-0.125000
G01 X77.515816 Y206.427095 Z-0.125000
G01 X78.413282 Y206.222282 Z-0.125000
G01 X79.453199 Y206.148463 Z-0.125000
G01 X80.806488 Y206.254931 Z-0.125000
G01 X84.097159 Y206.822700 Z-0.125000
G01 X86.091507 Y207.067757 Z-0.125000
G01 X88.570200 Y207.213013 Z-0.125000
G01 X91.761150 Y207.257833 Z-0.125000
G01 X94.952100 Y207.218410 Z-0.125000
G01 X97.459262 Y207.094347 Z-0.125000
G01 X99.752774 Y206.859371 Z-0.125000
G01 X104.040606 Y206.239347 Z-0.125000
G01 X106.234369 Y206.166349 Z-0.125000
G01 X107.331277 Y206.289803 Z-0.125000
G01 X108.428159 Y206.533537 Z-0.125000
G01 X112.416854 Y207.855764 Z-0.125000
G01 X113.314293 Y208.012741 Z-0.125000
G01 X114.211758 Y208.030548 Z-0.125000
G01 X115.109224 Y207.890292 Z-0.125000
G01 X116.106384 Y207.553267 Z-0.125000
G01 X118.998197 Y206.001593 Z-0.125000
G01 X120.095079 Y205.511585 Z-0.125000
G01 X121.092239 Y205.260787 Z-0.125000
G01 X121.961209 Y205.232979 Z-0.125000
G01 X122.986865 Y205.434777 Z-0.125000
G01 X123.961880 Y205.833768 Z-0.125000
G01 X127.418736 Y207.930377 Z-0.125000
G01 X128.770464 Y208.591887 Z-0.125000
G01 X130.166510 Y209.011304 Z-0.125000
G01 X131.648016 Y209.156004 Z-0.125000
G01 X133.556903 Y208.994424 Z-0.125000
G01 X138.642479 Y208.057562 Z-0.125000
G01 X141.334850 Y207.878360 Z-0.125000
G01 X142.816356 Y207.931991 Z-0.125000
G01 X144.326357 Y208.089417 Z-0.125000
G01 X150.109956 Y209.065464 Z-0.125000
G01 X151.363551 Y209.152909 Z-0.125000
G01 X152.503163 Y209.123725 Z-0.125000
G01 X153.899208 Y208.917430 Z-0.125000
G01 X155.394975 Y208.477693 Z-0.125000
G01 X156.790995 Y207.890398 Z-0.125000
G01 X160.580273 Y206.032311 Z-0.125000
G01 X161.677155 Y205.623927 Z-0.125000
G01 X162.774037 Y205.348655 Z-0.125000
G01 X164.013370 Y205.222952 Z-0.125000
G01 X165.366685 Y205.309920 Z-0.125000
G01 X166.762731 Y205.609137 Z-0.125000
G01 X168.457914 Y206.156877 Z-0.125000
G00 Z3.000000

(End cutting path id: polyline30769)


(Start cutting path id: polyline30539)
(Change tool to Default tool)

G00 Z3.000000
G00 X12.101347 Y206.612330

G00 Z4.875000 (Fast pre-penetrate)
G01 Z-0.125000 F400.0(Penetrate)
G01 X12.998786 Y206.714671 Z-0.125000 F800.000000
G01 X13.896252 Y206.505597 Z-0.125000
G01 X14.760459 Y206.021146 Z-0.125000
G01 X17.087202 Y204.261378 Z-0.125000
G01 X17.785225 Y203.964383 Z-0.125000
G01 X18.483248 Y203.910541 Z-0.125000
G01 X19.181244 Y204.128478 Z-0.125000
G01 X19.812804 Y204.543317 Z-0.125000
G01 X22.073057 Y206.831246 Z-0.125000
G01 X22.826483 Y207.445555 Z-0.125000
G01 X23.568824 Y207.783163 Z-0.125000
G01 X24.266847 Y207.804911 Z-0.125000
G01 X24.953784 Y207.538291 Z-0.125000
G01 X25.735388 Y206.928718 Z-0.125000
G01 X28.056099 Y204.239523 Z-0.125000
G01 X29.031114 Y203.295015 Z-0.125000
G01 X29.851003 Y202.788815 Z-0.125000
G01 X30.748442 Y202.596701 Z-0.125000
G01 X31.645908 Y202.777120 Z-0.125000
G01 X32.665240 Y203.359547 Z-0.125000
G01 X33.640255 Y204.170890 Z-0.125000
G01 X36.432320 Y206.775445 Z-0.125000
G01 X37.363017 Y207.477543 Z-0.125000
G01 X38.338032 Y208.060763 Z-0.125000
G01 X39.423854 Y208.530213 Z-0.125000
G01 X40.520736 Y208.838214 Z-0.125000
G01 X41.817061 Y209.042366 Z-0.125000
G01 X43.441018 Y209.138092 Z-0.125000
G01 X45.264418 Y209.101686 Z-0.125000
G01 X46.703194 Y208.941825 Z-0.125000
G01 X47.899824 Y208.662901 Z-0.125000
G01 X49.096427 Y208.184562 Z-0.125000
G01 X50.126819 Y207.571867 Z-0.125000
G01 X51.110697 Y206.799681 Z-0.125000
G01 X53.902789 Y204.009892 Z-0.125000
G01 X54.735987 Y203.281230 Z-0.125000
G01 X55.578049 Y202.774210 Z-0.125000
G01 X56.375767 Y202.597468 Z-0.125000
G01 X57.073789 Y202.730421 Z-0.125000
G01 X57.891483 Y203.237653 Z-0.125000
G01 X58.702510 Y204.066407 Z-0.125000
G01 X60.430951 Y206.311922 Z-0.125000
G01 X61.082434 Y207.041563 Z-0.125000
G01 X61.860228 Y207.636928 Z-0.125000
G01 X62.558251 Y207.831740 Z-0.125000
G01 X63.245188 Y207.683336 Z-0.125000
G01 X63.954297 Y207.206451 Z-0.125000
G01 X66.057414 Y204.924873 Z-0.125000
G01 X66.702044 Y204.361549 Z-0.125000
G01 X67.344663 Y204.007378 Z-0.125000
G01 X67.942965 Y203.898396 Z-0.125000
G01 X68.541267 Y204.005843 Z-0.125000
G01 X69.095250 Y204.264526 Z-0.125000
G01 X71.133915 Y205.838504 Z-0.125000
G01 X71.931660 Y206.352192 Z-0.125000
G01 X72.629682 Y206.627596 Z-0.125000
G01 X73.327705 Y206.717634 Z-0.125000
G01 X73.826285 Y206.676650 Z-0.125000
G01 X74.524308 Y206.494987 Z-0.125000
G01 X76.817793 Y205.465336 Z-0.125000
G01 X77.814980 Y205.100026 Z-0.125000
G01 X78.812140 Y204.886323 Z-0.125000
G01 X79.795066 Y204.825945 Z-0.125000
G01 X81.105652 Y204.922333 Z-0.125000
G01 X84.496018 Y205.477533 Z-0.125000
G01 X86.490366 Y205.713647 Z-0.125000
G01 X88.798111 Y205.852448 Z-0.125000
G01 X91.761150 Y205.901634 Z-0.125000
G01 X94.724162 Y205.861761 Z-0.125000
G01 X97.231351 Y205.733914 Z-0.125000
G01 X99.453610 Y205.511162 Z-0.125000
G01 X103.741442 Y204.918496 Z-0.125000
G01 X106.006457 Y204.841873 Z-0.125000
G01 X107.131835 Y204.961359 Z-0.125000
G01 X108.228717 Y205.193239 Z-0.125000
G01 X112.416854 Y206.538538 Z-0.125000
G01 X113.314293 Y206.689853 Z-0.125000
G01 X114.211758 Y206.709114 Z-0.125000
G01 X115.208919 Y206.554863 Z-0.125000
G01 X116.206106 Y206.220879 Z-0.125000
G01 X119.297335 Y204.616051 Z-0.125000
G01 X120.294495 Y204.193115 Z-0.125000
G01 X121.291682 Y203.945519 Z-0.125000
G01 X122.189147 Y203.905275 Z-0.125000
G01 X123.186308 Y204.068497 Z-0.125000
G01 X124.283190 Y204.470689 Z-0.125000
G01 X127.873025 Y206.479351 Z-0.125000
G01 X129.468487 Y207.207986 Z-0.125000
G01 X131.163697 Y207.671297 Z-0.125000
G01 X132.901610 Y207.831343 Z-0.125000
G01 X134.383116 Y207.790280 Z-0.125000
G01 X138.257855 Y207.450211 Z-0.125000
G01 X140.423149 Y207.361603 Z-0.125000
G01 X142.816356 Y207.432061 Z-0.125000
G01 X147.830706 Y207.819940 Z-0.125000
G01 X149.312212 Y207.817003 Z-0.125000
G01 X150.608537 Y207.699925 Z-0.125000
G01 X152.104304 Y207.402004 Z-0.125000
G01 X153.600044 Y206.924406 Z-0.125000
G01 X157.887903 Y204.993135 Z-0.125000
G01 X159.283949 Y204.442935 Z-0.125000
G01 X160.580273 Y204.084028 Z-0.125000
G01 X161.776876 Y203.917975 Z-0.125000
G01 X163.172922 Y203.936946 Z-0.125000
G01 X164.568941 Y204.163747 Z-0.125000
G01 X166.064708 Y204.577634 Z-0.125000
G01 X168.457914 Y205.393767 Z-0.125000
G00 Z3.000000

(End cutting path id: polyline30539)


(Start cutting path id: polyline30541)
(Change tool to Default tool)

G00 Z3.000000
G00 X12.101347 Y205.292114

G00 Z4.875000 (Fast pre-penetrate)
G01 Z-0.125000 F400.0(Penetrate)
G01 X12.998786 Y205.391359 Z-0.125000 F800.000000
G01 X13.896252 Y205.180830 Z-0.125000
G01 X14.760459 Y204.696934 Z-0.125000
G01 X17.087202 Y202.941479 Z-0.125000
G01 X17.785225 Y202.643426 Z-0.125000
G01 X18.483248 Y202.586541 Z-0.125000
G01 X19.181244 Y202.799610 Z-0.125000
G01 X19.901439 Y203.280886 Z-0.125000
G01 X22.109305 Y205.522751 Z-0.125000
G01 X22.826483 Y206.106606 Z-0.125000
G01 X23.568824 Y206.453448 Z-0.125000
G01 X24.366542 Y206.467074 Z-0.125000
G01 X25.042419 Y206.181827 Z-0.125000
G01 X25.807911 Y205.571408 Z-0.125000
G01 X28.056099 Y202.969472 Z-0.125000
G01 X29.031114 Y202.014407 Z-0.125000
G01 X29.851003 Y201.491326 Z-0.125000
G01 X30.748442 Y201.274738 Z-0.125000
G01 X31.645908 Y201.427879 Z-0.125000
G01 X32.665240 Y201.980566 Z-0.125000
G01 X33.720027 Y202.840144 Z-0.125000
G01 X36.512119 Y205.420648 Z-0.125000
G01 X37.451653 Y206.124465 Z-0.125000
G01 X38.426668 Y206.704855 Z-0.125000
G01 X39.523576 Y207.177850 Z-0.125000
G01 X40.620458 Y207.486301 Z-0.125000
G01 X41.916782 Y207.692225 Z-0.125000
G01 X43.441018 Y207.786258 Z-0.125000
G01 X45.264418 Y207.751307 Z-0.125000
G01 X46.703194 Y207.588377 Z-0.125000
G01 X47.899824 Y207.306516 Z-0.125000
G01 X49.096427 Y206.827224 Z-0.125000
G01 X50.126819 Y206.216858 Z-0.125000
G01 X51.110697 Y205.450334 Z-0.125000
G01 X53.902789 Y202.687612 Z-0.125000
G01 X54.735987 Y201.964083 Z-0.125000
G01 X55.578049 Y201.457248 Z-0.125000
G01 X56.375767 Y201.274791 Z-0.125000
G01 X57.073789 Y201.398113 Z-0.125000
G01 X57.891483 Y201.890106 Z-0.125000
G01 X58.702510 Y202.702799 Z-0.125000
G01 X60.497414 Y205.016101 Z-0.125000
G01 X61.125931 Y205.713674 Z-0.125000
G01 X61.860228 Y206.285120 Z-0.125000
G01 X62.558251 Y206.506047 Z-0.125000
G01 X63.156553 Y206.420534 Z-0.125000
G01 X63.777000 Y206.075332 Z-0.125000
G01 X64.389404 Y205.536192 Z-0.125000
G01 X65.984892 Y203.760258 Z-0.125000
G01 X66.613409 Y203.172301 Z-0.125000
G01 X67.344663 Y202.719203 Z-0.125000
G01 X68.042686 Y202.575323 Z-0.125000
G01 X68.640988 Y202.682399 Z-0.125000
G01 X69.272547 Y202.988072 Z-0.125000
G01 X71.222551 Y204.489607 Z-0.125000
G01 X72.031381 Y205.012820 Z-0.125000
G01 X72.729404 Y205.294998 Z-0.125000
G01 X73.427427 Y205.394851 Z-0.125000
G01 X74.025728 Y205.344184 Z-0.125000
G01 X74.723751 Y205.156938 Z-0.125000
G01 X77.116957 Y204.098500 Z-0.125000
G01 X78.014423 Y203.780630 Z-0.125000
G01 X79.011583 Y203.567773 Z-0.125000
G01 X80.023005 Y203.502289 Z-0.125000
G01 X81.504511 Y203.612461 Z-0.125000
G01 X84.795182 Y204.131467 Z-0.125000
G01 X86.789530 Y204.360120 Z-0.125000
G01 X89.140006 Y204.499053 Z-0.125000
G01 X91.875106 Y204.544032 Z-0.125000
G01 X96.960682 Y204.381710 Z-0.125000
G01 X99.154472 Y204.169832 Z-0.125000
G01 X103.641747 Y203.581664 Z-0.125000
G01 X105.892502 Y203.522053 Z-0.125000
G01 X107.032113 Y203.644291 Z-0.125000
G01 X108.228717 Y203.897761 Z-0.125000
G01 X112.416854 Y205.214829 Z-0.125000
G01 X113.314293 Y205.364239 Z-0.125000
G01 X114.211758 Y205.388978 Z-0.125000
G01 X115.208919 Y205.250415 Z-0.125000
G01 X116.305827 Y204.901192 Z-0.125000
G01 X119.397056 Y203.348037 Z-0.125000
G01 X120.394216 Y202.924175 Z-0.125000
G01 X121.291682 Y202.673668 Z-0.125000
G01 X122.189147 Y202.576302 Z-0.125000
G01 X123.286029 Y202.675891 Z-0.125000
G01 X124.582354 Y203.070199 Z-0.125000
G01 X128.670743 Y205.131935 Z-0.125000
G01 X130.465674 Y205.848717 Z-0.125000
G01 X132.260579 Y206.282501 Z-0.125000
G01 X134.269161 Y206.483452 Z-0.125000
G01 X144.981650 Y206.506153 Z-0.125000
G01 X146.691068 Y206.432546 Z-0.125000
G01 X148.115609 Y206.269457 Z-0.125000
G01 X149.611376 Y205.968203 Z-0.125000
G01 X151.206838 Y205.489016 Z-0.125000
G01 X155.694113 Y203.624526 Z-0.125000
G01 X157.189880 Y203.081152 Z-0.125000
G01 X158.486204 Y202.751350 Z-0.125000
G01 X159.796763 Y202.588763 Z-0.125000
G01 X161.278269 Y202.626281 Z-0.125000
G01 X162.873758 Y202.902718 Z-0.125000
G01 X168.457914 Y204.626211 Z-0.125000
G00 Z3.000000

(End cutting path id: polyline30541)


(Start cutting path id: polyline30543)
(Change tool to Default tool)

G00 Z3.000000
G00 X12.101347 Y203.973326

G00 Z4.875000 (Fast pre-penetrate)
G01 Z-0.125000 F400.0(Penetrate)
G01 X12.998786 Y204.067809 Z-0.125000 F800.000000
G01 X13.896252 Y203.855058 Z-0.125000
G01 X14.760459 Y203.372035 Z-0.125000
G01 X17.087202 Y201.623221 Z-0.125000
G01 X17.785225 Y201.323580 Z-0.125000
G01 X18.483248 Y201.262012 Z-0.125000
G01 X19.181244 Y201.467699 Z-0.125000
G01 X19.901439 Y201.939847 Z-0.125000
G01 X22.181827 Y204.237115 Z-0.125000
G01 X22.915119 Y204.817478 Z-0.125000
G01 X23.668519 Y205.144529 Z-0.125000
G01 X24.366542 Y205.154107 Z-0.125000
G01 X25.042419 Y204.889524 Z-0.125000
G01 X25.807911 Y204.301938 Z-0.125000
G01 X28.201143 Y201.569484 Z-0.125000
G01 X29.119749 Y200.686121 Z-0.125000
G01 X30.050420 Y200.122003 Z-0.125000
G01 X30.947885 Y199.951638 Z-0.125000
G01 X31.845351 Y200.139201 Z-0.125000
G01 X32.842511 Y200.694667 Z-0.125000
G01 X33.799799 Y201.464868 Z-0.125000
G01 X36.591890 Y204.002721 Z-0.125000
G01 X37.540315 Y204.708655 Z-0.125000
G01 X38.526389 Y205.295051 Z-0.125000
G01 X39.623297 Y205.771326 Z-0.125000
G01 X40.720179 Y206.086418 Z-0.125000
G01 X42.016503 Y206.299646 Z-0.125000
G01 X43.441018 Y206.393970 Z-0.125000
G01 X45.150462 Y206.362537 Z-0.125000
G01 X46.603499 Y206.193257 Z-0.125000
G01 X47.800102 Y205.905549 Z-0.125000
G01 X48.974533 Y205.434671 Z-0.125000
G01 X49.949548 Y204.869098 Z-0.125000
G01 X50.951154 Y204.110592 Z-0.125000
G01 X53.823017 Y201.331677 Z-0.125000
G01 X54.647352 Y200.631696 Z-0.125000
G01 X55.478328 Y200.138857 Z-0.125000
G01 X56.276045 Y199.952564 Z-0.125000
G01 X57.073789 Y200.103456 Z-0.125000
G01 X57.891483 Y200.619816 Z-0.125000
G01 X58.702510 Y201.444442 Z-0.125000
G01 X60.430951 Y203.659213 Z-0.125000
G01 X61.082434 Y204.381181 Z-0.125000
G01 X61.860228 Y204.977551 Z-0.125000
G01 X62.558251 Y205.184534 Z-0.125000
G01 X63.156553 Y205.091216 Z-0.125000
G01 X63.777000 Y204.742892 Z-0.125000
G01 X64.389404 Y204.204942 Z-0.125000
G01 X65.984892 Y202.441444 Z-0.125000
G01 X66.613409 Y201.856424 Z-0.125000
G01 X67.344663 Y201.402320 Z-0.125000
G01 X68.042686 Y201.252434 Z-0.125000
G01 X68.640988 Y201.351150 Z-0.125000
G01 X69.272547 Y201.646769 Z-0.125000
G01 X71.399848 Y203.260301 Z-0.125000
G01 X72.131102 Y203.712051 Z-0.125000
G01 X72.829125 Y203.981608 Z-0.125000
G01 X73.527148 Y204.072942 Z-0.125000
G01 X74.125449 Y204.017035 Z-0.125000
G01 X74.823472 Y203.828255 Z-0.125000
G01 X77.216678 Y202.782597 Z-0.125000
G01 X78.114118 Y202.467029 Z-0.125000
G01 X79.111304 Y202.251764 Z-0.125000
G01 X80.136960 Y202.179506 Z-0.125000
G01 X81.604232 Y202.275444 Z-0.125000
G01 X86.988972 Y203.010085 Z-0.125000
G01 X89.253961 Y203.144150 Z-0.125000
G01 X91.875106 Y203.189446 Z-0.125000
G01 X96.661518 Y203.038713 Z-0.125000
G01 X103.442304 Y202.259331 Z-0.125000
G01 X105.778519 Y202.200091 Z-0.125000
G01 X106.932392 Y202.321429 Z-0.125000
G01 X108.128995 Y202.567041 Z-0.125000
G01 X112.416854 Y203.884294 Z-0.125000
G01 X113.414014 Y204.045213 Z-0.125000
G01 X114.311480 Y204.065004 Z-0.125000
G01 X115.308640 Y203.929432 Z-0.125000
G01 X116.405548 Y203.594681 Z-0.125000
G01 X119.596499 Y202.050893 Z-0.125000
G01 X120.693380 Y201.602742 Z-0.125000
G01 X121.690541 Y201.341837 Z-0.125000
G01 X122.644998 Y201.252937 Z-0.125000
G01 X123.784609 Y201.357897 Z-0.125000
G01 X124.981212 Y201.684472 Z-0.125000
G01 X129.368766 Y203.642677 Z-0.125000
G01 X131.363113 Y204.350727 Z-0.125000
G01 X133.457182 Y204.807980 Z-0.125000
G01 X135.978605 Y205.055391 Z-0.125000
G01 X138.713705 Y205.125612 Z-0.125000
G01 X141.790700 Y205.083993 Z-0.125000
G01 X143.927498 Y204.949611 Z-0.125000
G01 X145.822124 Y204.698046 Z-0.125000
G01 X147.317865 Y204.380255 Z-0.125000
G01 X148.913353 Y203.915859 Z-0.125000
G01 X154.796674 Y201.745537 Z-0.125000
G01 X156.292414 Y201.398537 Z-0.125000
G01 X157.631469 Y201.259842 Z-0.125000
G01 X159.084506 Y201.308235 Z-0.125000
G01 X160.679968 Y201.578903 Z-0.125000
G01 X166.064708 Y203.213497 Z-0.125000
G01 X168.457914 Y203.755918 Z-0.125000
G00 Z3.000000

(End cutting path id: polyline30543)


(Start cutting path id: polyline30545)
(Change tool to Default tool)

G00 Z3.000000
G00 X12.101347 Y202.655835

G00 Z4.875000 (Fast pre-penetrate)
G01 Z-0.125000 F400.0(Penetrate)
G01 X12.998786 Y202.743941 Z-0.125000 F800.000000
G01 X13.896252 Y202.528227 Z-0.125000
G01 X14.760459 Y202.046448 Z-0.125000
G01 X17.087202 Y200.306629 Z-0.125000
G01 X17.785225 Y200.004899 Z-0.125000
G01 X18.483248 Y199.937139 Z-0.125000
G01 X19.181244 Y200.132930 Z-0.125000
G01 X19.901439 Y200.592802 Z-0.125000
G01 X22.181827 Y202.870968 Z-0.125000
G01 X22.915119 Y203.461146 Z-0.125000
G01 X23.668519 Y203.807856 Z-0.125000
G01 X24.466263 Y203.823440 Z-0.125000
G01 X25.131054 Y203.554994 Z-0.125000
G01 X25.880433 Y202.982648 Z-0.125000
G01 X28.418683 Y200.121448 Z-0.125000
G01 X29.332474 Y199.284492 Z-0.125000
G01 X30.349584 Y198.736620 Z-0.125000
G01 X31.247049 Y198.636079 Z-0.125000
G01 X32.133402 Y198.869943 Z-0.125000
G01 X33.019782 Y199.375112 Z-0.125000
G01 X36.919841 Y202.711794 Z-0.125000
G01 X38.072126 Y203.505808 Z-0.125000
G01 X39.124690 Y204.058046 Z-0.125000
G01 X40.421015 Y204.524056 Z-0.125000
G01 X41.916782 Y204.824992 Z-0.125000
G01 X43.555000 Y204.946674 Z-0.125000
G01 X45.307175 Y204.889630 Z-0.125000
G01 X46.404057 Y204.742601 Z-0.125000
G01 X47.401217 Y204.507599 Z-0.125000
G01 X48.398404 Y204.147395 Z-0.125000
G01 X49.240466 Y203.724856 Z-0.125000
G01 X50.951154 Y202.498885 Z-0.125000
G01 X53.511179 Y200.070013 Z-0.125000
G01 X54.381419 Y199.339181 Z-0.125000
G01 X55.278885 Y198.813481 Z-0.125000
G01 X56.176350 Y198.628908 Z-0.125000
G01 X56.951923 Y198.802792 Z-0.125000
G01 X57.731940 Y199.299362 Z-0.125000
G01 X58.569557 Y200.142905 Z-0.125000
G01 X60.364461 Y202.413265 Z-0.125000
G01 X61.002662 Y203.100467 Z-0.125000
G01 X61.760507 Y203.663420 Z-0.125000
G01 X62.458530 Y203.862916 Z-0.125000
G01 X63.056831 Y203.765681 Z-0.125000
G01 X63.599729 Y203.477445 Z-0.125000
G01 X64.244359 Y202.937378 Z-0.125000
G01 X65.912370 Y201.114798 Z-0.125000
G01 X66.524774 Y200.546791 Z-0.125000
G01 X67.244942 Y200.093058 Z-0.125000
G01 X67.942965 Y199.930366 Z-0.125000
G01 X68.541267 Y200.014926 Z-0.125000
G01 X69.183886 Y200.299697 Z-0.125000
G01 X71.311186 Y201.895503 Z-0.125000
G01 X72.031381 Y202.350295 Z-0.125000
G01 X72.729404 Y202.636441 Z-0.125000
G01 X73.427427 Y202.747487 Z-0.125000
G01 X74.025728 Y202.710419 Z-0.125000
G01 X74.723751 Y202.540742 Z-0.125000
G01 X77.216678 Y201.472832 Z-0.125000
G01 X78.213839 Y201.128583 Z-0.125000
G01 X79.211026 Y200.923425 Z-0.125000
G01 X80.250916 Y200.856671 Z-0.125000
G01 X81.703953 Y200.951391 Z-0.125000
G01 X87.088667 Y201.665951 Z-0.125000
G01 X91.875106 Y201.841555 Z-0.125000
G01 X96.547562 Y201.691695 Z-0.125000
G01 X103.342583 Y200.932606 Z-0.125000
G01 X105.664563 Y200.875668 Z-0.125000
G01 X106.932392 Y201.007562 Z-0.125000
G01 X108.128995 Y201.251905 Z-0.125000
G01 X112.516575 Y202.568311 Z-0.125000
G01 X113.527970 Y202.723939 Z-0.125000
G01 X114.510922 Y202.737274 Z-0.125000
G01 X115.508083 Y202.594478 Z-0.125000
G01 X116.604964 Y202.264755 Z-0.125000
G01 X119.895636 Y200.731549 Z-0.125000
G01 X121.092239 Y200.267392 Z-0.125000
G01 X122.189147 Y200.005798 Z-0.125000
G01 X123.214803 Y199.929810 Z-0.125000
G01 X124.382911 Y200.039612 Z-0.125000
G01 X125.579514 Y200.333299 Z-0.125000
G01 X130.066789 Y202.059756 Z-0.125000
G01 X132.061136 Y202.678404 Z-0.125000
G01 X134.155205 Y203.101684 Z-0.125000
G01 X136.434455 Y203.334914 Z-0.125000
G01 X138.257855 Y203.391641 Z-0.125000
G01 X140.195211 Y203.345312 Z-0.125000
G01 X142.032872 Y203.194314 Z-0.125000
G01 X143.728056 Y202.945580 Z-0.125000
G01 X146.619842 Y202.246340 Z-0.125000
G01 X152.303720 Y200.382406 Z-0.125000
G01 X153.899208 Y200.051730 Z-0.125000
G01 X155.352219 Y199.931371 Z-0.125000
G01 X156.691300 Y199.989130 Z-0.125000
G01 X158.087319 Y200.211221 Z-0.125000
G01 X159.682808 Y200.621827 Z-0.125000
G01 X164.668662 Y202.132543 Z-0.125000
G01 X166.563288 Y202.503065 Z-0.125000
G01 X168.457914 Y202.699862 Z-0.125000
G00 Z3.000000

(End cutting path id: polyline30545)


(Start cutting path id: polyline30547)
(Change tool to Default tool)

G00 Z3.000000
G00 X12.101347 Y201.339535

G00 Z4.875000 (Fast pre-penetrate)
G01 Z-0.125000 F400.0(Penetrate)
G01 X12.998786 Y201.419703 Z-0.125000 F800.000000
G01 X13.896252 Y201.200364 Z-0.125000
G01 X14.760459 Y200.720172 Z-0.125000
G01 X17.087202 Y198.991705 Z-0.125000
G01 X17.785225 Y198.687487 Z-0.125000
G01 X18.483248 Y198.612107 Z-0.125000
G01 X19.280965 Y198.841369 Z-0.125000
G01 X19.990074 Y199.309469 Z-0.125000
G01 X22.254349 Y201.561546 Z-0.125000
G01 X23.003754 Y202.153815 Z-0.125000
G01 X23.768240 Y202.491952 Z-0.125000
G01 X24.565984 Y202.496583 Z-0.125000
G01 X25.219690 Y202.231709 Z-0.125000
G01 X25.981980 Y201.655500 Z-0.125000
G01 X28.491206 Y198.859598 Z-0.125000
G01 X29.412245 Y198.010684 Z-0.125000
G01 X30.349584 Y197.469691 Z-0.125000
G01 X30.848164 Y197.335627 Z-0.125000
G01 X31.346744 Y197.307396 Z-0.125000
G01 X32.144488 Y197.473130 Z-0.125000
G01 X33.108417 Y197.963191 Z-0.125000
G01 X34.039114 Y198.648540 Z-0.125000
G01 X37.185747 Y201.288364 Z-0.125000
G01 X38.249397 Y201.994986 Z-0.125000
G01 X39.324133 Y202.547859 Z-0.125000
G01 X40.620458 Y203.008498 Z-0.125000
G01 X42.016503 Y203.294274 Z-0.125000
G01 X43.555000 Y203.412887 Z-0.125000
G01 X45.107732 Y203.354731 Z-0.125000
G01 X47.102080 Y202.975055 Z-0.125000
G01 X47.999519 Y202.653824 Z-0.125000
G01 X48.885898 Y202.222025 Z-0.125000
G01 X50.552295 Y201.076592 Z-0.125000
G01 X53.264588 Y198.622955 Z-0.125000
G01 X54.115513 Y197.951285 Z-0.125000
G01 X55.079442 Y197.439423 Z-0.125000
G01 X55.877186 Y197.304776 Z-0.125000
G01 X56.674931 Y197.485222 Z-0.125000
G01 X57.483734 Y197.998883 Z-0.125000
G01 X58.436604 Y198.964770 Z-0.125000
G01 X60.690824 Y201.694446 Z-0.125000
G01 X61.472429 Y202.302008 Z-0.125000
G01 X62.259087 Y202.540054 Z-0.125000
G01 X62.957110 Y202.405116 Z-0.125000
G01 X63.599729 Y202.017502 Z-0.125000
G01 X64.244359 Y201.434203 Z-0.125000
G01 X65.912370 Y199.627974 Z-0.125000
G01 X66.613409 Y199.040414 Z-0.125000
G01 X67.244942 Y198.711300 Z-0.125000
G01 X67.843244 Y198.607557 Z-0.125000
G01 X68.441545 Y198.703918 Z-0.125000
G01 X69.095250 Y199.001547 Z-0.125000
G01 X71.133915 Y200.529752 Z-0.125000
G01 X71.931660 Y201.032910 Z-0.125000
G01 X72.629682 Y201.314108 Z-0.125000
G01 X73.327705 Y201.424043 Z-0.125000
G01 X73.926007 Y201.389435 Z-0.125000
G01 X74.624030 Y201.223568 Z-0.125000
G01 X77.216678 Y200.126369 Z-0.125000
G01 X78.213839 Y199.792571 Z-0.125000
G01 X79.211026 Y199.595800 Z-0.125000
G01 X80.250916 Y199.533782 Z-0.125000
G01 X81.703953 Y199.628529 Z-0.125000
G01 X86.988972 Y200.321155 Z-0.125000
G01 X91.761150 Y200.502950 Z-0.125000
G01 X96.433606 Y200.355445 Z-0.125000
G01 X103.242862 Y199.611014 Z-0.125000
G01 X105.664563 Y199.554737 Z-0.125000
G01 X106.932392 Y199.686500 Z-0.125000
G01 X108.128995 Y199.926106 Z-0.125000
G01 X112.616270 Y201.243914 Z-0.125000
G01 X113.641952 Y201.399569 Z-0.125000
G01 X114.667608 Y201.414385 Z-0.125000
G01 X115.707525 Y201.268812 Z-0.125000
G01 X116.804407 Y200.950280 Z-0.125000
G01 X120.194800 Y199.436230 Z-0.125000
G01 X121.391403 Y198.985725 Z-0.125000
G01 X122.588006 Y198.699817 Z-0.125000
G01 X123.784609 Y198.606763 Z-0.125000
G01 X124.981212 Y198.699949 Z-0.125000
G01 X126.277537 Y198.969506 Z-0.125000
G01 X130.565369 Y200.326023 Z-0.125000
G01 X132.459995 Y200.821587 Z-0.125000
G01 X134.155205 Y201.130541 Z-0.125000
G01 X135.978605 Y201.319426 Z-0.125000
G01 X138.827661 Y201.341175 Z-0.125000
G01 X141.633987 Y201.052118 Z-0.125000
G01 X144.326357 Y200.491467 Z-0.125000
G01 X149.910514 Y198.956885 Z-0.125000
G01 X151.506002 Y198.688704 Z-0.125000
G01 X152.959013 Y198.606842 Z-0.125000
G01 X154.397789 Y198.697568 Z-0.125000
G01 X155.993277 Y198.986043 Z-0.125000
G01 X161.278269 Y200.581584 Z-0.125000
G01 X163.472059 Y201.092996 Z-0.125000
G01 X165.836770 Y201.377979 Z-0.125000
G01 X168.457914 Y201.412507 Z-0.125000
G00 Z3.000000

(End cutting path id: polyline30547)


(Start cutting path id: polyline30549)
(Change tool to Default tool)

G00 Z3.000000
G00 X12.101347 Y200.024266

G00 Z4.875000 (Fast pre-penetrate)
G01 Z-0.125000 F400.0(Penetrate)
G01 X12.998786 Y200.095042 Z-0.125000 F800.000000
G01 X13.896252 Y199.871443 Z-0.125000
G01 X14.760459 Y199.393209 Z-0.125000
G01 X17.186923 Y197.622779 Z-0.125000
G01 X17.884920 Y197.345416 Z-0.125000
G01 X18.582943 Y197.295913 Z-0.125000
G01 X19.280965 Y197.499509 Z-0.125000
G01 X20.078710 Y198.018489 Z-0.125000
G01 X22.254349 Y200.172036 Z-0.125000
G01 X23.092389 Y200.836430 Z-0.125000
G01 X23.867962 Y201.171869 Z-0.125000
G01 X24.665706 Y201.174250 Z-0.125000
G01 X25.308325 Y200.920012 Z-0.125000
G01 X26.061751 Y200.367907 Z-0.125000
G01 X28.636250 Y197.551844 Z-0.125000
G01 X29.571789 Y196.701818 Z-0.125000
G01 X30.549026 Y196.146882 Z-0.125000
G01 X31.446465 Y195.981623 Z-0.125000
G01 X32.343931 Y196.134288 Z-0.125000
G01 X33.374349 Y196.632100 Z-0.125000
G01 X34.437999 Y197.386268 Z-0.125000
G01 X37.274382 Y199.648823 Z-0.125000
G01 X39.124690 Y200.760151 Z-0.125000
G01 X40.121877 Y201.175202 Z-0.125000
G01 X41.119038 Y201.469154 Z-0.125000
G01 X42.215919 Y201.669443 Z-0.125000
G01 X43.327062 Y201.757973 Z-0.125000
G01 X44.580656 Y201.729768 Z-0.125000
G01 X45.805755 Y201.564192 Z-0.125000
G01 X46.902637 Y201.281353 Z-0.125000
G01 X47.999519 Y200.846167 Z-0.125000
G01 X48.974533 Y200.315546 Z-0.125000
G01 X49.914094 Y199.673905 Z-0.125000
G01 X53.583702 Y196.649140 Z-0.125000
G01 X54.481141 Y196.167228 Z-0.125000
G01 X55.378606 Y195.982814 Z-0.125000
G01 X56.176350 Y196.128149 Z-0.125000
G01 X57.013967 Y196.612707 Z-0.125000
G01 X57.934981 Y197.493371 Z-0.125000
G01 X59.766160 Y199.730685 Z-0.125000
G01 X60.473258 Y200.471253 Z-0.125000
G01 X61.295158 Y201.046536 Z-0.125000
G01 X61.959950 Y201.215683 Z-0.125000
G01 X62.558251 Y201.125461 Z-0.125000
G01 X63.236324 Y200.758854 Z-0.125000
G01 X64.026793 Y200.054826 Z-0.125000
G01 X65.404714 Y198.554402 Z-0.125000
G01 X66.108188 Y197.904983 Z-0.125000
G01 X66.846083 Y197.450006 Z-0.125000
G01 X67.544106 Y197.286970 Z-0.125000
G01 X68.142408 Y197.357666 Z-0.125000
G01 X68.829344 Y197.652015 Z-0.125000
G01 X70.956645 Y199.227448 Z-0.125000
G01 X71.754389 Y199.720710 Z-0.125000
G01 X72.430240 Y199.988336 Z-0.125000
G01 X73.128263 Y200.100784 Z-0.125000
G01 X73.726564 Y200.070251 Z-0.125000
G01 X74.524308 Y199.876470 Z-0.125000
G01 X77.017236 Y198.821313 Z-0.125000
G01 X78.014423 Y198.483890 Z-0.125000
G01 X79.011583 Y198.280929 Z-0.125000
G01 X80.136960 Y198.210735 Z-0.125000
G01 X81.604232 Y198.307810 Z-0.125000
G01 X86.889251 Y198.993848 Z-0.125000
G01 X91.647168 Y199.175325 Z-0.125000
G01 X96.319650 Y199.030783 Z-0.125000
G01 X103.242862 Y198.286220 Z-0.125000
G01 X105.664563 Y198.231028 Z-0.125000
G01 X106.932392 Y198.358214 Z-0.125000
G01 X108.128995 Y198.589803 Z-0.125000
G01 X112.815713 Y199.931900 Z-0.125000
G01 X113.812899 Y200.076971 Z-0.125000
G01 X114.781564 Y200.096074 Z-0.125000
G01 X115.906942 Y199.952379 Z-0.125000
G01 X117.003850 Y199.650358 Z-0.125000
G01 X120.593659 Y198.125751 Z-0.125000
G01 X121.889983 Y197.665932 Z-0.125000
G01 X123.186308 Y197.377854 Z-0.125000
G01 X124.468398 Y197.283980 Z-0.125000
G01 X125.579514 Y197.344437 Z-0.125000
G01 X126.776117 Y197.526470 Z-0.125000
G01 X131.063976 Y198.546729 Z-0.125000
G01 X133.058323 Y198.930612 Z-0.125000
G01 X134.952949 Y199.151936 Z-0.125000
G01 X136.776349 Y199.221548 Z-0.125000
G01 X138.827661 Y199.134024 Z-0.125000
G01 X140.836243 Y198.889205 Z-0.125000
G01 X148.115609 Y197.428019 Z-0.125000
G01 X149.540151 Y197.298109 Z-0.125000
G01 X150.907701 Y197.304459 Z-0.125000
G01 X152.204025 Y197.440163 Z-0.125000
G01 X153.600044 Y197.718161 Z-0.125000
G01 X158.885063 Y199.322328 Z-0.125000
G01 X161.477712 Y199.885281 Z-0.125000
G01 X162.987714 Y200.050936 Z-0.125000
G01 X164.583202 Y200.104355 Z-0.125000
G01 X168.457914 Y199.899330 Z-0.125000
G00 Z3.000000

(End cutting path id: polyline30549)


(Start cutting path id: polyline30551)
(Change tool to Default tool)

G00 Z3.000000
G00 X12.101347 Y198.709818

G00 Z4.875000 (Fast pre-penetrate)
G01 Z-0.125000 F400.0(Penetrate)
G01 X12.998786 Y198.769799 Z-0.125000 F800.000000
G01 X13.896252 Y198.541464 Z-0.125000
G01 X14.760459 Y198.065585 Z-0.125000
G01 X17.186923 Y196.311188 Z-0.125000
G01 X17.884920 Y196.029751 Z-0.125000
G01 X18.582943 Y195.969241 Z-0.125000
G01 X19.280965 Y196.155586 Z-0.125000
G01 X20.078710 Y196.650859 Z-0.125000
G01 X22.326871 Y198.838008 Z-0.125000
G01 X23.181025 Y199.508726 Z-0.125000
G01 X23.967683 Y199.847578 Z-0.125000
G01 X24.765427 Y199.856203 Z-0.125000
G01 X25.463450 Y199.582889 Z-0.125000
G01 X26.221295 Y199.029143 Z-0.125000
G01 X28.781294 Y196.278274 Z-0.125000
G01 X29.740196 Y195.415627 Z-0.125000
G01 X30.748442 Y194.840530 Z-0.125000
G01 X31.745629 Y194.659634 Z-0.125000
G01 X32.643068 Y194.809812 Z-0.125000
G01 X33.728891 Y195.306963 Z-0.125000
G01 X37.451653 Y197.983220 Z-0.125000
G01 X39.324133 Y199.048140 Z-0.125000
G01 X40.221599 Y199.409878 Z-0.125000
G01 X41.218759 Y199.699940 Z-0.125000
G01 X42.215919 Y199.880280 Z-0.125000
G01 X43.213106 Y199.958755 Z-0.125000
G01 X44.309988 Y199.931450 Z-0.125000
G01 X45.406870 Y199.781379 Z-0.125000
G01 X46.503778 Y199.496211 Z-0.125000
G01 X47.500938 Y199.107036 Z-0.125000
G01 X49.329101 Y198.051377 Z-0.125000
G01 X53.051863 Y195.241452 Z-0.125000
G01 X53.982560 Y194.800392 Z-0.125000
G01 X54.780305 Y194.659714 Z-0.125000
G01 X55.677744 Y194.825104 Z-0.125000
G01 X56.508720 Y195.303735 Z-0.125000
G01 X57.572370 Y196.314548 Z-0.125000
G01 X59.965602 Y199.080102 Z-0.125000
G01 X60.763320 Y199.667608 Z-0.125000
G01 X61.561064 Y199.894912 Z-0.125000
G01 X62.159366 Y199.801964 Z-0.125000
G01 X62.801985 Y199.467822 Z-0.125000
G01 X63.446641 Y198.934925 Z-0.125000
G01 X65.727029 Y196.613368 Z-0.125000
G01 X66.447224 Y196.154078 Z-0.125000
G01 X67.244942 Y195.961250 Z-0.125000
G01 X67.942965 Y196.072693 Z-0.125000
G01 X68.541267 Y196.348917 Z-0.125000
G01 X70.779374 Y197.986554 Z-0.125000
G01 X71.532801 Y198.430709 Z-0.125000
G01 X72.230824 Y198.688334 Z-0.125000
G01 X72.928820 Y198.781097 Z-0.125000
G01 X73.626843 Y198.717967 Z-0.125000
G01 X74.324866 Y198.528340 Z-0.125000
G01 X76.718098 Y197.514114 Z-0.125000
G01 X77.814980 Y197.146767 Z-0.125000
G01 X78.812140 Y196.951717 Z-0.125000
G01 X79.909049 Y196.888085 Z-0.125000
G01 X81.404789 Y196.990214 Z-0.125000
G01 X86.689808 Y197.676198 Z-0.125000
G01 X91.533212 Y197.859131 Z-0.125000
G01 X96.205668 Y197.717949 Z-0.125000
G01 X103.242862 Y196.966851 Z-0.125000
G01 X105.778519 Y196.910495 Z-0.125000
G01 X107.032113 Y197.037442 Z-0.125000
G01 X108.228717 Y197.266571 Z-0.125000
G01 X113.015155 Y198.611896 Z-0.125000
G01 X114.112037 Y198.761173 Z-0.125000
G01 X115.109224 Y198.768449 Z-0.125000
G01 X116.206106 Y198.624093 Z-0.125000
G01 X117.402709 Y198.300032 Z-0.125000
G01 X121.092239 Y196.806487 Z-0.125000
G01 X122.488285 Y196.346404 Z-0.125000
G01 X123.884331 Y196.060363 Z-0.125000
G01 X125.380098 Y195.960880 Z-0.125000
G01 X127.474140 Y196.110634 Z-0.125000
G01 X132.958602 Y196.941028 Z-0.125000
G01 X135.864649 Y197.104381 Z-0.125000
G01 X139.240781 Y196.911553 Z-0.125000
G01 X145.423239 Y196.052320 Z-0.125000
G01 X148.058618 Y195.981703 Z-0.125000
G01 X149.411934 Y196.112486 Z-0.125000
G01 X150.907701 Y196.395510 Z-0.125000
G01 X156.691300 Y198.126492 Z-0.125000
G01 X158.187040 Y198.467116 Z-0.125000
G01 X159.583086 Y198.674152 Z-0.125000
G01 X161.164314 Y198.775884 Z-0.125000
G01 X162.987714 Y198.744161 Z-0.125000
G01 X168.457914 Y198.216159 Z-0.125000
G00 Z3.000000

(End cutting path id: polyline30551)


(Start cutting path id: polyline30553)
(Change tool to Default tool)

G00 Z3.000000
G00 X12.101347 Y197.395978

G00 Z4.875000 (Fast pre-penetrate)
G01 Z-0.125000 F400.0(Penetrate)
G01 X12.998786 Y197.443894 Z-0.125000 F800.000000
G01 X13.896252 Y197.210400 Z-0.125000
G01 X14.760459 Y196.737299 Z-0.125000
G01 X17.186923 Y195.001317 Z-0.125000
G01 X17.884920 Y194.715567 Z-0.125000
G01 X18.582943 Y194.642939 Z-0.125000
G01 X19.369601 Y194.847832 Z-0.125000
G01 X20.158481 Y195.338422 Z-0.125000
G01 X22.399394 Y197.490646 Z-0.125000
G01 X23.269660 Y198.170121 Z-0.125000
G01 X24.067404 Y198.518419 Z-0.125000
G01 X24.865148 Y198.541649 Z-0.125000
G01 X25.662866 Y198.235394 Z-0.125000
G01 X26.460610 Y197.645850 Z-0.125000
G01 X28.933588 Y195.034681 Z-0.125000
G01 X30.006102 Y194.087288 Z-0.125000
G01 X31.047606 Y193.515498 Z-0.125000
G01 X32.044767 Y193.335873 Z-0.125000
G01 X32.942232 Y193.461470 Z-0.125000
G01 X34.039114 Y193.909065 Z-0.125000
G01 X37.717585 Y196.276766 Z-0.125000
G01 X39.523576 Y197.212463 Z-0.125000
G01 X41.318480 Y197.782666 Z-0.125000
G01 X43.213106 Y197.991872 Z-0.125000
G01 X45.008011 Y197.826058 Z-0.125000
G01 X46.802916 Y197.285012 Z-0.125000
G01 X48.619992 Y196.338678 Z-0.125000
G01 X51.545037 Y194.316153 Z-0.125000
G01 X52.486793 Y193.764285 Z-0.125000
G01 X53.483980 Y193.400219 Z-0.125000
G01 X54.481141 Y193.368945 Z-0.125000
G01 X55.356434 Y193.670835 Z-0.125000
G01 X56.295995 Y194.343669 Z-0.125000
G01 X57.064741 Y195.116252 Z-0.125000
G01 X58.950292 Y197.302713 Z-0.125000
G01 X59.726287 Y198.020156 Z-0.125000
G01 X60.464183 Y198.448965 Z-0.125000
G01 X61.062484 Y198.571044 Z-0.125000
G01 X61.760507 Y198.443118 Z-0.125000
G01 X62.518352 Y197.997005 Z-0.125000
G01 X63.229075 Y197.356635 Z-0.125000
G01 X64.679492 Y195.824752 Z-0.125000
G01 X65.549759 Y195.090349 Z-0.125000
G01 X66.247782 Y194.737607 Z-0.125000
G01 X66.846083 Y194.639738 Z-0.125000
G01 X67.444385 Y194.725727 Z-0.125000
G01 X68.120236 Y195.018038 Z-0.125000
G01 X70.247536 Y196.569527 Z-0.125000
G01 X71.045280 Y197.060116 Z-0.125000
G01 X71.831938 Y197.362244 Z-0.125000
G01 X72.529961 Y197.456779 Z-0.125000
G01 X73.128263 Y197.415266 Z-0.125000
G01 X73.926007 Y197.214686 Z-0.125000
G01 X76.418934 Y196.166355 Z-0.125000
G01 X77.416095 Y195.833642 Z-0.125000
G01 X78.413282 Y195.633432 Z-0.125000
G01 X79.453199 Y195.565117 Z-0.125000
G01 X81.005930 Y195.663171 Z-0.125000
G01 X86.490366 Y196.376619 Z-0.125000
G01 X91.419256 Y196.553969 Z-0.125000
G01 X96.205668 Y196.409110 Z-0.125000
G01 X103.342583 Y195.644544 Z-0.125000
G01 X105.892502 Y195.587103 Z-0.125000
G01 X107.131835 Y195.709605 Z-0.125000
G01 X108.428159 Y195.956012 Z-0.125000
G01 X113.214598 Y197.284059 Z-0.125000
G01 X114.325714 Y197.435031 Z-0.125000
G01 X115.351370 Y197.447730 Z-0.125000
G01 X116.405548 Y197.324329 Z-0.125000
G01 X117.602151 Y197.031277 Z-0.125000
G01 X121.491125 Y195.557232 Z-0.125000
G01 X123.086587 Y195.058890 Z-0.125000
G01 X124.682075 Y194.752503 Z-0.125000
G01 X126.405754 Y194.638679 Z-0.125000
G01 X128.229154 Y194.700777 Z-0.125000
G01 X132.787655 Y195.079554 Z-0.125000
G01 X134.952949 Y195.150277 Z-0.125000
G01 X137.574067 Y195.071696 Z-0.125000
G01 X143.044267 Y194.659819 Z-0.125000
G01 X145.822124 Y194.712815 Z-0.125000
G01 X147.317865 Y194.910829 Z-0.125000
G01 X148.813632 Y195.233382 Z-0.125000
G01 X154.896369 Y197.017042 Z-0.125000
G01 X156.491857 Y197.307713 Z-0.125000
G01 X157.973363 Y197.440349 Z-0.125000
G01 X159.454869 Y197.447043 Z-0.125000
G01 X161.078853 Y197.339225 Z-0.125000
G01 X168.457914 Y196.454486 Z-0.125000
G00 Z3.000000

(End cutting path id: polyline30553)


(Start cutting path id: polyline30555)
(Change tool to Default tool)

G00 Z3.000000
G00 X12.101347 Y196.082509

G00 Z4.875000 (Fast pre-penetrate)
G01 Z-0.125000 F400.0(Penetrate)
G01 X12.998786 Y196.117222 Z-0.125000 F800.000000
G01 X13.896252 Y195.878224 Z-0.125000
G01 X14.760459 Y195.408378 Z-0.125000
G01 X17.186923 Y193.693218 Z-0.125000
G01 X17.984641 Y193.377386 Z-0.125000
G01 X18.682664 Y193.324390 Z-0.125000
G01 X19.369601 Y193.498300 Z-0.125000
G01 X20.158481 Y193.959336 Z-0.125000
G01 X22.471916 Y196.129525 Z-0.125000
G01 X23.369381 Y196.827707 Z-0.125000
G01 X24.266847 Y197.206537 Z-0.125000
G01 X25.064565 Y197.211246 Z-0.125000
G01 X25.840137 Y196.913723 Z-0.125000
G01 X26.620154 Y196.356564 Z-0.125000
G01 X29.288950 Y193.627972 Z-0.125000
G01 X30.289761 Y192.782391 Z-0.125000
G01 X31.346744 Y192.213432 Z-0.125000
G01 X32.386661 Y192.014175 Z-0.125000
G01 X33.341091 Y192.120722 Z-0.125000
G01 X34.437999 Y192.507013 Z-0.125000
G01 X38.127530 Y194.543800 Z-0.125000
G01 X39.722992 Y195.250554 Z-0.125000
G01 X41.318480 Y195.693836 Z-0.125000
G01 X42.985168 Y195.852030 Z-0.125000
G01 X44.509431 Y195.718786 Z-0.125000
G01 X46.005198 Y195.325404 Z-0.125000
G01 X47.700381 Y194.576158 Z-0.125000
G01 X50.570022 Y192.886690 Z-0.125000
G01 X51.589354 Y192.373081 Z-0.125000
G01 X52.686236 Y192.047962 Z-0.125000
G01 X53.683423 Y192.062487 Z-0.125000
G01 X54.558716 Y192.370700 Z-0.125000
G01 X55.498277 Y193.018029 Z-0.125000
G01 X56.339519 Y193.831622 Z-0.125000
G01 X58.225070 Y195.945402 Z-0.125000
G01 X59.008315 Y196.660014 Z-0.125000
G01 X59.766160 Y197.107636 Z-0.125000
G01 X60.464183 Y197.248764 Z-0.125000
G01 X61.062484 Y197.148593 Z-0.125000
G01 X61.720608 Y196.814874 Z-0.125000
G01 X62.503853 Y196.169054 Z-0.125000
G01 X64.672243 Y194.008522 Z-0.125000
G01 X65.461124 Y193.510365 Z-0.125000
G01 X66.247782 Y193.317352 Z-0.125000
G01 X66.846083 Y193.383762 Z-0.125000
G01 X67.588424 Y193.688615 Z-0.125000
G01 X69.892995 Y195.340750 Z-0.125000
G01 X70.635335 Y195.774402 Z-0.125000
G01 X71.333358 Y196.035042 Z-0.125000
G01 X72.031381 Y196.134605 Z-0.125000
G01 X72.729404 Y196.079942 Z-0.125000
G01 X73.527148 Y195.866530 Z-0.125000
G01 X75.820633 Y194.894187 Z-0.125000
G01 X76.917514 Y194.518797 Z-0.125000
G01 X77.914701 Y194.314195 Z-0.125000
G01 X78.997349 Y194.242440 Z-0.125000
G01 X80.507350 Y194.340203 Z-0.125000
G01 X86.091507 Y195.077940 Z-0.125000
G01 X88.456217 Y195.212586 Z-0.125000
G01 X91.191318 Y195.258068 Z-0.125000
G01 X96.319650 Y195.103393 Z-0.125000
G01 X103.442304 Y194.327477 Z-0.125000
G01 X106.006457 Y194.261066 Z-0.125000
G01 X107.331277 Y194.389601 Z-0.125000
G01 X108.627602 Y194.635081 Z-0.125000
G01 X113.414014 Y195.948180 Z-0.125000
G01 X114.610617 Y196.111322 Z-0.125000
G01 X115.693264 Y196.124233 Z-0.125000
G01 X116.804407 Y195.996440 Z-0.125000
G01 X118.001010 Y195.714976 Z-0.125000
G01 X122.089426 Y194.269612 Z-0.125000
G01 X123.884331 Y193.759020 Z-0.125000
G01 X125.778957 Y193.438769 Z-0.125000
G01 X127.887260 Y193.317722 Z-0.125000
G01 X134.269161 Y193.438954 Z-0.125000
G01 X140.765017 Y193.316717 Z-0.125000
G01 X143.229476 Y193.444272 Z-0.125000
G01 X144.725216 Y193.650806 Z-0.125000
G01 X146.320705 Y193.989393 Z-0.125000
G01 X152.403441 Y195.725004 Z-0.125000
G01 X153.998930 Y196.006653 Z-0.125000
G01 X155.466201 Y196.125662 Z-0.125000
G01 X156.833751 Y196.117566 Z-0.125000
G01 X158.286762 Y196.003901 Z-0.125000
G01 X164.668662 Y195.067780 Z-0.125000
G01 X168.457914 Y194.715752 Z-0.125000
G00 Z3.000000

(End cutting path id: polyline30555)


(Start cutting path id: polyline30557)
(Change tool to Default tool)

G00 Z3.000000
G00 X12.101347 Y194.769119

G00 Z4.875000 (Fast pre-penetrate)
G01 Z-0.125000 F400.0(Penetrate)
G01 X12.998786 Y194.789650 Z-0.125000 F800.000000
G01 X13.896252 Y194.544937 Z-0.125000
G01 X14.760459 Y194.078822 Z-0.125000
G01 X16.621853 Y192.731591 Z-0.125000
G01 X17.286618 Y192.333685 Z-0.125000
G01 X17.984641 Y192.065186 Z-0.125000
G01 X18.682664 Y191.997162 Z-0.125000
G01 X19.480408 Y192.193059 Z-0.125000
G01 X20.238253 Y192.633511 Z-0.125000
G01 X22.711258 Y194.902283 Z-0.125000
G01 X23.535566 Y195.516116 Z-0.125000
G01 X24.366542 Y195.868805 Z-0.125000
G01 X25.264007 Y195.884892 Z-0.125000
G01 X26.017434 Y195.605227 Z-0.125000
G01 X26.779697 Y195.088708 Z-0.125000
G01 X29.506516 Y192.404805 Z-0.125000
G01 X30.626576 Y191.486199 Z-0.125000
G01 X31.745629 Y190.904275 Z-0.125000
G01 X32.343931 Y190.746108 Z-0.125000
G01 X32.942232 Y190.689990 Z-0.125000
G01 X33.839698 Y190.775609 Z-0.125000
G01 X34.836858 Y191.057945 Z-0.125000
G01 X38.326973 Y192.608428 Z-0.125000
G01 X39.822713 Y193.150559 Z-0.125000
G01 X41.218759 Y193.469461 Z-0.125000
G01 X42.643300 Y193.581247 Z-0.125000
G01 X44.110572 Y193.461100 Z-0.125000
G01 X45.706034 Y193.064305 Z-0.125000
G01 X47.102080 Y192.517094 Z-0.125000
G01 X49.794450 Y191.245032 Z-0.125000
G01 X50.891331 Y190.851438 Z-0.125000
G01 X51.788797 Y190.696895 Z-0.125000
G01 X52.686236 Y190.755977 Z-0.125000
G01 X53.672337 Y191.115783 Z-0.125000
G01 X54.620761 Y191.762292 Z-0.125000
G01 X55.469252 Y192.552971 Z-0.125000
G01 X57.427352 Y194.654739 Z-0.125000
G01 X58.210570 Y195.340036 Z-0.125000
G01 X58.968415 Y195.776571 Z-0.125000
G01 X59.666438 Y195.925399 Z-0.125000
G01 X60.364461 Y195.811073 Z-0.125000
G01 X61.029252 Y195.470422 Z-0.125000
G01 X61.778631 Y194.865136 Z-0.125000
G01 X64.042932 Y192.662932 Z-0.125000
G01 X64.851736 Y192.171602 Z-0.125000
G01 X65.649480 Y191.992585 Z-0.125000
G01 X66.347503 Y192.095587 Z-0.125000
G01 X67.045526 Y192.409012 Z-0.125000
G01 X69.272547 Y194.003812 Z-0.125000
G01 X70.037034 Y194.449079 Z-0.125000
G01 X70.735056 Y194.708820 Z-0.125000
G01 X71.475809 Y194.811505 Z-0.125000
G01 X72.131102 Y194.760731 Z-0.125000
G01 X72.928820 Y194.551631 Z-0.125000
G01 X75.322053 Y193.540951 Z-0.125000
G01 X76.319213 Y193.200724 Z-0.125000
G01 X77.316400 Y192.992841 Z-0.125000
G01 X78.313560 Y192.919842 Z-0.125000
G01 X79.909049 Y193.019431 Z-0.125000
G01 X83.498858 Y193.559948 Z-0.125000
G01 X85.607161 Y193.788574 Z-0.125000
G01 X88.000367 Y193.922268 Z-0.125000
G01 X90.963406 Y193.968755 Z-0.125000
G01 X96.433606 Y193.806804 Z-0.125000
G01 X103.641747 Y193.006705 Z-0.125000
G01 X106.234369 Y192.938628 Z-0.125000
G01 X107.530694 Y193.063484 Z-0.125000
G01 X108.827018 Y193.305207 Z-0.125000
G01 X113.613457 Y194.604813 Z-0.125000
G01 X115.579309 Y194.812457 Z-0.125000
G01 X116.904128 Y194.722949 Z-0.125000
G01 X118.300174 Y194.441962 Z-0.125000
G01 X122.687728 Y193.021389 Z-0.125000
G01 X124.682075 Y192.504976 Z-0.125000
G01 X126.676422 Y192.189884 Z-0.125000
G01 X129.026898 Y192.030473 Z-0.125000
G01 X137.004261 Y192.007798 Z-0.125000
G01 X140.836243 Y192.232561 Z-0.125000
G01 X143.927498 Y192.786810 Z-0.125000
G01 X150.010235 Y194.444105 Z-0.125000
G01 X151.506002 Y194.696226 Z-0.125000
G01 X152.959013 Y194.806372 Z-0.125000
G01 X154.326563 Y194.786396 Z-0.125000
G01 X155.893556 Y194.637277 Z-0.125000
G01 X161.178575 Y193.732747 Z-0.125000
G01 X163.571781 Y193.403870 Z-0.125000
G01 X165.836770 Y193.204137 Z-0.125000
G01 X168.457914 Y193.084836 Z-0.125000
G00 Z3.000000

(End cutting path id: polyline30557)


(Start cutting path id: polyline30559)
(Change tool to Default tool)

G00 Z3.000000
G00 X12.101347 Y193.455543

G00 Z4.875000 (Fast pre-penetrate)
G01 Z-0.125000 F400.0(Penetrate)
G01 X12.998786 Y193.461047 Z-0.125000 F800.000000
G01 X13.896252 Y193.210540 Z-0.125000
G01 X14.760459 Y192.748683 Z-0.125000
G01 X17.286618 Y191.029079 Z-0.125000
G01 X18.084362 Y190.730047 Z-0.125000
G01 X18.782385 Y190.676999 Z-0.125000
G01 X19.480408 Y190.838394 Z-0.125000
G01 X20.344616 Y191.319829 Z-0.125000
G01 X22.870801 Y193.590825 Z-0.125000
G01 X23.712837 Y194.200106 Z-0.125000
G01 X24.565984 Y194.548853 Z-0.125000
G01 X25.463450 Y194.564861 Z-0.125000
G01 X26.261168 Y194.278211 Z-0.125000
G01 X27.081084 Y193.734520 Z-0.125000
G01 X29.890876 Y191.085568 Z-0.125000
G01 X31.069752 Y190.170719 Z-0.125000
G01 X32.343931 Y189.563607 Z-0.125000
G01 X33.640255 Y189.367154 Z-0.125000
G01 X34.437999 Y189.424595 Z-0.125000
G01 X35.335439 Y189.607316 Z-0.125000
G01 X39.822713 Y190.986825 Z-0.125000
G01 X41.019316 Y191.191639 Z-0.125000
G01 X42.187450 Y191.264082 Z-0.125000
G01 X43.512244 Y191.184760 Z-0.125000
G01 X44.908290 Y190.923034 Z-0.125000
G01 X49.495286 Y189.491587 Z-0.125000
G01 X50.506707 Y189.369138 Z-0.125000
G01 X51.489633 Y189.457403 Z-0.125000
G01 X52.486793 Y189.809616 Z-0.125000
G01 X53.583702 Y190.521530 Z-0.125000
G01 X54.526464 Y191.366687 Z-0.125000
G01 X56.484563 Y193.363760 Z-0.125000
G01 X57.306464 Y194.044055 Z-0.125000
G01 X58.070976 Y194.459133 Z-0.125000
G01 X58.768999 Y194.602140 Z-0.125000
G01 X59.467022 Y194.499350 Z-0.125000
G01 X60.142873 Y194.173966 Z-0.125000
G01 X60.922890 Y193.569420 Z-0.125000
G01 X63.333823 Y191.291546 Z-0.125000
G01 X64.053992 Y190.864826 Z-0.125000
G01 X64.851736 Y190.671469 Z-0.125000
G01 X65.549759 Y190.754680 Z-0.125000
G01 X66.347503 Y191.100596 Z-0.125000
G01 X68.563439 Y192.677114 Z-0.125000
G01 X69.361183 Y193.136668 Z-0.125000
G01 X70.136755 Y193.409136 Z-0.125000
G01 X70.834778 Y193.488696 Z-0.125000
G01 X71.433079 Y193.439457 Z-0.125000
G01 X72.230824 Y193.233214 Z-0.125000
G01 X74.624030 Y192.222798 Z-0.125000
G01 X75.621190 Y191.879555 Z-0.125000
G01 X76.518656 Y191.684319 Z-0.125000
G01 X77.515816 Y191.598382 Z-0.125000
G01 X79.211026 Y191.701464 Z-0.125000
G01 X82.800835 Y192.262010 Z-0.125000
G01 X84.894904 Y192.495028 Z-0.125000
G01 X87.430561 Y192.635389 Z-0.125000
G01 X90.621512 Y192.681929 Z-0.125000
G01 X96.547562 Y192.517491 Z-0.125000
G01 X99.054751 Y192.288230 Z-0.125000
G01 X103.841163 Y191.690669 Z-0.125000
G01 X106.462307 Y191.614284 Z-0.125000
G01 X107.730136 Y191.732182 Z-0.125000
G01 X109.026461 Y191.967926 Z-0.125000
G01 X113.912594 Y193.274595 Z-0.125000
G01 X115.009503 Y193.438637 Z-0.125000
G01 X116.035159 Y193.489595 Z-0.125000
G01 X117.302987 Y193.408024 Z-0.125000
G01 X118.599312 Y193.176276 Z-0.125000
G01 X123.385751 Y191.784622 Z-0.125000
G01 X125.479793 Y191.302552 Z-0.125000
G01 X127.673583 Y190.990768 Z-0.125000
G01 X130.280466 Y190.822149 Z-0.125000
G01 X135.066905 Y190.824266 Z-0.125000
G01 X138.841922 Y191.120546 Z-0.125000
G01 X141.733708 Y191.647859 Z-0.125000
G01 X147.517308 Y193.131403 Z-0.125000
G01 X149.112770 Y193.388789 Z-0.125000
G01 X150.565807 Y193.486632 Z-0.125000
G01 X152.004582 Y193.448082 Z-0.125000
G01 X153.500349 Y193.282612 Z-0.125000
G01 X158.885063 Y192.267963 Z-0.125000
G01 X161.577433 Y191.893869 Z-0.125000
G01 X164.583202 Y191.684266 Z-0.125000
G01 X168.457914 Y191.610315 Z-0.125000
G00 Z3.000000

(End cutting path id: polyline30559)


(Start cutting path id: polyline30561)
(Change tool to Default tool)

G00 Z3.000000
G00 X12.101347 Y192.141360

G00 Z4.875000 (Fast pre-penetrate)
G01 Z-0.125000 F400.0(Penetrate)
G01 X12.998786 Y192.131358 Z-0.125000 F800.000000
G01 X13.896252 Y191.875136 Z-0.125000
G01 X14.760459 Y191.418069 Z-0.125000
G01 X16.621853 Y190.118861 Z-0.125000
G01 X17.386339 Y189.675869 Z-0.125000
G01 X18.184084 Y189.397422 Z-0.125000
G01 X18.882107 Y189.356359 Z-0.125000
G01 X19.580129 Y189.520877 Z-0.125000
G01 X20.433251 Y189.985564 Z-0.125000
G01 X23.030345 Y192.262936 Z-0.125000
G01 X23.890134 Y192.870656 Z-0.125000
G01 X24.865148 Y193.243057 Z-0.125000
G01 X25.762587 Y193.233056 Z-0.125000
G01 X26.549246 Y192.951539 Z-0.125000
G01 X27.338126 Y192.454414 Z-0.125000
G01 X30.289761 Y189.821231 Z-0.125000
G01 X31.601590 Y188.869129 Z-0.125000
G01 X32.343931 Y188.488394 Z-0.125000
G01 X33.041954 Y188.241935 Z-0.125000
G01 X33.739977 Y188.098135 Z-0.125000
G01 X34.551955 Y188.043842 Z-0.125000
G01 X36.133183 Y188.191744 Z-0.125000
G01 X39.822713 Y188.890746 Z-0.125000
G01 X41.617618 Y189.028012 Z-0.125000
G01 X43.811408 Y188.878416 Z-0.125000
G01 X48.113501 Y188.086070 Z-0.125000
G01 X49.139157 Y188.049875 Z-0.125000
G01 X50.093587 Y188.175313 Z-0.125000
G01 X51.190469 Y188.563245 Z-0.125000
G01 X52.307300 Y189.251081 Z-0.125000
G01 X53.264588 Y190.050149 Z-0.125000
G01 X55.338707 Y192.030764 Z-0.125000
G01 X56.242814 Y192.739132 Z-0.125000
G01 X57.073789 Y193.156459 Z-0.125000
G01 X57.771812 Y193.280363 Z-0.125000
G01 X58.469835 Y193.175985 Z-0.125000
G01 X59.256493 Y192.793319 Z-0.125000
G01 X60.045374 Y192.179539 Z-0.125000
G01 X62.447444 Y189.964847 Z-0.125000
G01 X63.256274 Y189.510188 Z-0.125000
G01 X64.053992 Y189.346596 Z-0.125000
G01 X64.752015 Y189.446132 Z-0.125000
G01 X65.549759 Y189.799509 Z-0.125000
G01 X67.765694 Y191.362189 Z-0.125000
G01 X68.563439 Y191.816214 Z-0.125000
G01 X69.339011 Y192.086247 Z-0.125000
G01 X70.037034 Y192.165807 Z-0.125000
G01 X70.635335 Y192.117521 Z-0.125000
G01 X71.433079 Y191.912945 Z-0.125000
G01 X74.823472 Y190.555846 Z-0.125000
G01 X75.720911 Y190.359605 Z-0.125000
G01 X76.718098 Y190.274938 Z-0.125000
G01 X78.313560 Y190.373707 Z-0.125000
G01 X82.003091 Y190.969707 Z-0.125000
G01 X84.097159 Y191.207011 Z-0.125000
G01 X86.632817 Y191.345203 Z-0.125000
G01 X90.279617 Y191.392510 Z-0.125000
G01 X93.926418 Y191.353484 Z-0.125000
G01 X96.661518 Y191.233073 Z-0.125000
G01 X99.154472 Y191.007198 Z-0.125000
G01 X104.140327 Y190.369209 Z-0.125000
G01 X106.690219 Y190.288326 Z-0.125000
G01 X108.029300 Y190.410590 Z-0.125000
G01 X109.325625 Y190.646439 Z-0.125000
G01 X114.211758 Y191.937657 Z-0.125000
G01 X115.408361 Y192.114769 Z-0.125000
G01 X116.491009 Y192.166707 Z-0.125000
G01 X117.701873 Y192.098444 Z-0.125000
G01 X119.097892 Y191.875110 Z-0.125000
G01 X123.784609 Y190.663743 Z-0.125000
G01 X125.878678 Y190.224694 Z-0.125000
G01 X127.972720 Y189.939447 Z-0.125000
G01 X130.280466 Y189.784401 Z-0.125000
G01 X133.699355 Y189.795964 Z-0.125000
G01 X136.947270 Y190.074966 Z-0.125000
G01 X139.739361 Y190.565027 Z-0.125000
G01 X145.223823 Y191.848995 Z-0.125000
G01 X146.719563 Y192.073124 Z-0.125000
G01 X148.172600 Y192.164749 Z-0.125000
G01 X149.511655 Y192.128157 Z-0.125000
G01 X151.007422 Y191.960755 Z-0.125000
G01 X156.591578 Y190.843448 Z-0.125000
G01 X159.483365 Y190.448055 Z-0.125000
G01 X162.759802 Y190.284013 Z-0.125000
G01 X168.457914 Y190.298301 Z-0.125000
G00 Z3.000000

(End cutting path id: polyline30561)


(Start cutting path id: polyline30563)
(Change tool to Default tool)

G00 Z3.000000
G00 X12.101347 Y190.826144

G00 Z4.875000 (Fast pre-penetrate)
G01 Z-0.125000 F400.0(Penetrate)
G01 X12.899065 Y190.815296 Z-0.125000 F800.000000
G01 X13.796530 Y190.579844 Z-0.125000
G01 X14.760459 Y190.087666 Z-0.125000
G01 X17.386339 Y188.375127 Z-0.125000
G01 X18.184084 Y188.088027 Z-0.125000
G01 X18.981828 Y188.034899 Z-0.125000
G01 X19.779572 Y188.238787 Z-0.125000
G01 X20.610548 Y188.704188 Z-0.125000
G01 X23.110116 Y190.851015 Z-0.125000
G01 X24.067404 Y191.524458 Z-0.125000
G01 X25.064565 Y191.909559 Z-0.125000
G01 X25.962030 Y191.925486 Z-0.125000
G01 X26.759774 Y191.681382 Z-0.125000
G01 X27.612896 Y191.194047 Z-0.125000
G01 X30.848164 Y188.514773 Z-0.125000
G01 X32.244210 Y187.588997 Z-0.125000
G01 X33.041954 Y187.215009 Z-0.125000
G01 X33.839698 Y186.955692 Z-0.125000
G01 X34.737137 Y186.787099 Z-0.125000
G01 X35.691567 Y186.723097 Z-0.125000
G01 X40.819900 Y187.024139 Z-0.125000
G01 X42.643300 Y186.988553 Z-0.125000
G01 X46.404057 Y186.722620 Z-0.125000
G01 X47.500938 Y186.763446 Z-0.125000
G01 X48.498125 Y186.930927 Z-0.125000
G01 X49.595007 Y187.307852 Z-0.125000
G01 X50.924563 Y188.158856 Z-0.125000
G01 X52.626414 Y189.478808 Z-0.125000
G01 X54.221876 Y190.872340 Z-0.125000
G01 X55.001893 Y191.428547 Z-0.125000
G01 X55.777465 Y191.806530 Z-0.125000
G01 X56.575209 Y191.957580 Z-0.125000
G01 X57.372953 Y191.837142 Z-0.125000
G01 X58.104208 Y191.492867 Z-0.125000
G01 X58.928543 Y190.882368 Z-0.125000
G01 X61.401521 Y188.663919 Z-0.125000
G01 X62.259087 Y188.188119 Z-0.125000
G01 X63.056831 Y188.024554 Z-0.125000
G01 X63.754854 Y188.114671 Z-0.125000
G01 X64.452877 Y188.397087 Z-0.125000
G01 X66.879315 Y190.059541 Z-0.125000
G01 X67.643827 Y190.488589 Z-0.125000
G01 X68.341850 Y190.740763 Z-0.125000
G01 X69.082603 Y190.842548 Z-0.125000
G01 X69.737870 Y190.794897 Z-0.125000
G01 X70.535614 Y190.590824 Z-0.125000
G01 X73.926007 Y189.229968 Z-0.125000
G01 X74.823472 Y189.033568 Z-0.125000
G01 X75.806398 Y188.951917 Z-0.125000
G01 X77.416095 Y189.060370 Z-0.125000
G01 X81.105652 Y189.681611 Z-0.125000
G01 X83.213955 Y189.922355 Z-0.125000
G01 X85.835099 Y190.055467 Z-0.125000
G01 X89.823767 Y190.094387 Z-0.125000
G01 X94.040400 Y190.060996 Z-0.125000
G01 X96.889456 Y189.943575 Z-0.125000
G01 X99.453610 Y189.708598 Z-0.125000
G01 X104.439465 Y189.050342 Z-0.125000
G01 X107.032113 Y188.966522 Z-0.125000
G01 X108.228717 Y189.072488 Z-0.125000
G01 X109.525041 Y189.297939 Z-0.125000
G01 X114.610617 Y190.614319 Z-0.125000
G01 X115.807220 Y190.787594 Z-0.125000
G01 X116.946859 Y190.843792 Z-0.125000
G01 X118.200453 Y190.782382 Z-0.125000
G01 X119.496777 Y190.602783 Z-0.125000
G01 X124.183468 Y189.563104 Z-0.125000
G01 X126.177816 Y189.199832 Z-0.125000
G01 X128.072442 Y188.970703 Z-0.125000
G01 X129.938598 Y188.856324 Z-0.125000
G01 X132.559716 Y188.869500 Z-0.125000
G01 X135.252086 Y189.091273 Z-0.125000
G01 X137.745014 Y189.484179 Z-0.125000
G01 X143.129754 Y190.588919 Z-0.125000
G01 X144.639756 Y190.780398 Z-0.125000
G01 X146.007306 Y190.843739 Z-0.125000
G01 X147.317865 Y190.793838 Z-0.125000
G01 X148.713911 Y190.628024 Z-0.125000
G01 X154.497510 Y189.422161 Z-0.125000
G01 X157.403557 Y189.046770 Z-0.125000
G01 X160.594508 Y188.952023 Z-0.125000
G01 X168.457914 Y189.117520 Z-0.125000
G00 Z3.000000

(End cutting path id: polyline30563)


(Start cutting path id: polyline30565)
(Change tool to Default tool)

G00 Z3.000000
G00 X12.101347 Y189.509500

G00 Z4.875000 (Fast pre-penetrate)
G01 Z-0.125000 F400.0(Penetrate)
G01 X12.899065 Y189.485237 Z-0.125000 F800.000000
G01 X13.796530 Y189.244467 Z-0.125000
G01 X14.760459 Y188.758851 Z-0.125000
G01 X16.710489 Y187.457050 Z-0.125000
G01 X17.486061 Y187.029378 Z-0.125000
G01 X18.283805 Y186.758604 Z-0.125000
G01 X19.081549 Y186.712408 Z-0.125000
G01 X19.879267 Y186.910818 Z-0.125000
G01 X20.699183 Y187.350502 Z-0.125000
G01 X23.269660 Y189.484020 Z-0.125000
G01 X24.366542 Y190.227181 Z-0.125000
G01 X25.363729 Y190.588072 Z-0.125000
G01 X26.360889 Y190.592147 Z-0.125000
G01 X27.158633 Y190.349524 Z-0.125000
G01 X28.056099 Y189.864729 Z-0.125000
G01 X31.424320 Y187.304174 Z-0.125000
G01 X32.310699 Y186.731246 Z-0.125000
G01 X33.241370 Y186.248938 Z-0.125000
G01 X34.238557 Y185.872568 Z-0.125000
G01 X35.335439 Y185.608567 Z-0.125000
G01 X36.532042 Y185.460665 Z-0.125000
G01 X38.084800 Y185.401002 Z-0.125000
G01 X44.352718 Y185.430265 Z-0.125000
G01 X45.706034 Y185.557582 Z-0.125000
G01 X47.002358 Y185.834786 Z-0.125000
G01 X47.899824 Y186.233036 Z-0.125000
G01 X49.595007 Y187.228583 Z-0.125000
G01 X53.495066 Y190.065045 Z-0.125000
G01 X54.381419 Y190.479302 Z-0.125000
G01 X55.278885 Y190.635142 Z-0.125000
G01 X56.076629 Y190.516238 Z-0.125000
G01 X56.863287 Y190.161988 Z-0.125000
G01 X57.731940 Y189.541197 Z-0.125000
G01 X59.566717 Y187.889114 Z-0.125000
G01 X60.320144 Y187.305179 Z-0.125000
G01 X61.162205 Y186.860468 Z-0.125000
G01 X61.959950 Y186.702433 Z-0.125000
G01 X62.657972 Y186.785697 Z-0.125000
G01 X63.422459 Y187.089782 Z-0.125000
G01 X65.815665 Y188.711517 Z-0.125000
G01 X66.646641 Y189.174987 Z-0.125000
G01 X67.344663 Y189.422081 Z-0.125000
G01 X68.142408 Y189.520956 Z-0.125000
G01 X68.840431 Y189.453091 Z-0.125000
G01 X69.638175 Y189.231740 Z-0.125000
G01 X71.931660 Y188.249582 Z-0.125000
G01 X72.928820 Y187.902264 Z-0.125000
G01 X73.826285 Y187.706419 Z-0.125000
G01 X74.780716 Y187.628764 Z-0.125000
G01 X76.319213 Y187.734254 Z-0.125000
G01 X79.909049 Y188.365681 Z-0.125000
G01 X82.003091 Y188.618781 Z-0.125000
G01 X84.467549 Y188.748400 Z-0.125000
G01 X88.228305 Y188.781182 Z-0.125000
G01 X93.926418 Y188.765651 Z-0.125000
G01 X97.003412 Y188.661352 Z-0.125000
G01 X99.752774 Y188.413332 Z-0.125000
G01 X104.838350 Y187.724094 Z-0.125000
G01 X107.374008 Y187.644110 Z-0.125000
G01 X108.627602 Y187.758833 Z-0.125000
G01 X109.923926 Y187.989867 Z-0.125000
G01 X114.909781 Y189.267539 Z-0.125000
G01 X116.206106 Y189.457059 Z-0.125000
G01 X117.402709 Y189.520559 Z-0.125000
G01 X118.599312 Y189.478279 Z-0.125000
G01 X119.995358 Y189.318577 Z-0.125000
G01 X126.177816 Y188.231035 Z-0.125000
G01 X129.368766 Y187.972669 Z-0.125000
G01 X131.648016 Y187.984972 Z-0.125000
G01 X133.856041 Y188.149702 Z-0.125000
G01 X136.049831 Y188.448284 Z-0.125000
G01 X141.035686 Y189.314079 Z-0.125000
G01 X143.728056 Y189.520797 Z-0.125000
G01 X145.095606 Y189.469283 Z-0.125000
G01 X146.520147 Y189.298468 Z-0.125000
G01 X152.303720 Y188.056357 Z-0.125000
G01 X155.352219 Y187.678400 Z-0.125000
G01 X158.201301 Y187.643211 Z-0.125000
G01 X164.697158 Y187.959969 Z-0.125000
G01 X168.457914 Y188.015743 Z-0.125000
G00 Z3.000000

(End cutting path id: polyline30565)


(Start cutting path id: polyline30567)
(Change tool to Default tool)

G00 Z3.000000
G00 X12.101347 Y188.191215

G00 Z4.875000 (Fast pre-penetrate)
G01 Z-0.125000 F400.0(Penetrate)
G01 X12.899065 Y188.155126 Z-0.125000 F800.000000
G01 X13.796530 Y187.910889 Z-0.125000
G01 X14.760459 Y187.433423 Z-0.125000
G01 X17.486061 Y185.735329 Z-0.125000
G01 X18.383526 Y185.432302 Z-0.125000
G01 X19.181244 Y185.388699 Z-0.125000
G01 X19.978988 Y185.576897 Z-0.125000
G01 X20.876454 Y186.042430 Z-0.125000
G01 X23.624201 Y188.244581 Z-0.125000
G01 X24.599216 Y188.874580 Z-0.125000
G01 X25.662866 Y189.257564 Z-0.125000
G01 X26.660053 Y189.285186 Z-0.125000
G01 X27.457797 Y189.087807 Z-0.125000
G01 X28.322005 Y188.692653 Z-0.125000
G01 X32.133402 Y186.134188 Z-0.125000
G01 X33.241370 Y185.517815 Z-0.125000
G01 X34.238557 Y185.083185 Z-0.125000
G01 X35.435160 Y184.707900 Z-0.125000
G01 X36.631763 Y184.468506 Z-0.125000
G01 X38.084800 Y184.310735 Z-0.125000
G01 X39.794218 Y184.247103 Z-0.125000
G01 X42.814247 Y184.377780 Z-0.125000
G01 X44.210267 Y184.592251 Z-0.125000
G01 X45.008011 Y184.802304 Z-0.125000
G01 X47.556342 Y186.026608 Z-0.125000
G01 X49.595007 Y187.228583 Z-0.125000
G01 X51.899578 Y188.768958 Z-0.125000
G01 X52.785957 Y189.148661 Z-0.125000
G01 X53.683423 Y189.310269 Z-0.125000
G01 X54.580862 Y189.204647 Z-0.125000
G01 X55.445069 Y188.843253 Z-0.125000
G01 X56.375767 Y188.208836 Z-0.125000
G01 X58.210570 Y186.620200 Z-0.125000
G01 X59.079223 Y185.965966 Z-0.125000
G01 X59.965602 Y185.522551 Z-0.125000
G01 X60.763320 Y185.378010 Z-0.125000
G01 X61.561064 Y185.489849 Z-0.125000
G01 X62.358808 Y185.828462 Z-0.125000
G01 X64.663379 Y187.381776 Z-0.125000
G01 X65.461124 Y187.827149 Z-0.125000
G01 X66.247782 Y188.105411 Z-0.125000
G01 X66.945805 Y188.196215 Z-0.125000
G01 X67.643827 Y188.144278 Z-0.125000
G01 X68.341850 Y187.971532 Z-0.125000
G01 X71.831938 Y186.572999 Z-0.125000
G01 X72.729404 Y186.378715 Z-0.125000
G01 X73.641104 Y186.305347 Z-0.125000
G01 X75.222331 Y186.422345 Z-0.125000
G01 X78.513003 Y187.031442 Z-0.125000
G01 X80.307908 Y187.276684 Z-0.125000
G01 X82.416211 Y187.419215 Z-0.125000
G01 X85.037355 Y187.458452 Z-0.125000
G01 X94.040400 Y187.456071 Z-0.125000
G01 X97.003412 Y187.381908 Z-0.125000
G01 X99.952190 Y187.131798 Z-0.125000
G01 X105.237209 Y186.398136 Z-0.125000
G01 X107.601919 Y186.316247 Z-0.125000
G01 X108.827018 Y186.418033 Z-0.125000
G01 X110.123342 Y186.637134 Z-0.125000
G01 X115.408361 Y187.954254 Z-0.125000
G01 X116.718947 Y188.134965 Z-0.125000
G01 X117.972515 Y188.197538 Z-0.125000
G01 X120.394216 Y188.049822 Z-0.125000
G01 X126.377258 Y187.222682 Z-0.125000
G01 X129.596704 Y187.060837 Z-0.125000
G01 X133.257739 Y187.257157 Z-0.125000
G01 X139.739361 Y188.110305 Z-0.125000
G01 X142.474461 Y188.176636 Z-0.125000
G01 X145.124101 Y187.850432 Z-0.125000
G01 X150.807979 Y186.602024 Z-0.125000
G01 X152.303720 Y186.406073 Z-0.125000
G01 X153.870713 Y186.312490 Z-0.125000
G01 X156.491857 Y186.367682 Z-0.125000
G01 X163.785458 Y186.875840 Z-0.125000
G01 X168.457914 Y186.936562 Z-0.125000
G00 Z3.000000

(End cutting path id: polyline30567)


(Start cutting path id: polyline30569)
(Change tool to Default tool)

G00 Z3.000000
G00 X12.101347 Y186.871369

G00 Z4.875000 (Fast pre-penetrate)
G01 Z-0.125000 F400.0(Penetrate)
G01 X12.899065 Y186.825887 Z-0.125000 F800.000000
G01 X13.796530 Y186.580804 Z-0.125000
G01 X14.760459 Y186.113497 Z-0.125000
G01 X16.710489 Y184.871280 Z-0.125000
G01 X17.585782 Y184.401302 Z-0.125000
G01 X18.483248 Y184.109705 Z-0.125000
G01 X19.280965 Y184.063720 Z-0.125000
G01 X20.178431 Y184.272503 Z-0.125000
G01 X21.053724 Y184.718722 Z-0.125000
G01 X23.890134 Y186.905315 Z-0.125000
G01 X24.964843 Y187.562698 Z-0.125000
G01 X26.061751 Y187.932638 Z-0.125000
G01 X27.158633 Y187.959414 Z-0.125000
G01 X28.056099 Y187.747721 Z-0.125000
G01 X28.942452 Y187.376749 Z-0.125000
G01 X32.665240 Y185.216720 Z-0.125000
G01 X34.637416 Y184.331769 Z-0.125000
G01 X35.734324 Y183.994664 Z-0.125000
G01 X36.930927 Y183.744501 Z-0.125000
G01 X39.338368 Y183.551408 Z-0.125000
G01 X41.717339 Y183.716534 Z-0.125000
G01 X43.512244 Y184.151218 Z-0.125000
G01 X44.808568 Y184.672869 Z-0.125000
G01 X47.102080 Y185.778800 Z-0.125000
G01 X50.193309 Y187.523884 Z-0.125000
G01 X51.090774 Y187.849903 Z-0.125000
G01 X51.988213 Y187.987856 Z-0.125000
G01 X52.885679 Y187.898004 Z-0.125000
G01 X53.849608 Y187.533012 Z-0.125000
G01 X54.913258 Y186.845069 Z-0.125000
G01 X57.661031 Y184.661281 Z-0.125000
G01 X58.569557 Y184.212627 Z-0.125000
G01 X59.467022 Y184.055386 Z-0.125000
G01 X60.165019 Y184.144153 Z-0.125000
G01 X61.029252 Y184.485624 Z-0.125000
G01 X63.422459 Y186.060607 Z-0.125000
G01 X64.253434 Y186.515399 Z-0.125000
G01 X65.051179 Y186.788581 Z-0.125000
G01 X65.777697 Y186.874782 Z-0.125000
G01 X66.447224 Y186.819749 Z-0.125000
G01 X67.244942 Y186.612236 Z-0.125000
G01 X70.635335 Y185.244845 Z-0.125000
G01 X71.532801 Y185.051726 Z-0.125000
G01 X72.387510 Y184.983172 Z-0.125000
G01 X73.926007 Y185.096388 Z-0.125000
G01 X77.216678 Y185.727868 Z-0.125000
G01 X78.812140 Y185.957711 Z-0.125000
G01 X80.592810 Y186.093733 Z-0.125000
G01 X82.644149 Y186.135484 Z-0.125000
G01 X97.345306 Y186.079948 Z-0.125000
G01 X100.251354 Y185.837881 Z-0.125000
G01 X105.536373 Y185.082365 Z-0.125000
G01 X107.943814 Y184.993385 Z-0.125000
G01 X109.126182 Y185.090540 Z-0.125000
G01 X110.422506 Y185.305567 Z-0.125000
G01 X115.807220 Y186.619989 Z-0.125000
G01 X117.203266 Y186.807472 Z-0.125000
G01 X118.542347 Y186.874174 Z-0.125000
G01 X120.793102 Y186.775907 Z-0.125000
G01 X126.177816 Y186.214039 Z-0.125000
G01 X128.912916 Y186.107809 Z-0.125000
G01 X132.061136 Y186.237243 Z-0.125000
G01 X137.915961 Y186.821416 Z-0.125000
G01 X140.537105 Y186.846869 Z-0.125000
G01 X143.229476 Y186.509367 Z-0.125000
G01 X148.913353 Y185.250057 Z-0.125000
G01 X150.409094 Y185.059849 Z-0.125000
G01 X151.819401 Y184.985183 Z-0.125000
G01 X154.298067 Y185.064982 Z-0.125000
G01 X162.189970 Y185.747024 Z-0.125000
G01 X165.266964 Y185.846348 Z-0.125000
G01 X168.457914 Y185.833013 Z-0.125000
G00 Z3.000000

(End cutting path id: polyline30569)


(Start cutting path id: polyline30571)
(Change tool to Default tool)

G00 Z3.000000
G00 X12.101347 Y185.550174

G00 Z4.875000 (Fast pre-penetrate)
G01 Z-0.125000 F400.0(Penetrate)
G01 X12.998786 Y185.481118 Z-0.125000 F800.000000
G01 X13.896252 Y185.217381 Z-0.125000
G01 X14.849094 Y184.751160 Z-0.125000
G01 X17.486061 Y183.167233 Z-0.125000
G01 X18.383526 Y182.834679 Z-0.125000
G01 X19.181244 Y182.731783 Z-0.125000
G01 X20.078710 Y182.859444 Z-0.125000
G01 X21.053724 Y183.274654 Z-0.125000
G01 X21.940104 Y183.846736 Z-0.125000
G01 X24.067404 Y185.465745 Z-0.125000
G01 X25.264007 Y186.186840 Z-0.125000
G01 X26.261168 Y186.549795 Z-0.125000
G01 X27.158633 Y186.665682 Z-0.125000
G01 X28.155794 Y186.574586 Z-0.125000
G01 X29.252702 Y186.256558 Z-0.125000
G01 X33.241370 Y184.410456 Z-0.125000
G01 X35.036301 Y183.754714 Z-0.125000
G01 X36.831206 Y183.355722 Z-0.125000
G01 X38.654606 Y183.215837 Z-0.125000
G01 X40.321294 Y183.315188 Z-0.125000
G01 X41.817061 Y183.606600 Z-0.125000
G01 X44.210267 Y184.415377 Z-0.125000
G01 X47.401217 Y185.921013 Z-0.125000
G01 X48.498125 Y186.359110 Z-0.125000
G01 X49.595007 Y186.623957 Z-0.125000
G01 X50.691889 Y186.637266 Z-0.125000
G01 X51.689076 Y186.388875 Z-0.125000
G01 X52.697322 Y185.885639 Z-0.125000
G01 X55.533731 Y183.741273 Z-0.125000
G01 X56.420084 Y183.176520 Z-0.125000
G01 X57.273232 Y182.832166 Z-0.125000
G01 X57.971255 Y182.732973 Z-0.125000
G01 X58.768999 Y182.831504 Z-0.125000
G01 X59.566717 Y183.136436 Z-0.125000
G01 X62.092903 Y184.754890 Z-0.125000
G01 X62.957110 Y185.213386 Z-0.125000
G01 X63.754854 Y185.473498 Z-0.125000
G01 X64.452877 Y185.551206 Z-0.125000
G01 X65.150900 Y185.492521 Z-0.125000
G01 X65.848923 Y185.317129 Z-0.125000
G01 X69.339011 Y183.916612 Z-0.125000
G01 X70.236476 Y183.724922 Z-0.125000
G01 X71.133915 Y183.658961 Z-0.125000
G01 X72.729404 Y183.799799 Z-0.125000
G01 X77.216678 Y184.633605 Z-0.125000
G01 X78.883366 Y184.772908 Z-0.125000
G01 X80.706766 Y184.812596 Z-0.125000
G01 X87.658500 Y184.706366 Z-0.125000
G01 X95.066056 Y184.810347 Z-0.125000
G01 X97.687201 Y184.774099 Z-0.125000
G01 X100.650213 Y184.530021 Z-0.125000
G01 X105.935232 Y183.754925 Z-0.125000
G01 X108.285708 Y183.670973 Z-0.125000
G01 X110.721644 Y183.976302 Z-0.125000
G01 X116.206106 Y185.284771 Z-0.125000
G01 X117.701873 Y185.479583 Z-0.125000
G01 X119.226109 Y185.551417 Z-0.125000
G01 X121.163465 Y185.494902 Z-0.125000
G01 X125.949904 Y185.143668 Z-0.125000
G01 X128.229154 Y185.079057 Z-0.125000
G01 X130.964254 Y185.157638 Z-0.125000
G01 X136.320499 Y185.530013 Z-0.125000
G01 X138.827661 Y185.508132 Z-0.125000
G01 X141.534266 Y185.153352 Z-0.125000
G01 X147.018727 Y183.927248 Z-0.125000
G01 X148.414773 Y183.741299 Z-0.125000
G01 X149.768062 Y183.663036 Z-0.125000
G01 X152.204025 Y183.750374 Z-0.125000
G01 X157.588739 Y184.347379 Z-0.125000
G01 X160.594508 Y184.575344 Z-0.125000
G01 X164.355264 Y184.691761 Z-0.125000
G01 X168.457914 Y184.675568 Z-0.125000
G00 Z3.000000

(End cutting path id: polyline30571)


(Start cutting path id: polyline30573)
(Change tool to Default tool)

G00 Z3.000000
G00 X12.101347 Y184.228053

G00 Z4.875000 (Fast pre-penetrate)
G01 Z-0.125000 F400.0(Penetrate)
G01 X12.998786 Y184.157065 Z-0.125000 F800.000000
G01 X13.896252 Y183.900843 Z-0.125000
G01 X14.849094 Y183.450946 Z-0.125000
G01 X17.585782 Y181.850986 Z-0.125000
G01 X18.483248 Y181.522612 Z-0.125000
G01 X19.380687 Y181.409053 Z-0.125000
G01 X20.278152 Y181.535841 Z-0.125000
G01 X21.319630 Y181.965894 Z-0.125000
G01 X22.206010 Y182.513925 Z-0.125000
G01 X24.510581 Y184.167807 Z-0.125000
G01 X25.662866 Y184.820666 Z-0.125000
G01 X26.759774 Y185.206824 Z-0.125000
G01 X27.828161 Y185.342344 Z-0.125000
G01 X28.853817 Y185.271330 Z-0.125000
G01 X29.851003 Y185.055880 Z-0.125000
G01 X33.440813 Y183.835729 Z-0.125000
G01 X35.036301 Y183.392023 Z-0.125000
G01 X36.532042 Y183.133393 Z-0.125000
G01 X37.970818 Y183.047695 Z-0.125000
G01 X39.523576 Y183.139532 Z-0.125000
G01 X41.218759 Y183.451052 Z-0.125000
G01 X42.714526 Y183.883724 Z-0.125000
G01 X45.606312 Y184.891018 Z-0.125000
G01 X46.802916 Y185.208121 Z-0.125000
G01 X47.800102 Y185.337396 Z-0.125000
G01 X48.797263 Y185.292338 Z-0.125000
G01 X49.794450 Y185.041645 Z-0.125000
G01 X50.835928 Y184.555395 Z-0.125000
G01 X51.810943 Y183.926031 Z-0.125000
G01 X53.938243 Y182.356763 Z-0.125000
G01 X54.780305 Y181.853076 Z-0.125000
G01 X55.578049 Y181.534254 Z-0.125000
G01 X56.375767 Y181.410376 Z-0.125000
G01 X57.173511 Y181.496604 Z-0.125000
G01 X58.070976 Y181.826221 Z-0.125000
G01 X60.674685 Y183.455999 Z-0.125000
G01 X61.561064 Y183.909495 Z-0.125000
G01 X62.358808 Y184.157726 Z-0.125000
G01 X63.056831 Y184.228899 Z-0.125000
G01 X63.754854 Y184.166299 Z-0.125000
G01 X64.552598 Y183.956458 Z-0.125000
G01 X67.942965 Y182.591369 Z-0.125000
G01 X68.840431 Y182.399758 Z-0.125000
G01 X69.652409 Y182.336549 Z-0.125000
G01 X71.233637 Y182.469131 Z-0.125000
G01 X75.621190 Y183.315797 Z-0.125000
G01 X78.655454 Y183.489707 Z-0.125000
G01 X87.088667 Y183.300769 Z-0.125000
G01 X95.635862 Y183.482987 Z-0.125000
G01 X98.143051 Y183.460100 Z-0.125000
G01 X101.049098 Y183.218510 Z-0.125000
G01 X106.134674 Y182.446642 Z-0.125000
G01 X108.513619 Y182.344777 Z-0.125000
G01 X109.724484 Y182.440001 Z-0.125000
G01 X111.020808 Y182.650106 Z-0.125000
G01 X116.604964 Y183.950426 Z-0.125000
G01 X118.200453 Y184.150583 Z-0.125000
G01 X119.909897 Y184.228105 Z-0.125000
G01 X127.545366 Y183.970031 Z-0.125000
G01 X134.611055 Y184.220433 Z-0.125000
G01 X137.118217 Y184.174025 Z-0.125000
G01 X139.938804 Y183.802021 Z-0.125000
G01 X145.323518 Y182.598883 Z-0.125000
G01 X146.719563 Y182.412008 Z-0.125000
G01 X148.058618 Y182.338216 Z-0.125000
G01 X150.409094 Y182.440609 Z-0.125000
G01 X155.694113 Y183.096881 Z-0.125000
G01 X158.657152 Y183.338260 Z-0.125000
G01 X162.531864 Y183.455338 Z-0.125000
G01 X168.457914 Y183.452375 Z-0.125000
G00 Z3.000000

(End cutting path id: polyline30573)


(Start cutting path id: polyline30575)
(Change tool to Default tool)

G00 Z3.000000
G00 X12.101347 Y182.905243

G00 Z4.875000 (Fast pre-penetrate)
G01 Z-0.125000 F400.0(Penetrate)
G01 X12.998786 Y182.837378 Z-0.125000 F800.000000
G01 X13.995973 Y182.555518 Z-0.125000
G01 X14.937730 Y182.115701 Z-0.125000
G01 X17.685503 Y180.549714 Z-0.125000
G01 X18.582943 Y180.219673 Z-0.125000
G01 X19.508904 Y180.086799 Z-0.125000
G01 X20.477569 Y180.201496 Z-0.125000
G01 X21.574477 Y180.622871 Z-0.125000
G01 X22.560551 Y181.197651 Z-0.125000
G01 X24.865148 Y182.754854 Z-0.125000
G01 X26.261168 Y183.492935 Z-0.125000
G01 X27.457797 Y183.875337 Z-0.125000
G01 X28.739861 Y184.019693 Z-0.125000
G01 X30.549026 Y183.862214 Z-0.125000
G01 X34.936580 Y182.984856 Z-0.125000
G01 X37.173100 Y182.813327 Z-0.125000
G01 X38.426668 Y182.858280 Z-0.125000
G01 X39.722992 Y183.007849 Z-0.125000
G01 X44.609152 Y183.956829 Z-0.125000
G01 X45.606312 Y184.020858 Z-0.125000
G01 X46.603499 Y183.953892 Z-0.125000
G01 X47.700381 Y183.693595 Z-0.125000
G01 X48.885898 Y183.177976 Z-0.125000
G01 X49.860913 Y182.593935 Z-0.125000
G01 X52.076849 Y181.064301 Z-0.125000
G01 X53.085095 Y180.496639 Z-0.125000
G01 X53.882839 Y180.203110 Z-0.125000
G01 X54.723314 Y180.086694 Z-0.125000
G01 X55.378606 Y180.144637 Z-0.125000
G01 X56.176350 Y180.384376 Z-0.125000
G01 X57.040558 Y180.816466 Z-0.125000
G01 X59.766160 Y182.474105 Z-0.125000
G01 X60.663625 Y182.796685 Z-0.125000
G01 X61.461343 Y182.904794 Z-0.125000
G01 X62.259087 Y182.842220 Z-0.125000
G01 X63.056831 Y182.633570 Z-0.125000
G01 X66.447224 Y181.270676 Z-0.125000
G01 X67.344663 Y181.077134 Z-0.125000
G01 X68.170903 Y181.013448 Z-0.125000
G01 X69.737870 Y181.151614 Z-0.125000
G01 X73.926007 Y181.991691 Z-0.125000
G01 X75.350548 Y182.128375 Z-0.125000
G01 X76.832054 Y182.166792 Z-0.125000
G01 X86.518861 Y181.880381 Z-0.125000
G01 X90.051706 Y181.929752 Z-0.125000
G01 X96.205668 Y182.155098 Z-0.125000
G01 X98.598901 Y182.143006 Z-0.125000
G01 X101.447957 Y181.902236 Z-0.125000
G01 X106.533533 Y181.114069 Z-0.125000
G01 X108.855514 Y181.024058 Z-0.125000
G01 X111.220251 Y181.309543 Z-0.125000
G01 X115.308640 Y182.287654 Z-0.125000
G01 X117.003850 Y182.618462 Z-0.125000
G01 X118.699033 Y182.821238 Z-0.125000
G01 X120.593659 Y182.904000 Z-0.125000
G01 X126.747648 Y182.787821 Z-0.125000
G01 X133.129549 Y182.905799 Z-0.125000
G01 X135.636711 Y182.830261 Z-0.125000
G01 X138.443037 Y182.456325 Z-0.125000
G01 X143.827777 Y181.263850 Z-0.125000
G01 X145.124101 Y181.089437 Z-0.125000
G01 X146.463156 Y181.014771 Z-0.125000
G01 X148.713911 Y181.120763 Z-0.125000
G01 X153.899208 Y181.819527 Z-0.125000
G01 X156.833751 Y182.068711 Z-0.125000
G01 X160.138658 Y182.160098 Z-0.125000
G01 X168.457914 Y182.166078 Z-0.125000
G00 Z3.000000

(End cutting path id: polyline30575)


(Start cutting path id: polyline30577)
(Change tool to Default tool)

G00 Z3.000000
G00 X12.101347 Y181.581693

G00 Z4.875000 (Fast pre-penetrate)
G01 Z-0.125000 F400.0(Penetrate)
G01 X12.998786 Y181.522586 Z-0.125000 F800.000000
G01 X13.995973 Y181.260225 Z-0.125000
G01 X14.993133 Y180.815937 Z-0.125000
G01 X17.984641 Y179.177666 Z-0.125000
G01 X18.981828 Y178.854001 Z-0.125000
G01 X19.850798 Y178.763382 Z-0.125000
G01 X20.876454 Y178.902817 Z-0.125000
G01 X21.873614 Y179.270534 Z-0.125000
G01 X22.826483 Y179.781868 Z-0.125000
G01 X25.485596 Y181.434691 Z-0.125000
G01 X26.959191 Y182.136656 Z-0.125000
G01 X28.454958 Y182.554380 Z-0.125000
G01 X29.993455 Y182.696593 Z-0.125000
G01 X36.261400 Y182.296861 Z-0.125000
G01 X38.198756 Y182.353958 Z-0.125000
G01 X42.301406 Y182.690217 Z-0.125000
G01 X43.412549 Y182.680163 Z-0.125000
G01 X44.409709 Y182.569673 Z-0.125000
G01 X45.606312 Y182.272229 Z-0.125000
G01 X46.802916 Y181.776479 Z-0.125000
G01 X51.090774 Y179.222962 Z-0.125000
G01 X51.988213 Y178.894086 Z-0.125000
G01 X52.885679 Y178.764043 Z-0.125000
G01 X53.683423 Y178.835190 Z-0.125000
G01 X54.481141 Y179.077124 Z-0.125000
G01 X55.356434 Y179.504505 Z-0.125000
G01 X58.070976 Y181.120499 Z-0.125000
G01 X58.968415 Y181.452656 Z-0.125000
G01 X59.865881 Y181.581984 Z-0.125000
G01 X60.663625 Y181.520760 Z-0.125000
G01 X61.461343 Y181.316370 Z-0.125000
G01 X64.851736 Y179.956281 Z-0.125000
G01 X65.749201 Y179.757976 Z-0.125000
G01 X66.575415 Y179.690825 Z-0.125000
G01 X68.142408 Y179.829201 Z-0.125000
G01 X72.230824 Y180.673803 Z-0.125000
G01 X74.780716 Y180.843718 Z-0.125000
G01 X81.846405 Y180.525081 Z-0.125000
G01 X85.835099 Y180.456316 Z-0.125000
G01 X90.165662 Y180.529182 Z-0.125000
G01 X96.661518 Y180.825330 Z-0.125000
G01 X98.940768 Y180.827182 Z-0.125000
G01 X101.647400 Y180.606308 Z-0.125000
G01 X106.832697 Y179.787821 Z-0.125000
G01 X109.083452 Y179.700270 Z-0.125000
G01 X111.419667 Y179.976521 Z-0.125000
G01 X115.607804 Y180.955452 Z-0.125000
G01 X117.302987 Y181.275730 Z-0.125000
G01 X119.226109 Y181.494804 Z-0.125000
G01 X121.391403 Y181.580212 Z-0.125000
G01 X131.761999 Y181.581799 Z-0.125000
G01 X134.354647 Y181.478321 Z-0.125000
G01 X137.146712 Y181.098565 Z-0.125000
G01 X142.531453 Y179.921276 Z-0.125000
G01 X144.981650 Y179.692253 Z-0.125000
G01 X147.218144 Y179.801526 Z-0.125000
G01 X152.303720 Y180.531299 Z-0.125000
G01 X155.238263 Y180.782388 Z-0.125000
G01 X157.859407 Y180.843242 Z-0.125000
G01 X168.457914 Y180.828346 Z-0.125000
G00 Z3.000000

(End cutting path id: polyline30577)


(Start cutting path id: polyline30579)
(Change tool to Default tool)

G00 Z3.000000
G00 X12.101347 Y180.256768

G00 Z4.875000 (Fast pre-penetrate)
G01 Z-0.125000 F400.0(Penetrate)
G01 X13.098507 Y180.197422 Z-0.125000 F800.000000
G01 X14.095668 Y179.941490 Z-0.125000
G01 X15.192576 Y179.463019 Z-0.125000
G01 X18.184084 Y177.870441 Z-0.125000
G01 X19.181244 Y177.548046 Z-0.125000
G01 X20.078710 Y177.440625 Z-0.125000
G01 X21.175591 Y177.561196 Z-0.125000
G01 X22.272500 Y177.930527 Z-0.125000
G01 X26.161473 Y180.050155 Z-0.125000
G01 X27.956377 Y180.795538 Z-0.125000
G01 X29.851003 Y181.222496 Z-0.125000
G01 X32.158749 Y181.372382 Z-0.125000
G01 X39.680262 Y181.363809 Z-0.125000
G01 X41.119038 Y181.273639 Z-0.125000
G01 X42.315641 Y181.089093 Z-0.125000
G01 X43.611965 Y180.733070 Z-0.125000
G01 X44.808568 Y180.243882 Z-0.125000
G01 X48.198961 Y178.339308 Z-0.125000
G01 X49.196148 Y177.855201 Z-0.125000
G01 X50.093587 Y177.559026 Z-0.125000
G01 X50.991053 Y177.441075 Z-0.125000
G01 X51.788797 Y177.505581 Z-0.125000
G01 X52.686236 Y177.765322 Z-0.125000
G01 X53.672337 Y178.238608 Z-0.125000
G01 X56.475488 Y179.847775 Z-0.125000
G01 X57.372953 Y180.152495 Z-0.125000
G01 X58.270393 Y180.260207 Z-0.125000
G01 X59.068137 Y180.186468 Z-0.125000
G01 X59.865881 Y179.975516 Z-0.125000
G01 X63.256274 Y178.622597 Z-0.125000
G01 X64.153713 Y178.429240 Z-0.125000
G01 X64.979953 Y178.367354 Z-0.125000
G01 X66.546919 Y178.517637 Z-0.125000
G01 X70.435892 Y179.347581 Z-0.125000
G01 X72.957316 Y179.521015 Z-0.125000
G01 X80.250916 Y179.128533 Z-0.125000
G01 X85.037355 Y179.041273 Z-0.125000
G01 X89.595856 Y179.109245 Z-0.125000
G01 X96.775501 Y179.483841 Z-0.125000
G01 X99.396618 Y179.504876 Z-0.125000
G01 X102.046258 Y179.277361 Z-0.125000
G01 X106.932392 Y178.479378 Z-0.125000
G01 X109.197408 Y178.374154 Z-0.125000
G01 X111.619110 Y178.652178 Z-0.125000
G01 X115.807220 Y179.612376 Z-0.125000
G01 X117.701873 Y179.955328 Z-0.125000
G01 X119.795915 Y180.172630 Z-0.125000
G01 X122.303103 Y180.256477 Z-0.125000
G01 X130.280466 Y180.253725 Z-0.125000
G01 X133.257739 Y180.120640 Z-0.125000
G01 X136.049831 Y179.731015 Z-0.125000
G01 X141.235128 Y178.604076 Z-0.125000
G01 X143.728056 Y178.368677 Z-0.125000
G01 X145.921819 Y178.484908 Z-0.125000
G01 X150.907701 Y179.237356 Z-0.125000
G01 X153.756757 Y179.480693 Z-0.125000
G01 X156.377901 Y179.518263 Z-0.125000
G01 X163.785458 Y179.394465 Z-0.125000
G01 X168.457914 Y179.454896 Z-0.125000
G00 Z3.000000

(End cutting path id: polyline30579)


(Start cutting path id: polyline30581)
(Change tool to Default tool)

G00 Z3.000000
G00 X12.101347 Y178.928878

G00 Z4.875000 (Fast pre-penetrate)
G01 Z-0.125000 F400.0(Penetrate)
G01 X13.098507 Y178.893292 Z-0.125000 F800.000000
G01 X14.195389 Y178.638366 Z-0.125000
G01 X15.391992 Y178.136981 Z-0.125000
G01 X18.483248 Y176.547975 Z-0.125000
G01 X19.580129 Y176.214998 Z-0.125000
G01 X20.534560 Y176.117499 Z-0.125000
G01 X21.574477 Y176.224681 Z-0.125000
G01 X22.671358 Y176.548531 Z-0.125000
G01 X26.859469 Y178.568860 Z-0.125000
G01 X28.953538 Y179.324404 Z-0.125000
G01 X31.346744 Y179.774512 Z-0.125000
G01 X34.324017 Y179.939003 Z-0.125000
G01 X37.928087 Y179.830524 Z-0.125000
G01 X39.324133 Y179.660477 Z-0.125000
G01 X40.620458 Y179.391528 Z-0.125000
G01 X42.814247 Y178.626778 Z-0.125000
G01 X47.002358 Y176.566787 Z-0.125000
G01 X47.999519 Y176.249129 Z-0.125000
G01 X49.025201 Y176.118160 Z-0.125000
G01 X49.894145 Y176.189889 Z-0.125000
G01 X50.791610 Y176.441825 Z-0.125000
G01 X51.788797 Y176.900850 Z-0.125000
G01 X54.680583 Y178.512028 Z-0.125000
G01 X55.677744 Y178.840825 Z-0.125000
G01 X56.546714 Y178.937107 Z-0.125000
G01 X57.273232 Y178.876941 Z-0.125000
G01 X58.070976 Y178.681202 Z-0.125000
G01 X61.561064 Y177.301614 Z-0.125000
G01 X62.458530 Y177.107119 Z-0.125000
G01 X63.270509 Y177.044518 Z-0.125000
G01 X64.851736 Y177.197289 Z-0.125000
G01 X68.640988 Y178.025936 Z-0.125000
G01 X71.019959 Y178.197888 Z-0.125000
G01 X78.427516 Y177.748309 Z-0.125000
G01 X84.239611 Y177.647318 Z-0.125000
G01 X90.051706 Y177.733916 Z-0.125000
G01 X97.231351 Y178.156587 Z-0.125000
G01 X99.624557 Y178.187543 Z-0.125000
G01 X102.245701 Y177.967781 Z-0.125000
G01 X107.131835 Y177.154241 Z-0.125000
G01 X109.311364 Y177.049942 Z-0.125000
G01 X111.718831 Y177.319235 Z-0.125000
G01 X116.006663 Y178.283455 Z-0.125000
G01 X118.001010 Y178.629476 Z-0.125000
G01 X120.251765 Y178.845429 Z-0.125000
G01 X123.100848 Y178.929566 Z-0.125000
G01 X129.254810 Y178.917052 Z-0.125000
G01 X132.459995 Y178.748089 Z-0.125000
G01 X135.052644 Y178.374471 Z-0.125000
G01 X140.138220 Y177.279150 Z-0.125000
G01 X142.474461 Y177.048011 Z-0.125000
G01 X144.725216 Y177.160379 Z-0.125000
G01 X149.711098 Y177.941402 Z-0.125000
G01 X152.389207 Y178.169181 Z-0.125000
G01 X155.010351 Y178.186538 Z-0.125000
G01 X162.873758 Y177.975745 Z-0.125000
G01 X168.457914 Y178.061126 Z-0.125000
G00 Z3.000000

(End cutting path id: polyline30581)


(Start cutting path id: polyline30583)
(Change tool to Default tool)

G00 Z3.000000
G00 X12.101347 Y177.595407

G00 Z4.875000 (Fast pre-penetrate)
G01 Z-0.125000 F400.0(Penetrate)
G01 X13.198229 Y177.580087 Z-0.125000 F800.000000
G01 X14.394832 Y177.319817 Z-0.125000
G01 X15.491714 Y176.884790 Z-0.125000
G01 X18.882107 Y175.216594 Z-0.125000
G01 X19.978988 Y174.898750 Z-0.125000
G01 X20.990410 Y174.794504 Z-0.125000
G01 X22.073057 Y174.887056 Z-0.125000
G01 X23.269660 Y175.197464 Z-0.125000
G01 X27.358076 Y176.892939 Z-0.125000
G01 X29.352423 Y177.543284 Z-0.125000
G01 X31.546187 Y177.963441 Z-0.125000
G01 X33.868167 Y178.120154 Z-0.125000
G01 X36.432320 Y178.002229 Z-0.125000
G01 X38.825553 Y177.573129 Z-0.125000
G01 X40.919595 Y176.889526 Z-0.125000
G01 X44.908290 Y175.197411 Z-0.125000
G01 X46.005198 Y174.897771 Z-0.125000
G01 X46.973863 Y174.794822 Z-0.125000
G01 X47.899824 Y174.868085 Z-0.125000
G01 X48.896984 Y175.139441 Z-0.125000
G01 X49.894145 Y175.583570 Z-0.125000
G01 X52.785957 Y177.154558 Z-0.125000
G01 X53.783118 Y177.493913 Z-0.125000
G01 X54.723314 Y177.613716 Z-0.125000
G01 X55.478328 Y177.560138 Z-0.125000
G01 X56.375767 Y177.341592 Z-0.125000
G01 X59.865881 Y175.969544 Z-0.125000
G01 X60.763320 Y175.779547 Z-0.125000
G01 X61.561064 Y175.721524 Z-0.125000
G01 X63.156553 Y175.884057 Z-0.125000
G01 X66.846083 Y176.707492 Z-0.125000
G01 X69.082603 Y176.875106 Z-0.125000
G01 X76.604116 Y176.377822 Z-0.125000
G01 X83.327911 Y176.283048 Z-0.125000
G01 X90.279617 Y176.364117 Z-0.125000
G01 X97.573218 Y176.827613 Z-0.125000
G01 X99.966451 Y176.864284 Z-0.125000
G01 X102.445117 Y176.649946 Z-0.125000
G01 X107.231556 Y175.833998 Z-0.125000
G01 X109.425320 Y175.727503 Z-0.125000
G01 X111.718831 Y175.979995 Z-0.125000
G01 X116.006663 Y176.930589 Z-0.125000
G01 X118.100732 Y177.289205 Z-0.125000
G01 X120.479703 Y177.510343 Z-0.125000
G01 X123.556698 Y177.597259 Z-0.125000
G01 X128.571048 Y177.572547 Z-0.125000
G01 X131.761999 Y177.381544 Z-0.125000
G01 X134.254926 Y177.012001 Z-0.125000
G01 X139.141060 Y175.962877 Z-0.125000
G01 X141.562761 Y175.723641 Z-0.125000
G01 X143.728056 Y175.840877 Z-0.125000
G01 X148.514468 Y176.619968 Z-0.125000
G01 X151.249568 Y176.855738 Z-0.125000
G01 X153.642801 Y176.856797 Z-0.125000
G01 X162.076014 Y176.559247 Z-0.125000
G01 X168.457914 Y176.659894 Z-0.125000
G00 Z3.000000

(End cutting path id: polyline30583)


(Start cutting path id: polyline30585)
(Change tool to Default tool)

G00 Z3.000000
G00 X12.101347 Y176.252383

G00 Z4.875000 (Fast pre-penetrate)
G01 Z-0.125000 F400.0(Penetrate)
G01 X13.397645 Y176.261538 Z-0.125000 F800.000000
G01 X14.594274 Y176.020661 Z-0.125000
G01 X15.790878 Y175.567113 Z-0.125000
G01 X19.280965 Y173.919105 Z-0.125000
G01 X20.477569 Y173.584328 Z-0.125000
G01 X21.674198 Y173.471325 Z-0.125000
G01 X22.671358 Y173.544138 Z-0.125000
G01 X23.867962 Y173.796048 Z-0.125000
G01 X27.856656 Y175.126794 Z-0.125000
G01 X29.751282 Y175.631777 Z-0.125000
G01 X31.546187 Y175.922369 Z-0.125000
G01 X33.412317 Y176.023387 Z-0.125000
G01 X35.136022 Y175.936524 Z-0.125000
G01 X36.930927 Y175.657548 Z-0.125000
G01 X38.825553 Y175.156666 Z-0.125000
G01 X43.113385 Y173.715085 Z-0.125000
G01 X44.409709 Y173.492650 Z-0.125000
G01 X45.492357 Y173.500032 Z-0.125000
G01 X46.404057 Y173.666323 Z-0.125000
G01 X47.401217 Y174.011206 Z-0.125000
G01 X51.190469 Y175.931100 Z-0.125000
G01 X52.087935 Y176.197826 Z-0.125000
G01 X52.899913 Y176.290721 Z-0.125000
G01 X53.683423 Y176.239181 Z-0.125000
G01 X54.580862 Y176.026747 Z-0.125000
G01 X58.170698 Y174.631865 Z-0.125000
G01 X59.068137 Y174.449382 Z-0.125000
G01 X59.851620 Y174.398688 Z-0.125000
G01 X61.361648 Y174.555798 Z-0.125000
G01 X65.051179 Y175.390689 Z-0.125000
G01 X67.145247 Y175.552191 Z-0.125000
G01 X74.210910 Y175.041784 Z-0.125000
G01 X80.023005 Y174.950608 Z-0.125000
G01 X90.393600 Y175.003631 Z-0.125000
G01 X93.128700 Y175.134599 Z-0.125000
G01 X97.915112 Y175.503349 Z-0.125000
G01 X100.080407 Y175.545365 Z-0.125000
G01 X102.544839 Y175.337138 Z-0.125000
G01 X107.331277 Y174.506347 Z-0.125000
G01 X109.425320 Y174.403610 Z-0.125000
G01 X111.718831 Y174.653799 Z-0.125000
G01 X116.106384 Y175.618495 Z-0.125000
G01 X118.200453 Y175.965178 Z-0.125000
G01 X120.707615 Y176.184121 Z-0.125000
G01 X123.784609 Y176.262993 Z-0.125000
G01 X128.229154 Y176.222459 Z-0.125000
G01 X131.163697 Y176.025239 Z-0.125000
G01 X133.656624 Y175.645112 Z-0.125000
G01 X138.343315 Y174.638268 Z-0.125000
G01 X140.651061 Y174.402340 Z-0.125000
G01 X142.830590 Y174.515237 Z-0.125000
G01 X147.617029 Y175.314966 Z-0.125000
G01 X150.223912 Y175.537877 Z-0.125000
G01 X152.503163 Y175.526870 Z-0.125000
G01 X161.164314 Y175.157883 Z-0.125000
G01 X164.925070 Y175.155184 Z-0.125000
G01 X168.457914 Y175.260700 Z-0.125000
G00 Z3.000000

(End cutting path id: polyline30585)


(Start cutting path id: polyline30587)
(Change tool to Default tool)

G00 Z3.000000
G00 X12.101347 Y174.894755

G00 Z4.875000 (Fast pre-penetrate)
G01 Z-0.125000 F400.0(Penetrate)
G01 X13.468897 Y174.957540 Z-0.125000 F800.000000
G01 X14.793691 Y174.738439 Z-0.125000
G01 X16.090015 Y174.283912 Z-0.125000
G01 X18.682664 Y173.067465 Z-0.125000
G01 X19.879267 Y172.590422 Z-0.125000
G01 X21.175591 Y172.258053 Z-0.125000
G01 X22.471916 Y172.148410 Z-0.125000
G01 X24.466263 Y172.358806 Z-0.125000
G01 X29.751282 Y173.572819 Z-0.125000
G01 X31.247049 Y173.759853 Z-0.125000
G01 X32.614599 Y173.820442 Z-0.125000
G01 X34.238557 Y173.749904 Z-0.125000
G01 X35.834019 Y173.533952 Z-0.125000
G01 X41.318480 Y172.261175 Z-0.125000
G01 X42.315641 Y172.156956 Z-0.125000
G01 X43.312828 Y172.176879 Z-0.125000
G01 X44.309988 Y172.343116 Z-0.125000
G01 X45.406870 Y172.698769 Z-0.125000
G01 X48.498125 Y174.244066 Z-0.125000
G01 X49.495286 Y174.663298 Z-0.125000
G01 X50.392751 Y174.899173 Z-0.125000
G01 X51.190469 Y174.968865 Z-0.125000
G01 X51.988213 Y174.900920 Z-0.125000
G01 X52.885679 Y174.677876 Z-0.125000
G01 X56.375767 Y173.321121 Z-0.125000
G01 X57.173511 Y173.146920 Z-0.125000
G01 X58.028220 Y173.076329 Z-0.125000
G01 X59.566717 Y173.227009 Z-0.125000
G01 X63.256274 Y174.073383 Z-0.125000
G01 X65.207865 Y174.229011 Z-0.125000
G01 X66.746362 Y174.166358 Z-0.125000
G01 X71.703748 Y173.722308 Z-0.125000
G01 X75.920354 Y173.627720 Z-0.125000
G01 X90.507556 Y173.655422 Z-0.125000
G01 X93.356612 Y173.784697 Z-0.125000
G01 X98.257007 Y174.184059 Z-0.125000
G01 X100.308319 Y174.221391 Z-0.125000
G01 X102.644560 Y174.014858 Z-0.125000
G01 X107.231556 Y173.195206 Z-0.125000
G01 X109.425320 Y173.081779 Z-0.125000
G01 X111.619110 Y173.323714 Z-0.125000
G01 X115.906942 Y174.268566 Z-0.125000
G01 X118.001010 Y174.621203 Z-0.125000
G01 X120.479703 Y174.845146 Z-0.125000
G01 X123.670654 Y174.930500 Z-0.125000
G01 X127.773304 Y174.885415 Z-0.125000
G01 X130.665090 Y174.682348 Z-0.125000
G01 X133.058323 Y174.313466 Z-0.125000
G01 X137.745014 Y173.305008 Z-0.125000
G01 X139.967299 Y173.079372 Z-0.125000
G01 X142.132567 Y173.195762 Z-0.125000
G01 X146.819285 Y174.001364 Z-0.125000
G01 X149.426168 Y174.220465 Z-0.125000
G01 X151.591463 Y174.195409 Z-0.125000
G01 X156.833751 Y173.888757 Z-0.125000
G01 X160.252613 Y173.774934 Z-0.125000
G01 X164.583202 Y173.760302 Z-0.125000
G01 X168.457914 Y173.869152 Z-0.125000
G00 Z3.000000

(End cutting path id: polyline30587)


(Start cutting path id: polyline30589)
(Change tool to Default tool)

G00 Z3.000000
G00 X12.101347 Y173.516489

G00 Z4.875000 (Fast pre-penetrate)
G01 Z-0.125000 F400.0(Penetrate)
G01 X13.582853 Y173.644865 Z-0.125000 F800.000000
G01 X15.092855 Y173.446560 Z-0.125000
G01 X16.488900 Y172.993170 Z-0.125000
G01 X19.280965 Y171.758256 Z-0.125000
G01 X20.577290 Y171.278038 Z-0.125000
G01 X21.973336 Y170.946489 Z-0.125000
G01 X23.497598 Y170.825468 Z-0.125000
G01 X25.264007 Y170.938763 Z-0.125000
G01 X29.651561 Y171.563840 Z-0.125000
G01 X31.930811 Y171.691237 Z-0.125000
G01 X34.537694 Y171.539975 Z-0.125000
G01 X39.224412 Y170.873517 Z-0.125000
G01 X41.218759 Y170.874046 Z-0.125000
G01 X42.315641 Y171.064149 Z-0.125000
G01 X43.412549 Y171.406043 Z-0.125000
G01 X47.600660 Y173.323291 Z-0.125000
G01 X48.498125 Y173.562553 Z-0.125000
G01 X49.367069 Y173.645553 Z-0.125000
G01 X50.193309 Y173.579725 Z-0.125000
G01 X51.090774 Y173.363005 Z-0.125000
G01 X54.680583 Y171.986194 Z-0.125000
G01 X55.478328 Y171.817390 Z-0.125000
G01 X56.318802 Y171.752964 Z-0.125000
G01 X57.771812 Y171.895177 Z-0.125000
G01 X61.461343 Y172.752823 Z-0.125000
G01 X63.384464 Y172.906414 Z-0.125000
G01 X64.951457 Y172.833098 Z-0.125000
G01 X69.424497 Y172.400266 Z-0.125000
G01 X72.957316 Y172.304725 Z-0.125000
G01 X80.592810 Y172.367458 Z-0.125000
G01 X90.963406 Y172.323987 Z-0.125000
G01 X93.698506 Y172.451437 Z-0.125000
G01 X98.370962 Y172.856408 Z-0.125000
G01 X100.308319 Y172.901281 Z-0.125000
G01 X102.644560 Y172.697181 Z-0.125000
G01 X107.231556 Y171.862978 Z-0.125000
G01 X109.311364 Y171.758785 Z-0.125000
G01 X111.419667 Y171.990295 Z-0.125000
G01 X115.707525 Y172.943111 Z-0.125000
G01 X117.801568 Y173.298208 Z-0.125000
G01 X120.251765 Y173.520484 Z-0.125000
G01 X123.442715 Y173.605548 Z-0.125000
G01 X127.431410 Y173.558267 Z-0.125000
G01 X130.266231 Y173.354459 Z-0.125000
G01 X132.659438 Y172.979280 Z-0.125000
G01 X137.146712 Y171.997174 Z-0.125000
G01 X139.397467 Y171.757039 Z-0.125000
G01 X141.534266 Y171.871339 Z-0.125000
G01 X146.121262 Y172.680301 Z-0.125000
G01 X148.628450 Y172.897947 Z-0.125000
G01 X150.679762 Y172.871727 Z-0.125000
G01 X155.922051 Y172.534119 Z-0.125000
G01 X159.340913 Y172.410003 Z-0.125000
G01 X164.241308 Y172.383545 Z-0.125000
G01 X168.457914 Y172.488108 Z-0.125000
G00 Z3.000000

(End cutting path id: polyline30589)


(Start cutting path id: polyline30591)
(Change tool to Default tool)

G00 Z3.000000
G00 X12.101347 Y172.111368

G00 Z4.875000 (Fast pre-penetrate)
G01 Z-0.125000 F400.0(Penetrate)
G01 X13.810765 Y172.322188 Z-0.125000 F800.000000
G01 X15.391992 Y172.170873 Z-0.125000
G01 X16.887759 Y171.738439 Z-0.125000
G01 X19.978988 Y170.469551 Z-0.125000
G01 X21.474755 Y169.963960 Z-0.125000
G01 X23.169939 Y169.616139 Z-0.125000
G01 X24.979104 Y169.502553 Z-0.125000
G01 X31.133067 Y169.783461 Z-0.125000
G01 X37.059117 Y169.507845 Z-0.125000
G01 X39.124690 Y169.595819 Z-0.125000
G01 X40.321294 Y169.814576 Z-0.125000
G01 X41.517923 Y170.178880 Z-0.125000
G01 X45.805755 Y172.018685 Z-0.125000
G01 X46.703194 Y172.243078 Z-0.125000
G01 X47.543669 Y172.322294 Z-0.125000
G01 X48.298683 Y172.276098 Z-0.125000
G01 X49.096427 Y172.112612 Z-0.125000
G01 X52.686236 Y170.745326 Z-0.125000
G01 X53.683423 Y170.507413 Z-0.125000
G01 X54.609358 Y170.429864 Z-0.125000
G01 X56.176350 Y170.596366 Z-0.125000
G01 X59.666438 Y171.425807 Z-0.125000
G01 X61.561064 Y171.583446 Z-0.125000
G01 X63.156553 Y171.502907 Z-0.125000
G01 X67.373159 Y171.072007 Z-0.125000
G01 X70.450153 Y170.981863 Z-0.125000
G01 X79.795066 Y171.095078 Z-0.125000
G01 X91.305300 Y170.995331 Z-0.125000
G01 X93.926418 Y171.118944 Z-0.125000
G01 X98.484918 Y171.533784 Z-0.125000
G01 X100.308319 Y171.579265 Z-0.125000
G01 X102.544839 Y171.384347 Z-0.125000
G01 X107.032113 Y170.547021 Z-0.125000
G01 X109.083452 Y170.434706 Z-0.125000
G01 X111.220251 Y170.671957 Z-0.125000
G01 X115.508083 Y171.643268 Z-0.125000
G01 X117.602151 Y171.997280 Z-0.125000
G01 X120.023853 Y172.210984 Z-0.125000
G01 X123.214803 Y172.289935 Z-0.125000
G01 X127.203498 Y172.241887 Z-0.125000
G01 X130.066789 Y172.030618 Z-0.125000
G01 X132.360300 Y171.661339 Z-0.125000
G01 X136.847575 Y170.662697 Z-0.125000
G01 X138.941617 Y170.435394 Z-0.125000
G01 X141.035686 Y170.542947 Z-0.125000
G01 X145.622682 Y171.367625 Z-0.125000
G01 X148.058618 Y171.577175 Z-0.125000
G01 X149.996001 Y171.545875 Z-0.125000
G01 X155.124307 Y171.188926 Z-0.125000
G01 X158.429213 Y171.060471 Z-0.125000
G01 X164.013370 Y171.024488 Z-0.125000
G01 X168.457914 Y171.118362 Z-0.125000
G00 Z3.000000

(End cutting path id: polyline30591)


(Start cutting path id: polyline30593)
(Change tool to Default tool)

G00 Z3.000000
G00 X12.101347 Y170.673995

G00 Z4.875000 (Fast pre-penetrate)
G01 Z-0.125000 F400.0(Penetrate)
G01 X14.038703 Y170.988504 Z-0.125000 F800.000000
G01 X15.790878 Y170.886455 Z-0.125000
G01 X17.386339 Y170.482437 Z-0.125000
G01 X20.876454 Y169.178942 Z-0.125000
G01 X22.671358 Y168.647950 Z-0.125000
G01 X24.865148 Y168.289546 Z-0.125000
G01 X27.372310 Y168.180829 Z-0.125000
G01 X34.665911 Y168.190777 Z-0.125000
G01 X37.230064 Y168.394612 Z-0.125000
G01 X38.426668 Y168.634166 Z-0.125000
G01 X39.623297 Y168.988098 Z-0.125000
G01 X43.911129 Y170.688018 Z-0.125000
G01 X44.808568 Y170.907516 Z-0.125000
G01 X45.720268 Y170.998929 Z-0.125000
G01 X46.503778 Y170.958501 Z-0.125000
G01 X47.401217 Y170.780331 Z-0.125000
G01 X51.090774 Y169.398572 Z-0.125000
G01 X51.988213 Y169.188520 Z-0.125000
G01 X52.899913 Y169.107240 Z-0.125000
G01 X54.481141 Y169.269376 Z-0.125000
G01 X57.971255 Y170.106755 Z-0.125000
G01 X59.851620 Y170.260319 Z-0.125000
G01 X61.261927 Y170.187691 Z-0.125000
G01 X65.350316 Y169.749383 Z-0.125000
G01 X68.056947 Y169.658922 Z-0.125000
G01 X78.997349 Y169.820609 Z-0.125000
G01 X91.533212 Y169.668129 Z-0.125000
G01 X94.154356 Y169.794838 Z-0.125000
G01 X98.484918 Y170.208911 Z-0.125000
G01 X100.308319 Y170.255530 Z-0.125000
G01 X102.544839 Y170.045345 Z-0.125000
G01 X106.832697 Y169.221937 Z-0.125000
G01 X108.741558 Y169.109595 Z-0.125000
G01 X110.921087 Y169.351556 Z-0.125000
G01 X115.109224 Y170.327947 Z-0.125000
G01 X117.203266 Y170.691854 Z-0.125000
G01 X119.568003 Y170.903044 Z-0.125000
G01 X122.758953 Y170.979985 Z-0.125000
G01 X126.975560 Y170.939027 Z-0.125000
G01 X129.867373 Y170.733076 Z-0.125000
G01 X132.160857 Y170.359326 Z-0.125000
G01 X136.548411 Y169.352482 Z-0.125000
G01 X138.713705 Y169.111103 Z-0.125000
G01 X140.736548 Y169.222969 Z-0.125000
G01 X145.223823 Y170.050584 Z-0.125000
G01 X147.602768 Y170.255530 Z-0.125000
G01 X149.426168 Y170.222351 Z-0.125000
G01 X154.440519 Y169.851380 Z-0.125000
G01 X157.631469 Y169.720517 Z-0.125000
G01 X163.671502 Y169.678475 Z-0.125000
G01 X168.457914 Y169.759120 Z-0.125000
G00 Z3.000000

(End cutting path id: polyline30593)


(Start cutting path id: polyline30595)
(Change tool to Default tool)

G00 Z3.000000
G00 X12.101347 Y169.201114

G00 Z4.875000 (Fast pre-penetrate)
G01 Z-0.125000 F400.0(Penetrate)
G01 X13.297950 Y169.491097 Z-0.125000 F800.000000
G01 X14.295110 Y169.637967 Z-0.125000
G01 X15.292297 Y169.675405 Z-0.125000
G01 X16.189736 Y169.610239 Z-0.125000
G01 X17.884920 Y169.259349 Z-0.125000
G01 X21.873614 Y167.943895 Z-0.125000
G01 X23.967683 Y167.413036 Z-0.125000
G01 X26.574566 Y167.062225 Z-0.125000
G01 X29.765517 Y166.944750 Z-0.125000
G01 X33.298361 Y167.042567 Z-0.125000
G01 X35.834019 Y167.367263 Z-0.125000
G01 X37.928087 Y167.911060 Z-0.125000
G01 X42.016503 Y169.368754 Z-0.125000
G01 X43.013664 Y169.592908 Z-0.125000
G01 X44.010851 Y169.677125 Z-0.125000
G01 X44.808568 Y169.628442 Z-0.125000
G01 X45.706034 Y169.451701 Z-0.125000
G01 X49.395564 Y168.094178 Z-0.125000
G01 X50.392751 Y167.860816 Z-0.125000
G01 X51.304451 Y167.784060 Z-0.125000
G01 X52.885679 Y167.951727 Z-0.125000
G01 X56.375767 Y168.794053 Z-0.125000
G01 X58.142202 Y168.937351 Z-0.125000
G01 X59.566717 Y168.861469 Z-0.125000
G01 X63.384464 Y168.431363 Z-0.125000
G01 X66.005609 Y168.336086 Z-0.125000
G01 X78.085648 Y168.535899 Z-0.125000
G01 X91.761150 Y168.343839 Z-0.125000
G01 X94.268312 Y168.470098 Z-0.125000
G01 X98.484918 Y168.889382 Z-0.125000
G01 X100.194363 Y168.932668 Z-0.125000
G01 X102.345422 Y168.726531 Z-0.125000
G01 X106.533533 Y167.901244 Z-0.125000
G01 X108.399664 Y167.786574 Z-0.125000
G01 X110.522228 Y168.027292 Z-0.125000
G01 X114.610617 Y169.016012 Z-0.125000
G01 X116.604964 Y169.379734 Z-0.125000
G01 X118.884215 Y169.594522 Z-0.125000
G01 X121.961209 Y169.669664 Z-0.125000
G01 X126.861604 Y169.641010 Z-0.125000
G01 X129.667930 Y169.459347 Z-0.125000
G01 X132.061136 Y169.071601 Z-0.125000
G01 X136.448689 Y168.029884 Z-0.125000
G01 X138.599749 Y167.787209 Z-0.125000
G01 X140.537105 Y167.900768 Z-0.125000
G01 X144.924659 Y168.729521 Z-0.125000
G01 X147.260900 Y168.933462 Z-0.125000
G01 X149.084300 Y168.893854 Z-0.125000
G01 X153.870713 Y168.519892 Z-0.125000
G01 X156.947707 Y168.387336 Z-0.125000
G01 X163.443564 Y168.343151 Z-0.125000
G01 X168.457914 Y168.409032 Z-0.125000
G00 Z3.000000

(End cutting path id: polyline30595)


(Start cutting path id: polyline30597)
(Change tool to Default tool)

G00 Z3.000000
G00 X12.101347 Y167.693176

G00 Z4.875000 (Fast pre-penetrate)
G01 Z-0.125000 F400.0(Penetrate)
G01 X13.497366 Y168.066053 Z-0.125000 F800.000000
G01 X14.693969 Y168.278619 Z-0.125000
G01 X15.748147 Y168.352993 Z-0.125000
G01 X16.887759 Y168.303992 Z-0.125000
G01 X18.682664 Y167.987445 Z-0.125000
G01 X22.671358 Y166.859898 Z-0.125000
G01 X24.665706 Y166.411219 Z-0.125000
G01 X26.959191 Y166.103720 Z-0.125000
G01 X29.423649 Y165.994818 Z-0.125000
G01 X31.930811 Y166.093349 Z-0.125000
G01 X34.138835 Y166.387141 Z-0.125000
G01 X36.133183 Y166.853575 Z-0.125000
G01 X40.121877 Y168.069307 Z-0.125000
G01 X41.218759 Y168.283487 Z-0.125000
G01 X42.187450 Y168.354131 Z-0.125000
G01 X43.113385 Y168.296796 Z-0.125000
G01 X44.010851 Y168.123150 Z-0.125000
G01 X47.800102 Y166.770311 Z-0.125000
G01 X48.797263 Y166.539885 Z-0.125000
G01 X49.708963 Y166.461410 Z-0.125000
G01 X51.290190 Y166.622885 Z-0.125000
G01 X54.780305 Y167.469868 Z-0.125000
G01 X56.546714 Y167.614383 Z-0.125000
G01 X57.871534 Y167.543131 Z-0.125000
G01 X61.675020 Y167.102230 Z-0.125000
G01 X64.068253 Y167.013065 Z-0.125000
G01 X71.133915 Y167.197136 Z-0.125000
G01 X77.173948 Y167.237273 Z-0.125000
G01 X83.213955 Y167.203618 Z-0.125000
G01 X91.761150 Y167.017907 Z-0.125000
G01 X94.154356 Y167.134350 Z-0.125000
G01 X98.257007 Y167.559218 Z-0.125000
G01 X99.966451 Y167.610917 Z-0.125000
G01 X102.046258 Y167.412639 Z-0.125000
G01 X106.134674 Y166.584362 Z-0.125000
G01 X108.057769 Y166.465299 Z-0.125000
G01 X110.123342 Y166.719220 Z-0.125000
G01 X114.012316 Y167.704844 Z-0.125000
G01 X115.906942 Y168.070524 Z-0.125000
G01 X117.972515 Y168.281132 Z-0.125000
G01 X120.707615 Y168.353020 Z-0.125000
G01 X126.861604 Y168.341166 Z-0.125000
G01 X129.667930 Y168.182602 Z-0.125000
G01 X132.061136 Y167.795728 Z-0.125000
G01 X136.448689 Y166.711573 Z-0.125000
G01 X138.485767 Y166.466384 Z-0.125000
G01 X140.437384 Y166.576795 Z-0.125000
G01 X144.725216 Y167.405998 Z-0.125000
G01 X147.032962 Y167.611182 Z-0.125000
G01 X148.742406 Y167.573135 Z-0.125000
G01 X153.414863 Y167.193194 Z-0.125000
G01 X156.377901 Y167.058891 Z-0.125000
G01 X168.457914 Y167.066458 Z-0.125000
G00 Z3.000000

(End cutting path id: polyline30597)


(Start cutting path id: polyline30599)
(Change tool to Default tool)

G00 Z3.000000
G00 X12.101347 Y166.155684

G00 Z4.875000 (Fast pre-penetrate)
G01 Z-0.125000 F400.0(Penetrate)
G01 X13.796530 Y166.629341 Z-0.125000 F800.000000
G01 X15.092855 Y166.894135 Z-0.125000
G01 X16.317953 Y167.019204 Z-0.125000
G01 X17.457565 Y167.014071 Z-0.125000
G01 X19.480408 Y166.753245 Z-0.125000
G01 X23.469103 Y165.853107 Z-0.125000
G01 X25.463450 Y165.497455 Z-0.125000
G01 X27.600249 Y165.284836 Z-0.125000
G01 X29.765517 Y165.258695 Z-0.125000
G01 X31.346744 Y165.362888 Z-0.125000
G01 X32.842511 Y165.560769 Z-0.125000
G01 X34.537694 Y165.896975 Z-0.125000
G01 X38.326973 Y166.814681 Z-0.125000
G01 X39.423854 Y166.981104 Z-0.125000
G01 X40.478006 Y167.030369 Z-0.125000
G01 X41.418202 Y166.960784 Z-0.125000
G01 X42.415362 Y166.765760 Z-0.125000
G01 X46.304335 Y165.425647 Z-0.125000
G01 X47.201801 Y165.224484 Z-0.125000
G01 X48.113501 Y165.139633 Z-0.125000
G01 X49.595007 Y165.265971 Z-0.125000
G01 X52.885679 Y166.076733 Z-0.125000
G01 X54.723314 Y166.288690 Z-0.125000
G01 X56.076629 Y166.241674 Z-0.125000
G01 X59.666438 Y165.808895 Z-0.125000
G01 X61.789003 Y165.693669 Z-0.125000
G01 X69.538453 Y165.893244 Z-0.125000
G01 X76.718098 Y165.925127 Z-0.125000
G01 X83.669805 Y165.890943 Z-0.125000
G01 X91.191318 Y165.690283 Z-0.125000
G01 X93.670010 Y165.776431 Z-0.125000
G01 X97.758426 Y166.210744 Z-0.125000
G01 X99.396618 Y166.291653 Z-0.125000
G01 X101.348236 Y166.150895 Z-0.125000
G01 X105.436651 Y165.306135 Z-0.125000
G01 X107.374008 Y165.138495 Z-0.125000
G01 X109.425320 Y165.364555 Z-0.125000
G01 X113.912594 Y166.531524 Z-0.125000
G01 X116.305827 Y166.912868 Z-0.125000
G01 X118.656303 Y167.027882 Z-0.125000
G01 X126.861604 Y167.031322 Z-0.125000
