%
(Header)
(Generated by gcodetools from Inkscape.)
(Using default header. To add your own header create file "header" in the output dir.)
M3
(Header end.)
G21 (All units in mm)

(Start cutting path id: polyline1087216)
(Change tool to Default tool)

G00 Z3.000000
G00 X105.357103 Y148.030334

G00 Z4.875000 (Fast pre-penetrate)
G01 Z-0.125000 F400.0(Penetrate)
G01 X105.444703 Y148.064034 Z-0.125000 F800.000000
G01 X104.781393 Y147.787434 Z-0.125000
G01 X106.436923 Y148.533964 Z-0.125000
G01 X104.995473 Y147.760264 Z-0.125000
G01 X103.710203 Y147.365874 Z-0.125000
G01 X105.131093 Y148.076624 Z-0.125000
G01 X107.499303 Y149.083074 Z-0.125000
G01 X106.381493 Y148.328084 Z-0.125000
G01 X104.904033 Y147.579604 Z-0.125000
G01 X103.567433 Y147.120024 Z-0.125000
G01 X102.623453 Y146.991704 Z-0.125000
G01 X103.917423 Y147.664354 Z-0.125000
G01 X108.558593 Y149.673174 Z-0.125000
G01 X106.767493 Y148.378724 Z-0.125000
G01 X104.798513 Y147.344654 Z-0.125000
G01 X103.038853 Y146.777204 Z-0.125000
G01 X102.086563 Y146.633934 Z-0.125000
G01 X101.533553 Y146.663634 Z-0.125000
G01 X101.790563 Y146.864554 Z-0.125000
G01 X102.617953 Y147.264604 Z-0.125000
G01 X109.609703 Y150.301604 Z-0.125000
G01 X108.487283 Y149.356804 Z-0.125000
G01 X107.197943 Y148.432004 Z-0.125000
G01 X105.957973 Y147.679444 Z-0.125000
G01 X104.749223 Y147.084874 Z-0.125000
G01 X103.555713 Y146.651934 Z-0.125000
G01 X102.462483 Y146.396774 Z-0.125000
G01 X101.212293 Y146.285674 Z-0.125000
G01 X100.440240 Y146.397304 Z-0.125000
G01 X100.714210 Y146.616804 Z-0.125000
G01 X101.543953 Y147.017694 Z-0.125000
G01 X110.650383 Y150.965154 Z-0.125000
G01 X109.126013 Y149.611594 Z-0.125000
G01 X107.504303 Y148.375644 Z-0.125000
G01 X106.014323 Y147.435584 Z-0.125000
G01 X104.622323 Y146.743114 Z-0.125000
G01 X103.161273 Y146.238104 Z-0.125000
G01 X101.824013 Y145.983154 Z-0.125000
G01 X100.374650 Y145.945954 Z-0.125000
G01 X99.733960 Y146.028154 Z-0.125000
G01 X99.350970 Y146.160974 Z-0.125000
G01 X99.536370 Y146.358294 Z-0.125000
G01 X100.375780 Y146.777984 Z-0.125000
G01 X111.687473 Y151.657084 Z-0.125000
G01 X109.639673 Y149.758694 Z-0.125000
G01 X107.907233 Y148.358044 Z-0.125000
G01 X106.201013 Y147.221714 Z-0.125000
G01 X104.505433 Y146.356764 Z-0.125000
G01 X102.828663 Y145.798964 Z-0.125000
G01 X101.195333 Y145.550104 Z-0.125000
G01 X100.318790 Y145.540104 Z-0.125000
G01 X99.390320 Y145.632804 Z-0.125000
G01 X98.666710 Y145.796794 Z-0.125000
G01 X98.256710 Y145.991374 Z-0.125000
G01 X98.500600 Y146.232274 Z-0.125000
G01 X99.317820 Y146.634624 Z-0.125000
G01 X105.167393 Y149.044694 Z-0.125000
G01 X112.709503 Y152.385024 Z-0.125000
G01 X110.168283 Y149.908524 Z-0.125000
G01 X108.228443 Y148.251784 Z-0.125000
G01 X106.231313 Y146.871454 Z-0.125000
G01 X104.339113 Y145.900834 Z-0.125000
G01 X102.406763 Y145.297554 Z-0.125000
G01 X100.525640 Y145.095174 Z-0.125000
G01 X99.563170 Y145.142074 Z-0.125000
G01 X98.594720 Y145.300794 Z-0.125000
G01 X97.590910 Y145.610834 Z-0.125000
G01 X97.164800 Y145.871284 Z-0.125000
G01 X97.376630 Y146.096924 Z-0.125000
G01 X98.226120 Y146.521684 Z-0.125000
G01 X105.115883 Y149.305104 Z-0.125000
G01 X113.721933 Y153.133884 Z-0.125000
G01 X110.520763 Y149.877454 Z-0.125000
G01 X108.530883 Y148.098574 Z-0.125000
G01 X106.376353 Y146.545234 Z-0.125000
G01 X105.245233 Y145.897324 Z-0.125000
G01 X104.205233 Y145.410304 Z-0.125000
G01 X103.167883 Y145.040474 Z-0.125000
G01 X102.049463 Y144.770194 Z-0.125000
G01 X100.944640 Y144.632564 Z-0.125000
G01 X99.969680 Y144.618164 Z-0.125000
G01 X98.867580 Y144.725874 Z-0.125000
G01 X97.715000 Y144.989534 Z-0.125000
G01 X96.643335 Y145.402174 Z-0.125000
G01 X96.082021 Y145.760744 Z-0.125000
G01 X96.248815 Y145.999424 Z-0.125000
G01 X97.107920 Y146.440644 Z-0.125000
G01 X105.114773 Y149.617444 Z-0.125000
G01 X114.724283 Y153.919114 Z-0.125000
G01 X110.997413 Y149.945234 Z-0.125000
G01 X108.837803 Y147.915454 Z-0.125000
G01 X107.644953 Y146.960014 Z-0.125000
G01 X106.397633 Y146.096284 Z-0.125000
G01 X105.206923 Y145.404504 Z-0.125000
G01 X104.094293 Y144.881214 Z-0.125000
G01 X102.959103 Y144.484234 Z-0.125000
G01 X101.707223 Y144.204414 Z-0.125000
G01 X100.503840 Y144.088624 Z-0.125000
G01 X99.308460 Y144.121924 Z-0.125000
G01 X98.078750 Y144.314304 Z-0.125000
G01 X96.841850 Y144.681914 Z-0.125000
G01 X95.722849 Y145.194964 Z-0.125000
G01 X94.992044 Y145.728364 Z-0.125000
G01 X95.207970 Y146.002924 Z-0.125000
G01 X95.969891 Y146.392654 Z-0.125000
G01 X105.059183 Y149.936964 Z-0.125000
G01 X115.710963 Y154.728614 Z-0.125000
G01 X114.904513 Y153.927164 Z-0.125000
G01 X111.386773 Y149.903284 Z-0.125000
G01 X109.089453 Y147.649114 Z-0.125000
G01 X107.761953 Y146.550294 Z-0.125000
G01 X106.505233 Y145.656084 Z-0.125000
G01 X105.195863 Y144.878494 Z-0.125000
G01 X103.969993 Y144.299194 Z-0.125000
G01 X102.640043 Y143.852524 Z-0.125000
G01 X101.331593 Y143.593654 Z-0.125000
G01 X100.046110 Y143.509254 Z-0.125000
G01 X98.681660 Y143.602854 Z-0.125000
G01 X97.287140 Y143.898234 Z-0.125000
G01 X95.924938 Y144.397684 Z-0.125000
G01 X94.638322 Y145.104094 Z-0.125000
G01 X93.906353 Y145.741584 Z-0.125000
G01 X94.177127 Y146.051494 Z-0.125000
G01 X94.925580 Y146.425104 Z-0.125000
G01 X101.541493 Y148.896154 Z-0.125000
G01 X104.960653 Y150.268524 Z-0.125000
G01 X108.942263 Y152.003084 Z-0.125000
G01 X116.691013 Y155.553104 Z-0.125000
G01 X115.733823 Y154.598664 Z-0.125000
G01 X111.782033 Y149.841884 Z-0.125000
G01 X109.473703 Y147.466644 Z-0.125000
G01 X108.123883 Y146.290854 Z-0.125000
G01 X106.709383 Y145.236124 Z-0.125000
G01 X105.340673 Y144.390674 Z-0.125000
G01 X103.947773 Y143.712154 Z-0.125000
G01 X102.510293 Y143.227754 Z-0.125000
G01 X101.072623 Y142.957824 Z-0.125000
G01 X99.577830 Y142.896924 Z-0.125000
G01 X98.100420 Y143.054404 Z-0.125000
G01 X96.527580 Y143.465334 Z-0.125000
G01 X95.115049 Y144.066514 Z-0.125000
G01 X93.744480 Y144.906994 Z-0.125000
G01 X92.832885 Y145.740824 Z-0.125000
G01 X92.884475 Y145.926064 Z-0.125000
G01 X93.041346 Y146.067034 Z-0.125000
G01 X93.764453 Y146.445044 Z-0.125000
G01 X100.987373 Y149.091854 Z-0.125000
G01 X104.786973 Y150.598554 Z-0.125000
G01 X109.166413 Y152.503814 Z-0.125000
G01 X116.527913 Y155.950254 Z-0.125000
G01 X117.656233 Y156.411874 Z-0.125000
G01 X117.147993 Y155.967054 Z-0.125000
G01 X116.538893 Y155.273344 Z-0.125000
G01 X112.137363 Y149.706744 Z-0.125000
G01 X109.715903 Y147.116844 Z-0.125000
G01 X108.232403 Y145.787214 Z-0.125000
G01 X106.757903 Y144.666194 Z-0.125000
G01 X105.219383 Y143.710524 Z-0.125000
G01 X103.809633 Y143.031234 Z-0.125000
G01 X102.187203 Y142.510134 Z-0.125000
G01 X100.604120 Y142.261584 Z-0.125000
G01 X98.979710 Y142.262374 Z-0.125000
G01 X97.454330 Y142.495874 Z-0.125000
G01 X95.809576 Y143.006304 Z-0.125000
G01 X94.170535 Y143.806464 Z-0.125000
G01 X92.647964 Y144.878264 Z-0.125000
G01 X91.991982 Y145.499024 Z-0.125000
G01 X91.749836 Y145.833194 Z-0.125000
G01 X91.832356 Y146.041474 Z-0.125000
G01 X92.017141 Y146.194724 Z-0.125000
G01 X92.950988 Y146.647184 Z-0.125000
G01 X100.854960 Y149.476614 Z-0.125000
G01 X106.051703 Y151.563754 Z-0.125000
G01 X110.675623 Y153.622844 Z-0.125000
G01 X117.558493 Y156.877004 Z-0.125000
G01 X118.602093 Y157.291614 Z-0.125000
G01 X118.031733 Y156.781834 Z-0.125000
G01 X117.250703 Y155.860664 Z-0.125000
G01 X112.573423 Y149.637854 Z-0.125000
G01 X110.059303 Y146.826544 Z-0.125000
G01 X108.486433 Y145.360674 Z-0.125000
G01 X106.908183 Y144.121424 Z-0.125000
G01 X105.271603 Y143.079944 Z-0.125000
G01 X103.691703 Y142.313394 Z-0.125000
G01 X102.033213 Y141.791634 Z-0.125000
G01 X100.296850 Y141.543774 Z-0.125000
G01 X98.513190 Y141.591974 Z-0.125000
G01 X96.724423 Y141.942544 Z-0.125000
G01 X94.929489 Y142.606544 Z-0.125000
G01 X93.218085 Y143.561534 Z-0.125000
G01 X91.617991 Y144.822034 Z-0.125000
G01 X90.887132 Y145.601684 Z-0.125000
G01 X90.672423 Y145.967704 Z-0.125000
G01 X90.789977 Y146.198314 Z-0.125000
G01 X91.004819 Y146.362754 Z-0.125000
G01 X91.903582 Y146.785034 Z-0.125000
G01 X100.173420 Y149.685864 Z-0.125000
G01 X105.574923 Y151.821484 Z-0.125000
G01 X110.748273 Y154.116054 Z-0.125000
G01 X118.377963 Y157.739684 Z-0.125000
G01 X119.550733 Y158.179364 Z-0.125000
G01 X118.935603 Y157.648214 Z-0.125000
G01 X118.270993 Y156.871554 Z-0.125000
G01 X113.443353 Y150.107854 Z-0.125000
G01 X111.907623 Y148.181554 Z-0.125000
G01 X110.387043 Y146.484624 Z-0.125000
G01 X108.682483 Y144.842354 Z-0.125000
G01 X107.047223 Y143.524574 Z-0.125000
G01 X105.323703 Y142.404584 Z-0.125000
G01 X103.631663 Y141.574674 Z-0.125000
G01 X101.816513 Y141.017034 Z-0.125000
G01 X99.913760 Y140.786184 Z-0.125000
G01 X98.102050 Y140.884384 Z-0.125000
G01 X96.185519 Y141.317824 Z-0.125000
G01 X94.165664 Y142.150224 Z-0.125000
G01 X92.361179 Y143.256314 Z-0.125000
G01 X90.668613 Y144.701794 Z-0.125000
G01 X89.966276 Y145.496334 Z-0.125000
G01 X89.605464 Y146.060554 Z-0.125000
G01 X89.677774 Y146.309984 Z-0.125000
G01 X89.867215 Y146.481004 Z-0.125000
G01 X90.855566 Y146.955354 Z-0.125000
G01 X99.668920 Y149.991054 Z-0.125000
G01 X105.646703 Y152.340864 Z-0.125000
G01 X111.010503 Y154.726934 Z-0.125000
G01 X119.051143 Y158.568634 Z-0.125000
G01 X120.473383 Y159.105124 Z-0.125000
G01 X119.752073 Y158.452184 Z-0.125000
G01 X118.995503 Y157.536784 Z-0.125000
G01 X113.911503 Y150.055764 Z-0.125000
G01 X112.288223 Y147.928914 Z-0.125000
G01 X110.728243 Y146.119134 Z-0.125000
G01 X108.983873 Y144.375374 Z-0.125000
G01 X107.184383 Y142.881984 Z-0.125000
G01 X105.377463 Y141.685704 Z-0.125000
G01 X103.613883 Y140.809184 Z-0.125000
G01 X101.645803 Y140.211894 Z-0.125000
G01 X99.605340 Y139.996674 Z-0.125000
G01 X97.624690 Y140.156304 Z-0.125000
G01 X95.533744 Y140.707694 Z-0.125000
G01 X93.385883 Y141.693324 Z-0.125000
G01 X91.376558 Y143.047194 Z-0.125000
G01 X90.396118 Y143.897354 Z-0.125000
G01 X89.547837 Y144.775184 Z-0.125000
G01 X88.851559 Y145.660824 Z-0.125000
G01 X88.529932 Y146.266514 Z-0.125000
G01 X88.575542 Y146.448784 Z-0.125000
G01 X88.863329 Y146.719974 Z-0.125000
G01 X89.761537 Y147.139474 Z-0.125000
G01 X98.986600 Y150.261184 Z-0.125000
G01 X105.346873 Y152.731814 Z-0.125000
G01 X111.063943 Y155.270364 Z-0.125000
G01 X119.780963 Y159.456594 Z-0.125000
G01 X120.864623 Y159.919724 Z-0.125000
G01 X121.372193 Y160.051354 Z-0.125000
G01 X121.359093 Y159.965054 Z-0.125000
G01 X120.456493 Y159.158584 Z-0.125000
G01 X119.659433 Y158.140884 Z-0.125000
G01 X114.375393 Y149.972354 Z-0.125000
G01 X112.751983 Y147.747284 Z-0.125000
G01 X111.113203 Y145.764104 Z-0.125000
G01 X109.202173 Y143.790764 Z-0.125000
G01 X107.331593 Y142.202524 Z-0.125000
G01 X105.460723 Y140.940324 Z-0.125000
G01 X103.543973 Y139.979914 Z-0.125000
G01 X102.541733 Y139.628234 Z-0.125000
G01 X101.432973 Y139.358914 Z-0.125000
G01 X100.425560 Y139.217994 Z-0.125000
G01 X99.310980 Y139.172394 Z-0.125000
G01 X98.184070 Y139.240494 Z-0.125000
G01 X97.081890 Y139.415514 Z-0.125000
G01 X96.012262 Y139.686714 Z-0.125000
G01 X94.882253 Y140.081864 Z-0.125000
G01 X93.715943 Y140.609074 Z-0.125000
G01 X92.629934 Y141.213494 Z-0.125000
G01 X91.529532 Y141.946464 Z-0.125000
G01 X90.506706 Y142.750164 Z-0.125000
G01 X89.524070 Y143.655914 Z-0.125000
G01 X88.623799 Y144.639504 Z-0.125000
G01 X87.857724 Y145.670534 Z-0.125000
G01 X87.469131 Y146.408824 Z-0.125000
G01 X87.483211 Y146.611284 Z-0.125000
G01 X87.729618 Y146.899964 Z-0.125000
G01 X88.621872 Y147.336874 Z-0.125000
G01 X98.288050 Y150.555164 Z-0.125000
G01 X101.869743 Y151.875934 Z-0.125000
G01 X105.232953 Y153.229144 Z-0.125000
G01 X111.292073 Y155.924434 Z-0.125000
G01 X120.527543 Y160.385754 Z-0.125000
G01 X121.744913 Y160.896484 Z-0.125000
G01 X122.291863 Y160.993484 Z-0.125000
G01 X121.268693 Y160.006564 Z-0.125000
G01 X120.394613 Y158.864224 Z-0.125000
G01 X114.836773 Y149.856724 Z-0.125000
G01 X113.124313 Y147.413004 Z-0.125000
G01 X111.386183 Y145.242174 Z-0.125000
G01 X109.435303 Y143.175644 Z-0.125000
G01 X107.430263 Y141.441414 Z-0.125000
G01 X105.388633 Y140.060174 Z-0.125000
G01 X103.438333 Y139.094844 Z-0.125000
G01 X102.315073 Y138.715614 Z-0.125000
G01 X101.243983 Y138.472784 Z-0.125000
G01 X100.065440 Y138.332454 Z-0.125000
G01 X98.894740 Y138.318654 Z-0.125000
G01 X97.740210 Y138.423324 Z-0.125000
G01 X96.508122 Y138.661604 Z-0.125000
G01 X95.314693 Y139.014954 Z-0.125000
G01 X94.169073 Y139.468264 Z-0.125000
G01 X92.955059 Y140.072654 Z-0.125000
G01 X91.708792 Y140.832484 Z-0.125000
G01 X90.495863 Y141.719764 Z-0.125000
G01 X89.407473 Y142.658634 Z-0.125000
G01 X88.397109 Y143.680114 Z-0.125000
G01 X87.485275 Y144.775384 Z-0.125000
G01 X86.733462 Y145.902614 Z-0.125000
G01 X86.393710 Y146.681124 Z-0.125000
G01 X86.437260 Y146.901394 Z-0.125000
G01 X86.604185 Y147.106494 Z-0.125000
G01 X87.574597 Y147.598754 Z-0.125000
G01 X97.521000 Y150.853764 Z-0.125000
G01 X101.387543 Y152.262694 Z-0.125000
G01 X104.900813 Y153.662764 Z-0.125000
G01 X111.319183 Y156.513204 Z-0.125000
G01 X121.176403 Y161.304144 Z-0.125000
G01 X122.611663 Y161.897334 Z-0.125000
G01 X123.164853 Y161.986434 Z-0.125000
G01 X123.029203 Y161.731324 Z-0.125000
G01 X122.003173 Y160.787524 Z-0.125000
G01 X121.011333 Y159.433204 Z-0.125000
G01 X115.370413 Y149.824044 Z-0.125000
G01 X113.588923 Y147.165954 Z-0.125000
G01 X111.823403 Y144.870144 Z-0.125000
G01 X109.770023 Y142.616134 Z-0.125000
G01 X107.700823 Y140.770394 Z-0.125000
G01 X105.575213 Y139.289944 Z-0.125000
G01 X103.450873 Y138.215794 Z-0.125000
G01 X102.250673 Y137.810504 Z-0.125000
G01 X101.040253 Y137.547824 Z-0.125000
G01 X99.828320 Y137.422914 Z-0.125000
G01 X98.622880 Y137.429914 Z-0.125000
G01 X97.346160 Y137.573424 Z-0.125000
G01 X96.144293 Y137.833194 Z-0.125000
G01 X94.870933 Y138.238664 Z-0.125000
G01 X93.548042 Y138.801224 Z-0.125000
G01 X92.202795 Y139.524384 Z-0.125000
G01 X90.868607 Y140.399804 Z-0.125000
G01 X89.584955 Y141.405304 Z-0.125000
G01 X88.460555 Y142.438874 Z-0.125000
G01 X87.296415 Y143.700694 Z-0.125000
G01 X86.337723 Y144.956014 Z-0.125000
G01 X85.607764 Y146.175424 Z-0.125000
G01 X85.325136 Y146.990764 Z-0.125000
G01 X85.401256 Y147.227434 Z-0.125000
G01 X85.603530 Y147.441794 Z-0.125000
G01 X86.529889 Y147.889814 Z-0.125000
G01 X96.625780 Y151.136654 Z-0.125000
G01 X100.789820 Y152.634384 Z-0.125000
G01 X104.457133 Y154.078524 Z-0.125000
G01 X111.370493 Y157.141954 Z-0.125000
G01 X121.898583 Y162.290584 Z-0.125000
G01 X123.464463 Y162.922804 Z-0.125000
G01 X123.894493 Y163.015104 Z-0.125000
G01 X124.055913 Y162.951704 Z-0.125000
G01 X123.887983 Y162.674454 Z-0.125000
G01 X122.749003 Y161.601304 Z-0.125000
G01 X121.707053 Y160.136774 Z-0.125000
G01 X120.577043 Y158.227094 Z-0.125000
G01 X117.457153 Y152.466084 Z-0.125000
G01 X115.853223 Y149.683754 Z-0.125000
G01 X114.013043 Y146.826094 Z-0.125000
G01 X112.180963 Y144.363674 Z-0.125000
G01 X110.040453 Y141.951514 Z-0.125000
G01 X107.890343 Y139.994264 Z-0.125000
G01 X105.584263 Y138.373084 Z-0.125000
G01 X104.478913 Y137.761314 Z-0.125000
G01 X103.355943 Y137.255374 Z-0.125000
G01 X102.110303 Y136.847174 Z-0.125000
G01 X100.831280 Y136.587754 Z-0.125000
G01 X99.549270 Y136.479664 Z-0.125000
G01 X98.273580 Y136.515164 Z-0.125000
G01 X96.908570 Y136.704924 Z-0.125000
G01 X95.572051 Y137.037794 Z-0.125000
G01 X94.176453 Y137.538144 Z-0.125000
G01 X92.838376 Y138.164074 Z-0.125000
G01 X91.394412 Y139.003944 Z-0.125000
G01 X90.057129 Y139.941884 Z-0.125000
G01 X88.724634 Y141.045384 Z-0.125000
G01 X87.463736 Y142.271994 Z-0.125000
G01 X86.282557 Y143.629864 Z-0.125000
G01 X85.314208 Y144.972044 Z-0.125000
G01 X84.577767 Y146.273684 Z-0.125000
G01 X84.257198 Y147.197054 Z-0.125000
G01 X84.303978 Y147.465394 Z-0.125000
G01 X84.479873 Y147.700764 Z-0.125000
G01 X85.349320 Y148.158104 Z-0.125000
G01 X91.356526 Y150.005234 Z-0.125000
G01 X95.979194 Y151.532014 Z-0.125000
G01 X100.478350 Y153.140524 Z-0.125000
G01 X104.498043 Y154.720774 Z-0.125000
G01 X111.599063 Y157.881934 Z-0.125000
G01 X122.542583 Y163.275334 Z-0.125000
G01 X124.252513 Y163.957454 Z-0.125000
G01 X124.666183 Y164.045254 Z-0.125000
G01 X124.902033 Y163.993454 Z-0.125000
G01 X124.733793 Y163.627674 Z-0.125000
G01 X123.902573 Y162.886894 Z-0.125000
G01 X123.403513 Y162.318914 Z-0.125000
G01 X122.342843 Y160.760964 Z-0.125000
G01 X121.171303 Y158.687294 Z-0.125000
G01 X118.083713 Y152.688344 Z-0.125000
G01 X116.383023 Y149.588984 Z-0.125000
G01 X114.482203 Y146.511774 Z-0.125000
G01 X112.624933 Y143.923144 Z-0.125000
G01 X110.386373 Y141.320304 Z-0.125000
G01 X108.076373 Y139.172154 Z-0.125000
G01 X106.900513 Y138.271434 Z-0.125000
G01 X105.694723 Y137.475624 Z-0.125000
G01 X104.437183 Y136.778704 Z-0.125000
G01 X103.355043 Y136.293014 Z-0.125000
G01 X102.055333 Y135.869444 Z-0.125000
G01 X100.640070 Y135.596234 Z-0.125000
G01 X99.321220 Y135.506034 Z-0.125000
G01 X97.906740 Y135.575434 Z-0.125000
G01 X96.509339 Y135.805014 Z-0.125000
G01 X95.042648 Y136.212894 Z-0.125000
G01 X93.620248 Y136.767884 Z-0.125000
G01 X92.164855 Y137.498424 Z-0.125000
G01 X90.620958 Y138.456614 Z-0.125000
G01 X89.159691 Y139.547494 Z-0.125000
G01 X87.733348 Y140.804534 Z-0.125000
G01 X86.387069 Y142.199514 Z-0.125000
G01 X85.188639 Y143.668854 Z-0.125000
G01 X84.188990 Y145.155154 Z-0.125000
G01 X83.442627 Y146.611524 Z-0.125000
G01 X83.186537 Y147.566114 Z-0.125000
G01 X83.270617 Y147.851784 Z-0.125000
G01 X83.485724 Y148.095304 Z-0.125000
G01 X84.308102 Y148.503744 Z-0.125000
G01 X89.945843 Y150.190624 Z-0.125000
G01 X94.997004 Y151.838234 Z-0.125000
G01 X99.981330 Y153.603144 Z-0.125000
G01 X104.244623 Y155.267314 Z-0.125000
G01 X107.863253 Y156.819414 Z-0.125000
G01 X111.713463 Y158.595644 Z-0.125000
G01 X123.193583 Y164.297864 Z-0.125000
G01 X124.903323 Y164.982844 Z-0.125000
G01 X125.397643 Y165.096664 Z-0.125000
G01 X125.715933 Y165.059664 Z-0.125000
G01 X125.764133 Y164.974964 Z-0.125000
G01 X125.642103 Y164.685994 Z-0.125000
G01 X124.268363 Y163.313994 Z-0.125000
G01 X122.984893 Y161.406244 Z-0.125000
G01 X121.779633 Y159.176864 Z-0.125000
G01 X118.596063 Y152.673774 Z-0.125000
G01 X116.926723 Y149.488354 Z-0.125000
G01 X115.027443 Y146.276814 Z-0.125000
G01 X113.089313 Y143.470084 Z-0.125000
G01 X110.802543 Y140.723074 Z-0.125000
G01 X109.604543 Y139.505254 Z-0.125000
G01 X108.360653 Y138.389344 Z-0.125000
G01 X107.156633 Y137.445524 Z-0.125000
G01 X105.874653 Y136.581184 Z-0.125000
G01 X104.586603 Y135.853154 Z-0.125000
G01 X103.368593 Y135.298054 Z-0.125000
G01 X102.004083 Y134.856384 Z-0.125000
G01 X100.622380 Y134.593154 Z-0.125000
G01 X99.127320 Y134.501554 Z-0.125000
G01 X97.636870 Y134.598054 Z-0.125000
G01 X96.162771 Y134.868954 Z-0.125000
G01 X94.614800 Y135.333854 Z-0.125000
G01 X93.111940 Y135.958534 Z-0.125000
G01 X91.573573 Y136.773294 Z-0.125000
G01 X89.940300 Y137.836684 Z-0.125000
G01 X88.429053 Y139.012964 Z-0.125000
G01 X86.914737 Y140.398114 Z-0.125000
G01 X85.526574 Y141.885734 Z-0.125000
G01 X84.238583 Y143.517394 Z-0.125000
G01 X83.171465 Y145.164634 Z-0.125000
G01 X82.417826 Y146.692554 Z-0.125000
G01 X82.112788 Y147.797024 Z-0.125000
G01 X82.169068 Y148.126324 Z-0.125000
G01 X82.360150 Y148.399904 Z-0.125000
G01 X83.135220 Y148.827054 Z-0.125000
G01 X88.617810 Y150.427014 Z-0.125000
G01 X93.982264 Y152.158974 Z-0.125000
G01 X99.464030 Y154.084004 Z-0.125000
G01 X104.065273 Y155.869624 Z-0.125000
G01 X107.919333 Y157.524534 Z-0.125000
G01 X111.903823 Y159.372704 Z-0.125000
G01 X123.960683 Y165.407614 Z-0.125000
G01 X125.763203 Y166.100344 Z-0.125000
G01 X126.328883 Y166.185244 Z-0.125000
G01 X126.581743 Y166.068484 Z-0.125000
G01 X126.527443 Y165.771574 Z-0.125000
G01 X126.386993 Y165.563504 Z-0.125000
G01 X125.294113 Y164.497684 Z-0.125000
G01 X124.719223 Y163.792464 Z-0.125000
G01 X123.638533 Y162.082724 Z-0.125000
G01 X122.344143 Y159.578574 Z-0.125000
G01 X119.211663 Y152.841124 Z-0.125000
G01 X117.484483 Y149.380554 Z-0.125000
G01 X115.533813 Y145.944274 Z-0.125000
G01 X113.501523 Y142.905594 Z-0.125000
G01 X112.324863 Y141.379054 Z-0.125000
G01 X111.087413 Y139.942234 Z-0.125000
G01 X109.865433 Y138.680804 Z-0.125000
G01 X108.595033 Y137.524044 Z-0.125000
G01 X107.287333 Y136.488254 Z-0.125000
G01 X105.995023 Y135.611294 Z-0.125000
G01 X104.583503 Y134.811904 Z-0.125000
G01 X103.356573 Y134.257634 Z-0.125000
G01 X101.956443 Y133.809324 Z-0.125000
G01 X100.435510 Y133.535714 Z-0.125000
G01 X98.905450 Y133.467114 Z-0.125000
G01 X97.277680 Y133.606154 Z-0.125000
G01 X95.667908 Y133.947654 Z-0.125000
G01 X94.089853 Y134.471074 Z-0.125000
G01 X92.462375 Y135.201804 Z-0.125000
G01 X90.900169 Y136.084084 Z-0.125000
G01 X89.164899 Y137.276264 Z-0.125000
G01 X87.561365 Y138.587704 Z-0.125000
G01 X85.993471 Y140.088524 Z-0.125000
G01 X84.481668 Y141.784714 Z-0.125000
G01 X83.166954 Y143.533664 Z-0.125000
G01 X82.087904 Y145.287774 Z-0.125000
G01 X81.343049 Y146.890194 Z-0.125000
G01 X81.035021 Y148.123894 Z-0.125000
G01 X81.069501 Y148.404164 Z-0.125000
G01 X81.237114 Y148.717244 Z-0.125000
G01 X81.537549 Y148.968604 Z-0.125000
G01 X82.096904 Y149.223844 Z-0.125000
G01 X87.279457 Y150.683604 Z-0.125000
G01 X92.928761 Y152.490844 Z-0.125000
G01 X99.007830 Y154.612084 Z-0.125000
G01 X104.050973 Y156.564494 Z-0.125000
G01 X107.953163 Y158.245344 Z-0.125000
G01 X112.075823 Y160.168154 Z-0.125000
G01 X124.521373 Y166.458754 Z-0.125000
G01 X126.484243 Y167.209374 Z-0.125000
G01 X127.020443 Y167.292774 Z-0.125000
G01 X127.363933 Y167.189324 Z-0.125000
G01 X127.385833 Y166.886244 Z-0.125000
G01 X127.224623 Y166.587474 Z-0.125000
G01 X125.595503 Y164.840294 Z-0.125000
G01 X124.928753 Y163.865784 Z-0.125000
G01 X124.193163 Y162.587214 Z-0.125000
G01 X122.922283 Y160.001204 Z-0.125000
G01 X119.747683 Y152.814564 Z-0.125000
G01 X118.084933 Y149.322964 Z-0.125000
G01 X116.103433 Y145.676924 Z-0.125000
G01 X114.099563 Y142.557034 Z-0.125000
G01 X112.855463 Y140.880664 Z-0.125000
G01 X111.608053 Y139.380234 Z-0.125000
G01 X110.299453 Y137.984564 Z-0.125000
G01 X109.001353 Y136.767134 Z-0.125000
G01 X107.638413 Y135.655434 Z-0.125000
G01 X106.260323 Y134.694864 Z-0.125000
G01 X104.882633 Y133.891374 Z-0.125000
G01 X103.476353 Y133.232594 Z-0.125000
G01 X101.995793 Y132.749934 Z-0.125000
G01 X100.403340 Y132.464324 Z-0.125000
G01 X98.799520 Y132.400424 Z-0.125000
G01 X97.090600 Y132.562804 Z-0.125000
G01 X95.407665 Y132.941124 Z-0.125000
G01 X93.789791 Y133.500564 Z-0.125000
G01 X92.032428 Y134.318814 Z-0.125000
G01 X90.344889 Y135.308994 Z-0.125000
G01 X88.499870 Y136.623974 Z-0.125000
G01 X86.720574 Y138.135874 Z-0.125000
G01 X85.024119 Y139.829054 Z-0.125000
G01 X83.483556 Y141.629384 Z-0.125000
G01 X82.086132 Y143.567664 Z-0.125000
G01 X80.989011 Y145.440684 Z-0.125000
G01 X80.254184 Y147.118614 Z-0.125000
G01 X80.041274 Y147.838544 Z-0.125000
G01 X79.952424 Y148.463674 Z-0.125000
G01 X80.024734 Y148.870284 Z-0.125000
G01 X80.238332 Y149.192604 Z-0.125000
G01 X80.929159 Y149.597094 Z-0.125000
G01 X86.123909 Y151.016404 Z-0.125000
G01 X91.829675 Y152.829964 Z-0.125000
G01 X98.598880 Y155.181424 Z-0.125000
G01 X104.010913 Y157.272904 Z-0.125000
G01 X108.059353 Y159.023724 Z-0.125000
G01 X112.342433 Y161.036144 Z-0.125000
G01 X125.050013 Y167.529764 Z-0.125000
G01 X127.109953 Y168.325944 Z-0.125000
G01 X127.665263 Y168.423044 Z-0.125000
G01 X128.106903 Y168.338044 Z-0.125000
G01 X128.213293 Y168.031554 Z-0.125000
G01 X127.989953 Y167.535704 Z-0.125000
G01 X126.213673 Y165.552624 Z-0.125000
G01 X125.517693 Y164.489574 Z-0.125000
G01 X124.809113 Y163.204474 Z-0.125000
G01 X123.555253 Y160.541384 Z-0.125000
G01 X120.339733 Y152.878654 Z-0.125000
G01 X118.645713 Y149.150304 Z-0.125000
G01 X116.670723 Y145.367054 Z-0.125000
G01 X114.594543 Y142.024864 Z-0.125000
G01 X113.341873 Y140.287664 Z-0.125000
G01 X112.015433 Y138.651744 Z-0.125000
G01 X110.662093 Y137.178494 Z-0.125000
G01 X109.246433 Y135.830704 Z-0.125000
G01 X107.853033 Y134.682674 Z-0.125000
G01 X106.389463 Y133.655304 Z-0.125000
G01 X104.885973 Y132.779794 Z-0.125000
G01 X103.454813 Y132.117064 Z-0.125000
G01 X101.852383 Y131.612454 Z-0.125000
G01 X100.223080 Y131.346464 Z-0.125000
G01 X98.581290 Y131.308764 Z-0.125000
G01 X96.838240 Y131.503284 Z-0.125000
G01 X95.110561 Y131.921004 Z-0.125000
G01 X93.314120 Y132.580744 Z-0.125000
G01 X91.449257 Y133.501334 Z-0.125000
G01 X89.645249 Y134.616264 Z-0.125000
G01 X87.699741 Y136.070174 Z-0.125000
G01 X85.820141 Y137.737844 Z-0.125000
G01 X84.079818 Y139.543544 Z-0.125000
G01 X82.435353 Y141.539224 Z-0.125000
G01 X81.022398 Y143.576984 Z-0.125000
G01 X79.882388 Y145.609254 Z-0.125000
G01 X79.124331 Y147.465354 Z-0.125000
G01 X78.863848 Y148.812594 Z-0.125000
G01 X78.911608 Y149.165544 Z-0.125000
G01 X79.104462 Y149.541464 Z-0.125000
G01 X79.433234 Y149.825754 Z-0.125000
G01 X79.890936 Y150.040944 Z-0.125000
G01 X84.709158 Y151.293114 Z-0.125000
G01 X90.315678 Y153.052934 Z-0.125000
G01 X97.767930 Y155.620824 Z-0.125000
G01 X103.718333 Y157.901024 Z-0.125000
G01 X108.050123 Y159.774754 Z-0.125000
G01 X112.456103 Y161.856314 Z-0.125000
G01 X125.809573 Y168.741724 Z-0.125000
G01 X127.074263 Y169.265964 Z-0.125000
G01 X127.963553 Y169.528644 Z-0.125000
G01 X128.577513 Y169.577744 Z-0.125000
G01 X128.949493 Y169.390744 Z-0.125000
G01 X128.976393 Y168.974604 Z-0.125000
G01 X128.738563 Y168.480094 Z-0.125000
G01 X126.849863 Y166.291944 Z-0.125000
G01 X126.167843 Y165.218444 Z-0.125000
G01 X125.434733 Y163.844094 Z-0.125000
G01 X124.108093 Y160.890634 Z-0.125000
G01 X120.950913 Y152.955564 Z-0.125000
G01 X119.224353 Y148.972474 Z-0.125000
G01 X117.207243 Y144.959464 Z-0.125000
G01 X115.112993 Y141.482914 Z-0.125000
G01 X113.779963 Y139.588204 Z-0.125000
G01 X112.411593 Y137.867334 Z-0.125000
G01 X111.037213 Y136.344364 Z-0.125000
G01 X109.576873 Y134.930454 Z-0.125000
G01 X108.049883 Y133.658184 Z-0.125000
G01 X106.553153 Y132.601354 Z-0.125000
G01 X104.994843 Y131.689654 Z-0.125000
G01 X103.487883 Y130.991764 Z-0.125000
G01 X101.849043 Y130.477884 Z-0.125000
G01 X100.066310 Y130.202904 Z-0.125000
G01 X98.350540 Y130.191704 Z-0.125000
G01 X96.519728 Y130.432634 Z-0.125000
G01 X94.656267 Y130.929094 Z-0.125000
G01 X92.730312 Y131.695274 Z-0.125000
G01 X90.858756 Y132.676774 Z-0.125000
G01 X88.970768 Y133.899754 Z-0.125000
G01 X86.934165 Y135.484714 Z-0.125000
G01 X84.979000 Y137.281394 Z-0.125000
G01 X83.091198 Y139.308474 Z-0.125000
G01 X81.402521 Y141.430324 Z-0.125000
G01 X79.896698 Y143.686484 Z-0.125000
G01 X78.767906 Y145.792694 Z-0.125000
G01 X78.016701 Y147.739424 Z-0.125000
G01 X77.835991 Y148.488774 Z-0.125000
G01 X77.768711 Y149.173594 Z-0.125000
G01 X77.824351 Y149.568434 Z-0.125000
G01 X78.032657 Y149.981454 Z-0.125000
G01 X78.378918 Y150.285884 Z-0.125000
G01 X78.853051 Y150.506334 Z-0.125000
G01 X83.467411 Y151.640124 Z-0.125000
G01 X88.872372 Y153.319014 Z-0.125000
G01 X97.282360 Y156.208414 Z-0.125000
G01 X103.696613 Y158.663694 Z-0.125000
G01 X108.114763 Y160.583354 Z-0.125000
G01 X112.698193 Y162.765244 Z-0.125000
G01 X117.001773 Y164.969174 Z-0.125000
G01 X124.191853 Y168.819124 Z-0.125000
G01 X126.361043 Y169.893804 Z-0.125000
G01 X127.593973 Y170.411464 Z-0.125000
G01 X128.579363 Y170.708244 Z-0.125000
G01 X129.176813 Y170.769844 Z-0.125000
G01 X129.654523 Y170.601804 Z-0.125000
G01 X129.759113 Y170.419744 Z-0.125000
G01 X129.775213 Y170.178844 Z-0.125000
G01 X129.489993 Y169.450574 Z-0.125000
G01 X127.489813 Y167.038634 Z-0.125000
G01 X126.731103 Y165.796254 Z-0.125000
G01 X125.974603 Y164.304454 Z-0.125000
G01 X124.723683 Y161.377554 Z-0.125000
G01 X121.583043 Y153.053424 Z-0.125000
G01 X119.904373 Y148.977354 Z-0.125000
G01 X117.860643 Y144.722034 Z-0.125000
G01 X115.751523 Y141.082854 Z-0.125000
G01 X114.404213 Y139.097844 Z-0.125000
G01 X113.030283 Y137.308434 Z-0.125000
G01 X111.549033 Y135.614544 Z-0.125000
G01 X110.065783 Y134.137324 Z-0.125000
G01 X108.512353 Y132.803664 Z-0.125000
G01 X106.877653 Y131.617354 Z-0.125000
G01 X105.281873 Y130.660544 Z-0.125000
G01 X103.647863 Y129.881454 Z-0.125000
G01 X101.943493 Y129.335144 Z-0.125000
G01 X100.103310 Y129.046244 Z-0.125000
G01 X98.245140 Y129.041244 Z-0.125000
G01 X96.385146 Y129.301774 Z-0.125000
G01 X94.436993 Y129.840464 Z-0.125000
G01 X92.464100 Y130.647634 Z-0.125000
G01 X90.459961 Y131.726284 Z-0.125000
G01 X88.445556 Y133.067064 Z-0.125000
G01 X86.294679 Y134.784574 Z-0.125000
G01 X84.161237 Y136.797264 Z-0.125000
G01 X82.217846 Y138.937394 Z-0.125000
G01 X80.411483 Y141.262524 Z-0.125000
G01 X78.872084 Y143.625864 Z-0.125000
G01 X77.663071 Y145.950364 Z-0.125000
G01 X76.896282 Y148.043584 Z-0.125000
G01 X76.713799 Y148.894724 Z-0.125000
G01 X76.668339 Y149.593464 Z-0.125000
G01 X76.772400 Y150.109294 Z-0.125000
G01 X76.955783 Y150.438044 Z-0.125000
G01 X77.321860 Y150.765514 Z-0.125000
G01 X77.814700 Y150.992474 Z-0.125000
G01 X82.226468 Y152.006144 Z-0.125000
G01 X87.221034 Y153.534694 Z-0.125000
G01 X96.584744 Y156.741524 Z-0.125000
G01 X103.555723 Y159.400144 Z-0.125000
G01 X108.158743 Y161.406444 Z-0.125000
G01 X112.941933 Y163.701474 Z-0.125000
G01 X117.325203 Y165.971384 Z-0.125000
G01 X124.594643 Y169.917274 Z-0.125000
G01 X126.945223 Y171.096234 Z-0.125000
G01 X128.236263 Y171.636644 Z-0.125000
G01 X129.286943 Y171.937954 Z-0.125000
G01 X129.961163 Y171.971754 Z-0.125000
G01 X130.402673 Y171.762754 Z-0.125000
G01 X130.513473 Y171.549744 Z-0.125000
G01 X130.527973 Y171.222344 Z-0.125000
G01 X130.247653 Y170.456584 Z-0.125000
G01 X129.771553 Y169.749514 Z-0.125000
G01 X128.633183 Y168.471844 Z-0.125000
G01 X128.090843 Y167.726804 Z-0.125000
G01 X127.351443 Y166.473074 Z-0.125000
G01 X126.577663 Y164.888324 Z-0.125000
G01 X125.304813 Y161.764814 Z-0.125000
G01 X122.225923 Y153.144874 Z-0.125000
G01 X120.532933 Y148.828834 Z-0.125000
G01 X118.520723 Y144.460034 Z-0.125000
G01 X116.337753 Y140.561154 Z-0.125000
G01 X114.927603 Y138.429094 Z-0.125000
G01 X113.438233 Y136.453814 Z-0.125000
G01 X111.936113 Y134.713544 Z-0.125000
G01 X110.353353 Y133.122004 Z-0.125000
G01 X108.717433 Y131.711794 Z-0.125000
G01 X107.049923 Y130.499604 Z-0.125000
G01 X105.292633 Y129.450964 Z-0.125000
G01 X103.591103 Y128.656154 Z-0.125000
G01 X101.747773 Y128.096324 Z-0.125000
G01 X99.928940 Y127.846054 Z-0.125000
G01 X97.969230 Y127.878954 Z-0.125000
G01 X95.969720 Y128.209044 Z-0.125000
G01 X93.985451 Y128.812934 Z-0.125000
G01 X91.859709 Y129.746354 Z-0.125000
G01 X89.822523 Y130.907484 Z-0.125000
G01 X87.693712 Y132.391504 Z-0.125000
G01 X85.443007 Y134.263774 Z-0.125000
G01 X83.223788 Y136.433594 Z-0.125000
G01 X81.156969 Y138.788464 Z-0.125000
G01 X79.258028 Y141.323654 Z-0.125000
G01 X77.669152 Y143.869574 Z-0.125000
G01 X76.508531 Y146.213784 Z-0.125000
G01 X75.768571 Y148.358234 Z-0.125000
G01 X75.596539 Y149.238154 Z-0.125000
G01 X75.562089 Y150.031324 Z-0.125000
G01 X75.674643 Y150.546604 Z-0.125000
G01 X75.872736 Y150.908684 Z-0.125000
G01 X76.260959 Y151.262534 Z-0.125000
G01 X76.727579 Y151.481614 Z-0.125000
G01 X80.955911 Y152.382464 Z-0.125000
G01 X85.655387 Y153.793724 Z-0.125000
G01 X95.876585 Y157.291864 Z-0.125000
G01 X103.298523 Y160.110204 Z-0.125000
G01 X108.093143 Y162.202004 Z-0.125000
G01 X112.983413 Y164.560994 Z-0.125000
G01 X117.651883 Y167.002914 Z-0.125000
G01 X125.216993 Y171.165344 Z-0.125000
G01 X127.518263 Y172.328554 Z-0.125000
G01 X128.922983 Y172.911274 Z-0.125000
G01 X129.925093 Y173.184644 Z-0.125000
G01 X130.728083 Y173.187644 Z-0.125000
G01 X131.133023 Y172.942724 Z-0.125000
G01 X131.251003 Y172.696394 Z-0.125000
G01 X131.263903 Y172.265284 Z-0.125000
G01 X130.957853 Y171.400944 Z-0.125000
G01 X130.446713 Y170.603274 Z-0.125000
G01 X129.353553 Y169.334544 Z-0.125000
G01 X128.706363 Y168.432074 Z-0.125000
G01 X127.937053 Y167.078284 Z-0.125000
G01 X127.147113 Y165.387124 Z-0.125000
G01 X125.928363 Y162.246784 Z-0.125000
G01 X122.846993 Y153.136174 Z-0.125000
G01 X121.178823 Y148.673684 Z-0.125000
G01 X119.138623 Y144.068314 Z-0.125000
G01 X118.057803 Y141.972874 Z-0.125000
G01 X116.945913 Y140.030404 Z-0.125000
G01 X115.492523 Y137.774644 Z-0.125000
G01 X114.005433 Y135.754604 Z-0.125000
G01 X112.420713 Y133.878054 Z-0.125000
G01 X110.825173 Y132.241234 Z-0.125000
G01 X109.116573 Y130.738954 Z-0.125000
G01 X107.370533 Y129.446804 Z-0.125000
G01 X105.589243 Y128.363764 Z-0.125000
G01 X103.734253 Y127.480744 Z-0.125000
G01 X101.821153 Y126.889584 Z-0.125000
G01 X99.867520 Y126.627094 Z-0.125000
G01 X97.893200 Y126.674794 Z-0.125000
G01 X95.811353 Y127.037214 Z-0.125000
G01 X93.764933 Y127.682244 Z-0.125000
G01 X91.580850 Y128.667954 Z-0.125000
G01 X89.390074 Y129.948404 Z-0.125000
G01 X87.137703 Y131.560694 Z-0.125000
G01 X84.697451 Y133.645584 Z-0.125000
G01 X82.380997 Y135.969264 Z-0.125000
G01 X80.186199 Y138.530614 Z-0.125000
G01 X78.299164 Y141.101174 Z-0.125000
G01 X76.690630 Y143.710704 Z-0.125000
G01 X75.431451 Y146.285604 Z-0.125000
G01 X74.654317 Y148.595414 Z-0.125000
G01 X74.471517 Y149.586964 Z-0.125000
G01 X74.441747 Y150.380104 Z-0.125000
G01 X74.550279 Y150.942054 Z-0.125000
G01 X74.782557 Y151.391824 Z-0.125000
G01 X75.195254 Y151.775814 Z-0.125000
G01 X75.635362 Y151.987614 Z-0.125000
G01 X79.851391 Y152.818534 Z-0.125000
G01 X84.372935 Y154.158254 Z-0.125000
G01 X95.619102 Y158.023574 Z-0.125000
G01 X100.304420 Y159.756674 Z-0.125000
G01 X103.587403 Y161.067714 Z-0.125000
G01 X108.433303 Y163.207714 Z-0.125000
G01 X113.372843 Y165.621164 Z-0.125000
G01 X117.997103 Y168.072794 Z-0.125000
G01 X125.636313 Y172.338994 Z-0.125000
G01 X128.050733 Y173.576944 Z-0.125000
G01 X129.406753 Y174.147704 Z-0.125000
G01 X130.430133 Y174.439144 Z-0.125000
G01 X131.243413 Y174.476144 Z-0.125000
G01 X131.746283 Y174.254344 Z-0.125000
G01 X131.919973 Y174.010664 Z-0.125000
G01 X132.004073 Y173.570684 Z-0.125000
G01 X131.801853 Y172.667874 Z-0.125000
G01 X131.148283 Y171.498494 Z-0.125000
G01 X129.896383 Y169.972884 Z-0.125000
G01 X129.275983 Y169.056924 Z-0.125000
G01 X128.629843 Y167.888704 Z-0.125000
G01 X127.931903 Y166.382354 Z-0.125000
G01 X126.555303 Y162.725044 Z-0.125000
G01 X123.551433 Y153.325094 Z-0.125000
G01 X121.878363 Y148.606804 Z-0.125000
G01 X119.864643 Y143.853614 Z-0.125000
G01 X118.789063 Y141.682024 Z-0.125000
G01 X117.696043 Y139.696244 Z-0.125000
G01 X116.206703 Y137.299014 Z-0.125000
G01 X114.656083 Y135.124854 Z-0.125000
G01 X113.061573 Y133.180484 Z-0.125000
G01 X111.347333 Y131.375174 Z-0.125000
G01 X109.539333 Y129.752644 Z-0.125000
G01 X107.722273 Y128.384244 Z-0.125000
G01 X105.821323 Y127.211324 Z-0.125000
G01 X103.879413 Y126.272794 Z-0.125000
G01 X101.930943 Y125.662854 Z-0.125000
G01 X99.839010 Y125.384084 Z-0.125000
G01 X97.723000 Y125.456684 Z-0.125000
G01 X95.602658 Y125.855514 Z-0.125000
G01 X93.395716 Y126.591004 Z-0.125000
G01 X91.161257 Y127.645794 Z-0.125000
G01 X88.815196 Y129.071234 Z-0.125000
G01 X86.526074 Y130.764194 Z-0.125000
G01 X83.976734 Y132.999084 Z-0.125000
G01 X81.491794 Y135.552544 Z-0.125000
G01 X79.234634 Y138.246084 Z-0.125000
G01 X77.185330 Y141.104614 Z-0.125000
G01 X75.504776 Y143.919654 Z-0.125000
G01 X74.243349 Y146.614774 Z-0.125000
G01 X73.503045 Y148.959304 Z-0.125000
G01 X73.326726 Y150.066984 Z-0.125000
G01 X73.323826 Y150.872924 Z-0.125000
G01 X73.453022 Y151.444454 Z-0.125000
G01 X73.715357 Y151.927694 Z-0.125000
G01 X74.081831 Y152.276014 Z-0.125000
G01 X74.536227 Y152.509374 Z-0.125000
G01 X75.184191 Y152.680354 Z-0.125000
G01 X77.245930 Y152.969724 Z-0.125000
G01 X78.747573 Y153.269684 Z-0.125000
G01 X82.983870 Y154.500284 Z-0.125000
G01 X95.211826 Y158.721154 Z-0.125000
G01 X99.907070 Y160.458494 Z-0.125000
G01 X103.477703 Y161.881524 Z-0.125000
G01 X108.475373 Y164.098364 Z-0.125000
G01 X113.651783 Y166.651594 Z-0.125000
G01 X118.323853 Y169.160244 Z-0.125000
G01 X126.270753 Y173.664164 Z-0.125000
G01 X128.591863 Y174.864924 Z-0.125000
G01 X129.965603 Y175.445234 Z-0.125000
G01 X131.014603 Y175.739634 Z-0.125000
G01 X131.877993 Y175.764834 Z-0.125000
G01 X132.394133 Y175.528984 Z-0.125000
G01 X132.593953 Y175.263954 Z-0.125000
G01 X132.710633 Y174.785554 Z-0.125000
G01 X132.656433 Y174.182864 Z-0.125000
G01 X132.467753 Y173.569744 Z-0.125000
G01 X131.780663 Y172.298714 Z-0.125000
G01 X130.494493 Y170.661844 Z-0.125000
G01 X129.922603 Y169.797764 Z-0.125000
G01 X129.238573 Y168.526204 Z-0.125000
G01 X128.519353 Y166.911554 Z-0.125000
G01 X127.164983 Y163.128594 Z-0.125000
G01 X124.214553 Y153.349224 Z-0.125000
G01 X122.594003 Y148.537254 Z-0.125000
G01 X120.579443 Y143.571624 Z-0.125000
G01 X119.495183 Y141.301584 Z-0.125000
G01 X118.368743 Y139.189974 Z-0.125000
G01 X116.880433 Y136.725564 Z-0.125000
G01 X115.261713 Y134.399084 Z-0.125000
G01 X113.559463 Y132.285534 Z-0.125000
G01 X111.747383 Y130.355114 Z-0.125000
G01 X109.884293 Y128.669554 Z-0.125000
G01 X107.932613 Y127.193764 Z-0.125000
G01 X105.893633 Y125.942124 Z-0.125000
G01 X103.865833 Y124.978934 Z-0.125000
G01 X101.785763 Y124.355154 Z-0.125000
G01 X99.717720 Y124.112164 Z-0.125000
G01 X97.521330 Y124.220984 Z-0.125000
G01 X95.327065 Y124.672204 Z-0.125000
G01 X93.081176 Y125.461454 Z-0.125000
G01 X90.682490 Y126.643874 Z-0.125000
G01 X88.299467 Y128.145464 Z-0.125000
G01 X85.862417 Y130.002944 Z-0.125000
G01 X83.206503 Y132.395284 Z-0.125000
G01 X80.601415 Y135.135394 Z-0.125000
G01 X78.239877 Y138.014214 Z-0.125000
G01 X76.104002 Y141.057294 Z-0.125000
G01 X74.363705 Y144.043244 Z-0.125000
G01 X73.119555 Y146.771894 Z-0.125000
G01 X72.649893 Y148.134284 Z-0.125000
G01 X72.347368 Y149.319864 Z-0.125000
G01 X72.191793 Y150.364724 Z-0.125000
G01 X72.187493 Y151.262114 Z-0.125000
G01 X72.305920 Y151.839484 Z-0.125000
G01 X72.576377 Y152.388154 Z-0.125000
G01 X72.957325 Y152.783284 Z-0.125000
G01 X73.531973 Y153.082604 Z-0.125000
G01 X74.214783 Y153.244634 Z-0.125000
G01 X76.301684 Y153.489004 Z-0.125000
G01 X77.644630 Y153.735094 Z-0.125000
G01 X81.687516 Y154.883014 Z-0.125000
G01 X94.972748 Y159.498384 Z-0.125000
G01 X99.848520 Y161.308374 Z-0.125000
G01 X103.533793 Y162.785404 Z-0.125000
G01 X108.686983 Y165.091064 Z-0.125000
G01 X113.911053 Y167.696654 Z-0.125000
G01 X118.895483 Y170.413634 Z-0.125000
G01 X126.707173 Y174.915094 Z-0.125000
G01 X129.144443 Y176.193144 Z-0.125000
G01 X130.514613 Y176.773344 Z-0.125000
G01 X131.634353 Y177.076584 Z-0.125000
G01 X132.416273 Y177.093684 Z-0.125000
G01 X133.015263 Y176.832834 Z-0.125000
G01 X133.296673 Y176.431134 Z-0.125000
G01 X133.403413 Y175.916924 Z-0.125000
G01 X133.347913 Y175.232684 Z-0.125000
G01 X133.140083 Y174.510924 Z-0.125000
G01 X132.400783 Y173.076544 Z-0.125000
G01 X131.166023 Y171.447734 Z-0.125000
G01 X130.477793 Y170.372524 Z-0.125000
G01 X129.820773 Y169.094854 Z-0.125000
G01 X129.125503 Y167.466504 Z-0.125000
G01 X127.788613 Y163.548494 Z-0.125000
G01 X124.922253 Y153.464564 Z-0.125000
G01 X123.306413 Y148.409094 Z-0.125000
G01 X122.342303 Y145.787734 Z-0.125000
G01 X121.318393 Y143.296654 Z-0.125000
G01 X120.238943 Y140.951594 Z-0.125000
G01 X119.111373 Y138.764104 Z-0.125000
G01 X117.571253 Y136.137744 Z-0.125000
G01 X115.923723 Y133.709684 Z-0.125000
G01 X114.145723 Y131.454354 Z-0.125000
G01 X112.284613 Y129.434924 Z-0.125000
G01 X110.317013 Y127.626444 Z-0.125000
G01 X108.312983 Y126.089794 Z-0.125000
G01 X106.223403 Y124.785634 Z-0.125000
G01 X104.157083 Y123.778284 Z-0.125000
G01 X102.101273 Y123.119954 Z-0.125000
G01 X99.895670 Y122.827874 Z-0.125000
G01 X97.662140 Y122.918974 Z-0.125000
G01 X95.318833 Y123.394454 Z-0.125000
G01 X92.892842 Y124.261044 Z-0.125000
G01 X90.499580 Y125.461354 Z-0.125000
G01 X87.983525 Y127.067854 Z-0.125000
G01 X85.380660 Y129.083634 Z-0.125000
G01 X82.532790 Y131.693034 Z-0.125000
G01 X79.843539 Y134.564134 Z-0.125000
G01 X77.316557 Y137.684814 Z-0.125000
G01 X75.094295 Y140.892564 Z-0.125000
G01 X73.282772 Y144.042404 Z-0.125000
G01 X71.950701 Y147.030984 Z-0.125000
G01 X71.484875 Y148.438594 Z-0.125000
G01 X71.191585 Y149.650854 Z-0.125000
G01 X71.039211 Y150.775074 Z-0.125000
G01 X71.047311 Y151.698304 Z-0.125000
G01 X71.191404 Y152.357494 Z-0.125000
G01 X71.494563 Y152.947804 Z-0.125000
G01 X71.911097 Y153.365344 Z-0.125000
G01 X72.417456 Y153.632414 Z-0.125000
G01 X73.120851 Y153.804814 Z-0.125000
G01 X75.252334 Y154.005894 Z-0.125000
G01 X76.637375 Y154.233974 Z-0.125000
G01 X78.288931 Y154.639254 Z-0.125000
G01 X80.453804 Y155.295394 Z-0.125000
G01 X94.419174 Y160.179604 Z-0.125000
G01 X99.853850 Y162.202984 Z-0.125000
G01 X103.384343 Y163.623004 Z-0.125000
G01 X108.691783 Y166.007714 Z-0.125000
G01 X114.156283 Y168.758934 Z-0.125000
G01 X119.053193 Y171.461304 Z-0.125000
G01 X127.255493 Y176.262914 Z-0.125000
G01 X129.695503 Y177.556014 Z-0.125000
G01 X131.083723 Y178.142114 Z-0.125000
G01 X132.232673 Y178.439004 Z-0.125000
G01 X133.037223 Y178.431004 Z-0.125000
G01 X133.351493 Y178.329854 Z-0.125000
G01 X133.682063 Y178.099584 Z-0.125000
G01 X133.955963 Y177.669454 Z-0.125000
G01 X134.076903 Y177.097814 Z-0.125000
G01 X134.028403 Y176.304384 Z-0.125000
G01 X133.816263 Y175.490264 Z-0.125000
G01 X133.052043 Y173.899134 Z-0.125000
G01 X131.667133 Y171.980674 Z-0.125000
G01 X131.047163 Y170.951154 Z-0.125000
G01 X130.372103 Y169.573544 Z-0.125000
G01 X129.744243 Y168.034944 Z-0.125000
G01 X128.426173 Y163.980784 Z-0.125000
G01 X125.604703 Y153.440104 Z-0.125000
G01 X124.036473 Y148.274454 Z-0.125000
G01 X123.052483 Y145.483924 Z-0.125000
G01 X122.035633 Y142.918944 Z-0.125000
G01 X120.957273 Y140.500284 Z-0.125000
G01 X119.824693 Y138.239844 Z-0.125000
G01 X118.259363 Y135.502624 Z-0.125000
G01 X116.546743 Y132.927034 Z-0.125000
G01 X114.720693 Y130.572774 Z-0.125000
G01 X112.768333 Y128.426924 Z-0.125000
G01 X110.740773 Y126.544334 Z-0.125000
G01 X108.614053 Y124.901424 Z-0.125000
G01 X106.373273 Y123.502284 Z-0.125000
G01 X104.146643 Y122.426464 Z-0.125000
G01 X102.039953 Y121.778524 Z-0.125000
G01 X100.902580 Y121.591014 Z-0.125000
G01 X99.755480 Y121.507614 Z-0.125000
G01 X98.601070 Y121.525614 Z-0.125000
G01 X97.336600 Y121.656924 Z-0.125000
G01 X94.941756 Y122.203184 Z-0.125000
G01 X92.451444 Y123.156184 Z-0.125000
G01 X89.906311 Y124.501964 Z-0.125000
G01 X87.269712 Y126.265304 Z-0.125000
G01 X84.692168 Y128.331434 Z-0.125000
G01 X81.738465 Y131.106304 Z-0.125000
G01 X78.907212 Y134.194414 Z-0.125000
G01 X76.245689 Y137.549754 Z-0.125000
G01 X73.981887 Y140.883854 Z-0.125000
G01 X72.118374 Y144.194454 Z-0.125000
G01 X70.805750 Y147.210384 Z-0.125000
G01 X70.341459 Y148.642974 Z-0.125000
G01 X70.025308 Y149.997374 Z-0.125000
G01 X69.883121 Y151.126584 Z-0.125000
G01 X69.897751 Y152.138064 Z-0.125000
G01 X70.083832 Y152.924884 Z-0.125000
G01 X70.407682 Y153.520434 Z-0.125000
G01 X70.862210 Y153.960884 Z-0.125000
G01 X71.405796 Y154.234224 Z-0.125000
G01 X72.149064 Y154.397684 Z-0.125000
G01 X74.310524 Y154.548494 Z-0.125000
G01 X75.661328 Y154.749234 Z-0.125000
G01 X77.301057 Y155.139734 Z-0.125000
G01 X79.367082 Y155.763464 Z-0.125000
G01 X94.494581 Y161.107334 Z-0.125000
G01 X99.932590 Y163.146974 Z-0.125000
G01 X103.482403 Y164.585014 Z-0.125000
G01 X108.955943 Y167.069774 Z-0.125000
G01 X114.434383 Y169.863324 Z-0.125000
G01 X119.552413 Y172.731724 Z-0.125000
G01 X127.705073 Y177.588804 Z-0.125000
G01 X130.190973 Y178.926784 Z-0.125000
G01 X131.551113 Y179.508364 Z-0.125000
G01 X132.701893 Y179.812654 Z-0.125000
G01 X133.635683 Y179.792354 Z-0.125000
G01 X134.227853 Y179.484064 Z-0.125000
G01 X134.594883 Y178.926824 Z-0.125000
G01 X134.738093 Y178.210624 Z-0.125000
G01 X134.684193 Y177.313154 Z-0.125000
G01 X134.456993 Y176.391424 Z-0.125000
G01 X134.116053 Y175.521264 Z-0.125000
G01 X133.656543 Y174.640174 Z-0.125000
G01 X132.210603 Y172.539464 Z-0.125000
G01 X131.647143 Y171.564944 Z-0.125000
G01 X130.988383 Y170.171654 Z-0.125000
G01 X130.341293 Y168.518114 Z-0.125000
G01 X129.080203 Y164.438954 Z-0.125000
G01 X126.354393 Y153.595534 Z-0.125000
G01 X124.784513 Y148.134214 Z-0.125000
G01 X123.852733 Y145.364244 Z-0.125000
G01 X122.850293 Y142.722214 Z-0.125000
G01 X121.780663 Y140.224844 Z-0.125000
G01 X120.629143 Y137.842214 Z-0.125000
G01 X118.969753 Y134.859064 Z-0.125000
G01 X117.193763 Y132.135784 Z-0.125000
G01 X115.320043 Y129.682434 Z-0.125000
G01 X113.277903 Y127.410384 Z-0.125000
G01 X111.103613 Y125.378834 Z-0.125000
G01 X108.902703 Y123.675684 Z-0.125000
G01 X106.618523 Y122.245584 Z-0.125000
G01 X104.322863 Y121.133934 Z-0.125000
G01 X103.246623 Y120.739914 Z-0.125000
G01 X102.053583 Y120.430994 Z-0.125000
G01 X100.947330 Y120.252424 Z-0.125000
G01 X99.729380 Y120.169824 Z-0.125000
G01 X98.503430 Y120.200424 Z-0.125000
G01 X97.273090 Y120.338994 Z-0.125000
G01 X94.797278 Y120.926474 Z-0.125000
G01 X92.227751 Y121.938664 Z-0.125000
G01 X89.611418 Y123.356194 Z-0.125000
G01 X86.920791 Y125.188454 Z-0.125000
G01 X84.106603 Y127.485864 Z-0.125000
G01 X80.968777 Y130.493014 Z-0.125000
G01 X77.990786 Y133.801174 Z-0.125000
G01 X75.209301 Y137.367334 Z-0.125000
G01 X72.846228 Y140.909254 Z-0.125000
G01 X70.957473 Y144.331644 Z-0.125000
G01 X69.630218 Y147.455894 Z-0.125000
G01 X69.150846 Y148.992834 Z-0.125000
G01 X68.851337 Y150.347424 Z-0.125000
G01 X68.716294 Y151.508864 Z-0.125000
G01 X68.742544 Y152.601034 Z-0.125000
G01 X68.927276 Y153.389024 Z-0.125000
G01 X69.251549 Y154.017084 Z-0.125000
G01 X69.703219 Y154.492274 Z-0.125000
G01 X70.270697 Y154.805914 Z-0.125000
G01 X71.144061 Y154.999224 Z-0.125000
G01 X73.370053 Y155.100344 Z-0.125000
G01 X74.670427 Y155.271004 Z-0.125000
G01 X76.312220 Y155.647954 Z-0.125000
G01 X78.294319 Y156.243584 Z-0.125000
G01 X83.105053 Y157.908524 Z-0.125000
G01 X94.735501 Y162.115244 Z-0.125000
G01 X99.796130 Y164.025114 Z-0.125000
G01 X103.637733 Y165.591844 Z-0.125000
G01 X109.200943 Y168.145384 Z-0.125000
G01 X114.782493 Y171.030004 Z-0.125000
G01 X119.940703 Y173.967414 Z-0.125000
G01 X128.256083 Y179.008384 Z-0.125000
G01 X130.631803 Y180.305904 Z-0.125000
G01 X132.051773 Y180.919444 Z-0.125000
G01 X133.172303 Y181.216014 Z-0.125000
G01 X134.060773 Y181.214014 Z-0.125000
G01 X134.738133 Y180.901334 Z-0.125000
G01 X135.153003 Y180.347194 Z-0.125000
G01 X135.371263 Y179.478454 Z-0.125000
G01 X135.347563 Y178.472514 Z-0.125000
G01 X135.103853 Y177.333664 Z-0.125000
G01 X134.755423 Y176.373654 Z-0.125000
G01 X134.274463 Y175.393454 Z-0.125000
G01 X132.885133 Y173.288904 Z-0.125000
G01 X132.213993 Y172.091954 Z-0.125000
G01 X131.580403 Y170.688944 Z-0.125000
G01 X130.959373 Y169.029504 Z-0.125000
G01 X129.694503 Y164.701954 Z-0.125000
G01 X127.091453 Y153.646364 Z-0.125000
G01 X125.612533 Y148.191474 Z-0.125000
G01 X124.694323 Y145.314874 Z-0.125000
G01 X123.700053 Y142.567814 Z-0.125000
G01 X122.632453 Y139.968894 Z-0.125000
G01 X121.498553 Y137.531574 Z-0.125000
G01 X119.855963 Y134.469554 Z-0.125000
G01 X118.033803 Y131.581734 Z-0.125000
G01 X116.071283 Y128.941404 Z-0.125000
G01 X114.021953 Y126.603304 Z-0.125000
G01 X111.800643 Y124.470974 Z-0.125000
G01 X109.463763 Y122.614924 Z-0.125000
G01 X107.065973 Y121.077354 Z-0.125000
G01 X104.600663 Y119.851134 Z-0.125000
G01 X103.359983 Y119.395444 Z-0.125000
G01 X102.272493 Y119.103454 Z-0.125000
G01 X101.026463 Y118.896234 Z-0.125000
G01 X99.874060 Y118.814734 Z-0.125000
G01 X98.638270 Y118.838034 Z-0.125000
G01 X97.338110 Y118.980704 Z-0.125000
G01 X94.833486 Y119.572894 Z-0.125000
G01 X93.449689 Y120.068134 Z-0.125000
G01 X92.128995 Y120.646144 Z-0.125000
G01 X89.370105 Y122.162734 Z-0.125000
G01 X86.513663 Y124.143854 Z-0.125000
G01 X83.634124 Y126.533624 Z-0.125000
G01 X80.361519 Y129.707914 Z-0.125000
G01 X77.161886 Y133.301324 Z-0.125000
G01 X74.245411 Y137.081054 Z-0.125000
G01 X71.793834 Y140.792124 Z-0.125000
G01 X69.829118 Y144.391734 Z-0.125000
G01 X69.050714 Y146.119884 Z-0.125000
G01 X68.452359 Y147.689924 Z-0.125000
G01 X67.998413 Y149.172994 Z-0.125000
G01 X67.683241 Y150.618304 Z-0.125000
G01 X67.541477 Y151.890764 Z-0.125000
G01 X67.575107 Y153.038604 Z-0.125000
G01 X67.768835 Y153.872544 Z-0.125000
G01 X68.102633 Y154.541444 Z-0.125000
G01 X68.555415 Y155.042774 Z-0.125000
G01 X69.184171 Y155.408104 Z-0.125000
G01 X70.100714 Y155.608664 Z-0.125000
G01 X72.430714 Y155.660864 Z-0.125000
G01 X73.678992 Y155.801194 Z-0.125000
G01 X75.217861 Y156.135414 Z-0.125000
G01 X77.207581 Y156.725674 Z-0.125000
G01 X81.543493 Y158.235314 Z-0.125000
G01 X94.753583 Y163.060014 Z-0.125000
G01 X100.019450 Y165.061534 Z-0.125000
G01 X103.581943 Y166.527644 Z-0.125000
G01 X109.334093 Y169.188164 Z-0.125000
G01 X115.110773 Y172.211394 Z-0.125000
G01 X120.337243 Y175.235684 Z-0.125000
G01 X128.716783 Y180.409354 Z-0.125000
G01 X131.127033 Y181.745444 Z-0.125000
G01 X132.576923 Y182.372214 Z-0.125000
G01 X133.664683 Y182.651774 Z-0.125000
G01 X134.554363 Y182.641274 Z-0.125000
G01 X134.954783 Y182.508084 Z-0.125000
G01 X135.289273 Y182.287954 Z-0.125000
G01 X135.767243 Y181.605164 Z-0.125000
G01 X135.991133 Y180.683994 Z-0.125000
G01 X135.971633 Y179.440054 Z-0.125000
G01 X135.694953 Y178.106824 Z-0.125000
G01 X135.321813 Y177.051004 Z-0.125000
G01 X134.870563 Y176.094244 Z-0.125000
G01 X133.407523 Y173.775194 Z-0.125000
G01 X132.800413 Y172.627084 Z-0.125000
G01 X132.149593 Y171.113144 Z-0.125000
G01 X131.557003 Y169.442224 Z-0.125000
G01 X130.382463 Y165.203014 Z-0.125000
G01 X127.848553 Y153.705014 Z-0.125000
G01 X126.380563 Y147.989224 Z-0.125000
G01 X125.478443 Y145.037504 Z-0.125000
G01 X124.494113 Y142.215244 Z-0.125000
G01 X123.430303 Y139.540834 Z-0.125000
G01 X122.294043 Y137.027614 Z-0.125000
G01 X120.606793 Y133.807344 Z-0.125000
G01 X118.697033 Y130.731614 Z-0.125000
G01 X116.649653 Y127.950394 Z-0.125000
G01 X114.468143 Y125.452994 Z-0.125000
G01 X112.131603 Y123.215834 Z-0.125000
G01 X109.712913 Y121.305784 Z-0.125000
G01 X107.181533 Y119.697674 Z-0.125000
G01 X104.622913 Y118.443704 Z-0.125000
G01 X103.382883 Y117.996694 Z-0.125000
G01 X102.181653 Y117.689374 Z-0.125000
G01 X100.966153 Y117.503034 Z-0.125000
G01 X99.740180 Y117.432234 Z-0.125000
G01 X98.403210 Y117.482334 Z-0.125000
G01 X97.164410 Y117.640714 Z-0.125000
G01 X95.858476 Y117.917724 Z-0.125000
G01 X94.487379 Y118.325134 Z-0.125000
G01 X93.119113 Y118.845144 Z-0.125000
G01 X91.717668 Y119.488484 Z-0.125000
G01 X88.893135 Y121.105374 Z-0.125000
G01 X85.970177 Y123.196114 Z-0.125000
G01 X82.934084 Y125.779904 Z-0.125000
G01 X79.498125 Y129.187784 Z-0.125000
G01 X76.221552 Y132.933624 Z-0.125000
G01 X73.179663 Y136.933464 Z-0.125000
G01 X70.642653 Y140.831494 Z-0.125000
G01 X69.538653 Y142.785204 Z-0.125000
G01 X68.622771 Y144.602224 Z-0.125000
G01 X67.851246 Y146.356304 Z-0.125000
G01 X67.231936 Y148.031594 Z-0.125000
G01 X66.761057 Y149.654714 Z-0.125000
G01 X66.478879 Y151.064194 Z-0.125000
G01 X66.353678 Y152.414874 Z-0.125000
G01 X66.410428 Y153.563714 Z-0.125000
G01 X66.608680 Y154.384644 Z-0.125000
G01 X67.014102 Y155.170344 Z-0.125000
G01 X67.510433 Y155.689724 Z-0.125000
G01 X68.189672 Y156.056804 Z-0.125000
G01 X69.163259 Y156.238024 Z-0.125000
G01 X71.381129 Y156.225324 Z-0.125000
G01 X72.688118 Y156.339484 Z-0.125000
G01 X74.226087 Y156.656404 Z-0.125000
G01 X76.089257 Y157.202824 Z-0.125000
G01 X80.167200 Y158.631284 Z-0.125000
G01 X94.746165 Y164.012824 Z-0.125000
G01 X100.220820 Y166.111424 Z-0.125000
G01 X103.603393 Y167.515324 Z-0.125000
G01 X109.448563 Y170.241964 Z-0.125000
G01 X115.329993 Y173.356214 Z-0.125000
G01 X119.801823 Y175.964824 Z-0.125000
G01 X128.830473 Y181.633314 Z-0.125000
G01 X131.552133 Y183.184484 Z-0.125000
G01 X133.031343 Y183.831654 Z-0.125000
G01 X134.199213 Y184.120104 Z-0.125000
G01 X135.131153 Y184.068604 Z-0.125000
G01 X135.794433 Y183.716844 Z-0.125000
G01 X136.305483 Y183.005084 Z-0.125000
G01 X136.591253 Y181.908544 Z-0.125000
G01 X136.590993 Y180.469054 Z-0.125000
G01 X136.317733 Y179.000644 Z-0.125000
G01 X135.973163 Y177.931354 Z-0.125000
G01 X135.481223 Y176.807804 Z-0.125000
G01 X133.920553 Y174.194804 Z-0.125000
G01 X133.373073 Y173.099694 Z-0.125000
G01 X132.749743 Y171.575084 Z-0.125000
G01 X132.181133 Y169.889664 Z-0.125000
G01 X131.011143 Y165.397964 Z-0.125000
G01 X128.629733 Y153.796304 Z-0.125000
G01 X127.249933 Y148.075984 Z-0.125000
G01 X126.374583 Y145.047644 Z-0.125000
G01 X125.412293 Y142.144874 Z-0.125000
G01 X124.364833 Y139.387174 Z-0.125000
G01 X123.238423 Y136.789334 Z-0.125000
G01 X121.510213 Y133.371524 Z-0.125000
G01 X119.606693 Y130.208724 Z-0.125000
G01 X117.477293 Y127.235704 Z-0.125000
G01 X115.219453 Y124.591434 Z-0.125000
G01 X112.835553 Y122.258814 Z-0.125000
G01 X110.311663 Y120.221524 Z-0.125000
G01 X107.631783 Y118.483904 Z-0.125000
G01 X104.940383 Y117.143284 Z-0.125000
G01 X103.691543 Y116.667324 Z-0.125000
G01 X102.521533 Y116.346014 Z-0.125000
G01 X101.237933 Y116.125984 Z-0.125000
G01 X99.941710 Y116.036384 Z-0.125000
G01 X98.637440 Y116.070984 Z-0.125000
G01 X97.327650 Y116.225654 Z-0.125000
G01 X95.913877 Y116.521084 Z-0.125000
G01 X94.560825 Y116.921374 Z-0.125000
G01 X93.124560 Y117.465814 Z-0.125000
G01 X91.702372 Y118.120764 Z-0.125000
G01 X88.702288 Y119.854044 Z-0.125000
G01 X85.613860 Y122.093554 Z-0.125000
G01 X82.494237 Y124.783234 Z-0.125000
G01 X78.933633 Y128.346664 Z-0.125000
G01 X75.432085 Y132.378414 Z-0.125000
G01 X72.248380 Y136.591004 Z-0.125000
G01 X69.558732 Y140.750864 Z-0.125000
G01 X68.433327 Y142.758684 Z-0.125000
G01 X67.500353 Y144.623384 Z-0.125000
G01 X66.713905 Y146.423264 Z-0.125000
G01 X66.050224 Y148.238674 Z-0.125000
G01 X65.589876 Y149.846944 Z-0.125000
G01 X65.287219 Y151.382664 Z-0.125000
G01 X65.162203 Y152.840764 Z-0.125000
G01 X65.227503 Y154.011434 Z-0.125000
G01 X65.477296 Y154.994464 Z-0.125000
G01 X65.875335 Y155.744484 Z-0.125000
G01 X66.465541 Y156.347384 Z-0.125000
G01 X67.088079 Y156.676664 Z-0.125000
G01 X68.111355 Y156.868884 Z-0.125000
G01 X70.441593 Y156.802484 Z-0.125000
G01 X71.696300 Y156.884684 Z-0.125000
G01 X73.232127 Y157.182284 Z-0.125000
G01 X75.125803 Y157.734844 Z-0.125000
G01 X79.068068 Y159.131554 Z-0.125000
G01 X94.991698 Y165.078404 Z-0.125000
G01 X100.116760 Y167.058594 Z-0.125000
G01 X103.698373 Y168.553704 Z-0.125000
G01 X109.636793 Y171.353264 Z-0.125000
G01 X115.634213 Y174.571894 Z-0.125000
G01 X120.327423 Y177.358614 Z-0.125000
G01 X129.112333 Y182.986704 Z-0.125000
G01 X132.005153 Y184.670454 Z-0.125000
G01 X133.440543 Y185.306854 Z-0.125000
G01 X134.641593 Y185.603954 Z-0.125000
G01 X135.514613 Y185.561554 Z-0.125000
G01 X135.896143 Y185.424104 Z-0.125000
G01 X136.270683 Y185.173674 Z-0.125000
G01 X136.582203 Y184.828714 Z-0.125000
G01 X136.850443 Y184.355504 Z-0.125000
G01 X137.054623 Y183.759924 Z-0.125000
G01 X137.183443 Y183.051694 Z-0.125000
G01 X137.199543 Y181.520364 Z-0.125000
G01 X136.918473 Y179.822634 Z-0.125000
G01 X136.560123 Y178.637434 Z-0.125000
G01 X136.104583 Y177.530314 Z-0.125000
G01 X134.609533 Y174.904484 Z-0.125000
G01 X133.965143 Y173.576694 Z-0.125000
G01 X133.366333 Y172.040134 Z-0.125000
G01 X132.821403 Y170.344314 Z-0.125000
G01 X131.722453 Y165.890284 Z-0.125000
G01 X129.427513 Y153.881934 Z-0.125000
G01 X128.081283 Y147.960984 Z-0.125000
G01 X127.197413 Y144.758544 Z-0.125000
G01 X126.278073 Y141.874034 Z-0.125000
G01 X125.238573 Y139.037324 Z-0.125000
G01 X124.107003 Y136.344904 Z-0.125000
G01 X122.327463 Y132.736914 Z-0.125000
G01 X120.367433 Y129.422294 Z-0.125000
G01 X118.196103 Y126.348074 Z-0.125000
G01 X115.886553 Y123.609744 Z-0.125000
G01 X113.405053 Y121.156024 Z-0.125000
G01 X110.727783 Y118.980884 Z-0.125000
G01 X108.002283 Y117.203434 Z-0.125000
G01 X105.147823 Y115.764734 Z-0.125000
G01 X103.790243 Y115.256124 Z-0.125000
G01 X102.584693 Y114.922804 Z-0.125000
G01 X101.261463 Y114.702194 Z-0.125000
G01 X99.926470 Y114.616994 Z-0.125000
G01 X98.582600 Y114.663194 Z-0.125000
G01 X97.233200 Y114.835974 Z-0.125000
G01 X95.829561 Y115.141724 Z-0.125000
G01 X94.371283 Y115.589214 Z-0.125000
G01 X92.868477 Y116.182144 Z-0.125000
G01 X91.464359 Y116.850194 Z-0.125000
G01 X89.927765 Y117.700034 Z-0.125000
G01 X88.365903 Y118.684814 Z-0.125000
G01 X85.123355 Y121.090644 Z-0.125000
G01 X81.875621 Y123.947564 Z-0.125000
G01 X78.115575 Y127.775734 Z-0.125000
G01 X74.468108 Y132.036344 Z-0.125000
G01 X71.159467 Y136.468864 Z-0.125000
G01 X69.705503 Y138.652074 Z-0.125000
G01 X68.386184 Y140.813214 Z-0.125000
G01 X67.260938 Y142.848304 Z-0.125000
G01 X66.281371 Y144.838214 Z-0.125000
G01 X65.454072 Y146.780964 Z-0.125000
G01 X64.830396 Y148.542114 Z-0.125000
G01 X64.348907 Y150.300824 Z-0.125000
G01 X64.058130 Y151.926264 Z-0.125000
G01 X63.962910 Y153.381874 Z-0.125000
G01 X64.053850 Y154.574854 Z-0.125000
G01 X64.288429 Y155.475974 Z-0.125000
G01 X64.726579 Y156.321394 Z-0.125000
G01 X65.254688 Y156.889954 Z-0.125000
G01 X65.974407 Y157.302814 Z-0.125000
G01 X66.563793 Y157.459154 Z-0.125000
G01 X67.175113 Y157.513154 Z-0.125000
G01 X69.502653 Y157.386074 Z-0.125000
G01 X70.815859 Y157.449774 Z-0.125000
G01 X72.237465 Y157.712904 Z-0.125000
G01 X74.102989 Y158.251514 Z-0.125000
G01 X77.672668 Y159.524264 Z-0.125000
G01 X95.234625 Y166.161544 Z-0.125000
G01 X100.169630 Y168.081894 Z-0.125000
G01 X103.773343 Y169.602004 Z-0.125000
G01 X109.894483 Y172.520734 Z-0.125000
G01 X115.973943 Y175.832894 Z-0.125000
G01 X120.780693 Y178.738754 Z-0.125000
G01 X129.678153 Y184.551784 Z-0.125000
G01 X132.406693 Y186.164204 Z-0.125000
G01 X133.891423 Y186.827784 Z-0.125000
G01 X135.020963 Y187.107074 Z-0.125000
G01 X135.983703 Y187.050574 Z-0.125000
G01 X136.686773 Y186.683814 Z-0.125000
G01 X137.037143 Y186.310214 Z-0.125000
G01 X137.364323 Y185.741994 Z-0.125000
G01 X137.604433 Y185.040614 Z-0.125000
G01 X137.742963 Y184.317724 Z-0.125000
G01 X137.789963 Y182.486094 Z-0.125000
G01 X137.503103 Y180.581514 Z-0.125000
G01 X137.134383 Y179.287674 Z-0.125000
G01 X136.667843 Y178.100144 Z-0.125000
G01 X135.164723 Y175.341944 Z-0.125000
G01 X134.580973 Y174.066544 Z-0.125000
G01 X134.005583 Y172.522274 Z-0.125000
G01 X133.483293 Y170.819364 Z-0.125000
G01 X132.405353 Y166.182754 Z-0.125000
G01 X130.241323 Y153.963844 Z-0.125000
G01 X128.938013 Y147.863854 Z-0.125000
G01 X128.095763 Y144.654144 Z-0.125000
G01 X127.154273 Y141.571264 Z-0.125000
G01 X126.114773 Y138.636034 Z-0.125000
G01 X125.024533 Y135.959054 Z-0.125000
G01 X123.213993 Y132.184934 Z-0.125000
G01 X121.212893 Y128.725534 Z-0.125000
G01 X118.998303 Y125.532914 Z-0.125000
G01 X116.575143 Y122.619664 Z-0.125000
G01 X113.952753 Y120.005684 Z-0.125000
G01 X111.168703 Y117.734054 Z-0.125000
G01 X108.270953 Y115.842864 Z-0.125000
G01 X106.745073 Y115.023374 Z-0.125000
G01 X105.255863 Y114.335584 Z-0.125000
G01 X103.996713 Y113.852464 Z-0.125000
G01 X102.619613 Y113.477094 Z-0.125000
G01 X101.325873 Y113.264104 Z-0.125000
G01 X99.919450 Y113.180404 Z-0.125000
G01 X98.504090 Y113.241304 Z-0.125000
G01 X97.083700 Y113.439394 Z-0.125000
G01 X95.675272 Y113.764994 Z-0.125000
G01 X94.223106 Y114.229124 Z-0.125000
G01 X92.734058 Y114.831794 Z-0.125000
G01 X91.171085 Y115.595334 Z-0.125000
G01 X89.540405 Y116.527214 Z-0.125000
G01 X87.975924 Y117.543644 Z-0.125000
G01 X84.736815 Y119.996624 Z-0.125000
G01 X81.317975 Y123.050524 Z-0.125000
G01 X77.388569 Y127.104414 Z-0.125000
G01 X73.524673 Y131.668214 Z-0.125000
G01 X70.078555 Y136.332234 Z-0.125000
G01 X68.597576 Y138.577754 Z-0.125000
G01 X67.254895 Y140.797264 Z-0.125000
G01 X66.064217 Y142.975124 Z-0.125000
G01 X65.079835 Y145.004134 Z-0.125000
G01 X64.259229 Y146.959834 Z-0.125000
G01 X63.603116 Y148.850784 Z-0.125000
G01 X63.126733 Y150.650314 Z-0.125000
G01 X62.847492 Y152.284224 Z-0.125000
G01 X62.757722 Y153.736864 Z-0.125000
G01 X62.856572 Y155.036874 Z-0.125000
G01 X63.131236 Y156.067904 Z-0.125000
G01 X63.580869 Y156.916364 Z-0.125000
G01 X64.131123 Y157.511304 Z-0.125000
G01 X64.873121 Y157.941414 Z-0.125000
G01 X65.470470 Y158.104744 Z-0.125000
G01 X66.086420 Y158.161544 Z-0.125000
G01 X68.562973 Y157.974134 Z-0.125000
G01 X69.822708 Y158.005434 Z-0.125000
G01 X71.343321 Y158.271314 Z-0.125000
G01 X73.132195 Y158.788524 Z-0.125000
G01 X76.459304 Y159.985794 Z-0.125000
G01 X95.825984 Y167.397534 Z-0.125000
G01 X100.692070 Y169.317244 Z-0.125000
G01 X103.923803 Y170.702264 Z-0.125000
G01 X110.132703 Y173.699384 Z-0.125000
G01 X116.260163 Y177.086524 Z-0.125000
G01 X121.037963 Y180.021734 Z-0.125000
G01 X129.980433 Y185.981424 Z-0.125000
G01 X132.768023 Y187.668514 Z-0.125000
G01 X134.181673 Y188.320974 Z-0.125000
G01 X135.389813 Y188.634584 Z-0.125000
G01 X136.323553 Y188.589884 Z-0.125000
G01 X137.068353 Y188.222114 Z-0.125000
G01 X137.513703 Y187.747504 Z-0.125000
G01 X137.837313 Y187.182544 Z-0.125000
G01 X138.092763 Y186.480444 Z-0.125000
G01 X138.288613 Y185.548074 Z-0.125000
G01 X138.380513 Y184.504564 Z-0.125000
G01 X138.371513 Y183.473954 Z-0.125000
G01 X138.092883 Y181.359614 Z-0.125000
G01 X137.721743 Y179.952964 Z-0.125000
G01 X137.251613 Y178.684074 Z-0.125000
G01 X135.718323 Y175.712504 Z-0.125000
G01 X135.187303 Y174.489184 Z-0.125000
G01 X134.147863 Y171.251394 Z-0.125000
G01 X133.131043 Y166.608934 Z-0.125000
G01 X131.094463 Y154.162564 Z-0.125000
G01 X129.865103 Y147.990074 Z-0.125000
G01 X129.026983 Y144.602534 Z-0.125000
G01 X128.137853 Y141.536994 Z-0.125000
G01 X127.153023 Y138.613584 Z-0.125000
G01 X126.078413 Y135.847444 Z-0.125000
G01 X124.257153 Y131.892214 Z-0.125000
G01 X122.259943 Y128.314544 Z-0.125000
G01 X119.998843 Y124.949344 Z-0.125000
G01 X117.488153 Y121.848024 Z-0.125000
G01 X114.754823 Y119.060194 Z-0.125000
G01 X111.873113 Y116.658674 Z-0.125000
G01 X110.383873 Y115.605134 Z-0.125000
G01 X108.828733 Y114.629794 Z-0.125000
G01 X105.743033 Y113.046394 Z-0.125000
G01 X104.225533 Y112.449364 Z-0.125000
G01 X103.058273 Y112.103024 Z-0.125000
G01 X101.627063 Y111.837784 Z-0.125000
G01 X100.286230 Y111.732714 Z-0.125000
G01 X98.852640 Y111.765114 Z-0.125000
G01 X97.363090 Y111.949234 Z-0.125000
G01 X95.870837 Y112.277774 Z-0.125000
G01 X94.315008 Y112.765554 Z-0.125000
G01 X92.714993 Y113.414024 Z-0.125000
G01 X91.177102 Y114.169914 Z-0.125000
G01 X89.612145 Y115.063304 Z-0.125000
G01 X87.981809 Y116.119524 Z-0.125000
G01 X86.299403 Y117.335754 Z-0.125000
G01 X84.528811 Y118.745274 Z-0.125000
G01 X80.950639 Y121.965914 Z-0.125000
G01 X78.884455 Y124.036644 Z-0.125000
G01 X76.818244 Y126.256814 Z-0.125000
G01 X72.791207 Y131.031834 Z-0.125000
G01 X70.915231 Y133.487454 Z-0.125000
G01 X69.146121 Y135.973954 Z-0.125000
G01 X67.591033 Y138.335924 Z-0.125000
G01 X66.176385 Y140.680204 Z-0.125000
G01 X64.968642 Y142.894584 Z-0.125000
G01 X63.950657 Y144.995934 Z-0.125000
G01 X63.075760 Y147.091004 Z-0.125000
G01 X62.417900 Y149.001324 Z-0.125000
G01 X61.920324 Y150.897464 Z-0.125000
G01 X61.630023 Y152.638814 Z-0.125000
G01 X61.545883 Y154.231504 Z-0.125000
G01 X61.659707 Y155.541644 Z-0.125000
G01 X61.969534 Y156.663424 Z-0.125000
G01 X62.439169 Y157.531814 Z-0.125000
G01 X63.014400 Y158.147254 Z-0.125000
G01 X63.786454 Y158.594614 Z-0.125000
G01 X64.419046 Y158.764504 Z-0.125000
G01 X65.176442 Y158.817504 Z-0.125000
G01 X67.741260 Y158.559324 Z-0.125000
G01 X68.941807 Y158.576124 Z-0.125000
G01 X70.344972 Y158.807634 Z-0.125000
G01 X72.101885 Y159.308144 Z-0.125000
G01 X75.425369 Y160.516494 Z-0.125000
G01 X96.296919 Y168.607244 Z-0.125000
G01 X100.902360 Y170.447204 Z-0.125000
G01 X104.053873 Y171.811854 Z-0.125000
G01 X107.201803 Y173.292934 Z-0.125000
G01 X110.353153 Y174.889724 Z-0.125000
G01 X113.494613 Y176.595784 Z-0.125000
G01 X116.628623 Y178.412644 Z-0.125000
G01 X121.619173 Y181.540944 Z-0.125000
G01 X130.440283 Y187.547284 Z-0.125000
G01 X133.149513 Y189.216244 Z-0.125000
G01 X134.572093 Y189.880114 Z-0.125000
G01 X135.730153 Y190.183004 Z-0.125000
G01 X136.628673 Y190.152204 Z-0.125000
G01 X137.415043 Y189.788404 Z-0.125000
G01 X137.892853 Y189.303024 Z-0.125000
G01 X138.280993 Y188.649424 Z-0.125000
G01 X138.582063 Y187.842764 Z-0.125000
G01 X138.796013 Y186.900104 Z-0.125000
G01 X138.926503 Y185.738744 Z-0.125000
G01 X138.946203 Y184.582094 Z-0.125000
G01 X138.687013 Y182.153424 Z-0.125000
G01 X138.405153 Y180.925464 Z-0.125000
G01 X138.003043 Y179.665124 Z-0.125000
G01 X137.474903 Y178.409894 Z-0.125000
G01 X136.606193 Y176.751664 Z-0.125000
G01 X135.959473 Y175.291984 Z-0.125000
G01 X135.348743 Y173.541684 Z-0.125000
G01 X134.787133 Y171.513024 Z-0.125000
G01 X133.837543 Y166.842884 Z-0.125000
G01 X131.933393 Y154.186064 Z-0.125000
G01 X130.762713 Y147.910024 Z-0.125000
G01 X129.974023 Y144.544154 Z-0.125000
G01 X129.104523 Y141.397404 Z-0.125000
G01 X128.133553 Y138.390414 Z-0.125000
G01 X127.028623 Y135.445444 Z-0.125000
G01 X125.177603 Y131.319244 Z-0.125000
G01 X123.055843 Y127.457464 Z-0.125000
G01 X120.701293 Y123.929434 Z-0.125000
G01 X118.082263 Y120.689344 Z-0.125000
G01 X115.273543 Y117.828214 Z-0.125000
G01 X113.805053 Y116.541624 Z-0.125000
G01 X112.260633 Y115.325154 Z-0.125000
G01 X110.677073 Y114.212104 Z-0.125000
G01 X109.058963 Y113.206024 Z-0.125000
G01 X107.438913 Y112.324914 Z-0.125000
G01 X105.783093 Y111.543994 Z-0.125000
G01 X104.268353 Y110.963264 Z-0.125000
G01 X102.881513 Y110.572044 Z-0.125000
G01 X101.578783 Y110.351574 Z-0.125000
G01 X100.164080 Y110.258574 Z-0.125000
G01 X98.638780 Y110.320074 Z-0.125000
G01 X97.210560 Y110.519994 Z-0.125000
G01 X95.608221 Y110.899404 Z-0.125000
G01 X94.051863 Y111.417324 Z-0.125000
G01 X92.468199 Y112.086754 Z-0.125000
G01 X90.846674 Y112.911004 Z-0.125000
G01 X89.190991 Y113.889194 Z-0.125000
G01 X87.508558 Y115.015764 Z-0.125000
G01 X85.732040 Y116.340324 Z-0.125000
G01 X83.972720 Y117.778494 Z-0.125000
G01 X80.307288 Y121.143674 Z-0.125000
G01 X78.119475 Y123.372844 Z-0.125000
G01 X75.931318 Y125.760524 Z-0.125000
G01 X73.830103 Y128.205084 Z-0.125000
G01 X71.760321 Y130.770244 Z-0.125000
G01 X69.797271 Y133.369254 Z-0.125000
G01 X68.019853 Y135.893874 Z-0.125000
G01 X66.384278 Y138.405094 Z-0.125000
G01 X64.958862 Y140.796764 Z-0.125000
G01 X63.743710 Y143.054114 Z-0.125000
G01 X62.694584 Y145.255364 Z-0.125000
G01 X61.849743 Y147.316184 Z-0.125000
G01 X61.161694 Y149.363634 Z-0.125000
G01 X60.679385 Y151.275244 Z-0.125000
G01 X60.404748 Y153.006254 Z-0.125000
G01 X60.326298 Y154.620744 Z-0.125000
G01 X60.460124 Y156.069784 Z-0.125000
G01 X60.769607 Y157.181114 Z-0.125000
G01 X61.290731 Y158.150444 Z-0.125000
G01 X61.905834 Y158.799834 Z-0.125000
G01 X62.692176 Y159.251324 Z-0.125000
G01 X63.360936 Y159.429994 Z-0.125000
G01 X64.157967 Y159.477894 Z-0.125000
G01 X66.782899 Y159.154574 Z-0.125000
G01 X68.044723 Y159.146574 Z-0.125000
G01 X69.447729 Y159.369404 Z-0.125000
G01 X71.227740 Y159.881144 Z-0.125000
G01 X74.195386 Y160.972144 Z-0.125000
G01 X96.935660 Y169.902944 Z-0.125000
G01 X100.810700 Y171.465524 Z-0.125000
G01 X104.163683 Y172.930234 Z-0.125000
G01 X107.295583 Y174.419224 Z-0.125000
G01 X110.502843 Y176.062714 Z-0.125000
G01 X113.728623 Y177.838144 Z-0.125000
G01 X116.888453 Y179.698324 Z-0.125000
G01 X121.880013 Y182.880094 Z-0.125000
G01 X130.933493 Y189.169244 Z-0.125000
G01 X133.561173 Y190.811544 Z-0.125000
G01 X134.915363 Y191.450724 Z-0.125000
G01 X136.055853 Y191.753454 Z-0.125000
G01 X137.012823 Y191.711554 Z-0.125000
G01 X137.726323 Y191.380744 Z-0.125000
G01 X138.213873 Y190.915424 Z-0.125000
G01 X138.674593 Y190.183004 Z-0.125000
G01 X139.030403 Y189.274954 Z-0.125000
G01 X139.287953 Y188.216544 Z-0.125000
G01 X139.457043 Y186.923444 Z-0.125000
G01 X139.505943 Y185.638524 Z-0.125000
G01 X139.446243 Y184.276954 Z-0.125000
G01 X139.267443 Y182.861454 Z-0.125000
G01 X138.964253 Y181.440964 Z-0.125000
G01 X138.578703 Y180.169614 Z-0.125000
G01 X136.613643 Y175.751964 Z-0.125000
G01 X136.027083 Y173.992514 Z-0.125000
G01 X135.504003 Y172.011524 Z-0.125000
G01 X134.585263 Y167.204474 Z-0.125000
G01 X132.822933 Y154.406844 Z-0.125000
G01 X131.718853 Y148.023294 Z-0.125000
G01 X130.960633 Y144.578654 Z-0.125000
G01 X130.115473 Y141.348304 Z-0.125000
G01 X129.162813 Y138.255274 Z-0.125000
G01 X128.107473 Y135.316624 Z-0.125000
G01 X126.233273 Y130.976504 Z-0.125000
G01 X124.132503 Y127.026704 Z-0.125000
G01 X122.976013 Y125.151884 Z-0.125000
G01 X121.712443 Y123.296474 Z-0.125000
G01 X119.073593 Y119.949204 Z-0.125000
G01 X117.690803 Y118.431394 Z-0.125000
G01 X116.183393 Y116.933324 Z-0.125000
G01 X114.639653 Y115.550454 Z-0.125000
G01 X113.046433 Y114.268384 Z-0.125000
G01 X111.458223 Y113.124984 Z-0.125000
G01 X109.801903 Y112.065784 Z-0.125000
G01 X108.113783 Y111.118254 Z-0.125000
G01 X106.398533 Y110.285794 Z-0.125000
G01 X104.782413 Y109.617514 Z-0.125000
G01 X103.426553 Y109.197644 Z-0.125000
G01 X102.054373 Y108.918454 Z-0.125000
G01 X100.608760 Y108.783814 Z-0.125000
G01 X99.078440 Y108.805414 Z-0.125000
G01 X97.479930 Y108.999144 Z-0.125000
G01 X95.878565 Y109.358624 Z-0.125000
G01 X94.325144 Y109.855494 Z-0.125000
G01 X92.719573 Y110.514564 Z-0.125000
G01 X90.982848 Y111.384784 Z-0.125000
G01 X89.321767 Y112.359404 Z-0.125000
G01 X87.628672 Y113.485304 Z-0.125000
G01 X85.830960 Y114.817434 Z-0.125000
G01 X83.946413 Y116.353704 Z-0.125000
G01 X80.121173 Y119.868354 Z-0.125000
G01 X77.864383 Y122.168644 Z-0.125000
G01 X75.536658 Y124.708144 Z-0.125000
G01 X73.234174 Y127.388294 Z-0.125000
G01 X71.062342 Y130.081064 Z-0.125000
G01 X68.998672 Y132.810894 Z-0.125000
G01 X67.130264 Y135.460064 Z-0.125000
G01 X65.408408 Y138.098044 Z-0.125000
G01 X63.905495 Y140.615444 Z-0.125000
G01 X62.639570 Y142.964994 Z-0.125000
G01 X61.532686 Y145.290024 Z-0.125000
G01 X60.616936 Y147.543634 Z-0.125000
G01 X59.927908 Y149.631464 Z-0.125000
G01 X59.453616 Y151.549744 Z-0.125000
G01 X59.168554 Y153.420964 Z-0.125000
G01 X59.103704 Y155.134614 Z-0.125000
G01 X59.254781 Y156.599534 Z-0.125000
G01 X59.565322 Y157.708564 Z-0.125000
G01 X60.083456 Y158.696484 Z-0.125000
G01 X60.791640 Y159.455864 Z-0.125000
G01 X61.628146 Y159.925234 Z-0.125000
G01 X62.316381 Y160.101424 Z-0.125000
G01 X63.134578 Y160.143924 Z-0.125000
G01 X65.883202 Y159.746124 Z-0.125000
G01 X67.064037 Y159.712324 Z-0.125000
G01 X68.444713 Y159.908594 Z-0.125000
G01 X70.179797 Y160.397604 Z-0.125000
G01 X73.124504 Y161.489564 Z-0.125000
G01 X97.549410 Y171.209134 Z-0.125000
G01 X101.156083 Y172.683814 Z-0.125000
G01 X104.251043 Y174.055764 Z-0.125000
G01 X107.555273 Y175.646274 Z-0.125000
G01 X110.831283 Y177.351064 Z-0.125000
G01 X114.029413 Y179.140024 Z-0.125000
G01 X117.242223 Y181.063934 Z-0.125000
G01 X122.312623 Y184.359354 Z-0.125000
G01 X131.194663 Y190.667604 Z-0.125000
G01 X133.818083 Y192.353654 Z-0.125000
G01 X135.144733 Y193.004694 Z-0.125000
G01 X136.294233 Y193.334624 Z-0.125000
G01 X137.203503 Y193.327624 Z-0.125000
G01 X138.029273 Y192.977764 Z-0.125000
G01 X138.566213 Y192.470874 Z-0.125000
G01 X139.084503 Y191.643794 Z-0.125000
G01 X139.484583 Y190.620594 Z-0.125000
G01 X139.774703 Y189.454154 Z-0.125000
G01 X139.975063 Y188.054454 Z-0.125000
G01 X140.055063 Y186.509314 Z-0.125000
G01 X140.009563 Y185.021744 Z-0.125000
G01 X139.838723 Y183.484514 Z-0.125000
G01 X139.564923 Y182.073594 Z-0.125000
G01 X139.174823 Y180.684534 Z-0.125000
G01 X138.755093 Y179.545874 Z-0.125000
G01 X137.253873 Y176.121084 Z-0.125000
G01 X136.700103 Y174.360144 Z-0.125000
G01 X136.192653 Y172.313434 Z-0.125000
G01 X135.336703 Y167.481514 Z-0.125000
G01 X133.712613 Y154.523114 Z-0.125000
G01 X132.642263 Y147.881654 Z-0.125000
G01 X131.917203 Y144.410004 Z-0.125000
G01 X131.087993 Y141.098104 Z-0.125000
G01 X130.175743 Y138.017744 Z-0.125000
G01 X129.123013 Y134.980144 Z-0.125000
G01 X127.216323 Y130.439764 Z-0.125000
G01 X126.182333 Y128.350244 Z-0.125000
G01 X125.045833 Y126.281414 Z-0.125000
G01 X123.868843 Y124.346464 Z-0.125000
G01 X122.621013 Y122.488164 Z-0.125000
G01 X121.305373 Y120.711724 Z-0.125000
G01 X119.873953 Y118.961794 Z-0.125000
G01 X118.375723 Y117.307144 Z-0.125000
G01 X116.855263 Y115.790264 Z-0.125000
G01 X115.255723 Y114.351434 Z-0.125000
G01 X113.593853 Y113.010044 Z-0.125000
G01 X111.914433 Y111.799604 Z-0.125000
G01 X110.196913 Y110.701294 Z-0.125000
G01 X108.477223 Y109.734664 Z-0.125000
G01 X106.621833 Y108.830904 Z-0.125000
G01 X104.928973 Y108.144864 Z-0.125000
G01 X103.501843 Y107.690834 Z-0.125000
G01 X102.096563 Y107.412524 Z-0.125000
G01 X100.573640 Y107.278984 Z-0.125000
G01 X99.041360 Y107.313684 Z-0.125000
G01 X97.504390 Y107.507754 Z-0.125000
G01 X95.898398 Y107.871394 Z-0.125000
G01 X94.238032 Y108.411914 Z-0.125000
G01 X92.547186 Y109.124494 Z-0.125000
G01 X90.912934 Y109.957424 Z-0.125000
G01 X89.150809 Y111.004594 Z-0.125000
G01 X87.361326 Y112.215404 Z-0.125000
G01 X85.471857 Y113.642414 Z-0.125000
G01 X83.585484 Y115.206254 Z-0.125000
G01 X79.621390 Y118.896134 Z-0.125000
G01 X77.212756 Y121.379784 Z-0.125000
G01 X74.826347 Y124.008834 Z-0.125000
G01 X72.465284 Y126.776144 Z-0.125000
G01 X70.194815 Y129.605144 Z-0.125000
G01 X68.039546 Y132.467384 Z-0.125000
G01 X66.082529 Y135.252444 Z-0.125000
G01 X64.335803 Y137.937084 Z-0.125000
G01 X62.753012 Y140.598024 Z-0.125000
G01 X61.453564 Y143.024094 Z-0.125000
G01 X60.316623 Y145.431944 Z-0.125000
G01 X59.396799 Y147.719714 Z-0.125000
G01 X58.685361 Y149.908924 Z-0.125000
G01 X58.203872 Y151.913384 Z-0.125000
G01 X57.927012 Y153.834364 Z-0.125000
G01 X57.874332 Y155.587014 Z-0.125000
G01 X58.046602 Y157.139674 Z-0.125000
G01 X58.392016 Y158.327814 Z-0.125000
G01 X58.915441 Y159.309304 Z-0.125000
G01 X59.606056 Y160.060034 Z-0.125000
G01 X60.457274 Y160.563544 Z-0.125000
G01 X61.182179 Y160.763754 Z-0.125000
G01 X62.126953 Y160.810754 Z-0.125000
G01 X64.984215 Y160.337944 Z-0.125000
G01 X66.148514 Y160.283344 Z-0.125000
G01 X67.532020 Y160.467944 Z-0.125000
G01 X69.202970 Y160.937824 Z-0.125000
G01 X71.993080 Y161.981494 Z-0.125000
G01 X82.509845 Y166.288404 Z-0.125000
G01 X98.272740 Y172.579514 Z-0.125000
G01 X104.329983 Y175.194174 Z-0.125000
G01 X107.703553 Y176.836344 Z-0.125000
G01 X111.049793 Y178.600824 Z-0.125000
G01 X114.396963 Y180.503544 Z-0.125000
G01 X117.598443 Y182.455694 Z-0.125000
G01 X122.828523 Y185.926184 Z-0.125000
G01 X131.692593 Y192.361354 Z-0.125000
G01 X134.225053 Y194.008834 Z-0.125000
G01 X135.547233 Y194.653754 Z-0.125000
G01 X136.630803 Y194.950904 Z-0.125000
G01 X137.579463 Y194.917304 Z-0.125000
G01 X138.327923 Y194.578874 Z-0.125000
G01 X138.942253 Y193.981974 Z-0.125000
G01 X139.448933 Y193.159784 Z-0.125000
G01 X139.911793 Y191.987474 Z-0.125000
G01 X140.262713 Y190.592374 Z-0.125000
G01 X140.492613 Y189.050014 Z-0.125000
G01 X140.597623 Y187.408034 Z-0.125000
G01 X140.574523 Y185.784604 Z-0.125000
G01 X140.419643 Y184.122414 Z-0.125000
G01 X140.156463 Y182.618094 Z-0.125000
G01 X139.791413 Y181.208454 Z-0.125000
G01 X139.292543 Y179.797114 Z-0.125000
G01 X138.490243 Y178.007204 Z-0.125000
G01 X137.924803 Y176.507594 Z-0.125000
G01 X137.394843 Y174.727164 Z-0.125000
G01 X136.930393 Y172.744374 Z-0.125000
G01 X136.111743 Y167.778994 Z-0.125000
G01 X134.612703 Y154.568874 Z-0.125000
G01 X133.641203 Y148.043644 Z-0.125000
G01 X132.953283 Y144.517464 Z-0.125000
G01 X132.147683 Y141.104204 Z-0.125000
G01 X131.222323 Y137.827204 Z-0.125000
G01 X130.215983 Y134.802124 Z-0.125000
G01 X129.304493 Y132.413624 Z-0.125000
G01 X128.344643 Y130.172974 Z-0.125000
G01 X127.300193 Y127.988444 Z-0.125000
G01 X126.133783 Y125.800204 Z-0.125000
G01 X124.882033 Y123.692114 Z-0.125000
G01 X123.605313 Y121.753584 Z-0.125000
G01 X122.232023 Y119.868564 Z-0.125000
G01 X120.825553 Y118.121384 Z-0.125000
G01 X119.282663 Y116.388924 Z-0.125000
G01 X117.692113 Y114.778934 Z-0.125000
G01 X116.044343 Y113.277264 Z-0.125000
G01 X114.376063 Y111.911324 Z-0.125000
G01 X112.560143 Y110.584624 Z-0.125000
G01 X110.757013 Y109.419264 Z-0.125000
G01 X108.870823 Y108.351624 Z-0.125000
G01 X107.044773 Y107.457994 Z-0.125000
G01 X105.288683 Y106.717684 Z-0.125000
G01 X103.741873 Y106.223044 Z-0.125000
G01 X102.360243 Y105.925044 Z-0.125000
G01 X100.866370 Y105.774504 Z-0.125000
G01 X99.264850 Y105.789604 Z-0.125000
G01 X97.657960 Y105.979284 Z-0.125000
G01 X96.048789 Y106.336134 Z-0.125000
G01 X94.398265 Y106.864104 Z-0.125000
G01 X92.696941 Y107.570654 Z-0.125000
G01 X90.952623 Y108.456444 Z-0.125000
G01 X89.097073 Y109.565454 Z-0.125000
G01 X87.307696 Y110.784044 Z-0.125000
G01 X85.449924 Y112.191624 Z-0.125000
G01 X83.500633 Y113.811584 Z-0.125000
G01 X79.383875 Y117.657894 Z-0.125000
G01 X76.860597 Y120.268454 Z-0.125000
G01 X74.337927 Y123.055444 Z-0.125000
G01 X71.843330 Y125.984754 Z-0.125000
G01 X69.407920 Y129.023224 Z-0.125000
G01 X67.156024 Y132.016324 Z-0.125000
G01 X65.108388 Y134.930714 Z-0.125000
G01 X63.281519 Y137.739054 Z-0.125000
G01 X61.637584 Y140.505294 Z-0.125000
G01 X60.275720 Y143.055404 Z-0.125000
G01 X59.146505 Y145.454774 Z-0.125000
G01 X58.202736 Y147.806494 Z-0.125000
G01 X57.478757 Y150.038124 Z-0.125000
G01 X56.976895 Y152.133154 Z-0.125000
G01 X56.690378 Y154.137364 Z-0.125000
G01 X56.635738 Y155.931614 Z-0.125000
G01 X56.816739 Y157.595894 Z-0.125000
G01 X57.198189 Y158.908174 Z-0.125000
G01 X57.785696 Y159.984424 Z-0.125000
G01 X58.504516 Y160.739254 Z-0.125000
G01 X59.394786 Y161.246694 Z-0.125000
G01 X60.255105 Y161.459584 Z-0.125000
G01 X61.137279 Y161.479984 Z-0.125000
G01 X63.979962 Y160.945314 Z-0.125000
G01 X65.180774 Y160.852614 Z-0.125000
G01 X66.535096 Y161.009934 Z-0.125000
G01 X68.241844 Y161.483384 Z-0.125000
G01 X70.893630 Y162.485704 Z-0.125000
G01 X81.947313 Y167.085984 Z-0.125000
G01 X99.128190 Y174.027274 Z-0.125000
G01 X104.474053 Y176.380354 Z-0.125000
G01 X107.830293 Y178.033654 Z-0.125000
G01 X111.245613 Y179.857844 Z-0.125000
G01 X114.523063 Y181.746204 Z-0.125000
G01 X117.844113 Y183.801754 Z-0.125000
G01 X123.065033 Y187.326954 Z-0.125000
G01 X131.853623 Y193.848854 Z-0.125000
G01 X134.457623 Y195.596054 Z-0.125000
G01 X135.824653 Y196.280164 Z-0.125000
G01 X136.894013 Y196.577871 Z-0.125000
G01 X137.825293 Y196.546971 Z-0.125000
G01 X138.594623 Y196.199974 Z-0.125000
G01 X139.271193 Y195.531324 Z-0.125000
G01 X139.826283 Y194.607374 Z-0.125000
G01 X140.311453 Y193.374434 Z-0.125000
G01 X140.705363 Y191.865704 Z-0.125000
G01 X140.992733 Y190.092574 Z-0.125000
G01 X141.133913 Y188.311374 Z-0.125000
G01 X141.136913 Y186.459924 Z-0.125000
G01 X140.998873 Y184.679724 Z-0.125000
G01 X140.744163 Y183.074524 Z-0.125000
G01 X140.379113 Y181.574924 Z-0.125000
G01 X138.624873 Y176.921884 Z-0.125000
G01 X138.101903 Y175.064714 Z-0.125000
G01 X137.649203 Y172.992234 Z-0.125000
G01 X136.920083 Y168.205604 Z-0.125000
G01 X135.556533 Y154.834354 Z-0.125000
G01 X134.619723 Y147.999874 Z-0.125000
G01 X133.956543 Y144.393184 Z-0.125000
G01 X133.194303 Y140.996624 Z-0.125000
G01 X132.314853 Y137.731954 Z-0.125000
G01 X131.322143 Y134.617174 Z-0.125000
G01 X130.410543 Y132.137054 Z-0.125000
G01 X129.403543 Y129.713674 Z-0.125000
G01 X128.324253 Y127.402944 Z-0.125000
G01 X127.186043 Y125.221234 Z-0.125000
G01 X125.964383 Y123.115574 Z-0.125000
G01 X124.606163 Y121.010344 Z-0.125000
G01 X123.173173 Y119.013054 Z-0.125000
G01 X121.727203 Y117.194174 Z-0.125000
G01 X120.179813 Y115.435124 Z-0.125000
G01 X118.544663 Y113.759174 Z-0.125000
G01 X116.831513 Y112.180354 Z-0.125000
G01 X115.011833 Y110.679664 Z-0.125000
G01 X113.221883 Y109.363254 Z-0.125000
G01 X111.318943 Y108.122594 Z-0.125000
G01 X109.373383 Y107.011474 Z-0.125000
G01 X107.432663 Y106.051784 Z-0.125000
G01 X105.534723 Y105.252074 Z-0.125000
G01 X104.192383 Y104.791274 Z-0.125000
G01 X102.573183 Y104.422134 Z-0.125000
G01 X101.043233 Y104.252564 Z-0.125000
G01 X99.401910 Y104.259564 Z-0.125000
G01 X97.858970 Y104.432364 Z-0.125000
G01 X96.250460 Y104.773754 Z-0.125000
G01 X94.486880 Y105.329034 Z-0.125000
G01 X92.690253 Y106.078254 Z-0.125000
G01 X90.955645 Y106.964264 Z-0.125000
G01 X89.126871 Y108.059534 Z-0.125000
G01 X87.218855 Y109.365444 Z-0.125000
G01 X85.212917 Y110.902354 Z-0.125000
G01 X83.279950 Y112.527314 Z-0.125000
G01 X79.064688 Y116.496334 Z-0.125000
G01 X76.390147 Y119.280624 Z-0.125000
G01 X73.735900 Y122.228874 Z-0.125000
G01 X71.112715 Y125.322354 Z-0.125000
G01 X68.575970 Y128.496274 Z-0.125000
G01 X66.228057 Y131.621744 Z-0.125000
G01 X64.082075 Y134.679764 Z-0.125000
G01 X62.164560 Y137.633394 Z-0.125000
G01 X60.492631 Y140.454434 Z-0.125000
G01 X59.072375 Y143.125034 Z-0.125000
G01 X57.904795 Y145.626934 Z-0.125000
G01 X56.932530 Y148.086184 Z-0.125000
G01 X56.213023 Y150.354984 Z-0.125000
G01 X55.704361 Y152.561344 Z-0.125000
G01 X55.434777 Y154.601944 Z-0.125000
G01 X55.400377 Y156.483234 Z-0.125000
G01 X55.596116 Y158.126504 Z-0.125000
G01 X55.962511 Y159.399864 Z-0.125000
G01 X56.544594 Y160.510354 Z-0.125000
G01 X57.311542 Y161.349904 Z-0.125000
G01 X58.246976 Y161.901294 Z-0.125000
G01 X59.137008 Y162.129944 Z-0.125000
G01 X60.145521 Y162.150444 Z-0.125000
G01 X61.045951 Y162.015604 Z-0.125000
G01 X63.184366 Y161.518354 Z-0.125000
G01 X64.344643 Y161.424554 Z-0.125000
G01 X65.733864 Y161.592424 Z-0.125000
G01 X67.362004 Y162.056504 Z-0.125000
G01 X69.946084 Y163.050894 Z-0.125000
G01 X81.434504 Y167.911634 Z-0.125000
G01 X98.292110 Y174.798414 Z-0.125000
G01 X101.548793 Y176.175704 Z-0.125000
G01 X104.593223 Y177.572574 Z-0.125000
G01 X108.029393 Y179.286884 Z-0.125000
G01 X111.421933 Y181.123944 Z-0.125000
G01 X114.814773 Y183.108844 Z-0.125000
G01 X118.151543 Y185.210304 Z-0.125000
G01 X123.456863 Y188.864034 Z-0.125000
G01 X132.348683 Y195.610804 Z-0.125000
G01 X134.823573 Y197.289798 Z-0.125000
G01 X136.111403 Y197.936676 Z-0.125000
G01 X137.175453 Y198.227082 Z-0.125000
G01 X138.039423 Y198.194272 Z-0.125000
G01 X138.829153 Y197.841450 Z-0.125000
G01 X139.493753 Y197.198908 Z-0.125000
G01 X140.138763 Y196.145664 Z-0.125000
G01 X140.703323 Y194.717494 Z-0.125000
G01 X141.144363 Y193.064404 Z-0.125000
G01 X141.474033 Y191.175994 Z-0.125000
G01 X141.667173 Y189.136554 Z-0.125000
G01 X141.703273 Y187.152894 Z-0.125000
G01 X141.581773 Y185.168574 Z-0.125000
G01 X141.350903 Y183.544884 Z-0.125000
G01 X140.992413 Y181.954894 Z-0.125000
G01 X140.661603 Y180.872884 Z-0.125000
G01 X139.318453 Y177.244494 Z-0.125000
G01 X138.816353 Y175.333804 Z-0.125000
G01 X138.413543 Y173.354664 Z-0.125000
G01 X137.726293 Y168.443234 Z-0.125000
G01 X136.485553 Y154.793294 Z-0.125000
G01 X135.633703 Y148.052664 Z-0.125000
G01 X135.017273 Y144.465814 Z-0.125000
G01 X134.257503 Y140.885684 Z-0.125000
G01 X133.393953 Y137.534184 Z-0.125000
G01 X132.410703 Y134.330954 Z-0.125000
G01 X131.496013 Y131.761164 Z-0.125000
G01 X130.478003 Y129.242754 Z-0.125000
G01 X129.367493 Y126.810564 Z-0.125000
G01 X128.207083 Y124.544864 Z-0.125000
G01 X126.958363 Y122.358714 Z-0.125000
G01 X125.599753 Y120.222314 Z-0.125000
G01 X124.132843 Y118.149774 Z-0.125000
G01 X122.638403 Y116.248294 Z-0.125000
G01 X121.025053 Y114.398094 Z-0.125000
G01 X119.341883 Y112.661154 Z-0.125000
G01 X117.617053 Y111.060184 Z-0.125000
G01 X115.745683 Y109.504434 Z-0.125000
G01 X113.863173 Y108.110134 Z-0.125000
G01 X111.899333 Y106.821644 Z-0.125000
G01 X109.873283 Y105.656524 Z-0.125000
G01 X107.844243 Y104.646504 Z-0.125000
G01 X106.069443 Y103.884504 Z-0.125000
G01 X104.113303 Y103.210474 Z-0.125000
G01 X102.721543 Y102.894374 Z-0.125000
G01 X101.218223 Y102.721124 Z-0.125000
G01 X99.608070 Y102.714124 Z-0.125000
G01 X97.893070 Y102.898784 Z-0.125000
G01 X96.176747 Y103.272794 Z-0.125000
G01 X94.530350 Y103.799084 Z-0.125000
G01 X92.733988 Y104.548354 Z-0.125000
G01 X90.911459 Y105.484634 Z-0.125000
G01 X89.020985 Y106.630254 Z-0.125000
G01 X87.198296 Y107.888034 Z-0.125000
G01 X85.264378 Y109.371974 Z-0.125000
G01 X83.157342 Y111.147694 Z-0.125000
G01 X80.974370 Y113.143874 Z-0.125000
G01 X78.731259 Y115.342954 Z-0.125000
G01 X76.010681 Y118.190934 Z-0.125000
G01 X73.154266 Y121.377494 Z-0.125000
G01 X70.337565 Y124.712774 Z-0.125000
G01 X67.700886 Y128.022504 Z-0.125000
G01 X65.257909 Y131.281114 Z-0.125000
G01 X63.035012 Y134.453174 Z-0.125000
G01 X61.047198 Y137.520334 Z-0.125000
G01 X59.342672 Y140.402434 Z-0.125000
G01 X57.900799 Y143.119414 Z-0.125000
G01 X56.688796 Y145.726644 Z-0.125000
G01 X55.716690 Y148.199234 Z-0.125000
G01 X54.970909 Y150.569394 Z-0.125000
G01 X54.447378 Y152.885294 Z-0.125000
G01 X54.183721 Y154.963384 Z-0.125000
G01 X54.160731 Y156.985064 Z-0.125000
G01 X54.384383 Y158.712504 Z-0.125000
G01 X54.760171 Y159.985094 Z-0.125000
G01 X55.359081 Y161.121724 Z-0.125000
G01 X56.142513 Y161.981694 Z-0.125000
G01 X57.089139 Y162.551714 Z-0.125000
G01 X58.024388 Y162.802754 Z-0.125000
G01 X59.066979 Y162.826154 Z-0.125000
G01 X60.090360 Y162.664204 Z-0.125000
G01 X62.284153 Y162.105724 Z-0.125000
G01 X63.492294 Y161.992664 Z-0.125000
G01 X64.825053 Y162.150124 Z-0.125000
G01 X66.343470 Y162.581104 Z-0.125000
G01 X69.237033 Y163.716054 Z-0.125000
G01 X82.183307 Y169.271464 Z-0.125000
G01 X98.903360 Y176.178464 Z-0.125000
G01 X104.667363 Y178.759024 Z-0.125000
G01 X108.207753 Y180.546914 Z-0.125000
G01 X111.666493 Y182.447284 Z-0.125000
G01 X115.085393 Y184.480084 Z-0.125000
G01 X118.437273 Y186.628024 Z-0.125000
G01 X123.947283 Y190.503454 Z-0.125000
G01 X132.427673 Y197.092658 Z-0.125000
G01 X135.006883 Y198.903943 Z-0.125000
G01 X136.196823 Y199.533122 Z-0.125000
G01 X137.273333 Y199.867714 Z-0.125000
G01 X138.224383 Y199.856864 Z-0.125000
G01 X138.997093 Y199.524336 Z-0.125000
G01 X139.728673 Y198.827106 Z-0.125000
G01 X140.401323 Y197.739562 Z-0.125000
G01 X141.031503 Y196.188604 Z-0.125000
G01 X141.541383 Y194.367614 Z-0.125000
G01 X141.945823 Y192.237244 Z-0.125000
G01 X142.187943 Y190.089674 Z-0.125000
G01 X142.272743 Y187.861274 Z-0.125000
G01 X142.187643 Y185.778104 Z-0.125000
G01 X141.975663 Y184.026874 Z-0.125000
G01 X141.655113 Y182.443614 Z-0.125000
G01 X141.199743 Y180.880824 Z-0.125000
G01 X140.536533 Y179.137294 Z-0.125000
G01 X139.991813 Y177.396944 Z-0.125000
G01 X139.186453 Y173.649994 Z-0.125000
G01 X138.559753 Y168.751054 Z-0.125000
G01 X137.491763 Y155.353714 Z-0.125000
G01 X136.677963 Y148.201134 Z-0.125000
G01 X136.074573 Y144.433754 Z-0.125000
G01 X135.360013 Y140.867724 Z-0.125000
G01 X134.542953 Y137.525454 Z-0.125000
G01 X133.608583 Y134.325954 Z-0.125000
G01 X132.702303 Y131.660514 Z-0.125000
G01 X131.713423 Y129.108984 Z-0.125000
G01 X130.602913 Y126.579614 Z-0.125000
G01 X129.435393 Y124.217714 Z-0.125000
G01 X128.173723 Y121.936944 Z-0.125000
G01 X126.778393 Y119.679554 Z-0.125000
G01 X125.287513 Y117.519254 Z-0.125000
G01 X123.739783 Y115.505134 Z-0.125000
G01 X122.091423 Y113.576194 Z-0.125000
G01 X120.351393 Y111.747054 Z-0.125000
G01 X118.570983 Y110.066604 Z-0.125000
G01 X116.652353 Y108.445734 Z-0.125000
G01 X114.684593 Y106.965714 Z-0.125000
G01 X112.666643 Y105.620994 Z-0.125000
G01 X110.545423 Y104.380834 Z-0.125000
G01 X108.457123 Y103.322134 Z-0.125000
G01 X106.295893 Y102.379214 Z-0.125000
G01 X104.845103 Y101.857854 Z-0.125000
G01 X103.185243 Y101.419274 Z-0.125000
G01 X101.673333 Y101.199674 Z-0.125000
G01 X99.922710 Y101.154074 Z-0.125000
G01 X98.271390 Y101.302614 Z-0.125000
G01 X96.562058 Y101.639794 Z-0.125000
G01 X94.795039 Y102.175864 Z-0.125000
G01 X92.989152 Y102.910564 Z-0.125000
G01 X91.152044 Y103.836864 Z-0.125000
G01 X89.307818 Y104.935524 Z-0.125000
G01 X87.294313 Y106.313134 Z-0.125000
G01 X85.180186 Y107.940614 Z-0.125000
G01 X83.137312 Y109.670644 Z-0.125000
G01 X81.010247 Y111.617044 Z-0.125000
G01 X78.736683 Y113.843144 Z-0.125000
G01 X75.790018 Y116.926604 Z-0.125000
G01 X72.861954 Y120.191344 Z-0.125000
G01 X69.902219 Y123.687944 Z-0.125000
G01 X67.092820 Y127.201644 Z-0.125000
G01 X64.484293 Y130.666364 Z-0.125000
G01 X62.163050 Y133.962224 Z-0.125000
G01 X60.106153 Y137.115654 Z-0.125000
G01 X58.284444 Y140.177124 Z-0.125000
G01 X56.771504 Y143.017004 Z-0.125000
G01 X55.522115 Y145.697734 Z-0.125000
G01 X54.521672 Y148.236964 Z-0.125000
G01 X53.734907 Y150.742464 Z-0.125000
G01 X53.202195 Y153.119034 Z-0.125000
G01 X52.929330 Y155.318594 Z-0.125000
G01 X52.911970 Y157.384224 Z-0.125000
G01 X53.154249 Y159.225724 Z-0.125000
G01 X53.569274 Y160.605314 Z-0.125000
G01 X54.168661 Y161.729924 Z-0.125000
G01 X54.964369 Y162.609984 Z-0.125000
G01 X55.960287 Y163.214524 Z-0.125000
G01 X57.012614 Y163.487764 Z-0.125000
G01 X58.103756 Y163.492764 Z-0.125000
G01 X59.150527 Y163.305354 Z-0.125000
G01 X61.383240 Y162.689854 Z-0.125000
G01 X62.534945 Y162.556534 Z-0.125000
G01 X63.807035 Y162.683634 Z-0.125000
G01 X65.398080 Y163.128484 Z-0.125000
G01 X68.154139 Y164.222984 Z-0.125000
G01 X81.519248 Y170.052024 Z-0.125000
G01 X99.772850 Y177.690194 Z-0.125000
G01 X104.812663 Y179.996014 Z-0.125000
G01 X108.275083 Y181.765234 Z-0.125000
G01 X111.800423 Y183.725714 Z-0.125000
G01 X115.245243 Y185.802344 Z-0.125000
G01 X118.652583 Y188.020274 Z-0.125000
G01 X124.098133 Y191.916444 Z-0.125000
G01 X132.902273 Y198.906703 Z-0.125000
G01 X135.279763 Y200.598343 Z-0.125000
G01 X136.534683 Y201.258849 Z-0.125000
G01 X137.512213 Y201.546081 Z-0.125000
G01 X138.405233 Y201.527241 Z-0.125000
G01 X139.130433 Y201.223393 Z-0.125000
G01 X139.931163 Y200.473749 Z-0.125000
G01 X140.682083 Y199.252459 Z-0.125000
G01 X141.353993 Y197.606274 Z-0.125000
G01 X141.935573 Y195.596894 Z-0.125000
G01 X142.414763 Y193.233984 Z-0.125000
G01 X142.720383 Y190.837674 Z-0.125000
G01 X142.845763 Y188.583484 Z-0.125000
G01 X142.796963 Y186.296714 Z-0.125000
G01 X142.618573 Y184.519264 Z-0.125000
G01 X142.294723 Y182.744364 Z-0.125000
G01 X140.776333 Y177.869334 Z-0.125000
G01 X140.355703 Y176.058314 Z-0.125000
G01 X139.982503 Y173.948794 Z-0.125000
G01 X139.398783 Y168.880594 Z-0.125000
G01 X138.446093 Y155.152504 Z-0.125000
G01 X137.729103 Y148.276884 Z-0.125000
G01 X137.168663 Y144.512154 Z-0.125000
G01 X136.497763 Y140.944114 Z-0.125000
G01 X135.703903 Y137.512224 Z-0.125000
G01 X134.786723 Y134.220314 Z-0.125000
G01 X133.885903 Y131.460304 Z-0.125000
G01 X132.843673 Y128.683374 Z-0.125000
G01 X131.721823 Y126.064264 Z-0.125000
G01 X130.536463 Y123.615014 Z-0.125000
G01 X129.232773 Y121.216704 Z-0.125000
G01 X127.804923 Y118.873844 Z-0.125000
G01 X126.332173 Y116.710374 Z-0.125000
G01 X124.726603 Y114.593994 Z-0.125000
G01 X123.036523 Y112.595464 Z-0.125000
G01 X121.290253 Y110.740704 Z-0.125000
G01 X119.387793 Y108.929874 Z-0.125000
G01 X117.458393 Y107.288694 Z-0.125000
G01 X115.436943 Y105.756034 Z-0.125000
G01 X113.341153 Y104.348324 Z-0.125000
G01 X111.142233 Y103.052264 Z-0.125000
G01 X108.986083 Y101.948394 Z-0.125000
G01 X107.006523 Y101.072124 Z-0.125000
G01 X104.911213 Y100.285804 Z-0.125000
G01 X103.337683 Y99.875994 Z-0.125000
G01 X101.826483 Y99.648264 Z-0.125000
G01 X100.208660 Y99.589464 Z-0.125000
G01 X98.486830 Y99.721234 Z-0.125000
G01 X96.764810 Y100.045744 Z-0.125000
G01 X95.010204 Y100.562794 Z-0.125000
G01 X93.201644 Y101.281024 Z-0.125000
G01 X91.268651 Y102.245094 Z-0.125000
G01 X89.362673 Y103.380334 Z-0.125000
G01 X87.432246 Y104.699074 Z-0.125000
G01 X85.426599 Y106.232624 Z-0.125000
G01 X83.195897 Y108.113684 Z-0.125000
G01 X80.959638 Y110.162564 Z-0.125000
G01 X78.583336 Y112.496134 Z-0.125000
G01 X75.590105 Y115.635154 Z-0.125000
G01 X72.455480 Y119.134394 Z-0.125000
G01 X69.294503 Y122.871054 Z-0.125000
G01 X66.316168 Y126.595644 Z-0.125000
G01 X63.606808 Y130.189804 Z-0.125000
G01 X61.187670 Y133.617684 Z-0.125000
G01 X59.017637 Y136.939584 Z-0.125000
G01 X57.145472 Y140.084874 Z-0.125000
G01 X55.574852 Y143.037014 Z-0.125000
G01 X54.285855 Y145.816544 Z-0.125000
G01 X53.254933 Y148.461264 Z-0.125000
G01 X52.470020 Y151.003884 Z-0.125000
G01 X51.946145 Y153.389204 Z-0.125000
G01 X51.669973 Y155.703494 Z-0.125000
G01 X51.659843 Y157.774094 Z-0.125000
G01 X51.919981 Y159.733224 Z-0.125000
G01 X52.344823 Y161.148114 Z-0.125000
G01 X52.993264 Y162.362444 Z-0.125000
G01 X53.869802 Y163.306374 Z-0.125000
G01 X54.823148 Y163.874644 Z-0.125000
G01 X55.928842 Y164.161924 Z-0.125000
G01 X57.141904 Y164.155924 Z-0.125000
G01 X58.228177 Y163.940074 Z-0.125000
G01 X60.480019 Y163.269514 Z-0.125000
G01 X61.678873 Y163.117614 Z-0.125000
G01 X62.975305 Y163.252714 Z-0.125000
G01 X64.485308 Y163.686284 Z-0.125000
G01 X67.249199 Y164.805394 Z-0.125000
G01 X80.576208 Y170.717034 Z-0.125000
G01 X100.243000 Y179.060214 Z-0.125000
G01 X104.940603 Y181.241334 Z-0.125000
G01 X108.503043 Y183.086944 Z-0.125000
G01 X112.089283 Y185.113674 Z-0.125000
G01 X115.642373 Y187.295584 Z-0.125000
G01 X119.035133 Y189.549074 Z-0.125000
G01 X124.660603 Y193.669454 Z-0.125000
G01 X133.099543 Y200.535735 Z-0.125000
G01 X135.448063 Y202.255394 Z-0.125000
G01 X136.670253 Y202.921059 Z-0.125000
G01 X137.650793 Y203.224774 Z-0.125000
G01 X138.501983 Y203.222374 Z-0.125000
G01 X139.231043 Y202.937947 Z-0.125000
G01 X140.073773 Y202.171634 Z-0.125000
G01 X140.856413 Y200.929468 Z-0.125000
G01 X141.601053 Y199.172000 Z-0.125000
G01 X142.297093 Y196.880451 Z-0.125000
G01 X142.849753 Y194.358044 Z-0.125000
G01 X143.243643 Y191.657364 Z-0.125000
G01 X143.428083 Y189.115014 Z-0.125000
G01 X143.415483 Y186.724794 Z-0.125000
G01 X143.257393 Y184.849924 Z-0.125000
G01 X142.968153 Y183.096534 Z-0.125000
G01 X142.698483 Y181.979884 Z-0.125000
G01 X141.509873 Y178.054024 Z-0.125000
G01 X140.807673 Y174.290854 Z-0.125000
G01 X140.295703 Y169.457814 Z-0.125000
G01 X139.477053 Y155.664164 Z-0.125000
G01 X138.811443 Y148.476834 Z-0.125000
G01 X138.283623 Y144.631804 Z-0.125000
G01 X137.647753 Y141.016914 Z-0.125000
G01 X136.877413 Y137.494904 Z-0.125000
G01 X135.994523 Y134.168324 Z-0.125000
G01 X135.073013 Y131.227694 Z-0.125000
G01 X134.064503 Y128.443064 Z-0.125000
G01 X132.980343 Y125.820434 Z-0.125000
G01 X131.744183 Y123.184414 Z-0.125000
G01 X130.406083 Y120.660184 Z-0.125000
G01 X129.009843 Y118.314494 Z-0.125000
G01 X127.490633 Y116.032064 Z-0.125000
G01 X125.854793 Y113.832904 Z-0.125000
G01 X124.114313 Y111.738384 Z-0.125000
G01 X122.315193 Y109.798244 Z-0.125000
G01 X120.368443 Y107.919624 Z-0.125000
G01 X118.357923 Y106.188434 Z-0.125000
G01 X116.284493 Y104.598624 Z-0.125000
G01 X114.096943 Y103.113254 Z-0.125000
G01 X111.841573 Y101.768754 Z-0.125000
G01 X109.583593 Y100.597834 Z-0.125000
G01 X107.259333 Y99.559824 Z-0.125000
G01 X105.357953 Y98.852914 Z-0.125000
G01 X103.783923 Y98.387004 Z-0.125000
G01 X102.255423 Y98.119034 Z-0.125000
G01 X100.601190 Y98.018044 Z-0.125000
G01 X98.841110 Y98.117644 Z-0.125000
G01 X97.126020 Y98.406704 Z-0.125000
G01 X95.253436 Y98.929894 Z-0.125000
G01 X93.440273 Y99.632914 Z-0.125000
G01 X91.552735 Y100.554274 Z-0.125000
G01 X89.636728 Y101.673934 Z-0.125000
G01 X87.530963 Y103.101634 Z-0.125000
G01 X85.376355 Y104.754614 Z-0.125000
G01 X83.214471 Y106.585264 Z-0.125000
G01 X80.961994 Y108.652484 Z-0.125000
G01 X78.560106 Y111.013204 Z-0.125000
G01 X75.410612 Y114.318744 Z-0.125000
G01 X72.137928 Y117.973094 Z-0.125000
G01 X68.834737 Y121.873364 Z-0.125000
G01 X65.620341 Y125.883894 Z-0.125000
G01 X62.746860 Y129.685984 Z-0.125000
G01 X60.181698 Y133.311964 Z-0.125000
G01 X57.941603 Y136.735274 Z-0.125000
G01 X56.002525 Y139.989784 Z-0.125000
G01 X54.408384 Y142.985214 Z-0.125000
G01 X53.073746 Y145.866364 Z-0.125000
G01 X52.010836 Y148.608004 Z-0.125000
G01 X51.202348 Y151.261374 Z-0.125000
G01 X50.670483 Y153.755234 Z-0.125000
G01 X50.406879 Y156.107834 Z-0.125000
G01 X50.413379 Y158.285164 Z-0.125000
G01 X50.703971 Y160.329094 Z-0.125000
G01 X51.155271 Y161.786584 Z-0.125000
G01 X51.849114 Y163.042134 Z-0.125000
G01 X52.712820 Y163.951884 Z-0.125000
G01 X53.783615 Y164.572064 Z-0.125000
G01 X54.838138 Y164.834874 Z-0.125000
G01 X56.093957 Y164.824574 Z-0.125000
G01 X57.198301 Y164.600604 Z-0.125000
G01 X59.624689 Y163.833944 Z-0.125000
G01 X60.717683 Y163.676654 Z-0.125000
G01 X61.972390 Y163.784444 Z-0.125000
G01 X63.414845 Y164.186184 Z-0.125000
G01 X66.046391 Y165.254524 Z-0.125000
G01 X80.141247 Y171.603514 Z-0.125000
G01 X99.376270 Y179.856794 Z-0.125000
G01 X105.045023 Y182.491174 Z-0.125000
G01 X108.619043 Y184.365744 Z-0.125000
G01 X112.230663 Y186.433964 Z-0.125000
G01 X115.757003 Y188.629874 Z-0.125000
G01 X119.206253 Y190.956174 Z-0.125000
G01 X122.027133 Y192.996164 Z-0.125000
G01 X124.850313 Y195.164534 Z-0.125000
G01 X133.342093 Y202.231675 Z-0.125000
G01 X135.677093 Y203.976338 Z-0.125000
G01 X136.759553 Y204.582604 Z-0.125000
G01 X137.735393 Y204.908015 Z-0.125000
G01 X138.538373 Y204.931355 Z-0.125000
G01 X139.297913 Y204.664497 Z-0.125000
G01 X139.801313 Y204.290931 Z-0.125000
G01 X140.238483 Y203.815634 Z-0.125000
G01 X141.058693 Y202.504597 Z-0.125000
G01 X141.899513 Y200.523926 Z-0.125000
G01 X142.652653 Y198.109101 Z-0.125000
G01 X143.289473 Y195.384664 Z-0.125000
G01 X143.759293 Y192.514204 Z-0.125000
G01 X144.012823 Y189.765574 Z-0.125000
G01 X144.049223 Y187.168534 Z-0.125000
G01 X143.928673 Y185.299144 Z-0.125000
G01 X143.682213 Y183.553314 Z-0.125000
G01 X143.321563 Y181.937824 Z-0.125000
G01 X142.677573 Y179.841764 Z-0.125000
G01 X142.191763 Y177.857364 Z-0.125000
G01 X141.814263 Y175.762154 Z-0.125000
G01 X141.496203 Y173.307934 Z-0.125000
G01 X141.105073 Y168.421454 Z-0.125000
G01 X140.396783 Y154.253864 Z-0.125000
G01 X140.071823 Y150.273944 Z-0.125000
G01 X139.646923 Y146.461034 Z-0.125000
G01 X139.181813 Y143.233254 Z-0.125000
G01 X138.624733 Y140.107014 Z-0.125000
G01 X137.976713 Y137.096324 Z-0.125000
G01 X137.214793 Y134.114304 Z-0.125000
G01 X136.303013 Y131.077794 Z-0.125000
G01 X135.297413 Y128.196924 Z-0.125000
G01 X134.169893 Y125.386474 Z-0.125000
G01 X132.951833 Y122.721564 Z-0.125000
G01 X131.642323 Y120.186324 Z-0.125000
G01 X130.172853 Y117.660614 Z-0.125000
G01 X128.603723 Y115.261744 Z-0.125000
G01 X126.933723 Y112.983754 Z-0.125000
G01 X125.192873 Y110.859184 Z-0.125000
G01 X123.282763 Y108.775034 Z-0.125000
G01 X121.330323 Y106.872334 Z-0.125000
G01 X119.270833 Y105.080764 Z-0.125000
G01 X117.126193 Y103.420814 Z-0.125000
G01 X114.866573 Y101.873164 Z-0.125000
G01 X112.545193 Y100.476504 Z-0.125000
G01 X110.195243 Y99.245184 Z-0.125000
G01 X108.086493 Y98.286444 Z-0.125000
G01 X105.794163 Y97.381944 Z-0.125000
G01 X104.007803 Y96.856394 Z-0.125000
G01 X102.488483 Y96.563374 Z-0.125000
G01 X100.760780 Y96.443514 Z-0.125000
G01 X99.032100 Y96.525814 Z-0.125000
G01 X97.203320 Y96.825484 Z-0.125000
G01 X95.446464 Y97.308294 Z-0.125000
G01 X93.537786 Y98.036214 Z-0.125000
G01 X91.596908 Y98.982234 Z-0.125000
G01 X89.592372 Y100.161874 Z-0.125000
G01 X87.647711 Y101.483784 Z-0.125000
G01 X85.617537 Y103.032264 Z-0.125000
G01 X83.354132 Y104.939644 Z-0.125000
G01 X81.016274 Y107.083854 Z-0.125000
G01 X78.512416 Y109.547944 Z-0.125000
G01 X75.251691 Y112.975884 Z-0.125000
G01 X71.772897 Y116.865444 Z-0.125000
G01 X68.266691 Y121.006334 Z-0.125000
G01 X64.879442 Y125.228024 Z-0.125000
G01 X61.899784 Y129.160924 Z-0.125000
G01 X59.220375 Y132.935364 Z-0.125000
G01 X56.883523 Y136.494224 Z-0.125000
G01 X54.901106 Y139.810984 Z-0.125000
G01 X53.239178 Y142.927274 Z-0.125000
G01 X51.858873 Y145.909794 Z-0.125000
G01 X50.785168 Y148.687624 Z-0.125000
G01 X49.953000 Y151.434634 Z-0.125000
G01 X49.410472 Y154.011784 Z-0.125000
G01 X49.142396 Y156.507434 Z-0.125000
G01 X49.162426 Y158.745204 Z-0.125000
G01 X49.476011 Y160.877694 Z-0.125000
G01 X49.966389 Y162.426354 Z-0.125000
G01 X50.625599 Y163.611814 Z-0.125000
G01 X51.523330 Y164.572144 Z-0.125000
G01 X52.577059 Y165.199954 Z-0.125000
G01 X53.754905 Y165.503874 Z-0.125000
G01 X55.054565 Y165.491074 Z-0.125000
G01 X56.387324 Y165.192654 Z-0.125000
G01 X58.753149 Y164.396204 Z-0.125000
G01 X59.855932 Y164.227634 Z-0.125000
G01 X61.050817 Y164.329294 Z-0.125000
G01 X62.501210 Y164.738544 Z-0.125000
G01 X65.211205 Y165.864434 Z-0.125000
G01 X79.278703 Y172.306794 Z-0.125000
G01 X100.262860 Y181.433364 Z-0.125000
G01 X105.038703 Y183.700464 Z-0.125000
G01 X108.727393 Y185.656504 Z-0.125000
G01 X112.354193 Y187.760634 Z-0.125000
G01 X115.868503 Y189.979214 Z-0.125000
G01 X119.386663 Y192.388594 Z-0.125000
G01 X122.259693 Y194.503484 Z-0.125000
G01 X125.150113 Y196.769161 Z-0.125000
G01 X133.642153 Y204.002711 Z-0.125000
G01 X135.803643 Y205.655325 Z-0.125000
G01 X136.832583 Y206.254474 Z-0.125000
G01 X137.805293 Y206.601025 Z-0.125000
G01 X138.659743 Y206.631215 Z-0.125000
G01 X139.423983 Y206.349725 Z-0.125000
G01 X139.895393 Y205.993569 Z-0.125000
G01 X140.322173 Y205.535840 Z-0.125000
G01 X141.239853 Y204.070604 Z-0.125000
G01 X142.163293 Y201.908032 Z-0.125000
G01 X143.026683 Y199.205366 Z-0.125000
G01 X143.768443 Y196.169304 Z-0.125000
G01 X144.298833 Y193.184594 Z-0.125000
G01 X144.609953 Y190.326874 Z-0.125000
G01 X144.696953 Y187.522744 Z-0.125000
G01 X144.609653 Y185.657614 Z-0.125000
G01 X144.386183 Y183.815294 Z-0.125000
G01 X143.028973 Y178.241454 Z-0.125000
G01 X142.660383 Y176.045094 Z-0.125000
G01 X142.363073 Y173.500094 Z-0.125000
G01 X142.013373 Y168.306794 Z-0.125000
G01 X141.453733 Y154.467634 Z-0.125000
G01 X141.153583 Y150.308144 Z-0.125000
G01 X140.783993 Y146.664784 Z-0.125000
G01 X140.328083 Y143.250894 Z-0.125000
G01 X139.805713 Y140.136404 Z-0.125000
G01 X139.194503 Y137.134014 Z-0.125000
G01 X138.472663 Y134.156074 Z-0.125000
