%
(Header)
(Generated by gcodetools from Inkscape.)
(Using default header. To add your own header create file "header" in the output dir.)
M3
(Header end.)
G21 (All units in mm)

(Start cutting path id: polyline41593)
(Change tool to Default tool)

G00 Z5.000000
G00 X207.973051 Y132.616154

G00 Z4.875000 (Fast pre-penetrate)
G01 Z-0.125000 F100.0(Penetrate)
G01 X176.691665 Y126.175115 Z-0.125000 F800.000000
G01 X151.340491 Y146.769003 Z-0.125000
G01 X125.268530 Y131.568579 Z-0.125000
G01 X93.037808 Y127.966129 Z-0.125000
G01 X59.824046 Y123.070703 Z-0.125000
G01 X50.533463 Y124.960155 Z-0.125000
G01 X2.427626 Y113.865225 Z-0.125000
G00 Z5.000000

(End cutting path id: polyline41593)


(Start cutting path id: polyline41395)
(Change tool to Default tool)

G00 Z5.000000
G00 X1.698016 Y114.439099

G00 Z4.875000 (Fast pre-penetrate)
G01 Z-0.125000 F100.0(Penetrate)
G01 X51.565772 Y126.403861 Z-0.125000 F800.000000
G01 X58.766309 Y124.435847 Z-0.125000
G01 X92.693970 Y129.411372 Z-0.125000
G01 X126.223467 Y133.311960 Z-0.125000
G01 X152.422267 Y150.391626 Z-0.125000
G01 X176.582521 Y127.227597 Z-0.125000
G01 X208.248390 Y134.557551 Z-0.125000
G00 Z5.000000

(End cutting path id: polyline41395)


(Start cutting path id: polyline41397)
(Change tool to Default tool)

G00 Z5.000000
G00 X207.756200 Y136.199521

G00 Z4.875000 (Fast pre-penetrate)
G01 Z-0.125000 F100.0(Penetrate)
G01 X176.299945 Y128.885874 Z-0.125000 F800.000000
G01 X152.100188 Y151.256699 Z-0.125000
G01 X125.847064 Y133.920282 Z-0.125000
G01 X92.936842 Y131.256313 Z-0.125000
G01 X59.483082 Y126.927376 Z-0.125000
G01 X51.679625 Y128.718242 Z-0.125000
G01 X3.053544 Y117.888390 Z-0.125000
G00 Z5.000000

(End cutting path id: polyline41397)


(Start cutting path id: polyline41391)
(Change tool to Default tool)

G00 Z5.000000
G00 X12.642414 Y105.831089

G00 Z4.875000 (Fast pre-penetrate)
G01 Z-0.125000 F100.0(Penetrate)
G01 X36.081087 Y104.748173 Z-0.125000 F800.000000
G01 X74.632453 Y103.958638 Z-0.125000
G01 X97.851995 Y107.732486 Z-0.125000
G01 X111.899715 Y107.161388 Z-0.125000
G01 X136.195085 Y96.052629 Z-0.125000
G01 X178.220079 Y111.440362 Z-0.125000
G01 X204.118708 Y105.437040 Z-0.125000
G00 Z5.000000

(End cutting path id: polyline41391)


(Start cutting path id: polyline41393)
(Change tool to Default tool)

G00 Z5.000000
G00 X204.393997 Y107.378437

G00 Z4.875000 (Fast pre-penetrate)
G01 Z-0.125000 F100.0(Penetrate)
G01 X178.110885 Y112.492845 Z-0.125000 F800.000000
G01 X137.276910 Y99.675252 Z-0.125000
G01 X112.854652 Y108.904769 Z-0.125000
G01 X97.508107 Y109.177729 Z-0.125000
G01 X73.574717 Y105.323782 Z-0.125000
G01 X37.113396 Y106.191879 Z-0.125000
G01 X11.912804 Y106.404962 Z-0.125000
G00 Z5.000000

(End cutting path id: polyline41393)


(Start cutting path id: polyline41387)
(Change tool to Default tool)

G00 Z5.000000
G00 X10.208629 Y73.823562

G00 Z4.875000 (Fast pre-penetrate)
G01 Z-0.125000 F100.0(Penetrate)
G01 X37.423580 Y81.748703 Z-0.125000 F800.000000
G01 X73.193158 Y74.957927 Z-0.125000
G01 X89.369585 Y75.726099 Z-0.125000
G01 X109.160307 Y64.255212 Z-0.125000
G01 X149.362713 Y75.306722 Z-0.125000
G01 X175.243944 Y77.455701 Z-0.125000
G01 X205.392105 Y70.010308 Z-0.125000
G00 Z5.000000

(End cutting path id: polyline41387)


(Start cutting path id: polyline41389)
(Change tool to Default tool)

G00 Z5.000000
G00 X205.005987 Y69.313709

G00 Z4.875000 (Fast pre-penetrate)
G01 Z-0.125000 F100.0(Penetrate)
G01 X174.259962 Y74.777259 Z-0.125000 F800.000000
G01 X148.693375 Y74.123485 Z-0.125000
G01 X110.137647 Y63.234551 Z-0.125000
G01 X90.149950 Y73.465398 Z-0.125000
G01 X72.349894 Y72.945601 Z-0.125000
G01 X37.593244 Y79.531323 Z-0.125000
G01 X11.045649 Y72.037702 Z-0.125000
G00 Z5.000000

(End cutting path id: polyline41389)


(Start cutting path id: polyline41383)
(Change tool to Default tool)

G00 Z5.000000
G00 X22.763771 Y47.035820

G00 Z4.875000 (Fast pre-penetrate)
G01 Z-0.125000 F100.0(Penetrate)
G01 X39.968739 Y48.488249 Z-0.125000 F800.000000
G01 X60.544337 Y44.772888 Z-0.125000
G01 X101.074919 Y41.815291 Z-0.125000
G01 X123.820363 Y48.945445 Z-0.125000
G01 X139.322892 Y57.557818 Z-0.125000
G01 X160.484309 Y37.278822 Z-0.125000
G01 X199.600825 Y59.561073 Z-0.125000
G00 Z5.000000

(End cutting path id: polyline41383)


(Start cutting path id: polyline41385)
(Change tool to Default tool)

G00 Z5.000000
G00 X199.986894 Y60.257722

G00 Z4.875000 (Fast pre-penetrate)
G01 Z-0.125000 F100.0(Penetrate)
G01 X161.468242 Y39.957313 Z-0.125000 F800.000000
G01 X139.992230 Y58.741104 Z-0.125000
G01 X122.842973 Y49.966106 Z-0.125000
G01 X100.294553 Y44.075992 Z-0.125000
G01 X61.387602 Y46.785214 Z-0.125000
G01 X39.799075 Y50.705629 Z-0.125000
G01 X21.926751 Y48.821679 Z-0.125000
G00 Z5.000000

(End cutting path id: polyline41385)


(Start cutting path id: polyline41399)
(Change tool to Default tool)

G00 Z5.000000
G00 X22.030790 Y166.178266

G00 Z4.875000 (Fast pre-penetrate)
G01 Z-0.125000 F100.0(Penetrate)
G01 X53.273813 Y161.119421 Z-0.125000 F800.000000
G01 X69.517847 Y161.809131 Z-0.125000
G01 X96.337361 Y157.085352 Z-0.125000
G01 X120.577217 Y142.436596 Z-0.125000
G01 X147.591178 Y163.368127 Z-0.125000
G01 X172.344240 Y152.101798 Z-0.125000
G01 X200.865747 Y159.187442 Z-0.125000
G00 Z5.000000

(End cutting path id: polyline41399)


(Start cutting path id: polyline41401)
(Change tool to Default tool)

G00 Z5.000000
G00 X200.897568 Y160.378857

G00 Z4.875000 (Fast pre-penetrate)
G01 Z-0.125000 F100.0(Penetrate)
G01 X172.425329 Y154.402350 Z-0.125000 F800.000000
G01 X147.741462 Y164.012732 Z-0.125000
G01 X120.537118 Y144.967927 Z-0.125000
G01 X96.677829 Y158.867940 Z-0.125000
G01 X69.088656 Y163.115936 Z-0.125000
G01 X52.959615 Y162.730462 Z-0.125000
G01 X21.948362 Y166.938359 Z-0.125000
G00 Z5.000000

(End cutting path id: polyline41401)


(Start cutting path id: polyline41403)
(Change tool to Default tool)

G00 Z5.000000
G00 X20.794369 Y177.579464

G00 Z4.875000 (Fast pre-penetrate)
G01 Z-0.125000 F100.0(Penetrate)
G01 X48.560294 Y185.284780 Z-0.125000 F800.000000
G01 X63.079980 Y181.411155 Z-0.125000
G01 X101.444284 Y183.824370 Z-0.125000
G01 X119.976528 Y180.407000 Z-0.125000
G01 X149.845385 Y173.037492 Z-0.125000
G01 X173.560686 Y186.609875 Z-0.125000
G01 X201.343215 Y177.058476 Z-0.125000
G00 Z5.000000

(End cutting path id: polyline41403)


(Start cutting path id: polyline41405)
(Change tool to Default tool)

G00 Z5.000000
G00 X201.311345 Y175.867061

G00 Z4.875000 (Fast pre-penetrate)
G01 Z-0.125000 F100.0(Penetrate)
G01 X173.479596 Y184.309323 Z-0.125000 F800.000000
G01 X149.695151 Y172.392888 Z-0.125000
G01 X120.016627 Y177.875620 Z-0.125000
G01 X101.103816 Y182.041782 Z-0.125000
G01 X63.509171 Y180.104351 Z-0.125000
G01 X48.874542 Y183.673789 Z-0.125000
G01 X20.876797 Y176.819370 Z-0.125000
G00 Z5.000000

(End cutting path id: polyline41405)


(Start cutting path id: polyline41407)
(Change tool to Default tool)

G00 Z5.000000
G00 X9.284820 Y206.611549

G00 Z4.875000 (Fast pre-penetrate)
G01 Z-0.125000 F100.0(Penetrate)
G01 X47.072623 Y211.056421 Z-0.125000 F800.000000
G01 X73.565993 Y213.423094 Z-0.125000
G01 X95.415187 Y200.530111 Z-0.125000
G01 X126.166813 Y202.789424 Z-0.125000
G01 X152.227770 Y210.074868 Z-0.125000
G01 X167.592010 Y228.805078 Z-0.125000
G01 X206.325381 Y214.126384 Z-0.125000
G00 Z5.000000

(End cutting path id: polyline41407)


(Start cutting path id: polyline41409)
(Change tool to Default tool)

G00 Z5.000000
G00 X205.773515 Y215.751303

G00 Z4.875000 (Fast pre-penetrate)
G01 Z-0.125000 F100.0(Penetrate)
G01 X168.292029 Y229.515010 Z-0.125000 F800.000000
G01 X151.630154 Y211.185342 Z-0.125000
G01 X125.371776 Y205.282886 Z-0.125000
G01 X95.464951 Y203.202209 Z-0.125000
G01 X73.771939 Y215.150564 Z-0.125000
G01 X45.978505 Y213.108053 Z-0.125000
G01 X10.359508 Y207.941948 Z-0.125000
G00 Z5.000000

(End cutting path id: polyline41409)


(Start cutting path id: polyline41411)
(Change tool to Default tool)

G00 Z5.000000
G00 X25.405187 Y226.567921

G00 Z4.875000 (Fast pre-penetrate)
G01 Z-0.125000 F100.0(Penetrate)
G01 X30.661106 Y241.830302 Z-0.125000 F800.000000
G01 X76.655584 Y239.334659 Z-0.125000
G01 X96.161649 Y240.611774 Z-0.125000
G01 X114.241406 Y240.190811 Z-0.125000
G01 X143.264174 Y226.732182 Z-0.125000
G01 X178.092546 Y239.453865 Z-0.125000
G01 X198.047033 Y238.500564 Z-0.125000
G00 Z5.000000

(End cutting path id: polyline41411)


(Start cutting path id: polyline41413)
(Change tool to Default tool)

G00 Z5.000000
G00 X198.598950 Y236.875596

G00 Z4.875000 (Fast pre-penetrate)
G01 Z-0.125000 F100.0(Penetrate)
G01 X177.392477 Y238.743933 Z-0.125000 F800.000000
G01 X143.861790 Y225.621708 Z-0.125000
G01 X115.036443 Y237.697398 Z-0.125000
G01 X96.111885 Y237.939677 Z-0.125000
G01 X76.449588 Y237.607238 Z-0.125000
G01 X31.755223 Y239.778720 Z-0.125000
G01 X24.330499 Y225.237473 Z-0.125000
G00 Z5.000000

(End cutting path id: polyline41413)


(Start cutting path id: polyline41415)
(Change tool to Default tool)

G00 Z5.000000
G00 X199.150817 Y235.250677

G00 Z4.875000 (Fast pre-penetrate)
G01 Z-0.125000 F100.0(Penetrate)
G01 X176.692458 Y238.034000 Z-0.125000 F800.000000
G01 X144.459307 Y224.511233 Z-0.125000
G01 X115.831431 Y235.203936 Z-0.125000
G01 X96.062121 Y235.267579 Z-0.125000
G01 X76.243642 Y235.879817 Z-0.125000
G01 X32.849341 Y237.727138 Z-0.125000
G01 X23.255812 Y223.907075 Z-0.125000
G00 Z5.000000

(End cutting path id: polyline41415)


(Start cutting path id: polyline41417)
(Change tool to Default tool)

G00 Z5.000000
G00 X199.702733 Y233.625708

G00 Z4.875000 (Fast pre-penetrate)
G01 Z-0.125000 F100.0(Penetrate)
G01 X175.992438 Y237.324068 Z-0.125000 F800.000000
G01 X145.056873 Y223.400759 Z-0.125000
G01 X116.626468 Y232.710524 Z-0.125000
G01 X96.012357 Y232.595481 Z-0.125000
G01 X76.037646 Y234.152346 Z-0.125000
G01 X33.943409 Y235.675506 Z-0.125000
G01 X22.181124 Y222.576627 Z-0.125000
G00 Z5.000000

(End cutting path id: polyline41417)


(Start cutting path id: polyline41419)
(Change tool to Default tool)

G00 Z5.000000
G00 X200.254600 Y232.000790

G00 Z4.875000 (Fast pre-penetrate)
G01 Z-0.125000 F100.0(Penetrate)
G01 X175.292370 Y236.614185 Z-0.125000 F800.000000
G01 X145.654489 Y222.290235 Z-0.125000
G01 X117.421505 Y230.217111 Z-0.125000
G01 X95.962593 Y229.923334 Z-0.125000
G01 X75.831700 Y232.424925 Z-0.125000
G01 X35.037527 Y233.623924 Z-0.125000
G01 X21.106436 Y221.246228 Z-0.125000
G00 Z5.000000

(End cutting path id: polyline41419)


(Start cutting path id: polyline41421)
(Change tool to Default tool)

G00 Z5.000000
G00 X200.806516 Y230.375821

G00 Z4.875000 (Fast pre-penetrate)
G01 Z-0.125000 F100.0(Penetrate)
G01 X174.592350 Y235.904253 Z-0.125000 F800.000000
G01 X146.252056 Y221.179761 Z-0.125000
G01 X118.216542 Y227.723698 Z-0.125000
G01 X95.912829 Y227.251236 Z-0.125000
G01 X75.625704 Y230.697504 Z-0.125000
G01 X36.131595 Y231.572342 Z-0.125000
G01 X20.031748 Y219.915781 Z-0.125000
G00 Z5.000000

(End cutting path id: polyline41421)


(Start cutting path id: polyline41423)
(Change tool to Default tool)

G00 Z5.000000
G00 X201.358383 Y228.750902

G00 Z4.875000 (Fast pre-penetrate)
G01 Z-0.125000 F100.0(Penetrate)
G01 X173.892331 Y235.194320 Z-0.125000 F800.000000
G01 X146.849622 Y220.069286 Z-0.125000
G01 X119.011579 Y225.230286 Z-0.125000
G01 X95.863065 Y224.579139 Z-0.125000
G01 X75.419758 Y228.970033 Z-0.125000
G01 X37.225713 Y229.520760 Z-0.125000
G01 X18.957060 Y218.585382 Z-0.125000
G00 Z5.000000

(End cutting path id: polyline41423)


(Start cutting path id: polyline41425)
(Change tool to Default tool)

G00 Z5.000000
G00 X201.910249 Y227.125934

G00 Z4.875000 (Fast pre-penetrate)
G01 Z-0.125000 F100.0(Penetrate)
G01 X173.192263 Y234.484438 Z-0.125000 F800.000000
G01 X147.447189 Y218.958812 Z-0.125000
G01 X119.806566 Y222.736824 Z-0.125000
G01 X95.813300 Y221.906991 Z-0.125000
G01 X75.213762 Y227.242612 Z-0.125000
G01 X38.319830 Y227.469178 Z-0.125000
G01 X17.882372 Y217.254934 Z-0.125000
G00 Z5.000000

(End cutting path id: polyline41425)


(Start cutting path id: polyline41427)
(Change tool to Default tool)

G00 Z5.000000
G00 X202.462166 Y225.501015

G00 Z4.875000 (Fast pre-penetrate)
G01 Z-0.125000 F100.0(Penetrate)
G01 X172.492243 Y233.774505 Z-0.125000 F800.000000
G01 X148.044755 Y217.848288 Z-0.125000
G01 X120.601603 Y220.243411 Z-0.125000
G01 X95.763536 Y219.234894 Z-0.125000
G01 X75.007816 Y225.515191 Z-0.125000
G01 X39.413898 Y225.417595 Z-0.125000
G01 X16.807684 Y215.924486 Z-0.125000
G00 Z5.000000

(End cutting path id: polyline41427)


(Start cutting path id: polyline41429)
(Change tool to Default tool)

G00 Z5.000000
G00 X203.014032 Y223.876046

G00 Z4.875000 (Fast pre-penetrate)
G01 Z-0.125000 F100.0(Penetrate)
G01 X171.792224 Y233.064622 Z-0.125000 F800.000000
G01 X148.642322 Y216.737813 Z-0.125000
G01 X121.396640 Y217.749999 Z-0.125000
G01 X95.713772 Y216.562796 Z-0.125000
G01 X74.801820 Y223.787720 Z-0.125000
G01 X40.508016 Y223.366013 Z-0.125000
G01 X15.732997 Y214.594088 Z-0.125000
G00 Z5.000000

(End cutting path id: polyline41429)


(Start cutting path id: polyline41431)
(Change tool to Default tool)

G00 Z5.000000
G00 X203.565949 Y222.251078

G00 Z4.875000 (Fast pre-penetrate)
G01 Z-0.125000 F100.0(Penetrate)
G01 X171.092155 Y232.354690 Z-0.125000 F800.000000
G01 X149.239888 Y215.627289 Z-0.125000
G01 X122.191678 Y215.256586 Z-0.125000
G01 X95.664008 Y213.890698 Z-0.125000
G01 X74.595873 Y222.060299 Z-0.125000
G01 X41.602084 Y221.314382 Z-0.125000
G01 X14.658309 Y213.263640 Z-0.125000
G00 Z5.000000

(End cutting path id: polyline41431)


(Start cutting path id: polyline41433)
(Change tool to Default tool)

G00 Z5.000000
G00 X204.117815 Y220.626159

G00 Z4.875000 (Fast pre-penetrate)
G01 Z-0.125000 F100.0(Penetrate)
G01 X170.392136 Y231.644758 Z-0.125000 F800.000000
G01 X149.837455 Y214.516815 Z-0.125000
G01 X122.986715 Y212.763124 Z-0.125000
G01 X95.614244 Y211.218551 Z-0.125000
G01 X74.389877 Y220.332878 Z-0.125000
G01 X42.696202 Y219.262799 Z-0.125000
G01 X13.583571 Y211.933242 Z-0.125000
G00 Z5.000000

(End cutting path id: polyline41433)


(Start cutting path id: polyline41435)
(Change tool to Default tool)

G00 Z5.000000
G00 X202.671780 Y186.943255

G00 Z4.875000 (Fast pre-penetrate)
G01 Z-0.125000 F100.0(Penetrate)
G01 X171.969075 Y197.861929 Z-0.125000 F800.000000
G01 X150.480721 Y182.914142 Z-0.125000
G01 X121.627271 Y186.375626 Z-0.125000
G01 X99.836564 Y188.279254 Z-0.125000
G01 X65.876240 Y189.947692 Z-0.125000
G01 X48.163568 Y192.157241 Z-0.125000
G01 X17.725149 Y185.321360 Z-0.125000
G00 Z5.000000

(End cutting path id: polyline41435)


(Start cutting path id: polyline41437)
(Change tool to Default tool)

G00 Z5.000000
G00 X201.279523 Y174.675645

G00 Z4.875000 (Fast pre-penetrate)
G01 Z-0.125000 F100.0(Penetrate)
G01 X173.398506 Y182.008821 Z-0.125000 F800.000000
G01 X149.544867 Y171.748234 Z-0.125000
G01 X120.056626 Y175.344289 Z-0.125000
G01 X100.763397 Y180.259145 Z-0.125000
G01 X63.938362 Y178.797546 Z-0.125000
G01 X49.188740 Y182.062749 Z-0.125000
G01 X20.959225 Y176.059327 Z-0.125000
G00 Z5.000000

(End cutting path id: polyline41437)


(Start cutting path id: polyline41439)
(Change tool to Default tool)

G00 Z5.000000
G00 X201.184010 Y171.101448

G00 Z4.875000 (Fast pre-penetrate)
G01 Z-0.125000 F100.0(Penetrate)
G01 X173.155237 Y175.107216 Z-0.125000 F800.000000
G01 X149.094016 Y169.814371 Z-0.125000
G01 X120.176774 Y167.750199 Z-0.125000
G01 X99.741993 Y174.911381 Z-0.125000
G01 X65.225936 Y174.877131 Z-0.125000
G01 X50.131483 Y177.229677 Z-0.125000
G01 X21.206509 Y173.779048 Z-0.125000
G00 Z5.000000

(End cutting path id: polyline41439)


(Start cutting path id: polyline41441)
(Change tool to Default tool)

G00 Z5.000000
G00 X201.120367 Y168.718667

G00 Z4.875000 (Fast pre-penetrate)
G01 Z-0.125000 F100.0(Penetrate)
G01 X172.993008 Y170.506112 Z-0.125000 F800.000000
G01 X148.793399 Y168.525112 Z-0.125000
G01 X120.256823 Y162.687488 Z-0.125000
G01 X99.061056 Y171.346155 Z-0.125000
G01 X66.084318 Y172.263521 Z-0.125000
G01 X50.759929 Y174.007646 Z-0.125000
G01 X21.371366 Y172.258911 Z-0.125000
G00 Z5.000000

(End cutting path id: polyline41441)


(Start cutting path id: polyline41443)
(Change tool to Default tool)

G00 Z5.000000
G00 X201.088546 Y167.527251

G00 Z4.875000 (Fast pre-penetrate)
G01 Z-0.125000 F100.0(Penetrate)
G01 X172.911918 Y168.205610 Z-0.125000 F800.000000
G01 X148.643164 Y167.880507 Z-0.125000
G01 X120.296922 Y160.156108 Z-0.125000
G01 X98.720588 Y169.563567 Z-0.125000
G01 X66.513509 Y170.956716 Z-0.125000
G01 X51.074177 Y172.396605 Z-0.125000
G01 X21.453794 Y171.498818 Z-0.125000
G00 Z5.000000

(End cutting path id: polyline41443)


(Start cutting path id: polyline41445)
(Change tool to Default tool)

G00 Z5.000000
G00 X201.056725 Y166.335836

G00 Z4.875000 (Fast pre-penetrate)
G01 Z-0.125000 F100.0(Penetrate)
G01 X172.830828 Y165.905058 Z-0.125000 F800.000000
G01 X148.492881 Y167.235853 Z-0.125000
G01 X120.336922 Y157.624728 Z-0.125000
G01 X98.380120 Y167.780979 Z-0.125000
G01 X66.942700 Y169.649911 Z-0.125000
G01 X51.388425 Y170.785565 Z-0.125000
G01 X21.536222 Y170.738775 Z-0.125000
G00 Z5.000000

(End cutting path id: polyline41445)


(Start cutting path id: polyline41447)
(Change tool to Default tool)

G00 Z5.000000
G00 X201.024854 Y165.144420

G00 Z4.875000 (Fast pre-penetrate)
G01 Z-0.125000 F100.0(Penetrate)
G01 X172.749738 Y163.604507 Z-0.125000 F800.000000
G01 X148.342597 Y166.591249 Z-0.125000
G01 X120.376971 Y155.093397 Z-0.125000
G01 X98.039652 Y165.998391 Z-0.125000
G01 X67.371891 Y168.343106 Z-0.125000
G01 X51.702673 Y169.174574 Z-0.125000
G01 X21.618650 Y169.978681 Z-0.125000
G00 Z5.000000

(End cutting path id: polyline41447)


(Start cutting path id: polyline41449)
(Change tool to Default tool)

G00 Z5.000000
G00 X200.993032 Y163.953054

G00 Z4.875000 (Fast pre-penetrate)
G01 Z-0.125000 F100.0(Penetrate)
G01 X172.668648 Y161.303955 Z-0.125000 F800.000000
G01 X148.192313 Y165.946595 Z-0.125000
G01 X120.417020 Y152.562017 Z-0.125000
G01 X97.699184 Y164.215753 Z-0.125000
G01 X67.801082 Y167.036301 Z-0.125000
G01 X52.016871 Y167.563533 Z-0.125000
G01 X21.701078 Y169.218588 Z-0.125000
G00 Z5.000000

(End cutting path id: polyline41449)


(Start cutting path id: polyline41451)
(Change tool to Default tool)

G00 Z5.000000
G00 X200.961211 Y162.761639

G00 Z4.875000 (Fast pre-penetrate)
G01 Z-0.125000 F100.0(Penetrate)
G01 X172.587559 Y159.003453 Z-0.125000 F800.000000
G01 X148.042029 Y165.301990 Z-0.125000
G01 X120.457069 Y150.030687 Z-0.125000
G01 X97.358716 Y162.433165 Z-0.125000
G01 X68.230274 Y165.729546 Z-0.125000
G01 X52.331119 Y165.952493 Z-0.125000
G01 X21.783506 Y168.458495 Z-0.125000
G00 Z5.000000

(End cutting path id: polyline41451)


(Start cutting path id: polyline41453)
(Change tool to Default tool)

G00 Z5.000000
G00 X200.929390 Y161.570223

G00 Z4.875000 (Fast pre-penetrate)
G01 Z-0.125000 F100.0(Penetrate)
G01 X172.506469 Y156.702901 Z-0.125000 F800.000000
G01 X147.891745 Y164.657386 Z-0.125000
G01 X120.497119 Y147.499307 Z-0.125000
G01 X97.018297 Y160.650577 Z-0.125000
G01 X68.659465 Y164.422741 Z-0.125000
G01 X52.645367 Y164.341502 Z-0.125000
G01 X21.865934 Y167.698452 Z-0.125000
G00 Z5.000000

(End cutting path id: polyline41453)


(Start cutting path id: polyline41455)
(Change tool to Default tool)

G00 Z5.000000
G00 X201.152188 Y169.910033

G00 Z4.875000 (Fast pre-penetrate)
G01 Z-0.125000 F100.0(Penetrate)
G01 X173.074097 Y172.806664 Z-0.125000 F800.000000
G01 X148.943732 Y169.169766 Z-0.125000
G01 X120.216823 Y165.218819 Z-0.125000
G01 X99.401525 Y173.128743 Z-0.125000
G01 X65.655127 Y173.570326 Z-0.125000
G01 X50.445731 Y175.618637 Z-0.125000
G01 X21.288937 Y173.019004 Z-0.125000
G00 Z5.000000

(End cutting path id: polyline41455)


(Start cutting path id: polyline41457)
(Change tool to Default tool)

G00 Z5.000000
G00 X201.215831 Y172.292864

G00 Z4.875000 (Fast pre-penetrate)
G01 Z-0.125000 F100.0(Penetrate)
G01 X173.236327 Y177.407718 Z-0.125000 F800.000000
G01 X149.244300 Y170.458975 Z-0.125000
G01 X120.136725 Y170.281529 Z-0.125000
G01 X100.082461 Y176.693969 Z-0.125000
G01 X64.796744 Y176.183936 Z-0.125000
G01 X49.817236 Y178.840717 Z-0.125000
G01 X21.124081 Y174.539141 Z-0.125000
G00 Z5.000000

(End cutting path id: polyline41457)


(Start cutting path id: polyline41459)
(Change tool to Default tool)

G00 Z5.000000
G00 X201.247702 Y173.484279

G00 Z4.875000 (Fast pre-penetrate)
G01 Z-0.125000 F100.0(Penetrate)
G01 X173.317416 Y179.708269 Z-0.125000 F800.000000
G01 X149.394583 Y171.103629 Z-0.125000
G01 X120.096676 Y172.812909 Z-0.125000
G01 X100.422929 Y178.476557 Z-0.125000
G01 X64.367553 Y177.490741 Z-0.125000
G01 X49.502988 Y180.451708 Z-0.125000
G01 X21.041653 Y175.299234 Z-0.125000
G00 Z5.000000

(End cutting path id: polyline41459)


(Start cutting path id: polyline41461)
(Change tool to Default tool)

G00 Z5.000000
G00 X201.675357 Y179.529634

G00 Z4.875000 (Fast pre-penetrate)
G01 Z-0.125000 F100.0(Penetrate)
G01 X173.162820 Y189.422888 Z-0.125000 F800.000000
G01 X150.004244 Y175.506667 Z-0.125000
G01 X120.389263 Y181.899132 Z-0.125000
G01 X101.042354 Y184.938116 Z-0.125000
G01 X63.779057 Y183.545265 Z-0.125000
G01 X48.461113 Y187.002883 Z-0.125000
G01 X20.027039 Y179.514913 Z-0.125000
G00 Z5.000000

(End cutting path id: polyline41461)


(Start cutting path id: polyline41463)
(Change tool to Default tool)

G00 Z5.000000
G00 X202.007498 Y182.000841

G00 Z4.875000 (Fast pre-penetrate)
G01 Z-0.125000 F100.0(Penetrate)
G01 X172.764905 Y192.235902 Z-0.125000 F800.000000
G01 X150.163053 Y177.975793 Z-0.125000
G01 X120.801949 Y183.391313 Z-0.125000
G01 X100.640424 Y186.051812 Z-0.125000
G01 X64.478085 Y185.679424 Z-0.125000
G01 X48.361931 Y188.720986 Z-0.125000
G01 X19.259759 Y181.450412 Z-0.125000
G00 Z5.000000

(End cutting path id: polyline41463)


(Start cutting path id: polyline41465)
(Change tool to Default tool)

G00 Z5.000000
G00 X202.339639 Y184.472048

G00 Z4.875000 (Fast pre-penetrate)
G01 Z-0.125000 F100.0(Penetrate)
G01 X172.366990 Y195.048915 Z-0.125000 F800.000000
G01 X150.321862 Y180.444967 Z-0.125000
G01 X121.214585 Y184.883495 Z-0.125000
G01 X100.238494 Y187.165509 Z-0.125000
G01 X65.177163 Y187.813533 Z-0.125000
G01 X48.262750 Y190.439088 Z-0.125000
G01 X18.492429 Y183.385861 Z-0.125000
G00 Z5.000000

(End cutting path id: polyline41465)


(Start cutting path id: polyline41467)
(Change tool to Default tool)

G00 Z5.000000
G00 X203.003921 Y189.414413

G00 Z4.875000 (Fast pre-penetrate)
G01 Z-0.125000 F100.0(Penetrate)
G01 X171.571160 Y200.674942 Z-0.125000 F800.000000
G01 X150.639530 Y185.383268 Z-0.125000
G01 X122.040006 Y187.867808 Z-0.125000
G01 X99.434585 Y189.392951 Z-0.125000
G01 X66.575318 Y192.081802 Z-0.125000
G01 X48.064387 Y193.875344 Z-0.125000
G01 X16.957820 Y187.256809 Z-0.125000
G00 Z5.000000

(End cutting path id: polyline41467)


(Start cutting path id: polyline41469)
(Change tool to Default tool)

G00 Z5.000000
G00 X203.336062 Y191.885620

G00 Z4.875000 (Fast pre-penetrate)
G01 Z-0.125000 F100.0(Penetrate)
G01 X171.173245 Y203.487956 Z-0.125000 F800.000000
G01 X150.798339 Y187.852442 Z-0.125000
G01 X99.032655 Y190.506696 Z-0.125000
G01 X67.274395 Y194.215961 Z-0.125000
G01 X47.965206 Y195.593446 Z-0.125000
G01 X16.190539 Y189.192258 Z-0.125000
G00 Z5.000000

(End cutting path id: polyline41469)


(Start cutting path id: polyline41471)
(Change tool to Default tool)

G00 Z5.000000
G00 X203.668203 Y194.356827

G00 Z4.875000 (Fast pre-penetrate)
G01 Z-0.125000 F100.0(Penetrate)
G01 X170.775281 Y206.300970 Z-0.125000 F800.000000
G01 X150.957198 Y190.321617 Z-0.125000
G01 X122.865328 Y190.852121 Z-0.125000
G01 X98.630725 Y191.620393 Z-0.125000
G01 X67.973423 Y196.350070 Z-0.125000
G01 X47.866024 Y197.311549 Z-0.125000
G01 X15.423210 Y191.127757 Z-0.125000
G00 Z5.000000

(End cutting path id: polyline41471)


(Start cutting path id: polyline41473)
(Change tool to Default tool)

G00 Z5.000000
G00 X204.000344 Y196.828034

G00 Z4.875000 (Fast pre-penetrate)
G01 Z-0.125000 F100.0(Penetrate)
G01 X170.377415 Y209.113983 Z-0.125000 F800.000000
G01 X151.116007 Y192.790743 Z-0.125000
G01 X123.278013 Y192.344303 Z-0.125000
G01 X98.228795 Y192.734138 Z-0.125000
G01 X68.672500 Y198.484229 Z-0.125000
G01 X47.766843 Y199.029652 Z-0.125000
G01 X14.655930 Y193.063206 Z-0.125000
G00 Z5.000000

(End cutting path id: polyline41473)


(Start cutting path id: polyline41475)
(Change tool to Default tool)

G00 Z5.000000
G00 X204.332535 Y199.299191

G00 Z4.875000 (Fast pre-penetrate)
G01 Z-0.125000 F100.0(Penetrate)
G01 X169.979450 Y211.926997 Z-0.125000 F800.000000
G01 X151.274816 Y195.259917 Z-0.125000
G01 X123.690749 Y193.836434 Z-0.125000
G01 X97.826816 Y193.847835 Z-0.125000
G01 X69.371578 Y200.618338 Z-0.125000
G01 X47.667662 Y200.747755 Z-0.125000
G01 X13.888600 Y194.998705 Z-0.125000
G00 Z5.000000

(End cutting path id: polyline41475)


(Start cutting path id: polyline41477)
(Change tool to Default tool)

G00 Z5.000000
G00 X204.664676 Y201.770398

G00 Z4.875000 (Fast pre-penetrate)
G01 Z-0.125000 F100.0(Penetrate)
G01 X169.581535 Y214.740010 Z-0.125000 F800.000000
G01 X151.433625 Y197.729092 Z-0.125000
G01 X124.103385 Y195.328616 Z-0.125000
G01 X97.424886 Y194.961531 Z-0.125000
G01 X70.070655 Y202.752448 Z-0.125000
G01 X47.568480 Y202.465907 Z-0.125000
G01 X13.121320 Y196.934154 Z-0.125000
G00 Z5.000000

(End cutting path id: polyline41477)


(Start cutting path id: polyline41479)
(Change tool to Default tool)

G00 Z5.000000
G00 X204.996817 Y204.241606

G00 Z4.875000 (Fast pre-penetrate)
G01 Z-0.125000 F100.0(Penetrate)
G01 X169.183620 Y217.553024 Z-0.125000 F800.000000
G01 X151.592484 Y200.198218 Z-0.125000
G01 X124.516070 Y196.820797 Z-0.125000
G01 X97.022956 Y196.075277 Z-0.125000
G01 X70.769733 Y204.886607 Z-0.125000
G01 X47.469299 Y204.184010 Z-0.125000
G01 X12.354040 Y198.869653 Z-0.125000
G00 Z5.000000

(End cutting path id: polyline41479)


(Start cutting path id: polyline41481)
(Change tool to Default tool)

G00 Z5.000000
G00 X205.328958 Y206.712763

G00 Z4.875000 (Fast pre-penetrate)
G01 Z-0.125000 F100.0(Penetrate)
G01 X168.785755 Y220.366037 Z-0.125000 F800.000000
G01 X151.751293 Y202.667393 Z-0.125000
G01 X124.928756 Y198.312929 Z-0.125000
G01 X96.621026 Y197.188973 Z-0.125000
G01 X71.468810 Y207.020716 Z-0.125000
G01 X47.370118 Y205.902113 Z-0.125000
G01 X11.586710 Y200.805103 Z-0.125000
G00 Z5.000000

(End cutting path id: polyline41481)


(Start cutting path id: polyline41483)
(Change tool to Default tool)

G00 Z5.000000
G00 X204.669732 Y219.001191

G00 Z4.875000 (Fast pre-penetrate)
G01 Z-0.125000 F100.0(Penetrate)
G01 X169.692067 Y230.934825 Z-0.125000 F800.000000
G01 X150.435021 Y213.406340 Z-0.125000
G01 X123.781752 Y210.269711 Z-0.125000
G01 X95.564480 Y208.546454 Z-0.125000
G01 X74.183931 Y218.605407 Z-0.125000
G01 X43.790320 Y217.211217 Z-0.125000
G01 X12.508884 Y210.602794 Z-0.125000
G00 Z5.000000

(End cutting path id: polyline41483)


(Start cutting path id: polyline41485)
(Change tool to Default tool)

G00 Z5.000000
G00 X205.221598 Y217.376272

G00 Z4.875000 (Fast pre-penetrate)
G01 Z-0.125000 F100.0(Penetrate)
G01 X168.992048 Y230.224893 Z-0.125000 F800.000000
G01 X151.032588 Y212.295866 Z-0.125000
G01 X124.576789 Y207.776299 Z-0.125000
G01 X95.514715 Y205.874356 Z-0.125000
G01 X73.977935 Y216.877986 Z-0.125000
G01 X44.884388 Y215.159635 Z-0.125000
G01 X11.434196 Y209.272396 Z-0.125000
G00 Z5.000000

(End cutting path id: polyline41485)


(Start cutting path id: polyline41487)
(Change tool to Default tool)

G00 Z5.000000
G00 X205.661099 Y209.183970

G00 Z4.875000 (Fast pre-penetrate)
G01 Z-0.125000 F100.0(Penetrate)
G01 X168.387840 Y223.179051 Z-0.125000 F800.000000
G01 X151.910102 Y205.136567 Z-0.125000
G01 X125.341442 Y199.805111 Z-0.125000
G01 X96.219096 Y198.302669 Z-0.125000
G01 X72.167838 Y209.154825 Z-0.125000
G01 X47.270986 Y207.620216 Z-0.125000
G01 X10.819430 Y202.740601 Z-0.125000
G00 Z5.000000

(End cutting path id: polyline41487)


(Start cutting path id: polyline41489)
(Change tool to Default tool)

G00 Z5.000000
G00 X205.993240 Y211.655177

G00 Z4.875000 (Fast pre-penetrate)
G01 Z-0.125000 F100.0(Penetrate)
G01 X167.989875 Y225.992064 Z-0.125000 F800.000000
G01 X152.068912 Y207.605742 Z-0.125000
G01 X125.754127 Y201.297292 Z-0.125000
G01 X95.817117 Y199.416415 Z-0.125000
G01 X72.866916 Y211.288984 Z-0.125000
G01 X47.171804 Y209.338318 Z-0.125000
G01 X10.052100 Y204.676051 Z-0.125000
G00 Z5.000000

(End cutting path id: polyline41489)


(Start cutting path id: polyline41491)
(Change tool to Default tool)

G00 Z5.000000
G00 X201.357936 Y157.545422

G00 Z4.875000 (Fast pre-penetrate)
G01 Z-0.125000 F100.0(Penetrate)
G01 X172.626815 Y150.443521 Z-0.125000 F800.000000
G01 X147.913257 Y162.503053 Z-0.125000
G01 X120.953620 Y141.828274 Z-0.125000
G01 X96.094438 Y155.240459 Z-0.125000
G01 X68.801074 Y159.317552 Z-0.125000
G01 X53.159960 Y158.805090 Z-0.125000
G01 X20.675262 Y162.728975 Z-0.125000
G00 Z5.000000

(End cutting path id: polyline41491)


(Start cutting path id: polyline41493)
(Change tool to Default tool)

G00 Z5.000000
G00 X201.850076 Y155.903453

G00 Z4.875000 (Fast pre-penetrate)
G01 Z-0.125000 F100.0(Penetrate)
G01 X172.909340 Y148.785244 Z-0.125000 F800.000000
G01 X148.235336 Y161.637930 Z-0.125000
G01 X121.330024 Y141.219952 Z-0.125000
G01 X95.851565 Y153.395517 Z-0.125000
G01 X68.084302 Y156.826023 Z-0.125000
G01 X53.046057 Y156.490710 Z-0.125000
G01 X19.319783 Y159.279733 Z-0.125000
G00 Z5.000000

(End cutting path id: polyline41493)


(Start cutting path id: polyline41495)
(Change tool to Default tool)

G00 Z5.000000
G00 X202.342266 Y154.261483

G00 Z4.875000 (Fast pre-penetrate)
G01 Z-0.125000 F100.0(Penetrate)
G01 X173.191866 Y147.126968 Z-0.125000 F800.000000
G01 X148.557415 Y160.772807 Z-0.125000
G01 X121.706427 Y140.611679 Z-0.125000
G01 X95.608692 Y151.550576 Z-0.125000
G01 X67.367529 Y154.334444 Z-0.125000
G01 X52.932205 Y154.176329 Z-0.125000
G01 X17.964255 Y155.830442 Z-0.125000
G00 Z5.000000

(End cutting path id: polyline41495)


(Start cutting path id: polyline41497)
(Change tool to Default tool)

G00 Z5.000000
G00 X202.834455 Y152.619464

G00 Z4.875000 (Fast pre-penetrate)
G01 Z-0.125000 F100.0(Penetrate)
G01 X173.474441 Y145.468691 Z-0.125000 F800.000000
G01 X148.879445 Y159.907733 Z-0.125000
G01 X122.082880 Y140.003357 Z-0.125000
G01 X95.365770 Y149.705634 Z-0.125000
G01 X66.650757 Y151.842915 Z-0.125000
G01 X52.818352 Y151.861949 Z-0.125000
G01 X16.608727 Y152.381151 Z-0.125000
G00 Z5.000000

(End cutting path id: polyline41497)


(Start cutting path id: polyline41499)
(Change tool to Default tool)

G00 Z5.000000
G00 X203.326595 Y150.977495

G00 Z4.875000 (Fast pre-penetrate)
G01 Z-0.125000 F100.0(Penetrate)
G01 X173.756967 Y143.810414 Z-0.125000 F800.000000
G01 X149.201524 Y159.042610 Z-0.125000
G01 X122.459284 Y139.395034 Z-0.125000
G01 X95.122897 Y147.860692 Z-0.125000
G01 X65.934034 Y149.351337 Z-0.125000
G01 X52.704499 Y149.547568 Z-0.125000
G01 X15.253199 Y148.931910 Z-0.125000
G00 Z5.000000

(End cutting path id: polyline41499)


(Start cutting path id: polyline41501)
(Change tool to Default tool)

G00 Z5.000000
G00 X203.818784 Y149.335475

G00 Z4.875000 (Fast pre-penetrate)
G01 Z-0.125000 F100.0(Penetrate)
G01 X174.039542 Y142.152137 Z-0.125000 F800.000000
G01 X149.523604 Y158.177536 Z-0.125000
G01 X122.835687 Y138.786761 Z-0.125000
G01 X94.879974 Y146.015750 Z-0.125000
G01 X52.590596 Y147.233237 Z-0.125000
G01 X13.897670 Y145.482619 Z-0.125000
G00 Z5.000000

(End cutting path id: polyline41501)


(Start cutting path id: polyline41503)
(Change tool to Default tool)

G00 Z5.000000
G00 X204.310974 Y147.693506

G00 Z4.875000 (Fast pre-penetrate)
G01 Z-0.125000 F100.0(Penetrate)
G01 X174.322117 Y140.493861 Z-0.125000 F800.000000
G01 X149.845683 Y157.312413 Z-0.125000
G01 X123.212140 Y138.178439 Z-0.125000
G01 X94.637102 Y144.170857 Z-0.125000
G01 X64.500489 Y144.368229 Z-0.125000
G01 X52.476744 Y144.918856 Z-0.125000
G01 X12.542142 Y142.033328 Z-0.125000
G00 Z5.000000

(End cutting path id: polyline41503)


(Start cutting path id: polyline41505)
(Change tool to Default tool)

G00 Z5.000000
G00 X204.803163 Y146.051487

G00 Z4.875000 (Fast pre-penetrate)
G01 Z-0.125000 F100.0(Penetrate)
G01 X174.604643 Y138.835584 Z-0.125000 F800.000000
G01 X150.167762 Y156.447339 Z-0.125000
G01 X123.588544 Y137.570117 Z-0.125000
G01 X94.394229 Y142.325915 Z-0.125000
G01 X63.783717 Y141.876700 Z-0.125000
G01 X52.362891 Y142.604476 Z-0.125000
G01 X11.186664 Y138.584037 Z-0.125000
G00 Z5.000000

(End cutting path id: polyline41505)


(Start cutting path id: polyline41507)
(Change tool to Default tool)

G00 Z5.000000
G00 X205.295303 Y144.409517

G00 Z4.875000 (Fast pre-penetrate)
G01 Z-0.125000 F100.0(Penetrate)
G01 X174.887168 Y137.177307 Z-0.125000 F800.000000
G01 X150.489841 Y155.582216 Z-0.125000
G01 X123.964947 Y136.961795 Z-0.125000
G01 X94.151306 Y140.480974 Z-0.125000
G01 X63.066944 Y139.385121 Z-0.125000
G01 X52.248988 Y140.290095 Z-0.125000
G01 X9.831135 Y135.134746 Z-0.125000
G00 Z5.000000

(End cutting path id: polyline41507)


(Start cutting path id: polyline41509)
(Change tool to Default tool)

G00 Z5.000000
G00 X205.787492 Y142.767498

G00 Z4.875000 (Fast pre-penetrate)
G01 Z-0.125000 F100.0(Penetrate)
G01 X175.169744 Y135.519030 Z-0.125000 F800.000000
G01 X150.811920 Y154.717093 Z-0.125000
G01 X124.341400 Y136.353522 Z-0.125000
G01 X93.908433 Y138.636032 Z-0.125000
G01 X62.350172 Y136.893592 Z-0.125000
G01 X52.135135 Y137.975715 Z-0.125000
G01 X8.475607 Y131.685505 Z-0.125000
G00 Z5.000000

(End cutting path id: polyline41509)


(Start cutting path id: polyline41511)
(Change tool to Default tool)

G00 Z5.000000
G00 X204.669335 Y109.319784

G00 Z4.875000 (Fast pre-penetrate)
G01 Z-0.125000 F100.0(Penetrate)
G01 X178.001741 Y113.545327 Z-0.125000 F800.000000
G01 X138.358736 Y103.297825 Z-0.125000
G01 X113.809588 Y110.648150 Z-0.125000
G01 X97.164269 Y110.622971 Z-0.125000
G01 X72.516980 Y106.688926 Z-0.125000
G01 X38.145705 Y107.635585 Z-0.125000
G01 X11.183144 Y106.978836 Z-0.125000
G00 Z5.000000

(End cutting path id: polyline41511)


(Start cutting path id: polyline41513)
(Change tool to Default tool)

G00 Z5.000000
G00 X204.203564 Y103.075274

G00 Z4.875000 (Fast pre-penetrate)
G01 Z-0.125000 F100.0(Penetrate)
G01 X178.021666 Y109.174705 Z-0.125000 F800.000000
G01 X137.072947 Y94.669591 Z-0.125000
G01 X111.717114 Y104.300989 Z-0.125000
G01 X97.286498 Y105.598724 Z-0.125000
G01 X74.536493 Y102.025270 Z-0.125000
G01 X36.170603 Y103.214852 Z-0.125000
G01 X12.480185 Y103.697277 Z-0.125000
G00 Z5.000000

(End cutting path id: polyline41513)


(Start cutting path id: polyline41515)
(Change tool to Default tool)

G00 Z5.000000
G00 X204.288471 Y100.713459

G00 Z4.875000 (Fast pre-penetrate)
G01 Z-0.125000 F100.0(Penetrate)
G01 X177.823254 Y106.909097 Z-0.125000 F800.000000
G01 X137.950759 Y93.286504 Z-0.125000
G01 X111.534464 Y101.440591 Z-0.125000
G01 X96.721001 Y103.464961 Z-0.125000
G01 X74.440583 Y100.091903 Z-0.125000
G01 X36.260070 Y101.681580 Z-0.125000
G01 X12.317906 Y101.563415 Z-0.125000
G00 Z5.000000

(End cutting path id: polyline41515)


(Start cutting path id: polyline41517)
(Change tool to Default tool)

G00 Z5.000000
G00 X204.373377 Y98.351693

G00 Z4.875000 (Fast pre-penetrate)
G01 Z-0.125000 F100.0(Penetrate)
G01 X177.624842 Y104.643440 Z-0.125000 F800.000000
G01 X138.828621 Y91.903467 Z-0.125000
G01 X111.351863 Y98.580143 Z-0.125000
G01 X96.155503 Y101.331199 Z-0.125000
G01 X74.344624 Y98.158485 Z-0.125000
G01 X36.349586 Y100.148259 Z-0.125000
G01 X12.155677 Y99.429603 Z-0.125000
G00 Z5.000000

(End cutting path id: polyline41517)


(Start cutting path id: polyline41519)
(Change tool to Default tool)

G00 Z5.000000
G00 X200.372963 Y60.954321

G00 Z4.875000 (Fast pre-penetrate)
G01 Z-0.125000 F100.0(Penetrate)
G01 X162.452224 Y42.635756 Z-0.125000 F800.000000
G01 X140.661568 Y59.924342 Z-0.125000
G01 X121.865683 Y50.986767 Z-0.125000
G01 X99.514237 Y46.336693 Z-0.125000
G01 X62.230817 Y48.797540 Z-0.125000
G01 X39.629411 Y52.922960 Z-0.125000
G01 X21.089732 Y50.607538 Z-0.125000
G00 Z5.000000

(End cutting path id: polyline41519)


(Start cutting path id: polyline41521)
(Change tool to Default tool)

G00 Z5.000000
G00 X200.759081 Y61.650920

G00 Z4.875000 (Fast pre-penetrate)
G01 Z-0.125000 F100.0(Penetrate)
G01 X163.436206 Y45.314198 Z-0.125000 F800.000000
G01 X141.330856 Y61.107628 Z-0.125000
G01 X120.888342 Y52.007428 Z-0.125000
G01 X98.733872 Y48.597443 Z-0.125000
G01 X63.074082 Y50.809916 Z-0.125000
G01 X39.459697 Y55.140340 Z-0.125000
G01 X20.252762 Y52.393398 Z-0.125000
G00 Z5.000000

(End cutting path id: polyline41521)


(Start cutting path id: polyline41523)
(Change tool to Default tool)

G00 Z5.000000
G00 X201.145150 Y62.347519

G00 Z4.875000 (Fast pre-penetrate)
G01 Z-0.125000 F100.0(Penetrate)
G01 X164.420189 Y47.992689 Z-0.125000 F800.000000
G01 X142.000194 Y62.290865 Z-0.125000
G01 X119.911002 Y53.028089 Z-0.125000
G01 X97.953506 Y50.858144 Z-0.125000
G01 X63.917346 Y52.822242 Z-0.125000
G01 X39.290033 Y57.357720 Z-0.125000
G01 X19.415743 Y54.179208 Z-0.125000
G00 Z5.000000

(End cutting path id: polyline41523)


(Start cutting path id: polyline41525)
(Change tool to Default tool)

G00 Z5.000000
G00 X201.531268 Y63.044168

G00 Z4.875000 (Fast pre-penetrate)
G01 Z-0.125000 F100.0(Penetrate)
G01 X165.404171 Y50.671131 Z-0.125000 F800.000000
G01 X142.669482 Y63.474152 Z-0.125000
G01 X118.933661 Y54.048701 Z-0.125000
G01 X97.173141 Y53.118894 Z-0.125000
G01 X64.760611 Y54.834568 Z-0.125000
G01 X39.120369 Y59.575051 Z-0.125000
G01 X18.578724 Y55.965067 Z-0.125000
G00 Z5.000000

(End cutting path id: polyline41525)


(Start cutting path id: polyline41527)
(Change tool to Default tool)

G00 Z5.000000
G00 X201.917337 Y63.740767

G00 Z4.875000 (Fast pre-penetrate)
G01 Z-0.125000 F100.0(Penetrate)
G01 X166.388153 Y53.349574 Z-0.125000 F800.000000
G01 X143.338820 Y64.657389 Z-0.125000
G01 X117.956321 Y55.069362 Z-0.125000
G01 X96.392775 Y55.379595 Z-0.125000
G01 X65.603876 Y56.846894 Z-0.125000
G01 X38.950656 Y61.792431 Z-0.125000
G01 X17.741704 Y57.750926 Z-0.125000
G00 Z5.000000

(End cutting path id: polyline41527)


(Start cutting path id: polyline41529)
(Change tool to Default tool)

G00 Z5.000000
G00 X202.303406 Y64.437366

G00 Z4.875000 (Fast pre-penetrate)
G01 Z-0.125000 F100.0(Penetrate)
G01 X167.372135 Y56.028016 Z-0.125000 F800.000000
G01 X144.008158 Y65.840676 Z-0.125000
G01 X116.978981 Y56.090023 Z-0.125000
G01 X95.612459 Y57.640295 Z-0.125000
G01 X66.447140 Y58.859269 Z-0.125000
G01 X38.780991 Y64.009811 Z-0.125000
G01 X16.904685 Y59.536786 Z-0.125000
G00 Z5.000000

(End cutting path id: polyline41529)


(Start cutting path id: polyline41531)
(Change tool to Default tool)

G00 Z5.000000
G00 X202.689524 Y65.134015

G00 Z4.875000 (Fast pre-penetrate)
G01 Z-0.125000 F100.0(Penetrate)
G01 X168.356118 Y58.706507 Z-0.125000 F800.000000
G01 X144.677446 Y67.023913 Z-0.125000
G01 X116.001640 Y57.110684 Z-0.125000
G01 X94.832094 Y59.901046 Z-0.125000
G01 X67.290355 Y60.871595 Z-0.125000
G01 X38.611327 Y66.227141 Z-0.125000
G01 X16.067715 Y61.322645 Z-0.125000
G00 Z5.000000

(End cutting path id: polyline41531)


(Start cutting path id: polyline41533)
(Change tool to Default tool)

G00 Z5.000000
G00 X203.075593 Y65.830614

G00 Z4.875000 (Fast pre-penetrate)
G01 Z-0.125000 F100.0(Penetrate)
G01 X169.340100 Y61.384949 Z-0.125000 F800.000000
G01 X145.346784 Y68.207200 Z-0.125000
G01 X115.024300 Y58.131345 Z-0.125000
G01 X94.051728 Y62.161746 Z-0.125000
G01 X68.133620 Y62.883921 Z-0.125000
G01 X38.441663 Y68.444521 Z-0.125000
G01 X15.230696 Y63.108455 Z-0.125000
G00 Z5.000000

(End cutting path id: polyline41533)


(Start cutting path id: polyline41535)
(Change tool to Default tool)

G00 Z5.000000
G00 X203.461662 Y66.527213

G00 Z4.875000 (Fast pre-penetrate)
G01 Z-0.125000 F100.0(Penetrate)
G01 X170.324082 Y64.063392 Z-0.125000 F800.000000
G01 X146.016073 Y69.390437 Z-0.125000
G01 X114.047009 Y59.151956 Z-0.125000
G01 X93.271363 Y64.422497 Z-0.125000
G01 X68.976885 Y64.896247 Z-0.125000
G01 X38.271950 Y70.661902 Z-0.125000
G01 X14.393676 Y64.894314 Z-0.125000
G00 Z5.000000

(End cutting path id: polyline41535)


(Start cutting path id: polyline41537)
(Change tool to Default tool)

G00 Z5.000000
G00 X203.847780 Y67.223862

G00 Z4.875000 (Fast pre-penetrate)
G01 Z-0.125000 F100.0(Penetrate)
G01 X171.308015 Y66.741883 Z-0.125000 F800.000000
G01 X146.685411 Y70.573724 Z-0.125000
G01 X113.069668 Y60.172617 Z-0.125000
G01 X92.490997 Y66.683197 Z-0.125000
G01 X69.820149 Y66.908623 Z-0.125000
G01 X38.102286 Y72.879232 Z-0.125000
G01 X13.556657 Y66.680174 Z-0.125000
G00 Z5.000000

(End cutting path id: polyline41537)


(Start cutting path id: polyline41539)
(Change tool to Default tool)

G00 Z5.000000
G00 X204.233849 Y67.920461

G00 Z4.875000 (Fast pre-penetrate)
G01 Z-0.125000 F100.0(Penetrate)
G01 X172.292047 Y69.420325 Z-0.125000 F800.000000
G01 X147.354748 Y71.756961 Z-0.125000
G01 X112.092328 Y61.193278 Z-0.125000
G01 X91.710632 Y68.943947 Z-0.125000
G01 X70.663414 Y68.920949 Z-0.125000
G01 X37.932621 Y75.096612 Z-0.125000
G01 X12.719638 Y68.466033 Z-0.125000
G00 Z5.000000

(End cutting path id: polyline41539)


(Start cutting path id: polyline41541)
(Change tool to Default tool)

G00 Z5.000000
G00 X204.619918 Y68.617060

G00 Z4.875000 (Fast pre-penetrate)
G01 Z-0.125000 F100.0(Penetrate)
G01 X173.275979 Y72.098767 Z-0.125000 F800.000000
G01 X148.024037 Y72.940198 Z-0.125000
G01 X111.114988 Y62.213890 Z-0.125000
G01 X90.930316 Y71.204648 Z-0.125000
G01 X71.506629 Y70.933275 Z-0.125000
G01 X37.762908 Y77.313992 Z-0.125000
G01 X11.882668 Y70.251892 Z-0.125000
G00 Z5.000000

(End cutting path id: polyline41541)


(Start cutting path id: polyline41543)
(Change tool to Default tool)

G00 Z5.000000
G00 X205.137435 Y77.095655

G00 Z4.875000 (Fast pre-penetrate)
G01 Z-0.125000 F100.0(Penetrate)
G01 X175.839181 Y84.252624 Z-0.125000 F800.000000
G01 X146.729177 Y79.455933 Z-0.125000
G01 X109.708208 Y72.836457 Z-0.125000
G01 X91.066077 Y82.127386 Z-0.125000
G01 X73.481037 Y80.758079 Z-0.125000
G01 X37.155081 Y86.348617 Z-0.125000
G01 X10.695416 Y80.225097 Z-0.125000
G00 Z5.000000

(End cutting path id: polyline41543)


(Start cutting path id: polyline41545)
(Change tool to Default tool)

G00 Z5.000000
G00 X204.797860 Y86.542766

G00 Z4.875000 (Fast pre-penetrate)
G01 Z-0.125000 F100.0(Penetrate)
G01 X176.632830 Y93.315203 Z-0.125000 F800.000000
G01 X143.217780 Y84.988181 Z-0.125000
G01 X110.438710 Y84.278100 Z-0.125000
G01 X93.328066 Y90.662387 Z-0.125000
G01 X73.864826 Y88.491598 Z-0.125000
G01 X36.797067 Y92.481802 Z-0.125000
G01 X11.344382 Y88.760394 Z-0.125000
G00 Z5.000000

(End cutting path id: polyline41545)


(Start cutting path id: polyline41547)
(Change tool to Default tool)

G00 Z5.000000
G00 X204.458284 Y95.989928

G00 Z4.875000 (Fast pre-penetrate)
G01 Z-0.125000 F100.0(Penetrate)
G01 X177.426430 Y102.377783 Z-0.125000 F800.000000
G01 X139.706433 Y90.520430 Z-0.125000
G01 X111.169213 Y95.719744 Z-0.125000
G01 X95.590006 Y99.197436 Z-0.125000
G01 X74.248664 Y96.225118 Z-0.125000
G01 X36.439102 Y98.614987 Z-0.125000
G01 X11.993398 Y97.295741 Z-0.125000
G00 Z5.000000

(End cutting path id: polyline41547)


(Start cutting path id: polyline41549)
(Change tool to Default tool)

G00 Z5.000000
G00 X204.543140 Y93.628113

G00 Z4.875000 (Fast pre-penetrate)
G01 Z-0.125000 F100.0(Penetrate)
G01 X177.228067 Y100.112125 Z-0.125000 F800.000000
G01 X140.584294 Y89.137343 Z-0.125000
G01 X110.986612 Y92.859346 Z-0.125000
G01 X95.024509 Y97.063674 Z-0.125000
G01 X74.152705 Y94.291750 Z-0.125000
G01 X36.528618 Y97.081666 Z-0.125000
G01 X11.831169 Y95.161929 Z-0.125000
G00 Z5.000000

(End cutting path id: polyline41549)


(Start cutting path id: polyline41551)
(Change tool to Default tool)

G00 Z5.000000
G00 X204.628047 Y91.266347

G00 Z4.875000 (Fast pre-penetrate)
G01 Z-0.125000 F100.0(Penetrate)
G01 X177.029605 Y97.846518 Z-0.125000 F800.000000
G01 X141.462156 Y87.754306 Z-0.125000
G01 X110.803962 Y89.998947 Z-0.125000
G01 X94.459011 Y94.929911 Z-0.125000
G01 X74.056745 Y92.358383 Z-0.125000
G01 X36.618084 Y95.548395 Z-0.125000
G01 X11.668890 Y93.028117 Z-0.125000
G00 Z5.000000

(End cutting path id: polyline41551)


(Start cutting path id: polyline41553)
(Change tool to Default tool)

G00 Z5.000000
G00 X204.712953 Y88.904581

G00 Z4.875000 (Fast pre-penetrate)
G01 Z-0.125000 F100.0(Penetrate)
G01 X176.831242 Y95.580860 Z-0.125000 F800.000000
G01 X142.339968 Y86.371219 Z-0.125000
G01 X110.621361 Y87.138499 Z-0.125000
G01 X93.893514 Y92.796149 Z-0.125000
G01 X73.960785 Y90.424966 Z-0.125000
G01 X36.707600 Y94.015074 Z-0.125000
G01 X11.506661 Y90.894256 Z-0.125000
G00 Z5.000000

(End cutting path id: polyline41553)


(Start cutting path id: polyline41555)
(Change tool to Default tool)

G00 Z5.000000
G00 X204.882716 Y84.181001

G00 Z4.875000 (Fast pre-penetrate)
G01 Z-0.125000 F100.0(Penetrate)
G01 X176.434418 Y91.049595 Z-0.125000 F800.000000
G01 X144.095642 Y83.605095 Z-0.125000
G01 X110.256060 Y81.417702 Z-0.125000
G01 X92.762569 Y88.528624 Z-0.125000
G01 X73.768866 Y86.558231 Z-0.125000
G01 X36.886583 Y90.948481 Z-0.125000
G01 X11.182153 Y86.626582 Z-0.125000
G00 Z5.000000

(End cutting path id: polyline41555)


(Start cutting path id: polyline41557)
(Change tool to Default tool)

G00 Z5.000000
G00 X204.967623 Y81.819235

G00 Z4.875000 (Fast pre-penetrate)
G01 Z-0.125000 F100.0(Penetrate)
G01 X176.236005 Y88.783938 Z-0.125000 F800.000000
G01 X144.973503 Y82.222057 Z-0.125000
G01 X110.073459 Y78.557254 Z-0.125000
G01 X92.197071 Y86.394911 Z-0.125000
G01 X73.672956 Y84.624863 Z-0.125000
G01 X36.976099 Y89.415209 Z-0.125000
G01 X11.019874 Y84.492770 Z-0.125000
G00 Z5.000000

(End cutting path id: polyline41557)


(Start cutting path id: polyline41559)
(Change tool to Default tool)

G00 Z5.000000
G00 X205.052529 Y79.457420

G00 Z4.875000 (Fast pre-penetrate)
G01 Z-0.125000 F100.0(Penetrate)
G01 X176.037593 Y86.518281 Z-0.125000 F800.000000
G01 X145.851316 Y80.838970 Z-0.125000
G01 X109.890809 Y75.696855 Z-0.125000
G01 X91.631574 Y84.261149 Z-0.125000
G01 X73.576997 Y82.691446 Z-0.125000
G01 X37.065565 Y87.881888 Z-0.125000
G01 X10.857645 Y82.358909 Z-0.125000
G00 Z5.000000

(End cutting path id: polyline41559)


(Start cutting path id: polyline41561)
(Change tool to Default tool)

G00 Z5.000000
G00 X205.222292 Y74.733889

G00 Z4.875000 (Fast pre-penetrate)
G01 Z-0.125000 F100.0(Penetrate)
G01 X175.640768 Y81.986966 Z-0.125000 F800.000000
G01 X147.606989 Y78.072846 Z-0.125000
G01 X109.525558 Y69.976009 Z-0.125000
G01 X90.500579 Y79.993624 Z-0.125000
G01 X73.385078 Y78.824711 Z-0.125000
G01 X37.244597 Y84.815296 Z-0.125000
G01 X10.533137 Y78.091235 Z-0.125000
G00 Z5.000000

(End cutting path id: polyline41561)


(Start cutting path id: polyline41563)
(Change tool to Default tool)

G00 Z5.000000
G00 X205.307199 Y72.372074

G00 Z4.875000 (Fast pre-penetrate)
G01 Z-0.125000 F100.0(Penetrate)
G01 X175.442356 Y79.721358 Z-0.125000 F800.000000
G01 X148.484851 Y76.689809 Z-0.125000
G01 X109.342957 Y67.115610 Z-0.125000
G01 X89.935082 Y77.859862 Z-0.125000
G01 X73.289118 Y76.891344 Z-0.125000
G01 X37.334064 Y83.282024 Z-0.125000
G01 X10.370908 Y75.957423 Z-0.125000
G00 Z5.000000

(End cutting path id: polyline41563)


(Start cutting path id: polyline41565)
(Change tool to Default tool)

G00 Z5.000000
G00 X204.944624 Y111.261132

G00 Z4.875000 (Fast pre-penetrate)
G01 Z-0.125000 F100.0(Penetrate)
G01 X177.892547 Y114.597809 Z-0.125000 F800.000000
G01 X139.440561 Y106.920448 Z-0.125000
G01 X114.764475 Y112.391532 Z-0.125000
G01 X96.820380 Y112.068263 Z-0.125000
G01 X71.459244 Y108.054070 Z-0.125000
G01 X39.178014 Y109.079291 Z-0.125000
G01 X10.453534 Y107.552710 Z-0.125000
G00 Z5.000000

(End cutting path id: polyline41565)


(Start cutting path id: polyline41567)
(Change tool to Default tool)

G00 Z5.000000
G00 X205.219913 Y113.202529

G00 Z4.875000 (Fast pre-penetrate)
G01 Z-0.125000 F100.0(Penetrate)
G01 X177.783403 Y115.650292 Z-0.125000 F800.000000
G01 X140.522337 Y110.543021 Z-0.125000
G01 X115.719412 Y114.134913 Z-0.125000
G01 X96.476542 Y113.513506 Z-0.125000
G01 X70.401508 Y109.419214 Z-0.125000
G01 X40.210323 Y110.522997 Z-0.125000
G01 X9.723924 Y108.126535 Z-0.125000
G00 Z5.000000

(End cutting path id: polyline41567)


(Start cutting path id: polyline41569)
(Change tool to Default tool)

G00 Z5.000000
G00 X205.495252 Y115.143877

G00 Z4.875000 (Fast pre-penetrate)
G01 Z-0.125000 F100.0(Penetrate)
G01 X177.674209 Y116.702774 Z-0.125000 F800.000000
G01 X141.604162 Y114.165644 Z-0.125000
G01 X116.674299 Y115.878245 Z-0.125000
G01 X96.132653 Y114.958748 Z-0.125000
G01 X69.343771 Y110.784358 Z-0.125000
G01 X41.242682 Y111.966703 Z-0.125000
G01 X8.994265 Y108.700409 Z-0.125000
G00 Z5.000000

(End cutting path id: polyline41569)


(Start cutting path id: polyline41571)
(Change tool to Default tool)

G00 Z5.000000
G00 X205.770541 Y117.085274

G00 Z4.875000 (Fast pre-penetrate)
G01 Z-0.125000 F100.0(Penetrate)
G01 X177.565016 Y117.755256 Z-0.125000 F800.000000
G01 X142.685988 Y117.788218 Z-0.125000
G01 X117.629236 Y117.621627 Z-0.125000
G01 X95.788765 Y116.404040 Z-0.125000
G01 X68.285986 Y112.149551 Z-0.125000
G01 X42.274991 Y113.410458 Z-0.125000
G01 X8.264655 Y109.274283 Z-0.125000
G00 Z5.000000

(End cutting path id: polyline41571)


(Start cutting path id: polyline41573)
(Change tool to Default tool)

G00 Z5.000000
G00 X206.045879 Y119.026622

G00 Z4.875000 (Fast pre-penetrate)
G01 Z-0.125000 F100.0(Penetrate)
G01 X177.455872 Y118.807739 Z-0.125000 F800.000000
G01 X143.767763 Y121.410840 Z-0.125000
G01 X118.584123 Y119.365008 Z-0.125000
G01 X95.444927 Y117.849283 Z-0.125000
G01 X67.228249 Y113.514646 Z-0.125000
G01 X43.307300 Y114.854164 Z-0.125000
G01 X7.535045 Y109.848157 Z-0.125000
G00 Z5.000000

(End cutting path id: polyline41573)


(Start cutting path id: polyline41575)
(Change tool to Default tool)

G00 Z5.000000
G00 X206.321168 Y120.967969

G00 Z4.875000 (Fast pre-penetrate)
G01 Z-0.125000 F100.0(Penetrate)
G01 X177.346678 Y119.860221 Z-0.125000 F800.000000
G01 X144.849589 Y125.033414 Z-0.125000
G01 X119.539059 Y121.108389 Z-0.125000
G01 X95.101038 Y119.294575 Z-0.125000
G01 X66.170513 Y114.879839 Z-0.125000
G01 X44.339609 Y116.297870 Z-0.125000
G01 X6.805385 Y110.422031 Z-0.125000
G00 Z5.000000

(End cutting path id: polyline41575)


(Start cutting path id: polyline41577)
(Change tool to Default tool)

G00 Z5.000000
G00 X206.596507 Y122.909366

G00 Z4.875000 (Fast pre-penetrate)
G01 Z-0.125000 F100.0(Penetrate)
G01 X177.237534 Y120.912703 Z-0.125000 F800.000000
G01 X145.931414 Y128.656037 Z-0.125000
G01 X120.493996 Y122.851721 Z-0.125000
G01 X94.757200 Y120.739817 Z-0.125000
G01 X65.112777 Y116.244934 Z-0.125000
G01 X45.371918 Y117.741576 Z-0.125000
G01 X6.075775 Y110.995905 Z-0.125000
G00 Z5.000000

(End cutting path id: polyline41577)


(Start cutting path id: polyline41579)
(Change tool to Default tool)

G00 Z5.000000
G00 X206.871796 Y124.850714

G00 Z4.875000 (Fast pre-penetrate)
G01 Z-0.125000 F100.0(Penetrate)
G01 X177.128340 Y121.965185 Z-0.125000 F800.000000
G01 X147.013239 Y132.278610 Z-0.125000
G01 X121.448883 Y124.595103 Z-0.125000
G01 X94.413311 Y122.185060 Z-0.125000
G01 X64.055040 Y117.610127 Z-0.125000
G01 X46.404227 Y119.185282 Z-0.125000
G01 X5.346165 Y111.569729 Z-0.125000
G00 Z5.000000

(End cutting path id: polyline41579)


(Start cutting path id: polyline41581)
(Change tool to Default tool)

G00 Z5.000000
G00 X207.147085 Y126.792062

G00 Z4.875000 (Fast pre-penetrate)
G01 Z-0.125000 F100.0(Penetrate)
G01 X177.019196 Y123.017668 Z-0.125000 F800.000000
G01 X148.095015 Y135.901233 Z-0.125000
G01 X122.403820 Y126.338484 Z-0.125000
G01 X94.069423 Y123.630352 Z-0.125000
G01 X62.997304 Y118.975271 Z-0.125000
G01 X47.436536 Y120.628988 Z-0.125000
G01 X4.616505 Y112.143653 Z-0.125000
G00 Z5.000000

(End cutting path id: polyline41581)


(Start cutting path id: polyline41583)
(Change tool to Default tool)

G00 Z5.000000
G00 X207.422423 Y128.733459

G00 Z4.875000 (Fast pre-penetrate)
G01 Z-0.125000 F100.0(Penetrate)
G01 X176.910002 Y124.070150 Z-0.125000 F800.000000
G01 X149.176840 Y139.523806 Z-0.125000
G01 X123.358707 Y128.081865 Z-0.125000
G01 X93.725585 Y125.075594 Z-0.125000
G01 X61.939568 Y120.340366 Z-0.125000
G01 X48.468845 Y122.072743 Z-0.125000
G01 X3.886895 Y112.717477 Z-0.125000
G00 Z5.000000

(End cutting path id: polyline41583)


(Start cutting path id: polyline41585)
(Change tool to Default tool)

G00 Z5.000000
G00 X206.279682 Y141.125528

G00 Z4.875000 (Fast pre-penetrate)
G01 Z-0.125000 F100.0(Penetrate)
G01 X175.452319 Y133.860704 Z-0.125000 F800.000000
G01 X151.134000 Y153.852019 Z-0.125000
G01 X124.717804 Y135.745200 Z-0.125000
G01 X93.665511 Y136.791139 Z-0.125000
G01 X61.633399 Y134.402013 Z-0.125000
G01 X52.021282 Y135.661334 Z-0.125000
G01 X7.120079 Y128.236214 Z-0.125000
G00 Z5.000000

(End cutting path id: polyline41585)


(Start cutting path id: polyline41587)
(Change tool to Default tool)

G00 Z5.000000
G00 X206.771821 Y139.483509

G00 Z4.875000 (Fast pre-penetrate)
G01 Z-0.125000 F100.0(Penetrate)
G01 X175.734844 Y132.202427 Z-0.125000 F800.000000
G01 X151.456079 Y152.986896 Z-0.125000
G01 X125.094207 Y135.136877 Z-0.125000
G01 X93.422638 Y134.946197 Z-0.125000
G01 X60.916627 Y131.910484 Z-0.125000
G01 X51.907380 Y133.346954 Z-0.125000
G01 X5.764600 Y124.786923 Z-0.125000
G00 Z5.000000

(End cutting path id: polyline41587)


(Start cutting path id: polyline41589)
(Change tool to Default tool)

G00 Z5.000000
G00 X207.264011 Y137.841540

G00 Z4.875000 (Fast pre-penetrate)
G01 Z-0.125000 F100.0(Penetrate)
G01 X176.017370 Y130.544151 Z-0.125000 F800.000000
G01 X151.778158 Y152.121823 Z-0.125000
G01 X125.470611 Y134.528605 Z-0.125000
G01 X93.179765 Y133.101255 Z-0.125000
G01 X60.199854 Y129.418955 Z-0.125000
G01 X51.793527 Y131.032573 Z-0.125000
G01 X4.409072 Y121.337632 Z-0.125000
G00 Z5.000000

(End cutting path id: polyline41589)


(Start cutting path id: polyline41591)
(Change tool to Default tool)

G00 Z5.000000
G00 X207.697712 Y130.674806

G00 Z4.875000 (Fast pre-penetrate)
G01 Z-0.125000 F100.0(Penetrate)
G01 X176.800858 Y125.122632 Z-0.125000 F800.000000
G01 X150.258666 Y143.146429 Z-0.125000
G01 X124.313643 Y129.825247 Z-0.125000
G01 X93.381696 Y126.520886 Z-0.125000
G01 X60.881831 Y121.705559 Z-0.125000
G01 X49.501154 Y123.516449 Z-0.125000
G01 X3.157285 Y113.291351 Z-0.125000
G00 Z5.000000

(End cutting path id: polyline41591)



(Footer)
M5
G00 X0.0000 Y0.0000
M2
(Using default footer. To add your own footer create file "footer" in the output dir.)
(end)
%