%
(Header)
(Generated by gcodetools from Inkscape.)
(Using default header. To add your own header create file "header" in the output dir.)
M3
(Header end.)
G21 (All units in mm)

(Start cutting path id: path1649)
(Change tool to Default tool)

G00 Z3.000000
G00 X50.966957 Y46.709124

G00 Z4.875000 (Fast pre-penetrate)
G01 Z-0.125000 F400.0(Penetrate)
G01 X58.256182 Y20.899090 Z-0.125000 F800.000000
G01 X47.867150 Y12.767311 Z-0.125000
G00 Z3.000000

(End cutting path id: path1649)


(Start cutting path id: path1647-5)
(Change tool to Default tool)

G00 Z3.000000
G00 X50.378816 Y46.752537

G00 Z4.875000 (Fast pre-penetrate)
G01 Z-0.125000 F400.0(Penetrate)
G01 X57.586594 Y21.023946 Z-0.125000 F800.000000
G01 X47.368729 Y12.721001 Z-0.125000
G00 Z3.000000

(End cutting path id: path1647-5)


(Start cutting path id: path1645)
(Change tool to Default tool)

G00 Z3.000000
G00 X49.790671 Y46.795953

G00 Z4.875000 (Fast pre-penetrate)
G01 Z-0.125000 F400.0(Penetrate)
G01 X56.917008 Y21.148806 Z-0.125000 F800.000000
G01 X46.870310 Y12.674694 Z-0.125000
G00 Z3.000000

(End cutting path id: path1645)


(Start cutting path id: path1643)
(Change tool to Default tool)

G00 Z3.000000
G00 X49.202527 Y46.839365

G00 Z4.875000 (Fast pre-penetrate)
G01 Z-0.125000 F400.0(Penetrate)
G01 X56.247420 Y21.273663 Z-0.125000 F800.000000
G01 X46.371889 Y12.628384 Z-0.125000
G00 Z3.000000

(End cutting path id: path1643)


(Start cutting path id: path1641)
(Change tool to Default tool)

G00 Z3.000000
G00 X48.614383 Y46.882781

G00 Z4.875000 (Fast pre-penetrate)
G01 Z-0.125000 F400.0(Penetrate)
G01 X55.577832 Y21.398519 Z-0.125000 F800.000000
G01 X45.873467 Y12.582074 Z-0.125000
G00 Z3.000000

(End cutting path id: path1641)


(Start cutting path id: path1639-0)
(Change tool to Default tool)

G00 Z3.000000
G00 X48.026239 Y46.926194

G00 Z4.875000 (Fast pre-penetrate)
G01 Z-0.125000 F400.0(Penetrate)
G01 X54.908246 Y21.523379 Z-0.125000 F800.000000
G01 X45.375048 Y12.535767 Z-0.125000
G00 Z3.000000

(End cutting path id: path1639-0)


(Start cutting path id: path1637)
(Change tool to Default tool)

G00 Z3.000000
G00 X47.438095 Y46.969609

G00 Z4.875000 (Fast pre-penetrate)
G01 Z-0.125000 F400.0(Penetrate)
G01 X54.238658 Y21.648235 Z-0.125000 F800.000000
G01 X44.876627 Y12.489457 Z-0.125000
G00 Z3.000000

(End cutting path id: path1637)


(Start cutting path id: path1635)
(Change tool to Default tool)

G00 Z3.000000
G00 X46.849950 Y47.013022

G00 Z4.875000 (Fast pre-penetrate)
G01 Z-0.125000 F400.0(Penetrate)
G01 X53.569070 Y21.773092 Z-0.125000 F800.000000
G01 X44.378205 Y12.443147 Z-0.125000
G00 Z3.000000

(End cutting path id: path1635)


(Start cutting path id: path1633)
(Change tool to Default tool)

G00 Z3.000000
G00 X46.261806 Y47.056437

G00 Z4.875000 (Fast pre-penetrate)
G01 Z-0.125000 F400.0(Penetrate)
G01 X52.899485 Y21.897951 Z-0.125000 F800.000000
G01 X43.879784 Y12.396839 Z-0.125000
G00 Z3.000000

(End cutting path id: path1633)


(Start cutting path id: path1631)
(Change tool to Default tool)

G00 Z3.000000
G00 X45.673662 Y47.099850

G00 Z4.875000 (Fast pre-penetrate)
G01 Z-0.125000 F400.0(Penetrate)
G01 X52.229896 Y22.022808 Z-0.125000 F800.000000
G01 X43.381365 Y12.350529 Z-0.125000
G00 Z3.000000

(End cutting path id: path1631)


(Start cutting path id: path1629)
(Change tool to Default tool)

G00 Z3.000000
G00 X45.085520 Y47.143265

G00 Z4.875000 (Fast pre-penetrate)
G01 Z-0.125000 F400.0(Penetrate)
G01 X51.560308 Y22.147665 Z-0.125000 F800.000000
G01 X42.882944 Y12.304219 Z-0.125000
G00 Z3.000000

(End cutting path id: path1629)


(Start cutting path id: path1627)
(Change tool to Default tool)

G00 Z3.000000
G00 X44.497376 Y47.186678

G00 Z4.875000 (Fast pre-penetrate)
G01 Z-0.125000 F400.0(Penetrate)
G01 X50.890723 Y22.272524 Z-0.125000 F800.000000
G01 X42.384522 Y12.257912 Z-0.125000
G00 Z3.000000

(End cutting path id: path1627)


(Start cutting path id: path1625)
(Change tool to Default tool)

G00 Z3.000000
G00 X43.909232 Y47.230094

G00 Z4.875000 (Fast pre-penetrate)
G01 Z-0.125000 F400.0(Penetrate)
G01 X50.221135 Y22.397381 Z-0.125000 F800.000000
G01 X41.886103 Y12.211602 Z-0.125000
G00 Z3.000000

(End cutting path id: path1625)


(Start cutting path id: path1623)
(Change tool to Default tool)

G00 Z3.000000
G00 X43.321088 Y47.273506

G00 Z4.875000 (Fast pre-penetrate)
G01 Z-0.125000 F400.0(Penetrate)
G01 X49.551547 Y22.522238 Z-0.125000 F800.000000
G01 X41.387682 Y12.165295 Z-0.125000
G00 Z3.000000

(End cutting path id: path1623)


(Start cutting path id: path1621)
(Change tool to Default tool)

G00 Z3.000000
G00 X42.732944 Y47.316922

G00 Z4.875000 (Fast pre-penetrate)
G01 Z-0.125000 F400.0(Penetrate)
G01 X48.881958 Y22.647097 Z-0.125000 F800.000000
G01 X40.889261 Y12.118985 Z-0.125000
G00 Z3.000000

(End cutting path id: path1621)


(Start cutting path id: path1619)
(Change tool to Default tool)

G00 Z3.000000
G00 X42.144799 Y47.360337

G00 Z4.875000 (Fast pre-penetrate)
G01 Z-0.125000 F400.0(Penetrate)
G01 X48.212373 Y22.771954 Z-0.125000 F800.000000
G01 X40.390839 Y12.072675 Z-0.125000
G00 Z3.000000

(End cutting path id: path1619)


(Start cutting path id: path1617)
(Change tool to Default tool)

G00 Z3.000000
G00 X41.556655 Y47.403750

G00 Z4.875000 (Fast pre-penetrate)
G01 Z-0.125000 F400.0(Penetrate)
G01 X47.542785 Y22.896810 Z-0.125000 F800.000000
G01 X39.892420 Y12.026368 Z-0.125000
G00 Z3.000000

(End cutting path id: path1617)


(Start cutting path id: path1615)
(Change tool to Default tool)

G00 Z3.000000
G00 X40.968511 Y47.447165

G00 Z4.875000 (Fast pre-penetrate)
G01 Z-0.125000 F400.0(Penetrate)
G01 X46.873197 Y23.021670 Z-0.125000 F800.000000
G01 X39.393999 Y11.980058 Z-0.125000
G00 Z3.000000

(End cutting path id: path1615)


(Start cutting path id: path1613)
(Change tool to Default tool)

G00 Z3.000000
G00 X40.380370 Y47.490578

G00 Z4.875000 (Fast pre-penetrate)
G01 Z-0.125000 F400.0(Penetrate)
G01 X46.203611 Y23.146527 Z-0.125000 F800.000000
G01 X38.895577 Y11.933748 Z-0.125000
G00 Z3.000000

(End cutting path id: path1613)


(Start cutting path id: path1611)
(Change tool to Default tool)

G00 Z3.000000
G00 X39.792225 Y47.533994

G00 Z4.875000 (Fast pre-penetrate)
G01 Z-0.125000 F400.0(Penetrate)
G01 X45.534023 Y23.271383 Z-0.125000 F800.000000
G01 X38.397159 Y11.887440 Z-0.125000
G00 Z3.000000

(End cutting path id: path1611)


(Start cutting path id: path1609)
(Change tool to Default tool)

G00 Z3.000000
G00 X39.204081 Y47.577406

G00 Z4.875000 (Fast pre-penetrate)
G01 Z-0.125000 F400.0(Penetrate)
G01 X44.864435 Y23.396243 Z-0.125000 F800.000000
G01 X37.898737 Y11.841130 Z-0.125000
G00 Z3.000000

(End cutting path id: path1609)


(Start cutting path id: path1607)
(Change tool to Default tool)

G00 Z3.000000
G00 X38.615937 Y47.620822

G00 Z4.875000 (Fast pre-penetrate)
G01 Z-0.125000 F400.0(Penetrate)
G01 X44.194849 Y23.521099 Z-0.125000 F800.000000
G01 X37.400316 Y11.794820 Z-0.125000
G00 Z3.000000

(End cutting path id: path1607)


(Start cutting path id: path1605)
(Change tool to Default tool)

G00 Z3.000000
G00 X38.027793 Y47.664235

G00 Z4.875000 (Fast pre-penetrate)
G01 Z-0.125000 F400.0(Penetrate)
G01 X43.525261 Y23.645956 Z-0.125000 F800.000000
G01 X36.901894 Y11.748513 Z-0.125000
G00 Z3.000000

(End cutting path id: path1605)


(Start cutting path id: path1603)
(Change tool to Default tool)

G00 Z3.000000
G00 X37.439649 Y47.707650

G00 Z4.875000 (Fast pre-penetrate)
G01 Z-0.125000 F400.0(Penetrate)
G01 X42.855673 Y23.770815 Z-0.125000 F800.000000
G01 X36.403475 Y11.702203 Z-0.125000
G00 Z3.000000

(End cutting path id: path1603)


(Start cutting path id: path1601)
(Change tool to Default tool)

G00 Z3.000000
G00 X36.851504 Y47.751063

G00 Z4.875000 (Fast pre-penetrate)
G01 Z-0.125000 F400.0(Penetrate)
G01 X42.186088 Y23.895672 Z-0.125000 F800.000000
G01 X35.905054 Y11.655896 Z-0.125000
G00 Z3.000000

(End cutting path id: path1601)


(Start cutting path id: path1599)
(Change tool to Default tool)

G00 Z3.000000
G00 X36.263360 Y47.794478

G00 Z4.875000 (Fast pre-penetrate)
G01 Z-0.125000 F400.0(Penetrate)
G01 X41.516500 Y24.020529 Z-0.125000 F800.000000
G01 X35.406632 Y11.609586 Z-0.125000
G00 Z3.000000

(End cutting path id: path1599)


(Start cutting path id: path1549)
(Change tool to Default tool)

G00 Z3.000000
G00 X24.360340 Y46.079255

G00 Z4.875000 (Fast pre-penetrate)
G01 Z-0.125000 F400.0(Penetrate)
G01 X25.913238 Y26.005547 Z-0.125000 F800.000000
G01 X21.593175 Y11.804801 Z-0.125000
G00 Z3.000000

(End cutting path id: path1549)


(Start cutting path id: path1513)
(Change tool to Default tool)

G00 Z3.000000
G00 X16.924399 Y43.710063

G00 Z4.875000 (Fast pre-penetrate)
G01 Z-0.125000 F400.0(Penetrate)
G01 X15.139141 Y26.974511 Z-0.125000 F800.000000
G01 X11.099543 Y12.493298 Z-0.125000
G00 Z3.000000

(End cutting path id: path1513)


(Start cutting path id: path1515)
(Change tool to Default tool)

G00 Z3.000000
G00 X17.337505 Y43.841685

G00 Z4.875000 (Fast pre-penetrate)
G01 Z-0.125000 F400.0(Penetrate)
G01 X15.737702 Y26.920679 Z-0.125000 F800.000000
G01 X11.682523 Y12.455048 Z-0.125000
G00 Z3.000000

(End cutting path id: path1515)


(Start cutting path id: path1517-3)
(Change tool to Default tool)

G00 Z3.000000
G00 X17.750615 Y43.973307

G00 Z4.875000 (Fast pre-penetrate)
G01 Z-0.125000 F400.0(Penetrate)
G01 X16.336262 Y26.866849 Z-0.125000 F800.000000
G01 X12.265502 Y12.416800 Z-0.125000
G00 Z3.000000

(End cutting path id: path1517-3)


(Start cutting path id: path1519)
(Change tool to Default tool)

G00 Z3.000000
G00 X18.163721 Y44.104929

G00 Z4.875000 (Fast pre-penetrate)
G01 Z-0.125000 F400.0(Penetrate)
G01 X16.934823 Y26.813017 Z-0.125000 F800.000000
G01 X12.848482 Y12.378549 Z-0.125000
G00 Z3.000000

(End cutting path id: path1519)


(Start cutting path id: path1521)
(Change tool to Default tool)

G00 Z3.000000
G00 X18.576831 Y44.236551

G00 Z4.875000 (Fast pre-penetrate)
G01 Z-0.125000 F400.0(Penetrate)
G01 X17.533384 Y26.759185 Z-0.125000 F800.000000
G01 X13.431461 Y12.340298 Z-0.125000
G00 Z3.000000

(End cutting path id: path1521)


(Start cutting path id: path1523-9)
(Change tool to Default tool)

G00 Z3.000000
G00 X18.989937 Y44.368171

G00 Z4.875000 (Fast pre-penetrate)
G01 Z-0.125000 F400.0(Penetrate)
G01 X18.131945 Y26.705353 Z-0.125000 F800.000000
G01 X14.014441 Y12.302050 Z-0.125000
G00 Z3.000000

(End cutting path id: path1523-9)


(Start cutting path id: path1525)
(Change tool to Default tool)

G00 Z3.000000
G00 X19.403047 Y44.499793

G00 Z4.875000 (Fast pre-penetrate)
G01 Z-0.125000 F400.0(Penetrate)
G01 X18.730506 Y26.651524 Z-0.125000 F800.000000
G01 X14.597420 Y12.263799 Z-0.125000
G00 Z3.000000

(End cutting path id: path1525)


(Start cutting path id: path1527)
(Change tool to Default tool)

G00 Z3.000000
G00 X19.816153 Y44.631415

G00 Z4.875000 (Fast pre-penetrate)
G01 Z-0.125000 F400.0(Penetrate)
G01 X19.329067 Y26.597692 Z-0.125000 F800.000000
G01 X15.180400 Y12.225548 Z-0.125000
G00 Z3.000000

(End cutting path id: path1527)


(Start cutting path id: path1529)
(Change tool to Default tool)

G00 Z3.000000
G00 X20.229263 Y44.763037

G00 Z4.875000 (Fast pre-penetrate)
G01 Z-0.125000 F400.0(Penetrate)
G01 X19.927627 Y26.543860 Z-0.125000 F800.000000
G01 X15.763379 Y12.187300 Z-0.125000
G00 Z3.000000

(End cutting path id: path1529)


(Start cutting path id: path1531)
(Change tool to Default tool)

G00 Z3.000000
G00 X20.642369 Y44.894659

G00 Z4.875000 (Fast pre-penetrate)
G01 Z-0.125000 F400.0(Penetrate)
G01 X20.526191 Y26.490030 Z-0.125000 F800.000000
G01 X16.346359 Y12.149049 Z-0.125000
G00 Z3.000000

(End cutting path id: path1531)


(Start cutting path id: path1533)
(Change tool to Default tool)

G00 Z3.000000
G00 X21.055479 Y45.026281

G00 Z4.875000 (Fast pre-penetrate)
G01 Z-0.125000 F400.0(Penetrate)
G01 X21.124752 Y26.436198 Z-0.125000 F800.000000
G01 X16.929338 Y12.110799 Z-0.125000
G00 Z3.000000

(End cutting path id: path1533)


(Start cutting path id: path1535)
(Change tool to Default tool)

G00 Z3.000000
G00 X21.468585 Y45.157903

G00 Z4.875000 (Fast pre-penetrate)
G01 Z-0.125000 F400.0(Penetrate)
G01 X21.723313 Y26.382366 Z-0.125000 F800.000000
G01 X17.512318 Y12.072551 Z-0.125000
G00 Z3.000000

(End cutting path id: path1535)


(Start cutting path id: path1537)
(Change tool to Default tool)

G00 Z3.000000
G00 X21.881692 Y45.289525

G00 Z4.875000 (Fast pre-penetrate)
G01 Z-0.125000 F400.0(Penetrate)
G01 X22.321873 Y26.328537 Z-0.125000 F800.000000
G01 X18.095297 Y12.034300 Z-0.125000
G00 Z3.000000

(End cutting path id: path1537)


(Start cutting path id: path1539)
(Change tool to Default tool)

G00 Z3.000000
G00 X22.294801 Y45.421148

G00 Z4.875000 (Fast pre-penetrate)
G01 Z-0.125000 F400.0(Penetrate)
G01 X22.920434 Y26.274705 Z-0.125000 F800.000000
G01 X18.678277 Y11.996052 Z-0.125000
G00 Z3.000000

(End cutting path id: path1539)


(Start cutting path id: path1541)
(Change tool to Default tool)

G00 Z3.000000
G00 X22.707908 Y45.552770

G00 Z4.875000 (Fast pre-penetrate)
G01 Z-0.125000 F400.0(Penetrate)
G01 X23.518995 Y26.220873 Z-0.125000 F800.000000
G01 X19.261257 Y11.957801 Z-0.125000
G00 Z3.000000

(End cutting path id: path1541)


(Start cutting path id: path1543)
(Change tool to Default tool)

G00 Z3.000000
G00 X23.121017 Y45.684392

G00 Z4.875000 (Fast pre-penetrate)
G01 Z-0.125000 F400.0(Penetrate)
G01 X24.117556 Y26.167040 Z-0.125000 F800.000000
G01 X19.844236 Y11.919550 Z-0.125000
G00 Z3.000000

(End cutting path id: path1543)


(Start cutting path id: path1545)
(Change tool to Default tool)

G00 Z3.000000
G00 X23.534124 Y45.816011

G00 Z4.875000 (Fast pre-penetrate)
G01 Z-0.125000 F400.0(Penetrate)
G01 X24.716117 Y26.113211 Z-0.125000 F800.000000
G01 X20.427216 Y11.881302 Z-0.125000
G00 Z3.000000

(End cutting path id: path1545)


(Start cutting path id: path1547)
(Change tool to Default tool)

G00 Z3.000000
G00 X23.947233 Y45.947633

G00 Z4.875000 (Fast pre-penetrate)
G01 Z-0.125000 F400.0(Penetrate)
G01 X25.314677 Y26.059379 Z-0.125000 F800.000000
G01 X21.010195 Y11.843051 Z-0.125000
G00 Z3.000000

(End cutting path id: path1547)


(Start cutting path id: path1551)
(Change tool to Default tool)

G00 Z3.000000
G00 X24.773449 Y46.210878

G00 Z4.875000 (Fast pre-penetrate)
G01 Z-0.125000 F400.0(Penetrate)
G01 X26.511799 Y25.951718 Z-0.125000 F800.000000
G01 X22.176154 Y11.766552 Z-0.125000
G00 Z3.000000

(End cutting path id: path1551)


(Start cutting path id: path1553)
(Change tool to Default tool)

G00 Z3.000000
G00 X25.186556 Y46.342500

G00 Z4.875000 (Fast pre-penetrate)
G01 Z-0.125000 F400.0(Penetrate)
G01 X27.110360 Y25.897885 Z-0.125000 F800.000000
G01 X22.759134 Y11.728302 Z-0.125000
G00 Z3.000000

(End cutting path id: path1553)


(Start cutting path id: path1555)
(Change tool to Default tool)

G00 Z3.000000
G00 X25.599662 Y46.474122

G00 Z4.875000 (Fast pre-penetrate)
G01 Z-0.125000 F400.0(Penetrate)
G01 X27.708921 Y25.844053 Z-0.125000 F800.000000
G01 X23.342113 Y11.690051 Z-0.125000
G00 Z3.000000

(End cutting path id: path1555)


(Start cutting path id: path1557)
(Change tool to Default tool)

G00 Z3.000000
G00 X26.012772 Y46.605744

G00 Z4.875000 (Fast pre-penetrate)
G01 Z-0.125000 F400.0(Penetrate)
G01 X28.307482 Y25.790224 Z-0.125000 F800.000000
G01 X23.925093 Y11.651803 Z-0.125000
G00 Z3.000000

(End cutting path id: path1557)


(Start cutting path id: path1559)
(Change tool to Default tool)

G00 Z3.000000
G00 X26.425878 Y46.737366

G00 Z4.875000 (Fast pre-penetrate)
G01 Z-0.125000 F400.0(Penetrate)
G01 X28.906042 Y25.736392 Z-0.125000 F800.000000
G01 X24.508072 Y11.613552 Z-0.125000
G00 Z3.000000

(End cutting path id: path1559)


(Start cutting path id: path1561)
(Change tool to Default tool)

G00 Z3.000000
G00 X26.838988 Y46.868988

G00 Z4.875000 (Fast pre-penetrate)
G01 Z-0.125000 F400.0(Penetrate)
G01 X29.504603 Y25.682560 Z-0.125000 F800.000000
G01 X25.091052 Y11.575304 Z-0.125000
G00 Z3.000000

(End cutting path id: path1561)


(Start cutting path id: path1563)
(Change tool to Default tool)

G00 Z3.000000
G00 X27.252094 Y47.000610

G00 Z4.875000 (Fast pre-penetrate)
G01 Z-0.125000 F400.0(Penetrate)
G01 X30.103164 Y25.628730 Z-0.125000 F800.000000
G01 X25.674031 Y11.537053 Z-0.125000
G00 Z3.000000

(End cutting path id: path1563)


(Start cutting path id: path1565)
(Change tool to Default tool)

G00 Z3.000000
G00 X27.665204 Y47.132230

G00 Z4.875000 (Fast pre-penetrate)
G01 Z-0.125000 F400.0(Penetrate)
G01 X30.701725 Y25.574898 Z-0.125000 F800.000000
G01 X26.257011 Y11.498802 Z-0.125000
G00 Z3.000000

(End cutting path id: path1565)


(Start cutting path id: path1567)
(Change tool to Default tool)

G00 Z3.000000
G00 X28.078310 Y47.263852

G00 Z4.875000 (Fast pre-penetrate)
G01 Z-0.125000 F400.0(Penetrate)
G01 X31.300286 Y25.521066 Z-0.125000 F800.000000
G01 X26.839991 Y11.460554 Z-0.125000
G00 Z3.000000

(End cutting path id: path1567)


(Start cutting path id: path1569)
(Change tool to Default tool)

G00 Z3.000000
G00 X28.491420 Y47.395474

G00 Z4.875000 (Fast pre-penetrate)
G01 Z-0.125000 F400.0(Penetrate)
G01 X31.898847 Y25.467234 Z-0.125000 F800.000000
G01 X27.422970 Y11.422303 Z-0.125000
G00 Z3.000000

(End cutting path id: path1569)


(Start cutting path id: path1571)
(Change tool to Default tool)

G00 Z3.000000
G00 X28.904526 Y47.527096

G00 Z4.875000 (Fast pre-penetrate)
G01 Z-0.125000 F400.0(Penetrate)
G01 X32.497407 Y25.413405 Z-0.125000 F800.000000
G01 X28.005950 Y11.384053 Z-0.125000
G00 Z3.000000

(End cutting path id: path1571)


(Start cutting path id: path1573)
(Change tool to Default tool)

G00 Z3.000000
G00 X29.317636 Y47.658718

G00 Z4.875000 (Fast pre-penetrate)
G01 Z-0.125000 F400.0(Penetrate)
G01 X33.095971 Y25.359573 Z-0.125000 F800.000000
G01 X28.588929 Y11.345805 Z-0.125000
G00 Z3.000000

(End cutting path id: path1573)


(Start cutting path id: path1575)
(Change tool to Default tool)

G00 Z3.000000
G00 X29.730742 Y47.790340

G00 Z4.875000 (Fast pre-penetrate)
G01 Z-0.125000 F400.0(Penetrate)
G01 X33.694532 Y25.305741 Z-0.125000 F800.000000
G01 X29.171909 Y11.307554 Z-0.125000
G00 Z3.000000

(End cutting path id: path1575)


(Start cutting path id: path1577)
(Change tool to Default tool)

G00 Z3.000000
G00 X30.143849 Y47.921962

G00 Z4.875000 (Fast pre-penetrate)
G01 Z-0.125000 F400.0(Penetrate)
G01 X34.293093 Y25.251911 Z-0.125000 F800.000000
G01 X29.754888 Y11.269303 Z-0.125000
G00 Z3.000000

(End cutting path id: path1577)


(Start cutting path id: path1579)
(Change tool to Default tool)

G00 Z3.000000
G00 X30.556958 Y48.053584

G00 Z4.875000 (Fast pre-penetrate)
G01 Z-0.125000 F400.0(Penetrate)
G01 X34.891653 Y25.198079 Z-0.125000 F800.000000
G01 X30.337868 Y11.231055 Z-0.125000
G00 Z3.000000

(End cutting path id: path1579)


(Start cutting path id: path1589)
(Change tool to Default tool)

G00 Z3.000000
G00 X33.322642 Y48.011550

G00 Z4.875000 (Fast pre-penetrate)
G01 Z-0.125000 F400.0(Penetrate)
G01 X38.168561 Y24.644818 Z-0.125000 F800.000000
G01 X32.914530 Y11.378041 Z-0.125000
G00 Z3.000000

(End cutting path id: path1589)


(Start cutting path id: path1597)
(Change tool to Default tool)

G00 Z3.000000
G00 X35.675216 Y47.837891

G00 Z4.875000 (Fast pre-penetrate)
G01 Z-0.125000 F400.0(Penetrate)
G01 X40.846911 Y24.145388 Z-0.125000 F800.000000
G01 X34.908214 Y11.563276 Z-0.125000
G00 Z3.000000

(End cutting path id: path1597)


(Start cutting path id: path1595)
(Change tool to Default tool)

G00 Z3.000000
G00 X35.087074 Y47.881306

G00 Z4.875000 (Fast pre-penetrate)
G01 Z-0.125000 F400.0(Penetrate)
G01 X40.177326 Y24.270245 Z-0.125000 F800.000000
G01 X34.409792 Y11.516969 Z-0.125000
G00 Z3.000000

(End cutting path id: path1595)


(Start cutting path id: path1593)
(Change tool to Default tool)

G00 Z3.000000
G00 X34.498930 Y47.924719

G00 Z4.875000 (Fast pre-penetrate)
G01 Z-0.125000 F400.0(Penetrate)
G01 X39.507738 Y24.395102 Z-0.125000 F800.000000
G01 X33.911371 Y11.470659 Z-0.125000
G00 Z3.000000

(End cutting path id: path1593)


(Start cutting path id: path1591)
(Change tool to Default tool)

G00 Z3.000000
G00 X33.910786 Y47.968135

G00 Z4.875000 (Fast pre-penetrate)
G01 Z-0.125000 F400.0(Penetrate)
G01 X38.838150 Y24.519961 Z-0.125000 F800.000000
G01 X33.412949 Y11.424349 Z-0.125000
G00 Z3.000000

(End cutting path id: path1591)


(Start cutting path id: path1587)
(Change tool to Default tool)

G00 Z3.000000
G00 X32.734498 Y48.054963

G00 Z4.875000 (Fast pre-penetrate)
G01 Z-0.125000 F400.0(Penetrate)
G01 X37.498976 Y24.769674 Z-0.125000 F800.000000
G01 X32.416109 Y11.331731 Z-0.125000
G00 Z3.000000

(End cutting path id: path1587)


(Start cutting path id: path1585)
(Change tool to Default tool)

G00 Z3.000000
G00 X32.146353 Y48.098378

G00 Z4.875000 (Fast pre-penetrate)
G01 Z-0.125000 F400.0(Penetrate)
G01 X36.829388 Y24.894534 Z-0.125000 F800.000000
G01 X31.917688 Y11.285421 Z-0.125000
G00 Z3.000000

(End cutting path id: path1585)


(Start cutting path id: path1583)
(Change tool to Default tool)

G00 Z3.000000
G00 X31.558209 Y48.141791

G00 Z4.875000 (Fast pre-penetrate)
G01 Z-0.125000 F400.0(Penetrate)
G01 X36.159800 Y25.019391 Z-0.125000 F800.000000
G01 X31.419269 Y11.239114 Z-0.125000
G00 Z3.000000

(End cutting path id: path1583)


(Start cutting path id: path1581)
(Change tool to Default tool)

G00 Z3.000000
G00 X30.970065 Y48.185206

G00 Z4.875000 (Fast pre-penetrate)
G01 Z-0.125000 F400.0(Penetrate)
G01 X35.490214 Y25.144247 Z-0.125000 F800.000000
G01 X30.920847 Y11.192804 Z-0.125000
G00 Z3.000000

(End cutting path id: path1581)



(Footer)
M5
G00 X0.0000 Y0.0000
M2
(Using default footer. To add your own footer create file "footer" in the output dir.)
(end)
%