%
(Header)
(Generated by gcodetools from Inkscape.)
(Using default header. To add your own header create file "header" in the output dir.)
M3
(Header end.)
G21 (All units in mm)

(Start cutting path id: path23108)
(Change tool to Default tool)

G00 Z10.000000
G00 X138.227732 Y209.920378

G00 Z4.875000 (Fast pre-penetrate)
G01 Z-0.125000 F100.0(Penetrate)
G01 X138.195183 Y209.138057 Z-0.125000 F800.000000
G01 X138.640544 Y204.287403 Z-0.125000
G01 X139.051159 Y202.578075 Z-0.125000
G01 X139.512914 Y201.085072 Z-0.125000
G01 X140.056446 Y199.620028 Z-0.125000
G01 X140.672772 Y198.184280 Z-0.125000
G01 X141.442767 Y196.604637 Z-0.125000
G01 X142.980148 Y193.887081 Z-0.125000
G01 X143.922128 Y192.404192 Z-0.125000
G01 X144.798161 Y191.111571 Z-0.125000
G01 X145.821539 Y189.684143 Z-0.125000
G01 X146.759978 Y188.436590 Z-0.125000
G01 X147.721938 Y187.207319 Z-0.125000
G01 X148.704293 Y185.994519 Z-0.125000
G01 X149.830622 Y184.647856 Z-0.125000
G01 X151.879074 Y182.293881 Z-0.125000
G01 X152.919530 Y181.131374 Z-0.125000
G01 X154.233124 Y179.690205 Z-0.125000
G01 X155.291649 Y178.544542 Z-0.125000
G01 X156.355774 Y177.404243 Z-0.125000
G01 X157.424109 Y176.268062 Z-0.125000
G01 X158.629752 Y174.993555 Z-0.125000
G01 X159.702989 Y173.862307 Z-0.125000
G01 X160.776681 Y172.731649 Z-0.125000
G01 X161.849794 Y171.600567 Z-0.125000
G01 X163.055253 Y170.326447 Z-0.125000
G01 X164.123513 Y169.191039 Z-0.125000
G01 X165.320893 Y167.909538 Z-0.125000
G01 X166.247301 Y166.908587 Z-0.125000
G01 X167.563601 Y165.471735 Z-0.125000
G01 X168.608025 Y164.314726 Z-0.125000
G01 X169.644019 Y163.150234 Z-0.125000
G01 X170.670452 Y161.977399 Z-0.125000
G01 X171.812642 Y160.646968 Z-0.125000
G01 X172.689976 Y159.603157 Z-0.125000
G01 X173.926644 Y158.097640 Z-0.125000
G01 X174.898901 Y156.879725 Z-0.125000
G01 X175.854900 Y155.649051 Z-0.125000
G01 X176.793167 Y154.404843 Z-0.125000
G01 X177.825922 Y152.988083 Z-0.125000
G01 X178.721267 Y151.712710 Z-0.125000
G01 X179.593781 Y150.421649 Z-0.125000
G01 X180.546086 Y148.949735 Z-0.125000
G01 X182.155516 Y146.280000 Z-0.125000
G01 X183.006499 Y144.747295 Z-0.125000
G01 X183.638811 Y143.539573 Z-0.125000
G01 X184.496095 Y141.790480 Z-0.125000
G01 X185.138867 Y140.371156 Z-0.125000
G01 X185.741363 Y138.934260 Z-0.125000
G01 X186.301330 Y137.480314 Z-0.125000
G01 X186.878091 Y135.825048 Z-0.125000
G01 X187.340574 Y134.337291 Z-0.125000
G01 X187.767989 Y132.839002 Z-0.125000
G01 X188.238542 Y131.150486 Z-0.125000
G01 X188.647401 Y129.647102 Z-0.125000
G01 X189.047224 Y128.141327 Z-0.125000
G01 X189.485984 Y126.444338 Z-0.125000
G01 X189.865101 Y124.933268 Z-0.125000
G01 X190.233663 Y123.419626 Z-0.125000
G01 X190.591121 Y121.903338 Z-0.125000
G01 X190.979519 Y120.194198 Z-0.125000
G01 X191.311233 Y118.672117 Z-0.125000
G01 X191.668851 Y116.956313 Z-0.125000
G01 X191.971439 Y115.428204 Z-0.125000
G01 X192.258956 Y113.897202 Z-0.125000
G01 X192.530379 Y112.363259 Z-0.125000
G01 X192.815424 Y110.633995 Z-0.125000
G01 X193.048836 Y109.093848 Z-0.125000
G01 X193.287723 Y107.357653 Z-0.125000
G01 X193.454075 Y106.005018 Z-0.125000
G01 X193.661470 Y104.068703 Z-0.125000
G01 X193.798049 Y102.517059 Z-0.125000
G01 X193.906483 Y100.963203 Z-0.125000
G01 X193.984133 Y99.407508 Z-0.125000
G01 X194.031178 Y97.655705 Z-0.125000
G01 X194.032794 Y96.098121 Z-0.125000
G01 X193.992578 Y94.541102 Z-0.125000
G01 X193.891681 Y92.791685 Z-0.125000
G01 X193.745925 Y91.241015 Z-0.125000
G01 X193.540894 Y89.697149 Z-0.125000
G01 X193.230271 Y87.972757 Z-0.125000
G01 X192.872966 Y86.456929 Z-0.125000
G01 X192.367413 Y84.779505 Z-0.125000
G01 X191.813462 Y83.324141 Z-0.125000
G01 X191.149665 Y81.915535 Z-0.125000
G01 X190.365649 Y80.570127 Z-0.125000
G01 X189.330937 Y79.156808 Z-0.125000
G01 X188.272562 Y78.014421 Z-0.125000
G01 X187.089515 Y77.001374 Z-0.125000
G01 X185.626744 Y76.036495 Z-0.125000
G01 X184.230606 Y75.343805 Z-0.125000
G01 X182.767434 Y74.805538 Z-0.125000
G01 X181.067107 Y74.373913 Z-0.125000
G01 X179.525907 Y74.131122 Z-0.125000
G01 X177.970405 Y74.005693 Z-0.125000
G01 X176.214779 Y73.986905 Z-0.125000
G01 X174.655579 Y74.064912 Z-0.125000
G01 X173.101815 Y74.220021 Z-0.125000
G01 X171.363738 Y74.474364 Z-0.125000
G01 X169.828770 Y74.762681 Z-0.125000
G01 X168.304145 Y75.102173 Z-0.125000
G01 X166.601940 Y75.537761 Z-0.125000
G01 X165.100138 Y75.967551 Z-0.125000
G01 X163.608848 Y76.432932 Z-0.125000
G01 X162.127898 Y76.930283 Z-0.125000
G01 X160.473985 Y77.523916 Z-0.125000
G01 X159.013805 Y78.079431 Z-0.125000
G01 X157.382265 Y78.732250 Z-0.125000
G01 X155.941146 Y79.335497 Z-0.125000
G01 X154.508408 Y79.958331 Z-0.125000
G01 X152.906289 Y80.680257 Z-0.125000
G01 X151.490097 Y81.339775 Z-0.125000
G01 X150.081101 Y82.014599 Z-0.125000
G01 X148.504478 Y82.790410 Z-0.125000
G01 X147.283651 Y83.405803 Z-0.125000
G01 X145.548583 Y84.300220 Z-0.125000
G01 X144.166986 Y85.029003 Z-0.125000
G01 X142.791107 Y85.768341 Z-0.125000
G01 X141.420705 Y86.517592 Z-0.125000
G01 X139.885407 Y87.371344 Z-0.125000
G01 X138.525812 Y88.139726 Z-0.125000
G01 X137.171014 Y88.916263 Z-0.125000
G01 X135.652465 Y89.798753 Z-0.125000
G01 X134.307151 Y90.591102 Z-0.125000
G01 X132.966029 Y91.390172 Z-0.125000
G01 X131.462229 Y92.296439 Z-0.125000
G01 X130.129472 Y93.108589 Z-0.125000
G01 X128.800315 Y93.926396 Z-0.125000
G01 X127.474802 Y94.749401 Z-0.125000
G01 X125.987685 Y95.680932 Z-0.125000
G01 X124.669121 Y96.514119 Z-0.125000
G01 X123.189556 Y97.456296 Z-0.125000
G01 X121.877439 Y98.298283 Z-0.125000
G01 X120.568168 Y99.143942 Z-0.125000
G01 X117.795686 Y100.949114 Z-0.125000
G01 X116.494532 Y101.804435 Z-0.125000
G01 X115.033559 Y102.769376 Z-0.125000
G01 X113.737265 Y103.629686 Z-0.125000
G01 X112.443096 Y104.491851 Z-0.125000
G01 X111.150907 Y105.355542 Z-0.125000
G01 X109.699331 Y106.328358 Z-0.125000
G01 X108.410833 Y107.194213 Z-0.125000
G01 X107.123844 Y108.060471 Z-0.125000
G01 X104.392820 Y109.897828 Z-0.125000
G01 X102.948572 Y110.870257 Z-0.125000
G01 X101.665349 Y111.733260 Z-0.125000
G01 X100.382206 Y112.594151 Z-0.125000
G01 X98.938141 Y113.559047 Z-0.125000
G01 X97.653668 Y114.413332 Z-0.125000
G01 X96.367720 Y115.263374 Z-0.125000
G01 X95.079638 Y116.108357 Z-0.125000
G01 X93.626808 Y117.051506 Z-0.125000
G01 X92.331350 Y117.882568 Z-0.125000
G01 X90.867745 Y118.807013 Z-0.125000
G01 X89.560148 Y119.618106 Z-0.125000
G01 X88.244709 Y120.416688 Z-0.125000
G01 X86.752881 Y121.296299 Z-0.125000
G01 X85.582251 Y121.963681 Z-0.125000
G01 X84.058994 Y122.791981 Z-0.125000
G01 X82.509750 Y123.574040 Z-0.125000
G01 X81.102586 Y124.209905 Z-0.125000
G01 X79.654027 Y124.750187 Z-0.125000
G01 X75.020767 Y124.142029 Z-0.125000
G01 X73.495036 Y123.278563 Z-0.125000
G01 X72.219692 Y122.383755 Z-0.125000
G01 X71.032342 Y121.375772 Z-0.125000
G01 X69.810717 Y120.120274 Z-0.125000
G01 X68.829640 Y118.911967 Z-0.125000
G01 X67.944813 Y117.632107 Z-0.125000
G01 X67.056948 Y116.123917 Z-0.125000
G01 X66.272196 Y114.560117 Z-0.125000
G01 X65.725192 Y113.314720 Z-0.125000
G01 X65.091164 Y111.684376 Z-0.125000
G01 X64.584224 Y110.214760 Z-0.125000
G01 X64.121444 Y108.730733 Z-0.125000
G01 X63.643579 Y107.048167 Z-0.125000
G01 X63.249180 Y105.544372 Z-0.125000
G01 X62.876181 Y104.035077 Z-0.125000
G01 X62.474065 Y102.332359 Z-0.125000
G01 X62.126069 Y100.816636 Z-0.125000
G01 X61.780874 Y99.300286 Z-0.125000
G01 X61.388675 Y97.594623 Z-0.125000
G01 X61.030952 Y96.080462 Z-0.125000
G01 X60.610682 Y94.380920 Z-0.125000
G01 X60.215276 Y92.875632 Z-0.125000
G01 X59.847715 Y91.564522 Z-0.125000
G01 X59.277977 Y89.703067 Z-0.125000
G01 X58.777905 Y88.228548 Z-0.125000
G01 X58.230710 Y86.770419 Z-0.125000
G01 X57.629496 Y85.333410 Z-0.125000
G01 X56.879609 Y83.749056 Z-0.125000
G01 X56.140527 Y82.377414 Z-0.125000
G01 X55.326558 Y81.048642 Z-0.125000
G01 X54.314989 Y79.616426 Z-0.125000
G01 X53.327550 Y78.410685 Z-0.125000
G01 X52.256364 Y77.278953 Z-0.125000
G01 X50.953600 Y76.105551 Z-0.125000
G01 X49.715077 Y75.160355 Z-0.125000
G01 X48.408350 Y74.312368 Z-0.125000
G01 X46.868043 Y73.476947 Z-0.125000
G01 X45.447441 Y72.839279 Z-0.125000
G01 X43.988180 Y72.296737 Z-0.125000
G01 X42.310980 Y71.792828 Z-0.125000
G01 X40.793187 Y71.449461 Z-0.125000
G01 X39.060970 Y71.198629 Z-0.125000
G01 X37.508415 Y71.112832 Z-0.125000
G01 X36.149015 Y71.155343 Z-0.125000
G01 X34.225169 Y71.421332 Z-0.125000
G01 X32.723149 Y71.816628 Z-0.125000
G01 X31.273745 Y72.373560 Z-0.125000
G01 X29.893701 Y73.084367 Z-0.125000
G01 X28.439348 Y74.050675 Z-0.125000
G01 X27.242583 Y75.039104 Z-0.125000
G01 X26.138626 Y76.130344 Z-0.125000
G01 X25.126202 Y77.307235 Z-0.125000
G01 X24.091901 Y78.714587 Z-0.125000
G01 X22.503623 Y81.381835 Z-0.125000
G01 X21.820287 Y82.776703 Z-0.125000
G01 X21.058185 Y84.562373 Z-0.125000
G01 X20.517361 Y86.018709 Z-0.125000
G01 X20.032944 Y87.494922 Z-0.125000
G01 X19.601421 Y88.987516 Z-0.125000
G01 X19.219786 Y90.493648 Z-0.125000
G01 X18.881269 Y92.010255 Z-0.125000
G01 X18.506099 Y93.915711 Z-0.125000
G01 X18.245171 Y95.447469 Z-0.125000
G01 X18.018910 Y96.984704 Z-0.125000
G01 X17.827386 Y98.526573 Z-0.125000
G01 X17.653135 Y100.265763 Z-0.125000
G01 X17.535436 Y101.815101 Z-0.125000
G01 X17.452280 Y103.366662 Z-0.125000
G01 X17.403569 Y104.919599 Z-0.125000
G01 X17.389328 Y106.667292 Z-0.125000
G01 X17.417932 Y108.414754 Z-0.125000
G01 X17.470079 Y109.773298 Z-0.125000
G01 X17.573667 Y111.517903 Z-0.125000
G01 X17.700697 Y113.066219 Z-0.125000
G01 X17.881785 Y114.804404 Z-0.125000
G01 X18.076613 Y116.345594 Z-0.125000
G01 X18.302526 Y117.882508 Z-0.125000
G01 X18.558878 Y119.414650 Z-0.125000
G01 X18.882732 Y121.131689 Z-0.125000
G01 X19.201921 Y122.651748 Z-0.125000
G01 X19.594866 Y124.354104 Z-0.125000
G01 X19.974086 Y125.860239 Z-0.125000
G01 X20.380520 Y127.359086 Z-0.125000
G01 X20.869159 Y129.036217 Z-0.125000
G01 X21.331347 Y130.518703 Z-0.125000
G01 X21.818720 Y131.992957 Z-0.125000
G01 X22.396003 Y133.641227 Z-0.125000
G01 X22.934794 Y135.097140 Z-0.125000
G01 X23.496806 Y136.544093 Z-0.125000
G01 X24.155725 Y138.160922 Z-0.125000
G01 X24.765096 Y139.588381 Z-0.125000
G01 X25.475746 Y141.182865 Z-0.125000
G01 X26.129791 Y142.590147 Z-0.125000
G01 X26.803908 Y143.987659 Z-0.125000
G01 X27.497600 Y145.375354 Z-0.125000
G01 X28.300413 Y146.924815 Z-0.125000
G01 X29.033955 Y148.291600 Z-0.125000
G01 X29.785358 Y149.648231 Z-0.125000
G01 X30.651174 Y151.162484 Z-0.125000
G01 X31.439145 Y152.497874 Z-0.125000
G01 X32.243559 Y153.823181 Z-0.125000
G01 X33.167212 Y155.301985 Z-0.125000
G01 X34.005090 Y156.605775 Z-0.125000
G01 X34.858013 Y157.899398 Z-0.125000
G01 X35.834834 Y159.342772 Z-0.125000
G01 X36.718460 Y160.614837 Z-0.125000
G01 X37.616129 Y161.877016 Z-0.125000
G01 X38.641829 Y163.284957 Z-0.125000
G01 X39.684221 Y164.680330 Z-0.125000
G01 X40.506568 Y165.756440 Z-0.125000
G01 X41.577469 Y167.129327 Z-0.125000
G01 X42.542633 Y168.339056 Z-0.125000
G01 X43.519618 Y169.538799 Z-0.125000
G01 X44.632207 Y170.876733 Z-0.125000
G01 X45.633636 Y172.055600 Z-0.125000
G01 X46.772982 Y173.370047 Z-0.125000
G01 X47.797504 Y174.527957 Z-0.125000
G01 X48.832552 Y175.676057 Z-0.125000
G01 X49.878014 Y176.814491 Z-0.125000
G01 X51.065965 Y178.083789 Z-0.125000
G01 X52.132675 Y179.201606 Z-0.125000
G01 X53.209157 Y180.309828 Z-0.125000
G01 X56.629532 Y183.714113 Z-0.125000
G01 X57.884108 Y184.915647 Z-0.125000
G01 X59.008924 Y185.973255 Z-0.125000
G01 X60.284609 Y187.151799 Z-0.125000
G01 X61.427916 Y188.188914 Z-0.125000
G01 X62.579793 Y189.216385 Z-0.125000
G01 X63.740102 Y190.234173 Z-0.125000
G01 X65.055046 Y191.367647 Z-0.125000
G01 X66.232906 Y192.364667 Z-0.125000
G01 X67.418945 Y193.351863 Z-0.125000
G01 X68.762714 Y194.450892 Z-0.125000
G01 X69.965936 Y195.417042 Z-0.125000
G01 X71.328842 Y196.492164 Z-0.125000
G01 X72.548866 Y197.436772 Z-0.125000
G01 X73.776893 Y198.371217 Z-0.125000
G01 X75.012655 Y199.295181 Z-0.125000
G01 X76.256340 Y200.208706 Z-0.125000
G01 X77.664604 Y201.223898 Z-0.125000
G01 X78.924846 Y202.114520 Z-0.125000
G01 X80.351788 Y203.103559 Z-0.125000
G01 X81.628684 Y203.970540 Z-0.125000
G01 X82.913394 Y204.826006 Z-0.125000
G01 X84.367993 Y205.774690 Z-0.125000
G01 X86.977941 Y207.425185 Z-0.125000
G01 X88.460516 Y208.330468 Z-0.125000
G01 X89.786931 Y209.120959 Z-0.125000
G01 X91.121478 Y209.897965 Z-0.125000
G01 X92.632596 Y210.755766 Z-0.125000
G01 X93.984570 Y211.502565 Z-0.125000
G01 X95.344894 Y212.234277 Z-0.125000
G01 X96.885268 Y213.038999 Z-0.125000
G01 X98.263655 Y213.736623 Z-0.125000
G01 X99.650848 Y214.417135 Z-0.125000
G01 X101.221857 Y215.161365 Z-0.125000
G01 X102.627946 Y215.802416 Z-0.125000
G01 X104.043221 Y216.423308 Z-0.125000
G01 X105.646443 Y217.096450 Z-0.125000
G01 X107.081610 Y217.670183 Z-0.125000
G01 X108.526451 Y218.219386 Z-0.125000
G01 X110.163665 Y218.805942 Z-0.125000
G01 X111.445714 Y219.236545 Z-0.125000
G01 X113.105534 Y219.755905 Z-0.125000
G01 X114.778326 Y220.232058 Z-0.125000
G01 X116.275997 Y220.614713 Z-0.125000
G01 X117.783803 Y220.955144 Z-0.125000
G01 X119.491853 Y221.281794 Z-0.125000
G01 X121.019768 Y221.514697 Z-0.125000
G01 X122.555748 Y221.685980 Z-0.125000
G01 X124.097847 Y221.786329 Z-0.125000
G01 X125.836031 Y221.800246 Z-0.125000
G01 X127.378009 Y221.707952 Z-0.125000
G01 X129.098258 Y221.463313 Z-0.125000
G01 X132.047737 Y220.563871 Z-0.125000
G01 X133.574257 Y219.734711 Z-0.125000
G01 X134.789738 Y218.780135 Z-0.125000
G01 X135.823944 Y217.629003 Z-0.125000
G01 X136.730915 Y216.140197 Z-0.125000
G01 X137.301591 Y214.695329 Z-0.125000
G01 X137.667246 Y213.182858 Z-0.125000
G01 X137.867745 Y211.441747 Z-0.125000
G01 X137.889877 Y209.881963 Z-0.125000
G01 X137.853849 Y209.101751 Z-0.125000
G01 X137.818074 Y208.320903 Z-0.125000
G01 X138.235507 Y203.483719 Z-0.125000
G01 X138.633023 Y201.781124 Z-0.125000
G01 X139.081972 Y200.294987 Z-0.125000
G01 X139.611731 Y198.837612 Z-0.125000
G01 X140.213451 Y197.410343 Z-0.125000
G01 X140.966189 Y195.841208 Z-0.125000
G01 X142.471272 Y193.144783 Z-0.125000
G01 X143.394478 Y191.675124 Z-0.125000
G01 X144.253613 Y190.395033 Z-0.125000
G01 X145.257883 Y188.982537 Z-0.125000
G01 X146.179351 Y187.748960 Z-0.125000
G01 X147.124438 Y186.534297 Z-0.125000
G01 X148.090102 Y185.336693 Z-0.125000
G01 X149.197953 Y184.007780 Z-0.125000
G01 X151.214600 Y181.686884 Z-0.125000
G01 X152.239765 Y180.541551 Z-0.125000
G01 X153.534892 Y179.122361 Z-0.125000
G01 X154.579210 Y177.994626 Z-0.125000
G01 X155.629658 Y176.872517 Z-0.125000
G01 X156.684867 Y175.754740 Z-0.125000
G01 X157.876418 Y174.501146 Z-0.125000
G01 X158.937740 Y173.388624 Z-0.125000
G01 X160.000098 Y172.276783 Z-0.125000
G01 X161.062461 Y171.164574 Z-0.125000
G01 X162.256516 Y169.911710 Z-0.125000
G01 X163.315250 Y168.795188 Z-0.125000
G01 X164.502586 Y167.534889 Z-0.125000
G01 X165.421664 Y166.550378 Z-0.125000
G01 X166.728210 Y165.136903 Z-0.125000
G01 X167.765422 Y163.998484 Z-0.125000
G01 X168.794710 Y162.852469 Z-0.125000
G01 X169.814927 Y161.697988 Z-0.125000
G01 X170.950694 Y160.388044 Z-0.125000
G01 X171.823435 Y159.360049 Z-0.125000
G01 X173.054128 Y157.876937 Z-0.125000
G01 X174.022082 Y156.676784 Z-0.125000
G01 X174.974189 Y155.463727 Z-0.125000
G01 X175.908958 Y154.236998 Z-0.125000
G01 X176.938234 Y152.839735 Z-0.125000
G01 X177.830877 Y151.581554 Z-0.125000
G01 X178.701043 Y150.307558 Z-0.125000
G01 X179.651119 Y148.854702 Z-0.125000
G01 X181.257620 Y146.218504 Z-0.125000
G01 X182.107516 Y144.704495 Z-0.125000
G01 X182.739259 Y143.511239 Z-0.125000
G01 X183.596128 Y141.782707 Z-0.125000
G01 X184.238908 Y140.379753 Z-0.125000
G01 X184.841707 Y138.959165 Z-0.125000
G01 X185.402271 Y137.521471 Z-0.125000
G01 X185.980051 Y135.884425 Z-0.125000
G01 X186.443748 Y134.412814 Z-0.125000
G01 X186.872658 Y132.930571 Z-0.125000
G01 X187.345210 Y131.259845 Z-0.125000
G01 X187.756114 Y129.772039 Z-0.125000
G01 X188.158224 Y128.281614 Z-0.125000
G01 X188.599833 Y126.601621 Z-0.125000
G01 X188.981717 Y125.105415 Z-0.125000
G01 X189.353258 Y123.606408 Z-0.125000
G01 X189.713895 Y122.104527 Z-0.125000
G01 X190.106101 Y120.411323 Z-0.125000
G01 X190.441396 Y118.903168 Z-0.125000
G01 X190.803253 Y117.202773 Z-0.125000
G01 X191.109789 Y115.688127 Z-0.125000
G01 X191.401416 Y114.170380 Z-0.125000
G01 X191.677105 Y112.649483 Z-0.125000
G01 X191.967131 Y110.934660 Z-0.125000
G01 X192.205128 Y109.407147 Z-0.125000
G01 X192.449343 Y107.684944 Z-0.125000
G01 X192.619964 Y106.343038 Z-0.125000
G01 X192.833641 Y104.421831 Z-0.125000
G01 X192.975403 Y102.882097 Z-0.125000
G01 X193.089160 Y101.340008 Z-0.125000
G01 X193.172275 Y99.795948 Z-0.125000
G01 X193.225642 Y98.057091 Z-0.125000
G01 X193.233036 Y96.510899 Z-0.125000
G01 X193.198756 Y94.965183 Z-0.125000
G01 X193.104732 Y93.228387 Z-0.125000
G01 X192.965272 Y91.688874 Z-0.125000
G01 X192.766722 Y90.156120 Z-0.125000
G01 X192.463626 Y88.444193 Z-0.125000
G01 X192.113238 Y86.939432 Z-0.125000
G01 X191.615734 Y85.274452 Z-0.125000
G01 X191.069184 Y83.830151 Z-0.125000
G01 X190.413024 Y82.432599 Z-0.125000
G01 X189.636865 Y81.098206 Z-0.125000
G01 X188.611222 Y79.697182 Z-0.125000
G01 X187.561050 Y78.565551 Z-0.125000
G01 X186.386264 Y77.563006 Z-0.125000
G01 X184.932745 Y76.609519 Z-0.125000
G01 X183.544702 Y75.926493 Z-0.125000
G01 X182.089437 Y75.397409 Z-0.125000
G01 X180.397737 Y74.975523 Z-0.125000
G01 X178.863954 Y74.740883 Z-0.125000
G01 X177.315643 Y74.623167 Z-0.125000
G01 X175.567858 Y74.612592 Z-0.125000
G01 X174.015440 Y74.697532 Z-0.125000
G01 X172.468305 Y74.859281 Z-0.125000
G01 X170.737543 Y75.120789 Z-0.125000
G01 X169.208975 Y75.415244 Z-0.125000
G01 X167.690684 Y75.760696 Z-0.125000
G01 X165.995553 Y76.202802 Z-0.125000
G01 X164.500018 Y76.638251 Z-0.125000
G01 X163.014995 Y77.109189 Z-0.125000
G01 X161.540332 Y77.612008 Z-0.125000
G01 X159.893540 Y78.211714 Z-0.125000
G01 X158.439752 Y78.772571 Z-0.125000
G01 X156.815495 Y79.431359 Z-0.125000
G01 X155.380952 Y80.039886 Z-0.125000
G01 X153.954900 Y80.667986 Z-0.125000
G01 X152.360462 Y81.395838 Z-0.125000
G01 X150.951260 Y82.060631 Z-0.125000
G01 X149.549420 Y82.740749 Z-0.125000
G01 X147.981072 Y83.522547 Z-0.125000
G01 X146.766866 Y84.142628 Z-0.125000
G01 X145.041560 Y85.043797 Z-0.125000
G01 X143.668058 Y85.778035 Z-0.125000
G01 X142.300552 Y86.522882 Z-0.125000
G01 X140.938827 Y87.277704 Z-0.125000
G01 X139.413684 Y88.137798 Z-0.125000
G01 X138.063497 Y88.911891 Z-0.125000
G01 X136.718499 Y89.694211 Z-0.125000
G01 X135.211483 Y90.583295 Z-0.125000
G01 X133.876910 Y91.381585 Z-0.125000
G01 X132.547030 Y92.186670 Z-0.125000
G01 X131.056525 Y93.099789 Z-0.125000
G01 X129.736211 Y93.918104 Z-0.125000
G01 X128.420139 Y94.742138 Z-0.125000
G01 X127.108400 Y95.571421 Z-0.125000
G01 X125.637674 Y96.510062 Z-0.125000
G01 X124.334542 Y97.349595 Z-0.125000
G01 X122.873390 Y98.298911 Z-0.125000
G01 X121.578653 Y99.147215 Z-0.125000
G01 X120.287792 Y99.999132 Z-0.125000
G01 X117.558211 Y101.817191 Z-0.125000
G01 X116.279203 Y102.678270 Z-0.125000
G01 X114.844793 Y103.649330 Z-0.125000
G01 X113.573663 Y104.514664 Z-0.125000
G01 X112.306219 Y105.381352 Z-0.125000
G01 X111.042391 Y106.248945 Z-0.125000
G01 X109.624768 Y107.225231 Z-0.125000
G01 X108.368333 Y108.093175 Z-0.125000
G01 X107.115221 Y108.960394 Z-0.125000
G01 X104.462206 Y110.795109 Z-0.125000
G01 X103.062452 Y111.762981 Z-0.125000
G01 X101.820465 Y112.619747 Z-0.125000
G01 X100.579961 Y113.472108 Z-0.125000
G01 X99.185228 Y114.424414 Z-0.125000
G01 X97.945470 Y115.264660 Z-0.125000
G01 X96.704660 Y116.097865 Z-0.125000
G01 X95.461711 Y116.923170 Z-0.125000
G01 X94.059081 Y117.840832 Z-0.125000
G01 X92.807210 Y118.646405 Z-0.125000
G01 X91.390875 Y119.539284 Z-0.125000
G01 X90.123257 Y120.320097 Z-0.125000
G01 X88.845489 Y121.086718 Z-0.125000
G01 X87.392915 Y121.928937 Z-0.125000
G01 X86.250335 Y122.566618 Z-0.125000
G01 X84.759785 Y123.356569 Z-0.125000
G01 X83.239345 Y124.100874 Z-0.125000
G01 X81.854422 Y124.704480 Z-0.125000
G01 X80.424738 Y125.214799 Z-0.125000
G01 X75.814561 Y124.565996 Z-0.125000
G01 X74.288350 Y123.703431 Z-0.125000
G01 X73.010979 Y122.812384 Z-0.125000
G01 X71.820239 Y121.810600 Z-0.125000
G01 X70.593355 Y120.564499 Z-0.125000
G01 X69.606492 Y119.366235 Z-0.125000
G01 X68.714998 Y118.097588 Z-0.125000
G01 X67.818770 Y116.602965 Z-0.125000
G01 X67.024928 Y115.053328 Z-0.125000
G01 X66.470463 Y113.819134 Z-0.125000
G01 X65.826465 Y112.203217 Z-0.125000
G01 X65.310405 Y110.746291 Z-0.125000
G01 X64.838350 Y109.274710 Z-0.125000
G01 X64.349950 Y107.605755 Z-0.125000
G01 X63.946176 Y106.113641 Z-0.125000
G01 X63.563845 Y104.615581 Z-0.125000
G01 X63.151355 Y102.924936 Z-0.125000
G01 X62.794303 Y101.419408 Z-0.125000
G01 X62.440260 Y99.912725 Z-0.125000
G01 X62.038412 Y98.217290 Z-0.125000
G01 X61.672432 Y96.711633 Z-0.125000
G01 X61.243297 Y95.020978 Z-0.125000
G01 X60.840432 Y93.522977 Z-0.125000
G01 X60.466713 Y92.217758 Z-0.125000
G01 X59.888840 Y90.363917 Z-0.125000
G01 X59.382883 Y88.894789 Z-0.125000
G01 X58.830413 Y87.441415 Z-0.125000
G01 X58.224588 Y86.008499 Z-0.125000
G01 X57.470383 Y84.427926 Z-0.125000
G01 X56.728294 Y83.058891 Z-0.125000
G01 X55.912155 Y81.731983 Z-0.125000
G01 X54.899199 Y80.300952 Z-0.125000
G01 X53.911497 Y79.095437 Z-0.125000
G01 X52.840969 Y77.963143 Z-0.125000
G01 X51.540024 Y76.788185 Z-0.125000
G01 X50.304026 Y75.840809 Z-0.125000
G01 X49.000612 Y74.989939 Z-0.125000
G01 X47.464865 Y74.150506 Z-0.125000
G01 X46.048948 Y73.508658 Z-0.125000
G01 X44.594859 Y72.961430 Z-0.125000
G01 X42.923942 Y72.451731 Z-0.125000
G01 X41.412145 Y72.102733 Z-0.125000
G01 X39.687172 Y71.844962 Z-0.125000
G01 X38.141515 Y71.752418 Z-0.125000
G01 X36.788475 Y71.788557 Z-0.125000
G01 X34.874262 Y72.044668 Z-0.125000
G01 X33.380336 Y72.431429 Z-0.125000
G01 X31.939275 Y72.979315 Z-0.125000
G01 X30.567743 Y73.680634 Z-0.125000
G01 X29.123058 Y74.635834 Z-0.125000
G01 X27.934872 Y75.614091 Z-0.125000
G01 X26.839410 Y76.694942 Z-0.125000
G01 X25.835364 Y77.861279 Z-0.125000
G01 X24.810286 Y79.256604 Z-0.125000
G01 X23.237886 Y81.902152 Z-0.125000
G01 X22.562201 Y83.286043 Z-0.125000
G01 X21.809412 Y85.057876 Z-0.125000
G01 X21.275829 Y86.503053 Z-0.125000
G01 X20.798485 Y87.968021 Z-0.125000
G01 X20.373839 Y89.449289 Z-0.125000
G01 X19.998914 Y90.944004 Z-0.125000
G01 X19.666938 Y92.449093 Z-0.125000
G01 X19.299725 Y94.339984 Z-0.125000
G01 X19.044989 Y95.859957 Z-0.125000
G01 X18.824762 Y97.385288 Z-0.125000
G01 X18.639100 Y98.915138 Z-0.125000
G01 X18.471256 Y100.640664 Z-0.125000
G01 X18.359044 Y102.177738 Z-0.125000
G01 X18.281247 Y103.716913 Z-0.125000
G01 X18.237694 Y105.257354 Z-0.125000
G01 X18.229070 Y106.990851 Z-0.125000
G01 X18.263052 Y108.723972 Z-0.125000
G01 X18.319228 Y110.071259 Z-0.125000
G01 X18.427800 Y111.801261 Z-0.125000
G01 X18.559079 Y113.336470 Z-0.125000
G01 X18.744709 Y115.059771 Z-0.125000
G01 X18.943378 Y116.587605 Z-0.125000
G01 X19.172946 Y118.111043 Z-0.125000
G01 X19.432778 Y119.629583 Z-0.125000
G01 X19.760288 Y121.331178 Z-0.125000
G01 X20.082518 Y122.837375 Z-0.125000
G01 X20.478628 Y124.523990 Z-0.125000
G01 X20.860447 Y126.015995 Z-0.125000
G01 X21.269277 Y127.500583 Z-0.125000
G01 X21.760333 Y129.161514 Z-0.125000
G01 X22.224459 Y130.629459 Z-0.125000
G01 X22.713519 Y132.089040 Z-0.125000
G01 X23.292425 Y133.720641 Z-0.125000
G01 X23.832428 Y135.161587 Z-0.125000
G01 X24.395399 Y136.593436 Z-0.125000
G01 X25.055098 Y138.193110 Z-0.125000
G01 X25.664877 Y139.605167 Z-0.125000
G01 X26.375687 Y141.182157 Z-0.125000
G01 X27.029588 Y142.573738 Z-0.125000
G01 X27.703262 Y143.955412 Z-0.125000
G01 X28.396244 Y145.327125 Z-0.125000
G01 X29.197906 Y146.858443 Z-0.125000
G01 X29.930096 Y148.208954 Z-0.125000
G01 X30.679834 Y149.549179 Z-0.125000
G01 X31.543386 Y151.044819 Z-0.125000
G01 X32.328992 Y152.363528 Z-0.125000
G01 X33.130716 Y153.672026 Z-0.125000
G01 X34.050905 Y155.131786 Z-0.125000
G01 X34.885337 Y156.418525 Z-0.125000
G01 X35.734431 Y157.694996 Z-0.125000
G01 X36.706493 Y159.118953 Z-0.125000
G01 X37.585481 Y160.373666 Z-0.125000
G01 X38.478118 Y161.618411 Z-0.125000
G01 X39.497659 Y163.006661 Z-0.125000
G01 X40.533376 Y164.382264 Z-0.125000
G01 X41.350151 Y165.442965 Z-0.125000
G01 X42.413404 Y166.795998 Z-0.125000
G01 X43.371307 Y167.988062 Z-0.125000
G01 X44.340588 Y169.170137 Z-0.125000
G01 X45.443963 Y170.488218 Z-0.125000
G01 X46.436724 Y171.649466 Z-0.125000
G01 X47.565776 Y172.944154 Z-0.125000
G01 X48.580648 Y174.084575 Z-0.125000
G01 X49.605589 Y175.215276 Z-0.125000
G01 X50.640460 Y176.336422 Z-0.125000
G01 X51.815974 Y177.586421 Z-0.125000
G01 X52.871140 Y178.687243 Z-0.125000
G01 X53.935619 Y179.778644 Z-0.125000
G01 X57.315616 Y183.131712 Z-0.125000
G01 X58.554618 Y184.315394 Z-0.125000
G01 X59.665172 Y185.357432 Z-0.125000
G01 X60.924327 Y186.518822 Z-0.125000
G01 X62.052533 Y187.541031 Z-0.125000
G01 X63.188943 Y188.553939 Z-0.125000
G01 X64.333434 Y189.557522 Z-0.125000
G01 X65.630190 Y190.675469 Z-0.125000
G01 X66.791548 Y191.659103 Z-0.125000
G01 X67.960794 Y192.633323 Z-0.125000
G01 X69.285347 Y193.718254 Z-0.125000
G01 X70.471224 Y194.672336 Z-0.125000
G01 X71.814347 Y195.734413 Z-0.125000
G01 X73.016573 Y196.667908 Z-0.125000
G01 X74.226622 Y197.591700 Z-0.125000
G01 X75.444249 Y198.505479 Z-0.125000
G01 X76.669664 Y199.409288 Z-0.125000
G01 X78.057240 Y200.414119 Z-0.125000
G01 X79.298997 Y201.296035 Z-0.125000
G01 X80.705065 Y202.275849 Z-0.125000
G01 X81.963355 Y203.135134 Z-0.125000
G01 X83.229432 Y203.983369 Z-0.125000
G01 X84.663065 Y204.924493 Z-0.125000
G01 X87.235796 Y206.562966 Z-0.125000
G01 X88.697507 Y207.462285 Z-0.125000
G01 X90.005445 Y208.247944 Z-0.125000
G01 X91.321587 Y209.020548 Z-0.125000
G01 X92.812105 Y209.873907 Z-0.125000
G01 X94.145872 Y210.617183 Z-0.125000
G01 X95.488103 Y211.345793 Z-0.125000
G01 X97.008264 Y212.147499 Z-0.125000
G01 X98.368816 Y212.842845 Z-0.125000
G01 X99.738299 Y213.521438 Z-0.125000
G01 X101.289554 Y214.263958 Z-0.125000
G01 X102.678230 Y214.903861 Z-0.125000
G01 X104.076234 Y215.523962 Z-0.125000
G01 X105.660194 Y216.196605 Z-0.125000
G01 X107.078386 Y216.770241 Z-0.125000
G01 X108.506391 Y217.319659 Z-0.125000
G01 X110.124820 Y217.906821 Z-0.125000
G01 X111.392372 Y218.338172 Z-0.125000
G01 X113.033687 Y218.858835 Z-0.125000
G01 X114.688107 Y219.336636 Z-0.125000
G01 X116.169557 Y219.721075 Z-0.125000
G01 X117.661225 Y220.063581 Z-0.125000
G01 X119.351197 Y220.392892 Z-0.125000
G01 X120.863104 Y220.628487 Z-0.125000
G01 X122.383102 Y220.802746 Z-0.125000
G01 X123.909231 Y220.906359 Z-0.125000
G01 X125.629444 Y220.924318 Z-0.125000
G01 X127.155426 Y220.835947 Z-0.125000
G01 X128.857660 Y220.596118 Z-0.125000
G01 X131.775231 Y219.706150 Z-0.125000
G01 X133.284190 Y218.882773 Z-0.125000
G01 X134.484667 Y217.933457 Z-0.125000
G01 X135.504815 Y216.787532 Z-0.125000
G01 X136.397493 Y215.304277 Z-0.125000
G01 X136.957018 Y213.863941 Z-0.125000
G01 X137.312972 Y212.355560 Z-0.125000
G01 X137.504135 Y210.618508 Z-0.125000
G01 X137.519185 Y209.061883 Z-0.125000
G01 X137.479994 Y208.283119 Z-0.125000
G01 X137.440996 Y207.503759 Z-0.125000
G01 X137.830504 Y202.680044 Z-0.125000
G01 X138.214920 Y200.984182 Z-0.125000
G01 X138.651059 Y199.504897 Z-0.125000
G01 X139.167044 Y198.055191 Z-0.125000
G01 X139.754161 Y196.636415 Z-0.125000
G01 X140.489637 Y195.077760 Z-0.125000
G01 X141.962427 Y192.402483 Z-0.125000
G01 X142.866856 Y190.946049 Z-0.125000
G01 X143.709096 Y189.678489 Z-0.125000
G01 X144.694258 Y188.280924 Z-0.125000
G01 X145.598752 Y187.061327 Z-0.125000
G01 X146.526968 Y185.861270 Z-0.125000
G01 X147.475940 Y184.678862 Z-0.125000
G01 X148.565313 Y183.367700 Z-0.125000
G01 X150.550156 Y181.079881 Z-0.125000
G01 X151.560027 Y179.951726 Z-0.125000
G01 X152.836692 Y178.554511 Z-0.125000
G01 X153.866802 Y177.444705 Z-0.125000
G01 X154.903572 Y176.340786 Z-0.125000
G01 X155.945654 Y175.241415 Z-0.125000
G01 X157.123112 Y174.008730 Z-0.125000
G01 X158.172521 Y172.914937 Z-0.125000
G01 X159.223546 Y171.821913 Z-0.125000
G01 X160.275158 Y170.728575 Z-0.125000
G01 X161.457811 Y169.496968 Z-0.125000
G01 X162.507017 Y168.399332 Z-0.125000
G01 X163.684308 Y167.160237 Z-0.125000
G01 X164.596057 Y166.192164 Z-0.125000
G01 X165.892849 Y164.802065 Z-0.125000
G01 X166.922846 Y163.682237 Z-0.125000
G01 X167.945429 Y162.554700 Z-0.125000
G01 X168.959432 Y161.418572 Z-0.125000
G01 X170.088776 Y160.129118 Z-0.125000
G01 X170.956923 Y159.116938 Z-0.125000
G01 X172.181641 Y157.656230 Z-0.125000
G01 X173.145294 Y156.473837 Z-0.125000
G01 X174.093507 Y155.278400 Z-0.125000
G01 X175.024779 Y154.069148 Z-0.125000
G01 X176.050575 Y152.691383 Z-0.125000
G01 X176.940515 Y151.450393 Z-0.125000
G01 X177.808334 Y150.193464 Z-0.125000
G01 X178.756181 Y148.759662 Z-0.125000
G01 X180.359753 Y146.157004 Z-0.125000
G01 X181.208564 Y144.661691 Z-0.125000
G01 X181.839734 Y143.482898 Z-0.125000
G01 X182.696191 Y141.774928 Z-0.125000
G01 X183.338978 Y140.388344 Z-0.125000
G01 X183.942081 Y138.984064 Z-0.125000
G01 X184.503242 Y137.562621 Z-0.125000
G01 X185.082041 Y135.943798 Z-0.125000
G01 X185.546951 Y134.488333 Z-0.125000
G01 X185.977357 Y133.022136 Z-0.125000
G01 X186.451907 Y131.369200 Z-0.125000
G01 X186.864855 Y129.896970 Z-0.125000
G01 X187.269252 Y128.421895 Z-0.125000
G01 X187.713711 Y126.758899 Z-0.125000
G01 X188.098362 Y125.277556 Z-0.125000
G01 X188.472881 Y123.793184 Z-0.125000
G01 X188.836699 Y122.305710 Z-0.125000
G01 X189.232713 Y120.628443 Z-0.125000
G01 X189.571588 Y119.134216 Z-0.125000
G01 X189.937684 Y117.449226 Z-0.125000
G01 X190.248168 Y115.948046 Z-0.125000
G01 X190.543904 Y114.443551 Z-0.125000
G01 X190.823860 Y112.935703 Z-0.125000
G01 X191.118867 Y111.235321 Z-0.125000
G01 X191.361448 Y109.720441 Z-0.125000
G01 X191.610992 Y108.012231 Z-0.125000
G01 X191.785881 Y106.681054 Z-0.125000
G01 X192.005841 Y104.774953 Z-0.125000
G01 X192.152786 Y103.247132 Z-0.125000
G01 X192.271866 Y101.716808 Z-0.125000
G01 X192.360446 Y100.184384 Z-0.125000
G01 X192.420135 Y98.458471 Z-0.125000
G01 X192.433308 Y96.923674 Z-0.125000
G01 X192.404963 Y95.389257 Z-0.125000
G01 X192.317813 Y93.665086 Z-0.125000
G01 X192.184648 Y92.136729 Z-0.125000
G01 X191.992579 Y90.615086 Z-0.125000
G01 X191.697012 Y88.915626 Z-0.125000
G01 X191.353539 Y87.421930 Z-0.125000
G01 X190.864084 Y85.769396 Z-0.125000
G01 X190.324936 Y84.336156 Z-0.125000
G01 X189.676411 Y82.949656 Z-0.125000
G01 X188.908111 Y81.626282 Z-0.125000
G01 X187.891536 Y80.237549 Z-0.125000
G01 X186.849568 Y79.116677 Z-0.125000
G01 X185.683043 Y78.124634 Z-0.125000
G01 X184.238775 Y77.182538 Z-0.125000
G01 X182.858828 Y76.509179 Z-0.125000
G01 X181.411469 Y75.989275 Z-0.125000
G01 X179.728397 Y75.577126 Z-0.125000
G01 X178.202032 Y75.350640 Z-0.125000
G01 X176.660910 Y75.240637 Z-0.125000
G01 X174.920967 Y75.238272 Z-0.125000
G01 X173.375329 Y75.330148 Z-0.125000
G01 X171.834825 Y75.498535 Z-0.125000
G01 X170.111375 Y75.767208 Z-0.125000
G01 X168.589209 Y76.067804 Z-0.125000
G01 X167.077253 Y76.419212 Z-0.125000
G01 X165.389195 Y76.867838 Z-0.125000
G01 X163.899925 Y77.308947 Z-0.125000
G01 X162.421169 Y77.785439 Z-0.125000
G01 X160.952793 Y78.293729 Z-0.125000
G01 X159.313124 Y78.899507 Z-0.125000
G01 X157.865727 Y79.465709 Z-0.125000
G01 X156.248754 Y80.130463 Z-0.125000
G01 X154.820785 Y80.744269 Z-0.125000
G01 X153.401422 Y81.377638 Z-0.125000
G01 X151.814666 Y82.111413 Z-0.125000
G01 X150.412449 Y82.781483 Z-0.125000
G01 X149.017766 Y83.466895 Z-0.125000
G01 X147.457695 Y84.254681 Z-0.125000
G01 X146.250109 Y84.879447 Z-0.125000
G01 X144.534565 Y85.787367 Z-0.125000
G01 X143.169160 Y86.527060 Z-0.125000
G01 X141.810026 Y87.277418 Z-0.125000
G01 X140.456976 Y88.037809 Z-0.125000
G01 X138.941990 Y88.904247 Z-0.125000
G01 X137.601211 Y89.684051 Z-0.125000
G01 X136.266012 Y90.472154 Z-0.125000
G01 X134.770529 Y91.367833 Z-0.125000
G01 X133.446697 Y92.172063 Z-0.125000
G01 X132.128057 Y92.983162 Z-0.125000
G01 X130.650849 Y93.903136 Z-0.125000
G01 X129.342980 Y94.727614 Z-0.125000
G01 X128.039991 Y95.557874 Z-0.125000
G01 X126.742026 Y96.393434 Z-0.125000
G01 X125.287691 Y97.339187 Z-0.125000
G01 X123.999991 Y98.185066 Z-0.125000
G01 X122.557252 Y99.141523 Z-0.125000
G01 X121.279896 Y99.996145 Z-0.125000
G01 X120.007446 Y100.854316 Z-0.125000
G01 X117.320764 Y102.685266 Z-0.125000
G01 X116.063904 Y103.552100 Z-0.125000
G01 X114.656052 Y104.529277 Z-0.125000
G01 X113.410091 Y105.399634 Z-0.125000
G01 X112.169370 Y106.270847 Z-0.125000
G01 X110.933903 Y107.142343 Z-0.125000
G01 X109.550233 Y108.122099 Z-0.125000
G01 X108.325863 Y108.992131 Z-0.125000
G01 X107.106625 Y109.860312 Z-0.125000
G01 X104.531621 Y111.692386 Z-0.125000
G01 X103.176358 Y112.655701 Z-0.125000
G01 X101.975608 Y113.506229 Z-0.125000
G01 X100.777744 Y114.350061 Z-0.125000
G01 X99.432343 Y115.289776 Z-0.125000
G01 X98.237299 Y116.115983 Z-0.125000
G01 X97.041625 Y116.932352 Z-0.125000
G01 X95.843812 Y117.737977 Z-0.125000
G01 X94.491383 Y118.630151 Z-0.125000
G01 X93.283099 Y119.410237 Z-0.125000
G01 X91.914035 Y120.271548 Z-0.125000
G01 X90.686394 Y121.022081 Z-0.125000
G01 X89.446297 Y121.756744 Z-0.125000
G01 X88.032977 Y122.561570 Z-0.125000
G01 X86.918447 Y123.169551 Z-0.125000
G01 X85.460603 Y123.921152 Z-0.125000
G01 X83.968970 Y124.627703 Z-0.125000
G01 X82.606285 Y125.199051 Z-0.125000
G01 X81.195477 Y125.679405 Z-0.125000
G01 X76.608383 Y124.989958 Z-0.125000
G01 X75.081689 Y124.128293 Z-0.125000
G01 X73.802294 Y123.241006 Z-0.125000
G01 X72.608163 Y122.245425 Z-0.125000
G01 X71.376020 Y121.008720 Z-0.125000
G01 X70.383373 Y119.820498 Z-0.125000
G01 X69.485212 Y118.563065 Z-0.125000
G01 X68.580620 Y117.082009 Z-0.125000
G01 X67.777687 Y115.546532 Z-0.125000
G01 X67.215762 Y114.323542 Z-0.125000
G01 X66.561795 Y112.722053 Z-0.125000
G01 X66.036615 Y111.277816 Z-0.125000
G01 X65.555285 Y109.818683 Z-0.125000
G01 X65.056352 Y108.163338 Z-0.125000
G01 X64.643198 Y106.682904 Z-0.125000
G01 X64.251536 Y105.196083 Z-0.125000
G01 X63.828673 Y103.517509 Z-0.125000
G01 X63.462566 Y102.022173 Z-0.125000
G01 X63.099676 Y100.525158 Z-0.125000
G01 X62.688179 Y98.839952 Z-0.125000
G01 X62.313940 Y97.342798 Z-0.125000
G01 X61.875938 Y95.661030 Z-0.125000
G01 X61.465616 Y94.170316 Z-0.125000
G01 X61.085741 Y92.870987 Z-0.125000
G01 X60.499733 Y91.024760 Z-0.125000
G01 X59.987889 Y89.561028 Z-0.125000
G01 X59.430143 Y88.112405 Z-0.125000
G01 X58.819708 Y86.683582 Z-0.125000
G01 X58.061184 Y85.106793 Z-0.125000
G01 X57.316088 Y83.740362 Z-0.125000
G01 X56.497780 Y82.415321 Z-0.125000
G01 X55.483437 Y80.985475 Z-0.125000
G01 X54.495472 Y79.780185 Z-0.125000
G01 X53.425601 Y78.647330 Z-0.125000
G01 X52.126474 Y77.470812 Z-0.125000
G01 X50.893004 Y76.521257 Z-0.125000
G01 X49.592905 Y75.667505 Z-0.125000
G01 X48.061715 Y74.824060 Z-0.125000
G01 X46.650481 Y74.178033 Z-0.125000
G01 X45.201566 Y73.626120 Z-0.125000
G01 X43.536934 Y73.110629 Z-0.125000
G01 X42.031133 Y72.756000 Z-0.125000
G01 X40.313401 Y72.491292 Z-0.125000
G01 X38.774629 Y72.392002 Z-0.125000
G01 X37.427980 Y72.421764 Z-0.125000
G01 X35.523384 Y72.668000 Z-0.125000
G01 X34.037539 Y73.046227 Z-0.125000
G01 X32.604835 Y73.585066 Z-0.125000
G01 X31.241814 Y74.276895 Z-0.125000
G01 X29.806798 Y75.220989 Z-0.125000
G01 X28.627190 Y76.189072 Z-0.125000
G01 X27.540225 Y77.259536 Z-0.125000
G01 X26.544540 Y78.415319 Z-0.125000
G01 X25.528701 Y79.798616 Z-0.125000
G01 X23.972164 Y82.422467 Z-0.125000
G01 X23.304145 Y83.795377 Z-0.125000
G01 X22.560669 Y85.553373 Z-0.125000
G01 X22.034326 Y86.987392 Z-0.125000
G01 X21.564041 Y88.441117 Z-0.125000
G01 X21.146272 Y89.911059 Z-0.125000
G01 X20.778072 Y91.394355 Z-0.125000
G01 X20.452651 Y92.887924 Z-0.125000
G01 X20.093382 Y94.764254 Z-0.125000
G01 X19.844836 Y96.272440 Z-0.125000
G01 X19.630628 Y97.785869 Z-0.125000
G01 X19.450844 Y99.303697 Z-0.125000
G01 X19.289391 Y101.015563 Z-0.125000
G01 X19.182695 Y102.540368 Z-0.125000
G01 X19.110228 Y104.067162 Z-0.125000
G01 X19.071849 Y105.595106 Z-0.125000
G01 X19.068840 Y107.314404 Z-0.125000
G01 X19.108216 Y109.033181 Z-0.125000
G01 X19.168421 Y110.369213 Z-0.125000
G01 X19.281978 Y112.084612 Z-0.125000
G01 X19.417476 Y113.606718 Z-0.125000
G01 X19.607663 Y115.315134 Z-0.125000
G01 X19.810174 Y116.829612 Z-0.125000
G01 X20.043395 Y118.339573 Z-0.125000
G01 X20.306708 Y119.844510 Z-0.125000
G01 X20.637888 Y121.530658 Z-0.125000
G01 X20.963145 Y123.022998 Z-0.125000
G01 X21.362433 Y124.693869 Z-0.125000
G01 X21.746853 Y126.171743 Z-0.125000
G01 X22.158064 Y127.642073 Z-0.125000
G01 X22.651568 Y129.286803 Z-0.125000
G01 X23.117601 Y130.740209 Z-0.125000
G01 X23.608347 Y132.185118 Z-0.125000
G01 X24.188906 Y133.800044 Z-0.125000
G01 X24.730105 Y135.226027 Z-0.125000
G01 X25.294022 Y136.642775 Z-0.125000
G01 X25.954501 Y138.225291 Z-0.125000
G01 X26.564718 Y139.621945 Z-0.125000
G01 X27.275673 Y141.181442 Z-0.125000
G01 X27.929428 Y142.557323 Z-0.125000
G01 X28.602675 Y143.923156 Z-0.125000
G01 X29.294934 Y145.278890 Z-0.125000
G01 X30.095444 Y146.792063 Z-0.125000
G01 X30.826280 Y148.126299 Z-0.125000
G01 X31.574355 Y149.450117 Z-0.125000
G01 X32.435657 Y150.927145 Z-0.125000
G01 X33.218898 Y152.229171 Z-0.125000
G01 X34.017918 Y153.520866 Z-0.125000
G01 X34.934657 Y154.961577 Z-0.125000
G01 X35.765613 Y156.231270 Z-0.125000
G01 X36.610893 Y157.490585 Z-0.125000
G01 X37.578197 Y158.895128 Z-0.125000
G01 X38.452547 Y160.132489 Z-0.125000
G01 X39.340137 Y161.359801 Z-0.125000
G01 X40.353533 Y162.728356 Z-0.125000
G01 X41.382561 Y164.084194 Z-0.125000
G01 X42.193778 Y165.129481 Z-0.125000
G01 X43.249385 Y166.462664 Z-0.125000
G01 X44.200026 Y167.637060 Z-0.125000
G01 X45.161603 Y168.801469 Z-0.125000
G01 X46.255764 Y170.099694 Z-0.125000
G01 X47.239856 Y171.243324 Z-0.125000
G01 X48.358600 Y172.518255 Z-0.125000
G01 X49.363836 Y173.641186 Z-0.125000
G01 X50.378655 Y174.754490 Z-0.125000
G01 X51.402965 Y175.858342 Z-0.125000
G01 X52.566028 Y177.089045 Z-0.125000
G01 X53.609649 Y178.172874 Z-0.125000
G01 X54.662126 Y179.247454 Z-0.125000
G01 X58.001737 Y182.549305 Z-0.125000
G01 X59.225179 Y183.715133 Z-0.125000
G01 X60.321461 Y184.741602 Z-0.125000
G01 X61.564087 Y185.885836 Z-0.125000
G01 X62.677193 Y186.893140 Z-0.125000
G01 X63.798137 Y187.891484 Z-0.125000
G01 X64.926810 Y188.880862 Z-0.125000
G01 X66.205376 Y189.983284 Z-0.125000
G01 X67.350233 Y190.953533 Z-0.125000
G01 X68.502685 Y191.914775 Z-0.125000
G01 X69.808023 Y192.985611 Z-0.125000
G01 X70.976553 Y193.927624 Z-0.125000
G01 X72.299896 Y194.976655 Z-0.125000
G01 X73.484324 Y195.899036 Z-0.125000
G01 X74.676393 Y196.812175 Z-0.125000
G01 X75.875886 Y197.715768 Z-0.125000
G01 X77.083030 Y198.609864 Z-0.125000
G01 X78.449919 Y199.604333 Z-0.125000
G01 X79.673190 Y200.477544 Z-0.125000
G01 X81.058383 Y201.448133 Z-0.125000
G01 X82.298067 Y202.299721 Z-0.125000
G01 X83.545516 Y203.140736 Z-0.125000
G01 X84.958180 Y204.074288 Z-0.125000
G01 X87.493694 Y205.700740 Z-0.125000
G01 X88.934543 Y206.594094 Z-0.125000
G01 X90.223998 Y207.374908 Z-0.125000
G01 X91.521738 Y208.143124 Z-0.125000
G01 X92.991654 Y208.992026 Z-0.125000
G01 X94.307221 Y209.731808 Z-0.125000
G01 X95.631354 Y210.457302 Z-0.125000
G01 X97.131298 Y211.255976 Z-0.125000
G01 X98.474015 Y211.949044 Z-0.125000
G01 X99.825794 Y212.625733 Z-0.125000
G01 X101.357296 Y213.366558 Z-0.125000
G01 X102.728558 Y214.005314 Z-0.125000
G01 X104.109287 Y214.624594 Z-0.125000
G01 X105.673986 Y215.296752 Z-0.125000
G01 X107.075204 Y215.870277 Z-0.125000
G01 X108.486371 Y216.419911 Z-0.125000
G01 X110.086021 Y217.007708 Z-0.125000
G01 X111.339073 Y217.439791 Z-0.125000
G01 X112.961880 Y217.961744 Z-0.125000
G01 X114.597933 Y218.441205 Z-0.125000
G01 X116.063159 Y218.827430 Z-0.125000
G01 X117.538689 Y219.172011 Z-0.125000
G01 X119.210588 Y219.503997 Z-0.125000
G01 X120.706478 Y219.742255 Z-0.125000
G01 X122.210496 Y219.919491 Z-0.125000
G01 X123.720657 Y220.026381 Z-0.125000
G01 X125.422898 Y220.048384 Z-0.125000
G01 X126.932888 Y219.963949 Z-0.125000
G01 X128.617106 Y219.728917 Z-0.125000
G01 X131.502771 Y218.848435 Z-0.125000
G01 X132.994171 Y218.030842 Z-0.125000
G01 X134.179641 Y217.086772 Z-0.125000
G01 X135.185726 Y215.946055 Z-0.125000
G01 X136.064114 Y214.468349 Z-0.125000
G01 X136.612490 Y213.032561 Z-0.125000
G01 X136.958743 Y211.528255 Z-0.125000
G01 X137.140569 Y209.795261 Z-0.125000
G01 X137.148537 Y208.241811 Z-0.125000
G01 X137.106184 Y207.464479 Z-0.125000
G01 X137.063959 Y206.686593 Z-0.125000
G01 X137.425543 Y201.876363 Z-0.125000
G01 X137.796859 Y200.187234 Z-0.125000
G01 X138.220189 Y198.714800 Z-0.125000
G01 X138.722400 Y197.272763 Z-0.125000
G01 X139.294913 Y195.862466 Z-0.125000
G01 X140.013132 Y194.314320 Z-0.125000
G01 X141.453624 Y191.660177 Z-0.125000
G01 X142.339278 Y190.216967 Z-0.125000
G01 X143.164622 Y188.961938 Z-0.125000
G01 X144.130674 Y187.579304 Z-0.125000
G01 X145.018198 Y186.373685 Z-0.125000
G01 X145.929543 Y185.188237 Z-0.125000
G01 X146.861821 Y184.021025 Z-0.125000
G01 X147.932716 Y182.727612 Z-0.125000
G01 X149.885756 Y180.472872 Z-0.125000
G01 X150.880332 Y179.361892 Z-0.125000
G01 X152.138534 Y177.986654 Z-0.125000
G01 X153.154435 Y176.894777 Z-0.125000
G01 X154.177529 Y175.809048 Z-0.125000
G01 X155.206483 Y174.728082 Z-0.125000
G01 X156.369850 Y173.516309 Z-0.125000
G01 X157.407345 Y172.441241 Z-0.125000
G01 X158.447036 Y171.367035 Z-0.125000
G01 X159.487897 Y170.292568 Z-0.125000
G01 X160.659148 Y169.082218 Z-0.125000
G01 X161.698827 Y168.003471 Z-0.125000
G01 X162.866073 Y166.785577 Z-0.125000
G01 X163.770493 Y165.833944 Z-0.125000
G01 X165.057532 Y164.467221 Z-0.125000
G01 X166.080315 Y163.365983 Z-0.125000
G01 X167.096191 Y162.256924 Z-0.125000
G01 X168.103980 Y161.139149 Z-0.125000
G01 X169.226902 Y159.870184 Z-0.125000
G01 X170.090456 Y158.873820 Z-0.125000
G01 X171.309196 Y157.435515 Z-0.125000
G01 X172.268547 Y156.270884 Z-0.125000
G01 X173.212869 Y155.093065 Z-0.125000
G01 X174.140643 Y153.901290 Z-0.125000
G01 X175.162959 Y152.543023 Z-0.125000
G01 X176.050197 Y151.319225 Z-0.125000
G01 X176.915668 Y150.079360 Z-0.125000
G01 X177.861284 Y148.664615 Z-0.125000
G01 X179.461929 Y146.095496 Z-0.125000
G01 X180.309656 Y144.618878 Z-0.125000
G01 X180.940252 Y143.454552 Z-0.125000
G01 X181.796297 Y141.767142 Z-0.125000
G01 X182.439090 Y140.396928 Z-0.125000
G01 X183.042498 Y139.008958 Z-0.125000
G01 X183.604255 Y137.603765 Z-0.125000
G01 X184.184075 Y136.003163 Z-0.125000
G01 X184.650197 Y134.563845 Z-0.125000
G01 X185.082099 Y133.113692 Z-0.125000
G01 X185.558649 Y131.478547 Z-0.125000
G01 X185.973641 Y130.021895 Z-0.125000
G01 X186.380325 Y128.562170 Z-0.125000
G01 X186.827633 Y126.916169 Z-0.125000
G01 X187.215051 Y125.449691 Z-0.125000
G01 X187.592548 Y123.979954 Z-0.125000
G01 X187.959546 Y122.506886 Z-0.125000
G01 X188.359368 Y120.845555 Z-0.125000
G01 X188.701825 Y119.365257 Z-0.125000
G01 X189.072160 Y117.695672 Z-0.125000
G01 X189.386591 Y116.207957 Z-0.125000
G01 X189.686437 Y114.716716 Z-0.125000
G01 X189.970660 Y113.221916 Z-0.125000
G01 X190.270648 Y111.535975 Z-0.125000
G01 X190.517813 Y110.033727 Z-0.125000
G01 X190.772685 Y108.339509 Z-0.125000
G01 X190.951842 Y107.019060 Z-0.125000
G01 X191.178085 Y105.128068 Z-0.125000
G01 X191.330213 Y103.612157 Z-0.125000
G01 X191.454617 Y102.093602 Z-0.125000
G01 X191.548662 Y100.572811 Z-0.125000
G01 X191.614672 Y98.859843 Z-0.125000
G01 X191.633624 Y97.336439 Z-0.125000
G01 X191.611214 Y95.813325 Z-0.125000
G01 X191.530938 Y94.101776 Z-0.125000
G01 X191.404068 Y92.584576 Z-0.125000
G01 X191.218480 Y91.074045 Z-0.125000
G01 X190.930441 Y89.387051 Z-0.125000
G01 X190.593885 Y87.904421 Z-0.125000
G01 X190.112479 Y86.264332 Z-0.125000
G01 X189.580732 Y84.842154 Z-0.125000
G01 X188.939843 Y83.466705 Z-0.125000
G01 X188.179401 Y82.154349 Z-0.125000
G01 X187.171894 Y80.777910 Z-0.125000
G01 X186.138131 Y79.667794 Z-0.125000
G01 X184.979866 Y78.686254 Z-0.125000
G01 X183.544851 Y77.755551 Z-0.125000
G01 X182.172998 Y77.091855 Z-0.125000
G01 X180.733546 Y76.581132 Z-0.125000
G01 X179.059101 Y76.178723 Z-0.125000
G01 X177.540154 Y75.960389 Z-0.125000
G01 X176.006223 Y75.858101 Z-0.125000
G01 X174.274122 Y75.863946 Z-0.125000
G01 X172.735264 Y75.962757 Z-0.125000
G01 X171.201389 Y76.137782 Z-0.125000
G01 X169.485253 Y76.413626 Z-0.125000
G01 X167.969489 Y76.720362 Z-0.125000
G01 X166.463866 Y77.077728 Z-0.125000
G01 X164.782884 Y77.532872 Z-0.125000
G01 X163.299880 Y77.979641 Z-0.125000
G01 X161.827391 Y78.461689 Z-0.125000
G01 X160.365304 Y78.975448 Z-0.125000
G01 X158.732753 Y79.587298 Z-0.125000
G01 X157.291748 Y80.158843 Z-0.125000
G01 X155.682058 Y80.829566 Z-0.125000
G01 X154.260664 Y81.448650 Z-0.125000
G01 X152.847990 Y82.087286 Z-0.125000
G01 X151.268916 Y82.826987 Z-0.125000
G01 X149.873687 Y83.502331 Z-0.125000
G01 X148.486161 Y84.193039 Z-0.125000
G01 X146.934366 Y84.986812 Z-0.125000
G01 X145.733398 Y85.616266 Z-0.125000
G01 X144.027618 Y86.530936 Z-0.125000
G01 X142.670307 Y87.276085 Z-0.125000
G01 X141.319546 Y88.031953 Z-0.125000
G01 X139.975174 Y88.797913 Z-0.125000
G01 X138.470340 Y89.670695 Z-0.125000
G01 X137.138972 Y90.456209 Z-0.125000
G01 X135.813574 Y91.250095 Z-0.125000
G01 X134.329621 Y92.152367 Z-0.125000
G01 X133.016530 Y92.962539 Z-0.125000
G01 X131.709133 Y93.779654 Z-0.125000
G01 X130.245220 Y94.706480 Z-0.125000
G01 X128.949794 Y95.537122 Z-0.125000
G01 X127.659890 Y96.373608 Z-0.125000
G01 X126.375698 Y97.215446 Z-0.125000
G01 X124.937755 Y98.168310 Z-0.125000
G01 X123.665487 Y99.020535 Z-0.125000
G01 X122.241161 Y99.984132 Z-0.125000
G01 X120.981185 Y100.845071 Z-0.125000
G01 X119.727145 Y101.709498 Z-0.125000
G01 X117.083365 Y103.553338 Z-0.125000
G01 X115.848650 Y104.425928 Z-0.125000
G01 X114.467359 Y105.409224 Z-0.125000
G01 X113.246565 Y106.284605 Z-0.125000
G01 X112.032569 Y107.160341 Z-0.125000
G01 X110.825461 Y108.035739 Z-0.125000
G01 X109.475747 Y109.018965 Z-0.125000
G01 X108.283439 Y109.891087 Z-0.125000
G01 X107.098077 Y110.760228 Z-0.125000
G01 X104.601084 Y112.589661 Z-0.125000
G01 X103.290311 Y113.548417 Z-0.125000
G01 X102.130800 Y114.392711 Z-0.125000
G01 X100.975573 Y115.228012 Z-0.125000
G01 X99.679503 Y116.155136 Z-0.125000
G01 X98.529177 Y116.967305 Z-0.125000
G01 X97.378639 Y117.766836 Z-0.125000
G01 X96.225958 Y118.552783 Z-0.125000
G01 X94.923731 Y119.419471 Z-0.125000
G01 X93.759035 Y120.174066 Z-0.125000
G01 X92.437241 Y121.003811 Z-0.125000
G01 X91.249578 Y121.724064 Z-0.125000
G01 X90.047151 Y122.426768 Z-0.125000
G01 X88.673085 Y123.194201 Z-0.125000
G01 X87.586608 Y123.772482 Z-0.125000
G01 X86.161469 Y124.485734 Z-0.125000
G01 X84.698640 Y125.154531 Z-0.125000
G01 X83.358196 Y125.693619 Z-0.125000
G01 X81.966264 Y126.144009 Z-0.125000
G01 X77.402252 Y125.413916 Z-0.125000
G01 X75.875077 Y124.553153 Z-0.125000
G01 X74.593655 Y123.669629 Z-0.125000
G01 X73.396135 Y122.680246 Z-0.125000
G01 X72.158734 Y121.452938 Z-0.125000
G01 X71.160300 Y120.274759 Z-0.125000
G01 X70.255474 Y119.028540 Z-0.125000
G01 X69.342517 Y117.561051 Z-0.125000
G01 X68.530494 Y116.039736 Z-0.125000
G01 X67.961108 Y114.827949 Z-0.125000
G01 X67.297170 Y113.240887 Z-0.125000
G01 X66.762871 Y111.809340 Z-0.125000
G01 X66.272264 Y110.362654 Z-0.125000
G01 X65.762798 Y108.720920 Z-0.125000
G01 X65.340267 Y107.252165 Z-0.125000
G01 X64.939276 Y105.776582 Z-0.125000
G01 X64.506038 Y104.110080 Z-0.125000
G01 X64.130876 Y102.624937 Z-0.125000
G01 X63.759139 Y101.137589 Z-0.125000
G01 X63.337991 Y99.462612 Z-0.125000
G01 X62.955497 Y97.973962 Z-0.125000
G01 X62.508626 Y96.301081 Z-0.125000
G01 X62.090847 Y94.817654 Z-0.125000
G01 X61.704815 Y93.524216 Z-0.125000
G01 X61.110673 Y91.685604 Z-0.125000
G01 X60.592942 Y90.227263 Z-0.125000
G01 X60.029921 Y88.783394 Z-0.125000
G01 X59.414875 Y87.358662 Z-0.125000
G01 X58.652032 Y85.785657 Z-0.125000
G01 X57.903929 Y84.421831 Z-0.125000
G01 X57.083451 Y83.098655 Z-0.125000
G01 X56.067722 Y81.669996 Z-0.125000
G01 X55.079493 Y80.464930 Z-0.125000
G01 X54.010279 Y79.331514 Z-0.125000
G01 X52.712972 Y78.153438 Z-0.125000
G01 X51.482029 Y77.201704 Z-0.125000
G01 X50.185243 Y76.345070 Z-0.125000
G01 X48.658612 Y75.497613 Z-0.125000
G01 X47.252060 Y74.847405 Z-0.125000
G01 X45.808321 Y74.290806 Z-0.125000
G01 X44.149970 Y73.769526 Z-0.125000
G01 X42.650168 Y73.409266 Z-0.125000
G01 X40.939677 Y73.137619 Z-0.125000
G01 X39.407788 Y73.031584 Z-0.125000
G01 X38.067516 Y73.054972 Z-0.125000
G01 X36.172567 Y73.291327 Z-0.125000
G01 X34.694801 Y73.661021 Z-0.125000
G01 X33.270441 Y74.190814 Z-0.125000
G01 X31.915932 Y74.873156 Z-0.125000
G01 X30.490583 Y75.806141 Z-0.125000
G01 X29.319553 Y76.764051 Z-0.125000
G01 X28.241070 Y77.824130 Z-0.125000
G01 X27.253776 Y78.969355 Z-0.125000
G01 X26.247175 Y80.340624 Z-0.125000
G01 X24.706502 Y82.942778 Z-0.125000
G01 X24.046134 Y84.304711 Z-0.125000
G01 X23.311956 Y86.048873 Z-0.125000
G01 X22.792868 Y87.471728 Z-0.125000
G01 X22.329642 Y88.914212 Z-0.125000
G01 X21.918765 Y90.372823 Z-0.125000
G01 X21.557275 Y91.844704 Z-0.125000
G01 X21.238395 Y93.326756 Z-0.125000
G01 X20.887083 Y95.188523 Z-0.125000
G01 X20.644729 Y96.684924 Z-0.125000
G01 X20.436555 Y98.186445 Z-0.125000
G01 X20.262619 Y99.692257 Z-0.125000
G01 X20.107572 Y101.390458 Z-0.125000
G01 X20.006392 Y102.902997 Z-0.125000
G01 X19.939270 Y104.417409 Z-0.125000
G01 X19.906064 Y105.932853 Z-0.125000
G01 X19.908656 Y107.637956 Z-0.125000
G01 X19.953411 Y109.342392 Z-0.125000
G01 X20.017660 Y110.667164 Z-0.125000
G01 X20.136187 Y112.367963 Z-0.125000
G01 X20.275934 Y113.876962 Z-0.125000
G01 X20.470662 Y115.570496 Z-0.125000
G01 X20.677014 Y117.071616 Z-0.125000
G01 X20.913874 Y118.568103 Z-0.125000
G01 X21.180668 Y120.059439 Z-0.125000
G01 X21.515504 Y121.730142 Z-0.125000
G01 X21.843802 Y123.208621 Z-0.125000
G01 X22.246255 Y124.863751 Z-0.125000
G01 X22.633274 Y126.327495 Z-0.125000
G01 X23.046881 Y127.783564 Z-0.125000
G01 X23.542803 Y129.412097 Z-0.125000
G01 X24.010758 Y130.850964 Z-0.125000
G01 X24.503206 Y132.281196 Z-0.125000
G01 X25.085403 Y133.879451 Z-0.125000
G01 X25.627799 Y135.290470 Z-0.125000
G01 X26.192675 Y136.692114 Z-0.125000
G01 X26.853935 Y138.257473 Z-0.125000
G01 X27.464560 Y139.638729 Z-0.125000
G01 X28.175675 Y141.180732 Z-0.125000
G01 X28.829285 Y142.540909 Z-0.125000
G01 X29.502105 Y143.890902 Z-0.125000
G01 X30.193638 Y145.230658 Z-0.125000
G01 X30.992982 Y146.725688 Z-0.125000
G01 X31.722481 Y148.043649 Z-0.125000
G01 X32.468892 Y149.351061 Z-0.125000
G01 X33.327928 Y150.809474 Z-0.125000
G01 X34.108820 Y152.094818 Z-0.125000
G01 X34.905135 Y153.369707 Z-0.125000
G01 X35.818410 Y154.791375 Z-0.125000
G01 X36.645920 Y156.044016 Z-0.125000
G01 X37.487387 Y157.286176 Z-0.125000
G01 X38.449931 Y158.671302 Z-0.125000
G01 X39.319629 Y159.891314 Z-0.125000
G01 X40.202186 Y161.101194 Z-0.125000
G01 X41.209422 Y162.450054 Z-0.125000
G01 X42.231776 Y163.786124 Z-0.125000
G01 X43.037407 Y164.816004 Z-0.125000
G01 X44.085366 Y166.129333 Z-0.125000
G01 X45.028760 Y167.286062 Z-0.125000
G01 X45.982619 Y168.432806 Z-0.125000
G01 X47.067580 Y169.711175 Z-0.125000
G01 X48.043004 Y170.837185 Z-0.125000
G01 X49.151455 Y172.092357 Z-0.125000
G01 X50.147039 Y173.197800 Z-0.125000
G01 X51.151751 Y174.293705 Z-0.125000
G01 X52.165486 Y175.380267 Z-0.125000
G01 X53.316098 Y176.591673 Z-0.125000
G01 X54.348174 Y177.658509 Z-0.125000
G01 X55.388634 Y178.716268 Z-0.125000
G01 X58.687878 Y181.966898 Z-0.125000
G01 X59.895758 Y183.114877 Z-0.125000
G01 X60.977769 Y184.125775 Z-0.125000
G01 X62.203864 Y185.252855 Z-0.125000
G01 X63.301871 Y186.245253 Z-0.125000
G01 X64.407346 Y187.229032 Z-0.125000
G01 X65.520202 Y188.204208 Z-0.125000
G01 X66.780578 Y189.291100 Z-0.125000
G01 X67.908934 Y190.247965 Z-0.125000
G01 X69.044595 Y191.196229 Z-0.125000
G01 X70.330717 Y192.252971 Z-0.125000
G01 X71.481901 Y193.182915 Z-0.125000
G01 X72.785462 Y194.218899 Z-0.125000
G01 X73.952093 Y195.130167 Z-0.125000
G01 X75.126182 Y196.032653 Z-0.125000
G01 X76.307541 Y196.926061 Z-0.125000
G01 X77.496414 Y197.810442 Z-0.125000
G01 X78.842615 Y198.794548 Z-0.125000
G01 X80.047402 Y199.659055 Z-0.125000
G01 X81.411719 Y200.620420 Z-0.125000
G01 X82.632798 Y201.464312 Z-0.125000
G01 X83.861615 Y202.298102 Z-0.125000
G01 X85.253312 Y203.224081 Z-0.125000
G01 X87.751608 Y204.838511 Z-0.125000
G01 X89.171594 Y205.725901 Z-0.125000
G01 X90.442570 Y206.501883 Z-0.125000
G01 X91.721906 Y207.265696 Z-0.125000
G01 X93.171222 Y208.110157 Z-0.125000
G01 X94.468581 Y208.846415 Z-0.125000
G01 X95.774622 Y209.568808 Z-0.125000
G01 X97.254351 Y210.364466 Z-0.125000
G01 X98.579234 Y211.055256 Z-0.125000
G01 X99.913307 Y211.730041 Z-0.125000
G01 X101.425052 Y212.469141 Z-0.125000
G01 X102.778901 Y213.106749 Z-0.125000
G01 X104.142358 Y213.725239 Z-0.125000
G01 X105.687797 Y214.396896 Z-0.125000
G01 X107.072041 Y214.970325 Z-0.125000
G01 X108.466370 Y215.520174 Z-0.125000
G01 X110.047235 Y216.108577 Z-0.125000
G01 X111.285790 Y216.541408 Z-0.125000
G01 X112.890090 Y217.064650 Z-0.125000
G01 X114.507773 Y217.545772 Z-0.125000
G01 X115.956778 Y217.933782 Z-0.125000
G01 X117.416167 Y218.280423 Z-0.125000
G01 X119.069992 Y218.615085 Z-0.125000
G01 X120.549872 Y218.856035 Z-0.125000
G01 X122.037910 Y219.036247 Z-0.125000
G01 X123.532103 Y219.146416 Z-0.125000
G01 X125.216372 Y219.172462 Z-0.125000
G01 X126.710364 Y219.091934 Z-0.125000
G01 X128.376565 Y218.861698 Z-0.125000
G01 X131.230328 Y217.990719 Z-0.125000
G01 X132.704164 Y217.178895 Z-0.125000
G01 X133.874630 Y216.240084 Z-0.125000
G01 X134.866651 Y215.104560 Z-0.125000
G01 X135.730753 Y213.632419 Z-0.125000
G01 X136.267976 Y212.201164 Z-0.125000
G01 X136.604529 Y210.700947 Z-0.125000
G01 X136.777021 Y208.972026 Z-0.125000
G01 X136.777904 Y207.421722 Z-0.125000
G01 X136.732389 Y206.645837 Z-0.125000
G01 X136.686941 Y205.869440 Z-0.125000
G01 X137.020596 Y201.072663 Z-0.125000
G01 X137.378813 Y199.390283 Z-0.125000
G01 X137.789335 Y197.924701 Z-0.125000
G01 X138.277774 Y196.490332 Z-0.125000
G01 X138.835680 Y195.088513 Z-0.125000
G01 X139.536644 Y193.550887 Z-0.125000
G01 X140.944838 Y190.917873 Z-0.125000
G01 X141.811717 Y189.487891 Z-0.125000
G01 X142.620166 Y188.245391 Z-0.125000
G01 X143.567110 Y186.877688 Z-0.125000
G01 X144.437660 Y185.686047 Z-0.125000
G01 X145.332134 Y184.515205 Z-0.125000
G01 X146.247720 Y183.363190 Z-0.125000
G01 X147.300137 Y182.087528 Z-0.125000
G01 X149.221373 Y179.865865 Z-0.125000
G01 X150.200655 Y178.772063 Z-0.125000
G01 X151.440392 Y177.418800 Z-0.125000
G01 X152.442087 Y176.344852 Z-0.125000
G01 X153.451502 Y175.277311 Z-0.125000
G01 X154.467330 Y174.214751 Z-0.125000
G01 X155.616604 Y173.023891 Z-0.125000
G01 X156.642186 Y171.967549 Z-0.125000
G01 X157.670545 Y170.912159 Z-0.125000
G01 X158.700654 Y169.856565 Z-0.125000
G01 X159.860501 Y168.667472 Z-0.125000
G01 X160.890654 Y167.607610 Z-0.125000
G01 X162.047855 Y166.410919 Z-0.125000
G01 X162.944947 Y165.475725 Z-0.125000
G01 X164.222231 Y164.132379 Z-0.125000
G01 X165.237801 Y163.049732 Z-0.125000
G01 X166.246970 Y161.959150 Z-0.125000
G01 X167.248546 Y160.859729 Z-0.125000
G01 X168.365044 Y159.611253 Z-0.125000
G01 X169.224004 Y158.630703 Z-0.125000
G01 X170.436769 Y157.214803 Z-0.125000
G01 X171.391819 Y156.067934 Z-0.125000
G01 X172.332247 Y154.907733 Z-0.125000
G01 X173.256524 Y153.733436 Z-0.125000
G01 X174.275360 Y152.394667 Z-0.125000
G01 X175.159895 Y151.188060 Z-0.125000
G01 X176.023020 Y149.965260 Z-0.125000
G01 X176.966407 Y148.569572 Z-0.125000
G01 X178.564123 Y146.033992 Z-0.125000
G01 X179.410763 Y144.576068 Z-0.125000
G01 X180.040788 Y143.426207 Z-0.125000
G01 X180.896419 Y141.759360 Z-0.125000
G01 X181.539222 Y140.405516 Z-0.125000
G01 X182.142932 Y139.033853 Z-0.125000
G01 X182.705286 Y137.644913 Z-0.125000
G01 X183.286124 Y136.062531 Z-0.125000
G01 X183.753459 Y134.639360 Z-0.125000
G01 X184.186859 Y133.205251 Z-0.125000
G01 X184.665405 Y131.587898 Z-0.125000
G01 X185.082445 Y130.146822 Z-0.125000
G01 X185.491415 Y128.702448 Z-0.125000
G01 X185.941571 Y127.073444 Z-0.125000
G01 X186.331757 Y125.621828 Z-0.125000
G01 X186.712232 Y124.166726 Z-0.125000
G01 X187.082410 Y122.708065 Z-0.125000
G01 X187.486040 Y121.062671 Z-0.125000
G01 X187.832077 Y119.596301 Z-0.125000
G01 X188.206652 Y117.942122 Z-0.125000
G01 X188.525030 Y116.467870 Z-0.125000
G01 X188.828986 Y114.989883 Z-0.125000
G01 X189.117475 Y113.508132 Z-0.125000
G01 X189.422444 Y111.836632 Z-0.125000
G01 X189.674193 Y110.347017 Z-0.125000
G01 X189.934394 Y108.666790 Z-0.125000
G01 X190.117820 Y107.357071 Z-0.125000
G01 X190.350346 Y105.481187 Z-0.125000
G01 X190.507657 Y103.977186 Z-0.125000
G01 X190.637383 Y102.470398 Z-0.125000
G01 X190.736893 Y100.961242 Z-0.125000
G01 X190.809225 Y99.261219 Z-0.125000
G01 X190.833956 Y97.749209 Z-0.125000
G01 X190.817481 Y96.237396 Z-0.125000
G01 X190.744079 Y94.538471 Z-0.125000
G01 X190.623505 Y93.032426 Z-0.125000
G01 X190.444397 Y91.533005 Z-0.125000
G01 X190.163887 Y89.858479 Z-0.125000
G01 X189.834248 Y88.386917 Z-0.125000
G01 X189.360890 Y86.759272 Z-0.125000
G01 X188.836545 Y85.348155 Z-0.125000
G01 X188.203291 Y83.983759 Z-0.125000
G01 X187.450708 Y82.682421 Z-0.125000
G01 X186.452268 Y81.318273 Z-0.125000
G01 X185.426710 Y80.218916 Z-0.125000
G01 X184.276706 Y79.247877 Z-0.125000
G01 X182.850941 Y78.328567 Z-0.125000
G01 X181.487184 Y77.674535 Z-0.125000
G01 X180.055639 Y77.172993 Z-0.125000
G01 X178.389821 Y76.780324 Z-0.125000
G01 X176.878293 Y76.570141 Z-0.125000
G01 X175.351551 Y76.475567 Z-0.125000
G01 X173.627293 Y76.489623 Z-0.125000
G01 X172.095213 Y76.595369 Z-0.125000
G01 X170.567969 Y76.777032 Z-0.125000
G01 X168.859147 Y77.060037 Z-0.125000
G01 X167.349784 Y77.372913 Z-0.125000
G01 X165.850494 Y77.736236 Z-0.125000
G01 X164.176586 Y78.197900 Z-0.125000
G01 X162.699849 Y78.650328 Z-0.125000
G01 X161.233626 Y79.137931 Z-0.125000
G01 X159.777826 Y79.657160 Z-0.125000
G01 X158.152397 Y80.275084 Z-0.125000
G01 X156.717784 Y80.851971 Z-0.125000
G01 X155.115376 Y81.528661 Z-0.125000
G01 X153.700558 Y82.153024 Z-0.125000
G01 X152.294572 Y82.796927 Z-0.125000
G01 X150.723180 Y83.542553 Z-0.125000
G01 X149.334938 Y84.223173 Z-0.125000
G01 X147.954569 Y84.919175 Z-0.125000
G01 X146.411049 Y85.718936 Z-0.125000
G01 X145.216702 Y86.353077 Z-0.125000
G01 X143.520684 Y87.274499 Z-0.125000
G01 X142.171468 Y88.025103 Z-0.125000
G01 X140.829081 Y88.786479 Z-0.125000
G01 X139.493384 Y89.558009 Z-0.125000
G01 X137.998706 Y90.437135 Z-0.125000
G01 X136.676747 Y91.228361 Z-0.125000
G01 X135.361148 Y92.028029 Z-0.125000
G01 X133.888728 Y92.936896 Z-0.125000
G01 X132.586377 Y93.753008 Z-0.125000
G01 X131.290221 Y94.576139 Z-0.125000
G01 X129.839604 Y95.509818 Z-0.125000
G01 X128.556623 Y96.346624 Z-0.125000
G01 X127.279803 Y97.189336 Z-0.125000
G01 X126.009386 Y98.037452 Z-0.125000
G01 X124.587831 Y98.997427 Z-0.125000
G01 X123.330995 Y99.855997 Z-0.125000
G01 X121.925084 Y100.826733 Z-0.125000
G01 X120.682489 Y101.693990 Z-0.125000
G01 X119.446858 Y102.564673 Z-0.125000
G01 X116.845978 Y104.421404 Z-0.125000
G01 X115.633410 Y105.299749 Z-0.125000
G01 X114.278680 Y106.289164 Z-0.125000
G01 X113.083054 Y107.169567 Z-0.125000
G01 X111.895780 Y108.049827 Z-0.125000
G01 X110.717034 Y108.929127 Z-0.125000
G01 X109.401273 Y109.915825 Z-0.125000
G01 X108.241030 Y110.790035 Z-0.125000
G01 X107.089543 Y111.660138 Z-0.125000
G01 X104.670559 Y113.486927 Z-0.125000
G01 X103.404279 Y114.441127 Z-0.125000
G01 X102.286006 Y115.279184 Z-0.125000
G01 X101.173417 Y116.105957 Z-0.125000
G01 X99.926679 Y117.020489 Z-0.125000
G01 X98.821066 Y117.818619 Z-0.125000
G01 X97.715667 Y118.601314 Z-0.125000
G01 X96.608120 Y119.367582 Z-0.125000
G01 X95.356094 Y120.208783 Z-0.125000
G01 X94.234984 Y120.937890 Z-0.125000
G01 X92.960462 Y121.736068 Z-0.125000
G01 X91.812777 Y122.426039 Z-0.125000
G01 X90.648022 Y123.096785 Z-0.125000
G01 X89.313208 Y123.826826 Z-0.125000
G01 X88.254781 Y124.375405 Z-0.125000
G01 X86.862349 Y125.050309 Z-0.125000
G01 X85.428326 Y125.681351 Z-0.125000
G01 X84.110120 Y126.188182 Z-0.125000
G01 X82.737064 Y126.608608 Z-0.125000
G01 X78.196135 Y125.837870 Z-0.125000
G01 X76.668479 Y124.978008 Z-0.125000
G01 X75.385031 Y124.098244 Z-0.125000
G01 X74.184122 Y123.115061 Z-0.125000
G01 X72.941461 Y121.897148 Z-0.125000
G01 X71.937241 Y120.729013 Z-0.125000
G01 X71.025749 Y119.494008 Z-0.125000
G01 X70.104428 Y118.040086 Z-0.125000
G01 X69.283315 Y116.532934 Z-0.125000
G01 X68.706467 Y115.332349 Z-0.125000
G01 X68.032561 Y113.759714 Z-0.125000
G01 X67.489142 Y112.340857 Z-0.125000
G01 X66.989259 Y110.906618 Z-0.125000
G01 X66.469260 Y109.278494 Z-0.125000
G01 X66.037351 Y107.821420 Z-0.125000
G01 X65.627028 Y106.357075 Z-0.125000
G01 X65.183418 Y104.702643 Z-0.125000
G01 X64.799199 Y103.227696 Z-0.125000
G01 X64.418614 Y101.750013 Z-0.125000
G01 X63.987817 Y100.085265 Z-0.125000
G01 X63.597067 Y98.605118 Z-0.125000
G01 X63.141330 Y96.941126 Z-0.125000
G01 X62.716093 Y95.464984 Z-0.125000
G01 X62.323902 Y94.177437 Z-0.125000
G01 X61.721624 Y92.346439 Z-0.125000
G01 X61.198011 Y90.893490 Z-0.125000
G01 X60.629711 Y89.454375 Z-0.125000
G01 X60.010057 Y88.033736 Z-0.125000
G01 X59.242895 Y86.464514 Z-0.125000
G01 X58.491783 Y85.103294 Z-0.125000
G01 X57.669136 Y83.781984 Z-0.125000
G01 X56.652021 Y82.354510 Z-0.125000
G01 X55.663529 Y81.149669 Z-0.125000
G01 X54.594971 Y80.015692 Z-0.125000
G01 X53.299483 Y78.836058 Z-0.125000
G01 X52.071068 Y77.882143 Z-0.125000
G01 X50.777596 Y77.022627 Z-0.125000
G01 X49.255523 Y76.171157 Z-0.125000
G01 X47.853656 Y75.516771 Z-0.125000
G01 X46.415088 Y74.955487 Z-0.125000
G01 X44.763021 Y74.428416 Z-0.125000
G01 X43.269217 Y74.062524 Z-0.125000
G01 X41.565968 Y73.783939 Z-0.125000
G01 X40.040969 Y73.671157 Z-0.125000
G01 X38.707065 Y73.688173 Z-0.125000
G01 X36.821748 Y73.914650 Z-0.125000
G01 X35.352077 Y74.275809 Z-0.125000
G01 X33.936060 Y74.796556 Z-0.125000
G01 X32.590078 Y75.469407 Z-0.125000
G01 X31.174381 Y76.391287 Z-0.125000
G01 X30.011930 Y77.339023 Z-0.125000
G01 X28.941943 Y78.388714 Z-0.125000
G01 X27.963027 Y79.523385 Z-0.125000
G01 X26.965649 Y80.882628 Z-0.125000
G01 X25.440854 Y83.463082 Z-0.125000
G01 X24.788138 Y84.814037 Z-0.125000
G01 X24.063273 Y86.544363 Z-0.125000
G01 X23.551424 Y87.956058 Z-0.125000
G01 X23.095257 Y89.387299 Z-0.125000
G01 X22.691272 Y90.834582 Z-0.125000
G01 X22.336478 Y92.295050 Z-0.125000
G01 X22.024153 Y93.765581 Z-0.125000
G01 X21.680799 Y95.612783 Z-0.125000
G01 X21.444636 Y97.097398 Z-0.125000
G01 X21.242496 Y98.587017 Z-0.125000
G01 X21.074423 Y100.080808 Z-0.125000
G01 X20.925766 Y101.765348 Z-0.125000
G01 X20.830103 Y103.265618 Z-0.125000
G01 X20.768311 Y104.767649 Z-0.125000
G01 X20.740278 Y106.270597 Z-0.125000
G01 X20.748486 Y107.961500 Z-0.125000
G01 X20.798619 Y109.651596 Z-0.125000
G01 X20.866898 Y110.965113 Z-0.125000
G01 X20.990424 Y112.651304 Z-0.125000
G01 X21.134405 Y114.147199 Z-0.125000
G01 X21.333660 Y115.825852 Z-0.125000
G01 X21.543869 Y117.313614 Z-0.125000
G01 X21.784308 Y118.796636 Z-0.125000
G01 X22.054508 Y120.274382 Z-0.125000
G01 X22.392986 Y121.929645 Z-0.125000
G01 X22.724325 Y123.394263 Z-0.125000
G01 X23.129957 Y125.033649 Z-0.125000
G01 X23.519577 Y126.483262 Z-0.125000
G01 X23.935564 Y127.925073 Z-0.125000
G01 X24.433919 Y129.537408 Z-0.125000
G01 X24.903797 Y130.961735 Z-0.125000
G01 X25.397946 Y132.377290 Z-0.125000
G01 X25.981766 Y133.958877 Z-0.125000
G01 X26.525373 Y135.354929 Z-0.125000
G01 X27.091210 Y136.741469 Z-0.125000
G01 X27.753234 Y138.289673 Z-0.125000
G01 X28.364282 Y139.655526 Z-0.125000
G01 X29.075543 Y141.180039 Z-0.125000
G01 X29.729008 Y142.524515 Z-0.125000
G01 X30.401400 Y143.858666 Z-0.125000
G01 X31.092239 Y145.182439 Z-0.125000
G01 X31.890416 Y146.659327 Z-0.125000
G01 X32.618548 Y147.961016 Z-0.125000
G01 X33.363310 Y149.252020 Z-0.125000
G01 X34.220081 Y150.691821 Z-0.125000
G01 X34.998609 Y151.960483 Z-0.125000
G01 X35.792233 Y153.218564 Z-0.125000
G01 X36.702059 Y154.621186 Z-0.125000
G01 X37.526108 Y155.856778 Z-0.125000
G01 X38.363746 Y157.081784 Z-0.125000
G01 X39.321532 Y158.447495 Z-0.125000
G01 X40.186591 Y159.650156 Z-0.125000
G01 X41.064116 Y160.842600 Z-0.125000
G01 X42.065193 Y162.171768 Z-0.125000
G01 X43.080858 Y163.488072 Z-0.125000
G01 X43.880931 Y164.502540 Z-0.125000
G01 X44.921243 Y165.796016 Z-0.125000
G01 X45.857360 Y166.935083 Z-0.125000
G01 X46.803531 Y168.064158 Z-0.125000
G01 X47.879293 Y169.322668 Z-0.125000
G01 X48.846032 Y170.431061 Z-0.125000
G01 X49.944175 Y171.666477 Z-0.125000
G01 X50.930109 Y172.754432 Z-0.125000
G01 X51.924729 Y173.832935 Z-0.125000
G01 X52.927888 Y174.902206 Z-0.125000
G01 X54.066063 Y176.094313 Z-0.125000
G01 X55.086565 Y177.144160 Z-0.125000
G01 X56.115038 Y178.185097 Z-0.125000
G01 X59.373900 Y181.384509 Z-0.125000
G01 X60.566217 Y182.514635 Z-0.125000
G01 X61.633957 Y183.509964 Z-0.125000
G01 X62.843522 Y184.619888 Z-0.125000
G01 X63.926429 Y185.597381 Z-0.125000
G01 X65.016437 Y186.566598 Z-0.125000
G01 X66.113475 Y187.527568 Z-0.125000
G01 X67.355662 Y188.598934 Z-0.125000
G01 X68.467517 Y189.542414 Z-0.125000
G01 X69.586384 Y190.477700 Z-0.125000
G01 X70.853290 Y191.520346 Z-0.125000
G01 X71.987130 Y192.438220 Z-0.125000
G01 X73.270910 Y193.461159 Z-0.125000
G01 X74.419742 Y194.361314 Z-0.125000
G01 X75.575852 Y195.253148 Z-0.125000
G01 X76.739076 Y196.136370 Z-0.125000
G01 X77.909678 Y197.011035 Z-0.125000
G01 X79.235191 Y197.984781 Z-0.125000
G01 X80.421494 Y198.840583 Z-0.125000
G01 X81.764935 Y199.792723 Z-0.125000
G01 X82.967411 Y200.628918 Z-0.125000
G01 X84.177596 Y201.455483 Z-0.125000
G01 X85.548325 Y202.373893 Z-0.125000
G01 X88.009404 Y203.976302 Z-0.125000
G01 X89.408526 Y204.857728 Z-0.125000
G01 X90.661024 Y205.628878 Z-0.125000
G01 X91.921953 Y206.388274 Z-0.125000
G01 X93.350669 Y207.228293 Z-0.125000
G01 X94.629826 Y207.961043 Z-0.125000
G01 X95.917771 Y208.680334 Z-0.125000
G01 X97.377286 Y209.472961 Z-0.125000
G01 X98.684331 Y210.161473 Z-0.125000
G01 X100.000699 Y210.834353 Z-0.125000
G01 X101.492691 Y211.571744 Z-0.125000
G01 X102.829129 Y212.208220 Z-0.125000
G01 X104.175312 Y212.825903 Z-0.125000
G01 X105.701487 Y213.497060 Z-0.125000
G01 X107.068756 Y214.070378 Z-0.125000
G01 X108.446251 Y214.620458 Z-0.125000
G01 X110.008330 Y215.209467 Z-0.125000
G01 X111.232388 Y215.643046 Z-0.125000
G01 X112.818181 Y216.167576 Z-0.125000
G01 X114.417497 Y216.650359 Z-0.125000
G01 X115.850278 Y217.040154 Z-0.125000
G01 X117.293528 Y217.388870 Z-0.125000
G01 X118.929279 Y217.726208 Z-0.125000
G01 X120.393148 Y217.969835 Z-0.125000
G01 X121.865203 Y218.153009 Z-0.125000
G01 X123.343427 Y218.266456 Z-0.125000
G01 X125.009724 Y218.296545 Z-0.125000
G01 X126.487725 Y218.219953 Z-0.125000
G01 X128.135908 Y217.994513 Z-0.125000
G01 X130.957766 Y217.133022 Z-0.125000
G01 X132.414042 Y216.326981 Z-0.125000
G01 X133.569502 Y215.393417 Z-0.125000
G01 X134.547461 Y214.263099 Z-0.125000
G01 X135.397272 Y212.796509 Z-0.125000
G01 X135.923343 Y211.369786 Z-0.125000
G01 X136.250196 Y209.873659 Z-0.125000
G01 X136.413352 Y208.148797 Z-0.125000
G01 X136.407154 Y206.601667 Z-0.125000
G01 X136.358476 Y205.827215 Z-0.125000
G01 X136.309802 Y205.052291 Z-0.125000
G01 X136.615532 Y200.268999 Z-0.125000
G01 X136.960650 Y198.593352 Z-0.125000
G01 X137.358363 Y197.134621 Z-0.125000
G01 X137.833028 Y195.707921 Z-0.125000
G01 X138.376332 Y194.314591 Z-0.125000
G01 X139.060036 Y192.787464 Z-0.125000
G01 X140.435935 Y190.175586 Z-0.125000
G01 X141.284038 Y188.758827 Z-0.125000
G01 X142.075590 Y187.528859 Z-0.125000
G01 X143.003424 Y186.176087 Z-0.125000
G01 X143.857002 Y184.998426 Z-0.125000
G01 X144.734605 Y183.842190 Z-0.125000
G01 X145.633499 Y182.705371 Z-0.125000
G01 X146.667438 Y181.447458 Z-0.125000
G01 X148.556870 Y179.258873 Z-0.125000
G01 X149.520858 Y178.182247 Z-0.125000
G01 X150.742132 Y176.850962 Z-0.125000
G01 X151.729619 Y175.794943 Z-0.125000
G01 X152.725357 Y174.745592 Z-0.125000
G01 X153.728056 Y173.701438 Z-0.125000
G01 X154.863241 Y172.531489 Z-0.125000
G01 X155.876908 Y171.493872 Z-0.125000
G01 X156.893933 Y170.457299 Z-0.125000
G01 X157.913292 Y169.420578 Z-0.125000
G01 X159.061736 Y168.252743 Z-0.125000
G01 X160.082362 Y167.211766 Z-0.125000
G01 X161.229518 Y166.036278 Z-0.125000
G01 X162.119282 Y165.117523 Z-0.125000
G01 X163.386811 Y163.797553 Z-0.125000
G01 X164.395167 Y162.733497 Z-0.125000
G01 X165.397630 Y161.661393 Z-0.125000
G01 X166.392992 Y160.580324 Z-0.125000
G01 X167.503067 Y159.352338 Z-0.125000
G01 X168.357433 Y158.387604 Z-0.125000
G01 X169.564224 Y156.994107 Z-0.125000
G01 X170.514971 Y155.864999 Z-0.125000
G01 X171.451508 Y154.722417 Z-0.125000
G01 X172.372286 Y153.565597 Z-0.125000
G01 X173.387643 Y152.246326 Z-0.125000
G01 X174.269476 Y151.056910 Z-0.125000
G01 X175.130252 Y149.851176 Z-0.125000
G01 X176.071409 Y148.474544 Z-0.125000
G01 X177.666197 Y145.972504 Z-0.125000
G01 X178.511752 Y144.533276 Z-0.125000
G01 X179.141204 Y143.397879 Z-0.125000
G01 X179.996423 Y141.751593 Z-0.125000
G01 X180.639233 Y140.414119 Z-0.125000
G01 X181.243247 Y139.058764 Z-0.125000
G01 X181.806196 Y137.686074 Z-0.125000
G01 X182.388055 Y136.121915 Z-0.125000
G01 X182.856604 Y134.714891 Z-0.125000
G01 X183.291498 Y133.296827 Z-0.125000
G01 X183.772044 Y131.697264 Z-0.125000
G01 X184.191128 Y130.271765 Z-0.125000
G01 X184.602385 Y128.842741 Z-0.125000
G01 X185.055391 Y127.230732 Z-0.125000
G01 X185.448343 Y125.793982 Z-0.125000
G01 X185.831796 Y124.353515 Z-0.125000
G01 X186.205154 Y122.909259 Z-0.125000
G01 X186.612593 Y121.279802 Z-0.125000
G01 X186.962211 Y119.827361 Z-0.125000
G01 X187.341024 Y118.188587 Z-0.125000
G01 X187.663350 Y116.727800 Z-0.125000
G01 X187.971416 Y115.263066 Z-0.125000
G01 X188.264172 Y113.794363 Z-0.125000
G01 X188.574122 Y112.137304 Z-0.125000
G01 X188.830455 Y110.660322 Z-0.125000
G01 X189.095985 Y108.994087 Z-0.125000
G01 X189.283678 Y107.695098 Z-0.125000
G01 X189.522488 Y105.834321 Z-0.125000
G01 X189.684981 Y104.342232 Z-0.125000
G01 X189.820031 Y102.847210 Z-0.125000
G01 X189.925005 Y101.349687 Z-0.125000
G01 X190.003659 Y99.662611 Z-0.125000
G01 X190.034169 Y98.161994 Z-0.125000
G01 X190.023629 Y96.661483 Z-0.125000
G01 X189.957101 Y94.975181 Z-0.125000
G01 X189.842822 Y93.480291 Z-0.125000
G01 X189.670196 Y91.991983 Z-0.125000
G01 X189.397213 Y90.329923 Z-0.125000
G01 X189.074491 Y88.869427 Z-0.125000
G01 X188.609181 Y87.254226 Z-0.125000
G01 X188.092238 Y85.854171 Z-0.125000
G01 X187.466621 Y84.500828 Z-0.125000
G01 X186.721895 Y83.210506 Z-0.125000
G01 X185.732524 Y81.858654 Z-0.125000
G01 X184.715170 Y80.770052 Z-0.125000
G01 X183.573426 Y79.809516 Z-0.125000
G01 X182.156913 Y78.901597 Z-0.125000
G01 X180.801251 Y78.257231 Z-0.125000
G01 X179.377613 Y77.764871 Z-0.125000
G01 X177.720422 Y77.381940 Z-0.125000
G01 X176.216310 Y77.179909 Z-0.125000
G01 X174.696759 Y77.093049 Z-0.125000
G01 X172.980343 Y77.115315 Z-0.125000
G01 X171.455043 Y77.227995 Z-0.125000
G01 X169.934429 Y77.416299 Z-0.125000
G01 X168.232919 Y77.706464 Z-0.125000
G01 X166.729958 Y78.025478 Z-0.125000
G01 X165.237003 Y78.394758 Z-0.125000
G01 X163.570168 Y78.862941 Z-0.125000
G01 X162.099695 Y79.321030 Z-0.125000
G01 X160.639742 Y79.814188 Z-0.125000
G01 X159.190230 Y80.338886 Z-0.125000
G01 X157.571920 Y80.962882 Z-0.125000
G01 X156.143699 Y81.545113 Z-0.125000
G01 X154.548575 Y82.227769 Z-0.125000
G01 X153.140333 Y82.857412 Z-0.125000
G01 X151.741035 Y83.506583 Z-0.125000
G01 X150.177324 Y84.258134 Z-0.125000
G01 X148.796069 Y84.944030 Z-0.125000
G01 X147.422857 Y85.645326 Z-0.125000
G01 X145.887615 Y86.451074 Z-0.125000
G01 X144.699885 Y87.089903 Z-0.125000
G01 X143.013629 Y88.018076 Z-0.125000
G01 X141.672508 Y88.774134 Z-0.125000
G01 X140.338495 Y89.541022 Z-0.125000
G01 X139.011474 Y90.318122 Z-0.125000
G01 X137.526952 Y91.203589 Z-0.125000
G01 X136.214401 Y92.000527 Z-0.125000
G01 X134.908601 Y92.805978 Z-0.125000
G01 X133.447713 Y93.721439 Z-0.125000
G01 X132.156105 Y94.543491 Z-0.125000
G01 X130.871192 Y95.372637 Z-0.125000
G01 X129.433869 Y96.313169 Z-0.125000
G01 X128.163333 Y97.156139 Z-0.125000
G01 X126.899597 Y98.005077 Z-0.125000
G01 X125.642952 Y98.859471 Z-0.125000
G01 X124.237788 Y99.826558 Z-0.125000
G01 X122.996384 Y100.691474 Z-0.125000
G01 X121.608886 Y101.669349 Z-0.125000
G01 X120.383670 Y102.542923 Z-0.125000
G01 X119.166450 Y103.419863 Z-0.125000
G01 X116.608471 Y105.289482 Z-0.125000
G01 X115.418050 Y106.173584 Z-0.125000
G01 X114.089880 Y107.169117 Z-0.125000
G01 X112.919421 Y108.054545 Z-0.125000
G01 X111.758871 Y108.939328 Z-0.125000
G01 X110.608486 Y109.822530 Z-0.125000
G01 X109.326679 Y110.812700 Z-0.125000
G01 X108.198498 Y111.688997 Z-0.125000
G01 X107.080887 Y112.560061 Z-0.125000
G01 X104.739914 Y114.384209 Z-0.125000
G01 X103.518125 Y115.333852 Z-0.125000
G01 X102.441090 Y116.165672 Z-0.125000
G01 X101.371140 Y116.983915 Z-0.125000
G01 X100.173734 Y117.885858 Z-0.125000
G01 X99.112835 Y118.669948 Z-0.125000
G01 X98.052575 Y119.435807 Z-0.125000
G01 X96.990161 Y120.182396 Z-0.125000
G01 X95.788335 Y120.998108 Z-0.125000
G01 X94.710814 Y121.701728 Z-0.125000
G01 X93.483560 Y122.468338 Z-0.125000
G01 X92.375854 Y123.128029 Z-0.125000
G01 X91.248770 Y123.766816 Z-0.125000
G01 X89.953210 Y124.459463 Z-0.125000
G01 X88.922834 Y124.978344 Z-0.125000
G01 X87.563107 Y125.614897 Z-0.125000
G01 X86.157889 Y126.208186 Z-0.125000
G01 X84.861924 Y126.682759 Z-0.125000
G01 X83.507744 Y127.073219 Z-0.125000
G01 X78.989900 Y126.261837 Z-0.125000
G01 X77.461761 Y125.402875 Z-0.125000
G01 X76.176286 Y124.526874 Z-0.125000
G01 X74.971988 Y123.549889 Z-0.125000
G01 X73.724069 Y122.341374 Z-0.125000
G01 X72.714063 Y121.183282 Z-0.125000
G01 X71.795904 Y119.959490 Z-0.125000
G01 X70.866220 Y118.519136 Z-0.125000
G01 X70.036016 Y117.026143 Z-0.125000
G01 X69.451709 Y115.836763 Z-0.125000
G01 X68.767831 Y114.278555 Z-0.125000
G01 X68.215293 Y112.872389 Z-0.125000
G01 X67.706134 Y111.450597 Z-0.125000
G01 X67.175602 Y109.836083 Z-0.125000
G01 X66.734315 Y108.390689 Z-0.125000
G01 X66.314662 Y106.937580 Z-0.125000
G01 X65.860677 Y105.295221 Z-0.125000
G01 X65.467405 Y103.830467 Z-0.125000
G01 X65.077971 Y102.362452 Z-0.125000
G01 X64.637522 Y100.707932 Z-0.125000
G01 X64.238515 Y99.236290 Z-0.125000
G01 X63.773911 Y97.581185 Z-0.125000
G01 X63.341217 Y96.112329 Z-0.125000
G01 X62.942870 Y94.830674 Z-0.125000
G01 X62.332457 Y93.007289 Z-0.125000
G01 X61.802957 Y91.559733 Z-0.125000
G01 X61.229383 Y90.125372 Z-0.125000
G01 X60.605118 Y88.708824 Z-0.125000
G01 X59.833636 Y87.143386 Z-0.125000
G01 X59.079517 Y85.784771 Z-0.125000
G01 X58.254702 Y84.465327 Z-0.125000
G01 X57.236199 Y83.039038 Z-0.125000
G01 X56.247444 Y81.834423 Z-0.125000
G01 X55.179544 Y80.699885 Z-0.125000
G01 X53.885874 Y79.518692 Z-0.125000
G01 X52.659986 Y78.562598 Z-0.125000
G01 X51.369827 Y77.700199 Z-0.125000
G01 X49.852313 Y76.844718 Z-0.125000
G01 X48.455129 Y76.186152 Z-0.125000
G01 X47.021735 Y75.620180 Z-0.125000
G01 X45.375953 Y75.087319 Z-0.125000
G01 X43.888146 Y74.715797 Z-0.125000
G01 X42.192136 Y74.430273 Z-0.125000
G01 X40.674026 Y74.310746 Z-0.125000
G01 X39.346495 Y74.321387 Z-0.125000
G01 X37.470811 Y74.537986 Z-0.125000
G01 X36.009235 Y74.890610 Z-0.125000
G01 X34.601575 Y75.402309 Z-0.125000
G01 X33.264089 Y76.065674 Z-0.125000
G01 X31.858061 Y76.976447 Z-0.125000
G01 X30.704173 Y77.914013 Z-0.125000
G01 X29.642697 Y78.953313 Z-0.125000
G01 X28.672143 Y80.077431 Z-0.125000
G01 X27.684004 Y81.424647 Z-0.125000
G01 X26.175072 Y83.983402 Z-0.125000
G01 X25.530022 Y85.323377 Z-0.125000
G01 X24.814469 Y87.039865 Z-0.125000
G01 X24.309861 Y88.440402 Z-0.125000
G01 X23.860768 Y89.860399 Z-0.125000
G01 X23.463660 Y91.296355 Z-0.125000
G01 X23.115576 Y92.745407 Z-0.125000
G01 X22.809792 Y94.204422 Z-0.125000
G01 X22.474410 Y96.037056 Z-0.125000
G01 X22.244423 Y97.509887 Z-0.125000
G01 X22.048303 Y98.987604 Z-0.125000
G01 X21.886092 Y100.469375 Z-0.125000
G01 X21.743842 Y102.140252 Z-0.125000
G01 X21.653695 Y103.628253 Z-0.125000
G01 X21.597248 Y105.117901 Z-0.125000
G01 X21.574373 Y106.608353 Z-0.125000
G01 X21.588197 Y108.285060 Z-0.125000
G01 X21.643724 Y109.960811 Z-0.125000
G01 X21.716032 Y111.263072 Z-0.125000
G01 X21.844528 Y112.934662 Z-0.125000
G01 X21.992757 Y114.417450 Z-0.125000
G01 X22.196554 Y116.081220 Z-0.125000
G01 X22.410589 Y117.555629 Z-0.125000
G01 X22.654831 Y119.025149 Z-0.125000
G01 X22.928496 Y120.489295 Z-0.125000
G01 X23.270630 Y122.129113 Z-0.125000
G01 X23.605010 Y123.579872 Z-0.125000
G01 X24.013806 Y125.203516 Z-0.125000
G01 X24.406026 Y126.638998 Z-0.125000
G01 X24.824409 Y128.066549 Z-0.125000
G01 X25.325182 Y129.662687 Z-0.125000
G01 X25.796982 Y131.072473 Z-0.125000
G01 X26.292833 Y132.473354 Z-0.125000
G01 X26.878291 Y134.038269 Z-0.125000
G01 X27.423080 Y135.419359 Z-0.125000
G01 X27.989876 Y136.790797 Z-0.125000
G01 X28.652696 Y138.321841 Z-0.125000
G01 X29.264151 Y139.672295 Z-0.125000
G01 X29.975572 Y141.179312 Z-0.125000
G01 X30.628892 Y142.508087 Z-0.125000
G01 X31.300857 Y143.826397 Z-0.125000
G01 X31.990971 Y145.134191 Z-0.125000
G01 X32.787997 Y146.592935 Z-0.125000
G01 X33.514777 Y147.878351 Z-0.125000
G01 X34.257860 Y149.152950 Z-0.125000
G01 X35.112381 Y150.574137 Z-0.125000
G01 X35.888558 Y151.826113 Z-0.125000
G01 X36.679478 Y153.067390 Z-0.125000
G01 X37.585840 Y154.450968 Z-0.125000
G01 X38.406443 Y155.669509 Z-0.125000
G01 X39.240252 Y156.877360 Z-0.125000
G01 X40.193279 Y158.223658 Z-0.125000
G01 X41.053716 Y159.408964 Z-0.125000
G01 X41.926179 Y160.583979 Z-0.125000
G01 X42.921110 Y161.893451 Z-0.125000
G01 X43.930101 Y163.189986 Z-0.125000
G01 X44.724601 Y164.189044 Z-0.125000
G01 X45.757267 Y165.462670 Z-0.125000
G01 X46.686122 Y166.584070 Z-0.125000
G01 X47.624590 Y167.695478 Z-0.125000
G01 X48.691137 Y168.934133 Z-0.125000
G01 X49.649208 Y170.024907 Z-0.125000
G01 X50.737058 Y171.240566 Z-0.125000
G01 X51.713341 Y172.311030 Z-0.125000
G01 X52.697839 Y173.372137 Z-0.125000
G01 X53.690437 Y174.424115 Z-0.125000
G01 X54.816160 Y175.596926 Z-0.125000
G01 X55.825118 Y176.629779 Z-0.125000
G01 X56.841588 Y177.653893 Z-0.125000
G01 X60.060068 Y180.802089 Z-0.125000
G01 X61.236820 Y181.914362 Z-0.125000
G01 X62.290291 Y182.894120 Z-0.125000
G01 X63.483325 Y183.986891 Z-0.125000
G01 X64.551133 Y184.949479 Z-0.125000
G01 X65.625673 Y185.904131 Z-0.125000
G01 X66.706894 Y186.850899 Z-0.125000
G01 X67.930893 Y187.906737 Z-0.125000
G01 X69.026245 Y188.836831 Z-0.125000
G01 X70.128319 Y189.759140 Z-0.125000
G01 X71.376011 Y190.787690 Z-0.125000
G01 X72.492505 Y191.693495 Z-0.125000
G01 X73.756503 Y192.703391 Z-0.125000
G01 X74.887536 Y193.592431 Z-0.125000
G01 X76.025667 Y194.473610 Z-0.125000
G01 X77.170757 Y195.346649 Z-0.125000
G01 X78.323088 Y196.211598 Z-0.125000
G01 X79.627914 Y197.174983 Z-0.125000
G01 X80.795732 Y198.022078 Z-0.125000
G01 X82.118299 Y198.964994 Z-0.125000
G01 X83.302167 Y199.793492 Z-0.125000
G01 X84.493722 Y200.612832 Z-0.125000
G01 X85.843483 Y201.523673 Z-0.125000
G01 X88.267347 Y203.114068 Z-0.125000
G01 X89.645605 Y203.989530 Z-0.125000
G01 X90.879622 Y204.755834 Z-0.125000
G01 X92.122149 Y205.510842 Z-0.125000
G01 X93.530267 Y206.346418 Z-0.125000
G01 X94.791217 Y207.075660 Z-0.125000
G01 X96.061066 Y207.791836 Z-0.125000
G01 X97.500367 Y208.581446 Z-0.125000
G01 X98.789576 Y209.267666 Z-0.125000
G01 X100.088238 Y209.938641 Z-0.125000
G01 X101.560478 Y210.674337 Z-0.125000
G01 X102.879501 Y211.309665 Z-0.125000
G01 X104.208411 Y211.926543 Z-0.125000
G01 X105.715323 Y212.597184 Z-0.125000
G01 X107.065621 Y213.170422 Z-0.125000
G01 X108.426278 Y213.720716 Z-0.125000
G01 X109.969575 Y214.310346 Z-0.125000
G01 X111.179132 Y214.744658 Z-0.125000
G01 X112.746419 Y215.270477 Z-0.125000
G01 X114.327367 Y215.754921 Z-0.125000
G01 X115.743927 Y216.146500 Z-0.125000
G01 X117.171038 Y216.497291 Z-0.125000
G01 X118.788711 Y216.837292 Z-0.125000
G01 X120.236567 Y217.083596 Z-0.125000
G01 X121.692644 Y217.269760 Z-0.125000
G01 X123.154898 Y217.386471 Z-0.125000
G01 X124.803224 Y217.420603 Z-0.125000
G01 X126.265229 Y217.347934 Z-0.125000
G01 X127.895395 Y217.127290 Z-0.125000
G01 X130.685351 Y216.275300 Z-0.125000
G01 X132.124063 Y215.475029 Z-0.125000
G01 X133.264521 Y214.546739 Z-0.125000
G01 X134.228417 Y213.421614 Z-0.125000
G01 X135.063940 Y211.960589 Z-0.125000
G01 X135.578861 Y210.538399 Z-0.125000
G01 X135.896014 Y209.046361 Z-0.125000
G01 X136.049830 Y207.325542 Z-0.125000
G01 X136.036552 Y205.781588 Z-0.125000
G01 X135.984709 Y205.008569 Z-0.125000
G01 X135.932809 Y204.235118 Z-0.125000
G01 X136.210616 Y199.465310 Z-0.125000
G01 X136.542634 Y197.796396 Z-0.125000
G01 X136.927538 Y196.344517 Z-0.125000
G01 X137.388429 Y194.925485 Z-0.125000
G01 X137.917128 Y193.540632 Z-0.125000
G01 X138.583573 Y192.024010 Z-0.125000
G01 X139.927176 Y189.433267 Z-0.125000
G01 X140.756502 Y188.029735 Z-0.125000
G01 X141.531160 Y186.812296 Z-0.125000
G01 X142.439886 Y185.474455 Z-0.125000
G01 X143.276491 Y184.310772 Z-0.125000
G01 X144.137223 Y183.169143 Z-0.125000
G01 X145.019424 Y182.047521 Z-0.125000
G01 X146.034885 Y180.807358 Z-0.125000
G01 X147.892513 Y178.651852 Z-0.125000
G01 X148.841207 Y177.592401 Z-0.125000
G01 X150.044018 Y176.283092 Z-0.125000
G01 X151.017298 Y175.245002 Z-0.125000
G01 X151.999358 Y174.213841 Z-0.125000
G01 X152.988930 Y173.188093 Z-0.125000
G01 X154.110022 Y172.039054 Z-0.125000
G01 X155.111775 Y171.020165 Z-0.125000
G01 X156.117467 Y170.002409 Z-0.125000
G01 X157.126075 Y168.984560 Z-0.125000
G01 X158.263116 Y167.837982 Z-0.125000
G01 X159.274215 Y166.815891 Z-0.125000
G01 X160.411327 Y165.661607 Z-0.125000
G01 X161.293762 Y164.759290 Z-0.125000
G01 X162.551536 Y163.462697 Z-0.125000
G01 X163.552680 Y162.417231 Z-0.125000
G01 X164.548436 Y161.363604 Z-0.125000
G01 X165.537583 Y160.300889 Z-0.125000
G01 X166.641237 Y159.093392 Z-0.125000
G01 X167.491009 Y158.144472 Z-0.125000
G01 X168.691824 Y156.773380 Z-0.125000
G01 X169.638269 Y155.662034 Z-0.125000
G01 X170.570913 Y154.537070 Z-0.125000
G01 X171.488194 Y153.397728 Z-0.125000
G01 X172.500071 Y152.097955 Z-0.125000
G01 X173.379200 Y150.925730 Z-0.125000
G01 X174.237631 Y149.737062 Z-0.125000
G01 X175.176559 Y148.379486 Z-0.125000
G01 X176.768417 Y145.910984 Z-0.125000
G01 X177.612886 Y144.490451 Z-0.125000
G01 X178.241766 Y143.369519 Z-0.125000
G01 X179.096574 Y141.743795 Z-0.125000
G01 X179.739389 Y140.422691 Z-0.125000
G01 X180.343707 Y139.083644 Z-0.125000
G01 X180.907254 Y137.727207 Z-0.125000
G01 X181.490131 Y136.181268 Z-0.125000
G01 X181.959894 Y134.790391 Z-0.125000
G01 X182.396284 Y133.388372 Z-0.125000
G01 X182.878829 Y131.806600 Z-0.125000
G01 X183.299958 Y130.396677 Z-0.125000
G01 X183.713502 Y128.983003 Z-0.125000
G01 X184.169355 Y127.387990 Z-0.125000
G01 X184.565075 Y125.966104 Z-0.125000
G01 X184.951507 Y124.540271 Z-0.125000
G01 X185.328046 Y123.110423 Z-0.125000
G01 X185.739293 Y121.496903 Z-0.125000
G01 X186.092491 Y120.058388 Z-0.125000
G01 X186.475544 Y118.435021 Z-0.125000
G01 X186.801817 Y116.987698 Z-0.125000
G01 X187.113993 Y115.536218 Z-0.125000
G01 X187.411015 Y114.080563 Z-0.125000
G01 X187.725946 Y112.437946 Z-0.125000
G01 X187.986864 Y110.973596 Z-0.125000
G01 X188.257722 Y109.321353 Z-0.125000
G01 X188.449684 Y108.033093 Z-0.125000
G01 X188.694776 Y106.187423 Z-0.125000
G01 X188.862453 Y104.707245 Z-0.125000
G01 X189.002825 Y103.223992 Z-0.125000
G01 X189.113265 Y101.738103 Z-0.125000
G01 X189.198240 Y100.063971 Z-0.125000
G01 X189.234529 Y98.574749 Z-0.125000
G01 X189.229925 Y97.085540 Z-0.125000
G01 X189.170270 Y95.411859 Z-0.125000
G01 X189.062287 Y93.928126 Z-0.125000
G01 X188.896141 Y92.450929 Z-0.125000
G01 X188.630687 Y90.801336 Z-0.125000
G01 X188.314881 Y89.351905 Z-0.125000
G01 X187.857620 Y87.749150 Z-0.125000
G01 X187.348079 Y86.360157 Z-0.125000
G01 X186.730097 Y85.017865 Z-0.125000
G01 X185.993229 Y83.738563 Z-0.125000
G01 X185.012927 Y82.399003 Z-0.125000
G01 X184.003777 Y81.321158 Z-0.125000
G01 X182.870294 Y80.371124 Z-0.125000
G01 X181.463033 Y79.474598 Z-0.125000
G01 X180.115465 Y78.839895 Z-0.125000
G01 X178.699735 Y78.356717 Z-0.125000
G01 X177.051169 Y77.983525 Z-0.125000
G01 X175.554475 Y77.789645 Z-0.125000
G01 X174.042115 Y77.710500 Z-0.125000
G01 X172.333541 Y77.740977 Z-0.125000
G01 X170.815021 Y77.860591 Z-0.125000
G01 X169.301038 Y78.055533 Z-0.125000
G01 X167.606842 Y78.352874 Z-0.125000
G01 X166.110283 Y78.678029 Z-0.125000
G01 X164.623661 Y79.053267 Z-0.125000
G01 X162.963899 Y79.527969 Z-0.125000
G01 X161.499694 Y79.991716 Z-0.125000
G01 X160.046008 Y80.490429 Z-0.125000
G01 X158.602783 Y81.020597 Z-0.125000
G01 X156.991595 Y81.650666 Z-0.125000
G01 X155.569765 Y82.238241 Z-0.125000
G01 X153.981924 Y82.926864 Z-0.125000
G01 X152.580255 Y83.561786 Z-0.125000
G01 X151.187645 Y84.216226 Z-0.125000
G01 X149.631617 Y84.973699 Z-0.125000
G01 X148.257350 Y85.664873 Z-0.125000
G01 X146.891294 Y86.371461 Z-0.125000
G01 X145.364328 Y87.183199 Z-0.125000
G01 X144.183218 Y87.826713 Z-0.125000
G01 X142.506727 Y88.761638 Z-0.125000
G01 X141.173699 Y89.523151 Z-0.125000
G01 X139.848060 Y90.295548 Z-0.125000
G01 X138.529714 Y91.078218 Z-0.125000
G01 X137.055348 Y91.970029 Z-0.125000
G01 X135.752206 Y92.772677 Z-0.125000
G01 X134.456206 Y93.583911 Z-0.125000
G01 X133.006852 Y94.505967 Z-0.125000
G01 X131.725982 Y95.333960 Z-0.125000
G01 X130.452309 Y96.169122 Z-0.125000
G01 X129.028283 Y97.116506 Z-0.125000
G01 X127.770191 Y97.965640 Z-0.125000
G01 X126.519539 Y98.820804 Z-0.125000
G01 X125.276667 Y99.681476 Z-0.125000
G01 X123.887896 Y100.655674 Z-0.125000
G01 X122.661924 Y101.526934 Z-0.125000
G01 X121.292840 Y102.511950 Z-0.125000
G01 X120.085005 Y103.391843 Z-0.125000
G01 X118.886195 Y104.275039 Z-0.125000
G01 X116.371116 Y106.157548 Z-0.125000
G01 X115.202841 Y107.047404 Z-0.125000
G01 X113.901231 Y108.049056 Z-0.125000
G01 X112.755940 Y108.939508 Z-0.125000
G01 X111.622113 Y109.828815 Z-0.125000
G01 X110.500088 Y110.715919 Z-0.125000
G01 X109.252235 Y111.709557 Z-0.125000
G01 X108.156119 Y112.587945 Z-0.125000
G01 X107.072382 Y113.459969 Z-0.125000
G01 X104.809420 Y115.281477 Z-0.125000
G01 X103.632123 Y116.226562 Z-0.125000
G01 X102.596326 Y117.052145 Z-0.125000
G01 X101.569014 Y117.861859 Z-0.125000
G01 X100.420940 Y118.751211 Z-0.125000
G01 X99.404757 Y119.521262 Z-0.125000
G01 X98.389633 Y120.270283 Z-0.125000
G01 X97.372353 Y120.997195 Z-0.125000
G01 X96.220727 Y121.787419 Z-0.125000
G01 X95.186794 Y122.465551 Z-0.125000
G01 X94.006811 Y123.200595 Z-0.125000
G01 X92.939084 Y123.830004 Z-0.125000
G01 X91.849669 Y124.436832 Z-0.125000
G01 X90.593362 Y125.092087 Z-0.125000
G01 X89.591038 Y125.581267 Z-0.125000
G01 X88.264017 Y126.179471 Z-0.125000
G01 X86.887605 Y126.735004 Z-0.125000
G01 X85.613878 Y127.177319 Z-0.125000
G01 X84.278573 Y127.537816 Z-0.125000
G01 X79.783811 Y126.685790 Z-0.125000
G01 X78.255192 Y125.827729 Z-0.125000
G01 X76.967691 Y124.955489 Z-0.125000
G01 X75.760002 Y123.984705 Z-0.125000
G01 X74.506825 Y122.785585 Z-0.125000
G01 X73.491033 Y121.637535 Z-0.125000
G01 X72.566208 Y120.424958 Z-0.125000
G01 X71.628160 Y118.998171 Z-0.125000
G01 X70.788866 Y117.519340 Z-0.125000
G01 X70.197098 Y116.341164 Z-0.125000
G01 X69.503250 Y114.797382 Z-0.125000
G01 X68.941593 Y113.403904 Z-0.125000
G01 X68.423158 Y111.994561 Z-0.125000
G01 X67.882093 Y110.393657 Z-0.125000
G01 X67.431427 Y108.959944 Z-0.125000
G01 X67.002443 Y107.518073 Z-0.125000
G01 X66.538085 Y105.887785 Z-0.125000
G01 X66.135757 Y104.433223 Z-0.125000
G01 X65.737475 Y102.974876 Z-0.125000
G01 X65.287380 Y101.330584 Z-0.125000
G01 X64.880116 Y99.867445 Z-0.125000
G01 X64.406643 Y98.221229 Z-0.125000
G01 X63.966493 Y96.759660 Z-0.125000
G01 X63.561988 Y95.483894 Z-0.125000
G01 X62.943441 Y93.668124 Z-0.125000
G01 X62.408055 Y92.225962 Z-0.125000
G01 X61.829204 Y90.796352 Z-0.125000
G01 X61.200330 Y89.383897 Z-0.125000
G01 X60.424528 Y87.822243 Z-0.125000
G01 X59.667403 Y86.466234 Z-0.125000
G01 X58.840417 Y85.148654 Z-0.125000
G01 X57.820528 Y83.723552 Z-0.125000
G01 X56.831508 Y82.519160 Z-0.125000
G01 X55.764267 Y81.384061 Z-0.125000
G01 X54.472417 Y80.201309 Z-0.125000
G01 X53.249055 Y79.243038 Z-0.125000
G01 X51.962209 Y78.377756 Z-0.125000
G01 X50.449254 Y77.518262 Z-0.125000
G01 X49.056753 Y76.855516 Z-0.125000
G01 X47.628533 Y76.284861 Z-0.125000
G01 X45.989034 Y75.746209 Z-0.125000
G01 X44.507225 Y75.369054 Z-0.125000
G01 X42.818457 Y75.076594 Z-0.125000
G01 X41.307234 Y74.950320 Z-0.125000
G01 X39.986078 Y74.954588 Z-0.125000
G01 X38.120023 Y75.161308 Z-0.125000
G01 X36.666527 Y75.505399 Z-0.125000
G01 X35.267225 Y76.008051 Z-0.125000
G01 X33.938251 Y76.661926 Z-0.125000
G01 X32.541876 Y77.561595 Z-0.125000
G01 X31.396580 Y78.488985 Z-0.125000
G01 X30.343601 Y79.517897 Z-0.125000
G01 X29.381424 Y80.631460 Z-0.125000
G01 X28.402523 Y81.966646 Z-0.125000
G01 X26.909454 Y84.503705 Z-0.125000
G01 X26.272055 Y85.832702 Z-0.125000
G01 X25.565816 Y87.535355 Z-0.125000
G01 X25.068448 Y88.924732 Z-0.125000
G01 X24.626413 Y90.333486 Z-0.125000
G01 X24.236183 Y91.758114 Z-0.125000
G01 X23.894823 Y93.195749 Z-0.125000
G01 X23.595581 Y94.643246 Z-0.125000
G01 X23.268156 Y96.461317 Z-0.125000
G01 X23.044360 Y97.922361 Z-0.125000
G01 X22.854274 Y99.388173 Z-0.125000
G01 X22.697926 Y100.857926 Z-0.125000
G01 X22.562082 Y102.515139 Z-0.125000
G01 X22.477422 Y103.990878 Z-0.125000
G01 X22.426319 Y105.468142 Z-0.125000
G01 X22.408632 Y106.946093 Z-0.125000
G01 X22.428043 Y108.608606 Z-0.125000
G01 X22.488963 Y110.270014 Z-0.125000
G01 X22.565300 Y111.561019 Z-0.125000
G01 X22.698796 Y113.218003 Z-0.125000
G01 X22.851244 Y114.687691 Z-0.125000
G01 X23.059598 Y116.336573 Z-0.125000
G01 X23.277474 Y117.797626 Z-0.125000
G01 X23.525369 Y119.253669 Z-0.125000
G01 X23.802486 Y120.704219 Z-0.125000
G01 X24.148275 Y122.328593 Z-0.125000
G01 X24.485682 Y123.765493 Z-0.125000
G01 X24.897657 Y125.373393 Z-0.125000
G01 X25.292477 Y126.794745 Z-0.125000
G01 X25.713241 Y128.208038 Z-0.125000
G01 X26.216446 Y129.787976 Z-0.125000
G01 X26.690184 Y131.183220 Z-0.125000
G01 X27.187722 Y132.569427 Z-0.125000
G01 X27.774803 Y134.117674 Z-0.125000
G01 X28.320803 Y135.483798 Z-0.125000
G01 X28.888560 Y136.840132 Z-0.125000
G01 X29.552144 Y138.354021 Z-0.125000
G01 X30.164037 Y139.689069 Z-0.125000
G01 X30.875604 Y141.178597 Z-0.125000
G01 X31.528778 Y142.491668 Z-0.125000
G01 X32.200301 Y143.794142 Z-0.125000
G01 X32.889706 Y145.085955 Z-0.125000
G01 X33.685580 Y146.526552 Z-0.125000
G01 X34.411007 Y147.795696 Z-0.125000
G01 X35.152426 Y149.053888 Z-0.125000
G01 X36.004696 Y150.456459 Z-0.125000
G01 X36.778510 Y151.691755 Z-0.125000
G01 X37.566725 Y152.916228 Z-0.125000
G01 X38.469638 Y154.280758 Z-0.125000
G01 X39.286779 Y155.482251 Z-0.125000
G01 X40.116760 Y156.672949 Z-0.125000
G01 X41.065043 Y157.999827 Z-0.125000
G01 X41.920827 Y159.167785 Z-0.125000
G01 X42.788258 Y160.325366 Z-0.125000
G01 X43.777030 Y161.615145 Z-0.125000
G01 X44.779331 Y162.891913 Z-0.125000
G01 X45.568274 Y163.875560 Z-0.125000
G01 X46.593293 Y165.129332 Z-0.125000
G01 X47.514886 Y166.233067 Z-0.125000
G01 X48.445635 Y167.326810 Z-0.125000
G01 X49.502983 Y168.545607 Z-0.125000
G01 X50.452385 Y169.618763 Z-0.125000
G01 X51.529927 Y170.814665 Z-0.125000
G01 X52.496575 Y171.867641 Z-0.125000
G01 X53.470964 Y172.911346 Z-0.125000
G01 X54.452987 Y173.946034 Z-0.125000
G01 X55.566260 Y175.099548 Z-0.125000
G01 X56.563673 Y176.115409 Z-0.125000
G01 X57.568132 Y177.122703 Z-0.125000
G01 X60.746240 Y180.219679 Z-0.125000
G01 X61.907429 Y181.314100 Z-0.125000
G01 X62.946628 Y182.278288 Z-0.125000
G01 X64.123133 Y183.353905 Z-0.125000
G01 X65.175841 Y184.301586 Z-0.125000
G01 X66.234915 Y185.241675 Z-0.125000
G01 X67.300318 Y186.174237 Z-0.125000
G01 X68.506127 Y187.214550 Z-0.125000
G01 X69.584978 Y188.131257 Z-0.125000
G01 X70.670259 Y189.040589 Z-0.125000
G01 X71.898734 Y190.055044 Z-0.125000
G01 X72.997884 Y190.948781 Z-0.125000
G01 X74.242100 Y191.945630 Z-0.125000
G01 X75.355335 Y192.823557 Z-0.125000
G01 X76.475487 Y193.694083 Z-0.125000
G01 X77.602442 Y194.556937 Z-0.125000
G01 X78.736502 Y195.412172 Z-0.125000
G01 X80.020641 Y196.365195 Z-0.125000
G01 X81.169974 Y197.203585 Z-0.125000
G01 X82.471666 Y198.137276 Z-0.125000
G01 X83.636928 Y198.958077 Z-0.125000
G01 X84.809852 Y199.770192 Z-0.125000
G01 X86.138646 Y200.673464 Z-0.125000
G01 X88.525295 Y202.251850 Z-0.125000
G01 X89.882688 Y203.121331 Z-0.125000
G01 X91.098228 Y203.882819 Z-0.125000
G01 X92.322351 Y204.633425 Z-0.125000
G01 X93.709865 Y205.464544 Z-0.125000
G01 X94.952613 Y206.190277 Z-0.125000
G01 X96.204367 Y206.903352 Z-0.125000
G01 X97.623453 Y207.689930 Z-0.125000
G01 X98.894828 Y208.373887 Z-0.125000
G01 X100.175785 Y209.042958 Z-0.125000
G01 X101.628267 Y209.776929 Z-0.125000
G01 X102.929878 Y210.411110 Z-0.125000
G01 X104.241518 Y211.027196 Z-0.125000
G01 X105.729165 Y211.697338 Z-0.125000
G01 X107.062490 Y212.270479 Z-0.125000
G01 X108.406308 Y212.820975 Z-0.125000
G01 X109.930822 Y213.411225 Z-0.125000
G01 X111.125886 Y213.846299 Z-0.125000
G01 X112.674664 Y214.373392 Z-0.125000
G01 X114.237241 Y214.859498 Z-0.125000
G01 X115.637579 Y215.252862 Z-0.125000
G01 X117.048550 Y215.605713 Z-0.125000
G01 X118.648149 Y215.948389 Z-0.125000
G01 X120.079994 Y216.197386 Z-0.125000
G01 X121.520088 Y216.386512 Z-0.125000
G01 X122.966375 Y216.506500 Z-0.125000
G01 X124.596728 Y216.544676 Z-0.125000
G01 X126.042741 Y216.475943 Z-0.125000
G01 X127.654890 Y216.260095 Z-0.125000
G01 X130.412938 Y215.417578 Z-0.125000
G01 X131.834094 Y214.623105 Z-0.125000
G01 X132.959545 Y213.700061 Z-0.125000
G01 X133.909377 Y212.580128 Z-0.125000
G01 X134.730611 Y211.124668 Z-0.125000
G01 X135.234379 Y209.707011 Z-0.125000
G01 X135.541834 Y208.219063 Z-0.125000
G01 X135.686316 Y206.502317 Z-0.125000
G01 X135.665953 Y204.961508 Z-0.125000
G01 X135.610946 Y204.189921 Z-0.125000
G01 X135.555825 Y203.417973 Z-0.125000
G01 X135.805702 Y198.661620 Z-0.125000
G01 X136.124623 Y196.999455 Z-0.125000
G01 X136.496718 Y195.554426 Z-0.125000
G01 X136.943835 Y194.143054 Z-0.125000
G01 X137.457928 Y192.766683 Z-0.125000
G01 X138.107115 Y191.260567 Z-0.125000
G01 X139.418422 Y188.690959 Z-0.125000
G01 X140.228973 Y187.300652 Z-0.125000
G01 X140.986733 Y186.095743 Z-0.125000
G01 X141.876350 Y184.772833 Z-0.125000
G01 X142.695984 Y183.623129 Z-0.125000
G01 X143.539845 Y182.496107 Z-0.125000
G01 X144.405353 Y181.389681 Z-0.125000
G01 X145.402336 Y180.167269 Z-0.125000
G01 X147.228160 Y178.044840 Z-0.125000
G01 X148.161561 Y177.002567 Z-0.125000
G01 X149.345906 Y175.715233 Z-0.125000
G01 X150.304980 Y174.695072 Z-0.125000
G01 X151.273362 Y173.682100 Z-0.125000
G01 X152.249807 Y172.674757 Z-0.125000
G01 X153.356808 Y171.546631 Z-0.125000
G01 X154.346647 Y170.546468 Z-0.125000
G01 X155.341005 Y169.547530 Z-0.125000
G01 X156.338862 Y168.548552 Z-0.125000
G01 X157.464501 Y167.423231 Z-0.125000
G01 X158.466073 Y166.420025 Z-0.125000
G01 X159.593142 Y165.286943 Z-0.125000
G01 X160.468246 Y164.401067 Z-0.125000
G01 X161.716268 Y163.127850 Z-0.125000
G01 X162.710195 Y162.100974 Z-0.125000
G01 X163.699248 Y161.065826 Z-0.125000
G01 X164.682180 Y160.021464 Z-0.125000
G01 X165.779411 Y158.834456 Z-0.125000
G01 X166.624588 Y157.901351 Z-0.125000
G01 X167.819427 Y156.552663 Z-0.125000
G01 X168.761571 Y155.459079 Z-0.125000
G01 X169.690323 Y154.351732 Z-0.125000
G01 X170.604107 Y153.229868 Z-0.125000
G01 X171.612503 Y151.949593 Z-0.125000
G01 X172.488931 Y150.794559 Z-0.125000
G01 X173.345012 Y149.622956 Z-0.125000
G01 X174.281711 Y148.284437 Z-0.125000
G01 X175.870641 Y145.849474 Z-0.125000
G01 X176.714026 Y144.447636 Z-0.125000
G01 X177.342333 Y143.341171 Z-0.125000
G01 X178.196728 Y141.736007 Z-0.125000
G01 X178.839550 Y140.431273 Z-0.125000
G01 X179.444171 Y139.108534 Z-0.125000
G01 X180.008316 Y137.768347 Z-0.125000
G01 X180.592212 Y136.240631 Z-0.125000
G01 X181.063188 Y134.865900 Z-0.125000
G01 X181.501075 Y133.479926 Z-0.125000
G01 X181.985616 Y131.915945 Z-0.125000
G01 X182.408791 Y130.521599 Z-0.125000
G01 X182.824621 Y129.123274 Z-0.125000
G01 X183.283325 Y127.545260 Z-0.125000
G01 X183.681812 Y126.138237 Z-0.125000
G01 X184.071223 Y124.727039 Z-0.125000
G01 X184.450940 Y123.311597 Z-0.125000
G01 X184.865994 Y121.714014 Z-0.125000
G01 X185.222774 Y120.289427 Z-0.125000
G01 X185.610065 Y118.681465 Z-0.125000
G01 X185.940286 Y117.247608 Z-0.125000
G01 X186.256572 Y115.809381 Z-0.125000
G01 X186.557861 Y114.366775 Z-0.125000
G01 X186.877773 Y112.738597 Z-0.125000
G01 X187.143274 Y111.286881 Z-0.125000
G01 X187.419462 Y109.648630 Z-0.125000
G01 X187.615692 Y108.371099 Z-0.125000
G01 X187.867067 Y106.540538 Z-0.125000
G01 X188.039926 Y105.072271 Z-0.125000
G01 X188.185622 Y103.600783 Z-0.125000
G01 X188.301526 Y102.126529 Z-0.125000
G01 X188.392823 Y100.465341 Z-0.125000
G01 X188.434891 Y98.987512 Z-0.125000
G01 X188.436222 Y97.509605 Z-0.125000
G01 X188.383442 Y95.848549 Z-0.125000
G01 X188.281753 Y94.375971 Z-0.125000
G01 X188.122088 Y92.909886 Z-0.125000
G01 X187.864162 Y91.272758 Z-0.125000
G01 X187.555272 Y89.834395 Z-0.125000
G01 X187.106061 Y88.244085 Z-0.125000
G01 X186.603921 Y86.866152 Z-0.125000
G01 X185.993575 Y85.534915 Z-0.125000
G01 X185.264565 Y84.266628 Z-0.125000
G01 X184.293331 Y82.939361 Z-0.125000
G01 X183.292385 Y81.872274 Z-0.125000
G01 X182.167163 Y80.932742 Z-0.125000
G01 X180.769154 Y80.047608 Z-0.125000
G01 X179.429681 Y79.422571 Z-0.125000
G01 X178.021858 Y78.948574 Z-0.125000
G01 X176.381921 Y78.585119 Z-0.125000
G01 X174.892645 Y78.399392 Z-0.125000
G01 X173.387473 Y78.327960 Z-0.125000
G01 X171.686743 Y78.366649 Z-0.125000
G01 X170.175003 Y78.493197 Z-0.125000
G01 X168.667649 Y78.694779 Z-0.125000
G01 X166.980767 Y78.999278 Z-0.125000
G01 X165.490608 Y79.330572 Z-0.125000
G01 X164.010320 Y79.711768 Z-0.125000
G01 X162.357633 Y80.192991 Z-0.125000
G01 X160.899694 Y80.662397 Z-0.125000
G01 X159.452274 Y81.166665 Z-0.125000
G01 X158.015336 Y81.702303 Z-0.125000
G01 X156.411269 Y82.338444 Z-0.125000
G01 X154.995831 Y82.931361 Z-0.125000
G01 X153.415273 Y83.625953 Z-0.125000
G01 X152.020180 Y84.266155 Z-0.125000
G01 X150.634259 Y84.925860 Z-0.125000
G01 X149.085912 Y85.689259 Z-0.125000
G01 X147.718632 Y86.385707 Z-0.125000
G01 X146.359733 Y87.097592 Z-0.125000
G01 X144.841042 Y87.915315 Z-0.125000
G01 X143.666554 Y88.563518 Z-0.125000
G01 X141.999824 Y89.505192 Z-0.125000
G01 X140.674893 Y90.272162 Z-0.125000
G01 X139.357625 Y91.050069 Z-0.125000
G01 X138.047955 Y91.838308 Z-0.125000
G01 X136.583743 Y92.736461 Z-0.125000
G01 X135.290011 Y93.544822 Z-0.125000
G01 X134.003811 Y94.361839 Z-0.125000
G01 X132.565989 Y95.290489 Z-0.125000
G01 X131.295860 Y96.124423 Z-0.125000
G01 X130.033429 Y96.965598 Z-0.125000
G01 X128.622699 Y97.919837 Z-0.125000
G01 X127.377052 Y98.775134 Z-0.125000
G01 X126.139483 Y99.636524 Z-0.125000
G01 X124.910386 Y100.503476 Z-0.125000
G01 X123.538005 Y101.484783 Z-0.125000
G01 X122.327465 Y102.362390 Z-0.125000
G01 X120.976793 Y103.354545 Z-0.125000
G01 X119.786338 Y104.240756 Z-0.125000
G01 X118.605939 Y105.130207 Z-0.125000
G01 X116.133761 Y107.025606 Z-0.125000
G01 X114.987631 Y107.921219 Z-0.125000
G01 X113.712583 Y108.928990 Z-0.125000
G01 X112.592459 Y109.824463 Z-0.125000
G01 X111.485355 Y110.718295 Z-0.125000
G01 X110.391691 Y111.609301 Z-0.125000
G01 X109.177792 Y112.606411 Z-0.125000
G01 X108.113739 Y113.486885 Z-0.125000
G01 X107.063880 Y114.359872 Z-0.125000
G01 X104.878926 Y116.178738 Z-0.125000
G01 X103.746121 Y117.119266 Z-0.125000
G01 X102.751561 Y117.938612 Z-0.125000
G01 X101.766888 Y118.739796 Z-0.125000
G01 X100.668147 Y119.616557 Z-0.125000
G01 X99.696678 Y120.372570 Z-0.125000
G01 X98.726690 Y121.104754 Z-0.125000
G01 X97.754546 Y121.811986 Z-0.125000
G01 X96.653121 Y122.576723 Z-0.125000
G01 X95.662774 Y123.229366 Z-0.125000
G01 X94.530062 Y123.932844 Z-0.125000
G01 X93.502313 Y124.531974 Z-0.125000
G01 X92.450568 Y125.106844 Z-0.125000
G01 X91.233516 Y125.724705 Z-0.125000
G01 X90.259243 Y126.184184 Z-0.125000
G01 X88.964927 Y126.744039 Z-0.125000
G01 X87.617320 Y127.261818 Z-0.125000
G01 X86.365834 Y127.671875 Z-0.125000
G01 X85.049404 Y128.002408 Z-0.125000
G01 X80.577725 Y127.109735 Z-0.125000
G01 X79.048623 Y126.252576 Z-0.125000
G01 X77.759098 Y125.384097 Z-0.125000
G01 X76.548020 Y124.419512 Z-0.125000
G01 X75.289582 Y123.229788 Z-0.125000
G01 X74.268006 Y122.091783 Z-0.125000
G01 X73.336514 Y120.890419 Z-0.125000
G01 X72.390101 Y119.477199 Z-0.125000
G01 X71.541717 Y118.012529 Z-0.125000
G01 X70.942489 Y116.845557 Z-0.125000
G01 X70.238670 Y115.316201 Z-0.125000
G01 X69.667894 Y113.935415 Z-0.125000
G01 X69.140184 Y112.538518 Z-0.125000
G01 X68.588584 Y110.951224 Z-0.125000
G01 X68.128540 Y109.529191 Z-0.125000
