%
(Header)
(Generated by gcodetools from Inkscape.)
(Using default header. To add your own header create file "header" in the output dir.)
M3
(Header end.)
G21 (All units in mm)

(Start cutting path id: polyline1863)
(Change tool to Default tool)

G00 Z5.000000
G00 X207.822893 Y193.108924

G00 Z4.875000 (Fast pre-penetrate)
G01 Z-0.125000 F100.0(Penetrate)
G01 X178.751325 Y190.632210 Z-0.125000 F800.000000
G01 X160.042311 Y188.276820 Z-0.125000
G01 X141.474965 Y191.904641 Z-0.125000
G01 X117.793372 Y192.067252 Z-0.125000
G01 X101.893953 Y188.552746 Z-0.125000
G01 X72.723446 Y185.876114 Z-0.125000
G01 X56.264515 Y195.646325 Z-0.125000
G01 X25.541871 Y191.849775 Z-0.125000
G01 X3.627405 Y180.595028 Z-0.125000
G00 Z5.000000

(End cutting path id: polyline1863)


(Start cutting path id: polyline1493)
(Change tool to Default tool)

G00 Z5.000000
G00 X2.667709 Y181.873875

G00 Z4.875000 (Fast pre-penetrate)
G01 Z-0.125000 F100.0(Penetrate)
G01 X24.641022 Y193.151156 Z-0.125000 F800.000000
G01 X56.054052 Y197.024809 Z-0.125000
G01 X73.052596 Y186.866252 Z-0.125000
G01 X102.808531 Y189.388481 Z-0.125000
G01 X117.605143 Y193.398430 Z-0.125000
G01 X141.454322 Y193.213087 Z-0.125000
G01 X160.393199 Y188.906519 Z-0.125000
G01 X178.381385 Y191.404573 Z-0.125000
G01 X208.039127 Y194.155223 Z-0.125000
G00 Z5.000000

(End cutting path id: polyline1493)


(Start cutting path id: polyline1495)
(Change tool to Default tool)

G00 Z5.000000
G00 X207.322377 Y194.459253

G00 Z4.875000 (Fast pre-penetrate)
G01 Z-0.125000 F100.0(Penetrate)
G01 X178.853697 Y192.054766 Z-0.125000 F800.000000
G01 X160.531038 Y189.556613 Z-0.125000
G01 X140.780301 Y193.876064 Z-0.125000
G01 X117.715175 Y193.882978 Z-0.125000
G01 X102.742522 Y190.092447 Z-0.125000
G01 X73.306138 Y187.547684 Z-0.125000
G01 X55.605219 Y197.123151 Z-0.125000
G01 X24.853077 Y193.706987 Z-0.125000
G01 X3.287908 Y183.002797 Z-0.125000
G00 Z5.000000

(End cutting path id: polyline1495)


(Start cutting path id: polyline1497)
(Change tool to Default tool)

G00 Z5.000000
G00 X14.452073 Y203.323840

G00 Z4.875000 (Fast pre-penetrate)
G01 Z-0.125000 F100.0(Penetrate)
G01 X28.670022 Y203.711439 Z-0.125000 F800.000000
G01 X47.526973 Y198.893312 Z-0.125000
G01 X77.869877 Y199.814009 Z-0.125000
G01 X101.554405 Y202.763433 Z-0.125000
G01 X119.695353 Y202.605299 Z-0.125000
G01 X128.647736 Y205.809458 Z-0.125000
G01 X163.011433 Y201.258452 Z-0.125000
G01 X187.355407 Y203.758745 Z-0.125000
G01 X193.778895 Y200.280203 Z-0.125000
G01 X187.827718 Y204.408938 Z-0.125000
G01 X163.149221 Y201.908546 Z-0.125000
G01 X127.973715 Y206.472435 Z-0.125000
G01 X119.805385 Y203.089848 Z-0.125000
G01 X101.488396 Y203.467399 Z-0.125000
G01 X78.123418 Y200.495441 Z-0.125000
G01 X47.078190 Y198.991704 Z-0.125000
G01 X28.882077 Y204.267269 Z-0.125000
G01 X15.072321 Y204.452811 Z-0.125000
G00 Z5.000000

(End cutting path id: polyline1497)


(Start cutting path id: polyline1499)
(Change tool to Default tool)

G00 Z5.000000
G00 X16.312767 Y206.710705

G00 Z4.875000 (Fast pre-penetrate)
G01 Z-0.125000 F100.0(Penetrate)
G01 X29.306188 Y205.378881 Z-0.125000 F800.000000
G01 X46.180623 Y199.188339 Z-0.125000
G01 X78.630500 Y201.858405 Z-0.125000
G01 X101.356378 Y204.875280 Z-0.125000
G01 X120.025399 Y204.058994 Z-0.125000
G01 X126.625625 Y207.798340 Z-0.125000
G01 X163.424848 Y203.208734 Z-0.125000
G01 X188.772342 Y205.709374 Z-0.125000
G01 X192.271079 Y200.844539 Z-0.125000
G00 Z5.000000

(End cutting path id: polyline1499)


(Start cutting path id: polyline1501)
(Change tool to Default tool)

G00 Z5.000000
G00 X192.987779 Y200.540459

G00 Z4.875000 (Fast pre-penetrate)
G01 Z-0.125000 F100.0(Penetrate)
G01 X188.300030 Y205.059181 Z-0.125000 F800.000000
G01 X163.287010 Y202.558640 Z-0.125000
G01 X127.299645 Y207.135363 Z-0.125000
G01 X119.915416 Y203.574446 Z-0.125000
G01 X101.422387 Y204.171364 Z-0.125000
G01 X78.376959 Y201.176923 Z-0.125000
G01 X46.629407 Y199.089997 Z-0.125000
G01 X29.094133 Y204.823050 Z-0.125000
G01 X15.692519 Y205.581733 Z-0.125000
G00 Z5.000000

(End cutting path id: polyline1501)


(Start cutting path id: polyline1503)
(Change tool to Default tool)

G00 Z5.000000
G00 X18.027614 Y226.689315

G00 Z4.875000 (Fast pre-penetrate)
G01 Z-0.125000 F100.0(Penetrate)
G01 X29.242666 Y229.289044 Z-0.125000 F800.000000
G01 X54.493608 Y228.763358 Z-0.125000
G01 X70.824748 Y222.849389 Z-0.125000
G01 X92.242279 Y227.863056 Z-0.125000
G01 X143.520356 Y234.796512 Z-0.125000
G01 X148.377729 Y232.128436 Z-0.125000
G01 X173.681946 Y227.072537 Z-0.125000
G01 X199.470761 Y227.416660 Z-0.125000
G00 Z5.000000

(End cutting path id: polyline1503)


(Start cutting path id: polyline1505)
(Change tool to Default tool)

G00 Z5.000000
G00 X199.143500 Y226.208846

G00 Z4.875000 (Fast pre-penetrate)
G01 Z-0.125000 F100.0(Penetrate)
G01 X174.367855 Y226.101450 Z-0.125000 F800.000000
G01 X149.061698 Y230.813922 Z-0.125000
G01 X142.752370 Y233.569297 Z-0.125000
G01 X122.007516 Y230.651112 Z-0.125000
G01 X92.656591 Y226.818150 Z-0.125000
G01 X71.179516 Y221.895264 Z-0.125000
G01 X54.115758 Y227.419048 Z-0.125000
G01 X29.245551 Y228.202205 Z-0.125000
G01 X17.949616 Y225.781203 Z-0.125000
G00 Z5.000000

(End cutting path id: polyline1505)


(Start cutting path id: polyline1489)
(Change tool to Default tool)

G00 Z5.000000
G00 X23.781907 Y153.739022

G00 Z4.875000 (Fast pre-penetrate)
G01 Z-0.125000 F100.0(Penetrate)
G01 X44.459509 Y164.520363 Z-0.125000 F800.000000
G01 X60.684895 Y166.698071 Z-0.125000
G01 X65.811529 Y165.082760 Z-0.125000
G01 X82.688252 Y171.001455 Z-0.125000
G01 X121.746016 Y164.112668 Z-0.125000
G01 X141.907930 Y164.427443 Z-0.125000
G01 X152.673005 Y175.053038 Z-0.125000
G01 X186.520666 Y174.412694 Z-0.125000
G01 X203.282433 Y171.136657 Z-0.125000
G00 Z5.000000

(End cutting path id: polyline1489)


(Start cutting path id: polyline1491)
(Change tool to Default tool)

G00 Z5.000000
G00 X203.498617 Y172.182905

G00 Z4.875000 (Fast pre-penetrate)
G01 Z-0.125000 F100.0(Penetrate)
G01 X186.150676 Y175.185057 Z-0.125000 F800.000000
G01 X153.023943 Y175.682737 Z-0.125000
G01 X141.887286 Y165.735888 Z-0.125000
G01 X121.557788 Y165.443846 Z-0.125000
G01 X83.602831 Y171.837240 Z-0.125000
G01 X66.140679 Y166.072898 Z-0.125000
G01 X60.474382 Y168.076554 Z-0.125000
G01 X43.558659 Y165.821745 Z-0.125000
G01 X22.822162 Y155.017870 Z-0.125000
G00 Z5.000000

(End cutting path id: polyline1491)


(Start cutting path id: polyline1487)
(Change tool to Default tool)

G00 Z5.000000
G00 X11.849110 Y149.178814

G00 Z4.875000 (Fast pre-penetrate)
G01 Z-0.125000 F100.0(Penetrate)
G01 X21.149795 Y148.162411 Z-0.125000 F800.000000
G01 X37.362447 Y134.951961 Z-0.125000
G01 X69.511279 Y143.676420 Z-0.125000
G01 X96.028981 Y145.658438 Z-0.125000
G01 X121.832669 Y153.690224 Z-0.125000
G01 X128.789504 Y155.585589 Z-0.125000
G01 X157.429549 Y147.981296 Z-0.125000
G01 X178.359797 Y137.986594 Z-0.125000
G01 X190.599409 Y135.651051 Z-0.125000
G01 X182.785399 Y135.738749 Z-0.125000
G01 X159.164095 Y141.473990 Z-0.125000
G01 X132.160053 Y148.911544 Z-0.125000
G01 X118.493855 Y146.823872 Z-0.125000
G01 X96.735732 Y139.010608 Z-0.125000
G01 X73.060953 Y138.655789 Z-0.125000
G01 X42.041243 Y133.402659 Z-0.125000
G01 X24.778562 Y143.848333 Z-0.125000
G01 X10.802066 Y144.654770 Z-0.125000
G00 Z5.000000

(End cutting path id: polyline1487)


(Start cutting path id: polyline1483)
(Change tool to Default tool)

G00 Z5.000000
G00 X7.242144 Y129.272978

G00 Z4.875000 (Fast pre-penetrate)
G01 Z-0.125000 F100.0(Penetrate)
G01 X37.116517 Y129.180506 Z-0.125000 F800.000000
G01 X57.949218 Y128.135053 Z-0.125000
G01 X85.129847 Y121.585714 Z-0.125000
G01 X99.138776 Y116.407845 Z-0.125000
G01 X107.141810 Y123.478244 Z-0.125000
G01 X143.619792 Y126.219641 Z-0.125000
G01 X165.061499 Y119.349210 Z-0.125000
G01 X197.832568 Y128.096054 Z-0.125000
G01 X206.816936 Y135.373435 Z-0.125000
G00 Z5.000000

(End cutting path id: polyline1483)


(Start cutting path id: polyline1485)
(Change tool to Default tool)

G00 Z5.000000
G00 X206.077454 Y135.387363

G00 Z4.875000 (Fast pre-penetrate)
G01 Z-0.125000 F100.0(Penetrate)
G01 X196.947438 Y128.545633 Z-0.125000 F800.000000
G01 X164.714590 Y120.650691 Z-0.125000
G01 X142.945722 Y127.554500 Z-0.125000
G01 X107.809563 Y124.851504 Z-0.125000
G01 X98.997406 Y117.737381 Z-0.125000
G01 X84.419913 Y122.589830 Z-0.125000
G01 X57.013449 Y128.444903 Z-0.125000
G01 X36.390764 Y130.043351 Z-0.125000
G01 X7.451563 Y130.177807 Z-0.125000
G00 Z5.000000

(End cutting path id: polyline1485)


(Start cutting path id: polyline1479)
(Change tool to Default tool)

G00 Z5.000000
G00 X3.947851 Y95.833858

G00 Z4.875000 (Fast pre-penetrate)
G01 Z-0.125000 F100.0(Penetrate)
G01 X29.628076 Y104.889061 Z-0.125000 F800.000000
G01 X56.896453 Y107.312251 Z-0.125000
G01 X61.327527 Y117.916009 Z-0.125000
G01 X98.492065 Y113.907254 Z-0.125000
G01 X134.656814 Y99.295587 Z-0.125000
G01 X137.130593 Y96.436895 Z-0.125000
G01 X147.351477 Y110.260083 Z-0.125000
G01 X166.706855 Y111.135115 Z-0.125000
G01 X202.373127 Y106.192134 Z-0.125000
G00 Z5.000000

(End cutting path id: polyline1479)


(Start cutting path id: polyline1481)
(Change tool to Default tool)

G00 Z5.000000
G00 X202.396357 Y105.238954

G00 Z4.875000 (Fast pre-penetrate)
G01 Z-0.125000 F100.0(Penetrate)
G01 X167.788819 Y109.498813 Z-0.125000 F800.000000
G01 X148.188556 Y109.087287 Z-0.125000
G01 X137.367470 Y95.852761 Z-0.125000
G01 X133.508542 Y98.390112 Z-0.125000
G01 X98.039551 Y112.081728 Z-0.125000
G01 X62.002443 Y116.517330 Z-0.125000
G01 X56.766325 Y106.224765 Z-0.125000
G01 X29.890571 Y104.278761 Z-0.125000
G01 X4.687084 Y95.372590 Z-0.125000
G00 Z5.000000

(End cutting path id: polyline1481)


(Start cutting path id: polyline1475)
(Change tool to Default tool)

G00 Z5.000000
G00 X20.210544 Y85.685997

G00 Z4.875000 (Fast pre-penetrate)
G01 Z-0.125000 F100.0(Penetrate)
G01 X35.403063 Y91.462376 Z-0.125000 F800.000000
G01 X54.034130 Y83.387761 Z-0.125000
G01 X76.174679 Y87.144069 Z-0.125000
G01 X88.536809 Y73.746335 Z-0.125000
G01 X109.394978 Y79.374729 Z-0.125000
G01 X142.342387 Y83.586336 Z-0.125000
G01 X165.767206 Y84.458981 Z-0.125000
G01 X190.509872 Y75.136359 Z-0.125000
G01 X202.884736 Y85.222639 Z-0.125000
G00 Z5.000000

(End cutting path id: polyline1475)


(Start cutting path id: polyline1477)
(Change tool to Default tool)

G00 Z5.000000
G00 X202.861506 Y86.175768

G00 Z4.875000 (Fast pre-penetrate)
G01 Z-0.125000 F100.0(Penetrate)
G01 X189.427907 Y76.772662 Z-0.125000 F800.000000
G01 X164.930127 Y85.631777 Z-0.125000
G01 X142.105460 Y84.170471 Z-0.125000
G01 X110.543201 Y80.280254 Z-0.125000
G01 X88.989323 Y75.571811 Z-0.125000
G01 X75.499813 Y88.542799 Z-0.125000
G01 X54.164208 Y84.475247 Z-0.125000
G01 X35.140568 Y92.072675 Z-0.125000
G01 X19.471311 Y86.147266 Z-0.125000
G00 Z5.000000

(End cutting path id: polyline1477)


(Start cutting path id: polyline1471)
(Change tool to Default tool)

G00 Z5.000000
G00 X9.488348 Y64.563890

G00 Z4.875000 (Fast pre-penetrate)
G01 Z-0.125000 F100.0(Penetrate)
G01 X46.993278 Y66.193229 Z-0.125000 F800.000000
G01 X57.106220 Y62.010174 Z-0.125000
G01 X73.938075 Y57.675551 Z-0.125000
G01 X106.803258 Y60.802359 Z-0.125000
G01 X128.057433 Y61.068336 Z-0.125000
G01 X138.465352 Y62.356535 Z-0.125000
G01 X162.808232 Y65.930186 Z-0.125000
G01 X163.791555 Y53.992117 Z-0.125000
G01 X193.832717 Y55.134470 Z-0.125000
G00 Z5.000000

(End cutting path id: polyline1471)


(Start cutting path id: polyline1473)
(Change tool to Default tool)

G00 Z5.000000
G00 X194.019254 Y54.377676

G00 Z4.875000 (Fast pre-penetrate)
G01 Z-0.125000 F100.0(Penetrate)
G01 X164.573867 Y53.301980 Z-0.125000 F800.000000
G01 X162.808779 Y65.205577 Z-0.125000
G01 X138.746550 Y61.408828 Z-0.125000
G01 X127.269849 Y60.019749 Z-0.125000
G01 X105.940263 Y59.974383 Z-0.125000
G01 X73.867390 Y56.910550 Z-0.125000
G01 X57.102937 Y61.188814 Z-0.125000
G01 X46.631695 Y65.474738 Z-0.125000
G01 X9.473773 Y63.352394 Z-0.125000
G00 Z5.000000

(End cutting path id: polyline1473)


(Start cutting path id: polyline1467)
(Change tool to Default tool)

G00 Z5.000000
G00 X9.168151 Y37.911185

G00 Z4.875000 (Fast pre-penetrate)
G01 Z-0.125000 F100.0(Penetrate)
G01 X39.038694 Y50.386481 Z-0.125000 F800.000000
G01 X57.033844 Y43.940011 Z-0.125000
G01 X72.383351 Y40.845238 Z-0.125000
G01 X87.818169 Y42.586101 Z-0.125000
G01 X110.730185 Y37.999380 Z-0.125000
G01 X144.651168 Y41.506424 Z-0.125000
G01 X162.819971 Y49.989132 Z-0.125000
G01 X181.002603 Y38.809149 Z-0.125000
G01 X197.936133 Y38.485072 Z-0.125000
G00 Z5.000000

(End cutting path id: polyline1467)


(Start cutting path id: polyline1469)
(Change tool to Default tool)

G00 Z5.000000
G00 X197.749596 Y39.241865

G00 Z4.875000 (Fast pre-penetrate)
G01 Z-0.125000 F100.0(Penetrate)
G01 X180.220292 Y39.499286 Z-0.125000 F800.000000
G01 X162.819424 Y50.713692 Z-0.125000
G01 X144.370019 Y42.454182 Z-0.125000
G01 X111.517769 Y39.047966 Z-0.125000
G01 X88.681114 Y43.414076 Z-0.125000
G01 X72.453987 Y41.610239 Z-0.125000
G01 X57.037176 Y44.761421 Z-0.125000
G01 X39.400277 Y51.104972 Z-0.125000
G01 X9.182676 Y39.122681 Z-0.125000
G00 Z5.000000

(End cutting path id: polyline1469)


(Start cutting path id: polyline1645)
(Change tool to Default tool)

G00 Z5.000000
G00 X194.205742 Y53.620883

G00 Z4.875000 (Fast pre-penetrate)
G01 Z-0.125000 F100.0(Penetrate)
G01 X165.356228 Y52.611843 Z-0.125000 F800.000000
G01 X162.809276 Y64.481018 Z-0.125000
G01 X139.027699 Y60.461071 Z-0.125000
G01 X126.482215 Y58.971163 Z-0.125000
G01 X105.077318 Y59.146358 Z-0.125000
G01 X73.796755 Y56.145500 Z-0.125000
G01 X57.099654 Y60.367404 Z-0.125000
G01 X46.270111 Y64.756247 Z-0.125000
G01 X9.459248 Y62.140899 Z-0.125000
G00 Z5.000000

(End cutting path id: polyline1645)


(Start cutting path id: polyline1643)
(Change tool to Default tool)

G00 Z5.000000
G00 X194.244193 Y56.502109

G00 Z4.875000 (Fast pre-penetrate)
G01 Z-0.125000 F100.0(Penetrate)
G01 X165.006036 Y54.953205 Z-0.125000 F800.000000
G01 X162.942737 Y66.772389 Z-0.125000
G01 X138.641592 Y63.321554 Z-0.125000
G01 X127.209162 Y61.900440 Z-0.125000
G01 X105.972945 Y61.390722 Z-0.125000
G01 X74.039750 Y59.015036 Z-0.125000
G01 X56.966591 Y62.981907 Z-0.125000
G01 X46.466448 Y67.341799 Z-0.125000
G01 X9.975732 Y65.523983 Z-0.125000
G00 Z5.000000

(End cutting path id: polyline1643)


(Start cutting path id: polyline1649)
(Change tool to Default tool)

G00 Z5.000000
G00 X194.655619 Y57.869749

G00 Z4.875000 (Fast pre-penetrate)
G01 Z-0.125000 F100.0(Penetrate)
G01 X166.220516 Y55.914294 Z-0.125000 F800.000000
G01 X163.077243 Y67.614640 Z-0.125000
G01 X138.817832 Y64.286522 Z-0.125000
G01 X126.360842 Y62.732594 Z-0.125000
G01 X105.142681 Y61.979084 Z-0.125000
G01 X74.141425 Y60.354521 Z-0.125000
G01 X56.826912 Y63.953591 Z-0.125000
G01 X45.939618 Y68.490419 Z-0.125000
G01 X10.463066 Y66.484077 Z-0.125000
G00 Z5.000000

(End cutting path id: polyline1649)


(Start cutting path id: polyline1647)
(Change tool to Default tool)

G00 Z5.000000
G00 X194.392279 Y52.864090

G00 Z4.875000 (Fast pre-penetrate)
G01 Z-0.125000 F100.0(Penetrate)
G01 X166.138539 Y51.921705 Z-0.125000 F800.000000
G01 X162.809823 Y63.756409 Z-0.125000
G01 X139.308897 Y59.513363 Z-0.125000
G01 X125.694631 Y57.922576 Z-0.125000
G01 X104.214373 Y58.318333 Z-0.125000
G01 X73.726070 Y55.380499 Z-0.125000
G01 X57.096371 Y59.546045 Z-0.125000
G01 X45.908528 Y64.037756 Z-0.125000
G01 X9.444673 Y60.929453 Z-0.125000
G00 Z5.000000

(End cutting path id: polyline1647)


(Start cutting path id: polyline1651)
(Change tool to Default tool)

G00 Z5.000000
G00 X194.578816 Y52.107297

G00 Z4.875000 (Fast pre-penetrate)
G01 Z-0.125000 F100.0(Penetrate)
G01 X166.920850 Y51.231568 Z-0.125000 F800.000000
G01 X162.810371 Y63.031799 Z-0.125000
G01 X139.590046 Y58.565606 Z-0.125000
G01 X124.907047 Y56.873989 Z-0.125000
G01 X103.351428 Y57.490307 Z-0.125000
G01 X73.655385 Y54.615499 Z-0.125000
G01 X57.093038 Y58.724685 Z-0.125000
G01 X45.546995 Y63.319265 Z-0.125000
G01 X9.430099 Y59.717957 Z-0.125000
G00 Z5.000000

(End cutting path id: polyline1651)


(Start cutting path id: polyline1653)
(Change tool to Default tool)

G00 Z5.000000
G00 X194.765353 Y51.350504

G00 Z4.875000 (Fast pre-penetrate)
G01 Z-0.125000 F100.0(Penetrate)
G01 X167.703162 Y50.541431 Z-0.125000 F800.000000
G01 X162.810918 Y62.307190 Z-0.125000
G01 X139.871244 Y57.617899 Z-0.125000
G01 X124.119413 Y55.825403 Z-0.125000
G01 X102.488434 Y56.662282 Z-0.125000
G01 X73.584749 Y53.850448 Z-0.125000
G01 X57.089755 Y57.903325 Z-0.125000
G01 X45.185411 Y62.600775 Z-0.125000
G01 X9.415574 Y58.506462 Z-0.125000
G00 Z5.000000

(End cutting path id: polyline1653)


(Start cutting path id: polyline1655)
(Change tool to Default tool)

G00 Z5.000000
G00 X195.067095 Y59.237388

G00 Z4.875000 (Fast pre-penetrate)
G01 Z-0.125000 F100.0(Penetrate)
G01 X167.434996 Y56.875432 Z-0.125000 F800.000000
G01 X163.211749 Y68.456843 Z-0.125000
G01 X125.512571 Y63.564698 Z-0.125000
G01 X104.312367 Y62.567447 Z-0.125000
G01 X74.243100 Y61.693956 Z-0.125000
G01 X56.687283 Y64.925324 Z-0.125000
G01 X45.412787 Y69.639039 Z-0.125000
G01 X10.950450 Y67.444171 Z-0.125000
G00 Z5.000000

(End cutting path id: polyline1655)


(Start cutting path id: polyline1657)
(Change tool to Default tool)

G00 Z5.000000
G00 X195.478521 Y60.605028

G00 Z4.875000 (Fast pre-penetrate)
G01 Z-0.125000 F100.0(Penetrate)
G01 X168.649426 Y57.836520 Z-0.125000 F800.000000
G01 X163.346254 Y69.299045 Z-0.125000
G01 X124.664251 Y64.396803 Z-0.125000
G01 X103.482104 Y63.155809 Z-0.125000
G01 X74.344726 Y63.033441 Z-0.125000
G01 X56.547653 Y65.897008 Z-0.125000
G01 X44.885957 Y70.787610 Z-0.125000
G01 X11.437834 Y68.404264 Z-0.125000
G00 Z5.000000

(End cutting path id: polyline1657)


(Start cutting path id: polyline1659)
(Change tool to Default tool)

G00 Z5.000000
G00 X194.951840 Y50.593711

G00 Z4.875000 (Fast pre-penetrate)
G01 Z-0.125000 F100.0(Penetrate)
G01 X168.485473 Y49.851294 Z-0.125000 F800.000000
G01 X162.811415 Y61.582631 Z-0.125000
G01 X140.152393 Y56.670142 Z-0.125000
G01 X123.331829 Y54.776816 Z-0.125000
G01 X101.625489 Y55.834307 Z-0.125000
G01 X73.514064 Y53.085448 Z-0.125000
G01 X57.086472 Y57.081966 Z-0.125000
G01 X44.823828 Y61.882284 Z-0.125000
G01 X9.400999 Y57.294966 Z-0.125000
G00 Z5.000000

(End cutting path id: polyline1659)


(Start cutting path id: polyline1661)
(Change tool to Default tool)

G00 Z5.000000
G00 X195.138377 Y49.836918

G00 Z4.875000 (Fast pre-penetrate)
G01 Z-0.125000 F100.0(Penetrate)
G01 X169.267834 Y49.161157 Z-0.125000 F800.000000
G01 X162.811962 Y60.858022 Z-0.125000
G01 X140.433591 Y55.722434 Z-0.125000
G01 X122.544195 Y53.728229 Z-0.125000
G01 X100.762543 Y55.006281 Z-0.125000
G01 X73.443379 Y52.320447 Z-0.125000
G01 X57.083189 Y56.260556 Z-0.125000
G01 X44.462245 Y61.163793 Z-0.125000
G01 X9.386474 Y56.083470 Z-0.125000
G00 Z5.000000

(End cutting path id: polyline1661)


(Start cutting path id: polyline1663)
(Change tool to Default tool)

G00 Z5.000000
G00 X195.324864 Y49.080125

G00 Z4.875000 (Fast pre-penetrate)
G01 Z-0.125000 F100.0(Penetrate)
G01 X170.050145 Y48.471069 Z-0.125000 F800.000000
G01 X162.812510 Y60.133412 Z-0.125000
G01 X140.714740 Y54.774677 Z-0.125000
G01 X121.756611 Y52.679643 Z-0.125000
G01 X99.899549 Y54.178256 Z-0.125000
G01 X73.372694 Y51.555446 Z-0.125000
G01 X57.079906 Y55.439196 Z-0.125000
G01 X44.100711 Y60.445302 Z-0.125000
G01 X9.371899 Y54.872024 Z-0.125000
G00 Z5.000000

(End cutting path id: polyline1663)


(Start cutting path id: polyline1665)
(Change tool to Default tool)

G00 Z5.000000
G00 X195.511401 Y48.323332

G00 Z4.875000 (Fast pre-penetrate)
G01 Z-0.125000 F100.0(Penetrate)
G01 X170.832457 Y47.780932 Z-0.125000 F800.000000
G01 X162.813057 Y59.408853 Z-0.125000
G01 X140.995888 Y53.826970 Z-0.125000
G01 X120.969027 Y51.631056 Z-0.125000
G01 X99.036604 Y53.350231 Z-0.125000
G01 X73.302059 Y50.790396 Z-0.125000
G01 X57.076623 Y54.617837 Z-0.125000
G01 X43.739128 Y59.726811 Z-0.125000
G01 X9.357324 Y53.660529 Z-0.125000
G00 Z5.000000

(End cutting path id: polyline1665)


(Start cutting path id: polyline1667)
(Change tool to Default tool)

G00 Z5.000000
G00 X195.697938 Y47.566539

G00 Z4.875000 (Fast pre-penetrate)
G01 Z-0.125000 F100.0(Penetrate)
G01 X171.614768 Y47.090795 Z-0.125000 F800.000000
G01 X162.813604 Y58.684244 Z-0.125000
G01 X141.277087 Y52.879212 Z-0.125000
G01 X120.181393 Y50.582469 Z-0.125000
G01 X98.173659 Y52.522255 Z-0.125000
G01 X73.231374 Y50.025395 Z-0.125000
G01 X57.073340 Y53.796477 Z-0.125000
G01 X43.377544 Y59.008321 Z-0.125000
G01 X9.342799 Y52.449033 Z-0.125000
G00 Z5.000000

(End cutting path id: polyline1667)


(Start cutting path id: polyline1669)
(Change tool to Default tool)

G00 Z5.000000
G00 X195.884425 Y46.809746

G00 Z4.875000 (Fast pre-penetrate)
G01 Z-0.125000 F100.0(Penetrate)
G01 X172.397079 Y46.400658 Z-0.125000 F800.000000
G01 X162.814101 Y57.959635 Z-0.125000
G01 X141.558235 Y51.931505 Z-0.125000
G01 X119.393809 Y49.533883 Z-0.125000
G01 X97.310714 Y51.694230 Z-0.125000
G01 X73.160688 Y49.260395 Z-0.125000
G01 X57.070057 Y52.975117 Z-0.125000
G01 X43.016011 Y58.289880 Z-0.125000
G01 X9.328224 Y51.237537 Z-0.125000
G00 Z5.000000

(End cutting path id: polyline1669)


(Start cutting path id: polyline1671)
(Change tool to Default tool)

G00 Z5.000000
G00 X196.070962 Y46.052953

G00 Z4.875000 (Fast pre-penetrate)
G01 Z-0.125000 F100.0(Penetrate)
G01 X173.179440 Y45.710521 Z-0.125000 F800.000000
G01 X162.814649 Y57.235075 Z-0.125000
G01 X141.839433 Y50.983748 Z-0.125000
G01 X118.606225 Y48.485296 Z-0.125000
G01 X96.447719 Y50.866204 Z-0.125000
G01 X73.090053 Y48.495344 Z-0.125000
G01 X57.066774 Y52.153708 Z-0.125000
G01 X42.654427 Y57.571389 Z-0.125000
G01 X9.313699 Y50.026042 Z-0.125000
G00 Z5.000000

(End cutting path id: polyline1671)


(Start cutting path id: polyline1673)
(Change tool to Default tool)

G00 Z5.000000
G00 X195.889997 Y61.972667

G00 Z4.875000 (Fast pre-penetrate)
G01 Z-0.125000 F100.0(Penetrate)
G01 X169.863907 Y58.797609 Z-0.125000 F800.000000
G01 X163.480710 Y70.141247 Z-0.125000
G01 X123.815980 Y65.228907 Z-0.125000
G01 X102.651790 Y63.744172 Z-0.125000
G01 X74.446401 Y64.372926 Z-0.125000
G01 X56.408024 Y66.868741 Z-0.125000
G01 X44.359127 Y71.936230 Z-0.125000
G01 X11.925217 Y69.364358 Z-0.125000
G00 Z5.000000

(End cutting path id: polyline1673)


(Start cutting path id: polyline1675)
(Change tool to Default tool)

G00 Z5.000000
G00 X196.301472 Y63.340307

G00 Z4.875000 (Fast pre-penetrate)
G01 Z-0.125000 F100.0(Penetrate)
G01 X171.078387 Y59.758747 Z-0.125000 F800.000000
G01 X163.615216 Y70.983499 Z-0.125000
G01 X122.967659 Y66.061011 Z-0.125000
G01 X101.821477 Y64.332534 Z-0.125000
G01 X74.548076 Y65.712411 Z-0.125000
G01 X56.268395 Y67.840425 Z-0.125000
G01 X43.832297 Y73.084801 Z-0.125000
G01 X12.412552 Y70.324451 Z-0.125000
G00 Z5.000000

(End cutting path id: polyline1675)


(Start cutting path id: polyline1677)
(Change tool to Default tool)

G00 Z5.000000
G00 X196.712898 Y64.707946

G00 Z4.875000 (Fast pre-penetrate)
G01 Z-0.125000 F100.0(Penetrate)
G01 X172.292817 Y60.719835 Z-0.125000 F800.000000
G01 X163.749721 Y71.825701 Z-0.125000
G01 X139.698934 Y69.111463 Z-0.125000
G01 X122.119388 Y66.893115 Z-0.125000
G01 X100.991213 Y64.920897 Z-0.125000
G01 X74.649751 Y67.051896 Z-0.125000
G01 X56.128716 Y68.812158 Z-0.125000
G01 X43.305466 Y74.233421 Z-0.125000
G01 X12.899935 Y71.284545 Z-0.125000
G00 Z5.000000

(End cutting path id: polyline1677)


(Start cutting path id: polyline1679)
(Change tool to Default tool)

G00 Z5.000000
G00 X197.124374 Y66.075586

G00 Z4.875000 (Fast pre-penetrate)
G01 Z-0.125000 F100.0(Penetrate)
G01 X173.507298 Y61.680923 Z-0.125000 F800.000000
G01 X163.884227 Y72.667903 Z-0.125000
G01 X139.875174 Y70.076481 Z-0.125000
G01 X121.271068 Y67.725220 Z-0.125000
G01 X100.160899 Y65.509260 Z-0.125000
G01 X74.751377 Y68.391381 Z-0.125000
G01 X55.989087 Y69.783842 Z-0.125000
G01 X42.778636 Y75.381991 Z-0.125000
G01 X13.387319 Y72.244638 Z-0.125000
G00 Z5.000000

(End cutting path id: polyline1679)


(Start cutting path id: polyline1681)
(Change tool to Default tool)

G00 Z5.000000
G00 X197.535800 Y67.443275

G00 Z4.875000 (Fast pre-penetrate)
G01 Z-0.125000 F100.0(Penetrate)
G01 X174.721778 Y62.642061 Z-0.125000 F800.000000
G01 X164.018732 Y73.510155 Z-0.125000
G01 X140.051414 Y71.041449 Z-0.125000
G01 X120.422797 Y68.557324 Z-0.125000
G01 X99.330636 Y66.097622 Z-0.125000
G01 X74.853052 Y69.730865 Z-0.125000
G01 X55.849458 Y70.755575 Z-0.125000
G01 X42.251806 Y76.530612 Z-0.125000
G01 X13.874703 Y73.204732 Z-0.125000
G00 Z5.000000

(End cutting path id: polyline1681)


(Start cutting path id: polyline1683)
(Change tool to Default tool)

G00 Z5.000000
G00 X197.947276 Y68.810915

G00 Z4.875000 (Fast pre-penetrate)
G01 Z-0.125000 F100.0(Penetrate)
G01 X175.936258 Y63.603150 Z-0.125000 F800.000000
G01 X164.153188 Y74.352357 Z-0.125000
G01 X140.227654 Y72.006468 Z-0.125000
G01 X98.500322 Y66.685985 Z-0.125000
G01 X74.954727 Y71.070350 Z-0.125000
G01 X55.709779 Y71.727259 Z-0.125000
G01 X41.724976 Y77.679182 Z-0.125000
G01 X14.362037 Y74.164825 Z-0.125000
G00 Z5.000000

(End cutting path id: polyline1683)


(Start cutting path id: polyline1685)
(Change tool to Default tool)

G00 Z5.000000
G00 X198.358752 Y70.178554

G00 Z4.875000 (Fast pre-penetrate)
G01 Z-0.125000 F100.0(Penetrate)
G01 X177.150738 Y64.564238 Z-0.125000 F800.000000
G01 X164.287744 Y75.194609 Z-0.125000
G01 X140.403894 Y72.971436 Z-0.125000
G01 X118.726206 Y70.221582 Z-0.125000
G01 X97.670009 Y67.274347 Z-0.125000
G01 X75.056402 Y72.409835 Z-0.125000
G01 X55.570150 Y72.698992 Z-0.125000
G01 X41.198146 Y78.827802 Z-0.125000
G01 X14.849421 Y75.124968 Z-0.125000
G00 Z5.000000

(End cutting path id: polyline1685)


(Start cutting path id: polyline1687)
(Change tool to Default tool)

G00 Z5.000000
G00 X196.257450 Y45.296210

G00 Z4.875000 (Fast pre-penetrate)
G01 Z-0.125000 F100.0(Penetrate)
G01 X173.961702 Y45.020384 Z-0.125000 F800.000000
G01 X162.815196 Y56.510466 Z-0.125000
G01 X142.120582 Y50.036040 Z-0.125000
G01 X117.818591 Y47.436709 Z-0.125000
G01 X95.584774 Y50.038179 Z-0.125000
G01 X73.019368 Y47.730343 Z-0.125000
G01 X57.063441 Y51.332348 Z-0.125000
G01 X42.292844 Y56.852898 Z-0.125000
G01 X9.299125 Y48.814546 Z-0.125000
G00 Z5.000000

(End cutting path id: polyline1687)


(Start cutting path id: polyline1689)
(Change tool to Default tool)

G00 Z5.000000
G00 X196.443987 Y44.539417

G00 Z4.875000 (Fast pre-penetrate)
G01 Z-0.125000 F100.0(Penetrate)
G01 X174.744063 Y44.330246 Z-0.125000 F800.000000
G01 X162.815693 Y55.785857 Z-0.125000
G01 X142.401780 Y49.088283 Z-0.125000
G01 X117.031007 Y46.388123 Z-0.125000
G01 X94.721829 Y49.210204 Z-0.125000
G01 X72.948683 Y46.965343 Z-0.125000
G01 X57.060158 Y50.510988 Z-0.125000
G01 X41.931261 Y56.134407 Z-0.125000
G01 X9.284550 Y47.603100 Z-0.125000
G00 Z5.000000

(End cutting path id: polyline1689)


(Start cutting path id: polyline1691)
(Change tool to Default tool)

G00 Z5.000000
G00 X196.630524 Y43.782624

G00 Z4.875000 (Fast pre-penetrate)
G01 Z-0.125000 F100.0(Penetrate)
G01 X175.526374 Y43.640109 Z-0.125000 F800.000000
G01 X162.816240 Y55.061297 Z-0.125000
G01 X142.682979 Y48.140576 Z-0.125000
G01 X116.243423 Y45.339486 Z-0.125000
G01 X93.858884 Y48.382178 Z-0.125000
G01 X72.877998 Y46.200342 Z-0.125000
G01 X57.056875 Y49.689629 Z-0.125000
G01 X41.569727 Y55.415917 Z-0.125000
G01 X9.270025 Y46.391605 Z-0.125000
G00 Z5.000000

(End cutting path id: polyline1691)


(Start cutting path id: polyline1693)
(Change tool to Default tool)

G00 Z5.000000
G00 X196.817011 Y43.025831

G00 Z4.875000 (Fast pre-penetrate)
G01 Z-0.125000 F100.0(Penetrate)
G01 X176.308685 Y42.949972 Z-0.125000 F800.000000
G01 X162.816788 Y54.336688 Z-0.125000
G01 X142.964127 Y47.192818 Z-0.125000
G01 X115.455789 Y44.290900 Z-0.125000
G01 X92.995889 Y47.554153 Z-0.125000
G01 X72.807363 Y45.435292 Z-0.125000
G01 X57.053592 Y48.868269 Z-0.125000
G01 X41.208144 Y54.697426 Z-0.125000
G01 X9.255450 Y45.180109 Z-0.125000
G00 Z5.000000

(End cutting path id: polyline1693)


(Start cutting path id: polyline1695)
(Change tool to Default tool)

G00 Z5.000000
G00 X197.003548 Y42.269037

G00 Z4.875000 (Fast pre-penetrate)
G01 Z-0.125000 F100.0(Penetrate)
G01 X177.090997 Y42.259835 Z-0.125000 F800.000000
G01 X162.817335 Y53.612079 Z-0.125000
G01 X143.245325 Y46.245111 Z-0.125000
G01 X114.668205 Y43.242313 Z-0.125000
G01 X92.132944 Y46.726128 Z-0.125000
G01 X72.736677 Y44.670291 Z-0.125000
G01 X57.050309 Y48.046859 Z-0.125000
G01 X40.846561 Y53.978935 Z-0.125000
G01 X9.240925 Y43.968613 Z-0.125000
G00 Z5.000000

(End cutting path id: polyline1695)


(Start cutting path id: polyline1697)
(Change tool to Default tool)

G00 Z5.000000
G00 X197.190085 Y41.512244

G00 Z4.875000 (Fast pre-penetrate)
G01 Z-0.125000 F100.0(Penetrate)
G01 X177.873308 Y41.569698 Z-0.125000 F800.000000
G01 X162.817832 Y52.887470 Z-0.125000
G01 X143.526474 Y45.297354 Z-0.125000
G01 X113.880621 Y42.193726 Z-0.125000
G01 X91.269999 Y45.898152 Z-0.125000
G01 X72.666042 Y43.905290 Z-0.125000
G01 X57.047025 Y47.225500 Z-0.125000
G01 X40.484977 Y53.260444 Z-0.125000
G01 X9.226350 Y42.757118 Z-0.125000
G00 Z5.000000

(End cutting path id: polyline1697)


(Start cutting path id: polyline1699)
(Change tool to Default tool)

G00 Z5.000000
G00 X197.376572 Y40.755451

G00 Z4.875000 (Fast pre-penetrate)
G01 Z-0.125000 F100.0(Penetrate)
G01 X178.655669 Y40.879561 Z-0.125000 F800.000000
G01 X162.818379 Y52.162910 Z-0.125000
G01 X143.807672 Y44.349646 Z-0.125000
G01 X113.092987 Y41.145140 Z-0.125000
G01 X90.407004 Y45.070127 Z-0.125000
G01 X72.595357 Y43.140240 Z-0.125000
G01 X57.043742 Y46.404140 Z-0.125000
G01 X40.123444 Y52.541953 Z-0.125000
G01 X9.211825 Y41.545622 Z-0.125000
G00 Z5.000000

(End cutting path id: polyline1699)


(Start cutting path id: polyline1701)
(Change tool to Default tool)

G00 Z5.000000
G00 X197.563109 Y39.998658

G00 Z4.875000 (Fast pre-penetrate)
G01 Z-0.125000 F100.0(Penetrate)
G01 X179.437980 Y40.189424 Z-0.125000 F800.000000
G01 X162.818926 Y51.438301 Z-0.125000
G01 X144.088821 Y43.401889 Z-0.125000
G01 X112.305403 Y40.096553 Z-0.125000
G01 X89.544059 Y44.242102 Z-0.125000
G01 X72.524672 Y42.375239 Z-0.125000
G01 X57.040459 Y45.582780 Z-0.125000
G01 X39.761860 Y51.823463 Z-0.125000
G01 X9.197251 Y40.334176 Z-0.125000
G00 Z5.000000

(End cutting path id: polyline1701)


(Start cutting path id: polyline1703)
(Change tool to Default tool)

G00 Z5.000000
G00 X198.770178 Y71.546194

G00 Z4.875000 (Fast pre-penetrate)
G01 Z-0.125000 F100.0(Penetrate)
G01 X178.365169 Y65.525327 Z-0.125000 F800.000000
G01 X164.422249 Y76.036811 Z-0.125000
G01 X140.580085 Y73.936404 Z-0.125000
G01 X117.877885 Y71.053686 Z-0.125000
G01 X96.839745 Y67.862710 Z-0.125000
G01 X75.158027 Y73.749270 Z-0.125000
G01 X55.430521 Y73.670676 Z-0.125000
G01 X40.671315 Y79.976423 Z-0.125000
G01 X15.336805 Y76.085062 Z-0.125000
G00 Z5.000000

(End cutting path id: polyline1703)


(Start cutting path id: polyline1705)
(Change tool to Default tool)

G00 Z5.000000
G00 X199.181653 Y72.913833

G00 Z4.875000 (Fast pre-penetrate)
G01 Z-0.125000 F100.0(Penetrate)
G01 X179.579649 Y66.486465 Z-0.125000 F800.000000
G01 X164.556705 Y76.879013 Z-0.125000
G01 X140.756325 Y74.901422 Z-0.125000
G01 X117.029614 Y71.885791 Z-0.125000
G01 X96.009431 Y68.451072 Z-0.125000
G01 X75.259702 Y75.088755 Z-0.125000
G01 X55.290892 Y74.642409 Z-0.125000
G01 X40.144485 Y81.124993 Z-0.125000
G01 X15.824189 Y77.045155 Z-0.125000
G00 Z5.000000

(End cutting path id: polyline1705)


(Start cutting path id: polyline1707)
(Change tool to Default tool)

G00 Z5.000000
G00 X199.593079 Y74.281473

G00 Z4.875000 (Fast pre-penetrate)
G01 Z-0.125000 F100.0(Penetrate)
G01 X180.794129 Y67.447553 Z-0.125000 F800.000000
G01 X164.691211 Y77.721215 Z-0.125000
G01 X140.932565 Y75.866391 Z-0.125000
G01 X116.181294 Y72.717895 Z-0.125000
G01 X95.179168 Y69.039435 Z-0.125000
G01 X75.361377 Y76.428240 Z-0.125000
G01 X55.151213 Y75.614093 Z-0.125000
G01 X39.617655 Y82.273613 Z-0.125000
G01 X16.311523 Y78.005249 Z-0.125000
G00 Z5.000000

(End cutting path id: polyline1707)


(Start cutting path id: polyline1565)
(Change tool to Default tool)

G00 Z5.000000
G00 X190.599409 Y135.651051

G00 Z4.875000 (Fast pre-penetrate)
G01 Z-0.125000 F100.0(Penetrate)
G01 X192.767069 Y135.638019 Z-0.125000 F800.000000
G01 X181.015188 Y136.637857 Z-0.125000
G01 X158.470276 Y144.076903 Z-0.125000
G01 X130.811814 Y151.581162 Z-0.125000
G01 X119.829361 Y149.570393 Z-0.125000
G01 X96.453041 Y141.669730 Z-0.125000
G01 X71.641083 Y140.664072 Z-0.125000
G01 X40.169705 Y134.022360 Z-0.125000
G01 X23.327055 Y145.573974 Z-0.125000
G01 X11.220904 Y146.464378 Z-0.125000
G00 Z5.000000

(End cutting path id: polyline1565)


(Start cutting path id: polyline1567)
(Change tool to Default tool)

G00 Z5.000000
G00 X191.127433 Y137.291483

G00 Z4.875000 (Fast pre-penetrate)
G01 Z-0.125000 F100.0(Penetrate)
G01 X178.730732 Y139.642297 Z-0.125000 F800.000000
G01 X157.213316 Y149.211844 Z-0.125000
G01 X129.385776 Y155.987514 Z-0.125000
G01 X121.828739 Y154.163978 Z-0.125000
G01 X95.422561 Y146.810441 Z-0.125000
G01 X69.343097 Y144.649447 Z-0.125000
G01 X38.422525 Y136.394961 Z-0.125000
G01 X22.209326 Y148.905973 Z-0.125000
G01 X12.391510 Y149.386094 Z-0.125000
G00 Z5.000000

(End cutting path id: polyline1567)


(Start cutting path id: polyline1569)
(Change tool to Default tool)

G00 Z5.000000
G00 X191.288104 Y135.665875

G00 Z4.875000 (Fast pre-penetrate)
G01 Z-0.125000 F100.0(Penetrate)
G01 X179.244927 Y137.537015 Z-0.125000 F800.000000
G01 X157.776458 Y146.679815 Z-0.125000
G01 X129.463624 Y154.250780 Z-0.125000
G01 X121.164916 Y152.316963 Z-0.125000
G01 X96.170301 Y144.328902 Z-0.125000
G01 X70.221214 Y142.672304 Z-0.125000
G01 X38.298216 Y134.642110 Z-0.125000
G01 X21.875549 Y147.299616 Z-0.125000
G01 X11.639692 Y148.273985 Z-0.125000
G00 Z5.000000

(End cutting path id: polyline1569)


(Start cutting path id: polyline1571)
(Change tool to Default tool)

G00 Z5.000000
G00 X191.706245 Y138.903162

G00 Z4.875000 (Fast pre-penetrate)
G01 Z-0.125000 F100.0(Penetrate)
G01 X179.101667 Y141.298049 Z-0.125000 F800.000000
G01 X156.997132 Y150.442341 Z-0.125000
G01 X129.982097 Y156.389439 Z-0.125000
G01 X121.824759 Y154.637732 Z-0.125000
G01 X94.816142 Y147.962344 Z-0.125000
G01 X69.174915 Y145.622474 Z-0.125000
G01 X39.482652 Y137.837962 Z-0.125000
G01 X23.268856 Y149.649534 Z-0.125000
G01 X12.933910 Y149.593374 Z-0.125000
G00 Z5.000000

(End cutting path id: polyline1571)


(Start cutting path id: polyline1573)
(Change tool to Default tool)

G00 Z5.000000
G00 X192.285057 Y140.514842

G00 Z4.875000 (Fast pre-penetrate)
G01 Z-0.125000 F100.0(Penetrate)
G01 X179.472651 Y142.953751 Z-0.125000 F800.000000
G01 X156.780948 Y151.672889 Z-0.125000
G01 X130.578369 Y156.791315 Z-0.125000
G01 X121.820880 Y155.111487 Z-0.125000
G01 X94.209772 Y149.114347 Z-0.125000
G01 X69.006733 Y146.595501 Z-0.125000
G01 X40.542779 Y139.280962 Z-0.125000
G01 X24.328386 Y150.393046 Z-0.125000
G01 X13.476310 Y149.800654 Z-0.125000
G00 Z5.000000

(End cutting path id: polyline1573)


(Start cutting path id: polyline1575)
(Change tool to Default tool)

G00 Z5.000000
G00 X192.027586 Y135.651947

G00 Z4.875000 (Fast pre-penetrate)
G01 Z-0.125000 F100.0(Penetrate)
G01 X180.130058 Y137.087436 Z-0.125000 F800.000000
G01 X158.123367 Y145.378384 Z-0.125000
G01 X130.137694 Y152.915971 Z-0.125000
G01 X120.497113 Y150.943703 Z-0.125000
G01 X96.311671 Y142.999316 Z-0.125000
G01 X70.931148 Y141.668188 Z-0.125000
G01 X39.233936 Y134.332260 Z-0.125000
G01 X22.601302 Y146.436820 Z-0.125000
G01 X11.430273 Y147.369157 Z-0.125000
G00 Z5.000000

(End cutting path id: polyline1575)


(Start cutting path id: polyline1577)
(Change tool to Default tool)

G00 Z5.000000
G00 X192.863869 Y142.126522

G00 Z4.875000 (Fast pre-penetrate)
G01 Z-0.125000 F100.0(Penetrate)
G01 X179.843586 Y144.609503 Z-0.125000 F800.000000
G01 X156.564714 Y152.903436 Z-0.125000
G01 X131.174690 Y157.193240 Z-0.125000
G01 X121.816900 Y155.585241 Z-0.125000
G01 X93.603353 Y150.266250 Z-0.125000
G01 X68.838601 Y147.568478 Z-0.125000
G01 X41.602856 Y140.723963 Z-0.125000
G01 X25.387916 Y151.136607 Z-0.125000
G01 X14.018710 Y150.007934 Z-0.125000
G00 Z5.000000

(End cutting path id: polyline1577)


(Start cutting path id: polyline1579)
(Change tool to Default tool)

G00 Z5.000000
G00 X193.442681 Y143.738201

G00 Z4.875000 (Fast pre-penetrate)
G01 Z-0.125000 F100.0(Penetrate)
G01 X180.214521 Y146.265255 Z-0.125000 F800.000000
G01 X156.348530 Y154.133933 Z-0.125000
G01 X131.770962 Y157.595115 Z-0.125000
G01 X92.996983 Y151.418203 Z-0.125000
G01 X68.670420 Y148.541504 Z-0.125000
G01 X42.662983 Y142.166963 Z-0.125000
G01 X26.447446 Y151.880168 Z-0.125000
G01 X14.561110 Y150.215214 Z-0.125000
G00 Z5.000000

(End cutting path id: polyline1579)


(Start cutting path id: polyline1581)
(Change tool to Default tool)

G00 Z5.000000
G00 X194.021493 Y145.349831

G00 Z4.875000 (Fast pre-penetrate)
G01 Z-0.125000 F100.0(Penetrate)
G01 X180.585457 Y147.920958 Z-0.125000 F800.000000
G01 X156.132296 Y155.364481 Z-0.125000
G01 X132.367234 Y157.997040 Z-0.125000
G01 X92.390564 Y152.570206 Z-0.125000
G01 X68.502238 Y149.514531 Z-0.125000
G01 X43.723110 Y143.609963 Z-0.125000
G01 X27.506976 Y152.623680 Z-0.125000
G01 X15.103509 Y150.422494 Z-0.125000
G00 Z5.000000

(End cutting path id: polyline1581)


(Start cutting path id: polyline1583)
(Change tool to Default tool)

G00 Z5.000000
G00 X193.506551 Y135.624091

G00 Z4.875000 (Fast pre-penetrate)
G01 Z-0.125000 F100.0(Penetrate)
G01 X181.900269 Y136.188278 Z-0.125000 F800.000000
G01 X158.817186 Y142.775472 Z-0.125000
G01 X131.485934 Y150.246353 Z-0.125000
G01 X119.161608 Y148.197132 Z-0.125000
G01 X96.594362 Y140.340194 Z-0.125000
G01 X72.351018 Y139.659955 Z-0.125000
G01 X41.105474 Y133.712509 Z-0.125000
G01 X24.052809 Y144.711178 Z-0.125000
G01 X11.011485 Y145.559549 Z-0.125000
G00 Z5.000000

(End cutting path id: polyline1583)


(Start cutting path id: line1585)
(Change tool to Default tool)

G00 Z5.000000
G00 X194.245989 Y135.610153

G00 Z4.875000 (Fast pre-penetrate)
G01 Z-0.125000 F100.0(Penetrate)
G01 X192.683167 Y135.627712 Z-0.125000 F800.000000
G00 Z5.000000

(End cutting path id: line1585)


(Start cutting path id: polyline1587)
(Change tool to Default tool)

G00 Z5.000000
G00 X194.985466 Y135.596234

G00 Z4.875000 (Fast pre-penetrate)
G01 Z-0.125000 F100.0(Penetrate)
G01 X183.670530 Y135.289170 Z-0.125000 F800.000000
G01 X159.511004 Y140.172509 Z-0.125000
G01 X132.834123 Y147.576735 Z-0.125000
G01 X117.826053 Y145.450561 Z-0.125000
G01 X96.877102 Y137.681022 Z-0.125000
G01 X73.770888 Y137.651673 Z-0.125000
G01 X42.977012 Y133.092808 Z-0.125000
G01 X25.504315 Y142.985537 Z-0.125000
G01 X10.592697 Y143.749941 Z-0.125000
G00 Z5.000000

(End cutting path id: polyline1587)


(Start cutting path id: polyline1589)
(Change tool to Default tool)

G00 Z5.000000
G00 X194.600305 Y146.961511

G00 Z4.875000 (Fast pre-penetrate)
G01 Z-0.125000 F100.0(Penetrate)
G01 X180.956441 Y149.576710 Z-0.125000 F800.000000
G01 X155.916112 Y156.595028 Z-0.125000
G01 X132.963555 Y158.398915 Z-0.125000
G01 X121.805111 Y157.006454 Z-0.125000
G01 X91.784194 Y153.722109 Z-0.125000
G01 X68.334056 Y150.487558 Z-0.125000
G01 X44.783188 Y145.053014 Z-0.125000
G01 X28.566507 Y153.367241 Z-0.125000
G01 X15.645909 Y150.629774 Z-0.125000
G00 Z5.000000

(End cutting path id: polyline1589)


(Start cutting path id: polyline1591)
(Change tool to Default tool)

G00 Z5.000000
G00 X195.179117 Y148.573191

G00 Z4.875000 (Fast pre-penetrate)
G01 Z-0.125000 F100.0(Penetrate)
G01 X181.327376 Y151.232462 Z-0.125000 F800.000000
G01 X155.699879 Y157.825575 Z-0.125000
G01 X133.559827 Y158.800840 Z-0.125000
G01 X121.801181 Y157.480208 Z-0.125000
G01 X91.177775 Y154.874112 Z-0.125000
G01 X68.165924 Y151.460535 Z-0.125000
G01 X45.843315 Y146.495964 Z-0.125000
G01 X29.626037 Y154.110753 Z-0.125000
G01 X16.188309 Y150.837054 Z-0.125000
G00 Z5.000000

(End cutting path id: polyline1591)


(Start cutting path id: polyline1593)
(Change tool to Default tool)

G00 Z5.000000
G00 X195.757928 Y150.184870

G00 Z4.875000 (Fast pre-penetrate)
G01 Z-0.125000 F100.0(Penetrate)
G01 X181.698311 Y152.888165 Z-0.125000 F800.000000
G01 X155.483695 Y159.056073 Z-0.125000
G01 X134.156099 Y159.202716 Z-0.125000
G01 X121.797202 Y157.953962 Z-0.125000
G01 X90.571405 Y156.026065 Z-0.125000
G01 X67.997742 Y152.433562 Z-0.125000
G01 X46.903442 Y147.939015 Z-0.125000
G01 X30.685567 Y154.854314 Z-0.125000
G01 X16.730709 Y151.044383 Z-0.125000
G00 Z5.000000

(End cutting path id: polyline1593)


(Start cutting path id: polyline1595)
(Change tool to Default tool)

G00 Z5.000000
G00 X196.336740 Y151.796550

G00 Z4.875000 (Fast pre-penetrate)
G01 Z-0.125000 F100.0(Penetrate)
G01 X182.069246 Y154.543917 Z-0.125000 F800.000000
G01 X155.267461 Y160.286620 Z-0.125000
G01 X134.752420 Y159.604641 Z-0.125000
G01 X121.793272 Y158.427717 Z-0.125000
G01 X89.964986 Y157.178018 Z-0.125000
G01 X67.829560 Y153.406588 Z-0.125000
G01 X47.963569 Y149.382015 Z-0.125000
G01 X31.745097 Y155.597876 Z-0.125000
G01 X17.273109 Y151.251663 Z-0.125000
G00 Z5.000000

(End cutting path id: polyline1595)


(Start cutting path id: polyline1597)
(Change tool to Default tool)

G00 Z5.000000
G00 X195.724949 Y135.582306

G00 Z4.875000 (Fast pre-penetrate)
G01 Z-0.125000 F100.0(Penetrate)
G01 X184.555660 Y134.839591 Z-0.125000 F800.000000
G01 X159.857863 Y138.871078 Z-0.125000
G01 X133.508243 Y146.241926 Z-0.125000
G01 X117.158300 Y144.077301 Z-0.125000
G01 X97.018423 Y136.351436 Z-0.125000
G01 X74.480823 Y136.647557 Z-0.125000
G01 X43.912781 Y132.782958 Z-0.125000
G01 X26.230068 Y142.122741 Z-0.125000
G01 X10.383278 Y142.845162 Z-0.125000
G00 Z5.000000

(End cutting path id: polyline1597)


(Start cutting path id: polyline1599)
(Change tool to Default tool)

G00 Z5.000000
G00 X196.464381 Y135.568378

G00 Z4.875000 (Fast pre-penetrate)
G01 Z-0.125000 F100.0(Penetrate)
G01 X185.440791 Y134.390012 Z-0.125000 F800.000000
G01 X160.204772 Y137.569597 Z-0.125000
G01 X134.182363 Y144.907067 Z-0.125000
G01 X116.490547 Y142.704040 Z-0.125000
G01 X97.159793 Y135.021850 Z-0.125000
G01 X75.190758 Y135.643441 Z-0.125000
G01 X44.848550 Y132.473058 Z-0.125000
G01 X26.955872 Y141.259896 Z-0.125000
G01 X10.173859 Y141.940333 Z-0.125000
G00 Z5.000000

(End cutting path id: polyline1599)


(Start cutting path id: polyline1601)
(Change tool to Default tool)

G00 Z5.000000
G00 X196.915552 Y153.408230

G00 Z4.875000 (Fast pre-penetrate)
G01 Z-0.125000 F100.0(Penetrate)
G01 X155.051277 Y161.517167 Z-0.125000 F800.000000
G01 X121.789342 Y158.901421 Z-0.125000
G01 X89.358616 Y158.329971 Z-0.125000
G01 X49.023646 Y150.825016 Z-0.125000
G01 X32.804627 Y156.341387 Z-0.125000
G01 X17.815509 Y151.458893 Z-0.125000
G00 Z5.000000

(End cutting path id: polyline1601)


(Start cutting path id: polyline1603)
(Change tool to Default tool)

G00 Z5.000000
G00 X197.494364 Y155.019909

G00 Z4.875000 (Fast pre-penetrate)
G01 Z-0.125000 F100.0(Penetrate)
G01 X182.811166 Y157.855371 Z-0.125000 F800.000000
G01 X154.835093 Y162.747715 Z-0.125000
G01 X135.945013 Y160.408391 Z-0.125000
G01 X121.785413 Y159.375225 Z-0.125000
G01 X88.752197 Y159.481924 Z-0.125000
G01 X67.493247 Y155.352592 Z-0.125000
G01 X50.083773 Y152.268016 Z-0.125000
G01 X33.864157 Y157.084949 Z-0.125000
G01 X18.357909 Y151.666173 Z-0.125000
G00 Z5.000000

(End cutting path id: polyline1603)


(Start cutting path id: polyline1605)
(Change tool to Default tool)

G00 Z5.000000
G00 X197.203864 Y135.554450

G00 Z4.875000 (Fast pre-penetrate)
G01 Z-0.125000 F100.0(Penetrate)
G01 X186.325921 Y133.940482 Z-0.125000 F800.000000
G01 X160.551681 Y136.268166 Z-0.125000
G01 X134.856433 Y143.572258 Z-0.125000
G01 X115.822745 Y141.330780 Z-0.125000
G01 X97.301163 Y133.692313 Z-0.125000
G01 X75.900693 Y134.639325 Z-0.125000
G01 X45.784319 Y132.163208 Z-0.125000
G01 X27.681625 Y140.397100 Z-0.125000
G01 X9.964440 Y141.035504 Z-0.125000
G00 Z5.000000

(End cutting path id: polyline1605)


(Start cutting path id: polyline1607)
(Change tool to Default tool)

G00 Z5.000000
G00 X197.943346 Y135.540522

G00 Z4.875000 (Fast pre-penetrate)
G01 Z-0.125000 F100.0(Penetrate)
G01 X187.211052 Y133.490903 Z-0.125000 F800.000000
G01 X160.898590 Y134.966685 Z-0.125000
G01 X135.530553 Y142.237449 Z-0.125000
G01 X115.154992 Y139.957519 Z-0.125000
G01 X97.442533 Y132.362728 Z-0.125000
G01 X76.610628 Y133.635208 Z-0.125000
G01 X46.720088 Y131.853357 Z-0.125000
G01 X28.407378 Y139.534304 Z-0.125000
G01 X9.755021 Y140.130725 Z-0.125000
G00 Z5.000000

(End cutting path id: polyline1607)


(Start cutting path id: polyline1609)
(Change tool to Default tool)

G00 Z5.000000
G00 X198.682829 Y135.526594

G00 Z4.875000 (Fast pre-penetrate)
G01 Z-0.125000 F100.0(Penetrate)
G01 X188.096133 Y133.041324 Z-0.125000 F800.000000
G01 X161.245499 Y133.665253 Z-0.125000
G01 X136.204673 Y140.902640 Z-0.125000
G01 X114.487240 Y138.584209 Z-0.125000
G01 X97.583854 Y131.033142 Z-0.125000
G01 X77.320563 Y132.631092 Z-0.125000
G01 X47.655858 Y131.543507 Z-0.125000
G01 X29.133131 Y138.671459 Z-0.125000
G01 X9.545652 Y139.225896 Z-0.125000
G00 Z5.000000

(End cutting path id: polyline1609)


(Start cutting path id: polyline1611)
(Change tool to Default tool)

G00 Z5.000000
G00 X198.073126 Y156.631589

G00 Z4.875000 (Fast pre-penetrate)
G01 Z-0.125000 F100.0(Penetrate)
G01 X183.182151 Y159.511074 Z-0.125000 F800.000000
G01 X154.618859 Y163.978212 Z-0.125000
G01 X136.541285 Y160.810316 Z-0.125000
G01 X121.781483 Y159.848979 Z-0.125000
G01 X88.145827 Y160.633877 Z-0.125000
G01 X67.325065 Y156.325619 Z-0.125000
G01 X51.143900 Y153.711017 Z-0.125000
G01 X34.923688 Y157.828460 Z-0.125000
G01 X23.270298 Y153.497569 Z-0.125000
G00 Z5.000000

(End cutting path id: polyline1611)


(Start cutting path id: polyline1613)
(Change tool to Default tool)

G00 Z5.000000
G00 X198.651988 Y158.243269

G00 Z4.875000 (Fast pre-penetrate)
G01 Z-0.125000 F100.0(Penetrate)
G01 X183.553086 Y161.166826 Z-0.125000 F800.000000
G01 X154.402676 Y165.208759 Z-0.125000
G01 X137.137557 Y161.212241 Z-0.125000
G01 X121.777553 Y160.322684 Z-0.125000
G01 X87.539408 Y161.785830 Z-0.125000
G01 X67.156883 Y157.298645 Z-0.125000
G01 X52.203978 Y155.154017 Z-0.125000
G01 X35.983218 Y158.572022 Z-0.125000
G01 X19.442708 Y152.080783 Z-0.125000
G00 Z5.000000

(End cutting path id: polyline1613)


(Start cutting path id: polyline1615)
(Change tool to Default tool)

G00 Z5.000000
G00 X199.230800 Y159.854949

G00 Z4.875000 (Fast pre-penetrate)
G01 Z-0.125000 F100.0(Penetrate)
G01 X183.924021 Y162.822578 Z-0.125000 F800.000000
G01 X154.186442 Y166.439307 Z-0.125000
G01 X137.733878 Y161.614117 Z-0.125000
G01 X121.773574 Y160.796438 Z-0.125000
G01 X86.933038 Y162.937783 Z-0.125000
G01 X66.988751 Y158.271622 Z-0.125000
G01 X53.264105 Y156.597018 Z-0.125000
G01 X37.042748 Y159.315583 Z-0.125000
G01 X21.535803 Y152.926915 Z-0.125000
G00 Z5.000000

(End cutting path id: polyline1615)


(Start cutting path id: polyline1507)
(Change tool to Default tool)

G00 Z5.000000
G00 X192.598340 Y202.052354

G00 Z4.875000 (Fast pre-penetrate)
G01 Z-0.125000 F100.0(Penetrate)
G01 X188.086433 Y206.680461 Z-0.125000 F800.000000
G01 X162.740879 Y204.523298 Z-0.125000
G01 X127.393560 Y209.025555 Z-0.125000
G01 X120.119811 Y205.325307 Z-0.125000
G01 X100.942116 Y205.920136 Z-0.125000
G01 X78.275682 Y202.812529 Z-0.125000
G01 X46.558473 Y200.532699 Z-0.125000
G01 X29.303303 Y206.465670 Z-0.125000
G01 X16.390714 Y207.618817 Z-0.125000
G00 Z5.000000

(End cutting path id: polyline1507)


(Start cutting path id: polyline1509)
(Change tool to Default tool)

G00 Z5.000000
G00 X192.925551 Y203.260168

G00 Z4.875000 (Fast pre-penetrate)
G01 Z-0.125000 F100.0(Penetrate)
G01 X187.400474 Y207.651498 Z-0.125000 F800.000000
G01 X162.056910 Y205.837811 Z-0.125000
G01 X128.161496 Y210.252719 Z-0.125000
G01 X120.214174 Y206.591570 Z-0.125000
G01 X100.527855 Y206.965042 Z-0.125000
G01 X77.920864 Y203.766654 Z-0.125000
G01 X46.936322 Y201.877009 Z-0.125000
G01 X29.300418 Y207.552509 Z-0.125000
G01 X16.468662 Y208.526929 Z-0.125000
G00 Z5.000000

(End cutting path id: polyline1509)


(Start cutting path id: polyline1511)
(Change tool to Default tool)

G00 Z5.000000
G00 X193.252861 Y204.468033

G00 Z4.875000 (Fast pre-penetrate)
G01 Z-0.125000 F100.0(Penetrate)
G01 X186.714565 Y208.622535 Z-0.125000 F800.000000
G01 X161.372991 Y207.152375 Z-0.125000
G01 X128.929432 Y211.479884 Z-0.125000
G01 X120.308587 Y207.857883 Z-0.125000
G01 X100.113544 Y208.009948 Z-0.125000
G01 X77.566046 Y204.720778 Z-0.125000
G01 X47.314221 Y203.221319 Z-0.125000
G01 X29.297533 Y208.639348 Z-0.125000
G01 X16.546609 Y209.435041 Z-0.125000
G00 Z5.000000

(End cutting path id: polyline1511)


(Start cutting path id: polyline1513)
(Change tool to Default tool)

G00 Z5.000000
G00 X193.580072 Y205.675847

G00 Z4.875000 (Fast pre-penetrate)
G01 Z-0.125000 F100.0(Penetrate)
G01 X186.028606 Y209.593622 Z-0.125000 F800.000000
G01 X160.689022 Y208.466889 Z-0.125000
G01 X129.697417 Y212.707099 Z-0.125000
G01 X120.402950 Y209.124195 Z-0.125000
G01 X99.699283 Y209.054853 Z-0.125000
G01 X77.211277 Y205.674902 Z-0.125000
G01 X47.692071 Y204.565629 Z-0.125000
G01 X29.294648 Y209.726188 Z-0.125000
G01 X16.624557 Y210.343152 Z-0.125000
G00 Z5.000000

(End cutting path id: polyline1513)


(Start cutting path id: polyline1515)
(Change tool to Default tool)

G00 Z5.000000
G00 X193.907382 Y206.883662

G00 Z4.875000 (Fast pre-penetrate)
G01 Z-0.125000 F100.0(Penetrate)
G01 X185.342697 Y210.564659 Z-0.125000 F800.000000
G01 X160.005053 Y209.781402 Z-0.125000
G01 X130.465352 Y213.934313 Z-0.125000
G01 X120.497362 Y210.390458 Z-0.125000
G01 X99.285021 Y210.099759 Z-0.125000
G01 X76.856459 Y206.629076 Z-0.125000
G01 X48.069920 Y205.909939 Z-0.125000
G01 X29.291762 Y210.812977 Z-0.125000
G01 X16.702505 Y211.251264 Z-0.125000
G00 Z5.000000

(End cutting path id: polyline1515)


(Start cutting path id: polyline1517)
(Change tool to Default tool)

G00 Z5.000000
G00 X194.234593 Y208.091477

G00 Z4.875000 (Fast pre-penetrate)
G01 Z-0.125000 F100.0(Penetrate)
G01 X184.656788 Y211.535696 Z-0.125000 F800.000000
G01 X159.321084 Y211.095966 Z-0.125000
G01 X131.233288 Y215.161478 Z-0.125000
G01 X120.591725 Y211.656771 Z-0.125000
G01 X98.870710 Y211.144665 Z-0.125000
G01 X76.501641 Y207.583201 Z-0.125000
G01 X48.447819 Y207.254249 Z-0.125000
G01 X29.288877 Y211.899816 Z-0.125000
G01 X16.780452 Y212.159426 Z-0.125000
G00 Z5.000000

(End cutting path id: polyline1517)


(Start cutting path id: polyline1519)
(Change tool to Default tool)

G00 Z5.000000
G00 X194.561853 Y209.299341

G00 Z4.875000 (Fast pre-penetrate)
G01 Z-0.125000 F100.0(Penetrate)
G01 X183.970829 Y212.506733 Z-0.125000 F800.000000
G01 X158.637115 Y212.410480 Z-0.125000
G01 X132.001223 Y216.388642 Z-0.125000
G01 X120.686088 Y212.923034 Z-0.125000
G01 X98.456449 Y212.189570 Z-0.125000
G01 X76.146822 Y208.537325 Z-0.125000
G01 X48.825668 Y208.598609 Z-0.125000
G01 X29.285992 Y212.986655 Z-0.125000
G01 X16.858400 Y213.067538 Z-0.125000
G00 Z5.000000

(End cutting path id: polyline1519)


(Start cutting path id: line1521)
(Change tool to Default tool)

G00 Z5.000000
G00 X194.421294 Y199.932323

G00 Z4.875000 (Fast pre-penetrate)
G01 Z-0.125000 F100.0(Penetrate)
G01 X193.778920 Y200.280198 Z-0.125000 F800.000000
G00 Z5.000000

(End cutting path id: line1521)


(Start cutting path id: polyline1523)
(Change tool to Default tool)

G00 Z5.000000
G00 X195.137979 Y199.628318

G00 Z4.875000 (Fast pre-penetrate)
G01 Z-0.125000 F100.0(Penetrate)
G01 X186.883095 Y203.108501 Z-0.125000 F800.000000
G01 X162.873644 Y200.608358 Z-0.125000
G01 X129.321756 Y205.146480 Z-0.125000
G01 X119.585370 Y202.120751 Z-0.125000
G01 X101.620415 Y202.059517 Z-0.125000
G01 X77.616336 Y199.132527 Z-0.125000
G01 X47.975756 Y198.795020 Z-0.125000
G01 X28.457967 Y203.155658 Z-0.125000
G01 X13.831825 Y202.194918 Z-0.125000
G00 Z5.000000

(End cutting path id: polyline1523)


(Start cutting path id: polyline1525)
(Change tool to Default tool)

G00 Z5.000000
G00 X194.889114 Y210.507156

G00 Z4.875000 (Fast pre-penetrate)
G01 Z-0.125000 F100.0(Penetrate)
G01 X183.284920 Y213.477820 Z-0.125000 F800.000000
G01 X157.953146 Y213.724994 Z-0.125000
G01 X132.769159 Y217.615857 Z-0.125000
G01 X120.780500 Y214.189346 Z-0.125000
G01 X98.042187 Y213.234426 Z-0.125000
G01 X75.792004 Y209.491499 Z-0.125000
G01 X49.203518 Y209.942919 Z-0.125000
G01 X29.283107 Y214.073494 Z-0.125000
G01 X16.936347 Y213.975650 Z-0.125000
G00 Z5.000000

(End cutting path id: polyline1525)


(Start cutting path id: polyline1527)
(Change tool to Default tool)

G00 Z5.000000
G00 X195.216374 Y211.714970

G00 Z4.875000 (Fast pre-penetrate)
G01 Z-0.125000 F100.0(Penetrate)
G01 X182.599012 Y214.448857 Z-0.125000 F800.000000
G01 X157.269227 Y215.039507 Z-0.125000
G01 X133.537094 Y218.843071 Z-0.125000
G01 X120.874863 Y215.455659 Z-0.125000
G01 X97.627876 Y214.279332 Z-0.125000
G01 X75.437236 Y210.445623 Z-0.125000
G01 X49.581367 Y211.287229 Z-0.125000
G01 X29.280222 Y215.160284 Z-0.125000
G01 X17.014295 Y214.883761 Z-0.125000
G00 Z5.000000

(End cutting path id: polyline1527)


(Start cutting path id: polyline1529)
(Change tool to Default tool)

G00 Z5.000000
G00 X195.543635 Y212.922785

G00 Z4.875000 (Fast pre-penetrate)
G01 Z-0.125000 F100.0(Penetrate)
G01 X181.913053 Y215.419894 Z-0.125000 F800.000000
G01 X156.585258 Y216.354071 Z-0.125000
G01 X134.305030 Y220.070236 Z-0.125000
G01 X120.969276 Y216.721922 Z-0.125000
G01 X97.213615 Y215.324237 Z-0.125000
G01 X75.082418 Y211.399748 Z-0.125000
G01 X49.959266 Y212.631539 Z-0.125000
G01 X29.277337 Y216.247123 Z-0.125000
G01 X17.092243 Y215.791873 Z-0.125000
G00 Z5.000000

(End cutting path id: polyline1529)


(Start cutting path id: polyline1531)
(Change tool to Default tool)

G00 Z5.000000
G00 X195.870895 Y214.130600

G00 Z4.875000 (Fast pre-penetrate)
G01 Z-0.125000 F100.0(Penetrate)
G01 X181.227144 Y216.390980 Z-0.125000 F800.000000
G01 X155.901289 Y217.668585 Z-0.125000
G01 X135.072965 Y221.297401 Z-0.125000
G01 X121.063639 Y217.988185 Z-0.125000
G01 X96.799354 Y216.369143 Z-0.125000
G01 X74.727599 Y212.353922 Z-0.125000
G01 X50.337115 Y213.975849 Z-0.125000
G01 X29.274402 Y217.333962 Z-0.125000
G01 X17.170190 Y216.700035 Z-0.125000
G00 Z5.000000

(End cutting path id: polyline1531)


(Start cutting path id: polyline1533)
(Change tool to Default tool)

G00 Z5.000000
G00 X196.198156 Y215.338464

G00 Z4.875000 (Fast pre-penetrate)
G01 Z-0.125000 F100.0(Penetrate)
G01 X180.541235 Y217.362017 Z-0.125000 F800.000000
G01 X155.217320 Y218.983148 Z-0.125000
G01 X135.840951 Y222.524615 Z-0.125000
G01 X121.158051 Y219.254497 Z-0.125000
G01 X96.385042 Y217.414049 Z-0.125000
G01 X74.372781 Y213.308046 Z-0.125000
G01 X50.714965 Y215.320159 Z-0.125000
G01 X29.271517 Y218.420752 Z-0.125000
G01 X17.248138 Y217.608147 Z-0.125000
G00 Z5.000000

(End cutting path id: polyline1533)


(Start cutting path id: polyline1535)
(Change tool to Default tool)

G00 Z5.000000
G00 X196.525416 Y216.546279

G00 Z4.875000 (Fast pre-penetrate)
G01 Z-0.125000 F100.0(Penetrate)
G01 X179.855276 Y218.333054 Z-0.125000 F800.000000
G01 X154.533351 Y220.297662 Z-0.125000
G01 X136.608836 Y223.751830 Z-0.125000
G01 X121.252414 Y220.520810 Z-0.125000
G01 X95.970781 Y218.458954 Z-0.125000
G01 X74.017963 Y214.262170 Z-0.125000
G01 X51.092864 Y216.664469 Z-0.125000
G01 X29.268632 Y219.507591 Z-0.125000
G01 X17.326085 Y218.516259 Z-0.125000
G00 Z5.000000

(End cutting path id: polyline1535)


(Start cutting path id: polyline1537)
(Change tool to Default tool)

G00 Z5.000000
G00 X196.852677 Y217.754093

G00 Z4.875000 (Fast pre-penetrate)
G01 Z-0.125000 F100.0(Penetrate)
G01 X153.849432 Y221.612176 Z-0.125000 F800.000000
G01 X137.376822 Y224.978995 Z-0.125000
G01 X121.346777 Y221.787073 Z-0.125000
G01 X95.556520 Y219.503860 Z-0.125000
G01 X73.663194 Y215.216295 Z-0.125000
G01 X51.470713 Y218.008828 Z-0.125000
G01 X29.265747 Y220.594430 Z-0.125000
G01 X17.404033 Y219.424370 Z-0.125000
G00 Z5.000000

(End cutting path id: polyline1537)


(Start cutting path id: polyline1539)
(Change tool to Default tool)

G00 Z5.000000
G00 X195.854729 Y199.324238

G00 Z4.875000 (Fast pre-penetrate)
G01 Z-0.125000 F100.0(Penetrate)
G01 X186.410733 Y202.458308 Z-0.125000 F800.000000
G01 X162.735855 Y199.958215 Z-0.125000
G01 X129.995776 Y204.483503 Z-0.125000
G01 X119.475338 Y201.636152 Z-0.125000
G01 X101.686424 Y201.355551 Z-0.125000
G01 X77.362795 Y198.451095 Z-0.125000
G01 X48.424589 Y198.696628 Z-0.125000
G01 X28.245961 Y202.599827 Z-0.125000
G01 X13.211626 Y201.065946 Z-0.125000
G00 Z5.000000

(End cutting path id: polyline1539)


(Start cutting path id: polyline1541)
(Change tool to Default tool)

G00 Z5.000000
G00 X196.571478 Y199.020158

G00 Z4.875000 (Fast pre-penetrate)
G01 Z-0.125000 F100.0(Penetrate)
G01 X185.938422 Y201.808065 Z-0.125000 F800.000000
G01 X162.598017 Y199.308121 Z-0.125000
G01 X130.669797 Y203.820526 Z-0.125000
G01 X119.365356 Y201.151554 Z-0.125000
G01 X101.752433 Y200.651635 Z-0.125000
G01 X77.109254 Y197.769613 Z-0.125000
G01 X48.873372 Y198.598285 Z-0.125000
G01 X28.033906 Y202.044047 Z-0.125000
G01 X12.591378 Y199.937024 Z-0.125000
G00 Z5.000000

(End cutting path id: polyline1541)


(Start cutting path id: polyline1543)
(Change tool to Default tool)

G00 Z5.000000
G00 X197.288178 Y198.716127

G00 Z4.875000 (Fast pre-penetrate)
G01 Z-0.125000 F100.0(Penetrate)
G01 X185.466110 Y201.157872 Z-0.125000 F800.000000
G01 X162.460228 Y198.658027 Z-0.125000
G01 X131.343867 Y203.157548 Z-0.125000
G01 X119.255324 Y200.667006 Z-0.125000
G01 X101.818442 Y199.947669 Z-0.125000
G01 X76.855713 Y197.088181 Z-0.125000
G01 X49.322155 Y198.499943 Z-0.125000
G01 X27.821851 Y201.488266 Z-0.125000
G01 X11.971130 Y198.808053 Z-0.125000
G00 Z5.000000

(End cutting path id: polyline1543)


(Start cutting path id: polyline1545)
(Change tool to Default tool)

G00 Z5.000000
G00 X198.004928 Y198.412047

G00 Z4.875000 (Fast pre-penetrate)
G01 Z-0.125000 F100.0(Penetrate)
G01 X184.993798 Y200.507628 Z-0.125000 F800.000000
G01 X162.322440 Y198.007933 Z-0.125000
G01 X132.017887 Y202.494621 Z-0.125000
G01 X119.145342 Y200.182407 Z-0.125000
G01 X101.884452 Y199.243703 Z-0.125000
G01 X76.602172 Y196.406700 Z-0.125000
G01 X49.770938 Y198.401601 Z-0.125000
G01 X27.609796 Y200.932435 Z-0.125000
G01 X11.350932 Y197.679131 Z-0.125000
G00 Z5.000000

(End cutting path id: polyline1545)


(Start cutting path id: polyline1547)
(Change tool to Default tool)

G00 Z5.000000
G00 X197.179937 Y218.961908

G00 Z4.875000 (Fast pre-penetrate)
G01 Z-0.125000 F100.0(Penetrate)
G01 X178.483458 Y220.275178 Z-0.125000 F800.000000
G01 X153.165463 Y222.926739 Z-0.125000
G01 X138.144757 Y226.206159 Z-0.125000
G01 X121.441190 Y223.053386 Z-0.125000
G01 X95.142209 Y220.548766 Z-0.125000
G01 X73.308376 Y216.170469 Z-0.125000
G01 X51.848563 Y219.353138 Z-0.125000
G01 X29.262862 Y221.681269 Z-0.125000
G01 X17.481981 Y220.332482 Z-0.125000
G00 Z5.000000

(End cutting path id: polyline1547)


(Start cutting path id: polyline1549)
(Change tool to Default tool)

G00 Z5.000000
G00 X197.507198 Y220.169723

G00 Z4.875000 (Fast pre-penetrate)
G01 Z-0.125000 F100.0(Penetrate)
G01 X177.797499 Y221.246215 Z-0.125000 F800.000000
G01 X152.481494 Y224.241253 Z-0.125000
G01 X138.912693 Y227.433374 Z-0.125000
G01 X121.535553 Y224.319649 Z-0.125000
G01 X94.727947 Y221.593622 Z-0.125000
G01 X72.953558 Y217.124593 Z-0.125000
G01 X52.226462 Y220.697448 Z-0.125000
G01 X29.259977 Y222.768059 Z-0.125000
G01 X17.559928 Y221.240594 Z-0.125000
G00 Z5.000000

(End cutting path id: polyline1549)


(Start cutting path id: polyline1551)
(Change tool to Default tool)

G00 Z5.000000
G00 X197.834458 Y221.377587

G00 Z4.875000 (Fast pre-penetrate)
G01 Z-0.125000 F100.0(Penetrate)
G01 X177.111590 Y222.217252 Z-0.125000 F800.000000
G01 X151.797525 Y225.555767 Z-0.125000
G01 X139.680628 Y228.660539 Z-0.125000
G01 X121.629965 Y225.585961 Z-0.125000
G01 X94.313686 Y222.638527 Z-0.125000
G01 X72.598789 Y218.078717 Z-0.125000
G01 X52.604311 Y222.041758 Z-0.125000
G01 X29.257091 Y223.854898 Z-0.125000
G01 X17.637876 Y222.148706 Z-0.125000
G00 Z5.000000

(End cutting path id: polyline1551)


(Start cutting path id: polyline1553)
(Change tool to Default tool)

G00 Z5.000000
G00 X198.161719 Y222.585402

G00 Z4.875000 (Fast pre-penetrate)
G01 Z-0.125000 F100.0(Penetrate)
G01 X176.425632 Y223.188289 Z-0.125000 F800.000000
G01 X151.113556 Y226.870331 Z-0.125000
G01 X140.448564 Y229.887753 Z-0.125000
G01 X121.724328 Y226.852274 Z-0.125000
G01 X93.899424 Y223.683433 Z-0.125000
G01 X72.243971 Y219.032842 Z-0.125000
G01 X52.982160 Y223.386118 Z-0.125000
G01 X29.254206 Y224.941737 Z-0.125000
G01 X17.715823 Y223.056818 Z-0.125000
G00 Z5.000000

(End cutting path id: polyline1553)


(Start cutting path id: polyline1555)
(Change tool to Default tool)

G00 Z5.000000
G00 X198.488979 Y223.793216

G00 Z4.875000 (Fast pre-penetrate)
G01 Z-0.125000 F100.0(Penetrate)
G01 X175.739723 Y224.159376 Z-0.125000 F800.000000
G01 X150.429636 Y228.184844 Z-0.125000
G01 X141.216499 Y231.114918 Z-0.125000
G01 X121.818741 Y228.118537 Z-0.125000
G01 X93.485113 Y224.728339 Z-0.125000
G01 X71.889153 Y219.987016 Z-0.125000
G01 X53.360010 Y224.730428 Z-0.125000
G01 X29.251321 Y226.028526 Z-0.125000
G01 X17.793771 Y223.964980 Z-0.125000
G00 Z5.000000

(End cutting path id: polyline1555)


(Start cutting path id: polyline1557)
(Change tool to Default tool)

G00 Z5.000000
G00 X198.816240 Y225.001031

G00 Z4.875000 (Fast pre-penetrate)
G01 Z-0.125000 F100.0(Penetrate)
G01 X175.053764 Y225.130413 Z-0.125000 F800.000000
G01 X149.745667 Y229.499358 Z-0.125000
G01 X141.984435 Y232.342132 Z-0.125000
G01 X121.913103 Y229.384849 Z-0.125000
G01 X93.070852 Y225.773244 Z-0.125000
G01 X71.534335 Y220.941140 Z-0.125000
G01 X53.737909 Y226.074738 Z-0.125000
G01 X29.248436 Y227.115366 Z-0.125000
G01 X17.871669 Y224.873091 Z-0.125000
G00 Z5.000000

(End cutting path id: polyline1557)


(Start cutting path id: polyline1559)
(Change tool to Default tool)

G00 Z5.000000
G00 X198.721628 Y198.108016

G00 Z4.875000 (Fast pre-penetrate)
G01 Z-0.125000 F100.0(Penetrate)
G01 X184.521487 Y199.857435 Z-0.125000 F800.000000
G01 X162.184651 Y197.357839 Z-0.125000
G01 X132.691908 Y201.831643 Z-0.125000
G01 X119.035310 Y199.697859 Z-0.125000
G01 X101.950461 Y198.539787 Z-0.125000
G01 X76.348631 Y195.725218 Z-0.125000
G01 X50.219722 Y198.303259 Z-0.125000
G01 X27.397740 Y200.376605 Z-0.125000
G01 X10.730684 Y196.550159 Z-0.125000
G00 Z5.000000

(End cutting path id: polyline1559)


(Start cutting path id: polyline1561)
(Change tool to Default tool)

G00 Z5.000000
G00 X199.438378 Y197.803936

G00 Z4.875000 (Fast pre-penetrate)
G01 Z-0.125000 F100.0(Penetrate)
G01 X184.049175 Y199.207192 Z-0.125000 F800.000000
G01 X162.046862 Y196.707745 Z-0.125000
G01 X133.365978 Y201.168666 Z-0.125000
G01 X118.925278 Y199.213310 Z-0.125000
G01 X102.016470 Y197.835822 Z-0.125000
G01 X76.095090 Y195.043786 Z-0.125000
G01 X50.668505 Y198.204916 Z-0.125000
G01 X27.185685 Y199.820824 Z-0.125000
G01 X10.110436 Y195.421237 Z-0.125000
G00 Z5.000000

(End cutting path id: polyline1561)


(Start cutting path id: polyline1563)
(Change tool to Default tool)

G00 Z5.000000
G00 X200.155078 Y197.499856

G00 Z4.875000 (Fast pre-penetrate)
G01 Z-0.125000 F100.0(Penetrate)
G01 X183.576863 Y198.556999 Z-0.125000 F800.000000
G01 X161.909024 Y196.057652 Z-0.125000
G01 X134.039998 Y200.505688 Z-0.125000
G01 X118.815296 Y198.728712 Z-0.125000
G01 X102.082479 Y197.131906 Z-0.125000
G01 X75.841548 Y194.362304 Z-0.125000
G01 X51.117338 Y198.106574 Z-0.125000
G01 X26.973630 Y199.264994 Z-0.125000
G01 X9.490238 Y194.292265 Z-0.125000
G00 Z5.000000

(End cutting path id: polyline1563)


(Start cutting path id: polyline1813)
(Change tool to Default tool)

G00 Z5.000000
G00 X200.871828 Y197.195826

G00 Z4.875000 (Fast pre-penetrate)
G01 Z-0.125000 F100.0(Penetrate)
G01 X183.104552 Y197.906755 Z-0.125000 F800.000000
G01 X161.771235 Y195.407508 Z-0.125000
G01 X134.714018 Y199.842711 Z-0.125000
G01 X75.588007 Y193.680872 Z-0.125000
G01 X51.566121 Y198.008232 Z-0.125000
G01 X26.761575 Y198.709213 Z-0.125000
G01 X8.869990 Y193.163343 Z-0.125000
G00 Z5.000000

(End cutting path id: polyline1813)


(Start cutting path id: polyline1815)
(Change tool to Default tool)

G00 Z5.000000
G00 X201.588578 Y196.891746

G00 Z4.875000 (Fast pre-penetrate)
G01 Z-0.125000 F100.0(Penetrate)
G01 X182.632240 Y197.256562 Z-0.125000 F800.000000
G01 X161.633397 Y194.757414 Z-0.125000
G01 X135.388039 Y199.179783 Z-0.125000
G01 X118.595282 Y197.759565 Z-0.125000
G01 X102.214448 Y195.724024 Z-0.125000
G01 X75.334466 Y192.999390 Z-0.125000
G01 X52.014904 Y197.909889 Z-0.125000
G01 X26.549519 Y198.153382 Z-0.125000
G01 X8.249742 Y192.034372 Z-0.125000
G00 Z5.000000

(End cutting path id: polyline1815)


(Start cutting path id: polyline1617)
(Change tool to Default tool)

G00 Z5.000000
G00 X199.809562 Y161.466578

G00 Z4.875000 (Fast pre-penetrate)
G01 Z-0.125000 F100.0(Penetrate)
G01 X184.294956 Y164.478280 Z-0.125000 F800.000000
G01 X153.970258 Y167.669804 Z-0.125000
G01 X138.330150 Y162.016042 Z-0.125000
G01 X121.769644 Y161.270192 Z-0.125000
G01 X86.326619 Y164.089736 Z-0.125000
G01 X66.820569 Y159.244649 Z-0.125000
G01 X54.324232 Y158.040018 Z-0.125000
G01 X38.102278 Y160.059095 Z-0.125000
G01 X20.527508 Y152.495343 Z-0.125000
G00 Z5.000000

(End cutting path id: polyline1617)


(Start cutting path id: polyline1619)
(Change tool to Default tool)

G00 Z5.000000
G00 X199.422261 Y135.512666

G00 Z4.875000 (Fast pre-penetrate)
G01 Z-0.125000 F100.0(Penetrate)
G01 X188.981263 Y132.591745 Z-0.125000 F800.000000
G01 X161.592408 Y132.363772 Z-0.125000
G01 X136.878743 Y139.567831 Z-0.125000
G01 X113.819487 Y137.210948 Z-0.125000
G01 X97.725224 Y129.703605 Z-0.125000
G01 X78.030498 Y131.626926 Z-0.125000
G01 X48.591627 Y131.233656 Z-0.125000
G01 X29.858885 Y137.808663 Z-0.125000
G01 X9.336233 Y138.321067 Z-0.125000
G00 Z5.000000

(End cutting path id: polyline1619)


(Start cutting path id: polyline1621)
(Change tool to Default tool)

G00 Z5.000000
G00 X200.161744 Y135.498738

G00 Z4.875000 (Fast pre-penetrate)
G01 Z-0.125000 F100.0(Penetrate)
G01 X189.866394 Y132.142166 Z-0.125000 F800.000000
G01 X161.939317 Y131.062341 Z-0.125000
G01 X137.552863 Y138.233022 Z-0.125000
G01 X113.151734 Y135.837688 Z-0.125000
G01 X97.866594 Y128.374019 Z-0.125000
G01 X78.740433 Y130.622810 Z-0.125000
G01 X49.527346 Y130.923806 Z-0.125000
G01 X30.584638 Y136.945867 Z-0.125000
G01 X9.126814 Y137.416239 Z-0.125000
G00 Z5.000000

(End cutting path id: polyline1621)


(Start cutting path id: polyline1623)
(Change tool to Default tool)

G00 Z5.000000
G00 X200.901226 Y135.484810

G00 Z4.875000 (Fast pre-penetrate)
G01 Z-0.125000 F100.0(Penetrate)
G01 X190.751524 Y131.692587 Z-0.125000 F800.000000
G01 X162.286227 Y129.760860 Z-0.125000
G01 X138.226983 Y136.898163 Z-0.125000
G01 X112.483932 Y134.464378 Z-0.125000
G01 X98.007914 Y127.044433 Z-0.125000
G01 X79.450368 Y129.618694 Z-0.125000
G01 X50.463115 Y130.613906 Z-0.125000
G01 X31.310391 Y136.083021 Z-0.125000
G01 X8.917395 Y136.511460 Z-0.125000
G00 Z5.000000

(End cutting path id: polyline1623)


(Start cutting path id: polyline1625)
(Change tool to Default tool)

G00 Z5.000000
G00 X201.640659 Y135.470882

G00 Z4.875000 (Fast pre-penetrate)
G01 Z-0.125000 F100.0(Penetrate)
G01 X191.636655 Y131.243058 Z-0.125000 F800.000000
G01 X162.633136 Y128.459428 Z-0.125000
G01 X138.901103 Y135.563404 Z-0.125000
G01 X111.816179 Y133.091117 Z-0.125000
G01 X98.149284 Y125.714847 Z-0.125000
G01 X80.160303 Y128.614577 Z-0.125000
G01 X51.398884 Y130.304055 Z-0.125000
G01 X32.036194 Y135.220226 Z-0.125000
G01 X8.707977 Y135.606631 Z-0.125000
G00 Z5.000000

(End cutting path id: polyline1625)


(Start cutting path id: polyline1627)
(Change tool to Default tool)

G00 Z5.000000
G00 X200.388374 Y163.078258

G00 Z4.875000 (Fast pre-penetrate)
G01 Z-0.125000 F100.0(Penetrate)
G01 X184.665891 Y166.134033 Z-0.125000 F800.000000
G01 X153.754024 Y168.900351 Z-0.125000
G01 X138.926472 Y162.417917 Z-0.125000
G01 X121.765714 Y161.743947 Z-0.125000
G01 X85.720250 Y165.241689 Z-0.125000
G01 X66.652388 Y160.217676 Z-0.125000
G01 X55.384309 Y159.483019 Z-0.125000
G01 X39.161808 Y160.802656 Z-0.125000
G01 X21.069908 Y152.702622 Z-0.125000
G00 Z5.000000

(End cutting path id: polyline1627)


(Start cutting path id: polyline1629)
(Change tool to Default tool)

G00 Z5.000000
G00 X200.967186 Y164.689938

G00 Z4.875000 (Fast pre-penetrate)
G01 Z-0.125000 F100.0(Penetrate)
G01 X185.036876 Y167.789735 Z-0.125000 F800.000000
G01 X153.537840 Y170.130899 Z-0.125000
G01 X139.522743 Y162.819842 Z-0.125000
G01 X121.761785 Y162.217701 Z-0.125000
G01 X85.113830 Y166.393642 Z-0.125000
G01 X66.484206 Y161.190703 Z-0.125000
G01 X56.444436 Y160.926019 Z-0.125000
G01 X40.221338 Y161.546168 Z-0.125000
G01 X21.612308 Y152.909902 Z-0.125000
G01 X19.985108 Y152.288063 Z-0.125000
G00 Z5.000000

(End cutting path id: polyline1629)


(Start cutting path id: polyline1631)
(Change tool to Default tool)

G00 Z5.000000
G00 X201.545997 Y166.301617

G00 Z4.875000 (Fast pre-penetrate)
G01 Z-0.125000 F100.0(Penetrate)
G01 X185.407811 Y169.445487 Z-0.125000 F800.000000
G01 X153.321656 Y171.361446 Z-0.125000
G01 X140.119065 Y163.221718 Z-0.125000
G01 X121.757855 Y162.691405 Z-0.125000
G01 X84.507461 Y167.545595 Z-0.125000
G01 X66.316024 Y162.163680 Z-0.125000
G01 X57.504563 Y162.369069 Z-0.125000
G01 X41.280868 Y162.289729 Z-0.125000
G01 X22.154708 Y153.117182 Z-0.125000
G00 Z5.000000

(End cutting path id: polyline1631)


(Start cutting path id: polyline1633)
(Change tool to Default tool)

G00 Z5.000000
G00 X202.124809 Y167.913297

G00 Z4.875000 (Fast pre-penetrate)
G01 Z-0.125000 F100.0(Penetrate)
G01 X185.778746 Y171.101190 Z-0.125000 F800.000000
G01 X153.105423 Y172.591944 Z-0.125000
G01 X140.715337 Y163.623643 Z-0.125000
G01 X121.753925 Y163.165159 Z-0.125000
G01 X83.901041 Y168.697548 Z-0.125000
G01 X66.147892 Y163.136706 Z-0.125000
G01 X58.564691 Y163.812070 Z-0.125000
G01 X42.340399 Y163.033290 Z-0.125000
G01 X22.697107 Y153.324462 Z-0.125000
G00 Z5.000000

(End cutting path id: polyline1633)


(Start cutting path id: polyline1635)
(Change tool to Default tool)

G00 Z5.000000
G00 X202.380141 Y135.456954

G00 Z4.875000 (Fast pre-penetrate)
G01 Z-0.125000 F100.0(Penetrate)
G01 X192.521785 Y130.793479 Z-0.125000 F800.000000
G01 X162.980045 Y127.157947 Z-0.125000
G01 X139.575173 Y134.228545 Z-0.125000
G01 X111.148426 Y131.717857 Z-0.125000
G01 X98.290655 Y124.385261 Z-0.125000
G01 X80.870238 Y127.610461 Z-0.125000
G01 X52.334653 Y129.994205 Z-0.125000
G01 X32.761948 Y134.357380 Z-0.125000
G01 X8.498607 Y134.701802 Z-0.125000
G00 Z5.000000

(End cutting path id: polyline1635)


(Start cutting path id: polyline1637)
(Change tool to Default tool)

G00 Z5.000000
G00 X203.119624 Y135.443075

G00 Z4.875000 (Fast pre-penetrate)
G01 Z-0.125000 F100.0(Penetrate)
G01 X193.406916 Y130.343900 Z-0.125000 F800.000000
G01 X163.326954 Y125.856516 Z-0.125000
G01 X140.249293 Y132.893736 Z-0.125000
G01 X110.480673 Y130.344596 Z-0.125000
G01 X98.432025 Y123.055725 Z-0.125000
G01 X81.580173 Y126.606345 Z-0.125000
G01 X53.270422 Y129.684355 Z-0.125000
G01 X33.487701 Y133.494584 Z-0.125000
G01 X8.289189 Y133.797023 Z-0.125000
G00 Z5.000000

(End cutting path id: polyline1637)


(Start cutting path id: polyline1639)
(Change tool to Default tool)

G00 Z5.000000
G00 X203.859056 Y135.429097

G00 Z4.875000 (Fast pre-penetrate)
G01 Z-0.125000 F100.0(Penetrate)
G01 X194.292046 Y129.894321 Z-0.125000 F800.000000
G01 X163.673863 Y124.555035 Z-0.125000
G01 X140.923412 Y131.558927 Z-0.125000
G01 X109.812871 Y128.971336 Z-0.125000
G01 X98.573345 Y121.726139 Z-0.125000
G01 X82.290108 Y125.602179 Z-0.125000
G01 X54.206191 Y129.374504 Z-0.125000
G01 X34.213454 Y132.631788 Z-0.125000
G01 X8.079770 Y132.892194 Z-0.125000
G00 Z5.000000

(End cutting path id: polyline1639)


(Start cutting path id: polyline1641)
(Change tool to Default tool)

G00 Z5.000000
G00 X202.575085 Y107.518536

G00 Z4.875000 (Fast pre-penetrate)
G01 Z-0.125000 F100.0(Penetrate)
G01 X168.121651 Y111.906085 Z-0.125000 F800.000000
G01 X148.156521 Y110.673200 Z-0.125000
G01 X137.425520 Y97.790656 Z-0.125000
G01 X133.406121 Y100.394763 Z-0.125000
G01 X98.521463 Y114.020917 Z-0.125000
G01 X62.409442 Y118.082848 Z-0.125000
G01 X56.944306 Y108.258765 Z-0.125000
G01 X29.968469 Y105.993211 Z-0.125000
G01 X4.097628 Y97.353812 Z-0.125000
G00 Z5.000000

(End cutting path id: polyline1641)


(Start cutting path id: polyline1709)
(Change tool to Default tool)

G00 Z5.000000
G00 X200.004555 Y75.649112

G00 Z4.875000 (Fast pre-penetrate)
G01 Z-0.125000 F100.0(Penetrate)
G01 X182.008560 Y68.408641 Z-0.125000 F800.000000
G01 X164.825716 Y78.563467 Z-0.125000
G01 X141.108756 Y76.831409 Z-0.125000
G01 X115.333023 Y73.549999 Z-0.125000
G01 X94.348854 Y69.627797 Z-0.125000
G01 X75.463052 Y77.767725 Z-0.125000
G01 X55.011583 Y76.585827 Z-0.125000
G01 X39.090874 Y83.422184 Z-0.125000
G01 X16.798907 Y78.965342 Z-0.125000
G00 Z5.000000

(End cutting path id: polyline1709)


(Start cutting path id: polyline1711)
(Change tool to Default tool)

G00 Z5.000000
G00 X200.416031 Y77.016752

G00 Z4.875000 (Fast pre-penetrate)
G01 Z-0.125000 F100.0(Penetrate)
G01 X183.223040 Y69.369730 Z-0.125000 F800.000000
G01 X164.960222 Y79.405669 Z-0.125000
G01 X141.284996 Y77.796377 Z-0.125000
G01 X114.484703 Y74.382103 Z-0.125000
G01 X93.518590 Y70.216160 Z-0.125000
G01 X75.564728 Y79.107210 Z-0.125000
G01 X54.871954 Y77.557510 Z-0.125000
G01 X38.564044 Y84.570804 Z-0.125000
G01 X17.286291 Y79.925436 Z-0.125000
G00 Z5.000000

(End cutting path id: polyline1711)


(Start cutting path id: polyline1713)
(Change tool to Default tool)

G00 Z5.000000
G00 X200.827457 Y78.384391

G00 Z4.875000 (Fast pre-penetrate)
G01 Z-0.125000 F100.0(Penetrate)
G01 X184.437520 Y70.330868 Z-0.125000 F800.000000
G01 X165.094728 Y80.247871 Z-0.125000
G01 X141.461236 Y78.761395 Z-0.125000
G01 X113.636432 Y75.214208 Z-0.125000
G01 X92.688277 Y70.804523 Z-0.125000
G01 X75.666353 Y80.446695 Z-0.125000
G01 X54.732325 Y78.529244 Z-0.125000
G01 X38.037214 Y85.719374 Z-0.125000
G01 X17.773675 Y80.885529 Z-0.125000
G00 Z5.000000

(End cutting path id: polyline1713)


(Start cutting path id: polyline1715)
(Change tool to Default tool)

G00 Z5.000000
G00 X201.238933 Y79.752031

G00 Z4.875000 (Fast pre-penetrate)
G01 Z-0.125000 F100.0(Penetrate)
G01 X185.652000 Y71.291956 Z-0.125000 F800.000000
G01 X165.229184 Y81.090123 Z-0.125000
G01 X141.637476 Y79.726364 Z-0.125000
G01 X112.788161 Y76.046312 Z-0.125000
G01 X91.857964 Y71.392885 Z-0.125000
G01 X75.768028 Y81.786180 Z-0.125000
G01 X54.592646 Y79.500927 Z-0.125000
G01 X37.510384 Y86.867995 Z-0.125000
G01 X18.261059 Y81.845623 Z-0.125000
G00 Z5.000000

(End cutting path id: polyline1715)


(Start cutting path id: polyline1717)
(Change tool to Default tool)

G00 Z5.000000
G00 X201.650359 Y81.119720

G00 Z4.875000 (Fast pre-penetrate)
G01 Z-0.125000 F100.0(Penetrate)
G01 X186.866431 Y72.253045 Z-0.125000 F800.000000
G01 X165.363689 Y81.932325 Z-0.125000
G01 X141.813666 Y80.691382 Z-0.125000
G01 X111.939841 Y76.878416 Z-0.125000
G01 X91.027700 Y71.981248 Z-0.125000
G01 X75.869703 Y83.125665 Z-0.125000
G01 X54.453017 Y80.472661 Z-0.125000
G01 X36.983553 Y88.016615 Z-0.125000
G01 X18.748393 Y82.805716 Z-0.125000
G00 Z5.000000

(End cutting path id: polyline1717)


(Start cutting path id: polyline1719)
(Change tool to Default tool)

G00 Z5.000000
G00 X202.061834 Y82.487360

G00 Z4.875000 (Fast pre-penetrate)
G01 Z-0.125000 F100.0(Penetrate)
G01 X188.080911 Y73.214183 Z-0.125000 F800.000000
G01 X165.498244 Y82.774527 Z-0.125000
G01 X141.989907 Y81.656350 Z-0.125000
G01 X111.091570 Y77.710520 Z-0.125000
G01 X90.197386 Y72.569610 Z-0.125000
G01 X75.971378 Y84.465149 Z-0.125000
G01 X54.313388 Y81.444344 Z-0.125000
G01 X36.456723 Y89.165185 Z-0.125000
G01 X19.235777 Y83.765810 Z-0.125000
G00 Z5.000000

(End cutting path id: polyline1719)


(Start cutting path id: polyline1721)
(Change tool to Default tool)

G00 Z5.000000
G00 X202.473260 Y83.854999

G00 Z4.875000 (Fast pre-penetrate)
G01 Z-0.125000 F100.0(Penetrate)
G01 X189.295391 Y74.175271 Z-0.125000 F800.000000
G01 X165.632700 Y83.616779 Z-0.125000
G01 X142.166147 Y82.621368 Z-0.125000
G01 X110.243249 Y78.542625 Z-0.125000
G01 X89.367123 Y73.157973 Z-0.125000
G01 X76.073004 Y85.804585 Z-0.125000
G01 X54.173759 Y82.416078 Z-0.125000
G01 X35.929893 Y90.313806 Z-0.125000
G01 X19.723160 Y84.725903 Z-0.125000
G00 Z5.000000

(End cutting path id: polyline1721)


(Start cutting path id: polyline1723)
(Change tool to Default tool)

G00 Z5.000000
G00 X202.791716 Y89.035256

G00 Z4.875000 (Fast pre-penetrate)
G01 Z-0.125000 F100.0(Penetrate)
G01 X186.182064 Y81.681619 Z-0.125000 F800.000000
G01 X162.418892 Y89.150113 Z-0.125000
G01 X141.394779 Y85.922824 Z-0.125000
G01 X113.988017 Y82.996730 Z-0.125000
G01 X90.346865 Y81.048289 Z-0.125000
G01 X73.475215 Y92.738986 Z-0.125000
G01 X54.554543 Y87.737705 Z-0.125000
G01 X34.353034 Y93.903573 Z-0.125000
G01 X17.253709 Y87.531072 Z-0.125000
G00 Z5.000000

(End cutting path id: polyline1723)


(Start cutting path id: polyline1725)
(Change tool to Default tool)

G00 Z5.000000
G00 X202.721976 Y91.894744

G00 Z4.875000 (Fast pre-penetrate)
G01 Z-0.125000 F100.0(Penetrate)
G01 X182.936171 Y86.590527 Z-0.125000 F800.000000
G01 X159.907656 Y92.668450 Z-0.125000
G01 X140.684048 Y87.675128 Z-0.125000
G01 X117.432833 Y85.713206 Z-0.125000
G01 X91.704406 Y86.524816 Z-0.125000
G01 X71.450617 Y96.935173 Z-0.125000
G01 X54.944828 Y91.000113 Z-0.125000
G01 X33.565549 Y95.734521 Z-0.125000
G01 X15.036058 Y88.914878 Z-0.125000
G00 Z5.000000

(End cutting path id: polyline1725)


(Start cutting path id: polyline1727)
(Change tool to Default tool)

G00 Z5.000000
G00 X202.675467 Y93.801053

G00 Z4.875000 (Fast pre-penetrate)
G01 Z-0.125000 F100.0(Penetrate)
G01 X180.772242 Y89.863132 Z-0.125000 F800.000000
G01 X158.233499 Y95.013991 Z-0.125000
G01 X140.210294 Y88.843397 Z-0.125000
G01 X119.729327 Y87.524157 Z-0.125000
G01 X92.609434 Y90.175818 Z-0.125000
G01 X70.100885 Y99.732631 Z-0.125000
G01 X55.205035 Y93.175084 Z-0.125000
G01 X33.040559 Y96.955120 Z-0.125000
G01 X13.557640 Y89.837415 Z-0.125000
G00 Z5.000000

(End cutting path id: polyline1727)


(Start cutting path id: polyline1729)
(Change tool to Default tool)

G00 Z5.000000
G00 X202.652187 Y94.754232

G00 Z4.875000 (Fast pre-penetrate)
G01 Z-0.125000 F100.0(Penetrate)
G01 X179.690328 Y91.499435 Z-0.125000 F800.000000
G01 X157.396420 Y96.186737 Z-0.125000
G01 X139.973367 Y89.427481 Z-0.125000
G01 X120.877599 Y88.429682 Z-0.125000
G01 X93.061948 Y92.001294 Z-0.125000
G01 X69.426019 Y101.131360 Z-0.125000
G01 X55.335163 Y94.262570 Z-0.125000
G01 X32.778064 Y97.565419 Z-0.125000
G01 X12.818406 Y90.298684 Z-0.125000
G00 Z5.000000

(End cutting path id: polyline1729)


(Start cutting path id: polyline1731)
(Change tool to Default tool)

G00 Z5.000000
G00 X202.628957 Y95.707361

G00 Z4.875000 (Fast pre-penetrate)
G01 Z-0.125000 F100.0(Penetrate)
G01 X178.608363 Y93.135737 Z-0.125000 F800.000000
G01 X156.559342 Y97.359532 Z-0.125000
G01 X139.736440 Y90.011616 Z-0.125000
G01 X122.025871 Y89.335158 Z-0.125000
G01 X93.514412 Y93.826770 Z-0.125000
G01 X68.751103 Y102.530039 Z-0.125000
G01 X55.465291 Y95.350006 Z-0.125000
G01 X32.515569 Y98.175718 Z-0.125000
G01 X12.079222 Y90.759952 Z-0.125000
G00 Z5.000000

(End cutting path id: polyline1731)


(Start cutting path id: polyline1733)
(Change tool to Default tool)

G00 Z5.000000
G00 X202.605677 Y96.660541

G00 Z4.875000 (Fast pre-penetrate)
G01 Z-0.125000 F100.0(Penetrate)
G01 X177.526399 Y94.772040 Z-0.125000 F800.000000
G01 X155.722263 Y98.532327 Z-0.125000
G01 X139.499563 Y90.595750 Z-0.125000
G01 X123.174143 Y90.240633 Z-0.125000
G01 X93.966926 Y95.652296 Z-0.125000
G01 X68.076237 Y103.928768 Z-0.125000
G01 X55.595370 Y96.437492 Z-0.125000
G01 X32.253075 Y98.786018 Z-0.125000
G01 X11.339989 Y91.221221 Z-0.125000
G00 Z5.000000

(End cutting path id: polyline1733)


(Start cutting path id: polyline1735)
(Change tool to Default tool)

G00 Z5.000000
G00 X202.582447 Y97.613720

G00 Z4.875000 (Fast pre-penetrate)
G01 Z-0.125000 F100.0(Penetrate)
G01 X176.444435 Y96.408343 Z-0.125000 F800.000000
G01 X154.885185 Y99.705073 Z-0.125000
G01 X139.262636 Y91.179835 Z-0.125000
G01 X124.322415 Y91.146159 Z-0.125000
G01 X94.419440 Y97.477772 Z-0.125000
G01 X67.401371 Y105.327497 Z-0.125000
G01 X55.725498 Y97.524978 Z-0.125000
G01 X31.990580 Y99.396317 Z-0.125000
G01 X10.600805 Y91.682490 Z-0.125000
G00 Z5.000000

(End cutting path id: polyline1735)


(Start cutting path id: polyline1737)
(Change tool to Default tool)

G00 Z5.000000
G00 X202.559167 Y98.566849

G00 Z4.875000 (Fast pre-penetrate)
G01 Z-0.125000 F100.0(Penetrate)
G01 X175.362470 Y98.044645 Z-0.125000 F800.000000
G01 X154.048106 Y100.877869 Z-0.125000
G01 X139.025759 Y91.763969 Z-0.125000
G01 X125.470687 Y92.051634 Z-0.125000
G01 X94.871954 Y99.303248 Z-0.125000
G01 X66.726505 Y106.726226 Z-0.125000
G01 X55.855576 Y98.612414 Z-0.125000
G01 X31.728035 Y100.006616 Z-0.125000
G01 X9.861571 Y92.143709 Z-0.125000
G00 Z5.000000

(End cutting path id: polyline1737)


(Start cutting path id: polyline1739)
(Change tool to Default tool)

G00 Z5.000000
G00 X202.535887 Y99.520028

G00 Z4.875000 (Fast pre-penetrate)
G01 Z-0.125000 F100.0(Penetrate)
G01 X174.280556 Y99.680948 Z-0.125000 F800.000000
G01 X153.211027 Y102.050664 Z-0.125000
G01 X138.788882 Y92.348054 Z-0.125000
G01 X126.618959 Y92.957159 Z-0.125000
G01 X95.324468 Y101.128773 Z-0.125000
G01 X66.051639 Y108.124955 Z-0.125000
G01 X55.985705 Y99.699900 Z-0.125000
G01 X31.465540 Y100.616916 Z-0.125000
G01 X9.122387 Y92.604977 Z-0.125000
G00 Z5.000000

(End cutting path id: polyline1739)


(Start cutting path id: polyline1741)
(Change tool to Default tool)

G00 Z5.000000
G00 X202.512657 Y100.473158

G00 Z4.875000 (Fast pre-penetrate)
G01 Z-0.125000 F100.0(Penetrate)
G01 X173.198591 Y101.317300 Z-0.125000 F800.000000
G01 X152.373949 Y103.223410 Z-0.125000
G01 X138.551955 Y92.932188 Z-0.125000
G01 X127.767231 Y93.862635 Z-0.125000
G01 X95.776982 Y102.954249 Z-0.125000
G01 X65.376773 Y109.523684 Z-0.125000
G01 X56.115783 Y100.787386 Z-0.125000
G01 X31.203045 Y101.227265 Z-0.125000
G01 X8.383153 Y93.066246 Z-0.125000
G00 Z5.000000

(End cutting path id: polyline1741)


(Start cutting path id: polyline1743)
(Change tool to Default tool)

G00 Z5.000000
G00 X202.489377 Y101.426337

G00 Z4.875000 (Fast pre-penetrate)
G01 Z-0.125000 F100.0(Penetrate)
G01 X172.116627 Y102.953603 Z-0.125000 F800.000000
G01 X151.536870 Y104.396155 Z-0.125000
G01 X138.315078 Y93.516323 Z-0.125000
G01 X128.915454 Y94.768110 Z-0.125000
G01 X96.229495 Y104.779775 Z-0.125000
G01 X64.701907 Y110.922413 Z-0.125000
G01 X56.245911 Y101.874872 Z-0.125000
G01 X30.940551 Y101.837564 Z-0.125000
G01 X7.643920 Y93.527515 Z-0.125000
G00 Z5.000000

(End cutting path id: polyline1743)


(Start cutting path id: polyline1745)
(Change tool to Default tool)

G00 Z5.000000
G00 X202.466147 Y102.379467

G00 Z4.875000 (Fast pre-penetrate)
G01 Z-0.125000 F100.0(Penetrate)
G01 X171.034663 Y104.589905 Z-0.125000 F800.000000
G01 X150.699792 Y105.568951 Z-0.125000
G01 X138.078151 Y94.100407 Z-0.125000
G01 X130.063726 Y95.673586 Z-0.125000
G01 X96.682009 Y106.605251 Z-0.125000
G01 X64.027041 Y112.321142 Z-0.125000
G01 X56.376039 Y102.962357 Z-0.125000
G01 X30.678056 Y102.447814 Z-0.125000
G01 X6.904736 Y93.988784 Z-0.125000
G00 Z5.000000

(End cutting path id: polyline1745)


(Start cutting path id: polyline1747)
(Change tool to Default tool)

G00 Z5.000000
G00 X202.442867 Y103.332646

G00 Z4.875000 (Fast pre-penetrate)
G01 Z-0.125000 F100.0(Penetrate)
G01 X169.952698 Y106.226208 Z-0.125000 F800.000000
G01 X149.862713 Y106.741746 Z-0.125000
G01 X137.841274 Y94.684542 Z-0.125000
G01 X131.211998 Y96.579111 Z-0.125000
G01 X97.134523 Y108.430777 Z-0.125000
G01 X63.352175 Y113.719872 Z-0.125000
G01 X56.506118 Y104.049793 Z-0.125000
G01 X30.415561 Y103.058163 Z-0.125000
G01 X6.165502 Y94.450052 Z-0.125000
G00 Z5.000000

(End cutting path id: polyline1747)


(Start cutting path id: polyline1749)
(Change tool to Default tool)

G00 Z5.000000
G00 X202.419637 Y104.285825

G00 Z4.875000 (Fast pre-penetrate)
G01 Z-0.125000 F100.0(Penetrate)
G01 X168.870734 Y107.862510 Z-0.125000 F800.000000
G01 X149.025684 Y107.914492 Z-0.125000
G01 X137.604347 Y95.268676 Z-0.125000
G01 X132.360270 Y97.484586 Z-0.125000
G01 X97.587037 Y110.256253 Z-0.125000
G01 X62.677309 Y115.118601 Z-0.125000
G01 X56.636246 Y105.137279 Z-0.125000
G01 X30.153066 Y103.668462 Z-0.125000
G01 X5.426268 Y94.911321 Z-0.125000
G00 Z5.000000

(End cutting path id: polyline1749)


(Start cutting path id: polyline1751)
(Change tool to Default tool)

G00 Z5.000000
G00 X202.698697 Y92.847923

G00 Z4.875000 (Fast pre-penetrate)
G01 Z-0.125000 F100.0(Penetrate)
G01 X181.854207 Y88.226830 Z-0.125000 F800.000000
G01 X159.070577 Y93.841195 Z-0.125000
G01 X140.447171 Y88.259262 Z-0.125000
G01 X118.581055 Y86.618682 Z-0.125000
G01 X92.156920 Y88.350292 Z-0.125000
G01 X70.775751 Y98.333902 Z-0.125000
G01 X55.074956 Y92.087598 Z-0.125000
G01 X33.303054 Y96.344820 Z-0.125000
G01 X14.296824 Y89.376146 Z-0.125000
G00 Z5.000000

(End cutting path id: polyline1751)


(Start cutting path id: polyline1753)
(Change tool to Default tool)

G00 Z5.000000
G00 X202.745206 Y90.941565

G00 Z4.875000 (Fast pre-penetrate)
G01 Z-0.125000 F100.0(Penetrate)
G01 X184.018135 Y84.954225 Z-0.125000 F800.000000
G01 X160.744735 Y91.495654 Z-0.125000
G01 X140.920975 Y87.091043 Z-0.125000
G01 X116.284561 Y84.807681 Z-0.125000
G01 X91.251892 Y84.699291 Z-0.125000
G01 X72.125483 Y95.536444 Z-0.125000
G01 X54.814750 Y89.912627 Z-0.125000
G01 X33.828044 Y95.124222 Z-0.125000
G01 X15.775291 Y88.453609 Z-0.125000
G00 Z5.000000

(End cutting path id: polyline1753)


(Start cutting path id: polyline1755)
(Change tool to Default tool)

G00 Z5.000000
G00 X202.768486 Y89.988435

G00 Z4.875000 (Fast pre-penetrate)
G01 Z-0.125000 F100.0(Penetrate)
G01 X185.100100 Y83.317922 Z-0.125000 F800.000000
G01 X161.581813 Y90.322859 Z-0.125000
G01 X141.157852 Y86.506909 Z-0.125000
G01 X115.136289 Y83.902206 Z-0.125000
G01 X90.799378 Y82.873815 Z-0.125000
G01 X72.800349 Y94.137715 Z-0.125000
G01 X54.684621 Y88.825141 Z-0.125000
G01 X34.090539 Y94.513923 Z-0.125000
G01 X16.514475 Y87.992340 Z-0.125000
G00 Z5.000000

(End cutting path id: polyline1755)


(Start cutting path id: polyline1757)
(Change tool to Default tool)

G00 Z5.000000
G00 X202.814996 Y88.082127

G00 Z4.875000 (Fast pre-penetrate)
G01 Z-0.125000 F100.0(Penetrate)
G01 X187.264028 Y80.045267 Z-0.125000 F800.000000
G01 X163.255970 Y87.977318 Z-0.125000
G01 X141.631656 Y85.338690 Z-0.125000
G01 X112.839745 Y82.091205 Z-0.125000
G01 X89.894351 Y79.222813 Z-0.125000
G01 X74.150081 Y91.340257 Z-0.125000
G01 X54.424415 Y86.650219 Z-0.125000
G01 X34.615578 Y93.293274 Z-0.125000
G01 X17.992893 Y87.069803 Z-0.125000
G00 Z5.000000

(End cutting path id: polyline1757)


(Start cutting path id: polyline1759)
(Change tool to Default tool)

G00 Z5.000000
G00 X202.838226 Y87.128948

G00 Z4.875000 (Fast pre-penetrate)
G01 Z-0.125000 F100.0(Penetrate)
G01 X188.345943 Y78.408965 Z-0.125000 F800.000000
G01 X164.093049 Y86.804522 Z-0.125000
G01 X141.868583 Y84.754555 Z-0.125000
G01 X111.691473 Y81.185730 Z-0.125000
G01 X89.441837 Y77.397337 Z-0.125000
G01 X74.824947 Y89.941528 Z-0.125000
G01 X54.294336 Y85.562733 Z-0.125000
G01 X34.878073 Y92.682975 Z-0.125000
G01 X18.732127 Y86.608534 Z-0.125000
G00 Z5.000000

(End cutting path id: polyline1759)


(Start cutting path id: polyline1761)
(Change tool to Default tool)

G00 Z5.000000
G00 X202.777092 Y108.844988

G00 Z4.875000 (Fast pre-penetrate)
G01 Z-0.125000 F100.0(Penetrate)
G01 X169.536447 Y112.677055 Z-0.125000 F800.000000
G01 X148.961516 Y111.086367 Z-0.125000
G01 X137.720497 Y99.144418 Z-0.125000
G01 X132.155427 Y101.493988 Z-0.125000
G01 X98.550861 Y114.134581 Z-0.125000
G01 X63.491406 Y118.249637 Z-0.125000
G01 X56.992159 Y109.205228 Z-0.125000
G01 X30.308812 Y107.097360 Z-0.125000
G01 X4.247355 Y98.873815 Z-0.125000
G00 Z5.000000

(End cutting path id: polyline1761)


(Start cutting path id: polyline1763)
(Change tool to Default tool)

G00 Z5.000000
G00 X202.979099 Y110.171391

G00 Z4.875000 (Fast pre-penetrate)
G01 Z-0.125000 F100.0(Penetrate)
G01 X170.951243 Y113.447975 Z-0.125000 F800.000000
G01 X149.766510 Y111.499484 Z-0.125000
G01 X138.015475 Y100.498179 Z-0.125000
G01 X130.904734 Y102.593213 Z-0.125000
G01 X98.580260 Y114.248244 Z-0.125000
G01 X64.573321 Y118.416425 Z-0.125000
G01 X57.040012 Y110.151742 Z-0.125000
G01 X30.649205 Y108.201510 Z-0.125000
G01 X4.397082 Y100.393768 Z-0.125000
G00 Z5.000000

(End cutting path id: polyline1763)


(Start cutting path id: polyline1765)
(Change tool to Default tool)

G00 Z5.000000
G00 X203.181056 Y111.497793

G00 Z4.875000 (Fast pre-penetrate)
G01 Z-0.125000 F100.0(Penetrate)
G01 X172.366039 Y114.218945 Z-0.125000 F800.000000
G01 X150.571504 Y111.912651 Z-0.125000
G01 X138.310452 Y101.851940 Z-0.125000
G01 X129.654090 Y103.692438 Z-0.125000
G01 X98.609658 Y114.361907 Z-0.125000
G01 X65.655235 Y118.583264 Z-0.125000
G01 X57.087865 Y111.098206 Z-0.125000
G01 X30.989597 Y109.305710 Z-0.125000
G01 X4.546809 Y101.913721 Z-0.125000
G00 Z5.000000

(End cutting path id: polyline1765)


(Start cutting path id: polyline1767)
(Change tool to Default tool)

G00 Z5.000000
G00 X203.383064 Y112.824245

G00 Z4.875000 (Fast pre-penetrate)
G01 Z-0.125000 F100.0(Penetrate)
G01 X173.780885 Y114.989865 Z-0.125000 F800.000000
G01 X151.376498 Y112.325769 Z-0.125000
G01 X138.605379 Y103.205701 Z-0.125000
G01 X128.403397 Y104.791614 Z-0.125000
G01 X98.639056 Y114.475570 Z-0.125000
G01 X66.737150 Y118.750053 Z-0.125000
G01 X57.135718 Y112.044720 Z-0.125000
G01 X31.329990 Y110.409860 Z-0.125000
G01 X4.696585 Y103.433674 Z-0.125000
G00 Z5.000000

(End cutting path id: polyline1767)


(Start cutting path id: polyline1769)
(Change tool to Default tool)

G00 Z5.000000
G00 X203.585071 Y114.150648

G00 Z4.875000 (Fast pre-penetrate)
G01 Z-0.125000 F100.0(Penetrate)
G01 X175.195681 Y115.760835 Z-0.125000 F800.000000
G01 X152.181492 Y112.738936 Z-0.125000
G01 X138.900356 Y104.559462 Z-0.125000
G01 X127.152704 Y105.890839 Z-0.125000
G01 X98.668454 Y114.589233 Z-0.125000
G01 X67.819065 Y118.916842 Z-0.125000
G01 X57.183571 Y112.991183 Z-0.125000
G01 X31.670383 Y111.514009 Z-0.125000
G01 X4.846312 Y104.953627 Z-0.125000
G00 Z5.000000

(End cutting path id: polyline1769)


(Start cutting path id: polyline1771)
(Change tool to Default tool)

G00 Z5.000000
G00 X203.787078 Y115.477100

G00 Z4.875000 (Fast pre-penetrate)
G01 Z-0.125000 F100.0(Penetrate)
G01 X176.610477 Y116.531755 Z-0.125000 F800.000000
G01 X152.986487 Y113.152053 Z-0.125000
G01 X139.195334 Y105.913223 Z-0.125000
G01 X125.902011 Y106.990064 Z-0.125000
G01 X98.697803 Y114.702897 Z-0.125000
G01 X68.901029 Y119.083631 Z-0.125000
G01 X57.231424 Y113.937697 Z-0.125000
G01 X32.010726 Y112.618159 Z-0.125000
G01 X4.996039 Y106.473581 Z-0.125000
G00 Z5.000000

(End cutting path id: polyline1771)


(Start cutting path id: polyline1773)
(Change tool to Default tool)

G00 Z5.000000
G00 X203.989035 Y116.803502

G00 Z4.875000 (Fast pre-penetrate)
G01 Z-0.125000 F100.0(Penetrate)
G01 X178.025273 Y117.302725 Z-0.125000 F800.000000
G01 X153.791481 Y113.565220 Z-0.125000
G01 X139.490311 Y107.266985 Z-0.125000
G01 X124.651367 Y108.089289 Z-0.125000
G01 X98.727201 Y114.816560 Z-0.125000
G01 X69.982944 Y119.250470 Z-0.125000
G01 X57.279276 Y114.884211 Z-0.125000
G01 X32.351118 Y113.722309 Z-0.125000
G01 X5.145766 Y107.993534 Z-0.125000
G00 Z5.000000

(End cutting path id: polyline1773)


(Start cutting path id: polyline1775)
(Change tool to Default tool)

G00 Z5.000000
G00 X204.191042 Y118.129954

G00 Z4.875000 (Fast pre-penetrate)
G01 Z-0.125000 F100.0(Penetrate)
G01 X179.440070 Y118.073695 Z-0.125000 F800.000000
G01 X154.596525 Y113.978337 Z-0.125000
G01 X139.785238 Y108.620746 Z-0.125000
G01 X123.400674 Y109.188465 Z-0.125000
G01 X98.756599 Y114.930223 Z-0.125000
G01 X71.064858 Y119.417259 Z-0.125000
G01 X57.327129 Y115.830674 Z-0.125000
G01 X32.691511 Y114.826459 Z-0.125000
G01 X5.295494 Y109.513487 Z-0.125000
G00 Z5.000000

(End cutting path id: polyline1775)


(Start cutting path id: polyline1777)
(Change tool to Default tool)

G00 Z5.000000
G00 X204.393049 Y119.456357

G00 Z4.875000 (Fast pre-penetrate)
G01 Z-0.125000 F100.0(Penetrate)
G01 X180.854866 Y118.844615 Z-0.125000 F800.000000
G01 X155.401469 Y114.391504 Z-0.125000
G01 X140.080215 Y109.974507 Z-0.125000
G01 X122.149981 Y110.287690 Z-0.125000
G01 X98.785997 Y115.043886 Z-0.125000
G01 X72.146773 Y119.584048 Z-0.125000
G01 X57.374982 Y116.777138 Z-0.125000
G01 X33.031904 Y115.930609 Z-0.125000
G01 X5.445270 Y111.033440 Z-0.125000
G00 Z5.000000

(End cutting path id: polyline1777)


(Start cutting path id: polyline1779)
(Change tool to Default tool)

G00 Z5.000000
G00 X204.595007 Y120.782759

G00 Z4.875000 (Fast pre-penetrate)
G01 Z-0.125000 F100.0(Penetrate)
G01 X182.269712 Y119.615585 Z-0.125000 F800.000000
G01 X156.206513 Y114.804621 Z-0.125000
G01 X140.375193 Y111.328268 Z-0.125000
G01 X120.899287 Y111.386915 Z-0.125000
G01 X98.815396 Y115.157549 Z-0.125000
G01 X73.228687 Y119.750886 Z-0.125000
G01 X57.422835 Y117.723652 Z-0.125000
G01 X33.372297 Y117.034808 Z-0.125000
G01 X5.594997 Y112.553443 Z-0.125000
G00 Z5.000000

(End cutting path id: polyline1779)


(Start cutting path id: polyline1781)
(Change tool to Default tool)

G00 Z5.000000
G00 X204.797014 Y122.109211

G00 Z4.875000 (Fast pre-penetrate)
G01 Z-0.125000 F100.0(Penetrate)
G01 X183.684508 Y120.386555 Z-0.125000 F800.000000
G01 X157.011507 Y115.217789 Z-0.125000
G01 X140.670170 Y112.682029 Z-0.125000
G01 X119.648644 Y112.486141 Z-0.125000
G01 X98.844794 Y115.271213 Z-0.125000
G01 X74.310602 Y119.917675 Z-0.125000
G01 X57.470688 Y118.670116 Z-0.125000
G01 X33.712640 Y118.138958 Z-0.125000
G01 X5.744724 Y114.073396 Z-0.125000
G00 Z5.000000

(End cutting path id: polyline1781)


(Start cutting path id: polyline1783)
(Change tool to Default tool)

G00 Z5.000000
G00 X204.999021 Y123.435614

G00 Z4.875000 (Fast pre-penetrate)
G01 Z-0.125000 F100.0(Penetrate)
G01 X185.099304 Y121.157475 Z-0.125000 F800.000000
G01 X157.816502 Y115.630906 Z-0.125000
G01 X140.965097 Y114.035791 Z-0.125000
G01 X118.397950 Y113.585316 Z-0.125000
G01 X98.874192 Y115.384876 Z-0.125000
G01 X75.392566 Y120.084464 Z-0.125000
G01 X57.518541 Y119.616629 Z-0.125000
G01 X34.053032 Y119.243108 Z-0.125000
G01 X5.894451 Y115.593350 Z-0.125000
G00 Z5.000000

(End cutting path id: polyline1783)


(Start cutting path id: polyline1785)
(Change tool to Default tool)

G00 Z5.000000
G00 X205.200979 Y124.762016

G00 Z4.875000 (Fast pre-penetrate)
G01 Z-0.125000 F100.0(Penetrate)
G01 X186.514100 Y121.928445 Z-0.125000 F800.000000
G01 X158.621496 Y116.044073 Z-0.125000
G01 X117.147257 Y114.684541 Z-0.125000
G01 X98.903590 Y115.498539 Z-0.125000
G01 X76.474481 Y120.251253 Z-0.125000
G01 X57.566394 Y120.563093 Z-0.125000
G01 X34.393425 Y120.347258 Z-0.125000
G01 X6.044228 Y117.113303 Z-0.125000
G00 Z5.000000

(End cutting path id: polyline1785)


(Start cutting path id: polyline1787)
(Change tool to Default tool)

G00 Z5.000000
G00 X204.598539 Y135.415169

G00 Z4.875000 (Fast pre-penetrate)
G01 Z-0.125000 F100.0(Penetrate)
G01 X195.177177 Y129.444791 Z-0.125000 F800.000000
G01 X164.020772 Y123.253603 Z-0.125000
G01 X141.597483 Y130.224118 Z-0.125000
G01 X109.145118 Y127.598075 Z-0.125000
G01 X98.714715 Y120.396553 Z-0.125000
G01 X83.000043 Y124.598063 Z-0.125000
G01 X55.141960 Y129.064604 Z-0.125000
G01 X34.939207 Y131.768943 Z-0.125000
G01 X7.870351 Y131.987415 Z-0.125000
G00 Z5.000000

(End cutting path id: polyline1787)


(Start cutting path id: polyline1789)
(Change tool to Default tool)

G00 Z5.000000
G00 X205.338021 Y135.401241

G00 Z4.875000 (Fast pre-penetrate)
G01 Z-0.125000 F100.0(Penetrate)
G01 X196.062307 Y128.995163 Z-0.125000 F800.000000
G01 X164.367681 Y121.952122 Z-0.125000
G01 X142.271602 Y128.889309 Z-0.125000
G01 X108.477366 Y126.224765 Z-0.125000
G01 X98.856086 Y119.066967 Z-0.125000
G01 X83.709978 Y123.593946 Z-0.125000
G01 X56.077729 Y128.754754 Z-0.125000
G01 X35.664961 Y130.906147 Z-0.125000
G01 X7.660932 Y131.082586 Z-0.125000
G00 Z5.000000

(End cutting path id: polyline1789)


(Start cutting path id: polyline1791)
(Change tool to Default tool)

G00 Z5.000000
G00 X205.402986 Y126.088468

G00 Z4.875000 (Fast pre-penetrate)
G01 Z-0.125000 F100.0(Penetrate)
G01 X187.928896 Y122.699414 Z-0.125000 F800.000000
G01 X159.426490 Y116.457190 Z-0.125000
G01 X141.555052 Y116.743313 Z-0.125000
G01 X115.896564 Y115.783767 Z-0.125000
G01 X98.932989 Y115.612202 Z-0.125000
G01 X77.556396 Y120.418092 Z-0.125000
G01 X57.614247 Y121.509607 Z-0.125000
G01 X34.733818 Y121.451407 Z-0.125000
G01 X6.193955 Y118.633256 Z-0.125000
G00 Z5.000000

(End cutting path id: polyline1791)


(Start cutting path id: polyline1793)
(Change tool to Default tool)

G00 Z5.000000
G00 X205.604993 Y127.414871

G00 Z4.875000 (Fast pre-penetrate)
G01 Z-0.125000 F100.0(Penetrate)
G01 X189.343692 Y123.470335 Z-0.125000 F800.000000
G01 X160.231484 Y116.870357 Z-0.125000
G01 X141.850029 Y118.097124 Z-0.125000
G01 X114.645920 Y116.882942 Z-0.125000
G01 X98.962387 Y115.725866 Z-0.125000
G01 X78.638310 Y120.584881 Z-0.125000
G01 X57.662100 Y122.456121 Z-0.125000
G01 X35.074210 Y122.555557 Z-0.125000
G01 X6.343682 Y120.153209 Z-0.125000
G00 Z5.000000

(End cutting path id: polyline1793)


(Start cutting path id: polyline1795)
(Change tool to Default tool)

G00 Z5.000000
G00 X205.807000 Y128.741323

G00 Z4.875000 (Fast pre-penetrate)
G01 Z-0.125000 F100.0(Penetrate)
G01 X190.758538 Y124.241304 Z-0.125000 F800.000000
G01 X161.036478 Y117.283474 Z-0.125000
G01 X142.145006 Y119.450885 Z-0.125000
G01 X113.395227 Y117.982167 Z-0.125000
G01 X98.991785 Y115.839529 Z-0.125000
G01 X79.720225 Y120.751670 Z-0.125000
G01 X57.709953 Y123.402584 Z-0.125000
G01 X35.414603 Y123.659757 Z-0.125000
G01 X6.493409 Y121.673163 Z-0.125000
G00 Z5.000000

(End cutting path id: polyline1795)


(Start cutting path id: polyline1797)
(Change tool to Default tool)

G00 Z5.000000
G00 X206.008957 Y130.067725

G00 Z4.875000 (Fast pre-penetrate)
G01 Z-0.125000 F100.0(Penetrate)
G01 X192.173334 Y125.012225 Z-0.125000 F800.000000
G01 X161.841473 Y117.696641 Z-0.125000
G01 X142.439933 Y120.804646 Z-0.125000
G01 X112.144534 Y119.081393 Z-0.125000
G01 X99.021183 Y115.953192 Z-0.125000
G01 X80.802139 Y120.918508 Z-0.125000
G01 X57.757806 Y124.349098 Z-0.125000
G01 X35.754946 Y124.763857 Z-0.125000
G01 X6.643186 Y123.193116 Z-0.125000
G00 Z5.000000

(End cutting path id: polyline1797)


(Start cutting path id: polyline1799)
(Change tool to Default tool)

G00 Z5.000000
G00 X206.210964 Y131.394128

G00 Z4.875000 (Fast pre-penetrate)
G01 Z-0.125000 F100.0(Penetrate)
G01 X193.588130 Y125.783194 Z-0.125000 F800.000000
G01 X162.646467 Y118.109759 Z-0.125000
G01 X142.734911 Y122.158358 Z-0.125000
G01 X110.893841 Y120.180618 Z-0.125000
G01 X99.050582 Y116.066855 Z-0.125000
G01 X81.884054 Y121.085297 Z-0.125000
G01 X57.805659 Y125.295562 Z-0.125000
G01 X36.095339 Y125.868056 Z-0.125000
G01 X6.792913 Y124.713069 Z-0.125000
G00 Z5.000000

(End cutting path id: polyline1799)


(Start cutting path id: polyline1801)
(Change tool to Default tool)

G00 Z5.000000
G00 X206.412972 Y132.720580

G00 Z4.875000 (Fast pre-penetrate)
G01 Z-0.125000 F100.0(Penetrate)
G01 X195.002926 Y126.554164 Z-0.125000 F800.000000
G01 X163.451461 Y118.522926 Z-0.125000
G01 X143.029888 Y123.512119 Z-0.125000
G01 X109.643197 Y121.279793 Z-0.125000
G01 X99.079980 Y116.180518 Z-0.125000
G01 X82.965969 Y121.252086 Z-0.125000
