%
(Header)
(Generated by gcodetools from Inkscape.)
(Using default header. To add your own header create file "header" in the output dir.)
M3
(Header end.)
G21 (All units in mm)

(Start cutting path id: polyline160472)
(Change tool to Default tool)

G00 Z5.000000
G00 X207.850798 Y186.276601

G00 Z4.875000 (Fast pre-penetrate)
G01 Z-0.125000 F100.0(Penetrate)
G01 X178.849050 Y183.871969 Z-0.125000 F800.000000
G01 X159.860894 Y181.550304 Z-0.125000
G01 X141.337340 Y184.990669 Z-0.125000
G01 X117.621190 Y185.147168 Z-0.125000
G01 X101.339880 Y181.766406 Z-0.125000
G01 X72.238641 Y179.034700 Z-0.125000
G01 X55.880605 Y188.724963 Z-0.125000
G01 X25.252672 Y184.937705 Z-0.125000
G01 X3.277870 Y173.649662 Z-0.125000
G00 Z5.000000

(End cutting path id: polyline160472)


(Start cutting path id: polyline160194)
(Change tool to Default tool)

G00 Z5.000000
G00 X2.031475 Y175.310541

G00 Z4.875000 (Fast pre-penetrate)
G01 Z-0.125000 F100.0(Penetrate)
G01 X24.082754 Y186.627836 Z-0.125000 F800.000000
G01 X55.607244 Y190.515233 Z-0.125000
G01 X72.666104 Y180.320632 Z-0.125000
G01 X102.527619 Y182.851810 Z-0.125000
G01 X117.376733 Y186.875987 Z-0.125000
G01 X141.310533 Y186.689986 Z-0.125000
G01 X160.316611 Y182.368138 Z-0.125000
G01 X178.368622 Y184.875055 Z-0.125000
G01 X208.131596 Y187.635465 Z-0.125000
G00 Z5.000000

(End cutting path id: polyline160194)


(Start cutting path id: polyline160196)
(Change tool to Default tool)

G00 Z5.000000
G00 X207.200744 Y188.030330

G00 Z4.875000 (Fast pre-penetrate)
G01 Z-0.125000 F100.0(Penetrate)
G01 X178.981986 Y185.719497 Z-0.125000 F800.000000
G01 X160.495623 Y183.212430 Z-0.125000
G01 X140.435191 Y187.551001 Z-0.125000
G01 X117.519603 Y187.505324 Z-0.125000
G01 X102.441907 Y183.766039 Z-0.125000
G01 X72.995374 Y181.205658 Z-0.125000
G01 X55.024382 Y190.642927 Z-0.125000
G01 X24.358161 Y187.349675 Z-0.125000
G01 X2.836930 Y176.776682 Z-0.125000
G00 Z5.000000

(End cutting path id: polyline160196)


(Start cutting path id: polyline160198)
(Change tool to Default tool)

G00 Z5.000000
G00 X15.724948 Y200.235497

G00 Z4.875000 (Fast pre-penetrate)
G01 Z-0.125000 F100.0(Penetrate)
G01 X28.764473 Y198.898947 Z-0.125000 F800.000000
G01 X45.698783 Y192.686440 Z-0.125000
G01 X78.263799 Y195.365980 Z-0.125000
G01 X101.070313 Y198.393560 Z-0.125000
G01 X119.805576 Y197.574378 Z-0.125000
G01 X126.429221 Y201.326991 Z-0.125000
G01 X163.359017 Y196.721100 Z-0.125000
G01 X188.796448 Y199.230613 Z-0.125000
G01 X192.307600 Y194.348517 Z-0.125000
G00 Z5.000000

(End cutting path id: polyline160198)


(Start cutting path id: polyline160200)
(Change tool to Default tool)

G00 Z5.000000
G00 X193.238403 Y193.953652

G00 Z4.875000 (Fast pre-penetrate)
G01 Z-0.125000 F100.0(Penetrate)
G01 X188.183035 Y198.386172 Z-0.125000 F800.000000
G01 X163.180054 Y195.876808 Z-0.125000
G01 X127.304563 Y200.465976 Z-0.125000
G01 X119.662706 Y196.945090 Z-0.125000
G01 X101.156025 Y197.479330 Z-0.125000
G01 X77.934529 Y194.480954 Z-0.125000
G01 X46.281595 Y192.558746 Z-0.125000
G01 X28.489066 Y198.177108 Z-0.125000
G01 X14.919444 Y198.769305 Z-0.125000
G00 Z5.000000

(End cutting path id: polyline160200)


(Start cutting path id: polyline160202)
(Change tool to Default tool)

G00 Z5.000000
G00 X17.445880 Y220.284996

G00 Z4.875000 (Fast pre-penetrate)
G01 Z-0.125000 F100.0(Penetrate)
G01 X28.700726 Y222.893949 Z-0.125000 F800.000000
G01 X54.041263 Y222.366398 Z-0.125000
G01 X70.430350 Y216.431444 Z-0.125000
G01 X91.923876 Y221.462901 Z-0.125000
G01 X143.383898 Y228.420958 Z-0.125000
G01 X148.258507 Y225.743415 Z-0.125000
G01 X173.652509 Y220.669577 Z-0.125000
G01 X199.532828 Y221.014921 Z-0.125000
G00 Z5.000000

(End cutting path id: polyline160202)


(Start cutting path id: polyline160204)
(Change tool to Default tool)

G00 Z5.000000
G00 X199.107812 Y219.446345

G00 Z4.875000 (Fast pre-penetrate)
G01 Z-0.125000 F100.0(Penetrate)
G01 X174.543326 Y219.408456 Z-0.125000 F800.000000
G01 X149.146778 Y224.036211 Z-0.125000
G01 X142.386553 Y226.827172 Z-0.125000
G01 X121.766821 Y223.887101 Z-0.125000
G01 X92.461910 Y220.105884 Z-0.125000
G01 X70.891109 Y215.192338 Z-0.125000
G01 X53.550553 Y220.620506 Z-0.125000
G01 X28.704470 Y221.482469 Z-0.125000
G01 X17.344643 Y219.105643 Z-0.125000
G00 Z5.000000

(End cutting path id: polyline160204)


(Start cutting path id: polyline160190)
(Change tool to Default tool)

G00 Z5.000000
G00 X23.220591 Y147.075859

G00 Z4.875000 (Fast pre-penetrate)
G01 Z-0.125000 F100.0(Penetrate)
G01 X43.971561 Y157.895454 Z-0.125000 F800.000000
G01 X60.254519 Y160.080889 Z-0.125000
G01 X65.399343 Y158.459847 Z-0.125000
G01 X82.335949 Y164.399542 Z-0.125000
G01 X121.532298 Y157.486313 Z-0.125000
G01 X141.765751 Y157.802204 Z-0.125000
G01 X152.569023 Y168.465502 Z-0.125000
G01 X186.536783 Y167.822885 Z-0.125000
G01 X203.358025 Y164.535224 Z-0.125000
G00 Z5.000000

(End cutting path id: polyline160190)


(Start cutting path id: polyline160192)
(Change tool to Default tool)

G00 Z5.000000
G00 X203.638823 Y165.894038

G00 Z4.875000 (Fast pre-penetrate)
G01 Z-0.125000 F100.0(Penetrate)
G01 X186.056306 Y168.825972 Z-0.125000 F800.000000
G01 X153.024790 Y169.283286 Z-0.125000
G01 X141.738944 Y159.501471 Z-0.125000
G01 X121.287842 Y159.215132 Z-0.125000
G01 X83.523688 Y165.484946 Z-0.125000
G01 X65.826805 Y159.745728 Z-0.125000
G01 X59.981158 Y161.871109 Z-0.125000
G01 X42.801593 Y159.585586 Z-0.125000
G01 X21.974146 Y148.736737 Z-0.125000
G00 Z5.000000

(End cutting path id: polyline160192)


(Start cutting path id: polyline160186)
(Change tool to Default tool)

G00 Z5.000000
G00 X11.245454 Y142.499470

G00 Z4.875000 (Fast pre-penetrate)
G01 Z-0.125000 F100.0(Penetrate)
G01 X20.579140 Y141.479461 Z-0.125000 F800.000000
G01 X36.849318 Y128.222136 Z-0.125000
G01 X69.112220 Y136.977553 Z-0.125000
G01 X95.724013 Y138.966603 Z-0.125000
G01 X121.619258 Y147.026887 Z-0.125000
G01 X128.600778 Y148.928978 Z-0.125000
G01 X157.342445 Y141.297703 Z-0.125000
G01 X178.346957 Y131.267538 Z-0.125000
G01 X190.579031 Y128.952561 Z-0.125000
G00 Z5.000000

(End cutting path id: polyline160186)


(Start cutting path id: polyline160188)
(Change tool to Default tool)

G00 Z5.000000
G00 X191.539386 Y128.934491

G00 Z4.875000 (Fast pre-penetrate)
G01 Z-0.125000 F100.0(Penetrate)
G01 X179.496458 Y130.683677 Z-0.125000 F800.000000
G01 X157.792970 Y139.607472 Z-0.125000
G01 X129.476270 Y147.195466 Z-0.125000
G01 X120.752004 Y145.243406 Z-0.125000
G01 X95.907568 Y137.239881 Z-0.125000
G01 X70.034187 Y135.673500 Z-0.125000
G01 X38.064563 Y127.819734 Z-0.125000
G01 X21.521674 Y140.358963 Z-0.125000
G01 X10.973491 Y141.324360 Z-0.125000
G00 Z5.000000

(End cutting path id: polyline160188)


(Start cutting path id: polyline160182)
(Change tool to Default tool)

G00 Z5.000000
G00 X6.622141 Y122.523004

G00 Z4.875000 (Fast pre-penetrate)
G01 Z-0.125000 F100.0(Penetrate)
G01 X36.602515 Y122.430203 Z-0.125000 F800.000000
G01 X57.509135 Y121.381041 Z-0.125000
G01 X84.786208 Y114.808463 Z-0.125000
G01 X98.844843 Y109.612222 Z-0.125000
G01 X106.876274 Y116.707708 Z-0.125000
G01 X143.483688 Y119.458833 Z-0.125000
G01 X165.001475 Y112.564024 Z-0.125000
G01 X197.888823 Y121.341904 Z-0.125000
G01 X206.905069 Y128.645106 Z-0.125000
G00 Z5.000000

(End cutting path id: polyline160182)


(Start cutting path id: polyline160184)
(Change tool to Default tool)

G00 Z5.000000
G00 X205.944714 Y128.663177

G00 Z4.875000 (Fast pre-penetrate)
G01 Z-0.125000 F100.0(Penetrate)
G01 X196.739272 Y121.925765 Z-0.125000 F800.000000
G01 X164.550949 Y114.254255 Z-0.125000
G01 X142.608246 Y121.192394 Z-0.125000
G01 X107.743529 Y118.491189 Z-0.125000
G01 X98.661238 Y111.338944 Z-0.125000
G01 X83.864191 Y116.112516 Z-0.125000
G01 X56.293840 Y121.783444 Z-0.125000
G01 X35.659931 Y123.550751 Z-0.125000
G01 X6.894103 Y123.698064 Z-0.125000
G00 Z5.000000

(End cutting path id: polyline160184)


(Start cutting path id: polyline160178)
(Change tool to Default tool)

G00 Z5.000000
G00 X3.316159 Y88.965234

G00 Z4.875000 (Fast pre-penetrate)
G01 Z-0.125000 F100.0(Penetrate)
G01 X29.087504 Y98.052567 Z-0.125000 F800.000000
G01 X56.452634 Y100.484355 Z-0.125000
G01 X60.899431 Y111.125737 Z-0.125000
G01 X98.195837 Y107.102759 Z-0.125000
G01 X134.488907 Y92.439246 Z-0.125000
G01 X136.971463 Y89.570411 Z-0.125000
G01 X147.228614 Y103.442646 Z-0.125000
G01 X166.652668 Y104.320784 Z-0.125000
G01 X202.445493 Y99.360263 Z-0.125000
G00 Z5.000000

(End cutting path id: polyline160178)


(Start cutting path id: polyline160180)
(Change tool to Default tool)

G00 Z5.000000
G00 X202.475694 Y98.122404

G00 Z4.875000 (Fast pre-penetrate)
G01 Z-0.125000 F100.0(Penetrate)
G01 X168.057808 Y102.195702 Z-0.125000 F800.000000
G01 X148.315765 Y101.919546 Z-0.125000
G01 X137.279068 Y88.811831 Z-0.125000
G01 X132.997655 Y91.263288 Z-0.125000
G01 X97.608132 Y104.731972 Z-0.125000
G01 X61.775921 Y109.309209 Z-0.125000
G01 X56.283656 Y99.072027 Z-0.125000
G01 X29.428405 Y97.259992 Z-0.125000
G01 X4.276215 Y88.366198 Z-0.125000
G00 Z5.000000

(End cutting path id: polyline160180)


(Start cutting path id: polyline160174)
(Change tool to Default tool)

G00 Z5.000000
G00 X19.636556 Y78.781366

G00 Z4.875000 (Fast pre-penetrate)
G01 Z-0.125000 F100.0(Penetrate)
G01 X34.882981 Y84.578241 Z-0.125000 F800.000000
G01 X53.580155 Y76.474976 Z-0.125000
G01 X75.799264 Y80.244612 Z-0.125000
G01 X88.205258 Y66.799340 Z-0.125000
G01 X109.137437 Y72.447704 Z-0.125000
G01 X142.201750 Y76.674255 Z-0.125000
G01 X165.709685 Y77.549997 Z-0.125000
G01 X190.540143 Y68.194296 Z-0.125000
G01 X202.958917 Y78.316364 Z-0.125000
G00 Z5.000000

(End cutting path id: polyline160174)


(Start cutting path id: polyline160176)
(Change tool to Default tool)

G00 Z5.000000
G00 X202.928715 Y79.554223

G00 Z4.875000 (Fast pre-penetrate)
G01 Z-0.125000 F100.0(Penetrate)
G01 X189.135004 Y70.319378 Z-0.125000 F800.000000
G01 X164.622584 Y79.073097 Z-0.125000
G01 X141.894095 Y77.432835 Z-0.125000
G01 X110.628688 Y73.623713 Z-0.125000
G01 X88.792962 Y69.170126 Z-0.125000
G01 X74.922824 Y82.061140 Z-0.125000
G01 X53.749083 Y77.887304 Z-0.125000
G01 X34.542079 Y85.370866 Z-0.125000
G01 X18.676550 Y79.380402 Z-0.125000
G00 Z5.000000

(End cutting path id: polyline160176)


(Start cutting path id: polyline160170)
(Change tool to Default tool)

G00 Z5.000000
G00 X8.876315 Y57.584313

G00 Z4.875000 (Fast pre-penetrate)
G01 Z-0.125000 F100.0(Penetrate)
G01 X46.514321 Y59.219433 Z-0.125000 F800.000000
G01 X56.663146 Y55.021536 Z-0.125000
G01 X73.554724 Y50.671533 Z-0.125000
G01 X106.536520 Y53.809435 Z-0.125000
G01 X127.866110 Y54.076356 Z-0.125000
G01 X138.310958 Y55.369127 Z-0.125000
G01 X162.740212 Y58.955458 Z-0.125000
G01 X163.727025 Y46.975029 Z-0.125000
G01 X193.874779 Y48.121435 Z-0.125000
G00 Z5.000000

(End cutting path id: polyline160170)


(Start cutting path id: polyline160172)
(Change tool to Default tool)

G00 Z5.000000
G00 X194.117040 Y47.138566

G00 Z4.875000 (Fast pre-penetrate)
G01 Z-0.125000 F100.0(Penetrate)
G01 X164.743040 Y46.078721 Z-0.125000 F800.000000
G01 X162.740911 Y58.014421 Z-0.125000
G01 X138.676121 Y54.138306 Z-0.125000
G01 X126.843255 Y52.714547 Z-0.125000
G01 X105.415773 Y52.734115 Z-0.125000
G01 X73.462922 Y49.677981 Z-0.125000
G01 X56.658853 Y53.954802 Z-0.125000
G01 X46.044726 Y58.286334 Z-0.125000
G01 X8.857395 Y56.010944 Z-0.125000
G00 Z5.000000

(End cutting path id: polyline160172)


(Start cutting path id: polyline160166)
(Change tool to Default tool)

G00 Z5.000000
G00 X8.554982 Y30.837038

G00 Z4.875000 (Fast pre-penetrate)
G01 Z-0.125000 F100.0(Penetrate)
G01 X38.531512 Y43.356600 Z-0.125000 F800.000000
G01 X56.590513 Y36.887256 Z-0.125000
G01 X71.994484 Y33.781502 Z-0.125000
G01 X87.484068 Y35.528542 Z-0.125000
G01 X110.477381 Y30.925546 Z-0.125000
G01 X144.518723 Y34.445035 Z-0.125000
G01 X162.751993 Y42.957841 Z-0.125000
G01 X180.999141 Y31.738189 Z-0.125000
G01 X197.992755 Y31.412962 Z-0.125000
G00 Z5.000000

(End cutting path id: polyline160166)


(Start cutting path id: polyline160168)
(Change tool to Default tool)

G00 Z5.000000
G00 X197.750495 Y32.395831

G00 Z4.875000 (Fast pre-penetrate)
G01 Z-0.125000 F100.0(Penetrate)
G01 X179.983125 Y32.634497 Z-0.125000 F800.000000
G01 X162.751294 Y43.898877 Z-0.125000
G01 X144.153560 Y35.675855 Z-0.125000
G01 X111.500236 Y32.287355 Z-0.125000
G01 X88.604765 Y36.603862 Z-0.125000
G01 X72.086236 Y34.775004 Z-0.125000
G01 X56.594806 Y37.953990 Z-0.125000
G01 X39.001107 Y44.289699 Z-0.125000
G01 X8.573851 Y32.410408 Z-0.125000
G00 Z5.000000

(End cutting path id: polyline160168)


(Start cutting path id: polyline160310)
(Change tool to Default tool)

G00 Z5.000000
G00 X194.359250 Y46.155697

G00 Z4.875000 (Fast pre-penetrate)
G01 Z-0.125000 F100.0(Penetrate)
G01 X165.759056 Y45.182463 Z-0.125000 F800.000000
G01 X162.741610 Y57.073385 Z-0.125000
G01 X139.041284 Y52.907486 Z-0.125000
G01 X125.820401 Y51.352737 Z-0.125000
G01 X104.295026 Y51.658745 Z-0.125000
G01 X73.371170 Y48.684479 Z-0.125000
G01 X56.654610 Y52.888068 Z-0.125000
G01 X45.575132 Y57.353185 Z-0.125000
G01 X8.838476 Y54.437575 Z-0.125000
G00 Z5.000000

(End cutting path id: polyline160310)


(Start cutting path id: polyline160308)
(Change tool to Default tool)

G00 Z5.000000
G00 X194.409170 Y49.897578

G00 Z4.875000 (Fast pre-penetrate)
G01 Z-0.125000 F100.0(Penetrate)
G01 X165.304287 Y48.223221 Z-0.125000 F800.000000
G01 X162.914881 Y60.049248 Z-0.125000
G01 X138.539840 Y56.622361 Z-0.125000
G01 X126.764432 Y55.157068 Z-0.125000
G01 X105.458205 Y54.573556 Z-0.125000
G01 X73.686762 Y52.411135 Z-0.125000
G01 X56.481788 Y56.283506 Z-0.125000
G01 X45.830122 Y60.711133 Z-0.125000
G01 X9.509247 Y58.831207 Z-0.125000
G00 Z5.000000

(End cutting path id: polyline160308)


(Start cutting path id: polyline160314)
(Change tool to Default tool)

G00 Z5.000000
G00 X194.943510 Y51.673771

G00 Z4.875000 (Fast pre-penetrate)
G01 Z-0.125000 F100.0(Penetrate)
G01 X166.881500 Y49.471413 Z-0.125000 F800.000000
G01 X163.089550 Y61.143039 Z-0.125000
G01 X125.662704 Y56.237729 Z-0.125000
G01 X73.818799 Y54.150736 Z-0.125000
G01 X56.300429 Y57.545476 Z-0.125000
G01 X45.145922 Y62.202784 Z-0.125000
G01 X10.142229 Y60.078102 Z-0.125000
G00 Z5.000000

(End cutting path id: polyline160314)


(Start cutting path id: polyline160312)
(Change tool to Default tool)

G00 Z5.000000
G00 X194.601461 Y45.172878

G00 Z4.875000 (Fast pre-penetrate)
G01 Z-0.125000 F100.0(Penetrate)
G01 X166.775072 Y44.286154 Z-0.125000 F800.000000
G01 X162.742309 Y56.132349 Z-0.125000
G01 X139.406446 Y51.676616 Z-0.125000
G01 X124.797496 Y49.990928 Z-0.125000
G01 X103.174329 Y50.583425 Z-0.125000
G01 X73.279367 Y47.690928 Z-0.125000
G01 X56.650316 Y51.821383 Z-0.125000
G01 X45.105587 Y56.420086 Z-0.125000
G01 X8.819606 Y52.864206 Z-0.125000
G00 Z5.000000

(End cutting path id: polyline160312)


(Start cutting path id: polyline160316)
(Change tool to Default tool)

G00 Z5.000000
G00 X194.843721 Y44.190009

G00 Z4.875000 (Fast pre-penetrate)
G01 Z-0.125000 F100.0(Penetrate)
G01 X167.791037 Y43.389896 Z-0.125000 F800.000000
G01 X162.743007 Y55.191313 Z-0.125000
G01 X139.771609 Y50.445796 Z-0.125000
G01 X123.774641 Y48.629118 Z-0.125000
G01 X102.053581 Y49.508055 Z-0.125000
G01 X73.187615 Y46.697426 Z-0.125000
G01 X56.646073 Y50.754649 Z-0.125000
G01 X44.635992 Y55.486987 Z-0.125000
G01 X8.800687 Y51.290837 Z-0.125000
G00 Z5.000000

(End cutting path id: polyline160316)


(Start cutting path id: polyline160318)
(Change tool to Default tool)

G00 Z5.000000
G00 X195.085931 Y43.207190

G00 Z4.875000 (Fast pre-penetrate)
G01 Z-0.125000 F100.0(Penetrate)
G01 X168.807053 Y42.493588 Z-0.125000 F800.000000
G01 X162.743656 Y54.250276 Z-0.125000
G01 X140.136772 Y49.214976 Z-0.125000
G01 X122.751787 Y47.267309 Z-0.125000
G01 X100.932834 Y48.432734 Z-0.125000
G01 X73.095812 Y45.703874 Z-0.125000
G01 X56.641780 Y49.687915 Z-0.125000
G01 X44.166398 Y54.553888 Z-0.125000
G01 X8.781817 Y49.717468 Z-0.125000
G00 Z5.000000

(End cutting path id: polyline160318)


(Start cutting path id: polyline160320)
(Change tool to Default tool)

G00 Z5.000000
G00 X195.328192 Y42.224321

G00 Z4.875000 (Fast pre-penetrate)
G01 Z-0.125000 F100.0(Penetrate)
G01 X169.823069 Y41.597330 Z-0.125000 F800.000000
G01 X162.744355 Y53.309240 Z-0.125000
G01 X140.501934 Y47.984156 Z-0.125000
G01 X121.728932 Y45.905500 Z-0.125000
G01 X99.812087 Y47.357364 Z-0.125000
G01 X73.004060 Y44.710322 Z-0.125000
G01 X56.637537 Y48.621181 Z-0.125000
G01 X43.696853 Y53.620789 Z-0.125000
G01 X8.762897 Y48.144099 Z-0.125000
G00 Z5.000000

(End cutting path id: polyline160320)


(Start cutting path id: polyline160322)
(Change tool to Default tool)

G00 Z5.000000
G00 X195.477901 Y53.449964

G00 Z4.875000 (Fast pre-penetrate)
G01 Z-0.125000 F100.0(Penetrate)
G01 X168.458763 Y50.719606 Z-0.125000 F800.000000
G01 X163.264219 Y62.236829 Z-0.125000
G01 X124.561026 Y57.318391 Z-0.125000
G01 X103.301574 Y56.101798 Z-0.125000
G01 X73.950837 Y55.890338 Z-0.125000
G01 X56.119071 Y58.807446 Z-0.125000
G01 X44.461723 Y63.694485 Z-0.125000
G01 X10.775160 Y61.324946 Z-0.125000
G00 Z5.000000

(End cutting path id: polyline160322)


(Start cutting path id: polyline160324)
(Change tool to Default tool)

G00 Z5.000000
G00 X196.012241 Y55.226107

G00 Z4.875000 (Fast pre-penetrate)
G01 Z-0.125000 F100.0(Penetrate)
G01 X170.035976 Y51.967798 Z-0.125000 F800.000000
G01 X163.438888 Y63.330620 Z-0.125000
G01 X123.459349 Y58.399053 Z-0.125000
G01 X102.223259 Y56.865919 Z-0.125000
G01 X74.082875 Y57.629890 Z-0.125000
G01 X55.937713 Y60.069416 Z-0.125000
G01 X43.777523 Y65.186185 Z-0.125000
G01 X11.408142 Y62.571840 Z-0.125000
G00 Z5.000000

(End cutting path id: polyline160324)


(Start cutting path id: polyline160326)
(Change tool to Default tool)

G00 Z5.000000
G00 X196.546632 Y57.002299

G00 Z4.875000 (Fast pre-penetrate)
G01 Z-0.125000 F100.0(Penetrate)
G01 X171.613239 Y53.215990 Z-0.125000 F800.000000
G01 X163.613557 Y64.424410 Z-0.125000
G01 X139.455318 Y61.635347 Z-0.125000
G01 X122.357671 Y59.479714 Z-0.125000
G01 X101.144943 Y57.629990 Z-0.125000
G01 X74.214912 Y59.369492 Z-0.125000
G01 X55.756354 Y61.331386 Z-0.125000
G01 X43.093324 Y66.677885 Z-0.125000
G01 X12.041074 Y63.818735 Z-0.125000
G00 Z5.000000

(End cutting path id: polyline160326)


(Start cutting path id: polyline160328)
(Change tool to Default tool)

G00 Z5.000000
G00 X195.570402 Y41.241452

G00 Z4.875000 (Fast pre-penetrate)
G01 Z-0.125000 F100.0(Penetrate)
G01 X170.839084 Y40.701021 Z-0.125000 F800.000000
G01 X162.745054 Y52.368204 Z-0.125000
G01 X140.867097 Y46.753336 Z-0.125000
G01 X120.706027 Y44.543690 Z-0.125000
G01 X98.691390 Y46.281994 Z-0.125000
G01 X72.912258 Y43.716820 Z-0.125000
G01 X56.633244 Y47.554497 Z-0.125000
G01 X43.227259 Y52.687690 Z-0.125000
G01 X8.743978 Y46.570729 Z-0.125000
G00 Z5.000000

(End cutting path id: polyline160328)


(Start cutting path id: polyline160330)
(Change tool to Default tool)

G00 Z5.000000
G00 X195.812662 Y40.258633

G00 Z4.875000 (Fast pre-penetrate)
G01 Z-0.125000 F100.0(Penetrate)
G01 X171.855100 Y39.804763 Z-0.125000 F800.000000
G01 X162.745753 Y51.427168 Z-0.125000
G01 X141.232259 Y45.522516 Z-0.125000
G01 X119.683173 Y43.181881 Z-0.125000
G01 X97.570643 Y45.206674 Z-0.125000
G01 X72.820505 Y42.723268 Z-0.125000
G01 X56.629001 Y46.487763 Z-0.125000
G01 X42.757714 Y51.754541 Z-0.125000
G01 X8.725108 Y44.997360 Z-0.125000
G00 Z5.000000

(End cutting path id: polyline160330)


(Start cutting path id: polyline160332)
(Change tool to Default tool)

G00 Z5.000000
G00 X196.054873 Y39.275764

G00 Z4.875000 (Fast pre-penetrate)
G01 Z-0.125000 F100.0(Penetrate)
G01 X172.871066 Y38.908455 Z-0.125000 F800.000000
G01 X162.746452 Y50.486131 Z-0.125000
G01 X141.597422 Y44.291646 Z-0.125000
G01 X118.660318 Y41.820071 Z-0.125000
G01 X96.449895 Y44.131304 Z-0.125000
G01 X72.728703 Y41.729767 Z-0.125000
G01 X56.624708 Y45.421029 Z-0.125000
G01 X42.288119 Y50.821442 Z-0.125000
G01 X8.706189 Y43.423991 Z-0.125000
G00 Z5.000000

(End cutting path id: polyline160332)


(Start cutting path id: polyline160334)
(Change tool to Default tool)

G00 Z5.000000
G00 X196.297133 Y38.292895

G00 Z4.875000 (Fast pre-penetrate)
G01 Z-0.125000 F100.0(Penetrate)
G01 X173.887081 Y38.012197 Z-0.125000 F800.000000
G01 X162.747151 Y49.545095 Z-0.125000
G01 X141.962585 Y43.060825 Z-0.125000
G01 X117.637464 Y40.458212 Z-0.125000
G01 X95.329198 Y43.055983 Z-0.125000
G01 X72.636901 Y40.736215 Z-0.125000
G01 X56.620415 Y44.354345 Z-0.125000
G01 X41.818525 Y49.888343 Z-0.125000
G01 X8.687269 Y41.850622 Z-0.125000
G00 Z5.000000

(End cutting path id: polyline160334)


(Start cutting path id: polyline160336)
(Change tool to Default tool)

G00 Z5.000000
G00 X196.539343 Y37.310076

G00 Z4.875000 (Fast pre-penetrate)
G01 Z-0.125000 F100.0(Penetrate)
G01 X174.903097 Y37.115888 Z-0.125000 F800.000000
G01 X162.747850 Y48.604059 Z-0.125000
G01 X142.327747 Y41.830005 Z-0.125000
G01 X116.614559 Y39.096403 Z-0.125000
G01 X94.208451 Y41.980613 Z-0.125000
G01 X72.545148 Y39.742663 Z-0.125000
G01 X56.616171 Y43.287611 Z-0.125000
G01 X41.348980 Y48.955244 Z-0.125000
G01 X8.668399 Y40.277253 Z-0.125000
G00 Z5.000000

(End cutting path id: polyline160336)


(Start cutting path id: polyline160338)
(Change tool to Default tool)

G00 Z5.000000
G00 X196.781554 Y36.327207

G00 Z4.875000 (Fast pre-penetrate)
G01 Z-0.125000 F100.0(Penetrate)
G01 X175.919113 Y36.219630 Z-0.125000 F800.000000
G01 X162.748549 Y47.663022 Z-0.125000
G01 X142.692910 Y40.599185 Z-0.125000
G01 X115.591704 Y37.734593 Z-0.125000
G01 X93.087704 Y40.905293 Z-0.125000
G01 X72.453346 Y38.749161 Z-0.125000
G01 X56.611878 Y42.220877 Z-0.125000
G01 X40.879385 Y48.022145 Z-0.125000
G01 X8.649480 Y38.703884 Z-0.125000
G00 Z5.000000

(End cutting path id: polyline160338)


(Start cutting path id: polyline160340)
(Change tool to Default tool)

G00 Z5.000000
G00 X197.023814 Y35.344388

G00 Z4.875000 (Fast pre-penetrate)
G01 Z-0.125000 F100.0(Penetrate)
G01 X176.935128 Y35.323322 Z-0.125000 F800.000000
G01 X162.749247 Y46.721986 Z-0.125000
G01 X143.058072 Y39.368365 Z-0.125000
G01 X114.568850 Y36.372784 Z-0.125000
G01 X91.966957 Y39.829923 Z-0.125000
G01 X72.361594 Y37.755609 Z-0.125000
G01 X56.607635 Y41.154143 Z-0.125000
G01 X40.409841 Y47.089046 Z-0.125000
G01 X8.630560 Y37.130515 Z-0.125000
G00 Z5.000000

(End cutting path id: polyline160340)


(Start cutting path id: polyline160342)
(Change tool to Default tool)

G00 Z5.000000
G00 X197.266074 Y34.361519

G00 Z4.875000 (Fast pre-penetrate)
G01 Z-0.125000 F100.0(Penetrate)
G01 X177.951094 Y34.427064 Z-0.125000 F800.000000
G01 X162.749896 Y45.780950 Z-0.125000
G01 X143.423235 Y38.137545 Z-0.125000
G01 X113.545995 Y35.010974 Z-0.125000
G01 X90.846259 Y38.754602 Z-0.125000
G01 X72.269791 Y36.762058 Z-0.125000
G01 X56.603342 Y40.087458 Z-0.125000
G01 X39.940246 Y46.155897 Z-0.125000
G01 X8.611691 Y35.557146 Z-0.125000
G00 Z5.000000

(End cutting path id: polyline160342)


(Start cutting path id: polyline160344)
(Change tool to Default tool)

G00 Z5.000000
G00 X197.508285 Y33.378650

G00 Z4.875000 (Fast pre-penetrate)
G01 Z-0.125000 F100.0(Penetrate)
G01 X178.967110 Y33.530755 Z-0.125000 F800.000000
G01 X162.750595 Y44.839914 Z-0.125000
G01 X143.788398 Y36.906675 Z-0.125000
G01 X112.523140 Y33.649165 Z-0.125000
G01 X89.725512 Y37.679232 Z-0.125000
G01 X72.178039 Y35.768556 Z-0.125000
G01 X56.599099 Y39.020724 Z-0.125000
G01 X39.470651 Y45.222798 Z-0.125000
G01 X8.592771 Y33.983777 Z-0.125000
G00 Z5.000000

(End cutting path id: polyline160344)


(Start cutting path id: polyline160346)
(Change tool to Default tool)

G00 Z5.000000
G00 X197.080972 Y58.778442

G00 Z4.875000 (Fast pre-penetrate)
G01 Z-0.125000 F100.0(Penetrate)
G01 X173.190502 Y54.464182 Z-0.125000 F800.000000
G01 X163.788276 Y65.518251 Z-0.125000
G01 X139.684200 Y62.888581 Z-0.125000
G01 X121.255993 Y60.560376 Z-0.125000
G01 X100.066678 Y58.394111 Z-0.125000
G01 X74.346900 Y61.109093 Z-0.125000
G01 X55.575046 Y62.593356 Z-0.125000
G01 X42.409125 Y68.169586 Z-0.125000
G01 X12.674056 Y65.065629 Z-0.125000
G00 Z5.000000

(End cutting path id: polyline160346)


(Start cutting path id: polyline160348)
(Change tool to Default tool)

G00 Z5.000000
G00 X197.615362 Y60.554635

G00 Z4.875000 (Fast pre-penetrate)
G01 Z-0.125000 F100.0(Penetrate)
G01 X174.767715 Y55.712374 Z-0.125000 F800.000000
G01 X163.962945 Y66.612041 Z-0.125000
G01 X139.913031 Y64.141815 Z-0.125000
G01 X98.988362 Y59.158231 Z-0.125000
G01 X74.478938 Y62.848695 Z-0.125000
G01 X55.393688 Y63.855326 Z-0.125000
G01 X41.724925 Y69.661286 Z-0.125000
G01 X13.306988 Y66.312523 Z-0.125000
G00 Z5.000000

(End cutting path id: polyline160348)


(Start cutting path id: polyline160350)
(Change tool to Default tool)

G00 Z5.000000
G00 X198.149703 Y62.330828

G00 Z4.875000 (Fast pre-penetrate)
G01 Z-0.125000 F100.0(Penetrate)
G01 X176.344928 Y56.960567 Z-0.125000 F800.000000
G01 X164.137614 Y67.705832 Z-0.125000
G01 X140.141913 Y65.395099 Z-0.125000
G01 X97.910047 Y59.922352 Z-0.125000
G01 X74.610975 Y64.588297 Z-0.125000
G01 X55.212330 Y65.117296 Z-0.125000
G01 X41.040726 Y71.152987 Z-0.125000
G01 X13.939970 Y67.559417 Z-0.125000
G00 Z5.000000

(End cutting path id: polyline160350)


(Start cutting path id: polyline160352)
(Change tool to Default tool)

G00 Z5.000000
G00 X198.684043 Y64.106971

G00 Z4.875000 (Fast pre-penetrate)
G01 Z-0.125000 F100.0(Penetrate)
G01 X177.922191 Y58.208759 Z-0.125000 F800.000000
G01 X164.312283 Y68.799622 Z-0.125000
G01 X140.370795 Y66.648333 Z-0.125000
G01 X117.950909 Y63.802361 Z-0.125000
G01 X96.831731 Y60.686473 Z-0.125000
G01 X74.743013 Y66.327898 Z-0.125000
G01 X55.030971 Y66.379266 Z-0.125000
G01 X40.356526 Y72.644687 Z-0.125000
G01 X14.572901 Y68.806312 Z-0.125000
G00 Z5.000000

(End cutting path id: polyline160352)


(Start cutting path id: polyline160354)
(Change tool to Default tool)

G00 Z5.000000
G00 X199.218434 Y65.883164

G00 Z4.875000 (Fast pre-penetrate)
G01 Z-0.125000 F100.0(Penetrate)
G01 X179.499453 Y59.456951 Z-0.125000 F800.000000
G01 X164.486952 Y69.893413 Z-0.125000
G01 X140.599677 Y67.901567 Z-0.125000
G01 X116.849231 Y64.883073 Z-0.125000
G01 X95.753416 Y61.450544 Z-0.125000
G01 X74.875050 Y68.067450 Z-0.125000
G01 X54.849613 Y67.641236 Z-0.125000
G01 X39.672327 Y74.136388 Z-0.125000
G01 X15.205883 Y70.053156 Z-0.125000
G00 Z5.000000

(End cutting path id: polyline160354)


(Start cutting path id: polyline160356)
(Change tool to Default tool)

G00 Z5.000000
G00 X199.752774 Y67.659307

G00 Z4.875000 (Fast pre-penetrate)
G01 Z-0.125000 F100.0(Penetrate)
G01 X181.076666 Y60.705143 Z-0.125000 F800.000000
G01 X164.661621 Y70.987204 Z-0.125000
G01 X140.828509 Y69.154801 Z-0.125000
G01 X115.747554 Y65.963734 Z-0.125000
G01 X94.675100 Y62.214665 Z-0.125000
G01 X75.007088 Y69.807052 Z-0.125000
G01 X54.668255 Y68.903206 Z-0.125000
G01 X38.988128 Y75.628088 Z-0.125000
G01 X15.838815 Y71.300050 Z-0.125000
G00 Z5.000000

(End cutting path id: polyline160356)


(Start cutting path id: polyline160358)
(Change tool to Default tool)

G00 Z5.000000
G00 X200.287115 Y69.435500

G00 Z4.875000 (Fast pre-penetrate)
G01 Z-0.125000 F100.0(Penetrate)
G01 X182.653929 Y61.953335 Z-0.125000 F800.000000
G01 X164.836290 Y72.080994 Z-0.125000
G01 X141.057391 Y70.408035 Z-0.125000
G01 X114.645876 Y67.044396 Z-0.125000
G01 X93.596785 Y62.978786 Z-0.125000
G01 X75.139126 Y71.546654 Z-0.125000
G01 X54.486896 Y70.165176 Z-0.125000
G01 X38.303978 Y77.119789 Z-0.125000
G01 X16.471797 Y72.546945 Z-0.125000
G00 Z5.000000

(End cutting path id: polyline160358)


(Start cutting path id: polyline160360)
(Change tool to Default tool)

G00 Z5.000000
G00 X200.821505 Y71.211643

G00 Z4.875000 (Fast pre-penetrate)
G01 Z-0.125000 F100.0(Penetrate)
G01 X184.231192 Y63.201527 Z-0.125000 F800.000000
G01 X165.011009 Y73.174785 Z-0.125000
G01 X141.286272 Y71.661319 Z-0.125000
G01 X113.544148 Y68.125058 Z-0.125000
G01 X92.518519 Y63.742907 Z-0.125000
G01 X75.271163 Y73.286255 Z-0.125000
G01 X54.305538 Y71.427146 Z-0.125000
G01 X37.619779 Y78.611439 Z-0.125000
G01 X17.104729 Y73.793839 Z-0.125000
G00 Z5.000000

(End cutting path id: polyline160360)


(Start cutting path id: polyline160248)
(Change tool to Default tool)

G00 Z5.000000
G00 X191.330772 Y131.045645

G00 Z4.875000 (Fast pre-penetrate)
G01 Z-0.125000 F100.0(Penetrate)
G01 X178.828682 Y133.417829 Z-0.125000 F800.000000
G01 X157.061646 Y142.895783 Z-0.125000
G01 X129.375182 Y149.450988 Z-0.125000
G01 X121.614117 Y147.642148 Z-0.125000
G01 X94.936430 Y140.462696 Z-0.125000
G01 X68.893822 Y138.241220 Z-0.125000
G01 X38.226103 Y130.096172 Z-0.125000
G01 X21.955127 Y142.445108 Z-0.125000
G01 X11.949871 Y142.768687 Z-0.125000
G00 Z5.000000

(End cutting path id: polyline160248)


(Start cutting path id: polyline160250)
(Change tool to Default tool)

G00 Z5.000000
G00 X192.082463 Y133.138778

G00 Z4.875000 (Fast pre-penetrate)
G01 Z-0.125000 F100.0(Penetrate)
G01 X179.310457 Y135.568170 Z-0.125000 F800.000000
G01 X156.780848 Y144.493912 Z-0.125000
G01 X130.149587 Y149.972898 Z-0.125000
G01 X121.609025 Y148.257408 Z-0.125000
G01 X94.148947 Y141.958740 Z-0.125000
G01 X68.675373 Y139.504887 Z-0.125000
G01 X39.602839 Y131.970207 Z-0.125000
G01 X23.331163 Y143.410754 Z-0.125000
G01 X12.654288 Y143.037854 Z-0.125000
G00 Z5.000000

(End cutting path id: polyline160250)


(Start cutting path id: polyline160252)
(Change tool to Default tool)

G00 Z5.000000
G00 X192.834153 Y135.231861

G00 Z4.875000 (Fast pre-penetrate)
G01 Z-0.125000 F100.0(Penetrate)
G01 X179.792182 Y137.718461 Z-0.125000 F800.000000
G01 X156.500050 Y146.091991 Z-0.125000
G01 X130.923991 Y150.494859 Z-0.125000
G01 X121.603933 Y148.872668 Z-0.125000
G01 X93.361414 Y143.454783 Z-0.125000
G01 X68.456974 Y140.768554 Z-0.125000
G01 X40.979624 Y133.844293 Z-0.125000
G01 X24.707200 Y144.376401 Z-0.125000
G01 X13.358705 Y143.307071 Z-0.125000
G00 Z5.000000

(End cutting path id: polyline160252)


(Start cutting path id: polyline160254)
(Change tool to Default tool)

G00 Z5.000000
G00 X192.499741 Y128.916370

G00 Z4.875000 (Fast pre-penetrate)
G01 Z-0.125000 F100.0(Penetrate)
G01 X180.646009 Y130.099816 Z-0.125000 F800.000000
G01 X158.243495 Y137.917241 Z-0.125000
G01 X130.351712 Y145.461955 Z-0.125000
G01 X119.884798 Y143.459925 Z-0.125000
G01 X96.091123 Y135.513158 Z-0.125000
G01 X70.956204 Y134.369448 Z-0.125000
G01 X39.279858 Y127.417281 Z-0.125000
G01 X22.464208 Y139.238416 Z-0.125000
G01 X10.701529 Y140.149301 Z-0.125000
G00 Z5.000000

(End cutting path id: polyline160254)


(Start cutting path id: polyline160256)
(Change tool to Default tool)

G00 Z5.000000
G00 X193.585844 Y137.324944

G00 Z4.875000 (Fast pre-penetrate)
G01 Z-0.125000 F100.0(Penetrate)
G01 X180.273957 Y139.868802 Z-0.125000 F800.000000
G01 X156.219301 Y147.690121 Z-0.125000
G01 X131.698395 Y151.016819 Z-0.125000
G01 X92.573880 Y144.950827 Z-0.125000
G01 X68.238576 Y142.032222 Z-0.125000
G01 X42.356409 Y135.718328 Z-0.125000
G01 X26.083236 Y145.342048 Z-0.125000
G01 X14.063121 Y143.576238 Z-0.125000
G00 Z5.000000

(End cutting path id: polyline160256)


(Start cutting path id: polyline160258)
(Change tool to Default tool)

G00 Z5.000000
G00 X193.460146 Y128.898299

G00 Z4.875000 (Fast pre-penetrate)
G01 Z-0.125000 F100.0(Penetrate)
G01 X181.795510 Y129.515955 Z-0.125000 F800.000000
G01 X158.694021 Y136.227060 Z-0.125000
G01 X131.227153 Y143.728393 Z-0.125000
G01 X119.017544 Y141.676444 Z-0.125000
G01 X96.274727 Y133.786436 Z-0.125000
G01 X71.878221 Y133.065396 Z-0.125000
G01 X40.495153 Y127.014878 Z-0.125000
G01 X23.406791 Y138.117868 Z-0.125000
G01 X10.429566 Y138.974191 Z-0.125000
G00 Z5.000000

(End cutting path id: polyline160258)


(Start cutting path id: polyline160260)
(Change tool to Default tool)

G00 Z5.000000
G00 X194.337585 Y139.418027

G00 Z4.875000 (Fast pre-penetrate)
G01 Z-0.125000 F100.0(Penetrate)
G01 X180.755733 Y142.019093 Z-0.125000 F800.000000
G01 X155.938503 Y149.288200 Z-0.125000
G01 X132.472800 Y151.538780 Z-0.125000
G01 X91.786347 Y146.446870 Z-0.125000
G01 X68.020177 Y143.295889 Z-0.125000
G01 X43.733195 Y137.592364 Z-0.125000
G01 X27.459223 Y146.307694 Z-0.125000
G01 X14.767538 Y143.845455 Z-0.125000
G00 Z5.000000

(End cutting path id: polyline160260)


(Start cutting path id: polyline160262)
(Change tool to Default tool)

G00 Z5.000000
G00 X194.420502 Y128.880228

G00 Z4.875000 (Fast pre-penetrate)
G01 Z-0.125000 F100.0(Penetrate)
G01 X182.945061 Y128.932094 Z-0.125000 F800.000000
G01 X159.144546 Y134.536829 Z-0.125000
G01 X132.102645 Y141.994832 Z-0.125000
G01 X118.150339 Y139.892963 Z-0.125000
G01 X96.458282 Y132.059713 Z-0.125000
G01 X72.800188 Y131.761293 Z-0.125000
G01 X41.710448 Y126.612476 Z-0.125000
G01 X24.349325 Y136.997321 Z-0.125000
G01 X10.157604 Y137.799131 Z-0.125000
G00 Z5.000000

(End cutting path id: polyline160262)


(Start cutting path id: polyline160264)
(Change tool to Default tool)

G00 Z5.000000
G00 X195.089276 Y141.511160

G00 Z4.875000 (Fast pre-penetrate)
G01 Z-0.125000 F100.0(Penetrate)
G01 X181.237458 Y144.169384 Z-0.125000 F800.000000
G01 X155.657705 Y150.886329 Z-0.125000
G01 X133.247254 Y152.060740 Z-0.125000
G01 X121.588558 Y150.718449 Z-0.125000
G01 X90.998814 Y147.942964 Z-0.125000
G01 X67.801778 Y144.559556 Z-0.125000
G01 X45.109980 Y139.466399 Z-0.125000
G01 X28.835259 Y147.273341 Z-0.125000
G01 X15.471955 Y144.114672 Z-0.125000
G00 Z5.000000

(End cutting path id: polyline160264)


(Start cutting path id: polyline160266)
(Change tool to Default tool)

G00 Z5.000000
G00 X195.840967 Y143.604243

G00 Z4.875000 (Fast pre-penetrate)
G01 Z-0.125000 F100.0(Penetrate)
G01 X181.719233 Y146.319725 Z-0.125000 F800.000000
G01 X155.376906 Y152.484409 Z-0.125000
G01 X134.021658 Y152.582650 Z-0.125000
G01 X121.583466 Y151.333710 Z-0.125000
G01 X90.211281 Y149.439007 Z-0.125000
G01 X67.583380 Y145.823224 Z-0.125000
G01 X46.486765 Y141.340435 Z-0.125000
G01 X30.211296 Y148.238988 Z-0.125000
G01 X16.176372 Y144.383889 Z-0.125000
G00 Z5.000000

(End cutting path id: polyline160266)


(Start cutting path id: polyline160268)
(Change tool to Default tool)

G00 Z5.000000
G00 X195.380857 Y128.862107

G00 Z4.875000 (Fast pre-penetrate)
G01 Z-0.125000 F100.0(Penetrate)
G01 X184.094562 Y128.348234 Z-0.125000 F800.000000
G01 X159.595121 Y132.846598 Z-0.125000
G01 X132.978087 Y140.261320 Z-0.125000
G01 X117.283084 Y138.109482 Z-0.125000
G01 X96.641887 Y130.332991 Z-0.125000
G01 X73.722205 Y130.457241 Z-0.125000
G01 X42.925694 Y126.210023 Z-0.125000
G01 X25.291909 Y135.876773 Z-0.125000
G01 X9.885641 Y136.624021 Z-0.125000
G00 Z5.000000

(End cutting path id: polyline160268)


(Start cutting path id: polyline160270)
(Change tool to Default tool)

G00 Z5.000000
G00 X196.341212 Y128.844036

G00 Z4.875000 (Fast pre-penetrate)
G01 Z-0.125000 F100.0(Penetrate)
G01 X185.244063 Y127.764373 Z-0.125000 F800.000000
G01 X160.045646 Y131.156416 Z-0.125000
G01 X133.853579 Y138.527759 Z-0.125000
G01 X116.415829 Y136.326001 Z-0.125000
G01 X96.825441 Y128.606219 Z-0.125000
G01 X74.644222 Y129.153189 Z-0.125000
G01 X44.140989 Y125.807620 Z-0.125000
G01 X26.234443 Y134.756226 Z-0.125000
G01 X9.613679 Y135.448961 Z-0.125000
G00 Z5.000000

(End cutting path id: polyline160270)


(Start cutting path id: polyline160272)
(Change tool to Default tool)

G00 Z5.000000
G00 X196.592658 Y145.697326

G00 Z4.875000 (Fast pre-penetrate)
G01 Z-0.125000 F100.0(Penetrate)
G01 X182.201008 Y148.470066 Z-0.125000 F800.000000
G01 X155.096108 Y154.082538 Z-0.125000
G01 X134.796062 Y153.104611 Z-0.125000
G01 X121.578324 Y151.948970 Z-0.125000
G01 X89.423748 Y150.935051 Z-0.125000
G01 X67.364981 Y147.086891 Z-0.125000
G01 X47.863501 Y143.214470 Z-0.125000
G01 X31.587332 Y149.204634 Z-0.125000
G01 X16.880789 Y144.653056 Z-0.125000
G00 Z5.000000

(End cutting path id: polyline160272)


(Start cutting path id: polyline160274)
(Change tool to Default tool)

G00 Z5.000000
G00 X197.344398 Y147.790409

G00 Z4.875000 (Fast pre-penetrate)
G01 Z-0.125000 F100.0(Penetrate)
G01 X182.682733 Y150.620357 Z-0.125000 F800.000000
G01 X154.815360 Y155.680667 Z-0.125000
G01 X135.570467 Y153.626571 Z-0.125000
G01 X121.573233 Y152.564230 Z-0.125000
G01 X88.636214 Y152.431094 Z-0.125000
G01 X49.240286 Y145.088505 Z-0.125000
G01 X32.963319 Y150.170281 Z-0.125000
G01 X17.585206 Y144.922273 Z-0.125000
G00 Z5.000000

(End cutting path id: polyline160274)


(Start cutting path id: polyline160276)
(Change tool to Default tool)

G00 Z5.000000
G00 X197.301567 Y128.825965

G00 Z4.875000 (Fast pre-penetrate)
G01 Z-0.125000 F100.0(Penetrate)
G01 X186.393614 Y127.180512 Z-0.125000 F800.000000
G01 X160.496172 Y129.466185 Z-0.125000
G01 X134.729070 Y136.794247 Z-0.125000
G01 X115.548624 Y134.542520 Z-0.125000
G01 X97.009046 Y126.879496 Z-0.125000
G01 X75.566189 Y127.849136 Z-0.125000
G01 X45.356284 Y125.405218 Z-0.125000
G01 X27.176977 Y133.635678 Z-0.125000
G01 X9.341716 Y134.273852 Z-0.125000
G00 Z5.000000

(End cutting path id: polyline160276)


(Start cutting path id: polyline160278)
(Change tool to Default tool)

G00 Z5.000000
G00 X198.261872 Y128.807894

G00 Z4.875000 (Fast pre-penetrate)
G01 Z-0.125000 F100.0(Penetrate)
G01 X187.543114 Y126.596651 Z-0.125000 F800.000000
G01 X160.946697 Y127.775954 Z-0.125000
G01 X135.604512 Y135.060686 Z-0.125000
G01 X114.681369 Y132.759038 Z-0.125000
G01 X97.192601 Y125.152774 Z-0.125000
G01 X76.488206 Y126.545034 Z-0.125000
G01 X46.571579 Y125.002765 Z-0.125000
G01 X28.119561 Y132.515131 Z-0.125000
G01 X9.069754 Y133.098792 Z-0.125000
G00 Z5.000000

(End cutting path id: polyline160278)


(Start cutting path id: polyline160280)
(Change tool to Default tool)

G00 Z5.000000
G00 X198.096089 Y149.883542

G00 Z4.875000 (Fast pre-penetrate)
G01 Z-0.125000 F100.0(Penetrate)
G01 X183.164508 Y152.770648 Z-0.125000 F800.000000
G01 X154.534561 Y157.278746 Z-0.125000
G01 X136.344871 Y154.148532 Z-0.125000
G01 X121.568091 Y153.179490 Z-0.125000
G01 X87.848681 Y153.927188 Z-0.125000
G01 X66.928184 Y149.614176 Z-0.125000
G01 X50.617071 Y146.962591 Z-0.125000
G01 X34.339355 Y151.135928 Z-0.125000
G01 X18.289623 Y145.191440 Z-0.125000
G00 Z5.000000

(End cutting path id: polyline160280)


(Start cutting path id: polyline160282)
(Change tool to Default tool)

G00 Z5.000000
G00 X198.847780 Y151.976625

G00 Z4.875000 (Fast pre-penetrate)
G01 Z-0.125000 F100.0(Penetrate)
G01 X183.646233 Y154.920989 Z-0.125000 F800.000000
G01 X154.253763 Y158.876876 Z-0.125000
G01 X137.119275 Y154.670492 Z-0.125000
G01 X121.562999 Y153.794751 Z-0.125000
G01 X87.061148 Y155.423231 Z-0.125000
G01 X66.709785 Y150.877843 Z-0.125000
G01 X51.993857 Y148.836626 Z-0.125000
G01 X35.715392 Y152.101574 Z-0.125000
G01 X18.994040 Y145.460657 Z-0.125000
G00 Z5.000000

(End cutting path id: polyline160282)


(Start cutting path id: polyline160284)
(Change tool to Default tool)

G00 Z5.000000
G00 X199.599521 Y154.069708

G00 Z4.875000 (Fast pre-penetrate)
G01 Z-0.125000 F100.0(Penetrate)
G01 X184.128008 Y157.071330 Z-0.125000 F800.000000
G01 X153.972965 Y160.474955 Z-0.125000
G01 X137.893680 Y155.192452 Z-0.125000
G01 X121.557907 Y154.410011 Z-0.125000
G01 X86.273615 Y156.919275 Z-0.125000
G01 X66.491386 Y152.141510 Z-0.125000
G01 X53.370642 Y150.710662 Z-0.125000
G01 X37.091429 Y153.067221 Z-0.125000
G01 X19.698457 Y145.729874 Z-0.125000
G00 Z5.000000

(End cutting path id: polyline160284)


(Start cutting path id: polyline160206)
(Change tool to Default tool)

G00 Z5.000000
G00 X192.732567 Y195.917143

G00 Z4.875000 (Fast pre-penetrate)
G01 Z-0.125000 F100.0(Penetrate)
G01 X187.905631 Y200.491735 Z-0.125000 F800.000000
G01 X162.470745 Y198.428304 Z-0.125000
G01 X127.426567 Y202.920727 Z-0.125000
G01 X119.928179 Y199.218932 Z-0.125000
G01 X100.532279 Y199.750577 Z-0.125000
G01 X77.802991 Y196.605087 Z-0.125000
G01 X46.189494 Y194.432332 Z-0.125000
G01 X28.760729 Y200.310426 Z-0.125000
G01 X15.826185 Y201.414850 Z-0.125000
G00 Z5.000000

(End cutting path id: polyline160206)


(Start cutting path id: polyline160208)
(Change tool to Default tool)

G00 Z5.000000
G00 X193.157583 Y197.485720

G00 Z4.875000 (Fast pre-penetrate)
G01 Z-0.125000 F100.0(Penetrate)
G01 X187.014814 Y201.752856 Z-0.125000 F800.000000
G01 X161.582474 Y200.135508 Z-0.125000
G01 X128.423913 Y204.514514 Z-0.125000
G01 X120.050732 Y200.863487 Z-0.125000
G01 X99.994294 Y201.107594 Z-0.125000
G01 X77.342182 Y197.844243 Z-0.125000
G01 X46.680254 Y196.178223 Z-0.125000
G01 X28.756985 Y201.721856 Z-0.125000
G01 X15.927373 Y202.594253 Z-0.125000
G00 Z5.000000

(End cutting path id: polyline160208)


(Start cutting path id: polyline160210)
(Change tool to Default tool)

G00 Z5.000000
G00 X193.582649 Y199.054347

G00 Z4.875000 (Fast pre-penetrate)
G01 Z-0.125000 F100.0(Penetrate)
G01 X186.123997 Y203.013977 Z-0.125000 F800.000000
G01 X160.694203 Y201.842712 Z-0.125000
G01 X129.421208 Y206.108300 Z-0.125000
G01 X120.173334 Y202.508041 Z-0.125000
G01 X99.456259 Y202.464611 Z-0.125000
G01 X76.881423 Y199.083400 Z-0.125000
G01 X47.170965 Y197.924115 Z-0.125000
G01 X28.753241 Y203.133335 Z-0.125000
G01 X16.028610 Y203.773655 Z-0.125000
G00 Z5.000000

(End cutting path id: polyline160210)


(Start cutting path id: polyline160212)
(Change tool to Default tool)

G00 Z5.000000
G00 X194.007616 Y200.622974

G00 Z4.875000 (Fast pre-penetrate)
G01 Z-0.125000 F100.0(Penetrate)
G01 X185.233180 Y204.275099 Z-0.125000 F800.000000
G01 X159.805932 Y203.549915 Z-0.125000
G01 X130.418554 Y207.702036 Z-0.125000
G01 X120.295887 Y204.152546 Z-0.125000
G01 X98.918225 Y203.821628 Z-0.125000
G01 X76.420614 Y200.322557 Z-0.125000
G01 X47.661725 Y199.669957 Z-0.125000
G01 X28.749497 Y204.544815 Z-0.125000
G01 X16.129847 Y204.953008 Z-0.125000
G00 Z5.000000

(End cutting path id: polyline160212)


(Start cutting path id: polyline160214)
(Change tool to Default tool)

G00 Z5.000000
G00 X194.432632 Y202.191600

G00 Z4.875000 (Fast pre-penetrate)
G01 Z-0.125000 F100.0(Penetrate)
G01 X184.342363 Y205.536220 Z-0.125000 F800.000000
G01 X158.917711 Y205.257119 Z-0.125000
G01 X131.415900 Y209.295773 Z-0.125000
G01 X120.418490 Y205.797101 Z-0.125000
G01 X98.380190 Y205.178645 Z-0.125000
G01 X75.959806 Y201.561664 Z-0.125000
G01 X48.152436 Y201.415848 Z-0.125000
G01 X28.745753 Y205.956295 Z-0.125000
G01 X16.231084 Y206.132411 Z-0.125000
G00 Z5.000000

(End cutting path id: polyline160214)


(Start cutting path id: polyline160216)
(Change tool to Default tool)

G00 Z5.000000
G00 X194.169256 Y193.558737

G00 Z4.875000 (Fast pre-penetrate)
G01 Z-0.125000 F100.0(Penetrate)
G01 X187.569622 Y197.541730 Z-0.125000 F800.000000
G01 X163.001092 Y195.032516 Z-0.125000
G01 X128.179955 Y199.605011 Z-0.125000
G01 X119.519836 Y196.315752 Z-0.125000
G01 X101.241787 Y196.565101 Z-0.125000
G01 X77.605259 Y193.595927 Z-0.125000
G01 X46.864458 Y192.431001 Z-0.125000
G01 X28.213709 Y197.455269 Z-0.125000
G01 X14.113940 Y197.303164 Z-0.125000
G00 Z5.000000

(End cutting path id: polyline160216)


(Start cutting path id: polyline160218)
(Change tool to Default tool)

G00 Z5.000000
G00 X194.857648 Y203.760227

G00 Z4.875000 (Fast pre-penetrate)
G01 Z-0.125000 F100.0(Penetrate)
G01 X183.451546 Y206.797342 Z-0.125000 F800.000000
G01 X158.029440 Y206.964273 Z-0.125000
G01 X132.413196 Y210.889559 Z-0.125000
G01 X120.541093 Y207.441655 Z-0.125000
G01 X97.842156 Y206.535663 Z-0.125000
G01 X75.499047 Y202.800820 Z-0.125000
G01 X48.643197 Y203.161740 Z-0.125000
G01 X28.741959 Y207.367774 Z-0.125000
G01 X16.332321 Y207.311764 Z-0.125000
G00 Z5.000000

(End cutting path id: polyline160218)


(Start cutting path id: polyline160220)
(Change tool to Default tool)

G00 Z5.000000
G00 X195.282665 Y205.328804

G00 Z4.875000 (Fast pre-penetrate)
G01 Z-0.125000 F100.0(Penetrate)
G01 X182.560729 Y208.058413 Z-0.125000 F800.000000
G01 X157.141169 Y208.671477 Z-0.125000
G01 X133.410541 Y212.483345 Z-0.125000
G01 X120.663646 Y209.086210 Z-0.125000
G01 X97.304171 Y207.892680 Z-0.125000
G01 X75.038238 Y204.039977 Z-0.125000
G01 X49.133907 Y204.907631 Z-0.125000
G01 X28.738215 Y208.779254 Z-0.125000
G01 X16.433558 Y208.491167 Z-0.125000
G00 Z5.000000

(End cutting path id: polyline160220)


(Start cutting path id: polyline160222)
(Change tool to Default tool)

G00 Z5.000000
G00 X195.707681 Y206.897431

G00 Z4.875000 (Fast pre-penetrate)
G01 Z-0.125000 F100.0(Penetrate)
G01 X181.669912 Y209.319534 Z-0.125000 F800.000000
G01 X156.252897 Y210.378681 Z-0.125000
G01 X134.407887 Y214.077082 Z-0.125000
G01 X120.786248 Y210.730764 Z-0.125000
G01 X96.766137 Y209.249697 Z-0.125000
G01 X74.577429 Y205.279134 Z-0.125000
G01 X49.624668 Y206.653523 Z-0.125000
G01 X28.734471 Y210.190683 Z-0.125000
G01 X16.534796 Y209.670570 Z-0.125000
G00 Z5.000000

(End cutting path id: polyline160222)


(Start cutting path id: polyline160224)
(Change tool to Default tool)

G00 Z5.000000
G00 X195.100058 Y193.163872

G00 Z4.875000 (Fast pre-penetrate)
G01 Z-0.125000 F100.0(Penetrate)
G01 X186.956258 Y196.697288 Z-0.125000 F800.000000
G01 X162.822130 Y194.188224 Z-0.125000
G01 X129.055347 Y198.743996 Z-0.125000
G01 X119.376965 Y195.686414 Z-0.125000
G01 X101.327499 Y195.650922 Z-0.125000
G01 X77.275938 Y192.710901 Z-0.125000
G01 X47.447320 Y192.303306 Z-0.125000
G01 X27.938302 Y196.733430 Z-0.125000
G01 X13.308435 Y195.836972 Z-0.125000
G00 Z5.000000

(End cutting path id: polyline160224)


(Start cutting path id: polyline160226)
(Change tool to Default tool)

G00 Z5.000000
G00 X196.030861 Y192.768957

G00 Z4.875000 (Fast pre-penetrate)
G01 Z-0.125000 F100.0(Penetrate)
G01 X186.342845 Y195.852847 Z-0.125000 F800.000000
G01 X162.643168 Y193.343933 Z-0.125000
G01 X129.930739 Y197.882981 Z-0.125000
G01 X119.234095 Y195.057127 Z-0.125000
G01 X101.413212 Y194.736692 Z-0.125000
G01 X76.946668 Y191.825874 Z-0.125000
G01 X48.030183 Y192.175612 Z-0.125000
G01 X27.662895 Y196.011641 Z-0.125000
G01 X12.502931 Y194.370781 Z-0.125000
G00 Z5.000000

(End cutting path id: polyline160226)


(Start cutting path id: polyline160228)
(Change tool to Default tool)

G00 Z5.000000
G00 X196.132697 Y208.466057

G00 Z4.875000 (Fast pre-penetrate)
G01 Z-0.125000 F100.0(Penetrate)
G01 X180.779095 Y210.580656 Z-0.125000 F800.000000
G01 X155.364626 Y212.085835 Z-0.125000
G01 X135.405183 Y215.670818 Z-0.125000
G01 X120.908801 Y212.375319 Z-0.125000
G01 X96.228102 Y210.606714 Z-0.125000
G01 X74.116670 Y206.518291 Z-0.125000
G01 X50.115378 Y208.399365 Z-0.125000
G01 X28.730727 Y211.602163 Z-0.125000
G01 X16.635983 Y210.849923 Z-0.125000
G00 Z5.000000

(End cutting path id: polyline160228)


(Start cutting path id: polyline160230)
(Change tool to Default tool)

G00 Z5.000000
G00 X196.557714 Y210.034684

G00 Z4.875000 (Fast pre-penetrate)
G01 Z-0.125000 F100.0(Penetrate)
G01 X179.888278 Y211.841777 Z-0.125000 F800.000000
G01 X154.476355 Y213.793038 Z-0.125000
G01 X136.402528 Y217.264604 Z-0.125000
G01 X121.031354 Y214.019824 Z-0.125000
G01 X95.690068 Y211.963731 Z-0.125000
G01 X73.655862 Y207.757447 Z-0.125000
G01 X50.606139 Y210.145256 Z-0.125000
G01 X28.726983 Y213.013642 Z-0.125000
G01 X16.737220 Y212.029326 Z-0.125000
G00 Z5.000000

(End cutting path id: polyline160230)


(Start cutting path id: polyline160232)
(Change tool to Default tool)

G00 Z5.000000
G00 X196.982730 Y211.603261

G00 Z4.875000 (Fast pre-penetrate)
G01 Z-0.125000 F100.0(Penetrate)
G01 X178.997411 Y213.102899 Z-0.125000 F800.000000
G01 X153.588084 Y215.500242 Z-0.125000
G01 X137.399874 Y218.858390 Z-0.125000
G01 X121.153957 Y215.664378 Z-0.125000
G01 X95.152033 Y213.320748 Z-0.125000
G01 X73.195053 Y208.996604 Z-0.125000
G01 X51.096850 Y211.891148 Z-0.125000
G01 X28.723239 Y214.425122 Z-0.125000
G01 X16.838457 Y213.208728 Z-0.125000
G00 Z5.000000

(End cutting path id: polyline160232)


(Start cutting path id: polyline160234)
(Change tool to Default tool)

G00 Z5.000000
G00 X197.407746 Y213.171888

G00 Z4.875000 (Fast pre-penetrate)
G01 Z-0.125000 F100.0(Penetrate)
G01 X178.106594 Y214.363970 Z-0.125000 F800.000000
G01 X152.699863 Y217.207446 Z-0.125000
G01 X138.397220 Y220.452127 Z-0.125000
G01 X121.276560 Y217.308933 Z-0.125000
G01 X94.613999 Y214.677765 Z-0.125000
G01 X72.734294 Y210.235711 Z-0.125000
G01 X51.587610 Y213.636989 Z-0.125000
G01 X28.719495 Y215.836601 Z-0.125000
G01 X16.939694 Y214.388081 Z-0.125000
G00 Z5.000000

(End cutting path id: polyline160234)


(Start cutting path id: polyline160236)
(Change tool to Default tool)

G00 Z5.000000
G00 X197.832763 Y214.740514

G00 Z4.875000 (Fast pre-penetrate)
G01 Z-0.125000 F100.0(Penetrate)
G01 X177.215777 Y215.625091 Z-0.125000 F800.000000
G01 X151.811592 Y218.914650 Z-0.125000
G01 X139.394515 Y222.045913 Z-0.125000
G01 X121.399113 Y218.953487 Z-0.125000
G01 X94.076014 Y216.034782 Z-0.125000
G01 X72.273485 Y211.474867 Z-0.125000
G01 X52.078321 Y215.382881 Z-0.125000
G01 X28.715702 Y217.248031 Z-0.125000
G01 X17.040931 Y215.567484 Z-0.125000
G00 Z5.000000

(End cutting path id: polyline160236)


(Start cutting path id: polyline160238)
(Change tool to Default tool)

G00 Z5.000000
G00 X198.257779 Y216.309091

G00 Z4.875000 (Fast pre-penetrate)
G01 Z-0.125000 F100.0(Penetrate)
G01 X176.324960 Y216.886213 Z-0.125000 F800.000000
G01 X150.923320 Y220.621854 Z-0.125000
G01 X140.391861 Y223.639649 Z-0.125000
G01 X121.521665 Y220.597992 Z-0.125000
G01 X93.537980 Y217.391800 Z-0.125000
G01 X71.812726 Y212.714024 Z-0.125000
G01 X52.569081 Y217.128773 Z-0.125000
G01 X28.711958 Y218.659510 Z-0.125000
G01 X17.142169 Y216.746887 Z-0.125000
G00 Z5.000000

(End cutting path id: polyline160238)


(Start cutting path id: polyline160240)
(Change tool to Default tool)

G00 Z5.000000
G00 X196.961714 Y192.374093

G00 Z4.875000 (Fast pre-penetrate)
G01 Z-0.125000 F100.0(Penetrate)
G01 X185.729432 Y195.008405 Z-0.125000 F800.000000
G01 X162.464206 Y192.499641 Z-0.125000
G01 X130.806081 Y197.021966 Z-0.125000
G01 X119.091225 Y194.427789 Z-0.125000
G01 X101.498924 Y193.822463 Z-0.125000
G01 X76.617398 Y190.940898 Z-0.125000
G01 X48.612995 Y192.047867 Z-0.125000
G01 X27.387488 Y195.289802 Z-0.125000
G01 X11.697427 Y192.904639 Z-0.125000
G00 Z5.000000

(End cutting path id: polyline160240)


(Start cutting path id: polyline160242)
(Change tool to Default tool)

G00 Z5.000000
G00 X197.892517 Y191.979178

G00 Z4.875000 (Fast pre-penetrate)
G01 Z-0.125000 F100.0(Penetrate)
G01 X185.116019 Y194.163963 Z-0.125000 F800.000000
G01 X162.285244 Y191.655349 Z-0.125000
G01 X131.681473 Y196.161001 Z-0.125000
G01 X118.948355 Y193.798451 Z-0.125000
G01 X101.584636 Y192.908233 Z-0.125000
G01 X76.288127 Y190.055822 Z-0.125000
G01 X49.195858 Y191.920123 Z-0.125000
G01 X27.112131 Y194.567964 Z-0.125000
G01 X10.891923 Y191.438448 Z-0.125000
G00 Z5.000000

(End cutting path id: polyline160242)


(Start cutting path id: polyline160244)
(Change tool to Default tool)

G00 Z5.000000
G00 X198.823319 Y191.584313

G00 Z4.875000 (Fast pre-penetrate)
G01 Z-0.125000 F100.0(Penetrate)
G01 X184.502605 Y193.319522 Z-0.125000 F800.000000
G01 X162.106282 Y190.811057 Z-0.125000
G01 X132.556814 Y195.299986 Z-0.125000
G01 X118.805485 Y193.169164 Z-0.125000
G01 X101.670398 Y191.994004 Z-0.125000
G01 X75.958857 Y189.170845 Z-0.125000
G01 X49.778720 Y191.792428 Z-0.125000
G01 X26.836724 Y193.846125 Z-0.125000
G01 X10.086418 Y189.972256 Z-0.125000
G00 Z5.000000

(End cutting path id: polyline160244)


(Start cutting path id: polyline160246)
(Change tool to Default tool)

G00 Z5.000000
G00 X199.754172 Y191.189448

G00 Z4.875000 (Fast pre-penetrate)
G01 Z-0.125000 F100.0(Penetrate)
G01 X183.889242 Y192.475030 Z-0.125000 F800.000000
G01 X161.927320 Y189.966765 Z-0.125000
G01 X133.432206 Y194.438971 Z-0.125000
G01 X118.662614 Y192.539826 Z-0.125000
G01 X101.756110 Y191.079825 Z-0.125000
G01 X75.629587 Y188.285819 Z-0.125000
G01 X50.361582 Y191.664734 Z-0.125000
G01 X26.561317 Y193.124286 Z-0.125000
G01 X9.280964 Y188.506115 Z-0.125000
G00 Z5.000000

(End cutting path id: polyline160246)


(Start cutting path id: polyline160432)
(Change tool to Default tool)

G00 Z5.000000
G00 X200.684975 Y190.794533

G00 Z4.875000 (Fast pre-penetrate)
G01 Z-0.125000 F100.0(Penetrate)
G01 X183.275829 Y191.630589 Z-0.125000 F800.000000
G01 X161.748357 Y189.122473 Z-0.125000
G01 X134.307598 Y193.577956 Z-0.125000
G01 X75.300316 Y187.400793 Z-0.125000
G01 X50.944395 Y191.536989 Z-0.125000
G01 X26.285910 Y192.402447 Z-0.125000
G01 X8.475460 Y187.039923 Z-0.125000
G00 Z5.000000

(End cutting path id: polyline160432)


(Start cutting path id: polyline160434)
(Change tool to Default tool)

G00 Z5.000000
G00 X198.682795 Y217.877718

G00 Z4.875000 (Fast pre-penetrate)
G01 Z-0.125000 F100.0(Penetrate)
G01 X175.434143 Y218.147334 Z-0.125000 F800.000000
G01 X150.035049 Y222.329008 Z-0.125000
G01 X141.389207 Y225.233436 Z-0.125000
G01 X121.644268 Y222.242547 Z-0.125000
G01 X92.999945 Y218.748817 Z-0.125000
G01 X71.351918 Y213.953181 Z-0.125000
G01 X53.059792 Y218.874664 Z-0.125000
G01 X28.708214 Y220.070990 Z-0.125000
G01 X17.243406 Y217.926240 Z-0.125000
G00 Z5.000000

(End cutting path id: polyline160434)


(Start cutting path id: polyline160436)
(Change tool to Default tool)

G00 Z5.000000
G00 X201.615827 Y190.399669

G00 Z4.875000 (Fast pre-penetrate)
G01 Z-0.125000 F100.0(Penetrate)
G01 X182.662415 Y190.786197 Z-0.125000 F800.000000
G01 X161.569395 Y188.278181 Z-0.125000
G01 X135.182940 Y192.716991 Z-0.125000
G01 X118.376874 Y191.281201 Z-0.125000
G01 X101.927534 Y189.251366 Z-0.125000
G01 X74.971046 Y186.515766 Z-0.125000
G01 X51.527257 Y191.409295 Z-0.125000
G01 X26.010503 Y191.680658 Z-0.125000
G01 X7.669955 Y185.573732 Z-0.125000
G00 Z5.000000

(End cutting path id: polyline160436)


(Start cutting path id: polyline160294)
(Change tool to Default tool)

G00 Z5.000000
G00 X200.351212 Y156.162792

G00 Z4.875000 (Fast pre-penetrate)
G01 Z-0.125000 F100.0(Penetrate)
G01 X184.609733 Y159.221621 Z-0.125000 F800.000000
G01 X153.692167 Y162.073084 Z-0.125000
G01 X138.668084 Y155.714363 Z-0.125000
G01 X121.552765 Y155.025271 Z-0.125000
G01 X85.486082 Y158.415318 Z-0.125000
G01 X66.272988 Y153.405177 Z-0.125000
G01 X54.747427 Y152.584697 Z-0.125000
G01 X38.467465 Y154.032868 Z-0.125000
G01 X20.402873 Y145.999091 Z-0.125000
G00 Z5.000000

(End cutting path id: polyline160294)


(Start cutting path id: polyline160286)
(Change tool to Default tool)

G00 Z5.000000
G00 X199.222228 Y128.789773

G00 Z4.875000 (Fast pre-penetrate)
G01 Z-0.125000 F100.0(Penetrate)
G01 X188.692615 Y126.012790 Z-0.125000 F800.000000
G01 X161.397222 Y126.085723 Z-0.125000
G01 X136.479954 Y133.327175 Z-0.125000
G01 X113.814164 Y130.975557 Z-0.125000
G01 X97.376205 Y123.426051 Z-0.125000
G01 X77.410222 Y125.240982 Z-0.125000
G01 X47.786874 Y124.600362 Z-0.125000
G01 X29.062094 Y131.394583 Z-0.125000
G01 X8.797791 Y131.923682 Z-0.125000
G00 Z5.000000

(End cutting path id: polyline160286)


(Start cutting path id: polyline160288)
(Change tool to Default tool)

G00 Z5.000000
G00 X200.182583 Y128.771702

G00 Z4.875000 (Fast pre-penetrate)
G01 Z-0.125000 F100.0(Penetrate)
G01 X189.842166 Y125.428930 Z-0.125000 F800.000000
G01 X161.847748 Y124.395542 Z-0.125000
G01 X137.355445 Y131.593613 Z-0.125000
G01 X112.946909 Y129.192076 Z-0.125000
G01 X97.559810 Y121.699329 Z-0.125000
G01 X78.332189 Y123.936930 Z-0.125000
G01 X49.002169 Y124.197960 Z-0.125000
G01 X30.004628 Y130.274036 Z-0.125000
G01 X8.525829 Y130.748622 Z-0.125000
G00 Z5.000000

(End cutting path id: polyline160288)


(Start cutting path id: polyline160290)
(Change tool to Default tool)

G00 Z5.000000
G00 X201.142938 Y128.753582

G00 Z4.875000 (Fast pre-penetrate)
G01 Z-0.125000 F100.0(Penetrate)
G01 X190.991667 Y124.845069 Z-0.125000 F800.000000
G01 X162.298273 Y122.705311 Z-0.125000
G01 X138.230937 Y129.860102 Z-0.125000
G01 X112.079704 Y127.408595 Z-0.125000
G01 X97.743365 Y119.972606 Z-0.125000
G01 X79.254206 Y122.632877 Z-0.125000
G01 X50.217414 Y123.795507 Z-0.125000
G01 X30.947212 Y129.153488 Z-0.125000
G01 X8.253866 Y129.573513 Z-0.125000
G00 Z5.000000

(End cutting path id: polyline160290)


(Start cutting path id: polyline160292)
(Change tool to Default tool)

G00 Z5.000000
G00 X202.103293 Y128.735511

G00 Z4.875000 (Fast pre-penetrate)
G01 Z-0.125000 F100.0(Penetrate)
G01 X192.141168 Y124.261208 Z-0.125000 F800.000000
G01 X162.748798 Y121.015080 Z-0.125000
G01 X139.106379 Y128.126540 Z-0.125000
G01 X111.212449 Y125.625114 Z-0.125000
G01 X97.926920 Y118.245884 Z-0.125000
G01 X80.176223 Y121.328775 Z-0.125000
G01 X51.432709 Y123.393104 Z-0.125000
G01 X31.889746 Y128.032941 Z-0.125000
G01 X7.981904 Y128.398403 Z-0.125000
G00 Z5.000000

(End cutting path id: polyline160292)


(Start cutting path id: polyline160302)
(Change tool to Default tool)

G00 Z5.000000
G00 X203.063648 Y128.717440

G00 Z4.875000 (Fast pre-penetrate)
G01 Z-0.125000 F100.0(Penetrate)
G01 X193.290719 Y123.677347 Z-0.125000 F800.000000
G01 X163.199323 Y119.324898 Z-0.125000
G01 X139.981871 Y126.393029 Z-0.125000
G01 X110.345194 Y123.841633 Z-0.125000
G01 X98.110524 Y116.519112 Z-0.125000
G01 X81.098190 Y120.024723 Z-0.125000
G01 X52.648004 Y122.990702 Z-0.125000
G01 X32.832280 Y126.912393 Z-0.125000
G01 X7.709941 Y127.223343 Z-0.125000
G00 Z5.000000

(End cutting path id: polyline160302)


(Start cutting path id: polyline160296)
(Change tool to Default tool)

G00 Z5.000000
G00 X201.102902 Y158.255925

G00 Z4.875000 (Fast pre-penetrate)
G01 Z-0.125000 F100.0(Penetrate)
G01 X185.091508 Y161.371912 Z-0.125000 F800.000000
G01 X153.411418 Y163.671164 Z-0.125000
G01 X139.442488 Y156.236323 Z-0.125000
G01 X121.547624 Y155.640532 Z-0.125000
G01 X84.698549 Y159.911362 Z-0.125000
G01 X66.054539 Y154.668845 Z-0.125000
G01 X56.124213 Y154.458733 Z-0.125000
G01 X39.843452 Y154.998514 Z-0.125000
G01 X21.107340 Y146.268258 Z-0.125000
G00 Z5.000000

(End cutting path id: polyline160296)


(Start cutting path id: polyline160298)
(Change tool to Default tool)

G00 Z5.000000
G00 X201.854593 Y160.349008

G00 Z4.875000 (Fast pre-penetrate)
G01 Z-0.125000 F100.0(Penetrate)
G01 X185.573233 Y163.522253 Z-0.125000 F800.000000
G01 X153.130620 Y165.269293 Z-0.125000
G01 X140.216943 Y156.758284 Z-0.125000
G01 X121.542532 Y156.255792 Z-0.125000
G01 X83.911015 Y161.407405 Z-0.125000
G01 X65.836140 Y155.932512 Z-0.125000
G01 X57.500948 Y156.332768 Z-0.125000
G01 X41.219488 Y155.964161 Z-0.125000
G01 X21.811757 Y146.537475 Z-0.125000
G00 Z5.000000

(End cutting path id: polyline160298)


(Start cutting path id: polyline160300)
(Change tool to Default tool)

G00 Z5.000000
G00 X202.606334 Y162.442091

G00 Z4.875000 (Fast pre-penetrate)
G01 Z-0.125000 F100.0(Penetrate)
G01 X186.055008 Y165.672544 Z-0.125000 F800.000000
G01 X152.849822 Y166.867372 Z-0.125000
G01 X140.991347 Y157.280244 Z-0.125000
G01 X121.537440 Y156.871052 Z-0.125000
G01 X83.123482 Y162.903499 Z-0.125000
G01 X65.617742 Y157.196179 Z-0.125000
G01 X58.877733 Y158.206853 Z-0.125000
G01 X42.595525 Y156.929808 Z-0.125000
G01 X22.516174 Y146.806642 Z-0.125000
G00 Z5.000000

(End cutting path id: polyline160300)


(Start cutting path id: polyline160304)
(Change tool to Default tool)

G00 Z5.000000
G00 X204.024004 Y128.699319

G00 Z4.875000 (Fast pre-penetrate)
G01 Z-0.125000 F100.0(Penetrate)
G01 X194.440220 Y123.093486 Z-0.125000 F800.000000
G01 X163.649849 Y117.634667 Z-0.125000
G01 X140.857312 Y124.659467 Z-0.125000
G01 X109.477989 Y122.058152 Z-0.125000
G01 X98.294079 Y114.792389 Z-0.125000
G01 X82.020207 Y118.720670 Z-0.125000
G01 X53.863300 Y122.588299 Z-0.125000
G01 X33.774814 Y125.791846 Z-0.125000
G01 X7.437979 Y126.048233 Z-0.125000
G00 Z5.000000

(End cutting path id: polyline160304)


(Start cutting path id: polyline160306)
(Change tool to Default tool)

G00 Z5.000000
G00 X202.707821 Y101.082892

G00 Z4.875000 (Fast pre-penetrate)
G01 Z-0.125000 F100.0(Penetrate)
G01 X168.490063 Y105.322023 Z-0.125000 F800.000000
G01 X148.274082 Y103.979183 Z-0.125000
G01 X137.354497 Y91.328583 Z-0.125000
G01 X132.864619 Y93.866800 Z-0.125000
G01 X98.234026 Y107.250371 Z-0.125000
G01 X62.304571 Y111.342389 Z-0.125000
G01 X56.514784 Y101.713578 Z-0.125000
G01 X29.529542 Y99.486560 Z-0.125000
G01 X3.510646 Y90.939259 Z-0.125000
G00 Z5.000000

(End cutting path id: polyline160306)


(Start cutting path id: polyline160362)
(Change tool to Default tool)

G00 Z5.000000
G00 X201.355846 Y72.987835

G00 Z4.875000 (Fast pre-penetrate)
G01 Z-0.125000 F100.0(Penetrate)
G01 X185.808405 Y64.449720 Z-0.125000 F800.000000
G01 X165.185678 Y74.268625 Z-0.125000
G01 X141.515154 Y72.914553 Z-0.125000
G01 X112.442470 Y69.205719 Z-0.125000
G01 X91.440204 Y64.506978 Z-0.125000
G01 X75.403201 Y75.025857 Z-0.125000
G01 X54.124180 Y72.689116 Z-0.125000
G01 X36.935579 Y80.103140 Z-0.125000
G01 X17.737711 Y75.040733 Z-0.125000
G00 Z5.000000

(End cutting path id: polyline160362)


(Start cutting path id: polyline160364)
(Change tool to Default tool)

G00 Z5.000000
G00 X201.890236 Y74.764028

G00 Z4.875000 (Fast pre-penetrate)
G01 Z-0.125000 F100.0(Penetrate)
G01 X187.385668 Y65.697912 Z-0.125000 F800.000000
G01 X165.360347 Y75.362416 Z-0.125000
G01 X141.743986 Y74.167787 Z-0.125000
G01 X111.340792 Y70.286381 Z-0.125000
G01 X90.361889 Y65.271098 Z-0.125000
G01 X75.535238 Y76.765459 Z-0.125000
G01 X53.942822 Y73.951086 Z-0.125000
G01 X36.251380 Y81.594840 Z-0.125000
G01 X18.370642 Y76.287577 Z-0.125000
G00 Z5.000000

(End cutting path id: polyline160364)


(Start cutting path id: polyline160366)
(Change tool to Default tool)

G00 Z5.000000
G00 X202.424576 Y76.540171

G00 Z4.875000 (Fast pre-penetrate)
G01 Z-0.125000 F100.0(Penetrate)
G01 X188.962881 Y66.946104 Z-0.125000 F800.000000
G01 X165.535016 Y76.456206 Z-0.125000
G01 X141.972868 Y75.421021 Z-0.125000
G01 X110.239114 Y71.367043 Z-0.125000
G01 X89.283573 Y66.035219 Z-0.125000
G01 X75.667226 Y78.505060 Z-0.125000
G01 X53.761463 Y75.213006 Z-0.125000
G01 X35.567180 Y83.086541 Z-0.125000
G01 X19.003624 Y77.534472 Z-0.125000
G00 Z5.000000

(End cutting path id: polyline160366)


(Start cutting path id: polyline160368)
(Change tool to Default tool)

G00 Z5.000000
G00 X202.868313 Y82.029990

G00 Z4.875000 (Fast pre-penetrate)
G01 Z-0.125000 F100.0(Penetrate)
G01 X186.324674 Y74.569541 Z-0.125000 F800.000000
G01 X162.448331 Y82.119297 Z-0.125000
G01 X141.278735 Y78.950045 Z-0.125000
G01 X113.611190 Y75.975629 Z-0.125000
G01 X89.968322 Y73.911699 Z-0.125000
G01 X73.169893 Y85.694246 Z-0.125000
G01 X54.087040 Y80.711960 Z-0.125000
G01 X33.860226 Y86.956066 Z-0.125000
G01 X16.756489 Y80.578525 Z-0.125000
G00 Z5.000000

(End cutting path id: polyline160368)


(Start cutting path id: polyline160370)
(Change tool to Default tool)

G00 Z5.000000
G00 X202.807910 Y84.505758

G00 Z4.875000 (Fast pre-penetrate)
G01 Z-0.125000 F100.0(Penetrate)
G01 X183.514395 Y78.819754 Z-0.125000 F800.000000
G01 X160.274079 Y85.165497 Z-0.125000
G01 X140.663424 Y80.467254 Z-0.125000
G01 X116.593742 Y78.327596 Z-0.125000
G01 X91.143681 Y78.653272 Z-0.125000
G01 X71.416963 Y89.327302 Z-0.125000
G01 X54.424996 Y83.536567 Z-0.125000
G01 X33.178423 Y88.541266 Z-0.125000
G01 X14.836428 Y81.776648 Z-0.125000
G00 Z5.000000

(End cutting path id: polyline160370)


(Start cutting path id: polyline160372)
(Change tool to Default tool)

G00 Z5.000000
G00 X202.777708 Y85.743617

G00 Z4.875000 (Fast pre-penetrate)
G01 Z-0.125000 F100.0(Penetrate)
G01 X182.109255 Y80.944836 Z-0.125000 F800.000000
G01 X159.186978 Y86.688597 Z-0.125000
G01 X140.355769 Y81.225834 Z-0.125000
G01 X118.084994 Y79.503554 Z-0.125000
G01 X91.731336 Y81.024058 Z-0.125000
G01 X70.540523 Y91.143830 Z-0.125000
G01 X54.593924 Y84.948895 Z-0.125000
G01 X32.837521 Y89.333891 Z-0.125000
G01 X13.876422 Y82.375684 Z-0.125000
G00 Z5.000000

(End cutting path id: polyline160372)


(Start cutting path id: polyline160374)
(Change tool to Default tool)

G00 Z5.000000
G00 X202.747507 Y86.981475

G00 Z4.875000 (Fast pre-penetrate)
G01 Z-0.125000 F100.0(Penetrate)
G01 X180.704116 Y83.069918 Z-0.125000 F800.000000
G01 X158.099826 Y88.211697 Z-0.125000
G01 X140.048064 Y81.984414 Z-0.125000
G01 X119.576245 Y80.679513 Z-0.125000
G01 X92.319040 Y83.394845 Z-0.125000
G01 X69.664083 Y92.960358 Z-0.125000
G01 X54.762902 Y86.361223 Z-0.125000
G01 X32.496620 Y90.126516 Z-0.125000
G01 X12.916416 Y82.974721 Z-0.125000
G00 Z5.000000

(End cutting path id: polyline160374)


(Start cutting path id: polyline160376)
(Change tool to Default tool)

G00 Z5.000000
G00 X202.717305 Y88.219384

G00 Z4.875000 (Fast pre-penetrate)
G01 Z-0.125000 F100.0(Penetrate)
G01 X179.298976 Y85.194999 Z-0.125000 F800.000000
G01 X157.012725 Y89.734796 Z-0.125000
G01 X139.740409 Y82.743043 Z-0.125000
G01 X121.067496 Y81.855521 Z-0.125000
G01 X92.906695 Y85.765631 Z-0.125000
G01 X68.787593 Y94.776936 Z-0.125000
G01 X54.931881 Y87.773501 Z-0.125000
G01 X32.155668 Y90.919091 Z-0.125000
G01 X11.956410 Y83.573807 Z-0.125000
G00 Z5.000000

(End cutting path id: polyline160376)


(Start cutting path id: polyline160378)
(Change tool to Default tool)

G00 Z5.000000
G00 X202.687104 Y89.457243

G00 Z4.875000 (Fast pre-penetrate)
G01 Z-0.125000 F100.0(Penetrate)
G01 X177.893786 Y87.320081 Z-0.125000 F800.000000
G01 X155.925624 Y91.257847 Z-0.125000
G01 X139.432754 Y83.501623 Z-0.125000
G01 X122.558797 Y83.031479 Z-0.125000
G01 X93.494400 Y88.136418 Z-0.125000
G01 X67.911152 Y96.593464 Z-0.125000
G01 X55.100859 Y89.185830 Z-0.125000
G01 X31.814766 Y91.711716 Z-0.125000
G01 X10.996355 Y84.172843 Z-0.125000
G00 Z5.000000

(End cutting path id: polyline160378)


(Start cutting path id: polyline160380)
(Change tool to Default tool)

G00 Z5.000000
G00 X202.656903 Y90.695152

G00 Z4.875000 (Fast pre-penetrate)
G01 Z-0.125000 F100.0(Penetrate)
G01 X176.488646 Y89.445162 Z-0.125000 F800.000000
G01 X154.838473 Y92.780947 Z-0.125000
G01 X139.125099 Y84.260253 Z-0.125000
G01 X124.050048 Y84.207438 Z-0.125000
G01 X94.082054 Y90.507204 Z-0.125000
G01 X67.034662 Y98.409992 Z-0.125000
G01 X55.269837 Y90.598158 Z-0.125000
G01 X31.473865 Y92.504292 Z-0.125000
G01 X10.036349 Y84.771880 Z-0.125000
G00 Z5.000000

(End cutting path id: polyline160380)


(Start cutting path id: polyline160382)
(Change tool to Default tool)

G00 Z5.000000
G00 X202.626701 Y91.933010

G00 Z4.875000 (Fast pre-penetrate)
G01 Z-0.125000 F100.0(Penetrate)
G01 X175.083507 Y91.570244 Z-0.125000 F800.000000
G01 X153.751371 Y94.304046 Z-0.125000
G01 X138.817444 Y85.018833 Z-0.125000
G01 X125.541300 Y85.383396 Z-0.125000
G01 X94.669759 Y92.878040 Z-0.125000
G01 X66.158222 Y100.226520 Z-0.125000
G01 X55.438815 Y92.010486 Z-0.125000
G01 X31.132963 Y93.296917 Z-0.125000
G01 X9.076343 Y85.370966 Z-0.125000
G00 Z5.000000

(End cutting path id: polyline160382)


(Start cutting path id: polyline160384)
(Change tool to Default tool)

G00 Z5.000000
G00 X202.596500 Y93.170869

G00 Z4.875000 (Fast pre-penetrate)
G01 Z-0.125000 F100.0(Penetrate)
G01 X173.678367 Y93.695376 Z-0.125000 F800.000000
G01 X152.664270 Y95.827146 Z-0.125000
G01 X138.509739 Y85.777412 Z-0.125000
G01 X127.032601 Y86.559404 Z-0.125000
G01 X95.257414 Y95.248827 Z-0.125000
G01 X65.281782 Y102.043098 Z-0.125000
G01 X55.607793 Y93.422764 Z-0.125000
G01 X30.792062 Y94.089542 Z-0.125000
G01 X8.116287 Y85.970002 Z-0.125000
G00 Z5.000000

(End cutting path id: polyline160384)


(Start cutting path id: polyline160386)
(Change tool to Default tool)

G00 Z5.000000
G00 X202.566298 Y94.408778

G00 Z4.875000 (Fast pre-penetrate)
G01 Z-0.125000 F100.0(Penetrate)
G01 X172.273227 Y95.820457 Z-0.125000 F800.000000
G01 X151.577119 Y97.350246 Z-0.125000
G01 X138.202084 Y86.536042 Z-0.125000
G01 X128.523852 Y87.735363 Z-0.125000
G01 X95.845118 Y97.619613 Z-0.125000
G01 X64.405292 Y103.859626 Z-0.125000
G01 X55.776722 Y94.835092 Z-0.125000
G01 X30.451110 Y94.882117 Z-0.125000
G01 X7.156282 Y86.569039 Z-0.125000
G00 Z5.000000

(End cutting path id: polyline160386)


(Start cutting path id: polyline160388)
(Change tool to Default tool)

G00 Z5.000000
G00 X202.536097 Y95.646637

G00 Z4.875000 (Fast pre-penetrate)
G01 Z-0.125000 F100.0(Penetrate)
G01 X170.868088 Y97.945539 Z-0.125000 F800.000000
G01 X150.490017 Y98.873346 Z-0.125000
G01 X137.894428 Y87.294622 Z-0.125000
G01 X130.015103 Y88.911321 Z-0.125000
G01 X96.432773 Y99.990350 Z-0.125000
G01 X63.528852 Y105.676153 Z-0.125000
G01 X55.945700 Y96.247420 Z-0.125000
G01 X30.110208 Y95.674742 Z-0.125000
G01 X6.196226 Y87.168075 Z-0.125000
G00 Z5.000000

(End cutting path id: polyline160388)


(Start cutting path id: polyline160390)
(Change tool to Default tool)

G00 Z5.000000
G00 X202.505896 Y96.884496

G00 Z4.875000 (Fast pre-penetrate)
G01 Z-0.125000 F100.0(Penetrate)
G01 X169.462948 Y100.070620 Z-0.125000 F800.000000
G01 X149.402866 Y100.396446 Z-0.125000
G01 X137.586773 Y88.053201 Z-0.125000
G01 X131.506354 Y90.087279 Z-0.125000
G01 X97.020478 Y102.361136 Z-0.125000
G01 X62.652362 Y107.492681 Z-0.125000
G01 X56.114678 Y97.659699 Z-0.125000
G01 X29.769307 Y96.467367 Z-0.125000
G01 X5.236220 Y87.767162 Z-0.125000
G00 Z5.000000

(End cutting path id: polyline160390)


(Start cutting path id: polyline160392)
(Change tool to Default tool)

G00 Z5.000000
G00 X202.838111 Y83.267849

G00 Z4.875000 (Fast pre-penetrate)
G01 Z-0.125000 F100.0(Penetrate)
G01 X184.919535 Y76.694673 Z-0.125000 F800.000000
G01 X161.361230 Y83.642397 Z-0.125000
G01 X140.971079 Y79.708674 Z-0.125000
G01 X115.102441 Y77.151588 Z-0.125000
G01 X90.555976 Y76.282486 Z-0.125000
G01 X72.293453 Y87.510774 Z-0.125000
G01 X54.256018 Y82.124239 Z-0.125000
G01 X33.519325 Y87.748691 Z-0.125000
G01 X15.796483 Y81.177562 Z-0.125000
G00 Z5.000000

(End cutting path id: polyline160392)


(Start cutting path id: polyline160394)
(Change tool to Default tool)

G00 Z5.000000
G00 X202.898514 Y80.792132

G00 Z4.875000 (Fast pre-penetrate)
G01 Z-0.125000 F100.0(Penetrate)
G01 X187.729814 Y72.444459 Z-0.125000 F800.000000
G01 X163.535433 Y80.596197 Z-0.125000
G01 X112.119939 Y74.799671 Z-0.125000
G01 X89.380617 Y71.540913 Z-0.125000
G01 X74.046383 Y83.877718 Z-0.125000
G01 X53.918061 Y79.299632 Z-0.125000
G01 X34.201178 Y86.163441 Z-0.125000
G01 X17.716495 Y79.979489 Z-0.125000
G00 Z5.000000

(End cutting path id: polyline160394)


(Start cutting path id: polyline160396)
(Change tool to Default tool)

G00 Z5.000000
G00 X202.970149 Y102.805521

G00 Z4.875000 (Fast pre-penetrate)
G01 Z-0.125000 F100.0(Penetrate)
G01 X170.327507 Y106.323263 Z-0.125000 F800.000000
G01 X149.319550 Y104.515720 Z-0.125000
G01 X137.737581 Y93.086705 Z-0.125000
G01 X131.240382 Y95.294353 Z-0.125000
G01 X98.272164 Y107.397984 Z-0.125000
G01 X63.709661 Y111.559040 Z-0.125000
G01 X56.576934 Y102.942800 Z-0.125000
G01 X29.971581 Y100.920503 Z-0.125000
G01 X3.705133 Y92.913234 Z-0.125000
G00 Z5.000000

(End cutting path id: polyline160396)


(Start cutting path id: polyline160398)
(Change tool to Default tool)

G00 Z5.000000
G00 X203.232477 Y104.528200

G00 Z4.875000 (Fast pre-penetrate)
G01 Z-0.125000 F100.0(Penetrate)
G01 X172.164902 Y107.324502 Z-0.125000 F800.000000
G01 X150.365019 Y105.052307 Z-0.125000
G01 X138.120665 Y94.844827 Z-0.125000
G01 X129.616095 Y96.721907 Z-0.125000
G01 X98.310353 Y107.545596 Z-0.125000
G01 X65.114751 Y111.775642 Z-0.125000
G01 X56.639084 Y104.172023 Z-0.125000
G01 X30.413670 Y102.354497 Z-0.125000
G01 X3.899570 Y94.887208 Z-0.125000
G00 Z5.000000

(End cutting path id: polyline160398)


(Start cutting path id: polyline160400)
(Change tool to Default tool)

G00 Z5.000000
G00 X203.494805 Y106.250829

G00 Z4.875000 (Fast pre-penetrate)
G01 Z-0.125000 F100.0(Penetrate)
G01 X174.002346 Y108.325741 Z-0.125000 F800.000000
G01 X151.410487 Y105.588844 Z-0.125000
G01 X138.503748 Y96.602998 Z-0.125000
G01 X127.991808 Y98.149461 Z-0.125000
G01 X98.348541 Y107.693209 Z-0.125000
G01 X66.519840 Y111.992293 Z-0.125000
G01 X56.701235 Y105.401246 Z-0.125000
G01 X30.855709 Y103.788490 Z-0.125000
G01 X4.094058 Y96.861183 Z-0.125000
G00 Z5.000000

(End cutting path id: polyline160400)


(Start cutting path id: polyline160402)
(Change tool to Default tool)

G00 Z5.000000
G00 X203.757133 Y107.973458

G00 Z4.875000 (Fast pre-penetrate)
G01 Z-0.125000 F100.0(Penetrate)
G01 X175.839740 Y109.326981 Z-0.125000 F800.000000
G01 X152.455955 Y106.125381 Z-0.125000
G01 X138.886782 Y98.361120 Z-0.125000
G01 X126.367520 Y99.577014 Z-0.125000
G01 X98.386730 Y107.840821 Z-0.125000
G01 X67.924980 Y112.208895 Z-0.125000
G01 X56.763385 Y106.630418 Z-0.125000
G01 X31.297798 Y105.222483 Z-0.125000
G01 X4.288545 Y98.835158 Z-0.125000
G00 Z5.000000

(End cutting path id: polyline160402)


(Start cutting path id: polyline160404)
(Change tool to Default tool)

G00 Z5.000000
G00 X204.019461 Y109.696087

G00 Z4.875000 (Fast pre-penetrate)
G01 Z-0.125000 F100.0(Penetrate)
G01 X177.677185 Y110.328220 Z-0.125000 F800.000000
G01 X153.501423 Y106.661968 Z-0.125000
G01 X139.269866 Y100.119292 Z-0.125000
G01 X124.743283 Y101.004568 Z-0.125000
G01 X98.424869 Y107.988434 Z-0.125000
G01 X69.330070 Y112.425547 Z-0.125000
G01 X56.825535 Y107.859641 Z-0.125000
G01 X31.739837 Y106.656427 Z-0.125000
G01 X4.482982 Y100.809182 Z-0.125000
G00 Z5.000000

(End cutting path id: polyline160404)


(Start cutting path id: polyline160406)
(Change tool to Default tool)

G00 Z5.000000
G00 X204.281789 Y111.418716

G00 Z4.875000 (Fast pre-penetrate)
G01 Z-0.125000 F100.0(Penetrate)
G01 X179.514629 Y111.329460 Z-0.125000 F800.000000
G01 X154.546892 Y107.198505 Z-0.125000
G01 X139.652950 Y101.877414 Z-0.125000
G01 X123.118996 Y102.432122 Z-0.125000
G01 X98.463057 Y108.136047 Z-0.125000
G01 X70.735160 Y112.642148 Z-0.125000
G01 X56.887685 Y109.088864 Z-0.125000
G01 X32.181876 Y108.090420 Z-0.125000
G01 X4.677469 Y102.783157 Z-0.125000
G00 Z5.000000

(End cutting path id: polyline160406)


(Start cutting path id: polyline160408)
(Change tool to Default tool)

G00 Z5.000000
G00 X204.544117 Y113.141345

G00 Z4.875000 (Fast pre-penetrate)
G01 Z-0.125000 F100.0(Penetrate)
G01 X181.352023 Y112.330699 Z-0.125000 F800.000000
G01 X155.592310 Y107.735042 Z-0.125000
G01 X140.036034 Y103.635586 Z-0.125000
G01 X121.494709 Y103.859675 Z-0.125000
G01 X98.501246 Y108.283659 Z-0.125000
G01 X72.140299 Y112.858800 Z-0.125000
G01 X56.949835 Y110.318087 Z-0.125000
G01 X32.623965 Y109.524413 Z-0.125000
G01 X4.871906 Y104.757132 Z-0.125000
G00 Z5.000000

(End cutting path id: polyline160408)


(Start cutting path id: polyline160410)
(Change tool to Default tool)

G00 Z5.000000
G00 X204.806445 Y114.863974

G00 Z4.875000 (Fast pre-penetrate)
G01 Z-0.125000 F100.0(Penetrate)
G01 X183.189418 Y113.331988 Z-0.125000 F800.000000
G01 X156.637778 Y108.271579 Z-0.125000
G01 X140.419117 Y105.393708 Z-0.125000
G01 X119.870472 Y105.287229 Z-0.125000
G01 X98.539434 Y108.431272 Z-0.125000
G01 X73.545389 Y113.075401 Z-0.125000
G01 X57.011985 Y111.547309 Z-0.125000
G01 X33.066004 Y110.958357 Z-0.125000
G01 X5.066393 Y106.731107 Z-0.125000
G00 Z5.000000

(End cutting path id: polyline160410)


(Start cutting path id: polyline160412)
(Change tool to Default tool)

G00 Z5.000000
G00 X205.068773 Y116.586603

G00 Z4.875000 (Fast pre-penetrate)
G01 Z-0.125000 F100.0(Penetrate)
G01 X185.026862 Y114.333178 Z-0.125000 F800.000000
G01 X157.683247 Y108.808165 Z-0.125000
G01 X140.802201 Y107.151830 Z-0.125000
G01 X118.246184 Y106.714783 Z-0.125000
G01 X98.577623 Y108.578884 Z-0.125000
G01 X74.950479 Y113.292053 Z-0.125000
G01 X57.074135 Y112.776532 Z-0.125000
G01 X33.508093 Y112.392350 Z-0.125000
G01 X5.260881 Y108.705131 Z-0.125000
G00 Z5.000000

(End cutting path id: polyline160412)


(Start cutting path id: polyline160414)
(Change tool to Default tool)

G00 Z5.000000
G00 X205.331101 Y118.309282

G00 Z4.875000 (Fast pre-penetrate)
G01 Z-0.125000 F100.0(Penetrate)
G01 X186.864256 Y115.334467 Z-0.125000 F800.000000
G01 X158.728715 Y109.344702 Z-0.125000
G01 X116.621897 Y108.142336 Z-0.125000
G01 X98.615762 Y108.726547 Z-0.125000
G01 X76.355569 Y113.508704 Z-0.125000
G01 X57.136285 Y114.005705 Z-0.125000
G01 X33.950132 Y113.826343 Z-0.125000
G01 X5.455318 Y110.679056 Z-0.125000
G00 Z5.000000

(End cutting path id: polyline160414)


(Start cutting path id: polyline160416)
(Change tool to Default tool)

G00 Z5.000000
G00 X204.984359 Y128.681248

G00 Z4.875000 (Fast pre-penetrate)
G01 Z-0.125000 F100.0(Penetrate)
G01 X195.589771 Y122.509625 Z-0.125000 F800.000000
G01 X164.100424 Y115.944486 Z-0.125000
G01 X141.732754 Y122.925956 Z-0.125000
G01 X108.610734 Y120.274671 Z-0.125000
G01 X98.477684 Y113.065667 Z-0.125000
G01 X82.942174 Y117.416568 Z-0.125000
G01 X55.078595 Y122.185846 Z-0.125000
G01 X34.717397 Y124.671298 Z-0.125000
G01 X7.166066 Y124.873173 Z-0.125000
G00 Z5.000000

(End cutting path id: polyline160416)


(Start cutting path id: polyline160418)
(Change tool to Default tool)

G00 Z5.000000
G00 X205.593429 Y120.031911

G00 Z4.875000 (Fast pre-penetrate)
G01 Z-0.125000 F100.0(Penetrate)
G01 X159.774183 Y109.881239 Z-0.125000 F800.000000
G01 X141.568319 Y110.668123 Z-0.125000
G01 X98.653950 Y108.874159 Z-0.125000
G01 X77.760659 Y113.725306 Z-0.125000
G01 X57.198435 Y115.234927 Z-0.125000
G01 X34.392171 Y115.260287 Z-0.125000
G01 X5.649805 Y112.653081 Z-0.125000
G00 Z5.000000

(End cutting path id: polyline160418)


(Start cutting path id: polyline160420)
(Change tool to Default tool)

G00 Z5.000000
G00 X205.855757 Y121.754540

G00 Z4.875000 (Fast pre-penetrate)
G01 Z-0.125000 F100.0(Penetrate)
G01 X190.539145 Y117.336946 Z-0.125000 F800.000000
G01 X160.819601 Y110.417826 Z-0.125000
G01 X141.951403 Y112.426295 Z-0.125000
G01 X113.373373 Y110.997494 Z-0.125000
G01 X98.692139 Y109.021772 Z-0.125000
G01 X79.165798 Y113.941957 Z-0.125000
G01 X57.260585 Y116.464150 Z-0.125000
G01 X34.834259 Y116.694280 Z-0.125000
G01 X5.844242 Y114.627055 Z-0.125000
G00 Z5.000000

(End cutting path id: polyline160420)


(Start cutting path id: polyline160422)
(Change tool to Default tool)

G00 Z5.000000
G00 X206.118085 Y123.477169

G00 Z4.875000 (Fast pre-penetrate)
G01 Z-0.125000 F100.0(Penetrate)
G01 X192.376539 Y118.338186 Z-0.125000 F800.000000
G01 X161.865070 Y110.954363 Z-0.125000
G01 X142.334486 Y114.184417 Z-0.125000
G01 X111.749085 Y112.424997 Z-0.125000
G01 X98.730327 Y109.169384 Z-0.125000
G01 X80.570888 Y114.158559 Z-0.125000
G01 X57.322685 Y117.693373 Z-0.125000
G01 X35.276298 Y118.128273 Z-0.125000
G01 X6.038729 Y116.601030 Z-0.125000
G00 Z5.000000

(End cutting path id: polyline160422)


(Start cutting path id: polyline160424)
(Change tool to Default tool)

G00 Z5.000000
G00 X206.380413 Y125.199798

G00 Z4.875000 (Fast pre-penetrate)
G01 Z-0.125000 F100.0(Penetrate)
G01 X194.213984 Y119.339425 Z-0.125000 F800.000000
G01 X162.910538 Y111.490900 Z-0.125000
G01 X142.717570 Y115.942589 Z-0.125000
G01 X110.124848 Y113.852601 Z-0.125000
G01 X98.768516 Y109.316997 Z-0.125000
G01 X81.975978 Y114.375210 Z-0.125000
G01 X57.384835 Y118.922595 Z-0.125000
G01 X35.718387 Y119.562267 Z-0.125000
G01 X6.233217 Y118.575005 Z-0.125000
G00 Z5.000000

(End cutting path id: polyline160424)


(Start cutting path id: polyline160426)
(Change tool to Default tool)

G00 Z5.000000
G00 X206.642741 Y126.922427

G00 Z4.875000 (Fast pre-penetrate)
G01 Z-0.125000 F100.0(Penetrate)
G01 X196.051378 Y120.340664 Z-0.125000 F800.000000
G01 X163.956006 Y112.027487 Z-0.125000
G01 X143.100604 Y117.700711 Z-0.125000
G01 X108.500561 Y115.280155 Z-0.125000
G01 X98.806654 Y109.464609 Z-0.125000
G01 X83.381118 Y114.591812 Z-0.125000
G01 X57.446985 Y120.151818 Z-0.125000
G01 X36.160426 Y120.996210 Z-0.125000
G01 X6.427654 Y120.549029 Z-0.125000
G00 Z5.000000

(End cutting path id: polyline160426)


(Start cutting path id: polyline160428)
(Change tool to Default tool)

G00 Z5.000000
G00 X203.919621 Y167.252852

G00 Z4.875000 (Fast pre-penetrate)
G01 Z-0.125000 F100.0(Penetrate)
G01 X185.575829 Y169.829008 Z-0.125000 F800.000000
G01 X153.480507 Y170.101121 Z-0.125000
G01 X141.712187 Y161.200738 Z-0.125000
G01 X121.043435 Y160.943951 Z-0.125000
G01 X84.711428 Y166.570400 Z-0.125000
G01 X66.254268 Y161.031660 Z-0.125000
G01 X59.707798 Y163.661379 Z-0.125000
G01 X41.631675 Y161.275717 Z-0.125000
G01 X20.727751 Y150.397615 Z-0.125000
G00 Z5.000000

(End cutting path id: polyline160428)


(Start cutting path id: polyline160430)
(Change tool to Default tool)

G00 Z5.000000
G00 X204.200420 Y168.611716

G00 Z4.875000 (Fast pre-penetrate)
G01 Z-0.125000 F100.0(Penetrate)
G01 X185.095302 Y170.832095 Z-0.125000 F800.000000
G01 X153.936274 Y170.918905 Z-0.125000
G01 X141.685380 Y162.900054 Z-0.125000
G01 X120.798978 Y162.672720 Z-0.125000
G01 X85.899167 Y167.655804 Z-0.125000
G01 X66.681730 Y162.317591 Z-0.125000
G01 X59.434388 Y165.451650 Z-0.125000
G01 X40.461757 Y162.965898 Z-0.125000
G01 X19.481306 Y152.058444 Z-0.125000
G00 Z5.000000

(End cutting path id: polyline160430)


(Start cutting path id: polyline160444)
(Change tool to Default tool)

G00 Z5.000000
G00 X204.481218 Y169.970581

G00 Z4.875000 (Fast pre-penetrate)
G01 Z-0.125000 F100.0(Penetrate)
G01 X184.614825 Y171.835131 Z-0.125000 F800.000000
G01 X154.391991 Y171.736690 Z-0.125000
G01 X141.658623 Y164.599321 Z-0.125000
G01 X120.554521 Y164.401539 Z-0.125000
G01 X87.086957 Y168.741258 Z-0.125000
G01 X67.109192 Y163.603522 Z-0.125000
G01 X59.161028 Y167.241920 Z-0.125000
G01 X39.291839 Y164.656029 Z-0.125000
G01 X18.234911 Y153.719322 Z-0.125000
G00 Z5.000000

(End cutting path id: polyline160444)


(Start cutting path id: polyline160446)
(Change tool to Default tool)

G00 Z5.000000
G00 X204.762016 Y171.329395

G00 Z4.875000 (Fast pre-penetrate)
G01 Z-0.125000 F100.0(Penetrate)
G01 X184.134348 Y172.838218 Z-0.125000 F800.000000
G01 X154.847758 Y172.554474 Z-0.125000
G01 X141.631867 Y166.298587 Z-0.125000
G01 X120.310114 Y166.130358 Z-0.125000
G01 X88.274696 Y169.826662 Z-0.125000
G01 X67.536655 Y164.889504 Z-0.125000
G01 X58.887667 Y169.032140 Z-0.125000
G01 X38.121871 Y166.346161 Z-0.125000
G01 X16.988466 Y155.380150 Z-0.125000
G00 Z5.000000

(End cutting path id: polyline160446)


(Start cutting path id: polyline160438)
(Change tool to Default tool)

G00 Z5.000000
G00 X202.546630 Y190.004754

G00 Z4.875000 (Fast pre-penetrate)
G01 Z-0.125000 F100.0(Penetrate)
G01 X182.049002 Y189.941705 Z-0.125000 F800.000000
G01 X161.390433 Y187.433889 Z-0.125000
G01 X136.058332 Y191.855976 Z-0.125000
G01 X118.233954 Y190.651913 Z-0.125000
G01 X102.013296 Y188.337136 Z-0.125000
G01 X74.641776 Y185.630740 Z-0.125000
G01 X52.110120 Y191.281550 Z-0.125000
G01 X25.735146 Y190.958819 Z-0.125000
G01 X6.864451 Y184.107590 Z-0.125000
G00 Z5.000000

(End cutting path id: polyline160438)


(Start cutting path id: polyline160440)
(Change tool to Default tool)

G00 Z5.000000
G00 X203.477433 Y189.609889

G00 Z4.875000 (Fast pre-penetrate)
G01 Z-0.125000 F100.0(Penetrate)
G01 X181.435639 Y189.097264 Z-0.125000 F800.000000
G01 X161.211421 Y186.589548 Z-0.125000
G01 X136.933674 Y190.994961 Z-0.125000
G01 X118.091084 Y190.022575 Z-0.125000
G01 X102.099008 Y187.422907 Z-0.125000
G01 X74.312505 Y184.745714 Z-0.125000
G01 X52.692982 Y191.153806 Z-0.125000
G01 X25.459739 Y190.236980 Z-0.125000
G01 X6.058947 Y182.641398 Z-0.125000
G00 Z5.000000

(End cutting path id: polyline160440)


(Start cutting path id: polyline160442)
(Change tool to Default tool)

G00 Z5.000000
G00 X204.408285 Y189.215024

G00 Z4.875000 (Fast pre-penetrate)
G01 Z-0.125000 F100.0(Penetrate)
G01 X180.822226 Y188.252822 Z-0.125000 F800.000000
G01 X161.032459 Y185.745306 Z-0.125000
G01 X137.809066 Y190.133996 Z-0.125000
G01 X117.948214 Y189.393238 Z-0.125000
G01 X102.184721 Y186.508728 Z-0.125000
G01 X73.983235 Y183.860737 Z-0.125000
G01 X53.275845 Y191.026111 Z-0.125000
G01 X25.184332 Y189.515141 Z-0.125000
G01 X5.253443 Y181.175207 Z-0.125000
G00 Z5.000000

(End cutting path id: polyline160442)


(Start cutting path id: polyline160448)
(Change tool to Default tool)

G00 Z5.000000
G00 X205.042815 Y172.688259

G00 Z4.875000 (Fast pre-penetrate)
G01 Z-0.125000 F100.0(Penetrate)
G01 X183.653871 Y173.841304 Z-0.125000 F800.000000
G01 X155.303475 Y173.372309 Z-0.125000
G01 X141.605060 Y167.997904 Z-0.125000
G01 X120.065658 Y167.859127 Z-0.125000
G01 X89.462435 Y170.912116 Z-0.125000
G01 X67.964117 Y166.175385 Z-0.125000
G01 X58.614307 Y170.822410 Z-0.125000
G01 X36.951953 Y168.036292 Z-0.125000
G01 X15.742071 Y157.041029 Z-0.125000
G00 Z5.000000

(End cutting path id: polyline160448)


(Start cutting path id: polyline160450)
(Change tool to Default tool)

G00 Z5.000000
G00 X205.323613 Y174.047073

G00 Z4.875000 (Fast pre-penetrate)
G01 Z-0.125000 F100.0(Penetrate)
G01 X183.173394 Y174.844391 Z-0.125000 F800.000000
G01 X155.759241 Y174.190093 Z-0.125000
G01 X141.578303 Y169.697170 Z-0.125000
G01 X119.821201 Y169.587946 Z-0.125000
G01 X90.650175 Y171.997570 Z-0.125000
G01 X68.391530 Y167.461317 Z-0.125000
G01 X58.340897 Y172.612681 Z-0.125000
G01 X35.782035 Y169.726423 Z-0.125000
G01 X14.495626 Y158.701907 Z-0.125000
G00 Z5.000000

(End cutting path id: polyline160450)


(Start cutting path id: polyline160452)
(Change tool to Default tool)

G00 Z5.000000
G00 X205.604411 Y175.405887

G00 Z4.875000 (Fast pre-penetrate)
G01 Z-0.125000 F100.0(Penetrate)
G01 X182.692916 Y175.847427 Z-0.125000 F800.000000
G01 X156.214958 Y175.007928 Z-0.125000
G01 X141.551546 Y171.396437 Z-0.125000
G01 X119.576744 Y171.316765 Z-0.125000
G01 X91.837914 Y173.082974 Z-0.125000
G01 X68.818992 Y168.747248 Z-0.125000
G01 X58.067537 Y174.402901 Z-0.125000
G01 X34.612117 Y171.416604 Z-0.125000
G01 X13.249231 Y160.362736 Z-0.125000
G00 Z5.000000

(End cutting path id: polyline160452)


(Start cutting path id: polyline160454)
(Change tool to Default tool)

G00 Z5.000000
G00 X205.885210 Y176.764752

G00 Z4.875000 (Fast pre-penetrate)
G01 Z-0.125000 F100.0(Penetrate)
G01 X182.212439 Y176.850514 Z-0.125000 F800.000000
G01 X156.670725 Y175.825712 Z-0.125000
G01 X141.524739 Y173.095753 Z-0.125000
G01 X119.332287 Y173.045534 Z-0.125000
G01 X93.025654 Y174.168378 Z-0.125000
G01 X69.246454 Y170.033180 Z-0.125000
G01 X57.794176 Y176.193171 Z-0.125000
G01 X33.442199 Y173.106736 Z-0.125000
G01 X12.002786 Y162.023614 Z-0.125000
G00 Z5.000000

(End cutting path id: polyline160454)


(Start cutting path id: polyline160456)
(Change tool to Default tool)

G00 Z5.000000
G00 X206.166008 Y178.123566

G00 Z4.875000 (Fast pre-penetrate)
G01 Z-0.125000 F100.0(Penetrate)
G01 X181.731962 Y177.853550 Z-0.125000 F800.000000
G01 X157.126442 Y176.643497 Z-0.125000
G01 X141.497982 Y174.795020 Z-0.125000
G01 X119.087880 Y174.774353 Z-0.125000
G01 X94.213393 Y175.253832 Z-0.125000
G01 X69.673917 Y171.319111 Z-0.125000
G01 X57.520816 Y177.983441 Z-0.125000
G01 X32.272231 Y174.796867 Z-0.125000
G01 X10.756391 Y163.684492 Z-0.125000
G00 Z5.000000

(End cutting path id: polyline160456)


(Start cutting path id: polyline160458)
(Change tool to Default tool)

G00 Z5.000000
G00 X205.339088 Y188.820110

G00 Z4.875000 (Fast pre-penetrate)
G01 Z-0.125000 F100.0(Penetrate)
G01 X180.208812 Y187.408380 Z-0.125000 F800.000000
G01 X160.853497 Y184.901014 Z-0.125000
G01 X138.684458 Y189.272981 Z-0.125000
G01 X117.805343 Y188.763950 Z-0.125000
G01 X102.270433 Y185.594498 Z-0.125000
G01 X73.653915 Y182.975711 Z-0.125000
G01 X53.858657 Y190.898416 Z-0.125000
G01 X24.908925 Y188.793353 Z-0.125000
G01 X4.447938 Y179.709065 Z-0.125000
G00 Z5.000000

(End cutting path id: polyline160458)


(Start cutting path id: polyline160460)
(Change tool to Default tool)

G00 Z5.000000
G00 X206.446806 Y179.482430

G00 Z4.875000 (Fast pre-penetrate)
G01 Z-0.125000 F100.0(Penetrate)
G01 X181.251485 Y178.856637 Z-0.125000 F800.000000
G01 X141.471175 Y176.494287 Z-0.125000
G01 X95.401133 Y176.339236 Z-0.125000
G01 X70.101379 Y172.605043 Z-0.125000
G01 X57.247456 Y179.773711 Z-0.125000
G01 X31.102313 Y176.486998 Z-0.125000
G01 X9.509946 Y165.345371 Z-0.125000
G00 Z5.000000

(End cutting path id: polyline160460)


(Start cutting path id: polyline160462)
(Change tool to Default tool)

G00 Z5.000000
G00 X206.727605 Y180.841244

G00 Z4.875000 (Fast pre-penetrate)
G01 Z-0.125000 F100.0(Penetrate)
G01 X180.771008 Y179.859723 Z-0.125000 F800.000000
G01 X158.037926 Y178.279116 Z-0.125000
G01 X118.598967 Y178.231941 Z-0.125000
G01 X96.588872 Y177.424690 Z-0.125000
G01 X70.528842 Y173.890974 Z-0.125000
G01 X56.974096 Y181.563932 Z-0.125000
G01 X29.932394 Y178.177130 Z-0.125000
G01 X8.263551 Y167.006199 Z-0.125000
G00 Z5.000000

(End cutting path id: polyline160462)


(Start cutting path id: polyline160464)
(Change tool to Default tool)

G00 Z5.000000
G00 X206.269941 Y188.425245

G00 Z4.875000 (Fast pre-penetrate)
G01 Z-0.125000 F100.0(Penetrate)
G01 X179.595399 Y186.563939 Z-0.125000 F800.000000
G01 X160.674535 Y184.056722 Z-0.125000
G01 X139.559800 Y188.411966 Z-0.125000
G01 X117.662473 Y188.134612 Z-0.125000
G01 X102.356145 Y184.680269 Z-0.125000
G01 X73.324644 Y182.090684 Z-0.125000
G01 X54.441519 Y190.770672 Z-0.125000
G01 X24.633568 Y188.071514 Z-0.125000
G01 X3.642434 Y178.242874 Z-0.125000
G00 Z5.000000

(End cutting path id: polyline160464)


(Start cutting path id: polyline160466)
(Change tool to Default tool)

G00 Z5.000000
G00 X207.008403 Y182.200108

G00 Z4.875000 (Fast pre-penetrate)
G01 Z-0.125000 F100.0(Penetrate)
G01 X180.290531 Y180.862760 Z-0.125000 F800.000000
G01 X158.493693 Y179.096900 Z-0.125000
G01 X141.417661 Y179.892870 Z-0.125000
G01 X118.354510 Y179.960761 Z-0.125000
G01 X97.776611 Y178.510094 Z-0.125000
G01 X70.956304 Y175.176906 Z-0.125000
G01 X56.700685 Y183.354202 Z-0.125000
G01 X28.762476 Y179.867261 Z-0.125000
G01 X7.017156 Y168.667077 Z-0.125000
G00 Z5.000000

(End cutting path id: polyline160466)


(Start cutting path id: polyline160468)
(Change tool to Default tool)

G00 Z5.000000
G00 X207.289201 Y183.558923

G00 Z4.875000 (Fast pre-penetrate)
G01 Z-0.125000 F100.0(Penetrate)
G01 X179.810054 Y181.865846 Z-0.125000 F800.000000
G01 X158.949410 Y179.914735 Z-0.125000
G01 X141.390854 Y181.592136 Z-0.125000
G01 X118.110053 Y181.689580 Z-0.125000
G01 X71.383766 Y176.462837 Z-0.125000
G01 X56.427325 Y185.144472 Z-0.125000
G01 X27.592558 Y181.557392 Z-0.125000
G01 X5.770711 Y170.327956 Z-0.125000
G00 Z5.000000

(End cutting path id: polyline160468)


(Start cutting path id: polyline160470)
(Change tool to Default tool)

G00 Z5.000000
G00 X207.570000 Y184.917787

G00 Z4.875000 (Fast pre-penetrate)
G01 Z-0.125000 F100.0(Penetrate)
G01 X179.329577 Y182.868932 Z-0.125000 F800.000000
G01 X159.405127 Y180.732519 Z-0.125000
G01 X141.364097 Y183.291403 Z-0.125000
G01 X117.865646 Y183.418349 Z-0.125000
G01 X100.152140 Y180.681002 Z-0.125000
G01 X71.811229 Y177.748769 Z-0.125000
G01 X56.153965 Y186.934692 Z-0.125000
G01 X26.422590 Y183.247573 Z-0.125000
G01 X4.524315 Y171.988784 Z-0.125000
G00 Z5.000000

(End cutting path id: polyline160470)



(Footer)
M5
G00 X0.0000 Y0.0000
M2
(Using default footer. To add your own footer create file "footer" in the output dir.)
(end)
%