%
(Header)
(Generated by gcodetools from Inkscape.)
(Using default header. To add your own header create file "header" in the output dir.)
M3
(Header end.)
G21 (All units in mm)

(Start cutting path id: polyline7614-6)
(Change tool to Default tool)

G00 Z3.000000
G00 X4.162780 Y236.240639

G00 Z4.875000 (Fast pre-penetrate)
G01 Z-0.125000 F400.0(Penetrate)
G01 X6.075424 Y237.008274 Z-0.125000 F800.000000
G01 X6.925503 Y237.194487 Z-0.125000
G01 X7.881812 Y237.281403 Z-0.125000
G01 X9.688199 Y237.168426 Z-0.125000
G01 X13.407231 Y236.544936 Z-0.125000
G01 X15.319902 Y236.302525 Z-0.125000
G01 X17.445059 Y236.149490 Z-0.125000
G01 X19.782729 Y236.098055 Z-0.125000
G01 X24.139326 Y236.289746 Z-0.125000
G01 X30.408567 Y237.170013 Z-0.125000
G01 X32.533724 Y237.279418 Z-0.125000
G01 X33.808829 Y237.163002 Z-0.125000
G01 X35.190191 Y236.855953 Z-0.125000
G01 X39.971814 Y235.173708 Z-0.125000
G01 X41.034379 Y234.975377 Z-0.125000
G01 X42.096971 Y234.929207 Z-0.125000
G01 X43.265819 Y235.061393 Z-0.125000
G01 X44.434641 Y235.362594 Z-0.125000
G01 X48.791239 Y237.093893 Z-0.125000
G01 X50.810139 Y237.699126 Z-0.125000
G01 X53.147836 Y238.065389 Z-0.125000
G01 X56.016789 Y238.170005 Z-0.125000
G01 X58.460742 Y238.026125 Z-0.125000
G01 X60.479642 Y237.617159 Z-0.125000
G01 X62.179773 Y236.951759 Z-0.125000
G01 X65.261266 Y235.321002 Z-0.125000
G01 X66.005061 Y235.054434 Z-0.125000
G01 X66.748884 Y234.930556 Z-0.125000
G01 X67.492679 Y234.980880 Z-0.125000
G01 X68.223220 Y235.206278 Z-0.125000
G01 X68.967015 Y235.589606 Z-0.125000
G01 X71.012480 Y236.885057 Z-0.125000
G01 X71.743020 Y237.179141 Z-0.125000
G01 X72.380559 Y237.281641 Z-0.125000
G01 X73.443151 Y237.123658 Z-0.125000
G01 X75.887078 Y236.033312 Z-0.125000
G01 X76.524643 Y235.853395 Z-0.125000
G01 X77.162183 Y235.780185 Z-0.125000
G01 X78.224774 Y235.882738 Z-0.125000
G01 X80.774958 Y236.511069 Z-0.125000
G01 X81.943806 Y236.623729 Z-0.125000
G01 X87.575482 Y236.247836 Z-0.125000
G01 X96.182419 Y236.315834 Z-0.125000
G01 X104.151765 Y236.242094 Z-0.125000
G01 X106.489462 Y236.302128 Z-0.125000
G01 X110.846033 Y236.626322 Z-0.125000
G01 X112.333651 Y236.503952 Z-0.125000
G01 X114.883860 Y235.906233 Z-0.125000
G01 X116.052709 Y235.779736 Z-0.125000
G01 X117.327787 Y235.988677 Z-0.125000
G01 X119.877997 Y237.098417 Z-0.125000
G01 X120.940589 Y237.284446 Z-0.125000
G01 X121.471871 Y237.219173 Z-0.125000
G01 X122.056282 Y237.021106 Z-0.125000
G01 X122.707130 Y236.667200 Z-0.125000
G01 X124.752595 Y235.285786 Z-0.125000
G01 X125.403416 Y235.015699 Z-0.125000
G01 X126.040981 Y234.925847 Z-0.125000
G01 X126.784777 Y235.060149 Z-0.125000
G01 X127.541881 Y235.439058 Z-0.125000
G01 X129.783614 Y237.252457 Z-0.125000
G01 X130.703040 Y237.878090 Z-0.125000
G01 X131.460144 Y238.205353 Z-0.125000
G01 X132.310196 Y238.333094 Z-0.125000
G01 X133.160275 Y238.215407 Z-0.125000
G01 X134.143174 Y237.829592 Z-0.125000
G01 X137.676257 Y235.658504 Z-0.125000
G01 X139.349824 Y234.848165 Z-0.125000
G01 X141.235904 Y234.278439 Z-0.125000
G01 X143.467317 Y233.962077 Z-0.125000
G01 X145.379961 Y233.870690 Z-0.125000
G01 X147.611402 Y233.882093 Z-0.125000
G01 X149.630302 Y233.991551 Z-0.125000
G01 X151.436690 Y234.190915 Z-0.125000
G01 X154.518182 Y234.793979 Z-0.125000
G01 X160.256114 Y236.416693 Z-0.125000
G01 X162.912580 Y237.029837 Z-0.125000
G01 X165.994073 Y237.460129 Z-0.125000
G01 X169.181822 Y237.597156 Z-0.125000
G01 X172.369571 Y237.437666 Z-0.125000
G01 X175.344780 Y236.975704 Z-0.125000
G01 X177.894990 Y236.310833 Z-0.125000
G01 X183.739178 Y234.413799 Z-0.125000
G01 X185.439336 Y234.024968 Z-0.125000
G01 X187.139467 Y233.786235 Z-0.125000
G00 Z3.000000

(End cutting path id: polyline7614-6)


(Start cutting path id: polyline7610-2)
(Change tool to Default tool)

G00 Z3.000000
G00 X4.162780 Y233.289692

G00 Z4.875000 (Fast pre-penetrate)
G01 Z-0.125000 F400.0(Penetrate)
G01 X5.437885 Y233.080513 Z-0.125000 F800.000000
G01 X8.944404 Y232.218157 Z-0.125000
G01 X11.069561 Y231.920792 Z-0.125000
G01 X13.513514 Y231.815092 Z-0.125000
G01 X21.057834 Y231.810012 Z-0.125000
G01 X23.501787 Y231.853747 Z-0.125000
G01 X25.520687 Y232.019747 Z-0.125000
G01 X27.327075 Y232.323991 Z-0.125000
G01 X30.939850 Y233.162295 Z-0.125000
G01 X32.002442 Y233.297868 Z-0.125000
G01 X32.958751 Y233.301625 Z-0.125000
G01 X33.915086 Y233.168487 Z-0.125000
G01 X34.871395 Y232.896760 Z-0.125000
G01 X38.802966 Y231.207027 Z-0.125000
G01 X39.653018 Y231.010257 Z-0.125000
G01 X40.396840 Y230.957181 Z-0.125000
G01 X41.353149 Y231.063835 Z-0.125000
G01 X42.282920 Y231.345060 Z-0.125000
G01 X43.305666 Y231.814218 Z-0.125000
G01 X46.559825 Y233.578405 Z-0.125000
G01 X47.728647 Y234.019677 Z-0.125000
G01 X48.791239 Y234.261929 Z-0.125000
G01 X50.703883 Y234.352628 Z-0.125000
G01 X54.316658 Y234.012956 Z-0.125000
G01 X56.016789 Y233.954166 Z-0.125000
G01 X61.329695 Y234.361438 Z-0.125000
G01 X62.498543 Y234.219384 Z-0.125000
G01 X63.667391 Y233.815524 Z-0.125000
G01 X64.690137 Y233.231404 Z-0.125000
G01 X67.293448 Y231.394193 Z-0.125000
G01 X68.037271 Y231.069550 Z-0.125000
G01 X68.767784 Y230.957049 Z-0.125000
G01 X69.299067 Y231.020390 Z-0.125000
G01 X69.896786 Y231.229834 Z-0.125000
G01 X72.500098 Y232.929727 Z-0.125000
G01 X73.124381 Y233.197035 Z-0.125000
G01 X73.761921 Y233.311785 Z-0.125000
G01 X74.293203 Y233.281755 Z-0.125000
G01 X74.824512 Y233.146606 Z-0.125000
G01 X77.162183 Y232.085204 Z-0.125000
G01 X77.799722 Y231.896874 Z-0.125000
G01 X78.437287 Y231.814827 Z-0.125000
G01 X79.393596 Y231.874729 Z-0.125000
G01 X82.050062 Y232.494964 Z-0.125000
G01 X83.537680 Y232.652761 Z-0.125000
G01 X89.488126 Y232.315312 Z-0.125000
G01 X95.544854 Y232.273402 Z-0.125000
G01 X100.751503 Y232.326345 Z-0.125000
G01 X106.489462 Y232.657841 Z-0.125000
G01 X108.189593 Y232.532482 Z-0.125000
G01 X111.058572 Y231.911347 Z-0.125000
G01 X112.121138 Y231.810620 Z-0.125000
G01 X113.396242 Y232.004533 Z-0.125000
G01 X115.946426 Y233.106124 Z-0.125000
G01 X116.477735 Y233.259768 Z-0.125000
G01 X117.115274 Y233.314007 Z-0.125000
G01 X117.752840 Y233.200528 Z-0.125000
G01 X118.430225 Y232.899750 Z-0.125000
G01 X120.847588 Y231.230178 Z-0.125000
G01 X121.365615 Y231.027428 Z-0.125000
G01 X121.896897 Y230.958478 Z-0.125000
G01 X122.521154 Y231.076746 Z-0.125000
G01 X123.172002 Y231.426022 Z-0.125000
G01 X125.329042 Y233.414787 Z-0.125000
G01 X126.064582 Y233.980651 Z-0.125000
G01 X126.705085 Y234.279656 Z-0.125000
G01 X127.316060 Y234.362259 Z-0.125000
G01 X128.099728 Y234.173981 Z-0.125000
G01 X128.874533 Y233.703844 Z-0.125000
G01 X131.353887 Y231.371465 Z-0.125000
G01 X132.376607 Y230.548533 Z-0.125000
G01 X133.306378 Y230.027939 Z-0.125000
G01 X134.010327 Y229.852627 Z-0.125000
G01 X134.647893 Y229.949120 Z-0.125000
G01 X136.467562 Y230.780810 Z-0.125000
G01 X137.516872 Y231.121725 Z-0.125000
G01 X140.067055 Y231.694892 Z-0.125000
G01 X141.979699 Y231.863140 Z-0.125000
G01 X143.254804 Y231.816441 Z-0.125000
G01 X144.423653 Y231.668089 Z-0.125000
G01 X147.505145 Y231.069946 Z-0.125000
G01 X151.967972 Y230.013705 Z-0.125000
G01 X153.243077 Y229.814183 Z-0.125000
G01 X154.518182 Y229.719065 Z-0.125000
G01 X155.899543 Y229.748751 Z-0.125000
G01 X157.387161 Y229.928244 Z-0.125000
G01 X164.400198 Y231.571887 Z-0.125000
G01 X166.312842 Y231.861420 Z-0.125000
G01 X168.225486 Y231.992177 Z-0.125000
G01 X170.350644 Y231.939816 Z-0.125000
G01 X172.582084 Y231.662745 Z-0.125000
G01 X174.600984 Y231.238486 Z-0.125000
G01 X178.957581 Y230.113294 Z-0.125000
G01 X181.295252 Y229.749863 Z-0.125000
G01 X182.676613 Y229.720997 Z-0.125000
G01 X184.057974 Y229.847547 Z-0.125000
G01 X185.439336 Y230.113796 Z-0.125000
G01 X187.139467 Y230.576975 Z-0.125000
G00 Z3.000000

(End cutting path id: polyline7610-2)


(Start cutting path id: polyline7348-3)
(Change tool to Default tool)

G00 Z3.000000
G00 X4.162780 Y229.908956

G00 Z4.875000 (Fast pre-penetrate)
G01 Z-0.125000 F400.0(Penetrate)
G01 X6.287938 Y229.387728 Z-0.125000 F800.000000
G01 X8.306838 Y229.177834 Z-0.125000
G01 X16.701236 Y229.428870 Z-0.125000
G01 X24.883122 Y229.172437 Z-0.125000
G01 X27.220818 Y229.414742 Z-0.125000
G01 X31.364876 Y230.511518 Z-0.125000
G01 X32.958751 Y230.666457 Z-0.125000
G01 X33.915086 Y230.541468 Z-0.125000
G01 X34.844831 Y230.251671 Z-0.125000
G01 X38.377940 Y228.557122 Z-0.125000
G01 X39.121735 Y228.365247 Z-0.125000
G01 X39.865531 Y228.312674 Z-0.125000
G01 X40.715610 Y228.436790 Z-0.125000
G01 X41.539124 Y228.733546 Z-0.125000
G01 X42.468869 Y229.233370 Z-0.125000
G01 X45.258156 Y230.988349 Z-0.125000
G01 X46.241029 Y231.419487 Z-0.125000
G01 X47.197364 Y231.658882 Z-0.125000
G01 X48.153699 Y231.716323 Z-0.125000
G01 X49.110008 Y231.614458 Z-0.125000
G01 X53.679118 Y230.339565 Z-0.125000
G01 X54.954223 Y230.124935 Z-0.125000
G01 X56.123045 Y230.061674 Z-0.125000
G01 X57.185637 Y230.124221 Z-0.125000
G01 X58.354485 Y230.323902 Z-0.125000
G01 X62.073517 Y231.490104 Z-0.125000
G01 X62.817313 Y231.655786 Z-0.125000
G01 X63.561135 Y231.718969 Z-0.125000
G01 X64.517444 Y231.593900 Z-0.125000
G01 X65.433933 Y231.221658 Z-0.125000
G01 X66.312031 Y230.645502 Z-0.125000
G01 X68.595117 Y228.824298 Z-0.125000
G01 X69.338913 Y228.447188 Z-0.125000
G01 X69.936633 Y228.317939 Z-0.125000
G01 X70.467915 Y228.346356 Z-0.125000
G01 X71.105454 Y228.556673 Z-0.125000
G01 X73.708792 Y230.290459 Z-0.125000
G01 X74.293203 Y230.544723 Z-0.125000
G01 X74.930769 Y230.666590 Z-0.125000
G01 X75.887078 Y230.539854 Z-0.125000
G01 X78.357595 Y229.453450 Z-0.125000
G01 X79.074827 Y229.249033 Z-0.125000
G01 X79.712392 Y229.170082 Z-0.125000
G01 X80.774958 Y229.234005 Z-0.125000
G01 X83.537680 Y229.827597 Z-0.125000
G01 X85.237811 Y230.002222 Z-0.125000
G01 X94.269749 Y229.731209 Z-0.125000
G01 X97.563754 Y229.783174 Z-0.125000
G01 X102.982943 Y230.012197 Z-0.125000
G01 X105.001844 Y229.886996 Z-0.125000
G01 X108.083336 Y229.280545 Z-0.125000
G01 X109.252158 Y229.164975 Z-0.125000
G01 X109.889724 Y229.201408 Z-0.125000
G01 X110.633520 Y229.353729 Z-0.125000
G01 X113.289986 Y230.466380 Z-0.125000
G01 X114.352578 Y230.669341 Z-0.125000
G01 X114.990117 Y230.589702 Z-0.125000
G01 X115.547964 Y230.379861 Z-0.125000
G01 X116.198811 Y229.995263 Z-0.125000
G01 X118.058327 Y228.653642 Z-0.125000
G01 X118.616174 Y228.400595 Z-0.125000
G01 X119.240431 Y228.313177 Z-0.125000
G01 X119.824868 Y228.435494 Z-0.125000
G01 X120.362051 Y228.742463 Z-0.125000
G01 X123.172002 Y231.335985 Z-0.125000
G01 X123.822823 Y231.653378 Z-0.125000
G01 X124.340850 Y231.715238 Z-0.125000
G01 X124.938543 Y231.572019 Z-0.125000
G01 X125.651357 Y231.121990 Z-0.125000
G01 X126.350094 Y230.455161 Z-0.125000
G01 X128.461307 Y228.119767 Z-0.125000
G01 X129.401397 Y227.392269 Z-0.125000
G01 X129.866270 Y227.202166 Z-0.125000
G01 X130.331142 Y227.365520 Z-0.125000
G01 X131.725785 Y228.392340 Z-0.125000
G01 X132.841505 Y228.976248 Z-0.125000
G01 X133.864225 Y229.635325 Z-0.125000
G01 X136.666793 Y230.857301 Z-0.125000
G01 X137.623129 Y231.148104 Z-0.125000
G01 X140.067055 Y231.694892 Z-0.125000
G01 X141.235904 Y231.833612 Z-0.125000
G01 X142.404726 Y231.860891 Z-0.125000
G01 X144.423653 Y231.669333 Z-0.125000
G01 X146.336297 Y231.212477 Z-0.125000
G01 X148.461454 Y230.403197 Z-0.125000
G01 X152.459435 Y228.436261 Z-0.125000
G01 X154.093156 Y227.749033 Z-0.125000
G01 X156.005800 Y227.228439 Z-0.125000
G01 X157.812187 Y227.067626 Z-0.125000
G01 X160.043601 Y227.245637 Z-0.125000
G01 X165.675303 Y228.245047 Z-0.125000
G01 X168.544256 Y228.434224 Z-0.125000
G01 X170.138130 Y228.377206 Z-0.125000
G01 X171.732005 Y228.209010 Z-0.125000
G01 X177.788733 Y227.157769 Z-0.125000
G01 X179.063838 Y227.070430 Z-0.125000
G01 X180.232660 Y227.102657 Z-0.125000
G01 X181.614021 Y227.299718 Z-0.125000
G01 X183.101639 Y227.700085 Z-0.125000
G01 X184.629103 Y228.271637 Z-0.125000
G01 X187.139467 Y229.362460 Z-0.125000
G00 Z3.000000

(End cutting path id: polyline7348-3)


(Start cutting path id: polyline7350-2)
(Change tool to Default tool)

G00 Z3.000000
G00 X4.162780 Y228.148262

G00 Z4.875000 (Fast pre-penetrate)
G01 Z-0.125000 F400.0(Penetrate)
G01 X5.650398 Y227.909450 Z-0.125000 F800.000000
G01 X7.244273 Y227.841849 Z-0.125000
G01 X13.407231 Y228.231447 Z-0.125000
G01 X16.913776 Y228.289126 Z-0.125000
G01 X19.676472 Y228.188823 Z-0.125000
G01 X24.033070 Y227.871958 Z-0.125000
G01 X25.733201 Y227.852644 Z-0.125000
G01 X27.645845 Y228.076640 Z-0.125000
G01 X31.471133 Y229.168547 Z-0.125000
G01 X32.321211 Y229.317111 Z-0.125000
G01 X33.065007 Y229.343675 Z-0.125000
G01 X33.915086 Y229.231809 Z-0.125000
G01 X34.844831 Y228.933571 Z-0.125000
G01 X38.191964 Y227.244711 Z-0.125000
G01 X38.909222 Y227.046089 Z-0.125000
G01 X39.653018 Y226.990579 Z-0.125000
G01 X40.396840 Y227.101863 Z-0.125000
G01 X41.260175 Y227.428623 Z-0.125000
G01 X42.189946 Y227.965541 Z-0.125000
G01 X44.886258 Y229.757985 Z-0.125000
G01 X45.816003 Y230.163221 Z-0.125000
G01 X46.666081 Y230.360123 Z-0.125000
G01 X47.516134 Y230.386052 Z-0.125000
G01 X48.472469 Y230.233256 Z-0.125000
G01 X49.628009 Y229.862152 Z-0.125000
G01 X52.085244 Y228.842713 Z-0.125000
G01 X53.360349 Y228.400727 Z-0.125000
G01 X54.847967 Y228.067194 Z-0.125000
G01 X56.229302 Y227.962366 Z-0.125000
G01 X57.610663 Y228.066321 Z-0.125000
G01 X58.885768 Y228.351330 Z-0.125000
G01 X60.134309 Y228.794797 Z-0.125000
G01 X63.136109 Y230.117024 Z-0.125000
G01 X63.879904 Y230.323240 Z-0.125000
G01 X64.623700 Y230.394625 Z-0.125000
G01 X65.473779 Y230.264371 Z-0.125000
G01 X66.270703 Y229.916761 Z-0.125000
G01 X67.055853 Y229.380743 Z-0.125000
G01 X69.369922 Y227.468707 Z-0.125000
G01 X70.082735 Y227.110568 Z-0.125000
G01 X70.680428 Y226.991849 Z-0.125000
G01 X71.211711 Y227.035929 Z-0.125000
G01 X71.849277 Y227.268418 Z-0.125000
G01 X74.359614 Y228.963390 Z-0.125000
G01 X74.930769 Y229.215458 Z-0.125000
G01 X75.568308 Y229.342219 Z-0.125000
G01 X76.524643 Y229.228158 Z-0.125000
G01 X79.074827 Y228.133604 Z-0.125000
G01 X79.818649 Y227.927097 Z-0.125000
G01 X80.456188 Y227.848569 Z-0.125000
G01 X81.625036 Y227.914265 Z-0.125000
G01 X84.493989 Y228.492008 Z-0.125000
G01 X86.300403 Y228.671951 Z-0.125000
G01 X94.057236 Y228.530611 Z-0.125000
G01 X100.857760 Y228.689123 Z-0.125000
G01 X103.301713 Y228.555323 Z-0.125000
G01 X106.595718 Y227.949084 Z-0.125000
G01 X107.764567 Y227.842034 Z-0.125000
G01 X108.508363 Y227.888257 Z-0.125000
G01 X109.252158 Y228.044493 Z-0.125000
G01 X111.908624 Y229.136321 Z-0.125000
G01 X112.971216 Y229.345447 Z-0.125000
G01 X113.608755 Y229.277979 Z-0.125000
G01 X114.246295 Y229.045146 Z-0.125000
G01 X116.756658 Y227.320144 Z-0.125000
G01 X117.327787 Y227.069743 Z-0.125000
G01 X117.859096 Y226.988119 Z-0.125000
G01 X118.390379 Y227.076304 Z-0.125000
G01 X118.874433 Y227.314138 Z-0.125000
G01 X119.676093 Y227.989327 Z-0.125000
G01 X121.601729 Y229.877339 Z-0.125000
G01 X122.242231 Y230.265694 Z-0.125000
G01 X122.853233 Y230.393858 Z-0.125000
G01 X123.450926 Y230.271250 Z-0.125000
G01 X124.163739 Y229.820824 Z-0.125000
G01 X124.862476 Y229.128331 Z-0.125000
G01 X126.973689 Y226.681150 Z-0.125000
G01 X127.634856 Y226.147882 Z-0.125000
G01 X128.285677 Y225.895735 Z-0.125000
G01 X128.626592 Y226.029773 Z-0.125000
G01 X129.866270 Y227.103054 Z-0.125000
G01 X130.610065 Y227.544246 Z-0.125000
G01 X131.911734 Y228.507116 Z-0.125000
G01 X132.841505 Y228.976248 Z-0.125000
G01 X134.050173 Y229.730574 Z-0.125000
G01 X136.374588 Y230.742631 Z-0.125000
G01 X137.516872 Y231.122413 Z-0.125000
G01 X138.685694 Y231.357654 Z-0.125000
G01 X140.067055 Y231.497486 Z-0.125000
G01 X141.660930 Y231.532649 Z-0.125000
G01 X143.148548 Y231.465789 Z-0.125000
G01 X144.636166 Y231.288227 Z-0.125000
G01 X145.911271 Y231.022348 Z-0.125000
G01 X147.186349 Y230.629918 Z-0.125000
G01 X149.391225 Y229.639584 Z-0.125000
G01 X153.017282 Y227.530223 Z-0.125000
G01 X154.411926 Y226.802990 Z-0.125000
G01 X155.899543 Y226.213473 Z-0.125000
G01 X157.387161 Y225.861815 Z-0.125000
G01 X158.662240 Y225.748733 Z-0.125000
G01 X160.043601 Y225.789346 Z-0.125000
G01 X165.675303 Y226.590821 Z-0.125000
G01 X168.544256 Y226.754836 Z-0.125000
G01 X170.988209 Y226.618655 Z-0.125000
G01 X175.982346 Y225.889544 Z-0.125000
G01 X178.107503 Y225.744499 Z-0.125000
G01 X180.020147 Y225.908514 Z-0.125000
G01 X181.826534 Y226.373995 Z-0.125000
G01 X183.606358 Y227.085723 Z-0.125000
G01 X187.139467 Y228.763180 Z-0.125000
G00 Z3.000000

(End cutting path id: polyline7350-2)


(Start cutting path id: polyline7352-7)
(Change tool to Default tool)

G00 Z3.000000
G00 X4.162780 Y226.563066

G00 Z4.875000 (Fast pre-penetrate)
G01 Z-0.125000 F400.0(Penetrate)
G01 X6.075424 Y226.538539 Z-0.125000 F800.000000
G01 X11.707100 Y227.025875 Z-0.125000
G01 X15.744928 Y227.145096 Z-0.125000
G01 X19.251446 Y227.045004 Z-0.125000
G01 X24.564352 Y226.566955 Z-0.125000
G01 X26.370740 Y226.531554 Z-0.125000
G01 X28.070871 Y226.754069 Z-0.125000
G01 X31.577389 Y227.827032 Z-0.125000
G01 X32.321211 Y227.976945 Z-0.125000
G01 X33.065007 Y228.023776 Z-0.125000
G01 X33.915086 Y227.923102 Z-0.125000
G01 X34.844831 Y227.619678 Z-0.125000
G01 X37.355194 Y226.247472 Z-0.125000
G01 X38.191964 Y225.876500 Z-0.125000
G01 X38.909222 Y225.697165 Z-0.125000
G01 X39.546761 Y225.672242 Z-0.125000
G01 X40.396840 Y225.847978 Z-0.125000
G01 X41.260175 Y226.250038 Z-0.125000
G01 X43.863512 Y228.086614 Z-0.125000
G01 X44.793257 Y228.630015 Z-0.125000
G01 X45.709746 Y228.966353 Z-0.125000
G01 X46.666081 Y229.072054 Z-0.125000
G01 X47.516134 Y228.963072 Z-0.125000
G01 X48.419341 Y228.674835 Z-0.125000
G01 X51.859449 Y226.965100 Z-0.125000
G01 X53.466605 Y226.337430 Z-0.125000
G01 X55.060480 Y225.976777 Z-0.125000
G01 X56.760611 Y225.886660 Z-0.125000
G01 X58.248229 Y226.060491 Z-0.125000
G01 X59.629564 Y226.449692 Z-0.125000
G01 X60.971079 Y227.040929 Z-0.125000
G01 X64.039289 Y228.718571 Z-0.125000
G01 X64.836240 Y228.988790 Z-0.125000
G01 X65.580035 Y229.071895 Z-0.125000
G01 X66.323831 Y228.953044 Z-0.125000
G01 X67.107499 Y228.596598 Z-0.125000
G01 X67.882304 Y228.039730 Z-0.125000
G01 X70.031089 Y226.193973 Z-0.125000
G01 X70.680428 Y225.834378 Z-0.125000
G01 X71.317994 Y225.673379 Z-0.125000
G01 X71.849277 Y225.700208 Z-0.125000
G01 X72.486816 Y225.918489 Z-0.125000
G01 X75.010461 Y227.615419 Z-0.125000
G01 X75.674565 Y227.906037 Z-0.125000
G01 X76.312130 Y228.021236 Z-0.125000
G01 X77.268439 Y227.900295 Z-0.125000
G01 X79.924905 Y226.794206 Z-0.125000
G01 X81.306267 Y226.526527 Z-0.125000
G01 X82.475089 Y226.578994 Z-0.125000
G01 X85.556581 Y227.141233 Z-0.125000
G01 X87.469225 Y227.329775 Z-0.125000
G01 X98.413833 Y227.366261 Z-0.125000
G01 X101.389069 Y227.227302 Z-0.125000
G01 X105.108101 Y226.607754 Z-0.125000
G01 X106.276949 Y226.518907 Z-0.125000
G01 X107.020745 Y226.567299 Z-0.125000
G01 X107.764567 Y226.716630 Z-0.125000
G01 X110.527263 Y227.812004 Z-0.125000
G01 X111.164829 Y227.980252 Z-0.125000
G01 X111.696111 Y228.023432 Z-0.125000
G01 X112.333651 Y227.936887 Z-0.125000
G01 X112.944652 Y227.706197 Z-0.125000
G01 X115.454989 Y225.988471 Z-0.125000
G01 X116.052709 Y225.736694 Z-0.125000
G01 X116.583991 Y225.666685 Z-0.125000
G01 X117.115274 Y225.767941 Z-0.125000
G01 X117.686429 Y226.065094 Z-0.125000
G01 X118.188476 Y226.477791 Z-0.125000
G01 X120.196766 Y228.502354 Z-0.125000
G01 X120.847588 Y228.925554 Z-0.125000
G01 X121.471871 Y229.071472 Z-0.125000
G01 X122.056282 Y228.952859 Z-0.125000
G01 X122.676121 Y228.570060 Z-0.125000
G01 X123.374858 Y227.878520 Z-0.125000
G01 X125.568701 Y225.250602 Z-0.125000
G01 X126.147238 Y224.782714 Z-0.125000
G01 X126.784777 Y224.557421 Z-0.125000
G01 X127.114183 Y224.713049 Z-0.125000
G01 X128.213367 Y225.765930 Z-0.125000
G01 X129.783614 Y227.040242 Z-0.125000
G01 X130.610065 Y227.544246 Z-0.125000
G01 X131.539836 Y228.270235 Z-0.125000
G01 X132.841505 Y228.976248 Z-0.125000
G01 X133.771250 Y229.584948 Z-0.125000
G01 X134.754149 Y230.028786 Z-0.125000
G01 X135.922998 Y230.334247 Z-0.125000
G01 X137.198076 Y230.475323 Z-0.125000
G01 X143.148548 Y230.508157 Z-0.125000
G01 X144.636166 Y230.453151 Z-0.125000
G01 X145.911271 Y230.308821 Z-0.125000
G01 X147.080092 Y230.057414 Z-0.125000
G01 X148.248941 Y229.667445 Z-0.125000
G01 X150.227995 Y228.686636 Z-0.125000
G01 X153.761078 Y226.405189 Z-0.125000
G01 X155.155721 Y225.602577 Z-0.125000
G01 X156.643339 Y224.956359 Z-0.125000
G01 X158.130957 Y224.568560 Z-0.125000
G01 X159.299805 Y224.437935 Z-0.125000
G01 X160.681167 Y224.442566 Z-0.125000
G01 X165.994073 Y225.038618 Z-0.125000
G01 X168.544256 Y225.143631 Z-0.125000
G01 X170.563183 Y225.047746 Z-0.125000
G01 X175.132267 Y224.515511 Z-0.125000
G01 X177.044911 Y224.422537 Z-0.125000
G01 X179.063838 Y224.616211 Z-0.125000
G01 X180.976482 Y225.150457 Z-0.125000
G01 X182.676613 Y225.880389 Z-0.125000
G01 X187.139467 Y228.109580 Z-0.125000
G00 Z3.000000

(End cutting path id: polyline7352-7)


(Start cutting path id: polyline7354-3)
(Change tool to Default tool)

G00 Z3.000000
G00 X4.162780 Y225.210782

G00 Z4.875000 (Fast pre-penetrate)
G01 Z-0.125000 F400.0(Penetrate)
G01 X10.325765 Y225.809904 Z-0.125000 F800.000000
G01 X15.213645 Y225.952091 Z-0.125000
G01 X19.676472 Y225.828002 Z-0.125000
G01 X25.095661 Y225.254306 Z-0.125000
G01 X26.902049 Y225.211656 Z-0.125000
G01 X28.708436 Y225.501268 Z-0.125000
G01 X32.002442 Y226.568199 Z-0.125000
G01 X33.171264 Y226.700596 Z-0.125000
G01 X34.021342 Y226.590318 Z-0.125000
G01 X34.844831 Y226.308643 Z-0.125000
G01 X37.355194 Y224.886060 Z-0.125000
G01 X38.059144 Y224.564459 Z-0.125000
G01 X38.696709 Y224.387797 Z-0.125000
G01 X39.334248 Y224.346205 Z-0.125000
G01 X40.078071 Y224.482994 Z-0.125000
G01 X40.888277 Y224.845711 Z-0.125000
G01 X43.501933 Y226.764811 Z-0.125000
G01 X44.421359 Y227.327261 Z-0.125000
G01 X45.284720 Y227.653810 Z-0.125000
G01 X46.134772 Y227.748663 Z-0.125000
G01 X46.984851 Y227.622430 Z-0.125000
G01 X47.954442 Y227.254183 Z-0.125000
G01 X51.394550 Y225.240601 Z-0.125000
G01 X53.041553 Y224.501700 Z-0.125000
G01 X54.954223 Y224.024710 Z-0.125000
G01 X56.016789 Y223.918400 Z-0.125000
G01 X57.079380 Y223.912818 Z-0.125000
G01 X58.779511 Y224.121653 Z-0.125000
G01 X60.413232 Y224.628382 Z-0.125000
G01 X61.807876 Y225.336936 Z-0.125000
G01 X64.876086 Y227.309878 Z-0.125000
G01 X65.686292 Y227.640501 Z-0.125000
G01 X66.430114 Y227.749721 Z-0.125000
G01 X67.173910 Y227.632140 Z-0.125000
G01 X67.851295 Y227.320514 Z-0.125000
G01 X68.626100 Y226.757640 Z-0.125000
G01 X70.774884 Y224.868835 Z-0.125000
G01 X71.424250 Y224.506383 Z-0.125000
G01 X72.061790 Y224.348850 Z-0.125000
G01 X72.593072 Y224.381659 Z-0.125000
G01 X73.230638 Y224.607321 Z-0.125000
G01 X75.754257 Y226.297478 Z-0.125000
G01 X76.418387 Y226.582804 Z-0.125000
G01 X77.055926 Y226.697607 Z-0.125000
G01 X78.118518 Y226.557139 Z-0.125000
G01 X80.774958 Y225.483938 Z-0.125000
G01 X81.518780 Y225.292962 Z-0.125000
G01 X82.262576 Y225.204088 Z-0.125000
G01 X83.643937 Y225.267932 Z-0.125000
G01 X86.619173 Y225.752992 Z-0.125000
G01 X88.319304 Y225.933517 Z-0.125000
G01 X93.738466 Y226.041229 Z-0.125000
G01 X98.838859 Y225.922484 Z-0.125000
G01 X100.538990 Y225.739816 Z-0.125000
G01 X103.514226 Y225.271504 Z-0.125000
G01 X104.683074 Y225.195886 Z-0.125000
G01 X105.533127 Y225.253777 Z-0.125000
G01 X106.276949 Y225.401547 Z-0.125000
G01 X109.145902 Y226.494830 Z-0.125000
G01 X110.314750 Y226.701311 Z-0.125000
G01 X110.952289 Y226.621142 Z-0.125000
G01 X111.550009 Y226.408417 Z-0.125000
G01 X112.262822 Y225.999134 Z-0.125000
G01 X114.153320 Y224.662910 Z-0.125000
G01 X114.777604 Y224.404810 Z-0.125000
G01 X115.308886 Y224.345570 Z-0.125000
G01 X115.919861 Y224.482200 Z-0.125000
G01 X116.552109 Y224.859284 Z-0.125000
G01 X118.560400 Y226.883794 Z-0.125000
G01 X119.205030 Y227.416796 Z-0.125000
G01 X119.665484 Y227.654048 Z-0.125000
G01 X120.196766 Y227.749430 Z-0.125000
G01 X120.834306 Y227.578933 Z-0.125000
G01 X121.436444 Y227.152028 Z-0.125000
G01 X122.022468 Y226.541582 Z-0.125000
G01 X123.990199 Y224.077891 Z-0.125000
G01 X124.585246 Y223.533115 Z-0.125000
G01 X125.031518 Y223.219557 Z-0.125000
G01 X125.310441 Y223.123910 Z-0.125000
G01 X125.626565 Y223.272209 Z-0.125000
G01 X127.056319 Y224.729083 Z-0.125000
G01 X129.783614 Y227.040242 Z-0.125000
G01 X130.610065 Y227.544246 Z-0.125000
G01 X131.818760 Y228.453723 Z-0.125000
G01 X132.947762 Y228.968020 Z-0.125000
G01 X133.797814 Y229.145528 Z-0.125000
G01 X134.754149 Y229.186195 Z-0.125000
G01 X138.473181 Y228.802232 Z-0.125000
G01 X140.173312 Y228.744765 Z-0.125000
G01 X145.911271 Y229.188126 Z-0.125000
G01 X147.717658 Y228.995060 Z-0.125000
G01 X148.567710 Y228.761910 Z-0.125000
G01 X149.484199 Y228.399881 Z-0.125000
G01 X151.157766 Y227.470824 Z-0.125000
G01 X154.329270 Y225.262191 Z-0.125000
G01 X155.713594 Y224.404810 Z-0.125000
G01 X157.201186 Y223.708374 Z-0.125000
G01 X158.662240 Y223.289698 Z-0.125000
G01 X159.831088 Y223.131874 Z-0.125000
G01 X161.212449 Y223.105628 Z-0.125000
G01 X166.100329 Y223.523087 Z-0.125000
G01 X168.437999 Y223.596032 Z-0.125000
G01 X170.456900 Y223.509408 Z-0.125000
G01 X174.494728 Y223.143516 Z-0.125000
G01 X175.982346 Y223.100204 Z-0.125000
G01 X178.107503 Y223.310045 Z-0.125000
G01 X180.126403 Y223.897154 Z-0.125000
G01 X181.653867 Y224.577477 Z-0.125000
G01 X185.372899 Y226.569310 Z-0.125000
G01 X187.139467 Y227.381607 Z-0.125000
G00 Z3.000000

(End cutting path id: polyline7354-3)


(Start cutting path id: polyline7356-9)
(Change tool to Default tool)

G00 Z3.000000
G00 X4.162780 Y224.046379

G00 Z4.875000 (Fast pre-penetrate)
G01 Z-0.125000 F400.0(Penetrate)
G01 X7.244273 Y224.423754 Z-0.125000 F800.000000
G01 X9.475686 Y224.598881 Z-0.125000
G01 X16.169954 Y224.696909 Z-0.125000
G01 X20.526551 Y224.551177 Z-0.125000
G01 X25.520687 Y223.941419 Z-0.125000
G01 X27.114562 Y223.879401 Z-0.125000
G01 X28.708436 Y224.103741 Z-0.125000
G01 X31.896185 Y225.181969 Z-0.125000
G01 X32.639981 Y225.339899 Z-0.125000
G01 X33.277547 Y225.376941 Z-0.125000
G01 X34.021342 Y225.281744 Z-0.125000
G01 X34.844831 Y224.999222 Z-0.125000
G01 X37.952887 Y223.250460 Z-0.125000
G01 X38.590453 Y223.064644 Z-0.125000
G01 X39.227992 Y223.024507 Z-0.125000
G01 X39.958532 Y223.173758 Z-0.125000
G01 X40.795302 Y223.582830 Z-0.125000
G01 X43.253993 Y225.484414 Z-0.125000
G01 X44.142436 Y226.043161 Z-0.125000
G01 X44.965950 Y226.350923 Z-0.125000
G01 X45.709746 Y226.425113 Z-0.125000
G01 X46.559825 Y226.276787 Z-0.125000
G01 X47.396595 Y225.923648 Z-0.125000
G01 X50.929678 Y223.594921 Z-0.125000
G01 X52.722783 Y222.731216 Z-0.125000
G01 X53.785375 Y222.415384 Z-0.125000
G01 X54.847967 Y222.221471 Z-0.125000
G01 X56.123045 Y222.112595 Z-0.125000
G01 X57.398150 Y222.108705 Z-0.125000
G01 X59.417051 Y222.334421 Z-0.125000
G01 X61.157028 Y222.877240 Z-0.125000
G01 X62.737620 Y223.758116 Z-0.125000
G01 X65.712856 Y225.920976 Z-0.125000
G01 X66.549653 Y226.306050 Z-0.125000
G01 X67.280166 Y226.426991 Z-0.125000
G01 X68.023989 Y226.302796 Z-0.125000
G01 X68.688092 Y225.978417 Z-0.125000
G01 X69.369922 Y225.469148 Z-0.125000
G01 X71.518680 Y223.548593 Z-0.125000
G01 X72.168046 Y223.182965 Z-0.125000
G01 X72.805585 Y223.025591 Z-0.125000
G01 X73.336895 Y223.059511 Z-0.125000
G01 X73.974434 Y223.285359 Z-0.125000
G01 X76.498079 Y224.958820 Z-0.125000
G01 X77.162183 Y225.246316 Z-0.125000
G01 X77.799722 Y225.370749 Z-0.125000
G01 X78.862314 Y225.260868 Z-0.125000
G01 X81.731293 Y224.170045 Z-0.125000
G01 X83.325167 Y223.883793 Z-0.125000
G01 X84.812785 Y223.932714 Z-0.125000
G01 X89.488126 Y224.499742 Z-0.125000
G01 X93.313440 Y224.618302 Z-0.125000
G01 X97.244985 Y224.483999 Z-0.125000
G01 X101.601582 Y223.957162 Z-0.125000
G01 X102.982943 Y223.872416 Z-0.125000
G01 X103.939252 Y223.935043 Z-0.125000
G01 X104.789331 Y224.100222 Z-0.125000
G01 X107.764567 Y225.185568 Z-0.125000
G01 X108.933389 Y225.378766 Z-0.125000
G01 X109.570954 Y225.302804 Z-0.125000
G01 X110.248340 Y225.063621 Z-0.125000
G01 X110.899161 Y224.696618 Z-0.125000
G01 X112.851678 Y223.346398 Z-0.125000
G01 X113.409524 Y223.103776 Z-0.125000
G01 X114.033782 Y223.021702 Z-0.125000
G01 X114.618219 Y223.151692 Z-0.125000
G01 X115.320687 Y223.569124 Z-0.125000
G01 X117.221530 Y225.493489 Z-0.125000
G01 X117.882697 Y226.062793 Z-0.125000
G01 X118.430225 Y226.347854 Z-0.125000
G01 X118.921661 Y226.424583 Z-0.125000
G01 X119.535600 Y226.262447 Z-0.125000
G01 X120.196766 Y225.777625 Z-0.125000
G01 X122.725704 Y222.659647 Z-0.125000
G01 X123.450926 Y222.026023 Z-0.125000
G01 X123.915798 Y221.833195 Z-0.125000
G01 X124.194721 Y221.928419 Z-0.125000
G01 X124.727221 Y222.360694 Z-0.125000
G01 X126.593510 Y224.293923 Z-0.125000
G01 X128.378652 Y225.906292 Z-0.125000
G01 X130.052218 Y227.231879 Z-0.125000
G01 X130.610065 Y227.544246 Z-0.125000
G01 X131.247631 Y227.766099 Z-0.125000
G01 X132.097683 Y227.865688 Z-0.125000
G01 X132.947762 Y227.787900 Z-0.125000
G01 X136.985563 Y226.651437 Z-0.125000
G01 X138.154411 Y226.454984 Z-0.125000
G01 X139.323260 Y226.394527 Z-0.125000
G01 X141.235904 Y226.583174 Z-0.125000
G01 X145.486218 Y227.651825 Z-0.125000
G01 X146.548810 Y227.823513 Z-0.125000
G01 X147.398889 Y227.865264 Z-0.125000
G01 X148.886480 Y227.672939 Z-0.125000
G01 X150.413944 Y227.090592 Z-0.125000
G01 X151.808588 Y226.259960 Z-0.125000
G01 X154.825151 Y224.052279 Z-0.125000
G01 X156.178467 Y223.173308 Z-0.125000
G01 X157.599674 Y222.469332 Z-0.125000
G01 X159.087292 Y222.008799 Z-0.125000
G01 X160.256114 Y221.829650 Z-0.125000
G01 X161.637476 Y221.776680 Z-0.125000
G01 X166.312842 Y222.062986 Z-0.125000
G01 X168.437999 Y222.102276 Z-0.125000
G01 X174.919754 Y221.777448 Z-0.125000
G01 X177.151194 Y221.992157 Z-0.125000
G01 X178.213759 Y222.249808 Z-0.125000
G01 X179.236505 Y222.601544 Z-0.125000
G01 X181.003046 Y223.421381 Z-0.125000
G01 X185.093976 Y225.687058 Z-0.125000
G01 X187.139467 Y226.570818 Z-0.125000
G00 Z3.000000

(End cutting path id: polyline7356-9)


(Start cutting path id: polyline7358-7)
(Change tool to Default tool)

G00 Z3.000000
G00 X4.162780 Y222.967357

G00 Z4.875000 (Fast pre-penetrate)
G01 Z-0.125000 F400.0(Penetrate)
G01 X6.606707 Y223.235750 Z-0.125000 F800.000000
G01 X8.944404 Y223.361030 Z-0.125000
G01 X18.507650 Y223.381667 Z-0.125000
G01 X21.482860 Y223.235750 Z-0.125000
G01 X25.839457 Y222.632818 Z-0.125000
G01 X27.433332 Y222.556115 Z-0.125000
G01 X28.920949 Y222.769607 Z-0.125000
G01 X32.108698 Y223.883555 Z-0.125000
G01 X33.383803 Y224.052994 Z-0.125000
G01 X34.127599 Y223.946340 Z-0.125000
G01 X34.937831 Y223.646462 Z-0.125000
G01 X37.846630 Y221.942891 Z-0.125000
G01 X38.484196 Y221.744348 Z-0.125000
G01 X39.121735 Y221.701777 Z-0.125000
G01 X39.865531 Y221.867697 Z-0.125000
G01 X40.692009 Y222.302116 Z-0.125000
G01 X42.840767 Y224.045797 Z-0.125000
G01 X43.770538 Y224.681537 Z-0.125000
G01 X44.540898 Y225.005678 Z-0.125000
G01 X45.390977 Y225.099208 Z-0.125000
G01 X46.134772 Y224.952814 Z-0.125000
G01 X47.024697 Y224.537233 Z-0.125000
G01 X50.371831 Y222.095476 Z-0.125000
G01 X51.301576 Y221.545144 Z-0.125000
G01 X52.191501 Y221.145332 Z-0.125000
G01 X53.254092 Y220.823361 Z-0.125000
G01 X54.422914 Y220.625824 Z-0.125000
G01 X55.804276 Y220.527557 Z-0.125000
G01 X57.716920 Y220.513693 Z-0.125000
G01 X60.160873 Y220.710808 Z-0.125000
G01 X61.117182 Y220.933745 Z-0.125000
G01 X61.993824 Y221.258442 Z-0.125000
G01 X63.574417 Y222.189906 Z-0.125000
G01 X66.559971 Y224.562686 Z-0.125000
G01 X67.293448 Y224.941358 Z-0.125000
G01 X68.023989 Y225.101563 Z-0.125000
G01 X68.767784 Y225.001021 Z-0.125000
G01 X69.431888 Y224.684633 Z-0.125000
G01 X70.113718 Y224.173961 Z-0.125000
G01 X72.262502 Y222.232716 Z-0.125000
G01 X72.964997 Y221.842059 Z-0.125000
G01 X73.549408 Y221.703417 Z-0.125000
G01 X74.080690 Y221.733977 Z-0.125000
G01 X74.718256 Y221.953237 Z-0.125000
G01 X77.334849 Y223.649399 Z-0.125000
G01 X78.012261 Y223.928666 Z-0.125000
G01 X78.649801 Y224.047676 Z-0.125000
G01 X79.818649 Y223.922739 Z-0.125000
G01 X82.793858 Y222.857158 Z-0.125000
G01 X84.493989 Y222.567281 Z-0.125000
G01 X86.087864 Y222.587945 Z-0.125000
G01 X90.550717 Y222.987968 Z-0.125000
G01 X93.100927 Y223.058214 Z-0.125000
G01 X95.863623 Y222.967542 Z-0.125000
G01 X101.070299 Y222.549951 Z-0.125000
G01 X102.132865 Y222.603370 Z-0.125000
G01 X103.089200 Y222.764448 Z-0.125000
G01 X106.383205 Y223.882973 Z-0.125000
G01 X107.552027 Y224.055375 Z-0.125000
G01 X108.295849 Y223.956421 Z-0.125000
G01 X108.933389 Y223.723905 Z-0.125000
G01 X111.550009 Y222.031103 Z-0.125000
G01 X112.121138 Y221.786761 Z-0.125000
G01 X112.652447 Y221.696591 Z-0.125000
G01 X113.289986 Y221.802900 Z-0.125000
G01 X113.874397 Y222.105954 Z-0.125000
G01 X114.543818 Y222.659911 Z-0.125000
G01 X116.403360 Y224.557977 Z-0.125000
G01 X117.035582 Y224.965620 Z-0.125000
G01 X117.646583 Y225.101959 Z-0.125000
G01 X118.244276 Y224.959984 Z-0.125000
G01 X118.857923 Y224.537763 Z-0.125000
G01 X119.576928 Y223.752427 Z-0.125000
G01 X121.549156 Y221.215870 Z-0.125000
G01 X122.262895 Y220.646435 Z-0.125000
G01 X122.853233 Y220.468926 Z-0.125000
G01 X123.065746 Y220.502501 Z-0.125000
G01 X123.295959 Y220.657574 Z-0.125000
G01 X123.915798 Y221.495270 Z-0.125000
G01 X125.403416 Y223.116264 Z-0.125000
G01 X128.130711 Y225.702510 Z-0.125000
G01 X128.843524 Y226.201249 Z-0.125000
G01 X129.547500 Y226.470938 Z-0.125000
G01 X130.397552 Y226.532877 Z-0.125000
G01 X131.247631 Y226.360951 Z-0.125000
G01 X132.190658 Y225.984926 Z-0.125000
G01 X134.608047 Y224.744270 Z-0.125000
G01 X135.816741 Y224.233069 Z-0.125000
G01 X137.304333 Y223.836565 Z-0.125000
G01 X138.685694 Y223.726366 Z-0.125000
G01 X139.854542 Y223.824553 Z-0.125000
G01 X141.129647 Y224.113954 Z-0.125000
G01 X142.511009 Y224.602982 Z-0.125000
G01 X146.123784 Y226.136955 Z-0.125000
G01 X147.292606 Y226.447814 Z-0.125000
G01 X148.355197 Y226.542640 Z-0.125000
G01 X149.630302 Y226.367698 Z-0.125000
G01 X150.971817 Y225.836415 Z-0.125000
G01 X152.345797 Y224.985464 Z-0.125000
G01 X155.155721 Y222.851840 Z-0.125000
G01 X156.457390 Y221.969720 Z-0.125000
G01 X157.945008 Y221.200604 Z-0.125000
G01 X159.406062 Y220.726841 Z-0.125000
G01 X160.574884 Y220.529277 Z-0.125000
G01 X161.849989 Y220.454744 Z-0.125000
G01 X167.800460 Y220.659796 Z-0.125000
G01 X173.857189 Y220.454533 Z-0.125000
G01 X175.132267 Y220.518720 Z-0.125000
G01 X176.194859 Y220.664955 Z-0.125000
G01 X177.257450 Y220.913558 Z-0.125000
G01 X178.399708 Y221.303870 Z-0.125000
G01 X180.259224 Y222.188186 Z-0.125000
G01 X184.629103 Y224.670345 Z-0.125000
G01 X185.864362 Y225.228139 Z-0.125000
G01 X187.139467 Y225.674967 Z-0.125000
G00 Z3.000000

(End cutting path id: polyline7358-7)


(Start cutting path id: polyline7360-7)
(Change tool to Default tool)

G00 Z3.000000
G00 X4.162780 Y221.871745

G00 Z4.875000 (Fast pre-penetrate)
G01 Z-0.125000 F400.0(Penetrate)
G01 X7.988069 Y222.069256 Z-0.125000 F800.000000
G01 X19.995242 Y222.055180 Z-0.125000
G01 X22.332939 Y221.903098 Z-0.125000
G01 X26.158227 Y221.316015 Z-0.125000
G01 X27.645845 Y221.230343 Z-0.125000
G01 X29.133463 Y221.444761 Z-0.125000
G01 X32.214955 Y222.559925 Z-0.125000
G01 X32.852494 Y222.697191 Z-0.125000
G01 X33.490060 Y222.728623 Z-0.125000
G01 X34.233855 Y222.607735 Z-0.125000
G01 X34.937831 Y222.336379 Z-0.125000
G01 X37.169245 Y220.940677 Z-0.125000
G01 X37.846630 Y220.595555 Z-0.125000
G01 X38.377940 Y220.426619 Z-0.125000
G01 X39.015479 Y220.378359 Z-0.125000
G01 X39.759275 Y220.550867 Z-0.125000
G01 X40.516379 Y220.961262 Z-0.125000
G01 X42.758138 Y222.835753 Z-0.125000
G01 X43.584589 Y223.399818 Z-0.125000
G01 X44.328385 Y223.704273 Z-0.125000
G01 X45.072207 Y223.776319 Z-0.125000
G01 X45.816003 Y223.614606 Z-0.125000
G01 X46.559825 Y223.248767 Z-0.125000
G01 X50.113571 Y220.478636 Z-0.125000
G01 X51.115627 Y219.892691 Z-0.125000
G01 X52.085244 Y219.504441 Z-0.125000
G01 X53.041553 Y219.277456 Z-0.125000
G01 X54.210401 Y219.154478 Z-0.125000
G01 X59.629564 Y219.134554 Z-0.125000
G01 X61.542234 Y219.316376 Z-0.125000
G01 X62.392286 Y219.550955 Z-0.125000
G01 X63.109544 Y219.856416 Z-0.125000
G01 X64.493843 Y220.752400 Z-0.125000
G01 X67.303794 Y223.161587 Z-0.125000
G01 X68.037271 Y223.583015 Z-0.125000
G01 X68.767784 Y223.774388 Z-0.125000
G01 X69.511580 Y223.692182 Z-0.125000
G01 X70.175710 Y223.382091 Z-0.125000
G01 X70.857540 Y222.871340 Z-0.125000
G01 X73.006298 Y220.920252 Z-0.125000
G01 X73.708792 Y220.526129 Z-0.125000
G01 X74.293203 Y220.382381 Z-0.125000
G01 X74.824512 Y220.405664 Z-0.125000
G01 X75.462052 Y220.612383 Z-0.125000
G01 X78.078672 Y222.270815 Z-0.125000
G01 X78.756057 Y222.564264 Z-0.125000
G01 X79.499853 Y222.719813 Z-0.125000
G01 X80.137418 Y222.716056 Z-0.125000
G01 X80.774958 Y222.605407 Z-0.125000
G01 X83.856450 Y221.583879 Z-0.125000
G01 X85.769094 Y221.261114 Z-0.125000
G01 X87.362969 Y221.235370 Z-0.125000
G01 X92.994671 Y221.447222 Z-0.125000
G01 X98.945116 Y221.226824 Z-0.125000
G01 X100.220221 Y221.281804 Z-0.125000
G01 X101.389069 Y221.457302 Z-0.125000
G01 X102.451634 Y221.736067 Z-0.125000
G01 X104.895587 Y222.557967 Z-0.125000
G01 X106.064436 Y222.732566 Z-0.125000
G01 X106.808232 Y222.657424 Z-0.125000
G01 X107.552027 Y222.411944 Z-0.125000
G01 X108.388824 Y221.953342 Z-0.125000
G01 X110.248340 Y220.718322 Z-0.125000
G01 X110.846033 Y220.466862 Z-0.125000
G01 X111.377342 Y220.375581 Z-0.125000
G01 X112.014881 Y220.467312 Z-0.125000
G01 X112.665729 Y220.798808 Z-0.125000
G01 X113.337214 Y221.355940 Z-0.125000
G01 X115.320687 Y223.328909 Z-0.125000
G01 X115.946426 Y223.686255 Z-0.125000
G01 X116.477735 Y223.780473 Z-0.125000
G01 X117.009017 Y223.651568 Z-0.125000
G01 X117.634756 Y223.229029 Z-0.125000
G01 X118.303437 Y222.510342 Z-0.125000
G01 X120.279422 Y219.942141 Z-0.125000
G01 X120.940589 Y219.379717 Z-0.125000
G01 X121.591410 Y219.121299 Z-0.125000
G01 X121.932325 Y219.240732 Z-0.125000
G01 X122.495807 Y219.741217 Z-0.125000
G01 X124.064573 Y221.664603 Z-0.125000
G01 X126.667884 Y224.381209 Z-0.125000
G01 X127.355906 Y224.894103 Z-0.125000
G01 X128.059882 Y225.168820 Z-0.125000
G01 X128.909934 Y225.188240 Z-0.125000
G01 X129.959244 Y224.831820 Z-0.125000
G01 X130.889015 Y224.280191 Z-0.125000
G01 X133.492327 Y222.464543 Z-0.125000
G01 X135.072919 Y221.627958 Z-0.125000
G01 X136.560537 Y221.163033 Z-0.125000
G01 X138.048155 Y221.018650 Z-0.125000
G01 X139.535773 Y221.179225 Z-0.125000
G01 X141.023391 Y221.623354 Z-0.125000
G01 X142.603983 Y222.362520 Z-0.125000
G01 X146.601938 Y224.636796 Z-0.125000
G01 X147.823915 Y225.073914 Z-0.125000
G01 X148.992736 Y225.219752 Z-0.125000
G01 X150.161585 Y225.054202 Z-0.125000
G01 X151.436690 Y224.526147 Z-0.125000
G01 X152.676367 Y223.733616 Z-0.125000
G01 X155.403662 Y221.612004 Z-0.125000
G01 X156.643339 Y220.746579 Z-0.125000
G01 X158.037983 Y219.989025 Z-0.125000
G01 X159.512318 Y219.469834 Z-0.125000
G01 X160.787423 Y219.230916 Z-0.125000
G01 X162.168758 Y219.135480 Z-0.125000
G01 X167.587947 Y219.252347 Z-0.125000
G01 X172.900853 Y219.132305 Z-0.125000
G01 X174.175958 Y219.194033 Z-0.125000
G01 X175.344780 Y219.349237 Z-0.125000
G01 X176.407372 Y219.594558 Z-0.125000
G01 X177.469964 Y219.950264 Z-0.125000
G01 X179.329479 Y220.825637 Z-0.125000
G01 X184.164231 Y223.619236 Z-0.125000
G01 X185.651849 Y224.253706 Z-0.125000
G01 X187.139467 Y224.694290 Z-0.125000
G00 Z3.000000

(End cutting path id: polyline7360-7)


(Start cutting path id: polyline7362-9)
(Change tool to Default tool)

G00 Z3.000000
G00 X4.162780 Y220.696864

G00 Z4.875000 (Fast pre-penetrate)
G01 Z-0.125000 F400.0(Penetrate)
G01 X20.845321 Y220.732715 Z-0.125000 F800.000000
G01 X22.864221 Y220.584972 Z-0.125000
G01 X26.370740 Y220.006461 Z-0.125000
G01 X27.858358 Y219.906184 Z-0.125000
G01 X28.708436 Y219.987544 Z-0.125000
G01 X29.558489 Y220.188283 Z-0.125000
G01 X32.427468 Y221.268945 Z-0.125000
G01 X33.596316 Y221.403486 Z-0.125000
G01 X34.233855 Y221.296700 Z-0.125000
G01 X34.937831 Y221.025370 Z-0.125000
G01 X37.740374 Y219.296082 Z-0.125000
G01 X38.377940 Y219.090316 Z-0.125000
G01 X38.909222 Y219.054518 Z-0.125000
G01 X39.653018 Y219.227397 Z-0.125000
G01 X40.330430 Y219.596966 Z-0.125000
G01 X42.592826 Y221.536307 Z-0.125000
G01 X43.398640 Y222.098096 Z-0.125000
G01 X44.115872 Y222.390619 Z-0.125000
G01 X44.753411 Y222.454806 Z-0.125000
G01 X45.390977 Y222.332490 Z-0.125000
G01 X46.187901 Y221.943420 Z-0.125000
G01 X46.973051 Y221.366365 Z-0.125000
G01 X49.720983 Y219.022715 Z-0.125000
G01 X50.743729 Y218.408565 Z-0.125000
G01 X51.766474 Y218.023809 Z-0.125000
G01 X53.360349 Y217.809655 Z-0.125000
G01 X57.398150 Y217.976104 Z-0.125000
G01 X61.329695 Y217.807300 Z-0.125000
G01 X62.817313 Y217.976686 Z-0.125000
G01 X63.561135 Y218.216954 Z-0.125000
G01 X64.225238 Y218.542497 Z-0.125000
G01 X65.402950 Y219.380273 Z-0.125000
G01 X68.047589 Y221.782237 Z-0.125000
G01 X68.781066 Y222.235070 Z-0.125000
G01 X69.511580 Y222.447769 Z-0.125000
G01 X70.255402 Y222.376966 Z-0.125000
G01 X70.919505 Y222.070473 Z-0.125000
G01 X71.601336 Y221.560146 Z-0.125000
G01 X73.750120 Y219.609957 Z-0.125000
G01 X74.452588 Y219.213109 Z-0.125000
G01 X75.037026 Y219.062720 Z-0.125000
G01 X75.674565 Y219.094153 Z-0.125000
G01 X76.312130 Y219.310132 Z-0.125000
G01 X79.008416 Y220.968803 Z-0.125000
G01 X79.712392 Y221.251536 Z-0.125000
G01 X80.456188 Y221.395496 Z-0.125000
G01 X81.731293 Y221.305167 Z-0.125000
G01 X85.025298 Y220.328406 Z-0.125000
G01 X86.937942 Y219.998418 Z-0.125000
G01 X88.850586 Y219.906290 Z-0.125000
G01 X96.076136 Y219.903909 Z-0.125000
G01 X97.882550 Y219.956958 Z-0.125000
G01 X99.370142 Y220.129387 Z-0.125000
G01 X100.751503 Y220.440166 Z-0.125000
G01 X103.407970 Y221.244736 Z-0.125000
G01 X104.683074 Y221.409148 Z-0.125000
G01 X105.426870 Y221.329614 Z-0.125000
G01 X106.157410 Y221.100538 Z-0.125000
G01 X106.994180 Y220.668157 Z-0.125000
G01 X108.946671 Y219.412128 Z-0.125000
G01 X109.570954 Y219.148868 Z-0.125000
G01 X110.208493 Y219.051740 Z-0.125000
G01 X110.846033 Y219.164055 Z-0.125000
G01 X111.436370 Y219.461023 Z-0.125000
G01 X112.163656 Y220.050911 Z-0.125000
G01 X114.081010 Y221.957073 Z-0.125000
G01 X114.711193 Y222.338099 Z-0.125000
G01 X115.308886 Y222.455547 Z-0.125000
G01 X115.919861 Y222.297856 Z-0.125000
G01 X116.680591 Y221.717281 Z-0.125000
G01 X117.345514 Y220.938852 Z-0.125000
G01 X118.647157 Y219.165405 Z-0.125000
G01 X119.378570 Y218.357818 Z-0.125000
G01 X120.010817 Y217.928453 Z-0.125000
G01 X120.621792 Y217.788568 Z-0.125000
G01 X120.940589 Y217.869557 Z-0.125000
G01 X121.312486 Y218.192374 Z-0.125000
G01 X123.848197 Y221.414731 Z-0.125000
G01 X125.335815 Y223.052499 Z-0.125000
G01 X125.981927 Y223.560499 Z-0.125000
G01 X126.678521 Y223.849688 Z-0.125000
G01 X127.103547 Y223.897207 Z-0.125000
G01 X127.634856 Y223.826590 Z-0.125000
G01 X128.564601 Y223.416195 Z-0.125000
G01 X129.453044 Y222.779529 Z-0.125000
G01 X132.262968 Y220.396404 Z-0.125000
G01 X133.957199 Y219.321403 Z-0.125000
G01 X135.604202 Y218.706697 Z-0.125000
G01 X136.454280 Y218.547577 Z-0.125000
G01 X137.410589 Y218.487040 Z-0.125000
G01 X138.260668 Y218.533872 Z-0.125000
G01 X139.217003 Y218.697225 Z-0.125000
G01 X140.930416 Y219.281345 Z-0.125000
G01 X142.696958 Y220.254032 Z-0.125000
G01 X145.858142 Y222.497537 Z-0.125000
G01 X146.973836 Y223.189315 Z-0.125000
G01 X148.248941 Y223.728403 Z-0.125000
G01 X149.417789 Y223.896784 Z-0.125000
G01 X150.586611 Y223.714724 Z-0.125000
G01 X151.715613 Y223.224902 Z-0.125000
G01 X153.006937 Y222.372601 Z-0.125000
G01 X155.568947 Y220.336132 Z-0.125000
G01 X156.829288 Y219.445519 Z-0.125000
G01 X158.223932 Y218.683837 Z-0.125000
G01 X159.618575 Y218.184807 Z-0.125000
G01 X160.893680 Y217.932686 Z-0.125000
G01 X162.381298 Y217.817857 Z-0.125000
G01 X167.375434 Y217.874584 Z-0.125000
G01 X171.944518 Y217.810105 Z-0.125000
G01 X174.388471 Y218.007299 Z-0.125000
G01 X175.557319 Y218.263283 Z-0.125000
G01 X176.619885 Y218.610918 Z-0.125000
G01 X178.585657 Y219.539102 Z-0.125000
G01 X182.211741 Y221.743025 Z-0.125000
G01 X183.699332 Y222.539103 Z-0.125000
G01 X185.439336 Y223.227627 Z-0.125000
G01 X187.139467 Y223.629211 Z-0.125000
G00 Z3.000000

(End cutting path id: polyline7362-9)


(Start cutting path id: polyline7364-5)
(Change tool to Default tool)

G00 Z3.000000
G00 X4.162780 Y219.427871

G00 Z4.875000 (Fast pre-penetrate)
G01 Z-0.125000 F400.0(Penetrate)
G01 X12.663435 Y219.293622 Z-0.125000 F800.000000
G01 X21.482860 Y219.409668 Z-0.125000
G01 X23.289247 Y219.265549 Z-0.125000
G01 X26.689536 Y218.676270 Z-0.125000
G01 X27.964614 Y218.581364 Z-0.125000
G01 X29.452232 Y218.789115 Z-0.125000
G01 X32.321211 Y219.891447 Z-0.125000
G01 X32.958751 Y220.045514 Z-0.125000
G01 X33.596316 Y220.083349 Z-0.125000
G01 X34.233855 Y219.984104 Z-0.125000
G01 X34.937831 Y219.713197 Z-0.125000
G01 X37.634117 Y218.001001 Z-0.125000
G01 X38.271683 Y217.776741 Z-0.125000
G01 X38.802966 Y217.730412 Z-0.125000
G01 X39.440505 Y217.856698 Z-0.125000
G01 X40.196128 Y218.253784 Z-0.125000
G01 X42.510197 Y220.282871 Z-0.125000
G01 X43.212691 Y220.777086 Z-0.125000
G01 X43.903359 Y221.067386 Z-0.125000
G01 X44.540898 Y221.131045 Z-0.125000
G01 X45.165181 Y220.998780 Z-0.125000
G01 X45.898658 Y220.621511 Z-0.125000
G01 X46.708573 Y219.994343 Z-0.125000
G01 X49.369749 Y217.601481 Z-0.125000
G01 X50.371831 Y216.985267 Z-0.125000
G01 X51.341422 Y216.630885 Z-0.125000
G01 X52.085244 Y216.507351 Z-0.125000
G01 X53.041553 Y216.496715 Z-0.125000
G01 X56.229302 Y216.901051 Z-0.125000
G01 X57.823176 Y216.976060 Z-0.125000
G01 X62.711056 Y216.484623 Z-0.125000
G01 X63.986161 Y216.670281 Z-0.125000
G01 X65.155009 Y217.195849 Z-0.125000
G01 X66.229401 Y218.004811 Z-0.125000
G01 X68.791385 Y220.428868 Z-0.125000
G01 X69.524862 Y220.900567 Z-0.125000
G01 X70.255402 Y221.123345 Z-0.125000
G01 X70.999198 Y221.055692 Z-0.125000
G01 X71.663328 Y220.749066 Z-0.125000
G01 X72.345132 Y220.239056 Z-0.125000
G01 X74.493916 Y218.300509 Z-0.125000
G01 X75.196410 Y217.902471 Z-0.125000
G01 X75.887078 Y217.734434 Z-0.125000
G01 X76.418387 Y217.760390 Z-0.125000
G01 X77.055926 Y217.953853 Z-0.125000
G01 X79.938187 Y219.641866 Z-0.125000
G01 X80.774958 Y219.950714 Z-0.125000
G01 X81.518780 Y220.075015 Z-0.125000
G01 X82.262576 Y220.068427 Z-0.125000
G01 X83.006398 Y219.959498 Z-0.125000
G01 X86.087864 Y219.154504 Z-0.125000
G01 X87.787995 Y218.844757 Z-0.125000
G01 X89.806922 Y218.672936 Z-0.125000
G01 X92.463361 Y218.620946 Z-0.125000
G01 X95.226084 Y218.677302 Z-0.125000
G01 X97.244985 Y218.855419 Z-0.125000
G01 X98.945116 Y219.170009 Z-0.125000
G01 X101.920352 Y219.945210 Z-0.125000
G01 X103.195456 Y220.086286 Z-0.125000
G01 X104.045509 Y219.997360 Z-0.125000
G01 X104.855741 Y219.744921 Z-0.125000
G01 X105.599537 Y219.377203 Z-0.125000
G01 X107.738003 Y218.067306 Z-0.125000
G01 X108.295849 Y217.837913 Z-0.125000
G01 X108.933389 Y217.727952 Z-0.125000
G01 X109.570954 Y217.816693 Z-0.125000
G01 X110.248340 Y218.138876 Z-0.125000
G01 X110.940489 Y218.681826 Z-0.125000
G01 X112.944652 Y220.628152 Z-0.125000
G01 X113.502499 Y220.979889 Z-0.125000
G01 X114.140038 Y221.135172 Z-0.125000
G01 X114.777604 Y220.987085 Z-0.125000
G01 X115.320687 Y220.626326 Z-0.125000
G01 X116.004396 Y219.912402 Z-0.125000
G01 X117.559641 Y217.828414 Z-0.125000
G01 X118.130638 Y217.177831 Z-0.125000
G01 X118.815405 Y216.650729 Z-0.125000
G01 X119.452971 Y216.484147 Z-0.125000
G01 X119.984253 Y216.590139 Z-0.125000
G01 X120.399622 Y216.915153 Z-0.125000
G01 X122.428180 Y219.674039 Z-0.125000
G01 X124.213321 Y221.799461 Z-0.125000
G01 X125.031518 Y222.385697 Z-0.125000
G01 X125.828442 Y222.573049 Z-0.125000
G01 X126.678521 Y222.381067 Z-0.125000
G01 X127.541881 Y221.854706 Z-0.125000
G01 X131.023291 Y218.567897 Z-0.125000
G01 X131.932398 Y217.847702 Z-0.125000
G01 X132.841505 Y217.269086 Z-0.125000
G01 X133.797814 Y216.813527 Z-0.125000
G01 X134.860406 Y216.476130 Z-0.125000
G01 X135.922998 Y216.292827 Z-0.125000
G01 X137.091820 Y216.247425 Z-0.125000
G01 X138.154411 Y216.338997 Z-0.125000
G01 X139.110747 Y216.531455 Z-0.125000
G01 X140.067055 Y216.835116 Z-0.125000
G01 X141.023391 Y217.256915 Z-0.125000
G01 X142.841579 Y218.383721 Z-0.125000
G01 X146.064755 Y220.980206 Z-0.125000
G01 X147.252759 Y221.807557 Z-0.125000
G01 X148.567710 Y222.410330 Z-0.125000
G01 X149.736559 Y222.572705 Z-0.125000
G01 X150.799150 Y222.388661 Z-0.125000
G01 X151.901562 Y221.890557 Z-0.125000
G01 X153.089593 Y221.090643 Z-0.125000
G01 X155.651603 Y219.027160 Z-0.125000
G01 X156.829288 Y218.184384 Z-0.125000
G01 X158.130957 Y217.450801 Z-0.125000
G01 X159.512318 Y216.925948 Z-0.125000
G01 X160.787423 Y216.648215 Z-0.125000
G01 X162.381298 Y216.504150 Z-0.125000
G01 X171.094466 Y216.488857 Z-0.125000
G01 X173.644649 Y216.693644 Z-0.125000
G01 X174.707241 Y216.919968 Z-0.125000
G01 X175.769833 Y217.255221 Z-0.125000
G01 X177.841861 Y218.229098 Z-0.125000
G01 X181.653867 Y220.594391 Z-0.125000
G01 X183.234460 Y221.433807 Z-0.125000
G01 X185.120540 Y222.122331 Z-0.125000
G01 X187.139467 Y222.478989 Z-0.125000
G00 Z3.000000

(End cutting path id: polyline7364-5)


(Start cutting path id: polyline7366-3)
(Change tool to Default tool)

G00 Z3.000000
G00 X4.162780 Y218.083869

G00 Z4.875000 (Fast pre-penetrate)
G01 Z-0.125000 F400.0(Penetrate)
G01 X12.450922 Y217.910223 Z-0.125000 F800.000000
G01 X21.801656 Y218.092997 Z-0.125000
G01 X23.608043 Y217.948773 Z-0.125000
G01 X26.902049 Y217.353673 Z-0.125000
G01 X28.177127 Y217.259455 Z-0.125000
G01 X29.558489 Y217.456860 Z-0.125000
G01 X32.427468 Y218.578083 Z-0.125000
G01 X33.065007 Y218.730060 Z-0.125000
G01 X33.702573 Y218.757471 Z-0.125000
G01 X34.340112 Y218.640022 Z-0.125000
G01 X35.030806 Y218.351230 Z-0.125000
G01 X37.634117 Y216.660968 Z-0.125000
G01 X38.271683 Y216.443613 Z-0.125000
G01 X38.802966 Y216.411016 Z-0.125000
G01 X39.400659 Y216.546245 Z-0.125000
G01 X40.113472 Y216.935473 Z-0.125000
G01 X42.262256 Y218.870421 Z-0.125000
G01 X42.933741 Y219.382892 Z-0.125000
G01 X43.584589 Y219.704731 Z-0.125000
G01 X44.328385 Y219.809268 Z-0.125000
G01 X45.072207 Y219.624112 Z-0.125000
G01 X45.723028 Y219.248987 Z-0.125000
G01 X46.559825 Y218.555303 Z-0.125000
G01 X49.039179 Y216.225835 Z-0.125000
G01 X49.999933 Y215.613457 Z-0.125000
G01 X50.916396 Y215.276035 Z-0.125000
G01 X51.766474 Y215.163666 Z-0.125000
G01 X52.616527 Y215.204730 Z-0.125000
G01 X56.123045 Y215.939133 Z-0.125000
G01 X57.929433 Y216.089363 Z-0.125000
G01 X59.417051 Y215.964109 Z-0.125000
G01 X62.604799 Y215.269076 Z-0.125000
G01 X63.773648 Y215.162211 Z-0.125000
G01 X64.942496 Y215.346890 Z-0.125000
G01 X65.981461 Y215.843486 Z-0.125000
G01 X67.014525 Y216.652554 Z-0.125000
G01 X69.535207 Y219.104286 Z-0.125000
G01 X70.268684 Y219.581303 Z-0.125000
G01 X70.999198 Y219.801833 Z-0.125000
G01 X71.636764 Y219.756616 Z-0.125000
G01 X72.314149 Y219.473194 Z-0.125000
G01 X73.006298 Y218.977445 Z-0.125000
G01 X75.237738 Y216.990691 Z-0.125000
G01 X75.940206 Y216.593579 Z-0.125000
G01 X76.630900 Y216.415911 Z-0.125000
G01 X77.268439 Y216.444036 Z-0.125000
G01 X77.892696 Y216.629615 Z-0.125000
G01 X80.774958 Y218.246667 Z-0.125000
G01 X81.625036 Y218.571257 Z-0.125000
G01 X82.475089 Y218.736992 Z-0.125000
G01 X83.218911 Y218.760619 Z-0.125000
G01 X84.068963 Y218.679339 Z-0.125000
G01 X87.362969 Y217.993858 Z-0.125000
G01 X88.956843 Y217.745864 Z-0.125000
G01 X90.550717 Y217.606826 Z-0.125000
G01 X92.357105 Y217.558566 Z-0.125000
G01 X94.163492 Y217.612699 Z-0.125000
G01 X95.863623 Y217.771238 Z-0.125000
G01 X100.326477 Y218.641001 Z-0.125000
G01 X101.601582 Y218.763874 Z-0.125000
G01 X102.557891 Y218.680292 Z-0.125000
G01 X103.407970 Y218.442591 Z-0.125000
G01 X104.297868 Y218.030185 Z-0.125000
G01 X106.529308 Y216.727034 Z-0.125000
G01 X107.233258 Y216.473140 Z-0.125000
G01 X107.764567 Y216.406201 Z-0.125000
G01 X108.388824 Y216.491450 Z-0.125000
G01 X109.122301 Y216.833185 Z-0.125000
G01 X109.857842 Y217.406563 Z-0.125000
G01 X111.849596 Y219.310608 Z-0.125000
G01 X112.479753 Y219.684093 Z-0.125000
G01 X113.077473 Y219.810246 Z-0.125000
G01 X113.688448 Y219.675732 Z-0.125000
G01 X114.320695 Y219.253776 Z-0.125000
G01 X115.052109 Y218.466800 Z-0.125000
G01 X116.415743 Y216.631943 Z-0.125000
G01 X117.086302 Y215.854545 Z-0.125000
G01 X117.779404 Y215.324983 Z-0.125000
G01 X118.390379 Y215.163243 Z-0.125000
G01 X119.081046 Y215.348557 Z-0.125000
G01 X119.723427 Y215.887989 Z-0.125000
G01 X122.304223 Y219.512696 Z-0.125000
G01 X123.172002 Y220.520890 Z-0.125000
G01 X123.915798 Y221.058946 Z-0.125000
G01 X124.340850 Y221.210023 Z-0.125000
G01 X124.765877 Y221.250239 Z-0.125000
G01 X125.496390 Y221.069767 Z-0.125000
G01 X126.395152 Y220.490093 Z-0.125000
G01 X127.188557 Y219.751562 Z-0.125000
G01 X129.866270 Y216.918963 Z-0.125000
G01 X130.775377 Y216.134183 Z-0.125000
G01 X131.725785 Y215.480452 Z-0.125000
G01 X132.748531 Y214.964329 Z-0.125000
G01 X133.904071 Y214.583780 Z-0.125000
G01 X135.179176 Y214.362879 Z-0.125000
G01 X136.454280 Y214.306179 Z-0.125000
G01 X137.729385 Y214.395397 Z-0.125000
G01 X138.898207 Y214.615556 Z-0.125000
G01 X140.067055 Y214.992111 Z-0.125000
G01 X141.116365 Y215.485240 Z-0.125000
G01 X142.015127 Y216.032054 Z-0.125000
G01 X143.006864 Y216.763097 Z-0.125000
G01 X146.064755 Y219.455520 Z-0.125000
G01 X147.066810 Y220.242046 Z-0.125000
G01 X148.275505 Y220.935941 Z-0.125000
G01 X149.311533 Y221.224416 Z-0.125000
G01 X149.949072 Y221.243916 Z-0.125000
G01 X150.480354 Y221.166658 Z-0.125000
G01 X151.117920 Y220.968247 Z-0.125000
G01 X151.808588 Y220.635904 Z-0.125000
G01 X153.006937 Y219.833980 Z-0.125000
G01 X155.568947 Y217.750124 Z-0.125000
G01 X156.736314 Y216.903643 Z-0.125000
G01 X158.037983 Y216.160165 Z-0.125000
G01 X159.406062 Y215.631211 Z-0.125000
G01 X160.681167 Y215.344906 Z-0.125000
G01 X162.275041 Y215.190204 Z-0.125000
G01 X169.606848 Y215.161285 Z-0.125000
G01 X172.475827 Y215.308896 Z-0.125000
G01 X173.644649 Y215.514054 Z-0.125000
G01 X174.813497 Y215.846211 Z-0.125000
G01 X175.889371 Y216.275814 Z-0.125000
G01 X177.005065 Y216.842525 Z-0.125000
G01 X181.096021 Y219.425146 Z-0.125000
G01 X182.862562 Y220.345736 Z-0.125000
G01 X183.845461 Y220.717766 Z-0.125000
G01 X184.908027 Y220.998515 Z-0.125000
G01 X187.139467 Y221.241746 Z-0.125000
G00 Z3.000000

(End cutting path id: polyline7366-3)


(Start cutting path id: polyline7368-3)
(Change tool to Default tool)

G00 Z3.000000
G00 X4.162780 Y216.697136

G00 Z4.875000 (Fast pre-penetrate)
G01 Z-0.125000 F400.0(Penetrate)
G01 X12.557179 Y216.535767 Z-0.125000 F800.000000
G01 X22.120426 Y216.772225 Z-0.125000
G01 X23.820556 Y216.636785 Z-0.125000
G01 X27.114562 Y216.025889 Z-0.125000
G01 X28.389667 Y215.937757 Z-0.125000
G01 X29.664745 Y216.130770 Z-0.125000
G01 X32.427468 Y217.234875 Z-0.125000
G01 X33.065007 Y217.399234 Z-0.125000
G01 X33.702573 Y217.436884 Z-0.125000
G01 X34.340112 Y217.325151 Z-0.125000
G01 X35.030806 Y217.036173 Z-0.125000
G01 X37.634117 Y215.323342 Z-0.125000
G01 X38.165400 Y215.134959 Z-0.125000
G01 X38.696709 Y215.085191 Z-0.125000
G01 X39.307684 Y215.211424 Z-0.125000
G01 X40.030843 Y215.607610 Z-0.125000
G01 X42.096971 Y217.509618 Z-0.125000
G01 X42.840767 Y218.088499 Z-0.125000
G01 X43.491615 Y218.400866 Z-0.125000
G01 X44.115872 Y218.487437 Z-0.125000
G01 X44.753411 Y218.353849 Z-0.125000
G01 X45.402777 Y218.007113 Z-0.125000
G01 X46.187901 Y217.364997 Z-0.125000
G01 X47.973042 Y215.560065 Z-0.125000
G01 X48.791239 Y214.837568 Z-0.125000
G01 X49.720983 Y214.238049 Z-0.125000
G01 X50.597626 Y213.923513 Z-0.125000
G01 X51.341422 Y213.838635 Z-0.125000
G01 X52.191501 Y213.909940 Z-0.125000
G01 X56.123045 Y215.035449 Z-0.125000
G01 X57.185637 Y215.211847 Z-0.125000
G01 X58.141972 Y215.257540 Z-0.125000
G01 X59.948360 Y215.040662 Z-0.125000
G01 X63.348622 Y214.019027 Z-0.125000
G01 X64.729983 Y213.839587 Z-0.125000
G01 X65.792548 Y214.025298 Z-0.125000
G01 X66.725256 Y214.488530 Z-0.125000
G01 X67.683946 Y215.249682 Z-0.125000
G01 X70.279003 Y217.809390 Z-0.125000
G01 X71.012480 Y218.277385 Z-0.125000
G01 X71.743020 Y218.482701 Z-0.125000
G01 X72.380559 Y218.423858 Z-0.125000
G01 X73.057971 Y218.130435 Z-0.125000
G01 X73.750120 Y217.632490 Z-0.125000
G01 X75.981534 Y215.678730 Z-0.125000
G01 X76.684028 Y215.285322 Z-0.125000
G01 X77.374696 Y215.099135 Z-0.125000
G01 X78.012261 Y215.107760 Z-0.125000
G01 X78.729493 Y215.299583 Z-0.125000
G01 X81.890678 Y216.953200 Z-0.125000
G01 X82.793858 Y217.258291 Z-0.125000
G01 X83.643937 Y217.407489 Z-0.125000
G01 X85.131555 Y217.403070 Z-0.125000
G01 X89.488126 Y216.794873 Z-0.125000
G01 X92.250848 Y216.654935 Z-0.125000
G01 X94.801058 Y216.792069 Z-0.125000
G01 X98.626346 Y217.342772 Z-0.125000
G01 X100.007708 Y217.441303 Z-0.125000
G01 X101.070299 Y217.353488 Z-0.125000
G01 X102.026608 Y217.105600 Z-0.125000
G01 X103.089200 Y216.636997 Z-0.125000
G01 X105.320614 Y215.401870 Z-0.125000
G01 X105.958153 Y215.171313 Z-0.125000
G01 X106.595718 Y215.082069 Z-0.125000
G01 X107.339514 Y215.197268 Z-0.125000
G01 X108.016926 Y215.520748 Z-0.125000
G01 X108.709075 Y216.041579 Z-0.125000
G01 X110.857860 Y218.026269 Z-0.125000
G01 X111.483598 Y218.375122 Z-0.125000
G01 X112.121138 Y218.487067 Z-0.125000
G01 X112.758703 Y218.313183 Z-0.125000
G01 X113.337214 Y217.908080 Z-0.125000
G01 X113.975838 Y217.237230 Z-0.125000
G01 X115.547964 Y215.165968 Z-0.125000
G01 X116.105837 Y214.540415 Z-0.125000
G01 X116.756658 Y214.032733 Z-0.125000
G01 X117.434044 Y213.839772 Z-0.125000
G01 X118.130638 Y214.036569 Z-0.125000
G01 X118.912004 Y214.702366 Z-0.125000
G01 X119.567403 Y215.540750 Z-0.125000
G01 X121.374452 Y218.242328 Z-0.125000
G01 X122.205057 Y219.210649 Z-0.125000
G01 X122.986053 Y219.764500 Z-0.125000
G01 X123.703285 Y219.927033 Z-0.125000
G01 X124.128311 Y219.871365 Z-0.125000
G01 X124.553364 Y219.707747 Z-0.125000
G01 X125.403416 Y219.119579 Z-0.125000
G01 X126.282466 Y218.247910 Z-0.125000
G01 X128.899325 Y215.328078 Z-0.125000
G01 X129.866270 Y214.465299 Z-0.125000
G01 X130.796014 Y213.816489 Z-0.125000
G01 X131.911734 Y213.262320 Z-0.125000
G01 X133.054018 Y212.905212 Z-0.125000
G01 X134.435380 Y212.682857 Z-0.125000
G01 X136.029254 Y212.622532 Z-0.125000
G01 X137.410589 Y212.712358 Z-0.125000
G01 X138.685694 Y212.933787 Z-0.125000
G01 X139.854542 Y213.293382 Z-0.125000
G01 X141.023391 Y213.840143 Z-0.125000
G01 X141.932471 Y214.409790 Z-0.125000
G01 X142.924234 Y215.171974 Z-0.125000
G01 X146.006891 Y218.039842 Z-0.125000
G01 X146.973836 Y218.845789 Z-0.125000
G01 X148.182530 Y219.585563 Z-0.125000
G01 X149.205276 Y219.895178 Z-0.125000
G01 X149.842815 Y219.922853 Z-0.125000
G01 X150.374098 Y219.848558 Z-0.125000
G01 X151.622639 Y219.356963 Z-0.125000
G01 X152.924308 Y218.477251 Z-0.125000
G01 X155.321006 Y216.504599 Z-0.125000
G01 X156.478054 Y215.648488 Z-0.125000
G01 X157.759059 Y214.896729 Z-0.125000
G01 X159.087292 Y214.359413 Z-0.125000
G01 X160.468627 Y214.034717 Z-0.125000
G01 X161.956245 Y213.879275 Z-0.125000
G01 X168.756769 Y213.838423 Z-0.125000
G01 X171.732005 Y213.977461 Z-0.125000
G01 X172.900853 Y214.172803 Z-0.125000
G01 X174.069702 Y214.494430 Z-0.125000
G01 X175.145549 Y214.916705 Z-0.125000
G01 X176.261269 Y215.481483 Z-0.125000
G01 X180.538174 Y218.234681 Z-0.125000
G01 X182.397690 Y219.192630 Z-0.125000
G01 X183.526665 Y219.579821 Z-0.125000
G01 X184.589257 Y219.803923 Z-0.125000
G01 X185.758105 Y219.914889 Z-0.125000
G01 X187.139467 Y219.914360 Z-0.125000
G00 Z3.000000

(End cutting path id: polyline7368-3)


(Start cutting path id: polyline7370-3)
(Change tool to Default tool)

G00 Z3.000000
G00 X4.162780 Y215.297175

G00 Z4.875000 (Fast pre-penetrate)
G01 Z-0.125000 F400.0(Penetrate)
G01 X12.875948 Y215.174911 Z-0.125000 F800.000000
G01 X22.332939 Y215.452194 Z-0.125000
G01 X24.033070 Y215.317389 Z-0.125000
G01 X27.220818 Y214.710118 Z-0.125000
G01 X28.495923 Y214.614101 Z-0.125000
G01 X29.771002 Y214.810395 Z-0.125000
G01 X32.427468 Y215.893915 Z-0.125000
G01 X33.065007 Y216.068911 Z-0.125000
G01 X33.702573 Y216.115530 Z-0.125000
G01 X34.340112 Y216.008903 Z-0.125000
G01 X35.030806 Y215.719952 Z-0.125000
G01 X37.541143 Y214.031727 Z-0.125000
G01 X38.165400 Y213.804292 Z-0.125000
G01 X38.696709 Y213.764737 Z-0.125000
G01 X39.307684 Y213.908829 Z-0.125000
G01 X40.030843 Y214.331420 Z-0.125000
G01 X42.022597 Y216.210410 Z-0.125000
G01 X42.758138 Y216.785719 Z-0.125000
G01 X43.398640 Y217.087529 Z-0.125000
G01 X44.009615 Y217.162750 Z-0.125000
G01 X44.607308 Y217.029532 Z-0.125000
G01 X45.320121 Y216.624905 Z-0.125000
G01 X46.039152 Y216.007554 Z-0.125000
G01 X47.749893 Y214.222333 Z-0.125000
G01 X48.543298 Y213.498249 Z-0.125000
G01 X49.442060 Y212.899682 Z-0.125000
G01 X50.278856 Y212.592316 Z-0.125000
G01 X51.128909 Y212.517704 Z-0.125000
G01 X51.978987 Y212.640629 Z-0.125000
G01 X56.016789 Y214.104752 Z-0.125000
G01 X57.185637 Y214.356291 Z-0.125000
G01 X58.248229 Y214.432253 Z-0.125000
G01 X59.204538 Y214.369468 Z-0.125000
G01 X60.267129 Y214.159071 Z-0.125000
G01 X61.435978 Y213.782146 Z-0.125000
G01 X64.092417 Y212.747177 Z-0.125000
G01 X64.942496 Y212.552206 Z-0.125000
G01 X65.580035 Y212.517519 Z-0.125000
G01 X66.536371 Y212.698546 Z-0.125000
G01 X67.469079 Y213.180749 Z-0.125000
G01 X68.427769 Y213.970741 Z-0.125000
G01 X70.940169 Y216.479438 Z-0.125000
G01 X71.663328 Y216.944839 Z-0.125000
G01 X72.380559 Y217.155870 Z-0.125000
G01 X73.018125 Y217.111341 Z-0.125000
G01 X73.708792 Y216.829058 Z-0.125000
G01 X74.411287 Y216.340293 Z-0.125000
G01 X76.725356 Y214.360789 Z-0.125000
G01 X77.520798 Y213.937774 Z-0.125000
G01 X78.224774 Y213.771298 Z-0.125000
G01 X78.862314 Y213.788073 Z-0.125000
G01 X79.499853 Y213.942827 Z-0.125000
G01 X82.820422 Y215.554932 Z-0.125000
G01 X83.750193 Y215.866637 Z-0.125000
G01 X84.706529 Y216.051316 Z-0.125000
G01 X86.406660 Y216.106402 Z-0.125000
G01 X90.125691 Y215.815255 Z-0.125000
G01 X92.144592 Y215.754851 Z-0.125000
G01 X98.201320 Y216.117991 Z-0.125000
G01 X99.476425 Y216.031181 Z-0.125000
G01 X100.645247 Y215.759587 Z-0.125000
G01 X101.787531 Y215.295164 Z-0.125000
G01 X104.204894 Y214.051650 Z-0.125000
G01 X104.895587 Y213.829745 Z-0.125000
G01 X105.533127 Y213.760159 Z-0.125000
G01 X106.250385 Y213.874406 Z-0.125000
G01 X106.973517 Y214.210136 Z-0.125000
G01 X107.717339 Y214.761209 Z-0.125000
G01 X109.783467 Y216.643029 Z-0.125000
G01 X110.527263 Y217.061309 Z-0.125000
G01 X111.164829 Y217.164787 Z-0.125000
G01 X111.921907 Y216.929282 Z-0.125000
G01 X112.593392 Y216.404587 Z-0.125000
G01 X113.232016 Y215.689155 Z-0.125000
G01 X114.787261 Y213.665439 Z-0.125000
G01 X115.403343 Y213.032847 Z-0.125000
G01 X116.052709 Y212.618404 Z-0.125000
G01 X116.583991 Y212.516408 Z-0.125000
G01 X117.304186 Y212.747415 Z-0.125000
G01 X118.100581 Y213.456524 Z-0.125000
G01 X118.823581 Y214.407700 Z-0.125000
G01 X120.444707 Y216.841837 Z-0.125000
G01 X121.312486 Y217.870192 Z-0.125000
G01 X122.056282 Y218.416397 Z-0.125000
G01 X122.428180 Y218.556943 Z-0.125000
G01 X122.853233 Y218.603669 Z-0.125000
G01 X123.636874 Y218.397029 Z-0.125000
G01 X124.494335 Y217.800209 Z-0.125000
G01 X125.403416 Y216.878138 Z-0.125000
G01 X128.081128 Y213.812388 Z-0.125000
G01 X129.039818 Y212.945852 Z-0.125000
G01 X130.052218 Y212.245951 Z-0.125000
G01 X131.167939 Y211.715647 Z-0.125000
G01 X132.416453 Y211.360841 Z-0.125000
G01 X133.904071 Y211.162748 Z-0.125000
G01 X135.604202 Y211.118060 Z-0.125000
G01 X137.091820 Y211.206034 Z-0.125000
G01 X138.473181 Y211.431855 Z-0.125000
G01 X139.721722 Y211.814389 Z-0.125000
G01 X140.837442 Y212.344508 Z-0.125000
G01 X141.767186 Y212.940190 Z-0.125000
G01 X142.758923 Y213.726346 Z-0.125000
G01 X145.783742 Y216.640092 Z-0.125000
G01 X146.808551 Y217.523853 Z-0.125000
G01 X147.903607 Y218.220341 Z-0.125000
G01 X148.992736 Y218.571654 Z-0.125000
G01 X149.524046 Y218.603986 Z-0.125000
G01 X150.161585 Y218.522680 Z-0.125000
G01 X150.785868 Y218.322576 Z-0.125000
G01 X151.529664 Y217.946921 Z-0.125000
G01 X152.676367 Y217.145155 Z-0.125000
G01 X155.899543 Y214.527106 Z-0.125000
G01 X157.015237 Y213.811832 Z-0.125000
G01 X158.037983 Y213.310448 Z-0.125000
G01 X159.193549 Y212.918494 Z-0.125000
G01 X160.362371 Y212.682275 Z-0.125000
G01 X161.743732 Y212.552655 Z-0.125000
G01 X163.443863 Y212.515402 Z-0.125000
G01 X169.819361 Y212.547470 Z-0.125000
G01 X171.306979 Y212.673967 Z-0.125000
G01 X172.688340 Y212.937888 Z-0.125000
G01 X174.029855 Y213.375641 Z-0.125000
G01 X175.424472 Y214.039189 Z-0.125000
G01 X176.819116 Y214.888579 Z-0.125000
G01 X179.980301 Y217.022494 Z-0.125000
G01 X181.932791 Y218.016797 Z-0.125000
G01 X183.101639 Y218.379382 Z-0.125000
G01 X184.270487 Y218.565172 Z-0.125000
G01 X185.545592 Y218.600758 Z-0.125000
G01 X187.139467 Y218.493629 Z-0.125000
G00 Z3.000000

(End cutting path id: polyline7370-3)


(Start cutting path id: polyline7372-8)
(Change tool to Default tool)

G00 Z3.000000
G00 X4.162780 Y213.903325

G00 Z4.875000 (Fast pre-penetrate)
G01 Z-0.125000 F400.0(Penetrate)
G01 X13.407231 Y213.828580 Z-0.125000 F800.000000
G01 X22.545452 Y214.130205 Z-0.125000
G01 X24.245583 Y213.991325 Z-0.125000
G01 X27.327075 Y213.390008 Z-0.125000
G01 X28.602180 Y213.291239 Z-0.125000
G01 X29.877258 Y213.495550 Z-0.125000
G01 X32.533724 Y214.591902 Z-0.125000
G01 X33.171264 Y214.757770 Z-0.125000
G01 X33.702573 Y214.793594 Z-0.125000
G01 X34.233855 Y214.719775 Z-0.125000
G01 X34.844831 Y214.498849 Z-0.125000
G01 X35.485333 Y214.128459 Z-0.125000
G01 X37.448168 Y212.746621 Z-0.125000
G01 X38.059144 Y212.501168 Z-0.125000
G01 X38.590453 Y212.438170 Z-0.125000
G01 X39.214710 Y212.565488 Z-0.125000
G01 X39.948187 Y212.985434 Z-0.125000
G01 X41.948196 Y214.892971 Z-0.125000
G01 X42.675482 Y215.468096 Z-0.125000
G01 X43.265819 Y215.753660 Z-0.125000
G01 X43.903359 Y215.839596 Z-0.125000
G01 X44.514334 Y215.695558 Z-0.125000
G01 X45.154836 Y215.324771 Z-0.125000
G01 X45.890377 Y214.683766 Z-0.125000
G01 X47.601144 Y212.859043 Z-0.125000
G01 X48.378013 Y212.137657 Z-0.125000
G01 X49.256111 Y211.548087 Z-0.125000
G01 X50.066343 Y211.256172 Z-0.125000
G01 X50.916396 Y211.201933 Z-0.125000
G01 X51.766474 Y211.361027 Z-0.125000
G01 X56.016789 Y213.166541 Z-0.125000
G01 X57.291893 Y213.480019 Z-0.125000
G01 X58.460742 Y213.571988 Z-0.125000
G01 X59.523307 Y213.486633 Z-0.125000
G01 X60.692155 Y213.213187 Z-0.125000
G01 X61.807876 Y212.798691 Z-0.125000
G01 X64.729983 Y211.476596 Z-0.125000
G01 X65.580035 Y211.245642 Z-0.125000
G01 X66.217575 Y211.193307 Z-0.125000
G01 X67.173910 Y211.362879 Z-0.125000
G01 X68.130245 Y211.864475 Z-0.125000
G01 X69.022816 Y212.606604 Z-0.125000
G01 X71.518680 Y215.116041 Z-0.125000
G01 X72.314149 Y215.630549 Z-0.125000
G01 X73.018125 Y215.832559 Z-0.125000
G01 X73.655664 Y215.790728 Z-0.125000
G01 X74.359614 Y215.509926 Z-0.125000
G01 X75.072427 Y215.024734 Z-0.125000
G01 X77.427824 Y213.058776 Z-0.125000
G01 X78.171646 Y212.658965 Z-0.125000
G01 X78.968570 Y212.453516 Z-0.125000
G01 X79.606136 Y212.454575 Z-0.125000
G01 X80.349932 Y212.615071 Z-0.125000
G01 X83.856450 Y214.178148 Z-0.125000
G01 X84.812785 Y214.478423 Z-0.125000
G01 X85.875351 Y214.683554 Z-0.125000
G01 X87.575482 Y214.794203 Z-0.125000
G01 X91.932079 Y214.715648 Z-0.125000
G01 X96.076136 Y214.795234 Z-0.125000
G01 X97.776294 Y214.704006 Z-0.125000
G01 X99.157629 Y214.432915 Z-0.125000
G01 X100.485862 Y213.953755 Z-0.125000
G01 X103.089200 Y212.722227 Z-0.125000
G01 X103.832996 Y212.500109 Z-0.125000
G01 X104.470561 Y212.435816 Z-0.125000
G01 X105.214357 Y212.548343 Z-0.125000
G01 X105.971435 Y212.886083 Z-0.125000
G01 X106.882606 Y213.555081 Z-0.125000
G01 X108.874360 Y215.326200 Z-0.125000
G01 X109.597518 Y215.727387 Z-0.125000
G01 X110.208493 Y215.842348 Z-0.125000
G01 X110.806186 Y215.724159 Z-0.125000
G01 X111.494208 Y215.301488 Z-0.125000
G01 X112.217737 Y214.572720 Z-0.125000
G01 X114.328950 Y211.952846 Z-0.125000
G01 X114.990117 Y211.419949 Z-0.125000
G01 X115.733913 Y211.192593 Z-0.125000
G01 X116.052709 Y211.231169 Z-0.125000
G01 X116.477735 Y211.405080 Z-0.125000
G01 X117.283522 Y212.098208 Z-0.125000
G01 X118.022556 Y213.054622 Z-0.125000
G01 X119.700885 Y215.553953 Z-0.125000
G01 X120.568664 Y216.568179 Z-0.125000
G01 X121.312486 Y217.103139 Z-0.125000
G01 X121.684384 Y217.238685 Z-0.125000
G01 X122.109410 Y217.280224 Z-0.125000
G01 X122.893079 Y217.065251 Z-0.125000
G01 X123.750513 Y216.460308 Z-0.125000
G01 X124.659620 Y215.529690 Z-0.125000
G01 X127.337332 Y212.437218 Z-0.125000
G01 X128.295996 Y211.563141 Z-0.125000
G01 X129.308423 Y210.858266 Z-0.125000
G01 X130.424116 Y210.326428 Z-0.125000
G01 X131.672657 Y209.973289 Z-0.125000
G01 X133.160275 Y209.776836 Z-0.125000
G01 X135.072919 Y209.725030 Z-0.125000
G01 X136.666793 Y209.809803 Z-0.125000
G01 X138.048155 Y210.020305 Z-0.125000
G01 X139.217003 Y210.355638 Z-0.125000
G01 X140.372543 Y210.878930 Z-0.125000
G01 X141.353961 Y211.496176 Z-0.125000
G01 X142.428353 Y212.352737 Z-0.125000
G01 X145.411844 Y215.273812 Z-0.125000
G01 X146.560610 Y216.269517 Z-0.125000
G01 X147.624684 Y216.932880 Z-0.125000
G01 X148.673967 Y217.254798 Z-0.125000
G01 X149.205276 Y217.279722 Z-0.125000
G01 X149.842815 Y217.186430 Z-0.125000
G01 X151.064792 Y216.670175 Z-0.125000
G01 X152.263141 Y215.836818 Z-0.125000
G01 X155.486318 Y213.194825 Z-0.125000
G01 X156.457390 Y212.558000 Z-0.125000
G01 X157.480136 Y212.033729 Z-0.125000
G01 X158.555983 Y211.643998 Z-0.125000
G01 X159.724832 Y211.383013 Z-0.125000
G01 X160.999936 Y211.243472 Z-0.125000
G01 X162.593811 Y211.193731 Z-0.125000
G01 X169.181822 Y211.215982 Z-0.125000
G01 X170.669440 Y211.329753 Z-0.125000
G01 X171.944518 Y211.555178 Z-0.125000
G01 X173.325879 Y211.983828 Z-0.125000
G01 X174.773651 Y212.666505 Z-0.125000
G01 X176.147631 Y213.513965 Z-0.125000
G01 X179.515428 Y215.843777 Z-0.125000
G01 X180.538174 Y216.415964 Z-0.125000
G01 X181.507765 Y216.832259 Z-0.125000
G01 X182.676613 Y217.150790 Z-0.125000
G01 X183.951718 Y217.279828 Z-0.125000
G01 X185.226796 Y217.230060 Z-0.125000
G01 X187.139467 Y216.976907 Z-0.125000
G00 Z3.000000

(End cutting path id: polyline7372-8)


(Start cutting path id: polyline7374-5)
(Change tool to Default tool)

G00 Z3.000000
G00 X4.162780 Y212.524530

G00 Z4.875000 (Fast pre-penetrate)
G01 Z-0.125000 F400.0(Penetrate)
G01 X13.938540 Y212.492727 Z-0.125000 F800.000000
G01 X22.651708 Y212.809222 Z-0.125000
G01 X24.351839 Y212.673596 Z-0.125000
G01 X27.433332 Y212.064897 Z-0.125000
G01 X28.708436 Y211.969514 Z-0.125000
G01 X29.983541 Y212.186314 Z-0.125000
G01 X32.533724 Y213.257663 Z-0.125000
G01 X33.171264 Y213.430489 Z-0.125000
G01 X33.702573 Y213.471261 Z-0.125000
G01 X34.233855 Y213.400617 Z-0.125000
G01 X34.844831 Y213.180643 Z-0.125000
G01 X35.485333 Y212.808084 Z-0.125000
G01 X37.448168 Y211.415636 Z-0.125000
G01 X38.059144 Y211.172908 Z-0.125000
G01 X38.590453 Y211.116208 Z-0.125000
G01 X39.214710 Y211.255352 Z-0.125000
G01 X39.948187 Y211.692893 Z-0.125000
G01 X41.948196 Y213.626757 Z-0.125000
G01 X42.592826 Y214.136317 Z-0.125000
G01 X43.265819 Y214.454293 Z-0.125000
G01 X43.797102 Y214.518163 Z-0.125000
G01 X44.421359 Y214.372563 Z-0.125000
G01 X45.072207 Y213.985425 Z-0.125000
G01 X45.890377 Y213.244434 Z-0.125000
G01 X48.212728 Y210.817996 Z-0.125000
G01 X49.070162 Y210.226600 Z-0.125000
G01 X49.853830 Y209.934051 Z-0.125000
G01 X50.597626 Y209.873409 Z-0.125000
G01 X51.447678 Y210.026179 Z-0.125000
G01 X52.417296 Y210.407364 Z-0.125000
G01 X54.741684 Y211.620291 Z-0.125000
G01 X56.016789 Y212.171577 Z-0.125000
G01 X57.398150 Y212.543660 Z-0.125000
G01 X58.673255 Y212.648699 Z-0.125000
G01 X59.842103 Y212.538289 Z-0.125000
G01 X61.010925 Y212.235526 Z-0.125000
G01 X62.272748 Y211.717393 Z-0.125000
G01 X65.155009 Y210.252371 Z-0.125000
G01 X66.005061 Y209.968076 Z-0.125000
G01 X66.855140 Y209.870922 Z-0.125000
G01 X67.811449 Y210.055468 Z-0.125000
G01 X68.688092 Y210.525870 Z-0.125000
G01 X69.617836 Y211.304485 Z-0.125000
G01 X72.097217 Y213.793206 Z-0.125000
G01 X72.871996 Y214.294591 Z-0.125000
G01 X73.549408 Y214.502791 Z-0.125000
G01 X74.293203 Y214.460167 Z-0.125000
G01 X75.010461 Y214.168014 Z-0.125000
G01 X75.733593 Y213.678694 Z-0.125000
G01 X78.078672 Y211.770019 Z-0.125000
G01 X78.862314 Y211.353433 Z-0.125000
G01 X79.712392 Y211.133750 Z-0.125000
G01 X80.456188 Y211.136396 Z-0.125000
G01 X81.306267 Y211.322450 Z-0.125000
G01 X84.600272 Y212.680819 Z-0.125000
G01 X86.406660 Y213.181067 Z-0.125000
G01 X88.531817 Y213.420646 Z-0.125000
G01 X92.144592 Y213.470626 Z-0.125000
G01 X95.332341 Y213.407894 Z-0.125000
G01 X97.351241 Y213.154608 Z-0.125000
G01 X99.051372 Y212.663992 Z-0.125000
G01 X102.132865 Y211.358698 Z-0.125000
G01 X102.876687 Y211.164944 Z-0.125000
G01 X103.514226 Y211.113932 Z-0.125000
G01 X104.258022 Y211.223099 Z-0.125000
G01 X105.041690 Y211.554357 Z-0.125000
G01 X105.899124 Y212.149854 Z-0.125000
G01 X108.130564 Y214.056360 Z-0.125000
G01 X108.853696 Y214.425295 Z-0.125000
G01 X109.464698 Y214.518851 Z-0.125000
G01 X110.062391 Y214.388174 Z-0.125000
G01 X110.775204 Y213.942272 Z-0.125000
G01 X111.473941 Y213.243482 Z-0.125000
G01 X113.667784 Y210.578999 Z-0.125000
G01 X114.352578 Y210.061289 Z-0.125000
G01 X114.777604 Y209.900343 Z-0.125000
G01 X115.096373 Y209.870763 Z-0.125000
G01 X115.816568 Y210.095552 Z-0.125000
G01 X116.612963 Y210.780611 Z-0.125000
G01 X117.335963 Y211.703873 Z-0.125000
G01 X119.081046 Y214.273450 Z-0.125000
G01 X119.899243 Y215.220393 Z-0.125000
G01 X120.661639 Y215.773239 Z-0.125000
G01 X121.046845 Y215.914394 Z-0.125000
G01 X121.471871 Y215.957627 Z-0.125000
G01 X121.896897 Y215.890740 Z-0.125000
G01 X122.321923 Y215.716539 Z-0.125000
G01 X123.172002 Y215.106755 Z-0.125000
G01 X124.051053 Y214.210030 Z-0.125000
G01 X126.742285 Y211.127638 Z-0.125000
G01 X127.717485 Y210.246656 Z-0.125000
G01 X128.750549 Y209.535854 Z-0.125000
G01 X129.866270 Y209.009783 Z-0.125000
G01 X131.141374 Y208.654316 Z-0.125000
G01 X132.628992 Y208.460509 Z-0.125000
G01 X134.541636 Y208.409577 Z-0.125000
G01 X136.241767 Y208.506097 Z-0.125000
G01 X137.623129 Y208.729749 Z-0.125000
G01 X138.791951 Y209.078813 Z-0.125000
G01 X139.907671 Y209.595173 Z-0.125000
G01 X140.930416 Y210.248032 Z-0.125000
G01 X141.915961 Y211.037521 Z-0.125000
G01 X144.965572 Y214.014715 Z-0.125000
G01 X145.982099 Y214.898660 Z-0.125000
G01 X147.066810 Y215.589645 Z-0.125000
G01 X148.142684 Y215.930269 Z-0.125000
G01 X148.673967 Y215.957071 Z-0.125000
G01 X149.311533 Y215.865711 Z-0.125000
G01 X149.949072 Y215.646821 Z-0.125000
G01 X150.599893 Y215.307547 Z-0.125000
G01 X151.684630 Y214.544621 Z-0.125000
G01 X154.907781 Y211.874979 Z-0.125000
G01 X155.899543 Y211.216591 Z-0.125000
G01 X156.829288 Y210.730075 Z-0.125000
G01 X157.812187 Y210.354712 Z-0.125000
G01 X158.874753 Y210.091875 Z-0.125000
G01 X160.043601 Y209.937729 Z-0.125000
G01 X161.424962 Y209.874149 Z-0.125000
G01 X168.544256 Y209.880658 Z-0.125000
G01 X169.925617 Y209.961965 Z-0.125000
G01 X171.200722 Y210.155163 Z-0.125000
G01 X172.688340 Y210.588180 Z-0.125000
G01 X174.122830 Y211.256146 Z-0.125000
G01 X175.486464 Y212.104531 Z-0.125000
G01 X178.957581 Y214.579732 Z-0.125000
G01 X180.073275 Y215.209333 Z-0.125000
G01 X181.082739 Y215.622718 Z-0.125000
G01 X182.251587 Y215.894339 Z-0.125000
G01 X183.526665 Y215.953791 Z-0.125000
G01 X184.908027 Y215.805889 Z-0.125000
G01 X187.139467 Y215.363770 Z-0.125000
G00 Z3.000000

(End cutting path id: polyline7374-5)


(Start cutting path id: polyline7376-8)
(Change tool to Default tool)

G00 Z3.000000
G00 X4.162780 Y211.162298

G00 Z4.875000 (Fast pre-penetrate)
G01 Z-0.125000 F400.0(Penetrate)
G01 X14.363566 Y211.162827 Z-0.125000 F800.000000
G01 X22.757965 Y211.486624 Z-0.125000
G01 X24.458096 Y211.349861 Z-0.125000
G01 X27.539588 Y210.734997 Z-0.125000
G01 X28.708436 Y210.644880 Z-0.125000
G01 X29.983541 Y210.850355 Z-0.125000
G01 X32.639981 Y211.963112 Z-0.125000
G01 X33.171264 Y212.104134 Z-0.125000
G01 X33.808829 Y212.144774 Z-0.125000
G01 X34.446369 Y212.020473 Z-0.125000
G01 X35.030806 Y211.764066 Z-0.125000
G01 X37.541143 Y210.038852 Z-0.125000
G01 X38.059144 Y209.846130 Z-0.125000
G01 X38.590453 Y209.794140 Z-0.125000
G01 X39.214710 Y209.941989 Z-0.125000
G01 X39.948187 Y210.392335 Z-0.125000
G01 X41.873822 Y212.275584 Z-0.125000
G01 X42.510197 Y212.790383 Z-0.125000
G01 X43.159536 Y213.115556 Z-0.125000
G01 X43.690846 Y213.197100 Z-0.125000
G01 X44.328385 Y213.059887 Z-0.125000
G01 X45.072207 Y212.605149 Z-0.125000
G01 X45.816003 Y211.911386 Z-0.125000
G01 X48.047416 Y209.538023 Z-0.125000
G01 X48.884213 Y208.934509 Z-0.125000
G01 X49.747547 Y208.602299 Z-0.125000
G01 X50.491370 Y208.553483 Z-0.125000
G01 X51.341422 Y208.729034 Z-0.125000
G01 X52.231347 Y209.105456 Z-0.125000
G01 X54.648709 Y210.465440 Z-0.125000
G01 X55.950378 Y211.077711 Z-0.125000
G01 X57.398150 Y211.509828 Z-0.125000
G01 X58.779511 Y211.645638 Z-0.125000
G01 X60.054616 Y211.526947 Z-0.125000
G01 X61.329695 Y211.178173 Z-0.125000
G01 X62.644646 Y210.600430 Z-0.125000
G01 X65.712856 Y208.932895 Z-0.125000
G01 X66.536371 Y208.646537 Z-0.125000
G01 X67.386423 Y208.547292 Z-0.125000
G01 X68.223220 Y208.696014 Z-0.125000
G01 X69.121981 Y209.152288 Z-0.125000
G01 X70.064135 Y209.927357 Z-0.125000
G01 X72.518698 Y212.395599 Z-0.125000
G01 X73.336895 Y212.943630 Z-0.125000
G01 X74.080690 Y213.180035 Z-0.125000
G01 X74.824512 Y213.141167 Z-0.125000
G01 X75.568308 Y212.846819 Z-0.125000
G01 X76.394760 Y212.293232 Z-0.125000
G01 X78.729493 Y210.450358 Z-0.125000
G01 X79.499853 Y210.051129 Z-0.125000
G01 X80.349932 Y209.822265 Z-0.125000
G01 X81.093727 Y209.800093 Z-0.125000
G01 X82.050063 Y209.972072 Z-0.125000
G01 X85.450324 Y211.225957 Z-0.125000
G01 X87.256712 Y211.699322 Z-0.125000
G01 X89.275613 Y211.957211 Z-0.125000
G01 X91.825822 Y212.038624 Z-0.125000
G01 X94.376006 Y211.946099 Z-0.125000
G01 X96.394933 Y211.668446 Z-0.125000
G01 X98.095064 Y211.203097 Z-0.125000
G01 X101.282812 Y209.996228 Z-0.125000
G01 X102.557891 Y209.790885 Z-0.125000
G01 X103.407970 Y209.898994 Z-0.125000
G01 X104.204894 Y210.216520 Z-0.125000
G01 X105.155329 Y210.851572 Z-0.125000
G01 X107.469398 Y212.762470 Z-0.125000
G01 X108.202875 Y213.114339 Z-0.125000
G01 X108.827132 Y213.195063 Z-0.125000
G01 X109.597518 Y212.974771 Z-0.125000
G01 X110.361978 Y212.413326 Z-0.125000
G01 X111.000602 Y211.733956 Z-0.125000
G01 X112.623448 Y209.721617 Z-0.125000
G01 X113.353750 Y209.010312 Z-0.125000
G01 X113.967371 Y208.648019 Z-0.125000
G01 X114.565091 Y208.550626 Z-0.125000
G01 X115.269040 Y208.780681 Z-0.125000
G01 X116.072023 Y209.467141 Z-0.125000
G01 X116.725675 Y210.280575 Z-0.125000
G01 X118.523199 Y212.893200 Z-0.125000
G01 X119.385343 Y213.886524 Z-0.125000
G01 X120.196766 Y214.462892 Z-0.125000
G01 X120.621792 Y214.603280 Z-0.125000
G01 X121.046845 Y214.633574 Z-0.125000
G01 X121.870333 Y214.389602 Z-0.125000
G01 X122.676121 Y213.826914 Z-0.125000
G01 X123.469526 Y213.052320 Z-0.125000
G01 X126.295987 Y209.900528 Z-0.125000
G01 X127.304259 Y209.008619 Z-0.125000
G01 X128.285677 Y208.340362 Z-0.125000
G01 X129.441243 Y207.792014 Z-0.125000
G01 X130.716322 Y207.429006 Z-0.125000
G01 X132.203940 Y207.226309 Z-0.125000
G01 X133.904071 Y207.175853 Z-0.125000
G01 X135.497945 Y207.269171 Z-0.125000
G01 X136.879307 Y207.496051 Z-0.125000
G01 X138.141129 Y207.878717 Z-0.125000
G01 X139.256849 Y208.400713 Z-0.125000
G01 X140.279569 Y209.051825 Z-0.125000
G01 X141.271305 Y209.838193 Z-0.125000
G01 X144.296124 Y212.735429 Z-0.125000
G01 X145.320933 Y213.607812 Z-0.125000
G01 X146.415989 Y214.286918 Z-0.125000
G01 X147.505145 Y214.613942 Z-0.125000
G01 X148.036428 Y214.631563 Z-0.125000
G01 X148.673967 Y214.530255 Z-0.125000
G01 X149.298250 Y214.308534 Z-0.125000
G01 X149.949072 Y213.962724 Z-0.125000
G01 X151.023464 Y213.196121 Z-0.125000
G01 X154.163985 Y210.562541 Z-0.125000
G01 X155.062747 Y209.947042 Z-0.125000
G01 X155.992518 Y209.436820 Z-0.125000
G01 X156.962109 Y209.045899 Z-0.125000
G01 X157.918444 Y208.789677 Z-0.125000
G01 X158.981036 Y208.627355 Z-0.125000
G01 X160.256114 Y208.553298 Z-0.125000
G01 X168.544256 Y208.559939 Z-0.125000
G01 X170.031874 Y208.677176 Z-0.125000
G01 X171.413235 Y208.958110 Z-0.125000
G01 X172.728186 Y209.434942 Z-0.125000
G01 X174.122830 Y210.184135 Z-0.125000
G01 X177.883189 Y212.929924 Z-0.125000
G01 X179.050556 Y213.682928 Z-0.125000
G01 X180.166250 Y214.220031 Z-0.125000
G01 X181.295252 Y214.540970 Z-0.125000
G01 X182.357843 Y214.636220 Z-0.125000
G01 X183.526665 Y214.543960 Z-0.125000
G01 X187.139467 Y213.657131 Z-0.125000
G00 Z3.000000

(End cutting path id: polyline7376-8)


(Start cutting path id: polyline7378-9)
(Change tool to Default tool)

G00 Z3.000000
G00 X4.162780 Y209.814116

G00 Z4.875000 (Fast pre-penetrate)
G01 Z-0.125000 F400.0(Penetrate)
G01 X14.576079 Y209.834991 Z-0.125000 F800.000000
G01 X22.757965 Y210.165402 Z-0.125000
G01 X24.458096 Y210.035757 Z-0.125000
G01 X27.645845 Y209.401287 Z-0.125000
G01 X28.814693 Y209.324849 Z-0.125000
G01 X29.558489 Y209.413643 Z-0.125000
G01 X30.289029 Y209.617398 Z-0.125000
G01 X32.852494 Y210.703697 Z-0.125000
G01 X33.808829 Y210.822494 Z-0.125000
G01 X34.446369 Y210.699622 Z-0.125000
G01 X35.030806 Y210.443188 Z-0.125000
G01 X37.541143 Y208.712524 Z-0.125000
G01 X38.059144 Y208.521072 Z-0.125000
G01 X38.590453 Y208.472018 Z-0.125000
G01 X39.214710 Y208.625291 Z-0.125000
G01 X39.939932 Y209.077040 Z-0.125000
G01 X41.873822 Y210.977778 Z-0.125000
G01 X42.510197 Y211.487841 Z-0.125000
G01 X43.159536 Y211.803092 Z-0.125000
G01 X43.690846 Y211.873286 Z-0.125000
G01 X44.328385 Y211.719907 Z-0.125000
G01 X44.979233 Y211.318455 Z-0.125000
G01 X45.741628 Y210.612336 Z-0.125000
G01 X47.235993 Y208.947104 Z-0.125000
G01 X48.047416 Y208.155709 Z-0.125000
G01 X48.884213 Y207.569129 Z-0.125000
G01 X49.747547 Y207.262424 Z-0.125000
G01 X50.597626 Y207.253534 Z-0.125000
G01 X51.660218 Y207.575770 Z-0.125000
G01 X54.927659 Y209.438328 Z-0.125000
G01 X56.335558 Y210.077429 Z-0.125000
G01 X57.610663 Y210.430250 Z-0.125000
G01 X58.885768 Y210.552699 Z-0.125000
G01 X60.267129 Y210.424456 Z-0.125000
G01 X61.621927 Y210.038429 Z-0.125000
G01 X63.016544 Y209.394593 Z-0.125000
G01 X66.084754 Y207.647657 Z-0.125000
G01 X66.961397 Y207.328120 Z-0.125000
G01 X67.811449 Y207.224668 Z-0.125000
G01 X68.767784 Y207.416597 Z-0.125000
G01 X69.617836 Y207.879194 Z-0.125000
G01 X70.510407 Y208.622566 Z-0.125000
G01 X73.006298 Y211.106868 Z-0.125000
G01 X73.801767 Y211.625345 Z-0.125000
G01 X74.611999 Y211.863999 Z-0.125000
G01 X75.249539 Y211.829206 Z-0.125000
G01 X76.033180 Y211.539091 Z-0.125000
G01 X76.807985 Y211.044479 Z-0.125000
G01 X79.287340 Y209.147631 Z-0.125000
G01 X80.137418 Y208.723663 Z-0.125000
G01 X80.987471 Y208.503424 Z-0.125000
G01 X81.837549 Y208.479241 Z-0.125000
G01 X82.793858 Y208.638811 Z-0.125000
G01 X86.194147 Y209.754664 Z-0.125000
G01 X87.894278 Y210.169477 Z-0.125000
G01 X89.700665 Y210.410750 Z-0.125000
G01 X91.719566 Y210.492586 Z-0.125000
G01 X93.844723 Y210.400934 Z-0.125000
G01 X95.651110 Y210.145638 Z-0.125000
G01 X97.351241 Y209.711643 Z-0.125000
G01 X100.432734 Y208.670191 Z-0.125000
G01 X101.814095 Y208.467997 Z-0.125000
G01 X102.770430 Y208.598542 Z-0.125000
G01 X103.647047 Y208.960227 Z-0.125000
G01 X104.576818 Y209.578610 Z-0.125000
G01 X106.808232 Y211.382484 Z-0.125000
G01 X107.552027 Y211.759780 Z-0.125000
G01 X108.189593 Y211.875005 Z-0.125000
G01 X108.933389 Y211.718928 Z-0.125000
G01 X109.618182 Y211.294934 Z-0.125000
G01 X110.452889 Y210.474621 Z-0.125000
G01 X111.947254 Y208.645161 Z-0.125000
G01 X112.684302 Y207.872288 Z-0.125000
G01 X113.409524 Y207.374528 Z-0.125000
G01 X114.140038 Y207.226600 Z-0.125000
G01 X114.897142 Y207.483325 Z-0.125000
G01 X115.733913 Y208.211563 Z-0.125000
G01 X116.534938 Y209.230445 Z-0.125000
G01 X118.168208 Y211.567401 Z-0.125000
G01 X119.081046 Y212.593190 Z-0.125000
G01 X119.917843 Y213.157836 Z-0.125000
G01 X120.728049 Y213.310448 Z-0.125000
G01 X121.578128 Y213.071661 Z-0.125000
G01 X122.428180 Y212.497728 Z-0.125000
G01 X123.320751 Y211.648893 Z-0.125000
G01 X126.072837 Y208.714006 Z-0.125000
G01 X127.056319 Y207.879538 Z-0.125000
G01 X128.006754 Y207.247078 Z-0.125000
G01 X129.122447 Y206.713494 Z-0.125000
G01 X130.291296 Y206.357788 Z-0.125000
G01 X131.672657 Y206.137153 Z-0.125000
G01 X133.160275 Y206.073150 Z-0.125000
G01 X134.754149 Y206.172871 Z-0.125000
G01 X136.135511 Y206.424463 Z-0.125000
G01 X137.304333 Y206.796202 Z-0.125000
G01 X138.606002 Y207.430090 Z-0.125000
G01 X139.442798 Y207.960368 Z-0.125000
G01 X140.444854 Y208.732527 Z-0.125000
G01 X143.420089 Y211.469453 Z-0.125000
G01 X144.494482 Y212.346334 Z-0.125000
G01 X145.592475 Y212.993424 Z-0.125000
G01 X146.655066 Y213.293567 Z-0.125000
G01 X147.186349 Y213.307961 Z-0.125000
G01 X147.823915 Y213.204641 Z-0.125000
G01 X148.461454 Y212.975882 Z-0.125000
G01 X149.112302 Y212.627294 Z-0.125000
G01 X150.197012 Y211.848124 Z-0.125000
G01 X153.337533 Y209.188562 Z-0.125000
G01 X155.062747 Y208.107079 Z-0.125000
G01 X155.899543 Y207.751109 Z-0.125000
G01 X156.855852 Y207.472662 Z-0.125000
G01 X158.874753 Y207.233982 Z-0.125000
G01 X163.656376 Y207.312007 Z-0.125000
G01 X168.437999 Y207.232341 Z-0.125000
G01 X169.819361 Y207.342434 Z-0.125000
G01 X170.988209 Y207.579844 Z-0.125000
G01 X172.356289 Y208.079509 Z-0.125000
G01 X173.657931 Y208.797746 Z-0.125000
G01 X174.825298 Y209.616472 Z-0.125000
G01 X177.387308 Y211.623546 Z-0.125000
G01 X178.585657 Y212.421158 Z-0.125000
G01 X179.701377 Y212.959081 Z-0.125000
G01 X180.763969 Y213.245519 Z-0.125000
G01 X181.826534 Y213.309389 Z-0.125000
G01 X182.995383 Y213.159238 Z-0.125000
G01 X187.139467 Y211.864898 Z-0.125000
G00 Z3.000000

(End cutting path id: polyline7378-9)


(Start cutting path id: polyline7380-6)
(Change tool to Default tool)

G00 Z3.000000
G00 X4.162780 Y208.476331

G00 Z4.875000 (Fast pre-penetrate)
G01 Z-0.125000 F400.0(Penetrate)
G01 X14.682336 Y208.509298 Z-0.125000 F800.000000
G01 X22.757965 Y208.842990 Z-0.125000
G01 X24.458096 Y208.716043 Z-0.125000
G01 X27.645845 Y208.080621 Z-0.125000
G01 X28.814693 Y208.001457 Z-0.125000
G01 X29.558489 Y208.088585 Z-0.125000
G01 X30.289029 Y208.291202 Z-0.125000
G01 X32.852494 Y209.379379 Z-0.125000
G01 X33.808829 Y209.499764 Z-0.125000
G01 X34.446369 Y209.377421 Z-0.125000
G01 X35.030806 Y209.120987 Z-0.125000
G01 X37.541143 Y207.388313 Z-0.125000
G01 X38.059144 Y207.197337 Z-0.125000
G01 X38.590453 Y207.149368 Z-0.125000
G01 X39.214710 Y207.304705 Z-0.125000
G01 X39.939932 Y207.759390 Z-0.125000
G01 X41.873822 Y209.664150 Z-0.125000
G01 X42.561843 Y210.206413 Z-0.125000
G01 X43.159536 Y210.483854 Z-0.125000
G01 X43.690846 Y210.549762 Z-0.125000
G01 X44.328385 Y210.390298 Z-0.125000
G01 X44.979233 Y209.982470 Z-0.125000
G01 X45.741628 Y209.269842 Z-0.125000
G01 X47.973042 Y206.874546 Z-0.125000
G01 X48.791239 Y206.281139 Z-0.125000
G01 X49.641291 Y205.953294 Z-0.125000
G01 X50.491370 Y205.921147 Z-0.125000
G01 X51.553961 Y206.227825 Z-0.125000
G01 X52.510270 Y206.721008 Z-0.125000
G01 X55.020634 Y208.237360 Z-0.125000
G01 X56.441841 Y208.885905 Z-0.125000
G01 X57.823176 Y209.258624 Z-0.125000
G01 X59.098281 Y209.365092 Z-0.125000
G01 X60.479642 Y209.223778 Z-0.125000
G01 X61.861004 Y208.817749 Z-0.125000
G01 X63.202519 Y208.188809 Z-0.125000
G01 X66.456678 Y206.305375 Z-0.125000
G01 X67.280166 Y206.006581 Z-0.125000
G01 X68.130245 Y205.901303 Z-0.125000
G01 X68.967015 Y206.047406 Z-0.125000
G01 X69.865777 Y206.499631 Z-0.125000
G01 X70.807931 Y207.264885 Z-0.125000
G01 X73.336895 Y209.759294 Z-0.125000
G01 X74.186947 Y210.307907 Z-0.125000
G01 X74.930769 Y210.533967 Z-0.125000
G01 X75.674565 Y210.502058 Z-0.125000
G01 X76.405105 Y210.239168 Z-0.125000
G01 X77.221211 Y209.737122 Z-0.125000
G01 X79.039425 Y208.327344 Z-0.125000
G01 X79.845213 Y207.795241 Z-0.125000
G01 X80.774958 Y207.367040 Z-0.125000
G01 X81.625036 Y207.173577 Z-0.125000
G01 X82.475089 Y207.156273 Z-0.125000
G01 X83.325167 Y207.278140 Z-0.125000
G01 X86.725429 Y208.262098 Z-0.125000
G01 X88.425560 Y208.642383 Z-0.125000
G01 X90.019435 Y208.845768 Z-0.125000
G01 X91.719566 Y208.915248 Z-0.125000
G01 X93.525953 Y208.834365 Z-0.125000
G01 X95.226084 Y208.597669 Z-0.125000
G01 X96.713702 Y208.248684 Z-0.125000
G01 X99.795195 Y207.326930 Z-0.125000
G01 X101.176556 Y207.144791 Z-0.125000
G01 X102.132865 Y207.257556 Z-0.125000
G01 X103.089200 Y207.621014 Z-0.125000
G01 X103.998281 Y208.191163 Z-0.125000
G01 X106.436334 Y210.091213 Z-0.125000
G01 X107.233258 Y210.463482 Z-0.125000
G01 X107.870823 Y210.549789 Z-0.125000
G01 X108.481798 Y210.427684 Z-0.125000
G01 X109.204957 Y210.017924 Z-0.125000
G01 X109.986323 Y209.294501 Z-0.125000
G01 X111.744398 Y207.203263 Z-0.125000
G01 X112.345477 Y206.592712 Z-0.125000
G01 X113.130601 Y206.053809 Z-0.125000
G01 X113.821269 Y205.902573 Z-0.125000
G01 X114.246295 Y205.974117 Z-0.125000
G01 X114.618219 Y206.142656 Z-0.125000
G01 X115.436389 Y206.818957 Z-0.125000
G01 X116.167802 Y207.702029 Z-0.125000
G01 X117.903361 Y210.131642 Z-0.125000
G01 X118.874433 Y211.219104 Z-0.125000
G01 X119.731894 Y211.808225 Z-0.125000
G01 X120.196766 Y211.958190 Z-0.125000
G01 X120.621792 Y211.988088 Z-0.125000
G01 X121.471871 Y211.768458 Z-0.125000
G01 X122.428180 Y211.154863 Z-0.125000
G01 X125.924089 Y207.753040 Z-0.125000
G01 X126.808404 Y207.026416 Z-0.125000
G01 X127.727830 Y206.411499 Z-0.125000
G01 X128.750549 Y205.896038 Z-0.125000
G01 X129.760013 Y205.543931 Z-0.125000
G01 X130.928861 Y205.298134 Z-0.125000
G01 X132.097683 Y205.195237 Z-0.125000
G01 X133.797814 Y205.519087 Z-0.125000
G01 X136.746486 Y206.479497 Z-0.125000
G01 X138.791951 Y207.520737 Z-0.125000
G01 X140.186594 Y208.426642 Z-0.125000
G01 X142.593638 Y210.454486 Z-0.125000
G01 X143.719677 Y211.266914 Z-0.125000
G01 X144.742422 Y211.772453 Z-0.125000
G01 X145.698731 Y211.981871 Z-0.125000
G01 X146.230040 Y211.976764 Z-0.125000
G01 X146.867579 Y211.853918 Z-0.125000
G01 X147.531709 Y211.597881 Z-0.125000
G01 X148.182530 Y211.234265 Z-0.125000
G01 X149.370561 Y210.351404 Z-0.125000
G01 X152.180485 Y207.932057 Z-0.125000
G01 X153.854052 Y206.828878 Z-0.125000
G01 X155.474491 Y206.191789 Z-0.125000
G01 X156.324570 Y206.015709 Z-0.125000
G01 X157.387161 Y205.914294 Z-0.125000
G01 X163.018837 Y206.089131 Z-0.125000
G01 X168.331743 Y205.903208 Z-0.125000
G01 X169.606848 Y205.994410 Z-0.125000
G01 X170.669440 Y206.204436 Z-0.125000
G01 X171.984364 Y206.684919 Z-0.125000
G01 X173.286033 Y207.420565 Z-0.125000
G01 X174.494728 Y208.304987 Z-0.125000
G01 X176.974082 Y210.332513 Z-0.125000
G01 X178.120785 Y211.125521 Z-0.125000
G01 X179.276351 Y211.688792 Z-0.125000
G01 X180.338916 Y211.952317 Z-0.125000
G01 X181.401508 Y211.969276 Z-0.125000
G01 X182.676613 Y211.713927 Z-0.125000
G01 X187.139467 Y209.999429 Z-0.125000
G00 Z3.000000

(End cutting path id: polyline7380-6)


(Start cutting path id: polyline7382-0)
(Change tool to Default tool)

G00 Z3.000000
G00 X4.162780 Y207.145373

G00 Z4.875000 (Fast pre-penetrate)
G01 Z-0.125000 F400.0(Penetrate)
G01 X14.682336 Y207.185060 Z-0.125000 F800.000000
G01 X22.757965 Y207.519758 Z-0.125000
G01 X24.458096 Y207.390959 Z-0.125000
G01 X27.645845 Y206.756171 Z-0.125000
G01 X28.814693 Y206.678860 Z-0.125000
G01 X29.558489 Y206.767125 Z-0.125000
G01 X30.289029 Y206.970510 Z-0.125000
G01 X32.852494 Y208.057417 Z-0.125000
G01 X33.808829 Y208.176717 Z-0.125000
G01 X34.446369 Y208.054030 Z-0.125000
G01 X35.030806 Y207.797570 Z-0.125000
G01 X37.541143 Y206.066271 Z-0.125000
G01 X38.059144 Y205.874977 Z-0.125000
G01 X38.590453 Y205.826268 Z-0.125000
G01 X39.214710 Y205.980202 Z-0.125000
G01 X39.939932 Y206.432877 Z-0.125000
G01 X41.873822 Y208.334911 Z-0.125000
G01 X42.510197 Y208.844392 Z-0.125000
G01 X43.159536 Y209.158452 Z-0.125000
G01 X43.690846 Y209.227270 Z-0.125000
G01 X44.328385 Y209.071960 Z-0.125000
G01 X44.979233 Y208.668471 Z-0.125000
G01 X45.667254 Y208.037017 Z-0.125000
G01 X47.235993 Y206.293415 Z-0.125000
G01 X48.047416 Y205.502868 Z-0.125000
G01 X48.884213 Y204.918219 Z-0.125000
G01 X49.747547 Y204.614583 Z-0.125000
G01 X50.597626 Y204.609980 Z-0.125000
G01 X51.660218 Y204.940285 Z-0.125000
G01 X55.020634 Y206.904893 Z-0.125000
G01 X56.548098 Y207.605191 Z-0.125000
G01 X57.823176 Y207.954997 Z-0.125000
G01 X59.204538 Y208.079880 Z-0.125000
G01 X60.585899 Y207.941741 Z-0.125000
G01 X61.967260 Y207.542327 Z-0.125000
G01 X63.388468 Y206.877826 Z-0.125000
G01 X66.549653 Y205.035747 Z-0.125000
G01 X67.492679 Y204.684618 Z-0.125000
G01 X68.342758 Y204.578997 Z-0.125000
G01 X69.192810 Y204.726079 Z-0.125000
G01 X70.082735 Y205.169096 Z-0.125000
G01 X71.105454 Y205.995865 Z-0.125000
G01 X72.964997 Y207.872711 Z-0.125000
G01 X73.667465 Y208.484745 Z-0.125000
G01 X74.452588 Y208.978430 Z-0.125000
G01 X75.249539 Y209.213750 Z-0.125000
G01 X75.887078 Y209.195441 Z-0.125000
G01 X76.684028 Y208.933345 Z-0.125000
G01 X77.520798 Y208.435929 Z-0.125000
G01 X80.124136 Y206.544690 Z-0.125000
G01 X81.093727 Y206.085162 Z-0.125000
G01 X82.050063 Y205.857144 Z-0.125000
G01 X82.900141 Y205.828755 Z-0.125000
G01 X83.856450 Y205.947526 Z-0.125000
G01 X87.256712 Y206.829857 Z-0.125000
G01 X88.850586 Y207.148997 Z-0.125000
G01 X90.231948 Y207.311848 Z-0.125000
G01 X91.719566 Y207.371247 Z-0.125000
G01 X93.313440 Y207.305048 Z-0.125000
G01 X94.801058 Y207.117009 Z-0.125000
G01 X96.394933 Y206.778052 Z-0.125000
G01 X99.263885 Y206.004650 Z-0.125000
G01 X100.751503 Y205.821108 Z-0.125000
G01 X101.707839 Y205.927100 Z-0.125000
G01 X102.717276 Y206.288944 Z-0.125000
G01 X103.740021 Y206.913466 Z-0.125000
G01 X106.157410 Y208.749725 Z-0.125000
G01 X106.914488 Y209.112389 Z-0.125000
G01 X107.658284 Y209.227376 Z-0.125000
G01 X108.388824 Y209.062859 Z-0.125000
G01 X109.114046 Y208.623677 Z-0.125000
G01 X109.918696 Y207.865197 Z-0.125000
G01 X111.568609 Y205.934482 Z-0.125000
G01 X112.262822 Y205.241486 Z-0.125000
G01 X113.037627 Y204.728910 Z-0.125000
G01 X113.715012 Y204.578918 Z-0.125000
G01 X114.432270 Y204.754363 Z-0.125000
G01 X115.138865 Y205.247492 Z-0.125000
G01 X115.981853 Y206.169114 Z-0.125000
G01 X117.779404 Y208.613279 Z-0.125000
G01 X118.573920 Y209.549056 Z-0.125000
G01 X119.452971 Y210.285655 Z-0.125000
G01 X120.303023 Y210.632656 Z-0.125000
G01 X120.728049 Y210.666337 Z-0.125000
G01 X121.259358 Y210.588338 Z-0.125000
G01 X122.335205 Y210.076106 Z-0.125000
G01 X123.337287 Y209.304873 Z-0.125000
G01 X126.147238 Y206.805833 Z-0.125000
G01 X127.076983 Y206.129109 Z-0.125000
G01 X128.006754 Y205.576660 Z-0.125000
G01 X129.122447 Y205.193041 Z-0.125000
G01 X130.716322 Y205.058845 Z-0.125000
G01 X131.885170 Y205.130811 Z-0.125000
G01 X133.054018 Y205.333985 Z-0.125000
G01 X136.454280 Y206.347655 Z-0.125000
G01 X138.884925 Y207.576537 Z-0.125000
G01 X140.279569 Y208.492603 Z-0.125000
G01 X141.684557 Y209.546331 Z-0.125000
G01 X142.603983 Y210.104786 Z-0.125000
G01 X143.679830 Y210.538094 Z-0.125000
G01 X144.636166 Y210.667793 Z-0.125000
G01 X145.698731 Y210.499677 Z-0.125000
G01 X146.880861 Y209.943920 Z-0.125000
G01 X147.965599 Y209.164776 Z-0.125000
G01 X150.527582 Y206.932225 Z-0.125000
G01 X151.715613 Y206.021159 Z-0.125000
G01 X153.017282 Y205.268976 Z-0.125000
G01 X154.305669 Y204.810930 Z-0.125000
G01 X155.368234 Y204.626410 Z-0.125000
G01 X156.643339 Y204.580611 Z-0.125000
G01 X160.787423 Y204.899275 Z-0.125000
G01 X162.700067 Y204.945100 Z-0.125000
G01 X168.331743 Y204.577727 Z-0.125000
G01 X169.394335 Y204.636702 Z-0.125000
G01 X170.350644 Y204.807623 Z-0.125000
G01 X171.200722 Y205.076783 Z-0.125000
G01 X172.077339 Y205.482521 Z-0.125000
G01 X173.668276 Y206.540298 Z-0.125000
G01 X176.395571 Y208.858839 Z-0.125000
G01 X177.387308 Y209.612794 Z-0.125000
G01 X178.492683 Y210.247079 Z-0.125000
G01 X179.595121 Y210.599848 Z-0.125000
G01 X180.763969 Y210.647393 Z-0.125000
G01 X182.039047 Y210.363813 Z-0.125000
G01 X183.141485 Y209.918282 Z-0.125000
G01 X185.930772 Y208.561527 Z-0.125000
G01 X187.139467 Y208.078848 Z-0.125000
G00 Z3.000000

(End cutting path id: polyline7382-0)


(Start cutting path id: polyline7384-4)
(Change tool to Default tool)

G00 Z3.000000
G00 X4.162780 Y205.818515

G00 Z4.875000 (Fast pre-penetrate)
G01 Z-0.125000 F400.0(Penetrate)
G01 X14.576079 Y205.861907 Z-0.125000 F800.000000
G01 X22.651708 Y206.197583 Z-0.125000
G01 X24.458096 Y206.060397 Z-0.125000
G01 X27.539588 Y205.444977 Z-0.125000
G01 X28.708436 Y205.353114 Z-0.125000
G01 X29.983541 Y205.556949 Z-0.125000
G01 X32.639981 Y206.670420 Z-0.125000
G01 X33.171264 Y206.812077 Z-0.125000
G01 X33.808829 Y206.853352 Z-0.125000
G01 X34.446369 Y206.729395 Z-0.125000
G01 X35.030806 Y206.472961 Z-0.125000
G01 X37.541143 Y204.746452 Z-0.125000
G01 X38.059144 Y204.554047 Z-0.125000
G01 X38.590453 Y204.502744 Z-0.125000
G01 X39.214710 Y204.651890 Z-0.125000
G01 X39.948187 Y205.104115 Z-0.125000
G01 X41.873822 Y206.990010 Z-0.125000
G01 X42.510197 Y207.503671 Z-0.125000
G01 X43.159536 Y207.826542 Z-0.125000
G01 X43.690846 Y207.905387 Z-0.125000
G01 X44.328385 Y207.764338 Z-0.125000
G01 X44.979233 Y207.375983 Z-0.125000
G01 X45.816003 Y206.607237 Z-0.125000
G01 X48.047416 Y204.232129 Z-0.125000
G01 X48.884213 Y203.632293 Z-0.125000
G01 X49.747547 Y203.305929 Z-0.125000
G01 X50.703883 Y203.290557 Z-0.125000
G01 X51.766474 Y203.619169 Z-0.125000
G01 X55.113608 Y205.540465 Z-0.125000
G01 X56.654354 Y206.232985 Z-0.125000
G01 X58.035689 Y206.593135 Z-0.125000
G01 X59.310794 Y206.694417 Z-0.125000
G01 X60.692155 Y206.554241 Z-0.125000
G01 X62.073517 Y206.156785 Z-0.125000
G01 X63.481442 Y205.507339 Z-0.125000
G01 X66.642627 Y203.704074 Z-0.125000
G01 X67.598936 Y203.356915 Z-0.125000
G01 X68.449015 Y203.256108 Z-0.125000
G01 X69.405323 Y203.438882 Z-0.125000
G01 X70.268684 Y203.889070 Z-0.125000
G01 X71.179855 Y204.618208 Z-0.125000
G01 X73.113745 Y206.544214 Z-0.125000
G01 X73.832750 Y207.163232 Z-0.125000
G01 X74.638564 Y207.661204 Z-0.125000
G01 X75.462052 Y207.894169 Z-0.125000
G01 X76.205847 Y207.848714 Z-0.125000
G01 X76.962952 Y207.576273 Z-0.125000
G01 X77.799722 Y207.075364 Z-0.125000
G01 X79.617936 Y205.725276 Z-0.125000
G01 X80.496034 Y205.167906 Z-0.125000
G01 X81.425805 Y204.751690 Z-0.125000
G01 X82.368832 Y204.535208 Z-0.125000
G01 X83.218911 Y204.503062 Z-0.125000
G01 X84.175220 Y204.609530 Z-0.125000
G01 X87.575482 Y205.418439 Z-0.125000
G01 X89.169356 Y205.711941 Z-0.125000
G01 X91.825822 Y205.898128 Z-0.125000
G01 X93.313440 Y205.835396 Z-0.125000
G01 X94.694802 Y205.668073 Z-0.125000
G01 X99.051372 Y204.665145 Z-0.125000
G01 X100.538990 Y204.498564 Z-0.125000
G01 X101.601582 Y204.621542 Z-0.125000
G01 X102.531327 Y204.948725 Z-0.125000
G01 X103.554072 Y205.545307 Z-0.125000
G01 X106.157410 Y207.461787 Z-0.125000
G01 X106.914488 Y207.802650 Z-0.125000
G01 X107.658284 Y207.903615 Z-0.125000
G01 X108.481798 Y207.695441 Z-0.125000
G01 X109.287586 Y207.167968 Z-0.125000
G01 X110.053924 Y206.425045 Z-0.125000
G01 X111.791732 Y204.440514 Z-0.125000
G01 X112.593392 Y203.720663 Z-0.125000
G01 X113.316550 Y203.337891 Z-0.125000
G01 X113.927525 Y203.259310 Z-0.125000
G01 X114.711193 Y203.504076 Z-0.125000
G01 X115.585164 Y204.195987 Z-0.125000
G01 X116.410107 Y205.146951 Z-0.125000
G01 X118.235809 Y207.529600 Z-0.125000
G01 X119.229821 Y208.555653 Z-0.125000
G01 X120.103792 Y209.123131 Z-0.125000
G01 X121.046845 Y209.344534 Z-0.125000
G01 X121.896897 Y209.219942 Z-0.125000
G01 X122.893079 Y208.764118 Z-0.125000
G01 X126.426161 Y206.191419 Z-0.125000
G01 X127.355906 Y205.655056 Z-0.125000
G01 X127.953626 Y205.442860 Z-0.125000
G01 X129.016191 Y205.211244 Z-0.125000
G01 X130.716322 Y205.058845 Z-0.125000
G01 X131.778914 Y205.118508 Z-0.125000
G01 X132.841505 Y205.288423 Z-0.125000
G01 X135.710458 Y206.096777 Z-0.125000
G01 X136.653511 Y206.433909 Z-0.125000
G01 X138.606002 Y207.419375 Z-0.125000
G01 X140.186594 Y208.411005 Z-0.125000
G01 X141.342160 Y208.984833 Z-0.125000
G01 X142.617265 Y209.320033 Z-0.125000
G01 X143.786087 Y209.272408 Z-0.125000
G01 X144.835397 Y208.920354 Z-0.125000
G01 X145.899444 Y208.291864 Z-0.125000
G01 X146.973836 Y207.452580 Z-0.125000
G01 X149.535846 Y205.227596 Z-0.125000
G01 X150.971817 Y204.227869 Z-0.125000
G01 X152.499281 Y203.551224 Z-0.125000
G01 X153.349334 Y203.352602 Z-0.125000
G01 X154.199412 Y203.264522 Z-0.125000
G01 X155.687030 Y203.309395 Z-0.125000
G01 X159.406062 Y203.799800 Z-0.125000
G01 X161.424962 Y203.924657 Z-0.125000
G01 X163.550120 Y203.829486 Z-0.125000
G01 X168.012973 Y203.271216 Z-0.125000
G01 X169.181822 Y203.277619 Z-0.125000
G01 X170.244387 Y203.446026 Z-0.125000
G01 X171.519492 Y203.909734 Z-0.125000
G01 X172.759169 Y204.657657 Z-0.125000
G01 X173.916217 Y205.581264 Z-0.125000
G01 X176.312916 Y207.734599 Z-0.125000
G01 X177.387308 Y208.537344 Z-0.125000
