%
(Header)
(Generated by gcodetools from Inkscape.)
(Using default header. To add your own header create file "header" in the output dir.)
M3
(Header end.)
G21 (All units in mm)

(Start cutting path id: polyline16613)
(Change tool to Default tool)

G00 Z3.000000
G00 X39.636846 Y83.403104

G00 Z4.875000 (Fast pre-penetrate)
G01 Z-0.125000 F400.0(Penetrate)
G01 X45.430112 Y83.054694 Z-0.125000 F800.000000
G01 X50.866503 Y82.112780 Z-0.125000
G01 X55.611115 Y80.632691 Z-0.125000
G01 X58.537622 Y79.221687 Z-0.125000
G01 X60.129304 Y78.163511 Z-0.125000
G01 X61.404256 Y77.029903 Z-0.125000
G01 X62.680826 Y75.225925 Z-0.125000
G01 X63.088922 Y73.980786 Z-0.125000
G01 X63.134418 Y72.723759 Z-0.125000
G01 X62.522803 Y70.857544 Z-0.125000
G01 X61.671009 Y69.653917 Z-0.125000
G01 X59.760231 Y67.954874 Z-0.125000
G01 X58.092992 Y66.918170 Z-0.125000
G01 X55.066343 Y65.546314 Z-0.125000
G01 X52.743610 Y64.773999 Z-0.125000
G01 X48.891619 Y63.857851 Z-0.125000
G01 X44.718292 Y63.259181 Z-0.125000
G01 X40.368395 Y62.997655 Z-0.125000
G01 X33.137363 Y63.327083 Z-0.125000
G01 X29.055464 Y63.970938 Z-0.125000
G01 X25.341082 Y64.923246 Z-0.125000
G01 X23.133303 Y65.712926 Z-0.125000
G01 X20.309738 Y67.098413 Z-0.125000
G01 X18.157351 Y68.680697 Z-0.125000
G01 X16.750890 Y70.403764 Z-0.125000
G01 X16.252983 Y71.600669 Z-0.125000
G01 X16.116557 Y72.814316 Z-0.125000
G01 X16.343789 Y74.025598 Z-0.125000
G01 X16.931070 Y75.215407 Z-0.125000
G01 X17.869436 Y76.365011 Z-0.125000
G01 X19.144388 Y77.456422 Z-0.125000
G01 X21.643256 Y78.946904 Z-0.125000
G01 X25.928985 Y80.580286 Z-0.125000
G01 X29.713945 Y81.483240 Z-0.125000
G01 X35.272199 Y82.196179 Z-0.125000
G01 X39.636846 Y82.337149 Z-0.125000
G01 X45.430112 Y81.988739 Z-0.125000
G01 X50.866503 Y81.046762 Z-0.125000
G01 X55.611115 Y79.566736 Z-0.125000
G01 X58.537622 Y78.155731 Z-0.125000
G01 X60.129304 Y77.097556 Z-0.125000
G01 X61.404256 Y75.964009 Z-0.125000
G01 X62.680826 Y74.159970 Z-0.125000
G01 X63.088922 Y72.914831 Z-0.125000
G01 X63.134418 Y71.657804 Z-0.125000
G01 X62.522803 Y69.791588 Z-0.125000
G01 X61.671009 Y68.587962 Z-0.125000
G01 X59.760231 Y66.888918 Z-0.125000
G01 X58.092992 Y65.852215 Z-0.125000
G01 X55.066343 Y64.480358 Z-0.125000
G01 X52.743610 Y63.707981 Z-0.125000
G01 X48.891619 Y62.791896 Z-0.125000
G01 X44.718292 Y62.193225 Z-0.125000
G01 X40.368395 Y61.931638 Z-0.125000
G01 X33.137363 Y62.261065 Z-0.125000
G01 X29.055464 Y62.904983 Z-0.125000
G01 X25.341082 Y63.857229 Z-0.125000
G01 X23.133303 Y64.646970 Z-0.125000
G01 X20.309738 Y66.032457 Z-0.125000
G01 X18.157351 Y67.614742 Z-0.125000
G01 X16.750890 Y69.337809 Z-0.125000
G01 X16.252983 Y70.534714 Z-0.125000
G01 X16.116557 Y71.748360 Z-0.125000
G01 X16.343789 Y72.959580 Z-0.125000
G01 X16.931070 Y74.149452 Z-0.125000
G01 X17.869436 Y75.299055 Z-0.125000
G01 X19.144388 Y76.390466 Z-0.125000
G01 X21.643256 Y77.880949 Z-0.125000
G01 X25.928985 Y79.514331 Z-0.125000
G01 X31.059101 Y80.650056 Z-0.125000
G01 X36.717683 Y81.215490 Z-0.125000
G01 X41.099259 Y81.241444 Z-0.125000
G01 X46.836261 Y80.741421 Z-0.125000
G01 X52.129753 Y79.658350 Z-0.125000
G01 X56.653669 Y78.056399 Z-0.125000
G01 X59.371677 Y76.571144 Z-0.125000
G01 X60.807702 Y75.473198 Z-0.125000
G01 X61.916477 Y74.308284 Z-0.125000
G01 X62.929903 Y72.474121 Z-0.125000
G01 X63.134418 Y70.591848 Z-0.125000
G01 X62.816567 Y69.341979 Z-0.125000
G01 X62.140410 Y68.118249 Z-0.125000
G01 X61.116342 Y66.939269 Z-0.125000
G01 X58.963954 Y65.293626 Z-0.125000
G01 X57.150517 Y64.302730 Z-0.125000
G01 X53.932610 Y63.012904 Z-0.125000
G01 X51.503885 Y62.303076 Z-0.125000
G01 X47.529285 Y61.489933 Z-0.125000
G01 X40.368395 Y60.865682 Z-0.125000
G01 X33.137363 Y61.195110 Z-0.125000
G01 X30.382073 Y61.588767 Z-0.125000
G01 X26.530083 Y62.441494 Z-0.125000
G01 X24.207349 Y63.171612 Z-0.125000
G01 X21.180763 Y64.480172 Z-0.125000
G01 X18.795107 Y66.002832 Z-0.125000
G01 X17.133282 Y67.685506 Z-0.125000
G01 X16.457125 Y68.867038 Z-0.125000
G01 X16.139336 Y70.074710 Z-0.125000
G01 X16.184832 Y71.289540 Z-0.125000
G01 X16.592867 Y72.492419 Z-0.125000
G01 X17.357215 Y73.664429 Z-0.125000
G01 X18.465990 Y74.787145 Z-0.125000
G01 X20.736070 Y76.340427 Z-0.125000
G01 X24.766996 Y78.083099 Z-0.125000
G01 X29.713945 Y79.351329 Z-0.125000
G01 X35.272199 Y80.064269 Z-0.125000
G01 X39.636846 Y80.205238 Z-0.125000
G01 X45.430112 Y79.856828 Z-0.125000
G01 X50.866503 Y78.914852 Z-0.125000
G01 X55.611115 Y77.434825 Z-0.125000
G01 X58.537622 Y76.023758 Z-0.125000
G01 X60.129304 Y74.965645 Z-0.125000
G01 X61.404256 Y73.832036 Z-0.125000
G01 X62.342623 Y72.640173 Z-0.125000
G01 X62.929903 Y71.408166 Z-0.125000
G01 X63.134418 Y69.525893 Z-0.125000
G01 X62.816567 Y68.275961 Z-0.125000
G01 X62.140410 Y67.052232 Z-0.125000
G01 X61.116342 Y65.873314 Z-0.125000
G01 X58.963954 Y64.227671 Z-0.125000
G01 X57.150517 Y63.236713 Z-0.125000
G01 X53.932610 Y61.946948 Z-0.125000
G01 X51.503885 Y61.237121 Z-0.125000
G01 X47.529285 Y60.423977 Z-0.125000
G01 X40.368395 Y59.799727 Z-0.125000
G01 X33.137363 Y60.129154 Z-0.125000
G01 X30.382073 Y60.522812 Z-0.125000
G01 X26.530083 Y61.375539 Z-0.125000
G01 X24.207349 Y62.105656 Z-0.125000
G01 X21.180763 Y63.414216 Z-0.125000
G01 X18.795107 Y64.936814 Z-0.125000
G01 X17.133282 Y66.619551 Z-0.125000
G01 X16.457125 Y67.801021 Z-0.125000
G01 X16.139336 Y69.008755 Z-0.125000
G01 X16.184832 Y70.223584 Z-0.125000
G01 X16.592867 Y71.426464 Z-0.125000
G01 X17.357215 Y72.598473 Z-0.125000
G01 X18.465990 Y73.721252 Z-0.125000
G01 X21.643256 Y75.749038 Z-0.125000
G01 X25.928985 Y77.382420 Z-0.125000
G01 X31.059101 Y78.518083 Z-0.125000
G01 X36.717683 Y79.083518 Z-0.125000
G01 X41.099259 Y79.109533 Z-0.125000
G01 X46.836261 Y78.609448 Z-0.125000
G01 X52.129753 Y77.526440 Z-0.125000
G01 X56.653669 Y75.924426 Z-0.125000
G01 X59.371677 Y74.439233 Z-0.125000
G01 X60.807702 Y73.341287 Z-0.125000
G01 X61.916477 Y72.176311 Z-0.125000
G01 X62.680826 Y70.962042 Z-0.125000
G01 X63.088922 Y69.716965 Z-0.125000
G01 X63.020709 Y67.832887 Z-0.125000
G01 X62.522803 Y66.593722 Z-0.125000
G01 X61.671009 Y65.390096 Z-0.125000
G01 X60.478586 Y64.240305 Z-0.125000
G01 X58.092992 Y62.654349 Z-0.125000
G01 X56.140389 Y61.712932 Z-0.125000
G01 X52.743610 Y60.510115 Z-0.125000
G01 X50.218228 Y59.865451 Z-0.125000
G01 X46.136330 Y59.158175 Z-0.125000
G01 X38.905297 Y58.723253 Z-0.125000
G01 X31.744407 Y59.241885 Z-0.125000
G01 X29.055464 Y59.707117 Z-0.125000
G01 X25.341082 Y60.659363 Z-0.125000
G01 X23.133303 Y61.449042 Z-0.125000
G01 X20.309738 Y62.834529 Z-0.125000
G01 X18.795107 Y63.870921 Z-0.125000
G01 X17.133282 Y65.553596 Z-0.125000
G01 X16.457125 Y66.735128 Z-0.125000
G01 X16.139336 Y67.942737 Z-0.125000
G01 X16.184832 Y69.157567 Z-0.125000
G01 X16.592867 Y70.360509 Z-0.125000
G01 X17.357215 Y71.532518 Z-0.125000
G01 X18.465990 Y72.655235 Z-0.125000
G01 X21.643256 Y74.683083 Z-0.125000
G01 X25.928985 Y76.316465 Z-0.125000
G01 X31.059101 Y77.452127 Z-0.125000
G01 X36.717683 Y78.017624 Z-0.125000
G01 X41.099259 Y78.043578 Z-0.125000
G01 X46.836261 Y77.543493 Z-0.125000
G01 X52.129753 Y76.460484 Z-0.125000
G01 X56.653669 Y74.858533 Z-0.125000
G01 X59.371677 Y73.373278 Z-0.125000
G01 X60.807702 Y72.275332 Z-0.125000
G01 X61.916477 Y71.110356 Z-0.125000
G01 X62.680826 Y69.896149 Z-0.125000
G01 X63.088922 Y68.651009 Z-0.125000
G01 X63.020709 Y66.766931 Z-0.125000
G01 X62.522803 Y65.527767 Z-0.125000
G01 X61.671009 Y64.324140 Z-0.125000
G01 X60.478586 Y63.174288 Z-0.125000
G01 X58.963954 Y62.095760 Z-0.125000
G01 X57.150517 Y61.104802 Z-0.125000
G01 X53.932610 Y59.815038 Z-0.125000
G01 X51.503885 Y59.105210 Z-0.125000
G01 X47.529285 Y58.292067 Z-0.125000
G01 X40.368395 Y57.667816 Z-0.125000
G01 X33.137363 Y57.997244 Z-0.125000
G01 X30.382073 Y58.390901 Z-0.125000
G01 X26.530083 Y59.243628 Z-0.125000
G01 X24.207349 Y59.973745 Z-0.125000
G01 X21.180763 Y61.282306 Z-0.125000
G01 X19.513461 Y62.276811 Z-0.125000
G01 X17.602683 Y63.912496 Z-0.125000
G01 X16.750890 Y65.073925 Z-0.125000
G01 X16.252983 Y66.270892 Z-0.125000
G01 X16.116557 Y67.484539 Z-0.125000
G01 X16.343789 Y68.695759 Z-0.125000
G01 X16.931070 Y69.885568 Z-0.125000
G01 X17.869436 Y71.035234 Z-0.125000
G01 X19.144388 Y72.126583 Z-0.125000
G01 X20.736070 Y73.142561 Z-0.125000
G01 X24.766996 Y74.885233 Z-0.125000
G01 X29.713945 Y76.153463 Z-0.125000
G01 X35.272199 Y76.866403 Z-0.125000
G01 X39.636846 Y77.007372 Z-0.125000
G01 X45.430112 Y76.658962 Z-0.125000
G01 X50.866503 Y75.716986 Z-0.125000
G01 X55.611115 Y74.236897 Z-0.125000
G01 X59.371677 Y72.307260 Z-0.125000
G01 X60.807702 Y71.209377 Z-0.125000
G01 X61.916477 Y70.044400 Z-0.125000
G01 X62.680826 Y68.830131 Z-0.125000
G01 X63.088922 Y67.585054 Z-0.125000
G01 X63.020709 Y65.700976 Z-0.125000
G01 X62.522803 Y64.461811 Z-0.125000
G01 X61.671009 Y63.258185 Z-0.125000
G01 X60.478586 Y62.108395 Z-0.125000
G01 X58.963954 Y61.029805 Z-0.125000
G01 X57.150517 Y60.038847 Z-0.125000
G01 X53.932610 Y58.749082 Z-0.125000
G01 X51.503885 Y58.039255 Z-0.125000
G01 X47.529285 Y57.226111 Z-0.125000
G01 X40.368395 Y56.601861 Z-0.125000
G01 X33.137363 Y56.931288 Z-0.125000
G01 X30.382073 Y57.324883 Z-0.125000
G01 X26.530083 Y58.177673 Z-0.125000
G01 X24.207349 Y58.907790 Z-0.125000
G01 X21.180763 Y60.216350 Z-0.125000
G01 X19.513461 Y61.210856 Z-0.125000
G01 X17.602683 Y62.846541 Z-0.125000
G01 X16.750890 Y64.007970 Z-0.125000
G01 X16.252983 Y65.204937 Z-0.125000
G01 X16.116557 Y66.418584 Z-0.125000
G01 X16.343789 Y67.629803 Z-0.125000
G01 X16.931070 Y68.819613 Z-0.125000
G01 X17.869436 Y69.969279 Z-0.125000
G01 X19.144388 Y71.060627 Z-0.125000
G01 X20.736070 Y72.076543 Z-0.125000
G01 X24.766996 Y73.819278 Z-0.125000
G01 X29.713945 Y75.087507 Z-0.125000
G01 X35.272199 Y75.800447 Z-0.125000
G01 X41.099259 Y75.911605 Z-0.125000
G01 X46.836261 Y75.411582 Z-0.125000
G01 X52.129753 Y74.328511 Z-0.125000
G01 X56.653669 Y72.726560 Z-0.125000
G01 X60.129304 Y70.701823 Z-0.125000
G01 X61.404256 Y69.568215 Z-0.125000
G01 X62.342623 Y68.376352 Z-0.125000
G01 X62.929903 Y67.144344 Z-0.125000
G01 X63.157135 Y65.890865 Z-0.125000
G01 X62.816567 Y64.012140 Z-0.125000
G01 X62.140410 Y62.788410 Z-0.125000
G01 X61.116342 Y61.609492 Z-0.125000
G01 X59.760231 Y60.493186 Z-0.125000
G01 X58.092992 Y59.456421 Z-0.125000
G01 X56.140389 Y58.515004 Z-0.125000
G01 X52.743610 Y57.312249 Z-0.125000
G01 X50.218228 Y56.667522 Z-0.125000
G01 X46.136330 Y55.960309 Z-0.125000
G01 X38.905297 Y55.525325 Z-0.125000
G01 X33.137363 Y55.865333 Z-0.125000
G01 X30.382073 Y56.258928 Z-0.125000
G01 X26.530083 Y57.111717 Z-0.125000
G01 X24.207349 Y57.841835 Z-0.125000
G01 X21.180763 Y59.150395 Z-0.125000
G01 X19.513461 Y60.144901 Z-0.125000
G01 X17.602683 Y61.780586 Z-0.125000
G01 X16.750890 Y62.942014 Z-0.125000
G01 X16.252983 Y64.138919 Z-0.125000
G01 X16.116557 Y65.352566 Z-0.125000
G01 X16.343789 Y66.563848 Z-0.125000
G01 X16.931070 Y67.753657 Z-0.125000
G01 X17.869436 Y68.903323 Z-0.125000
G01 X19.144388 Y69.994672 Z-0.125000
G01 X20.736070 Y71.010588 Z-0.125000
G01 X24.766996 Y72.753322 Z-0.125000
G01 X29.713945 Y74.021552 Z-0.125000
G01 X35.272199 Y74.734492 Z-0.125000
G01 X41.099259 Y74.845649 Z-0.125000
G01 X46.836261 Y74.345627 Z-0.125000
G01 X52.129753 Y73.262556 Z-0.125000
G01 X56.653669 Y71.660604 Z-0.125000
G01 X60.129304 Y69.635868 Z-0.125000
G01 X61.404256 Y68.502260 Z-0.125000
G01 X62.342623 Y67.310396 Z-0.125000
G01 X62.929903 Y66.078389 Z-0.125000
G01 X63.157135 Y64.824910 Z-0.125000
G01 X62.816567 Y62.946184 Z-0.125000
G01 X62.140410 Y61.722455 Z-0.125000
G01 X61.116342 Y60.543475 Z-0.125000
G01 X59.760231 Y59.427231 Z-0.125000
G01 X58.092992 Y58.390528 Z-0.125000
G01 X56.140389 Y57.449111 Z-0.125000
G01 X52.743610 Y56.246294 Z-0.125000
G01 X50.218228 Y55.601629 Z-0.125000
G01 X46.136330 Y54.894353 Z-0.125000
G01 X38.905297 Y54.459370 Z-0.125000
G01 X33.137363 Y54.799378 Z-0.125000
G01 X30.382073 Y55.192973 Z-0.125000
G01 X26.530083 Y56.045762 Z-0.125000
G01 X24.207349 Y56.775879 Z-0.125000
G01 X21.180763 Y58.084440 Z-0.125000
G01 X19.513461 Y59.078883 Z-0.125000
G01 X17.602683 Y60.714630 Z-0.125000
G01 X16.750890 Y61.876059 Z-0.125000
G01 X16.252983 Y63.073026 Z-0.125000
G01 X16.116557 Y64.286673 Z-0.125000
G01 X16.343789 Y65.497892 Z-0.125000
G01 X16.931070 Y66.687702 Z-0.125000
G01 X17.869436 Y67.837368 Z-0.125000
G01 X19.144388 Y68.928716 Z-0.125000
G01 X20.736070 Y69.944632 Z-0.125000
G01 X24.766996 Y71.687367 Z-0.125000
G01 X29.713945 Y72.955597 Z-0.125000
G01 X35.272199 Y73.668536 Z-0.125000
G01 X39.636846 Y73.809506 Z-0.125000
G01 X45.430112 Y73.461034 Z-0.125000
G01 X50.866503 Y72.519120 Z-0.125000
G01 X55.611115 Y71.039031 Z-0.125000
G01 X59.371677 Y69.109457 Z-0.125000
G01 X60.807702 Y68.011448 Z-0.125000
G01 X61.916477 Y66.846534 Z-0.125000
G01 X62.680826 Y65.632265 Z-0.125000
G01 X63.088922 Y64.387188 Z-0.125000
G01 X63.020709 Y62.503110 Z-0.125000
G01 X62.522803 Y61.263945 Z-0.125000
G01 X61.671009 Y60.060257 Z-0.125000
G01 X60.478586 Y58.910466 Z-0.125000
G01 X58.963954 Y57.831939 Z-0.125000
G01 X57.150517 Y56.840981 Z-0.125000
G01 X53.932610 Y55.551216 Z-0.125000
G01 X51.503885 Y54.841388 Z-0.125000
G01 X47.529285 Y54.028183 Z-0.125000
G01 X40.368395 Y53.403995 Z-0.125000
G01 X33.137363 Y53.733422 Z-0.125000
G01 X30.382073 Y54.127017 Z-0.125000
G01 X26.530083 Y54.979806 Z-0.125000
G01 X24.207349 Y55.709924 Z-0.125000
G01 X21.180763 Y57.018484 Z-0.125000
G01 X19.513461 Y58.012990 Z-0.125000
G01 X17.602683 Y59.648675 Z-0.125000
G01 X16.750890 Y60.810104 Z-0.125000
G01 X16.252983 Y62.007008 Z-0.125000
G01 X16.116557 Y63.220655 Z-0.125000
G01 X16.343789 Y64.431937 Z-0.125000
G01 X16.931070 Y65.621747 Z-0.125000
G01 X17.869436 Y66.771350 Z-0.125000
G01 X19.144388 Y67.862761 Z-0.125000
G01 X20.736070 Y68.878677 Z-0.125000
G01 X24.766996 Y70.621412 Z-0.125000
G01 X29.713945 Y71.889579 Z-0.125000
G01 X35.272199 Y72.602581 Z-0.125000
G01 X39.636846 Y72.743551 Z-0.125000
G01 X45.430112 Y72.395141 Z-0.125000
G01 X50.866503 Y71.453164 Z-0.125000
G01 X55.611115 Y69.973075 Z-0.125000
G01 X59.371677 Y68.043439 Z-0.125000
G01 X60.807702 Y66.945493 Z-0.125000
G01 X61.916477 Y65.780579 Z-0.125000
G01 X62.680826 Y64.566310 Z-0.125000
G01 X63.088922 Y63.321232 Z-0.125000
G01 X63.020709 Y61.437092 Z-0.125000
G01 X62.522803 Y60.197928 Z-0.125000
G01 X61.671009 Y58.994364 Z-0.125000
G01 X60.478586 Y57.844511 Z-0.125000
G01 X58.963954 Y56.765983 Z-0.125000
G01 X57.150517 Y55.775025 Z-0.125000
G01 X53.932610 Y54.485261 Z-0.125000
G01 X51.503885 Y53.775433 Z-0.125000
G01 X47.529285 Y52.962227 Z-0.125000
G01 X40.368395 Y52.338040 Z-0.125000
G01 X33.137363 Y52.667467 Z-0.125000
G01 X30.382073 Y53.061062 Z-0.125000
G01 X26.530083 Y53.913851 Z-0.125000
G01 X24.207349 Y54.643969 Z-0.125000
G01 X21.180763 Y55.952529 Z-0.125000
G01 X19.513461 Y56.946972 Z-0.125000
G01 X17.602683 Y58.582719 Z-0.125000
G01 X16.750890 Y59.744148 Z-0.125000
G01 X16.252983 Y60.941115 Z-0.125000
G01 X16.116557 Y62.154700 Z-0.125000
G01 X16.343789 Y63.365982 Z-0.125000
G01 X16.931070 Y64.555791 Z-0.125000
G01 X17.869436 Y65.705457 Z-0.125000
G01 X19.144388 Y66.796806 Z-0.125000
G01 X20.736070 Y67.812722 Z-0.125000
G01 X24.766996 Y69.555456 Z-0.125000
G01 X29.713945 Y70.823686 Z-0.125000
G01 X35.272199 Y71.536626 Z-0.125000
G01 X39.636846 Y71.677533 Z-0.125000
G01 X45.430112 Y71.329123 Z-0.125000
G01 X50.866503 Y70.387209 Z-0.125000
G01 X55.611115 Y68.907120 Z-0.125000
G01 X59.371677 Y66.977484 Z-0.125000
G01 X60.807702 Y65.879538 Z-0.125000
G01 X61.916477 Y64.714623 Z-0.125000
G01 X62.680826 Y63.500354 Z-0.125000
G01 X63.088922 Y62.255215 Z-0.125000
G01 X63.020709 Y60.371137 Z-0.125000
G01 X62.522803 Y59.131972 Z-0.125000
G01 X61.671009 Y57.928346 Z-0.125000
G01 X60.478586 Y56.778556 Z-0.125000
G01 X58.963954 Y55.700028 Z-0.125000
G01 X57.150517 Y54.709070 Z-0.125000
G01 X53.932610 Y53.419306 Z-0.125000
G01 X51.503885 Y52.709478 Z-0.125000
G01 X47.529285 Y51.896272 Z-0.125000
G01 X40.368395 Y51.272084 Z-0.125000
G01 X33.137363 Y51.601512 Z-0.125000
G01 X30.382073 Y51.995107 Z-0.125000
G01 X26.530083 Y52.847896 Z-0.125000
G01 X24.207349 Y53.578013 Z-0.125000
G01 X21.180763 Y54.886511 Z-0.125000
G01 X19.513461 Y55.881017 Z-0.125000
G01 X17.602683 Y57.516764 Z-0.125000
G01 X16.750890 Y58.678193 Z-0.125000
G01 X16.252983 Y59.875098 Z-0.125000
G01 X16.116557 Y61.088745 Z-0.125000
G01 X16.343789 Y62.300026 Z-0.125000
G01 X16.931070 Y63.489836 Z-0.125000
G01 X17.869436 Y64.639440 Z-0.125000
G01 X19.144388 Y65.730850 Z-0.125000
G01 X20.736070 Y66.746766 Z-0.125000
G01 X24.766996 Y68.489501 Z-0.125000
G01 X29.713945 Y69.757668 Z-0.125000
G01 X35.272199 Y70.470670 Z-0.125000
G01 X39.636846 Y70.611640 Z-0.125000
G01 X45.430112 Y70.263230 Z-0.125000
G01 X50.866503 Y69.321253 Z-0.125000
G01 X55.611115 Y67.841164 Z-0.125000
G01 X59.371677 Y65.911528 Z-0.125000
G01 X60.807702 Y64.813582 Z-0.125000
G01 X61.916477 Y63.648668 Z-0.125000
G01 X62.680826 Y62.434399 Z-0.125000
G01 X63.088922 Y61.189259 Z-0.125000
G01 X63.020709 Y59.305182 Z-0.125000
G01 X62.522803 Y58.066017 Z-0.125000
G01 X61.671009 Y56.862391 Z-0.125000
G01 X60.478586 Y55.712600 Z-0.125000
G01 X58.092992 Y54.126644 Z-0.125000
G01 X56.140389 Y53.185227 Z-0.125000
G01 X52.743610 Y51.982410 Z-0.125000
G01 X50.218228 Y51.337746 Z-0.125000
G01 X46.136330 Y50.630532 Z-0.125000
G01 X38.905297 Y50.195548 Z-0.125000
G01 X31.744407 Y50.714242 Z-0.125000
G01 X29.055464 Y51.179411 Z-0.125000
G01 X25.341082 Y52.131657 Z-0.125000
G01 X23.133303 Y52.921399 Z-0.125000
G01 X20.309738 Y54.306886 Z-0.125000
G01 X18.795107 Y55.343216 Z-0.125000
G01 X17.133282 Y57.025891 Z-0.125000
G01 X16.457125 Y58.207422 Z-0.125000
G01 X16.139336 Y59.415094 Z-0.125000
G01 X16.184832 Y60.629924 Z-0.125000
G01 X16.592867 Y61.832803 Z-0.125000
G01 X17.357215 Y63.004875 Z-0.125000
G01 X18.465990 Y64.127592 Z-0.125000
G01 X21.643256 Y66.155378 Z-0.125000
G01 X25.928985 Y67.788760 Z-0.125000
G01 X31.059101 Y68.924484 Z-0.125000
G01 X36.717683 Y69.489919 Z-0.125000
G01 X41.099259 Y69.515873 Z-0.125000
G01 X46.836261 Y69.015850 Z-0.125000
G01 X52.129753 Y67.932779 Z-0.125000
G01 X56.653669 Y66.330828 Z-0.125000
G01 X59.371677 Y64.845573 Z-0.125000
G01 X60.807702 Y63.747627 Z-0.125000
G01 X61.916477 Y62.582713 Z-0.125000
G01 X62.680826 Y61.368443 Z-0.125000
G01 X63.088922 Y60.123304 Z-0.125000
G01 X63.020709 Y58.239226 Z-0.125000
G01 X62.522803 Y57.000062 Z-0.125000
G01 X61.671009 Y55.796435 Z-0.125000
G01 X60.478586 Y54.646645 Z-0.125000
G01 X58.092992 Y53.060688 Z-0.125000
G01 X56.140389 Y52.119272 Z-0.125000
G01 X52.743610 Y50.916517 Z-0.125000
G01 X50.218228 Y50.271790 Z-0.125000
G01 X46.136330 Y49.564514 Z-0.125000
G01 X38.905297 Y49.129593 Z-0.125000
G01 X31.744407 Y49.648287 Z-0.125000
G01 X29.055464 Y50.113518 Z-0.125000
G01 X25.341082 Y51.065764 Z-0.125000
G01 X23.133303 Y51.855444 Z-0.125000
G01 X20.309738 Y53.240931 Z-0.125000
G01 X18.795107 Y54.277261 Z-0.125000
G01 X17.133282 Y55.959935 Z-0.125000
G01 X16.457125 Y57.141467 Z-0.125000
G01 X16.139336 Y58.349139 Z-0.125000
G01 X16.184832 Y59.563968 Z-0.125000
G01 X16.592867 Y60.766848 Z-0.125000
G01 X17.357215 Y61.938858 Z-0.125000
G01 X18.465990 Y63.061636 Z-0.125000
G01 X21.643256 Y65.089422 Z-0.125000
G01 X25.928985 Y66.722804 Z-0.125000
G01 X31.059101 Y67.858467 Z-0.125000
G01 X36.717683 Y68.423964 Z-0.125000
G01 X41.099259 Y68.449917 Z-0.125000
G01 X46.836261 Y67.949895 Z-0.125000
G01 X52.129753 Y66.866824 Z-0.125000
G01 X56.653669 Y65.264872 Z-0.125000
G01 X59.371677 Y63.779617 Z-0.125000
G01 X60.807702 Y62.681672 Z-0.125000
G01 X61.916477 Y61.516757 Z-0.125000
G01 X62.680826 Y60.302488 Z-0.125000
G01 X63.088922 Y59.057349 Z-0.125000
G01 X63.020709 Y57.173271 Z-0.125000
G01 X62.522803 Y55.934106 Z-0.125000
G01 X61.671009 Y54.730480 Z-0.125000
G01 X60.478586 Y53.580689 Z-0.125000
G01 X58.092992 Y51.994733 Z-0.125000
G01 X56.140389 Y51.053317 Z-0.125000
G01 X52.743610 Y49.850499 Z-0.125000
G01 X50.218228 Y49.205835 Z-0.125000
G01 X46.136330 Y48.498621 Z-0.125000
G01 X38.905297 Y48.063638 Z-0.125000
G01 X31.744407 Y48.582269 Z-0.125000
G01 X29.055464 Y49.047501 Z-0.125000
G01 X25.341082 Y49.999747 Z-0.125000
G01 X23.133303 Y50.789426 Z-0.125000
G01 X20.309738 Y52.174913 Z-0.125000
G01 X18.795107 Y53.211243 Z-0.125000
G01 X17.133282 Y54.893980 Z-0.125000
G01 X16.457125 Y56.075512 Z-0.125000
G01 X16.139336 Y57.283184 Z-0.125000
G01 X16.184832 Y58.498013 Z-0.125000
G01 X16.592867 Y59.700893 Z-0.125000
G01 X17.357215 Y60.872964 Z-0.125000
G01 X18.465990 Y61.995681 Z-0.125000
G01 X20.736070 Y63.548900 Z-0.125000
G01 X24.766996 Y65.291635 Z-0.125000
G01 X29.713945 Y66.559802 Z-0.125000
G01 X35.272199 Y67.272742 Z-0.125000
G01 X39.636846 Y67.413712 Z-0.125000
G01 X45.430112 Y67.065302 Z-0.125000
G01 X50.866503 Y66.123387 Z-0.125000
G01 X55.611115 Y64.643298 Z-0.125000
G01 X58.537622 Y63.232232 Z-0.125000
G01 X60.129304 Y62.174118 Z-0.125000
G01 X61.404256 Y61.040510 Z-0.125000
G01 X62.342623 Y59.848646 Z-0.125000
G01 X62.929903 Y58.616639 Z-0.125000
G01 X63.134418 Y56.734366 Z-0.125000
G01 X62.816567 Y55.484497 Z-0.125000
G01 X62.140410 Y54.260767 Z-0.125000
G01 X61.116342 Y53.081787 Z-0.125000
G01 X58.963954 Y51.436144 Z-0.125000
G01 X57.150517 Y50.445248 Z-0.125000
G01 X53.932610 Y49.155422 Z-0.125000
G01 X51.503885 Y48.445594 Z-0.125000
G01 X47.529285 Y47.632451 Z-0.125000
G01 X40.368395 Y47.008201 Z-0.125000
G01 X33.137363 Y47.337628 Z-0.125000
G01 X30.382073 Y47.731285 Z-0.125000
G01 X26.530083 Y48.584012 Z-0.125000
G01 X24.207349 Y49.314130 Z-0.125000
G01 X21.180763 Y50.622690 Z-0.125000
G01 X18.795107 Y52.145350 Z-0.125000
G01 X17.133282 Y53.828024 Z-0.125000
G01 X16.457125 Y55.009556 Z-0.125000
G01 X16.139336 Y56.217166 Z-0.125000
G01 X16.184832 Y57.432058 Z-0.125000
G01 X16.592867 Y58.634937 Z-0.125000
G01 X17.357215 Y59.806947 Z-0.125000
G01 X18.465990 Y60.929663 Z-0.125000
G01 X20.736070 Y62.482882 Z-0.125000
G01 X24.766996 Y64.225679 Z-0.125000
G01 X29.713945 Y65.493847 Z-0.125000
G01 X35.272199 Y66.206787 Z-0.125000
G01 X39.636846 Y66.347756 Z-0.125000
G01 X45.430112 Y65.999346 Z-0.125000
G01 X50.866503 Y65.057370 Z-0.125000
G01 X55.611115 Y63.577281 Z-0.125000
G01 X58.537622 Y62.166338 Z-0.125000
G01 X60.129304 Y61.108163 Z-0.125000
G01 X61.404256 Y59.974555 Z-0.125000
G01 X62.342623 Y58.782691 Z-0.125000
G01 X62.929903 Y57.550684 Z-0.125000
G01 X63.134418 Y55.668411 Z-0.125000
G01 X62.816567 Y54.418479 Z-0.125000
G01 X62.140410 Y53.194812 Z-0.125000
G01 X61.116342 Y52.015832 Z-0.125000
G01 X58.963954 Y50.370189 Z-0.125000
G01 X57.150517 Y49.379293 Z-0.125000
G01 X53.932610 Y48.089529 Z-0.125000
G01 X51.503885 Y47.379639 Z-0.125000
G01 X47.529285 Y46.566495 Z-0.125000
G01 X40.368395 Y45.942245 Z-0.125000
G01 X33.137363 Y46.271672 Z-0.125000
G01 X30.382073 Y46.665330 Z-0.125000
G01 X26.530083 Y47.518057 Z-0.125000
G01 X24.207349 Y48.248174 Z-0.125000
G01 X21.180763 Y49.556734 Z-0.125000
G01 X18.795107 Y51.079332 Z-0.125000
G01 X17.133282 Y52.762069 Z-0.125000
G01 X16.457125 Y53.943539 Z-0.125000
G01 X16.139336 Y55.151273 Z-0.125000
G01 X16.184832 Y56.366102 Z-0.125000
G01 X16.592867 Y57.568982 Z-0.125000
G01 X17.357215 Y58.740991 Z-0.125000
G01 X18.465990 Y59.863770 Z-0.125000
G01 X20.736070 Y61.416989 Z-0.125000
G01 X24.766996 Y63.159662 Z-0.125000
G01 X29.713945 Y64.427892 Z-0.125000
G01 X35.272199 Y65.140831 Z-0.125000
G01 X39.636846 Y65.281801 Z-0.125000
G01 X45.430112 Y64.933391 Z-0.125000
G01 X50.866503 Y63.991414 Z-0.125000
G01 X55.611115 Y62.511388 Z-0.125000
G01 X58.537622 Y61.100321 Z-0.125000
G01 X60.129304 Y60.042208 Z-0.125000
G01 X61.404256 Y58.908599 Z-0.125000
G01 X62.342623 Y57.716736 Z-0.125000
G01 X62.929903 Y56.484729 Z-0.125000
G01 X63.134418 Y54.602456 Z-0.125000
G01 X62.816567 Y53.352524 Z-0.125000
G01 X62.140410 Y52.128794 Z-0.125000
G01 X61.116342 Y50.949877 Z-0.125000
G01 X58.963954 Y49.304234 Z-0.125000
G01 X57.150517 Y48.313275 Z-0.125000
G01 X53.932610 Y47.023511 Z-0.125000
G01 X51.503885 Y46.313683 Z-0.125000
G01 X47.529285 Y45.500478 Z-0.125000
G01 X40.368395 Y44.876290 Z-0.125000
G01 X33.137363 Y45.205717 Z-0.125000
G01 X30.382073 Y45.599374 Z-0.125000
G01 X26.530083 Y46.452101 Z-0.125000
G01 X24.207349 Y47.182219 Z-0.125000
G01 X21.180763 Y48.490779 Z-0.125000
G01 X18.795107 Y50.013439 Z-0.125000
G01 X17.133282 Y51.696114 Z-0.125000
G01 X16.457125 Y52.877646 Z-0.125000
G01 X16.139336 Y54.085255 Z-0.125000
G01 X16.184832 Y55.300147 Z-0.125000
G01 X16.592867 Y56.503027 Z-0.125000
G01 X17.357215 Y57.675036 Z-0.125000
G01 X18.465990 Y58.797753 Z-0.125000
G01 X20.736070 Y60.350972 Z-0.125000
G01 X24.766996 Y62.093769 Z-0.125000
G01 X29.713945 Y63.361936 Z-0.125000
G01 X35.272199 Y64.074876 Z-0.125000
G01 X39.636846 Y64.215846 Z-0.125000
G01 X45.430112 Y63.867436 Z-0.125000
G01 X50.866503 Y62.925459 Z-0.125000
G01 X55.611115 Y61.445370 Z-0.125000
G01 X58.537622 Y60.034366 Z-0.125000
G01 X60.129304 Y58.976252 Z-0.125000
G01 X61.404256 Y57.842644 Z-0.125000
G01 X62.342623 Y56.650780 Z-0.125000
G01 X62.929903 Y55.418773 Z-0.125000
G01 X63.134418 Y53.536438 Z-0.125000
G01 X62.816567 Y52.286569 Z-0.125000
G01 X62.140410 Y51.062901 Z-0.125000
G01 X61.116342 Y49.883921 Z-0.125000
G01 X58.963954 Y48.238278 Z-0.125000
G01 X57.150517 Y47.247382 Z-0.125000
G01 X53.932610 Y45.957556 Z-0.125000
G01 X51.503885 Y45.247728 Z-0.125000
G01 X47.529285 Y44.434585 Z-0.125000
G01 X40.368395 Y43.810334 Z-0.125000
G01 X33.137363 Y44.139762 Z-0.125000
G01 X30.382073 Y44.533419 Z-0.125000
G01 X26.530083 Y45.386146 Z-0.125000
G01 X24.207349 Y46.116263 Z-0.125000
G01 X21.180763 Y47.424824 Z-0.125000
G01 X18.795107 Y48.947421 Z-0.125000
G01 X17.133282 Y50.630158 Z-0.125000
G01 X16.457125 Y51.811628 Z-0.125000
G01 X16.139336 Y53.019300 Z-0.125000
G01 X16.184832 Y54.234129 Z-0.125000
G01 X16.592867 Y55.437071 Z-0.125000
G01 X17.357215 Y56.609081 Z-0.125000
G01 X18.465990 Y57.731797 Z-0.125000
G01 X20.736070 Y59.285016 Z-0.125000
G01 X24.766996 Y61.027751 Z-0.125000
G01 X29.713945 Y62.295981 Z-0.125000
G01 X35.272199 Y63.008921 Z-0.125000
G01 X39.636846 Y63.149890 Z-0.125000
G01 X45.430112 Y62.801480 Z-0.125000
G01 X50.866503 Y61.859504 Z-0.125000
G01 X55.611115 Y60.379415 Z-0.125000
G01 X58.537622 Y58.968410 Z-0.125000
G01 X60.129304 Y57.910297 Z-0.125000
G01 X61.404256 Y56.776688 Z-0.125000
G01 X62.342623 Y55.584825 Z-0.125000
G01 X62.929903 Y54.352818 Z-0.125000
G01 X63.134418 Y52.470483 Z-0.125000
G01 X62.816567 Y51.220613 Z-0.125000
G01 X62.140410 Y49.996884 Z-0.125000
G01 X61.116342 Y48.817966 Z-0.125000
G01 X58.963954 Y47.172323 Z-0.125000
G01 X57.150517 Y46.181365 Z-0.125000
G01 X53.932610 Y44.891600 Z-0.125000
G01 X51.503885 Y44.181773 Z-0.125000
G01 X47.529285 Y43.368567 Z-0.125000
G01 X40.368395 Y42.744379 Z-0.125000
G01 X33.137363 Y43.073806 Z-0.125000
G01 X30.382073 Y43.467464 Z-0.125000
G01 X26.530083 Y44.320191 Z-0.125000
G01 X24.207349 Y45.050308 Z-0.125000
G01 X21.180763 Y46.358868 Z-0.125000
G01 X18.795107 Y47.881466 Z-0.125000
G01 X17.133282 Y49.564203 Z-0.125000
G01 X16.457125 Y50.745673 Z-0.125000
G01 X16.139336 Y51.953345 Z-0.125000
G01 X16.184832 Y53.168174 Z-0.125000
G01 X16.592867 Y54.371116 Z-0.125000
G01 X17.357215 Y55.543125 Z-0.125000
G01 X18.465990 Y56.665842 Z-0.125000
G01 X20.736070 Y58.219061 Z-0.125000
G01 X24.766996 Y59.961796 Z-0.125000
G01 X29.713945 Y61.230026 Z-0.125000
G01 X35.272199 Y61.942965 Z-0.125000
G01 X39.636846 Y62.083935 Z-0.125000
G01 X45.430112 Y61.735525 Z-0.125000
G01 X50.866503 Y60.793548 Z-0.125000
G01 X55.611115 Y59.313459 Z-0.125000
G01 X58.537622 Y57.902455 Z-0.125000
G01 X60.129304 Y56.844341 Z-0.125000
G01 X61.404256 Y55.710733 Z-0.125000
G01 X62.342623 Y54.518870 Z-0.125000
G01 X62.929903 Y53.286862 Z-0.125000
G01 X63.134418 Y51.404527 Z-0.125000
G01 X62.816567 Y50.154658 Z-0.125000
G01 X62.140410 Y48.930928 Z-0.125000
G01 X61.116342 Y47.752010 Z-0.125000
G01 X58.963954 Y46.106368 Z-0.125000
G01 X57.150517 Y45.115409 Z-0.125000
G01 X53.932610 Y43.825645 Z-0.125000
G01 X51.503885 Y43.115817 Z-0.125000
G01 X47.529285 Y42.302674 Z-0.125000
G01 X43.280525 Y41.814726 Z-0.125000
G01 X38.905297 Y41.667843 Z-0.125000
G01 X31.744407 Y42.186537 Z-0.125000
G01 X29.055464 Y42.651768 Z-0.125000
G01 X25.341082 Y43.604014 Z-0.125000
G01 X23.133303 Y44.393694 Z-0.125000
G01 X20.309738 Y45.779181 Z-0.125000
G01 X18.157351 Y47.361465 Z-0.125000
G01 X16.750890 Y49.084532 Z-0.125000
G01 X16.252983 Y50.281499 Z-0.125000
G01 X16.116557 Y51.495146 Z-0.125000
G01 X16.343789 Y52.706366 Z-0.125000
G01 X16.931070 Y53.896175 Z-0.125000
G01 X17.869436 Y55.045841 Z-0.125000
G01 X19.144388 Y56.137190 Z-0.125000
G01 X21.643256 Y57.627735 Z-0.125000
G01 X25.928985 Y59.261055 Z-0.125000
G01 X31.059101 Y60.396779 Z-0.125000
G01 X36.717683 Y60.962214 Z-0.125000
G01 X41.099259 Y60.988167 Z-0.125000
G01 X46.836261 Y60.488145 Z-0.125000
G01 X52.129753 Y59.405074 Z-0.125000
G01 X56.653669 Y57.803122 Z-0.125000
G01 X59.371677 Y56.317868 Z-0.125000
G01 X60.807702 Y55.219984 Z-0.125000
G01 X61.916477 Y54.055008 Z-0.125000
G01 X62.929903 Y52.220907 Z-0.125000
G01 X63.134418 Y50.338572 Z-0.125000
G01 X62.816567 Y49.088702 Z-0.125000
G01 X62.140410 Y47.864973 Z-0.125000
G01 X61.116342 Y46.685993 Z-0.125000
G01 X58.963954 Y45.040412 Z-0.125000
G01 X57.150517 Y44.049454 Z-0.125000
G01 X53.932610 Y42.759690 Z-0.125000
G01 X51.503885 Y42.049862 Z-0.125000
G01 X47.529285 Y41.236656 Z-0.125000
G01 X43.280525 Y40.748770 Z-0.125000
G01 X38.905297 Y40.601888 Z-0.125000
G01 X31.744407 Y41.120582 Z-0.125000
G01 X29.055464 Y41.585813 Z-0.125000
G01 X25.341082 Y42.538059 Z-0.125000
G01 X23.133303 Y43.327739 Z-0.125000
G01 X20.309738 Y44.713225 Z-0.125000
G01 X18.157351 Y46.295510 Z-0.125000
G01 X16.750890 Y48.018577 Z-0.125000
G01 X16.252983 Y49.215544 Z-0.125000
G01 X16.116557 Y50.429129 Z-0.125000
G01 X16.343789 Y51.640410 Z-0.125000
G01 X16.931070 Y52.830220 Z-0.125000
G01 X17.869436 Y53.979886 Z-0.125000
G01 X19.144388 Y55.071235 Z-0.125000
G01 X21.643256 Y56.561780 Z-0.125000
G01 X25.928985 Y58.195099 Z-0.125000
G01 X29.713945 Y59.098115 Z-0.125000
G01 X35.272199 Y59.811054 Z-0.125000
G01 X39.636846 Y59.952024 Z-0.125000
G01 X45.430112 Y59.603614 Z-0.125000
G01 X50.866503 Y58.661638 Z-0.125000
G01 X55.611115 Y57.181549 Z-0.125000
G01 X58.537622 Y55.770544 Z-0.125000
G01 X60.129304 Y54.712431 Z-0.125000
G01 X61.404256 Y53.578822 Z-0.125000
G01 X62.680826 Y51.774783 Z-0.125000
G01 X63.088922 Y50.529644 Z-0.125000
G01 X63.134418 Y49.272617 Z-0.125000
G01 X62.522803 Y47.406463 Z-0.125000
G01 X61.671009 Y46.202837 Z-0.125000
G01 X59.760231 Y44.503794 Z-0.125000
G01 X58.092992 Y43.467028 Z-0.125000
G01 X55.066343 Y42.095171 Z-0.125000
G01 X52.743610 Y41.322856 Z-0.125000
G01 X48.891619 Y40.406771 Z-0.125000
G01 X44.718292 Y39.808101 Z-0.125000
G01 X40.368395 Y39.546513 Z-0.125000
G01 X33.137363 Y39.875940 Z-0.125000
G01 X29.055464 Y40.519858 Z-0.125000
G01 X25.341082 Y41.472104 Z-0.125000
G01 X23.133303 Y42.261783 Z-0.125000
G01 X20.309738 Y43.647270 Z-0.125000
G01 X18.157351 Y45.229554 Z-0.125000
G01 X16.750890 Y46.952622 Z-0.125000
G01 X16.252983 Y48.149526 Z-0.125000
G01 X16.116557 Y49.363173 Z-0.125000
G01 X16.343789 Y50.574455 Z-0.125000
G01 X16.931070 Y51.764265 Z-0.125000
G01 X17.869436 Y52.913868 Z-0.125000
G01 X19.144388 Y54.005279 Z-0.125000
G01 X21.643256 Y55.495824 Z-0.125000
G01 X25.928985 Y57.129144 Z-0.125000
G01 X29.713945 Y58.032097 Z-0.125000
G01 X35.272199 Y58.745099 Z-0.125000
G01 X39.636846 Y58.886069 Z-0.125000
G01 X45.430112 Y58.537659 Z-0.125000
G01 X50.866503 Y57.595682 Z-0.125000
G01 X55.611115 Y56.115593 Z-0.125000
G01 X58.537622 Y54.704589 Z-0.125000
G01 X60.129304 Y53.646413 Z-0.125000
G01 X61.404256 Y52.512867 Z-0.125000
G01 X62.680826 Y50.708828 Z-0.125000
G01 X63.088922 Y49.463750 Z-0.125000
G01 X63.134418 Y48.206661 Z-0.125000
G01 X62.522803 Y46.340508 Z-0.125000
G01 X61.671009 Y45.136882 Z-0.125000
G01 X59.760231 Y43.437776 Z-0.125000
G01 X58.092992 Y42.401073 Z-0.125000
G01 X55.066343 Y41.029216 Z-0.125000
G01 X52.743610 Y40.256901 Z-0.125000
G01 X48.891619 Y39.340815 Z-0.125000
G01 X44.718292 Y38.742083 Z-0.125000
G01 X40.368395 Y38.480558 Z-0.125000
G01 X33.137363 Y38.809985 Z-0.125000
G01 X29.055464 Y39.453902 Z-0.125000
G01 X25.341082 Y40.406148 Z-0.125000
G01 X23.133303 Y41.195828 Z-0.125000
G01 X20.309738 Y42.581315 Z-0.125000
G01 X18.157351 Y44.163599 Z-0.125000
G01 X16.750890 Y45.886666 Z-0.125000
G01 X16.252983 Y47.083571 Z-0.125000
G01 X16.116557 Y48.297218 Z-0.125000
G01 X16.343789 Y49.508500 Z-0.125000
G01 X16.931070 Y50.698309 Z-0.125000
G01 X17.869436 Y51.847975 Z-0.125000
G01 X19.144388 Y52.939324 Z-0.125000
G01 X21.643256 Y54.429807 Z-0.125000
G01 X25.928985 Y56.063189 Z-0.125000
G01 X29.713945 Y56.966204 Z-0.125000
G01 X35.272199 Y57.679082 Z-0.125000
G01 X39.636846 Y57.820114 Z-0.125000
G01 X45.430112 Y57.471641 Z-0.125000
G01 X50.866503 Y56.529727 Z-0.125000
G01 X55.611115 Y55.049638 Z-0.125000
G01 X58.537622 Y53.638633 Z-0.125000
G01 X60.129304 Y52.580520 Z-0.125000
G01 X61.404256 Y51.446912 Z-0.125000
G01 X62.680826 Y49.642872 Z-0.125000
G01 X63.088922 Y48.397733 Z-0.125000
G01 X63.134418 Y47.140706 Z-0.125000
G01 X62.522803 Y45.274490 Z-0.125000
G01 X61.671009 Y44.070864 Z-0.125000
G01 X59.760231 Y42.371883 Z-0.125000
G01 X58.092992 Y41.335117 Z-0.125000
G01 X55.066343 Y39.963261 Z-0.125000
G01 X52.743610 Y39.190946 Z-0.125000
G01 X48.891619 Y38.274860 Z-0.125000
G01 X44.718292 Y37.676190 Z-0.125000
G01 X40.368395 Y37.414602 Z-0.125000
G01 X33.137363 Y37.744030 Z-0.125000
G01 X29.055464 Y38.387885 Z-0.125000
G01 X25.341082 Y39.340193 Z-0.125000
G01 X23.133303 Y40.129873 Z-0.125000
G01 X20.309738 Y41.515359 Z-0.125000
G01 X18.157351 Y43.097644 Z-0.125000
G01 X16.750890 Y44.820711 Z-0.125000
G01 X16.252983 Y46.017616 Z-0.125000
G01 X16.116557 Y47.231263 Z-0.125000
G01 X16.343789 Y48.442544 Z-0.125000
G01 X16.931070 Y49.632354 Z-0.125000
G01 X17.869436 Y50.781958 Z-0.125000
G01 X19.144388 Y51.873368 Z-0.125000
G01 X21.643256 Y53.363913 Z-0.125000
G01 X25.928985 Y54.997233 Z-0.125000
G01 X29.713945 Y55.900186 Z-0.125000
G01 X35.272199 Y56.613188 Z-0.125000
G01 X39.636846 Y56.754158 Z-0.125000
G01 X45.430112 Y56.405686 Z-0.125000
G01 X50.866503 Y55.463771 Z-0.125000
G01 X55.611115 Y53.983682 Z-0.125000
G01 X58.537622 Y52.572678 Z-0.125000
G01 X60.129304 Y51.514502 Z-0.125000
G01 X61.404256 Y50.380894 Z-0.125000
G01 X62.680826 Y48.576917 Z-0.125000
G01 X63.088922 Y47.331777 Z-0.125000
G01 X63.134418 Y46.074750 Z-0.125000
G01 X62.522803 Y44.208597 Z-0.125000
G01 X61.671009 Y43.004909 Z-0.125000
G01 X59.760231 Y41.305865 Z-0.125000
G01 X58.092992 Y40.269162 Z-0.125000
G01 X55.066343 Y38.897305 Z-0.125000
G01 X52.743610 Y38.124990 Z-0.125000
G01 X48.891619 Y37.208842 Z-0.125000
G01 X44.718292 Y36.610172 Z-0.125000
G01 X40.368395 Y36.348647 Z-0.125000
G01 X33.137363 Y36.678074 Z-0.125000
G01 X29.055464 Y37.321929 Z-0.125000
G01 X25.341082 Y38.274238 Z-0.125000
G01 X23.133303 Y39.063917 Z-0.125000
G01 X20.309738 Y40.449404 Z-0.125000
G01 X18.157351 Y42.031688 Z-0.125000
G01 X16.750890 Y43.754756 Z-0.125000
G01 X16.252983 Y44.951660 Z-0.125000
G01 X16.116557 Y46.165307 Z-0.125000
G01 X16.343789 Y47.376589 Z-0.125000
G01 X16.931070 Y48.566399 Z-0.125000
G01 X17.869436 Y49.716002 Z-0.125000
G01 X19.144388 Y50.807413 Z-0.125000
G01 X21.643256 Y52.297896 Z-0.125000
G01 X25.928985 Y53.931278 Z-0.125000
G01 X29.713945 Y54.834231 Z-0.125000
G01 X35.272199 Y55.547171 Z-0.125000
G01 X39.636846 Y55.688141 Z-0.125000
G01 X45.430112 Y55.339731 Z-0.125000
G01 X50.866503 Y54.397754 Z-0.125000
G01 X55.611115 Y52.917727 Z-0.125000
G01 X58.537622 Y51.506723 Z-0.125000
G01 X60.129304 Y50.448547 Z-0.125000
G01 X61.404256 Y49.315001 Z-0.125000
G01 X62.680826 Y47.510962 Z-0.125000
G01 X63.088922 Y46.265822 Z-0.125000
G01 X63.134418 Y45.008795 Z-0.125000
G01 X62.522803 Y43.142580 Z-0.125000
G01 X61.671009 Y41.938953 Z-0.125000
G01 X59.760231 Y40.239910 Z-0.125000
G01 X58.092992 Y39.203207 Z-0.125000
G01 X55.066343 Y37.831350 Z-0.125000
G01 X52.743610 Y37.058973 Z-0.125000
G01 X48.891619 Y36.142887 Z-0.125000
G01 X44.718292 Y35.544217 Z-0.125000
G01 X40.368395 Y35.282692 Z-0.125000
G01 X33.137363 Y35.612057 Z-0.125000
G01 X29.055464 Y36.255974 Z-0.125000
G01 X25.341082 Y37.208282 Z-0.125000
G01 X23.133303 Y37.997962 Z-0.125000
G01 X20.309738 Y39.383449 Z-0.125000
G01 X18.157351 Y40.965733 Z-0.125000
G01 X16.750890 Y42.688800 Z-0.125000
G01 X16.252983 Y43.885705 Z-0.125000
G01 X16.116557 Y45.099352 Z-0.125000
G01 X16.343789 Y46.310634 Z-0.125000
G01 X16.931070 Y47.500443 Z-0.125000
G01 X17.869436 Y48.650047 Z-0.125000
G01 X19.144388 Y49.741458 Z-0.125000
G01 X21.643256 Y51.231941 Z-0.125000
G01 X25.928985 Y52.865322 Z-0.125000
G01 X29.713945 Y53.768276 Z-0.125000
G01 X35.272199 Y54.481278 Z-0.125000
G01 X39.636846 Y54.622185 Z-0.125000
G01 X45.430112 Y54.273775 Z-0.125000
G01 X50.866503 Y53.331861 Z-0.125000
G01 X55.611115 Y51.851772 Z-0.125000
G01 X58.537622 Y50.440767 Z-0.125000
G01 X60.129304 Y49.382592 Z-0.125000
G01 X61.404256 Y48.248983 Z-0.125000
G01 X62.680826 Y46.445006 Z-0.125000
G01 X63.088922 Y45.199867 Z-0.125000
G01 X63.134418 Y43.942840 Z-0.125000
G01 X62.522803 Y42.076624 Z-0.125000
G01 X61.671009 Y40.872998 Z-0.125000
G01 X59.760231 Y39.173955 Z-0.125000
G01 X58.092992 Y38.137251 Z-0.125000
G01 X55.066343 Y36.765332 Z-0.125000
G01 X52.743610 Y35.993017 Z-0.125000
G01 X48.891619 Y35.076932 Z-0.125000
G01 X44.718292 Y34.478261 Z-0.125000
G01 X40.368395 Y34.216674 Z-0.125000
G01 X33.137363 Y34.546163 Z-0.125000
G01 X29.055464 Y35.190019 Z-0.125000
G01 X25.341082 Y36.142327 Z-0.125000
G01 X23.133303 Y36.931944 Z-0.125000
G01 X20.309738 Y38.317493 Z-0.125000
G01 X18.157351 Y39.899778 Z-0.125000
G01 X16.750890 Y41.622783 Z-0.125000
G01 X16.252983 Y42.819750 Z-0.125000
G01 X16.116557 Y44.033396 Z-0.125000
G01 X16.343789 Y45.244678 Z-0.125000
G01 X16.931070 Y46.434426 Z-0.125000
G01 X17.869436 Y47.584092 Z-0.125000
G01 X19.144388 Y48.675502 Z-0.125000
G01 X21.643256 Y50.165985 Z-0.125000
G01 X25.928985 Y51.799367 Z-0.125000
G01 X29.713945 Y52.702320 Z-0.125000
G01 X35.272199 Y53.415260 Z-0.125000
G01 X39.636846 Y53.556230 Z-0.125000
G01 X45.430112 Y53.207820 Z-0.125000
G01 X50.866503 Y52.265843 Z-0.125000
G01 X55.611115 Y50.785816 Z-0.125000
G01 X58.537622 Y49.374750 Z-0.125000
G01 X60.129304 Y48.316636 Z-0.125000
G01 X61.404256 Y47.183028 Z-0.125000
G01 X62.680826 Y45.379051 Z-0.125000
G01 X63.088922 Y44.133911 Z-0.125000
G01 X63.134418 Y42.876884 Z-0.125000
G01 X62.522803 Y41.010669 Z-0.125000
G01 X61.671009 Y39.807042 Z-0.125000
G01 X59.760231 Y38.107999 Z-0.125000
G01 X58.092992 Y37.071296 Z-0.125000
G01 X55.066343 Y35.699439 Z-0.125000
G01 X52.743610 Y34.927062 Z-0.125000
G01 X48.891619 Y34.010976 Z-0.125000
G01 X44.718292 Y33.412306 Z-0.125000
G01 X40.368395 Y33.150719 Z-0.125000
G01 X33.137363 Y33.480146 Z-0.125000
G01 X29.055464 Y34.124063 Z-0.125000
G01 X25.341082 Y35.076309 Z-0.125000
G01 X23.133303 Y35.866051 Z-0.125000
G01 X20.309738 Y37.251538 Z-0.125000
G01 X18.157351 Y38.833822 Z-0.125000
G01 X16.750890 Y40.556827 Z-0.125000
G01 X16.252983 Y41.753794 Z-0.125000
G01 X16.116557 Y42.967441 Z-0.125000
G01 X16.343789 Y44.178661 Z-0.125000
G01 X16.931070 Y45.368533 Z-0.125000
G01 X17.869436 Y46.518136 Z-0.125000
G01 X19.144388 Y47.609547 Z-0.125000
G01 X21.643256 Y49.100030 Z-0.125000
G01 X25.928985 Y50.733412 Z-0.125000
G01 X29.713945 Y51.636365 Z-0.125000
G01 X35.272199 Y52.349305 Z-0.125000
G01 X39.636846 Y52.490274 Z-0.125000
G01 X45.430112 Y52.141864 Z-0.125000
G01 X50.866503 Y51.199888 Z-0.125000
G01 X55.611115 Y49.719799 Z-0.125000
G01 X58.537622 Y48.308794 Z-0.125000
G01 X60.129304 Y47.250681 Z-0.125000
G01 X61.404256 Y46.117073 Z-0.125000
G01 X62.680826 Y44.313095 Z-0.125000
G01 X63.088922 Y43.067956 Z-0.125000
G01 X63.134418 Y41.810929 Z-0.125000
G01 X62.522803 Y39.944714 Z-0.125000
G01 X61.671009 Y38.741087 Z-0.125000
G01 X59.760231 Y37.042044 Z-0.125000
G01 X58.092992 Y36.005340 Z-0.125000
G01 X55.066343 Y34.633422 Z-0.125000
G01 X52.743610 Y33.861107 Z-0.125000
G01 X48.891619 Y32.945021 Z-0.125000
G01 X44.718292 Y32.346351 Z-0.125000
G01 X40.368395 Y32.084763 Z-0.125000
G01 X33.137363 Y32.414191 Z-0.125000
G01 X29.055464 Y33.058108 Z-0.125000
G01 X25.341082 Y34.010354 Z-0.125000
G01 X23.133303 Y34.800034 Z-0.125000
G01 X20.309738 Y36.185520 Z-0.125000
G01 X18.157351 Y37.767867 Z-0.125000
G01 X16.750890 Y39.490872 Z-0.125000
G01 X16.252983 Y40.687839 Z-0.125000
G01 X16.116557 Y41.901486 Z-0.125000
G01 X16.343789 Y43.112768 Z-0.125000
G01 X16.931070 Y44.302515 Z-0.125000
G01 X17.869436 Y45.452181 Z-0.125000
G01 X19.144388 Y46.543592 Z-0.125000
G01 X21.643256 Y48.034074 Z-0.125000
G01 X25.928985 Y49.667456 Z-0.125000
G01 X29.713945 Y50.570410 Z-0.125000
G01 X35.272199 Y51.283349 Z-0.125000
G01 X39.636846 Y51.424319 Z-0.125000
G01 X45.430112 Y51.075909 Z-0.125000
G01 X50.866503 Y50.133932 Z-0.125000
G01 X55.611115 Y48.653906 Z-0.125000
G01 X58.537622 Y47.242839 Z-0.125000
G01 X60.129304 Y46.184726 Z-0.125000
G01 X61.404256 Y45.051117 Z-0.125000
G01 X62.680826 Y43.247140 Z-0.125000
G01 X63.088922 Y42.002001 Z-0.125000
G01 X63.134418 Y40.744911 Z-0.125000
G01 X62.522803 Y38.878758 Z-0.125000
G01 X61.671009 Y37.675132 Z-0.125000
G01 X59.760231 Y35.976088 Z-0.125000
G01 X58.092992 Y34.939385 Z-0.125000
G01 X55.066343 Y33.567466 Z-0.125000
G01 X52.743610 Y32.795151 Z-0.125000
G01 X48.891619 Y31.879066 Z-0.125000
G01 X44.718292 Y31.280395 Z-0.125000
G01 X40.368395 Y31.018808 Z-0.125000
G01 X33.137363 Y31.348235 Z-0.125000
G01 X29.055464 Y31.992153 Z-0.125000
G01 X25.341082 Y32.944399 Z-0.125000
G01 X23.133303 Y33.734078 Z-0.125000
G01 X20.309738 Y35.119565 Z-0.125000
G01 X18.157351 Y36.701849 Z-0.125000
G01 X16.750890 Y38.424917 Z-0.125000
G01 X16.252983 Y39.621884 Z-0.125000
G01 X16.116557 Y40.835530 Z-0.125000
G01 X16.343789 Y42.046750 Z-0.125000
G01 X16.931070 Y43.236560 Z-0.125000
G01 X17.869436 Y44.386225 Z-0.125000
G01 X19.144388 Y45.477574 Z-0.125000
G01 X21.643256 Y46.968119 Z-0.125000
G01 X25.928985 Y48.601501 Z-0.125000
G01 X29.713945 Y49.504454 Z-0.125000
G01 X35.272199 Y50.217394 Z-0.125000
G01 X39.636846 Y50.358364 Z-0.125000
G01 X45.430112 Y50.009954 Z-0.125000
G01 X50.866503 Y49.067977 Z-0.125000
G01 X55.611115 Y47.587888 Z-0.125000
G01 X58.537622 Y46.176884 Z-0.125000
G01 X60.129304 Y45.118770 Z-0.125000
G01 X61.404256 Y43.985162 Z-0.125000
G01 X62.680826 Y42.181185 Z-0.125000
G01 X63.088922 Y40.936045 Z-0.125000
G01 X63.134418 Y39.679018 Z-0.125000
G01 X62.522803 Y37.812803 Z-0.125000
G01 X61.671009 Y36.609176 Z-0.125000
G01 X59.760231 Y34.910133 Z-0.125000
G01 X57.150517 Y33.389900 Z-0.125000
G01 X53.932610 Y32.100074 Z-0.125000
G01 X51.503885 Y31.390246 Z-0.125000
G01 X47.529285 Y30.577103 Z-0.125000
G01 X43.280525 Y30.089154 Z-0.125000
G01 X38.905297 Y29.942334 Z-0.125000
G01 X31.744407 Y30.460966 Z-0.125000
G01 X27.769807 Y31.210813 Z-0.125000
G01 X24.207349 Y32.258781 Z-0.125000
G01 X22.123175 Y33.104911 Z-0.125000
G01 X19.513461 Y34.561848 Z-0.125000
G01 X17.602683 Y36.197532 Z-0.125000
G01 X16.457125 Y37.954146 Z-0.125000
G01 X16.139336 Y39.161818 Z-0.125000
G01 X16.184832 Y40.376647 Z-0.125000
G01 X16.592867 Y41.579589 Z-0.125000
G01 X17.357215 Y42.751599 Z-0.125000
G01 X18.465990 Y43.874315 Z-0.125000
G01 X19.902015 Y44.930064 Z-0.125000
G01 X22.620024 Y46.351960 Z-0.125000
G01 X27.143939 Y47.869516 Z-0.125000
G01 X31.059101 Y48.671208 Z-0.125000
G01 X36.717683 Y49.236643 Z-0.125000
G01 X41.099259 Y49.262596 Z-0.125000
G01 X46.836261 Y48.762574 Z-0.125000
G01 X50.866503 Y48.002022 Z-0.125000
G01 X55.611115 Y46.521933 Z-0.125000
G01 X58.537622 Y45.110928 Z-0.125000
G01 X60.129304 Y44.052815 Z-0.125000
G01 X61.404256 Y42.919206 Z-0.125000
G01 X62.680826 Y41.115229 Z-0.125000
G01 X63.088922 Y39.870090 Z-0.125000
G01 X63.134418 Y38.613001 Z-0.125000
G01 X62.522803 Y36.746848 Z-0.125000
G01 X61.671009 Y35.543221 Z-0.125000
G01 X59.760231 Y33.844178 Z-0.125000
G01 X57.150517 Y32.323883 Z-0.125000
G01 X53.932610 Y31.034118 Z-0.125000
G01 X51.503885 Y30.324291 Z-0.125000
G01 X47.529285 Y29.511085 Z-0.125000
G01 X43.280525 Y29.023199 Z-0.125000
G01 X38.905297 Y28.876317 Z-0.125000
G01 X31.744407 Y29.395011 Z-0.125000
G01 X27.769807 Y30.144858 Z-0.125000
G01 X24.207349 Y31.192826 Z-0.125000
G01 X22.123175 Y32.038956 Z-0.125000
G01 X19.513461 Y33.495892 Z-0.125000
G01 X17.602683 Y35.131577 Z-0.125000
G01 X16.457125 Y36.888191 Z-0.125000
G01 X16.139336 Y38.095863 Z-0.125000
G01 X16.184832 Y39.310754 Z-0.125000
G01 X16.592867 Y40.513634 Z-0.125000
G01 X17.357215 Y41.685643 Z-0.125000
G01 X18.465990 Y42.808360 Z-0.125000
G01 X19.902015 Y43.864108 Z-0.125000
G01 X22.620024 Y45.286005 Z-0.125000
G01 X27.143939 Y46.803561 Z-0.125000
G01 X31.059101 Y47.605253 Z-0.125000
G01 X36.717683 Y48.170687 Z-0.125000
G01 X41.099259 Y48.196641 Z-0.125000
G01 X46.836261 Y47.696618 Z-0.125000
G01 X50.866503 Y46.936066 Z-0.125000
G01 X55.611115 Y45.455977 Z-0.125000
G01 X58.537622 Y44.044973 Z-0.125000
G01 X60.129304 Y42.986859 Z-0.125000
G01 X61.404256 Y41.853251 Z-0.125000
G01 X62.680826 Y40.049212 Z-0.125000
G01 X63.088922 Y38.804135 Z-0.125000
G01 X63.134418 Y37.547108 Z-0.125000
G01 X62.522803 Y35.680892 Z-0.125000
G01 X61.671009 Y34.477266 Z-0.125000
G01 X59.760231 Y32.778222 Z-0.125000
G01 X57.150517 Y31.257927 Z-0.125000
G01 X53.932610 Y29.968163 Z-0.125000
G01 X51.503885 Y29.258335 Z-0.125000
G01 X47.529285 Y28.445130 Z-0.125000
G01 X43.280525 Y27.957244 Z-0.125000
G01 X38.905297 Y27.810423 Z-0.125000
G01 X31.744407 Y28.329055 Z-0.125000
G01 X27.769807 Y29.078902 Z-0.125000
G01 X24.207349 Y30.126871 Z-0.125000
G01 X22.123175 Y30.973000 Z-0.125000
G01 X19.513461 Y32.429875 Z-0.125000
G01 X17.602683 Y34.065622 Z-0.125000
G01 X16.457125 Y35.822235 Z-0.125000
G01 X16.139336 Y37.029907 Z-0.125000
G01 X16.184832 Y38.244737 Z-0.125000
G01 X16.931070 Y40.038693 Z-0.125000
G01 X17.869436 Y41.188359 Z-0.125000
G01 X19.144388 Y42.279708 Z-0.125000
G01 X21.643256 Y43.770253 Z-0.125000
G01 X25.928985 Y45.403573 Z-0.125000
G01 X29.713945 Y46.306588 Z-0.125000
G01 X35.272199 Y47.019528 Z-0.125000
G01 X39.636846 Y47.160498 Z-0.125000
G01 X45.430112 Y46.812088 Z-0.125000
G01 X49.559747 Y46.158834 Z-0.125000
G01 X54.506696 Y44.806147 Z-0.125000
G01 X57.630437 Y43.474746 Z-0.125000
G01 X59.371677 Y42.460448 Z-0.125000
G01 X60.807702 Y41.362440 Z-0.125000
G01 X62.342623 Y39.595432 Z-0.125000
G01 X62.929903 Y38.363425 Z-0.125000
G01 X63.157135 Y37.109946 Z-0.125000
G01 X62.816567 Y35.231220 Z-0.125000
G01 X62.140410 Y34.007491 Z-0.125000
G01 X60.478586 Y32.261458 Z-0.125000
G01 X58.092992 Y30.675501 Z-0.125000
G01 X55.066343 Y29.303645 Z-0.125000
G01 X52.743610 Y28.531330 Z-0.125000
G01 X48.891619 Y27.615244 Z-0.125000
G01 X44.718292 Y27.016512 Z-0.125000
G01 X40.368395 Y26.754986 Z-0.125000
G01 X33.137363 Y27.084414 Z-0.125000
G01 X29.055464 Y27.728331 Z-0.125000
G01 X25.341082 Y28.680577 Z-0.125000
G01 X22.123175 Y29.907045 Z-0.125000
G01 X19.513461 Y31.363981 Z-0.125000
G01 X17.602683 Y32.999666 Z-0.125000
G01 X16.457125 Y34.756280 Z-0.125000
G01 X16.139336 Y35.963952 Z-0.125000
G01 X16.184832 Y37.178781 Z-0.125000
G01 X16.931070 Y38.972738 Z-0.125000
G01 X17.869436 Y40.122404 Z-0.125000
G01 X19.144388 Y41.213753 Z-0.125000
G01 X21.643256 Y42.704298 Z-0.125000
G01 X25.928985 Y44.337617 Z-0.125000
G01 X29.713945 Y45.240633 Z-0.125000
G01 X35.272199 Y45.953573 Z-0.125000
G01 X39.636846 Y46.094542 Z-0.125000
G01 X45.430112 Y45.746132 Z-0.125000
G01 X49.559747 Y45.092817 Z-0.125000
G01 X54.506696 Y43.740254 Z-0.125000
G01 X57.630437 Y42.408728 Z-0.125000
G01 X59.371677 Y41.394430 Z-0.125000
G01 X60.807702 Y40.296547 Z-0.125000
G01 X62.342623 Y38.529477 Z-0.125000
G01 X62.929903 Y37.297408 Z-0.125000
G01 X63.157135 Y36.043990 Z-0.125000
G01 X62.816567 Y34.165265 Z-0.125000
G01 X62.140410 Y32.941536 Z-0.125000
G01 X60.478586 Y31.195502 Z-0.125000
G01 X58.092992 Y29.609546 Z-0.125000
G01 X55.066343 Y28.237689 Z-0.125000
G01 X52.743610 Y27.465374 Z-0.125000
G01 X48.891619 Y26.549289 Z-0.125000
G01 X44.718292 Y25.950619 Z-0.125000
G01 X40.368395 Y25.689031 Z-0.125000
G01 X33.137363 Y26.018458 Z-0.125000
G01 X29.055464 Y26.662376 Z-0.125000
G01 X25.341082 Y27.614622 Z-0.125000
G01 X22.123175 Y28.841027 Z-0.125000
G01 X19.513461 Y30.297964 Z-0.125000
G01 X17.602683 Y31.933711 Z-0.125000
G01 X16.457125 Y33.690325 Z-0.125000
G01 X16.139336 Y34.897997 Z-0.125000
G01 X16.184832 Y36.112826 Z-0.125000
G01 X16.931070 Y37.906783 Z-0.125000
G01 X17.869436 Y39.056449 Z-0.125000
G01 X19.144388 Y40.147797 Z-0.125000
G01 X21.643256 Y41.638342 Z-0.125000
G01 X25.928985 Y43.271662 Z-0.125000
G01 X29.713945 Y44.174677 Z-0.125000
G01 X35.272199 Y44.887617 Z-0.125000
G01 X39.636846 Y45.028587 Z-0.125000
G01 X45.430112 Y44.680115 Z-0.125000
G01 X49.559747 Y44.026924 Z-0.125000
G01 X54.506696 Y42.674237 Z-0.125000
G01 X57.630437 Y41.342835 Z-0.125000
G01 X59.371677 Y40.328475 Z-0.125000
G01 X60.807702 Y39.230529 Z-0.125000
G01 X62.342623 Y37.463522 Z-0.125000
G01 X62.929903 Y36.231452 Z-0.125000
G01 X63.157135 Y34.978035 Z-0.125000
G01 X62.816567 Y33.099310 Z-0.125000
G01 X62.140410 Y31.875580 Z-0.125000
G01 X60.478586 Y30.129547 Z-0.125000
G01 X58.092992 Y28.543591 Z-0.125000
G01 X55.066343 Y27.171734 Z-0.125000
G01 X52.743610 Y26.399419 Z-0.125000
G01 X48.891619 Y25.483333 Z-0.125000
G01 X44.718292 Y24.884601 Z-0.125000
G01 X40.368395 Y24.623076 Z-0.125000
G01 X33.137363 Y24.952503 Z-0.125000
G01 X29.055464 Y25.596420 Z-0.125000
G01 X25.341082 Y26.548666 Z-0.125000
G01 X22.123175 Y27.775134 Z-0.125000
G01 X19.513461 Y29.232071 Z-0.125000
G01 X17.602683 Y30.867755 Z-0.125000
G01 X16.457125 Y32.624369 Z-0.125000
G01 X16.139336 Y33.832041 Z-0.125000
G01 X16.184832 Y35.046871 Z-0.125000
G01 X16.931070 Y36.840827 Z-0.125000
G01 X17.869436 Y37.990431 Z-0.125000
G01 X19.144388 Y39.081842 Z-0.125000
G01 X21.643256 Y40.572387 Z-0.125000
G01 X25.928985 Y42.205707 Z-0.125000
G01 X29.713945 Y43.108722 Z-0.125000
G01 X35.272199 Y43.821662 Z-0.125000
G01 X39.636846 Y43.962632 Z-0.125000
G01 X45.430112 Y43.614222 Z-0.125000
G01 X49.559747 Y42.960906 Z-0.125000
G01 X54.506696 Y41.608281 Z-0.125000
G01 X57.630437 Y40.276817 Z-0.125000
G01 X59.371677 Y39.262520 Z-0.125000
G01 X60.807702 Y38.164574 Z-0.125000
G01 X62.342623 Y36.397566 Z-0.125000
G01 X62.929903 Y35.165497 Z-0.125000
G01 X63.157135 Y33.912080 Z-0.125000
G01 X62.816567 Y32.033354 Z-0.125000
G01 X62.140410 Y30.809625 Z-0.125000
G01 X60.478586 Y29.063592 Z-0.125000
G01 X58.092992 Y27.477635 Z-0.125000
G01 X55.066343 Y26.105779 Z-0.125000
G01 X52.743610 Y25.333464 Z-0.125000
G01 X48.891619 Y24.417378 Z-0.125000
G01 X44.718292 Y23.818646 Z-0.125000
G01 X40.368395 Y23.557120 Z-0.125000
G01 X33.137363 Y23.886548 Z-0.125000
G01 X29.055464 Y24.530403 Z-0.125000
G01 X25.341082 Y25.482711 Z-0.125000
G01 X22.123175 Y26.709117 Z-0.125000
G01 X19.513461 Y28.166053 Z-0.125000
G01 X17.602683 Y29.801800 Z-0.125000
G01 X16.457125 Y31.558414 Z-0.125000
G01 X16.139336 Y32.766086 Z-0.125000
G01 X16.184832 Y33.980915 Z-0.125000
G01 X16.931070 Y35.774872 Z-0.125000
G01 X17.869436 Y36.924476 Z-0.125000
G01 X19.144388 Y38.015886 Z-0.125000
G01 X21.643256 Y39.506369 Z-0.125000
G01 X25.928985 Y41.139751 Z-0.125000
G01 X29.713945 Y42.042704 Z-0.125000
G01 X35.272199 Y42.755706 Z-0.125000
G01 X39.636846 Y42.896614 Z-0.125000
G01 X45.430112 Y42.548204 Z-0.125000
G01 X49.559747 Y41.894951 Z-0.125000
G01 X54.506696 Y40.542326 Z-0.125000
G01 X57.630437 Y39.210862 Z-0.125000
G01 X59.371677 Y38.196564 Z-0.125000
G01 X60.807702 Y37.098618 Z-0.125000
G01 X62.342623 Y35.331549 Z-0.125000
G01 X62.929903 Y34.099541 Z-0.125000
G01 X63.157135 Y32.846062 Z-0.125000
G01 X62.816567 Y30.967399 Z-0.125000
G01 X62.140410 Y29.743670 Z-0.125000
G01 X60.478586 Y27.997636 Z-0.125000
G01 X58.092992 Y26.411680 Z-0.125000
G01 X55.066343 Y25.039823 Z-0.125000
G01 X52.743610 Y24.267508 Z-0.125000
G01 X48.891619 Y23.351423 Z-0.125000
G01 X44.718292 Y22.752690 Z-0.125000
G01 X40.368395 Y22.491165 Z-0.125000
G01 X33.137363 Y22.820592 Z-0.125000
G01 X29.055464 Y23.464510 Z-0.125000
G01 X25.341082 Y24.416756 Z-0.125000
G01 X22.123175 Y25.643161 Z-0.125000
G01 X19.513461 Y27.100098 Z-0.125000
G01 X17.602683 Y28.735845 Z-0.125000
G01 X16.457125 Y30.492459 Z-0.125000
G01 X16.139336 Y31.700130 Z-0.125000
G01 X16.184832 Y32.914960 Z-0.125000
G01 X16.931070 Y34.708917 Z-0.125000
G01 X17.869436 Y35.858520 Z-0.125000
G01 X19.144388 Y36.949931 Z-0.125000
G01 X21.643256 Y38.440414 Z-0.125000
G01 X25.928985 Y40.073796 Z-0.125000
G01 X29.713945 Y40.976749 Z-0.125000
G01 X35.272199 Y41.689751 Z-0.125000
G01 X39.636846 Y41.830721 Z-0.125000
G01 X45.430112 Y41.482249 Z-0.125000
G01 X49.559747 Y40.828995 Z-0.125000
G01 X54.506696 Y39.476370 Z-0.125000
G01 X57.630437 Y38.144906 Z-0.125000
G01 X59.371677 Y37.130609 Z-0.125000
G01 X60.807702 Y36.032663 Z-0.125000
G01 X62.342623 Y34.265655 Z-0.125000
G01 X62.929903 Y33.033586 Z-0.125000
G01 X63.157135 Y31.780169 Z-0.125000
G01 X62.816567 Y29.901444 Z-0.125000
G01 X62.140410 Y28.677714 Z-0.125000
G01 X60.478586 Y26.931681 Z-0.125000
G01 X58.092992 Y25.345725 Z-0.125000
G01 X55.066343 Y23.973868 Z-0.125000
G01 X52.743610 Y23.201491 Z-0.125000
G01 X48.891619 Y22.285405 Z-0.125000
G01 X44.718292 Y21.686735 Z-0.125000
G01 X40.368395 Y21.425210 Z-0.125000
G01 X33.137363 Y21.754575 Z-0.125000
G01 X29.055464 Y22.398492 Z-0.125000
G01 X25.341082 Y23.350800 Z-0.125000
G01 X23.133303 Y24.140480 Z-0.125000
G01 X20.309738 Y25.525967 Z-0.125000
G01 X18.157351 Y27.108251 Z-0.125000
G01 X16.750890 Y28.831318 Z-0.125000
G01 X16.252983 Y30.028223 Z-0.125000
G01 X16.116557 Y31.241870 Z-0.125000
G01 X16.343789 Y32.453152 Z-0.125000
G01 X16.931070 Y33.642899 Z-0.125000
G01 X17.869436 Y34.792565 Z-0.125000
G01 X19.144388 Y35.883976 Z-0.125000
G01 X21.643256 Y37.374459 Z-0.125000
G01 X25.928985 Y39.007840 Z-0.125000
G01 X29.713945 Y39.910794 Z-0.125000
G01 X35.272199 Y40.623733 Z-0.125000
G01 X39.636846 Y40.764703 Z-0.125000
G00 Z3.000000

(End cutting path id: polyline16613)



(Footer)
M5
G00 X0.0000 Y0.0000
M2
(Using default footer. To add your own footer create file "footer" in the output dir.)
(end)
%