%
(Header)
(Generated by gcodetools from Inkscape.)
(Using default header. To add your own header create file "header" in the output dir.)
M3
(Header end.)
G21 (All units in mm)

(Start cutting path id: polyline136-8)
(Change tool to Default tool)

G00 Z5.000000
G00 X106.604561 Y126.595747

G00 Z4.875000 (Fast pre-penetrate)
G01 Z-0.125000 F100.0(Penetrate)
G01 X106.699151 Y126.829856 Z-0.125000 F800.000000
G01 X106.344985 Y126.890612 Z-0.125000
G01 X106.097596 Y126.377099 Z-0.125000
G01 X106.734895 Y125.884777 Z-0.125000
G01 X107.244315 Y126.091511 Z-0.125000
G01 X107.503891 Y126.600385 Z-0.125000
G01 X107.333448 Y127.270608 Z-0.125000
G01 X106.747173 Y127.667613 Z-0.125000
G01 X105.924060 Y127.558107 Z-0.125000
G01 X105.374803 Y126.905710 Z-0.125000
G01 X105.412093 Y125.936347 Z-0.125000
G01 X106.108874 Y125.232108 Z-0.125000
G01 X107.227307 Y125.173990 Z-0.125000
G01 X108.092622 Y125.901149 Z-0.125000
G01 X108.249604 Y127.151462 Z-0.125000
G01 X107.496979 Y128.193313 Z-0.125000
G01 X106.108420 Y128.465714 Z-0.125000
G01 X104.903400 Y127.710451 Z-0.125000
G01 X104.516674 Y126.196378 Z-0.125000
G01 X105.289945 Y124.819005 Z-0.125000
G01 X106.933079 Y124.302854 Z-0.125000
G01 X108.476802 Y125.067758 Z-0.125000
G01 X108.957663 Y125.882685 Z-0.125000
G01 X109.097183 Y126.825309 Z-0.125000
G01 X108.878263 Y127.752561 Z-0.125000
G01 X108.335918 Y128.533564 Z-0.125000
G01 X107.484701 Y129.094918 Z-0.125000
G01 X106.476228 Y129.300650 Z-0.125000
G01 X105.461844 Y129.122567 Z-0.125000
G01 X104.591800 Y128.584588 Z-0.125000
G01 X103.953137 Y127.699446 Z-0.125000
G01 X103.692288 Y126.618939 Z-0.125000
G01 X103.851180 Y125.524791 Z-0.125000
G01 X104.407259 Y124.570980 Z-0.125000
G01 X105.353884 Y123.841547 Z-0.125000
G01 X106.513427 Y123.509847 Z-0.125000
G01 X107.700347 Y123.631904 Z-0.125000
G01 X108.723554 Y124.182889 Z-0.125000
G01 X109.510923 Y125.149342 Z-0.125000
G01 X109.876276 Y126.350905 Z-0.125000
G01 X109.774955 Y127.599490 Z-0.125000
G01 X109.218058 Y128.731020 Z-0.125000
G01 X108.234052 Y129.609431 Z-0.125000
G01 X106.982647 Y130.061461 Z-0.125000
G01 X105.626830 Y130.026627 Z-0.125000
G01 X104.415626 Y129.509475 Z-0.125000
G01 X103.448810 Y128.509371 Z-0.125000
G01 X102.933478 Y127.191753 Z-0.125000
G01 X102.942664 Y125.765813 Z-0.125000
G01 X103.469092 Y124.482757 Z-0.125000
G01 X104.522677 Y123.420259 Z-0.125000
G01 X105.942160 Y122.800605 Z-0.125000
G01 X107.448957 Y122.739486 Z-0.125000
G01 X108.811413 Y123.236264 Z-0.125000
G01 X109.922934 Y124.272931 Z-0.125000
G01 X110.571238 Y125.691323 Z-0.125000
G01 X110.650638 Y127.275065 Z-0.125000
G01 X110.150404 Y128.756486 Z-0.125000
G01 X109.093636 Y129.984698 Z-0.125000
G01 X107.645776 Y130.731321 Z-0.125000
G01 X105.984270 Y130.910132 Z-0.125000
G01 X104.392343 Y130.478839 Z-0.125000
G01 X103.080546 Y129.449993 Z-0.125000
G01 X102.266984 Y127.970300 Z-0.125000
G01 X102.047062 Y126.250767 Z-0.125000
G01 X102.481175 Y124.578529 Z-0.125000
G01 X103.549493 Y123.181056 Z-0.125000
G01 X105.153790 Y122.222425 Z-0.125000
G01 X106.991197 Y121.889360 Z-0.125000
G01 X108.704727 Y122.242071 Z-0.125000
G01 X110.162683 Y123.264732 Z-0.125000
G01 X111.149508 Y124.839742 Z-0.125000
G01 X111.486757 Y126.680423 Z-0.125000
G01 X111.137412 Y128.525105 Z-0.125000
G01 X110.119026 Y130.125673 Z-0.125000
G01 X108.557021 Y131.241014 Z-0.125000
G01 X106.636485 Y131.731607 Z-0.125000
G01 X104.675021 Y131.513596 Z-0.125000
G01 X102.966402 Y130.582796 Z-0.125000
G01 X101.774389 Y129.043803 Z-0.125000
G01 X101.214581 Y127.045776 Z-0.125000
G01 X101.428682 Y124.991995 Z-0.125000
G01 X101.994037 Y123.771515 Z-0.125000
G01 X102.879907 Y122.720022 Z-0.125000
G01 X104.070829 Y121.870260 Z-0.125000
G01 X105.461207 Y121.304086 Z-0.125000
G01 X106.872687 Y121.082619 Z-0.125000
G01 X108.235689 Y121.207404 Z-0.125000
G01 X109.467721 Y121.668438 Z-0.125000
G01 X110.536949 Y122.444711 Z-0.125000
G01 X111.888673 Y124.487032 Z-0.125000
G01 X112.272671 Y126.978653 Z-0.125000
G01 X111.622366 Y129.370956 Z-0.125000
G01 X110.054359 Y131.258113 Z-0.125000
G01 X107.936549 Y132.324340 Z-0.125000
G01 X105.532604 Y132.548808 Z-0.125000
G01 X103.306107 Y131.898140 Z-0.125000
G01 X101.622773 Y130.484023 Z-0.125000
G01 X100.610844 Y128.501640 Z-0.125000
G01 X100.344174 Y126.237306 Z-0.125000
G01 X100.860688 Y124.125771 Z-0.125000
G01 X102.110456 Y122.358034 Z-0.125000
G01 X104.140770 Y120.973658 Z-0.125000
G01 X106.574456 Y120.295886 Z-0.125000
G01 X108.821145 Y120.480791 Z-0.125000
G01 X110.777152 Y121.508454 Z-0.125000
G01 X112.465943 Y123.728313 Z-0.125000
G01 X113.077866 Y126.597384 Z-0.125000
G01 X112.474220 Y129.425800 Z-0.125000
G01 X110.744501 Y131.724968 Z-0.125000
G01 X108.389579 Y133.031762 Z-0.125000
G01 X105.649295 Y133.408575 Z-0.125000
G01 X103.060446 Y132.795197 Z-0.125000
G01 X101.074152 Y131.287126 Z-0.125000
G01 X99.851034 Y129.089915 Z-0.125000
G01 X99.456212 Y126.535628 Z-0.125000
G01 X99.937710 Y124.128227 Z-0.125000
G01 X101.256510 Y122.090181 Z-0.125000
G01 X103.532485 Y120.422127 Z-0.125000
G01 X106.324612 Y119.520796 Z-0.125000
G01 X108.931924 Y119.617205 Z-0.125000
G01 X111.135411 Y120.670880 Z-0.125000
G01 X113.040394 Y122.986783 Z-0.125000
G01 X113.856231 Y126.003651 Z-0.125000
G01 X113.441764 Y129.121657 Z-0.125000
G01 X111.837012 Y131.784177 Z-0.125000
G01 X109.264171 Y133.565557 Z-0.125000
G01 X105.982815 Y134.263794 Z-0.125000
G01 X102.820061 Y133.704350 Z-0.125000
G01 X101.513994 Y132.992198 Z-0.125000
G01 X100.426030 Y132.010647 Z-0.125000
G01 X99.050931 Y129.620800 Z-0.125000
G01 X98.557791 Y126.772921 Z-0.125000
G01 X99.031468 Y124.077294 Z-0.125000
G01 X100.411569 Y121.822147 Z-0.125000
G01 X102.949940 Y119.874507 Z-0.125000
G01 X106.120243 Y118.748889 Z-0.125000
G01 X109.003048 Y118.740703 Z-0.125000
G01 X111.495853 Y119.822119 Z-0.125000
G01 X112.713696 Y120.944918 Z-0.125000
G01 X113.668780 Y122.346483 Z-0.125000
G01 X114.319448 Y123.958693 Z-0.125000
G01 X114.637597 Y125.699964 Z-0.125000
G01 X114.604400 Y127.532640 Z-0.125000
G01 X114.224949 Y129.254174 Z-0.125000
G01 X113.521438 Y130.835006 Z-0.125000
G01 X112.489500 Y132.250123 Z-0.125000
G01 X111.183070 Y133.409484 Z-0.125000
G01 X109.624885 Y134.291534 Z-0.125000
G01 X106.025017 Y135.116921 Z-0.125000
G01 X104.172604 Y135.021148 Z-0.125000
G01 X102.467350 Y134.582761 Z-0.125000
G01 X100.995024 Y133.830045 Z-0.125000
G01 X99.770905 Y132.771094 Z-0.125000
G01 X98.224908 Y130.153959 Z-0.125000
G01 X97.641726 Y127.010578 Z-0.125000
G01 X98.114038 Y124.027453 Z-0.125000
G01 X99.591821 Y121.528464 Z-0.125000
G01 X102.421601 Y119.310788 Z-0.125000
G01 X105.995458 Y117.967887 Z-0.125000
G01 X109.198867 Y117.881664 Z-0.125000
G01 X111.917505 Y119.000461 Z-0.125000
G01 X113.271684 Y120.220760 Z-0.125000
G01 X114.335637 Y121.757753 Z-0.125000
G01 X115.063797 Y123.535859 Z-0.125000
G01 X115.425057 Y125.464035 Z-0.125000
G01 X115.406321 Y127.439688 Z-0.125000
G01 X114.994401 Y129.413249 Z-0.125000
G01 X114.234408 Y131.170435 Z-0.125000
G01 X113.116157 Y132.741171 Z-0.125000
G01 X111.697674 Y134.028320 Z-0.125000
G01 X109.996969 Y135.014327 Z-0.125000
G01 X108.055877 Y135.676183 Z-0.125000
G01 X105.961442 Y135.980689 Z-0.125000
G01 X103.901931 Y135.899833 Z-0.125000
G01 X102.006771 Y135.441527 Z-0.125000
G01 X100.376371 Y134.633330 Z-0.125000
G01 X99.030194 Y133.482973 Z-0.125000
G01 X97.364960 Y130.674476 Z-0.125000
G01 X96.703559 Y127.174382 Z-0.125000
G01 X97.187968 Y123.963605 Z-0.125000
G01 X98.775893 Y121.227687 Z-0.125000
G01 X101.921003 Y118.741886 Z-0.125000
G01 X105.921878 Y117.177880 Z-0.125000
G01 X109.448712 Y117.020261 Z-0.125000
G01 X110.959056 Y117.430271 Z-0.125000
G01 X112.378994 Y118.187080 Z-0.125000
G01 X113.863962 Y119.513156 Z-0.125000
G01 X115.029144 Y121.193671 Z-0.125000
G01 X115.824790 Y123.144676 Z-0.125000
G01 X116.217883 Y125.265669 Z-0.125000
G01 X116.195600 Y127.442052 Z-0.125000
G01 X115.745571 Y129.616253 Z-0.125000
G01 X114.919275 Y131.548704 Z-0.125000
G01 X113.706616 Y133.270874 Z-0.125000
G01 X112.170168 Y134.679170 Z-0.125000
G01 X110.321029 Y135.761950 Z-0.125000
G01 X108.197034 Y136.498295 Z-0.125000
G01 X105.892227 Y136.852643 Z-0.125000
G01 X103.618799 Y136.790614 Z-0.125000
G01 X101.527455 Y136.316301 Z-0.125000
G01 X99.734888 Y135.455898 Z-0.125000
G01 X98.265109 Y134.216317 Z-0.125000
G01 X96.464083 Y131.168253 Z-0.125000
G01 X95.743109 Y127.360378 Z-0.125000
G01 X96.256077 Y123.871198 Z-0.125000
G01 X97.932135 Y120.955195 Z-0.125000
G01 X99.440114 Y119.518249 Z-0.125000
G01 X101.402488 Y118.193447 Z-0.125000
G01 X105.848298 Y116.388783 Z-0.125000
G01 X107.807306 Y116.082458 Z-0.125000
G01 X109.638346 Y116.137938 Z-0.125000
G01 X111.290211 Y116.551314 Z-0.125000
G01 X112.840755 Y117.353599 Z-0.125000
G01 X114.414402 Y118.735155 Z-0.125000
G01 X115.692819 Y120.549005 Z-0.125000
G01 X116.568593 Y122.666997 Z-0.125000
G01 X117.005979 Y124.979899 Z-0.125000
G01 X116.991791 Y127.361378 Z-0.125000
G01 X116.515204 Y129.745586 Z-0.125000
G01 X115.600685 Y131.925698 Z-0.125000
G01 X114.294073 Y133.802305 Z-0.125000
G01 X112.641298 Y135.333113 Z-0.125000
G01 X110.644999 Y136.513302 Z-0.125000
G01 X108.264793 Y137.343600 Z-0.125000
G01 X105.740884 Y137.737694 Z-0.125000
G01 X103.248170 Y137.684305 Z-0.125000
G01 X100.960462 Y137.183343 Z-0.125000
G01 X99.011640 Y136.260002 Z-0.125000
G01 X97.474466 Y134.969943 Z-0.125000
G01 X96.406420 Y133.523356 Z-0.125000
G01 X95.563298 Y131.748615 Z-0.125000
G01 X94.761194 Y127.636325 Z-0.125000
G01 X95.280074 Y123.860374 Z-0.125000
G01 X96.026151 Y122.180769 Z-0.125000
G01 X97.061181 Y120.709535 Z-0.125000
G01 X98.680849 Y119.154897 Z-0.125000
G01 X100.800115 Y117.704581 Z-0.125000
G01 X103.284096 Y116.454450 Z-0.125000
G01 X105.776173 Y115.600778 Z-0.125000
G01 X107.906262 Y115.227876 Z-0.125000
G01 X109.894921 Y115.254161 Z-0.125000
G01 X111.685851 Y115.680542 Z-0.125000
G01 X113.303790 Y116.501290 Z-0.125000
G01 X115.008771 Y117.983348 Z-0.125000
G01 X116.390782 Y119.940629 Z-0.125000
G01 X117.334497 Y122.233703 Z-0.125000
G01 X117.801807 Y124.744698 Z-0.125000
G01 X117.780706 Y127.335457 Z-0.125000
G01 X117.262736 Y129.931219 Z-0.125000
G01 X116.277820 Y132.302056 Z-0.125000
G01 X114.877255 Y134.336555 Z-0.125000
G01 X113.109881 Y135.991148 Z-0.125000
G01 X110.967787 Y137.269384 Z-0.125000
G01 X108.395946 Y138.178355 Z-0.125000
G01 X105.651387 Y138.625928 Z-0.125000
G01 X102.931113 Y138.596824 Z-0.125000
G01 X100.434489 Y138.085766 Z-0.125000
G01 X98.315678 Y137.114948 Z-0.125000
G01 X96.656810 Y135.742486 Z-0.125000
G01 X95.477985 Y134.132732 Z-0.125000
G01 X94.590569 Y132.221746 Z-0.125000
G01 X94.002839 Y130.080197 Z-0.125000
G01 X93.751358 Y127.795400 Z-0.125000
G01 X93.866321 Y125.684047 Z-0.125000
G01 X94.322534 Y123.742228 Z-0.125000
G01 X95.098989 Y122.008143 Z-0.125000
G01 X96.211146 Y120.433678 Z-0.125000
G01 X97.956328 Y118.768898 Z-0.125000
G01 X100.317616 Y117.156507 Z-0.125000
G01 X103.089551 Y115.746028 Z-0.125000
G01 X105.789543 Y114.791399 Z-0.125000
G01 X108.092076 Y114.359833 Z-0.125000
G01 X110.159408 Y114.360106 Z-0.125000
G01 X112.091313 Y114.797128 Z-0.125000
G01 X113.832129 Y115.672720 Z-0.125000
G01 X115.659167 Y117.270651 Z-0.125000
G01 X117.131947 Y119.384368 Z-0.125000
G01 X118.127687 Y121.863166 Z-0.125000
G01 X118.607184 Y124.579893 Z-0.125000
G01 X118.550976 Y127.468792 Z-0.125000
G01 X117.957880 Y130.271287 Z-0.125000
G01 X116.873190 Y132.819208 Z-0.125000
G01 X115.354751 Y134.990953 Z-0.125000
G01 X113.451678 Y136.746502 Z-0.125000
G01 X111.141141 Y138.099409 Z-0.125000
G01 X108.355472 Y139.061496 Z-0.125000
G01 X105.374894 Y139.535445 Z-0.125000
G01 X102.423057 Y139.501702 Z-0.125000
G01 X99.727248 Y138.950171 Z-0.125000
G01 X97.526672 Y137.943609 Z-0.125000
G01 X95.760026 Y136.476376 Z-0.125000
G01 X94.556826 Y134.818781 Z-0.125000
G01 X93.616022 Y132.779189 Z-0.125000
G01 X92.990547 Y130.488843 Z-0.125000
G01 X92.718601 Y128.042061 Z-0.125000
G01 X92.826015 Y125.857037 Z-0.125000
G01 X93.296963 Y123.774334 Z-0.125000
G01 X94.113255 Y121.916373 Z-0.125000
G01 X95.291534 Y120.232584 Z-0.125000
G01 X97.150132 Y118.452932 Z-0.125000
G01 X99.754625 Y116.666641 Z-0.125000
G01 X102.822971 Y115.076532 Z-0.125000
G01 X105.731334 Y114.002574 Z-0.125000
G01 X108.209586 Y113.492972 Z-0.125000
G01 X110.432991 Y113.456773 Z-0.125000
G01 X112.431655 Y113.875970 Z-0.125000
G01 X114.305714 Y114.789034 Z-0.125000
G01 X116.267633 Y116.488012 Z-0.125000
G01 X117.844463 Y118.747070 Z-0.125000
G01 X118.905506 Y121.404042 Z-0.125000
G01 X119.409378 Y124.324228 Z-0.125000
G01 X119.337708 Y127.436868 Z-0.125000
G01 X118.694498 Y130.460557 Z-0.125000
G01 X117.533499 Y133.208026 Z-0.125000
G01 X115.865900 Y135.604604 Z-0.125000
G01 X113.838132 Y137.471569 Z-0.125000
G01 X111.369793 Y138.908606 Z-0.125000
G01 X108.376300 Y139.934541 Z-0.125000
G01 X105.158156 Y140.447236 Z-0.125000
G01 X101.966388 Y140.423407 Z-0.125000
G01 X99.058753 Y139.847046 Z-0.125000
G01 X96.701012 Y138.780819 Z-0.125000
G01 X94.828590 Y137.218723 Z-0.125000
G01 X93.567726 Y135.451532 Z-0.125000
G01 X92.587449 Y133.276240 Z-0.125000
G01 X91.921773 Y130.749147 Z-0.125000
G01 X91.658104 Y128.222054 Z-0.125000
G01 X91.781708 Y125.892872 Z-0.125000
G01 X92.295676 Y123.677289 Z-0.125000
G01 X93.181091 Y121.706911 Z-0.125000
G01 X94.401208 Y119.989743 Z-0.125000
G01 X96.460809 Y118.048106 Z-0.125000
G01 X99.264668 Y116.144305 Z-0.125000
G01 X102.653255 Y114.372111 Z-0.125000
G01 X105.870490 Y113.157724 Z-0.125000
G01 X108.429325 Y112.609558 Z-0.125000
G01 X110.805893 Y112.552259 Z-0.125000
G01 X112.936891 Y112.997376 Z-0.125000
G01 X114.855972 Y113.937362 Z-0.125000
G01 X116.941677 Y115.756123 Z-0.125000
G01 X118.607366 Y118.175711 Z-0.125000
G01 X119.690146 Y120.931457 Z-0.125000
G01 X120.215938 Y124.056921 Z-0.125000
G01 X120.124622 Y127.396940 Z-0.125000
G01 X119.426841 Y130.646826 Z-0.125000
G01 X118.186532 Y133.599301 Z-0.125000
G01 X116.419523 Y136.167140 Z-0.125000
G01 X114.280248 Y138.158982 Z-0.125000
G01 X111.668479 Y139.691518 Z-0.125000
G01 X108.477257 Y140.793034 Z-0.125000
G01 X105.022274 Y141.358299 Z-0.125000
G01 X101.581481 Y141.361028 Z-0.125000
G01 X98.446375 Y140.778664 Z-0.125000
G01 X95.913825 Y139.670781 Z-0.125000
G01 X93.918527 Y138.030376 Z-0.125000
G01 X92.588631 Y136.165594 Z-0.125000
G01 X91.558785 Y133.863788 Z-0.125000
G01 X90.856183 Y131.182805 Z-0.125000
G01 X90.573960 Y128.496546 Z-0.125000
G01 X90.701838 Y126.018931 Z-0.125000
G01 X91.220354 Y123.745139 Z-0.125000
G01 X92.149244 Y121.647792 Z-0.125000
G01 X93.437120 Y119.824393 Z-0.125000
G01 X95.618050 Y117.768066 Z-0.125000
G01 X98.687125 Y115.684999 Z-0.125000
G01 X102.403320 Y113.712620 Z-0.125000
G01 X105.942160 Y112.332701 Z-0.125000
G01 X108.671711 Y111.718141 Z-0.125000
G01 X111.107762 Y111.632191 Z-0.125000
G01 X113.379553 Y112.083766 Z-0.125000
G01 X115.421328 Y113.078141 Z-0.125000
G01 X117.631090 Y115.019687 Z-0.125000
G01 X119.384003 Y117.602352 Z-0.125000
G01 X120.509075 Y120.544185 Z-0.125000
G01 X121.033866 Y123.883476 Z-0.125000
G01 X120.898530 Y127.454786 Z-0.125000
G01 X120.123349 Y130.929413 Z-0.125000
G01 X118.737609 Y134.165657 Z-0.125000
G01 X116.843358 Y136.876381 Z-0.125000
G01 X114.567655 Y138.964178 Z-0.125000
G01 X111.782987 Y140.563381 Z-0.125000
G01 X108.364386 Y141.708736 Z-0.125000
G01 X104.652919 Y142.292919 Z-0.125000
G01 X100.960190 Y142.286552 Z-0.125000
G01 X97.711759 Y141.689181 Z-0.125000
G01 X95.017496 Y140.522089 Z-0.125000
G01 X92.918786 Y138.787549 Z-0.125000
G01 X91.536957 Y136.814625 Z-0.125000
G01 X90.472640 Y134.378393 Z-0.125000
G01 X89.747664 Y131.538062 Z-0.125000
G01 X89.461257 Y128.690546 Z-0.125000
G01 X89.609599 Y126.065771 Z-0.125000
G01 X90.176228 Y123.661372 Z-0.125000
G01 X91.137679 Y121.528646 Z-0.125000
G01 X92.511140 Y119.605836 Z-0.125000
G01 X94.834956 Y117.444369 Z-0.125000
G01 X98.198987 Y115.183946 Z-0.125000
G01 X102.374307 Y112.959904 Z-0.125000
G01 X106.145801 Y111.468478 Z-0.125000
G01 X108.938473 Y110.819902 Z-0.125000
G01 X111.523320 Y110.713306 Z-0.125000
G01 X113.837040 Y111.163699 Z-0.125000
G01 X116.002782 Y112.214009 Z-0.125000
G01 X118.337148 Y114.281796 Z-0.125000
G01 X120.128988 Y116.939041 Z-0.125000
G01 X121.312451 Y120.056683 Z-0.125000
G01 X121.851522 Y123.604800 Z-0.125000
G01 X121.685444 Y127.409765 Z-0.125000
G01 X120.809943 Y131.224552 Z-0.125000
G01 X119.317517 Y134.667437 Z-0.125000
G01 X117.307211 Y137.537691 Z-0.125000
G01 X114.908269 Y139.734629 Z-0.125000
G01 X111.965436 Y141.410869 Z-0.125000
G01 X108.329915 Y142.610431 Z-0.125000
G01 X104.362784 Y143.225628 Z-0.125000
G01 X100.409295 Y143.224719 Z-0.125000
G01 X96.940215 Y142.602336 Z-0.125000
G01 X94.082968 Y141.375398 Z-0.125000
G01 X91.883301 Y139.546359 Z-0.125000
G01 X90.452994 Y137.465748 Z-0.125000
G01 X89.357117 Y134.895453 Z-0.125000
G01 X88.611313 Y131.895139 Z-0.125000
G01 X88.322542 Y128.884819 Z-0.125000
G01 X88.494168 Y126.111338 Z-0.125000
G01 X89.082352 Y123.666193 Z-0.125000
G01 X90.107469 Y121.415593 Z-0.125000
G01 X91.506852 Y119.466862 Z-0.125000
G01 X93.874597 Y117.259009 Z-0.125000
G01 X97.514484 Y114.810862 Z-0.125000
G01 X102.157660 Y112.303870 Z-0.125000
G01 X106.158625 Y110.666375 Z-0.125000
G01 X109.119285 Y109.931758 Z-0.125000
G01 X111.859296 Y109.781688 Z-0.125000
G01 X114.310626 Y110.237993 Z-0.125000
G01 X116.516114 Y111.290304 Z-0.125000
G01 X118.992637 Y113.464777 Z-0.125000
G01 X120.885524 Y116.267545 Z-0.125000
G01 X122.126378 Y119.561269 Z-0.125000
G01 X122.676272 Y123.319121 Z-0.125000
G01 X122.456624 Y127.478888 Z-0.125000
G01 X121.486078 Y131.532514 Z-0.125000
G01 X119.881145 Y135.185407 Z-0.125000
G01 X117.685207 Y138.293318 Z-0.125000
G01 X115.149019 Y140.581026 Z-0.125000
G01 X112.130513 Y142.271909 Z-0.125000
G01 X108.275526 Y143.520676 Z-0.125000
G01 X104.046908 Y144.162704 Z-0.125000
G01 X99.825658 Y144.165432 Z-0.125000
G01 X96.131200 Y143.516674 Z-0.125000
G01 X93.109875 Y142.228980 Z-0.125000
G01 X90.811981 Y140.305078 Z-0.125000
G01 X89.336926 Y138.117508 Z-0.125000
G01 X88.212217 Y135.413514 Z-0.125000
G01 X87.447132 Y132.252397 Z-0.125000
G01 X87.157723 Y129.077546 Z-0.125000
G01 X87.340445 Y126.256133 Z-0.125000
G01 X87.966284 Y123.676561 Z-0.125000
G01 X89.008499 Y121.393491 Z-0.125000
G01 X90.550040 Y119.261856 Z-0.125000
G01 X93.065764 Y116.955776 Z-0.125000
G01 X97.031895 Y114.327636 Z-0.125000
G01 X102.194040 Y111.537147 Z-0.125000
G01 X106.429297 Y109.784144 Z-0.125000
G01 X109.552579 Y109.003323 Z-0.125000
G01 X112.323604 Y108.852980 Z-0.125000
G01 X114.801674 Y109.309194 Z-0.125000
G01 X117.129128 Y110.418168 Z-0.125000
G01 X119.732348 Y112.725067 Z-0.125000
G01 X121.706545 Y115.692184 Z-0.125000
G01 X122.980778 Y119.176271 Z-0.125000
G01 X123.513755 Y123.153316 Z-0.125000
G01 X123.245084 Y127.433867 Z-0.125000
G01 X122.191409 Y131.737155 Z-0.125000
G01 X120.427582 Y135.721386 Z-0.125000
G01 X118.107950 Y138.995920 Z-0.125000
G01 X115.449250 Y141.389405 Z-0.125000
G01 X112.170714 Y143.192795 Z-0.125000
G01 X108.200400 Y144.440016 Z-0.125000
G01 X103.568230 Y145.113513 Z-0.125000
G01 X99.075761 Y145.095141 Z-0.125000
G01 X95.166930 Y144.395631 Z-0.125000
G01 X92.098220 Y143.079924 Z-0.125000
G01 X89.705099 Y141.060796 Z-0.125000
G01 X88.188843 Y138.766903 Z-0.125000
G01 X87.038122 Y135.929756 Z-0.125000
G01 X86.255392 Y132.606836 Z-0.125000
G01 X85.967166 Y129.265634 Z-0.125000
G01 X86.178446 Y126.297607 Z-0.125000
G01 X86.828387 Y123.689385 Z-0.125000
G01 X87.939908 Y121.290079 Z-0.125000
G01 X89.509643 Y119.138435 Z-0.125000
G01 X92.158066 Y116.726214 Z-0.125000
G01 X96.220696 Y114.050324 Z-0.125000
G01 X102.021414 Y110.881749 Z-0.125000
G01 X106.615475 Y108.933563 Z-0.125000
G01 X109.779048 Y108.107813 Z-0.125000
G01 X112.699507 Y107.915177 Z-0.125000
G01 X115.311276 Y108.378667 Z-0.125000
G01 X117.761879 Y109.546669 Z-0.125000
G01 X120.492249 Y111.990268 Z-0.125000
G01 X122.545847 Y115.124373 Z-0.125000
G01 X123.849367 Y118.800368 Z-0.125000
G01 X124.358424 Y122.998425 Z-0.125000
G01 X124.014354 Y127.520635 Z-0.125000
G01 X122.804150 Y132.194006 Z-0.125000
G01 X120.894710 Y136.382968 Z-0.125000
G01 X118.435285 Y139.802388 Z-0.125000
G01 X115.639066 Y142.280458 Z-0.125000
G01 X112.292771 Y144.084758 Z-0.125000
G01 X108.103991 Y145.367359 Z-0.125000
G01 X103.191053 Y146.056500 Z-0.125000
G01 X98.417635 Y146.033853 Z-0.125000
G01 X94.275694 Y145.303420 Z-0.125000
G01 X91.048000 Y143.925957 Z-0.125000
G01 X88.562745 Y141.811239 Z-0.125000
G01 X87.057858 Y139.507614 Z-0.125000
G01 X85.835195 Y136.441814 Z-0.125000
G01 X85.036366 Y132.956090 Z-0.125000
G01 X84.751232 Y129.446355 Z-0.125000
G01 X84.976338 Y126.443130 Z-0.125000
G01 X85.669026 Y123.702300 Z-0.125000
G01 X86.854763 Y121.185485 Z-0.125000
G01 X88.526546 Y118.935977 Z-0.125000
G01 X91.237089 Y116.502200 Z-0.125000
G01 X95.627873 Y113.651228 Z-0.125000
G01 X102.134467 Y110.097836 Z-0.125000
G01 X106.968368 Y108.031504 Z-0.125000
G01 X110.286104 Y107.166918 Z-0.125000
G01 X113.218569 Y106.982922 Z-0.125000
G01 X115.954578 Y107.485339 Z-0.125000
G01 X118.415549 Y108.678535 Z-0.125000
G01 X121.273433 Y111.263382 Z-0.125000
G01 X123.404522 Y114.566930 Z-0.125000
G01 X124.732963 Y118.436470 Z-0.125000
G01 X125.209641 Y122.718567 Z-0.125000
G01 X124.806725 Y127.482162 Z-0.125000
G01 X123.492564 Y132.418475 Z-0.125000
G01 X121.399765 Y136.963422 Z-0.125000
G01 X118.733789 Y140.637325 Z-0.125000
G01 X115.799414 Y143.195796 Z-0.125000
G01 X112.276582 Y145.039296 Z-0.125000
G01 X107.845051 Y146.331902 Z-0.125000
G01 X102.632882 Y147.009674 Z-0.125000
G01 X97.576241 Y146.955922 Z-0.125000
G01 X93.216471 Y146.167552 Z-0.125000
G01 X89.857988 Y144.702411 Z-0.125000
G01 X87.385557 Y142.553768 Z-0.125000
G01 X85.848201 Y140.149733 Z-0.125000
G01 X84.603891 Y136.947324 Z-0.125000
G01 X83.790419 Y133.297250 Z-0.125000
G01 X83.510469 Y129.616798 Z-0.125000
G01 X83.769772 Y126.469142 Z-0.125000
G01 X84.488746 Y123.712487 Z-0.125000
G01 X85.693401 Y121.176845 Z-0.125000
G01 X87.453680 Y118.817194 Z-0.125000
G01 X90.304288 Y116.280551 Z-0.125000
G01 X94.664786 Y113.477146 Z-0.125000
G01 X102.017048 Y109.440710 Z-0.125000
G01 X107.228126 Y107.168100 Z-0.125000
G01 X110.702026 Y106.244394 Z-0.125000
G01 X113.769918 Y106.052123 Z-0.125000
G01 X116.510656 Y106.559633 Z-0.125000
G01 X119.091229 Y107.816131 Z-0.125000
G01 X122.076991 Y110.546865 Z-0.125000
G01 X124.283662 Y114.022675 Z-0.125000
G01 X125.632566 Y118.087033 Z-0.125000
G01 X126.072500 Y122.585686 Z-0.125000
G01 X125.547163 Y127.741556 Z-0.125000
G01 X124.072926 Y132.925167 Z-0.125000
G01 X121.815596 Y137.682395 Z-0.125000
G01 X119.002187 Y141.501821 Z-0.125000
G01 X116.029340 Y144.069115 Z-0.125000
G01 X112.352345 Y145.963275 Z-0.125000
G01 X107.697255 Y147.274525 Z-0.125000
G01 X102.192676 Y147.952115 Z-0.125000
G01 X96.842442 Y147.884266 Z-0.125000
G01 X92.242833 Y147.059334 Z-0.125000
G01 X88.727459 Y145.528435 Z-0.125000
G01 X86.173990 Y143.285929 Z-0.125000
G01 X84.607983 Y140.782302 Z-0.125000
G01 X83.344755 Y137.443465 Z-0.125000
G01 X82.518095 Y133.627496 Z-0.125000
G01 X82.245422 Y129.773781 Z-0.125000
G01 X82.542925 Y126.480056 Z-0.125000
G01 X83.331476 Y123.601253 Z-0.125000
G01 X84.638543 Y120.961289 Z-0.125000
G01 X86.448573 Y118.606368 Z-0.125000
G01 X89.361119 Y116.057992 Z-0.125000
G01 X93.805019 Y113.244037 Z-0.125000
G01 X102.217961 Y108.637879 Z-0.125000
G01 X107.671515 Y106.249033 Z-0.125000
G01 X111.152874 Y105.320871 Z-0.125000
G01 X114.354919 Y105.124870 Z-0.125000
G01 X117.213258 Y105.680221 Z-0.125000
G01 X119.789920 Y106.961730 Z-0.125000
G01 X122.904015 Y109.843626 Z-0.125000
G01 X125.184265 Y113.494154 Z-0.125000
G01 X126.549086 Y117.754696 Z-0.125000
G01 X126.944726 Y122.470814 Z-0.125000
G01 X126.310884 Y127.879439 Z-0.125000
G01 X124.687578 Y133.320534 Z-0.125000
G01 X122.201868 Y138.434384 Z-0.125000
G01 X119.239753 Y142.396513 Z-0.125000
G01 X116.132843 Y145.033294 Z-0.125000
G01 X112.276582 Y146.951283 Z-0.125000
G01 X107.370102 Y148.252347 Z-0.125000
G01 X101.725002 Y148.891738 Z-0.125000
G01 X96.075174 Y148.804424 Z-0.125000
G01 X91.375063 Y147.981402 Z-0.125000
G01 X87.669236 Y146.410029 Z-0.125000
G01 X85.002441 Y144.096309 Z-0.125000
G01 X83.337934 Y141.402684 Z-0.125000
G01 X82.058516 Y137.927692 Z-0.125000
G01 X81.201751 Y133.810854 Z-0.125000
G01 X80.957000 Y129.914120 Z-0.125000
G01 X81.272785 Y126.602204 Z-0.125000
G01 X82.114088 Y123.591976 Z-0.125000
G01 X83.439982 Y120.945009 Z-0.125000
G01 X85.346238 Y118.481127 Z-0.125000
G01 X88.182476 Y115.994871 Z-0.125000
G01 X92.525602 Y113.250677 Z-0.125000
G01 X102.320099 Y107.899170 Z-0.125000
G01 X108.165929 Y105.322053 Z-0.125000
G01 X111.788808 Y104.373063 Z-0.125000
G01 X114.974937 Y104.203529 Z-0.125000
G01 X117.820452 Y104.768248 Z-0.125000
G01 X120.512440 Y106.117972 Z-0.125000
G01 X123.755323 Y109.156031 Z-0.125000
G01 X126.107152 Y112.984097 Z-0.125000
G01 X127.455784 Y117.294662 Z-0.125000
G01 X127.831687 Y122.217150 Z-0.125000
G01 X127.144820 Y127.713725 Z-0.125000
G01 X125.349070 Y133.585112 Z-0.125000
G01 X122.635071 Y139.093056 Z-0.125000
G01 X119.445486 Y143.322401 Z-0.125000
G01 X116.204331 Y146.023121 Z-0.125000
G01 X112.303322 Y147.907276 Z-0.125000
G01 X107.169280 Y149.206248 Z-0.125000
G01 X101.048867 Y149.834452 Z-0.125000
G01 X95.099171 Y149.697842 Z-0.125000
G01 X90.183323 Y148.807789 Z-0.125000
G01 X86.468582 Y147.211405 Z-0.125000
G01 X83.725934 Y144.803186 Z-0.125000
G01 X82.091077 Y142.120020 Z-0.125000
G01 X80.781645 Y138.524881 Z-0.125000
G01 X79.897140 Y134.242966 Z-0.125000
G01 X79.643294 Y130.174969 Z-0.125000
G01 X79.980270 Y126.714166 Z-0.125000
G01 X80.828667 Y123.696843 Z-0.125000
G01 X82.220137 Y120.925545 Z-0.125000
G01 X84.227623 Y118.350520 Z-0.125000
G01 X87.093148 Y115.851622 Z-0.125000
G01 X91.065190 Y113.347722 Z-0.125000
G01 X102.626243 Y107.072692 Z-0.125000
G01 X108.554020 Y104.444096 Z-0.125000
G01 X112.165803 Y103.477280 Z-0.125000
G01 X115.484630 Y103.280097 Z-0.125000
G01 X118.451929 Y103.865644 Z-0.125000
G01 X121.259881 Y105.287037 Z-0.125000
G01 X124.631825 Y108.486990 Z-0.125000
G01 X127.053323 Y112.495232 Z-0.125000
G01 X128.409231 Y116.997887 Z-0.125000
G01 X128.727107 Y122.138386 Z-0.125000
G01 X127.874344 Y128.050428 Z-0.125000
G01 X125.875225 Y134.177571 Z-0.125000
G01 X122.963134 Y139.908893 Z-0.125000
G01 X119.618476 Y144.279941 Z-0.125000
G01 X116.243077 Y147.038869 Z-0.125000
G01 X112.165439 Y148.927300 Z-0.125000
G01 X106.945539 Y150.164516 Z-0.125000
G01 X100.517528 Y150.762250 Z-0.125000
G01 X94.256685 Y150.593535 Z-0.125000
G01 X89.098542 Y149.659552 Z-0.125000
G01 X85.231912 Y147.995227 Z-0.125000
G01 X82.417412 Y145.491781 Z-0.125000
G01 X80.764637 Y142.712388 Z-0.125000
G01 X79.408184 Y138.849033 Z-0.125000
G01 X78.531682 Y134.377210 Z-0.125000
G01 X78.313489 Y130.131585 Z-0.125000
G01 X78.693667 Y126.671510 Z-0.125000
G01 X79.623466 Y123.534767 Z-0.125000
G01 X81.132810 Y120.662604 Z-0.125000
G01 X83.193230 Y118.107679 Z-0.125000
G01 X85.984810 Y115.704372 Z-0.125000
G01 X89.838798 Y113.291696 Z-0.125000
G01 X103.158856 Y106.148258 Z-0.125000
G01 X109.149299 Y103.507658 Z-0.125000
G01 X112.890688 Y102.534566 Z-0.125000
G01 X116.172498 Y102.375855 Z-0.125000
G01 X119.249303 Y103.024068 Z-0.125000
G01 X122.033062 Y104.471655 Z-0.125000
G01 X123.794978 Y105.918242 Z-0.125000
G01 X125.534338 Y107.839051 Z-0.125000
G01 X128.023414 Y112.030105 Z-0.125000
G01 X129.382232 Y116.725941 Z-0.125000
G01 X129.633986 Y122.084997 Z-0.125000
G01 X128.638611 Y128.249703 Z-0.125000
G01 X126.447584 Y134.642062 Z-0.125000
G01 X123.258363 Y140.760474 Z-0.125000
G01 X119.660496 Y145.369269 Z-0.125000
G01 X116.248534 Y148.080357 Z-0.125000
G01 X111.992449 Y149.961875 Z-0.125000
G01 X106.335526 Y151.177445 Z-0.125000
G01 X99.557987 Y151.690685 Z-0.125000
G01 X92.996368 Y151.434292 Z-0.125000
G01 X87.815031 Y150.445102 Z-0.125000
G01 X83.838714 Y148.682003 Z-0.125000
G01 X81.077875 Y146.159548 Z-0.125000
G01 X79.358615 Y143.165055 Z-0.125000
G01 X78.010074 Y139.142079 Z-0.125000
G01 X77.143941 Y134.475802 Z-0.125000
G01 X76.960583 Y130.201982 Z-0.125000
G01 X77.360679 Y126.747363 Z-0.125000
G01 X78.351598 Y123.480742 Z-0.125000
G01 X79.878495 Y120.618219 Z-0.125000
G01 X82.047875 Y117.954062 Z-0.125000
G01 X84.857282 Y115.550754 Z-0.125000
G01 X88.578662 Y113.231941 Z-0.125000
G01 X103.765959 Y105.204998 Z-0.125000
G01 X109.629342 Y102.627427 Z-0.125000
G01 X113.501792 Y101.623866 Z-0.125000
G01 X116.898656 Y101.484437 Z-0.125000
G01 X119.937898 Y102.149112 Z-0.125000
G01 X122.832527 Y103.673917 Z-0.125000
G01 X124.662839 Y105.197995 Z-0.125000
G01 X126.366092 Y107.089881 Z-0.125000
G01 X128.955668 Y111.443830 Z-0.125000
G01 X130.349776 Y116.314839 Z-0.125000
G01 X130.565968 Y121.878901 Z-0.125000
G01 X129.501288 Y128.107546 Z-0.125000
G01 X127.081609 Y134.959210 Z-0.125000
G01 X123.611074 Y141.506278 Z-0.125000
G01 X119.762362 Y146.394295 Z-0.125000
G01 X116.219975 Y149.147585 Z-0.125000
G01 X111.939151 Y150.963890 Z-0.125000
G01 X106.239754 Y152.114338 Z-0.125000
G01 X98.953795 Y152.596655 Z-0.125000
G01 X92.071116 Y152.294150 Z-0.125000
G01 X86.652578 Y151.255663 Z-0.125000
G01 X82.529009 Y149.419985 Z-0.125000
G01 X80.957273 Y148.197503 Z-0.125000
G01 X79.708597 Y146.803941 Z-0.125000
G01 X77.979242 Y143.711129 Z-0.125000
G01 X76.624243 Y139.545359 Z-0.125000
G01 X75.752198 Y134.692540 Z-0.125000
G01 X75.588303 Y130.242091 Z-0.125000
G01 X76.073622 Y126.498156 Z-0.125000
G01 X77.124023 Y123.264004 Z-0.125000
G01 X78.778161 Y120.306164 Z-0.125000
G01 X80.999020 Y117.674749 Z-0.125000
G01 X83.843171 Y115.292451 Z-0.125000
G01 X87.436763 Y113.081416 Z-0.125000
G01 X104.628453 Y104.155052 Z-0.125000
G01 X110.330943 Y101.688351 Z-0.125000
G01 X114.154553 Y100.721716 Z-0.125000
G01 X117.663924 Y100.608663 Z-0.125000
G01 X120.804486 Y101.346918 Z-0.125000
G01 X123.792795 Y102.992962 Z-0.125000
G01 X125.676496 Y104.618542 Z-0.125000
G01 X127.420313 Y106.616569 Z-0.125000
G01 X128.877905 Y108.807504 Z-0.125000
G01 X130.038630 Y111.181617 Z-0.125000
G01 X131.389536 Y116.267090 Z-0.125000
G01 X131.501134 Y121.876081 Z-0.125000
G01 X130.275741 Y128.348113 Z-0.125000
G01 X127.630138 Y135.469722 Z-0.125000
G01 X123.842455 Y142.426891 Z-0.125000
G01 X121.878535 Y145.163354 Z-0.125000
G01 X119.829575 Y147.452427 Z-0.125000
G01 X116.157036 Y150.240187 Z-0.125000
G01 X111.701494 Y152.025751 Z-0.125000
G01 X105.740884 Y153.099254 Z-0.125000
G01 X98.102669 Y153.489983 Z-0.125000
G01 X90.904297 Y153.109623 Z-0.125000
G01 X85.280935 Y151.989734 Z-0.125000
G01 X81.186471 Y150.132773 Z-0.125000
G01 X79.577081 Y148.864088 Z-0.125000
G01 X78.310851 Y147.422595 Z-0.125000
G01 X76.575493 Y144.232282 Z-0.125000
G01 X75.180385 Y139.773011 Z-0.125000
G01 X74.339809 Y134.879264 Z-0.125000
G01 X74.198197 Y130.248640 Z-0.125000
G01 X74.670510 Y126.677058 Z-0.125000
G01 X75.758747 Y123.305933 Z-0.125000
G01 X77.491286 Y120.224853 Z-0.125000
G01 X79.828108 Y117.487207 Z-0.125000
G01 X82.680626 Y115.115187 Z-0.125000
G01 X86.270035 Y112.917157 Z-0.125000
G01 X105.579353 Y103.086460 Z-0.125000
G01 X110.908396 Y100.812395 Z-0.125000
G01 X114.850060 Y99.830117 Z-0.125000
G01 X118.301132 Y99.733344 Z-0.125000
G01 X121.553382 Y100.509071 Z-0.125000
G01 X124.652016 Y102.242974 Z-0.125000
G01 X126.603930 Y103.953139 Z-0.125000
G01 X128.404865 Y106.047029 Z-0.125000
G01 X129.902112 Y108.332918 Z-0.125000
G01 X131.085030 Y110.803348 Z-0.125000
G01 X131.938248 Y113.451589 Z-0.125000
G01 X132.425294 Y116.085005 Z-0.125000
G01 X132.449760 Y121.905640 Z-0.125000
G01 X131.920876 Y125.243295 Z-0.125000
G01 X130.990076 Y128.818243 Z-0.125000
G01 X128.075256 Y136.195517 Z-0.125000
G01 X123.937136 Y143.536865 Z-0.125000
G01 X121.881263 Y146.329992 Z-0.125000
G01 X119.752721 Y148.648624 Z-0.125000
G01 X116.059445 Y151.357711 Z-0.125000
G01 X111.427821 Y153.098345 Z-0.125000
G01 X105.201995 Y154.078258 Z-0.125000
G01 X96.974504 Y154.360663 Z-0.125000
G01 X89.470989 Y153.870525 Z-0.125000
G01 X83.864180 Y152.692609 Z-0.125000
G01 X79.812191 Y150.818276 Z-0.125000
G01 X78.167239 Y149.502660 Z-0.125000
G01 X76.885911 Y148.013053 Z-0.125000
G01 X75.148552 Y144.726241 Z-0.125000
G01 X73.751443 Y140.116263 Z-0.125000
G01 X72.891585 Y134.862347 Z-0.125000
G01 X72.791539 Y130.218171 Z-0.125000
G01 X73.320877 Y126.512708 Z-0.125000
G01 X74.508434 Y123.026438 Z-0.125000
G01 X76.282629 Y119.988561 Z-0.125000
G01 X78.766883 Y117.160508 Z-0.125000
G01 X81.643049 Y114.821504 Z-0.125000
G01 X85.242190 Y112.649668 Z-0.125000
G01 X106.618295 Y102.003135 Z-0.125000
G01 X111.720230 Y99.879322 Z-0.125000
G01 X115.589134 Y98.951341 Z-0.125000
G01 X119.141798 Y98.893405 Z-0.125000
G01 X122.492095 Y99.756810 Z-0.125000
G01 X125.539614 Y101.517907 Z-0.125000
G01 X127.559833 Y103.316023 Z-0.125000
G01 X129.417885 Y105.508322 Z-0.125000
G01 X130.954059 Y107.891075 Z-0.125000
G01 X132.157896 Y110.458732 Z-0.125000
G01 X133.013024 Y113.207111 Z-0.125000
G01 X133.483062 Y115.937754 Z-0.125000
G01 X133.623674 Y118.800004 Z-0.125000
G01 X133.412393 Y121.969761 Z-0.125000
G01 X131.826741 Y128.923837 Z-0.125000
G01 X128.682995 Y136.577059 Z-0.125000
G01 X124.197712 Y144.381988 Z-0.125000
G01 X121.948204 Y147.407497 Z-0.125000
G01 X119.745899 Y149.775242 Z-0.125000
G01 X115.926837 Y152.499428 Z-0.125000
G01 X111.292575 Y154.140378 Z-0.125000
G01 X104.623178 Y155.048804 Z-0.125000
G01 X96.021421 Y155.208606 Z-0.125000
G01 X88.426045 Y154.656893 Z-0.125000
G01 X82.589219 Y153.421587 Z-0.125000
G01 X78.407624 Y151.473947 Z-0.125000
G01 X76.835888 Y150.214539 Z-0.125000
G01 X75.516270 Y148.687824 Z-0.125000
G01 X73.752534 Y145.326067 Z-0.125000
G01 X72.339418 Y140.589030 Z-0.125000
G01 X71.458459 Y135.150118 Z-0.125000
G01 X71.358140 Y130.325494 Z-0.125000
G01 X71.919130 Y126.476873 Z-0.125000
G01 X73.106140 Y123.020799 Z-0.125000
G01 X74.960282 Y119.863775 Z-0.125000
G01 X77.570687 Y116.928127 Z-0.125000
G01 X80.596559 Y114.504901 Z-0.125000
G01 X84.372691 Y112.271218 Z-0.125000
G01 X95.655795 Y107.026943 Z-0.125000
G01 X107.548367 Y101.002211 Z-0.125000
G01 X112.399094 Y99.015371 Z-0.125000
G01 X116.372410 Y98.087664 Z-0.125000
G01 X120.023666 Y98.076568 Z-0.125000
G01 X123.303930 Y98.965166 Z-0.125000
G01 X126.455770 Y100.819762 Z-0.125000
G01 X128.544658 Y102.709193 Z-0.125000
G01 X130.459555 Y105.002904 Z-0.125000
G01 X132.034111 Y107.484066 Z-0.125000
G01 X133.257775 Y110.150224 Z-0.125000
G01 X134.112903 Y112.999377 Z-0.125000
G01 X134.563477 Y115.827702 Z-0.125000
G01 X134.664707 Y118.790727 Z-0.125000
G01 X134.417955 Y121.862802 Z-0.125000
G01 X133.738000 Y125.434930 Z-0.125000
G01 X132.676957 Y129.050078 Z-0.125000
G01 X129.289097 Y136.975337 Z-0.125000
G01 X124.320406 Y145.417292 Z-0.125000
G01 X121.978582 Y148.521473 Z-0.125000
G01 X119.703425 Y150.935058 Z-0.125000
G01 X117.764880 Y152.492879 Z-0.125000
G01 X115.759123 Y153.664428 Z-0.125000
G01 X110.953598 Y155.232617 Z-0.125000
G01 X104.230631 Y155.996975 Z-0.125000
G01 X95.023044 Y156.030809 Z-0.125000
G01 X87.116340 Y155.383233 Z-0.125000
G01 X81.283790 Y154.120278 Z-0.125000
G01 X76.974134 Y152.097785 Z-0.125000
G01 X75.372566 Y150.793629 Z-0.125000
G01 X74.041670 Y149.218618 Z-0.125000
G01 X72.283391 Y145.762453 Z-0.125000
G01 X70.836805 Y140.705994 Z-0.125000
G01 X69.992318 Y135.227973 Z-0.125000
G01 X69.920921 Y130.217716 Z-0.125000
G01 X70.502011 Y126.408295 Z-0.125000
G01 X71.759691 Y122.829073 Z-0.125000
G01 X73.727704 Y119.568182 Z-0.125000
G01 X76.358482 Y116.671734 Z-0.125000
G01 X79.540700 Y114.163013 Z-0.125000
G01 X83.322381 Y111.955252 Z-0.125000
G01 X95.876171 Y106.334891 Z-0.125000
G01 X108.554384 Y99.996740 Z-0.125000
G01 X113.127253 Y98.160880 Z-0.125000
G01 X117.200525 Y97.241358 Z-0.125000
G01 X120.763922 Y97.259640 Z-0.125000
G01 X124.145233 Y98.198079 Z-0.125000
G01 X127.400849 Y100.150812 Z-0.125000
G01 X129.558587 Y102.134924 Z-0.125000
G01 X131.530420 Y104.532683 Z-0.125000
G01 X133.142721 Y107.114166 Z-0.125000
G01 X134.385121 Y109.879916 Z-0.125000
G01 X135.238430 Y112.830480 Z-0.125000
G01 X135.666994 Y115.756851 Z-0.125000
G01 X135.725294 Y118.820650 Z-0.125000
G01 X135.414876 Y121.995774 Z-0.125000
G01 X134.696722 Y125.467036 Z-0.125000
G01 X133.542181 Y129.198784 Z-0.125000
G01 X129.894927 Y137.391714 Z-0.125000
G01 X124.521591 Y146.325626 Z-0.125000
G01 X121.972215 Y149.671921 Z-0.125000
G01 X119.625115 Y152.127981 Z-0.125000
G01 X117.756968 Y153.607037 Z-0.125000
G01 X115.701732 Y154.783861 Z-0.125000
G01 X110.765419 Y156.297298 Z-0.125000
G01 X103.581963 Y156.946875 Z-0.125000
G01 X93.717069 Y156.811084 Z-0.125000
G01 X85.761160 Y156.074557 Z-0.125000
G01 X79.750526 Y154.721287 Z-0.125000
G01 X75.513268 Y152.687698 Z-0.125000
G01 X73.883868 Y151.338247 Z-0.125000
G01 X72.544332 Y149.714759 Z-0.125000
G01 X70.743670 Y146.021575 Z-0.125000
G01 X69.317820 Y140.774025 Z-0.125000
G01 X68.495708 Y135.072354 Z-0.125000
G01 X68.471606 Y130.063098 Z-0.125000
G01 X69.117090 Y126.120979 Z-0.125000
G01 X70.483457 Y122.432160 Z-0.125000
G01 X72.487305 Y119.236390 Z-0.125000
G01 X75.277158 Y116.255812 Z-0.125000
G01 X78.646281 Y113.680424 Z-0.125000
G01 X82.633513 Y111.427732 Z-0.125000
G01 X95.097079 Y106.111423 Z-0.125000
G01 X109.018510 Y99.273310 Z-0.125000
G01 X114.106439 Y97.254819 Z-0.125000
G01 X118.269389 Y96.396235 Z-0.125000
G01 X121.912369 Y96.523204 Z-0.125000
G01 X125.368624 Y97.618444 Z-0.125000
G01 X128.532379 Y99.639391 Z-0.125000
G01 X130.739595 Y101.745469 Z-0.125000
G01 X132.744716 Y104.262375 Z-0.125000
G01 X134.370296 Y106.957092 Z-0.125000
G01 X135.605329 Y109.835168 Z-0.125000
G01 X136.389788 Y112.702693 Z-0.125000
G01 X136.793886 Y115.727382 Z-0.125000
G01 X136.805983 Y118.892047 Z-0.125000
G01 X136.427442 Y122.169764 Z-0.125000
G01 X135.614242 Y125.750987 Z-0.125000
G01 X134.338190 Y129.598699 Z-0.125000
G01 X130.385156 Y138.042837 Z-0.125000
G01 X124.453196 Y147.604498 Z-0.125000
G01 X121.809230 Y150.997724 Z-0.125000
G01 X119.387095 Y153.463061 Z-0.125000
G01 X117.453007 Y154.924655 Z-0.125000
G01 X115.318280 Y156.060369 Z-0.125000
G01 X110.361685 Y157.403270 Z-0.125000
G01 X102.894186 Y157.880312 Z-0.125000
G01 X92.072207 Y157.533695 Z-0.125000
G01 X84.110205 Y156.688572 Z-0.125000
G01 X78.178699 Y155.281549 Z-0.125000
G01 X75.754108 Y154.268256 Z-0.125000
G01 X73.884505 Y153.140910 Z-0.125000
G01 X72.261108 Y151.731795 Z-0.125000
G01 X71.025802 Y150.174247 Z-0.125000
G01 X69.239056 Y146.384108 Z-0.125000
G01 X67.784284 Y140.789942 Z-0.125000
G01 X66.987729 Y134.856526 Z-0.125000
G01 X67.030203 Y129.660364 Z-0.125000
G01 X67.778645 Y125.594550 Z-0.125000
G01 X69.207496 Y121.985314 Z-0.125000
G01 X71.364415 Y118.710325 Z-0.125000
G01 X74.195105 Y115.802509 Z-0.125000
G01 X77.759593 Y113.161817 Z-0.125000
G01 X81.762923 Y110.958512 Z-0.125000
G01 X95.631784 Y105.291675 Z-0.125000
G01 X109.740667 Y98.460566 Z-0.125000
G01 X114.939466 Y96.425340 Z-0.125000
G01 X118.992910 Y95.610595 Z-0.125000
G01 X122.727296 Y95.756754 Z-0.125000
G01 X126.280506 Y96.914751 Z-0.125000
G01 X129.540943 Y99.040656 Z-0.125000
G01 X131.816372 Y101.248963 Z-0.125000
G01 X133.877065 Y103.875285 Z-0.125000
G01 X135.537934 Y106.673686 Z-0.125000
G01 X136.722671 Y109.461993 Z-0.125000
G01 X137.527684 Y112.415013 Z-0.125000
G01 X137.932328 Y115.528289 Z-0.125000
G01 X137.922597 Y118.785179 Z-0.125000
G01 X137.498580 Y122.158486 Z-0.125000
G01 X136.611346 Y125.844395 Z-0.125000
G01 X135.230790 Y129.805432 Z-0.125000
G01 X131.111315 Y138.284677 Z-0.125000
G01 X124.588714 Y148.582320 Z-0.125000
G01 X121.725554 Y152.223389 Z-0.125000
G01 X119.233659 Y154.722014 Z-0.125000
G01 X117.244182 Y156.181516 Z-0.125000
G01 X115.045515 Y157.288671 Z-0.125000
G01 X112.733796 Y158.019013 Z-0.125000
G01 X109.922570 Y158.510971 Z-0.125000
G01 X102.167573 Y158.794377 Z-0.125000
G01 X90.625257 Y158.226929 Z-0.125000
G01 X82.401677 Y157.255019 Z-0.125000
G01 X76.570127 Y155.798519 Z-0.125000
G01 X72.371069 Y153.653696 Z-0.125000
G01 X70.837259 Y152.315978 Z-0.125000
G01 X69.570484 Y150.722686 Z-0.125000
G01 X67.769640 Y146.859877 Z-0.125000
G01 X66.308410 Y141.125008 Z-0.125000
G01 X65.495848 Y134.990225 Z-0.125000
G01 X65.543779 Y129.601700 Z-0.125000
G01 X66.275759 Y125.585092 Z-0.125000
G01 X67.744083 Y121.841792 Z-0.125000
G01 X69.985951 Y118.452841 Z-0.125000
G01 X72.947975 Y115.449343 Z-0.125000
G01 X76.690001 Y112.723703 Z-0.125000
G01 X80.890878 Y110.455367 Z-0.125000
G01 X96.023149 Y104.549419 Z-0.125000
G01 X110.735496 Y97.555960 Z-0.125000
G01 X115.823062 Y95.611504 Z-0.125000
G01 X119.957453 Y94.830684 Z-0.125000
G01 X123.772149 Y95.054061 Z-0.125000
G01 X127.407761 Y96.335207 Z-0.125000
G01 X130.744688 Y98.618549 Z-0.125000
G01 X133.067049 Y100.956554 Z-0.125000
G01 X135.156937 Y103.705842 Z-0.125000
G01 X136.826356 Y106.620389 Z-0.125000
G01 X137.999269 Y109.516200 Z-0.125000
G01 X138.771176 Y112.577543 Z-0.125000
G01 X139.119339 Y115.800144 Z-0.125000
G01 X139.048670 Y118.938341 Z-0.125000
G01 X138.549254 Y122.413242 Z-0.125000
G01 X137.556971 Y126.207019 Z-0.125000
G01 X136.142490 Y130.040542 Z-0.125000
G01 X131.724693 Y138.764084 Z-0.125000
G01 X124.565248 Y149.769058 Z-0.125000
G01 X121.605225 Y153.484980 Z-0.125000
G01 X119.044662 Y156.012619 Z-0.125000
G01 X117.000431 Y157.464299 Z-0.125000
G01 X114.897446 Y158.475409 Z-0.125000
G01 X112.534612 Y159.169371 Z-0.125000
G01 X109.654263 Y159.599390 Z-0.125000
G01 X101.666702 Y159.696163 Z-0.125000
G01 X88.526455 Y158.818206 Z-0.125000
G01 X80.638124 Y157.771261 Z-0.125000
G01 X74.927175 Y156.270376 Z-0.125000
G01 X70.835440 Y154.127008 Z-0.125000
G01 X69.282895 Y152.745725 Z-0.125000
G01 X68.014664 Y151.106957 Z-0.125000
G01 X66.235103 Y147.148739 Z-0.125000
G01 X64.749680 Y141.042788 Z-0.125000
G01 X63.967496 Y134.660070 Z-0.125000
G01 X64.068725 Y129.289009 Z-0.125000
G01 X64.873283 Y125.142066 Z-0.125000
G01 X66.459572 Y121.296355 Z-0.125000
G01 X68.726634 Y117.995809 Z-0.125000
G01 X71.856828 Y114.917549 Z-0.125000
G01 X75.809498 Y112.129515 Z-0.125000
G01 X80.234571 Y109.817705 Z-0.125000
G01 X96.722386 Y103.691562 Z-0.125000
G01 X111.796357 Y96.658449 Z-0.125000
G01 X116.757317 Y94.815404 Z-0.125000
G01 X120.967563 Y94.077695 Z-0.125000
G01 X124.858931 Y94.387385 Z-0.125000
G01 X128.385219 Y95.698909 Z-0.125000
G01 X131.816736 Y98.098124 Z-0.125000
G01 X134.206583 Y100.545634 Z-0.125000
G01 X136.350496 Y103.409339 Z-0.125000
G01 X138.053021 Y106.430754 Z-0.125000
G01 X139.238031 Y109.424248 Z-0.125000
G01 X140.001480 Y112.583728 Z-0.125000
G01 X140.318264 Y115.905921 Z-0.125000
G01 X140.195843 Y119.138253 Z-0.125000
G01 X139.616845 Y122.714383 Z-0.125000
G01 X138.596367 Y126.369277 Z-0.125000
G01 X137.074563 Y130.305940 Z-0.125000
G01 X132.485504 Y139.031573 Z-0.125000
G01 X124.503492 Y150.994450 Z-0.125000
G01 X121.448606 Y154.782042 Z-0.125000
G01 X118.820284 Y157.334147 Z-0.125000
G01 X116.721937 Y158.771912 Z-0.125000
G01 X114.560470 Y159.742184 Z-0.125000
G01 X112.126694 Y160.370843 Z-0.125000
G01 X109.152482 Y160.709547 Z-0.125000
G01 X100.874240 Y160.569572 Z-0.125000
G01 X86.326334 Y159.339632 Z-0.125000
G01 X78.554693 Y158.180817 Z-0.125000
G01 X73.041019 Y156.612718 Z-0.125000
G01 X69.132915 Y154.446704 Z-0.125000
G01 X67.597469 Y153.008666 Z-0.125000
G01 X66.442928 Y151.449754 Z-0.125000
G01 X64.688379 Y147.396401 Z-0.125000
G01 X63.181309 Y140.900266 Z-0.125000
G01 X62.444145 Y134.482805 Z-0.125000
G01 X62.588668 Y128.918108 Z-0.125000
G01 X63.469990 Y124.639649 Z-0.125000
G01 X65.073923 Y120.881070 Z-0.125000
G01 X67.462678 Y117.491754 Z-0.125000
G01 X70.766044 Y114.341279 Z-0.125000
G01 X74.937362 Y111.493217 Z-0.125000
G01 X79.595999 Y109.138841 Z-0.125000
G01 X97.265459 Y102.913197 Z-0.125000
G01 X112.700144 Y95.866987 Z-0.125000
G01 X117.742233 Y94.039040 Z-0.125000
G01 X122.023057 Y93.353810 Z-0.125000
G01 X125.987369 Y93.759182 Z-0.125000
G01 X129.587146 Y95.203404 Z-0.125000
G01 X133.092061 Y97.773881 Z-0.125000
G01 X135.526110 Y100.358091 Z-0.125000
G01 X137.695035 Y103.348038 Z-0.125000
G01 X139.401289 Y106.488236 Z-0.125000
G01 X140.568745 Y109.591417 Z-0.125000
G01 X141.291902 Y112.860949 Z-0.125000
G01 X141.541292 Y116.059993 Z-0.125000
G01 X141.364391 Y119.386551 Z-0.125000
G01 X140.701535 Y123.063365 Z-0.125000
G01 X139.572642 Y126.817214 Z-0.125000
G01 X138.028555 Y130.603261 Z-0.125000
G01 X133.271872 Y139.311340 Z-0.125000
G01 X124.263016 Y152.443856 Z-0.125000
G01 X121.255970 Y156.114212 Z-0.125000
G01 X118.561072 Y158.685598 Z-0.125000
G01 X116.558861 Y160.022407 Z-0.125000
G01 X114.356829 Y160.971124 Z-0.125000
G01 X111.875030 Y161.549577 Z-0.125000
G01 X108.834788 Y161.808607 Z-0.125000
G01 X100.327348 Y161.438797 Z-0.125000
G01 X83.719294 Y159.748460 Z-0.125000
G01 X76.414690 Y158.524887 Z-0.125000
G01 X71.122757 Y156.896215 Z-0.125000
G01 X67.410927 Y154.715557 Z-0.125000
G01 X66.007997 Y153.350372 Z-0.125000
G01 X64.857185 Y151.749440 Z-0.125000
G01 X63.082899 Y147.437875 Z-0.125000
G01 X61.605298 Y140.694534 Z-0.125000
G01 X60.904970 Y134.018952 Z-0.125000
G01 X61.105427 Y128.486633 Z-0.125000
G01 X62.067696 Y124.075748 Z-0.125000
G01 X63.793596 Y120.222306 Z-0.125000
G01 X66.349430 Y116.766778 Z-0.125000
G01 X69.676079 Y113.718350 Z-0.125000
G01 X74.073594 Y110.813171 Z-0.125000
G01 X79.216821 Y108.316729 Z-0.125000
G01 X97.882384 Y102.117188 Z-0.125000
G01 X113.887246 Y94.991213 Z-0.125000
G01 X118.996821 Y93.229115 Z-0.125000
G01 X123.338401 Y92.659667 Z-0.125000
G01 X127.157099 Y93.171816 Z-0.125000
G01 X130.828000 Y94.757286 Z-0.125000
G01 X134.404403 Y97.506301 Z-0.125000
G01 X136.880563 Y100.229849 Z-0.125000
G01 X139.071589 Y103.346946 Z-0.125000
G01 X140.686073 Y106.398467 Z-0.125000
G01 X141.862806 Y109.601604 Z-0.125000
G01 X142.573321 Y112.970818 Z-0.125000
G01 X142.788603 Y116.263725 Z-0.125000
G01 X142.554221 Y119.684600 Z-0.125000
G01 X141.869173 Y123.206977 Z-0.125000
G01 X140.658060 Y127.054871 Z-0.125000
G01 X139.005649 Y130.934143 Z-0.125000
G01 X134.087072 Y139.605387 Z-0.125000
G01 X123.975881 Y153.936646 Z-0.125000
G01 X120.890708 Y157.629104 Z-0.125000
G01 X118.267479 Y160.065972 Z-0.125000
G01 X116.216246 Y161.378314 Z-0.125000
G01 X113.957460 Y162.271460 Z-0.125000
G01 X111.406083 Y162.766601 Z-0.125000
G01 X108.495538 Y162.914307 Z-0.125000
G01 X100.625305 Y162.383058 Z-0.125000
G01 X81.324991 Y160.115814 Z-0.125000
G01 X74.224210 Y158.800925 Z-0.125000
G01 X69.386580 Y157.213090 Z-0.125000
G01 X65.816362 Y155.054352 Z-0.125000
G01 X63.341111 Y152.144716 Z-0.125000
G01 X61.518166 Y147.594402 Z-0.125000
G01 X60.023466 Y140.422861 Z-0.125000
G01 X59.371706 Y133.719357 Z-0.125000
G01 X59.621005 Y127.992310 Z-0.125000
G01 X60.594825 Y123.666647 Z-0.125000
G01 X62.402126 Y119.698697 Z-0.125000
G01 X65.086383 Y116.157857 Z-0.125000
G01 X68.587387 Y113.046854 Z-0.125000
G01 X73.218284 Y110.087649 Z-0.125000
G01 X78.625635 Y107.549460 Z-0.125000
G01 X98.574163 Y101.304080 Z-0.125000
G01 X104.181335 Y99.064667 Z-0.125000
G01 X114.909179 Y94.224673 Z-0.125000
G01 X120.084876 Y92.500865 Z-0.125000
G01 X124.486575 Y92.005815 Z-0.125000
G01 X128.367484 Y92.627652 Z-0.125000
G01 X132.107327 Y94.362919 Z-0.125000
G01 X135.753217 Y97.297385 Z-0.125000
G01 X138.114232 Y99.963270 Z-0.125000
G01 X140.356100 Y103.201060 Z-0.125000
G01 X141.998779 Y106.357084 Z-0.125000
G01 X143.184061 Y109.661268 Z-0.125000
G01 X143.880661 Y113.131075 Z-0.125000
G01 X144.059926 Y116.518298 Z-0.125000
G01 X143.765243 Y120.033491 Z-0.125000
G01 X142.995246 Y123.649003 Z-0.125000
G01 X141.770854 Y127.329363 Z-0.125000
G01 X140.137816 Y131.035554 Z-0.125000
G01 X135.103276 Y139.660140 Z-0.125000
G01 X123.642907 Y155.471547 Z-0.125000
G01 X120.484154 Y159.178830 Z-0.125000
G01 X117.940053 Y161.474178 Z-0.125000
G01 X115.840615 Y162.754959 Z-0.125000
G01 X113.699976 Y163.539145 Z-0.125000
G01 X111.300943 Y163.951975 Z-0.125000
G01 X108.360838 Y164.032558 Z-0.125000
G01 X101.507810 Y163.426547 Z-0.125000
G01 X78.527680 Y160.353653 Z-0.125000
G01 X71.989890 Y159.006658 Z-0.125000
G01 X67.415747 Y157.379350 Z-0.125000
G01 X64.062176 Y155.222340 Z-0.125000
G01 X61.732176 Y152.358362 Z-0.125000
G01 X59.946703 Y147.705545 Z-0.125000
G01 X58.437632 Y140.082702 Z-0.125000
G01 X57.829802 Y133.111436 Z-0.125000
G01 X58.137219 Y127.432957 Z-0.125000
G01 X59.194623 Y122.978871 Z-0.125000
G01 X61.131894 Y118.918059 Z-0.125000
G01 X63.821245 Y115.495365 Z-0.125000
G01 X67.500241 Y112.324697 Z-0.125000
G01 X72.371342 Y109.315288 Z-0.125000
G01 X78.052276 Y106.736898 Z-0.125000
G01 X82.365933 Y105.284581 Z-0.125000
G01 X99.341522 Y100.474510 Z-0.125000
G01 X105.089579 Y98.268385 Z-0.125000
G01 X116.218792 Y93.381277 Z-0.125000
G01 X121.221864 Y91.798900 Z-0.125000
G01 X125.678133 Y91.388253 Z-0.125000
G01 X129.617888 Y92.128872 Z-0.125000
G01 X133.629313 Y94.160279 Z-0.125000
G01 X137.320314 Y97.338768 Z-0.125000
G01 X139.846134 Y100.364822 Z-0.125000
G01 X141.917923 Y103.530669 Z-0.125000
G01 X143.526222 Y106.810114 Z-0.125000
G01 X144.653477 Y110.237811 Z-0.125000
G01 X145.240025 Y113.586652 Z-0.125000
G01 X145.346347 Y117.078652 Z-0.125000
G01 X144.952799 Y120.696347 Z-0.125000
G01 X144.058835 Y124.410177 Z-0.125000
G01 X142.801519 Y127.912091 Z-0.125000
G01 X141.034418 Y131.702776 Z-0.125000
G01 X135.815700 Y140.244414 Z-0.125000
G01 X123.113295 Y157.236647 Z-0.125000
G01 X120.037218 Y160.761571 Z-0.125000
G01 X117.579521 Y162.908759 Z-0.125000
G01 X115.592226 Y164.078216 Z-0.125000
G01 X113.418026 Y164.826566 Z-0.125000
G01 X110.979520 Y165.174184 Z-0.125000
G01 X108.212678 Y165.169636 Z-0.125000
G01 X102.674538 Y164.568082 Z-0.125000
G01 X75.973393 Y160.557112 Z-0.125000
G01 X69.718826 Y159.139538 Z-0.125000
G01 X65.425906 Y157.481216 Z-0.125000
G01 X62.296986 Y155.335484 Z-0.125000
G01 X60.114872 Y152.525531 Z-0.125000
G01 X58.370328 Y147.770030 Z-0.125000
G01 X56.849797 Y139.671145 Z-0.125000
G01 X56.294355 Y132.680416 Z-0.125000
G01 X56.655888 Y126.806664 Z-0.125000
G01 X57.800879 Y122.223153 Z-0.125000
G01 X59.739879 Y118.277668 Z-0.125000
G01 X62.554834 Y114.777028 Z-0.125000
G01 X66.415097 Y111.549789 Z-0.125000
G01 X71.532676 Y108.494085 Z-0.125000
G01 X77.775874 Y105.774629 Z-0.125000
G01 X82.295354 Y104.337865 Z-0.125000
G01 X94.028942 Y101.433777 Z-0.125000
G01 X100.184735 Y99.628750 Z-0.125000
G01 X106.328705 Y97.361142 Z-0.125000
G01 X117.355780 Y92.647934 Z-0.125000
G01 X122.407055 Y91.124766 Z-0.125000
G01 X126.912439 Y90.808800 Z-0.125000
G01 X131.126867 Y91.760518 Z-0.125000
G01 X135.194773 Y94.036675 Z-0.125000
G01 X138.926612 Y97.464463 Z-0.125000
G01 X141.456343 Y100.647136 Z-0.125000
G01 X143.507850 Y103.939769 Z-0.125000
G01 X145.076130 Y107.343364 Z-0.125000
G01 X146.083965 Y110.653551 Z-0.125000
G01 X146.618125 Y114.108442 Z-0.125000
G01 X146.646138 Y117.705400 Z-0.125000
G01 X146.200475 Y121.156289 Z-0.125000
G01 X145.212466 Y124.962163 Z-0.125000
G01 X143.845189 Y128.545751 Z-0.125000
G01 X141.938751 Y132.418929 Z-0.125000
G01 X136.735131 Y140.593213 Z-0.125000
G01 X122.534569 Y159.041129 Z-0.125000
G01 X119.697058 Y162.229259 Z-0.125000
G01 X117.186791 Y164.367897 Z-0.125000
G01 X115.156204 Y165.495061 Z-0.125000
G01 X113.111882 Y166.132906 Z-0.125000
G01 X110.837635 Y166.402214 Z-0.125000
G01 X108.050784 Y166.327087 Z-0.125000
G01 X73.356258 Y160.678896 Z-0.125000
G01 X67.686238 Y159.283697 Z-0.125000
G01 X63.627063 Y157.629558 Z-0.125000
G01 X60.664039 Y155.529756 Z-0.125000
G01 X58.571786 Y152.795203 Z-0.125000
G01 X56.835063 Y147.967850 Z-0.125000
G01 X55.292977 Y139.432761 Z-0.125000
G01 X54.760000 Y132.186184 Z-0.125000
G01 X55.179106 Y126.112429 Z-0.125000
G01 X56.415503 Y121.398676 Z-0.125000
G01 X58.485928 Y117.368151 Z-0.125000
G01 X61.477966 Y113.816669 Z-0.125000
G01 X65.568791 Y110.561599 Z-0.125000
G01 X70.975688 Y107.489432 Z-0.125000
G01 X77.543492 Y104.764428 Z-0.125000
G01 X82.571575 Y103.270001 Z-0.125000
G01 X94.765469 Y100.504978 Z-0.125000
G01 X101.104166 Y98.768528 Z-0.125000
G01 X107.383744 Y96.557675 Z-0.125000
G01 X118.782175 Y91.847832 Z-0.125000
G01 X123.868103 Y90.441627 Z-0.125000
G01 X128.414688 Y90.294377 Z-0.125000
G01 X132.680141 Y91.463379 Z-0.125000
G01 X136.802435 Y93.995838 Z-0.125000
G01 X140.753741 Y97.892482 Z-0.125000
G01 X143.248546 Y101.236412 Z-0.125000
G01 X145.241480 Y104.661289 Z-0.125000
G01 X146.646502 Y107.958379 Z-0.125000
G01 X147.587579 Y111.385712 Z-0.125000
G01 X148.028058 Y114.957658 Z-0.125000
G01 X147.957934 Y118.400089 Z-0.125000
G01 X147.409314 Y121.945750 Z-0.125000
G01 X146.284878 Y125.848124 Z-0.125000
G01 X143.011435 Y132.903429 Z-0.125000
G01 X137.695217 Y140.964660 Z-0.125000
G01 X121.909095 Y160.882901 Z-0.125000
G01 X119.175177 Y163.873302 Z-0.125000
G01 X116.762593 Y165.850682 Z-0.125000
G01 X114.855154 Y166.862338 Z-0.125000
G01 X112.782455 Y167.458072 Z-0.125000
G01 X110.475556 Y167.656892 Z-0.125000
G01 X107.875065 Y167.505094 Z-0.125000
G01 X70.687189 Y160.717187 Z-0.125000
G01 X65.360876 Y159.273237 Z-0.125000
G01 X61.609846 Y157.606820 Z-0.125000
G01 X58.882659 Y155.537123 Z-0.125000
G01 X56.942568 Y152.871966 Z-0.125000
G01 X56.019863 Y150.690580 Z-0.125000
G01 X55.210120 Y147.757297 Z-0.125000
G01 X53.675856 Y138.626656 Z-0.125000
G01 X53.228646 Y131.350884 Z-0.125000
G01 X53.755530 Y125.083220 Z-0.125000
G01 X55.137814 Y120.262143 Z-0.125000
G01 X57.397690 Y116.176957 Z-0.125000
G01 X60.625384 Y112.607284 Z-0.125000
G01 X65.002071 Y109.356034 Z-0.125000
G01 X71.034625 Y106.166540 Z-0.125000
G01 X77.663457 Y103.605067 Z-0.125000
G01 X82.923467 Y102.161936 Z-0.125000
G01 X95.580578 Y99.551805 Z-0.125000
G01 X101.810588 Y97.978067 Z-0.125000
G01 X108.508726 Y95.751933 Z-0.125000
G01 X120.028850 Y91.157326 Z-0.125000
G01 X125.378265 Y89.802874 Z-0.125000
G01 X127.903175 Y89.655623 Z-0.125000
G01 X130.190520 Y89.878909 Z-0.125000
G01 X134.501176 Y91.353964 Z-0.125000
G01 X138.873769 Y94.409123 Z-0.125000
G01 X142.972235 Y98.892859 Z-0.125000
G01 X145.351986 Y102.394136 Z-0.125000
G01 X147.101806 Y105.722150 Z-0.125000
G01 X148.390046 Y109.153575 Z-0.125000
G01 X149.144854 Y112.459761 Z-0.125000
G01 X149.440538 Y115.890641 Z-0.125000
G01 X149.247993 Y119.439485 Z-0.125000
G01 X148.551394 Y123.086103 Z-0.125000
G01 X147.354652 Y126.800388 Z-0.125000
G01 X143.942962 Y133.714809 Z-0.125000
G01 X138.698415 Y141.360118 Z-0.125000
G01 X121.239599 Y162.758416 Z-0.125000
G01 X118.615915 Y165.543720 Z-0.125000
G01 X116.308016 Y167.354751 Z-0.125000
G01 X114.362377 Y168.314109 Z-0.125000
G01 X112.430290 Y168.800883 Z-0.125000
G01 X107.685431 Y168.704565 Z-0.125000
G01 X89.304456 Y164.676860 Z-0.125000
G01 X68.300616 Y160.746564 Z-0.125000
G01 X63.283357 Y159.283697 Z-0.125000
G01 X59.787355 Y157.639654 Z-0.125000
G01 X57.236251 Y155.633168 Z-0.125000
G01 X55.390841 Y153.056234 Z-0.125000
G01 X54.467136 Y150.840378 Z-0.125000
G01 X53.630016 Y147.678624 Z-0.125000
G01 X52.065556 Y137.720777 Z-0.125000
G01 X51.712845 Y130.144318 Z-0.125000
G01 X52.406898 Y123.697207 Z-0.125000
G01 X53.998371 Y118.800731 Z-0.125000
G01 X56.514095 Y114.698719 Z-0.125000
G01 X60.042566 Y111.148419 Z-0.125000
G01 X65.037451 Y107.779477 Z-0.125000
G01 X71.194972 Y104.795261 Z-0.125000
G01 X77.857366 Y102.400048 Z-0.125000
G01 X83.351849 Y101.013944 Z-0.125000
G01 X96.474452 Y98.574892 Z-0.125000
G01 X102.874723 Y97.087195 Z-0.125000
G01 X109.702831 Y94.945101 Z-0.125000
G01 X121.564660 Y90.411522 Z-0.125000
G01 X127.166739 Y89.191587 Z-0.125000
G01 X129.707384 Y89.183402 Z-0.125000
G01 X132.244391 Y89.612694 Z-0.125000
G01 X134.772757 Y90.520301 Z-0.125000
G01 X137.047368 Y91.772251 Z-0.125000
G01 X139.489785 Y93.598925 Z-0.125000
G01 X141.818331 Y95.833972 Z-0.125000
G01 X146.165731 Y101.498353 Z-0.125000
G01 X148.079355 Y104.913862 Z-0.125000
G01 X149.432807 Y108.160201 Z-0.125000
G01 X150.355421 Y111.512044 Z-0.125000
G01 X150.812272 Y114.985944 Z-0.125000
G01 X150.768342 Y118.581265 Z-0.125000
G01 X150.262468 Y121.993955 Z-0.125000
G01 X149.304656 Y125.474403 Z-0.125000
G01 X147.907638 Y128.994598 Z-0.125000
G01 X144.325596 Y135.452805 Z-0.125000
G01 X138.846666 Y142.908389 Z-0.125000
G01 X120.368373 Y164.844120 Z-0.125000
G01 X117.865291 Y167.374487 Z-0.125000
G01 X115.502548 Y169.061459 Z-0.125000
G01 X113.668871 Y169.830547 Z-0.125000
G01 X111.869209 Y170.180711 Z-0.125000
G01 X107.481972 Y169.925864 Z-0.125000
G01 X88.462880 Y165.201378 Z-0.125000
G01 X65.560060 Y160.619050 Z-0.125000
G01 X61.191104 Y159.228489 Z-0.125000
G01 X57.957862 Y157.616370 Z-0.125000
G01 X55.449141 Y155.532485 Z-0.125000
G01 X53.757349 Y153.040681 Z-0.125000
G01 X52.808450 Y150.614181 Z-0.125000
G01 X51.972240 Y147.157289 Z-0.125000
G01 X50.439885 Y136.429899 Z-0.125000
G01 X50.232606 Y128.535838 Z-0.125000
G01 X51.097284 Y122.212875 Z-0.125000
G01 X52.913954 Y117.252824 Z-0.125000
G01 X55.700805 Y113.146719 Z-0.125000
G01 X59.544332 Y109.626979 Z-0.125000
G01 X64.915212 Y106.307060 Z-0.125000
G01 X71.459278 Y103.376687 Z-0.125000
G01 X78.463650 Y101.056328 Z-0.125000
G01 X83.857450 Y99.826752 Z-0.125000
G01 X97.446907 Y97.575242 Z-0.125000
G01 X104.013984 Y96.183954 Z-0.125000
G01 X110.964695 Y94.138359 Z-0.125000
G01 X122.914384 Y89.772132 Z-0.125000
G01 X125.975181 Y88.995041 Z-0.125000
G01 X128.769581 Y88.661339 Z-0.125000
G01 X131.557524 Y88.797494 Z-0.125000
G01 X134.115540 Y89.402595 Z-0.125000
G01 X136.668918 Y90.505385 Z-0.125000
G01 X139.193738 Y92.111046 Z-0.125000
G01 X141.646978 Y94.184017 Z-0.125000
G01 X144.168159 Y96.877552 Z-0.125000
G01 X146.601481 Y100.087146 Z-0.125000
G01 X148.620699 Y103.346491 Z-0.125000
G01 X150.220358 Y106.647492 Z-0.125000
G01 X151.388360 Y110.033897 Z-0.125000
G01 X152.055126 Y113.260045 Z-0.125000
G01 X152.294784 Y116.590787 Z-0.125000
G01 X152.079592 Y120.021212 Z-0.125000
G01 X151.468033 Y123.239083 Z-0.125000
G01 X150.347326 Y126.806300 Z-0.125000
G01 X148.769951 Y130.403440 Z-0.125000
G01 X145.035020 Y136.676833 Z-0.125000
G01 X139.658046 Y143.661196 Z-0.125000
G01 X119.615657 Y166.772569 Z-0.125000
G01 X117.232267 Y169.083743 Z-0.125000
G01 X114.984851 Y170.593450 Z-0.125000
G01 X111.661203 Y171.535891 Z-0.125000
G01 X107.496797 Y171.216378 Z-0.125000
G01 X87.611572 Y165.693154 Z-0.125000
G01 X63.118734 Y160.493263 Z-0.125000
G01 X59.089301 Y159.107705 Z-0.125000
G01 X55.928639 Y157.404089 Z-0.125000
G01 X53.665487 Y155.375411 Z-0.125000
G01 X52.125584 Y152.977561 Z-0.125000
G01 X51.206790 Y150.504584 Z-0.125000
G01 X50.362667 Y146.766014 Z-0.125000
G01 X48.876517 Y135.597782 Z-0.125000
G01 X48.734723 Y127.715726 Z-0.125000
G01 X49.680712 Y121.195399 Z-0.125000
G01 X51.616618 Y116.116201 Z-0.125000
G01 X54.565818 Y111.947157 Z-0.125000
G01 X58.876019 Y108.224322 Z-0.125000
G01 X64.582056 Y104.933599 Z-0.125000
G01 X71.485927 Y102.036878 Z-0.125000
G01 X78.823000 Y99.765086 Z-0.125000
G01 X84.440450 Y98.601359 Z-0.125000
G01 X98.166244 Y96.606970 Z-0.125000
G01 X104.917680 Y95.339558 Z-0.125000
G01 X112.012731 Y93.422933 Z-0.125000
G01 X124.550423 Y89.091813 Z-0.125000
G01 X127.613130 Y88.410403 Z-0.125000
G01 X130.414625 Y88.187117 Z-0.125000
G01 X133.217119 Y88.456698 Z-0.125000
G01 X135.795509 Y89.203866 Z-0.125000
G01 X138.374808 Y90.464820 Z-0.125000
G01 X141.157294 Y92.424466 Z-0.125000
G01 X143.844462 Y94.932822 Z-0.125000
G01 X146.343178 Y97.851281 Z-0.125000
G01 X148.704648 Y101.211491 Z-0.125000
G01 X150.759429 Y104.845012 Z-0.125000
G01 X152.215201 Y108.272526 Z-0.125000
G01 X153.152368 Y111.519775 Z-0.125000
G01 X153.666700 Y114.866434 Z-0.125000
G01 X153.737733 Y118.025095 Z-0.125000
G01 X153.352916 Y121.561388 Z-0.125000
G01 X152.564183 Y124.869211 Z-0.125000
G01 X151.360165 Y128.217961 Z-0.125000
G01 X149.593519 Y131.888408 Z-0.125000
G01 X145.941262 Y137.659384 Z-0.125000
G01 X140.746010 Y144.160885 Z-0.125000
G01 X128.194312 Y157.854209 Z-0.125000
G01 X119.152167 Y168.374956 Z-0.125000
G01 X116.726758 Y170.680582 Z-0.125000
G01 X114.607219 Y172.059227 Z-0.125000
G01 X111.435461 Y172.914901 Z-0.125000
G01 X107.496161 Y172.542636 Z-0.125000
G01 X86.751715 Y166.151914 Z-0.125000
G01 X60.976458 Y160.386850 Z-0.125000
G01 X57.238889 Y159.035672 Z-0.125000
G01 X54.290053 Y157.401633 Z-0.125000
G01 X52.149414 Y155.479005 Z-0.125000
G01 X50.574494 Y153.032041 Z-0.125000
G01 X49.610406 Y150.347419 Z-0.125000
G01 X48.798753 Y146.525447 Z-0.125000
G01 X47.323698 Y134.682353 Z-0.125000
G01 X47.268400 Y126.511526 Z-0.125000
G01 X48.357910 Y119.814934 Z-0.125000
G01 X49.323635 Y117.009529 Z-0.125000
G01 X50.480359 Y114.654061 Z-0.125000
G01 X53.660576 Y110.464008 Z-0.125000
G01 X58.264551 Y106.759363 Z-0.125000
G01 X64.314840 Y103.505657 Z-0.125000
G01 X71.585519 Y100.648227 Z-0.125000
G01 X79.258659 Y98.431098 Z-0.125000
G01 X85.101033 Y97.338586 Z-0.125000
G01 X99.625291 Y95.512821 Z-0.125000
G01 X106.197643 Y94.410396 Z-0.125000
G01 X113.402655 Y92.616283 Z-0.125000
G01 X125.995100 Y88.512087 Z-0.125000
G01 X129.059172 Y87.904530 Z-0.125000
G01 X131.865486 Y87.762372 Z-0.125000
G01 X134.679532 Y88.128453 Z-0.125000
G01 X137.512859 Y89.081991 Z-0.125000
G01 X140.353736 Y90.664186 Z-0.125000
G01 X143.161142 Y92.862944 Z-0.125000
G01 X145.860770 Y95.597225 Z-0.125000
G01 X148.539752 Y98.967531 Z-0.125000
G01 X150.969345 Y102.719470 Z-0.125000
G01 X152.876147 Y106.479050 Z-0.125000
G01 X154.089989 Y109.759678 Z-0.125000
G01 X154.887817 Y113.126437 Z-0.125000
G01 X155.222701 Y116.301197 Z-0.125000
G01 X155.150031 Y119.560633 Z-0.125000
G01 X154.649251 Y122.894831 Z-0.125000
G01 X153.710811 Y126.285329 Z-0.125000
G01 X152.339532 Y129.708205 Z-0.125000
G01 X150.556242 Y133.136902 Z-0.125000
G01 X146.854326 Y138.691777 Z-0.125000
G01 X141.621147 Y144.982906 Z-0.125000
G01 X128.161842 Y159.111798 Z-0.125000
G01 X118.494768 Y170.178346 Z-0.125000
G01 X116.195054 Y172.297157 Z-0.125000
G01 X114.040135 Y173.622505 Z-0.125000
G01 X111.003076 Y174.326108 Z-0.125000
G01 X107.479516 Y173.904546 Z-0.125000
G01 X92.553706 Y168.645264 Z-0.125000
G01 X85.884218 Y166.577387 Z-0.125000
G01 X58.820903 Y160.216134 Z-0.125000
G01 X55.128809 Y158.788738 Z-0.125000
G01 X52.458195 Y157.210362 Z-0.125000
G01 X50.371490 Y155.219611 Z-0.125000
G01 X48.950278 Y152.877696 Z-0.125000
G01 X48.021207 Y150.143051 Z-0.125000
G01 X47.206734 Y146.017573 Z-0.125000
G01 X45.765423 Y133.363645 Z-0.125000
G01 X45.822904 Y125.218192 Z-0.125000
G01 X46.272569 Y121.701818 Z-0.125000
G01 X47.065759 Y118.348520 Z-0.125000
G01 X48.126984 Y115.495274 Z-0.125000
G01 X49.384027 Y113.113249 Z-0.125000
G01 X50.941484 Y110.918584 Z-0.125000
G01 X52.804811 Y108.910916 Z-0.125000
G01 X57.711929 Y105.233739 Z-0.125000
G01 X64.115201 Y102.024599 Z-0.125000
G01 X71.758782 Y99.211827 Z-0.125000
G01 X79.770535 Y97.055453 Z-0.125000
G01 X86.215737 Y95.990773 Z-0.125000
G01 X100.829492 Y94.452325 Z-0.125000
G01 X107.549185 Y93.472320 Z-0.125000
G01 X114.855790 Y91.813361 Z-0.125000
G01 X127.483888 Y87.962375 Z-0.125000
G01 X130.544958 Y87.435583 Z-0.125000
G01 X133.352728 Y87.380648 Z-0.125000
G01 X136.411980 Y87.914535 Z-0.125000
G01 X139.265589 Y89.039607 Z-0.125000
G01 X142.134024 Y90.809891 Z-0.125000
G01 X144.970626 Y93.203740 Z-0.125000
G01 X147.910094 Y96.385958 Z-0.125000
G01 X150.749151 Y100.214751 Z-0.125000
G01 X153.070966 Y104.084201 Z-0.125000
G01 X154.855711 Y107.969475 Z-0.125000
G01 X155.943039 Y111.366339 Z-0.125000
G01 X156.550596 Y114.559563 Z-0.125000
G01 X156.754055 Y117.837371 Z-0.125000
G01 X156.564603 Y120.888255 Z-0.125000
G01 X155.925849 Y124.310403 Z-0.125000
G01 X154.947572 Y127.464608 Z-0.125000
G01 X153.440594 Y130.957790 Z-0.125000
G01 X151.505505 Y134.448062 Z-0.125000
G01 X147.774121 Y139.773466 Z-0.125000
G01 X142.801610 Y145.544806 Z-0.125000
G01 X127.865339 Y160.657613 Z-0.125000
G01 X117.806445 Y172.003201 Z-0.125000
G01 X115.638339 Y173.931559 Z-0.125000
G01 X113.620575 Y175.123572 Z-0.125000
G01 X110.743864 Y175.748319 Z-0.125000
G01 X107.446592 Y175.301746 Z-0.125000
G01 X103.789788 Y174.068623 Z-0.125000
G01 X92.205179 Y169.389613 Z-0.125000
G01 X85.009899 Y166.969934 Z-0.125000
G01 X77.697200 Y164.978728 Z-0.125000
G01 X62.194392 Y161.524201 Z-0.125000
G01 X56.657162 Y159.981296 Z-0.125000
G01 X53.273395 Y158.602014 Z-0.125000
G01 X50.631975 Y156.963610 Z-0.125000
G01 X48.732176 Y155.071724 Z-0.125000
G01 X47.409466 Y152.848864 Z-0.125000
G01 X46.484578 Y150.072291 Z-0.125000
G01 X45.696027 Y145.897698 Z-0.125000
G01 X44.257989 Y132.597468 Z-0.125000
G01 X44.369496 Y124.170429 Z-0.125000
G01 X44.860908 Y120.544639 Z-0.125000
G01 X45.709942 Y117.098661 Z-0.125000
G01 X46.835924 Y114.178839 Z-0.125000
G01 X48.163637 Y111.752247 Z-0.125000
G01 X49.804315 Y109.527296 Z-0.125000
G01 X51.763415 Y107.502620 Z-0.125000
G01 X54.036934 Y105.666305 Z-0.125000
G01 X56.913555 Y103.823169 Z-0.125000
G01 X63.984503 Y100.492063 Z-0.125000
G01 X72.401447 Y97.611623 Z-0.125000
G01 X80.358629 Y95.639699 Z-0.125000
G01 X87.044216 Y94.662423 Z-0.125000
G01 X102.108546 Y93.374183 Z-0.125000
G01 X108.970488 Y92.526786 Z-0.125000
G01 X116.369772 Y91.015715 Z-0.125000
G01 X129.014605 Y87.443859 Z-0.125000
G01 X132.068490 Y87.004654 Z-0.125000
G01 X134.874350 Y87.043126 Z-0.125000
G01 X137.940514 Y87.694886 Z-0.125000
G01 X140.811041 Y88.945472 Z-0.125000
G01 X143.706397 Y90.855731 Z-0.125000
G01 X146.812398 Y93.637215 Z-0.125000
G01 X149.988977 Y97.297294 Z-0.125000
G01 X152.782922 Y101.293802 Z-0.125000
G01 X155.168039 Y105.563985 Z-0.125000
G01 X156.819631 Y109.577592 Z-0.125000
G01 X157.705228 Y112.796464 Z-0.125000
G01 X158.194730 Y116.093645 Z-0.125000
G01 X158.254849 Y119.474320 Z-0.125000
G01 X157.912871 Y122.614882 Z-0.125000
G01 X157.178981 Y125.807014 Z-0.125000
G01 X156.049361 Y129.032889 Z-0.125000
G01 X154.532014 Y132.271224 Z-0.125000
G01 X152.439761 Y135.820796 Z-0.125000
G01 X148.700555 Y140.903995 Z-0.125000
G01 X143.746598 Y146.438224 Z-0.125000
G01 X127.791578 Y161.968955 Z-0.125000
G01 X117.088927 Y173.845883 Z-0.125000
G01 X115.058249 Y175.581514 Z-0.125000
G01 X113.009289 Y176.710497 Z-0.125000
G01 X110.277918 Y177.192087 Z-0.125000
G01 X107.174828 Y176.669933 Z-0.125000
G01 X103.783330 Y175.413708 Z-0.125000
G01 X91.860199 Y170.138782 Z-0.125000
G01 X84.129759 Y167.329648 Z-0.125000
G01 X76.647709 Y165.162269 Z-0.125000
G01 X60.008004 Y161.304553 Z-0.125000
G01 X54.490874 Y159.682793 Z-0.125000
G01 X51.173047 Y158.229930 Z-0.125000
G01 X48.814578 Y156.662105 Z-0.125000
G01 X47.100685 Y154.877906 Z-0.125000
G01 X45.800348 Y152.605477 Z-0.125000
G01 X44.872004 Y149.595249 Z-0.125000
G01 X44.059442 Y144.812736 Z-0.125000
G01 X43.162931 Y137.363791 Z-0.125000
G01 X42.736549 Y131.082576 Z-0.125000
G01 X43.004857 Y122.364037 Z-0.125000
G01 X43.603137 Y118.656391 Z-0.125000
G01 X44.477365 Y115.468170 Z-0.125000
G01 X45.706759 Y112.505964 Z-0.125000
G01 X47.142341 Y110.059454 Z-0.125000
G01 X48.904348 Y107.829955 Z-0.125000
G01 X50.997692 Y105.813465 Z-0.125000
G01 X53.416916 Y103.994977 Z-0.125000
G01 X56.466709 Y102.178762 Z-0.125000
G01 X63.923930 Y98.909686 Z-0.125000
G01 X73.154254 Y95.973128 Z-0.125000
G01 X81.433769 Y94.115440 Z-0.125000
G01 X88.352374 Y93.264859 Z-0.125000
G01 X110.459367 Y91.575249 Z-0.125000
G01 X117.942236 Y90.224617 Z-0.125000
G01 X130.348867 Y87.001470 Z-0.125000
G01 X133.394566 Y86.623111 Z-0.125000
G01 X136.194060 Y86.719702 Z-0.125000
G01 X139.260405 Y87.441404 Z-0.125000
G01 X142.384232 Y88.907727 Z-0.125000
G01 X145.548897 Y91.163602 Z-0.125000
G01 X148.684547 Y94.164099 Z-0.125000
G01 X151.878134 Y98.035185 Z-0.125000
G01 X154.828335 Y102.470081 Z-0.125000
G01 X157.125320 Y106.865140 Z-0.125000
G01 X158.673227 Y111.004443 Z-0.125000
G01 X159.454229 Y114.326635 Z-0.125000
G01 X159.800028 Y117.415446 Z-0.125000
G01 X159.746821 Y120.891165 Z-0.125000
G01 X159.281239 Y124.114312 Z-0.125000
G01 X158.404919 Y127.383389 Z-0.125000
G01 X157.116043 Y130.678478 Z-0.125000
G01 X153.357464 Y137.253649 Z-0.125000
G01 X149.633356 Y142.082366 Z-0.125000
G01 X145.025379 Y147.064336 Z-0.125000
G01 X127.703900 Y163.303853 Z-0.125000
G01 X116.517296 Y175.538312 Z-0.125000
G01 X114.456330 Y177.244566 Z-0.125000
G01 X112.553075 Y178.240851 Z-0.125000
G01 X109.989056 Y178.654590 Z-0.125000
G01 X107.111708 Y178.132072 Z-0.125000
G01 X103.502926 Y176.679665 Z-0.125000
G01 X91.518403 Y170.894864 Z-0.125000
G01 X83.244435 Y167.657074 Z-0.125000
G01 X74.680151 Y165.058857 Z-0.125000
G01 X58.187879 Y161.121285 Z-0.125000
G01 X52.632731 Y159.437223 Z-0.125000
G01 X49.572479 Y158.066217 Z-0.125000
G01 X47.191727 Y156.463921 Z-0.125000
G01 X45.479198 Y154.639248 Z-0.125000
G01 X44.277271 Y152.496881 Z-0.125000
G01 X43.354657 Y149.439994 Z-0.125000
G01 X42.572563 Y144.602455 Z-0.125000
G01 X41.664047 Y136.672377 Z-0.125000
G01 X41.259494 Y130.170240 Z-0.125000
G01 X41.593195 Y121.158654 Z-0.125000
G01 X42.239498 Y117.340684 Z-0.125000
G01 X43.169934 Y114.069060 Z-0.125000
G01 X44.468906 Y111.042278 Z-0.125000
G01 X45.979432 Y108.554477 Z-0.125000
G01 X47.828935 Y106.299420 Z-0.125000
G01 X50.022690 Y104.271652 Z-0.125000
G01 X52.554967 Y102.453891 Z-0.125000
G01 X55.744461 Y100.648682 Z-0.125000
G01 X63.934298 Y97.279558 Z-0.125000
G01 X73.586184 Y94.407758 Z-0.125000
G01 X82.187486 Y92.629653 Z-0.125000
G01 X89.762216 Y91.849378 Z-0.125000
G01 X112.013459 Y90.619165 Z-0.125000
G01 X119.570454 Y89.441614 Z-0.125000
G01 X131.957802 Y86.541891 Z-0.125000
G01 X134.988040 Y86.263670 Z-0.125000
G01 X137.778620 Y86.464492 Z-0.125000
G01 X141.084169 Y87.410662 Z-0.125000
G01 X144.227277 Y89.084355 Z-0.125000
G01 X147.420865 Y91.562698 Z-0.125000
G01 X150.585256 Y94.784480 Z-0.125000
G01 X154.005949 Y99.167261 Z-0.125000
G01 X156.882297 Y103.742131 Z-0.125000
G01 X159.084420 Y108.262976 Z-0.125000
G01 X160.518728 Y112.529703 Z-0.125000
G01 X161.142202 Y115.641251 Z-0.125000
G01 X161.398686 Y118.818376 Z-0.125000
G01 X161.260439 Y122.061168 Z-0.125000
G01 X160.705634 Y125.361077 Z-0.125000
G01 X159.721809 Y128.702188 Z-0.125000
G01 X158.468677 Y131.726787 Z-0.125000
G01 X156.678838 Y135.084542 Z-0.125000
G01 X154.495452 Y138.414647 Z-0.125000
G01 X150.855201 Y142.986516 Z-0.125000
G01 X146.045038 Y148.029606 Z-0.125000
G01 X127.603581 Y164.661125 Z-0.125000
G01 X115.924564 Y177.247749 Z-0.125000
G01 X114.007575 Y178.804387 Z-0.125000
G01 X112.081491 Y179.784938 Z-0.125000
G01 X109.299096 Y180.112909 Z-0.125000
G01 X105.913692 Y179.219127 Z-0.125000
G01 X90.394331 Y171.290231 Z-0.125000
G01 X79.641566 Y167.000130 Z-0.125000
G01 X71.266006 Y164.508872 Z-0.125000
G01 X55.596210 Y160.680533 Z-0.125000
G01 X50.471809 Y159.019118 Z-0.125000
G01 X47.491595 Y157.578443 Z-0.125000
G01 X45.396250 Y156.060732 Z-0.125000
G01 X43.869898 Y154.356661 Z-0.125000
G01 X42.691164 Y152.168454 Z-0.125000
G01 X41.810661 Y149.057451 Z-0.125000
G01 X40.970904 Y143.353234 Z-0.125000
G01 X40.123780 Y135.253530 Z-0.125000
G01 X39.790442 Y128.827974 Z-0.125000
G01 X39.852016 Y123.968971 Z-0.125000
G01 X40.249475 Y119.521251 Z-0.125000
G01 X40.980545 Y115.610510 Z-0.125000
G01 X42.005298 Y112.279040 Z-0.125000
G01 X43.415595 Y109.216514 Z-0.125000
G01 X45.040902 Y106.715979 Z-0.125000
G01 X47.018737 Y104.464470 Z-0.125000
G01 X49.353649 Y102.453437 Z-0.125000
G01 X52.038452 Y100.661961 Z-0.125000
G01 X55.408304 Y98.892678 Z-0.125000
G01 X64.016155 Y95.603682 Z-0.125000
G01 X74.540903 Y92.695411 Z-0.125000
G01 X83.455898 Y91.052914 Z-0.125000
G01 X91.272378 Y90.418981 Z-0.125000
G01 X113.971558 Y89.630702 Z-0.125000
G01 X121.251514 Y88.667796 Z-0.125000
G01 X133.368099 Y86.147252 Z-0.125000
G01 X136.381875 Y85.941519 Z-0.125000
G01 X139.158448 Y86.209554 Z-0.125000
G01 X142.456084 Y87.240310 Z-0.125000
G01 X145.851584 Y89.173215 Z-0.125000
G01 X149.072002 Y91.817545 Z-0.125000
G01 X152.512250 Y95.498087 Z-0.125000
G01 X155.939310 Y100.092421 Z-0.125000
G01 X158.777094 Y104.798444 Z-0.125000
G01 X160.923190 Y109.445803 Z-0.125000
G01 X162.279826 Y113.835223 Z-0.125000
G01 X162.827082 Y117.035814 Z-0.125000
G01 X162.987339 Y120.301343 Z-0.125000
G01 X162.731856 Y123.629903 Z-0.125000
G01 X162.039076 Y127.010759 Z-0.125000
G01 X160.898269 Y130.425723 Z-0.125000
G01 X159.489700 Y133.508895 Z-0.125000
G01 X155.391235 Y139.958825 Z-0.125000
G01 X151.814559 Y144.254383 Z-0.125000
G01 X147.096349 Y149.031985 Z-0.125000
G01 X127.491892 Y166.039316 Z-0.125000
G01 X123.226621 Y170.296583 Z-0.125000
G01 X115.312550 Y178.971920 Z-0.125000
G01 X113.369003 Y180.491541 Z-0.125000
G01 X111.595899 Y181.341394 Z-0.125000
G01 X108.788584 Y181.587509 Z-0.125000
G01 X105.606548 Y180.635154 Z-0.125000
G01 X90.051443 Y172.033761 Z-0.125000
G01 X84.593522 Y169.495208 Z-0.125000
G01 X79.159795 Y167.356115 Z-0.125000
G01 X71.099473 Y164.780272 Z-0.125000
G01 X54.530984 Y160.597585 Z-0.125000
G01 X48.622216 Y158.665771 Z-0.125000
G01 X45.906125 Y157.320504 Z-0.125000
G01 X43.796137 Y155.771779 Z-0.125000
G01 X42.274697 Y154.031509 Z-0.125000
G01 X41.120428 Y151.797553 Z-0.125000
G01 X40.248293 Y148.438525 Z-0.125000
G01 X39.326224 Y141.428241 Z-0.125000
G01 X38.605614 Y133.725178 Z-0.125000
G01 X38.341763 Y127.015944 Z-0.125000
G01 X38.489651 Y121.988134 Z-0.125000
G01 X38.938497 Y117.797898 Z-0.125000
G01 X39.759336 Y113.797115 Z-0.125000
G01 X40.882954 Y110.409618 Z-0.125000
G01 X42.409123 Y107.315987 Z-0.125000
G01 X44.153395 Y104.807539 Z-0.125000
G01 X46.263656 Y102.564671 Z-0.125000
G01 X48.743454 Y100.575466 Z-0.125000
G01 X51.584422 Y98.815096 Z-0.125000
G01 X55.138177 Y97.086104 Z-0.125000
G01 X64.611343 Y93.753452 Z-0.125000
G01 X75.604402 Y90.952412 Z-0.125000
G01 X84.826176 Y89.457985 Z-0.125000
G01 X92.881041 Y88.976578 Z-0.125000
G01 X115.651890 Y88.678529 Z-0.125000
G01 X122.982507 Y87.904621 Z-0.125000
G01 X134.814322 Y85.773350 Z-0.125000
G01 X137.807725 Y85.646017 Z-0.125000
G01 X140.566381 Y85.985813 Z-0.125000
G01 X144.090122 Y87.218663 Z-0.125000
G01 X147.497628 Y89.319738 Z-0.125000
G01 X150.994721 Y92.383082 Z-0.125000
G01 X154.463346 Y96.304101 Z-0.125000
G01 X157.890133 Y101.100257 Z-0.125000
G01 X160.844790 Y106.249942 Z-0.125000
G01 X162.882290 Y111.025543 Z-0.125000
G01 X164.104953 Y115.545115 Z-0.125000
G01 X164.530244 Y118.841478 Z-0.125000
G01 X164.562259 Y121.862802 Z-0.125000
G01 X164.181444 Y125.276492 Z-0.125000
G01 X163.447373 Y128.389314 Z-0.125000
G01 X162.335124 Y131.525238 Z-0.125000
G01 X160.846518 Y134.665891 Z-0.125000
G01 X156.533861 Y141.218961 Z-0.125000
G01 X152.779648 Y145.567089 Z-0.125000
G01 X148.523381 Y149.755779 Z-0.125000
G01 X128.590315 Y166.343186 Z-0.125000
G01 X123.211068 Y171.466950 Z-0.125000
G01 X115.227783 Y180.205134 Z-0.125000
G01 X113.069954 Y181.962867 Z-0.125000
G01 X111.097939 Y182.908765 Z-0.125000
G01 X108.463614 Y183.099945 Z-0.125000
G01 X105.288581 Y182.074010 Z-0.125000
G01 X89.307367 Y172.572013 Z-0.125000
G01 X83.755129 Y169.829819 Z-0.125000
G01 X78.219627 Y167.525467 Z-0.125000
G01 X69.998776 Y164.763810 Z-0.125000
G01 X52.699762 Y160.259518 Z-0.125000
G01 X46.781808 Y158.262673 Z-0.125000
G01 X44.093731 Y156.871840 Z-0.125000
G01 X42.211121 Y155.441169 Z-0.125000
G01 X40.695684 Y153.665065 Z-0.125000
G01 X39.637370 Y151.576359 Z-0.125000
G01 X38.740859 Y147.968305 Z-0.125000
G01 X37.828432 Y140.491166 Z-0.125000
G01 X37.134379 Y132.457857 Z-0.125000
G01 X36.923098 Y125.887961 Z-0.125000
G01 X37.107549 Y120.694073 Z-0.125000
G01 X37.599779 Y116.374504 Z-0.125000
G01 X38.476917 Y112.262214 Z-0.125000
G01 X39.664292 Y108.793498 Z-0.125000
G01 X41.267315 Y105.640293 Z-0.125000
G01 X43.092898 Y103.097284 Z-0.125000
G01 X45.296840 Y100.837316 Z-0.125000
G01 X47.883051 Y98.846565 Z-0.125000
G01 X51.194239 Y96.916206 Z-0.125000
G01 X54.935173 Y95.232054 Z-0.125000
G01 X64.856821 Y91.996902 Z-0.125000
G01 X76.775132 Y89.181674 Z-0.125000
G01 X86.296865 Y87.847776 Z-0.125000
G01 X95.037870 Y87.522987 Z-0.125000
G01 X117.388340 Y87.726719 Z-0.125000
G01 X124.759976 Y87.153269 Z-0.125000
G01 X136.294561 Y85.419911 Z-0.125000
G01 X139.263861 Y85.376618 Z-0.125000
G01 X142.000780 Y85.792540 Z-0.125000
G01 X145.506695 Y87.124619 Z-0.125000
G01 X149.163226 Y89.523743 Z-0.125000
G01 X152.687968 Y92.773447 Z-0.125000
G01 X156.436270 Y97.201067 Z-0.125000
G01 X159.855144 Y102.187039 Z-0.125000
G01 X162.757322 Y107.466512 Z-0.125000
G01 X164.726972 Y112.370355 Z-0.125000
G01 X165.855046 Y117.014622 Z-0.125000
G01 X166.188748 Y120.400481 Z-0.125000
G01 X166.119534 Y123.501115 Z-0.125000
G01 X165.678054 Y126.647135 Z-0.125000
G01 X164.849393 Y129.827534 Z-0.125000
G01 X163.627366 Y133.026123 Z-0.125000
G01 X162.015065 Y136.222893 Z-0.125000
G01 X160.025861 Y139.396107 Z-0.125000
G01 X157.403268 Y142.867915 Z-0.125000
G01 X153.750284 Y146.923179 Z-0.125000
G01 X149.296107 Y151.145248 Z-0.125000
G01 X128.184580 Y168.030249 Z-0.125000
G01 X122.678728 Y173.177024 Z-0.125000
G01 X114.589302 Y181.958865 Z-0.125000
G01 X112.584090 Y183.558342 Z-0.125000
G01 X110.588973 Y184.485503 Z-0.125000
G01 X107.931364 Y184.597192 Z-0.125000
G01 X104.960882 Y183.534785 Z-0.125000
G01 X88.967298 Y173.324820 Z-0.125000
G01 X83.365674 Y170.357339 Z-0.125000
G01 X77.759775 Y167.858714 Z-0.125000
G01 X68.901080 Y164.710876 Z-0.125000
G01 X50.478267 Y159.759920 Z-0.125000
G01 X44.659177 Y157.676580 Z-0.125000
G01 X42.299253 Y156.374607 Z-0.125000
G01 X40.464849 Y154.897642 Z-0.125000
G01 X39.134771 Y153.258965 Z-0.125000
G01 X38.100650 Y151.128422 Z-0.125000
G01 X37.253071 Y147.458248 Z-0.125000
G01 X36.258332 Y138.550347 Z-0.125000
G01 X35.664782 Y130.724863 Z-0.125000
G01 X35.528627 Y124.291940 Z-0.125000
G01 X35.782200 Y118.929701 Z-0.125000
G01 X36.353104 Y114.493896 Z-0.125000
G01 X37.328197 Y110.295383 Z-0.125000
G01 X38.621803 Y106.776553 Z-0.125000
G01 X40.347885 Y103.600065 Z-0.125000
G01 X42.298617 Y101.057328 Z-0.125000
G01 X44.640896 Y98.814732 Z-0.125000
G01 X47.377814 Y96.854632 Z-0.125000
G01 X50.868905 Y94.968657 Z-0.125000
G01 X54.800019 Y93.333528 Z-0.125000
G01 X65.656378 Y90.079549 Z-0.125000
G01 X78.549873 Y87.299792 Z-0.125000
G01 X87.865873 Y86.225198 Z-0.125000
G01 X96.847990 Y86.075127 Z-0.125000
G01 X119.527160 Y86.773364 Z-0.125000
G01 X126.580647 Y86.414923 Z-0.125000
G01 X137.806815 Y85.086028 Z-0.125000
G01 X140.748557 Y85.132686 Z-0.125000
G01 X143.460100 Y85.629100 Z-0.125000
G01 X146.943186 Y87.064318 Z-0.125000
G01 X150.596716 Y89.576768 Z-0.125000
G01 X154.398042 Y93.223840 Z-0.125000
G01 X158.183907 Y97.852736 Z-0.125000
G01 X161.830706 Y103.348492 Z-0.125000
G01 X164.676767 Y108.756662 Z-0.125000
G01 X166.572837 Y113.789657 Z-0.125000
G01 X167.598135 Y118.559255 Z-0.125000
G01 X167.829426 Y121.684537 Z-0.125000
G01 X167.694089 Y124.858842 Z-0.125000
G01 X167.170208 Y128.075986 Z-0.125000
G01 X166.243137 Y131.323507 Z-0.125000
G01 X164.907420 Y134.583853 Z-0.125000
G01 X163.167423 Y137.835649 Z-0.125000
G01 X158.546804 Y144.220640 Z-0.125000
G01 X154.385036 Y148.655536 Z-0.125000
G01 X148.940486 Y153.525454 Z-0.125000
G01 X126.782469 Y170.560161 Z-0.125000
G01 X121.863710 Y175.170139 Z-0.125000
G01 X114.124266 Y183.549156 Z-0.125000
G01 X112.089221 Y185.162548 Z-0.125000
G01 X110.070639 Y186.070064 Z-0.125000
G01 X107.389292 Y186.099896 Z-0.125000
G01 X104.395708 Y184.892421 Z-0.125000
G01 X88.629686 Y174.093908 Z-0.125000
G01 X82.984677 Y170.893499 Z-0.125000
G01 X76.826156 Y167.981681 Z-0.125000
G01 X67.300602 Y164.460577 Z-0.125000
G01 X48.652684 Y159.322533 Z-0.125000
G01 X42.849056 Y157.174254 Z-0.125000
G01 X40.525786 Y155.830443 Z-0.125000
G01 X38.743952 Y154.307093 Z-0.125000
G01 X37.476631 Y152.621121 Z-0.125000
G01 X36.584940 Y150.642740 Z-0.125000
G01 X35.759190 Y146.703622 Z-0.125000
G01 X34.712881 Y136.426170 Z-0.125000
G01 X34.224471 Y128.880544 Z-0.125000
G01 X34.162805 Y122.613699 Z-0.125000
G01 X34.490959 Y117.083018 Z-0.125000
G01 X35.145447 Y112.533250 Z-0.125000
G01 X36.223407 Y108.252335 Z-0.125000
G01 X37.627701 Y104.688211 Z-0.125000
G01 X39.481115 Y101.493987 Z-0.125000
G01 X41.560544 Y98.956799 Z-0.125000
G01 X44.044617 Y96.736758 Z-0.125000
G01 X47.281133 Y94.615310 Z-0.125000
G01 X51.002331 Y92.807190 Z-0.125000
G01 X55.168100 Y91.247005 Z-0.125000
G01 X67.073496 Y88.018674 Z-0.125000
G01 X79.944708 Y85.490672 Z-0.125000
G01 X90.025612 Y84.576425 Z-0.125000
G01 X99.693232 Y84.661738 Z-0.125000
G01 X121.368023 Y85.836743 Z-0.125000
G01 X128.146107 Y85.708592 Z-0.125000
G01 X139.349083 Y84.771244 Z-0.125000
G01 X142.259901 Y84.913492 Z-0.125000
G01 X144.942522 Y85.494765 Z-0.125000
G01 X148.634797 Y87.176734 Z-0.125000
G01 X152.294148 Y89.881183 Z-0.125000
G01 X156.122941 Y93.733260 Z-0.125000
G01 X160.192393 Y98.910595 Z-0.125000
G01 X163.814090 Y104.581706 Z-0.125000
G01 X166.600668 Y110.118573 Z-0.125000
G01 X168.416792 Y115.281628 Z-0.125000
G01 X169.330583 Y120.177194 Z-0.125000
G01 X169.467284 Y123.383424 Z-0.125000
G01 X169.218258 Y126.636311 Z-0.125000
G01 X168.562132 Y129.928035 Z-0.125000
G01 X167.485628 Y133.244043 Z-0.125000
G01 X164.301591 Y139.501702 Z-0.125000
G01 X159.385015 Y145.966367 Z-0.125000
G01 X154.991411 Y150.432459 Z-0.125000
G01 X149.671101 Y154.995688 Z-0.125000
G01 X131.934610 Y167.869264 Z-0.125000
G01 X126.628214 Y172.008294 Z-0.125000
G01 X121.288258 Y176.912319 Z-0.125000
G01 X113.461410 Y185.321622 Z-0.125000
G01 X111.401445 Y186.886537 Z-0.125000
G01 X109.544484 Y187.660809 Z-0.125000
G01 X107.039856 Y187.655352 Z-0.125000
G01 X104.052002 Y186.388304 Z-0.125000
G01 X88.293983 Y174.881822 Z-0.125000
G01 X82.611412 Y171.441483 Z-0.125000
G01 X76.388223 Y168.302104 Z-0.125000
G01 X66.202543 Y164.330152 Z-0.125000
G01 X46.835651 Y158.840307 Z-0.125000
G01 X41.057854 Y156.627361 Z-0.125000
G01 X39.002072 Y155.404607 Z-0.125000
G01 X37.216145 Y153.854699 Z-0.125000
G01 X35.959465 Y152.137349 Z-0.125000
G01 X35.157817 Y150.323681 Z-0.125000
G01 X34.342708 Y146.325444 Z-0.125000
G01 X33.251833 Y134.844156 Z-0.125000
G01 X32.828362 Y127.347554 Z-0.125000
G01 X32.827452 Y120.855148 Z-0.125000
G01 X33.235826 Y115.156752 Z-0.125000
G01 X33.978810 Y110.495568 Z-0.125000
G01 X35.164638 Y106.136617 Z-0.125000
G01 X36.683896 Y102.532110 Z-0.125000
G01 X38.668644 Y99.325881 Z-0.125000
G01 X40.880225 Y96.799515 Z-0.125000
G01 X43.509093 Y94.607579 Z-0.125000
G01 X46.920418 Y92.531879 Z-0.125000
G01 X50.828340 Y90.778513 Z-0.125000
G01 X55.648416 Y89.135834 Z-0.125000
G01 X68.645050 Y85.944430 Z-0.125000
G01 X81.967837 Y83.597148 Z-0.125000
G01 X92.304498 Y82.944206 Z-0.125000
G01 X101.701173 Y83.233341 Z-0.125000
G01 X124.982080 Y84.972065 Z-0.125000
G01 X141.588951 Y84.495933 Z-0.125000
G01 X144.015815 Y84.755873 Z-0.125000
G01 X146.446317 Y85.388806 Z-0.125000
G01 X150.340869 Y87.341357 Z-0.125000
G01 X154.257067 Y90.476644 Z-0.125000
G01 X158.381363 Y94.923000 Z-0.125000
G01 X162.460729 Y100.416028 Z-0.125000
G01 X165.998750 Y106.243030 Z-0.125000
G01 X168.667454 Y111.902500 Z-0.125000
G01 X170.255835 Y116.844815 Z-0.125000
G01 X171.048843 Y121.866895 Z-0.125000
G01 X171.083677 Y125.153708 Z-0.125000
G01 X170.713504 Y128.484723 Z-0.125000
G01 X169.917586 Y131.849663 Z-0.125000
G01 X168.843173 Y134.856162 Z-0.125000
G01 X167.421871 Y137.861388 Z-0.125000
G01 X165.415749 Y141.219052 Z-0.125000
G01 X160.525913 Y147.404313 Z-0.125000
G01 X155.945858 Y151.914426 Z-0.125000
G01 X150.404626 Y156.501393 Z-0.125000
G01 X131.964987 Y169.339317 Z-0.125000
G01 X126.469686 Y173.469797 Z-0.125000
G01 X120.966289 Y178.396560 Z-0.125000
G01 X112.980912 Y186.926920 Z-0.125000
G01 X110.891024 Y188.502840 Z-0.125000
G01 X109.012144 Y189.256648 Z-0.125000
G01 X106.484141 Y189.173700 Z-0.125000
G01 X103.472003 Y187.759856 Z-0.125000
G01 X88.780484 Y176.271201 Z-0.125000
G01 X83.619247 Y172.834045 Z-0.125000
G01 X78.436729 Y169.878115 Z-0.125000
G01 X72.408086 Y166.995401 Z-0.125000
G01 X65.634549 Y164.350616 Z-0.125000
G01 X58.877202 Y162.190240 Z-0.125000
G01 X45.424718 Y158.437937 Z-0.125000
G01 X40.465667 Y156.615174 Z-0.125000
G01 X37.975501 Y155.267088 Z-0.125000
G01 X36.059967 Y153.733824 Z-0.125000
G01 X34.698966 Y152.019839 Z-0.125000
G01 X33.686309 Y149.771695 Z-0.125000
G01 X32.946872 Y145.917890 Z-0.125000
G01 X31.815706 Y133.158731 Z-0.125000
G01 X31.458902 Y125.737890 Z-0.125000
G01 X31.524478 Y119.017560 Z-0.125000
G01 X32.018801 Y113.152722 Z-0.125000
G01 X32.953239 Y107.964382 Z-0.125000
G01 X34.297141 Y103.569141 Z-0.125000
G01 X35.981930 Y99.970455 Z-0.125000
G01 X38.152038 Y96.802426 Z-0.125000
G01 X40.546250 Y94.332541 Z-0.125000
G01 X43.370846 Y92.211275 Z-0.125000
G01 X47.011734 Y90.223071 Z-0.125000
G01 X51.157494 Y88.557745 Z-0.125000
G01 X56.241331 Y87.003744 Z-0.125000
G01 X70.367585 Y83.859089 Z-0.125000
G01 X83.573317 Y81.769474 Z-0.125000
G01 X88.934192 Y81.386021 Z-0.125000
G01 X94.698347 Y81.331996 Z-0.125000
G01 X104.768155 Y81.892259 Z-0.125000
G01 X127.252780 Y84.121212 Z-0.125000
G01 X142.956773 Y84.224624 Z-0.125000
G01 X145.571635 Y84.591523 Z-0.125000
G01 X147.969576 Y85.309860 Z-0.125000
G01 X151.823654 Y87.392108 Z-0.125000
G01 X155.726756 Y90.656274 Z-0.125000
G01 X160.134639 Y95.574396 Z-0.125000
G01 X164.250021 Y101.276067 Z-0.125000
G01 X167.795137 Y107.254777 Z-0.125000
G01 X170.451381 Y113.050310 Z-0.125000
G01 X172.005928 Y118.112500 Z-0.125000
G01 X172.732177 Y123.254090 Z-0.125000
G01 X172.703618 Y126.616302 Z-0.125000
G01 X172.324531 Y129.640355 Z-0.125000
G01 X171.481227 Y133.072235 Z-0.125000
G01 X170.351789 Y136.135762 Z-0.125000
G01 X168.652266 Y139.576192 Z-0.125000
G01 X166.767564 Y142.608430 Z-0.125000
G01 X161.670813 Y148.879095 Z-0.125000
G01 X156.903853 Y153.432046 Z-0.125000
G01 X151.140971 Y158.040296 Z-0.125000
G01 X131.591267 Y171.101051 Z-0.125000
G01 X125.958901 Y175.217161 Z-0.125000
G01 X120.364280 Y180.159022 Z-0.125000
G01 X112.496867 Y188.535310 Z-0.125000
G01 X110.376601 Y190.122235 Z-0.125000
G01 X108.475256 Y190.855124 Z-0.125000
G01 X105.922787 Y190.693685 Z-0.125000
G01 X103.116836 Y189.287026 Z-0.125000
G01 X88.039409 Y176.831372 Z-0.125000
G01 X82.809959 Y173.173659 Z-0.125000
G01 X77.554224 Y170.031550 Z-0.125000
G01 X70.912840 Y166.736097 Z-0.125000
G01 X64.024795 Y163.976896 Z-0.125000
G01 X57.174131 Y161.736300 Z-0.125000
G01 X44.033066 Y158.000823 Z-0.125000
G01 X39.011622 Y156.145045 Z-0.125000
G01 X36.500082 Y154.776858 Z-0.125000
G01 X34.578909 Y153.219765 Z-0.125000
G01 X33.227185 Y151.476585 Z-0.125000
G01 X32.240723 Y149.187967 Z-0.125000
G01 X31.550854 Y145.270132 Z-0.125000
G01 X30.381307 Y130.965248 Z-0.125000
G01 X30.109452 Y123.142766 Z-0.125000
G01 X30.283261 Y116.635626 Z-0.125000
G01 X30.841613 Y111.074203 Z-0.125000
G01 X31.884556 Y105.773447 Z-0.125000
G01 X33.347696 Y101.313448 Z-0.125000
G01 X35.365005 Y97.350773 Z-0.125000
G01 X37.727566 Y94.232676 Z-0.125000
G01 X40.310140 Y91.828550 Z-0.125000
G01 X43.335648 Y89.786139 Z-0.125000
G01 X47.210918 Y87.891888 Z-0.125000
G01 X51.597701 Y86.318696 Z-0.125000
G01 X57.456900 Y84.732044 Z-0.125000
G01 X73.946716 Y81.471425 Z-0.125000
G01 X86.380723 Y79.851484 Z-0.125000
G01 X91.852377 Y79.646570 Z-0.125000
G01 X98.256923 Y79.793639 Z-0.125000
G01 X107.938277 Y80.607566 Z-0.125000
G01 X129.555950 Y83.301282 Z-0.125000
G01 X144.352609 Y83.955225 Z-0.125000
G01 X147.147828 Y84.449548 Z-0.125000
G01 X149.510389 Y85.257017 Z-0.125000
G01 X153.552464 Y87.645681 Z-0.125000
G01 X157.711958 Y91.387252 Z-0.125000
G01 X162.161679 Y96.625797 Z-0.125000
G01 X166.536820 Y102.963494 Z-0.125000
G01 X169.976431 Y109.063260 Z-0.125000
G01 X172.373009 Y114.615771 Z-0.125000
G01 X173.833511 Y119.801746 Z-0.125000
G01 X174.421969 Y125.070305 Z-0.125000
G01 X174.279083 Y128.512736 Z-0.125000
G01 X173.781578 Y131.605185 Z-0.125000
G01 X172.787294 Y135.108826 Z-0.125000
G01 X171.509695 Y138.229561 Z-0.125000
G01 X169.861832 Y141.338290 Z-0.125000
G01 X167.576216 Y144.796091 Z-0.125000
G01 X162.102561 Y151.112778 Z-0.125000
G01 X157.045464 Y155.665638 Z-0.125000
G01 X151.433654 Y159.927908 Z-0.125000
G01 X131.606092 Y172.602027 Z-0.125000
G01 X125.428925 Y176.973348 Z-0.125000
G01 X120.313256 Y181.380594 Z-0.125000
G01 X113.223662 Y188.972606 Z-0.125000
G01 X110.828904 Y191.114700 Z-0.125000
G01 X108.513819 Y192.321356 Z-0.125000
G01 X106.368632 Y192.465060 Z-0.125000
G01 X104.521858 Y191.872873 Z-0.125000
G01 X102.292905 Y190.500139 Z-0.125000
G01 X86.873317 Y177.050111 Z-0.125000
G01 X81.059230 Y172.870517 Z-0.125000
G01 X75.151917 Y169.312304 Z-0.125000
G01 X68.869974 Y166.188022 Z-0.125000
G01 X61.866693 Y163.361516 Z-0.125000
G01 X38.896841 Y156.207892 Z-0.125000
G01 X35.049857 Y154.254977 Z-0.125000
G01 X32.614535 Y152.103970 Z-0.125000
G01 X31.178043 Y149.643362 Z-0.125000
G01 X30.367755 Y146.281969 Z-0.125000
G01 X28.846860 Y125.074125 Z-0.125000
G01 X28.856046 Y118.489222 Z-0.125000
G01 X29.271878 Y112.233382 Z-0.125000
G01 X30.121003 Y106.621298 Z-0.125000
G01 X31.377955 Y101.816320 Z-0.125000
G01 X33.356882 Y97.114663 Z-0.125000
G01 X36.049507 Y93.089231 Z-0.125000
G01 X39.198437 Y90.027706 Z-0.125000
G01 X43.405317 Y87.338355 Z-0.125000
G01 X48.405296 Y85.226184 Z-0.125000
G01 X54.639853 Y83.416336 Z-0.125000
G01 X63.246976 Y81.583387 Z-0.125000
G01 X74.836224 Y79.573900 Z-0.125000
G01 X87.058131 Y78.102119 Z-0.125000
G01 X92.688223 Y77.936678 Z-0.125000
G01 X98.731600 Y78.119309 Z-0.125000
G01 X110.208431 Y79.250385 Z-0.125000
G01 X132.214104 Y82.553750 Z-0.125000
G01 X146.418213 Y83.786692 Z-0.125000
G01 X151.066845 Y85.229095 Z-0.125000
G01 X155.522478 Y88.140095 Z-0.125000
G01 X160.484439 Y93.081410 Z-0.125000
G01 X165.530076 Y99.629386 Z-0.125000
G01 X170.177889 Y107.105161 Z-0.125000
G01 X173.459336 Y113.979473 Z-0.125000
G01 X175.428076 Y120.411577 Z-0.125000
G01 X176.088658 Y126.561913 Z-0.125000
G01 X175.873467 Y130.079561 Z-0.125000
G01 X175.297106 Y133.236494 Z-0.125000
G01 X174.198136 Y136.808895 Z-0.125000
G01 X172.814124 Y139.985929 Z-0.125000
G01 X170.801545 Y143.537502 Z-0.125000
G01 X168.618886 Y146.650688 Z-0.125000
G01 X162.846909 Y153.026402 Z-0.125000
G01 X157.548427 Y157.593269 Z-0.125000
G01 X151.694321 Y161.843441 Z-0.125000
G01 X131.622099 Y174.116464 Z-0.125000
G01 X124.881942 Y178.735810 Z-0.125000
G01 X119.695330 Y183.153425 Z-0.125000
G01 X112.757444 Y190.565170 Z-0.125000
G01 X110.325486 Y192.734550 Z-0.125000
G01 X107.979478 Y193.930928 Z-0.125000
G01 X105.810553 Y194.022517 Z-0.125000
G01 X103.513113 Y193.118730 Z-0.125000
G01 X100.972468 Y191.279050 Z-0.125000
G01 X90.533669 Y181.388871 Z-0.125000
G01 X84.377694 Y176.181431 Z-0.125000
G01 X79.266299 Y172.488701 Z-0.125000
G01 X74.246948 Y169.379517 Z-0.125000
G01 X67.881056 Y166.078425 Z-0.125000
G01 X60.781276 Y163.097847 Z-0.125000
G01 X37.162120 Y155.542853 Z-0.125000
G01 X33.626554 Y153.703901 Z-0.125000
G01 X31.189685 Y151.522152 Z-0.125000
G01 X29.775204 Y149.020889 Z-0.125000
G01 X29.035403 Y145.813932 Z-0.125000
G01 X27.887320 Y131.305044 Z-0.125000
G01 X27.534973 Y122.872275 Z-0.125000
G01 X27.637567 Y116.037073 Z-0.125000
G01 X28.180639 Y109.606151 Z-0.125000
G01 X29.076059 Y104.355237 Z-0.125000
G01 X30.449884 Y99.471767 Z-0.125000
G01 X32.576699 Y94.729909 Z-0.125000
G01 X35.438312 Y90.709207 Z-0.125000
G01 X39.097026 Y87.441222 Z-0.125000
G01 X43.581127 Y84.874383 Z-0.125000
G01 X48.871878 Y82.887634 Z-0.125000
G01 X55.424675 Y81.198752 Z-0.125000
G01 X64.991521 Y79.377080 Z-0.125000
G01 X78.211077 Y77.311294 Z-0.125000
G01 X90.094008 Y76.230333 Z-0.125000
G01 X96.394414 Y76.266623 Z-0.125000
G01 X102.520466 Y76.661081 Z-0.125000
G01 X113.544903 Y78.067831 Z-0.125000
G01 X134.881717 Y81.861426 Z-0.125000
G01 X147.432961 Y83.452171 Z-0.125000
G01 X149.939954 Y84.088651 Z-0.125000
G01 X152.218203 Y85.012357 Z-0.125000
G01 X154.558936 Y86.382180 Z-0.125000
G01 X156.798530 Y88.101531 Z-0.125000
G01 X161.971408 Y93.410928 Z-0.125000
G01 X167.319823 Y100.532446 Z-0.125000
G01 X171.985554 Y108.205495 Z-0.125000
G01 X175.400609 Y115.617877 Z-0.125000
G01 X177.250930 Y122.199414 Z-0.125000
G01 X177.746526 Y128.097450 Z-0.125000
G01 X177.455572 Y131.690224 Z-0.125000
G01 X176.797081 Y134.911643 Z-0.125000
G01 X175.589788 Y138.552257 Z-0.125000
G01 X174.096452 Y141.784954 Z-0.125000
G01 X172.210569 Y144.993457 Z-0.125000
G01 X169.943416 Y148.154756 Z-0.125000
G01 X167.314002 Y151.245386 Z-0.125000
G01 X163.957430 Y154.610235 Z-0.125000
G01 X158.468131 Y159.211572 Z-0.125000
G01 X152.406018 Y163.470204 Z-0.125000
G01 X131.640472 Y175.642633 Z-0.125000
G01 X124.688851 Y180.228600 Z-0.125000
G01 X119.362629 Y184.652127 Z-0.125000
G01 X112.082127 Y192.370197 Z-0.125000
G01 X109.623430 Y194.493556 Z-0.125000
G01 X107.445955 Y195.538773 Z-0.125000
G01 X105.251745 Y195.578064 Z-0.125000
G01 X103.149852 Y194.711112 Z-0.125000
G01 X100.611117 Y192.818407 Z-0.125000
G01 X89.818424 Y182.111027 Z-0.125000
G01 X84.039080 Y176.973621 Z-0.125000
G01 X78.911406 Y173.054967 Z-0.125000
G01 X73.341614 Y169.430450 Z-0.125000
G01 X66.347338 Y165.684514 Z-0.125000
G01 X59.151239 Y162.597613 Z-0.125000
G01 X35.454501 Y154.844435 Z-0.125000
G01 X31.985694 Y152.955823 Z-0.125000
G01 X29.640869 Y150.713500 Z-0.125000
G01 X28.326799 Y148.152755 Z-0.125000
G01 X27.680314 Y144.901777 Z-0.125000
G01 X26.521771 Y128.968040 Z-0.125000
G01 X26.262377 Y120.070144 Z-0.125000
G01 X26.503854 Y112.974275 Z-0.125000
G01 X27.151612 Y106.890424 Z-0.125000
G01 X28.192827 Y101.557290 Z-0.125000
G01 X29.736823 Y96.645898 Z-0.125000
G01 X32.075828 Y91.931871 Z-0.125000
G01 X35.176280 Y87.989843 Z-0.125000
G01 X39.097754 Y84.836001 Z-0.125000
G01 X43.864077 Y82.400588 Z-0.125000
G01 X49.448603 Y80.543991 Z-0.125000
G01 X56.879266 Y78.868933 Z-0.125000
G01 X69.342832 Y76.797690 Z-0.125000
G01 X81.772564 Y75.091891 Z-0.125000
G01 X87.887520 Y74.556640 Z-0.125000
G01 X93.259309 Y74.425215 Z-0.125000
G01 X99.666947 Y74.660325 Z-0.125000
G01 X105.875947 Y75.238232 Z-0.125000
G01 X116.448991 Y76.863812 Z-0.125000
G01 X136.279463 Y80.986289 Z-0.125000
G01 X148.474722 Y83.084635 Z-0.125000
G01 X151.166165 Y83.839989 Z-0.125000
G01 X153.603215 Y84.903397 Z-0.125000
G01 X155.893288 Y86.323425 Z-0.125000
G01 X158.314786 Y88.279978 Z-0.125000
G01 X163.459014 Y93.766367 Z-0.125000
G01 X169.112117 Y101.482891 Z-0.125000
G01 X174.005228 Y109.752856 Z-0.125000
G01 X177.191994 Y116.919668 Z-0.125000
G01 X178.990381 Y123.647729 Z-0.125000
G01 X179.356644 Y126.848138 Z-0.125000
G01 X179.375835 Y130.079925 Z-0.125000
G01 X178.951727 Y133.751645 Z-0.125000
G01 X178.157992 Y137.039367 Z-0.125000
G01 X176.959976 Y140.336093 Z-0.125000
G01 X175.354405 Y143.623815 Z-0.125000
G01 X173.345737 Y146.880704 Z-0.125000
G01 X170.946613 Y150.082295 Z-0.125000
G01 X168.177771 Y153.203758 Z-0.125000
G01 X164.657576 Y156.590526 Z-0.125000
G01 X158.925254 Y161.198048 Z-0.125000
G01 X152.620937 Y165.434397 Z-0.125000
G01 X132.121970 Y176.914411 Z-0.125000
G01 X126.065678 Y180.641248 Z-0.125000
G01 X122.298732 Y183.368707 Z-0.125000
G01 X119.033293 Y186.149192 Z-0.125000
G01 X109.734482 Y195.661194 Z-0.125000
G01 X107.114436 Y197.090863 Z-0.125000
G01 X104.693757 Y197.129973 Z-0.125000
G01 X102.568397 Y196.177344 Z-0.125000
G01 X100.002741 Y194.150759 Z-0.125000
G01 X89.479629 Y183.208451 Z-0.125000
G01 X83.254167 Y177.410916 Z-0.125000
G01 X78.069284 Y173.283528 Z-0.125000
G01 X72.436099 Y169.467286 Z-0.125000
G01 X65.360057 Y165.525257 Z-0.125000
G01 X58.078282 Y162.281465 Z-0.125000
G01 X51.988429 Y160.059060 Z-0.125000
G01 X38.690472 Y155.949589 Z-0.125000
G01 X34.110872 Y154.263254 Z-0.125000
G01 X30.619873 Y152.351176 Z-0.125000
G01 X28.277776 Y150.079385 Z-0.125000
G01 X27.061297 Y147.703272 Z-0.125000
G01 X26.403989 Y144.392721 Z-0.125000
G01 X25.257815 Y127.838147 Z-0.125000
G01 X25.031437 Y118.157885 Z-0.125000
G01 X25.356498 Y110.839547 Z-0.125000
G01 X26.103211 Y104.600715 Z-0.125000
G01 X27.254751 Y99.163623 Z-0.125000
G01 X28.926352 Y94.189292 Z-0.125000
G01 X31.423431 Y89.453892 Z-0.125000
G01 X34.701330 Y85.535693 Z-0.125000
G01 X38.443538 Y82.669623 Z-0.125000
G01 X43.353293 Y80.261131 Z-0.125000
G01 X49.100803 Y78.455649 Z-0.125000
G01 X56.745385 Y76.855263 Z-0.125000
G01 X70.834986 Y74.708621 Z-0.125000
G01 X83.608333 Y73.110872 Z-0.125000
G01 X89.857715 Y72.679670 Z-0.125000
G01 X95.947568 Y72.670484 Z-0.125000
G01 X102.470079 Y73.070217 Z-0.125000
G01 X109.326836 Y73.888327 Z-0.125000
G01 X120.891163 Y76.028421 Z-0.125000
G01 X149.109019 Y82.566211 Z-0.125000
G01 X152.017291 Y83.428251 Z-0.125000
G01 X154.408956 Y84.474377 Z-0.125000
G01 X156.829636 Y85.970897 Z-0.125000
G01 X159.168186 Y87.865602 Z-0.125000
G01 X164.684770 Y93.821666 Z-0.125000
G01 X170.633739 Y102.059616 Z-0.125000
G01 X175.597974 Y110.528038 Z-0.125000
G01 X178.979376 Y118.259933 Z-0.125000
G01 X180.721738 Y125.134335 Z-0.125000
G01 X181.041797 Y128.403685 Z-0.125000
G01 X181.000687 Y131.703503 Z-0.125000
G01 X180.491630 Y135.449804 Z-0.125000
G01 X179.607580 Y138.801010 Z-0.125000
G01 X178.306425 Y142.157401 Z-0.125000
G01 X176.585982 Y145.499421 Z-0.125000
G01 X174.452165 Y148.803787 Z-0.125000
G01 X171.919251 Y152.044305 Z-0.125000
G01 X165.754453 Y158.230203 Z-0.125000
G01 X159.832588 Y162.868831 Z-0.125000
G01 X153.321811 Y167.107635 Z-0.125000
G01 X131.689858 Y178.722622 Z-0.125000
G01 X125.515148 Y182.413987 Z-0.125000
G01 X118.709141 Y187.643165 Z-0.125000
G01 X109.247617 Y197.267401 Z-0.125000
G01 X106.590009 Y198.692614 Z-0.125000
G01 X104.138042 Y198.677061 Z-0.125000
G01 X101.987307 Y197.638756 Z-0.125000
G01 X99.392364 Y195.478108 Z-0.125000
G01 X88.754835 Y183.936064 Z-0.125000
G01 X82.463342 Y177.840026 Z-0.125000
G01 X76.723290 Y173.121907 Z-0.125000
G01 X70.993787 Y169.149319 Z-0.125000
G01 X63.815060 Y165.063495 Z-0.125000
G01 X56.449883 Y161.717019 Z-0.125000
G01 X50.310188 Y159.434313 Z-0.125000
G01 X36.993950 Y155.234072 Z-0.125000
G01 X32.460099 Y153.509355 Z-0.125000
G01 X29.046136 Y151.547891 Z-0.125000
G01 X26.947243 Y149.424442 Z-0.125000
G01 X25.752684 Y147.013039 Z-0.125000
G01 X25.135940 Y143.650828 Z-0.125000
G01 X23.995679 Y126.220389 Z-0.125000
G01 X23.833512 Y116.182778 Z-0.125000
G01 X24.248797 Y108.643246 Z-0.125000
G01 X25.100287 Y102.253161 Z-0.125000
G01 X26.367335 Y96.717295 Z-0.125000
G01 X28.170907 Y91.686483 Z-0.125000
G01 X30.092990 Y88.046051 Z-0.125000
G01 X32.454460 Y84.884388 Z-0.125000
G01 X34.946536 Y82.488447 Z-0.125000
G01 X38.211520 Y80.245487 Z-0.125000
G01 X41.972828 Y78.440369 Z-0.125000
G01 X46.222000 Y77.006606 Z-0.125000
G01 X51.479827 Y75.747653 Z-0.125000
G01 X58.436268 Y74.534266 Z-0.125000
G01 X82.928378 Y71.370966 Z-0.125000
G01 X89.374125 Y70.886375 Z-0.125000
G01 X95.652430 Y70.832805 Z-0.125000
G01 X102.976953 Y71.273557 Z-0.125000
G01 X111.167426 Y72.330779 Z-0.125000
G01 X119.869321 Y74.018934 Z-0.125000
G01 X128.998507 Y76.292453 Z-0.125000
G01 X153.298618 Y83.134295 Z-0.125000
G01 X157.805912 Y85.623643 Z-0.125000
G01 X162.260089 Y89.636250 Z-0.125000
G01 X166.428678 Y94.547460 Z-0.125000
G01 X171.044386 Y100.971379 Z-0.125000
G01 X175.071909 Y107.446776 Z-0.125000
G01 X178.419205 Y113.843591 Z-0.125000
G01 X180.620145 Y119.223930 Z-0.125000
G01 X182.010887 Y124.170429 Z-0.125000
G01 X182.654644 Y128.739387 Z-0.125000
G01 X182.609259 Y133.362189 Z-0.125000
G01 X182.103840 Y136.757053 Z-0.125000
G01 X181.179589 Y140.170197 Z-0.125000
G01 X179.826228 Y143.586707 Z-0.125000
G01 X178.042028 Y146.986299 Z-0.125000
G01 X175.833266 Y150.344145 Z-0.125000
G01 X173.214858 Y153.632777 Z-0.125000
G01 X166.850058 Y159.892164 Z-0.125000
G01 X160.740741 Y164.561260 Z-0.125000
G01 X154.025595 Y168.800883 Z-0.125000
G01 X146.982386 Y172.631859 Z-0.125000
G01 X131.723420 Y180.272712 Z-0.125000
G01 X125.370080 Y183.917328 Z-0.125000
G01 X121.817415 Y186.347558 Z-0.125000
G01 X118.391992 Y189.131953 Z-0.125000
G01 X110.711030 Y197.120241 Z-0.125000
G01 X108.557021 Y199.025497 Z-0.125000
G01 X106.071311 Y200.287543 Z-0.125000
G01 X104.837460 Y200.426790 Z-0.125000
G01 X103.586056 Y200.217692 Z-0.125000
G01 X101.407672 Y199.094165 Z-0.125000
G01 X98.780623 Y196.799727 Z-0.125000
G01 X88.023220 Y184.657766 Z-0.125000
G01 X81.666605 Y178.262497 Z-0.125000
G01 X75.868707 Y173.314543 Z-0.125000
G01 X70.082178 Y169.148773 Z-0.125000
G01 X62.832054 Y164.864857 Z-0.125000
G01 X55.393115 Y161.359306 Z-0.125000
G01 X48.639951 Y158.780916 Z-0.125000
G01 X35.745092 Y154.635519 Z-0.125000
G01 X31.174496 Y152.883699 Z-0.125000
G01 X27.744071 Y150.900042 Z-0.125000
G01 X25.650272 Y148.751217 Z-0.125000
G01 X24.477905 Y146.305253 Z-0.125000
G01 X23.919188 Y143.113758 Z-0.125000
G01 X22.760464 Y124.546423 Z-0.125000
G01 X22.669512 Y114.147915 Z-0.125000
G01 X23.182025 Y106.389008 Z-0.125000
G01 X24.144294 Y99.851854 Z-0.125000
G01 X25.531671 Y94.223035 Z-0.125000
G01 X27.471307 Y89.142655 Z-0.125000
G01 X29.515719 Y85.493582 Z-0.125000
G01 X32.009251 Y82.349837 Z-0.125000
