%
(Header)
(Generated by gcodetools from Inkscape.)
(Using default header. To add your own header create file "header" in the output dir.)
M3
(Header end.)
G21 (All units in mm)

(Start cutting path id: path132)
(Change tool to Default tool)

G00 Z5.000000
G00 X105.662800 Y147.868920

G00 Z4.875000 (Fast pre-penetrate)
G01 Z-0.125000 F400.0(Penetrate)
G01 X105.662800 Y148.136010 Z-0.125000 F800.000000
G01 X105.843270 Y147.868920 Z-0.125000
G01 X106.733590 Y148.263550 Z-0.125000
G01 X105.773490 Y147.955540 Z-0.125000
G01 X106.088720 Y148.448830 Z-0.125000
G01 X106.033320 Y148.792930 Z-0.125000
G01 X105.797510 Y148.766430 Z-0.125000
G01 X105.530410 Y149.721720 Z-0.125000
G01 X105.203150 Y149.473870 Z-0.125000
G01 X105.073210 Y149.011870 Z-0.125000
G01 X104.837400 Y148.922870 Z-0.125000
G01 X105.513560 Y148.001270 Z-0.125000
G01 X103.186690 Y149.394510 Z-0.125000
G01 X105.470250 Y147.945930 Z-0.125000
G01 X104.358550 Y148.162490 Z-0.125000
G01 X104.019260 Y147.977210 Z-0.125000
G01 X103.371980 Y147.669210 Z-0.125000
G01 X104.849430 Y147.674210 Z-0.125000
G01 X103.735320 Y147.099100 Z-0.125000
G01 X104.868670 Y147.414330 Z-0.125000
G01 X103.458600 Y146.160660 Z-0.125000
G01 X104.154010 Y146.333910 Z-0.125000
G01 X104.933650 Y146.899380 Z-0.125000
G01 X104.235830 Y145.352150 Z-0.125000
G01 X105.051560 Y146.382040 Z-0.125000
G01 X105.128560 Y145.903180 Z-0.125000
G01 X105.340310 Y145.633680 Z-0.125000
G01 X105.609810 Y145.602380 Z-0.125000
G01 X105.821570 Y146.182290 Z-0.125000
G01 X106.057380 Y146.018660 Z-0.125000
G01 X106.579540 Y145.145190 Z-0.125000
G01 X106.483240 Y146.112510 Z-0.125000
G01 X106.476240 Y146.533610 Z-0.125000
G01 X107.347320 Y145.681790 Z-0.125000
G01 X107.544630 Y145.903160 Z-0.125000
G01 X107.145190 Y146.617830 Z-0.125000
G01 X107.169290 Y146.846420 Z-0.125000
G01 X107.713110 Y146.767020 Z-0.125000
G01 X108.122170 Y146.853620 Z-0.125000
G01 X108.374830 Y147.055750 Z-0.125000
G01 X108.237680 Y147.368560 Z-0.125000
G01 X108.184780 Y147.633250 Z-0.125000
G01 X107.337770 Y147.876290 Z-0.125000
G01 X109.111200 Y148.213160 Z-0.125000
G01 X107.710740 Y148.273260 Z-0.125000
G01 X109.002920 Y148.860380 Z-0.125000
G01 X108.136660 Y148.863380 Z-0.125000
G01 X107.537490 Y148.829780 Z-0.125000
G01 X107.667430 Y149.140190 Z-0.125000
G01 X108.030780 Y149.688820 Z-0.125000
G01 X107.046600 Y149.145000 Z-0.125000
G01 X107.496580 Y149.886140 Z-0.125000
G01 X107.359420 Y150.100300 Z-0.125000
G01 X107.190980 Y150.285580 Z-0.125000
G01 X107.123580 Y150.692240 Z-0.125000
G01 X106.625480 Y150.198960 Z-0.125000
G01 X106.827610 Y151.536840 Z-0.125000
G01 X106.189950 Y150.184510 Z-0.125000
G01 X106.060000 Y150.677800 Z-0.125000
G01 X105.836220 Y150.863090 Z-0.125000
G01 X105.605220 Y150.338510 Z-0.125000
G01 X105.309250 Y151.245680 Z-0.125000
G01 X105.046970 Y151.161480 Z-0.125000
G01 X104.847240 Y150.875140 Z-0.125000
G01 X104.519990 Y151.055600 Z-0.125000
G01 X104.724530 Y149.953530 Z-0.125000
G01 X103.843820 Y151.190360 Z-0.125000
G01 X103.692230 Y150.887160 Z-0.125000
G01 X103.646530 Y150.490130 Z-0.125000
G01 X104.070040 Y149.643120 Z-0.125000
G01 X103.297630 Y150.131590 Z-0.125000
G01 X102.710500 Y150.292810 Z-0.125000
G01 X103.357780 Y149.489120 Z-0.125000
G01 X102.801930 Y149.578120 Z-0.125000
G01 X102.337520 Y149.534820 Z-0.125000
G01 X103.437190 Y148.786460 Z-0.125000
G01 X102.910210 Y148.774460 Z-0.125000
G01 X102.525210 Y148.656560 Z-0.125000
G01 X101.837020 Y148.541050 Z-0.125000
G01 X101.998240 Y148.245080 Z-0.125000
G01 X102.351960 Y147.970760 Z-0.125000
G01 X102.693640 Y147.751790 Z-0.125000
G01 X102.505960 Y147.520790 Z-0.125000
G01 X102.207580 Y147.241660 Z-0.125000
G01 X102.089670 Y146.960130 Z-0.125000
G01 X102.000670 Y146.661750 Z-0.125000
G01 X102.270170 Y146.486090 Z-0.125000
G01 X102.602240 Y146.370590 Z-0.125000
G01 X102.999270 Y146.332090 Z-0.125000
G01 X102.862120 Y145.992810 Z-0.125000
G01 X102.688860 Y145.571710 Z-0.125000
G01 X102.604660 Y145.162650 Z-0.125000
G01 X103.011310 Y145.186750 Z-0.125000
G01 X103.528670 Y145.405720 Z-0.125000
G01 X103.692300 Y145.266150 Z-0.125000
G01 X103.437230 Y144.488920 Z-0.125000
G01 X103.547920 Y144.154450 Z-0.125000
G01 X104.132640 Y144.722330 Z-0.125000
G01 X104.476740 Y144.970180 Z-0.125000
G01 X104.125430 Y143.293010 Z-0.125000
G01 X104.941150 Y145.160270 Z-0.125000
G01 X104.698120 Y143.035530 Z-0.125000
G01 X105.343000 Y145.489930 Z-0.125000
G01 X105.287600 Y142.573520 Z-0.125000
G01 X105.638910 Y144.842640 Z-0.125000
G01 X105.884350 Y143.764630 Z-0.125000
G01 X106.180320 Y143.425350 Z-0.125000
G01 X106.185320 Y144.965370 Z-0.125000
G01 X106.851860 Y142.997030 Z-0.125000
G01 X106.536640 Y145.049580 Z-0.125000
G01 X107.297030 Y143.540850 Z-0.125000
G01 X107.193550 Y144.457640 Z-0.125000
G01 X107.506360 Y144.346950 Z-0.125000
G01 X108.016500 Y143.959540 Z-0.125000
G01 X107.576150 Y145.085680 Z-0.125000
G01 X108.726350 Y143.933080 Z-0.125000
G01 X107.836030 Y145.396090 Z-0.125000
G01 X109.043980 Y144.450420 Z-0.125000
G01 X108.769670 Y145.078460 Z-0.125000
G01 X108.586780 Y145.535650 Z-0.125000
G01 X109.749020 Y144.979800 Z-0.125000
G01 X108.290810 Y146.231070 Z-0.125000
G01 X110.141240 Y145.427370 Z-0.125000
G01 X109.181130 Y146.207010 Z-0.125000
G01 X109.133030 Y146.464470 Z-0.125000
G01 X109.416980 Y146.594420 Z-0.125000
G01 X109.809200 Y146.721950 Z-0.125000
G01 X110.504620 Y146.820650 Z-0.125000
G01 X109.484350 Y147.263400 Z-0.125000
G01 X109.443450 Y147.487180 Z-0.125000
G01 X110.598470 Y147.648400 Z-0.125000
G01 X110.138870 Y147.920310 Z-0.125000
G01 X109.380890 Y148.117630 Z-0.125000
G01 X109.681680 Y148.363070 Z-0.125000
G01 X110.054660 Y148.656640 Z-0.125000
G01 X110.345810 Y148.979080 Z-0.125000
G01 X110.150900 Y149.195640 Z-0.125000
G01 X109.956000 Y149.397770 Z-0.125000
G01 X109.669640 Y149.546960 Z-0.125000
G01 X109.501200 Y149.727430 Z-0.125000
G01 X109.356830 Y149.910310 Z-0.125000
G01 X109.236510 Y150.102810 Z-0.125000
G01 X109.291910 Y150.418030 Z-0.125000
G01 X109.229310 Y150.670690 Z-0.125000
G01 X109.164410 Y150.935380 Z-0.125000
G01 X109.234210 Y151.346860 Z-0.125000
G01 X107.857820 Y150.247180 Z-0.125000
G01 X109.253460 Y152.196270 Z-0.125000
G01 X107.982950 Y150.985910 Z-0.125000
G01 X108.697610 Y152.422460 Z-0.125000
G01 X107.309180 Y150.644230 Z-0.125000
G01 X107.771190 Y151.885860 Z-0.125000
G01 X107.732690 Y152.364710 Z-0.125000
G01 X107.542590 Y152.576460 Z-0.125000
G01 X107.232190 Y152.480260 Z-0.125000
G01 X106.921780 Y152.302190 Z-0.125000
G01 X106.635430 Y152.112100 Z-0.125000
G01 X106.445330 Y152.311820 Z-0.125000
G01 X106.344270 Y153.365770 Z-0.125000
G01 X105.942420 Y151.705440 Z-0.125000
G01 X105.800450 Y154.053970 Z-0.125000
G01 X105.555020 Y151.683790 Z-0.125000
G01 X105.309570 Y152.352730 Z-0.125000
G01 X105.008790 Y152.915800 Z-0.125000
G01 X104.712810 Y153.129950 Z-0.125000
G01 X104.541970 Y152.689600 Z-0.125000
G01 X104.438500 Y152.153000 Z-0.125000
G01 X104.224340 Y152.097700 Z-0.125000
G01 X103.911520 Y152.287790 Z-0.125000
G01 X103.435090 Y152.771450 Z-0.125000
G01 X103.822500 Y151.443190 Z-0.125000
G01 X102.953830 Y152.550080 Z-0.125000
G01 X103.540960 Y151.154440 Z-0.125000
G01 X101.998530 Y152.975990 Z-0.125000
G01 X103.485610 Y150.613030 Z-0.125000
G01 X102.489410 Y151.493720 Z-0.125000
G01 X102.157350 Y151.503720 Z-0.125000
G01 X101.871000 Y151.436320 Z-0.125000
G01 X101.514870 Y151.412220 Z-0.125000
G01 X101.647220 Y150.981490 Z-0.125000
G01 X101.895060 Y150.509860 Z-0.125000
G01 X101.692930 Y150.377520 Z-0.125000
G01 X100.877210 Y150.584450 Z-0.125000
G01 X100.665450 Y150.401580 Z-0.125000
G01 X102.032230 Y149.496810 Z-0.125000
G01 X100.817050 Y149.773530 Z-0.125000
G01 X100.545140 Y149.607500 Z-0.125000
G01 X101.500440 Y149.068490 Z-0.125000
G01 X99.982072 Y149.222500 Z-0.125000
G01 X100.475360 Y148.851930 Z-0.125000
G01 X101.329590 Y148.483780 Z-0.125000
G01 X99.871383 Y148.416380 Z-0.125000
G01 X100.068700 Y148.137250 Z-0.125000
G01 X101.088960 Y147.877370 Z-0.125000
G01 X100.511460 Y147.641560 Z-0.125000
G01 X99.830476 Y147.343180 Z-0.125000
G01 X100.759300 Y147.198800 Z-0.125000
G01 X101.084150 Y147.027960 Z-0.125000
G01 X99.604287 Y146.469700 Z-0.125000
G01 X100.821860 Y146.515400 Z-0.125000
G01 X101.079340 Y146.361390 Z-0.125000
G01 X99.772726 Y145.629890 Z-0.125000
G01 X101.652030 Y146.135200 Z-0.125000
G01 X100.542730 Y145.374820 Z-0.125000
G01 X100.920520 Y145.288220 Z-0.125000
G01 X101.714600 Y145.485540 Z-0.125000
G01 X100.369480 Y144.342550 Z-0.125000
G01 X101.187620 Y144.590400 Z-0.125000
G01 X101.967250 Y144.900810 Z-0.125000
G01 X101.086550 Y143.846860 Z-0.125000
G01 X101.430650 Y143.801160 Z-0.125000
G01 X102.193450 Y144.227070 Z-0.125000
G01 X102.229550 Y143.931090 Z-0.125000
G01 X102.383550 Y143.755440 Z-0.125000
G01 X102.465450 Y143.478710 Z-0.125000
G01 X102.487050 Y143.081670 Z-0.125000
G01 X102.638640 Y142.843450 Z-0.125000
G01 X102.896110 Y142.783350 Z-0.125000
G01 X103.295560 Y143.026380 Z-0.125000
G01 X103.543400 Y143.016380 Z-0.125000
G01 X103.747940 Y142.905700 Z-0.125000
G01 X103.889910 Y142.607310 Z-0.125000
G01 X103.986110 Y142.082750 Z-0.125000
G01 X104.243590 Y142.044250 Z-0.125000
G01 X104.570840 Y142.378720 Z-0.125000
G01 X104.864410 Y142.701160 Z-0.125000
G01 X105.061720 Y142.455720 Z-0.125000
G01 X105.292730 Y142.441220 Z-0.125000
G01 X105.518920 Y142.236690 Z-0.125000
G01 X105.759540 Y142.099530 Z-0.125000
G01 X106.021830 Y141.805970 Z-0.125000
G01 X106.272080 Y141.878170 Z-0.125000
G01 X106.466990 Y142.308890 Z-0.125000
G01 X106.642640 Y142.645770 Z-0.125000
G01 X106.888090 Y142.573570 Z-0.125000
G01 X107.186470 Y142.352190 Z-0.125000
G01 X107.496870 Y142.164500 Z-0.125000
G01 X107.776000 Y142.130900 Z-0.125000
G01 X107.990160 Y142.275280 Z-0.125000
G01 X108.141760 Y142.544780 Z-0.125000
G01 X108.315010 Y142.744500 Z-0.125000
G01 X108.512330 Y142.876850 Z-0.125000
G01 X108.558030 Y143.252230 Z-0.125000
G01 X108.849180 Y143.225730 Z-0.125000
G01 X109.123500 Y143.242530 Z-0.125000
G01 X109.542190 Y143.105370 Z-0.125000
G01 X109.756350 Y143.242530 Z-0.125000
G01 X109.934410 Y143.420590 Z-0.125000
G01 X109.999310 Y143.704530 Z-0.125000
G01 X110.083510 Y143.959600 Z-0.125000
G01 X110.093510 Y144.260390 Z-0.125000
G01 X110.071910 Y144.565980 Z-0.125000
G01 X110.456920 Y144.570980 Z-0.125000
G01 X110.695130 Y144.698510 Z-0.125000
G01 X111.121050 Y144.729810 Z-0.125000
G01 X111.101750 Y145.025780 Z-0.125000
G01 X111.366440 Y145.172560 Z-0.125000
G01 X111.339940 Y145.458910 Z-0.125000
G01 X111.188350 Y145.778940 Z-0.125000
G01 X110.815380 Y146.151920 Z-0.125000
G01 X111.368820 Y146.216820 Z-0.125000
G01 X111.746600 Y146.366000 Z-0.125000
G01 X111.980010 Y146.572950 Z-0.125000
G01 X111.931910 Y146.837640 Z-0.125000
G01 X111.792350 Y147.109550 Z-0.125000
G01 X111.710450 Y147.359800 Z-0.125000
G01 X111.623850 Y147.602830 Z-0.125000
G01 X111.517970 Y147.838650 Z-0.125000
G01 X111.524970 Y148.067250 Z-0.125000
G01 X111.909980 Y148.327130 Z-0.125000
G01 X112.085630 Y148.591820 Z-0.125000
G01 X112.165030 Y148.858910 Z-0.125000
G01 X111.799270 Y149.049010 Z-0.125000
G01 X111.202520 Y149.159700 Z-0.125000
G01 X111.467210 Y149.462890 Z-0.125000
G01 X112.213160 Y149.941730 Z-0.125000
G01 X111.729500 Y150.050020 Z-0.125000
G01 X110.819920 Y149.951420 Z-0.125000
G01 X111.382990 Y150.439890 Z-0.125000
G01 X111.955680 Y150.993330 Z-0.125000
G01 X111.166420 Y150.870610 Z-0.125000
G01 X110.454160 Y150.723830 Z-0.125000
G01 X111.411870 Y151.599710 Z-0.125000
G01 X111.103860 Y151.703180 Z-0.125000
G01 X110.179850 Y151.315770 Z-0.125000
G01 X111.164010 Y152.408220 Z-0.125000
G01 X109.650470 Y151.424060 Z-0.125000
G01 X110.704420 Y152.718630 Z-0.125000
G01 X109.980130 Y152.348070 Z-0.125000
G01 X109.821320 Y152.521320 Z-0.125000
G01 X110.211130 Y153.361110 Z-0.125000
G01 X108.904530 Y152.100210 Z-0.125000
G01 X110.040290 Y154.049300 Z-0.125000
G01 X108.716830 Y152.540570 Z-0.125000
G01 X109.308780 Y153.933800 Z-0.125000
G01 X108.521930 Y153.053100 Z-0.125000
G01 X108.724050 Y153.948240 Z-0.125000
G01 X108.237980 Y153.493450 Z-0.125000
G01 X108.442520 Y154.590710 Z-0.125000
G01 X107.706200 Y153.382760 Z-0.125000
G01 X107.785600 Y154.318800 Z-0.125000
G01 X107.378950 Y153.820710 Z-0.125000
G01 X107.294750 Y154.429490 Z-0.125000
G01 X106.993960 Y154.212930 Z-0.125000
G01 X106.765360 Y154.289930 Z-0.125000
G01 X106.469390 Y153.892900 Z-0.125000
G01 X106.370690 Y155.175450 Z-0.125000
G01 X105.985680 Y153.255230 Z-0.125000
G01 X105.848520 Y155.861240 Z-0.125000
G01 X105.595870 Y152.992950 Z-0.125000
G01 X105.266210 Y155.815520 Z-0.125000
G01 X105.124230 Y154.104650 Z-0.125000
G01 X104.919700 Y153.897710 Z-0.125000
G01 X104.553940 Y154.792850 Z-0.125000
G01 X104.301290 Y154.759250 Z-0.125000
G01 X104.330090 Y153.522420 Z-0.125000
G01 X103.615420 Y155.336750 Z-0.125000
G01 X103.882510 Y153.553700 Z-0.125000
G01 X103.379600 Y154.333340 Z-0.125000
G01 X102.951290 Y154.744810 Z-0.125000
G01 X103.088450 Y153.767860 Z-0.125000
G01 X103.001750 Y153.414140 Z-0.125000
G01 X102.056080 Y154.742400 Z-0.125000
G01 X102.765930 Y152.940100 Z-0.125000
G01 X102.250990 Y153.375640 Z-0.125000
G01 X101.425630 Y154.193770 Z-0.125000
G01 X101.938170 Y153.021920 Z-0.125000
G01 X101.834700 Y152.788500 Z-0.125000
G01 X100.655620 Y153.849680 Z-0.125000
G01 X101.630160 Y152.355370 Z-0.125000
G01 X100.961220 Y152.740380 Z-0.125000
G01 X100.318740 Y153.026730 Z-0.125000
G01 X101.300500 Y151.792310 Z-0.125000
G01 X99.546330 Y152.990630 Z-0.125000
G01 X101.059880 Y151.455430 Z-0.125000
G01 X100.212870 Y151.816370 Z-0.125000
G01 X99.264795 Y152.170090 Z-0.125000
G01 X99.758082 Y151.544460 Z-0.125000
G01 X100.138270 Y151.046360 Z-0.125000
G01 X99.856739 Y150.942890 Z-0.125000
G01 X99.490985 Y150.865890 Z-0.125000
G01 X99.154106 Y150.755200 Z-0.125000
G01 X99.016948 Y150.543450 Z-0.125000
G01 X98.822040 Y150.348550 Z-0.125000
G01 X99.002510 Y150.026110 Z-0.125000
G01 X99.262388 Y149.698850 Z-0.125000
G01 X99.173348 Y149.484690 Z-0.125000
G01 X99.057847 Y149.272940 Z-0.125000
G01 X98.838875 Y149.075620 Z-0.125000
G01 X98.473121 Y148.887940 Z-0.125000
G01 X98.352807 Y148.647300 Z-0.125000
G01 X98.468308 Y148.387420 Z-0.125000
G01 X98.509218 Y148.139580 Z-0.125000
G01 X98.720971 Y147.894140 Z-0.125000
G01 X98.988067 Y147.663140 Z-0.125000
G01 X98.889407 Y147.429730 Z-0.125000
G01 X98.754656 Y147.184290 Z-0.125000
G01 X98.629529 Y146.929220 Z-0.125000
G01 X98.477934 Y146.657310 Z-0.125000
G01 X98.463504 Y146.402250 Z-0.125000
G01 X98.603067 Y146.180870 Z-0.125000
G01 X98.607867 Y145.928210 Z-0.125000
G01 X98.800369 Y145.728490 Z-0.125000
G01 X98.935121 Y145.516740 Z-0.125000
G01 X99.067466 Y145.312200 Z-0.125000
G01 X99.149286 Y145.088420 Z-0.125000
G01 X99.440446 Y144.960890 Z-0.125000
G01 X99.464506 Y144.715440 Z-0.125000
G01 X99.466906 Y144.450760 Z-0.125000
G01 X99.250341 Y144.044100 Z-0.125000
G01 X99.517438 Y143.918970 Z-0.125000
G01 X99.555938 Y143.651870 Z-0.125000
G01 X99.700314 Y143.449740 Z-0.125000
G01 X99.885598 Y143.281310 Z-0.125000
G01 X100.133450 Y143.170620 Z-0.125000
G01 X100.414980 Y143.100820 Z-0.125000
G01 X100.561770 Y142.913130 Z-0.125000
G01 X100.718180 Y142.739880 Z-0.125000
G01 X100.968420 Y142.662880 Z-0.125000
G01 X100.985220 Y142.323580 Z-0.125000
G01 X101.054920 Y142.025210 Z-0.125000
G01 X101.117520 Y141.697960 Z-0.125000
G01 X101.365360 Y141.613760 Z-0.125000
G01 X101.738340 Y141.734080 Z-0.125000
G01 X102.015060 Y141.731080 Z-0.125000
G01 X102.250870 Y141.673380 Z-0.125000
G01 X102.438560 Y141.531420 Z-0.125000
G01 X102.551660 Y141.223410 Z-0.125000
G01 X102.669560 Y140.893750 Z-0.125000
G01 X102.825970 Y140.614620 Z-0.125000
G01 X103.131570 Y140.720500 Z-0.125000
G01 X103.497320 Y141.057380 Z-0.125000
G01 X103.737950 Y141.052380 Z-0.125000
G01 X103.935270 Y140.893570 Z-0.125000
G01 X104.084450 Y140.470060 Z-0.125000
G01 X104.281770 Y140.186120 Z-0.125000
G01 X104.539250 Y140.207720 Z-0.125000
G01 X104.820780 Y140.465190 Z-0.125000
G01 X105.080660 Y140.708220 Z-0.125000
G01 X105.314070 Y140.720220 Z-0.125000
G01 X105.540250 Y140.583060 Z-0.125000
G01 X105.778480 Y140.306340 Z-0.125000
G01 X106.035950 Y140.005550 Z-0.125000
G01 X106.288610 Y140.005550 Z-0.125000
G01 X106.490740 Y140.467560 Z-0.125000
G01 X106.685640 Y140.790000 Z-0.125000
G01 X106.943110 Y140.650430 Z-0.125000
G01 X107.304060 Y140.068110 Z-0.125000
G01 X107.559130 Y140.094610 Z-0.125000
G01 X107.641030 Y140.746710 Z-0.125000
G01 X107.742090 Y141.213540 Z-0.125000
G01 X108.105430 Y140.842970 Z-0.125000
G01 X108.399010 Y140.732280 Z-0.125000
G01 X108.752720 Y140.515710 Z-0.125000
G01 X108.988550 Y140.604710 Z-0.125000
G01 X109.031850 Y141.083560 Z-0.125000
G01 X109.120850 Y141.425260 Z-0.125000
G01 X109.310950 Y141.555190 Z-0.125000
G01 X109.628580 Y141.480590 Z-0.125000
G01 X109.965450 Y141.398690 Z-0.125000
G01 X110.326390 Y141.312090 Z-0.125000
G01 X110.511680 Y141.485340 Z-0.125000
G01 X110.326390 Y142.110980 Z-0.125000
G01 X110.343190 Y142.447860 Z-0.125000
G01 X110.781130 Y142.303480 Z-0.125000
G01 X111.221480 Y142.190380 Z-0.125000
G01 X111.421200 Y142.341980 Z-0.125000
G01 X111.657010 Y142.462290 Z-0.125000
G01 X111.546320 Y142.885800 Z-0.125000
G01 X111.305700 Y143.383900 Z-0.125000
G01 X111.661820 Y143.395900 Z-0.125000
G01 X112.022770 Y143.427200 Z-0.125000
G01 X112.357240 Y143.494600 Z-0.125000
G01 X112.571400 Y143.655820 Z-0.125000
G01 X112.684490 Y143.877190 Z-0.125000
G01 X112.518460 Y144.247760 Z-0.125000
G01 X112.386120 Y144.577420 Z-0.125000
G01 X112.535310 Y144.762700 Z-0.125000
G01 X112.840900 Y144.887820 Z-0.125000
G01 X113.103190 Y145.041830 Z-0.125000
G01 X113.391940 Y145.200640 Z-0.125000
G01 X113.483340 Y145.436460 Z-0.125000
G01 X113.317310 Y145.742050 Z-0.125000
G01 X113.033370 Y146.062090 Z-0.125000
G01 X113.158490 Y146.271440 Z-0.125000
G01 X113.124790 Y146.514470 Z-0.125000
G01 X113.444830 Y146.699760 Z-0.125000
G01 X113.642150 Y146.918730 Z-0.125000
G01 X113.788920 Y147.149730 Z-0.125000
G01 X113.637330 Y147.407200 Z-0.125000
G01 X113.755240 Y147.645420 Z-0.125000
G01 X113.695140 Y147.890860 Z-0.125000
G01 X113.781840 Y148.136300 Z-0.125000
G01 X113.675960 Y148.376930 Z-0.125000
G01 X113.493090 Y148.603120 Z-0.125000
G01 X113.557990 Y148.850970 Z-0.125000
G01 X113.307740 Y149.053090 Z-0.125000
G01 X113.531530 Y149.332220 Z-0.125000
G01 X113.290900 Y149.527130 Z-0.125000
G01 X113.310200 Y149.772570 Z-0.125000
G01 X113.288500 Y150.013200 Z-0.125000
G01 X113.360700 Y150.282700 Z-0.125000
G01 X113.283700 Y150.513700 Z-0.125000
G01 X113.334300 Y150.790420 Z-0.125000
G01 X113.173080 Y150.987740 Z-0.125000
G01 X113.084080 Y151.213930 Z-0.125000
G01 X113.117780 Y151.500280 Z-0.125000
G01 X112.999880 Y151.716850 Z-0.125000
G01 X112.780910 Y151.878070 Z-0.125000
G01 X112.641340 Y152.075380 Z-0.125000
G01 X112.496970 Y152.270290 Z-0.125000
G01 X112.270770 Y152.407440 Z-0.125000
G01 X112.061430 Y152.549420 Z-0.125000
G01 X112.025330 Y152.816510 Z-0.125000
G01 X111.854490 Y152.984950 Z-0.125000
G01 X111.712510 Y153.175050 Z-0.125000
G01 X111.609040 Y153.406050 Z-0.125000
G01 X111.452630 Y153.584110 Z-0.125000
G01 X111.231260 Y153.699610 Z-0.125000
G01 X111.144660 Y153.959490 Z-0.125000
G01 X110.969000 Y154.123120 Z-0.125000
G01 X110.783720 Y154.277120 Z-0.125000
G01 X110.605650 Y154.440750 Z-0.125000
G01 X110.482930 Y154.683780 Z-0.125000
G01 X110.340960 Y154.912380 Z-0.125000
G01 X110.136430 Y155.051940 Z-0.125000
G01 X109.924680 Y155.177070 Z-0.125000
G01 X109.607050 Y155.112170 Z-0.125000
G01 X109.104140 Y154.647750 Z-0.125000
G01 X109.335140 Y155.660800 Z-0.125000
G01 X109.188360 Y155.949550 Z-0.125000
G01 X108.399100 Y154.671820 Z-0.125000
G01 X108.687850 Y156.067460 Z-0.125000
G01 X108.459260 Y156.185370 Z-0.125000
G01 X108.006870 Y155.569360 Z-0.125000
G01 X107.746990 Y155.501960 Z-0.125000
G01 X107.571340 Y155.745000 Z-0.125000
G01 X107.400490 Y156.074660 Z-0.125000
G01 X107.195960 Y156.298440 Z-0.125000
G01 X106.957740 Y156.380340 Z-0.125000
G01 X106.714700 Y156.418840 Z-0.125000
G01 X106.457230 Y156.324940 Z-0.125000
G01 X106.202170 Y156.192600 Z-0.125000
G01 X105.961540 Y156.142000 Z-0.125000
G01 X105.725720 Y156.262330 Z-0.125000
G01 X105.487500 Y156.192530 Z-0.125000
G01 X105.249280 Y156.178030 Z-0.125000
G01 X105.006250 Y156.218930 Z-0.125000
G01 X104.772840 Y156.168330 Z-0.125000
G01 X104.532210 Y156.161330 Z-0.125000
G01 X104.298800 Y156.108430 Z-0.125000
G01 X104.062980 Y156.081930 Z-0.125000
G01 X103.783850 Y156.233530 Z-0.125000
G01 X103.403660 Y156.746060 Z-0.125000
G01 X103.533610 Y155.335980 Z-0.125000
G01 X103.218380 Y155.605480 Z-0.125000
G01 X102.631250 Y156.592060 Z-0.125000
G01 X102.522970 Y156.142080 Z-0.125000
G01 X102.405060 Y155.771520 Z-0.125000
G01 X102.217370 Y155.598270 Z-0.125000
G01 X102.109080 Y155.275820 Z-0.125000
G01 X101.909370 Y155.157920 Z-0.125000
G01 X101.521950 Y155.381700 Z-0.125000
G01 X101.163420 Y155.516450 Z-0.125000
G01 X100.917980 Y155.434550 Z-0.125000
G01 X100.850580 Y155.083240 Z-0.125000
G01 X101.062330 Y154.363750 Z-0.125000
G01 X100.369320 Y154.914800 Z-0.125000
G01 X100.775990 Y154.010040 Z-0.125000
G01 X99.375527 Y155.331080 Z-0.125000
G01 X100.857790 Y153.256870 Z-0.125000
G01 X98.735457 Y155.213170 Z-0.125000
G01 X100.532950 Y153.011430 Z-0.125000
G01 X98.598299 Y154.565880 Z-0.125000
G01 X99.736469 Y153.182280 Z-0.125000
G01 X98.514079 Y153.930620 Z-0.125000
G01 X99.426059 Y152.864650 Z-0.125000
G01 X98.800426 Y153.059550 Z-0.125000
G01 X97.987105 Y153.345910 Z-0.125000
G01 X99.284089 Y152.159610 Z-0.125000
G01 X97.551568 Y153.004210 Z-0.125000
G01 X99.195056 Y151.716850 Z-0.125000
G01 X97.481786 Y152.433930 Z-0.125000
G01 X99.009773 Y151.346290 Z-0.125000
G01 X97.010155 Y152.089820 Z-0.125000
G01 X98.935178 Y150.925190 Z-0.125000
G01 X96.252178 Y151.834760 Z-0.125000
G01 X98.391360 Y150.699000 Z-0.125000
G01 X96.059676 Y151.305380 Z-0.125000
G01 X98.716207 Y150.143140 Z-0.125000
G01 X96.009144 Y150.737490 Z-0.125000
G01 X98.119450 Y149.885680 Z-0.125000
G01 X96.591463 Y150.030050 Z-0.125000
G01 X97.079938 Y149.666710 Z-0.125000
G01 X97.469755 Y149.353890 Z-0.125000
G01 X96.030800 Y149.343890 Z-0.125000
G01 X98.165169 Y148.807280 Z-0.125000
G01 X95.434044 Y148.867380 Z-0.125000
G01 X98.295108 Y148.386130 Z-0.125000
G01 X95.537513 Y148.301930 Z-0.125000
G01 X98.001543 Y147.989110 Z-0.125000
G01 X96.492806 Y147.762920 Z-0.125000
G01 X96.199240 Y147.500640 Z-0.125000
G01 X97.474567 Y147.327390 Z-0.125000
G01 X97.137689 Y147.074730 Z-0.125000
G01 X96.560182 Y146.771540 Z-0.125000
G01 X96.346023 Y146.487590 Z-0.125000
G01 X96.971655 Y146.338410 Z-0.125000
G01 X97.580444 Y146.220500 Z-0.125000
G01 X97.075125 Y145.873990 Z-0.125000
G01 X96.516869 Y145.481770 Z-0.125000
G01 X96.726215 Y145.279640 Z-0.125000
G01 X97.096781 Y145.132860 Z-0.125000
G01 X97.532318 Y145.029390 Z-0.125000
G01 X97.520288 Y144.779140 Z-0.125000
G01 X97.570818 Y144.545730 Z-0.125000
G01 X97.537128 Y144.273830 Z-0.125000
G01 X97.541928 Y144.013950 Z-0.125000
G01 X97.486588 Y143.715560 Z-0.125000
G01 X97.520278 Y143.453280 Z-0.125000
G01 X97.655030 Y143.246340 Z-0.125000
G01 X97.857157 Y143.080310 Z-0.125000
G01 X98.167566 Y142.988910 Z-0.125000
G01 X98.299912 Y142.794000 Z-0.125000
G01 X98.766730 Y142.837300 Z-0.125000
G01 X98.619947 Y142.437860 Z-0.125000
G01 X98.641597 Y142.149110 Z-0.125000
G01 X98.408189 Y141.634170 Z-0.125000
G01 X98.701754 Y141.557170 Z-0.125000
G01 X99.118040 Y141.610070 Z-0.125000
G01 X99.491014 Y141.643670 Z-0.125000
G01 X99.712391 Y141.542600 Z-0.125000
G01 X99.618551 Y141.090230 Z-0.125000
G01 X99.582451 Y140.676340 Z-0.125000
G01 X99.743672 Y140.479030 Z-0.125000
G01 X100.030020 Y140.445330 Z-0.125000
G01 X100.364490 Y140.486230 Z-0.125000
G01 X100.759120 Y140.642640 Z-0.125000
G01 X100.838520 Y140.339450 Z-0.125000
G01 X100.698950 Y139.653660 Z-0.125000
G01 X100.932370 Y139.552600 Z-0.125000
G01 X101.348650 Y139.800440 Z-0.125000
G01 X101.733660 Y140.033850 Z-0.125000
G01 X101.918940 Y139.884670 Z-0.125000
G01 X101.873240 Y139.208500 Z-0.125000
G01 X102.048900 Y138.979900 Z-0.125000
G01 X102.330440 Y139.013500 Z-0.125000
G01 X102.749130 Y139.470690 Z-0.125000
G01 X103.025850 Y139.569390 Z-0.125000
G01 X103.078750 Y138.943760 Z-0.125000
G01 X103.189440 Y138.402350 Z-0.125000
G01 X103.502260 Y138.618920 Z-0.125000
G01 X103.904100 Y139.348010 Z-0.125000
G01 X104.096610 Y139.138670 Z-0.125000
G01 X104.243390 Y138.573200 Z-0.125000
G01 X104.438300 Y138.171340 Z-0.125000
G01 X104.719830 Y138.440850 Z-0.125000
G01 X105.008580 Y139.003920 Z-0.125000
G01 X105.234780 Y138.907720 Z-0.125000
G01 X105.463370 Y138.777780 Z-0.125000
G01 X105.699190 Y138.554000 Z-0.125000
G01 X105.951850 Y138.161770 Z-0.125000
G01 X106.202100 Y138.183470 Z-0.125000
G01 X106.430700 Y138.452970 Z-0.125000
G01 X106.664110 Y138.561260 Z-0.125000
G01 X106.883080 Y138.748940 Z-0.125000
G01 X107.128520 Y138.708040 Z-0.125000
G01 X107.345090 Y138.854820 Z-0.125000
G01 X107.583300 Y138.859820 Z-0.125000
G01 X107.807090 Y138.941720 Z-0.125000
G01 X108.098250 Y138.768470 Z-0.125000
G01 X108.444750 Y138.446030 Z-0.125000
G01 X108.634840 Y138.677030 Z-0.125000
G01 X108.808100 Y138.924880 Z-0.125000
G01 X108.935630 Y139.271380 Z-0.125000
G01 X109.101660 Y139.490350 Z-0.125000
G01 X109.390410 Y139.406150 Z-0.125000
G01 X109.645480 Y139.420650 Z-0.125000
G01 X110.004020 Y139.235360 Z-0.125000
G01 X110.333680 Y139.141560 Z-0.125000
G01 X110.439560 Y139.464000 Z-0.125000
G01 X110.413060 Y139.983750 Z-0.125000
G01 X110.567060 Y140.178670 Z-0.125000
G01 X110.812510 Y140.231570 Z-0.125000
G01 X111.262480 Y140.000570 Z-0.125000
G01 X111.673950 Y139.861000 Z-0.125000
G01 X111.447760 Y140.556410 Z-0.125000
G01 X111.349160 Y141.042480 Z-0.125000
G01 X111.842440 Y140.821100 Z-0.125000
G01 X112.309250 Y140.662290 Z-0.125000
G01 X112.660580 Y140.657290 Z-0.125000
G01 X112.330920 Y141.335860 Z-0.125000
G01 X112.304420 Y141.682360 Z-0.125000
G01 X112.662960 Y141.670360 Z-0.125000
G01 X113.199560 Y141.525980 Z-0.125000
G01 X113.543650 Y141.569280 Z-0.125000
G01 X113.091270 Y142.228600 Z-0.125000
G01 X113.031170 Y142.560660 Z-0.125000
G01 X113.548530 Y142.483660 Z-0.125000
G01 X114.128440 Y142.394660 Z-0.125000
G01 X114.121440 Y142.695440 Z-0.125000
G01 X113.933750 Y143.090070 Z-0.125000
G01 X113.719590 Y143.479890 Z-0.125000
G01 X113.972250 Y143.607420 Z-0.125000
G01 X114.501640 Y143.612420 Z-0.125000
G01 X114.925140 Y143.689420 Z-0.125000
G01 X114.720610 Y144.050360 Z-0.125000
G01 X114.174380 Y144.529200 Z-0.125000
G01 X114.412600 Y144.685610 Z-0.125000
G01 X114.850540 Y144.781910 Z-0.125000
G01 X115.411210 Y144.861310 Z-0.125000
G01 X115.281270 Y145.162090 Z-0.125000
G01 X114.908290 Y145.513410 Z-0.125000
G01 X114.763920 Y145.787720 Z-0.125000
G01 X114.867390 Y146.004290 Z-0.125000
G01 X115.442490 Y146.139040 Z-0.125000
G01 X115.642210 Y146.358010 Z-0.125000
G01 X115.608610 Y146.613080 Z-0.125000
G01 X115.033510 Y146.921080 Z-0.125000
G01 X114.937310 Y147.161710 Z-0.125000
G01 X115.271780 Y147.373460 Z-0.125000
G01 X115.772290 Y147.597240 Z-0.125000
G01 X115.875760 Y147.847500 Z-0.125000
G01 X115.406530 Y148.088120 Z-0.125000
G01 X115.026340 Y148.309500 Z-0.125000
G01 X115.057640 Y148.542910 Z-0.125000
G01 X115.343980 Y148.805190 Z-0.125000
G01 X115.546110 Y149.069880 Z-0.125000
G01 X115.712150 Y149.341790 Z-0.125000
G01 X115.579790 Y149.570390 Z-0.125000
G01 X115.418570 Y149.791770 Z-0.125000
G01 X115.266990 Y150.005930 Z-0.125000
G01 X115.108170 Y150.215270 Z-0.125000
G01 X115.009470 Y150.434250 Z-0.125000
G01 X114.867500 Y150.638770 Z-0.125000
G01 X114.845900 Y150.879410 Z-0.125000
G01 X114.990270 Y151.182590 Z-0.125000
G01 X115.014370 Y151.449690 Z-0.125000
G01 X115.084170 Y151.743260 Z-0.125000
G01 X114.800230 Y151.887630 Z-0.125000
G01 X114.807230 Y152.159540 Z-0.125000
G01 X114.595480 Y152.327990 Z-0.125000
G01 X114.376500 Y152.486800 Z-0.125000
G01 X114.265820 Y152.700950 Z-0.125000
G01 X113.962630 Y152.797250 Z-0.125000
G01 X113.938530 Y153.059530 Z-0.125000
G01 X113.772500 Y153.232780 Z-0.125000
G01 X113.743600 Y153.499880 Z-0.125000
G01 X113.856690 Y153.880070 Z-0.125000
G01 X113.659370 Y154.036480 Z-0.125000
G01 X113.623270 Y154.322820 Z-0.125000
G01 X113.411530 Y154.467200 Z-0.125000
G01 X113.086680 Y154.505700 Z-0.125000
G01 X112.942300 Y154.700610 Z-0.125000
G01 X112.612640 Y154.712610 Z-0.125000
G01 X112.405700 Y154.837740 Z-0.125000
G01 X112.314300 Y155.080770 Z-0.125000
G01 X112.191580 Y155.299740 Z-0.125000
G01 X112.109680 Y155.571650 Z-0.125000
G01 X111.967710 Y155.781000 Z-0.125000
G01 X111.864240 Y156.045690 Z-0.125000
G01 X111.715060 Y156.259850 Z-0.125000
G01 X111.421490 Y156.271850 Z-0.125000
G01 X111.096640 Y156.221250 Z-0.125000
G01 X110.848800 Y156.274150 Z-0.125000
G01 X110.627410 Y156.360850 Z-0.125000
G01 X110.422880 Y156.478750 Z-0.125000
G01 X110.268880 Y156.688100 Z-0.125000
G01 X110.112470 Y156.909480 Z-0.125000
G01 X109.999380 Y157.236730 Z-0.125000
G01 X109.867030 Y157.551950 Z-0.125000
G01 X109.472400 Y157.248760 Z-0.125000
G01 X108.974300 Y156.611100 Z-0.125000
G01 X109.082590 Y157.592860 Z-0.125000
G01 X108.887670 Y157.785360 Z-0.125000
G01 X108.673510 Y157.932140 Z-0.125000
G01 X108.165790 Y157.022570 Z-0.125000
G01 X108.040670 Y157.450890 Z-0.125000
G01 X108.055170 Y158.596270 Z-0.125000
G01 X107.665350 Y157.958620 Z-0.125000
G01 X107.350130 Y157.568790 Z-0.125000
G01 X107.099870 Y157.482190 Z-0.125000
G01 X106.926620 Y157.949020 Z-0.125000
G01 X106.702840 Y158.105420 Z-0.125000
G01 X106.469430 Y158.230550 Z-0.125000
G01 X106.228800 Y158.321950 Z-0.125000
G01 X105.976140 Y158.208860 Z-0.125000
G01 X105.733110 Y158.192060 Z-0.125000
G01 X105.490070 Y158.153560 Z-0.125000
G01 X105.251850 Y158.086160 Z-0.125000
G01 X105.013630 Y158.047660 Z-0.125000
G01 X104.792250 Y157.823880 Z-0.125000
G01 X104.568470 Y157.701160 Z-0.125000
G01 X104.301370 Y157.944190 Z-0.125000
G01 X103.925990 Y158.796020 Z-0.125000
G01 X103.986190 Y157.020180 Z-0.125000
G01 X103.574710 Y157.934570 Z-0.125000
G01 X103.237840 Y158.317170 Z-0.125000
G01 X103.045340 Y158.062100 Z-0.125000
G01 X102.816730 Y157.968300 Z-0.125000
G01 X102.855230 Y157.000980 Z-0.125000
G01 X102.419700 Y157.607360 Z-0.125000
G01 X101.952890 Y158.199300 Z-0.125000
G01 X102.453390 Y156.192470 Z-0.125000
G01 X101.312810 Y158.408650 Z-0.125000
G01 X101.567880 Y157.171820 Z-0.125000
G01 X101.564880 Y156.615970 Z-0.125000
G01 X100.592750 Y158.066950 Z-0.125000
G01 X101.170250 Y156.404220 Z-0.125000
G01 X100.510930 Y157.126100 Z-0.125000
G01 X100.263080 Y157.061200 Z-0.125000
G01 X100.604780 Y156.040950 Z-0.125000
G01 X99.363133 Y157.537650 Z-0.125000
G01 X100.580720 Y155.290190 Z-0.125000
G01 X98.730282 Y157.503970 Z-0.125000
G01 X100.214960 Y155.083250 Z-0.125000
G01 X98.518530 Y156.887950 Z-0.125000
G01 X99.442541 Y155.357560 Z-0.125000
G01 X98.689376 Y155.879730 Z-0.125000
G01 X98.417467 Y155.814830 Z-0.125000
G01 X99.002192 Y154.842690 Z-0.125000
G01 X97.445330 Y156.086740 Z-0.125000
G01 X99.122506 Y154.116000 Z-0.125000
G01 X96.848574 Y155.906270 Z-0.125000
G01 X98.790439 Y153.853720 Z-0.125000
G01 X96.786010 Y155.246950 Z-0.125000
G01 X97.965086 Y153.971620 Z-0.125000
G01 X97.168608 Y154.291660 Z-0.125000
G01 X96.865417 Y154.209760 Z-0.125000
G01 X97.685958 Y153.343500 Z-0.125000
G01 X95.866812 Y154.267510 Z-0.125000
G01 X97.936211 Y152.667330 Z-0.125000
G01 X95.337430 Y153.957100 Z-0.125000
G01 X97.645051 Y152.352110 Z-0.125000
G01 X95.431276 Y153.288160 Z-0.125000
G01 X96.798041 Y152.306390 Z-0.125000
G01 X96.011189 Y152.429110 Z-0.125000
G01 X95.669497 Y152.313610 Z-0.125000
G01 X96.704197 Y151.610980 Z-0.125000
G01 X94.694955 Y152.159610 Z-0.125000
G01 X97.072357 Y151.007000 Z-0.125000
G01 X94.259418 Y151.740920 Z-0.125000
G01 X96.829323 Y150.646060 Z-0.125000
G01 X94.507265 Y151.100840 Z-0.125000
G01 X95.994345 Y150.431900 Z-0.125000
G01 X95.260430 Y150.376500 Z-0.125000
G01 X94.887456 Y150.208060 Z-0.125000
G01 X96.100220 Y149.719590 Z-0.125000
G01 X93.975478 Y149.856750 Z-0.125000
G01 X96.564632 Y149.204650 Z-0.125000
G01 X93.655443 Y149.356240 Z-0.125000
G01 X96.376942 Y148.805200 Z-0.125000
G01 X94.047666 Y148.776300 Z-0.125000
G01 X95.587684 Y148.427390 Z-0.125000
G01 X94.942801 Y148.220450 Z-0.125000
G01 X94.545765 Y147.982230 Z-0.125000
G01 X95.890875 Y147.748820 Z-0.125000
G01 X93.737256 Y147.452850 Z-0.125000
G01 X96.429881 Y147.337350 Z-0.125000
G01 X93.549566 Y146.899410 Z-0.125000
G01 X96.304754 Y146.906410 Z-0.125000
G01 X94.069322 Y146.413120 Z-0.125000
G01 X95.592496 Y146.374620 Z-0.125000
G01 X94.711799 Y145.989610 Z-0.125000
G01 X95.939001 Y145.975110 Z-0.125000
G01 X94.115041 Y145.349470 Z-0.125000
G01 X96.492444 Y145.652670 Z-0.125000
G01 X94.062104 Y144.788810 Z-0.125000
G01 X95.342243 Y144.880310 Z-0.125000
G01 X95.958250 Y144.820210 Z-0.125000
G01 X95.669497 Y144.483330 Z-0.125000
G01 X94.969270 Y143.978020 Z-0.125000
G01 X95.284493 Y143.826420 Z-0.125000
G01 X96.521319 Y144.071860 Z-0.125000
G01 X95.214711 Y143.253720 Z-0.125000
G01 X95.416838 Y143.066040 Z-0.125000
G01 X96.076158 Y143.111740 Z-0.125000
G01 X96.656071 Y143.145340 Z-0.125000
G01 X96.290316 Y142.685750 Z-0.125000
G01 X96.054502 Y142.271860 Z-0.125000
G01 X96.244597 Y142.101020 Z-0.125000
G01 X96.367318 Y141.886860 Z-0.125000
G01 X96.562226 Y141.720830 Z-0.125000
G01 X96.764353 Y141.566820 Z-0.125000
G01 X97.065139 Y141.487420 Z-0.125000
G01 X97.216734 Y141.306940 Z-0.125000
G01 X97.399610 Y141.148130 Z-0.125000
G01 X97.553613 Y140.970070 Z-0.125000
G01 X97.503083 Y140.611530 Z-0.125000
G01 X97.402020 Y140.185620 Z-0.125000
G01 X97.594522 Y140.026810 Z-0.125000
G01 X98.181654 Y140.269840 Z-0.125000
G01 X98.443938 Y140.204940 Z-0.125000
G01 X98.552221 Y139.978750 Z-0.125000
G01 X98.282717 Y139.305000 Z-0.125000
G01 X98.419876 Y139.078810 Z-0.125000
G01 X98.865037 Y139.240030 Z-0.125000
G01 X99.250041 Y139.350720 Z-0.125000
G01 X99.452168 Y139.227990 Z-0.125000
G01 X99.586920 Y139.013830 Z-0.125000
G01 X99.394418 Y138.287140 Z-0.125000
G01 X99.644671 Y138.214940 Z-0.125000
G01 X100.162020 Y138.597530 Z-0.125000
G01 X100.530190 Y138.768380 Z-0.125000
G01 X100.533190 Y138.287120 Z-0.125000
G01 X100.448990 Y137.594120 Z-0.125000
G01 X100.843620 Y137.832340 Z-0.125000
G01 X101.450010 Y138.580690 Z-0.125000
G01 X101.286380 Y137.632620 Z-0.125000
G01 X101.312880 Y137.043080 Z-0.125000
G01 X101.854290 Y137.755330 Z-0.125000
G01 X102.193570 Y138.008000 Z-0.125000
G01 X102.277770 Y137.538770 Z-0.125000
G01 X102.340370 Y136.927580 Z-0.125000
G01 X102.571370 Y136.826510 Z-0.125000
G01 X103.011720 Y137.533960 Z-0.125000
G01 X103.259570 Y137.582060 Z-0.125000
G01 X103.377480 Y137.026220 Z-0.125000
G01 X103.505020 Y136.395770 Z-0.125000
G01 X103.817830 Y136.735060 Z-0.125000
G01 X104.128240 Y137.177810 Z-0.125000
G01 X104.383310 Y137.317370 Z-0.125000
G01 X104.575800 Y136.944410 Z-0.125000
G01 X104.763500 Y136.268240 Z-0.125000
G01 X105.025780 Y136.431860 Z-0.125000
G01 X105.288060 Y136.857780 Z-0.125000
G01 X105.531100 Y137.250000 Z-0.125000
G01 X105.764500 Y136.954030 Z-0.125000
G01 X106.012360 Y136.554580 Z-0.125000
G01 X106.274640 Y136.200860 Z-0.125000
G01 X106.483990 Y136.800030 Z-0.125000
G01 X106.681300 Y137.250000 Z-0.125000
G01 X106.931550 Y137.093590 Z-0.125000
G01 X107.205870 Y136.824090 Z-0.125000
G01 X107.504240 Y136.482400 Z-0.125000
G01 X107.759310 Y136.467900 Z-0.125000
G01 X107.886850 Y137.091120 Z-0.125000
G01 X108.045650 Y137.454470 Z-0.125000
G01 X108.341630 Y137.218660 Z-0.125000
G01 X108.678510 Y136.881790 Z-0.125000
G01 X109.000950 Y136.655590 Z-0.125000
G01 X109.152550 Y137.004500 Z-0.125000
G01 X109.246450 Y137.483350 Z-0.125000
G01 X109.443750 Y137.630130 Z-0.125000
G01 X109.669940 Y137.692730 Z-0.125000
G01 X110.083830 Y137.310130 Z-0.125000
G01 X110.444770 Y137.105610 Z-0.125000
G01 X110.512170 Y137.555580 Z-0.125000
G01 X110.488070 Y138.149930 Z-0.125000
G01 X110.685380 Y138.275050 Z-0.125000
G01 X111.113700 Y137.974270 Z-0.125000
G01 X111.477050 Y137.829890 Z-0.125000
G01 X111.686400 Y137.959830 Z-0.125000
G01 X111.708000 Y138.385740 Z-0.125000
G01 X111.578060 Y139.013780 Z-0.125000
G01 X112.008780 Y138.790000 Z-0.125000
G01 X112.538170 Y138.467560 Z-0.125000
G01 X112.855800 Y138.462560 Z-0.125000
G01 X112.634420 Y139.138730 Z-0.125000
G01 X112.502070 Y139.670510 Z-0.125000
G01 X113.096420 Y139.331220 Z-0.125000
G01 X113.693180 Y139.032850 Z-0.125000
G01 X113.594480 Y139.504470 Z-0.125000
G01 X113.272040 Y140.180640 Z-0.125000
G01 X113.616140 Y140.163840 Z-0.125000
G01 X114.412610 Y139.745160 Z-0.125000
G01 X114.439110 Y140.060370 Z-0.125000
G01 X113.921760 Y140.827980 Z-0.125000
G01 X114.131110 Y140.955510 Z-0.125000
G01 X114.723050 Y140.784670 Z-0.125000
G01 X115.329430 Y140.633070 Z-0.125000
G01 X114.915560 Y141.244260 Z-0.125000
G01 X114.530550 Y141.797710 Z-0.125000
G01 X115.351090 Y141.533020 Z-0.125000
G01 X115.921380 Y141.465620 Z-0.125000
G01 X114.590710 Y142.553250 Z-0.125000
G01 X115.764970 Y142.139370 Z-0.125000
G01 X116.323230 Y142.115270 Z-0.125000
G01 X115.659100 Y142.743320 Z-0.125000
G01 X115.404030 Y143.130720 Z-0.125000
G01 X116.246220 Y142.991160 Z-0.125000
G01 X116.737100 Y143.044060 Z-0.125000
G01 X115.969500 Y143.633600 Z-0.125000
G01 X115.805880 Y143.948830 Z-0.125000
G01 X117.018640 Y143.751510 Z-0.125000
G01 X116.948840 Y144.042680 Z-0.125000
G01 X115.861210 Y144.646650 Z-0.125000
G01 X116.556630 Y144.677950 Z-0.125000
G01 X117.338650 Y144.711550 Z-0.125000
G01 X116.720250 Y145.125430 Z-0.125000
G01 X116.282310 Y145.469520 Z-0.125000
G01 X117.030660 Y145.548920 Z-0.125000
G01 X117.668310 Y145.678850 Z-0.125000
G01 X116.768380 Y146.080710 Z-0.125000
G01 X116.482030 Y146.357430 Z-0.125000
G01 X117.191880 Y146.504210 Z-0.125000
G01 X117.665910 Y146.699120 Z-0.125000
G01 X117.468600 Y146.966210 Z-0.125000
G01 X117.126900 Y147.233310 Z-0.125000
G01 X116.881470 Y147.481160 Z-0.125000
G01 X116.874470 Y147.714570 Z-0.125000
G01 X117.156010 Y147.947970 Z-0.125000
G01 X117.663730 Y148.203040 Z-0.125000
G01 X117.557860 Y148.446070 Z-0.125000
G01 X117.432730 Y148.686700 Z-0.125000
G01 X117.136750 Y148.905670 Z-0.125000
G01 X116.891320 Y149.117430 Z-0.125000
G01 X116.941920 Y149.360460 Z-0.125000
G01 X116.951920 Y149.601090 Z-0.125000
G01 X117.243080 Y149.892250 Z-0.125000
G01 X117.517400 Y150.193030 Z-0.125000
G01 X117.308050 Y150.402380 Z-0.125000
G01 X116.990420 Y150.580440 Z-0.125000
G01 X116.838820 Y150.789790 Z-0.125000
G01 X116.684830 Y150.994330 Z-0.125000
G01 X116.728130 Y151.254200 Z-0.125000
G01 X116.538030 Y151.441890 Z-0.125000
G01 X116.566930 Y151.701770 Z-0.125000
G01 X116.576930 Y151.961640 Z-0.125000
G01 X116.750180 Y152.288900 Z-0.125000
G01 X116.781480 Y152.568030 Z-0.125000
G01 X116.543260 Y152.734060 Z-0.125000
G01 X116.211190 Y152.847160 Z-0.125000
G01 X115.802130 Y152.912060 Z-0.125000
G01 X115.857530 Y153.203220 Z-0.125000
G01 X115.797330 Y153.439030 Z-0.125000
G01 X115.741930 Y153.682070 Z-0.125000
G01 X115.717830 Y153.946760 Z-0.125000
G01 X115.833330 Y154.305290 Z-0.125000
G01 X115.686540 Y154.502610 Z-0.125000
G01 X115.503670 Y154.675860 Z-0.125000
G01 X115.272670 Y154.810610 Z-0.125000
G01 X114.967070 Y154.885210 Z-0.125000
G01 X114.767350 Y155.029590 Z-0.125000
G01 X114.565230 Y155.169150 Z-0.125000
G01 X114.454530 Y155.385710 Z-0.125000
G01 X114.413630 Y155.664840 Z-0.125000
G01 X114.307750 Y155.893440 Z-0.125000
G01 X114.211550 Y156.136470 Z-0.125000
G01 X114.076800 Y156.343410 Z-0.125000
G01 X114.038300 Y156.656230 Z-0.125000
G01 X113.718260 Y156.670730 Z-0.125000
G01 X113.535380 Y156.834350 Z-0.125000
G01 X113.330860 Y156.964290 Z-0.125000
G01 X113.092630 Y157.055690 Z-0.125000
G01 X112.873660 Y157.166380 Z-0.125000
G01 X112.536780 Y157.113480 Z-0.125000
G01 X112.387590 Y157.305980 Z-0.125000
G01 X112.281710 Y157.570670 Z-0.125000
G01 X112.202310 Y157.885890 Z-0.125000
G01 X112.137410 Y158.237220 Z-0.125000
G01 X111.920850 Y158.359930 Z-0.125000
G01 X111.564720 Y158.232400 Z-0.125000
G01 X110.955930 Y157.618800 Z-0.125000
G01 X111.526220 Y159.211760 Z-0.125000
G01 X110.426550 Y157.558640 Z-0.125000
G01 X110.876530 Y159.038500 Z-0.125000
G01 X110.075230 Y157.840170 Z-0.125000
G01 X110.773050 Y160.080420 Z-0.125000
G01 X109.504940 Y157.599550 Z-0.125000
G01 X110.318270 Y160.393240 Z-0.125000
G01 X109.194540 Y157.984550 Z-0.125000
G01 X109.637290 Y160.044330 Z-0.125000
G01 X109.026100 Y158.915780 Z-0.125000
G01 X108.881720 Y159.267100 Z-0.125000
G01 X108.836020 Y160.032300 Z-0.125000
G01 X108.528020 Y159.834980 Z-0.125000
G01 X108.070820 Y158.898940 Z-0.125000
G01 X108.065820 Y160.049140 Z-0.125000
G01 X107.808350 Y160.015540 Z-0.125000
G01 X107.524410 Y159.811000 Z-0.125000
G01 X107.276560 Y159.784500 Z-0.125000
G01 X107.060000 Y160.008280 Z-0.125000
G01 X106.778460 Y159.644930 Z-0.125000
G01 X106.516180 Y159.317670 Z-0.125000
G01 X106.306830 Y159.717120 Z-0.125000
G01 X106.104700 Y160.696480 Z-0.125000
G01 X105.815950 Y158.535640 Z-0.125000
G01 X105.587360 Y161.081480 Z-0.125000
G01 X105.378010 Y159.014490 Z-0.125000
G01 X105.057970 Y161.139230 Z-0.125000
G01 X104.968970 Y158.432170 Z-0.125000
G01 X104.509380 Y161.302860 Z-0.125000
G01 X104.519380 Y158.658360 Z-0.125000
G01 X104.009240 Y160.975600 Z-0.125000
G01 X103.970740 Y159.423550 Z-0.125000
G01 X103.746960 Y159.353850 Z-0.125000
G01 X103.347520 Y160.222520 Z-0.125000
G01 X103.335520 Y159.057870 Z-0.125000
G01 X103.022710 Y159.401980 Z-0.125000
G01 X102.743580 Y159.543940 Z-0.125000
G01 X102.413920 Y159.849540 Z-0.125000
G01 X102.209390 Y159.666660 Z-0.125000
G01 X101.990420 Y159.553570 Z-0.125000
G01 X101.720920 Y159.587270 Z-0.125000
G01 X101.627120 Y159.122860 Z-0.125000
G01 X101.504400 Y158.781160 Z-0.125000
G01 X101.181960 Y158.959240 Z-0.125000
G01 X100.936520 Y158.935140 Z-0.125000
G01 X100.693490 Y158.889440 Z-0.125000
G01 X100.123200 Y159.536730 Z-0.125000
G01 X100.667010 Y157.873980 Z-0.125000
G01 X99.639530 Y159.356260 Z-0.125000
G01 X99.952347 Y158.256580 Z-0.125000
G01 X99.680438 Y158.261580 Z-0.125000
G01 X99.021117 Y158.894440 Z-0.125000
G01 X99.745407 Y157.265390 Z-0.125000
G01 X98.210201 Y159.202440 Z-0.125000
G01 X99.588999 Y156.719160 Z-0.125000
G01 X97.743384 Y158.937750 Z-0.125000
G01 X99.049992 Y156.736010 Z-0.125000
G01 X97.690445 Y158.129240 Z-0.125000
G01 X98.154857 Y157.149890 Z-0.125000
G01 X97.926261 Y157.055990 Z-0.125000
G01 X97.127376 Y157.609430 Z-0.125000
G01 X98.162076 Y156.095880 Z-0.125000
G01 X96.285179 Y157.758620 Z-0.125000
G01 X98.089888 Y155.547250 Z-0.125000
G01 X95.888143 Y157.397680 Z-0.125000
G01 X97.538850 Y155.482290 Z-0.125000
G01 X95.994019 Y156.581950 Z-0.125000
G01 X96.576339 Y155.739760 Z-0.125000
G01 X96.419930 Y155.564090 Z-0.125000
G01 X95.486295 Y156.009260 Z-0.125000
G01 X96.809747 Y154.668960 Z-0.125000
G01 X94.646504 Y155.994820 Z-0.125000
G01 X96.819373 Y154.127550 Z-0.125000
G01 X94.336094 Y155.556880 Z-0.125000
G01 X96.270742 Y153.980770 Z-0.125000
G01 X94.598379 Y154.765210 Z-0.125000
G01 X95.267323 Y154.069800 Z-0.125000
G01 X95.197543 Y153.836390 Z-0.125000
G01 X94.148407 Y154.139580 Z-0.125000
G01 X95.731737 Y153.030280 Z-0.125000
G01 X93.339897 Y153.971140 Z-0.125000
G01 X95.815957 Y152.508130 Z-0.125000
G01 X93.132957 Y153.477860 Z-0.125000
G01 X95.281763 Y152.274710 Z-0.125000
G01 X93.544431 Y152.736720 Z-0.125000
G01 X94.266314 Y152.190500 Z-0.125000
G01 X94.302414 Y151.925800 Z-0.125000
G01 X93.159432 Y152.062970 Z-0.125000
G01 X94.954515 Y151.230390 Z-0.125000
G01 X92.406267 Y151.747740 Z-0.125000
G01 X95.108517 Y150.737100 Z-0.125000
G01 X92.310016 Y151.220770 Z-0.125000
G01 X94.600792 Y150.419470 Z-0.125000
G01 X92.863460 Y150.559040 Z-0.125000
G01 X93.606999 Y150.159590 Z-0.125000
G01 X93.751376 Y149.894910 Z-0.125000
G01 X92.543425 Y149.839610 Z-0.125000
G01 X94.504541 Y149.324670 Z-0.125000
G01 X91.876886 Y149.396870 Z-0.125000
G01 X94.718700 Y148.869900 Z-0.125000
G01 X91.896136 Y148.859900 Z-0.125000
G01 X94.254288 Y148.467680 Z-0.125000
G01 X92.569894 Y148.304050 Z-0.125000
G01 X93.311028 Y148.039360 Z-0.125000
G01 X93.561281 Y147.803540 Z-0.125000
G01 X92.322047 Y147.538850 Z-0.125000
G01 X94.389040 Y147.372820 Z-0.125000
G01 X91.761384 Y146.990220 Z-0.125000
G01 X94.656137 Y146.958920 Z-0.125000
G01 X91.896136 Y146.465630 Z-0.125000
G01 X94.249476 Y146.482430 Z-0.125000
G01 X92.670957 Y146.037270 Z-0.125000
G01 X93.383216 Y145.895300 Z-0.125000
G01 X93.736938 Y145.717240 Z-0.125000
G01 X92.502518 Y145.233570 Z-0.125000
G01 X93.496311 Y145.187870 Z-0.125000
G01 X94.056973 Y145.077180 Z-0.125000
G01 X93.715282 Y144.749930 Z-0.125000
G01 X93.262902 Y144.379370 Z-0.125000
G01 X93.183492 Y144.095420 Z-0.125000
G01 X94.321661 Y144.201300 Z-0.125000
G01 X94.109908 Y143.888480 Z-0.125000
G01 X93.144991 Y143.286910 Z-0.125000
G01 X94.153221 Y143.404820 Z-0.125000
G01 X94.487694 Y143.286910 Z-0.125000
G01 X93.154616 Y142.456750 Z-0.125000
G01 X93.943875 Y142.531350 Z-0.125000
G01 X94.851042 Y142.692570 Z-0.125000
G01 X94.641696 Y142.331630 Z-0.125000
G01 X94.035314 Y141.746900 Z-0.125000
G01 X94.848636 Y141.908120 Z-0.125000
G01 X95.288985 Y141.891320 Z-0.125000
G01 X94.680196 Y141.258470 Z-0.125000
G01 X94.531007 Y140.878270 Z-0.125000
G01 X94.872699 Y140.801270 Z-0.125000
G01 X95.183108 Y140.717070 Z-0.125000
G01 X95.493519 Y140.642470 Z-0.125000
G01 X95.770240 Y140.551070 Z-0.125000
G01 X95.789490 Y140.269540 Z-0.125000
G01 X95.462237 Y139.706460 Z-0.125000
G01 X95.637895 Y139.530810 Z-0.125000
G01 X96.003649 Y139.518810 Z-0.125000
G01 X96.470467 Y139.612710 Z-0.125000
G01 X96.622062 Y139.434640 Z-0.125000
G01 X96.665372 Y139.150710 Z-0.125000
G01 X96.417527 Y138.563570 Z-0.125000
G01 X96.549871 Y138.344600 Z-0.125000
G01 X97.110535 Y138.582820 Z-0.125000
G01 X97.671197 Y138.857130 Z-0.125000
G01 X97.399288 Y138.185790 Z-0.125000
G01 X97.327108 Y137.721370 Z-0.125000
G01 X97.529236 Y137.574600 Z-0.125000
G01 X98.101929 Y137.918690 Z-0.125000
G01 X98.446027 Y137.993290 Z-0.125000
G01 X98.446027 Y137.591450 Z-0.125000
G01 X98.405117 Y137.107780 Z-0.125000
G01 X98.414717 Y136.669840 Z-0.125000
G01 X98.847847 Y136.893620 Z-0.125000
G01 X99.252101 Y137.098160 Z-0.125000
G01 X99.572136 Y137.182360 Z-0.125000
G01 X99.478296 Y136.527850 Z-0.125000
G01 X99.463866 Y135.969590 Z-0.125000
G01 X99.990840 Y136.465290 Z-0.125000
G01 X100.416750 Y136.804580 Z-0.125000
G01 X100.452850 Y136.328130 Z-0.125000
G01 X100.390250 Y135.577370 Z-0.125000
G01 X100.695850 Y135.663970 Z-0.125000
G01 X101.119350 Y136.073040 Z-0.125000
G01 X101.480300 Y136.373820 Z-0.125000
G01 X101.458600 Y135.599010 Z-0.125000
G01 X101.540500 Y135.062410 Z-0.125000
G01 X101.918280 Y135.447410 Z-0.125000
G01 X102.259970 Y135.760230 Z-0.125000
G01 X102.524660 Y135.844430 Z-0.125000
G01 X102.632950 Y135.295800 Z-0.125000
G01 X102.746040 Y134.696640 Z-0.125000
G01 X103.109390 Y135.218800 Z-0.125000
G01 X103.448670 Y135.740960 Z-0.125000
G01 X103.597870 Y135.221210 Z-0.125000
G01 X103.756680 Y134.646110 Z-0.125000
G01 X104.127240 Y135.603810 Z-0.125000
G01 X104.206640 Y134.169660 Z-0.125000
G01 X104.632550 Y136.092280 Z-0.125000
G01 X104.704750 Y133.931440 Z-0.125000
G01 X105.051250 Y135.663960 Z-0.125000
G01 X105.248570 Y134.665350 Z-0.125000
G01 X105.498830 Y135.074420 Z-0.125000
G01 X105.737040 Y135.110520 Z-0.125000
G01 X105.996920 Y134.241860 Z-0.125000
G01 X106.174990 Y135.950310 Z-0.125000
G01 X106.523900 Y133.917010 Z-0.125000
G01 X106.615300 Y136.015280 Z-0.125000
G01 X107.005120 Y134.323660 Z-0.125000
G01 X107.212060 Y134.723100 Z-0.125000
G01 X107.344410 Y135.572520 Z-0.125000
G01 X107.801600 Y134.119130 Z-0.125000
G01 X107.777500 Y135.765030 Z-0.125000
G01 X108.059030 Y135.500340 Z-0.125000
G01 X108.482540 Y134.634080 Z-0.125000
G01 X108.699100 Y134.814540 Z-0.125000
G01 X108.715900 Y135.755400 Z-0.125000
G01 X108.966150 Y135.721800 Z-0.125000
G01 X109.331910 Y135.291080 Z-0.125000
G01 X109.651940 Y135.084150 Z-0.125000
G01 X109.882940 Y135.173150 Z-0.125000
G01 X110.036950 Y135.476350 Z-0.125000
G01 X110.154850 Y135.854130 Z-0.125000
G01 X110.328100 Y136.058670 Z-0.125000
G01 X110.590390 Y136.039370 Z-0.125000
G01 X111.040370 Y135.601420 Z-0.125000
G01 X111.331520 Y135.555720 Z-0.125000
G01 X111.172710 Y136.458070 Z-0.125000
G01 X111.324310 Y136.679460 Z-0.125000
G01 X112.038970 Y135.820410 Z-0.125000
G01 X112.183350 Y136.077880 Z-0.125000
G01 X111.904220 Y137.057240 Z-0.125000
G01 X112.224250 Y136.968240 Z-0.125000
G01 X112.804160 Y136.486980 Z-0.125000
G01 X113.124200 Y136.446080 Z-0.125000
G01 X113.042300 Y137.013960 Z-0.125000
G01 X112.885890 Y137.651620 Z-0.125000
G01 X113.398430 Y137.343620 Z-0.125000
G01 X114.069780 Y136.857550 Z-0.125000
G01 X113.571680 Y137.892250 Z-0.125000
G01 X113.655880 Y138.159340 Z-0.125000
G01 X114.502900 Y137.519270 Z-0.125000
G01 X114.693000 Y137.682900 Z-0.125000
G01 X114.449960 Y138.315750 Z-0.125000
G01 X114.327240 Y138.787390 Z-0.125000
G01 X114.890310 Y138.544350 Z-0.125000
G01 X115.068370 Y138.705570 Z-0.125000
G01 X115.641070 Y138.496220 Z-0.125000
G01 X115.554470 Y138.912510 Z-0.125000
G01 X115.419720 Y139.355260 Z-0.125000
G01 X115.409720 Y139.668080 Z-0.125000
G01 X116.119580 Y139.393770 Z-0.125000
G01 X116.504580 Y139.405770 Z-0.125000
G01 X116.064240 Y140.048250 Z-0.125000
G01 X115.869320 Y140.481380 Z-0.125000
G01 X116.552710 Y140.286480 Z-0.125000
G01 X117.161490 Y140.168570 Z-0.125000
G01 X116.906420 Y140.632980 Z-0.125000
G01 X116.336140 Y141.270650 Z-0.125000
G01 X116.848670 Y141.232150 Z-0.125000
G01 X117.423780 Y141.176850 Z-0.125000
G01 X117.758250 Y141.275550 Z-0.125000
G01 X117.248120 Y141.824180 Z-0.125000
G01 X117.084490 Y142.170690 Z-0.125000
G01 X117.570550 Y142.194790 Z-0.125000
G01 X118.328530 Y142.112890 Z-0.125000
G01 X118.104750 Y142.483450 Z-0.125000
G01 X117.674030 Y142.928610 Z-0.125000
G01 X117.556120 Y143.226990 Z-0.125000
G01 X117.984440 Y143.313690 Z-0.125000
G01 X118.460880 Y143.400290 Z-0.125000
G01 X118.521080 Y143.638520 Z-0.125000
G01 X118.713570 Y143.835820 Z-0.125000
G01 X118.475360 Y144.160670 Z-0.125000
G01 X118.263600 Y144.468680 Z-0.125000
G01 X118.196200 Y144.728560 Z-0.125000
G01 X118.571580 Y144.880160 Z-0.125000
G01 X118.776110 Y145.082280 Z-0.125000
G01 X119.274210 Y145.231470 Z-0.125000
G01 X118.980640 Y145.537070 Z-0.125000
G01 X118.472920 Y145.864320 Z-0.125000
G01 X118.451220 Y146.102540 Z-0.125000
G01 X118.898790 Y146.283020 Z-0.125000
G01 X119.565330 Y146.456270 Z-0.125000
G01 X119.240480 Y146.735390 Z-0.125000
G01 X118.699070 Y147.016930 Z-0.125000
G01 X118.511380 Y147.262370 Z-0.125000
G01 X119.137010 Y147.474120 Z-0.125000
G01 X119.497960 Y147.712340 Z-0.125000
G01 X119.380050 Y147.960190 Z-0.125000
G01 X118.963760 Y148.196000 Z-0.125000
G01 X118.785700 Y148.427000 Z-0.125000
G01 X118.694300 Y148.658010 Z-0.125000
G01 X118.920490 Y148.910670 Z-0.125000
G01 X119.262170 Y149.184980 Z-0.125000
G01 X119.303070 Y149.435240 Z-0.125000
G01 X119.262170 Y149.678270 Z-0.125000
G01 X118.826640 Y149.861150 Z-0.125000
G01 X118.412770 Y150.031990 Z-0.125000
G01 X118.629330 Y150.308710 Z-0.125000
G01 X118.901240 Y150.604690 Z-0.125000
G01 X118.995040 Y150.874190 Z-0.125000
G01 X118.961340 Y151.117220 Z-0.125000
G01 X118.752000 Y151.314540 Z-0.125000
G01 X118.841000 Y151.591260 Z-0.125000
G01 X118.667750 Y151.795800 Z-0.125000
G01 X118.504130 Y151.997920 Z-0.125000
G01 X118.398250 Y152.214480 Z-0.125000
G01 X118.200930 Y152.399770 Z-0.125000
G01 X118.229830 Y152.664470 Z-0.125000
G01 X118.143130 Y152.888250 Z-0.125000
G01 X117.957850 Y153.071120 Z-0.125000
G01 X117.823100 Y153.270850 Z-0.125000
G01 X117.866400 Y153.552380 Z-0.125000
G01 X117.743680 Y153.759320 Z-0.125000
G01 X117.717180 Y154.014390 Z-0.125000
G01 X117.618480 Y154.233360 Z-0.125000
G01 X117.611480 Y154.505270 Z-0.125000
G01 X117.491170 Y154.717020 Z-0.125000
G01 X117.580170 Y155.053900 Z-0.125000
G01 X117.286600 Y155.159770 Z-0.125000
G01 X116.985820 Y155.255970 Z-0.125000
G01 X116.673000 Y155.332970 Z-0.125000
G01 X116.511780 Y155.508630 Z-0.125000
G01 X116.454080 Y155.756470 Z-0.125000
G01 X116.459080 Y156.059670 Z-0.125000
G01 X116.434980 Y156.346010 Z-0.125000
G01 X116.382080 Y156.615510 Z-0.125000
G01 X116.237710 Y156.812830 Z-0.125000
G01 X116.016330 Y156.945170 Z-0.125000
G01 X115.799770 Y157.077520 Z-0.125000
G01 X115.575980 Y157.197840 Z-0.125000
G01 X115.133220 Y157.103940 Z-0.125000
G01 X115.008100 Y157.310880 Z-0.125000
G01 X114.988800 Y157.628510 Z-0.125000
G01 X115.169270 Y158.177140 Z-0.125000
G01 X115.017670 Y158.376860 Z-0.125000
G01 X114.069600 Y157.654970 Z-0.125000
G01 X114.750570 Y158.834050 Z-0.125000
G01 X114.103290 Y158.427400 Z-0.125000
G01 X113.771220 Y158.386500 Z-0.125000
G01 X114.317440 Y159.512640 Z-0.125000
G01 X112.919400 Y157.999090 Z-0.125000
G01 X114.238040 Y160.297080 Z-0.125000
G01 X112.421300 Y158.042400 Z-0.125000
G01 X113.749570 Y160.518470 Z-0.125000
G01 X112.293770 Y158.656000 Z-0.125000
G01 X112.933840 Y160.179170 Z-0.125000
G01 X112.370770 Y159.695510 Z-0.125000
G01 X112.019450 Y159.546330 Z-0.125000
G01 X112.406860 Y160.795190 Z-0.125000
G01 X111.244630 Y159.038600 Z-0.125000
G01 X112.195110 Y161.541120 Z-0.125000
G01 X110.756160 Y159.024160 Z-0.125000
G01 X111.668130 Y161.661450 Z-0.125000
G01 X110.479440 Y159.478950 Z-0.125000
G01 X110.842780 Y161.002120 Z-0.125000
G01 X110.674340 Y161.254780 Z-0.125000
G01 X109.993370 Y160.087740 Z-0.125000
G01 X110.284530 Y161.666260 Z-0.125000
G01 X109.767170 Y160.876990 Z-0.125000
G01 X109.408640 Y160.504020 Z-0.125000
G01 X109.610770 Y162.099390 Z-0.125000
G01 X108.828730 Y160.106990 Z-0.125000
G01 X109.175230 Y162.491610 Z-0.125000
G01 X108.631410 Y161.254780 Z-0.125000
G01 X108.540010 Y162.003130 Z-0.125000
G01 X107.986560 Y160.398140 Z-0.125000
G01 X108.164630 Y162.804430 Z-0.125000
G01 X107.488460 Y160.068480 Z-0.125000
G01 X107.652080 Y162.960840 Z-0.125000
G01 X107.233400 Y161.627750 Z-0.125000
G01 X106.956670 Y161.276440 Z-0.125000
G01 X106.723260 Y161.283440 Z-0.125000
G01 X106.506700 Y161.591450 Z-0.125000
G01 X106.297350 Y162.255580 Z-0.125000
G01 X106.039880 Y162.000510 Z-0.125000
G01 X105.789630 Y161.738230 Z-0.125000
G01 X105.553810 Y161.293060 Z-0.125000
G01 X105.272270 Y163.165150 Z-0.125000
G01 X105.130310 Y160.263180 Z-0.125000
G01 X104.750120 Y162.989500 Z-0.125000
G01 X104.661120 Y160.742030 Z-0.125000
G01 X104.297770 Y162.193020 Z-0.125000
G01 X104.107680 Y161.654010 Z-0.125000
G01 X103.932020 Y161.141470 Z-0.125000
G01 X103.489260 Y162.546740 Z-0.125000
G01 X103.388200 Y161.584230 Z-0.125000
G01 X103.265470 Y160.929720 Z-0.125000
G01 X102.716840 Y162.481770 Z-0.125000
G01 X102.935820 Y160.284840 Z-0.125000
G01 X102.158590 Y162.602080 Z-0.125000
G01 X102.425690 Y160.506220 Z-0.125000
G01 X101.865020 Y161.694920 Z-0.125000
G01 X101.713430 Y161.329160 Z-0.125000
G01 X101.686930 Y160.597650 Z-0.125000
G01 X101.099800 Y161.641980 Z-0.125000
G01 X101.116600 Y160.833470 Z-0.125000
G01 X101.015530 Y160.421990 Z-0.125000
G01 X100.233490 Y161.793580 Z-0.125000
G01 X100.308090 Y160.936940 Z-0.125000
G01 X100.180560 Y160.612090 Z-0.125000
G01 X100.050620 Y160.323330 Z-0.125000
G01 X99.841280 Y160.215050 Z-0.125000
G01 X99.494776 Y160.385900 Z-0.125000
G01 X98.955770 Y160.908060 Z-0.125000
G01 X99.162709 Y159.988860 Z-0.125000
G01 X99.001489 Y159.789150 Z-0.125000
G01 X98.801768 Y159.666420 Z-0.125000
G01 X98.089510 Y160.393120 Z-0.125000
G01 X98.067860 Y159.952770 Z-0.125000
G01 X98.250737 Y159.226070 Z-0.125000
G01 X97.974015 Y159.219070 Z-0.125000
G01 X97.129411 Y160.010720 Z-0.125000
G01 X97.803170 Y158.653580 Z-0.125000
G01 X96.946535 Y159.406750 Z-0.125000
G01 X97.613074 Y158.153080 Z-0.125000
G01 X96.116368 Y159.644970 Z-0.125000
G01 X97.533666 Y157.551510 Z-0.125000
G01 X95.478705 Y159.587220 Z-0.125000
G01 X97.167912 Y157.313290 Z-0.125000
G01 X95.348766 Y158.947160 Z-0.125000
G01 X96.361809 Y157.522630 Z-0.125000
G01 X95.606238 Y157.953360 Z-0.125000
G01 X95.305453 Y157.907660 Z-0.125000
G01 X95.981617 Y156.937930 Z-0.125000
G01 X94.335723 Y158.119410 Z-0.125000
G01 X96.118775 Y156.213630 Z-0.125000
G01 X93.770248 Y157.914870 Z-0.125000
G01 X95.777083 Y155.934500 Z-0.125000
G01 X93.755810 Y157.250740 Z-0.125000
G01 X94.934886 Y156.028350 Z-0.125000
G01 X94.172096 Y156.302670 Z-0.125000
G01 X93.830405 Y156.247270 Z-0.125000
G01 X94.694258 Y155.359360 Z-0.125000
G01 X92.848643 Y156.302620 Z-0.125000
G01 X94.925261 Y154.675970 Z-0.125000
G01 X92.340918 Y155.999430 Z-0.125000
G01 X94.610039 Y154.360750 Z-0.125000
G01 X92.444389 Y155.332880 Z-0.125000
G01 X93.748591 Y154.331880 Z-0.125000
G01 X93.009864 Y154.454600 Z-0.125000
G01 X92.622453 Y154.377600 Z-0.125000
G01 X93.664371 Y153.605190 Z-0.125000
G01 X91.655130 Y154.276530 Z-0.125000
G01 X93.982000 Y152.974740 Z-0.125000
G01 X91.219593 Y153.891530 Z-0.125000
G01 X93.695653 Y152.623430 Z-0.125000
G01 X91.443377 Y153.239430 Z-0.125000
G01 X92.834206 Y152.467020 Z-0.125000
G01 X92.146010 Y152.457020 Z-0.125000
G01 X91.710474 Y152.341520 Z-0.125000
G01 X92.913612 Y151.720700 Z-0.125000
G01 X90.786463 Y152.088860 Z-0.125000
G01 X93.305836 Y151.150420 Z-0.125000
G01 X90.435146 Y151.636480 Z-0.125000
G01 X93.055583 Y150.763000 Z-0.125000
G01 X90.774432 Y151.022880 Z-0.125000
G01 X92.210979 Y150.481460 Z-0.125000
G01 X91.594973 Y150.356340 Z-0.125000
G01 X91.120936 Y150.187900 Z-0.125000
G01 X92.461233 Y149.745150 Z-0.125000
G01 X90.257081 Y149.793250 Z-0.125000
G01 X92.913612 Y149.244610 Z-0.125000
G01 X89.999610 Y149.292710 Z-0.125000
G01 X92.701860 Y148.825890 Z-0.125000
G01 X90.449584 Y148.734490 Z-0.125000
G01 X91.895757 Y148.419270 Z-0.125000
G01 X91.368782 Y148.200290 Z-0.125000
G01 X90.861058 Y147.962080 Z-0.125000
G01 X92.309637 Y147.728670 Z-0.125000
G01 X90.081424 Y147.444720 Z-0.125000
G01 X92.814955 Y147.302760 Z-0.125000
G01 X89.927422 Y146.908120 Z-0.125000
G01 X92.646516 Y146.855220 Z-0.125000
G01 X90.473646 Y146.429310 Z-0.125000
G01 X91.895757 Y146.330610 Z-0.125000
G01 X91.472252 Y146.041850 Z-0.125000
G01 X90.942871 Y145.721820 Z-0.125000
G01 X92.466045 Y145.716820 Z-0.125000
G01 X90.264301 Y145.091180 Z-0.125000
G01 X93.009864 Y145.365490 Z-0.125000
G01 X90.213768 Y144.544950 Z-0.125000
G01 X92.887143 Y144.893860 Z-0.125000
G01 X90.846620 Y144.157550 Z-0.125000
G01 X92.210979 Y144.258610 Z-0.125000
G01 X91.898164 Y143.926550 Z-0.125000
G01 X91.361563 Y143.512660 Z-0.125000
G01 X91.385633 Y143.257590 Z-0.125000
G01 X92.456427 Y143.356290 Z-0.125000
G01 X92.608023 Y143.163790 Z-0.125000
G01 X91.330289 Y142.432280 Z-0.125000
G01 X93.645128 Y143.077170 Z-0.125000
G01 X91.368789 Y141.893280 Z-0.125000
G01 X92.143611 Y141.950980 Z-0.125000
G01 X92.853463 Y142.003880 Z-0.125000
G01 X93.118153 Y141.869140 Z-0.125000
G01 X92.377020 Y141.241100 Z-0.125000
G01 X92.381820 Y140.964370 Z-0.125000
G01 X93.301019 Y141.178530 Z-0.125000
G01 X93.236049 Y140.872930 Z-0.125000
G01 X93.491114 Y140.747810 Z-0.125000
G01 X93.418934 Y140.427770 Z-0.125000
G01 X93.380434 Y140.122170 Z-0.125000
G01 X93.317874 Y139.792510 Z-0.125000
G01 X93.368404 Y139.530230 Z-0.125000
G01 X93.736564 Y139.486930 Z-0.125000
G01 X94.157663 Y139.493930 Z-0.125000
G01 X94.465667 Y139.431330 Z-0.125000
G01 X94.249102 Y138.966910 Z-0.125000
G01 X94.008473 Y138.461600 Z-0.125000
G01 X94.263539 Y138.350910 Z-0.125000
G01 X95.072049 Y138.723880 Z-0.125000
G01 X95.132209 Y138.466410 Z-0.125000
G01 X95.110559 Y138.127130 Z-0.125000
G01 X94.853088 Y137.554430 Z-0.125000
G01 X95.052809 Y137.402830 Z-0.125000
G01 X95.428188 Y137.434130 Z-0.125000
G01 X95.955163 Y137.636260 Z-0.125000
G01 X96.101945 Y137.450970 Z-0.125000
G01 X95.964788 Y136.945650 Z-0.125000
G01 X95.851693 Y136.440340 Z-0.125000
G01 X96.316105 Y136.611180 Z-0.125000
G01 X96.883986 Y136.931220 Z-0.125000
G01 X96.920086 Y136.601560 Z-0.125000
G01 X96.563957 Y135.732890 Z-0.125000
G01 X96.886398 Y135.749690 Z-0.125000
G01 X97.358028 Y135.992720 Z-0.125000
G01 X97.735814 Y136.125070 Z-0.125000
G01 X97.882597 Y135.922940 Z-0.125000
G01 X97.800777 Y135.352660 Z-0.125000
G01 X97.817617 Y134.907490 Z-0.125000
G01 X98.645376 Y135.833920 Z-0.125000
G01 X98.171340 Y134.520080 Z-0.125000
G01 X99.292665 Y136.062510 Z-0.125000
G01 X98.279623 Y133.632170 Z-0.125000
G01 X99.800390 Y136.093790 Z-0.125000
G01 X98.784941 Y133.463730 Z-0.125000
G01 X100.009740 Y135.511480 Z-0.125000
G01 X99.545325 Y133.894460 Z-0.125000
G01 X100.060270 Y134.474360 Z-0.125000
G01 X100.380310 Y134.630770 Z-0.125000
G01 X100.151710 Y133.374700 Z-0.125000
G01 X101.094970 Y135.229930 Z-0.125000
G01 X100.442870 Y132.650410 Z-0.125000
G01 X101.585850 Y135.314160 Z-0.125000
G01 X100.974660 Y132.580620 Z-0.125000
G01 X101.872200 Y134.748680 Z-0.125000
G01 X101.667670 Y133.131670 Z-0.125000
G01 X102.074320 Y133.721200 Z-0.125000
G01 X102.382330 Y133.985890 Z-0.125000
G01 X102.329430 Y132.652820 Z-0.125000
G01 X102.998370 Y134.671680 Z-0.125000
G01 X102.728870 Y131.998310 Z-0.125000
G01 X103.467600 Y134.804030 Z-0.125000
G01 X103.265470 Y132.029590 Z-0.125000
G01 X103.833360 Y134.267430 Z-0.125000
G01 X103.871860 Y132.693720 Z-0.125000
G01 X104.182260 Y133.273630 Z-0.125000
G01 X104.454170 Y133.644200 Z-0.125000
G01 X104.593740 Y132.260590 Z-0.125000
G01 X104.959490 Y134.399770 Z-0.125000
G01 X105.084620 Y131.690300 Z-0.125000
G01 X105.404650 Y134.577830 Z-0.125000
G01 X105.611590 Y131.822640 Z-0.125000
G01 X105.845000 Y134.079740 Z-0.125000
G01 X106.114500 Y132.583030 Z-0.125000
G01 X106.338290 Y133.136480 Z-0.125000
G01 X106.550040 Y133.608100 Z-0.125000
G01 X106.891730 Y132.202840 Z-0.125000
G01 X106.939830 Y134.414210 Z-0.125000
G01 X107.459590 Y131.731210 Z-0.125000
G01 X107.356120 Y134.635580 Z-0.125000
G01 X107.960090 Y131.959810 Z-0.125000
G01 X107.866290 Y134.188020 Z-0.125000
G01 X108.342730 Y132.799590 Z-0.125000
G01 X108.494330 Y133.319350 Z-0.125000
G01 X108.621860 Y133.877610 Z-0.125000
G01 X109.180120 Y132.484380 Z-0.125000
G01 X108.893770 Y134.719810 Z-0.125000
G01 X109.805740 Y132.118620 Z-0.125000
G01 X109.278780 Y134.974880 Z-0.125000
G01 X110.260540 Y132.441060 Z-0.125000
G01 X109.856280 Y134.589870 Z-0.125000
G01 X110.510790 Y133.341010 Z-0.125000
G01 X110.606990 Y133.815040 Z-0.125000
G01 X110.631090 Y134.447900 Z-0.125000
G01 X111.403510 Y133.095570 Z-0.125000
G01 X110.780280 Y135.304530 Z-0.125000
G01 X112.067640 Y132.845310 Z-0.125000
G01 X111.134010 Y135.593280 Z-0.125000
G01 X112.462270 Y133.249570 Z-0.125000
G01 X111.769260 Y135.278060 Z-0.125000
G01 X112.572950 Y134.188020 Z-0.125000
G01 X112.628350 Y134.613930 Z-0.125000
G01 X112.529650 Y135.299720 Z-0.125000
G01 X113.518630 Y134.026800 Z-0.125000
G01 X112.560940 Y136.156350 Z-0.125000
G01 X114.202020 Y133.892050 Z-0.125000
G01 X112.880970 Y136.473980 Z-0.125000
G01 X114.522050 Y134.368490 Z-0.125000
G01 X113.566760 Y136.238170 Z-0.125000
G01 X114.485960 Y135.323780 Z-0.125000
G01 X114.488960 Y135.740070 Z-0.125000
G01 X115.035180 Y135.415220 Z-0.125000
G01 X114.231480 Y136.858980 Z-0.125000
G01 X115.530870 Y135.600500 Z-0.125000
G01 X115.256560 Y136.327200 Z-0.125000
G01 X115.032780 Y136.957640 Z-0.125000
G01 X116.170940 Y136.024010 Z-0.125000
G01 X115.930320 Y136.664080 Z-0.125000
G01 X115.759470 Y137.200680 Z-0.125000
G01 X115.771470 Y137.523120 Z-0.125000
G01 X116.628100 Y137.003360 Z-0.125000
G01 X116.832630 Y137.150150 Z-0.125000
G01 X116.380250 Y137.908130 Z-0.125000
G01 X116.442850 Y138.168010 Z-0.125000
G01 X116.912080 Y138.069310 Z-0.125000
G01 X117.366860 Y137.999510 Z-0.125000
G01 X117.662840 Y138.074110 Z-0.125000
G01 X117.431840 Y138.572210 Z-0.125000
G01 X117.208040 Y139.046250 Z-0.125000
G01 X117.496800 Y139.120850 Z-0.125000
G01 X118.093560 Y138.986100 Z-0.125000
G01 X118.444870 Y139.039000 Z-0.125000
G01 X118.312530 Y139.426410 Z-0.125000
G01 X118.079120 Y139.866750 Z-0.125000
G01 X118.052620 Y140.162730 Z-0.125000
G01 X118.548310 Y140.136230 Z-0.125000
G01 X119.116200 Y140.085630 Z-0.125000
G01 X119.096900 Y140.379190 Z-0.125000
G01 X118.822590 Y140.807510 Z-0.125000
G01 X118.632490 Y141.173260 Z-0.125000
G01 X118.978990 Y141.259960 Z-0.125000
G01 X119.481910 Y141.284060 Z-0.125000
G01 X119.751410 Y141.430850 Z-0.125000
G01 X119.582970 Y141.772530 Z-0.125000
G01 X119.197960 Y142.198450 Z-0.125000
G01 X119.335120 Y142.393350 Z-0.125000
G01 X119.948720 Y142.412650 Z-0.125000
G01 X120.263940 Y142.554610 Z-0.125000
G01 X120.126790 Y142.865020 Z-0.125000
G01 X119.765840 Y143.240400 Z-0.125000
G01 X119.664780 Y143.519530 Z-0.125000
G01 X120.119570 Y143.627810 Z-0.125000
G01 X120.757230 Y143.700010 Z-0.125000
G01 X120.648940 Y143.986350 Z-0.125000
G01 X120.206190 Y144.347300 Z-0.125000
G01 X119.963160 Y144.645680 Z-0.125000
G01 X120.408320 Y144.790050 Z-0.125000
G01 X120.781300 Y144.960890 Z-0.125000
G01 X121.086890 Y145.155810 Z-0.125000
G01 X120.490130 Y145.502310 Z-0.125000
G01 X120.263940 Y145.776630 Z-0.125000
G01 X120.405920 Y145.993190 Z-0.125000
G01 X120.706690 Y146.197720 Z-0.125000
G01 X121.144640 Y146.397450 Z-0.125000
G01 X121.233640 Y146.638070 Z-0.125000
G01 X120.875100 Y146.907570 Z-0.125000
G01 X120.364980 Y147.174670 Z-0.125000
G01 X120.540630 Y147.400870 Z-0.125000
G01 X121.009860 Y147.629460 Z-0.125000
G01 X121.228830 Y147.872490 Z-0.125000
G01 X121.231830 Y148.117940 Z-0.125000
G01 X120.914200 Y148.356150 Z-0.125000
G01 X120.548440 Y148.579940 Z-0.125000
G01 X120.519540 Y148.813350 Z-0.125000
G01 X120.649480 Y149.058790 Z-0.125000
G01 X120.813110 Y149.313860 Z-0.125000
G01 X121.003200 Y149.576140 Z-0.125000
G01 X121.130730 Y149.838430 Z-0.125000
G01 X121.003200 Y150.069430 Z-0.125000
G01 X120.483440 Y150.233050 Z-0.125000
G01 X120.423340 Y150.464050 Z-0.125000
G01 X120.329540 Y150.685430 Z-0.125000
G01 X120.565360 Y150.976600 Z-0.125000
G01 X120.863730 Y151.289400 Z-0.125000
G01 X120.808330 Y151.527630 Z-0.125000
G01 X120.661540 Y151.744200 Z-0.125000
G01 X120.483480 Y151.948730 Z-0.125000
G01 X120.348730 Y152.160480 Z-0.125000
G01 X120.105700 Y152.336140 Z-0.125000
G01 X119.915600 Y152.523830 Z-0.125000
G01 X119.905600 Y152.771680 Z-0.125000
G01 X119.953700 Y153.038780 Z-0.125000
G01 X120.158230 Y153.373250 Z-0.125000
G01 X120.117330 Y153.618680 Z-0.125000
G01 X120.100530 Y153.876160 Z-0.125000
G01 X119.787720 Y154.008510 Z-0.125000
G01 X119.715520 Y154.241910 Z-0.125000
G01 X119.551890 Y154.432010 Z-0.125000
G01 X119.371420 Y154.612480 Z-0.125000
G01 X119.265540 Y154.826640 Z-0.125000
G01 X119.130790 Y155.026350 Z-0.125000
G01 X119.012890 Y155.233300 Z-0.125000
G01 X118.789110 Y155.382490 Z-0.125000
G01 X118.702510 Y155.606270 Z-0.125000
G01 X118.846880 Y155.974430 Z-0.125000
G01 X118.827580 Y156.248750 Z-0.125000
G01 X118.803480 Y156.525470 Z-0.125000
G01 X118.481040 Y156.602470 Z-0.125000
G01 X118.021440 Y156.575970 Z-0.125000
G01 X117.881880 Y156.766060 Z-0.125000
G01 X117.744720 Y156.958570 Z-0.125000
G01 X117.766320 Y157.273790 Z-0.125000
G01 X117.853020 Y157.651580 Z-0.125000
G01 X117.814520 Y157.937920 Z-0.125000
G01 X117.294770 Y157.817610 Z-0.125000
G01 X117.265870 Y158.108770 Z-0.125000
G01 X116.645050 Y157.870550 Z-0.125000
G01 X117.634030 Y159.119410 Z-0.125000
G01 X115.800450 Y157.697290 Z-0.125000
G01 X117.609970 Y159.819630 Z-0.125000
G01 X115.410630 Y157.928300 Z-0.125000
G01 X117.078180 Y160.021750 Z-0.125000
G01 X115.475600 Y158.647770 Z-0.125000
G01 X116.158990 Y159.766700 Z-0.125000
G01 X115.771580 Y159.694500 Z-0.125000
G01 X115.145940 Y159.316710 Z-0.125000
G01 X115.985740 Y160.731600 Z-0.125000
G01 X114.342240 Y159.037580 Z-0.125000
G01 X115.848570 Y161.405360 Z-0.125000
G01 X113.937990 Y159.230080 Z-0.125000
G01 X115.283100 Y161.516050 Z-0.125000
G01 X113.911520 Y159.966410 Z-0.125000
G01 X114.402410 Y161.121420 Z-0.125000
G01 X114.063110 Y161.049220 Z-0.125000
G01 X113.461550 Y160.534280 Z-0.125000
G01 X114.123270 Y162.100760 Z-0.125000
G01 X112.715600 Y160.161300 Z-0.125000
G01 X113.885050 Y162.731210 Z-0.125000
G01 X112.299320 Y160.315310 Z-0.125000
G01 X113.297920 Y162.740840 Z-0.125000
G01 X112.176590 Y161.056440 Z-0.125000
G01 X112.474970 Y162.216260 Z-0.125000
G01 X112.179000 Y162.156160 Z-0.125000
G01 X111.627960 Y161.506460 Z-0.125000
G01 X112.087570 Y163.195670 Z-0.125000
G01 X110.946990 Y161.046860 Z-0.125000
G01 X111.755500 Y163.768370 Z-0.125000
G01 X110.521080 Y161.162360 Z-0.125000
G01 X111.165960 Y163.674520 Z-0.125000
G01 X110.304510 Y161.898680 Z-0.125000
G01 X110.420010 Y163.032040 Z-0.125000
G01 X109.900250 Y162.144130 Z-0.125000
G01 X109.972450 Y163.251010 Z-0.125000
G01 X109.741440 Y163.342410 Z-0.125000
G01 X109.329980 Y162.704750 Z-0.125000
G01 X109.125440 Y162.863560 Z-0.125000
G01 X109.082140 Y163.802010 Z-0.125000
G01 X108.487790 Y162.095960 Z-0.125000
G01 X108.711570 Y164.572020 Z-0.125000
G01 X107.987290 Y161.816840 Z-0.125000
G01 X108.201440 Y164.689930 Z-0.125000
G01 X107.602270 Y162.213870 Z-0.125000
G01 X107.607270 Y164.138890 Z-0.125000
G01 X107.251150 Y163.140280 Z-0.125000
G01 X107.017730 Y163.205180 Z-0.125000
G01 X106.851700 Y164.189350 Z-0.125000
G01 X106.495580 Y162.367790 Z-0.125000
G01 X106.377660 Y164.884760 Z-0.125000
G01 X106.040790 Y162.045350 Z-0.125000
G01 X105.853100 Y164.908820 Z-0.125000
G01 X105.602840 Y162.406290 Z-0.125000
G01 X105.342960 Y164.261530 Z-0.125000
G01 X105.126400 Y163.286990 Z-0.125000
G01 X104.890590 Y163.253390 Z-0.125000
G01 X104.587390 Y164.266430 Z-0.125000
G01 X104.488690 Y162.363070 Z-0.125000
G01 X104.021870 Y164.870410 Z-0.125000
G01 X104.079570 Y162.002120 Z-0.125000
G01 X103.502060 Y164.800630 Z-0.125000
G01 X103.593460 Y162.319750 Z-0.125000
G01 X103.088150 Y164.071520 Z-0.125000
G01 X102.996750 Y163.137890 Z-0.125000
G01 X102.780180 Y163.007950 Z-0.125000
G01 X102.469770 Y163.335210 Z-0.125000
G01 X102.130490 Y163.753890 Z-0.125000
G01 X102.077590 Y162.902080 Z-0.125000
G01 X101.839370 Y162.880480 Z-0.125000
G01 X101.355710 Y163.758770 Z-0.125000
G01 X101.622800 Y161.917970 Z-0.125000
G01 X100.677130 Y164.254460 Z-0.125000
G01 X101.300360 Y161.463190 Z-0.125000
G01 X100.176630 Y164.102880 Z-0.125000
G01 X100.770980 Y161.650870 Z-0.125000
G01 X99.851775 Y163.477240 Z-0.125000
G01 X100.051500 Y162.262070 Z-0.125000
G01 X99.842149 Y162.153790 Z-0.125000
G01 X99.620772 Y162.071890 Z-0.125000
G01 X99.276675 Y162.269200 Z-0.125000
G01 X99.076953 Y162.127230 Z-0.125000
G01 X98.814669 Y162.120230 Z-0.125000
G01 X98.460946 Y162.288670 Z-0.125000
G01 X98.429666 Y161.817040 Z-0.125000
G01 X98.374326 Y161.412790 Z-0.125000
G01 X97.532128 Y162.442670 Z-0.125000
G01 X97.647630 Y161.735230 Z-0.125000
G01 X97.933978 Y160.782340 Z-0.125000
G01 X97.421440 Y161.174560 Z-0.125000
G01 X97.183219 Y161.104860 Z-0.125000
G01 X96.651431 Y161.477830 Z-0.125000
G01 X96.786183 Y160.837760 Z-0.125000
G01 X96.627368 Y160.650070 Z-0.125000
G01 X96.042643 Y161.049510 Z-0.125000
G01 X95.931954 Y160.782420 Z-0.125000
G01 X96.458929 Y159.704400 Z-0.125000
G01 X95.243759 Y160.857010 Z-0.125000
G01 X95.417011 Y160.250630 Z-0.125000
G01 X95.826078 Y159.396400 Z-0.125000
G01 X95.272634 Y159.675520 Z-0.125000
G01 X94.517062 Y160.154370 Z-0.125000
G01 X94.714378 Y159.576870 Z-0.125000
G01 X95.198039 Y158.725050 Z-0.125000
G01 X93.674866 Y159.933000 Z-0.125000
G01 X94.423218 Y158.842960 Z-0.125000
G01 X94.180184 Y158.744260 Z-0.125000
G01 X93.412581 Y159.124450 Z-0.125000
G01 X94.172965 Y158.109000 Z-0.125000
G01 X93.727803 Y158.186000 Z-0.125000
G01 X92.888012 Y158.578220 Z-0.125000
G01 X93.316330 Y157.906870 Z-0.125000
G01 X93.759085 Y157.249950 Z-0.125000
G01 X92.695511 Y157.774530 Z-0.125000
G01 X92.507821 Y157.606090 Z-0.125000
G01 X93.453488 Y156.624330 Z-0.125000
G01 X91.843688 Y157.466520 Z-0.125000
G01 X92.827855 Y156.496790 Z-0.125000
G01 X91.622310 Y157.004520 Z-0.125000
G01 X92.837481 Y155.940940 Z-0.125000
G01 X91.242118 Y156.643570 Z-0.125000
G01 X92.758073 Y155.457280 Z-0.125000
G01 X90.582798 Y156.431820 Z-0.125000
G01 X92.950576 Y154.836460 Z-0.125000
G01 X90.315701 Y155.984260 Z-0.125000
G01 X92.438038 Y154.607860 Z-0.125000
G01 X90.652580 Y155.235900 Z-0.125000
G01 X91.439434 Y154.586210 Z-0.125000
G01 X91.338370 Y154.372050 Z-0.125000
G01 X90.320514 Y154.557330 Z-0.125000
G01 X91.949564 Y153.602040 Z-0.125000
G01 X89.519224 Y154.335950 Z-0.125000
G01 X92.091534 Y153.070250 Z-0.125000
G01 X89.333940 Y153.845070 Z-0.125000
G01 X91.591029 Y152.781500 Z-0.125000
G01 X89.783914 Y153.144840 Z-0.125000
G01 X90.594830 Y152.627500 Z-0.125000
G01 X90.585230 Y152.382050 Z-0.125000
G01 X89.495186 Y152.444650 Z-0.125000
G01 X91.283050 Y151.705930 Z-0.125000
G01 X88.746834 Y152.112590 Z-0.125000
G01 X91.475553 Y151.203010 Z-0.125000
G01 X88.650583 Y151.597650 Z-0.125000
G01 X90.999110 Y150.854110 Z-0.125000
G01 X89.208839 Y150.962390 Z-0.125000
G01 X90.022161 Y150.567760 Z-0.125000
G01 X90.108791 Y150.312700 Z-0.125000
G01 X88.958590 Y150.238100 Z-0.125000
G01 X90.878800 Y149.740000 Z-0.125000
G01 X88.280020 Y149.804900 Z-0.125000
G01 X91.114615 Y149.268290 Z-0.125000
G01 X88.280020 Y149.280290 Z-0.125000
G01 X90.669454 Y148.861610 Z-0.125000
G01 X88.934527 Y148.724450 Z-0.125000
G01 X89.728599 Y148.445320 Z-0.125000
G01 X89.913882 Y148.202280 Z-0.125000
G01 X88.725182 Y147.976090 Z-0.125000
G01 X90.744049 Y147.740280 Z-0.125000
G01 X88.128424 Y147.453940 Z-0.125000
G01 X91.018364 Y147.304750 Z-0.125000
G01 X88.222269 Y146.936580 Z-0.125000
G01 X90.609297 Y146.837880 Z-0.125000
G01 X88.960996 Y146.474540 Z-0.125000
G01 X89.723786 Y146.298880 Z-0.125000
G01 X90.005321 Y146.089530 Z-0.125000
G01 X88.799776 Y145.697310 Z-0.125000
G01 X90.873988 Y145.740610 Z-0.125000
G01 X88.294457 Y145.105350 Z-0.125000
G01 X91.184397 Y145.343580 Z-0.125000
G01 X88.477335 Y144.607260 Z-0.125000
G01 X90.821049 Y144.821420 Z-0.125000
G01 X89.288251 Y144.253540 Z-0.125000
G01 X90.007728 Y144.166940 Z-0.125000
G01 X90.375888 Y144.012940 Z-0.125000
G01 X89.177561 Y143.447450 Z-0.125000
G01 X91.271023 Y143.779520 Z-0.125000
G01 X88.775713 Y142.797760 Z-0.125000
G01 X91.610309 Y143.420990 Z-0.125000
G01 X89.045216 Y142.335760 Z-0.125000
G01 X91.299899 Y142.848290 Z-0.125000
G01 X89.909070 Y142.097530 Z-0.125000
G01 X91.374493 Y142.393510 Z-0.125000
G01 X90.065478 Y141.625910 Z-0.125000
G01 X90.378294 Y141.486340 Z-0.125000
G01 X91.607902 Y141.753440 Z-0.125000
G01 X90.270012 Y140.896800 Z-0.125000
G01 X90.736830 Y140.841500 Z-0.125000
G01 X91.858156 Y141.118220 Z-0.125000
G01 X90.756080 Y140.302490 Z-0.125000
G01 X90.864362 Y140.078710 Z-0.125000
G01 X91.559777 Y140.177310 Z-0.125000
G01 X91.831686 Y140.057000 Z-0.125000
G01 X91.874996 Y139.811560 Z-0.125000
G01 X91.761901 Y139.467460 Z-0.125000
G01 X91.824461 Y139.222020 Z-0.125000
G01 X91.434644 Y138.683010 Z-0.125000
G01 X92.103590 Y138.827390 Z-0.125000
G01 X92.428437 Y138.757590 Z-0.125000
G01 X92.750878 Y138.697490 Z-0.125000
G01 X92.411593 Y138.158490 Z-0.125000
G01 X92.332193 Y137.795140 Z-0.125000
G01 X92.558383 Y137.657980 Z-0.125000
G01 X93.131076 Y137.804770 Z-0.125000
G01 X93.366892 Y137.691670 Z-0.125000
G01 X93.369292 Y137.383660 Z-0.125000
G01 X92.837504 Y136.599220 Z-0.125000
G01 X93.400573 Y136.770070 Z-0.125000
G01 X94.071924 Y137.063630 Z-0.125000
G01 X94.185019 Y136.847060 Z-0.125000
G01 X93.958829 Y136.293620 Z-0.125000
G01 X93.785577 Y135.769050 Z-0.125000
G01 X94.363084 Y136.014500 Z-0.125000
G01 X94.942997 Y136.288810 Z-0.125000
G01 X94.928567 Y135.923050 Z-0.125000
G01 X94.841937 Y135.463460 Z-0.125000
G01 X94.841937 Y135.090490 Z-0.125000
G01 X95.087378 Y135.001490 Z-0.125000
G01 X95.503663 Y135.131430 Z-0.125000
G01 X95.879043 Y135.225230 Z-0.125000
G01 X96.004169 Y134.999040 Z-0.125000
G01 X95.696166 Y134.176100 Z-0.125000
G01 X96.208703 Y134.469660 Z-0.125000
G01 X96.129303 Y133.925840 Z-0.125000
G01 X97.125502 Y134.982200 Z-0.125000
G01 X96.117271 Y132.989800 Z-0.125000
G01 X97.772791 Y135.162670 Z-0.125000
G01 X96.461369 Y132.559080 Z-0.125000
G01 X98.051918 Y134.772860 Z-0.125000
G01 X97.161596 Y132.734730 Z-0.125000
G01 X98.061544 Y133.860870 Z-0.125000
G01 X98.049514 Y133.333900 Z-0.125000
G01 X98.015824 Y132.729920 Z-0.125000
G01 X98.889303 Y133.959530 Z-0.125000
G01 X98.133732 Y131.813130 Z-0.125000
G01 X99.498091 Y134.204970 Z-0.125000
G01 X98.542799 Y131.452200 Z-0.125000
G01 X99.818126 Y133.834410 Z-0.125000
G01 X99.218964 Y131.738540 Z-0.125000
G01 X99.943253 Y132.917620 Z-0.125000
G01 X100.022653 Y132.453200 Z-0.125000
G01 X100.044353 Y131.793880 Z-0.125000
G01 X100.768643 Y133.177490 Z-0.125000
G01 X100.287383 Y130.913190 Z-0.125000
G01 X101.331713 Y133.480680 Z-0.125000
G01 X100.746993 Y130.631650 Z-0.125000
G01 X101.695053 Y133.136590 Z-0.125000
G01 X101.387063 Y131.021470 Z-0.125000
G01 X101.935693 Y132.229420 Z-0.125000
G01 X102.089693 Y131.842010 Z-0.125000
G01 X102.185893 Y131.127350 Z-0.125000
G01 X102.732123 Y132.650520 Z-0.125000
G01 X102.544433 Y130.301990 Z-0.125000
G01 X103.247073 Y133.004240 Z-0.125000
G01 X103.040123 Y130.104680 Z-0.125000
G01 X103.646503 Y132.689010 Z-0.125000
G01 X103.624903 Y130.595560 Z-0.125000
G01 X104.005103 Y131.808320 Z-0.125000
G01 X104.214443 Y131.507540 Z-0.125000
G01 X104.397323 Y130.749560 Z-0.125000
G01 X104.743823 Y132.383420 Z-0.125000
G01 X104.861733 Y129.993990 Z-0.125000
G01 X105.208233 Y132.782860 Z-0.125000
G01 X105.381483 Y129.885710 Z-0.125000
G01 X105.646173 Y132.496520 Z-0.125000
G01 X105.896433 Y130.465610 Z-0.125000
G01 X106.115403 Y131.659130 Z-0.125000
G01 X106.360843 Y131.454600 Z-0.125000
G01 X106.642383 Y130.662930 Z-0.125000
G01 X106.772313 Y132.381020 Z-0.125000
G01 X107.203043 Y129.991580 Z-0.125000
G01 X107.181343 Y132.816550 Z-0.125000
G01 X107.729983 Y129.972330 Z-0.125000
G01 X107.655383 Y132.568700 Z-0.125000
G01 X108.160693 Y130.634050 Z-0.125000
G01 X108.232893 Y131.786670 Z-0.125000
G01 X108.490373 Y131.678380 Z-0.125000
G01 X108.885003 Y130.869870 Z-0.125000
G01 X108.779133 Y132.640900 Z-0.125000
G01 X109.525073 Y130.292360 Z-0.125000
G01 X109.132853 Y133.105300 Z-0.125000
G01 X110.042423 Y130.366960 Z-0.125000
G01 X109.640573 Y132.900770 Z-0.125000
G01 X110.381703 Y131.093660 Z-0.125000
G01 X110.319103 Y132.188510 Z-0.125000
G01 X110.569363 Y132.176510 Z-0.125000
G01 X111.084303 Y131.368000 Z-0.125000
G01 X110.732993 Y133.158270 Z-0.125000
G01 X111.789343 Y130.896370 Z-0.125000
G01 X111.031363 Y133.644340 Z-0.125000
G01 X112.285033 Y131.055180 Z-0.125000
G01 X111.567963 Y133.490340 Z-0.125000
G01 X112.518443 Y131.837220 Z-0.125000
G01 X112.340373 Y132.859890 Z-0.125000
G01 X112.561753 Y132.941790 Z-0.125000
G01 X113.204233 Y132.150130 Z-0.125000
G01 X112.602663 Y133.925960 Z-0.125000
G01 X113.957393 Y131.786780 Z-0.125000
G01 X112.843293 Y134.426470 Z-0.125000
G01 X114.417003 Y132.032220 Z-0.125000
G01 X113.408763 Y134.322990 Z-0.125000
G01 X114.537313 Y132.850350 Z-0.125000
G01 X114.260593 Y133.788800 Z-0.125000
G01 X114.436243 Y133.952430 Z-0.125000
G01 X115.208663 Y133.199260 Z-0.125000
G01 X114.354433 Y134.924560 Z-0.125000
G01 X115.990703 Y132.953830 Z-0.125000
G01 X114.539713 Y135.434700 Z-0.125000
G01 X116.404583 Y133.273860 Z-0.125000
G01 X115.126853 Y135.388980 Z-0.125000
G01 X116.406993 Y134.116050 Z-0.125000
G01 X116.048453 Y134.960660 Z-0.125000
G01 X116.445483 Y134.854780 Z-0.125000
G01 X116.560983 Y135.090600 Z-0.125000
G01 X117.037433 Y134.912530 Z-0.125000
G01 X116.746273 Y135.603140 Z-0.125000
G01 X117.420033 Y135.227760 Z-0.125000
G01 X116.640403 Y136.402010 Z-0.125000
G01 X118.192453 Y135.150750 Z-0.125000
G01 X117.518693 Y136.173420 Z-0.125000
G01 X117.477793 Y136.543990 Z-0.125000
G01 X117.725643 Y136.630590 Z-0.125000
G01 X118.149143 Y136.567990 Z-0.125000
G01 X118.550993 Y136.534290 Z-0.125000
G01 X118.731473 Y136.705130 Z-0.125000
G01 X118.560623 Y137.164730 Z-0.125000
G01 X118.546123 Y137.484770 Z-0.125000
G01 X118.601523 Y137.739830 Z-0.125000
G01 X119.085183 Y137.667630 Z-0.125000
G01 X119.597723 Y137.590630 Z-0.125000
G01 X119.633823 Y137.867350 Z-0.125000
G01 X119.414853 Y138.319730 Z-0.125000
G01 X119.248823 Y138.719170 Z-0.125000
G01 X119.559233 Y138.796170 Z-0.125000
G01 X119.862423 Y138.882870 Z-0.125000
G01 X120.326833 Y138.879870 Z-0.125000
G01 X120.531373 Y139.043500 Z-0.125000
G01 X120.406243 Y139.399630 Z-0.125000
G01 X120.117493 Y139.837570 Z-0.125000
G01 X120.240203 Y140.039700 Z-0.125000
G01 X120.447143 Y140.198520 Z-0.125000
G01 X120.863433 Y140.256220 Z-0.125000
G01 X121.214753 Y140.354920 Z-0.125000
G01 X121.267653 Y140.602760 Z-0.125000
G01 X121.058313 Y140.963700 Z-0.125000
G01 X120.690153 Y141.384810 Z-0.125000
G01 X121.015003 Y141.500310 Z-0.125000
G01 X121.501073 Y141.562910 Z-0.125000
G01 X121.866823 Y141.683220 Z-0.125000
G01 X121.797123 Y141.969560 Z-0.125000
G01 X121.390453 Y142.371420 Z-0.125000
G01 X121.236453 Y142.672200 Z-0.125000
G01 X121.712893 Y142.766000 Z-0.125000
G01 X122.227843 Y142.859900 Z-0.125000
G01 X122.275943 Y143.102930 Z-0.125000
G01 X122.215843 Y143.372430 Z-0.125000
G01 X122.083503 Y143.658790 Z-0.125000
G01 X121.828433 Y143.966780 Z-0.125000
G01 X121.972813 Y144.176130 Z-0.125000
G01 X122.047413 Y144.402320 Z-0.125000
G01 X122.454083 Y144.565950 Z-0.125000
G01 X122.822243 Y144.744020 Z-0.125000
G01 X122.656203 Y145.023150 Z-0.125000
G01 X121.917483 Y145.384080 Z-0.125000
G01 X122.064263 Y145.598240 Z-0.125000
G01 X122.721183 Y145.752240 Z-0.125000
G01 X123.166343 Y145.949560 Z-0.125000
G01 X122.665833 Y146.247930 Z-0.125000
G01 X122.073893 Y146.539100 Z-0.125000
G01 X122.316923 Y146.755670 Z-0.125000
G01 X122.923303 Y146.960200 Z-0.125000
G01 X123.149503 Y147.196010 Z-0.125000
G01 X122.860743 Y147.451080 Z-0.125000
G01 X122.008923 Y147.701330 Z-0.125000
G01 X122.343393 Y147.934740 Z-0.125000
G01 X123.000303 Y148.182580 Z-0.125000
G01 X123.050903 Y148.430430 Z-0.125000
G01 X122.969003 Y148.671060 Z-0.125000
G01 X122.665813 Y148.897250 Z-0.125000
G01 X122.316903 Y149.113810 Z-0.125000
G01 X122.295303 Y149.347230 Z-0.125000
G01 X122.490213 Y149.604690 Z-0.125000
G01 X122.718813 Y149.871790 Z-0.125000
G01 X123.127873 Y150.170170 Z-0.125000
G01 X122.742873 Y150.365080 Z-0.125000
G01 X122.271243 Y150.535930 Z-0.125000
G01 X122.165363 Y150.757310 Z-0.125000
G01 X122.150863 Y150.995520 Z-0.125000
G01 X122.444443 Y151.296310 Z-0.125000
G01 X122.687473 Y151.597090 Z-0.125000
G01 X122.682473 Y151.847350 Z-0.125000
G01 X122.169943 Y151.974880 Z-0.125000
G01 X122.003913 Y152.177010 Z-0.125000
G01 X121.746433 Y152.352660 Z-0.125000
G01 X121.914873 Y152.648640 Z-0.125000
G01 X122.083313 Y152.949420 Z-0.125000
G01 X122.191593 Y153.238180 Z-0.125000
G01 X122.239693 Y153.512490 Z-0.125000
G01 X121.905223 Y153.654460 Z-0.125000
G01 X121.503383 Y153.765150 Z-0.125000
G01 X121.517883 Y154.025030 Z-0.125000
G01 X121.231533 Y154.167000 Z-0.125000
G01 X121.310933 Y154.455750 Z-0.125000
G01 X121.305933 Y154.713230 Z-0.125000
G01 X121.469553 Y155.050100 Z-0.125000
G01 X121.474553 Y155.324420 Z-0.125000
G01 X121.330173 Y155.526550 Z-0.125000
G01 X121.012553 Y155.637240 Z-0.125000
G01 X120.699733 Y155.747920 Z-0.125000
G01 X120.449473 Y155.882670 Z-0.125000
G01 X120.427873 Y156.140140 Z-0.125000
G01 X120.598713 Y156.513120 Z-0.125000
G01 X120.478403 Y156.722470 Z-0.125000
G01 X120.427803 Y156.975130 Z-0.125000
G01 X120.382103 Y157.235000 Z-0.125000
G01 X120.124633 Y157.357730 Z-0.125000
G01 X119.212653 Y157.032880 Z-0.125000
G01 X120.247353 Y158.033890 Z-0.125000
G01 X118.562963 Y157.129130 Z-0.125000
G01 X120.678073 Y158.969930 Z-0.125000
G01 X118.223673 Y157.429910 Z-0.125000
G01 X120.170353 Y159.234620 Z-0.125000
G01 X118.404143 Y158.142170 Z-0.125000
G01 X119.215063 Y159.114300 Z-0.125000
G01 X118.863743 Y159.135900 Z-0.125000
G01 X118.141863 Y158.825480 Z-0.125000
G01 X119.231903 Y160.120060 Z-0.125000
G01 X117.314103 Y158.688330 Z-0.125000
G01 X119.195813 Y160.791410 Z-0.125000
G01 X116.957973 Y158.960240 Z-0.125000
G01 X118.642363 Y160.976700 Z-0.125000
G01 X117.061443 Y159.703770 Z-0.125000
G01 X117.703913 Y160.726440 Z-0.125000
G01 X117.393503 Y160.750540 Z-0.125000
G01 X116.676433 Y160.307790 Z-0.125000
G01 X117.629323 Y161.768400 Z-0.125000
G01 X115.882363 Y160.079190 Z-0.125000
G01 X117.494573 Y162.413280 Z-0.125000
G01 X115.509383 Y160.322220 Z-0.125000
G01 X116.909843 Y162.509540 Z-0.125000
G01 X115.528643 Y161.087420 Z-0.125000
G01 X116.002683 Y162.134160 Z-0.125000
G01 X115.730773 Y162.172660 Z-0.125000
G01 X115.040173 Y161.590340 Z-0.125000
G01 X115.829423 Y163.202550 Z-0.125000
G01 X114.289413 Y161.279920 Z-0.125000
G01 X115.605643 Y163.808930 Z-0.125000
G01 X113.899593 Y161.491680 Z-0.125000
G01 X115.001663 Y163.813740 Z-0.125000
G01 X113.832213 Y162.271320 Z-0.125000
G01 X114.332723 Y163.657330 Z-0.125000
G01 X113.338923 Y162.317030 Z-0.125000
G01 X113.531433 Y163.192920 Z-0.125000
G01 X113.338923 Y163.344510 Z-0.125000
G01 X113.211393 Y163.630860 Z-0.125000
G01 X113.182493 Y164.145800 Z-0.125000
G01 X112.792683 Y163.881110 Z-0.125000
G01 X112.489483 Y163.789710 Z-0.125000
G01 X112.224793 Y163.777710 Z-0.125000
G01 X111.921613 Y163.659800 Z-0.125000
G01 X111.772423 Y163.934120 Z-0.125000
G01 X111.673723 Y164.360030 Z-0.125000
G01 X111.466773 Y164.504410 Z-0.125000
G01 X111.228563 Y164.562110 Z-0.125000
G01 X110.983113 Y164.591010 Z-0.125000
G01 X110.737683 Y164.617510 Z-0.125000
G01 X110.472993 Y164.569410 Z-0.125000
G01 X110.196263 Y164.475610 Z-0.125000
G01 X109.890663 Y164.239790 Z-0.125000
G01 X109.830463 Y164.983330 Z-0.125000
G01 X109.690913 Y165.462180 Z-0.125000
G01 X109.226493 Y164.485230 Z-0.125000
G01 X109.058053 Y164.838950 Z-0.125000
G01 X108.988353 Y165.779810 Z-0.125000
G01 X108.422873 Y163.970290 Z-0.125000
G01 X108.439673 Y165.519930 Z-0.125000
G01 X108.213483 Y165.693180 Z-0.125000
G01 X107.830873 Y164.665700 Z-0.125000
G01 X107.611903 Y164.802860 Z-0.125000
G01 X107.467533 Y165.717240 Z-0.125000
G01 X107.217283 Y165.685940 Z-0.125000
G01 X106.911683 Y164.908710 Z-0.125000
G01 X106.673463 Y164.875110 Z-0.125000
G01 X106.449683 Y165.127760 Z-0.125000
G01 X106.237923 Y165.957930 Z-0.125000
G01 X105.980453 Y165.416520 Z-0.125000
G01 X105.735013 Y164.579130 Z-0.125000
G01 X105.496793 Y165.438170 Z-0.125000
G01 X105.241733 Y165.967560 Z-0.125000
G01 X105.013123 Y165.418930 Z-0.125000
G01 X104.806193 Y164.713890 Z-0.125000
G01 X104.546313 Y165.130170 Z-0.125000
G01 X104.231093 Y166.102300 Z-0.125000
G01 X104.050623 Y165.322670 Z-0.125000
G01 X103.891813 Y164.555070 Z-0.125000
G01 X103.451453 Y166.282780 Z-0.125000
G01 X103.391353 Y164.802910 Z-0.125000
G01 X102.960623 Y166.116750 Z-0.125000
G01 X103.066503 Y163.886120 Z-0.125000
G01 X102.662253 Y164.894360 Z-0.125000
G01 X102.226703 Y165.905000 Z-0.125000
G01 X102.284503 Y164.369780 Z-0.125000
G01 X101.622773 Y166.311650 Z-0.125000
G01 X102.007773 Y163.520380 Z-0.125000
G01 X101.098213 Y166.270740 Z-0.125000
G01 X101.507273 Y163.693630 Z-0.125000
G01 X100.754103 Y165.568110 Z-0.125000
G01 X100.836003 Y164.391450 Z-0.125000
G01 X100.556883 Y164.492510 Z-0.125000
G01 X100.073223 Y165.219200 Z-0.125000
G01 X100.390843 Y163.496310 Z-0.125000
G01 X99.368183 Y165.719710 Z-0.125000
G01 X100.099693 Y162.981370 Z-0.125000
G01 X98.860458 Y165.594580 Z-0.125000
G01 X99.572717 Y163.113710 Z-0.125000
G01 X98.612612 Y164.839010 Z-0.125000
G01 X98.814739 Y163.734530 Z-0.125000
G01 X98.552455 Y163.741530 Z-0.125000
G01 X97.955698 Y164.458600 Z-0.125000
G01 X98.506736 Y162.740530 Z-0.125000
G01 X97.200126 Y164.853240 Z-0.125000
G01 X98.268514 Y162.215950 Z-0.125000
G01 X96.723683 Y164.646300 Z-0.125000
G01 X97.719882 Y162.297760 Z-0.125000
G01 X96.579306 Y163.849810 Z-0.125000
G01 X96.884904 Y162.831960 Z-0.125000
G01 X96.333866 Y163.286750 Z-0.125000
G01 X96.483056 Y162.584120 Z-0.125000
G01 X95.891111 Y163.067780 Z-0.125000
G01 X96.410867 Y161.835760 Z-0.125000
G01 X95.568670 Y162.661110 Z-0.125000
G01 X95.734703 Y162.001790 Z-0.125000
G01 X94.793848 Y162.901750 Z-0.125000
G01 X95.563858 Y161.443540 Z-0.125000
G01 X94.428094 Y162.548020 Z-0.125000
G01 X94.610972 Y161.907950 Z-0.125000
G01 X95.063351 Y160.964690 Z-0.125000
G01 X93.542584 Y162.430110 Z-0.125000
G01 X94.935819 Y160.406430 Z-0.125000
G01 X93.504084 Y161.693790 Z-0.125000
G01 X93.751930 Y161.046500 Z-0.125000
G01 X94.096028 Y160.319810 Z-0.125000
G01 X93.415052 Y160.700000 Z-0.125000
G01 X92.859201 Y160.921380 Z-0.125000
G01 X93.092610 Y160.339050 Z-0.125000
G01 X93.429489 Y159.679740 Z-0.125000
G01 X92.666699 Y160.079180 Z-0.125000
G01 X92.223944 Y160.156180 Z-0.125000
G01 X92.209504 Y159.838550 Z-0.125000
G01 X92.368319 Y159.376540 Z-0.125000
G01 X92.380349 Y159.054100 Z-0.125000
G01 X92.192659 Y158.904910 Z-0.125000
G01 X91.677716 Y159.010780 Z-0.125000
G01 X91.186835 Y159.085380 Z-0.125000
G01 X91.405807 Y158.608940 Z-0.125000
G01 X91.949625 Y157.911120 Z-0.125000
G01 X90.587673 Y158.596910 Z-0.125000
G01 X91.576652 Y157.607930 Z-0.125000
G01 X90.592484 Y157.990530 Z-0.125000
G01 X90.248387 Y157.920730 Z-0.125000
G01 X91.571839 Y156.787370 Z-0.125000
G01 X90.236356 Y157.343230 Z-0.125000
G01 X89.868195 Y157.275830 Z-0.125000
G01 X90.448108 Y156.655010 Z-0.125000
G01 X90.448108 Y156.380700 Z-0.125000
G01 X89.723818 Y156.505820 Z-0.125000
G01 X89.394158 Y156.402350 Z-0.125000
G01 X89.911508 Y155.860940 Z-0.125000
G01 X90.308544 Y155.401340 Z-0.125000
G01 X88.523086 Y155.990880 Z-0.125000
G01 X90.313357 Y154.888800 Z-0.125000
G01 X88.939372 Y155.247340 Z-0.125000
G01 X89.237750 Y154.850310 Z-0.125000
G01 X89.675693 Y154.409960 Z-0.125000
G01 X88.169363 Y154.751650 Z-0.125000
G01 X90.205074 Y153.712140 Z-0.125000
G01 X87.534105 Y154.443640 Z-0.125000
G01 X90.181011 Y153.247720 Z-0.125000
G01 X87.558168 Y153.887790 Z-0.125000
G01 X89.516879 Y152.995060 Z-0.125000
G01 X88.164550 Y153.165910 Z-0.125000
G01 X88.446085 Y152.826620 Z-0.125000
G01 X88.997123 Y152.427180 Z-0.125000
G01 X87.406573 Y152.598030 Z-0.125000
G01 X89.593879 Y151.801550 Z-0.125000
G01 X86.831472 Y152.208210 Z-0.125000
G01 X89.601098 Y151.344360 Z-0.125000
G01 X86.944567 Y151.654770 Z-0.125000
G01 X88.953810 Y151.014700 Z-0.125000
G01 X87.647200 Y151.009700 Z-0.125000
G01 X87.907078 Y150.718540 Z-0.125000
G01 X88.563993 Y150.379250 Z-0.125000
G01 X86.910879 Y150.364750 Z-0.125000
G01 X89.216094 Y149.832970 Z-0.125000
G01 X86.407967 Y149.905170 Z-0.125000
G01 X89.257001 Y149.380600 Z-0.125000
G01 X86.607688 Y149.366100 Z-0.125000
G01 X88.636181 Y148.978690 Z-0.125000
G01 X87.396948 Y148.812660 Z-0.125000
G01 X87.623138 Y148.557590 Z-0.125000
G01 X88.381115 Y148.295310 Z-0.125000
G01 X86.689502 Y148.083550 Z-0.125000
G01 X89.076529 Y147.833300 Z-0.125000
G01 X86.263591 Y147.566210 Z-0.125000
G01 X89.148718 Y147.390550 Z-0.125000
G01 X86.549937 Y147.058480 Z-0.125000
G01 X88.563993 Y146.914100 Z-0.125000
G01 X87.413791 Y146.603700 Z-0.125000
G01 X87.603887 Y146.372690 Z-0.125000
G01 X88.448491 Y146.211470 Z-0.125000
G01 X86.742440 Y145.790380 Z-0.125000
G01 X89.179999 Y145.833680 Z-0.125000
G01 X86.405561 Y145.229710 Z-0.125000
G01 X89.283470 Y145.400550 Z-0.125000
G01 X86.771315 Y144.762890 Z-0.125000
G01 X88.739651 Y144.851890 Z-0.125000
G01 X87.695326 Y144.418760 Z-0.125000
G01 X87.849328 Y144.199790 Z-0.125000
G01 X88.768526 Y144.151690 Z-0.125000
G01 X87.074506 Y143.518850 Z-0.125000
G01 X89.521691 Y143.862940 Z-0.125000
G01 X86.826660 Y142.924500 Z-0.125000
G01 X89.654036 Y143.437030 Z-0.125000
G01 X87.267009 Y142.513020 Z-0.125000
G01 X89.165562 Y142.823430 Z-0.125000
G01 X88.236738 Y142.284430 Z-0.125000
G01 X88.354646 Y142.065460 Z-0.125000
G01 X89.329189 Y142.149660 Z-0.125000
G01 X87.676076 Y141.300250 Z-0.125000
G01 X90.096792 Y141.947540 Z-0.125000
G01 X87.522074 Y140.689050 Z-0.125000
G01 X90.258012 Y141.533660 Z-0.125000
G01 X87.933547 Y140.299230 Z-0.125000
G01 X89.812850 Y140.850270 Z-0.125000
G01 X89.666067 Y140.527830 Z-0.125000
G01 X88.378709 Y139.656760 Z-0.125000
G01 X90.385545 Y140.359390 Z-0.125000
G01 X89.264219 Y139.536450 Z-0.125000
G01 X89.218499 Y139.235660 Z-0.125000
G01 X90.436075 Y139.613450 Z-0.125000
G01 X90.137697 Y139.182730 Z-0.125000
G01 X89.885038 Y138.761630 Z-0.125000
G01 X89.990914 Y138.542660 Z-0.125000
G01 X89.909094 Y138.210590 Z-0.125000
G01 X90.229128 Y138.121590 Z-0.125000
G01 X90.626165 Y138.087990 Z-0.125000
G01 X90.938981 Y138.010990 Z-0.125000
G01 X90.994321 Y137.763140 Z-0.125000
G01 X90.951011 Y137.440690 Z-0.125000
G01 X90.818666 Y137.048470 Z-0.125000
G01 X90.849946 Y136.766940 Z-0.125000
G01 X91.179606 Y136.711640 Z-0.125000
G01 X91.752300 Y136.853610 Z-0.125000
G01 X91.918333 Y136.687580 Z-0.125000
G01 X91.785988 Y136.268880 Z-0.125000
G01 X91.711398 Y135.888690 Z-0.125000
G01 X91.800438 Y135.643260 Z-0.125000
G01 X92.062721 Y135.549360 Z-0.125000
G01 X92.442913 Y135.568660 Z-0.125000
G01 X92.827918 Y135.607160 Z-0.125000
G01 X92.916958 Y135.364130 Z-0.125000
G01 X92.806269 Y134.916560 Z-0.125000
G01 X92.620986 Y134.377550 Z-0.125000
G01 X93.241806 Y134.673530 Z-0.125000
G01 X93.790437 Y134.918960 Z-0.125000
G01 X93.477620 Y134.216330 Z-0.125000
G01 X93.277899 Y133.617170 Z-0.125000
G01 X94.146566 Y134.257240 Z-0.125000
G01 X94.290943 Y134.059920 Z-0.125000
G01 X93.783218 Y133.051690 Z-0.125000
G01 X94.868449 Y134.033450 Z-0.125000
G01 X94.570071 Y133.256230 Z-0.125000
G01 X94.635041 Y132.933790 Z-0.125000
G01 X95.530176 Y133.761550 Z-0.125000
G01 X94.550821 Y131.956840 Z-0.125000
G01 X96.232809 Y133.978110 Z-0.125000
G01 X94.822731 Y131.439490 Z-0.125000
G01 X96.550438 Y133.653260 Z-0.125000
G01 X95.484457 Y131.518890 Z-0.125000
G01 X96.552844 Y132.794220 Z-0.125000
G01 X96.381999 Y132.043460 Z-0.125000
G01 X96.451779 Y131.675300 Z-0.125000
G01 X97.269915 Y132.652250 Z-0.125000
G01 X96.490281 Y130.705570 Z-0.125000
G01 X97.934047 Y132.933790 Z-0.125000
G01 X96.831972 Y130.243570 Z-0.125000
G01 X98.278145 Y132.630590 Z-0.125000
G01 X97.488885 Y130.416820 Z-0.125000
G01 X98.376802 Y131.764330 Z-0.125000
G01 X98.321462 Y131.054480 Z-0.125000
G01 X98.408092 Y130.635790 Z-0.125000
G01 X99.127569 Y131.759520 Z-0.125000
G01 X98.566906 Y129.690130 Z-0.125000
G01 X99.745982 Y132.098800 Z-0.125000
G01 X98.968754 Y129.293080 Z-0.125000
G01 X100.116553 Y131.817270 Z-0.125000
G01 X99.606418 Y129.562590 Z-0.125000
G01 X100.311463 Y130.953420 Z-0.125000
G01 X100.359563 Y130.301320 Z-0.125000
G01 X100.475073 Y129.836900 Z-0.125000
G01 X101.074233 Y131.090580 Z-0.125000
G01 X100.749383 Y128.929740 Z-0.125000
G01 X101.642113 Y131.482800 Z-0.125000
G01 X101.201763 Y128.604890 Z-0.125000
G01 X102.039153 Y131.225330 Z-0.125000
G01 X101.805733 Y128.965830 Z-0.125000
G01 X102.332713 Y130.375910 Z-0.125000
G01 X102.467463 Y129.798410 Z-0.125000
G01 X102.628683 Y129.285870 Z-0.125000
G01 X103.083473 Y130.657450 Z-0.125000
G01 X103.011273 Y128.431630 Z-0.125000
G01 X103.598413 Y131.095390 Z-0.125000
G01 X103.502113 Y128.183790 Z-0.125000
G01 X104.021863 Y130.864380 Z-0.125000
G01 X104.060363 Y128.633760 Z-0.125000
G01 X104.411683 Y130.039030 Z-0.125000
G01 X104.618633 Y129.545750 Z-0.125000
G01 X104.835193 Y128.992300 Z-0.125000
G01 X105.128753 Y130.464940 Z-0.125000
G01 X105.316453 Y128.203040 Z-0.125000
G01 X105.585953 Y130.941390 Z-0.125000
G01 X105.831393 Y128.037010 Z-0.125000
G01 X106.033523 Y130.736850 Z-0.125000
G01 X106.331893 Y128.571200 Z-0.125000
G01 X106.519583 Y129.950000 Z-0.125000
G01 X106.779463 Y129.548150 Z-0.125000
G01 X107.063403 Y128.961020 Z-0.125000
G01 X107.176503 Y130.513070 Z-0.125000
G01 X107.633693 Y128.248760 Z-0.125000
G01 X107.578293 Y131.018390 Z-0.125000
G01 X108.163013 Y128.166950 Z-0.125000
G01 X108.049923 Y130.847540 Z-0.125000
G01 X108.593743 Y128.775740 Z-0.125000
G01 X108.627443 Y130.111220 Z-0.125000
G01 X108.921003 Y129.805630 Z-0.125000
G01 X109.284353 Y129.192020 Z-0.125000
G01 X109.202453 Y130.801820 Z-0.125000
G01 X109.929143 Y128.566390 Z-0.125000
G01 X109.546543 Y131.331200 Z-0.125000
G01 X110.460933 Y128.571200 Z-0.125000
G01 X110.039833 Y131.194040 Z-0.125000
G01 X110.812243 Y129.242550 Z-0.125000
G01 X110.703963 Y130.515480 Z-0.125000
G01 X111.014373 Y130.310940 Z-0.125000
G01 X111.464343 Y129.682910 Z-0.125000
G01 X111.180403 Y131.323990 Z-0.125000
G01 X112.176613 Y129.153520 Z-0.125000
G01 X111.464343 Y131.870210 Z-0.125000
G01 X112.693953 Y129.240140 Z-0.125000
G01 X111.979293 Y131.771550 Z-0.125000
G01 X112.958653 Y129.966850 Z-0.125000
G01 X112.725243 Y131.165170 Z-0.125000
G01 X113.030833 Y131.054480 Z-0.125000
G01 X113.577053 Y130.426440 Z-0.125000
G01 X113.081363 Y132.069930 Z-0.125000
G01 X114.337443 Y129.998120 Z-0.125000
G01 X113.307553 Y132.628190 Z-0.125000
G01 X114.833143 Y130.166560 Z-0.125000
G01 X113.841753 Y132.570440 Z-0.125000
G01 X115.001583 Y130.934170 Z-0.125000
G01 X114.657473 Y132.045870 Z-0.125000
G01 X114.941423 Y132.029070 Z-0.125000
G01 X115.588713 Y131.415460 Z-0.125000
G01 X114.878853 Y133.034880 Z-0.125000
G01 X116.387593 Y131.093020 Z-0.125000
G01 X115.049703 Y133.595550 Z-0.125000
G01 X116.847193 Y131.336060 Z-0.125000
G01 X115.598333 Y133.583510 Z-0.125000
G01 X116.914563 Y132.132540 Z-0.125000
G01 X116.479033 Y133.147980 Z-0.125000
G01 X116.724473 Y133.215380 Z-0.125000
G01 X117.477643 Y132.633070 Z-0.125000
G01 X116.548813 Y134.199560 Z-0.125000
G01 X118.295773 Y132.418910 Z-0.125000
G01 X116.669133 Y134.760220 Z-0.125000
G01 X118.709643 Y132.731720 Z-0.125000
G01 X117.227383 Y134.796310 Z-0.125000
G01 X118.671153 Y133.542640 Z-0.125000
G01 X118.163423 Y134.457020 Z-0.125000
G01 X118.353523 Y134.599000 Z-0.125000
G01 X119.210163 Y134.064800 Z-0.125000
G01 X118.071983 Y135.547070 Z-0.125000
G01 X120.037913 Y133.961330 Z-0.125000
G01 X118.141773 Y136.105330 Z-0.125000
G01 X120.396443 Y134.334300 Z-0.125000
G01 X118.620623 Y136.268950 Z-0.125000
G01 X120.415703 Y135.003250 Z-0.125000
G01 X119.571093 Y136.052390 Z-0.125000
G01 X119.910383 Y136.076490 Z-0.125000
G01 X120.637083 Y135.797360 Z-0.125000
G01 X119.636063 Y136.899430 Z-0.125000
G01 X121.344523 Y135.883980 Z-0.125000
G01 X120.641893 Y136.723780 Z-0.125000
G01 X120.317043 Y137.253160 Z-0.125000
G01 X120.673173 Y137.289260 Z-0.125000
G01 X121.464833 Y137.034200 Z-0.125000
G01 X121.498433 Y137.308510 Z-0.125000
G01 X120.569613 Y138.203640 Z-0.125000
G01 X122.121663 Y137.496200 Z-0.125000
G01 X121.967663 Y137.883610 Z-0.125000
G01 X121.250593 Y138.595860 Z-0.125000
G01 X121.479193 Y138.735430 Z-0.125000
G01 X121.907513 Y138.761930 Z-0.125000
G01 X122.634203 Y138.641610 Z-0.125000
G01 X122.451323 Y139.019390 Z-0.125000
G01 X121.994133 Y139.527120 Z-0.125000
G01 X122.013433 Y139.779770 Z-0.125000
G01 X122.432133 Y139.839870 Z-0.125000
G01 X122.913383 Y139.880770 Z-0.125000
G01 X123.115513 Y140.058830 Z-0.125000
G01 X123.057713 Y140.349990 Z-0.125000
G01 X122.576463 Y140.816810 Z-0.125000
G01 X122.612563 Y141.055030 Z-0.125000
G01 X123.603963 Y140.922690 Z-0.125000
G01 X123.688163 Y141.153690 Z-0.125000
G01 X123.024033 Y141.654190 Z-0.125000
G01 X122.843563 Y141.967010 Z-0.125000
G01 X124.121293 Y141.791350 Z-0.125000
G01 X123.827733 Y142.145070 Z-0.125000
G01 X122.785803 Y142.715360 Z-0.125000
G01 X123.904733 Y142.633460 Z-0.125000
G01 X124.393203 Y142.751370 Z-0.125000
G01 X123.709823 Y143.186900 Z-0.125000
G01 X123.526943 Y143.475650 Z-0.125000
G01 X123.659293 Y143.687410 Z-0.125000
G01 X124.102053 Y143.834190 Z-0.125000
G01 X124.708433 Y143.956910 Z-0.125000
G01 X124.275303 Y144.293790 Z-0.125000
G01 X123.938423 Y144.599390 Z-0.125000
G01 X123.806073 Y144.861670 Z-0.125000
G01 X124.029853 Y145.066210 Z-0.125000
G01 X124.893703 Y145.186520 Z-0.125000
G01 X124.638653 Y145.470460 Z-0.125000
G01 X123.709823 Y145.821780 Z-0.125000
G01 X124.034673 Y146.021500 Z-0.125000
G01 X124.944243 Y146.180310 Z-0.125000
G01 X124.826333 Y146.435380 Z-0.125000
G01 X124.027443 Y146.731350 Z-0.125000
G01 X123.986543 Y146.969570 Z-0.125000
G01 X124.643453 Y147.181330 Z-0.125000
G01 X124.814293 Y147.419550 Z-0.125000
G01 X124.862393 Y147.662580 Z-0.125000
G01 X124.265633 Y147.908020 Z-0.125000
G01 X123.897473 Y148.139020 Z-0.125000
G01 X124.542353 Y148.389280 Z-0.125000
G01 X125.001963 Y148.651560 Z-0.125000
G01 X124.737273 Y148.882560 Z-0.125000
G01 X124.111633 Y149.087100 Z-0.125000
G01 X124.017833 Y149.315690 Z-0.125000
G01 X124.616993 Y149.606860 Z-0.125000
G01 X124.915373 Y149.881170 Z-0.125000
G01 X124.621813 Y150.095330 Z-0.125000
G01 X123.986553 Y150.258960 Z-0.125000
G01 X123.907153 Y150.485150 Z-0.125000
G01 X124.333073 Y150.790740 Z-0.125000
G01 X124.638673 Y151.086710 Z-0.125000
G01 X124.619373 Y151.332150 Z-0.125000
G01 X124.323393 Y151.524660 Z-0.125000
G01 X123.914333 Y151.685880 Z-0.125000
G01 X123.702583 Y151.880790 Z-0.125000
G01 X123.854173 Y152.159920 Z-0.125000
G01 X124.111643 Y152.467920 Z-0.125000
G01 X124.268053 Y152.759080 Z-0.125000
G01 X124.102023 Y152.968430 Z-0.125000
G01 X124.022623 Y153.199430 Z-0.125000
G01 X123.656873 Y153.341400 Z-0.125000
G01 X123.375333 Y153.502620 Z-0.125000
G01 X123.315233 Y153.731220 Z-0.125000
