%
(Header)
(Generated by gcodetools from Inkscape.)
(Using default header. To add your own header create file "header" in the output dir.)
M3
(Header end.)
G21 (All units in mm)

(Start cutting path id: polyline136)
(Change tool to Default tool)

G00 Z3.000000
G00 X106.263067 Y130.927031

G00 Z4.875000 (Fast pre-penetrate)
G01 Z-0.125000 F400.0(Penetrate)
G01 X106.361703 Y131.058238 Z-0.125000 F800.000000
G01 X106.223353 Y131.136157 Z-0.125000
G01 X105.904133 Y130.887476 Z-0.125000
G01 X105.846586 Y130.608949 Z-0.125000
G01 X105.981471 Y130.415195 Z-0.125000
G01 X106.189512 Y130.374370 Z-0.125000
G01 X106.444888 Y130.440119 Z-0.125000
G01 X106.890234 Y130.817176 Z-0.125000
G01 X107.030595 Y131.293796 Z-0.125000
G01 X106.826417 Y131.676092 Z-0.125000
G01 X106.526459 Y131.788196 Z-0.125000
G01 X106.167367 Y131.740412 Z-0.125000
G01 X105.799358 Y131.537159 Z-0.125000
G01 X105.482309 Y131.214341 Z-0.125000
G01 X105.253444 Y130.812361 Z-0.125000
G01 X105.155760 Y130.397098 Z-0.125000
G01 X105.206851 Y130.041948 Z-0.125000
G01 X105.398753 Y129.786334 Z-0.125000
G01 X105.797771 Y129.647560 Z-0.125000
G01 X106.319820 Y129.720400 Z-0.125000
G01 X106.872242 Y129.990301 Z-0.125000
G01 X107.343094 Y130.403474 Z-0.125000
G01 X107.630379 Y130.852683 Z-0.125000
G01 X107.741239 Y131.315121 Z-0.125000
G01 X107.668690 Y131.758774 Z-0.125000
G01 X107.421014 Y132.129217 Z-0.125000
G01 X106.930080 Y132.400176 Z-0.125000
G01 X106.336859 Y132.401499 Z-0.125000
G01 X105.727312 Y132.131386 Z-0.125000
G01 X105.163486 Y131.622143 Z-0.125000
G01 X104.709171 Y130.915310 Z-0.125000
G01 X104.487873 Y130.179769 Z-0.125000
G01 X104.534546 Y129.544638 Z-0.125000
G01 X104.842970 Y129.094159 Z-0.125000
G01 X105.426746 Y128.883154 Z-0.125000
G01 X106.192238 Y128.977927 Z-0.125000
G01 X107.053164 Y129.369722 Z-0.125000
G01 X107.799077 Y129.967362 Z-0.125000
G01 X108.250958 Y130.588126 Z-0.125000
G01 X108.449475 Y131.231169 Z-0.125000
G01 X108.385948 Y131.869184 Z-0.125000
G01 X108.064956 Y132.448277 Z-0.125000
G01 X107.756426 Y132.735720 Z-0.125000
G01 X107.385348 Y132.941619 Z-0.125000
G01 X106.983976 Y133.046473 Z-0.125000
G01 X106.572576 Y133.048854 Z-0.125000
G01 X105.739060 Y132.757125 Z-0.125000
G01 X104.933352 Y132.088815 Z-0.125000
G01 X104.214850 Y131.046728 Z-0.125000
G01 X103.844249 Y129.953418 Z-0.125000
G01 X103.811070 Y129.452907 Z-0.125000
G01 X103.883698 Y128.998088 Z-0.125000
G01 X104.059196 Y128.623042 Z-0.125000
G01 X104.327589 Y128.341499 Z-0.125000
G01 X104.650301 Y128.169414 Z-0.125000
G01 X105.026829 Y128.085886 Z-0.125000
G01 X105.965675 Y128.179707 Z-0.125000
G01 X107.029775 Y128.613596 Z-0.125000
G01 X108.048261 Y129.317334 Z-0.125000
G01 X108.720170 Y130.046446 Z-0.125000
G01 X109.098603 Y130.810456 Z-0.125000
G01 X109.163505 Y131.584493 Z-0.125000
G01 X108.921755 Y132.339375 Z-0.125000
G01 X108.574861 Y132.837214 Z-0.125000
G01 X108.129382 Y133.238984 Z-0.125000
G01 X107.623923 Y133.517034 Z-0.125000
G01 X107.074913 Y133.656390 Z-0.125000
G01 X106.542334 Y133.645886 Z-0.125000
G01 X106.011475 Y133.496529 Z-0.125000
G01 X105.479927 Y133.207710 Z-0.125000
G01 X104.961583 Y132.788954 Z-0.125000
G01 X104.376008 Y132.140699 Z-0.125000
G01 X103.864833 Y131.381267 Z-0.125000
G01 X103.479548 Y130.591010 Z-0.125000
G01 X103.245286 Y129.828218 Z-0.125000
G01 X103.165170 Y129.107520 Z-0.125000
G01 X103.243936 Y128.464319 Z-0.125000
G01 X103.476611 Y127.933697 Z-0.125000
G01 X103.849990 Y127.544258 Z-0.125000
G01 X104.201542 Y127.358626 Z-0.125000
G01 X104.617942 Y127.258270 Z-0.125000
G01 X105.611557 Y127.321638 Z-0.125000
G01 X106.783925 Y127.734493 Z-0.125000
G01 X107.976876 Y128.435506 Z-0.125000
G01 X108.945065 Y129.259311 Z-0.125000
G01 X109.578265 Y130.093727 Z-0.125000
G01 X109.873116 Y130.933196 Z-0.125000
G01 X109.833270 Y131.777321 Z-0.125000
G01 X109.557707 Y132.479604 Z-0.125000
G01 X109.076907 Y133.155084 Z-0.125000
G01 X108.444315 Y133.722562 Z-0.125000
G01 X107.756743 Y134.097000 Z-0.125000
G01 X107.091635 Y134.257655 Z-0.125000
G01 X106.442718 Y134.227122 Z-0.125000
G01 X105.789542 Y134.004475 Z-0.125000
G01 X105.149199 Y133.594636 Z-0.125000
G01 X104.381749 Y132.851608 Z-0.125000
G01 X103.634858 Y131.849023 Z-0.125000
G01 X103.050632 Y130.780187 Z-0.125000
G01 X102.678284 Y129.727015 Z-0.125000
G01 X102.543453 Y128.780839 Z-0.125000
G01 X102.628913 Y127.922241 Z-0.125000
G01 X102.930353 Y127.211227 Z-0.125000
G01 X103.429991 Y126.701455 Z-0.125000
G01 X104.246150 Y126.399989 Z-0.125000
G01 X105.302895 Y126.444968 Z-0.125000
G01 X106.535243 Y126.840652 Z-0.125000
G01 X107.886786 Y127.568573 Z-0.125000
G01 X109.115827 Y128.493026 Z-0.125000
G01 X110.023373 Y129.467565 Z-0.125000
G01 X110.502030 Y130.375719 Z-0.125000
G01 X110.606990 Y131.295833 Z-0.125000
G01 X110.385614 Y132.152817 Z-0.125000
G01 X109.876926 Y133.029566 Z-0.125000
G01 X109.123632 Y133.852631 Z-0.125000
G01 X108.269796 Y134.462918 Z-0.125000
G01 X107.479778 Y134.781344 Z-0.125000
G01 X106.684732 Y134.859078 Z-0.125000
G01 X105.938238 Y134.692629 Z-0.125000
G01 X105.188516 Y134.275514 Z-0.125000
G01 X104.256734 Y133.402734 Z-0.125000
G01 X103.319184 Y132.145753 Z-0.125000
G01 X102.549406 Y130.757380 Z-0.125000
G01 X102.095435 Y129.491218 Z-0.125000
G01 X101.939383 Y128.334726 Z-0.125000
G01 X102.061515 Y127.296158 Z-0.125000
G01 X102.459236 Y126.414700 Z-0.125000
G01 X103.087541 Y125.813938 Z-0.125000
G01 X103.521801 Y125.611505 Z-0.125000
G01 X103.993394 Y125.505619 Z-0.125000
G01 X105.084799 Y125.554673 Z-0.125000
G01 X106.384166 Y125.959750 Z-0.125000
G01 X107.804607 Y126.697328 Z-0.125000
G01 X109.290610 Y127.753993 Z-0.125000
G01 X110.462528 Y128.886725 Z-0.125000
G01 X111.117662 Y129.899443 Z-0.125000
G01 X111.278899 Y130.390192 Z-0.125000
G01 X111.334064 Y130.865833 Z-0.125000
G01 X111.164070 Y131.826983 Z-0.125000
G01 X110.633581 Y132.852983 Z-0.125000
G01 X109.738893 Y133.931609 Z-0.125000
G01 X108.689107 Y134.794229 Z-0.125000
G01 X107.733936 Y135.280797 Z-0.125000
G01 X106.835995 Y135.460396 Z-0.125000
G01 X105.973877 Y135.341942 Z-0.125000
G01 X105.144489 Y134.923663 Z-0.125000
G01 X104.097084 Y133.944335 Z-0.125000
G01 X102.993535 Y132.420417 Z-0.125000
G01 X102.033522 Y130.679566 Z-0.125000
G01 X101.501128 Y129.171099 Z-0.125000
G01 X101.353253 Y127.856466 Z-0.125000
G01 X101.536238 Y126.629700 Z-0.125000
G01 X102.030083 Y125.610579 Z-0.125000
G01 X102.379517 Y125.217515 Z-0.125000
G01 X102.797294 Y124.910334 Z-0.125000
G01 X103.255234 Y124.706711 Z-0.125000
G01 X103.769716 Y124.594422 Z-0.125000
G01 X104.949015 Y124.650170 Z-0.125000
G01 X106.314184 Y125.076360 Z-0.125000
G01 X107.817968 Y125.855213 Z-0.125000
G01 X109.533048 Y127.065230 Z-0.125000
G01 X110.946424 Y128.379784 Z-0.125000
G01 X111.749248 Y129.500479 Z-0.125000
G01 X111.952818 Y130.007658 Z-0.125000
G01 X112.045554 Y130.522748 Z-0.125000
G01 X112.027616 Y131.023842 Z-0.125000
G01 X111.897229 Y131.571185 Z-0.125000
G01 X111.294430 Y132.754876 Z-0.125000
G01 X110.235436 Y134.054905 Z-0.125000
G01 X108.948108 Y135.171683 Z-0.125000
G01 X107.874509 Y135.784034 Z-0.125000
G01 X106.844117 Y136.055972 Z-0.125000
G01 X105.897466 Y135.973105 Z-0.125000
G01 X104.997407 Y135.541252 Z-0.125000
G01 X104.438185 Y135.080322 Z-0.125000
G01 X103.894837 Y134.488688 Z-0.125000
G01 X102.676591 Y132.723073 Z-0.125000
G01 X101.475146 Y130.500073 Z-0.125000
G01 X100.902033 Y128.810843 Z-0.125000
G01 X100.784955 Y127.340529 Z-0.125000
G01 X100.877241 Y126.596283 Z-0.125000
G01 X101.061709 Y125.916570 Z-0.125000
G01 X101.336531 Y125.290011 Z-0.125000
G01 X101.697184 Y124.739625 Z-0.125000
G01 X102.117025 Y124.305127 Z-0.125000
G01 X102.608858 Y123.972916 Z-0.125000
G01 X103.111248 Y123.769981 Z-0.125000
G01 X103.667878 Y123.663010 Z-0.125000
G01 X104.889934 Y123.734342 Z-0.125000
G01 X106.332943 Y124.192150 Z-0.125000
G01 X107.884246 Y125.005240 Z-0.125000
G01 X109.771278 Y126.351676 Z-0.125000
G01 X111.422726 Y127.871864 Z-0.125000
G01 X112.371203 Y129.106938 Z-0.125000
G01 X112.624118 Y129.653646 Z-0.125000
G01 X112.751383 Y130.204375 Z-0.125000
G01 X112.746435 Y130.769657 Z-0.125000
G01 X112.607846 Y131.358804 Z-0.125000
G01 X111.928582 Y132.659203 Z-0.125000
G01 X110.647313 Y134.214210 Z-0.125000
G01 X109.123235 Y135.568081 Z-0.125000
G01 X107.895993 Y136.314443 Z-0.125000
G01 X106.768076 Y136.658692 Z-0.125000
G01 X106.227560 Y136.679436 Z-0.125000
G01 X105.708659 Y136.595960 Z-0.125000
G01 X104.746900 Y136.133389 Z-0.125000
G01 X104.193948 Y135.664733 Z-0.125000
G01 X103.632106 Y135.027829 Z-0.125000
G01 X102.379782 Y133.100871 Z-0.125000
G01 X100.877612 Y130.237448 Z-0.125000
G01 X100.511323 Y129.282409 Z-0.125000
G01 X100.288068 Y128.370974 Z-0.125000
G01 X100.206920 Y127.543834 Z-0.125000
G01 X100.240919 Y126.741857 Z-0.125000
G01 X100.385276 Y125.946759 Z-0.125000
G01 X100.649488 Y125.149305 Z-0.125000
G01 X101.000987 Y124.451917 Z-0.125000
G01 X101.441385 Y123.845149 Z-0.125000
G01 X101.938457 Y123.373398 Z-0.125000
G01 X102.508951 Y123.021264 Z-0.125000
G01 X103.050553 Y122.824124 Z-0.125000
G01 X103.642822 Y122.724984 Z-0.125000
G01 X104.965578 Y122.824176 Z-0.125000
G01 X106.471664 Y123.322413 Z-0.125000
G01 X108.082630 Y124.192044 Z-0.125000
G01 X110.066500 Y125.652066 Z-0.125000
G01 X111.935276 Y127.403235 Z-0.125000
G01 X113.027369 Y128.791185 Z-0.125000
G01 X113.314415 Y129.376892 Z-0.125000
G01 X113.456681 Y129.930823 Z-0.125000
G01 X113.460862 Y130.529283 Z-0.125000
G01 X113.311743 Y131.155657 Z-0.125000
G01 X113.012949 Y131.819602 Z-0.125000
G01 X112.548712 Y132.561916 Z-0.125000
G01 X111.016459 Y134.380527 Z-0.125000
G01 X109.194487 Y136.012343 Z-0.125000
G01 X107.812412 Y136.880572 Z-0.125000
G01 X106.596706 Y137.277182 Z-0.125000
G01 X106.036769 Y137.310254 Z-0.125000
G01 X105.500089 Y137.235827 Z-0.125000
G01 X104.989920 Y137.056387 Z-0.125000
G01 X104.475359 Y136.755397 Z-0.125000
G01 X103.933942 Y136.294811 Z-0.125000
G01 X103.380541 Y135.659627 Z-0.125000
G01 X102.231933 Y133.830644 Z-0.125000
G01 X100.266796 Y129.962044 Z-0.125000
G01 X99.878414 Y128.905908 Z-0.125000
G01 X99.677199 Y127.959468 Z-0.125000
G01 X99.628674 Y127.053192 Z-0.125000
G01 X99.714902 Y126.166151 Z-0.125000
G01 X99.928711 Y125.282761 Z-0.125000
G01 X100.277538 Y124.396937 Z-0.125000
G01 X100.737595 Y123.591758 Z-0.125000
G01 X101.267369 Y122.932788 Z-0.125000
G01 X101.847679 Y122.429233 Z-0.125000
G01 X102.500352 Y122.063183 Z-0.125000
G01 X103.074921 Y121.876387 Z-0.125000
G01 X103.695791 Y121.787038 Z-0.125000
G01 X105.111072 Y121.912794 Z-0.125000
G01 X106.660999 Y122.440187 Z-0.125000
G01 X108.308796 Y123.349532 Z-0.125000
G01 X110.315102 Y124.869879 Z-0.125000
G01 X112.402001 Y126.877932 Z-0.125000
G01 X113.654219 Y128.438416 Z-0.125000
G01 X113.984657 Y129.063890 Z-0.125000
G01 X114.155921 Y129.648619 Z-0.125000
G01 X114.174178 Y130.277718 Z-0.125000
G01 X114.019238 Y130.938170 Z-0.125000
G01 X113.693430 Y131.643866 Z-0.125000
G01 X113.178737 Y132.441689 Z-0.125000
G01 X112.361731 Y133.465467 Z-0.125000
G01 X111.334594 Y134.574519 Z-0.125000
G01 X109.192000 Y136.494095 Z-0.125000
G01 X107.707505 Y137.450351 Z-0.125000
G01 X107.005566 Y137.748113 Z-0.125000
G01 X106.368344 Y137.908477 Z-0.125000
G01 X105.753559 Y137.946841 Z-0.125000
G01 X105.165947 Y137.860349 Z-0.125000
G01 X104.609687 Y137.651831 Z-0.125000
G01 X104.088088 Y137.329648 Z-0.125000
G01 X103.537041 Y136.839164 Z-0.125000
G01 X103.004595 Y136.202392 Z-0.125000
G01 X101.942373 Y134.430348 Z-0.125000
G01 X99.591580 Y129.566042 Z-0.125000
G01 X99.232964 Y128.524564 Z-0.125000
G01 X99.059900 Y127.546904 Z-0.125000
G01 X99.051778 Y126.603295 Z-0.125000
G01 X99.197827 Y125.627513 Z-0.125000
G01 X99.508659 Y124.605587 Z-0.125000
G01 X99.959006 Y123.630387 Z-0.125000
G01 X100.522171 Y122.750490 Z-0.125000
G01 X101.145899 Y122.038418 Z-0.125000
G01 X101.845324 Y121.479301 Z-0.125000
G01 X102.582241 Y121.105763 Z-0.125000
G01 X103.223987 Y120.924947 Z-0.125000
G01 X103.868776 Y120.853033 Z-0.125000
G01 X104.600983 Y120.881052 Z-0.125000
G01 X105.374015 Y121.016360 Z-0.125000
G01 X107.005248 Y121.596749 Z-0.125000
G01 X108.720725 Y122.582374 Z-0.125000
G01 X110.751320 Y124.200140 Z-0.125000
G01 X112.929526 Y126.401656 Z-0.125000
G01 X114.314698 Y128.143221 Z-0.125000
G01 X114.674345 Y128.806319 Z-0.125000
G01 X114.861009 Y129.420495 Z-0.125000
G01 X114.878736 Y130.081344 Z-0.125000
G01 X114.703000 Y130.780372 Z-0.125000
G01 X114.310808 Y131.575471 Z-0.125000
G01 X113.721608 Y132.437826 Z-0.125000
G01 X112.752123 Y133.599425 Z-0.125000
G01 X111.544249 Y134.863973 Z-0.125000
G01 X110.272055 Y136.061343 Z-0.125000
G01 X109.064630 Y137.062234 Z-0.125000
G01 X107.499595 Y138.069105 Z-0.125000
G01 X106.787708 Y138.372529 Z-0.125000
G01 X106.094395 Y138.547286 Z-0.125000
G01 X105.424868 Y138.583137 Z-0.125000
G01 X104.829397 Y138.488654 Z-0.125000
G01 X104.263877 Y138.273654 Z-0.125000
G01 X103.693198 Y137.916441 Z-0.125000
G01 X103.130113 Y137.406325 Z-0.125000
G01 X102.619044 Y136.788312 Z-0.125000
G01 X101.591245 Y135.033650 Z-0.125000
G01 X98.914962 Y129.203855 Z-0.125000
G01 X98.584127 Y128.186639 Z-0.125000
G01 X98.436860 Y127.182917 Z-0.125000
G01 X98.478902 Y126.107307 Z-0.125000
G01 X98.706708 Y125.036990 Z-0.125000
G01 X99.126099 Y123.915634 Z-0.125000
G01 X99.695058 Y122.851190 Z-0.125000
G01 X100.374058 Y121.900041 Z-0.125000
G01 X101.134839 Y121.108038 Z-0.125000
G01 X101.928271 Y120.529501 Z-0.125000
G01 X102.792426 Y120.140776 Z-0.125000
G01 X103.458513 Y119.984143 Z-0.125000
G01 X104.167860 Y119.930009 Z-0.125000
G01 X104.970790 Y119.985598 Z-0.125000
G01 X105.761338 Y120.143263 Z-0.125000
G01 X107.468083 Y120.782707 Z-0.125000
G01 X109.183375 Y121.807066 Z-0.125000
G01 X111.163673 Y123.456424 Z-0.125000
G01 X113.337063 Y125.760995 Z-0.125000
G01 X114.948586 Y127.803417 Z-0.125000
G01 X115.343238 Y128.506334 Z-0.125000
G01 X115.553078 Y129.147049 Z-0.125000
G01 X115.578214 Y129.870339 Z-0.125000
G01 X115.385597 Y130.605959 Z-0.125000
G01 X114.951575 Y131.456832 Z-0.125000
G01 X114.296865 Y132.388032 Z-0.125000
G01 X113.222473 Y133.643875 Z-0.125000
G01 X111.785258 Y135.117708 Z-0.125000
G01 X110.225250 Y136.566326 Z-0.125000
G01 X108.922152 Y137.638575 Z-0.125000
G01 X107.246389 Y138.705480 Z-0.125000
G01 X106.483464 Y139.018270 Z-0.125000
G01 X105.790627 Y139.179957 Z-0.125000
G01 X105.117158 Y139.207420 Z-0.125000
G01 X104.468427 Y139.096534 Z-0.125000
G01 X103.850625 Y138.849784 Z-0.125000
G01 X103.227321 Y138.442802 Z-0.125000
G01 X102.654419 Y137.908106 Z-0.125000
G01 X102.101441 Y137.220958 Z-0.125000
G01 X101.100417 Y135.448648 Z-0.125000
G01 X99.597215 Y131.794175 Z-0.125000
G01 X98.204424 Y128.798672 Z-0.125000
G01 X97.901265 Y127.761163 Z-0.125000
G01 X97.800856 Y126.776544 Z-0.125000
G01 X97.899122 Y125.660850 Z-0.125000
G01 X98.214954 Y124.491949 Z-0.125000
G01 X98.753169 Y123.267115 Z-0.125000
G01 X99.485879 Y122.060458 Z-0.125000
G01 X100.329819 Y121.000803 Z-0.125000
G01 X101.202837 Y120.174642 Z-0.125000
G01 X102.132529 Y119.561101 Z-0.125000
G01 X103.086457 Y119.187483 Z-0.125000
G01 X103.817870 Y119.051091 Z-0.125000
G01 X104.595453 Y119.024579 Z-0.125000
G01 X105.417618 Y119.108214 Z-0.125000
G01 X106.276957 Y119.301386 Z-0.125000
G01 X108.054346 Y120.007929 Z-0.125000
G01 X109.750747 Y121.066049 Z-0.125000
G01 X111.650770 Y122.726281 Z-0.125000
G01 X113.780293 Y125.111126 Z-0.125000
G01 X115.583638 Y127.456390 Z-0.125000
G01 X116.006812 Y128.203652 Z-0.125000
G01 X116.233956 Y128.869898 Z-0.125000
G01 X116.268167 Y129.613297 Z-0.125000
G01 X116.056739 Y130.416200 Z-0.125000
G01 X115.560381 Y131.366556 Z-0.125000
G01 X114.793487 Y132.431582 Z-0.125000
G01 X113.595958 Y133.798762 Z-0.125000
G01 X112.022721 Y135.379539 Z-0.125000
G01 X110.228716 Y137.026092 Z-0.125000
G01 X108.729695 Y138.248598 Z-0.125000
G01 X107.781694 Y138.898202 Z-0.125000
G01 X106.961645 Y139.345797 Z-0.125000
G01 X106.209409 Y139.637553 Z-0.125000
G01 X105.468603 Y139.792652 Z-0.125000
G01 X104.743619 Y139.799266 Z-0.125000
G01 X104.041046 Y139.652396 Z-0.125000
G01 X103.369243 Y139.355084 Z-0.125000
G01 X102.737339 Y138.918654 Z-0.125000
G01 X102.111442 Y138.314850 Z-0.125000
G01 X101.550129 Y137.601719 Z-0.125000
G01 X101.024138 Y136.752381 Z-0.125000
G01 X100.516879 Y135.725217 Z-0.125000
G01 X98.944701 Y131.579201 Z-0.125000
G01 X97.495209 Y128.433654 Z-0.125000
G01 X97.217926 Y127.377888 Z-0.125000
G01 X97.157892 Y126.369456 Z-0.125000
G01 X97.330057 Y125.156793 Z-0.125000
G01 X97.758469 Y123.883011 Z-0.125000
G01 X98.441305 Y122.554487 Z-0.125000
G01 X99.330436 Y121.259089 Z-0.125000
G01 X100.357971 Y120.093071 Z-0.125000
G01 X101.386617 Y119.207856 Z-0.125000
G01 X102.409415 Y118.599500 Z-0.125000
G01 X103.448353 Y118.246705 Z-0.125000
G01 X104.244589 Y118.133914 Z-0.125000
G01 X105.034237 Y118.134443 Z-0.125000
G01 X105.927628 Y118.248346 Z-0.125000
G01 X106.796413 Y118.459986 Z-0.125000
G01 X108.639498 Y119.215132 Z-0.125000
G01 X110.365558 Y120.324820 Z-0.125000
G01 X112.165860 Y121.965975 Z-0.125000
G01 X114.278212 Y124.461707 Z-0.125000
G01 X116.200592 Y127.059462 Z-0.125000
G01 X116.671259 Y127.904329 Z-0.125000
G01 X116.905256 Y128.598304 Z-0.125000
G01 X116.929122 Y129.434783 Z-0.125000
G01 X116.668137 Y130.308092 Z-0.125000
G01 X116.082774 Y131.370393 Z-0.125000
G01 X115.182159 Y132.590120 Z-0.125000
G01 X113.905282 Y134.025271 Z-0.125000
G01 X112.203405 Y135.704553 Z-0.125000
G01 X110.122036 Y137.580791 Z-0.125000
G01 X108.499931 Y138.881137 Z-0.125000
G01 X107.574869 Y139.499864 Z-0.125000
G01 X106.716271 Y139.951878 Z-0.125000
G01 X105.922389 Y140.237574 Z-0.125000
G01 X105.133429 Y140.374152 Z-0.125000
G01 X104.354444 Y140.348011 Z-0.125000
G01 X103.651500 Y140.174471 Z-0.125000
G01 X102.917997 Y139.828026 Z-0.125000
G01 X102.225874 Y139.330002 Z-0.125000
G01 X101.587541 Y138.703099 Z-0.125000
G01 X100.971671 Y137.917419 Z-0.125000
G01 X100.402156 Y136.991696 Z-0.125000
G01 X99.896379 Y135.952600 Z-0.125000
G01 X98.283534 Y131.363249 Z-0.125000
G01 X96.792424 Y128.109989 Z-0.125000
G01 X96.543610 Y127.096054 Z-0.125000
G01 X96.504267 Y126.077357 Z-0.125000
G01 X96.713737 Y124.835854 Z-0.125000
G01 X97.197897 Y123.524131 Z-0.125000
G01 X97.958362 Y122.146182 Z-0.125000
G01 X98.939674 Y120.791015 Z-0.125000
G01 X100.105691 Y119.506094 Z-0.125000
G01 X101.289118 Y118.484698 Z-0.125000
G01 X102.433016 Y117.780828 Z-0.125000
G01 X103.581677 Y117.371041 Z-0.125000
G01 X104.423897 Y117.243645 Z-0.125000
G01 X105.325728 Y117.240946 Z-0.125000
G01 X106.285424 Y117.363130 Z-0.125000
G01 X107.221651 Y117.589349 Z-0.125000
G01 X109.132760 Y118.360053 Z-0.125000
G01 X110.064913 Y118.899114 Z-0.125000
G01 X110.958330 Y119.534510 Z-0.125000
G01 X111.861987 Y120.312516 Z-0.125000
G01 X112.762178 Y121.235435 Z-0.125000
G01 X114.941733 Y123.950639 Z-0.125000
G01 X116.865225 Y126.696613 Z-0.125000
G01 X117.345522 Y127.611568 Z-0.125000
G01 X117.573170 Y128.339700 Z-0.125000
G01 X117.573963 Y129.229466 Z-0.125000
G01 X117.243579 Y130.207947 Z-0.125000
G01 X116.527194 Y131.440825 Z-0.125000
G01 X115.427058 Y132.897433 Z-0.125000
G01 X114.078213 Y134.393994 Z-0.125000
G01 X112.458145 Y135.969480 Z-0.125000
G01 X110.101504 Y138.061458 Z-0.125000
G01 X108.371396 Y139.436073 Z-0.125000
G01 X107.417336 Y140.063399 Z-0.125000
G01 X106.523760 Y140.517027 Z-0.125000
G01 X105.688075 Y140.795262 Z-0.125000
G01 X104.847759 Y140.912896 Z-0.125000
G01 X104.008872 Y140.854291 Z-0.125000
G01 X103.245418 Y140.638100 Z-0.125000
G01 X102.504612 Y140.269748 Z-0.125000
G01 X101.743142 Y139.713488 Z-0.125000
G01 X100.989292 Y138.961570 Z-0.125000
G01 X100.320771 Y138.093579 Z-0.125000
G01 X99.711039 Y137.087237 Z-0.125000
G01 X99.183593 Y135.977867 Z-0.125000
G01 X98.720837 Y134.720357 Z-0.125000
G01 X97.616362 Y131.138380 Z-0.125000
G01 X96.085590 Y127.776932 Z-0.125000
G01 X95.861621 Y126.758314 Z-0.125000
G01 X95.852916 Y125.729695 Z-0.125000
G01 X96.107313 Y124.461628 Z-0.125000
G01 X96.651507 Y123.117916 Z-0.125000
G01 X97.491770 Y121.700651 Z-0.125000
G01 X98.567035 Y120.299420 Z-0.125000
G01 X99.941015 Y118.849478 Z-0.125000
G01 X101.291922 Y117.704125 Z-0.125000
G01 X102.504586 Y116.945274 Z-0.125000
G01 X103.707645 Y116.501251 Z-0.125000
G01 X104.592357 Y116.361181 Z-0.125000
G01 X105.546629 Y116.352185 Z-0.125000
G01 X106.570644 Y116.473020 Z-0.125000
G01 X107.649587 Y116.723713 Z-0.125000
G01 X108.681699 Y117.075449 Z-0.125000
G01 X109.708572 Y117.540136 Z-0.125000
G01 X110.701896 Y118.113382 Z-0.125000
G01 X111.576317 Y118.738301 Z-0.125000
G01 X112.517094 Y119.562741 Z-0.125000
G01 X113.385297 Y120.483728 Z-0.125000
G01 X115.645391 Y123.418880 Z-0.125000
G01 X117.528323 Y126.267407 Z-0.125000
G01 X118.003276 Y127.232685 Z-0.125000
G01 X118.234521 Y128.017729 Z-0.125000
G01 X118.218540 Y128.965783 Z-0.125000
G01 X117.827698 Y130.028269 Z-0.125000
G01 X116.920761 Y131.534963 Z-0.125000
G01 X115.672167 Y133.179929 Z-0.125000
G01 X114.294484 Y134.714325 Z-0.125000
G01 X112.734158 Y136.224961 Z-0.125000
G01 X110.118147 Y138.514477 Z-0.125000
G01 X108.295725 Y139.953544 Z-0.125000
G01 X107.318594 Y140.585951 Z-0.125000
G01 X106.391760 Y141.039472 Z-0.125000
G01 X105.512392 Y141.309850 Z-0.125000
G01 X104.684988 Y141.408195 Z-0.125000
G01 X103.778897 Y141.333821 Z-0.125000
G01 X102.945778 Y141.091172 Z-0.125000
G01 X102.131762 Y140.684561 Z-0.125000
G01 X101.291684 Y140.075014 Z-0.125000
G01 X100.459465 Y139.256051 Z-0.125000
G01 X99.723898 Y138.317469 Z-0.125000
G01 X99.059239 Y137.239558 Z-0.125000
G01 X98.495915 Y136.065973 Z-0.125000
G01 X97.978629 Y134.603015 Z-0.125000
G01 X96.942919 Y130.888428 Z-0.125000
G01 X95.393574 Y127.484700 Z-0.125000
G01 X95.196750 Y126.534530 Z-0.125000
G01 X95.195692 Y125.515859 Z-0.125000
G01 X95.457656 Y124.239457 Z-0.125000
G01 X96.017222 Y122.877622 Z-0.125000
G01 X96.844785 Y121.501658 Z-0.125000
G01 X97.980640 Y120.044309 Z-0.125000
G01 X99.519957 Y118.439137 Z-0.125000
G01 X101.175956 Y117.014675 Z-0.125000
G01 X102.454103 Y116.173036 Z-0.125000
G01 X103.699310 Y115.674932 Z-0.125000
G01 X104.613683 Y115.510044 Z-0.125000
G01 X105.675798 Y115.483983 Z-0.125000
G01 X106.832767 Y115.607014 Z-0.125000
G01 X107.988280 Y115.857177 Z-0.125000
G01 X109.100164 Y116.211586 Z-0.125000
G01 X110.208581 Y116.686354 Z-0.125000
G01 X111.276888 Y117.281665 Z-0.125000
G01 X112.207215 Y117.936720 Z-0.125000
G01 X113.129816 Y118.743116 Z-0.125000
G01 X114.032176 Y119.712178 Z-0.125000
G01 X116.285709 Y122.712761 Z-0.125000
G01 X118.157872 Y125.680853 Z-0.125000
G01 X118.650737 Y126.729792 Z-0.125000
G01 X118.905266 Y127.614610 Z-0.125000
G01 X118.890105 Y128.612088 Z-0.125000
G01 X118.456559 Y129.730084 Z-0.125000
G01 X117.309539 Y131.592245 Z-0.125000
G01 X115.813349 Y133.568469 Z-0.125000
G01 X114.432384 Y135.109691 Z-0.125000
G01 X112.965351 Y136.529867 Z-0.125000
G01 X110.047344 Y139.048671 Z-0.125000
G01 X108.279295 Y140.433921 Z-0.125000
G01 X107.283140 Y141.068709 Z-0.125000
G01 X106.322836 Y141.520881 Z-0.125000
G01 X105.395763 Y141.783771 Z-0.125000
G01 X104.510151 Y141.867326 Z-0.125000
G01 X103.604325 Y141.781284 Z-0.125000
G01 X102.693471 Y141.517521 Z-0.125000
G01 X101.797805 Y141.078446 Z-0.125000
G01 X100.870336 Y140.421909 Z-0.125000
G01 X99.951227 Y139.542382 Z-0.125000
G01 X99.141207 Y138.538951 Z-0.125000
G01 X98.371402 Y137.316737 Z-0.125000
G01 X97.776117 Y136.080737 Z-0.125000
G01 X97.253671 Y134.550469 Z-0.125000
G01 X96.279027 Y130.659881 Z-0.125000
G01 X94.718490 Y127.240543 Z-0.125000
G01 X94.532409 Y126.256030 Z-0.125000
G01 X94.553179 Y125.248868 Z-0.125000
G01 X94.834933 Y123.964926 Z-0.125000
G01 X95.411354 Y122.587851 Z-0.125000
G01 X96.261882 Y121.194716 Z-0.125000
G01 X97.384137 Y119.777635 Z-0.125000
G01 X99.092656 Y118.022551 Z-0.125000
G01 X101.089464 Y116.294427 Z-0.125000
G01 X102.433148 Y115.383732 Z-0.125000
G01 X103.660999 Y114.871473 Z-0.125000
G01 X104.665991 Y114.682878 Z-0.125000
G01 X105.769672 Y114.652901 Z-0.125000
G01 X107.063695 Y114.780536 Z-0.125000
G01 X108.379625 Y115.048135 Z-0.125000
G01 X109.661318 Y115.436411 Z-0.125000
G01 X110.853793 Y115.928164 Z-0.125000
G01 X111.917867 Y116.501833 Z-0.125000
G01 X112.909603 Y117.187024 Z-0.125000
G01 X113.812890 Y117.974423 Z-0.125000
G01 X114.758721 Y118.994020 Z-0.125000
G01 X115.822371 Y120.348235 Z-0.125000
G01 X117.007253 Y122.036910 Z-0.125000
G01 X118.088366 Y123.729077 Z-0.125000
G01 X118.846740 Y125.085435 Z-0.125000
G01 X119.350268 Y126.221475 Z-0.125000
G01 X119.612919 Y127.185351 Z-0.125000
G01 X119.606913 Y128.200741 Z-0.125000
G01 X119.195487 Y129.255316 Z-0.125000
G01 X117.612063 Y131.741682 Z-0.125000
G01 X115.979586 Y133.912480 Z-0.125000
G01 X114.634076 Y135.432615 Z-0.125000
G01 X113.150427 Y136.883323 Z-0.125000
G01 X110.025940 Y139.554924 Z-0.125000
G01 X108.324142 Y140.881093 Z-0.125000
G01 X107.311000 Y141.515695 Z-0.125000
G01 X106.314713 Y141.965566 Z-0.125000
G01 X105.333798 Y142.221762 Z-0.125000
G01 X104.381855 Y142.292829 Z-0.125000
G01 X103.314183 Y142.168686 Z-0.125000
G01 X102.317261 Y141.858542 Z-0.125000
G01 X101.336399 Y141.363745 Z-0.125000
G01 X100.399166 Y140.701230 Z-0.125000
G01 X99.394095 Y139.756933 Z-0.125000
G01 X98.513457 Y138.687885 Z-0.125000
G01 X97.684439 Y137.395397 Z-0.125000
G01 X97.054811 Y136.094681 Z-0.125000
G01 X96.525380 Y134.481809 Z-0.125000
G01 X95.917051 Y131.543880 Z-0.125000
G01 X95.600689 Y130.394796 Z-0.125000
G01 X95.187463 Y129.374405 Z-0.125000
G01 X94.314525 Y127.708458 Z-0.125000
G01 X94.046555 Y126.996915 Z-0.125000
G01 X93.883122 Y126.048279 Z-0.125000
G01 X93.914317 Y125.071306 Z-0.125000
G01 X94.222476 Y123.713996 Z-0.125000
G01 X94.806623 Y122.326628 Z-0.125000
G01 X95.659876 Y120.919285 Z-0.125000
G01 X96.727019 Y119.563614 Z-0.125000
G01 X98.518934 Y117.723651 Z-0.125000
G01 X100.905843 Y115.630853 Z-0.125000
G01 X102.321918 Y114.637238 Z-0.125000
G01 X103.527067 Y114.109527 Z-0.125000
G01 X104.550553 Y113.903893 Z-0.125000
G01 X105.749987 Y113.864840 Z-0.125000
G01 X107.173867 Y113.993613 Z-0.125000
G01 X108.652542 Y114.267059 Z-0.125000
G01 X110.116295 Y114.672374 Z-0.125000
G01 X111.398940 Y115.162197 Z-0.125000
G01 X112.543341 Y115.741633 Z-0.125000
G01 X113.605456 Y116.444948 Z-0.125000
G01 X114.564729 Y117.266796 Z-0.125000
G01 X115.502622 Y118.266443 Z-0.125000
G01 X116.565876 Y119.611292 Z-0.125000
G01 X117.694163 Y121.233265 Z-0.125000
G01 X118.784140 Y122.981048 Z-0.125000
G01 X119.555055 Y124.409161 Z-0.125000
G01 X120.078030 Y125.634683 Z-0.125000
G01 X120.361398 Y126.697354 Z-0.125000
G01 X120.375130 Y127.776244 Z-0.125000
G01 X120.010032 Y128.765017 Z-0.125000
G01 X117.620001 Y132.295084 Z-0.125000
G01 X116.189348 Y134.191773 Z-0.125000
G01 X114.768669 Y135.822663 Z-0.125000
G01 X113.289862 Y137.286257 Z-0.125000
G01 X110.121533 Y139.984765 Z-0.125000
G01 X108.494718 Y141.255002 Z-0.125000
G01 X107.397757 Y141.933049 Z-0.125000
G01 X106.360592 Y142.379559 Z-0.125000
G01 X105.317606 Y142.630198 Z-0.125000
G01 X104.289674 Y142.691661 Z-0.125000
G01 X103.216023 Y142.568312 Z-0.125000
G01 X102.123851 Y142.248352 Z-0.125000
G01 X101.046072 Y141.733183 Z-0.125000
G01 X100.016050 Y141.039816 Z-0.125000
G01 X98.913242 Y140.048900 Z-0.125000
G01 X97.949551 Y138.925878 Z-0.125000
G01 X97.096218 Y137.651831 Z-0.125000
G01 X96.403222 Y136.275206 Z-0.125000
G01 X95.836644 Y134.552188 Z-0.125000
G01 X95.241094 Y131.382431 Z-0.125000
G01 X94.926399 Y130.160507 Z-0.125000
G01 X94.582865 Y129.268730 Z-0.125000
G01 X93.702729 Y127.605959 Z-0.125000
G01 X93.395469 Y126.811971 Z-0.125000
G01 X93.249234 Y125.919718 Z-0.125000
G01 X93.279503 Y124.995212 Z-0.125000
G01 X93.594224 Y123.581095 Z-0.125000
G01 X94.206469 Y122.103770 Z-0.125000
G01 X95.048531 Y120.683859 Z-0.125000
G01 X96.175866 Y119.226906 Z-0.125000
G01 X97.938571 Y117.409274 Z-0.125000
G01 X100.672190 Y114.978682 Z-0.125000
G01 X102.043179 Y113.976759 Z-0.125000
G01 X103.289471 Y113.389887 Z-0.125000
G01 X104.327033 Y113.166527 Z-0.125000
G01 X105.535093 Y113.120992 Z-0.125000
G01 X107.149684 Y113.255532 Z-0.125000
G01 X108.975651 Y113.564618 Z-0.125000
G01 X110.537061 Y113.957603 Z-0.125000
G01 X111.912734 Y114.435467 Z-0.125000
G01 X113.142860 Y115.010061 Z-0.125000
G01 X114.283715 Y115.720096 Z-0.125000
G01 X115.314742 Y116.564513 Z-0.125000
G01 X116.253721 Y117.530770 Z-0.125000
G01 X117.256384 Y118.766796 Z-0.125000
G01 X118.325062 Y120.286693 Z-0.125000
G01 X119.428346 Y122.063871 Z-0.125000
G01 X120.267604 Y123.638431 Z-0.125000
G01 X120.819047 Y124.943830 Z-0.125000
G01 X121.140622 Y126.112546 Z-0.125000
G01 X121.216583 Y126.795885 Z-0.125000
G01 X121.185336 Y127.397441 Z-0.125000
G01 X121.058019 Y127.921897 Z-0.125000
G01 X120.826297 Y128.426430 Z-0.125000
G01 X116.389954 Y134.476041 Z-0.125000
G01 X114.912920 Y136.205938 Z-0.125000
G01 X113.456523 Y137.677072 Z-0.125000
G01 X110.329813 Y140.348170 Z-0.125000
G01 X108.785548 Y141.563585 Z-0.125000
G01 X107.681258 Y142.252427 Z-0.125000
G01 X106.612025 Y142.716876 Z-0.125000
G01 X105.512656 Y142.990216 Z-0.125000
G01 X104.315259 Y143.073878 Z-0.125000
G01 X103.146252 Y142.955371 Z-0.125000
G01 X101.951448 Y142.632685 Z-0.125000
G01 X100.771276 Y142.104551 Z-0.125000
G01 X99.644973 Y141.387399 Z-0.125000
G01 X98.442099 Y140.356690 Z-0.125000
G01 X97.393662 Y139.183211 Z-0.125000
G01 X96.467595 Y137.842172 Z-0.125000
G01 X95.759942 Y136.463959 Z-0.125000
G01 X95.127800 Y134.506865 Z-0.125000
G01 X94.552067 Y131.195265 Z-0.125000
G01 X94.255629 Y129.972680 Z-0.125000
G01 X93.886747 Y128.989754 Z-0.125000
G01 X93.042701 Y127.407151 Z-0.125000
G01 X92.765047 Y126.687432 Z-0.125000
G01 X92.631195 Y125.872702 Z-0.125000
G01 X92.659267 Y124.947852 Z-0.125000
G01 X92.978513 Y123.489338 Z-0.125000
G01 X93.613009 Y121.926023 Z-0.125000
G01 X94.497616 Y120.401205 Z-0.125000
G01 X95.608600 Y118.926631 Z-0.125000
G01 X97.376015 Y117.061426 Z-0.125000
G01 X100.306192 Y114.398716 Z-0.125000
G01 X101.767272 Y113.295617 Z-0.125000
G01 X103.002557 Y112.689457 Z-0.125000
G01 X104.060440 Y112.456280 Z-0.125000
G01 X105.350943 Y112.424345 Z-0.125000
G01 X107.251178 Y112.604420 Z-0.125000
G01 X109.463463 Y112.963777 Z-0.125000
G01 X111.128378 Y113.353428 Z-0.125000
G01 X112.595093 Y113.830021 Z-0.125000
G01 X113.903615 Y114.411839 Z-0.125000
G01 X115.025077 Y115.079858 Z-0.125000
G01 X116.054357 Y115.875221 Z-0.125000
G01 X117.073690 Y116.871932 Z-0.125000
G01 X118.073946 Y118.076393 Z-0.125000
G01 X119.067561 Y119.478604 Z-0.125000
G01 X120.166824 Y121.260041 Z-0.125000
G01 X121.011981 Y122.865054 Z-0.125000
G01 X121.617321 Y124.316663 Z-0.125000
G01 X121.960485 Y125.563484 Z-0.125000
G01 X122.052824 Y126.286033 Z-0.125000
G01 X122.036632 Y127.003212 Z-0.125000
G01 X121.904208 Y127.626384 Z-0.125000
G01 X121.644890 Y128.210901 Z-0.125000
G01 X121.224944 Y128.797826 Z-0.125000
G01 X119.600246 Y130.613976 Z-0.125000
G01 X116.590614 Y134.763035 Z-0.125000
G01 X115.073522 Y136.583207 Z-0.125000
G01 X113.583575 Y138.125673 Z-0.125000
G01 X110.641915 Y140.656991 Z-0.125000
G01 X109.120986 Y141.863384 Z-0.125000
G01 X107.938009 Y142.595326 Z-0.125000
G01 X106.825940 Y143.063797 Z-0.125000
G01 X105.656537 Y143.347271 Z-0.125000
G01 X104.363546 Y143.444373 Z-0.125000
G01 X103.091246 Y143.336582 Z-0.125000
G01 X101.787804 Y143.018103 Z-0.125000
G01 X100.501904 Y142.484149 Z-0.125000
G01 X99.278313 Y141.749772 Z-0.125000
G01 X97.975798 Y140.685011 Z-0.125000
G01 X96.842695 Y139.462134 Z-0.125000
G01 X95.842650 Y138.044075 Z-0.125000
G01 X95.126900 Y136.653771 Z-0.125000
G01 X94.748388 Y135.639254 Z-0.125000
G01 X94.445679 Y134.524222 Z-0.125000
G01 X93.867750 Y131.079034 Z-0.125000
G01 X93.567898 Y129.778714 Z-0.125000
G01 X93.197429 Y128.759964 Z-0.125000
G01 X92.379788 Y127.212233 Z-0.125000
G01 X92.139547 Y126.569508 Z-0.125000
G01 X92.021384 Y125.775706 Z-0.125000
G01 X92.054483 Y124.926103 Z-0.125000
G01 X92.376878 Y123.438035 Z-0.125000
G01 X93.027117 Y121.796642 Z-0.125000
G01 X93.946490 Y120.166229 Z-0.125000
G01 X95.109464 Y118.575926 Z-0.125000
G01 X96.948422 Y116.572398 Z-0.125000
G01 X99.785016 Y113.910402 Z-0.125000
G01 X101.354232 Y112.674164 Z-0.125000
G01 X102.590046 Y112.027047 Z-0.125000
G01 X103.678117 Y111.770825 Z-0.125000
G01 X104.898638 Y111.750108 Z-0.125000
G01 X107.221122 Y112.007283 Z-0.125000
G01 X110.150505 Y112.461836 Z-0.125000
G01 X111.813674 Y112.826405 Z-0.125000
G01 X113.260255 Y113.265719 Z-0.125000
G01 X114.545732 Y113.798748 Z-0.125000
G01 X115.748261 Y114.467957 Z-0.125000
G01 X116.863743 Y115.277026 Z-0.125000
G01 X117.885007 Y116.220926 Z-0.125000
G01 X118.809328 Y117.284152 Z-0.125000
G01 X119.790666 Y118.639108 Z-0.125000
G01 X120.819894 Y120.293546 Z-0.125000
G01 X121.727890 Y122.006245 Z-0.125000
G01 X122.360614 Y123.493227 Z-0.125000
G01 X122.774924 Y124.904910 Z-0.125000
G01 X122.915947 Y125.919030 Z-0.125000
G01 X122.875148 Y126.896003 Z-0.125000
G01 X122.645305 Y127.720047 Z-0.125000
G01 X122.224036 Y128.446459 Z-0.125000
G01 X119.971271 Y130.726953 Z-0.125000
G01 X116.863796 Y134.970468 Z-0.125000
G01 X114.600712 Y137.692683 Z-0.125000
G01 X112.884177 Y139.365429 Z-0.125000
G01 X109.554664 Y142.118548 Z-0.125000
G01 X108.377667 Y142.854776 Z-0.125000
G01 X107.153812 Y143.372486 Z-0.125000
G01 X105.816530 Y143.695304 Z-0.125000
G01 X104.418711 Y143.809604 Z-0.125000
G01 X102.918658 Y143.700966 Z-0.125000
G01 X101.502504 Y143.374470 Z-0.125000
G01 X100.227902 Y142.877001 Z-0.125000
G01 X98.908850 Y142.131036 Z-0.125000
G01 X97.603794 Y141.121229 Z-0.125000
G01 X96.373668 Y139.857395 Z-0.125000
G01 X95.347933 Y138.457857 Z-0.125000
G01 X94.554316 Y136.950818 Z-0.125000
G01 X94.134926 Y135.841792 Z-0.125000
G01 X93.799117 Y134.629367 Z-0.125000
G01 X93.158032 Y130.870886 Z-0.125000
G01 X92.864848 Y129.590040 Z-0.125000
G01 X92.490490 Y128.536338 Z-0.125000
G01 X91.751906 Y127.106717 Z-0.125000
G01 X91.530027 Y126.506616 Z-0.125000
G01 X91.428427 Y125.815234 Z-0.125000
G01 X91.456235 Y125.001800 Z-0.125000
G01 X91.789900 Y123.423589 Z-0.125000
G01 X92.448712 Y121.715494 Z-0.125000
G01 X93.393591 Y119.983296 Z-0.125000
G01 X94.599666 Y118.272529 Z-0.125000
G01 X96.588986 Y116.004232 Z-0.125000
G01 X99.173406 Y113.462674 Z-0.125000
G01 X100.855519 Y112.077767 Z-0.125000
G01 X102.172428 Y111.353524 Z-0.125000
G01 X103.238301 Y111.092884 Z-0.125000
G01 X104.404874 Y111.087142 Z-0.125000
G01 X111.193386 Y112.070306 Z-0.125000
G01 X112.728734 Y112.398733 Z-0.125000
G01 X114.136766 Y112.817489 Z-0.125000
G01 X115.377369 Y113.320117 Z-0.125000
G01 X116.554737 Y113.947073 Z-0.125000
G01 X117.659900 Y114.702034 Z-0.125000
G01 X118.674549 Y115.582460 Z-0.125000
G01 X119.587705 Y116.578351 Z-0.125000
G01 X120.549728 Y117.877083 Z-0.125000
G01 X121.617585 Y119.600100 Z-0.125000
G01 X122.505288 Y121.295231 Z-0.125000
G01 X123.178757 Y122.894873 Z-0.125000
G01 X123.604392 Y124.338306 Z-0.125000
G01 X123.782218 Y125.580999 Z-0.125000
G01 X123.747637 Y126.603480 Z-0.125000
G01 X123.502289 Y127.560000 Z-0.125000
G01 X123.031967 Y128.398729 Z-0.125000
G01 X122.518147 Y128.968376 Z-0.125000
G01 X121.005023 Y130.219774 Z-0.125000
G01 X120.254321 Y130.992568 Z-0.125000
G01 X116.466975 Y136.079335 Z-0.125000
G01 X114.443841 Y138.499952 Z-0.125000
G01 X112.963181 Y139.939098 Z-0.125000
G01 X110.070389 Y142.341935 Z-0.125000
G01 X108.839787 Y143.117005 Z-0.125000
G01 X107.499754 Y143.677338 Z-0.125000
G01 X105.975412 Y144.040664 Z-0.125000
G01 X104.463955 Y144.175495 Z-0.125000
G01 X102.965966 Y144.105275 Z-0.125000
G01 X101.436147 Y143.813916 Z-0.125000
G01 X100.061982 Y143.339519 Z-0.125000
G01 X98.643420 Y142.604269 Z-0.125000
G01 X97.240945 Y141.585175 Z-0.125000
G01 X95.914564 Y140.279034 Z-0.125000
G01 X94.876420 Y138.898970 Z-0.125000
G01 X94.059096 Y137.384787 Z-0.125000
G01 X93.585122 Y136.175035 Z-0.125000
G01 X93.172611 Y134.736708 Z-0.125000
G01 X92.441648 Y130.667157 Z-0.125000
G01 X92.149045 Y129.419093 Z-0.125000
G01 X91.791514 Y128.388330 Z-0.125000
G01 X90.940483 Y126.532360 Z-0.125000
G01 X90.844492 Y125.909690 Z-0.125000
G01 X90.864389 Y125.159598 Z-0.125000
G01 X91.188106 Y123.540032 Z-0.125000
G01 X91.876974 Y121.679088 Z-0.125000
G01 X92.836564 Y119.853200 Z-0.125000
G01 X94.075236 Y118.022709 Z-0.125000
G01 X96.205658 Y115.447311 Z-0.125000
G01 X98.476310 Y113.060905 Z-0.125000
G01 X100.262615 Y111.513015 Z-0.125000
G01 X100.979318 Y111.037321 Z-0.125000
G01 X101.673134 Y110.693099 Z-0.125000
G01 X102.652620 Y110.427378 Z-0.125000
G01 X103.783448 Y110.411027 Z-0.125000
G01 X107.427867 Y111.058858 Z-0.125000
G01 X112.286246 Y111.714521 Z-0.125000
G01 X113.785135 Y112.036334 Z-0.125000
G01 X115.015313 Y112.403046 Z-0.125000
G01 X116.206598 Y112.873474 Z-0.125000
G01 X117.352825 Y113.454843 Z-0.125000
G01 X118.538607 Y114.226472 Z-0.125000
G01 X119.523993 Y115.046706 Z-0.125000
G01 X120.407409 Y115.973249 Z-0.125000
G01 X121.266616 Y117.099632 Z-0.125000
G01 X122.304998 Y118.767034 Z-0.125000
G01 X123.230669 Y120.536460 Z-0.125000
G01 X123.949038 Y122.237411 Z-0.125000
G01 X124.390839 Y123.686532 Z-0.125000
G01 X124.619835 Y125.072814 Z-0.125000
G01 X124.606103 Y126.338262 Z-0.125000
G01 X124.349431 Y127.432604 Z-0.125000
G01 X123.834844 Y128.394813 Z-0.125000
G01 X123.148410 Y129.139085 Z-0.125000
G01 X121.398140 Y130.460915 Z-0.125000
G01 X120.601243 Y131.236699 Z-0.125000
G01 X116.124234 Y137.180741 Z-0.125000
G01 X114.391824 Y139.249648 Z-0.125000
G01 X113.066818 Y140.536130 Z-0.125000
G01 X110.588284 Y142.593765 Z-0.125000
G01 X109.309211 Y143.392647 Z-0.125000
G01 X107.944306 Y143.954436 Z-0.125000
G01 X106.233248 Y144.369646 Z-0.125000
G01 X104.482344 Y144.547102 Z-0.125000
G01 X102.866006 Y144.502441 Z-0.125000
G01 X101.224401 Y144.232063 Z-0.125000
G01 X99.759907 Y143.767508 Z-0.125000
G01 X98.256785 Y143.029322 Z-0.125000
G01 X96.774035 Y141.986706 Z-0.125000
G01 X95.460989 Y140.722846 Z-0.125000
G01 X94.427740 Y139.366646 Z-0.125000
G01 X93.541069 Y137.729989 Z-0.125000
G01 X93.025344 Y136.414032 Z-0.125000
G01 X92.571134 Y134.855771 Z-0.125000
G01 X91.447900 Y129.362102 Z-0.125000
G01 X91.102725 Y128.335467 Z-0.125000
G01 X90.346997 Y126.586414 Z-0.125000
G01 X90.261325 Y126.038357 Z-0.125000
G01 X90.276591 Y125.374174 Z-0.125000
G01 X90.601446 Y123.679309 Z-0.125000
G01 X91.258618 Y121.802860 Z-0.125000
G01 X92.198178 Y119.903683 Z-0.125000
G01 X93.441136 Y117.956802 Z-0.125000
G01 X95.885407 Y114.794241 Z-0.125000
G01 X97.891025 Y112.522823 Z-0.125000
G01 X99.658281 Y110.921857 Z-0.125000
G01 X100.420915 Y110.396607 Z-0.125000
G01 X101.162965 Y110.017539 Z-0.125000
G01 X102.209867 Y109.735970 Z-0.125000
G01 X103.246238 Y109.734911 Z-0.125000
G01 X107.393815 Y110.659444 Z-0.125000
G01 X113.295101 Y111.360906 Z-0.125000
G01 X114.607326 Y111.638718 Z-0.125000
G01 X115.898650 Y112.017786 Z-0.125000
G01 X117.037098 Y112.454904 Z-0.125000
G01 X118.138742 Y112.988780 Z-0.125000
G01 X119.291663 Y113.698735 Z-0.125000
G01 X120.241092 Y114.442187 Z-0.125000
G01 X121.181235 Y115.379393 Z-0.125000
G01 X122.002157 Y116.422908 Z-0.125000
G01 X122.931769 Y117.906346 Z-0.125000
G01 X123.889348 Y119.736017 Z-0.125000
G01 X124.604410 Y121.393814 Z-0.125000
G01 X125.110689 Y122.947578 Z-0.125000
G01 X125.421733 Y124.594978 Z-0.125000
G01 X125.443535 Y126.011237 Z-0.125000
G01 X125.166517 Y127.353493 Z-0.125000
G01 X124.611501 Y128.441803 Z-0.125000
G01 X123.731260 Y129.382157 Z-0.125000
G01 X121.871056 Y130.687927 Z-0.125000
G01 X121.082493 Y131.396692 Z-0.125000
G01 X114.922127 Y139.408636 Z-0.125000
G01 X113.494385 Y140.888607 Z-0.125000
G01 X111.272840 Y142.753626 Z-0.125000
G01 X109.992099 Y143.579205 Z-0.125000
G01 X108.480378 Y144.209097 Z-0.125000
G01 X106.595462 Y144.680426 Z-0.125000
G01 X104.598707 Y144.920932 Z-0.125000
G01 X102.869366 Y144.921990 Z-0.125000
G01 X101.119494 Y144.696486 Z-0.125000
G01 X99.429073 Y144.214072 Z-0.125000
G01 X97.977253 Y143.545550 Z-0.125000
G01 X96.407561 Y142.497801 Z-0.125000
G01 X95.110708 Y141.294663 Z-0.125000
G01 X94.000491 Y139.861470 Z-0.125000
G01 X93.113212 Y138.241692 Z-0.125000
G01 X92.594285 Y136.962936 Z-0.125000
G01 X92.107982 Y135.408458 Z-0.125000
G01 X90.849334 Y129.725374 Z-0.125000
G01 X90.482225 Y128.546445 Z-0.125000
G01 X89.728296 Y126.635045 Z-0.125000
G01 X89.675538 Y125.721731 Z-0.125000
G01 X90.003489 Y123.924021 Z-0.125000
G01 X90.647722 Y121.961504 Z-0.125000
G01 X91.552067 Y120.010125 Z-0.125000
G01 X92.692684 Y118.098301 Z-0.125000
G01 X95.340895 Y114.394403 Z-0.125000
G01 X97.259916 Y112.007759 Z-0.125000
G01 X98.968857 Y110.364407 Z-0.125000
G01 X99.772872 Y109.784097 Z-0.125000
G01 X100.477113 Y109.400346 Z-0.125000
G01 X101.687924 Y109.050568 Z-0.125000
G01 X102.967368 Y109.095070 Z-0.125000
G01 X106.098231 Y110.029181 Z-0.125000
G01 X107.337485 Y110.308686 Z-0.125000
G01 X108.812006 Y110.494106 Z-0.125000
G01 X112.689338 Y110.788137 Z-0.125000
G01 X114.884530 Y111.135984 Z-0.125000
G01 X116.930630 Y111.703859 Z-0.125000
G01 X118.780277 Y112.481521 Z-0.125000
G01 X120.007836 Y113.193091 Z-0.125000
G01 X121.009918 Y113.945062 Z-0.125000
G01 X121.898017 Y114.799268 Z-0.125000
G01 X122.672319 Y115.749174 Z-0.125000
G01 X123.489960 Y117.023300 Z-0.125000
G01 X124.470769 Y118.901575 Z-0.125000
G01 X125.223375 Y120.622396 Z-0.125000
G01 X125.742937 Y122.125836 Z-0.125000
G01 X126.161454 Y124.043481 Z-0.125000
G01 X126.233712 Y125.736256 Z-0.125000
G01 X125.970240 Y127.238479 Z-0.125000
G01 X125.397445 Y128.469769 Z-0.125000
G01 X124.924158 Y129.079871 Z-0.125000
G01 X124.389860 Y129.586151 Z-0.125000
G01 X122.254463 Y131.031462 Z-0.125000
G01 X121.442273 Y131.757160 Z-0.125000
G01 X119.137146 Y134.612354 Z-0.125000
G01 X115.090905 Y140.022706 Z-0.125000
G01 X113.856334 Y141.337525 Z-0.125000
G01 X112.041109 Y142.881473 Z-0.125000
G01 X110.708167 Y143.775208 Z-0.125000
G01 X109.190916 Y144.419388 Z-0.125000
G01 X107.065176 Y144.970356 Z-0.125000
G01 X104.826063 Y145.289284 Z-0.125000
G01 X102.836479 Y145.350006 Z-0.125000
G01 X100.985138 Y145.172232 Z-0.125000
G01 X99.207881 Y144.727971 Z-0.125000
G01 X97.686027 Y144.079875 Z-0.125000
G01 X96.155520 Y143.120550 Z-0.125000
G01 X94.772862 Y141.892091 Z-0.125000
G01 X93.681695 Y140.520731 Z-0.125000
G01 X92.791453 Y138.954241 Z-0.125000
G01 X92.212439 Y137.587511 Z-0.125000
G01 X91.706318 Y136.058988 Z-0.125000
G01 X90.280322 Y130.212895 Z-0.125000
G01 X89.844871 Y128.792931 Z-0.125000
G01 X89.145658 Y126.958974 Z-0.125000
G01 X89.043740 Y126.154906 Z-0.125000
G01 X89.397461 Y124.247024 Z-0.125000
G01 X90.044843 Y122.141870 Z-0.125000
G01 X90.899261 Y120.161307 Z-0.125000
G01 X92.010404 Y118.176220 Z-0.125000
G01 X95.034799 Y113.638199 Z-0.125000
G01 X96.673097 Y111.425253 Z-0.125000
G01 X98.203921 Y109.845322 Z-0.125000
G01 X99.037702 Y109.208127 Z-0.125000
G01 X99.782053 Y108.778788 Z-0.125000
G01 X100.987361 Y108.391412 Z-0.125000
G01 X101.632732 Y108.343893 Z-0.125000
G01 X102.275245 Y108.398582 Z-0.125000
G01 X103.278623 Y108.649116 Z-0.125000
G01 X105.734086 Y109.588941 Z-0.125000
G01 X107.066632 Y109.958563 Z-0.125000
G01 X108.523161 Y110.158377 Z-0.125000
G01 X112.551411 Y110.342870 Z-0.125000
G01 X114.828756 Y110.606236 Z-0.125000
G01 X117.277974 Y111.182048 Z-0.125000
G01 X119.385351 Y111.995270 Z-0.125000
G01 X120.557057 Y112.631143 Z-0.125000
G01 X121.618167 Y113.378510 Z-0.125000
G01 X122.549526 Y114.234833 Z-0.125000
G01 X123.350525 Y115.194952 Z-0.125000
G01 X124.110619 Y116.372717 Z-0.125000
G01 X124.906431 Y117.907960 Z-0.125000
G01 X125.693989 Y119.670321 Z-0.125000
G01 X126.318140 Y121.376034 Z-0.125000
G01 X126.820504 Y123.417504 Z-0.125000
G01 X126.973063 Y125.407168 Z-0.125000
G01 X126.748273 Y127.077136 Z-0.125000
G01 X126.483108 Y127.864853 Z-0.125000
G01 X126.128355 Y128.559542 Z-0.125000
G01 X125.632447 Y129.235102 Z-0.125000
G01 X124.993373 Y129.853168 Z-0.125000
G01 X122.733887 Y131.347559 Z-0.125000
G01 X121.844095 Y132.140726 Z-0.125000
G01 X119.492190 Y134.976421 Z-0.125000
G01 X115.322256 Y140.613944 Z-0.125000
G01 X114.205954 Y141.833142 Z-0.125000
G01 X112.839118 Y143.018368 Z-0.125000
G01 X111.429711 Y144.002776 Z-0.125000
G01 X109.950957 Y144.637537 Z-0.125000
G01 X107.508565 Y145.266715 Z-0.125000
G01 X104.860962 Y145.675363 Z-0.125000
G01 X102.756495 Y145.786674 Z-0.125000
G01 X100.813318 Y145.657927 Z-0.125000
G01 X98.960946 Y145.254015 Z-0.125000
G01 X97.377682 Y144.628964 Z-0.125000
G01 X95.903954 Y143.761026 Z-0.125000
G01 X94.556830 Y142.630331 Z-0.125000
G01 X93.486592 Y141.362131 Z-0.125000
G01 X92.513429 Y139.737645 Z-0.125000
G01 X91.941189 Y138.455687 Z-0.125000
G01 X91.366118 Y136.817019 Z-0.125000
G01 X89.728561 Y130.705231 Z-0.125000
G01 X88.493593 Y127.191595 Z-0.125000
G01 X88.375271 Y126.439147 Z-0.125000
G01 X88.911422 Y124.118305 Z-0.125000
G01 X89.580791 Y121.958143 Z-0.125000
G01 X90.374487 Y120.058808 Z-0.125000
G01 X91.305290 Y118.307427 Z-0.125000
G01 X94.678697 Y112.874480 Z-0.125000
G01 X96.125754 Y110.765780 Z-0.125000
G01 X97.473090 Y109.279194 Z-0.125000
G01 X98.224453 Y108.673378 Z-0.125000
G01 X98.999284 Y108.196203 Z-0.125000
G01 X99.687676 Y107.900399 Z-0.125000
G01 X100.281877 Y107.744586 Z-0.125000
G01 X100.977201 Y107.678546 Z-0.125000
G01 X101.672260 Y107.730642 Z-0.125000
G01 X102.855264 Y108.046634 Z-0.125000
G01 X105.633597 Y109.257868 Z-0.125000
G01 X107.084464 Y109.694563 Z-0.125000
G01 X108.551604 Y109.875167 Z-0.125000
G01 X112.510056 Y109.933613 Z-0.125000
G01 X114.858151 Y110.128770 Z-0.125000
G01 X117.426405 Y110.637457 Z-0.125000
G01 X119.665413 Y111.401917 Z-0.125000
G01 X120.915117 Y112.014585 Z-0.125000
G01 X122.044993 Y112.743564 Z-0.125000
G01 X122.928541 Y113.487624 Z-0.125000
G01 X123.782562 Y114.429752 Z-0.125000
G01 X124.504636 Y115.477924 Z-0.125000
G01 X125.128972 Y116.621637 Z-0.125000
G01 X126.634820 Y120.130721 Z-0.125000
G01 X127.351231 Y122.565679 Z-0.125000
G01 X127.563136 Y123.803663 Z-0.125000
G01 X127.645395 Y124.869826 Z-0.125000
G01 X127.621635 Y125.896408 Z-0.125000
G01 X127.488179 Y126.860522 Z-0.125000
G01 X127.247171 Y127.741690 Z-0.125000
G01 X126.850852 Y128.627910 Z-0.125000
G01 X126.346239 Y129.375093 Z-0.125000
G01 X125.685946 Y130.054833 Z-0.125000
G01 X124.975461 Y130.592042 Z-0.125000
G01 X123.189976 Y131.721388 Z-0.125000
G01 X122.294098 Y132.540802 Z-0.125000
G01 X119.959391 Y135.285030 Z-0.125000
G01 X115.667484 Y141.106994 Z-0.125000
G01 X114.789069 Y142.119924 Z-0.125000
G01 X113.887740 Y142.971219 Z-0.125000
G01 X112.314000 Y144.169040 Z-0.125000
G01 X111.034927 Y144.787846 Z-0.125000
G01 X108.692071 Y145.415596 Z-0.125000
G01 X105.655240 Y145.964870 Z-0.125000
G01 X103.134108 Y146.214028 Z-0.125000
G01 X101.095575 Y146.196539 Z-0.125000
G01 X99.149303 Y145.908144 Z-0.125000
G01 X97.336248 Y145.318097 Z-0.125000
G01 X95.782405 Y144.503658 Z-0.125000
G01 X94.354794 Y143.394526 Z-0.125000
G01 X93.219310 Y142.110346 Z-0.125000
G01 X92.272420 Y140.589390 Z-0.125000
G01 X91.652476 Y139.250468 Z-0.125000
G01 X91.140614 Y137.860984 Z-0.125000
G01 X89.419554 Y131.869687 Z-0.125000
G01 X88.776670 Y129.939633 Z-0.125000
G01 X87.829807 Y127.503697 Z-0.125000
G01 X87.671242 Y126.656661 Z-0.125000
G01 X87.768556 Y126.105138 Z-0.125000
G01 X89.156929 Y121.635828 Z-0.125000
G01 X89.767401 Y120.110745 Z-0.125000
G01 X90.579618 Y118.478321 Z-0.125000
G01 X94.177021 Y112.262870 Z-0.125000
G01 X95.347907 Y110.393961 Z-0.125000
G01 X96.604014 Y108.835779 Z-0.125000
G01 X97.254624 Y108.251712 Z-0.125000
G01 X97.937195 Y107.775225 Z-0.125000
G01 X98.752693 Y107.362105 Z-0.125000
G01 X99.486249 Y107.132949 Z-0.125000
G01 X100.231341 Y107.036826 Z-0.125000
G01 X100.982360 Y107.072915 Z-0.125000
G01 X102.373723 Y107.443173 Z-0.125000
G01 X105.528478 Y108.948438 Z-0.125000
G01 X107.101371 Y109.448977 Z-0.125000
G01 X108.573564 Y109.599498 Z-0.125000
G01 X112.439175 Y109.535125 Z-0.125000
G01 X114.843652 Y109.666173 Z-0.125000
G01 X117.356952 Y110.075218 Z-0.125000
G01 X119.724229 Y110.772262 Z-0.125000
G01 X121.059209 Y111.349318 Z-0.125000
G01 X122.143312 Y111.962991 Z-0.125000
G01 X123.105812 Y112.670089 Z-0.125000
G01 X123.937449 Y113.469104 Z-0.125000
G01 X124.644997 Y114.358446 Z-0.125000
G01 X125.319657 Y115.463345 Z-0.125000
G01 X126.699510 Y118.536688 Z-0.125000
G01 X127.324508 Y120.206921 Z-0.125000
G01 X127.759430 Y121.636701 Z-0.125000
G01 X128.051530 Y122.940487 Z-0.125000
G01 X128.226895 Y124.248056 Z-0.125000
G01 X128.265551 Y125.523558 Z-0.125000
G01 X128.156516 Y126.727146 Z-0.125000
G01 X127.939267 Y127.691763 Z-0.125000
G01 X127.560569 Y128.666725 Z-0.125000
G01 X127.062412 Y129.490530 Z-0.125000
G01 X126.396272 Y130.237871 Z-0.125000
G01 X125.668827 Y130.821886 Z-0.125000
G01 X123.499432 Y132.253994 Z-0.125000
G01 X121.522627 Y134.357640 Z-0.125000
G01 X120.363488 Y135.774932 Z-0.125000
G01 X116.125980 Y141.485268 Z-0.125000
G01 X114.565469 Y143.234532 Z-0.125000
G01 X113.020225 Y144.468944 Z-0.125000
G01 X111.747422 Y145.127174 Z-0.125000
G01 X109.874757 Y145.601889 Z-0.125000
G01 X105.933264 Y146.308669 Z-0.125000
G01 X103.311828 Y146.628841 Z-0.125000
G01 X101.018026 Y146.691918 Z-0.125000
G01 X99.009418 Y146.472129 Z-0.125000
G01 X97.136541 Y145.942910 Z-0.125000
G01 X95.518033 Y145.167417 Z-0.125000
G01 X94.158421 Y144.179914 Z-0.125000
G01 X92.963088 Y142.896025 Z-0.125000
G01 X91.969790 Y141.337446 Z-0.125000
G01 X91.396545 Y140.122613 Z-0.125000
G01 X90.912358 Y138.850075 Z-0.125000
G01 X89.110257 Y132.795304 Z-0.125000
G01 X88.328705 Y130.663003 Z-0.125000
G01 X87.170942 Y127.897820 Z-0.125000
G01 X86.944407 Y126.881901 Z-0.125000
G01 X87.041112 Y126.307782 Z-0.125000
G01 X87.702728 Y124.649640 Z-0.125000
G01 X88.768230 Y121.156695 Z-0.125000
G01 X89.837172 Y118.673478 Z-0.125000
G01 X94.606571 Y109.969067 Z-0.125000
G01 X95.684509 Y108.470813 Z-0.125000
G01 X96.815601 Y107.421239 Z-0.125000
G01 X97.629115 Y106.934988 Z-0.125000
G01 X98.495280 Y106.596851 Z-0.125000
G01 X99.396661 Y106.431116 Z-0.125000
G01 X100.319289 Y106.449743 Z-0.125000
G01 X101.133808 Y106.610610 Z-0.125000
G01 X101.945654 Y106.886067 Z-0.125000
G01 X105.524139 Y108.697058 Z-0.125000
G01 X106.324026 Y109.007044 Z-0.125000
G01 X107.123332 Y109.208100 Z-0.125000
G01 X108.485326 Y109.317796 Z-0.125000
G01 X112.202320 Y109.139309 Z-0.125000
G01 X114.481623 Y109.186510 Z-0.125000
G01 X116.893244 Y109.472974 Z-0.125000
G01 X119.214431 Y110.013359 Z-0.125000
G01 X120.502659 Y110.453942 Z-0.125000
G01 X121.711433 Y110.991919 Z-0.125000
G01 X122.804981 Y111.625648 Z-0.125000
G01 X123.760522 Y112.353251 Z-0.125000
G01 X124.478654 Y113.066144 Z-0.125000
G01 X125.175221 Y113.968028 Z-0.125000
G01 X125.765294 Y114.962463 Z-0.125000
G01 X126.408654 Y116.328875 Z-0.125000
G01 X127.938182 Y120.319766 Z-0.125000
G01 X128.370696 Y121.825402 Z-0.125000
G01 X128.681475 Y123.373980 Z-0.125000
G01 X128.831653 Y124.918324 Z-0.125000
G01 X128.809110 Y126.237429 Z-0.125000
G01 X128.631892 Y127.458850 Z-0.125000
G01 X128.253618 Y128.668974 Z-0.125000
G01 X127.710032 Y129.674257 Z-0.125000
G01 X127.043151 Y130.471631 Z-0.125000
G01 X126.307848 Y131.089644 Z-0.125000
G01 X124.113820 Y132.582024 Z-0.125000
G01 X122.038061 Y134.776052 Z-0.125000
G01 X116.507588 Y141.982314 Z-0.125000
G01 X115.225154 Y143.493797 Z-0.125000
G01 X114.185317 Y144.434760 Z-0.125000
G01 X113.020146 Y145.249729 Z-0.125000
G01 X112.166099 Y145.631496 Z-0.125000
G01 X111.142030 Y145.869858 Z-0.125000
G01 X104.910915 Y146.847122 Z-0.125000
G01 X102.155415 Y147.143826 Z-0.125000
G01 X100.716269 Y147.180629 Z-0.125000
G01 X99.504823 Y147.114298 Z-0.125000
G01 X98.343251 Y146.944568 Z-0.125000
G01 X97.224250 Y146.666650 Z-0.125000
G01 X95.381297 Y145.918991 Z-0.125000
G01 X93.958872 Y144.981098 Z-0.125000
G01 X92.824870 Y143.856091 Z-0.125000
G01 X91.770030 Y142.304417 Z-0.125000
G01 X91.163791 Y141.065640 Z-0.125000
G01 X90.588111 Y139.555347 Z-0.125000
G01 X88.660809 Y133.185035 Z-0.125000
G01 X87.965035 Y131.475776 Z-0.125000
G01 X86.525942 Y128.356792 Z-0.125000
G01 X86.298268 Y127.706156 Z-0.125000
G01 X86.207860 Y127.159686 Z-0.125000
G01 X86.320970 Y126.440603 Z-0.125000
G01 X87.179727 Y124.576007 Z-0.125000
G01 X88.310898 Y120.786676 Z-0.125000
G01 X89.228419 Y118.571481 Z-0.125000
G01 X93.814966 Y109.616405 Z-0.125000
G01 X94.895946 Y107.974985 Z-0.125000
G01 X95.944488 Y106.915489 Z-0.125000
G01 X96.765278 Y106.400716 Z-0.125000
G01 X97.769185 Y106.014980 Z-0.125000
G01 X98.722054 Y105.847049 Z-0.125000
G01 X99.711013 Y105.867952 Z-0.125000
G01 X100.591756 Y106.040962 Z-0.125000
G01 X101.599209 Y106.392223 Z-0.125000
G01 X105.426376 Y108.406176 Z-0.125000
G01 X106.248647 Y108.737037 Z-0.125000
G01 X106.954237 Y108.922615 Z-0.125000
G01 X108.406268 Y109.023236 Z-0.125000
G01 X111.956628 Y108.739630 Z-0.125000
G01 X114.246700 Y108.725554 Z-0.125000
G01 X116.700628 Y108.950052 Z-0.125000
G01 X119.103597 Y109.437282 Z-0.125000
G01 X120.454373 Y109.851090 Z-0.125000
G01 X121.731065 Y110.364196 Z-0.125000
G01 X122.890997 Y110.973742 Z-0.125000
G01 X123.786557 Y111.583791 Z-0.125000
G01 X124.561865 Y112.264378 Z-0.125000
G01 X125.306931 Y113.129379 Z-0.125000
G01 X125.926108 Y114.089921 Z-0.125000
G01 X126.458158 Y115.147592 Z-0.125000
G01 X128.321775 Y119.958372 Z-0.125000
G01 X128.790986 Y121.518883 Z-0.125000
G01 X129.146453 Y123.138527 Z-0.125000
G01 X129.344494 Y124.767962 Z-0.125000
G01 X129.363438 Y126.168638 Z-0.125000
G01 X129.223500 Y127.470545 Z-0.125000
G01 X128.879145 Y128.762345 Z-0.125000
G01 X128.358922 Y129.834091 Z-0.125000
G01 X127.626027 Y130.761852 Z-0.125000
G01 X126.890037 Y131.395607 Z-0.125000
G01 X124.840947 Y132.839463 Z-0.125000
G01 X122.734814 Y135.061564 Z-0.125000
G01 X119.935367 Y138.717307 Z-0.125000
G01 X115.657615 Y143.967269 Z-0.125000
G01 X114.790841 Y144.806050 Z-0.125000
G01 X113.715444 Y145.621547 Z-0.125000
G01 X112.882245 Y146.081498 Z-0.125000
G01 X112.049021 Y146.323909 Z-0.125000
G01 X108.756682 Y146.676995 Z-0.125000
G01 X103.710132 Y147.405048 Z-0.125000
G01 X101.448317 Y147.634098 Z-0.125000
G01 X98.959703 Y147.615392 Z-0.125000
G01 X96.812347 Y147.232540 Z-0.125000
G01 X95.073587 Y146.592249 Z-0.125000
G01 X93.608035 Y145.685312 Z-0.125000
G01 X92.449003 Y144.559882 Z-0.125000
G01 X91.480603 Y143.146400 Z-0.125000
G01 X90.861770 Y141.882063 Z-0.125000
G01 X90.345965 Y140.520810 Z-0.125000
G01 X88.951639 Y135.686985 Z-0.125000
G01 X88.365932 Y133.933461 Z-0.125000
G01 X87.635100 Y132.243199 Z-0.125000
G01 X85.854325 Y128.764594 Z-0.125000
G01 X85.579661 Y128.039160 Z-0.125000
G01 X85.467187 Y127.414877 Z-0.125000
G01 X85.620010 Y126.525190 Z-0.125000
G01 X86.425586 Y124.996271 Z-0.125000
G01 X86.770337 Y124.166432 Z-0.125000
G01 X87.780224 Y120.534422 Z-0.125000
G01 X88.591356 Y118.465859 Z-0.125000
G01 X93.155016 Y109.009663 Z-0.125000
G01 X94.152494 Y107.422244 Z-0.125000
G01 X95.125286 Y106.387460 Z-0.125000
G01 X95.967454 Y105.842393 Z-0.125000
G01 X96.880609 Y105.499493 Z-0.125000
G01 X98.000774 Y105.300633 Z-0.125000
G01 X99.055138 Y105.318175 Z-0.125000
G01 X100.140351 Y105.531323 Z-0.125000
G01 X101.232391 Y105.919466 Z-0.125000
G01 X102.438096 Y106.503877 Z-0.125000
G01 X105.336391 Y108.107514 Z-0.125000
G01 X106.185941 Y108.453721 Z-0.125000
G01 X106.901294 Y108.638427 Z-0.125000
G01 X108.237120 Y108.710129 Z-0.125000
G01 X111.715725 Y108.323864 Z-0.125000
G01 X114.158938 Y108.259755 Z-0.125000
G01 X116.647738 Y108.449726 Z-0.125000
G01 X119.117805 Y108.914281 Z-0.125000
G01 X120.517714 Y109.319543 Z-0.125000
G01 X121.685080 Y109.756978 Z-0.125000
G01 X122.909200 Y110.347236 Z-0.125000
G01 X123.856063 Y110.938843 Z-0.125000
G01 X124.673598 Y111.598608 Z-0.125000
G01 X125.363472 Y112.327163 Z-0.125000
G01 X126.015907 Y113.247965 Z-0.125000
G01 X126.562033 Y114.268832 Z-0.125000
G01 X127.288208 Y115.992432 Z-0.125000
G01 X128.639433 Y119.595364 Z-0.125000
G01 X129.201725 Y121.389581 Z-0.125000
G01 X129.557562 Y122.890666 Z-0.125000
G01 X129.812700 Y124.600454 Z-0.125000
G01 X129.880486 Y126.258358 Z-0.125000
G01 X129.768356 Y127.621542 Z-0.125000
G01 X129.449110 Y128.967529 Z-0.125000
G01 X129.010616 Y129.964848 Z-0.125000
G01 X128.381385 Y130.858583 Z-0.125000
G01 X127.582821 Y131.609761 Z-0.125000
G01 X125.614773 Y133.069862 Z-0.125000
G01 X123.804337 Y134.985628 Z-0.125000
G01 X120.916731 Y138.755751 Z-0.125000
G01 X115.988900 Y144.541705 Z-0.125000
G01 X115.074871 Y145.443351 Z-0.125000
G01 X114.073927 Y146.213155 Z-0.125000
G01 X113.169688 Y146.728907 Z-0.125000
G01 X112.392899 Y146.958856 Z-0.125000
G01 X108.283793 Y147.176449 Z-0.125000
G01 X102.563879 Y147.952074 Z-0.125000
G01 X100.483251 Y148.143473 Z-0.125000
G01 X98.192412 Y148.105691 Z-0.125000
G01 X96.187534 Y147.761204 Z-0.125000
G01 X94.573843 Y147.197906 Z-0.125000
G01 X93.228729 Y146.401750 Z-0.125000
G01 X92.173598 Y145.424565 Z-0.125000
G01 X91.182682 Y144.022302 Z-0.125000
G01 X90.639890 Y142.933649 Z-0.125000
G01 X90.111650 Y141.551388 Z-0.125000
G01 X88.645358 Y136.315211 Z-0.125000
G01 X88.015412 Y134.481545 Z-0.125000
G01 X87.196131 Y132.731990 Z-0.125000
G01 X85.172150 Y129.162527 Z-0.125000
G01 X84.855868 Y128.371265 Z-0.125000
G01 X84.728153 Y127.671496 Z-0.125000
G01 X84.758660 Y127.177069 Z-0.125000
G01 X84.913441 Y126.647665 Z-0.125000
G01 X85.895308 Y124.853475 Z-0.125000
G01 X86.303534 Y123.875576 Z-0.125000
G01 X87.222907 Y120.259732 Z-0.125000
G01 X87.927597 Y118.350131 Z-0.125000
G01 X92.367564 Y108.614217 Z-0.125000
G01 X93.274237 Y107.058945 Z-0.125000
G01 X94.262534 Y105.918831 Z-0.125000
G01 X95.017733 Y105.384532 Z-0.125000
G01 X95.952214 Y105.008798 Z-0.125000
G01 X97.106114 Y104.802105 Z-0.125000
G01 X98.358332 Y104.802635 Z-0.125000
G01 X99.521942 Y105.010173 Z-0.125000
G01 X100.850042 Y105.464965 Z-0.125000
G01 X102.155839 Y106.089460 Z-0.125000
G01 X105.257016 Y107.791682 Z-0.125000
G01 X106.139295 Y108.146884 Z-0.125000
G01 X106.868009 Y108.325769 Z-0.125000
G01 X108.094563 Y108.367414 Z-0.125000
G01 X111.492338 Y107.880185 Z-0.125000
G01 X113.758438 Y107.767896 Z-0.125000
G01 X116.406808 Y107.915533 Z-0.125000
G01 X118.921590 Y108.346856 Z-0.125000
G01 X120.368410 Y108.737830 Z-0.125000
G01 X121.585941 Y109.164523 Z-0.125000
G01 X122.871497 Y109.742320 Z-0.125000
G01 X123.869478 Y110.320698 Z-0.125000
G01 X124.730246 Y110.963317 Z-0.125000
G01 X125.451711 Y111.670072 Z-0.125000
G01 X126.047763 Y112.444665 Z-0.125000
G01 X126.610875 Y113.421399 Z-0.125000
G01 X127.392189 Y115.239640 Z-0.125000
G01 X129.281682 Y120.324079 Z-0.125000
G01 X129.879137 Y122.434737 Z-0.125000
G01 X130.244155 Y124.416543 Z-0.125000
G01 X130.380998 Y126.529238 Z-0.125000
G01 X130.204336 Y128.411720 Z-0.125000
G01 X129.723535 Y129.943126 Z-0.125000
G01 X129.353040 Y130.614400 Z-0.125000
G01 X128.925712 Y131.176982 Z-0.125000
G01 X128.221101 Y131.853442 Z-0.125000
G01 X126.494538 Y133.203688 Z-0.125000
G01 X124.797450 Y135.034550 Z-0.125000
G01 X124.035080 Y135.953843 Z-0.125000
G01 X121.748157 Y139.088173 Z-0.125000
G01 X118.582580 Y142.497034 Z-0.125000
G01 X116.045018 Y145.401441 Z-0.125000
G01 X114.905485 Y146.452311 Z-0.125000
G01 X113.557355 Y147.345279 Z-0.125000
G01 X112.999429 Y147.579726 Z-0.125000
G01 X112.394539 Y147.699053 Z-0.125000
G01 X109.656820 Y147.601237 Z-0.125000
G01 X107.843897 Y147.671325 Z-0.125000
G01 X101.518273 Y148.483991 Z-0.125000
G01 X99.825286 Y148.637476 Z-0.125000
G01 X97.541167 Y148.616283 Z-0.125000
G01 X95.503587 Y148.300609 Z-0.125000
G01 X94.027267 Y147.812215 Z-0.125000
G01 X92.815212 Y147.126469 Z-0.125000
G01 X91.751642 Y146.163995 Z-0.125000
G01 X90.868067 Y144.922651 Z-0.125000
G01 X90.325195 Y143.830611 Z-0.125000
G01 X89.805713 Y142.425649 Z-0.125000
G01 X88.424590 Y137.198389 Z-0.125000
G01 X87.768900 Y135.255979 Z-0.125000
G01 X86.870403 Y133.408793 Z-0.125000
G01 X84.516990 Y129.622584 Z-0.125000
G01 X84.150251 Y128.763086 Z-0.125000
G01 X83.998169 Y127.981878 Z-0.125000
G01 X84.043466 Y127.340238 Z-0.125000
G01 X84.233754 Y126.732491 Z-0.125000
G01 X85.361142 Y124.694196 Z-0.125000
G01 X85.797677 Y123.642717 Z-0.125000
G01 X86.637967 Y119.960912 Z-0.125000
G01 X87.303049 Y118.067133 Z-0.125000
G01 X89.176587 Y113.906062 Z-0.125000
G01 X91.638188 Y108.096058 Z-0.125000
G01 X92.552799 Y106.486044 Z-0.125000
G01 X93.468468 Y105.417843 Z-0.125000
G01 X94.255496 Y104.857774 Z-0.125000
G01 X95.238316 Y104.482198 Z-0.125000
G01 X96.451985 Y104.311992 Z-0.125000
G01 X97.780589 Y104.334984 Z-0.125000
G01 X99.026616 Y104.553424 Z-0.125000
G01 X100.457401 Y105.025599 Z-0.125000
G01 X101.868158 Y105.677240 Z-0.125000
G01 X105.068845 Y107.393987 Z-0.125000
G01 X106.000468 Y107.772552 Z-0.125000
G01 X106.753286 Y107.959745 Z-0.125000
G01 X107.982539 Y107.986679 Z-0.125000
G01 X111.158434 Y107.416476 Z-0.125000
G01 X113.534628 Y107.249260 Z-0.125000
G01 X116.163710 Y107.362793 Z-0.125000
G01 X118.701537 Y107.772446 Z-0.125000
G01 X120.185212 Y108.156780 Z-0.125000
G01 X121.446929 Y108.580086 Z-0.125000
G01 X122.790588 Y109.154019 Z-0.125000
G01 X123.839474 Y109.726233 Z-0.125000
G01 X124.744930 Y110.357528 Z-0.125000
G01 X125.500129 Y111.046317 Z-0.125000
G01 X126.116237 Y111.796092 Z-0.125000
G01 X126.685858 Y112.738352 Z-0.125000
G01 X127.339722 Y114.210254 Z-0.125000
G01 X129.264801 Y119.237410 Z-0.125000
G01 X130.258311 Y122.364252 Z-0.125000
G01 X130.612852 Y124.011863 Z-0.125000
G01 X130.827667 Y125.640980 Z-0.125000
G01 X130.880451 Y127.179451 Z-0.125000
G01 X130.761177 Y128.561553 Z-0.125000
G01 X130.378616 Y130.002446 Z-0.125000
G01 X129.710491 Y131.198546 Z-0.125000
G01 X129.042948 Y131.922498 Z-0.125000
G01 X127.279344 Y133.417762 Z-0.125000
G01 X125.634511 Y135.274659 Z-0.125000
G01 X124.877380 Y136.249515 Z-0.125000
G01 X123.353673 Y138.535406 Z-0.125000
G01 X122.472850 Y139.633452 Z-0.125000
G01 X118.887406 Y143.188019 Z-0.125000
G01 X115.687645 Y146.640509 Z-0.125000
G01 X114.291335 Y147.733237 Z-0.125000
G01 X113.101082 Y148.347943 Z-0.125000
G01 X112.183349 Y148.480658 Z-0.125000
G01 X109.516300 Y148.171995 Z-0.125000
G01 X107.295284 Y148.176228 Z-0.125000
G01 X105.002540 Y148.392763 Z-0.125000
G01 X100.408612 Y149.020010 Z-0.125000
G01 X98.399475 Y149.164102 Z-0.125000
G01 X96.483841 Y149.107587 Z-0.125000
G01 X94.758072 Y148.851973 Z-0.125000
G01 X93.431505 Y148.433615 Z-0.125000
G01 X92.220033 Y147.753928 Z-0.125000
G01 X91.298728 Y146.911945 Z-0.125000
G01 X90.432219 Y145.665759 Z-0.125000
G01 X89.912128 Y144.555728 Z-0.125000
G01 X89.488319 Y143.330814 Z-0.125000
G01 X88.226258 Y138.152687 Z-0.125000
G01 X87.496036 Y135.936672 Z-0.125000
G01 X86.518640 Y134.022467 Z-0.125000
G01 X83.892177 Y130.134949 Z-0.125000
G01 X83.434052 Y129.107123 Z-0.125000
G01 X83.276043 Y128.247149 Z-0.125000
G01 X83.337796 Y127.524626 Z-0.125000
G01 X83.560337 Y126.829990 Z-0.125000
G01 X84.820361 Y124.517508 Z-0.125000
G01 X85.246948 Y123.482962 Z-0.125000
G01 X85.515896 Y122.429128 Z-0.125000
G01 X86.026118 Y119.637459 Z-0.125000
G01 X86.591426 Y117.918675 Z-0.125000
G01 X88.480205 Y113.600284 Z-0.125000
G01 X90.889392 Y107.620840 Z-0.125000
G01 X91.714415 Y106.106209 Z-0.125000
G01 X92.649954 Y104.971280 Z-0.125000
G01 X93.470055 Y104.378931 Z-0.125000
G01 X94.371701 Y104.026110 Z-0.125000
G01 X95.494565 Y103.860534 Z-0.125000
G01 X97.034200 Y103.883341 Z-0.125000
G01 X98.524940 Y104.120857 Z-0.125000
G01 X100.059998 Y104.597477 Z-0.125000
G01 X101.578969 Y105.262189 Z-0.125000
G01 X105.009023 Y107.019523 Z-0.125000
G01 X105.871034 Y107.358136 Z-0.125000
G01 X106.657428 Y107.551520 Z-0.125000
G01 X107.902555 Y107.561309 Z-0.125000
G01 X110.870171 Y106.912499 Z-0.125000
G01 X113.037344 Y106.700144 Z-0.125000
G01 X115.591681 Y106.751474 Z-0.125000
G01 X118.285692 Y107.141495 Z-0.125000
G01 X119.794212 Y107.513049 Z-0.125000
G01 X121.281512 Y107.995463 Z-0.125000
G01 X122.679119 Y108.575509 Z-0.125000
G01 X123.778541 Y109.150262 Z-0.125000
G01 X124.730616 Y109.778171 Z-0.125000
G01 X125.522619 Y110.455133 Z-0.125000
G01 X126.161772 Y111.183662 Z-0.125000
G01 X126.739780 Y112.091208 Z-0.125000
G01 X127.325884 Y113.368747 Z-0.125000
G01 X129.694034 Y119.458125 Z-0.125000
G01 X130.629256 Y122.300831 Z-0.125000
G01 X131.033115 Y124.006730 Z-0.125000
G01 X131.298439 Y125.692600 Z-0.125000
G01 X131.400542 Y127.279357 Z-0.125000
G01 X131.326961 Y128.696411 Z-0.125000
G01 X130.993613 Y130.160587 Z-0.125000
G01 X130.434205 Y131.270354 Z-0.125000
G01 X129.804021 Y132.019044 Z-0.125000
G01 X128.155881 Y133.525633 Z-0.125000
G01 X126.503560 Y135.488018 Z-0.125000
G01 X125.814030 Y136.441549 Z-0.125000
G01 X124.367238 Y138.783611 Z-0.125000
G01 X123.476466 Y139.936055 Z-0.125000
G01 X122.392443 Y141.034525 Z-0.125000
G01 X119.049702 Y144.011745 Z-0.125000
G01 X115.582526 Y147.582478 Z-0.125000
G01 X114.189523 Y148.616653 Z-0.125000
G01 X113.009219 Y149.192386 Z-0.125000
G01 X112.049232 Y149.287821 Z-0.125000
G01 X109.448831 Y148.789770 Z-0.125000
G01 X107.203553 Y148.671052 Z-0.125000
G01 X104.663795 Y148.839803 Z-0.125000
G01 X100.006843 Y149.470172 Z-0.125000
G01 X98.172701 Y149.641727 Z-0.125000
G01 X95.880142 Y149.651702 Z-0.125000
G01 X93.951252 Y149.414239 Z-0.125000
G01 X92.627252 Y148.991118 Z-0.125000
G01 X91.586145 Y148.382418 Z-0.125000
G01 X90.812054 Y147.660821 Z-0.125000
G01 X90.064713 Y146.585846 Z-0.125000
G01 X89.555761 Y145.485155 Z-0.125000
G01 X89.152272 Y144.254024 Z-0.125000
G01 X87.986546 Y138.954373 Z-0.125000
G01 X87.250952 Y136.664989 Z-0.125000
G01 X86.794282 Y135.688837 Z-0.125000
G01 X86.202198 Y134.685221 Z-0.125000
G01 X83.990179 Y131.722156 Z-0.125000
G01 X83.233577 Y130.574739 Z-0.125000
G01 X82.734785 Y129.475158 Z-0.125000
G01 X82.567966 Y128.531258 Z-0.125000
G01 X82.642843 Y127.722190 Z-0.125000
G01 X82.893641 Y126.934024 Z-0.125000
G01 X84.222641 Y124.421543 Z-0.125000
G01 X84.712517 Y123.203747 Z-0.125000
G01 X84.966728 Y122.099907 Z-0.125000
G01 X85.359845 Y119.426084 Z-0.125000
G01 X85.865278 Y117.747755 Z-0.125000
G01 X87.776044 Y113.311253 Z-0.125000
G01 X90.133108 Y107.187930 Z-0.125000
G01 X90.963528 Y105.629483 Z-0.125000
G01 X91.816385 Y104.578533 Z-0.125000
G01 X92.798702 Y103.879346 Z-0.125000
G01 X93.338346 Y103.657440 Z-0.125000
G01 X94.054413 Y103.486255 Z-0.125000
G01 X95.607039 Y103.416881 Z-0.125000
G01 X97.486796 Y103.604126 Z-0.125000
G01 X98.749306 Y103.887759 Z-0.125000
G01 X100.028671 Y104.309928 Z-0.125000
G01 X101.469167 Y104.920983 Z-0.125000
G01 X105.098822 Y106.663764 Z-0.125000
G01 X106.114001 Y107.003992 Z-0.125000
G01 X106.909919 Y107.133849 Z-0.125000
G01 X107.956133 Y107.069846 Z-0.125000
G01 X110.634375 Y106.362140 Z-0.125000
G01 X112.445763 Y106.119623 Z-0.125000
G01 X115.066325 Y106.111024 Z-0.125000
G01 X117.691571 Y106.448182 Z-0.125000
G01 X119.201228 Y106.798225 Z-0.125000
G01 X120.726893 Y107.267384 Z-0.125000
G01 X122.198424 Y107.841344 Z-0.125000
G01 X123.542427 Y108.499018 Z-0.125000
G01 X124.699104 Y109.220271 Z-0.125000
G01 X125.531879 Y109.893820 Z-0.125000
G01 X126.198575 Y110.607109 Z-0.125000
G01 X126.788781 Y111.482879 Z-0.125000
G01 X127.364831 Y112.705067 Z-0.125000
G01 X130.065456 Y119.516571 Z-0.125000
G01 X131.003403 Y122.245216 Z-0.125000
G01 X131.458009 Y124.005989 Z-0.125000
G01 X131.775879 Y125.743956 Z-0.125000
G01 X131.929972 Y127.373205 Z-0.125000
G01 X131.905049 Y128.818648 Z-0.125000
G01 X131.624696 Y130.297694 Z-0.125000
G01 X131.108336 Y131.407249 Z-0.125000
G01 X130.510035 Y132.155675 Z-0.125000
G01 X129.051786 Y133.589053 Z-0.125000
G01 X127.396448 Y135.669628 Z-0.125000
G01 X126.715809 Y136.700205 Z-0.125000
G01 X125.344687 Y139.126167 Z-0.125000
G01 X124.437987 Y140.347694 Z-0.125000
G01 X123.193733 Y141.566866 Z-0.125000
G01 X119.270999 Y144.752075 Z-0.125000
G01 X115.407478 Y148.548947 Z-0.125000
G01 X114.126844 Y149.460647 Z-0.125000
G01 X112.951487 Y150.032807 Z-0.125000
G01 X112.476137 Y150.137080 Z-0.125000
G01 X111.943849 Y150.131153 Z-0.125000
G01 X109.053518 Y149.394104 Z-0.125000
G01 X107.781588 Y149.235169 Z-0.125000
G01 X106.500927 Y149.187518 Z-0.125000
G01 X103.847688 Y149.338780 Z-0.125000
G01 X97.362785 Y150.140731 Z-0.125000
G01 X95.036678 Y150.195103 Z-0.125000
G01 X93.259103 Y150.018996 Z-0.125000
G01 X92.093271 Y149.682976 Z-0.125000
G01 X91.052349 Y149.108460 Z-0.125000
G01 X90.290879 Y148.402368 Z-0.125000
G01 X89.572853 Y147.328769 Z-0.125000
G01 X89.170026 Y146.412809 Z-0.125000
G01 X88.791646 Y145.181810 Z-0.125000
G01 X87.752284 Y139.782730 Z-0.125000
G01 X87.426927 Y138.550672 Z-0.125000
G01 X87.026824 Y137.427967 Z-0.125000
G01 X86.550681 Y136.421785 Z-0.125000
G01 X85.916660 Y135.386048 Z-0.125000
G01 X83.504854 Y132.345593 Z-0.125000
G01 X82.665147 Y131.148910 Z-0.125000
G01 X82.091531 Y129.971516 Z-0.125000
G01 X81.879812 Y128.937764 Z-0.125000
G01 X81.937253 Y128.036620 Z-0.125000
G01 X82.191014 Y127.148971 Z-0.125000
G01 X83.710276 Y124.111479 Z-0.125000
G01 X84.161073 Y122.901382 Z-0.125000
G01 X84.396208 Y121.744175 Z-0.125000
G01 X84.681216 Y119.185816 Z-0.125000
G01 X85.130240 Y117.552016 Z-0.125000
G01 X87.156893 Y112.835030 Z-0.125000
G01 X89.381719 Y106.795209 Z-0.125000
G01 X90.115884 Y105.354237 Z-0.125000
G01 X90.978371 Y104.237327 Z-0.125000
G01 X91.995852 Y103.488689 Z-0.125000
G01 X92.562985 Y103.250300 Z-0.125000
G01 X93.321386 Y103.067208 Z-0.125000
G01 X94.800908 Y102.995982 Z-0.125000
G01 X96.960725 Y103.209739 Z-0.125000
G01 X98.299912 Y103.480910 Z-0.125000
G01 X99.661774 Y103.887257 Z-0.125000
G01 X101.199874 Y104.485347 Z-0.125000
G01 X104.929701 Y106.154892 Z-0.125000
G01 X106.018195 Y106.502898 Z-0.125000
G01 X106.859066 Y106.630347 Z-0.125000
G01 X107.936766 Y106.543458 Z-0.125000
G01 X110.578389 Y105.731903 Z-0.125000
G01 X112.210707 Y105.472162 Z-0.125000
G01 X114.764198 Y105.438031 Z-0.125000
G01 X117.133380 Y105.722008 Z-0.125000
G01 X118.808005 Y106.104515 Z-0.125000
G01 X120.347402 Y106.580818 Z-0.125000
G01 X121.864415 Y107.169859 Z-0.125000
G01 X123.279590 Y107.846053 Z-0.125000
G01 X124.520220 Y108.581912 Z-0.125000
G01 X125.424167 Y109.258636 Z-0.125000
G01 X126.238580 Y110.063920 Z-0.125000
G01 X126.847042 Y110.913893 Z-0.125000
G01 X127.416689 Y112.080916 Z-0.125000
G01 X128.665944 Y115.358650 Z-0.125000
G01 X130.460134 Y119.598592 Z-0.125000
G01 X131.388636 Y122.198279 Z-0.125000
G01 X131.893195 Y124.011202 Z-0.125000
G01 X132.263770 Y125.797613 Z-0.125000
G01 X132.470886 Y127.465042 Z-0.125000
G01 X132.496206 Y128.934033 Z-0.125000
G01 X132.270967 Y130.421677 Z-0.125000
G01 X131.799427 Y131.525359 Z-0.125000
G01 X131.301006 Y132.195521 Z-0.125000
G01 X129.897287 Y133.690230 Z-0.125000
G01 X128.305132 Y135.816763 Z-0.125000
G01 X127.692199 Y136.826438 Z-0.125000
G01 X126.341635 Y139.458907 Z-0.125000
G01 X125.338522 Y140.871409 Z-0.125000
G01 X123.901889 Y142.214486 Z-0.125000
G01 X120.792404 Y144.438253 Z-0.125000
G01 X119.449248 Y145.502326 Z-0.125000
G01 X115.168057 Y149.531634 Z-0.125000
G01 X113.923697 Y150.374675 Z-0.125000
G01 X112.783027 Y150.910032 Z-0.125000
G01 X112.285081 Y151.011050 Z-0.125000
G01 X111.734378 Y150.983983 Z-0.125000
G01 X108.618411 Y149.992062 Z-0.125000
G01 X107.275943 Y149.779257 Z-0.125000
G01 X105.932391 Y149.697872 Z-0.125000
G01 X102.970067 Y149.838392 Z-0.125000
G01 X98.123276 Y150.485668 Z-0.125000
G01 X95.957135 Y150.684317 Z-0.125000
G01 X93.945908 Y150.748716 Z-0.125000
G01 X92.342905 Y150.590072 Z-0.125000
G01 X91.357439 Y150.299719 Z-0.125000
G01 X90.479817 Y149.818945 Z-0.125000
G01 X89.736313 Y149.127748 Z-0.125000
G01 X89.139519 Y148.225520 Z-0.125000
G01 X88.752011 Y147.326017 Z-0.125000
G01 X88.402285 Y146.100654 Z-0.125000
G01 X87.515509 Y140.623230 Z-0.125000
G01 X87.152025 Y139.162574 Z-0.125000
G01 X86.741022 Y138.031243 Z-0.125000
G01 X86.237282 Y137.017440 Z-0.125000
G01 X85.554314 Y135.971041 Z-0.125000
G01 X83.046649 Y132.982073 Z-0.125000
G01 X82.048034 Y131.613359 Z-0.125000
G01 X81.430259 Y130.361776 Z-0.125000
G01 X81.202029 Y129.241267 Z-0.125000
G01 X81.263386 Y128.249504 Z-0.125000
G01 X81.534875 Y127.262397 Z-0.125000
G01 X83.086072 Y124.002735 Z-0.125000
G01 X83.560072 Y122.698235 Z-0.125000
G01 X83.790551 Y121.488932 Z-0.125000
G01 X84.013197 Y118.786217 Z-0.125000
G01 X84.392027 Y117.330269 Z-0.125000
G01 X86.473052 Y112.577671 Z-0.125000
G01 X88.732723 Y106.239188 Z-0.125000
G01 X89.482816 Y104.799883 Z-0.125000
G01 X90.267728 Y103.822063 Z-0.125000
G01 X90.779458 Y103.395344 Z-0.125000
G01 X91.338389 Y103.065647 Z-0.125000
G01 X92.588253 Y102.678324 Z-0.125000
G01 X94.162390 Y102.596065 Z-0.125000
G01 X96.250029 Y102.796460 Z-0.125000
G01 X97.862212 Y103.078585 Z-0.125000
G01 X99.304560 Y103.459955 Z-0.125000
G01 X100.938545 Y104.033095 Z-0.125000
G01 X104.908163 Y105.660651 Z-0.125000
G01 X105.923501 Y105.957777 Z-0.125000
G01 X106.818559 Y106.081761 Z-0.125000
G01 X108.046859 Y105.943940 Z-0.125000
G01 X110.445595 Y105.081505 Z-0.125000
G01 X111.890694 Y104.785066 Z-0.125000
G01 X114.222596 Y104.700691 Z-0.125000
G01 X116.636255 Y104.952680 Z-0.125000
G01 X118.257249 Y105.317063 Z-0.125000
G01 X119.977568 Y105.857395 Z-0.125000
G01 X121.713100 Y106.553857 Z-0.125000
G01 X123.174736 Y107.269897 Z-0.125000
G01 X124.474103 Y108.040945 Z-0.125000
G01 X125.550479 Y108.838822 Z-0.125000
G01 X126.381693 Y109.651727 Z-0.125000
G01 X126.991822 Y110.489211 Z-0.125000
G01 X127.495932 Y111.498489 Z-0.125000
G01 X128.822286 Y114.969845 Z-0.125000
G01 X130.796922 Y119.491039 Z-0.125000
G01 X131.787680 Y122.161184 Z-0.125000
G01 X132.399739 Y124.257581 Z-0.125000
G01 X132.803096 Y126.080029 Z-0.125000
G01 X133.041565 Y127.761136 Z-0.125000
G01 X133.094667 Y129.219968 Z-0.125000
G01 X132.929858 Y130.543676 Z-0.125000
G01 X132.504144 Y131.637912 Z-0.125000
G01 X132.035753 Y132.302809 Z-0.125000
G01 X130.812189 Y133.692161 Z-0.125000
G01 X129.222495 Y135.929951 Z-0.125000
G01 X128.617790 Y137.023288 Z-0.125000
G01 X127.279635 Y139.894357 Z-0.125000
G01 X126.249322 Y141.406555 Z-0.125000
G01 X125.544897 Y142.127623 Z-0.125000
G01 X124.606156 Y142.880547 Z-0.125000
G01 X121.203010 Y145.070500 Z-0.125000
G01 X119.582651 Y146.253424 Z-0.125000
G01 X114.874767 Y150.523609 Z-0.125000
G01 X113.580374 Y151.354055 Z-0.125000
G01 X112.509210 Y151.818266 Z-0.125000
G01 X112.000205 Y151.895419 Z-0.125000
G01 X111.437490 Y151.823796 Z-0.125000
G01 X109.208378 Y150.890427 Z-0.125000
G01 X107.835960 Y150.492653 Z-0.125000
G01 X106.556172 Y150.283182 Z-0.125000
G01 X105.337449 Y150.195499 Z-0.125000
G01 X103.822500 Y150.203384 Z-0.125000
G01 X102.271303 Y150.313265 Z-0.125000
G01 X97.222715 Y150.981999 Z-0.125000
G01 X94.279203 Y151.272114 Z-0.125000
G01 X92.794601 Y151.313363 Z-0.125000
G01 X91.554739 Y151.188638 Z-0.125000
G01 X90.585809 Y150.901539 Z-0.125000
G01 X89.872335 Y150.506596 Z-0.125000
G01 X89.260831 Y149.957084 Z-0.125000
G01 X88.672292 Y149.092374 Z-0.125000
G01 X88.301109 Y148.212794 Z-0.125000
G01 X87.981995 Y146.997749 Z-0.125000
G01 X87.268679 Y141.461668 Z-0.125000
G01 X86.937501 Y139.972833 Z-0.125000
G01 X86.536420 Y138.817663 Z-0.125000
G01 X86.023896 Y137.780339 Z-0.125000
G01 X85.307828 Y136.706238 Z-0.125000
G01 X82.609373 Y133.620936 Z-0.125000
G01 X81.446213 Y132.070029 Z-0.125000
G01 X80.785258 Y130.744045 Z-0.125000
G01 X80.605527 Y130.075100 Z-0.125000
G01 X80.532449 Y129.402398 Z-0.125000
G01 X80.600553 Y128.455005 Z-0.125000
G01 X80.885350 Y127.367993 Z-0.125000
G01 X82.500629 Y123.772336 Z-0.125000
G01 X82.974153 Y122.366739 Z-0.125000
G01 X83.181613 Y121.096026 Z-0.125000
G01 X83.315492 Y118.495890 Z-0.125000
G01 X83.611163 Y117.210810 Z-0.125000
G01 X85.817786 Y112.334254 Z-0.125000
G01 X87.546174 Y107.188644 Z-0.125000
G01 X88.111270 Y105.709572 Z-0.125000
G01 X88.774924 Y104.437245 Z-0.125000
G01 X89.455670 Y103.563143 Z-0.125000
G01 X90.403088 Y102.826067 Z-0.125000
G01 X91.019699 Y102.541588 Z-0.125000
G01 X91.686951 Y102.349818 Z-0.125000
G01 X93.146841 Y102.204482 Z-0.125000
G01 X94.924124 Y102.310898 Z-0.125000
G01 X97.224938 Y102.635250 Z-0.125000
G01 X98.959861 Y103.024478 Z-0.125000
G01 X100.898461 Y103.637173 Z-0.125000
G01 X104.895437 Y105.127781 Z-0.125000
G01 X105.968506 Y105.402709 Z-0.125000
G01 X106.781252 Y105.494546 Z-0.125000
G01 X107.393841 Y105.468722 Z-0.125000
G01 X108.070962 Y105.328652 Z-0.125000
G01 X110.477874 Y104.350330 Z-0.125000
G01 X111.766684 Y104.033994 Z-0.125000
G01 X114.061280 Y103.921626 Z-0.125000
G01 X116.218928 Y104.133372 Z-0.125000
G01 X117.765627 Y104.478997 Z-0.125000
G01 X119.441761 Y105.015068 Z-0.125000
G01 X121.187400 Y105.728252 Z-0.125000
G01 X122.893934 Y106.574573 Z-0.125000
G01 X124.432881 Y107.494132 Z-0.125000
G01 X125.572334 Y108.329076 Z-0.125000
G01 X126.457443 Y109.158888 Z-0.125000
G01 X127.167187 Y110.092760 Z-0.125000
G01 X127.708815 Y111.184429 Z-0.125000
G01 X129.158254 Y114.947249 Z-0.125000
G01 X131.245390 Y119.613806 Z-0.125000
G01 X132.196328 Y122.135467 Z-0.125000
G01 X132.859188 Y124.289834 Z-0.125000
G01 X133.315911 Y126.157975 Z-0.125000
G01 X133.609307 Y127.869959 Z-0.125000
G01 X133.713606 Y129.341544 Z-0.125000
G01 X133.598671 Y130.661813 Z-0.125000
G01 X133.218280 Y131.743984 Z-0.125000
G01 X132.839053 Y132.329347 Z-0.125000
G01 X131.668723 Y133.766456 Z-0.125000
G01 X130.143243 Y136.014062 Z-0.125000
G01 X129.544757 Y137.191483 Z-0.125000
G01 X128.214592 Y140.320362 Z-0.125000
G01 X127.692358 Y141.228887 Z-0.125000
G01 X127.062333 Y142.059281 Z-0.125000
G01 X126.309542 Y142.802363 Z-0.125000
G01 X125.298464 Y143.558329 Z-0.125000
G01 X121.434547 Y145.796490 Z-0.125000
G01 X119.671392 Y146.996850 Z-0.125000
G01 X118.316754 Y148.106749 Z-0.125000
G01 X115.697779 Y150.570387 Z-0.125000
G01 X114.543827 Y151.520055 Z-0.125000
G01 X113.325157 Y152.276947 Z-0.125000
G01 X112.326647 Y152.702370 Z-0.125000
G01 X111.805128 Y152.775925 Z-0.125000
G01 X111.233999 Y152.680384 Z-0.125000
G01 X108.965676 Y151.562706 Z-0.125000
G01 X107.548305 Y151.077222 Z-0.125000
G01 X106.220707 Y150.810046 Z-0.125000
G01 X104.736185 Y150.673336 Z-0.125000
G01 X103.157709 Y150.670691 Z-0.125000
G01 X101.560051 Y150.780678 Z-0.125000
G01 X93.084558 Y151.845148 Z-0.125000
G01 X91.781037 Y151.882454 Z-0.125000
G01 X90.731383 Y151.772970 Z-0.125000
G01 X89.787880 Y151.480209 Z-0.125000
G01 X89.108616 Y151.069576 Z-0.125000
G01 X88.542012 Y150.495881 Z-0.125000
G01 X88.094073 Y149.760049 Z-0.125000
G01 X87.761359 Y148.874384 Z-0.125000
G01 X87.530855 Y147.861586 Z-0.125000
G01 X86.972452 Y142.060736 Z-0.125000
G01 X86.714246 Y140.773196 Z-0.125000
G01 X86.330786 Y139.598236 Z-0.125000
G01 X85.816992 Y138.540936 Z-0.125000
G01 X85.075313 Y137.442043 Z-0.125000
G01 X82.188898 Y134.254956 Z-0.125000
G01 X80.857093 Y132.510851 Z-0.125000
G01 X80.154360 Y131.112107 Z-0.125000
G01 X79.961135 Y130.398685 Z-0.125000
G01 X79.880384 Y129.676029 Z-0.125000
G01 X79.947112 Y128.650215 Z-0.125000
G01 X80.241276 Y127.464010 Z-0.125000
G01 X81.849173 Y123.670710 Z-0.125000
G01 X82.340980 Y122.157533 Z-0.125000
G01 X82.545450 Y120.821733 Z-0.125000
G01 X82.615961 Y118.184819 Z-0.125000
G01 X82.883640 Y116.932601 Z-0.125000
G01 X83.309010 Y115.940362 Z-0.125000
G01 X84.623590 Y113.423807 Z-0.125000
G01 X85.201122 Y112.101289 Z-0.125000
G01 X85.820246 Y110.384860 Z-0.125000
G01 X86.965335 Y106.687550 Z-0.125000
G01 X87.526807 Y105.201388 Z-0.125000
G01 X88.101402 Y104.101013 Z-0.125000
G01 X88.796382 Y103.207755 Z-0.125000
G01 X89.784202 Y102.456312 Z-0.125000
G01 X90.962787 Y102.013453 Z-0.125000
G01 X92.301789 Y101.838379 Z-0.125000
G01 X94.176439 Y101.898042 Z-0.125000
G01 X96.810733 Y102.229247 Z-0.125000
G01 X98.629053 Y102.578206 Z-0.125000
G01 X100.666501 Y103.143117 Z-0.125000
G01 X104.887235 Y104.563452 Z-0.125000
G01 X106.019968 Y104.815043 Z-0.125000
G01 X106.874280 Y104.880819 Z-0.125000
G01 X107.514280 Y104.828114 Z-0.125000
G01 X108.216060 Y104.650261 Z-0.125000
G01 X110.541347 Y103.580975 Z-0.125000
G01 X111.821400 Y103.217200 Z-0.125000
G01 X113.816752 Y103.086099 Z-0.125000
G01 X115.890607 Y103.261835 Z-0.125000
G01 X117.353275 Y103.585526 Z-0.125000
G01 X118.957415 Y104.113131 Z-0.125000
G01 X120.676014 Y104.841264 Z-0.125000
G01 X122.611015 Y105.834323 Z-0.125000
G01 X124.232168 Y106.819048 Z-0.125000
G01 X125.605671 Y107.817505 Z-0.125000
G01 X126.653579 Y108.785111 Z-0.125000
G01 X127.379621 Y109.720756 Z-0.125000
G01 X127.916089 Y110.779988 Z-0.125000
G01 X129.302028 Y114.399721 Z-0.125000
G01 X131.522885 Y119.310832 Z-0.125000
G01 X132.615348 Y122.128059 Z-0.125000
G01 X133.333321 Y124.341904 Z-0.125000
G01 X133.897068 Y126.478914 Z-0.125000
G01 X134.220044 Y128.183993 Z-0.125000
G01 X134.346806 Y129.622557 Z-0.125000
G01 X134.251053 Y130.891048 Z-0.125000
G01 X133.936438 Y131.835979 Z-0.125000
G01 X131.064812 Y136.079573 Z-0.125000
G01 X130.525090 Y137.199447 Z-0.125000
G01 X129.067158 Y140.876622 Z-0.125000
G01 X128.521006 Y141.848012 Z-0.125000
G01 X127.855209 Y142.721188 Z-0.125000
G01 X127.053787 Y143.485331 Z-0.125000
G01 X125.971113 Y144.241006 Z-0.125000
G01 X121.975619 Y146.310363 Z-0.125000
G01 X120.055884 Y147.486593 Z-0.125000
G01 X118.263652 Y148.875707 Z-0.125000
G01 X114.543430 Y152.266152 Z-0.125000
G01 X113.187204 Y153.141076 Z-0.125000
G01 X112.166654 Y153.583247 Z-0.125000
G01 X111.636589 Y153.652991 Z-0.125000
G01 X111.060538 Y153.533135 Z-0.125000
G01 X108.897943 Y152.297320 Z-0.125000
G01 X107.293538 Y151.651420 Z-0.125000
G01 X105.703632 Y151.289074 Z-0.125000
G01 X104.142725 Y151.129583 Z-0.125000
G01 X102.498527 Y151.120349 Z-0.125000
G01 X100.622422 Y151.259494 Z-0.125000
G01 X92.224054 Y152.395586 Z-0.125000
G01 X91.098730 Y152.450302 Z-0.125000
G01 X90.048812 Y152.367303 Z-0.125000
G01 X89.116315 Y152.094279 Z-0.125000
G01 X88.336960 Y151.593265 Z-0.125000
G01 X87.821473 Y150.989010 Z-0.125000
G01 X87.368956 Y150.045454 Z-0.125000
G01 X87.121439 Y149.096871 Z-0.125000
G01 X86.972294 Y148.030152 Z-0.125000
G01 X86.790419 Y144.010290 Z-0.125000
G01 X86.634659 Y142.409272 Z-0.125000
G01 X86.314249 Y140.942053 Z-0.125000
G01 X85.880836 Y139.810405 Z-0.125000
G01 X85.408740 Y138.954294 Z-0.125000
G01 X84.729953 Y138.017167 Z-0.125000
G01 X81.783345 Y134.879372 Z-0.125000
G01 X80.372376 Y133.075445 Z-0.125000
G01 X79.855619 Y132.205258 Z-0.125000
G01 X79.534416 Y131.464478 Z-0.125000
G01 X79.326983 Y130.708961 Z-0.125000
G01 X79.237262 Y129.938443 Z-0.125000
G01 X79.300339 Y128.836217 Z-0.125000
G01 X79.600905 Y127.551719 Z-0.125000
G01 X81.243834 Y123.430310 Z-0.125000
G01 X81.726512 Y121.812120 Z-0.125000
G01 X81.905635 Y120.410333 Z-0.125000
G01 X81.917488 Y117.858086 Z-0.125000
G01 X82.126562 Y116.750197 Z-0.125000
G01 X82.528807 Y115.812330 Z-0.125000
G01 X84.038227 Y113.170178 Z-0.125000
G01 X84.712411 Y111.673141 Z-0.125000
G01 X85.323809 Y109.938984 Z-0.125000
G01 X86.428284 Y106.198654 Z-0.125000
G01 X86.986608 Y104.708549 Z-0.125000
G01 X87.577024 Y103.616244 Z-0.125000
G01 X88.176040 Y102.870385 Z-0.125000
G01 X89.041888 Y102.191412 Z-0.125000
G01 X90.256218 Y101.694155 Z-0.125000
G01 X91.659567 Y101.477038 Z-0.125000
G01 X93.644495 Y101.501829 Z-0.125000
G01 X96.415446 Y101.811047 Z-0.125000
G01 X98.549758 Y102.168155 Z-0.125000
G01 X100.673010 Y102.698644 Z-0.125000
G01 X104.877498 Y103.979993 Z-0.125000
G01 X105.910404 Y104.188749 Z-0.125000
G01 X106.826814 Y104.254471 Z-0.125000
G01 X107.509570 Y104.195046 Z-0.125000
G01 X108.250588 Y103.998461 Z-0.125000
G01 X110.623262 Y102.791169 Z-0.125000
G01 X111.903209 Y102.366196 Z-0.125000
G01 X113.763730 Y102.207790 Z-0.125000
G01 X115.796627 Y102.364899 Z-0.125000
G01 X117.192329 Y102.682901 Z-0.125000
G01 X118.723100 Y103.219185 Z-0.125000
G01 X120.393307 Y103.978617 Z-0.125000
G01 X122.333944 Y105.035812 Z-0.125000
G01 X124.198275 Y106.217836 Z-0.125000
G01 X125.648851 Y107.292175 Z-0.125000
G01 X126.777007 Y108.312434 Z-0.125000
G01 X127.632060 Y109.367803 Z-0.125000
G01 X128.171968 Y110.400893 Z-0.125000
G01 X129.413629 Y113.698047 Z-0.125000
G01 X131.906424 Y119.247940 Z-0.125000
G01 X133.149488 Y122.400844 Z-0.125000
G01 X133.909106 Y124.666785 Z-0.125000
G01 X134.507196 Y126.813929 Z-0.125000
G01 X134.851604 Y128.492656 Z-0.125000
G01 X134.992626 Y129.882801 Z-0.125000
G01 X134.909494 Y131.092131 Z-0.125000
G01 X134.610304 Y131.998036 Z-0.125000
G01 X131.924628 Y136.260230 Z-0.125000
G01 X131.388847 Y137.463263 Z-0.125000
G01 X129.968169 Y141.281381 Z-0.125000
G01 X129.410825 Y142.330505 Z-0.125000
G01 X128.727724 Y143.264377 Z-0.125000
G01 X127.899632 Y144.066408 Z-0.125000
G01 X126.771212 Y144.834942 Z-0.125000
G01 X122.146857 Y146.999257 Z-0.125000
G01 X120.087502 Y148.187738 Z-0.125000
G01 X118.015394 Y149.769362 Z-0.125000
G01 X114.324884 Y153.182165 Z-0.125000
G01 X112.966065 Y154.061242 Z-0.125000
G01 X111.948955 Y154.478675 Z-0.125000
G01 X111.422382 Y154.514499 Z-0.125000
G01 X110.928485 Y154.376308 Z-0.125000
G01 X108.738664 Y152.963646 Z-0.125000
G01 X107.269408 Y152.282927 Z-0.125000
G01 X105.651271 Y151.827950 Z-0.125000
G01 X103.808371 Y151.580988 Z-0.125000
G01 X102.102049 Y151.545190 Z-0.125000
G01 X100.401019 Y151.651341 Z-0.125000
G01 X91.723119 Y152.901443 Z-0.125000
G01 X90.394463 Y153.000450 Z-0.125000
G01 X89.347984 Y152.934912 Z-0.125000
G01 X88.430463 Y152.673266 Z-0.125000
G01 X87.676931 Y152.176565 Z-0.125000
G01 X87.190733 Y151.570405 Z-0.125000
G01 X86.781767 Y150.618832 Z-0.125000
G01 X86.576213 Y149.660354 Z-0.125000
G01 X86.472443 Y148.582707 Z-0.125000
G01 X86.441461 Y144.778321 Z-0.125000
G01 X86.344306 Y143.165053 Z-0.125000
G01 X86.069854 Y141.684579 Z-0.125000
G01 X85.574951 Y140.361267 Z-0.125000
G01 X85.086663 Y139.508251 Z-0.125000
G01 X84.376099 Y138.568876 Z-0.125000
G01 X81.391682 Y135.491590 Z-0.125000
G01 X79.803629 Y133.483776 Z-0.125000
G01 X79.261631 Y132.579881 Z-0.125000
G01 X78.921324 Y131.806240 Z-0.125000
G01 X78.698624 Y131.012068 Z-0.125000
G01 X78.598612 Y130.196253 Z-0.125000
G01 X78.656185 Y129.019255 Z-0.125000
G01 X78.961567 Y127.635856 Z-0.125000
G01 X80.576238 Y123.344135 Z-0.125000
G01 X81.072304 Y121.611116 Z-0.125000
G01 X81.248993 Y120.136251 Z-0.125000
G01 X81.222191 Y117.521377 Z-0.125000
G01 X81.420707 Y116.427221 Z-0.125000
G01 X81.829700 Y115.534730 Z-0.125000
G01 X83.226036 Y113.390046 Z-0.125000
G01 X84.028331 Y111.842315 Z-0.125000
G01 X84.737864 Y109.952266 Z-0.125000
G01 X86.240933 Y104.838062 Z-0.125000
G01 X86.884531 Y103.479164 Z-0.125000
G01 X87.599223 Y102.543440 Z-0.125000
G01 X88.493672 Y101.846263 Z-0.125000
G01 X89.767930 Y101.332073 Z-0.125000
G01 X91.254913 Y101.101462 Z-0.125000
G01 X93.123875 Y101.098102 Z-0.125000
G01 X95.793359 Y101.346149 Z-0.125000
G01 X98.498561 Y101.737361 Z-0.125000
G01 X100.698463 Y102.235121 Z-0.125000
G01 X104.857813 Y103.395847 Z-0.125000
G01 X105.943530 Y103.590553 Z-0.125000
G01 X106.905871 Y103.635294 Z-0.125000
G01 X107.620854 Y103.551236 Z-0.125000
G01 X108.392986 Y103.316260 Z-0.125000
G01 X110.828817 Y101.943604 Z-0.125000
G01 X111.995416 Y101.501671 Z-0.125000
G01 X112.849543 Y101.349800 Z-0.125000
G01 X113.734361 Y101.298894 Z-0.125000
G01 X115.762364 Y101.423883 Z-0.125000
G01 X117.102794 Y101.727968 Z-0.125000
G01 X118.554905 Y102.264728 Z-0.125000
G01 X120.155791 Y103.048952 Z-0.125000
G01 X122.070895 Y104.168641 Z-0.125000
G01 X124.170732 Y105.575455 Z-0.125000
G01 X125.849802 Y106.866435 Z-0.125000
G01 X127.028255 Y107.946383 Z-0.125000
G01 X127.923868 Y109.027231 Z-0.125000
G01 X128.521244 Y110.144909 Z-0.125000
G01 X129.847784 Y113.696222 Z-0.125000
G01 X132.527877 Y119.699980 Z-0.125000
G01 X133.823090 Y122.978137 Z-0.125000
G01 X134.602287 Y125.267495 Z-0.125000
G01 X135.143756 Y127.150955 Z-0.125000
G01 X135.497662 Y128.782586 Z-0.125000
G01 X135.642998 Y130.111136 Z-0.125000
G01 X135.585980 Y131.147455 Z-0.125000
G01 X135.280916 Y132.137630 Z-0.125000
G01 X132.849213 Y136.327355 Z-0.125000
G01 X132.308009 Y137.589204 Z-0.125000
G01 X130.843912 Y141.667301 Z-0.125000
G01 X130.180391 Y142.947910 Z-0.125000
G01 X129.459534 Y143.925200 Z-0.125000
G01 X128.585723 Y144.747153 Z-0.125000
G01 X127.393644 Y145.510661 Z-0.125000
G01 X126.195374 Y146.069063 Z-0.125000
G01 X122.480047 Y147.565783 Z-0.125000
G01 X120.086047 Y148.864409 Z-0.125000
G01 X118.957203 Y149.654559 Z-0.125000
G01 X117.731205 Y150.663679 Z-0.125000
G01 X114.131924 Y154.098919 Z-0.125000
G01 X112.893199 Y154.913808 Z-0.125000
G01 X111.868945 Y155.336665 Z-0.125000
G01 X111.339515 Y155.364287 Z-0.125000
G01 X110.845512 Y155.203870 Z-0.125000
G01 X108.631058 Y153.621135 Z-0.125000
G01 X106.921693 Y152.775051 Z-0.125000
G01 X105.207116 Y152.274407 Z-0.125000
G01 X103.269971 Y152.003448 Z-0.125000
G01 X101.494672 Y151.962861 Z-0.125000
G01 X99.743583 Y152.075441 Z-0.125000
G01 X91.016603 Y153.421507 Z-0.125000
G01 X89.678528 Y153.534537 Z-0.125000
G01 X88.639405 Y153.475667 Z-0.125000
G01 X87.740775 Y153.215529 Z-0.125000
G01 X87.015791 Y152.715070 Z-0.125000
G01 X86.559756 Y152.102032 Z-0.125000
G01 X86.193573 Y151.138764 Z-0.125000
G01 X85.972276 Y149.306315 Z-0.125000
G01 X86.064430 Y145.264254 Z-0.125000
G01 X86.023711 Y143.881041 Z-0.125000
G01 X85.799609 Y142.391783 Z-0.125000
G01 X85.337620 Y141.058284 Z-0.125000
G01 X84.858725 Y140.196299 Z-0.125000
G01 X84.142287 Y139.243377 Z-0.125000
G01 X80.881566 Y135.949345 Z-0.125000
G01 X79.238083 Y133.882079 Z-0.125000
G01 X78.670288 Y132.949741 Z-0.125000
G01 X78.309052 Y132.146123 Z-0.125000
G01 X78.036135 Y131.144836 Z-0.125000
G01 X77.949140 Y130.278194 Z-0.125000
G01 X78.031134 Y129.018990 Z-0.125000
G01 X78.313921 Y127.718697 Z-0.125000
G01 X79.959336 Y123.098866 Z-0.125000
G01 X80.413704 Y121.420458 Z-0.125000
G01 X80.588144 Y119.869684 Z-0.125000
G01 X80.531153 Y117.180489 Z-0.125000
G01 X80.726891 Y116.091253 Z-0.125000
G01 X81.218354 Y115.132378 Z-0.125000
G01 X82.913352 Y112.807302 Z-0.125000
G01 X83.648787 Y111.416839 Z-0.125000
G01 X84.353451 Y109.509407 Z-0.125000
G01 X85.366698 Y105.692665 Z-0.125000
G01 X85.798550 Y104.353452 Z-0.125000
G01 X86.348698 Y103.178862 Z-0.125000
G01 X87.068020 Y102.219669 Z-0.125000
G01 X87.987869 Y101.501459 Z-0.125000
G01 X89.319012 Y100.965678 Z-0.125000
G01 X90.887222 Y100.715991 Z-0.125000
G01 X92.864398 Y100.693687 Z-0.125000
G01 X95.415772 Y100.894770 Z-0.125000
G01 X98.466097 Y101.291645 Z-0.125000
G01 X100.483912 Y101.705214 Z-0.125000
G01 X104.811644 Y102.825300 Z-0.125000
G01 X105.947737 Y103.007254 Z-0.125000
G01 X106.956009 Y103.031781 Z-0.125000
G01 X107.704885 Y102.923619 Z-0.125000
G01 X108.511890 Y102.650781 Z-0.125000
G01 X111.026063 Y101.107151 Z-0.125000
G01 X112.219835 Y100.608544 Z-0.125000
G01 X113.095526 Y100.434396 Z-0.125000
G01 X114.003257 Y100.372510 Z-0.125000
G01 X116.054595 Y100.497314 Z-0.125000
G01 X117.371108 Y100.825026 Z-0.125000
G01 X118.614092 Y101.330776 Z-0.125000
G01 X120.149494 Y102.157731 Z-0.125000
G01 X121.830019 Y103.226593 Z-0.125000
G01 X124.146655 Y104.881957 Z-0.125000
G01 X126.066231 Y106.422279 Z-0.125000
G01 X127.417509 Y107.692119 Z-0.125000
G01 X128.323177 Y108.794980 Z-0.125000
G01 X128.917907 Y109.897895 Z-0.125000
G01 X130.448572 Y114.085079 Z-0.125000
G01 X132.997459 Y119.729958 Z-0.125000
G01 X134.455126 Y123.342362 Z-0.125000
G01 X135.741899 Y127.258720 Z-0.125000
G01 X136.116919 Y128.861617 Z-0.125000
G01 X136.282363 Y130.157729 Z-0.125000
G01 X136.231642 Y131.283318 Z-0.125000
G01 X135.942109 Y132.260106 Z-0.125000
G01 X133.587241 Y136.812759 Z-0.125000
G01 X132.058745 Y141.119244 Z-0.125000
G01 X131.453088 Y142.568498 Z-0.125000
G01 X130.809199 Y143.720836 Z-0.125000
G01 X130.147635 Y144.581921 Z-0.125000
G01 X129.229083 Y145.420014 Z-0.125000
G01 X127.978081 Y146.173970 Z-0.125000
G01 X126.719698 Y146.704565 Z-0.125000
G01 X122.585747 Y148.194643 Z-0.125000
G01 X121.304901 Y148.798845 Z-0.125000
G01 X120.059324 Y149.516553 Z-0.125000
G01 X118.875632 Y150.342687 Z-0.125000
G01 X117.600263 Y151.409195 Z-0.125000
G01 X113.977540 Y155.012524 Z-0.125000
G01 X112.866582 Y155.753515 Z-0.125000
G01 X111.840159 Y156.173858 Z-0.125000
G01 X111.309114 Y156.191823 Z-0.125000
G01 X110.815826 Y156.009790 Z-0.125000
G01 X108.578406 Y154.270580 Z-0.125000
G01 X107.764919 Y153.780970 Z-0.125000
G01 X106.815066 Y153.332078 Z-0.125000
G01 X105.035666 Y152.763992 Z-0.125000
G01 X103.023089 Y152.439296 Z-0.125000
G01 X101.181829 Y152.367064 Z-0.125000
G01 X99.119749 Y152.488270 Z-0.125000
G01 X95.214901 Y153.058870 Z-0.125000
G01 X90.306833 Y153.942418 Z-0.125000
G01 X88.961111 Y154.056242 Z-0.125000
G01 X87.933338 Y153.991604 Z-0.125000
G01 X87.057675 Y153.721571 Z-0.125000
G01 X86.465697 Y153.311599 Z-0.125000
G01 X86.011619 Y152.722055 Z-0.125000
G01 X85.652898 Y151.782997 Z-0.125000
G01 X85.499783 Y150.828567 Z-0.125000
G01 X85.457900 Y149.750444 Z-0.125000
G01 X85.661735 Y145.939708 Z-0.125000
G01 X85.659009 Y144.331229 Z-0.125000
G01 X85.454302 Y142.858930 Z-0.125000
G01 X85.076107 Y141.719980 Z-0.125000
G01 X84.613536 Y140.851619 Z-0.125000
G01 X83.900855 Y139.888457 Z-0.125000
G01 X80.372826 Y136.393792 Z-0.125000
G01 X78.668277 Y134.273635 Z-0.125000
G01 X78.071483 Y133.310791 Z-0.125000
G01 X77.687044 Y132.476058 Z-0.125000
G01 X77.391531 Y131.429315 Z-0.125000
G01 X77.291413 Y130.517456 Z-0.125000
G01 X77.364041 Y129.184011 Z-0.125000
G01 X77.646457 Y127.798284 Z-0.125000
G01 X79.318913 Y122.850608 Z-0.125000
G01 X79.771376 Y121.072769 Z-0.125000
G01 X79.926660 Y119.456088 Z-0.125000
G01 X79.844428 Y116.840817 Z-0.125000
G01 X80.006908 Y115.859135 Z-0.125000
G01 X80.419128 Y115.020063 Z-0.125000
G01 X82.261049 Y112.814234 Z-0.125000
G01 X83.238260 Y111.173899 Z-0.125000
G01 X84.023278 Y109.055251 Z-0.125000
G01 X84.981492 Y105.202975 Z-0.125000
G01 X85.405618 Y103.863021 Z-0.125000
G01 X85.967698 Y102.696369 Z-0.125000
G01 X86.722924 Y101.751675 Z-0.125000
G01 X87.702648 Y101.050768 Z-0.125000
G01 X89.127878 Y100.533561 Z-0.125000
G01 X90.803641 Y100.296574 Z-0.125000
G01 X92.632597 Y100.271042 Z-0.125000
G01 X95.037815 Y100.429554 Z-0.125000
G01 X98.178336 Y100.802589 Z-0.125000
G01 X100.247455 Y101.188775 Z-0.125000
G01 X104.716605 Y102.269358 Z-0.125000
G01 X105.899926 Y102.437395 Z-0.125000
G01 X106.954210 Y102.441337 Z-0.125000
G01 X107.887289 Y102.268882 Z-0.125000
G01 X108.719587 Y101.935084 Z-0.125000
G01 X111.204895 Y100.292394 Z-0.125000
G01 X112.432692 Y99.734521 Z-0.125000
G01 X113.332539 Y99.533305 Z-0.125000
G01 X114.266067 Y99.452978 Z-0.125000
G01 X115.330591 Y99.451126 Z-0.125000
G01 X116.358945 Y99.555028 Z-0.125000
G01 X117.517660 Y99.844270 Z-0.125000
G01 X118.714766 Y100.354571 Z-0.125000
G01 X120.009953 Y101.103658 Z-0.125000
G01 X121.618485 Y102.209060 Z-0.125000
G01 X124.122287 Y104.129271 Z-0.125000
G01 X126.290968 Y105.951639 Z-0.125000
G01 X127.832375 Y107.433172 Z-0.125000
G01 X128.757834 Y108.561750 Z-0.125000
G01 X129.439717 Y109.852968 Z-0.125000
G01 X130.380442 Y112.717423 Z-0.125000
G01 X131.021659 Y114.369453 Z-0.125000
G01 X133.633384 Y120.060289 Z-0.125000
G01 X135.133834 Y123.733654 Z-0.125000
G01 X136.409812 Y127.564340 Z-0.125000
G01 X136.732365 Y128.912946 Z-0.125000
G01 X136.906964 Y130.170456 Z-0.125000
G01 X136.860027 Y131.385130 Z-0.125000
G01 X136.478551 Y132.661452 Z-0.125000
G01 X135.715097 Y134.444900 Z-0.125000
G01 X134.507937 Y136.915020 Z-0.125000
G01 X133.059001 Y141.037991 Z-0.125000
G01 X132.439956 Y142.586648 Z-0.125000
G01 X131.697907 Y144.016957 Z-0.125000
G01 X130.912492 Y145.093916 Z-0.125000
G01 X129.825506 Y146.081049 Z-0.125000
G01 X128.521111 Y146.820426 Z-0.125000
G01 X127.210182 Y147.319165 Z-0.125000
G01 X122.885732 Y148.700367 Z-0.125000
G01 X121.539401 Y149.291710 Z-0.125000
G01 X120.229318 Y150.014736 Z-0.125000
G01 X118.985540 Y150.866350 Z-0.125000
G01 X117.649634 Y151.984901 Z-0.125000
G01 X113.870648 Y155.917451 Z-0.125000
G01 X112.890289 Y156.576289 Z-0.125000
G01 X111.865321 Y156.984408 Z-0.125000
G01 X111.333032 Y156.990970 Z-0.125000
G01 X110.840696 Y156.788458 Z-0.125000
G01 X108.580867 Y154.913385 Z-0.125000
G01 X107.744493 Y154.383081 Z-0.125000
G01 X106.763076 Y153.893073 Z-0.125000
G01 X104.667393 Y153.199628 Z-0.125000
G01 X102.558243 Y152.854453 Z-0.125000
G01 X100.378741 Y152.778253 Z-0.125000
G01 X98.279566 Y152.920599 Z-0.125000
G01 X94.508808 Y153.480033 Z-0.125000
G01 X89.604921 Y154.462033 Z-0.125000
G01 X88.433480 Y154.568765 Z-0.125000
G01 X87.396791 Y154.514579 Z-0.125000
G01 X86.519486 Y154.259336 Z-0.125000
G01 X85.826120 Y153.764856 Z-0.125000
G01 X85.401623 Y153.156501 Z-0.125000
G01 X85.079784 Y152.196858 Z-0.125000
G01 X84.958076 Y151.228167 Z-0.125000
G01 X84.947916 Y150.139567 Z-0.125000
G01 X85.244805 Y146.331423 Z-0.125000
G01 X85.270919 Y144.740115 Z-0.125000
G01 X85.083145 Y143.288401 Z-0.125000
G01 X84.708865 Y142.164929 Z-0.125000
G01 X84.242088 Y141.305484 Z-0.125000
G01 X83.515861 Y140.347191 Z-0.125000
G01 X82.651918 Y139.444222 Z-0.125000
G01 X79.862049 Y136.828872 Z-0.125000
G01 X78.919763 Y135.760618 Z-0.125000
G01 X78.081220 Y134.644210 Z-0.125000
G01 X77.454952 Y133.648796 Z-0.125000
G01 X76.980819 Y132.606022 Z-0.125000
G01 X76.729016 Y131.694136 Z-0.125000
G01 X76.608313 Y130.545079 Z-0.125000
G01 X76.703034 Y129.133158 Z-0.125000
G01 X77.006881 Y127.660992 Z-0.125000
G01 X78.580197 Y122.804200 Z-0.125000
G01 X79.064093 Y120.905182 Z-0.125000
G01 X79.242369 Y119.202855 Z-0.125000
G01 X79.160745 Y116.506516 Z-0.125000
G01 X79.331586 Y115.513616 Z-0.125000
G01 X79.573309 Y114.982571 Z-0.125000
G01 X79.918458 Y114.499601 Z-0.125000
G01 X81.402107 Y113.004999 Z-0.125000
G01 X82.063829 Y112.227257 Z-0.125000
G01 X82.877422 Y110.913179 Z-0.125000
G01 X83.310915 Y109.921575 Z-0.125000
G01 X83.677256 Y108.815406 Z-0.125000
G01 X84.581971 Y104.935349 Z-0.125000
G01 X84.979851 Y103.572985 Z-0.125000
G01 X85.525130 Y102.381462 Z-0.125000
G01 X86.280250 Y101.410972 Z-0.125000
G01 X87.280744 Y100.684241 Z-0.125000
G01 X88.756800 Y100.138010 Z-0.125000
G01 X90.505773 Y99.875385 Z-0.125000
G01 X92.418179 Y99.831094 Z-0.125000
G01 X94.921399 Y99.981165 Z-0.125000
G01 X97.870203 Y100.326552 Z-0.125000
G01 X99.975093 Y100.692761 Z-0.125000
G01 X104.555369 Y101.726328 Z-0.125000
G01 X105.781737 Y101.877484 Z-0.125000
G01 X106.881397 Y101.859360 Z-0.125000
G01 X107.860936 Y101.658383 Z-0.125000
G01 X108.739140 Y101.289660 Z-0.125000
G01 X111.354146 Y99.505260 Z-0.125000
G01 X112.626949 Y98.891665 Z-0.125000
G01 X113.555741 Y98.662748 Z-0.125000
G01 X114.518665 Y98.560804 Z-0.125000
G01 X115.765168 Y98.538394 Z-0.125000
G01 X116.804530 Y98.640391 Z-0.125000
G01 X117.818147 Y98.899894 Z-0.125000
G01 X118.841766 Y99.349235 Z-0.125000
G01 X120.079829 Y100.110678 Z-0.125000
G01 X121.440976 Y101.121862 Z-0.125000
G01 X124.093580 Y103.311974 Z-0.125000
G01 X126.684085 Y105.602231 Z-0.125000
G01 X128.266662 Y107.162212 Z-0.125000
G01 X129.294514 Y108.425305 Z-0.125000
G01 X129.957162 Y109.706072 Z-0.125000
G01 X130.769379 Y112.439505 Z-0.125000
G01 X131.396785 Y114.108680 Z-0.125000
G01 X134.218483 Y120.180648 Z-0.125000
G01 X135.852442 Y124.135741 Z-0.125000
G01 X137.077302 Y127.829558 Z-0.125000
G01 X137.369693 Y129.097704 Z-0.125000
G01 X137.518706 Y130.280840 Z-0.125000
G01 X137.447983 Y131.566978 Z-0.125000
G01 X137.085584 Y132.917383 Z-0.125000
G01 X136.512682 Y134.538033 Z-0.125000
G01 X135.360026 Y137.188996 Z-0.125000
G01 X133.758558 Y141.751492 Z-0.125000
G01 X132.668873 Y144.098793 Z-0.125000
G01 X132.122800 Y144.965699 Z-0.125000
G01 X131.511085 Y145.733016 Z-0.125000
G01 X130.526756 Y146.618602 Z-0.125000
G01 X129.201725 Y147.369462 Z-0.125000
G01 X127.868676 Y147.850024 Z-0.125000
G01 X124.584090 Y148.726561 Z-0.125000
G01 X123.180504 Y149.177913 Z-0.125000
G01 X121.545407 Y149.868845 Z-0.125000
G01 X120.186271 Y150.625685 Z-0.125000
G01 X118.898519 Y151.527437 Z-0.125000
G01 X117.529804 Y152.716923 Z-0.125000
G01 X116.340398 Y153.964775 Z-0.125000
G01 X114.478395 Y156.154173 Z-0.125000
G01 X113.816303 Y156.806899 Z-0.125000
G01 X112.965748 Y157.377499 Z-0.125000
G01 X112.039707 Y157.743947 Z-0.125000
G01 X111.495407 Y157.772178 Z-0.125000
G01 X110.999764 Y157.586176 Z-0.125000
G01 X108.636111 Y155.551241 Z-0.125000
G01 X107.776719 Y154.988235 Z-0.125000
G01 X106.763552 Y154.463938 Z-0.125000
G01 X104.592701 Y153.707230 Z-0.125000
G01 X102.406902 Y153.308477 Z-0.125000
G01 X100.153078 Y153.186981 Z-0.125000
G01 X97.471185 Y153.349276 Z-0.125000
G01 X93.818432 Y153.888470 Z-0.125000
G01 X88.922217 Y154.967889 Z-0.125000
G01 X87.737177 Y155.082030 Z-0.125000
G01 X86.873631 Y155.030648 Z-0.125000
G01 X85.997993 Y154.774637 Z-0.125000
G01 X85.308410 Y154.285794 Z-0.125000
G01 X84.885342 Y153.686566 Z-0.125000
G01 X84.563398 Y152.740497 Z-0.125000
G01 X84.442404 Y151.783024 Z-0.125000
G01 X84.436398 Y150.704160 Z-0.125000
G01 X84.810068 Y146.680647 Z-0.125000
G01 X84.857640 Y145.110717 Z-0.125000
G01 X84.684391 Y143.682207 Z-0.125000
