%
(Header)
(Generated by gcodetools from Inkscape.)
(Using default header. To add your own header create file "header" in the output dir.)
M3
(Header end.)
G21 (All units in mm)

(Start cutting path id: path478407)
(Change tool to Default tool)

G00 Z3.000000
G00 X124.050849 Y256.170372

G00 Z4.875000 (Fast pre-penetrate)
G01 Z-0.125000 F400.0(Penetrate)
G02 X124.398830 Y256.255174 Z-0.125000 I13.070505 J-52.877588 F800.000000
G02 X124.745715 Y256.334746 Z-0.125000 I4.050682 J-16.862517
G02 X125.093804 Y256.408035 Z-0.125000 I4.924615 J-22.526420
G02 X125.440579 Y256.474184 Z-0.125000 I3.097294 J-15.294995
G02 X125.788601 Y256.532841 Z-0.125000 I3.044531 J-17.002064
G02 X126.135443 Y256.583592 Z-0.125000 I2.386713 J-15.100653
G02 X126.483311 Y256.626440 Z-0.125000 I2.076476 J-15.424597
G02 X126.830307 Y256.661284 Z-0.125000 I1.726846 J-15.451686
G02 X127.178000 Y256.688265 Z-0.125000 I1.355213 J-15.210177
G02 X127.525173 Y256.707425 Z-0.125000 I1.052794 J-15.921873
G02 X127.872690 Y256.718912 Z-0.125000 I0.689599 J-15.599186
G02 X128.220037 Y256.722797 Z-0.125000 I0.354746 J-16.188575
G02 X128.567390 Y256.719185 Z-0.125000 I0.007661 J-15.968540
G02 X128.914900 Y256.708086 Z-0.125000 I-0.347113 J-16.313714
G02 X129.262097 Y256.689603 Z-0.125000 I-0.688676 J-16.206464
G02 X129.609764 Y256.663687 Z-0.125000 I-1.059897 J-16.563429
G02 X129.956820 Y256.630442 Z-0.125000 I-1.394212 J-16.383017
G02 X130.304631 Y256.589871 Z-0.125000 I-1.850082 J-17.371496
G02 X130.651570 Y256.542167 Z-0.125000 I-2.098906 J-16.550392
G02 X130.999494 Y256.487445 Z-0.125000 I-2.912472 J-19.651126
G02 X131.346393 Y256.426147 Z-0.125000 I-2.885429 J-17.341497
G02 X131.694358 Y256.358644 Z-0.125000 I-4.864765 J-26.007293
G02 X132.041340 Y256.285707 Z-0.125000 I-3.936731 J-19.590117
G02 X132.389224 Y256.208167 Z-0.125000 I-11.767393 J-53.613845
G02 X132.736451 Y256.127140 Z-0.125000 I-5.874967 J-25.960645
G03 X133.084088 Y256.044142 Z-0.125000 I26.334167 J109.530223
G02 X133.431702 Y255.960550 Z-0.125000 I-12.825790 J-54.100186
G03 X133.778952 Y255.878698 Z-0.125000 I5.475948 J22.453732
G03 X134.126988 Y255.800140 Z-0.125000 I22.316222 J98.057859
G03 X134.473816 Y255.727870 Z-0.125000 I2.616968 J11.690534
G03 X134.822099 Y255.663633 Z-0.125000 I4.067996 J21.079701
G03 X135.168682 Y255.610495 Z-0.125000 I1.380266 J7.845839
G03 X135.516773 Y255.570523 Z-0.125000 I1.439627 J11.001033
G03 X135.863546 Y255.546011 Z-0.125000 I0.611388 J6.184252
G03 X136.210872 Y255.539271 Z-0.125000 I0.319033 J7.487606
G03 X136.558410 Y255.551250 Z-0.125000 I-0.021399 J5.668281
G03 X136.904619 Y255.583789 Z-0.125000 I-0.398347 J6.096523
G03 X137.253273 Y255.636771 Z-0.125000 I-0.750471 J6.112153
G03 X137.598607 Y255.710115 Z-0.125000 I-1.056435 J5.823831
G03 X137.948140 Y255.803350 Z-0.125000 I-1.985978 J8.147096
G03 X138.293406 Y255.913520 Z-0.125000 I-1.895422 J6.536243
G03 X138.643003 Y256.039776 Z-0.125000 I-5.529822 J15.858982
G03 X138.989162 Y256.176941 Z-0.125000 I-3.317942 J8.878746
G02 X139.337867 Y256.322689 Z-0.125000 I72.268122 J-172.412755
G03 X139.685546 Y256.471658 Z-0.125000 I-7.347307 J17.628139
G02 X140.032731 Y256.618993 Z-0.125000 I5.684035 J-12.911293
G02 X140.381931 Y256.760928 Z-0.125000 I37.196985 J-91.015027
G02 X140.727597 Y256.890657 Z-0.125000 I2.755792 J-6.817495
G02 X141.077559 Y257.006131 Z-0.125000 I3.969523 J-11.442211
G02 X141.422461 Y257.101116 Z-0.125000 I1.538192 J-4.911630
G02 X141.771875 Y257.174010 Z-0.125000 I1.462238 J-6.135315
G02 X142.117325 Y257.221880 Z-0.125000 I0.775759 J-4.327794
G02 X142.465058 Y257.242876 Z-0.125000 I0.451975 J-4.595444
G02 X142.812189 Y257.237781 Z-0.125000 I0.105215 J-4.659550
G02 X143.158202 Y257.205893 Z-0.125000 I-0.225659 J-4.341729
G02 X143.507055 Y257.149678 Z-0.125000 I-0.832940 J-6.279538
G02 X143.852387 Y257.071542 Z-0.125000 I-0.947774 J-4.990980
G02 X144.201919 Y256.973876 Z-0.125000 I-3.059324 J-11.623157
G02 X144.547807 Y256.862081 Z-0.125000 I-2.058524 J-6.959960
G02 X144.896783 Y256.738643 Z-0.125000 I-26.386870 J-75.154194
G02 X145.243923 Y256.609683 Z-0.125000 I-4.642722 J-13.029211
G03 X145.591649 Y256.478666 Z-0.125000 I7.662938 J19.810928
G02 X145.940048 Y256.350265 Z-0.125000 I-42.561774 J-116.022383
G03 X146.286513 Y256.228842 Z-0.125000 I3.639132 J9.828752
G03 X146.635637 Y256.117022 Z-0.125000 I5.991335 J18.105334
G03 X146.981376 Y256.018789 Z-0.125000 I2.260750 J7.299342
G03 X147.330460 Y255.935408 Z-0.125000 I2.386798 J9.220063
G03 X147.676240 Y255.869080 Z-0.125000 I1.442937 J6.587912
G03 X148.024660 Y255.820486 Z-0.125000 I1.152409 J6.989344
G03 X148.371107 Y255.789650 Z-0.125000 I0.790538 J6.920187
G03 X148.718674 Y255.776735 Z-0.125000 I0.416229 J6.518338
G03 X149.065970 Y255.780284 Z-0.125000 I0.088070 J8.377423
G03 X149.412921 Y255.799573 Z-0.125000 I-0.218611 J7.061874
G03 X149.760834 Y255.832682 Z-0.125000 I-0.948807 J11.814889
G03 X150.107582 Y255.877836 Z-0.125000 I-0.965811 J8.770650
G03 X150.455698 Y255.933244 Z-0.125000 I-3.071862 J20.420808
G03 X150.802585 Y255.996491 Z-0.125000 I-2.090723 J12.449907
G03 X151.150564 Y256.066060 Z-0.125000 I-11.376703 J57.810466
G03 X151.497752 Y256.139476 Z-0.125000 I-4.376387 J21.553739
G02 X151.845428 Y256.215433 Z-0.125000 I27.963385 J-127.162695
G03 X152.192923 Y256.291878 Z-0.125000 I-13.391661 J61.701720
G02 X152.540292 Y256.367684 Z-0.125000 I8.598576 J-38.567845
G02 X152.888005 Y256.441414 Z-0.125000 I26.221667 J-122.806397
G02 X153.235155 Y256.512168 Z-0.125000 I5.640432 J-26.787441
G02 X153.582974 Y256.579092 Z-0.125000 I7.592703 J-38.523707
G02 X153.930022 Y256.641578 Z-0.125000 I4.375981 J-23.309116
G02 X154.277840 Y256.699225 Z-0.125000 I4.633613 J-26.879317
G02 X154.624886 Y256.751740 Z-0.125000 I3.627886 J-22.801889
G02 X154.972644 Y256.799034 Z-0.125000 I3.359591 J-23.401122
G02 X155.319749 Y256.841090 Z-0.125000 I3.105013 J-24.173864
G02 X155.667423 Y256.878023 Z-0.125000 I2.614234 J-22.954391
G02 X156.014613 Y256.910013 Z-0.125000 I2.679234 J-27.177367
G02 X156.362207 Y256.937308 Z-0.125000 I2.096263 J-24.468421
G02 X156.709480 Y256.960207 Z-0.125000 I2.285529 J-32.016164
G02 X157.057004 Y256.979022 Z-0.125000 I1.647827 J-27.217747
G02 X157.404343 Y256.994090 Z-0.125000 I1.904910 J-39.900874
G02 X157.751821 Y257.005763 Z-0.125000 I1.263979 J-32.449053
G02 X158.099207 Y257.014357 Z-0.125000 I1.404466 J-49.743496
G02 X158.446656 Y257.020251 Z-0.125000 I0.843986 J-39.510279
G02 X158.794073 Y257.023723 Z-0.125000 I0.849290 J-67.589462
G02 X159.141507 Y257.025013 Z-0.125000 I0.379020 J-55.300218
G02 X159.488937 Y257.024517 Z-0.125000 I0.049634 J-86.899523
G02 X159.836364 Y257.022453 Z-0.125000 I-0.236894 J-69.127208
G02 X160.183801 Y257.019040 Z-0.125000 I-1.071382 J-126.744446
G02 X160.531226 Y257.014466 Z-0.125000 I-1.139323 J-99.738513
G02 X160.878665 Y257.008960 Z-0.125000 I-2.748656 J-184.385476
G02 X161.226090 Y257.002643 Z-0.125000 I-2.099597 J-125.036110
G02 X161.573531 Y256.995651 Z-0.125000 I-6.161799 J-314.834281
G02 X161.920958 Y256.988140 Z-0.125000 I-3.813015 J-184.419522
G02 X162.268395 Y256.980173 Z-0.125000 I-10.562453 J-468.180191
G02 X162.615823 Y256.971872 Z-0.125000 I-6.862824 J-294.506486
G02 X162.963259 Y256.963292 Z-0.125000 I-20.322453 J-830.018169
G02 X163.310689 Y256.954512 Z-0.125000 I-11.660740 J-468.221202
G02 X163.658122 Y256.945592 Z-0.125000 I-155.946057 J-6087.182805
G02 X164.005555 Y256.936563 Z-0.125000 I-26.260525 J-1015.105016
G03 X164.352989 Y256.927494 Z-0.125000 I80.244141 J3048.834556
G02 X164.700421 Y256.918386 Z-0.125000 I-80.045222 J-3043.558039
G03 X165.047852 Y256.909318 Z-0.125000 I26.702034 J1014.510785
G03 X165.395286 Y256.900285 Z-0.125000 I95.133612 J3652.278879
G03 X165.742716 Y256.891352 Z-0.125000 I18.953851 J730.431856
G03 X166.090150 Y256.882545 Z-0.125000 I35.780084 J1404.675426
G03 X166.437580 Y256.873916 Z-0.125000 I11.234905 J445.362690
G03 X166.785018 Y256.865506 Z-0.125000 I17.862938 J730.753200
G03 X167.132446 Y256.857353 Z-0.125000 I8.257952 J344.516706
G03 X167.479882 Y256.849512 Z-0.125000 I10.224707 J445.323595
G03 X167.827310 Y256.842008 Z-0.125000 I6.638366 J299.295294
G03 X168.174746 Y256.834884 Z-0.125000 I7.105951 J338.085983
G03 X168.522174 Y256.828196 Z-0.125000 I4.678624 J234.040986
G03 X168.869610 Y256.821969 Z-0.125000 I5.537905 J299.259542
G03 X169.217038 Y256.816237 Z-0.125000 I3.557177 J205.094521
G03 X169.564477 Y256.811038 Z-0.125000 I3.967810 J253.544759
G03 X169.911904 Y256.806395 Z-0.125000 I2.714778 J190.124993
G03 X170.259339 Y256.802357 Z-0.125000 I2.612077 J209.786100
G03 X170.606768 Y256.798934 Z-0.125000 I1.989997 J184.347054
G03 X170.954202 Y256.796159 Z-0.125000 I1.378330 J150.826967
G03 X171.301631 Y256.794118 Z-0.125000 I1.234954 J180.686302
G03 X171.649064 Y256.792762 Z-0.125000 I1.191201 J260.701058
G03 X171.996498 Y256.792001 Z-0.125000 I0.536944 J165.900457
G03 X172.343929 Y256.792127 Z-0.125000 I0.115711 J160.783279
G03 X172.691362 Y256.793060 Z-0.125000 I-0.201233 J139.626298
G03 X173.038791 Y256.794664 Z-0.125000 I-0.500311 J145.994193
G03 X173.386225 Y256.797161 Z-0.125000 I-0.730856 J125.863419
G03 X173.733653 Y256.800392 Z-0.125000 I-1.065210 J133.215384
G03 X174.081089 Y256.804437 Z-0.125000 I-1.775695 J167.448106
G03 X174.428515 Y256.809275 Z-0.125000 I-1.962372 J153.383595
G03 X174.775956 Y256.814888 Z-0.125000 I-2.390631 J158.746918
G03 X175.123380 Y256.821281 Z-0.125000 I-2.602318 J150.868759
G03 X175.470819 Y256.828408 Z-0.125000 I-3.534421 J180.765771
G03 X175.818243 Y256.836286 Z-0.125000 I-3.457816 J160.160878
G03 X176.165683 Y256.844839 Z-0.125000 I-4.820853 J202.897705
G03 X176.513107 Y256.854056 Z-0.125000 I-4.190926 J164.521018
G03 X176.860547 Y256.863889 Z-0.125000 I-6.718061 J243.524945
G03 X177.207973 Y256.874260 Z-0.125000 I-6.023147 J207.589306
G03 X177.555413 Y256.885108 Z-0.125000 I-10.008948 J326.134119
G03 X177.902840 Y256.896353 Z-0.125000 I-7.605790 J240.370306
G03 X178.250277 Y256.907915 Z-0.125000 I-30.226220 J913.487245
G03 X178.597707 Y256.919679 Z-0.125000 I-11.497203 J344.715398
G02 X178.945141 Y256.931543 Z-0.125000 I27.292124 J-794.338710
G03 X179.292576 Y256.943393 Z-0.125000 I-32.621698 J961.567158
G02 X179.640004 Y256.955064 Z-0.125000 I8.580829 J-250.257133
G02 X179.987445 Y256.966428 Z-0.125000 I30.032424 J-912.891895
G02 X180.334871 Y256.977315 Z-0.125000 I4.790471 J-147.319509
G02 X180.682314 Y256.987565 Z-0.125000 I7.982945 J-264.713612
G02 X181.029735 Y256.997000 Z-0.125000 I2.975733 J-103.168847
G02 X181.377180 Y257.005408 Z-0.125000 I3.795555 J-149.671370
G02 X181.724598 Y257.012584 Z-0.125000 I1.682136 J-73.020257
G02 X182.072041 Y257.018326 Z-0.125000 I1.813191 J-99.206506
G02 X182.419462 Y257.022400 Z-0.125000 I0.842581 J-57.031824
G02 X182.766900 Y257.024653 Z-0.125000 I0.597761 J-65.412295
G02 X183.114328 Y257.024782 Z-0.125000 I0.192377 J-50.272023
G02 X183.461747 Y257.022596 Z-0.125000 I-0.207770 J-60.628584
G02 X183.809192 Y257.017929 Z-0.125000 I-0.372298 J-40.654824
G02 X184.156587 Y257.010518 Z-0.125000 I-0.848419 J-47.917595
G02 X184.504056 Y257.000228 Z-0.125000 I-0.932508 J-37.360887
G02 X184.851418 Y256.986852 Z-0.125000 I-1.406116 J-41.031414
G02 X185.198922 Y256.970267 Z-0.125000 I-1.495778 J-34.989821
G02 X185.546248 Y256.950320 Z-0.125000 I-1.975098 J-37.425120
G02 X185.893786 Y256.926955 Z-0.125000 I-2.107528 J-33.944045
G02 X186.241075 Y256.900084 Z-0.125000 I-2.493738 J-34.487644
G02 X186.588650 Y256.869691 Z-0.125000 I-2.887290 J-35.021931
G02 X186.935909 Y256.835805 Z-0.125000 I-3.134204 J-33.915259
G02 X187.283514 Y256.798478 Z-0.125000 I-3.903486 J-37.988472
G02 X187.630759 Y256.757832 Z-0.125000 I-3.948815 J-35.238241
G02 X187.978380 Y256.714024 Z-0.125000 I-5.432788 J-44.510798
G02 X188.325633 Y256.667272 Z-0.125000 I-4.954791 J-38.115320
G02 X188.673244 Y256.617821 Z-0.125000 I-8.279310 J-59.445275
G02 X189.020529 Y256.566007 Z-0.125000 I-6.523506 J-44.913944
G02 X189.368107 Y256.512168 Z-0.125000 I-15.617175 J-101.970734
G02 X189.715451 Y256.456729 Z-0.125000 I-9.380939 J-59.891059
G02 X190.062971 Y256.400133 Z-0.125000 I-105.526272 J-649.058939
G02 X190.410394 Y256.342862 Z-0.125000 I-17.004581 J-104.237121
G03 X190.757838 Y256.285463 Z-0.125000 I21.973741 J131.928231
G00 Z3.000000

(End cutting path id: path478407)


(Start cutting path id: path478405)
(Change tool to Default tool)

G00 Z3.000000
G00 X124.050849 Y254.797450

G00 Z4.875000 (Fast pre-penetrate)
G01 Z-0.125000 F400.0(Penetrate)
G03 X124.398461 Y254.876635 Z-0.125000 I-14.968902 J66.514776 F800.000000
G02 X124.745715 Y254.954028 Z-0.125000 I5.474831 J-23.747154
G02 X125.093599 Y255.027716 Z-0.125000 I11.489718 J-53.385325
G02 X125.440579 Y255.096554 Z-0.125000 I3.747767 J-17.981948
G02 X125.788542 Y255.159512 Z-0.125000 I4.534207 J-24.066787
G02 X126.135443 Y255.215854 Z-0.125000 I2.788906 J-16.075409
G02 X126.483344 Y255.265115 Z-0.125000 I2.745657 J-18.137661
G02 X126.830307 Y255.306929 Z-0.125000 I2.048564 J-15.538308
G02 X127.178073 Y255.341140 Z-0.125000 I1.770230 J-16.210385
G02 X127.525173 Y255.367637 Z-0.125000 I1.361740 J-15.551121
G02 X127.872770 Y255.386403 Z-0.125000 I1.020148 J-15.667690
G02 X128.220037 Y255.397456 Z-0.125000 I0.674623 J-15.734763
G02 X128.567465 Y255.400829 Z-0.125000 I0.325934 J-15.677448
G02 X128.914900 Y255.396662 Z-0.125000 I-0.022420 J-16.356643
G02 X129.262166 Y255.384841 Z-0.125000 I-0.365754 J-15.850926
G02 X129.609764 Y255.365534 Z-0.125000 I-0.745512 J-16.560894
G02 X129.956888 Y255.338837 Z-0.125000 I-1.059180 J-16.042181
G02 X130.304631 Y255.304868 Z-0.125000 I-1.560455 J-17.771001
G02 X130.651645 Y255.263851 Z-0.125000 I-1.787095 J-16.607838
G02 X130.999494 Y255.216031 Z-0.125000 I-2.637791 J-20.476848
G02 X131.346472 Y255.161843 Z-0.125000 I-2.587472 J-17.705972
G02 X131.694358 Y255.101771 Z-0.125000 I-4.627419 J-27.835606
G02 X132.041414 Y255.036555 Z-0.125000 I-3.656623 J-20.415059
G02 X132.389224 Y254.967104 Z-0.125000 I-12.112738 J-61.566452
G02 X132.736499 Y254.894469 Z-0.125000 I-5.619457 J-27.733595
G03 X133.084088 Y254.820181 Z-0.125000 I19.735246 J91.489928
G02 X133.431701 Y254.745557 Z-0.125000 I-13.106094 J-61.897586
G03 X133.778952 Y254.672845 Z-0.125000 I4.795520 J22.036546
G03 X134.126919 Y254.603582 Z-0.125000 I16.885259 J83.920138
G03 X134.473816 Y254.540567 Z-0.125000 I2.314316 J11.753920
G03 X134.821957 Y254.485588 Z-0.125000 I3.461062 J20.786790
G03 X135.168682 Y254.441459 Z-0.125000 I1.191386 J7.976625
G03 X135.516577 Y254.410307 Z-0.125000 I1.170602 J11.114624
G03 X135.863546 Y254.394218 Z-0.125000 I0.467621 J6.335186
G03 X136.210670 Y254.395471 Z-0.125000 I0.145812 J7.689583
G03 X136.558410 Y254.415041 Z-0.125000 I-0.151762 J5.795977
G03 X136.904476 Y254.454552 Z-0.125000 I-0.541312 J6.276500
G03 X137.253273 Y254.514024 Z-0.125000 I-0.904535 J6.357577
G03 X137.598561 Y254.593146 Z-0.125000 I-1.198971 J6.025276
G03 X137.948140 Y254.691588 Z-0.125000 I-2.237612 J8.615904
G03 X138.293467 Y254.806216 Z-0.125000 I-2.065600 J6.800301
G03 X138.643003 Y254.936150 Z-0.125000 I-6.449660 J17.885365
G03 X138.989315 Y255.076208 Z-0.125000 I-3.589915 J9.374709
G02 X139.337867 Y255.223760 Z-0.125000 I30.019284 J-70.427255
G03 X139.685761 Y255.373615 Z-0.125000 I-8.390461 J19.957551
G02 X140.032731 Y255.520413 Z-0.125000 I4.992836 J-11.317529
G02 X140.382146 Y255.660610 Z-0.125000 I20.455199 J-50.475222
G02 X140.727597 Y255.786951 Z-0.125000 I2.469577 J-6.217050
G02 X141.077648 Y255.897433 Z-0.125000 I3.349486 J-10.002752
G02 X141.422461 Y255.985777 Z-0.125000 I1.349601 J-4.550468
G02 X141.771690 Y256.050121 Z-0.125000 I1.208447 J-5.579047
G02 X142.117325 Y256.087973 Z-0.125000 I0.623038 J-4.092141
G02 X142.464598 Y256.097214 Z-0.125000 I0.287777 J-4.284451
G02 X142.812189 Y256.079109 Z-0.125000 I-0.063162 J-4.558274
G02 X143.157714 Y256.033287 Z-0.125000 I-0.375887 J-4.160088
G02 X143.507055 Y255.962317 Z-0.125000 I-1.146712 J-6.539778
G02 X143.852168 Y255.869652 Z-0.125000 I-1.149060 J-4.968441
G02 X144.201919 Y255.757704 Z-0.125000 I-4.334624 J-14.144715
G02 X144.547974 Y255.632959 Z-0.125000 I-2.447933 J-7.333160
G03 X144.896783 Y255.498405 Z-0.125000 I42.021538 J108.414426
G02 X145.244405 Y255.360629 Z-0.125000 I-6.217663 J-16.195265
G03 X145.591649 Y255.224170 Z-0.125000 I5.159748 J12.619801
G03 X145.940634 Y255.093521 Z-0.125000 I25.858187 J68.540208
G03 X146.286513 Y254.974105 Z-0.125000 I2.742702 J7.383362
G03 X146.636038 Y254.868245 Z-0.125000 I3.675802 J11.506779
G03 X146.981376 Y254.780218 Z-0.125000 I1.670291 J5.831292
G03 X147.330427 Y254.711308 Z-0.125000 I1.537191 J6.867858
G03 X147.676240 Y254.663045 Z-0.125000 I0.951919 J5.557628
G03 X148.024173 Y254.636278 Z-0.125000 I0.605848 J5.600543
G03 X148.371107 Y254.629961 Z-0.125000 I0.287894 J6.281402
G03 X148.717989 Y254.643958 Z-0.125000 I-0.050868 J5.566337
G03 X149.065970 Y254.676102 Z-0.125000 I-0.606158 J8.461576
G03 X149.412378 Y254.724585 Z-0.125000 I-0.743231 J6.572112
G03 X149.760834 Y254.787174 Z-0.125000 I-2.386307 J14.286735
G03 X150.107381 Y254.860743 Z-0.125000 I-1.738272 J9.041163
G03 X150.455698 Y254.943297 Z-0.125000 I-9.452195 J40.657462
G03 X150.802736 Y255.031297 Z-0.125000 I-3.710445 J15.360816
G02 X151.150564 Y255.122858 Z-0.125000 I20.339504 J-76.560127
G03 X151.498143 Y255.214956 Z-0.125000 I-11.667609 J44.735716
G02 X151.845428 Y255.305757 Z-0.125000 I6.503278 J-24.163571
G02 X152.193396 Y255.393169 Z-0.125000 I17.962549 J-70.768564
G02 X152.540292 Y255.475587 Z-0.125000 I4.137924 J-16.645108
G02 X152.888418 Y255.551809 Z-0.125000 I5.379413 J-23.736116
G02 X153.235155 Y255.620716 Z-0.125000 I3.031842 J-14.349259
G02 X153.583238 Y255.681749 Z-0.125000 I3.064940 J-16.456947
G02 X153.930022 Y255.734402 Z-0.125000 I2.307370 J-14.028369
G02 X154.277928 Y255.778541 Z-0.125000 I1.988426 J-14.279803
G02 X154.624886 Y255.814224 Z-0.125000 I1.718540 J-15.005160
G02 X154.972584 Y255.841604 Z-0.125000 I1.284847 J-14.094992
G02 X155.319749 Y255.861138 Z-0.125000 I1.144822 J-17.251929
G02 X155.667272 Y255.873191 Z-0.125000 I0.700240 J-15.173371
G02 X156.014613 Y255.878415 Z-0.125000 I0.492787 J-21.215771
G02 X156.362022 Y255.877340 Z-0.125000 I0.119687 J-17.462864
G02 X156.709480 Y255.870610 Z-0.125000 I-0.358075 J-27.457285
G02 X157.056828 Y255.858902 Z-0.125000 I-0.548055 J-21.418668
G02 X157.404343 Y255.842802 Z-0.125000 I-1.617974 J-38.681922
G02 X157.751680 Y255.822988 Z-0.125000 I-1.425511 J-28.043161
G02 X158.099207 Y255.799969 Z-0.125000 I-3.712470 J-58.682917
G02 X158.446558 Y255.774373 Z-0.125000 I-2.707792 J-39.116423
G02 X158.794073 Y255.746616 Z-0.125000 I-7.948647 J-101.703656
G02 X159.141451 Y255.717245 Z-0.125000 I-4.774284 J-58.536469
G02 X159.488937 Y255.686571 Z-0.125000 I-20.861806 J-238.314044
G02 X159.836342 Y255.655055 Z-0.125000 I-9.001231 J-101.153531
G03 X160.183801 Y255.622934 Z-0.125000 I15881.106556 J171872.482053
G02 X160.531229 Y255.590555 Z-0.125000 I-20.669827 J-223.664690
G03 X160.878665 Y255.558090 Z-0.125000 I30.616799 J325.772954
G02 X161.226109 Y255.525803 Z-0.125000 I-285.259901 J-3071.558204
G03 X161.573531 Y255.493812 Z-0.125000 I18.040043 J194.012521
G03 X161.920988 Y255.462304 Z-0.125000 I33.680014 J369.475858
G03 X162.268395 Y255.431360 Z-0.125000 I13.894168 J154.023389
G03 X162.615859 Y255.401105 Z-0.125000 I17.390706 J197.716461
G03 X162.963259 Y255.371606 Z-0.125000 I11.837406 J137.345309
G03 X163.310725 Y255.342933 Z-0.125000 I13.336198 J159.491449
G03 X163.658122 Y255.315131 Z-0.125000 I10.212405 J125.422890
G03 X164.005591 Y255.288253 Z-0.125000 I11.087322 J141.076489
G03 X164.352989 Y255.262328 Z-0.125000 I8.947481 J117.554677
G03 X164.700456 Y255.237394 Z-0.125000 I9.470453 J129.540973
G03 X165.047852 Y255.213473 Z-0.125000 I7.909103 J112.326219
G03 X165.395318 Y255.190600 Z-0.125000 I8.075627 J120.026556
G03 X165.742716 Y255.168793 Z-0.125000 I7.006339 J108.836657
G03 X166.090180 Y255.148072 Z-0.125000 I6.694398 J109.335998
G03 X166.437580 Y255.128465 Z-0.125000 I6.327137 J109.015633
G03 X166.785043 Y255.109967 Z-0.125000 I5.991646 J109.276407
G03 X167.132446 Y255.092574 Z-0.125000 I5.707829 J110.527338
G03 X167.479903 Y255.076297 Z-0.125000 I5.316948 J109.777401
G03 X167.827310 Y255.061105 Z-0.125000 I5.139442 J113.548523
G03 X168.174762 Y255.047004 Z-0.125000 I4.678067 J110.983013
G03 X168.522174 Y255.033951 Z-0.125000 I4.705720 J120.611382
G03 X168.869622 Y255.021948 Z-0.125000 I4.046097 J112.089670
G03 X169.217038 Y255.010958 Z-0.125000 I4.214312 J127.730870
G03 X169.564486 Y255.000947 Z-0.125000 I3.613909 J119.385853
G03 X169.911904 Y254.991908 Z-0.125000 I3.543041 J129.505368
G03 X170.259346 Y254.983789 Z-0.125000 I3.037592 J122.542411
G03 X170.606768 Y254.976563 Z-0.125000 I3.311913 J150.874840
G03 X170.954207 Y254.970222 Z-0.125000 I2.641355 J135.221944
G03 X171.301631 Y254.964736 Z-0.125000 I2.517291 J148.396404
G03 X171.649068 Y254.960069 Z-0.125000 I2.134976 J146.015834
G03 X171.996498 Y254.956216 Z-0.125000 I1.846391 J150.827566
G03 X172.343933 Y254.953127 Z-0.125000 I1.285119 J125.002230
G03 X172.691362 Y254.950872 Z-0.125000 I1.291434 J172.164111
G03 X173.038795 Y254.949284 Z-0.125000 I0.868601 J152.077382
G03 X173.386225 Y254.948490 Z-0.125000 I0.521143 J152.074208
G03 X173.733657 Y254.948517 Z-0.125000 I0.161202 J162.212519
G03 X174.081089 Y254.949284 Z-0.125000 I-0.188226 J163.963004
G03 X174.428518 Y254.950888 Z-0.125000 I-0.500313 J145.994571
G03 X174.775956 Y254.953385 Z-0.125000 I-0.730884 J125.868592
G03 X175.123382 Y254.956666 Z-0.125000 I-0.960093 J120.069327
G03 X175.470819 Y254.960899 Z-0.125000 I-1.461520 J134.207304
G03 X175.818243 Y254.966042 Z-0.125000 I-1.770033 J131.315404
G03 X176.165683 Y254.972197 Z-0.125000 I-1.762770 J109.315042
G03 X176.513102 Y254.979380 Z-0.125000 I-2.447524 J126.781716
G03 X176.860547 Y254.987675 Z-0.125000 I-2.096812 J95.108337
G03 X177.207962 Y254.997130 Z-0.125000 I-2.732887 J106.804613
G03 X177.555413 Y255.007836 Z-0.125000 I-2.545350 J88.248215
G03 X177.902820 Y255.019841 Z-0.125000 I-3.220343 J98.228303
G03 X178.250277 Y255.033236 Z-0.125000 I-2.837572 J78.115320
G03 X178.597674 Y255.048068 Z-0.125000 I-3.488771 J85.790444
G03 X178.945141 Y255.064433 Z-0.125000 I-3.279101 J73.319755
G03 X179.292528 Y255.082378 Z-0.125000 I-3.926346 J79.381100
G03 X179.640004 Y255.101964 Z-0.125000 I-3.728164 J69.231942
G03 X179.987383 Y255.123241 Z-0.125000 I-4.239546 J72.065700
G03 X180.334871 Y255.146250 Z-0.125000 I-4.358631 J68.458736
G03 X180.682239 Y255.171011 Z-0.125000 I-4.775817 J69.449262
G03 X181.029735 Y255.197521 Z-0.125000 I-5.169873 J70.057180
G03 X181.377097 Y255.225785 Z-0.125000 I-5.408660 J68.621009
G03 X181.724598 Y255.255737 Z-0.125000 I-6.449491 J76.856586
G03 X182.071960 Y255.287347 Z-0.125000 I-6.277335 J70.907150
G03 X182.419462 Y255.320483 Z-0.125000 I-8.683234 J92.899188
G03 X182.766835 Y255.355056 Z-0.125000 I-7.359374 J75.706424
G03 X183.114328 Y255.390884 Z-0.125000 I-14.211589 J139.542307
G03 X183.461718 Y255.427798 Z-0.125000 I-9.881632 J94.645287
G03 X183.809192 Y255.465528 Z-0.125000 I-41.088332 J380.026401
G03 X184.156611 Y255.503848 Z-0.125000 I-14.492052 J132.983922
G02 X184.504056 Y255.542418 Z-0.125000 I32.263706 J-289.048798
G03 X184.851513 Y255.580940 Z-0.125000 I-47.679729 J431.642993
G02 X185.198922 Y255.618973 Z-0.125000 I10.854875 J-97.549017
G02 X185.546421 Y255.656171 Z-0.125000 I33.736381 J-313.519191
G02 X185.893786 Y255.692051 Z-0.125000 I5.853962 J-54.974788
G02 X186.241322 Y255.726193 Z-0.125000 I9.624854 J-96.184818
G02 X186.588650 Y255.758077 Z-0.125000 I3.654218 J-37.899426
G02 X186.936206 Y255.787256 Z-0.125000 I4.762077 J-54.637188
G02 X187.283514 Y255.813208 Z-0.125000 I2.338402 J-28.957144
G02 X187.631062 Y255.835462 Z-0.125000 I2.591730 J-37.751288
G02 X187.978380 Y255.853563 Z-0.125000 I1.417822 J-23.864442
G02 X188.325888 Y255.867022 Z-0.125000 I1.288772 J-28.781044
G02 X188.673244 Y255.875497 Z-0.125000 I0.685012 J-20.955407
G02 X189.020676 Y255.878559 Z-0.125000 I0.383720 J-23.823827
G02 X189.368107 Y255.876026 Z-0.125000 I0.030017 J-19.709690
G02 X189.715437 Y255.867453 Z-0.125000 I-0.340081 J-20.819127
G02 X190.062971 Y255.852822 Z-0.125000 I-0.634075 J-19.195886
G02 X190.410195 Y255.831958 Z-0.125000 I-1.000679 J-19.553899
G02 X190.757838 Y255.804951 Z-0.125000 I-1.389954 J-20.142404
G00 Z3.000000

(End cutting path id: path478405)


(Start cutting path id: path478403)
(Change tool to Default tool)

G00 Z3.000000
G00 X124.050849 Y253.478113

G00 Z4.875000 (Fast pre-penetrate)
G01 Z-0.125000 F400.0(Penetrate)
G03 X124.398111 Y253.546546 Z-0.125000 I-3.775978 J20.076322 F800.000000
G02 X124.745715 Y253.616892 Z-0.125000 I10.055490 J-48.793944
G03 X125.093329 Y253.686568 Z-0.125000 I-20.269072 J102.023640
G02 X125.440579 Y253.754213 Z-0.125000 I4.914954 J-24.305510
G02 X125.788398 Y253.818131 Z-0.125000 I9.284351 J-49.544082
G02 X126.135443 Y253.877329 Z-0.125000 I3.363047 J-18.668767
G02 X126.483309 Y253.930831 Z-0.125000 I3.966222 J-24.630134
G02 X126.830307 Y253.978010 Z-0.125000 I2.437845 J-16.630448
G02 X127.178109 Y254.018357 Z-0.125000 I2.360038 J-18.825040
G02 X127.525173 Y254.051559 Z-0.125000 I1.698465 J-15.923675
G02 X127.872839 Y254.077366 Z-0.125000 I1.420379 J-16.780411
G02 X128.220037 Y254.095702 Z-0.125000 I1.008635 J-15.802299
G02 X128.567544 Y254.106449 Z-0.125000 I0.668067 J-15.979208
G02 X128.914900 Y254.109672 Z-0.125000 I0.323396 J-16.131465
G02 X129.262247 Y254.105351 Z-0.125000 I-0.017563 J-15.374811
G02 X129.609764 Y254.093506 Z-0.125000 I-0.399270 J-16.817832
G02 X129.956966 Y254.074306 Z-0.125000 I-0.712123 J-16.026055
G02 X130.304631 Y254.047889 Z-0.125000 I-1.180376 J-17.835985
G02 X130.651719 Y254.014458 Z-0.125000 I-1.426833 J-16.632204
G02 X130.999494 Y253.974322 Z-0.125000 I-2.205544 J-20.637512
G02 X131.346536 Y253.927865 Z-0.125000 I-2.208145 J-17.814527
G02 X131.694358 Y253.875625 Z-0.125000 I-4.005969 J-27.856411
G02 X132.041455 Y253.818266 Z-0.125000 I-3.222332 J-20.578448
G02 X132.389224 Y253.756708 Z-0.125000 I-10.160368 J-58.413214
G02 X132.736504 Y253.691914 Z-0.125000 I-4.985639 J-27.684923
G03 X133.084088 Y253.625356 Z-0.125000 I21.848086 J113.155102
G02 X133.431658 Y253.558277 Z-0.125000 I-11.093929 J-58.417129
G03 X133.778952 Y253.492789 Z-0.125000 I4.689793 J23.917292
G03 X134.126829 Y253.430401 Z-0.125000 I18.927749 J104.540881
G03 X134.473816 Y253.373721 Z-0.125000 I2.216596 J12.479270
G03 X134.821841 Y253.324548 Z-0.125000 I3.377613 J22.649023
G03 X135.168682 Y253.285539 Z-0.125000 I1.116105 J8.362053
G03 X135.516473 Y253.258828 Z-0.125000 I1.081824 J11.808608
G03 X135.863546 Y253.246470 Z-0.125000 I0.407977 J6.578091
G03 X136.210612 Y253.250768 Z-0.125000 I0.073701 J8.064921
G03 X136.558410 Y253.272717 Z-0.125000 I-0.202804 J5.980021
G03 X136.904464 Y253.314004 Z-0.125000 I-0.599716 J6.497569
G03 X137.253273 Y253.374814 Z-0.125000 I-0.945268 J6.452848
G03 X137.598568 Y253.454901 Z-0.125000 I-1.249150 J6.170123
G03 X137.948140 Y253.554074 Z-0.125000 I-2.259002 J8.628332
G03 X138.293465 Y253.669326 Z-0.125000 I-2.102224 J6.873825
G03 X138.643003 Y253.799843 Z-0.125000 I-6.405292 J17.687341
G03 X138.989309 Y253.940547 Z-0.125000 I-3.600006 J9.356958
G02 X139.337867 Y254.088765 Z-0.125000 I29.772724 J-69.531507
G03 X139.685786 Y254.239338 Z-0.125000 I-8.302530 J19.661322
G02 X140.032731 Y254.386699 Z-0.125000 I4.873014 J-10.990893
G02 X140.382219 Y254.527284 Z-0.125000 I20.186315 J-49.677298
G02 X140.727597 Y254.653486 Z-0.125000 I2.377264 J-5.970222
G02 X141.077724 Y254.763208 Z-0.125000 I3.219794 J-9.660926
G02 X141.422461 Y254.849880 Z-0.125000 I1.272828 J-4.333727
G02 X141.771643 Y254.911400 Z-0.125000 I1.119039 J-5.329863
G02 X142.117325 Y254.945268 Z-0.125000 I0.555944 J-3.893331
G02 X142.464346 Y254.949084 Z-0.125000 I0.218347 J-4.075598
G02 X142.812189 Y254.924286 Z-0.125000 I-0.138723 J-4.397989
G02 X143.157376 Y254.870582 Z-0.125000 I-0.443756 J-3.988472
G02 X143.507055 Y254.790614 Z-0.125000 I-1.308847 J-6.527728
G02 X143.851982 Y254.688521 Z-0.125000 I-1.244846 J-4.839519
G02 X144.201919 Y254.566813 Z-0.125000 I-5.385615 J-16.048800
G02 X144.548087 Y254.432838 Z-0.125000 I-2.663066 J-7.395088
G03 X144.896783 Y254.290150 Z-0.125000 I16.143855 J38.954205
G02 X145.244796 Y254.145778 Z-0.125000 I-7.606061 J-18.826334
G03 X145.591649 Y254.005355 Z-0.125000 I4.109221 J9.651444
G03 X145.941122 Y253.873341 Z-0.125000 I11.846735 J30.832645
G03 X146.286513 Y253.756168 Z-0.125000 I2.230625 J6.007565
G03 X146.636315 Y253.656102 Z-0.125000 I2.677501 J8.698327
G03 X146.981376 Y253.577580 Z-0.125000 I1.297520 J4.904453
G03 X147.330232 Y253.522143 Z-0.125000 I1.060823 J5.550237
G03 X147.676240 Y253.490540 Z-0.125000 I0.621109 J4.890299
G03 X148.023559 Y253.483813 Z-0.125000 I0.265936 J4.760850
G03 X148.371107 Y253.499906 Z-0.125000 I-0.101681 J5.956706
G03 X148.717326 Y253.538149 Z-0.125000 I-0.382176 J5.046216
G03 X149.065970 Y253.595725 Z-0.125000 I-1.322472 J9.092461
G03 X149.412033 Y253.669512 Z-0.125000 I-1.184161 J6.402161
G03 X149.760834 Y253.756957 Z-0.125000 I-5.037672 J20.833744
G03 X150.107484 Y253.853462 Z-0.125000 I-2.583320 J9.950238
G02 X150.455698 Y253.956540 Z-0.125000 I42.425890 J-142.681787
G03 X150.803198 Y254.061790 Z-0.125000 I-6.837061 J23.199736
G02 X151.150564 Y254.166505 Z-0.125000 I6.112587 J-19.648668
G02 X151.498751 Y254.267503 Z-0.125000 I30.963034 J-106.092837
G02 X151.845428 Y254.362135 Z-0.125000 I3.503959 J-12.154196
G02 X152.193918 Y254.448537 Z-0.125000 I4.850444 J-18.817529
G02 X152.540292 Y254.524718 Z-0.125000 I2.374597 J-9.971053
G02 X152.888682 Y254.589729 Z-0.125000 I2.383826 J-11.808786
G02 X153.235155 Y254.642680 Z-0.125000 I1.634342 J-9.533998
G02 X153.583188 Y254.683177 Z-0.125000 I1.318229 J-9.813074
G02 X153.930022 Y254.711403 Z-0.125000 I1.006255 J-10.219792
G02 X154.277633 Y254.727417 Z-0.125000 I0.613983 J-9.546943
G02 X154.624886 Y254.732093 Z-0.125000 I0.336218 J-12.070484
G02 X154.972180 Y254.725990 Z-0.125000 I-0.008529 J-10.369862
G02 X155.319749 Y254.710239 Z-0.125000 I-0.544239 J-15.851599
G02 X155.666891 Y254.685808 Z-0.125000 I-0.698669 J-12.406261
G02 X156.014613 Y254.653819 Z-0.125000 I-1.965758 J-23.273525
G02 X156.361751 Y254.615529 Z-0.125000 I-1.617056 J-16.252803
G02 X156.709480 Y254.571904 Z-0.125000 I-4.954906 J-40.902991
G02 X157.056699 Y254.524271 Z-0.125000 I-3.104774 J-23.921681
G02 X157.404343 Y254.473453 Z-0.125000 I-16.162810 J-111.782278
G02 X157.751681 Y254.420648 Z-0.125000 I-6.164842 J-41.719431
G03 X158.099207 Y254.366543 Z-0.125000 I45.873714 J293.512043
G02 X158.446656 Y254.312118 Z-0.125000 I-17.669583 J-113.938606
G03 X158.794073 Y254.257934 Z-0.125000 I12.545559 J79.299452
G03 X159.141607 Y254.204719 Z-0.125000 I45.674646 J297.127848
G03 X159.488937 Y254.152918 Z-0.125000 I8.001217 J52.458901
G03 X159.836519 Y254.103024 Z-0.125000 I11.683356 J80.155510
G03 X160.183801 Y254.055364 Z-0.125000 I6.104940 J43.195038
G03 X160.531400 Y254.010243 Z-0.125000 I7.047638 J52.931053
G03 X160.878665 Y253.967874 Z-0.125000 I4.989226 J39.449035
G03 X161.226257 Y253.928421 Z-0.125000 I5.108991 J43.460434
G03 X161.573531 Y253.891997 Z-0.125000 I4.201996 J38.389209
G03 X161.921103 Y253.858670 Z-0.125000 I3.988490 J39.767698
G03 X162.268395 Y253.828463 Z-0.125000 I3.558489 J38.899948
G03 X162.615939 Y253.801376 Z-0.125000 I3.179038 J38.545612
G03 X162.963259 Y253.777367 Z-0.125000 I2.992576 J40.767078
G03 X163.310773 Y253.756381 Z-0.125000 I2.517647 J38.802791
G03 X163.658122 Y253.738341 Z-0.125000 I2.457588 J43.966372
G03 X164.005610 Y253.723154 Z-0.125000 I1.954867 J40.745954
G03 X164.352989 Y253.710684 Z-0.125000 I1.939125 J49.173793
G03 X164.700452 Y253.700827 Z-0.125000 I1.419235 J43.902017
G03 X165.047852 Y253.693433 Z-0.125000 I1.358351 J55.653343
G03 X165.395297 Y253.688366 Z-0.125000 I0.881692 J48.544071
G03 X165.742716 Y253.685442 Z-0.125000 I0.738301 J67.092262
G03 X166.090149 Y253.684536 Z-0.125000 I0.319920 J56.012784
G03 X166.437580 Y253.685331 Z-0.125000 I-0.047427 J96.555677
G03 X166.785009 Y253.687789 Z-0.125000 I-0.317061 J69.391260
G03 X167.132446 Y253.691655 Z-0.125000 I-1.072296 J111.973444
G03 X167.479870 Y253.696765 Z-0.125000 I-1.086577 J85.694640
G03 X167.827310 Y253.702926 Z-0.125000 I-2.909545 J173.861736
G03 X168.174735 Y253.709944 Z-0.125000 I-2.220873 J118.548637
G03 X168.522174 Y253.717637 Z-0.125000 I-7.911765 J365.172302
G03 X168.869601 Y253.725846 Z-0.125000 I-3.896085 J172.256833
G03 X169.217038 Y253.734412 Z-0.125000 I-224.915147 J9132.901268
G03 X169.564472 Y253.743166 Z-0.125000 I-8.189035 J331.939858
G02 X169.911904 Y253.751980 Z-0.125000 I12.692271 J-493.556170
G03 X170.259338 Y253.760691 Z-0.125000 I-76.142759 J3043.272066
G02 X170.606768 Y253.769204 Z-0.125000 I6.952711 J-276.657465
G02 X170.954205 Y253.777373 Z-0.125000 I11.471828 J-480.505214
G02 X171.301631 Y253.785106 Z-0.125000 I4.496483 J-194.226747
G02 X171.649069 Y253.792292 Z-0.125000 I5.492614 J-257.130387
G02 X171.996498 Y253.798864 Z-0.125000 I3.176021 J-158.726542
G02 X172.343936 Y253.804728 Z-0.125000 I3.285747 J-184.385439
G02 X172.691362 Y253.809818 Z-0.125000 I2.154464 J-135.201343
G02 X173.038798 Y253.814078 Z-0.125000 I2.102874 J-157.342018
G02 X173.386225 Y253.817464 Z-0.125000 I1.375738 J-123.311912
G02 X173.733660 Y253.819895 Z-0.125000 I1.389799 J-173.807824
G02 X174.081089 Y253.821433 Z-0.125000 I0.663282 J-110.600195
G02 X174.428520 Y253.822041 Z-0.125000 I0.355126 J-103.628085
G02 X174.775956 Y253.821536 Z-0.125000 I0.008443 J-113.703273
G02 X175.123384 Y253.820164 Z-0.125000 I-0.238242 J-104.281029
G02 X175.470819 Y253.817700 Z-0.125000 I-0.661288 J-117.743166
G02 X175.818246 Y253.814346 Z-0.125000 I-0.838707 J-104.888717
G02 X176.165683 Y253.810000 Z-0.125000 I-1.638200 J-144.859858
G02 X176.513108 Y253.804768 Z-0.125000 I-1.762028 J-128.542846
G02 X176.860547 Y253.798703 Z-0.125000 I-2.723534 J-165.956180
G02 X177.207973 Y253.791837 Z-0.125000 I-2.559540 J-138.313108
G02 X177.555413 Y253.784256 Z-0.125000 I-4.568133 J-217.340491
G02 X177.902839 Y253.776038 Z-0.125000 I-3.788827 J-167.515899
G02 X178.250277 Y253.767323 Z-0.125000 I-10.997992 J-445.390584
G02 X178.597706 Y253.758195 Z-0.125000 I-5.537952 J-217.400234
G03 X178.945141 Y253.748829 Z-0.125000 I41.199374 J1521.784949
G02 X179.292574 Y253.739357 Z-0.125000 I-11.142940 J-415.054987
G03 X179.640004 Y253.729964 Z-0.125000 I7.434563 J268.554020
G03 X179.987444 Y253.720839 Z-0.125000 I37.041590 J1403.751718
G03 X180.334871 Y253.712210 Z-0.125000 I3.484123 J133.288905
G03 X180.682313 Y253.704279 Z-0.125000 I5.806230 J246.742367
G03 X181.029735 Y253.697341 Z-0.125000 I1.786930 J80.773461
G03 X181.377177 Y253.691612 Z-0.125000 I2.323488 J130.386470
G03 X181.724598 Y253.687392 Z-0.125000 I0.875247 J57.754378
G03 X182.072033 Y253.684962 Z-0.125000 I0.741219 J81.109688
G03 X182.419462 Y253.684614 Z-0.125000 I0.218750 J45.058586
G03 X182.766882 Y253.686542 Z-0.125000 I-0.121550 J53.204283
G03 X183.114328 Y253.691308 Z-0.125000 I-0.312446 J35.445404
G03 X183.461717 Y253.698931 Z-0.125000 I-0.805644 J44.637791
G03 X183.809192 Y253.709750 Z-0.125000 I-0.847509 J32.804340
G03 X184.156539 Y253.724029 Z-0.125000 I-1.357386 J37.250258
G03 X184.504056 Y253.741942 Z-0.125000 I-1.384223 J30.235165
G03 X184.851354 Y253.763706 Z-0.125000 I-1.877957 J32.749018
G03 X185.198922 Y253.789389 Z-0.125000 I-2.013398 J29.611435
G03 X185.546175 Y253.819119 Z-0.125000 I-2.421268 J30.323691
G03 X185.893786 Y253.852847 Z-0.125000 I-2.843782 J31.117502
G03 X186.241008 Y253.890556 Z-0.125000 I-3.052483 J29.724187
G03 X186.588650 Y253.932068 Z-0.125000 I-4.128763 J36.052671
G03 X186.935870 Y253.977191 Z-0.125000 I-3.884454 J31.249112
G03 X187.283514 Y254.025601 Z-0.125000 I-6.606478 J48.715585
G03 X187.630772 Y254.076922 Z-0.125000 I-5.187328 J36.299684
G03 X187.978380 Y254.130659 Z-0.125000 I-14.269640 J93.457954
G03 X188.325720 Y254.186277 Z-0.125000 I-7.703769 J49.222931
G02 X188.673244 Y254.243099 Z-0.125000 I119.125028 J-727.484709
G03 X189.020699 Y254.300469 Z-0.125000 I-15.604565 J95.588467
G02 X189.368107 Y254.357539 Z-0.125000 I10.998781 J-65.867872
G02 X189.715687 Y254.413586 Z-0.125000 I90.330063 J-559.083243
G02 X190.062971 Y254.467640 Z-0.125000 I5.417987 J-33.666665
G02 X190.410656 Y254.518949 Z-0.125000 I9.541066 J-63.449103
G02 X190.757838 Y254.566517 Z-0.125000 I3.297485 J-22.776349
G00 Z3.000000

(End cutting path id: path478403)


(Start cutting path id: path478401)
(Change tool to Default tool)

G00 Z3.000000
G00 X124.050849 Y252.213210

G00 Z4.875000 (Fast pre-penetrate)
G01 Z-0.125000 F400.0(Penetrate)
G03 X124.397876 Y252.267345 Z-0.125000 I-1.730295 J12.231385 F800.000000
G03 X124.745715 Y252.326933 Z-0.125000 I-42.383526 J248.451963
G03 X125.093065 Y252.389107 Z-0.125000 I-4.428878 J25.744545
G02 X125.440579 Y252.452282 Z-0.125000 I7.984661 J-42.934516
G03 X125.788207 Y252.514246 Z-0.125000 I-50.487165 J284.246407
G02 X126.135443 Y252.573773 Z-0.125000 I4.292137 J-23.994563
G02 X126.483219 Y252.629380 Z-0.125000 I7.120623 J-43.418095
G02 X126.830307 Y252.680202 Z-0.125000 I2.947340 J-18.918450
G02 X127.178102 Y252.725340 Z-0.125000 I3.324884 J-24.255863
G02 X127.525173 Y252.764270 Z-0.125000 I2.081495 J-16.990560
G02 X127.872887 Y252.796488 Z-0.125000 I1.933743 J-18.977993
G02 X128.220037 Y252.821732 Z-0.125000 I1.359319 J-16.292850
G02 X128.567618 Y252.839747 Z-0.125000 I1.059924 J-17.087998
G02 X128.914900 Y252.850474 Z-0.125000 I0.672939 J-16.159793
G02 X129.262328 Y252.853778 Z-0.125000 I0.327968 J-16.220907
G02 X129.609764 Y252.849680 Z-0.125000 I-0.019671 J-16.400671
G02 X129.957048 Y252.838313 Z-0.125000 I-0.358611 J-16.266259
G02 X130.304631 Y252.819809 Z-0.125000 I-0.771569 J-17.767191
G02 X130.651790 Y252.794266 Z-0.125000 I-1.045936 J-16.587557
G02 X130.999494 Y252.762008 Z-0.125000 I-1.703073 J-20.247223
G02 X131.346589 Y252.723352 Z-0.125000 I-1.794248 J-17.688298
G02 X131.694358 Y252.678823 Z-0.125000 I-3.192451 J-26.313214
G02 X132.041476 Y252.628991 Z-0.125000 I-2.715476 J-20.149026
G02 X132.389224 Y252.574715 Z-0.125000 I-7.328838 J-48.097699
G02 X132.736481 Y252.516859 Z-0.125000 I-4.171863 J-26.110905
G03 X133.084088 Y252.456772 Z-0.125000 I51.819524 J298.743261
G02 X133.431590 Y252.395613 Z-0.125000 I-8.259114 J-47.945584
G03 X133.778952 Y252.335323 Z-0.125000 I5.209899 J28.986189
G03 X134.126733 Y252.277340 Z-0.125000 I43.148063 J257.728422
G03 X134.473816 Y252.224116 Z-0.125000 I2.324987 J14.003410
G03 X134.821757 Y252.177399 Z-0.125000 I3.868614 J27.493606
G03 X135.168682 Y252.139780 Z-0.125000 I1.156304 J9.045138
G03 X135.516450 Y252.113361 Z-0.125000 I1.186728 J13.319047
G03 X135.863546 Y252.100270 Z-0.125000 I0.434405 J6.910148
G03 X136.210674 Y252.102808 Z-0.125000 I0.110094 J8.682744
G03 X136.558410 Y252.122257 Z-0.125000 I-0.166396 J6.093409
G03 X136.904570 Y252.160386 Z-0.125000 I-0.574732 J6.808277
G03 X137.253273 Y252.217602 Z-0.125000 I-0.867893 J6.380512
G03 X137.598620 Y252.294032 Z-0.125000 I-1.205300 J6.264583
G03 X137.948140 Y252.389634 Z-0.125000 I-2.051644 J8.187478
G03 X138.293395 Y252.501827 Z-0.125000 I-2.006927 J6.763306
G03 X138.643003 Y252.629984 Z-0.125000 I-5.427905 J15.348135
G03 X138.989138 Y252.769239 Z-0.125000 I-3.360359 J8.852353
G02 X139.337867 Y252.917170 Z-0.125000 I73.363387 J-172.460131
G03 X139.685606 Y253.068525 Z-0.125000 I-7.151593 J16.906048
G02 X140.032731 Y253.217858 Z-0.125000 I5.292788 J-11.824926
G02 X140.382146 Y253.361360 Z-0.125000 I36.393729 J-88.118603
G02 X140.727597 Y253.491154 Z-0.125000 I2.464995 J-6.036059
G02 X141.077813 Y253.604966 Z-0.125000 I3.544186 J-10.310211
G02 X141.422461 Y253.695584 Z-0.125000 I1.298439 J-4.237658
G02 X141.771800 Y253.760747 Z-0.125000 I1.177329 J-5.342686
G02 X142.117325 Y253.797393 Z-0.125000 I0.568522 J-3.713185
G02 X142.464358 Y253.802791 Z-0.125000 I0.234969 J-3.948109
G02 X142.812189 Y253.778237 Z-0.125000 I-0.117274 J-4.137299
G02 X143.157173 Y253.723115 Z-0.125000 I-0.429900 J-3.797650
G02 X143.507055 Y253.640146 Z-0.125000 I-1.271640 J-6.141755
G02 X143.851747 Y253.533671 Z-0.125000 I-1.224340 J-4.574724
G02 X144.201919 Y253.406302 Z-0.125000 I-5.533947 J-15.759426
G02 X144.548044 Y253.266089 Z-0.125000 I-2.643051 J-7.021881
G03 X144.896783 Y253.117041 Z-0.125000 I12.839235 J29.558427
G02 X145.245027 Y252.966795 Z-0.125000 I-7.910691 J-18.814325
G03 X145.591649 Y252.821989 Z-0.125000 I3.640891 J8.227923
G03 X145.941508 Y252.687312 Z-0.125000 I9.298343 J23.633119
G03 X146.286513 Y252.570252 Z-0.125000 I1.947113 J5.171667
G03 X146.636546 Y252.473242 Z-0.125000 I2.213078 J7.305328
G03 X146.981376 Y252.400998 Z-0.125000 I1.074043 J4.267437
G03 X147.330010 Y252.355456 Z-0.125000 I0.796453 J4.739843
G03 X147.676240 Y252.336728 Z-0.125000 I0.411447 J4.396703
G03 X148.022953 Y252.345999 Z-0.125000 I0.061634 J4.182629
G03 X148.371107 Y252.380477 Z-0.125000 I-0.390869 J5.722061
G03 X148.716769 Y252.438618 Z-0.125000 I-0.602319 J4.637487
G03 X149.065970 Y252.517227 Z-0.125000 I-2.098577 J10.137448
G03 X149.411890 Y252.611572 Z-0.125000 I-1.538545 J6.322457
G03 X149.760834 Y252.718664 Z-0.125000 I-13.339619 J44.087133
G03 X150.107825 Y252.832538 Z-0.125000 I-3.533326 J11.352238
G02 X150.455698 Y252.949775 Z-0.125000 I8.094219 J-23.442872
G03 X150.803843 Y253.065431 Z-0.125000 I-18.662969 J56.760479
G02 X151.150564 Y253.175602 Z-0.125000 I3.584610 J-10.680572
G02 X151.499392 Y253.277191 Z-0.125000 I6.428718 J-21.424654
G02 X151.845428 Y253.366773 Z-0.125000 I2.213302 J-7.836339
G02 X152.194247 Y253.442658 Z-0.125000 I2.384895 J-10.123083
G02 X152.540292 Y253.503002 Z-0.125000 I1.409463 J-7.060181
G02 X152.888547 Y253.546879 Z-0.125000 I1.130718 J-7.570575
G02 X153.235155 Y253.574334 Z-0.125000 I0.760915 J-7.404773
G02 X153.582679 Y253.585089 Z-0.125000 I0.391010 J-7.014392
G02 X153.930022 Y253.580472 Z-0.125000 I0.055192 J-8.915948
G02 X154.277006 Y253.561140 Z-0.125000 I-0.246717 J-7.551772
G02 X154.624886 Y253.528838 Z-0.125000 I-0.985443 J-12.502563
G02 X154.971694 Y253.485190 Z-0.125000 I-0.994475 J-9.301106
G02 X155.319749 Y253.431887 Z-0.125000 I-3.125620 J-21.572829
G02 X155.666689 Y253.371160 Z-0.125000 I-2.117122 J-13.116564
G02 X156.014613 Y253.304520 Z-0.125000 I-12.143887 J-64.344438
G02 X156.361842 Y253.234273 Z-0.125000 I-4.414617 J-22.714753
G03 X156.709480 Y253.161801 Z-0.125000 I20.995038 J99.839906
G02 X157.057004 Y253.089065 Z-0.125000 I-14.247018 J-68.937238
G03 X157.404343 Y253.017318 Z-0.125000 I7.148841 J33.731881
G03 X157.752085 Y252.948007 Z-0.125000 I19.345490 J96.153004
G03 X158.099207 Y252.882179 Z-0.125000 I4.553797 J23.064673
G03 X158.447048 Y252.820785 Z-0.125000 I6.089963 J33.487911
G03 X158.794073 Y252.764575 Z-0.125000 I3.321078 J19.403956
G03 X159.141907 Y252.714107 Z-0.125000 I3.507229 J22.948640
G03 X159.488937 Y252.669790 Z-0.125000 I2.505620 J18.239886
G03 X159.836686 Y252.631897 Z-0.125000 I2.284731 J19.352673
G03 X160.183801 Y252.600507 Z-0.125000 I1.847736 J18.497157
G03 X160.531431 Y252.575681 Z-0.125000 I1.477381 J18.241587
G03 X160.878665 Y252.557242 Z-0.125000 I1.231405 J19.910016
G03 X161.226177 Y252.545089 Z-0.125000 I0.824580 J18.604478
G03 X161.573531 Y252.538854 Z-0.125000 I0.580174 J22.640149
G03 X161.920950 Y252.538278 Z-0.125000 I0.207070 J20.141445
G03 X162.268395 Y252.542981 Z-0.125000 I-0.184343 J26.455693
G03 X162.615755 Y252.552537 Z-0.125000 I-0.452612 J22.771565
G03 X162.963259 Y252.566502 Z-0.125000 I-1.212563 J34.501681
G03 X163.310595 Y252.584433 Z-0.125000 I-1.233213 J27.262108
G03 X163.658122 Y252.605851 Z-0.125000 I-2.798076 J48.230885
G03 X164.005464 Y252.630274 Z-0.125000 I-2.293204 J35.096446
G03 X164.352989 Y252.657239 Z-0.125000 I-5.718498 J75.953721
G03 X164.700353 Y252.686242 Z-0.125000 I-3.828301 J47.945228
G03 X165.047852 Y252.716878 Z-0.125000 I-14.998538 J172.109891
G03 X165.395250 Y252.748644 Z-0.125000 I-7.025079 J78.743847
G02 X165.742716 Y252.781172 Z-0.125000 I337.304995 J-3601.224689
G03 X166.090147 Y252.814030 Z-0.125000 I-16.078975 J171.916640
G02 X166.437580 Y252.846918 Z-0.125000 I17.933377 J-187.657471
G02 X166.785042 Y252.879466 Z-0.125000 I150.817809 J-1608.169028
G02 X167.132446 Y252.911423 Z-0.125000 I10.402195 J-111.176681
G02 X167.479923 Y252.942524 Z-0.125000 I16.397391 J-181.245021
G02 X167.827310 Y252.972579 Z-0.125000 I7.665167 J-86.574385
G02 X168.174796 Y253.001393 Z-0.125000 I9.190821 J-108.727412
G02 X168.522174 Y253.028845 Z-0.125000 I6.214166 J-76.422444
G02 X168.869661 Y253.054813 Z-0.125000 I6.594949 J-85.912953
G02 X169.217038 Y253.079233 Z-0.125000 I5.288701 J-72.750386
G02 X169.564523 Y253.102032 Z-0.125000 I5.288083 J-77.935118
G02 X169.911904 Y253.123214 Z-0.125000 I4.605228 J-72.666127
G02 X170.259380 Y253.142749 Z-0.125000 I4.287640 J-73.167358
G02 X170.606768 Y253.160647 Z-0.125000 I4.052817 J-75.279377
G02 X170.954234 Y253.176938 Z-0.125000 I3.649881 J-74.134077
G02 X171.301631 Y253.191664 Z-0.125000 I3.609986 J-81.056396
G02 X171.649089 Y253.204861 Z-0.125000 I3.140240 J-78.097412
G02 X171.996498 Y253.216588 Z-0.125000 I3.109921 J-86.980568
G02 X172.343949 Y253.226891 Z-0.125000 I2.624533 J-82.646357
G02 X172.691362 Y253.235823 Z-0.125000 I2.606294 J-94.606842
G02 X173.038806 Y253.243444 Z-0.125000 I2.136700 J-89.498089
G02 X173.386225 Y253.249793 Z-0.125000 I2.027224 J-101.409845
G02 X173.733665 Y253.254923 Z-0.125000 I1.599632 J-96.575873
G02 X174.081089 Y253.258842 Z-0.125000 I1.336844 J-103.110090
G02 X174.428524 Y253.261577 Z-0.125000 I1.253956 J-137.217382
G02 X174.775956 Y253.263261 Z-0.125000 I0.651675 J-98.643760
G02 X175.123387 Y253.263842 Z-0.125000 I0.339326 J-99.017445
G02 X175.470819 Y253.263147 Z-0.125000 I-0.007415 J-90.566167
G02 X175.818247 Y253.261371 Z-0.125000 I-0.353330 J-103.103761
G02 X176.165683 Y253.258464 Z-0.125000 I-0.751786 J-110.609959
G02 X176.513106 Y253.254343 Z-0.125000 I-1.130351 J-109.948065
G02 X176.860547 Y253.248992 Z-0.125000 I-1.191062 J-88.612941
G02 X177.207966 Y253.242351 Z-0.125000 I-1.722754 J-99.219261
G02 X177.555413 Y253.234360 Z-0.125000 I-1.700918 J-81.516181
G02 X177.902823 Y253.224975 Z-0.125000 I-2.317874 J-92.232425
G02 X178.250277 Y253.214120 Z-0.125000 I-2.146294 J-74.265155
G02 X178.597678 Y253.201709 Z-0.125000 I-2.727307 J-81.208829
G02 X178.945141 Y253.187688 Z-0.125000 I-2.652484 J-70.046364
G02 X179.292531 Y253.171964 Z-0.125000 I-3.232099 J-75.251179
G02 X179.640004 Y253.154509 Z-0.125000 I-3.120585 J-65.589971
G02 X179.987384 Y253.135249 Z-0.125000 I-3.607334 J-68.205876
G02 X180.334871 Y253.114150 Z-0.125000 I-3.715267 J-64.058113
G02 X180.682240 Y253.091191 Z-0.125000 I-4.106003 J-64.765350
G02 X181.029735 Y253.066395 Z-0.125000 I-4.671061 J-67.907108
G02 X181.377099 Y253.039769 Z-0.125000 I-4.704134 J-63.649044
G02 X181.724598 Y253.011401 Z-0.125000 I-6.214383 J-78.268674
G02 X182.071965 Y252.981367 Z-0.125000 I-5.605734 J-66.857924
G02 X182.419462 Y252.949841 Z-0.125000 I-9.499311 J-106.636672
G02 X182.766847 Y252.916977 Z-0.125000 I-7.012726 J-75.979594
G02 X183.114328 Y252.883050 Z-0.125000 I-23.403410 J-241.492564
G02 X183.461740 Y252.848301 Z-0.125000 I-10.335565 J-105.086677
G03 X183.809192 Y252.813131 Z-0.125000 I37.942472 J373.110735
G02 X184.156645 Y252.777867 Z-0.125000 I-23.842625 J-236.647956
G03 X184.504056 Y252.743030 Z-0.125000 I9.157929 J89.577213
G03 X184.851555 Y252.709032 Z-0.125000 I33.322341 J338.804191
G03 X185.198922 Y252.676500 Z-0.125000 I4.652434 J47.806823
G03 X185.546461 Y252.645920 Z-0.125000 I7.791909 J86.563365
G03 X185.893786 Y252.617972 Z-0.125000 I2.731088 J31.768388
G03 X186.241340 Y252.593218 Z-0.125000 I3.526441 J47.059705
G03 X186.588650 Y252.572302 Z-0.125000 I1.613394 J23.896972
G03 X186.936178 Y252.555852 Z-0.125000 I1.658401 J31.356324
G03 X187.283514 Y252.544397 Z-0.125000 I0.825208 J19.749480
G03 X187.630965 Y252.538569 Z-0.125000 I0.571348 J23.704712
G03 X187.978380 Y252.538734 Z-0.125000 I0.165372 J17.512857
G03 X188.325714 Y252.545413 Z-0.125000 I-0.199639 J19.418630
G03 X188.673244 Y252.558763 Z-0.125000 I-0.478915 J16.996594
G03 X189.020440 Y252.579123 Z-0.125000 I-0.849468 J17.456363
G03 X189.368107 Y252.606415 Z-0.125000 I-1.216619 J17.726758
G03 X189.715191 Y252.640681 Z-0.125000 I-1.502684 J16.995855
G03 X190.062971 Y252.681591 Z-0.125000 I-2.241889 J20.557184
G03 X190.410010 Y252.728827 Z-0.125000 I-2.256178 J17.874237
G03 X190.757838 Y252.781833 Z-0.125000 I-4.082356 J27.956245
G00 Z3.000000

(End cutting path id: path478401)


(Start cutting path id: path478399)
(Change tool to Default tool)

G00 Z3.000000
G00 X124.050849 Y250.996435

G00 Z4.875000 (Fast pre-penetrate)
G01 Z-0.125000 F400.0(Penetrate)
G03 X124.397807 Y251.034728 Z-0.125000 I-0.851535 J9.306506 F800.000000
G03 X124.745715 Y251.081493 Z-0.125000 I-4.484262 J34.677782
G03 X125.092866 Y251.133961 Z-0.125000 I-2.132606 J15.285132
G02 X125.440579 Y251.190343 Z-0.125000 I45.344145 J-278.540246
G01 X126.135443 Y251.305939 Z-0.125000
G02 X126.483092 Y251.361840 Z-0.125000 I41.657862 J-257.962266
G02 X126.830307 Y251.414757 Z-0.125000 I3.692606 J-23.063533
G02 X127.178057 Y251.463416 Z-0.125000 I5.342584 J-36.914427
G02 X127.525173 Y251.507070 Z-0.125000 I2.542662 J-18.816377
G02 X127.872906 Y251.544921 Z-0.125000 I2.708132 J-23.263201
G02 X128.220037 Y251.576539 Z-0.125000 I1.735319 J-17.130483
G02 X128.567677 Y251.601449 Z-0.125000 I1.532416 J-18.947850
G02 X128.914900 Y251.619483 Z-0.125000 I1.034578 J-16.567523
G02 X129.262407 Y251.630372 Z-0.125000 I0.711815 J-17.166306
G02 X129.609764 Y251.634115 Z-0.125000 I0.353063 J-16.646993
G02 X129.957128 Y251.630612 Z-0.125000 I0.006624 J-16.567632
G02 X130.304631 Y251.620012 Z-0.125000 I-0.360264 J-17.513222
G02 X130.651861 Y251.602348 Z-0.125000 I-0.674587 J-16.682128
G02 X130.999494 Y251.577899 Z-0.125000 I-1.188249 J-19.378742
G02 X131.346636 Y251.546882 Z-0.125000 I-1.377213 J-17.372329
G02 X131.694358 Y251.509758 Z-0.125000 I-2.385805 J-23.993317
G02 X132.041487 Y251.466985 Z-0.125000 I-2.209080 J-19.358087
G02 X132.389224 Y251.419329 Z-0.125000 I-4.981393 J-37.640567
G02 X132.736444 Y251.367517 Z-0.125000 I-3.373661 J-23.798313
G02 X133.084088 Y251.312747 Z-0.125000 I-32.608501 J-208.106032
G02 X133.431507 Y251.256056 Z-0.125000 I-5.917820 J-37.359012
G03 X133.778952 Y251.199188 Z-0.125000 I6.994769 J41.645832
G02 X134.126630 Y251.143483 Z-0.125000 I-34.641450 J-217.327061
G03 X134.473816 Y251.091225 Z-0.125000 I2.718105 J16.878565
G03 X134.821688 Y251.044073 Z-0.125000 I5.534484 J39.525188
G03 X135.168682 Y251.004584 Z-0.125000 I1.334221 J10.179718
G03 X135.516484 Y250.974778 Z-0.125000 I1.547275 J16.010820
G03 X135.863546 Y250.956967 Z-0.125000 I0.554630 J7.417102
G03 X136.210838 Y250.953472 Z-0.125000 I0.271825 J9.752506
G03 X136.558410 Y250.965804 Z-0.125000 I-0.048510 J6.271139
G03 X136.904792 Y250.996064 Z-0.125000 I-0.458702 J7.248326
G03 X137.253273 Y251.044899 Z-0.125000 I-0.692930 J6.212531
G03 X137.598745 Y251.113036 Z-0.125000 I-1.072507 J6.347739
G03 X137.948140 Y251.200614 Z-0.125000 I-1.687269 J7.472174
G03 X138.293295 Y251.305781 Z-0.125000 I-1.800787 J6.529073
G03 X138.643003 Y251.428192 Z-0.125000 I-4.102865 J12.281982
G03 X138.988820 Y251.563390 Z-0.125000 I-2.944983 J8.042730
G03 X139.337867 Y251.709489 Z-0.125000 I-35.484319 J85.266022
G03 X139.685212 Y251.861072 Z-0.125000 I-5.640144 J13.397810
G02 X140.032731 Y252.013228 Z-0.125000 I6.599704 J-14.600642
G03 X140.381884 Y252.161666 Z-0.125000 I-65.452278 J154.440278
G02 X140.727597 Y252.298459 Z-0.125000 I2.769022 J-6.492830
G02 X141.077871 Y252.421015 Z-0.125000 I4.597321 J-12.577618
G02 X141.422461 Y252.521206 Z-0.125000 I1.431416 J-4.280441
G02 X141.772166 Y252.596700 Z-0.125000 I1.409672 J-5.682177
G02 X142.117325 Y252.643234 Z-0.125000 I0.656458 J-3.565834
G02 X142.464689 Y252.657728 Z-0.125000 I0.337467 J-3.918102
G02 X142.812189 Y252.640853 Z-0.125000 I-0.009520 J-3.782440
G02 X143.157142 Y252.591389 Z-0.125000 I-0.338673 J-3.589401
G02 X143.507055 Y252.511990 Z-0.125000 I-1.051372 J-5.444191
G02 X143.851431 Y252.406582 Z-0.125000 I-1.096238 J-4.196742
G02 X144.201919 Y252.277848 Z-0.125000 I-4.611105 J-13.095500
G02 X144.547769 Y252.134323 Z-0.125000 I-2.398339 J-6.267700
G03 X144.896783 Y251.980218 Z-0.125000 I14.268485 J31.842807
G02 X145.245030 Y251.824055 Z-0.125000 I-6.795329 J-15.620121
G03 X145.591649 Y251.673273 Z-0.125000 I3.533959 J7.650089
G03 X145.941791 Y251.533145 Z-0.125000 I9.878366 J24.175898
G03 X146.286513 Y251.412378 Z-0.125000 I1.826421 J4.661026
G03 X146.636826 Y251.313749 Z-0.125000 I2.068568 J6.675758
G03 X146.981376 Y251.242648 Z-0.125000 I0.963523 J3.798784
G03 X147.329902 Y251.201500 Z-0.125000 I0.674918 J4.219960
G03 X147.676240 Y251.190105 Z-0.125000 I0.303888 J3.967319
G03 X148.022448 Y251.209863 Z-0.125000 I-0.038158 J3.711582
G03 X148.371107 Y251.257475 Z-0.125000 I-0.569830 J5.473201
G03 X148.716305 Y251.330504 Z-0.125000 I-0.722263 J4.266421
G03 X149.065970 Y251.425372 Z-0.125000 I-2.852307 J11.204938
G03 X149.411858 Y251.535761 Z-0.125000 I-1.774810 J6.158160
G02 X149.760834 Y251.658006 Z-0.125000 I190.064447 J-542.022814
G03 X150.108278 Y251.784882 Z-0.125000 I-4.519166 J12.914732
G02 X150.455698 Y251.911673 Z-0.125000 I4.797308 J-12.605753
G02 X150.804536 Y252.033037 Z-0.125000 I42.958399 J-122.913589
G02 X151.150564 Y252.143712 Z-0.125000 I2.494548 J-7.203000
G02 X151.499914 Y252.240630 Z-0.125000 I3.381281 J-11.510054
G02 X151.845428 Y252.319935 Z-0.125000 I1.499087 J-5.738872
G02 X152.194238 Y252.379813 Z-0.125000 I1.337965 J-6.748177
G02 X152.540292 Y252.419254 Z-0.125000 I0.813135 J-5.596563
G02 X152.887975 Y252.437196 Z-0.125000 I0.462468 J-5.584186
G02 X153.235155 Y252.435103 Z-0.125000 I0.134130 J-6.546272
G02 X153.581891 Y252.413217 Z-0.125000 I-0.185400 J-5.694895
G02 X153.930022 Y252.374005 Z-0.125000 I-0.877923 J-9.359392
G02 X154.276446 Y252.319546 Z-0.125000 I-0.910075 J-6.918179
G02 X154.624886 Y252.252286 Z-0.125000 I-3.319275 J-18.131798
G02 X154.971603 Y252.175620 Z-0.125000 I-2.042555 J-10.059597
G02 X155.319749 Y252.091841 Z-0.125000 I-33.696888 J-140.793399
G02 X155.667047 Y252.004549 Z-0.125000 I-4.762268 J-19.681731
G03 X156.014613 Y251.916025 Z-0.125000 I7.951765 J30.493862
G02 X156.362461 Y251.829213 Z-0.125000 I-49.690081 J-199.844664
G03 X156.709480 Y251.746287 Z-0.125000 I3.986453 J15.914433
G03 X157.057635 Y251.669258 Z-0.125000 I6.633256 J29.155418
G03 X157.404343 Y251.599859 Z-0.125000 I2.612178 J12.149425
G03 X157.752512 Y251.539321 Z-0.125000 I2.880652 J15.535858
G03 X158.099207 Y251.488605 Z-0.125000 I1.786753 J11.003785
G03 X158.447159 Y251.448403 Z-0.125000 I1.560103 J11.977070
G03 X158.794073 Y251.418831 Z-0.125000 I1.127841 J11.181418
G03 X159.141711 Y251.400136 Z-0.125000 I0.763774 J10.961039
G03 X159.488937 Y251.391799 Z-0.125000 I0.474040 J12.507512
G03 X159.836293 Y251.393597 Z-0.125000 I0.115515 J11.235970
G03 X160.183801 Y251.404684 Z-0.125000 I-0.318579 J15.437169
G03 X160.530988 Y251.424380 Z-0.125000 I-0.548878 J12.745317
G03 X160.878665 Y251.451701 Z-0.125000 I-1.508079 J21.417266
G03 X161.225812 Y251.485660 Z-0.125000 I-1.381722 J15.915616
G03 X161.573531 Y251.525260 Z-0.125000 I-3.816101 J35.055286
G03 X161.920741 Y251.569336 Z-0.125000 I-2.612884 J21.972823
G03 X162.268395 Y251.616967 Z-0.125000 I-11.827091 J87.616560
G03 X162.615722 Y251.666956 Z-0.125000 I-5.024134 J36.139916
G02 X162.963259 Y251.718466 Z-0.125000 I42.704107 J-286.921559
G03 X163.310711 Y251.770420 Z-0.125000 I-13.503217 J91.493770
G02 X163.658122 Y251.822080 Z-0.125000 I9.704880 J-64.071393
G02 X164.005676 Y251.872561 Z-0.125000 I38.627941 J-264.722651
G02 X164.352989 Y251.921261 Z-0.125000 I5.873657 J-40.626195
G02 X164.700598 Y251.967513 Z-0.125000 I8.558260 J-62.990346
G02 X165.047852 Y252.010899 Z-0.125000 I4.323433 J-33.192805
G02 X165.395473 Y252.050970 Z-0.125000 I4.841571 J-40.473721
G02 X165.742716 Y252.087512 Z-0.125000 I3.422614 J-30.855497
G02 X166.090314 Y252.120287 Z-0.125000 I3.283601 J-32.964789
G02 X166.437580 Y252.149252 Z-0.125000 I2.794669 J-31.409130
G02 X166.785140 Y252.174354 Z-0.125000 I2.395467 J-30.748730
G02 X167.132446 Y252.195697 Z-0.125000 I2.276988 J-34.216232
G02 X167.479958 Y252.213359 Z-0.125000 I1.786255 J-31.718534
G02 X167.827310 Y252.227585 Z-0.125000 I1.800762 J-39.721675
G02 X168.174784 Y252.238533 Z-0.125000 I1.259829 J-34.464982
G02 X168.522174 Y252.246503 Z-0.125000 I1.305634 J-49.337074
G02 X168.869621 Y252.251735 Z-0.125000 I0.773918 J-39.853149
G02 X169.217038 Y252.254546 Z-0.125000 I0.712614 J-66.601498
G02 X169.564473 Y252.255273 Z-0.125000 I0.274290 J-48.024349
G02 X169.911904 Y252.254017 Z-0.125000 I-0.126339 J-82.950888
G02 X170.259330 Y252.251387 Z-0.125000 I-0.264726 J-57.936670
G02 X170.606768 Y252.247429 Z-0.125000 I-2.216740 J-209.792206
G02 X170.954194 Y252.242547 Z-0.125000 I-1.251009 J-101.403516
G02 X171.301631 Y252.236951 Z-0.125000 I-7.993310 J-507.065897
G02 X171.649061 Y252.230905 Z-0.125000 I-3.002822 J-182.548472
G03 X171.996498 Y252.224622 Z-0.125000 I11.962059 J651.748292
G02 X172.343931 Y252.218295 Z-0.125000 I-11.291040 J-629.478159
G03 X172.691362 Y252.212107 Z-0.125000 I4.753209 J257.103153
G03 X173.038797 Y252.206236 Z-0.125000 I12.511550 J730.175728
G03 X173.386225 Y252.200783 Z-0.125000 I3.010576 J180.722154
G03 X173.733662 Y252.195908 Z-0.125000 I3.634672 J246.656560
G03 X174.081089 Y252.191707 Z-0.125000 I1.871010 J140.392971
G03 X174.428524 Y252.188218 Z-0.125000 I1.437782 J125.866108
G03 X174.775956 Y252.185622 Z-0.125000 I1.264674 J145.994570
G03 X175.123389 Y252.183803 Z-0.125000 I0.735756 J107.349320
G03 X175.470819 Y252.182976 Z-0.125000 I0.507784 J140.375895
G03 X175.818250 Y252.183035 Z-0.125000 I0.151275 J132.430287
G03 X176.165683 Y252.184035 Z-0.125000 I-0.184382 J124.482897
G03 X176.513113 Y252.185996 Z-0.125000 I-0.737933 J161.500089
G03 X176.860547 Y252.188612 Z-0.125000 I-1.442962 J214.708065
G03 X177.207976 Y252.192184 Z-0.125000 I-1.389937 J152.096824
G03 X177.555413 Y252.196470 Z-0.125000 I-2.171712 J190.118042
G03 X177.902841 Y252.201457 Z-0.125000 I-2.085020 J157.351222
G03 X178.250277 Y252.207000 Z-0.125000 I-5.426819 J351.038062
G03 X178.597706 Y252.213000 Z-0.125000 I-3.491585 J212.260868
G02 X178.945141 Y252.219277 Z-0.125000 I165.157840 J-9126.047668
G03 X179.292573 Y252.225703 Z-0.125000 I-7.009430 J388.406581
G02 X179.640004 Y252.232030 Z-0.125000 I4.490656 J-237.071844
G02 X179.987442 Y252.238105 Z-0.125000 I29.176968 J-1658.627700
G02 X180.334871 Y252.243645 Z-0.125000 I2.101239 J-120.885515
G02 X180.682309 Y252.248431 Z-0.125000 I3.438932 J-237.047603
G02 X181.029735 Y252.252165 Z-0.125000 I0.987584 J-75.727072
G02 X181.377169 Y252.254516 Z-0.125000 I1.131224 J-141.470906
G02 X181.724598 Y252.255260 Z-0.125000 I0.283198 J-51.116920
G02 X182.072022 Y252.253964 Z-0.125000 I-0.076639 J-67.091386
G02 X182.419462 Y252.250445 Z-0.125000 I-0.288418 J-45.629967
G02 X182.766864 Y252.244241 Z-0.125000 I-0.752300 J-51.857147
G02 X183.114328 Y252.235099 Z-0.125000 I-0.722756 J-34.077982
G02 X183.461689 Y252.222699 Z-0.125000 I-1.275463 J-40.602381
G02 X183.809192 Y252.206842 Z-0.125000 I-1.231432 J-30.800521
G02 X184.156505 Y252.187212 Z-0.125000 I-1.751361 J-34.070590
G02 X184.504056 Y252.163733 Z-0.125000 I-1.816415 J-29.471309
G02 X184.851319 Y252.136213 Z-0.125000 I-2.212948 J-30.128446
G02 X185.198922 Y252.104681 Z-0.125000 I-2.634302 J-30.972017
G02 X185.546156 Y252.069133 Z-0.125000 I-2.836451 J-29.420452
G02 X185.893786 Y252.029796 Z-0.125000 I-3.961885 J-36.567574
G02 X186.241023 Y251.986849 Z-0.125000 I-3.638352 J-30.842320
G02 X186.588650 Y251.940732 Z-0.125000 I-7.025567 J-54.291359
G02 X186.935940 Y251.891856 Z-0.125000 I-5.001940 J-36.799713
G02 X187.283514 Y251.840902 Z-0.125000 I-24.736430 J-169.946803
G02 X187.630907 Y251.788489 Z-0.125000 I-8.144916 J-55.161864
G03 X187.978380 Y251.735540 Z-0.125000 I15.968594 J103.625586
G02 X188.325908 Y251.682838 Z-0.125000 I-27.773243 J-184.316963
G03 X188.673244 Y251.631508 Z-0.125000 I5.608369 J36.749421
G03 X189.020899 Y251.582448 Z-0.125000 I13.758102 J96.237455
G03 X189.368107 Y251.536864 Z-0.125000 I3.078185 J22.101256
G03 X189.715831 Y251.495721 Z-0.125000 I4.357228 J35.334919
G03 X190.062971 Y251.460135 Z-0.125000 I1.835669 J16.196201
G03 X190.410662 Y251.431086 Z-0.125000 I1.963310 J21.403751
G03 X190.757838 Y251.409415 Z-0.125000 I1.013720 J13.448003
G00 Z3.000000

(End cutting path id: path478399)


(Start cutting path id: path478397)
(Change tool to Default tool)

G00 Z3.000000
G00 X124.050849 Y249.816535

G00 Z4.875000 (Fast pre-penetrate)
G01 Z-0.125000 F400.0(Penetrate)
G03 X124.397880 Y249.839543 Z-0.125000 I-0.354196 J7.970969 F800.000000
G03 X124.745715 Y249.873365 Z-0.125000 I-1.719653 J19.491150
G03 X125.092760 Y249.915569 Z-0.125000 I-1.216663 J11.452594
G03 X125.440579 Y249.964204 Z-0.125000 I-8.720809 J63.635801
G03 X125.787847 Y250.016735 Z-0.125000 I-2.932377 J20.559521
G02 X126.135443 Y250.071569 Z-0.125000 I13.106020 J-81.949419
G03 X126.482955 Y250.126554 Z-0.125000 I-10.491124 J67.431278
G02 X126.830307 Y250.180427 Z-0.125000 I4.957136 J-30.815081
G02 X127.177985 Y250.231592 Z-0.125000 I12.215930 J-81.803655
G02 X127.525173 Y250.279108 Z-0.125000 I3.153966 J-21.752771
G02 X127.872900 Y250.321901 Z-0.125000 I4.003750 J-31.099933
G02 X128.220037 Y250.359348 Z-0.125000 I2.165334 J-18.444745
G02 X128.567720 Y250.390765 Z-0.125000 I2.156225 J-21.923370
G02 X128.914900 Y250.415821 Z-0.125000 I1.408606 J-17.099771
G02 X129.262477 Y250.434101 Z-0.125000 I1.145626 J-18.469685
G02 X129.609764 Y250.445489 Z-0.125000 I0.723253 J-16.755202
G02 X129.957207 Y250.449775 Z-0.125000 I0.386937 J-17.282447
G02 X130.304631 Y250.447076 Z-0.125000 I0.039485 J-17.283148
G02 X130.651933 Y250.437203 Z-0.125000 I-0.302225 J-16.745185
G02 X130.999494 Y250.420443 Z-0.125000 I-0.718407 J-18.510032
G02 X131.346686 Y250.396884 Z-0.125000 I-0.989115 J-17.146355
G02 X131.694358 Y250.366921 Z-0.125000 I-1.679247 J-21.517073
G02 X132.041497 Y250.330862 Z-0.125000 I-1.738926 J-18.429663
G02 X132.389224 Y250.289350 Z-0.125000 I-3.351473 J-29.551181
G02 X132.736403 Y250.242964 Z-0.125000 I-2.683507 J-21.406925
G02 X133.084088 Y250.192711 Z-0.125000 I-9.498402 J-66.945573
G02 X133.431415 Y250.139483 Z-0.125000 I-4.321636 J-29.359353
G03 X133.778952 Y250.084793 Z-0.125000 I14.522604 J91.155427
G02 X134.126515 Y250.029850 Z-0.125000 I-10.370405 J-66.728852
G03 X134.473816 Y249.976735 Z-0.125000 I3.655831 J22.742046
G03 X134.821613 Y249.926982 Z-0.125000 I12.392175 J85.386524
G03 X135.168682 Y249.883096 Z-0.125000 I1.710716 J12.134892
G03 X135.516531 Y249.846979 Z-0.125000 I2.425232 J21.664247
G03 X135.863546 Y249.821128 Z-0.125000 I0.786462 J8.215396
G03 X136.211062 Y249.807824 Z-0.125000 I0.616372 J11.554262
G03 X136.558410 Y249.808984 Z-0.125000 I0.151849 J6.533343
G03 X136.905129 Y249.826952 Z-0.125000 I-0.237607 J7.939157
G03 X137.253273 Y249.862755 Z-0.125000 I-0.446358 J6.050886
G03 X137.598993 Y249.917837 Z-0.125000 I-0.859944 J6.509963
G03 X137.948140 Y249.992565 Z-0.125000 I-1.251501 J6.700283
G03 X138.293243 Y250.086129 Z-0.125000 I-1.514647 J6.269873
G03 X138.643003 Y250.198490 Z-0.125000 I-2.884381 J9.579149
G03 X138.988416 Y250.325950 Z-0.125000 I-2.448576 J7.167328
G03 X139.337867 Y250.467338 Z-0.125000 I-10.453292 J26.338618
G03 X139.684606 Y250.617187 Z-0.125000 I-4.283761 J10.388348
G02 X140.032731 Y250.771563 Z-0.125000 I10.688726 J-23.633845
G03 X140.381371 Y250.925484 Z-0.125000 I-13.295060 J30.586010
G02 X140.727597 Y251.071434 Z-0.125000 I3.412195 J-7.610856
G02 X141.077783 Y251.206256 Z-0.125000 I7.737671 J-19.575505
G02 X141.422461 Y251.320880 Z-0.125000 I1.697916 J-4.530160
G02 X141.772658 Y251.412953 Z-0.125000 I1.918492 J-6.584930
G02 X142.117325 Y251.476328 Z-0.125000 I0.820407 J-3.492876
G02 X142.465406 Y251.507790 Z-0.125000 I0.540897 J-4.042963
G02 X142.812189 Y251.506800 Z-0.125000 I0.163525 J-3.455489
G02 X143.157405 Y251.470854 Z-0.125000 I-0.180896 J-3.412970
G02 X143.507055 Y251.402604 Z-0.125000 I-0.717564 J-4.605915
G02 X143.851084 Y251.304722 Z-0.125000 I-0.886293 J-3.768597
G02 X144.201919 Y251.179961 Z-0.125000 I-3.240031 J-9.666759
G02 X144.547219 Y251.036905 Z-0.125000 I-2.005525 J-5.329115
G03 X144.896783 Y250.879614 Z-0.125000 I28.597990 J63.088842
G02 X145.244722 Y250.717778 Z-0.125000 I-5.113736 J-11.449277
G03 X145.591649 Y250.559246 Z-0.125000 I3.770361 J7.792063
G03 X145.941924 Y250.410363 Z-0.125000 I16.052950 J37.281000
G03 X146.286513 Y250.281204 Z-0.125000 I1.844144 J4.395818
G03 X146.637219 Y250.175067 Z-0.125000 I2.205764 J6.655992
G03 X146.981376 Y250.098697 Z-0.125000 I0.944774 J3.443927
G03 X147.330044 Y250.055025 Z-0.125000 I0.665873 J3.902516
G03 X147.676240 Y250.044087 Z-0.125000 I0.285480 J3.551510
G03 X148.022105 Y250.067832 Z-0.125000 I-0.057274 J3.365037
G03 X148.371107 Y250.122377 Z-0.125000 I-0.605247 J5.016401
G03 X148.715872 Y250.204918 Z-0.125000 I-0.744362 J3.870454
G03 X149.065970 Y250.311361 Z-0.125000 I-3.330052 J11.581694
G03 X149.411808 Y250.433917 Z-0.125000 I-1.853706 J5.780130
G02 X149.760834 Y250.568067 Z-0.125000 I17.601084 J-45.272772
G03 X150.108716 Y250.705308 Z-0.125000 I-5.249324 J13.815655
G02 X150.455698 Y250.839389 Z-0.125000 I3.581918 J-8.753467
G02 X150.805191 Y250.964477 Z-0.125000 I11.811612 J-32.450794
G02 X151.150564 Y251.073905 Z-0.125000 I1.909351 J-5.426465
G02 X151.500271 Y251.164393 Z-0.125000 I2.218197 J-7.851585
G02 X151.845428 Y251.232004 Z-0.125000 I1.070550 J-4.550403
G02 X152.193910 Y251.274516 Z-0.125000 I0.791841 J-5.041405
G02 X152.540292 Y251.292186 Z-0.125000 I0.418383 J-4.797518
G02 X152.887142 Y251.283985 Z-0.125000 I0.067257 J-4.494504
G02 X153.235155 Y251.252792 Z-0.125000 I-0.400271 J-6.422679
G02 X153.581169 Y251.200181 Z-0.125000 I-0.592227 J-5.059070
G02 X153.930022 Y251.129507 Z-0.125000 I-2.241428 J-11.960267
G02 X154.276306 Y251.045044 Z-0.125000 I-1.534792 J-7.044449
G02 X154.624886 Y250.950019 Z-0.125000 I-21.675637 J-80.199886
G02 X154.972090 Y250.849666 Z-0.125000 I-3.670706 J-13.350824
G03 X155.319749 Y250.747410 Z-0.125000 I6.294188 J20.757295
G02 X155.667877 Y250.647647 Z-0.125000 I-35.646804 J-125.048789
G03 X156.014613 Y250.553857 Z-0.125000 I3.048411 J10.581934
G03 X156.363212 Y250.468984 Z-0.125000 I4.874380 J19.262307
G03 X156.709480 Y250.395726 Z-0.125000 I1.892394 J8.089762
G03 X157.057944 Y250.335895 Z-0.125000 I1.917596 J10.123642
G03 X157.404343 Y250.290626 Z-0.125000 I1.159895 J7.527573
G03 X157.752255 Y250.260969 Z-0.125000 I0.849945 J7.915520
G03 X158.099207 Y250.246446 Z-0.125000 I0.514894 J8.148711
G03 X158.446504 Y250.247301 Z-0.125000 I0.155073 J7.541885
G03 X158.794073 Y250.262030 Z-0.125000 I-0.262821 J10.310563
G03 X159.140996 Y250.289871 Z-0.125000 I-0.497283 J8.371764
G03 X159.488937 Y250.329030 Z-0.125000 I-1.567995 J15.497675
G03 X159.835825 Y250.377750 Z-0.125000 I-1.327902 J10.714024
G03 X160.183801 Y250.434268 Z-0.125000 I-5.204691 J33.144228
G03 X160.530910 Y250.496325 Z-0.125000 I-2.740875 J16.332560
G02 X160.878665 Y250.562247 Z-0.125000 I151.063586 J-795.950101
G03 X161.226091 Y250.629788 Z-0.125000 I-6.721130 J35.500648
G02 X161.573531 Y250.697385 Z-0.125000 I7.289023 J-36.538269
G02 X161.921231 Y250.763172 Z-0.125000 I77.456041 J-408.424078
G02 X162.268395 Y250.825795 Z-0.125000 I4.037957 J-21.391520
G02 X162.616236 Y250.883881 Z-0.125000 I6.101142 J-35.465220
G02 X162.963259 Y250.936467 Z-0.125000 I2.757905 J-17.028471
G02 X163.311096 Y250.982639 Z-0.125000 I2.975498 J-21.083044
G02 X163.658122 Y251.021936 Z-0.125000 I1.965046 J-15.801089
G02 X164.005849 Y251.053846 Z-0.125000 I1.729167 J-16.932301
G02 X164.352989 Y251.078424 Z-0.125000 I1.336304 J-16.409927
G02 X164.700561 Y251.095526 Z-0.125000 I0.953830 J-15.844444
G02 X165.047852 Y251.105586 Z-0.125000 I0.717712 J-18.777518
G02 X165.395290 Y251.108814 Z-0.125000 I0.327855 J-16.590238
G02 X165.742716 Y251.105851 Z-0.125000 I-0.027899 J-23.640899
G02 X166.090073 Y251.097218 Z-0.125000 I-0.301417 J-19.120784
G02 X166.437580 Y251.083599 Z-0.125000 I-1.126473 J-33.184603
G02 X166.784918 Y251.065705 Z-0.125000 I-1.072322 J-24.194394
G02 X167.132446 Y251.044222 Z-0.125000 I-3.306395 J-56.307210
G02 X167.479800 Y251.019889 Z-0.125000 I-2.244066 J-34.525495
G02 X167.827310 Y250.993329 Z-0.125000 I-9.966766 J-132.693678
G02 X168.174702 Y250.965266 Z-0.125000 I-4.375532 J-56.329823
G03 X168.522174 Y250.936187 Z-0.125000 I74.395763 J886.867549
G01 X169.217038 Y250.877288 Z-0.125000
G03 X169.564504 Y250.848342 Z-0.125000 I75.032058 J898.569837
G03 X169.911904 Y250.820165 Z-0.125000 I7.250917 J87.242223
G03 X170.259384 Y250.793109 Z-0.125000 I10.655861 J134.608287
G03 X170.606768 Y250.767346 Z-0.125000 I5.564427 J72.675666
G03 X170.954252 Y250.743100 Z-0.125000 I6.386025 J89.019971
G03 X171.301631 Y250.720441 Z-0.125000 I4.574441 J67.454628
G03 X171.649112 Y250.699505 Z-0.125000 I4.645358 J74.208750
G03 X171.996498 Y250.680290 Z-0.125000 I3.900768 J67.371104
G03 X172.343971 Y250.662852 Z-0.125000 I3.549623 J67.259977
G03 X172.691362 Y250.647164 Z-0.125000 I3.399027 J71.413835
G03 X173.038825 Y250.633210 Z-0.125000 I2.902924 J67.948604
G03 X173.386225 Y250.620944 Z-0.125000 I2.850267 J75.802948
G03 X173.733680 Y250.610324 Z-0.125000 I2.346321 J71.073235
G03 X174.081089 Y250.601312 Z-0.125000 I2.242093 J79.733484
G03 X174.428535 Y250.593838 Z-0.125000 I1.838088 J77.360522
G03 X174.775956 Y250.587871 Z-0.125000 I1.598493 J82.965739
G03 X175.123395 Y250.583360 Z-0.125000 I1.250960 J82.963282
G03 X175.470819 Y250.580278 Z-0.125000 I0.937446 J86.083138
G03 X175.818253 Y250.578657 Z-0.125000 I0.543816 J79.344568
G03 X176.165683 Y250.578426 Z-0.125000 I0.237715 J96.046326
G03 X176.513111 Y250.579468 Z-0.125000 I-0.106902 J93.584437
G03 X176.860547 Y250.581998 Z-0.125000 I-0.347461 J71.570369
G03 X177.207970 Y250.585890 Z-0.125000 I-0.768628 J84.108993
G03 X177.555413 Y250.591232 Z-0.125000 I-1.096041 J82.597147
G03 X177.902828 Y250.598058 Z-0.125000 I-1.486799 J84.517753
G03 X178.250277 Y250.606392 Z-0.125000 I-1.651421 J76.088773
G03 X178.597684 Y250.616317 Z-0.125000 I-2.104492 J79.753878
G03 X178.945141 Y250.627850 Z-0.125000 I-2.186019 J71.096639
G03 X179.292538 Y250.641044 Z-0.125000 I-2.649811 J74.349277
G03 X179.640004 Y250.655943 Z-0.125000 I-2.740886 J67.978842
G03 X179.987394 Y250.672580 Z-0.125000 I-3.105743 J68.484366
G03 X180.334871 Y250.690950 Z-0.125000 I-3.612960 J71.636747
G03 X180.682253 Y250.711076 Z-0.125000 I-3.812184 J68.809538
G03 X181.029735 Y250.732876 Z-0.125000 I-4.646284 J76.838573
G03 X181.377115 Y250.756335 Z-0.125000 I-4.477880 J68.893242
G03 X181.724598 Y250.781295 Z-0.125000 I-6.922674 J98.805670
G03 X182.071987 Y250.807653 Z-0.125000 I-5.558885 J75.564574
G03 X182.419462 Y250.835156 Z-0.125000 I-14.233356 J182.037400
G03 X182.766874 Y250.863606 Z-0.125000 I-7.708831 J96.270215
G02 X183.114328 Y250.892623 Z-0.125000 I75.407384 J-900.833923
G03 X183.461770 Y250.921905 Z-0.125000 I-14.506199 J174.197515
G02 X183.809192 Y250.950945 Z-0.125000 I8.797285 J-103.153736
G02 X184.156674 Y250.979328 Z-0.125000 I64.092969 J-782.541961
G02 X184.504056 Y251.006418 Z-0.125000 I4.098793 J-50.318772
G02 X184.851570 Y251.031705 Z-0.125000 I7.592334 J-101.939890
G02 X185.198922 Y251.054495 Z-0.125000 I2.278229 J-32.064290
G02 X185.546447 Y251.074172 Z-0.125000 I2.931418 J-48.694905
G02 X185.893786 Y251.090045 Z-0.125000 I1.256963 J-23.697745
G02 X186.241278 Y251.101453 Z-0.125000 I1.202692 J-31.335146
G02 X186.588650 Y251.107798 Z-0.125000 I0.525732 J-19.270201
G02 X186.936058 Y251.108390 Z-0.125000 I0.213511 J-23.363962
G02 X187.283514 Y251.103009 Z-0.125000 I-0.102078 J-17.812200
G02 X187.630794 Y251.090932 Z-0.125000 I-0.492338 J-19.155673
G02 X187.978380 Y251.072140 Z-0.125000 I-0.749228 J-17.082657
G02 X188.325531 Y251.046303 Z-0.125000 I-1.109808 J-17.256623
G02 X188.673244 Y251.013662 Z-0.125000 I-1.591563 J-18.822684
G02 X189.020313 Y250.974270 Z-0.125000 I-1.773594 J-17.175219
G02 X189.368107 Y250.928702 Z-0.125000 I-3.013203 J-24.347904
G02 X189.715194 Y250.877467 Z-0.125000 I-2.632379 J-19.033923
G02 X190.062971 Y250.821464 Z-0.125000 I-6.873785 J-43.794070
G02 X190.410196 Y250.761642 Z-0.125000 I-4.113093 J-24.911330
G01 X190.757838 Y250.699248 Z-0.125000
G00 Z3.000000

(End cutting path id: path478397)


(Start cutting path id: path478395)
(Change tool to Default tool)

G00 Z3.000000
G00 X124.050849 Y248.660114

G00 Z4.875000 (Fast pre-penetrate)
G01 Z-0.125000 F400.0(Penetrate)
G03 X124.398025 Y248.670296 Z-0.125000 I-0.042021 J7.357169 F800.000000
G03 X124.745715 Y248.692936 Z-0.125000 I-0.761663 J14.378153
G03 X125.092731 Y248.726014 Z-0.125000 I-0.746902 J9.672378
G03 X125.440579 Y248.767503 Z-0.125000 I-3.457950 J30.470488
G03 X125.787728 Y248.814984 Z-0.125000 I-1.890160 J15.112645
G03 X126.135443 Y248.866754 Z-0.125000 I-69.754276 J469.698080
G03 X126.482830 Y248.920534 Z-0.125000 I-4.775413 J31.995191
G02 X126.830307 Y248.974934 Z-0.125000 I7.465801 J-46.550368
G03 X127.177903 Y249.028126 Z-0.125000 I-93.377250 J611.362282
G02 X127.525173 Y249.079010 Z-0.125000 I4.004440 J-26.118479
G02 X127.872876 Y249.126284 Z-0.125000 I6.527525 J-46.708568
G02 X128.220037 Y249.169148 Z-0.125000 I2.677278 J-20.255984
G02 X128.567747 Y249.206737 Z-0.125000 I3.014824 J-26.261065
G02 X128.914900 Y249.238548 Z-0.125000 I1.814653 J-17.893100
G02 X129.262538 Y249.264028 Z-0.125000 I1.662378 J-20.296773
G02 X129.609764 Y249.282927 Z-0.125000 I1.097271 J-16.960781
G02 X129.957283 Y249.294908 Z-0.125000 I0.790250 J-17.876197
G02 X130.304631 Y249.299940 Z-0.125000 I0.418905 J-16.925496
G02 X130.652007 Y249.297863 Z-0.125000 I0.075252 J-16.469199
G02 X130.999494 Y249.288721 Z-0.125000 I-0.293680 J-17.771513
G02 X131.346740 Y249.272582 Z-0.125000 I-0.605116 J-16.763626
G02 X131.694358 Y249.249698 Z-0.125000 I-1.107063 J-19.467942
G02 X132.041514 Y249.220254 Z-0.125000 I-1.308812 J-17.492525
G02 X132.389224 Y249.184732 Z-0.125000 I-2.272173 J-23.961295
G02 X132.736367 Y249.143552 Z-0.125000 I-2.124038 J-19.389209
G02 X133.084088 Y249.097523 Z-0.125000 I-4.857498 J-38.031637
G02 X133.431319 Y249.047353 Z-0.125000 I-3.258322 J-23.777926
G02 X133.778952 Y248.994293 Z-0.125000 I-39.920554 J-262.712894
G02 X134.126382 Y248.939386 Z-0.125000 I-5.785675 J-37.734130
G03 X134.473816 Y248.884452 Z-0.125000 I6.231368 J38.282886
G02 X134.821504 Y248.830869 Z-0.125000 I-41.853287 J-272.734885
G03 X135.168682 Y248.781018 Z-0.125000 I2.453901 J15.855866
G03 X135.516547 Y248.736632 Z-0.125000 I4.810990 J36.319739
G03 X135.863546 Y248.700371 Z-0.125000 I1.180621 J9.619323
G03 X136.211292 Y248.674381 Z-0.125000 I1.299169 J15.043901
G03 X136.558410 Y248.661043 Z-0.125000 I0.444133 J7.034768
G03 X136.905553 Y248.662775 Z-0.125000 I0.127250 J9.283134
G03 X137.253273 Y248.681257 Z-0.125000 I-0.140216 J5.918328
G03 X137.599417 Y248.718489 Z-0.125000 I-0.565468 J6.884866
G03 X137.948140 Y248.775221 Z-0.125000 I-0.806084 J6.054961
G03 X138.293353 Y248.851926 Z-0.125000 I-1.175873 J6.107282
G03 X138.643003 Y248.948825 Z-0.125000 I-1.906723 J7.559494
G03 X138.988040 Y249.063471 Z-0.125000 I-1.936142 J6.403480
G03 X139.337867 Y249.195413 Z-0.125000 I-5.022633 J13.846576
G03 X139.683845 Y249.339537 Z-0.125000 I-3.203389 J8.177264
G02 X140.032731 Y249.493233 Z-0.125000 I70.453327 J-159.454193
G03 X140.380557 Y249.650796 Z-0.125000 I-6.686227 J15.222813
G02 X140.727597 Y249.805822 Z-0.125000 I4.811975 J-10.306093
G02 X141.077384 Y249.954196 Z-0.125000 I33.360961 J-78.160986
G02 X141.422461 Y250.086391 Z-0.125000 I2.168751 J-5.144728
G02 X141.773073 Y250.199847 Z-0.125000 I3.042320 J-8.803160
G02 X142.117325 Y250.286107 Z-0.125000 I1.076343 J-3.565519
G02 X142.466464 Y250.342106 Z-0.125000 I0.895395 J-4.466110
G02 X142.812189 Y250.365005 Z-0.125000 I0.384386 J-3.182085
G02 X143.158153 Y250.351224 Z-0.125000 I0.040388 J-3.335551
G02 X143.507055 Y250.302868 Z-0.125000 I-0.350972 J-3.815238
G02 X143.850881 Y250.220432 Z-0.125000 I-0.625400 J-3.366667
G02 X144.201919 Y250.106849 Z-0.125000 I-2.011412 J-6.815689
G02 X144.546421 Y249.969830 Z-0.125000 I-1.554551 J-4.410154
G02 X144.896783 Y249.812992 Z-0.125000 I-28.951586 J-65.145083
G02 X145.244016 Y249.647261 Z-0.125000 I-3.637639 J-8.068057
G03 X145.591649 Y249.480256 Z-0.125000 I4.521780 J8.967058
G02 X145.941790 Y249.320015 Z-0.125000 I-145.328203 J-318.018286
G03 X146.286513 Y249.177906 Z-0.125000 I2.006001 J4.376927
G03 X146.637699 Y249.058041 Z-0.125000 I2.738866 J7.450078
G03 X146.981376 Y248.969359 Z-0.125000 I1.007537 J3.194313
G03 X147.330552 Y248.915270 Z-0.125000 I0.764027 J3.778144
G03 X147.676240 Y248.896879 Z-0.125000 I0.340840 J3.148547
G03 X148.022013 Y248.916987 Z-0.125000 I-0.003476 J3.042828
G03 X148.371107 Y248.971481 Z-0.125000 I-0.509320 J4.408134
G03 X148.715416 Y249.057663 Z-0.125000 I-0.679095 J3.443942
G03 X149.065970 Y249.170905 Z-0.125000 I-3.232990 J10.607342
G03 X149.411608 Y249.302162 Z-0.125000 I-1.764366 J5.166793
G02 X149.760834 Y249.446050 Z-0.125000 I12.221720 J-29.167202
G03 X150.109034 Y249.592564 Z-0.125000 I-5.278540 J13.031782
G02 X150.455698 Y249.733816 Z-0.125000 I3.020382 J-6.916694
G02 X150.805781 Y249.863198 Z-0.125000 I8.147748 J-21.508011
G02 X151.150564 Y249.972512 Z-0.125000 I1.578069 J-4.378914
G02 X151.500523 Y250.057980 Z-0.125000 I1.667199 J-6.067343
G02 X151.845428 Y250.115686 Z-0.125000 I0.811353 J-3.789817
G02 X152.193405 Y250.142814 Z-0.125000 I0.490300 J-4.043885
G02 X152.540292 Y250.141007 Z-0.125000 I0.150955 J-4.317931
G02 X152.886274 Y250.109534 Z-0.125000 I-0.174279 J-3.833343
G02 X153.235155 Y250.052572 Z-0.125000 I-0.927384 J-6.776966
G02 X153.580727 Y249.973665 Z-0.125000 I-0.898651 J-4.731784
G02 X153.930022 Y249.877069 Z-0.125000 I-5.502478 J-20.576982
G02 X154.276644 Y249.769497 Z-0.125000 I-2.205154 J-7.717732
G03 X154.624886 Y249.655486 Z-0.125000 I8.159341 J24.333587
G02 X154.972985 Y249.541633 Z-0.125000 I-8.134732 J-25.460518
G03 X155.319749 Y249.433041 Z-0.125000 I2.961667 J8.849450
G03 X155.668763 Y249.334322 Z-0.125000 I6.083839 J20.842618
G03 X156.014613 Y249.249825 Z-0.125000 I1.699028 J6.204185
G03 X156.363502 Y249.182438 Z-0.125000 I1.768479 J8.219260
G03 X156.709480 Y249.134020 Z-0.125000 I0.963377 J5.623567
G03 X157.057422 Y249.106364 Z-0.125000 I0.648738 J5.959265
G03 X157.404343 Y249.098552 Z-0.125000 I0.314490 J6.259499
G03 X157.751281 Y249.111048 Z-0.125000 I-0.032735 J5.731361
G03 X158.099207 Y249.141211 Z-0.125000 I-0.573097 J8.632339
G03 X158.445714 Y249.187627 Z-0.125000 I-0.704969 J6.579356
G03 X158.794073 Y249.247417 Z-0.125000 I-2.701231 J16.783061
G03 X159.140820 Y249.317345 Z-0.125000 I-1.704001 J9.344253
G03 X159.488937 Y249.394642 Z-0.125000 I-43.755881 J197.882115
G03 X159.836280 Y249.475527 Z-0.125000 I-4.123558 J18.494008
G02 X160.183801 Y249.557284 Z-0.125000 I5.895418 J-24.279905
G03 X160.531707 Y249.636637 Z-0.125000 I-120.090817 J527.310556
G02 X160.878665 Y249.711136 Z-0.125000 I3.022405 J-13.230844
G02 X161.226834 Y249.778404 Z-0.125000 I4.604343 J-22.896695
G02 X161.573531 Y249.836741 Z-0.125000 I1.934857 J-10.439417
G02 X161.921607 Y249.884598 Z-0.125000 I1.944294 J-12.851658
G02 X162.268395 Y249.921389 Z-0.125000 I1.229279 J-9.934168
G02 X162.616143 Y249.946278 Z-0.125000 I0.912313 J-10.305250
G02 X162.963259 Y249.959733 Z-0.125000 I0.597836 J-10.938921
G02 X163.310653 Y249.961693 Z-0.125000 I0.230690 J-10.097520
G02 X163.658122 Y249.953198 Z-0.125000 I-0.155781 J-13.481151
G02 X164.005305 Y249.935033 Z-0.125000 I-0.412082 J-11.203262
G02 X164.352989 Y249.908549 Z-0.125000 I-1.431621 J-21.089881
G02 X164.700142 Y249.875034 Z-0.125000 I-1.219607 J-14.447478
G02 X165.047852 Y249.835852 Z-0.125000 I-4.799711 J-44.156630
G02 X165.395110 Y249.792574 Z-0.125000 I-2.586773 J-22.170678
G02 X165.742716 Y249.746405 Z-0.125000 I-104.807072 J-790.417139
G02 X166.090123 Y249.698871 Z-0.125000 I-6.248407 J-46.960685
G03 X166.437580 Y249.650951 Z-0.125000 I9.286906 J66.053724
G02 X166.785115 Y249.603917 Z-0.125000 I-212.262342 J-1569.697467
G03 X167.132446 Y249.558472 Z-0.125000 I5.190337 J38.319084
G03 X167.480046 Y249.515530 Z-0.125000 I8.217756 J65.092182
G03 X167.827310 Y249.475509 Z-0.125000 I3.808996 J31.524078
G03 X168.174918 Y249.438970 Z-0.125000 I4.237480 J38.641403
G03 X168.522174 Y249.406045 Z-0.125000 I3.061169 J30.437945
G03 X168.869752 Y249.376992 Z-0.125000 I2.828267 J31.742579
G03 X169.217038 Y249.351726 Z-0.125000 I2.558982 J32.774386
G03 X169.564574 Y249.330259 Z-0.125000 I2.090080 J31.012180
G03 X169.911904 Y249.312341 Z-0.125000 I2.143333 J38.171465
G03 X170.259395 Y249.297810 Z-0.125000 I1.561374 J33.176166
G03 X170.606768 Y249.286359 Z-0.125000 I1.762384 J48.188118
G03 X170.954227 Y249.277706 Z-0.125000 I1.145424 J39.016624
G03 X171.301631 Y249.271515 Z-0.125000 I1.352211 J66.131256
G03 X171.649072 Y249.267437 Z-0.125000 I0.744986 J48.669787
G03 X171.996498 Y249.265165 Z-0.125000 I0.871622 J106.718077
G03 X172.343931 Y249.264405 Z-0.125000 I0.333535 J72.995944
G03 X172.691362 Y249.264636 Z-0.125000 I-0.069476 J364.975942
G03 X173.038792 Y249.265923 Z-0.125000 I-0.279813 J122.477853
G03 X173.386225 Y249.267785 Z-0.125000 I-3.738576 J729.985028
G03 X173.733657 Y249.270054 Z-0.125000 I-1.212051 J212.206157
G02 X174.081089 Y249.272521 Z-0.125000 I5.158534 J-701.911923
G03 X174.428521 Y249.274985 Z-0.125000 I-4.998803 J730.014640
G02 X174.775956 Y249.277310 Z-0.125000 I1.995801 J-272.373363
G03 X175.123388 Y249.279311 Z-0.125000 I-20.855544 J3649.829416
G02 X175.470819 Y249.281014 Z-0.125000 I1.115484 J-192.097114
G02 X175.818252 Y249.282238 Z-0.125000 I0.758049 J-165.901241
G02 X176.165683 Y249.282866 Z-0.125000 I0.645213 J-260.698790
G02 X176.513115 Y249.283015 Z-0.125000 I0.277584 J-242.994961
G02 X176.860547 Y249.282649 Z-0.125000 I-0.065340 J-227.259881
G02 X177.207979 Y249.281657 Z-0.125000 I-0.694839 J-304.159300
G02 X177.555413 Y249.280268 Z-0.125000 I-1.042337 J-304.149173
G02 X177.902844 Y249.278482 Z-0.125000 I-1.389835 J-304.156749
G02 X178.250277 Y249.276299 Z-0.125000 I-1.737169 J-304.162901
G02 X178.597709 Y249.273868 Z-0.125000 I-8.649782 J-1216.652205
G03 X178.945141 Y249.271457 Z-0.125000 I6.363102 J869.035033
G02 X179.292573 Y249.269043 Z-0.125000 I-12.512240 J-1824.957339
G03 X179.640004 Y249.266906 Z-0.125000 I1.367638 J194.143011
G03 X179.987439 Y249.265183 Z-0.125000 I1.319380 J231.001212
G03 X180.334871 Y249.264234 Z-0.125000 I0.495372 J117.736584
G03 X180.682301 Y249.264176 Z-0.125000 I0.204662 J184.704433
G03 X181.029735 Y249.265292 Z-0.125000 I-0.055017 J71.175323
G03 X181.377156 Y249.267941 Z-0.125000 I-0.518575 J90.794118
G03 X181.724598 Y249.272436 Z-0.125000 I-0.487692 J51.129910
G03 X182.072002 Y249.279014 Z-0.125000 I-1.092275 J66.867091
G03 X182.419462 Y249.287994 Z-0.125000 I-0.868182 J40.319494
G03 X182.766841 Y249.299660 Z-0.125000 I-1.475309 J49.107588
G03 X183.114328 Y249.314267 Z-0.125000 I-1.315770 J35.441597
G03 X183.461667 Y249.332062 Z-0.125000 I-1.907551 J40.630368
G03 X183.809192 Y249.353168 Z-0.125000 I-1.858540 J33.473955
G03 X184.156494 Y249.377787 Z-0.125000 I-2.313097 J35.094134
G03 X184.504056 Y249.405873 Z-0.125000 I-2.680687 J35.336951
G03 X184.851335 Y249.437482 Z-0.125000 I-2.870649 J33.462365
G03 X185.198922 Y249.472358 Z-0.125000 I-4.142769 J43.038841
G03 X185.546211 Y249.510356 Z-0.125000 I-3.663207 J35.085828
G03 X185.893786 Y249.550984 Z-0.125000 I-8.197977 J71.642346
G03 X186.241129 Y249.593860 Z-0.125000 I-5.142891 J43.091398
G03 X186.588650 Y249.638220 Z-0.125000 I-204.855492 J1606.256241
G03 X186.936091 Y249.683450 Z-0.125000 I-9.308352 J72.860843
G02 X187.283514 Y249.728532 Z-0.125000 I8.237671 J-62.121327
G03 X187.631072 Y249.772649 Z-0.125000 I-1953.819570 J15393.865338
G02 X187.978380 Y249.814604 Z-0.125000 I3.639679 J-28.671338
G02 X188.326030 Y249.853424 Z-0.125000 I6.698571 J-58.412824
G02 X188.673244 Y249.887891 Z-0.125000 I2.029683 J-18.680482
G02 X189.020903 Y249.916936 Z-0.125000 I2.476887 J-27.551671
G02 X189.368107 Y249.939543 Z-0.125000 I1.113160 J-14.419193
G02 X189.715659 Y249.954637 Z-0.125000 I0.964172 J-18.190859
G02 X190.062971 Y249.961609 Z-0.125000 I0.426464 J-12.591520
G02 X190.410315 Y249.959556 Z-0.125000 I0.093257 J-13.606516
G02 X190.757838 Y249.948353 Z-0.125000 I-0.239595 J-12.828510
G00 Z3.000000

(End cutting path id: path478395)


(Start cutting path id: path478393)
(Change tool to Default tool)

G00 Z3.000000
G00 X124.050849 Y247.514507

G00 Z4.875000 (Fast pre-penetrate)
G01 Z-0.125000 F400.0(Penetrate)
G03 X124.398160 Y247.515798 Z-0.125000 I0.147187 J7.118825 F800.000000
G03 X124.745715 Y247.530567 Z-0.125000 I-0.340489 J12.109700
G03 X125.092738 Y247.557170 Z-0.125000 I-0.502151 J8.827163
G03 X125.440579 Y247.593570 Z-0.125000 I-2.080410 J21.560696
G03 X125.787649 Y247.637555 Z-0.125000 I-1.434404 J12.709576
G03 X126.135443 Y247.687351 Z-0.125000 I-9.895087 J70.350255
G03 X126.482727 Y247.740674 Z-0.125000 I-3.297541 J22.633944
G02 X126.830307 Y247.796045 Z-0.125000 I13.625394 J-84.412793
G03 X127.177825 Y247.851491 Z-0.125000 I-11.871996 J75.525775
G02 X127.525173 Y247.905807 Z-0.125000 I5.200378 J-32.118643
G02 X127.872844 Y247.957511 Z-0.125000 I12.611280 J-83.605958
G02 X128.220037 Y248.005674 Z-0.125000 I3.294357 J-22.472846
G02 X128.567763 Y248.049273 Z-0.125000 I4.218026 J-32.232405
G02 X128.914900 Y248.087665 Z-0.125000 I2.261501 J-18.859575
G02 X129.262589 Y248.120187 Z-0.125000 I2.282210 J-22.524152
G02 X129.609764 Y248.146456 Z-0.125000 I1.482573 J-17.286921
G02 X129.957356 Y248.166043 Z-0.125000 I1.240501 J-18.919375
G02 X130.304631 Y248.178798 Z-0.125000 I0.786862 J-16.689645
G02 X130.652083 Y248.184444 Z-0.125000 I0.455396 J-17.333178
G02 X130.999494 Y248.183005 Z-0.125000 I0.104325 J-16.757541
G02 X131.346804 Y248.174364 Z-0.125000 I-0.243012 J-16.750990
G02 X131.694358 Y248.158690 Z-0.125000 I-0.624044 J-17.698757
G02 X132.041545 Y248.136005 Z-0.125000 I-0.921442 J-16.770236
G02 X132.389224 Y248.106654 Z-0.125000 I-1.530162 J-20.200129
G02 X132.736344 Y248.070896 Z-0.125000 I-1.646815 J-17.689019
G02 X133.084088 Y248.029306 Z-0.125000 I-2.995678 J-26.522169
G02 X133.431230 Y247.982415 Z-0.125000 I-2.533903 J-20.067213
G02 X133.778952 Y247.931172 Z-0.125000 I-7.387130 J-51.333004
G02 X134.126234 Y247.876436 Z-0.125000 I-3.956799 J-26.233420
G03 X134.473816 Y247.819690 Z-0.125000 I25.430552 J154.676075
G02 X134.821348 Y247.762130 Z-0.125000 I-8.244166 J-50.853352
G03 X135.168682 Y247.705885 Z-0.125000 I4.180617 J24.716620
G03 X135.516483 Y247.652503 Z-0.125000 I22.183353 J143.372102
G03 X135.863546 Y247.604656 Z-0.125000 I1.872237 J12.297671
G03 X136.211452 Y247.564291 Z-0.125000 I2.892725 J23.412990
G03 X136.558410 Y247.534192 Z-0.125000 I0.871769 J8.034331
G03 X136.906007 Y247.516759 Z-0.125000 I0.758435 J11.648224
G03 X137.253273 Y247.514216 Z-0.125000 I0.219223 J6.224794
G03 X137.600018 Y247.529169 Z-0.125000 I-0.159983 J7.737700
G03 X137.948140 Y247.562846 Z-0.125000 I-0.370368 J5.644559
G03 X138.293744 Y247.617014 Z-0.125000 I-0.790452 J6.172860
G03 X138.643003 Y247.692169 Z-0.125000 I-1.149467 J6.190920
G03 X138.987869 Y247.787607 Z-0.125000 I-1.435485 J5.857972
G03 X139.337867 Y247.903404 Z-0.125000 I-2.739060 J8.865631
G03 X139.683065 Y248.035538 Z-0.125000 I-2.349461 J6.654905
G03 X140.032731 Y248.182799 Z-0.125000 I-10.589484 J25.633225
G03 X140.379468 Y248.339108 Z-0.125000 I-4.148686 J9.665692
G02 X140.727597 Y248.499907 Z-0.125000 I9.210196 J-19.482768
G03 X141.076532 Y248.659764 Z-0.125000 I-13.653095 J30.262545
G02 X141.422461 Y248.809781 Z-0.125000 I3.036469 J-6.528044
G02 X141.773103 Y248.946625 Z-0.125000 I6.452293 J-16.015386
G02 X142.117325 Y249.059809 Z-0.125000 I1.471934 J-3.896490
G02 X142.467628 Y249.146585 Z-0.125000 I1.558725 J-5.541951
G02 X142.812189 Y249.200650 Z-0.125000 I0.655897 J-3.055114
G02 X143.159544 Y249.217963 Z-0.125000 I0.346916 J-3.466901
G02 X143.507055 Y249.199062 Z-0.125000 I-0.000405 J-3.211488
G02 X143.851152 Y249.141535 Z-0.125000 I-0.335137 J-3.062479
G02 X144.201919 Y249.048612 Z-0.125000 I-1.091330 J-4.828081
G02 X144.545537 Y248.925635 Z-0.125000 I-1.106646 J-3.633697
G02 X144.896783 Y248.775814 Z-0.125000 I-6.377142 J-15.437436
G02 X145.242862 Y248.610717 Z-0.125000 I-2.531766 J-5.752442
G03 X145.591649 Y248.436962 Z-0.125000 I6.636187 J12.884177
G02 X145.941205 Y248.264925 Z-0.125000 I-9.813716 J-20.381295
G03 X146.286513 Y248.106652 Z-0.125000 I2.358665 J4.690110
G03 X146.638100 Y247.967689 Z-0.125000 I4.218604 J10.159138
G03 X146.981376 Y247.859865 Z-0.125000 I1.153169 J3.070958
G03 X147.331480 Y247.787012 Z-0.125000 I0.996743 J3.912339
G03 X147.676240 Y247.752584 Z-0.125000 I0.452717 J2.790059
G03 X148.022330 Y247.760559 Z-0.125000 I0.107944 J2.829228
G03 X148.371107 Y247.806755 Z-0.125000 I-0.311795 J3.693756
G03 X148.714950 Y247.889789 Z-0.125000 I-0.546353 J3.015879
G03 X149.065970 Y248.004337 Z-0.125000 I-2.584959 J8.516414
G03 X149.411154 Y248.140578 Z-0.125000 I-1.540614 J4.408763
G02 X149.760834 Y248.292392 Z-0.125000 I12.689582 J-28.749909
G03 X150.109125 Y248.447930 Z-0.125000 I-4.546955 J10.649585
G02 X150.455698 Y248.597694 Z-0.125000 I2.792831 J-5.987054
G02 X150.806306 Y248.733853 Z-0.125000 I7.831091 J-19.645501
G02 X151.150564 Y248.846368 Z-0.125000 I1.403808 J-3.712281
G02 X151.500797 Y248.930689 Z-0.125000 I1.415668 J-5.110532
G02 X151.845428 Y248.982673 Z-0.125000 I0.666207 J-3.248292
G02 X152.192900 Y248.998739 Z-0.125000 I0.331331 J-3.400397
G02 X152.540292 Y248.981879 Z-0.125000 I-0.018776 J-3.974277
G02 X152.885498 Y248.931670 Z-0.125000 I-0.312388 J-3.359592
G02 X153.235155 Y248.853538 Z-0.125000 I-1.473880 J-7.417386
G02 X153.580561 Y248.753370 Z-0.125000 I-1.119492 J-4.505918
G02 X153.930022 Y248.636588 Z-0.125000 I-38.408165 J-115.514376
G02 X154.277304 Y248.512239 Z-0.125000 I-2.963596 J-8.823859
G03 X154.624886 Y248.386779 Z-0.125000 I3.808061 J10.005885
G03 X154.973995 Y248.267726 Z-0.125000 I120.331640 J352.286551
G03 X155.319749 Y248.161902 Z-0.125000 I1.871243 J5.496104
G03 X155.669307 Y248.074080 Z-0.125000 I2.401939 J8.820813
G03 X156.014613 Y248.008341 Z-0.125000 I1.030385 J4.472521
G03 X156.363024 Y247.967831 Z-0.125000 I0.768431 J5.090484
G03 X156.709480 Y247.952114 Z-0.125000 I0.389356 J4.756409
G03 X157.056275 Y247.962576 Z-0.125000 I0.040352 J4.415565
G03 X157.404343 Y247.995860 Z-0.125000 I-0.468815 J6.739174
G03 X157.750429 Y248.050167 Z-0.125000 I-0.616086 J5.056097
G03 X158.099207 Y248.121447 Z-0.125000 I-2.910967 J15.132483
G03 X158.445774 Y248.204964 Z-0.125000 I-1.616344 J7.468095
G02 X158.794073 Y248.296649 Z-0.125000 I19.203954 J-72.246307
G03 X159.141676 Y248.390933 Z-0.125000 I-4.593124 J17.621670
G02 X159.488937 Y248.483693 Z-0.125000 I3.551111 J-12.597682
G02 X159.837343 Y248.570381 Z-0.125000 I12.799602 J-50.699188
G02 X160.183801 Y248.647499 Z-0.125000 I1.974051 J-8.051749
G02 X160.532326 Y248.711940 Z-0.125000 I2.354046 J-11.757069
G02 X160.878665 Y248.761944 Z-0.125000 I1.186850 J-6.995868
G02 X161.226676 Y248.795597 Z-0.125000 I0.927830 J-7.778592
G02 X161.573531 Y248.813274 Z-0.125000 I0.554863 J-7.476011
G02 X161.920854 Y248.814288 Z-0.125000 I0.194094 J-6.992349
G02 X162.268395 Y248.800521 Z-0.125000 I-0.215393 J-9.830580
G02 X162.615314 Y248.772787 Z-0.125000 I-0.446109 J-7.764066
G02 X162.963259 Y248.733491 Z-0.125000 I-1.731545 J-16.891981
G02 X163.310207 Y248.684793 Z-0.125000 I-1.287260 J-10.431295
G02 X163.658122 Y248.629036 Z-0.125000 I-9.818902 J-62.382332
G02 X164.005380 Y248.569014 Z-0.125000 I-3.002708 J-18.406489
G03 X164.352989 Y248.506791 Z-0.125000 I9.115482 J49.921965
G02 X164.700586 Y248.444992 Z-0.125000 I-13.231954 J-75.433169
G03 X165.047852 Y248.385260 Z-0.125000 I3.945570 J21.899325
G03 X165.395650 Y248.329597 Z-0.125000 I7.630581 J46.563246
G03 X165.742716 Y248.279057 Z-0.125000 I2.612168 J16.721137
G03 X166.090530 Y248.234925 Z-0.125000 I2.920732 J21.626215
G03 X166.437580 Y248.197573 Z-0.125000 I1.876901 J15.808160
G03 X166.785285 Y248.167636 Z-0.125000 I1.621656 J16.800549
G03 X167.132446 Y248.144879 Z-0.125000 I1.301208 J17.190575
G03 X167.479998 Y248.129390 Z-0.125000 I0.890082 J16.065892
G03 X167.827310 Y248.120537 Z-0.125000 I0.710970 J21.074188
G03 X168.174746 Y248.117961 Z-0.125000 I0.304720 J17.666083
G03 X168.522174 Y248.120802 Z-0.125000 I-0.072930 J30.165926
G03 X168.869553 Y248.128595 Z-0.125000 I-0.311001 J21.607672
G03 X169.217038 Y248.140460 Z-0.125000 I-1.446891 J47.469041
G03 X169.564414 Y248.155614 Z-0.125000 I-1.131472 J29.925213
G03 X169.911904 Y248.173374 Z-0.125000 I-5.171070 J104.586102
G03 X170.259300 Y248.192960 Z-0.125000 I-2.552010 J48.356729
G03 X170.606768 Y248.213840 Z-0.125000 I-96.529783 J1609.282664
G03 X170.954193 Y248.235329 Z-0.125000 I-6.348890 J105.463672
G02 X171.301631 Y248.257043 Z-0.125000 I10.984756 J-172.969101
G03 X171.649079 Y248.278443 Z-0.125000 I-78.733718 J1281.132804
G02 X171.996498 Y248.299284 Z-0.125000 I6.179114 J-100.101538
G02 X172.343960 Y248.319181 Z-0.125000 I10.207438 J-175.211632
G02 X172.691362 Y248.337985 Z-0.125000 I4.578159 J-81.363088
G02 X173.038827 Y248.355456 Z-0.125000 I5.345132 J-102.840332
G02 X173.386225 Y248.371536 Z-0.125000 I3.678676 J-75.711451
G02 X173.733688 Y248.386083 Z-0.125000 I3.623137 J-82.383533
G02 X174.081089 Y248.399082 Z-0.125000 I2.958700 J-74.424759
G02 X174.428545 Y248.410473 Z-0.125000 I2.669353 J-76.117419
G02 X174.775956 Y248.420275 Z-0.125000 I2.320540 J-76.084294
G02 X175.123404 Y248.428478 Z-0.125000 I1.940423 J-74.831930
G02 X175.470819 Y248.435092 Z-0.125000 I1.646331 J-77.346909
G02 X175.818261 Y248.440136 Z-0.125000 I1.282418 J-76.371038
G02 X176.165683 Y248.443611 Z-0.125000 I0.950680 J-77.658896
G02 X176.513118 Y248.445596 Z-0.125000 I0.608022 J-76.039287
G02 X176.860547 Y248.445993 Z-0.125000 I0.260572 J-76.036508
G02 X177.207976 Y248.444840 Z-0.125000 I-0.075555 J-75.161899
G02 X177.555413 Y248.442236 Z-0.125000 I-0.522952 J-92.923981
G02 X177.902835 Y248.438039 Z-0.125000 I-0.992798 J-96.568329
G02 X178.250277 Y248.432393 Z-0.125000 I-1.017520 J-73.313326
G02 X178.597691 Y248.425167 Z-0.125000 I-1.484426 J-79.723697
G02 X178.945141 Y248.416412 Z-0.125000 I-1.801121 J-78.379655
G02 X179.292549 Y248.406121 Z-0.125000 I-2.158359 J-78.727934
G02 X179.640004 Y248.394320 Z-0.125000 I-2.596689 J-81.573924
G02 X179.987409 Y248.381012 Z-0.125000 I-2.842512 J-78.746569
G02 X180.334871 Y248.366271 Z-0.125000 I-3.694560 J-91.188840
G02 X180.682273 Y248.350137 Z-0.125000 I-3.636494 J-82.047933
G02 X181.029735 Y248.332751 Z-0.125000 I-5.751631 J-118.430945
G02 X181.377142 Y248.314197 Z-0.125000 I-4.752277 J-92.244718
G02 X181.724598 Y248.294720 Z-0.125000 I-12.654866 J-228.859449
G02 X182.072018 Y248.274477 Z-0.125000 I-6.625759 J-116.706614
G03 X182.419462 Y248.253810 Z-0.125000 I37.603358 J629.237865
G02 X182.766906 Y248.232983 Z-0.125000 I-13.357135 J-225.738233
G03 X183.114328 Y248.212453 Z-0.125000 I6.520304 J107.390823
G03 X183.461793 Y248.192583 Z-0.125000 I36.672889 J638.254194
G03 X183.809192 Y248.173938 Z-0.125000 I3.059823 J53.764138
G03 X184.156675 Y248.156981 Z-0.125000 I5.201023 J103.010849
G03 X184.504056 Y248.142362 Z-0.125000 I1.630464 J34.610443
G03 X184.851535 Y248.130617 Z-0.125000 I1.943505 J52.350264
G03 X185.198922 Y248.122386 Z-0.125000 I0.780340 J25.601171
G03 X185.546363 Y248.118259 Z-0.125000 I0.575247 J33.797510
G03 X185.893786 Y248.118735 Z-0.125000 I0.144352 J21.418815
G03 X186.241148 Y248.124396 Z-0.125000 I-0.221803 J24.271355
G03 X186.588650 Y248.135616 Z-0.125000 I-0.461957 J19.695014
G03 X186.935910 Y248.152771 Z-0.125000 I-0.864520 J21.022718
G03 X187.283514 Y248.175861 Z-0.125000 I-1.152461 J19.977295
G03 X187.630685 Y248.205103 Z-0.125000 I-1.449697 J19.287135
G03 X187.978380 Y248.240118 Z-0.125000 I-2.213976 J23.728241
G03 X188.325528 Y248.280716 Z-0.125000 I-2.170024 J20.060003
G03 X188.673244 Y248.326115 Z-0.125000 I-4.605350 J36.626964
G03 X189.020468 Y248.375695 Z-0.125000 I-3.245243 J23.968200
G03 X189.368107 Y248.428281 Z-0.125000 I-24.927854 J165.969440
G03 X189.715507 Y248.482834 Z-0.125000 I-5.778497 J37.932002
G02 X190.062971 Y248.537829 Z-0.125000 I8.342797 J-51.584921
G03 X190.410588 Y248.591944 Z-0.125000 I-32.665749 J210.980154
G02 X190.757838 Y248.643451 Z-0.125000 I3.392239 J-21.673392
G00 Z3.000000

(End cutting path id: path478393)


(Start cutting path id: path478391)
(Change tool to Default tool)

G00 Z3.000000
G00 X124.050849 Y246.370164

G00 Z4.875000 (Fast pre-penetrate)
G01 Z-0.125000 F400.0(Penetrate)
G03 X124.398226 Y246.367599 Z-0.125000 I0.226078 J7.093671 F800.000000
G03 X124.745715 Y246.378922 Z-0.125000 I-0.191919 J11.227692
G03 X125.092735 Y246.402870 Z-0.125000 I-0.410361 J8.472598
G03 X125.440579 Y246.437437 Z-0.125000 I-1.618138 J18.050477
G03 X125.787587 Y246.480590 Z-0.125000 I-1.259127 J11.542040
G03 X126.135443 Y246.530576 Z-0.125000 I-6.166960 J44.151438
G03 X126.482647 Y246.585124 Z-0.125000 I-2.800576 J18.958243
G02 X126.830307 Y246.642733 Z-0.125000 I36.612517 J-219.872990
G03 X127.177761 Y246.701357 Z-0.125000 I-7.681108 J46.583097
G02 X127.525173 Y246.759728 Z-0.125000 I6.776061 J-39.266387
G02 X127.872817 Y246.816254 Z-0.125000 I33.573646 J-205.388126
G02 X128.220037 Y246.869911 Z-0.125000 I3.996934 J-24.714040
G02 X128.567775 Y246.919583 Z-0.125000 I5.787489 J-39.275067
G02 X128.914900 Y246.964510 Z-0.125000 I2.742611 J-19.826726
G02 X129.262635 Y247.003963 Z-0.125000 I2.989401 J-24.796113
G02 X129.609764 Y247.037448 Z-0.125000 I1.881248 J-17.686505
G02 X129.957423 Y247.064490 Z-0.125000 I1.720260 J-19.867641
G02 X130.304631 Y247.084824 Z-0.125000 I1.152435 J-16.703564
G02 X130.652161 Y247.098142 Z-0.125000 I0.856547 J-17.810895
G02 X130.999494 Y247.104350 Z-0.125000 I0.464410 J-16.262206
G02 X131.346876 Y247.103276 Z-0.125000 I0.119676 J-17.461152
G02 X131.694358 Y247.094958 Z-0.125000 I-0.208059 J-15.953627
G02 X132.041594 Y247.079321 Z-0.125000 I-0.561728 J-16.337152
G02 X132.389224 Y247.056535 Z-0.125000 I-0.986435 J-17.712591
G02 X132.736346 Y247.026706 Z-0.125000 I-1.250564 J-16.587399
G02 X133.084088 Y246.990191 Z-0.125000 I-1.992485 J-20.649071
G02 X133.431163 Y246.947328 Z-0.125000 I-2.010318 J-17.704956
G02 X133.778952 Y246.898762 Z-0.125000 I-3.833613 J-28.722257
G02 X134.126087 Y246.845129 Z-0.125000 I-2.991689 J-20.513700
G02 X134.473816 Y246.787526 Z-0.125000 I-11.812316 J-72.384996
G02 X134.821148 Y246.726941 Z-0.125000 I-4.774268 J-28.397133
G03 X135.168682 Y246.665114 Z-0.125000 I11.420052 J63.184311
G02 X135.516317 Y246.603381 Z-0.125000 I-12.575460 J-71.826248
G03 X135.863546 Y246.544215 Z-0.125000 I3.323231 J18.454565
G03 X136.211467 Y246.489327 Z-0.125000 I9.596633 J59.700716
G03 X136.558410 Y246.441716 Z-0.125000 I1.559252 J10.074270
G03 X136.906355 Y246.403555 Z-0.125000 I2.088576 J17.438064
G03 X137.253273 Y246.377769 Z-0.125000 I0.687449 J6.902100
G03 X137.600705 Y246.367028 Z-0.125000 I0.469150 J9.551237
G03 X137.948140 Y246.373403 Z-0.125000 I0.071178 J5.591612
G03 X138.294465 Y246.399609 Z-0.125000 I-0.330893 J6.674428
G03 X138.643003 Y246.446629 Z-0.125000 I-0.547038 J5.370256
G03 X138.988111 Y246.515700 Z-0.125000 I-0.945934 J5.622934
G03 X139.337867 Y246.607204 Z-0.125000 I-1.489316 J6.406807
G03 X139.682510 Y246.719136 Z-0.125000 I-1.652657 J5.675162
G03 X140.032731 Y246.851324 Z-0.125000 I-3.898142 J10.857787
G03 X140.378260 Y246.998288 Z-0.125000 I-2.763930 J6.978017
G03 X140.727597 Y247.157664 Z-0.125000 I-93.286049 J204.936639
G03 X141.075208 Y247.322794 Z-0.125000 I-5.475703 J11.975168
G02 X141.422461 Y247.486787 Z-0.125000 I5.027770 J-10.196627
G02 X141.772459 Y247.644730 Z-0.125000 I194.061798 J-429.568067
G02 X142.117325 Y247.785490 Z-0.125000 I2.127567 J-4.719749
G02 X142.468415 Y247.906155 Z-0.125000 I3.118456 J-8.502425
G02 X142.812189 Y247.996503 Z-0.125000 I1.014789 J-3.162074
G02 X143.161436 Y248.052922 Z-0.125000 I0.825796 J-4.002692
G02 X143.507055 Y248.072208 Z-0.125000 I0.330375 J-2.814046
G02 X143.852317 Y248.049984 Z-0.125000 I-0.016878 J-2.955147
G02 X144.201919 Y247.989026 Z-0.125000 I-0.437027 J-3.539416
G02 X144.544948 Y247.890583 Z-0.125000 I-0.689860 J-3.050701
G02 X144.896783 Y247.757939 Z-0.125000 I-2.590041 J-7.402996
G02 X145.241343 Y247.601609 Z-0.125000 I-1.713546 J-4.234622
G03 X145.591649 Y247.426679 Z-0.125000 I20.892548 J41.400138
G02 X145.939992 Y247.246086 Z-0.125000 I-4.488158 J-9.083396
G03 X146.286513 Y247.071270 Z-0.125000 I3.045976 J5.606891
