%
(Header)
(Generated by gcodetools from Inkscape.)
(Using default header. To add your own header create file "header" in the output dir.)
M3
(Header end.)
G21 (All units in mm)

(Start cutting path id: line22451)
(Change tool to Default tool)

G00 Z5.000000
G00 X128.978083 Y147.556374

G00 Z4.875000 (Fast pre-penetrate)
G01 Z-0.125000 F400.0(Penetrate)
G01 X128.978083 Y147.556374 Z-0.125000 F800.000000
G00 Z5.000000

(End cutting path id: line22451)


(Start cutting path id: line13725)
(Change tool to Default tool)

G00 Z5.000000
G00 X126.106883 Y147.929174

G00 Z4.875000 (Fast pre-penetrate)
G01 Z-0.125000 F400.0(Penetrate)
G01 X126.106883 Y147.929174 Z-0.125000 F800.000000
G00 Z5.000000

(End cutting path id: line13725)


(Start cutting path id: line13727)
(Change tool to Default tool)

G00 Z5.000000
G00 X124.796583 Y150.369234

G00 Z4.875000 (Fast pre-penetrate)
G01 Z-0.125000 F400.0(Penetrate)
G01 X124.796583 Y150.369234 Z-0.125000 F800.000000
G00 Z5.000000

(End cutting path id: line13727)


(Start cutting path id: line13729)
(Change tool to Default tool)

G00 Z5.000000
G00 X123.196363 Y152.629804

G00 Z4.875000 (Fast pre-penetrate)
G01 Z-0.125000 F400.0(Penetrate)
G01 X123.196363 Y152.629804 Z-0.125000 F800.000000
G00 Z5.000000

(End cutting path id: line13729)


(Start cutting path id: line13731)
(Change tool to Default tool)

G00 Z5.000000
G00 X121.330493 Y154.676584

G00 Z4.875000 (Fast pre-penetrate)
G01 Z-0.125000 F400.0(Penetrate)
G01 X121.330493 Y154.676584 Z-0.125000 F800.000000
G00 Z5.000000

(End cutting path id: line13731)


(Start cutting path id: line13733)
(Change tool to Default tool)

G00 Z5.000000
G00 X119.227213 Y156.478554

G00 Z4.875000 (Fast pre-penetrate)
G01 Z-0.125000 F400.0(Penetrate)
G01 X119.227213 Y156.478554 Z-0.125000 F800.000000
G00 Z5.000000

(End cutting path id: line13733)


(Start cutting path id: line13735)
(Change tool to Default tool)

G00 Z5.000000
G00 X116.918453 Y158.008384

G00 Z4.875000 (Fast pre-penetrate)
G01 Z-0.125000 F400.0(Penetrate)
G01 X116.918453 Y158.008384 Z-0.125000 F800.000000
G00 Z5.000000

(End cutting path id: line13735)


(Start cutting path id: line13737)
(Change tool to Default tool)

G00 Z5.000000
G00 X114.439183 Y159.242924

G00 Z4.875000 (Fast pre-penetrate)
G01 Z-0.125000 F400.0(Penetrate)
G01 X114.439183 Y159.242924 Z-0.125000 F800.000000
G00 Z5.000000

(End cutting path id: line13737)


(Start cutting path id: line13739)
(Change tool to Default tool)

G00 Z5.000000
G00 X111.827003 Y160.163424

G00 Z4.875000 (Fast pre-penetrate)
G01 Z-0.125000 F400.0(Penetrate)
G01 X111.827003 Y160.163424 Z-0.125000 F800.000000
G00 Z5.000000

(End cutting path id: line13739)


(Start cutting path id: line13741)
(Change tool to Default tool)

G00 Z5.000000
G00 X109.121473 Y160.755924

G00 Z4.875000 (Fast pre-penetrate)
G01 Z-0.125000 F400.0(Penetrate)
G01 X109.121473 Y160.755924 Z-0.125000 F800.000000
G00 Z5.000000

(End cutting path id: line13741)


(Start cutting path id: line13743)
(Change tool to Default tool)

G00 Z5.000000
G00 X106.363673 Y161.011464

G00 Z4.875000 (Fast pre-penetrate)
G01 Z-0.125000 F400.0(Penetrate)
G01 X106.363673 Y161.011464 Z-0.125000 F800.000000
G00 Z5.000000

(End cutting path id: line13743)


(Start cutting path id: line13745)
(Change tool to Default tool)

G00 Z5.000000
G00 X103.595363 Y160.926204

G00 Z4.875000 (Fast pre-penetrate)
G01 Z-0.125000 F400.0(Penetrate)
G01 X103.595363 Y160.926204 Z-0.125000 F800.000000
G00 Z5.000000

(End cutting path id: line13745)


(Start cutting path id: line13747)
(Change tool to Default tool)

G00 Z5.000000
G00 X100.858516 Y160.501354

G00 Z4.875000 (Fast pre-penetrate)
G01 Z-0.125000 F400.0(Penetrate)
G01 X100.858516 Y160.501354 Z-0.125000 F800.000000
G00 Z5.000000

(End cutting path id: line13747)


(Start cutting path id: line13749)
(Change tool to Default tool)

G00 Z5.000000
G00 X98.194661 Y159.743404

G00 Z4.875000 (Fast pre-penetrate)
G01 Z-0.125000 F400.0(Penetrate)
G01 X98.194661 Y159.743404 Z-0.125000 F800.000000
G00 Z5.000000

(End cutting path id: line13749)


(Start cutting path id: line13751)
(Change tool to Default tool)

G00 Z5.000000
G00 X95.644072 Y158.663854

G00 Z4.875000 (Fast pre-penetrate)
G01 Z-0.125000 F400.0(Penetrate)
G01 X95.644072 Y158.663854 Z-0.125000 F800.000000
G00 Z5.000000

(End cutting path id: line13751)


(Start cutting path id: line13753)
(Change tool to Default tool)

G00 Z5.000000
G00 X93.245512 Y157.279034

G00 Z4.875000 (Fast pre-penetrate)
G01 Z-0.125000 F400.0(Penetrate)
G01 X93.245512 Y157.279034 Z-0.125000 F800.000000
G00 Z5.000000

(End cutting path id: line13753)


(Start cutting path id: line13755)
(Change tool to Default tool)

G00 Z5.000000
G00 X91.035293 Y155.609974

G00 Z4.875000 (Fast pre-penetrate)
G01 Z-0.125000 F400.0(Penetrate)
G01 X91.035293 Y155.609974 Z-0.125000 F800.000000
G00 Z5.000000

(End cutting path id: line13755)


(Start cutting path id: line13757)
(Change tool to Default tool)

G00 Z5.000000
G00 X89.046952 Y153.681924

G00 Z4.875000 (Fast pre-penetrate)
G01 Z-0.125000 F400.0(Penetrate)
G01 X89.046952 Y153.681924 Z-0.125000 F800.000000
G00 Z5.000000

(End cutting path id: line13757)


(Start cutting path id: line13759)
(Change tool to Default tool)

G00 Z5.000000
G00 X87.310624 Y151.524174

G00 Z4.875000 (Fast pre-penetrate)
G01 Z-0.125000 F400.0(Penetrate)
G01 X87.310624 Y151.524174 Z-0.125000 F800.000000
G00 Z5.000000

(End cutting path id: line13759)


(Start cutting path id: line13761)
(Change tool to Default tool)

G00 Z5.000000
G00 X85.852582 Y149.169374

G00 Z4.875000 (Fast pre-penetrate)
G01 Z-0.125000 F400.0(Penetrate)
G01 X85.852582 Y149.169374 Z-0.125000 F800.000000
G00 Z5.000000

(End cutting path id: line13761)


(Start cutting path id: line13763)
(Change tool to Default tool)

G00 Z5.000000
G00 X84.695006 Y146.653264

G00 Z4.875000 (Fast pre-penetrate)
G01 Z-0.125000 F400.0(Penetrate)
G01 X84.695006 Y146.653264 Z-0.125000 F800.000000
G00 Z5.000000

(End cutting path id: line13763)


(Start cutting path id: line13765)
(Change tool to Default tool)

G00 Z5.000000
G00 X83.855377 Y144.014004

G00 Z4.875000 (Fast pre-penetrate)
G01 Z-0.125000 F400.0(Penetrate)
G01 X83.855377 Y144.014004 Z-0.125000 F800.000000
G00 Z5.000000

(End cutting path id: line13765)


(Start cutting path id: line13767)
(Change tool to Default tool)

G00 Z5.000000
G00 X83.346478 Y141.291514

G00 Z4.875000 (Fast pre-penetrate)
G01 Z-0.125000 F400.0(Penetrate)
G01 X83.346478 Y141.291514 Z-0.125000 F800.000000
G00 Z5.000000

(End cutting path id: line13767)


(Start cutting path id: line13769)
(Change tool to Default tool)

G00 Z5.000000
G00 X83.170979 Y138.527144

G00 Z4.875000 (Fast pre-penetrate)
G01 Z-0.125000 F400.0(Penetrate)
G01 X83.170979 Y138.527144 Z-0.125000 F800.000000
G00 Z5.000000

(End cutting path id: line13769)


(Start cutting path id: line13771)
(Change tool to Default tool)

G00 Z5.000000
G00 X83.346478 Y135.762784

G00 Z4.875000 (Fast pre-penetrate)
G01 Z-0.125000 F400.0(Penetrate)
G01 X83.346478 Y135.762784 Z-0.125000 F800.000000
G00 Z5.000000

(End cutting path id: line13771)


(Start cutting path id: line13773)
(Change tool to Default tool)

G00 Z5.000000
G00 X83.855377 Y133.040304

G00 Z4.875000 (Fast pre-penetrate)
G01 Z-0.125000 F400.0(Penetrate)
G01 X83.855377 Y133.040304 Z-0.125000 F800.000000
G00 Z5.000000

(End cutting path id: line13773)


(Start cutting path id: line13775)
(Change tool to Default tool)

G00 Z5.000000
G00 X84.695006 Y130.401024

G00 Z4.875000 (Fast pre-penetrate)
G01 Z-0.125000 F400.0(Penetrate)
G01 X84.695006 Y130.401024 Z-0.125000 F800.000000
G00 Z5.000000

(End cutting path id: line13775)


(Start cutting path id: line13777)
(Change tool to Default tool)

G00 Z5.000000
G00 X85.852582 Y127.884924

G00 Z4.875000 (Fast pre-penetrate)
G01 Z-0.125000 F400.0(Penetrate)
G01 X85.852582 Y127.884924 Z-0.125000 F800.000000
G00 Z5.000000

(End cutting path id: line13777)


(Start cutting path id: line13779)
(Change tool to Default tool)

G00 Z5.000000
G00 X87.310624 Y125.530124

G00 Z4.875000 (Fast pre-penetrate)
G01 Z-0.125000 F400.0(Penetrate)
G01 X87.310624 Y125.530124 Z-0.125000 F800.000000
G00 Z5.000000

(End cutting path id: line13779)


(Start cutting path id: line13781)
(Change tool to Default tool)

G00 Z5.000000
G00 X89.046952 Y123.372374

G00 Z4.875000 (Fast pre-penetrate)
G01 Z-0.125000 F400.0(Penetrate)
G01 X89.046952 Y123.372374 Z-0.125000 F800.000000
G00 Z5.000000

(End cutting path id: line13781)


(Start cutting path id: line13783)
(Change tool to Default tool)

G00 Z5.000000
G00 X91.035293 Y121.444324

G00 Z4.875000 (Fast pre-penetrate)
G01 Z-0.125000 F400.0(Penetrate)
G01 X91.035293 Y121.444324 Z-0.125000 F800.000000
G00 Z5.000000

(End cutting path id: line13783)


(Start cutting path id: line13785)
(Change tool to Default tool)

G00 Z5.000000
G00 X93.245512 Y119.775254

G00 Z4.875000 (Fast pre-penetrate)
G01 Z-0.125000 F400.0(Penetrate)
G01 X93.245512 Y119.775254 Z-0.125000 F800.000000
G00 Z5.000000

(End cutting path id: line13785)


(Start cutting path id: line13787)
(Change tool to Default tool)

G00 Z5.000000
G00 X95.644072 Y118.390454

G00 Z4.875000 (Fast pre-penetrate)
G01 Z-0.125000 F400.0(Penetrate)
G01 X95.644072 Y118.390454 Z-0.125000 F800.000000
G00 Z5.000000

(End cutting path id: line13787)


(Start cutting path id: line13789)
(Change tool to Default tool)

G00 Z5.000000
G00 X98.194661 Y117.310904

G00 Z4.875000 (Fast pre-penetrate)
G01 Z-0.125000 F400.0(Penetrate)
G01 X98.194661 Y117.310904 Z-0.125000 F800.000000
G00 Z5.000000

(End cutting path id: line13789)


(Start cutting path id: line13791)
(Change tool to Default tool)

G00 Z5.000000
G00 X100.858516 Y116.552954

G00 Z4.875000 (Fast pre-penetrate)
G01 Z-0.125000 F400.0(Penetrate)
G01 X100.858516 Y116.552954 Z-0.125000 F800.000000
G00 Z5.000000

(End cutting path id: line13791)


(Start cutting path id: line13793)
(Change tool to Default tool)

G00 Z5.000000
G00 X103.595363 Y116.128114

G00 Z4.875000 (Fast pre-penetrate)
G01 Z-0.125000 F400.0(Penetrate)
G01 X103.595363 Y116.128114 Z-0.125000 F800.000000
G00 Z5.000000

(End cutting path id: line13793)


(Start cutting path id: line13795)
(Change tool to Default tool)

G00 Z5.000000
G00 X106.363673 Y116.042824

G00 Z4.875000 (Fast pre-penetrate)
G01 Z-0.125000 F400.0(Penetrate)
G01 X106.363673 Y116.042824 Z-0.125000 F800.000000
G00 Z5.000000

(End cutting path id: line13795)


(Start cutting path id: line13797)
(Change tool to Default tool)

G00 Z5.000000
G00 X109.121473 Y116.298364

G00 Z4.875000 (Fast pre-penetrate)
G01 Z-0.125000 F400.0(Penetrate)
G01 X109.121473 Y116.298364 Z-0.125000 F800.000000
G00 Z5.000000

(End cutting path id: line13797)


(Start cutting path id: line13799)
(Change tool to Default tool)

G00 Z5.000000
G00 X111.827003 Y116.890874

G00 Z4.875000 (Fast pre-penetrate)
G01 Z-0.125000 F400.0(Penetrate)
G01 X111.827003 Y116.890874 Z-0.125000 F800.000000
G00 Z5.000000

(End cutting path id: line13799)


(Start cutting path id: line13801)
(Change tool to Default tool)

G00 Z5.000000
G00 X114.439183 Y117.811384

G00 Z4.875000 (Fast pre-penetrate)
G01 Z-0.125000 F400.0(Penetrate)
G01 X114.439183 Y117.811384 Z-0.125000 F800.000000
G00 Z5.000000

(End cutting path id: line13801)


(Start cutting path id: line13803)
(Change tool to Default tool)

G00 Z5.000000
G00 X116.918453 Y119.045904

G00 Z4.875000 (Fast pre-penetrate)
G01 Z-0.125000 F400.0(Penetrate)
G01 X116.918453 Y119.045904 Z-0.125000 F800.000000
G00 Z5.000000

(End cutting path id: line13803)


(Start cutting path id: line13805)
(Change tool to Default tool)

G00 Z5.000000
G00 X119.227213 Y120.575754

G00 Z4.875000 (Fast pre-penetrate)
G01 Z-0.125000 F400.0(Penetrate)
G01 X119.227213 Y120.575754 Z-0.125000 F800.000000
G00 Z5.000000

(End cutting path id: line13805)


(Start cutting path id: line13807)
(Change tool to Default tool)

G00 Z5.000000
G00 X121.330493 Y122.377724

G00 Z4.875000 (Fast pre-penetrate)
G01 Z-0.125000 F400.0(Penetrate)
G01 X121.330493 Y122.377724 Z-0.125000 F800.000000
G00 Z5.000000

(End cutting path id: line13807)


(Start cutting path id: line13809)
(Change tool to Default tool)

G00 Z5.000000
G00 X123.196363 Y124.424484

G00 Z4.875000 (Fast pre-penetrate)
G01 Z-0.125000 F400.0(Penetrate)
G01 X123.196363 Y124.424484 Z-0.125000 F800.000000
G00 Z5.000000

(End cutting path id: line13809)


(Start cutting path id: line13811)
(Change tool to Default tool)

G00 Z5.000000
G00 X124.796583 Y126.685054

G00 Z4.875000 (Fast pre-penetrate)
G01 Z-0.125000 F400.0(Penetrate)
G01 X124.796583 Y126.685054 Z-0.125000 F800.000000
G00 Z5.000000

(End cutting path id: line13811)


(Start cutting path id: line13813)
(Change tool to Default tool)

G00 Z5.000000
G00 X126.106883 Y129.125124

G00 Z4.875000 (Fast pre-penetrate)
G01 Z-0.125000 F400.0(Penetrate)
G01 X126.106883 Y129.125124 Z-0.125000 F800.000000
G00 Z5.000000

(End cutting path id: line13813)


(Start cutting path id: line13815)
(Change tool to Default tool)

G00 Z5.000000
G00 X127.107373 Y131.707734

G00 Z4.875000 (Fast pre-penetrate)
G01 Z-0.125000 F400.0(Penetrate)
G01 X127.107373 Y131.707734 Z-0.125000 F800.000000
G00 Z5.000000

(End cutting path id: line13815)


(Start cutting path id: line13817)
(Change tool to Default tool)

G00 Z5.000000
G00 X127.782943 Y134.393694

G00 Z4.875000 (Fast pre-penetrate)
G01 Z-0.125000 F400.0(Penetrate)
G01 X127.782943 Y134.393694 Z-0.125000 F800.000000
G00 Z5.000000

(End cutting path id: line13817)


(Start cutting path id: line13819)
(Change tool to Default tool)

G00 Z5.000000
G00 X128.123273 Y137.142344

G00 Z4.875000 (Fast pre-penetrate)
G01 Z-0.125000 F400.0(Penetrate)
G01 X128.123273 Y137.142344 Z-0.125000 F800.000000
G00 Z5.000000

(End cutting path id: line13819)


(Start cutting path id: line13821)
(Change tool to Default tool)

G00 Z5.000000
G00 X128.123273 Y139.911944

G00 Z4.875000 (Fast pre-penetrate)
G01 Z-0.125000 F400.0(Penetrate)
G01 X128.123273 Y139.911944 Z-0.125000 F800.000000
G00 Z5.000000

(End cutting path id: line13821)


(Start cutting path id: line13823)
(Change tool to Default tool)

G00 Z5.000000
G00 X127.782943 Y142.660604

G00 Z4.875000 (Fast pre-penetrate)
G01 Z-0.125000 F400.0(Penetrate)
G01 X127.782943 Y142.660604 Z-0.125000 F800.000000
G00 Z5.000000

(End cutting path id: line13823)


(Start cutting path id: line13723)
(Change tool to Default tool)

G00 Z5.000000
G00 X127.107373 Y145.346574

G00 Z4.875000 (Fast pre-penetrate)
G01 Z-0.125000 F400.0(Penetrate)
G01 X127.107373 Y145.346574 Z-0.125000 F800.000000
G00 Z5.000000

(End cutting path id: line13723)


(Start cutting path id: line13557)
(Change tool to Default tool)

G00 Z5.000000
G00 X124.315733 Y145.750174

G00 Z4.875000 (Fast pre-penetrate)
G01 Z-0.125000 F400.0(Penetrate)
G01 X124.315733 Y145.750174 Z-0.125000 F800.000000
G00 Z5.000000

(End cutting path id: line13557)


(Start cutting path id: line13559)
(Change tool to Default tool)

G00 Z5.000000
G00 X125.062043 Y143.404204

G00 Z4.875000 (Fast pre-penetrate)
G01 Z-0.125000 F400.0(Penetrate)
G01 X125.062043 Y143.404204 Z-0.125000 F800.000000
G00 Z5.000000

(End cutting path id: line13559)


(Start cutting path id: line13561)
(Change tool to Default tool)

G00 Z5.000000
G00 X125.514403 Y140.984314

G00 Z4.875000 (Fast pre-penetrate)
G01 Z-0.125000 F400.0(Penetrate)
G01 X125.514403 Y140.984314 Z-0.125000 F800.000000
G00 Z5.000000

(End cutting path id: line13561)


(Start cutting path id: line13563)
(Change tool to Default tool)

G00 Z5.000000
G00 X125.670953 Y138.527144

G00 Z4.875000 (Fast pre-penetrate)
G01 Z-0.125000 F400.0(Penetrate)
G01 X125.670953 Y138.527144 Z-0.125000 F800.000000
G00 Z5.000000

(End cutting path id: line13563)


(Start cutting path id: line13565)
(Change tool to Default tool)

G00 Z5.000000
G00 X125.514403 Y136.069994

G00 Z4.875000 (Fast pre-penetrate)
G01 Z-0.125000 F400.0(Penetrate)
G01 X125.514403 Y136.069994 Z-0.125000 F800.000000
G00 Z5.000000

(End cutting path id: line13565)


(Start cutting path id: line13567)
(Change tool to Default tool)

G00 Z5.000000
G00 X125.062043 Y133.650084

G00 Z4.875000 (Fast pre-penetrate)
G01 Z-0.125000 F400.0(Penetrate)
G01 X125.062043 Y133.650084 Z-0.125000 F800.000000
G00 Z5.000000

(End cutting path id: line13567)


(Start cutting path id: line13569)
(Change tool to Default tool)

G00 Z5.000000
G00 X124.315733 Y131.304134

G00 Z4.875000 (Fast pre-penetrate)
G01 Z-0.125000 F400.0(Penetrate)
G01 X124.315733 Y131.304134 Z-0.125000 F800.000000
G00 Z5.000000

(End cutting path id: line13569)


(Start cutting path id: line13571)
(Change tool to Default tool)

G00 Z5.000000
G00 X123.286793 Y129.067634

G00 Z4.875000 (Fast pre-penetrate)
G01 Z-0.125000 F400.0(Penetrate)
G01 X123.286793 Y129.067634 Z-0.125000 F800.000000
G00 Z5.000000

(End cutting path id: line13571)


(Start cutting path id: line13573)
(Change tool to Default tool)

G00 Z5.000000
G00 X121.990813 Y126.974574

G00 Z4.875000 (Fast pre-penetrate)
G01 Z-0.125000 F400.0(Penetrate)
G01 X121.990813 Y126.974574 Z-0.125000 F800.000000
G00 Z5.000000

(End cutting path id: line13573)


(Start cutting path id: line13575)
(Change tool to Default tool)

G00 Z5.000000
G00 X120.447413 Y125.056604

G00 Z4.875000 (Fast pre-penetrate)
G01 Z-0.125000 F400.0(Penetrate)
G01 X120.447413 Y125.056604 Z-0.125000 F800.000000
G00 Z5.000000

(End cutting path id: line13575)


(Start cutting path id: line13577)
(Change tool to Default tool)

G00 Z5.000000
G00 X118.680053 Y123.342854

G00 Z4.875000 (Fast pre-penetrate)
G01 Z-0.125000 F400.0(Penetrate)
G01 X118.680053 Y123.342854 Z-0.125000 F800.000000
G00 Z5.000000

(End cutting path id: line13577)


(Start cutting path id: line13579)
(Change tool to Default tool)

G00 Z5.000000
G00 X116.715493 Y121.859274

G00 Z4.875000 (Fast pre-penetrate)
G01 Z-0.125000 F400.0(Penetrate)
G01 X116.715493 Y121.859274 Z-0.125000 F800.000000
G00 Z5.000000

(End cutting path id: line13579)


(Start cutting path id: line13581)
(Change tool to Default tool)

G00 Z5.000000
G00 X114.583483 Y120.628354

G00 Z4.875000 (Fast pre-penetrate)
G01 Z-0.125000 F400.0(Penetrate)
G01 X114.583483 Y120.628354 Z-0.125000 F800.000000
G00 Z5.000000

(End cutting path id: line13581)


(Start cutting path id: line13583)
(Change tool to Default tool)

G00 Z5.000000
G00 X112.316373 Y119.668784

G00 Z4.875000 (Fast pre-penetrate)
G01 Z-0.125000 F400.0(Penetrate)
G01 X112.316373 Y119.668784 Z-0.125000 F800.000000
G00 Z5.000000

(End cutting path id: line13583)


(Start cutting path id: line13585)
(Change tool to Default tool)

G00 Z5.000000
G00 X109.948543 Y118.995084

G00 Z4.875000 (Fast pre-penetrate)
G01 Z-0.125000 F400.0(Penetrate)
G01 X109.948543 Y118.995084 Z-0.125000 F800.000000
G00 Z5.000000

(End cutting path id: line13585)


(Start cutting path id: line13587)
(Change tool to Default tool)

G00 Z5.000000
G00 X107.515853 Y118.617444

G00 Z4.875000 (Fast pre-penetrate)
G01 Z-0.125000 F400.0(Penetrate)
G01 X107.515853 Y118.617444 Z-0.125000 F800.000000
G00 Z5.000000

(End cutting path id: line13587)


(Start cutting path id: line13589)
(Change tool to Default tool)

G00 Z5.000000
G00 X105.055203 Y118.541644

G00 Z4.875000 (Fast pre-penetrate)
G01 Z-0.125000 F400.0(Penetrate)
G01 X105.055203 Y118.541644 Z-0.125000 F800.000000
G00 Z5.000000

(End cutting path id: line13589)


(Start cutting path id: line13591)
(Change tool to Default tool)

G00 Z5.000000
G00 X102.603893 Y118.768774

G00 Z4.875000 (Fast pre-penetrate)
G01 Z-0.125000 F400.0(Penetrate)
G01 X102.603893 Y118.768774 Z-0.125000 F800.000000
G00 Z5.000000

(End cutting path id: line13591)


(Start cutting path id: line13593)
(Change tool to Default tool)

G00 Z5.000000
G00 X100.199079 Y119.295434

G00 Z4.875000 (Fast pre-penetrate)
G01 Z-0.125000 F400.0(Penetrate)
G01 X100.199079 Y119.295434 Z-0.125000 F800.000000
G00 Z5.000000

(End cutting path id: line13593)


(Start cutting path id: line13595)
(Change tool to Default tool)

G00 Z5.000000
G00 X97.877211 Y120.113644

G00 Z4.875000 (Fast pre-penetrate)
G01 Z-0.125000 F400.0(Penetrate)
G01 X97.877211 Y120.113644 Z-0.125000 F800.000000
G00 Z5.000000

(End cutting path id: line13595)


(Start cutting path id: line13597)
(Change tool to Default tool)

G00 Z5.000000
G00 X95.673472 Y121.210974

G00 Z4.875000 (Fast pre-penetrate)
G01 Z-0.125000 F400.0(Penetrate)
G01 X95.673472 Y121.210974 Z-0.125000 F800.000000
G00 Z5.000000

(End cutting path id: line13597)


(Start cutting path id: line13599)
(Change tool to Default tool)

G00 Z5.000000
G00 X93.621282 Y122.570794

G00 Z4.875000 (Fast pre-penetrate)
G01 Z-0.125000 F400.0(Penetrate)
G01 X93.621282 Y122.570794 Z-0.125000 F800.000000
G00 Z5.000000

(End cutting path id: line13599)


(Start cutting path id: line13601)
(Change tool to Default tool)

G00 Z5.000000
G00 X91.751762 Y124.172504

G00 Z4.875000 (Fast pre-penetrate)
G01 Z-0.125000 F400.0(Penetrate)
G01 X91.751762 Y124.172504 Z-0.125000 F800.000000
G00 Z5.000000

(End cutting path id: line13601)


(Start cutting path id: line13603)
(Change tool to Default tool)

G00 Z5.000000
G00 X90.093247 Y125.991804

G00 Z4.875000 (Fast pre-penetrate)
G01 Z-0.125000 F400.0(Penetrate)
G01 X90.093247 Y125.991804 Z-0.125000 F800.000000
G00 Z5.000000

(End cutting path id: line13603)


(Start cutting path id: line13605)
(Change tool to Default tool)

G00 Z5.000000
G00 X88.670876 Y128.001164

G00 Z4.875000 (Fast pre-penetrate)
G01 Z-0.125000 F400.0(Penetrate)
G01 X88.670876 Y128.001164 Z-0.125000 F800.000000
G00 Z5.000000

(End cutting path id: line13605)


(Start cutting path id: line13607)
(Change tool to Default tool)

G00 Z5.000000
G00 X87.506204 Y130.170054

G00 Z4.875000 (Fast pre-penetrate)
G01 Z-0.125000 F400.0(Penetrate)
G01 X87.506204 Y130.170054 Z-0.125000 F800.000000
G00 Z5.000000

(End cutting path id: line13607)


(Start cutting path id: line13609)
(Change tool to Default tool)

G00 Z5.000000
G00 X86.616884 Y132.465634

G00 Z4.875000 (Fast pre-penetrate)
G01 Z-0.125000 F400.0(Penetrate)
G01 X86.616884 Y132.465634 Z-0.125000 F800.000000
G00 Z5.000000

(End cutting path id: line13609)


(Start cutting path id: line13611)
(Change tool to Default tool)

G00 Z5.000000
G00 X86.016412 Y134.853064

G00 Z4.875000 (Fast pre-penetrate)
G01 Z-0.125000 F400.0(Penetrate)
G01 X86.016412 Y134.853064 Z-0.125000 F800.000000
G00 Z5.000000

(End cutting path id: line13611)


(Start cutting path id: line13613)
(Change tool to Default tool)

G00 Z5.000000
G00 X85.713887 Y137.296234

G00 Z4.875000 (Fast pre-penetrate)
G01 Z-0.125000 F400.0(Penetrate)
G01 X85.713887 Y137.296234 Z-0.125000 F800.000000
G00 Z5.000000

(End cutting path id: line13613)


(Start cutting path id: line13615)
(Change tool to Default tool)

G00 Z5.000000
G00 X85.713887 Y139.758064

G00 Z4.875000 (Fast pre-penetrate)
G01 Z-0.125000 F400.0(Penetrate)
G01 X85.713887 Y139.758064 Z-0.125000 F800.000000
G00 Z5.000000

(End cutting path id: line13615)


(Start cutting path id: line13617)
(Change tool to Default tool)

G00 Z5.000000
G00 X86.016412 Y142.201224

G00 Z4.875000 (Fast pre-penetrate)
G01 Z-0.125000 F400.0(Penetrate)
G01 X86.016412 Y142.201224 Z-0.125000 F800.000000
G00 Z5.000000

(End cutting path id: line13617)


(Start cutting path id: line13619)
(Change tool to Default tool)

G00 Z5.000000
G00 X86.616884 Y144.588684

G00 Z4.875000 (Fast pre-penetrate)
G01 Z-0.125000 F400.0(Penetrate)
G01 X86.616884 Y144.588684 Z-0.125000 F800.000000
G00 Z5.000000

(End cutting path id: line13619)


(Start cutting path id: line13621)
(Change tool to Default tool)

G00 Z5.000000
G00 X87.506204 Y146.884264

G00 Z4.875000 (Fast pre-penetrate)
G01 Z-0.125000 F400.0(Penetrate)
G01 X87.506204 Y146.884264 Z-0.125000 F800.000000
G00 Z5.000000

(End cutting path id: line13621)


(Start cutting path id: line13623)
(Change tool to Default tool)

G00 Z5.000000
G00 X88.670876 Y149.053154

G00 Z4.875000 (Fast pre-penetrate)
G01 Z-0.125000 F400.0(Penetrate)
G01 X88.670876 Y149.053154 Z-0.125000 F800.000000
G00 Z5.000000

(End cutting path id: line13623)


(Start cutting path id: line13625)
(Change tool to Default tool)

G00 Z5.000000
G00 X90.093247 Y151.062494

G00 Z4.875000 (Fast pre-penetrate)
G01 Z-0.125000 F400.0(Penetrate)
G01 X90.093247 Y151.062494 Z-0.125000 F800.000000
G00 Z5.000000

(End cutting path id: line13625)


(Start cutting path id: line13627)
(Change tool to Default tool)

G00 Z5.000000
G00 X91.751762 Y152.881794

G00 Z4.875000 (Fast pre-penetrate)
G01 Z-0.125000 F400.0(Penetrate)
G01 X91.751762 Y152.881794 Z-0.125000 F800.000000
G00 Z5.000000

(End cutting path id: line13627)


(Start cutting path id: line13629)
(Change tool to Default tool)

G00 Z5.000000
G00 X93.621282 Y154.483504

G00 Z4.875000 (Fast pre-penetrate)
G01 Z-0.125000 F400.0(Penetrate)
G01 X93.621282 Y154.483504 Z-0.125000 F800.000000
G00 Z5.000000

(End cutting path id: line13629)


(Start cutting path id: line13631)
(Change tool to Default tool)

G00 Z5.000000
G00 X95.673472 Y155.843334

G00 Z4.875000 (Fast pre-penetrate)
G01 Z-0.125000 F400.0(Penetrate)
G01 X95.673472 Y155.843334 Z-0.125000 F800.000000
G00 Z5.000000

(End cutting path id: line13631)


(Start cutting path id: line13633)
(Change tool to Default tool)

G00 Z5.000000
G00 X97.877211 Y156.940674

G00 Z4.875000 (Fast pre-penetrate)
G01 Z-0.125000 F400.0(Penetrate)
G01 X97.877211 Y156.940674 Z-0.125000 F800.000000
G00 Z5.000000

(End cutting path id: line13633)


(Start cutting path id: line13635)
(Change tool to Default tool)

G00 Z5.000000
G00 X100.199079 Y157.758874

G00 Z4.875000 (Fast pre-penetrate)
G01 Z-0.125000 F400.0(Penetrate)
G01 X100.199079 Y157.758874 Z-0.125000 F800.000000
G00 Z5.000000

(End cutting path id: line13635)


(Start cutting path id: line13637)
(Change tool to Default tool)

G00 Z5.000000
G00 X102.603893 Y158.285514

G00 Z4.875000 (Fast pre-penetrate)
G01 Z-0.125000 F400.0(Penetrate)
G01 X102.603893 Y158.285514 Z-0.125000 F800.000000
G00 Z5.000000

(End cutting path id: line13637)


(Start cutting path id: line13639)
(Change tool to Default tool)

G00 Z5.000000
G00 X105.055203 Y158.512664

G00 Z4.875000 (Fast pre-penetrate)
G01 Z-0.125000 F400.0(Penetrate)
G01 X105.055203 Y158.512664 Z-0.125000 F800.000000
G00 Z5.000000

(End cutting path id: line13639)


(Start cutting path id: line13641)
(Change tool to Default tool)

G00 Z5.000000
G00 X107.515853 Y158.436864

G00 Z4.875000 (Fast pre-penetrate)
G01 Z-0.125000 F400.0(Penetrate)
G01 X107.515853 Y158.436864 Z-0.125000 F800.000000
G00 Z5.000000

(End cutting path id: line13641)


(Start cutting path id: line13643)
(Change tool to Default tool)

G00 Z5.000000
G00 X109.948543 Y158.059224

G00 Z4.875000 (Fast pre-penetrate)
G01 Z-0.125000 F400.0(Penetrate)
G01 X109.948543 Y158.059224 Z-0.125000 F800.000000
G00 Z5.000000

(End cutting path id: line13643)


(Start cutting path id: line13645)
(Change tool to Default tool)

G00 Z5.000000
G00 X112.316373 Y157.385504

G00 Z4.875000 (Fast pre-penetrate)
G01 Z-0.125000 F400.0(Penetrate)
G01 X112.316373 Y157.385504 Z-0.125000 F800.000000
G00 Z5.000000

(End cutting path id: line13645)


(Start cutting path id: line13647)
(Change tool to Default tool)

G00 Z5.000000
G00 X114.583483 Y156.425944

G00 Z4.875000 (Fast pre-penetrate)
G01 Z-0.125000 F400.0(Penetrate)
G01 X114.583483 Y156.425944 Z-0.125000 F800.000000
G00 Z5.000000

(End cutting path id: line13647)


(Start cutting path id: line13649)
(Change tool to Default tool)

G00 Z5.000000
G00 X116.715493 Y155.195024

G00 Z4.875000 (Fast pre-penetrate)
G01 Z-0.125000 F400.0(Penetrate)
G01 X116.715493 Y155.195024 Z-0.125000 F800.000000
G00 Z5.000000

(End cutting path id: line13649)


(Start cutting path id: line13651)
(Change tool to Default tool)

G00 Z5.000000
G00 X118.680053 Y153.711464

G00 Z4.875000 (Fast pre-penetrate)
G01 Z-0.125000 F400.0(Penetrate)
G01 X118.680053 Y153.711464 Z-0.125000 F800.000000
G00 Z5.000000

(End cutting path id: line13651)


(Start cutting path id: line13653)
(Change tool to Default tool)

G00 Z5.000000
G00 X120.447413 Y151.997694

G00 Z4.875000 (Fast pre-penetrate)
G01 Z-0.125000 F400.0(Penetrate)
G01 X120.447413 Y151.997694 Z-0.125000 F800.000000
G00 Z5.000000

(End cutting path id: line13653)


(Start cutting path id: line13655)
(Change tool to Default tool)

G00 Z5.000000
G00 X121.990813 Y150.079734

G00 Z4.875000 (Fast pre-penetrate)
G01 Z-0.125000 F400.0(Penetrate)
G01 X121.990813 Y150.079734 Z-0.125000 F800.000000
G00 Z5.000000

(End cutting path id: line13655)


(Start cutting path id: line13555)
(Change tool to Default tool)

G00 Z5.000000
G00 X123.286793 Y147.986664

G00 Z4.875000 (Fast pre-penetrate)
G01 Z-0.125000 F400.0(Penetrate)
G01 X123.286793 Y147.986664 Z-0.125000 F800.000000
G00 Z5.000000

(End cutting path id: line13555)


(Start cutting path id: line13553)
(Change tool to Default tool)

G00 Z5.000000
G00 X121.221113 Y146.543804

G00 Z4.875000 (Fast pre-penetrate)
G01 Z-0.125000 F400.0(Penetrate)
G01 X121.221113 Y146.543804 Z-0.125000 F800.000000
G00 Z5.000000

(End cutting path id: line13553)


(Start cutting path id: line13549)
(Change tool to Default tool)

G00 Z5.000000
G00 X119.591833 Y144.100224

G00 Z4.875000 (Fast pre-penetrate)
G01 Z-0.125000 F400.0(Penetrate)
G01 X119.591833 Y144.100224 Z-0.125000 F800.000000
G00 Z5.000000

(End cutting path id: line13549)


(Start cutting path id: line13551)
(Change tool to Default tool)

G00 Z5.000000
G00 X116.928563 Y143.948524

G00 Z4.875000 (Fast pre-penetrate)
G01 Z-0.125000 F400.0(Penetrate)
G01 X116.928563 Y143.948524 Z-0.125000 F800.000000
G00 Z5.000000

(End cutting path id: line13551)


(Start cutting path id: line13445)
(Change tool to Default tool)

G00 Z5.000000
G00 X115.221893 Y141.473234

G00 Z4.875000 (Fast pre-penetrate)
G01 Z-0.125000 F400.0(Penetrate)
G01 X115.221893 Y141.473234 Z-0.125000 F800.000000
G00 Z5.000000

(End cutting path id: line13445)


(Start cutting path id: line13405)
(Change tool to Default tool)

G00 Z5.000000
G00 X115.660953 Y138.527144

G00 Z4.875000 (Fast pre-penetrate)
G01 Z-0.125000 F400.0(Penetrate)
G01 X115.660953 Y138.527144 Z-0.125000 F800.000000
G00 Z5.000000

(End cutting path id: line13405)


(Start cutting path id: line13407)
(Change tool to Default tool)

G00 Z5.000000
G00 X115.221893 Y135.581074

G00 Z4.875000 (Fast pre-penetrate)
G01 Z-0.125000 F400.0(Penetrate)
G01 X115.221893 Y135.581074 Z-0.125000 F800.000000
G00 Z5.000000

(End cutting path id: line13407)


(Start cutting path id: line13409)
(Change tool to Default tool)

G00 Z5.000000
G00 X113.929193 Y132.896754

G00 Z4.875000 (Fast pre-penetrate)
G01 Z-0.125000 F400.0(Penetrate)
G01 X113.929193 Y132.896754 Z-0.125000 F800.000000
G00 Z5.000000

(End cutting path id: line13409)


(Start cutting path id: line13411)
(Change tool to Default tool)

G00 Z5.000000
G00 X111.902723 Y130.712734

G00 Z4.875000 (Fast pre-penetrate)
G01 Z-0.125000 F400.0(Penetrate)
G01 X111.902723 Y130.712734 Z-0.125000 F800.000000
G00 Z5.000000

(End cutting path id: line13411)


(Start cutting path id: line13413)
(Change tool to Default tool)

G00 Z5.000000
G00 X109.322533 Y129.223084

G00 Z4.875000 (Fast pre-penetrate)
G01 Z-0.125000 F400.0(Penetrate)
G01 X109.322533 Y129.223084 Z-0.125000 F800.000000
G00 Z5.000000

(End cutting path id: line13413)


(Start cutting path id: line13415)
(Change tool to Default tool)

G00 Z5.000000
G00 X106.417883 Y128.560104

G00 Z4.875000 (Fast pre-penetrate)
G01 Z-0.125000 F400.0(Penetrate)
G01 X106.417883 Y128.560104 Z-0.125000 F800.000000
G00 Z5.000000

(End cutting path id: line13415)


(Start cutting path id: line13417)
(Change tool to Default tool)

G00 Z5.000000
G00 X103.446853 Y128.782764

G00 Z4.875000 (Fast pre-penetrate)
G01 Z-0.125000 F400.0(Penetrate)
G01 X103.446853 Y128.782764 Z-0.125000 F800.000000
G00 Z5.000000

(End cutting path id: line13417)


(Start cutting path id: line13419)
(Change tool to Default tool)

G00 Z5.000000
G00 X100.673436 Y129.871234

G00 Z4.875000 (Fast pre-penetrate)
G01 Z-0.125000 F400.0(Penetrate)
G01 X100.673436 Y129.871234 Z-0.125000 F800.000000
G00 Z5.000000

(End cutting path id: line13419)


(Start cutting path id: line13421)
(Change tool to Default tool)

G00 Z5.000000
G00 X98.344108 Y131.728804

G00 Z4.875000 (Fast pre-penetrate)
G01 Z-0.125000 F400.0(Penetrate)
G01 X98.344108 Y131.728804 Z-0.125000 F800.000000
G00 Z5.000000

(End cutting path id: line13421)


(Start cutting path id: line13423)
(Change tool to Default tool)

G00 Z5.000000
G00 X96.665782 Y134.190474

G00 Z4.875000 (Fast pre-penetrate)
G01 Z-0.125000 F400.0(Penetrate)
G01 X96.665782 Y134.190474 Z-0.125000 F800.000000
G00 Z5.000000

(End cutting path id: line13423)


(Start cutting path id: line13425)
(Change tool to Default tool)

G00 Z5.000000
G00 X95.787612 Y137.037464

G00 Z4.875000 (Fast pre-penetrate)
G01 Z-0.125000 F400.0(Penetrate)
G01 X95.787612 Y137.037464 Z-0.125000 F800.000000
G00 Z5.000000

(End cutting path id: line13425)


(Start cutting path id: line13427)
(Change tool to Default tool)

G00 Z5.000000
G00 X95.787612 Y140.016834

G00 Z4.875000 (Fast pre-penetrate)
G01 Z-0.125000 F400.0(Penetrate)
G01 X95.787612 Y140.016834 Z-0.125000 F800.000000
G00 Z5.000000

(End cutting path id: line13427)


(Start cutting path id: line13429)
(Change tool to Default tool)

G00 Z5.000000
G00 X96.665782 Y142.863834

G00 Z4.875000 (Fast pre-penetrate)
G01 Z-0.125000 F400.0(Penetrate)
G01 X96.665782 Y142.863834 Z-0.125000 F800.000000
G00 Z5.000000

(End cutting path id: line13429)


(Start cutting path id: line13431)
(Change tool to Default tool)

G00 Z5.000000
G00 X98.344108 Y145.325484

G00 Z4.875000 (Fast pre-penetrate)
G01 Z-0.125000 F400.0(Penetrate)
G01 X98.344108 Y145.325484 Z-0.125000 F800.000000
G00 Z5.000000

(End cutting path id: line13431)


(Start cutting path id: line13433)
(Change tool to Default tool)

G00 Z5.000000
G00 X100.673436 Y147.183074

G00 Z4.875000 (Fast pre-penetrate)
G01 Z-0.125000 F400.0(Penetrate)
G01 X100.673436 Y147.183074 Z-0.125000 F800.000000
G00 Z5.000000

(End cutting path id: line13433)


(Start cutting path id: line13435)
(Change tool to Default tool)

G00 Z5.000000
G00 X103.446853 Y148.271564

G00 Z4.875000 (Fast pre-penetrate)
G01 Z-0.125000 F400.0(Penetrate)
G01 X103.446853 Y148.271564 Z-0.125000 F800.000000
G00 Z5.000000

(End cutting path id: line13435)


(Start cutting path id: line13437)
(Change tool to Default tool)

G00 Z5.000000
G00 X106.417883 Y148.494194

G00 Z4.875000 (Fast pre-penetrate)
G01 Z-0.125000 F400.0(Penetrate)
G01 X106.417883 Y148.494194 Z-0.125000 F800.000000
G00 Z5.000000

(End cutting path id: line13437)


(Start cutting path id: line13439)
(Change tool to Default tool)

G00 Z5.000000
G00 X109.322533 Y147.831234

G00 Z4.875000 (Fast pre-penetrate)
G01 Z-0.125000 F400.0(Penetrate)
G01 X109.322533 Y147.831234 Z-0.125000 F800.000000
G00 Z5.000000

(End cutting path id: line13439)


(Start cutting path id: line13441)
(Change tool to Default tool)

G00 Z5.000000
G00 X111.902723 Y146.341564

G00 Z4.875000 (Fast pre-penetrate)
G01 Z-0.125000 F400.0(Penetrate)
G01 X111.902723 Y146.341564 Z-0.125000 F800.000000
G00 Z5.000000

(End cutting path id: line13441)


(Start cutting path id: line13443)
(Change tool to Default tool)

G00 Z5.000000
G00 X113.929193 Y144.157534

G00 Z4.875000 (Fast pre-penetrate)
G01 Z-0.125000 F400.0(Penetrate)
G01 X113.929193 Y144.157534 Z-0.125000 F800.000000
G00 Z5.000000

(End cutting path id: line13443)


(Start cutting path id: line13545)
(Change tool to Default tool)

G00 Z5.000000
G00 X114.830423 Y147.025914

G00 Z4.875000 (Fast pre-penetrate)
G01 Z-0.125000 F400.0(Penetrate)
G01 X114.830423 Y147.025914 Z-0.125000 F800.000000
G00 Z5.000000

(End cutting path id: line13545)


(Start cutting path id: line13543)
(Change tool to Default tool)

G00 Z5.000000
G00 X116.523333 Y148.874864

G00 Z4.875000 (Fast pre-penetrate)
G01 Z-0.125000 F400.0(Penetrate)
G01 X116.523333 Y148.874864 Z-0.125000 F800.000000
G00 Z5.000000

(End cutting path id: line13543)


(Start cutting path id: line13547)
(Change tool to Default tool)

G00 Z5.000000
G00 X118.285533 Y146.634064

G00 Z4.875000 (Fast pre-penetrate)
G01 Z-0.125000 F400.0(Penetrate)
G01 X118.285533 Y146.634064 Z-0.125000 F800.000000
G00 Z5.000000

(End cutting path id: line13547)


(Start cutting path id: line13657)
(Change tool to Default tool)

G00 Z5.000000
G00 X119.422953 Y149.341824

G00 Z4.875000 (Fast pre-penetrate)
G01 Z-0.125000 F400.0(Penetrate)
G01 X119.422953 Y149.341824 Z-0.125000 F800.000000
G00 Z5.000000

(End cutting path id: line13657)


(Start cutting path id: line13659)
(Change tool to Default tool)

G00 Z5.000000
G00 X117.127743 Y151.748984

G00 Z4.875000 (Fast pre-penetrate)
G01 Z-0.125000 F400.0(Penetrate)
G01 X117.127743 Y151.748984 Z-0.125000 F800.000000
G00 Z5.000000

(End cutting path id: line13659)


(Start cutting path id: line13541)
(Change tool to Default tool)

G00 Z5.000000
G00 X114.368913 Y150.741714

G00 Z4.875000 (Fast pre-penetrate)
G01 Z-0.125000 F400.0(Penetrate)
G01 X114.368913 Y150.741714 Z-0.125000 F800.000000
G00 Z5.000000

(End cutting path id: line13541)


(Start cutting path id: line13537)
(Change tool to Default tool)

G00 Z5.000000
G00 X111.918443 Y149.348124

G00 Z4.875000 (Fast pre-penetrate)
G01 Z-0.125000 F400.0(Penetrate)
G01 X111.918443 Y149.348124 Z-0.125000 F800.000000
G00 Z5.000000

(End cutting path id: line13537)


(Start cutting path id: line13539)
(Change tool to Default tool)

G00 Z5.000000
G00 X111.900103 Y152.167074

G00 Z4.875000 (Fast pre-penetrate)
G01 Z-0.125000 F400.0(Penetrate)
G01 X111.900103 Y152.167074 Z-0.125000 F800.000000
G00 Z5.000000

(End cutting path id: line13539)


(Start cutting path id: line13533)
(Change tool to Default tool)

G00 Z5.000000
G00 X109.206143 Y153.099454

G00 Z4.875000 (Fast pre-penetrate)
G01 Z-0.125000 F400.0(Penetrate)
G01 X109.206143 Y153.099454 Z-0.125000 F800.000000
G00 Z5.000000

(End cutting path id: line13533)


(Start cutting path id: line13535)
(Change tool to Default tool)

G00 Z5.000000
G00 X108.451343 Y150.708864

G00 Z4.875000 (Fast pre-penetrate)
G01 Z-0.125000 F400.0(Penetrate)
G01 X108.451343 Y150.708864 Z-0.125000 F800.000000
G00 Z5.000000

(End cutting path id: line13535)


(Start cutting path id: line13531)
(Change tool to Default tool)

G00 Z5.000000
G00 X106.384443 Y153.505154

G00 Z4.875000 (Fast pre-penetrate)
G01 Z-0.125000 F400.0(Penetrate)
G01 X106.384443 Y153.505154 Z-0.125000 F800.000000
G00 Z5.000000

(End cutting path id: line13531)


(Start cutting path id: line13529)
(Change tool to Default tool)

G00 Z5.000000
G00 X103.536943 Y153.369534

G00 Z4.875000 (Fast pre-penetrate)
G01 Z-0.125000 F400.0(Penetrate)
G01 X103.536943 Y153.369534 Z-0.125000 F800.000000
G00 Z5.000000

(End cutting path id: line13529)


(Start cutting path id: line13527)
(Change tool to Default tool)

G00 Z5.000000
G00 X104.737203 Y150.987204

G00 Z4.875000 (Fast pre-penetrate)
G01 Z-0.125000 F400.0(Penetrate)
G01 X104.737203 Y150.987204 Z-0.125000 F800.000000
G00 Z5.000000

(End cutting path id: line13527)


(Start cutting path id: line13525)
(Change tool to Default tool)

G00 Z5.000000
G00 X101.106013 Y150.158414

G00 Z4.875000 (Fast pre-penetrate)
G01 Z-0.125000 F400.0(Penetrate)
G01 X101.106013 Y150.158414 Z-0.125000 F800.000000
G00 Z5.000000

(End cutting path id: line13525)


(Start cutting path id: line13523)
(Change tool to Default tool)

G00 Z5.000000
G00 X100.766576 Y152.697434

G00 Z4.875000 (Fast pre-penetrate)
G01 Z-0.125000 F400.0(Penetrate)
G01 X100.766576 Y152.697434 Z-0.125000 F800.000000
G00 Z5.000000

(End cutting path id: line13523)


(Start cutting path id: line13521)
(Change tool to Default tool)

G00 Z5.000000
G00 X98.173461 Y151.513194

G00 Z4.875000 (Fast pre-penetrate)
G01 Z-0.125000 F400.0(Penetrate)
G01 X98.173461 Y151.513194 Z-0.125000 F800.000000
G00 Z5.000000

(End cutting path id: line13521)


(Start cutting path id: line13519)
(Change tool to Default tool)

G00 Z5.000000
G00 X95.851322 Y149.859624

G00 Z4.875000 (Fast pre-penetrate)
G01 Z-0.125000 F400.0(Penetrate)
G01 X95.851322 Y149.859624 Z-0.125000 F800.000000
G00 Z5.000000

(End cutting path id: line13519)


(Start cutting path id: line13517)
(Change tool to Default tool)

G00 Z5.000000
G00 X97.880461 Y148.296124

G00 Z4.875000 (Fast pre-penetrate)
G01 Z-0.125000 F400.0(Penetrate)
G01 X97.880461 Y148.296124 Z-0.125000 F800.000000
G00 Z5.000000

(End cutting path id: line13517)


(Start cutting path id: line13515)
(Change tool to Default tool)

G00 Z5.000000
G00 X95.347102 Y145.565834

G00 Z4.875000 (Fast pre-penetrate)
G01 Z-0.125000 F400.0(Penetrate)
G01 X95.347102 Y145.565834 Z-0.125000 F800.000000
G00 Z5.000000

(End cutting path id: line13515)


(Start cutting path id: line13513)
(Change tool to Default tool)

G00 Z5.000000
G00 X93.884092 Y147.796464

G00 Z4.875000 (Fast pre-penetrate)
G01 Z-0.125000 F400.0(Penetrate)
G01 X93.884092 Y147.796464 Z-0.125000 F800.000000
G00 Z5.000000

(End cutting path id: line13513)


(Start cutting path id: line13511)
(Change tool to Default tool)

G00 Z5.000000
G00 X92.342892 Y145.398234

G00 Z4.875000 (Fast pre-penetrate)
G01 Z-0.125000 F400.0(Penetrate)
G01 X92.342892 Y145.398234 Z-0.125000 F800.000000
G00 Z5.000000

(End cutting path id: line13511)


(Start cutting path id: line13507)
(Change tool to Default tool)

G00 Z5.000000
G00 X91.283372 Y142.751724

G00 Z4.875000 (Fast pre-penetrate)
G01 Z-0.125000 F400.0(Penetrate)
G01 X91.283372 Y142.751724 Z-0.125000 F800.000000
G00 Z5.000000

(End cutting path id: line13507)


(Start cutting path id: line13509)
(Change tool to Default tool)

G00 Z5.000000
G00 X93.731082 Y142.210124

G00 Z4.875000 (Fast pre-penetrate)
G01 Z-0.125000 F400.0(Penetrate)
G01 X93.731082 Y142.210124 Z-0.125000 F800.000000
G00 Z5.000000

(End cutting path id: line13509)


(Start cutting path id: line13501)
(Change tool to Default tool)

G00 Z5.000000
G00 X93.180962 Y138.527144

G00 Z4.875000 (Fast pre-penetrate)
G01 Z-0.125000 F400.0(Penetrate)
G01 X93.180962 Y138.527144 Z-0.125000 F800.000000
G00 Z5.000000

(End cutting path id: line13501)


(Start cutting path id: line13503)
(Change tool to Default tool)

G00 Z5.000000
G00 X90.743860 Y137.101784

G00 Z4.875000 (Fast pre-penetrate)
G01 Z-0.125000 F400.0(Penetrate)
G01 X90.743860 Y137.101784 Z-0.125000 F800.000000
G00 Z5.000000

(End cutting path id: line13503)


(Start cutting path id: line13505)
(Change tool to Default tool)

G00 Z5.000000
G00 X90.743860 Y139.952514

G00 Z4.875000 (Fast pre-penetrate)
G01 Z-0.125000 F400.0(Penetrate)
G01 X90.743860 Y139.952514 Z-0.125000 F800.000000
G00 Z5.000000

(End cutting path id: line13505)


(Start cutting path id: line13681)
(Change tool to Default tool)

G00 Z5.000000
G00 X88.492118 Y141.838084

G00 Z4.875000 (Fast pre-penetrate)
G01 Z-0.125000 F400.0(Penetrate)
G01 X88.492118 Y141.838084 Z-0.125000 F800.000000
G00 Z5.000000

(End cutting path id: line13681)


(Start cutting path id: line13679)
(Change tool to Default tool)

G00 Z5.000000
G00 X89.429172 Y145.029394

G00 Z4.875000 (Fast pre-penetrate)
G01 Z-0.125000 F400.0(Penetrate)
G01 X89.429172 Y145.029394 Z-0.125000 F800.000000
G00 Z5.000000

(End cutting path id: line13679)


(Start cutting path id: line13677)
(Change tool to Default tool)

G00 Z5.000000
G00 X90.953248 Y147.985664

G00 Z4.875000 (Fast pre-penetrate)
G01 Z-0.125000 F400.0(Penetrate)
G01 X90.953248 Y147.985664 Z-0.125000 F800.000000
G00 Z5.000000

(End cutting path id: line13677)


(Start cutting path id: line13675)
(Change tool to Default tool)

G00 Z5.000000
G00 X93.009242 Y150.600084

G00 Z4.875000 (Fast pre-penetrate)
G01 Z-0.125000 F400.0(Penetrate)
G01 X93.009242 Y150.600084 Z-0.125000 F800.000000
G00 Z5.000000

(End cutting path id: line13675)


(Start cutting path id: line13673)
(Change tool to Default tool)

G00 Z5.000000
G00 X95.522862 Y152.778164

G00 Z4.875000 (Fast pre-penetrate)
G01 Z-0.125000 F400.0(Penetrate)
G01 X95.522862 Y152.778164 Z-0.125000 F800.000000
G00 Z5.000000

(End cutting path id: line13673)


(Start cutting path id: line13671)
(Change tool to Default tool)

G00 Z5.000000
G00 X98.403278 Y154.441144

G00 Z4.875000 (Fast pre-penetrate)
G01 Z-0.125000 F400.0(Penetrate)
G01 X98.403278 Y154.441144 Z-0.125000 F800.000000
G00 Z5.000000

(End cutting path id: line13671)


(Start cutting path id: line13669)
(Change tool to Default tool)

G00 Z5.000000
G00 X101.546353 Y155.528984

G00 Z4.875000 (Fast pre-penetrate)
G01 Z-0.125000 F400.0(Penetrate)
G01 X101.546353 Y155.528984 Z-0.125000 F800.000000
G00 Z5.000000

(End cutting path id: line13669)


(Start cutting path id: line13667)
(Change tool to Default tool)

G00 Z5.000000
G00 X104.838503 Y156.002324

G00 Z4.875000 (Fast pre-penetrate)
G01 Z-0.125000 F400.0(Penetrate)
G01 X104.838503 Y156.002324 Z-0.125000 F800.000000
G00 Z5.000000

(End cutting path id: line13667)


(Start cutting path id: line13665)
(Change tool to Default tool)

G00 Z5.000000
G00 X108.160753 Y155.844084

G00 Z4.875000 (Fast pre-penetrate)
G01 Z-0.125000 F400.0(Penetrate)
G01 X108.160753 Y155.844084 Z-0.125000 F800.000000
G00 Z5.000000

(End cutting path id: line13665)


(Start cutting path id: line13663)
(Change tool to Default tool)

G00 Z5.000000
G00 X111.393003 Y155.059924

G00 Z4.875000 (Fast pre-penetrate)
G01 Z-0.125000 F400.0(Penetrate)
G01 X111.393003 Y155.059924 Z-0.125000 F800.000000
G00 Z5.000000

(End cutting path id: line13663)


(Start cutting path id: line13661)
(Change tool to Default tool)

G00 Z5.000000
G00 X114.418433 Y153.678254

G00 Z4.875000 (Fast pre-penetrate)
G01 Z-0.125000 F400.0(Penetrate)
G01 X114.418433 Y153.678254 Z-0.125000 F800.000000
G00 Z5.000000

(End cutting path id: line13661)


(Start cutting path id: line22275)
(Change tool to Default tool)

G00 Z5.000000
G00 X116.812173 Y160.901754

G00 Z4.875000 (Fast pre-penetrate)
G01 Z-0.125000 F400.0(Penetrate)
G01 X116.812173 Y160.901754 Z-0.125000 F800.000000
G00 Z5.000000

(End cutting path id: line22275)


(Start cutting path id: line22273)
(Change tool to Default tool)

G00 Z5.000000
G00 X119.418453 Y162.338514

G00 Z4.875000 (Fast pre-penetrate)
G01 Z-0.125000 F400.0(Penetrate)
G01 X119.418453 Y162.338514 Z-0.125000 F800.000000
G00 Z5.000000

(End cutting path id: line22273)


(Start cutting path id: line13965)
(Change tool to Default tool)

G00 Z5.000000
G00 X121.011453 Y164.302514

G00 Z4.875000 (Fast pre-penetrate)
G01 Z-0.125000 F400.0(Penetrate)
G01 X121.011453 Y164.302514 Z-0.125000 F800.000000
G00 Z5.000000

(End cutting path id: line13965)


(Start cutting path id: line13963)
(Change tool to Default tool)

G00 Z5.000000
G00 X118.915113 Y165.439824

G00 Z4.875000 (Fast pre-penetrate)
G01 Z-0.125000 F400.0(Penetrate)
G01 X118.915113 Y165.439824 Z-0.125000 F800.000000
G00 Z5.000000

(End cutting path id: line13963)


(Start cutting path id: line13961)
(Change tool to Default tool)

G00 Z5.000000
G00 X116.735023 Y166.407014

G00 Z4.875000 (Fast pre-penetrate)
G01 Z-0.125000 F400.0(Penetrate)
G01 X116.735023 Y166.407014 Z-0.125000 F800.000000
G00 Z5.000000

(End cutting path id: line13961)


(Start cutting path id: line13959)
(Change tool to Default tool)

G00 Z5.000000
G00 X114.484983 Y167.197924

G00 Z4.875000 (Fast pre-penetrate)
G01 Z-0.125000 F400.0(Penetrate)
G01 X114.484983 Y167.197924 Z-0.125000 F800.000000
G00 Z5.000000

(End cutting path id: line13959)


(Start cutting path id: line13957)
(Change tool to Default tool)

G00 Z5.000000
G00 X112.179213 Y167.807554

G00 Z4.875000 (Fast pre-penetrate)
G01 Z-0.125000 F400.0(Penetrate)
G01 X112.179213 Y167.807554 Z-0.125000 F800.000000
G00 Z5.000000

(End cutting path id: line13957)


(Start cutting path id: line13955)
(Change tool to Default tool)

G00 Z5.000000
G00 X109.832303 Y168.232074

G00 Z4.875000 (Fast pre-penetrate)
G01 Z-0.125000 F400.0(Penetrate)
G01 X109.832303 Y168.232074 Z-0.125000 F800.000000
G00 Z5.000000

(End cutting path id: line13955)


(Start cutting path id: line13953)
(Change tool to Default tool)

G00 Z5.000000
G00 X107.459103 Y168.468804

G00 Z4.875000 (Fast pre-penetrate)
G01 Z-0.125000 F400.0(Penetrate)
G01 X107.459103 Y168.468804 Z-0.125000 F800.000000
G00 Z5.000000

(End cutting path id: line13953)


(Start cutting path id: line13951)
(Change tool to Default tool)

G00 Z5.000000
G00 X105.074573 Y168.516214

G00 Z4.875000 (Fast pre-penetrate)
G01 Z-0.125000 F400.0(Penetrate)
G01 X105.074573 Y168.516214 Z-0.125000 F800.000000
G00 Z5.000000

(End cutting path id: line13951)


(Start cutting path id: line13949)
(Change tool to Default tool)

G00 Z5.000000
G00 X102.693823 Y168.374024

G00 Z4.875000 (Fast pre-penetrate)
G01 Z-0.125000 F400.0(Penetrate)
G01 X102.693823 Y168.374024 Z-0.125000 F800.000000
G00 Z5.000000

(End cutting path id: line13949)


(Start cutting path id: line13947)
(Change tool to Default tool)

G00 Z5.000000
G00 X100.331919 Y168.043144

G00 Z4.875000 (Fast pre-penetrate)
G01 Z-0.125000 F400.0(Penetrate)
G01 X100.331919 Y168.043144 Z-0.125000 F800.000000
G00 Z5.000000

(End cutting path id: line13947)


(Start cutting path id: line13945)
(Change tool to Default tool)

G00 Z5.000000
G00 X98.003761 Y167.525664

G00 Z4.875000 (Fast pre-penetrate)
G01 Z-0.125000 F400.0(Penetrate)
G01 X98.003761 Y167.525664 Z-0.125000 F800.000000
G00 Z5.000000

(End cutting path id: line13945)


(Start cutting path id: line13943)
(Change tool to Default tool)

G00 Z5.000000
G00 X95.724052 Y166.824834

G00 Z4.875000 (Fast pre-penetrate)
G01 Z-0.125000 F400.0(Penetrate)
G01 X95.724052 Y166.824834 Z-0.125000 F800.000000
G00 Z5.000000

(End cutting path id: line13943)


(Start cutting path id: line13941)
(Change tool to Default tool)

G00 Z5.000000
G00 X93.507242 Y165.945104

G00 Z4.875000 (Fast pre-penetrate)
G01 Z-0.125000 F400.0(Penetrate)
G01 X93.507242 Y165.945104 Z-0.125000 F800.000000
G00 Z5.000000

(End cutting path id: line13941)


(Start cutting path id: line13939)
(Change tool to Default tool)

G00 Z5.000000
G00 X91.367322 Y164.892004

G00 Z4.875000 (Fast pre-penetrate)
G01 Z-0.125000 F400.0(Penetrate)
G01 X91.367322 Y164.892004 Z-0.125000 F800.000000
G00 Z5.000000

(End cutting path id: line13939)


(Start cutting path id: line13937)
(Change tool to Default tool)

G00 Z5.000000
G00 X89.317859 Y163.672254

G00 Z4.875000 (Fast pre-penetrate)
G01 Z-0.125000 F400.0(Penetrate)
G01 X89.317859 Y163.672254 Z-0.125000 F800.000000
G00 Z5.000000

(End cutting path id: line13937)


(Start cutting path id: line13935)
(Change tool to Default tool)

G00 Z5.000000
G00 X87.371772 Y162.293504

G00 Z4.875000 (Fast pre-penetrate)
G01 Z-0.125000 F400.0(Penetrate)
G01 X87.371772 Y162.293504 Z-0.125000 F800.000000
G00 Z5.000000

(End cutting path id: line13935)


(Start cutting path id: line13933)
(Change tool to Default tool)

G00 Z5.000000
G00 X85.541384 Y160.764484

G00 Z4.875000 (Fast pre-penetrate)
G01 Z-0.125000 F400.0(Penetrate)
G01 X85.541384 Y160.764484 Z-0.125000 F800.000000
G00 Z5.000000

(End cutting path id: line13933)


(Start cutting path id: line13931)
(Change tool to Default tool)

G00 Z5.000000
G00 X83.838235 Y159.094904

G00 Z4.875000 (Fast pre-penetrate)
G01 Z-0.125000 F400.0(Penetrate)
G01 X83.838235 Y159.094904 Z-0.125000 F800.000000
G00 Z5.000000

(End cutting path id: line13931)


(Start cutting path id: line13929)
(Change tool to Default tool)

G00 Z5.000000
G00 X82.273140 Y157.295264

G00 Z4.875000 (Fast pre-penetrate)
G01 Z-0.125000 F400.0(Penetrate)
G01 X82.273140 Y157.295264 Z-0.125000 F800.000000
G00 Z5.000000

(End cutting path id: line13929)


(Start cutting path id: line13927)
(Change tool to Default tool)

G00 Z5.000000
G00 X80.855979 Y155.376974

G00 Z4.875000 (Fast pre-penetrate)
G01 Z-0.125000 F400.0(Penetrate)
G01 X80.855979 Y155.376974 Z-0.125000 F800.000000
G00 Z5.000000

(End cutting path id: line13927)


(Start cutting path id: line13925)
(Change tool to Default tool)

G00 Z5.000000
G00 X79.595720 Y153.352144

G00 Z4.875000 (Fast pre-penetrate)
G01 Z-0.125000 F400.0(Penetrate)
G01 X79.595720 Y153.352144 Z-0.125000 F800.000000
G00 Z5.000000

(End cutting path id: line13925)


(Start cutting path id: line13923)
(Change tool to Default tool)

G00 Z5.000000
G00 X78.500293 Y151.233604

G00 Z4.875000 (Fast pre-penetrate)
G01 Z-0.125000 F400.0(Penetrate)
G01 X78.500293 Y151.233604 Z-0.125000 F800.000000
G00 Z5.000000

(End cutting path id: line13923)


(Start cutting path id: line13921)
(Change tool to Default tool)

G00 Z5.000000
G00 X77.576659 Y149.034724

G00 Z4.875000 (Fast pre-penetrate)
G01 Z-0.125000 F400.0(Penetrate)
G01 X77.576659 Y149.034724 Z-0.125000 F800.000000
G00 Z5.000000

(End cutting path id: line13921)


(Start cutting path id: line13919)
(Change tool to Default tool)

G00 Z5.000000
G00 X76.830637 Y146.769394

G00 Z4.875000 (Fast pre-penetrate)
G01 Z-0.125000 F400.0(Penetrate)
G01 X76.830637 Y146.769394 Z-0.125000 F800.000000
G00 Z5.000000

(End cutting path id: line13919)


(Start cutting path id: line13917)
(Change tool to Default tool)

G00 Z5.000000
G00 X76.266942 Y144.451994

G00 Z4.875000 (Fast pre-penetrate)
G01 Z-0.125000 F400.0(Penetrate)
G01 X76.266942 Y144.451994 Z-0.125000 F800.000000
G00 Z5.000000

(End cutting path id: line13917)


(Start cutting path id: line13915)
(Change tool to Default tool)

G00 Z5.000000
G00 X75.889173 Y142.097104

G00 Z4.875000 (Fast pre-penetrate)
G01 Z-0.125000 F400.0(Penetrate)
G01 X75.889173 Y142.097104 Z-0.125000 F800.000000
G00 Z5.000000

(End cutting path id: line13915)


(Start cutting path id: line13913)
(Change tool to Default tool)

G00 Z5.000000
G00 X75.699673 Y139.719644

G00 Z4.875000 (Fast pre-penetrate)
G01 Z-0.125000 F400.0(Penetrate)
G01 X75.699673 Y139.719644 Z-0.125000 F800.000000
G00 Z5.000000

(End cutting path id: line13913)


(Start cutting path id: line13911)
(Change tool to Default tool)

G00 Z5.000000
G00 X75.699673 Y137.334644

G00 Z4.875000 (Fast pre-penetrate)
G01 Z-0.125000 F400.0(Penetrate)
G01 X75.699673 Y137.334644 Z-0.125000 F800.000000
G00 Z5.000000

(End cutting path id: line13911)


(Start cutting path id: line13909)
(Change tool to Default tool)

G00 Z5.000000
G00 X75.889173 Y134.957204

G00 Z4.875000 (Fast pre-penetrate)
G01 Z-0.125000 F400.0(Penetrate)
G01 X75.889173 Y134.957204 Z-0.125000 F800.000000
G00 Z5.000000

(End cutting path id: line13909)


(Start cutting path id: line13907)
(Change tool to Default tool)

G00 Z5.000000
G00 X76.266942 Y132.602314

G00 Z4.875000 (Fast pre-penetrate)
G01 Z-0.125000 F400.0(Penetrate)
G01 X76.266942 Y132.602314 Z-0.125000 F800.000000
G00 Z5.000000

(End cutting path id: line13907)


(Start cutting path id: line13905)
(Change tool to Default tool)

G00 Z5.000000
G00 X76.830637 Y130.284904

G00 Z4.875000 (Fast pre-penetrate)
G01 Z-0.125000 F400.0(Penetrate)
G01 X76.830637 Y130.284904 Z-0.125000 F800.000000
G00 Z5.000000

(End cutting path id: line13905)


(Start cutting path id: line13903)
(Change tool to Default tool)

G00 Z5.000000
G00 X77.576659 Y128.019564

G00 Z4.875000 (Fast pre-penetrate)
G01 Z-0.125000 F400.0(Penetrate)
G01 X77.576659 Y128.019564 Z-0.125000 F800.000000
G00 Z5.000000

(End cutting path id: line13903)


(Start cutting path id: line13901)
(Change tool to Default tool)

G00 Z5.000000
G00 X78.500293 Y125.820684

G00 Z4.875000 (Fast pre-penetrate)
G01 Z-0.125000 F400.0(Penetrate)
G01 X78.500293 Y125.820684 Z-0.125000 F800.000000
G00 Z5.000000

(End cutting path id: line13901)


(Start cutting path id: line13899)
(Change tool to Default tool)

G00 Z5.000000
G00 X79.595720 Y123.702144

G00 Z4.875000 (Fast pre-penetrate)
G01 Z-0.125000 F400.0(Penetrate)
G01 X79.595720 Y123.702144 Z-0.125000 F800.000000
G00 Z5.000000

(End cutting path id: line13899)


(Start cutting path id: line13897)
(Change tool to Default tool)

G00 Z5.000000
G00 X80.855979 Y121.677314

G00 Z4.875000 (Fast pre-penetrate)
G01 Z-0.125000 F400.0(Penetrate)
G01 X80.855979 Y121.677314 Z-0.125000 F800.000000
G00 Z5.000000

(End cutting path id: line13897)


(Start cutting path id: line13895)
(Change tool to Default tool)

G00 Z5.000000
G00 X82.273140 Y119.759044

G00 Z4.875000 (Fast pre-penetrate)
G01 Z-0.125000 F400.0(Penetrate)
G01 X82.273140 Y119.759044 Z-0.125000 F800.000000
G00 Z5.000000

(End cutting path id: line13895)


(Start cutting path id: line13893)
(Change tool to Default tool)

G00 Z5.000000
G00 X83.838235 Y117.959394

G00 Z4.875000 (Fast pre-penetrate)
G01 Z-0.125000 F400.0(Penetrate)
G01 X83.838235 Y117.959394 Z-0.125000 F800.000000
G00 Z5.000000

(End cutting path id: line13893)


(Start cutting path id: line13891)
(Change tool to Default tool)

G00 Z5.000000
G00 X85.541384 Y116.289824

G00 Z4.875000 (Fast pre-penetrate)
G01 Z-0.125000 F400.0(Penetrate)
G01 X85.541384 Y116.289824 Z-0.125000 F800.000000
G00 Z5.000000

(End cutting path id: line13891)


(Start cutting path id: line13889)
(Change tool to Default tool)

G00 Z5.000000
G00 X87.371772 Y114.760804

G00 Z4.875000 (Fast pre-penetrate)
G01 Z-0.125000 F400.0(Penetrate)
G01 X87.371772 Y114.760804 Z-0.125000 F800.000000
G00 Z5.000000

(End cutting path id: line13889)


(Start cutting path id: line13887)
(Change tool to Default tool)

G00 Z5.000000
G00 X89.317859 Y113.382074

G00 Z4.875000 (Fast pre-penetrate)
G01 Z-0.125000 F400.0(Penetrate)
G01 X89.317859 Y113.382074 Z-0.125000 F800.000000
G00 Z5.000000

(End cutting path id: line13887)


(Start cutting path id: line13885)
(Change tool to Default tool)

G00 Z5.000000
G00 X91.367322 Y112.162294

G00 Z4.875000 (Fast pre-penetrate)
G01 Z-0.125000 F400.0(Penetrate)
G01 X91.367322 Y112.162294 Z-0.125000 F800.000000
G00 Z5.000000

(End cutting path id: line13885)


(Start cutting path id: line13883)
(Change tool to Default tool)

G00 Z5.000000
G00 X93.507242 Y111.109194

G00 Z4.875000 (Fast pre-penetrate)
G01 Z-0.125000 F400.0(Penetrate)
G01 X93.507242 Y111.109194 Z-0.125000 F800.000000
G00 Z5.000000

(End cutting path id: line13883)


(Start cutting path id: line13881)
(Change tool to Default tool)

G00 Z5.000000
G00 X95.724052 Y110.229454

G00 Z4.875000 (Fast pre-penetrate)
G01 Z-0.125000 F400.0(Penetrate)
G01 X95.724052 Y110.229454 Z-0.125000 F800.000000
G00 Z5.000000

(End cutting path id: line13881)


(Start cutting path id: line13879)
(Change tool to Default tool)

G00 Z5.000000
G00 X98.003761 Y109.528624

G00 Z4.875000 (Fast pre-penetrate)
G01 Z-0.125000 F400.0(Penetrate)
G01 X98.003761 Y109.528624 Z-0.125000 F800.000000
G00 Z5.000000

(End cutting path id: line13879)


(Start cutting path id: line13877)
(Change tool to Default tool)

G00 Z5.000000
G00 X100.331919 Y109.011154

G00 Z4.875000 (Fast pre-penetrate)
G01 Z-0.125000 F400.0(Penetrate)
G01 X100.331919 Y109.011154 Z-0.125000 F800.000000
G00 Z5.000000

(End cutting path id: line13877)


(Start cutting path id: line13875)
(Change tool to Default tool)

G00 Z5.000000
G00 X102.693823 Y108.680274

G00 Z4.875000 (Fast pre-penetrate)
G01 Z-0.125000 F400.0(Penetrate)
G01 X102.693823 Y108.680274 Z-0.125000 F800.000000
G00 Z5.000000

(End cutting path id: line13875)


(Start cutting path id: line13873)
(Change tool to Default tool)

G00 Z5.000000
G00 X105.074573 Y108.538084

G00 Z4.875000 (Fast pre-penetrate)
G01 Z-0.125000 F400.0(Penetrate)
G01 X105.074573 Y108.538084 Z-0.125000 F800.000000
G00 Z5.000000

(End cutting path id: line13873)


(Start cutting path id: line13871)
(Change tool to Default tool)

G00 Z5.000000
G00 X107.459103 Y108.585504

G00 Z4.875000 (Fast pre-penetrate)
G01 Z-0.125000 F400.0(Penetrate)
G01 X107.459103 Y108.585504 Z-0.125000 F800.000000
G00 Z5.000000

(End cutting path id: line13871)


(Start cutting path id: line13869)
(Change tool to Default tool)

G00 Z5.000000
G00 X109.832303 Y108.822224

G00 Z4.875000 (Fast pre-penetrate)
G01 Z-0.125000 F400.0(Penetrate)
G01 X109.832303 Y108.822224 Z-0.125000 F800.000000
G00 Z5.000000

(End cutting path id: line13869)


(Start cutting path id: line13867)
(Change tool to Default tool)

G00 Z5.000000
G00 X112.179213 Y109.246744

G00 Z4.875000 (Fast pre-penetrate)
G01 Z-0.125000 F400.0(Penetrate)
G01 X112.179213 Y109.246744 Z-0.125000 F800.000000
G00 Z5.000000

(End cutting path id: line13867)


(Start cutting path id: line13865)
(Change tool to Default tool)

G00 Z5.000000
G00 X114.484983 Y109.856364

G00 Z4.875000 (Fast pre-penetrate)
G01 Z-0.125000 F400.0(Penetrate)
G01 X114.484983 Y109.856364 Z-0.125000 F800.000000
G00 Z5.000000

(End cutting path id: line13865)


(Start cutting path id: line13863)
(Change tool to Default tool)

G00 Z5.000000
G00 X116.735023 Y110.647294

G00 Z4.875000 (Fast pre-penetrate)
G01 Z-0.125000 F400.0(Penetrate)
G01 X116.735023 Y110.647294 Z-0.125000 F800.000000
G00 Z5.000000

(End cutting path id: line13863)


(Start cutting path id: line13861)
(Change tool to Default tool)

G00 Z5.000000
G00 X118.915113 Y111.614484

G00 Z4.875000 (Fast pre-penetrate)
G01 Z-0.125000 F400.0(Penetrate)
G01 X118.915113 Y111.614484 Z-0.125000 F800.000000
G00 Z5.000000

(End cutting path id: line13861)


(Start cutting path id: line13859)
(Change tool to Default tool)

G00 Z5.000000
G00 X121.011453 Y112.751784

G00 Z4.875000 (Fast pre-penetrate)
G01 Z-0.125000 F400.0(Penetrate)
G01 X121.011453 Y112.751784 Z-0.125000 F800.000000
G00 Z5.000000

(End cutting path id: line13859)


(Start cutting path id: line13857)
(Change tool to Default tool)

G00 Z5.000000
G00 X123.010803 Y114.052074

G00 Z4.875000 (Fast pre-penetrate)
G01 Z-0.125000 F400.0(Penetrate)
G01 X123.010803 Y114.052074 Z-0.125000 F800.000000
G00 Z5.000000

(End cutting path id: line13857)


(Start cutting path id: line13855)
(Change tool to Default tool)

G00 Z5.000000
G00 X124.900543 Y115.507104

G00 Z4.875000 (Fast pre-penetrate)
G01 Z-0.125000 F400.0(Penetrate)
G01 X124.900543 Y115.507104 Z-0.125000 F800.000000
G00 Z5.000000

(End cutting path id: line13855)


(Start cutting path id: line13853)
(Change tool to Default tool)

G00 Z5.000000
G00 X126.668703 Y117.107674

G00 Z4.875000 (Fast pre-penetrate)
G01 Z-0.125000 F400.0(Penetrate)
G01 X126.668703 Y117.107674 Z-0.125000 F800.000000
G00 Z5.000000

(End cutting path id: line13853)


(Start cutting path id: line13851)
(Change tool to Default tool)

G00 Z5.000000
G00 X128.304113 Y118.843654

G00 Z4.875000 (Fast pre-penetrate)
G01 Z-0.125000 F400.0(Penetrate)
G01 X128.304113 Y118.843654 Z-0.125000 F800.000000
G00 Z5.000000

(End cutting path id: line13851)


(Start cutting path id: line13849)
(Change tool to Default tool)

G00 Z5.000000
G00 X129.796413 Y120.704074

G00 Z4.875000 (Fast pre-penetrate)
G01 Z-0.125000 F400.0(Penetrate)
G01 X129.796413 Y120.704074 Z-0.125000 F800.000000
G00 Z5.000000

(End cutting path id: line13849)


(Start cutting path id: line13847)
(Change tool to Default tool)

G00 Z5.000000
G00 X131.136213 Y122.677214

G00 Z4.875000 (Fast pre-penetrate)
G01 Z-0.125000 F400.0(Penetrate)
G01 X131.136213 Y122.677214 Z-0.125000 F800.000000
G00 Z5.000000

(End cutting path id: line13847)


(Start cutting path id: line13845)
(Change tool to Default tool)

G00 Z5.000000
G00 X132.314983 Y124.750534

G00 Z4.875000 (Fast pre-penetrate)
G01 Z-0.125000 F400.0(Penetrate)
G01 X132.314983 Y124.750534 Z-0.125000 F800.000000
G00 Z5.000000

(End cutting path id: line13845)


(Start cutting path id: line13843)
(Change tool to Default tool)

G00 Z5.000000
G00 X133.325323 Y126.910934

G00 Z4.875000 (Fast pre-penetrate)
G01 Z-0.125000 F400.0(Penetrate)
G01 X133.325323 Y126.910934 Z-0.125000 F800.000000
G00 Z5.000000

(End cutting path id: line13843)


(Start cutting path id: line13841)
(Change tool to Default tool)

G00 Z5.000000
G00 X134.160793 Y129.144804

G00 Z4.875000 (Fast pre-penetrate)
G01 Z-0.125000 F400.0(Penetrate)
G01 X134.160793 Y129.144804 Z-0.125000 F800.000000
G00 Z5.000000

(End cutting path id: line13841)


(Start cutting path id: line13839)
(Change tool to Default tool)

G00 Z5.000000
G00 X134.816163 Y131.438014

G00 Z4.875000 (Fast pre-penetrate)
G01 Z-0.125000 F400.0(Penetrate)
G01 X134.816163 Y131.438014 Z-0.125000 F800.000000
G00 Z5.000000

(End cutting path id: line13839)


(Start cutting path id: line13837)
(Change tool to Default tool)

G00 Z5.000000
G00 X135.287263 Y133.776004

G00 Z4.875000 (Fast pre-penetrate)
G01 Z-0.125000 F400.0(Penetrate)
G01 X135.287263 Y133.776004 Z-0.125000 F800.000000
G00 Z5.000000

(End cutting path id: line13837)


(Start cutting path id: line13835)
(Change tool to Default tool)

G00 Z5.000000
G00 X135.571133 Y136.144044

G00 Z4.875000 (Fast pre-penetrate)
G01 Z-0.125000 F400.0(Penetrate)
G01 X135.571133 Y136.144044 Z-0.125000 F800.000000
G00 Z5.000000

(End cutting path id: line13835)


(Start cutting path id: line13833)
(Change tool to Default tool)

G00 Z5.000000
G00 X135.670963 Y138.527144

G00 Z4.875000 (Fast pre-penetrate)
G01 Z-0.125000 F400.0(Penetrate)
G01 X135.670963 Y138.527144 Z-0.125000 F800.000000
G00 Z5.000000

(End cutting path id: line13833)


(Start cutting path id: line13831)
(Change tool to Default tool)

G00 Z5.000000
G00 X135.571133 Y140.910254

G00 Z4.875000 (Fast pre-penetrate)
G01 Z-0.125000 F400.0(Penetrate)
G01 X135.571133 Y140.910254 Z-0.125000 F800.000000
G00 Z5.000000

(End cutting path id: line13831)


(Start cutting path id: line13829)
(Change tool to Default tool)

G00 Z5.000000
G00 X135.287263 Y143.278294

G00 Z4.875000 (Fast pre-penetrate)
G01 Z-0.125000 F400.0(Penetrate)
G01 X135.287263 Y143.278294 Z-0.125000 F800.000000
G00 Z5.000000

(End cutting path id: line13829)


(Start cutting path id: line13985)
(Change tool to Default tool)

G00 Z5.000000
G00 X134.816163 Y145.616284

G00 Z4.875000 (Fast pre-penetrate)
G01 Z-0.125000 F400.0(Penetrate)
G01 X134.816163 Y145.616284 Z-0.125000 F800.000000
G00 Z5.000000

(End cutting path id: line13985)


(Start cutting path id: line13983)
(Change tool to Default tool)

G00 Z5.000000
G00 X134.160793 Y147.909484

G00 Z4.875000 (Fast pre-penetrate)
G01 Z-0.125000 F400.0(Penetrate)
G01 X134.160793 Y147.909484 Z-0.125000 F800.000000
G00 Z5.000000

(End cutting path id: line13983)


(Start cutting path id: line13981)
(Change tool to Default tool)

G00 Z5.000000
G00 X133.325323 Y150.143364

G00 Z4.875000 (Fast pre-penetrate)
G01 Z-0.125000 F400.0(Penetrate)
G01 X133.325323 Y150.143364 Z-0.125000 F800.000000
G00 Z5.000000

(End cutting path id: line13981)


(Start cutting path id: line13979)
(Change tool to Default tool)

G00 Z5.000000
G00 X132.314983 Y152.303764

G00 Z4.875000 (Fast pre-penetrate)
G01 Z-0.125000 F400.0(Penetrate)
G01 X132.314983 Y152.303764 Z-0.125000 F800.000000
G00 Z5.000000

(End cutting path id: line13979)


(Start cutting path id: line13977)
(Change tool to Default tool)

G00 Z5.000000
G00 X131.136213 Y154.377094

G00 Z4.875000 (Fast pre-penetrate)
G01 Z-0.125000 F400.0(Penetrate)
G01 X131.136213 Y154.377094 Z-0.125000 F800.000000
G00 Z5.000000

(End cutting path id: line13977)


(Start cutting path id: line13975)
(Change tool to Default tool)

G00 Z5.000000
G00 X129.796413 Y156.350214

G00 Z4.875000 (Fast pre-penetrate)
G01 Z-0.125000 F400.0(Penetrate)
G01 X129.796413 Y156.350214 Z-0.125000 F800.000000
G00 Z5.000000

(End cutting path id: line13975)


(Start cutting path id: line13973)
(Change tool to Default tool)

G00 Z5.000000
G00 X128.304113 Y158.210634

G00 Z4.875000 (Fast pre-penetrate)
G01 Z-0.125000 F400.0(Penetrate)
G01 X128.304113 Y158.210634 Z-0.125000 F800.000000
G00 Z5.000000

(End cutting path id: line13973)


(Start cutting path id: line13971)
(Change tool to Default tool)

G00 Z5.000000
G00 X126.668703 Y159.946624

G00 Z4.875000 (Fast pre-penetrate)
G01 Z-0.125000 F400.0(Penetrate)
G01 X126.668703 Y159.946624 Z-0.125000 F800.000000
G00 Z5.000000

(End cutting path id: line13971)


(Start cutting path id: line13969)
(Change tool to Default tool)

G00 Z5.000000
G00 X124.900543 Y161.547184

G00 Z4.875000 (Fast pre-penetrate)
G01 Z-0.125000 F400.0(Penetrate)
G01 X124.900543 Y161.547184 Z-0.125000 F800.000000
G00 Z5.000000

(End cutting path id: line13969)


(Start cutting path id: line13967)
(Change tool to Default tool)

G00 Z5.000000
G00 X123.010803 Y163.002214

G00 Z4.875000 (Fast pre-penetrate)
G01 Z-0.125000 F400.0(Penetrate)
G01 X123.010803 Y163.002214 Z-0.125000 F800.000000
G00 Z5.000000

(End cutting path id: line13967)


(Start cutting path id: line22269)
(Change tool to Default tool)

G00 Z5.000000
G00 X122.240393 Y160.468624

G00 Z4.875000 (Fast pre-penetrate)
G01 Z-0.125000 F400.0(Penetrate)
G01 X122.240393 Y160.468624 Z-0.125000 F800.000000
G00 Z5.000000

(End cutting path id: line22269)


(Start cutting path id: line22271)
(Change tool to Default tool)

G00 Z5.000000
G00 X119.477323 Y159.363034

G00 Z4.875000 (Fast pre-penetrate)
G01 Z-0.125000 F400.0(Penetrate)
G01 X119.477323 Y159.363034 Z-0.125000 F800.000000
G00 Z5.000000

(End cutting path id: line22271)


(Start cutting path id: line22267)
(Change tool to Default tool)

G00 Z5.000000
G00 X121.933163 Y157.508464

G00 Z4.875000 (Fast pre-penetrate)
G01 Z-0.125000 F400.0(Penetrate)
G01 X121.933163 Y157.508464 Z-0.125000 F800.000000
G00 Z5.000000

(End cutting path id: line22267)


(Start cutting path id: line22265)
(Change tool to Default tool)

G00 Z5.000000
G00 X124.811163 Y158.266154

G00 Z4.875000 (Fast pre-penetrate)
G01 Z-0.125000 F400.0(Penetrate)
G01 X124.811163 Y158.266154 Z-0.125000 F800.000000
G00 Z5.000000

(End cutting path id: line22265)


(Start cutting path id: line22263)
(Change tool to Default tool)

G00 Z5.000000
G00 X124.142483 Y155.366184

G00 Z4.875000 (Fast pre-penetrate)
G01 Z-0.125000 F400.0(Penetrate)
G01 X124.142483 Y155.366184 Z-0.125000 F800.000000
G00 Z5.000000

(End cutting path id: line22263)


(Start cutting path id: line22261)
(Change tool to Default tool)

G00 Z5.000000
G00 X127.091773 Y155.764404

G00 Z4.875000 (Fast pre-penetrate)
G01 Z-0.125000 F400.0(Penetrate)
G01 X127.091773 Y155.764404 Z-0.125000 F800.000000
G00 Z5.000000

(End cutting path id: line22261)


(Start cutting path id: line22259)
(Change tool to Default tool)

G00 Z5.000000
G00 X126.071793 Y152.968614

G00 Z4.875000 (Fast pre-penetrate)
G01 Z-0.125000 F400.0(Penetrate)
G01 X126.071793 Y152.968614 Z-0.125000 F800.000000
G00 Z5.000000

(End cutting path id: line22259)


(Start cutting path id: line22257)
(Change tool to Default tool)

G00 Z5.000000
G00 X129.047673 Y153.001394

G00 Z4.875000 (Fast pre-penetrate)
G01 Z-0.125000 F400.0(Penetrate)
G01 X129.047673 Y153.001394 Z-0.125000 F800.000000
G00 Z5.000000

(End cutting path id: line22257)


(Start cutting path id: line22255)
(Change tool to Default tool)

G00 Z5.000000
G00 X127.691843 Y150.352124

G00 Z4.875000 (Fast pre-penetrate)
G01 Z-0.125000 F400.0(Penetrate)
G01 X127.691843 Y150.352124 Z-0.125000 F800.000000
G00 Z5.000000

(End cutting path id: line22255)


(Start cutting path id: line22253)
(Change tool to Default tool)

G00 Z5.000000
G00 X130.649193 Y150.018954

G00 Z4.875000 (Fast pre-penetrate)
G01 Z-0.125000 F400.0(Penetrate)
G01 X130.649193 Y150.018954 Z-0.125000 F800.000000
G00 Z5.000000

(End cutting path id: line22253)


(Start cutting path id: line22449)
(Change tool to Default tool)

G00 Z5.000000
G00 X131.872073 Y146.862314

G00 Z4.875000 (Fast pre-penetrate)
G01 Z-0.125000 F400.0(Penetrate)
G01 X131.872073 Y146.862314 Z-0.125000 F800.000000
G00 Z5.000000

(End cutting path id: line22449)


(Start cutting path id: line13825)
(Change tool to Default tool)

G00 Z5.000000
G00 X129.911033 Y144.623754

G00 Z4.875000 (Fast pre-penetrate)
G01 Z-0.125000 F400.0(Penetrate)
G01 X129.911033 Y144.623754 Z-0.125000 F800.000000
G00 Z5.000000

(End cutting path id: line13825)


(Start cutting path id: line13827)
(Change tool to Default tool)

G00 Z5.000000
G00 X132.697783 Y143.579344

G00 Z4.875000 (Fast pre-penetrate)
G01 Z-0.125000 F400.0(Penetrate)
G01 X132.697783 Y143.579344 Z-0.125000 F800.000000
G00 Z5.000000

(End cutting path id: line13827)


(Start cutting path id: line22447)
(Change tool to Default tool)

G00 Z5.000000
G00 X130.476503 Y141.598744

G00 Z4.875000 (Fast pre-penetrate)
G01 Z-0.125000 F400.0(Penetrate)
G01 X130.476503 Y141.598744 Z-0.125000 F800.000000
G00 Z5.000000

(End cutting path id: line22447)


(Start cutting path id: line22445)
(Change tool to Default tool)

G00 Z5.000000
G00 X133.113793 Y140.219774

G00 Z4.875000 (Fast pre-penetrate)
G01 Z-0.125000 F400.0(Penetrate)
G01 X133.113793 Y140.219774 Z-0.125000 F800.000000
G00 Z5.000000

(End cutting path id: line22445)


(Start cutting path id: line22443)
(Change tool to Default tool)

G00 Z5.000000
G00 X130.670943 Y138.527144

G00 Z4.875000 (Fast pre-penetrate)
G01 Z-0.125000 F400.0(Penetrate)
G01 X130.670943 Y138.527144 Z-0.125000 F800.000000
G00 Z5.000000

(End cutting path id: line22443)


(Start cutting path id: line22441)
(Change tool to Default tool)

G00 Z5.000000
G00 X133.113793 Y136.834534

G00 Z4.875000 (Fast pre-penetrate)
G01 Z-0.125000 F400.0(Penetrate)
G01 X133.113793 Y136.834534 Z-0.125000 F800.000000
G00 Z5.000000

(End cutting path id: line22441)


(Start cutting path id: line22439)
(Change tool to Default tool)

G00 Z5.000000
G00 X130.476503 Y135.455544

G00 Z4.875000 (Fast pre-penetrate)
G01 Z-0.125000 F400.0(Penetrate)
G01 X130.476503 Y135.455544 Z-0.125000 F800.000000
G00 Z5.000000

(End cutting path id: line22439)


(Start cutting path id: line22437)
(Change tool to Default tool)

G00 Z5.000000
G00 X132.697783 Y133.474954

G00 Z4.875000 (Fast pre-penetrate)
G01 Z-0.125000 F400.0(Penetrate)
G01 X132.697783 Y133.474954 Z-0.125000 F800.000000
G00 Z5.000000

(End cutting path id: line22437)


(Start cutting path id: line22435)
(Change tool to Default tool)

G00 Z5.000000
G00 X129.911033 Y132.430534

G00 Z4.875000 (Fast pre-penetrate)
G01 Z-0.125000 F400.0(Penetrate)
G01 X129.911033 Y132.430534 Z-0.125000 F800.000000
G00 Z5.000000

(End cutting path id: line22435)


(Start cutting path id: line22433)
(Change tool to Default tool)

G00 Z5.000000
G00 X131.872073 Y130.191984

G00 Z4.875000 (Fast pre-penetrate)
G01 Z-0.125000 F400.0(Penetrate)
G01 X131.872073 Y130.191984 Z-0.125000 F800.000000
G00 Z5.000000

(End cutting path id: line22433)


(Start cutting path id: line22431)
(Change tool to Default tool)

G00 Z5.000000
G00 X128.978083 Y129.497914

G00 Z4.875000 (Fast pre-penetrate)
G01 Z-0.125000 F400.0(Penetrate)
G01 X128.978083 Y129.497914 Z-0.125000 F800.000000
G00 Z5.000000

(End cutting path id: line22431)


(Start cutting path id: line22429)
(Change tool to Default tool)

G00 Z5.000000
G00 X130.649193 Y127.035344

G00 Z4.875000 (Fast pre-penetrate)
G01 Z-0.125000 F400.0(Penetrate)
G01 X130.649193 Y127.035344 Z-0.125000 F800.000000
G00 Z5.000000

(End cutting path id: line22429)


(Start cutting path id: line22427)
(Change tool to Default tool)

G00 Z5.000000
G00 X127.691843 Y126.702174

G00 Z4.875000 (Fast pre-penetrate)
G01 Z-0.125000 F400.0(Penetrate)
G01 X127.691843 Y126.702174 Z-0.125000 F800.000000
G00 Z5.000000

(End cutting path id: line22427)


(Start cutting path id: line22425)
(Change tool to Default tool)

G00 Z5.000000
G00 X129.047673 Y124.052904

G00 Z4.875000 (Fast pre-penetrate)
G01 Z-0.125000 F400.0(Penetrate)
G01 X129.047673 Y124.052904 Z-0.125000 F800.000000
G00 Z5.000000

(End cutting path id: line22425)


(Start cutting path id: line22423)
(Change tool to Default tool)

G00 Z5.000000
G00 X126.071793 Y124.085684

G00 Z4.875000 (Fast pre-penetrate)
G01 Z-0.125000 F400.0(Penetrate)
G01 X126.071793 Y124.085684 Z-0.125000 F800.000000
G00 Z5.000000

(End cutting path id: line22423)


(Start cutting path id: line22421)
(Change tool to Default tool)

G00 Z5.000000
G00 X127.091773 Y121.289894

G00 Z4.875000 (Fast pre-penetrate)
G01 Z-0.125000 F400.0(Penetrate)
G01 X127.091773 Y121.289894 Z-0.125000 F800.000000
G00 Z5.000000

(End cutting path id: line22421)


(Start cutting path id: line22419)
(Change tool to Default tool)

G00 Z5.000000
G00 X124.142483 Y121.688144

G00 Z4.875000 (Fast pre-penetrate)
G01 Z-0.125000 F400.0(Penetrate)
G01 X124.142483 Y121.688144 Z-0.125000 F800.000000
G00 Z5.000000

(End cutting path id: line22419)


(Start cutting path id: line22417)
(Change tool to Default tool)

G00 Z5.000000
G00 X124.811163 Y118.788154

G00 Z4.875000 (Fast pre-penetrate)
G01 Z-0.125000 F400.0(Penetrate)
G01 X124.811163 Y118.788154 Z-0.125000 F800.000000
G00 Z5.000000

(End cutting path id: line22417)


(Start cutting path id: line22415)
(Change tool to Default tool)

G00 Z5.000000
G00 X121.933163 Y119.545824

G00 Z4.875000 (Fast pre-penetrate)
G01 Z-0.125000 F400.0(Penetrate)
G01 X121.933163 Y119.545824 Z-0.125000 F800.000000
G00 Z5.000000

(End cutting path id: line22415)


(Start cutting path id: line22413)
(Change tool to Default tool)

G00 Z5.000000
G00 X122.240393 Y116.585674

G00 Z4.875000 (Fast pre-penetrate)
G01 Z-0.125000 F400.0(Penetrate)
G01 X122.240393 Y116.585674 Z-0.125000 F800.000000
G00 Z5.000000

(End cutting path id: line22413)


(Start cutting path id: line22411)
(Change tool to Default tool)

G00 Z5.000000
G00 X119.477323 Y117.691254

G00 Z4.875000 (Fast pre-penetrate)
G01 Z-0.125000 F400.0(Penetrate)
G01 X119.477323 Y117.691254 Z-0.125000 F800.000000
G00 Z5.000000

(End cutting path id: line22411)


(Start cutting path id: line22409)
(Change tool to Default tool)

G00 Z5.000000
G00 X119.418453 Y114.715794

G00 Z4.875000 (Fast pre-penetrate)
G01 Z-0.125000 F400.0(Penetrate)
G01 X119.418453 Y114.715794 Z-0.125000 F800.000000
G00 Z5.000000

(End cutting path id: line22409)


(Start cutting path id: line22407)
(Change tool to Default tool)

G00 Z5.000000
G00 X116.812173 Y116.152564

G00 Z4.875000 (Fast pre-penetrate)
G01 Z-0.125000 F400.0(Penetrate)
G01 X116.812173 Y116.152564 Z-0.125000 F800.000000
G00 Z5.000000

(End cutting path id: line22407)


(Start cutting path id: line22405)
(Change tool to Default tool)

G00 Z5.000000
G00 X116.388103 Y113.206844

G00 Z4.875000 (Fast pre-penetrate)
G01 Z-0.125000 F400.0(Penetrate)
G01 X116.388103 Y113.206844 Z-0.125000 F800.000000
G00 Z5.000000

(End cutting path id: line22405)


(Start cutting path id: line22403)
(Change tool to Default tool)

G00 Z5.000000
G00 X113.978143 Y114.953024

G00 Z4.875000 (Fast pre-penetrate)
G01 Z-0.125000 F400.0(Penetrate)
G01 X113.978143 Y114.953024 Z-0.125000 F800.000000
G00 Z5.000000

(End cutting path id: line22403)


(Start cutting path id: line22401)
(Change tool to Default tool)

G00 Z5.000000
G00 X113.195323 Y112.081754

G00 Z4.875000 (Fast pre-penetrate)
G01 Z-0.125000 F400.0(Penetrate)
G01 X113.195323 Y112.081754 Z-0.125000 F800.000000
G00 Z5.000000

(End cutting path id: line22401)


(Start cutting path id: line22399)
(Change tool to Default tool)

G00 Z5.000000
G00 X111.018193 Y114.110824

G00 Z4.875000 (Fast pre-penetrate)
G01 Z-0.125000 F400.0(Penetrate)
G01 X111.018193 Y114.110824 Z-0.125000 F800.000000
G00 Z5.000000

(End cutting path id: line22399)


(Start cutting path id: line22397)
(Change tool to Default tool)

G00 Z5.000000
G00 X109.888453 Y111.357534

G00 Z4.875000 (Fast pre-penetrate)
G01 Z-0.125000 F400.0(Penetrate)
G01 X109.888453 Y111.357534 Z-0.125000 F800.000000
G00 Z5.000000

(End cutting path id: line22397)


(Start cutting path id: line22395)
(Change tool to Default tool)

G00 Z5.000000
G00 X107.977183 Y113.638774

G00 Z4.875000 (Fast pre-penetrate)
G01 Z-0.125000 F400.0(Penetrate)
G01 X107.977183 Y113.638774 Z-0.125000 F800.000000
G00 Z5.000000

(End cutting path id: line22395)


(Start cutting path id: line22393)
(Change tool to Default tool)

G00 Z5.000000
G00 X106.517663 Y111.045204

G00 Z4.875000 (Fast pre-penetrate)
G01 Z-0.125000 F400.0(Penetrate)
G01 X106.517663 Y111.045204 Z-0.125000 F800.000000
G00 Z5.000000

(End cutting path id: line22393)


(Start cutting path id: line22391)
(Change tool to Default tool)

G00 Z5.000000
G00 X104.901213 Y113.543994

G00 Z4.875000 (Fast pre-penetrate)
G01 Z-0.125000 F400.0(Penetrate)
G01 X104.901213 Y113.543994 Z-0.125000 F800.000000
G00 Z5.000000

(End cutting path id: line22391)


(Start cutting path id: line22389)
(Change tool to Default tool)

G00 Z5.000000
G00 X103.134033 Y111.149444

G00 Z4.875000 (Fast pre-penetrate)
G01 Z-0.125000 F400.0(Penetrate)
G01 X103.134033 Y111.149444 Z-0.125000 F800.000000
G00 Z5.000000

(End cutting path id: line22389)


(Start cutting path id: line22387)
(Change tool to Default tool)

G00 Z5.000000
G00 X101.836913 Y113.827944

G00 Z4.875000 (Fast pre-penetrate)
G01 Z-0.125000 F400.0(Penetrate)
G01 X101.836913 Y113.827944 Z-0.125000 F800.000000
G00 Z5.000000

(End cutting path id: line22387)


(Start cutting path id: line22385)
(Change tool to Default tool)

G00 Z5.000000
G00 X99.788862 Y111.668704

G00 Z4.875000 (Fast pre-penetrate)
G01 Z-0.125000 F400.0(Penetrate)
G01 X99.788862 Y111.668704 Z-0.125000 F800.000000
G00 Z5.000000

(End cutting path id: line22385)


(Start cutting path id: line22383)
(Change tool to Default tool)

G00 Z5.000000
G00 X98.830768 Y114.486314

G00 Z4.875000 (Fast pre-penetrate)
G01 Z-0.125000 F400.0(Penetrate)
G01 X98.830768 Y114.486314 Z-0.125000 F800.000000
G00 Z5.000000

(End cutting path id: line22383)


(Start cutting path id: line22381)
(Change tool to Default tool)

G00 Z5.000000
G00 X96.532862 Y112.595124

G00 Z4.875000 (Fast pre-penetrate)
G01 Z-0.125000 F400.0(Penetrate)
G01 X96.532862 Y112.595124 Z-0.125000 F800.000000
G00 Z5.000000

(End cutting path id: line22381)


(Start cutting path id: line22379)
(Change tool to Default tool)

G00 Z5.000000
G00 X95.928262 Y115.509104

G00 Z4.875000 (Fast pre-penetrate)
G01 Z-0.125000 F400.0(Penetrate)
G01 X95.928262 Y115.509104 Z-0.125000 F800.000000
G00 Z5.000000

(End cutting path id: line22379)


(Start cutting path id: line22377)
(Change tool to Default tool)

G00 Z5.000000
G00 X93.415382 Y113.914634

G00 Z4.875000 (Fast pre-penetrate)
G01 Z-0.125000 F400.0(Penetrate)
G01 X93.415382 Y113.914634 Z-0.125000 F800.000000
G00 Z5.000000

(End cutting path id: line22377)


(Start cutting path id: line22375)
(Change tool to Default tool)

G00 Z5.000000
G00 X93.173472 Y116.880844

G00 Z4.875000 (Fast pre-penetrate)
G01 Z-0.125000 F400.0(Penetrate)
G01 X93.173472 Y116.880844 Z-0.125000 F800.000000
G00 Z5.000000

(End cutting path id: line22375)


(Start cutting path id: line22373)
(Change tool to Default tool)

G00 Z5.000000
G00 X90.483695 Y115.607244

G00 Z4.875000 (Fast pre-penetrate)
G01 Z-0.125000 F400.0(Penetrate)
G01 X90.483695 Y115.607244 Z-0.125000 F800.000000
G00 Z5.000000

(End cutting path id: line22373)


(Start cutting path id: line22371)
(Change tool to Default tool)

G00 Z5.000000
G00 X90.608097 Y118.580724

G00 Z4.875000 (Fast pre-penetrate)
G01 Z-0.125000 F400.0(Penetrate)
G01 X90.608097 Y118.580724 Z-0.125000 F800.000000
G00 Z5.000000

(End cutting path id: line22371)


(Start cutting path id: line22369)
(Change tool to Default tool)

G00 Z5.000000
G00 X87.782220 Y117.647314

G00 Z4.875000 (Fast pre-penetrate)
G01 Z-0.125000 F400.0(Penetrate)
G01 X87.782220 Y117.647314 Z-0.125000 F800.000000
G00 Z5.000000

(End cutting path id: line22369)


(Start cutting path id: line22367)
(Change tool to Default tool)

G00 Z5.000000
G00 X88.271112 Y120.582944

G00 Z4.875000 (Fast pre-penetrate)
G01 Z-0.125000 F400.0(Penetrate)
G01 X88.271112 Y120.582944 Z-0.125000 F800.000000
G00 Z5.000000

(End cutting path id: line22367)


(Start cutting path id: line22365)
(Change tool to Default tool)

G00 Z5.000000
G00 X85.351911 Y120.003874

G00 Z4.875000 (Fast pre-penetrate)
G01 Z-0.125000 F400.0(Penetrate)
G01 X85.351911 Y120.003874 Z-0.125000 F800.000000
G00 Z5.000000

(End cutting path id: line22365)


(Start cutting path id: line22363)
(Change tool to Default tool)

G00 Z5.000000
G00 X86.197837 Y122.857204

G00 Z4.875000 (Fast pre-penetrate)
G01 Z-0.125000 F400.0(Penetrate)
G01 X86.197837 Y122.857204 Z-0.125000 F800.000000
G00 Z5.000000

(End cutting path id: line22363)


(Start cutting path id: line22361)
(Change tool to Default tool)

G00 Z5.000000
G00 X83.229640 Y122.641274

G00 Z4.875000 (Fast pre-penetrate)
G01 Z-0.125000 F400.0(Penetrate)
G01 X83.229640 Y122.641274 Z-0.125000 F800.000000
G00 Z5.000000

(End cutting path id: line22361)


(Start cutting path id: line22359)
(Change tool to Default tool)

G00 Z5.000000
G00 X84.419789 Y125.368974

G00 Z4.875000 (Fast pre-penetrate)
G01 Z-0.125000 F400.0(Penetrate)
G01 X84.419789 Y125.368974 Z-0.125000 F800.000000
G00 Z5.000000

(End cutting path id: line22359)


(Start cutting path id: line22357)
(Change tool to Default tool)

G00 Z5.000000
G00 X81.447537 Y125.519444

G00 Z4.875000 (Fast pre-penetrate)
G01 Z-0.125000 F400.0(Penetrate)
G01 X81.447537 Y125.519444 Z-0.125000 F800.000000
G00 Z5.000000

(End cutting path id: line22357)


(Start cutting path id: line22355)
(Change tool to Default tool)

G00 Z5.000000
G00 X82.963861 Y128.080244

G00 Z4.875000 (Fast pre-penetrate)
G01 Z-0.125000 F400.0(Penetrate)
G01 X82.963861 Y128.080244 Z-0.125000 F800.000000
G00 Z5.000000

(End cutting path id: line22355)


(Start cutting path id: line22353)
(Change tool to Default tool)

G00 Z5.000000
G00 X80.032653 Y128.594794

G00 Z4.875000 (Fast pre-penetrate)
G01 Z-0.125000 F400.0(Penetrate)
G01 X80.032653 Y128.594794 Z-0.125000 F800.000000
G00 Z5.000000

(End cutting path id: line22353)


(Start cutting path id: line22351)
(Change tool to Default tool)

G00 Z5.000000
G00 X81.852188 Y130.949844

G00 Z4.875000 (Fast pre-penetrate)
G01 Z-0.125000 F400.0(Penetrate)
G01 X81.852188 Y130.949844 Z-0.125000 F800.000000
G00 Z5.000000

(End cutting path id: line22351)


(Start cutting path id: line22349)
(Change tool to Default tool)

G00 Z5.000000
G00 X79.006414 Y131.820724

G00 Z4.875000 (Fast pre-penetrate)
G01 Z-0.125000 F400.0(Penetrate)
G01 X79.006414 Y131.820724 Z-0.125000 F800.000000
G00 Z5.000000

(End cutting path id: line22349)


(Start cutting path id: line22347)
(Change tool to Default tool)

G00 Z5.000000
G00 X81.101565 Y133.934324

G00 Z4.875000 (Fast pre-penetrate)
G01 Z-0.125000 F400.0(Penetrate)
G01 X81.101565 Y133.934324 Z-0.125000 F800.000000
G00 Z5.000000

(End cutting path id: line22347)


(Start cutting path id: line22345)
(Change tool to Default tool)

G00 Z5.000000
G00 X78.384376 Y135.148344

G00 Z4.875000 (Fast pre-penetrate)
G01 Z-0.125000 F400.0(Penetrate)
G01 X78.384376 Y135.148344 Z-0.125000 F800.000000
G00 Z5.000000

(End cutting path id: line22345)


(Start cutting path id: line22343)
(Change tool to Default tool)

G00 Z5.000000
G00 X80.723372 Y136.988434

G00 Z4.875000 (Fast pre-penetrate)
G01 Z-0.125000 F400.0(Penetrate)
G01 X80.723372 Y136.988434 Z-0.125000 F800.000000
G00 Z5.000000

(End cutting path id: line22343)


(Start cutting path id: line22341)
(Change tool to Default tool)

G00 Z5.000000
G00 X78.180964 Y138.527144

G00 Z4.875000 (Fast pre-penetrate)
G01 Z-0.125000 F400.0(Penetrate)
G01 X78.180964 Y138.527144 Z-0.125000 F800.000000
G00 Z5.000000

(End cutting path id: line22341)


(Start cutting path id: line22339)
(Change tool to Default tool)

G00 Z5.000000
G00 X80.723372 Y140.065864

G00 Z4.875000 (Fast pre-penetrate)
G01 Z-0.125000 F400.0(Penetrate)
G01 X80.723372 Y140.065864 Z-0.125000 F800.000000
G00 Z5.000000

(End cutting path id: line22339)


(Start cutting path id: line22337)
(Change tool to Default tool)

G00 Z5.000000
G00 X78.384376 Y141.905964

G00 Z4.875000 (Fast pre-penetrate)
G01 Z-0.125000 F400.0(Penetrate)
G01 X78.384376 Y141.905964 Z-0.125000 F800.000000
G00 Z5.000000

(End cutting path id: line22337)


(Start cutting path id: line22335)
(Change tool to Default tool)

G00 Z5.000000
G00 X81.101565 Y143.119974

G00 Z4.875000 (Fast pre-penetrate)
G01 Z-0.125000 F400.0(Penetrate)
G01 X81.101565 Y143.119974 Z-0.125000 F800.000000
G00 Z5.000000

(End cutting path id: line22335)


(Start cutting path id: line22333)
(Change tool to Default tool)

G00 Z5.000000
G00 X79.006414 Y145.233574

G00 Z4.875000 (Fast pre-penetrate)
G01 Z-0.125000 F400.0(Penetrate)
G01 X79.006414 Y145.233574 Z-0.125000 F800.000000
G00 Z5.000000

(End cutting path id: line22333)


(Start cutting path id: line22331)
(Change tool to Default tool)

G00 Z5.000000
G00 X81.852188 Y146.104444

G00 Z4.875000 (Fast pre-penetrate)
G01 Z-0.125000 F400.0(Penetrate)
G01 X81.852188 Y146.104444 Z-0.125000 F800.000000
G00 Z5.000000

(End cutting path id: line22331)


(Start cutting path id: line22329)
(Change tool to Default tool)

G00 Z5.000000
G00 X80.032653 Y148.459504

G00 Z4.875000 (Fast pre-penetrate)
G01 Z-0.125000 F400.0(Penetrate)
G01 X80.032653 Y148.459504 Z-0.125000 F800.000000
G00 Z5.000000

(End cutting path id: line22329)


(Start cutting path id: line22327)
(Change tool to Default tool)

G00 Z5.000000
G00 X82.963861 Y148.974074

G00 Z4.875000 (Fast pre-penetrate)
G01 Z-0.125000 F400.0(Penetrate)
G01 X82.963861 Y148.974074 Z-0.125000 F800.000000
G00 Z5.000000

(End cutting path id: line22327)


(Start cutting path id: line22325)
(Change tool to Default tool)

G00 Z5.000000
G00 X81.447537 Y151.534864

G00 Z4.875000 (Fast pre-penetrate)
G01 Z-0.125000 F400.0(Penetrate)
G01 X81.447537 Y151.534864 Z-0.125000 F800.000000
G00 Z5.000000

(End cutting path id: line22325)


(Start cutting path id: line22323)
(Change tool to Default tool)

G00 Z5.000000
G00 X84.419789 Y151.685324

G00 Z4.875000 (Fast pre-penetrate)
G01 Z-0.125000 F400.0(Penetrate)
G01 X84.419789 Y151.685324 Z-0.125000 F800.000000
G00 Z5.000000

(End cutting path id: line22323)


(Start cutting path id: line22321)
(Change tool to Default tool)

G00 Z5.000000
G00 X83.229640 Y154.413034

G00 Z4.875000 (Fast pre-penetrate)
G01 Z-0.125000 F400.0(Penetrate)
G01 X83.229640 Y154.413034 Z-0.125000 F800.000000
G00 Z5.000000

(End cutting path id: line22321)


(Start cutting path id: line22319)
(Change tool to Default tool)

G00 Z5.000000
G00 X86.197837 Y154.197104

G00 Z4.875000 (Fast pre-penetrate)
G01 Z-0.125000 F400.0(Penetrate)
G01 X86.197837 Y154.197104 Z-0.125000 F800.000000
G00 Z5.000000

(End cutting path id: line22319)


(Start cutting path id: line22317)
(Change tool to Default tool)

G00 Z5.000000
G00 X85.351911 Y157.050424

G00 Z4.875000 (Fast pre-penetrate)
G01 Z-0.125000 F400.0(Penetrate)
G01 X85.351911 Y157.050424 Z-0.125000 F800.000000
G00 Z5.000000

(End cutting path id: line22317)


(Start cutting path id: line22315)
(Change tool to Default tool)

G00 Z5.000000
G00 X88.271112 Y156.471354

G00 Z4.875000 (Fast pre-penetrate)
G01 Z-0.125000 F400.0(Penetrate)
G01 X88.271112 Y156.471354 Z-0.125000 F800.000000
G00 Z5.000000

(End cutting path id: line22315)


(Start cutting path id: line22313)
(Change tool to Default tool)

G00 Z5.000000
G00 X87.782220 Y159.406974

G00 Z4.875000 (Fast pre-penetrate)
G01 Z-0.125000 F400.0(Penetrate)
G01 X87.782220 Y159.406974 Z-0.125000 F800.000000
G00 Z5.000000

(End cutting path id: line22313)


(Start cutting path id: line22311)
(Change tool to Default tool)

G00 Z5.000000
G00 X90.608097 Y158.473584

G00 Z4.875000 (Fast pre-penetrate)
G01 Z-0.125000 F400.0(Penetrate)
G01 X90.608097 Y158.473584 Z-0.125000 F800.000000
G00 Z5.000000

(End cutting path id: line22311)


(Start cutting path id: line22309)
(Change tool to Default tool)

G00 Z5.000000
G00 X90.483695 Y161.447044

G00 Z4.875000 (Fast pre-penetrate)
G01 Z-0.125000 F400.0(Penetrate)
G01 X90.483695 Y161.447044 Z-0.125000 F800.000000
G00 Z5.000000

(End cutting path id: line22309)


(Start cutting path id: line22307)
(Change tool to Default tool)

G00 Z5.000000
G00 X93.173472 Y160.173454

G00 Z4.875000 (Fast pre-penetrate)
G01 Z-0.125000 F400.0(Penetrate)
G01 X93.173472 Y160.173454 Z-0.125000 F800.000000
G00 Z5.000000

(End cutting path id: line22307)


(Start cutting path id: line22305)
(Change tool to Default tool)

G00 Z5.000000
G00 X93.415382 Y163.139664

G00 Z4.875000 (Fast pre-penetrate)
G01 Z-0.125000 F400.0(Penetrate)
G01 X93.415382 Y163.139664 Z-0.125000 F800.000000
G00 Z5.000000

(End cutting path id: line22305)


(Start cutting path id: line22303)
(Change tool to Default tool)

G00 Z5.000000
G00 X95.928262 Y161.545184

G00 Z4.875000 (Fast pre-penetrate)
G01 Z-0.125000 F400.0(Penetrate)
G01 X95.928262 Y161.545184 Z-0.125000 F800.000000
G00 Z5.000000

(End cutting path id: line22303)


(Start cutting path id: line22301)
(Change tool to Default tool)

G00 Z5.000000
G00 X96.532862 Y164.459174

G00 Z4.875000 (Fast pre-penetrate)
G01 Z-0.125000 F400.0(Penetrate)
G01 X96.532862 Y164.459174 Z-0.125000 F800.000000
G00 Z5.000000

(End cutting path id: line22301)


(Start cutting path id: line22299)
(Change tool to Default tool)

G00 Z5.000000
G00 X98.830768 Y162.567994

G00 Z4.875000 (Fast pre-penetrate)
G01 Z-0.125000 F400.0(Penetrate)
G01 X98.830768 Y162.567994 Z-0.125000 F800.000000
G00 Z5.000000

(End cutting path id: line22299)


(Start cutting path id: line22297)
(Change tool to Default tool)

G00 Z5.000000
G00 X99.788862 Y165.385584

G00 Z4.875000 (Fast pre-penetrate)
G01 Z-0.125000 F400.0(Penetrate)
G01 X99.788862 Y165.385584 Z-0.125000 F800.000000
G00 Z5.000000

(End cutting path id: line22297)


(Start cutting path id: line22295)
(Change tool to Default tool)

G00 Z5.000000
G00 X101.836913 Y163.226354

G00 Z4.875000 (Fast pre-penetrate)
G01 Z-0.125000 F400.0(Penetrate)
G01 X101.836913 Y163.226354 Z-0.125000 F800.000000
G00 Z5.000000

(End cutting path id: line22295)


(Start cutting path id: line22293)
(Change tool to Default tool)

G00 Z5.000000
G00 X103.134033 Y165.904854

G00 Z4.875000 (Fast pre-penetrate)
G01 Z-0.125000 F400.0(Penetrate)
G01 X103.134033 Y165.904854 Z-0.125000 F800.000000
G00 Z5.000000

(End cutting path id: line22293)


(Start cutting path id: line22291)
(Change tool to Default tool)

G00 Z5.000000
G00 X104.901213 Y163.510294

G00 Z4.875000 (Fast pre-penetrate)
G01 Z-0.125000 F400.0(Penetrate)
G01 X104.901213 Y163.510294 Z-0.125000 F800.000000
G00 Z5.000000

(End cutting path id: line22291)


(Start cutting path id: line22289)
(Change tool to Default tool)

G00 Z5.000000
G00 X106.517663 Y166.009104

G00 Z4.875000 (Fast pre-penetrate)
G01 Z-0.125000 F400.0(Penetrate)
G01 X106.517663 Y166.009104 Z-0.125000 F800.000000
G00 Z5.000000

(End cutting path id: line22289)


(Start cutting path id: line22287)
(Change tool to Default tool)

G00 Z5.000000
G00 X107.977183 Y163.415524

G00 Z4.875000 (Fast pre-penetrate)
G01 Z-0.125000 F400.0(Penetrate)
G01 X107.977183 Y163.415524 Z-0.125000 F800.000000
G00 Z5.000000

(End cutting path id: line22287)


(Start cutting path id: line22285)
(Change tool to Default tool)

G00 Z5.000000
G00 X109.888453 Y165.696764

G00 Z4.875000 (Fast pre-penetrate)
G01 Z-0.125000 F400.0(Penetrate)
G01 X109.888453 Y165.696764 Z-0.125000 F800.000000
G00 Z5.000000

(End cutting path id: line22285)


(Start cutting path id: line22283)
(Change tool to Default tool)

G00 Z5.000000
G00 X111.018193 Y162.943484

G00 Z4.875000 (Fast pre-penetrate)
G01 Z-0.125000 F400.0(Penetrate)
G01 X111.018193 Y162.943484 Z-0.125000 F800.000000
G00 Z5.000000

(End cutting path id: line22283)


(Start cutting path id: line22281)
(Change tool to Default tool)

G00 Z5.000000
G00 X113.195323 Y164.972544

G00 Z4.875000 (Fast pre-penetrate)
G01 Z-0.125000 F400.0(Penetrate)
G01 X113.195323 Y164.972544 Z-0.125000 F800.000000
G00 Z5.000000

(End cutting path id: line22281)


(Start cutting path id: line22279)
(Change tool to Default tool)

G00 Z5.000000
G00 X113.978143 Y162.101284

G00 Z4.875000 (Fast pre-penetrate)
G01 Z-0.125000 F400.0(Penetrate)
G01 X113.978143 Y162.101284 Z-0.125000 F800.000000
G00 Z5.000000

(End cutting path id: line22279)


(Start cutting path id: line22277)
(Change tool to Default tool)

G00 Z5.000000
G00 X116.388103 Y163.847464

G00 Z4.875000 (Fast pre-penetrate)
G01 Z-0.125000 F400.0(Penetrate)
G01 X116.388103 Y163.847464 Z-0.125000 F800.000000
G00 Z5.000000

(End cutting path id: line22277)


(Start cutting path id: line14121)
(Change tool to Default tool)

G00 Z5.000000
G00 X118.848483 Y168.230304

G00 Z4.875000 (Fast pre-penetrate)
G01 Z-0.125000 F400.0(Penetrate)
G01 X118.848483 Y168.230304 Z-0.125000 F800.000000
G00 Z5.000000

(End cutting path id: line14121)


(Start cutting path id: line14119)
(Change tool to Default tool)

G00 Z5.000000
G00 X116.446913 Y169.183354

G00 Z4.875000 (Fast pre-penetrate)
G01 Z-0.125000 F400.0(Penetrate)
G01 X116.446913 Y169.183354 Z-0.125000 F800.000000
G00 Z5.000000

(End cutting path id: line14119)


(Start cutting path id: line14117)
(Change tool to Default tool)

G00 Z5.000000
G00 X113.977213 Y169.942604

G00 Z4.875000 (Fast pre-penetrate)
G01 Z-0.125000 F400.0(Penetrate)
G01 X113.977213 Y169.942604 Z-0.125000 F800.000000
G00 Z5.000000

(End cutting path id: line14117)


(Start cutting path id: line14115)
(Change tool to Default tool)

G00 Z5.000000
G00 X111.454993 Y170.503234

G00 Z4.875000 (Fast pre-penetrate)
G01 Z-0.125000 F400.0(Penetrate)
G01 X111.454993 Y170.503234 Z-0.125000 F800.000000
G00 Z5.000000

(End cutting path id: line14115)


(Start cutting path id: line14113)
(Change tool to Default tool)

G00 Z5.000000
G00 X108.896183 Y170.861694

G00 Z4.875000 (Fast pre-penetrate)
G01 Z-0.125000 F400.0(Penetrate)
G01 X108.896183 Y170.861694 Z-0.125000 F800.000000
G00 Z5.000000

(End cutting path id: line14113)


(Start cutting path id: line14111)
(Change tool to Default tool)

G00 Z5.000000
G00 X106.317033 Y171.015734

G00 Z4.875000 (Fast pre-penetrate)
G01 Z-0.125000 F400.0(Penetrate)
G01 X106.317033 Y171.015734 Z-0.125000 F800.000000
G00 Z5.000000

(End cutting path id: line14111)


(Start cutting path id: line14109)
(Change tool to Default tool)

G00 Z5.000000
G00 X103.733743 Y170.964354

G00 Z4.875000 (Fast pre-penetrate)
G01 Z-0.125000 F400.0(Penetrate)
G01 X103.733743 Y170.964354 Z-0.125000 F800.000000
G00 Z5.000000

(End cutting path id: line14109)


(Start cutting path id: line14107)
(Change tool to Default tool)

G00 Z5.000000
G00 X101.162733 Y170.707894

G00 Z4.875000 (Fast pre-penetrate)
G01 Z-0.125000 F400.0(Penetrate)
G01 X101.162733 Y170.707894 Z-0.125000 F800.000000
G00 Z5.000000

(End cutting path id: line14107)


(Start cutting path id: line14105)
(Change tool to Default tool)

G00 Z5.000000
G00 X98.620238 Y170.247994

G00 Z4.875000 (Fast pre-penetrate)
G01 Z-0.125000 F400.0(Penetrate)
G01 X98.620238 Y170.247994 Z-0.125000 F800.000000
G00 Z5.000000

(End cutting path id: line14105)


(Start cutting path id: line14103)
(Change tool to Default tool)

G00 Z5.000000
G00 X96.122302 Y169.587544

G00 Z4.875000 (Fast pre-penetrate)
G01 Z-0.125000 F400.0(Penetrate)
G01 X96.122302 Y169.587544 Z-0.125000 F800.000000
G00 Z5.000000

(End cutting path id: line14103)


(Start cutting path id: line14101)
(Change tool to Default tool)

G00 Z5.000000
G00 X93.684732 Y168.730714

G00 Z4.875000 (Fast pre-penetrate)
G01 Z-0.125000 F400.0(Penetrate)
G01 X93.684732 Y168.730714 Z-0.125000 F800.000000
G00 Z5.000000

(End cutting path id: line14101)


(Start cutting path id: line14099)
(Change tool to Default tool)

G00 Z5.000000
G00 X91.322952 Y167.682934

G00 Z4.875000 (Fast pre-penetrate)
G01 Z-0.125000 F400.0(Penetrate)
G01 X91.322952 Y167.682934 Z-0.125000 F800.000000
G00 Z5.000000

(End cutting path id: line14099)


(Start cutting path id: line14097)
(Change tool to Default tool)

G00 Z5.000000
G00 X89.051870 Y166.450794

G00 Z4.875000 (Fast pre-penetrate)
G01 Z-0.125000 F400.0(Penetrate)
G01 X89.051870 Y166.450794 Z-0.125000 F800.000000
G00 Z5.000000

(End cutting path id: line14097)


(Start cutting path id: line14095)
(Change tool to Default tool)

G00 Z5.000000
G00 X86.885859 Y165.042154

G00 Z4.875000 (Fast pre-penetrate)
G01 Z-0.125000 F400.0(Penetrate)
G01 X86.885859 Y165.042154 Z-0.125000 F800.000000
G00 Z5.000000

(End cutting path id: line14095)


(Start cutting path id: line14093)
(Change tool to Default tool)

G00 Z5.000000
G00 X84.838624 Y163.465844

G00 Z4.875000 (Fast pre-penetrate)
G01 Z-0.125000 F400.0(Penetrate)
G01 X84.838624 Y163.465844 Z-0.125000 F800.000000
G00 Z5.000000

(End cutting path id: line14093)


(Start cutting path id: line14091)
(Change tool to Default tool)

G00 Z5.000000
G00 X82.923094 Y161.731864

G00 Z4.875000 (Fast pre-penetrate)
G01 Z-0.125000 F400.0(Penetrate)
G01 X82.923094 Y161.731864 Z-0.125000 F800.000000
G00 Z5.000000

(End cutting path id: line14091)


(Start cutting path id: line14089)
