%
(Header)
(Generated by gcodetools from Inkscape.)
(Using default header. To add your own header create file "header" in the output dir.)
M3
(Header end.)
G21 (All units in mm)

(Start cutting path id: path6076)
(Change tool to Default tool)

G00 Z3.000000
G00 X82.162430 Y55.981889

G00 Z4.875000 (Fast pre-penetrate)
G01 Z-0.125000 F400.0(Penetrate)
G01 X80.602366 Y39.021143 Z-0.125000 F800.000000
G01 X76.543848 Y24.558851 Z-0.125000
G00 Z3.000000

(End cutting path id: path6076)


(Start cutting path id: path6074)
(Change tool to Default tool)

G00 Z3.000000
G00 X81.660799 Y55.822063

G00 Z4.875000 (Fast pre-penetrate)
G01 Z-0.125000 F400.0(Penetrate)
G01 X79.875541 Y39.086511 Z-0.125000 F800.000000
G01 X75.835943 Y24.605298 Z-0.125000
G00 Z3.000000

(End cutting path id: path6074)


(Start cutting path id: path6078)
(Change tool to Default tool)

G00 Z3.000000
G00 X82.664060 Y56.141716

G00 Z4.875000 (Fast pre-penetrate)
G01 Z-0.125000 F400.0(Penetrate)
G01 X81.329189 Y38.955778 Z-0.125000 F800.000000
G01 X77.251751 Y24.512406 Z-0.125000
G00 Z3.000000

(End cutting path id: path6078)


(Start cutting path id: path6080)
(Change tool to Default tool)

G00 Z3.000000
G00 X83.165691 Y56.301543

G00 Z4.875000 (Fast pre-penetrate)
G01 Z-0.125000 F400.0(Penetrate)
G01 X82.056014 Y38.890410 Z-0.125000 F800.000000
G01 X77.959656 Y24.465958 Z-0.125000
G00 Z3.000000

(End cutting path id: path6080)


(Start cutting path id: path6082)
(Change tool to Default tool)

G00 Z3.000000
G00 X83.667322 Y56.461369

G00 Z4.875000 (Fast pre-penetrate)
G01 Z-0.125000 F400.0(Penetrate)
G01 X82.782837 Y38.825045 Z-0.125000 F800.000000
G01 X78.667558 Y24.419514 Z-0.125000
G00 Z3.000000

(End cutting path id: path6082)


(Start cutting path id: path6084)
(Change tool to Default tool)

G00 Z3.000000
G00 X84.168953 Y56.621196

G00 Z4.875000 (Fast pre-penetrate)
G01 Z-0.125000 F400.0(Penetrate)
G01 X83.509662 Y38.759677 Z-0.125000 F800.000000
G01 X79.375463 Y24.373066 Z-0.125000
G00 Z3.000000

(End cutting path id: path6084)


(Start cutting path id: path6086)
(Change tool to Default tool)

G00 Z3.000000
G00 X84.670584 Y56.781023

G00 Z4.875000 (Fast pre-penetrate)
G01 Z-0.125000 F400.0(Penetrate)
G01 X84.236485 Y38.694311 Z-0.125000 F800.000000
G01 X80.083365 Y24.326621 Z-0.125000
G00 Z3.000000

(End cutting path id: path6086)


(Start cutting path id: path6088)
(Change tool to Default tool)

G00 Z3.000000
G00 X85.172215 Y56.940849

G00 Z4.875000 (Fast pre-penetrate)
G01 Z-0.125000 F400.0(Penetrate)
G01 X84.963308 Y38.628946 Z-0.125000 F800.000000
G01 X80.791270 Y24.280174 Z-0.125000
G00 Z3.000000

(End cutting path id: path6088)


(Start cutting path id: path6090)
(Change tool to Default tool)

G00 Z3.000000
G00 X85.673845 Y57.100676

G00 Z4.875000 (Fast pre-penetrate)
G01 Z-0.125000 F400.0(Penetrate)
G01 X85.690144 Y38.563578 Z-0.125000 F800.000000
G01 X81.499183 Y24.233729 Z-0.125000
G00 Z3.000000

(End cutting path id: path6090)


(Start cutting path id: path6092)
(Change tool to Default tool)

G00 Z3.000000
G00 X86.175476 Y57.260503

G00 Z4.875000 (Fast pre-penetrate)
G01 Z-0.125000 F400.0(Penetrate)
G01 X86.416956 Y38.498213 Z-0.125000 F800.000000
G01 X82.207078 Y24.187281 Z-0.125000
G00 Z3.000000

(End cutting path id: path6092)


(Start cutting path id: path6094)
(Change tool to Default tool)

G00 Z3.000000
G00 X86.677107 Y57.420329

G00 Z4.875000 (Fast pre-penetrate)
G01 Z-0.125000 F400.0(Penetrate)
G01 X87.143781 Y38.432845 Z-0.125000 F800.000000
G01 X82.914980 Y24.140836 Z-0.125000
G00 Z3.000000

(End cutting path id: path6094)


(Start cutting path id: path6096)
(Change tool to Default tool)

G00 Z3.000000
G00 X87.178741 Y57.580153

G00 Z4.875000 (Fast pre-penetrate)
G01 Z-0.125000 F400.0(Penetrate)
G01 X87.870604 Y38.367480 Z-0.125000 F800.000000
G01 X83.622885 Y24.094389 Z-0.125000
G00 Z3.000000

(End cutting path id: path6096)


(Start cutting path id: path6098)
(Change tool to Default tool)

G00 Z3.000000
G00 X87.680371 Y57.739980

G00 Z4.875000 (Fast pre-penetrate)
G01 Z-0.125000 F400.0(Penetrate)
G01 X88.597429 Y38.302112 Z-0.125000 F800.000000
G01 X84.330788 Y24.047944 Z-0.125000
G00 Z3.000000

(End cutting path id: path6098)


(Start cutting path id: path6100)
(Change tool to Default tool)

G00 Z3.000000
G00 X88.182002 Y57.899807

G00 Z4.875000 (Fast pre-penetrate)
G01 Z-0.125000 F400.0(Penetrate)
G01 X89.324252 Y38.236747 Z-0.125000 F800.000000
G01 X85.038693 Y24.001496 Z-0.125000
G00 Z3.000000

(End cutting path id: path6100)


(Start cutting path id: path6102)
(Change tool to Default tool)

G00 Z3.000000
G00 X88.683633 Y58.059633

G00 Z4.875000 (Fast pre-penetrate)
G01 Z-0.125000 F400.0(Penetrate)
G01 X90.051077 Y38.171379 Z-0.125000 F800.000000
G01 X85.746595 Y23.955051 Z-0.125000
G00 Z3.000000

(End cutting path id: path6102)


(Start cutting path id: path6104)
(Change tool to Default tool)

G00 Z3.000000
G00 X89.185264 Y58.219460

G00 Z4.875000 (Fast pre-penetrate)
G01 Z-0.125000 F400.0(Penetrate)
G01 X90.777900 Y38.106014 Z-0.125000 F800.000000
G01 X86.454498 Y23.908606 Z-0.125000
G00 Z3.000000

(End cutting path id: path6104)


(Start cutting path id: path6106)
(Change tool to Default tool)

G00 Z3.000000
G00 X89.686895 Y58.379287

G00 Z4.875000 (Fast pre-penetrate)
G01 Z-0.125000 F400.0(Penetrate)
G01 X91.504726 Y38.040646 Z-0.125000 F800.000000
G01 X87.162403 Y23.862159 Z-0.125000
G00 Z3.000000

(End cutting path id: path6106)


(Start cutting path id: path6108)
(Change tool to Default tool)

G00 Z3.000000
G00 X90.188526 Y58.539113

G00 Z4.875000 (Fast pre-penetrate)
G01 Z-0.125000 F400.0(Penetrate)
G01 X92.231548 Y37.975281 Z-0.125000 F800.000000
G01 X87.870305 Y23.815714 Z-0.125000
G00 Z3.000000

(End cutting path id: path6108)


(Start cutting path id: path6110)
(Change tool to Default tool)

G00 Z3.000000
G00 X90.690157 Y58.698940

G00 Z4.875000 (Fast pre-penetrate)
G01 Z-0.125000 F400.0(Penetrate)
G01 X92.958374 Y37.909913 Z-0.125000 F800.000000
G01 X88.578210 Y23.769266 Z-0.125000
G00 Z3.000000

(End cutting path id: path6110)


(Start cutting path id: path6112)
(Change tool to Default tool)

G00 Z3.000000
G00 X91.191787 Y58.858767

G00 Z4.875000 (Fast pre-penetrate)
G01 Z-0.125000 F400.0(Penetrate)
G01 X93.685196 Y37.844548 Z-0.125000 F800.000000
G01 X89.286112 Y23.722822 Z-0.125000
G00 Z3.000000

(End cutting path id: path6112)


(Start cutting path id: path6114)
(Change tool to Default tool)

G00 Z3.000000
G00 X91.693418 Y59.018593

G00 Z4.875000 (Fast pre-penetrate)
G01 Z-0.125000 F400.0(Penetrate)
G01 X94.412022 Y37.779180 Z-0.125000 F800.000000
G01 X89.994018 Y23.676374 Z-0.125000
G00 Z3.000000

(End cutting path id: path6114)


(Start cutting path id: path6116)
(Change tool to Default tool)

G00 Z3.000000
G00 X92.195049 Y59.178420

G00 Z4.875000 (Fast pre-penetrate)
G01 Z-0.125000 F400.0(Penetrate)
G01 X95.138845 Y37.713814 Z-0.125000 F800.000000
G01 X90.701920 Y23.629929 Z-0.125000
G00 Z3.000000

(End cutting path id: path6116)


(Start cutting path id: path6118)
(Change tool to Default tool)

G00 Z3.000000
G00 X92.696680 Y59.338247

G00 Z4.875000 (Fast pre-penetrate)
G01 Z-0.125000 F400.0(Penetrate)
G01 X95.865670 Y37.648447 Z-0.125000 F800.000000
G01 X91.409825 Y23.583482 Z-0.125000
G00 Z3.000000

(End cutting path id: path6118)


(Start cutting path id: path6120)
(Change tool to Default tool)

G00 Z3.000000
G00 X93.198311 Y59.498073

G00 Z4.875000 (Fast pre-penetrate)
G01 Z-0.125000 F400.0(Penetrate)
G01 X96.592493 Y37.583081 Z-0.125000 F800.000000
G01 X92.117727 Y23.537037 Z-0.125000
G00 Z3.000000

(End cutting path id: path6120)


(Start cutting path id: path6122)
(Change tool to Default tool)

G00 Z3.000000
G00 X93.699942 Y59.657900

G00 Z4.875000 (Fast pre-penetrate)
G01 Z-0.125000 F400.0(Penetrate)
G01 X97.319318 Y37.517713 Z-0.125000 F800.000000
G01 X92.825632 Y23.490589 Z-0.125000
G00 Z3.000000

(End cutting path id: path6122)


(Start cutting path id: path6124)
(Change tool to Default tool)

G00 Z3.000000
G00 X94.201572 Y59.817727

G00 Z4.875000 (Fast pre-penetrate)
G01 Z-0.125000 F400.0(Penetrate)
G01 X98.046141 Y37.452348 Z-0.125000 F800.000000
G01 X93.533535 Y23.444144 Z-0.125000
G00 Z3.000000

(End cutting path id: path6124)


(Start cutting path id: path6126)
(Change tool to Default tool)

G00 Z3.000000
G00 X94.703203 Y59.977553

G00 Z4.875000 (Fast pre-penetrate)
G01 Z-0.125000 F400.0(Penetrate)
G01 X98.772966 Y37.386980 Z-0.125000 F800.000000
G01 X94.241440 Y23.397697 Z-0.125000
G00 Z3.000000

(End cutting path id: path6126)


(Start cutting path id: path6128)
(Change tool to Default tool)

G00 Z3.000000
G00 X95.204834 Y60.137380

G00 Z4.875000 (Fast pre-penetrate)
G01 Z-0.125000 F400.0(Penetrate)
G01 X99.499789 Y37.321615 Z-0.125000 F800.000000
G01 X94.949342 Y23.351252 Z-0.125000
G00 Z3.000000

(End cutting path id: path6128)


(Start cutting path id: path6136)
(Change tool to Default tool)

G00 Z3.000000
G00 X97.848989 Y60.139055

G00 Z4.875000 (Fast pre-penetrate)
G01 Z-0.125000 F400.0(Penetrate)
G01 X102.665823 Y36.801411 Z-0.125000 F800.000000
G01 X97.472922 Y23.473502 Z-0.125000
G00 Z3.000000

(End cutting path id: path6136)


(Start cutting path id: path6142)
(Change tool to Default tool)

G00 Z3.000000
G00 X99.991514 Y59.980903

G00 Z4.875000 (Fast pre-penetrate)
G01 Z-0.125000 F400.0(Penetrate)
G01 X105.105035 Y36.346571 Z-0.125000 F800.000000
G01 X99.288599 Y23.642198 Z-0.125000
G00 Z3.000000

(End cutting path id: path6142)


(Start cutting path id: path6148)
(Change tool to Default tool)

G00 Z3.000000
G00 X102.134038 Y59.822751

G00 Z4.875000 (Fast pre-penetrate)
G01 Z-0.125000 F400.0(Penetrate)
G01 X107.544247 Y35.891732 Z-0.125000 F800.000000
G01 X101.104273 Y23.810896 Z-0.125000
G00 Z3.000000

(End cutting path id: path6148)


(Start cutting path id: path6152)
(Change tool to Default tool)

G00 Z3.000000
G00 X103.562387 Y59.717317

G00 Z4.875000 (Fast pre-penetrate)
G01 Z-0.125000 F400.0(Penetrate)
G01 X109.170387 Y35.588507 Z-0.125000 F800.000000
G01 X102.314724 Y23.923360 Z-0.125000
G00 Z3.000000

(End cutting path id: path6152)


(Start cutting path id: path6156)
(Change tool to Default tool)

G00 Z3.000000
G00 X104.990738 Y59.611881

G00 Z4.875000 (Fast pre-penetrate)
G01 Z-0.125000 F400.0(Penetrate)
G01 X110.796528 Y35.285281 Z-0.125000 F800.000000
G01 X103.525173 Y24.035826 Z-0.125000
G00 Z3.000000

(End cutting path id: path6156)


(Start cutting path id: path6160)
(Change tool to Default tool)

G00 Z3.000000
G00 X106.419087 Y59.506447

G00 Z4.875000 (Fast pre-penetrate)
G01 Z-0.125000 F400.0(Penetrate)
G01 X112.422668 Y34.982056 Z-0.125000 F800.000000
G01 X104.735624 Y24.148290 Z-0.125000
G00 Z3.000000

(End cutting path id: path6160)


(Start cutting path id: path6162)
(Change tool to Default tool)

G00 Z3.000000
G00 X107.133262 Y59.453729

G00 Z4.875000 (Fast pre-penetrate)
G01 Z-0.125000 F400.0(Penetrate)
G01 X113.235740 Y34.830442 Z-0.125000 F800.000000
G01 X105.340850 Y24.204521 Z-0.125000
G00 Z3.000000

(End cutting path id: path6162)


(Start cutting path id: path6164)
(Change tool to Default tool)

G00 Z3.000000
G00 X107.847435 Y59.401014

G00 Z4.875000 (Fast pre-penetrate)
G01 Z-0.125000 F400.0(Penetrate)
G01 X114.048809 Y34.678830 Z-0.125000 F800.000000
G01 X105.946073 Y24.260756 Z-0.125000
G00 Z3.000000

(End cutting path id: path6164)


(Start cutting path id: path6166)
(Change tool to Default tool)

G00 Z3.000000
G00 X108.561611 Y59.348295

G00 Z4.875000 (Fast pre-penetrate)
G01 Z-0.125000 F400.0(Penetrate)
G01 X114.861880 Y34.527217 Z-0.125000 F800.000000
G01 X106.551299 Y24.316988 Z-0.125000
G00 Z3.000000

(End cutting path id: path6166)


(Start cutting path id: path6168)
(Change tool to Default tool)

G00 Z3.000000
G00 X109.275787 Y59.295577

G00 Z4.875000 (Fast pre-penetrate)
G01 Z-0.125000 F400.0(Penetrate)
G01 X115.674949 Y34.375605 Z-0.125000 F800.000000
G01 X107.156525 Y24.373219 Z-0.125000
G00 Z3.000000

(End cutting path id: path6168)


(Start cutting path id: path6170)
(Change tool to Default tool)

G00 Z3.000000
G00 X109.989960 Y59.242862

G00 Z4.875000 (Fast pre-penetrate)
G01 Z-0.125000 F400.0(Penetrate)
G01 X116.488020 Y34.223991 Z-0.125000 F800.000000
G01 X107.761750 Y24.429451 Z-0.125000
G00 Z3.000000

(End cutting path id: path6170)


(Start cutting path id: path6172)
(Change tool to Default tool)

G00 Z3.000000
G00 X110.704135 Y59.190144

G00 Z4.875000 (Fast pre-penetrate)
G01 Z-0.125000 F400.0(Penetrate)
G01 X117.301089 Y34.072380 Z-0.125000 F800.000000
G01 X108.366976 Y24.485683 Z-0.125000
G00 Z3.000000

(End cutting path id: path6172)


(Start cutting path id: path6174)
(Change tool to Default tool)

G00 Z3.000000
G00 X111.418311 Y59.137425

G00 Z4.875000 (Fast pre-penetrate)
G01 Z-0.125000 F400.0(Penetrate)
G01 X118.114161 Y33.920766 Z-0.125000 F800.000000
G01 X108.972199 Y24.541918 Z-0.125000
G00 Z3.000000

(End cutting path id: path6174)


(Start cutting path id: path6176)
(Change tool to Default tool)

G00 Z3.000000
G00 X112.132484 Y59.084710

G00 Z4.875000 (Fast pre-penetrate)
G01 Z-0.125000 F400.0(Penetrate)
G01 X118.927230 Y33.769154 Z-0.125000 F800.000000
G01 X109.577425 Y24.598149 Z-0.125000
G00 Z3.000000

(End cutting path id: path6176)


(Start cutting path id: path6178)
(Change tool to Default tool)

G00 Z3.000000
G00 X112.846660 Y59.031992

G00 Z4.875000 (Fast pre-penetrate)
G01 Z-0.125000 F400.0(Penetrate)
G01 X119.740301 Y33.617540 Z-0.125000 F800.000000
G01 X110.182650 Y24.654381 Z-0.125000
G00 Z3.000000

(End cutting path id: path6178)


(Start cutting path id: path6180)
(Change tool to Default tool)

G00 Z3.000000
G00 X113.560835 Y58.979274

G00 Z4.875000 (Fast pre-penetrate)
G01 Z-0.125000 F400.0(Penetrate)
G01 X120.553370 Y33.465929 Z-0.125000 F800.000000
G01 X110.787876 Y24.710613 Z-0.125000
G00 Z3.000000

(End cutting path id: path6180)


(Start cutting path id: path6182)
(Change tool to Default tool)

G00 Z3.000000
G00 X114.275008 Y58.926558

G00 Z4.875000 (Fast pre-penetrate)
G01 Z-0.125000 F400.0(Penetrate)
G01 X121.366441 Y33.314315 Z-0.125000 F800.000000
G01 X111.393102 Y24.766845 Z-0.125000
G00 Z3.000000

(End cutting path id: path6182)


(Start cutting path id: path6184)
(Change tool to Default tool)

G00 Z3.000000
G00 X114.989184 Y58.873840

G00 Z4.875000 (Fast pre-penetrate)
G01 Z-0.125000 F400.0(Penetrate)
G01 X122.179513 Y33.162701 Z-0.125000 F800.000000
G01 X111.998325 Y24.823079 Z-0.125000
G00 Z3.000000

(End cutting path id: path6184)


(Start cutting path id: path6186)
(Change tool to Default tool)

G00 Z3.000000
G00 X115.703357 Y58.821124

G00 Z4.875000 (Fast pre-penetrate)
G01 Z-0.125000 F400.0(Penetrate)
G01 X122.992582 Y33.011090 Z-0.125000 F800.000000
G01 X112.603550 Y24.879311 Z-0.125000
G00 Z3.000000

(End cutting path id: path6186)


(Start cutting path id: path6158)
(Change tool to Default tool)

G00 Z3.000000
G00 X105.704911 Y59.559165

G00 Z4.875000 (Fast pre-penetrate)
G01 Z-0.125000 F400.0(Penetrate)
G01 X111.609597 Y35.133670 Z-0.125000 F800.000000
G01 X104.130399 Y24.092058 Z-0.125000
G00 Z3.000000

(End cutting path id: path6158)


(Start cutting path id: path6154)
(Change tool to Default tool)

G00 Z3.000000
G00 X104.276562 Y59.664599

G00 Z4.875000 (Fast pre-penetrate)
G01 Z-0.125000 F400.0(Penetrate)
G01 X109.983456 Y35.436895 Z-0.125000 F800.000000
G01 X102.919947 Y23.979594 Z-0.125000
G00 Z3.000000

(End cutting path id: path6154)


(Start cutting path id: path6150)
(Change tool to Default tool)

G00 Z3.000000
G00 X102.848214 Y59.770033

G00 Z4.875000 (Fast pre-penetrate)
G01 Z-0.125000 F400.0(Penetrate)
G01 X108.357316 Y35.740121 Z-0.125000 F800.000000
G01 X101.709499 Y23.867128 Z-0.125000
G00 Z3.000000

(End cutting path id: path6150)


(Start cutting path id: path6146)
(Change tool to Default tool)

G00 Z3.000000
G00 X101.419865 Y59.875466

G00 Z4.875000 (Fast pre-penetrate)
G01 Z-0.125000 F400.0(Penetrate)
G01 X106.731176 Y36.043346 Z-0.125000 F800.000000
G01 X100.499047 Y23.754664 Z-0.125000
G00 Z3.000000

(End cutting path id: path6146)


(Start cutting path id: path6144)
(Change tool to Default tool)

G00 Z3.000000
G00 X100.705689 Y59.928185

G00 Z4.875000 (Fast pre-penetrate)
G01 Z-0.125000 F400.0(Penetrate)
G01 X105.918107 Y36.194957 Z-0.125000 F800.000000
G01 X99.893822 Y23.698432 Z-0.125000
G00 Z3.000000

(End cutting path id: path6144)


(Start cutting path id: path6140)
(Change tool to Default tool)

G00 Z3.000000
G00 X99.277341 Y60.033618

G00 Z4.875000 (Fast pre-penetrate)
G01 Z-0.125000 F400.0(Penetrate)
G01 X104.291964 Y36.498185 Z-0.125000 F800.000000
G01 X98.683373 Y23.585966 Z-0.125000
G00 Z3.000000

(End cutting path id: path6140)


(Start cutting path id: path6138)
(Change tool to Default tool)

G00 Z3.000000
G00 X98.563165 Y60.086336

G00 Z4.875000 (Fast pre-penetrate)
G01 Z-0.125000 F400.0(Penetrate)
G01 X103.478895 Y36.649797 Z-0.125000 F800.000000
G01 X98.078147 Y23.529734 Z-0.125000
G00 Z3.000000

(End cutting path id: path6138)


(Start cutting path id: path6134)
(Change tool to Default tool)

G00 Z3.000000
G00 X97.134816 Y60.191770

G00 Z4.875000 (Fast pre-penetrate)
G01 Z-0.125000 F400.0(Penetrate)
G01 X101.852755 Y36.953022 Z-0.125000 F800.000000
G01 X96.867696 Y23.417270 Z-0.125000
G00 Z3.000000

(End cutting path id: path6134)


(Start cutting path id: path6132)
(Change tool to Default tool)

G00 Z3.000000
G00 X96.420641 Y60.244488

G00 Z4.875000 (Fast pre-penetrate)
G01 Z-0.125000 F400.0(Penetrate)
G01 X101.039683 Y37.104636 Z-0.125000 F800.000000
G01 X96.262473 Y23.361036 Z-0.125000
G00 Z3.000000

(End cutting path id: path6132)


(Start cutting path id: path6130)
(Change tool to Default tool)

G00 Z3.000000
G00 X95.706465 Y60.297206

G00 Z4.875000 (Fast pre-penetrate)
G01 Z-0.125000 F400.0(Penetrate)
G01 X100.226614 Y37.256247 Z-0.125000 F800.000000
G01 X95.657247 Y23.304804 Z-0.125000
G00 Z3.000000

(End cutting path id: path6130)



(Footer)
M5
G00 X0.0000 Y0.0000
M2
(Using default footer. To add your own footer create file "footer" in the output dir.)
(end)
%