%
(Header)
(Generated by gcodetools from Inkscape.)
(Using default header. To add your own header create file "header" in the output dir.)
M3
(Header end.)
G21 (All units in mm)

(Start cutting path id: path3481)
(Change tool to Default tool)

G00 Z3.000000
G00 X52.162957 Y149.567324

G00 Z4.875000 (Fast pre-penetrate)
G01 Z-0.125000 F400.0(Penetrate)
G01 X59.452182 Y123.757290 Z-0.125000 F800.000000
G01 X49.063150 Y115.625511 Z-0.125000
G00 Z3.000000

(End cutting path id: path3481)


(Start cutting path id: path3479)
(Change tool to Default tool)

G00 Z3.000000
G00 X51.393846 Y149.624096

G00 Z4.875000 (Fast pre-penetrate)
G01 Z-0.125000 F400.0(Penetrate)
G01 X58.576568 Y123.920564 Z-0.125000 F800.000000
G01 X48.411371 Y115.564953 Z-0.125000
G00 Z3.000000

(End cutting path id: path3479)


(Start cutting path id: path3477)
(Change tool to Default tool)

G00 Z3.000000
G00 X50.624735 Y149.680868

G00 Z4.875000 (Fast pre-penetrate)
G01 Z-0.125000 F400.0(Penetrate)
G01 X57.700954 Y124.083841 Z-0.125000 F800.000000
G01 X47.759590 Y115.504396 Z-0.125000
G00 Z3.000000

(End cutting path id: path3477)


(Start cutting path id: path3475)
(Change tool to Default tool)

G00 Z3.000000
G00 X49.855624 Y149.737639

G00 Z4.875000 (Fast pre-penetrate)
G01 Z-0.125000 F400.0(Penetrate)
G01 X56.825338 Y124.247115 Z-0.125000 F800.000000
G01 X47.107808 Y115.443838 Z-0.125000
G00 Z3.000000

(End cutting path id: path3475)


(Start cutting path id: path3473)
(Change tool to Default tool)

G00 Z3.000000
G00 X49.086513 Y149.794413

G00 Z4.875000 (Fast pre-penetrate)
G01 Z-0.125000 F400.0(Penetrate)
G01 X55.949725 Y124.410392 Z-0.125000 F800.000000
G01 X46.456026 Y115.383280 Z-0.125000
G00 Z3.000000

(End cutting path id: path3473)


(Start cutting path id: path3471)
(Change tool to Default tool)

G00 Z3.000000
G00 X48.317402 Y149.851185

G00 Z4.875000 (Fast pre-penetrate)
G01 Z-0.125000 F400.0(Penetrate)
G01 X55.074111 Y124.573666 Z-0.125000 F800.000000
G01 X45.804247 Y115.322720 Z-0.125000
G00 Z3.000000

(End cutting path id: path3471)


(Start cutting path id: path3469)
(Change tool to Default tool)

G00 Z3.000000
G00 X47.548291 Y149.907956

G00 Z4.875000 (Fast pre-penetrate)
G01 Z-0.125000 F400.0(Penetrate)
G01 X54.198497 Y124.736943 Z-0.125000 F800.000000
G01 X45.152465 Y115.262162 Z-0.125000
G00 Z3.000000

(End cutting path id: path3469)


(Start cutting path id: path3467)
(Change tool to Default tool)

G00 Z3.000000
G00 X46.779180 Y149.964731

G00 Z4.875000 (Fast pre-penetrate)
G01 Z-0.125000 F400.0(Penetrate)
G01 X53.322884 Y124.900217 Z-0.125000 F800.000000
G01 X44.500684 Y115.201604 Z-0.125000
G00 Z3.000000

(End cutting path id: path3467)


(Start cutting path id: path3465)
(Change tool to Default tool)

G00 Z3.000000
G00 X46.010069 Y150.021502

G00 Z4.875000 (Fast pre-penetrate)
G01 Z-0.125000 F400.0(Penetrate)
G01 X52.447267 Y125.063491 Z-0.125000 F800.000000
G01 X43.848905 Y115.141046 Z-0.125000
G00 Z3.000000

(End cutting path id: path3465)


(Start cutting path id: path3463)
(Change tool to Default tool)

G00 Z3.000000
G00 X45.240958 Y150.078274

G00 Z4.875000 (Fast pre-penetrate)
G01 Z-0.125000 F400.0(Penetrate)
G01 X51.571654 Y125.226768 Z-0.125000 F800.000000
G01 X43.197123 Y115.080489 Z-0.125000
G00 Z3.000000

(End cutting path id: path3463)


(Start cutting path id: path3461)
(Change tool to Default tool)

G00 Z3.000000
G00 X44.471847 Y150.135048

G00 Z4.875000 (Fast pre-penetrate)
G01 Z-0.125000 F400.0(Penetrate)
G01 X50.696040 Y125.390042 Z-0.125000 F800.000000
G01 X42.545341 Y115.019931 Z-0.125000
G00 Z3.000000

(End cutting path id: path3461)


(Start cutting path id: path3459)
(Change tool to Default tool)

G00 Z3.000000
G00 X43.702736 Y150.191820

G00 Z4.875000 (Fast pre-penetrate)
G01 Z-0.125000 F400.0(Penetrate)
G01 X49.820427 Y125.553319 Z-0.125000 F800.000000
G01 X41.893560 Y114.959373 Z-0.125000
G00 Z3.000000

(End cutting path id: path3459)


(Start cutting path id: path3457)
(Change tool to Default tool)

G00 Z3.000000
G00 X42.933622 Y150.248591

G00 Z4.875000 (Fast pre-penetrate)
G01 Z-0.125000 F400.0(Penetrate)
G01 X48.944813 Y125.716593 Z-0.125000 F800.000000
G01 X41.241781 Y114.898815 Z-0.125000
G00 Z3.000000

(End cutting path id: path3457)


(Start cutting path id: path3455)
(Change tool to Default tool)

G00 Z3.000000
G00 X42.164511 Y150.305365

G00 Z4.875000 (Fast pre-penetrate)
G01 Z-0.125000 F400.0(Penetrate)
G01 X48.069197 Y125.879870 Z-0.125000 F800.000000
G01 X40.589999 Y114.838258 Z-0.125000
G00 Z3.000000

(End cutting path id: path3455)


(Start cutting path id: path3453)
(Change tool to Default tool)

G00 Z3.000000
G00 X41.395400 Y150.362137

G00 Z4.875000 (Fast pre-penetrate)
G01 Z-0.125000 F400.0(Penetrate)
G01 X47.193583 Y126.043144 Z-0.125000 F800.000000
G01 X39.938217 Y114.777700 Z-0.125000
G00 Z3.000000

(End cutting path id: path3453)


(Start cutting path id: path3451)
(Change tool to Default tool)

G00 Z3.000000
G00 X40.626289 Y150.418909

G00 Z4.875000 (Fast pre-penetrate)
G01 Z-0.125000 F400.0(Penetrate)
G01 X46.317969 Y126.206418 Z-0.125000 F800.000000
G01 X39.286438 Y114.717142 Z-0.125000
G00 Z3.000000

(End cutting path id: path3451)


(Start cutting path id: path3449)
(Change tool to Default tool)

G00 Z3.000000
G00 X39.857178 Y150.475683

G00 Z4.875000 (Fast pre-penetrate)
G01 Z-0.125000 F400.0(Penetrate)
G01 X45.442356 Y126.369695 Z-0.125000 F800.000000
G01 X38.634656 Y114.656584 Z-0.125000
G00 Z3.000000

(End cutting path id: path3449)


(Start cutting path id: path3447)
(Change tool to Default tool)

G00 Z3.000000
G00 X39.088067 Y150.532454

G00 Z4.875000 (Fast pre-penetrate)
G01 Z-0.125000 F400.0(Penetrate)
G01 X44.566742 Y126.532969 Z-0.125000 F800.000000
G01 X37.982875 Y114.596027 Z-0.125000
G00 Z3.000000

(End cutting path id: path3447)


(Start cutting path id: path3445)
(Change tool to Default tool)

G00 Z3.000000
G00 X38.318956 Y150.589226

G00 Z4.875000 (Fast pre-penetrate)
G01 Z-0.125000 F400.0(Penetrate)
G01 X43.691126 Y126.696246 Z-0.125000 F800.000000
G01 X37.331093 Y114.535469 Z-0.125000
G00 Z3.000000

(End cutting path id: path3445)


(Start cutting path id: path3443)
(Change tool to Default tool)

G00 Z3.000000
G00 X37.549845 Y150.645998

G00 Z4.875000 (Fast pre-penetrate)
G01 Z-0.125000 F400.0(Penetrate)
G01 X42.815512 Y126.859520 Z-0.125000 F800.000000
G01 X36.679314 Y114.474911 Z-0.125000
G00 Z3.000000

(End cutting path id: path3443)


(Start cutting path id: path3405)
(Change tool to Default tool)

G00 Z3.000000
G00 X25.683451 Y148.977955

G00 Z4.875000 (Fast pre-penetrate)
G01 Z-0.125000 F400.0(Penetrate)
G01 X27.293412 Y128.847184 Z-0.125000 F800.000000
G01 X22.968554 Y114.651232 Z-0.125000
G00 Z3.000000

(End cutting path id: path3405)


(Start cutting path id: path3377)
(Change tool to Default tool)

G00 Z3.000000
G00 X18.120399 Y146.568263

G00 Z4.875000 (Fast pre-penetrate)
G01 Z-0.125000 F400.0(Penetrate)
G01 X16.335141 Y129.832711 Z-0.125000 F800.000000
G01 X12.295543 Y115.351498 Z-0.125000
G00 Z3.000000

(End cutting path id: path3377)


(Start cutting path id: path3379)
(Change tool to Default tool)

G00 Z3.000000
G00 X18.660616 Y146.740385

G00 Z4.875000 (Fast pre-penetrate)
G01 Z-0.125000 F400.0(Penetrate)
G01 X17.117875 Y129.762316 Z-0.125000 F800.000000
G01 X13.057902 Y115.301479 Z-0.125000
G00 Z3.000000

(End cutting path id: path3379)


(Start cutting path id: path3381)
(Change tool to Default tool)

G00 Z3.000000
G00 X19.200834 Y146.912504

G00 Z4.875000 (Fast pre-penetrate)
G01 Z-0.125000 F400.0(Penetrate)
G01 X17.900607 Y129.691921 Z-0.125000 F800.000000
G01 X13.820258 Y115.251460 Z-0.125000
G00 Z3.000000

(End cutting path id: path3381)


(Start cutting path id: path3383)
(Change tool to Default tool)

G00 Z3.000000
G00 X19.741052 Y147.084626

G00 Z4.875000 (Fast pre-penetrate)
G01 Z-0.125000 F400.0(Penetrate)
G01 X18.683341 Y129.621526 Z-0.125000 F800.000000
G01 X14.582617 Y115.201440 Z-0.125000
G00 Z3.000000

(End cutting path id: path3383)


(Start cutting path id: path3385)
(Change tool to Default tool)

G00 Z3.000000
G00 X20.281272 Y147.256747

G00 Z4.875000 (Fast pre-penetrate)
G01 Z-0.125000 F400.0(Penetrate)
G01 X19.466076 Y129.551131 Z-0.125000 F800.000000
G01 X15.344976 Y115.151421 Z-0.125000
G00 Z3.000000

(End cutting path id: path3385)


(Start cutting path id: path3387)
(Change tool to Default tool)

G00 Z3.000000
G00 X20.821489 Y147.428867

G00 Z4.875000 (Fast pre-penetrate)
G01 Z-0.125000 F400.0(Penetrate)
G01 X20.248808 Y129.480736 Z-0.125000 F800.000000
G01 X16.107332 Y115.101404 Z-0.125000
G00 Z3.000000

(End cutting path id: path3387)


(Start cutting path id: path3389)
(Change tool to Default tool)

G00 Z3.000000
G00 X21.361707 Y147.600988

G00 Z4.875000 (Fast pre-penetrate)
G01 Z-0.125000 F400.0(Penetrate)
G01 X21.031542 Y129.410341 Z-0.125000 F800.000000
G01 X16.869691 Y115.051385 Z-0.125000
G00 Z3.000000

(End cutting path id: path3389)


(Start cutting path id: path3391)
(Change tool to Default tool)

G00 Z3.000000
G00 X21.901925 Y147.773108

G00 Z4.875000 (Fast pre-penetrate)
G01 Z-0.125000 F400.0(Penetrate)
G01 X21.814276 Y129.339949 Z-0.125000 F800.000000
G01 X17.632047 Y115.001365 Z-0.125000
G00 Z3.000000

(End cutting path id: path3391)


(Start cutting path id: path3393)
(Change tool to Default tool)

G00 Z3.000000
G00 X22.442142 Y147.945229

G00 Z4.875000 (Fast pre-penetrate)
G01 Z-0.125000 F400.0(Penetrate)
G01 X22.597011 Y129.269554 Z-0.125000 F800.000000
G01 X18.394406 Y114.951346 Z-0.125000
G00 Z3.000000

(End cutting path id: path3393)


(Start cutting path id: path3395)
(Change tool to Default tool)

G00 Z3.000000
G00 X22.982360 Y148.117351

G00 Z4.875000 (Fast pre-penetrate)
G01 Z-0.125000 F400.0(Penetrate)
G01 X23.379742 Y129.199159 Z-0.125000 F800.000000
G01 X19.156765 Y114.901326 Z-0.125000
G00 Z3.000000

(End cutting path id: path3395)


(Start cutting path id: path3397)
(Change tool to Default tool)

G00 Z3.000000
G00 X23.522578 Y148.289471

G00 Z4.875000 (Fast pre-penetrate)
G01 Z-0.125000 F400.0(Penetrate)
G01 X24.162477 Y129.128764 Z-0.125000 F800.000000
G01 X19.919121 Y114.851307 Z-0.125000
G00 Z3.000000

(End cutting path id: path3397)


(Start cutting path id: path3399)
(Change tool to Default tool)

G00 Z3.000000
G00 X24.062795 Y148.461592

G00 Z4.875000 (Fast pre-penetrate)
G01 Z-0.125000 F400.0(Penetrate)
G01 X24.945211 Y129.058369 Z-0.125000 F800.000000
G01 X20.681480 Y114.801290 Z-0.125000
G00 Z3.000000

(End cutting path id: path3399)


(Start cutting path id: path3401)
(Change tool to Default tool)

G00 Z3.000000
G00 X24.603016 Y148.633714

G00 Z4.875000 (Fast pre-penetrate)
G01 Z-0.125000 F400.0(Penetrate)
G01 X25.727943 Y128.987974 Z-0.125000 F800.000000
G01 X21.443836 Y114.751271 Z-0.125000
G00 Z3.000000

(End cutting path id: path3401)


(Start cutting path id: path3403)
(Change tool to Default tool)

G00 Z3.000000
G00 X25.143233 Y148.805833

G00 Z4.875000 (Fast pre-penetrate)
G01 Z-0.125000 F400.0(Penetrate)
G01 X26.510677 Y128.917579 Z-0.125000 F800.000000
G01 X22.206195 Y114.701251 Z-0.125000
G00 Z3.000000

(End cutting path id: path3403)


(Start cutting path id: path3407)
(Change tool to Default tool)

G00 Z3.000000
G00 X26.223668 Y149.150077

G00 Z4.875000 (Fast pre-penetrate)
G01 Z-0.125000 F400.0(Penetrate)
G01 X28.076144 Y128.776789 Z-0.125000 F800.000000
G01 X23.730910 Y114.601212 Z-0.125000
G00 Z3.000000

(End cutting path id: path3407)


(Start cutting path id: path3409)
(Change tool to Default tool)

G00 Z3.000000
G00 X26.763886 Y149.322196

G00 Z4.875000 (Fast pre-penetrate)
G01 Z-0.125000 F400.0(Penetrate)
G01 X28.858878 Y128.706394 Z-0.125000 F800.000000
G01 X24.493269 Y114.551193 Z-0.125000
G00 Z3.000000

(End cutting path id: path3409)


(Start cutting path id: path3411)
(Change tool to Default tool)

G00 Z3.000000
G00 X27.304104 Y149.494318

G00 Z4.875000 (Fast pre-penetrate)
G01 Z-0.125000 F400.0(Penetrate)
G01 X29.641612 Y128.635999 Z-0.125000 F800.000000
G01 X25.255625 Y114.501176 Z-0.125000
G00 Z3.000000

(End cutting path id: path3411)


(Start cutting path id: path3413)
(Change tool to Default tool)

G00 Z3.000000
G00 X27.844321 Y149.666440

G00 Z4.875000 (Fast pre-penetrate)
G01 Z-0.125000 F400.0(Penetrate)
G01 X30.424344 Y128.565607 Z-0.125000 F800.000000
G01 X26.017984 Y114.451157 Z-0.125000
G00 Z3.000000

(End cutting path id: path3413)


(Start cutting path id: path3415)
(Change tool to Default tool)

G00 Z3.000000
G00 X28.384539 Y149.838559

G00 Z4.875000 (Fast pre-penetrate)
G01 Z-0.125000 F400.0(Penetrate)
G01 X31.207079 Y128.495212 Z-0.125000 F800.000000
G01 X26.780343 Y114.401137 Z-0.125000
G00 Z3.000000

(End cutting path id: path3415)


(Start cutting path id: path3417)
(Change tool to Default tool)

G00 Z3.000000
G00 X28.924759 Y150.010681

G00 Z4.875000 (Fast pre-penetrate)
G01 Z-0.125000 F400.0(Penetrate)
G01 X31.989813 Y128.424817 Z-0.125000 F800.000000
G01 X27.542699 Y114.351118 Z-0.125000
G00 Z3.000000

(End cutting path id: path3417)


(Start cutting path id: path3419)
(Change tool to Default tool)

G00 Z3.000000
G00 X29.464977 Y150.182800

G00 Z4.875000 (Fast pre-penetrate)
G01 Z-0.125000 F400.0(Penetrate)
G01 X32.772545 Y128.354422 Z-0.125000 F800.000000
G01 X28.305058 Y114.301099 Z-0.125000
G00 Z3.000000

(End cutting path id: path3419)


(Start cutting path id: path3421)
(Change tool to Default tool)

G00 Z3.000000
G00 X30.005195 Y150.354922

G00 Z4.875000 (Fast pre-penetrate)
G01 Z-0.125000 F400.0(Penetrate)
G01 X33.555279 Y128.284027 Z-0.125000 F800.000000
G01 X29.067414 Y114.251082 Z-0.125000
G00 Z3.000000

(End cutting path id: path3421)


(Start cutting path id: path3423)
(Change tool to Default tool)

G00 Z3.000000
G00 X30.545412 Y150.527044

G00 Z4.875000 (Fast pre-penetrate)
G01 Z-0.125000 F400.0(Penetrate)
G01 X34.338014 Y128.213632 Z-0.125000 F800.000000
G01 X29.829773 Y114.201062 Z-0.125000
G00 Z3.000000

(End cutting path id: path3423)


(Start cutting path id: path3425)
(Change tool to Default tool)

G00 Z3.000000
G00 X31.085630 Y150.699163

G00 Z4.875000 (Fast pre-penetrate)
G01 Z-0.125000 F400.0(Penetrate)
G01 X35.120745 Y128.143237 Z-0.125000 F800.000000
G01 X30.592132 Y114.151043 Z-0.125000
G00 Z3.000000

(End cutting path id: path3425)


(Start cutting path id: path3427)
(Change tool to Default tool)

G00 Z3.000000
G00 X31.625847 Y150.871285

G00 Z4.875000 (Fast pre-penetrate)
G01 Z-0.125000 F400.0(Penetrate)
G01 X35.903480 Y128.072842 Z-0.125000 F800.000000
G01 X31.354488 Y114.101024 Z-0.125000
G00 Z3.000000

(End cutting path id: path3427)


(Start cutting path id: path3433)
(Change tool to Default tool)

G00 Z3.000000
G00 X33.704290 Y150.929861

G00 Z4.875000 (Fast pre-penetrate)
G01 Z-0.125000 F400.0(Penetrate)
G01 X38.437441 Y127.675896 Z-0.125000 F800.000000
G01 X33.420408 Y114.172120 Z-0.125000
G00 Z3.000000

(End cutting path id: path3433)


(Start cutting path id: path3439)
(Change tool to Default tool)

G00 Z3.000000
G00 X36.011623 Y150.759543

G00 Z4.875000 (Fast pre-penetrate)
G01 Z-0.125000 F400.0(Penetrate)
G01 X41.064285 Y127.186071 Z-0.125000 F800.000000
G01 X35.375751 Y114.353796 Z-0.125000
G00 Z3.000000

(End cutting path id: path3439)


(Start cutting path id: path3441)
(Change tool to Default tool)

G00 Z3.000000
G00 X36.780734 Y150.702772

G00 Z4.875000 (Fast pre-penetrate)
G01 Z-0.125000 F400.0(Penetrate)
G01 X41.939899 Y127.022797 Z-0.125000 F800.000000
G01 X36.027532 Y114.414353 Z-0.125000
G00 Z3.000000

(End cutting path id: path3441)


(Start cutting path id: path3437)
(Change tool to Default tool)

G00 Z3.000000
G00 X35.242512 Y150.816315

G00 Z4.875000 (Fast pre-penetrate)
G01 Z-0.125000 F400.0(Penetrate)
G01 X40.188671 Y127.349348 Z-0.125000 F800.000000
G01 X34.723971 Y114.293235 Z-0.125000
G00 Z3.000000

(End cutting path id: path3437)


(Start cutting path id: path3435)
(Change tool to Default tool)

G00 Z3.000000
G00 X34.473401 Y150.873089

G00 Z4.875000 (Fast pre-penetrate)
G01 Z-0.125000 F400.0(Penetrate)
G01 X39.313055 Y127.512622 Z-0.125000 F800.000000
G01 X34.072190 Y114.232677 Z-0.125000
G00 Z3.000000

(End cutting path id: path3435)


(Start cutting path id: path3431)
(Change tool to Default tool)

G00 Z3.000000
G00 X32.935176 Y150.986632

G00 Z4.875000 (Fast pre-penetrate)
G01 Z-0.125000 F400.0(Penetrate)
G01 X37.561828 Y127.839173 Z-0.125000 F800.000000
G01 X32.768629 Y114.111562 Z-0.125000
G00 Z3.000000

(End cutting path id: path3431)


(Start cutting path id: path3429)
(Change tool to Default tool)

G00 Z3.000000
G00 X32.166065 Y151.043406

G00 Z4.875000 (Fast pre-penetrate)
G01 Z-0.125000 F400.0(Penetrate)
G01 X36.686214 Y128.002447 Z-0.125000 F800.000000
G01 X32.116847 Y114.051004 Z-0.125000
G00 Z3.000000

(End cutting path id: path3429)



(Footer)
M5
G00 X0.0000 Y0.0000
M2
(Using default footer. To add your own footer create file "footer" in the output dir.)
(end)
%