%
(Header)
(Generated by gcodetools from Inkscape.)
(Using default header. To add your own header create file "header" in the output dir.)
M3
(Header end.)
G21 (All units in mm)

(Start cutting path id: path14578)
(Change tool to Default tool)

G00 Z3.000000
G00 X74.796421 Y75.170621

G00 Z4.875000 (Fast pre-penetrate)
G01 Z-0.125000 F400.0(Penetrate)
G01 X92.807541 Y75.680311 Z-0.125000 F800.000000
G01 X111.589000 Y75.419662 Z-0.125000
G00 Z3.000000

(End cutting path id: path14578)


(Start cutting path id: path14526)
(Change tool to Default tool)

G00 Z3.000000
G00 X80.174203 Y88.313649

G00 Z4.875000 (Fast pre-penetrate)
G01 Z-0.125000 F400.0(Penetrate)
G01 X94.597254 Y92.411407 Z-0.125000 F800.000000
G01 X114.563209 Y90.966263 Z-0.125000
G00 Z3.000000

(End cutting path id: path14526)


(Start cutting path id: path14524)
(Change tool to Default tool)

G00 Z3.000000
G00 X80.119685 Y89.080506

G00 Z4.875000 (Fast pre-penetrate)
G01 Z-0.125000 F400.0(Penetrate)
G01 X94.656203 Y93.064797 Z-0.125000 F800.000000
G01 X114.168485 Y92.073323 Z-0.125000
G00 Z3.000000

(End cutting path id: path14524)


(Start cutting path id: path14522)
(Change tool to Default tool)

G00 Z3.000000
G00 X80.065168 Y89.847360

G00 Z4.875000 (Fast pre-penetrate)
G01 Z-0.125000 F400.0(Penetrate)
G01 X94.715153 Y93.718188 Z-0.125000 F800.000000
G01 X113.773765 Y93.180383 Z-0.125000
G00 Z3.000000

(End cutting path id: path14522)


(Start cutting path id: path14520)
(Change tool to Default tool)

G00 Z3.000000
G00 X80.010651 Y90.614217

G00 Z4.875000 (Fast pre-penetrate)
G01 Z-0.125000 F400.0(Penetrate)
G01 X94.774102 Y94.371578 Z-0.125000 F800.000000
G01 X113.379044 Y94.287446 Z-0.125000
G00 Z3.000000

(End cutting path id: path14520)


(Start cutting path id: path14516)
(Change tool to Default tool)

G00 Z3.000000
G00 X79.901616 Y92.147927

G00 Z4.875000 (Fast pre-penetrate)
G01 Z-0.125000 F400.0(Penetrate)
G01 X94.891997 Y95.678359 Z-0.125000 F800.000000
G01 X112.589600 Y96.501567 Z-0.125000
G00 Z3.000000

(End cutting path id: path14516)


(Start cutting path id: path14510)
(Change tool to Default tool)

G00 Z3.000000
G00 X79.738067 Y94.448495

G00 Z4.875000 (Fast pre-penetrate)
G01 Z-0.125000 F400.0(Penetrate)
G01 X95.068844 Y97.638527 Z-0.125000 F800.000000
G01 X111.405434 Y99.822750 Z-0.125000
G00 Z3.000000

(End cutting path id: path14510)


(Start cutting path id: path14502)
(Change tool to Default tool)

G00 Z3.000000
G00 X79.519997 Y97.515920

G00 Z4.875000 (Fast pre-penetrate)
G01 Z-0.125000 F400.0(Penetrate)
G01 X95.304638 Y100.252089 Z-0.125000 F800.000000
G01 X109.826546 Y104.250991 Z-0.125000
G00 Z3.000000

(End cutting path id: path14502)


(Start cutting path id: path14490)
(Change tool to Default tool)

G00 Z3.000000
G00 X79.192896 Y102.117055

G00 Z4.875000 (Fast pre-penetrate)
G01 Z-0.125000 F400.0(Penetrate)
G01 X95.658330 Y104.172428 Z-0.125000 F800.000000
G01 X107.458213 Y110.893358 Z-0.125000
G00 Z3.000000

(End cutting path id: path14490)


(Start cutting path id: path14474)
(Change tool to Default tool)

G00 Z3.000000
G00 X78.756760 Y108.251901

G00 Z4.875000 (Fast pre-penetrate)
G01 Z-0.125000 F400.0(Penetrate)
G01 X96.129920 Y109.399551 Z-0.125000 F800.000000
G01 X104.300439 Y119.749842 Z-0.125000
G00 Z3.000000

(End cutting path id: path14474)


(Start cutting path id: path14476)
(Change tool to Default tool)

G00 Z3.000000
G00 X78.811275 Y107.485047

G00 Z4.875000 (Fast pre-penetrate)
G01 Z-0.125000 F400.0(Penetrate)
G01 X96.070971 Y108.746161 Z-0.125000 F800.000000
G01 X104.695160 Y118.642782 Z-0.125000
G00 Z3.000000

(End cutting path id: path14476)


(Start cutting path id: path14478)
(Change tool to Default tool)

G00 Z3.000000
G00 X78.865792 Y106.718190

G00 Z4.875000 (Fast pre-penetrate)
G01 Z-0.125000 F400.0(Penetrate)
G01 X96.012022 Y108.092771 Z-0.125000 F800.000000
G01 X105.089883 Y117.535722 Z-0.125000
G00 Z3.000000

(End cutting path id: path14478)


(Start cutting path id: path14480)
(Change tool to Default tool)

G00 Z3.000000
G00 X78.920309 Y105.951334

G00 Z4.875000 (Fast pre-penetrate)
G01 Z-0.125000 F400.0(Penetrate)
G01 X95.953076 Y107.439380 Z-0.125000 F800.000000
G01 X105.484604 Y116.428662 Z-0.125000
G00 Z3.000000

(End cutting path id: path14480)


(Start cutting path id: path14482)
(Change tool to Default tool)

G00 Z3.000000
G00 X78.974827 Y105.184480

G00 Z4.875000 (Fast pre-penetrate)
G01 Z-0.125000 F400.0(Penetrate)
G01 X95.894126 Y106.785990 Z-0.125000 F800.000000
G01 X105.879327 Y115.321599 Z-0.125000
G00 Z3.000000

(End cutting path id: path14482)


(Start cutting path id: path14484)
(Change tool to Default tool)

G00 Z3.000000
G00 X79.029344 Y104.417623

G00 Z4.875000 (Fast pre-penetrate)
G01 Z-0.125000 F400.0(Penetrate)
G01 X95.835177 Y106.132599 Z-0.125000 F800.000000
G01 X106.274048 Y114.214539 Z-0.125000
G00 Z3.000000

(End cutting path id: path14484)


(Start cutting path id: path14486)
(Change tool to Default tool)

G00 Z3.000000
G00 X79.083861 Y103.650766

G00 Z4.875000 (Fast pre-penetrate)
G01 Z-0.125000 F400.0(Penetrate)
G01 X95.776228 Y105.479209 Z-0.125000 F800.000000
G01 X106.668769 Y113.107478 Z-0.125000
G00 Z3.000000

(End cutting path id: path14486)


(Start cutting path id: path14488)
(Change tool to Default tool)

G00 Z3.000000
G00 X79.138379 Y102.883912

G00 Z4.875000 (Fast pre-penetrate)
G01 Z-0.125000 F400.0(Penetrate)
G01 X95.717279 Y104.825819 Z-0.125000 F800.000000
G01 X107.063493 Y112.000418 Z-0.125000
G00 Z3.000000

(End cutting path id: path14488)


(Start cutting path id: path14492)
(Change tool to Default tool)

G00 Z3.000000
G00 X79.247413 Y101.350198

G00 Z4.875000 (Fast pre-penetrate)
G01 Z-0.125000 F400.0(Penetrate)
G01 X95.599384 Y103.519041 Z-0.125000 F800.000000
G01 X107.852937 Y109.786295 Z-0.125000
G00 Z3.000000

(End cutting path id: path14492)


(Start cutting path id: path14494)
(Change tool to Default tool)

G00 Z3.000000
G00 X79.301931 Y100.583344

G00 Z4.875000 (Fast pre-penetrate)
G01 Z-0.125000 F400.0(Penetrate)
G01 X95.540435 Y102.865650 Z-0.125000 F800.000000
G01 X108.247658 Y108.679235 Z-0.125000
G00 Z3.000000

(End cutting path id: path14494)


(Start cutting path id: path14496)
(Change tool to Default tool)

G00 Z3.000000
G00 X79.356445 Y99.816487

G00 Z4.875000 (Fast pre-penetrate)
G01 Z-0.125000 F400.0(Penetrate)
G01 X95.481485 Y102.212260 Z-0.125000 F800.000000
G01 X108.642381 Y107.572174 Z-0.125000
G00 Z3.000000

(End cutting path id: path14496)


(Start cutting path id: path14498)
(Change tool to Default tool)

G00 Z3.000000
G00 X79.410963 Y99.049631

G00 Z4.875000 (Fast pre-penetrate)
G01 Z-0.125000 F400.0(Penetrate)
G01 X95.422536 Y101.558870 Z-0.125000 F800.000000
G01 X109.037102 Y106.465114 Z-0.125000
G00 Z3.000000

(End cutting path id: path14498)


(Start cutting path id: path14500)
(Change tool to Default tool)

G00 Z3.000000
G00 X79.465480 Y98.282776

G00 Z4.875000 (Fast pre-penetrate)
G01 Z-0.125000 F400.0(Penetrate)
G01 X95.363587 Y100.905479 Z-0.125000 F800.000000
G01 X109.431823 Y105.358054 Z-0.125000
G00 Z3.000000

(End cutting path id: path14500)


(Start cutting path id: path14504)
(Change tool to Default tool)

G00 Z3.000000
G00 X79.574515 Y96.749063

G00 Z4.875000 (Fast pre-penetrate)
G01 Z-0.125000 F400.0(Penetrate)
G01 X95.245689 Y99.598698 Z-0.125000 F800.000000
G01 X110.221267 Y103.143931 Z-0.125000
G00 Z3.000000

(End cutting path id: path14504)


(Start cutting path id: path14506)
(Change tool to Default tool)

G00 Z3.000000
G00 X79.629032 Y95.982209

G00 Z4.875000 (Fast pre-penetrate)
G01 Z-0.125000 F400.0(Penetrate)
G01 X95.186743 Y98.945308 Z-0.125000 F800.000000
G01 X110.615990 Y102.036871 Z-0.125000
G00 Z3.000000

(End cutting path id: path14506)


(Start cutting path id: path14508)
(Change tool to Default tool)

G00 Z3.000000
G00 X79.683549 Y95.215352

G00 Z4.875000 (Fast pre-penetrate)
G01 Z-0.125000 F400.0(Penetrate)
G01 X95.127794 Y98.291918 Z-0.125000 F800.000000
G01 X111.010711 Y100.929810 Z-0.125000
G00 Z3.000000

(End cutting path id: path14508)


(Start cutting path id: path14512)
(Change tool to Default tool)

G00 Z3.000000
G00 X79.792584 Y93.681641

G00 Z4.875000 (Fast pre-penetrate)
G01 Z-0.125000 F400.0(Penetrate)
G01 X95.009895 Y96.985137 Z-0.125000 F800.000000
G01 X111.800155 Y98.715687 Z-0.125000
G00 Z3.000000

(End cutting path id: path14512)


(Start cutting path id: path14514)
(Change tool to Default tool)

G00 Z3.000000
G00 X79.847101 Y92.914784

G00 Z4.875000 (Fast pre-penetrate)
G01 Z-0.125000 F400.0(Penetrate)
G01 X94.950946 Y96.331747 Z-0.125000 F800.000000
G01 X112.194876 Y97.608627 Z-0.125000
G00 Z3.000000

(End cutting path id: path14514)


(Start cutting path id: path14518)
(Change tool to Default tool)

G00 Z3.000000
G00 X79.956133 Y91.381073

G00 Z4.875000 (Fast pre-penetrate)
G01 Z-0.125000 F400.0(Penetrate)
G01 X94.833048 Y95.024969 Z-0.125000 F800.000000
G01 X112.984320 Y95.394506 Z-0.125000
G00 Z3.000000

(End cutting path id: path14518)


(Start cutting path id: path14528)
(Change tool to Default tool)

G00 Z3.000000
G00 X79.967365 Y87.808147

G00 Z4.875000 (Fast pre-penetrate)
G01 Z-0.125000 F400.0(Penetrate)
G01 X94.528420 Y91.767904 Z-0.125000 F800.000000
G01 X114.448816 Y90.368316 Z-0.125000
G00 Z3.000000

(End cutting path id: path14528)


(Start cutting path id: path14530)
(Change tool to Default tool)

G00 Z3.000000
G00 X79.760527 Y87.302648

G00 Z4.875000 (Fast pre-penetrate)
G01 Z-0.125000 F400.0(Penetrate)
G01 X94.459584 Y91.124399 Z-0.125000 F800.000000
G01 X114.334424 Y89.770371 Z-0.125000
G00 Z3.000000

(End cutting path id: path14530)


(Start cutting path id: path14532)
(Change tool to Default tool)

G00 Z3.000000
G00 X79.553689 Y86.797146

G00 Z4.875000 (Fast pre-penetrate)
G01 Z-0.125000 F400.0(Penetrate)
G01 X94.390750 Y90.480896 Z-0.125000 F800.000000
G01 X114.220031 Y89.172424 Z-0.125000
G00 Z3.000000

(End cutting path id: path14532)


(Start cutting path id: path14534)
(Change tool to Default tool)

G00 Z3.000000
G00 X79.346852 Y86.291645

G00 Z4.875000 (Fast pre-penetrate)
G01 Z-0.125000 F400.0(Penetrate)
G01 X94.321913 Y89.837393 Z-0.125000 F800.000000
G01 X114.105639 Y88.574477 Z-0.125000
G00 Z3.000000

(End cutting path id: path14534)


(Start cutting path id: path14536)
(Change tool to Default tool)

G00 Z3.000000
G00 X79.140014 Y85.786143

G00 Z4.875000 (Fast pre-penetrate)
G01 Z-0.125000 F400.0(Penetrate)
G01 X94.253080 Y89.193887 Z-0.125000 F800.000000
G01 X113.991246 Y87.976533 Z-0.125000
G00 Z3.000000

(End cutting path id: path14536)


(Start cutting path id: path14538)
(Change tool to Default tool)

G00 Z3.000000
G00 X78.933176 Y85.280641

G00 Z4.875000 (Fast pre-penetrate)
G01 Z-0.125000 F400.0(Penetrate)
G01 X94.184243 Y88.550384 Z-0.125000 F800.000000
G01 X113.876854 Y87.378586 Z-0.125000
G00 Z3.000000

(End cutting path id: path14538)


(Start cutting path id: path14540)
(Change tool to Default tool)

G00 Z3.000000
G00 X78.726338 Y84.775142

G00 Z4.875000 (Fast pre-penetrate)
G01 Z-0.125000 F400.0(Penetrate)
G01 X94.115409 Y87.906882 Z-0.125000 F800.000000
G01 X113.762462 Y86.780639 Z-0.125000
G00 Z3.000000

(End cutting path id: path14540)


(Start cutting path id: path14542)
(Change tool to Default tool)

G00 Z3.000000
G00 X78.519501 Y84.269641

G00 Z4.875000 (Fast pre-penetrate)
G01 Z-0.125000 F400.0(Penetrate)
G01 X94.046575 Y87.263376 Z-0.125000 F800.000000
G01 X113.648066 Y86.182692 Z-0.125000
G00 Z3.000000

(End cutting path id: path14542)


(Start cutting path id: path14544)
(Change tool to Default tool)

G00 Z3.000000
G00 X78.312663 Y83.764139

G00 Z4.875000 (Fast pre-penetrate)
G01 Z-0.125000 F400.0(Penetrate)
G01 X93.977739 Y86.619873 Z-0.125000 F800.000000
G01 X113.533674 Y85.584748 Z-0.125000
G00 Z3.000000

(End cutting path id: path14544)


(Start cutting path id: path14546)
(Change tool to Default tool)

G00 Z3.000000
G00 X78.105825 Y83.258637

G00 Z4.875000 (Fast pre-penetrate)
G01 Z-0.125000 F400.0(Penetrate)
G01 X93.908905 Y85.976370 Z-0.125000 F800.000000
G01 X113.419282 Y84.986801 Z-0.125000
G00 Z3.000000

(End cutting path id: path14546)


(Start cutting path id: path14548)
(Change tool to Default tool)

G00 Z3.000000
G00 X77.898987 Y82.753138

G00 Z4.875000 (Fast pre-penetrate)
G01 Z-0.125000 F400.0(Penetrate)
G01 X93.840068 Y85.332865 Z-0.125000 F800.000000
G01 X113.304889 Y84.388854 Z-0.125000
G00 Z3.000000

(End cutting path id: path14548)


(Start cutting path id: path14550)
(Change tool to Default tool)

G00 Z3.000000
G00 X77.692150 Y82.247636

G00 Z4.875000 (Fast pre-penetrate)
G01 Z-0.125000 F400.0(Penetrate)
G01 X93.771234 Y84.689362 Z-0.125000 F800.000000
G01 X113.190497 Y83.790909 Z-0.125000
G00 Z3.000000

(End cutting path id: path14550)


(Start cutting path id: path14552)
(Change tool to Default tool)

G00 Z3.000000
G00 X77.485312 Y81.742135

G00 Z4.875000 (Fast pre-penetrate)
G01 Z-0.125000 F400.0(Penetrate)
G01 X93.702398 Y84.045859 Z-0.125000 F800.000000
G01 X113.076104 Y83.192962 Z-0.125000
G00 Z3.000000

(End cutting path id: path14552)


(Start cutting path id: path14554)
(Change tool to Default tool)

G00 Z3.000000
G00 X77.278474 Y81.236633

G00 Z4.875000 (Fast pre-penetrate)
G01 Z-0.125000 F400.0(Penetrate)
G01 X93.633564 Y83.402353 Z-0.125000 F800.000000
G01 X112.961712 Y82.595015 Z-0.125000
G00 Z3.000000

(End cutting path id: path14554)


(Start cutting path id: path14556)
(Change tool to Default tool)

G00 Z3.000000
G00 X77.071636 Y80.731134

G00 Z4.875000 (Fast pre-penetrate)
G01 Z-0.125000 F400.0(Penetrate)
G01 X93.564727 Y82.758850 Z-0.125000 F800.000000
G01 X112.847319 Y81.997068 Z-0.125000
G00 Z3.000000

(End cutting path id: path14556)


(Start cutting path id: path14558)
(Change tool to Default tool)

G00 Z3.000000
G00 X76.864799 Y80.225632

G00 Z4.875000 (Fast pre-penetrate)
G01 Z-0.125000 F400.0(Penetrate)
G01 X93.495893 Y82.115348 Z-0.125000 F800.000000
G01 X112.732927 Y81.399124 Z-0.125000
G00 Z3.000000

(End cutting path id: path14558)


(Start cutting path id: path14560)
(Change tool to Default tool)

G00 Z3.000000
G00 X76.657961 Y79.720131

G00 Z4.875000 (Fast pre-penetrate)
G01 Z-0.125000 F400.0(Penetrate)
G01 X93.427059 Y81.471842 Z-0.125000 F800.000000
G01 X112.618534 Y80.801177 Z-0.125000
G00 Z3.000000

(End cutting path id: path14560)


(Start cutting path id: path14562)
(Change tool to Default tool)

G00 Z3.000000
G00 X76.451123 Y79.214629

G00 Z4.875000 (Fast pre-penetrate)
G01 Z-0.125000 F400.0(Penetrate)
G01 X93.358223 Y80.828339 Z-0.125000 F800.000000
G01 X112.504142 Y80.203230 Z-0.125000
G00 Z3.000000

(End cutting path id: path14562)


(Start cutting path id: path14564)
(Change tool to Default tool)

G00 Z3.000000
G00 X76.244285 Y78.709127

G00 Z4.875000 (Fast pre-penetrate)
G01 Z-0.125000 F400.0(Penetrate)
G01 X93.289389 Y80.184836 Z-0.125000 F800.000000
G01 X112.389749 Y79.605286 Z-0.125000
G00 Z3.000000

(End cutting path id: path14564)


(Start cutting path id: path14566)
(Change tool to Default tool)

G00 Z3.000000
G00 X76.037447 Y78.203628

G00 Z4.875000 (Fast pre-penetrate)
G01 Z-0.125000 F400.0(Penetrate)
G01 X93.220552 Y79.541331 Z-0.125000 F800.000000
G01 X112.275357 Y79.007339 Z-0.125000
G00 Z3.000000

(End cutting path id: path14566)


(Start cutting path id: path14568)
(Change tool to Default tool)

G00 Z3.000000
G00 X75.830610 Y77.698126

G00 Z4.875000 (Fast pre-penetrate)
G01 Z-0.125000 F400.0(Penetrate)
G01 X93.151718 Y78.897828 Z-0.125000 F800.000000
G01 X112.160964 Y78.409392 Z-0.125000
G00 Z3.000000

(End cutting path id: path14568)


(Start cutting path id: path14570)
(Change tool to Default tool)

G00 Z3.000000
G00 X75.623772 Y77.192625

G00 Z4.875000 (Fast pre-penetrate)
G01 Z-0.125000 F400.0(Penetrate)
G01 X93.082882 Y78.254325 Z-0.125000 F800.000000
G01 X112.046572 Y77.811445 Z-0.125000
G00 Z3.000000

(End cutting path id: path14570)


(Start cutting path id: path14572)
(Change tool to Default tool)

G00 Z3.000000
G00 X75.416934 Y76.687123

G00 Z4.875000 (Fast pre-penetrate)
G01 Z-0.125000 F400.0(Penetrate)
G01 X93.014048 Y77.610819 Z-0.125000 F800.000000
G01 X111.932180 Y77.213500 Z-0.125000
G00 Z3.000000

(End cutting path id: path14572)


(Start cutting path id: path14574)
(Change tool to Default tool)

G00 Z3.000000
G00 X75.210096 Y76.181624

G00 Z4.875000 (Fast pre-penetrate)
G01 Z-0.125000 F400.0(Penetrate)
G01 X92.945211 Y76.967316 Z-0.125000 F800.000000
G01 X111.817787 Y76.615553 Z-0.125000
G00 Z3.000000

(End cutting path id: path14574)


(Start cutting path id: path14576)
(Change tool to Default tool)

G00 Z3.000000
G00 X75.003259 Y75.676122

G00 Z4.875000 (Fast pre-penetrate)
G01 Z-0.125000 F400.0(Penetrate)
G01 X92.876377 Y76.323814 Z-0.125000 F800.000000
G01 X111.703392 Y76.017606 Z-0.125000
G00 Z3.000000

(End cutting path id: path14576)



(Footer)
M5
G00 X0.0000 Y0.0000
M2
(Using default footer. To add your own footer create file "footer" in the output dir.)
(end)
%