%
(Header)
(Generated by gcodetools from Inkscape.)
(Using default header. To add your own header create file "header" in the output dir.)
M3
(Header end.)
G21 (All units in mm)

(Start cutting path id: polyline6525)
(Change tool to Default tool)

G00 Z3.000000
G00 X116.621598 Y162.221909

G00 Z4.875000 (Fast pre-penetrate)
G01 Z-0.125000 F400.0(Penetrate)
G01 X115.902715 Y166.415864 Z-0.125000 F800.000000
G01 X114.910419 Y169.741197 Z-0.125000
G01 X113.689600 Y172.100301 Z-0.125000
G01 X112.151383 Y173.673252 Z-0.125000
G01 X110.221448 Y174.570723 Z-0.125000
G01 X107.554197 Y174.954032 Z-0.125000
G01 X103.913925 Y174.838056 Z-0.125000
G01 X99.313633 Y174.237349 Z-0.125000
G01 X92.232959 Y172.697062 Z-0.125000
G01 X85.238247 Y170.502511 Z-0.125000
G01 X58.756738 Y159.565912 Z-0.125000
G01 X55.430952 Y157.731255 Z-0.125000
G01 X53.053220 Y155.811087 Z-0.125000
G01 X51.379687 Y153.645126 Z-0.125000
G01 X50.284287 Y151.065260 Z-0.125000
G01 X49.760811 Y147.665219 Z-0.125000
G01 X50.008998 Y143.542545 Z-0.125000
G01 X51.043790 Y138.989730 Z-0.125000
G01 X52.799276 Y134.206711 Z-0.125000
G01 X54.858447 Y130.149754 Z-0.125000
G01 X57.495362 Y126.274554 Z-0.125000
G01 X60.492431 Y122.934409 Z-0.125000
G01 X63.920867 Y120.006940 Z-0.125000
G01 X67.431645 Y117.708896 Z-0.125000
G01 X71.118294 Y115.875662 Z-0.125000
G01 X75.113415 Y114.425219 Z-0.125000
G01 X79.283049 Y113.397025 Z-0.125000
G01 X83.920598 Y112.718181 Z-0.125000
G01 X89.543715 Y112.349361 Z-0.125000
G01 X98.037834 Y112.191535 Z-0.125000
G01 X102.351710 Y112.524198 Z-0.125000
G01 X104.977630 Y113.173870 Z-0.125000
G01 X107.307821 Y114.217653 Z-0.125000
G01 X109.296940 Y115.626569 Z-0.125000
G01 X111.057794 Y117.483866 Z-0.125000
G01 X112.460372 Y119.614963 Z-0.125000
G01 X113.706741 Y122.330986 Z-0.125000
G01 X114.684677 Y125.442995 Z-0.125000
G01 X115.464685 Y129.144198 Z-0.125000
G01 X116.246374 Y135.323521 Z-0.125000
G01 X116.876382 Y144.211363 Z-0.125000
G01 X117.327802 Y154.155730 Z-0.125000
G01 X117.251865 Y160.302971 Z-0.125000
G01 X116.696177 Y165.153907 Z-0.125000
G01 X115.714165 Y169.309311 Z-0.125000
G01 X114.406736 Y172.238398 Z-0.125000
G01 X112.760370 Y174.039679 Z-0.125000
G01 X111.157600 Y174.855262 Z-0.125000
G01 X109.083681 Y175.288312 Z-0.125000
G01 X106.266107 Y175.372658 Z-0.125000
G01 X102.697439 Y175.104937 Z-0.125000
G01 X98.543070 Y174.500542 Z-0.125000
G01 X94.148081 Y173.591429 Z-0.125000
G01 X89.706133 Y172.401139 Z-0.125000
G01 X85.363084 Y170.972430 Z-0.125000
G01 X70.700509 Y164.952032 Z-0.125000
G01 X60.289392 Y160.904131 Z-0.125000
G01 X55.989357 Y158.916046 Z-0.125000
G01 X53.547525 Y157.356872 Z-0.125000
G01 X51.703424 Y155.655849 Z-0.125000
G01 X50.308867 Y153.652435 Z-0.125000
G01 X49.377631 Y151.303422 Z-0.125000
G01 X48.877117 Y147.815865 Z-0.125000
G01 X49.169418 Y143.579090 Z-0.125000
G01 X50.265206 Y138.899563 Z-0.125000
G01 X52.201674 Y133.740026 Z-0.125000
G01 X54.368670 Y129.584428 Z-0.125000
G01 X56.951058 Y125.855605 Z-0.125000
G01 X60.042628 Y122.443016 Z-0.125000
G01 X63.570870 Y119.463088 Z-0.125000
G01 X66.927508 Y117.276040 Z-0.125000
G01 X70.693200 Y115.399792 Z-0.125000
G01 X74.769303 Y113.922506 Z-0.125000
G01 X79.014811 Y112.883574 Z-0.125000
G01 X83.495956 Y112.229116 Z-0.125000
G01 X88.809050 Y111.862559 Z-0.125000
G01 X98.109373 Y111.607322 Z-0.125000
G01 X102.462641 Y111.894125 Z-0.125000
G01 X105.114628 Y112.534870 Z-0.125000
G01 X107.315453 Y113.501034 Z-0.125000
G01 X109.336655 Y114.899731 Z-0.125000
G01 X111.128816 Y116.760779 Z-0.125000
G01 X112.557590 Y118.909276 Z-0.125000
G01 X113.827762 Y121.659515 Z-0.125000
G01 X114.824262 Y124.821201 Z-0.125000
G01 X115.574192 Y128.329068 Z-0.125000
G01 X116.339323 Y134.050761 Z-0.125000
G01 X117.013445 Y142.576251 Z-0.125000
G01 X117.672237 Y154.126623 Z-0.125000
G01 X117.688861 Y160.386993 Z-0.125000
G01 X117.197143 Y165.334953 Z-0.125000
G01 X116.268107 Y169.575480 Z-0.125000
G01 X115.003239 Y172.557736 Z-0.125000
G01 X113.385851 Y174.388577 Z-0.125000
G01 X111.793688 Y175.220913 Z-0.125000
G01 X109.715889 Y175.672850 Z-0.125000
G01 X106.871407 Y175.784104 Z-0.125000
G01 X103.245236 Y175.550341 Z-0.125000
G01 X99.003998 Y174.978223 Z-0.125000
G01 X94.737986 Y174.141037 Z-0.125000
G01 X90.440410 Y173.038780 Z-0.125000
G01 X85.999173 Y171.625724 Z-0.125000
G01 X70.430977 Y165.332495 Z-0.125000
G01 X59.094575 Y161.061180 Z-0.125000
G01 X55.136129 Y159.263198 Z-0.125000
G01 X52.663055 Y157.706158 Z-0.125000
G01 X50.802524 Y155.990193 Z-0.125000
G01 X49.402987 Y153.953015 Z-0.125000
G01 X48.524727 Y151.723018 Z-0.125000
G01 X48.007848 Y148.175177 Z-0.125000
G01 X48.303641 Y143.848235 Z-0.125000
G01 X49.422780 Y139.057388 Z-0.125000
G01 X51.286091 Y134.019261 Z-0.125000
G01 X53.459750 Y129.744194 Z-0.125000
G01 X56.059926 Y125.894997 Z-0.125000
G01 X59.185195 Y122.361516 Z-0.125000
G01 X62.763889 Y119.268070 Z-0.125000
G01 X66.177255 Y116.993442 Z-0.125000
G01 X70.013257 Y115.039963 Z-0.125000
G01 X73.911095 Y113.582340 Z-0.125000
G01 X78.250844 Y112.471740 Z-0.125000
G01 X82.602496 Y111.795936 Z-0.125000
G01 X87.644634 Y111.404865 Z-0.125000
G01 X98.341454 Y111.018969 Z-0.125000
G01 X102.565163 Y111.259330 Z-0.125000
G01 X105.242635 Y111.890502 Z-0.125000
G01 X107.463512 Y112.862747 Z-0.125000
G01 X109.502372 Y114.282141 Z-0.125000
G01 X111.188130 Y116.027796 Z-0.125000
G01 X112.644200 Y118.191817 Z-0.125000
G01 X113.856093 Y120.760945 Z-0.125000
G01 X114.891273 Y123.942294 Z-0.125000
G01 X115.672769 Y127.489229 Z-0.125000
G01 X116.444691 Y133.016357 Z-0.125000
G01 X117.099149 Y140.560095 Z-0.125000
G01 X118.030837 Y154.320800 Z-0.125000
G01 X118.125403 Y160.667522 Z-0.125000
G01 X117.679934 Y165.696658 Z-0.125000
G01 X116.789837 Y169.978841 Z-0.125000
G01 X115.552136 Y172.964266 Z-0.125000
G01 X113.943997 Y174.782559 Z-0.125000
G01 X112.343102 Y175.606809 Z-0.125000
G01 X110.237166 Y176.059070 Z-0.125000
G01 X107.335505 Y176.183519 Z-0.125000
G01 X103.619231 Y175.972977 Z-0.125000
G01 X99.482067 Y175.455904 Z-0.125000
G01 X95.115733 Y174.640968 Z-0.125000
G01 X90.712335 Y173.542270 Z-0.125000
G01 X86.416182 Y172.201464 Z-0.125000
G01 X70.432529 Y165.822596 Z-0.125000
G01 X58.095423 Y161.320169 Z-0.125000
G01 X54.283483 Y159.626455 Z-0.125000
G01 X51.781625 Y158.071033 Z-0.125000
G01 X49.906670 Y156.338639 Z-0.125000
G01 X48.503640 Y154.265367 Z-0.125000
G01 X47.632171 Y151.984141 Z-0.125000
G01 X47.140648 Y148.342834 Z-0.125000
G01 X47.483337 Y143.895776 Z-0.125000
G01 X48.666058 Y138.973236 Z-0.125000
G01 X50.602138 Y133.801798 Z-0.125000
G01 X52.851540 Y129.418969 Z-0.125000
G01 X55.536838 Y125.479217 Z-0.125000
G01 X58.757126 Y121.871674 Z-0.125000
G01 X62.194230 Y118.906430 Z-0.125000
G01 X65.678293 Y116.572746 Z-0.125000
G01 X69.327880 Y114.690871 Z-0.125000
G01 X73.300750 Y113.172900 Z-0.125000
G01 X77.725557 Y112.018121 Z-0.125000
G01 X81.920806 Y111.346392 Z-0.125000
G01 X86.647293 Y110.950017 Z-0.125000
G01 X98.567778 Y110.423372 Z-0.125000
G01 X102.659406 Y110.619554 Z-0.125000
G01 X105.196193 Y111.187014 Z-0.125000
G01 X107.448053 Y112.133644 Z-0.125000
G01 X109.519966 Y113.539327 Z-0.125000
G01 X111.236254 Y115.284916 Z-0.125000
G01 X112.720590 Y117.462585 Z-0.125000
G01 X113.956739 Y120.059656 Z-0.125000
G01 X114.946318 Y123.042623 Z-0.125000
G01 X115.760802 Y126.625263 Z-0.125000
G01 X116.503164 Y131.654982 Z-0.125000
G01 X117.150960 Y138.441933 Z-0.125000
G01 X118.398946 Y154.503593 Z-0.125000
G01 X118.574753 Y160.936019 Z-0.125000
G01 X118.177538 Y166.045815 Z-0.125000
G01 X117.328320 Y170.366872 Z-0.125000
G01 X116.180333 Y173.247964 Z-0.125000
G01 X115.452524 Y174.291747 Z-0.125000
G01 X114.603436 Y175.096787 Z-0.125000
G01 X113.014184 Y175.940507 Z-0.125000
G01 X110.773579 Y176.433129 Z-0.125000
G01 X107.812345 Y176.575884 Z-0.125000
G01 X104.002799 Y176.394061 Z-0.125000
G01 X99.751858 Y175.900921 Z-0.125000
G01 X95.508680 Y175.145169 Z-0.125000
G01 X91.253276 Y174.122602 Z-0.125000
G01 X86.857382 Y172.786906 Z-0.125000
G01 X71.000960 Y166.530288 Z-0.125000
G01 X57.726732 Y161.837177 Z-0.125000
G01 X53.607356 Y160.095210 Z-0.125000
G01 X51.046701 Y158.557122 Z-0.125000
G01 X49.127439 Y156.828351 Z-0.125000
G01 X47.689998 Y154.742401 Z-0.125000
G01 X46.795179 Y152.432845 Z-0.125000
G01 X46.287485 Y148.727955 Z-0.125000
G01 X46.634313 Y144.186654 Z-0.125000
G01 X47.841420 Y139.149044 Z-0.125000
G01 X49.814756 Y133.848499 Z-0.125000
G01 X52.104844 Y129.349953 Z-0.125000
G01 X54.840918 Y125.302569 Z-0.125000
G01 X58.124659 Y121.595415 Z-0.125000
G01 X61.630844 Y118.549705 Z-0.125000
G01 X65.184894 Y116.156061 Z-0.125000
G01 X68.906279 Y114.230784 Z-0.125000
G01 X72.953598 Y112.684481 Z-0.125000
G01 X77.194189 Y111.570388 Z-0.125000
G01 X81.224045 Y110.904545 Z-0.125000
G01 X85.616381 Y110.506359 Z-0.125000
G01 X98.788540 Y109.819883 Z-0.125000
G01 X102.745433 Y109.974539 Z-0.125000
G01 X105.305247 Y110.531262 Z-0.125000
G01 X107.577353 Y111.482161 Z-0.125000
G01 X109.525916 Y112.788750 Z-0.125000
G01 X111.273705 Y114.532269 Z-0.125000
G01 X112.679840 Y116.537688 Z-0.125000
G01 X113.961008 Y119.128615 Z-0.125000
G01 X114.989785 Y122.122966 Z-0.125000
G01 X115.838809 Y125.737495 Z-0.125000
G01 X116.543267 Y130.250723 Z-0.125000
G01 X117.170171 Y136.229853 Z-0.125000
G01 X118.796291 Y154.921766 Z-0.125000
G01 X119.037751 Y161.192292 Z-0.125000
G01 X118.690665 Y166.382229 Z-0.125000
G01 X117.884073 Y170.739185 Z-0.125000
G01 X116.763899 Y173.619695 Z-0.125000
G01 X116.043659 Y174.657462 Z-0.125000
G01 X115.196575 Y175.456293 Z-0.125000
G01 X113.597686 Y176.295355 Z-0.125000
G01 X111.324804 Y176.795481 Z-0.125000
G01 X108.301604 Y176.961909 Z-0.125000
G01 X104.395293 Y176.814433 Z-0.125000
G01 X100.258776 Y176.381254 Z-0.125000
G01 X95.916697 Y175.654027 Z-0.125000
G01 X91.558125 Y174.640451 Z-0.125000
G01 X87.322838 Y173.382245 Z-0.125000
G01 X82.740916 Y171.732386 Z-0.125000
G01 X70.783562 Y166.939599 Z-0.125000
G01 X56.718136 Y162.129737 Z-0.125000
G01 X52.582978 Y160.402711 Z-0.125000
G01 X50.174844 Y158.954080 Z-0.125000
G01 X48.244198 Y157.206614 Z-0.125000
G01 X46.805592 Y155.080950 Z-0.125000
G01 X45.919247 Y152.715766 Z-0.125000
G01 X45.439043 Y148.911006 Z-0.125000
G01 X45.835289 Y144.243381 Z-0.125000
G01 X47.108566 Y139.069161 Z-0.125000
G01 X49.156223 Y133.631683 Z-0.125000
G01 X51.366686 Y129.289928 Z-0.125000
G01 X54.153018 Y125.133489 Z-0.125000
G01 X57.499373 Y121.325236 Z-0.125000
G01 X61.073862 Y118.197897 Z-0.125000
G01 X64.697123 Y115.743451 Z-0.125000
G01 X68.489529 Y113.774124 Z-0.125000
G01 X72.336591 Y112.287848 Z-0.125000
G01 X76.656936 Y111.128541 Z-0.125000
G01 X80.512083 Y110.470590 Z-0.125000
G01 X84.550218 Y110.074280 Z-0.125000
G01 X99.003998 Y109.207727 Z-0.125000
G01 X102.823505 Y109.324026 Z-0.125000
G01 X105.405958 Y109.869495 Z-0.125000
G01 X107.698633 Y110.824274 Z-0.125000
G01 X109.665178 Y112.148133 Z-0.125000
G01 X111.428490 Y113.922959 Z-0.125000
G01 X112.845363 Y115.969516 Z-0.125000
G01 X114.133387 Y118.617557 Z-0.125000
G01 X115.164687 Y121.680020 Z-0.125000
G01 X115.961188 Y125.100953 Z-0.125000
G01 X117.187247 Y134.241963 Z-0.125000
G01 X119.233158 Y155.580041 Z-0.125000
G01 X119.515044 Y161.436339 Z-0.125000
G01 X119.220027 Y166.705513 Z-0.125000
G01 X118.457549 Y171.095327 Z-0.125000
G01 X117.365577 Y173.973509 Z-0.125000
G01 X116.652581 Y175.005067 Z-0.125000
G01 X115.807114 Y175.798269 Z-0.125000
G01 X114.197488 Y176.634874 Z-0.125000
G01 X111.890454 Y177.146708 Z-0.125000
G01 X108.629545 Y177.344378 Z-0.125000
G01 X104.586430 Y177.221675 Z-0.125000
G01 X100.307352 Y176.802337 Z-0.125000
G01 X96.082932 Y176.118513 Z-0.125000
G01 X91.876040 Y175.165803 Z-0.125000
G01 X87.812356 Y173.987480 Z-0.125000
G01 X83.124096 Y172.330506 Z-0.125000
G01 X70.285894 Y167.253245 Z-0.125000
G01 X56.143949 Y162.595257 Z-0.125000
G01 X51.915583 Y160.903937 Z-0.125000
G01 X49.455186 Y159.472252 Z-0.125000
G01 X47.482043 Y157.728150 Z-0.125000
G01 X46.009738 Y155.588450 Z-0.125000
G01 X45.100365 Y153.192865 Z-0.125000
G01 X44.604055 Y149.320706 Z-0.125000
G01 X45.004894 Y144.554569 Z-0.125000
G01 X46.303526 Y139.261527 Z-0.125000
G01 X48.388893 Y133.691708 Z-0.125000
G01 X50.637454 Y129.238505 Z-0.125000
G01 X53.473334 Y124.971717 Z-0.125000
G01 X56.881654 Y121.061007 Z-0.125000
G01 X60.523478 Y117.850875 Z-0.125000
G01 X63.944412 Y115.497980 Z-0.125000
G01 X67.798589 Y113.447865 Z-0.125000
G01 X71.713827 Y111.899364 Z-0.125000
G01 X76.113731 Y110.692451 Z-0.125000
G01 X79.784792 Y110.044590 Z-0.125000
G01 X83.679978 Y109.636572 Z-0.125000
G01 X99.387566 Y108.577589 Z-0.125000
G01 X102.893751 Y108.667756 Z-0.125000
G01 X105.328080 Y109.150936 Z-0.125000
G01 X107.652450 Y110.075250 Z-0.125000
G01 X109.651789 Y111.381580 Z-0.125000
G01 X111.448671 Y113.151360 Z-0.125000
G01 X112.894974 Y115.206003 Z-0.125000
G01 X114.119028 Y117.655792 Z-0.125000
G01 X115.192371 Y120.724528 Z-0.125000
G01 X116.023284 Y124.170171 Z-0.125000
G01 X117.211050 Y132.499414 Z-0.125000
G01 X119.671447 Y155.984566 Z-0.125000
G01 X120.007344 Y161.668226 Z-0.125000
G01 X119.786388 Y166.806030 Z-0.125000
G01 X119.087686 Y171.277020 Z-0.125000
G01 X118.043321 Y174.202938 Z-0.125000
G01 X117.348953 Y175.251702 Z-0.125000
G01 X116.517782 Y176.060040 Z-0.125000
G01 X114.920251 Y176.921030 Z-0.125000
G01 X112.608689 Y177.468115 Z-0.125000
G01 X109.314922 Y177.718049 Z-0.125000
G01 X105.204860 Y177.656730 Z-0.125000
G01 X101.079727 Y177.317664 Z-0.125000
G01 X96.776847 Y176.686814 Z-0.125000
G01 X92.480628 Y175.767739 Z-0.125000
G01 X88.325806 Y174.602676 Z-0.125000
G01 X83.530562 Y172.940916 Z-0.125000
G01 X70.075158 Y167.681250 Z-0.125000
G01 X55.127009 Y162.924880 Z-0.125000
G01 X51.074515 Y161.333817 Z-0.125000
G01 X48.595619 Y159.901292 Z-0.125000
G01 X46.614132 Y158.135715 Z-0.125000
G01 X45.142732 Y155.952031 Z-0.125000
G01 X44.243191 Y153.496162 Z-0.125000
G01 X43.776312 Y149.517341 Z-0.125000
G01 X44.184007 Y144.878111 Z-0.125000
G01 X45.508059 Y139.464695 Z-0.125000
G01 X47.631136 Y133.761242 Z-0.125000
G01 X49.917408 Y129.195491 Z-0.125000
G01 X52.802381 Y124.817061 Z-0.125000
G01 X56.271632 Y120.802536 Z-0.125000
G01 X59.979886 Y117.508380 Z-0.125000
G01 X63.463238 Y115.096948 Z-0.125000
G01 X67.386690 Y113.000391 Z-0.125000
G01 X71.369263 Y111.423106 Z-0.125000
G01 X75.564770 Y110.262247 Z-0.125000
G01 X79.041977 Y109.626805 Z-0.125000
G01 X82.785353 Y109.207468 Z-0.125000
G01 X91.921771 Y108.681599 Z-0.125000
G01 X99.595003 Y107.944734 Z-0.125000
G01 X103.133788 Y108.025717 Z-0.125000
G01 X105.583771 Y108.527072 Z-0.125000
G01 X107.757753 Y109.403456 Z-0.125000
G01 X109.776820 Y110.725892 Z-0.125000
G01 X111.459926 Y112.370447 Z-0.125000
G01 X112.936889 Y114.431429 Z-0.125000
G01 X114.187979 Y116.900428 Z-0.125000
G01 X115.210094 Y119.750667 Z-0.125000
G01 X116.077164 Y123.217331 Z-0.125000
G01 X117.214284 Y130.703889 Z-0.125000
G01 X118.603537 Y144.049527 Z-0.125000
G01 X120.157278 Y156.630292 Z-0.125000
G01 X120.515296 Y161.888018 Z-0.125000
G01 X120.347574 Y167.100336 Z-0.125000
G01 X119.695897 Y171.599851 Z-0.125000
G01 X118.680380 Y174.520788 Z-0.125000
G01 X117.992933 Y175.563472 Z-0.125000
G01 X117.162668 Y176.367541 Z-0.125000
G01 X115.444374 Y177.269475 Z-0.125000
G01 X113.063084 Y177.818501 Z-0.125000
G01 X109.656252 Y178.096507 Z-0.125000
G01 X105.399167 Y178.071669 Z-0.125000
G01 X101.130891 Y177.752137 Z-0.125000
G01 X96.959446 Y177.165142 Z-0.125000
G01 X92.830108 Y176.309003 Z-0.125000
G01 X88.577098 Y175.140318 Z-0.125000
G01 X83.668982 Y173.454690 Z-0.125000
G01 X69.871343 Y168.119475 Z-0.125000
G01 X54.331413 Y163.348486 Z-0.125000
G01 X50.237845 Y161.780839 Z-0.125000
G01 X47.742779 Y160.345984 Z-0.125000
G01 X45.754759 Y158.556346 Z-0.125000
G01 X44.285558 Y156.325702 Z-0.125000
G01 X43.396819 Y153.806315 Z-0.125000
G01 X42.960729 Y149.716757 Z-0.125000
G01 X43.419006 Y144.948356 Z-0.125000
G01 X44.812527 Y139.391345 Z-0.125000
G01 X47.011607 Y133.545590 Z-0.125000
G01 X49.372133 Y128.872531 Z-0.125000
G01 X52.343975 Y124.399082 Z-0.125000
G01 X55.908375 Y120.308361 Z-0.125000
G01 X59.708089 Y116.964529 Z-0.125000
G01 X63.268478 Y114.528323 Z-0.125000
G01 X66.979578 Y112.556086 Z-0.125000
G01 X71.028709 Y110.949694 Z-0.125000
G01 X75.288575 Y109.775317 Z-0.125000
G01 X82.110002 Y108.765945 Z-0.125000
G01 X91.762328 Y108.190140 Z-0.125000
G01 X99.798365 Y107.301854 Z-0.125000
G01 X103.190579 Y107.355993 Z-0.125000
G01 X105.661843 Y107.846093 Z-0.125000
G01 X107.856653 Y108.724871 Z-0.125000
G01 X109.896612 Y110.063607 Z-0.125000
G01 X111.596924 Y111.736105 Z-0.125000
G01 X113.087405 Y113.837449 Z-0.125000
G01 X114.347293 Y116.358259 Z-0.125000
G01 X115.373547 Y119.270011 Z-0.125000
G01 X116.183373 Y122.526327 Z-0.125000
G01 X117.235824 Y129.177380 Z-0.125000
G01 X118.831155 Y143.718158 Z-0.125000
G01 X120.670146 Y157.269421 Z-0.125000
G01 X121.039549 Y162.095908 Z-0.125000
G01 X120.926419 Y167.381123 Z-0.125000
G01 X120.322607 Y171.905929 Z-0.125000
G01 X119.335485 Y174.820269 Z-0.125000
G01 X118.654378 Y175.857195 Z-0.125000
G01 X117.824177 Y176.657837 Z-0.125000
G01 X116.090489 Y177.565527 Z-0.125000
G01 X113.668966 Y178.140491 Z-0.125000
G01 X110.184644 Y178.468173 Z-0.125000
G01 X105.815076 Y178.501097 Z-0.125000
G01 X101.685286 Y178.246182 Z-0.125000
G01 X97.418369 Y177.697286 Z-0.125000
G01 X93.191749 Y176.858741 Z-0.125000
G01 X89.131816 Y175.776083 Z-0.125000
G01 X84.114904 Y174.089679 Z-0.125000
G01 X69.363843 Y168.462357 Z-0.125000
G01 X53.536658 Y163.789815 Z-0.125000
G01 X49.406221 Y162.244872 Z-0.125000
G01 X46.897506 Y160.806007 Z-0.125000
G01 X44.904636 Y158.989720 Z-0.125000
G01 X43.519781 Y156.876345 Z-0.125000
G01 X42.608339 Y154.322159 Z-0.125000
G01 X42.256077 Y152.226960 Z-0.125000
G01 X42.156142 Y150.158087 Z-0.125000
G01 X42.619076 Y145.289751 Z-0.125000
G01 X44.038924 Y139.608614 Z-0.125000
G01 X46.276101 Y133.626249 Z-0.125000
G01 X48.674143 Y128.838314 Z-0.125000
G01 X51.694497 Y124.251024 Z-0.125000
G01 X55.075780 Y120.302086 Z-0.125000
G01 X58.913528 Y116.836716 Z-0.125000
G01 X62.518678 Y114.305621 Z-0.125000
G01 X66.284046 Y112.252531 Z-0.125000
G01 X70.399024 Y110.578157 Z-0.125000
G01 X74.732693 Y109.354104 Z-0.125000
G01 X81.170746 Y108.353076 Z-0.125000
G01 X91.598422 Y107.702757 Z-0.125000
G01 X99.998234 Y106.648948 Z-0.125000
G01 X103.240449 Y106.679866 Z-0.125000
G01 X105.733382 Y107.158388 Z-0.125000
G01 X107.949925 Y108.039559 Z-0.125000
G01 X109.860067 Y109.272733 Z-0.125000
G01 X111.595048 Y110.936887 Z-0.125000
G01 X113.118711 Y113.042435 Z-0.125000
G01 X114.309712 Y115.353027 Z-0.125000
G01 X115.379498 Y118.262903 Z-0.125000
G01 X116.225158 Y121.533708 Z-0.125000
G01 X117.242680 Y127.611802 Z-0.125000
G01 X119.058967 Y143.367643 Z-0.125000
G01 X121.179651 Y157.651889 Z-0.125000
G01 X121.580554 Y162.292155 Z-0.125000
G01 X121.523374 Y167.648197 Z-0.125000
G01 X120.967945 Y172.195061 Z-0.125000
G01 X120.008443 Y175.101444 Z-0.125000
G01 X118.584326 Y176.867214 Z-0.125000
G01 X116.862346 Y177.807376 Z-0.125000
G01 X114.433967 Y178.429170 Z-0.125000
G01 X110.722027 Y178.838222 Z-0.125000
G01 X106.469922 Y178.938092 Z-0.125000
G01 X102.254493 Y178.742751 Z-0.125000
G01 X98.172115 Y178.278071 Z-0.125000
G01 X94.150927 Y177.546770 Z-0.125000
G01 X90.008783 Y176.507708 Z-0.125000
G01 X84.583336 Y174.737604 Z-0.125000
G01 X69.165462 Y168.921539 Z-0.125000
G01 X63.250820 Y167.104411 Z-0.125000
G01 X52.975278 Y164.318531 Z-0.125000
G01 X48.767028 Y162.810844 Z-0.125000
G01 X46.212388 Y161.388474 Z-0.125000
G01 X44.181031 Y159.572639 Z-0.125000
G01 X42.766293 Y157.441994 Z-0.125000
G01 X41.831759 Y154.852168 Z-0.125000
G01 X41.468243 Y152.720682 Z-0.125000
G01 X41.362681 Y150.612223 Z-0.125000
G01 X41.829754 Y145.642271 Z-0.125000
G01 X43.275863 Y139.835649 Z-0.125000
G01 X45.551073 Y133.715382 Z-0.125000
G01 X47.986373 Y128.811600 Z-0.125000
G01 X51.054334 Y124.109304 Z-0.125000
G01 X54.490273 Y120.059785 Z-0.125000
G01 X58.390828 Y116.507158 Z-0.125000
G01 X62.055292 Y113.915132 Z-0.125000
G01 X65.881914 Y111.816829 Z-0.125000
G01 X69.763776 Y110.215029 Z-0.125000
G01 X74.170860 Y108.938518 Z-0.125000
G01 X80.461696 Y107.924359 Z-0.125000
G01 X91.430312 Y107.219190 Z-0.125000
G01 X100.015181 Y106.000893 Z-0.125000
G01 X103.283722 Y105.997012 Z-0.125000
G01 X105.621933 Y106.414603 Z-0.125000
G01 X107.870818 Y107.262527 Z-0.125000
G01 X109.815242 Y108.474485 Z-0.125000
G01 X111.586316 Y110.128742 Z-0.125000
G01 X113.144714 Y112.236878 Z-0.125000
G01 X114.364046 Y114.561570 Z-0.125000
G01 X115.377234 Y117.239301 Z-0.125000
G01 X116.260669 Y120.521037 Z-0.125000
G01 X117.234724 Y126.010455 Z-0.125000
G01 X119.151852 Y142.017458 Z-0.125000
G01 X121.568005 Y157.006616 Z-0.125000
G01 X122.125763 Y162.231159 Z-0.125000
G01 X122.149243 Y167.681832 Z-0.125000
G01 X121.663089 Y172.305862 Z-0.125000
G01 X120.752681 Y175.257911 Z-0.125000
G01 X120.095571 Y176.307386 Z-0.125000
G01 X119.278112 Y177.123810 Z-0.125000
G01 X117.538215 Y178.075679 Z-0.125000
G01 X114.916306 Y178.760474 Z-0.125000
G01 X111.069825 Y179.222437 Z-0.125000
G01 X106.661836 Y179.373341 Z-0.125000
G01 X102.569432 Y179.223666 Z-0.125000
G01 X98.375542 Y178.780461 Z-0.125000
G01 X94.249568 Y178.049289 Z-0.125000
G01 X90.311368 Y177.077109 Z-0.125000
G01 X84.763024 Y175.286371 Z-0.125000
G01 X68.973354 Y169.391717 Z-0.125000
G01 X62.915894 Y167.580345 Z-0.125000
G01 X52.186603 Y164.793819 Z-0.125000
G01 X47.949051 Y163.308124 Z-0.125000
G01 X45.384904 Y161.879027 Z-0.125000
G01 X43.351348 Y160.032339 Z-0.125000
G01 X41.940879 Y157.850530 Z-0.125000
G01 X41.018246 Y155.189682 Z-0.125000
G01 X40.669284 Y152.997459 Z-0.125000
G01 X40.581703 Y150.828781 Z-0.125000
G01 X41.102139 Y145.720860 Z-0.125000
G01 X42.523669 Y140.071676 Z-0.125000
G01 X44.836913 Y133.812406 Z-0.125000
G01 X47.484566 Y128.482689 Z-0.125000
G01 X50.423872 Y123.973471 Z-0.125000
G01 X53.913240 Y119.822336 Z-0.125000
G01 X57.875308 Y116.181417 Z-0.125000
G01 X61.304197 Y113.714034 Z-0.125000
G01 X65.182048 Y111.530220 Z-0.125000
G01 X69.425615 Y109.752419 Z-0.125000
G01 X73.602947 Y108.528495 Z-0.125000
G01 X79.474639 Y107.529796 Z-0.125000
G01 X90.528572 Y106.812013 Z-0.125000
G01 X99.664925 Y105.385503 Z-0.125000
G01 X103.320915 Y105.307689 Z-0.125000
G01 X105.680406 Y105.713702 Z-0.125000
G01 X107.953288 Y106.562920 Z-0.125000
G01 X109.920674 Y107.788914 Z-0.125000
G01 X111.571310 Y109.312319 Z-0.125000
G01 X113.042127 Y111.228023 Z-0.125000
G01 X114.310230 Y113.530982 Z-0.125000
G01 X115.367143 Y116.200692 Z-0.125000
G01 X116.290358 Y119.489738 Z-0.125000
G01 X117.400958 Y125.670095 Z-0.125000
G01 X119.517114 Y142.609433 Z-0.125000
G01 X122.071948 Y157.106486 Z-0.125000
G01 X122.699175 Y162.400563 Z-0.125000
G01 X122.781063 Y167.919605 Z-0.125000
G01 X122.344197 Y172.560905 Z-0.125000
G01 X121.459921 Y175.503187 Z-0.125000
G01 X120.806950 Y176.548070 Z-0.125000
G01 X119.987098 Y177.364429 Z-0.125000
G01 X118.227214 Y178.331887 Z-0.125000
G01 X115.556275 Y179.060472 Z-0.125000
G01 X111.617687 Y179.595914 Z-0.125000
G01 X107.337704 Y179.815253 Z-0.125000
G01 X103.160890 Y179.729613 Z-0.125000
G01 X99.167515 Y179.369719 Z-0.125000
G01 X94.958166 Y178.687124 Z-0.125000
G01 X90.935878 Y177.742305 Z-0.125000
G01 X85.269101 Y175.960105 Z-0.125000
G01 X74.490586 Y171.841247 Z-0.125000
G01 X68.453759 Y169.767523 Z-0.125000
G01 X62.271655 Y167.985582 Z-0.125000
G01 X51.400774 Y165.287347 Z-0.125000
G01 X47.328939 Y163.905403 Z-0.125000
G01 X44.721842 Y162.492347 Z-0.125000
G01 X42.651546 Y160.644495 Z-0.125000
G01 X41.211582 Y158.442958 Z-0.125000
G01 X40.265470 Y155.743494 Z-0.125000
G01 X39.810687 Y151.556654 Z-0.125000
G01 X40.284163 Y146.378618 Z-0.125000
G01 X41.782471 Y140.316629 Z-0.125000
G01 X44.133748 Y133.917386 Z-0.125000
G01 X46.820405 Y128.462573 Z-0.125000
G01 X49.803113 Y123.843653 Z-0.125000
G01 X53.344809 Y119.589802 Z-0.125000
G01 X57.366903 Y115.859685 Z-0.125000
G01 X60.848056 Y113.334218 Z-0.125000
G01 X64.784703 Y111.102862 Z-0.125000
G01 X68.783964 Y109.401904 Z-0.125000
G01 X73.028953 Y108.124487 Z-0.125000
G01 X78.729431 Y107.115633 Z-0.125000
G01 X90.538469 Y106.322430 Z-0.125000
G01 X99.667447 Y104.729686 Z-0.125000
G01 X103.352480 Y104.611511 Z-0.125000
G01 X105.734158 Y105.005880 Z-0.125000
G01 X107.860145 Y105.773469 Z-0.125000
G01 X109.864400 Y106.975983 Z-0.125000
G01 X111.550870 Y108.487810 Z-0.125000
G01 X113.056551 Y110.402673 Z-0.125000
G01 X114.356090 Y112.716046 Z-0.125000
G01 X115.439394 Y115.407360 Z-0.125000
G01 X116.384924 Y118.731722 Z-0.125000
G01 X117.522238 Y124.994033 Z-0.125000
G01 X119.695509 Y141.865454 Z-0.125000
G01 X122.639408 Y157.455513 Z-0.125000
G01 X123.290697 Y162.558906 Z-0.125000
G01 X123.431835 Y168.143601 Z-0.125000
G01 X123.043933 Y172.798873 Z-0.125000
G01 X122.235271 Y175.623044 Z-0.125000
G01 X121.600023 Y176.686814 Z-0.125000
G01 X120.793173 Y177.522837 Z-0.125000
G01 X118.928632 Y178.576452 Z-0.125000
G01 X116.206012 Y179.355101 Z-0.125000
G01 X112.171888 Y179.971203 Z-0.125000
G01 X107.776252 Y180.263762 Z-0.125000
G01 X103.483656 Y180.226764 Z-0.125000
G01 X99.382003 Y179.890802 Z-0.125000
G01 X95.377762 Y179.271143 Z-0.125000
G01 X91.264272 Y178.333310 Z-0.125000
G01 X85.796716 Y176.647099 Z-0.125000
G01 X74.446343 Y172.350234 Z-0.125000
G01 X68.265597 Y170.260598 Z-0.125000
G01 X61.941644 Y168.487325 Z-0.125000
G01 X50.618696 Y165.798922 Z-0.125000
G01 X46.527069 Y164.435607 Z-0.125000
G01 X43.914604 Y163.012460 Z-0.125000
G01 X41.844437 Y161.128967 Z-0.125000
G01 X40.409842 Y158.870833 Z-0.125000
G01 X39.476278 Y156.094721 Z-0.125000
G01 X39.130679 Y153.799006 Z-0.125000
G01 X39.055776 Y151.524766 Z-0.125000
G01 X39.580740 Y146.465228 Z-0.125000
G01 X41.052657 Y140.569926 Z-0.125000
G01 X43.582717 Y133.699211 Z-0.125000
G01 X46.167110 Y128.448860 Z-0.125000
G01 X49.192380 Y123.719333 Z-0.125000
G01 X52.785046 Y119.361925 Z-0.125000
G01 X56.865677 Y115.541641 Z-0.125000
G01 X60.397671 Y112.957442 Z-0.125000
G01 X64.080763 Y110.833783 Z-0.125000
G01 X68.136750 Y109.060186 Z-0.125000
G01 X72.448621 Y107.726366 Z-0.125000
G01 X79.058277 Y106.583618 Z-0.125000
G01 X90.723267 Y105.811308 Z-0.125000
G01 X99.482002 Y104.094309 Z-0.125000
G01 X103.379000 Y103.908475 Z-0.125000
G01 X105.783963 Y104.291073 Z-0.125000
G01 X107.934854 Y105.059696 Z-0.125000
G01 X109.801917 Y106.156649 Z-0.125000
G01 X111.525644 Y107.655538 Z-0.125000
G01 X113.067806 Y109.568268 Z-0.125000
G01 X114.400203 Y111.890826 Z-0.125000
G01 X115.510997 Y114.602514 Z-0.125000
G01 X116.407951 Y117.666659 Z-0.125000
G01 X117.546559 Y123.635634 Z-0.125000
G01 X119.925455 Y141.434409 Z-0.125000
G01 X123.183906 Y157.533003 Z-0.125000
G01 X123.900783 Y162.706447 Z-0.125000
G01 X124.101688 Y168.353949 Z-0.125000
G01 X123.762039 Y173.019699 Z-0.125000
G01 X122.975305 Y175.833133 Z-0.125000
G01 X122.342385 Y176.893475 Z-0.125000
G01 X121.531136 Y177.732021 Z-0.125000
G01 X119.641499 Y178.810215 Z-0.125000
G01 X116.702127 Y179.681877 Z-0.125000
G01 X112.731457 Y180.349337 Z-0.125000
G01 X108.216611 Y180.720163 Z-0.125000
G01 X104.094907 Y180.743901 Z-0.125000
G01 X99.902504 Y180.456581 Z-0.125000
G01 X95.807319 Y179.864606 Z-0.125000
G01 X91.927398 Y179.018557 Z-0.125000
G01 X86.014438 Y177.233382 Z-0.125000
G01 X74.408116 Y172.870735 Z-0.125000
G01 X68.082869 Y170.765575 Z-0.125000
G01 X61.289773 Y168.921862 Z-0.125000
G01 X50.081960 Y166.390573 Z-0.125000
G01 X45.927850 Y165.063416 Z-0.125000
G01 X43.275669 Y163.655276 Z-0.125000
G01 X41.170315 Y161.768614 Z-0.125000
G01 X39.706418 Y159.488164 Z-0.125000
G01 X38.748728 Y156.670137 Z-0.125000
G01 X38.390774 Y154.333219 Z-0.125000
G01 X38.309468 Y152.014930 Z-0.125000
G01 X38.837408 Y146.851318 Z-0.125000
G01 X40.334357 Y140.831050 Z-0.125000
G01 X42.904391 Y133.810983 Z-0.125000
G01 X45.710645 Y128.110440 Z-0.125000
G01 X48.817221 Y123.288935 Z-0.125000
G01 X52.495656 Y118.858759 Z-0.125000
G01 X56.371437 Y115.227090 Z-0.125000
G01 X59.952978 Y112.583641 Z-0.125000
G01 X63.687816 Y110.414575 Z-0.125000
G01 X67.800012 Y108.608054 Z-0.125000
G01 X71.861885 Y107.334325 Z-0.125000
G01 X75.173182 Y106.619647 Z-0.125000
G01 X78.579432 Y106.142354 Z-0.125000
G01 X90.541509 Y105.342359 Z-0.125000
G01 X99.473076 Y103.427496 Z-0.125000
G01 X103.401121 Y103.198455 Z-0.125000
G01 X105.830664 Y103.569474 Z-0.125000
G01 X108.008075 Y104.339391 Z-0.125000
G01 X109.900623 Y105.448956 Z-0.125000
G01 X111.648153 Y106.971843 Z-0.125000
G01 X113.210043 Y108.919889 Z-0.125000
G01 X114.443411 Y111.055773 Z-0.125000
G01 X115.582860 Y113.786737 Z-0.125000
G01 X116.502129 Y116.880571 Z-0.125000
G01 X117.667774 Y122.921796 Z-0.125000
G01 X120.158248 Y140.985253 Z-0.125000
G01 X123.747486 Y157.598397 Z-0.125000
G01 X124.529692 Y162.843315 Z-0.125000
G01 X124.790881 Y168.550519 Z-0.125000
G01 X124.498321 Y173.223579 Z-0.125000
G01 X123.731186 Y176.025694 Z-0.125000
G01 X123.099237 Y177.083642 Z-0.125000
G01 X122.282101 Y177.926521 Z-0.125000
G01 X120.364909 Y179.034211 Z-0.125000
G01 X117.364865 Y179.972626 Z-0.125000
G01 X113.295424 Y180.731482 Z-0.125000
G01 X108.657811 Y181.185295 Z-0.125000
G01 X104.422330 Y181.259680 Z-0.125000
G01 X100.433742 Y181.029798 Z-0.125000
G01 X96.246385 Y180.467642 Z-0.125000
G01 X92.279983 Y179.631425 Z-0.125000
G01 X86.239340 Y177.831244 Z-0.125000
G01 X74.375645 Y173.402879 Z-0.125000
G01 X67.905445 Y171.282454 Z-0.125000
G01 X60.964420 Y169.450060 Z-0.125000
G01 X49.310685 Y166.936171 Z-0.125000
G01 X45.144543 Y165.625055 Z-0.125000
G01 X42.490940 Y164.202879 Z-0.125000
G01 X40.510876 Y162.421714 Z-0.125000
G01 X39.017484 Y160.118172 Z-0.125000
G01 X38.035020 Y157.257326 Z-0.125000
G01 X37.664130 Y154.878429 Z-0.125000
G01 X37.575838 Y152.515250 Z-0.125000
G01 X38.106041 Y147.246012 Z-0.125000
G01 X39.627700 Y141.099483 Z-0.125000
G01 X42.237707 Y133.929093 Z-0.125000
G01 X45.081931 Y128.100932 Z-0.125000
G01 X48.229774 Y123.167526 Z-0.125000
G01 X51.956850 Y118.632693 Z-0.125000
G01 X55.884183 Y114.915966 Z-0.125000
G01 X59.513783 Y112.212622 Z-0.125000
G01 X63.299009 Y109.997695 Z-0.125000
G01 X67.145877 Y108.279337 Z-0.125000
G01 X71.268487 Y106.948364 Z-0.125000
G01 X74.632953 Y106.201280 Z-0.125000
G01 X78.094765 Y105.703741 Z-0.125000
G01 X90.356710 Y104.876127 Z-0.125000
G01 X99.459816 Y102.753568 Z-0.125000
G01 X103.419491 Y102.481448 Z-0.125000
G01 X105.687845 Y102.796517 Z-0.125000
G01 X107.900701 Y103.530794 Z-0.125000
G01 X109.831348 Y104.616038 Z-0.125000
G01 X111.619369 Y106.124501 Z-0.125000
G01 X113.220716 Y108.068925 Z-0.125000
G01 X114.486490 Y110.211536 Z-0.125000
G01 X115.559186 Y112.694507 Z-0.125000
G01 X116.521340 Y115.784977 Z-0.125000
G01 X117.738795 Y121.854339 Z-0.125000
G01 X120.394340 Y140.518245 Z-0.125000
G01 X121.598147 Y146.342784 Z-0.125000
G01 X124.330599 Y157.652019 Z-0.125000
G01 X125.177747 Y162.970028 Z-0.125000
G01 X125.499220 Y168.733507 Z-0.125000
G01 X125.252391 Y173.410641 Z-0.125000
G01 X124.502332 Y176.201242 Z-0.125000
G01 X123.869736 Y177.257832 Z-0.125000
G01 X123.045162 Y178.107050 Z-0.125000
G01 X120.975125 Y179.301738 Z-0.125000
G01 X117.861757 Y180.305935 Z-0.125000
G01 X113.635008 Y181.154312 Z-0.125000
G01 X109.098753 Y181.660130 Z-0.125000
G01 X105.050657 Y181.789625 Z-0.125000
G01 X100.975135 Y181.610454 Z-0.125000
G01 X96.694247 Y181.080509 Z-0.125000
G01 X92.640265 Y180.255353 Z-0.125000
G01 X86.816050 Y178.558147 Z-0.125000
G01 X74.348478 Y173.946795 Z-0.125000
G01 X67.733001 Y171.811557 Z-0.125000
G01 X60.644629 Y169.990936 Z-0.125000
G01 X48.545166 Y167.499363 Z-0.125000
G01 X44.568092 Y166.282165 Z-0.125000
G01 X41.877943 Y164.873443 Z-0.125000
G01 X39.741153 Y162.940274 Z-0.125000
G01 X38.253906 Y160.572179 Z-0.125000
G01 X37.284120 Y157.626210 Z-0.125000
G01 X36.928495 Y155.176680 Z-0.125000
G01 X36.859414 Y152.744938 Z-0.125000
G01 X37.444015 Y147.331522 Z-0.125000
G01 X39.039023 Y141.032536 Z-0.125000
G01 X41.582796 Y134.053090 Z-0.125000
G01 X44.464535 Y128.096598 Z-0.125000
G01 X47.652482 Y123.050579 Z-0.125000
G01 X51.426711 Y118.410508 Z-0.125000
G01 X55.403850 Y114.607948 Z-0.125000
G01 X59.079892 Y111.844254 Z-0.125000
G01 X62.914082 Y109.583080 Z-0.125000
G01 X66.810627 Y107.833157 Z-0.125000
G01 X70.984854 Y106.483684 Z-0.125000
G01 X74.388452 Y105.731749 Z-0.125000
G01 X77.885064 Y105.236991 Z-0.125000
G01 X90.169260 Y104.412353 Z-0.125000
G01 X92.922475 Y103.856535 Z-0.125000
G01 X99.256131 Y102.109588 Z-0.125000
G01 X101.330049 Y101.804027 Z-0.125000
G01 X103.434885 Y101.757391 Z-0.125000
G01 X105.728660 Y102.061658 Z-0.125000
G01 X107.971529 Y102.797099 Z-0.125000
G01 X109.931024 Y103.895151 Z-0.125000
G01 X111.745953 Y105.428258 Z-0.125000
G01 X113.230742 Y107.210263 Z-0.125000
G01 X114.530409 Y109.358567 Z-0.125000
G01 X115.631630 Y111.856544 Z-0.125000
G01 X116.618363 Y114.973534 Z-0.125000
G01 X117.809817 Y120.767542 Z-0.125000
G01 X119.589753 Y133.811824 Z-0.125000
G01 X120.634247 Y140.033772 Z-0.125000
G01 X122.001767 Y146.280882 Z-0.125000
G01 X124.871993 Y157.421296 Z-0.125000
G01 X125.814095 Y162.817313 Z-0.125000
G01 X126.222177 Y168.672964 Z-0.125000
G01 X126.044882 Y173.419373 Z-0.125000
G01 X125.336414 Y176.252083 Z-0.125000
G01 X124.718565 Y177.329824 Z-0.125000
G01 X123.904082 Y178.203104 Z-0.125000
G01 X121.839608 Y179.456394 Z-0.125000
G01 X118.709552 Y180.549724 Z-0.125000
G01 X114.432286 Y181.512007 Z-0.125000
G01 X109.818929 Y182.121640 Z-0.125000
G01 X105.689656 Y182.324291 Z-0.125000
G01 X101.526102 Y182.198742 Z-0.125000
G01 X97.492171 Y181.755472 Z-0.125000
G01 X93.355202 Y180.971325 Z-0.125000
G01 X87.060744 Y179.181428 Z-0.125000
G01 X74.326163 Y174.502677 Z-0.125000
G01 X67.565149 Y172.352886 Z-0.125000
G01 X60.330207 Y170.544619 Z-0.125000
G01 X48.032427 Y168.136551 Z-0.125000
G01 X43.805743 Y166.873623 Z-0.125000
G01 X41.117857 Y165.446207 Z-0.125000
G01 X39.109786 Y163.617760 Z-0.125000
G01 X37.592979 Y161.223533 Z-0.125000
G01 X36.597385 Y158.231187 Z-0.125000
G01 X36.227917 Y155.737155 Z-0.125000
G01 X36.151269 Y153.258259 Z-0.125000
G01 X36.737616 Y147.735206 Z-0.125000
G01 X38.357980 Y141.306920 Z-0.125000
G01 X40.939851 Y134.182520 Z-0.125000
G01 X43.858459 Y128.097181 Z-0.125000
G01 X47.085539 Y122.937967 Z-0.125000
G01 X50.905240 Y118.191946 Z-0.125000
G01 X54.930244 Y114.302969 Z-0.125000
G01 X58.333714 Y111.694449 Z-0.125000
G01 X62.205549 Y109.342719 Z-0.125000
G01 X66.149183 Y107.517635 Z-0.125000
G01 X70.382400 Y106.106714 Z-0.125000
G01 X73.839038 Y105.319268 Z-0.125000
G01 X77.392248 Y104.802066 Z-0.125000
G01 X89.802963 Y103.977945 Z-0.125000
G01 X92.714456 Y103.359320 Z-0.125000
G01 X99.234074 Y101.423952 Z-0.125000
G01 X101.323710 Y101.091742 Z-0.125000
G01 X103.448016 Y101.026283 Z-0.125000
G01 X105.769022 Y101.320072 Z-0.125000
G01 X108.043909 Y102.057324 Z-0.125000
G01 X110.034063 Y103.169089 Z-0.125000
G01 X111.717234 Y104.567203 Z-0.125000
G01 X113.240897 Y106.344422 Z-0.125000
G01 X114.575816 Y108.497447 Z-0.125000
G01 X115.706856 Y111.009461 Z-0.125000
G01 X116.636410 Y113.851161 Z-0.125000
G01 X117.881356 Y119.662440 Z-0.125000
G01 X119.775909 Y133.220689 Z-0.125000
G01 X120.878554 Y139.532288 Z-0.125000
G01 X122.335723 Y145.872218 Z-0.125000
G01 X125.491264 Y157.449756 Z-0.125000
G01 X126.498178 Y162.920675 Z-0.125000
G01 X126.966609 Y168.828137 Z-0.125000
G01 X126.831875 Y173.573964 Z-0.125000
G01 X126.135567 Y176.395096 Z-0.125000
G01 X125.514291 Y177.473614 Z-0.125000
G01 X124.689652 Y178.356660 Z-0.125000
G01 X122.588697 Y179.656716 Z-0.125000
G01 X119.389431 Y180.838402 Z-0.125000
G01 X115.003110 Y181.912586 Z-0.125000
G01 X110.549713 Y182.584315 Z-0.125000
G01 X106.338617 Y182.863744 Z-0.125000
G01 X102.085930 Y182.794922 Z-0.125000
G01 X97.963514 Y182.386257 Z-0.125000
G01 X93.736700 Y181.617440 Z-0.125000
G01 X87.311001 Y179.816676 Z-0.125000
G01 X74.691749 Y175.203578 Z-0.125000
G01 X67.401697 Y172.906504 Z-0.125000
G01 X59.668439 Y171.037824 Z-0.125000
G01 X47.281333 Y168.732278 Z-0.125000
G01 X43.253742 Y167.558482 Z-0.125000
G01 X40.532545 Y166.142645 Z-0.125000
G01 X38.367165 Y164.154237 Z-0.125000
G01 X36.856632 Y161.689248 Z-0.125000
G01 X35.873522 Y158.605634 Z-0.125000
G01 X35.519514 Y156.036765 Z-0.125000
G01 X35.462593 Y153.486007 Z-0.125000
G01 X36.105215 Y147.813601 Z-0.125000
G01 X37.800869 Y141.229689 Z-0.125000
G01 X40.461976 Y133.949274 Z-0.125000
G01 X43.263832 Y128.102096 Z-0.125000
G01 X46.528880 Y122.829300 Z-0.125000
G01 X50.392307 Y117.976747 Z-0.125000
G01 X54.463301 Y114.000902 Z-0.125000
G01 X57.906226 Y111.335655 Z-0.125000
G01 X61.823728 Y108.935672 Z-0.125000
G01 X65.814450 Y107.077211 Z-0.125000
G01 X69.772637 Y105.736147 Z-0.125000
G01 X73.282186 Y104.911056 Z-0.125000
G01 X76.892704 Y104.369404 Z-0.125000
G01 X89.612084 Y103.519668 Z-0.125000
G01 X92.502944 Y102.863722 Z-0.125000
G01 X99.209042 Y100.730943 Z-0.125000
G01 X101.314784 Y100.372342 Z-0.125000
G01 X103.459723 Y100.288255 Z-0.125000
G01 X105.809901 Y100.572018 Z-0.125000
G01 X107.929809 Y101.231198 Z-0.125000
G01 X109.963171 Y102.317089 Z-0.125000
G01 X111.687868 Y103.700327 Z-0.125000
G01 X113.252152 Y105.471983 Z-0.125000
G01 X114.623811 Y107.628825 Z-0.125000
G01 X115.785704 Y110.154033 Z-0.125000
G01 X116.739385 Y113.017467 Z-0.125000
G01 X118.013244 Y118.886637 Z-0.125000
G01 X119.907150 Y132.233245 Z-0.125000
G01 X121.127646 Y139.014245 Z-0.125000
G01 X122.676277 Y145.446283 Z-0.125000
G01 X126.130975 Y157.467738 Z-0.125000
G01 X127.201795 Y163.014853 Z-0.125000
G01 X127.729929 Y168.970245 Z-0.125000
G01 X127.635104 Y173.712450 Z-0.125000
G01 X126.947463 Y176.522521 Z-0.125000
G01 X126.320883 Y177.603367 Z-0.125000
G01 X125.484472 Y178.498574 Z-0.125000
G01 X123.344254 Y179.851346 Z-0.125000
G01 X119.887551 Y181.188141 Z-0.125000
G01 X115.574128 Y182.321639 Z-0.125000
G01 X110.999386 Y183.084182 Z-0.125000
G01 X106.673478 Y183.420532 Z-0.125000
G01 X102.654037 Y183.398992 Z-0.125000
G01 X98.441971 Y183.027068 Z-0.125000
G01 X94.124278 Y182.274874 Z-0.125000
G01 X87.566238 Y180.464084 Z-0.125000
G01 X74.686186 Y175.785074 Z-0.125000
G01 X67.242189 Y173.472607 Z-0.125000
G01 X59.357768 Y171.618480 Z-0.125000
G01 X46.538195 Y169.344498 Z-0.125000
G01 X42.514484 Y168.177495 Z-0.125000
G01 X39.799044 Y166.737725 Z-0.125000
G01 X37.765358 Y164.853456 Z-0.125000
G01 X36.224813 Y162.359101 Z-0.125000
G01 X35.214600 Y159.225552 Z-0.125000
G01 X34.868807 Y156.884560 Z-0.125000
G01 X34.775017 Y154.308963 Z-0.125000
G01 X35.361882 Y148.562173 Z-0.125000
G01 X37.032116 Y141.871793 Z-0.125000
G01 X39.689924 Y134.455545 Z-0.125000
G01 X42.680718 Y128.111087 Z-0.125000
G01 X45.982506 Y122.724191 Z-0.125000
G01 X49.887912 Y117.764717 Z-0.125000
G01 X54.002825 Y113.701486 Z-0.125000
G01 X57.483461 Y110.979254 Z-0.125000
G01 X61.110602 Y108.713358 Z-0.125000
G01 X65.144985 Y106.775273 Z-0.125000
G01 X69.155436 Y105.372437 Z-0.125000
G01 X72.717507 Y104.507178 Z-0.125000
G01 X76.385980 Y103.939006 Z-0.125000
G01 X86.653696 Y103.373356 Z-0.125000
G01 X89.419266 Y103.063009 Z-0.125000
G01 X92.288456 Y102.369612 Z-0.125000
G01 X98.991643 Y100.077584 Z-0.125000
G01 X101.304046 Y99.645698 Z-0.125000
G01 X103.471043 Y99.543306 Z-0.125000
G01 X105.852462 Y99.817560 Z-0.125000
G01 X108.005811 Y100.479392 Z-0.125000
G01 X110.073649 Y101.579837 Z-0.125000
G01 X111.827259 Y102.986878 Z-0.125000
G01 X113.415410 Y104.791910 Z-0.125000
G01 X114.675039 Y106.753346 Z-0.125000
G01 X115.869016 Y109.290779 Z-0.125000
G01 X116.847663 Y112.175106 Z-0.125000
G01 X118.090475 Y117.750358 Z-0.125000
G01 X120.099710 Y131.607052 Z-0.125000
G01 X121.382108 Y138.480032 Z-0.125000
G01 X123.122781 Y145.350747 Z-0.125000
G01 X126.716546 Y157.193290 Z-0.125000
G01 X127.925076 Y163.100234 Z-0.125000
G01 X128.511941 Y169.099545 Z-0.125000
G01 X128.453986 Y173.835217 Z-0.125000
G01 X127.771196 Y176.635004 Z-0.125000
G01 X127.137307 Y177.719860 Z-0.125000
G01 X126.287377 Y178.629815 Z-0.125000
G01 X123.971805 Y180.108136 Z-0.125000
G01 X120.376099 Y181.552110 Z-0.125000
G01 X115.891008 Y182.798091 Z-0.125000
G01 X111.444855 Y183.596986 Z-0.125000
G01 X107.001613 Y183.991291 Z-0.125000
G01 X102.877451 Y183.998147 Z-0.125000
G01 X98.562410 Y183.632238 Z-0.125000
G01 X94.517354 Y182.943821 Z-0.125000
G01 X88.199610 Y181.244868 Z-0.125000
G01 X74.684310 Y176.378796 Z-0.125000
G01 X67.086369 Y174.051063 Z-0.125000
G01 X59.052014 Y172.211878 Z-0.125000
G01 X46.052816 Y170.024636 Z-0.125000
G01 X41.988485 Y168.888098 Z-0.125000
G01 X39.242838 Y167.457448 Z-0.125000
G01 X37.051004 Y165.404422 Z-0.125000
G01 X35.516474 Y162.832901 Z-0.125000
G01 X34.518421 Y159.601746 Z-0.125000
G01 X34.186276 Y157.189991 Z-0.125000
G01 X34.111891 Y154.539621 Z-0.125000
G01 X34.755806 Y148.638757 Z-0.125000
G01 X36.502883 Y141.789711 Z-0.125000
G01 X39.240121 Y134.215443 Z-0.125000
G01 X42.109054 Y128.123636 Z-0.125000
G01 X45.446417 Y122.622381 Z-0.125000
G01 X49.391862 Y117.555599 Z-0.125000
G01 X53.548559 Y113.404657 Z-0.125000
G01 X57.065223 Y110.625117 Z-0.125000
G01 X60.731045 Y108.313813 Z-0.125000
G01 X64.809800 Y106.340477 Z-0.125000
G01 X68.864752 Y104.916813 Z-0.125000
G01 X72.465115 Y104.043727 Z-0.125000
G01 X76.169294 Y103.476396 Z-0.125000
G01 X86.475819 Y102.930022 Z-0.125000
G01 X89.224894 Y102.607708 Z-0.125000
G01 X92.071252 Y101.876730 Z-0.125000
G01 X98.960984 Y99.372285 Z-0.125000
G01 X101.292145 Y98.911939 Z-0.125000
G01 X103.482815 Y98.791694 Z-0.125000
G01 X105.696771 Y99.017501 Z-0.125000
G01 X107.890287 Y99.643952 Z-0.125000
G01 X110.005020 Y100.717553 Z-0.125000
G01 X111.803585 Y102.109135 Z-0.125000
G01 X113.435333 Y103.907829 Z-0.125000
G01 X114.730408 Y105.871722 Z-0.125000
G01 X115.957631 Y108.420540 Z-0.125000
G01 X116.962022 Y111.324788 Z-0.125000
G01 X118.233165 Y116.950557 Z-0.125000
G01 X120.297639 Y130.966824 Z-0.125000
G01 X121.642326 Y137.930294 Z-0.125000
G01 X123.483581 Y144.896675 Z-0.125000
G01 X127.393967 Y157.189215 Z-0.125000
G01 X128.668020 Y163.177207 Z-0.125000
G01 X129.312259 Y169.216233 Z-0.125000
G01 X129.287550 Y173.942720 Z-0.125000
G01 X128.605602 Y176.733192 Z-0.125000
G01 X127.962398 Y177.823999 Z-0.125000
G01 X127.097009 Y178.751354 Z-0.125000
G01 X124.733766 Y180.299273 Z-0.125000
G01 X121.053843 Y181.861681 Z-0.125000
G01 X116.711895 Y183.169175 Z-0.125000
G01 X112.192068 Y184.077513 Z-0.125000
G01 X108.001477 Y184.536307 Z-0.125000
G01 X103.812308 Y184.631390 Z-0.125000
G01 X99.417708 Y184.338960 Z-0.125000
G01 X95.292575 Y183.699896 Z-0.125000
G01 X88.470436 Y181.918084 Z-0.125000
G01 X74.685669 Y176.984678 Z-0.125000
G01 X66.933912 Y174.641939 Z-0.125000
G01 X58.750981 Y172.817954 Z-0.125000
G01 X45.579016 Y170.716934 Z-0.125000
G01 X41.476910 Y169.610085 Z-0.125000
G01 X38.702674 Y168.187779 Z-0.125000
G01 X36.479856 Y166.122464 Z-0.125000
G01 X34.914537 Y163.518084 Z-0.125000
G01 X33.887830 Y160.233437 Z-0.125000
G01 X33.541002 Y157.777309 Z-0.125000
G01 X33.456850 Y155.076034 Z-0.125000
G01 X33.643524 Y152.158590 Z-0.125000
G01 X34.099860 Y149.058871 Z-0.125000
G01 X35.754894 Y142.454260 Z-0.125000
G01 X38.647370 Y134.353799 Z-0.125000
G01 X41.548902 Y128.139289 Z-0.125000
G01 X44.920612 Y122.523481 Z-0.125000
G01 X48.904155 Y117.349196 Z-0.125000
G01 X53.100309 Y113.110287 Z-0.125000
G01 X56.651190 Y110.273114 Z-0.125000
G01 X60.354075 Y107.916145 Z-0.125000
G01 X64.131474 Y106.052510 Z-0.125000
G01 X68.236296 Y104.562675 Z-0.125000
G01 X71.888664 Y103.645864 Z-0.125000
G01 X75.651703 Y103.048908 Z-0.125000
G01 X86.297166 Y102.487593 Z-0.125000
G01 X89.029100 Y102.153442 Z-0.125000
G01 X91.851784 Y101.384884 Z-0.125000
G01 X98.736859 Y98.714010 Z-0.125000
G01 X101.081150 Y98.199266 Z-0.125000
G01 X103.496010 Y98.033355 Z-0.125000
G01 X105.742760 Y98.251400 Z-0.125000
G01 X107.973987 Y98.881344 Z-0.125000
G01 X110.127271 Y99.970793 Z-0.125000
G01 X111.957788 Y101.387536 Z-0.125000
G01 X113.615538 Y103.220964 Z-0.125000
G01 X114.927496 Y105.223149 Z-0.125000
G01 X116.052455 Y107.544026 Z-0.125000
G01 X117.083302 Y110.467291 Z-0.125000
G01 X118.383099 Y116.141766 Z-0.125000
G01 X120.501454 Y130.313142 Z-0.125000
G01 X121.908689 Y137.365486 Z-0.125000
G01 X123.852077 Y144.426756 Z-0.125000
G01 X128.092216 Y157.176408 Z-0.125000
G01 X129.430434 Y163.246158 Z-0.125000
G01 X130.130494 Y169.320501 Z-0.125000
G01 X130.150740 Y173.874350 Z-0.125000
G01 X129.895825 Y175.493938 Z-0.125000
G01 X129.449516 Y176.817926 Z-0.125000
G01 X128.794928 Y177.916689 Z-0.125000
G01 X127.912334 Y178.864289 Z-0.125000
G01 X125.498379 Y180.488728 Z-0.125000
G01 X121.731329 Y182.177332 Z-0.125000
G01 X117.540026 Y183.538578 Z-0.125000
G01 X112.946656 Y184.560433 Z-0.125000
G01 X108.676246 Y185.102603 Z-0.125000
G01 X104.401049 Y185.259846 Z-0.125000
G01 X99.913694 Y185.010171 Z-0.125000
G01 X95.702339 Y184.390835 Z-0.125000
G01 X88.744432 Y182.603332 Z-0.125000
G01 X74.689744 Y177.602720 Z-0.125000
G01 X66.784431 Y175.245233 Z-0.125000
G01 X58.454347 Y173.436514 Z-0.125000
G01 X44.863109 Y171.372945 Z-0.125000
G01 X40.775622 Y170.266031 Z-0.125000
G01 X38.011605 Y168.811902 Z-0.125000
G01 X35.925462 Y166.849561 Z-0.125000
G01 X34.328901 Y164.211287 Z-0.125000
G01 X33.272505 Y160.872048 Z-0.125000
G01 X32.910218 Y158.370837 Z-0.125000
G01 X32.815458 Y155.617880 Z-0.125000
G01 X33.392103 Y149.842242 Z-0.125000
G01 X35.017835 Y143.135497 Z-0.125000
G01 X37.905784 Y134.892735 Z-0.125000
G01 X41.000264 Y128.157594 Z-0.125000
G01 X44.404962 Y122.427169 Z-0.125000
G01 X48.424533 Y117.145252 Z-0.125000
G01 X52.657815 Y112.818180 Z-0.125000
G01 X56.241037 Y109.923181 Z-0.125000
G01 X59.979239 Y107.520287 Z-0.125000
G01 X63.794477 Y105.623211 Z-0.125000
G01 X67.941861 Y104.110932 Z-0.125000
G01 X71.631809 Y103.184871 Z-0.125000
G01 X75.430877 Y102.587721 Z-0.125000
G01 X85.922459 Y102.059135 Z-0.125000
G01 X88.661379 Y101.732876 Z-0.125000
G01 X91.630440 Y100.893814 Z-0.125000
G01 X98.702836 Y97.996421 Z-0.125000
G01 X101.067437 Y97.453346 Z-0.125000
G01 X103.511793 Y97.268677 Z-0.125000
G01 X105.793666 Y97.479801 Z-0.125000
G01 X108.065060 Y98.114402 Z-0.125000
G01 X110.064593 Y99.099971 Z-0.125000
G01 X111.943493 Y100.500867 Z-0.125000
G01 X113.486626 Y102.125823 Z-0.125000
G01 X114.856927 Y104.092692 Z-0.125000
G01 X116.035379 Y106.387695 Z-0.125000
G01 X117.116743 Y109.293755 Z-0.125000
G01 X118.475724 Y114.966936 Z-0.125000
G01 X120.643562 Y129.246202 Z-0.125000
G01 X122.181779 Y136.786253 Z-0.125000
G01 X124.228724 Y143.941572 Z-0.125000
G01 X128.723647 Y156.863215 Z-0.125000
G01 X130.212317 Y163.307542 Z-0.125000
G01 X130.966064 Y169.412674 Z-0.125000
G01 X131.010824 Y173.953457 Z-0.125000
G01 X130.755587 Y175.566318 Z-0.125000
G01 X130.301773 Y176.890047 Z-0.125000
G01 X129.633667 Y177.998966 Z-0.125000
G01 X128.731927 Y178.969722 Z-0.125000
G01 X126.119591 Y180.758843 Z-0.125000
G01 X122.407521 Y182.500357 Z-0.125000
G01 X118.107163 Y183.985276 Z-0.125000
G01 X113.389602 Y185.105966 Z-0.125000
G01 X109.004963 Y185.707708 Z-0.125000
G01 X104.620259 Y185.896711 Z-0.125000
G01 X100.414079 Y185.691538 Z-0.125000
G01 X96.115661 Y185.093094 Z-0.125000
G01 X89.021079 Y183.300740 Z-0.125000
G01 X74.696083 Y178.232923 Z-0.125000
G01 X66.637472 Y175.860818 Z-0.125000
G01 X58.161917 Y174.067622 Z-0.125000
G01 X44.410525 Y172.090145 Z-0.125000
G01 X40.291861 Y171.010205 Z-0.125000
G01 X37.502229 Y169.561379 Z-0.125000
G01 X35.255091 Y167.417733 Z-0.125000
G01 X33.663252 Y164.693108 Z-0.125000
G01 X32.617464 Y161.247401 Z-0.125000
G01 X32.268437 Y158.670382 Z-0.125000
G01 X32.193405 Y155.838125 Z-0.125000
G01 X32.825419 Y149.910611 Z-0.125000
G01 X34.526248 Y143.049534 Z-0.125000
G01 X37.498025 Y134.638338 Z-0.125000
G01 X40.463075 Y128.178163 Z-0.125000
G01 X43.899403 Y122.333120 Z-0.125000
G01 X47.952868 Y116.943507 Z-0.125000
G01 X52.220884 Y112.528208 Z-0.125000
G01 X55.498287 Y109.823441 Z-0.125000
G01 X59.258739 Y107.327468 Z-0.125000
G01 X63.106643 Y105.349798 Z-0.125000
G01 X67.300921 Y103.766756 Z-0.125000
G01 X71.041904 Y102.793089 Z-0.125000
G01 X74.900803 Y102.162886 Z-0.125000
G01 X78.710285 Y101.847947 Z-0.125000
G01 X85.743224 Y101.617871 Z-0.125000
G01 X88.464938 Y101.281133 Z-0.125000
G01 X91.407609 Y100.403325 Z-0.125000
G01 X98.668877 Y97.271329 Z-0.125000
G01 X101.055083 Y96.700570 Z-0.125000
G01 X103.531198 Y96.497855 Z-0.125000
G01 X105.850716 Y96.703028 Z-0.125000
G01 X107.956328 Y97.265961 Z-0.125000
G01 X110.003791 Y98.226691 Z-0.125000
G01 X111.932885 Y99.611158 Z-0.125000
G01 X113.519679 Y101.229257 Z-0.125000
G01 X114.929630 Y103.196773 Z-0.125000
G01 X116.141653 Y105.499667 Z-0.125000
G01 X117.251865 Y108.422221 Z-0.125000
G01 X118.641053 Y114.139516 Z-0.125000
G01 X120.858373 Y128.563089 Z-0.125000
G01 X122.461854 Y136.193178 Z-0.125000
G01 X124.613650 Y143.441834 Z-0.125000
G01 X129.460123 Y156.832167 Z-0.125000
G01 X131.013411 Y163.361681 Z-0.125000
G01 X131.818451 Y169.493204 Z-0.125000
G01 X131.883069 Y174.018916 Z-0.125000
G01 X131.624791 Y175.625502 Z-0.125000
G01 X131.161017 Y176.950461 Z-0.125000
G01 X130.477193 Y178.071863 Z-0.125000
G01 X129.554495 Y179.068880 Z-0.125000
G01 X126.882651 Y180.954314 Z-0.125000
G01 X123.081125 Y182.831985 Z-0.125000
G01 X118.668867 Y184.445428 Z-0.125000
G01 X114.150916 Y185.601694 Z-0.125000
G01 X109.684453 Y186.291986 Z-0.125000
G01 X105.211393 Y186.546512 Z-0.125000
G01 X100.918150 Y186.383124 Z-0.125000
G01 X96.531894 Y185.806673 Z-0.125000
G01 X89.299732 Y184.010178 Z-0.125000
G01 X74.704233 Y178.875221 Z-0.125000
G01 X66.492777 Y176.488756 Z-0.125000
G01 X57.486565 Y174.647695 Z-0.125000
G01 X43.969778 Y172.818148 Z-0.125000
G01 X39.823170 Y171.763951 Z-0.125000
G01 X37.009542 Y170.319330 Z-0.125000
G01 X34.732456 Y168.158737 Z-0.125000
G01 X33.108211 Y165.396661 Z-0.125000
G01 X32.030793 Y161.892739 Z-0.125000
G01 X31.665078 Y159.268437 Z-0.125000
G01 X31.578403 Y156.382493 Z-0.125000
G01 X32.206988 Y150.340945 Z-0.125000
G01 X33.930068 Y143.350308 Z-0.125000
G01 X36.776685 Y135.196290 Z-0.125000
G01 X39.937206 Y128.200479 Z-0.125000
G01 X43.403805 Y122.240947 Z-0.125000
G01 X47.488899 Y116.743832 Z-0.125000
G01 X51.789193 Y112.240241 Z-0.125000
G01 X55.092210 Y109.482304 Z-0.125000
G01 X58.883968 Y106.938855 Z-0.125000
G01 X62.766606 Y104.926127 Z-0.125000
G01 X66.651184 Y103.430342 Z-0.125000
G01 X70.442296 Y102.406416 Z-0.125000
G01 X74.674285 Y101.702475 Z-0.125000
G01 X78.514167 Y101.393487 Z-0.125000
G01 X85.563342 Y101.176606 Z-0.125000
G01 X88.267851 Y100.829584 Z-0.125000
G01 X91.183677 Y99.913096 Z-0.125000
G01 X98.439577 Y96.603287 Z-0.125000
G01 X101.044993 Y95.940937 Z-0.125000
G01 X103.555324 Y95.721081 Z-0.125000
G01 X105.915204 Y95.921533 Z-0.125000
G01 X108.061696 Y96.490740 Z-0.125000
G01 X110.150039 Y97.468352 Z-0.125000
G01 X112.115872 Y98.880309 Z-0.125000
G01 X113.729509 Y100.531138 Z-0.125000
G01 X115.158542 Y102.537786 Z-0.125000
G01 X116.381819 Y104.884665 Z-0.125000
G01 X117.396172 Y107.546096 Z-0.125000
G01 X118.815696 Y113.305693 Z-0.125000
G01 X121.080687 Y127.868722 Z-0.125000
G01 X122.645941 Y135.186976 Z-0.125000
G01 X125.007244 Y142.927995 Z-0.125000
G01 X130.120598 Y156.495041 Z-0.125000
G01 X131.068715 Y159.795665 Z-0.125000
G01 X131.833457 Y163.409094 Z-0.125000
G01 X132.686815 Y169.562349 Z-0.125000
G01 X132.766245 Y174.071244 Z-0.125000
G01 X132.534876 Y175.539151 Z-0.125000
G01 X132.078475 Y176.888624 Z-0.125000
G01 X131.397755 Y178.039004 Z-0.125000
G01 X130.378746 Y179.163058 Z-0.125000
G01 X127.644612 Y181.152501 Z-0.125000
G01 X123.751108 Y183.173509 Z-0.125000
G01 X119.505665 Y184.827184 Z-0.125000
G01 X114.916952 Y186.100720 Z-0.125000
G01 X110.368472 Y186.882409 Z-0.125000
G01 X105.806408 Y187.204787 Z-0.125000
G01 X101.425391 Y187.084866 Z-0.125000
G01 X96.950261 Y186.531571 Z-0.125000
G01 X93.267427 Y185.760748 Z-0.125000
G01 X89.579743 Y184.731583 Z-0.125000
G01 X74.713676 Y179.529615 Z-0.125000
G01 X66.349828 Y177.128791 Z-0.125000
G01 X57.196141 Y175.304547 Z-0.125000
G01 X43.284919 Y173.512839 Z-0.125000
G01 X39.369551 Y172.526688 Z-0.125000
G01 X36.533607 Y171.085107 Z-0.125000
G01 X34.227026 Y168.906403 Z-0.125000
G01 X32.471281 Y165.876347 Z-0.125000
G01 X31.403436 Y162.259878 Z-0.125000
G01 X31.050787 Y159.556210 Z-0.125000
G01 X30.984293 Y156.588184 Z-0.125000
G01 X31.670252 Y150.391138 Z-0.125000
G01 X33.470369 Y143.244617 Z-0.125000
G01 X36.396545 Y134.929604 Z-0.125000
G01 X39.422656 Y128.224088 Z-0.125000
G01 X42.917974 Y122.150327 Z-0.125000
G01 X47.032564 Y116.545903 Z-0.125000
G01 X51.362352 Y111.954215 Z-0.125000
G01 X54.689043 Y109.143044 Z-0.125000
G01 X58.510297 Y106.552053 Z-0.125000
G01 X62.425988 Y104.504008 Z-0.125000
G01 X66.346465 Y102.985002 Z-0.125000
G01 X70.173993 Y101.948981 Z-0.125000
G01 X74.129851 Y101.280227 Z-0.125000
G01 X78.035128 Y100.952351 Z-0.125000
G01 X85.382942 Y100.735147 Z-0.125000
G01 X88.070375 Y100.377840 Z-0.125000
G01 X90.959035 Y99.422931 Z-0.125000
G01 X96.094575 Y96.824308 Z-0.125000
G01 X98.406072 Y95.865970 Z-0.125000
G01 X101.038072 Y95.174772 Z-0.125000
G01 X103.585402 Y94.938810 Z-0.125000
G01 X105.988425 Y95.135768 Z-0.125000
G01 X108.178125 Y95.712737 Z-0.125000
G01 X110.309158 Y96.708849 Z-0.125000
G01 X112.120141 Y97.985296 Z-0.125000
G01 X113.780220 Y99.629333 Z-0.125000
G01 X115.251038 Y101.636564 Z-0.125000
G01 X116.509179 Y103.990946 Z-0.125000
G01 X117.550440 Y106.666218 Z-0.125000
G01 X118.930314 Y112.101950 Z-0.125000
G01 X121.237154 Y126.750165 Z-0.125000
G01 X122.936689 Y134.563565 Z-0.125000
G01 X125.409699 Y142.400832 Z-0.125000
G01 X130.895172 Y156.448664 Z-0.125000
G01 X131.875695 Y159.795794 Z-0.125000
G01 X132.672067 Y163.450167 Z-0.125000
G01 X133.570573 Y169.620564 Z-0.125000
G01 X133.659253 Y174.111218 Z-0.125000
G01 X133.420380 Y175.574532 Z-0.125000
G01 X132.949362 Y176.927628 Z-0.125000
G01 X132.248914 Y178.094372 Z-0.125000
G01 X131.203320 Y179.253420 Z-0.125000
G01 X128.245966 Y181.453857 Z-0.125000
G01 X124.189009 Y183.632626 Z-0.125000
G01 X119.771123 Y185.410169 Z-0.125000
G01 X115.348838 Y186.683898 Z-0.125000
G01 X111.056177 Y187.479171 Z-0.125000
G01 X106.404463 Y187.871665 Z-0.125000
G01 X101.934831 Y187.796762 Z-0.125000
G01 X97.370245 Y187.267594 Z-0.125000
G01 X93.616390 Y186.501299 Z-0.125000
G01 X89.860530 Y185.464825 Z-0.125000
G01 X74.724026 Y180.195910 Z-0.125000
G01 X66.208367 Y177.780921 Z-0.125000
G01 X56.909273 Y175.973301 Z-0.125000
G01 X42.866681 Y174.262446 Z-0.125000
G01 X38.931197 Y173.297640 Z-0.125000
G01 X36.074490 Y171.857935 Z-0.125000
G01 X33.738737 Y169.659826 Z-0.125000
G01 X31.946900 Y166.586562 Z-0.125000
G01 X30.845161 Y162.908321 Z-0.125000
G01 X30.474530 Y160.155300 Z-0.125000
G01 X30.389278 Y157.479834 Z-0.125000
G01 X30.544257 Y154.616464 Z-0.125000
G01 X31.007126 Y151.207109 Z-0.125000
G01 X32.649805 Y144.369253 Z-0.125000
G01 X35.695127 Y135.504373 Z-0.125000
G01 X38.919166 Y128.248603 Z-0.125000
G01 X42.441910 Y122.060936 Z-0.125000
G01 X46.583472 Y116.349527 Z-0.125000
G01 X50.940169 Y111.669999 Z-0.125000
G01 X54.288528 Y108.805595 Z-0.125000
G01 X58.137143 Y106.166933 Z-0.125000
G01 X62.084399 Y104.083313 Z-0.125000
G01 X66.039675 Y102.540827 Z-0.125000
G01 X69.903167 Y101.492322 Z-0.125000
G01 X73.895894 Y100.820269 Z-0.125000
G01 X77.833383 Y100.497115 Z-0.125000
G01 X85.007330 Y100.305719 Z-0.125000
G01 X87.872705 Y99.925580 Z-0.125000
G01 X90.734198 Y98.932637 Z-0.125000
G01 X95.856607 Y96.209306 Z-0.125000
G01 X98.176255 Y95.193077 Z-0.125000
G01 X100.825266 Y94.442242 Z-0.125000
G01 X103.622659 Y94.151299 Z-0.125000
G01 X106.071607 Y94.346317 Z-0.125000
G01 X108.306843 Y94.932536 Z-0.125000
G01 X110.482313 Y95.949023 Z-0.125000
G01 X112.328678 Y97.252571 Z-0.125000
G01 X114.017023 Y98.931149 Z-0.125000
G01 X115.507440 Y100.978936 Z-0.125000
G01 X116.776318 Y103.378208 Z-0.125000
G01 X117.820684 Y106.100828 Z-0.125000
G01 X119.124685 Y111.255190 Z-0.125000
G01 X121.473633 Y126.031412 Z-0.125000
G01 X123.235588 Y133.928446 Z-0.125000
G01 X125.821274 Y141.861056 Z-0.125000
G01 X131.584559 Y156.090516 Z-0.125000
G01 X132.620774 Y159.480984 Z-0.125000
G01 X133.586744 Y163.784059 Z-0.125000
G01 X134.491071 Y169.899152 Z-0.125000
G01 X134.560735 Y174.139614 Z-0.125000
G01 X134.276713 Y175.732164 Z-0.125000
G01 X133.767597 Y177.071482 Z-0.125000
G01 X133.023100 Y178.245988 Z-0.125000
G01 X131.922913 Y179.439706 Z-0.125000
G01 X128.833220 Y181.774683 Z-0.125000
G01 X124.842239 Y184.005586 Z-0.125000
G01 X120.606175 Y185.808872 Z-0.125000
G01 X116.116168 Y187.197931 Z-0.125000
G01 X111.746793 Y188.082271 Z-0.125000
G01 X107.004912 Y188.547081 Z-0.125000
G01 X102.445888 Y188.518685 Z-0.125000
G01 X97.791005 Y188.014743 Z-0.125000
G01 X94.390576 Y187.352716 Z-0.125000
G01 X90.566605 Y186.338234 Z-0.125000
G01 X74.734634 Y180.873913 Z-0.125000
G01 X66.067877 Y178.444952 Z-0.125000
G01 X56.625705 Y176.653632 Z-0.125000
G01 X42.460474 Y175.021108 Z-0.125000
G01 X38.299636 Y174.000740 Z-0.125000
G01 X35.458906 Y172.515045 Z-0.125000
G01 X33.128457 Y170.239123 Z-0.125000
G01 X31.338301 Y167.059650 Z-0.125000
G01 X30.244906 Y163.262846 Z-0.125000
G01 X29.887212 Y160.427290 Z-0.125000
G01 X29.819877 Y157.676534 Z-0.125000
G01 X29.999112 Y154.737680 Z-0.125000
G01 X30.495940 Y151.244884 Z-0.125000
G01 X32.212810 Y144.257805 Z-0.125000
G01 X35.342025 Y135.223133 Z-0.125000
G01 X38.426673 Y128.273441 Z-0.125000
G01 X41.975225 Y121.972385 Z-0.125000
G01 X46.141496 Y116.154509 Z-0.125000
G01 X50.522190 Y111.387401 Z-0.125000
G01 X53.890213 Y108.470022 Z-0.125000
G01 X57.406553 Y106.004450 Z-0.125000
G01 X61.377806 Y103.833508 Z-0.125000
G01 X65.369757 Y102.218384 Z-0.125000
G01 X69.281244 Y101.113864 Z-0.125000
G01 X73.659027 Y100.360570 Z-0.125000
G01 X77.629245 Y100.041556 Z-0.125000
G01 X84.826542 Y99.862773 Z-0.125000
G01 X87.675035 Y99.472607 Z-0.125000
G01 X90.509426 Y98.441826 Z-0.125000
G01 X95.618899 Y95.594303 Z-0.125000
G01 X97.946631 Y94.520249 Z-0.125000
G01 X100.612913 Y93.709711 Z-0.125000
G01 X103.444394 Y93.363271 Z-0.125000
G01 X105.937261 Y93.516892 Z-0.125000
G01 X108.222368 Y94.071998 Z-0.125000
G01 X110.453659 Y95.065006 Z-0.125000
G01 X112.351511 Y96.354906 Z-0.125000
G01 X114.089015 Y98.027081 Z-0.125000
G01 X115.623157 Y100.075514 Z-0.125000
G01 X116.794688 Y102.197750 Z-0.125000
G01 X117.891576 Y104.898637 Z-0.125000
G01 X119.330505 Y110.404808 Z-0.125000
G01 X121.719039 Y125.303798 Z-0.125000
G01 X123.542895 Y133.282267 Z-0.125000
G01 X126.242164 Y141.309184 Z-0.125000
G01 X132.285653 Y155.721114 Z-0.125000
G01 X133.463136 Y159.470570 Z-0.125000
G01 X134.463517 Y163.815559 Z-0.125000
G01 X135.403549 Y169.936215 Z-0.125000
G01 X135.469460 Y174.157143 Z-0.125000
G01 X135.170821 Y175.747235 Z-0.125000
G01 X134.641264 Y177.095350 Z-0.125000
G01 X133.872124 Y178.293271 Z-0.125000
G01 X132.741213 Y179.531102 Z-0.125000
G01 X129.576617 Y182.003271 Z-0.125000
G01 X125.488030 Y184.392323 Z-0.125000
G01 X121.142006 Y186.324910 Z-0.125000
G01 X116.532788 Y187.810799 Z-0.125000
G01 X112.049702 Y188.755229 Z-0.125000
G01 X107.606848 Y189.231034 Z-0.125000
G01 X102.957786 Y189.250569 Z-0.125000
G01 X98.211959 Y188.772823 Z-0.125000
G01 X94.747430 Y188.116294 Z-0.125000
G01 X90.854378 Y187.096056 Z-0.125000
G01 X74.745112 Y181.563688 Z-0.125000
G01 X65.928033 Y179.120691 Z-0.125000
G01 X56.345112 Y177.345413 Z-0.125000
G01 X42.066298 Y175.788179 Z-0.125000
G01 X37.890842 Y174.786504 Z-0.125000
G01 X35.032066 Y173.298610 Z-0.125000
G01 X33.711635 Y172.182900 Z-0.125000
G01 X32.672444 Y170.999273 Z-0.125000
G01 X30.844320 Y167.772647 Z-0.125000
G01 X29.714638 Y163.910707 Z-0.125000
G01 X29.337474 Y161.023793 Z-0.125000
G01 X29.257591 Y158.222261 Z-0.125000
G01 X29.430035 Y155.228944 Z-0.125000
G01 X29.926797 Y151.671854 Z-0.125000
G01 X31.663719 Y144.559873 Z-0.125000
G01 X34.660011 Y135.812392 Z-0.125000
G01 X37.945046 Y128.298214 Z-0.125000
G01 X41.517919 Y121.884352 Z-0.125000
G01 X45.706312 Y115.960655 Z-0.125000
G01 X50.108221 Y111.106485 Z-0.125000
G01 X53.493709 Y108.136130 Z-0.125000
G01 X57.390965 Y105.402061 Z-0.125000
G01 X61.030008 Y103.418699 Z-0.125000
G01 X65.054171 Y101.778219 Z-0.125000
G01 X69.000586 Y100.659339 Z-0.125000
G01 X73.091825 Y99.940974 Z-0.125000
G01 X77.132029 Y99.598544 Z-0.125000
G01 X84.645366 Y99.418533 Z-0.125000
G01 X87.477559 Y99.018471 Z-0.125000
G01 X90.285236 Y97.950432 Z-0.125000
G01 X95.382031 Y94.979172 Z-0.125000
G01 X97.918171 Y93.766308 Z-0.125000
G01 X100.615630 Y92.928410 Z-0.125000
G01 X103.495299 Y92.567222 Z-0.125000
G01 X105.805826 Y92.687661 Z-0.125000
G01 X108.142291 Y93.211655 Z-0.125000
G01 X110.431020 Y94.181312 Z-0.125000
G01 X112.381977 Y95.457435 Z-0.125000
G01 X114.170192 Y97.123141 Z-0.125000
G01 X115.749288 Y99.171963 Z-0.125000
G01 X116.954131 Y101.299956 Z-0.125000
G01 X118.079867 Y104.012744 Z-0.125000
G01 X119.548356 Y109.551709 Z-0.125000
G01 X121.973759 Y124.568163 Z-0.125000
G01 X123.858934 Y132.625933 Z-0.125000
G01 X126.672497 Y140.746122 Z-0.125000
G01 X133.114626 Y155.655914 Z-0.125000
G01 X134.323996 Y159.458216 Z-0.125000
G01 X135.357365 Y163.841885 Z-0.125000
G01 X136.328251 Y169.963640 Z-0.125000
G01 X136.384008 Y174.164710 Z-0.125000
G01 X136.067710 Y175.753768 Z-0.125000
G01 X135.514868 Y177.113008 Z-0.125000
G01 X134.718884 Y178.337256 Z-0.125000
G01 X133.555502 Y179.623081 Z-0.125000
G01 X130.313804 Y182.240592 Z-0.125000
G01 X126.125283 Y184.794002 Z-0.125000
G01 X121.666646 Y186.858865 Z-0.125000
G01 X117.297725 Y188.341325 Z-0.125000
G01 X112.736437 Y189.378381 Z-0.125000
G01 X108.209561 Y189.923397 Z-0.125000
G01 X103.469749 Y189.992349 Z-0.125000
G01 X98.632267 Y189.541705 Z-0.125000
G01 X95.103249 Y188.890998 Z-0.125000
G01 X91.141052 Y187.865197 Z-0.125000
G01 X74.754944 Y182.264848 Z-0.125000
G01 X65.788318 Y179.808009 Z-0.125000
G01 X56.067171 Y178.048254 Z-0.125000
G01 X41.684089 Y176.563141 Z-0.125000
G01 X37.497443 Y175.578219 Z-0.125000
G01 X35.901658 Y174.875572 Z-0.125000
G01 X34.447982 Y173.959473 Z-0.125000
G01 X33.130721 Y172.801913 Z-0.125000
G01 X32.092047 Y171.574496 Z-0.125000
G01 X30.263341 Y168.234480 Z-0.125000
G01 X29.140645 Y164.248221 Z-0.125000
G01 X28.776353 Y161.275862 Z-0.125000
G01 X28.714839 Y158.396968 Z-0.125000
G01 X29.369557 Y152.098047 Z-0.125000
G01 X31.125948 Y144.860582 Z-0.125000
G01 X34.159497 Y135.964978 Z-0.125000
G01 X37.474028 Y128.322405 Z-0.125000
G01 X41.069604 Y121.796513 Z-0.125000
G01 X45.277595 Y115.767771 Z-0.125000
G01 X49.697746 Y110.827056 Z-0.125000
G01 X53.098627 Y107.804050 Z-0.125000
G01 X56.654747 Y105.250769 Z-0.125000
G01 X60.311125 Y103.185259 Z-0.125000
G01 X64.367824 Y101.467807 Z-0.125000
G01 X68.359969 Y100.288449 Z-0.125000
G01 X72.844737 Y99.481275 Z-0.125000
G01 X76.920000 Y99.141238 Z-0.125000
G01 X84.463802 Y98.972805 Z-0.125000
G01 X87.280665 Y98.562976 Z-0.125000
G01 X89.908913 Y97.538598 Z-0.125000
G01 X95.146522 Y94.364040 Z-0.125000
G01 X97.691847 Y93.089017 Z-0.125000
G01 X100.625332 Y92.141417 Z-0.125000
G01 X103.556812 Y91.767228 Z-0.125000
G01 X105.916498 Y91.889090 Z-0.125000
G01 X108.305291 Y92.425762 Z-0.125000
G01 X110.644279 Y93.419286 Z-0.125000
G01 X112.634497 Y94.725745 Z-0.125000
G01 X114.453113 Y96.428709 Z-0.125000
G01 X116.052391 Y98.520156 Z-0.125000
G01 X117.266418 Y100.688899 Z-0.125000
G01 X118.393966 Y103.449035 Z-0.125000
G01 X119.778820 Y108.696864 Z-0.125000
G01 X122.238182 Y123.825283 Z-0.125000
G01 X124.184028 Y131.960090 Z-0.125000
G01 X127.112533 Y140.172581 Z-0.125000
G01 X133.843987 Y155.270276 Z-0.125000
G01 X135.112477 Y159.120379 Z-0.125000
G01 X136.330062 Y164.164198 Z-0.125000
G01 X137.264209 Y169.982139 Z-0.125000
G01 X137.302953 Y174.163352 Z-0.125000
G01 X136.965698 Y175.752798 Z-0.125000
G01 X136.386854 Y177.125621 Z-0.125000
G01 X135.474441 Y178.490747 Z-0.125000
G01 X134.249676 Y179.830259 Z-0.125000
G01 X131.043489 Y182.488197 Z-0.125000
G01 X127.003737 Y185.071684 Z-0.125000
G01 X122.495813 Y187.279431 Z-0.125000
G01 X118.062985 Y188.876444 Z-0.125000
G01 X113.423561 Y190.008325 Z-0.125000
G01 X108.812338 Y190.624233 Z-0.125000
G01 X103.981195 Y190.743896 Z-0.125000
G01 X99.051410 Y190.321195 Z-0.125000
G01 X95.457516 Y189.676698 Z-0.125000
G01 X91.425914 Y188.645528 Z-0.125000
G01 X74.763611 Y182.977327 Z-0.125000
G01 X65.648410 Y180.506645 Z-0.125000
G01 X55.791558 Y178.761962 Z-0.125000
G01 X41.313781 Y177.345283 Z-0.125000
G01 X37.119373 Y176.375174 Z-0.125000
G01 X35.517250 Y175.672009 Z-0.125000
G01 X34.053547 Y174.750023 Z-0.125000
G01 X32.722250 Y173.580497 Z-0.125000
G01 X31.668118 Y172.337362 Z-0.125000
G01 X30.600079 Y170.653545 Z-0.125000
G01 X29.799049 Y168.946248 Z-0.125000
G01 X28.637544 Y164.891684 Z-0.125000
G01 X28.252359 Y161.866155 Z-0.125000
G01 X28.177392 Y158.935063 Z-0.125000
G01 X28.367494 Y155.809147 Z-0.125000
G01 X28.823959 Y152.522624 Z-0.125000
G01 X30.599367 Y145.159416 Z-0.125000
G01 X33.670044 Y136.115882 Z-0.125000
G01 X37.013358 Y128.345626 Z-0.125000
G01 X40.630086 Y121.708545 Z-0.125000
G01 X44.855089 Y115.575664 Z-0.125000
G01 X49.290439 Y110.549115 Z-0.125000
G01 X52.704387 Y107.473716 Z-0.125000
G01 X56.277518 Y104.876709 Z-0.125000
G01 X59.955565 Y102.776595 Z-0.125000
G01 X64.041694 Y101.031976 Z-0.125000
G01 X68.067539 Y99.836188 Z-0.125000
G01 X72.593316 Y99.021511 Z-0.125000
G01 X76.704542 Y98.683092 Z-0.125000
G01 X84.281721 Y98.525201 Z-0.125000
G01 X86.923811 Y98.146938 Z-0.125000
G01 X89.688280 Y97.047915 Z-0.125000
G01 X95.103896 Y93.635391 Z-0.125000
G01 X97.670760 Y92.323628 Z-0.125000
G01 X100.643184 Y91.349055 Z-0.125000
G01 X103.630162 Y90.963805 Z-0.125000
G01 X106.041853 Y91.089031 Z-0.125000
G01 X108.485367 Y91.640515 Z-0.125000
G01 X110.642079 Y92.536175 Z-0.125000
G01 X112.688443 Y93.829891 Z-0.125000
G01 X114.560293 Y95.527034 Z-0.125000
G01 X116.206271 Y97.619257 Z-0.125000
G01 X117.454386 Y99.793692 Z-0.125000
G01 X118.610717 Y102.565147 Z-0.125000
G01 X120.022350 Y107.841113 Z-0.125000
G01 X122.512695 Y123.076000 Z-0.125000
G01 X124.518308 Y131.285515 Z-0.125000
G01 X127.562336 Y139.589209 Z-0.125000
G01 X134.584538 Y154.875777 Z-0.125000
G01 X136.006779 Y159.101879 Z-0.125000
G01 X137.257740 Y164.182309 Z-0.125000
G01 X138.231731 Y170.215838 Z-0.125000
G01 X138.339233 Y172.449263 Z-0.125000
G01 X138.202171 Y174.309599 Z-0.125000
G01 X137.818215 Y175.878670 Z-0.125000
G01 X137.188336 Y177.254210 Z-0.125000
G01 X134.928520 Y180.052832 Z-0.125000
G01 X131.391934 Y183.024998 Z-0.125000
G01 X127.369517 Y185.646713 Z-0.125000
G01 X123.002795 Y187.843593 Z-0.125000
G01 X118.453926 Y189.534072 Z-0.125000
G01 X113.696133 Y190.726690 Z-0.125000
G01 X108.974044 Y191.371511 Z-0.125000
G01 X104.036951 Y191.492856 Z-0.125000
G01 X99.468548 Y191.111164 Z-0.125000
G01 X95.809518 Y190.473199 Z-0.125000
G01 X91.708383 Y189.436790 Z-0.125000
G01 X75.259403 Y183.854035 Z-0.125000
G01 X65.507855 Y181.216343 Z-0.125000
G01 X55.518015 Y179.486213 Z-0.125000
G01 X40.697550 Y178.097865 Z-0.125000
G01 X36.756504 Y177.176462 Z-0.125000
G01 X35.149076 Y176.471939 Z-0.125000
G01 X33.676060 Y175.543161 Z-0.125000
G01 X32.330920 Y174.360893 Z-0.125000
G01 X31.116892 Y172.903658 Z-0.125000
G01 X30.046784 Y171.158522 Z-0.125000
G01 X29.244655 Y169.392105 Z-0.125000
G01 X28.088647 Y165.207917 Z-0.125000
G01 X27.716269 Y162.094226 Z-0.125000
G01 X27.660319 Y159.083962 Z-0.125000
G01 X27.876618 Y155.879716 Z-0.125000
G01 X28.365424 Y152.517191 Z-0.125000
G01 X30.218710 Y145.003530 Z-0.125000
G01 X33.368817 Y135.799067 Z-0.125000
G01 X36.785805 Y127.907661 Z-0.125000
G01 X40.463528 Y121.185133 Z-0.125000
G01 X44.741247 Y114.993715 Z-0.125000
G01 X49.219806 Y109.938964 Z-0.125000
G01 X52.662925 Y106.858649 Z-0.125000
G01 X56.264452 Y104.268111 Z-0.125000
G01 X59.970054 Y102.184037 Z-0.125000
G01 X63.711037 Y100.597503 Z-0.125000
G01 X67.770064 Y99.384704 Z-0.125000
G01 X72.337108 Y98.561553 Z-0.125000
G01 X76.485268 Y98.223910 Z-0.125000
G01 X84.099251 Y98.075463 Z-0.125000
G01 X86.729634 Y97.688855 Z-0.125000
G01 X89.469395 Y96.555810 Z-0.125000
G01 X94.873626 Y93.015149 Z-0.125000
G01 X97.450386 Y91.642197 Z-0.125000
G01 X100.445644 Y90.605076 Z-0.125000
G01 X103.474859 Y90.166592 Z-0.125000
G01 X105.933639 Y90.256307 Z-0.125000
G01 X108.434527 Y90.778878 Z-0.125000
G01 X110.888585 Y91.777383 Z-0.125000
G01 X112.976151 Y93.104153 Z-0.125000
G01 X114.879178 Y94.840881 Z-0.125000
G01 X116.372634 Y96.720751 Z-0.125000
G01 X117.655614 Y98.900684 Z-0.125000
G01 X118.841246 Y101.682877 Z-0.125000
G01 X120.431015 Y107.745835 Z-0.125000
G01 X123.062497 Y123.631235 Z-0.125000
G01 X124.862096 Y130.603049 Z-0.125000
G01 X126.332138 Y134.869772 Z-0.125000
G01 X128.022035 Y138.996975 Z-0.125000
G01 X135.466032 Y154.799451 Z-0.125000
G01 X136.918351 Y159.083380 Z-0.125000
G01 X138.264007 Y164.495697 Z-0.125000
G01 X139.185799 Y170.217067 Z-0.125000
G01 X139.281529 Y172.438655 Z-0.125000
G01 X139.123057 Y174.293041 Z-0.125000
G01 X138.711094 Y175.867351 Z-0.125000
G01 X138.049649 Y177.263266 Z-0.125000
G01 X137.042088 Y178.702454 Z-0.125000
G01 X135.590352 Y180.293775 Z-0.125000
G01 X132.094452 Y183.314388 Z-0.125000
G01 X127.974170 Y186.099814 Z-0.125000
G01 X123.824717 Y188.278389 Z-0.125000
G01 X119.211360 Y190.087432 Z-0.125000
G01 X114.374201 Y191.377656 Z-0.125000
G01 X109.566278 Y192.094727 Z-0.125000
G01 X104.536365 Y192.267171 Z-0.125000
G01 X99.883099 Y191.911352 Z-0.125000
G01 X96.158610 Y191.280179 Z-0.125000
G01 X91.987747 Y190.238725 Z-0.125000
G01 X75.272340 Y184.589799 Z-0.125000
G01 X65.366200 Y181.936907 Z-0.125000
G01 X60.137194 Y180.925465 Z-0.125000
G01 X55.246154 Y180.220619 Z-0.125000
G01 X40.350592 Y178.893591 Z-0.125000
G01 X36.408835 Y177.981372 Z-0.125000
G01 X34.797009 Y177.274391 Z-0.125000
G01 X33.315260 Y176.337981 Z-0.125000
G01 X31.956537 Y175.142129 Z-0.125000
G01 X30.724334 Y173.665037 Z-0.125000
G01 X29.632362 Y171.893510 Z-0.125000
G01 X28.809276 Y170.098633 Z-0.125000
G01 X27.611678 Y165.843165 Z-0.125000
G01 X27.244733 Y163.042085 Z-0.125000
G01 X27.140206 Y160.005625 Z-0.125000
G01 X27.313362 Y156.767420 Z-0.125000
G01 X27.766851 Y153.364274 Z-0.125000
G01 X29.578546 Y145.748609 Z-0.125000
G01 X32.723414 Y136.410318 Z-0.125000
G01 X36.122355 Y128.387282 Z-0.125000
G01 X40.041798 Y121.088821 Z-0.125000
G01 X44.330836 Y114.796174 Z-0.125000
G01 X48.818450 Y109.658241 Z-0.125000
G01 X51.917135 Y106.818287 Z-0.125000
G01 X55.517692 Y104.134088 Z-0.125000
G01 X59.234031 Y101.964569 Z-0.125000
G01 X62.999140 Y100.303520 Z-0.125000
G01 X67.100211 Y99.024098 Z-0.125000
G01 X71.733943 Y98.145191 Z-0.125000
G01 X76.261919 Y97.763499 Z-0.125000
G01 X83.916393 Y97.623267 Z-0.125000
G01 X86.536491 Y97.228380 Z-0.125000
G01 X89.252578 Y96.062023 Z-0.125000
G01 X94.646460 Y92.394649 Z-0.125000
G01 X97.233376 Y90.961089 Z-0.125000
G01 X100.479085 Y89.804370 Z-0.125000
G01 X103.570460 Y89.358060 Z-0.125000
G01 X106.086354 Y89.454308 Z-0.125000
G01 X108.646427 Y89.995119 Z-0.125000
G01 X110.909995 Y90.897506 Z-0.125000
G01 X113.056616 Y92.212826 Z-0.125000
G01 X115.015205 Y93.944768 Z-0.125000
G01 X116.551934 Y95.825544 Z-0.125000
G01 X117.870619 Y98.010651 Z-0.125000
G01 X119.086005 Y100.803064 Z-0.125000
G01 X119.944084 Y103.549875 Z-0.125000
G01 X120.703975 Y106.895130 Z-0.125000
G01 X123.363724 Y122.881628 Z-0.125000
G01 X125.215522 Y129.913468 Z-0.125000
G01 X126.737503 Y134.223205 Z-0.125000
G01 X128.491696 Y138.396462 Z-0.125000
G01 X134.429235 Y150.384670 Z-0.125000
G01 X136.233621 Y154.393762 Z-0.125000
G01 X137.846546 Y159.065463 Z-0.125000
G01 X139.221504 Y164.506434 Z-0.125000
G01 X140.146918 Y170.211310 Z-0.125000
G01 X140.226995 Y172.421126 Z-0.125000
G01 X140.043426 Y174.270661 Z-0.125000
G01 X139.600221 Y175.852409 Z-0.125000
G01 X138.904624 Y177.271545 Z-0.125000
G01 X137.757996 Y178.881107 Z-0.125000
G01 X136.233491 Y180.555998 Z-0.125000
G01 X132.585263 Y183.776609 Z-0.125000
G01 X128.565757 Y186.572127 Z-0.125000
G01 X124.310095 Y188.875086 Z-0.125000
G01 X119.577204 Y190.778889 Z-0.125000
G01 X114.618442 Y192.128427 Z-0.125000
G01 X109.697584 Y192.871242 Z-0.125000
G01 X104.560880 Y193.041034 Z-0.125000
G01 X99.819775 Y192.660571 Z-0.125000
G01 X96.031703 Y191.998285 Z-0.125000
G01 X92.263553 Y191.051009 Z-0.125000
G01 X75.282560 Y185.336107 Z-0.125000
G01 X65.223122 Y182.668079 Z-0.125000
G01 X59.922577 Y181.659936 Z-0.125000
G01 X54.975716 Y180.964922 Z-0.125000
G01 X40.272650 Y179.728643 Z-0.125000
G01 X36.076107 Y178.788999 Z-0.125000
G01 X34.460983 Y178.078655 Z-0.125000
G01 X32.971149 Y177.133512 Z-0.125000
G01 X31.599037 Y175.923366 Z-0.125000
G01 X30.348463 Y174.425640 Z-0.125000
G01 X29.234111 Y172.627076 Z-0.125000
G01 X28.389421 Y170.803285 Z-0.125000
G01 X27.599711 Y168.438101 Z-0.125000
G01 X27.086390 Y166.133719 Z-0.125000
G01 X26.730571 Y163.252238 Z-0.125000
G01 X26.644738 Y160.135054 Z-0.125000
G01 X26.844413 Y156.817419 Z-0.125000
G01 X27.330955 Y153.337431 Z-0.125000
G01 X29.083918 Y146.037805 Z-0.125000
G01 X32.265655 Y136.552813 Z-0.125000
G01 X35.691440 Y128.404811 Z-0.125000
G01 X39.627894 Y120.991538 Z-0.125000
G01 X43.925406 Y114.599022 Z-0.125000
G01 X48.418776 Y109.378942 Z-0.125000
G01 X51.523153 Y106.493322 Z-0.125000
G01 X55.134189 Y103.765850 Z-0.125000
G01 X58.867086 Y101.561403 Z-0.125000
G01 X62.655158 Y99.874028 Z-0.125000
G01 X66.787859 Y98.575266 Z-0.125000
G01 X71.463505 Y97.685104 Z-0.125000
G01 X76.034042 Y97.301795 Z-0.125000
G01 X83.733148 Y97.168225 Z-0.125000
G01 X86.344578 Y96.765253 Z-0.125000
G01 X89.038285 Y95.566296 Z-0.125000
G01 X94.230228 Y91.901574 Z-0.125000
G01 X97.020377 Y90.280434 Z-0.125000
G01 X100.292411 Y89.058191 Z-0.125000
G01 X103.429646 Y88.560394 Z-0.125000
G01 X105.996187 Y88.622813 Z-0.125000
G01 X108.617385 Y89.136457 Z-0.125000
G01 X111.193434 Y90.145182 Z-0.125000
G01 X113.382875 Y91.496467 Z-0.125000
G01 X115.372900 Y93.270387 Z-0.125000
G01 X116.926899 Y95.191719 Z-0.125000
G01 X118.252763 Y97.418806 Z-0.125000
G01 X119.466274 Y100.258436 Z-0.125000
G01 X120.991295 Y106.046041 Z-0.125000
G01 X123.580993 Y121.684224 Z-0.125000
G01 X125.578779 Y129.217548 Z-0.125000
G01 X127.152636 Y133.569523 Z-0.125000
G01 X128.971446 Y137.788639 Z-0.125000
G01 X135.137962 Y149.924195 Z-0.125000
G01 X137.011688 Y153.981799 Z-0.125000
G01 X138.689425 Y158.709838 Z-0.125000
G01 X140.255779 Y164.810183 Z-0.125000
G01 X141.130546 Y170.415772 Z-0.125000
G01 X141.174142 Y172.397517 Z-0.125000
G01 X140.961660 Y174.243688 Z-0.125000
G01 X140.483914 Y175.835139 Z-0.125000
G01 X139.672730 Y177.408413 Z-0.125000
G01 X136.856385 Y180.842542 Z-0.125000
G01 X133.259903 Y184.106297 Z-0.125000
G01 X129.143179 Y187.064620 Z-0.125000
G01 X124.778914 Y189.493128 Z-0.125000
G01 X119.924097 Y191.490656 Z-0.125000
G01 X115.284091 Y192.800802 Z-0.125000
G01 X110.275976 Y193.616773 Z-0.125000
G01 X105.045288 Y193.837470 Z-0.125000
G01 X100.218672 Y193.482040 Z-0.125000
G01 X96.365077 Y192.825641 Z-0.125000
G01 X92.535026 Y191.873448 Z-0.125000
G01 X75.289675 Y186.092699 Z-0.125000
G01 X65.078039 Y183.409600 Z-0.125000
G01 X59.707249 Y182.404497 Z-0.125000
G01 X54.706249 Y181.718733 Z-0.125000
G01 X39.948331 Y180.533230 Z-0.125000
G01 X35.758192 Y179.598566 Z-0.125000
G01 X34.140804 Y178.883694 Z-0.125000
G01 X32.643467 Y177.928979 Z-0.125000
G01 X31.258159 Y176.703502 Z-0.125000
G01 X29.989022 Y175.184496 Z-0.125000
G01 X28.851837 Y173.358248 Z-0.125000
G01 X27.984961 Y171.505091 Z-0.125000
G01 X27.169184 Y169.100516 Z-0.125000
G01 X26.634259 Y166.757000 Z-0.125000
G01 X26.256901 Y163.825973 Z-0.125000
G01 X26.154961 Y160.654973 Z-0.125000
G01 X26.345128 Y157.280288 Z-0.125000
G01 X26.829730 Y153.741438 Z-0.125000
G01 X28.599316 Y146.322538 Z-0.125000
G01 X31.817923 Y136.691428 Z-0.125000
G01 X35.269904 Y128.419559 Z-0.125000
G01 X39.221493 Y120.892897 Z-0.125000
G01 X43.524697 Y114.402063 Z-0.125000
G01 X48.020526 Y109.101001 Z-0.125000
G01 X51.128331 Y106.170167 Z-0.125000
G01 X54.747645 Y103.399617 Z-0.125000
G01 X58.495226 Y101.160176 Z-0.125000
G01 X62.305096 Y99.446088 Z-0.125000
G01 X66.468973 Y98.127339 Z-0.125000
G01 X71.186858 Y97.224758 Z-0.125000
G01 X75.801314 Y96.838603 Z-0.125000
G01 X83.353784 Y96.722239 Z-0.125000
G01 X86.154023 Y96.299214 Z-0.125000
G01 X88.826708 Y95.068369 Z-0.125000
G01 X94.203902 Y91.153067 Z-0.125000
G01 X97.020506 Y89.496287 Z-0.125000
G01 X100.345062 Y88.250564 Z-0.125000
G01 X103.551379 Y87.748822 Z-0.125000
G01 X106.180274 Y87.821331 Z-0.125000
G01 X108.864990 Y88.357161 Z-0.125000
G01 X111.241428 Y89.271385 Z-0.125000
G01 X113.492771 Y90.612838 Z-0.125000
G01 X115.540363 Y92.383071 Z-0.125000
G01 X117.138735 Y94.305891 Z-0.125000
G01 X118.500692 Y96.538281 Z-0.125000
G01 X119.743568 Y99.387615 Z-0.125000
G01 X121.293363 Y105.199605 Z-0.125000
G01 X123.901883 Y120.923686 Z-0.125000
G01 X125.806203 Y128.071954 Z-0.125000
G01 X127.402182 Y132.475093 Z-0.125000
G01 X129.263941 Y136.755141 Z-0.125000
G01 X136.034786 Y149.806990 Z-0.125000
G01 X137.942600 Y153.902369 Z-0.125000
G01 X139.750284 Y159.033445 Z-0.125000
G01 X141.300726 Y165.106947 Z-0.125000
G01 X142.112622 Y170.608849 Z-0.125000
G01 X142.097551 Y172.727010 Z-0.125000
G01 X141.802016 Y174.519494 Z-0.125000
G01 X141.239084 Y176.091282 Z-0.125000
G01 X140.335726 Y177.685902 Z-0.125000
G01 X137.161040 Y181.461878 Z-0.125000
G01 X133.489267 Y184.810690 Z-0.125000
G01 X129.416786 Y187.764745 Z-0.125000
G01 X124.874580 Y190.306771 Z-0.125000
G01 X120.250938 Y192.222993 Z-0.125000
G01 X115.496444 Y193.584238 Z-0.125000
G01 X110.373517 Y194.422007 Z-0.125000
G01 X105.035392 Y194.634878 Z-0.125000
G01 X100.121713 Y194.250016 Z-0.125000
G01 X96.205699 Y193.558947 Z-0.125000
G01 X92.316529 Y192.567169 Z-0.125000
G01 X75.293297 Y186.859253 Z-0.125000
G01 X65.439291 Y184.269491 Z-0.125000
G01 X59.971477 Y183.235734 Z-0.125000
G01 X54.877657 Y182.531275 Z-0.125000
G01 X39.635009 Y181.341633 Z-0.125000
G01 X35.454831 Y180.409298 Z-0.125000
G01 X33.642231 Y179.582202 Z-0.125000
G01 X32.151426 Y178.583826 Z-0.125000
G01 X30.766377 Y177.305827 Z-0.125000
G01 X29.493230 Y175.726084 Z-0.125000
G01 X28.350418 Y173.831918 Z-0.125000
G01 X27.479402 Y171.914403 Z-0.125000
G01 X26.662331 Y169.432014 Z-0.125000
G01 X26.131028 Y167.017801 Z-0.125000
G01 X25.764925 Y164.004562 Z-0.125000
G01 X25.682584 Y160.751544 Z-0.125000
G01 X25.900629 Y157.296782 Z-0.125000
G01 X26.419771 Y153.680960 Z-0.125000
G01 X28.266524 Y146.120664 Z-0.125000
G01 X31.564237 Y136.330952 Z-0.125000
G01 X35.085493 Y127.942266 Z-0.125000
G01 X39.092128 Y120.332552 Z-0.125000
G01 X43.434594 Y113.793529 Z-0.125000
G01 X47.960694 Y108.474032 Z-0.125000
G01 X51.087257 Y105.543781 Z-0.125000
G01 X54.728499 Y102.783774 Z-0.125000
G01 X58.118062 Y100.761085 Z-0.125000
G01 X61.948501 Y99.019829 Z-0.125000
G01 X66.142973 Y97.680253 Z-0.125000
G01 X70.903548 Y96.764088 Z-0.125000
G01 X75.563347 Y96.373793 Z-0.125000
G01 X83.169374 Y96.260922 Z-0.125000
G01 X85.965021 Y95.829877 Z-0.125000
G01 X88.473024 Y94.662033 Z-0.125000
G01 X93.989544 Y90.531920 Z-0.125000
G01 X97.029561 Y88.706318 Z-0.125000
G01 X100.411103 Y87.439509 Z-0.125000
G01 X103.690705 Y86.936796 Z-0.125000
G01 X106.384735 Y87.022112 Z-0.125000
G01 X109.135104 Y87.582781 Z-0.125000
G01 X111.565165 Y88.528829 Z-0.125000
G01 X113.860556 Y89.909479 Z-0.125000
G01 X115.939390 Y91.724149 Z-0.125000
G01 X117.553739 Y93.688948 Z-0.125000
G01 X118.920805 Y95.963900 Z-0.125000
G01 X120.158895 Y98.860063 Z-0.125000
G01 X121.686116 Y104.748314 Z-0.125000
G01 X124.138492 Y119.711599 Z-0.125000
G01 X126.185179 Y127.361933 Z-0.125000
G01 X127.831351 Y131.805434 Z-0.125000
G01 X129.756887 Y136.130307 Z-0.125000
G01 X136.770939 Y149.340175 Z-0.125000
G01 X138.745893 Y153.484454 Z-0.125000
G01 X140.724404 Y159.020379 Z-0.125000
G01 X142.354212 Y165.396402 Z-0.125000
G01 X143.090235 Y170.791707 Z-0.125000
G01 X143.037066 Y172.693569 Z-0.125000
G01 X142.703821 Y174.488317 Z-0.125000
G01 X142.099556 Y176.077957 Z-0.125000
G01 X141.059266 Y177.848579 Z-0.125000
G01 X137.567247 Y181.989753 Z-0.125000
G01 X133.667727 Y185.577632 Z-0.125000
G01 X129.654947 Y188.505813 Z-0.125000
G01 X125.297928 Y190.976818 Z-0.125000
G01 X120.556628 Y192.975898 Z-0.125000
G01 X115.686158 Y194.385461 Z-0.125000
G01 X110.447773 Y195.241342 Z-0.125000
G01 X105.501882 Y195.452724 Z-0.125000
G01 X100.502306 Y195.091795 Z-0.125000
G01 X96.520833 Y194.405448 Z-0.125000
G01 X92.570343 Y193.407655 Z-0.125000
G01 X75.292780 Y187.635509 Z-0.125000
G01 X65.296084 Y185.030740 Z-0.125000
G01 X59.759189 Y183.998924 Z-0.125000
G01 X54.613041 Y183.302163 Z-0.125000
G01 X39.332488 Y182.153335 Z-0.125000
G01 X37.144017 Y181.788654 Z-0.125000
G01 X35.165894 Y181.220288 Z-0.125000
G01 X33.352582 Y180.385107 Z-0.125000
G01 X31.854662 Y179.374312 Z-0.125000
G01 X30.288308 Y177.895279 Z-0.125000
G01 X29.009921 Y176.252406 Z-0.125000
G01 X27.860318 Y174.288190 Z-0.125000
G01 X26.870933 Y172.001466 Z-0.125000
G01 X25.638600 Y167.256997 Z-0.125000
G01 X25.284462 Y164.160835 Z-0.125000
G01 X25.222820 Y160.825477 Z-0.125000
G01 X25.421978 Y157.741863 Z-0.125000
G01 X25.939050 Y154.066727 Z-0.125000
G01 X27.802879 Y146.387479 Z-0.125000
G01 X31.137268 Y136.453138 Z-0.125000
G01 X34.682780 Y127.943171 Z-0.125000
G01 X38.700086 Y120.223950 Z-0.125000
G01 X43.041841 Y113.590684 Z-0.125000
G01 X47.563673 Y108.193698 Z-0.125000
G01 X51.046572 Y104.915584 Z-0.125000
G01 X54.335165 Y102.418253 Z-0.125000
G01 X57.735011 Y100.364192 Z-0.125000
G01 X61.584855 Y98.595382 Z-0.125000
G01 X65.809340 Y97.234072 Z-0.125000
G01 X70.613123 Y96.303095 Z-0.125000
G01 X75.319946 Y95.907173 Z-0.125000
G01 X82.984317 Y95.795919 Z-0.125000
G01 X85.777700 Y95.356983 Z-0.125000
G01 X88.269209 Y94.161519 Z-0.125000
G01 X93.780554 Y89.910449 Z-0.125000
G01 X96.834543 Y88.018677 Z-0.125000
G01 X100.247586 Y86.689967 Z-0.125000
G01 X103.579774 Y86.139777 Z-0.125000
G01 X106.330273 Y86.194822 Z-0.125000
G01 X109.147523 Y86.732270 Z-0.125000
G01 X111.642396 Y87.664023 Z-0.125000
G01 X114.002211 Y89.036587 Z-0.125000
G01 X116.140424 Y90.848994 Z-0.125000
G01 X117.800115 Y92.815992 Z-0.125000
G01 X119.203404 Y95.096377 Z-0.125000
G01 X120.470018 Y98.001531 Z-0.125000
G01 X122.019037 Y103.911257 Z-0.125000
G01 X124.480275 Y118.944140 Z-0.125000
G01 X126.574374 Y126.648161 Z-0.125000
G01 X128.270481 Y131.131118 Z-0.125000
G01 X130.259859 Y135.500492 Z-0.125000
G01 X137.517376 Y148.869415 Z-0.125000
G01 X139.558694 Y153.062918 Z-0.125000
G01 X141.606093 Y158.663008 Z-0.125000
G01 X143.355692 Y165.394461 Z-0.125000
G01 X144.057434 Y170.762470 Z-0.125000
G01 X143.950578 Y172.831990 Z-0.125000
G01 X143.549870 Y174.609145 Z-0.125000
G01 X142.877753 Y176.207969 Z-0.125000
G01 X141.760490 Y178.027103 Z-0.125000
G01 X137.932121 Y182.574031 Z-0.125000
G01 X134.037517 Y186.206476 Z-0.125000
G01 X129.855593 Y189.288343 Z-0.125000
G01 X125.322378 Y191.857213 Z-0.125000
G01 X120.840261 Y193.749308 Z-0.125000
G01 X115.852263 Y195.204149 Z-0.125000
G01 X110.497967 Y196.074324 Z-0.125000
G01 X105.454794 Y196.272188 Z-0.125000
G01 X100.369318 Y195.876654 Z-0.125000
G01 X96.830016 Y195.261070 Z-0.125000
G01 X92.818207 Y194.257196 Z-0.125000
G01 X75.287799 Y188.421014 Z-0.125000
G01 X65.149642 Y185.801434 Z-0.125000
G01 X59.544831 Y184.771234 Z-0.125000
G01 X54.348166 Y184.081459 Z-0.125000
G01 X39.040511 Y182.967560 Z-0.125000
G01 X36.862324 Y182.603267 Z-0.125000
G01 X34.891058 Y182.030761 Z-0.125000
G01 X33.078198 Y181.186071 Z-0.125000
G01 X31.573616 Y180.161822 Z-0.125000
G01 X29.991545 Y178.661315 Z-0.125000
G01 X28.692524 Y176.993281 Z-0.125000
G01 X27.517565 Y174.998210 Z-0.125000
G01 X26.499978 Y172.674617 Z-0.125000
G01 X25.219068 Y167.852465 Z-0.125000
G01 X24.841839 Y164.705139 Z-0.125000
G01 X24.763121 Y161.314671 Z-0.125000
G01 X24.953352 Y158.180605 Z-0.125000
G01 X25.467902 Y154.446349 Z-0.125000
G01 X27.202884 Y147.144460 Z-0.125000
G01 X30.531580 Y137.079006 Z-0.125000
G01 X34.058204 Y128.443103 Z-0.125000
G01 X38.044270 Y120.586560 Z-0.125000
G01 X42.346891 Y113.811252 Z-0.125000
G01 X44.855089 Y110.540382 Z-0.125000
G01 X47.166521 Y107.914916 Z-0.125000
G01 X50.646381 Y104.589519 Z-0.125000
G01 X53.937172 Y102.055190 Z-0.125000
G01 X57.345622 Y99.969693 Z-0.125000
G01 X61.213577 Y98.172811 Z-0.125000
G01 X65.467687 Y96.788926 Z-0.125000
G01 X70.315066 Y95.841714 Z-0.125000
G01 X75.070530 Y95.438677 Z-0.125000
G01 X82.798678 Y95.327035 Z-0.125000
G01 X85.592319 Y94.880337 Z-0.125000
G01 X88.069146 Y93.658094 Z-0.125000
G01 X93.577386 Y89.288655 Z-0.125000
G01 X96.645929 Y87.331877 Z-0.125000
G01 X100.090989 Y85.942495 Z-0.125000
G01 X103.751183 Y85.328205 Z-0.125000
G01 X106.284995 Y85.371865 Z-0.125000
G01 X108.592870 Y85.742497 Z-0.125000
G01 X110.888067 Y86.450060 Z-0.125000
G01 X113.101894 Y87.508332 Z-0.125000
G01 X115.167080 Y88.920935 Z-0.125000
G01 X116.806008 Y90.442464 Z-0.125000
G01 X118.256709 Y92.219359 Z-0.125000
G01 X119.501849 Y94.236098 Z-0.125000
G01 X120.797377 Y97.149920 Z-0.125000
G01 X121.871108 Y100.756686 Z-0.125000
G01 X124.738229 Y117.722286 Z-0.125000
G01 X125.837898 Y122.279045 Z-0.125000
G01 X127.294744 Y126.841239 Z-0.125000
G01 X130.556623 Y134.431806 Z-0.125000
G01 X139.028103 Y149.826718 Z-0.125000
G01 X140.535014 Y152.988533 Z-0.125000
G01 X141.784875 Y156.173051 Z-0.125000
G01 X143.308151 Y161.050055 Z-0.125000
G01 X144.476124 Y165.951961 Z-0.125000
G01 X144.985112 Y169.671534 Z-0.125000
G01 X144.926380 Y172.443377 Z-0.125000
G01 X144.375866 Y174.732171 Z-0.125000
G01 X143.213261 Y177.064690 Z-0.125000
G01 X141.158489 Y179.905291 Z-0.125000
G01 X138.253464 Y183.219175 Z-0.125000
G01 X134.375031 Y186.878658 Z-0.125000
G01 X130.343106 Y189.898688 Z-0.125000
G01 X125.695208 Y192.580170 Z-0.125000
G01 X121.100738 Y194.543222 Z-0.125000
G01 X115.993918 Y196.039978 Z-0.125000
G01 X111.031080 Y196.868756 Z-0.125000
G01 X105.900715 Y197.110345 Z-0.125000
G01 X100.729147 Y196.737256 Z-0.125000
G01 X97.132730 Y196.125423 Z-0.125000
G01 X93.059667 Y195.115663 Z-0.125000
G01 X75.277838 Y189.215575 Z-0.125000
G01 X64.999579 Y186.581053 Z-0.125000
G01 X59.328144 Y185.552212 Z-0.125000
G01 X54.082773 Y184.868905 Z-0.125000
G01 X38.758754 Y183.783660 Z-0.125000
G01 X36.592857 Y183.418074 Z-0.125000
G01 X34.630063 Y182.839876 Z-0.125000
G01 X32.818627 Y181.984255 Z-0.125000
G01 X31.125107 Y180.795259 Z-0.125000
G01 X29.539737 Y179.228388 Z-0.125000
G01 X28.233019 Y177.493471 Z-0.125000
G01 X27.049198 Y175.424986 Z-0.125000
G01 X26.024819 Y173.022933 Z-0.125000
G01 X24.745850 Y168.055892 Z-0.125000
G01 X24.381105 Y164.824414 Z-0.125000
G01 X24.313771 Y161.796945 Z-0.125000
G01 X24.494559 Y158.612491 Z-0.125000
G01 X25.006004 Y154.818986 Z-0.125000
G01 X26.902433 Y146.902159 Z-0.125000
G01 X30.310106 Y136.681144 Z-0.125000
G01 X33.902061 Y127.933081 Z-0.125000
G01 X37.934762 Y120.000536 Z-0.125000
G01 X42.266038 Y113.184866 Z-0.125000
G01 X44.785878 Y109.904552 Z-0.125000
G01 X47.106884 Y107.277016 Z-0.125000
G01 X50.243149 Y104.265847 Z-0.125000
G01 X53.534071 Y101.694778 Z-0.125000
G01 X56.949441 Y99.577781 Z-0.125000
G01 X60.834213 Y97.752244 Z-0.125000
G01 X65.117366 Y96.344816 Z-0.125000
G01 X70.009052 Y95.380010 Z-0.125000
G01 X74.814969 Y94.968111 Z-0.125000
G01 X82.612327 Y94.853946 Z-0.125000
G01 X85.408880 Y94.399551 Z-0.125000
G01 X87.873093 Y93.151565 Z-0.125000
G01 X93.380493 Y88.666538 Z-0.125000
G01 X96.464106 Y86.645983 Z-0.125000
G01 X99.942025 Y85.197287 Z-0.125000
G01 X103.662115 Y84.534937 Z-0.125000
G01 X106.249355 Y84.553566 Z-0.125000
G01 X108.612210 Y84.906797 Z-0.125000
G01 X110.966657 Y85.601683 Z-0.125000
G01 X113.240767 Y86.652063 Z-0.125000
G01 X115.363780 Y88.061238 Z-0.125000
G01 X117.048697 Y89.582961 Z-0.125000
G01 X118.539113 Y91.362638 Z-0.125000
G01 X119.816401 Y93.384099 Z-0.125000
G01 X121.141036 Y96.306006 Z-0.125000
G01 X122.231520 Y99.923639 Z-0.125000
G01 X125.101939 Y116.951851 Z-0.125000
G01 X126.220366 Y121.534549 Z-0.125000
G01 X127.712982 Y126.129277 Z-0.125000
G01 X131.072661 Y133.789896 Z-0.125000
G01 X139.817748 Y149.367730 Z-0.125000
G01 X141.526339 Y152.920551 Z-0.125000
G01 X142.788167 Y156.147696 Z-0.125000
G01 X144.325737 Y161.052512 Z-0.125000
G01 X145.488342 Y165.944587 Z-0.125000
G01 X145.964083 Y169.643461 Z-0.125000
G01 X145.853411 Y172.405732 Z-0.125000
G01 X145.240543 Y174.706945 Z-0.125000
G01 X144.007111 Y177.089658 Z-0.125000
G01 X141.611655 Y180.381549 Z-0.125000
G01 X138.529012 Y183.929131 Z-0.125000
G01 X134.678522 Y187.595535 Z-0.125000
G01 X130.476611 Y190.756509 Z-0.125000
G01 X126.045852 Y193.325831 Z-0.125000
G01 X121.337153 Y195.357317 Z-0.125000
G01 X116.110282 Y196.892365 Z-0.125000
G01 X111.041171 Y197.727676 Z-0.125000
G01 X105.813911 Y197.950184 Z-0.125000
G01 X100.557933 Y197.536992 Z-0.125000
G01 X96.909252 Y196.888807 Z-0.125000
G01 X93.294206 Y195.982475 Z-0.125000
G01 X75.813345 Y190.185556 Z-0.125000
G01 X65.383082 Y187.481629 Z-0.125000
G01 X59.614235 Y186.419799 Z-0.125000
G01 X54.275462 Y185.712754 Z-0.125000
G01 X38.486893 Y184.600989 Z-0.125000
G01 X36.335291 Y184.232363 Z-0.125000
G01 X34.382523 Y183.646727 Z-0.125000
G01 X32.573609 Y182.778686 Z-0.125000
G01 X30.873233 Y181.571580 Z-0.125000
G01 X29.271239 Y179.980388 Z-0.125000
G01 X27.942465 Y178.218175 Z-0.125000
G01 X26.731477 Y176.117025 Z-0.125000
G01 X25.677151 Y173.676810 Z-0.125000
G01 X24.346759 Y168.630467 Z-0.125000
G01 X23.957758 Y165.347243 Z-0.125000
G01 X23.874382 Y162.271585 Z-0.125000
G01 X24.045209 Y159.036744 Z-0.125000
G01 X24.552967 Y155.184248 Z-0.125000
G01 X26.316215 Y147.660045 Z-0.125000
G01 X29.717873 Y137.309082 Z-0.125000
G01 X33.523215 Y127.921309 Z-0.125000
G01 X37.560767 Y119.885336 Z-0.125000
G01 X41.882212 Y112.981763 Z-0.125000
G01 X44.393578 Y109.658823 Z-0.125000
G01 X46.707275 Y106.996617 Z-0.125000
G01 X49.836425 Y103.944504 Z-0.125000
G01 X53.125341 Y101.337148 Z-0.125000
G01 X56.546016 Y99.188586 Z-0.125000
G01 X60.446377 Y97.333942 Z-0.125000
G01 X64.758054 Y95.901934 Z-0.125000
G01 X69.694630 Y94.917853 Z-0.125000
G01 X74.552875 Y94.495475 Z-0.125000
G01 X82.425395 Y94.376330 Z-0.125000
G01 X85.227639 Y93.914367 Z-0.125000
G01 X87.681503 Y92.641672 Z-0.125000
G01 X93.190326 Y88.044033 Z-0.125000
G01 X96.289657 Y85.960994 Z-0.125000
G01 X99.801082 Y84.454472 Z-0.125000
G01 X103.582168 Y83.745680 Z-0.125000
G01 X106.223740 Y83.740505 Z-0.125000
G01 X108.642675 Y84.077243 Z-0.125000
G01 X111.057471 Y84.760421 Z-0.125000
G01 X113.392901 Y85.803686 Z-0.125000
G01 X115.574774 Y87.210080 Z-0.125000
G01 X117.306457 Y88.732385 Z-0.125000
G01 X118.837300 Y90.514973 Z-0.125000
G01 X120.147187 Y92.541091 Z-0.125000
G01 X121.501124 Y95.470760 Z-0.125000
G01 X122.608231 Y99.098289 Z-0.125000
G01 X123.397876 Y103.049361 Z-0.125000
G01 X125.477357 Y116.182516 Z-0.125000
G01 X126.613636 Y120.789534 Z-0.125000
G01 X128.141375 Y125.415634 Z-0.125000
G01 X129.852294 Y129.544066 Z-0.125000
G01 X132.060946 Y134.031680 Z-0.125000
G01 X141.181322 Y149.992241 Z-0.125000
G01 X142.685257 Y153.219902 Z-0.125000
G01 X143.931562 Y156.492648 Z-0.125000
G01 X145.533491 Y161.718743 Z-0.125000
G01 X146.553212 Y166.208621 Z-0.125000
G01 X146.940337 Y169.614419 Z-0.125000
G01 X146.739563 Y172.546093 Z-0.125000
G01 X146.025984 Y174.841355 Z-0.125000
G01 X144.586085 Y177.430082 Z-0.125000
G01 X141.878212 Y181.094675 Z-0.125000
G01 X138.756242 Y184.707521 Z-0.125000
G01 X134.946308 Y188.358143 Z-0.125000
G01 X130.915482 Y191.424615 Z-0.125000
G01 X126.373405 Y194.094390 Z-0.125000
G01 X121.548536 Y196.191400 Z-0.125000
G01 X116.704197 Y197.644365 Z-0.125000
G01 X111.551775 Y198.542677 Z-0.125000
G01 X106.236806 Y198.807552 Z-0.125000
G01 X100.894800 Y198.415123 Z-0.125000
G01 X97.189457 Y197.769526 Z-0.125000
G01 X93.521307 Y196.857372 Z-0.125000
G01 X75.799956 Y190.998486 Z-0.125000
G01 X65.231143 Y188.278583 Z-0.125000
G01 X59.396837 Y187.216948 Z-0.125000
G01 X54.011105 Y186.514753 Z-0.125000
G01 X38.224669 Y185.418836 Z-0.125000
G01 X36.089367 Y185.045423 Z-0.125000
G01 X34.148178 Y184.450667 Z-0.125000
G01 X32.342822 Y183.568590 Z-0.125000
G01 X30.636107 Y182.342014 Z-0.125000
G01 X29.017425 Y180.725402 Z-0.125000
G01 X27.666205 Y178.935246 Z-0.125000
G01 X26.427404 Y176.800914 Z-0.125000
G01 X25.342224 Y174.322342 Z-0.125000
G01 X24.458983 Y171.510719 Z-0.125000
G01 X23.890682 Y168.794696 Z-0.125000
G01 X23.514876 Y165.426479 Z-0.125000
G01 X23.451422 Y162.277795 Z-0.125000
G01 X23.649222 Y158.972320 Z-0.125000
G01 X24.194755 Y155.043046 Z-0.125000
G01 X26.035492 Y147.388572 Z-0.125000
G01 X29.515998 Y136.884506 Z-0.125000
G01 X33.386864 Y127.382955 Z-0.125000
G01 X37.463808 Y119.278549 Z-0.125000
G01 X41.805433 Y112.342569 Z-0.125000
G01 X44.324109 Y109.014196 Z-0.125000
G01 X46.644080 Y106.353154 Z-0.125000
G01 X49.782933 Y103.309579 Z-0.125000
G01 X53.084785 Y100.717295 Z-0.125000
G01 X56.522083 Y98.588655 Z-0.125000
G01 X60.049484 Y96.917968 Z-0.125000
G01 X64.389234 Y95.460346 Z-0.125000
G01 X69.371346 Y94.455372 Z-0.125000
G01 X74.283925 Y94.020640 Z-0.125000
G01 X82.437943 Y93.880991 Z-0.125000
G01 X85.048662 Y93.424655 Z-0.125000
G01 X87.494441 Y92.128286 Z-0.125000
G01 X93.007403 Y87.421204 Z-0.125000
G01 X96.342632 Y85.153109 Z-0.125000
G01 X99.926178 Y83.635332 Z-0.125000
G01 X103.804352 Y82.938635 Z-0.125000
G01 X106.515588 Y82.954612 Z-0.125000
G01 X108.995584 Y83.318710 Z-0.125000
G01 X111.466265 Y84.036170 Z-0.125000
G01 X113.848784 Y85.119280 Z-0.125000
G01 X116.065974 Y86.569076 Z-0.125000
G01 X117.817514 Y88.130772 Z-0.125000
G01 X119.357672 Y89.952622 Z-0.125000
G01 X120.667041 Y92.016709 Z-0.125000
G01 X122.008688 Y94.991850 Z-0.125000
G01 X123.001242 Y98.281413 Z-0.125000
G01 X123.793216 Y102.241928 Z-0.125000
G01 X125.864612 Y115.414863 Z-0.125000
G01 X127.017709 Y120.044779 Z-0.125000
G01 X128.404633 Y124.235953 Z-0.125000
G01 X130.336961 Y128.863217 Z-0.125000
G01 X132.610554 Y133.394621 Z-0.125000
G01 X142.191276 Y149.907830 Z-0.125000
G01 X143.704978 Y153.173072 Z-0.125000
G01 X145.086017 Y156.849178 Z-0.125000
G01 X146.654634 Y162.050824 Z-0.125000
G01 X147.613036 Y166.465476 Z-0.125000
G01 X147.914328 Y169.800511 Z-0.125000
G01 X147.642920 Y172.511811 Z-0.125000
G01 X146.784452 Y174.985533 Z-0.125000
G01 X145.231229 Y177.644505 Z-0.125000
G01 X142.083062 Y181.894475 Z-0.125000
G01 X138.932502 Y185.557063 Z-0.125000
G01 X134.886606 Y189.414151 Z-0.125000
G01 X130.613156 Y192.598087 Z-0.125000
G01 X126.252966 Y195.100204 Z-0.125000
G01 X121.256235 Y197.216295 Z-0.125000
G01 X116.263838 Y198.644617 Z-0.125000
G01 X110.982375 Y199.480380 Z-0.125000
G01 X106.108023 Y199.665567 Z-0.125000
G01 X100.683676 Y199.227407 Z-0.125000
G01 X96.927751 Y198.542353 Z-0.125000
G01 X93.211348 Y197.589385 Z-0.125000
G01 X75.780357 Y191.819244 Z-0.125000
G01 X70.112544 Y190.243382 Z-0.125000
G01 X65.074352 Y189.083364 Z-0.125000
G01 X59.695282 Y188.102388 Z-0.125000
G01 X53.744871 Y187.323609 Z-0.125000
G01 X38.221823 Y186.267924 Z-0.125000
G01 X35.854634 Y185.856414 Z-0.125000
G01 X33.926575 Y185.250726 Z-0.125000
G01 X31.931635 Y184.232622 Z-0.125000
G01 X30.227571 Y182.943239 Z-0.125000
G01 X28.601451 Y181.253859 Z-0.125000
G01 X27.238783 Y179.391841 Z-0.125000
G01 X25.987692 Y177.180019 Z-0.125000
G01 X24.893197 Y174.619623 Z-0.125000
G01 X24.006787 Y171.723589 Z-0.125000
G01 X23.442819 Y168.932600 Z-0.125000
G01 X23.081502 Y165.479260 Z-0.125000
G01 X23.039135 Y162.257679 Z-0.125000
G01 X23.265201 Y158.881958 Z-0.125000
G01 X23.758341 Y155.384376 Z-0.125000
G01 X25.613568 Y147.619877 Z-0.125000
G01 X29.130425 Y136.975902 Z-0.125000
G01 X33.022830 Y127.354624 Z-0.125000
G01 X37.099386 Y119.152159 Z-0.125000
G01 X41.424194 Y112.133903 Z-0.125000
G01 X43.930321 Y108.765557 Z-0.125000
G01 X46.239361 Y106.071914 Z-0.125000
G01 X49.366894 Y102.989530 Z-0.125000
G01 X52.663313 Y100.361993 Z-0.125000
G01 X56.103457 Y98.202112 Z-0.125000
G01 X59.643148 Y96.504452 Z-0.125000
G01 X64.010517 Y95.020051 Z-0.125000
G01 X69.038943 Y93.992504 Z-0.125000
G01 X74.007730 Y93.543348 Z-0.125000
G01 X82.250946 Y93.393413 Z-0.125000
G01 X84.872143 Y92.929962 Z-0.125000
G01 X87.312359 Y91.611149 Z-0.125000
G01 X92.831984 Y86.797923 Z-0.125000
G01 X96.185777 Y84.466438 Z-0.125000
G01 X99.806321 Y82.894457 Z-0.125000
G01 X103.749760 Y82.155652 Z-0.125000
G01 X106.518305 Y82.150478 Z-0.125000
G01 X109.056773 Y82.500928 Z-0.125000
G01 X111.590132 Y83.209332 Z-0.125000
G01 X114.035975 Y84.287785 Z-0.125000
G01 X116.313450 Y85.736675 Z-0.125000
G01 X118.112532 Y87.300183 Z-0.125000
G01 X119.693310 Y89.125591 Z-0.125000
G01 X121.034891 Y91.194464 Z-0.125000
G01 X122.404545 Y94.176590 Z-0.125000
G01 X123.410683 Y97.473398 Z-0.125000
G01 X124.204080 Y101.442063 Z-0.125000
G01 X126.263574 Y114.649539 Z-0.125000
G01 X127.432518 Y119.300670 Z-0.125000
G01 X128.849002 Y123.517652 Z-0.125000
G01 X130.831330 Y128.181333 Z-0.125000
G01 X133.169735 Y132.756268 Z-0.125000
G01 X143.028269 Y149.463913 Z-0.125000
G01 X144.581880 Y152.765701 Z-0.125000
G01 X146.126372 Y156.849308 Z-0.125000
G01 X147.609932 Y161.734849 Z-0.125000
G01 X148.585475 Y166.189540 Z-0.125000
G01 X148.877969 Y169.556981 Z-0.125000
G01 X148.576872 Y172.302628 Z-0.125000
G01 X147.673385 Y174.822209 Z-0.125000
G01 X146.070421 Y177.551685 Z-0.125000
G01 X142.558803 Y182.363683 Z-0.125000
G01 X139.282112 Y186.235324 Z-0.125000
G01 X135.367909 Y190.022685 Z-0.125000
G01 X130.989932 Y193.333334 Z-0.125000
G01 X126.521075 Y195.920380 Z-0.125000
G01 X121.403776 Y198.092551 Z-0.125000
G01 X116.299608 Y199.542734 Z-0.125000
G01 X110.912388 Y200.372095 Z-0.125000
G01 X105.953108 Y200.529532 Z-0.125000
G01 X100.448296 Y200.042019 Z-0.125000
G01 X93.415162 Y198.477477 Z-0.125000
G01 X76.327054 Y192.820531 Z-0.125000
G01 X70.585568 Y191.205794 Z-0.125000
G01 X65.471827 Y190.011753 Z-0.125000
G01 X59.475297 Y188.914025 Z-0.125000
G01 X53.949850 Y188.188480 Z-0.125000
G01 X37.975318 Y187.085189 Z-0.125000
G01 X35.853276 Y186.717598 Z-0.125000
G01 X33.923018 Y186.128081 Z-0.125000
G01 X31.922126 Y185.130740 Z-0.125000
G01 X30.204092 Y183.861020 Z-0.125000
G01 X28.552033 Y182.190204 Z-0.125000
G01 X26.986326 Y180.086338 Z-0.125000
G01 X25.705546 Y177.839846 Z-0.125000
G01 X24.578387 Y175.240059 Z-0.125000
G01 X23.659247 Y172.299782 Z-0.125000
G01 X23.068760 Y169.466554 Z-0.125000
G01 X22.682087 Y165.961081 Z-0.125000
G01 X22.623356 Y162.691181 Z-0.125000
G01 X22.839525 Y159.265268 Z-0.125000
G01 X23.329625 Y155.716457 Z-0.125000
G01 X25.198823 Y147.842450 Z-0.125000
G01 X28.555785 Y137.603194 Z-0.125000
G01 X32.428656 Y127.855203 Z-0.125000
G01 X36.739298 Y119.022665 Z-0.125000
G01 X41.347933 Y111.482937 Z-0.125000
G01 X43.857036 Y108.113297 Z-0.125000
G01 X46.169051 Y105.423924 Z-0.125000
G01 X49.302988 Y102.353247 Z-0.125000
G01 X52.234791 Y100.009732 Z-0.125000
G01 X55.676100 Y97.818479 Z-0.125000
G01 X59.226980 Y96.093265 Z-0.125000
G01 X63.621516 Y94.580986 Z-0.125000
G01 X68.696901 Y93.528923 Z-0.125000
G01 X73.724162 Y93.063403 Z-0.125000
G01 X82.063431 Y92.900338 Z-0.125000
G01 X84.698147 Y92.429837 Z-0.125000
G01 X87.135388 Y91.089742 Z-0.125000
G01 X92.664456 Y86.173865 Z-0.125000
G01 X96.037654 Y83.780609 Z-0.125000
G01 X99.695908 Y82.156299 Z-0.125000
G01 X103.705582 Y81.377327 Z-0.125000
G01 X106.532341 Y81.353135 Z-0.125000
G01 X109.130188 Y81.691167 Z-0.125000
G01 X111.727130 Y82.391679 Z-0.125000
G01 X114.237203 Y83.466381 Z-0.125000
G01 X116.575932 Y84.915206 Z-0.125000
G01 X118.423267 Y86.480913 Z-0.125000
G01 X120.045183 Y88.310137 Z-0.125000
G01 X121.419300 Y90.383797 Z-0.125000
G01 X122.817156 Y93.372521 Z-0.125000
G01 X123.836489 Y96.675797 Z-0.125000
G01 X124.630468 Y100.651189 Z-0.125000
G01 X126.674244 Y113.887707 Z-0.125000
G01 X127.858000 Y118.558632 Z-0.125000
G01 X129.303398 Y122.800387 Z-0.125000
G01 X131.335337 Y127.499707 Z-0.125000
G01 X133.738360 Y132.117980 Z-0.125000
G01 X143.873153 Y149.021484 Z-0.125000
G01 X145.624887 Y152.734201 Z-0.125000
G01 X147.176429 Y156.856811 Z-0.125000
G01 X148.740842 Y162.071134 Z-0.125000
G01 X149.600539 Y166.181843 Z-0.125000
G01 X149.840058 Y169.314421 Z-0.125000
G01 X149.505585 Y172.094997 Z-0.125000
G01 X148.553133 Y174.661343 Z-0.125000
G01 X146.783223 Y177.632862 Z-0.125000
G01 X143.005177 Y182.876551 Z-0.125000
G01 X139.598151 Y186.962422 Z-0.125000
G01 X135.518166 Y190.925589 Z-0.125000
G01 X131.342905 Y194.093743 Z-0.125000
G01 X126.763312 Y196.763000 Z-0.125000
G01 X122.024082 Y198.808975 Z-0.125000
G01 X116.844041 Y200.335937 Z-0.125000
G01 X111.371570 Y201.223059 Z-0.125000
G01 X106.333119 Y201.414261 Z-0.125000
G01 X100.743248 Y200.943566 Z-0.125000
G01 X93.610375 Y199.372684 Z-0.125000
G01 X76.301570 Y193.657329 Z-0.125000
