%
(Header)
(Generated by gcodetools from Inkscape.)
(Using default header. To add your own header create file "header" in the output dir.)
M3
(Header end.)
G21 (All units in mm)

(Start cutting path id: polyline1036915)
(Change tool to Default tool)

G00 Z3.000000
G00 X105.421883 Y147.906844

G00 Z4.875000 (Fast pre-penetrate)
G01 Z-0.125000 F400.0(Penetrate)
G01 X105.503083 Y147.765714 Z-0.125000 F800.000000
G01 X105.026193 Y148.136874 Z-0.125000
G01 X104.867573 Y148.375344 Z-0.125000
G01 X104.863573 Y148.519384 Z-0.125000
G01 X105.249163 Y148.409214 Z-0.125000
G01 X105.905723 Y147.837924 Z-0.125000
G01 X106.407603 Y147.170884 Z-0.125000
G01 X106.493103 Y146.935714 Z-0.125000
G01 X106.459703 Y146.815654 Z-0.125000
G01 X106.209093 Y146.819654 Z-0.125000
G01 X105.799923 Y147.030184 Z-0.125000
G01 X104.630793 Y147.994714 Z-0.125000
G01 X103.889143 Y148.893214 Z-0.125000
G01 X103.757563 Y149.243924 Z-0.125000
G01 X103.805963 Y149.447514 Z-0.125000
G01 X104.103333 Y149.533714 Z-0.125000
G01 X104.631013 Y149.360864 Z-0.125000
G01 X105.222603 Y148.978724 Z-0.125000
G01 X105.864963 Y148.413864 Z-0.125000
G01 X106.649873 Y147.568234 Z-0.125000
G01 X107.194993 Y146.828194 Z-0.125000
G01 X107.495273 Y146.226714 Z-0.125000
G01 X107.476973 Y145.869764 Z-0.125000
G01 X107.286653 Y145.802664 Z-0.125000
G01 X107.036173 Y145.845964 Z-0.125000
G01 X106.302213 Y146.198994 Z-0.125000
G01 X105.345403 Y146.880374 Z-0.125000
G01 X104.081883 Y147.966144 Z-0.125000
G01 X103.336443 Y148.727084 Z-0.125000
G01 X102.829623 Y149.415774 Z-0.125000
G01 X102.631483 Y149.976554 Z-0.125000
G01 X102.729483 Y150.315674 Z-0.125000
G01 X102.929933 Y150.450394 Z-0.125000
G01 X103.230423 Y150.496994 Z-0.125000
G01 X104.081853 Y150.280194 Z-0.125000
G01 X104.872193 Y149.818814 Z-0.125000
G01 X105.857423 Y148.981774 Z-0.125000
G01 X107.065623 Y147.701934 Z-0.125000
G01 X108.014023 Y146.433944 Z-0.125000
G01 X108.510383 Y145.430454 Z-0.125000
G01 X108.544583 Y145.129624 Z-0.125000
G01 X108.450383 Y144.933654 Z-0.125000
G01 X108.147643 Y144.854154 Z-0.125000
G01 X107.761163 Y144.932954 Z-0.125000
G01 X106.650253 Y145.478574 Z-0.125000
G01 X105.413913 Y146.345904 Z-0.125000
G01 X103.397303 Y148.019924 Z-0.125000
G01 X102.364153 Y149.037934 Z-0.125000
G01 X101.769733 Y149.823114 Z-0.125000
G01 X101.501023 Y150.494334 Z-0.125000
G01 X101.496023 Y150.776034 Z-0.125000
G01 X101.623423 Y151.086654 Z-0.125000
G01 X101.898343 Y151.307214 Z-0.125000
G01 X102.194973 Y151.401314 Z-0.125000
G01 X102.698273 Y151.415314 Z-0.125000
G01 X103.145473 Y151.331714 Z-0.125000
G01 X104.264903 Y150.842574 Z-0.125000
G01 X105.393273 Y150.002814 Z-0.125000
G01 X107.144263 Y148.251464 Z-0.125000
G01 X108.588023 Y146.429754 Z-0.125000
G01 X109.433213 Y144.913794 Z-0.125000
G01 X109.551163 Y144.368644 Z-0.125000
G01 X109.456763 Y144.083214 Z-0.125000
G01 X109.092643 Y143.939124 Z-0.125000
G01 X108.607263 Y144.009624 Z-0.125000
G01 X107.869863 Y144.294634 Z-0.125000
G01 X107.066953 Y144.728254 Z-0.125000
G01 X105.464793 Y145.825114 Z-0.125000
G01 X102.540023 Y148.174954 Z-0.125000
G01 X101.342113 Y149.322644 Z-0.125000
G01 X100.626149 Y150.271514 Z-0.125000
G01 X100.339315 Y151.093344 Z-0.125000
G01 X100.362015 Y151.446584 Z-0.125000
G01 X100.561167 Y151.847214 Z-0.125000
G01 X100.944812 Y152.144714 Z-0.125000
G01 X101.344593 Y152.282434 Z-0.125000
G01 X102.009813 Y152.327334 Z-0.125000
G01 X102.592853 Y152.240834 Z-0.125000
G01 X103.914003 Y151.715454 Z-0.125000
G01 X105.254003 Y150.758694 Z-0.125000
G01 X107.475943 Y148.547564 Z-0.125000
G01 X109.309393 Y146.236724 Z-0.125000
G01 X109.984213 Y145.153734 Z-0.125000
G01 X110.409873 Y144.245284 Z-0.125000
G01 X110.543093 Y143.577744 Z-0.125000
G01 X110.412993 Y143.228304 Z-0.125000
G01 X109.941483 Y143.054664 Z-0.125000
G01 X109.320583 Y143.147664 Z-0.125000
G01 X108.497803 Y143.456564 Z-0.125000
G01 X107.498173 Y143.978934 Z-0.125000
G01 X105.542503 Y145.281484 Z-0.125000
G01 X101.661733 Y148.290214 Z-0.125000
G01 X100.277719 Y149.577144 Z-0.125000
G01 X99.462431 Y150.668394 Z-0.125000
G01 X99.252432 Y151.167374 Z-0.125000
G01 X99.176842 Y151.632404 Z-0.125000
G01 X99.234622 Y152.058994 Z-0.125000
G01 X99.422635 Y152.441584 Z-0.125000
G01 X99.867797 Y152.859144 Z-0.125000
G01 X100.338067 Y153.081134 Z-0.125000
G01 X101.019263 Y153.214614 Z-0.125000
G01 X101.822833 Y153.185614 Z-0.125000
G01 X102.589173 Y153.011624 Z-0.125000
G01 X103.407083 Y152.685984 Z-0.125000
G01 X104.255613 Y152.200044 Z-0.125000
G01 X105.017693 Y151.631114 Z-0.125000
G01 X106.425353 Y150.330584 Z-0.125000
G01 X107.769263 Y148.930614 Z-0.125000
G01 X108.993043 Y147.491734 Z-0.125000
G01 X109.974703 Y146.170954 Z-0.125000
G01 X110.822293 Y144.815634 Z-0.125000
G01 X111.347753 Y143.707374 Z-0.125000
G01 X111.528763 Y142.955424 Z-0.125000
G01 X111.474663 Y142.586144 Z-0.125000
G01 X111.356793 Y142.403554 Z-0.125000
G01 X110.921523 Y142.207604 Z-0.125000
G01 X110.117803 Y142.281704 Z-0.125000
G01 X109.140243 Y142.624734 Z-0.125000
G01 X107.890003 Y143.258204 Z-0.125000
G01 X105.648793 Y144.712954 Z-0.125000
G01 X100.566231 Y148.526664 Z-0.125000
G01 X99.080225 Y149.904214 Z-0.125000
G01 X98.286290 Y151.013614 Z-0.125000
G01 X98.074676 Y151.578524 Z-0.125000
G01 X98.019586 Y152.114574 Z-0.125000
G01 X98.118726 Y152.617814 Z-0.125000
G01 X98.368149 Y153.079904 Z-0.125000
G01 X98.924991 Y153.599944 Z-0.125000
G01 X99.607775 Y153.927184 Z-0.125000
G01 X100.452272 Y154.095114 Z-0.125000
G01 X101.284963 Y154.083414 Z-0.125000
G01 X102.196753 Y153.904794 Z-0.125000
G01 X103.164153 Y153.541124 Z-0.125000
G01 X104.049773 Y153.052114 Z-0.125000
G01 X104.911663 Y152.425344 Z-0.125000
G01 X106.546093 Y150.926504 Z-0.125000
G01 X108.104153 Y149.317764 Z-0.125000
G01 X109.524443 Y147.658744 Z-0.125000
G01 X110.684933 Y146.096324 Z-0.125000
G01 X111.697183 Y144.459214 Z-0.125000
G01 X112.316143 Y143.122014 Z-0.125000
G01 X112.511223 Y142.250894 Z-0.125000
G01 X112.435723 Y141.819364 Z-0.125000
G01 X112.289273 Y141.604704 Z-0.125000
G01 X111.762253 Y141.372564 Z-0.125000
G01 X110.800783 Y141.458664 Z-0.125000
G01 X109.690533 Y141.840854 Z-0.125000
G01 X108.310063 Y142.523694 Z-0.125000
G01 X105.844383 Y144.076534 Z-0.125000
G01 X99.534098 Y148.649434 Z-0.125000
G01 X97.978692 Y150.060214 Z-0.125000
G01 X97.487705 Y150.659054 Z-0.125000
G01 X97.104588 Y151.307864 Z-0.125000
G01 X96.921920 Y151.832374 Z-0.125000
G01 X96.864900 Y152.443774 Z-0.125000
G01 X96.981846 Y153.032524 Z-0.125000
G01 X97.268681 Y153.588254 Z-0.125000
G01 X97.906088 Y154.238544 Z-0.125000
G01 X98.687377 Y154.675344 Z-0.125000
G01 X99.604793 Y154.930294 Z-0.125000
G01 X100.553774 Y154.990094 Z-0.125000
G01 X101.595573 Y154.859044 Z-0.125000
G01 X102.671483 Y154.525004 Z-0.125000
G01 X103.717143 Y154.007424 Z-0.125000
G01 X104.766943 Y153.284194 Z-0.125000
G01 X106.646403 Y151.585754 Z-0.125000
G01 X108.487473 Y149.708184 Z-0.125000
G01 X110.098523 Y147.837344 Z-0.125000
G01 X111.414003 Y146.060034 Z-0.125000
G01 X112.546453 Y144.207134 Z-0.125000
G01 X113.288343 Y142.568404 Z-0.125000
G01 X113.491483 Y141.574894 Z-0.125000
G01 X113.389543 Y141.076844 Z-0.125000
G01 X113.211003 Y140.827214 Z-0.125000
G01 X112.942873 Y140.650994 Z-0.125000
G01 X112.585083 Y140.554094 Z-0.125000
G01 X111.604403 Y140.617194 Z-0.125000
G01 X110.285853 Y141.041084 Z-0.125000
G01 X108.772503 Y141.765704 Z-0.125000
G01 X105.954503 Y143.493744 Z-0.125000
G01 X98.504814 Y148.713954 Z-0.125000
G01 X96.900434 Y150.131854 Z-0.125000
G01 X96.311127 Y150.852394 Z-0.125000
G01 X95.974180 Y151.436564 Z-0.125000
G01 X95.775320 Y152.012434 Z-0.125000
G01 X95.715970 Y152.696904 Z-0.125000
G01 X95.848633 Y153.372764 Z-0.125000
G01 X96.169784 Y154.027074 Z-0.125000
G01 X96.776447 Y154.727024 Z-0.125000
G01 X97.711802 Y155.355254 Z-0.125000
G01 X98.733385 Y155.725644 Z-0.125000
G01 X99.919803 Y155.877754 Z-0.125000
G01 X101.099183 Y155.787154 Z-0.125000
G01 X102.245363 Y155.486324 Z-0.125000
G01 X103.425123 Y154.956624 Z-0.125000
G01 X104.586593 Y154.200894 Z-0.125000
G01 X106.676223 Y152.355954 Z-0.125000
G01 X108.746123 Y150.293234 Z-0.125000
G01 X110.495233 Y148.307464 Z-0.125000
G01 X111.952713 Y146.376954 Z-0.125000
G01 X113.259943 Y144.273574 Z-0.125000
G01 X114.143623 Y142.394684 Z-0.125000
G01 X114.385933 Y141.634374 Z-0.125000
G01 X114.471633 Y141.033114 Z-0.125000
G01 X114.406133 Y140.526564 Z-0.125000
G01 X114.241803 Y140.200124 Z-0.125000
G01 X113.976613 Y139.952634 Z-0.125000
G01 X113.610213 Y139.792054 Z-0.125000
G01 X113.143013 Y139.725454 Z-0.125000
G01 X112.576223 Y139.758554 Z-0.125000
G01 X111.153483 Y140.137274 Z-0.125000
G01 X109.469673 Y140.884084 Z-0.125000
G01 X106.349803 Y142.713704 Z-0.125000
G01 X97.628689 Y148.612114 Z-0.125000
G01 X95.817008 Y150.156044 Z-0.125000
G01 X95.246037 Y150.834084 Z-0.125000
G01 X94.851332 Y151.499434 Z-0.125000
G01 X94.637284 Y152.122104 Z-0.125000
G01 X94.574924 Y152.876804 Z-0.125000
G01 X94.720842 Y153.640844 Z-0.125000
G01 X95.072791 Y154.398074 Z-0.125000
G01 X95.816561 Y155.304304 Z-0.125000
G01 X96.821766 Y156.035264 Z-0.125000
G01 X97.961776 Y156.515274 Z-0.125000
G01 X99.321364 Y156.757764 Z-0.125000
G01 X100.640947 Y156.711964 Z-0.125000
G01 X102.040733 Y156.383264 Z-0.125000
G01 X103.310393 Y155.831664 Z-0.125000
G01 X104.553913 Y155.036194 Z-0.125000
G01 X107.018303 Y152.880054 Z-0.125000
G01 X109.355273 Y150.572354 Z-0.125000
G01 X111.242763 Y148.424094 Z-0.125000
G01 X112.824753 Y146.289384 Z-0.125000
G01 X114.235673 Y143.929224 Z-0.125000
G01 X115.202463 Y141.710984 Z-0.125000
G01 X115.406273 Y140.950464 Z-0.125000
G01 X115.450073 Y140.293534 Z-0.125000
G01 X115.322943 Y139.741924 Z-0.125000
G01 X115.095773 Y139.390034 Z-0.125000
G01 X114.756233 Y139.128834 Z-0.125000
G01 X114.304213 Y138.968204 Z-0.125000
G01 X113.244983 Y138.953404 Z-0.125000
G01 X111.741383 Y139.339834 Z-0.125000
G01 X109.881383 Y140.145624 Z-0.125000
G01 X106.520843 Y142.074674 Z-0.125000
G01 X96.435382 Y148.699814 Z-0.125000
G01 X95.421657 Y149.495064 Z-0.125000
G01 X94.645343 Y150.224494 Z-0.125000
G01 X94.067229 Y150.930914 Z-0.125000
G01 X93.679773 Y151.632374 Z-0.125000
G01 X93.483241 Y152.299894 Z-0.125000
G01 X93.454241 Y153.126764 Z-0.125000
G01 X93.631089 Y153.935384 Z-0.125000
G01 X94.034684 Y154.798534 Z-0.125000
G01 X94.827005 Y155.806834 Z-0.125000
G01 X95.963311 Y156.700044 Z-0.125000
G01 X97.294589 Y157.318504 Z-0.125000
G01 X98.730800 Y157.631614 Z-0.125000
G01 X100.241465 Y157.634614 Z-0.125000
G01 X101.686353 Y157.346194 Z-0.125000
G01 X103.061433 Y156.801314 Z-0.125000
G01 X104.467193 Y155.943924 Z-0.125000
G01 X107.257423 Y153.553684 Z-0.125000
G01 X109.822123 Y151.076414 Z-0.125000
G01 X111.862583 Y148.783214 Z-0.125000
G01 X113.557803 Y146.494074 Z-0.125000
G01 X115.121093 Y143.831174 Z-0.125000
G01 X115.756563 Y142.458804 Z-0.125000
G01 X116.198663 Y141.255424 Z-0.125000
G01 X116.411303 Y140.363644 Z-0.125000
G01 X116.429003 Y139.679704 Z-0.125000
G01 X116.264863 Y139.056444 Z-0.125000
G01 X115.995253 Y138.655784 Z-0.125000
G01 X115.602153 Y138.356364 Z-0.125000
G01 X115.085663 Y138.170334 Z-0.125000
G01 X114.504323 Y138.108334 Z-0.125000
G01 X113.887053 Y138.147434 Z-0.125000
G01 X112.370673 Y138.520074 Z-0.125000
G01 X110.406743 Y139.341074 Z-0.125000
G01 X108.705943 Y140.231314 Z-0.125000
G01 X106.795383 Y141.358944 Z-0.125000
G01 X95.417691 Y148.612174 Z-0.125000
G01 X94.259186 Y149.505834 Z-0.125000
G01 X93.468770 Y150.255024 Z-0.125000
G01 X92.892745 Y150.985464 Z-0.125000
G01 X92.519233 Y151.720634 Z-0.125000
G01 X92.329209 Y152.579954 Z-0.125000
G01 X92.358759 Y153.388724 Z-0.125000
G01 X92.574395 Y154.239414 Z-0.125000
G01 X92.978784 Y155.107174 Z-0.125000
G01 X93.866170 Y156.292984 Z-0.125000
G01 X95.112913 Y157.340124 Z-0.125000
G01 X96.572937 Y158.088764 Z-0.125000
G01 X98.122337 Y158.495954 Z-0.125000
G01 X99.721637 Y158.572154 Z-0.125000
G01 X101.302363 Y158.327364 Z-0.125000
G01 X102.943003 Y157.728184 Z-0.125000
G01 X104.437583 Y156.841274 Z-0.125000
G01 X107.672683 Y154.125784 Z-0.125000
G01 X110.363103 Y151.582054 Z-0.125000
G01 X112.471893 Y149.245484 Z-0.125000
G01 X114.245493 Y146.862864 Z-0.125000
G01 X115.173553 Y145.374764 Z-0.125000
G01 X115.983593 Y143.867114 Z-0.125000
G01 X116.634873 Y142.432734 Z-0.125000
G01 X117.146093 Y141.026234 Z-0.125000
G01 X117.382683 Y140.075824 Z-0.125000
G01 X117.427383 Y139.286754 Z-0.125000
G01 X117.307553 Y138.641014 Z-0.125000
G01 X116.974093 Y138.026364 Z-0.125000
G01 X116.556393 Y137.655414 Z-0.125000
G01 X116.105973 Y137.440444 Z-0.125000
G01 X115.562753 Y137.319524 Z-0.125000
G01 X114.823723 Y137.304724 Z-0.125000
G01 X113.135523 Y137.647434 Z-0.125000
G01 X111.087593 Y138.453494 Z-0.125000
G01 X109.246013 Y139.382444 Z-0.125000
G01 X107.190503 Y140.559844 Z-0.125000
G01 X102.366923 Y143.623214 Z-0.125000
G01 X96.446151 Y147.166084 Z-0.125000
G01 X94.363166 Y148.510434 Z-0.125000
G01 X93.261838 Y149.337554 Z-0.125000
G01 X92.378765 Y150.154554 Z-0.125000
G01 X91.785490 Y150.905254 Z-0.125000
G01 X91.405733 Y151.668904 Z-0.125000
G01 X91.226954 Y152.473784 Z-0.125000
G01 X91.258304 Y153.454704 Z-0.125000
G01 X91.493757 Y154.395374 Z-0.125000
G01 X91.947517 Y155.399284 Z-0.125000
G01 X92.413369 Y156.127814 Z-0.125000
G01 X92.992701 Y156.834494 Z-0.125000
G01 X94.332419 Y158.002544 Z-0.125000
G01 X95.883644 Y158.856964 Z-0.125000
G01 X97.572903 Y159.363804 Z-0.125000
G01 X99.315846 Y159.504854 Z-0.125000
G01 X101.058343 Y159.284004 Z-0.125000
G01 X102.738003 Y158.718434 Z-0.125000
G01 X104.391363 Y157.782154 Z-0.125000
G01 X108.067793 Y154.780184 Z-0.125000
G01 X110.902543 Y152.171744 Z-0.125000
G01 X113.182773 Y149.678574 Z-0.125000
G01 X115.077403 Y147.115604 Z-0.125000
G01 X116.067103 Y145.490774 Z-0.125000
G01 X116.897283 Y143.894224 Z-0.125000
G01 X117.645393 Y142.166154 Z-0.125000
G01 X118.166623 Y140.631144 Z-0.125000
G01 X118.395883 Y139.592684 Z-0.125000
G01 X118.414283 Y138.716514 Z-0.125000
G01 X118.236243 Y137.942844 Z-0.125000
G01 X117.861223 Y137.302054 Z-0.125000
G01 X117.383413 Y136.882214 Z-0.125000
G01 X116.875283 Y136.637864 Z-0.125000
G01 X116.300103 Y136.503834 Z-0.125000
G01 X115.559643 Y136.474534 Z-0.125000
G01 X114.786553 Y136.561934 Z-0.125000
G01 X113.845933 Y136.782234 Z-0.125000
G01 X111.610263 Y137.627204 Z-0.125000
G01 X109.665123 Y138.587164 Z-0.125000
G01 X107.451213 Y139.829674 Z-0.125000
G01 X102.022313 Y143.202534 Z-0.125000
G01 X95.540013 Y146.966654 Z-0.125000
G01 X93.295315 Y148.379764 Z-0.125000
G01 X92.175598 Y149.207384 Z-0.125000
G01 X91.294086 Y150.014204 Z-0.125000
G01 X90.688164 Y150.780274 Z-0.125000
G01 X90.304862 Y151.567864 Z-0.125000
G01 X90.128623 Y152.413024 Z-0.125000
G01 X90.169713 Y153.467964 Z-0.125000
G01 X90.434031 Y154.535194 Z-0.125000
G01 X90.926103 Y155.654084 Z-0.125000
G01 X91.429579 Y156.473184 Z-0.125000
G01 X92.021134 Y157.233804 Z-0.125000
G01 X92.760671 Y157.994564 Z-0.125000
G01 X93.525026 Y158.625494 Z-0.125000
G01 X94.378096 Y159.188234 Z-0.125000
G01 X95.205924 Y159.617754 Z-0.125000
G01 X96.074763 Y159.962454 Z-0.125000
G01 X97.056049 Y160.235134 Z-0.125000
G01 X97.983017 Y160.387454 Z-0.125000
G01 X98.945095 Y160.442754 Z-0.125000
G01 X100.832050 Y160.251754 Z-0.125000
G01 X101.738803 Y160.015564 Z-0.125000
G01 X102.713673 Y159.650304 Z-0.125000
G01 X104.448633 Y158.682824 Z-0.125000
G01 X108.639383 Y155.353334 Z-0.125000
G01 X111.611953 Y152.679594 Z-0.125000
G01 X113.957113 Y150.133034 Z-0.125000
G01 X115.006663 Y148.782834 Z-0.125000
G01 X115.951353 Y147.406314 Z-0.125000
G01 X117.014793 Y145.608414 Z-0.125000
G01 X117.909933 Y143.804014 Z-0.125000
G01 X118.662203 Y141.958094 Z-0.125000
G01 X119.213353 Y140.205654 Z-0.125000
G01 X119.415203 Y139.120914 Z-0.125000
G01 X119.399803 Y138.150264 Z-0.125000
G01 X119.172283 Y137.287064 Z-0.125000
G01 X118.733793 Y136.568294 Z-0.125000
G01 X118.292383 Y136.164224 Z-0.125000
G01 X117.744543 Y135.866164 Z-0.125000
G01 X117.090283 Y135.685294 Z-0.125000
G01 X116.288403 Y135.631494 Z-0.125000
G01 X115.424093 Y135.714594 Z-0.125000
G01 X114.485433 Y135.921734 Z-0.125000
G01 X112.183843 Y136.761074 Z-0.125000
G01 X110.197593 Y137.716724 Z-0.125000
G01 X107.914553 Y138.967114 Z-0.125000
G01 X101.604793 Y142.798334 Z-0.125000
G01 X94.714430 Y146.685674 Z-0.125000
G01 X92.315692 Y148.154504 Z-0.125000
G01 X91.088131 Y149.044854 Z-0.125000
G01 X90.192992 Y149.860804 Z-0.125000
G01 X89.601622 Y150.613304 Z-0.125000
G01 X89.217103 Y151.420124 Z-0.125000
G01 X89.036208 Y152.420124 Z-0.125000
G01 X89.097588 Y153.465274 Z-0.125000
G01 X89.384820 Y154.635054 Z-0.125000
G01 X89.855302 Y155.760854 Z-0.125000
G01 X90.379124 Y156.675604 Z-0.125000
G01 X91.034391 Y157.576854 Z-0.125000
G01 X91.734796 Y158.355544 Z-0.125000
G01 X92.568286 Y159.109634 Z-0.125000
G01 X93.487951 Y159.777604 Z-0.125000
G01 X94.405315 Y160.306084 Z-0.125000
G01 X95.393798 Y160.745234 Z-0.125000
G01 X96.338202 Y161.052524 Z-0.125000
G01 X97.328458 Y161.266654 Z-0.125000
G01 X98.424097 Y161.380924 Z-0.125000
G01 X99.435414 Y161.374924 Z-0.125000
G01 X100.467448 Y161.258084 Z-0.125000
G01 X101.512393 Y161.022634 Z-0.125000
G01 X102.547953 Y160.666004 Z-0.125000
G01 X103.552023 Y160.193374 Z-0.125000
G01 X104.451903 Y159.651324 Z-0.125000
G01 X109.129653 Y156.069604 Z-0.125000
G01 X112.164343 Y153.430234 Z-0.125000
G01 X113.465383 Y152.121624 Z-0.125000
G01 X114.684373 Y150.744684 Z-0.125000
G01 X115.743393 Y149.389914 Z-0.125000
G01 X116.763443 Y147.899724 Z-0.125000
G01 X117.861703 Y146.017924 Z-0.125000
G01 X118.850423 Y143.968444 Z-0.125000
G01 X119.677133 Y141.836714 Z-0.125000
G01 X120.260333 Y139.840564 Z-0.125000
G01 X120.439053 Y138.655764 Z-0.125000
G01 X120.388153 Y137.619104 Z-0.125000
G01 X120.083773 Y136.590294 Z-0.125000
G01 X119.590033 Y135.819034 Z-0.125000
G01 X119.063803 Y135.347284 Z-0.125000
G01 X118.413753 Y135.007214 Z-0.125000
G01 X117.757693 Y134.831794 Z-0.125000
G01 X116.956613 Y134.771594 Z-0.125000
G01 X116.069813 Y134.845194 Z-0.125000
G01 X115.124903 Y135.040664 Z-0.125000
G01 X112.788583 Y135.862044 Z-0.125000
G01 X110.744853 Y136.821714 Z-0.125000
G01 X108.390883 Y138.083644 Z-0.125000
G01 X101.381823 Y142.253604 Z-0.125000
G01 X93.859744 Y146.389654 Z-0.125000
G01 X91.317680 Y147.910474 Z-0.125000
G01 X90.059587 Y148.805084 Z-0.125000
G01 X89.168708 Y149.599254 Z-0.125000
G01 X88.526670 Y150.406394 Z-0.125000
G01 X88.142733 Y151.227954 Z-0.125000
G01 X87.964616 Y152.268134 Z-0.125000
G01 X88.037006 Y153.420394 Z-0.125000
G01 X88.337281 Y154.673544 Z-0.125000
G01 X88.859172 Y155.964104 Z-0.125000
G01 X89.421464 Y156.978484 Z-0.125000
G01 X90.137427 Y157.998034 Z-0.125000
G01 X90.905856 Y158.882324 Z-0.125000
G01 X91.787078 Y159.710604 Z-0.125000
G01 X92.681369 Y160.396904 Z-0.125000
G01 X93.658978 Y161.003804 Z-0.125000
G01 X94.759962 Y161.535534 Z-0.125000
G01 X95.819910 Y161.913784 Z-0.125000
G01 X96.933594 Y162.182364 Z-0.125000
G01 X98.092469 Y162.328894 Z-0.125000
G01 X99.177631 Y162.346394 Z-0.125000
G01 X100.284436 Y162.243924 Z-0.125000
G01 X101.348303 Y162.027544 Z-0.125000
G01 X102.429633 Y161.682024 Z-0.125000
G01 X103.504643 Y161.201864 Z-0.125000
G01 X104.509693 Y160.613554 Z-0.125000
G01 X109.706473 Y156.792554 Z-0.125000
G01 X112.829403 Y154.161534 Z-0.125000
G01 X114.210553 Y152.798034 Z-0.125000
G01 X115.500243 Y151.351424 Z-0.125000
G01 X116.623003 Y149.907834 Z-0.125000
G01 X117.651703 Y148.383514 Z-0.125000
G01 X118.807553 Y146.353444 Z-0.125000
G01 X119.838793 Y144.128534 Z-0.125000
G01 X120.679193 Y141.845844 Z-0.125000
G01 X121.295143 Y139.598154 Z-0.125000
G01 X121.459243 Y138.404034 Z-0.125000
G01 X121.389343 Y137.170764 Z-0.125000
G01 X121.044193 Y136.012994 Z-0.125000
G01 X120.501613 Y135.134444 Z-0.125000
G01 X119.930373 Y134.590384 Z-0.125000
G01 X119.337503 Y134.238414 Z-0.125000
G01 X118.599603 Y133.992794 Z-0.125000
G01 X117.751563 Y133.891804 Z-0.125000
G01 X116.875843 Y133.932304 Z-0.125000
G01 X115.797853 Y134.128014 Z-0.125000
G01 X113.447263 Y134.918904 Z-0.125000
G01 X111.429103 Y135.839604 Z-0.125000
G01 X108.884063 Y137.174844 Z-0.125000
G01 X101.082533 Y141.728694 Z-0.125000
G01 X92.986705 Y146.073344 Z-0.125000
G01 X90.300073 Y147.650254 Z-0.125000
G01 X89.015150 Y148.551274 Z-0.125000
G01 X88.082864 Y149.378124 Z-0.125000
G01 X87.403547 Y150.262494 Z-0.125000
G01 X87.049111 Y151.105004 Z-0.125000
G01 X86.901817 Y152.203654 Z-0.125000
G01 X87.005878 Y153.456174 Z-0.125000
G01 X87.313615 Y154.726854 Z-0.125000
G01 X87.845427 Y156.088884 Z-0.125000
G01 X88.438544 Y157.207514 Z-0.125000
G01 X89.182182 Y158.318174 Z-0.125000
G01 X89.971645 Y159.276954 Z-0.125000
G01 X90.914435 Y160.216164 Z-0.125000
G01 X91.889742 Y161.010074 Z-0.125000
G01 X92.959373 Y161.714924 Z-0.125000
G01 X94.115735 Y162.313414 Z-0.125000
G01 X95.244474 Y162.754394 Z-0.125000
G01 X96.430707 Y163.078904 Z-0.125000
G01 X97.665782 Y163.274354 Z-0.125000
G01 X98.881092 Y163.328354 Z-0.125000
G01 X100.018007 Y163.254154 Z-0.125000
G01 X101.272873 Y163.027064 Z-0.125000
G01 X102.426703 Y162.675514 Z-0.125000
G01 X103.561003 Y162.183254 Z-0.125000
G01 X104.563253 Y161.610724 Z-0.125000
G01 X110.207623 Y157.650334 Z-0.125000
G01 X111.992773 Y156.268814 Z-0.125000
G01 X113.465203 Y155.008974 Z-0.125000
G01 X114.939783 Y153.587444 Z-0.125000
G01 X116.242643 Y152.147844 Z-0.125000
G01 X117.438293 Y150.620724 Z-0.125000
G01 X118.571083 Y148.927414 Z-0.125000
G01 X119.799353 Y146.709094 Z-0.125000
G01 X120.851393 Y144.336394 Z-0.125000
G01 X121.737273 Y141.774724 Z-0.125000
G01 X122.357873 Y139.300364 Z-0.125000
G01 X122.494503 Y137.958004 Z-0.125000
G01 X122.367853 Y136.599924 Z-0.125000
G01 X121.970683 Y135.366994 Z-0.125000
G01 X121.312083 Y134.326944 Z-0.125000
G01 X120.731083 Y133.774754 Z-0.125000
G01 X120.037293 Y133.356744 Z-0.125000
G01 X119.229893 Y133.088724 Z-0.125000
G01 X118.428603 Y132.986564 Z-0.125000
G01 X117.469543 Y133.020464 Z-0.125000
G01 X116.403773 Y133.205174 Z-0.125000
G01 X115.228863 Y133.539444 Z-0.125000
G01 X113.943383 Y134.017894 Z-0.125000
G01 X111.968003 Y134.907864 Z-0.125000
G01 X109.530873 Y136.164534 Z-0.125000
G01 X100.819456 Y141.158284 Z-0.125000
G01 X92.290083 Y145.632254 Z-0.125000
G01 X89.373793 Y147.304814 Z-0.125000
G01 X88.015713 Y148.238374 Z-0.125000
G01 X87.076760 Y149.053264 Z-0.125000
G01 X86.412444 Y149.883894 Z-0.125000
G01 X86.033587 Y150.721274 Z-0.125000
G01 X85.857533 Y151.831304 Z-0.125000
G01 X85.945563 Y153.215604 Z-0.125000
G01 X86.263116 Y154.638724 Z-0.125000
G01 X86.827076 Y156.163354 Z-0.125000
G01 X87.439136 Y157.375944 Z-0.125000
G01 X88.218228 Y158.599164 Z-0.125000
G01 X89.083760 Y159.700434 Z-0.125000
G01 X90.081874 Y160.739934 Z-0.125000
G01 X91.115178 Y161.621924 Z-0.125000
G01 X92.310830 Y162.447894 Z-0.125000
G01 X93.475711 Y163.085354 Z-0.125000
G01 X94.715284 Y163.606134 Z-0.125000
G01 X96.020288 Y163.995264 Z-0.125000
G01 X97.274307 Y164.224974 Z-0.125000
G01 X98.566029 Y164.317374 Z-0.125000
G01 X99.885559 Y164.260174 Z-0.125000
G01 X101.196043 Y164.045464 Z-0.125000
G01 X102.385953 Y163.705164 Z-0.125000
G01 X103.567513 Y163.216424 Z-0.125000
G01 X104.709463 Y162.582664 Z-0.125000
G01 X110.885173 Y158.455824 Z-0.125000
G01 X112.677913 Y157.120234 Z-0.125000
G01 X114.243683 Y155.817194 Z-0.125000
G01 X115.798063 Y154.340074 Z-0.125000
G01 X117.172413 Y152.822504 Z-0.125000
G01 X118.426483 Y151.200234 Z-0.125000
G01 X119.547873 Y149.487224 Z-0.125000
G01 X120.795753 Y147.166534 Z-0.125000
G01 X121.879033 Y144.615444 Z-0.125000
G01 X122.797983 Y141.786074 Z-0.125000
G01 X123.420943 Y139.080574 Z-0.125000
G01 X123.530803 Y137.568744 Z-0.125000
G01 X123.337313 Y136.011354 Z-0.125000
G01 X122.861883 Y134.651474 Z-0.125000
G01 X122.115253 Y133.504564 Z-0.125000
G01 X121.470963 Y132.897524 Z-0.125000
G01 X120.811673 Y132.488904 Z-0.125000
G01 X119.947783 Y132.178174 Z-0.125000
G01 X119.071673 Y132.051574 Z-0.125000
G01 X118.184043 Y132.066974 Z-0.125000
G01 X117.117753 Y132.228764 Z-0.125000
G01 X115.945883 Y132.540574 Z-0.125000
G01 X114.599073 Y133.023814 Z-0.125000
G01 X112.569003 Y133.921034 Z-0.125000
G01 X110.138413 Y135.156274 Z-0.125000
G01 X100.648856 Y140.513504 Z-0.125000
G01 X91.478503 Y145.226764 Z-0.125000
G01 X88.356156 Y146.992404 Z-0.125000
G01 X87.001013 Y147.915354 Z-0.125000
G01 X85.984589 Y148.797764 Z-0.125000
G01 X85.314426 Y149.672184 Z-0.125000
G01 X84.965758 Y150.525364 Z-0.125000
G01 X84.816269 Y151.695744 Z-0.125000
G01 X84.915649 Y153.089734 Z-0.125000
G01 X85.239843 Y154.591294 Z-0.125000
G01 X85.817852 Y156.223114 Z-0.125000
G01 X86.683330 Y157.947984 Z-0.125000
G01 X87.707083 Y159.489734 Z-0.125000
G01 X88.913609 Y160.910044 Z-0.125000
G01 X90.237055 Y162.137954 Z-0.125000
G01 X91.725918 Y163.215704 Z-0.125000
G01 X93.263571 Y164.060704 Z-0.125000
G01 X94.916793 Y164.712374 Z-0.125000
G01 X96.641771 Y165.137714 Z-0.125000
G01 X98.157463 Y165.307554 Z-0.125000
G01 X99.710620 Y165.283554 Z-0.125000
G01 X101.179293 Y165.068764 Z-0.125000
G01 X102.650413 Y164.651124 Z-0.125000
G01 X103.713043 Y164.209164 Z-0.125000
G01 X104.636443 Y163.714764 Z-0.125000
G01 X109.881973 Y160.445804 Z-0.125000
G01 X112.096193 Y158.976264 Z-0.125000
G01 X113.979183 Y157.578834 Z-0.125000
G01 X115.609573 Y156.194854 Z-0.125000
G01 X117.064673 Y154.765704 Z-0.125000
G01 X118.477813 Y153.136824 Z-0.125000
G01 X119.692753 Y151.477304 Z-0.125000
G01 X120.773183 Y149.724844 Z-0.125000
G01 X121.759363 Y147.808594 Z-0.125000
G01 X122.701943 Y145.568204 Z-0.125000
G01 X123.527993 Y143.095514 Z-0.125000
G01 X124.217733 Y140.377374 Z-0.125000
G01 X124.558203 Y138.270184 Z-0.125000
G01 X124.525303 Y136.643044 Z-0.125000
G01 X124.234393 Y135.180564 Z-0.125000
G01 X123.654663 Y133.750064 Z-0.125000
G01 X122.880993 Y132.629104 Z-0.125000
G01 X122.216413 Y132.005804 Z-0.125000
G01 X121.537493 Y131.574454 Z-0.125000
G01 X120.673023 Y131.242474 Z-0.125000
G01 X119.812733 Y131.092964 Z-0.125000
G01 X118.844773 Y131.087964 Z-0.125000
G01 X117.750303 Y131.239074 Z-0.125000
G01 X116.527873 Y131.553984 Z-0.125000
G01 X115.174873 Y132.031734 Z-0.125000
G01 X113.197933 Y132.893934 Z-0.125000
G01 X110.801153 Y134.096444 Z-0.125000
G01 X100.530074 Y139.818294 Z-0.125000
G01 X90.661063 Y144.797914 Z-0.125000
G01 X87.338108 Y146.656844 Z-0.125000
G01 X85.907612 Y147.631964 Z-0.125000
G01 X84.949105 Y148.467524 Z-0.125000
G01 X84.287753 Y149.330034 Z-0.125000
G01 X83.941810 Y150.181784 Z-0.125000
G01 X83.786764 Y151.421624 Z-0.125000
G01 X83.897625 Y152.976924 Z-0.125000
G01 X84.234413 Y154.569104 Z-0.125000
G01 X84.817422 Y156.274904 Z-0.125000
G01 X85.716000 Y158.139024 Z-0.125000
G01 X86.817302 Y159.858094 Z-0.125000
G01 X88.176493 Y161.498674 Z-0.125000
G01 X89.654694 Y162.887714 Z-0.125000
G01 X91.322204 Y164.097594 Z-0.125000
G01 X93.062950 Y165.043294 Z-0.125000
G01 X94.833595 Y165.724894 Z-0.125000
G01 X96.701765 Y166.167694 Z-0.125000
G01 X98.316041 Y166.330974 Z-0.125000
G01 X99.966009 Y166.285474 Z-0.125000
G01 X101.488183 Y166.041904 Z-0.125000
G01 X102.986343 Y165.595624 Z-0.125000
G01 X104.612773 Y164.840244 Z-0.125000
G01 X111.753993 Y160.623474 Z-0.125000
G01 X113.854633 Y159.213724 Z-0.125000
G01 X115.624613 Y157.851164 Z-0.125000
G01 X117.219973 Y156.422394 Z-0.125000
G01 X118.702033 Y154.858654 Z-0.125000
G01 X119.991983 Y153.244644 Z-0.125000
G01 X121.205893 Y151.430444 Z-0.125000
G01 X122.267643 Y149.516874 Z-0.125000
G01 X123.213843 Y147.443334 Z-0.125000
G01 X124.087493 Y145.067324 Z-0.125000
G01 X124.815153 Y142.546374 Z-0.125000
G01 X125.419513 Y139.737504 Z-0.125000
G01 X125.633353 Y137.899154 Z-0.125000
G01 X125.534753 Y136.138424 Z-0.125000
G01 X125.143563 Y134.449224 Z-0.125000
G01 X124.479143 Y132.919824 Z-0.125000
G01 X123.633193 Y131.725254 Z-0.125000
G01 X122.904823 Y131.048634 Z-0.125000
G01 X122.167373 Y130.584344 Z-0.125000
G01 X121.343623 Y130.262484 Z-0.125000
G01 X120.361833 Y130.086134 Z-0.125000
G01 X119.386363 Y130.082134 Z-0.125000
G01 X118.319113 Y130.226854 Z-0.125000
G01 X117.142143 Y130.522534 Z-0.125000
G01 X115.759853 Y131.002824 Z-0.125000
G01 X113.897403 Y131.803824 Z-0.125000
G01 X111.569993 Y132.956084 Z-0.125000
G01 X100.324532 Y139.147154 Z-0.125000
G01 X90.009910 Y144.258054 Z-0.125000
G01 X86.495740 Y146.190444 Z-0.125000
G01 X84.987139 Y147.199274 Z-0.125000
G01 X83.922720 Y148.112774 Z-0.125000
G01 X83.272401 Y148.958964 Z-0.125000
G01 X82.928601 Y149.804994 Z-0.125000
G01 X82.764507 Y151.114474 Z-0.125000
G01 X82.866821 Y152.716314 Z-0.125000
G01 X83.186835 Y154.357334 Z-0.125000
G01 X83.732749 Y156.083904 Z-0.125000
G01 X84.666041 Y158.157814 Z-0.125000
G01 X85.855978 Y160.113824 Z-0.125000
G01 X87.236706 Y161.860764 Z-0.125000
G01 X88.858390 Y163.454874 Z-0.125000
G01 X90.608291 Y164.780254 Z-0.125000
G01 X92.516572 Y165.865654 Z-0.125000
G01 X94.478590 Y166.656094 Z-0.125000
G01 X96.552711 Y167.171134 Z-0.125000
G01 X98.190667 Y167.354404 Z-0.125000
G01 X99.862358 Y167.334904 Z-0.125000
G01 X101.444773 Y167.112654 Z-0.125000
G01 X103.063403 Y166.659844 Z-0.125000
G01 X104.667243 Y165.952534 Z-0.125000
G01 X110.776853 Y162.608364 Z-0.125000
G01 X113.140243 Y161.219904 Z-0.125000
G01 X115.160393 Y159.866754 Z-0.125000
G01 X116.998133 Y158.426204 Z-0.125000
G01 X118.639763 Y156.897944 Z-0.125000
G01 X120.081033 Y155.296654 Z-0.125000
G01 X121.433873 Y153.489394 Z-0.125000
G01 X122.598273 Y151.606034 Z-0.125000
G01 X123.650393 Y149.532334 Z-0.125000
G01 X124.567863 Y147.300524 Z-0.125000
G01 X125.396143 Y144.758884 Z-0.125000
G01 X126.073263 Y142.053994 Z-0.125000
G01 X126.594543 Y139.174664 Z-0.125000
G01 X126.704313 Y137.391054 Z-0.125000
G01 X126.515483 Y135.499574 Z-0.125000
G01 X126.033253 Y133.685644 Z-0.125000
G01 X125.294303 Y132.071374 Z-0.125000
G01 X124.345983 Y130.760604 Z-0.125000
G01 X123.590593 Y130.064264 Z-0.125000
G01 X122.826503 Y129.578494 Z-0.125000
G01 X121.980663 Y129.239114 Z-0.125000
G01 X121.049563 Y129.055254 Z-0.125000
G01 X120.072983 Y129.030054 Z-0.125000
G01 X118.955203 Y129.164354 Z-0.125000
G01 X117.693983 Y129.473334 Z-0.125000
G01 X116.285133 Y129.961414 Z-0.125000
G01 X114.528063 Y130.713894 Z-0.125000
G01 X112.381813 Y131.766484 Z-0.125000
G01 X100.361018 Y138.326374 Z-0.125000
G01 X89.355621 Y143.697124 Z-0.125000
G01 X85.635739 Y145.715364 Z-0.125000
G01 X84.075676 Y146.744544 Z-0.125000
G01 X82.996970 Y147.643524 Z-0.125000
G01 X82.323923 Y148.467374 Z-0.125000
G01 X81.925169 Y149.397044 Z-0.125000
G01 X81.748374 Y150.751284 Z-0.125000
G01 X81.838064 Y152.424674 Z-0.125000
G01 X82.156173 Y154.176794 Z-0.125000
G01 X82.703490 Y156.006444 Z-0.125000
G01 X83.652444 Y158.221504 Z-0.125000
G01 X84.878762 Y160.331484 Z-0.125000
G01 X86.357174 Y162.277754 Z-0.125000
G01 X88.026854 Y163.982704 Z-0.125000
G01 X89.923069 Y165.475614 Z-0.125000
G01 X91.925383 Y166.662884 Z-0.125000
G01 X94.085918 Y167.576854 Z-0.125000
G01 X96.268809 Y168.157484 Z-0.125000
G01 X98.101658 Y168.390344 Z-0.125000
G01 X99.812162 Y168.393344 Z-0.125000
G01 X101.528653 Y168.175374 Z-0.125000
G01 X103.141293 Y167.746834 Z-0.125000
G01 X104.731073 Y167.078494 Z-0.125000
G01 X110.756423 Y164.019224 Z-0.125000
G01 X114.451203 Y161.962644 Z-0.125000
G01 X116.545773 Y160.550714 Z-0.125000
G01 X118.365473 Y159.086064 Z-0.125000
G01 X119.985383 Y157.519894 Z-0.125000
G01 X121.467603 Y155.788144 Z-0.125000
G01 X122.796903 Y153.898614 Z-0.125000
G01 X123.962783 Y151.871354 Z-0.125000
G01 X125.001723 Y149.640074 Z-0.125000
G01 X125.891813 Y147.244774 Z-0.125000
G01 X126.669893 Y144.558644 Z-0.125000
G01 X127.307513 Y141.622484 Z-0.125000
G01 X127.722643 Y138.895424 Z-0.125000
G01 X127.771243 Y137.072444 Z-0.125000
G01 X127.519573 Y135.032794 Z-0.125000
G01 X126.936113 Y132.975074 Z-0.125000
G01 X126.067643 Y131.146464 Z-0.125000
G01 X125.030163 Y129.745624 Z-0.125000
G01 X124.306873 Y129.076684 Z-0.125000
G01 X123.493623 Y128.544944 Z-0.125000
G01 X122.597693 Y128.174134 Z-0.125000
G01 X121.614713 Y127.974164 Z-0.125000
G01 X120.570053 Y127.948964 Z-0.125000
G01 X119.483943 Y128.082284 Z-0.125000
G01 X118.242913 Y128.385844 Z-0.125000
G01 X116.945473 Y128.830314 Z-0.125000
G01 X114.934803 Y129.692484 Z-0.125000
G01 X112.417713 Y130.946584 Z-0.125000
G01 X99.756120 Y137.815484 Z-0.125000
G01 X88.796126 Y143.066914 Z-0.125000
G01 X84.836742 Y145.184344 Z-0.125000
G01 X83.267075 Y146.200904 Z-0.125000
G01 X82.080710 Y147.156814 Z-0.125000
G01 X81.386576 Y147.958134 Z-0.125000
G01 X80.964221 Y148.845624 Z-0.125000
G01 X80.742950 Y150.201424 Z-0.125000
G01 X80.793140 Y151.928734 Z-0.125000
G01 X81.072116 Y153.731894 Z-0.125000
G01 X81.597023 Y155.678224 Z-0.125000
G01 X82.582199 Y158.150994 Z-0.125000
G01 X83.845452 Y160.447944 Z-0.125000
G01 X85.367203 Y162.554554 Z-0.125000
G01 X87.100277 Y164.413284 Z-0.125000
G01 X89.124287 Y166.085314 Z-0.125000
G01 X91.282705 Y167.428264 Z-0.125000
G01 X93.522826 Y168.435904 Z-0.125000
G01 X95.897541 Y169.128734 Z-0.125000
G01 X97.746528 Y169.413664 Z-0.125000
G01 X99.635256 Y169.470264 Z-0.125000
G01 X101.438023 Y169.288724 Z-0.125000
G01 X103.211803 Y168.858784 Z-0.125000
G01 X104.459153 Y168.383164 Z-0.125000
G01 X111.759533 Y164.961014 Z-0.125000
G01 X113.814133 Y163.918774 Z-0.125000
G01 X115.633773 Y162.876574 Z-0.125000
G01 X117.727373 Y161.468834 Z-0.125000
G01 X119.612293 Y159.929884 Z-0.125000
G01 X121.279323 Y158.268384 Z-0.125000
G01 X122.803533 Y156.405824 Z-0.125000
G01 X124.157093 Y154.364664 Z-0.125000
G01 X125.329883 Y152.170584 Z-0.125000
G01 X126.355303 Y149.765624 Z-0.125000
G01 X127.214033 Y147.200224 Z-0.125000
G01 X127.955953 Y144.293014 Z-0.125000
G01 X128.547003 Y141.092424 Z-0.125000
G01 X128.848153 Y138.612384 Z-0.125000
G01 X128.826853 Y136.620304 Z-0.125000
G01 X128.466223 Y134.321844 Z-0.125000
G01 X127.800143 Y132.171264 Z-0.125000
G01 X126.866323 Y130.256924 Z-0.125000
G01 X126.319793 Y129.437824 Z-0.125000
G01 X125.691623 Y128.685264 Z-0.125000
G01 X124.922163 Y127.982134 Z-0.125000
G01 X124.038743 Y127.413864 Z-0.125000
G01 X123.152443 Y127.053004 Z-0.125000
G01 X122.249183 Y126.861654 Z-0.125000
G01 X121.273263 Y126.817954 Z-0.125000
G01 X120.121193 Y126.939504 Z-0.125000
G01 X118.924003 Y127.218964 Z-0.125000
G01 X117.564783 Y127.675844 Z-0.125000
G01 X115.563843 Y128.530714 Z-0.125000
G01 X113.042153 Y129.789014 Z-0.125000
G01 X99.708837 Y136.994894 Z-0.125000
G01 X88.173903 Y142.447024 Z-0.125000
G01 X84.228992 Y144.522684 Z-0.125000
G01 X82.512455 Y145.607524 Z-0.125000
G01 X81.224252 Y146.608424 Z-0.125000
G01 X80.459421 Y147.434744 Z-0.125000
G01 X80.015476 Y148.274264 Z-0.125000
G01 X79.746898 Y149.618054 Z-0.125000
G01 X79.744998 Y151.283924 Z-0.125000
G01 X79.987436 Y153.221234 Z-0.125000
G01 X80.466728 Y155.224574 Z-0.125000
G01 X81.427272 Y157.865934 Z-0.125000
G01 X82.713993 Y160.384034 Z-0.125000
G01 X84.295937 Y162.713454 Z-0.125000
G01 X86.117461 Y164.775744 Z-0.125000
G01 X88.206928 Y166.596814 Z-0.125000
G01 X90.441017 Y168.075704 Z-0.125000
G01 X92.865262 Y169.250454 Z-0.125000
G01 X95.445717 Y170.079974 Z-0.125000
G01 X97.460016 Y170.443494 Z-0.125000
G01 X99.373430 Y170.555034 Z-0.125000
G01 X101.308543 Y170.419064 Z-0.125000
G01 X103.142223 Y170.033284 Z-0.125000
G01 X104.545783 Y169.544094 Z-0.125000
G01 X112.474233 Y166.122684 Z-0.125000
G01 X114.826963 Y164.991644 Z-0.125000
G01 X116.755983 Y163.912704 Z-0.125000
G01 X118.930413 Y162.451694 Z-0.125000
G01 X120.807813 Y160.896424 Z-0.125000
G01 X122.535993 Y159.128054 Z-0.125000
G01 X124.094623 Y157.146274 Z-0.125000
G01 X125.479273 Y154.945574 Z-0.125000
G01 X126.661723 Y152.581524 Z-0.125000
G01 X127.677193 Y149.998364 Z-0.125000
G01 X128.534303 Y147.159154 Z-0.125000
G01 X129.261063 Y143.882714 Z-0.125000
G01 X129.800973 Y140.307364 Z-0.125000
G01 X129.971813 Y138.190574 Z-0.125000
G01 X129.857963 Y136.033924 Z-0.125000
G01 X129.388963 Y133.565604 Z-0.125000
G01 X128.573543 Y131.157394 Z-0.125000
G01 X127.527463 Y129.133754 Z-0.125000
G01 X126.919393 Y128.263584 Z-0.125000
G01 X126.240083 Y127.485184 Z-0.125000
G01 X125.405503 Y126.758134 Z-0.125000
G01 X124.589633 Y126.251164 Z-0.125000
G01 X123.709573 Y125.893984 Z-0.125000
G01 X122.760943 Y125.693584 Z-0.125000
G01 X121.711603 Y125.655184 Z-0.125000
G01 X120.607813 Y125.780964 Z-0.125000
G01 X119.347683 Y126.084974 Z-0.125000
G01 X118.023633 Y126.541224 Z-0.125000
G01 X116.151673 Y127.349574 Z-0.125000
G01 X113.831253 Y128.509454 Z-0.125000
G01 X99.993057 Y135.987824 Z-0.125000
G01 X96.291828 Y137.778864 Z-0.125000
G01 X87.561345 Y141.801564 Z-0.125000
G01 X83.464140 Y143.936224 Z-0.125000
G01 X81.673916 Y145.059194 Z-0.125000
G01 X80.353090 Y146.067974 Z-0.125000
G01 X79.540713 Y146.900614 Z-0.125000
G01 X79.037290 Y147.790124 Z-0.125000
G01 X78.759531 Y149.004904 Z-0.125000
G01 X78.710711 Y150.698424 Z-0.125000
G01 X78.900761 Y152.632704 Z-0.125000
G01 X79.309569 Y154.609224 Z-0.125000
G01 X80.254370 Y157.490934 Z-0.125000
G01 X81.529397 Y160.192804 Z-0.125000
G01 X83.163278 Y162.767494 Z-0.125000
G01 X85.063330 Y165.048864 Z-0.125000
G01 X86.164235 Y166.129814 Z-0.125000
G01 X87.259478 Y167.068984 Z-0.125000
G01 X89.630621 Y168.725434 Z-0.125000
G01 X92.214198 Y170.056184 Z-0.125000
G01 X94.871514 Y170.992414 Z-0.125000
G01 X97.026545 Y171.452894 Z-0.125000
G01 X99.129586 Y171.640954 Z-0.125000
G01 X101.153543 Y171.560754 Z-0.125000
G01 X103.114993 Y171.209064 Z-0.125000
G01 X104.771683 Y170.666034 Z-0.125000
G01 X113.205343 Y167.345964 Z-0.125000
G01 X115.670603 Y166.229104 Z-0.125000
G01 X117.775493 Y165.089654 Z-0.125000
G01 X120.034243 Y163.584254 Z-0.125000
G01 X121.976123 Y161.960424 Z-0.125000
G01 X123.750553 Y160.103154 Z-0.125000
G01 X125.356413 Y157.989344 Z-0.125000
G01 X126.760453 Y155.652834 Z-0.125000
G01 X127.966023 Y153.096674 Z-0.125000
G01 X128.975463 Y150.330214 Z-0.125000
G01 X129.829353 Y147.211934 Z-0.125000
G01 X130.536713 Y143.546454 Z-0.125000
G01 X131.009953 Y139.690604 Z-0.125000
G01 X131.078353 Y137.742314 Z-0.125000
G01 X130.897293 Y135.611994 Z-0.125000
G01 X130.313063 Y132.852894 Z-0.125000
G01 X129.400093 Y130.282654 Z-0.125000
G01 X128.813863 Y129.067424 Z-0.125000
G01 X128.219443 Y128.052854 Z-0.125000
G01 X127.551563 Y127.116754 Z-0.125000
G01 X126.826573 Y126.301494 Z-0.125000
G01 X126.036843 Y125.614634 Z-0.125000
G01 X125.166153 Y125.065684 Z-0.125000
G01 X124.241963 Y124.687804 Z-0.125000
G01 X123.299493 Y124.486824 Z-0.125000
G01 X122.247853 Y124.445324 Z-0.125000
G01 X121.184863 Y124.562344 Z-0.125000
G01 X119.948223 Y124.855584 Z-0.125000
G01 X118.636053 Y125.305164 Z-0.125000
G01 X116.868083 Y126.066294 Z-0.125000
G01 X114.655053 Y127.173624 Z-0.125000
G01 X105.049583 Y132.447224 Z-0.125000
G01 X99.925138 Y135.138244 Z-0.125000
G01 X95.992636 Y137.020334 Z-0.125000
G01 X87.115706 Y141.056974 Z-0.125000
G01 X82.950397 Y143.188374 Z-0.125000
G01 X81.106066 Y144.313754 Z-0.125000
G01 X79.670384 Y145.362754 Z-0.125000
G01 X78.695686 Y146.280664 Z-0.125000
G01 X78.107173 Y147.184614 Z-0.125000
G01 X77.784461 Y148.341504 Z-0.125000
G01 X77.678389 Y149.968964 Z-0.125000
G01 X77.804013 Y151.886104 Z-0.125000
G01 X78.132917 Y153.818644 Z-0.125000
G01 X78.512832 Y155.325154 Z-0.125000
G01 X79.023134 Y156.906814 Z-0.125000
G01 X79.620140 Y158.420304 Z-0.125000
G01 X80.329620 Y159.931824 Z-0.125000
G01 X81.095165 Y161.327494 Z-0.125000
G01 X81.955379 Y162.685574 Z-0.125000
G01 X82.907138 Y163.991714 Z-0.125000
G01 X83.946792 Y165.234254 Z-0.125000
G01 X85.070371 Y166.404214 Z-0.125000
G01 X86.190855 Y167.424214 Z-0.125000
G01 X87.403388 Y168.389704 Z-0.125000
G01 X88.637590 Y169.246054 Z-0.125000
G01 X90.015090 Y170.070784 Z-0.125000
G01 X91.359147 Y170.756854 Z-0.125000
G01 X92.843538 Y171.390504 Z-0.125000
G01 X94.277395 Y171.886404 Z-0.125000
G01 X96.542546 Y172.444684 Z-0.125000
G01 X98.766951 Y172.721224 Z-0.125000
G01 X101.025173 Y172.706424 Z-0.125000
G01 X103.083873 Y172.399054 Z-0.125000
G01 X104.412143 Y172.026494 Z-0.125000
G01 X113.921973 Y168.640884 Z-0.125000
G01 X116.644533 Y167.474184 Z-0.125000
G01 X118.885053 Y166.286674 Z-0.125000
G01 X121.219713 Y164.725794 Z-0.125000
G01 X123.229273 Y163.009994 Z-0.125000
G01 X125.060953 Y161.023934 Z-0.125000
G01 X126.693433 Y158.771294 Z-0.125000
G01 X128.116413 Y156.261294 Z-0.125000
G01 X129.355483 Y153.429754 Z-0.125000
G01 X130.367153 Y150.367094 Z-0.125000
G01 X131.163993 Y147.067424 Z-0.125000
G01 X131.784173 Y143.320214 Z-0.125000
G01 X132.176103 Y139.346034 Z-0.125000
G01 X132.165803 Y137.258054 Z-0.125000
G01 X131.886953 Y134.925034 Z-0.125000
G01 X131.183133 Y131.982844 Z-0.125000
G01 X130.681543 Y130.516144 Z-0.125000
G01 X130.109273 Y129.149704 Z-0.125000
G01 X129.463083 Y127.875474 Z-0.125000
G01 X128.806573 Y126.801924 Z-0.125000
G01 X128.084893 Y125.830114 Z-0.125000
G01 X127.293943 Y124.977444 Z-0.125000
G01 X126.446853 Y124.277614 Z-0.125000
G01 X125.634903 Y123.788824 Z-0.125000
G01 X124.673963 Y123.411584 Z-0.125000
G01 X123.751253 Y123.226874 Z-0.125000
G01 X122.801483 Y123.190574 Z-0.125000
G01 X121.683323 Y123.312414 Z-0.125000
G01 X120.492223 Y123.597344 Z-0.125000
G01 X119.218813 Y124.035494 Z-0.125000
G01 X117.461713 Y124.798234 Z-0.125000
G01 X115.340733 Y125.868344 Z-0.125000
G01 X105.835753 Y131.136194 Z-0.125000
G01 X100.235878 Y134.080344 Z-0.125000
G01 X96.017414 Y136.093644 Z-0.125000
G01 X86.578986 Y140.337484 Z-0.125000
G01 X82.521177 Y142.379644 Z-0.125000
G01 X80.589401 Y143.525604 Z-0.125000
G01 X78.972692 Y144.668734 Z-0.125000
G01 X77.862632 Y145.659334 Z-0.125000
G01 X77.186913 Y146.571774 Z-0.125000
G01 X76.829487 Y147.613204 Z-0.125000
G01 X76.659439 Y149.101084 Z-0.125000
G01 X76.707509 Y150.974924 Z-0.125000
G01 X76.947989 Y152.843144 Z-0.125000
G01 X77.298192 Y154.504114 Z-0.125000
G01 X77.768356 Y156.169674 Z-0.125000
G01 X78.333665 Y157.775824 Z-0.125000
G01 X79.010443 Y159.374514 Z-0.125000
G01 X79.793530 Y160.941564 Z-0.125000
G01 X80.686075 Y162.470514 Z-0.125000
G01 X81.622885 Y163.857984 Z-0.125000
G01 X82.649971 Y165.183074 Z-0.125000
G01 X83.763497 Y166.436194 Z-0.125000
G01 X84.959122 Y167.609834 Z-0.125000
G01 X86.232139 Y168.698514 Z-0.125000
G01 X87.577651 Y169.698154 Z-0.125000
G01 X88.990658 Y170.605414 Z-0.125000
G01 X90.465657 Y171.416624 Z-0.125000
G01 X91.996854 Y172.127294 Z-0.125000
G01 X93.477912 Y172.696784 Z-0.125000
G01 X95.925863 Y173.395894 Z-0.125000
G01 X98.341906 Y173.788484 Z-0.125000
G01 X100.693364 Y173.866184 Z-0.125000
G01 X102.957653 Y173.620174 Z-0.125000
G01 X104.544473 Y173.229404 Z-0.125000
G01 X114.434673 Y170.070414 Z-0.125000
G01 X117.315793 Y168.927124 Z-0.125000
G01 X119.796583 Y167.667654 Z-0.125000
G01 X122.217413 Y166.073564 Z-0.125000
G01 X124.372813 Y164.223334 Z-0.125000
G01 X126.251433 Y162.142384 Z-0.125000
G01 X127.932283 Y159.749384 Z-0.125000
G01 X129.390613 Y157.066934 Z-0.125000
G01 X130.635583 Y154.067174 Z-0.125000
G01 X131.649073 Y150.783004 Z-0.125000
G01 X132.418903 Y147.293204 Z-0.125000
G01 X132.979283 Y143.486354 Z-0.125000
G01 X133.316423 Y139.449074 Z-0.125000
G01 X133.260023 Y137.041734 Z-0.125000
G01 X132.889823 Y134.387754 Z-0.125000
G01 X132.533553 Y132.802924 Z-0.125000
G01 X132.053073 Y131.142934 Z-0.125000
G01 X131.496103 Y129.587394 Z-0.125000
G01 X130.869933 Y128.137764 Z-0.125000
G01 X130.184403 Y126.811064 Z-0.125000
G01 X129.413693 Y125.572894 Z-0.125000
G01 X128.642413 Y124.556924 Z-0.125000
G01 X127.806723 Y123.674164 Z-0.125000
G01 X126.899603 Y122.943304 Z-0.125000
G01 X126.042823 Y122.447184 Z-0.125000
G01 X125.136603 Y122.104924 Z-0.125000
G01 X124.197543 Y121.923924 Z-0.125000
G01 X123.176143 Y121.898524 Z-0.125000
G01 X122.105483 Y122.030764 Z-0.125000
G01 X120.971053 Y122.312284 Z-0.125000
G01 X119.732193 Y122.746804 Z-0.125000
G01 X118.116253 Y123.455334 Z-0.125000
G01 X116.162043 Y124.448294 Z-0.125000
G01 X106.409773 Y129.915034 Z-0.125000
G01 X100.319204 Y133.116944 Z-0.125000
G01 X95.615124 Y135.342644 Z-0.125000
G01 X86.104385 Y139.571424 Z-0.125000
G01 X82.120263 Y141.543074 Z-0.125000
G01 X80.137422 Y142.686864 Z-0.125000
G01 X78.468087 Y143.820314 Z-0.125000
G01 X77.121596 Y144.954264 Z-0.125000
G01 X76.323771 Y145.876924 Z-0.125000
G01 X75.888426 Y146.876204 Z-0.125000
G01 X75.662419 Y148.181014 Z-0.125000
G01 X75.625009 Y149.903054 Z-0.125000
G01 X75.789262 Y151.830524 Z-0.125000
G01 X76.092845 Y153.601644 Z-0.125000
G01 X76.517924 Y155.345484 Z-0.125000
G01 X77.084318 Y157.148304 Z-0.125000
G01 X77.759111 Y158.895694 Z-0.125000
G01 X78.561169 Y160.631914 Z-0.125000
G01 X79.435379 Y162.240814 Z-0.125000
G01 X80.417301 Y163.795064 Z-0.125000
G01 X81.439995 Y165.198724 Z-0.125000
G01 X82.551271 Y166.529344 Z-0.125000
G01 X83.746923 Y167.779444 Z-0.125000
G01 X85.022426 Y168.944014 Z-0.125000
G01 X86.454881 Y170.080184 Z-0.125000
G01 X87.879794 Y171.059114 Z-0.125000
G01 X89.458801 Y171.993384 Z-0.125000
G01 X91.010609 Y172.775994 Z-0.125000
G01 X92.615439 Y173.457244 Z-0.125000
G01 X95.357342 Y174.338974 Z-0.125000
G01 X97.989576 Y174.852874 Z-0.125000
G01 X100.571116 Y175.017044 Z-0.125000
G01 X102.962273 Y174.825404 Z-0.125000
G01 X104.616953 Y174.460544 Z-0.125000
G01 X114.953633 Y171.544604 Z-0.125000
G01 X118.053543 Y170.405274 Z-0.125000
G01 X120.722163 Y169.101174 Z-0.125000
G01 X123.213663 Y167.480654 Z-0.125000
G01 X125.444363 Y165.560754 Z-0.125000
G01 X126.515583 Y164.427754 Z-0.125000
G01 X127.460353 Y163.283934 Z-0.125000
G01 X129.186313 Y160.741744 Z-0.125000
G01 X130.719073 Y157.784384 Z-0.125000
G01 X131.966473 Y154.580944 Z-0.125000
G01 X132.961993 Y151.087544 Z-0.125000
G01 X133.728473 Y147.191584 Z-0.125000
G01 X134.223953 Y143.183884 Z-0.125000
G01 X134.468373 Y139.194814 Z-0.125000
G01 X134.312513 Y136.461114 Z-0.125000
G01 X133.807343 Y133.488994 Z-0.125000
G01 X133.351363 Y131.697634 Z-0.125000
G01 X132.792423 Y129.942624 Z-0.125000
G01 X132.154413 Y128.289404 Z-0.125000
G01 X131.457943 Y126.775014 Z-0.125000
G01 X130.697903 Y125.383754 Z-0.125000
G01 X129.922703 Y124.194294 Z-0.125000
G01 X129.086593 Y123.135214 Z-0.125000
G01 X128.186213 Y122.226294 Z-0.125000
G01 X127.330583 Y121.564674 Z-0.125000
G01 X126.522993 Y121.105364 Z-0.125000
G01 X125.579933 Y120.753224 Z-0.125000
G01 X124.685063 Y120.582724 Z-0.125000
G01 X123.740373 Y120.553124 Z-0.125000
G01 X122.718043 Y120.668094 Z-0.125000
G01 X121.611983 Y120.932194 Z-0.125000
G01 X120.313033 Y121.385194 Z-0.125000
G01 X118.702203 Y122.099194 Z-0.125000
G01 X116.833133 Y123.061244 Z-0.125000
G01 X107.022373 Y128.645304 Z-0.125000
G01 X100.815273 Y131.927854 Z-0.125000
G01 X95.918815 Y134.253724 Z-0.125000
G01 X85.455152 Y138.868804 Z-0.125000
G01 X81.442905 Y140.841724 Z-0.125000
G01 X79.410296 Y142.007314 Z-0.125000
G01 X77.734955 Y143.136184 Z-0.125000
G01 X76.318534 Y144.313374 Z-0.125000
G01 X75.321717 Y145.409014 Z-0.125000
G01 X74.893436 Y146.337304 Z-0.125000
G01 X74.655178 Y147.503214 Z-0.125000
G01 X74.570808 Y149.094974 Z-0.125000
G01 X74.666908 Y150.914994 Z-0.125000
G01 X74.916966 Y152.725724 Z-0.125000
G01 X75.306909 Y154.571554 Z-0.125000
G01 X75.853300 Y156.508414 Z-0.125000
G01 X76.506874 Y158.360974 Z-0.125000
G01 X77.294089 Y160.209034 Z-0.125000
G01 X78.149751 Y161.908454 Z-0.125000
G01 X79.166016 Y163.634064 Z-0.125000
G01 X80.227259 Y165.184104 Z-0.125000
G01 X81.350733 Y166.609414 Z-0.125000
G01 X82.563001 Y167.950454 Z-0.125000
G01 X83.859592 Y169.202274 Z-0.125000
G01 X85.318927 Y170.427244 Z-0.125000
G01 X86.773527 Y171.487774 Z-0.125000
G01 X88.388544 Y172.507534 Z-0.125000
G01 X90.074310 Y173.419494 Z-0.125000
G01 X91.823762 Y174.220024 Z-0.125000
G01 X94.674647 Y175.232924 Z-0.125000
G01 X97.511377 Y175.889514 Z-0.125000
G01 X100.312574 Y176.168994 Z-0.125000
G01 X102.835753 Y176.058504 Z-0.125000
G01 X104.345553 Y175.796754 Z-0.125000
G01 X115.609863 Y173.022834 Z-0.125000
G01 X118.899433 Y171.893114 Z-0.125000
G01 X121.745503 Y170.536014 Z-0.125000
G01 X123.056963 Y169.744564 Z-0.125000
G01 X124.319733 Y168.856734 Z-0.125000
G01 X125.529893 Y167.868034 Z-0.125000
G01 X126.608493 Y166.851714 Z-0.125000
G01 X127.706003 Y165.661274 Z-0.125000
G01 X128.677213 Y164.450254 Z-0.125000
G01 X129.589473 Y163.149114 Z-0.125000
G01 X130.449473 Y161.744494 Z-0.125000
G01 X131.284573 Y160.173554 Z-0.125000
G01 X132.010433 Y158.595814 Z-0.125000
G01 X133.267523 Y155.184994 Z-0.125000
G01 X134.275083 Y151.372744 Z-0.125000
G01 X134.999643 Y147.269404 Z-0.125000
G01 X135.438773 Y143.100864 Z-0.125000
G01 X135.610853 Y139.107614 Z-0.125000
G01 X135.367753 Y136.031044 Z-0.125000
G01 X134.761043 Y132.818974 Z-0.125000
G01 X134.246213 Y130.913284 Z-0.125000
G01 X133.628463 Y129.050674 Z-0.125000
G01 X132.937373 Y127.308284 Z-0.125000
G01 X132.140263 Y125.613624 Z-0.125000
G01 X131.328283 Y124.156404 Z-0.125000
G01 X130.445343 Y122.828494 Z-0.125000
G01 X129.559993 Y121.733384 Z-0.125000
G01 X128.616493 Y120.803534 Z-0.125000
G01 X127.791993 Y120.176914 Z-0.125000
G01 X126.949933 Y119.703654 Z-0.125000
G01 X126.070563 Y119.375604 Z-0.125000
G01 X125.148413 Y119.196714 Z-0.125000
G01 X124.176783 Y119.168914 Z-0.125000
G01 X123.211843 Y119.280334 Z-0.125000
G01 X122.100863 Y119.549094 Z-0.125000
G01 X120.844113 Y119.994334 Z-0.125000
G01 X119.429393 Y120.625734 Z-0.125000
G01 X117.636683 Y121.555294 Z-0.125000
G01 X107.583373 Y127.375604 Z-0.125000
G01 X100.991093 Y130.881254 Z-0.125000
G01 X95.513270 Y133.467074 Z-0.125000
G01 X84.803043 Y138.150734 Z-0.125000
G01 X80.856756 Y140.075914 Z-0.125000
G01 X78.761441 Y141.264164 Z-0.125000
G01 X77.063081 Y142.393854 Z-0.125000
G01 X75.663858 Y143.529734 Z-0.125000
G01 X74.396901 Y144.816744 Z-0.125000
G01 X73.931499 Y145.678174 Z-0.125000
G01 X73.644241 Y146.836864 Z-0.125000
G01 X73.521792 Y148.282284 Z-0.125000
G01 X73.555972 Y149.944744 Z-0.125000
G01 X73.755812 Y151.833604 Z-0.125000
G01 X74.111385 Y153.788694 Z-0.125000
G01 X74.619412 Y155.799654 Z-0.125000
G01 X75.256052 Y157.777624 Z-0.125000
G01 X76.012284 Y159.704534 Z-0.125000
G01 X76.900358 Y161.602634 Z-0.125000
G01 X77.915855 Y163.442884 Z-0.125000
G01 X78.994085 Y165.116454 Z-0.125000
G01 X80.178413 Y166.703054 Z-0.125000
G01 X81.393883 Y168.117014 Z-0.125000
G01 X82.695712 Y169.439134 Z-0.125000
G01 X84.158302 Y170.732734 Z-0.125000
G01 X85.706141 Y171.921164 Z-0.125000
G01 X87.333355 Y173.004984 Z-0.125000
G01 X89.033541 Y173.984364 Z-0.125000
G01 X90.894673 Y174.900724 Z-0.125000
G01 X94.004877 Y176.108044 Z-0.125000
G01 X97.039039 Y176.910604 Z-0.125000
G01 X99.941783 Y177.307954 Z-0.125000
G01 X101.303013 Y177.353954 Z-0.125000
G01 X102.772123 Y177.289554 Z-0.125000
G01 X104.545183 Y177.034334 Z-0.125000
G01 X107.775643 Y176.301944 Z-0.125000
G01 X113.695233 Y175.155184 Z-0.125000
G01 X116.268893 Y174.549924 Z-0.125000
G01 X119.670743 Y173.463364 Z-0.125000
G01 X121.208763 Y172.814154 Z-0.125000
G01 X122.698613 Y172.060964 Z-0.125000
G01 X124.047003 Y171.252294 Z-0.125000
G01 X125.344623 Y170.338104 Z-0.125000
G01 X126.592743 Y169.309294 Z-0.125000
G01 X127.777263 Y168.171454 Z-0.125000
G01 X128.899753 Y166.919284 Z-0.125000
G01 X129.899963 Y165.631644 Z-0.125000
G01 X130.890903 Y164.160774 Z-0.125000
G01 X131.765353 Y162.663144 Z-0.125000
G01 X132.609953 Y160.991274 Z-0.125000
G01 X133.342693 Y159.308394 Z-0.125000
G01 X134.028333 Y157.471894 Z-0.125000
G01 X134.629863 Y155.571944 Z-0.125000
G01 X135.605093 Y151.534644 Z-0.125000
G01 X136.291103 Y147.115784 Z-0.125000
G01 X136.671623 Y142.585404 Z-0.125000
G01 X136.738023 Y138.756984 Z-0.125000
G01 X136.371543 Y135.329834 Z-0.125000
G01 X135.609153 Y131.770054 Z-0.125000
G01 X135.015323 Y129.751444 Z-0.125000
G01 X134.320423 Y127.790004 Z-0.125000
G01 X133.552223 Y125.955494 Z-0.125000
G01 X132.685183 Y124.195194 Z-0.125000
G01 X131.805793 Y122.680134 Z-0.125000
G01 X130.856013 Y121.306654 Z-0.125000
G01 X129.906793 Y120.180534 Z-0.125000
G01 X128.901513 Y119.238514 Z-0.125000
G01 X128.042543 Y118.626934 Z-0.125000
G01 X127.241893 Y118.208364 Z-0.125000
G01 X126.326563 Y117.897524 Z-0.125000
G01 X125.477383 Y117.755734 Z-0.125000
G01 X124.537083 Y117.744734 Z-0.125000
G01 X123.514303 Y117.882324 Z-0.125000
G01 X122.501293 Y118.145294 Z-0.125000
G01 X121.304193 Y118.583814 Z-0.125000
G01 X118.199513 Y120.130274 Z-0.125000
G01 X108.095963 Y126.102314 Z-0.125000
G01 X101.491783 Y129.650274 Z-0.125000
G01 X95.860651 Y132.325294 Z-0.125000
G01 X84.170989 Y137.407244 Z-0.125000
G01 X80.082489 Y139.395454 Z-0.125000
G01 X77.917986 Y140.626404 Z-0.125000
G01 X76.198908 Y141.779384 Z-0.125000
G01 X74.822625 Y142.908064 Z-0.125000
G01 X73.314077 Y144.416564 Z-0.125000
G01 X72.889077 Y145.216454 Z-0.125000
G01 X72.621398 Y146.219354 Z-0.125000
G01 X72.473496 Y147.523274 Z-0.125000
G01 X72.464096 Y149.103554 Z-0.125000
G01 X72.617184 Y151.019264 Z-0.125000
G01 X72.951882 Y153.124974 Z-0.125000
G01 X73.445701 Y155.259164 Z-0.125000
G01 X74.080304 Y157.370004 Z-0.125000
G01 X74.860481 Y159.473184 Z-0.125000
G01 X75.741384 Y161.452294 Z-0.125000
G01 X76.750611 Y163.372554 Z-0.125000
G01 X77.883477 Y165.210774 Z-0.125000
G01 X79.072541 Y166.868704 Z-0.125000
G01 X80.297165 Y168.350584 Z-0.125000
G01 X81.681412 Y169.807434 Z-0.125000
G01 X83.112570 Y171.118024 Z-0.125000
G01 X84.695043 Y172.380214 Z-0.125000
G01 X86.366389 Y173.539064 Z-0.125000
G01 X88.173811 Y174.625234 Z-0.125000
G01 X90.056798 Y175.599584 Z-0.125000
G01 X93.340991 Y176.965044 Z-0.125000
G01 X96.672095 Y177.940994 Z-0.125000
G01 X98.275391 Y178.257484 Z-0.125000
G01 X99.894641 Y178.465844 Z-0.125000
G01 X101.422103 Y178.549644 Z-0.125000
G01 X102.851263 Y178.517544 Z-0.125000
G01 X104.379633 Y178.343844 Z-0.125000
G01 X107.738853 Y177.712174 Z-0.125000
G01 X113.582153 Y176.793784 Z-0.125000
G01 X116.900843 Y176.130524 Z-0.125000
G01 X118.857763 Y175.607074 Z-0.125000
G01 X120.572523 Y175.031814 Z-0.125000
G01 X122.236143 Y174.341804 Z-0.125000
G01 X123.754953 Y173.572874 Z-0.125000
G01 X125.218263 Y172.680724 Z-0.125000
G01 X126.540963 Y171.721954 Z-0.125000
G01 X127.807263 Y170.643064 Z-0.125000
G01 X129.017863 Y169.436614 Z-0.125000
G01 X130.160153 Y168.110474 Z-0.125000
G01 X131.180303 Y166.740194 Z-0.125000
G01 X132.186883 Y165.177594 Z-0.125000
G01 X133.075723 Y163.581494 Z-0.125000
G01 X133.930093 Y161.803074 Z-0.125000
G01 X134.669973 Y160.009544 Z-0.125000
G01 X135.357413 Y158.056594 Z-0.125000
G01 X135.961323 Y156.018354 Z-0.125000
G01 X136.926473 Y151.665424 Z-0.125000
G01 X137.560673 Y147.014844 Z-0.125000
G01 X137.879183 Y142.189004 Z-0.125000
G01 X137.921283 Y140.246724 Z-0.125000
G01 X137.860183 Y138.563184 Z-0.125000
G01 X137.677753 Y136.684664 Z-0.125000
G01 X137.381253 Y134.756594 Z-0.125000
G01 X136.476033 Y130.852034 Z-0.125000
G01 X135.817013 Y128.731924 Z-0.125000
G01 X135.042713 Y126.638864 Z-0.125000
G01 X134.190853 Y124.678224 Z-0.125000
G01 X133.277013 Y122.877434 Z-0.125000
G01 X132.287813 Y121.218554 Z-0.125000
G01 X131.283433 Y119.806124 Z-0.125000
G01 X130.286453 Y118.654554 Z-0.125000
G01 X129.240823 Y117.702634 Z-0.125000
G01 X128.412833 Y117.128204 Z-0.125000
G01 X127.583073 Y116.705294 Z-0.125000
G01 X126.725053 Y116.421024 Z-0.125000
G01 X125.833123 Y116.278044 Z-0.125000
G01 X124.900593 Y116.277514 Z-0.125000
G01 X123.954263 Y116.412054 Z-0.125000
G01 X122.882513 Y116.701194 Z-0.125000
G01 X121.824413 Y117.099894 Z-0.125000
G01 X118.907443 Y118.574834 Z-0.125000
G01 X108.659573 Y124.769024 Z-0.125000
G01 X105.269693 Y126.674054 Z-0.125000
G01 X101.853373 Y128.470574 Z-0.125000
G01 X96.627797 Y130.976204 Z-0.125000
G01 X84.156106 Y136.371874 Z-0.125000
G01 X79.406412 Y138.648324 Z-0.125000
G01 X77.170551 Y139.915094 Z-0.125000
G01 X75.407314 Y141.096914 Z-0.125000
G01 X74.133742 Y142.134104 Z-0.125000
G01 X72.300603 Y143.897024 Z-0.125000
G01 X71.886186 Y144.616324 Z-0.125000
G01 X71.603135 Y145.537654 Z-0.125000
G01 X71.424541 Y146.772784 Z-0.125000
G01 X71.376021 Y148.301644 Z-0.125000
G01 X71.497835 Y150.339784 Z-0.125000
G01 X71.793189 Y152.444974 Z-0.125000
G01 X72.271609 Y154.698794 Z-0.125000
G01 X72.922034 Y157.003844 Z-0.125000
G01 X73.668133 Y159.129984 Z-0.125000
G01 X74.580019 Y161.287424 Z-0.125000
G01 X75.584907 Y163.291514 Z-0.125000
G01 X76.714334 Y165.210484 Z-0.125000
G01 X77.911308 Y166.955624 Z-0.125000
G01 X79.153792 Y168.524444 Z-0.125000
G01 X80.560952 Y170.066084 Z-0.125000
G01 X82.064552 Y171.494154 Z-0.125000
G01 X83.658984 Y172.810924 Z-0.125000
G01 X85.424708 Y174.078174 Z-0.125000
G01 X87.277479 Y175.232074 Z-0.125000
G01 X89.209784 Y176.275994 Z-0.125000
G01 X91.020195 Y177.125404 Z-0.125000
G01 X92.783908 Y177.843224 Z-0.125000
G01 X94.642632 Y178.486324 Z-0.125000
G01 X96.374410 Y178.978944 Z-0.125000
G01 X98.088327 Y179.359234 Z-0.125000
G01 X99.764674 Y179.618684 Z-0.125000
G01 X101.346593 Y179.750124 Z-0.125000
G01 X102.827393 Y179.761124 Z-0.125000
G01 X104.183073 Y179.663424 Z-0.125000
G01 X107.762523 Y179.118324 Z-0.125000
G01 X113.763893 Y178.389584 Z-0.125000
G01 X117.383423 Y177.785914 Z-0.125000
G01 X119.499933 Y177.275344 Z-0.125000
G01 X121.359453 Y176.687334 Z-0.125000
G01 X123.065533 Y176.001584 Z-0.125000
G01 X124.712093 Y175.176774 Z-0.125000
G01 X126.208283 Y174.260024 Z-0.125000
G01 X127.560783 Y173.268154 Z-0.125000
G01 X128.870013 Y172.133404 Z-0.125000
G01 X130.103983 Y170.877644 Z-0.125000
G01 X131.284683 Y169.474004 Z-0.125000
G01 X132.384983 Y167.950844 Z-0.125000
G01 X133.420823 Y166.283684 Z-0.125000
G01 X134.330993 Y164.584814 Z-0.125000
G01 X135.200143 Y162.699664 Z-0.125000
G01 X135.989033 Y160.693084 Z-0.125000
G01 X136.678853 Y158.618464 Z-0.125000
G01 X137.279723 Y156.457344 Z-0.125000
G01 X137.801163 Y154.169014 Z-0.125000
G01 X138.237403 Y151.759774 Z-0.125000
G01 X138.826183 Y146.783914 Z-0.125000
G01 X139.071633 Y141.737544 Z-0.125000
G01 X139.065633 Y139.910124 Z-0.125000
G01 X138.949223 Y138.078854 Z-0.125000
G01 X138.705613 Y136.065224 Z-0.125000
G01 X138.345573 Y134.003114 Z-0.125000
G01 X137.875783 Y131.918164 Z-0.125000
G01 X137.273583 Y129.738474 Z-0.125000
G01 X136.534973 Y127.502744 Z-0.125000
G01 X135.680633 Y125.306604 Z-0.125000
G01 X134.753963 Y123.262824 Z-0.125000
G01 X133.769953 Y121.393944 Z-0.125000
G01 X132.717413 Y119.685214 Z-0.125000
G01 X131.653703 Y118.233314 Z-0.125000
G01 X130.603073 Y117.056364 Z-0.125000
G01 X129.509103 Y116.095924 Z-0.125000
G01 X128.741803 Y115.580944 Z-0.125000
G01 X127.884343 Y115.156864 Z-0.125000
G01 X127.000503 Y114.880614 Z-0.125000
G01 X126.187413 Y114.761364 Z-0.125000
G01 X125.253403 Y114.768364 Z-0.125000
G01 X124.339883 Y114.907274 Z-0.125000
G01 X123.344093 Y115.182884 Z-0.125000
G01 X122.289623 Y115.587784 Z-0.125000
G01 X120.819603 Y116.296494 Z-0.125000
G01 X118.953043 Y117.352794 Z-0.125000
G01 X111.771033 Y121.856604 Z-0.125000
G01 X108.279953 Y123.954724 Z-0.125000
G01 X102.265053 Y127.242674 Z-0.125000
G01 X96.617515 Y129.961404 Z-0.125000
G01 X83.492118 Y135.613984 Z-0.125000
G01 X78.442069 Y138.040244 Z-0.125000
G01 X76.315110 Y139.257084 Z-0.125000
G01 X74.594181 Y140.417314 Z-0.125000
G01 X73.482666 Y141.313724 Z-0.125000
G01 X72.115114 Y142.660004 Z-0.125000
G01 X71.275115 Y143.365964 Z-0.125000
G01 X70.855168 Y144.051624 Z-0.125000
G01 X70.525339 Y145.084324 Z-0.125000
G01 X70.344390 Y146.300244 Z-0.125000
G01 X70.287030 Y147.731004 Z-0.125000
G01 X70.399927 Y149.924984 Z-0.125000
G01 X70.733329 Y152.342004 Z-0.125000
G01 X71.260432 Y154.808104 Z-0.125000
G01 X72.003620 Y157.401364 Z-0.125000
G01 X72.869310 Y159.806054 Z-0.125000
G01 X73.922114 Y162.209344 Z-0.125000
G01 X75.088900 Y164.430284 Z-0.125000
G01 X76.351729 Y166.459644 Z-0.125000
G01 X77.693961 Y168.298074 Z-0.125000
G01 X79.150915 Y170.008444 Z-0.125000
G01 X80.716560 Y171.589064 Z-0.125000
G01 X82.463075 Y173.106344 Z-0.125000
G01 X84.314629 Y174.492604 Z-0.125000
G01 X86.350333 Y175.808824 Z-0.125000
G01 X88.483404 Y176.999394 Z-0.125000
G01 X90.798191 Y178.108844 Z-0.125000
G01 X93.586211 Y179.220544 Z-0.125000
G01 X96.262789 Y180.060624 Z-0.125000
G01 X98.793582 Y180.634194 Z-0.125000
G01 X101.253573 Y180.951874 Z-0.125000
G01 X102.695903 Y181.011274 Z-0.125000
G01 X104.241553 Y180.952374 Z-0.125000
G01 X108.055113 Y180.507404 Z-0.125000
G01 X114.565933 Y179.936694 Z-0.125000
G01 X117.089843 Y179.604224 Z-0.125000
G01 X119.311073 Y179.181174 Z-0.125000
G01 X121.342103 Y178.643284 Z-0.125000
G01 X123.209023 Y177.984204 Z-0.125000
G01 X125.009413 Y177.163304 Z-0.125000
G01 X126.649403 Y176.223344 Z-0.125000
G01 X128.186443 Y175.142634 Z-0.125000
G01 X129.679143 Y173.872344 Z-0.125000
G01 X130.914723 Y172.625274 Z-0.125000
G01 X132.094103 Y171.238494 Z-0.125000
G01 X133.180033 Y169.759334 Z-0.125000
G01 X134.181853 Y168.187054 Z-0.125000
G01 X135.123583 Y166.485834 Z-0.125000
G01 X135.998243 Y164.661924 Z-0.125000
G01 X136.768813 Y162.803234 Z-0.125000
G01 X137.492553 Y160.769324 Z-0.125000
G01 X138.132503 Y158.645254 Z-0.125000
G01 X138.681483 Y156.462704 Z-0.125000
G01 X139.536093 Y151.812384 Z-0.125000
G01 X140.047323 Y146.932914 Z-0.125000
G01 X140.245833 Y141.583354 Z-0.125000
G01 X140.200333 Y139.720454 Z-0.125000
G01 X140.049633 Y137.849054 Z-0.125000
G01 X139.427173 Y133.867654 Z-0.125000
G01 X138.426753 Y129.832204 Z-0.125000
G01 X137.058853 Y125.800594 Z-0.125000
G01 X135.399263 Y122.034194 Z-0.125000
G01 X134.506603 Y120.351654 Z-0.125000
G01 X133.555323 Y118.774744 Z-0.125000
G01 X132.604813 Y117.403724 Z-0.125000
G01 X131.637283 Y116.209204 Z-0.125000
G01 X130.708173 Y115.250674 Z-0.125000
G01 X129.726593 Y114.439034 Z-0.125000
G01 X128.931153 Y113.932994 Z-0.125000
G01 X128.144913 Y113.565354 Z-0.125000
G01 X127.339393 Y113.321994 Z-0.125000
G01 X126.509843 Y113.204654 Z-0.125000
G01 X125.650923 Y113.214654 Z-0.125000
G01 X124.716173 Y113.360254 Z-0.125000
G01 X122.769983 Y114.019784 Z-0.125000
G01 X121.232463 Y114.781594 Z-0.125000
G01 X119.474943 Y115.806384 Z-0.125000
G01 X112.451363 Y120.341684 Z-0.125000
G01 X108.916293 Y122.521424 Z-0.125000
G01 X105.759483 Y124.339594 Z-0.125000
G01 X102.540063 Y126.064624 Z-0.125000
G01 X96.656972 Y128.906694 Z-0.125000
G01 X82.574762 Y134.956394 Z-0.125000
G01 X79.730571 Y136.273124 Z-0.125000
G01 X77.354956 Y137.488404 Z-0.125000
G01 X75.370476 Y138.643314 Z-0.125000
G01 X73.698653 Y139.787344 Z-0.125000
G01 X72.412222 Y140.859914 Z-0.125000
G01 X71.119177 Y142.180794 Z-0.125000
G01 X70.452189 Y142.619654 Z-0.125000
G01 X70.158105 Y142.919694 Z-0.125000
G01 X69.728315 Y143.674524 Z-0.125000
G01 X69.426214 Y144.667554 Z-0.125000
G01 X69.246668 Y145.888924 Z-0.125000
G01 X69.188748 Y147.332174 Z-0.125000
G01 X69.297677 Y149.550834 Z-0.125000
G01 X69.625390 Y152.009824 Z-0.125000
G01 X70.162600 Y154.596334 Z-0.125000
G01 X70.878430 Y157.174594 Z-0.125000
G01 X71.760921 Y159.711684 Z-0.125000
G01 X72.773614 Y162.110164 Z-0.125000
G01 X73.948099 Y164.434974 Z-0.125000
G01 X75.223020 Y166.561854 Z-0.125000
G01 X76.568532 Y168.471664 Z-0.125000
G01 X77.967623 Y170.177254 Z-0.125000
G01 X79.555149 Y171.843094 Z-0.125000
G01 X81.249752 Y173.374314 Z-0.125000
G01 X83.128876 Y174.840644 Z-0.125000
G01 X85.110764 Y176.180784 Z-0.125000
G01 X87.280215 Y177.456074 Z-0.125000
G01 X89.618470 Y178.648864 Z-0.125000
G01 X91.648327 Y179.552104 Z-0.125000
G01 X93.732873 Y180.360084 Z-0.125000
G01 X95.668036 Y181.000614 Z-0.125000
G01 X97.634154 Y181.535574 Z-0.125000
G01 X99.423981 Y181.909834 Z-0.125000
G01 X101.227113 Y182.163144 Z-0.125000
G01 X102.936813 Y182.271724 Z-0.125000
G01 X104.545963 Y182.231724 Z-0.125000
G01 X107.667283 Y181.966934 Z-0.125000
G01 X115.802043 Y181.498564 Z-0.125000
G01 X118.474023 Y181.172124 Z-0.125000
G01 X120.864343 Y180.701744 Z-0.125000
G01 X123.397843 Y179.946064 Z-0.125000
G01 X125.732653 Y178.943034 Z-0.125000
G01 X127.915653 Y177.664114 Z-0.125000
G01 X129.896213 Y176.147234 Z-0.125000
G01 X131.243003 Y174.879084 Z-0.125000
G01 X132.461243 Y173.534794 Z-0.125000
G01 X133.672243 Y171.978964 Z-0.125000
G01 X134.770213 Y170.341884 Z-0.125000
G01 X135.852123 Y168.470354 Z-0.125000
G01 X136.806813 Y166.551384 Z-0.125000
G01 X137.682213 Y164.505434 Z-0.125000
G01 X138.460193 Y162.378684 Z-0.125000
G01 X139.157713 Y160.124624 Z-0.125000
G01 X139.748583 Y157.834764 Z-0.125000
G01 X140.261343 Y155.397424 Z-0.125000
G01 X140.669123 Y152.941454 Z-0.125000
G01 X140.987153 Y150.399894 Z-0.125000
G01 X141.224303 Y147.645414 Z-0.125000
G01 X141.409773 Y141.964634 Z-0.125000
G01 X141.357373 Y140.044624 Z-0.125000
G01 X141.189343 Y138.018444 Z-0.125000
G01 X140.516483 Y133.770214 Z-0.125000
G01 X139.419653 Y129.387214 Z-0.125000
G01 X137.939383 Y125.065034 Z-0.125000
G01 X137.061363 Y122.961254 Z-0.125000
G01 X136.131803 Y120.994174 Z-0.125000
G01 X135.129903 Y119.120394 Z-0.125000
G01 X134.102083 Y117.430054 Z-0.125000
G01 X133.047263 Y115.920814 Z-0.125000
G01 X132.021533 Y114.665664 Z-0.125000
G01 X131.010243 Y113.634294 Z-0.125000
G01 X129.982093 Y112.800244 Z-0.125000
G01 X129.162093 Y112.292874 Z-0.125000
G01 X128.422293 Y111.956834 Z-0.125000
G01 X127.642253 Y111.725404 Z-0.125000
G01 X126.798493 Y111.611044 Z-0.125000
G01 X126.000113 Y111.624744 Z-0.125000
G01 X125.105483 Y111.765794 Z-0.125000
G01 X123.228023 Y112.412304 Z-0.125000
G01 X121.691433 Y113.192534 Z-0.125000
G01 X119.944673 Y114.242534 Z-0.125000
G01 X112.950943 Y118.897314 Z-0.125000
G01 X109.431723 Y121.125584 Z-0.125000
G01 X106.159523 Y123.049004 Z-0.125000
G01 X102.864943 Y124.839124 Z-0.125000
G01 X96.749540 Y127.812164 Z-0.125000
G01 X81.852255 Y134.199844 Z-0.125000
G01 X78.826427 Y135.603134 Z-0.125000
G01 X76.355986 Y136.879674 Z-0.125000
G01 X74.431698 Y138.016324 Z-0.125000
G01 X72.867296 Y139.098684 Z-0.125000
G01 X71.557027 Y140.200484 Z-0.125000
G01 X70.276893 Y141.564014 Z-0.125000
G01 X69.532911 Y141.985154 Z-0.125000
G01 X69.110689 Y142.362974 Z-0.125000
G01 X68.654574 Y143.134634 Z-0.125000
G01 X68.327099 Y144.190614 Z-0.125000
G01 X68.134297 Y145.516044 Z-0.125000
G01 X68.079847 Y146.994004 Z-0.125000
G01 X68.202376 Y149.348634 Z-0.125000
G01 X68.536491 Y151.833264 Z-0.125000
G01 X69.076665 Y154.459934 Z-0.125000
G01 X69.805274 Y157.129764 Z-0.125000
G01 X70.680780 Y159.702024 Z-0.125000
G01 X71.675799 Y162.124044 Z-0.125000
G01 X72.814407 Y164.453934 Z-0.125000
G01 X74.090678 Y166.659844 Z-0.125000
G01 X75.394676 Y168.580454 Z-0.125000
G01 X76.808160 Y170.368964 Z-0.125000
G01 X78.326154 Y172.024174 Z-0.125000
G01 X80.019302 Y173.617224 Z-0.125000
G01 X81.815082 Y175.079734 Z-0.125000
G01 X83.792022 Y176.479854 Z-0.125000
G01 X85.955547 Y177.816934 Z-0.125000
G01 X88.309386 Y179.089284 Z-0.125000
G01 X90.471455 Y180.119074 Z-0.125000
G01 X92.601086 Y181.016884 Z-0.125000
G01 X94.771463 Y181.814914 Z-0.125000
G01 X96.876276 Y182.469684 Z-0.125000
G01 X98.847555 Y182.963714 Z-0.125000
G01 X100.705564 Y183.307644 Z-0.125000
G01 X102.468963 Y183.507064 Z-0.125000
G01 X104.131353 Y183.562364 Z-0.125000
G01 X107.875483 Y183.386054 Z-0.125000
G01 X115.946743 Y183.199144 Z-0.125000
G01 X118.533653 Y182.975364 Z-0.125000
G01 X120.888603 Y182.603834 Z-0.125000
G01 X123.452973 Y181.949444 Z-0.125000
G01 X125.904893 Y181.002844 Z-0.125000
G01 X128.151363 Y179.785784 Z-0.125000
G01 X130.182753 Y178.326154 Z-0.125000
G01 X131.625153 Y177.040044 Z-0.125000
G01 X132.952073 Y175.639654 Z-0.125000
G01 X134.201513 Y174.097824 Z-0.125000
G01 X135.388243 Y172.395574 Z-0.125000
G01 X136.506083 Y170.535874 Z-0.125000
G01 X137.547883 Y168.524694 Z-0.125000
G01 X138.505803 Y166.371594 Z-0.125000
G01 X139.371653 Y164.090194 Z-0.125000
G01 X140.114523 Y161.777894 Z-0.125000
G01 X140.778813 Y159.298724 Z-0.125000
G01 X141.335763 Y156.743964 Z-0.125000
G01 X141.780263 Y154.161044 Z-0.125000
G01 X142.128613 Y151.468354 Z-0.125000
G01 X142.374513 Y148.717034 Z-0.125000
G01 X142.576683 Y142.905254 Z-0.125000
G01 X142.530083 Y140.654704 Z-0.125000
G01 X142.370123 Y138.576954 Z-0.125000
G01 X142.073573 Y136.269764 Z-0.125000
G01 X141.652543 Y133.901854 Z-0.125000
G01 X141.113293 Y131.506844 Z-0.125000
G01 X140.460883 Y129.107624 Z-0.125000
G01 X139.704863 Y126.738624 Z-0.125000
G01 X138.857163 Y124.432304 Z-0.125000
G01 X137.895173 Y122.136674 Z-0.125000
G01 X136.860653 Y119.960314 Z-0.125000
G01 X135.775513 Y117.943134 Z-0.125000
G01 X134.645793 Y116.094434 Z-0.125000
G01 X133.480993 Y114.437164 Z-0.125000
G01 X132.359263 Y113.075414 Z-0.125000
G01 X131.238653 Y111.950114 Z-0.125000
G01 X130.110523 Y111.065634 Z-0.125000
G01 X129.332243 Y110.606214 Z-0.125000
G01 X128.589033 Y110.285834 Z-0.125000
G01 X127.801473 Y110.071094 Z-0.125000
G01 X127.051383 Y109.982394 Z-0.125000
G01 X126.223503 Y110.008294 Z-0.125000
G01 X125.400273 Y110.150274 Z-0.125000
G01 X123.633233 Y110.777414 Z-0.125000
G01 X122.237363 Y111.499494 Z-0.125000
G01 X120.554983 Y112.533164 Z-0.125000
G01 X113.596313 Y117.315424 Z-0.125000
G01 X109.948843 Y119.691964 Z-0.125000
G01 X106.513873 Y121.756694 Z-0.125000
G01 X103.143313 Y123.615444 Z-0.125000
G01 X99.428470 Y125.487744 Z-0.125000
G01 X95.499434 Y127.306494 Z-0.125000
G01 X80.099176 Y133.895384 Z-0.125000
G01 X77.444241 Y135.159964 Z-0.125000
G01 X75.267779 Y136.312374 Z-0.125000
G01 X73.526794 Y137.358564 Z-0.125000
G01 X72.040391 Y138.394864 Z-0.125000
G01 X70.610107 Y139.616764 Z-0.125000
G01 X69.285788 Y141.079054 Z-0.125000
G01 X68.497118 Y141.418544 Z-0.125000
G01 X68.020762 Y141.835474 Z-0.125000
G01 X67.564118 Y142.600464 Z-0.125000
G01 X67.225689 Y143.666104 Z-0.125000
G01 X67.024209 Y144.992144 Z-0.125000
G01 X66.960499 Y146.595414 Z-0.125000
G01 X67.075884 Y148.912444 Z-0.125000
G01 X67.415450 Y151.512424 Z-0.125000
G01 X67.952766 Y154.191864 Z-0.125000
G01 X68.690768 Y156.967844 Z-0.125000
G01 X69.573445 Y159.633154 Z-0.125000
G01 X70.576401 Y162.144524 Z-0.125000
G01 X71.722549 Y164.557284 Z-0.125000
G01 X72.979109 Y166.795134 Z-0.125000
G01 X74.231831 Y168.703514 Z-0.125000
G01 X75.649627 Y170.561764 Z-0.125000
G01 X77.104915 Y172.207344 Z-0.125000
G01 X78.741442 Y173.809554 Z-0.125000
G01 X80.557198 Y175.347334 Z-0.125000
G01 X82.474184 Y176.760054 Z-0.125000
G01 X84.575875 Y178.118504 Z-0.125000
G01 X86.912305 Y179.448064 Z-0.125000
G01 X89.173910 Y180.591164 Z-0.125000
G01 X91.606966 Y181.686484 Z-0.125000
G01 X94.013510 Y182.640734 Z-0.125000
G01 X96.274559 Y183.414614 Z-0.125000
G01 X98.369186 Y184.011644 Z-0.125000
G01 X100.484292 Y184.477044 Z-0.125000
G01 X102.408873 Y184.758114 Z-0.125000
G01 X104.235913 Y184.874054 Z-0.125000
G01 X107.996343 Y184.825354 Z-0.125000
G01 X115.956553 Y184.913254 Z-0.125000
G01 X118.715343 Y184.768574 Z-0.125000
G01 X121.072273 Y184.473884 Z-0.125000
G01 X123.694743 Y183.887774 Z-0.125000
G01 X126.108773 Y183.036984 Z-0.125000
G01 X128.324453 Y181.923774 Z-0.125000
G01 X130.386373 Y180.538604 Z-0.125000
G01 X131.926353 Y179.241724 Z-0.125000
G01 X133.376483 Y177.779604 Z-0.125000
G01 X134.776713 Y176.108944 Z-0.125000
G01 X136.041473 Y174.341874 Z-0.125000
G01 X137.235753 Y172.402954 Z-0.125000
G01 X138.352083 Y170.298034 Z-0.125000
G01 X139.381673 Y168.036824 Z-0.125000
G01 X140.315153 Y165.633484 Z-0.125000
G01 X141.143113 Y163.107134 Z-0.125000
G01 X141.833253 Y160.580424 Z-0.125000
G01 X142.429943 Y157.903394 Z-0.125000
G01 X142.906743 Y155.190834 Z-0.125000
G01 X143.288013 Y152.282534 Z-0.125000
G01 X143.549633 Y149.335314 Z-0.125000
G01 X143.697773 Y146.375494 Z-0.125000
G01 X143.744073 Y143.270214 Z-0.125000
G01 X143.679473 Y140.878834 Z-0.125000
G01 X143.498163 Y138.645224 Z-0.125000
G01 X143.171293 Y136.182844 Z-0.125000
G01 X142.729363 Y133.742274 Z-0.125000
G01 X142.164423 Y131.256884 Z-0.125000
G01 X141.467533 Y128.712494 Z-0.125000
G01 X140.659973 Y126.200644 Z-0.125000
G01 X139.734353 Y123.704194 Z-0.125000
G01 X138.704573 Y121.269424 Z-0.125000
G01 X137.576653 Y118.917174 Z-0.125000
G01 X136.352503 Y116.665064 Z-0.125000
G01 X135.119173 Y114.670084 Z-0.125000
G01 X133.863643 Y112.901974 Z-0.125000
G01 X132.648413 Y111.441664 Z-0.125000
G01 X131.414563 Y110.223414 Z-0.125000
G01 X130.258933 Y109.341504 Z-0.125000
G01 X129.461773 Y108.888164 Z-0.125000
G01 X128.710463 Y108.582094 Z-0.125000
G01 X128.025963 Y108.405224 Z-0.125000
G01 X127.229913 Y108.320224 Z-0.125000
G01 X126.514843 Y108.349024 Z-0.125000
G01 X125.672443 Y108.499994 Z-0.125000
G01 X123.956163 Y109.131844 Z-0.125000
G01 X122.591043 Y109.863914 Z-0.125000
G01 X120.915413 Y110.932414 Z-0.125000
G01 X114.024973 Y115.833954 Z-0.125000
G01 X110.531603 Y118.180694 Z-0.125000
G01 X106.998583 Y120.360414 Z-0.125000
G01 X103.381103 Y122.390884 Z-0.125000
G01 X99.582949 Y124.321704 Z-0.125000
G01 X95.230263 Y126.343044 Z-0.125000
G01 X79.363994 Y133.122614 Z-0.125000
G01 X76.585657 Y134.449264 Z-0.125000
G01 X74.271241 Y135.686854 Z-0.125000
G01 X72.603149 Y136.703704 Z-0.125000
G01 X71.196492 Y137.695174 Z-0.125000
G01 X69.742712 Y138.947844 Z-0.125000
G01 X68.302665 Y140.577544 Z-0.125000
G01 X67.487933 Y140.823554 Z-0.125000
G01 X66.921381 Y141.300064 Z-0.125000
G01 X66.442591 Y142.108974 Z-0.125000
G01 X66.099903 Y143.193774 Z-0.125000
G01 X65.898025 Y144.517794 Z-0.125000
G01 X65.831565 Y146.237884 Z-0.125000
G01 X65.954649 Y148.623074 Z-0.125000
G01 X66.282944 Y151.164474 Z-0.125000
G01 X66.826293 Y153.935374 Z-0.125000
G01 X67.538921 Y156.693814 Z-0.125000
G01 X68.423106 Y159.454454 Z-0.125000
G01 X69.428999 Y162.061234 Z-0.125000
G01 X70.533132 Y164.475534 Z-0.125000
G01 X71.757517 Y166.750334 Z-0.125000
G01 X73.011563 Y168.744054 Z-0.125000
G01 X74.378056 Y170.614154 Z-0.125000
G01 X75.844854 Y172.344824 Z-0.125000
G01 X77.407694 Y173.940684 Z-0.125000
G01 X79.139498 Y175.475634 Z-0.125000
G01 X81.047991 Y176.948144 Z-0.125000
G01 X83.140263 Y178.361894 Z-0.125000
G01 X85.422532 Y179.723094 Z-0.125000
G01 X87.805131 Y180.990904 Z-0.125000
G01 X90.336612 Y182.199994 Z-0.125000
G01 X92.950536 Y183.315794 Z-0.125000
G01 X95.437699 Y184.250174 Z-0.125000
G01 X97.773123 Y185.000344 Z-0.125000
G01 X99.937547 Y185.563904 Z-0.125000
G01 X102.016833 Y185.960064 Z-0.125000
G01 X103.840293 Y186.161074 Z-0.125000
G01 X107.816573 Y186.262434 Z-0.125000
G01 X115.985833 Y186.627984 Z-0.125000
G01 X118.655163 Y186.583584 Z-0.125000
G01 X121.113273 Y186.366464 Z-0.125000
G01 X123.692033 Y185.889054 Z-0.125000
G01 X126.163423 Y185.118004 Z-0.125000
G01 X128.434923 Y184.071574 Z-0.125000
G01 X130.603553 Y182.703974 Z-0.125000
G01 X132.156423 Y181.463684 Z-0.125000
G01 X133.716993 Y179.962014 Z-0.125000
G01 X135.202383 Y178.258494 Z-0.125000
G01 X136.552683 Y176.438924 Z-0.125000
G01 X137.832293 Y174.431794 Z-0.125000
G01 X139.061753 Y172.186964 Z-0.125000
G01 X140.170783 Y169.825404 Z-0.125000
G01 X141.181153 Y167.305904 Z-0.125000
G01 X142.065013 Y164.701344 Z-0.125000
G01 X142.822913 Y162.028794 Z-0.125000
G01 X143.471223 Y159.231904 Z-0.125000
G01 X143.992213 Y156.389304 Z-0.125000
G01 X144.398083 Y153.441234 Z-0.125000
G01 X144.686273 Y150.386464 Z-0.125000
G01 X144.854943 Y147.228504 Z-0.125000
G01 X144.904343 Y143.959844 Z-0.125000
G01 X144.847843 Y141.476044 Z-0.125000
G01 X144.653773 Y138.992844 Z-0.125000
G01 X144.309123 Y136.359634 Z-0.125000
G01 X143.837193 Y133.737084 Z-0.125000
G01 X143.225973 Y131.049124 Z-0.125000
G01 X142.485163 Y128.356114 Z-0.125000
G01 X141.625593 Y125.697854 Z-0.125000
G01 X140.624143 Y123.017334 Z-0.125000
G01 X139.518873 Y120.426904 Z-0.125000
G01 X138.290303 Y117.888094 Z-0.125000
G01 X136.975323 Y115.488634 Z-0.125000
G01 X135.636453 Y113.335694 Z-0.125000
G01 X134.292923 Y111.448664 Z-0.125000
G01 X132.926853 Y109.811844 Z-0.125000
G01 X131.610473 Y108.522214 Z-0.125000
G01 X130.356513 Y107.583734 Z-0.125000
G01 X129.633033 Y107.182074 Z-0.125000
G01 X128.884283 Y106.880764 Z-0.125000
G01 X128.191633 Y106.706324 Z-0.125000
G01 X127.488373 Y106.632524 Z-0.125000
G01 X126.771143 Y106.659524 Z-0.125000
G01 X125.992923 Y106.798324 Z-0.125000
G01 X124.324383 Y107.418534 Z-0.125000
G01 X122.991963 Y108.150744 Z-0.125000
G01 X121.426663 Y109.178064 Z-0.125000
G01 X114.808953 Y114.055524 Z-0.125000
G01 X110.818933 Y116.823204 Z-0.125000
G01 X107.189133 Y119.109974 Z-0.125000
G01 X103.574093 Y121.168984 Z-0.125000
G01 X99.697219 Y123.158494 Z-0.125000
G01 X95.103708 Y125.299794 Z-0.125000
G01 X78.533013 Y132.383954 Z-0.125000
G01 X75.642255 Y133.772944 Z-0.125000
G01 X73.246030 Y135.071644 Z-0.125000
G01 X71.285150 Y136.307804 Z-0.125000
G01 X69.709635 Y137.504124 Z-0.125000
G01 X68.544040 Y138.612774 Z-0.125000
G01 X67.447368 Y139.977944 Z-0.125000
G01 X66.414885 Y140.250864 Z-0.125000
G01 X65.791791 Y140.785584 Z-0.125000
G01 X65.291861 Y141.659744 Z-0.125000
G01 X64.959253 Y142.739114 Z-0.125000
G01 X64.754042 Y144.124394 Z-0.125000
G01 X64.692892 Y145.811324 Z-0.125000
G01 X64.809970 Y148.166754 Z-0.125000
G01 X65.142366 Y150.807454 Z-0.125000
G01 X65.664813 Y153.546334 Z-0.125000
G01 X66.380087 Y156.404714 Z-0.125000
G01 X67.233898 Y159.168384 Z-0.125000
G01 X68.238388 Y161.877224 Z-0.125000
G01 X69.344664 Y164.393984 Z-0.125000
G01 X70.538543 Y166.705074 Z-0.125000
G01 X71.759199 Y168.732304 Z-0.125000
G01 X73.063991 Y170.603174 Z-0.125000
G01 X74.462235 Y172.337684 Z-0.125000
G01 X75.998088 Y173.987354 Z-0.125000
G01 X77.660333 Y175.536174 Z-0.125000
G01 X79.495404 Y177.025304 Z-0.125000
G01 X81.511317 Y178.457734 Z-0.125000
G01 X83.715481 Y179.841794 Z-0.125000
G01 X86.203464 Y181.235834 Z-0.125000
G01 X88.950765 Y182.618864 Z-0.125000
G01 X91.798211 Y183.910454 Z-0.125000
G01 X94.594619 Y185.044564 Z-0.125000
G01 X97.162241 Y185.953934 Z-0.125000
G01 X99.472583 Y186.639334 Z-0.125000
G01 X101.600103 Y187.131914 Z-0.125000
G01 X103.744193 Y187.461314 Z-0.125000
G01 X108.037093 Y187.719444 Z-0.125000
G01 X115.883823 Y188.337934 Z-0.125000
G01 X118.660473 Y188.388934 Z-0.125000
G01 X121.136623 Y188.256094 Z-0.125000
G01 X123.844133 Y187.840904 Z-0.125000
G01 X126.260203 Y187.163494 Z-0.125000
G01 X128.567423 Y186.178714 Z-0.125000
G01 X130.755553 Y184.878504 Z-0.125000
G01 X132.472413 Y183.565634 Z-0.125000
G01 X134.039273 Y182.109234 Z-0.125000
G01 X135.608833 Y180.368364 Z-0.125000
G01 X137.101873 Y178.410364 Z-0.125000
G01 X138.459423 Y176.329654 Z-0.125000
G01 X139.785093 Y173.963534 Z-0.125000
G01 X140.968973 Y171.500534 Z-0.125000
G01 X142.053023 Y168.864174 Z-0.125000
G01 X142.993063 Y166.170604 Z-0.125000
G01 X143.819513 Y163.342824 Z-0.125000
G01 X144.515763 Y160.432324 Z-0.125000
G01 X145.096233 Y157.357624 Z-0.125000
G01 X145.533403 Y154.256574 Z-0.125000
G01 X145.838153 Y151.090494 Z-0.125000
G01 X146.011433 Y147.923884 Z-0.125000
G01 X146.065133 Y144.498934 Z-0.125000
G01 X145.993433 Y141.705464 Z-0.125000
G01 X145.786103 Y139.139344 Z-0.125000
G01 X145.410813 Y136.311634 Z-0.125000
G01 X144.898903 Y133.507474 Z-0.125000
G01 X144.240463 Y130.656144 Z-0.125000
G01 X143.445673 Y127.812904 Z-0.125000
G01 X142.524053 Y125.009934 Z-0.125000
G01 X141.454393 Y122.194154 Z-0.125000
G01 X140.204343 Y119.320994 Z-0.125000
G01 X138.900873 Y116.682674 Z-0.125000
G01 X137.487363 Y114.149474 Z-0.125000
G01 X136.011443 Y111.816194 Z-0.125000
G01 X134.495723 Y109.728844 Z-0.125000
G01 X133.017843 Y108.001144 Z-0.125000
G01 X131.668493 Y106.715294 Z-0.125000
G01 X130.310253 Y105.741944 Z-0.125000
G01 X128.914413 Y105.121654 Z-0.125000
G01 X127.605943 Y104.915414 Z-0.125000
G01 X126.186453 Y105.090994 Z-0.125000
G01 X124.650473 Y105.677224 Z-0.125000
G01 X123.408043 Y106.372944 Z-0.125000
G01 X121.828793 Y107.440194 Z-0.125000
G01 X115.016493 Y112.647724 Z-0.125000
G01 X111.401353 Y115.233974 Z-0.125000
G01 X107.615843 Y117.689444 Z-0.125000
G01 X103.811123 Y119.900274 Z-0.125000
G01 X99.679003 Y122.039854 Z-0.125000
G01 X95.123275 Y124.177314 Z-0.125000
G01 X77.573066 Y131.696664 Z-0.125000
G01 X74.607722 Y133.136424 Z-0.125000
G01 X72.157416 Y134.488924 Z-0.125000
G01 X70.241224 Y135.727094 Z-0.125000
G01 X68.698650 Y136.933254 Z-0.125000
G01 X67.545226 Y138.072784 Z-0.125000
G01 X66.467128 Y139.478334 Z-0.125000
G01 X65.431470 Y139.627184 Z-0.125000
G01 X65.071292 Y139.842584 Z-0.125000
G01 X64.686932 Y140.226144 Z-0.125000
G01 X64.151865 Y141.163624 Z-0.125000
G01 X63.796239 Y142.348824 Z-0.125000
G01 X63.597669 Y143.794344 Z-0.125000
G01 X63.545889 Y145.426344 Z-0.125000
G01 X63.662041 Y147.757114 Z-0.125000
G01 X63.991685 Y150.425574 Z-0.125000
G01 X64.508734 Y153.199964 Z-0.125000
G01 X65.215621 Y156.105384 Z-0.125000
G01 X66.073903 Y158.970474 Z-0.125000
G01 X67.045824 Y161.685544 Z-0.125000
G01 X68.151173 Y164.300824 Z-0.125000
G01 X69.321902 Y166.660854 Z-0.125000
G01 X70.513030 Y168.724974 Z-0.125000
G01 X71.761889 Y170.598514 Z-0.125000
G01 X73.151349 Y172.402814 Z-0.125000
G01 X74.648361 Y174.083474 Z-0.125000
G01 X76.238428 Y175.632634 Z-0.125000
G01 X78.000553 Y177.128324 Z-0.125000
G01 X79.905103 Y178.544824 Z-0.125000
G01 X82.091196 Y179.980054 Z-0.125000
G01 X84.651886 Y181.475004 Z-0.125000
G01 X87.459724 Y182.948784 Z-0.125000
G01 X90.587258 Y184.438734 Z-0.125000
G01 X93.730323 Y185.793804 Z-0.125000
G01 X96.557660 Y186.877424 Z-0.125000
G01 X99.128061 Y187.723244 Z-0.125000
G01 X101.518253 Y188.353594 Z-0.125000
G01 X103.615963 Y188.744304 Z-0.125000
G01 X115.959143 Y190.054204 Z-0.125000
G01 X118.637153 Y190.190564 Z-0.125000
G01 X121.150323 Y190.138464 Z-0.125000
G01 X123.872463 Y189.810434 Z-0.125000
G01 X126.305783 Y189.206524 Z-0.125000
G01 X128.610513 Y188.301144 Z-0.125000
G01 X130.843173 Y187.054644 Z-0.125000
G01 X132.637103 Y185.747784 Z-0.125000
G01 X134.349273 Y184.211744 Z-0.125000
G01 X135.988713 Y182.442634 Z-0.125000
G01 X137.555863 Y180.440884 Z-0.125000
G01 X139.047033 Y178.209194 Z-0.125000
G01 X140.469323 Y175.724784 Z-0.125000
G01 X141.774543 Y173.063454 Z-0.125000
G01 X142.931513 Y170.304194 Z-0.125000
G01 X143.976033 Y167.364614 Z-0.125000
G01 X144.852173 Y164.413934 Z-0.125000
G01 X145.597243 Y161.348494 Z-0.125000
G01 X146.212663 Y158.134864 Z-0.125000
G01 X146.684543 Y154.809974 Z-0.125000
G01 X146.997923 Y151.532084 Z-0.125000
G01 X147.175663 Y148.138454 Z-0.125000
G01 X147.217463 Y144.625634 Z-0.125000
G01 X147.123563 Y141.760574 Z-0.125000
G01 X146.882283 Y138.983104 Z-0.125000
G01 X146.476923 Y136.053564 Z-0.125000
G01 X145.914913 Y133.066254 Z-0.125000
G01 X145.203083 Y130.068184 Z-0.125000
G01 X144.363483 Y127.138214 Z-0.125000
G01 X143.384473 Y124.226234 Z-0.125000
G01 X142.238613 Y121.274144 Z-0.125000
G01 X140.918473 Y118.300894 Z-0.125000
G01 X139.461863 Y115.413384 Z-0.125000
G01 X137.936593 Y112.738264 Z-0.125000
G01 X136.352193 Y110.281394 Z-0.125000
G01 X134.734923 Y108.089644 Z-0.125000
G01 X133.191423 Y106.305684 Z-0.125000
G01 X131.670283 Y104.880194 Z-0.125000
G01 X130.296483 Y103.928194 Z-0.125000
G01 X128.998863 Y103.370324 Z-0.125000
G01 X127.682743 Y103.176114 Z-0.125000
G01 X126.343343 Y103.359284 Z-0.125000
G01 X124.886233 Y103.934864 Z-0.125000
G01 X123.576043 Y104.701544 Z-0.125000
G01 X122.096813 Y105.747844 Z-0.125000
G01 X115.526283 Y110.970534 Z-0.125000
G01 X111.780253 Y113.745534 Z-0.125000
G01 X107.997283 Y116.266964 Z-0.125000
G01 X104.007323 Y118.632074 Z-0.125000
G01 X99.979321 Y120.747524 Z-0.125000
G01 X94.823968 Y123.183804 Z-0.125000
G01 X76.752529 Y130.938424 Z-0.125000
G01 X73.746413 Y132.404744 Z-0.125000
G01 X71.235464 Y133.802324 Z-0.125000
G01 X69.335042 Y135.045314 Z-0.125000
G01 X67.743546 Y136.308964 Z-0.125000
G01 X66.538607 Y137.541844 Z-0.125000
G01 X65.491466 Y138.964084 Z-0.125000
G01 X64.832336 Y138.927684 Z-0.125000
G01 X64.443319 Y139.007684 Z-0.125000
G01 X64.018134 Y139.237184 Z-0.125000
G01 X63.563765 Y139.679724 Z-0.125000
G01 X63.055606 Y140.544754 Z-0.125000
G01 X62.663097 Y141.786384 Z-0.125000
G01 X62.456960 Y143.175504 Z-0.125000
G01 X62.391260 Y145.016764 Z-0.125000
G01 X62.511936 Y147.398044 Z-0.125000
G01 X62.849148 Y150.131504 Z-0.125000
G01 X63.365350 Y152.932884 Z-0.125000
G01 X64.071602 Y155.891754 Z-0.125000
G01 X64.909352 Y158.764354 Z-0.125000
G01 X65.887861 Y161.585164 Z-0.125000
G01 X66.958894 Y164.209694 Z-0.125000
G01 X68.106948 Y166.617134 Z-0.125000
G01 X69.271776 Y168.721794 Z-0.125000
G01 X70.534129 Y170.694344 Z-0.125000
G01 X71.881044 Y172.513884 Z-0.125000
G01 X73.331463 Y174.209384 Z-0.125000
G01 X74.853161 Y175.754234 Z-0.125000
G01 X76.533768 Y177.241904 Z-0.125000
G01 X78.381591 Y178.673804 Z-0.125000
G01 X80.491220 Y180.114034 Z-0.125000
G01 X83.043365 Y181.659154 Z-0.125000
G01 X85.977647 Y183.252044 Z-0.125000
G01 X89.380135 Y184.933184 Z-0.125000
G01 X92.812734 Y186.485524 Z-0.125000
G01 X95.863432 Y187.738004 Z-0.125000
G01 X98.573586 Y188.719054 Z-0.125000
G01 X101.109563 Y189.484544 Z-0.125000
G01 X103.378483 Y190.002204 Z-0.125000
G01 X115.690813 Y191.734724 Z-0.125000
G01 X118.626103 Y191.986234 Z-0.125000
G01 X121.126283 Y192.015034 Z-0.125000
G01 X123.886333 Y191.767354 Z-0.125000
G01 X126.403053 Y191.213134 Z-0.125000
G01 X128.689523 Y190.374274 Z-0.125000
G01 X130.957613 Y189.169754 Z-0.125000
G01 X132.834463 Y187.851524 Z-0.125000
G01 X134.630213 Y186.283384 Z-0.125000
G01 X136.352283 Y184.465384 Z-0.125000
G01 X138.051963 Y182.332184 Z-0.125000
G01 X139.652113 Y179.971674 Z-0.125000
G01 X141.173923 Y177.351084 Z-0.125000
G01 X142.573163 Y174.540894 Z-0.125000
G01 X143.799673 Y171.665534 Z-0.125000
G01 X144.908013 Y168.608644 Z-0.125000
G01 X145.851773 Y165.498884 Z-0.125000
G01 X146.643623 Y162.314674 Z-0.125000
G01 X147.290343 Y159.026094 Z-0.125000
G01 X147.780513 Y155.694614 Z-0.125000
G01 X148.130313 Y152.175374 Z-0.125000
G01 X148.321083 Y148.625004 Z-0.125000
G01 X148.361383 Y145.046304 Z-0.125000
G01 X148.262083 Y142.028014 Z-0.125000
G01 X147.995303 Y139.011714 Z-0.125000
G01 X147.552683 Y135.869624 Z-0.125000
G01 X146.965013 Y132.793714 Z-0.125000
G01 X146.204843 Y129.637314 Z-0.125000
G01 X145.317273 Y126.587274 Z-0.125000
G01 X144.258833 Y123.493424 Z-0.125000
G01 X143.062063 Y120.464894 Z-0.125000
G01 X141.673503 Y117.387584 Z-0.125000
G01 X140.098923 Y114.315374 Z-0.125000
G01 X138.417603 Y111.415884 Z-0.125000
G01 X136.681273 Y108.768674 Z-0.125000
G01 X134.948933 Y106.455524 Z-0.125000
G01 X133.274493 Y104.545634 Z-0.125000
G01 X131.695383 Y103.085584 Z-0.125000
G01 X130.231203 Y102.095354 Z-0.125000
G01 X128.928953 Y101.569814 Z-0.125000
G01 X127.718483 Y101.418104 Z-0.125000
G01 X126.471553 Y101.604204 Z-0.125000
G01 X125.140863 Y102.141104 Z-0.125000
G01 X123.886413 Y102.892094 Z-0.125000
G01 X122.505793 Y103.897614 Z-0.125000
G01 X116.008023 Y109.267754 Z-0.125000
G01 X112.033983 Y112.309324 Z-0.125000
G01 X108.145183 Y114.963864 Z-0.125000
G01 X104.155683 Y117.369514 Z-0.125000
G01 X99.877879 Y119.636834 Z-0.125000
G01 X94.482179 Y122.195274 Z-0.125000
G01 X89.671128 Y124.306094 Z-0.125000
G01 X79.586719 Y128.545694 Z-0.125000
G01 X75.867656 Y130.203284 Z-0.125000
G01 X72.678528 Y131.775544 Z-0.125000
G01 X70.134480 Y133.220404 Z-0.125000
G01 X68.261336 Y134.479714 Z-0.125000
G01 X66.680106 Y135.781284 Z-0.125000
G01 X65.493450 Y137.062554 Z-0.125000
G01 X64.622230 Y138.382774 Z-0.125000
G01 X64.516767 Y138.435774 Z-0.125000
G01 X63.815912 Y138.334894 Z-0.125000
G01 X63.384403 Y138.417194 Z-0.125000
G01 X62.818565 Y138.742664 Z-0.125000
G01 X62.401476 Y139.178404 Z-0.125000
G01 X61.897419 Y140.052484 Z-0.125000
G01 X61.513984 Y141.260064 Z-0.125000
G01 X61.295465 Y142.703184 Z-0.125000
G01 X61.229875 Y144.584264 Z-0.125000
G01 X61.351795 Y146.996264 Z-0.125000
G01 X61.683000 Y149.718614 Z-0.125000
G01 X62.197694 Y152.569444 Z-0.125000
G01 X62.896353 Y155.570664 Z-0.125000
G01 X63.740797 Y158.549844 Z-0.125000
G01 X64.691180 Y161.382074 Z-0.125000
G01 X65.739645 Y164.053924 Z-0.125000
G01 X66.893493 Y166.574444 Z-0.125000
G01 X68.034799 Y168.723154 Z-0.125000
G01 X69.210581 Y170.646354 Z-0.125000
G01 X70.497673 Y172.475744 Z-0.125000
G01 X71.896710 Y174.198914 Z-0.125000
G01 X73.345728 Y175.749504 Z-0.125000
G01 X74.986038 Y177.277394 Z-0.125000
G01 X76.753402 Y178.714034 Z-0.125000
G01 X78.778232 Y180.159454 Z-0.125000
G01 X81.328921 Y181.763854 Z-0.125000
G01 X84.366602 Y183.464654 Z-0.125000
G01 X87.977292 Y185.303214 Z-0.125000
G01 X91.888071 Y187.141724 Z-0.125000
G01 X95.343080 Y188.636014 Z-0.125000
G01 X98.383830 Y189.815184 Z-0.125000
G01 X101.064483 Y190.699104 Z-0.125000
G01 X103.454393 Y191.314764 Z-0.125000
G01 X115.860233 Y193.459844 Z-0.125000
G01 X118.584273 Y193.773984 Z-0.125000
G01 X121.065743 Y193.879924 Z-0.125000
G01 X123.757383 Y193.727044 Z-0.125000
G01 X126.238163 Y193.268314 Z-0.125000
G01 X128.623253 Y192.476624 Z-0.125000
G01 X130.924363 Y191.329684 Z-0.125000
G01 X132.871563 Y190.024834 Z-0.125000
G01 X134.804313 Y188.392544 Z-0.125000
G01 X136.658223 Y186.479344 Z-0.125000
G01 X138.393603 Y184.347484 Z-0.125000
G01 X140.092833 Y181.900274 Z-0.125000
G01 X141.707403 Y179.190814 Z-0.125000
G01 X143.209313 Y176.259944 Z-0.125000
G01 X144.562013 Y173.181944 Z-0.125000
G01 X145.743433 Y170.025594 Z-0.125000
G01 X146.746923 Y166.841044 Z-0.125000
G01 X147.622163 Y163.463424 Z-0.125000
G01 X148.318653 Y160.075034 Z-0.125000
G01 X148.847873 Y156.664214 Z-0.125000
G01 X149.231353 Y153.059474 Z-0.125000
G01 X149.447153 Y149.421774 Z-0.125000
G01 X149.503353 Y145.598514 Z-0.125000
G01 X149.404253 Y142.425344 Z-0.125000
G01 X149.136963 Y139.313054 Z-0.125000
G01 X148.686913 Y136.045394 Z-0.125000
G01 X148.048813 Y132.679074 Z-0.125000
G01 X147.273773 Y129.460444 Z-0.125000
G01 X146.306823 Y126.154634 Z-0.125000
G01 X145.184143 Y122.909654 Z-0.125000
G01 X143.927743 Y119.770604 Z-0.125000
G01 X142.428533 Y116.495224 Z-0.125000
G01 X140.781553 Y113.327584 Z-0.125000
G01 X138.995483 Y110.284234 Z-0.125000
G01 X137.099823 Y107.423534 Z-0.125000
G01 X135.181093 Y104.884064 Z-0.125000
G01 X133.330813 Y102.793274 Z-0.125000
G01 X131.667453 Y101.272924 Z-0.125000
G01 X130.114963 Y100.248324 Z-0.125000
G01 X128.929993 Y99.786604 Z-0.125000
G01 X127.711773 Y99.645264 Z-0.125000
G01 X126.575733 Y99.826714 Z-0.125000
G01 X125.308173 Y100.350724 Z-0.125000
G01 X124.238303 Y101.000594 Z-0.125000
G01 X122.839663 Y102.044134 Z-0.125000
G01 X116.224123 Y107.733044 Z-0.125000
G01 X112.565043 Y110.635234 Z-0.125000
G01 X108.510403 Y113.492734 Z-0.125000
G01 X104.259493 Y116.109494 Z-0.125000
G01 X99.641778 Y118.573894 Z-0.125000
G01 X94.377205 Y121.086884 Z-0.125000
G01 X89.060059 Y123.430294 Z-0.125000
G01 X78.706913 Y127.793864 Z-0.125000
G01 X75.073258 Y129.419804 Z-0.125000
G01 X71.790334 Y131.047604 Z-0.125000
G01 X69.201492 Y132.532704 Z-0.125000
G01 X67.248444 Y133.868294 Z-0.125000
G01 X65.676898 Y135.199624 Z-0.125000
G01 X64.570940 Y136.426554 Z-0.125000
G01 X63.648206 Y137.877364 Z-0.125000
G01 X62.846121 Y137.743494 Z-0.125000
G01 X62.346562 Y137.822494 Z-0.125000
G01 X61.756805 Y138.141874 Z-0.125000
G01 X61.299976 Y138.599314 Z-0.125000
G01 X60.717205 Y139.606024 Z-0.125000
G01 X60.333559 Y140.852504 Z-0.125000
G01 X60.119458 Y142.362324 Z-0.125000
G01 X60.062198 Y144.110184 Z-0.125000
G01 X60.178985 Y146.506544 Z-0.125000
G01 X60.495162 Y149.188784 Z-0.125000
G01 X60.999485 Y152.070754 Z-0.125000
G01 X61.691317 Y155.137674 Z-0.125000
G01 X62.509276 Y158.129604 Z-0.125000
G01 X63.459633 Y161.078494 Z-0.125000
G01 X64.496218 Y163.834744 Z-0.125000
G01 X65.638001 Y166.442574 Z-0.125000
G01 X66.752637 Y168.640574 Z-0.125000
G01 X67.952470 Y170.693054 Z-0.125000
G01 X69.235831 Y172.593404 Z-0.125000
G01 X70.548350 Y174.279534 Z-0.125000
G01 X71.986466 Y175.885324 Z-0.125000
G01 X73.592884 Y177.441124 Z-0.125000
G01 X75.360433 Y178.927604 Z-0.125000
G01 X77.214739 Y180.295154 Z-0.125000
G01 X79.759871 Y181.943454 Z-0.125000
G01 X82.808506 Y183.689474 Z-0.125000
G01 X86.534263 Y185.626664 Z-0.125000
G01 X90.859804 Y187.719814 Z-0.125000
G01 X94.801169 Y189.502894 Z-0.125000
G01 X98.163124 Y190.887594 Z-0.125000
G01 X101.132783 Y191.945134 Z-0.125000
G01 X103.589453 Y192.639664 Z-0.125000
G01 X115.698133 Y195.133284 Z-0.125000
G01 X118.559923 Y195.555424 Z-0.125000
G01 X120.992713 Y195.732194 Z-0.125000
G01 X123.689183 Y195.656694 Z-0.125000
G01 X126.192803 Y195.262044 Z-0.125000
G01 X128.600513 Y194.522924 Z-0.125000
G01 X130.892543 Y193.438134 Z-0.125000
G01 X132.949443 Y192.108364 Z-0.125000
G01 X134.968373 Y190.442544 Z-0.125000
G01 X136.888693 Y188.498414 Z-0.125000
G01 X138.771673 Y186.222234 Z-0.125000
G01 X140.594493 Y183.632594 Z-0.125000
G01 X142.299713 Y180.814894 Z-0.125000
G01 X143.900333 Y177.749214 Z-0.125000
G01 X145.376733 Y174.455234 Z-0.125000
G01 X146.642533 Y171.140614 Z-0.125000
G01 X147.734593 Y167.742174 Z-0.125000
G01 X148.643623 Y164.306104 Z-0.125000
G01 X149.404783 Y160.676554 Z-0.125000
G01 X149.965643 Y157.107194 Z-0.125000
G01 X150.364263 Y153.379874 Z-0.125000
G01 X150.583413 Y149.651604 Z-0.125000
G01 X150.635413 Y145.712334 Z-0.125000
G01 X150.509473 Y142.313994 Z-0.125000
G01 X150.205683 Y139.000774 Z-0.125000
G01 X149.719983 Y135.619134 Z-0.125000
G01 X149.043313 Y132.158254 Z-0.125000
G01 X148.205953 Y128.778944 Z-0.125000
G01 X147.188083 Y125.393734 Z-0.125000
G01 X146.029783 Y122.125444 Z-0.125000
G01 X144.689563 Y118.851694 Z-0.125000
G01 X143.073513 Y115.404574 Z-0.125000
G01 X141.309273 Y112.092464 Z-0.125000
G01 X139.394803 Y108.904344 Z-0.125000
G01 X137.366663 Y105.906324 Z-0.125000
G01 X135.324053 Y103.246994 Z-0.125000
G01 X133.334103 Y101.025924 Z-0.125000
G01 X131.504533 Y99.383074 Z-0.125000
G01 X129.948963 Y98.392054 Z-0.125000
G01 X128.674813 Y97.943664 Z-0.125000
G01 X127.459923 Y97.875264 Z-0.125000
G01 X126.196623 Y98.186174 Z-0.125000
G01 X124.841953 Y98.895284 Z-0.125000
G01 X122.871733 Y100.387534 Z-0.125000
G01 X116.313613 Y106.268744 Z-0.125000
G01 X112.149283 Y109.642784 Z-0.125000
G01 X109.675163 Y111.441694 Z-0.125000
G01 X107.243363 Y113.068614 Z-0.125000
G01 X104.758233 Y114.598404 Z-0.125000
G01 X102.120963 Y116.087374 Z-0.125000
G01 X97.736701 Y118.324724 Z-0.125000
G01 X92.757216 Y120.654854 Z-0.125000
G01 X78.423547 Y126.778714 Z-0.125000
G01 X74.517768 Y128.519964 Z-0.125000
G01 X71.001296 Y130.262294 Z-0.125000
G01 X68.159328 Y131.910994 Z-0.125000
G01 X66.199506 Y133.284504 Z-0.125000
G01 X64.694979 Y134.595434 Z-0.125000
G01 X63.585528 Y135.869404 Z-0.125000
G01 X62.675203 Y137.359664 Z-0.125000
G01 X61.872140 Y137.160114 Z-0.125000
G01 X61.297703 Y137.235314 Z-0.125000
G01 X60.717683 Y137.530714 Z-0.125000
G01 X60.147506 Y138.085524 Z-0.125000
G01 X59.589712 Y139.036724 Z-0.125000
G01 X59.179660 Y140.319774 Z-0.125000
G01 X58.953733 Y141.847184 Z-0.125000
G01 X58.890313 Y143.678894 Z-0.125000
G01 X59.001888 Y146.017624 Z-0.125000
G01 X59.318621 Y148.757064 Z-0.125000
G01 X59.822916 Y151.689154 Z-0.125000
G01 X60.508981 Y154.797824 Z-0.125000
G01 X61.336730 Y157.904374 Z-0.125000
G01 X62.261951 Y160.864904 Z-0.125000
G01 X63.311024 Y163.753254 Z-0.125000
G01 X64.428201 Y166.401764 Z-0.125000
G01 X65.523788 Y168.650874 Z-0.125000
G01 X66.647341 Y170.660734 Z-0.125000
G01 X67.895618 Y172.601264 Z-0.125000
G01 X69.219038 Y174.381834 Z-0.125000
G01 X70.613895 Y176.007854 Z-0.125000
G01 X72.150674 Y177.560824 Z-0.125000
G01 X73.764897 Y178.979924 Z-0.125000
G01 X75.536018 Y180.344854 Z-0.125000
G01 X77.991959 Y181.995904 Z-0.125000
G01 X80.858667 Y183.688314 Z-0.125000
G01 X84.209932 Y185.480334 Z-0.125000
G01 X88.674670 Y187.710194 Z-0.125000
G01 X93.409918 Y189.957114 Z-0.125000
G01 X97.451825 Y191.744764 Z-0.125000
G01 X100.504217 Y192.945134 Z-0.125000
G01 X103.320113 Y193.861254 Z-0.125000
G01 X115.545313 Y196.796111 Z-0.125000
G01 X118.305973 Y197.296118 Z-0.125000
G01 X120.813463 Y197.562578 Z-0.125000
G01 X123.480563 Y197.574878 Z-0.125000
G01 X126.007473 Y197.256138 Z-0.125000
G01 X128.436743 Y196.583331 Z-0.125000
G01 X130.692263 Y195.586914 Z-0.125000
G01 X132.870443 Y194.245214 Z-0.125000
G01 X134.937873 Y192.597224 Z-0.125000
G01 X136.958383 Y190.609964 Z-0.125000
G01 X138.942503 Y188.272324 Z-0.125000
G01 X140.893743 Y185.568674 Z-0.125000
G01 X142.791893 Y182.505114 Z-0.125000
G01 X144.513673 Y179.283314 Z-0.125000
G01 X146.093813 Y175.849764 Z-0.125000
G01 X147.456733 Y172.383644 Z-0.125000
G01 X148.631753 Y168.840604 Z-0.125000
G01 X149.638363 Y165.149614 Z-0.125000
G01 X150.433323 Y161.475264 Z-0.125000
G01 X151.050203 Y157.673844 Z-0.125000
G01 X151.473063 Y153.829494 Z-0.125000
G01 X151.708673 Y149.903324 Z-0.125000
G01 X151.758073 Y146.007194 Z-0.125000
G01 X151.627893 Y142.497524 Z-0.125000
G01 X151.302963 Y138.967374 Z-0.125000
G01 X150.778793 Y135.362454 Z-0.125000
G01 X150.094763 Y131.903664 Z-0.125000
G01 X149.207483 Y128.360464 Z-0.125000
G01 X148.166563 Y124.939034 Z-0.125000
G01 X146.929583 Y121.494694 Z-0.125000
G01 X145.534273 Y118.138344 Z-0.125000
G01 X143.843373 Y114.586414 Z-0.125000
G01 X141.969333 Y111.122834 Z-0.125000
G01 X139.852113 Y107.657804 Z-0.125000
G01 X137.664723 Y104.479094 Z-0.125000
G01 X135.419363 Y101.600244 Z-0.125000
G01 X133.284913 Y99.248234 Z-0.125000
G01 X131.371153 Y97.548814 Z-0.125000
G01 X130.550573 Y96.978614 Z-0.125000
G01 X129.734763 Y96.531064 Z-0.125000
G01 X128.477433 Y96.122364 Z-0.125000
G01 X127.371053 Y96.086964 Z-0.125000
G01 X126.201543 Y96.393774 Z-0.125000
G01 X124.961963 Y97.061794 Z-0.125000
G01 X123.029823 Y98.584214 Z-0.125000
G01 X116.882733 Y104.346704 Z-0.125000
G01 X114.676873 Y106.273454 Z-0.125000
G01 X112.489803 Y108.050874 Z-0.125000
G01 X110.151623 Y109.809234 Z-0.125000
G01 X107.745173 Y111.475984 Z-0.125000
G01 X105.199193 Y113.091424 Z-0.125000
G01 X102.768393 Y114.500854 Z-0.125000
G01 X98.363288 Y116.810964 Z-0.125000
G01 X92.845615 Y119.439464 Z-0.125000
G01 X87.689679 Y121.715644 Z-0.125000
G01 X77.519572 Y126.024964 Z-0.125000
G01 X73.511056 Y127.826464 Z-0.125000
G01 X70.015883 Y129.578274 Z-0.125000
G01 X67.206035 Y131.230724 Z-0.125000
G01 X65.287806 Y132.594094 Z-0.125000
G01 X63.705148 Y133.998454 Z-0.125000
G01 X62.531456 Y135.415744 Z-0.125000
G01 X61.792872 Y136.792374 Z-0.125000
G01 X61.699342 Y136.830774 Z-0.125000
G01 X60.928294 Y136.591774 Z-0.125000
G01 X60.315333 Y136.638374 Z-0.125000
G01 X59.646282 Y136.948594 Z-0.125000
G01 X58.988422 Y137.582484 Z-0.125000
G01 X58.429198 Y138.541624 Z-0.125000
G01 X58.007691 Y139.856604 Z-0.125000
G01 X57.778323 Y141.383224 Z-0.125000
G01 X57.715983 Y143.306514 Z-0.125000
G01 X57.835522 Y145.697544 Z-0.125000
G01 X58.149768 Y148.399734 Z-0.125000
G01 X58.654910 Y151.363574 Z-0.125000
G01 X59.346981 Y154.547064 Z-0.125000
G01 X60.173989 Y157.716454 Z-0.125000
G01 X61.127891 Y160.843674 Z-0.125000
G01 X62.147040 Y163.729854 Z-0.125000
G01 X63.259904 Y166.456094 Z-0.125000
G01 X64.342843 Y168.756784 Z-0.125000
G01 X65.451474 Y170.810924 Z-0.125000
G01 X66.623261 Y172.704334 Z-0.125000
G01 X67.915856 Y174.517474 Z-0.125000
G01 X69.274624 Y176.167684 Z-0.125000
G01 X70.745601 Y177.715444 Z-0.125000
G01 X72.310797 Y179.145754 Z-0.125000
G01 X74.086415 Y180.559184 Z-0.125000
G01 X76.376675 Y182.141284 Z-0.125000
G01 X79.058148 Y183.763044 Z-0.125000
G01 X82.165944 Y185.456834 Z-0.125000
G01 X86.429783 Y187.625094 Z-0.125000
G01 X92.886252 Y190.771644 Z-0.125000
G01 X97.304026 Y192.810734 Z-0.125000
G01 X100.715325 Y194.231684 Z-0.125000
G01 X103.650783 Y195.252364 Z-0.125000
G01 X115.485733 Y198.465952 Z-0.125000
G01 X118.328813 Y199.062849 Z-0.125000
G01 X120.705593 Y199.379136 Z-0.125000
G01 X123.340313 Y199.461736 Z-0.125000
G01 X125.882273 Y199.204936 Z-0.125000
G01 X128.325643 Y198.582642 Z-0.125000
G01 X130.595873 Y197.626175 Z-0.125000
G01 X132.842923 Y196.282814 Z-0.125000
G01 X134.992533 Y194.601144 Z-0.125000
G01 X137.106423 Y192.549784 Z-0.125000
G01 X139.251113 Y190.047934 Z-0.125000
G01 X141.359603 Y187.149504 Z-0.125000
G01 X143.347283 Y183.974504 Z-0.125000
G01 X145.223573 Y180.510394 Z-0.125000
G01 X146.887673 Y176.950264 Z-0.125000
G01 X148.322933 Y173.370214 Z-0.125000
G01 X149.574253 Y169.677874 Z-0.125000
G01 X150.622763 Y165.926374 Z-0.125000
G01 X151.458723 Y162.174904 Z-0.125000
G01 X152.101493 Y158.359714 Z-0.125000
G01 X152.559143 Y154.390914 Z-0.125000
G01 X152.815213 Y150.369824 Z-0.125000
G01 X152.874613 Y146.352734 Z-0.125000
G01 X152.752903 Y142.853464 Z-0.125000
G01 X152.417473 Y139.100004 Z-0.125000
G01 X151.897823 Y135.463894 Z-0.125000
G01 X151.158923 Y131.706564 Z-0.125000
G01 X150.251273 Y128.095694 Z-0.125000
G01 X149.120893 Y124.416744 Z-0.125000
G01 X147.806943 Y120.817724 Z-0.125000
G01 X146.340733 Y117.355624 Z-0.125000
G01 X144.523603 Y113.614814 Z-0.125000
G01 X142.528643 Y110.007194 Z-0.125000
G01 X140.340673 Y106.496354 Z-0.125000
G01 X137.947143 Y103.078014 Z-0.125000
G01 X135.534993 Y100.028214 Z-0.125000
G01 X133.232903 Y97.513594 Z-0.125000
G01 X131.272233 Y95.775144 Z-0.125000
G01 X130.360163 Y95.141814 Z-0.125000
G01 X129.515323 Y94.688344 Z-0.125000
G01 X128.337873 Y94.317474 Z-0.125000
G01 X127.241523 Y94.294574 Z-0.125000
G01 X126.166593 Y94.593374 Z-0.125000
G01 X124.976363 Y95.260094 Z-0.125000
G01 X123.956373 Y96.046784 Z-0.125000
G01 X122.918123 Y96.979624 Z-0.125000
