%
(Header)
(Generated by gcodetools from Inkscape.)
(Using default header. To add your own header create file "header" in the output dir.)
M3
(Header end.)
G21 (All units in mm)

(Start cutting path id: polyline36070)
(Change tool to Default tool)

G00 Z3.000000
G00 X129.661253 Y112.798634

G00 Z4.875000 (Fast pre-penetrate)
G01 Z-0.125000 F400.0(Penetrate)
G01 X131.378193 Y116.296644 Z-0.125000 F800.000000
G01 X132.983553 Y120.235814 Z-0.125000
G01 X134.232843 Y124.041034 Z-0.125000
G01 X135.104403 Y127.606344 Z-0.125000
G01 X135.608093 Y130.834804 Z-0.125000
G01 X135.802183 Y134.060754 Z-0.125000
G01 X135.649593 Y137.225844 Z-0.125000
G01 X135.176523 Y140.092254 Z-0.125000
G01 X134.323263 Y143.005204 Z-0.125000
G01 X133.132163 Y145.743534 Z-0.125000
G01 X131.537313 Y148.443554 Z-0.125000
G01 X129.655543 Y150.912284 Z-0.125000
G01 X127.413483 Y153.255504 Z-0.125000
G01 X124.842163 Y155.414324 Z-0.125000
G01 X122.099693 Y157.273954 Z-0.125000
G01 X119.222873 Y158.771004 Z-0.125000
G01 X115.361013 Y160.183654 Z-0.125000
G01 X110.618953 Y161.295214 Z-0.125000
G01 X104.907743 Y162.110174 Z-0.125000
G01 X98.060111 Y162.645914 Z-0.125000
G01 X91.873364 Y162.781644 Z-0.125000
G01 X86.521764 Y162.522434 Z-0.125000
G01 X82.236497 Y161.855964 Z-0.125000
G01 X78.861333 Y160.757114 Z-0.125000
G01 X76.660362 Y159.479414 Z-0.125000
G01 X75.002334 Y157.883004 Z-0.125000
G01 X73.785350 Y155.897944 Z-0.125000
G01 X72.958362 Y153.451964 Z-0.125000
G01 X72.477135 Y150.259874 Z-0.125000
G01 X72.382905 Y146.226904 Z-0.125000
G01 X72.688286 Y142.106224 Z-0.125000
G01 X73.400948 Y137.937474 Z-0.125000
G01 X75.114125 Y132.441884 Z-0.125000
G01 X76.287972 Y129.938684 Z-0.125000
G01 X77.571408 Y127.779204 Z-0.125000
G01 X79.049561 Y125.777504 Z-0.125000
G01 X80.871842 Y123.793974 Z-0.125000
G01 X82.716403 Y122.166904 Z-0.125000
G01 X84.891892 Y120.598084 Z-0.125000
G01 X88.805089 Y118.429374 Z-0.125000
G01 X93.150414 Y116.679114 Z-0.125000
G01 X96.969202 Y115.542604 Z-0.125000
G01 X105.914293 Y113.412394 Z-0.125000
G01 X110.426063 Y111.916454 Z-0.125000
G01 X115.380763 Y109.487314 Z-0.125000
G01 X121.578673 Y105.266324 Z-0.125000
G01 X122.837723 Y104.892544 Z-0.125000
G01 X124.102433 Y105.150114 Z-0.125000
G01 X125.058733 Y105.756904 Z-0.125000
G01 X126.179083 Y106.821644 Z-0.125000
G01 X128.622553 Y110.096374 Z-0.125000
G01 X130.966493 Y114.311284 Z-0.125000
G01 X133.221873 Y119.499474 Z-0.125000
G01 X134.779323 Y124.141024 Z-0.125000
G01 X135.811383 Y128.601664 Z-0.125000
G01 X136.284843 Y132.719774 Z-0.125000
G01 X136.218943 Y136.776694 Z-0.125000
G01 X135.659963 Y140.285564 Z-0.125000
G01 X134.631713 Y143.599734 Z-0.125000
G01 X133.079053 Y146.850344 Z-0.125000
G01 X131.115963 Y149.825934 Z-0.125000
G01 X128.567783 Y152.770384 Z-0.125000
G01 X125.730493 Y155.323334 Z-0.125000
G01 X122.538973 Y157.584534 Z-0.125000
G01 X119.308583 Y159.286674 Z-0.125000
G01 X115.377343 Y160.697684 Z-0.125000
G01 X110.536643 Y161.783944 Z-0.125000
G01 X104.686113 Y162.560144 Z-0.125000
G01 X97.647847 Y163.058024 Z-0.125000
G01 X90.988172 Y163.169844 Z-0.125000
G01 X85.493171 Y162.879304 Z-0.125000
G01 X81.112637 Y162.177644 Z-0.125000
G01 X77.864398 Y161.114514 Z-0.125000
G01 X75.749630 Y159.917744 Z-0.125000
G01 X74.018363 Y158.310234 Z-0.125000
G01 X72.749501 Y156.299604 Z-0.125000
G01 X71.890752 Y153.821454 Z-0.125000
G01 X71.388920 Y150.593694 Z-0.125000
G01 X71.275644 Y146.499354 Z-0.125000
G01 X71.592646 Y142.071414 Z-0.125000
G01 X72.275133 Y138.015254 Z-0.125000
G01 X73.053491 Y135.049304 Z-0.125000
G01 X74.010478 Y132.362904 Z-0.125000
G01 X75.210348 Y129.787734 Z-0.125000
G01 X76.527913 Y127.568524 Z-0.125000
G01 X78.050425 Y125.515064 Z-0.125000
G01 X79.767483 Y123.646004 Z-0.125000
G01 X81.662125 Y121.968934 Z-0.125000
G01 X83.904447 Y120.355924 Z-0.125000
G01 X87.952575 Y118.133884 Z-0.125000
G01 X92.675791 Y116.274054 Z-0.125000
G01 X96.855299 Y115.082514 Z-0.125000
G01 X105.882053 Y113.062324 Z-0.125000
G01 X110.734563 Y111.517744 Z-0.125000
G01 X115.792993 Y109.065024 Z-0.125000
G01 X122.023123 Y104.723894 Z-0.125000
G01 X123.165373 Y104.379794 Z-0.125000
G01 X124.320693 Y104.609514 Z-0.125000
G01 X125.339443 Y105.268454 Z-0.125000
G01 X126.460313 Y106.363224 Z-0.125000
G01 X129.044203 Y109.884804 Z-0.125000
G01 X131.438533 Y114.223084 Z-0.125000
G01 X133.745253 Y119.530794 Z-0.125000
G01 X135.332753 Y124.271614 Z-0.125000
G01 X136.369913 Y128.822474 Z-0.125000
G01 X136.822893 Y133.015564 Z-0.125000
G01 X136.731293 Y136.932644 Z-0.125000
G01 X136.139743 Y140.495194 Z-0.125000
G01 X135.064793 Y143.855354 Z-0.125000
G01 X133.452763 Y147.150034 Z-0.125000
G01 X131.426493 Y150.170104 Z-0.125000
G01 X128.811133 Y153.167984 Z-0.125000
G01 X125.770383 Y155.889324 Z-0.125000
G01 X122.511303 Y158.177594 Z-0.125000
G01 X119.207413 Y159.882174 Z-0.125000
G01 X115.177983 Y161.268334 Z-0.125000
G01 X110.204823 Y162.305744 Z-0.125000
G01 X103.904773 Y163.046044 Z-0.125000
G01 X96.636392 Y163.472414 Z-0.125000
G01 X89.791258 Y163.525814 Z-0.125000
G01 X84.447658 Y163.208544 Z-0.125000
G01 X79.974873 Y162.470484 Z-0.125000
G01 X76.679565 Y161.363504 Z-0.125000
G01 X74.551369 Y160.121914 Z-0.125000
G01 X72.826938 Y158.460004 Z-0.125000
G01 X71.581073 Y156.393584 Z-0.125000
G01 X70.750106 Y153.862324 Z-0.125000
G01 X70.270881 Y150.557304 Z-0.125000
G01 X70.176891 Y146.346584 Z-0.125000
G01 X70.494625 Y142.010094 Z-0.125000
G01 X71.196106 Y137.842664 Z-0.125000
G01 X72.900249 Y132.265754 Z-0.125000
G01 X74.125241 Y129.617264 Z-0.125000
G01 X75.476252 Y127.337194 Z-0.125000
G01 X77.042707 Y125.231364 Z-0.125000
G01 X78.814207 Y123.319564 Z-0.125000
G01 X80.773444 Y121.609604 Z-0.125000
G01 X83.096498 Y119.971084 Z-0.125000
G01 X87.297474 Y117.724804 Z-0.125000
G01 X92.427337 Y115.782444 Z-0.125000
G01 X96.760730 Y114.610474 Z-0.125000
G01 X106.299093 Y112.594434 Z-0.125000
G01 X111.264073 Y111.043154 Z-0.125000
G01 X113.999763 Y109.856154 Z-0.125000
G01 X116.526033 Y108.468894 Z-0.125000
G01 X122.480883 Y104.196754 Z-0.125000
G01 X123.575653 Y103.881344 Z-0.125000
G01 X124.626123 Y104.123024 Z-0.125000
G01 X125.627883 Y104.801114 Z-0.125000
G01 X126.838353 Y106.031874 Z-0.125000
G01 X129.475213 Y109.706914 Z-0.125000
G01 X131.919923 Y114.167354 Z-0.125000
G01 X134.277543 Y119.593444 Z-0.125000
G01 X135.893273 Y124.433114 Z-0.125000
G01 X136.896713 Y128.859954 Z-0.125000
G01 X137.352483 Y133.127264 Z-0.125000
G01 X137.242623 Y137.107984 Z-0.125000
G01 X136.615803 Y140.721724 Z-0.125000
G01 X135.491263 Y144.124794 Z-0.125000
G01 X133.817023 Y147.460014 Z-0.125000
G01 X131.725453 Y150.521834 Z-0.125000
G01 X128.905933 Y153.707274 Z-0.125000
G01 X125.791403 Y156.464734 Z-0.125000
G01 X122.465523 Y158.777914 Z-0.125000
G01 X119.088563 Y160.480644 Z-0.125000
G01 X114.961053 Y161.835264 Z-0.125000
G01 X110.105103 Y162.780194 Z-0.125000
G01 X103.661673 Y163.465584 Z-0.125000
G01 X95.895529 Y163.850374 Z-0.125000
G01 X88.860882 Y163.860374 Z-0.125000
G01 X83.385892 Y163.510294 Z-0.125000
G01 X78.824362 Y162.734604 Z-0.125000
G01 X75.485895 Y161.582534 Z-0.125000
G01 X73.347690 Y160.295214 Z-0.125000
G01 X71.633732 Y158.578324 Z-0.125000
G01 X70.477584 Y156.603924 Z-0.125000
G01 X69.645446 Y154.030904 Z-0.125000
G01 X69.153452 Y150.489224 Z-0.125000
G01 X69.071912 Y146.369514 Z-0.125000
G01 X69.394748 Y141.922584 Z-0.125000
G01 X70.115223 Y137.641904 Z-0.125000
G01 X70.871852 Y134.752364 Z-0.125000
G01 X71.878006 Y131.918224 Z-0.125000
G01 X73.149577 Y129.207734 Z-0.125000
G01 X74.554029 Y126.881244 Z-0.125000
G01 X76.184006 Y124.740114 Z-0.125000
G01 X78.028719 Y122.804414 Z-0.125000
G01 X80.069517 Y121.081224 Z-0.125000
G01 X82.281086 Y119.566014 Z-0.125000
G01 X86.637349 Y117.298224 Z-0.125000
G01 X91.960090 Y115.348004 Z-0.125000
G01 X96.448167 Y114.178544 Z-0.125000
G01 X106.528603 Y112.176884 Z-0.125000
G01 X111.632203 Y110.640624 Z-0.125000
G01 X114.431123 Y109.450684 Z-0.125000
G01 X116.999183 Y108.051934 Z-0.125000
G01 X122.951523 Y103.686784 Z-0.125000
G01 X123.930163 Y103.405544 Z-0.125000
G01 X124.871643 Y103.622824 Z-0.125000
G01 X125.844283 Y104.286384 Z-0.125000
G01 X127.040293 Y105.514744 Z-0.125000
G01 X129.813433 Y109.398494 Z-0.125000
G01 X132.410773 Y114.145394 Z-0.125000
G01 X134.742303 Y119.489774 Z-0.125000
G01 X136.341153 Y124.204714 Z-0.125000
G01 X137.389813 Y128.704404 Z-0.125000
G01 X137.874573 Y133.045754 Z-0.125000
G01 X137.774483 Y137.095444 Z-0.125000
G01 X137.138893 Y140.768754 Z-0.125000
G01 X135.989143 Y144.224504 Z-0.125000
G01 X134.376323 Y147.439544 Z-0.125000
G01 X132.135023 Y150.725884 Z-0.125000
G01 X129.258713 Y153.981664 Z-0.125000
G01 X125.942683 Y156.933554 Z-0.125000
G01 X122.562863 Y159.290524 Z-0.125000
G01 X119.136243 Y161.007894 Z-0.125000
G01 X114.944183 Y162.346464 Z-0.125000
G01 X109.999313 Y163.248884 Z-0.125000
G01 X103.414803 Y163.872074 Z-0.125000
G01 X95.451263 Y164.198324 Z-0.125000
G01 X88.220916 Y164.176324 Z-0.125000
G01 X82.308815 Y163.782124 Z-0.125000
G01 X77.898623 Y163.026764 Z-0.125000
G01 X74.472514 Y161.858364 Z-0.125000
G01 X72.285482 Y160.549074 Z-0.125000
G01 X70.645789 Y158.934494 Z-0.125000
G01 X69.441011 Y156.936404 Z-0.125000
G01 X68.577672 Y154.332154 Z-0.125000
G01 X68.063781 Y150.756834 Z-0.125000
G01 X67.966861 Y146.365394 Z-0.125000
G01 X68.294164 Y141.806314 Z-0.125000
G01 X68.979435 Y137.657864 Z-0.125000
G01 X69.739678 Y134.689904 Z-0.125000
G01 X70.758698 Y131.776274 Z-0.125000
G01 X71.935376 Y129.215754 Z-0.125000
G01 X73.350910 Y126.810704 Z-0.125000
G01 X75.003518 Y124.597654 Z-0.125000
G01 X76.883289 Y122.599474 Z-0.125000
G01 X78.971961 Y120.824584 Z-0.125000
G01 X81.243999 Y119.268824 Z-0.125000
G01 X85.972366 Y116.851314 Z-0.125000
G01 X91.492242 Y114.896494 Z-0.125000
G01 X96.384595 Y113.679824 Z-0.125000
G01 X106.783353 Y111.751474 Z-0.125000
G01 X112.230513 Y110.160114 Z-0.125000
G01 X115.068713 Y108.959354 Z-0.125000
G01 X117.648663 Y107.546494 Z-0.125000
G01 X123.371813 Y103.226954 Z-0.125000
G01 X124.238593 Y102.949984 Z-0.125000
G01 X125.134353 Y103.142854 Z-0.125000
G01 X126.150823 Y103.861094 Z-0.125000
G01 X127.340133 Y105.125124 Z-0.125000
G01 X130.262213 Y109.284624 Z-0.125000
G01 X132.911873 Y114.156054 Z-0.125000
G01 X135.291833 Y119.612824 Z-0.125000
G01 X136.914993 Y124.421614 Z-0.125000
G01 X137.961503 Y129.005554 Z-0.125000
G01 X138.408323 Y133.198774 Z-0.125000
G01 X138.286003 Y137.309244 Z-0.125000
G01 X137.662233 Y140.828194 Z-0.125000
G01 X136.485793 Y144.334204 Z-0.125000
G01 X134.729013 Y147.768394 Z-0.125000
G01 X132.414083 Y151.091754 Z-0.125000
G01 X129.462863 Y154.397454 Z-0.125000
G01 X126.080663 Y157.407464 Z-0.125000
G01 X122.647703 Y159.807844 Z-0.125000
G01 X119.173013 Y161.538044 Z-0.125000
G01 X115.138163 Y162.804634 Z-0.125000
G01 X110.145553 Y163.678644 Z-0.125000
G01 X103.463193 Y164.247554 Z-0.125000
G01 X95.005460 Y164.524474 Z-0.125000
G01 X87.263464 Y164.456874 Z-0.125000
G01 X81.503285 Y164.058014 Z-0.125000
G01 X76.972200 Y163.292204 Z-0.125000
G01 X73.458742 Y162.107834 Z-0.125000
G01 X71.223275 Y160.776844 Z-0.125000
G01 X69.555556 Y159.132194 Z-0.125000
G01 X68.339474 Y157.096544 Z-0.125000
G01 X67.475819 Y154.451294 Z-0.125000
G01 X66.962220 Y150.818674 Z-0.125000
G01 X66.862370 Y146.335584 Z-0.125000
G01 X67.193531 Y141.662314 Z-0.125000
G01 X67.896110 Y137.403334 Z-0.125000
G01 X68.679936 Y134.357084 Z-0.125000
G01 X69.733964 Y131.370514 Z-0.125000
G01 X70.953585 Y128.751684 Z-0.125000
G01 X72.422681 Y126.299044 Z-0.125000
G01 X73.973414 Y124.245964 Z-0.125000
G01 X75.906624 Y122.203874 Z-0.125000
G01 X78.059990 Y120.396834 Z-0.125000
G01 X80.407095 Y118.819804 Z-0.125000
G01 X85.302107 Y116.384784 Z-0.125000
G01 X91.023272 Y114.428944 Z-0.125000
G01 X96.340580 Y113.168674 Z-0.125000
G01 X107.063153 Y111.319374 Z-0.125000
G01 X112.659563 Y109.751404 Z-0.125000
G01 X115.740503 Y108.467234 Z-0.125000
G01 X118.328783 Y107.043304 Z-0.125000
G01 X120.396143 Y105.597324 Z-0.125000
G01 X123.872053 Y102.750224 Z-0.125000
G01 X124.628363 Y102.510974 Z-0.125000
G01 X125.415423 Y102.685034 Z-0.125000
G01 X126.390203 Y103.388054 Z-0.125000
G01 X127.647093 Y104.760454 Z-0.125000
G01 X130.721683 Y109.207464 Z-0.125000
G01 X133.423343 Y114.201444 Z-0.125000
G01 X135.851063 Y119.769834 Z-0.125000
G01 X137.496143 Y124.672214 Z-0.125000
G01 X138.499933 Y129.115274 Z-0.125000
G01 X138.944013 Y133.376414 Z-0.125000
G01 X138.820483 Y137.330774 Z-0.125000
G01 X138.186183 Y140.903074 Z-0.125000
G01 X136.981603 Y144.456884 Z-0.125000
G01 X135.180513 Y147.935184 Z-0.125000
G01 X132.810413 Y151.306414 Z-0.125000
G01 X129.653763 Y154.820954 Z-0.125000
G01 X126.051203 Y158.010474 Z-0.125000
G01 X122.554153 Y160.430554 Z-0.125000
G01 X119.009323 Y162.146894 Z-0.125000
G01 X114.884553 Y163.366464 Z-0.125000
G01 X109.769423 Y164.166384 Z-0.125000
G01 X102.910923 Y164.642564 Z-0.125000
G01 X93.561674 Y164.833954 Z-0.125000
G01 X85.966622 Y164.695294 Z-0.125000
G01 X80.113266 Y164.238354 Z-0.125000
G01 X75.551270 Y163.407044 Z-0.125000
G01 X72.248788 Y162.238254 Z-0.125000
G01 X70.010978 Y160.859844 Z-0.125000
G01 X68.359932 Y159.162864 Z-0.125000
G01 X67.173244 Y157.075704 Z-0.125000
G01 X66.341105 Y154.380564 Z-0.125000
G01 X65.849405 Y150.663724 Z-0.125000
G01 X65.765415 Y146.052584 Z-0.125000
G01 X66.093819 Y141.489714 Z-0.125000
G01 X66.813560 Y137.118284 Z-0.125000
G01 X67.621433 Y133.992654 Z-0.125000
G01 X68.608911 Y131.182874 Z-0.125000
G01 X69.848769 Y128.491764 Z-0.125000
G01 X71.348748 Y125.973934 Z-0.125000
G01 X72.937395 Y123.870304 Z-0.125000
G01 X74.923410 Y121.783744 Z-0.125000
G01 X77.141129 Y119.944554 Z-0.125000
G01 X79.563435 Y118.346994 Z-0.125000
G01 X84.626698 Y115.897454 Z-0.125000
G01 X90.814537 Y113.873624 Z-0.125000
G01 X96.316449 Y112.644384 Z-0.125000
G01 X107.368233 Y110.879694 Z-0.125000
G01 X113.116923 Y109.339124 Z-0.125000
G01 X116.266583 Y108.059854 Z-0.125000
G01 X118.893673 Y106.633384 Z-0.125000
G01 X120.967553 Y105.180844 Z-0.125000
G01 X124.384953 Y102.292574 Z-0.125000
G01 X125.035213 Y102.091174 Z-0.125000
G01 X125.716593 Y102.248384 Z-0.125000
G01 X126.717773 Y103.007284 Z-0.125000
G01 X127.961703 Y104.420134 Z-0.125000
G01 X131.192483 Y109.166134 Z-0.125000
G01 X133.945753 Y114.280754 Z-0.125000
G01 X136.420273 Y119.959984 Z-0.125000
G01 X138.022443 Y124.733054 Z-0.125000
G01 X139.042813 Y129.249874 Z-0.125000
G01 X139.481973 Y133.578214 Z-0.125000
G01 X139.333053 Y137.587424 Z-0.125000
G01 X138.656883 Y141.199954 Z-0.125000
G01 X137.392763 Y144.784854 Z-0.125000
G01 X135.518613 Y148.288784 Z-0.125000
G01 X133.069773 Y151.689454 Z-0.125000
G01 X129.683183 Y155.396874 Z-0.125000
G01 X126.002843 Y158.623584 Z-0.125000
G01 X122.442633 Y161.060404 Z-0.125000
G01 X119.021433 Y162.685104 Z-0.125000
G01 X114.841493 Y163.876384 Z-0.125000
G01 X109.645233 Y164.616024 Z-0.125000
G01 X102.653853 Y165.007384 Z-0.125000
G01 X93.089065 Y165.111134 Z-0.125000
G01 X85.300251 Y164.931704 Z-0.125000
G01 X79.293006 Y164.457974 Z-0.125000
G01 X74.613610 Y163.615364 Z-0.125000
G01 X71.232445 Y162.431254 Z-0.125000
G01 X69.102564 Y161.151094 Z-0.125000
G01 X67.380721 Y159.446954 Z-0.125000
G01 X66.144305 Y157.336654 Z-0.125000
G01 X65.281479 Y154.610854 Z-0.125000
G01 X64.767562 Y150.864424 Z-0.125000
G01 X64.659169 Y146.194964 Z-0.125000
G01 X64.966820 Y141.544814 Z-0.125000
G01 X65.675992 Y137.069274 Z-0.125000
G01 X66.485011 Y133.861214 Z-0.125000
G01 X67.481937 Y130.974514 Z-0.125000
G01 X68.740838 Y128.209624 Z-0.125000
G01 X70.270576 Y125.625154 Z-0.125000
G01 X72.070906 Y123.265254 Z-0.125000
G01 X73.934394 Y121.337874 Z-0.125000
G01 X75.999166 Y119.625924 Z-0.125000
G01 X78.478371 Y117.985974 Z-0.125000
G01 X83.686526 Y115.488514 Z-0.125000
G01 X90.351889 Y113.370994 Z-0.125000
G01 X96.312354 Y112.106054 Z-0.125000
G01 X107.698743 Y110.431494 Z-0.125000
G01 X113.818543 Y108.849244 Z-0.125000
G01 X116.448633 Y107.820464 Z-0.125000
G01 X118.877053 Y106.589974 Z-0.125000
G01 X121.568363 Y104.769974 Z-0.125000
G01 X124.756823 Y101.947204 Z-0.125000
G01 X125.409613 Y101.693434 Z-0.125000
G01 X126.039503 Y101.833324 Z-0.125000
G01 X126.984513 Y102.577074 Z-0.125000
G01 X128.284623 Y104.104964 Z-0.125000
G01 X131.675273 Y109.161584 Z-0.125000
G01 X134.479563 Y114.394624 Z-0.125000
G01 X136.917103 Y119.969534 Z-0.125000
G01 X138.554893 Y124.820104 Z-0.125000
G01 X139.590323 Y129.410374 Z-0.125000
G01 X140.015073 Y133.575504 Z-0.125000
G01 X139.871283 Y137.646704 Z-0.125000
G01 X139.181943 Y141.309814 Z-0.125000
G01 X137.885943 Y144.937334 Z-0.125000
G01 X135.962653 Y148.477774 Z-0.125000
G01 X133.453423 Y151.917644 Z-0.125000
G01 X129.995863 Y155.688764 Z-0.125000
G01 X126.095713 Y159.122804 Z-0.125000
G01 X122.485233 Y161.599284 Z-0.125000
G01 X119.022503 Y163.227784 Z-0.125000
G01 X114.789693 Y164.386444 Z-0.125000
G01 X109.514923 Y165.059944 Z-0.125000
G01 X102.393733 Y165.358684 Z-0.125000
G01 X91.917540 Y165.356684 Z-0.125000
G01 X83.622369 Y165.088174 Z-0.125000
G01 X77.868780 Y164.572784 Z-0.125000
G01 X73.423066 Y163.729474 Z-0.125000
G01 X70.016731 Y162.499694 Z-0.125000
G01 X67.889437 Y161.174904 Z-0.125000
G01 X66.188516 Y159.417804 Z-0.125000
G01 X64.985154 Y157.256144 Z-0.125000
G01 X64.155408 Y154.482074 Z-0.125000
G01 X63.661974 Y150.649574 Z-0.125000
G01 X63.567494 Y145.846124 Z-0.125000
G01 X63.900535 Y141.055634 Z-0.125000
G01 X64.596328 Y136.727854 Z-0.125000
G01 X65.429053 Y133.437724 Z-0.125000
G01 X66.458253 Y130.481124 Z-0.125000
G01 X67.760388 Y127.655404 Z-0.125000
G01 X69.188789 Y125.252294 Z-0.125000
G01 X71.029352 Y122.834654 Z-0.125000
G01 X72.939810 Y120.865954 Z-0.125000
G01 X75.061732 Y119.123864 Z-0.125000
G01 X77.614737 Y117.463404 Z-0.125000
G01 X82.991808 Y114.955664 Z-0.125000
G01 X89.887144 Y112.849554 Z-0.125000
G01 X96.048860 Y111.597684 Z-0.125000
G01 X108.312793 Y109.927644 Z-0.125000
G01 X114.337613 Y108.428444 Z-0.125000
G01 X117.218033 Y107.324834 Z-0.125000
G01 X119.653423 Y106.092154 Z-0.125000
G01 X122.308373 Y104.276004 Z-0.125000
G01 X125.261413 Y101.553104 Z-0.125000
G01 X125.810723 Y101.315334 Z-0.125000
G01 X126.385253 Y101.439344 Z-0.125000
G01 X127.336143 Y102.241264 Z-0.125000
G01 X128.707803 Y103.938694 Z-0.125000
G01 X132.284053 Y109.386604 Z-0.125000
G01 X135.122813 Y114.746364 Z-0.125000
G01 X137.589623 Y120.442064 Z-0.125000
G01 X139.158243 Y125.163334 Z-0.125000
G01 X140.142383 Y129.596844 Z-0.125000
G01 X140.559063 Y133.824674 Z-0.125000
G01 X140.385733 Y137.948574 Z-0.125000
G01 X139.650023 Y141.648184 Z-0.125000
G01 X138.379233 Y145.105054 Z-0.125000
G01 X136.404753 Y148.678304 Z-0.125000
G01 X133.832493 Y152.152554 Z-0.125000
G01 X130.146923 Y156.133684 Z-0.125000
G01 X126.012863 Y159.755654 Z-0.125000
G01 X122.341033 Y162.243704 Z-0.125000
G01 X118.814353 Y163.845014 Z-0.125000
G01 X114.494803 Y164.937514 Z-0.125000
G01 X109.099963 Y165.514584 Z-0.125000
G01 X101.476683 Y165.698174 Z-0.125000
G01 X89.996411 Y165.550724 Z-0.125000
G01 X82.248414 Y165.225884 Z-0.125000
G01 X76.427073 Y164.651524 Z-0.125000
G01 X72.226538 Y163.812354 Z-0.125000
G01 X68.799524 Y162.535924 Z-0.125000
G01 X66.678360 Y161.165654 Z-0.125000
G01 X65.001607 Y159.355264 Z-0.125000
G01 X63.833326 Y157.143674 Z-0.125000
G01 X63.070227 Y154.493334 Z-0.125000
G01 X62.575133 Y150.603104 Z-0.125000
G01 X62.473576 Y145.701634 Z-0.125000
G01 X62.808180 Y140.794294 Z-0.125000
G01 X63.519718 Y136.355164 Z-0.125000
G01 X64.376538 Y132.981814 Z-0.125000
G01 X65.438696 Y129.954484 Z-0.125000
G01 X66.784678 Y127.067654 Z-0.125000
G01 X68.262807 Y124.619994 Z-0.125000
G01 X70.168870 Y122.167404 Z-0.125000
G01 X72.148441 Y120.180094 Z-0.125000
G01 X74.347752 Y118.431374 Z-0.125000
G01 X76.994503 Y116.775494 Z-0.125000
G01 X79.576584 Y115.493914 Z-0.125000
G01 X82.568782 Y114.299344 Z-0.125000
G01 X89.709608 Y112.241794 Z-0.125000
G01 X96.075128 Y111.029674 Z-0.125000
G01 X108.699933 Y109.463994 Z-0.125000
G01 X114.884333 Y108.003124 Z-0.125000
G01 X118.021543 Y106.827594 Z-0.125000
G01 X120.615703 Y105.504934 Z-0.125000
G01 X123.177693 Y103.701644 Z-0.125000
G01 X125.830333 Y101.144414 Z-0.125000
G01 X126.280603 Y100.951304 Z-0.125000
G01 X126.709023 Y101.042404 Z-0.125000
G01 X127.569483 Y101.782584 Z-0.125000
G01 X128.955823 Y103.550534 Z-0.125000
G01 X132.793133 Y109.460764 Z-0.125000
G01 X135.681373 Y114.933284 Z-0.125000
G01 X138.189443 Y120.734474 Z-0.125000
G01 X139.768733 Y125.541134 Z-0.125000
G01 X140.736273 Y130.049104 Z-0.125000
G01 X141.110643 Y134.336384 Z-0.125000
G01 X140.900203 Y138.275554 Z-0.125000
G01 X140.115213 Y142.009444 Z-0.125000
G01 X138.780483 Y145.486794 Z-0.125000
G01 X136.845343 Y148.891854 Z-0.125000
G01 X134.065143 Y152.564114 Z-0.125000
G01 X130.126563 Y156.739114 Z-0.125000
G01 X125.911503 Y160.399444 Z-0.125000
G01 X122.356083 Y162.796544 Z-0.125000
G01 X118.790643 Y164.395464 Z-0.125000
G01 X114.658593 Y165.407354 Z-0.125000
G01 X109.235203 Y165.930434 Z-0.125000
G01 X101.531393 Y166.017834 Z-0.125000
G01 X88.742268 Y165.721294 Z-0.125000
G01 X80.849773 Y165.328254 Z-0.125000
G01 X75.275442 Y164.739924 Z-0.125000
G01 X71.025251 Y163.863544 Z-0.125000
G01 X67.784314 Y162.643074 Z-0.125000
G01 X65.624601 Y161.252904 Z-0.125000
G01 X63.926145 Y159.412604 Z-0.125000
G01 X62.752298 Y157.164254 Z-0.125000
G01 X61.991347 Y154.477994 Z-0.125000
G01 X61.479945 Y150.323414 Z-0.125000
G01 X61.384495 Y145.529224 Z-0.125000
G01 X61.719978 Y140.503024 Z-0.125000
G01 X62.447361 Y135.950664 Z-0.125000
G01 X63.328716 Y132.492784 Z-0.125000
G01 X64.424269 Y129.394064 Z-0.125000
G01 X65.814903 Y126.445864 Z-0.125000
G01 X67.343543 Y123.953964 Z-0.125000
G01 X69.124294 Y121.681474 Z-0.125000
G01 X71.149980 Y119.651974 Z-0.125000
G01 X73.405808 Y117.873614 Z-0.125000
G01 X76.126432 Y116.198914 Z-0.125000
G01 X78.785512 Y114.911394 Z-0.125000
G01 X81.871751 Y113.719264 Z-0.125000
G01 X89.249190 Y111.683054 Z-0.125000
G01 X96.120930 Y110.447394 Z-0.125000
G01 X109.111833 Y108.991044 Z-0.125000
G01 X115.458973 Y107.572184 Z-0.125000
G01 X118.664823 Y106.412184 Z-0.125000
G01 X121.452443 Y105.009934 Z-0.125000
G01 X123.963333 Y103.222414 Z-0.125000
G01 X126.374333 Y100.784694 Z-0.125000
G01 X126.733983 Y100.610624 Z-0.125000
G01 X127.109893 Y100.691424 Z-0.125000
G01 X127.950573 Y101.489854 Z-0.125000
G01 X129.396283 Y103.442544 Z-0.125000
G01 X133.432743 Y109.775204 Z-0.125000
G01 X136.353283 Y115.366524 Z-0.125000
G01 X138.713623 Y120.834864 Z-0.125000
G01 X140.256543 Y125.477844 Z-0.125000
G01 X141.260453 Y130.050334 Z-0.125000
G01 X141.654643 Y134.402324 Z-0.125000
G01 X141.445673 Y138.398864 Z-0.125000
G01 X140.643373 Y142.179644 Z-0.125000
G01 X139.273293 Y145.690634 Z-0.125000
G01 X137.285393 Y149.119484 Z-0.125000
G01 X134.579213 Y152.647394 Z-0.125000
G01 X130.409443 Y157.047354 Z-0.125000
G01 X125.959483 Y160.924784 Z-0.125000
G01 X122.358893 Y163.356164 Z-0.125000
G01 X118.755993 Y164.950574 Z-0.125000
G01 X114.340133 Y165.953434 Z-0.125000
G01 X108.799373 Y166.365594 Z-0.125000
G01 X101.255673 Y166.324794 Z-0.125000
G01 X86.710490 Y165.824204 Z-0.125000
G01 X79.079395 Y165.366104 Z-0.125000
G01 X73.806887 Y164.748474 Z-0.125000
G01 X69.820892 Y163.882864 Z-0.125000
G01 X66.568261 Y162.617454 Z-0.125000
G01 X64.420437 Y161.180844 Z-0.125000
G01 X62.857034 Y159.442854 Z-0.125000
G01 X61.678353 Y157.157964 Z-0.125000
G01 X60.885861 Y154.259964 Z-0.125000
G01 X60.391548 Y150.007814 Z-0.125000
G01 X60.306828 Y145.073274 Z-0.125000
G01 X60.636890 Y140.181564 Z-0.125000
G01 X61.380215 Y135.514104 Z-0.125000
G01 X62.198414 Y132.263874 Z-0.125000
G01 X63.300951 Y129.082384 Z-0.125000
G01 X64.708429 Y126.054714 Z-0.125000
G01 X66.261994 Y123.497554 Z-0.125000
G01 X68.077510 Y121.169704 Z-0.125000
G01 X70.148213 Y119.096884 Z-0.125000
G01 X72.459580 Y117.288154 Z-0.125000
G01 X75.253345 Y115.594874 Z-0.125000
G01 X77.989033 Y114.302114 Z-0.125000
G01 X81.169428 Y113.114184 Z-0.125000
G01 X89.095326 Y111.039474 Z-0.125000
G01 X96.491799 Y109.812674 Z-0.125000
G01 X109.548153 Y108.508224 Z-0.125000
G01 X116.061073 Y107.135114 Z-0.125000
G01 X119.534863 Y105.910634 Z-0.125000
G01 X122.318943 Y104.516214 Z-0.125000
G01 X124.772533 Y102.750454 Z-0.125000
G01 X126.972623 Y100.414774 Z-0.125000
G01 X127.503833 Y100.340774 Z-0.125000
G01 X128.288193 Y101.146834 Z-0.125000
G01 X129.941363 Y103.510664 Z-0.125000
G01 X134.206073 Y110.343584 Z-0.125000
G01 X137.142533 Y116.058524 Z-0.125000
G01 X139.420453 Y121.422554 Z-0.125000
G01 X140.947483 Y126.158494 Z-0.125000
G01 X141.864113 Y130.563704 Z-0.125000
G01 X142.206853 Y134.731134 Z-0.125000
G01 X141.963203 Y138.774574 Z-0.125000
G01 X141.174233 Y142.369794 Z-0.125000
G01 X139.767653 Y145.912614 Z-0.125000
G01 X137.725053 Y149.361994 Z-0.125000
G01 X134.947953 Y152.908894 Z-0.125000
G01 X130.521363 Y157.516024 Z-0.125000
G01 X125.994473 Y161.457274 Z-0.125000
G01 X122.349313 Y163.922434 Z-0.125000
G01 X118.710373 Y165.510184 Z-0.125000
G01 X114.491633 Y166.430894 Z-0.125000
G01 X108.930483 Y166.779874 Z-0.125000
G01 X101.663043 Y166.644624 Z-0.125000
G01 X84.621802 Y165.877324 Z-0.125000
G01 X77.633801 Y165.393934 Z-0.125000
G01 X72.637549 Y164.772424 Z-0.125000
G01 X68.614545 Y163.870444 Z-0.125000
G01 X65.560342 Y162.667664 Z-0.125000
G01 X63.376679 Y161.211354 Z-0.125000
G01 X61.795064 Y159.446114 Z-0.125000
G01 X60.677026 Y157.294994 Z-0.125000
G01 X59.856190 Y154.367714 Z-0.125000
G01 X59.337513 Y150.089964 Z-0.125000
G01 X59.223505 Y145.099984 Z-0.125000
G01 X59.527861 Y140.121194 Z-0.125000
G01 X60.255951 Y135.348514 Z-0.125000
G01 X61.159742 Y131.715254 Z-0.125000
G01 X62.295846 Y128.459994 Z-0.125000
G01 X63.748293 Y125.369364 Z-0.125000
G01 X65.352759 Y122.767314 Z-0.125000
G01 X67.228721 Y120.408074 Z-0.125000
G01 X69.369197 Y118.318104 Z-0.125000
G01 X71.759051 Y116.505964 Z-0.125000
G01 X74.375237 Y114.962804 Z-0.125000
G01 X77.187069 Y113.665594 Z-0.125000
G01 X80.461476 Y112.483344 Z-0.125000
G01 X88.638166 Y110.441134 Z-0.125000
G01 X96.270156 Y109.239064 Z-0.125000
G01 X110.008133 Y108.015294 Z-0.125000
G01 X116.689983 Y106.691204 Z-0.125000
G01 X120.239083 Y105.488944 Z-0.125000
G01 X123.214083 Y104.023974 Z-0.125000
G01 X125.319363 Y102.536104 Z-0.125000
G01 X127.529703 Y100.113884 Z-0.125000
G01 X127.938713 Y100.013554 Z-0.125000
G01 X131.016553 Y104.426064 Z-0.125000
G01 X134.877703 Y110.752304 Z-0.125000
G01 X137.742873 Y116.359904 Z-0.125000
G01 X139.963643 Y121.583314 Z-0.125000
G01 X141.449073 Y126.144824 Z-0.125000
G01 X142.398633 Y130.611654 Z-0.125000
G01 X142.758833 Y134.840794 Z-0.125000
G01 X142.515183 Y138.941774 Z-0.125000
G01 X141.708213 Y142.580324 Z-0.125000
G01 X140.264143 Y146.153764 Z-0.125000
G01 X138.294823 Y149.435204 Z-0.125000
G01 X135.466653 Y153.008404 Z-0.125000
G01 X130.620523 Y157.992614 Z-0.125000
G01 X125.844553 Y162.130874 Z-0.125000
G01 X122.144703 Y164.595964 Z-0.125000
G01 X118.653803 Y166.074364 Z-0.125000
G01 X114.394693 Y166.943784 Z-0.125000
G01 X108.768693 Y167.197044 Z-0.125000
G01 X82.866119 Y165.905064 Z-0.125000
G01 X76.170148 Y165.386004 Z-0.125000
G01 X71.463361 Y164.765594 Z-0.125000
G01 X67.672279 Y163.906574 Z-0.125000
G01 X64.559241 Y162.690564 Z-0.125000
G01 X62.340302 Y161.215074 Z-0.125000
G01 X60.741133 Y159.422824 Z-0.125000
G01 X59.619409 Y157.238044 Z-0.125000
G01 X58.801478 Y154.273264 Z-0.125000
G01 X58.277943 Y149.933594 Z-0.125000
G01 X58.158076 Y144.576424 Z-0.125000
G01 X58.488139 Y139.448254 Z-0.125000
G01 X59.199555 Y134.855524 Z-0.125000
G01 X60.037334 Y131.441974 Z-0.125000
G01 X61.178736 Y128.100754 Z-0.125000
G01 X62.646342 Y124.927204 Z-0.125000
G01 X64.274220 Y122.256944 Z-0.125000
G01 X66.183433 Y119.839964 Z-0.125000
G01 X68.367437 Y117.705174 Z-0.125000
G01 X70.811610 Y115.862334 Z-0.125000
G01 X73.492856 Y114.302624 Z-0.125000
G01 X76.678620 Y112.884374 Z-0.125000
G01 X80.062297 Y111.731064 Z-0.125000
G01 X88.506870 Y109.761144 Z-0.125000
G01 X96.696818 Y108.579744 Z-0.125000
G01 X110.491583 Y107.511904 Z-0.125000
G01 X117.345363 Y106.240324 Z-0.125000
G01 X120.971323 Y105.062994 Z-0.125000
G01 X124.137383 Y103.533644 Z-0.125000
G01 X126.279863 Y101.991874 Z-0.125000
G01 X128.162023 Y99.779914 Z-0.125000
G01 X128.416453 Y99.708614 Z-0.125000
G01 X133.049683 Y106.933984 Z-0.125000
G01 X135.683693 Y111.421574 Z-0.125000
G01 X138.564643 Y117.144914 Z-0.125000
G01 X140.692393 Y122.247774 Z-0.125000
G01 X142.154313 Y126.898624 Z-0.125000
G01 X143.011523 Y131.186734 Z-0.125000
G01 X143.319493 Y135.469934 Z-0.125000
G01 X143.036333 Y139.367824 Z-0.125000
G01 X142.175233 Y143.033274 Z-0.125000
G01 X140.763043 Y146.415124 Z-0.125000
G01 X138.739173 Y149.710324 Z-0.125000
G01 X135.835023 Y153.291724 Z-0.125000
G01 X130.878523 Y158.316304 Z-0.125000
G01 X125.851683 Y162.680494 Z-0.125000
G01 X122.108933 Y165.176544 Z-0.125000
G01 X118.586293 Y166.643564 Z-0.125000
G01 X114.288773 Y167.457884 Z-0.125000
G01 X108.896083 Y167.616574 Z-0.125000
G01 X79.911402 Y165.806894 Z-0.125000
G01 X73.980651 Y165.262184 Z-0.125000
G01 X69.656122 Y164.611404 Z-0.125000
G01 X66.201328 Y163.751564 Z-0.125000
G01 X63.352926 Y162.575324 Z-0.125000
G01 X61.153688 Y161.052234 Z-0.125000
G01 X59.588161 Y159.209544 Z-0.125000
G01 X58.506546 Y156.980004 Z-0.125000
G01 X57.722599 Y153.970314 Z-0.125000
G01 X57.197525 Y149.301754 Z-0.125000
G01 X57.100365 Y144.011184 Z-0.125000
G01 X57.423909 Y139.036854 Z-0.125000
G01 X58.150315 Y134.330944 Z-0.125000
G01 X59.010700 Y130.834944 Z-0.125000
G01 X60.185890 Y127.417624 Z-0.125000
G01 X61.698709 Y124.179144 Z-0.125000
G01 X63.377781 Y121.463094 Z-0.125000
G01 X65.347806 Y119.014844 Z-0.125000
G01 X67.601875 Y116.864114 Z-0.125000
G01 X70.124999 Y115.020054 Z-0.125000
G01 X72.893302 Y113.472114 Z-0.125000
G01 X75.874437 Y112.192724 Z-0.125000
G01 X79.352156 Y111.048854 Z-0.125000
G01 X83.649512 Y109.975124 Z-0.125000
G01 X88.391430 Y109.064224 Z-0.125000
G01 X96.826893 Y107.941674 Z-0.125000
G01 X110.997453 Y106.997854 Z-0.125000
G01 X118.026303 Y105.781714 Z-0.125000
G01 X121.730543 Y104.632214 Z-0.125000
G01 X124.940873 Y103.131164 Z-0.125000
G01 X127.249263 Y101.461004 Z-0.125000
G01 X128.938483 Y99.424374 Z-0.125000
G01 X136.624993 Y112.362984 Z-0.125000
G01 X139.297913 Y117.751084 Z-0.125000
G01 X141.343223 Y122.711864 Z-0.125000
G01 X142.735713 Y127.188114 Z-0.125000
G01 X143.592533 Y131.539204 Z-0.125000
G01 X143.880483 Y135.628024 Z-0.125000
G01 X143.595563 Y139.580694 Z-0.125000
G01 X142.786863 Y143.065864 Z-0.125000
G01 X141.370933 Y146.493264 Z-0.125000
G01 X139.320513 Y149.816944 Z-0.125000
G01 X136.520233 Y153.240024 Z-0.125000
G01 X131.131083 Y158.644354 Z-0.125000
G01 X125.846243 Y163.237714 Z-0.125000
G01 X122.061273 Y165.763994 Z-0.125000
G01 X118.508023 Y167.217784 Z-0.125000
G01 X114.420733 Y167.952394 Z-0.125000
G01 X109.021373 Y168.042194 Z-0.125000
G01 X77.688195 Y165.708004 Z-0.125000
G01 X72.131815 Y165.130934 Z-0.125000
G01 X68.158612 Y164.475254 Z-0.125000
G01 X64.735017 Y163.557284 Z-0.125000
G01 X62.152472 Y162.428404 Z-0.125000
G01 X60.132400 Y161.001154 Z-0.125000
G01 X58.551957 Y159.131664 Z-0.125000
G01 X57.468536 Y156.868924 Z-0.125000
G01 X56.687616 Y153.822484 Z-0.125000
G01 X56.154608 Y149.085524 Z-0.125000
G01 X56.044506 Y143.687264 Z-0.125000
G01 X56.367538 Y138.595884 Z-0.125000
G01 X57.109203 Y133.775084 Z-0.125000
G01 X57.992755 Y130.195514 Z-0.125000
G01 X59.202244 Y126.701244 Z-0.125000
G01 X60.760984 Y123.397584 Z-0.125000
G01 X62.491885 Y120.635954 Z-0.125000
G01 X64.523186 Y118.157134 Z-0.125000
G01 X66.602606 Y116.193654 Z-0.125000
G01 X69.178316 Y114.318204 Z-0.125000
G01 X72.010165 Y112.754244 Z-0.125000
G01 X75.065662 Y111.472904 Z-0.125000
G01 X78.636588 Y110.339704 Z-0.125000
G01 X83.056987 Y109.289044 Z-0.125000
G01 X87.941448 Y108.405814 Z-0.125000
G01 X96.974908 Y107.289114 Z-0.125000
G01 X111.525413 Y106.472674 Z-0.125000
G01 X115.435013 Y105.968864 Z-0.125000
G01 X118.732203 Y105.314984 Z-0.125000
G01 X122.726393 Y104.118464 Z-0.125000
G01 X125.919663 Y102.642994 Z-0.125000
G01 X128.225553 Y100.945104 Z-0.125000
G01 X129.499203 Y99.154334 Z-0.125000
G01 X130.955123 Y102.073104 Z-0.125000
G01 X135.469753 Y109.536174 Z-0.125000
G01 X137.701603 Y113.587874 Z-0.125000
G01 X140.151073 Y118.633264 Z-0.125000
G01 X142.003793 Y123.209884 Z-0.125000
G01 X143.388323 Y127.761714 Z-0.125000
G01 X144.211503 Y132.179604 Z-0.125000
G01 X144.443423 Y136.318034 Z-0.125000
G01 X144.120973 Y140.058064 Z-0.125000
G01 X143.258343 Y143.566984 Z-0.125000
G01 X141.879293 Y146.795904 Z-0.125000
G01 X139.909993 Y149.941484 Z-0.125000
G01 X137.057323 Y153.375874 Z-0.125000
G01 X131.200663 Y159.142454 Z-0.125000
G01 X125.649963 Y163.941614 Z-0.125000
G01 X122.002163 Y166.358474 Z-0.125000
G01 X118.419343 Y167.796994 Z-0.125000
G01 X114.299173 Y168.473794 Z-0.125000
G01 X109.144313 Y168.475794 Z-0.125000
G01 X75.437666 Y165.560554 Z-0.125000
G01 X70.625074 Y165.007044 Z-0.125000
G01 X66.660465 Y164.302994 Z-0.125000
G01 X63.534121 Y163.418464 Z-0.125000
G01 X61.169828 Y162.369734 Z-0.125000
G01 X59.121291 Y160.925244 Z-0.125000
G01 X57.526370 Y159.029264 Z-0.125000
G01 X56.441729 Y156.733444 Z-0.125000
G01 X55.663835 Y153.650394 Z-0.125000
G01 X55.121771 Y148.844394 Z-0.125000
G01 X54.997509 Y143.336904 Z-0.125000
G01 X55.319638 Y138.126554 Z-0.125000
G01 X56.076853 Y133.189094 Z-0.125000
G01 X56.984110 Y129.524834 Z-0.125000
G01 X58.228486 Y125.952934 Z-0.125000
G01 X59.833806 Y122.583724 Z-0.125000
G01 X61.617072 Y119.776584 Z-0.125000
G01 X63.710212 Y117.267954 Z-0.125000
G01 X65.853178 Y115.291684 Z-0.125000
G01 X68.507863 Y113.416944 Z-0.125000
G01 X71.426867 Y111.867704 Z-0.125000
G01 X74.576793 Y110.612024 Z-0.125000
G01 X78.258115 Y109.514984 Z-0.125000
G01 X82.458626 Y108.578964 Z-0.125000
G01 X87.847192 Y107.673244 Z-0.125000
G01 X97.140304 Y106.623044 Z-0.125000
G01 X112.074693 Y105.936944 Z-0.125000
G01 X116.084593 Y105.466754 Z-0.125000
G01 X119.462463 Y104.840344 Z-0.125000
G01 X123.542133 Y103.678774 Z-0.125000
G01 X126.778843 Y102.239594 Z-0.125000
G01 X129.066733 Y100.588734 Z-0.125000
G01 X129.800623 Y99.693024 Z-0.125000
G01 X130.120363 Y98.908754 Z-0.125000
G01 X130.482263 Y100.142474 Z-0.125000
G01 X131.370863 Y101.975854 Z-0.125000
G01 X136.327253 Y110.298164 Z-0.125000
G01 X138.912353 Y115.109974 Z-0.125000
G01 X141.123173 Y119.807154 Z-0.125000
G01 X142.761883 Y123.994354 Z-0.125000
G01 X144.046573 Y128.370494 Z-0.125000
G01 X144.801653 Y132.590654 Z-0.125000
G01 X145.009413 Y136.783744 Z-0.125000
G01 X144.646853 Y140.563044 Z-0.125000
G01 X143.727953 Y144.094384 Z-0.125000
G01 X142.279343 Y147.327684 Z-0.125000
G01 X140.226263 Y150.462424 Z-0.125000
G01 X137.437163 Y153.702974 Z-0.125000
G01 X131.076223 Y159.816334 Z-0.125000
G01 X125.437113 Y164.656644 Z-0.125000
G01 X121.740803 Y167.060464 Z-0.125000
G01 X118.320033 Y168.382154 Z-0.125000
G01 X114.417293 Y168.983634 Z-0.125000
G01 X109.263723 Y168.916734 Z-0.125000
G01 X90.450555 Y166.924134 Z-0.125000
G01 X73.553941 Y165.404204 Z-0.125000
G01 X68.761953 Y164.793344 Z-0.125000
G01 X65.164148 Y164.093304 Z-0.125000
G01 X62.337962 Y163.248954 Z-0.125000
G01 X59.983555 Y162.164834 Z-0.125000
G01 X57.961116 Y160.675444 Z-0.125000
G01 X56.406232 Y158.728634 Z-0.125000
G01 X55.365070 Y156.390514 Z-0.125000
G01 X54.618889 Y153.262564 Z-0.125000
G01 X54.083612 Y148.336984 Z-0.125000
G01 X53.965697 Y142.662664 Z-0.125000
G01 X54.280843 Y137.627814 Z-0.125000
G01 X55.053878 Y132.571954 Z-0.125000
G01 X55.985378 Y128.822024 Z-0.125000
G01 X57.265396 Y125.171594 Z-0.125000
G01 X58.751875 Y122.037244 Z-0.125000
G01 X60.556063 Y119.156024 Z-0.125000
G01 X62.679742 Y116.584974 Z-0.125000
G01 X64.858962 Y114.565134 Z-0.125000
G01 X67.564157 Y112.657654 Z-0.125000
G01 X70.544707 Y111.092434 Z-0.125000
G01 X73.767309 Y109.836294 Z-0.125000
G01 X77.540741 Y108.753094 Z-0.125000
G01 X81.854165 Y107.842984 Z-0.125000
G01 X87.396650 Y106.973604 Z-0.125000
G01 X97.322503 Y105.942014 Z-0.125000
G01 X112.644443 Y105.388924 Z-0.125000
G01 X119.942373 Y104.412524 Z-0.125000
G01 X124.164833 Y103.305154 Z-0.125000
G01 X127.514473 Y101.912624 Z-0.125000
G01 X129.934123 Y100.235134 Z-0.125000
G01 X130.616343 Y99.379604 Z-0.125000
G01 X130.794313 Y98.678714 Z-0.125000
G01 X130.858013 Y99.672614 Z-0.125000
G01 X131.587713 Y101.481264 Z-0.125000
G01 X139.199763 Y114.832014 Z-0.125000
G01 X141.689143 Y120.062324 Z-0.125000
G01 X143.440653 Y124.563784 Z-0.125000
G01 X144.709643 Y129.012644 Z-0.125000
G01 X145.396373 Y133.027714 Z-0.125000
G01 X145.585083 Y137.014244 Z-0.125000
G01 X145.218373 Y140.846834 Z-0.125000
G01 X144.358973 Y144.190744 Z-0.125000
G01 X142.907713 Y147.468934 Z-0.125000
G01 X140.973163 Y150.439744 Z-0.125000
G01 X138.156483 Y153.697724 Z-0.125000
G01 X131.304893 Y160.164964 Z-0.125000
G01 X125.391963 Y165.240714 Z-0.125000
G01 X121.657543 Y167.668944 Z-0.125000
G01 X118.210633 Y168.971794 Z-0.125000
G01 X114.528163 Y169.501894 Z-0.125000
G01 X109.674413 Y169.390804 Z-0.125000
G01 X90.018517 Y167.005554 Z-0.125000
G01 X71.656290 Y165.207024 Z-0.125000
G01 X67.245778 Y164.595204 Z-0.125000
G01 X63.976376 Y163.924684 Z-0.125000
G01 X61.148310 Y163.050094 Z-0.125000
G01 X59.018625 Y162.053674 Z-0.125000
G01 X56.970210 Y160.547324 Z-0.125000
G01 X55.403315 Y158.574224 Z-0.125000
G01 X54.362470 Y156.203534 Z-0.125000
G01 X53.619023 Y153.039284 Z-0.125000
G01 X53.055720 Y147.793644 Z-0.125000
G01 X52.937561 Y142.251894 Z-0.125000
G01 X53.251804 Y137.100894 Z-0.125000
G01 X54.041196 Y131.925084 Z-0.125000
G01 X54.997426 Y128.088344 Z-0.125000
G01 X56.313746 Y124.358714 Z-0.125000
G01 X57.843240 Y121.163594 Z-0.125000
G01 X59.699891 Y118.235804 Z-0.125000
G01 X61.885312 Y115.634534 Z-0.125000
G01 X64.127833 Y113.602374 Z-0.125000
G01 X66.911639 Y111.697294 Z-0.125000
G01 X69.979074 Y110.149584 Z-0.125000
G01 X73.295764 Y108.922664 Z-0.125000
G01 X77.179713 Y107.880334 Z-0.125000
G01 X81.619343 Y107.018334 Z-0.125000
G01 X87.322034 Y106.204404 Z-0.125000
G01 X97.521064 Y105.246964 Z-0.125000
G01 X113.569153 Y104.806254 Z-0.125000
G01 X120.711853 Y103.916034 Z-0.125000
G01 X125.025473 Y102.848784 Z-0.125000
G01 X128.423993 Y101.500144 Z-0.125000
G01 X130.827183 Y99.884364 Z-0.125000
G01 X131.457013 Y99.073584 Z-0.125000
G01 X131.526813 Y98.465664 Z-0.125000
G01 X131.323213 Y98.757104 Z-0.125000
G01 X131.375213 Y99.548814 Z-0.125000
G01 X132.166283 Y101.704914 Z-0.125000
G01 X139.972933 Y115.513224 Z-0.125000
G01 X142.371373 Y120.589744 Z-0.125000
G01 X144.128233 Y125.166394 Z-0.125000
G01 X145.377583 Y129.688714 Z-0.125000
G01 X146.023773 Y133.763004 Z-0.125000
G01 X146.149993 Y137.794874 Z-0.125000
G01 X145.749323 Y141.402494 Z-0.125000
G01 X144.834843 Y144.766914 Z-0.125000
G01 X143.429053 Y147.839324 Z-0.125000
G01 X141.442423 Y150.815244 Z-0.125000
G01 X138.720893 Y153.886414 Z-0.125000
G01 X130.582823 Y161.364744 Z-0.125000
G01 X125.150263 Y165.974704 Z-0.125000
G01 X121.563763 Y168.284344 Z-0.125000
G01 X118.091463 Y169.566704 Z-0.125000
G01 X114.383843 Y170.039464 Z-0.125000
G01 X109.785893 Y169.855634 Z-0.125000
G01 X89.587299 Y167.071704 Z-0.125000
G01 X69.750020 Y164.969334 Z-0.125000
G01 X62.792899 Y163.727944 Z-0.125000
G01 X60.227028 Y162.923754 Z-0.125000
G01 X58.065435 Y161.918384 Z-0.125000
G01 X55.991704 Y160.395484 Z-0.125000
G01 X54.413238 Y158.396524 Z-0.125000
G01 X53.373125 Y155.993484 Z-0.125000
G01 X52.632169 Y152.792934 Z-0.125000
G01 X52.054461 Y147.469474 Z-0.125000
G01 X51.919946 Y141.815314 Z-0.125000
G01 X52.233091 Y136.546494 Z-0.125000
G01 X52.967236 Y131.606984 Z-0.125000
G01 X53.916679 Y127.678604 Z-0.125000
G01 X55.235025 Y123.853244 Z-0.125000
G01 X56.774919 Y120.573024 Z-0.125000
G01 X58.650686 Y117.567354 Z-0.125000
G01 X60.864596 Y114.900194 Z-0.125000
G01 X63.141223 Y112.821804 Z-0.125000
G01 X65.973024 Y110.882154 Z-0.125000
G01 X69.099538 Y109.317984 Z-0.125000
G01 X72.486659 Y108.091504 Z-0.125000
G01 X76.460766 Y107.065774 Z-0.125000
G01 X81.012211 Y106.234344 Z-0.125000
G01 X86.869135 Y105.463434 Z-0.125000
G01 X97.735084 Y104.538124 Z-0.125000
G01 X114.185643 Y104.237464 Z-0.125000
G01 X121.502623 Y103.409374 Z-0.125000
G01 X125.678923 Y102.452234 Z-0.125000
G01 X129.201653 Y101.157934 Z-0.125000
G01 X131.678203 Y99.599054 Z-0.125000
G01 X132.300933 Y98.819824 Z-0.125000
G01 X132.315533 Y98.265504 Z-0.125000
G01 X131.965523 Y98.522294 Z-0.125000
G01 X131.898123 Y99.362784 Z-0.125000
G01 X132.687493 Y101.826144 Z-0.125000
G01 X140.761813 Y116.233384 Z-0.125000
G01 X143.171833 Y121.401044 Z-0.125000
G01 X144.909303 Y126.067274 Z-0.125000
G01 X146.049363 Y130.398244 Z-0.125000
G01 X146.650773 Y134.531724 Z-0.125000
G01 X146.724273 Y138.340484 Z-0.125000
G01 X146.280983 Y141.984794 Z-0.125000
G01 X145.395993 Y145.137104 Z-0.125000
G01 X143.955383 Y148.232894 Z-0.125000
G01 X142.066123 Y151.024144 Z-0.125000
G01 X139.470603 Y153.922154 Z-0.125000
G01 X135.231253 Y157.829094 Z-0.125000
G01 X125.081313 Y166.575754 Z-0.125000
G01 X121.655203 Y168.806464 Z-0.125000
G01 X118.179413 Y170.116534 Z-0.125000
G01 X114.727283 Y170.567434 Z-0.125000
G01 X110.183893 Y170.363104 Z-0.125000
G01 X89.156767 Y167.123334 Z-0.125000
G01 X67.840459 Y164.691544 Z-0.125000
G01 X61.310540 Y163.420514 Z-0.125000
G01 X58.793494 Y162.566844 Z-0.125000
G01 X56.907206 Y161.633364 Z-0.125000
G01 X54.866603 Y160.064734 Z-0.125000
G01 X53.436592 Y158.196194 Z-0.125000
G01 X52.397480 Y155.760974 Z-0.125000
G01 X51.626716 Y152.325174 Z-0.125000
G01 X51.048349 Y146.862274 Z-0.125000
G01 X50.913346 Y141.353564 Z-0.125000
G01 X51.225245 Y135.965244 Z-0.125000
G01 X51.974991 Y130.910824 Z-0.125000
G01 X52.949359 Y126.893314 Z-0.125000
G01 X54.304325 Y122.986364 Z-0.125000
G01 X55.887478 Y119.643434 Z-0.125000
G01 X57.815831 Y116.589884 Z-0.125000
G01 X60.091163 Y113.891994 Z-0.125000
G01 X62.430629 Y111.801664 Z-0.125000
G01 X65.340283 Y109.865744 Z-0.125000
G01 X68.552779 Y108.321354 Z-0.125000
G01 X72.033280 Y107.127414 Z-0.125000
G01 X76.117342 Y106.146894 Z-0.125000
G01 X80.794811 Y105.368754 Z-0.125000
G01 X86.812688 Y104.659074 Z-0.125000
G01 X98.353430 Y103.801744 Z-0.125000
G01 X114.819953 Y103.656484 Z-0.125000
G01 X122.017293 Y102.940084 Z-0.125000
G01 X126.341263 Y102.041144 Z-0.125000
G01 X129.995393 Y100.804854 Z-0.125000
G01 X132.554673 Y99.308884 Z-0.125000
G01 X133.175343 Y98.565824 Z-0.125000
G01 X133.158243 Y98.073934 Z-0.125000
G01 X132.659623 Y98.301214 Z-0.125000
G01 X132.451873 Y99.192994 Z-0.125000
G01 X132.647163 Y100.422704 Z-0.125000
G01 X133.219773 Y101.981634 Z-0.125000
G01 X141.567063 Y116.991534 Z-0.125000
G01 X143.877673 Y121.995324 Z-0.125000
G01 X145.612503 Y126.739184 Z-0.125000
G01 X146.670393 Y130.862194 Z-0.125000
G01 X147.257613 Y135.054424 Z-0.125000
G01 X147.302013 Y138.912274 Z-0.125000
G01 X146.814273 Y142.593214 Z-0.125000
G01 X145.875083 Y145.763694 Z-0.125000
G01 X144.488233 Y148.649804 Z-0.125000
G01 X142.549753 Y151.445314 Z-0.125000
G01 X140.062223 Y154.154634 Z-0.125000
G01 X124.813273 Y167.328684 Z-0.125000
G01 X121.346393 Y169.535604 Z-0.125000
G01 X118.043353 Y170.724804 Z-0.125000
G01 X114.569763 Y171.120834 Z-0.125000
G01 X110.285323 Y170.854904 Z-0.125000
G01 X88.727948 Y167.161444 Z-0.125000
G01 X66.312348 Y164.431064 Z-0.125000
G01 X60.140347 Y163.166634 Z-0.125000
G01 X57.889549 Y162.392184 Z-0.125000
G01 X55.977481 Y161.450754 Z-0.125000
G01 X53.914002 Y159.865914 Z-0.125000
G01 X52.474885 Y157.974134 Z-0.125000
G01 X51.437214 Y155.506944 Z-0.125000
G01 X50.668182 Y152.032394 Z-0.125000
G01 X50.071653 Y146.487194 Z-0.125000
G01 X49.919316 Y140.867364 Z-0.125000
G01 X50.229873 Y135.358024 Z-0.125000
G01 X50.995535 Y130.187324 Z-0.125000
G01 X51.995562 Y126.079624 Z-0.125000
G01 X53.387929 Y122.090384 Z-0.125000
G01 X55.015001 Y118.684564 Z-0.125000
G01 X56.996256 Y115.583064 Z-0.125000
G01 X59.333354 Y112.855024 Z-0.125000
G01 X61.735658 Y110.753634 Z-0.125000
G01 X64.723140 Y108.822894 Z-0.125000
G01 X68.021350 Y107.300134 Z-0.125000
G01 X71.595011 Y106.140764 Z-0.125000
G01 X75.788736 Y105.207854 Z-0.125000
G01 X80.592096 Y104.485444 Z-0.125000
G01 X86.770815 Y103.839534 Z-0.125000
G01 X98.607145 Y103.068794 Z-0.125000
G01 X115.471983 Y103.063794 Z-0.125000
G01 X122.535063 Y102.453464 Z-0.125000
G01 X127.011633 Y101.614984 Z-0.125000
G01 X130.804263 Y100.439994 Z-0.125000
G01 X133.455843 Y99.012614 Z-0.125000
G01 X134.059083 Y98.351904 Z-0.125000
G01 X134.028383 Y97.873724 Z-0.125000
G01 X133.371553 Y98.129264 Z-0.125000
G01 X133.028303 Y99.123924 Z-0.125000
G01 X133.158183 Y100.401804 Z-0.125000
G01 X133.691853 Y102.005004 Z-0.125000
G01 X134.989833 Y104.639554 Z-0.125000
G01 X139.506783 Y112.340264 Z-0.125000
G01 X142.386733 Y117.787614 Z-0.125000
G01 X144.700363 Y122.881814 Z-0.125000
G01 X146.403733 Y127.718574 Z-0.125000
G01 X147.351053 Y131.633474 Z-0.125000
G01 X147.867913 Y135.602754 Z-0.125000
G01 X147.882613 Y139.510404 Z-0.125000
G01 X147.405413 Y142.971324 Z-0.125000
G01 X146.446903 Y146.181264 Z-0.125000
G01 X145.027253 Y149.090574 Z-0.125000
G01 X143.195333 Y151.700634 Z-0.125000
G01 X140.666933 Y154.411174 Z-0.125000
G01 X124.531703 Y168.091294 Z-0.125000
G01 X121.224263 Y170.171814 Z-0.125000
G01 X117.898643 Y171.339064 Z-0.125000
G01 X114.404193 Y171.678384 Z-0.125000
G01 X110.381293 Y171.359554 Z-0.125000
G01 X88.300334 Y167.187654 Z-0.125000
G01 X64.408925 Y164.079014 Z-0.125000
G01 X58.680409 Y162.796134 Z-0.125000
G01 X56.481879 Y161.975354 Z-0.125000
G01 X54.844578 Y161.115624 Z-0.125000
G01 X52.819160 Y159.484274 Z-0.125000
G01 X51.425450 Y157.545354 Z-0.125000
G01 X50.435116 Y155.039414 Z-0.125000
G01 X49.692744 Y151.513814 Z-0.125000
G01 X49.090111 Y145.818434 Z-0.125000
G01 X48.942168 Y140.025124 Z-0.125000
G01 X49.246768 Y134.726104 Z-0.125000
G01 X50.029007 Y129.437784 Z-0.125000
G01 X51.055375 Y125.239074 Z-0.125000
G01 X52.485899 Y121.166904 Z-0.125000
G01 X54.157500 Y117.697834 Z-0.125000
G01 X56.192146 Y114.548684 Z-0.125000
G01 X58.591179 Y111.790974 Z-0.125000
G01 X61.056347 Y109.679424 Z-0.125000
G01 X64.121341 Y107.755234 Z-0.125000
G01 X67.505020 Y106.255704 Z-0.125000
G01 X71.171426 Y105.132964 Z-0.125000
G01 X75.073441 Y104.317544 Z-0.125000
G01 X79.985782 Y103.632224 Z-0.125000
G01 X86.742745 Y103.005744 Z-0.125000
G01 X98.874765 Y102.323384 Z-0.125000
G01 X116.140153 Y102.458134 Z-0.125000
G01 X123.370063 Y101.908134 Z-0.125000
G01 X127.943993 Y101.114864 Z-0.125000
G01 X131.625683 Y100.061104 Z-0.125000
G01 X134.303173 Y98.763074 Z-0.125000
G01 X134.969443 Y98.129014 Z-0.125000
G01 X134.964443 Y97.684434 Z-0.125000
G01 X134.575673 Y97.676434 Z-0.125000
G01 X134.119833 Y97.966904 Z-0.125000
G01 X133.636433 Y98.984694 Z-0.125000
G01 X133.661833 Y100.272604 Z-0.125000
G01 X134.177533 Y102.049794 Z-0.125000
G01 X135.576223 Y104.960154 Z-0.125000
G01 X140.185013 Y112.840814 Z-0.125000
G01 X143.222743 Y118.620224 Z-0.125000
G01 X145.534133 Y123.807264 Z-0.125000
G01 X147.119673 Y128.458324 Z-0.125000
G01 X148.035643 Y132.436574 Z-0.125000
G01 X148.500583 Y136.462004 Z-0.125000
G01 X148.465383 Y140.133634 Z-0.125000
G01 X147.944173 Y143.629564 Z-0.125000
G01 X147.024393 Y146.620464 Z-0.125000
G01 X145.572143 Y149.554384 Z-0.125000
G01 X143.694713 Y152.169394 Z-0.125000
G01 X141.284773 Y154.692004 Z-0.125000
G01 X124.236593 Y168.862364 Z-0.125000
G01 X120.891603 Y170.911174 Z-0.125000
G01 X117.744863 Y171.958754 Z-0.125000
G01 X114.479383 Y172.243794 Z-0.125000
G01 X110.757243 Y171.919984 Z-0.125000
G01 X87.873275 Y167.202334 Z-0.125000
G01 X62.887776 Y163.753694 Z-0.125000
G01 X57.529384 Y162.488904 Z-0.125000
G01 X53.940563 Y160.889914 Z-0.125000
G01 X51.894712 Y159.242594 Z-0.125000
G01 X50.493849 Y157.280604 Z-0.125000
G01 X49.451320 Y154.548214 Z-0.125000
G01 X48.732066 Y150.968424 Z-0.125000
G01 X48.120132 Y145.115064 Z-0.125000
G01 X47.972190 Y139.485884 Z-0.125000
G01 X48.275886 Y134.069804 Z-0.125000
G01 X49.075287 Y128.662554 Z-0.125000
G01 X50.128803 Y124.371934 Z-0.125000
G01 X51.598265 Y120.216324 Z-0.125000
G01 X53.314957 Y116.683744 Z-0.125000
G01 X55.403482 Y113.486994 Z-0.125000
G01 X57.864598 Y110.700214 Z-0.125000
G01 X60.392556 Y108.579324 Z-0.125000
G01 X63.205364 Y106.834114 Z-0.125000
G01 X66.642776 Y105.317334 Z-0.125000
G01 X70.374413 Y104.196974 Z-0.125000
G01 X74.353255 Y103.400824 Z-0.125000
G01 X79.372478 Y102.753784 Z-0.125000
G01 X85.856326 Y102.216844 Z-0.125000
G01 X98.318168 Y101.578794 Z-0.125000
G01 X115.299533 Y101.864034 Z-0.125000
G01 X123.897523 Y101.388294 Z-0.125000
G01 X128.366233 Y100.711644 Z-0.125000
G01 X132.270123 Y99.728854 Z-0.125000
G01 X135.160203 Y98.497984 Z-0.125000
G01 X135.902503 Y97.895344 Z-0.125000
G01 X135.938403 Y97.491124 Z-0.125000
G01 X135.484843 Y97.478924 Z-0.125000
G01 X134.901373 Y97.811194 Z-0.125000
G01 X134.251963 Y98.947564 Z-0.125000
G01 X134.223463 Y100.420224 Z-0.125000
G01 X134.738283 Y102.288734 Z-0.125000
G01 X136.175013 Y105.312004 Z-0.125000
G01 X140.875153 Y113.368244 Z-0.125000
G01 X144.071373 Y119.487414 Z-0.125000
G01 X146.374483 Y124.769984 Z-0.125000
G01 X147.916303 Y129.512314 Z-0.125000
G01 X148.766163 Y133.561154 Z-0.125000
G01 X149.129163 Y137.351054 Z-0.125000
G01 X149.024183 Y141.059704 Z-0.125000
G01 X148.483033 Y144.311224 Z-0.125000
G01 X147.510073 Y147.319364 Z-0.125000
G01 X146.122883 Y150.039674 Z-0.125000
G01 X144.361693 Y152.469784 Z-0.125000
G01 X141.916023 Y154.996304 Z-0.125000
G01 X123.928123 Y169.640144 Z-0.125000
G01 X120.749393 Y171.558614 Z-0.125000
G01 X117.582103 Y172.582394 Z-0.125000
G01 X114.546433 Y172.818474 Z-0.125000
G01 X110.838643 Y172.453254 Z-0.125000
G01 X94.078290 Y168.557614 Z-0.125000
G01 X86.990054 Y167.121474 Z-0.125000
G01 X79.565593 Y165.914374 Z-0.125000
G01 X61.373159 Y163.397134 Z-0.125000
G01 X56.389017 Y162.156174 Z-0.125000
G01 X52.834350 Y160.506424 Z-0.125000
G01 X50.831148 Y158.811894 Z-0.125000
G01 X49.478647 Y156.802804 Z-0.125000
G01 X48.485798 Y154.032894 Z-0.125000
G01 X47.785880 Y150.395174 Z-0.125000
G01 X47.161642 Y144.375994 Z-0.125000
G01 X47.019315 Y138.572804 Z-0.125000
G01 X47.356676 Y133.001944 Z-0.125000
G01 X48.134301 Y127.861364 Z-0.125000
G01 X49.215720 Y123.478094 Z-0.125000
G01 X50.724927 Y119.238384 Z-0.125000
G01 X52.487394 Y115.642194 Z-0.125000
G01 X54.630115 Y112.397914 Z-0.125000
G01 X57.153483 Y109.582584 Z-0.125000
G01 X59.743963 Y107.453144 Z-0.125000
G01 X62.625566 Y105.715284 Z-0.125000
G01 X66.146642 Y104.223464 Z-0.125000
G01 X69.969095 Y103.142234 Z-0.125000
G01 X74.045271 Y102.394394 Z-0.125000
G01 X79.187927 Y101.809824 Z-0.125000
G01 X85.831220 Y101.345074 Z-0.125000
G01 X98.590086 Y100.801554 Z-0.125000
G01 X115.565353 Y101.219444 Z-0.125000
G01 X124.421113 Y100.847584 Z-0.125000
G01 X129.045163 Y100.231704 Z-0.125000
G01 X133.100933 Y99.314364 Z-0.125000
G01 X136.022183 Y98.212924 Z-0.125000
G01 X136.853683 Y97.645934 Z-0.125000
G01 X136.925183 Y97.273954 Z-0.125000
G01 X136.387903 Y97.295954 Z-0.125000
G01 X135.717433 Y97.662954 Z-0.125000
G01 X134.913313 Y98.833894 Z-0.125000
G01 X134.775633 Y100.459114 Z-0.125000
G01 X135.243213 Y102.378014 Z-0.125000
G01 X136.662823 Y105.465544 Z-0.125000
G01 X141.578443 Y113.923864 Z-0.125000
G01 X144.807993 Y120.129084 Z-0.125000
G01 X147.118483 Y125.494974 Z-0.125000
G01 X148.638603 Y130.316674 Z-0.125000
G01 X149.405443 Y134.134014 Z-0.125000
G01 X149.747193 Y137.977854 Z-0.125000
G01 X149.607553 Y141.734184 Z-0.125000
G01 X149.022553 Y145.018254 Z-0.125000
G01 X148.097253 Y147.802644 Z-0.125000
G01 X146.680273 Y150.548424 Z-0.125000
G01 X144.877623 Y152.985414 Z-0.125000
G01 X142.561793 Y155.327094 Z-0.125000
G01 X132.427153 Y163.137354 Z-0.125000
G01 X123.607573 Y170.426294 Z-0.125000
G01 X120.394173 Y172.305624 Z-0.125000
G01 X117.411203 Y173.212444 Z-0.125000
G01 X114.358713 Y173.397494 Z-0.125000
G01 X110.913393 Y173.001024 Z-0.125000
G01 X106.657263 Y172.053714 Z-0.125000
G01 X94.154990 Y168.772174 Z-0.125000
G01 X86.558468 Y167.109174 Z-0.125000
G01 X79.043396 Y165.801884 Z-0.125000
G01 X59.868585 Y163.012824 Z-0.125000
G01 X55.260940 Y161.801594 Z-0.125000
G01 X51.957944 Y160.240664 Z-0.125000
G01 X49.936653 Y158.530564 Z-0.125000
G01 X48.578660 Y156.498474 Z-0.125000
G01 X47.589082 Y153.695294 Z-0.125000
G01 X46.854668 Y149.797214 Z-0.125000
G01 X46.235166 Y143.902444 Z-0.125000
G01 X46.074040 Y137.982844 Z-0.125000
G01 X46.411916 Y132.291144 Z-0.125000
G01 X47.207459 Y127.037844 Z-0.125000
G01 X48.317539 Y122.561204 Z-0.125000
G01 X49.867369 Y118.236914 Z-0.125000
G01 X51.676220 Y114.576784 Z-0.125000
G01 X53.873529 Y111.285134 Z-0.125000
G01 X56.459101 Y108.441794 Z-0.125000
G01 X59.112054 Y106.304544 Z-0.125000
G01 X62.061989 Y104.575204 Z-0.125000
G01 X65.665922 Y103.109864 Z-0.125000
G01 X69.578409 Y102.069334 Z-0.125000
G01 X73.751090 Y101.371614 Z-0.125000
G01 X85.361406 Y100.482694 Z-0.125000
G01 X98.873180 Y100.013434 Z-0.125000
G01 X116.228113 Y100.560784 Z-0.125000
G01 X125.285203 Y100.259464 Z-0.125000
G01 X129.723163 Y99.733754 Z-0.125000
G01 X133.729123 Y98.936744 Z-0.125000
G01 X136.885763 Y97.908304 Z-0.125000
G01 X137.777513 Y97.414824 Z-0.125000
G01 X137.961833 Y97.057804 Z-0.125000
G01 X136.764153 Y97.386254 Z-0.125000
G01 X135.742113 Y98.458374 Z-0.125000
G01 X135.343773 Y99.841174 Z-0.125000
G01 X135.509773 Y101.605954 Z-0.125000
G01 X136.121143 Y103.454714 Z-0.125000
G01 X137.161013 Y105.638844 Z-0.125000
G01 X142.148993 Y114.243034 Z-0.125000
G01 X145.173463 Y120.004044 Z-0.125000
G01 X147.115823 Y124.303454 Z-0.125000
G01 X148.550823 Y128.237254 Z-0.125000
G01 X149.750813 Y132.931784 Z-0.125000
G01 X150.321293 Y137.431944 Z-0.125000
G01 X150.253693 Y141.858464 Z-0.125000
G01 X149.562533 Y145.749514 Z-0.125000
G01 X148.586603 Y148.550174 Z-0.125000
G01 X147.105323 Y151.295944 Z-0.125000
G01 X145.231013 Y153.714994 Z-0.125000
G01 X143.028373 Y155.853464 Z-0.125000
G01 X132.641303 Y163.545734 Z-0.125000
G01 X123.275533 Y171.220034 Z-0.125000
G01 X120.234753 Y172.966404 Z-0.125000
G01 X117.232773 Y173.848504 Z-0.125000
G01 X114.412003 Y173.993754 Z-0.125000
G01 X110.981353 Y173.562914 Z-0.125000
G01 X106.741053 Y172.544414 Z-0.125000
G01 X93.804271 Y168.887384 Z-0.125000
G01 X86.127706 Y167.089074 Z-0.125000
G01 X78.047003 Y165.600204 Z-0.125000
G01 X58.738751 Y162.677534 Z-0.125000
G01 X54.146339 Y161.425394 Z-0.125000
G01 X50.882600 Y159.816074 Z-0.125000
G01 X48.908278 Y158.057924 Z-0.125000
G01 X47.601065 Y155.978904 Z-0.125000
G01 X46.659873 Y153.140894 Z-0.125000
G01 X45.875022 Y148.716374 Z-0.125000
G01 X45.281861 Y142.799044 Z-0.125000
G01 X45.148078 Y137.004714 Z-0.125000
G01 X45.480583 Y131.559514 Z-0.125000
G01 X46.294729 Y126.192494 Z-0.125000
G01 X47.434446 Y121.621694 Z-0.125000
G01 X49.025827 Y117.212324 Z-0.125000
G01 X50.881697 Y113.488184 Z-0.125000
G01 X53.133911 Y110.149404 Z-0.125000
G01 X55.781736 Y107.278464 Z-0.125000
G01 X58.496697 Y105.134254 Z-0.125000
G01 X61.514451 Y103.414414 Z-0.125000
G01 X65.200485 Y101.976914 Z-0.125000
G01 X68.788989 Y101.061114 Z-0.125000
G01 X73.033102 Y100.384314 Z-0.125000
G01 X84.415010 Y99.616814 Z-0.125000
G01 X99.613833 Y99.214664 Z-0.125000
G01 X116.901323 Y99.889794 Z-0.125000
G01 X125.808173 Y99.684244 Z-0.125000
G01 X130.397803 Y99.216324 Z-0.125000
G01 X134.337293 Y98.532734 Z-0.125000
G01 X137.627883 Y97.624704 Z-0.125000
G01 X138.747013 Y97.127474 Z-0.125000
G01 X139.004473 Y96.814454 Z-0.125000
G01 X138.354293 Y96.906954 Z-0.125000
G01 X137.526553 Y97.329844 Z-0.125000
G01 X136.387703 Y98.541534 Z-0.125000
G01 X135.938213 Y100.027534 Z-0.125000
G01 X136.093243 Y101.885604 Z-0.125000
G01 X136.720893 Y103.811134 Z-0.125000
G01 X137.794673 Y106.070104 Z-0.125000
G01 X142.728723 Y114.579794 Z-0.125000
G01 X145.800283 Y120.418574 Z-0.125000
G01 X147.766543 Y124.772674 Z-0.125000
G01 X149.211473 Y128.758884 Z-0.125000
G01 X150.406683 Y133.520264 Z-0.125000
G01 X150.954943 Y138.085964 Z-0.125000
G01 X150.847533 Y142.572134 Z-0.125000
G01 X150.103303 Y146.503804 Z-0.125000
G01 X149.075493 Y149.320554 Z-0.125000
G01 X147.673783 Y151.850314 Z-0.125000
G01 X145.931593 Y154.087684 Z-0.125000
G01 X143.701673 Y156.235434 Z-0.125000
G01 X141.209113 Y158.165004 Z-0.125000
G01 X132.633923 Y164.133504 Z-0.125000
G01 X122.932773 Y172.019854 Z-0.125000
G01 X120.068503 Y173.632914 Z-0.125000
G01 X117.047183 Y174.489734 Z-0.125000
G01 X113.960833 Y174.569534 Z-0.125000
G01 X110.188743 Y173.951404 Z-0.125000
G01 X93.013507 Y168.878614 Z-0.125000
G01 X82.839938 Y166.453754 Z-0.125000
G01 X76.077881 Y165.216874 Z-0.125000
G01 X62.320517 Y163.174314 Z-0.125000
G01 X57.257229 Y162.242844 Z-0.125000
G01 X53.046513 Y161.028494 Z-0.125000
G01 X50.037034 Y159.515554 Z-0.125000
G01 X48.046673 Y157.742024 Z-0.125000
G01 X46.645396 Y155.437564 Z-0.125000
G01 X45.750394 Y152.566804 Z-0.125000
G01 X44.972721 Y148.056764 Z-0.125000
G01 X44.361152 Y141.960974 Z-0.125000
G01 X44.229567 Y136.368484 Z-0.125000
G01 X44.563511 Y130.807784 Z-0.125000
G01 X45.396993 Y125.326134 Z-0.125000
G01 X46.567226 Y120.660634 Z-0.125000
G01 X48.032758 Y116.562624 Z-0.125000
G01 X49.896074 Y112.739904 Z-0.125000
G01 X52.163131 Y109.309404 Z-0.125000
G01 X54.833123 Y106.359784 Z-0.125000
G01 X57.574767 Y104.160274 Z-0.125000
G01 X60.626114 Y102.402374 Z-0.125000
G01 X64.358923 Y100.944534 Z-0.125000
G01 X67.998840 Y100.029784 Z-0.125000
G01 X71.869020 Y99.424534 Z-0.125000
G01 X76.848060 Y98.992474 Z-0.125000
G01 X82.962789 Y98.734944 Z-0.125000
G01 X99.925927 Y98.407154 Z-0.125000
G01 X117.161553 Y99.195424 Z-0.125000
G01 X126.323043 Y99.088734 Z-0.125000
G01 X130.755693 Y98.714954 Z-0.125000
G01 X134.921913 Y98.101134 Z-0.125000
G01 X138.469083 Y97.269114 Z-0.125000
G01 X140.069343 Y96.554014 Z-0.125000
G01 X138.372263 Y97.242244 Z-0.125000
G01 X137.096613 Y98.551794 Z-0.125000
G01 X136.554933 Y100.102264 Z-0.125000
G01 X136.647733 Y102.013554 Z-0.125000
G01 X137.246193 Y103.981434 Z-0.125000
G01 X138.313063 Y106.283244 Z-0.125000
G01 X143.468513 Y115.204194 Z-0.125000
G01 X146.567853 Y121.121004 Z-0.125000
G01 X148.425213 Y125.259364 Z-0.125000
G01 X149.878993 Y129.298484 Z-0.125000
G01 X151.067763 Y134.127724 Z-0.125000
G01 X151.592183 Y138.760364 Z-0.125000
G01 X151.443013 Y143.307574 Z-0.125000
G01 X150.644323 Y147.280574 Z-0.125000
G01 X149.678133 Y149.868294 Z-0.125000
G01 X148.249483 Y152.425894 Z-0.125000
G01 X146.470073 Y154.673244 Z-0.125000
G01 X144.188693 Y156.810494 Z-0.125000
G01 X141.635413 Y158.710604 Z-0.125000
G01 X132.620553 Y164.729424 Z-0.125000
G01 X122.579643 Y172.825624 Z-0.125000
G01 X119.685393 Y174.392324 Z-0.125000
G01 X116.854743 Y175.136624 Z-0.125000
G01 X113.751193 Y175.163024 Z-0.125000
G01 X109.957873 Y174.458194 Z-0.125000
G01 X93.095033 Y169.108884 Z-0.125000
G01 X82.866091 Y166.482694 Z-0.125000
G01 X75.548468 Y165.052014 Z-0.125000
G01 X60.796643 Y162.762874 Z-0.125000
G01 X55.793240 Y161.782614 Z-0.125000
G01 X51.962267 Y160.612454 Z-0.125000
G01 X48.995463 Y159.053454 Z-0.125000
G01 X47.056075 Y157.231174 Z-0.125000
G01 X45.711973 Y154.876374 Z-0.125000
G01 X44.816191 Y151.769934 Z-0.125000
G01 X44.018792 Y146.877184 Z-0.125000
G01 X43.453217 Y141.090984 Z-0.125000
G01 X43.331885 Y135.327854 Z-0.125000
G01 X43.705988 Y129.614694 Z-0.125000
G01 X44.514178 Y124.440714 Z-0.125000
G01 X45.715855 Y119.679924 Z-0.125000
G01 X47.220399 Y115.503284 Z-0.125000
G01 X49.131247 Y111.614824 Z-0.125000
G01 X51.453209 Y108.135564 Z-0.125000
G01 X54.184649 Y105.157264 Z-0.125000
G01 X56.986934 Y102.950194 Z-0.125000
G01 X60.104171 Y101.201934 Z-0.125000
G01 X63.916274 Y99.772704 Z-0.125000
G01 X67.208111 Y98.977184 Z-0.125000
G01 X71.136565 Y98.388024 Z-0.125000
G01 X81.948194 Y97.805224 Z-0.125000
G01 X100.246138 Y97.589654 Z-0.125000
G01 X117.843293 Y98.497104 Z-0.125000
G01 X126.827393 Y98.472704 Z-0.125000
G01 X135.221193 Y97.680554 Z-0.125000
G01 X138.993723 Y96.960784 Z-0.125000
G01 X141.151633 Y96.273654 Z-0.125000
G01 X139.235093 Y97.164384 Z-0.125000
G01 X137.821163 Y98.575984 Z-0.125000
G01 X137.162583 Y100.338524 Z-0.125000
G01 X137.247783 Y102.343534 Z-0.125000
G01 X137.781713 Y104.168084 Z-0.125000
G01 X138.840703 Y106.512464 Z-0.125000
G01 X144.220553 Y115.851174 Z-0.125000
G01 X147.346113 Y121.846284 Z-0.125000
G01 X149.206183 Y126.047944 Z-0.125000
G01 X150.552623 Y129.854584 Z-0.125000
G01 X151.733233 Y134.752764 Z-0.125000
G01 X152.232093 Y139.453744 Z-0.125000
G01 X152.039713 Y144.063434 Z-0.125000
G01 X151.185243 Y148.078854 Z-0.125000
G01 X150.170683 Y150.682164 Z-0.125000
G01 X148.681373 Y153.240374 Z-0.125000
G01 X146.834923 Y155.470814 Z-0.125000
G01 X144.683863 Y157.408834 Z-0.125000
G01 X142.069753 Y159.278664 Z-0.125000
G01 X132.601643 Y165.333004 Z-0.125000
G01 X122.216653 Y173.636294 Z-0.125000
G01 X119.504663 Y175.069724 Z-0.125000
G01 X116.655633 Y175.788704 Z-0.125000
G01 X113.534513 Y175.760904 Z-0.125000
G01 X109.719743 Y174.968534 Z-0.125000
G01 X92.735577 Y169.217024 Z-0.125000
G01 X82.414402 Y166.407904 Z-0.125000
G01 X74.531279 Y164.788804 Z-0.125000
G01 X59.695547 Y162.399544 Z-0.125000
G01 X54.697955 Y161.385384 Z-0.125000
G01 X50.894372 Y160.177624 Z-0.125000
G01 X48.182195 Y158.722884 Z-0.125000
G01 X46.228722 Y156.885474 Z-0.125000
G01 X44.881837 Y154.505624 Z-0.125000
G01 X43.946725 Y151.157224 Z-0.125000
G01 X43.108629 Y145.894094 Z-0.125000
G01 X42.538099 Y139.846864 Z-0.125000
G01 X42.449729 Y134.251104 Z-0.125000
G01 X42.818095 Y128.817954 Z-0.125000
G01 X43.646499 Y123.536624 Z-0.125000
G01 X44.880719 Y118.680104 Z-0.125000
G01 X46.425129 Y114.424614 Z-0.125000
G01 X48.384217 Y110.470334 Z-0.125000
G01 X50.761425 Y106.942504 Z-0.125000
G01 X53.554215 Y103.935904 Z-0.125000
G01 X56.416678 Y101.721924 Z-0.125000
G01 X59.598902 Y99.984064 Z-0.125000
G01 X63.489321 Y98.584664 Z-0.125000
G01 X66.848441 Y97.824224 Z-0.125000
G01 X70.857506 Y97.283134 Z-0.125000
G01 X80.905641 Y96.844734 Z-0.125000
G01 X100.573613 Y96.761734 Z-0.125000
G01 X118.531763 Y97.786054 Z-0.125000
G01 X127.319563 Y97.836354 Z-0.125000
G01 X135.451843 Y97.221314 Z-0.125000
G01 X142.246643 Y95.970984 Z-0.125000
G01 X140.017113 Y97.165824 Z-0.125000
G01 X138.560933 Y98.613664 Z-0.125000
G01 X137.800033 Y100.448994 Z-0.125000
G01 X137.822033 Y102.508004 Z-0.125000
G01 X138.410993 Y104.594484 Z-0.125000
G01 X139.508923 Y107.012824 Z-0.125000
G01 X144.831813 Y116.242564 Z-0.125000
G01 X148.001733 Y122.315304 Z-0.125000
G01 X149.880943 Y126.569504 Z-0.125000
G01 X151.232973 Y130.426454 Z-0.125000
G01 X152.403803 Y135.394654 Z-0.125000
G01 X152.875453 Y140.165524 Z-0.125000
G01 X152.638403 Y144.839294 Z-0.125000
G01 X151.726953 Y148.898174 Z-0.125000
G01 X150.663173 Y151.517454 Z-0.125000
G01 X149.269123 Y153.857854 Z-0.125000
G01 X147.571183 Y155.910734 Z-0.125000
G01 X145.399533 Y157.866334 Z-0.125000
G01 X142.745163 Y159.724194 Z-0.125000
G01 X135.968433 Y163.721964 Z-0.125000
G01 X132.578553 Y165.944324 Z-0.125000
G01 X122.053653 Y174.317464 Z-0.125000
G01 X119.319063 Y175.753014 Z-0.125000
G01 X116.679493 Y176.420904 Z-0.125000
G01 X113.566083 Y176.396504 Z-0.125000
G01 X109.768053 Y175.570054 Z-0.125000
G01 X92.819474 Y169.473094 Z-0.125000
G01 X81.964901 Y166.329304 Z-0.125000
G01 X73.511420 Y164.509024 Z-0.125000
G01 X58.603792 Y162.020084 Z-0.125000
G01 X53.616794 Y160.971624 Z-0.125000
G01 X49.844534 Y159.725634 Z-0.125000
G01 X47.177057 Y158.227344 Z-0.125000
G01 X45.277976 Y156.340344 Z-0.125000
G01 X43.989608 Y153.910624 Z-0.125000
G01 X43.055862 Y150.316574 Z-0.125000
G01 X42.140891 Y144.310954 Z-0.125000
G01 X41.637985 Y138.545814 Z-0.125000
G01 X41.583785 Y133.139424 Z-0.125000
G01 X41.945194 Y128.004904 Z-0.125000
G01 X42.794641 Y122.615614 Z-0.125000
G01 X44.062404 Y117.662904 Z-0.125000
G01 X45.647706 Y113.328444 Z-0.125000
G01 X47.655692 Y109.308194 Z-0.125000
G01 X50.088440 Y105.731974 Z-0.125000
G01 X52.942457 Y102.697544 Z-0.125000
G01 X55.864610 Y100.477314 Z-0.125000
G01 X59.110967 Y98.750544 Z-0.125000
G01 X63.078311 Y97.381974 Z-0.125000
G01 X68.746551 Y96.347124 Z-0.125000
G01 X76.355497 Y95.891294 Z-0.125000
G01 X100.907693 Y95.924494 Z-0.125000
G01 X117.866323 Y96.996854 Z-0.125000
G01 X125.755453 Y97.204124 Z-0.125000
G01 X134.676523 Y96.808874 Z-0.125000
G01 X143.349753 Y95.642674 Z-0.125000
G01 X140.799143 Y97.191404 Z-0.125000
G01 X139.231983 Y98.781414 Z-0.125000
G01 X138.419853 Y100.731594 Z-0.125000
G01 X138.439353 Y102.884014 Z-0.125000
G01 X138.966583 Y104.814874 Z-0.125000
G01 X140.056953 Y107.275064 Z-0.125000
G01 X145.452163 Y116.646544 Z-0.125000
G01 X148.665973 Y122.797234 Z-0.125000
G01 X150.563373 Y127.104184 Z-0.125000
G01 X151.919953 Y131.011984 Z-0.125000
G01 X153.079243 Y136.051354 Z-0.125000
G01 X153.521973 Y140.893604 Z-0.125000
G01 X153.281503 Y145.325544 Z-0.125000
G01 X152.361193 Y149.458194 Z-0.125000
G01 X151.282233 Y152.121594 Z-0.125000
G01 X149.864823 Y154.493114 Z-0.125000
G01 X148.134843 Y156.560764 Z-0.125000
G01 X145.918073 Y158.511654 Z-0.125000
G01 X142.967193 Y160.483534 Z-0.125000
G01 X136.264203 Y164.221514 Z-0.125000
G01 X132.794503 Y166.395564 Z-0.125000
G01 X121.676073 Y175.138604 Z-0.125000
G01 X119.128933 Y176.440984 Z-0.125000
G01 X116.471193 Y177.086344 Z-0.125000
G01 X113.339113 Y177.010144 Z-0.125000
G01 X109.519053 Y176.097194 Z-0.125000
G01 X93.347539 Y169.908794 Z-0.125000
G01 X83.493684 Y166.777514 Z-0.125000
G01 X73.492049 Y164.413174 Z-0.125000
G01 X53.618688 Y160.814654 Z-0.125000
G01 X49.374233 Y159.498614 Z-0.125000
G01 X46.399055 Y157.872304 Z-0.125000
G01 X44.487621 Y155.970164 Z-0.125000
G01 X43.120644 Y153.300104 Z-0.125000
G01 X42.225593 Y149.668064 Z-0.125000
G01 X41.287063 Y143.506854 Z-0.125000
G01 X40.788600 Y137.927994 Z-0.125000
G01 X40.721460 Y132.415794 Z-0.125000
G01 X41.087630 Y127.177664 Z-0.125000
G01 X41.959122 Y121.679994 Z-0.125000
G01 X43.261551 Y116.630794 Z-0.125000
G01 X44.888649 Y112.217064 Z-0.125000
G01 X46.946291 Y108.130944 Z-0.125000
G01 X49.434847 Y104.506534 Z-0.125000
G01 X52.349920 Y101.444714 Z-0.125000
G01 X55.331177 Y99.218784 Z-0.125000
G01 X58.640715 Y97.503854 Z-0.125000
G01 X62.683617 Y96.167054 Z-0.125000
G01 X68.459225 Y95.195984 Z-0.125000
G01 X75.713622 Y94.841094 Z-0.125000
G01 X101.741473 Y95.094504 Z-0.125000
G01 X118.537933 Y96.254574 Z-0.125000
G01 X126.161133 Y96.507004 Z-0.125000
G01 X134.691273 Y96.254254 Z-0.125000
G01 X144.456203 Y95.287754 Z-0.125000
G01 X141.466913 Y97.333134 Z-0.125000
G01 X139.904953 Y98.976124 Z-0.125000
G01 X139.077963 Y100.874544 Z-0.125000
G01 X139.032063 Y103.081154 Z-0.125000
G01 X139.615603 Y105.284984 Z-0.125000
G01 X140.748803 Y107.818044 Z-0.125000
G01 X146.238193 Y117.348364 Z-0.125000
G01 X149.473763 Y123.577594 Z-0.125000
G01 X151.251883 Y127.652224 Z-0.125000
G01 X152.611873 Y131.611414 Z-0.125000
G01 X153.757943 Y136.723144 Z-0.125000
G01 X154.170023 Y141.638394 Z-0.125000
G01 X153.885493 Y146.133834 Z-0.125000
G01 X152.907003 Y150.313934 Z-0.125000
G01 X151.778373 Y152.995624 Z-0.125000
G01 X150.305023 Y155.369534 Z-0.125000
G01 X148.513793 Y157.423044 Z-0.125000
G01 X146.445283 Y159.180024 Z-0.125000
G01 X143.429983 Y161.120774 Z-0.125000
G01 X136.310653 Y164.880514 Z-0.125000
G01 X132.768263 Y167.022454 Z-0.125000
G01 X129.398553 Y169.485574 Z-0.125000
G01 X123.417223 Y174.476644 Z-0.125000
G01 X121.289923 Y175.963804 Z-0.125000
G01 X118.716163 Y177.213944 Z-0.125000
G01 X116.257133 Y177.757814 Z-0.125000
G01 X113.105543 Y177.629154 Z-0.125000
G01 X109.555853 Y176.727394 Z-0.125000
G01 X92.540757 Y169.881424 Z-0.125000
G01 X82.566056 Y166.586484 Z-0.125000
G01 X72.474830 Y164.113694 Z-0.125000
G01 X52.560528 Y160.381604 Z-0.125000
G01 X48.640081 Y159.143624 Z-0.125000
G01 X45.638781 Y157.507374 Z-0.125000
G01 X43.715165 Y155.590674 Z-0.125000
G01 X42.346577 Y152.893484 Z-0.125000
G01 X41.412758 Y149.004284 Z-0.125000
G01 X40.408215 Y142.376054 Z-0.125000
G01 X39.915490 Y136.544654 Z-0.125000
G01 X39.886190 Y131.250004 Z-0.125000
G01 X40.297573 Y125.876674 Z-0.125000
G01 X41.138696 Y120.730724 Z-0.125000
G01 X42.476988 Y115.584824 Z-0.125000
G01 X44.146831 Y111.091774 Z-0.125000
G01 X46.254887 Y106.939824 Z-0.125000
G01 X48.799641 Y103.267474 Z-0.125000
G01 X51.458770 Y100.459264 Z-0.125000
G01 X54.460777 Y98.169204 Z-0.125000
G01 X57.796266 Y96.408724 Z-0.125000
G01 X61.875347 Y95.045374 Z-0.125000
G01 X67.713038 Y94.077774 Z-0.125000
G01 X75.064622 Y93.771484 Z-0.125000
G01 X102.094533 Y94.243584 Z-0.125000
G01 X118.737233 Y95.471284 Z-0.125000
G01 X126.107763 Y95.783204 Z-0.125000
G01 X134.259413 Y95.676274 Z-0.125000
G01 X145.580023 Y94.917844 Z-0.125000
G01 X145.342493 Y95.266774 Z-0.125000
G01 X142.116933 Y97.520654 Z-0.125000
G01 X140.577943 Y99.196374 Z-0.125000
G01 X139.708393 Y101.201344 Z-0.125000
G01 X139.663993 Y103.500454 Z-0.125000
G01 X140.188283 Y105.535994 Z-0.125000
G01 X141.314403 Y108.109954 Z-0.125000
G01 X146.876283 Y117.779834 Z-0.125000
G01 X150.153833 Y124.087184 Z-0.125000
G01 X151.946843 Y128.211714 Z-0.125000
G01 X153.309113 Y132.222794 Z-0.125000
G01 X154.440193 Y137.408094 Z-0.125000
G01 X154.820003 Y142.397844 Z-0.125000
G01 X154.490183 Y146.958554 Z-0.125000
G01 X153.452443 Y151.187594 Z-0.125000
G01 X152.407593 Y153.632184 Z-0.125000
G01 X150.912003 Y156.042134 Z-0.125000
G01 X149.089993 Y158.114254 Z-0.125000
G01 X146.981813 Y159.870084 Z-0.125000
G01 X143.902893 Y161.780734 Z-0.125000
G01 X136.354333 Y165.548594 Z-0.125000
G01 X132.739033 Y167.656314 Z-0.125000
G01 X129.312723 Y170.116574 Z-0.125000
G01 X123.259123 Y175.161184 Z-0.125000
G01 X120.896243 Y176.791694 Z-0.125000
G01 X118.515183 Y177.912174 Z-0.125000
G01 X116.038253 Y178.434534 Z-0.125000
G01 X112.866253 Y178.253644 Z-0.125000
G01 X109.294663 Y177.272554 Z-0.125000
G01 X92.622564 Y170.194124 Z-0.125000
G01 X82.130606 Y166.531404 Z-0.125000
G01 X71.456057 Y163.801964 Z-0.125000
G01 X51.517561 Y159.936384 Z-0.125000
G01 X47.634979 Y158.660034 Z-0.125000
G01 X44.688339 Y156.975394 Z-0.125000
G01 X42.823339 Y155.007904 Z-0.125000
G01 X41.518712 Y152.258084 Z-0.125000
G01 X40.617388 Y148.325934 Z-0.125000
G01 X39.539215 Y141.197564 Z-0.125000
G01 X39.074344 Y135.499734 Z-0.125000
G01 X39.067044 Y130.052844 Z-0.125000
G01 X39.469394 Y125.015414 Z-0.125000
G01 X40.333197 Y119.769324 Z-0.125000
G01 X41.708547 Y114.526554 Z-0.125000
G01 X43.422260 Y109.954174 Z-0.125000
G01 X45.581462 Y105.736534 Z-0.125000
G01 X48.182658 Y102.016464 Z-0.125000
G01 X50.896057 Y99.183294 Z-0.125000
G01 X53.955434 Y96.886524 Z-0.125000
G01 X57.351516 Y95.137364 Z-0.125000
G01 X61.502469 Y93.805474 Z-0.125000
G01 X67.442157 Y92.901994 Z-0.125000
G01 X74.924107 Y92.687414 Z-0.125000
G01 X102.960923 Y93.407804 Z-0.125000
G01 X118.917603 Y94.670934 Z-0.125000
G01 X126.463813 Y95.043504 Z-0.125000
G01 X133.694813 Y95.046504 Z-0.125000
G01 X145.110133 Y94.402054 Z-0.125000
G01 X146.684323 Y94.506784 Z-0.125000
G01 X146.504153 Y94.961324 Z-0.125000
G01 X143.136563 Y97.417904 Z-0.125000
G01 X141.350003 Y99.297814 Z-0.125000
G01 X140.383183 Y101.373434 Z-0.125000
G01 X140.273563 Y103.726264 Z-0.125000
G01 X140.769983 Y105.798344 Z-0.125000
G01 X141.888063 Y108.412654 Z-0.125000
G01 X147.683183 Y118.513304 Z-0.125000
G01 X150.978683 Y124.899764 Z-0.125000
G01 X152.764483 Y129.087044 Z-0.125000
G01 X154.010863 Y132.844974 Z-0.125000
G01 X155.125143 Y138.104864 Z-0.125000
G01 X155.471023 Y143.171054 Z-0.125000
G01 X155.094583 Y147.798714 Z-0.125000
G01 X153.996773 Y152.078354 Z-0.125000
G01 X152.906643 Y154.541274 Z-0.125000
G01 X151.355133 Y156.955544 Z-0.125000
G01 X149.674053 Y158.824084 Z-0.125000
G01 X147.527383 Y160.581244 Z-0.125000
G01 X144.385733 Y162.463344 Z-0.125000
G01 X136.664263 Y166.091194 Z-0.125000
G01 X132.707033 Y168.296904 Z-0.125000
G01 X129.464873 Y170.566344 Z-0.125000
G01 X123.316163 Y175.680004 Z-0.125000
G01 X120.711793 Y177.496344 Z-0.125000
G01 X118.310193 Y178.615484 Z-0.125000
G01 X115.814573 Y179.116654 Z-0.125000
G01 X112.621003 Y178.883764 Z-0.125000
G01 X109.026613 Y177.823674 Z-0.125000
G01 X92.252470 Y170.343974 Z-0.125000
G01 X87.119413 Y168.330884 Z-0.125000
G01 X81.694690 Y166.479214 Z-0.125000
G01 X76.088774 Y164.853804 Z-0.125000
G01 X70.436133 Y163.479474 Z-0.125000
G01 X50.850404 Y159.576024 Z-0.125000
G01 X46.933644 Y158.288564 Z-0.125000
G01 X43.963153 Y156.593914 Z-0.125000
G01 X42.087265 Y154.611704 Z-0.125000
G01 X40.781515 Y151.834614 Z-0.125000
G01 X39.798040 Y147.405964 Z-0.125000
G01 X38.679563 Y139.970574 Z-0.125000
G01 X38.246405 Y134.426424 Z-0.125000
G01 X38.247039 Y129.278394 Z-0.125000
G01 X38.657078 Y124.143794 Z-0.125000
G01 X39.544634 Y118.797414 Z-0.125000
G01 X40.958240 Y113.457674 Z-0.125000
G01 X42.716898 Y108.806034 Z-0.125000
G01 X44.928049 Y104.522794 Z-0.125000
G01 X47.585957 Y100.755364 Z-0.125000
G01 X50.353431 Y97.897734 Z-0.125000
G01 X53.469374 Y95.594674 Z-0.125000
G01 X56.924949 Y93.857204 Z-0.125000
G01 X61.146114 Y92.557484 Z-0.125000
G01 X66.700444 Y91.754664 Z-0.125000
G01 X74.270036 Y91.586454 Z-0.125000
G01 X103.328853 Y92.545054 Z-0.125000
G01 X119.575293 Y93.891624 Z-0.125000
G01 X126.800493 Y94.285574 Z-0.125000
G01 X135.030673 Y94.334974 Z-0.125000
G01 X146.106783 Y93.877644 Z-0.125000
G01 X147.813833 Y94.087594 Z-0.125000
G01 X147.880533 Y94.356114 Z-0.125000
G01 X147.569903 Y94.745424 Z-0.125000
G01 X143.911453 Y97.541434 Z-0.125000
G01 X142.028823 Y99.558334 Z-0.125000
G01 X141.023453 Y101.739484 Z-0.125000
G01 X140.894553 Y103.962134 Z-0.125000
G01 X141.446113 Y106.321224 Z-0.125000
G01 X142.612463 Y109.006554 Z-0.125000
G01 X148.339023 Y118.966384 Z-0.125000
G01 X151.674473 Y125.431004 Z-0.125000
G01 X153.472533 Y129.669034 Z-0.125000
G01 X154.718323 Y133.475934 Z-0.125000
G01 X155.767243 Y138.471384 Z-0.125000
G01 X156.127533 Y143.613474 Z-0.125000
G01 X155.700133 Y148.652594 Z-0.125000
G01 X154.541523 Y152.984424 Z-0.125000
G01 X153.405803 Y155.466314 Z-0.125000
G01 X151.974633 Y157.660204 Z-0.125000
G01 X150.267573 Y159.550644 Z-0.125000
G01 X148.083653 Y161.312004 Z-0.125000
G01 X144.880503 Y163.167614 Z-0.125000
G01 X136.710643 Y166.779894 Z-0.125000
G01 X132.674383 Y168.943214 Z-0.125000
G01 X129.379003 Y171.206614 Z-0.125000
G01 X123.156423 Y176.371434 Z-0.125000
G01 X120.307383 Y178.331104 Z-0.125000
G01 X117.879783 Y179.393904 Z-0.125000
G01 X115.588173 Y179.803284 Z-0.125000
G01 X112.371723 Y179.519014 Z-0.125000
G01 X108.753313 Y178.380524 Z-0.125000
G01 X91.423666 Y170.302624 Z-0.125000
G01 X86.230606 Y168.195944 Z-0.125000
G01 X80.752711 Y166.264554 Z-0.125000
G01 X75.102878 Y164.573594 Z-0.125000
G01 X69.417573 Y163.147074 Z-0.125000
G01 X49.837898 Y159.113144 Z-0.125000
G01 X45.964471 Y157.786294 Z-0.125000
G01 X43.052913 Y156.041894 Z-0.125000
G01 X41.238056 Y154.008004 Z-0.125000
G01 X39.995756 Y151.179264 Z-0.125000
G01 X38.910919 Y145.981674 Z-0.125000
G01 X37.831063 Y138.693714 Z-0.125000
G01 X37.433547 Y133.325114 Z-0.125000
G01 X37.460897 Y128.033374 Z-0.125000
G01 X37.921300 Y122.773414 Z-0.125000
G01 X38.772114 Y117.816054 Z-0.125000
G01 X40.225245 Y112.379364 Z-0.125000
G01 X42.029970 Y107.648484 Z-0.125000
G01 X44.293755 Y103.299984 Z-0.125000
G01 X47.008692 Y99.485534 Z-0.125000
G01 X49.829898 Y96.603684 Z-0.125000
G01 X53.001722 Y94.294814 Z-0.125000
G01 X56.515498 Y92.569624 Z-0.125000
G01 X60.805141 Y91.302444 Z-0.125000
G01 X66.448334 Y90.559494 Z-0.125000
G01 X73.610157 Y90.468694 Z-0.125000
G01 X103.698253 Y91.675424 Z-0.125000
G01 X126.637783 Y93.489574 Z-0.125000
G01 X135.159723 Y93.628724 Z-0.125000
G01 X146.744383 Y93.323124 Z-0.125000
G01 X148.199463 Y93.405124 Z-0.125000
G01 X148.943843 Y93.644614 Z-0.125000
G01 X149.034143 Y94.016554 Z-0.125000
G01 X148.631143 Y94.545744 Z-0.125000
G01 X144.537853 Y97.817564 Z-0.125000
G01 X142.707373 Y99.841814 Z-0.125000
G01 X141.715823 Y101.935714 Z-0.125000
G01 X141.547123 Y104.432224 Z-0.125000
G01 X142.044953 Y106.605684 Z-0.125000
G01 X143.203853 Y109.330014 Z-0.125000
G01 X149.166983 Y119.725474 Z-0.125000
G01 X152.376573 Y125.969374 Z-0.125000
G01 X154.186013 Y130.258264 Z-0.125000
G01 X155.429993 Y134.114554 Z-0.125000
G01 X156.460513 Y139.181924 Z-0.125000
G01 X156.784693 Y144.403624 Z-0.125000
G01 X156.305373 Y149.518964 Z-0.125000
G01 X155.085203 Y153.904814 Z-0.125000
G01 X153.903753 Y156.406524 Z-0.125000
G01 X152.422183 Y158.605794 Z-0.125000
G01 X150.660683 Y160.486194 Z-0.125000
G01 X148.649403 Y162.061534 Z-0.125000
G01 X145.121303 Y164.017344 Z-0.125000
G01 X137.318443 Y167.228624 Z-0.125000
G01 X133.715683 Y168.980224 Z-0.125000
G01 X129.291943 Y171.851234 Z-0.125000
G01 X123.218563 Y176.888934 Z-0.125000
G01 X120.779733 Y178.650374 Z-0.125000
G01 X118.118583 Y179.959544 Z-0.125000
G01 X115.358163 Y180.494554 Z-0.125000
G01 X112.379343 Y180.218174 Z-0.125000
G01 X108.771333 Y179.064934 Z-0.125000
G01 X91.041791 Y170.455664 Z-0.125000
G01 X85.821291 Y168.243614 Z-0.125000
G01 X80.314469 Y166.213024 Z-0.125000
G01 X74.634064 Y164.432734 Z-0.125000
G01 X68.916583 Y162.929654 Z-0.125000
G01 X48.842521 Y158.641894 Z-0.125000
G01 X45.015748 Y157.274604 Z-0.125000
G01 X42.364797 Y155.648214 Z-0.125000
G01 X40.540054 Y153.599404 Z-0.125000
G01 X39.364938 Y150.971724 Z-0.125000
G01 X38.289207 Y145.971814 Z-0.125000
G01 X37.072662 Y138.087314 Z-0.125000
G01 X36.666382 Y133.044894 Z-0.125000
G01 X36.649292 Y127.703694 Z-0.125000
G01 X37.076567 Y122.374164 Z-0.125000
G01 X37.906972 Y117.334254 Z-0.125000
G01 X39.349580 Y111.789304 Z-0.125000
G01 X41.154502 Y106.949514 Z-0.125000
G01 X43.425635 Y102.488834 Z-0.125000
G01 X46.152851 Y98.566394 Z-0.125000
G01 X48.988022 Y95.597384 Z-0.125000
G01 X52.176105 Y93.216244 Z-0.125000
G01 X55.709069 Y91.437504 Z-0.125000
G01 X60.025273 Y90.136094 Z-0.125000
G01 X65.711286 Y89.388174 Z-0.125000
G01 X72.944347 Y89.335974 Z-0.125000
G01 X89.684477 Y90.260404 Z-0.125000
G01 X104.603993 Y90.832384 Z-0.125000
G01 X126.426703 Y92.667964 Z-0.125000
G01 X134.805323 Y92.893544 Z-0.125000
G01 X147.297303 Y92.727774 Z-0.125000
G01 X149.125543 Y92.854234 Z-0.125000
G01 X150.070713 Y93.177074 Z-0.125000
G01 X150.210603 Y93.611844 Z-0.125000
G01 X149.762723 Y94.284754 Z-0.125000
G01 X145.297893 Y97.997234 Z-0.125000
G01 X143.385163 Y100.147694 Z-0.125000
G01 X142.363893 Y102.336944 Z-0.125000
G01 X142.182993 Y104.689524 Z-0.125000
G01 X142.652063 Y106.897864 Z-0.125000
G01 X143.802573 Y109.660504 Z-0.125000
G01 X149.838303 Y120.195094 Z-0.125000
G01 X153.084273 Y126.513724 Z-0.125000
G01 X154.904103 Y130.853624 Z-0.125000
G01 X156.145233 Y134.759794 Z-0.125000
G01 X157.155543 Y139.900054 Z-0.125000
G01 X157.442073 Y145.203104 Z-0.125000
G01 X156.909623 Y150.396924 Z-0.125000
G01 X155.627333 Y154.838634 Z-0.125000
G01 X154.399953 Y157.361034 Z-0.125000
G01 X152.868143 Y159.566024 Z-0.125000
G01 X151.052313 Y161.436374 Z-0.125000
G01 X148.983293 Y162.986634 Z-0.125000
G01 X145.360953 Y164.879594 Z-0.125000
G01 X137.374733 Y167.941334 Z-0.125000
G01 X133.424813 Y169.794064 Z-0.125000
G01 X129.203893 Y172.500204 Z-0.125000
G01 X123.058573 Y177.585914 Z-0.125000
G01 X120.594873 Y179.365124 Z-0.125000
G01 X117.908743 Y180.676344 Z-0.125000
G01 X115.124723 Y181.190624 Z-0.125000
G01 X112.122223 Y180.869154 Z-0.125000
G01 X108.487403 Y179.641184 Z-0.125000
G01 X90.654108 Y170.616974 Z-0.125000
G01 X84.915663 Y168.096434 Z-0.125000
G01 X79.361795 Y165.986964 Z-0.125000
G01 X73.644778 Y164.141614 Z-0.125000
G01 X67.902444 Y162.586634 Z-0.125000
G01 X48.221236 Y158.266484 Z-0.125000
G01 X44.365191 Y156.887124 Z-0.125000
G01 X41.694930 Y155.251044 Z-0.125000
G01 X39.860299 Y153.187644 Z-0.125000
G01 X38.683816 Y150.535024 Z-0.125000
G01 X37.422254 Y144.485924 Z-0.125000
G01 X36.285881 Y137.111784 Z-0.125000
G01 X35.878381 Y131.915514 Z-0.125000
G01 X35.890591 Y126.427804 Z-0.125000
G01 X36.307662 Y121.479304 Z-0.125000
G01 X37.161918 Y116.348154 Z-0.125000
G01 X38.645589 Y110.705984 Z-0.125000
G01 X40.498042 Y105.786294 Z-0.125000
G01 X42.823128 Y101.259264 Z-0.125000
G01 X45.607568 Y97.288564 Z-0.125000
G01 X48.495836 Y94.294204 Z-0.125000
G01 X51.737848 Y91.905964 Z-0.125000
G01 X55.326156 Y90.138244 Z-0.125000
G01 X59.706640 Y88.868364 Z-0.125000
G01 X65.475583 Y88.179354 Z-0.125000
G01 X72.273166 Y88.189354 Z-0.125000
G01 X89.819216 Y89.305754 Z-0.125000
G01 X104.981073 Y89.953504 Z-0.125000
G01 X126.671573 Y91.850774 Z-0.125000
G01 X134.810873 Y92.127864 Z-0.125000
G01 X147.987033 Y92.099064 Z-0.125000
G01 X150.151853 Y92.291924 Z-0.125000
G01 X151.191743 Y92.683754 Z-0.125000
G01 X151.375323 Y93.248304 Z-0.125000
G01 X150.820933 Y94.107364 Z-0.125000
G01 X146.053873 Y98.199314 Z-0.125000
G01 X144.062223 Y100.474894 Z-0.125000
G01 X143.070663 Y102.553944 Z-0.125000
G01 X142.828243 Y104.954004 Z-0.125000
G01 X143.267533 Y107.196604 Z-0.125000
G01 X144.408803 Y109.996684 Z-0.125000
G01 X150.684293 Y120.975474 Z-0.125000
G01 X153.939713 Y127.370384 Z-0.125000
G01 X155.627063 Y131.453864 Z-0.125000
G01 X156.864063 Y135.410144 Z-0.125000
G01 X157.852513 Y140.624374 Z-0.125000
G01 X158.099793 Y146.010704 Z-0.125000
G01 X157.513073 Y151.285114 Z-0.125000
G01 X156.168223 Y155.784634 Z-0.125000
G01 X154.894963 Y158.328684 Z-0.125000
G01 X153.503373 Y160.311544 Z-0.125000
G01 X151.664033 Y162.210814 Z-0.125000
G01 X149.564203 Y163.770924 Z-0.125000
G01 X145.879003 Y165.639904 Z-0.125000
G01 X137.431213 Y168.661544 Z-0.125000
G01 X133.404713 Y170.463214 Z-0.125000
G01 X129.116023 Y173.153224 Z-0.125000
G01 X122.670593 Y178.468164 Z-0.125000
G01 X120.409543 Y180.083494 Z-0.125000
G01 X117.697683 Y181.397054 Z-0.125000
G01 X114.888803 Y181.891244 Z-0.125000
G01 X111.860973 Y181.525664 Z-0.125000
G01 X108.197733 Y180.224064 Z-0.125000
G01 X90.260843 Y170.787784 Z-0.125000
G01 X84.497057 Y168.151844 Z-0.125000
G01 X78.920023 Y165.942134 Z-0.125000
G01 X73.179080 Y164.005854 Z-0.125000
G01 X67.411431 Y162.372164 Z-0.125000
G01 X47.257979 Y157.785704 Z-0.125000
G01 X43.453153 Y156.364614 Z-0.125000
G01 X40.841825 Y154.680994 Z-0.125000
G01 X39.070764 Y152.564374 Z-0.125000
G01 X37.953117 Y149.863304 Z-0.125000
G01 X36.452942 Y142.359334 Z-0.125000
G01 X35.510165 Y136.114654 Z-0.125000
G01 X35.104129 Y130.761824 Z-0.125000
G01 X35.128539 Y125.617414 Z-0.125000
G01 X35.555545 Y120.579904 Z-0.125000
G01 X36.434777 Y115.357594 Z-0.125000
G01 X37.960975 Y109.618434 Z-0.125000
G01 X39.862180 Y104.619274 Z-0.125000
G01 X42.241976 Y100.026374 Z-0.125000
G01 X44.779479 Y96.379744 Z-0.125000
G01 X47.680662 Y93.293704 Z-0.125000
G01 X50.936833 Y90.827884 Z-0.125000
G01 X54.540961 Y89.001214 Z-0.125000
G01 X58.942684 Y87.691144 Z-0.125000
G01 X64.746587 Y86.990954 Z-0.125000
G01 X71.599855 Y87.030954 Z-0.125000
G01 X89.958670 Y88.348454 Z-0.125000
G01 X105.911853 Y89.109744 Z-0.125000
G01 X127.407213 Y91.049134 Z-0.125000
G01 X134.764113 Y91.336644 Z-0.125000
G01 X149.325253 Y91.475554 Z-0.125000
G01 X151.306823 Y91.735204 Z-0.125000
G01 X152.306583 Y92.163904 Z-0.125000
G01 X152.544853 Y92.876614 Z-0.125000
G01 X151.963063 Y93.847004 Z-0.125000
G01 X146.807793 Y98.423574 Z-0.125000
G01 X144.740703 Y100.822724 Z-0.125000
G01 X143.727753 Y102.986244 Z-0.125000
G01 X143.500233 Y105.464864 Z-0.125000
G01 X143.975493 Y107.770104 Z-0.125000
G01 X145.172273 Y110.638334 Z-0.125000
G01 X151.202233 Y121.147474 Z-0.125000
G01 X154.518883 Y127.615634 Z-0.125000
G01 X156.356533 Y132.057864 Z-0.125000
G01 X157.588243 Y136.064604 Z-0.125000
G01 X158.553073 Y141.353814 Z-0.125000
G01 X158.759603 Y146.825064 Z-0.125000
G01 X158.117613 Y152.182424 Z-0.125000
G01 X156.709893 Y156.741814 Z-0.125000
G01 X155.390643 Y159.308464 Z-0.125000
G01 X153.954943 Y161.298354 Z-0.125000
G01 X152.286193 Y162.997544 Z-0.125000
G01 X150.157043 Y164.571204 Z-0.125000
G01 X146.411053 Y166.420114 Z-0.125000
G01 X137.490503 Y169.388774 Z-0.125000
G01 X133.387473 Y171.137614 Z-0.125000
G01 X128.772723 Y173.999714 Z-0.125000
G01 X122.510853 Y179.174084 Z-0.125000
G01 X120.226413 Y180.805304 Z-0.125000
G01 X117.487943 Y182.121704 Z-0.125000
G01 X114.652923 Y182.596534 Z-0.125000
G01 X111.598083 Y182.187904 Z-0.125000
G01 X107.904633 Y180.814024 Z-0.125000
G01 X89.863871 Y170.969294 Z-0.125000
G01 X84.077229 Y168.217784 Z-0.125000
G01 X78.479880 Y165.907294 Z-0.125000
G01 X72.718431 Y163.878854 Z-0.125000
G01 X66.406715 Y162.024524 Z-0.125000
G01 X46.315467 Y157.300744 Z-0.125000
G01 X42.839409 Y155.973834 Z-0.125000
G01 X40.210113 Y154.279934 Z-0.125000
G01 X38.429679 Y152.148324 Z-0.125000
G01 X37.310542 Y149.421944 Z-0.125000
G01 X35.623976 Y140.948234 Z-0.125000
G01 X34.747380 Y135.096924 Z-0.125000
G01 X34.361461 Y130.039004 Z-0.125000
G01 X34.378551 Y124.804004 Z-0.125000
G01 X34.816225 Y119.677554 Z-0.125000
G01 X35.721480 Y114.364304 Z-0.125000
G01 X37.291598 Y108.528494 Z-0.125000
G01 X39.242947 Y103.450364 Z-0.125000
G01 X41.678355 Y98.791934 Z-0.125000
G01 X44.268053 Y95.101784 Z-0.125000
G01 X47.221602 Y91.989174 Z-0.125000
G01 X50.530040 Y89.514974 Z-0.125000
G01 X54.186559 Y87.697924 Z-0.125000
G01 X58.648142 Y86.417834 Z-0.125000
G01 X64.017935 Y85.796504 Z-0.125000
G01 X70.921054 Y85.861904 Z-0.125000
G01 X89.505287 Y87.349284 Z-0.125000
G01 X106.294693 Y88.224274 Z-0.125000
G01 X127.613083 Y90.204874 Z-0.125000
G01 X135.138753 Y90.533444 Z-0.125000
G01 X149.721943 Y90.771224 Z-0.125000
G01 X152.157643 Y91.086494 Z-0.125000
G01 X153.408283 Y91.616154 Z-0.125000
G01 X153.695453 Y92.015674 Z-0.125000
G01 X153.714953 Y92.495844 Z-0.125000
G01 X153.016893 Y93.692114 Z-0.125000
G01 X147.384413 Y98.838304 Z-0.125000
G01 X145.417783 Y101.189484 Z-0.125000
G01 X144.387333 Y103.435694 Z-0.125000
G01 X144.160303 Y105.744224 Z-0.125000
G01 X144.526003 Y107.809374 Z-0.125000
G01 X145.504083 Y110.380534 Z-0.125000
G01 X151.719933 Y121.313404 Z-0.125000
G01 X154.500833 Y126.607094 Z-0.125000
G01 X156.727723 Y131.682004 Z-0.125000
G01 X158.227433 Y136.374784 Z-0.125000
G01 X159.214423 Y141.720204 Z-0.125000
G01 X159.433413 Y147.273294 Z-0.125000
G01 X158.794523 Y152.735804 Z-0.125000
G01 X157.380603 Y157.400234 Z-0.125000
G01 X156.051663 Y160.028354 Z-0.125000
G01 X154.602653 Y162.063224 Z-0.125000
G01 X152.688863 Y163.989494 Z-0.125000
G01 X150.503753 Y165.540494 Z-0.125000
G01 X146.665803 Y167.326424 Z-0.125000
G01 X137.550233 Y170.122164 Z-0.125000
G01 X133.370793 Y171.816494 Z-0.125000
G01 X131.104363 Y173.046664 Z-0.125000
G01 X128.684723 Y174.660114 Z-0.125000
G01 X122.351363 Y179.882554 Z-0.125000
G01 X119.813523 Y181.669774 Z-0.125000
G01 X117.043993 Y182.921884 Z-0.125000
G01 X114.414503 Y183.305904 Z-0.125000
G01 X111.330983 Y182.855364 Z-0.125000
G01 X107.605273 Y181.410804 Z-0.125000
G01 X88.991466 Y170.917184 Z-0.125000
G01 X83.152357 Y168.065794 Z-0.125000
G01 X77.517760 Y165.677744 Z-0.125000
G01 X71.730775 Y163.584904 Z-0.125000
G01 X65.405241 Y161.674374 Z-0.125000
G01 X45.742685 Y156.922694 Z-0.125000
G01 X42.243068 Y155.583234 Z-0.125000
G01 X39.595877 Y153.878884 Z-0.125000
G01 X37.805898 Y151.732304 Z-0.125000
G01 X36.684832 Y148.980734 Z-0.125000
G01 X34.849102 Y139.783384 Z-0.125000
G01 X33.994406 Y134.058824 Z-0.125000
G01 X33.614346 Y128.852084 Z-0.125000
G01 X33.667326 Y123.480244 Z-0.125000
G01 X34.162419 Y118.238294 Z-0.125000
G01 X35.024098 Y113.369314 Z-0.125000
G01 X36.639672 Y107.437464 Z-0.125000
G01 X38.642386 Y102.280644 Z-0.125000
G01 X41.134408 Y97.557384 Z-0.125000
G01 X43.776520 Y93.824134 Z-0.125000
G01 X46.782264 Y90.685384 Z-0.125000
G01 X50.142043 Y88.203084 Z-0.125000
G01 X53.849658 Y86.395914 Z-0.125000
G01 X58.369002 Y85.145804 Z-0.125000
G01 X63.805930 Y84.576034 Z-0.125000
G01 X70.796716 Y84.717874 Z-0.125000
G01 X89.637846 Y86.383904 Z-0.125000
G01 X106.675213 Y87.335034 Z-0.125000
G01 X127.793163 Y89.346564 Z-0.125000
G01 X134.995103 Y89.697964 Z-0.125000
G01 X150.286083 Y90.047844 Z-0.125000
G01 X153.129703 Y90.442254 Z-0.125000
G01 X154.572503 Y91.108074 Z-0.125000
G01 X154.866153 Y91.564734 Z-0.125000
G01 X154.885653 Y92.105754 Z-0.125000
G01 X154.164033 Y93.430884 Z-0.125000
G01 X148.122763 Y99.113294 Z-0.125000
G01 X146.094753 Y101.574454 Z-0.125000
G01 X145.112823 Y103.678364 Z-0.125000
G01 X144.829583 Y106.027584 Z-0.125000
G01 X145.167263 Y108.121144 Z-0.125000
G01 X146.133453 Y110.723704 Z-0.125000
G01 X152.415453 Y121.790994 Z-0.125000
G01 X155.226263 Y127.145744 Z-0.125000
G01 X157.465293 Y132.277534 Z-0.125000
G01 X158.958333 Y137.028114 Z-0.125000
G01 X159.919553 Y142.449374 Z-0.125000
G01 X160.095563 Y148.090484 Z-0.125000
G01 X159.400293 Y153.641324 Z-0.125000
G01 X157.923643 Y158.371824 Z-0.125000
G01 X156.549683 Y161.026424 Z-0.125000
G01 X155.057543 Y163.071304 Z-0.125000
G01 X153.324323 Y164.798644 Z-0.125000
G01 X151.112493 Y166.368884 Z-0.125000
G01 X147.217313 Y168.140394 Z-0.125000
G01 X137.612653 Y170.861564 Z-0.125000
G01 X133.063093 Y172.639734 Z-0.125000
G01 X128.599483 Y175.323614 Z-0.125000
G01 X122.194293 Y180.593654 Z-0.125000
G01 X119.629903 Y182.398104 Z-0.125000
G01 X116.831893 Y183.652344 Z-0.125000
G01 X114.175723 Y184.019374 Z-0.125000
G01 X111.061583 Y183.528324 Z-0.125000
G01 X107.301463 Y182.014754 Z-0.125000
G01 X88.580476 Y171.113014 Z-0.125000
G01 X82.723552 Y168.146724 Z-0.125000
G01 X77.074794 Y165.657654 Z-0.125000
G01 X71.274333 Y163.471534 Z-0.125000
G01 X64.932955 Y161.471934 Z-0.125000
G01 X44.834359 Y156.435464 Z-0.125000
G01 X41.387060 Y155.055524 Z-0.125000
G01 X38.802122 Y153.301574 Z-0.125000
G01 X37.200806 Y151.317724 Z-0.125000
G01 X36.077347 Y148.540954 Z-0.125000
G01 X34.138278 Y138.906664 Z-0.125000
G01 X33.252650 Y133.001494 Z-0.125000
G01 X32.881965 Y127.643994 Z-0.125000
G01 X32.945675 Y122.655454 Z-0.125000
G01 X33.454416 Y117.324624 Z-0.125000
G01 X34.342314 Y112.374434 Z-0.125000
G01 X36.004907 Y106.347054 Z-0.125000
G01 X38.060377 Y101.112344 Z-0.125000
G01 X40.609916 Y96.324824 Z-0.125000
G01 X43.304761 Y92.548994 Z-0.125000
G01 X46.362455 Y89.384544 Z-0.125000
G01 X49.772671 Y86.894504 Z-0.125000
G01 X53.529770 Y85.097294 Z-0.125000
G01 X58.104654 Y83.877064 Z-0.125000
G01 X63.606008 Y83.358464 Z-0.125000
G01 X70.117129 Y83.535944 Z-0.125000
G01 X89.771604 Y85.418034 Z-0.125000
G01 X107.629493 Y86.490904 Z-0.125000
G01 X127.401973 Y88.436884 Z-0.125000
G01 X134.795673 Y88.840854 Z-0.125000
G01 X151.073533 Y89.314964 Z-0.125000
G01 X154.078043 Y89.770074 Z-0.125000
G01 X155.653443 Y90.510054 Z-0.125000
G01 X156.003543 Y91.010524 Z-0.125000
G01 X156.053843 Y91.706044 Z-0.125000
G01 X155.208523 Y93.298964 Z-0.125000
G01 X148.855213 Y99.407854 Z-0.125000
G01 X146.769763 Y101.976514 Z-0.125000
G01 X145.777773 Y104.151914 Z-0.125000
G01 X145.515763 Y106.568264 Z-0.125000
G01 X145.973143 Y108.997714 Z-0.125000
G01 X147.213193 Y112.002754 Z-0.125000
G01 X153.293033 Y122.590634 Z-0.125000
G01 X156.710303 Y129.282554 Z-0.125000
G01 X158.449003 Y133.541344 Z-0.125000
G01 X159.690543 Y137.681334 Z-0.125000
G01 X160.624143 Y143.179244 Z-0.125000
G01 X160.755723 Y148.910154 Z-0.125000
G01 X160.003143 Y154.551664 Z-0.125000
G01 X158.463723 Y159.350504 Z-0.125000
G01 X157.045013 Y162.032894 Z-0.125000
G01 X155.510103 Y164.088614 Z-0.125000
G01 X153.731343 Y165.812524 Z-0.125000
G01 X151.465193 Y167.361974 Z-0.125000
G01 X147.480293 Y169.070974 Z-0.125000
G01 X137.676313 Y171.606474 Z-0.125000
G01 X133.045673 Y173.324074 Z-0.125000
G01 X130.720413 Y174.549334 Z-0.125000
G01 X128.515613 Y175.989864 Z-0.125000
G01 X122.038333 Y181.307124 Z-0.125000
G01 X119.446823 Y183.129004 Z-0.125000
G01 X116.619343 Y184.385984 Z-0.125000
G01 X113.934993 Y184.736984 Z-0.125000
G01 X110.788323 Y184.206864 Z-0.125000
G01 X106.991573 Y182.626154 Z-0.125000
G01 X88.162068 Y171.322604 Z-0.125000
G01 X82.289768 Y168.241984 Z-0.125000
G01 X76.106068 Y165.430544 Z-0.125000
G01 X70.288274 Y163.181044 Z-0.125000
G01 X63.942184 Y161.125564 Z-0.125000
G01 X43.944364 Y155.947204 Z-0.125000
G01 X40.551310 Y154.525644 Z-0.125000
G01 X38.222416 Y152.903324 Z-0.125000
G01 X36.612188 Y150.905694 Z-0.125000
G01 X35.485825 Y148.103844 Z-0.125000
G01 X33.372936 Y137.678114 Z-0.125000
G01 X32.519948 Y131.925744 Z-0.125000
G01 X32.174432 Y126.903294 Z-0.125000
G01 X32.235462 Y121.831484 Z-0.125000
G01 X32.758606 Y116.412164 Z-0.125000
G01 X33.673798 Y111.381244 Z-0.125000
G01 X35.385119 Y105.259044 Z-0.125000
G01 X37.494639 Y99.947094 Z-0.125000
G01 X40.102696 Y95.096004 Z-0.125000
G01 X42.850737 Y91.278134 Z-0.125000
G01 X45.959941 Y88.088414 Z-0.125000
G01 X49.419716 Y85.590944 Z-0.125000
G01 X53.224811 Y83.803804 Z-0.125000
G01 X57.371444 Y82.697144 Z-0.125000
G01 X62.890424 Y82.156444 Z-0.125000
G01 X69.433574 Y82.348324 Z-0.125000
G01 X88.666784 Y84.343964 Z-0.125000
G01 X107.424333 Y85.548034 Z-0.125000
G01 X127.516403 Y87.551504 Z-0.125000
G01 X135.058213 Y87.985244 Z-0.125000
G01 X151.530223 Y88.530024 Z-0.125000
G01 X154.801583 Y89.017624 Z-0.125000
G01 X156.712943 Y89.882524 Z-0.125000
G01 X157.075933 Y90.329374 Z-0.125000
G01 X157.242673 Y90.951074 Z-0.125000
G01 X156.745503 Y92.461054 Z-0.125000
G01 X155.137673 Y94.442484 Z-0.125000
G01 X149.966523 Y99.328144 Z-0.125000
G01 X148.019403 Y101.547014 Z-0.125000
G01 X146.588653 Y104.173554 Z-0.125000
G01 X146.252593 Y105.599554 Z-0.125000
G01 X146.195193 Y106.860144 Z-0.125000
G01 X146.622593 Y109.319694 Z-0.125000
G01 X147.853993 Y112.358324 Z-0.125000
G01 X154.178043 Y123.396284 Z-0.125000
G01 X157.449013 Y129.837364 Z-0.125000
G01 X159.192243 Y134.142844 Z-0.125000
G01 X160.424603 Y138.333114 Z-0.125000
G01 X161.328763 Y143.908414 Z-0.125000
G01 X161.414463 Y149.730774 Z-0.125000
G01 X160.603753 Y155.465364 Z-0.125000
G01 X159.905693 Y157.983564 Z-0.125000
G01 X159.001593 Y160.334994 Z-0.125000
G01 X157.717633 Y162.764584 Z-0.125000
G01 X156.172323 Y164.874224 Z-0.125000
G01 X154.378513 Y166.638834 Z-0.125000
G01 X152.088653 Y168.214054 Z-0.125000
G01 X150.133103 Y169.164984 Z-0.125000
G01 X147.744473 Y170.009574 Z-0.125000
G01 X137.742713 Y172.356244 Z-0.125000
G01 X133.031143 Y174.011884 Z-0.125000
G01 X130.669903 Y175.221174 Z-0.125000
G01 X128.434533 Y176.658484 Z-0.125000
G01 X121.644963 Y182.211374 Z-0.125000
G01 X119.265783 Y183.862104 Z-0.125000
G01 X116.407733 Y185.122424 Z-0.125000
G01 X113.693743 Y185.458444 Z-0.125000
G01 X110.512323 Y184.890794 Z-0.125000
G01 X106.676543 Y183.245044 Z-0.125000
G01 X103.033403 Y181.145794 Z-0.125000
G01 X87.737005 Y171.546684 Z-0.125000
G01 X81.851783 Y168.352404 Z-0.125000
G01 X75.659416 Y165.430764 Z-0.125000
G01 X69.835446 Y163.087074 Z-0.125000
G01 X63.481665 Y160.940614 Z-0.125000
G01 X43.418640 Y155.577764 Z-0.125000
G01 X40.004420 Y154.141674 Z-0.125000
G01 X37.660095 Y152.508574 Z-0.125000
G01 X36.040567 Y150.496894 Z-0.125000
G01 X34.910713 Y147.669954 Z-0.125000
G01 X32.675050 Y136.762994 Z-0.125000
G01 X31.844450 Y131.268544 Z-0.125000
G01 X31.478915 Y126.164384 Z-0.125000
G01 X31.537505 Y121.009464 Z-0.125000
G01 X31.998518 Y116.063934 Z-0.125000
G01 X32.892593 Y110.961394 Z-0.125000
G01 X34.593709 Y104.731554 Z-0.125000
G01 X36.706477 Y99.307354 Z-0.125000
G01 X39.325446 Y94.336834 Z-0.125000
G01 X42.085937 Y90.411864 Z-0.125000
G01 X45.207299 Y87.121634 Z-0.125000
G01 X48.677206 Y84.536384 Z-0.125000
G01 X52.490748 Y82.679224 Z-0.125000
G01 X57.128031 Y81.436144 Z-0.125000
G01 X62.178258 Y80.955694 Z-0.125000
G01 X68.747898 Y81.156854 Z-0.125000
G01 X89.408989 Y83.429674 Z-0.125000
G01 X107.790843 Y84.651194 Z-0.125000
G01 X127.036333 Y86.610724 Z-0.125000
G01 X134.759073 Y87.092464 Z-0.125000
G01 X152.237273 Y87.742924 Z-0.125000
G01 X155.887793 Y88.341044 Z-0.125000
G01 X157.120353 Y88.810574 Z-0.125000
G01 X157.849613 Y89.315994 Z-0.125000
G01 X158.275473 Y89.919754 Z-0.125000
G01 X158.402663 Y90.621034 Z-0.125000
G01 X157.812553 Y92.296884 Z-0.125000
G01 X156.090313 Y94.455034 Z-0.125000
G01 X150.700733 Y99.641324 Z-0.125000
G01 X148.702433 Y101.950284 Z-0.125000
G01 X147.339583 Y104.424044 Z-0.125000
G01 X146.965483 Y105.874464 Z-0.125000
G01 X146.882183 Y107.153094 Z-0.125000
G01 X147.200043 Y109.352654 Z-0.125000
G01 X148.055643 Y111.758474 Z-0.125000
G01 X149.554453 Y114.698474 Z-0.125000
G01 X154.710873 Y123.550674 Z-0.125000
G01 X157.426463 Y128.758074 Z-0.125000
G01 X159.695673 Y134.058334 Z-0.125000
G01 X161.160293 Y138.982224 Z-0.125000
G01 X162.033323 Y144.635544 Z-0.125000
G01 X162.071623 Y150.550994 Z-0.125000
G01 X161.202003 Y156.381194 Z-0.125000
G01 X160.473553 Y158.939104 Z-0.125000
G01 X159.537263 Y161.324064 Z-0.125000
G01 X158.214353 Y163.781474 Z-0.125000
G01 X156.627833 Y165.905544 Z-0.125000
G01 X154.790173 Y167.669744 Z-0.125000
G01 X152.447923 Y169.226704 Z-0.125000
G01 X150.449673 Y170.151344 Z-0.125000
G01 X148.010483 Y170.955574 Z-0.125000
G01 X137.812473 Y173.110574 Z-0.125000
G01 X133.020103 Y174.702794 Z-0.125000
G01 X130.622893 Y175.895604 Z-0.125000
G01 X128.082903 Y177.523414 Z-0.125000
G01 X121.491953 Y182.930584 Z-0.125000
G01 X119.087253 Y184.597204 Z-0.125000
G01 X116.197693 Y185.861474 Z-0.125000
G01 X113.452513 Y186.183574 Z-0.125000
G01 X110.234253 Y185.580084 Z-0.125000
G01 X106.356893 Y183.871504 Z-0.125000
G01 X102.679843 Y181.701434 Z-0.125000
G01 X86.828262 Y171.504154 Z-0.125000
G01 X80.902857 Y168.214204 Z-0.125000
G01 X74.685962 Y165.211284 Z-0.125000
G01 X68.853251 Y162.805424 Z-0.125000
G01 X62.503817 Y160.603204 Z-0.125000
G01 X42.563075 Y155.093804 Z-0.125000
G01 X39.474841 Y153.762664 Z-0.125000
G01 X37.114893 Y152.118214 Z-0.125000
G01 X35.485599 Y150.092444 Z-0.125000
G01 X34.419755 Y147.487954 Z-0.125000
G01 X32.052776 Y136.194224 Z-0.125000
G01 X31.181161 Y130.614214 Z-0.125000
G01 X30.795218 Y125.428394 Z-0.125000
G01 X30.851608 Y120.190774 Z-0.125000
G01 X31.326171 Y115.166644 Z-0.125000
G01 X32.248418 Y109.984434 Z-0.125000
G01 X34.000166 Y103.660834 Z-0.125000
G01 X36.169254 Y98.159944 Z-0.125000
G01 X38.848597 Y93.125854 Z-0.125000
G01 X41.663040 Y89.158384 Z-0.125000
G01 X44.835743 Y85.842084 Z-0.125000
G01 X48.353645 Y83.247994 Z-0.125000
G01 X52.212205 Y81.399074 Z-0.125000
G01 X56.898143 Y80.183314 Z-0.125000
G01 X61.470122 Y79.758554 Z-0.125000
G01 X67.491568 Y79.919924 Z-0.125000
G01 X89.531582 Y82.461774 Z-0.125000
G01 X108.151853 Y83.752804 Z-0.125000
G01 X127.085293 Y85.702834 Z-0.125000
G01 X134.948383 Y86.208914 Z-0.125000
G01 X152.238313 Y86.870744 Z-0.125000
G01 X156.522803 Y87.522354 Z-0.125000
G01 X157.904703 Y88.010654 Z-0.125000
G01 X158.871723 Y88.634944 Z-0.125000
G01 X159.366033 Y89.282234 Z-0.125000
G01 X159.556453 Y90.167154 Z-0.125000
G01 X159.399723 Y91.031144 Z-0.125000
G01 X158.868253 Y92.150464 Z-0.125000
G01 X157.032723 Y94.487554 Z-0.125000
G01 X151.636613 Y99.758884 Z-0.125000
G01 X149.546253 Y102.144984 Z-0.125000
G01 X148.098613 Y104.675404 Z-0.125000
G01 X147.685923 Y106.149924 Z-0.125000
G01 X147.576303 Y107.446034 Z-0.125000
G01 X147.864763 Y109.671114 Z-0.125000
G01 X148.848973 Y112.420434 Z-0.125000
G01 X150.211803 Y115.072864 Z-0.125000
G01 X155.426543 Y124.027184 Z-0.125000
G01 X158.325653 Y129.619484 Z-0.125000
G01 X160.445013 Y134.646194 Z-0.125000
G01 X161.897313 Y139.627434 Z-0.125000
G01 X162.737383 Y145.359244 Z-0.125000
G01 X162.727383 Y151.369464 Z-0.125000
G01 X162.349053 Y154.571634 Z-0.125000
G01 X161.798193 Y157.297634 Z-0.125000
G01 X161.039303 Y159.896654 Z-0.125000
G01 X160.071203 Y162.316284 Z-0.125000
G01 X158.709843 Y164.802834 Z-0.125000
G01 X157.082623 Y166.942464 Z-0.125000
G01 X155.202023 Y168.706924 Z-0.125000
G01 X152.808413 Y170.245974 Z-0.125000
G01 X150.768083 Y171.144464 Z-0.125000
G01 X148.598093 Y171.825384 Z-0.125000
G01 X137.886653 Y173.868774 Z-0.125000
G01 X133.013593 Y175.396384 Z-0.125000
G01 X130.580323 Y176.572164 Z-0.125000
G01 X128.006253 Y178.196274 Z-0.125000
G01 X121.342943 Y183.651244 Z-0.125000
G01 X118.912343 Y185.333814 Z-0.125000
G01 X115.990043 Y186.602794 Z-0.125000
G01 X113.212093 Y186.912134 Z-0.125000
G01 X111.620223 Y186.719264 Z-0.125000
G01 X109.669153 Y186.176764 Z-0.125000
G01 X105.711493 Y184.327734 Z-0.125000
G01 X101.963183 Y182.035484 Z-0.125000
G01 X86.389228 Y171.750994 Z-0.125000
G01 X80.456280 Y168.349424 Z-0.125000
G01 X74.238011 Y165.236974 Z-0.125000
G01 X67.874539 Y162.527504 Z-0.125000
G01 X61.534528 Y160.270114 Z-0.125000
G01 X42.069375 Y154.735834 Z-0.125000
G01 X38.691383 Y153.239734 Z-0.125000
G01 X36.390417 Y151.546774 Z-0.125000
G01 X34.821276 Y149.468184 Z-0.125000
G01 X33.808775 Y146.815494 Z-0.125000
G01 X31.372536 Y135.264154 Z-0.125000
G01 X30.477681 Y129.513354 Z-0.125000
G01 X30.123327 Y124.696444 Z-0.125000
G01 X30.177767 Y119.376594 Z-0.125000
G01 X30.666734 Y114.274374 Z-0.125000
G01 X31.618228 Y109.013314 Z-0.125000
G01 X33.422294 Y102.596894 Z-0.125000
G01 X35.649142 Y97.020304 Z-0.125000
G01 X38.390054 Y91.923564 Z-0.125000
G01 X41.258938 Y87.914424 Z-0.125000
G01 X44.482664 Y84.572464 Z-0.125000
