%
(Header)
(Generated by gcodetools from Inkscape.)
(Using default header. To add your own header create file "header" in the output dir.)
M3
(Header end.)
G21 (All units in mm)

(Start cutting path id: polyline5671)
(Change tool to Default tool)

G00 Z3.000000
G00 X116.348422 Y163.696297

G00 Z4.875000 (Fast pre-penetrate)
G01 Z-0.125000 F400.0(Penetrate)
G01 X115.635684 Y167.693229 Z-0.125000 F800.000000
G01 X114.701020 Y170.844177 Z-0.125000
G01 X113.587057 Y173.053929 Z-0.125000
G01 X112.209835 Y174.490400 Z-0.125000
G01 X110.499497 Y175.251067 Z-0.125000
G01 X108.254235 Y175.478039 Z-0.125000
G01 X105.171010 Y175.229722 Z-0.125000
G01 X100.844520 Y174.472871 Z-0.125000
G01 X93.514364 Y172.641836 Z-0.125000
G01 X86.264609 Y170.210611 Z-0.125000
G01 X70.807343 Y163.481357 Z-0.125000
G01 X56.966949 Y157.859081 Z-0.125000
G01 X54.079776 Y156.243115 Z-0.125000
G01 X51.923970 Y154.459751 Z-0.125000
G01 X50.354511 Y152.308990 Z-0.125000
G01 X49.431685 Y149.882099 Z-0.125000
G01 X49.049281 Y146.271063 Z-0.125000
G01 X49.518812 Y142.072386 Z-0.125000
G01 X50.797781 Y137.429663 Z-0.125000
G01 X52.811997 Y132.563980 Z-0.125000
G01 X55.115668 Y128.459222 Z-0.125000
G01 X57.833437 Y124.789713 Z-0.125000
G01 X61.065368 Y121.451056 Z-0.125000
G01 X64.734876 Y118.561814 Z-0.125000
G01 X68.211695 Y116.468167 Z-0.125000
G01 X72.097373 Y114.705437 Z-0.125000
G01 X76.025159 Y113.430543 Z-0.125000
G01 X80.376552 Y112.513150 Z-0.125000
G01 X84.717789 Y112.024020 Z-0.125000
G01 X89.921763 Y111.846143 Z-0.125000
G01 X99.845238 Y111.953128 Z-0.125000
G01 X104.060409 Y112.395880 Z-0.125000
G01 X106.454700 Y113.079122 Z-0.125000
G01 X108.560378 Y114.113785 Z-0.125000
G01 X110.472784 Y115.586738 Z-0.125000
G01 X112.031570 Y117.374435 Z-0.125000
G01 X113.353423 Y119.572997 Z-0.125000
G01 X114.425796 Y122.169098 Z-0.125000
G01 X115.306967 Y125.370951 Z-0.125000
G01 X115.931348 Y128.929723 Z-0.125000
G01 X116.453596 Y134.173929 Z-0.125000
G01 X116.806568 Y141.690306 Z-0.125000
G01 X117.138778 Y155.119061 Z-0.125000
G01 X116.995894 Y161.580723 Z-0.125000
G01 X116.416726 Y166.441879 Z-0.125000
G01 X115.438273 Y170.572446 Z-0.125000
G01 X114.229032 Y173.300499 Z-0.125000
G01 X112.740038 Y174.913942 Z-0.125000
G01 X111.324653 Y175.577715 Z-0.125000
G01 X109.493554 Y175.857855 Z-0.125000
G01 X106.985162 Y175.778037 Z-0.125000
G01 X103.596506 Y175.326617 Z-0.125000
G01 X94.561058 Y173.315570 Z-0.125000
G01 X85.696502 Y170.391722 Z-0.125000
G01 X71.047122 Y164.042478 Z-0.125000
G01 X58.388802 Y159.164505 Z-0.125000
G01 X54.560627 Y157.409795 Z-0.125000
G01 X52.336257 Y155.988072 Z-0.125000
G01 X50.567576 Y154.317579 Z-0.125000
G01 X49.272177 Y152.323673 Z-0.125000
G01 X48.501743 Y150.130221 Z-0.125000
G01 X48.148446 Y146.424102 Z-0.125000
G01 X48.668171 Y142.106474 Z-0.125000
G01 X50.014216 Y137.331928 Z-0.125000
G01 X52.105405 Y132.332222 Z-0.125000
G01 X54.489605 Y128.119379 Z-0.125000
G01 X57.297606 Y124.359574 Z-0.125000
G01 X60.630183 Y120.948020 Z-0.125000
G01 X64.158425 Y118.175853 Z-0.125000
G01 X67.711958 Y116.025286 Z-0.125000
G01 X71.413937 Y114.324392 Z-0.125000
G01 X75.423094 Y112.993289 Z-0.125000
G01 X79.865107 Y112.036698 Z-0.125000
G01 X84.055116 Y111.546274 Z-0.125000
G01 X88.958769 Y111.349186 Z-0.125000
G01 X100.075961 Y111.375706 Z-0.125000
G01 X104.162220 Y111.763478 Z-0.125000
G01 X106.577339 Y112.436695 Z-0.125000
G01 X108.699898 Y113.476726 Z-0.125000
G01 X110.496457 Y114.848062 Z-0.125000
G01 X112.082345 Y116.637183 Z-0.125000
G01 X113.428584 Y118.851462 Z-0.125000
G01 X114.521332 Y121.478093 Z-0.125000
G01 X115.364082 Y124.483570 Z-0.125000
G01 X116.017635 Y128.082640 Z-0.125000
G01 X116.548679 Y133.121738 Z-0.125000
G01 X116.904886 Y139.603516 Z-0.125000
G01 X117.459151 Y155.577855 Z-0.125000
G01 X117.397897 Y161.884861 Z-0.125000
G01 X116.870540 Y166.825965 Z-0.125000
G01 X115.937364 Y170.996440 Z-0.125000
G01 X114.761499 Y173.723329 Z-0.125000
G01 X113.289775 Y175.317884 Z-0.125000
G01 X111.873550 Y175.966780 Z-0.125000
G01 X109.903641 Y176.242975 Z-0.125000
G01 X107.322935 Y176.147504 Z-0.125000
G01 X103.821925 Y175.695437 Z-0.125000
G01 X94.951741 Y173.798943 Z-0.125000
G01 X86.115192 Y170.953620 Z-0.125000
G01 X70.800810 Y164.402696 Z-0.125000
G01 X57.564939 Y159.486624 Z-0.125000
G01 X53.673505 Y157.761022 Z-0.125000
G01 X51.422162 Y156.344537 Z-0.125000
G01 X49.639380 Y154.660914 Z-0.125000
G01 X48.341847 Y152.633115 Z-0.125000
G01 X47.580016 Y150.389469 Z-0.125000
G01 X47.252269 Y146.790529 Z-0.125000
G01 X47.780273 Y142.378723 Z-0.125000
G01 X49.244364 Y137.234710 Z-0.125000
G01 X51.413689 Y132.098976 Z-0.125000
G01 X53.717295 Y128.026236 Z-0.125000
G01 X56.581699 Y124.157894 Z-0.125000
G01 X59.984263 Y120.646857 Z-0.125000
G01 X63.588118 Y117.795519 Z-0.125000
G01 X67.217783 Y115.587061 Z-0.125000
G01 X70.997187 Y113.845547 Z-0.125000
G01 X75.085839 Y112.489541 Z-0.125000
G01 X79.347258 Y111.566261 Z-0.125000
G01 X83.376466 Y111.076032 Z-0.125000
G01 X87.960910 Y110.862579 Z-0.125000
G01 X100.462698 Y110.793239 Z-0.125000
G01 X104.253940 Y111.125643 Z-0.125000
G01 X106.530508 Y111.729973 Z-0.125000
G01 X108.681593 Y112.743226 Z-0.125000
G01 X110.506354 Y114.100849 Z-0.125000
G01 X112.120185 Y115.889193 Z-0.125000
G01 X113.395467 Y117.930253 Z-0.125000
G01 X114.529547 Y120.553714 Z-0.125000
G01 X115.407872 Y123.574133 Z-0.125000
G01 X116.092214 Y127.209619 Z-0.125000
G01 X116.605147 Y131.737530 Z-0.125000
G01 X116.985739 Y137.720218 Z-0.125000
G01 X117.803327 Y156.271640 Z-0.125000
G01 X117.803457 Y162.390420 Z-0.125000
G01 X117.340135 Y167.195884 Z-0.125000
G01 X116.454695 Y171.403294 Z-0.125000
G01 X115.313371 Y174.126625 Z-0.125000
G01 X113.859176 Y175.702034 Z-0.125000
G01 X112.441528 Y176.337476 Z-0.125000
G01 X110.450921 Y176.607914 Z-0.125000
G01 X107.668534 Y176.507333 Z-0.125000
G01 X104.048961 Y176.061540 Z-0.125000
G01 X95.118945 Y174.224037 Z-0.125000
G01 X86.559885 Y171.525867 Z-0.125000
G01 X70.292276 Y164.664531 Z-0.125000
G01 X56.531764 Y159.748977 Z-0.125000
G01 X52.788065 Y158.130683 Z-0.125000
G01 X50.512078 Y156.718726 Z-0.125000
G01 X48.717265 Y155.020226 Z-0.125000
G01 X47.489913 Y153.106138 Z-0.125000
G01 X46.706025 Y150.835520 Z-0.125000
G01 X46.364888 Y147.173192 Z-0.125000
G01 X46.900978 Y142.665785 Z-0.125000
G01 X48.395599 Y137.397452 Z-0.125000
G01 X50.606903 Y132.128148 Z-0.125000
G01 X52.953393 Y127.943249 Z-0.125000
G01 X55.873683 Y123.964687 Z-0.125000
G01 X59.345587 Y120.352551 Z-0.125000
G01 X63.024410 Y117.420748 Z-0.125000
G01 X66.729429 Y115.153493 Z-0.125000
G01 X70.585482 Y113.370776 Z-0.125000
G01 X74.476529 Y112.065546 Z-0.125000
G01 X78.823199 Y111.101905 Z-0.125000
G01 X82.681904 Y110.613422 Z-0.125000
G01 X86.926635 Y110.386321 Z-0.125000
G01 X100.678932 Y110.197707 Z-0.125000
G01 X104.335634 Y110.482116 Z-0.125000
G01 X106.630572 Y111.075061 Z-0.125000
G01 X108.798604 Y112.091549 Z-0.125000
G01 X110.637336 Y113.466507 Z-0.125000
G01 X112.145605 Y115.130466 Z-0.125000
G01 X113.445661 Y117.181746 Z-0.125000
G01 X114.602638 Y119.830951 Z-0.125000
G01 X115.498816 Y122.892184 Z-0.125000
G01 X116.155603 Y126.311177 Z-0.125000
G01 X117.040137 Y135.757230 Z-0.125000
G01 X118.170854 Y156.958569 Z-0.125000
G01 X118.235536 Y162.669914 Z-0.125000
G01 X117.826290 Y167.551251 Z-0.125000
G01 X117.033022 Y171.641131 Z-0.125000
G01 X115.943444 Y174.411746 Z-0.125000
G01 X114.526960 Y176.012511 Z-0.125000
G01 X113.028587 Y176.689867 Z-0.125000
G01 X111.015859 Y176.958235 Z-0.125000
G01 X108.180432 Y176.872013 Z-0.125000
G01 X104.276320 Y176.426674 Z-0.125000
G01 X95.538024 Y174.716660 Z-0.125000
G01 X87.030645 Y172.108722 Z-0.125000
G01 X70.054826 Y165.042536 Z-0.125000
G01 X55.700981 Y160.108741 Z-0.125000
G01 X51.905083 Y158.519102 Z-0.125000
G01 X49.606974 Y157.110768 Z-0.125000
G01 X47.802006 Y155.395385 Z-0.125000
G01 X46.575236 Y153.445399 Z-0.125000
G01 X45.801826 Y151.119994 Z-0.125000
G01 X45.491867 Y147.357408 Z-0.125000
G01 X46.081967 Y142.721606 Z-0.125000
G01 X47.556083 Y137.573129 Z-0.125000
G01 X49.809302 Y132.168639 Z-0.125000
G01 X52.198353 Y127.870157 Z-0.125000
G01 X55.174076 Y123.779888 Z-0.125000
G01 X58.714479 Y120.065037 Z-0.125000
G01 X62.467492 Y117.051346 Z-0.125000
G01 X65.970637 Y114.874129 Z-0.125000
G01 X69.895642 Y113.013470 Z-0.125000
G01 X73.861138 Y111.649896 Z-0.125000
G01 X78.292996 Y110.643499 Z-0.125000
G01 X81.971301 Y110.158380 Z-0.125000
G01 X85.854327 Y109.920736 Z-0.125000
G01 X101.053768 Y109.592084 Z-0.125000
G01 X104.407496 Y109.832444 Z-0.125000
G01 X106.720417 Y110.413423 Z-0.125000
G01 X108.905524 Y111.432692 Z-0.125000
G01 X110.758745 Y112.824726 Z-0.125000
G01 X112.277946 Y114.517599 Z-0.125000
G01 X113.585504 Y116.610340 Z-0.125000
G01 X114.666221 Y119.093893 Z-0.125000
G01 X115.520032 Y121.941803 Z-0.125000
G01 X116.208448 Y125.387898 Z-0.125000
G01 X117.067757 Y133.721992 Z-0.125000
G01 X118.563542 Y157.637672 Z-0.125000
G01 X118.682817 Y162.935242 Z-0.125000
G01 X118.329779 Y167.891740 Z-0.125000
G01 X117.586511 Y172.011957 Z-0.125000
G01 X116.534061 Y174.775780 Z-0.125000
G01 X115.135623 Y176.357528 Z-0.125000
G01 X113.634598 Y177.024276 Z-0.125000
G01 X111.598067 Y177.294455 Z-0.125000
G01 X108.707143 Y177.228285 Z-0.125000
G01 X104.704777 Y176.819297 Z-0.125000
G01 X95.973791 Y175.214134 Z-0.125000
G01 X87.798557 Y172.798174 Z-0.125000
G01 X69.825462 Y165.430632 Z-0.125000
G01 X54.869551 Y160.487199 Z-0.125000
G01 X51.025529 Y158.926408 Z-0.125000
G01 X48.707757 Y157.520467 Z-0.125000
G01 X46.999489 Y155.913816 Z-0.125000
G01 X45.741995 Y153.952446 Z-0.125000
G01 X44.946787 Y151.597805 Z-0.125000
G01 X44.623568 Y147.767883 Z-0.125000
G01 X45.222270 Y143.031888 Z-0.125000
G01 X46.726270 Y137.761356 Z-0.125000
G01 X49.156589 Y131.941668 Z-0.125000
G01 X51.624295 Y127.536072 Z-0.125000
G01 X54.692320 Y123.351496 Z-0.125000
G01 X58.091262 Y119.784121 Z-0.125000
G01 X61.917561 Y116.687312 Z-0.125000
G01 X65.489075 Y114.453110 Z-0.125000
G01 X69.489112 Y112.548725 Z-0.125000
G01 X73.526859 Y111.159666 Z-0.125000
G01 X77.756777 Y110.190980 Z-0.125000
G01 X81.244463 Y109.711229 Z-0.125000
G01 X85.217204 Y109.448488 Z-0.125000
G01 X94.001554 Y109.339563 Z-0.125000
G01 X101.256936 Y108.975400 Z-0.125000
G01 X104.638607 Y109.203729 Z-0.125000
G01 X106.962782 Y109.801914 Z-0.125000
G01 X109.002936 Y110.766396 Z-0.125000
G01 X110.734813 Y112.050410 Z-0.125000
G01 X112.282603 Y113.737915 Z-0.125000
G01 X113.617005 Y115.838159 Z-0.125000
G01 X114.721072 Y118.342604 Z-0.125000
G01 X115.593640 Y121.224732 Z-0.125000
G01 X116.251204 Y124.440427 Z-0.125000
G01 X117.091819 Y131.937399 Z-0.125000
G01 X117.969691 Y145.917379 Z-0.125000
G01 X118.982879 Y158.308172 Z-0.125000
G01 X119.146009 Y163.186534 Z-0.125000
G01 X118.851250 Y168.217093 Z-0.125000
G01 X118.159793 Y172.364477 Z-0.125000
G01 X117.199774 Y175.020345 Z-0.125000
G01 X115.840793 Y176.628548 Z-0.125000
G01 X114.358785 Y177.314248 Z-0.125000
G01 X112.325746 Y177.610624 Z-0.125000
G01 X109.247954 Y177.577118 Z-0.125000
G01 X105.143649 Y177.211338 Z-0.125000
G01 X96.684782 Y175.775449 Z-0.125000
G01 X88.327467 Y173.402309 Z-0.125000
G01 X83.569156 Y171.617264 Z-0.125000
G01 X69.309877 Y165.720733 Z-0.125000
G01 X63.832748 Y163.854187 Z-0.125000
G01 X54.038315 Y160.884868 Z-0.125000
G01 X50.150179 Y159.352860 Z-0.125000
G01 X47.815202 Y157.947890 Z-0.125000
G01 X46.100725 Y156.321963 Z-0.125000
G01 X44.845818 Y154.320619 Z-0.125000
G01 X44.062641 Y151.906147 Z-0.125000
G01 X43.772669 Y147.968658 Z-0.125000
G01 X44.428162 Y143.097541 Z-0.125000
G01 X46.005383 Y137.682184 Z-0.125000
G01 X48.381110 Y131.996843 Z-0.125000
G01 X50.891312 Y127.474882 Z-0.125000
G01 X54.014317 Y123.175882 Z-0.125000
G01 X57.476324 Y119.509608 Z-0.125000
G01 X61.374809 Y116.328388 Z-0.125000
G01 X65.013788 Y114.036360 Z-0.125000
G01 X68.794162 Y112.208883 Z-0.125000
G01 X72.905000 Y110.757017 Z-0.125000
G01 X77.214478 Y109.744346 Z-0.125000
G01 X84.080278 Y109.001984 Z-0.125000
G01 X93.856212 Y108.848880 Z-0.125000
G01 X101.453636 Y108.348496 Z-0.125000
G01 X104.692552 Y108.539698 Z-0.125000
G01 X106.870674 Y109.069060 Z-0.125000
G01 X108.938577 Y110.002495 Z-0.125000
G01 X110.699237 Y111.267686 Z-0.125000
G01 X112.276652 Y112.947946 Z-0.125000
G01 X113.639256 Y115.053753 Z-0.125000
G01 X114.683039 Y117.351732 Z-0.125000
G01 X115.594675 Y120.235411 Z-0.125000
G01 X116.284451 Y123.469477 Z-0.125000
G01 X117.120861 Y130.418393 Z-0.125000
G01 X118.163351 Y145.621585 Z-0.125000
G01 X119.430095 Y158.969616 Z-0.125000
G01 X119.625954 Y163.423660 Z-0.125000
G01 X119.391415 Y168.526988 Z-0.125000
G01 X118.753256 Y172.698369 Z-0.125000
G01 X117.829783 Y175.344146 Z-0.125000
G01 X117.251067 Y176.220401 Z-0.125000
G01 X116.488524 Y176.934109 Z-0.125000
G01 X115.002506 Y177.613341 Z-0.125000
G01 X112.943400 Y177.919289 Z-0.125000
G01 X109.631586 Y177.911915 Z-0.125000
G01 X105.378835 Y177.581387 Z-0.125000
G01 X96.894159 Y176.225058 Z-0.125000
G01 X88.882120 Y174.017053 Z-0.125000
G01 X84.013396 Y172.227479 Z-0.125000
G01 X69.088209 Y166.129656 Z-0.125000
G01 X63.462699 Y164.268091 Z-0.125000
G01 X53.207984 Y161.302135 Z-0.125000
G01 X49.455035 Y159.881705 Z-0.125000
G01 X47.070640 Y158.497045 Z-0.125000
G01 X45.318583 Y156.875388 Z-0.125000
G01 X44.033728 Y154.860913 Z-0.125000
G01 X43.228817 Y152.414681 Z-0.125000
G01 X42.925456 Y148.405460 Z-0.125000
G01 X43.590005 Y143.429363 Z-0.125000
G01 X45.198079 Y137.887810 Z-0.125000
G01 X47.616044 Y132.062366 Z-0.125000
G01 X50.168419 Y127.422748 Z-0.125000
G01 X53.345629 Y123.007837 Z-0.125000
G01 X56.869796 Y119.241369 Z-0.125000
G01 X60.839496 Y115.974445 Z-0.125000
G01 X64.544903 Y113.623750 Z-0.125000
G01 X68.393130 Y111.753905 Z-0.125000
G01 X72.277450 Y110.362841 Z-0.125000
G01 X76.666293 Y109.303599 Z-0.125000
G01 X83.404086 Y108.542544 Z-0.125000
G01 X93.705372 Y108.363049 Z-0.125000
G01 X101.644256 Y107.710984 Z-0.125000
G01 X104.737248 Y107.868874 Z-0.125000
G01 X106.932058 Y108.386012 Z-0.125000
G01 X109.017360 Y109.320417 Z-0.125000
G01 X110.793933 Y110.599450 Z-0.125000
G01 X112.260740 Y112.147758 Z-0.125000
G01 X113.652968 Y114.257381 Z-0.125000
G01 X114.720749 Y116.570819 Z-0.125000
G01 X115.585038 Y119.227139 Z-0.125000
G01 X116.308965 Y122.475952 Z-0.125000
G01 X117.134121 Y128.856696 Z-0.125000
G01 X118.270788 Y144.345333 Z-0.125000
G01 X119.839406 Y158.887210 Z-0.125000
G01 X120.123233 Y163.646815 Z-0.125000
G01 X119.950790 Y168.821294 Z-0.125000
G01 X119.367223 Y173.013308 Z-0.125000
G01 X118.480295 Y175.647248 Z-0.125000
G01 X117.912318 Y176.514448 Z-0.125000
G01 X117.155596 Y177.219747 Z-0.125000
G01 X115.664144 Y177.895292 Z-0.125000
G01 X113.443914 Y178.224462 Z-0.125000
G01 X109.838829 Y178.239015 Z-0.125000
G01 X105.386015 Y177.936042 Z-0.125000
G01 X97.105607 Y176.682623 Z-0.125000
G01 X89.172027 Y174.547385 Z-0.125000
G01 X84.482345 Y172.851214 Z-0.125000
G01 X74.480280 Y168.673106 Z-0.125000
G01 X68.874045 Y166.549899 Z-0.125000
G01 X62.805200 Y164.608063 Z-0.125000
G01 X52.379400 Y161.739325 Z-0.125000
G01 X48.592040 Y160.345868 Z-0.125000
G01 X46.194644 Y158.960108 Z-0.125000
G01 X44.439093 Y157.315617 Z-0.125000
G01 X43.158701 Y155.256382 Z-0.125000
G01 X42.367116 Y152.744886 Z-0.125000
G01 X42.108967 Y150.673167 Z-0.125000
G01 X42.098877 Y148.620594 Z-0.125000
G01 X42.822740 Y143.502454 Z-0.125000
G01 X44.506428 Y137.811032 Z-0.125000
G01 X47.006281 Y131.837723 Z-0.125000
G01 X49.639057 Y127.087433 Z-0.125000
G01 X52.686707 Y122.847165 Z-0.125000
G01 X56.271999 Y118.979146 Z-0.125000
G01 X60.311621 Y115.625353 Z-0.125000
G01 X63.785853 Y113.383066 Z-0.125000
G01 X67.693717 Y111.431721 Z-0.125000
G01 X71.644142 Y109.977204 Z-0.125000
G01 X76.112093 Y108.868673 Z-0.125000
G01 X82.456356 Y108.102896 Z-0.125000
G01 X93.549293 Y107.881876 Z-0.125000
G01 X101.829312 Y107.062735 Z-0.125000
G01 X104.773147 Y107.190871 Z-0.125000
G01 X106.984839 Y107.695331 Z-0.125000
G01 X108.931915 Y108.541962 Z-0.125000
G01 X110.739211 Y109.799133 Z-0.125000
G01 X112.235578 Y111.337673 Z-0.125000
G01 X113.549282 Y113.256029 Z-0.125000
G01 X114.661241 Y115.550062 Z-0.125000
G01 X115.565180 Y118.201014 Z-0.125000
G01 X116.325136 Y121.460629 Z-0.125000
G01 X117.131599 Y127.255867 Z-0.125000
G01 X118.452417 Y143.989837 Z-0.125000
G01 X120.284746 Y159.033134 Z-0.125000
G01 X120.638624 Y163.856257 Z-0.125000
G01 X120.544123 Y168.888175 Z-0.125000
G01 X120.033066 Y173.154704 Z-0.125000
G01 X119.200989 Y175.830688 Z-0.125000
G01 X118.654292 Y176.712118 Z-0.125000
G01 X117.916522 Y177.431712 Z-0.125000
G01 X116.443958 Y178.131966 Z-0.125000
G01 X114.225927 Y178.500074 Z-0.125000
G01 X110.770194 Y178.585843 Z-0.125000
G01 X106.289760 Y178.376983 Z-0.125000
G01 X98.155017 Y177.312437 Z-0.125000
G01 X94.178913 Y176.439545 Z-0.125000
G01 X90.068334 Y175.277781 Z-0.125000
G01 X84.975614 Y173.488661 Z-0.125000
G01 X74.421290 Y169.123814 Z-0.125000
G01 X68.667190 Y166.981720 Z-0.125000
G01 X62.441619 Y165.048099 Z-0.125000
G01 X51.553274 Y162.196696 Z-0.125000
G01 X47.735642 Y160.829176 Z-0.125000
G01 X45.327768 Y159.440182 Z-0.125000
G01 X43.570277 Y157.770077 Z-0.125000
G01 X42.295383 Y155.662718 Z-0.125000
G01 X41.556707 Y153.282593 Z-0.125000
G01 X41.288727 Y151.174522 Z-0.125000
G01 X41.274627 Y149.081846 Z-0.125000
G01 X41.946679 Y144.131622 Z-0.125000
G01 X43.616525 Y138.333085 Z-0.125000
G01 X46.119095 Y132.223232 Z-0.125000
G01 X48.754393 Y127.344611 Z-0.125000
G01 X51.813557 Y122.973814 Z-0.125000
G01 X55.424398 Y118.972548 Z-0.125000
G01 X59.505547 Y115.491460 Z-0.125000
G01 X63.024151 Y113.157388 Z-0.125000
G01 X66.989712 Y111.121245 Z-0.125000
G01 X71.312903 Y109.503986 Z-0.125000
G01 X75.551877 Y108.439634 Z-0.125000
G01 X81.744330 Y107.655939 Z-0.125000
G01 X92.855766 Y107.435824 Z-0.125000
G01 X101.318191 Y106.448315 Z-0.125000
G01 X104.800637 Y106.505559 Z-0.125000
G01 X107.029729 Y106.997082 Z-0.125000
G01 X108.994721 Y107.843713 Z-0.125000
G01 X110.820323 Y109.113820 Z-0.125000
G01 X112.331956 Y110.676099 Z-0.125000
G01 X113.657819 Y112.629643 Z-0.125000
G01 X114.777605 Y114.969666 Z-0.125000
G01 X115.684972 Y117.675856 Z-0.125000
G01 X116.390013 Y120.713157 Z-0.125000
G01 X117.283279 Y127.246746 Z-0.125000
G01 X118.740319 Y144.607944 Z-0.125000
G01 X120.747744 Y159.164052 Z-0.125000
G01 X121.172644 Y164.052181 Z-0.125000
G01 X121.140820 Y169.148911 Z-0.125000
G01 X120.686554 Y173.431287 Z-0.125000
G01 X119.890829 Y176.093041 Z-0.125000
G01 X119.354157 Y176.965738 Z-0.125000
G01 X118.621109 Y177.678541 Z-0.125000
G01 X117.039038 Y178.409713 Z-0.125000
G01 X114.751344 Y178.786489 Z-0.125000
G01 X110.982612 Y178.917471 Z-0.125000
G01 X106.286526 Y178.750137 Z-0.125000
G01 X98.105600 Y177.733780 Z-0.125000
G01 X90.395951 Y175.830559 Z-0.125000
G01 X85.183957 Y174.022227 Z-0.125000
G01 X74.370514 Y169.586036 Z-0.125000
G01 X68.141191 Y167.316712 Z-0.125000
G01 X61.777006 Y165.418471 Z-0.125000
G01 X50.730447 Y162.674312 Z-0.125000
G01 X47.067471 Y161.411772 Z-0.125000
G01 X44.614836 Y160.042377 Z-0.125000
G01 X42.822417 Y158.374083 Z-0.125000
G01 X41.518545 Y156.249648 Z-0.125000
G01 X40.759430 Y153.835758 Z-0.125000
G01 X40.481165 Y151.690560 Z-0.125000
G01 X40.462601 Y149.557004 Z-0.125000
G01 X41.142351 Y144.501153 Z-0.125000
G01 X42.843050 Y138.571764 Z-0.125000
G01 X45.387793 Y132.317733 Z-0.125000
G01 X48.252780 Y127.010849 Z-0.125000
G01 X51.399006 Y122.547167 Z-0.125000
G01 X55.103249 Y118.472099 Z-0.125000
G01 X58.988280 Y115.156857 Z-0.125000
G01 X62.564646 Y112.764571 Z-0.125000
G01 X66.594695 Y110.681727 Z-0.125000
G01 X70.673580 Y109.131608 Z-0.125000
G01 X74.985581 Y108.016545 Z-0.125000
G01 X80.745696 Y107.234532 Z-0.125000
G01 X92.692378 Y106.967716 Z-0.125000
G01 X101.313339 Y105.799807 Z-0.125000
G01 X104.820106 Y105.812809 Z-0.125000
G01 X107.067374 Y106.291007 Z-0.125000
G01 X109.051383 Y107.137573 Z-0.125000
G01 X110.749431 Y108.296297 Z-0.125000
G01 X112.293340 Y109.846416 Z-0.125000
G01 X113.650575 Y111.799054 Z-0.125000
G01 X114.703090 Y113.920255 Z-0.125000
G01 X115.653407 Y116.616226 Z-0.125000
G01 X116.394476 Y119.658313 Z-0.125000
G01 X117.301843 Y125.910016 Z-0.125000
G01 X118.933397 Y144.228063 Z-0.125000
G01 X121.229371 Y159.279899 Z-0.125000
G01 X121.725874 Y164.234521 Z-0.125000
G01 X121.758086 Y169.393735 Z-0.125000
G01 X121.361000 Y173.688530 Z-0.125000
G01 X120.600720 Y176.334566 Z-0.125000
G01 X120.073234 Y177.198855 Z-0.125000
G01 X119.343808 Y177.906094 Z-0.125000
G01 X117.750999 Y178.643476 Z-0.125000
G01 X115.282970 Y179.067211 Z-0.125000
G01 X111.374524 Y179.256667 Z-0.125000
G01 X106.745707 Y179.164817 Z-0.125000
G01 X102.599682 Y178.831055 Z-0.125000
G01 X98.627071 Y178.269546 Z-0.125000
G01 X91.045623 Y176.487605 Z-0.125000
G01 X85.718494 Y174.687164 Z-0.125000
G01 X74.327565 Y170.060095 Z-0.125000
G01 X67.940158 Y167.772530 Z-0.125000
G01 X61.105988 Y165.805985 Z-0.125000
G01 X49.911953 Y163.172303 Z-0.125000
G01 X46.227891 Y161.932403 Z-0.125000
G01 X43.768852 Y160.556539 Z-0.125000
G01 X41.976886 Y158.858103 Z-0.125000
G01 X40.679870 Y156.680046 Z-0.125000
G01 X39.934468 Y154.197269 Z-0.125000
G01 X39.672891 Y151.988746 Z-0.125000
G01 X39.674185 Y149.792255 Z-0.125000
G01 X40.412796 Y144.592291 Z-0.125000
G01 X42.191826 Y138.505853 Z-0.125000
G01 X44.819168 Y132.098459 Z-0.125000
G01 X47.576200 Y126.984329 Z-0.125000
G01 X50.770485 Y122.407194 Z-0.125000
G01 X54.532296 Y118.226823 Z-0.125000
G01 X58.478516 Y114.826652 Z-0.125000
G01 X62.111415 Y112.375440 Z-0.125000
G01 X65.886550 Y110.389426 Z-0.125000
G01 X70.028242 Y108.768157 Z-0.125000
G01 X74.412752 Y107.599471 Z-0.125000
G01 X81.093170 Y106.722634 Z-0.125000
G01 X93.051496 Y106.463774 Z-0.125000
G01 X101.300791 Y105.144120 Z-0.125000
G01 X104.831814 Y105.112361 Z-0.125000
G01 X106.926560 Y105.525424 Z-0.125000
G01 X108.940065 Y106.336479 Z-0.125000
G01 X110.669742 Y107.471270 Z-0.125000
G01 X112.247415 Y109.007547 Z-0.125000
G01 X113.637574 Y110.957727 Z-0.125000
G01 X114.717256 Y113.087143 Z-0.125000
G01 X115.613045 Y115.541201 Z-0.125000
G01 X116.392276 Y118.584388 Z-0.125000
G01 X117.348673 Y124.876647 Z-0.125000
G01 X119.127510 Y143.827419 Z-0.125000
G01 X121.769664 Y159.637658 Z-0.125000
G01 X122.298639 Y164.403666 Z-0.125000
G01 X122.395986 Y169.622582 Z-0.125000
G01 X122.056079 Y173.926238 Z-0.125000
G01 X121.329887 Y176.555457 Z-0.125000
G01 X120.157127 Y178.059974 Z-0.125000
G01 X118.582300 Y178.831055 Z-0.125000
G01 X116.112977 Y179.310353 Z-0.125000
G01 X112.165786 Y179.590364 Z-0.125000
G01 X107.458639 Y179.594245 Z-0.125000
G01 X103.504333 Y179.353949 Z-0.125000
G01 X99.461088 Y178.859516 Z-0.125000
G01 X95.493328 Y178.112432 Z-0.125000
G01 X91.719810 Y177.154288 Z-0.125000
G01 X85.953098 Y175.246216 Z-0.125000
G01 X74.291795 Y170.546055 Z-0.125000
G01 X67.745463 Y168.240767 Z-0.125000
G01 X60.747841 Y166.288388 Z-0.125000
G01 X49.098116 Y163.690346 Z-0.125000
G01 X45.397107 Y162.471273 Z-0.125000
G01 X43.080694 Y161.192369 Z-0.125000
G01 X41.255157 Y159.493998 Z-0.125000
G01 X39.929423 Y157.296148 Z-0.125000
G01 X39.163128 Y154.776567 Z-0.125000
G01 X38.890685 Y152.528329 Z-0.125000
G01 X38.887451 Y150.288435 Z-0.125000
G01 X39.633629 Y144.978123 Z-0.125000
G01 X41.444354 Y138.756950 Z-0.125000
G01 X44.114063 Y132.202468 Z-0.125000
G01 X46.911586 Y126.964989 Z-0.125000
G01 X50.152896 Y122.273301 Z-0.125000
G01 X53.970980 Y117.986527 Z-0.125000
G01 X57.976903 Y114.500523 Z-0.125000
G01 X61.664911 Y111.989609 Z-0.125000
G01 X65.497161 Y109.958834 Z-0.125000
G01 X69.700042 Y108.306258 Z-0.125000
G01 X73.833907 Y107.188219 Z-0.125000
G01 X77.190093 Y106.604847 Z-0.125000
G01 X80.628232 Y106.268303 Z-0.125000
G01 X92.703180 Y106.014360 Z-0.125000
G01 X101.281451 Y104.480800 Z-0.125000
G01 X105.014801 Y104.423103 Z-0.125000
G01 X107.123519 Y104.854989 Z-0.125000
G01 X108.985407 Y105.614039 Z-0.125000
G01 X110.736106 Y106.759762 Z-0.125000
G01 X112.333314 Y108.319001 Z-0.125000
G01 X113.620304 Y110.105922 Z-0.125000
G01 X114.728511 Y112.242259 Z-0.125000
G01 X115.648556 Y114.713199 Z-0.125000
G01 X116.448680 Y117.785946 Z-0.125000
G01 X117.430691 Y124.157053 Z-0.125000
G01 X119.323886 Y143.406012 Z-0.125000
G01 X122.294693 Y159.726467 Z-0.125000
G01 X122.891843 Y164.559486 Z-0.125000
G01 X123.055231 Y169.835193 Z-0.125000
G01 X122.772309 Y174.144283 Z-0.125000
G01 X122.078459 Y176.755649 Z-0.125000
G01 X120.914172 Y178.250335 Z-0.125000
G01 X119.325438 Y179.034547 Z-0.125000
G01 X116.663167 Y179.580791 Z-0.125000
G01 X112.564425 Y179.938227 Z-0.125000
G01 X107.933151 Y180.019145 Z-0.125000
G01 X103.866297 Y179.829237 Z-0.125000
G01 X100.016324 Y179.406989 Z-0.125000
G01 X95.955744 Y178.689465 Z-0.125000
G01 X92.094387 Y177.741153 Z-0.125000
G01 X86.196951 Y175.817946 Z-0.125000
G01 X74.263335 Y171.044629 Z-0.125000
G01 X67.557301 Y168.721941 Z-0.125000
G01 X60.396485 Y166.784762 Z-0.125000
G01 X48.521212 Y164.285879 Z-0.125000
G01 X44.761277 Y163.106456 Z-0.125000
G01 X42.258190 Y161.739002 Z-0.125000
G01 X40.435240 Y160.005379 Z-0.125000
G01 X39.117333 Y157.747891 Z-0.125000
G01 X38.365268 Y155.153601 Z-0.125000
G01 X38.110030 Y152.837576 Z-0.125000
G01 X38.127818 Y150.531124 Z-0.125000
G01 X38.867140 Y145.374757 Z-0.125000
G01 X40.709430 Y139.017233 Z-0.125000
G01 X43.421442 Y132.314628 Z-0.125000
G01 X46.258809 Y126.952829 Z-0.125000
G01 X49.546302 Y122.145683 Z-0.125000
G01 X53.419173 Y117.751405 Z-0.125000
G01 X57.483116 Y114.178597 Z-0.125000
G01 X61.224875 Y111.607399 Z-0.125000
G01 X65.112817 Y109.531217 Z-0.125000
G01 X69.048753 Y107.956261 Z-0.125000
G01 X73.248723 Y106.783436 Z-0.125000
G01 X76.661507 Y106.170309 Z-0.125000
G01 X80.157795 Y105.816884 Z-0.125000
G01 X92.525691 Y105.554531 Z-0.125000
G01 X95.200446 Y105.153693 Z-0.125000
G01 X101.255642 Y103.810041 Z-0.125000
G01 X105.015319 Y103.705514 Z-0.125000
G01 X107.144088 Y104.125240 Z-0.125000
G01 X109.027516 Y104.884031 Z-0.125000
G01 X110.800854 Y106.041138 Z-0.125000
G01 X112.279498 Y107.462021 Z-0.125000
G01 X113.599346 Y109.244544 Z-0.125000
G01 X114.737631 Y111.386508 Z-0.125000
G01 X115.683161 Y113.873166 Z-0.125000
G01 X116.439301 Y116.677545 Z-0.125000
G01 X117.474481 Y123.079441 Z-0.125000
G01 X118.714446 Y136.456126 Z-0.125000
G01 X119.470909 Y142.611257 Z-0.125000
G01 X120.519544 Y148.743103 Z-0.125000
G01 X122.840355 Y159.801111 Z-0.125000
G01 X123.505681 Y164.702629 Z-0.125000
G01 X123.735951 Y170.031893 Z-0.125000
G01 X123.509303 Y174.343053 Z-0.125000
G01 X122.889061 Y176.839025 Z-0.125000
G01 X122.396568 Y177.703896 Z-0.125000
G01 X121.687388 Y178.422973 Z-0.125000
G01 X119.974981 Y179.259707 Z-0.125000
G01 X117.215362 Y179.851682 Z-0.125000
G01 X112.740297 Y180.311511 Z-0.125000
G01 X108.146797 Y180.451937 Z-0.125000
G01 X104.228067 Y180.315650 Z-0.125000
G01 X100.271173 Y179.920892 Z-0.125000
G01 X96.429415 Y179.276524 Z-0.125000
G01 X92.478990 Y178.339597 Z-0.125000
G01 X86.786986 Y176.525185 Z-0.125000
G01 X74.241666 Y171.555750 Z-0.125000
G01 X67.375285 Y169.216181 Z-0.125000
G01 X59.718353 Y167.220723 Z-0.125000
G01 X47.721477 Y164.842473 Z-0.125000
G01 X43.951839 Y163.681097 Z-0.125000
G01 X41.597587 Y162.407432 Z-0.125000
G01 X39.742490 Y160.671739 Z-0.125000
G01 X38.395798 Y158.391418 Z-0.125000
G01 X37.622065 Y155.756961 Z-0.125000
G01 X37.355314 Y153.398439 Z-0.125000
G01 X37.367798 Y151.046127 Z-0.125000
G01 X38.113459 Y145.781287 Z-0.125000
G01 X39.870497 Y139.622080 Z-0.125000
G01 X42.741369 Y132.434162 Z-0.125000
G01 X45.618128 Y126.947266 Z-0.125000
G01 X48.950705 Y122.023691 Z-0.125000
G01 X52.876874 Y117.521006 Z-0.125000
G01 X56.997091 Y113.860553 Z-0.125000
G01 X60.467959 Y111.428552 Z-0.125000
G01 X64.401567 Y109.263237 Z-0.125000
G01 X68.391707 Y107.615642 Z-0.125000
G01 X72.656878 Y106.384991 Z-0.125000
G01 X76.126388 Y105.739911 Z-0.125000
G01 X79.681473 Y105.367986 Z-0.125000
G01 X92.344579 Y105.097936 Z-0.125000
G01 X94.998248 Y104.659130 Z-0.125000
G01 X101.046136 Y103.161145 Z-0.125000
G01 X103.018890 Y102.938961 Z-0.125000
G01 X105.010403 Y102.979969 Z-0.125000
G01 X106.983610 Y103.337600 Z-0.125000
G01 X108.897892 Y104.061010 Z-0.125000
G01 X110.707452 Y105.191338 Z-0.125000
G01 X112.221219 Y106.596956 Z-0.125000
G01 X113.575673 Y108.373851 Z-0.125000
G01 X114.745522 Y110.520279 Z-0.125000
G01 X115.717702 Y113.021426 Z-0.125000
G01 X116.494992 Y115.849931 Z-0.125000
G01 X117.516848 Y121.979642 Z-0.125000
G01 X118.814381 Y135.519004 Z-0.125000
G01 X119.668903 Y142.144184 Z-0.125000
G01 X120.876721 Y148.703129 Z-0.125000
G01 X123.407040 Y159.861718 Z-0.125000
G01 X124.140605 Y164.833223 Z-0.125000
G01 X124.438080 Y170.212681 Z-0.125000
G01 X124.266607 Y174.522353 Z-0.125000
G01 X123.673532 Y177.000214 Z-0.125000
G01 X123.186213 Y177.859070 Z-0.125000
G01 X122.475804 Y178.578534 Z-0.125000
G01 X120.742828 Y179.439913 Z-0.125000
G01 X117.928423 Y180.098123 Z-0.125000
G01 X113.562542 Y180.649801 Z-0.125000
G01 X108.889612 Y180.895206 Z-0.125000
G01 X104.889576 Y180.829554 Z-0.125000
G01 X100.844002 Y180.486800 Z-0.125000
G01 X96.913694 Y179.873868 Z-0.125000
G01 X93.212296 Y179.038880 Z-0.125000
G01 X87.054772 Y177.123952 Z-0.125000
G01 X74.226272 Y172.079744 Z-0.125000
G01 X67.199089 Y169.723616 Z-0.125000
G01 X59.372947 Y167.746527 Z-0.125000
G01 X46.929115 Y165.418859 Z-0.125000
G01 X43.341365 Y164.349268 Z-0.125000
G01 X40.952572 Y163.091191 Z-0.125000
G01 X39.065780 Y161.352782 Z-0.125000
G01 X37.690176 Y159.048788 Z-0.125000
G01 X36.894062 Y156.373127 Z-0.125000
G01 X36.615151 Y153.971203 Z-0.125000
G01 X36.621684 Y151.572255 Z-0.125000
G01 X37.372778 Y146.197131 Z-0.125000
G01 X39.159117 Y139.905972 Z-0.125000
G01 X42.074168 Y132.560681 Z-0.125000
G01 X44.989672 Y126.947913 Z-0.125000
G01 X48.366233 Y121.907133 Z-0.125000
G01 X52.344083 Y117.295134 Z-0.125000
G01 X56.518763 Y113.546131 Z-0.125000
G01 X60.035879 Y111.057144 Z-0.125000
G01 X64.022268 Y108.844223 Z-0.125000
G01 X68.065513 Y107.164804 Z-0.125000
G01 X72.385405 Y105.916624 Z-0.125000
G01 X75.895988 Y105.268569 Z-0.125000
G01 X79.487102 Y104.902142 Z-0.125000
G01 X91.989731 Y104.663722 Z-0.125000
G01 X94.791005 Y104.167024 Z-0.125000
G01 X101.007391 Y102.477709 Z-0.125000
G01 X102.993082 Y102.226352 Z-0.125000
G01 X105.000959 Y102.246469 Z-0.125000
G01 X106.995253 Y102.592650 Z-0.125000
G01 X108.934437 Y103.315413 Z-0.125000
G01 X110.608876 Y104.335199 Z-0.125000
G01 X112.159382 Y105.724258 Z-0.125000
G01 X113.550058 Y107.494297 Z-0.125000
G01 X114.641642 Y109.412266 Z-0.125000
G01 X115.662333 Y111.891421 Z-0.125000
G01 X116.481150 Y114.710741 Z-0.125000
G01 X117.558633 Y120.858952 Z-0.125000
G01 X118.954419 Y134.931492 Z-0.125000
G01 X119.870519 Y141.657448 Z-0.125000
G01 X121.176007 Y148.318203 Z-0.125000
G01 X123.995263 Y159.908743 Z-0.125000
G01 X124.796745 Y164.951398 Z-0.125000
G01 X125.161685 Y170.377492 Z-0.125000
G01 X125.043898 Y174.682507 Z-0.125000
G01 X124.475402 Y177.141869 Z-0.125000
G01 X123.351736 Y178.659776 Z-0.125000
G01 X121.522253 Y179.609187 Z-0.125000
G01 X118.485535 Y180.373153 Z-0.125000
G01 X113.944687 Y181.032269 Z-0.125000
G01 X109.369234 Y181.348437 Z-0.125000
G01 X105.256003 Y181.337247 Z-0.125000
G01 X101.428151 Y181.060794 Z-0.125000
G01 X97.407933 Y180.481626 Z-0.125000
G01 X93.622514 Y179.660804 Z-0.125000
G01 X87.329867 Y177.735591 Z-0.125000
G01 X74.216828 Y172.616739 Z-0.125000
G01 X67.028263 Y170.244440 Z-0.125000
G01 X59.033817 Y168.286498 Z-0.125000
G01 X46.380671 Y166.065621 Z-0.125000
G01 X42.555601 Y164.957737 Z-0.125000
G01 X40.169912 Y163.683231 Z-0.125000
G01 X38.288037 Y161.901872 Z-0.125000
G01 X36.920711 Y159.529444 Z-0.125000
G01 X36.138893 Y156.770537 Z-0.125000
G01 X35.877316 Y154.294487 Z-0.125000
G01 X35.905324 Y151.823612 Z-0.125000
G01 X36.716250 Y146.297324 Z-0.125000
G01 X38.581372 Y139.846723 Z-0.125000
G01 X41.584586 Y132.332481 Z-0.125000
G01 X44.581719 Y126.601149 Z-0.125000
G01 X48.043337 Y121.464833 Z-0.125000
G01 X51.820866 Y117.073467 Z-0.125000
G01 X56.048068 Y113.235266 Z-0.125000
G01 X59.609880 Y110.688712 Z-0.125000
G01 X63.647303 Y108.427667 Z-0.125000
G01 X67.742358 Y106.716166 Z-0.125000
G01 X71.784892 Y105.527494 Z-0.125000
G01 X75.352008 Y104.844316 Z-0.125000
G01 X79.003082 Y104.456997 Z-0.125000
G01 X91.803768 Y104.214307 Z-0.125000
G01 X94.579104 Y103.677313 Z-0.125000
G01 X100.963471 Y101.786252 Z-0.125000
G01 X102.962422 Y101.505659 Z-0.125000
G01 X104.987828 Y101.505012 Z-0.125000
G01 X107.004891 Y101.840003 Z-0.125000
G01 X108.970918 Y102.562637 Z-0.125000
G01 X110.670971 Y103.592902 Z-0.125000
G01 X112.245475 Y105.003047 Z-0.125000
G01 X113.656138 Y106.804328 Z-0.125000
G01 X114.760981 Y108.758454 Z-0.125000
G01 X115.697068 Y111.016459 Z-0.125000
G01 X116.539429 Y113.856801 Z-0.125000
G01 X117.646019 Y120.067883 Z-0.125000
G01 X119.053319 Y133.941266 Z-0.125000
G01 X120.076339 Y141.151630 Z-0.125000
G01 X121.481762 Y147.913549 Z-0.125000
G01 X124.544224 Y159.671875 Z-0.125000
G01 X125.474425 Y165.057736 Z-0.125000
G01 X125.906699 Y170.526521 Z-0.125000
G01 X125.840658 Y174.823580 Z-0.125000
G01 X125.293831 Y177.264572 Z-0.125000
G01 X124.168289 Y178.782608 Z-0.125000
G01 X122.311963 Y179.768565 Z-0.125000
G01 X119.210497 Y180.619335 Z-0.125000
G01 X114.786596 Y181.372111 Z-0.125000
G01 X110.132618 Y181.798952 Z-0.125000
G01 X105.935170 Y181.865898 Z-0.125000
G01 X102.022843 Y181.643067 Z-0.125000
G01 X98.259609 Y181.158529 Z-0.125000
G01 X94.395277 Y180.380333 Z-0.125000
G01 X87.971389 Y178.486232 Z-0.125000
G01 X74.212753 Y173.166865 Z-0.125000
G01 X66.478913 Y170.670828 Z-0.125000
G01 X58.348763 Y168.772976 Z-0.125000
G01 X45.606097 Y166.678876 Z-0.125000
G01 X41.972293 Y165.657409 Z-0.125000
G01 X39.555040 Y164.396486 Z-0.125000
G01 X37.642634 Y162.609694 Z-0.125000
G01 X36.245943 Y160.210164 Z-0.125000
G01 X35.440644 Y157.406496 Z-0.125000
G01 X35.165872 Y154.884263 Z-0.125000
G01 X35.187282 Y152.364164 Z-0.125000
G01 X36.003189 Y146.723324 Z-0.125000
G01 X37.898130 Y140.137471 Z-0.125000
G01 X40.778640 Y132.832542 Z-0.125000
G01 X43.769952 Y126.966089 Z-0.125000
G01 X47.231118 Y121.688765 Z-0.125000
G01 X51.017767 Y117.159883 Z-0.125000
G01 X55.266443 Y113.186560 Z-0.125000
G01 X58.855034 Y110.541107 Z-0.125000
G01 X62.932237 Y108.184396 Z-0.125000
G01 X67.077033 Y106.393723 Z-0.125000
G01 X71.177199 Y105.145090 Z-0.125000
G01 X74.800653 Y104.424397 Z-0.125000
G01 X78.512270 Y104.014115 Z-0.125000
G01 X88.942469 Y103.949562 Z-0.125000
G01 X91.615154 Y103.767286 Z-0.125000
G01 X94.362871 Y103.189670 Z-0.125000
G01 X100.734495 Y101.127136 Z-0.125000
G01 X102.927688 Y100.776945 Z-0.125000
G01 X104.971917 Y100.755599 Z-0.125000
G01 X107.013623 Y101.079724 Z-0.125000
G01 X108.830622 Y101.719306 Z-0.125000
G01 X110.568384 Y102.722985 Z-0.125000
G01 X112.183056 Y104.115214 Z-0.125000
G01 X113.633111 Y105.908474 Z-0.125000
G01 X114.770425 Y107.864153 Z-0.125000
G01 X115.734454 Y110.131860 Z-0.125000
G01 X116.601395 Y112.992060 Z-0.125000
G01 X117.691232 Y118.910776 Z-0.125000
G01 X119.198078 Y133.313327 Z-0.125000
G01 X120.286945 Y140.626924 Z-0.125000
G01 X121.794502 Y147.489295 Z-0.125000
G01 X125.172293 Y159.690245 Z-0.125000
G01 X126.208249 Y165.422611 Z-0.125000
G01 X126.683731 Y170.880917 Z-0.125000
G01 X126.656241 Y174.945895 Z-0.125000
G01 X126.127849 Y177.368776 Z-0.125000
G01 X124.997067 Y178.890304 Z-0.125000
G01 X123.110923 Y179.919211 Z-0.125000
G01 X119.766250 Y180.906914 Z-0.125000
G01 X115.402374 Y181.744230 Z-0.125000
G01 X110.907709 Y182.250630 Z-0.125000
G01 X106.625398 Y182.399788 Z-0.125000
G01 X102.627496 Y182.233619 Z-0.125000
G01 X98.779657 Y181.785174 Z-0.125000
G01 X94.829038 Y181.025671 Z-0.125000
G01 X88.267118 Y179.125684 Z-0.125000
G01 X74.213659 Y173.730250 Z-0.125000
G01 X66.309704 Y171.218689 Z-0.125000
G01 X58.015001 Y169.342959 Z-0.125000
G01 X45.079839 Y167.357591 Z-0.125000
G01 X41.404445 Y166.371117 Z-0.125000
G01 X38.956984 Y165.123325 Z-0.125000
G01 X37.014501 Y163.330323 Z-0.125000
G01 X35.588120 Y160.902720 Z-0.125000
G01 X34.758437 Y158.053258 Z-0.125000
G01 X34.469694 Y155.483806 Z-0.125000
G01 X34.483794 Y152.913643 Z-0.125000
G01 X35.303646 Y147.156633 Z-0.125000
G01 X37.228213 Y140.434300 Z-0.125000
G01 X40.150572 Y132.976784 Z-0.125000
G01 X43.178947 Y126.982647 Z-0.125000
G01 X46.680540 Y121.586178 Z-0.125000
G01 X50.510138 Y116.952963 Z-0.125000
G01 X54.806809 Y112.888115 Z-0.125000
G01 X58.436473 Y110.183088 Z-0.125000
G01 X62.213290 Y107.954320 Z-0.125000
G01 X66.405628 Y106.081371 Z-0.125000
G01 X70.562002 Y104.769608 Z-0.125000
G01 X74.241537 Y104.008811 Z-0.125000
G01 X78.314729 Y103.552216 Z-0.125000
G01 X88.774035 Y103.517094 Z-0.125000
G01 X91.424081 Y103.322399 Z-0.125000
G01 X94.142820 Y102.703775 Z-0.125000
G01 X100.680873 Y100.422225 Z-0.125000
G01 X102.889590 Y100.040081 Z-0.125000
G01 X104.954129 Y99.998296 Z-0.125000
G01 X107.022678 Y100.312006 Z-0.125000
G01 X108.867879 Y100.952170 Z-0.125000
G01 X110.635008 Y101.966911 Z-0.125000
G01 X112.119732 Y103.221236 Z-0.125000
G01 X113.611054 Y105.005505 Z-0.125000
G01 X114.782326 Y106.961766 Z-0.125000
G01 X115.775463 Y109.238270 Z-0.125000
G01 X116.588394 Y111.813866 Z-0.125000
G01 X117.738192 Y117.736334 Z-0.125000
G01 X119.347366 Y132.668765 Z-0.125000
G01 X120.502920 Y140.084043 Z-0.125000
G01 X122.208859 Y147.394277 Z-0.125000
G01 X125.822805 Y159.696519 Z-0.125000
G01 X126.932629 Y165.508898 Z-0.125000
G01 X127.473635 Y170.998833 Z-0.125000
G01 X127.489999 Y175.049775 Z-0.125000
G01 X126.976484 Y177.455192 Z-0.125000
G01 X125.836842 Y178.984159 Z-0.125000
G01 X123.798111 Y180.111059 Z-0.125000
G01 X120.315147 Y181.206976 Z-0.125000
G01 X116.019122 Y182.125275 Z-0.125000
G01 X111.398392 Y182.730834 Z-0.125000
G01 X107.325716 Y182.939241 Z-0.125000
G01 X103.241269 Y182.832644 Z-0.125000
G01 X99.307791 Y182.422492 Z-0.125000
G01 X95.269785 Y181.683234 Z-0.125000
G01 X88.568474 Y179.778397 Z-0.125000
G01 X74.219092 Y174.306895 Z-0.125000
G01 X66.145022 Y171.780264 Z-0.125000
G01 X57.687060 Y169.927043 Z-0.125000
G01 X44.325446 Y168.005840 Z-0.125000
G01 X40.658460 Y167.026157 Z-0.125000
G01 X38.218503 Y165.754756 Z-0.125000
G01 X36.282488 Y163.910202 Z-0.125000
G01 X34.864128 Y161.404722 Z-0.125000
G01 X34.047898 Y158.463087 Z-0.125000
G01 X33.788974 Y156.092469 Z-0.125000
G01 X33.794795 Y153.471466 Z-0.125000
G01 X34.617558 Y147.596604 Z-0.125000
G01 X36.571425 Y140.736626 Z-0.125000
G01 X39.535635 Y133.125813 Z-0.125000
G01 X42.600426 Y127.003605 Z-0.125000
G01 X46.141087 Y121.487602 Z-0.125000
G01 X50.011888 Y116.749537 Z-0.125000
G01 X54.354289 Y112.592645 Z-0.125000
G01 X58.023151 Y109.827722 Z-0.125000
G01 X61.841753 Y107.551865 Z-0.125000
G01 X65.727948 Y105.779497 Z-0.125000
G01 X69.938980 Y104.401370 Z-0.125000
G01 X73.674076 Y103.597818 Z-0.125000
G01 X77.814086 Y103.112181 Z-0.125000
G01 X81.551641 Y102.981845 Z-0.125000
G01 X88.414723 Y103.089671 Z-0.125000
G01 X91.230680 Y102.879194 Z-0.125000
G01 X93.919083 Y102.219496 Z-0.125000
G01 X100.623499 Y99.709035 Z-0.125000
G01 X102.848775 Y99.295131 Z-0.125000
G01 X104.935436 Y99.233230 Z-0.125000
G01 X107.033028 Y99.537109 Z-0.125000
G01 X108.908694 Y100.178695 Z-0.125000
G01 X110.706999 Y101.205467 Z-0.125000
G01 X112.217855 Y102.480038 Z-0.125000
G01 X113.590679 Y104.096003 Z-0.125000
G01 X114.797333 Y106.052005 Z-0.125000
G01 X115.820870 Y108.336465 Z-0.125000
G01 X116.658057 Y110.927650 Z-0.125000
G01 X117.838903 Y116.901541 Z-0.125000
G01 X119.501828 Y132.008162 Z-0.125000
G01 X120.724523 Y139.523439 Z-0.125000
G01 X122.542945 Y146.937618 Z-0.125000
G01 X126.495699 Y159.691539 Z-0.125000
G01 X127.678549 Y165.583994 Z-0.125000
G01 X128.283849 Y171.101355 Z-0.125000
G01 X128.340964 Y175.135544 Z-0.125000
G01 X127.838315 Y177.524467 Z-0.125000
G01 X126.686189 Y179.065077 Z-0.125000
G01 X124.484328 Y180.304719 Z-0.125000
G01 X120.855117 Y181.522175 Z-0.125000
G01 X116.380957 Y182.565182 Z-0.125000
G01 X111.885063 Y183.225009 Z-0.125000
G01 X107.698612 Y183.493442 Z-0.125000
G01 X103.863321 Y183.440337 Z-0.125000
G01 X99.843104 Y183.070612 Z-0.125000
G01 X95.716548 Y182.353023 Z-0.125000
G01 X88.874617 Y180.444433 Z-0.125000
G01 X74.228341 Y174.896930 Z-0.125000
G01 X65.984156 Y172.355486 Z-0.125000
G01 X58.485696 Y170.717270 Z-0.125000
G01 X44.561538 Y168.837917 Z-0.125000
G01 X40.120107 Y167.768067 Z-0.125000
G01 X37.652854 Y166.507144 Z-0.125000
G01 X35.687538 Y164.653147 Z-0.125000
G01 X34.238647 Y162.115842 Z-0.125000
G01 X33.396480 Y159.124725 Z-0.125000
G01 X33.123649 Y156.709541 Z-0.125000
G01 X33.121061 Y154.036727 Z-0.125000
G01 X33.395704 Y151.136100 Z-0.125000
G01 X33.945635 Y148.042526 Z-0.125000
G01 X35.799827 Y141.423943 Z-0.125000
G01 X38.934345 Y133.279046 Z-0.125000
G01 X42.034971 Y127.028572 Z-0.125000
G01 X45.613406 Y121.392583 Z-0.125000
G01 X49.523405 Y116.549344 Z-0.125000
G01 X53.909208 Y112.300021 Z-0.125000
G01 X57.271022 Y109.711423 Z-0.125000
G01 X61.119054 Y107.341388 Z-0.125000
G01 X65.044577 Y105.488361 Z-0.125000
G01 X69.308518 Y104.040699 Z-0.125000
G01 X73.098530 Y103.191546 Z-0.125000
G01 X77.305940 Y102.674279 Z-0.125000
G01 X81.379003 Y102.532883 Z-0.125000
G01 X88.245578 Y102.660437 Z-0.125000
G01 X90.872986 Y102.463155 Z-0.125000
G01 X93.692888 Y101.736576 Z-0.125000
G01 X100.380616 Y99.038988 Z-0.125000
G01 X102.617211 Y98.566093 Z-0.125000
G01 X104.917583 Y98.460596 Z-0.125000
G01 X106.853469 Y98.711371 Z-0.125000
G01 X108.766586 Y99.317511 Z-0.125000
G01 X110.608294 Y100.316599 Z-0.125000
G01 X112.160223 Y101.573899 Z-0.125000
G01 X113.573409 Y103.180615 Z-0.125000
G01 X114.817061 Y105.135646 Z-0.125000
G01 X115.872228 Y107.427222 Z-0.125000
G01 X116.734641 Y110.033154 Z-0.125000
G01 X117.947181 Y116.056398 Z-0.125000
G01 X119.662564 Y131.332164 Z-0.125000
G01 X120.952917 Y138.945694 Z-0.125000
G01 X122.885763 Y146.462912 Z-0.125000
G01 X127.112512 Y159.391864 Z-0.125000
G01 X128.446655 Y165.648289 Z-0.125000
G01 X129.114762 Y171.188612 Z-0.125000
G01 X129.208875 Y175.203849 Z-0.125000
G01 X128.712953 Y177.577442 Z-0.125000
G01 X127.544527 Y179.134158 Z-0.125000
G01 X125.298359 Y180.445662 Z-0.125000
G01 X121.582796 Y181.794941 Z-0.125000
G01 X117.250485 Y182.918996 Z-0.125000
G01 X112.679172 Y183.695963 Z-0.125000
G01 X108.410250 Y184.050424 Z-0.125000
G01 X104.493524 Y184.056892 Z-0.125000
G01 X100.385467 Y183.729663 Z-0.125000
G01 X96.169326 Y183.035230 Z-0.125000
G01 X89.185481 Y181.123924 Z-0.125000
G01 X74.241601 Y175.500548 Z-0.125000
G01 X65.827495 Y172.944486 Z-0.125000
G01 X58.188092 Y171.324251 Z-0.125000
G01 X43.827843 Y169.515338 Z-0.125000
G01 X39.403618 Y168.450533 Z-0.125000
G01 X36.946455 Y167.159856 Z-0.125000
G01 X34.987931 Y165.247386 Z-0.125000
G01 X33.546414 Y162.625024 Z-0.125000
G01 X32.717054 Y159.535395 Z-0.125000
G01 X32.459294 Y157.044080 Z-0.125000
G01 X32.478052 Y154.291124 Z-0.125000
G01 X33.287166 Y148.493816 Z-0.125000
G01 X35.167942 Y141.742829 Z-0.125000
G01 X38.346187 Y133.436160 Z-0.125000
G01 X41.481870 Y127.057032 Z-0.125000
G01 X45.096786 Y121.300928 Z-0.125000
G01 X49.043977 Y116.352256 Z-0.125000
G01 X53.470725 Y112.010243 Z-0.125000
G01 X56.864492 Y109.366083 Z-0.125000
G01 X60.750428 Y106.947083 Z-0.125000
G01 X64.716183 Y105.058739 Z-0.125000
G01 X69.025079 Y103.587792 Z-0.125000
G01 X72.854612 Y102.730036 Z-0.125000
G01 X77.102254 Y102.214904 Z-0.125000
G01 X80.930882 Y102.084309 Z-0.125000
G01 X88.075334 Y102.232368 Z-0.125000
G01 X90.678291 Y102.024219 Z-0.125000
G01 X93.463782 Y101.254884 Z-0.125000
G01 X100.317486 Y98.312214 Z-0.125000
G01 X102.572386 Y97.807496 Z-0.125000
G01 X104.900895 Y97.680653 Z-0.125000
G01 X106.867505 Y97.923407 Z-0.125000
G01 X108.815421 Y98.531812 Z-0.125000
G01 X110.692381 Y99.544224 Z-0.125000
G01 X112.273547 Y100.823063 Z-0.125000
G01 X113.710989 Y102.459727 Z-0.125000
G01 X114.972429 Y104.452145 Z-0.125000
G01 X115.929796 Y106.511445 Z-0.125000
G01 X116.818276 Y109.131285 Z-0.125000
G01 X118.009212 Y114.839653 Z-0.125000
G01 X119.773883 Y130.230878 Z-0.125000
G01 X121.187844 Y138.351520 Z-0.125000
G01 X123.236924 Y145.971001 Z-0.125000
G01 X127.827060 Y159.363145 Z-0.125000
G01 X129.236106 Y165.702299 Z-0.125000
G01 X129.964950 Y171.261121 Z-0.125000
G01 X130.092051 Y175.255272 Z-0.125000
G01 X129.598393 Y177.615152 Z-0.125000
G01 X128.409657 Y179.192760 Z-0.125000
G01 X125.982830 Y180.646372 Z-0.125000
G01 X122.107502 Y182.141381 Z-0.125000
G01 X117.593756 Y183.396741 Z-0.125000
G01 X113.163386 Y184.215170 Z-0.125000
G01 X109.129197 Y184.613874 Z-0.125000
G01 X104.755489 Y184.671700 Z-0.125000
G01 X100.545169 Y184.354885 Z-0.125000
G01 X96.626697 Y183.729663 Z-0.125000
G01 X89.499839 Y181.816610 Z-0.125000
G01 X74.257578 Y176.117361 Z-0.125000
G01 X65.673809 Y173.547004 Z-0.125000
G01 X57.894950 Y171.944816 Z-0.125000
G01 X43.356242 Y170.245540 Z-0.125000
G01 X38.896700 Y169.217863 Z-0.125000
G01 X36.414829 Y167.934689 Z-0.125000
G01 X34.427585 Y166.009217 Z-0.125000
G01 X32.954310 Y163.351215 Z-0.125000
G01 X32.097330 Y160.208417 Z-0.125000
G01 X31.824369 Y157.670013 Z-0.125000
G01 X31.833231 Y154.862853 Z-0.125000
G01 X32.642475 Y148.949570 Z-0.125000
G01 X34.549512 Y142.065077 Z-0.125000
G01 X37.771288 Y133.596120 Z-0.125000
G01 X40.941447 Y127.088274 Z-0.125000
G01 X44.591292 Y121.212054 Z-0.125000
G01 X48.573670 Y116.157820 Z-0.125000
G01 X53.038774 Y111.722793 Z-0.125000
G01 X56.462619 Y109.022941 Z-0.125000
G01 X60.384519 Y106.554783 Z-0.125000
G01 X64.388954 Y104.630734 Z-0.125000
G01 X68.382457 Y103.237794 Z-0.125000
G01 X72.265677 Y102.330297 Z-0.125000
G01 X76.581624 Y101.779460 Z-0.125000
G01 X80.754880 Y101.635994 Z-0.125000
G01 X87.904248 Y101.804881 Z-0.125000
G01 X90.482238 Y101.585930 Z-0.125000
G01 X93.232607 Y100.773969 Z-0.125000
G01 X100.067811 Y97.636540 Z-0.125000
G01 X102.527820 Y97.040878 Z-0.125000
G01 X104.886988 Y96.893466 Z-0.125000
G01 X106.886716 Y97.129105 Z-0.125000
G01 X108.871695 Y97.740938 Z-0.125000
G01 X110.599561 Y98.645782 Z-0.125000
G01 X112.225359 Y99.907028 Z-0.125000
G01 X113.706267 Y101.534119 Z-0.125000
G01 X115.007228 Y103.525114 Z-0.125000
G01 X115.994608 Y105.589783 Z-0.125000
G01 X116.910125 Y108.222688 Z-0.125000
G01 X118.132756 Y113.973359 Z-0.125000
G01 X119.945615 Y129.521569 Z-0.125000
G01 X121.430145 Y137.741369 Z-0.125000
G01 X123.597077 Y145.462207 Z-0.125000
G01 X128.475504 Y159.033975 Z-0.125000
G01 X130.096061 Y166.028040 Z-0.125000
G01 X130.855435 Y171.535569 Z-0.125000
G01 X130.989587 Y175.290136 Z-0.125000
G01 X130.493471 Y177.638179 Z-0.125000
G01 X129.280543 Y179.241790 Z-0.125000
G01 X126.935864 Y180.721016 Z-0.125000
G01 X123.038090 Y182.360979 Z-0.125000
G01 X118.742842 Y183.692341 Z-0.125000
G01 X114.290351 Y184.646344 Z-0.125000
G01 X109.855000 Y185.183469 Z-0.125000
G01 X105.773075 Y185.316262 Z-0.125000
G01 X101.486430 Y185.080235 Z-0.125000
G01 X97.490468 Y184.512063 Z-0.125000
G01 X93.861322 Y183.710646 Z-0.125000
G01 X90.222149 Y182.654250 Z-0.125000
G01 X74.276142 Y176.747629 Z-0.125000
G01 X65.523034 Y174.163106 Z-0.125000
G01 X57.211255 Y172.518422 Z-0.125000
G01 X42.897836 Y170.987967 Z-0.125000
G01 X40.509690 Y170.586352 Z-0.125000
G01 X38.406600 Y169.996188 Z-0.125000
G01 X35.901508 Y168.719483 Z-0.125000
G01 X33.885739 Y166.780040 Z-0.125000
G01 X32.380122 Y164.085234 Z-0.125000
G01 X31.494294 Y160.888037 Z-0.125000
G01 X31.205292 Y158.301768 Z-0.125000
G01 X31.203352 Y155.439757 Z-0.125000
G01 X32.011496 Y149.409010 Z-0.125000
G01 X33.944342 Y142.390172 Z-0.125000
G01 X37.209584 Y133.758602 Z-0.125000
G01 X40.413572 Y127.122038 Z-0.125000
G01 X44.096858 Y121.125573 Z-0.125000
G01 X48.112224 Y115.965778 Z-0.125000
G01 X52.612969 Y111.437802 Z-0.125000
G01 X56.064950 Y108.682064 Z-0.125000
G01 X60.020808 Y106.164488 Z-0.125000
G01 X64.062242 Y104.204476 Z-0.125000
G01 X68.094620 Y102.789026 Z-0.125000
G01 X72.016261 Y101.871245 Z-0.125000
G01 X76.372764 Y101.321055 Z-0.125000
G01 X80.577585 Y101.188132 Z-0.125000
G01 X87.545389 Y101.380175 Z-0.125000
G01 X90.285150 Y101.148223 Z-0.125000
G01 X92.999685 Y100.293572 Z-0.125000
G01 X97.822937 Y97.802709 Z-0.125000
G01 X100.001317 Y96.895924 Z-0.125000
G01 X102.484353 Y96.266562 Z-0.125000
G01 X104.876962 Y96.099423 Z-0.125000
G01 X106.912395 Y96.328916 Z-0.125000
G01 X108.937025 Y96.945536 Z-0.125000
G01 X110.700402 Y97.864417 Z-0.125000
G01 X112.358475 Y99.148819 Z-0.125000
G01 X113.865774 Y100.807475 Z-0.125000
G01 X115.049013 Y102.593685 Z-0.125000
G01 X116.067634 Y104.663140 Z-0.125000
G01 X117.010965 Y107.308335 Z-0.125000
G01 X118.265808 Y113.099368 Z-0.125000
G01 X120.125045 Y128.799193 Z-0.125000
G01 X121.680079 Y137.116018 Z-0.125000
G01 X123.966479 Y144.937243 Z-0.125000
G01 X129.231578 Y158.984364 Z-0.125000
G01 X130.930984 Y166.064262 Z-0.125000
G01 X131.744692 Y171.578519 Z-0.125000
G01 X131.900383 Y175.309217 Z-0.125000
G01 X131.396828 Y177.647687 Z-0.125000
G01 X130.155569 Y179.282734 Z-0.125000
G01 X127.617683 Y180.931687 Z-0.125000
G01 X123.549341 Y182.739307 Z-0.125000
G01 X119.352799 Y184.128366 Z-0.125000
G01 X114.776440 Y185.186962 Z-0.125000
G01 X110.586690 Y185.759597 Z-0.125000
G01 X106.030318 Y185.959207 Z-0.125000
G01 X101.638757 Y185.733853 Z-0.125000
G01 X97.552822 Y185.155461 Z-0.125000
G01 X93.848062 Y184.330823 Z-0.125000
G01 X90.136509 Y183.241826 Z-0.125000
G01 X74.296517 Y177.391156 Z-0.125000
G01 X65.374652 Y174.792791 Z-0.125000
G01 X56.920701 Y173.167900 Z-0.125000
G01 X42.198812 Y171.710471 Z-0.125000
G01 X37.933512 Y170.784863 Z-0.125000
G01 X35.244591 Y169.398133 Z-0.125000
G01 X33.235356 Y167.390191 Z-0.125000
G01 X31.735043 Y164.600172 Z-0.125000
G01 X30.860211 Y161.295667 Z-0.125000
G01 X30.585762 Y158.627769 Z-0.125000
G01 X30.605685 Y155.680829 Z-0.125000
G01 X31.475083 Y149.488441 Z-0.125000
G01 X33.489105 Y142.306731 Z-0.125000
G01 X36.661075 Y133.922896 Z-0.125000
G01 X39.898181 Y127.157743 Z-0.125000
G01 X43.613420 Y121.041227 Z-0.125000
G01 X47.659511 Y115.775934 Z-0.125000
G01 X52.193244 Y111.155009 Z-0.125000
G01 X55.671227 Y108.343321 Z-0.125000
G01 X59.658974 Y105.776134 Z-0.125000
G01 X63.363864 Y103.937919 Z-0.125000
G01 X67.438674 Y102.450284 Z-0.125000
G01 X71.412514 Y101.478428 Z-0.125000
G01 X75.837903 Y100.887940 Z-0.125000
G01 X80.116204 Y100.738200 Z-0.125000
G01 X87.374174 Y100.953140 Z-0.125000
G01 X90.087351 Y100.710645 Z-0.125000
G01 X92.765598 Y99.813562 Z-0.125000
G01 X97.564983 Y97.184797 Z-0.125000
G01 X99.747891 Y96.214752 Z-0.125000
G01 X102.245480 Y95.519996 Z-0.125000
G01 X104.872305 Y95.298846 Z-0.125000
G01 X106.946094 Y95.523489 Z-0.125000
G01 X108.808177 Y96.064817 Z-0.125000
G01 X110.617867 Y96.958602 Z-0.125000
G01 X112.324064 Y98.225410 Z-0.125000
G01 X113.877934 Y99.874364 Z-0.125000
G01 X115.098818 Y101.658763 Z-0.125000
G01 X116.149717 Y103.732487 Z-0.125000
G01 X117.121831 Y106.389260 Z-0.125000
G01 X118.409403 Y112.218779 Z-0.125000
G01 X120.312818 Y128.064593 Z-0.125000
G01 X121.938292 Y136.476113 Z-0.125000
G01 X124.345520 Y144.396885 Z-0.125000
G01 X129.911910 Y158.628609 Z-0.125000
G01 X130.876716 Y161.940035 Z-0.125000
G01 X131.786606 Y166.091106 Z-0.125000
G01 X132.651153 Y171.607561 Z-0.125000
G01 X132.823209 Y175.313357 Z-0.125000
G01 X132.307107 Y177.644841 Z-0.125000
G01 X131.033506 Y179.316951 Z-0.125000
G01 X128.435206 Y181.076641 Z-0.125000
G01 X124.485234 Y182.963368 Z-0.125000
G01 X120.240244 Y184.493370 Z-0.125000
G01 X115.591441 Y185.678097 Z-0.125000
G01 X111.323424 Y186.342322 Z-0.125000
G01 X107.073454 Y186.611466 Z-0.125000
G01 X102.604533 Y186.474469 Z-0.125000
G01 X98.439297 Y185.959078 Z-0.125000
G01 X94.661057 Y185.174348 Z-0.125000
G01 X90.878290 Y184.108250 Z-0.125000
G01 X74.318509 Y178.047943 Z-0.125000
G01 X65.228404 Y175.435801 Z-0.125000
G01 X56.634286 Y173.830702 Z-0.125000
G01 X41.765697 Y172.478060 Z-0.125000
G01 X37.477499 Y171.583111 Z-0.125000
G01 X34.766522 Y170.200068 Z-0.125000
G01 X32.728826 Y168.174273 Z-0.125000
G01 X31.194620 Y165.343504 Z-0.125000
G01 X30.288804 Y161.980979 Z-0.125000
G01 X29.996698 Y159.262887 Z-0.125000
G01 X30.004783 Y156.258833 Z-0.125000
G01 X30.274445 Y153.379875 Z-0.125000
G01 X30.872177 Y149.945747 Z-0.125000
G01 X32.773781 Y143.045924 Z-0.125000
G01 X36.125698 Y134.088419 Z-0.125000
G01 X39.395209 Y127.194806 Z-0.125000
G01 X43.140849 Y120.958563 Z-0.125000
G01 X47.215335 Y115.588096 Z-0.125000
G01 X51.779146 Y110.874287 Z-0.125000
G01 X55.280997 Y108.006713 Z-0.125000
G01 X59.298498 Y105.389784 Z-0.125000
G01 X63.033724 Y103.517805 Z-0.125000
G01 X67.144821 Y102.005785 Z-0.125000
G01 X71.155853 Y101.021768 Z-0.125000
G01 X75.622057 Y100.430181 Z-0.125000
G01 X79.933864 Y100.289691 Z-0.125000
G01 X87.202377 Y100.525718 Z-0.125000
G01 X89.735025 Y100.303597 Z-0.125000
G01 X92.385782 Y99.404703 Z-0.125000
G01 X97.305994 Y96.566948 Z-0.125000
G01 X99.681139 Y95.460488 Z-0.125000
G01 X102.205118 Y94.732873 Z-0.125000
G01 X104.874246 Y94.492189 Z-0.125000
G01 X106.989173 Y94.713274 Z-0.125000
G01 X108.891359 Y95.261136 Z-0.125000
G01 X110.740375 Y96.170897 Z-0.125000
G01 X112.481825 Y97.462867 Z-0.125000
G01 X114.064026 Y99.145197 Z-0.125000
G01 X115.302827 Y100.964977 Z-0.125000
G01 X116.364463 Y103.078287 Z-0.125000
G01 X117.243499 Y105.466239 Z-0.125000
G01 X118.503711 Y110.961479 Z-0.125000
G01 X120.509389 Y127.318609 Z-0.125000
G01 X122.205043 Y135.822560 Z-0.125000
G01 X124.734391 Y143.841779 Z-0.125000
G01 X130.709447 Y158.561404 Z-0.125000
G01 X131.710216 Y161.921730 Z-0.125000
G01 X132.718876 Y166.393109 Z-0.125000
G01 X133.598624 Y171.833498 Z-0.125000
G01 X133.756773 Y175.303266 Z-0.125000
G01 X133.222624 Y177.630676 Z-0.125000
G01 X131.824639 Y179.425359 Z-0.125000
G01 X129.101955 Y181.312344 Z-0.125000
G01 X124.977274 Y183.380571 Z-0.125000
G01 X120.551820 Y185.048411 Z-0.125000
G01 X116.066470 Y186.248662 Z-0.125000
G01 X111.682478 Y186.978281 Z-0.125000
G01 X107.322418 Y187.283454 Z-0.125000
G01 X102.746059 Y187.157064 Z-0.125000
G01 X98.489362 Y186.630030 Z-0.125000
G01 X95.063189 Y185.925249 Z-0.125000
G01 X91.208041 Y184.854816 Z-0.125000
G01 X74.804211 Y178.873099 Z-0.125000
G01 X69.695450 Y177.281713 Z-0.125000
G01 X65.083774 Y176.092071 Z-0.125000
G01 X56.351623 Y174.506571 Z-0.125000
G01 X41.346101 Y173.256062 Z-0.125000
G01 X38.950904 Y172.896168 Z-0.125000
G01 X36.839470 Y172.320622 Z-0.125000
G01 X34.144146 Y170.889390 Z-0.125000
G01 X32.111948 Y168.787400 Z-0.125000
G01 X30.581170 Y165.854109 Z-0.125000
G01 X29.685186 Y162.378130 Z-0.125000
G01 X29.407439 Y159.574786 Z-0.125000
G01 X29.418759 Y156.839424 Z-0.125000
G01 X29.683181 Y153.904710 Z-0.125000
G01 X30.282789 Y150.404476 Z-0.125000
G01 X32.208067 Y143.375223 Z-0.125000
G01 X35.603192 Y134.254589 Z-0.125000
G01 X38.904462 Y127.232904 Z-0.125000
G01 X42.678886 Y120.877192 Z-0.125000
G01 X46.779375 Y115.401939 Z-0.125000
G01 X51.370287 Y110.595569 Z-0.125000
G01 X54.893871 Y107.672045 Z-0.125000
G01 X58.565773 Y105.223162 Z-0.125000
G01 X62.324738 Y103.267807 Z-0.125000
G01 X66.474321 Y101.679073 Z-0.125000
G01 X70.896411 Y100.566079 Z-0.125000
G01 X75.403366 Y99.972681 Z-0.125000
G01 X79.749260 Y99.840923 Z-0.125000
G01 X87.030063 Y100.097583 Z-0.125000
G01 X89.538519 Y99.866667 Z-0.125000
G01 X92.152472 Y98.927799 Z-0.125000
G01 X97.046552 Y95.949035 Z-0.125000
G01 X99.426742 Y94.774011 Z-0.125000
G01 X102.169219 Y93.938636 Z-0.125000
G01 X104.884142 Y93.679841 Z-0.125000
G01 X107.043053 Y93.898856 Z-0.125000
G01 X108.987542 Y94.454803 Z-0.125000
G01 X110.877761 Y95.382222 Z-0.125000
G01 X112.465331 Y96.534801 Z-0.125000
G01 X114.097079 Y98.207752 Z-0.125000
G01 X115.375660 Y100.025721 Z-0.125000
G01 X116.470995 Y102.142977 Z-0.125000
G01 X117.376616 Y104.540308 Z-0.125000
G01 X118.669104 Y110.067889 Z-0.125000
G01 X120.715273 Y126.562016 Z-0.125000
G01 X122.480720 Y135.156005 Z-0.125000
G01 X125.133354 Y143.272766 Z-0.125000
G01 X131.421473 Y158.182170 Z-0.125000
G01 X132.564802 Y161.898185 Z-0.125000
G01 X133.616994 Y166.403458 Z-0.125000
G01 X134.537751 Y171.835179 Z-0.125000
G01 X134.699522 Y175.279851 Z-0.125000
G01 X134.141958 Y177.606420 Z-0.125000
G01 X132.701153 Y179.454272 Z-0.125000
G01 X129.755184 Y181.568164 Z-0.125000
G01 X125.682768 Y183.720866 Z-0.125000
G01 X121.438101 Y185.431656 Z-0.125000
G01 X116.883153 Y186.756226 Z-0.125000
G01 X112.419277 Y187.581900 Z-0.125000
G01 X107.972866 Y187.959387 Z-0.125000
G01 X103.302782 Y187.885067 Z-0.125000
G01 X98.959604 Y187.385394 Z-0.125000
G01 X95.465968 Y186.688697 Z-0.125000
G01 X91.538052 Y185.614255 Z-0.125000
G01 X74.835970 Y179.557506 Z-0.125000
G01 X69.633484 Y177.953571 Z-0.125000
G01 X64.940308 Y176.761471 Z-0.125000
G01 X56.072324 Y175.195311 Z-0.125000
G01 X50.936590 Y174.676945 Z-0.125000
G01 X40.940088 Y174.043961 Z-0.125000
G01 X38.536936 Y173.701272 Z-0.125000
G01 X36.416963 Y173.136399 Z-0.125000
G01 X33.701911 Y171.704585 Z-0.125000
G01 X31.640994 Y169.580667 Z-0.125000
G01 X30.074252 Y166.602486 Z-0.125000
G01 X29.144828 Y163.065124 Z-0.125000
G01 X28.848064 Y160.209258 Z-0.125000
G01 X28.847417 Y157.421697 Z-0.125000
G01 X29.105889 Y154.430644 Z-0.125000
G01 X29.706790 Y150.863787 Z-0.125000
G01 X31.655354 Y143.704458 Z-0.125000
G01 X35.093557 Y134.420758 Z-0.125000
G01 X38.425876 Y127.271326 Z-0.125000
G01 X42.227401 Y120.796792 Z-0.125000
G01 X46.351435 Y115.217206 Z-0.125000
G01 X50.966473 Y110.318663 Z-0.125000
G01 X54.509527 Y107.339383 Z-0.125000
G01 X58.204068 Y104.844639 Z-0.125000
G01 X61.989682 Y102.854097 Z-0.125000
G01 X66.172576 Y101.238973 Z-0.125000
G01 X70.633735 Y100.111231 Z-0.125000
G01 X75.181504 Y99.515505 Z-0.125000
G01 X79.562198 Y99.391832 Z-0.125000
G01 X86.857296 Y99.668479 Z-0.125000
G01 X89.342207 Y99.428895 Z-0.125000
G01 X91.919356 Y98.450506 Z-0.125000
G01 X96.965375 Y95.224720 Z-0.125000
G01 X99.362771 Y94.006552 Z-0.125000
G01 X102.138883 Y93.137542 Z-0.125000
G01 X104.903418 Y92.862317 Z-0.125000
G01 X107.109288 Y93.080944 Z-0.125000
G01 X109.098408 Y93.646658 Z-0.125000
G01 X111.031383 Y94.593547 Z-0.125000
G01 X112.652393 Y95.770964 Z-0.125000
G01 X114.139446 Y97.269595 Z-0.125000
G01 X115.459036 Y99.085430 Z-0.125000
G01 X116.589170 Y101.206308 Z-0.125000
G01 X117.522217 Y103.612436 Z-0.125000
G01 X118.847304 Y109.170741 Z-0.125000
G01 X120.931054 Y125.795657 Z-0.125000
G01 X121.725486 Y130.164061 Z-0.125000
G01 X122.765776 Y134.477291 Z-0.125000
G01 X124.052895 Y138.671505 Z-0.125000
G01 X125.542730 Y142.690493 Z-0.125000
G01 X132.146435 Y157.790646 Z-0.125000
G01 X133.440087 Y161.870113 Z-0.125000
G01 X134.594154 Y166.688385 Z-0.125000
G01 X135.515622 Y172.028451 Z-0.125000
G01 X135.639037 Y175.381985 Z-0.125000
G01 X135.013621 Y177.671426 Z-0.125000
G01 X133.480578 Y179.569342 Z-0.125000
G01 X130.392955 Y181.847270 Z-0.125000
G01 X126.139750 Y184.192790 Z-0.125000
G01 X121.714425 Y186.039349 Z-0.125000
G01 X117.342593 Y187.359003 Z-0.125000
G01 X113.158340 Y188.192633 Z-0.125000
G01 X108.625060 Y188.644570 Z-0.125000
G01 X103.860669 Y188.623936 Z-0.125000
G01 X99.430235 Y188.152659 Z-0.125000
G01 X95.868552 Y187.464630 Z-0.125000
G01 X91.867610 Y186.386306 Z-0.125000
G01 X74.867600 Y180.254719 Z-0.125000
G01 X69.571776 Y178.638301 Z-0.125000
G01 X64.797683 Y177.443743 Z-0.125000
G01 X55.796258 Y175.896535 Z-0.125000
G01 X50.602181 Y175.403201 Z-0.125000
G01 X40.292809 Y174.816206 Z-0.125000
G01 X37.913977 Y174.470736 Z-0.125000
G01 X36.011921 Y173.959162 Z-0.125000
G01 X33.278564 Y172.525343 Z-0.125000
G01 X31.188992 Y170.378074 Z-0.125000
G01 X29.585381 Y167.353969 Z-0.125000
G01 X28.570899 Y163.447010 Z-0.125000
G01 X28.288366 Y160.502594 Z-0.125000
G01 X28.307512 Y157.634503 Z-0.125000
G01 X29.143987 Y151.322968 Z-0.125000
G01 X31.115319 Y144.033045 Z-0.125000
G01 X34.596472 Y134.586346 Z-0.125000
G01 X37.959126 Y127.309747 Z-0.125000
G01 X41.786007 Y120.716973 Z-0.125000
G01 X45.931127 Y115.033766 Z-0.125000
G01 X50.567058 Y110.043503 Z-0.125000
G01 X54.127253 Y107.008725 Z-0.125000
G01 X57.842298 Y104.468057 Z-0.125000
G01 X61.652686 Y102.442134 Z-0.125000
G01 X65.486100 Y100.925068 Z-0.125000
G01 X69.999652 Y99.728828 Z-0.125000
G01 X74.617407 Y99.084719 Z-0.125000
G01 X79.078307 Y98.937889 Z-0.125000
G01 X86.684011 Y99.238016 Z-0.125000
G01 X89.146089 Y98.989829 Z-0.125000
G01 X91.686822 Y97.972372 Z-0.125000
G01 X96.707356 Y94.601438 Z-0.125000
G01 X99.110379 Y93.315031 Z-0.125000
G01 X101.906349 Y92.375904 Z-0.125000
G01 X104.710922 Y92.040654 Z-0.125000
G01 X106.962135 Y92.219049 Z-0.125000
G01 X109.000543 Y92.754621 Z-0.125000
G01 X110.987592 Y93.678288 Z-0.125000
G01 X112.657632 Y94.841281 Z-0.125000
G01 X114.191645 Y96.331633 Z-0.125000
G01 X115.553602 Y98.145139 Z-0.125000
G01 X116.719570 Y100.269251 Z-0.125000
G01 X117.680689 Y102.683658 Z-0.125000
G01 X118.528096 Y105.713133 Z-0.125000
G01 X119.224986 Y109.414659 Z-0.125000
G01 X121.378011 Y126.344683 Z-0.125000
G01 X123.060406 Y133.787192 Z-0.125000
G01 X124.403993 Y138.028430 Z-0.125000
G01 X125.962520 Y142.095866 Z-0.125000
G01 X132.883881 Y157.387674 Z-0.125000
G01 X134.245903 Y161.519598 Z-0.125000
G01 X135.531599 Y166.683016 Z-0.125000
G01 X136.481786 Y172.004712 Z-0.125000
G01 X136.594593 Y175.334120 Z-0.125000
G01 X135.933407 Y177.632551 Z-0.125000
G01 X134.349136 Y179.600584 Z-0.125000
G01 X131.183570 Y182.039830 Z-0.125000
G01 X127.070403 Y184.447316 Z-0.125000
G01 X122.595144 Y186.444133 Z-0.125000
G01 X118.157012 Y187.884549 Z-0.125000
G01 X113.898697 Y188.810481 Z-0.125000
G01 X109.278161 Y189.338873 Z-0.125000
G01 X104.418622 Y189.373543 Z-0.125000
G01 X99.900219 Y188.931696 Z-0.125000
G01 X96.270102 Y188.252658 Z-0.125000
G01 X92.195809 Y187.170906 Z-0.125000
G01 X74.898453 Y180.964546 Z-0.125000
G01 X69.509616 Y179.335709 Z-0.125000
G01 X64.655252 Y178.138757 Z-0.125000
G01 X55.522910 Y176.610113 Z-0.125000
G01 X50.273076 Y176.140971 Z-0.125000
G01 X39.913252 Y175.623574 Z-0.125000
G01 X37.530862 Y175.292529 Z-0.125000
G01 X35.624213 Y174.788199 Z-0.125000
G01 X32.874039 Y173.350693 Z-0.125000
G01 X30.755813 Y171.178716 Z-0.125000
G01 X29.114298 Y168.107456 Z-0.125000
G01 X28.061006 Y164.131482 Z-0.125000
G01 X27.757774 Y161.132538 Z-0.125000
G01 X27.764243 Y158.210630 Z-0.125000
G01 X28.042895 Y155.081545 Z-0.125000
G01 X28.594508 Y151.781245 Z-0.125000
G01 X30.588026 Y144.360145 Z-0.125000
G01 X33.923126 Y135.214349 Z-0.125000
G01 X37.504407 Y127.347457 Z-0.125000
G01 X41.354962 Y120.637349 Z-0.125000
G01 X45.518517 Y114.851296 Z-0.125000
G01 X50.172171 Y109.769961 Z-0.125000
G01 X53.747049 Y106.679879 Z-0.125000
G01 X57.480464 Y104.093480 Z-0.125000
G01 X61.313749 Y102.031981 Z-0.125000
G01 X65.174718 Y100.489754 Z-0.125000
G01 X69.725721 Y99.276373 Z-0.125000
G01 X74.384679 Y98.627477 Z-0.125000
G01 X78.883095 Y98.486663 Z-0.125000
G01 X86.510726 Y98.805872 Z-0.125000
G01 X88.950748 Y98.549341 Z-0.125000
G01 X91.455646 Y97.493333 Z-0.125000
G01 X96.272754 Y94.095232 Z-0.125000
G01 X98.859993 Y92.623638 Z-0.125000
G01 X101.887591 Y91.563943 Z-0.125000
G01 X104.748503 Y91.214851 Z-0.125000
G01 X106.819704 Y91.357865 Z-0.125000
G01 X108.908952 Y91.863424 Z-0.125000
G01 X110.951758 Y92.763935 Z-0.125000
G01 X112.672380 Y93.912698 Z-0.125000
G01 X114.254840 Y95.394706 Z-0.125000
G01 X115.660457 Y97.205689 Z-0.125000
G01 X116.863295 Y99.332776 Z-0.125000
G01 X117.853198 Y101.754881 Z-0.125000
G01 X119.244456 Y107.369589 Z-0.125000
G01 X121.322837 Y123.792566 Z-0.125000
G01 X122.144888 Y128.242147 Z-0.125000
G01 X123.240029 Y132.650590 Z-0.125000
G01 X124.614146 Y136.952241 Z-0.125000
G01 X126.393306 Y141.489661 Z-0.125000
G01 X133.758843 Y157.292138 Z-0.125000
G01 X135.158639 Y161.481112 Z-0.125000
G01 X136.549186 Y166.950026 Z-0.125000
G01 X137.459270 Y171.969913 Z-0.125000
G01 X137.554871 Y175.276035 Z-0.125000
G01 X136.852159 Y177.587856 Z-0.125000
G01 X135.109674 Y179.732149 Z-0.125000
G01 X131.792557 Y182.364601 Z-0.125000
G01 X127.750282 Y184.835994 Z-0.125000
G01 X123.475927 Y186.851115 Z-0.125000
G01 X118.972142 Y188.415076 Z-0.125000
G01 X114.639766 Y189.435573 Z-0.125000
G01 X109.931584 Y190.042296 Z-0.125000
G01 X104.976315 Y190.133757 Z-0.125000
G01 X100.369361 Y189.722247 Z-0.125000
G01 X96.670358 Y189.052782 Z-0.125000
G01 X92.522392 Y187.967667 Z-0.125000
G01 X74.928337 Y181.686727 Z-0.125000
G01 X69.446939 Y180.045600 Z-0.125000
G01 X64.513015 Y178.846191 Z-0.125000
G01 X55.252213 Y177.335658 Z-0.125000
G01 X49.949275 Y176.889930 Z-0.125000
G01 X39.547536 Y176.438575 Z-0.125000
G01 X37.163918 Y176.120725 Z-0.125000
G01 X35.254164 Y175.622540 Z-0.125000
G01 X33.718470 Y174.959672 Z-0.125000
G01 X32.488530 Y174.179600 Z-0.125000
G01 X31.209497 Y173.032842 Z-0.125000
G01 X30.205170 Y171.789901 Z-0.125000
G01 X28.562038 Y168.603184 Z-0.125000
G01 X27.515797 Y164.493251 Z-0.125000
G01 X27.226730 Y161.402652 Z-0.125000
G01 X27.253250 Y158.398210 Z-0.125000
G01 X27.559781 Y155.187301 Z-0.125000
G01 X28.145676 Y151.807312 Z-0.125000
G01 X30.221211 Y144.228257 Z-0.125000
G01 X33.639557 Y134.913187 Z-0.125000
G01 X37.298717 Y126.918547 Z-0.125000
G01 X41.214213 Y120.118271 Z-0.125000
G01 X45.430678 Y114.273745 Z-0.125000
G01 X50.130709 Y109.161621 Z-0.125000
G01 X53.367815 Y106.352973 Z-0.125000
G01 X57.117271 Y103.720909 Z-0.125000
G01 X60.971643 Y101.623705 Z-0.125000
G01 X64.858808 Y100.055992 Z-0.125000
G01 X69.446422 Y98.824824 Z-0.125000
G01 X74.146906 Y98.170171 Z-0.125000
G01 X78.683744 Y98.034403 Z-0.125000
G01 X86.154002 Y98.372434 Z-0.125000
G01 X88.755924 Y98.106847 Z-0.125000
G01 X91.225570 Y97.012935 Z-0.125000
G01 X96.197010 Y93.354616 Z-0.125000
G01 X98.805077 Y91.838586 Z-0.125000
G01 X101.877501 Y90.746226 Z-0.125000
G01 X104.799085 Y90.385491 Z-0.125000
G01 X106.919898 Y90.531932 Z-0.125000
G01 X109.060439 Y91.050946 Z-0.125000
G01 X111.151627 Y91.974678 Z-0.125000
G01 X112.909312 Y93.151578 Z-0.125000
G01 X114.521009 Y94.667544 Z-0.125000
G01 X115.946678 Y96.517013 Z-0.125000
G01 X117.020409 Y98.397725 Z-0.125000
G01 X118.039742 Y100.827074 Z-0.125000
G01 X119.464376 Y106.467655 Z-0.125000
G01 X121.568760 Y122.998846 Z-0.125000
G01 X122.414938 Y127.485878 Z-0.125000
G01 X123.549859 Y131.935912 Z-0.125000
G01 X124.979409 Y136.282776 Z-0.125000
G01 X126.834635 Y140.872718 Z-0.125000
G01 X134.526690 Y156.872736 Z-0.125000
G01 X136.090392 Y161.440103 Z-0.125000
G01 X137.584366 Y167.205781 Z-0.125000
G01 X138.468965 Y172.120624 Z-0.125000
G01 X138.499431 Y175.342723 Z-0.125000
G01 X137.708363 Y177.641995 Z-0.125000
G01 X135.854818 Y179.879237 Z-0.125000
G01 X132.380327 Y182.720937 Z-0.125000
G01 X128.418648 Y185.243235 Z-0.125000
G01 X124.355093 Y187.260621 Z-0.125000
G01 X119.786302 Y188.950713 Z-0.125000
G01 X115.379994 Y190.067911 Z-0.125000
G01 X110.583908 Y190.754775 Z-0.125000
G01 X105.532197 Y190.904515 Z-0.125000
G01 X100.836111 Y190.524182 Z-0.125000
G01 X97.067832 Y189.864678 Z-0.125000
G01 X92.845999 Y188.776458 Z-0.125000
G01 X74.956021 Y182.421134 Z-0.125000
G01 X69.382644 Y180.767652 Z-0.125000
G01 X64.369808 Y179.565850 Z-0.125000
G01 X54.983327 Y178.072781 Z-0.125000
G01 X49.630066 Y177.649628 Z-0.125000
G01 X39.194952 Y177.260562 Z-0.125000
G01 X36.812239 Y176.954548 Z-0.125000
G01 X34.900997 Y176.461279 Z-0.125000
G01 X33.359934 Y175.797247 Z-0.125000
G01 X32.121457 Y175.011160 Z-0.125000
G01 X30.827869 Y173.851271 Z-0.125000
G01 X29.806919 Y172.591125 Z-0.125000
G01 X28.123360 Y169.353373 Z-0.125000
G01 X27.035334 Y165.171060 Z-0.125000
G01 X26.723952 Y162.024122 Z-0.125000
G01 X26.736371 Y158.964377 Z-0.125000
G01 X27.035593 Y155.694671 Z-0.125000
G01 X27.621682 Y152.253686 Z-0.125000
G01 X29.569340 Y145.007165 Z-0.125000
G01 X33.178888 Y135.073276 Z-0.125000
G01 X36.867801 Y126.945778 Z-0.125000
G01 X40.803026 Y120.030497 Z-0.125000
G01 X45.032298 Y114.085842 Z-0.125000
G01 X49.743390 Y108.885297 Z-0.125000
G01 X52.989422 Y106.028008 Z-0.125000
G01 X56.752526 Y103.350407 Z-0.125000
G01 X60.235684 Y101.406048 Z-0.125000
G01 X64.147494 Y99.759552 Z-0.125000
G01 X68.782907 Y98.452770 Z-0.125000
G01 X73.553314 Y97.742167 Z-0.125000
G01 X78.480317 Y97.581107 Z-0.125000
G01 X86.162281 Y97.934985 Z-0.125000
G01 X88.562006 Y97.662219 Z-0.125000
G01 X90.863930 Y96.618371 Z-0.125000
G01 X95.945654 Y92.731076 Z-0.125000
G01 X98.560642 Y91.142860 Z-0.125000
G01 X101.658486 Y89.976956 Z-0.125000
G01 X104.864349 Y89.553349 Z-0.125000
G01 X107.037620 Y89.705224 Z-0.125000
G01 X109.231460 Y90.239826 Z-0.125000
G01 X111.372389 Y91.188978 Z-0.125000
G01 X113.167719 Y92.395762 Z-0.125000
G01 X114.808458 Y93.947174 Z-0.125000
G01 X116.253273 Y95.836229 Z-0.125000
G01 X117.335607 Y97.753551 Z-0.125000
G01 X118.356428 Y100.225914 Z-0.125000
G01 X119.242580 Y103.330032 Z-0.125000
G01 X119.894710 Y106.728650 Z-0.125000
G01 X122.057696 Y123.555440 Z-0.125000
G01 X123.870038 Y131.212566 Z-0.125000
G01 X125.355150 Y135.603868 Z-0.125000
G01 X127.286896 Y140.245879 Z-0.125000
G01 X133.659167 Y152.837253 Z-0.125000
G01 X135.439685 Y156.770860 Z-0.125000
G01 X137.040709 Y161.397154 Z-0.125000
G01 X138.635394 Y167.449828 Z-0.125000
G01 X139.483253 Y172.255163 Z-0.125000
G01 X139.438299 Y175.399126 Z-0.125000
G01 X138.552082 Y177.698139 Z-0.125000
G01 X136.466133 Y180.158860 Z-0.125000
G01 X132.945330 Y183.111556 Z-0.125000
G01 X128.807196 Y185.825702 Z-0.125000
G01 X124.569709 Y187.970513 Z-0.125000
G01 X119.819743 Y189.739840 Z-0.125000
G01 X115.257097 Y190.884334 Z-0.125000
G01 X110.313600 Y191.558456 Z-0.125000
G01 X105.609946 Y191.674174 Z-0.125000
G01 X100.819876 Y191.273724 Z-0.125000
G01 X96.983551 Y190.584854 Z-0.125000
G01 X92.690243 Y189.454784 Z-0.125000
G01 X74.981376 Y183.167377 Z-0.125000
G01 X69.316474 Y181.501735 Z-0.125000
G01 X64.225501 Y180.297410 Z-0.125000
G01 X59.320619 Y179.409965 Z-0.125000
G01 X54.716124 Y178.821223 Z-0.125000
G01 X49.315256 Y178.419674 Z-0.125000
G01 X38.855627 Y178.088822 Z-0.125000
G01 X36.476148 Y177.793158 Z-0.125000
G01 X34.564971 Y177.303576 Z-0.125000
G01 X33.019574 Y176.637280 Z-0.125000
G01 X31.602637 Y175.713613 Z-0.125000
G01 X30.310279 Y174.502496 Z-0.125000
G01 X29.287647 Y173.190086 Z-0.125000
G01 X27.599496 Y169.829889 Z-0.125000
G01 X26.516903 Y165.508057 Z-0.125000
G01 X26.235663 Y162.643200 Z-0.125000
G01 X26.233076 Y159.527892 Z-0.125000
G01 X26.524277 Y156.199066 Z-0.125000
G01 X27.109978 Y152.696762 Z-0.125000
G01 X29.077752 Y145.325792 Z-0.125000
G01 X32.729861 Y135.230261 Z-0.125000
G01 X36.447752 Y126.971004 Z-0.125000
G01 X40.400765 Y119.941946 Z-0.125000
G01 X44.639998 Y113.898328 Z-0.125000
G01 X49.358723 Y108.610525 Z-0.125000
G01 X52.611287 Y105.704918 Z-0.125000
G01 X56.385776 Y102.981975 Z-0.125000
G01 X59.884069 Y101.004886 Z-0.125000
G01 X63.818777 Y99.331159 Z-0.125000
G01 X68.488860 Y98.003937 Z-0.125000
G01 X73.301116 Y97.284731 Z-0.125000
G01 X78.272298 Y97.126453 Z-0.125000
G01 X85.987638 Y97.495661 Z-0.125000
G01 X88.369316 Y97.214939 Z-0.125000
G01 X90.639934 Y96.137585 Z-0.125000
G01 X95.697790 Y92.107342 Z-0.125000
G01 X98.320023 Y90.447586 Z-0.125000
G01 X101.443804 Y89.208850 Z-0.125000
G01 X104.702514 Y88.723924 Z-0.125000
G01 X106.924167 Y88.842229 Z-0.125000
G01 X109.174798 Y89.349340 Z-0.125000
G01 X111.377111 Y90.277924 Z-0.125000
G01 X113.227292 Y91.472417 Z-0.125000
G01 X114.919777 Y93.017232 Z-0.125000
G01 X116.410452 Y94.904929 Z-0.125000
G01 X117.526292 Y96.825032 Z-0.125000
G01 X118.576672 Y99.304316 Z-0.125000
G01 X119.484752 Y102.420206 Z-0.125000
G01 X120.148136 Y105.834154 Z-0.125000
G01 X122.332144 Y122.760555 Z-0.125000
G01 X124.200889 Y130.481394 Z-0.125000
G01 X125.741564 Y134.916292 Z-0.125000
G01 X127.750218 Y139.610049 Z-0.125000
G01 X134.383677 Y152.357761 Z-0.125000
G01 X136.236769 Y156.338845 Z-0.125000
G01 X138.009072 Y161.352911 Z-0.125000
G01 X139.639009 Y167.414964 Z-0.125000
G01 X140.482664 Y172.189058 Z-0.125000
G01 X140.395795 Y175.317755 Z-0.125000
G01 X140.027881 Y176.539933 Z-0.125000
G01 X139.380796 Y177.759459 Z-0.125000
G01 X137.169880 Y180.354977 Z-0.125000
G01 X133.485753 Y183.539108 Z-0.125000
G01 X129.442638 Y186.283720 Z-0.125000
G01 X125.092668 Y188.563717 Z-0.125000
G01 X120.617667 Y190.305490 Z-0.125000
G01 X115.978502 Y191.547848 Z-0.125000
G01 X110.944449 Y192.301724 Z-0.125000
G01 X106.151662 Y192.469575 Z-0.125000
G01 X101.271360 Y192.099785 Z-0.125000
G01 X97.365566 Y191.419906 Z-0.125000
G01 X92.998585 Y190.285568 Z-0.125000
G01 X75.003756 Y183.925198 Z-0.125000
G01 X69.770546 Y182.385623 Z-0.125000
G01 X64.589793 Y181.146692 Z-0.125000
G01 X59.592480 Y180.232145 Z-0.125000
G01 X54.450213 Y179.580597 Z-0.125000
G01 X48.617137 Y179.183575 Z-0.125000
G01 X38.529368 Y178.922516 Z-0.125000
G01 X36.155387 Y178.635778 Z-0.125000
G01 X34.245892 Y178.148460 Z-0.125000
G01 X32.697067 Y177.478801 Z-0.125000
G01 X31.271010 Y176.545884 Z-0.125000
G01 X29.963645 Y175.319049 Z-0.125000
G01 X28.923484 Y173.987234 Z-0.125000
G01 X27.191996 Y170.572316 Z-0.125000
G01 X26.064449 Y166.174999 Z-0.125000
G01 X25.761669 Y163.258978 Z-0.125000
G01 X25.743105 Y160.087784 Z-0.125000
G01 X26.025510 Y156.699645 Z-0.125000
G01 X26.610240 Y153.135763 Z-0.125000
G01 X28.597549 Y145.640149 Z-0.125000
G01 X32.095454 Y135.878316 Z-0.125000
G01 X35.795881 Y127.482579 Z-0.125000
G01 X39.723408 Y120.313807 Z-0.125000
G01 X44.253519 Y113.711201 Z-0.125000
G01 X48.976254 Y108.337176 Z-0.125000
G01 X52.604237 Y105.082154 Z-0.125000
G01 X56.016438 Y102.615806 Z-0.125000
G01 X59.528056 Y100.605859 Z-0.125000
G01 X63.484173 Y98.904448 Z-0.125000
G01 X68.188151 Y97.556139 Z-0.125000
G01 X73.042515 Y96.827166 Z-0.125000
G01 X78.059362 Y96.670376 Z-0.125000
G01 X85.631496 Y97.054008 Z-0.125000
G01 X88.036977 Y96.802587 Z-0.125000
G01 X89.255080 Y96.354272 Z-0.125000
G01 X90.418590 Y95.654730 Z-0.125000
G01 X95.454131 Y91.483478 Z-0.125000
G01 X98.281407 Y89.646363 Z-0.125000
G01 X101.459328 Y88.379101 Z-0.125000
G01 X104.795333 Y87.887966 Z-0.125000
G01 X107.074360 Y88.015068 Z-0.125000
G01 X109.382688 Y88.541519 Z-0.125000
G01 X111.637782 Y89.499016 Z-0.125000
G01 X113.527096 Y90.726239 Z-0.125000
G01 X115.249011 Y92.308828 Z-0.125000
G01 X116.758121 Y94.237728 Z-0.125000
G01 X117.881140 Y96.195282 Z-0.125000
G01 X118.930680 Y98.717580 Z-0.125000
G01 X119.743094 Y101.513615 Z-0.125000
G01 X120.417475 Y104.941728 Z-0.125000
G01 X122.534860 Y121.502285 Z-0.125000
G01 X123.400248 Y125.634597 Z-0.125000
G01 X124.542607 Y129.743171 Z-0.125000
G01 X126.138715 Y134.220889 Z-0.125000
G01 X128.224535 Y138.966069 Z-0.125000
G01 X135.120088 Y151.871089 Z-0.125000
G01 X137.045172 Y155.899974 Z-0.125000
G01 X138.994705 Y161.307827 Z-0.125000
G01 X140.716362 Y167.639736 Z-0.125000
G01 X141.501091 Y172.299406 Z-0.125000
G01 X141.319721 Y175.361739 Z-0.125000
G01 X140.898638 Y176.582365 Z-0.125000
G01 X140.192498 Y177.829122 Z-0.125000
G01 X137.586759 Y180.843913 Z-0.125000
G01 X133.787368 Y184.172156 Z-0.125000
G01 X129.776659 Y186.939795 Z-0.125000
G01 X125.597969 Y189.180077 Z-0.125000
G01 X121.003887 Y191.016222 Z-0.125000
G01 X116.245512 Y192.317959 Z-0.125000
G01 X111.571870 Y193.053983 Z-0.125000
G01 X106.689434 Y193.274939 Z-0.125000
G01 X101.718640 Y192.936454 Z-0.125000
G01 X97.742989 Y192.265955 Z-0.125000
G01 X93.302205 Y191.127541 Z-0.125000
G01 X75.022773 Y184.694404 Z-0.125000
G01 X69.707286 Y183.143444 Z-0.125000
G01 X64.449173 Y181.901085 Z-0.125000
G01 X59.384720 Y180.990613 Z-0.125000
G01 X54.185209 Y180.350514 Z-0.125000
G01 X48.308342 Y179.974514 Z-0.125000
G01 X38.215980 Y179.760997 Z-0.125000
G01 X35.849826 Y179.481439 Z-0.125000
G01 X33.943565 Y178.995090 Z-0.125000
G01 X32.392283 Y178.320774 Z-0.125000
G01 X30.957558 Y177.377637 Z-0.125000
G01 X29.635251 Y176.134179 Z-0.125000
G01 X28.577238 Y174.782313 Z-0.125000
G01 X27.499949 Y172.924758 Z-0.125000
G01 X26.695039 Y171.024448 Z-0.125000
G01 X25.571438 Y166.482565 Z-0.125000
G01 X25.280819 Y163.480581 Z-0.125000
G01 X25.283406 Y160.223488 Z-0.125000
G01 X25.539161 Y157.195502 Z-0.125000
G01 X26.122339 Y153.569977 Z-0.125000
G01 X28.128664 Y145.949656 Z-0.125000
G01 X31.667061 Y136.035107 Z-0.125000
G01 X35.395431 Y127.509875 Z-0.125000
G01 X39.337577 Y120.229913 Z-0.125000
G01 X43.872539 Y113.524139 Z-0.125000
G01 X48.595791 Y108.065251 Z-0.125000
G01 X51.854307 Y105.064690 Z-0.125000
G01 X55.258358 Y102.507657 Z-0.125000
G01 X58.772046 Y100.413040 Z-0.125000
G01 X62.745045 Y98.627671 Z-0.125000
G01 X67.490872 Y97.196245 Z-0.125000
G01 X72.777187 Y96.369408 Z-0.125000
G01 X77.841253 Y96.212552 Z-0.125000
G01 X85.456659 Y96.608216 Z-0.125000
G01 X87.848945 Y96.350326 Z-0.125000
G01 X89.052623 Y95.889398 Z-0.125000
G01 X90.200545 Y95.169416 Z-0.125000
G01 X95.215387 Y90.859356 Z-0.125000
G01 X98.051590 Y88.947403 Z-0.125000
G01 X101.258618 Y87.609443 Z-0.125000
G01 X104.652255 Y87.059447 Z-0.125000
G01 X106.983222 Y87.154919 Z-0.125000
G01 X109.352028 Y87.655821 Z-0.125000
G01 X111.671934 Y88.594689 Z-0.125000
G01 X113.618816 Y89.811110 Z-0.125000
G01 X115.394547 Y91.388265 Z-0.125000
G01 X116.950875 Y93.316583 Z-0.125000
G01 X118.107853 Y95.276983 Z-0.125000
G01 X119.186823 Y97.805879 Z-0.125000
G01 X120.018318 Y100.611228 Z-0.125000
G01 X120.703307 Y104.052472 Z-0.125000
G01 X122.831688 Y120.696145 Z-0.125000
G01 X123.718034 Y124.857177 Z-0.125000
G01 X124.895386 Y128.998933 Z-0.125000
G01 X126.546927 Y133.518630 Z-0.125000
G01 X128.710237 Y138.314845 Z-0.125000
G01 X135.868401 Y151.378207 Z-0.125000
G01 X137.864894 Y155.455216 Z-0.125000
G01 X139.996833 Y161.262550 Z-0.125000
G01 X141.802900 Y167.852283 Z-0.125000
G01 X142.505418 Y172.217777 Z-0.125000
G01 X142.501537 Y173.872552 Z-0.125000
G01 X142.265834 Y175.272671 Z-0.125000
G01 X141.752642 Y176.628031 Z-0.125000
G01 X140.985183 Y177.910363 Z-0.125000
G01 X138.091542 Y181.261181 Z-0.125000
G01 X134.485552 Y184.514845 Z-0.125000
G01 X130.373808 Y187.453310 Z-0.125000
G01 X126.084770 Y189.820112 Z-0.125000
G01 X121.369150 Y191.749335 Z-0.125000
G01 X116.489753 Y193.107863 Z-0.125000
G01 X111.705634 Y193.867819 Z-0.125000
G01 X106.718800 Y194.085994 Z-0.125000
G01 X101.654217 Y193.720666 Z-0.125000
G01 X97.611748 Y193.015497 Z-0.125000
G01 X93.600780 Y191.980252 Z-0.125000
G01 X75.038038 Y185.474540 Z-0.125000
G01 X69.640922 Y183.912262 Z-0.125000
G01 X64.306289 Y182.666539 Z-0.125000
G01 X59.175924 Y181.759819 Z-0.125000
G01 X53.921045 Y181.130522 Z-0.125000
G01 X48.395017 Y180.787186 Z-0.125000
G01 X37.915465 Y180.603358 Z-0.125000
G01 X35.559466 Y180.329298 Z-0.125000
G01 X33.657992 Y179.842368 Z-0.125000
G01 X32.105221 Y179.162360 Z-0.125000
G01 X30.662411 Y178.207774 Z-0.125000
G01 X29.325098 Y176.946786 Z-0.125000
G01 X28.103309 Y175.357017 Z-0.125000
G01 X26.317487 Y171.754585 Z-0.125000
G01 X25.145762 Y167.134630 Z-0.125000
G01 X24.832180 Y164.080318 Z-0.125000
G01 X24.817562 Y160.766369 Z-0.125000
G01 X25.064650 Y157.686055 Z-0.125000
G01 X25.645693 Y153.998694 Z-0.125000
G01 X27.670323 Y146.253664 Z-0.125000
G01 X31.249147 Y136.187111 Z-0.125000
G01 X35.004813 Y127.533743 Z-0.125000
G01 X39.244563 Y119.668404 Z-0.125000
G01 X43.818593 Y112.912112 Z-0.125000
G01 X48.570306 Y107.435048 Z-0.125000
G01 X51.846092 Y104.436363 Z-0.125000
G01 X55.268125 Y101.890456 Z-0.125000
G01 X58.800765 Y99.814662 Z-0.125000
G01 X62.394854 Y98.207234 Z-0.125000
G01 X67.172117 Y96.751941 Z-0.125000
G01 X72.504356 Y95.911390 Z-0.125000
G01 X77.617322 Y95.753047 Z-0.125000
G01 X85.281175 Y96.158672 Z-0.125000
G01 X87.662465 Y95.894443 Z-0.125000
G01 X89.859603 Y94.776922 Z-0.125000
G01 X94.981818 Y90.235104 Z-0.125000
G01 X97.827400 Y88.249283 Z-0.125000
G01 X101.297621 Y86.773162 Z-0.125000
G01 X104.776963 Y86.222195 Z-0.125000
G01 X107.170284 Y86.330409 Z-0.125000
G01 X109.600733 Y86.854662 Z-0.125000
G01 X111.976201 Y87.826324 Z-0.125000
G01 X113.963380 Y89.078514 Z-0.125000
G01 X115.768477 Y90.695838 Z-0.125000
G01 X117.342011 Y92.666846 Z-0.125000
G01 X118.504357 Y94.665474 Z-0.125000
G01 X119.579706 Y97.237254 Z-0.125000
G01 X120.400269 Y100.083612 Z-0.125000
G01 X121.069152 Y103.567611 Z-0.125000
G01 X123.140741 Y119.887419 Z-0.125000
G01 X124.047268 Y124.075617 Z-0.125000
G01 X125.259161 Y128.249521 Z-0.125000
G01 X126.965941 Y132.810420 Z-0.125000
G01 X129.206870 Y137.657282 Z-0.125000
G01 X136.627969 Y150.880151 Z-0.125000
G01 X138.695225 Y155.005543 Z-0.125000
G01 X140.906012 Y160.880793 Z-0.125000
G01 X142.895519 Y168.052670 Z-0.125000
G01 X143.517701 Y172.308850 Z-0.125000
G01 X143.459293 Y173.927338 Z-0.125000
G01 X143.123137 Y175.441752 Z-0.125000
G01 X142.521654 Y176.800474 Z-0.125000
G01 X141.578452 Y178.252469 Z-0.125000
G01 X138.398785 Y181.896040 Z-0.125000
G01 X134.709289 Y185.257401 Z-0.125000
G01 X130.646575 Y188.187587 Z-0.125000
G01 X126.175584 Y190.666548 Z-0.125000
G01 X121.711773 Y192.505022 Z-0.125000
G01 X116.709739 Y193.917301 Z-0.125000
G01 X111.814365 Y194.697632 Z-0.125000
G01 X106.723392 Y194.909015 Z-0.125000
G01 X102.081704 Y194.579781 Z-0.125000
G01 X97.969508 Y193.882826 Z-0.125000
G01 X93.893146 Y192.843441 Z-0.125000
G01 X75.048582 Y186.265285 Z-0.125000
G01 X69.570353 Y184.691816 Z-0.125000
G01 X64.160171 Y183.442601 Z-0.125000
G01 X58.965059 Y182.539503 Z-0.125000
G01 X53.656817 Y181.920296 Z-0.125000
G01 X48.095019 Y181.593843 Z-0.125000
G01 X37.627110 Y181.448954 Z-0.125000
G01 X35.283530 Y181.178581 Z-0.125000
G01 X33.388524 Y180.689516 Z-0.125000
G01 X31.835107 Y180.002392 Z-0.125000
G01 X30.384664 Y179.035323 Z-0.125000
G01 X29.032474 Y177.755772 Z-0.125000
G01 X27.789210 Y176.141165 Z-0.125000
G01 X26.679451 Y174.179406 Z-0.125000
G01 X25.845433 Y172.177350 Z-0.125000
G01 X24.676231 Y167.408237 Z-0.125000
G01 X24.375133 Y164.266280 Z-0.125000
G01 X24.382507 Y160.865334 Z-0.125000
G01 X24.656179 Y157.710699 Z-0.125000
G01 X25.274609 Y153.942032 Z-0.125000
G01 X27.222396 Y146.551527 Z-0.125000
G01 X30.841517 Y136.333746 Z-0.125000
G01 X34.623768 Y127.553665 Z-0.125000
G01 X38.874708 Y119.573579 Z-0.125000
G01 X43.446604 Y112.718646 Z-0.125000
G01 X48.191331 Y107.160600 Z-0.125000
G01 X51.464335 Y104.116701 Z-0.125000
G01 X54.887791 Y101.531467 Z-0.125000
G01 X58.428193 Y99.422815 Z-0.125000
G01 X62.037159 Y97.788997 Z-0.125000
G01 X66.844952 Y96.308865 Z-0.125000
G01 X72.223440 Y95.453114 Z-0.125000
G01 X77.387246 Y95.291537 Z-0.125000
G01 X85.105173 Y95.705117 Z-0.125000
G01 X87.477861 Y95.434615 Z-0.125000
G01 X89.650161 Y94.288633 Z-0.125000
G01 X94.754071 Y89.610529 Z-0.125000
G01 X97.812006 Y87.433701 Z-0.125000
G01 X101.113664 Y86.003180 Z-0.125000
G01 X104.655489 Y85.396587 Z-0.125000
G01 X107.104243 Y85.475500 Z-0.125000
G01 X109.598792 Y85.976596 Z-0.125000
G01 X112.042372 Y86.931893 Z-0.125000
G01 X114.089511 Y88.175093 Z-0.125000
G01 X115.950300 Y89.788341 Z-0.125000
G01 X117.572087 Y91.759543 Z-0.125000
G01 X118.768715 Y93.761276 Z-0.125000
G01 X119.872976 Y96.339201 Z-0.125000
G01 X120.711457 Y99.193838 Z-0.125000
G01 X121.388943 Y102.688898 Z-0.125000
G01 X122.746760 Y114.442244 Z-0.125000
G01 X123.462214 Y119.076881 Z-0.125000
G01 X124.388081 Y123.290953 Z-0.125000
G01 X125.634062 Y127.495710 Z-0.125000
G01 X127.395886 Y132.096971 Z-0.125000
G01 X129.714628 Y136.994285 Z-0.125000
G01 X137.398662 Y150.377762 Z-0.125000
G01 X139.692760 Y154.898429 Z-0.125000
G01 X142.046430 Y161.173352 Z-0.125000
G01 X143.937750 Y167.992709 Z-0.125000
G01 X144.518017 Y172.216354 Z-0.125000
G01 X144.424551 Y173.829603 Z-0.125000
G01 X144.044929 Y175.353589 Z-0.125000
G01 X143.399332 Y176.741484 Z-0.125000
G01 X142.315251 Y178.379894 Z-0.125000
G01 X138.638628 Y182.622749 Z-0.125000
G01 X134.875588 Y186.071237 Z-0.125000
G01 X130.879432 Y188.967142 Z-0.125000
G01 X126.611092 Y191.363956 Z-0.125000
G01 X122.030917 Y193.283153 Z-0.125000
G01 X116.904627 Y194.745950 Z-0.125000
G01 X111.897483 Y195.542840 Z-0.125000
G01 X106.702823 Y195.743227 Z-0.125000
G01 X101.978276 Y195.383721 Z-0.125000
G01 X98.320669 Y194.760180 Z-0.125000
G01 X94.178913 Y193.716656 Z-0.125000
G01 X75.054209 Y187.066315 Z-0.125000
G01 X69.495516 Y185.481720 Z-0.125000
G01 X64.010560 Y184.228948 Z-0.125000
G01 X58.752059 Y183.329083 Z-0.125000
G01 X53.392330 Y182.719385 Z-0.125000
G01 X47.797802 Y182.408585 Z-0.125000
G01 X37.350851 Y182.297008 Z-0.125000
G01 X35.022018 Y182.028381 Z-0.125000
G01 X33.134968 Y181.535564 Z-0.125000
G01 X31.394748 Y180.733823 Z-0.125000
G01 X29.948315 Y179.714814 Z-0.125000
G01 X28.593021 Y178.374202 Z-0.125000
G01 X27.342383 Y176.690191 Z-0.125000
G01 X26.224150 Y174.651912 Z-0.125000
G01 X25.384634 Y172.578318 Z-0.125000
G01 X24.218084 Y167.657848 Z-0.125000
G01 X23.930375 Y164.427534 Z-0.125000
G01 X23.938914 Y161.387904 Z-0.125000
G01 X24.203530 Y158.180488 Z-0.125000
G01 X24.819632 Y154.349855 Z-0.125000
G01 X26.784495 Y146.842663 Z-0.125000
G01 X30.443849 Y136.474431 Z-0.125000
G01 X34.251907 Y127.569189 Z-0.125000
G01 X38.511968 Y119.476490 Z-0.125000
G01 X43.078495 Y112.525051 Z-0.125000
G01 X47.812420 Y106.887769 Z-0.125000
G01 X51.080185 Y103.799369 Z-0.125000
G01 X54.502800 Y101.175260 Z-0.125000
G01 X58.048959 Y99.033555 Z-0.125000
G01 X61.671444 Y97.373088 Z-0.125000
G01 X66.508926 Y95.867083 Z-0.125000
G01 X71.934179 Y94.994579 Z-0.125000
G01 X77.150701 Y94.827957 Z-0.125000
G01 X84.928655 Y95.247229 Z-0.125000
G01 X87.295326 Y94.970646 Z-0.125000
G01 X88.337298 Y94.543483 Z-0.125000
G01 X89.444923 Y93.797175 Z-0.125000
G01 X94.532856 Y88.985695 Z-0.125000
G01 X97.602369 Y86.732865 Z-0.125000
G01 X99.312254 Y85.847554 Z-0.125000
G01 X101.179964 Y85.162242 Z-0.125000
G01 X104.816096 Y84.560758 Z-0.125000
G01 X107.048616 Y84.625505 Z-0.125000
G01 X109.039935 Y84.959138 Z-0.125000
G01 X111.295740 Y85.678538 Z-0.125000
G01 X113.195598 Y86.614560 Z-0.125000
G01 X114.974951 Y87.839325 Z-0.125000
G01 X116.590399 Y89.348500 Z-0.125000
G01 X118.008306 Y91.131346 Z-0.125000
G01 X119.207975 Y93.171629 Z-0.125000
G01 X120.422843 Y96.139784 Z-0.125000
G01 X121.297805 Y99.448429 Z-0.125000
G01 X121.959314 Y103.457068 Z-0.125000
G01 X123.627607 Y117.328058 Z-0.125000
G01 X124.740730 Y122.503959 Z-0.125000
G01 X126.183670 Y127.206708 Z-0.125000
G01 X128.039349 Y131.837206 Z-0.125000
G01 X130.233383 Y136.326631 Z-0.125000
G01 X139.705761 Y152.696633 Z-0.125000
G01 X141.164677 Y155.859353 Z-0.125000
G01 X142.632455 Y159.759067 Z-0.125000
G01 X144.075071 Y164.341441 Z-0.125000
G01 X145.086642 Y168.418192 Z-0.125000
G01 X145.483276 Y171.208987 Z-0.125000
G01 X145.406886 Y173.580575 Z-0.125000
G01 X144.848545 Y175.530108 Z-0.125000
G01 X143.781735 Y177.460625 Z-0.125000
G01 X141.635890 Y180.295405 Z-0.125000
G01 X138.992247 Y183.256186 Z-0.125000
G01 X135.243567 Y186.741737 Z-0.125000
G01 X131.404332 Y189.575870 Z-0.125000
G01 X127.024091 Y192.086072 Z-0.125000
G01 X122.325417 Y194.083665 Z-0.125000
G01 X117.569823 Y195.480874 Z-0.125000
G01 X112.476586 Y196.348850 Z-0.125000
G01 X107.190142 Y196.598654 Z-0.125000
G01 X102.383384 Y196.263921 Z-0.125000
G01 X98.664716 Y195.647108 Z-0.125000
G01 X94.457631 Y194.599509 Z-0.125000
G01 X75.616818 Y188.053112 Z-0.125000
G01 X69.978759 Y186.426668 Z-0.125000
G01 X64.404801 Y185.134633 Z-0.125000
G01 X59.053480 Y184.202234 Z-0.125000
G01 X53.595950 Y183.566986 Z-0.125000
G01 X47.503108 Y183.230766 Z-0.125000
G01 X37.086364 Y183.146678 Z-0.125000
G01 X34.774607 Y182.877793 Z-0.125000
G01 X32.897130 Y182.379478 Z-0.125000
G01 X31.157750 Y181.566418 Z-0.125000
G01 X29.703492 Y180.531820 Z-0.125000
G01 X28.332285 Y179.170057 Z-0.125000
G01 X27.058685 Y177.458814 Z-0.125000
G01 X25.912380 Y175.387160 Z-0.125000
G01 X25.045827 Y173.279348 Z-0.125000
G01 X24.339816 Y170.904267 Z-0.125000
G01 X23.826689 Y168.276989 Z-0.125000
G01 X23.514337 Y164.992795 Z-0.125000
G01 X23.506769 Y161.902713 Z-0.125000
G01 X23.761554 Y158.642646 Z-0.125000
G01 X24.374874 Y154.750111 Z-0.125000
G01 X26.356167 Y147.126491 Z-0.125000
G01 X30.055688 Y136.608777 Z-0.125000
G01 X34.136966 Y127.054380 Z-0.125000
G01 X38.443469 Y118.883480 Z-0.125000
G01 X43.036387 Y111.892326 Z-0.125000
G01 X47.787065 Y106.246311 Z-0.125000
G01 X51.065696 Y103.164962 Z-0.125000
G01 X54.112700 Y100.821834 Z-0.125000
G01 X57.662610 Y98.647205 Z-0.125000
G01 X61.297125 Y96.959572 Z-0.125000
G01 X66.163521 Y95.426723 Z-0.125000
G01 X71.635992 Y94.535721 Z-0.125000
G01 X76.907301 Y94.362113 Z-0.125000
G01 X84.751618 Y94.784749 Z-0.125000
G01 X87.114926 Y94.502150 Z-0.125000
G01 X88.148360 Y94.065737 Z-0.125000
G01 X89.244213 Y93.302288 Z-0.125000
G01 X94.318563 Y88.360602 Z-0.125000
G01 X97.400430 Y86.033193 Z-0.125000
G01 X99.124480 Y85.112307 Z-0.125000
G01 X101.015864 Y84.393295 Z-0.125000
G01 X104.719396 Y83.740130 Z-0.125000
G01 X107.003791 Y83.780945 Z-0.125000
G01 X109.046403 Y84.097695 Z-0.125000
G01 X111.364821 Y84.802606 Z-0.125000
G01 X113.320112 Y85.730090 Z-0.125000
G01 X115.152828 Y86.950004 Z-0.125000
G01 X116.817241 Y88.457561 Z-0.125000
G01 X118.277580 Y90.241572 Z-0.125000
G01 X119.511530 Y92.285154 Z-0.125000
G01 X120.757252 Y95.259842 Z-0.125000
G01 X121.648449 Y98.576637 Z-0.125000
G01 X122.313774 Y102.595561 Z-0.125000
G01 X123.972495 Y116.512475 Z-0.125000
G01 X125.105217 Y121.715543 Z-0.125000
G01 X126.585607 Y126.450504 Z-0.125000
G01 X128.497625 Y131.120393 Z-0.125000
G01 X130.763133 Y135.655355 Z-0.125000
G01 X140.545341 Y152.221798 Z-0.125000
G01 X142.200246 Y155.780893 Z-0.125000
G01 X143.805538 Y160.061976 Z-0.125000
G01 X145.305851 Y164.891632 Z-0.125000
G01 X146.178808 Y168.584361 Z-0.125000
G01 X146.501703 Y171.304523 Z-0.125000
G01 X146.330682 Y173.631933 Z-0.125000
G01 X145.675706 Y175.584959 Z-0.125000
G01 X144.420993 Y177.716121 Z-0.125000
G01 X141.973792 Y180.930329 Z-0.125000
G01 X139.098133 Y184.169504 Z-0.125000
G01 X135.299971 Y187.689402 Z-0.125000
G01 X131.216946 Y190.663120 Z-0.125000
G01 X127.001969 Y193.037941 Z-0.125000
G01 X122.126130 Y195.071821 Z-0.125000
G01 X117.215233 Y196.458810 Z-0.125000
G01 X112.516883 Y197.223035 Z-0.125000
G01 X107.126947 Y197.455763 Z-0.125000
G01 X102.238689 Y197.085391 Z-0.125000
G01 X98.464071 Y196.431385 Z-0.125000
G01 X94.197671 Y195.336826 Z-0.125000
G01 X75.619211 Y188.875034 Z-0.125000
G01 X69.901658 Y187.236947 Z-0.125000
G01 X64.253896 Y185.940514 Z-0.125000
G01 X58.840222 Y185.010184 Z-0.125000
G01 X53.333210 Y184.382633 Z-0.125000
G01 X47.210484 Y184.059997 Z-0.125000
G01 X37.078666 Y184.011355 Z-0.125000
G01 X34.758437 Y183.765367 Z-0.125000
G01 X32.674493 Y183.220416 Z-0.125000
G01 X30.936989 Y182.394420 Z-0.125000
G01 X29.297673 Y181.188801 Z-0.125000
G01 X27.920580 Y179.761385 Z-0.125000
G01 X26.636760 Y177.976792 Z-0.125000
G01 X25.479653 Y175.825319 Z-0.125000
G01 X24.606115 Y173.643511 Z-0.125000
G01 X23.897775 Y171.191781 Z-0.125000
G01 X23.388788 Y168.486302 Z-0.125000
G01 X23.090472 Y165.112717 Z-0.125000
G01 X23.103861 Y161.945727 Z-0.125000
G01 X23.387106 Y158.611080 Z-0.125000
G01 X23.939884 Y155.142088 Z-0.125000
G01 X25.937024 Y147.402427 Z-0.125000
G01 X29.676648 Y136.736266 Z-0.125000
G01 X33.783282 Y127.052957 Z-0.125000
G01 X38.093601 Y118.774555 Z-0.125000
G01 X42.673711 Y111.692392 Z-0.125000
G01 X47.405890 Y105.971734 Z-0.125000
G01 X50.674496 Y102.848082 Z-0.125000
G01 X53.716842 Y100.471449 Z-0.125000
G01 X57.268564 Y98.263896 Z-0.125000
G01 X60.913752 Y96.548708 Z-0.125000
G01 X65.808155 Y94.987852 Z-0.125000
G01 X71.328426 Y94.076604 Z-0.125000
G01 X76.656656 Y93.893940 Z-0.125000
G01 X84.574065 Y94.317288 Z-0.125000
G01 X86.936985 Y94.028803 Z-0.125000
G01 X88.927786 Y92.905137 Z-0.125000
G01 X94.111773 Y87.735186 Z-0.125000
G01 X97.415048 Y85.205385 Z-0.125000
G01 X99.174674 Y84.273309 Z-0.125000
G01 X101.113276 Y83.549769 Z-0.125000
G01 X104.919718 Y82.908506 Z-0.125000
G01 X107.268019 Y82.968467 Z-0.125000
G01 X109.365159 Y83.308891 Z-0.125000
G01 X111.740368 Y84.047825 Z-0.125000
G01 X113.737573 Y85.009914 Z-0.125000
G01 X115.602825 Y86.267603 Z-0.125000
G01 X117.289101 Y87.814746 Z-0.125000
G01 X118.760177 Y89.638601 Z-0.125000
G01 X119.833003 Y91.408640 Z-0.125000
G01 X121.109902 Y94.389344 Z-0.125000
G01 X122.017075 Y97.713447 Z-0.125000
G01 X122.685376 Y101.741298 Z-0.125000
G01 X124.330448 Y115.698250 Z-0.125000
G01 X125.481540 Y120.926610 Z-0.125000
G01 X126.998735 Y125.692424 Z-0.125000
G01 X128.966768 Y130.400993 Z-0.125000
G01 X131.303750 Y134.981233 Z-0.125000
G01 X139.556409 Y148.486313 Z-0.125000
G01 X141.580457 Y152.103299 Z-0.125000
G01 X143.400561 Y156.075070 Z-0.125000
G01 X145.106370 Y160.710678 Z-0.125000
G01 X146.454873 Y165.133350 Z-0.125000
G01 X147.263988 Y168.740634 Z-0.125000
G01 X147.504154 Y171.393526 Z-0.125000
G01 X147.267804 Y173.534909 Z-0.125000
G01 X146.544200 Y175.515296 Z-0.125000
G01 X145.119824 Y177.865279 Z-0.125000
G01 X142.247723 Y181.660272 Z-0.125000
G01 X139.337006 Y184.967235 Z-0.125000
G01 X135.580499 Y188.470638 Z-0.125000
G01 X131.680850 Y191.344680 Z-0.125000
G01 X127.356171 Y193.817690 Z-0.125000
G01 X122.356724 Y195.921298 Z-0.125000
G01 X117.329139 Y197.341986 Z-0.125000
G01 X112.529237 Y198.110804 Z-0.125000
G01 X107.589298 Y198.332406 Z-0.125000
G01 X102.068573 Y197.912099 Z-0.125000
G01 X98.239234 Y197.218766 Z-0.125000
G01 X94.452715 Y196.236561 Z-0.125000
G01 X75.615201 Y189.706076 Z-0.125000
G01 X69.818864 Y188.056346 Z-0.125000
G01 X64.098076 Y186.755515 Z-0.125000
G01 X58.623405 Y185.826996 Z-0.125000
G01 X53.549508 Y185.247116 Z-0.125000
G01 X47.321803 Y184.904428 Z-0.125000
G01 X36.834295 Y184.862255 Z-0.125000
G01 X34.536252 Y184.612257 Z-0.125000
G01 X32.466862 Y184.057409 Z-0.125000
G01 X30.732139 Y183.216859 Z-0.125000
G01 X29.084091 Y181.990606 Z-0.125000
G01 X27.689922 Y180.539258 Z-0.125000
G01 X26.381393 Y178.725299 Z-0.125000
G01 X25.194079 Y176.538769 Z-0.125000
G01 X24.175587 Y173.982059 Z-0.125000
G01 X23.464984 Y171.452711 Z-0.125000
G01 X22.960719 Y168.668578 Z-0.125000
G01 X22.677603 Y165.205277 Z-0.125000
G01 X22.713178 Y161.961380 Z-0.125000
G01 X23.026177 Y158.552543 Z-0.125000
G01 X23.614595 Y155.013046 Z-0.125000
G01 X25.694205 Y147.136323 Z-0.125000
G01 X29.515912 Y136.309814 Z-0.125000
G01 X33.689686 Y126.508006 Z-0.125000
G01 X38.038297 Y118.159811 Z-0.125000
G01 X42.635484 Y111.046666 Z-0.125000
G01 X47.376266 Y105.324584 Z-0.125000
G01 X51.402757 Y101.584830 Z-0.125000
G01 X55.272200 Y98.817644 Z-0.125000
G01 X59.294746 Y96.667271 Z-0.125000
G01 X63.805323 Y94.992121 Z-0.125000
G01 X67.869913 Y94.041352 Z-0.125000
G01 X72.148925 Y93.523503 Z-0.125000
G01 X76.727224 Y93.430360 Z-0.125000
G01 X84.579045 Y93.843552 Z-0.125000
G01 X86.054391 Y93.721561 Z-0.125000
G01 X87.156970 Y93.407333 Z-0.125000
G01 X88.857346 Y92.301260 Z-0.125000
G01 X93.729240 Y87.281696 Z-0.125000
G01 X97.021519 Y84.637666 Z-0.125000
G01 X98.775065 Y83.648345 Z-0.125000
G01 X100.715543 Y82.864780 Z-0.125000
G01 X102.847287 Y82.328174 Z-0.125000
G01 X104.850507 Y82.094928 Z-0.125000
G01 X107.253660 Y82.133867 Z-0.125000
G01 X109.404615 Y82.459867 Z-0.125000
G01 X111.845025 Y83.187029 Z-0.125000
G01 X113.899603 Y84.142715 Z-0.125000
G01 X115.819771 Y85.397363 Z-0.125000
G01 X117.555981 Y86.944183 Z-0.125000
G01 X119.069877 Y88.769914 Z-0.125000
G01 X120.338174 Y90.855992 Z-0.125000
G01 X121.601296 Y93.883397 Z-0.125000
G01 X122.485442 Y97.248638 Z-0.125000
G01 X123.074312 Y100.895185 Z-0.125000
G01 X124.033167 Y110.198806 Z-0.125000
G01 X124.701403 Y114.886160 Z-0.125000
G01 X125.741047 Y119.658313 Z-0.125000
G01 X127.245887 Y124.454916 Z-0.125000
G01 X129.225046 Y129.209540 Z-0.125000
G01 X131.855040 Y134.305106 Z-0.125000
G01 X140.134089 Y147.597315 Z-0.125000
G01 X142.444034 Y151.630922 Z-0.125000
G01 X144.314979 Y155.646936 Z-0.125000
G01 X146.185535 Y160.674649 Z-0.125000
G01 X147.529251 Y165.083545 Z-0.125000
G01 X148.270255 Y168.435138 Z-0.125000
G01 X148.497291 Y171.115779 Z-0.125000
G01 X148.191924 Y173.441054 Z-0.125000
G01 X147.322590 Y175.592527 Z-0.125000
G01 X145.682886 Y178.196066 Z-0.125000
G01 X142.619648 Y182.288146 Z-0.125000
G01 X139.744959 Y185.606687 Z-0.125000
G01 X135.819954 Y189.302198 Z-0.125000
G01 X131.748249 Y192.297261 Z-0.125000
G01 X127.245629 Y194.839158 Z-0.125000
G01 X122.559504 Y196.791926 Z-0.125000
G01 X117.414261 Y198.241980 Z-0.125000
G01 X112.512937 Y199.011250 Z-0.125000
G01 X107.481084 Y199.210214 Z-0.125000
G01 X102.430990 Y198.821601 Z-0.125000
G01 X98.541561 Y198.132278 Z-0.125000
G01 X94.699026 Y197.144704 Z-0.125000
G01 X75.604399 Y190.545721 Z-0.125000
G01 X69.729861 Y188.884542 Z-0.125000
G01 X63.937016 Y187.579312 Z-0.125000
G01 X58.402644 Y186.652216 Z-0.125000
G01 X53.286315 Y186.077835 Z-0.125000
G01 X47.032672 Y185.745431 Z-0.125000
G01 X36.600403 Y185.712702 Z-0.125000
G01 X34.326874 Y185.456429 Z-0.125000
G01 X32.471778 Y184.963160 Z-0.125000
G01 X30.730910 Y184.146283 Z-0.125000
G01 X29.067015 Y182.943963 Z-0.125000
G01 X27.474853 Y181.308205 Z-0.125000
G01 X26.141097 Y179.464104 Z-0.125000
G01 X24.922801 Y177.242062 Z-0.125000
G01 X23.870479 Y174.644409 Z-0.125000
G01 X23.130381 Y172.074764 Z-0.125000
G01 X22.598755 Y169.246582 Z-0.125000
G01 X22.289637 Y165.728689 Z-0.125000
G01 X22.308653 Y162.434081 Z-0.125000
G01 X22.611950 Y158.972591 Z-0.125000
G01 X23.197910 Y155.379214 Z-0.125000
G01 X25.124740 Y147.928684 Z-0.125000
G01 X28.944183 Y136.968800 Z-0.125000
G01 X33.099393 Y127.033617 Z-0.125000
G01 X37.410876 Y118.547907 Z-0.125000
G01 X41.955346 Y111.291878 Z-0.125000
G01 X44.578290 Y107.818357 Z-0.125000
G01 X46.989852 Y105.049166 Z-0.125000
G01 X50.999073 Y101.261094 Z-0.125000
G01 X54.861271 Y98.455098 Z-0.125000
G01 X58.888022 Y96.271155 Z-0.125000
G01 X63.417939 Y94.565798 Z-0.125000
G01 X67.512412 Y93.594071 Z-0.125000
G01 X71.833404 Y93.060181 Z-0.125000
G01 X76.465195 Y92.956624 Z-0.125000
G01 X84.401491 Y93.365224 Z-0.125000
G01 X85.882141 Y93.240710 Z-0.125000
G01 X86.982909 Y92.921114 Z-0.125000
G01 X88.671901 Y91.794666 Z-0.125000
G01 X93.538038 Y86.660097 Z-0.125000
G01 X96.845583 Y83.941940 Z-0.125000
G01 X98.614523 Y82.919825 Z-0.125000
G01 X100.580291 Y82.105536 Z-0.125000
G01 X102.748517 Y81.541245 Z-0.125000
G01 X104.792746 Y81.286978 Z-0.125000
G01 X107.251655 Y81.306188 Z-0.125000
G01 X109.457331 Y81.618864 Z-0.125000
G01 X111.963912 Y82.335418 Z-0.125000
G01 X114.076898 Y83.285735 Z-0.125000
G01 X116.052887 Y84.537990 Z-0.125000
G01 X117.839873 Y86.085004 Z-0.125000
G01 X119.397301 Y87.912934 Z-0.125000
G01 X120.700138 Y90.002376 Z-0.125000
G01 X121.993078 Y93.035214 Z-0.125000
G01 X122.891067 Y96.406083 Z-0.125000
G01 X123.480519 Y100.058127 Z-0.125000
G01 X124.419258 Y109.377143 Z-0.125000
G01 X125.085488 Y114.077110 Z-0.125000
G01 X126.138651 Y118.868409 Z-0.125000
G01 X127.676803 Y123.692438 Z-0.125000
G01 X129.709324 Y128.483413 Z-0.125000
G01 X132.155167 Y133.168180 Z-0.125000
G01 X140.943398 Y147.078238 Z-0.125000
G01 X143.316409 Y151.159063 Z-0.125000
G01 X145.236964 Y155.219384 Z-0.125000
G01 X147.274014 Y160.642049 Z-0.125000
G01 X148.607251 Y165.034127 Z-0.125000
G01 X149.312809 Y168.359848 Z-0.125000
G01 X149.482536 Y171.022830 Z-0.125000
G01 X149.146251 Y173.198365 Z-0.125000
G01 X148.228664 Y175.399902 Z-0.125000
G01 X146.429518 Y178.250011 Z-0.125000
G01 X143.116733 Y182.773072 Z-0.125000
G01 X140.117983 Y186.298144 Z-0.125000
G01 X136.330235 Y189.920952 Z-0.125000
G01 X132.154585 Y193.042081 Z-0.125000
G01 X127.536053 Y195.675116 Z-0.125000
G01 X122.733564 Y197.683122 Z-0.125000
G01 X117.469953 Y199.158080 Z-0.125000
G01 X112.467401 Y199.923404 Z-0.125000
G01 X107.344798 Y200.095460 Z-0.125000
G01 X102.216891 Y199.661828 Z-0.125000
G01 X98.834637 Y199.053747 Z-0.125000
G01 X94.936346 Y198.060869 Z-0.125000
G01 X76.179815 Y191.578314 Z-0.125000
G01 X70.228628 Y189.872828 Z-0.125000
G01 X64.347557 Y188.525036 Z-0.125000
G01 X58.719653 Y187.561266 Z-0.125000
G01 X53.020534 Y186.915992 Z-0.125000
G01 X46.744252 Y186.592126 Z-0.125000
G01 X36.617221 Y186.575309 Z-0.125000
G01 X34.343174 Y186.336113 Z-0.125000
G01 X32.291442 Y185.791356 Z-0.125000
G01 X30.368041 Y184.841104 Z-0.125000
G01 X28.703757 Y183.569185 Z-0.125000
G01 X27.100405 Y181.853544 Z-0.125000
G01 X25.752096 Y179.931048 Z-0.125000
G01 X24.519311 Y177.625048 Z-0.125000
G01 X23.456705 Y174.939491 Z-0.125000
G01 X22.713890 Y172.290998 Z-0.125000
G01 X22.187373 Y169.383191 Z-0.125000
G01 X21.911826 Y166.241493 Z-0.125000
G01 X21.913766 Y162.896432 Z-0.125000
G01 X22.206778 Y159.382485 Z-0.125000
G01 X22.789892 Y155.735551 Z-0.125000
G01 X24.730887 Y148.178100 Z-0.125000
G01 X28.590175 Y137.073068 Z-0.125000
G01 X32.768541 Y127.015053 Z-0.125000
G01 X37.364369 Y117.915052 Z-0.125000
G01 X41.917119 Y110.635090 Z-0.125000
G01 X46.600980 Y104.776011 Z-0.125000
G01 X50.589827 Y100.940656 Z-0.125000
G01 X54.442258 Y98.096174 Z-0.125000
G01 X58.471337 Y95.878467 Z-0.125000
G01 X63.019623 Y94.141868 Z-0.125000
