%
(Header)
(Generated by gcodetools from Inkscape.)
(Using default header. To add your own header create file "header" in the output dir.)
M3
(Header end.)
G21 (All units in mm)

(Start cutting path id: path416)
(Change tool to Default tool)

G00 Z3.000000
G00 X14.313455 Y70.063962

G00 Z4.875000 (Fast pre-penetrate)
G01 Z-0.125000 F400.0(Penetrate)
G01 X37.502408 Y68.041648 Z-0.125000 F800.000000
G01 X54.636790 Y72.073906 Z-0.125000
G01 X78.305846 Y69.571491 Z-0.125000
G01 X99.789710 Y69.254267 Z-0.125000
G01 X123.732596 Y66.478021 Z-0.125000
G01 X139.074496 Y72.302760 Z-0.125000
G01 X159.549680 Y72.994216 Z-0.125000
G00 Z3.000000

(End cutting path id: path416)


(Start cutting path id: path414)
(Change tool to Default tool)

G00 Z3.000000
G00 X14.160455 Y71.275294

G00 Z4.875000 (Fast pre-penetrate)
G01 Z-0.125000 F400.0(Penetrate)
G01 X37.150939 Y69.451450 Z-0.125000 F800.000000
G01 X54.988641 Y72.780388 Z-0.125000
G01 X78.060170 Y70.875499 Z-0.125000
G01 X100.068528 Y70.033781 Z-0.125000
G01 X123.527380 Y67.741569 Z-0.125000
G01 X139.320651 Y73.114937 Z-0.125000
G01 X159.468107 Y74.134122 Z-0.125000
G00 Z3.000000

(End cutting path id: path414)


(Start cutting path id: path412)
(Change tool to Default tool)

G00 Z3.000000
G00 X14.007454 Y72.486627

G00 Z4.875000 (Fast pre-penetrate)
G01 Z-0.125000 F400.0(Penetrate)
G01 X36.799469 Y70.861251 Z-0.125000 F800.000000
G01 X55.340491 Y73.486870 Z-0.125000
G01 X77.814491 Y72.179509 Z-0.125000
G01 X100.347345 Y70.813295 Z-0.125000
G01 X123.322164 Y69.005117 Z-0.125000
G01 X139.566809 Y73.927112 Z-0.125000
G01 X159.386533 Y75.274027 Z-0.125000
G00 Z3.000000

(End cutting path id: path412)


(Start cutting path id: path410)
(Change tool to Default tool)

G00 Z3.000000
G00 X13.854453 Y73.697959

G00 Z4.875000 (Fast pre-penetrate)
G01 Z-0.125000 F400.0(Penetrate)
G01 X36.448003 Y72.271050 Z-0.125000 F800.000000
G01 X55.692341 Y74.193351 Z-0.125000
G01 X77.568815 Y73.483517 Z-0.125000
G01 X100.626163 Y71.592810 Z-0.125000
G01 X123.116945 Y70.268667 Z-0.125000
G01 X139.812966 Y74.739286 Z-0.125000
G01 X159.304960 Y76.413933 Z-0.125000
G00 Z3.000000

(End cutting path id: path410)


(Start cutting path id: path408)
(Change tool to Default tool)

G00 Z3.000000
G00 X13.701453 Y74.909292

G00 Z4.875000 (Fast pre-penetrate)
G01 Z-0.125000 F400.0(Penetrate)
G01 X36.096533 Y73.680851 Z-0.125000 F800.000000
G01 X56.044192 Y74.899833 Z-0.125000
G01 X77.323139 Y74.787525 Z-0.125000
G01 X100.904980 Y72.372324 Z-0.125000
G01 X122.911729 Y71.532215 Z-0.125000
G01 X140.059121 Y75.551464 Z-0.125000
G01 X159.223386 Y77.553838 Z-0.125000
G00 Z3.000000

(End cutting path id: path408)


(Start cutting path id: path406)
(Change tool to Default tool)

G00 Z3.000000
G00 X13.548452 Y76.120624

G00 Z4.875000 (Fast pre-penetrate)
G01 Z-0.125000 F400.0(Penetrate)
G01 X35.745064 Y75.090653 Z-0.125000 F800.000000
G01 X56.396045 Y75.606312 Z-0.125000
G01 X77.077463 Y76.091533 Z-0.125000
G01 X101.183798 Y73.151839 Z-0.125000
G01 X122.706514 Y72.795763 Z-0.125000
G01 X140.305278 Y76.363638 Z-0.125000
G01 X159.141813 Y78.693744 Z-0.125000
G00 Z3.000000

(End cutting path id: path406)


(Start cutting path id: path404)
(Change tool to Default tool)

G00 Z3.000000
G00 X13.395451 Y77.331956

G00 Z4.875000 (Fast pre-penetrate)
G01 Z-0.125000 F400.0(Penetrate)
G01 X35.393594 Y76.500454 Z-0.125000 F800.000000
G01 X56.747895 Y76.312793 Z-0.125000
G01 X76.831788 Y77.395541 Z-0.125000
G01 X101.462615 Y73.931353 Z-0.125000
G01 X122.501298 Y74.059311 Z-0.125000
G01 X140.551436 Y77.175813 Z-0.125000
G01 X159.060239 Y79.833650 Z-0.125000
G00 Z3.000000

(End cutting path id: path404)


(Start cutting path id: path402)
(Change tool to Default tool)

G00 Z3.000000
G00 X13.242451 Y78.543289

G00 Z4.875000 (Fast pre-penetrate)
G01 Z-0.125000 F400.0(Penetrate)
G01 X35.042128 Y77.910253 Z-0.125000 F800.000000
G01 X57.099746 Y77.019275 Z-0.125000
G01 X76.586112 Y78.699549 Z-0.125000
G01 X101.741433 Y74.710868 Z-0.125000
G01 X122.296082 Y75.322859 Z-0.125000
G01 X140.797593 Y77.987987 Z-0.125000
G01 X158.978665 Y80.973555 Z-0.125000
G00 Z3.000000

(End cutting path id: path402)


(Start cutting path id: path400)
(Change tool to Default tool)

G00 Z3.000000
G00 X13.089450 Y79.754621

G00 Z4.875000 (Fast pre-penetrate)
G01 Z-0.125000 F400.0(Penetrate)
G01 X34.690658 Y79.320054 Z-0.125000 F800.000000
G01 X57.451596 Y77.725756 Z-0.125000
G01 X76.340436 Y80.003557 Z-0.125000
G01 X102.020251 Y75.490382 Z-0.125000
G01 X122.090866 Y76.586406 Z-0.125000
G01 X141.043748 Y78.800165 Z-0.125000
G01 X158.897089 Y82.113463 Z-0.125000
G00 Z3.000000

(End cutting path id: path400)


(Start cutting path id: path398)
(Change tool to Default tool)

G00 Z3.000000
G00 X12.936449 Y80.965956

G00 Z4.875000 (Fast pre-penetrate)
G01 Z-0.125000 F400.0(Penetrate)
G01 X34.339189 Y80.729856 Z-0.125000 F800.000000
G01 X57.803446 Y78.432238 Z-0.125000
G01 X76.094757 Y81.307567 Z-0.125000
G01 X102.299068 Y76.269896 Z-0.125000
G01 X121.885647 Y77.849957 Z-0.125000
G01 X141.289905 Y79.612339 Z-0.125000
G01 X158.815516 Y83.253369 Z-0.125000
G00 Z3.000000

(End cutting path id: path398)


(Start cutting path id: path396)
(Change tool to Default tool)

G00 Z3.000000
G00 X12.783449 Y82.177289

G00 Z4.875000 (Fast pre-penetrate)
G01 Z-0.125000 F400.0(Penetrate)
G01 X33.987722 Y82.139654 Z-0.125000 F800.000000
G01 X58.155297 Y79.138720 Z-0.125000
G01 X75.849081 Y82.611575 Z-0.125000
G01 X102.577886 Y77.049411 Z-0.125000
G01 X121.680432 Y79.113505 Z-0.125000
G01 X141.536063 Y80.424514 Z-0.125000
G01 X158.733942 Y84.393275 Z-0.125000
G00 Z3.000000

(End cutting path id: path396)


(Start cutting path id: path394)
(Change tool to Default tool)

G00 Z3.000000
G00 X12.630448 Y83.388621

G00 Z4.875000 (Fast pre-penetrate)
G01 Z-0.125000 F400.0(Penetrate)
G01 X33.636253 Y83.549456 Z-0.125000 F800.000000
G01 X58.507147 Y79.845201 Z-0.125000
G01 X75.603405 Y83.915583 Z-0.125000
G01 X102.856703 Y77.828925 Z-0.125000
G01 X121.475216 Y80.377053 Z-0.125000
G01 X141.782218 Y81.236691 Z-0.125000
G01 X158.652368 Y85.533180 Z-0.125000
G00 Z3.000000

(End cutting path id: path394)


(Start cutting path id: path392)
(Change tool to Default tool)

G00 Z3.000000
G00 X12.477447 Y84.599954

G00 Z4.875000 (Fast pre-penetrate)
G01 Z-0.125000 F400.0(Penetrate)
G01 X33.284783 Y84.959257 Z-0.125000 F800.000000
G01 X58.858998 Y80.551683 Z-0.125000
G01 X75.357729 Y85.219591 Z-0.125000
G01 X103.135521 Y78.608440 Z-0.125000
G01 X121.270000 Y81.640601 Z-0.125000
G01 X142.028375 Y82.048865 Z-0.125000
G01 X158.570795 Y86.673086 Z-0.125000
G00 Z3.000000

(End cutting path id: path392)


(Start cutting path id: path336)
(Change tool to Default tool)

G00 Z3.000000
G00 X14.718670 Y111.992028

G00 Z4.875000 (Fast pre-penetrate)
G01 Z-0.125000 F400.0(Penetrate)
G01 X34.912765 Y112.964571 Z-0.125000 F800.000000
G01 X57.814969 Y111.229007 Z-0.125000
G01 X79.182914 Y111.027702 Z-0.125000
G01 X91.655325 Y119.721931 Z-0.125000
G01 X113.080368 Y119.463529 Z-0.125000
G01 X138.486453 Y115.224084 Z-0.125000
G01 X164.238422 Y110.638755 Z-0.125000
G00 Z3.000000

(End cutting path id: path336)


(Start cutting path id: path334)
(Change tool to Default tool)

G00 Z3.000000
G00 X14.659663 Y113.109364

G00 Z4.875000 (Fast pre-penetrate)
G01 Z-0.125000 F400.0(Penetrate)
G01 X34.607809 Y114.327859 Z-0.125000 F800.000000
G01 X57.587324 Y112.514984 Z-0.125000
G01 X79.047572 Y112.221376 Z-0.125000
G01 X92.074208 Y120.361381 Z-0.125000
G01 X113.659116 Y119.943112 Z-0.125000
G01 X138.520976 Y116.247893 Z-0.125000
G01 X164.004814 Y111.930695 Z-0.125000
G00 Z3.000000

(End cutting path id: path334)


(Start cutting path id: path332)
(Change tool to Default tool)

G00 Z3.000000
G00 X14.600656 Y114.226704

G00 Z4.875000 (Fast pre-penetrate)
G01 Z-0.125000 F400.0(Penetrate)
G01 X34.302854 Y115.691147 Z-0.125000 F800.000000
G01 X57.359680 Y113.800961 Z-0.125000
G01 X78.912233 Y113.415048 Z-0.125000
G01 X92.493093 Y121.000828 Z-0.125000
G01 X114.237865 Y120.422695 Z-0.125000
G01 X138.555498 Y117.271702 Z-0.125000
G01 X163.771208 Y113.222632 Z-0.125000
G00 Z3.000000

(End cutting path id: path332)


(Start cutting path id: path338)
(Change tool to Default tool)

G00 Z3.000000
G00 X14.545408 Y111.106955

G00 Z4.875000 (Fast pre-penetrate)
G01 Z-0.125000 F400.0(Penetrate)
G01 X34.690777 Y112.128227 Z-0.125000 F800.000000
G01 X58.007911 Y109.977734 Z-0.125000
G01 X78.893384 Y110.258901 Z-0.125000
G01 X92.340862 Y117.978062 Z-0.125000
G01 X113.407763 Y118.077802 Z-0.125000
G01 X138.762011 Y113.890194 Z-0.125000
G01 X163.922409 Y109.896435 Z-0.125000
G00 Z3.000000

(End cutting path id: path338)


(Start cutting path id: path330)
(Change tool to Default tool)

G00 Z3.000000
G00 X14.541650 Y115.344043

G00 Z4.875000 (Fast pre-penetrate)
G01 Z-0.125000 F400.0(Penetrate)
G01 X33.997901 Y117.054432 Z-0.125000 F800.000000
G01 X57.132038 Y115.086935 Z-0.125000
G01 X78.776893 Y114.608719 Z-0.125000
G01 X92.911978 Y121.640274 Z-0.125000
G01 X114.816614 Y120.902278 Z-0.125000
G01 X138.590021 Y118.295511 Z-0.125000
G01 X163.537600 Y114.514573 Z-0.125000
G00 Z3.000000

(End cutting path id: path330)


(Start cutting path id: path328)
(Change tool to Default tool)

G00 Z3.000000
G00 X14.482643 Y116.461382

G00 Z4.875000 (Fast pre-penetrate)
G01 Z-0.125000 F400.0(Penetrate)
G01 X33.692945 Y118.417720 Z-0.125000 F800.000000
G01 X56.904393 Y116.372911 Z-0.125000
G01 X78.641554 Y115.802391 Z-0.125000
G01 X93.330863 Y122.279721 Z-0.125000
G01 X115.395363 Y121.381861 Z-0.125000
G01 X138.624547 Y119.319318 Z-0.125000
G01 X163.303994 Y115.806510 Z-0.125000
G00 Z3.000000

(End cutting path id: path328)


(Start cutting path id: path326)
(Change tool to Default tool)

G00 Z3.000000
G00 X14.423637 Y117.578719

G00 Z4.875000 (Fast pre-penetrate)
G01 Z-0.125000 F400.0(Penetrate)
G01 X33.387989 Y119.781007 Z-0.125000 F800.000000
G01 X56.676749 Y117.658888 Z-0.125000
G01 X78.506214 Y116.996062 Z-0.125000
G01 X93.749746 Y122.919171 Z-0.125000
G01 X115.974112 Y121.861445 Z-0.125000
G01 X138.659069 Y120.343127 Z-0.125000
G01 X163.070386 Y117.098451 Z-0.125000
G00 Z3.000000

(End cutting path id: path326)


(Start cutting path id: path324)
(Change tool to Default tool)

G00 Z3.000000
G00 X14.364630 Y118.696058

G00 Z4.875000 (Fast pre-penetrate)
G01 Z-0.125000 F400.0(Penetrate)
G01 X33.083036 Y121.144292 Z-0.125000 F800.000000
G01 X56.449104 Y118.944864 Z-0.125000
G01 X78.370875 Y118.189734 Z-0.125000
G01 X94.168631 Y123.558618 Z-0.125000
G01 X116.552861 Y122.341028 Z-0.125000
G01 X138.693592 Y121.366936 Z-0.125000
G01 X162.836780 Y118.390388 Z-0.125000
G00 Z3.000000

(End cutting path id: path324)


(Start cutting path id: path256)
(Change tool to Default tool)

G00 Z3.000000
G00 X18.215239 Y150.828738

G00 Z4.875000 (Fast pre-penetrate)
G01 Z-0.125000 F400.0(Penetrate)
G01 X33.581489 Y156.629127 Z-0.125000 F800.000000
G01 X63.544861 Y147.832396 Z-0.125000
G01 X73.036313 Y159.507584 Z-0.125000
G01 X94.212922 Y159.497609 Z-0.125000
G01 X121.555776 Y153.321395 Z-0.125000
G01 X136.535878 Y159.507933 Z-0.125000
G01 X160.828206 Y156.382245 Z-0.125000
G00 Z3.000000

(End cutting path id: path256)


(Start cutting path id: path254)
(Change tool to Default tool)

G00 Z3.000000
G00 X17.957128 Y152.145181

G00 Z4.875000 (Fast pre-penetrate)
G01 Z-0.125000 F400.0(Penetrate)
G01 X33.329548 Y157.939400 Z-0.125000 F800.000000
G01 X63.017388 Y149.418201 Z-0.125000
G01 X73.646235 Y159.955994 Z-0.125000
G01 X94.263121 Y160.505747 Z-0.125000
G01 X121.734663 Y154.200845 Z-0.125000
G01 X136.800641 Y160.301508 Z-0.125000
G01 X160.664236 Y157.604552 Z-0.125000
G00 Z3.000000

(End cutting path id: path254)


(Start cutting path id: path258)
(Change tool to Default tool)

G00 Z3.000000
G00 X17.981406 Y150.004239

G00 Z4.875000 (Fast pre-penetrate)
G01 Z-0.125000 F400.0(Penetrate)
G01 X33.343097 Y155.809187 Z-0.125000 F800.000000
G01 X63.030720 Y147.288204 Z-0.125000
G01 X73.208302 Y158.277262 Z-0.125000
G01 X94.503926 Y158.148278 Z-0.125000
G01 X121.710755 Y152.108089 Z-0.125000
G01 X136.667929 Y158.317556 Z-0.125000
G01 X160.765109 Y155.387016 Z-0.125000
G00 Z3.000000

(End cutting path id: path258)


(Start cutting path id: path252)
(Change tool to Default tool)

G00 Z3.000000
G00 X17.699014 Y153.461627

G00 Z4.875000 (Fast pre-penetrate)
G01 Z-0.125000 F400.0(Penetrate)
G01 X33.077607 Y159.249674 Z-0.125000 F800.000000
G01 X62.489913 Y151.004008 Z-0.125000
G01 X74.256157 Y160.404404 Z-0.125000
G01 X94.313318 Y161.513882 Z-0.125000
G01 X121.913548 Y155.080293 Z-0.125000
G01 X137.065404 Y161.095077 Z-0.125000
G01 X160.500269 Y158.826852 Z-0.125000
G00 Z3.000000

(End cutting path id: path252)


(Start cutting path id: path260)
(Change tool to Default tool)

G00 Z3.000000
G00 X17.747570 Y149.179743

G00 Z4.875000 (Fast pre-penetrate)
G01 Z-0.125000 F400.0(Penetrate)
G01 X33.104705 Y154.989247 Z-0.125000 F800.000000
G01 X62.516582 Y146.744010 Z-0.125000
G01 X73.380292 Y157.046941 Z-0.125000
G01 X94.794933 Y156.798939 Z-0.125000
G01 X121.865735 Y150.894778 Z-0.125000
G01 X136.799982 Y157.127170 Z-0.125000
G01 X160.702014 Y154.391779 Z-0.125000
G00 Z3.000000

(End cutting path id: path260)


(Start cutting path id: path250)
(Change tool to Default tool)

G00 Z3.000000
G00 X17.440902 Y154.778070

G00 Z4.875000 (Fast pre-penetrate)
G01 Z-0.125000 F400.0(Penetrate)
G01 X32.825663 Y160.559950 Z-0.125000 F800.000000
G01 X61.962440 Y152.589813 Z-0.125000
G01 X74.866079 Y160.852814 Z-0.125000
G01 X94.363515 Y162.522018 Z-0.125000
G01 X122.092435 Y155.959738 Z-0.125000
G01 X137.330167 Y161.888646 Z-0.125000
G01 X160.336299 Y160.049154 Z-0.125000
G00 Z3.000000

(End cutting path id: path250)


(Start cutting path id: path248)
(Change tool to Default tool)

G00 Z3.000000
G00 X17.182788 Y156.094516

G00 Z4.875000 (Fast pre-penetrate)
G01 Z-0.125000 F400.0(Penetrate)
G01 X32.573722 Y161.870223 Z-0.125000 F800.000000
G01 X61.434967 Y154.175617 Z-0.125000
G01 X75.476001 Y161.301224 Z-0.125000
G01 X94.413714 Y163.530150 Z-0.125000
G01 X122.271320 Y156.839185 Z-0.125000
G01 X137.594930 Y162.682215 Z-0.125000
G01 X160.172329 Y161.271456 Z-0.125000
G00 Z3.000000

(End cutting path id: path248)


(Start cutting path id: path262)
(Change tool to Default tool)

G00 Z3.000000
G00 X17.513734 Y148.355246

G00 Z4.875000 (Fast pre-penetrate)
G01 Z-0.125000 F400.0(Penetrate)
G01 X32.866313 Y154.169307 Z-0.125000 F800.000000
G01 X62.002445 Y146.199816 Z-0.125000
G01 X73.552281 Y155.816619 Z-0.125000
G01 X95.085938 Y155.449603 Z-0.125000
G01 X122.020712 Y149.681469 Z-0.125000
G01 X136.932033 Y155.936788 Z-0.125000
G01 X160.638916 Y153.396545 Z-0.125000
G00 Z3.000000

(End cutting path id: path262)


(Start cutting path id: path264)
(Change tool to Default tool)

G00 Z3.000000
G00 X17.279898 Y147.530750

G00 Z4.875000 (Fast pre-penetrate)
G01 Z-0.125000 F400.0(Penetrate)
G01 X32.627924 Y153.349364 Z-0.125000 F800.000000
G01 X61.488304 Y145.655624 Z-0.125000
G01 X73.724273 Y154.586295 Z-0.125000
G01 X95.376942 Y154.100267 Z-0.125000
G01 X122.175691 Y148.468157 Z-0.125000
G01 X137.064086 Y154.746402 Z-0.125000
G01 X160.575821 Y152.401308 Z-0.125000
G00 Z3.000000

(End cutting path id: path264)


(Start cutting path id: path266)
(Change tool to Default tool)

G00 Z3.000000
G00 X17.046065 Y146.706251

G00 Z4.875000 (Fast pre-penetrate)
G01 Z-0.125000 F400.0(Penetrate)
G01 X32.389532 Y152.529424 Z-0.125000 F800.000000
G01 X60.974167 Y145.111430 Z-0.125000
G01 X73.896263 Y153.355974 Z-0.125000
G01 X95.667946 Y152.750930 Z-0.125000
G01 X122.330671 Y147.254846 Z-0.125000
G01 X137.196137 Y153.556019 Z-0.125000
G01 X160.512726 Y151.406071 Z-0.125000
G00 Z3.000000

(End cutting path id: path266)


(Start cutting path id: path246)
(Change tool to Default tool)

G00 Z3.000000
G00 X16.924674 Y157.410962

G00 Z4.875000 (Fast pre-penetrate)
G01 Z-0.125000 F400.0(Penetrate)
G01 X32.321781 Y163.180496 Z-0.125000 F800.000000
G01 X60.907492 Y155.761425 Z-0.125000
G01 X76.085923 Y161.749634 Z-0.125000
G01 X94.463911 Y164.538286 Z-0.125000
G01 X122.450207 Y157.718630 Z-0.125000
G01 X137.859695 Y163.475781 Z-0.125000
G01 X160.008362 Y162.493755 Z-0.125000
G00 Z3.000000

(End cutting path id: path246)


(Start cutting path id: path244)
(Change tool to Default tool)

G00 Z3.000000
G00 X16.666563 Y158.727405

G00 Z4.875000 (Fast pre-penetrate)
G01 Z-0.125000 F400.0(Penetrate)
G01 X32.069839 Y164.490769 Z-0.125000 F800.000000
G01 X60.380019 Y157.347229 Z-0.125000
G01 X76.695845 Y162.198044 Z-0.125000
G01 X94.514110 Y165.546418 Z-0.125000
G01 X122.629091 Y158.598077 Z-0.125000
G01 X138.124458 Y164.269350 Z-0.125000
G01 X159.844392 Y163.716057 Z-0.125000
G00 Z3.000000

(End cutting path id: path244)


(Start cutting path id: path242)
(Change tool to Default tool)

G00 Z3.000000
G00 X16.408449 Y160.043851

G00 Z4.875000 (Fast pre-penetrate)
G01 Z-0.125000 F400.0(Penetrate)
G01 X31.817898 Y165.801042 Z-0.125000 F800.000000
G01 X59.852544 Y158.933037 Z-0.125000
G01 X77.305767 Y162.646454 Z-0.125000
G01 X94.564307 Y166.554554 Z-0.125000
G01 X122.807979 Y159.477522 Z-0.125000
G01 X138.389221 Y165.062919 Z-0.125000
G01 X159.680424 Y164.938356 Z-0.125000
G00 Z3.000000

(End cutting path id: path242)


(Start cutting path id: path240)
(Change tool to Default tool)

G00 Z3.000000
G00 X16.150338 Y161.360295

G00 Z4.875000 (Fast pre-penetrate)
G01 Z-0.125000 F400.0(Penetrate)
G01 X31.565957 Y167.111316 Z-0.125000 F800.000000
G01 X59.325071 Y160.518841 Z-0.125000
G01 X77.915691 Y163.094861 Z-0.125000
G01 X94.614504 Y167.562689 Z-0.125000
G01 X122.986863 Y160.356969 Z-0.125000
G01 X138.653984 Y165.856488 Z-0.125000
G01 X159.516454 Y166.160658 Z-0.125000
G00 Z3.000000

(End cutting path id: path240)


(Start cutting path id: path238)
(Change tool to Default tool)

G00 Z3.000000
G00 X15.892224 Y162.676741

G00 Z4.875000 (Fast pre-penetrate)
G01 Z-0.125000 F400.0(Penetrate)
G01 X31.314016 Y168.421589 Z-0.125000 F800.000000
G01 X58.797599 Y162.104646 Z-0.125000
G01 X78.525613 Y163.543271 Z-0.125000
G01 X94.664703 Y168.570822 Z-0.125000
G01 X123.165750 Y161.236414 Z-0.125000
G01 X138.918750 Y166.650055 Z-0.125000
G01 X159.352487 Y167.382958 Z-0.125000
G00 Z3.000000

(End cutting path id: path238)


(Start cutting path id: path236)
(Change tool to Default tool)

G00 Z3.000000
G00 X15.634111 Y163.993186

G00 Z4.875000 (Fast pre-penetrate)
G01 Z-0.125000 F400.0(Penetrate)
G01 X31.062074 Y169.731862 Z-0.125000 F800.000000
G01 X58.270123 Y163.690453 Z-0.125000
G01 X79.135535 Y163.991681 Z-0.125000
G01 X94.714900 Y169.578957 Z-0.125000
G01 X123.344635 Y162.115862 Z-0.125000
G01 X139.183513 Y167.443624 Z-0.125000
G01 X159.188517 Y168.605260 Z-0.125000
G00 Z3.000000

(End cutting path id: path236)


(Start cutting path id: path234)
(Change tool to Default tool)

G00 Z3.000000
G00 X15.375998 Y165.309630

G00 Z4.875000 (Fast pre-penetrate)
G01 Z-0.125000 F400.0(Penetrate)
G01 X30.810133 Y171.042135 Z-0.125000 F800.000000
G01 X57.742651 Y165.276258 Z-0.125000
G01 X79.745458 Y164.440091 Z-0.125000
G01 X94.765096 Y170.587092 Z-0.125000
G01 X123.523522 Y162.995306 Z-0.125000
G01 X139.448275 Y168.237193 Z-0.125000
G01 X159.024549 Y169.827559 Z-0.125000
G00 Z3.000000

(End cutting path id: path234)


(Start cutting path id: path232)
(Change tool to Default tool)

G00 Z3.000000
G00 X15.117886 Y166.626076

G00 Z4.875000 (Fast pre-penetrate)
G01 Z-0.125000 F400.0(Penetrate)
G01 X30.558192 Y172.352409 Z-0.125000 F800.000000
G01 X57.215178 Y166.862063 Z-0.125000
G01 X80.355380 Y164.888501 Z-0.125000
G01 X94.815296 Y171.595225 Z-0.125000
G01 X123.702407 Y163.874754 Z-0.125000
G01 X139.713038 Y169.030762 Z-0.125000
G01 X158.860579 Y171.049861 Z-0.125000
G00 Z3.000000

(End cutting path id: path232)


(Start cutting path id: path230)
(Change tool to Default tool)

G00 Z3.000000
G00 X14.859773 Y167.942519

G00 Z4.875000 (Fast pre-penetrate)
G01 Z-0.125000 F400.0(Penetrate)
G01 X30.306251 Y173.662682 Z-0.125000 F800.000000
G01 X56.687703 Y168.447870 Z-0.125000
G01 X80.965302 Y165.336911 Z-0.125000
G01 X94.865492 Y172.603360 Z-0.125000
G01 X123.881294 Y164.754199 Z-0.125000
G01 X139.977804 Y169.824329 Z-0.125000
G01 X158.696612 Y172.272161 Z-0.125000
G00 Z3.000000

(End cutting path id: path230)


(Start cutting path id: path228)
(Change tool to Default tool)

G00 Z3.000000
G00 X14.601660 Y169.258965

G00 Z4.875000 (Fast pre-penetrate)
G01 Z-0.125000 F400.0(Penetrate)
G01 X30.054309 Y174.972955 Z-0.125000 F800.000000
G01 X56.160230 Y170.033675 Z-0.125000
G01 X81.575224 Y165.785321 Z-0.125000
G01 X94.915692 Y173.611493 Z-0.125000
G01 X124.060178 Y165.633646 Z-0.125000
G01 X140.242567 Y170.617898 Z-0.125000
G01 X158.532642 Y173.494463 Z-0.125000
G00 Z3.000000

(End cutting path id: path228)


(Start cutting path id: path226)
(Change tool to Default tool)

G00 Z3.000000
G00 X14.343547 Y170.575411

G00 Z4.875000 (Fast pre-penetrate)
G01 Z-0.125000 F400.0(Penetrate)
G01 X29.802368 Y176.283228 Z-0.125000 F800.000000
G01 X55.632757 Y171.619479 Z-0.125000
G01 X82.185146 Y166.233731 Z-0.125000
G01 X94.965888 Y174.619628 Z-0.125000
G01 X124.239066 Y166.513091 Z-0.125000
G01 X140.507330 Y171.411467 Z-0.125000
G01 X158.368675 Y174.716762 Z-0.125000
G00 Z3.000000

(End cutting path id: path226)


(Start cutting path id: path224)
(Change tool to Default tool)

G00 Z3.000000
G00 X14.085434 Y171.891854

G00 Z4.875000 (Fast pre-penetrate)
G01 Z-0.125000 F400.0(Penetrate)
G01 X29.550424 Y177.593504 Z-0.125000 F800.000000
G01 X55.105282 Y173.205287 Z-0.125000
G01 X82.795070 Y166.682138 Z-0.125000
G01 X95.016085 Y175.627764 Z-0.125000
G01 X124.417950 Y167.392538 Z-0.125000
G01 X140.772093 Y172.205036 Z-0.125000
G01 X158.204705 Y175.939064 Z-0.125000
G00 Z3.000000

(End cutting path id: path224)


(Start cutting path id: path136)
(Change tool to Default tool)

G00 Z3.000000
G00 X18.854207 Y213.689690

G00 Z4.875000 (Fast pre-penetrate)
G01 Z-0.125000 F400.0(Penetrate)
G01 X32.912991 Y220.797545 Z-0.125000 F800.000000
G01 X53.111173 Y221.766004 Z-0.125000
G01 X73.739191 Y222.304626 Z-0.125000
G01 X92.281852 Y224.928604 Z-0.125000
G01 X125.248455 Y213.128641 Z-0.125000
G01 X143.196768 Y216.346968 Z-0.125000
G01 X162.588123 Y218.122254 Z-0.125000
G00 Z3.000000

(End cutting path id: path136)


(Start cutting path id: path138)
(Change tool to Default tool)

G00 Z3.000000
G00 X18.370814 Y213.114751

G00 Z4.875000 (Fast pre-penetrate)
G01 Z-0.125000 F400.0(Penetrate)
G01 X32.740425 Y219.911780 Z-0.125000 F800.000000
G01 X52.916641 Y220.902204 Z-0.125000
G01 X73.793488 Y221.191996 Z-0.125000
G01 X92.441856 Y223.710268 Z-0.125000
G01 X124.832083 Y212.486681 Z-0.125000
G01 X143.047504 Y215.437901 Z-0.125000
G01 X162.150992 Y217.501053 Z-0.125000
G00 Z3.000000

(End cutting path id: path138)


(Start cutting path id: path140)
(Change tool to Default tool)

G00 Z3.000000
G00 X17.887421 Y212.539812

G00 Z4.875000 (Fast pre-penetrate)
G01 Z-0.125000 F400.0(Penetrate)
G01 X32.567861 Y219.026011 Z-0.125000 F800.000000
G01 X52.722109 Y220.038404 Z-0.125000
G01 X73.847783 Y220.079369 Z-0.125000
G01 X92.601860 Y222.491932 Z-0.125000
G01 X124.415712 Y211.844721 Z-0.125000
G01 X142.898239 Y214.528833 Z-0.125000
G01 X161.713864 Y216.879849 Z-0.125000
G00 Z3.000000

(End cutting path id: path140)


(Start cutting path id: path142)
(Change tool to Default tool)

G00 Z3.000000
G00 X17.404027 Y211.964873

G00 Z4.875000 (Fast pre-penetrate)
G01 Z-0.125000 F400.0(Penetrate)
G01 X32.395295 Y218.140246 Z-0.125000 F800.000000
G01 X52.527577 Y219.174604 Z-0.125000
G01 X73.902078 Y218.966742 Z-0.125000
G01 X92.761862 Y221.273599 Z-0.125000
G01 X123.999340 Y211.202760 Z-0.125000
G01 X142.748975 Y213.619766 Z-0.125000
G01 X161.276733 Y216.258648 Z-0.125000
G00 Z3.000000

(End cutting path id: path142)


(Start cutting path id: path144)
(Change tool to Default tool)

G00 Z3.000000
G00 X16.920634 Y211.389934

G00 Z4.875000 (Fast pre-penetrate)
G01 Z-0.125000 F400.0(Penetrate)
G01 X32.222729 Y217.254480 Z-0.125000 F800.000000
G01 X52.333045 Y218.310804 Z-0.125000
G01 X73.956374 Y217.854115 Z-0.125000
G01 X92.921866 Y220.055263 Z-0.125000
G01 X123.582969 Y210.560800 Z-0.125000
G01 X142.599708 Y212.710701 Z-0.125000
G01 X160.839605 Y215.637444 Z-0.125000
G00 Z3.000000

(End cutting path id: path144)


(Start cutting path id: path146)
(Change tool to Default tool)

G00 Z3.000000
G00 X16.437241 Y210.814995

G00 Z4.875000 (Fast pre-penetrate)
G01 Z-0.125000 F400.0(Penetrate)
G01 X32.050162 Y216.368714 Z-0.125000 F800.000000
G01 X52.138510 Y217.447006 Z-0.125000
G01 X74.010669 Y216.741488 Z-0.125000
G01 X93.081869 Y218.836927 Z-0.125000
G01 X123.166594 Y209.918842 Z-0.125000
G01 X142.450443 Y211.801633 Z-0.125000
G01 X160.402474 Y215.016243 Z-0.125000
G00 Z3.000000

(End cutting path id: path146)


(Start cutting path id: path148)
(Change tool to Default tool)

G00 Z3.000000
G00 X15.953851 Y210.240054

G00 Z4.875000 (Fast pre-penetrate)
G01 Z-0.125000 F400.0(Penetrate)
G01 X31.877596 Y215.482949 Z-0.125000 F800.000000
G01 X51.943978 Y216.583206 Z-0.125000
G01 X74.064964 Y215.628861 Z-0.125000
G01 X93.241873 Y217.618591 Z-0.125000
G01 X122.750223 Y209.276882 Z-0.125000
G01 X142.301179 Y210.892566 Z-0.125000
G01 X159.965346 Y214.395039 Z-0.125000
G00 Z3.000000

(End cutting path id: path148)


(Start cutting path id: path150)
(Change tool to Default tool)

G00 Z3.000000
G00 X15.470457 Y209.665115

G00 Z4.875000 (Fast pre-penetrate)
G01 Z-0.125000 F400.0(Penetrate)
G01 X31.705030 Y214.597183 Z-0.125000 F800.000000
G01 X51.749446 Y215.719406 Z-0.125000
G01 X74.119259 Y214.516234 Z-0.125000
G01 X93.401877 Y216.400255 Z-0.125000
G01 X122.333851 Y208.634921 Z-0.125000
G01 X142.151914 Y209.983498 Z-0.125000
G01 X159.528215 Y213.773838 Z-0.125000
G00 Z3.000000

(End cutting path id: path150)


(Start cutting path id: path152)
(Change tool to Default tool)

G00 Z3.000000
G00 X14.987064 Y209.090176

G00 Z4.875000 (Fast pre-penetrate)
G01 Z-0.125000 F400.0(Penetrate)
G01 X31.532463 Y213.711417 Z-0.125000 F800.000000
G01 X51.554914 Y214.855606 Z-0.125000
G01 X74.173556 Y213.403604 Z-0.125000
G01 X93.561879 Y215.181922 Z-0.125000
G01 X121.917479 Y207.992961 Z-0.125000
G01 X142.002647 Y209.074433 Z-0.125000
G01 X159.091087 Y213.152634 Z-0.125000
G00 Z3.000000

(End cutting path id: path152)


(Start cutting path id: path154)
(Change tool to Default tool)

G00 Z3.000000
G00 X14.503671 Y208.515237

G00 Z4.875000 (Fast pre-penetrate)
G01 Z-0.125000 F400.0(Penetrate)
G01 X31.359900 Y212.825649 Z-0.125000 F800.000000
G01 X51.360382 Y213.991806 Z-0.125000
G01 X74.227852 Y212.290977 Z-0.125000
G01 X93.721883 Y213.963586 Z-0.125000
G01 X121.501105 Y207.351003 Z-0.125000
G01 X141.853383 Y208.165366 Z-0.125000
G01 X158.653956 Y212.531433 Z-0.125000
G00 Z3.000000

(End cutting path id: path154)


(Start cutting path id: path156)
(Change tool to Default tool)

G00 Z3.000000
G00 X14.020278 Y207.940298

G00 Z4.875000 (Fast pre-penetrate)
G01 Z-0.125000 F400.0(Penetrate)
G01 X31.187333 Y211.939883 Z-0.125000 F800.000000
G01 X51.165850 Y213.128006 Z-0.125000
G01 X74.282147 Y211.178350 Z-0.125000
G01 X93.881886 Y212.745250 Z-0.125000
G01 X121.084734 Y206.709043 Z-0.125000
G01 X141.704118 Y207.256298 Z-0.125000
G01 X158.216828 Y211.910229 Z-0.125000
G00 Z3.000000

(End cutting path id: path156)


(Start cutting path id: path158)
(Change tool to Default tool)

G00 Z3.000000
G00 X13.536885 Y207.365360

G00 Z4.875000 (Fast pre-penetrate)
G01 Z-0.125000 F400.0(Penetrate)
G01 X31.014767 Y211.054118 Z-0.125000 F800.000000
G01 X50.971318 Y212.264206 Z-0.125000
G01 X74.336442 Y210.065723 Z-0.125000
G01 X94.041890 Y211.526914 Z-0.125000
G01 X120.668362 Y206.067083 Z-0.125000
G01 X141.554854 Y206.347231 Z-0.125000
G01 X157.779697 Y211.289028 Z-0.125000
G00 Z3.000000

(End cutting path id: path158)


(Start cutting path id: path160)
(Change tool to Default tool)

G00 Z3.000000
G00 X13.053493 Y206.790421

G00 Z4.875000 (Fast pre-penetrate)
G01 Z-0.125000 F400.0(Penetrate)
G01 X30.842201 Y210.168352 Z-0.125000 F800.000000
G01 X50.776786 Y211.400406 Z-0.125000
G01 X74.390737 Y208.953096 Z-0.125000
G01 X94.201894 Y210.308578 Z-0.125000
G01 X120.251990 Y205.425122 Z-0.125000
G01 X141.405586 Y205.438166 Z-0.125000
G01 X157.342569 Y210.667824 Z-0.125000
G00 Z3.000000

(End cutting path id: path160)


(Start cutting path id: path162)
(Change tool to Default tool)

G00 Z3.000000
G00 X12.570100 Y206.215482

G00 Z4.875000 (Fast pre-penetrate)
G01 Z-0.125000 F400.0(Penetrate)
G01 X30.669634 Y209.282586 Z-0.125000 F800.000000
G01 X50.582254 Y210.536606 Z-0.125000
G01 X74.445032 Y207.840469 Z-0.125000
G01 X94.361896 Y209.090245 Z-0.125000
G01 X119.835616 Y204.783164 Z-0.125000
G01 X141.256322 Y204.529099 Z-0.125000
G01 X156.905441 Y210.046620 Z-0.125000
G00 Z3.000000

(End cutting path id: path162)


(Start cutting path id: path164)
(Change tool to Default tool)

G00 Z3.000000
G00 X12.086707 Y205.640540

G00 Z4.875000 (Fast pre-penetrate)
G01 Z-0.125000 F400.0(Penetrate)
G01 X30.497068 Y208.396821 Z-0.125000 F800.000000
G01 X50.387722 Y209.672806 Z-0.125000
G01 X74.499330 Y206.727839 Z-0.125000
G01 X94.521899 Y207.871909 Z-0.125000
G01 X119.419244 Y204.141204 Z-0.125000
G01 X141.107057 Y203.620031 Z-0.125000
G01 X156.468310 Y209.425419 Z-0.125000
G00 Z3.000000

(End cutting path id: path164)


(Start cutting path id: path166)
(Change tool to Default tool)

G00 Z3.000000
G00 X11.603314 Y205.065601

G00 Z4.875000 (Fast pre-penetrate)
G01 Z-0.125000 F400.0(Penetrate)
G01 X30.324504 Y207.511052 Z-0.125000 F800.000000
G01 X50.193187 Y208.809009 Z-0.125000
G01 X74.553625 Y205.615212 Z-0.125000
G01 X94.681903 Y206.653573 Z-0.125000
G01 X119.002873 Y203.499244 Z-0.125000
G01 X140.957793 Y202.710964 Z-0.125000
G01 X156.031182 Y208.804215 Z-0.125000
G00 Z3.000000

(End cutting path id: path166)


(Start cutting path id: path168)
(Change tool to Default tool)

G00 Z3.000000
G00 X11.119921 Y204.490663

G00 Z4.875000 (Fast pre-penetrate)
G01 Z-0.125000 F400.0(Penetrate)
G01 X30.151938 Y206.625287 Z-0.125000 F800.000000
G01 X49.998655 Y207.945209 Z-0.125000
G01 X74.607920 Y204.502585 Z-0.125000
G01 X94.841907 Y205.435237 Z-0.125000
G01 X118.586501 Y202.857283 Z-0.125000
G01 X140.808526 Y201.801899 Z-0.125000
G01 X155.594051 Y208.183014 Z-0.125000
G00 Z3.000000

(End cutting path id: path168)


(Start cutting path id: path170)
(Change tool to Default tool)

G00 Z3.000000
G00 X10.636528 Y203.915724

G00 Z4.875000 (Fast pre-penetrate)
G01 Z-0.125000 F400.0(Penetrate)
G01 X29.979372 Y205.739521 Z-0.125000 F800.000000
G01 X49.804123 Y207.081409 Z-0.125000
G01 X74.662215 Y203.389958 Z-0.125000
G01 X95.001911 Y204.216901 Z-0.125000
G01 X118.170127 Y202.215326 Z-0.125000
G01 X140.659261 Y200.892831 Z-0.125000
G01 X155.156923 Y207.561810 Z-0.125000
G00 Z3.000000

(End cutting path id: path170)


(Start cutting path id: path172)
(Change tool to Default tool)

G00 Z3.000000
G00 X10.153136 Y203.340785

G00 Z4.875000 (Fast pre-penetrate)
G01 Z-0.125000 F400.0(Penetrate)
G01 X29.806805 Y204.853755 Z-0.125000 F800.000000
G01 X49.609591 Y206.217609 Z-0.125000
G01 X74.716510 Y202.277331 Z-0.125000
G01 X95.161913 Y202.998568 Z-0.125000
G01 X117.753755 Y201.573365 Z-0.125000
G01 X140.509997 Y199.983764 Z-0.125000
G01 X154.719792 Y206.940609 Z-0.125000
G00 Z3.000000

(End cutting path id: path172)


(Start cutting path id: path204)
(Change tool to Default tool)

G00 Z3.000000
G00 X11.892993 Y184.667615

G00 Z4.875000 (Fast pre-penetrate)
G01 Z-0.125000 F400.0(Penetrate)
G01 X28.818363 Y188.908886 Z-0.125000 F800.000000
G01 X51.862931 Y187.030957 Z-0.125000
G01 X82.111861 Y177.948667 Z-0.125000
G01 X95.296389 Y185.930779 Z-0.125000
G01 X122.669750 Y179.724059 Z-0.125000
G01 X141.345243 Y182.215206 Z-0.125000
G01 X156.437840 Y188.289248 Z-0.125000
G00 Z3.000000

(End cutting path id: path204)


(Start cutting path id: path222)
(Change tool to Default tool)

G00 Z3.000000
G00 X13.827321 Y173.208300

G00 Z4.875000 (Fast pre-penetrate)
G01 Z-0.125000 F400.0(Penetrate)
G01 X29.298483 Y178.903777 Z-0.125000 F800.000000
G01 X54.577809 Y174.791091 Z-0.125000
G01 X83.404992 Y167.130548 Z-0.125000
G01 X95.066284 Y176.635896 Z-0.125000
G01 X124.596835 Y168.271986 Z-0.125000
G01 X141.036856 Y172.998605 Z-0.125000
G01 X158.040737 Y177.161363 Z-0.125000
G00 Z3.000000

(End cutting path id: path222)


(Start cutting path id: path220)
(Change tool to Default tool)

G00 Z3.000000
G00 X13.569208 Y174.524743

G00 Z4.875000 (Fast pre-penetrate)
G01 Z-0.125000 F400.0(Penetrate)
G01 X29.046542 Y180.214051 Z-0.125000 F800.000000
G01 X54.050337 Y176.376896 Z-0.125000
G01 X84.014914 Y167.578958 Z-0.125000
G01 X95.116481 Y177.644032 Z-0.125000
G01 X124.775722 Y169.151431 Z-0.125000
G01 X141.301621 Y173.792171 Z-0.125000
G01 X157.876767 Y178.383665 Z-0.125000
G00 Z3.000000

(End cutting path id: path220)


(Start cutting path id: path218)
(Change tool to Default tool)

G00 Z3.000000
G00 X13.311095 Y175.841189

G00 Z4.875000 (Fast pre-penetrate)
G01 Z-0.125000 F400.0(Penetrate)
G01 X28.794601 Y181.524324 Z-0.125000 F800.000000
G01 X53.522861 Y177.962703 Z-0.125000
G01 X84.624836 Y168.027368 Z-0.125000
G01 X95.166680 Y178.652164 Z-0.125000
G01 X124.954607 Y170.030878 Z-0.125000
G01 X141.566384 Y174.585740 Z-0.125000
G01 X157.712797 Y179.605967 Z-0.125000
G00 Z3.000000

(End cutting path id: path218)


(Start cutting path id: path216)
(Change tool to Default tool)

G00 Z3.000000
G00 X13.052982 Y177.157633

G00 Z4.875000 (Fast pre-penetrate)
G01 Z-0.125000 F400.0(Penetrate)
G01 X28.542660 Y182.834597 Z-0.125000 F800.000000
G01 X52.995389 Y179.548508 Z-0.125000
G01 X85.234758 Y168.475778 Z-0.125000
G01 X95.216877 Y179.660299 Z-0.125000
G01 X125.133494 Y170.910323 Z-0.125000
G01 X141.831147 Y175.379310 Z-0.125000
G01 X157.548830 Y180.828267 Z-0.125000
G00 Z3.000000

(End cutting path id: path216)


(Start cutting path id: path214)
(Change tool to Default tool)

G00 Z3.000000
G00 X12.859651 Y178.409298

G00 Z4.875000 (Fast pre-penetrate)
G01 Z-0.125000 F400.0(Penetrate)
G01 X28.588610 Y183.846979 Z-0.125000 F800.000000
G01 X52.806646 Y180.795583 Z-0.125000
G01 X84.714276 Y170.054593 Z-0.125000
G01 X95.230130 Y180.705379 Z-0.125000
G01 X124.722869 Y172.379280 Z-0.125000
G01 X141.750163 Y176.518625 Z-0.125000
G01 X157.363664 Y182.071765 Z-0.125000
G00 Z3.000000

(End cutting path id: path214)


(Start cutting path id: path212)
(Change tool to Default tool)

G00 Z3.000000
G00 X12.666319 Y179.660961

G00 Z4.875000 (Fast pre-penetrate)
G01 Z-0.125000 F400.0(Penetrate)
G01 X28.634562 Y184.859358 Z-0.125000 F800.000000
G01 X52.617903 Y182.042658 Z-0.125000
G01 X84.193794 Y171.633407 Z-0.125000
G01 X95.243380 Y181.750460 Z-0.125000
G01 X124.312244 Y173.848236 Z-0.125000
G01 X141.669180 Y177.657941 Z-0.125000
G01 X157.178501 Y183.315260 Z-0.125000
G00 Z3.000000

(End cutting path id: path212)


(Start cutting path id: path210)
(Change tool to Default tool)

G00 Z3.000000
G00 X12.472988 Y180.912624

G00 Z4.875000 (Fast pre-penetrate)
G01 Z-0.125000 F400.0(Penetrate)
G01 X28.680513 Y185.871740 Z-0.125000 F800.000000
G01 X52.429160 Y183.289733 Z-0.125000
G01 X83.673311 Y173.212221 Z-0.125000
G01 X95.256633 Y182.795539 Z-0.125000
G01 X123.901622 Y175.317191 Z-0.125000
G01 X141.588196 Y178.797256 Z-0.125000
G01 X156.993335 Y184.558757 Z-0.125000
G00 Z3.000000

(End cutting path id: path210)


(Start cutting path id: path208)
(Change tool to Default tool)

G00 Z3.000000
G00 X12.279656 Y182.164289

G00 Z4.875000 (Fast pre-penetrate)
G01 Z-0.125000 F400.0(Penetrate)
G01 X28.726463 Y186.884122 Z-0.125000 F800.000000
G01 X52.240417 Y184.536808 Z-0.125000
G01 X83.152826 Y174.791038 Z-0.125000
G01 X95.269886 Y183.840618 Z-0.125000
G01 X123.490997 Y176.786148 Z-0.125000
G01 X141.507210 Y179.936574 Z-0.125000
G01 X156.808169 Y185.802255 Z-0.125000
G00 Z3.000000

(End cutting path id: path208)


(Start cutting path id: path206)
(Change tool to Default tool)

G00 Z3.000000
G00 X12.086324 Y183.415952

G00 Z4.875000 (Fast pre-penetrate)
G01 Z-0.125000 F400.0(Penetrate)
G01 X28.772413 Y187.896504 Z-0.125000 F800.000000
G01 X52.051674 Y185.783883 Z-0.125000
G01 X82.632344 Y176.369853 Z-0.125000
G01 X95.283137 Y184.885700 Z-0.125000
G01 X123.080372 Y178.255104 Z-0.125000
G01 X141.426227 Y181.075890 Z-0.125000
G01 X156.623006 Y187.045750 Z-0.125000
G00 Z3.000000

(End cutting path id: path206)


(Start cutting path id: path202)
(Change tool to Default tool)

G00 Z3.000000
G00 X11.699661 Y185.919280

G00 Z4.875000 (Fast pre-penetrate)
G01 Z-0.125000 F400.0(Penetrate)
G01 X28.864316 Y189.921265 Z-0.125000 F800.000000
G01 X51.674188 Y188.278032 Z-0.125000
G01 X81.591379 Y179.527481 Z-0.125000
G01 X95.309642 Y186.975858 Z-0.125000
G01 X122.259125 Y181.193016 Z-0.125000
G01 X141.264259 Y183.354521 Z-0.125000
G01 X156.252677 Y189.532743 Z-0.125000
G00 Z3.000000

(End cutting path id: path202)


(Start cutting path id: path200)
(Change tool to Default tool)

G00 Z3.000000
G00 X11.506329 Y187.170943

G00 Z4.875000 (Fast pre-penetrate)
G01 Z-0.125000 F400.0(Penetrate)
G01 X28.910266 Y190.933647 Z-0.125000 F800.000000
G01 X51.485445 Y189.525107 Z-0.125000
G01 X81.070897 Y181.106296 Z-0.125000
G01 X95.322895 Y188.020937 Z-0.125000
G01 X121.848500 Y182.661972 Z-0.125000
G01 X141.183276 Y184.493837 Z-0.125000
G01 X156.067512 Y190.776241 Z-0.125000
G00 Z3.000000

(End cutting path id: path200)


(Start cutting path id: path198)
(Change tool to Default tool)

G00 Z3.000000
G00 X11.312998 Y188.422606

G00 Z4.875000 (Fast pre-penetrate)
G01 Z-0.125000 F400.0(Penetrate)
G01 X28.956216 Y191.946029 Z-0.125000 F800.000000
G01 X51.296702 Y190.772182 Z-0.125000
G01 X80.550412 Y182.685113 Z-0.125000
G01 X95.336146 Y189.066019 Z-0.125000
G01 X121.437878 Y184.130927 Z-0.125000
G01 X141.102290 Y185.633155 Z-0.125000
G01 X155.882346 Y192.019739 Z-0.125000
G00 Z3.000000

(End cutting path id: path198)


(Start cutting path id: path196)
(Change tool to Default tool)

G00 Z3.000000
G00 X11.119666 Y189.674271

G00 Z4.875000 (Fast pre-penetrate)
G01 Z-0.125000 F400.0(Penetrate)
G01 X29.002166 Y192.958410 Z-0.125000 F800.000000
G01 X51.107959 Y192.019257 Z-0.125000
G01 X80.029929 Y184.263927 Z-0.125000
G01 X95.349399 Y190.111098 Z-0.125000
G01 X121.027253 Y185.599884 Z-0.125000
G01 X141.021306 Y186.772470 Z-0.125000
G01 X155.697183 Y193.263234 Z-0.125000
G00 Z3.000000

(End cutting path id: path196)


(Start cutting path id: path194)
(Change tool to Default tool)

G00 Z3.000000
G00 X10.926334 Y190.925934

G00 Z4.875000 (Fast pre-penetrate)
G01 Z-0.125000 F400.0(Penetrate)
G01 X29.048116 Y193.970792 Z-0.125000 F800.000000
G01 X50.919214 Y193.266335 Z-0.125000
G01 X79.509447 Y185.842742 Z-0.125000
G01 X95.362652 Y191.156177 Z-0.125000
G01 X120.616628 Y187.068840 Z-0.125000
G01 X140.940322 Y187.911786 Z-0.125000
G01 X155.512017 Y194.506732 Z-0.125000
G00 Z3.000000

(End cutting path id: path194)


(Start cutting path id: path192)
(Change tool to Default tool)

G00 Z3.000000
G00 X10.733003 Y192.177597

G00 Z4.875000 (Fast pre-penetrate)
G01 Z-0.125000 F400.0(Penetrate)
G01 X29.094069 Y194.983171 Z-0.125000 F800.000000
G01 X50.730471 Y194.513410 Z-0.125000
G01 X78.988964 Y187.421556 Z-0.125000
G01 X95.375902 Y192.201259 Z-0.125000
G01 X120.206003 Y188.537797 Z-0.125000
G01 X140.859339 Y189.051102 Z-0.125000
G01 X155.326851 Y195.750229 Z-0.125000
G00 Z3.000000

(End cutting path id: path192)


(Start cutting path id: path190)
(Change tool to Default tool)

G00 Z3.000000
G00 X10.539671 Y193.429262

G00 Z4.875000 (Fast pre-penetrate)
G01 Z-0.125000 F400.0(Penetrate)
G01 X29.140019 Y195.995553 Z-0.125000 F800.000000
G01 X50.541728 Y195.760485 Z-0.125000
G01 X78.468482 Y189.000370 Z-0.125000
G01 X95.389155 Y193.246338 Z-0.125000
G01 X119.795381 Y190.006752 Z-0.125000
G01 X140.778355 Y190.190417 Z-0.125000
G01 X155.141688 Y196.993724 Z-0.125000
G00 Z3.000000

(End cutting path id: path190)


(Start cutting path id: path188)
(Change tool to Default tool)

G00 Z3.000000
G00 X10.346340 Y194.680925

G00 Z4.875000 (Fast pre-penetrate)
G01 Z-0.125000 F400.0(Penetrate)
G01 X29.185969 Y197.007935 Z-0.125000 F800.000000
G01 X50.352985 Y197.007671 Z-0.125000
G01 X77.948000 Y190.579296 Z-0.125000
G01 X95.402408 Y194.291528 Z-0.125000
G01 X119.384756 Y191.475820 Z-0.125000
G01 X140.697372 Y191.329844 Z-0.125000
G01 X154.956522 Y198.237333 Z-0.125000
G00 Z3.000000

(End cutting path id: path188)


(Start cutting path id: path186)
(Change tool to Default tool)

G00 Z3.000000
G00 X10.153008 Y195.932588

G00 Z4.875000 (Fast pre-penetrate)
G01 Z-0.125000 F400.0(Penetrate)
G01 X29.231919 Y198.020317 Z-0.125000 F800.000000
G01 X50.164242 Y198.254634 Z-0.125000
G01 X77.427515 Y192.158002 Z-0.125000
G01 X95.415658 Y195.336498 Z-0.125000
G01 X118.974131 Y192.944665 Z-0.125000
G01 X140.616386 Y192.469051 Z-0.125000
G01 X154.771356 Y199.480720 Z-0.125000
G00 Z3.000000

(End cutting path id: path186)


(Start cutting path id: path184)
(Change tool to Default tool)

G00 Z3.000000
G00 X9.959676 Y197.184253

G00 Z4.875000 (Fast pre-penetrate)
G01 Z-0.125000 F400.0(Penetrate)
G01 X29.277872 Y199.032696 Z-0.125000 F800.000000
G01 X49.975499 Y199.501709 Z-0.125000
G01 X76.907032 Y193.736816 Z-0.125000
G01 X95.428911 Y196.381577 Z-0.125000
G01 X118.563509 Y194.413620 Z-0.125000
G01 X140.535402 Y193.608366 Z-0.125000
G01 X154.586193 Y200.724215 Z-0.125000
G00 Z3.000000

(End cutting path id: path184)


(Start cutting path id: path182)
(Change tool to Default tool)

G00 Z3.000000
G00 X9.766345 Y198.435916

G00 Z4.875000 (Fast pre-penetrate)
G01 Z-0.125000 F400.0(Penetrate)
G01 X29.323822 Y200.045078 Z-0.125000 F800.000000
G01 X49.786756 Y200.748784 Z-0.125000
G01 X76.386550 Y195.315631 Z-0.125000
G01 X95.442164 Y197.426656 Z-0.125000
G01 X118.152884 Y195.882576 Z-0.125000
G01 X140.454418 Y194.747682 Z-0.125000
G01 X154.401028 Y201.967713 Z-0.125000
G00 Z3.000000

(End cutting path id: path182)


(Start cutting path id: path174)
(Change tool to Default tool)

G00 Z3.000000
G00 X9.669743 Y202.765846

G00 Z4.875000 (Fast pre-penetrate)
G01 Z-0.125000 F400.0(Penetrate)
G01 X29.634239 Y203.967989 Z-0.125000 F800.000000
G01 X49.415059 Y205.353809 Z-0.125000
G01 X74.770805 Y201.164704 Z-0.125000
G01 X95.321916 Y201.780232 Z-0.125000
G01 X117.337384 Y200.931405 Z-0.125000
G01 X140.360732 Y199.074696 Z-0.125000
G01 X154.282664 Y206.319405 Z-0.125000
G00 Z3.000000

(End cutting path id: path174)


(Start cutting path id: path180)
(Change tool to Default tool)

G00 Z3.000000
G00 X9.573013 Y199.687579

G00 Z4.875000 (Fast pre-penetrate)
G01 Z-0.125000 F400.0(Penetrate)
G01 X29.369772 Y201.057460 Z-0.125000 F800.000000
G01 X49.598013 Y201.995859 Z-0.125000
G01 X75.866067 Y196.894445 Z-0.125000
G01 X95.455417 Y198.471735 Z-0.125000
G01 X117.742259 Y197.351533 Z-0.125000
G01 X140.373435 Y195.886998 Z-0.125000
G01 X154.215862 Y203.211211 Z-0.125000
G00 Z3.000000

(End cutting path id: path180)


(Start cutting path id: path178)
(Change tool to Default tool)

G00 Z3.000000
G00 X9.379681 Y200.939242

G00 Z4.875000 (Fast pre-penetrate)
G01 Z-0.125000 F400.0(Penetrate)
G01 X29.415723 Y202.069842 Z-0.125000 F800.000000
G01 X49.409270 Y203.242934 Z-0.125000
G01 X75.345585 Y198.473259 Z-0.125000
G01 X95.468667 Y199.516817 Z-0.125000
G01 X117.331634 Y198.820490 Z-0.125000
G01 X140.292451 Y197.026313 Z-0.125000
G01 X154.030699 Y204.454706 Z-0.125000
G00 Z3.000000

(End cutting path id: path178)


(Start cutting path id: path176)
(Change tool to Default tool)

G00 Z3.000000
G00 X9.186350 Y202.190907

G00 Z4.875000 (Fast pre-penetrate)
G01 Z-0.125000 F400.0(Penetrate)
G01 X29.461673 Y203.082224 Z-0.125000 F800.000000
G01 X49.220527 Y204.490009 Z-0.125000
G01 X74.825100 Y200.052076 Z-0.125000
G01 X95.481920 Y200.561896 Z-0.125000
G01 X116.921012 Y200.289444 Z-0.125000
G01 X140.211465 Y198.165631 Z-0.125000
G01 X153.845533 Y205.698204 Z-0.125000
G00 Z3.000000

(End cutting path id: path176)


(Start cutting path id: path268)
(Change tool to Default tool)

G00 Z3.000000
G00 X16.812229 Y145.881755

G00 Z4.875000 (Fast pre-penetrate)
G01 Z-0.125000 F400.0(Penetrate)
G01 X32.151140 Y151.709484 Z-0.125000 F800.000000
G01 X60.460029 Y144.567235 Z-0.125000
G01 X74.068252 Y152.125652 Z-0.125000
G01 X95.958950 Y151.401594 Z-0.125000
G01 X122.485648 Y146.041537 Z-0.125000
G01 X137.328190 Y152.365634 Z-0.125000
G01 X160.449628 Y150.410837 Z-0.125000
G00 Z3.000000

(End cutting path id: path268)


(Start cutting path id: path270)
(Change tool to Default tool)

G00 Z3.000000
G00 X16.578394 Y145.057259

G00 Z4.875000 (Fast pre-penetrate)
G01 Z-0.125000 F400.0(Penetrate)
G01 X31.912751 Y150.889541 Z-0.125000 F800.000000
G01 X59.945889 Y144.023044 Z-0.125000
G01 X74.240245 Y150.895328 Z-0.125000
G01 X96.249955 Y150.052258 Z-0.125000
G01 X122.640627 Y144.828225 Z-0.125000
G01 X137.460241 Y151.175251 Z-0.125000
G01 X160.386533 Y149.415600 Z-0.125000
G00 Z3.000000

(End cutting path id: path270)


(Start cutting path id: path272)
(Change tool to Default tool)

G00 Z3.000000
G00 X16.344558 Y144.232763

G00 Z4.875000 (Fast pre-penetrate)
G01 Z-0.125000 F400.0(Penetrate)
G01 X31.674359 Y150.069601 Z-0.125000 F800.000000
G01 X59.431751 Y143.478849 Z-0.125000
G01 X74.412234 Y149.665006 Z-0.125000
G01 X96.540959 Y148.702922 Z-0.125000
G01 X122.795604 Y143.614917 Z-0.125000
G01 X137.592294 Y149.984866 Z-0.125000
G01 X160.323438 Y148.420363 Z-0.125000
G00 Z3.000000

(End cutting path id: path272)


(Start cutting path id: path274)
(Change tool to Default tool)

G00 Z3.000000
G00 X16.110725 Y143.408264

G00 Z4.875000 (Fast pre-penetrate)
G01 Z-0.125000 F400.0(Penetrate)
G01 X31.435967 Y149.249661 Z-0.125000 F800.000000
G01 X58.917611 Y142.934658 Z-0.125000
G01 X74.584224 Y148.434685 Z-0.125000
G01 X96.831963 Y147.353585 Z-0.125000
G01 X122.950583 Y142.401605 Z-0.125000
G01 X137.724345 Y148.794483 Z-0.125000
G01 X160.260340 Y147.425129 Z-0.125000
G00 Z3.000000

(End cutting path id: path274)


(Start cutting path id: path276)
(Change tool to Default tool)

G00 Z3.000000
G00 X15.876888 Y142.583768

G00 Z4.875000 (Fast pre-penetrate)
G01 Z-0.125000 F400.0(Penetrate)
G01 X31.197575 Y148.429721 Z-0.125000 F800.000000
G01 X58.403473 Y142.390463 Z-0.125000
G01 X74.756216 Y147.204361 Z-0.125000
G01 X97.122967 Y146.004249 Z-0.125000
G01 X123.105563 Y141.188294 Z-0.125000
G01 X137.856399 Y147.604098 Z-0.125000
G01 X160.197245 Y146.429892 Z-0.125000
G00 Z3.000000

(End cutting path id: path276)


(Start cutting path id: path278)
(Change tool to Default tool)

G00 Z3.000000
G00 X15.643053 Y141.759272

G00 Z4.875000 (Fast pre-penetrate)
G01 Z-0.125000 F400.0(Penetrate)
G01 X30.959186 Y147.609778 Z-0.125000 F800.000000
G01 X57.889335 Y141.846269 Z-0.125000
G01 X74.928205 Y145.974039 Z-0.125000
G01 X97.413974 Y144.654910 Z-0.125000
G01 X123.260540 Y139.974985 Z-0.125000
G01 X137.988449 Y146.413715 Z-0.125000
G01 X160.134150 Y145.434655 Z-0.125000
G00 Z3.000000

(End cutting path id: path278)


(Start cutting path id: path280)
(Change tool to Default tool)

G00 Z3.000000
G00 X15.409218 Y140.934775

G00 Z4.875000 (Fast pre-penetrate)
G01 Z-0.125000 F400.0(Penetrate)
G01 X30.720794 Y146.789838 Z-0.125000 F800.000000
G01 X57.375195 Y141.302077 Z-0.125000
G01 X75.100195 Y144.743718 Z-0.125000
G01 X97.704978 Y143.305574 Z-0.125000
G01 X123.415519 Y138.761673 Z-0.125000
G01 X138.120503 Y145.223330 Z-0.125000
G01 X160.071052 Y144.439421 Z-0.125000
G00 Z3.000000

(End cutting path id: path280)


(Start cutting path id: path282)
(Change tool to Default tool)

G00 Z3.000000
G00 X15.175383 Y140.110277

G00 Z4.875000 (Fast pre-penetrate)
G01 Z-0.125000 F400.0(Penetrate)
G01 X30.482402 Y145.969898 Z-0.125000 F800.000000
G01 X56.861057 Y140.757883 Z-0.125000
G01 X75.272187 Y143.513393 Z-0.125000
G01 X97.995983 Y141.956238 Z-0.125000
G01 X123.570499 Y137.548362 Z-0.125000
G01 X138.252553 Y144.032947 Z-0.125000
G01 X160.007957 Y143.444184 Z-0.125000
G00 Z3.000000

(End cutting path id: path282)


(Start cutting path id: path284)
(Change tool to Default tool)

G00 Z3.000000
G00 X14.941548 Y139.285780

G00 Z4.875000 (Fast pre-penetrate)
G01 Z-0.125000 F400.0(Penetrate)
G01 X30.244013 Y145.149956 Z-0.125000 F800.000000
G01 X56.346920 Y140.213689 Z-0.125000
G01 X75.444177 Y142.283072 Z-0.125000
G01 X98.286987 Y140.606901 Z-0.125000
G01 X123.725476 Y136.335053 Z-0.125000
G01 X138.384607 Y142.842562 Z-0.125000
G01 X159.944862 Y142.448947 Z-0.125000
G00 Z3.000000

(End cutting path id: path284)


(Start cutting path id: path286)
(Change tool to Default tool)

G00 Z3.000000
G00 X14.707713 Y138.461284

G00 Z4.875000 (Fast pre-penetrate)
G01 Z-0.125000 F400.0(Penetrate)
G01 X30.005621 Y144.330016 Z-0.125000 F800.000000
G01 X55.832779 Y139.669497 Z-0.125000
G01 X75.616166 Y141.052750 Z-0.125000
G01 X98.577991 Y139.257565 Z-0.125000
G01 X123.880455 Y135.121741 Z-0.125000
G01 X138.516658 Y141.652179 Z-0.125000
G01 X159.881764 Y141.453713 Z-0.125000
G00 Z3.000000

(End cutting path id: path286)


(Start cutting path id: path288)
(Change tool to Default tool)

G00 Z3.000000
G00 X14.473878 Y137.636788

G00 Z4.875000 (Fast pre-penetrate)
G01 Z-0.125000 F400.0(Penetrate)
G01 X29.767229 Y143.510075 Z-0.125000 F800.000000
G01 X55.318642 Y139.125303 Z-0.125000
G01 X75.788158 Y139.822426 Z-0.125000
G01 X98.868996 Y137.908229 Z-0.125000
G01 X124.035432 Y133.908433 Z-0.125000
G01 X138.648711 Y140.461794 Z-0.125000
G01 X159.818669 Y140.458486 Z-0.125000
G00 Z3.000000

(End cutting path id: path288)


(Start cutting path id: path290)
(Change tool to Default tool)

G00 Z3.000000
G00 X14.240042 Y136.812289

G00 Z4.875000 (Fast pre-penetrate)
G01 Z-0.125000 F400.0(Penetrate)
G01 X29.528837 Y142.690135 Z-0.125000 F800.000000
G01 X54.804501 Y138.581111 Z-0.125000
G01 X75.960148 Y138.592118 Z-0.125000
G01 X99.160000 Y136.558906 Z-0.125000
G01 X124.190411 Y132.695134 Z-0.125000
G01 X138.780762 Y139.271424 Z-0.125000
G01 X159.755571 Y139.463255 Z-0.125000
G00 Z3.000000

(End cutting path id: path290)


(Start cutting path id: path292)
(Change tool to Default tool)

G00 Z3.000000
G00 X14.006207 Y135.987793

G00 Z4.875000 (Fast pre-penetrate)
G01 Z-0.125000 F400.0(Penetrate)
G01 X29.290448 Y141.870193 Z-0.125000 F800.000000
G01 X54.290364 Y138.036917 Z-0.125000
G01 X76.132137 Y137.361783 Z-0.125000
G01 X99.451004 Y135.209556 Z-0.125000
G01 X124.345391 Y131.481810 Z-0.125000
G01 X138.912815 Y138.081025 Z-0.125000
G01 X159.692476 Y138.468005 Z-0.125000
G00 Z3.000000

(End cutting path id: path292)


(Start cutting path id: path294)
(Change tool to Default tool)

G00 Z3.000000
G00 X13.772372 Y135.163297

G00 Z4.875000 (Fast pre-penetrate)
G01 Z-0.125000 F400.0(Penetrate)
G01 X29.052056 Y141.050253 Z-0.125000 F800.000000
G01 X53.776226 Y137.492723 Z-0.125000
G01 X76.304130 Y136.131459 Z-0.125000
G01 X99.742008 Y133.860220 Z-0.125000
G01 X124.500368 Y130.268501 Z-0.125000
G01 X139.044866 Y136.890643 Z-0.125000
G01 X159.629381 Y137.472768 Z-0.125000
G00 Z3.000000

(End cutting path id: path294)


(Start cutting path id: path304)
(Change tool to Default tool)

G00 Z3.000000
G00 X13.774564 Y129.869446

G00 Z4.875000 (Fast pre-penetrate)
G01 Z-0.125000 F400.0(Penetrate)
G01 X30.033484 Y134.777164 Z-0.125000 F800.000000
G01 X54.172664 Y131.804625 Z-0.125000
G01 X77.017477 Y130.126451 Z-0.125000
G01 X98.357477 Y129.953091 Z-0.125000
G01 X122.340352 Y127.136857 Z-0.125000
G01 X139.038825 Y131.605023 Z-0.125000
G01 X160.500711 Y131.309778 Z-0.125000
G00 Z3.000000

(End cutting path id: path304)


(Start cutting path id: path316)
(Change tool to Default tool)

G00 Z3.000000
G00 X14.128603 Y123.165413

G00 Z4.875000 (Fast pre-penetrate)
G01 Z-0.125000 F400.0(Penetrate)
G01 X31.863216 Y126.597441 Z-0.125000 F800.000000
G01 X55.538529 Y124.088768 Z-0.125000
G01 X77.829517 Y122.964420 Z-0.125000
G01 X95.844169 Y126.116408 Z-0.125000
G01 X118.867856 Y124.259360 Z-0.125000
G01 X138.831686 Y125.462171 Z-0.125000
G01 X161.902353 Y123.558144 Z-0.125000
G00 Z3.000000

(End cutting path id: path316)


(Start cutting path id: path322)
(Change tool to Default tool)

G00 Z3.000000
G00 X14.305623 Y119.813398

G00 Z4.875000 (Fast pre-penetrate)
G01 Z-0.125000 F400.0(Penetrate)
G01 X32.778080 Y122.507580 Z-0.125000 F800.000000
G01 X56.221460 Y120.230841 Z-0.125000
G01 X78.235535 Y119.383405 Z-0.125000
G01 X94.587516 Y124.198064 Z-0.125000
G01 X117.131610 Y122.820611 Z-0.125000
G01 X138.728115 Y122.390746 Z-0.125000
G01 X162.603172 Y119.682328 Z-0.125000
G00 Z3.000000

(End cutting path id: path322)


(Start cutting path id: path320)
(Change tool to Default tool)

G00 Z3.000000
G00 X14.246617 Y120.930737

G00 Z4.875000 (Fast pre-penetrate)
G01 Z-0.125000 F400.0(Penetrate)
G01 X32.473125 Y123.870868 Z-0.125000 F800.000000
G01 X55.993815 Y121.516817 Z-0.125000
G01 X78.100196 Y120.577077 Z-0.125000
G01 X95.006401 Y124.837511 Z-0.125000
G01 X117.710358 Y123.300194 Z-0.125000
G01 X138.762638 Y123.414555 Z-0.125000
G01 X162.369566 Y120.974266 Z-0.125000
G00 Z3.000000

(End cutting path id: path320)


(Start cutting path id: path318)
(Change tool to Default tool)

G00 Z3.000000
G00 X14.187610 Y122.048074

G00 Z4.875000 (Fast pre-penetrate)
G01 Z-0.125000 F400.0(Penetrate)
G01 X32.168169 Y125.234156 Z-0.125000 F800.000000
G01 X55.766173 Y122.802791 Z-0.125000
G01 X77.964856 Y121.770748 Z-0.125000
G01 X95.425284 Y125.476961 Z-0.125000
G01 X118.289107 Y123.779777 Z-0.125000
G01 X138.797163 Y124.438361 Z-0.125000
G01 X162.135958 Y122.266206 Z-0.125000
G00 Z3.000000

(End cutting path id: path318)


(Start cutting path id: path314)
(Change tool to Default tool)

G00 Z3.000000
G00 X14.069597 Y124.282752

G00 Z4.875000 (Fast pre-penetrate)
G01 Z-0.125000 F400.0(Penetrate)
G01 X31.558260 Y127.960728 Z-0.125000 F800.000000
G01 X55.310884 Y125.374744 Z-0.125000
G01 X77.694177 Y124.158091 Z-0.125000
G01 X96.263054 Y126.755854 Z-0.125000
G01 X119.446605 Y124.738944 Z-0.125000
G01 X138.866209 Y126.485980 Z-0.125000
G01 X161.668747 Y124.850082 Z-0.125000
G00 Z3.000000

(End cutting path id: path314)


(Start cutting path id: path312)
(Change tool to Default tool)

G00 Z3.000000
G00 X14.010590 Y125.400091

G00 Z4.875000 (Fast pre-penetrate)
G01 Z-0.125000 F400.0(Penetrate)
G01 X31.253304 Y129.324016 Z-0.125000 F800.000000
G01 X55.083240 Y126.660721 Z-0.125000
G01 X77.558838 Y125.351763 Z-0.125000
G01 X96.681939 Y127.395301 Z-0.125000
G01 X120.025354 Y125.218527 Z-0.125000
G01 X138.900732 Y127.509789 Z-0.125000
G01 X161.435139 Y126.142022 Z-0.125000
G00 Z3.000000

(End cutting path id: path312)


(Start cutting path id: path310)
(Change tool to Default tool)

G00 Z3.000000
G00 X13.951583 Y126.517428

G00 Z4.875000 (Fast pre-penetrate)
G01 Z-0.125000 F400.0(Penetrate)
G01 X30.948349 Y130.687304 Z-0.125000 F800.000000
G01 X54.855595 Y127.946698 Z-0.125000
G01 X77.423498 Y126.545434 Z-0.125000
G01 X97.100822 Y128.034751 Z-0.125000
G01 X120.604103 Y125.698110 Z-0.125000
G01 X138.935254 Y128.533598 Z-0.125000
G01 X161.201533 Y127.433959 Z-0.125000
G00 Z3.000000

(End cutting path id: path310)


(Start cutting path id: path308)
(Change tool to Default tool)

G00 Z3.000000
G00 X13.892577 Y127.634767

G00 Z4.875000 (Fast pre-penetrate)
G01 Z-0.125000 F400.0(Penetrate)
G01 X30.643396 Y132.050589 Z-0.125000 F800.000000
G01 X54.627950 Y129.232674 Z-0.125000
G01 X77.288156 Y127.739108 Z-0.125000
G01 X97.519707 Y128.674198 Z-0.125000
G01 X121.182854 Y126.177690 Z-0.125000
G01 X138.969780 Y129.557405 Z-0.125000
G01 X160.967925 Y128.725900 Z-0.125000
G00 Z3.000000

(End cutting path id: path308)


(Start cutting path id: path306)
(Change tool to Default tool)

G00 Z3.000000
G00 X13.833570 Y128.752107

G00 Z4.875000 (Fast pre-penetrate)
G01 Z-0.125000 F400.0(Penetrate)
G01 X30.338440 Y133.413877 Z-0.125000 F800.000000
G01 X54.400308 Y130.518648 Z-0.125000
G01 X77.152817 Y128.932780 Z-0.125000
G01 X97.938592 Y129.313644 Z-0.125000
G01 X121.761603 Y126.657273 Z-0.125000
G01 X139.004303 Y130.581214 Z-0.125000
G01 X160.734319 Y130.017837 Z-0.125000
G00 Z3.000000

(End cutting path id: path306)


(Start cutting path id: path302)
(Change tool to Default tool)

G00 Z3.000000
G00 X13.715557 Y130.986783

G00 Z4.875000 (Fast pre-penetrate)
G01 Z-0.125000 F400.0(Penetrate)
G01 X29.728528 Y136.140452 Z-0.125000 F800.000000
G01 X53.945019 Y133.090601 Z-0.125000
G01 X76.882138 Y131.320123 Z-0.125000
G01 X98.776360 Y130.592541 Z-0.125000
G01 X122.919101 Y127.616440 Z-0.125000
G01 X139.073348 Y132.628832 Z-0.125000
G01 X160.267105 Y132.601715 Z-0.125000
G00 Z3.000000

(End cutting path id: path302)


(Start cutting path id: path300)
(Change tool to Default tool)

G00 Z3.000000
G00 X13.656550 Y132.104122

G00 Z4.875000 (Fast pre-penetrate)
G01 Z-0.125000 F400.0(Penetrate)
G01 X29.423575 Y137.503737 Z-0.125000 F800.000000
G01 X53.717375 Y134.376578 Z-0.125000
G01 X76.746798 Y132.513794 Z-0.125000
G01 X99.195245 Y131.231988 Z-0.125000
G01 X123.497850 Y128.096023 Z-0.125000
G01 X139.107871 Y133.652642 Z-0.125000
G01 X160.033497 Y133.893656 Z-0.125000
G00 Z3.000000

(End cutting path id: path300)


(Start cutting path id: path298)
(Change tool to Default tool)

G00 Z3.000000
G00 X13.597543 Y133.221461

G00 Z4.875000 (Fast pre-penetrate)
G01 Z-0.125000 F400.0(Penetrate)
G01 X29.118620 Y138.867025 Z-0.125000 F800.000000
G01 X53.489730 Y135.662554 Z-0.125000
G01 X76.611459 Y133.707466 Z-0.125000
G01 X99.614130 Y131.871434 Z-0.125000
G01 X124.076598 Y128.575606 Z-0.125000
G01 X139.142396 Y134.676448 Z-0.125000
G01 X159.799891 Y135.185593 Z-0.125000
G00 Z3.000000

(End cutting path id: path298)


(Start cutting path id: path296)
(Change tool to Default tool)

G00 Z3.000000
G00 X13.538537 Y134.338801

G00 Z4.875000 (Fast pre-penetrate)
G01 Z-0.125000 F400.0(Penetrate)
G01 X28.813664 Y140.230313 Z-0.125000 F800.000000
G01 X53.262086 Y136.948531 Z-0.125000
G01 X76.476119 Y134.901137 Z-0.125000
G01 X100.033015 Y132.510881 Z-0.125000
G01 X124.655347 Y129.055189 Z-0.125000
G01 X139.176919 Y135.700257 Z-0.125000
G01 X159.566283 Y136.477533 Z-0.125000
G00 Z3.000000

(End cutting path id: path296)


(Start cutting path id: path340)
(Change tool to Default tool)

G00 Z3.000000
G00 X14.372147 Y110.221885

G00 Z4.875000 (Fast pre-penetrate)
G01 Z-0.125000 F400.0(Penetrate)
G01 X34.468792 Y111.291880 Z-0.125000 F800.000000
G01 X58.200853 Y108.726460 Z-0.125000
G01 X78.603853 Y109.490099 Z-0.125000
G01 X93.026397 Y116.234196 Z-0.125000
G01 X113.735158 Y116.692075 Z-0.125000
G01 X139.037569 Y112.556304 Z-0.125000
G01 X163.606399 Y109.154113 Z-0.125000
G00 Z3.000000

(End cutting path id: path340)


(Start cutting path id: path342)
(Change tool to Default tool)

G00 Z3.000000
G00 X14.198886 Y109.336816

G00 Z4.875000 (Fast pre-penetrate)
G01 Z-0.125000 F400.0(Penetrate)
G01 X34.246804 Y110.455536 Z-0.125000 F800.000000
G01 X58.393795 Y107.475186 Z-0.125000
G01 X78.314323 Y108.721298 Z-0.125000
G01 X93.711934 Y114.490326 Z-0.125000
G01 X114.062553 Y115.306348 Z-0.125000
G01 X139.313129 Y111.222411 Z-0.125000
G01 X163.290389 Y108.411791 Z-0.125000
G00 Z3.000000

(End cutting path id: path342)


(Start cutting path id: path344)
(Change tool to Default tool)

G00 Z3.000000
G00 X14.025624 Y108.451743

G00 Z4.875000 (Fast pre-penetrate)
G01 Z-0.125000 F400.0(Penetrate)
G01 X34.024819 Y109.619189 Z-0.125000 F800.000000
G01 X58.586736 Y106.223912 Z-0.125000
G01 X78.024795 Y107.952494 Z-0.125000
G01 X94.397471 Y112.746457 Z-0.125000
G01 X114.389948 Y113.920621 Z-0.125000
G01 X139.588687 Y109.888521 Z-0.125000
G01 X162.974377 Y107.669472 Z-0.125000
G00 Z3.000000

(End cutting path id: path344)


(Start cutting path id: path346)
(Change tool to Default tool)

G00 Z3.000000
G00 X13.852363 Y107.566673

G00 Z4.875000 (Fast pre-penetrate)
G01 Z-0.125000 F400.0(Penetrate)
G01 X33.802831 Y108.782845 Z-0.125000 F800.000000
G01 X58.779678 Y104.972638 Z-0.125000
G01 X77.735264 Y107.183692 Z-0.125000
G01 X95.083009 Y111.002588 Z-0.125000
G01 X114.717343 Y112.534894 Z-0.125000
G01 X139.864245 Y108.554632 Z-0.125000
G01 X162.658367 Y106.927150 Z-0.125000
G00 Z3.000000

(End cutting path id: path346)


(Start cutting path id: path348)
(Change tool to Default tool)

G00 Z3.000000
G00 X13.679101 Y106.681604

G00 Z4.875000 (Fast pre-penetrate)
G01 Z-0.125000 F400.0(Penetrate)
G01 X33.580846 Y107.946498 Z-0.125000 F800.000000
G01 X58.972620 Y103.721364 Z-0.125000
G01 X77.445734 Y106.414891 Z-0.125000
G01 X95.768546 Y109.258719 Z-0.125000
G01 X115.044738 Y111.149167 Z-0.125000
G01 X140.139805 Y107.220739 Z-0.125000
G01 X162.342357 Y106.184828 Z-0.125000
G00 Z3.000000

(End cutting path id: path348)


(Start cutting path id: path350)
(Change tool to Default tool)

G00 Z3.000000
G00 X13.505840 Y105.796534

G00 Z4.875000 (Fast pre-penetrate)
G01 Z-0.125000 F400.0(Penetrate)
G01 X33.358859 Y107.110154 Z-0.125000 F800.000000
G01 X59.165562 Y102.470090 Z-0.125000
G01 X77.156206 Y105.646087 Z-0.125000
G01 X96.454083 Y107.514850 Z-0.125000
G01 X115.372133 Y109.763440 Z-0.125000
G01 X140.415363 Y105.886849 Z-0.125000
G01 X162.026344 Y105.442508 Z-0.125000
G00 Z3.000000

(End cutting path id: path350)


(Start cutting path id: path352)
(Change tool to Default tool)

G00 Z3.000000
G00 X13.332579 Y104.911461

G00 Z4.875000 (Fast pre-penetrate)
G01 Z-0.125000 F400.0(Penetrate)
G01 X33.136873 Y106.273807 Z-0.125000 F800.000000
G01 X59.358504 Y101.218817 Z-0.125000
G01 X76.866675 Y104.877285 Z-0.125000
G01 X97.139620 Y105.770980 Z-0.125000
G01 X115.699528 Y108.377713 Z-0.125000
G01 X140.690921 Y104.552959 Z-0.125000
G01 X161.710334 Y104.700186 Z-0.125000
G00 Z3.000000

(End cutting path id: path352)


(Start cutting path id: path354)
(Change tool to Default tool)

G00 Z3.000000
G00 X13.159317 Y104.026391

G00 Z4.875000 (Fast pre-penetrate)
G01 Z-0.125000 F400.0(Penetrate)
G01 X32.914886 Y105.437463 Z-0.125000 F800.000000
G01 X59.551446 Y99.967543 Z-0.125000
G01 X76.577145 Y104.108484 Z-0.125000
G01 X97.825157 Y104.027111 Z-0.125000
G01 X116.026923 Y106.991986 Z-0.125000
G01 X140.966482 Y103.219067 Z-0.125000
G01 X161.394324 Y103.957864 Z-0.125000
G00 Z3.000000

(End cutting path id: path354)


(Start cutting path id: path356)
(Change tool to Default tool)

G00 Z3.000000
G00 X12.986056 Y103.141322

G00 Z4.875000 (Fast pre-penetrate)
G01 Z-0.125000 F400.0(Penetrate)
G01 X32.692901 Y104.601116 Z-0.125000 F800.000000
G01 X59.744388 Y98.716269 Z-0.125000
G01 X76.287617 Y103.339679 Z-0.125000
G01 X98.510692 Y102.283245 Z-0.125000
G01 X116.354318 Y105.606259 Z-0.125000
G01 X141.242040 Y101.885177 Z-0.125000
G01 X161.078314 Y103.215542 Z-0.125000
G00 Z3.000000

(End cutting path id: path356)


(Start cutting path id: path358)
(Change tool to Default tool)

G00 Z3.000000
G00 X12.812794 Y102.256249

G00 Z4.875000 (Fast pre-penetrate)
G01 Z-0.125000 F400.0(Penetrate)
G01 X32.470913 Y103.764772 Z-0.125000 F800.000000
G01 X59.937330 Y97.464995 Z-0.125000
G01 X75.998086 Y102.570878 Z-0.125000
G01 X99.196229 Y100.539375 Z-0.125000
G01 X116.681713 Y104.220532 Z-0.125000
G01 X141.517600 Y100.551284 Z-0.125000
G01 X160.762301 Y102.473223 Z-0.125000
G00 Z3.000000

(End cutting path id: path358)


(Start cutting path id: path360)
(Change tool to Default tool)

G00 Z3.000000
G00 X12.639533 Y101.371179

G00 Z4.875000 (Fast pre-penetrate)
G01 Z-0.125000 F400.0(Penetrate)
G01 X32.248928 Y102.928425 Z-0.125000 F800.000000
G01 X60.130271 Y96.213721 Z-0.125000
G01 X75.708556 Y101.802077 Z-0.125000
G01 X99.881766 Y98.795506 Z-0.125000
G01 X117.009108 Y102.834805 Z-0.125000
G01 X141.793158 Y99.217394 Z-0.125000
G01 X160.446291 Y101.730901 Z-0.125000
G00 Z3.000000

(End cutting path id: path360)


(Start cutting path id: path362)
(Change tool to Default tool)

G00 Z3.000000
G00 X12.466272 Y100.486110

G00 Z4.875000 (Fast pre-penetrate)
G01 Z-0.125000 F400.0(Penetrate)
G01 X32.026940 Y102.092081 Z-0.125000 F800.000000
G01 X60.323213 Y94.962447 Z-0.125000
G01 X75.419028 Y101.033272 Z-0.125000
G01 X100.567304 Y97.051637 Z-0.125000
G01 X117.336503 Y101.449078 Z-0.125000
G01 X142.068716 Y97.883504 Z-0.125000
G01 X160.130281 Y100.988579 Z-0.125000
G00 Z3.000000

(End cutting path id: path362)


(Start cutting path id: path364)
(Change tool to Default tool)

G00 Z3.000000
G00 X12.293010 Y99.601037

G00 Z4.875000 (Fast pre-penetrate)
G01 Z-0.125000 F400.0(Penetrate)
G01 X31.804955 Y101.255734 Z-0.125000 F800.000000
G01 X60.516155 Y93.711173 Z-0.125000
G01 X75.129498 Y100.264471 Z-0.125000
G01 X101.252841 Y95.307768 Z-0.125000
G01 X117.663898 Y100.063351 Z-0.125000
G01 X142.344277 Y96.549612 Z-0.125000
G01 X159.814269 Y100.246260 Z-0.125000
G00 Z3.000000

(End cutting path id: path364)


(Start cutting path id: path366)
(Change tool to Default tool)

G00 Z3.000000
G00 X12.119749 Y98.715967

G00 Z4.875000 (Fast pre-penetrate)
G01 Z-0.125000 F400.0(Penetrate)
G01 X31.582967 Y100.419390 Z-0.125000 F800.000000
G01 X60.709097 Y92.459900 Z-0.125000
G01 X74.839967 Y99.495670 Z-0.125000
G01 X101.938378 Y93.563899 Z-0.125000
G01 X117.991293 Y98.677624 Z-0.125000
G01 X142.619835 Y95.215722 Z-0.125000
G01 X159.498259 Y99.503938 Z-0.125000
G00 Z3.000000

(End cutting path id: path366)


(Start cutting path id: path368)
(Change tool to Default tool)

G00 Z3.000000
G00 X11.946487 Y97.830897

G00 Z4.875000 (Fast pre-penetrate)
G01 Z-0.125000 F400.0(Penetrate)
G01 X31.360982 Y99.583043 Z-0.125000 F800.000000
G01 X60.902039 Y91.208626 Z-0.125000
G01 X74.550439 Y98.726865 Z-0.125000
G01 X102.623915 Y91.820029 Z-0.125000
G01 X118.318688 Y97.291897 Z-0.125000
G01 X142.895392 Y93.881832 Z-0.125000
G01 X159.182249 Y98.761616 Z-0.125000
G00 Z3.000000

(End cutting path id: path368)


(Start cutting path id: path370)
(Change tool to Default tool)

G00 Z3.000000
G00 X11.773226 Y96.945828

G00 Z4.875000 (Fast pre-penetrate)
G01 Z-0.125000 F400.0(Penetrate)
G01 X31.138994 Y98.746699 Z-0.125000 F800.000000
G01 X61.094981 Y89.957352 Z-0.125000
G01 X74.260909 Y97.958064 Z-0.125000
G01 X103.309452 Y90.076160 Z-0.125000
G01 X118.646083 Y95.906170 Z-0.125000
G01 X143.170953 Y92.547940 Z-0.125000
G01 X158.866236 Y98.019296 Z-0.125000
G00 Z3.000000

(End cutting path id: path370)


(Start cutting path id: path390)
(Change tool to Default tool)

G00 Z3.000000
G00 X12.324447 Y85.811286

G00 Z4.875000 (Fast pre-penetrate)
G01 Z-0.125000 F400.0(Penetrate)
G01 X32.933314 Y86.369059 Z-0.125000 F800.000000
G01 X59.210851 Y81.258162 Z-0.125000
G01 X75.112054 Y86.523599 Z-0.125000
G01 X103.414338 Y79.387954 Z-0.125000
G01 X121.064784 Y82.904148 Z-0.125000
G01 X142.274533 Y82.861040 Z-0.125000
G01 X158.489221 Y87.812991 Z-0.125000
G00 Z3.000000

(End cutting path id: path390)


(Start cutting path id: path388)
(Change tool to Default tool)

G00 Z3.000000
G00 X12.171446 Y87.022618

G00 Z4.875000 (Fast pre-penetrate)
G01 Z-0.125000 F400.0(Penetrate)
G01 X32.581847 Y87.778857 Z-0.125000 F800.000000
G01 X59.562701 Y81.964643 Z-0.125000
G01 X74.866378 Y87.827607 Z-0.125000
G01 X103.693156 Y80.167469 Z-0.125000
G01 X120.859568 Y84.167696 Z-0.125000
G01 X142.520687 Y83.673217 Z-0.125000
G01 X158.407648 Y88.952897 Z-0.125000
G00 Z3.000000

(End cutting path id: path388)


(Start cutting path id: path386)
(Change tool to Default tool)

G00 Z3.000000
G00 X12.018445 Y88.233951

G00 Z4.875000 (Fast pre-penetrate)
G01 Z-0.125000 F400.0(Penetrate)
G01 X32.230378 Y89.188659 Z-0.125000 F800.000000
G01 X59.914552 Y82.671125 Z-0.125000
G01 X74.620699 Y89.131617 Z-0.125000
G01 X103.971973 Y80.946983 Z-0.125000
G01 X120.654350 Y85.431247 Z-0.125000
G01 X142.766845 Y84.485392 Z-0.125000
G01 X158.326074 Y90.092802 Z-0.125000
G00 Z3.000000

(End cutting path id: path386)


(Start cutting path id: path384)
(Change tool to Default tool)

G00 Z3.000000
G00 X11.865445 Y89.445283

G00 Z4.875000 (Fast pre-penetrate)
G01 Z-0.125000 F400.0(Penetrate)
G01 X31.878908 Y90.598460 Z-0.125000 F800.000000
G01 X60.266402 Y83.377607 Z-0.125000
G01 X74.375023 Y90.435625 Z-0.125000
G01 X104.250791 Y81.726497 Z-0.125000
G01 X120.449134 Y86.694795 Z-0.125000
G01 X143.013002 Y85.297566 Z-0.125000
G01 X158.244500 Y91.232708 Z-0.125000
G00 Z3.000000

(End cutting path id: path384)


(Start cutting path id: path382)
(Change tool to Default tool)

G00 Z3.000000
G00 X11.712444 Y90.656616

G00 Z4.875000 (Fast pre-penetrate)
G01 Z-0.125000 F400.0(Penetrate)
G01 X31.527441 Y92.008259 Z-0.125000 F800.000000
G01 X60.618252 Y84.084088 Z-0.125000
G01 X74.129347 Y91.739633 Z-0.125000
G01 X104.529609 Y82.506012 Z-0.125000
G01 X120.243918 Y87.958343 Z-0.125000
G01 X143.259160 Y86.109741 Z-0.125000
G01 X158.162927 Y92.372614 Z-0.125000
G00 Z3.000000

(End cutting path id: path382)


(Start cutting path id: path380)
(Change tool to Default tool)

G00 Z3.000000
G00 X11.559443 Y91.867951

G00 Z4.875000 (Fast pre-penetrate)
G01 Z-0.125000 F400.0(Penetrate)
G01 X31.175972 Y93.418060 Z-0.125000 F800.000000
G01 X60.970103 Y84.790570 Z-0.125000
G01 X73.883671 Y93.043641 Z-0.125000
G01 X104.808426 Y83.285526 Z-0.125000
G01 X120.038702 Y89.221890 Z-0.125000
G01 X143.505314 Y86.921918 Z-0.125000
G01 X158.081353 Y93.512519 Z-0.125000
G00 Z3.000000

(End cutting path id: path380)


(Start cutting path id: path372)
(Change tool to Default tool)

G00 Z3.000000
G00 X11.599965 Y96.060755

G00 Z4.875000 (Fast pre-penetrate)
G01 Z-0.125000 F400.0(Penetrate)
G01 X30.917009 Y97.910352 Z-0.125000 F800.000000
G01 X61.287923 Y88.706078 Z-0.125000
G01 X73.971378 Y97.189262 Z-0.125000
G01 X103.994987 Y88.332294 Z-0.125000
G01 X118.973478 Y94.520443 Z-0.125000
G01 X143.446511 Y91.214050 Z-0.125000
G01 X158.550226 Y97.276974 Z-0.125000
G00 Z3.000000

(End cutting path id: path372)


(Start cutting path id: path374)
(Change tool to Default tool)

G00 Z3.000000
G00 X11.426703 Y95.175685

G00 Z4.875000 (Fast pre-penetrate)
G01 Z-0.125000 F400.0(Penetrate)
G01 X30.695021 Y97.074007 Z-0.125000 F800.000000
G01 X61.480864 Y87.454804 Z-0.125000
G01 X73.681848 Y96.420461 Z-0.125000
G01 X104.680524 Y86.588424 Z-0.125000
G01 X119.300875 Y93.134713 Z-0.125000
G01 X143.722069 Y89.880160 Z-0.125000
G01 X158.234216 Y96.534652 Z-0.125000
G00 Z3.000000

(End cutting path id: path374)


(Start cutting path id: path378)
(Change tool to Default tool)

G00 Z3.000000
G00 X11.406443 Y93.079283

G00 Z4.875000 (Fast pre-penetrate)
G01 Z-0.125000 F400.0(Penetrate)
G01 X30.824503 Y94.827862 Z-0.125000 F800.000000
G01 X61.321953 Y85.497051 Z-0.125000
G01 X73.637996 Y94.347649 Z-0.125000
G01 X105.087244 Y84.065041 Z-0.125000
G01 X119.833486 Y90.485438 Z-0.125000
G01 X143.751472 Y87.734093 Z-0.125000
G01 X157.999780 Y94.652425 Z-0.125000
G00 Z3.000000

(End cutting path id: path378)


(Start cutting path id: path376)
(Change tool to Default tool)

G00 Z3.000000
G00 X11.253442 Y94.290615

G00 Z4.875000 (Fast pre-penetrate)
G01 Z-0.125000 F400.0(Penetrate)
G01 X30.473033 Y96.237663 Z-0.125000 F800.000000
G01 X61.673806 Y86.203530 Z-0.125000
G01 X73.392320 Y95.651657 Z-0.125000
G01 X105.366061 Y84.844555 Z-0.125000
G01 X119.628270 Y91.748986 Z-0.125000
G01 X143.997629 Y88.546267 Z-0.125000
G01 X157.918206 Y95.792330 Z-0.125000
G00 Z3.000000

(End cutting path id: path376)



(Footer)
M5
G00 X0.0000 Y0.0000
M2
(Using default footer. To add your own footer create file "footer" in the output dir.)
(end)
%