%
(Header)
(Generated by gcodetools from Inkscape.)
(Using default header. To add your own header create file "header" in the output dir.)
M3
(Header end.)
G21 (All units in mm)

(Start cutting path id: path14476)
(Change tool to Default tool)

G00 Z3.000000
G00 X23.083732 Y51.854032

G00 Z4.875000 (Fast pre-penetrate)
G01 Z-0.125000 F400.0(Penetrate)
G01 X44.474405 Y51.629999 Z-0.125000 F800.000000
G01 X62.044108 Y55.226936 Z-0.125000
G01 X79.796831 Y58.640853 Z-0.125000
G01 X98.147961 Y61.456363 Z-0.125000
G01 X123.335598 Y57.435365 Z-0.125000
G01 X148.752063 Y53.185540 Z-0.125000
G01 X169.958959 Y53.145284 Z-0.125000
G00 Z3.000000

(End cutting path id: path14476)


(Start cutting path id: path14474)
(Change tool to Default tool)

G00 Z3.000000
G00 X22.948532 Y53.047563

G00 Z4.875000 (Fast pre-penetrate)
G01 Z-0.125000 F400.0(Penetrate)
G01 X43.966517 Y53.196219 Z-0.125000 F800.000000
G01 X62.013120 Y56.316256 Z-0.125000
G01 X79.904246 Y59.591770 Z-0.125000
G01 X98.189326 Y62.473330 Z-0.125000
G01 X123.404342 Y58.424953 Z-0.125000
G01 X148.802355 Y54.193580 Z-0.125000
G01 X169.651755 Y54.510821 Z-0.125000
G00 Z3.000000

(End cutting path id: path14474)


(Start cutting path id: path14472)
(Change tool to Default tool)

G00 Z3.000000
G00 X22.813331 Y54.241097

G00 Z4.875000 (Fast pre-penetrate)
G01 Z-0.125000 F400.0(Penetrate)
G01 X43.458626 Y54.762442 Z-0.125000 F800.000000
G01 X61.982132 Y57.405576 Z-0.125000
G01 X80.011659 Y60.542689 Z-0.125000
G01 X98.230691 Y63.490297 Z-0.125000
G01 X123.473086 Y59.414541 Z-0.125000
G01 X148.852647 Y55.201621 Z-0.125000
G01 X169.344550 Y55.876357 Z-0.125000
G00 Z3.000000

(End cutting path id: path14472)


(Start cutting path id: path14470)
(Change tool to Default tool)

G00 Z3.000000
G00 X22.678131 Y55.434628

G00 Z4.875000 (Fast pre-penetrate)
G01 Z-0.125000 F400.0(Penetrate)
G01 X42.950735 Y56.328665 Z-0.125000 F800.000000
G01 X61.951144 Y58.494896 Z-0.125000
G01 X80.119071 Y61.493608 Z-0.125000
G01 X98.272053 Y64.507267 Z-0.125000
G01 X123.541830 Y60.404129 Z-0.125000
G01 X148.902939 Y56.209661 Z-0.125000
G01 X169.037348 Y57.241891 Z-0.125000
G00 Z3.000000

(End cutting path id: path14470)


(Start cutting path id: path14468)
(Change tool to Default tool)

G00 Z3.000000
G00 X22.542929 Y56.628162

G00 Z4.875000 (Fast pre-penetrate)
G01 Z-0.125000 F400.0(Penetrate)
G01 X42.442844 Y57.894888 Z-0.125000 F800.000000
G01 X61.920158 Y59.584213 Z-0.125000
G01 X80.226484 Y62.444527 Z-0.125000
G01 X98.313418 Y65.524234 Z-0.125000
G01 X123.610577 Y61.393715 Z-0.125000
G01 X148.953231 Y57.217701 Z-0.125000
G01 X168.730143 Y58.607428 Z-0.125000
G00 Z3.000000

(End cutting path id: path14468)


(Start cutting path id: path14466)
(Change tool to Default tool)

G00 Z3.000000
G00 X22.407730 Y57.821693

G00 Z4.875000 (Fast pre-penetrate)
G01 Z-0.125000 F400.0(Penetrate)
G01 X41.934953 Y59.461111 Z-0.125000 F800.000000
G01 X61.889171 Y60.673533 Z-0.125000
G01 X80.333897 Y63.395446 Z-0.125000
G01 X98.354783 Y66.541201 Z-0.125000
G01 X123.679321 Y62.383303 Z-0.125000
G01 X149.003523 Y58.225741 Z-0.125000
G01 X168.422939 Y59.972965 Z-0.125000
G00 Z3.000000

(End cutting path id: path14466)


(Start cutting path id: path14464)
(Change tool to Default tool)

G00 Z3.000000
G00 X22.272528 Y59.015227

G00 Z4.875000 (Fast pre-penetrate)
G01 Z-0.125000 F400.0(Penetrate)
G01 X41.427062 Y61.027333 Z-0.125000 F800.000000
G01 X61.858183 Y61.762853 Z-0.125000
G01 X80.441312 Y64.346363 Z-0.125000
G01 X98.396145 Y67.558171 Z-0.125000
G01 X123.748065 Y63.372891 Z-0.125000
G01 X149.053815 Y59.233781 Z-0.125000
G01 X168.115737 Y61.338499 Z-0.125000
G00 Z3.000000

(End cutting path id: path14464)


(Start cutting path id: path14462)
(Change tool to Default tool)

G00 Z3.000000
G00 X22.137329 Y60.208759

G00 Z4.875000 (Fast pre-penetrate)
G01 Z-0.125000 F400.0(Penetrate)
G01 X40.919171 Y62.593556 Z-0.125000 F800.000000
G01 X61.827195 Y62.852173 Z-0.125000
G01 X80.548725 Y65.297282 Z-0.125000
G01 X98.437510 Y68.575138 Z-0.125000
G01 X123.816809 Y64.362479 Z-0.125000
G01 X149.104107 Y60.241821 Z-0.125000
G01 X167.808532 Y62.704036 Z-0.125000
G00 Z3.000000

(End cutting path id: path14462)


(Start cutting path id: path14460)
(Change tool to Default tool)

G00 Z3.000000
G00 X22.002127 Y61.402292

G00 Z4.875000 (Fast pre-penetrate)
G01 Z-0.125000 F400.0(Penetrate)
G01 X40.411280 Y64.159779 Z-0.125000 F800.000000
G01 X61.796207 Y63.941493 Z-0.125000
G01 X80.656138 Y66.248202 Z-0.125000
G01 X98.478875 Y69.592105 Z-0.125000
G01 X123.885553 Y65.352067 Z-0.125000
G01 X149.154399 Y61.249861 Z-0.125000
G01 X167.501327 Y64.069572 Z-0.125000
G00 Z3.000000

(End cutting path id: path14460)


(Start cutting path id: path14458)
(Change tool to Default tool)

G00 Z3.000000
G00 X21.866928 Y62.595824

G00 Z4.875000 (Fast pre-penetrate)
G01 Z-0.125000 F400.0(Penetrate)
G01 X39.903389 Y65.726002 Z-0.125000 F800.000000
G01 X61.765219 Y65.030813 Z-0.125000
G01 X80.763551 Y67.199121 Z-0.125000
G01 X98.520237 Y70.609074 Z-0.125000
G01 X123.954299 Y66.341652 Z-0.125000
G01 X149.204691 Y62.257901 Z-0.125000
G01 X167.194125 Y65.435106 Z-0.125000
G00 Z3.000000

(End cutting path id: path14458)


(Start cutting path id: path14456)
(Change tool to Default tool)

G00 Z3.000000
G00 X21.731726 Y63.789358

G00 Z4.875000 (Fast pre-penetrate)
G01 Z-0.125000 F400.0(Penetrate)
G01 X39.395499 Y67.292225 Z-0.125000 F800.000000
G01 X61.734231 Y66.120133 Z-0.125000
G01 X80.870963 Y68.150040 Z-0.125000
G01 X98.561602 Y71.626042 Z-0.125000
G01 X124.023043 Y67.331240 Z-0.125000
G01 X149.254982 Y63.265941 Z-0.125000
G01 X166.886921 Y66.800643 Z-0.125000
G00 Z3.000000

(End cutting path id: path14456)


(Start cutting path id: path14454)
(Change tool to Default tool)

G00 Z3.000000
G00 X21.596527 Y64.982889

G00 Z4.875000 (Fast pre-penetrate)
G01 Z-0.125000 F400.0(Penetrate)
G01 X38.887608 Y68.858448 Z-0.125000 F800.000000
G01 X61.703245 Y67.209450 Z-0.125000
G01 X80.978379 Y69.100957 Z-0.125000
G01 X98.602967 Y72.643009 Z-0.125000
G01 X124.091787 Y68.320828 Z-0.125000
G01 X149.305274 Y64.273981 Z-0.125000
G01 X166.579716 Y68.166180 Z-0.125000
G00 Z3.000000

(End cutting path id: path14454)


(Start cutting path id: path14452)
(Change tool to Default tool)

G00 Z3.000000
G00 X21.461327 Y66.176420

G00 Z4.875000 (Fast pre-penetrate)
G01 Z-0.125000 F400.0(Penetrate)
G01 X38.379717 Y70.424671 Z-0.125000 F800.000000
G01 X61.672257 Y68.298770 Z-0.125000
G01 X81.085792 Y70.051876 Z-0.125000
G01 X98.644329 Y73.659978 Z-0.125000
G01 X124.160531 Y69.310416 Z-0.125000
G01 X149.355566 Y65.282021 Z-0.125000
G01 X166.272514 Y69.531714 Z-0.125000
G00 Z3.000000

(End cutting path id: path14452)


(Start cutting path id: path14450)
(Change tool to Default tool)

G00 Z3.000000
G00 X21.326125 Y67.369954

G00 Z4.875000 (Fast pre-penetrate)
G01 Z-0.125000 F400.0(Penetrate)
G01 X37.871826 Y71.990894 Z-0.125000 F800.000000
G01 X61.641269 Y69.388090 Z-0.125000
G01 X81.193204 Y71.002795 Z-0.125000
G01 X98.685694 Y74.676945 Z-0.125000
G01 X124.229278 Y70.300002 Z-0.125000
G01 X149.405858 Y66.290061 Z-0.125000
G01 X165.965309 Y70.897250 Z-0.125000
G00 Z3.000000

(End cutting path id: path14450)


(Start cutting path id: path14448)
(Change tool to Default tool)

G00 Z3.000000
G00 X21.190926 Y68.563485

G00 Z4.875000 (Fast pre-penetrate)
G01 Z-0.125000 F400.0(Penetrate)
G01 X37.363935 Y73.557116 Z-0.125000 F800.000000
G01 X61.610282 Y70.477410 Z-0.125000
G01 X81.300617 Y71.953714 Z-0.125000
G01 X98.727059 Y75.693913 Z-0.125000
G01 X124.298022 Y71.289590 Z-0.125000
G01 X149.456150 Y67.298101 Z-0.125000
G01 X165.658105 Y72.262787 Z-0.125000
G00 Z3.000000

(End cutting path id: path14448)


(Start cutting path id: path14446)
(Change tool to Default tool)

G00 Z3.000000
G00 X21.055724 Y69.757019

G00 Z4.875000 (Fast pre-penetrate)
G01 Z-0.125000 F400.0(Penetrate)
G01 X36.856044 Y75.123339 Z-0.125000 F800.000000
G01 X61.579294 Y71.566730 Z-0.125000
G01 X81.408030 Y72.904634 Z-0.125000
G01 X98.768421 Y76.710882 Z-0.125000
G01 X124.366766 Y72.279178 Z-0.125000
G01 X149.506442 Y68.306141 Z-0.125000
G01 X165.350900 Y73.628324 Z-0.125000
G00 Z3.000000

(End cutting path id: path14446)


(Start cutting path id: path14444)
(Change tool to Default tool)

G00 Z3.000000
G00 X20.920525 Y70.950551

G00 Z4.875000 (Fast pre-penetrate)
G01 Z-0.125000 F400.0(Penetrate)
G01 X36.348153 Y76.689562 Z-0.125000 F800.000000
G01 X61.548306 Y72.656050 Z-0.125000
G01 X81.515443 Y73.855553 Z-0.125000
G01 X98.809786 Y77.727849 Z-0.125000
G01 X124.435510 Y73.268766 Z-0.125000
G01 X149.556734 Y69.314181 Z-0.125000
G01 X165.043698 Y74.993858 Z-0.125000
G00 Z3.000000

(End cutting path id: path14444)


(Start cutting path id: path14442)
(Change tool to Default tool)

G00 Z3.000000
G00 X20.785323 Y72.144084

G00 Z4.875000 (Fast pre-penetrate)
G01 Z-0.125000 F400.0(Penetrate)
G01 X35.840265 Y78.255782 Z-0.125000 F800.000000
G01 X61.517320 Y73.745367 Z-0.125000
G01 X81.622858 Y74.806469 Z-0.125000
G01 X98.851151 Y78.744816 Z-0.125000
G01 X124.504254 Y74.258354 Z-0.125000
G01 X149.607026 Y70.322221 Z-0.125000
G01 X164.736493 Y76.359394 Z-0.125000
G00 Z3.000000

(End cutting path id: path14442)


(Start cutting path id: path14440)
(Change tool to Default tool)

G00 Z3.000000
G00 X20.650123 Y73.337616

G00 Z4.875000 (Fast pre-penetrate)
G01 Z-0.125000 F400.0(Penetrate)
G01 X35.332374 Y79.822005 Z-0.125000 F800.000000
G01 X61.486332 Y74.834687 Z-0.125000
G01 X81.730271 Y75.757389 Z-0.125000
G01 X98.892513 Y79.761786 Z-0.125000
G01 X124.573000 Y75.247939 Z-0.125000
G01 X149.657318 Y71.330262 Z-0.125000
G01 X164.429288 Y77.724931 Z-0.125000
G00 Z3.000000

(End cutting path id: path14440)


(Start cutting path id: path14438)
(Change tool to Default tool)

G00 Z3.000000
G00 X20.514923 Y74.531150

G00 Z4.875000 (Fast pre-penetrate)
G01 Z-0.125000 F400.0(Penetrate)
G01 X34.824483 Y81.388228 Z-0.125000 F800.000000
G01 X61.455344 Y75.924007 Z-0.125000
G01 X81.837684 Y76.708308 Z-0.125000
G01 X98.933878 Y80.778753 Z-0.125000
G01 X124.641744 Y76.237527 Z-0.125000
G01 X149.707607 Y72.338304 Z-0.125000
G01 X164.122086 Y79.090465 Z-0.125000
G00 Z3.000000

(End cutting path id: path14438)


(Start cutting path id: path14436)
(Change tool to Default tool)

G00 Z3.000000
G00 X20.379722 Y75.724681

G00 Z4.875000 (Fast pre-penetrate)
G01 Z-0.125000 F400.0(Penetrate)
G01 X34.316592 Y82.954451 Z-0.125000 F800.000000
G01 X61.424356 Y77.013327 Z-0.125000
G01 X81.945096 Y77.659227 Z-0.125000
G01 X98.975243 Y81.795720 Z-0.125000
G01 X124.710488 Y77.227115 Z-0.125000
G01 X149.757899 Y73.346344 Z-0.125000
G01 X163.814882 Y80.456002 Z-0.125000
G00 Z3.000000

(End cutting path id: path14436)


(Start cutting path id: path14434)
(Change tool to Default tool)

G00 Z3.000000
G00 X20.164494 Y76.998243

G00 Z4.875000 (Fast pre-penetrate)
G01 Z-0.125000 F400.0(Penetrate)
G01 X34.475990 Y83.853385 Z-0.125000 F800.000000
G01 X61.275142 Y78.220873 Z-0.125000
G01 X82.123761 Y78.538894 Z-0.125000
G01 X99.228939 Y82.600357 Z-0.125000
G01 X124.548801 Y78.447134 Z-0.125000
G01 X149.713711 Y74.448864 Z-0.125000
G01 X164.165531 Y81.163685 Z-0.125000
G00 Z3.000000

(End cutting path id: path14434)


(Start cutting path id: path14432)
(Change tool to Default tool)

G00 Z3.000000
G00 X19.949265 Y78.271803

G00 Z4.875000 (Fast pre-penetrate)
G01 Z-0.125000 F400.0(Penetrate)
G01 X34.635388 Y84.752319 Z-0.125000 F800.000000
G01 X61.125931 Y79.428417 Z-0.125000
G01 X82.302424 Y79.418574 Z-0.125000
G01 X99.482637 Y83.405002 Z-0.125000
G01 X124.387112 Y79.667166 Z-0.125000
G01 X149.669521 Y75.551398 Z-0.125000
G01 X164.516180 Y81.871378 Z-0.125000
G00 Z3.000000

(End cutting path id: path14432)


(Start cutting path id: path14430)
(Change tool to Default tool)

G00 Z3.000000
G00 X19.734036 Y79.545363

G00 Z4.875000 (Fast pre-penetrate)
G01 Z-0.125000 F400.0(Penetrate)
G01 X34.794789 Y85.651250 Z-0.125000 F800.000000
G01 X60.976716 Y80.635963 Z-0.125000
G01 X82.481089 Y80.298231 Z-0.125000
G01 X99.736332 Y84.209628 Z-0.125000
G01 X124.225425 Y80.887174 Z-0.125000
G01 X149.625330 Y76.653910 Z-0.125000
G01 X164.866829 Y82.579050 Z-0.125000
G00 Z3.000000

(End cutting path id: path14430)


(Start cutting path id: path14428)
(Change tool to Default tool)

G00 Z3.000000
G00 X19.518807 Y80.818925

G00 Z4.875000 (Fast pre-penetrate)
G01 Z-0.125000 F400.0(Penetrate)
G01 X34.954187 Y86.550184 Z-0.125000 F800.000000
G01 X60.827505 Y81.843507 Z-0.125000
G01 X82.659754 Y81.177898 Z-0.125000
G01 X99.990030 Y85.014261 Z-0.125000
G01 X124.063736 Y82.107195 Z-0.125000
G01 X149.581142 Y77.756430 Z-0.125000
G01 X165.217479 Y83.286733 Z-0.125000
G00 Z3.000000

(End cutting path id: path14428)


(Start cutting path id: path14426)
(Change tool to Default tool)

G00 Z3.000000
G00 X19.303579 Y82.092485

G00 Z4.875000 (Fast pre-penetrate)
G01 Z-0.125000 F400.0(Penetrate)
G01 X35.113585 Y87.449118 Z-0.125000 F800.000000
G01 X60.678291 Y83.051053 Z-0.125000
G01 X82.838416 Y82.057568 Z-0.125000
G01 X100.243725 Y85.818898 Z-0.125000
G01 X123.902049 Y83.327214 Z-0.125000
G01 X149.536951 Y78.858952 Z-0.125000
G01 X165.568125 Y83.994418 Z-0.125000
G00 Z3.000000

(End cutting path id: path14426)


(Start cutting path id: path14424)
(Change tool to Default tool)

G00 Z3.000000
G00 X19.088350 Y83.366044

G00 Z4.875000 (Fast pre-penetrate)
G01 Z-0.125000 F400.0(Penetrate)
G01 X35.272986 Y88.348050 Z-0.125000 F800.000000
G01 X60.529076 Y84.258599 Z-0.125000
G01 X83.017081 Y82.937235 Z-0.125000
G01 X100.497423 Y86.623532 Z-0.125000
G01 X123.740360 Y84.547235 Z-0.125000
G01 X149.492761 Y79.961475 Z-0.125000
G01 X165.918774 Y84.702101 Z-0.125000
G00 Z3.000000

(End cutting path id: path14424)


(Start cutting path id: path14422)
(Change tool to Default tool)

G00 Z3.000000
G00 X18.873121 Y84.639607

G00 Z4.875000 (Fast pre-penetrate)
G01 Z-0.125000 F400.0(Penetrate)
G01 X35.432384 Y89.246984 Z-0.125000 F800.000000
G01 X60.379865 Y85.466143 Z-0.125000
G01 X83.195746 Y83.816902 Z-0.125000
G01 X100.751119 Y87.428169 Z-0.125000
G01 X123.578673 Y85.767254 Z-0.125000
G01 X149.448573 Y81.063995 Z-0.125000
G01 X166.269424 Y85.409784 Z-0.125000
G00 Z3.000000

(End cutting path id: path14422)


(Start cutting path id: path14420)
(Change tool to Default tool)

G00 Z3.000000
G00 X18.657893 Y85.913166

G00 Z4.875000 (Fast pre-penetrate)
G01 Z-0.125000 F400.0(Penetrate)
G01 X35.591782 Y90.145918 Z-0.125000 F800.000000
G01 X60.230650 Y86.673689 Z-0.125000
G01 X83.374408 Y84.696571 Z-0.125000
G01 X101.004817 Y88.232803 Z-0.125000
G01 X123.416984 Y86.987275 Z-0.125000
G01 X149.404382 Y82.166518 Z-0.125000
G01 X166.620073 Y86.117467 Z-0.125000
G00 Z3.000000

(End cutting path id: path14420)


(Start cutting path id: path14418)
(Change tool to Default tool)

G00 Z3.000000
G00 X18.442664 Y87.186729

G00 Z4.875000 (Fast pre-penetrate)
G01 Z-0.125000 F400.0(Penetrate)
G01 X35.751183 Y91.044849 Z-0.125000 F800.000000
G01 X60.081439 Y87.881233 Z-0.125000
G01 X83.553073 Y85.576238 Z-0.125000
G01 X101.258512 Y89.037439 Z-0.125000
G01 X123.255297 Y88.207294 Z-0.125000
G01 X149.360191 Y83.269040 Z-0.125000
G01 X166.970722 Y86.825150 Z-0.125000
G00 Z3.000000

(End cutting path id: path14418)


(Start cutting path id: path14416)
(Change tool to Default tool)

G00 Z3.000000
G00 X18.227435 Y88.460288

G00 Z4.875000 (Fast pre-penetrate)
G01 Z-0.125000 F400.0(Penetrate)
G01 X35.910581 Y91.943783 Z-0.125000 F800.000000
G01 X59.932225 Y89.088779 Z-0.125000
G01 X83.731735 Y86.455908 Z-0.125000
G01 X101.512210 Y89.842073 Z-0.125000
G01 X123.093608 Y89.427315 Z-0.125000
G01 X149.316003 Y84.371560 Z-0.125000
G01 X167.321371 Y87.532832 Z-0.125000
G00 Z3.000000

(End cutting path id: path14416)


(Start cutting path id: path14414)
(Change tool to Default tool)

G00 Z3.000000
G00 X18.012207 Y89.733848

G00 Z4.875000 (Fast pre-penetrate)
G01 Z-0.125000 F400.0(Penetrate)
G01 X36.069981 Y92.842714 Z-0.125000 F800.000000
G01 X59.783010 Y90.296325 Z-0.125000
G01 X83.910400 Y87.335575 Z-0.125000
G01 X101.765906 Y90.646710 Z-0.125000
G01 X122.931921 Y90.647239 Z-0.125000
G01 X149.271813 Y85.473988 Z-0.125000
G01 X167.672020 Y88.240420 Z-0.125000
G00 Z3.000000

(End cutting path id: path14414)


(Start cutting path id: path14356)
(Change tool to Default tool)

G00 Z3.000000
G00 X20.723059 Y117.714625

G00 Z4.875000 (Fast pre-penetrate)
G01 Z-0.125000 F400.0(Penetrate)
G01 X39.766500 Y119.837824 Z-0.125000 F800.000000
G01 X57.353668 Y123.417296 Z-0.125000
G01 X81.047824 Y120.889780 Z-0.125000
G01 X97.378752 Y125.725492 Z-0.125000
G01 X126.879124 Y117.391759 Z-0.125000
G01 X138.743134 Y126.694389 Z-0.125000
G01 X164.272647 Y122.331516 Z-0.125000
G00 Z3.000000

(End cutting path id: path14356)


(Start cutting path id: path14354)
(Change tool to Default tool)

G00 Z3.000000
G00 X20.514500 Y118.981514

G00 Z4.875000 (Fast pre-penetrate)
G01 Z-0.125000 F400.0(Penetrate)
G01 X39.687347 Y120.975309 Z-0.125000 F800.000000
G01 X57.483816 Y124.345480 Z-0.125000
G01 X81.001451 Y121.994485 Z-0.125000
G01 X97.298970 Y126.863606 Z-0.125000
G01 X126.991617 Y118.337599 Z-0.125000
G01 X139.034448 Y127.461407 Z-0.125000
G01 X164.634256 Y123.028240 Z-0.125000
G00 Z3.000000

(End cutting path id: path14354)


(Start cutting path id: path14358)
(Change tool to Default tool)

G00 Z3.000000
G00 X20.490663 Y116.888689

G00 Z4.875000 (Fast pre-penetrate)
G01 Z-0.125000 F400.0(Penetrate)
G01 X39.653404 Y118.892588 Z-0.125000 F800.000000
G01 X57.407989 Y122.304642 Z-0.125000
G01 X81.271352 Y119.607920 Z-0.125000
G01 X97.712272 Y124.333639 Z-0.125000
G01 X126.609006 Y116.603546 Z-0.125000
G01 X139.249681 Y125.129510 Z-0.125000
G01 X164.600408 Y120.945424 Z-0.125000
G00 Z3.000000

(End cutting path id: path14358)


(Start cutting path id: path14352)
(Change tool to Default tool)

G00 Z3.000000
G00 X20.305942 Y120.248407

G00 Z4.875000 (Fast pre-penetrate)
G01 Z-0.125000 F400.0(Penetrate)
G01 X39.608194 Y122.112793 Z-0.125000 F800.000000
G01 X57.613962 Y125.273666 Z-0.125000
G01 X80.955077 Y123.099190 Z-0.125000
G01 X97.219187 Y128.001720 Z-0.125000
G01 X127.104112 Y119.283435 Z-0.125000
G01 X139.325762 Y128.228426 Z-0.125000
G01 X164.995867 Y123.724961 Z-0.125000
G00 Z3.000000

(End cutting path id: path14352)


(Start cutting path id: path14350)
(Change tool to Default tool)

G00 Z3.000000
G00 X20.097384 Y121.515296

G00 Z4.875000 (Fast pre-penetrate)
G01 Z-0.125000 F400.0(Penetrate)
G01 X39.529039 Y123.250281 Z-0.125000 F800.000000
G01 X57.744110 Y126.201849 Z-0.125000
G01 X80.908704 Y124.203896 Z-0.125000
G01 X97.139405 Y129.139835 Z-0.125000
G01 X127.216605 Y120.229275 Z-0.125000
G01 X139.617078 Y128.995441 Z-0.125000
G01 X165.357475 Y124.421685 Z-0.125000
G00 Z3.000000

(End cutting path id: path14350)


(Start cutting path id: path14360)
(Change tool to Default tool)

G00 Z3.000000
G00 X20.258267 Y116.062751

G00 Z4.875000 (Fast pre-penetrate)
G01 Z-0.125000 F400.0(Penetrate)
G01 X39.540308 Y117.947352 Z-0.125000 F800.000000
G01 X57.462311 Y121.191989 Z-0.125000
G01 X81.494879 Y118.326060 Z-0.125000
G01 X98.045795 Y122.941785 Z-0.125000
G01 X126.338885 Y115.815334 Z-0.125000
G01 X139.756231 Y123.564629 Z-0.125000
G01 X164.928170 Y119.559329 Z-0.125000
G00 Z3.000000

(End cutting path id: path14360)


(Start cutting path id: path14362)
(Change tool to Default tool)

G00 Z3.000000
G00 X20.025872 Y115.236816

G00 Z4.875000 (Fast pre-penetrate)
G01 Z-0.125000 F400.0(Penetrate)
G01 X39.427212 Y117.002116 Z-0.125000 F800.000000
G01 X57.516632 Y120.079335 Z-0.125000
G01 X81.718407 Y117.044201 Z-0.125000
G01 X98.379315 Y121.549933 Z-0.125000
G01 X126.068765 Y115.027123 Z-0.125000
G01 X140.262780 Y121.999748 Z-0.125000
G01 X165.255930 Y118.173237 Z-0.125000
G00 Z3.000000

(End cutting path id: path14362)


(Start cutting path id: path14348)
(Change tool to Default tool)

G00 Z3.000000
G00 X19.888825 Y122.782186

G00 Z4.875000 (Fast pre-penetrate)
G01 Z-0.125000 F400.0(Penetrate)
G01 X39.449886 Y124.387765 Z-0.125000 F800.000000
G01 X57.874256 Y127.130036 Z-0.125000
G01 X80.862330 Y125.308601 Z-0.125000
G01 X97.059625 Y130.277946 Z-0.125000
G01 X127.329098 Y121.175114 Z-0.125000
G01 X139.908392 Y129.762459 Z-0.125000
G01 X165.719083 Y125.118409 Z-0.125000
G00 Z3.000000

(End cutting path id: path14348)


(Start cutting path id: path14346)
(Change tool to Default tool)

G00 Z3.000000
G00 X19.680267 Y124.049075

G00 Z4.875000 (Fast pre-penetrate)
G01 Z-0.125000 F400.0(Penetrate)
G01 X39.370731 Y125.525253 Z-0.125000 F800.000000
G01 X58.004404 Y128.058219 Z-0.125000
G01 X80.815957 Y126.413307 Z-0.125000
G01 X96.979843 Y131.416061 Z-0.125000
G01 X127.441590 Y122.120953 Z-0.125000
G01 X140.199706 Y130.529477 Z-0.125000
G01 X166.080694 Y125.815130 Z-0.125000
G00 Z3.000000

(End cutting path id: path14346)


(Start cutting path id: path14344)
(Change tool to Default tool)

G00 Z3.000000
G00 X19.471709 Y125.315967

G00 Z4.875000 (Fast pre-penetrate)
G01 Z-0.125000 F400.0(Penetrate)
G01 X39.291578 Y126.662737 Z-0.125000 F800.000000
G01 X58.134550 Y128.986406 Z-0.125000
G01 X80.769583 Y127.518012 Z-0.125000
G01 X96.900060 Y132.554175 Z-0.125000
G01 X127.554083 Y123.066792 Z-0.125000
G01 X140.491022 Y131.296493 Z-0.125000
G01 X166.442302 Y126.511853 Z-0.125000
G00 Z3.000000

(End cutting path id: path14344)


(Start cutting path id: path14364)
(Change tool to Default tool)

G00 Z3.000000
G00 X19.793476 Y114.410880

G00 Z4.875000 (Fast pre-penetrate)
G01 Z-0.125000 F400.0(Penetrate)
G01 X39.314116 Y116.056880 Z-0.125000 F800.000000
G01 X57.570954 Y118.966682 Z-0.125000
G01 X81.941935 Y115.762341 Z-0.125000
G01 X98.712838 Y120.158078 Z-0.125000
G01 X125.798646 Y114.238909 Z-0.125000
G01 X140.769327 Y120.434869 Z-0.125000
G01 X165.583691 Y116.787145 Z-0.125000
G00 Z3.000000

(End cutting path id: path14364)


(Start cutting path id: path14366)
(Change tool to Default tool)

G00 Z3.000000
G00 X19.561081 Y113.584942

G00 Z4.875000 (Fast pre-penetrate)
G01 Z-0.125000 F400.0(Penetrate)
G01 X39.201017 Y115.111647 Z-0.125000 F800.000000
G01 X57.625275 Y117.854028 Z-0.125000
G01 X82.165462 Y114.480481 Z-0.125000
G01 X99.046358 Y118.766226 Z-0.125000
G01 X125.528526 Y113.450698 Z-0.125000
G01 X141.275876 Y118.869987 Z-0.125000
G01 X165.911451 Y115.401053 Z-0.125000
G00 Z3.000000

(End cutting path id: path14366)


(Start cutting path id: path14368)
(Change tool to Default tool)

G00 Z3.000000
G00 X19.328685 Y112.759006

G00 Z4.875000 (Fast pre-penetrate)
G01 Z-0.125000 F400.0(Penetrate)
G01 X39.087921 Y114.166411 Z-0.125000 F800.000000
G01 X57.679594 Y116.741377 Z-0.125000
G01 X82.388990 Y113.198622 Z-0.125000
G01 X99.379878 Y117.374374 Z-0.125000
G01 X125.258405 Y112.662486 Z-0.125000
G01 X141.782426 Y117.305106 Z-0.125000
G01 X166.239211 Y114.014961 Z-0.125000
G00 Z3.000000

(End cutting path id: path14368)


(Start cutting path id: path14370)
(Change tool to Default tool)

G00 Z3.000000
G00 X19.096290 Y111.933071

G00 Z4.875000 (Fast pre-penetrate)
G01 Z-0.125000 F400.0(Penetrate)
G01 X38.974825 Y113.221175 Z-0.125000 F800.000000
G01 X57.733916 Y115.628724 Z-0.125000
G01 X82.612518 Y111.916762 Z-0.125000
G01 X99.713401 Y115.982519 Z-0.125000
G01 X124.988287 Y111.874273 Z-0.125000
G01 X142.288972 Y115.740227 Z-0.125000
G01 X166.566971 Y112.628869 Z-0.125000
G00 Z3.000000

(End cutting path id: path14370)


(Start cutting path id: path14372)
(Change tool to Default tool)

G00 Z3.000000
G00 X18.863894 Y111.107133

G00 Z4.875000 (Fast pre-penetrate)
G01 Z-0.125000 F400.0(Penetrate)
G01 X38.861729 Y112.275939 Z-0.125000 F800.000000
G01 X57.788237 Y114.516070 Z-0.125000
G01 X82.836045 Y110.634902 Z-0.125000
G01 X100.046921 Y114.590667 Z-0.125000
G01 X124.718166 Y111.086061 Z-0.125000
G01 X142.795522 Y114.175346 Z-0.125000
G01 X166.894734 Y111.242774 Z-0.125000
G00 Z3.000000

(End cutting path id: path14372)


(Start cutting path id: path14374)
(Change tool to Default tool)

G00 Z3.000000
G00 X18.631499 Y110.281197

G00 Z4.875000 (Fast pre-penetrate)
G01 Z-0.125000 F400.0(Penetrate)
G01 X38.748633 Y111.330703 Z-0.125000 F800.000000
G01 X57.842559 Y113.403417 Z-0.125000
G01 X83.059573 Y109.353043 Z-0.125000
G01 X100.380443 Y113.198812 Z-0.125000
G01 X124.448046 Y110.297850 Z-0.125000
G01 X143.302071 Y112.610464 Z-0.125000
G01 X167.222494 Y109.856682 Z-0.125000
G00 Z3.000000

(End cutting path id: path14374)


(Start cutting path id: path14376)
(Change tool to Default tool)

G00 Z3.000000
G00 X18.399103 Y109.455259

G00 Z4.875000 (Fast pre-penetrate)
G01 Z-0.125000 F400.0(Penetrate)
G01 X38.635537 Y110.385467 Z-0.125000 F800.000000
G01 X57.896880 Y112.290763 Z-0.125000
G01 X83.283101 Y108.071183 Z-0.125000
G01 X100.713964 Y111.806960 Z-0.125000
G01 X124.177927 Y109.509636 Z-0.125000
G01 X143.808618 Y111.045585 Z-0.125000
G01 X167.550254 Y108.470590 Z-0.125000
G00 Z3.000000

(End cutting path id: path14376)


(Start cutting path id: path14378)
(Change tool to Default tool)

G00 Z3.000000
G00 X18.166708 Y108.629323

G00 Z4.875000 (Fast pre-penetrate)
G01 Z-0.125000 F400.0(Penetrate)
G01 X38.522438 Y109.440233 Z-0.125000 F800.000000
G01 X57.951202 Y111.178110 Z-0.125000
G01 X83.506628 Y106.789323 Z-0.125000
G01 X101.047486 Y110.415105 Z-0.125000
G01 X123.907807 Y108.721425 Z-0.125000
G01 X144.315168 Y109.480704 Z-0.125000
G01 X167.878014 Y107.084497 Z-0.125000
G00 Z3.000000

(End cutting path id: path14378)


(Start cutting path id: path14342)
(Change tool to Default tool)

G00 Z3.000000
G00 X19.263151 Y126.582857

G00 Z4.875000 (Fast pre-penetrate)
G01 Z-0.125000 F400.0(Penetrate)
G01 X39.212426 Y127.800222 Z-0.125000 F800.000000
G01 X58.264698 Y129.914589 Z-0.125000
G01 X80.723210 Y128.622718 Z-0.125000
G01 X96.820281 Y133.692287 Z-0.125000
G01 X127.666579 Y124.012629 Z-0.125000
G01 X140.782336 Y132.063511 Z-0.125000
G01 X166.803910 Y127.208577 Z-0.125000
G00 Z3.000000

(End cutting path id: path14342)


(Start cutting path id: path14340)
(Change tool to Default tool)

G00 Z3.000000
G00 X19.054593 Y127.849746

G00 Z4.875000 (Fast pre-penetrate)
G01 Z-0.125000 F400.0(Penetrate)
G01 X39.133270 Y128.937709 Z-0.125000 F800.000000
G01 X58.394844 Y130.842776 Z-0.125000
G01 X80.676836 Y129.727423 Z-0.125000
G01 X96.740498 Y134.830401 Z-0.125000
G01 X127.779071 Y124.958468 Z-0.125000
G01 X141.073650 Y132.830529 Z-0.125000
G01 X167.165519 Y127.905301 Z-0.125000
G00 Z3.000000

(End cutting path id: path14340)


(Start cutting path id: path14338)
(Change tool to Default tool)

G00 Z3.000000
G00 X18.846034 Y129.116639

G00 Z4.875000 (Fast pre-penetrate)
G01 Z-0.125000 F400.0(Penetrate)
G01 X39.054118 Y130.075194 Z-0.125000 F800.000000
G01 X58.524992 Y131.770959 Z-0.125000
G01 X80.630463 Y130.832129 Z-0.125000
G01 X96.660716 Y135.968516 Z-0.125000
G01 X127.891564 Y125.904307 Z-0.125000
G01 X141.364967 Y133.597545 Z-0.125000
G01 X167.527129 Y128.602022 Z-0.125000
G00 Z3.000000

(End cutting path id: path14338)


(Start cutting path id: path14336)
(Change tool to Default tool)

G00 Z3.000000
G00 X18.637476 Y130.383528

G00 Z4.875000 (Fast pre-penetrate)
G01 Z-0.125000 F400.0(Penetrate)
G01 X38.974965 Y131.212678 Z-0.125000 F800.000000
G01 X58.655138 Y132.699145 Z-0.125000
G01 X80.584089 Y131.936834 Z-0.125000
G01 X96.580934 Y137.106630 Z-0.125000
G01 X128.004057 Y126.850147 Z-0.125000
G01 X141.656280 Y134.364563 Z-0.125000
G01 X167.888738 Y129.298746 Z-0.125000
G00 Z3.000000

(End cutting path id: path14336)


(Start cutting path id: path14334)
(Change tool to Default tool)

G00 Z3.000000
G00 X18.428918 Y131.650418

G00 Z4.875000 (Fast pre-penetrate)
G01 Z-0.125000 F400.0(Penetrate)
G01 X38.895810 Y132.350166 Z-0.125000 F800.000000
G01 X58.785286 Y133.627329 Z-0.125000
G01 X80.537716 Y133.041540 Z-0.125000
G01 X96.501154 Y138.244742 Z-0.125000
G01 X128.116550 Y127.795986 Z-0.125000
G01 X141.947594 Y135.131581 Z-0.125000
G01 X168.250346 Y129.995470 Z-0.125000
G00 Z3.000000

(End cutting path id: path14334)


(Start cutting path id: path14332)
(Change tool to Default tool)

G00 Z3.000000
G00 X18.220359 Y132.917307

G00 Z4.875000 (Fast pre-penetrate)
G01 Z-0.125000 F400.0(Penetrate)
G01 X38.816657 Y133.487650 Z-0.125000 F800.000000
G01 X58.915435 Y134.555513 Z-0.125000
G01 X80.491342 Y134.146245 Z-0.125000
G01 X96.421372 Y139.382856 Z-0.125000
G01 X128.229042 Y128.741825 Z-0.125000
G01 X142.238911 Y135.898597 Z-0.125000
G01 X168.611954 Y130.692193 Z-0.125000
G00 Z3.000000

(End cutting path id: path14332)


(Start cutting path id: path14330)
(Change tool to Default tool)

G00 Z3.000000
G00 X18.011801 Y134.184200

G00 Z4.875000 (Fast pre-penetrate)
G01 Z-0.125000 F400.0(Penetrate)
G01 X38.737502 Y134.625138 Z-0.125000 F800.000000
G01 X59.045581 Y135.483699 Z-0.125000
G01 X80.444969 Y135.250951 Z-0.125000
G01 X96.341589 Y140.520970 Z-0.125000
G01 X128.341538 Y129.687662 Z-0.125000
G01 X142.530225 Y136.665615 Z-0.125000
G01 X168.973565 Y131.388915 Z-0.125000
G00 Z3.000000

(End cutting path id: path14330)


(Start cutting path id: path14328)
(Change tool to Default tool)

G00 Z3.000000
G00 X17.803243 Y135.451089

G00 Z4.875000 (Fast pre-penetrate)
G01 Z-0.125000 F400.0(Penetrate)
G01 X38.658349 Y135.762622 Z-0.125000 F800.000000
G01 X59.175729 Y136.411883 Z-0.125000
G01 X80.398595 Y136.355656 Z-0.125000
G01 X96.261807 Y141.659085 Z-0.125000
G01 X128.454031 Y130.633501 Z-0.125000
G01 X142.821538 Y137.432633 Z-0.125000
G01 X169.335173 Y132.085638 Z-0.125000
G00 Z3.000000

(End cutting path id: path14328)


(Start cutting path id: path14326)
(Change tool to Default tool)

G00 Z3.000000
G00 X17.594685 Y136.717979

G00 Z4.875000 (Fast pre-penetrate)
G01 Z-0.125000 F400.0(Penetrate)
G01 X38.579197 Y136.900107 Z-0.125000 F800.000000
G01 X59.305875 Y137.340069 Z-0.125000
G01 X80.352222 Y137.460361 Z-0.125000
G01 X96.182027 Y142.797196 Z-0.125000
G01 X128.566523 Y131.579340 Z-0.125000
G01 X143.112855 Y138.199649 Z-0.125000
G01 X169.696781 Y132.782362 Z-0.125000
G00 Z3.000000

(End cutting path id: path14326)


(Start cutting path id: path14324)
(Change tool to Default tool)

G00 Z3.000000
G00 X17.386127 Y137.984868

G00 Z4.875000 (Fast pre-penetrate)
G01 Z-0.125000 F400.0(Penetrate)
G01 X38.500041 Y138.037594 Z-0.125000 F800.000000
G01 X59.436023 Y138.268252 Z-0.125000
G01 X80.305849 Y138.565067 Z-0.125000
G01 X96.102245 Y143.935311 Z-0.125000
G01 X128.679016 Y132.525179 Z-0.125000
G01 X143.404169 Y138.966667 Z-0.125000
G01 X170.058390 Y133.479086 Z-0.125000
G00 Z3.000000

(End cutting path id: path14324)


(Start cutting path id: path14322)
(Change tool to Default tool)

G00 Z3.000000
G00 X17.177568 Y139.251760

G00 Z4.875000 (Fast pre-penetrate)
G01 Z-0.125000 F400.0(Penetrate)
G01 X38.420889 Y139.175079 Z-0.125000 F800.000000
G01 X59.566169 Y139.196431 Z-0.125000
G01 X80.259475 Y139.669764 Z-0.125000
G01 X96.022462 Y145.073417 Z-0.125000
G01 X128.791509 Y133.471011 Z-0.125000
G01 X143.695482 Y139.733677 Z-0.125000
G01 X170.420001 Y134.175799 Z-0.125000
G00 Z3.000000

(End cutting path id: path14322)


(Start cutting path id: path14320)
(Change tool to Default tool)

G00 Z3.000000
G00 X16.969010 Y140.518650

G00 Z4.875000 (Fast pre-penetrate)
G01 Z-0.125000 F400.0(Penetrate)
G01 X38.341736 Y140.312564 Z-0.125000 F800.000000
G01 X59.696317 Y140.124622 Z-0.125000
G01 X80.213102 Y140.774478 Z-0.125000
G01 X95.942683 Y146.211537 Z-0.125000
G01 X128.904002 Y134.416858 Z-0.125000
G01 X143.986799 Y140.500701 Z-0.125000
G01 X170.781609 Y134.872531 Z-0.125000
G00 Z3.000000

(End cutting path id: path14320)


(Start cutting path id: path14318)
(Change tool to Default tool)

G00 Z3.000000
G00 X16.760452 Y141.785539

G00 Z4.875000 (Fast pre-penetrate)
G01 Z-0.125000 F400.0(Penetrate)
G01 X38.262581 Y141.450051 Z-0.125000 F800.000000
G01 X59.826463 Y141.052809 Z-0.125000
G01 X80.166728 Y141.879183 Z-0.125000
G01 X95.862900 Y147.349651 Z-0.125000
G01 X129.016497 Y135.362695 Z-0.125000
G01 X144.278113 Y141.267719 Z-0.125000
G01 X171.143217 Y135.569254 Z-0.125000
G00 Z3.000000

(End cutting path id: path14318)


(Start cutting path id: path14316)
(Change tool to Default tool)

G00 Z3.000000
G00 X16.551893 Y143.052429

G00 Z4.875000 (Fast pre-penetrate)
G01 Z-0.125000 F400.0(Penetrate)
G01 X38.183428 Y142.587536 Z-0.125000 F800.000000
G01 X59.956611 Y141.980992 Z-0.125000
G01 X80.120355 Y142.983889 Z-0.125000
G01 X95.783118 Y148.487766 Z-0.125000
G01 X129.128990 Y136.308534 Z-0.125000
G01 X144.569427 Y142.034737 Z-0.125000
G01 X171.504825 Y136.265978 Z-0.125000
G00 Z3.000000

(End cutting path id: path14316)


(Start cutting path id: path14314)
(Change tool to Default tool)

G00 Z3.000000
G00 X16.477928 Y144.184728

G00 Z4.875000 (Fast pre-penetrate)
G01 Z-0.125000 F400.0(Penetrate)
G01 X38.295061 Y143.534235 Z-0.125000 F800.000000
G01 X59.831948 Y143.163988 Z-0.125000
G01 X80.183987 Y143.978589 Z-0.125000
G01 X96.365867 Y148.963348 Z-0.125000
G01 X129.078814 Y137.417041 Z-0.125000
G01 X144.685055 Y142.977441 Z-0.125000
G01 X171.385101 Y137.444034 Z-0.125000
G00 Z3.000000

(End cutting path id: path14314)


(Start cutting path id: path14312)
(Change tool to Default tool)

G00 Z3.000000
G00 X16.403963 Y145.317024

G00 Z4.875000 (Fast pre-penetrate)
G01 Z-0.125000 F400.0(Penetrate)
G01 X38.406694 Y144.480934 Z-0.125000 F800.000000
G01 X59.707284 Y144.346983 Z-0.125000
G01 X80.247617 Y144.973291 Z-0.125000
G01 X96.948619 Y149.438928 Z-0.125000
G01 X129.028639 Y138.525549 Z-0.125000
G01 X144.800683 Y143.920145 Z-0.125000
G01 X171.265375 Y138.622092 Z-0.125000
G00 Z3.000000

(End cutting path id: path14312)


(Start cutting path id: path14310)
(Change tool to Default tool)

G00 Z3.000000
G00 X16.329997 Y146.449323

G00 Z4.875000 (Fast pre-penetrate)
G01 Z-0.125000 F400.0(Penetrate)
G01 X38.518327 Y145.427633 Z-0.125000 F800.000000
G01 X59.582623 Y145.529976 Z-0.125000
G01 X80.311249 Y145.967991 Z-0.125000
G01 X97.531369 Y149.914511 Z-0.125000
G01 X128.978466 Y139.634054 Z-0.125000
G01 X144.916311 Y144.862849 Z-0.125000
G01 X171.145651 Y139.800148 Z-0.125000
G00 Z3.000000

(End cutting path id: path14310)


(Start cutting path id: path14308)
(Change tool to Default tool)

G00 Z3.000000
G00 X16.256032 Y147.581619

G00 Z4.875000 (Fast pre-penetrate)
G01 Z-0.125000 F400.0(Penetrate)
G01 X38.629959 Y146.374332 Z-0.125000 F800.000000
G01 X59.457960 Y146.712972 Z-0.125000
G01 X80.374881 Y146.962691 Z-0.125000
G01 X98.114118 Y150.390093 Z-0.125000
G01 X128.928290 Y140.742561 Z-0.125000
G01 X145.031936 Y145.805555 Z-0.125000
G01 X171.025925 Y140.978207 Z-0.125000
G00 Z3.000000

(End cutting path id: path14308)


(Start cutting path id: path14306)
(Change tool to Default tool)

G00 Z3.000000
G00 X16.182066 Y148.713918

G00 Z4.875000 (Fast pre-penetrate)
G01 Z-0.125000 F400.0(Penetrate)
G01 X38.741592 Y147.321031 Z-0.125000 F800.000000
G01 X59.333296 Y147.895967 Z-0.125000
G01 X80.438513 Y147.957390 Z-0.125000
G01 X98.696867 Y150.865676 Z-0.125000
G01 X128.878115 Y141.851069 Z-0.125000
G01 X145.147564 Y146.748259 Z-0.125000
G01 X170.906198 Y142.156265 Z-0.125000
G00 Z3.000000

(End cutting path id: path14306)


(Start cutting path id: path14304)
(Change tool to Default tool)

G00 Z3.000000
G00 X16.108101 Y149.846214

G00 Z4.875000 (Fast pre-penetrate)
G01 Z-0.125000 F400.0(Penetrate)
G01 X38.853228 Y148.267728 Z-0.125000 F800.000000
G01 X59.208633 Y149.078963 Z-0.125000
G01 X80.502143 Y148.952093 Z-0.125000
G01 X99.279617 Y151.341259 Z-0.125000
G01 X128.827942 Y142.959574 Z-0.125000
G01 X145.263192 Y147.690963 Z-0.125000
G01 X170.786474 Y143.334321 Z-0.125000
G00 Z3.000000

(End cutting path id: path14304)


(Start cutting path id: path14302)
(Change tool to Default tool)

G00 Z3.000000
G00 X16.034135 Y150.978513

G00 Z4.875000 (Fast pre-penetrate)
G01 Z-0.125000 F400.0(Penetrate)
G01 X38.964861 Y149.214427 Z-0.125000 F800.000000
G01 X59.083972 Y150.261956 Z-0.125000
G01 X80.565775 Y149.946793 Z-0.125000
G01 X99.862366 Y151.816841 Z-0.125000
G01 X128.777766 Y144.068081 Z-0.125000
G01 X145.378820 Y148.633667 Z-0.125000
G01 X170.666748 Y144.512379 Z-0.125000
G00 Z3.000000

(End cutting path id: path14302)


(Start cutting path id: path14300)
(Change tool to Default tool)

G00 Z3.000000
G00 X15.960170 Y152.110809

G00 Z4.875000 (Fast pre-penetrate)
G01 Z-0.125000 F400.0(Penetrate)
G01 X39.076494 Y150.161126 Z-0.125000 F800.000000
G01 X58.959308 Y151.444951 Z-0.125000
G01 X80.629407 Y150.941492 Z-0.125000
G01 X100.445118 Y152.292421 Z-0.125000
G01 X128.727591 Y145.176589 Z-0.125000
G01 X145.494446 Y149.576374 Z-0.125000
G01 X170.547024 Y145.690435 Z-0.125000
G00 Z3.000000

(End cutting path id: path14300)


(Start cutting path id: path14298)
(Change tool to Default tool)

G00 Z3.000000
G00 X15.886204 Y153.243108

G00 Z4.875000 (Fast pre-penetrate)
G01 Z-0.125000 F400.0(Penetrate)
G01 X39.188126 Y151.107825 Z-0.125000 F800.000000
G01 X58.834644 Y152.627947 Z-0.125000
G01 X80.693037 Y151.936195 Z-0.125000
G01 X101.027867 Y152.768004 Z-0.125000
G01 X128.677418 Y146.285094 Z-0.125000
G01 X145.610074 Y150.519078 Z-0.125000
G01 X170.427298 Y146.868494 Z-0.125000
G00 Z3.000000

(End cutting path id: path14298)


(Start cutting path id: path14296)
(Change tool to Default tool)

G00 Z3.000000
G00 X15.812239 Y154.375404

G00 Z4.875000 (Fast pre-penetrate)
G01 Z-0.125000 F400.0(Penetrate)
G01 X39.299759 Y152.054524 Z-0.125000 F800.000000
G01 X58.709981 Y153.810943 Z-0.125000
G01 X80.756669 Y152.930895 Z-0.125000
G01 X101.610617 Y153.243587 Z-0.125000
G01 X128.627242 Y147.393601 Z-0.125000
G01 X145.725702 Y151.461782 Z-0.125000
G01 X170.307571 Y148.046552 Z-0.125000
G00 Z3.000000

(End cutting path id: path14296)


(Start cutting path id: path14294)
(Change tool to Default tool)

G00 Z3.000000
G00 X15.738273 Y155.507703

G00 Z4.875000 (Fast pre-penetrate)
G01 Z-0.125000 F400.0(Penetrate)
G01 X39.411392 Y153.001223 Z-0.125000 F800.000000
G01 X58.585320 Y154.993936 Z-0.125000
G01 X80.820301 Y153.925594 Z-0.125000
G01 X102.193366 Y153.719169 Z-0.125000
G01 X128.577067 Y148.502109 Z-0.125000
G01 X145.841330 Y152.404486 Z-0.125000
G01 X170.187848 Y149.224608 Z-0.125000
G00 Z3.000000

(End cutting path id: path14294)


(Start cutting path id: path14196)
(Change tool to Default tool)

G00 Z3.000000
G00 X24.148231 Y198.956012

G00 Z4.875000 (Fast pre-penetrate)
G01 Z-0.125000 F400.0(Penetrate)
G01 X37.491427 Y206.779456 Z-0.125000 F800.000000
G01 X67.204646 Y198.232878 Z-0.125000
G01 X82.777443 Y203.826721 Z-0.125000
G01 X104.137996 Y203.632808 Z-0.125000
G01 X123.523884 Y205.413560 Z-0.125000
G01 X141.425974 Y208.678109 Z-0.125000
G01 X170.458788 Y200.811935 Z-0.125000
G00 Z3.000000

(End cutting path id: path14196)


(Start cutting path id: path14198)
(Change tool to Default tool)

G00 Z3.000000
G00 X23.872001 Y198.173910

G00 Z4.875000 (Fast pre-penetrate)
G01 Z-0.125000 F400.0(Penetrate)
G01 X37.841174 Y205.371377 Z-0.125000 F800.000000
G01 X67.139574 Y197.239617 Z-0.125000
G01 X82.618328 Y202.927504 Z-0.125000
G01 X104.109873 Y202.602598 Z-0.125000
G01 X123.563473 Y204.315638 Z-0.125000
G01 X141.571280 Y207.474471 Z-0.125000
G01 X170.481937 Y199.730455 Z-0.125000
G00 Z3.000000

(End cutting path id: path14198)


(Start cutting path id: path14200)
(Change tool to Default tool)

G00 Z3.000000
G00 X23.595771 Y197.391808

G00 Z4.875000 (Fast pre-penetrate)
G01 Z-0.125000 F400.0(Penetrate)
G01 X38.190924 Y203.963296 Z-0.125000 F800.000000
G01 X67.074503 Y196.246357 Z-0.125000
G01 X82.459213 Y202.028287 Z-0.125000
G01 X104.081751 Y201.572389 Z-0.125000
G01 X123.603063 Y203.217717 Z-0.125000
G01 X141.716589 Y206.270830 Z-0.125000
G01 X170.505083 Y198.648977 Z-0.125000
G00 Z3.000000

(End cutting path id: path14200)


(Start cutting path id: path14202)
(Change tool to Default tool)

G00 Z3.000000
G00 X23.319544 Y196.609704

G00 Z4.875000 (Fast pre-penetrate)
G01 Z-0.125000 F400.0(Penetrate)
G01 X38.540671 Y202.555217 Z-0.125000 F800.000000
G01 X67.009431 Y195.253097 Z-0.125000
G01 X82.300098 Y201.129070 Z-0.125000
G01 X104.053628 Y200.542179 Z-0.125000
G01 X123.642652 Y202.119795 Z-0.125000
G01 X141.861896 Y205.067192 Z-0.125000
G01 X170.528228 Y197.567499 Z-0.125000
G00 Z3.000000

(End cutting path id: path14202)


(Start cutting path id: path14204)
(Change tool to Default tool)

G00 Z3.000000
G00 X23.043314 Y195.827601

G00 Z4.875000 (Fast pre-penetrate)
G01 Z-0.125000 F400.0(Penetrate)
G01 X38.890418 Y201.147138 Z-0.125000 F800.000000
G01 X66.944359 Y194.259836 Z-0.125000
G01 X82.140983 Y200.229852 Z-0.125000
G01 X104.025508 Y199.511967 Z-0.125000
G01 X123.682242 Y201.021874 Z-0.125000
G01 X142.007202 Y203.863553 Z-0.125000
G01 X170.551377 Y196.486019 Z-0.125000
G00 Z3.000000

(End cutting path id: path14204)


(Start cutting path id: path14206)
(Change tool to Default tool)

G00 Z3.000000
G00 X22.767084 Y195.045499

G00 Z4.875000 (Fast pre-penetrate)
G01 Z-0.125000 F400.0(Penetrate)
G01 X39.240165 Y199.739059 Z-0.125000 F800.000000
G01 X66.879285 Y193.266578 Z-0.125000
G01 X81.981871 Y199.330633 Z-0.125000
G01 X103.997386 Y198.481758 Z-0.125000
G01 X123.721831 Y199.923952 Z-0.125000
G01 X142.152508 Y202.659915 Z-0.125000
G01 X170.574522 Y195.404541 Z-0.125000
G00 Z3.000000

(End cutting path id: path14206)


(Start cutting path id: path14208)
(Change tool to Default tool)

G00 Z3.000000
G00 X22.490854 Y194.263397

G00 Z4.875000 (Fast pre-penetrate)
G01 Z-0.125000 F400.0(Penetrate)
G01 X39.589914 Y198.330977 Z-0.125000 F800.000000
G01 X66.814214 Y192.273318 Z-0.125000
G01 X81.822756 Y198.431416 Z-0.125000
G01 X103.969263 Y197.451548 Z-0.125000
G01 X123.761421 Y198.826031 Z-0.125000
G01 X142.297815 Y201.456277 Z-0.125000
G01 X170.597671 Y194.323061 Z-0.125000
G00 Z3.000000

(End cutting path id: path14208)


(Start cutting path id: path14210)
(Change tool to Default tool)

G00 Z3.000000
G00 X22.214624 Y193.481295

G00 Z4.875000 (Fast pre-penetrate)
G01 Z-0.125000 F400.0(Penetrate)
G01 X39.939661 Y196.922898 Z-0.125000 F800.000000
G01 X66.749142 Y191.280057 Z-0.125000
G01 X81.663641 Y197.532199 Z-0.125000
G01 X103.941141 Y196.421339 Z-0.125000
G01 X123.801010 Y197.728109 Z-0.125000
G01 X142.443121 Y200.252638 Z-0.125000
G01 X170.620816 Y193.241583 Z-0.125000
G00 Z3.000000

(End cutting path id: path14210)


(Start cutting path id: path14212)
(Change tool to Default tool)

G00 Z3.000000
G00 X21.938394 Y192.699193

G00 Z4.875000 (Fast pre-penetrate)
G01 Z-0.125000 F400.0(Penetrate)
G01 X40.289408 Y195.514819 Z-0.125000 F800.000000
G01 X66.684071 Y190.286797 Z-0.125000
G01 X81.504526 Y196.632982 Z-0.125000
G01 X103.913018 Y195.391129 Z-0.125000
G01 X123.840597 Y196.630190 Z-0.125000
G01 X142.588427 Y199.049000 Z-0.125000
G01 X170.643962 Y192.160105 Z-0.125000
G00 Z3.000000

(End cutting path id: path14212)


(Start cutting path id: path14214)
(Change tool to Default tool)

G00 Z3.000000
G00 X21.662164 Y191.917091

G00 Z4.875000 (Fast pre-penetrate)
G01 Z-0.125000 F400.0(Penetrate)
G01 X40.639158 Y194.106738 Z-0.125000 F800.000000
G01 X66.618999 Y189.293536 Z-0.125000
G01 X81.345411 Y195.733764 Z-0.125000
G01 X103.884896 Y194.360920 Z-0.125000
G01 X123.880187 Y195.532269 Z-0.125000
G01 X142.733734 Y197.845362 Z-0.125000
G01 X170.667111 Y191.078625 Z-0.125000
G00 Z3.000000

(End cutting path id: path14214)


(Start cutting path id: path14216)
(Change tool to Default tool)

G00 Z3.000000
G00 X21.385934 Y191.134989

G00 Z4.875000 (Fast pre-penetrate)
G01 Z-0.125000 F400.0(Penetrate)
G01 X40.988905 Y192.698659 Z-0.125000 F800.000000
G01 X66.553928 Y188.300276 Z-0.125000
G01 X81.186299 Y194.834545 Z-0.125000
G01 X103.856773 Y193.330711 Z-0.125000
G01 X123.919776 Y194.434347 Z-0.125000
G01 X142.879040 Y196.641723 Z-0.125000
G01 X170.690256 Y189.997147 Z-0.125000
G00 Z3.000000

(End cutting path id: path14216)


(Start cutting path id: path14218)
(Change tool to Default tool)

G00 Z3.000000
G00 X21.109704 Y190.352887

G00 Z4.875000 (Fast pre-penetrate)
G01 Z-0.125000 F400.0(Penetrate)
G01 X41.338652 Y191.290580 Z-0.125000 F800.000000
G01 X66.488856 Y187.307015 Z-0.125000
G01 X81.027184 Y193.935328 Z-0.125000
G01 X103.828653 Y192.300498 Z-0.125000
G01 X123.959366 Y193.336426 Z-0.125000
G01 X143.024346 Y195.438085 Z-0.125000
G01 X170.713405 Y188.915667 Z-0.125000
G00 Z3.000000

(End cutting path id: path14218)


(Start cutting path id: path14220)
(Change tool to Default tool)

G00 Z3.000000
G00 X20.833475 Y189.570785

G00 Z4.875000 (Fast pre-penetrate)
G01 Z-0.125000 F400.0(Penetrate)
G01 X41.688399 Y189.882501 Z-0.125000 F800.000000
G01 X66.423782 Y186.313758 Z-0.125000
G01 X80.868069 Y193.036111 Z-0.125000
G01 X103.800531 Y191.270289 Z-0.125000
G01 X123.998956 Y192.238504 Z-0.125000
G01 X143.169655 Y194.234444 Z-0.125000
G01 X170.736550 Y187.834189 Z-0.125000
G00 Z3.000000

(End cutting path id: path14220)


(Start cutting path id: path14222)
(Change tool to Default tool)

G00 Z3.000000
G00 X20.557246 Y188.788683

G00 Z4.875000 (Fast pre-penetrate)
G01 Z-0.125000 F400.0(Penetrate)
G01 X42.038148 Y188.474419 Z-0.125000 F800.000000
G01 X66.358710 Y185.320497 Z-0.125000
G01 X80.708954 Y192.136893 Z-0.125000
G01 X103.772408 Y190.240079 Z-0.125000
G01 X124.038545 Y191.140582 Z-0.125000
G01 X143.314962 Y193.030806 Z-0.125000
G01 X170.759696 Y186.752711 Z-0.125000
G00 Z3.000000

(End cutting path id: path14222)


(Start cutting path id: path14224)
(Change tool to Default tool)

G00 Z3.000000
G00 X20.281016 Y188.006581

G00 Z4.875000 (Fast pre-penetrate)
G01 Z-0.125000 F400.0(Penetrate)
G01 X42.387895 Y187.066340 Z-0.125000 F800.000000
G01 X66.293639 Y184.327237 Z-0.125000
G01 X80.549842 Y191.237674 Z-0.125000
G01 X103.744286 Y189.209870 Z-0.125000
G01 X124.078135 Y190.042661 Z-0.125000
G01 X143.460268 Y191.827167 Z-0.125000
G01 X170.782844 Y185.671231 Z-0.125000
G00 Z3.000000

(End cutting path id: path14224)


(Start cutting path id: path14226)
(Change tool to Default tool)

G00 Z3.000000
G00 X20.004786 Y187.224476

G00 Z4.875000 (Fast pre-penetrate)
G01 Z-0.125000 F400.0(Penetrate)
G01 X42.737642 Y185.658261 Z-0.125000 F800.000000
G01 X66.228567 Y183.333976 Z-0.125000
G01 X80.390727 Y190.338457 Z-0.125000
G01 X103.716163 Y188.179661 Z-0.125000
G01 X124.117724 Y188.944739 Z-0.125000
G01 X143.605574 Y190.623529 Z-0.125000
G01 X170.805990 Y184.589753 Z-0.125000
G00 Z3.000000

(End cutting path id: path14226)


(Start cutting path id: path14228)
(Change tool to Default tool)

G00 Z3.000000
G00 X19.728556 Y186.442374

G00 Z4.875000 (Fast pre-penetrate)
G01 Z-0.125000 F400.0(Penetrate)
G01 X43.087392 Y184.250180 Z-0.125000 F800.000000
G01 X66.163496 Y182.340716 Z-0.125000
G01 X80.231612 Y189.439240 Z-0.125000
G01 X103.688040 Y187.149451 Z-0.125000
G01 X124.157314 Y187.846818 Z-0.125000
G01 X143.750881 Y189.419891 Z-0.125000
G01 X170.829138 Y183.508273 Z-0.125000
G00 Z3.000000

(End cutting path id: path14228)


(Start cutting path id: path14230)
(Change tool to Default tool)

G00 Z3.000000
G00 X19.452327 Y185.660272

G00 Z4.875000 (Fast pre-penetrate)
G01 Z-0.125000 F400.0(Penetrate)
G01 X43.437139 Y182.842101 Z-0.125000 F800.000000
G01 X66.098424 Y181.347455 Z-0.125000
G01 X80.072497 Y188.540023 Z-0.125000
G01 X103.659921 Y186.119239 Z-0.125000
G01 X124.196903 Y186.748896 Z-0.125000
G01 X143.896187 Y188.216252 Z-0.125000
G01 X170.852284 Y182.426795 Z-0.125000
G00 Z3.000000

(End cutting path id: path14230)


(Start cutting path id: path14232)
(Change tool to Default tool)

G00 Z3.000000
G00 X19.176097 Y184.878170

G00 Z4.875000 (Fast pre-penetrate)
G01 Z-0.125000 F400.0(Penetrate)
G01 X43.786886 Y181.434022 Z-0.125000 F800.000000
G01 X66.033350 Y180.354198 Z-0.125000
G01 X79.913382 Y187.640805 Z-0.125000
G01 X103.631798 Y185.089029 Z-0.125000
G01 X124.236493 Y185.650975 Z-0.125000
G01 X144.041494 Y187.012614 Z-0.125000
G01 X170.875430 Y181.345318 Z-0.125000
G00 Z3.000000

(End cutting path id: path14232)


(Start cutting path id: path14234)
(Change tool to Default tool)

G00 Z3.000000
G00 X18.899867 Y184.096068

G00 Z4.875000 (Fast pre-penetrate)
G01 Z-0.125000 F400.0(Penetrate)
G01 X44.136635 Y180.025940 Z-0.125000 F800.000000
G01 X65.968278 Y179.360937 Z-0.125000
G01 X79.754270 Y186.741586 Z-0.125000
G01 X103.603676 Y184.058820 Z-0.125000
G01 X124.276082 Y184.553053 Z-0.125000
G01 X144.186800 Y185.808976 Z-0.125000
G01 X170.898578 Y180.263837 Z-0.125000
G00 Z3.000000

(End cutting path id: path14234)


(Start cutting path id: path14236)
(Change tool to Default tool)

G00 Z3.000000
G00 X18.623637 Y183.313966

G00 Z4.875000 (Fast pre-penetrate)
G01 Z-0.125000 F400.0(Penetrate)
G01 X44.486382 Y178.617861 Z-0.125000 F800.000000
G01 X65.903207 Y178.367677 Z-0.125000
G01 X79.595155 Y185.842369 Z-0.125000
G01 X103.575553 Y183.028610 Z-0.125000
G01 X124.315672 Y183.455132 Z-0.125000
G01 X144.332106 Y184.605337 Z-0.125000
G01 X170.921724 Y179.182359 Z-0.125000
G00 Z3.000000

(End cutting path id: path14236)


(Start cutting path id: path14238)
(Change tool to Default tool)

G00 Z3.000000
G00 X18.446085 Y182.433188

G00 Z4.875000 (Fast pre-penetrate)
G01 Z-0.125000 F400.0(Penetrate)
G01 X44.282868 Y177.763044 Z-0.125000 F800.000000
G01 X65.481215 Y177.731336 Z-0.125000
G01 X79.685047 Y184.694145 Z-0.125000
G01 X103.768680 Y181.777151 Z-0.125000
G01 X124.506164 Y182.206308 Z-0.125000
G01 X144.459601 Y183.419511 Z-0.125000
G01 X170.831155 Y178.214597 Z-0.125000
G00 Z3.000000

(End cutting path id: path14238)


(Start cutting path id: path14240)
(Change tool to Default tool)

G00 Z3.000000
G00 X18.268532 Y181.552407

G00 Z4.875000 (Fast pre-penetrate)
G01 Z-0.125000 F400.0(Penetrate)
G01 X44.079353 Y176.908226 Z-0.125000 F800.000000
G01 X65.059221 Y177.094998 Z-0.125000
G01 X79.774936 Y183.545923 Z-0.125000
G01 X103.961810 Y180.525690 Z-0.125000
G01 X124.696656 Y180.957484 Z-0.125000
G01 X144.587095 Y182.233684 Z-0.125000
G01 X170.740585 Y177.246834 Z-0.125000
G00 Z3.000000

(End cutting path id: path14240)


(Start cutting path id: path14242)
(Change tool to Default tool)

G00 Z3.000000
G00 X18.090980 Y180.671628

G00 Z4.875000 (Fast pre-penetrate)
G01 Z-0.125000 F400.0(Penetrate)
G01 X43.875839 Y176.053409 Z-0.125000 F800.000000
G01 X64.637230 Y176.458657 Z-0.125000
G01 X79.864828 Y182.397699 Z-0.125000
G01 X104.154937 Y179.274231 Z-0.125000
G01 X124.887147 Y179.708660 Z-0.125000
G01 X144.714587 Y181.047860 Z-0.125000
G01 X170.650013 Y176.279074 Z-0.125000
G00 Z3.000000

(End cutting path id: path14242)


(Start cutting path id: path14244)
(Change tool to Default tool)

G00 Z3.000000
G00 X17.913427 Y179.790847

G00 Z4.875000 (Fast pre-penetrate)
G01 Z-0.125000 F400.0(Penetrate)
G01 X43.672324 Y175.198591 Z-0.125000 F800.000000
G01 X64.215236 Y175.822319 Z-0.125000
G01 X79.954720 Y181.249475 Z-0.125000
G01 X104.348067 Y178.022769 Z-0.125000
G01 X125.077637 Y178.459839 Z-0.125000
G01 X144.842082 Y179.862034 Z-0.125000
G01 X170.559444 Y175.311312 Z-0.125000
G00 Z3.000000

(End cutting path id: path14244)


(Start cutting path id: path14246)
(Change tool to Default tool)

G00 Z3.000000
G00 X17.735874 Y178.910069

G00 Z4.875000 (Fast pre-penetrate)
G01 Z-0.125000 F400.0(Penetrate)
G01 X43.468809 Y174.343774 Z-0.125000 F800.000000
G01 X63.793245 Y175.185979 Z-0.125000
G01 X80.044613 Y180.101251 Z-0.125000
G01 X104.541194 Y176.771310 Z-0.125000
G01 X125.268128 Y177.211015 Z-0.125000
G01 X144.969574 Y178.676210 Z-0.125000
G01 X170.468872 Y174.343552 Z-0.125000
G00 Z3.000000

(End cutting path id: path14246)


(Start cutting path id: path14248)
(Change tool to Default tool)

G00 Z3.000000
G00 X17.558322 Y178.029291

G00 Z4.875000 (Fast pre-penetrate)
G01 Z-0.125000 F400.0(Penetrate)
G01 X43.265295 Y173.488957 Z-0.125000 F800.000000
G01 X63.371251 Y174.549641 Z-0.125000
G01 X80.134502 Y178.953030 Z-0.125000
G01 X104.734321 Y175.519851 Z-0.125000
G01 X125.458620 Y175.962191 Z-0.125000
G01 X145.097069 Y177.490383 Z-0.125000
G01 X170.378302 Y173.375789 Z-0.125000
G00 Z3.000000

(End cutting path id: path14248)


(Start cutting path id: path14250)
(Change tool to Default tool)

G00 Z3.000000
G00 X17.380769 Y177.148510

G00 Z4.875000 (Fast pre-penetrate)
G01 Z-0.125000 F400.0(Penetrate)
G01 X43.061780 Y172.634139 Z-0.125000 F800.000000
G01 X62.949259 Y173.913300 Z-0.125000
G01 X80.224394 Y177.804805 Z-0.125000
G01 X104.927450 Y174.268389 Z-0.125000
G01 X125.649112 Y174.713367 Z-0.125000
G01 X145.224561 Y176.304559 Z-0.125000
G01 X170.287733 Y172.408027 Z-0.125000
G00 Z3.000000

(End cutting path id: path14250)


(Start cutting path id: path14252)
(Change tool to Default tool)

G00 Z3.000000
G00 X17.203216 Y176.267732

G00 Z4.875000 (Fast pre-penetrate)
G01 Z-0.125000 F400.0(Penetrate)
G01 X42.858266 Y171.779322 Z-0.125000 F800.000000
G01 X62.527265 Y173.276962 Z-0.125000
G01 X80.314286 Y176.656581 Z-0.125000
G01 X105.120577 Y173.016930 Z-0.125000
G01 X125.839601 Y173.464546 Z-0.125000
G01 X145.352055 Y175.118732 Z-0.125000
G01 X170.197161 Y171.440267 Z-0.125000
G00 Z3.000000

(End cutting path id: path14252)


(Start cutting path id: path14254)
(Change tool to Default tool)

G00 Z3.000000
G00 X17.025664 Y175.386951

G00 Z4.875000 (Fast pre-penetrate)
G01 Z-0.125000 F400.0(Penetrate)
G01 X42.654751 Y170.924504 Z-0.125000 F800.000000
G01 X62.105274 Y172.640622 Z-0.125000
G01 X80.404178 Y175.508357 Z-0.125000
G01 X105.313705 Y171.765471 Z-0.125000
G01 X126.030093 Y172.215722 Z-0.125000
G01 X145.479547 Y173.932908 Z-0.125000
G01 X170.106591 Y170.472504 Z-0.125000
G00 Z3.000000

(End cutting path id: path14254)


(Start cutting path id: path14256)
(Change tool to Default tool)

G00 Z3.000000
G00 X16.848111 Y174.506172

G00 Z4.875000 (Fast pre-penetrate)
G01 Z-0.125000 F400.0(Penetrate)
G01 X42.451236 Y170.069687 Z-0.125000 F800.000000
G01 X61.683280 Y172.004284 Z-0.125000
G01 X80.494068 Y174.360136 Z-0.125000
G01 X105.506834 Y170.514009 Z-0.125000
G01 X126.220585 Y170.966899 Z-0.125000
G01 X145.607042 Y172.747082 Z-0.125000
G01 X170.016022 Y169.504741 Z-0.125000
G00 Z3.000000

(End cutting path id: path14256)


(Start cutting path id: path14258)
(Change tool to Default tool)

G00 Z3.000000
G00 X16.670558 Y173.625394

G00 Z4.875000 (Fast pre-penetrate)
G01 Z-0.125000 F400.0(Penetrate)
G01 X42.247722 Y169.214870 Z-0.125000 F800.000000
G01 X61.261289 Y171.367943 Z-0.125000
G01 X80.583960 Y173.211912 Z-0.125000
G01 X105.699961 Y169.262550 Z-0.125000
G01 X126.411077 Y169.718075 Z-0.125000
G01 X145.734536 Y171.561255 Z-0.125000
G01 X169.925450 Y168.536982 Z-0.125000
G00 Z3.000000

(End cutting path id: path14258)


(Start cutting path id: path14260)
(Change tool to Default tool)

G00 Z3.000000
G00 X16.493006 Y172.744613

G00 Z4.875000 (Fast pre-penetrate)
G01 Z-0.125000 F400.0(Penetrate)
G01 X42.044207 Y168.360052 Z-0.125000 F800.000000
G01 X60.839295 Y170.731605 Z-0.125000
G01 X80.673852 Y172.063688 Z-0.125000
G01 X105.893091 Y168.011088 Z-0.125000
G01 X126.601566 Y168.469254 Z-0.125000
G01 X145.862028 Y170.375431 Z-0.125000
G01 X169.834881 Y167.569219 Z-0.125000
G00 Z3.000000

(End cutting path id: path14260)


(Start cutting path id: path14262)
(Change tool to Default tool)

G00 Z3.000000
G00 X16.315453 Y171.863835

G00 Z4.875000 (Fast pre-penetrate)
G01 Z-0.125000 F400.0(Penetrate)
G01 X41.840693 Y167.505235 Z-0.125000 F800.000000
G01 X60.417301 Y170.095267 Z-0.125000
G01 X80.763744 Y170.915464 Z-0.125000
G01 X106.086218 Y166.759629 Z-0.125000
G01 X126.792058 Y167.220430 Z-0.125000
G01 X145.989523 Y169.189605 Z-0.125000
G01 X169.744311 Y166.601456 Z-0.125000
G00 Z3.000000

(End cutting path id: path14262)


(Start cutting path id: path14264)
(Change tool to Default tool)

G00 Z3.000000
G00 X16.137900 Y170.983054

G00 Z4.875000 (Fast pre-penetrate)
G01 Z-0.125000 F400.0(Penetrate)
G01 X41.637178 Y166.650417 Z-0.125000 F800.000000
G01 X59.995309 Y169.458926 Z-0.125000
G01 X80.853636 Y169.767240 Z-0.125000
G01 X106.279345 Y165.508170 Z-0.125000
G01 X126.982550 Y165.971606 Z-0.125000
G01 X146.117015 Y168.003781 Z-0.125000
G01 X169.653739 Y165.633696 Z-0.125000
G00 Z3.000000

(End cutting path id: path14264)


(Start cutting path id: path14266)
(Change tool to Default tool)

G00 Z3.000000
G00 X15.960348 Y170.102276

G00 Z4.875000 (Fast pre-penetrate)
G01 Z-0.125000 F400.0(Penetrate)
G01 X41.433663 Y165.795600 Z-0.125000 F800.000000
G01 X59.573315 Y168.822588 Z-0.125000
G01 X80.943525 Y168.619018 Z-0.125000
G01 X106.472475 Y164.256709 Z-0.125000
G01 X127.173041 Y164.722782 Z-0.125000
G01 X146.244509 Y166.817954 Z-0.125000
G01 X169.563170 Y164.665934 Z-0.125000
G00 Z3.000000

(End cutting path id: path14266)


(Start cutting path id: path14268)
(Change tool to Default tool)

G00 Z3.000000
G00 X15.782795 Y169.221497

G00 Z4.875000 (Fast pre-penetrate)
G01 Z-0.125000 F400.0(Penetrate)
G01 X41.230149 Y164.940783 Z-0.125000 F800.000000
G01 X59.151324 Y168.186248 Z-0.125000
G01 X81.033417 Y167.470794 Z-0.125000
G01 X106.665602 Y163.005250 Z-0.125000
G01 X127.363531 Y163.473961 Z-0.125000
G01 X146.372001 Y165.632130 Z-0.125000
G01 X169.472600 Y163.698171 Z-0.125000
G00 Z3.000000

(End cutting path id: path14268)


(Start cutting path id: path14270)
(Change tool to Default tool)

G00 Z3.000000
G00 X15.605242 Y168.340717

G00 Z4.875000 (Fast pre-penetrate)
G01 Z-0.125000 F400.0(Penetrate)
G01 X41.026634 Y164.085965 Z-0.125000 F800.000000
G01 X58.729330 Y167.549910 Z-0.125000
G01 X81.123310 Y166.322570 Z-0.125000
G01 X106.858732 Y161.753788 Z-0.125000
G01 X127.554022 Y162.225137 Z-0.125000
G01 X146.499496 Y164.446303 Z-0.125000
G01 X169.382028 Y162.730411 Z-0.125000
G00 Z3.000000

(End cutting path id: path14270)


(Start cutting path id: path14292)
(Change tool to Default tool)

G00 Z3.000000
G00 X15.664308 Y156.639999

G00 Z4.875000 (Fast pre-penetrate)
G01 Z-0.125000 F400.0(Penetrate)
G01 X39.523025 Y153.947923 Z-0.125000 F800.000000
G01 X58.460656 Y156.176931 Z-0.125000
G01 X80.883933 Y154.920294 Z-0.125000
G01 X102.776115 Y154.194752 Z-0.125000
G01 X128.526894 Y149.610613 Z-0.125000
G01 X145.956955 Y153.347192 Z-0.125000
G01 X170.068121 Y150.402666 Z-0.125000
G00 Z3.000000

(End cutting path id: path14292)


(Start cutting path id: path14290)
(Change tool to Default tool)

G00 Z3.000000
G00 X15.590343 Y157.772298

G00 Z4.875000 (Fast pre-penetrate)
G01 Z-0.125000 F400.0(Penetrate)
G01 X39.634658 Y154.894622 Z-0.125000 F800.000000
G01 X58.335993 Y157.359927 Z-0.125000
G01 X80.947563 Y155.914997 Z-0.125000
G01 X103.358865 Y154.670335 Z-0.125000
G01 X128.476719 Y150.719121 Z-0.125000
G01 X146.072583 Y154.289896 Z-0.125000
G01 X169.948397 Y151.580722 Z-0.125000
G00 Z3.000000

(End cutting path id: path14290)


(Start cutting path id: path14288)
(Change tool to Default tool)

G00 Z3.000000
G00 X15.516377 Y158.904594

G00 Z4.875000 (Fast pre-penetrate)
G01 Z-0.125000 F400.0(Penetrate)
G01 X39.746291 Y155.841321 Z-0.125000 F800.000000
G01 X58.211329 Y158.542922 Z-0.125000
G01 X81.011195 Y156.909696 Z-0.125000
G01 X103.941617 Y155.145915 Z-0.125000
G01 X128.426543 Y151.827628 Z-0.125000
G01 X146.188211 Y155.232600 Z-0.125000
G01 X169.828671 Y152.758781 Z-0.125000
G00 Z3.000000

(End cutting path id: path14288)


(Start cutting path id: path14286)
(Change tool to Default tool)

G00 Z3.000000
G00 X15.442412 Y160.036893

G00 Z4.875000 (Fast pre-penetrate)
G01 Z-0.125000 F400.0(Penetrate)
G01 X39.857926 Y156.788017 Z-0.125000 F800.000000
G01 X58.086668 Y159.725915 Z-0.125000
G01 X81.074827 Y157.904396 Z-0.125000
G01 X104.524366 Y155.621497 Z-0.125000
G01 X128.376370 Y152.936133 Z-0.125000
G01 X146.303840 Y156.175304 Z-0.125000
G01 X169.708944 Y153.936839 Z-0.125000
G00 Z3.000000

(End cutting path id: path14286)


(Start cutting path id: path14284)
(Change tool to Default tool)

G00 Z3.000000
G00 X15.368446 Y161.169189

G00 Z4.875000 (Fast pre-penetrate)
G01 Z-0.125000 F400.0(Penetrate)
G01 X39.969559 Y157.734716 Z-0.125000 F800.000000
G01 X57.962005 Y160.908911 Z-0.125000
G01 X81.138457 Y158.899099 Z-0.125000
G01 X105.107116 Y156.097080 Z-0.125000
G01 X128.326195 Y154.044641 Z-0.125000
G01 X146.419465 Y157.118011 Z-0.125000
G01 X169.589221 Y155.114895 Z-0.125000
G00 Z3.000000

(End cutting path id: path14284)


(Start cutting path id: path14282)
(Change tool to Default tool)

G00 Z3.000000
G00 X15.294481 Y162.301488

G00 Z4.875000 (Fast pre-penetrate)
G01 Z-0.125000 F400.0(Penetrate)
G01 X40.081192 Y158.681416 Z-0.125000 F800.000000
G01 X57.837341 Y162.091906 Z-0.125000
G01 X81.202089 Y159.893798 Z-0.125000
G01 X105.689865 Y156.572663 Z-0.125000
G01 X128.276019 Y155.153148 Z-0.125000
G01 X146.535093 Y158.060714 Z-0.125000
G01 X169.469494 Y156.292953 Z-0.125000
G00 Z3.000000

(End cutting path id: path14282)


(Start cutting path id: path14280)
(Change tool to Default tool)

G00 Z3.000000
G00 X15.220515 Y163.433784

G00 Z4.875000 (Fast pre-penetrate)
G01 Z-0.125000 F400.0(Penetrate)
G01 X40.192825 Y159.628115 Z-0.125000 F800.000000
G01 X57.712678 Y163.274902 Z-0.125000
G01 X81.265721 Y160.888498 Z-0.125000
G01 X106.272614 Y157.048245 Z-0.125000
G01 X128.225846 Y156.261653 Z-0.125000
G01 X146.650721 Y159.003418 Z-0.125000
G01 X169.349770 Y157.471009 Z-0.125000
G00 Z3.000000

(End cutting path id: path14280)


(Start cutting path id: path14272)
(Change tool to Default tool)

G00 Z3.000000
G00 X15.427690 Y167.459938

G00 Z4.875000 (Fast pre-penetrate)
G01 Z-0.125000 F400.0(Penetrate)
G01 X40.823120 Y163.231148 Z-0.125000 F800.000000
G01 X58.307338 Y166.913569 Z-0.125000
G01 X81.213202 Y165.174346 Z-0.125000
G01 X107.051859 Y160.502329 Z-0.125000
G01 X127.744514 Y160.976313 Z-0.125000
G01 X146.626988 Y163.260479 Z-0.125000
G01 X169.291459 Y161.762649 Z-0.125000
G00 Z3.000000

(End cutting path id: path14272)


(Start cutting path id: path14274)
(Change tool to Default tool)

G00 Z3.000000
G00 X15.250137 Y166.579157

G00 Z4.875000 (Fast pre-penetrate)
G01 Z-0.125000 F400.0(Penetrate)
G01 X40.619605 Y162.376330 Z-0.125000 F800.000000
G01 X57.885344 Y166.277231 Z-0.125000
G01 X81.303091 Y164.026124 Z-0.125000
G01 X107.244986 Y159.250870 Z-0.125000
G01 X127.935006 Y159.727489 Z-0.125000
G01 X146.754483 Y162.074653 Z-0.125000
G01 X169.200889 Y160.794886 Z-0.125000
G00 Z3.000000

(End cutting path id: path14274)


(Start cutting path id: path14278)
(Change tool to Default tool)

G00 Z3.000000
G00 X15.146550 Y164.566083

G00 Z4.875000 (Fast pre-penetrate)
G01 Z-0.125000 F400.0(Penetrate)
G01 X40.304458 Y160.574814 Z-0.125000 F800.000000
G01 X57.588017 Y164.457895 Z-0.125000
G01 X81.329351 Y161.883201 Z-0.125000
G01 X106.855364 Y157.523828 Z-0.125000
G01 X128.175671 Y157.370161 Z-0.125000
G01 X146.766349 Y159.946122 Z-0.125000
G01 X169.230044 Y158.649068 Z-0.125000
G00 Z3.000000

(End cutting path id: path14278)


(Start cutting path id: path14276)
(Change tool to Default tool)

G00 Z3.000000
G00 X15.072584 Y165.698379

G00 Z4.875000 (Fast pre-penetrate)
G01 Z-0.125000 F400.0(Penetrate)
G01 X40.416090 Y161.521513 Z-0.125000 F800.000000
G01 X57.463353 Y165.640890 Z-0.125000
G01 X81.392983 Y162.877900 Z-0.125000
G01 X107.438116 Y157.999408 Z-0.125000
G01 X128.125495 Y158.478668 Z-0.125000
G01 X146.881977 Y160.888826 Z-0.125000
G01 X169.110317 Y159.827126 Z-0.125000
G00 Z3.000000

(End cutting path id: path14276)


(Start cutting path id: path14380)
(Change tool to Default tool)

G00 Z3.000000
G00 X17.934312 Y107.803388

G00 Z4.875000 (Fast pre-penetrate)
G01 Z-0.125000 F400.0(Penetrate)
G01 X38.409342 Y108.494997 Z-0.125000 F800.000000
G01 X58.005523 Y110.065456 Z-0.125000
G01 X83.730156 Y105.507464 Z-0.125000
G01 X101.381006 Y109.023253 Z-0.125000
G01 X123.637686 Y107.933214 Z-0.125000
G01 X144.821714 Y107.915830 Z-0.125000
G01 X168.205774 Y105.698411 Z-0.125000
G00 Z3.000000

(End cutting path id: path14380)


(Start cutting path id: path14382)
(Change tool to Default tool)

G00 Z3.000000
G00 X17.701917 Y106.977450

G00 Z4.875000 (Fast pre-penetrate)
G01 Z-0.125000 F400.0(Penetrate)
G01 X38.296246 Y107.549761 Z-0.125000 F800.000000
G01 X58.059845 Y108.952803 Z-0.125000
G01 X83.953684 Y104.225604 Z-0.125000
G01 X101.714529 Y107.631398 Z-0.125000
G01 X123.367568 Y107.145000 Z-0.125000
G01 X145.328264 Y106.350944 Z-0.125000
G01 X168.533534 Y104.312313 Z-0.125000
G00 Z3.000000

(End cutting path id: path14382)


(Start cutting path id: path14384)
(Change tool to Default tool)

G00 Z3.000000
G00 X17.469521 Y106.151514

G00 Z4.875000 (Fast pre-penetrate)
G01 Z-0.125000 F400.0(Penetrate)
G01 X38.183150 Y106.604525 Z-0.125000 F800.000000
G01 X58.114166 Y107.840149 Z-0.125000
G01 X84.177211 Y102.943744 Z-0.125000
G01 X102.048049 Y106.239546 Z-0.125000
G01 X123.097447 Y106.356788 Z-0.125000
G01 X145.834813 Y104.786062 Z-0.125000
G01 X168.861297 Y102.926218 Z-0.125000
G00 Z3.000000

(End cutting path id: path14384)


(Start cutting path id: path14412)
(Change tool to Default tool)

G00 Z3.000000
G00 X17.796978 Y91.007410

G00 Z4.875000 (Fast pre-penetrate)
G01 Z-0.125000 F400.0(Penetrate)
G01 X36.229379 Y93.741648 Z-0.125000 F800.000000
G01 X59.633799 Y91.503869 Z-0.125000
G01 X84.089065 Y88.215242 Z-0.125000
G01 X102.019604 Y91.451344 Z-0.125000
G01 X122.770232 Y91.867355 Z-0.125000
G01 X149.227622 Y86.576606 Z-0.125000
G01 X168.022670 Y88.948198 Z-0.125000
G00 Z3.000000

(End cutting path id: path14412)


(Start cutting path id: path14410)
(Change tool to Default tool)

G00 Z3.000000
G00 X17.581749 Y92.280970

G00 Z4.875000 (Fast pre-penetrate)
G01 Z-0.125000 F400.0(Penetrate)
G01 X36.388777 Y94.640582 Z-0.125000 F800.000000
G01 X59.484585 Y92.711415 Z-0.125000
G01 X84.267728 Y89.094912 Z-0.125000
G01 X102.273302 Y92.255978 Z-0.125000
G01 X122.608545 Y93.087374 Z-0.125000
G01 X149.183431 Y87.679128 Z-0.125000
G01 X168.373316 Y89.655883 Z-0.125000
G00 Z3.000000

(End cutting path id: path14410)


(Start cutting path id: path14408)
(Change tool to Default tool)

G00 Z3.000000
G00 X17.366520 Y93.554530

G00 Z4.875000 (Fast pre-penetrate)
G01 Z-0.125000 F400.0(Penetrate)
G01 X36.548178 Y95.539513 Z-0.125000 F800.000000
G01 X59.335370 Y93.918961 Z-0.125000
G01 X84.446393 Y89.974579 Z-0.125000
G01 X102.526997 Y93.060614 Z-0.125000
G01 X122.446856 Y94.307395 Z-0.125000
G01 X149.139243 Y88.781648 Z-0.125000
G01 X168.723965 Y90.363566 Z-0.125000
G00 Z3.000000

(End cutting path id: path14408)


(Start cutting path id: path14406)
(Change tool to Default tool)

G00 Z3.000000
G00 X17.151292 Y94.828092

G00 Z4.875000 (Fast pre-penetrate)
G01 Z-0.125000 F400.0(Penetrate)
G01 X36.707576 Y96.438447 Z-0.125000 F800.000000
G01 X59.186159 Y95.126505 Z-0.125000
G01 X84.625058 Y90.854246 Z-0.125000
G01 X102.780695 Y93.865248 Z-0.125000
G01 X122.285169 Y95.527414 Z-0.125000
G01 X149.095053 Y89.884171 Z-0.125000
G01 X169.074615 Y91.071249 Z-0.125000
G00 Z3.000000

(End cutting path id: path14406)


(Start cutting path id: path14404)
(Change tool to Default tool)

G00 Z3.000000
G00 X16.936063 Y96.101652

G00 Z4.875000 (Fast pre-penetrate)
G01 Z-0.125000 F400.0(Penetrate)
G01 X36.866974 Y97.337381 Z-0.125000 F800.000000
G01 X59.036945 Y96.334051 Z-0.125000
G01 X84.803720 Y91.733916 Z-0.125000
G01 X103.034391 Y94.669885 Z-0.125000
G01 X122.123480 Y96.747435 Z-0.125000
G01 X149.050862 Y90.986694 Z-0.125000
G01 X169.425264 Y91.778932 Z-0.125000
G00 Z3.000000

(End cutting path id: path14404)


(Start cutting path id: path14386)
(Change tool to Default tool)

G00 Z3.000000
G00 X17.237126 Y105.325579

G00 Z4.875000 (Fast pre-penetrate)
G01 Z-0.125000 F400.0(Penetrate)
G01 X38.070054 Y105.659289 Z-0.125000 F800.000000
G01 X58.168485 Y106.727498 Z-0.125000
G01 X84.400739 Y101.661885 Z-0.125000
G01 X102.381572 Y104.847692 Z-0.125000
G01 X122.827326 Y105.568577 Z-0.125000
G01 X146.341360 Y103.221183 Z-0.125000
G01 X169.189057 Y101.540126 Z-0.125000
G00 Z3.000000

(End cutting path id: path14386)


(Start cutting path id: path14388)
(Change tool to Default tool)

G00 Z3.000000
G00 X17.004730 Y104.499641

G00 Z4.875000 (Fast pre-penetrate)
G01 Z-0.125000 F400.0(Penetrate)
G01 X37.956956 Y104.714056 Z-0.125000 F800.000000
G01 X58.222807 Y105.614845 Z-0.125000
G01 X84.624266 Y100.380025 Z-0.125000
G01 X102.715092 Y103.455839 Z-0.125000
G01 X122.557208 Y104.780363 Z-0.125000
G01 X146.847910 Y101.656302 Z-0.125000
G01 X169.516817 Y100.154034 Z-0.125000
G00 Z3.000000

(End cutting path id: path14388)


(Start cutting path id: path14390)
(Change tool to Default tool)

G00 Z3.000000
G00 X16.772335 Y103.673705

G00 Z4.875000 (Fast pre-penetrate)
G01 Z-0.125000 F400.0(Penetrate)
G01 X37.843860 Y103.768820 Z-0.125000 F800.000000
G01 X58.277128 Y104.502191 Z-0.125000
G01 X84.847794 Y99.098165 Z-0.125000
G01 X103.048615 Y102.063985 Z-0.125000
G01 X122.287088 Y103.992152 Z-0.125000
G01 X147.354459 Y100.091421 Z-0.125000
G01 X169.844578 Y98.767942 Z-0.125000
G00 Z3.000000

(End cutting path id: path14390)


(Start cutting path id: path14402)
(Change tool to Default tool)

G00 Z3.000000
G00 X16.720834 Y97.375214

G00 Z4.875000 (Fast pre-penetrate)
G01 Z-0.125000 F400.0(Penetrate)
G01 X37.026375 Y98.236313 Z-0.125000 F800.000000
G01 X58.887733 Y97.541594 Z-0.125000
G01 X84.982385 Y92.613583 Z-0.125000
G01 X103.288089 Y95.474519 Z-0.125000
G01 X121.961793 Y97.967454 Z-0.125000
G01 X149.006674 Y92.089214 Z-0.125000
G01 X169.775913 Y92.486615 Z-0.125000
G00 Z3.000000

(End cutting path id: path14402)


(Start cutting path id: path14400)
(Change tool to Default tool)

G00 Z3.000000
G00 X16.505606 Y98.648774

G00 Z4.875000 (Fast pre-penetrate)
G01 Z-0.125000 F400.0(Penetrate)
G01 X37.185773 Y99.135247 Z-0.125000 F800.000000
G01 X58.738519 Y98.749141 Z-0.125000
G01 X85.161047 Y93.493252 Z-0.125000
G01 X103.541784 Y96.279155 Z-0.125000
G01 X121.800104 Y99.187475 Z-0.125000
G01 X148.962483 Y93.191736 Z-0.125000
G01 X170.126562 Y93.194382 Z-0.125000
G00 Z3.000000

(End cutting path id: path14400)


(Start cutting path id: path14392)
(Change tool to Default tool)

G00 Z3.000000
G00 X16.539939 Y102.847770

G00 Z4.875000 (Fast pre-penetrate)
G01 Z-0.125000 F400.0(Penetrate)
G01 X37.730764 Y102.823587 Z-0.125000 F800.000000
G01 X58.331450 Y103.389540 Z-0.125000
G01 X85.071322 Y97.816308 Z-0.125000
G01 X103.382135 Y100.672135 Z-0.125000
G01 X122.016970 Y103.203941 Z-0.125000
G01 X147.861006 Y98.526544 Z-0.125000
G01 X170.172338 Y97.381852 Z-0.125000
G00 Z3.000000

(End cutting path id: path14392)


(Start cutting path id: path14398)
(Change tool to Default tool)

G00 Z3.000000
G00 X16.290377 Y99.922333

G00 Z4.875000 (Fast pre-penetrate)
G01 Z-0.125000 F400.0(Penetrate)
G01 X37.345171 Y100.034181 Z-0.125000 F800.000000
G01 X58.589305 Y99.956687 Z-0.125000
G01 X85.339712 Y94.372919 Z-0.125000
G01 X103.795482 Y97.083789 Z-0.125000
G01 X121.638417 Y100.407494 Z-0.125000
G01 X148.918293 Y94.294259 Z-0.125000
G01 X170.477211 Y93.901980 Z-0.125000
G00 Z3.000000

(End cutting path id: path14398)


(Start cutting path id: path14394)
(Change tool to Default tool)

G00 Z3.000000
G00 X16.307544 Y102.021831

G00 Z4.875000 (Fast pre-penetrate)
G01 Z-0.125000 F400.0(Penetrate)
G01 X37.617668 Y101.878348 Z-0.125000 F800.000000
G01 X58.385771 Y102.276884 Z-0.125000
G01 X85.294849 Y96.534446 Z-0.125000
G01 X103.715658 Y99.280278 Z-0.125000
G01 X121.746849 Y102.415727 Z-0.125000
G01 X148.367555 Y96.961660 Z-0.125000
G01 X170.500098 Y95.995758 Z-0.125000
G00 Z3.000000

(End cutting path id: path14394)


(Start cutting path id: path14396)
(Change tool to Default tool)

G00 Z3.000000
G00 X16.075148 Y101.195896

G00 Z4.875000 (Fast pre-penetrate)
G01 Z-0.125000 F400.0(Penetrate)
G01 X37.504572 Y100.933112 Z-0.125000 F800.000000
G01 X58.440093 Y101.164231 Z-0.125000
G01 X85.518377 Y95.252586 Z-0.125000
G01 X104.049178 Y97.888426 Z-0.125000
G01 X121.476728 Y101.627515 Z-0.125000
G01 X148.874105 Y95.396779 Z-0.125000
G01 X170.827861 Y94.609663 Z-0.125000
G00 Z3.000000

(End cutting path id: path14396)



(Footer)
M5
G00 X0.0000 Y0.0000
M2
(Using default footer. To add your own footer create file "footer" in the output dir.)
(end)
%