%
(Header)
(Generated by gcodetools from Inkscape.)
(Using default header. To add your own header create file "header" in the output dir.)
M3
(Header end.)
G21 (All units in mm)

(Start cutting path id: polyline5936)
(Change tool to Default tool)

G00 Z3.000000
G00 X13.742601 Y213.080209

G00 Z4.875000 (Fast pre-penetrate)
G01 Z-0.125000 F400.0(Penetrate)
G01 X20.352413 Y212.779219 Z-0.125000 F800.000000
G01 X27.873952 Y212.665501 Z-0.125000
G01 X98.872604 Y212.656214 Z-0.125000
G01 X106.622055 Y212.776070 Z-0.125000
G01 X115.625074 Y213.270364 Z-0.125000
G01 X118.474157 Y213.337965 Z-0.125000
G01 X121.536890 Y213.194297 Z-0.125000
G01 X127.121047 Y212.478282 Z-0.125000
G01 X129.414558 Y212.348107 Z-0.125000
G01 X131.708043 Y212.540909 Z-0.125000
G01 X136.095596 Y213.519654 Z-0.125000
G01 X137.961753 Y213.702428 Z-0.125000
G01 X138.887688 Y213.642262 Z-0.125000
G01 X139.785153 Y213.479200 Z-0.125000
G01 X143.674126 Y212.165651 Z-0.125000
G01 X144.571565 Y211.976818 Z-0.125000
G01 X145.369310 Y211.927103 Z-0.125000
G01 X146.167054 Y212.007060 Z-0.125000
G01 X146.964772 Y212.217192 Z-0.125000
G01 X147.862237 Y212.585253 Z-0.125000
G01 X150.454886 Y213.865808 Z-0.125000
G01 X151.252630 Y214.104198 Z-0.125000
G01 X152.050348 Y214.179974 Z-0.125000
G01 X152.748371 Y214.093985 Z-0.125000
G01 X153.546115 Y213.822972 Z-0.125000
G01 X154.321687 Y213.410726 Z-0.125000
G01 X156.836787 Y211.798330 Z-0.125000
G01 X157.634531 Y211.488292 Z-0.125000
G01 X158.332554 Y211.391031 Z-0.125000
G01 X159.030577 Y211.477603 Z-0.125000
G01 X159.817235 Y211.792536 Z-0.125000
G01 X160.685861 Y212.360781 Z-0.125000
G01 X163.096820 Y214.254322 Z-0.125000
G01 X163.916710 Y214.647969 Z-0.125000
G01 X164.714454 Y214.773857 Z-0.125000
G01 X165.512172 Y214.617356 Z-0.125000
G01 X166.376406 Y214.147880 Z-0.125000
G01 X167.147533 Y213.525819 Z-0.125000
G01 X169.062109 Y211.732767 Z-0.125000
G01 X170.099168 Y211.024901 Z-0.125000
G00 Z3.000000

(End cutting path id: polyline5936)


(Start cutting path id: polyline5934)
(Change tool to Default tool)

G00 Z3.000000
G00 X13.742601 Y211.189128

G00 Z4.875000 (Fast pre-penetrate)
G01 Z-0.125000 F400.0(Penetrate)
G01 X21.606008 Y210.821014 Z-0.125000 F800.000000
G01 X29.811309 Y210.685785 Z-0.125000
G01 X102.633361 Y210.670307 Z-0.125000
G01 X109.129217 Y210.783496 Z-0.125000
G01 X117.448474 Y211.281626 Z-0.125000
G01 X120.297557 Y211.353222 Z-0.125000
G01 X123.232073 Y211.203759 Z-0.125000
G01 X128.517092 Y210.496582 Z-0.125000
G01 X130.668152 Y210.363391 Z-0.125000
G01 X132.904646 Y210.544022 Z-0.125000
G01 X137.192504 Y211.526551 Z-0.125000
G01 X139.101365 Y211.717500 Z-0.125000
G01 X139.984569 Y211.654424 Z-0.125000
G01 X140.882035 Y211.482524 Z-0.125000
G01 X144.571565 Y210.197286 Z-0.125000
G01 X145.469031 Y209.997684 Z-0.125000
G01 X146.266749 Y209.942704 Z-0.125000
G01 X147.064493 Y210.023164 Z-0.125000
G01 X147.862237 Y210.239619 Z-0.125000
G01 X151.252630 Y211.879504 Z-0.125000
G01 X152.050348 Y212.122180 Z-0.125000
G01 X152.748371 Y212.196316 Z-0.125000
G01 X153.446394 Y212.122762 Z-0.125000
G01 X154.244138 Y211.857623 Z-0.125000
G01 X155.119431 Y211.380792 Z-0.125000
G01 X157.534810 Y209.803136 Z-0.125000
G01 X158.332554 Y209.494236 Z-0.125000
G01 X159.030577 Y209.406341 Z-0.125000
G01 X159.728573 Y209.510904 Z-0.125000
G01 X160.426596 Y209.804195 Z-0.125000
G01 X161.324061 Y210.404534 Z-0.125000
G01 X163.628632 Y212.255741 Z-0.125000
G01 X164.415290 Y212.650155 Z-0.125000
G01 X165.213035 Y212.790437 Z-0.125000
G01 X166.010779 Y212.637826 Z-0.125000
G01 X166.908218 Y212.138240 Z-0.125000
G01 X167.778484 Y211.404049 Z-0.125000
G01 X169.301424 Y209.931115 Z-0.125000
G01 X170.099168 Y209.293735 Z-0.125000
G00 Z3.000000

(End cutting path id: polyline5934)


(Start cutting path id: polyline5932)
(Change tool to Default tool)

G00 Z3.000000
G00 X13.742601 Y209.284845

G00 Z4.875000 (Fast pre-penetrate)
G01 Z-0.125000 F400.0(Penetrate)
G01 X23.087514 Y208.856697 Z-0.125000 F800.000000
G01 X31.748665 Y208.705725 Z-0.125000
G01 X87.932203 Y208.795498 Z-0.125000
G01 X105.710355 Y208.685511 Z-0.125000
G01 X111.408468 Y208.795207 Z-0.125000
G01 X119.157919 Y209.293576 Z-0.125000
G01 X121.893019 Y209.369194 Z-0.125000
G01 X124.727840 Y209.222139 Z-0.125000
G01 X129.913138 Y208.505066 Z-0.125000
G01 X131.921720 Y208.379071 Z-0.125000
G01 X134.101249 Y208.559782 Z-0.125000
G01 X138.289386 Y209.545803 Z-0.125000
G01 X140.127021 Y209.733022 Z-0.125000
G01 X140.981756 Y209.670660 Z-0.125000
G01 X141.879195 Y209.493627 Z-0.125000
G01 X145.469031 Y208.212516 Z-0.125000
G01 X146.266749 Y208.025456 Z-0.125000
G01 X147.064493 Y207.957908 Z-0.125000
G01 X147.862237 Y208.030986 Z-0.125000
G01 X148.659981 Y208.246462 Z-0.125000
G01 X152.050348 Y209.912780 Z-0.125000
G01 X152.848092 Y210.149899 Z-0.125000
G01 X153.546115 Y210.211229 Z-0.125000
G01 X154.244138 Y210.118043 Z-0.125000
G01 X154.942161 Y209.871346 Z-0.125000
G01 X155.828540 Y209.376576 Z-0.125000
G01 X158.133111 Y207.835538 Z-0.125000
G01 X158.930855 Y207.514123 Z-0.125000
G01 X159.628878 Y207.421545 Z-0.125000
G01 X160.326901 Y207.528940 Z-0.125000
G01 X160.969520 Y207.799238 Z-0.125000
G01 X161.767238 Y208.326419 Z-0.125000
G01 X163.557724 Y209.837956 Z-0.125000
G01 X164.249106 Y210.332197 Z-0.125000
G01 X165.013592 Y210.694887 Z-0.125000
G01 X165.711615 Y210.804927 Z-0.125000
G01 X166.509359 Y210.646177 Z-0.125000
G01 X167.351421 Y210.168234 Z-0.125000
G01 X170.099168 Y207.616940 Z-0.125000
G00 Z3.000000

(End cutting path id: polyline5932)


(Start cutting path id: polyline5930)
(Change tool to Default tool)

G00 Z3.000000
G00 X13.742601 Y207.358098

G00 Z4.875000 (Fast pre-penetrate)
G01 Z-0.125000 F400.0(Penetrate)
G01 X25.024870 Y206.877907 Z-0.125000 F800.000000
G01 X33.913959 Y206.723073 Z-0.125000
G01 X56.364567 Y206.722861 Z-0.125000
G01 X88.843903 Y206.878833 Z-0.125000
G01 X108.331473 Y206.701059 Z-0.125000
G01 X113.345824 Y206.803559 Z-0.125000
G01 X120.867363 Y207.313146 Z-0.125000
G01 X123.488507 Y207.384239 Z-0.125000
G01 X126.123886 Y207.239539 Z-0.125000
G01 X131.109741 Y206.525826 Z-0.125000
G01 X133.175314 Y206.394831 Z-0.125000
G01 X135.198157 Y206.572604 Z-0.125000
G01 X139.286546 Y207.560795 Z-0.125000
G01 X141.038721 Y207.749152 Z-0.125000
G01 X141.879195 Y207.691261 Z-0.125000
G01 X142.776661 Y207.513409 Z-0.125000
G01 X146.266749 Y206.239071 Z-0.125000
G01 X147.064493 Y206.044338 Z-0.125000
G01 X147.862237 Y205.973562 Z-0.125000
G01 X148.659981 Y206.049259 Z-0.125000
G01 X149.457699 Y206.273044 Z-0.125000
G01 X152.648676 Y207.885915 Z-0.125000
G01 X153.446394 Y208.147191 Z-0.125000
G01 X154.144417 Y208.228180 Z-0.125000
G01 X154.842439 Y208.148355 Z-0.125000
G01 X155.540462 Y207.908669 Z-0.125000
G01 X156.448987 Y207.398156 Z-0.125000
G01 X158.753585 Y205.835079 Z-0.125000
G01 X159.529157 Y205.524088 Z-0.125000
G01 X160.227180 Y205.438522 Z-0.125000
G01 X161.024897 Y205.592510 Z-0.125000
G01 X161.767238 Y205.965677 Z-0.125000
G01 X164.195925 Y207.963702 Z-0.125000
G01 X164.958188 Y208.477628 Z-0.125000
G01 X165.611894 Y208.746286 Z-0.125000
G01 X166.210195 Y208.820846 Z-0.125000
G01 X166.996853 Y208.647464 Z-0.125000
G01 X167.785734 Y208.185502 Z-0.125000
G01 X168.576229 Y207.502164 Z-0.125000
G01 X170.099168 Y205.975732 Z-0.125000
G00 Z3.000000

(End cutting path id: polyline5930)


(Start cutting path id: polyline5628)
(Change tool to Default tool)

G00 Z3.000000
G00 X13.742601 Y206.383560

G00 Z4.875000 (Fast pre-penetrate)
G01 Z-0.125000 F400.0(Penetrate)
G01 X26.164508 Y205.883128 Z-0.125000 F800.000000
G01 X34.939615 Y205.731548 Z-0.125000
G01 X55.794761 Y205.733400 Z-0.125000
G01 X89.299753 Y205.921254 Z-0.125000
G01 X109.471112 Y205.708953 Z-0.125000
G01 X114.371506 Y205.814283 Z-0.125000
G01 X121.551151 Y206.316276 Z-0.125000
G01 X124.172269 Y206.392370 Z-0.125000
G01 X126.821909 Y206.243913 Z-0.125000
G01 X131.608321 Y205.543853 Z-0.125000
G01 X133.631164 Y205.402645 Z-0.125000
G01 X135.796459 Y205.593436 Z-0.125000
G01 X139.685432 Y206.554137 Z-0.125000
G01 X141.494571 Y206.756992 Z-0.125000
G01 X142.278081 Y206.704975 Z-0.125000
G01 X143.175520 Y206.530351 Z-0.125000
G01 X146.665634 Y205.244583 Z-0.125000
G01 X147.463378 Y205.049506 Z-0.125000
G01 X148.218366 Y204.981614 Z-0.125000
G01 X148.959119 Y205.044717 Z-0.125000
G01 X149.756863 Y205.258791 Z-0.125000
G01 X150.554607 Y205.603516 Z-0.125000
G01 X153.047535 Y206.922595 Z-0.125000
G01 X153.845279 Y207.171197 Z-0.125000
G01 X154.543302 Y207.234406 Z-0.125000
G01 X155.241298 Y207.134949 Z-0.125000
G01 X155.917176 Y206.886215 Z-0.125000
G01 X156.714920 Y206.430550 Z-0.125000
G01 X158.930855 Y204.899964 Z-0.125000
G01 X159.728573 Y204.553148 Z-0.125000
G01 X160.426596 Y204.445040 Z-0.125000
G01 X161.124619 Y204.546931 Z-0.125000
G01 X161.767238 Y204.821488 Z-0.125000
G01 X162.520665 Y205.328694 Z-0.125000
G01 X164.958188 Y207.349447 Z-0.125000
G01 X165.711615 Y207.717561 Z-0.125000
G01 X166.409638 Y207.828210 Z-0.125000
G01 X167.107661 Y207.694516 Z-0.125000
G01 X167.865506 Y207.284703 Z-0.125000
G01 X168.648751 Y206.631183 Z-0.125000
G01 X170.099168 Y205.162747 Z-0.125000
G00 Z3.000000

(End cutting path id: polyline5628)


(Start cutting path id: polyline5630)
(Change tool to Default tool)

G00 Z3.000000
G00 X13.742601 Y205.400264

G00 Z4.875000 (Fast pre-penetrate)
G01 Z-0.125000 F400.0(Penetrate)
G01 X29.355459 Y204.834030 Z-0.125000 F800.000000
G01 X43.486810 Y204.716687 Z-0.125000
G01 X89.299753 Y204.962590 Z-0.125000
G01 X111.636406 Y204.720947 Z-0.125000
G01 X115.511118 Y204.833606 Z-0.125000
G01 X122.234913 Y205.321153 Z-0.125000
G01 X124.856057 Y205.400052 Z-0.125000
G01 X127.420211 Y205.255457 Z-0.125000
G01 X132.306344 Y204.534336 Z-0.125000
G01 X134.200970 Y204.410247 Z-0.125000
G01 X136.195317 Y204.583364 Z-0.125000
G01 X140.283733 Y205.591742 Z-0.125000
G01 X141.950421 Y205.764674 Z-0.125000
G01 X142.776661 Y205.702470 Z-0.125000
G01 X143.574405 Y205.541551 Z-0.125000
G01 X147.064493 Y204.246973 Z-0.125000
G01 X147.862237 Y204.052981 Z-0.125000
G01 X148.659981 Y203.989613 Z-0.125000
G01 X149.358004 Y204.059569 Z-0.125000
G01 X150.155722 Y204.284147 Z-0.125000
G01 X153.346672 Y205.921466 Z-0.125000
G01 X154.144417 Y206.176312 Z-0.125000
G01 X154.842439 Y206.243172 Z-0.125000
G01 X155.540462 Y206.142895 Z-0.125000
G01 X156.238485 Y205.879688 Z-0.125000
G01 X156.980826 Y205.451169 Z-0.125000
G01 X159.285397 Y203.862454 Z-0.125000
G01 X160.027737 Y203.552072 Z-0.125000
G01 X160.725760 Y203.453726 Z-0.125000
G01 X161.423783 Y203.567603 Z-0.125000
G01 X162.121806 Y203.889389 Z-0.125000
G01 X162.919523 Y204.462079 Z-0.125000
G01 X165.135485 Y206.329638 Z-0.125000
G01 X165.911058 Y206.721141 Z-0.125000
G01 X166.609080 Y206.836235 Z-0.125000
G01 X167.307103 Y206.703017 Z-0.125000
G01 X168.060503 Y206.293443 Z-0.125000
G01 X168.793795 Y205.682732 Z-0.125000
G01 X170.099168 Y204.351721 Z-0.125000
G00 Z3.000000

(End cutting path id: polyline5630)


(Start cutting path id: polyline5632)
(Change tool to Default tool)

G00 Z3.000000
G00 X13.742601 Y204.407389

G00 Z4.875000 (Fast pre-penetrate)
G01 Z-0.125000 F400.0(Penetrate)
G01 X17.503357 Y204.344207 Z-0.125000 F800.000000
G01 X28.785653 Y203.883515 Z-0.125000
G01 X37.332821 Y203.744741 Z-0.125000
G01 X55.110973 Y203.753896 Z-0.125000
G01 X89.983515 Y204.002022 Z-0.125000
G01 X98.530710 Y203.950375 Z-0.125000
G01 X111.636406 Y203.724501 Z-0.125000
G01 X116.080924 Y203.827132 Z-0.125000
G01 X122.918701 Y204.328200 Z-0.125000
G01 X125.425863 Y204.408501 Z-0.125000
G01 X128.018512 Y204.264118 Z-0.125000
G01 X132.804951 Y203.546622 Z-0.125000
G01 X134.770803 Y203.418325 Z-0.125000
G01 X136.693898 Y203.594035 Z-0.125000
G01 X140.682592 Y204.592121 Z-0.125000
G01 X142.406271 Y204.771641 Z-0.125000
G01 X143.973264 Y204.549550 Z-0.125000
G01 X147.463378 Y203.242722 Z-0.125000
G01 X148.261096 Y203.053148 Z-0.125000
G01 X149.016110 Y202.997744 Z-0.125000
G01 X149.756863 Y203.079183 Z-0.125000
G01 X150.454886 Y203.278943 Z-0.125000
G01 X151.252630 Y203.632611 Z-0.125000
G01 X153.645836 Y204.924755 Z-0.125000
G01 X154.443581 Y205.182697 Z-0.125000
G01 X155.141603 Y205.250166 Z-0.125000
G01 X155.939321 Y205.120335 Z-0.125000
G01 X156.714920 Y204.790241 Z-0.125000
G01 X159.728573 Y202.774436 Z-0.125000
G01 X160.426596 Y202.520595 Z-0.125000
G01 X161.024897 Y202.462731 Z-0.125000
G01 X161.722920 Y202.595578 Z-0.125000
G01 X162.476347 Y202.970439 Z-0.125000
G01 X163.158865 Y203.475316 Z-0.125000
G01 X164.913871 Y205.016856 Z-0.125000
G01 X165.578662 Y205.476384 Z-0.125000
G01 X166.210195 Y205.756710 Z-0.125000
G01 X166.808497 Y205.845054 Z-0.125000
G01 X167.506519 Y205.709905 Z-0.125000
G01 X168.237774 Y205.309856 Z-0.125000
G01 X168.902565 Y204.761190 Z-0.125000
G01 X170.099168 Y203.540854 Z-0.125000
G00 Z3.000000

(End cutting path id: polyline5632)


(Start cutting path id: polyline5634)
(Change tool to Default tool)

G00 Z3.000000
G00 X13.742601 Y203.404249

G00 Z4.875000 (Fast pre-penetrate)
G01 Z-0.125000 F400.0(Penetrate)
G01 X17.959207 Y203.366467 Z-0.125000 F800.000000
G01 X30.381115 Y202.876195 Z-0.125000
G01 X38.586415 Y202.750306 Z-0.125000
G01 X54.769105 Y202.763112 Z-0.125000
G01 X90.211454 Y203.038940 Z-0.125000
G01 X99.214472 Y202.982927 Z-0.125000
G01 X112.548106 Y202.732314 Z-0.125000
G01 X116.878668 Y202.834470 Z-0.125000
G01 X123.602463 Y203.337469 Z-0.125000
G01 X126.109652 Y203.415865 Z-0.125000
G01 X128.616814 Y203.269471 Z-0.125000
G01 X133.303531 Y202.555203 Z-0.125000
G01 X135.226653 Y202.426165 Z-0.125000
G01 X137.192504 Y202.609310 Z-0.125000
G01 X141.081478 Y203.597422 Z-0.125000
G01 X142.748165 Y203.780407 Z-0.125000
G01 X143.574405 Y203.717436 Z-0.125000
G01 X144.372123 Y203.551675 Z-0.125000
G01 X147.762516 Y202.265881 Z-0.125000
G01 X148.560260 Y202.067735 Z-0.125000
G01 X149.258283 Y202.004500 Z-0.125000
G01 X150.056027 Y202.081017 Z-0.125000
G01 X150.754024 Y202.279454 Z-0.125000
G01 X151.651489 Y202.685563 Z-0.125000
G01 X153.944974 Y203.936379 Z-0.125000
G01 X154.742718 Y204.194136 Z-0.125000
G01 X155.440741 Y204.257583 Z-0.125000
G01 X156.039042 Y204.176091 Z-0.125000
G01 X156.714920 Y203.935135 Z-0.125000
G01 X157.512637 Y203.477248 Z-0.125000
G01 X159.728573 Y201.913509 Z-0.125000
G01 X160.526317 Y201.565927 Z-0.125000
G01 X161.224340 Y201.468666 Z-0.125000
G01 X161.822642 Y201.561217 Z-0.125000
G01 X162.476347 Y201.840987 Z-0.125000
G01 X163.238637 Y202.367349 Z-0.125000
G01 X165.578662 Y204.357172 Z-0.125000
G01 X166.309916 Y204.731477 Z-0.125000
G01 X167.007939 Y204.852550 Z-0.125000
G01 X167.705962 Y204.715523 Z-0.125000
G01 X168.415071 Y204.323279 Z-0.125000
G01 X169.141881 Y203.710425 Z-0.125000
G01 X170.099168 Y202.728213 Z-0.125000
G00 Z3.000000

(End cutting path id: polyline5634)


(Start cutting path id: polyline5636)
(Change tool to Default tool)

G00 Z3.000000
G00 X13.742601 Y202.390367

G00 Z4.875000 (Fast pre-penetrate)
G01 Z-0.125000 F400.0(Penetrate)
G01 X18.073163 Y202.396109 Z-0.125000 F800.000000
G01 X30.381115 Y201.912636 Z-0.125000
G01 X39.726054 Y201.756268 Z-0.125000
G01 X54.427211 Y201.771481 Z-0.125000
G01 X90.553321 Y202.072762 Z-0.125000
G01 X100.012216 Y202.011246 Z-0.125000
G01 X113.459806 Y201.740128 Z-0.125000
G01 X117.676412 Y201.844347 Z-0.125000
G01 X124.286251 Y202.348987 Z-0.125000
G01 X126.679458 Y202.423758 Z-0.125000
G01 X129.115394 Y202.282391 Z-0.125000
G01 X133.802111 Y201.561111 Z-0.125000
G01 X135.682503 Y201.433741 Z-0.125000
G01 X137.591363 Y201.610139 Z-0.125000
G01 X141.380615 Y202.584439 Z-0.125000
G01 X143.090059 Y202.788247 Z-0.125000
G01 X143.873543 Y202.735384 Z-0.125000
G01 X144.771008 Y202.550202 Z-0.125000
G01 X148.161401 Y201.252952 Z-0.125000
G01 X148.959119 Y201.063986 Z-0.125000
G01 X149.585916 Y201.013001 Z-0.125000
G01 X150.255443 Y201.067611 Z-0.125000
G01 X151.053188 Y201.282929 Z-0.125000
G01 X151.928481 Y201.679327 Z-0.125000
G01 X154.144417 Y202.906939 Z-0.125000
G01 X154.942161 Y203.184593 Z-0.125000
G01 X155.640184 Y203.267301 Z-0.125000
G01 X156.338206 Y203.175491 Z-0.125000
G01 X157.036229 Y202.912363 Z-0.125000
G01 X157.778570 Y202.475881 Z-0.125000
G01 X160.027737 Y200.889414 Z-0.125000
G01 X160.725760 Y200.585541 Z-0.125000
G01 X161.423783 Y200.476639 Z-0.125000
G01 X162.121806 Y200.590542 Z-0.125000
G01 X162.720107 Y200.863512 Z-0.125000
G01 X163.477952 Y201.397811 Z-0.125000
G01 X165.755933 Y203.353026 Z-0.125000
G01 X166.509359 Y203.742122 Z-0.125000
G01 X167.207382 Y203.859173 Z-0.125000
G01 X167.805683 Y203.753446 Z-0.125000
G01 X168.503706 Y203.394195 Z-0.125000
G01 X169.301424 Y202.732367 Z-0.125000
G01 X170.099168 Y201.912107 Z-0.125000
G00 Z3.000000

(End cutting path id: polyline5636)


(Start cutting path id: polyline5638)
(Change tool to Default tool)

G00 Z3.000000
G00 X13.742601 Y201.365532

G00 Z4.875000 (Fast pre-penetrate)
G01 Z-0.125000 F400.0(Penetrate)
G01 X18.756951 Y201.408950 Z-0.125000 F800.000000
G01 X31.520753 Y200.916667 Z-0.125000
G01 X40.979622 Y200.761224 Z-0.125000
G01 X54.199273 Y200.779692 Z-0.125000
G01 X90.781259 Y201.103250 Z-0.125000
G01 X100.696005 Y201.038348 Z-0.125000
G01 X114.257524 Y200.747942 Z-0.125000
G01 X118.360201 Y200.850785 Z-0.125000
G01 X124.856057 Y201.355530 Z-0.125000
G01 X127.249264 Y201.431360 Z-0.125000
G01 X129.613974 Y201.292295 Z-0.125000
G01 X134.200970 Y200.576492 Z-0.125000
G01 X136.138353 Y200.441899 Z-0.125000
G01 X137.990222 Y200.615465 Z-0.125000
G01 X141.879195 Y201.619055 Z-0.125000
G01 X143.545909 Y201.795188 Z-0.125000
G01 X145.070146 Y201.569948 Z-0.125000
G01 X148.460539 Y200.265263 Z-0.125000
G01 X149.258283 Y200.072647 Z-0.125000
G01 X149.927810 Y200.020418 Z-0.125000
G01 X150.654329 Y200.094396 Z-0.125000
G01 X151.352351 Y200.293891 Z-0.125000
G01 X152.150069 Y200.654094 Z-0.125000
G01 X154.543302 Y201.970368 Z-0.125000
G01 X155.241298 Y202.199180 Z-0.125000
G01 X155.939321 Y202.273845 Z-0.125000
G01 X156.637344 Y202.172510 Z-0.125000
G01 X157.335367 Y201.896894 Z-0.125000
G01 X160.260411 Y199.892942 Z-0.125000
G01 X161.024897 Y199.570362 Z-0.125000
G01 X161.623199 Y199.485378 Z-0.125000
G01 X162.321222 Y199.593672 Z-0.125000
G01 X163.008185 Y199.914664 Z-0.125000
G01 X163.797039 Y200.496747 Z-0.125000
G01 X165.933203 Y202.354093 Z-0.125000
G01 X166.708802 Y202.756630 Z-0.125000
G01 X167.406798 Y202.866670 Z-0.125000
G01 X168.005126 Y202.751814 Z-0.125000
G01 X168.663250 Y202.410608 Z-0.125000
G01 X169.373946 Y201.829690 Z-0.125000
G01 X170.099168 Y201.091053 Z-0.125000
G00 Z3.000000

(End cutting path id: polyline5638)


(Start cutting path id: polyline5640)
(Change tool to Default tool)

G00 Z3.000000
G00 X13.742601 Y200.329689

G00 Z4.875000 (Fast pre-penetrate)
G01 Z-0.125000 F400.0(Penetrate)
G01 X16.477701 Y200.431210 Z-0.125000 F800.000000
G01 X19.440713 Y200.421473 Z-0.125000
G01 X32.774321 Y199.917019 Z-0.125000
G01 X42.233216 Y199.766074 Z-0.125000
G01 X54.085317 Y199.787876 Z-0.125000
G01 X78.701220 Y200.073017 Z-0.125000
G01 X90.895215 Y200.130326 Z-0.125000
G01 X101.379767 Y200.062540 Z-0.125000
G01 X115.055268 Y199.755782 Z-0.125000
G01 X119.043963 Y199.859737 Z-0.125000
G01 X125.311907 Y200.357047 Z-0.125000
G01 X127.705114 Y200.439756 Z-0.125000
G01 X130.212302 Y200.287515 Z-0.125000
G01 X134.699577 Y199.575469 Z-0.125000
G01 X136.480220 Y199.449236 Z-0.125000
G01 X138.389107 Y199.624152 Z-0.125000
G01 X142.178359 Y200.614460 Z-0.125000
G01 X143.773821 Y200.804139 Z-0.125000
G01 X144.571565 Y200.749688 Z-0.125000
G01 X145.369310 Y200.586202 Z-0.125000
G01 X148.759703 Y199.275352 Z-0.125000
G01 X149.557420 Y199.081043 Z-0.125000
G01 X150.255443 Y199.028708 Z-0.125000
G01 X150.953466 Y199.104379 Z-0.125000
G01 X151.751210 Y199.347107 Z-0.125000
G01 X154.742718 Y200.954687 Z-0.125000
G01 X155.440741 Y201.195511 Z-0.125000
G01 X156.138764 Y201.281870 Z-0.125000
G01 X156.836787 Y201.191145 Z-0.125000
G01 X157.512637 Y200.935822 Z-0.125000
G01 X158.310382 Y200.457059 Z-0.125000
G01 X160.437682 Y198.923854 Z-0.125000
G01 X161.124619 Y198.611805 Z-0.125000
G01 X161.822642 Y198.492954 Z-0.125000
G01 X162.520665 Y198.600666 Z-0.125000
G01 X163.274091 Y198.964600 Z-0.125000
G01 X163.956583 Y199.473816 Z-0.125000
G01 X165.950930 Y201.244802 Z-0.125000
G01 X166.553677 Y201.621939 Z-0.125000
G01 X167.107661 Y201.826382 Z-0.125000
G01 X167.805683 Y201.854798 Z-0.125000
G01 X168.503706 Y201.613896 Z-0.125000
G01 X169.301424 Y201.046841 Z-0.125000
G01 X170.099168 Y200.263782 Z-0.125000
G00 Z3.000000

(End cutting path id: polyline5640)


(Start cutting path id: polyline5642)
(Change tool to Default tool)

G00 Z3.000000
G00 X13.742601 Y199.283263

G00 Z4.875000 (Fast pre-penetrate)
G01 Z-0.125000 F400.0(Penetrate)
G01 X16.819569 Y199.428546 Z-0.125000 F800.000000
G01 X20.124502 Y199.433626 Z-0.125000
G01 X33.913959 Y198.920282 Z-0.125000
G01 X43.372854 Y198.771533 Z-0.125000
G01 X53.971361 Y198.795319 Z-0.125000
G01 X78.017458 Y199.092049 Z-0.125000
G01 X91.123154 Y199.154015 Z-0.125000
G01 X102.063555 Y199.083874 Z-0.125000
G01 X115.853012 Y198.763675 Z-0.125000
G01 X119.727751 Y198.871361 Z-0.125000
G01 X125.881713 Y199.368300 Z-0.125000
G01 X128.160964 Y199.447675 Z-0.125000
G01 X130.611161 Y199.301864 Z-0.125000
G01 X134.998714 Y198.597808 Z-0.125000
G01 X136.936070 Y198.457526 Z-0.125000
G01 X138.787966 Y198.637575 Z-0.125000
G01 X142.577218 Y199.635635 Z-0.125000
G01 X144.115715 Y199.811530 Z-0.125000
G01 X144.870729 Y199.759698 Z-0.125000
G01 X145.668447 Y199.597138 Z-0.125000
G01 X149.058840 Y198.277716 Z-0.125000
G01 X149.856584 Y198.085126 Z-0.125000
G01 X150.497616 Y198.036575 Z-0.125000
G01 X151.252630 Y198.118622 Z-0.125000
G01 X151.950653 Y198.328674 Z-0.125000
G01 X154.942161 Y199.941043 Z-0.125000
G01 X155.739905 Y200.217294 Z-0.125000
G01 X156.437928 Y200.289975 Z-0.125000
G01 X157.036229 Y200.206817 Z-0.125000
G01 X157.734252 Y199.945091 Z-0.125000
G01 X158.487652 Y199.494771 Z-0.125000
G01 X160.626039 Y197.946617 Z-0.125000
G01 X161.324061 Y197.621920 Z-0.125000
G01 X162.022084 Y197.499789 Z-0.125000
G01 X162.720107 Y197.609379 Z-0.125000
G01 X163.451362 Y197.964397 Z-0.125000
G01 X164.116153 Y198.459881 Z-0.125000
G01 X166.110474 Y200.239122 Z-0.125000
G01 X166.730947 Y200.634304 Z-0.125000
G01 X167.307103 Y200.841234 Z-0.125000
G01 X167.905405 Y200.870761 Z-0.125000
G01 X168.592342 Y200.658645 Z-0.125000
G01 X169.301424 Y200.185650 Z-0.125000
G01 X170.099168 Y199.429207 Z-0.125000
G00 Z3.000000

(End cutting path id: polyline5642)


(Start cutting path id: polyline5644)
(Change tool to Default tool)

G00 Z3.000000
G00 X13.742601 Y198.226863

G00 Z4.875000 (Fast pre-penetrate)
G01 Z-0.125000 F400.0(Penetrate)
G01 X17.161463 Y198.421649 Z-0.125000 F800.000000
G01 X20.808263 Y198.445355 Z-0.125000
G01 X35.053571 Y197.923069 Z-0.125000
G01 X44.512466 Y197.777072 Z-0.125000
G01 X53.971361 Y197.802922 Z-0.125000
G01 X77.447652 Y198.109732 Z-0.125000
G01 X91.237110 Y198.174581 Z-0.125000
G01 X102.633361 Y198.104282 Z-0.125000
G01 X116.536774 Y197.771568 Z-0.125000
G01 X120.297557 Y197.879227 Z-0.125000
G01 X126.337563 Y198.374183 Z-0.125000
G01 X128.616814 Y198.455515 Z-0.125000
G01 X131.010020 Y198.312985 Z-0.125000
G01 X135.497295 Y197.589773 Z-0.125000
G01 X137.277965 Y197.464970 Z-0.125000
G01 X139.186852 Y197.654702 Z-0.125000
G01 X142.876382 Y198.640009 Z-0.125000
G01 X144.457610 Y198.819608 Z-0.125000
G01 X145.269588 Y198.753330 Z-0.125000
G01 X146.067333 Y198.575398 Z-0.125000
G01 X149.258283 Y197.308389 Z-0.125000
G01 X150.056027 Y197.103338 Z-0.125000
G01 X150.725554 Y197.043806 Z-0.125000
G01 X151.452046 Y197.115006 Z-0.125000
G01 X152.150069 Y197.317306 Z-0.125000
G01 X152.903496 Y197.662137 Z-0.125000
G01 X155.241298 Y198.977009 Z-0.125000
G01 X155.939321 Y199.216985 Z-0.125000
G01 X156.637344 Y199.297842 Z-0.125000
G01 X157.335367 Y199.194972 Z-0.125000
G01 X157.933668 Y198.960869 Z-0.125000
G01 X158.664923 Y198.525101 Z-0.125000
G01 X160.880885 Y196.922336 Z-0.125000
G01 X161.623199 Y196.599413 Z-0.125000
G01 X162.221527 Y196.508052 Z-0.125000
G01 X162.919523 Y196.619680 Z-0.125000
G01 X163.717268 Y197.024227 Z-0.125000
G01 X166.199136 Y199.184204 Z-0.125000
G01 X166.819583 Y199.602642 Z-0.125000
G01 X167.406798 Y199.835607 Z-0.125000
G01 X168.005126 Y199.883920 Z-0.125000
G01 X168.680977 Y199.697124 Z-0.125000
G01 X169.381222 Y199.250667 Z-0.125000
G01 X170.099168 Y198.586511 Z-0.125000
G00 Z3.000000

(End cutting path id: polyline5644)


(Start cutting path id: polyline5646)
(Change tool to Default tool)

G00 Z3.000000
G00 X13.742601 Y197.161599

G00 Z4.875000 (Fast pre-penetrate)
G01 Z-0.125000 F400.0(Penetrate)
G01 X17.503357 Y197.410307 Z-0.125000 F800.000000
G01 X21.378069 Y197.457932 Z-0.125000
G01 X36.990953 Y196.903895 Z-0.125000
G01 X47.817372 Y196.779223 Z-0.125000
G01 X79.157070 Y197.146385 Z-0.125000
G01 X96.251460 Y197.184168 Z-0.125000
G01 X104.342805 Y197.101829 Z-0.125000
G01 X117.106607 Y196.779382 Z-0.125000
G01 X120.753407 Y196.883125 Z-0.125000
G01 X126.793413 Y197.382764 Z-0.125000
G01 X129.072664 Y197.463118 Z-0.125000
G01 X131.408905 Y197.320613 Z-0.125000
G01 X135.796459 Y196.605419 Z-0.125000
G01 X137.619859 Y196.473048 Z-0.125000
G01 X139.485989 Y196.657700 Z-0.125000
G01 X143.075798 Y197.624751 Z-0.125000
G01 X144.685521 Y197.827316 Z-0.125000
G01 X145.469031 Y197.773447 Z-0.125000
G01 X146.266749 Y197.605781 Z-0.125000
G01 X149.557420 Y196.303715 Z-0.125000
G01 X150.255443 Y196.121549 Z-0.125000
G01 X150.953466 Y196.051541 Z-0.125000
G01 X151.751210 Y196.133667 Z-0.125000
G01 X152.449233 Y196.348509 Z-0.125000
G01 X155.440741 Y197.976858 Z-0.125000
G01 X156.138764 Y198.221016 Z-0.125000
G01 X156.836787 Y198.305100 Z-0.125000
G01 X157.534810 Y198.205299 Z-0.125000
G01 X158.221746 Y197.929366 Z-0.125000
G01 X161.058156 Y195.935362 Z-0.125000
G01 X161.822642 Y195.602094 Z-0.125000
G01 X162.420943 Y195.516713 Z-0.125000
G01 X163.118966 Y195.634690 Z-0.125000
G01 X163.805903 Y195.974653 Z-0.125000
G01 X164.594784 Y196.584041 Z-0.125000
G01 X166.465041 Y198.273271 Z-0.125000
G01 X167.007939 Y198.624558 Z-0.125000
G01 X167.506519 Y198.829927 Z-0.125000
G01 X168.104821 Y198.895252 Z-0.125000
G01 X168.703123 Y198.758701 Z-0.125000
G01 X169.381222 Y198.368679 Z-0.125000
G01 X170.099168 Y197.735030 Z-0.125000
G00 Z3.000000

(End cutting path id: polyline5646)


(Start cutting path id: polyline5648)
(Change tool to Default tool)

G00 Z3.000000
G00 X13.742601 Y196.088979

G00 Z4.875000 (Fast pre-penetrate)
G01 Z-0.125000 F400.0(Penetrate)
G01 X17.731269 Y196.388990 Z-0.125000 F800.000000
G01 X21.606008 Y196.470958 Z-0.125000
G01 X25.480720 Y196.389784 Z-0.125000
G01 X37.104909 Y195.933881 Z-0.125000
G01 X44.854360 Y195.798388 Z-0.125000
G01 X55.110973 Y195.827386 Z-0.125000
G01 X78.359352 Y196.158327 Z-0.125000
G01 X91.692960 Y196.207565 Z-0.125000
G01 X103.659017 Y196.139250 Z-0.125000
G01 X117.790368 Y195.787672 Z-0.125000
G01 X121.323213 Y195.896257 Z-0.125000
G01 X127.135308 Y196.385445 Z-0.125000
G01 X129.414558 Y196.471222 Z-0.125000
G01 X131.807764 Y196.324881 Z-0.125000
G01 X136.195317 Y195.604157 Z-0.125000
G01 X137.961753 Y195.480809 Z-0.125000
G01 X139.785153 Y195.664218 Z-0.125000
G01 X143.474684 Y196.659949 Z-0.125000
G01 X145.027416 Y196.834733 Z-0.125000
G01 X145.768169 Y196.775916 Z-0.125000
G01 X146.565913 Y196.601847 Z-0.125000
G01 X149.856584 Y195.291394 Z-0.125000
G01 X150.654329 Y195.101688 Z-0.125000
G01 X151.295360 Y195.060889 Z-0.125000
G01 X151.950653 Y195.135502 Z-0.125000
G01 X152.648676 Y195.345104 Z-0.125000
G01 X153.435334 Y195.717849 Z-0.125000
G01 X155.640184 Y196.980994 Z-0.125000
G01 X156.338206 Y197.228591 Z-0.125000
G01 X157.036229 Y197.313258 Z-0.125000
G01 X157.634531 Y197.238248 Z-0.125000
G01 X158.310382 Y196.990599 Z-0.125000
G01 X159.108126 Y196.509137 Z-0.125000
G01 X161.235426 Y194.944420 Z-0.125000
G01 X161.922363 Y194.632159 Z-0.125000
G01 X162.620386 Y194.524341 Z-0.125000
G01 X163.318409 Y194.654146 Z-0.125000
G01 X163.983174 Y194.990325 Z-0.125000
G01 X164.674555 Y195.519173 Z-0.125000
G01 X166.589131 Y197.261056 Z-0.125000
G01 X167.606241 Y197.824300 Z-0.125000
G01 X168.204542 Y197.905368 Z-0.125000
G01 X168.802844 Y197.781728 Z-0.125000
G01 X169.460994 Y197.418668 Z-0.125000
G01 X170.099168 Y196.874288 Z-0.125000
G00 Z3.000000

(End cutting path id: polyline5648)


(Start cutting path id: polyline5650)
(Change tool to Default tool)

G00 Z3.000000
G00 X13.742601 Y195.010883

G00 Z4.875000 (Fast pre-penetrate)
G01 Z-0.125000 F400.0(Penetrate)
G01 X18.187119 Y195.373759 Z-0.125000 F800.000000
G01 X22.403752 Y195.479168 Z-0.125000
G01 X26.506402 Y195.396195 Z-0.125000
G01 X38.130565 Y194.938758 Z-0.125000
G01 X45.652104 Y194.805408 Z-0.125000
G01 X55.338911 Y194.835676 Z-0.125000
G01 X77.789520 Y195.170241 Z-0.125000
G01 X91.920871 Y195.220750 Z-0.125000
G01 X104.114867 Y195.154128 Z-0.125000
G01 X118.246218 Y194.795407 Z-0.125000
G01 X121.779063 Y194.905394 Z-0.125000
G01 X127.591158 Y195.399053 Z-0.125000
G01 X129.756452 Y195.479063 Z-0.125000
G01 X132.106928 Y195.337325 Z-0.125000
G01 X136.394760 Y194.626444 Z-0.125000
G01 X138.189665 Y194.488358 Z-0.125000
G01 X139.984569 Y194.656209 Z-0.125000
G01 X143.674126 Y195.654402 Z-0.125000
G01 X145.255354 Y195.843129 Z-0.125000
G01 X145.967611 Y195.790741 Z-0.125000
G01 X146.765355 Y195.621858 Z-0.125000
G01 X150.056027 Y194.307224 Z-0.125000
G01 X150.853745 Y194.112333 Z-0.125000
G01 X151.523272 Y194.068438 Z-0.125000
G01 X152.150069 Y194.140669 Z-0.125000
G01 X152.848092 Y194.348817 Z-0.125000
G01 X153.612605 Y194.709364 Z-0.125000
G01 X155.839626 Y195.987538 Z-0.125000
G01 X156.537623 Y196.237384 Z-0.125000
G01 X157.235646 Y196.321812 Z-0.125000
G01 X157.833947 Y196.242781 Z-0.125000
G01 X158.531970 Y195.978437 Z-0.125000
G01 X159.196761 Y195.580530 Z-0.125000
G01 X161.423783 Y193.945037 Z-0.125000
G01 X162.121806 Y193.630448 Z-0.125000
G01 X162.819829 Y193.531811 Z-0.125000
G01 X163.517851 Y193.676088 Z-0.125000
G01 X164.160471 Y194.012638 Z-0.125000
G01 X164.834099 Y194.532649 Z-0.125000
G01 X166.668903 Y196.218599 Z-0.125000
G01 X167.705962 Y196.818461 Z-0.125000
G01 X168.304264 Y196.914690 Z-0.125000
G01 X168.902565 Y196.801845 Z-0.125000
G01 X169.460994 Y196.517286 Z-0.125000
G01 X170.099168 Y196.004048 Z-0.125000
G00 Z3.000000

(End cutting path id: polyline5650)


(Start cutting path id: polyline5652)
(Change tool to Default tool)

G00 Z3.000000
G00 X13.742601 Y193.929744

G00 Z4.875000 (Fast pre-penetrate)
G01 Z-0.125000 F400.0(Penetrate)
G01 X18.756951 Y194.361940 Z-0.125000 F800.000000
G01 X23.315452 Y194.487088 Z-0.125000
G01 X27.532058 Y194.402924 Z-0.125000
G01 X39.156221 Y193.943343 Z-0.125000
G01 X46.449822 Y193.812428 Z-0.125000
G01 X55.566823 Y193.843278 Z-0.125000
G01 X77.333670 Y194.181389 Z-0.125000
G01 X92.034854 Y194.232295 Z-0.125000
G01 X104.570717 Y194.166863 Z-0.125000
G01 X118.702068 Y193.803353 Z-0.125000
G01 X122.120957 Y193.910376 Z-0.125000
G01 X127.819069 Y194.398559 Z-0.125000
G01 X130.098320 Y194.486903 Z-0.125000
G01 X132.406066 Y194.346250 Z-0.125000
G01 X136.693898 Y193.632326 Z-0.125000
G01 X138.531559 Y193.496648 Z-0.125000
G01 X140.283733 Y193.671484 Z-0.125000
G01 X143.873543 Y194.651553 Z-0.125000
G01 X145.483266 Y194.850651 Z-0.125000
G01 X146.266749 Y194.788792 Z-0.125000
G01 X147.064493 Y194.609669 Z-0.125000
G01 X150.155722 Y193.353138 Z-0.125000
G01 X150.953466 Y193.138694 Z-0.125000
G01 X151.651489 Y193.074797 Z-0.125000
G01 X152.349512 Y193.147901 Z-0.125000
G01 X153.047535 Y193.357901 Z-0.125000
G01 X156.039042 Y195.001623 Z-0.125000
G01 X156.737065 Y195.247976 Z-0.125000
G01 X157.435088 Y195.328859 Z-0.125000
G01 X158.133111 Y195.218475 Z-0.125000
G01 X158.731413 Y194.972624 Z-0.125000
G01 X159.374032 Y194.582100 Z-0.125000
G01 X161.589967 Y192.950575 Z-0.125000
G01 X162.221527 Y192.658370 Z-0.125000
G01 X162.919523 Y192.538672 Z-0.125000
G01 X163.617546 Y192.663847 Z-0.125000
G01 X164.337741 Y193.039316 Z-0.125000
G01 X164.993642 Y193.553851 Z-0.125000
G01 X166.748674 Y195.179581 Z-0.125000
G01 X167.351421 Y195.601062 Z-0.125000
G01 X167.805683 Y195.813204 Z-0.125000
G01 X168.403985 Y195.923218 Z-0.125000
G01 X168.902565 Y195.851516 Z-0.125000
G01 X169.478721 Y195.593786 Z-0.125000
G01 X170.099168 Y195.124151 Z-0.125000
G00 Z3.000000

(End cutting path id: polyline5652)


(Start cutting path id: polyline5654)
(Change tool to Default tool)

G00 Z3.000000
G00 X13.742601 Y192.848340

G00 Z4.875000 (Fast pre-penetrate)
G01 Z-0.125000 F400.0(Penetrate)
G01 X19.326757 Y193.347899 Z-0.125000 F800.000000
G01 X24.227152 Y193.494955 Z-0.125000
G01 X28.443758 Y193.413834 Z-0.125000
G01 X40.295860 Y192.944384 Z-0.125000
G01 X47.247566 Y192.819474 Z-0.125000
G01 X55.908717 Y192.851542 Z-0.125000
G01 X76.991802 Y193.191875 Z-0.125000
G01 X92.262766 Y193.242542 Z-0.125000
G01 X104.912611 Y193.179360 Z-0.125000
G01 X119.157919 Y192.811616 Z-0.125000
G01 X122.462851 Y192.918031 Z-0.125000
G01 X128.160964 Y193.408939 Z-0.125000
G01 X130.326258 Y193.494822 Z-0.125000
G01 X132.705230 Y193.351921 Z-0.125000
G01 X136.993062 Y192.634028 Z-0.125000
G01 X138.759471 Y192.504144 Z-0.125000
G01 X140.582871 Y192.690596 Z-0.125000
G01 X144.172707 Y193.677173 Z-0.125000
G01 X145.711204 Y193.858174 Z-0.125000
G01 X146.466191 Y193.798273 Z-0.125000
G01 X147.263936 Y193.619970 Z-0.125000
G01 X150.454886 Y192.327165 Z-0.125000
G01 X151.152909 Y192.146375 Z-0.125000
G01 X151.850932 Y192.083087 Z-0.125000
G01 X152.548955 Y192.157435 Z-0.125000
G01 X153.246977 Y192.370980 Z-0.125000
G01 X156.238485 Y194.022718 Z-0.125000
G01 X156.936508 Y194.263039 Z-0.125000
G01 X157.534810 Y194.336540 Z-0.125000
G01 X158.133111 Y194.270262 Z-0.125000
G01 X158.831134 Y194.013140 Z-0.125000
G01 X159.639938 Y193.515619 Z-0.125000
G01 X161.767238 Y191.942355 Z-0.125000
G01 X162.520665 Y191.621416 Z-0.125000
G01 X163.118966 Y191.548365 Z-0.125000
G01 X163.805903 Y191.686450 Z-0.125000
G01 X164.515012 Y192.069196 Z-0.125000
G01 X166.828446 Y194.143977 Z-0.125000
G01 X167.440056 Y194.585804 Z-0.125000
G01 X167.905405 Y194.810144 Z-0.125000
G01 X168.503706 Y194.930767 Z-0.125000
G01 X169.002287 Y194.865812 Z-0.125000
G01 X169.478721 Y194.671317 Z-0.125000
G01 X170.099168 Y194.234676 Z-0.125000
G00 Z3.000000

(End cutting path id: polyline5654)


(Start cutting path id: polyline5656)
(Change tool to Default tool)

G00 Z3.000000
G00 X13.742601 Y191.769847

G00 Z4.875000 (Fast pre-penetrate)
G01 Z-0.125000 F400.0(Penetrate)
G01 X19.782607 Y192.323804 Z-0.125000 F800.000000
G01 X24.569020 Y192.500652 Z-0.125000
G01 X29.241503 Y192.428817 Z-0.125000
G01 X41.549454 Y191.941985 Z-0.125000
G01 X48.045311 Y191.826600 Z-0.125000
G01 X56.250612 Y191.859117 Z-0.125000
G01 X76.763864 Y192.201885 Z-0.125000
G01 X92.490704 Y192.251838 Z-0.125000
G01 X105.368461 Y192.188073 Z-0.125000
G01 X119.043963 Y191.818266 Z-0.125000
G01 X122.690763 Y191.921559 Z-0.125000
G01 X128.417371 Y192.415800 Z-0.125000
G01 X130.554170 Y192.502689 Z-0.125000
G01 X132.904646 Y192.365661 Z-0.125000
G01 X137.192504 Y191.646128 Z-0.125000
G01 X138.987409 Y191.511984 Z-0.125000
G01 X140.782314 Y191.694811 Z-0.125000
G01 X144.372123 Y192.684563 Z-0.125000
G01 X145.939116 Y192.866014 Z-0.125000
G01 X146.665634 Y192.805372 Z-0.125000
G01 X147.463378 Y192.625244 Z-0.125000
G01 X150.654329 Y191.327941 Z-0.125000
G01 X151.352351 Y191.150167 Z-0.125000
G01 X152.050348 Y191.091589 Z-0.125000
G01 X152.748371 Y191.170805 Z-0.125000
G01 X153.446394 Y191.388530 Z-0.125000
G01 X156.338206 Y193.002883 Z-0.125000
G01 X157.036229 Y193.256909 Z-0.125000
G01 X157.734252 Y193.344116 Z-0.125000
G01 X158.332554 Y193.267069 Z-0.125000
G01 X159.019491 Y193.005132 Z-0.125000
G01 X159.808371 Y192.513272 Z-0.125000
G01 X161.944535 Y190.929135 Z-0.125000
G01 X162.620386 Y190.639734 Z-0.125000
G01 X163.218687 Y190.555940 Z-0.125000
G01 X163.916710 Y190.685427 Z-0.125000
G01 X164.594784 Y191.039228 Z-0.125000
G01 X165.385278 Y191.674809 Z-0.125000
G01 X166.996853 Y193.183779 Z-0.125000
G01 X167.528692 Y193.573456 Z-0.125000
G01 X168.005126 Y193.809729 Z-0.125000
G01 X168.503706 Y193.931543 Z-0.125000
G01 X169.002287 Y193.902016 Z-0.125000
G01 X169.478721 Y193.738636 Z-0.125000
G01 X170.099168 Y193.335755 Z-0.125000
G00 Z3.000000

(End cutting path id: polyline5656)


(Start cutting path id: polyline5658)
(Change tool to Default tool)

G00 Z3.000000
G00 X13.742601 Y190.697889

G00 Z4.875000 (Fast pre-penetrate)
G01 Z-0.125000 F400.0(Penetrate)
G01 X20.694308 Y191.328311 Z-0.125000 F800.000000
G01 X25.594702 Y191.508624 Z-0.125000
G01 X30.381115 Y191.432768 Z-0.125000
G01 X42.461154 Y190.949428 Z-0.125000
G01 X48.729072 Y190.834652 Z-0.125000
G01 X56.592506 Y190.865952 Z-0.125000
G01 X76.763864 Y191.212556 Z-0.125000
G01 X92.718616 Y191.260498 Z-0.125000
G01 X105.596373 Y191.198586 Z-0.125000
G01 X119.385857 Y190.826106 Z-0.125000
G01 X122.918701 Y190.927785 Z-0.125000
G01 X128.616814 Y191.420862 Z-0.125000
G01 X130.782108 Y191.510609 Z-0.125000
G01 X133.104088 Y191.375856 Z-0.125000
G01 X137.391921 Y190.655238 Z-0.125000
G01 X139.215321 Y190.520222 Z-0.125000
G01 X140.981756 Y190.703630 Z-0.125000
G01 X144.471844 Y191.672613 Z-0.125000
G01 X146.053072 Y191.874543 Z-0.125000
G01 X146.765355 Y191.824722 Z-0.125000
G01 X147.563073 Y191.655203 Z-0.125000
G01 X150.754024 Y190.357688 Z-0.125000
G01 X151.551768 Y190.151128 Z-0.125000
G01 X152.207060 Y190.099138 Z-0.125000
G01 X152.848092 Y190.166315 Z-0.125000
G01 X153.546115 Y190.373034 Z-0.125000
G01 X154.321687 Y190.743159 Z-0.125000
G01 X156.537623 Y192.032075 Z-0.125000
G01 X157.235646 Y192.278137 Z-0.125000
G01 X157.933668 Y192.351639 Z-0.125000
G01 X158.531970 Y192.259617 Z-0.125000
G01 X159.196761 Y191.994478 Z-0.125000
G01 X159.905870 Y191.552201 Z-0.125000
G01 X162.033170 Y189.963010 Z-0.125000
G01 X162.720107 Y189.656226 Z-0.125000
G01 X163.318409 Y189.563780 Z-0.125000
G01 X164.016432 Y189.683848 Z-0.125000
G01 X164.692282 Y190.028071 Z-0.125000
G01 X165.392528 Y190.577583 Z-0.125000
G01 X167.174124 Y192.239032 Z-0.125000
G01 X168.104821 Y192.812172 Z-0.125000
G01 X168.603428 Y192.937187 Z-0.125000
G01 X169.102008 Y192.912766 Z-0.125000
G01 X169.567356 Y192.755948 Z-0.125000
G01 X170.099168 Y192.427680 Z-0.125000
G00 Z3.000000

(End cutting path id: polyline5658)


(Start cutting path id: polyline5660)
(Change tool to Default tool)

G00 Z3.000000
G00 X13.742601 Y189.636170

G00 Z4.875000 (Fast pre-penetrate)
G01 Z-0.125000 F400.0(Penetrate)
G01 X21.492052 Y190.323769 Z-0.125000 F800.000000
G01 X26.506402 Y190.515697 Z-0.125000
G01 X30.723009 Y190.462331 Z-0.125000
G01 X42.461154 Y189.985790 Z-0.125000
G01 X49.526817 Y189.841989 Z-0.125000
G01 X57.048356 Y189.873581 Z-0.125000
G01 X76.649908 Y190.220687 Z-0.125000
G01 X93.060510 Y190.268709 Z-0.125000
G01 X105.824311 Y190.207220 Z-0.125000
G01 X119.613769 Y189.833920 Z-0.125000
G01 X123.146613 Y189.936710 Z-0.125000
G01 X128.844752 Y190.430740 Z-0.125000
G01 X131.010020 Y190.518343 Z-0.125000
G01 X133.303531 Y190.382691 Z-0.125000
G01 X137.691085 Y189.646886 Z-0.125000
G01 X139.443259 Y189.528512 Z-0.125000
G01 X141.181172 Y189.716604 Z-0.125000
G01 X144.571565 Y190.663996 Z-0.125000
G01 X146.167054 Y190.882145 Z-0.125000
G01 X146.964772 Y190.827482 Z-0.125000
G01 X147.762516 Y190.652196 Z-0.125000
G01 X150.853745 Y189.383652 Z-0.125000
G01 X151.651489 Y189.167673 Z-0.125000
G01 X152.349512 Y189.106422 Z-0.125000
G01 X152.947813 Y189.165160 Z-0.125000
G01 X153.645836 Y189.363544 Z-0.125000
G01 X154.410322 Y189.720996 Z-0.125000
G01 X156.637344 Y191.020548 Z-0.125000
G01 X157.335367 Y191.276135 Z-0.125000
G01 X158.033390 Y191.360722 Z-0.125000
G01 X158.631691 Y191.276532 Z-0.125000
G01 X159.285397 Y191.024067 Z-0.125000
G01 X159.994505 Y190.589357 Z-0.125000
G01 X162.121806 Y188.993736 Z-0.125000
G01 X162.819829 Y188.671051 Z-0.125000
G01 X163.517851 Y188.571621 Z-0.125000
G01 X164.215848 Y188.722036 Z-0.125000
G01 X164.869553 Y189.077398 Z-0.125000
G01 X165.552071 Y189.624052 Z-0.125000
G01 X167.227331 Y191.199591 Z-0.125000
G01 X168.104821 Y191.774160 Z-0.125000
G01 X168.603428 Y191.930237 Z-0.125000
G01 X169.102008 Y191.938519 Z-0.125000
G01 X169.600588 Y191.795856 Z-0.125000
G01 X170.099168 Y191.510794 Z-0.125000
G00 Z3.000000

(End cutting path id: polyline5660)


(Start cutting path id: polyline5662)
(Change tool to Default tool)

G00 Z3.000000
G00 X13.742601 Y188.588660

G00 Z4.875000 (Fast pre-penetrate)
G01 Z-0.125000 F400.0(Penetrate)
G01 X22.517708 Y189.333620 Z-0.125000 F800.000000
G01 X27.532058 Y189.523458 Z-0.125000
G01 X31.748665 Y189.470727 Z-0.125000
G01 X43.486810 Y188.990456 Z-0.125000
G01 X50.324561 Y188.849486 Z-0.125000
G01 X57.618162 Y188.882082 Z-0.125000
G01 X76.763864 Y189.229612 Z-0.125000
G01 X93.174466 Y189.276708 Z-0.125000
G01 X105.938267 Y189.215827 Z-0.125000
G01 X119.727751 Y188.841707 Z-0.125000
G01 X123.374551 Y188.948493 Z-0.125000
G01 X129.072664 Y189.443475 Z-0.125000
G01 X131.124002 Y189.526130 Z-0.125000
G01 X133.502947 Y189.385981 Z-0.125000
G01 X137.790806 Y188.662320 Z-0.125000
G01 X139.557215 Y188.535717 Z-0.125000
G01 X141.380615 Y188.733678 Z-0.125000
G01 X144.870729 Y189.707132 Z-0.125000
G01 X146.394966 Y189.889456 Z-0.125000
G01 X147.064493 Y189.841487 Z-0.125000
G01 X147.862237 Y189.672630 Z-0.125000
G01 X150.953466 Y188.405701 Z-0.125000
G01 X151.751210 Y188.182789 Z-0.125000
G01 X152.449233 Y188.113839 Z-0.125000
G01 X153.147256 Y188.185541 Z-0.125000
G01 X153.845279 Y188.398134 Z-0.125000
G01 X156.836787 Y190.061038 Z-0.125000
G01 X157.534810 Y190.300009 Z-0.125000
G01 X158.133111 Y190.368801 Z-0.125000
G01 X158.831134 Y190.264211 Z-0.125000
G01 X159.429435 Y190.019974 Z-0.125000
G01 X160.083141 Y189.619052 Z-0.125000
G01 X162.221527 Y188.013483 Z-0.125000
G01 X162.919523 Y187.684553 Z-0.125000
G01 X163.617546 Y187.578455 Z-0.125000
G01 X164.315569 Y187.724717 Z-0.125000
G01 X164.958188 Y188.071030 Z-0.125000
G01 X165.552071 Y188.534658 Z-0.125000
G01 X167.386875 Y190.254289 Z-0.125000
G01 X168.204542 Y190.781524 Z-0.125000
G01 X168.703123 Y190.936887 Z-0.125000
G01 X169.201729 Y190.947206 Z-0.125000
G01 X169.600588 Y190.843965 Z-0.125000
G01 X170.099168 Y190.585574 Z-0.125000
G00 Z3.000000

(End cutting path id: polyline5662)


(Start cutting path id: polyline5664)
(Change tool to Default tool)

G00 Z3.000000
G00 X13.742601 Y187.559141

G00 Z4.875000 (Fast pre-penetrate)
G01 Z-0.125000 F400.0(Penetrate)
G01 X16.335223 Y187.706884 Z-0.125000 F800.000000
G01 X23.771302 Y188.357229 Z-0.125000
G01 X28.557714 Y188.531060 Z-0.125000
G01 X32.888303 Y188.476159 Z-0.125000
G01 X44.512466 Y187.995412 Z-0.125000
G01 X51.122305 Y187.857167 Z-0.125000
G01 X58.187968 Y187.889843 Z-0.125000
G01 X76.877820 Y188.237108 Z-0.125000
G01 X93.288422 Y188.284522 Z-0.125000
G01 X106.052223 Y188.222556 Z-0.125000
G01 X119.841707 Y187.849521 Z-0.125000
G01 X123.488507 Y187.956280 Z-0.125000
G01 X129.115394 Y188.445203 Z-0.125000
G01 X131.237958 Y188.533918 Z-0.125000
G01 X133.602669 Y188.397287 Z-0.125000
G01 X137.890527 Y187.674287 Z-0.125000
G01 X139.671171 Y187.543319 Z-0.125000
G01 X141.480336 Y187.735194 Z-0.125000
G01 X144.970451 Y188.708754 Z-0.125000
G01 X146.508922 Y188.897349 Z-0.125000
G01 X147.961958 Y188.687693 Z-0.125000
G01 X151.252630 Y187.354168 Z-0.125000
G01 X151.950653 Y187.177586 Z-0.125000
G01 X152.648676 Y187.122870 Z-0.125000
G01 X153.346672 Y187.209733 Z-0.125000
G01 X154.044695 Y187.438068 Z-0.125000
G01 X156.936508 Y189.062290 Z-0.125000
G01 X157.634531 Y189.304277 Z-0.125000
G01 X158.232832 Y189.376138 Z-0.125000
G01 X158.930855 Y189.276602 Z-0.125000
G01 X159.529157 Y189.034323 Z-0.125000
G01 X160.171776 Y188.641867 Z-0.125000
G01 X162.387712 Y186.987403 Z-0.125000
G01 X163.019245 Y186.696018 Z-0.125000
G01 X163.717268 Y186.586005 Z-0.125000
G01 X164.415290 Y186.729938 Z-0.125000
G01 X165.135485 Y187.130807 Z-0.125000
G01 X167.386875 Y189.180294 Z-0.125000
G01 X168.237774 Y189.759731 Z-0.125000
G01 X168.703123 Y189.925439 Z-0.125000
G01 X169.201729 Y189.965232 Z-0.125000
G01 X169.600588 Y189.884640 Z-0.125000
G01 X170.099168 Y189.652495 Z-0.125000
G00 Z3.000000

(End cutting path id: polyline5664)


(Start cutting path id: polyline5666)
(Change tool to Default tool)

G00 Z3.000000
G00 X13.742601 Y186.551185

G00 Z4.875000 (Fast pre-penetrate)
G01 Z-0.125000 F400.0(Penetrate)
G01 X16.933551 Y186.686917 Z-0.125000 F800.000000
G01 X25.252808 Y187.392559 Z-0.125000
G01 X30.381115 Y187.541811 Z-0.125000
G01 X34.939615 Y187.451985 Z-0.125000
G01 X46.905672 Y186.957559 Z-0.125000
G01 X53.857405 Y186.857334 Z-0.125000
G01 X76.308014 Y187.235582 Z-0.125000
G01 X91.579004 Y187.292256 Z-0.125000
G01 X105.596373 Y187.236323 Z-0.125000
G01 X120.525469 Y186.860404 Z-0.125000
G01 X123.602463 Y186.967031 Z-0.125000
G01 X129.314837 Y187.461245 Z-0.125000
G01 X131.579852 Y187.540594 Z-0.125000
G01 X133.802111 Y187.392903 Z-0.125000
G01 X137.990222 Y186.682710 Z-0.125000
G01 X139.785153 Y186.551265 Z-0.125000
G01 X141.580058 Y186.741474 Z-0.125000
G01 X145.070146 Y187.714769 Z-0.125000
G01 X146.622904 Y187.905295 Z-0.125000
G01 X148.061680 Y187.697809 Z-0.125000
G01 X151.352351 Y186.364231 Z-0.125000
G01 X152.050348 Y186.186775 Z-0.125000
G01 X152.748371 Y186.130869 Z-0.125000
G01 X153.446394 Y186.215774 Z-0.125000
G01 X154.144417 Y186.442045 Z-0.125000
G01 X157.036229 Y188.068728 Z-0.125000
G01 X157.734252 Y188.311483 Z-0.125000
G01 X158.332554 Y188.383449 Z-0.125000
G01 X158.930855 Y188.311827 Z-0.125000
G01 X159.628878 Y188.044174 Z-0.125000
G01 X160.349047 Y187.595521 Z-0.125000
G01 X162.476347 Y186.000800 Z-0.125000
G01 X163.118966 Y185.704202 Z-0.125000
G01 X163.816989 Y185.594400 Z-0.125000
G01 X164.515012 Y185.737831 Z-0.125000
G01 X165.224121 Y186.132589 Z-0.125000
G01 X167.466647 Y188.178239 Z-0.125000
G01 X168.326436 Y188.767015 Z-0.125000
G01 X168.802844 Y188.935025 Z-0.125000
G01 X169.201729 Y188.977544 Z-0.125000
G01 X169.600588 Y188.918674 Z-0.125000
G01 X170.099168 Y188.712088 Z-0.125000
G00 Z3.000000

(End cutting path id: polyline5666)


(Start cutting path id: polyline5668)
(Change tool to Default tool)

G00 Z3.000000
G00 X13.742601 Y185.567810

G00 Z4.875000 (Fast pre-penetrate)
G01 Z-0.125000 F400.0(Penetrate)
G01 X17.047507 Y185.637395 Z-0.125000 F800.000000
G01 X25.594702 Y186.354997 Z-0.125000
G01 X30.723009 Y186.546793 Z-0.125000
G01 X35.167553 Y186.488268 Z-0.125000
G01 X46.449822 Y186.010616 Z-0.125000
G01 X52.831723 Y185.872292 Z-0.125000
G01 X59.441562 Y185.904624 Z-0.125000
G01 X77.219714 Y186.248635 Z-0.125000
G01 X92.832571 Y186.299620 Z-0.125000
G01 X105.824311 Y186.237416 Z-0.125000
G01 X119.841707 Y185.865148 Z-0.125000
G01 X123.488507 Y185.967092 Z-0.125000
G01 X129.314837 Y186.465514 Z-0.125000
G01 X131.465870 Y186.549545 Z-0.125000
G01 X133.802111 Y186.408787 Z-0.125000
G01 X138.089943 Y185.687560 Z-0.125000
G01 X139.899109 Y185.559555 Z-0.125000
G01 X141.580058 Y185.732539 Z-0.125000
G01 X145.169867 Y186.725149 Z-0.125000
G01 X146.736860 Y186.913109 Z-0.125000
G01 X147.463378 Y186.854186 Z-0.125000
G01 X148.261096 Y186.674296 Z-0.125000
G01 X151.452046 Y185.369399 Z-0.125000
G01 X152.150069 Y185.193213 Z-0.125000
G01 X152.848092 Y185.138947 Z-0.125000
G01 X153.546115 Y185.225175 Z-0.125000
G01 X154.244138 Y185.451764 Z-0.125000
G01 X157.135924 Y187.080034 Z-0.125000
G01 X157.833947 Y187.321466 Z-0.125000
G01 X158.432249 Y187.390998 Z-0.125000
G01 X159.030577 Y187.318000 Z-0.125000
G01 X159.728573 Y187.049554 Z-0.125000
G01 X160.526317 Y186.543936 Z-0.125000
G01 X162.564982 Y185.008931 Z-0.125000
G01 X163.318409 Y184.678732 Z-0.125000
G01 X163.916710 Y184.603114 Z-0.125000
G01 X164.603647 Y184.744957 Z-0.125000
G01 X165.312756 Y185.138603 Z-0.125000
G01 X167.546419 Y187.180734 Z-0.125000
G01 X168.415071 Y187.776443 Z-0.125000
G01 X168.902565 Y187.946305 Z-0.125000
G01 X169.301424 Y187.985172 Z-0.125000
G01 X170.099168 Y187.764934 Z-0.125000
G00 Z3.000000

(End cutting path id: polyline5668)


(Start cutting path id: polyline5670)
(Change tool to Default tool)

G00 Z3.000000
G00 X13.742601 Y184.611184

G00 Z4.875000 (Fast pre-penetrate)
G01 Z-0.125000 F400.0(Penetrate)
G01 X15.679957 Y184.566892 Z-0.125000 F800.000000
G01 X17.731269 Y184.628037 Z-0.125000
G01 X26.734314 Y185.366886 Z-0.125000
G01 X31.748665 Y185.553919 Z-0.125000
G01 X36.307165 Y185.495050 Z-0.125000
G01 X47.475505 Y185.017239 Z-0.125000
G01 X53.743423 Y184.879788 Z-0.125000
G01 X60.125324 Y184.911565 Z-0.125000
G01 X77.561608 Y185.253697 Z-0.125000
G01 X92.604660 Y185.306587 Z-0.125000
G01 X105.710355 Y185.241658 Z-0.125000
G01 X119.727751 Y184.872962 Z-0.125000
G01 X123.488507 Y184.977102 Z-0.125000
G01 X129.314837 Y185.472666 Z-0.125000
G01 X131.465870 Y185.557412 Z-0.125000
G01 X133.802111 Y185.420622 Z-0.125000
G01 X138.089943 Y184.702676 Z-0.125000
G01 X139.899109 Y184.566839 Z-0.125000
G01 X141.679779 Y184.747761 Z-0.125000
G01 X145.169867 Y185.716558 Z-0.125000
G01 X146.736860 Y185.921266 Z-0.125000
G01 X147.463378 Y185.872636 Z-0.125000
G01 X148.261096 Y185.703885 Z-0.125000
G01 X151.452046 Y184.403486 Z-0.125000
G01 X152.249791 Y184.197111 Z-0.125000
G01 X152.890822 Y184.146205 Z-0.125000
G01 X153.546115 Y184.215685 Z-0.125000
G01 X154.244138 Y184.426610 Z-0.125000
G01 X155.030796 Y184.808351 Z-0.125000
G01 X157.135924 Y186.049880 Z-0.125000
G01 X157.833947 Y186.309013 Z-0.125000
G01 X158.531970 Y186.398786 Z-0.125000
G01 X159.130271 Y186.321131 Z-0.125000
G01 X159.817235 Y186.055066 Z-0.125000
G01 X160.606089 Y185.555269 Z-0.125000
G01 X162.653617 Y184.012115 Z-0.125000
G01 X163.318409 Y183.710808 Z-0.125000
G01 X163.916710 Y183.610504 Z-0.125000
G01 X164.614733 Y183.726709 Z-0.125000
G01 X165.392528 Y184.143877 Z-0.125000
G01 X167.546419 Y186.118910 Z-0.125000
G01 X168.415071 Y186.743537 Z-0.125000
G01 X168.902565 Y186.935201 Z-0.125000
G01 X169.301424 Y186.993436 Z-0.125000
G01 X170.099168 Y186.811588 Z-0.125000
G00 Z3.000000

(End cutting path id: polyline5670)


(Start cutting path id: polyline5672)
(Change tool to Default tool)

G00 Z3.000000
G00 X13.742601 Y183.682471

G00 Z4.875000 (Fast pre-penetrate)
G01 Z-0.125000 F400.0(Penetrate)
G01 X16.021851 Y183.577431 Z-0.125000 F800.000000
G01 X18.415057 Y183.619765 Z-0.125000
G01 X27.873952 Y184.377213 Z-0.125000
G01 X33.002259 Y184.562765 Z-0.125000
G01 X37.446804 Y184.502361 Z-0.125000
G01 X48.615117 Y184.020608 Z-0.125000
G01 X54.655123 Y183.887602 Z-0.125000
G01 X60.923068 Y183.919352 Z-0.125000
G01 X78.017458 Y184.258203 Z-0.125000
G01 X92.490704 Y184.312787 Z-0.125000
G01 X105.368461 Y184.247223 Z-0.125000
G01 X119.613769 Y183.880776 Z-0.125000
G01 X123.374551 Y183.983646 Z-0.125000
G01 X129.314837 Y184.482781 Z-0.125000
G01 X131.465870 Y184.565199 Z-0.125000
G01 X133.802111 Y184.428515 Z-0.125000
G01 X138.189665 Y183.700171 Z-0.125000
G01 X140.013065 Y183.575553 Z-0.125000
G01 X141.779474 Y183.767719 Z-0.125000
G01 X145.269588 Y184.735934 Z-0.125000
G01 X146.850816 Y184.929054 Z-0.125000
G01 X147.563073 Y184.874444 Z-0.125000
G01 X148.360817 Y184.699713 Z-0.125000
G01 X151.551768 Y183.398785 Z-0.125000
G01 X152.349512 Y183.198892 Z-0.125000
G01 X153.004805 Y183.154628 Z-0.125000
G01 X153.645836 Y183.230669 Z-0.125000
G01 X154.343859 Y183.447389 Z-0.125000
G01 X157.246732 Y185.076241 Z-0.125000
G01 X157.933668 Y185.324658 Z-0.125000
G01 X158.631691 Y185.406547 Z-0.125000
G01 X159.229993 Y185.321351 Z-0.125000
G01 X159.905870 Y185.054625 Z-0.125000
G01 X160.606089 Y184.616290 Z-0.125000
G01 X162.742253 Y183.010880 Z-0.125000
G01 X163.418130 Y182.709969 Z-0.125000
G01 X164.016432 Y182.618477 Z-0.125000
G01 X164.714454 Y182.743942 Z-0.125000
G01 X165.472300 Y183.155157 Z-0.125000
G01 X167.626190 Y185.130666 Z-0.125000
G01 X168.503706 Y185.757622 Z-0.125000
G01 X169.301424 Y185.998101 Z-0.125000
G01 X170.099168 Y185.852660 Z-0.125000
G00 Z3.000000

(End cutting path id: polyline5672)


(Start cutting path id: polyline5674)
(Change tool to Default tool)

G00 Z3.000000
G00 X13.742601 Y182.781354

G00 Z4.875000 (Fast pre-penetrate)
G01 Z-0.125000 F400.0(Penetrate)
G01 X16.363719 Y182.600062 Z-0.125000 F800.000000
G01 X19.098819 Y182.613053 Z-0.125000
G01 X29.127520 Y183.393229 Z-0.125000
G01 X34.141871 Y183.570499 Z-0.125000
G01 X38.586415 Y183.510360 Z-0.125000
G01 X49.640773 Y183.028977 Z-0.125000
G01 X55.566823 Y182.895733 Z-0.125000
G01 X61.720812 Y182.926134 Z-0.125000
G01 X78.473308 Y183.260673 Z-0.125000
G01 X92.376721 Y183.317796 Z-0.125000
G01 X105.026567 Y183.250274 Z-0.125000
G01 X119.385857 Y182.888616 Z-0.125000
G01 X123.260569 Y182.993523 Z-0.125000
G01 X129.186620 Y183.486838 Z-0.125000
G01 X131.351914 Y183.573039 Z-0.125000
G01 X133.702390 Y183.443870 Z-0.125000
G01 X138.189665 Y182.707535 Z-0.125000
G01 X140.013065 Y182.583287 Z-0.125000
G01 X141.779474 Y182.772385 Z-0.125000
G01 X145.269588 Y183.736737 Z-0.125000
G01 X146.850816 Y183.937053 Z-0.125000
G01 X147.662794 Y183.873182 Z-0.125000
G01 X148.460539 Y183.690355 Z-0.125000
G01 X151.551768 Y182.423082 Z-0.125000
G01 X152.349512 Y182.214988 Z-0.125000
G01 X153.004805 Y182.161568 Z-0.125000
G01 X153.645836 Y182.227529 Z-0.125000
G01 X154.343859 Y182.433454 Z-0.125000
G01 X155.119431 Y182.803685 Z-0.125000
G01 X157.246732 Y184.056062 Z-0.125000
G01 X157.933668 Y184.316676 Z-0.125000
G01 X158.631691 Y184.414837 Z-0.125000
G01 X159.229993 Y184.344854 Z-0.125000
G01 X159.905870 Y184.094559 Z-0.125000
G01 X160.685861 Y183.612991 Z-0.125000
G01 X162.742253 Y182.057614 Z-0.125000
G01 X163.517851 Y181.707200 Z-0.125000
G01 X164.116153 Y181.626529 Z-0.125000
G01 X164.814176 Y181.764509 Z-0.125000
G01 X165.552071 Y182.172019 Z-0.125000
G01 X167.626190 Y184.077599 Z-0.125000
G01 X168.503706 Y184.728050 Z-0.125000
G01 X169.301424 Y184.999909 Z-0.125000
G01 X170.099168 Y184.888678 Z-0.125000
G00 Z3.000000

(End cutting path id: polyline5674)


(Start cutting path id: polyline5676)
(Change tool to Default tool)

G00 Z3.000000
G00 X13.742601 Y181.905902

G00 Z4.875000 (Fast pre-penetrate)
G01 Z-0.125000 F400.0(Penetrate)
G01 X16.705613 Y181.635895 Z-0.125000 F800.000000
G01 X19.782607 Y181.608431 Z-0.125000
G01 X22.517708 Y181.757841 Z-0.125000
G01 X30.609053 Y182.421230 Z-0.125000
G01 X36.079253 Y182.580879 Z-0.125000
G01 X40.751710 Y182.483910 Z-0.125000
G01 X51.578155 Y182.006814 Z-0.125000
G01 X56.592506 Y181.903309 Z-0.125000
G01 X62.632512 Y181.933630 Z-0.125000
G01 X79.043114 Y182.262110 Z-0.125000
G01 X92.262766 Y182.321032 Z-0.125000
G01 X104.570717 Y182.252320 Z-0.125000
G01 X119.613769 Y181.897806 Z-0.125000
G01 X123.146613 Y182.006840 Z-0.125000
G01 X129.072664 Y182.495049 Z-0.125000
G01 X131.351914 Y182.580668 Z-0.125000
G01 X133.702390 Y182.443825 Z-0.125000
G01 X138.089943 Y181.724424 Z-0.125000
G01 X139.899109 Y181.590175 Z-0.125000
G01 X141.779474 Y181.781918 Z-0.125000
G01 X145.269588 Y182.742302 Z-0.125000
G01 X146.850816 Y182.944893 Z-0.125000
G01 X147.662794 Y182.884065 Z-0.125000
G01 X148.460539 Y182.704969 Z-0.125000
G01 X151.551768 Y181.442432 Z-0.125000
G01 X152.349512 Y181.229072 Z-0.125000
G01 X153.004805 Y181.169250 Z-0.125000
G01 X153.645836 Y181.227749 Z-0.125000
G01 X154.343859 Y181.425340 Z-0.125000
G01 X155.119431 Y181.787686 Z-0.125000
G01 X157.335367 Y183.081788 Z-0.125000
G01 X158.033390 Y183.337798 Z-0.125000
G01 X158.731413 Y183.422915 Z-0.125000
G01 X159.329714 Y183.340497 Z-0.125000
G01 X159.994505 Y183.084010 Z-0.125000
G01 X160.703588 Y182.647078 Z-0.125000
G01 X162.830888 Y181.047145 Z-0.125000
G01 X163.517851 Y180.732529 Z-0.125000
G01 X164.215848 Y180.635004 Z-0.125000
G01 X164.913871 Y180.788330 Z-0.125000
G01 X165.578662 Y181.155782 Z-0.125000
G01 X167.705962 Y183.098377 Z-0.125000
G01 X168.503706 Y183.699272 Z-0.125000
G01 X169.301424 Y183.999494 Z-0.125000
G01 X170.099168 Y183.920225 Z-0.125000
G00 Z3.000000

(End cutting path id: polyline5676)


(Start cutting path id: polyline5678)
(Change tool to Default tool)

G00 Z3.000000
G00 X13.742601 Y181.052304

G00 Z4.875000 (Fast pre-penetrate)
G01 Z-0.125000 F400.0(Penetrate)
G01 X17.161463 Y180.677919 Z-0.125000 F800.000000
G01 X20.580352 Y180.608969 Z-0.125000
G01 X23.543364 Y180.759543 Z-0.125000
G01 X31.862621 Y181.433383 Z-0.125000
G01 X37.332821 Y181.588640 Z-0.125000
G01 X41.891322 Y181.493576 Z-0.125000
G01 X52.603811 Y181.017141 Z-0.125000
G01 X57.618162 Y180.911334 Z-0.125000
G01 X63.544212 Y180.939989 Z-0.125000
G01 X79.726902 Y181.262277 Z-0.125000
G01 X92.148810 Y181.321835 Z-0.125000
G01 X104.000911 Y181.253017 Z-0.125000
G01 X119.157919 Y180.905143 Z-0.125000
G01 X122.918701 Y181.017300 Z-0.125000
G01 X128.958708 Y181.506514 Z-0.125000
G01 X131.237958 Y181.588376 Z-0.125000
G01 X133.602669 Y181.450898 Z-0.125000
G01 X138.089943 Y180.723745 Z-0.125000
G01 X139.899109 Y180.598306 Z-0.125000
G01 X141.679779 Y180.776741 Z-0.125000
G01 X145.269588 Y181.752735 Z-0.125000
G01 X146.850816 Y181.952706 Z-0.125000
G01 X147.662794 Y181.892064 Z-0.125000
G01 X148.460539 Y181.714264 Z-0.125000
G01 X151.651489 Y180.422729 Z-0.125000
G01 X152.449233 Y180.223577 Z-0.125000
G01 X153.118761 Y180.177699 Z-0.125000
G01 X153.745558 Y180.250221 Z-0.125000
G01 X154.443581 Y180.461331 Z-0.125000
G01 X155.208067 Y180.827805 Z-0.125000
G01 X157.335367 Y182.072272 Z-0.125000
G01 X158.033390 Y182.335558 Z-0.125000
G01 X158.731413 Y182.431020 Z-0.125000
G01 X159.329714 Y182.358815 Z-0.125000
G01 X159.994505 Y182.113626 Z-0.125000
G01 X160.703588 Y181.686721 Z-0.125000
G01 X162.830888 Y180.084539 Z-0.125000
G01 X163.517851 Y179.756773 Z-0.125000
G01 X164.215848 Y179.641574 Z-0.125000
G01 X164.913871 Y179.775638 Z-0.125000
G01 X165.578662 Y180.126237 Z-0.125000
G01 X166.270044 Y180.677099 Z-0.125000
G01 X167.785734 Y182.123865 Z-0.125000
G01 X168.603428 Y182.729072 Z-0.125000
G01 X169.301424 Y182.997492 Z-0.125000
G01 X170.099168 Y182.947803 Z-0.125000
G00 Z3.000000

(End cutting path id: polyline5678)


(Start cutting path id: polyline5680)
(Change tool to Default tool)

G00 Z3.000000
G00 X13.742601 Y180.214820

G00 Z4.875000 (Fast pre-penetrate)
G01 Z-0.125000 F400.0(Penetrate)
G01 X17.332410 Y179.754868 Z-0.125000 F800.000000
G01 X20.580352 Y179.605802 Z-0.125000
G01 X24.227152 Y179.735845 Z-0.125000
G01 X33.230171 Y180.450272 Z-0.125000
G01 X38.130565 Y180.596004 Z-0.125000
G01 X42.347172 Y180.528059 Z-0.125000
G01 X52.945705 Y180.053477 Z-0.125000
G01 X58.757774 Y179.918857 Z-0.125000
G01 X64.569868 Y179.946850 Z-0.125000
G01 X80.524620 Y180.260778 Z-0.125000
G01 X92.148810 Y180.319303 Z-0.125000
G01 X103.545061 Y180.248448 Z-0.125000
G01 X118.588113 Y179.912481 Z-0.125000
G01 X122.462851 Y180.018922 Z-0.125000
G01 X128.730770 Y180.513560 Z-0.125000
G01 X131.010020 Y180.596428 Z-0.125000
G01 X133.502947 Y180.453606 Z-0.125000
G01 X137.990222 Y179.732485 Z-0.125000
G01 X139.785153 Y179.605697 Z-0.125000
G01 X141.679779 Y179.795958 Z-0.125000
G01 X145.269588 Y180.768010 Z-0.125000
G01 X146.850816 Y180.960467 Z-0.125000
G01 X147.662794 Y180.897206 Z-0.125000
G01 X148.460539 Y180.718215 Z-0.125000
G01 X151.651489 Y179.431522 Z-0.125000
G01 X152.449233 Y179.232423 Z-0.125000
G01 X153.118761 Y179.185301 Z-0.125000
G01 X153.745558 Y179.255574 Z-0.125000
G01 X154.443581 Y179.463324 Z-0.125000
G01 X155.208067 Y179.825830 Z-0.125000
G01 X157.435088 Y181.113185 Z-0.125000
G01 X158.133111 Y181.360967 Z-0.125000
G01 X158.831134 Y181.438357 Z-0.125000
G01 X159.529157 Y181.320803 Z-0.125000
G01 X160.260411 Y180.996318 Z-0.125000
G01 X163.118966 Y178.957177 Z-0.125000
G01 X163.717268 Y178.718206 Z-0.125000
G01 X164.315569 Y178.650129 Z-0.125000
G01 X165.013592 Y178.804301 Z-0.125000
G01 X165.667297 Y179.163181 Z-0.125000
G01 X166.349816 Y179.713197 Z-0.125000
G01 X167.865506 Y181.155200 Z-0.125000
G01 X168.603428 Y181.705824 Z-0.125000
G01 X169.301424 Y181.994431 Z-0.125000
G01 X170.099168 Y181.971942 Z-0.125000
G00 Z3.000000

(End cutting path id: polyline5680)


(Start cutting path id: polyline5682)
(Change tool to Default tool)

G00 Z3.000000
G00 X13.742601 Y179.385775

G00 Z4.875000 (Fast pre-penetrate)
G01 Z-0.125000 F400.0(Penetrate)
G01 X18.229849 Y178.779139 Z-0.125000 F800.000000
G01 X21.947902 Y178.613537 Z-0.125000
G01 X25.480720 Y178.750088 Z-0.125000
G01 X34.255853 Y179.445862 Z-0.125000
G01 X38.814354 Y179.600273 Z-0.125000
G01 X43.486810 Y179.539498 Z-0.125000
G01 X54.199273 Y179.059147 Z-0.125000
G01 X59.897412 Y178.926935 Z-0.125000
G01 X65.709507 Y178.954082 Z-0.125000
G01 X81.322364 Y179.255706 Z-0.125000
G01 X92.034854 Y179.312618 Z-0.125000
G01 X102.975255 Y179.241683 Z-0.125000
G01 X117.790368 Y178.919871 Z-0.125000
G01 X122.007001 Y179.024990 Z-0.125000
G01 X128.502858 Y179.524311 Z-0.125000
G01 X130.896064 Y179.603765 Z-0.125000
G01 X133.403252 Y179.451656 Z-0.125000
G01 X137.890527 Y178.737097 Z-0.125000
G01 X139.671171 Y178.613404 Z-0.125000
G01 X141.580058 Y178.800914 Z-0.125000
G01 X145.269588 Y179.787941 Z-0.125000
G01 X146.850816 Y179.967964 Z-0.125000
G01 X147.563073 Y179.913989 Z-0.125000
G01 X148.360817 Y179.745185 Z-0.125000
G01 X151.651489 Y178.435128 Z-0.125000
G01 X152.449233 Y178.238887 Z-0.125000
G01 X153.118761 Y178.193220 Z-0.125000
G01 X153.745558 Y178.263784 Z-0.125000
G01 X154.443581 Y178.470662 Z-0.125000
G01 X155.208067 Y178.831103 Z-0.125000
G01 X157.435088 Y180.114595 Z-0.125000
G01 X158.133111 Y180.364679 Z-0.125000
G01 X158.831134 Y180.446621 Z-0.125000
G01 X159.429435 Y180.362827 Z-0.125000
G01 X160.127458 Y180.090254 Z-0.125000
G01 X160.792223 Y179.683087 Z-0.125000
G01 X162.919523 Y178.093023 Z-0.125000
G01 X163.617546 Y177.764993 Z-0.125000
G01 X164.315569 Y177.656831 Z-0.125000
G01 X165.013592 Y177.796848 Z-0.125000
G01 X165.755933 Y178.205259 Z-0.125000
G01 X167.945277 Y180.191827 Z-0.125000
G01 X168.703123 Y180.742689 Z-0.125000
G01 X169.401145 Y181.011188 Z-0.125000
G01 X170.099168 Y180.993064 Z-0.125000
G00 Z3.000000

(End cutting path id: polyline5682)


(Start cutting path id: polyline5684)
(Change tool to Default tool)

G00 Z3.000000
G00 X13.742601 Y178.555699

G00 Z4.875000 (Fast pre-penetrate)
G01 Z-0.125000 F400.0(Penetrate)
G01 X18.927872 Y177.826217 Z-0.125000 F800.000000
G01 X20.922219 Y177.672997 Z-0.125000
G01 X22.973558 Y177.621218 Z-0.125000
G01 X26.620358 Y177.754489 Z-0.125000
G01 X35.509421 Y178.452670 Z-0.125000
G01 X40.067921 Y178.607769 Z-0.125000
G01 X44.740404 Y178.548370 Z-0.125000
G01 X55.452867 Y178.066802 Z-0.125000
G01 X61.037024 Y177.935622 Z-0.125000
G01 X66.849119 Y177.959805 Z-0.125000
G01 X82.120109 Y178.246534 Z-0.125000
G01 X92.034854 Y178.300773 Z-0.125000
G01 X102.177511 Y178.233887 Z-0.125000
G01 X117.106607 Y177.927658 Z-0.125000
G01 X121.437169 Y178.029708 Z-0.125000
G01 X128.274920 Y178.538316 Z-0.125000
G01 X130.668152 Y178.611155 Z-0.125000
G01 X133.104088 Y178.467381 Z-0.125000
G01 X137.691085 Y177.750573 Z-0.125000
G01 X139.557215 Y177.621377 Z-0.125000
G01 X141.480336 Y177.811215 Z-0.125000
G01 X145.169867 Y178.790728 Z-0.125000
G01 X146.736860 Y178.975989 Z-0.125000
G01 X147.563073 Y178.913494 Z-0.125000
G01 X148.360817 Y178.738499 Z-0.125000
G01 X151.551768 Y177.466252 Z-0.125000
G01 X152.349512 Y177.259269 Z-0.125000
G01 X153.004805 Y177.200452 Z-0.125000
G01 X153.745558 Y177.274932 Z-0.125000
G01 X154.443581 Y177.483370 Z-0.125000
G01 X155.208067 Y177.843574 Z-0.125000
G01 X157.435088 Y179.121298 Z-0.125000
G01 X158.133111 Y179.371091 Z-0.125000
G01 X158.831134 Y179.454593 Z-0.125000
G01 X159.429435 Y179.373551 Z-0.125000
G01 X160.127458 Y179.105370 Z-0.125000
G01 X160.792223 Y178.702675 Z-0.125000
G01 X162.919523 Y177.115838 Z-0.125000
G01 X163.617546 Y176.781829 Z-0.125000
G01 X164.315569 Y176.664274 Z-0.125000
G01 X165.013592 Y176.792756 Z-0.125000
G01 X165.755933 Y177.188784 Z-0.125000
G01 X168.025049 Y179.233164 Z-0.125000
G01 X168.703123 Y179.725420 Z-0.125000
G01 X169.401145 Y180.009953 Z-0.125000
G01 X170.099168 Y180.011540 Z-0.125000
G00 Z3.000000

(End cutting path id: polyline5684)


(Start cutting path id: polyline5686)
(Change tool to Default tool)

G00 Z3.000000
G00 X13.742601 Y177.713849

G00 Z4.875000 (Fast pre-penetrate)
G01 Z-0.125000 F400.0(Penetrate)
G01 X19.725616 Y176.868321 Z-0.125000 F800.000000
G01 X21.719964 Y176.700364 Z-0.125000
G01 X23.771302 Y176.630699 Z-0.125000
G01 X27.646014 Y176.749682 Z-0.125000
G01 X36.990953 Y177.470406 Z-0.125000
G01 X41.435472 Y177.615979 Z-0.125000
G01 X46.107955 Y177.554808 Z-0.125000
G01 X56.706462 Y177.076653 Z-0.125000
G01 X62.290618 Y176.944071 Z-0.125000
G01 X67.988757 Y176.963994 Z-0.125000
G01 X83.145765 Y177.235192 Z-0.125000
G01 X92.034854 Y177.282922 Z-0.125000
G01 X101.493722 Y177.219396 Z-0.125000
G01 X116.308862 Y176.935472 Z-0.125000
G01 X120.981319 Y177.044798 Z-0.125000
G01 X127.705114 Y177.534805 Z-0.125000
G01 X130.098320 Y177.620001 Z-0.125000
G01 X132.804951 Y177.477894 Z-0.125000
G01 X137.391921 Y176.772066 Z-0.125000
G01 X139.329303 Y176.629164 Z-0.125000
G01 X141.280894 Y176.808552 Z-0.125000
G01 X145.070146 Y177.798462 Z-0.125000
G01 X146.736860 Y177.982983 Z-0.125000
G01 X148.261096 Y177.754462 Z-0.125000
G01 X151.551768 Y176.458958 Z-0.125000
G01 X152.349512 Y176.260309 Z-0.125000
G01 X153.004805 Y176.208319 Z-0.125000
G01 X153.745558 Y176.289175 Z-0.125000
G01 X154.443581 Y176.501556 Z-0.125000
G01 X157.435088 Y178.133345 Z-0.125000
G01 X158.133111 Y178.380280 Z-0.125000
G01 X158.831134 Y178.462354 Z-0.125000
G01 X159.429435 Y178.381630 Z-0.125000
G01 X160.127458 Y178.115380 Z-0.125000
G01 X160.880885 Y177.652651 Z-0.125000
G01 X162.919523 Y176.133759 Z-0.125000
G01 X163.617546 Y175.796310 Z-0.125000
G01 X164.315569 Y175.672115 Z-0.125000
G01 X165.013592 Y175.791627 Z-0.125000
G01 X165.755933 Y176.177309 Z-0.125000
G01 X166.429587 Y176.710656 Z-0.125000
G01 X168.104821 Y178.278601 Z-0.125000
G01 X168.802844 Y178.768291 Z-0.125000
G01 X169.401145 Y179.008612 Z-0.125000
G01 X170.099168 Y179.028032 Z-0.125000
G00 Z3.000000

(End cutting path id: polyline5686)


(Start cutting path id: polyline5688)
(Change tool to Default tool)

G00 Z3.000000
G00 X13.742601 Y176.848636

G00 Z4.875000 (Fast pre-penetrate)
G01 Z-0.125000 F400.0(Penetrate)
G01 X20.822498 Y175.882088 Z-0.125000 F800.000000
G01 X22.859602 Y175.710506 Z-0.125000
G01 X24.910914 Y175.639121 Z-0.125000
G01 X28.329803 Y175.724052 Z-0.125000
G01 X37.560759 Y176.432341 Z-0.125000
G01 X42.803022 Y176.623820 Z-0.125000
G01 X47.475505 Y176.562675 Z-0.125000
G01 X58.074012 Y176.084785 Z-0.125000
G01 X63.658168 Y175.952334 Z-0.125000
G01 X91.920871 Y176.258483 Z-0.125000
G01 X100.582022 Y176.202709 Z-0.125000
G01 X115.397162 Y175.943312 Z-0.125000
G01 X120.297557 Y176.053590 Z-0.125000
G01 X127.363219 Y176.549683 Z-0.125000
G01 X129.756452 Y176.627709 Z-0.125000
G01 X132.505787 Y176.482929 Z-0.125000
G01 X137.192504 Y175.775223 Z-0.125000
G01 X139.101365 Y175.636978 Z-0.125000
G01 X141.081478 Y175.811603 Z-0.125000
G01 X144.970451 Y176.811303 Z-0.125000
G01 X146.622904 Y176.990743 Z-0.125000
G01 X148.161401 Y176.764737 Z-0.125000
G01 X151.551768 Y175.446928 Z-0.125000
G01 X152.349512 Y175.259418 Z-0.125000
G01 X153.004805 Y175.216767 Z-0.125000
G01 X153.645836 Y175.285797 Z-0.125000
G01 X154.343859 Y175.486298 Z-0.125000
G01 X155.119431 Y175.842215 Z-0.125000
G01 X157.335367 Y177.106657 Z-0.125000
G01 X158.133111 Y177.392195 Z-0.125000
G01 X158.831134 Y177.469956 Z-0.125000
G01 X159.429435 Y177.387036 Z-0.125000
G01 X160.127458 Y177.120310 Z-0.125000
G01 X160.792223 Y176.721848 Z-0.125000
G01 X163.019245 Y175.089503 Z-0.125000
G01 X163.717268 Y174.776607 Z-0.125000
G01 X164.415290 Y174.680563 Z-0.125000
G01 X165.113313 Y174.828941 Z-0.125000
G01 X165.844568 Y175.232007 Z-0.125000
G01 X168.104821 Y177.260353 Z-0.125000
G01 X168.769612 Y177.737661 Z-0.125000
G01 X169.401145 Y178.007483 Z-0.125000
G01 X170.099168 Y178.042593 Z-0.125000
G00 Z3.000000

(End cutting path id: polyline5688)


(Start cutting path id: polyline5690)
(Change tool to Default tool)

G00 Z3.000000
G00 X13.742601 Y175.948577

G00 Z4.875000 (Fast pre-penetrate)
G01 Z-0.125000 F400.0(Penetrate)
G01 X15.836643 Y175.741806 Z-0.125000 F800.000000
G01 X22.118822 Y174.878048 Z-0.125000
G01 X26.164508 Y174.646803 Z-0.125000
G01 X29.697353 Y174.736443 Z-0.125000
G01 X39.042265 Y175.446267 Z-0.125000
G01 X44.170572 Y175.631263 Z-0.125000
G01 X48.843055 Y175.572076 Z-0.125000
G01 X59.441562 Y175.095879 Z-0.125000
G01 X65.025718 Y174.961656 Z-0.125000
G01 X91.920871 Y175.227192 Z-0.125000
G01 X114.257524 Y174.951099 Z-0.125000
G01 X119.499813 Y175.062542 Z-0.125000
G01 X126.793413 Y175.555301 Z-0.125000
G01 X129.300602 Y175.635602 Z-0.125000
G01 X132.106928 Y175.492913 Z-0.125000
G01 X136.993062 Y174.774014 Z-0.125000
G01 X138.873453 Y174.644580 Z-0.125000
G01 X140.882035 Y174.820157 Z-0.125000
G01 X144.870729 Y175.829224 Z-0.125000
G01 X146.508922 Y175.998187 Z-0.125000
G01 X148.061680 Y175.769322 Z-0.125000
G01 X151.452046 Y174.461489 Z-0.125000
G01 X152.249791 Y174.271730 Z-0.125000
G01 X152.890822 Y174.224131 Z-0.125000
G01 X153.645836 Y174.306020 Z-0.125000
G01 X154.343859 Y174.515331 Z-0.125000
G01 X155.119431 Y174.876540 Z-0.125000
G01 X157.335367 Y176.129975 Z-0.125000
G01 X158.133111 Y176.406571 Z-0.125000
G01 X158.831134 Y176.477161 Z-0.125000
G01 X159.529157 Y176.362147 Z-0.125000
G01 X160.326901 Y176.012210 Z-0.125000
G01 X162.564982 Y174.385130 Z-0.125000
G01 X163.218687 Y173.990504 Z-0.125000
G01 X163.816989 Y173.758862 Z-0.125000
G01 X164.415290 Y173.688113 Z-0.125000
G01 X165.113313 Y173.832257 Z-0.125000
G01 X165.844568 Y174.229052 Z-0.125000
G01 X168.104821 Y176.246313 Z-0.125000
G01 X168.769612 Y176.728356 Z-0.125000
G01 X169.401145 Y177.006883 Z-0.125000
G01 X170.099168 Y177.055672 Z-0.125000
G00 Z3.000000

(End cutting path id: polyline5690)


(Start cutting path id: polyline5692)
(Change tool to Default tool)

G00 Z3.000000
G00 X13.742601 Y175.003222

G00 Z4.875000 (Fast pre-penetrate)
G01 Z-0.125000 F400.0(Penetrate)
G01 X16.534666 Y174.802324 Z-0.125000 F800.000000
G01 X23.514868 Y173.867923 Z-0.125000
G01 X27.418102 Y173.654802 Z-0.125000
G01 X30.950920 Y173.740394 Z-0.125000
G01 X40.409816 Y174.450323 Z-0.125000
G01 X45.538122 Y174.638177 Z-0.125000
G01 X50.324561 Y174.579598 Z-0.125000
G01 X60.923068 Y174.106074 Z-0.125000
G01 X66.621207 Y173.970052 Z-0.125000
G01 X91.920871 Y174.189550 Z-0.125000
G01 X113.003956 Y173.958940 Z-0.125000
G01 X118.588113 Y174.072419 Z-0.125000
G01 X126.109652 Y174.559226 Z-0.125000
G01 X128.730770 Y174.643363 Z-0.125000
G01 X131.708043 Y174.496890 Z-0.125000
G01 X136.594203 Y173.792279 Z-0.125000
G01 X138.645515 Y173.652553 Z-0.125000
G01 X140.682592 Y173.834559 Z-0.125000
G01 X144.571565 Y174.811664 Z-0.125000
G01 X146.281010 Y175.006979 Z-0.125000
G01 X147.064493 Y174.952925 Z-0.125000
G01 X147.961958 Y174.767955 Z-0.125000
G01 X151.352351 Y173.470546 Z-0.125000
G01 X152.150069 Y173.281475 Z-0.125000
G01 X152.776866 Y173.231786 Z-0.125000
G01 X153.446394 Y173.289677 Z-0.125000
G01 X154.244138 Y173.511874 Z-0.125000
G01 X155.119431 Y173.918511 Z-0.125000
G01 X157.335367 Y175.158321 Z-0.125000
G01 X158.033390 Y175.401049 Z-0.125000
G01 X158.731413 Y175.485742 Z-0.125000
G01 X159.329714 Y175.414464 Z-0.125000
G01 X160.027737 Y175.164909 Z-0.125000
G01 X160.792223 Y174.714615 Z-0.125000
G01 X163.019245 Y173.101294 Z-0.125000
G01 X163.717268 Y172.792605 Z-0.125000
G01 X164.415290 Y172.695900 Z-0.125000
G01 X165.113313 Y172.838219 Z-0.125000
G01 X165.844568 Y173.230675 Z-0.125000
G01 X168.104821 Y175.236505 Z-0.125000
G01 X168.769612 Y175.721592 Z-0.125000
G01 X169.401145 Y176.006997 Z-0.125000
G01 X170.099168 Y176.067507 Z-0.125000
G00 Z3.000000

(End cutting path id: polyline5692)


(Start cutting path id: polyline5694)
(Change tool to Default tool)

G00 Z3.000000
G00 X13.742601 Y174.004183

G00 Z4.875000 (Fast pre-penetrate)
G01 Z-0.125000 F400.0(Penetrate)
G01 X16.833830 Y173.898774 Z-0.125000 F800.000000
G01 X24.412334 Y172.911800 Z-0.125000
G01 X26.506402 Y172.739239 Z-0.125000
G01 X28.671670 Y172.663303 Z-0.125000
G01 X32.318471 Y172.748181 Z-0.125000
G01 X41.891322 Y173.458322 Z-0.125000
G01 X47.133611 Y173.646838 Z-0.125000
G01 X51.806067 Y173.589106 Z-0.125000
G01 X62.518556 Y173.115952 Z-0.125000
G01 X68.216669 Y172.980062 Z-0.125000
G01 X91.920871 Y173.147067 Z-0.125000
G01 X111.408468 Y172.966727 Z-0.125000
G01 X117.448474 Y173.079281 Z-0.125000
G01 X125.425863 Y173.568574 Z-0.125000
G01 X128.160964 Y173.651177 Z-0.125000
G01 X131.209463 Y173.504598 Z-0.125000
G01 X136.295039 Y172.792367 Z-0.125000
G01 X138.303621 Y172.660393 Z-0.125000
G01 X140.383455 Y172.838166 Z-0.125000
G01 X144.471844 Y173.841544 Z-0.125000
G01 X146.167054 Y174.014343 Z-0.125000
G01 X146.964772 Y173.951267 Z-0.125000
G01 X147.862237 Y173.760158 Z-0.125000
G01 X151.152909 Y172.505188 Z-0.125000
G01 X151.950653 Y172.304661 Z-0.125000
G01 X152.648676 Y172.239415 Z-0.125000
G01 X153.346672 Y172.296459 Z-0.125000
G01 X154.144417 Y172.515057 Z-0.125000
G01 X155.030796 Y172.920690 Z-0.125000
G01 X157.235646 Y174.148910 Z-0.125000
G01 X158.033390 Y174.421087 Z-0.125000
G01 X158.731413 Y174.492921 Z-0.125000
G01 X159.329714 Y174.412276 Z-0.125000
G01 X160.027737 Y174.154916 Z-0.125000
G01 X160.792223 Y173.701024 Z-0.125000
G01 X162.919523 Y172.155807 Z-0.125000
G01 X163.717268 Y171.797164 Z-0.125000
G01 X164.415290 Y171.703899 Z-0.125000
G01 X165.113313 Y171.846774 Z-0.125000
G01 X165.844568 Y172.236742 Z-0.125000
G01 X168.184593 Y174.298373 Z-0.125000
G01 X168.858248 Y174.770283 Z-0.125000
G01 X169.500867 Y175.034258 Z-0.125000
G01 X170.099168 Y175.078364 Z-0.125000
G00 Z3.000000

(End cutting path id: polyline5694)


(Start cutting path id: polyline5696)
(Change tool to Default tool)

G00 Z3.000000
G00 X13.742601 Y172.946433

G00 Z4.875000 (Fast pre-penetrate)
G01 Z-0.125000 F400.0(Penetrate)
G01 X15.566001 Y173.022924 Z-0.125000 F800.000000
G01 X17.617313 Y172.939713 Z-0.125000
G01 X25.708658 Y171.918714 Z-0.125000
G01 X27.873952 Y171.744406 Z-0.125000
G01 X30.039220 Y171.670985 Z-0.125000
G01 X33.800003 Y171.759488 Z-0.125000
G01 X43.372854 Y172.462987 Z-0.125000
G01 X48.615117 Y172.653752 Z-0.125000
G01 X53.401555 Y172.597290 Z-0.125000
G01 X64.114018 Y172.130459 Z-0.125000
G01 X69.926113 Y171.990998 Z-0.125000
G01 X92.034854 Y172.102414 Z-0.125000
G01 X109.585067 Y171.974541 Z-0.125000
G01 X116.194906 Y172.089211 Z-0.125000
G01 X124.742101 Y172.583267 Z-0.125000
G01 X127.477202 Y172.659017 Z-0.125000
G01 X130.611161 Y172.514899 Z-0.125000
G01 X135.896180 Y171.799016 Z-0.125000
G01 X137.961753 Y171.668074 Z-0.125000
G01 X140.084291 Y171.847938 Z-0.125000
G01 X144.272428 Y172.855787 Z-0.125000
G01 X145.939116 Y173.022422 Z-0.125000
G01 X146.765355 Y172.959742 Z-0.125000
G01 X147.662794 Y172.772788 Z-0.125000
G01 X150.953466 Y171.532370 Z-0.125000
G01 X151.751210 Y171.324698 Z-0.125000
G01 X152.548955 Y171.246779 Z-0.125000
G01 X153.346672 Y171.324831 Z-0.125000
G01 X154.044695 Y171.524432 Z-0.125000
G01 X154.942161 Y171.931652 Z-0.125000
G01 X157.235646 Y173.187760 Z-0.125000
G01 X157.933668 Y173.420698 Z-0.125000
G01 X158.631691 Y173.500947 Z-0.125000
G01 X159.329714 Y173.406649 Z-0.125000
G01 X159.994505 Y173.156115 Z-0.125000
G01 X160.703588 Y172.741487 Z-0.125000
G01 X162.919523 Y171.149306 Z-0.125000
G01 X163.617546 Y170.829161 Z-0.125000
G01 X164.315569 Y170.711104 Z-0.125000
G01 X165.113313 Y170.857868 Z-0.125000
G01 X165.844568 Y171.247176 Z-0.125000
G01 X168.184593 Y173.296821 Z-0.125000
G01 X168.858248 Y173.769181 Z-0.125000
G01 X169.500867 Y174.037230 Z-0.125000
G01 X170.099168 Y174.088427 Z-0.125000
G00 Z3.000000

(End cutting path id: polyline5696)


(Start cutting path id: polyline5698)
(Change tool to Default tool)

G00 Z3.000000
G00 X13.742601 Y171.829205

G00 Z4.875000 (Fast pre-penetrate)
G01 Z-0.125000 F400.0(Penetrate)
G01 X16.021851 Y172.018885 Z-0.125000 F800.000000
G01 X18.415057 Y171.976075 Z-0.125000
G01 X20.623082 Y171.765203 Z-0.125000
G01 X27.104704 Y170.919807 Z-0.125000
G01 X29.355459 Y170.745870 Z-0.125000
G01 X31.520753 Y170.678005 Z-0.125000
G01 X35.395465 Y170.774022 Z-0.125000
G01 X44.968316 Y171.470854 Z-0.125000
G01 X50.210605 Y171.661089 Z-0.125000
G01 X55.110973 Y171.604521 Z-0.125000
G01 X65.823463 Y171.146237 Z-0.125000
G01 X71.749513 Y171.003600 Z-0.125000
G01 X92.148810 Y171.059824 Z-0.125000
G01 X107.305817 Y170.982354 Z-0.125000
G01 X114.599418 Y171.094908 Z-0.125000
G01 X123.830401 Y171.592245 Z-0.125000
G01 X126.679458 Y171.666831 Z-0.125000
G01 X130.012859 Y171.517818 Z-0.125000
G01 X135.497295 Y170.799184 Z-0.125000
G01 X137.505903 Y170.676020 Z-0.125000
G01 X139.785153 Y170.864589 Z-0.125000
G01 X143.973264 Y171.856193 Z-0.125000
G01 X145.711204 Y172.029918 Z-0.125000
G01 X146.565913 Y171.964672 Z-0.125000
G01 X147.363657 Y171.805313 Z-0.125000
G01 X150.853745 Y170.521319 Z-0.125000
G01 X151.651489 Y170.323649 Z-0.125000
G01 X152.449233 Y170.254540 Z-0.125000
G01 X153.246977 Y170.338412 Z-0.125000
G01 X153.944974 Y170.539522 Z-0.125000
G01 X154.842439 Y170.945101 Z-0.125000
G01 X157.135924 Y172.189091 Z-0.125000
G01 X157.933668 Y172.445446 Z-0.125000
G01 X158.631691 Y172.507411 Z-0.125000
G01 X159.229993 Y172.423829 Z-0.125000
G01 X159.905870 Y172.179037 Z-0.125000
G01 X160.703588 Y171.714535 Z-0.125000
G01 X162.919523 Y170.138388 Z-0.125000
G01 X163.617546 Y169.828323 Z-0.125000
G01 X164.315569 Y169.718838 Z-0.125000
G01 X165.113313 Y169.871556 Z-0.125000
G01 X165.844568 Y170.261895 Z-0.125000
G01 X168.184593 Y172.299290 Z-0.125000
G01 X168.858248 Y172.770618 Z-0.125000
G01 X169.500867 Y173.041101 Z-0.125000
G01 X170.099168 Y173.097881 Z-0.125000
G00 Z3.000000

(End cutting path id: polyline5698)


(Start cutting path id: polyline5700)
(Change tool to Default tool)

G00 Z3.000000
G00 X13.742601 Y170.656944

G00 Z4.875000 (Fast pre-penetrate)
G01 Z-0.125000 F400.0(Penetrate)
G01 X16.477701 Y170.991139 Z-0.125000 F800.000000
G01 X19.212802 Y171.007860 Z-0.125000
G01 X21.719964 Y170.792675 Z-0.125000
G01 X28.700166 Y169.906560 Z-0.125000
G01 X31.064903 Y169.739052 Z-0.125000
G01 X33.458109 Y169.683728 Z-0.125000
G01 X37.674715 Y169.824354 Z-0.125000
G01 X47.361522 Y170.519996 Z-0.125000
G01 X51.920023 Y170.668797 Z-0.125000
G01 X56.820417 Y170.614716 Z-0.125000
G01 X67.646863 Y170.164423 Z-0.125000
G01 X73.686869 Y170.018902 Z-0.125000
G01 X104.342805 Y169.990168 Z-0.125000
G01 X112.662062 Y170.099282 Z-0.125000
G01 X122.918701 Y170.607387 Z-0.125000
G01 X126.109652 Y170.673163 Z-0.125000
G01 X129.414558 Y170.513011 Z-0.125000
G01 X134.898993 Y169.815041 Z-0.125000
G01 X137.164009 Y169.683966 Z-0.125000
G01 X139.386268 Y169.872032 Z-0.125000
G01 X143.574405 Y170.845115 Z-0.125000
G01 X145.369310 Y171.038552 Z-0.125000
G01 X146.266749 Y170.979735 Z-0.125000
G01 X147.164214 Y170.804925 Z-0.125000
G01 X150.754024 Y169.505505 Z-0.125000
G01 X151.551768 Y169.320535 Z-0.125000
G01 X152.321016 Y169.262856 Z-0.125000
G01 X153.047535 Y169.335934 Z-0.125000
G01 X153.845279 Y169.560512 Z-0.125000
G01 X157.036229 Y171.195767 Z-0.125000
G01 X157.833947 Y171.450693 Z-0.125000
G01 X158.531970 Y171.515489 Z-0.125000
G01 X159.229993 Y171.411984 Z-0.125000
G01 X159.905870 Y171.153487 Z-0.125000
G01 X160.703588 Y170.680624 Z-0.125000
G01 X162.830888 Y169.171628 Z-0.125000
G01 X163.617546 Y168.825527 Z-0.125000
G01 X164.315569 Y168.726917 Z-0.125000
G01 X165.113313 Y168.887942 Z-0.125000
G01 X165.844568 Y169.280901 Z-0.125000
G01 X168.184593 Y171.305701 Z-0.125000
G01 X168.858248 Y171.774569 Z-0.125000
G01 X169.500867 Y172.045925 Z-0.125000
G01 X170.099168 Y172.106859 Z-0.125000
G00 Z3.000000

(End cutting path id: polyline5700)


(Start cutting path id: polyline5702)
(Change tool to Default tool)

G00 Z3.000000
G00 X13.742601 Y169.439703

G00 Z4.875000 (Fast pre-penetrate)
G01 Z-0.125000 F400.0(Penetrate)
G01 X17.033246 Y169.947544 Z-0.125000 F800.000000
G01 X20.124502 Y170.029988 Z-0.125000
G01 X22.816845 Y169.823243 Z-0.125000
G01 X30.295654 Y168.899319 Z-0.125000
G01 X32.660365 Y168.741522 Z-0.125000
G01 X35.053571 Y168.691595 Z-0.125000
G01 X39.270204 Y168.831586 Z-0.125000
G01 X49.070967 Y169.525666 Z-0.125000
G01 X53.629467 Y169.675500 Z-0.125000
G01 X58.757774 Y169.621578 Z-0.125000
G01 X69.584219 Y169.186471 Z-0.125000
G01 X75.510270 Y169.041956 Z-0.125000
G01 X100.126172 Y168.997982 Z-0.125000
G01 X110.382812 Y169.105429 Z-0.125000
G01 X121.779063 Y169.619038 Z-0.125000
G01 X124.970013 Y169.681691 Z-0.125000
G01 X128.517092 Y169.526037 Z-0.125000
G01 X134.400413 Y168.813224 Z-0.125000
G01 X136.594203 Y168.691568 Z-0.125000
G01 X138.987409 Y168.887016 Z-0.125000
G01 X143.374962 Y169.878303 Z-0.125000
G01 X145.141371 Y170.045942 Z-0.125000
G01 X146.067333 Y169.976913 Z-0.125000
G01 X146.964772 Y169.796943 Z-0.125000
G01 X150.554607 Y168.514271 Z-0.125000
G01 X151.352351 Y168.331048 Z-0.125000
G01 X152.093105 Y168.270749 Z-0.125000
G01 X152.848092 Y168.337212 Z-0.125000
G01 X153.645836 Y168.551048 Z-0.125000
G01 X154.443581 Y168.893075 Z-0.125000
G01 X156.936508 Y170.208185 Z-0.125000
G01 X157.734252 Y170.458718 Z-0.125000
G01 X158.432249 Y170.523409 Z-0.125000
G01 X159.130271 Y170.423476 Z-0.125000
G01 X159.817235 Y170.165428 Z-0.125000
G01 X160.614953 Y169.699550 Z-0.125000
G01 X162.830888 Y168.151211 Z-0.125000
G01 X163.617546 Y167.821170 Z-0.125000
G01 X164.315569 Y167.735604 Z-0.125000
G01 X165.113313 Y167.907159 Z-0.125000
G01 X165.844568 Y168.304219 Z-0.125000
G01 X168.184593 Y170.315949 Z-0.125000
G01 X168.858248 Y170.780980 Z-0.125000
G01 X169.500867 Y171.051728 Z-0.125000
G01 X170.099168 Y171.115466 Z-0.125000
G00 Z3.000000

(End cutting path id: polyline5702)


(Start cutting path id: polyline5704)
(Change tool to Default tool)

G00 Z3.000000
G00 X13.742601 Y168.193147

G00 Z4.875000 (Fast pre-penetrate)
G01 Z-0.125000 F400.0(Penetrate)
G01 X17.332410 Y168.852170 Z-0.125000 F800.000000
G01 X20.352413 Y169.053862 Z-0.125000
G01 X23.714311 Y168.876882 Z-0.125000
G01 X31.891116 Y167.897925 Z-0.125000
G01 X36.307165 Y167.699938 Z-0.125000
G01 X40.181904 Y167.797675 Z-0.125000
G01 X50.210605 Y168.494904 Z-0.125000
G01 X55.566823 Y168.683525 Z-0.125000
G01 X60.809112 Y168.629233 Z-0.125000
G01 X76.535952 Y168.088240 Z-0.125000
G01 X92.262766 Y168.006801 Z-0.125000
G01 X107.191861 Y168.103691 Z-0.125000
G01 X120.411513 Y168.629286 Z-0.125000
G01 X123.716419 Y168.689822 Z-0.125000
G01 X127.519932 Y168.536893 Z-0.125000
G01 X133.802111 Y167.814396 Z-0.125000
G01 X136.138353 Y167.700202 Z-0.125000
G01 X138.488829 Y167.894539 Z-0.125000
G01 X142.876382 Y168.863150 Z-0.125000
G01 X144.799504 Y169.053624 Z-0.125000
G01 X145.668447 Y168.996342 Z-0.125000
G01 X146.565913 Y168.831453 Z-0.125000
G01 X150.355165 Y167.516106 Z-0.125000
G01 X151.152909 Y167.337724 Z-0.125000
G01 X151.950653 Y167.278801 Z-0.125000
G01 X152.748371 Y167.360425 Z-0.125000
G01 X153.546115 Y167.584553 Z-0.125000
G01 X156.737065 Y169.185174 Z-0.125000
G01 X157.534810 Y169.448514 Z-0.125000
G01 X158.232832 Y169.532440 Z-0.125000
G01 X158.930855 Y169.455843 Z-0.125000
G01 X159.728573 Y169.171019 Z-0.125000
G01 X160.614953 Y168.651696 Z-0.125000
G01 X162.742253 Y167.175058 Z-0.125000
G01 X163.517851 Y166.842821 Z-0.125000
G01 X164.215848 Y166.742756 Z-0.125000
G01 X165.013592 Y166.891240 Z-0.125000
G01 X165.755933 Y167.272186 Z-0.125000
G01 X168.184593 Y169.329901 Z-0.125000
G01 X168.858248 Y169.789852 Z-0.125000
G01 X169.500867 Y170.058589 Z-0.125000
G01 X170.099168 Y170.123809 Z-0.125000
G00 Z3.000000

(End cutting path id: polyline5704)


(Start cutting path id: polyline5706)
(Change tool to Default tool)

G00 Z3.000000
G00 X13.742601 Y166.937806

G00 Z4.875000 (Fast pre-penetrate)
G01 Z-0.125000 F400.0(Penetrate)
G01 X18.229849 Y167.811751 Z-0.125000 F800.000000
G01 X20.024780 Y168.001060 Z-0.125000
G01 X21.833919 Y168.061993 Z-0.125000
G01 X25.110357 Y167.882368 Z-0.125000
G01 X33.287162 Y166.919048 Z-0.125000
G01 X37.560759 Y166.710900 Z-0.125000
G01 X41.891322 Y166.803822 Z-0.125000
G01 X52.147961 Y167.503141 Z-0.125000
G01 X57.504206 Y167.690122 Z-0.125000
G01 X62.860424 Y167.641650 Z-0.125000
G01 X78.473308 Y167.132778 Z-0.125000
G01 X91.692960 Y167.037528 Z-0.125000
G01 X105.368461 Y167.149182 Z-0.125000
G01 X122.120957 Y167.698086 Z-0.125000
G01 X126.423024 Y167.544284 Z-0.125000
G01 X133.004367 Y166.826840 Z-0.125000
G01 X135.454564 Y166.707646 Z-0.125000
G01 X137.890527 Y166.896029 Z-0.125000
G01 X142.577218 Y167.891787 Z-0.125000
G01 X144.457610 Y168.061543 Z-0.125000
G01 X145.369310 Y167.998599 Z-0.125000
G01 X146.266749 Y167.833632 Z-0.125000
G01 X150.056027 Y166.537598 Z-0.125000
G01 X150.953466 Y166.340034 Z-0.125000
G01 X151.751210 Y166.286403 Z-0.125000
G01 X152.548955 Y166.369032 Z-0.125000
G01 X153.346672 Y166.589695 Z-0.125000
G01 X156.637344 Y168.211377 Z-0.125000
G01 X157.435088 Y168.463895 Z-0.125000
G01 X158.133111 Y168.540756 Z-0.125000
G01 X158.930855 Y168.435743 Z-0.125000
G01 X159.628878 Y168.175817 Z-0.125000
G01 X160.526317 Y167.655223 Z-0.125000
G01 X162.742253 Y166.145962 Z-0.125000
G01 X163.517851 Y165.834098 Z-0.125000
G01 X164.215848 Y165.751522 Z-0.125000
G01 X165.013592 Y165.915299 Z-0.125000
G01 X165.755933 Y166.303839 Z-0.125000
G01 X168.104821 Y168.283370 Z-0.125000
G01 X168.858248 Y168.801053 Z-0.125000
G01 X169.500867 Y169.066430 Z-0.125000
G01 X170.099168 Y169.131914 Z-0.125000
G00 Z3.000000

(End cutting path id: polyline5706)


(Start cutting path id: polyline5708)
(Change tool to Default tool)

G00 Z3.000000
G00 X13.742601 Y165.697759

G00 Z4.875000 (Fast pre-penetrate)
G01 Z-0.125000 F400.0(Penetrate)
G01 X19.127315 Y166.763049 Z-0.125000 F800.000000
G01 X21.036202 Y166.985828 Z-0.125000
G01 X22.859602 Y167.068325 Z-0.125000
G01 X26.506402 Y166.892589 Z-0.125000
G01 X34.982345 Y165.920591 Z-0.125000
G01 X39.270204 Y165.718925 Z-0.125000
G01 X43.714722 Y165.811186 Z-0.125000
G01 X54.085317 Y166.504737 Z-0.125000
G01 X59.555518 Y166.696189 Z-0.125000
G01 X65.139701 Y166.653433 Z-0.125000
G01 X80.524620 Y166.191947 Z-0.125000
G01 X91.692960 Y166.101724 Z-0.125000
G01 X103.545061 Y166.211658 Z-0.125000
G01 X120.411513 Y166.705926 Z-0.125000
G01 X125.197952 Y166.548790 Z-0.125000
G01 X132.106928 Y165.839046 Z-0.125000
G01 X134.542864 Y165.715063 Z-0.125000
G01 X135.896180 Y165.758639 Z-0.125000
G01 X137.292199 Y165.907414 Z-0.125000
G01 X142.078638 Y166.893330 Z-0.125000
G01 X144.001760 Y167.069463 Z-0.125000
G01 X144.970451 Y167.008291 Z-0.125000
G01 X145.967611 Y166.826814 Z-0.125000
G01 X149.856584 Y165.525039 Z-0.125000
G01 X150.754024 Y165.339752 Z-0.125000
G01 X151.523272 Y165.294534 Z-0.125000
G01 X152.349512 Y165.382402 Z-0.125000
G01 X153.147256 Y165.602747 Z-0.125000
G01 X156.437928 Y167.204585 Z-0.125000
G01 X157.235646 Y167.461575 Z-0.125000
G01 X158.033390 Y167.548385 Z-0.125000
G01 X158.731413 Y167.460993 Z-0.125000
G01 X159.429435 Y167.221069 Z-0.125000
G01 X160.260411 Y166.765933 Z-0.125000
G01 X162.653617 Y165.160126 Z-0.125000
G01 X163.418130 Y164.850855 Z-0.125000
G01 X164.116153 Y164.758754 Z-0.125000
G01 X164.913871 Y164.905227 Z-0.125000
G01 X165.667297 Y165.281464 Z-0.125000
G01 X166.349816 Y165.781235 Z-0.125000
G01 X168.104821 Y167.305392 Z-0.125000
G01 X168.858248 Y167.814502 Z-0.125000
G01 X169.500867 Y168.075249 Z-0.125000
G01 X170.099168 Y168.139860 Z-0.125000
G00 Z3.000000

(End cutting path id: polyline5708)


(Start cutting path id: polyline5710)
(Change tool to Default tool)

G00 Z3.000000
G00 X13.742601 Y164.498669

G00 Z4.875000 (Fast pre-penetrate)
G01 Z-0.125000 F400.0(Penetrate)
G01 X20.423639 Y165.767238 Z-0.125000 F800.000000
G01 X22.318265 Y165.987742 Z-0.125000
G01 X24.227152 Y166.075901 Z-0.125000
G01 X27.902422 Y165.907705 Z-0.125000
G01 X36.677555 Y164.928881 Z-0.125000
G01 X40.979622 Y164.728036 Z-0.125000
G01 X45.652104 Y164.819105 Z-0.125000
G01 X56.250612 Y165.511334 Z-0.125000
G01 X61.834768 Y165.702627 Z-0.125000
G01 X67.418951 Y165.671009 Z-0.125000
G01 X82.462003 Y165.273288 Z-0.125000
G01 X91.692960 Y165.199814 Z-0.125000
G01 X101.607705 Y165.291148 Z-0.125000
G01 X118.474157 Y165.713713 Z-0.125000
G01 X123.716419 Y165.556974 Z-0.125000
G01 X131.209463 Y164.841092 Z-0.125000
G01 X133.745120 Y164.722823 Z-0.125000
G01 X135.198157 Y164.770739 Z-0.125000
G01 X136.594203 Y164.915096 Z-0.125000
G01 X141.580058 Y165.902996 Z-0.125000
G01 X143.545909 Y166.077541 Z-0.125000
G01 X144.571565 Y166.013380 Z-0.125000
G01 X145.568752 Y165.835765 Z-0.125000
G01 X149.557420 Y164.533223 Z-0.125000
G01 X150.454886 Y164.350608 Z-0.125000
G01 X151.295360 Y164.303486 Z-0.125000
G01 X152.050348 Y164.380903 Z-0.125000
G01 X152.848092 Y164.587780 Z-0.125000
G01 X153.745558 Y164.953910 Z-0.125000
G01 X156.338206 Y166.242826 Z-0.125000
G01 X157.135924 Y166.482909 Z-0.125000
G01 X157.905173 Y166.555510 Z-0.125000
G01 X158.631691 Y166.458700 Z-0.125000
G01 X159.329714 Y166.215336 Z-0.125000
G01 X160.171776 Y165.754935 Z-0.125000
G01 X162.564982 Y164.169316 Z-0.125000
G01 X163.318409 Y163.865283 Z-0.125000
G01 X164.016432 Y163.766382 Z-0.125000
G01 X164.714454 Y163.867241 Z-0.125000
G01 X165.401391 Y164.160161 Z-0.125000
G01 X166.270044 Y164.758674 Z-0.125000
G01 X168.503706 Y166.618799 Z-0.125000
G01 X169.301424 Y167.027050 Z-0.125000
G01 X170.099168 Y167.147621 Z-0.125000
G00 Z3.000000

(End cutting path id: polyline5710)


(Start cutting path id: polyline5712)
(Change tool to Default tool)

G00 Z3.000000
G00 X13.742601 Y163.365010

G00 Z4.875000 (Fast pre-penetrate)
G01 Z-0.125000 F400.0(Penetrate)
G01 X15.936364 Y163.657110 Z-0.125000 F800.000000
G01 X21.819685 Y164.780264 Z-0.125000
G01 X23.714311 Y164.995291 Z-0.125000
G01 X25.594702 Y165.082762 Z-0.125000
G01 X29.398189 Y164.919038 Z-0.125000
G01 X38.472460 Y163.936509 Z-0.125000
G01 X42.917004 Y163.735664 Z-0.125000
G01 X47.703416 Y163.826866 Z-0.125000
G01 X58.529862 Y164.514835 Z-0.125000
G01 X64.227974 Y164.707345 Z-0.125000
G01 X69.128369 Y164.701551 Z-0.125000
G01 X82.917853 Y164.397730 Z-0.125000
G01 X91.692960 Y164.326002 Z-0.125000
G01 X99.898260 Y164.393603 Z-0.125000
G01 X116.080924 Y164.721527 Z-0.125000
G01 X122.007001 Y164.563306 Z-0.125000
G01 X130.112581 Y163.848615 Z-0.125000
G01 X132.833420 Y163.730664 Z-0.125000
G01 X134.400413 Y163.782363 Z-0.125000
G01 X135.896180 Y163.934287 Z-0.125000
G01 X140.981756 Y164.906365 Z-0.125000
G01 X142.976104 Y165.085408 Z-0.125000
G01 X143.973264 Y165.035587 Z-0.125000
G01 X145.070146 Y164.856967 Z-0.125000
G01 X146.266749 Y164.529969 Z-0.125000
G01 X149.158562 Y163.557785 Z-0.125000
G01 X150.056027 Y163.369825 Z-0.125000
G01 X150.953466 Y163.309871 Z-0.125000
G01 X151.751210 Y163.384245 Z-0.125000
G01 X152.648676 Y163.615014 Z-0.125000
G01 X156.138764 Y165.247333 Z-0.125000
G01 X156.936508 Y165.485907 Z-0.125000
G01 X157.677261 Y165.563483 Z-0.125000
G01 X158.432249 Y165.477176 Z-0.125000
G01 X159.130271 Y165.247915 Z-0.125000
G01 X159.994505 Y164.792224 Z-0.125000
G01 X162.520665 Y163.150645 Z-0.125000
G01 X163.318409 Y162.850528 Z-0.125000
G01 X164.016432 Y162.775281 Z-0.125000
G01 X164.814176 Y162.929718 Z-0.125000
G01 X165.578662 Y163.308363 Z-0.125000
G01 X168.060503 Y165.325041 Z-0.125000
G01 X168.802844 Y165.817800 Z-0.125000
G01 X169.500867 Y166.095533 Z-0.125000
G01 X170.099168 Y166.155223 Z-0.125000
G00 Z3.000000

(End cutting path id: polyline5712)


(Start cutting path id: polyline5714)
(Change tool to Default tool)

G00 Z3.000000
G00 X13.742601 Y162.317341

G00 Z4.875000 (Fast pre-penetrate)
G01 Z-0.125000 F400.0(Penetrate)
G01 X15.138620 Y162.383883 Z-0.125000 F800.000000
G01 X16.634387 Y162.566922 Z-0.125000
G01 X23.614590 Y163.840968 Z-0.125000
G01 X25.594702 Y164.033664 Z-0.125000
G01 X27.532058 Y164.093248 Z-0.125000
G01 X31.193093 Y163.909945 Z-0.125000
G01 X40.523772 Y162.932840 Z-0.125000
G01 X43.144916 Y162.787478 Z-0.125000
G01 X45.880016 Y162.738424 Z-0.125000
G01 X50.780411 Y162.877251 Z-0.125000
G01 X62.518556 Y163.588239 Z-0.125000
G01 X69.584219 Y163.729341 Z-0.125000
G01 X91.351065 Y163.467165 Z-0.125000
G01 X110.952618 Y163.717038 Z-0.125000
G01 X115.739056 Y163.710820 Z-0.125000
G01 X120.639451 Y163.532438 Z-0.125000
G01 X129.072664 Y162.840739 Z-0.125000
G01 X132.149658 Y162.741123 Z-0.125000
G01 X134.998714 Y162.939666 Z-0.125000
G01 X140.383455 Y163.919946 Z-0.125000
G01 X142.634209 Y164.091449 Z-0.125000
G01 X143.674126 Y164.018636 Z-0.125000
G01 X144.671287 Y163.846419 Z-0.125000
G01 X148.859398 Y162.549221 Z-0.125000
G01 X149.756863 Y162.372056 Z-0.125000
G01 X150.611572 Y162.317658 Z-0.125000
G01 X151.452046 Y162.393064 Z-0.125000
G01 X152.349512 Y162.618304 Z-0.125000
G01 X153.346672 Y163.017983 Z-0.125000
G01 X155.939321 Y164.259327 Z-0.125000
G01 X156.737065 Y164.493060 Z-0.125000
G01 X157.534810 Y164.571138 Z-0.125000
G01 X158.232832 Y164.491657 Z-0.125000
G01 X159.030577 Y164.230196 Z-0.125000
G01 X159.905870 Y163.765509 Z-0.125000
G01 X162.420943 Y162.155389 Z-0.125000
G01 X163.218687 Y161.859612 Z-0.125000
G01 X163.916710 Y161.782433 Z-0.125000
G01 X164.714454 Y161.928457 Z-0.125000
G01 X165.490027 Y162.300910 Z-0.125000
G01 X166.270044 Y162.857857 Z-0.125000
G01 X168.060503 Y164.357434 Z-0.125000
G01 X168.802844 Y164.837970 Z-0.125000
G01 X169.500867 Y165.106839 Z-0.125000
G01 X170.099168 Y165.162666 Z-0.125000
G00 Z3.000000

(End cutting path id: polyline5714)


(Start cutting path id: polyline5716)
(Change tool to Default tool)

G00 Z3.000000
G00 X13.742601 Y161.369234

G00 Z4.875000 (Fast pre-penetrate)
G01 Z-0.125000 F400.0(Penetrate)
G01 X15.338063 Y161.330023 Z-0.125000 F800.000000
G01 X17.033246 Y161.451387 Z-0.125000
G01 X24.611776 Y162.785944 Z-0.125000
G01 X26.620358 Y163.007003 Z-0.125000
G01 X28.671670 Y163.098628 Z-0.125000
G01 X32.688860 Y162.934295 Z-0.125000
G01 X42.361433 Y161.954042 Z-0.125000
G01 X47.019655 Y161.752747 Z-0.125000
G01 X52.147961 Y161.838631 Z-0.125000
G01 X63.544212 Y162.509692 Z-0.125000
G01 X69.698201 Y162.710299 Z-0.125000
G01 X91.920871 Y162.602879 Z-0.125000
G01 X109.585067 Y162.737154 Z-0.125000
G01 X117.676412 Y162.568298 Z-0.125000
G01 X127.591158 Y161.850801 Z-0.125000
G01 X130.554170 Y161.746238 Z-0.125000
G01 X132.263614 Y161.793810 Z-0.125000
G01 X134.001554 Y161.947374 Z-0.125000
G01 X139.685432 Y162.928845 Z-0.125000
G01 X141.836465 Y163.101009 Z-0.125000
G01 X142.976104 Y163.040949 Z-0.125000
G01 X144.072985 Y162.867858 Z-0.125000
G01 X148.460539 Y161.555924 Z-0.125000
G01 X149.358004 Y161.382728 Z-0.125000
G01 X150.269704 Y161.325578 Z-0.125000
G01 X151.152909 Y161.406143 Z-0.125000
G01 X152.050348 Y161.629240 Z-0.125000
G01 X152.947813 Y161.976214 Z-0.125000
G01 X155.640184 Y163.243884 Z-0.125000
G01 X156.537623 Y163.505080 Z-0.125000
G01 X157.335367 Y163.579507 Z-0.125000
G01 X158.133111 Y163.479442 Z-0.125000
G01 X158.930855 Y163.205069 Z-0.125000
G01 X159.817235 Y162.730302 Z-0.125000
G01 X162.221527 Y161.202996 Z-0.125000
G01 X163.019245 Y160.890683 Z-0.125000
G01 X163.816989 Y160.789744 Z-0.125000
G01 X164.614733 Y160.930635 Z-0.125000
G01 X165.490027 Y161.353200 Z-0.125000
G01 X167.971868 Y163.325984 Z-0.125000
G01 X168.703123 Y163.807022 Z-0.125000
G01 X169.401145 Y164.094889 Z-0.125000
G01 X170.099168 Y164.169898 Z-0.125000
G00 Z3.000000

(End cutting path id: polyline5716)


(Start cutting path id: polyline5718)
(Change tool to Default tool)

G00 Z3.000000
G00 X13.742601 Y160.524685

G00 Z4.875000 (Fast pre-penetrate)
G01 Z-0.125000 F400.0(Penetrate)
G01 X15.793913 Y160.338657 Z-0.125000 F800.000000
G01 X18.030433 Y160.423112 Z-0.125000
G01 X20.024780 Y160.695473 Z-0.125000
G01 X26.107517 Y161.791376 Z-0.125000
G01 X28.215820 Y162.016642 Z-0.125000
G01 X30.267159 Y162.105939 Z-0.125000
G01 X34.483765 Y161.940654 Z-0.125000
G01 X44.512466 Y160.962411 Z-0.125000
G01 X49.298905 Y160.761328 Z-0.125000
G01 X54.655123 Y160.845412 Z-0.125000
G01 X66.279313 Y161.494620 Z-0.125000
G01 X72.661213 Y161.700730 Z-0.125000
G01 X104.570717 Y161.744995 Z-0.125000
G01 X110.040918 Y161.705413 Z-0.125000
G01 X114.599418 Y161.577275 Z-0.125000
G01 X125.995669 Y160.852662 Z-0.125000
G01 X129.072664 Y160.754052 Z-0.125000
G01 X131.010020 Y160.802365 Z-0.125000
G01 X132.904646 Y160.959501 Z-0.125000
G01 X138.887688 Y161.935415 Z-0.125000
G01 X141.152703 Y162.108902 Z-0.125000
G01 X142.278081 Y162.054795 Z-0.125000
G01 X143.474684 Y161.876757 Z-0.125000
G01 X144.771008 Y161.556215 Z-0.125000
G01 X148.061680 Y160.554715 Z-0.125000
G01 X149.058840 Y160.376571 Z-0.125000
G01 X149.927810 Y160.333947 Z-0.125000
G01 X150.853745 Y160.424884 Z-0.125000
G01 X151.751210 Y160.649753 Z-0.125000
G01 X155.440741 Y162.271700 Z-0.125000
G01 X156.338206 Y162.520064 Z-0.125000
G01 X157.107455 Y162.587242 Z-0.125000
G01 X157.833947 Y162.507549 Z-0.125000
G01 X158.631691 Y162.258683 Z-0.125000
G01 X159.551302 Y161.791720 Z-0.125000
G01 X162.121806 Y160.194432 Z-0.125000
G01 X162.919523 Y159.892940 Z-0.125000
G01 X163.717268 Y159.797346 Z-0.125000
G01 X164.515012 Y159.936358 Z-0.125000
G01 X165.401391 Y160.355299 Z-0.125000
G01 X167.883233 Y162.299508 Z-0.125000
G01 X168.703123 Y162.832351 Z-0.125000
G01 X169.401145 Y163.108682 Z-0.125000
G01 X170.099168 Y163.176918 Z-0.125000
G00 Z3.000000

(End cutting path id: polyline5718)


(Start cutting path id: polyline5720)
(Change tool to Default tool)

G00 Z3.000000
G00 X13.742601 Y159.776444

G00 Z4.875000 (Fast pre-penetrate)
G01 Z-0.125000 F400.0(Penetrate)
G01 X16.363719 Y159.384279 Z-0.125000 F800.000000
G01 X18.870907 Y159.386925 Z-0.125000
G01 X21.221383 Y159.667489 Z-0.125000
G01 X27.902422 Y160.827553 Z-0.125000
G01 X30.153203 Y161.044405 Z-0.125000
G01 X32.432453 Y161.116822 Z-0.125000
G01 X36.478112 Y160.940107 Z-0.125000
G01 X46.563805 Y159.989195 Z-0.125000
G01 X51.692111 Y159.771047 Z-0.125000
G01 X57.390223 Y159.852247 Z-0.125000
G01 X68.672519 Y160.442796 Z-0.125000
G01 X74.712552 Y160.652637 Z-0.125000
G01 X81.550303 Y160.740505 Z-0.125000
G01 X94.314104 Y160.752888 Z-0.125000
G01 X103.545061 Y160.726350 Z-0.125000
G01 X109.813006 Y160.613082 Z-0.125000
G01 X115.283206 Y160.387657 Z-0.125000
G01 X124.286251 Y159.845871 Z-0.125000
G01 X127.933052 Y159.764326 Z-0.125000
G01 X131.708043 Y159.978665 Z-0.125000
G01 X138.089943 Y160.954950 Z-0.125000
G01 X140.468915 Y161.116557 Z-0.125000
G01 X141.679779 Y161.051761 Z-0.125000
G01 X142.876382 Y160.873352 Z-0.125000
G01 X147.563073 Y159.565757 Z-0.125000
G01 X148.560260 Y159.390127 Z-0.125000
G01 X149.471960 Y159.341496 Z-0.125000
G01 X150.355165 Y159.415923 Z-0.125000
G01 X151.352351 Y159.649100 Z-0.125000
G01 X152.349512 Y160.019940 Z-0.125000
G01 X155.141603 Y161.270809 Z-0.125000
G01 X156.039042 Y161.519358 Z-0.125000
G01 X156.879517 Y161.594659 Z-0.125000
G01 X157.634531 Y161.510468 Z-0.125000
G01 X158.432249 Y161.263692 Z-0.125000
G01 X159.374032 Y160.792655 Z-0.125000
G01 X161.944535 Y159.218121 Z-0.125000
G01 X162.819829 Y158.893213 Z-0.125000
G01 X163.617546 Y158.805716 Z-0.125000
G01 X164.415290 Y158.945495 Z-0.125000
G01 X165.312756 Y159.363324 Z-0.125000
G01 X167.705962 Y161.212759 Z-0.125000
G01 X168.603428 Y161.807463 Z-0.125000
G01 X169.301424 Y162.098107 Z-0.125000
G01 X170.099168 Y162.183753 Z-0.125000
G00 Z3.000000

(End cutting path id: polyline5720)


(Start cutting path id: polyline5722)
(Change tool to Default tool)

G00 Z3.000000
G00 X13.742601 Y159.105224

G00 Z4.875000 (Fast pre-penetrate)
G01 Z-0.125000 F400.0(Penetrate)
G01 X15.437784 Y158.705121 Z-0.125000 F800.000000
G01 X16.933551 Y158.466520 Z-0.125000
G01 X18.415057 Y158.356692 Z-0.125000
G01 X19.896563 Y158.372143 Z-0.125000
G01 X22.517708 Y158.649850 Z-0.125000
G01 X29.697353 Y159.851268 Z-0.125000
G01 X32.090559 Y160.063358 Z-0.125000
G01 X34.483765 Y160.124106 Z-0.125000
G01 X38.671902 Y159.934559 Z-0.125000
G01 X48.957011 Y159.004709 Z-0.125000
G01 X54.313255 Y158.780554 Z-0.125000
G01 X60.239306 Y158.852282 Z-0.125000
G01 X71.521601 Y159.386290 Z-0.125000
G01 X77.219714 Y159.580547 Z-0.125000
G01 X91.692960 Y159.719427 Z-0.125000
G01 X100.126172 Y159.679369 Z-0.125000
G01 X106.622055 Y159.559433 Z-0.125000
G01 X112.206212 Y159.352820 Z-0.125000
G01 X122.007001 Y158.848657 Z-0.125000
G01 X125.995669 Y158.771743 Z-0.125000
G01 X128.160964 Y158.834608 Z-0.125000
G01 X130.311997 Y158.997089 Z-0.125000
G01 X137.092783 Y159.962499 Z-0.125000
G01 X139.557215 Y160.124477 Z-0.125000
G01 X140.882035 Y160.060368 Z-0.125000
G01 X142.178359 Y159.875425 Z-0.125000
G01 X146.964772 Y158.588705 Z-0.125000
G01 X148.061680 Y158.398390 Z-0.125000
G01 X149.016110 Y158.349257 Z-0.125000
G01 X149.956306 Y158.429452 Z-0.125000
