%
(Header)
(Generated by gcodetools from Inkscape.)
(Using default header. To add your own header create file "header" in the output dir.)
M3
(Header end.)
G21 (All units in mm)

(Start cutting path id: polyline468836)
(Change tool to Default tool)

G00 Z5.000000
G00 X70.415052 Y73.691470

G00 Z4.875000 (Fast pre-penetrate)
G01 Z-0.125000 F100.0(Penetrate)
G01 X70.332352 Y73.849570 Z-0.125000 F800.000000
G01 X70.118269 Y73.729470 Z-0.125000
G01 X70.189699 Y73.306460 Z-0.125000
G01 X70.493956 Y73.166020 Z-0.125000
G01 X70.839867 Y73.254420 Z-0.125000
G01 X71.110791 Y73.629100 Z-0.125000
G01 X71.072501 Y74.113910 Z-0.125000
G01 X70.649147 Y74.532750 Z-0.125000
G01 X70.035923 Y74.570850 Z-0.125000
G01 X69.455829 Y74.122030 Z-0.125000
G01 X69.317134 Y73.382390 Z-0.125000
G01 X69.770613 Y72.639140 Z-0.125000
G01 X70.627695 Y72.386410 Z-0.125000
G01 X71.125482 Y72.519540 Z-0.125000
G01 X71.544675 Y72.834780 Z-0.125000
G01 X71.917052 Y73.795510 Z-0.125000
G01 X71.811645 Y74.373360 Z-0.125000
G01 X71.495610 Y74.876510 Z-0.125000
G01 X71.012558 Y75.230540 Z-0.125000
G01 X70.438179 Y75.384620 Z-0.125000
G01 X69.775881 Y75.308720 Z-0.125000
G01 X69.191126 Y74.993180 Z-0.125000
G01 X68.757548 Y74.482660 Z-0.125000
G01 X68.534492 Y73.846470 Z-0.125000
G01 X68.565372 Y73.108940 Z-0.125000
G01 X68.870882 Y72.441780 Z-0.125000
G01 X69.406665 Y71.929810 Z-0.125000
G01 X70.096933 Y71.643290 Z-0.125000
G01 X70.912612 Y71.629690 Z-0.125000
G01 X71.664332 Y71.919000 Z-0.125000
G01 X72.259713 Y72.466720 Z-0.125000
G01 X72.620310 Y73.211920 Z-0.125000
G01 X72.680510 Y74.101840 Z-0.125000
G01 X72.402469 Y74.953400 Z-0.125000
G01 X71.832150 Y75.639110 Z-0.125000
G01 X71.051909 Y76.061510 Z-0.125000
G01 X70.104502 Y76.164200 Z-0.125000
G01 X69.176994 Y75.902750 Z-0.125000
G01 X68.406177 Y75.320850 Z-0.125000
G01 X67.891547 Y74.486980 Z-0.125000
G01 X67.716311 Y73.474000 Z-0.125000
G01 X67.940718 Y72.467050 Z-0.125000
G01 X68.532240 Y71.614680 Z-0.125000
G01 X69.402505 Y71.037690 Z-0.125000
G01 X70.496126 Y70.808620 Z-0.125000
G01 X71.591201 Y71.005620 Z-0.125000
G01 X72.544271 Y71.606360 Z-0.125000
G01 X73.201306 Y72.522740 Z-0.125000
G01 X73.473332 Y73.663330 Z-0.125000
G01 X73.292533 Y74.865670 Z-0.125000
G01 X72.686124 Y75.905950 Z-0.125000
G01 X71.751047 Y76.630210 Z-0.125000
G01 X70.577579 Y76.946840 Z-0.125000
G01 X69.317293 Y76.788800 Z-0.125000
G01 X68.194801 Y76.180780 Z-0.125000
G01 X67.372154 Y75.217140 Z-0.125000
G01 X66.941333 Y73.947730 Z-0.125000
G01 X67.027303 Y72.634110 Z-0.125000
G01 X67.608048 Y71.447110 Z-0.125000
G01 X68.596607 Y70.558250 Z-0.125000
G01 X69.934485 Y70.068020 Z-0.125000
G01 X71.371310 Y70.116220 Z-0.125000
G01 X72.668837 Y70.694460 Z-0.125000
G01 X73.649628 Y71.712940 Z-0.125000
G01 X74.184458 Y73.078790 Z-0.125000
G01 X74.167118 Y74.580220 Z-0.125000
G01 X73.603116 Y75.982460 Z-0.125000
G01 X72.571599 Y77.064300 Z-0.125000
G01 X71.205299 Y77.652010 Z-0.125000
G01 X69.680306 Y77.665610 Z-0.125000
G01 X68.209447 Y77.115340 Z-0.125000
G01 X67.018283 Y76.071740 Z-0.125000
G01 X66.266714 Y74.616570 Z-0.125000
G01 X66.128771 Y72.999810 Z-0.125000
G01 X66.616183 Y71.475810 Z-0.125000
G01 X67.673363 Y70.223700 Z-0.125000
G01 X69.211691 Y69.422860 Z-0.125000
G01 X70.956481 Y69.254040 Z-0.125000
G01 X72.632049 Y69.751870 Z-0.125000
G01 X73.977898 Y70.836670 Z-0.125000
G01 X74.801045 Y72.358360 Z-0.125000
G01 X74.994928 Y74.125150 Z-0.125000
G01 X74.529770 Y75.893100 Z-0.125000
G01 X73.474746 Y77.351080 Z-0.125000
G01 X71.996518 Y78.252680 Z-0.125000
G01 X70.259247 Y78.499740 Z-0.125000
G01 X68.426186 Y78.063600 Z-0.125000
G01 X66.857383 Y77.020110 Z-0.125000
G01 X65.719102 Y75.412350 Z-0.125000
G01 X65.285573 Y73.556940 Z-0.125000
G01 X65.352693 Y72.593890 Z-0.125000
G01 X65.604870 Y71.682780 Z-0.125000
G01 X66.037145 Y70.827600 Z-0.125000
G01 X66.637740 Y70.064110 Z-0.125000
G01 X67.579483 Y69.293890 Z-0.125000
G01 X68.722927 Y68.744520 Z-0.125000
G01 X69.938100 Y68.477000 Z-0.125000
G01 X71.212872 Y68.493000 Z-0.125000
G01 X72.439924 Y68.803560 Z-0.125000
G01 X73.527379 Y69.375280 Z-0.125000
G01 X74.455388 Y70.189360 Z-0.125000
G01 X75.148312 Y71.185080 Z-0.125000
G01 X75.563946 Y72.236410 Z-0.125000
G01 X75.752615 Y73.407520 Z-0.125000
G01 X75.693825 Y74.608100 Z-0.125000
G01 X75.396435 Y75.774960 Z-0.125000
G01 X74.878747 Y76.848320 Z-0.125000
G01 X74.165021 Y77.775230 Z-0.125000
G01 X73.284029 Y78.505750 Z-0.125000
G01 X72.300182 Y78.991760 Z-0.125000
G01 X70.577045 Y79.276060 Z-0.125000
G01 X68.714462 Y78.960830 Z-0.125000
G01 X67.015786 Y78.105250 Z-0.125000
G01 X65.672092 Y76.816290 Z-0.125000
G01 X64.794860 Y75.232100 Z-0.125000
G01 X64.456519 Y73.496490 Z-0.125000
G01 X64.688045 Y71.757610 Z-0.125000
G01 X65.485679 Y70.146250 Z-0.125000
G01 X66.431081 Y69.124460 Z-0.125000
G01 X67.650765 Y68.324780 Z-0.125000
G01 X69.042929 Y67.827930 Z-0.125000
G01 X70.513587 Y67.663030 Z-0.125000
G01 X71.968958 Y67.838210 Z-0.125000
G01 X73.293603 Y68.326630 Z-0.125000
G01 X74.496095 Y69.132430 Z-0.125000
G01 X75.447311 Y70.186110 Z-0.125000
G01 X76.086501 Y71.390500 Z-0.125000
G01 X76.436171 Y72.739800 Z-0.125000
G01 X76.484391 Y74.160380 Z-0.125000
G01 X76.228003 Y75.609590 Z-0.125000
G01 X75.685103 Y76.960760 Z-0.125000
G01 X74.887920 Y78.138280 Z-0.125000
G01 X73.904322 Y79.049850 Z-0.125000
G01 X72.753559 Y79.678320 Z-0.125000
G01 X70.866865 Y80.042320 Z-0.125000
G01 X68.795362 Y79.748200 Z-0.125000
G01 X66.827316 Y78.845550 Z-0.125000
G01 X65.229792 Y77.451370 Z-0.125000
G01 X64.137174 Y75.713900 Z-0.125000
G01 X63.642393 Y73.826210 Z-0.125000
G01 X63.765149 Y71.902170 Z-0.125000
G01 X64.515816 Y70.068860 Z-0.125000
G01 X65.499063 Y68.843420 Z-0.125000
G01 X66.780149 Y67.871250 Z-0.125000
G01 X68.278376 Y67.212150 Z-0.125000
G01 X69.937855 Y66.899830 Z-0.125000
G01 X71.564752 Y66.964030 Z-0.125000
G01 X73.149644 Y67.401820 Z-0.125000
G01 X74.537498 Y68.170040 Z-0.125000
G01 X75.708712 Y69.249820 Z-0.125000
G01 X76.561132 Y70.569050 Z-0.125000
G01 X77.065587 Y72.050040 Z-0.125000
G01 X77.229244 Y73.692670 Z-0.125000
G01 X77.029196 Y75.399330 Z-0.125000
G01 X76.465745 Y77.054140 Z-0.125000
G01 X75.582548 Y78.504700 Z-0.125000
G01 X74.460656 Y79.630550 Z-0.125000
G01 X73.166687 Y80.381010 Z-0.125000
G01 X71.130171 Y80.804820 Z-0.125000
G01 X68.824786 Y80.502860 Z-0.125000
G01 X66.599400 Y79.530400 Z-0.125000
G01 X64.760726 Y78.018440 Z-0.125000
G01 X63.466104 Y76.124570 Z-0.125000
G01 X62.826313 Y74.054820 Z-0.125000
G01 X62.866823 Y71.966480 Z-0.125000
G01 X63.589971 Y69.939090 Z-0.125000
G01 X64.622140 Y68.524360 Z-0.125000
G01 X66.008439 Y67.378360 Z-0.125000
G01 X67.661000 Y66.574270 Z-0.125000
G01 X69.514460 Y66.152270 Z-0.125000
G01 X71.394688 Y66.157270 Z-0.125000
G01 X73.184691 Y66.581330 Z-0.125000
G01 X74.798657 Y67.402560 Z-0.125000
G01 X76.136083 Y68.557990 Z-0.125000
G01 X77.124342 Y69.993710 Z-0.125000
G01 X77.723983 Y71.628430 Z-0.125000
G01 X77.943480 Y73.513420 Z-0.125000
G01 X77.747191 Y75.432040 Z-0.125000
G01 X77.150808 Y77.299190 Z-0.125000
G01 X76.204805 Y78.940670 Z-0.125000
G01 X74.997652 Y80.221010 Z-0.125000
G01 X73.558521 Y81.095280 Z-0.125000
G01 X72.525902 Y81.423700 Z-0.125000
G01 X71.387370 Y81.566150 Z-0.125000
G01 X68.904744 Y81.257990 Z-0.125000
G01 X66.378609 Y80.194290 Z-0.125000
G01 X64.298885 Y78.563330 Z-0.125000
G01 X62.822713 Y76.561000 Z-0.125000
G01 X62.018312 Y74.322480 Z-0.125000
G01 X61.964172 Y72.040600 Z-0.125000
G01 X62.650579 Y69.835770 Z-0.125000
G01 X63.758787 Y68.191930 Z-0.125000
G01 X65.254708 Y66.878060 Z-0.125000
G01 X67.066415 Y65.935970 Z-0.125000
G01 X69.118119 Y65.413010 Z-0.125000
G01 X71.210324 Y65.360710 Z-0.125000
G01 X73.257015 Y65.786260 Z-0.125000
G01 X75.055290 Y66.643040 Z-0.125000
G01 X76.592213 Y67.909950 Z-0.125000
G01 X77.703176 Y69.469170 Z-0.125000
G01 X78.382968 Y71.264340 Z-0.125000
G01 X78.640759 Y73.293440 Z-0.125000
G01 X78.453393 Y75.428600 Z-0.125000
G01 X77.829741 Y77.514740 Z-0.125000
G01 X76.797023 Y79.398370 Z-0.125000
G01 X75.466663 Y80.862960 Z-0.125000
G01 X73.917960 Y81.826270 Z-0.125000
G01 X72.805042 Y82.182010 Z-0.125000
G01 X71.574932 Y82.329220 Z-0.125000
G01 X70.292691 Y82.261920 Z-0.125000
G01 X68.929700 Y81.985180 Z-0.125000
G01 X67.465708 Y81.477270 Z-0.125000
G01 X66.103119 Y80.802190 Z-0.125000
G01 X64.884788 Y79.991470 Z-0.125000
G01 X63.794125 Y79.036540 Z-0.125000
G01 X62.129182 Y76.880120 Z-0.125000
G01 X61.571996 Y75.729760 Z-0.125000
G01 X61.198617 Y74.523370 Z-0.125000
G01 X61.026639 Y73.275310 Z-0.125000
G01 X61.063129 Y72.056530 Z-0.125000
G01 X61.303728 Y70.836590 Z-0.125000
G01 X61.726278 Y69.693700 Z-0.125000
G01 X62.886665 Y67.864100 Z-0.125000
G01 X64.492510 Y66.382720 Z-0.125000
G01 X66.465770 Y65.303230 Z-0.125000
G01 X68.719475 Y64.681230 Z-0.125000
G01 X71.026666 Y64.574650 Z-0.125000
G01 X73.285636 Y64.987020 Z-0.125000
G01 X75.319997 Y65.898350 Z-0.125000
G01 X77.019223 Y67.240980 Z-0.125000
G01 X78.257353 Y68.916260 Z-0.125000
G01 X79.021354 Y70.868500 Z-0.125000
G01 X79.321250 Y73.094850 Z-0.125000
G01 X79.134937 Y75.450210 Z-0.125000
G01 X78.454946 Y77.814640 Z-0.125000
G01 X77.351650 Y79.890560 Z-0.125000
G01 X75.933422 Y81.504020 Z-0.125000
G01 X74.234797 Y82.579140 Z-0.125000
G01 X73.043333 Y82.952020 Z-0.125000
G01 X71.778186 Y83.091570 Z-0.125000
G01 X70.401010 Y83.006070 Z-0.125000
G01 X68.930250 Y82.693600 Z-0.125000
G01 X67.341498 Y82.134300 Z-0.125000
G01 X65.853296 Y81.401620 Z-0.125000
G01 X64.514715 Y80.528860 Z-0.125000
G01 X63.266510 Y79.462360 Z-0.125000
G01 X61.416207 Y77.151500 Z-0.125000
G01 X60.785939 Y75.923050 Z-0.125000
G01 X60.354366 Y74.634540 Z-0.125000
G01 X60.146549 Y73.354910 Z-0.125000
G01 X60.154549 Y72.045860 Z-0.125000
G01 X60.372441 Y70.785020 Z-0.125000
G01 X60.798451 Y69.540920 Z-0.125000
G01 X61.974226 Y67.578390 Z-0.125000
G01 X63.680621 Y65.921570 Z-0.125000
G01 X65.811021 Y64.695070 Z-0.125000
G01 X68.267431 Y63.964500 Z-0.125000
G01 X70.859280 Y63.798280 Z-0.125000
G01 X73.329976 Y64.202940 Z-0.125000
G01 X75.552154 Y65.143380 Z-0.125000
G01 X77.459550 Y66.595490 Z-0.125000
G01 X78.816525 Y68.390160 Z-0.125000
G01 X79.654660 Y70.504220 Z-0.125000
G01 X79.985233 Y72.933160 Z-0.125000
G01 X79.789196 Y75.512680 Z-0.125000
G01 X79.066096 Y78.103770 Z-0.125000
G01 X77.861701 Y80.429210 Z-0.125000
G01 X76.309639 Y82.220460 Z-0.125000
G01 X74.550764 Y83.335590 Z-0.125000
G01 X73.340001 Y83.712580 Z-0.125000
G01 X71.997111 Y83.853430 Z-0.125000
G01 X70.529860 Y83.747560 Z-0.125000
G01 X68.955293 Y83.396640 Z-0.125000
G01 X67.244136 Y82.783770 Z-0.125000
G01 X65.572277 Y81.959820 Z-0.125000
G01 X64.116155 Y81.019370 Z-0.125000
G01 X62.752211 Y79.876690 Z-0.125000
G01 X61.643704 Y78.695200 Z-0.125000
G01 X60.707976 Y77.417920 Z-0.125000
G01 X59.999464 Y76.116330 Z-0.125000
G01 X59.520422 Y74.809180 Z-0.125000
G01 X59.259121 Y73.452260 Z-0.125000
G01 X59.228751 Y72.118940 Z-0.125000
G01 X59.422983 Y70.767970 Z-0.125000
G01 X59.845786 Y69.424630 Z-0.125000
G01 X61.105871 Y67.228220 Z-0.125000
G01 X62.931963 Y65.409650 Z-0.125000
G01 X65.235544 Y64.053920 Z-0.125000
G01 X67.833057 Y63.250570 Z-0.125000
G01 X70.652821 Y63.028270 Z-0.125000
G01 X73.339054 Y63.418900 Z-0.125000
G01 X75.808597 Y64.411860 Z-0.125000
G01 X77.875841 Y65.935700 Z-0.125000
G01 X79.319833 Y67.783750 Z-0.125000
G01 X80.249746 Y70.046430 Z-0.125000
G01 X80.628237 Y72.673620 Z-0.125000
G01 X80.438515 Y75.482210 Z-0.125000
G01 X79.662335 Y78.380620 Z-0.125000
G01 X78.395082 Y80.911910 Z-0.125000
G01 X76.765779 Y82.863070 Z-0.125000
G01 X75.851003 Y83.569320 Z-0.125000
G01 X74.866253 Y84.095030 Z-0.125000
G01 X73.589727 Y84.485250 Z-0.125000
G01 X72.171149 Y84.615170 Z-0.125000
G01 X70.679638 Y84.486910 Z-0.125000
G01 X69.005473 Y84.095080 Z-0.125000
G01 X67.174669 Y83.426210 Z-0.125000
G01 X65.310380 Y82.505080 Z-0.125000
G01 X63.735062 Y81.497070 Z-0.125000
G01 X62.252473 Y80.279490 Z-0.125000
G01 X61.039004 Y79.027120 Z-0.125000
G01 X60.005332 Y77.679220 Z-0.125000
G01 X59.213212 Y76.309460 Z-0.125000
G01 X58.667806 Y74.934340 Z-0.125000
G01 X58.365604 Y73.567040 Z-0.125000
G01 X58.295934 Y72.157230 Z-0.125000
G01 X58.470518 Y70.720060 Z-0.125000
G01 X58.869912 Y69.345830 Z-0.125000
G01 X60.164282 Y66.963920 Z-0.125000
G01 X62.089020 Y64.966790 Z-0.125000
G01 X64.553001 Y63.460500 Z-0.125000
G01 X67.354670 Y62.550440 Z-0.125000
G01 X70.406412 Y62.265820 Z-0.125000
G01 X73.383018 Y62.654040 Z-0.125000
G01 X76.039726 Y63.675490 Z-0.125000
G01 X78.318144 Y65.310750 Z-0.125000
G01 X79.868151 Y67.274590 Z-0.125000
G01 X80.840520 Y69.628290 Z-0.125000
G01 X81.253447 Y72.459430 Z-0.125000
G01 X81.057409 Y75.501000 Z-0.125000
G01 X80.242933 Y78.643520 Z-0.125000
G01 X78.879190 Y81.447190 Z-0.125000
G01 X77.170389 Y83.546210 Z-0.125000
G01 X76.212556 Y84.300990 Z-0.125000
G01 X75.181742 Y84.856830 Z-0.125000
G01 X73.844415 Y85.258870 Z-0.125000
G01 X72.418918 Y85.376290 Z-0.125000
G01 X70.850818 Y85.224560 Z-0.125000
G01 X69.081516 Y84.789530 Z-0.125000
G01 X67.064499 Y84.032040 Z-0.125000
G01 X65.068783 Y83.037720 Z-0.125000
G01 X63.372714 Y81.962310 Z-0.125000
G01 X61.768323 Y80.670840 Z-0.125000
G01 X60.445832 Y79.349900 Z-0.125000
G01 X59.309004 Y77.935240 Z-0.125000
G01 X58.427863 Y76.502370 Z-0.125000
G01 X57.810828 Y75.064840 Z-0.125000
G01 X57.456345 Y73.632680 Z-0.125000
G01 X57.353190 Y72.149740 Z-0.125000
G01 X57.501710 Y70.699030 Z-0.125000
G01 X57.897143 Y69.235890 Z-0.125000
G01 X58.467462 Y67.929440 Z-0.125000
G01 X59.235724 Y66.673760 Z-0.125000
G01 X60.194809 Y65.504760 Z-0.125000
G01 X61.268781 Y64.503170 Z-0.125000
G01 X63.825091 Y62.890060 Z-0.125000
G01 X66.831570 Y61.865160 Z-0.125000
G01 X70.119149 Y61.512130 Z-0.125000
G01 X71.757825 Y61.606430 Z-0.125000
G01 X73.400712 Y61.892240 Z-0.125000
G01 X74.872324 Y62.333590 Z-0.125000
G01 X76.310852 Y62.969610 Z-0.125000
G01 X77.641162 Y63.782290 Z-0.125000
G01 X78.741449 Y64.677010 Z-0.125000
G01 X79.661287 Y65.674450 Z-0.125000
G01 X80.397468 Y66.751370 Z-0.125000
G01 X81.430689 Y69.263920 Z-0.125000
G01 X81.857802 Y72.219380 Z-0.125000
G01 X81.656852 Y75.498030 Z-0.125000
G01 X80.807138 Y78.890430 Z-0.125000
G01 X79.389862 Y81.914150 Z-0.125000
G01 X78.528369 Y83.166370 Z-0.125000
G01 X77.567629 Y84.229960 Z-0.125000
G01 X76.570648 Y85.034050 Z-0.125000
G01 X75.497780 Y85.619960 Z-0.125000
G01 X74.167370 Y86.021470 Z-0.125000
G01 X72.683077 Y86.137350 Z-0.125000
G01 X71.043799 Y85.961010 Z-0.125000
G01 X69.184172 Y85.480660 Z-0.125000
G01 X67.049663 Y84.660280 Z-0.125000
G01 X64.848787 Y83.558440 Z-0.125000
G01 X62.963146 Y82.367970 Z-0.125000
G01 X61.240311 Y80.997660 Z-0.125000
G01 X59.811455 Y79.606150 Z-0.125000
G01 X58.574679 Y78.125310 Z-0.125000
G01 X57.608776 Y76.631600 Z-0.125000
G01 X56.950087 Y75.201050 Z-0.125000
G01 X56.538614 Y73.709530 Z-0.125000
G01 X56.398064 Y72.230100 Z-0.125000
G01 X56.517761 Y70.705360 Z-0.125000
G01 X56.904423 Y69.156250 Z-0.125000
G01 X57.484567 Y67.762590 Z-0.125000
G01 X58.279695 Y66.413730 Z-0.125000
G01 X59.283041 Y65.150890 Z-0.125000
G01 X60.415508 Y64.064040 Z-0.125000
G01 X61.707572 Y63.108470 Z-0.125000
G01 X63.134272 Y62.303910 Z-0.125000
G01 X64.664528 Y61.664120 Z-0.125000
G01 X66.353231 Y61.175300 Z-0.125000
G01 X68.075414 Y60.878620 Z-0.125000
G01 X69.879754 Y60.767450 Z-0.125000
G01 X71.635120 Y60.851150 Z-0.125000
G01 X73.391640 Y61.134760 Z-0.125000
G01 X75.037284 Y61.607330 Z-0.125000
G01 X76.493557 Y62.227980 Z-0.125000
G01 X77.909980 Y63.060000 Z-0.125000
G01 X79.144602 Y64.034920 Z-0.125000
G01 X80.123637 Y65.079220 Z-0.125000
G01 X80.906535 Y66.213990 Z-0.125000
G01 X81.534898 Y67.486800 Z-0.125000
G01 X82.000156 Y68.883030 Z-0.125000
G01 X82.443710 Y72.045910 Z-0.125000
G01 X82.221807 Y75.566160 Z-0.125000
G01 X81.295102 Y79.291580 Z-0.125000
G01 X79.805396 Y82.510630 Z-0.125000
G01 X78.906108 Y83.839590 Z-0.125000
G01 X77.905720 Y84.963590 Z-0.125000
G01 X76.869242 Y85.805780 Z-0.125000
G01 X75.754568 Y86.409330 Z-0.125000
G01 X74.371628 Y86.806520 Z-0.125000
G01 X72.825733 Y86.893320 Z-0.125000
G01 X71.112771 Y86.666550 Z-0.125000
G01 X69.161115 Y86.117440 Z-0.125000
G01 X66.831069 Y85.177390 Z-0.125000
G01 X64.498315 Y83.981020 Z-0.125000
G01 X62.494179 Y82.706150 Z-0.125000
G01 X60.656357 Y81.251980 Z-0.125000
G01 X59.124045 Y79.788440 Z-0.125000
G01 X57.791330 Y78.242550 Z-0.125000
G01 X56.784826 Y76.756450 Z-0.125000
G01 X56.058920 Y75.274410 Z-0.125000
G01 X55.613162 Y73.798090 Z-0.125000
G01 X55.432162 Y72.258710 Z-0.125000
G01 X55.531312 Y70.662580 Z-0.125000
G01 X55.893113 Y69.107820 Z-0.125000
G01 X56.479171 Y67.628190 Z-0.125000
G01 X57.297507 Y66.185500 Z-0.125000
G01 X58.341704 Y64.826420 Z-0.125000
G01 X59.530011 Y63.651090 Z-0.125000
G01 X60.894455 Y62.613520 Z-0.125000
G01 X62.408622 Y61.736690 Z-0.125000
G01 X64.038527 Y61.036490 Z-0.125000
G01 X65.745273 Y60.521160 Z-0.125000
G01 X67.585149 Y60.178410 Z-0.125000
G01 X69.515001 Y60.033050 Z-0.125000
G01 X71.484250 Y60.102850 Z-0.125000
G01 X73.355455 Y60.382350 Z-0.125000
G01 X75.104456 Y60.857130 Z-0.125000
G01 X76.723334 Y61.520780 Z-0.125000
G01 X78.219255 Y62.376410 Z-0.125000
G01 X79.526507 Y63.384370 Z-0.125000
G01 X80.511007 Y64.406660 Z-0.125000
G01 X81.349793 Y65.587200 Z-0.125000
G01 X82.024121 Y66.921060 Z-0.125000
G01 X82.523964 Y68.393720 Z-0.125000
G01 X83.000049 Y71.654690 Z-0.125000
G01 X82.794387 Y75.418660 Z-0.125000
G01 X81.853697 Y79.420810 Z-0.125000
G01 X81.139570 Y81.276980 Z-0.125000
G01 X80.291410 Y82.959510 Z-0.125000
G01 X79.319592 Y84.450380 Z-0.125000
G01 X78.288226 Y85.646910 Z-0.125000
G01 X77.220471 Y86.539570 Z-0.125000
G01 X76.072214 Y87.173050 Z-0.125000
G01 X74.645966 Y87.578850 Z-0.125000
G01 X73.119317 Y87.652150 Z-0.125000
G01 X71.345455 Y87.398010 Z-0.125000
G01 X69.392346 Y86.827840 Z-0.125000
G01 X66.866763 Y85.789710 Z-0.125000
G01 X64.315967 Y84.474640 Z-0.125000
G01 X62.181005 Y83.129350 Z-0.125000
G01 X60.142234 Y81.544400 Z-0.125000
G01 X58.495086 Y80.015300 Z-0.125000
G01 X57.052848 Y78.411810 Z-0.125000
G01 X55.956320 Y76.877690 Z-0.125000
G01 X55.159388 Y75.349640 Z-0.125000
G01 X54.663454 Y73.824300 Z-0.125000
G01 X54.455336 Y72.304420 Z-0.125000
G01 X54.519996 Y70.721480 Z-0.125000
G01 X54.864753 Y69.091180 Z-0.125000
G01 X55.490510 Y67.445220 Z-0.125000
G01 X56.341377 Y65.911210 Z-0.125000
G01 X57.371940 Y64.532730 Z-0.125000
G01 X58.613128 Y63.265730 Z-0.125000
G01 X60.047898 Y62.142390 Z-0.125000
G01 X61.648479 Y61.189260 Z-0.125000
G01 X63.378082 Y60.425060 Z-0.125000
G01 X65.193749 Y59.859410 Z-0.125000
G01 X67.153575 Y59.478210 Z-0.125000
G01 X69.209389 Y59.306980 Z-0.125000
G01 X71.304802 Y59.362280 Z-0.125000
G01 X73.291845 Y59.636110 Z-0.125000
G01 X75.144404 Y60.110590 Z-0.125000
G01 X76.855360 Y60.777950 Z-0.125000
G01 X78.507220 Y61.689370 Z-0.125000
G01 X79.886100 Y62.725640 Z-0.125000
G01 X80.926388 Y63.784380 Z-0.125000
G01 X81.812392 Y65.015790 Z-0.125000
G01 X82.486419 Y66.329310 Z-0.125000
G01 X83.022102 Y67.875210 Z-0.125000
G01 X83.370017 Y69.551780 Z-0.125000
G01 X83.540340 Y71.432750 Z-0.125000
G01 X83.315632 Y75.445680 Z-0.125000
G01 X82.332887 Y79.711800 Z-0.125000
G01 X81.594701 Y81.685560 Z-0.125000
G01 X80.721629 Y83.471860 Z-0.125000
G01 X79.723446 Y85.054890 Z-0.125000
G01 X78.665263 Y86.325600 Z-0.125000
G01 X77.510540 Y87.312300 Z-0.125000
G01 X76.328800 Y87.961430 Z-0.125000
G01 X74.928818 Y88.348840 Z-0.125000
G01 X73.357157 Y88.405040 Z-0.125000
G01 X71.602042 Y88.128450 Z-0.125000
G01 X69.492795 Y87.479940 Z-0.125000
G01 X66.762552 Y86.316650 Z-0.125000
G01 X63.987098 Y84.860120 Z-0.125000
G01 X61.729580 Y83.430060 Z-0.125000
G01 X59.564295 Y81.760160 Z-0.125000
G01 X57.738652 Y80.099580 Z-0.125000
G01 X56.257668 Y78.505810 Z-0.125000
G01 X55.077933 Y76.926580 Z-0.125000
G01 X54.251828 Y75.428010 Z-0.125000
G01 X53.702963 Y73.858750 Z-0.125000
G01 X53.463467 Y72.287600 Z-0.125000
G01 X53.516447 Y70.641240 Z-0.125000
G01 X53.844814 Y69.020970 Z-0.125000
G01 X54.483804 Y67.287650 Z-0.125000
G01 X55.365246 Y65.661500 Z-0.125000
G01 X56.441073 Y64.192750 Z-0.125000
G01 X57.744265 Y62.838190 Z-0.125000
G01 X59.257931 Y61.634290 Z-0.125000
G01 X60.854403 Y60.663170 Z-0.125000
G01 X62.683353 Y59.831110 Z-0.125000
G01 X64.608693 Y59.211810 Z-0.125000
G01 X66.689919 Y58.789620 Z-0.125000
G01 X68.873502 Y58.590720 Z-0.125000
G01 X71.096733 Y58.630220 Z-0.125000
G01 X73.200517 Y58.896880 Z-0.125000
G01 X75.246106 Y59.396120 Z-0.125000
G01 X77.123276 Y60.110050 Z-0.125000
G01 X78.848668 Y61.047120 Z-0.125000
G01 X80.290806 Y62.118140 Z-0.125000
G01 X81.377810 Y63.220030 Z-0.125000
G01 X82.300555 Y64.509790 Z-0.125000
G01 X82.998492 Y65.892780 Z-0.125000
G01 X83.547758 Y67.527200 Z-0.125000
G01 X83.897929 Y69.305120 Z-0.125000
G01 X84.056575 Y71.190470 Z-0.125000
G01 X83.813269 Y75.455720 Z-0.125000
G01 X83.399339 Y77.725120 Z-0.125000
G01 X82.791928 Y79.990500 Z-0.125000
G01 X82.032789 Y82.083410 Z-0.125000
G01 X81.092901 Y84.059330 Z-0.125000
G01 X80.066748 Y85.724670 Z-0.125000
G01 X78.980947 Y87.057430 Z-0.125000
G01 X77.797503 Y88.083640 Z-0.125000
G01 X76.586591 Y88.747090 Z-0.125000
G01 X75.150417 Y89.125130 Z-0.125000
G01 X73.533746 Y89.147530 Z-0.125000
G01 X71.720735 Y88.816410 Z-0.125000
G01 X69.616801 Y88.126090 Z-0.125000
G01 X66.676236 Y86.830260 Z-0.125000
G01 X63.665947 Y85.225520 Z-0.125000
G01 X61.283671 Y83.710650 Z-0.125000
G01 X58.987708 Y81.957090 Z-0.125000
G01 X55.454569 Y78.589720 Z-0.125000
G01 X54.237391 Y77.042720 Z-0.125000
G01 X53.336801 Y75.510910 Z-0.125000
G01 X52.753800 Y73.981450 Z-0.125000
G01 X52.465833 Y72.367440 Z-0.125000
G01 X52.481423 Y70.751870 Z-0.125000
G01 X52.786182 Y69.066520 Z-0.125000
G01 X53.420108 Y67.247990 Z-0.125000
G01 X54.315486 Y65.526970 Z-0.125000
G01 X55.421086 Y63.960780 Z-0.125000
G01 X56.771596 Y62.508150 Z-0.125000
G01 X58.351426 Y61.210890 Z-0.125000
G01 X60.027044 Y60.159970 Z-0.125000
G01 X61.954891 Y59.255820 Z-0.125000
G01 X63.990305 Y58.579380 Z-0.125000
G01 X66.194187 Y58.113430 Z-0.125000
G01 X68.507242 Y57.885010 Z-0.125000
G01 X70.859944 Y57.907410 Z-0.125000
G01 X73.081472 Y58.165760 Z-0.125000
G01 X75.235529 Y58.660180 Z-0.125000
G01 X77.206834 Y59.370710 Z-0.125000
G01 X79.016085 Y60.307330 Z-0.125000
G01 X80.606291 Y61.445470 Z-0.125000
G01 X81.748031 Y62.576020 Z-0.125000
G01 X82.665514 Y63.825890 Z-0.125000
G01 X83.408763 Y65.255390 Z-0.125000
G01 X83.995171 Y66.957270 Z-0.125000
G01 X84.370656 Y68.820470 Z-0.125000
G01 X84.543736 Y70.806460 Z-0.125000
G01 X84.319729 Y75.202240 Z-0.125000
G01 X83.881890 Y77.736190 Z-0.125000
G01 X83.264053 Y80.144480 Z-0.125000
G01 X82.494088 Y82.368070 Z-0.125000
G01 X81.542871 Y84.465580 Z-0.125000
G01 X80.452458 Y86.314480 Z-0.125000
G01 X79.348412 Y87.724390 Z-0.125000
G01 X78.145569 Y88.807130 Z-0.125000
G01 X76.914507 Y89.501260 Z-0.125000
G01 X75.452119 Y89.886670 Z-0.125000
G01 X73.878253 Y89.898470 Z-0.125000
G01 X72.022888 Y89.541130 Z-0.125000
G01 X69.855346 Y88.802090 Z-0.125000
G01 X66.799393 Y87.425620 Z-0.125000
G01 X63.448757 Y85.627340 Z-0.125000
G01 X61.024325 Y84.097180 Z-0.125000
G01 X58.496186 Y82.203930 Z-0.125000
G01 X54.643352 Y78.665070 Z-0.125000
G01 X53.340109 Y77.086100 Z-0.125000
G01 X52.414707 Y75.599450 Z-0.125000
G01 X51.800378 Y74.118360 Z-0.125000
G01 X51.469505 Y72.551820 Z-0.125000
G01 X51.438385 Y70.891940 Z-0.125000
G01 X51.715123 Y69.146090 Z-0.125000
G01 X52.339827 Y67.245210 Z-0.125000
G01 X53.245330 Y65.429900 Z-0.125000
G01 X54.377145 Y63.764710 Z-0.125000
G01 X55.771415 Y62.210840 Z-0.125000
G01 X57.414451 Y60.815970 Z-0.125000
G01 X59.167312 Y59.680900 Z-0.125000
G01 X61.076913 Y58.748470 Z-0.125000
G01 X63.217589 Y57.997360 Z-0.125000
G01 X65.543626 Y57.470440 Z-0.125000
G01 X67.989810 Y57.196670 Z-0.125000
G01 X70.479053 Y57.188670 Z-0.125000
G01 X72.827045 Y57.426920 Z-0.125000
G01 X75.098646 Y57.904860 Z-0.125000
G01 X77.261677 Y58.635380 Z-0.125000
G01 X79.235688 Y59.614320 Z-0.125000
G01 X80.896620 Y60.766020 Z-0.125000
G01 X82.092545 Y61.920500 Z-0.125000
G01 X83.054036 Y63.207450 Z-0.125000
G01 X83.831872 Y64.690040 Z-0.125000
G01 X84.413920 Y66.356440 Z-0.125000
G01 X84.816120 Y68.301580 Z-0.125000
G01 X85.004790 Y70.386360 Z-0.125000
G01 X84.991760 Y72.690190 Z-0.125000
G01 X84.786550 Y75.028910 Z-0.125000
G01 X84.342546 Y77.714940 Z-0.125000
G01 X83.716939 Y80.269490 Z-0.125000
G01 X82.899204 Y82.733520 Z-0.125000
G01 X81.934756 Y84.943270 Z-0.125000
G01 X80.830708 Y86.891970 Z-0.125000
G01 X79.654482 Y88.446840 Z-0.125000
G01 X78.432192 Y89.569580 Z-0.125000
G01 X77.181080 Y90.277140 Z-0.125000
G01 X75.765808 Y90.642550 Z-0.125000
G01 X74.163973 Y90.637550 Z-0.125000
G01 X72.265701 Y90.239610 Z-0.125000
G01 X70.033448 Y89.439730 Z-0.125000
G01 X66.761408 Y87.921340 Z-0.125000
G01 X63.150624 Y85.959210 Z-0.125000
G01 X60.505545 Y84.281890 Z-0.125000
G01 X57.750541 Y82.229690 Z-0.125000
G01 X53.754700 Y78.662360 Z-0.125000
G01 X52.431909 Y77.129440 Z-0.125000
G01 X51.443851 Y75.618390 Z-0.125000
G01 X50.788973 Y74.107430 Z-0.125000
G01 X50.448024 Y72.587000 Z-0.125000
G01 X50.399404 Y70.877240 Z-0.125000
G01 X50.655391 Y69.163380 Z-0.125000
G01 X51.284707 Y67.180440 Z-0.125000
G01 X52.213418 Y65.272450 Z-0.125000
G01 X53.383528 Y63.511320 Z-0.125000
G01 X54.833185 Y61.860810 Z-0.125000
G01 X56.448352 Y60.451900 Z-0.125000
G01 X58.276250 Y59.228210 Z-0.125000
G01 X60.276877 Y58.218650 Z-0.125000
G01 X62.527276 Y57.401470 Z-0.125000
G01 X64.977772 Y56.823380 Z-0.125000
G01 X67.556687 Y56.514910 Z-0.125000
G01 X70.178961 Y56.486410 Z-0.125000
G01 X72.760082 Y56.730870 Z-0.125000
G01 X75.233536 Y57.237890 Z-0.125000
G01 X77.473910 Y57.978430 Z-0.125000
G01 X79.516691 Y58.969000 Z-0.125000
G01 X81.238926 Y60.142210 Z-0.125000
G01 X82.478559 Y61.329010 Z-0.125000
G01 X83.472483 Y62.661990 Z-0.125000
G01 X84.272473 Y64.206920 Z-0.125000
G01 X84.865798 Y65.951710 Z-0.125000
G01 X85.251659 Y67.870840 Z-0.125000
G01 X85.444588 Y70.059740 Z-0.125000
G01 X85.427338 Y72.486120 Z-0.125000
G01 X85.212453 Y74.954010 Z-0.125000
G01 X84.754614 Y77.790370 Z-0.125000
G01 X84.081740 Y80.609540 Z-0.125000
G01 X83.246463 Y83.193010 Z-0.125000
G01 X82.267277 Y85.503510 Z-0.125000
G01 X81.148493 Y87.539970 Z-0.125000
G01 X79.957379 Y89.162160 Z-0.125000
G01 X78.720453 Y90.324600 Z-0.125000
G01 X77.453852 Y91.044840 Z-0.125000
G01 X76.018330 Y91.398570 Z-0.125000
G01 X74.387373 Y91.358570 Z-0.125000
G01 X72.531907 Y90.931300 Z-0.125000
G01 X70.238853 Y90.071010 Z-0.125000
G01 X66.641754 Y88.352040 Z-0.125000
G01 X62.757841 Y86.211960 Z-0.125000
G01 X60.084291 Y84.511930 Z-0.125000
G01 X57.079716 Y82.302840 Z-0.125000
G01 X52.849242 Y78.652660 Z-0.125000
G01 X51.512867 Y77.173830 Z-0.125000
G01 X50.506113 Y75.721710 Z-0.125000
G01 X49.823865 Y74.272770 Z-0.125000
G01 X49.430336 Y72.727620 Z-0.125000
G01 X49.341116 Y71.072350 Z-0.125000
G01 X49.563518 Y69.309110 Z-0.125000
G01 X50.176292 Y67.249790 Z-0.125000
G01 X51.108662 Y65.249160 Z-0.125000
G01 X52.373660 Y63.285270 Z-0.125000
G01 X53.876949 Y61.535070 Z-0.125000
G01 X55.560337 Y60.036240 Z-0.125000
G01 X57.473146 Y58.731650 Z-0.125000
G01 X59.572969 Y57.654270 Z-0.125000
G01 X61.939106 Y56.782000 Z-0.125000
G01 X64.517019 Y56.165210 Z-0.125000
G01 X67.093730 Y55.844420 Z-0.125000
G01 X69.850438 Y55.794520 Z-0.125000
G01 X72.558073 Y56.027800 Z-0.125000
G01 X75.144258 Y56.525440 Z-0.125000
G01 X77.574904 Y57.289290 Z-0.125000
G01 X79.690768 Y58.274440 Z-0.125000
G01 X81.560368 Y59.513680 Z-0.125000
G01 X82.842358 Y60.729360 Z-0.125000
G01 X83.867508 Y62.105620 Z-0.125000
G01 X84.643439 Y63.604110 Z-0.125000
G01 X85.260774 Y65.413200 Z-0.125000
G01 X85.660269 Y67.413980 Z-0.125000
G01 X85.852196 Y69.567280 Z-0.125000
G01 X85.849696 Y71.967820 Z-0.125000
G01 X85.630049 Y74.708920 Z-0.125000
G01 X85.169804 Y77.702430 Z-0.125000
G01 X84.494474 Y80.681290 Z-0.125000
G01 X83.659597 Y83.409830 Z-0.125000
G01 X82.635850 Y85.951050 Z-0.125000
G01 X81.513910 Y88.088810 Z-0.125000
G01 X80.318435 Y89.797260 Z-0.125000
G01 X79.076746 Y91.020660 Z-0.125000
G01 X77.734707 Y91.802700 Z-0.125000
G01 X76.283647 Y92.143800 Z-0.125000
G01 X74.627878 Y92.068000 Z-0.125000
G01 X72.732964 Y91.586150 Z-0.125000
G01 X70.374597 Y90.652680 Z-0.125000
G01 X66.428430 Y88.709140 Z-0.125000
G01 X62.256301 Y86.377340 Z-0.125000
G01 X59.460044 Y84.582430 Z-0.125000
G01 X56.104547 Y82.133390 Z-0.125000
G01 X51.773772 Y78.491330 Z-0.125000
G01 X50.457097 Y77.070540 Z-0.125000
G01 X49.466834 Y75.676820 Z-0.125000
G01 X48.761228 Y74.201910 Z-0.125000
G01 X48.378375 Y72.708380 Z-0.125000
G01 X48.284195 Y71.102950 Z-0.125000
G01 X48.484543 Y69.386270 Z-0.125000
G01 X49.096665 Y67.249360 Z-0.125000
G01 X50.047782 Y65.156650 Z-0.125000
G01 X51.349070 Y63.088100 Z-0.125000
G01 X52.904087 Y61.235300 Z-0.125000
G01 X54.654242 Y59.643030 Z-0.125000
G01 X56.651260 Y58.253930 Z-0.125000
G01 X58.850129 Y57.105270 Z-0.125000
G01 X61.191855 Y56.218960 Z-0.125000
G01 X63.895883 Y55.544280 Z-0.125000
G01 X66.601263 Y55.186000 Z-0.125000
G01 X69.493909 Y55.113500 Z-0.125000
G01 X72.328912 Y55.335190 Z-0.125000
G01 X75.138501 Y55.849170 Z-0.125000
G01 X77.653809 Y56.606200 Z-0.125000
G01 X79.931024 Y57.629400 Z-0.125000
G01 X81.860123 Y58.880410 Z-0.125000
G01 X83.110534 Y60.040800 Z-0.125000
G01 X84.178290 Y61.442080 Z-0.125000
G01 X84.986250 Y62.980320 Z-0.125000
G01 X85.627896 Y64.850160 Z-0.125000
G01 X86.041375 Y66.929880 Z-0.125000
G01 X86.238165 Y69.178380 Z-0.125000
G01 X86.233065 Y71.693630 Z-0.125000
G01 X86.005348 Y74.572900 Z-0.125000
G01 X85.507610 Y77.868140 Z-0.125000
G01 X84.817243 Y80.989620 Z-0.125000
G01 X83.973995 Y83.839660 Z-0.125000
G01 X82.945937 Y86.486190 Z-0.125000
G01 X81.820086 Y88.712280 Z-0.125000
G01 X80.619951 Y90.489850 Z-0.125000
G01 X79.373600 Y91.754250 Z-0.125000
G01 X78.025346 Y92.549120 Z-0.125000
G01 X76.563458 Y92.876790 Z-0.125000
G01 X74.887239 Y92.764560 Z-0.125000
G01 X72.956184 Y92.228430 Z-0.125000
G01 X70.432757 Y91.175600 Z-0.125000
G01 X66.108099 Y88.983250 Z-0.125000
G01 X61.631262 Y86.446150 Z-0.125000
G01 X58.602727 Y84.474740 Z-0.125000
G01 X54.782322 Y81.707600 Z-0.125000
G01 X50.667687 Y78.327640 Z-0.125000
G01 X49.379282 Y76.971270 Z-0.125000
G01 X48.412275 Y75.640910 Z-0.125000
G01 X47.717848 Y74.228100 Z-0.125000
G01 X47.332188 Y72.797780 Z-0.125000
G01 X47.219460 Y71.155350 Z-0.125000
G01 X47.397855 Y69.493120 Z-0.125000
G01 X48.007271 Y67.280560 Z-0.125000
G01 X49.036631 Y64.980290 Z-0.125000
G01 X50.311303 Y62.921110 Z-0.125000
G01 X51.916045 Y60.962700 Z-0.125000
G01 X53.731411 Y59.273440 Z-0.125000
G01 X55.811586 Y57.796070 Z-0.125000
G01 X57.969254 Y56.636980 Z-0.125000
G01 X60.413936 Y55.675840 Z-0.125000
G01 X63.094404 Y54.968940 Z-0.125000
G01 X65.931763 Y54.553250 Z-0.125000
G01 X68.969269 Y54.440900 Z-0.125000
G01 X71.943768 Y54.638050 Z-0.125000
G01 X74.998920 Y55.156540 Z-0.125000
G01 X77.710515 Y55.929960 Z-0.125000
G01 X80.057153 Y56.936020 Z-0.125000
G01 X82.051465 Y58.176450 Z-0.125000
G01 X83.349593 Y59.340940 Z-0.125000
G01 X84.459905 Y60.761830 Z-0.125000
G01 X85.300096 Y62.335250 Z-0.125000
G01 X85.931867 Y64.134270 Z-0.125000
G01 X86.374520 Y66.276850 Z-0.125000
G01 X86.590206 Y68.608510 Z-0.125000
G01 X86.596006 Y71.231320 Z-0.125000
G01 X86.389543 Y74.088330 Z-0.125000
G01 X85.930101 Y77.402130 Z-0.125000
G01 X85.224194 Y80.855360 Z-0.125000
G01 X84.355483 Y83.999990 Z-0.125000
G01 X83.341961 Y86.782510 Z-0.125000
G01 X82.176913 Y89.223940 Z-0.125000
G01 X80.982993 Y91.091640 Z-0.125000
G01 X79.742056 Y92.421090 Z-0.125000
G01 X78.398062 Y93.253660 Z-0.125000
G01 X76.936576 Y93.591250 Z-0.125000
G01 X75.252086 Y93.464180 Z-0.125000
G01 X73.297423 Y92.892270 Z-0.125000
G01 X70.720563 Y91.781300 Z-0.125000
G01 X66.020620 Y89.357930 Z-0.125000
G01 X61.346342 Y86.700560 Z-0.125000
G01 X58.170642 Y84.645750 Z-0.125000
G01 X53.603530 Y81.410750 Z-0.125000
G01 X49.532051 Y78.166830 Z-0.125000
G01 X48.280788 Y76.879730 Z-0.125000
G01 X47.343757 Y75.616690 Z-0.125000
G01 X46.665469 Y74.270190 Z-0.125000
G01 X46.280311 Y72.908150 Z-0.125000
G01 X46.147281 Y71.333380 Z-0.125000
G01 X46.286877 Y69.740510 Z-0.125000
G01 X46.869177 Y67.462000 Z-0.125000
G01 X47.893525 Y65.068050 Z-0.125000
G01 X49.262280 Y62.785420 Z-0.125000
G01 X50.914741 Y60.718470 Z-0.125000
G01 X52.793515 Y58.928620 Z-0.125000
G01 X54.821559 Y57.444220 Z-0.125000
G01 X57.060029 Y56.195070 Z-0.125000
G01 X59.606614 Y55.153830 Z-0.125000
G01 X62.406730 Y54.382610 Z-0.125000
G01 X65.374964 Y53.922060 Z-0.125000
G01 X68.404601 Y53.781910 Z-0.125000
G01 X71.521255 Y53.953350 Z-0.125000
G01 X74.713245 Y54.449870 Z-0.125000
G01 X77.639776 Y55.226260 Z-0.125000
G01 X80.157790 Y56.244640 Z-0.125000
G01 X82.303027 Y57.532550 Z-0.125000
G01 X83.637497 Y58.711780 Z-0.125000
G01 X84.711970 Y60.065200 Z-0.125000
G01 X85.584741 Y61.668890 Z-0.125000
G01 X86.240473 Y63.516230 Z-0.125000
G01 X86.677409 Y65.585130 Z-0.125000
G01 X86.913748 Y67.995420 Z-0.125000
G01 X86.931688 Y70.722810 Z-0.125000
G01 X86.730888 Y73.708280 Z-0.125000
G01 X86.247986 Y77.347490 Z-0.125000
G01 X85.540978 Y80.966700 Z-0.125000
G01 X84.680086 Y84.257230 Z-0.125000
G01 X83.680700 Y87.162110 Z-0.125000
G01 X82.530639 Y89.711350 Z-0.125000
G01 X81.289200 Y91.753030 Z-0.125000
G01 X80.053977 Y93.125140 Z-0.125000
G01 X78.714144 Y93.971350 Z-0.125000
G01 X77.251807 Y94.295950 Z-0.125000
G01 X75.555938 Y94.133450 Z-0.125000
G01 X73.476865 Y93.472010 Z-0.125000
G01 X70.718003 Y92.221990 Z-0.125000
G01 X65.580772 Y89.517820 Z-0.125000
G01 X60.822684 Y86.792290 Z-0.125000
G01 X51.614277 Y80.562590 Z-0.125000
G01 X48.124094 Y77.788690 Z-0.125000
G01 X47.029270 Y76.644040 Z-0.125000
G01 X46.160259 Y75.441790 Z-0.125000
G01 X45.536606 Y74.151900 Z-0.125000
G01 X45.188140 Y72.847850 Z-0.125000
G01 X45.072005 Y71.435130 Z-0.125000
G01 X45.190752 Y69.911800 Z-0.125000
G01 X45.765130 Y67.563150 Z-0.125000
G01 X46.803463 Y65.073750 Z-0.125000
G01 X48.203396 Y62.681910 Z-0.125000
G01 X49.901520 Y60.503590 Z-0.125000
G01 X51.841897 Y58.609430 Z-0.125000
G01 X53.945381 Y57.034050 Z-0.125000
G01 X56.274725 Y55.705850 Z-0.125000
G01 X58.930532 Y54.597790 Z-0.125000
G01 X61.853855 Y53.777210 Z-0.125000
G01 X64.790160 Y53.304270 Z-0.125000
G01 X67.954131 Y53.136270 Z-0.125000
G01 X71.202712 Y53.294610 Z-0.125000
G01 X74.640916 Y53.805430 Z-0.125000
G01 X77.757871 Y54.601060 Z-0.125000
G01 X80.430118 Y55.649810 Z-0.125000
G01 X82.530694 Y56.883640 Z-0.125000
G01 X83.900050 Y58.073450 Z-0.125000
G01 X85.000889 Y59.452620 Z-0.125000
G01 X85.891905 Y61.099210 Z-0.125000
G01 X86.557011 Y63.007170 Z-0.125000
G01 X86.994749 Y65.153510 Z-0.125000
G01 X87.216601 Y67.500150 Z-0.125000
G01 X87.240011 Y70.166680 Z-0.125000
G01 X87.046279 Y73.279120 Z-0.125000
G01 X86.568591 Y77.089600 Z-0.125000
G01 X85.837372 Y81.047690 Z-0.125000
G01 X84.949764 Y84.626700 Z-0.125000
G01 X83.964913 Y87.637390 Z-0.125000
G01 X82.829438 Y90.279710 Z-0.125000
G01 X81.600181 Y92.397080 Z-0.125000
G01 X80.375885 Y93.812150 Z-0.125000
G01 X79.045325 Y94.671890 Z-0.125000
G01 X77.586947 Y94.983420 Z-0.125000
G01 X75.883909 Y94.785970 Z-0.125000
G01 X73.777420 Y94.071800 Z-0.125000
G01 X70.954096 Y92.751960 Z-0.125000
G01 X60.549912 Y87.020250 Z-0.125000
G01 X49.871448 Y79.952670 Z-0.125000
G01 X46.768528 Y77.497670 Z-0.125000
G01 X45.759568 Y76.420240 Z-0.125000
G01 X45.014515 Y75.362950 Z-0.125000
G01 X44.433168 Y74.137860 Z-0.125000
G01 X44.107458 Y72.902230 Z-0.125000
G01 X43.993127 Y71.561840 Z-0.125000
G01 X44.091827 Y70.114790 Z-0.125000
G01 X44.656281 Y67.698240 Z-0.125000
G01 X45.706945 Y65.113950 Z-0.125000
G01 X47.136452 Y62.611680 Z-0.125000
G01 X48.878134 Y60.319130 Z-0.125000
G01 X50.878060 Y58.317000 Z-0.125000
G01 X53.055577 Y56.646640 Z-0.125000
G01 X55.474995 Y55.235480 Z-0.125000
G01 X58.073210 Y54.116650 Z-0.125000
G01 X61.116079 Y53.222570 Z-0.125000
G01 X64.177996 Y52.700220 Z-0.125000
G01 X67.316955 Y52.503680 Z-0.125000
G01 X70.712503 Y52.633860 Z-0.125000
G01 X74.295467 Y53.123780 Z-0.125000
G01 X77.748507 Y53.949830 Z-0.125000
G01 X80.483310 Y54.961700 Z-0.125000
G01 X82.733859 Y56.229550 Z-0.125000
G01 X84.054594 Y57.342220 Z-0.125000
G01 X85.194330 Y58.724810 Z-0.125000
G01 X86.118179 Y60.392210 Z-0.125000
G01 X86.769448 Y62.201960 Z-0.125000
G01 X87.238766 Y64.391960 Z-0.125000
G01 X87.482823 Y66.803810 Z-0.125000
G01 X87.520823 Y69.561780 Z-0.125000
G01 X87.351401 Y72.617280 Z-0.125000
G01 X86.890906 Y76.602240 Z-0.125000
G01 X86.146955 Y80.930910 Z-0.125000
G01 X85.284108 Y84.685450 Z-0.125000
G01 X84.287830 Y87.965960 Z-0.125000
G01 X83.128746 Y90.828030 Z-0.125000
G01 X81.917584 Y93.021780 Z-0.125000
G01 X80.709428 Y94.480070 Z-0.125000
G01 X79.393454 Y95.353340 Z-0.125000
G01 X78.019937 Y95.649770 Z-0.125000
G01 X76.323817 Y95.442660 Z-0.125000
G01 X74.303893 Y94.739910 Z-0.125000
G01 X71.448238 Y93.387050 Z-0.125000
G01 X60.561705 Y87.404710 Z-0.125000
G01 X48.286517 Y79.511930 Z-0.125000
G01 X45.469861 Y77.298420 Z-0.125000
G01 X43.858903 Y75.300700 Z-0.125000
G01 X43.323521 Y74.142020 Z-0.125000
G01 X43.023023 Y72.977970 Z-0.125000
G01 X42.912051 Y71.714580 Z-0.125000
G01 X42.991701 Y70.349990 Z-0.125000
G01 X43.585327 Y67.737780 Z-0.125000
G01 X44.671480 Y65.052250 Z-0.125000
G01 X46.151712 Y62.438850 Z-0.125000
G01 X47.957304 Y60.036420 Z-0.125000
G01 X49.903646 Y58.052240 Z-0.125000
G01 X52.153544 Y56.282840 Z-0.125000
G01 X54.661984 Y54.784570 Z-0.125000
G01 X57.362252 Y53.595150 Z-0.125000
G01 X60.351136 Y52.686540 Z-0.125000
G01 X63.539168 Y52.110360 Z-0.125000
G01 X66.808501 Y51.882090 Z-0.125000
G01 X70.186154 Y51.985600 Z-0.125000
G01 X74.049565 Y52.479220 Z-0.125000
G01 X77.830221 Y53.340560 Z-0.125000
G01 X80.716050 Y54.367170 Z-0.125000
G01 X83.006849 Y55.636180 Z-0.125000
G01 X84.346932 Y56.768400 Z-0.125000
G01 X85.497695 Y58.188120 Z-0.125000
G01 X86.369113 Y59.786800 Z-0.125000
G01 X87.029355 Y61.646630 Z-0.125000
G01 X87.476268 Y63.749310 Z-0.125000
G01 X87.729698 Y66.234890 Z-0.125000
G01 X87.774108 Y68.907290 Z-0.125000
G01 X87.614462 Y72.077180 Z-0.125000
G01 X87.137124 Y76.419830 Z-0.125000
G01 X86.402446 Y80.937720 Z-0.125000
G01 X85.526818 Y85.004440 Z-0.125000
G01 X84.560163 Y88.395380 Z-0.125000
G01 X83.430253 Y91.354340 Z-0.125000
G01 X82.242999 Y93.625130 Z-0.125000
G01 X81.056447 Y95.127070 Z-0.125000
G01 X79.760072 Y96.013980 Z-0.125000
G01 X78.474875 Y96.296570 Z-0.125000
G01 X76.876548 Y96.104600 Z-0.125000
G01 X74.864041 Y95.397390 Z-0.125000
G01 X72.098111 Y94.076810 Z-0.125000
G01 X60.751733 Y87.878430 Z-0.125000
G01 X46.764787 Y79.169670 Z-0.125000
G01 X44.231736 Y77.194850 Z-0.125000
G01 X42.745288 Y75.343450 Z-0.125000
G01 X42.242888 Y74.260460 Z-0.125000
G01 X41.954320 Y73.179070 Z-0.125000
G01 X41.892120 Y70.618050 Z-0.125000
G01 X42.430409 Y68.072560 Z-0.125000
G01 X43.500771 Y65.300670 Z-0.125000
G01 X45.075439 Y62.431280 Z-0.125000
G01 X46.921380 Y59.908910 Z-0.125000
G01 X48.920203 Y57.816150 Z-0.125000
G01 X51.240726 Y55.943590 Z-0.125000
G01 X53.837035 Y54.353930 Z-0.125000
G01 X56.638806 Y53.089990 Z-0.125000
G01 X59.744282 Y52.123880 Z-0.125000
G01 X62.874368 Y51.535170 Z-0.125000
G01 X66.275328 Y51.272160 Z-0.125000
G01 X69.783856 Y51.360660 Z-0.125000
G01 X73.780149 Y51.846980 Z-0.125000
G01 X77.779949 Y52.708110 Z-0.125000
G01 X80.825326 Y53.727200 Z-0.125000
G01 X83.161587 Y54.970690 Z-0.125000
G01 X84.530293 Y56.101100 Z-0.125000
G01 X85.633437 Y57.429710 Z-0.125000
G01 X86.535832 Y59.038510 Z-0.125000
G01 X87.220685 Y60.926200 Z-0.125000
G01 X87.684940 Y63.075360 Z-0.125000
G01 X87.938371 Y65.453280 Z-0.125000
G01 X87.999831 Y68.202510 Z-0.125000
G01 X87.851613 Y71.483120 Z-0.125000
G01 X87.410014 Y75.808390 Z-0.125000
G01 X86.669622 Y80.726960 Z-0.125000
G01 X85.794344 Y85.143000 Z-0.125000
G01 X84.829044 Y88.800850 Z-0.125000
G01 X83.735423 Y91.856500 Z-0.125000
G01 X82.578144 Y94.205150 Z-0.125000
G01 X81.418459 Y95.751100 Z-0.125000
G01 X80.146896 Y96.651790 Z-0.125000
G01 X78.878390 Y96.924460 Z-0.125000
G01 X77.456001 Y96.748270 Z-0.125000
G01 X75.652715 Y96.124870 Z-0.125000
G01 X73.020917 Y94.879170 Z-0.125000
G01 X61.287778 Y88.535100 Z-0.125000
G01 X45.423712 Y78.999210 Z-0.125000
G01 X43.058028 Y77.189820 Z-0.125000
G01 X41.626316 Y75.408490 Z-0.125000
G01 X41.160256 Y74.402880 Z-0.125000
G01 X40.867127 Y73.303000 Z-0.125000
G01 X40.794697 Y70.919320 Z-0.125000
G01 X41.357647 Y68.174900 Z-0.125000
G01 X42.462395 Y65.300440 Z-0.125000
G01 X44.089543 Y62.309740 Z-0.125000
G01 X45.998041 Y59.671440 Z-0.125000
G01 X48.069094 Y57.478340 Z-0.125000
G01 X50.478286 Y55.515040 Z-0.125000
G01 X53.001364 Y53.944180 Z-0.125000
G01 X55.903934 Y52.601600 Z-0.125000
G01 X58.934474 Y51.623510 Z-0.125000
G01 X62.184308 Y50.975000 Z-0.125000
G01 X65.536749 Y50.679920 Z-0.125000
G01 X69.193496 Y50.735420 Z-0.125000
G01 X73.488230 Y51.227140 Z-0.125000
G01 X77.824968 Y52.116000 Z-0.125000
G01 X80.911598 Y53.088170 Z-0.125000
G01 X83.290415 Y54.299380 Z-0.125000
G01 X84.599071 Y55.339120 Z-0.125000
G01 X85.737553 Y56.656140 Z-0.125000
G01 X86.671527 Y58.269160 Z-0.125000
G01 X87.338887 Y60.033100 Z-0.125000
G01 X87.837828 Y62.204650 Z-0.125000
G01 X88.117524 Y64.626870 Z-0.125000
G01 X88.089564 Y70.428700 Z-0.125000
G01 X87.680997 Y74.919720 Z-0.125000
G01 X86.945066 Y80.272050 Z-0.125000
G01 X86.048386 Y85.245320 Z-0.125000
G01 X85.135715 Y89.040700 Z-0.125000
G01 X84.093673 Y92.209490 Z-0.125000
G01 X82.978398 Y94.663740 Z-0.125000
G01 X81.797160 Y96.350440 Z-0.125000
G01 X80.555471 Y97.265220 Z-0.125000
G01 X79.380998 Y97.526770 Z-0.125000
G01 X78.061968 Y97.371430 Z-0.125000
G01 X76.375121 Y96.795100 Z-0.125000
G01 X73.984774 Y95.672810 Z-0.125000
G01 X62.051588 Y89.298500 Z-0.125000
G01 X52.628746 Y83.668800 Z-0.125000
G01 X44.054715 Y78.858330 Z-0.125000
G01 X41.873188 Y77.209980 Z-0.125000
G01 X40.504133 Y75.497220 Z-0.125000
G01 X39.800281 Y73.557740 Z-0.125000
G01 X39.701231 Y71.254210 Z-0.125000
G01 X40.204633 Y68.589130 Z-0.125000
G01 X41.356900 Y65.479590 Z-0.125000
G01 X43.010514 Y62.367200 Z-0.125000
G01 X44.956104 Y59.603320 Z-0.125000
G01 X47.076178 Y57.294880 Z-0.125000
G01 X49.553140 Y55.220520 Z-0.125000
G01 X52.156316 Y53.556080 Z-0.125000
G01 X55.158736 Y52.130490 Z-0.125000
G01 X58.298446 Y51.090690 Z-0.125000
G01 X61.469736 Y50.430450 Z-0.125000
G01 X64.760472 Y50.103340 Z-0.125000
G01 X68.395666 Y50.112340 Z-0.125000
G01 X72.735913 Y50.552890 Z-0.125000
G01 X77.616605 Y51.476180 Z-0.125000
G01 X80.974709 Y52.449800 Z-0.125000
G01 X83.393076 Y53.621870 Z-0.125000
G01 X84.726293 Y54.651380 Z-0.125000
G01 X85.886178 Y55.972470 Z-0.125000
G01 X86.836542 Y57.606130 Z-0.125000
G01 X87.513577 Y59.405410 Z-0.125000
G01 X87.988107 Y61.463980 Z-0.125000
G01 X88.281036 Y63.941000 Z-0.125000
G01 X88.274336 Y69.710350 Z-0.125000
G01 X87.856095 Y74.575150 Z-0.125000
G01 X87.109337 Y80.336680 Z-0.125000
G01 X86.257319 Y85.479170 Z-0.125000
G01 X85.362592 Y89.532810 Z-0.125000
G01 X84.363357 Y92.781290 Z-0.125000
G01 X83.284071 Y95.287770 Z-0.125000
G01 X82.136667 Y96.986510 Z-0.125000
G01 X80.922998 Y97.880320 Z-0.125000
G01 X79.836394 Y98.106090 Z-0.125000
G01 X78.613102 Y97.951800 Z-0.125000
G01 X77.033772 Y97.407050 Z-0.125000
G01 X74.874300 Y96.396680 Z-0.125000
G01 X63.219506 Y90.259810 Z-0.125000
G01 X52.246708 Y83.859140 Z-0.125000
G01 X42.772488 Y78.818650 Z-0.125000
G01 X40.760533 Y77.332310 Z-0.125000
G01 X39.431477 Y75.700100 Z-0.125000
G01 X38.737400 Y73.840980 Z-0.125000
G01 X38.613341 Y71.622950 Z-0.125000
G01 X39.095842 Y68.901530 Z-0.125000
G01 X40.252870 Y65.695750 Z-0.125000
G01 X42.029641 Y62.298260 Z-0.125000
G01 X44.036333 Y59.412430 Z-0.125000
G01 X46.227284 Y56.997270 Z-0.125000
G01 X48.621490 Y54.952380 Z-0.125000
G01 X51.303061 Y53.189900 Z-0.125000
G01 X54.404276 Y51.676880 Z-0.125000
G01 X57.652707 Y50.571590 Z-0.125000
G01 X60.935373 Y49.869330 Z-0.125000
G01 X64.338940 Y49.521170 Z-0.125000
G01 X67.909874 Y49.520170 Z-0.125000
G01 X72.541397 Y49.979660 Z-0.125000
G01 X77.861832 Y50.956750 Z-0.125000
G01 X81.232518 Y51.890320 Z-0.125000
G01 X83.571036 Y53.002530 Z-0.125000
G01 X84.916734 Y54.038210 Z-0.125000
G01 X86.006845 Y55.275430 Z-0.125000
G01 X86.912247 Y56.797020 Z-0.125000
G01 X87.615247 Y58.606570 Z-0.125000
G01 X88.110028 Y60.693010 Z-0.125000
G01 X88.403157 Y63.030830 Z-0.125000
G01 X88.444857 Y68.722190 Z-0.125000
G01 X88.075940 Y73.528100 Z-0.125000
G01 X87.339809 Y79.758950 Z-0.125000
G01 X86.458366 Y85.685690 Z-0.125000
G01 X85.630206 Y89.856710 Z-0.125000
G01 X84.689165 Y93.201330 Z-0.125000
G01 X83.657899 Y95.787870 Z-0.125000
G01 X82.555256 Y97.533410 Z-0.125000
G01 X81.380984 Y98.440570 Z-0.125000
G01 X80.459843 Y98.654750 Z-0.125000
G01 X79.352238 Y98.546880 Z-0.125000
G01 X78.000374 Y98.112140 Z-0.125000
G01 X76.017943 Y97.212500 Z-0.125000
G01 X62.837152 Y90.354890 Z-0.125000
G01 X51.374586 Y83.786150 Z-0.125000
G01 X41.473003 Y78.813530 Z-0.125000
G01 X39.561698 Y77.409040 Z-0.125000
G01 X38.360610 Y75.931560 Z-0.125000
G01 X37.680117 Y74.154580 Z-0.125000
G01 X37.532851 Y72.026840 Z-0.125000
G01 X37.991994 Y69.251390 Z-0.125000
G01 X39.081653 Y66.114390 Z-0.125000
G01 X40.756470 Y62.762350 Z-0.125000
G01 X42.868475 Y59.571010 Z-0.125000
G01 X45.079475 Y57.021710 Z-0.125000
G01 X47.684907 Y54.712520 Z-0.125000
G01 X50.443118 Y52.847580 Z-0.125000
G01 X53.435964 Y51.330260 Z-0.125000
G01 X56.574071 Y50.190570 Z-0.125000
G01 X59.969919 Y49.391380 Z-0.125000
G01 X63.503610 Y48.972890 Z-0.125000
G01 X67.030083 Y48.922990 Z-0.125000
G01 X71.710176 Y49.330200 Z-0.125000
G01 X77.853659 Y50.389430 Z-0.125000
G01 X81.251362 Y51.248920 Z-0.125000
G01 X83.622561 Y52.311710 Z-0.125000
G01 X84.898335 Y53.246640 Z-0.125000
G01 X86.020777 Y54.458150 Z-0.125000
G01 X86.957106 Y55.967810 Z-0.125000
G01 X87.638753 Y57.631550 Z-0.125000
G01 X88.138445 Y59.547810 Z-0.125000
G01 X88.478291 Y61.887290 Z-0.125000
G01 X88.596535 Y67.447070 Z-0.125000
G01 X88.289071 Y72.160550 Z-0.125000
G01 X87.597549 Y78.668630 Z-0.125000
G01 X86.679666 Y85.681680 Z-0.125000
G01 X85.868197 Y90.300630 Z-0.125000
G01 X84.983647 Y93.724590 Z-0.125000
G01 X84.000101 Y96.361100 Z-0.125000
G01 X82.995050 Y98.050100 Z-0.125000
G01 X81.864938 Y98.971140 Z-0.125000
G01 X81.037028 Y99.176550 Z-0.125000
G01 X80.035587 Y99.094150 Z-0.125000
G01 X77.077429 Y97.946730 Z-0.125000
G01 X63.306320 Y90.904720 Z-0.125000
G01 X51.351730 Y84.170920 Z-0.125000
G01 X40.270862 Y78.909120 Z-0.125000
G01 X38.441261 Y77.590400 Z-0.125000
G01 X37.293255 Y76.191120 Z-0.125000
G01 X36.629955 Y74.497750 Z-0.125000
G01 X36.461586 Y72.464740 Z-0.125000
G01 X36.934011 Y69.484730 Z-0.125000
G01 X38.128031 Y66.072240 Z-0.125000
G01 X39.984551 Y62.408320 Z-0.125000
G01 X42.084825 Y59.263910 Z-0.125000
G01 X44.390210 Y56.613510 Z-0.125000
G01 X46.924466 Y54.358500 Z-0.125000
G01 X49.776309 Y52.409150 Z-0.125000
G01 X52.872061 Y50.826010 Z-0.125000
G01 X56.116683 Y49.641920 Z-0.125000
G01 X59.404713 Y48.857720 Z-0.125000
G01 X62.842415 Y48.426200 Z-0.125000
G01 X66.491343 Y48.350500 Z-0.125000
G01 X71.480654 Y48.777060 Z-0.125000
G01 X78.418163 Y49.942200 Z-0.125000
G01 X81.580431 Y50.712930 Z-0.125000
G01 X83.751782 Y51.675420 Z-0.125000
G01 X85.037079 Y52.610350 Z-0.125000
G01 X86.164986 Y53.836950 Z-0.125000
G01 X87.037306 Y55.247800 Z-0.125000
G01 X87.730280 Y56.932100 Z-0.125000
G01 X88.236891 Y58.883450 Z-0.125000
G01 X88.560094 Y61.083420 Z-0.125000
G01 X88.704704 Y66.545610 Z-0.125000
G01 X88.434882 Y71.156990 Z-0.125000
G01 X87.825066 Y77.456360 Z-0.125000
G01 X86.842120 Y86.006720 Z-0.125000
G01 X86.116365 Y90.719300 Z-0.125000
G01 X85.333567 Y94.085020 Z-0.125000
G01 X84.409769 Y96.801940 Z-0.125000
G01 X83.457400 Y98.535700 Z-0.125000
G01 X82.375959 Y99.470980 Z-0.125000
G01 X81.639779 Y99.667960 Z-0.125000
G01 X80.743599 Y99.611360 Z-0.125000
G01 X78.158417 Y98.649520 Z-0.125000
G01 X63.827115 Y91.469660 Z-0.125000
G01 X51.007472 Y84.385280 Z-0.125000
G01 X39.172029 Y79.103550 Z-0.125000
G01 X37.403579 Y77.877440 Z-0.125000
G01 X36.286350 Y76.570500 Z-0.125000
G01 X35.588514 Y74.871520 Z-0.125000
G01 X35.401248 Y72.937260 Z-0.125000
G01 X35.805804 Y70.060440 Z-0.125000
G01 X36.965439 Y66.571970 Z-0.125000
G01 X38.712285 Y62.967500 Z-0.125000
G01 X40.917772 Y59.500020 Z-0.125000
G01 X43.237142 Y56.708930 Z-0.125000
G01 X45.803075 Y54.316490 Z-0.125000
G01 X48.708002 Y52.233100 Z-0.125000
G01 X51.878039 Y50.527960 Z-0.125000
G01 X54.989278 Y49.313580 Z-0.125000
G01 X58.381116 Y48.423260 Z-0.125000
G01 X61.942326 Y47.910740 Z-0.125000
G01 X65.529751 Y47.780020 Z-0.125000
G01 X70.572545 Y48.147190 Z-0.125000
G01 X78.725178 Y49.439100 Z-0.125000
G01 X81.667347 Y50.096430 Z-0.125000
G01 X83.752033 Y50.969710 Z-0.125000
G01 X85.056378 Y51.880580 Z-0.125000
G01 X86.121277 Y52.990880 Z-0.125000
G01 X87.023521 Y54.380840 Z-0.125000
G01 X87.691483 Y55.907740 Z-0.125000
G01 X88.199698 Y57.673280 Z-0.125000
G01 X88.572475 Y59.856810 Z-0.125000
G01 X88.798538 Y65.134440 Z-0.125000
G01 X88.184560 Y74.440800 Z-0.125000
G01 X86.986780 Y86.496280 Z-0.125000
G01 X86.350698 Y91.268110 Z-0.125000
G01 X85.624692 Y94.694530 Z-0.125000
G01 X84.796130 Y97.318050 Z-0.125000
G01 X83.895590 Y99.056040 Z-0.125000
G01 X82.915001 Y99.939030 Z-0.125000
G01 X82.268342 Y100.127490 Z-0.125000
G01 X81.475470 Y100.096390 Z-0.125000
G01 X79.159307 Y99.271200 Z-0.125000
G01 X64.215731 Y91.955140 Z-0.125000
G01 X50.872537 Y84.704900 Z-0.125000
G01 X47.241102 Y83.063220 Z-0.125000
G01 X40.241640 Y80.332730 Z-0.125000
G01 X37.956104 Y79.270230 Z-0.125000
G01 X36.370409 Y78.195660 Z-0.125000
G01 X35.232128 Y76.890360 Z-0.125000
G01 X34.557399 Y75.276400 Z-0.125000
G01 X34.353642 Y73.444630 Z-0.125000
G01 X34.726720 Y70.520510 Z-0.125000
G01 X35.882896 Y66.939710 Z-0.125000
G01 X37.753901 Y63.021110 Z-0.125000
G01 X40.019738 Y59.413340 Z-0.125000
G01 X42.405172 Y56.502640 Z-0.125000
G01 X45.048648 Y54.004730 Z-0.125000
G01 X48.044853 Y51.829470 Z-0.125000
G01 X51.315940 Y50.051500 Z-0.125000
G01 X54.525375 Y48.789660 Z-0.125000
G01 X57.787890 Y47.918790 Z-0.125000
G01 X61.232159 Y47.392980 Z-0.125000
G01 X64.939332 Y47.228060 Z-0.125000
G01 X69.963230 Y47.568370 Z-0.125000
G01 X79.582611 Y49.016420 Z-0.125000
G01 X81.958521 Y49.539720 Z-0.125000
G01 X83.832333 Y50.315060 Z-0.125000
G01 X85.048810 Y51.140250 Z-0.125000
G01 X86.131052 Y52.235870 Z-0.125000
G01 X87.049486 Y53.624080 Z-0.125000
G01 X87.729979 Y55.161950 Z-0.125000
G01 X88.247467 Y56.951310 Z-0.125000
G01 X88.601598 Y58.979950 Z-0.125000
G01 X88.857334 Y64.118540 Z-0.125000
G01 X88.452025 Y71.668220 Z-0.125000
G01 X87.077155 Y87.714040 Z-0.125000
G01 X86.606385 Y91.794540 Z-0.125000
G01 X85.975615 Y95.138860 Z-0.125000
G01 X85.208607 Y97.804240 Z-0.125000
G01 X84.364256 Y99.543470 Z-0.125000
G01 X83.429481 Y100.400550 Z-0.125000
G01 X82.863322 Y100.561450 Z-0.125000
G01 X82.162929 Y100.536850 Z-0.125000
G01 X80.180247 Y99.857420 Z-0.125000
G01 X64.835173 Y92.550090 Z-0.125000
G01 X54.023426 Y86.677820 Z-0.125000
G01 X50.567679 Y84.944020 Z-0.125000
G01 X46.575497 Y83.225090 Z-0.125000
G01 X39.171878 Y80.556090 Z-0.125000
G01 X36.851055 Y79.535860 Z-0.125000
G01 X35.257290 Y78.472910 Z-0.125000
G01 X34.186576 Y77.240950 Z-0.125000
G01 X33.538163 Y75.712740 Z-0.125000
G01 X33.319369 Y73.852270 Z-0.125000
G01 X33.695805 Y70.854460 Z-0.125000
G01 X34.883460 Y67.159260 Z-0.125000
G01 X36.807496 Y63.098360 Z-0.125000
G01 X39.133332 Y59.347180 Z-0.125000
G01 X41.584380 Y56.313940 Z-0.125000
G01 X44.304748 Y53.707800 Z-0.125000
G01 X47.391577 Y51.437910 Z-0.125000
G01 X50.531488 Y49.694370 Z-0.125000
G01 X53.830797 Y48.354090 Z-0.125000
G01 X57.188599 Y47.426580 Z-0.125000
G01 X60.734221 Y46.864770 Z-0.125000
G01 X64.330216 Y46.685490 Z-0.125000
G01 X69.327498 Y46.996810 Z-0.125000
G01 X80.184006 Y48.526520 Z-0.125000
G01 X82.230197 Y48.971070 Z-0.125000
G01 X83.888723 Y49.650010 Z-0.125000
G01 X85.112016 Y50.468090 Z-0.125000
G01 X86.114561 Y51.466680 Z-0.125000
G01 X86.978911 Y52.722150 Z-0.125000
G01 X87.687724 Y54.243580 Z-0.125000
G01 X88.188570 Y55.857050 Z-0.125000
G01 X88.579493 Y57.875320 Z-0.125000
G01 X88.893474 Y62.818920 Z-0.125000
G01 X88.653627 Y68.973830 Z-0.125000
G01 X86.886481 Y92.297810 Z-0.125000
G01 X86.349495 Y95.554660 Z-0.125000
G01 X85.649052 Y98.259290 Z-0.125000
G01 X84.907157 Y99.931250 Z-0.125000
G01 X84.029674 Y100.801610 Z-0.125000
G01 X83.007330 Y100.961110 Z-0.125000
G01 X81.556370 Y100.544920 Z-0.125000
G01 X68.783646 Y94.716720 Z-0.125000
G01 X63.324615 Y92.068980 Z-0.125000
G01 X53.884981 Y86.956920 Z-0.125000
G01 X49.431853 Y84.820700 Z-0.125000
G01 X45.704079 Y83.332000 Z-0.125000
G01 X38.096753 Y80.816400 Z-0.125000
G01 X35.747459 Y79.837910 Z-0.125000
G01 X34.236852 Y78.856620 Z-0.125000
G01 X33.151552 Y77.622290 Z-0.125000
G01 X32.532461 Y76.180560 Z-0.125000
G01 X32.300033 Y74.427950 Z-0.125000
G01 X32.640229 Y71.384930 Z-0.125000
G01 X33.820816 Y67.597310 Z-0.125000
G01 X35.874475 Y63.198660 Z-0.125000
G01 X38.260009 Y59.301120 Z-0.125000
G01 X40.604393 Y56.333480 Z-0.125000
G01 X43.373581 Y53.596680 Z-0.125000
G01 X46.527077 Y51.203130 Z-0.125000
G01 X49.744179 Y49.357780 Z-0.125000
G01 X52.886297 Y48.021810 Z-0.125000
G01 X56.337432 Y47.003030 Z-0.125000
G01 X59.751827 Y46.400530 Z-0.125000
G01 X63.478748 Y46.154210 Z-0.125000
G01 X68.284303 Y46.390100 Z-0.125000
G01 X75.956790 Y47.494550 Z-0.125000
G01 X80.538188 Y47.977850 Z-0.125000
G01 X82.367689 Y48.355540 Z-0.125000
G01 X83.813988 Y48.918630 Z-0.125000
G01 X85.053521 Y49.704550 Z-0.125000
G01 X86.072456 Y50.683220 Z-0.125000
G01 X86.953297 Y51.929790 Z-0.125000
G01 X87.618202 Y53.304490 Z-0.125000
G01 X88.144460 Y54.909790 Z-0.125000
G01 X88.559744 Y56.933430 Z-0.125000
G01 X88.902796 Y61.467110 Z-0.125000
G01 X88.763149 Y66.925890 Z-0.125000
G01 X87.907170 Y79.185690 Z-0.125000
G01 X87.176302 Y92.940710 Z-0.125000
G01 X86.694253 Y96.235400 Z-0.125000
G01 X86.086140 Y98.790400 Z-0.125000
G01 X85.438078 Y100.350090 Z-0.125000
G01 X84.660192 Y101.167570 Z-0.125000
G01 X83.745366 Y101.332090 Z-0.125000
G01 X82.427187 Y100.970480 Z-0.125000
G01 X68.434577 Y94.804890 Z-0.125000
G01 X62.527131 Y91.955650 Z-0.125000
G01 X53.323986 Y87.027040 Z-0.125000
G01 X49.120929 Y85.086370 Z-0.125000
G01 X45.022835 Y83.536360 Z-0.125000
G01 X37.167341 Y81.163660 Z-0.125000
G01 X34.763762 Y80.234450 Z-0.125000
G01 X33.226337 Y79.273410 Z-0.125000
G01 X32.188055 Y78.127350 Z-0.125000
G01 X31.541797 Y76.680010 Z-0.125000
G01 X31.298591 Y75.038210 Z-0.125000
G01 X31.599239 Y71.951990 Z-0.125000
G01 X32.769952 Y68.072790 Z-0.125000
G01 X34.732334 Y63.746680 Z-0.125000
G01 X37.256163 Y59.486030 Z-0.125000
G01 X39.630921 Y56.386860 Z-0.125000
G01 X42.445923 Y53.515830 Z-0.125000
G01 X45.663177 Y50.994060 Z-0.125000
G01 X48.954966 Y49.042290 Z-0.125000
G01 X52.176931 Y47.624370 Z-0.125000
G01 X55.720948 Y46.539320 Z-0.125000
G01 X59.229427 Y45.894820 Z-0.125000
G01 X62.825924 Y45.632160 Z-0.125000
G01 X67.581204 Y45.831110 Z-0.125000
G01 X75.730226 Y46.992850 Z-0.125000
G01 X80.759739 Y47.393700 Z-0.125000
G01 X82.369494 Y47.695650 Z-0.125000
G01 X83.822959 Y48.232180 Z-0.125000
G01 X84.969713 Y48.930420 Z-0.125000
G01 X86.005489 Y49.885750 Z-0.125000
G01 X86.828437 Y50.995860 Z-0.125000
G01 X87.522062 Y52.345970 Z-0.125000
G01 X88.075739 Y53.938080 Z-0.125000
G01 X88.484757 Y55.766330 Z-0.125000
G01 X88.891670 Y60.302810 Z-0.125000
G01 X88.789764 Y65.838680 Z-0.125000
G01 X87.919248 Y79.980110 Z-0.125000
G01 X87.501961 Y93.565660 Z-0.125000
G01 X87.103269 Y96.743870 Z-0.125000
G01 X86.591044 Y99.180180 Z-0.125000
G01 X86.003333 Y100.732690 Z-0.125000
G01 X85.276123 Y101.522800 Z-0.125000
G01 X84.453277 Y101.662810 Z-0.125000
G01 X83.247276 Y101.331430 Z-0.125000
G01 X68.256984 Y94.984040 Z-0.125000
G01 X62.540913 Y92.265380 Z-0.125000
G01 X53.432955 Y87.444630 Z-0.125000
G01 X48.824440 Y85.368570 Z-0.125000
G01 X44.337729 Y83.763920 Z-0.125000
G01 X36.089960 Y81.499540 Z-0.125000
G01 X33.670892 Y80.610180 Z-0.125000
G01 X32.227652 Y79.723520 Z-0.125000
G01 X31.179594 Y78.571610 Z-0.125000
G01 X30.567672 Y77.210920 Z-0.125000
G01 X30.309630 Y75.543380 Z-0.125000
G01 X30.354190 Y74.049710 Z-0.125000
G01 X30.609374 Y72.381010 Z-0.125000
G01 X31.808807 Y68.382110 Z-0.125000
G01 X33.823871 Y63.907180 Z-0.125000
G01 X36.408952 Y59.487380 Z-0.125000
G01 X38.841854 Y56.265210 Z-0.125000
G01 X41.729338 Y53.276220 Z-0.125000
G01 X44.800979 Y50.811150 Z-0.125000
G01 X48.164797 Y48.748320 Z-0.125000
G01 X51.464657 Y47.244020 Z-0.125000
G01 X54.840154 Y46.155110 Z-0.125000
G01 X58.448431 Y45.433320 Z-0.125000
G01 X61.915456 Y45.127910 Z-0.125000
G01 X66.642716 Y45.259190 Z-0.125000
G01 X75.492633 Y46.503630 Z-0.125000
G01 X81.078128 Y46.803530 Z-0.125000
G01 X82.578461 Y47.084930 Z-0.125000
G01 X83.809272 Y47.533600 Z-0.125000
G01 X84.962090 Y48.218900 Z-0.125000
G01 X85.914610 Y49.074480 Z-0.125000
G01 X86.754499 Y50.169750 Z-0.125000
G01 X87.400005 Y51.369480 Z-0.125000
G01 X87.983156 Y52.943300 Z-0.125000
G01 X88.382049 Y54.572700 Z-0.125000
G01 X88.850213 Y58.860170 Z-0.125000
G01 X88.811973 Y64.427170 Z-0.125000
G01 X87.983361 Y79.753900 Z-0.125000
G01 X87.877648 Y94.004650 Z-0.125000
G01 X87.568979 Y97.075940 Z-0.125000
G01 X87.128735 Y99.535560 Z-0.125000
G01 X86.603828 Y101.078200 Z-0.125000
G01 X85.971255 Y101.816590 Z-0.125000
G01 X85.248908 Y101.963200 Z-0.125000
G01 X84.171477 Y101.687120 Z-0.125000
G01 X68.488161 Y95.353810 Z-0.125000
G01 X62.786376 Y92.698700 Z-0.125000
G01 X53.338674 Y87.767480 Z-0.125000
G01 X48.542140 Y85.668310 Z-0.125000
G01 X43.648817 Y84.016310 Z-0.125000
G01 X35.167668 Y81.918440 Z-0.125000
G01 X32.704741 Y81.078140 Z-0.125000
G01 X31.242503 Y80.207080 Z-0.125000
G01 X30.248580 Y79.140480 Z-0.125000
G01 X29.611645 Y77.773170 Z-0.125000
G01 X29.346286 Y76.220960 Z-0.125000
G01 X29.364626 Y74.712560 Z-0.125000
G01 X29.600764 Y73.017140 Z-0.125000
G01 X30.785561 Y68.926060 Z-0.125000
G01 X32.816965 Y64.316790 Z-0.125000
G01 X35.428662 Y59.735750 Z-0.125000
G01 X37.887879 Y56.377440 Z-0.125000
G01 X40.816165 Y53.247610 Z-0.125000
G01 X44.177778 Y50.484590 Z-0.125000
G01 X47.629113 Y48.338400 Z-0.125000
G01 X50.750178 Y46.881170 Z-0.125000
G01 X54.208782 Y45.721780 Z-0.125000
G01 X57.909689 Y44.949060 Z-0.125000
G01 X61.465787 Y44.618090 Z-0.125000
G01 X66.726925 Y44.789120 Z-0.125000
G01 X75.743155 Y46.071460 Z-0.125000
G01 X81.263839 Y46.180510 Z-0.125000
G01 X82.537508 Y46.398800 Z-0.125000
G01 X83.773633 Y46.822400 Z-0.125000
G01 X84.932917 Y47.493270 Z-0.125000
G01 X85.891902 Y48.345890 Z-0.125000
G01 X86.737807 Y49.449040 Z-0.125000
G01 X87.387422 Y50.665410 Z-0.125000
G01 X88.332624 Y53.738610 Z-0.125000
G01 X88.807255 Y57.850290 Z-0.125000
G01 X88.806255 Y63.226060 Z-0.125000
G01 X88.046365 Y79.225860 Z-0.125000
G01 X88.279596 Y94.593390 Z-0.125000
G01 X88.048871 Y97.526040 Z-0.125000
G01 X87.677949 Y99.962450 Z-0.125000
G01 X87.240260 Y101.385890 Z-0.125000
G01 X86.657911 Y102.097010 Z-0.125000
G01 X86.019373 Y102.223430 Z-0.125000
G01 X85.118231 Y102.004170 Z-0.125000
G01 X80.652420 Y100.179740 Z-0.125000
G01 X68.509462 Y95.643050 Z-0.125000
G01 X63.054340 Y93.149250 Z-0.125000
G01 X53.508794 Y88.226110 Z-0.125000
G01 X48.273671 Y85.986630 Z-0.125000
G01 X42.956242 Y84.295220 Z-0.125000
G01 X34.253041 Y82.372740 Z-0.125000
G01 X31.750966 Y81.581220 Z-0.125000
G01 X30.364467 Y80.794560 Z-0.125000
G01 X29.337061 Y79.740740 Z-0.125000
G01 X28.675014 Y78.366420 Z-0.125000
G01 X28.394716 Y76.789150 Z-0.125000
G01 X28.407446 Y75.246610 Z-0.125000
G01 X28.645037 Y73.506130 Z-0.125000
G01 X29.856451 Y69.290800 Z-0.125000
G01 X31.940285 Y64.528050 Z-0.125000
G01 X34.612082 Y59.782890 Z-0.125000
G01 X37.127089 Y56.296770 Z-0.125000
G01 X40.124696 Y53.043180 Z-0.125000
G01 X43.326761 Y50.346170 Z-0.125000
G01 X46.845065 Y48.080680 Z-0.125000
G01 X50.033948 Y46.536090 Z-0.125000
G01 X53.573904 Y45.301920 Z-0.125000
G01 X57.098923 Y44.517120 Z-0.125000
G01 X60.758477 Y44.126990 Z-0.125000
G01 X63.460750 Y44.095290 Z-0.125000
G01 X66.393446 Y44.286010 Z-0.125000
G01 X75.483660 Y45.601240 Z-0.125000
G01 X81.314265 Y45.528140 Z-0.125000
G01 X82.590340 Y45.727730 Z-0.125000
G01 X83.716843 Y46.098160 Z-0.125000
G01 X84.781290 Y46.681860 Z-0.125000
G01 X85.757921 Y47.505310 Z-0.125000
G01 X86.542622 Y48.468160 Z-0.125000
G01 X87.222664 Y49.651000 Z-0.125000
G01 X88.226762 Y52.686250 Z-0.125000
G01 X88.735127 Y56.568050 Z-0.125000
G01 X88.787057 Y61.973950 Z-0.125000
G01 X88.212728 Y73.550300 Z-0.125000
G01 X88.099045 Y78.918210 Z-0.125000
G01 X88.215841 Y83.809120 Z-0.125000
G01 X88.709118 Y91.950630 Z-0.125000
G01 X88.725308 Y95.163770 Z-0.125000
G01 X88.269775 Y100.350670 Z-0.125000
G01 X87.887073 Y101.714670 Z-0.125000
G01 X87.381466 Y102.338730 Z-0.125000
G01 X86.821923 Y102.447660 Z-0.125000
G01 X86.020881 Y102.259090 Z-0.125000
G01 X81.761835 Y100.595600 Z-0.125000
G01 X73.213970 Y97.724000 Z-0.125000
G01 X68.755128 Y96.038570 Z-0.125000
G01 X63.344066 Y93.618090 Z-0.125000
G01 X53.456820 Y88.587080 Z-0.125000
G01 X48.018841 Y86.324550 Z-0.125000
G01 X42.500162 Y84.660710 Z-0.125000
G01 X33.347893 Y82.863040 Z-0.125000
G01 X30.811634 Y82.119490 Z-0.125000
G01 X29.412403 Y81.344160 Z-0.125000
G01 X28.446700 Y80.372290 Z-0.125000
G01 X27.798839 Y79.109440 Z-0.125000
G01 X27.475634 Y77.532480 Z-0.125000
G01 X27.459094 Y75.976210 Z-0.125000
G01 X27.674330 Y74.209410 Z-0.125000
G01 X28.786897 Y70.121990 Z-0.125000
G01 X30.845369 Y65.244300 Z-0.125000
G01 X33.659971 Y60.093340 Z-0.125000
G01 X36.197383 Y56.467170 Z-0.125000
G01 X39.230329 Y53.066610 Z-0.125000
G01 X42.480765 Y50.234760 Z-0.125000
G01 X46.062676 Y47.845320 Z-0.125000
G01 X49.316921 Y46.209150 Z-0.125000
G01 X52.656630 Y44.979750 Z-0.125000
G01 X56.270219 Y44.103970 Z-0.125000
G01 X60.033031 Y43.647320 Z-0.125000
G01 X62.816304 Y43.586420 Z-0.125000
G01 X65.837420 Y43.765470 Z-0.125000
G01 X74.973048 Y45.126760 Z-0.125000
G01 X76.836032 Y45.151060 Z-0.125000
G01 X80.995380 Y44.843740 Z-0.125000
G01 X82.392957 Y44.991760 Z-0.125000
G01 X83.640109 Y45.360480 Z-0.125000
G01 X84.711976 Y45.927940 Z-0.125000
G01 X85.603543 Y46.651640 Z-0.125000
G01 X86.407343 Y47.593490 Z-0.125000
G01 X87.107184 Y48.763940 Z-0.125000
G01 X88.102611 Y51.610480 Z-0.125000
G01 X88.643908 Y55.252930 Z-0.125000
G01 X88.755480 Y60.673560 Z-0.125000
G01 X88.212229 Y72.774780 Z-0.125000
G01 X88.145809 Y78.293710 Z-0.125000
G01 X88.363751 Y83.581560 Z-0.125000
G01 X89.139782 Y92.450770 Z-0.125000
G01 X89.217332 Y95.713690 Z-0.125000
G01 X88.905055 Y100.698840 Z-0.125000
G01 X88.600297 Y101.943790 Z-0.125000
G01 X88.175991 Y102.521180 Z-0.125000
G01 X87.701961 Y102.637770 Z-0.125000
G01 X87.012396 Y102.497770 Z-0.125000
G01 X82.905629 Y100.979900 Z-0.125000
G01 X74.077517 Y98.266450 Z-0.125000
G01 X69.248103 Y96.543210 Z-0.125000
G01 X63.654638 Y94.106100 Z-0.125000
G01 X53.153513 Y88.845000 Z-0.125000
G01 X47.509622 Y86.591150 Z-0.125000
G01 X41.808340 Y84.993070 Z-0.125000
G01 X32.453717 Y83.389780 Z-0.125000
G01 X29.888336 Y82.692750 Z-0.125000
G01 X28.574116 Y81.995420 Z-0.125000
G01 X27.578789 Y81.034580 Z-0.125000
G01 X26.907219 Y79.764620 Z-0.125000
G01 X26.567223 Y78.161630 Z-0.125000
G01 X26.543163 Y76.569870 Z-0.125000
G01 X26.757847 Y74.756010 Z-0.125000
G01 X27.892168 Y70.546290 Z-0.125000
G01 X30.001567 Y65.511560 Z-0.125000
G01 X32.878223 Y60.184100 Z-0.125000
G01 X35.468968 Y56.425800 Z-0.125000
G01 X38.567678 Y52.896180 Z-0.125000
G01 X41.890493 Y49.954510 Z-0.125000
G01 X45.553406 Y47.472630 Z-0.125000
G01 X48.881284 Y45.775360 Z-0.125000
G01 X52.295529 Y44.503700 Z-0.125000
G01 X55.705562 Y43.655880 Z-0.125000
G01 X59.289227 Y43.180000 Z-0.125000
G01 X62.154506 Y43.084800 Z-0.125000
G01 X65.266697 Y43.248350 Z-0.125000
G01 X74.822069 Y44.688980 Z-0.125000
G01 X76.649416 Y44.666380 Z-0.125000
G01 X80.890166 Y44.165230 Z-0.125000
G01 X82.291150 Y44.269920 Z-0.125000
G01 X83.544519 Y44.609010 Z-0.125000
G01 X84.624956 Y45.159080 Z-0.125000
G01 X85.526099 Y45.875970 Z-0.125000
G01 X86.339923 Y46.820070 Z-0.125000
G01 X86.975855 Y47.859200 Z-0.125000
G01 X87.961106 Y50.513100 Z-0.125000
G01 X88.556136 Y54.143630 Z-0.125000
G01 X88.712776 Y59.327880 Z-0.125000
G01 X88.204110 Y71.948580 Z-0.125000
G01 X88.191930 Y77.904300 Z-0.125000
G01 X88.540247 Y83.567740 Z-0.125000
G01 X89.603191 Y92.742960 Z-0.125000
G01 X89.759580 Y96.416750 Z-0.125000
G01 X89.584445 Y101.005870 Z-0.125000
G01 X89.350313 Y102.133920 Z-0.125000
G01 X88.969715 Y102.686950 Z-0.125000
G01 X88.563906 Y102.789160 Z-0.125000
G01 X87.964464 Y102.677520 Z-0.125000
G01 X84.212330 Y101.370930 Z-0.125000
G01 X74.982068 Y98.810100 Z-0.125000
G01 X69.764938 Y97.064010 Z-0.125000
G01 X63.985060 Y94.614160 Z-0.125000
G01 X53.122335 Y89.243600 Z-0.125000
G01 X46.994040 Y86.881370 Z-0.125000
G01 X41.113561 Y85.355830 Z-0.125000
G01 X31.572275 Y83.953040 Z-0.125000
G01 X28.982933 Y83.300570 Z-0.125000
G01 X27.661295 Y82.609500 Z-0.125000
G01 X26.734740 Y81.727110 Z-0.125000
G01 X26.039260 Y80.449130 Z-0.125000
G01 X25.698412 Y78.968340 Z-0.125000
G01 X25.649342 Y77.190120 Z-0.125000
G01 X25.862723 Y75.327640 Z-0.125000
G01 X27.017896 Y70.992350 Z-0.125000
G01 X29.178271 Y65.797670 Z-0.125000
G01 X32.116681 Y60.291280 Z-0.125000
G01 X34.954591 Y56.145620 Z-0.125000
G01 X37.922925 Y52.737990 Z-0.125000
G01 X41.316218 Y49.684400 Z-0.125000
G01 X44.781187 Y47.274240 Z-0.125000
G01 X47.882202 Y45.611250 Z-0.125000
G01 X51.360856 Y44.221450 Z-0.125000
G01 X54.848733 Y43.277450 Z-0.125000
G01 X58.526883 Y42.726080 Z-0.125000
G01 X61.733209 Y42.591750 Z-0.125000
G01 X64.912920 Y42.755960 Z-0.125000
G01 X74.661923 Y44.258790 Z-0.125000
G01 X76.557589 Y44.173890 Z-0.125000
G01 X80.766660 Y43.475450 Z-0.125000
G01 X82.170954 Y43.535350 Z-0.125000
G01 X83.431439 Y43.843460 Z-0.125000
G01 X84.416190 Y44.310230 Z-0.125000
G01 X85.336930 Y44.994180 Z-0.125000
G01 X86.753153 Y46.798410 Z-0.125000
G01 X87.803466 Y49.395980 Z-0.125000
G01 X88.432280 Y52.771020 Z-0.125000
G01 X88.658042 Y58.221680 Z-0.125000
G01 X88.197346 Y70.758920 Z-0.125000
G01 X88.196845 Y76.293640 Z-0.125000
G01 X88.646563 Y82.752710 Z-0.125000
G01 X89.946447 Y91.671050 Z-0.125000
G01 X90.264438 Y94.909800 Z-0.125000
G01 X90.337768 Y100.879610 Z-0.125000
G01 X90.153409 Y102.230270 Z-0.125000
G01 X89.799078 Y102.814220 Z-0.125000
G01 X89.046456 Y102.847020 Z-0.125000
G01 X84.888011 Y101.537070 Z-0.125000
G01 X76.157641 Y99.415630 Z-0.125000
G01 X70.304832 Y97.601580 Z-0.125000
G01 X64.334429 Y95.143010 Z-0.125000
G01 X53.105443 Y89.663280 Z-0.125000
G01 X49.931097 Y88.368760 Z-0.125000
G01 X46.757952 Y87.283710 Z-0.125000
G01 X43.651775 Y86.429140 Z-0.125000
G01 X40.416476 Y85.750140 Z-0.125000
G01 X30.705418 Y84.552810 Z-0.125000
G01 X28.222641 Y83.987800 Z-0.125000
G01 X26.868472 Y83.322750 Z-0.125000
G01 X25.915903 Y82.449020 Z-0.125000
G01 X25.196362 Y81.162130 Z-0.125000
G01 X24.838422 Y79.655730 Z-0.125000
G01 X24.771862 Y78.013990 Z-0.125000
G01 X24.957574 Y76.124940 Z-0.125000
G01 X25.396767 Y74.010290 Z-0.125000
G01 X26.083325 Y71.699540 Z-0.125000
G01 X28.251769 Y66.367170 Z-0.125000
G01 X31.214840 Y60.686240 Z-0.125000
G01 X34.071197 Y56.385540 Z-0.125000
G01 X37.065445 Y52.833250 Z-0.125000
G01 X40.498085 Y49.635040 Z-0.125000
G01 X44.012979 Y47.098890 Z-0.125000
G01 X47.165872 Y45.341020 Z-0.125000
G01 X50.709940 Y43.864590 Z-0.125000
G01 X54.269896 Y42.854880 Z-0.125000
G01 X58.028948 Y42.257540 Z-0.125000
G01 X61.307203 Y42.103310 Z-0.125000
G01 X64.555334 Y42.266710 Z-0.125000
G01 X74.378020 Y43.832010 Z-0.125000
G01 X76.238148 Y43.714470 Z-0.125000
G01 X80.625863 Y42.774080 Z-0.125000
G01 X82.033816 Y42.787780 Z-0.125000
G01 X83.415604 Y43.103220 Z-0.125000
G01 X84.405215 Y43.576140 Z-0.125000
G01 X85.231821 Y44.187460 Z-0.125000
G01 X86.672706 Y45.999280 Z-0.125000
G01 X87.687080 Y48.447120 Z-0.125000
G01 X88.321057 Y51.607870 Z-0.125000
G01 X88.599049 Y57.080190 Z-0.125000
G01 X88.177851 Y69.826750 Z-0.125000
G01 X88.241461 Y76.108380 Z-0.125000
G01 X88.842756 Y82.670660 Z-0.125000
G01 X90.428552 Y91.697950 Z-0.125000
G01 X90.820878 Y94.807100 Z-0.125000
G01 X91.096313 Y100.912580 Z-0.125000
G01 X90.985130 Y102.288550 Z-0.125000
G01 X90.689044 Y102.885440 Z-0.125000
G01 X90.038074 Y102.946540 Z-0.125000
G01 X85.993714 Y101.797980 Z-0.125000
G01 X76.911268 Y99.896690 Z-0.125000
G01 X70.866180 Y98.156570 Z-0.125000
G01 X64.701243 Y95.693190 Z-0.125000
G01 X52.804496 Y89.977420 Z-0.125000
G01 X49.516767 Y88.686210 Z-0.125000
G01 X46.237359 Y87.622060 Z-0.125000
G01 X43.037097 Y86.803580 Z-0.125000
G01 X39.717138 Y86.176860 Z-0.125000
G01 X30.022520 Y85.209360 Z-0.125000
G01 X27.358343 Y84.661550 Z-0.125000
G01 X26.101265 Y84.065060 Z-0.125000
G01 X25.123181 Y83.199510 Z-0.125000
G01 X24.428203 Y82.025490 Z-0.125000
G01 X24.025301 Y80.522350 Z-0.125000
G01 X23.922394 Y78.868840 Z-0.125000
G01 X24.078030 Y76.953970 Z-0.125000
G01 X24.495269 Y74.800410 Z-0.125000
G01 X25.169396 Y72.439090 Z-0.125000
G01 X27.342903 Y66.969030 Z-0.125000
G01 X30.492839 Y60.832360 Z-0.125000
G01 X33.402829 Y56.384950 Z-0.125000
G01 X36.453518 Y52.706250 Z-0.125000
G01 X39.951570 Y49.391350 Z-0.125000
G01 X43.533982 Y46.762160 Z-0.125000
G01 X46.747727 Y44.941080 Z-0.125000
G01 X50.057061 Y43.522900 Z-0.125000
G01 X53.686789 Y42.443320 Z-0.125000
G01 X57.236521 Y41.828030 Z-0.125000
G01 X60.605953 Y41.620570 Z-0.125000
G01 X64.193177 Y41.780010 Z-0.125000
G01 X67.317349 Y42.211280 Z-0.125000
G01 X72.496384 Y43.244260 Z-0.125000
G01 X74.204333 Y43.417290 Z-0.125000
G01 X76.014787 Y43.246560 Z-0.125000
G01 X80.468416 Y42.060710 Z-0.125000
G01 X81.880580 Y42.026910 Z-0.125000
G01 X83.273595 Y42.306610 Z-0.125000
G01 X84.276038 Y42.761940 Z-0.125000
G01 X85.116430 Y43.365190 Z-0.125000
G01 X86.504132 Y45.045680 Z-0.125000
G01 X87.563868 Y47.479230 Z-0.125000
G01 X88.233334 Y50.654780 Z-0.125000
G01 X88.537190 Y55.905290 Z-0.125000
G01 X88.151029 Y69.174500 Z-0.125000
G01 X88.299248 Y75.898630 Z-0.125000
G01 X89.062296 Y82.560250 Z-0.125000
G01 X90.905381 Y91.494430 Z-0.125000
G01 X91.376904 Y94.469280 Z-0.125000
G01 X91.885469 Y101.013710 Z-0.125000
G01 X91.836799 Y102.365670 Z-0.125000
G01 X91.583719 Y102.938700 Z-0.125000
G01 X91.006232 Y102.999900 Z-0.125000
G01 X87.260965 Y102.056850 Z-0.125000
G01 X77.933510 Y100.437130 Z-0.125000
G01 X71.447876 Y98.729470 Z-0.125000
G01 X65.084496 Y96.265340 Z-0.125000
G01 X52.802942 Y90.439000 Z-0.125000
G01 X49.093714 Y89.026930 Z-0.125000
G01 X45.708893 Y87.987200 Z-0.125000
G01 X42.416904 Y87.208210 Z-0.125000
G01 X39.016294 Y86.636890 Z-0.125000
G01 X29.190199 Y85.877600 Z-0.125000
G01 X26.645068 Y85.409290 Z-0.125000
G01 X25.360922 Y84.835560 Z-0.125000
G01 X24.357928 Y83.977470 Z-0.125000
G01 X23.640193 Y82.793980 Z-0.125000
G01 X23.218193 Y81.263970 Z-0.125000
G01 X23.102859 Y79.571510 Z-0.125000
G01 X23.252731 Y77.605270 Z-0.125000
G01 X23.672325 Y75.389800 Z-0.125000
G01 X24.357631 Y72.958110 Z-0.125000
G01 X26.452592 Y67.602180 Z-0.125000
G01 X29.627591 Y61.282560 Z-0.125000
G01 X32.552267 Y56.678160 Z-0.125000
G01 X35.623407 Y52.850990 Z-0.125000
G01 X39.153840 Y49.385720 Z-0.125000
G01 X42.778958 Y46.623790 Z-0.125000
G01 X46.038717 Y44.701510 Z-0.125000
G01 X49.402486 Y43.196820 Z-0.125000
G01 X53.099533 Y42.043150 Z-0.125000
G01 X56.721394 Y41.376990 Z-0.125000
G01 X60.162906 Y41.142010 Z-0.125000
G01 X63.826269 Y41.295440 Z-0.125000
G01 X67.009187 Y41.741700 Z-0.125000
G01 X72.358445 Y42.850310 Z-0.125000
G01 X74.023537 Y43.008450 Z-0.125000
G01 X75.880858 Y42.756570 Z-0.125000
G01 X80.178599 Y41.354140 Z-0.125000
G01 X81.713017 Y41.252630 Z-0.125000
G01 X83.119365 Y41.495690 Z-0.125000
G01 X84.026321 Y41.872580 Z-0.125000
G01 X84.889419 Y42.442290 Z-0.125000
G01 X86.326845 Y44.077650 Z-0.125000
G01 X87.436105 Y46.493520 Z-0.125000
G01 X88.110382 Y49.445360 Z-0.125000
G01 X88.474438 Y54.699380 Z-0.125000
G01 X88.125169 Y68.823110 Z-0.125000
G01 X88.372634 Y75.664890 Z-0.125000
G01 X89.307310 Y82.421950 Z-0.125000
G01 X91.403123 Y91.254120 Z-0.125000
G01 X91.974445 Y94.287910 Z-0.125000
G01 X92.711077 Y101.078470 Z-0.125000
G01 X92.723007 Y102.404910 Z-0.125000
G01 X92.510228 Y102.955480 Z-0.125000
G01 X92.042314 Y103.025880 Z-0.125000
G01 X88.549475 Y102.275810 Z-0.125000
G01 X78.743179 Y100.929860 Z-0.125000
G01 X75.355300 Y100.223250 Z-0.125000
G01 X72.048574 Y99.320960 Z-0.125000
G01 X68.931169 Y98.261820 Z-0.125000
G01 X65.482840 Y96.859940 Z-0.125000
G01 X52.812720 Y90.923370 Z-0.125000
G01 X48.980736 Y89.497470 Z-0.125000
G01 X45.172212 Y88.380190 Z-0.125000
G01 X41.791351 Y87.643860 Z-0.125000
G01 X38.314653 Y87.130830 Z-0.125000
G01 X34.883015 Y86.845430 Z-0.125000
G01 X28.548857 Y86.594300 Z-0.125000
G01 X25.958413 Y86.184680 Z-0.125000
G01 X24.648604 Y85.633300 Z-0.125000
G01 X23.621149 Y84.781890 Z-0.125000
G01 X22.880405 Y83.587770 Z-0.125000
G01 X22.465824 Y82.186280 Z-0.125000
G01 X22.310337 Y80.482950 Z-0.125000
G01 X22.425623 Y78.491240 Z-0.125000
G01 X22.818651 Y76.236580 Z-0.125000
G01 X23.487415 Y73.753560 Z-0.125000
G01 X25.581374 Y68.265650 Z-0.125000
G01 X28.781284 Y61.763730 Z-0.125000
G01 X31.718793 Y57.002140 Z-0.125000
G01 X34.807326 Y53.025290 Z-0.125000
G01 X38.366079 Y49.407090 Z-0.125000
G01 X42.029492 Y46.508930 Z-0.125000
G01 X45.331558 Y44.481890 Z-0.125000
G01 X48.746504 Y42.886710 Z-0.125000
G01 X52.195633 Y41.737210 Z-0.125000
G01 X55.897994 Y40.975310 Z-0.125000
G01 X59.430131 Y40.674510 Z-0.125000
G01 X63.202265 Y40.789450 Z-0.125000
G01 X66.697711 Y41.272860 Z-0.125000
G01 X72.216742 Y42.461860 Z-0.125000
G01 X73.836320 Y42.604870 Z-0.125000
G01 X75.634343 Y42.293040 Z-0.125000
G01 X78.615660 Y41.031850 Z-0.125000
G01 X79.991784 Y40.620330 Z-0.125000
G01 X81.532768 Y40.464640 Z-0.125000
G01 X82.955056 Y40.670300 Z-0.125000
G01 X83.877501 Y41.030350 Z-0.125000
G01 X84.758693 Y41.590690 Z-0.125000
G01 X86.142635 Y43.096090 Z-0.125000
G01 X87.240517 Y45.305990 Z-0.125000
G01 X87.982062 Y48.216480 Z-0.125000
G01 X88.283612 Y50.694400 Z-0.125000
G01 X88.412632 Y53.464530 Z-0.125000
G01 X88.107524 Y68.112270 Z-0.125000
G01 X88.463810 Y75.407380 Z-0.125000
G01 X88.913629 Y78.812590 Z-0.125000
G01 X89.579937 Y82.256000 Z-0.125000
G01 X91.922314 Y90.977700 Z-0.125000
G01 X92.558747 Y93.863840 Z-0.125000
G01 X93.572519 Y101.107000 Z-0.125000
G01 X93.642489 Y102.406790 Z-0.125000
G01 X93.466902 Y102.936710 Z-0.125000
G01 X93.057784 Y103.010610 Z-0.125000
G01 X89.730406 Y102.438750 Z-0.125000
G01 X79.831982 Y101.469430 Z-0.125000
G01 X76.080448 Y100.793250 Z-0.125000
G01 X72.666856 Y99.931200 Z-0.125000
G01 X69.449853 Y98.886710 Z-0.125000
G01 X66.192500 Y97.604770 Z-0.125000
G01 X56.397683 Y92.974800 Z-0.125000
G01 X52.504848 Y91.299830 Z-0.125000
G01 X48.547704 Y89.885660 Z-0.125000
G01 X44.627000 Y88.801720 Z-0.125000
G01 X41.160576 Y88.111260 Z-0.125000
G01 X37.612801 Y87.659130 Z-0.125000
G01 X34.130437 Y87.444640 Z-0.125000
G01 X27.756531 Y87.328630 Z-0.125000
G01 X25.166186 Y86.950040 Z-0.125000
G01 X23.857982 Y86.394060 Z-0.125000
G01 X22.913883 Y85.611400 Z-0.125000
G01 X22.149782 Y84.405360 Z-0.125000
G01 X21.715903 Y82.977460 Z-0.125000
G01 X21.545078 Y81.233370 Z-0.125000
G01 X21.651346 Y79.188030 Z-0.125000
G01 X22.043671 Y76.868900 Z-0.125000
G01 X22.640858 Y74.577950 Z-0.125000
G01 X24.729753 Y68.958070 Z-0.125000
G01 X27.954325 Y62.274540 Z-0.125000
G01 X30.903212 Y57.356110 Z-0.125000
G01 X34.006131 Y53.228600 Z-0.125000
G01 X37.588995 Y49.455260 Z-0.125000
G01 X41.583031 Y46.206020 Z-0.125000
G01 X44.626753 Y44.282290 Z-0.125000
G01 X48.089217 Y42.592780 Z-0.125000
G01 X51.594186 Y41.366540 Z-0.125000
G01 X55.364566 Y40.543640 Z-0.125000
G01 X59.257150 Y40.197780 Z-0.125000
G01 X63.075900 Y40.331210 Z-0.125000
G01 X66.596909 Y40.845380 Z-0.125000
G01 X71.946468 Y42.056100 Z-0.125000
G01 X73.540332 Y42.208780 Z-0.125000
G01 X75.285023 Y41.869080 Z-0.125000
G01 X78.305488 Y40.395570 Z-0.125000
G01 X79.792336 Y39.873770 Z-0.125000
G01 X81.461990 Y39.662650 Z-0.125000
G01 X82.901771 Y39.862990 Z-0.125000
G01 X84.625109 Y40.724890 Z-0.125000
G01 X86.046545 Y42.233950 Z-0.125000
G01 X87.175203 Y44.473260 Z-0.125000
G01 X87.892888 Y47.202000 Z-0.125000
G01 X88.217095 Y49.696970 Z-0.125000
G01 X88.360552 Y52.495720 Z-0.125000
G01 X88.095944 Y67.370580 Z-0.125000
G01 X88.218548 Y71.144420 Z-0.125000
G01 X88.536039 Y74.802510 Z-0.125000
G01 X89.054428 Y78.274250 Z-0.125000
G01 X89.812213 Y81.785180 Z-0.125000
G01 X92.523759 Y90.876710 Z-0.125000
G01 X93.198036 Y93.607100 Z-0.125000
G01 X94.495866 Y101.295270 Z-0.125000
G01 X94.593166 Y102.421720 Z-0.125000
G01 X94.451816 Y102.883880 Z-0.125000
G01 X94.057534 Y102.960480 Z-0.125000
G01 X91.055315 Y102.579830 Z-0.125000
G01 X81.215286 Y102.031970 Z-0.125000
G01 X77.395534 Y101.485360 Z-0.125000
G01 X73.897431 Y100.718550 Z-0.125000
G01 X70.286397 Y99.637810 Z-0.125000
G01 X66.625890 Y98.246700 Z-0.125000
G01 X56.538546 Y93.531270 Z-0.125000
G01 X52.862450 Y91.961670 Z-0.125000
G01 X49.464197 Y90.728700 Z-0.125000
G01 X46.074263 Y89.730270 Z-0.125000
G01 X42.114412 Y88.866110 Z-0.125000
G01 X38.081078 Y88.319500 Z-0.125000
G01 X33.899225 Y88.087620 Z-0.125000
G01 X26.814250 Y88.088130 Z-0.125000
G01 X24.270221 Y87.704570 Z-0.125000
G01 X23.095348 Y87.178670 Z-0.125000
G01 X22.153354 Y86.369550 Z-0.125000
G01 X21.449202 Y85.245060 Z-0.125000
G01 X20.995073 Y83.789240 Z-0.125000
G01 X20.807607 Y82.002790 Z-0.125000
G01 X20.903437 Y79.902120 Z-0.125000
G01 X21.293758 Y77.516780 Z-0.125000
G01 X21.897461 Y75.159070 Z-0.125000
G01 X24.027459 Y69.374980 Z-0.125000
G01 X27.314937 Y62.495410 Z-0.125000
G01 X30.311793 Y57.425800 Z-0.125000
G01 X33.706287 Y52.872920 Z-0.125000
G01 X37.374863 Y49.007510 Z-0.125000
G01 X41.150607 Y45.908840 Z-0.125000
G01 X44.239140 Y43.920800 Z-0.125000
G01 X47.753333 Y42.176460 Z-0.125000
G01 X51.311334 Y40.913170 Z-0.125000
G01 X54.824425 Y40.120100 Z-0.125000
G01 X58.793098 Y39.731830 Z-0.125000
G01 X62.690994 Y39.850570 Z-0.125000
G01 X66.281176 Y40.377430 Z-0.125000
G01 X71.801710 Y41.676020 Z-0.125000
G01 X73.346002 Y41.815460 Z-0.125000
G01 X75.025029 Y41.416870 Z-0.125000
G01 X77.984892 Y39.759100 Z-0.125000
G01 X79.464222 Y39.149020 Z-0.125000
G01 X81.141495 Y38.847630 Z-0.125000
G01 X82.726287 Y39.006820 Z-0.125000
G01 X84.378397 Y39.765110 Z-0.125000
G01 X85.858831 Y41.225900 Z-0.125000
G01 X86.973353 Y43.257750 Z-0.125000
G01 X87.762717 Y45.938820 Z-0.125000
G01 X88.131835 Y48.415140 Z-0.125000
G01 X88.308424 Y51.211040 Z-0.125000
G01 X88.091936 Y66.598920 Z-0.125000
G01 X88.272235 Y70.783680 Z-0.125000
G01 X88.661954 Y74.494660 Z-0.125000
G01 X89.269766 Y78.011810 Z-0.125000
G01 X90.058278 Y81.279690 Z-0.125000
G01 X93.810161 Y93.100640 Z-0.125000
G01 X95.449187 Y101.341250 Z-0.125000
G01 X95.577606 Y102.395430 Z-0.125000
G01 X95.462662 Y102.798020 Z-0.125000
G01 X82.639109 Y102.568250 Z-0.125000
G01 X78.466277 Y102.120140 Z-0.125000
G01 X74.565122 Y101.361150 Z-0.125000
G01 X71.466264 Y100.505560 Z-0.125000
G01 X68.330111 Y99.411740 Z-0.125000
G01 X64.857372 Y97.960490 Z-0.125000
G01 X53.942820 Y92.931220 Z-0.125000
G01 X49.749387 Y91.385130 Z-0.125000
G01 X45.907679 Y90.273510 Z-0.125000
G01 X41.836452 Y89.427210 Z-0.125000
G01 X37.701014 Y88.918300 Z-0.125000
G01 X33.430088 Y88.747210 Z-0.125000
G01 X26.239350 Y88.894930 Z-0.125000
G01 X23.532866 Y88.524320 Z-0.125000
G01 X22.361753 Y87.985670 Z-0.125000
G01 X21.505473 Y87.244380 Z-0.125000
G01 X20.779317 Y86.105840 Z-0.125000
G01 X20.339673 Y84.784860 Z-0.125000
G01 X20.106242 Y82.988500 Z-0.125000
G01 X20.160422 Y80.862300 Z-0.125000
G01 X20.516759 Y78.436870 Z-0.125000
G01 X21.098858 Y76.031990 Z-0.125000
G01 X22.025363 Y73.156590 Z-0.125000
G01 X23.216876 Y70.114160 Z-0.125000
G01 X26.528565 Y63.053050 Z-0.125000
G01 X29.534142 Y57.826640 Z-0.125000
G01 X32.938812 Y53.110370 Z-0.125000
G01 X36.624632 Y49.086100 Z-0.125000
G01 X40.426591 Y45.843440 Z-0.125000
G01 X43.543444 Y43.752580 Z-0.125000
G01 X47.097937 Y41.907840 Z-0.125000
G01 X50.377946 Y40.663290 Z-0.125000
G01 X53.956299 Y39.763960 Z-0.125000
G01 X58.019557 Y39.284210 Z-0.125000
G01 X62.298452 Y39.371210 Z-0.125000
G01 X65.512648 Y39.821120 Z-0.125000
G01 X71.410170 Y41.250490 Z-0.125000
G01 X73.147492 Y41.425770 Z-0.125000
G01 X74.758349 Y40.967730 Z-0.125000
G01 X77.655156 Y39.123040 Z-0.125000
G01 X79.243708 Y38.381290 Z-0.125000
G01 X80.934464 Y38.019090 Z-0.125000
G01 X82.547978 Y38.137490 Z-0.125000
G01 X84.243896 Y38.873680 Z-0.125000
G01 X85.770946 Y40.338220 Z-0.125000
G01 X86.921157 Y42.397180 Z-0.125000
G01 X87.682852 Y44.892750 Z-0.125000
G01 X88.079539 Y47.381290 Z-0.125000
G01 X88.273722 Y50.200850 Z-0.125000
G01 X88.097133 Y65.799460 Z-0.125000
G01 X88.314825 Y70.054440 Z-0.125000
G01 X88.759230 Y73.830990 Z-0.125000
G01 X89.440976 Y77.412540 Z-0.125000
G01 X90.406127 Y81.029950 Z-0.125000
G01 X93.688894 Y90.160260 Z-0.125000
G01 X94.491289 Y92.773110 Z-0.125000
G01 X96.457228 Y101.430050 Z-0.125000
G01 X96.592768 Y102.330430 Z-0.125000
G01 X96.497158 Y102.681410 Z-0.125000
G01 X87.310950 Y103.061360 Z-0.125000
G01 X83.834151 Y103.068360 Z-0.125000
G01 X79.568790 Y102.756080 Z-0.125000
G01 X75.246087 Y102.023410 Z-0.125000
G01 X72.051138 Y101.193140 Z-0.125000
G01 X68.496795 Y99.981740 Z-0.125000
G01 X64.921701 Y98.491980 Z-0.125000
G01 X54.018928 Y93.515690 Z-0.125000
G01 X49.701137 Y91.952710 Z-0.125000
G01 X45.748503 Y90.841590 Z-0.125000
G01 X41.228609 Y89.962310 Z-0.125000
G01 X37.022445 Y89.522660 Z-0.125000
G01 X32.708463 Y89.436860 Z-0.125000
G01 X25.517524 Y89.724480 Z-0.125000
G01 X22.954096 Y89.407850 Z-0.125000
G01 X21.764486 Y88.881840 Z-0.125000
G01 X20.889510 Y88.139790 Z-0.125000
G01 X20.140898 Y86.985870 Z-0.125000
G01 X19.680954 Y85.637870 Z-0.125000
G01 X19.427624 Y83.797330 Z-0.125000
G01 X19.467514 Y81.613650 Z-0.125000
G01 X19.818036 Y79.119660 Z-0.125000
G01 X20.403793 Y76.645750 Z-0.125000
G01 X22.296803 Y71.196540 Z-0.125000
G01 X25.593153 Y63.973220 Z-0.125000
G01 X28.569206 Y58.588680 Z-0.125000
G01 X31.942147 Y53.690340 Z-0.125000
G01 X35.607166 Y49.473240 Z-0.125000
G01 X39.709921 Y45.801510 Z-0.125000
G01 X42.851036 Y43.605140 Z-0.125000
G01 X46.441369 Y41.656500 Z-0.125000
G01 X49.762831 Y40.332110 Z-0.125000
G01 X53.395669 Y39.364000 Z-0.125000
G01 X57.531909 Y38.830770 Z-0.125000
G01 X61.897319 Y38.892870 Z-0.125000
G01 X65.407652 Y39.393010 Z-0.125000
G01 X71.267429 Y40.876410 Z-0.125000
G01 X72.945404 Y41.038860 Z-0.125000
G01 X74.402379 Y40.569040 Z-0.125000
G01 X77.317781 Y38.487360 Z-0.125000
G01 X78.897461 Y37.647680 Z-0.125000
G01 X80.722702 Y37.177650 Z-0.125000
G01 X82.369549 Y37.255550 Z-0.125000
G01 X84.114539 Y37.970590 Z-0.125000
G01 X85.588858 Y39.308960 Z-0.125000
G01 X86.802026 Y41.342520 Z-0.125000
G01 X87.612291 Y43.834220 Z-0.125000
G01 X88.068978 Y46.602760 Z-0.125000
G01 X88.279201 Y50.086120 Z-0.125000
G01 X88.084165 Y61.705330 Z-0.125000
G01 X88.150925 Y66.061620 Z-0.125000
G01 X88.402601 Y69.651750 Z-0.125000
G01 X88.868008 Y73.136920 Z-0.125000
G01 X89.625393 Y76.781890 Z-0.125000
G01 X90.691194 Y80.465000 Z-0.125000
G01 X94.305937 Y89.754800 Z-0.125000
G01 X95.196596 Y92.414470 Z-0.125000
G01 X97.502684 Y101.466450 Z-0.125000
G01 X97.633508 Y102.190590 Z-0.125000
G01 X97.552638 Y102.535910 Z-0.125000
G01 X89.033299 Y103.371030 Z-0.125000
G01 X85.056706 Y103.557390 Z-0.125000
G01 X80.394058 Y103.363260 Z-0.125000
G01 X75.938523 Y102.704780 Z-0.125000
G01 X72.645781 Y101.902230 Z-0.125000
G01 X68.986377 Y100.696580 Z-0.125000
G01 X65.310633 Y99.190280 Z-0.125000
G01 X54.101096 Y94.123830 Z-0.125000
G01 X49.658895 Y92.544250 Z-0.125000
G01 X45.595788 Y91.433890 Z-0.125000
G01 X40.958601 Y90.575400 Z-0.125000
G01 X36.657250 Y90.175250 Z-0.125000
G01 X32.265124 Y90.150850 Z-0.125000
G01 X24.994085 Y90.581570 Z-0.125000
G01 X22.406247 Y90.312040 Z-0.125000
G01 X21.199395 Y89.797610 Z-0.125000
G01 X20.306022 Y89.053620 Z-0.125000
G01 X19.534403 Y87.882960 Z-0.125000
G01 X19.053156 Y86.506570 Z-0.125000
G01 X18.778272 Y84.620330 Z-0.125000
G01 X18.802182 Y82.377500 Z-0.125000
G01 X19.145336 Y79.813220 Z-0.125000
G01 X19.733700 Y77.268950 Z-0.125000
G01 X21.657987 Y71.666660 Z-0.125000
G01 X25.016492 Y64.245150 Z-0.125000
G01 X28.037106 Y58.708680 Z-0.125000
G01 X31.453806 Y53.666030 Z-0.125000
G01 X35.161731 Y49.320530 Z-0.125000
G01 X39.310050 Y45.534850 Z-0.125000
G01 X42.486153 Y43.270120 Z-0.125000
G01 X45.783705 Y41.422420 Z-0.125000
G01 X49.142762 Y40.014670 Z-0.125000
G01 X52.826877 Y38.973680 Z-0.125000
G01 X57.034044 Y38.382360 Z-0.125000
G01 X61.486420 Y38.415160 Z-0.125000
G01 X65.070036 Y38.919470 Z-0.125000
G01 X71.123044 Y40.503800 Z-0.125000
G01 X72.652147 Y40.662000 Z-0.125000
G01 X73.410585 Y40.495940 Z-0.125000
G01 X74.129022 Y40.128570 Z-0.125000
G01 X76.974250 Y37.851510 Z-0.125000
G01 X78.662200 Y36.858980 Z-0.125000
G01 X80.508543 Y36.323150 Z-0.125000
G01 X82.324160 Y36.387050 Z-0.125000
G01 X83.993261 Y37.056520 Z-0.125000
G01 X85.519759 Y38.400710 Z-0.125000
G01 X86.690823 Y40.278580 Z-0.125000
G01 X87.553018 Y42.764770 Z-0.125000
G01 X88.043789 Y45.543780 Z-0.125000
G01 X88.275315 Y49.053310 Z-0.125000
G01 X88.098224 Y60.808160 Z-0.125000
G01 X88.186084 Y65.226600 Z-0.125000
G01 X88.472045 Y68.871760 Z-0.125000
G01 X88.989383 Y72.413620 Z-0.125000
G01 X89.823909 Y76.120900 Z-0.125000
G01 X90.992767 Y79.869320 Z-0.125000
G01 X94.946052 Y89.319440 Z-0.125000
G01 X95.925991 Y92.026060 Z-0.125000
G01 X98.580496 Y101.451920 Z-0.125000
G01 X98.701299 Y102.092720 Z-0.125000
G01 X98.610639 Y102.378920 Z-0.125000
G01 X90.767979 Y103.616550 Z-0.125000
G01 X86.304475 Y104.034340 Z-0.125000
G01 X81.547791 Y104.005940 Z-0.125000
G01 X76.640733 Y103.405650 Z-0.125000
G01 X72.906995 Y102.539090 Z-0.125000
G01 X69.139773 Y101.308830 Z-0.125000
G01 X65.705279 Y99.912450 Z-0.125000
G01 X54.941450 Y95.054820 Z-0.125000
G01 X51.148967 Y93.650720 Z-0.125000
G01 X47.716026 Y92.610640 Z-0.125000
G01 X42.490126 Y91.475120 Z-0.125000
G01 X36.949240 Y90.880330 Z-0.125000
G01 X32.112609 Y90.875330 Z-0.125000
G01 X24.498065 Y91.459790 Z-0.125000
G01 X22.441900 Y91.352030 Z-0.125000
G01 X21.010790 Y90.916600 Z-0.125000
G01 X19.942482 Y90.175860 Z-0.125000
G01 X19.100237 Y89.064350 Z-0.125000
G01 X18.502099 Y87.561210 Z-0.125000
G01 X18.175185 Y85.666150 Z-0.125000
G01 X18.137835 Y83.640800 Z-0.125000
G01 X18.405051 Y81.067600 Z-0.125000
G01 X18.934017 Y78.499120 Z-0.125000
G01 X20.779958 Y72.809510 Z-0.125000
G01 X24.119767 Y65.230400 Z-0.125000
G01 X27.527996 Y58.833330 Z-0.125000
G01 X30.986199 Y53.646330 Z-0.125000
G01 X34.733572 Y49.172310 Z-0.125000
G01 X36.778509 Y47.138240 Z-0.125000
G01 X38.922994 Y45.272460 Z-0.125000
G01 X42.130624 Y42.939150 Z-0.125000
G01 X45.462312 Y41.036060 Z-0.125000
G01 X48.858310 Y39.587410 Z-0.125000
G01 X52.249447 Y38.593690 Z-0.125000
G01 X56.843477 Y37.916450 Z-0.125000
G01 X61.346629 Y37.961050 Z-0.125000
G01 X64.960469 Y38.491370 Z-0.125000
G01 X70.977338 Y40.131950 Z-0.125000
G01 X72.449300 Y40.279620 Z-0.125000
G01 X73.092750 Y40.123030 Z-0.125000
G01 X73.776351 Y39.743940 Z-0.125000
G01 X76.732254 Y37.131140 Z-0.125000
G01 X78.422560 Y36.057320 Z-0.125000
G01 X80.294466 Y35.456170 Z-0.125000
G01 X82.157501 Y35.479070 Z-0.125000
G01 X83.883095 Y36.132800 Z-0.125000
G01 X85.466082 Y37.484800 Z-0.125000
G01 X86.679250 Y39.390050 Z-0.125000
G01 X87.507260 Y41.686210 Z-0.125000
G01 X88.034221 Y44.473990 Z-0.125000
G01 X88.288052 Y48.007640 Z-0.125000
G01 X88.126751 Y59.889950 Z-0.125000
G01 X88.234716 Y64.367530 Z-0.125000
G01 X88.554662 Y68.065630 Z-0.125000
G01 X89.124480 Y71.662530 Z-0.125000
G01 X90.037451 Y75.431060 Z-0.125000
G01 X91.311571 Y79.244290 Z-0.125000
G01 X92.628246 Y82.424550 Z-0.125000
G01 X95.609412 Y88.855750 Z-0.125000
G01 X96.599018 Y91.376980 Z-0.125000
G01 X99.668158 Y101.328780 Z-0.125000
G01 X99.786048 Y101.892190 Z-0.125000
G01 X99.699748 Y102.182210 Z-0.125000
G01 X92.507419 Y103.795880 Z-0.125000
G01 X87.574949 Y104.497770 Z-0.125000
G01 X82.404386 Y104.634800 Z-0.125000
G01 X77.350964 Y104.125690 Z-0.125000
G01 X73.506148 Y103.293420 Z-0.125000
G01 X69.631460 Y102.069380 Z-0.125000
G01 X65.750154 Y100.503780 Z-0.125000
G01 X55.052891 Y95.714620 Z-0.125000
G01 X51.156899 Y94.293430 Z-0.125000
G01 X47.632130 Y93.248530 Z-0.125000
G01 X42.275153 Y92.126240 Z-0.125000
G01 X36.615925 Y91.574070 Z-0.125000
G01 X32.270915 Y91.600670 Z-0.125000
G01 X24.385498 Y92.337800 Z-0.125000
G01 X21.962219 Y92.285800 Z-0.125000
G01 X20.516724 Y91.865260 Z-0.125000
G01 X19.429719 Y91.123310 Z-0.125000
G01 X18.564016 Y89.995250 Z-0.125000
G01 X17.939763 Y88.459940 Z-0.125000
G01 X17.587687 Y86.517450 Z-0.125000
G01 X17.531657 Y84.437770 Z-0.125000
G01 X17.786140 Y81.793300 Z-0.125000
G01 X18.313052 Y79.153040 Z-0.125000
G01 X19.119357 Y76.310060 Z-0.125000
G01 X20.184006 Y73.307540 Z-0.125000
G01 X23.242716 Y66.254040 Z-0.125000
G01 X26.619516 Y59.688970 Z-0.125000
G01 X30.038723 Y54.323170 Z-0.125000
G01 X32.101404 Y51.599730 Z-0.125000
G01 X34.036367 Y49.339760 Z-0.125000
G01 X36.084061 Y47.223750 Z-0.125000
G01 X38.233459 Y45.277050 Z-0.125000
G01 X41.453419 Y42.833030 Z-0.125000
G01 X44.805508 Y40.828440 Z-0.125000
G01 X48.231531 Y39.291220 Z-0.125000
G01 X51.662918 Y38.224710 Z-0.125000
G01 X54.027049 Y37.747470 Z-0.125000
G01 X56.328274 Y37.475800 Z-0.125000
G01 X60.918744 Y37.483800 Z-0.125000
G01 X64.848120 Y38.063850 Z-0.125000
G01 X70.830453 Y39.760210 Z-0.125000
G01 X72.244971 Y39.897600 Z-0.125000
G01 X72.854337 Y39.722120 Z-0.125000
G01 X73.501147 Y39.309740 Z-0.125000
G01 X76.274746 Y36.579740 Z-0.125000
G01 X78.061090 Y35.306790 Z-0.125000
G01 X80.083020 Y34.577370 Z-0.125000
G01 X81.999438 Y34.560870 Z-0.125000
G01 X83.786985 Y35.200920 Z-0.125000
G01 X85.312931 Y36.431470 Z-0.125000
G01 X86.595521 Y38.311650 Z-0.125000
G01 X87.476914 Y40.600850 Z-0.125000
G01 X88.042271 Y43.395900 Z-0.125000
G01 X88.308132 Y46.637170 Z-0.125000
G01 X88.171192 Y58.952710 Z-0.125000
G01 X88.298057 Y63.486430 Z-0.125000
G01 X88.701461 Y67.605830 Z-0.125000
G01 X89.351578 Y71.242720 Z-0.125000
G01 X90.371516 Y75.050150 Z-0.125000
G01 X91.648192 Y78.591810 Z-0.125000
G01 X93.205566 Y82.105650 Z-0.125000
G01 X96.296005 Y88.365730 Z-0.125000
G01 X97.369030 Y90.929800 Z-0.125000
G01 X100.760220 Y101.112680 Z-0.125000
G01 X100.886930 Y101.665660 Z-0.125000
G01 X100.800730 Y101.963450 Z-0.125000
G01 X94.038754 Y103.959520 Z-0.125000
G01 X88.865484 Y104.946670 Z-0.125000
G01 X86.180355 Y105.204170 Z-0.125000
G01 X83.269162 Y105.278470 Z-0.125000
G01 X78.067271 Y104.865290 Z-0.125000
G01 X74.109776 Y104.069610 Z-0.125000
G01 X70.126316 Y102.853130 Z-0.125000
G01 X66.142355 Y101.270550 Z-0.125000
G01 X55.166750 Y96.398080 Z-0.125000
G01 X51.167501 Y94.960000 Z-0.125000
G01 X47.551355 Y93.910340 Z-0.125000
G01 X42.064955 Y92.801320 Z-0.125000
G01 X36.291243 Y92.291410 Z-0.125000
G01 X31.307143 Y92.411250 Z-0.125000
G01 X23.589193 Y93.274210 Z-0.125000
G01 X21.370673 Y93.214810 Z-0.125000
G01 X19.935954 Y92.771160 Z-0.125000
G01 X18.851758 Y91.987960 Z-0.125000
G01 X17.984600 Y90.800200 Z-0.125000
G01 X17.409369 Y89.368850 Z-0.125000
G01 X17.030275 Y87.377490 Z-0.125000
G01 X16.953835 Y85.242120 Z-0.125000
G01 X17.153632 Y82.811580 Z-0.125000
G01 X17.644454 Y80.124300 Z-0.125000
G01 X18.426148 Y77.224530 Z-0.125000
G01 X19.479368 Y74.157700 Z-0.125000
G01 X22.554268 Y66.944110 Z-0.125000
G01 X25.940743 Y60.212910 Z-0.125000
G01 X29.606963 Y54.329120 Z-0.125000
G01 X31.688391 Y51.530720 Z-0.125000
G01 X33.639145 Y49.207690 Z-0.125000
G01 X35.702427 Y47.032020 Z-0.125000
G01 X37.867614 Y45.030040 Z-0.125000
G01 X41.111433 Y42.516190 Z-0.125000
G01 X44.147687 Y40.639320 Z-0.125000
G01 X47.599123 Y39.010320 Z-0.125000
G01 X51.066750 Y37.867420 Z-0.125000
G01 X53.462610 Y37.347080 Z-0.125000
G01 X55.799975 Y37.041420 Z-0.125000
G01 X58.362400 Y36.928600 Z-0.125000
G01 X60.768436 Y37.030690 Z-0.125000
G01 X64.732247 Y37.636600 Z-0.125000
G01 X70.682700 Y39.388050 Z-0.125000
G01 X71.962985 Y39.526400 Z-0.125000
G01 X72.545986 Y39.356070 Z-0.125000
G01 X73.156755 Y38.936780 Z-0.125000
G01 X75.921783 Y35.944240 Z-0.125000
G01 X77.697902 Y34.556180 Z-0.125000
G01 X79.740484 Y33.716800 Z-0.125000
G01 X80.851698 Y33.574440 Z-0.125000
G01 X81.852939 Y33.633740 Z-0.125000
G01 X83.707903 Y34.262610 Z-0.125000
G01 X85.294049 Y35.504200 Z-0.125000
G01 X86.624359 Y37.414450 Z-0.125000
G01 X87.532869 Y39.744850 Z-0.125000
G01 X88.108400 Y42.590180 Z-0.125000
G01 X88.371104 Y45.887020 Z-0.125000
G01 X88.232810 Y57.998770 Z-0.125000
G01 X88.377269 Y62.585420 Z-0.125000
G01 X88.818117 Y66.758300 Z-0.125000
G01 X89.523220 Y70.447080 Z-0.125000
G01 X90.625763 Y74.313450 Z-0.125000
G01 X92.003140 Y77.913660 Z-0.125000
G01 X93.680813 Y81.487550 Z-0.125000
G01 X97.005587 Y87.851320 Z-0.125000
G01 X98.162315 Y90.458410 Z-0.125000
G01 X101.870490 Y100.870460 Z-0.125000
G01 X102.000920 Y101.415520 Z-0.125000
G01 X101.910420 Y101.725440 Z-0.125000
G01 X95.573113 Y104.077090 Z-0.125000
G01 X90.173372 Y105.380180 Z-0.125000
G01 X87.449848 Y105.749700 Z-0.125000
G01 X84.482466 Y105.931010 Z-0.125000
G01 X81.686309 Y105.888910 Z-0.125000
G01 X78.787898 Y105.624400 Z-0.125000
G01 X74.716220 Y104.867570 Z-0.125000
G01 X70.251111 Y103.529290 Z-0.125000
G01 X66.535468 Y102.060680 Z-0.125000
G01 X55.281772 Y97.104900 Z-0.125000
G01 X51.179616 Y95.650030 Z-0.125000
G01 X47.472694 Y94.595760 Z-0.125000
G01 X41.858777 Y93.500030 Z-0.125000
G01 X35.974489 Y93.031820 Z-0.125000
G01 X31.505822 Y93.164140 Z-0.125000
G01 X23.353741 Y94.191650 Z-0.125000
G01 X20.953520 Y94.181050 Z-0.125000
G01 X19.507172 Y93.747270 Z-0.125000
G01 X18.404480 Y92.958300 Z-0.125000
G01 X17.512160 Y91.749400 Z-0.125000
G01 X16.910963 Y90.285650 Z-0.125000
G01 X16.502999 Y88.243990 Z-0.125000
G01 X16.404299 Y86.051670 Z-0.125000
G01 X16.588707 Y83.554860 Z-0.125000
G01 X17.004643 Y81.112540 Z-0.125000
G01 X17.659722 Y78.494330 Z-0.125000
G01 X18.668181 Y75.380430 Z-0.125000
G01 X21.713356 Y68.030590 Z-0.125000
G01 X25.281834 Y60.757200 Z-0.125000
G01 X28.944546 Y54.704690 Z-0.125000
G01 X31.022615 Y51.815260 Z-0.125000
G01 X32.970461 Y49.410430 Z-0.125000
G01 X35.334643 Y46.843180 Z-0.125000
G01 X37.512963 Y44.786160 Z-0.125000
G01 X41.447450 Y41.740640 Z-0.125000
G01 X45.217178 Y39.544380 Z-0.125000
G01 X49.412214 Y37.837040 Z-0.125000
G01 X53.570308 Y36.836290 Z-0.125000
G01 X57.546451 Y36.475090 Z-0.125000
G01 X61.756424 Y36.701010 Z-0.125000
G01 X65.535576 Y37.434530 Z-0.125000
G01 X70.739120 Y39.065340 Z-0.125000
G01 X71.976199 Y39.097840 Z-0.125000
G01 X72.884208 Y38.506480 Z-0.125000
G01 X75.466782 Y35.416240 Z-0.125000
G01 X77.334729 Y33.805390 Z-0.125000
G01 X78.457672 Y33.188650 Z-0.125000
G01 X79.538260 Y32.820080 Z-0.125000
G01 X80.683911 Y32.653670 Z-0.125000
G01 X81.720941 Y32.698470 Z-0.125000
G01 X83.648888 Y33.318970 Z-0.125000
G01 X85.298892 Y34.574390 Z-0.125000
G01 X86.577021 Y36.329000 Z-0.125000
G01 X87.543677 Y38.651820 Z-0.125000
G01 X88.160060 Y41.502770 Z-0.125000
G01 X88.444968 Y44.816270 Z-0.125000
G01 X88.313141 Y57.029640 Z-0.125000
G01 X88.473590 Y61.665990 Z-0.125000
G01 X88.951127 Y65.889800 Z-0.125000
G01 X89.711319 Y69.628640 Z-0.125000
G01 X90.897420 Y73.552810 Z-0.125000
G01 X92.377000 Y77.211200 Z-0.125000
G01 X94.176828 Y80.845400 Z-0.125000
G01 X97.738037 Y87.314090 Z-0.125000
G01 X98.978469 Y89.964230 Z-0.125000
G01 X102.975560 Y100.544560 Z-0.125000
G01 X103.124840 Y101.143740 Z-0.125000
G01 X103.025340 Y101.470300 Z-0.125000
G01 X100.725720 Y102.633350 Z-0.125000
G01 X97.105207 Y104.147570 Z-0.125000
G01 X94.200237 Y105.113420 Z-0.125000
G01 X91.203431 Y105.858230 Z-0.125000
G01 X88.413490 Y106.326690 Z-0.125000
G01 X85.366961 Y106.595260 Z-0.125000
G01 X82.492259 Y106.617660 Z-0.125000
G01 X79.510842 Y106.402520 Z-0.125000
G01 X75.323476 Y105.686690 Z-0.125000
G01 X70.737517 Y104.357780 Z-0.125000
G01 X66.927789 Y102.873490 Z-0.125000
G01 X55.396552 Y97.834560 Z-0.125000
G01 X51.191942 Y96.363050 Z-0.125000
G01 X46.975804 Y95.203810 Z-0.125000
G01 X41.259884 Y94.170800 Z-0.125000
G01 X35.317851 Y93.792710 Z-0.125000
G01 X30.847730 Y94.004680 Z-0.125000
G01 X22.968780 Y95.136540 Z-0.125000
G01 X20.568207 Y95.159440 Z-0.125000
G01 X19.234540 Y94.790830 Z-0.125000
G01 X18.094253 Y94.035860 Z-0.125000
G01 X17.154816 Y92.849050 Z-0.125000
G01 X16.503947 Y91.392770 Z-0.125000
G01 X16.069316 Y89.568690 Z-0.125000
G01 X15.885959 Y87.392820 Z-0.125000
G01 X15.986462 Y84.894960 Z-0.125000
G01 X16.333124 Y82.437200 Z-0.125000
G01 X16.928204 Y79.790870 Z-0.125000
G01 X17.764234 Y76.991300 Z-0.125000
G01 X20.381195 Y70.301210 Z-0.125000
G01 X24.230120 Y62.108280 Z-0.125000
G01 X28.052579 Y55.481990 Z-0.125000
G01 X30.105537 Y52.486980 Z-0.125000
G01 X32.316387 Y49.635490 Z-0.125000
G01 X34.675204 Y46.973870 Z-0.125000
G01 X36.850015 Y44.834750 Z-0.125000
G01 X40.784302 Y41.653140 Z-0.125000
G01 X44.564206 Y39.342640 Z-0.125000
G01 X48.786009 Y37.528020 Z-0.125000
G01 X52.989216 Y36.443320 Z-0.125000
G01 X57.027061 Y36.024630 Z-0.125000
G01 X61.321745 Y36.218070 Z-0.125000
G01 X65.416030 Y37.013490 Z-0.125000
G01 X70.583886 Y38.689660 Z-0.125000
G01 X71.697357 Y38.729560 Z-0.125000
G01 X72.552785 Y38.141450 Z-0.125000
G01 X75.116312 Y34.788010 Z-0.125000
G01 X77.093180 Y32.969980 Z-0.125000
G01 X78.236324 Y32.312390 Z-0.125000
G01 X79.346035 Y31.913800 Z-0.125000
G01 X80.530081 Y31.724740 Z-0.125000
G01 X81.606208 Y31.756840 Z-0.125000
G01 X83.461223 Y32.297580 Z-0.125000
G01 X85.195787 Y33.511700 Z-0.125000
G01 X86.547751 Y35.243860 Z-0.125000
G01 X87.575558 Y37.558360 Z-0.125000
G01 X88.234698 Y40.413670 Z-0.125000
G01 X88.542463 Y43.742060 Z-0.125000
G01 X88.413142 Y56.048120 Z-0.125000
G01 X88.587827 Y60.730620 Z-0.125000
G01 X89.101254 Y65.002640 Z-0.125000
G01 X89.916482 Y68.789710 Z-0.125000
G01 X91.186892 Y72.770520 Z-0.125000
G01 X92.769980 Y76.486710 Z-0.125000
G01 X94.693616 Y80.181560 Z-0.125000
G01 X98.493027 Y86.756420 Z-0.125000
G01 X99.816978 Y89.449810 Z-0.125000
G01 X104.091500 Y100.196390 Z-0.125000
G01 X104.255310 Y100.853430 Z-0.125000
G01 X104.121790 Y101.226550 Z-0.125000
G01 X101.769490 Y102.630800 Z-0.125000
G01 X98.437488 Y104.255850 Z-0.125000
G01 X95.545738 Y105.380140 Z-0.125000
G01 X92.534394 Y106.271000 Z-0.125000
G01 X89.379696 Y106.915160 Z-0.125000
G01 X86.253519 Y107.274250 Z-0.125000
G01 X83.299621 Y107.363350 Z-0.125000
G01 X80.234294 Y107.199640 Z-0.125000
G01 X75.929886 Y106.526760 Z-0.125000
G01 X71.221974 Y105.208330 Z-0.125000
G01 X67.317812 Y103.708600 Z-0.125000
G01 X55.509886 Y98.586660 Z-0.125000
G01 X51.203323 Y97.098610 Z-0.125000
G01 X46.888288 Y95.935070 Z-0.125000
G01 X41.050966 Y94.916690 Z-0.125000
G01 X37.925641 Y94.647520 Z-0.125000
G01 X35.010088 Y94.579820 Z-0.125000
G01 X30.494153 Y94.841620 Z-0.125000
G01 X22.611343 Y96.094640 Z-0.125000
G01 X20.214831 Y96.147940 Z-0.125000
G01 X18.874095 Y95.785230 Z-0.125000
G01 X17.716816 Y95.022480 Z-0.125000
G01 X16.751565 Y93.812980 Z-0.125000
G01 X16.072375 Y92.322970 Z-0.125000
G01 X15.608020 Y90.453110 Z-0.125000
G01 X15.397497 Y88.220310 Z-0.125000
G01 X15.477097 Y85.655930 Z-0.125000
G01 X15.812983 Y83.132710 Z-0.125000
G01 X16.406158 Y80.416640 Z-0.125000
G01 X17.249456 Y77.544850 Z-0.125000
G01 X19.909123 Y70.690200 Z-0.125000
G01 X24.022355 Y61.900430 Z-0.125000
G01 X27.924012 Y55.127830 Z-0.125000
G01 X30.010502 Y52.074590 Z-0.125000
G01 X32.251527 Y49.173520 Z-0.125000
G01 X34.637313 Y46.472100 Z-0.125000
G01 X36.833476 Y44.306660 Z-0.125000
G01 X40.801147 Y41.098980 Z-0.125000
G01 X44.609672 Y38.785030 Z-0.125000
G01 X48.861299 Y36.986610 Z-0.125000
G01 X53.091122 Y35.934590 Z-0.125000
G01 X57.147914 Y35.559050 Z-0.125000
G01 X61.447259 Y35.806270 Z-0.125000
G01 X65.514327 Y36.652730 Z-0.125000
G01 X70.428603 Y38.310800 Z-0.125000
G01 X71.426836 Y38.358700 Z-0.125000
G01 X72.287026 Y37.712050 Z-0.125000
G01 X75.174609 Y33.678610 Z-0.125000
G01 X77.105263 Y31.950620 Z-0.125000
G01 X78.441437 Y31.242410 Z-0.125000
G01 X79.770995 Y30.864410 Z-0.125000
G01 X81.189423 Y30.782910 Z-0.125000
G01 X82.482991 Y30.995890 Z-0.125000
G01 X84.374046 Y31.875030 Z-0.125000
G01 X86.053072 Y33.468390 Z-0.125000
G01 X87.369949 Y35.780030 Z-0.125000
G01 X88.180916 Y38.493750 Z-0.125000
G01 X88.527128 Y40.788500 Z-0.125000
G01 X88.700459 Y43.649810 Z-0.125000
G01 X88.533092 Y54.664780 Z-0.125000
G01 X88.721160 Y59.780750 Z-0.125000
G01 X89.414384 Y64.874220 Z-0.125000
G01 X90.586802 Y69.425290 Z-0.125000
G01 X91.927336 Y73.025800 Z-0.125000
G01 X93.514485 Y76.394720 Z-0.125000
G01 X99.129158 Y85.932210 Z-0.125000
